;-- START GCODE --
;Sliced for Type A Machines Series 1
;Sliced at: Sat 03-12-2016 14:58:50
;Basic settings: Layer height: 0.2 Walls: 1.5 Fill: 20
;Print Speed: 100 Support: 0
;Retraction Speed: 40 Retraction Distance: 1.2
;Print time: #P_TIME#
;Filament used: #F_AMNT#m #F_WGHT#g
;Filament cost: #F_COST#
M106 S255	 ;start with the fan on
G21        ;metric values
G90        ;absolute positioning
M106 S255    ;start with the fan on
G28     ;move to endstops
G29		;allows for auto-levelling
G1 X150 Y5  Z15.0 F6000 ;center and move the platform down 15mm
M109 S220 ;Heat To temp
G92 E0                  ;zero the extruded length
G1 F200 E30              ;extrude 30mm of feed stock
G92 E0                  ;zero the extruded length again
G1 X175 Y25  Z0 F6000 ;remove bugger
G1 X220 F6000 ;remove bugger
G1 X150 Y150  Z15 F6000 ;recenter and begin
G1 F6000

;Layer count: 35
;LAYER:0
M106 S255
G0 F6000 X131.09 Y127.91 Z0.30
;TYPE:SKIRT
G1 F2700 X130.55 Y128.50 E0.04972
G1 X130.16 Y129.18 E0.09861
G1 X129.91 Y129.94 E0.14837
G1 X129.83 Y130.72 E0.19747
G1 X129.91 Y131.51 E0.24681
G1 X130.16 Y132.26 E0.29606
G1 X130.55 Y132.94 E0.34515
G1 X131.08 Y133.53 E0.39482
G1 X131.72 Y134.00 E0.44421
G1 X132.45 Y134.32 E0.49359
G1 X133.22 Y134.48 E0.54293
G1 X134.01 Y134.48 E0.59226
G1 X134.79 Y134.32 E0.64160
G1 X135.51 Y134.00 E0.69098
G1 X136.15 Y133.53 E0.74037
G1 X136.68 Y132.94 E0.78969
G1 X137.08 Y132.26 E0.83915
G1 X137.32 Y131.51 E0.88839
G1 X137.40 Y130.72 E0.93780
G1 X137.32 Y129.93 E0.98708
G1 X137.08 Y129.18 E1.03626
G1 X136.68 Y128.50 E1.08566
G1 X136.15 Y127.91 E1.13503
G1 X135.51 Y127.44 E1.18436
G1 X134.79 Y127.12 E1.23375
G1 X134.01 Y126.96 E1.28309
G1 X133.22 Y126.96 E1.33242
G1 X132.45 Y127.12 E1.38176
G1 X131.72 Y127.44 E1.43114
G1 X131.09 Y127.91 E1.48039
G0 F6000 X130.75 Y127.54
G1 F2700 X130.15 Y128.20 E1.53603
G1 X129.70 Y128.97 E1.59185
G1 X129.42 Y129.83 E1.64804
G1 X129.33 Y130.72 E1.70379
G1 X129.42 Y131.61 E1.75954
G1 X129.70 Y132.47 E1.81564
G1 X130.15 Y133.24 E1.87138
G1 X130.75 Y133.90 E1.92724
G1 X131.48 Y134.44 E1.98354
G1 X132.29 Y134.80 E2.03904
G1 X133.17 Y134.98 E2.09514
G1 X134.06 Y134.98 E2.15095
G1 X134.94 Y134.80 E2.20706
G1 X135.76 Y134.44 E2.26256
G1 X136.49 Y133.91 E2.31882
G1 X137.09 Y133.24 E2.37450
G1 X137.53 Y132.46 E2.43047
G1 X137.81 Y131.61 E2.48640
G1 X137.91 Y130.72 E2.54239
G1 X137.81 Y129.83 E2.59814
G1 X137.53 Y128.98 E2.65405
G1 X137.09 Y128.20 E2.70996
G1 X136.49 Y127.54 E2.76565
G1 X135.76 Y127.00 E2.82199
G1 X134.94 Y126.64 E2.87749
G1 X134.06 Y126.46 E2.93360
G1 X133.17 Y126.46 E2.98941
G1 X132.29 Y126.64 E3.04552
G1 X131.48 Y127.00 E3.10102
G1 X130.75 Y127.54 E3.15736
G0 F6000 X130.41 Y127.16
G1 F2700 X129.74 Y127.90 E3.21980
G1 X129.24 Y128.77 E3.28239
G1 X128.93 Y129.73 E3.34487
G1 X128.83 Y130.72 E3.40707
G1 X128.93 Y131.72 E3.46978
G1 X129.24 Y132.67 E3.53196
G1 X129.74 Y133.53 E3.59443
G1 X130.41 Y134.28 E3.65705
G1 X131.22 Y134.87 E3.71955
G1 X132.13 Y135.28 E3.78181
G1 X133.12 Y135.48 E3.84448
G1 X134.12 Y135.48 E3.90678
G1 X135.10 Y135.28 E3.96946
G1 X136.01 Y134.87 E4.03171
G1 X136.82 Y134.28 E4.09417
G1 X137.49 Y133.54 E4.15665
G1 X137.99 Y132.67 E4.21910
G1 X138.30 Y131.72 E4.28163
G1 X138.41 Y130.72 E4.34390
G1 X138.30 Y129.72 E4.40661
G1 X138.00 Y128.77 E4.46883
G1 X137.49 Y127.91 E4.53133
G1 X136.82 Y127.16 E4.59395
G1 X136.01 Y126.57 E4.65637
G1 X135.10 Y126.17 E4.71862
G1 X134.12 Y125.96 E4.78130
G1 X133.12 Y125.96 E4.84360
G1 X132.13 Y126.17 E4.90627
G1 X131.22 Y126.57 E4.96852
G1 X130.41 Y127.16 E5.03103
G0 F6000 X130.07 Y126.79
G1 F2700 X129.34 Y127.61 E5.09956
G1 X128.78 Y128.57 E5.16868
G1 X128.44 Y129.62 E5.23787
G1 X128.32 Y130.72 E5.30665
G1 X128.44 Y131.82 E5.37582
G1 X128.78 Y132.87 E5.44486
G1 X129.33 Y133.83 E5.51381
G1 X130.07 Y134.65 E5.58270
G1 X130.97 Y135.30 E5.65190
G1 X131.98 Y135.75 E5.72080
G1 X133.06 Y135.98 E5.78991
G1 X134.17 Y135.98 E5.85882
G1 X135.25 Y135.75 E5.92792
G1 X136.26 Y135.30 E5.99682
G1 X137.16 Y134.65 E6.06589
G1 X137.90 Y133.83 E6.13491
G1 X138.45 Y132.87 E6.20389
G1 X138.79 Y131.82 E6.27274
G1 X138.91 Y130.72 E6.34190
G1 X138.79 Y129.62 E6.41119
G1 X138.46 Y128.57 E6.47970
G1 X137.90 Y127.61 E6.54891
G1 X137.16 Y126.79 E6.61780
G1 X136.26 Y126.14 E6.68700
G1 X135.25 Y125.69 E6.75590
G1 X134.17 Y125.46 E6.82501
G1 X133.06 Y125.46 E6.89392
G1 X131.98 Y125.69 E6.96303
G1 X130.97 Y126.14 E7.03192
G1 X130.07 Y126.79 E7.10130
G0 F6000 X129.74 Y126.41
G1 F2700 X128.93 Y127.31 E7.17694
G1 X128.32 Y128.37 E7.25269
G1 X127.95 Y129.52 E7.32822
G1 X127.82 Y130.72 E7.40365
G1 X127.95 Y131.93 E7.47921
G1 X128.32 Y133.07 E7.55462
G1 X128.93 Y134.12 E7.63023
G1 X129.74 Y135.03 E7.70587
G1 X130.72 Y135.74 E7.78142
G1 X131.83 Y136.23 E7.85724
G1 X133.01 Y136.48 E7.93248
G1 X134.23 Y136.48 E8.00837
G1 X135.41 Y136.23 E8.08361
G1 X136.52 Y135.74 E8.15943
G1 X137.50 Y135.03 E8.23492
G1 X138.31 Y134.13 E8.31030
G1 X138.91 Y133.08 E8.38607
G1 X139.29 Y131.92 E8.46167
G1 X139.41 Y130.72 E8.53722
G1 X139.29 Y129.51 E8.61272
G1 X138.91 Y128.36 E8.68819
G1 X138.31 Y127.31 E8.76388
G1 X137.49 Y126.41 E8.83952
G1 X136.52 Y125.70 E8.91488
G1 X135.41 Y125.21 E8.99070
G1 X134.23 Y124.96 E9.06594
G1 X133.01 Y124.96 E9.14183
G1 X131.83 Y125.21 E9.21707
G1 X130.72 Y125.70 E9.29289
G1 X129.74 Y126.41 E9.36830
G0 F6000 X129.40 Y126.04
G1 F2700 X128.52 Y127.02 E9.45052
G1 X127.86 Y128.16 E9.53247
G1 X127.46 Y129.41 E9.61482
G1 X127.32 Y130.72 E9.69678
G1 X127.45 Y132.03 E9.77874
G1 X127.86 Y133.28 E9.86103
G1 X128.52 Y134.42 E9.94295
G1 X129.40 Y135.40 E10.02534
G1 X130.47 Y136.17 E10.10731
G1 X131.67 Y136.71 E10.18964
G1 X132.96 Y136.98 E10.27150
G1 X134.28 Y136.98 E10.35388
G1 X135.56 Y136.71 E10.43575
G1 X136.77 Y136.17 E10.51808
G1 X137.83 Y135.40 E10.60004
G1 X138.71 Y134.42 E10.68222
G1 X139.37 Y133.28 E10.76453
G1 X139.78 Y132.03 E10.84641
G1 X139.92 Y130.72 E10.92868
G1 X139.78 Y129.41 E11.01077
G1 X139.37 Y128.16 E11.09259
G1 X138.71 Y127.02 E11.17482
G1 X137.83 Y126.04 E11.25695
G1 X136.77 Y125.27 E11.33919
G1 X135.56 Y124.73 E11.42138
G1 X134.28 Y124.46 E11.50325
G1 X132.96 Y124.46 E11.58563
G1 X131.67 Y124.73 E11.66749
G1 X130.47 Y125.27 E11.74968
G1 X129.40 Y126.04 E11.83184
G0 F6000 X129.07 Y125.67
G1 F2700 X128.12 Y126.72 E11.92037
G1 X127.40 Y127.95 E12.00918
G1 X126.96 Y129.31 E12.09791
G1 X126.82 Y130.72 E12.18651
G1 X126.96 Y132.14 E12.27530
G1 X127.40 Y133.48 E12.36369
G1 X128.11 Y134.72 E12.45253
G1 X129.07 Y135.78 E12.54125
G1 X130.22 Y136.61 E12.62996
G1 X131.51 Y137.19 E12.71857
G1 X132.91 Y137.48 E12.80719
G1 X134.33 Y137.48 E12.89605
G1 X135.72 Y137.19 E12.98467
G1 X137.02 Y136.61 E13.07328
G1 X138.17 Y135.78 E13.16194
G1 X139.12 Y134.72 E13.25048
G1 X139.83 Y133.49 E13.33936
G1 X140.27 Y132.13 E13.42794
G1 X140.42 Y130.72 E13.51673
G1 X140.27 Y129.31 E13.60533
G1 X139.83 Y127.95 E13.69398
G1 X139.12 Y126.72 E13.78269
G1 X138.17 Y125.66 E13.87158
G1 X137.02 Y124.83 E13.96007
G1 X135.72 Y124.25 E14.04868
G1 X134.33 Y123.96 E14.13729
G1 X132.91 Y123.96 E14.22616
G1 X131.51 Y124.25 E14.31477
G1 X130.22 Y124.83 E14.40338
G1 X129.07 Y125.67 E14.49213
G0 F6000 X128.73 Y125.29
G1 F2700 X127.71 Y126.43 E14.58725
G1 X126.94 Y127.75 E14.68272
G1 X126.47 Y129.20 E14.77791
G1 X126.31 Y130.72 E14.87298
G1 X126.47 Y132.24 E14.96823
G1 X126.94 Y133.69 E15.06331
G1 X127.71 Y135.01 E15.15850
G1 X128.73 Y136.15 E15.25405
G1 X129.96 Y137.04 E15.34902
G1 X131.36 Y137.67 E15.44455
G1 X132.85 Y137.98 E15.53953
G1 X134.38 Y137.98 E15.63489
G1 X135.87 Y137.67 E15.72987
G1 X137.27 Y137.04 E15.82540
G1 X138.50 Y136.15 E15.92033
G1 X139.53 Y135.01 E16.01580
G1 X140.29 Y133.69 E16.11102
G1 X140.76 Y132.24 E16.20634
G1 X140.92 Y130.72 E16.30147
G1 X140.76 Y129.20 E16.39660
G1 X140.29 Y127.75 E16.49165
G1 X139.53 Y126.43 E16.58693
G1 X138.50 Y125.29 E16.68231
G1 X137.27 Y124.40 E16.77741
G1 X135.87 Y123.77 E16.87294
G1 X134.38 Y123.46 E16.96793
G1 X132.85 Y123.46 E17.06328
G1 X131.36 Y123.77 E17.15827
G1 X129.96 Y124.40 E17.25380
G1 X128.73 Y125.29 E17.34899
G0 F6000 X128.39 Y124.92
G1 F2700 X127.30 Y126.13 E17.45086
G1 X126.48 Y127.55 E17.55287
G1 X125.98 Y129.10 E17.65457
G1 X125.81 Y130.72 E17.75621
G1 X125.98 Y132.34 E17.85798
G1 X126.48 Y133.90 E17.95976
G1 X127.30 Y135.31 E18.06140
G1 X128.40 Y136.52 E18.16349
G1 X129.71 Y137.48 E18.26502
G1 X131.21 Y138.15 E18.36695
G1 X132.80 Y138.48 E18.46870
G1 X134.43 Y138.48 E18.57054
G1 X136.03 Y138.15 E18.67229
G1 X137.52 Y137.48 E18.77421
G1 X138.84 Y136.52 E18.87574
G1 X139.93 Y135.31 E18.97756
G1 X140.75 Y133.89 E19.07951
G1 X141.25 Y132.34 E19.18122
G1 X141.42 Y130.72 E19.28305
G1 X141.25 Y129.09 E19.38488
G1 X140.75 Y127.55 E19.48625
G1 X139.93 Y126.13 E19.58834
G1 X138.84 Y124.92 E19.69025
G1 X137.52 Y123.96 E19.79178
G1 X136.03 Y123.30 E19.89370
G1 X134.43 Y122.96 E19.99545
G1 X132.80 Y122.96 E20.09729
G1 X131.21 Y123.30 E20.19904
G1 X129.71 Y123.96 E20.30097
G1 X128.39 Y124.92 E20.40254
G0 F6000 X128.06 Y124.55
G1 F2700 X126.89 Y125.84 E20.51081
G1 X126.03 Y127.34 E20.61916
G1 X125.49 Y128.99 E20.72753
G1 X125.31 Y130.72 E20.83577
G1 X125.49 Y132.45 E20.94419
G1 X126.02 Y134.10 E21.05230
G1 X126.89 Y135.60 E21.16059
G1 X128.05 Y136.89 E21.26882
G1 X129.47 Y137.92 E21.37767
G1 X131.05 Y138.62 E21.48585
G1 X132.75 Y138.98 E21.59411
G1 X134.49 Y138.98 E21.70256
G1 X136.19 Y138.62 E21.81082
G1 X137.77 Y137.92 E21.91900
G1 X139.18 Y136.89 E22.02785
G1 X140.34 Y135.61 E22.13559
G1 X141.21 Y134.10 E22.24425
G1 X141.75 Y132.45 E22.35250
G1 X141.93 Y130.72 E22.46092
G1 X141.75 Y128.99 E22.56916
G1 X141.21 Y127.34 E22.67739
G1 X140.34 Y125.83 E22.78605
G1 X139.18 Y124.55 E22.89388
G1 X137.77 Y123.52 E23.00273
G1 X136.19 Y122.82 E23.11091
G1 X134.49 Y122.46 E23.21917
G1 X132.75 Y122.46 E23.32762
G1 X131.05 Y122.82 E23.43588
G1 X129.47 Y123.52 E23.54406
G1 X128.06 Y124.55 E23.65272
G0 F6000 X127.72 Y124.17
G1 F2700 X126.49 Y125.54 E23.76730
G1 X125.57 Y127.14 E23.88241
G1 X125.00 Y128.89 E23.99717
G1 X124.81 Y130.72 E24.11211
G1 X125.00 Y132.55 E24.22710
G1 X125.57 Y134.30 E24.34186
G1 X126.49 Y135.90 E24.45675
G1 X127.72 Y137.27 E24.57155
G1 X129.21 Y138.35 E24.68679
G1 X130.89 Y139.10 E24.80136
G1 X132.70 Y139.48 E24.91637
G1 X134.54 Y139.48 E25.03130
G1 X136.34 Y139.10 E25.14631
G1 X138.02 Y138.35 E25.26088
G1 X139.51 Y137.27 E25.37589
G1 X140.75 Y135.90 E25.49079
G1 X141.67 Y134.30 E25.60587
G1 X142.24 Y132.55 E25.72050
G1 X142.43 Y130.72 E25.83556
G1 X142.24 Y128.88 E25.95062
G1 X141.67 Y127.14 E26.06497
G1 X140.75 Y125.54 E26.18008
G1 X139.51 Y124.17 E26.29510
G1 X138.02 Y123.09 E26.41011
G1 X136.34 Y122.34 E26.52468
G1 X134.54 Y121.96 E26.63969
G1 X132.70 Y121.96 E26.75463
G1 X130.89 Y122.34 E26.86964
G1 X129.21 Y123.09 E26.98421
G1 X127.72 Y124.17 E27.09949
G0 F6000 X127.38 Y123.80
G1 F2700 X126.08 Y125.25 E27.22097
G1 X125.11 Y126.94 E27.34261
G1 X124.50 Y128.79 E27.46398
G1 X124.30 Y130.72 E27.58526
G1 X124.50 Y132.66 E27.70666
G1 X125.11 Y134.51 E27.82803
G1 X126.08 Y136.19 E27.94939
G1 X127.38 Y137.64 E28.07078
G1 X128.96 Y138.79 E28.19252
G1 X130.74 Y139.58 E28.31396
G1 X132.65 Y139.98 E28.43548
G1 X134.59 Y139.98 E28.55678
G1 X136.50 Y139.58 E28.67829
G1 X138.28 Y138.79 E28.79974
G1 X139.85 Y137.64 E28.92148
G1 X141.15 Y136.20 E29.04234
G1 X142.13 Y134.51 E29.16413
G1 X142.73 Y132.66 E29.28561
G1 X142.93 Y130.72 E29.40702
G1 X142.73 Y128.79 E29.52823
G1 X142.13 Y126.93 E29.64973
G1 X141.15 Y125.24 E29.77141
G1 X139.85 Y123.80 E29.89253
G1 X138.28 Y122.65 E30.01419
G1 X136.50 Y121.86 E30.13563
G1 X134.59 Y121.46 E30.25715
G1 X132.65 Y121.46 E30.37844
G1 X130.74 Y121.86 E30.49996
G1 X128.96 Y122.65 E30.62140
G1 X127.38 Y123.80 E30.74288
G0 F6000 X127.05 Y123.42
G1 F2700 X125.67 Y124.95 E30.87102
G1 X124.65 Y126.73 E30.99918
G1 X124.01 Y128.68 E31.12711
G1 X123.80 Y130.72 E31.25503
G1 X124.01 Y132.76 E31.38295
G1 X124.65 Y134.71 E31.51082
G1 X125.67 Y136.49 E31.63890
G1 X127.05 Y138.02 E31.76717
G1 X128.71 Y139.22 E31.89494
G1 X130.58 Y140.06 E32.02300
G1 X132.59 Y140.48 E32.15115
G1 X134.64 Y140.48 E32.27893
G1 X136.65 Y140.06 E32.40707
G1 X138.53 Y139.22 E32.53513
G1 X140.19 Y138.02 E32.66290
G1 X141.56 Y136.49 E32.79100
G1 X142.59 Y134.71 E32.91905
G1 X143.22 Y132.76 E33.04710
G1 X143.44 Y130.72 E33.17502
G1 X143.22 Y128.68 E33.30300
G1 X142.59 Y126.73 E33.43079
G1 X141.56 Y124.95 E33.55890
G1 X140.19 Y123.42 E33.68713
G1 X138.53 Y122.22 E33.81490
G1 X136.65 Y121.38 E33.94296
G1 X134.64 Y120.96 E34.07110
G1 X132.59 Y120.96 E34.19889
G1 X130.58 Y121.38 E34.32703
G1 X128.71 Y122.22 E34.45509
G1 X127.05 Y123.42 E34.58286
G0 F6000 X126.71 Y123.05
G1 F2700 X125.27 Y124.65 E34.71710
G1 X124.19 Y126.52 E34.85191
G1 X123.52 Y128.57 E34.98633
G1 X123.30 Y130.72 E35.12096
G1 X123.52 Y132.87 E35.25565
G1 X124.19 Y134.91 E35.38982
G1 X125.27 Y136.79 E35.52465
G1 X126.71 Y138.39 E35.65906
G1 X128.46 Y139.66 E35.79389
G1 X130.43 Y140.53 E35.92818
G1 X132.54 Y140.98 E36.06301
G1 X134.69 Y140.98 E36.19728
G1 X136.81 Y140.53 E36.33212
G1 X138.78 Y139.66 E36.46640
G1 X140.53 Y138.39 E36.60123
G1 X141.97 Y136.79 E36.73543
G1 X143.05 Y134.92 E36.87032
G1 X143.71 Y132.87 E37.00466
G1 X143.94 Y130.72 E37.13929
G1 X143.71 Y128.57 E37.27405
G1 X143.05 Y126.53 E37.40800
G1 X141.97 Y124.65 E37.54300
G1 X140.53 Y123.05 E37.67737
G1 X138.78 Y121.78 E37.81220
G1 X136.81 Y120.91 E37.94649
G1 X134.69 Y120.46 E38.08132
G1 X132.54 Y120.46 E38.21559
G1 X130.43 Y120.91 E38.35043
G1 X128.46 Y121.78 E38.48471
G1 X126.71 Y123.05 E38.61954
G0 F6000 X126.38 Y122.68
G1 F2700 X124.86 Y124.36 E38.76058
G1 X123.75 Y126.28 E38.89932
G1 X123.73 Y126.32 E38.90184
G1 X123.04 Y128.43 E39.04048
G1 X123.03 Y128.47 E39.04279
G1 X122.79 Y130.72 E39.18406
G1 X123.03 Y132.97 E39.32527
G1 X123.72 Y135.08 E39.46369
G1 X123.73 Y135.12 E39.46606
G1 X124.84 Y137.05 E39.60477
G1 X124.86 Y137.08 E39.60737
G1 X126.38 Y138.76 E39.74859
G1 X128.21 Y140.09 E39.88967
G1 X130.27 Y141.01 E40.03057
G1 X132.49 Y141.48 E40.17197
G1 X134.75 Y141.48 E40.31285
G1 X136.97 Y141.01 E40.45425
G1 X139.03 Y140.09 E40.59515
G1 X140.86 Y138.76 E40.73623
G1 X142.37 Y137.08 E40.87723
G1 X143.49 Y135.16 E41.01600
G1 X143.50 Y135.12 E41.01852
G1 X144.19 Y133.01 E41.15714
G1 X144.20 Y132.97 E41.15945
G1 X144.44 Y130.72 E41.30072
G1 X144.20 Y128.47 E41.44193
G1 X143.52 Y126.36 E41.58047
G1 X143.51 Y126.32 E41.58270
G1 X142.39 Y124.39 E41.72153
G1 X142.37 Y124.36 E41.72405
G1 X140.86 Y122.68 E41.86522
G1 X139.03 Y121.35 E42.00630
G1 X136.97 Y120.43 E42.14720
G1 X134.75 Y119.96 E42.28860
G1 X132.49 Y119.96 E42.42948
G1 X130.27 Y120.43 E42.57088
G1 X128.21 Y121.35 E42.71178
G1 X126.38 Y122.68 E42.85286
G0 F6000 X124.28 Y120.66
G1 F2700 X124.79 Y120.21 E42.89497
G1 X124.97 Y120.06 E42.90999
G1 X125.08 Y120.07 E42.91655
G1 X125.08 Y119.97 E42.92241
G1 X125.86 Y119.41 E42.98285
G1 X125.95 Y119.42 E42.98844
G1 X125.98 Y119.31 E42.99541
G1 X126.76 Y118.83 E43.05239
G1 X127.35 Y118.51 E43.09487
G1 X127.56 Y118.40 E43.10934
G1 X127.67 Y118.44 E43.11625
G1 X127.70 Y118.35 E43.12189
G1 X128.56 Y117.96 E43.18097
G1 X128.66 Y118.00 E43.18768
G1 X128.71 Y117.90 E43.19479
G1 X129.49 Y117.63 E43.24625
G1 X130.23 Y117.42 E43.29405
G1 X130.45 Y117.36 E43.30851
G1 X130.55 Y117.42 E43.31547
G1 X130.61 Y117.33 E43.32201
G1 X131.54 Y117.16 E43.38113
G1 X131.61 Y117.22 E43.38684
G1 X131.69 Y117.13 E43.39389
G1 X132.59 Y117.03 E43.45070
G1 X133.26 Y117.00 E43.49266
G1 X133.50 Y116.99 E43.50751
G1 X133.59 Y117.07 E43.51466
G1 X133.65 Y117.01 E43.51991
G1 X134.04 Y117.00 E43.54455
G1 X134.60 Y117.03 E43.57965
G1 X134.67 Y117.11 E43.58593
G1 X134.76 Y117.04 E43.59290
G1 X135.58 Y117.14 E43.64452
G1 X136.32 Y117.27 E43.69160
G1 X136.56 Y117.31 E43.70670
G1 X136.62 Y117.41 E43.71379
G1 X136.71 Y117.35 E43.72023
G1 X137.62 Y117.59 E43.77892
G1 X137.67 Y117.69 E43.78537
G1 X137.77 Y117.64 E43.79240
G1 X138.55 Y117.92 E43.84398
G1 X139.17 Y118.17 E43.88544
G1 X139.47 Y118.30 E43.90597
G1 X139.51 Y118.41 E43.91310
G1 X139.60 Y118.38 E43.91871
G1 X140.44 Y118.81 E43.97811
G1 X140.47 Y118.91 E43.98463
G1 X140.58 Y118.89 E43.99147
G1 X141.28 Y119.33 E44.04315
G1 X141.90 Y119.78 E44.09096
G1 X142.09 Y119.92 E44.10538
G1 X142.10 Y120.03 E44.11226
G1 X142.21 Y120.02 E44.11878
G1 X142.92 Y120.63 E44.17755
G1 X142.93 Y120.73 E44.18404
G1 X143.04 Y120.74 E44.19103
G1 X143.68 Y121.38 E44.24783
G1 X144.12 Y121.89 E44.28981
G1 X144.28 Y122.07 E44.30472
G1 X144.27 Y122.19 E44.31184
G1 X144.35 Y122.20 E44.31711
G1 X144.66 Y122.57 E44.34703
G1 X144.93 Y122.96 E44.37680
G1 X144.91 Y123.06 E44.38301
G1 X145.02 Y123.08 E44.39000
G1 X145.50 Y123.86 E44.44687
G1 X145.83 Y124.46 E44.48940
G1 X145.93 Y124.66 E44.50388
G1 X145.91 Y124.76 E44.50993
G1 X145.99 Y124.79 E44.51571
G1 X146.38 Y125.67 E44.57544
G1 X146.34 Y125.76 E44.58182
G1 X146.44 Y125.82 E44.58902
G1 X146.71 Y126.59 E44.64033
G1 X146.92 Y127.33 E44.68808
G1 X146.97 Y127.56 E44.70254
G1 X146.92 Y127.65 E44.70958
G1 X147.00 Y127.71 E44.71612
G1 X147.18 Y128.63 E44.77472
G1 X147.12 Y128.72 E44.78114
G1 X147.21 Y128.79 E44.78819
G1 X147.30 Y129.69 E44.84506
G1 X147.34 Y130.37 E44.88702
G1 X147.34 Y130.60 E44.90187
G1 X147.29 Y130.66 E44.90664
G1 X147.34 Y130.68 E44.91005
G1 X147.31 Y131.70 E44.97370
G1 X147.23 Y131.77 E44.98016
G1 X147.30 Y131.86 E44.98718
G1 X147.20 Y132.68 E45.03880
G1 X147.07 Y133.43 E45.08588
G1 X147.03 Y133.66 E45.10092
G1 X146.93 Y133.73 E45.10804
G1 X146.98 Y133.80 E45.11339
G1 X146.85 Y134.34 E45.14800
G1 X146.73 Y134.74 E45.17376
G1 X146.65 Y134.77 E45.17898
G1 X146.70 Y134.88 E45.18593
G1 X146.56 Y135.27 E45.21200
G1 X147.00 Y135.27 E45.23919
G1 X146.93 Y135.54 E45.25681
G1 X147.30 Y136.15 E45.30108
G1 X147.62 Y136.62 E45.33638
G1 X147.69 Y136.73 E45.34446
G1 X148.06 Y136.80 E45.36818
G1 X148.01 Y137.16 E45.39054
G1 X148.34 Y137.57 E45.42355
G1 X148.69 Y137.60 E45.44548
G1 X148.68 Y137.98 E45.46889
G1 X149.09 Y138.44 E45.50739
G1 X149.62 Y138.97 E45.55458
G1 X149.65 Y139.00 E45.55687
G1 X150.02 Y139.02 E45.58035
G1 X150.04 Y139.36 E45.60152
G1 X150.44 Y139.70 E45.63410
G1 X150.77 Y139.67 E45.65534
G1 X150.84 Y140.03 E45.67864
G1 X151.35 Y140.42 E45.71826
G1 X151.35 Y140.42 E45.71833
G1 X151.97 Y140.84 E45.76472
G1 X152.00 Y140.86 E45.76702
G1 X152.37 Y140.81 E45.79050
G1 X152.45 Y141.14 E45.81165
G1 X152.90 Y141.40 E45.84418
G1 X153.25 Y141.30 E45.86679
G1 X153.37 Y141.65 E45.89036
G1 X154.01 Y141.96 E45.93429
G1 X154.61 Y142.22 E45.97508
G1 X154.66 Y142.24 E45.97846
G1 X155.01 Y142.12 E46.00193
G1 X155.16 Y142.43 E46.02314
G1 X155.66 Y142.60 E46.05663
G1 X155.97 Y142.44 E46.07858
G1 X156.16 Y142.76 E46.10152
G1 X156.84 Y142.94 E46.14524
G1 X157.47 Y143.08 E46.18597
G1 X157.47 Y143.08 E46.18603
G1 X157.53 Y143.09 E46.18953
G1 X157.85 Y142.91 E46.21288
G1 X158.05 Y143.18 E46.23402
G1 X158.57 Y143.25 E46.26653
G1 X158.85 Y143.03 E46.28910
G1 X159.10 Y143.32 E46.31279
G1 X159.72 Y143.36 E46.35112
G1 X160.46 Y143.38 E46.39741
G1 X160.50 Y143.38 E46.40003
G1 X160.71 Y143.18 E46.41811
G1 X160.93 Y143.56 E46.44586
G1 X161.11 Y143.35 E46.46303
G1 X161.21 Y143.25 E46.47220
G1 X161.31 Y143.24 E46.47877
G1 X161.31 Y143.15 E46.48439
G1 X161.99 Y142.47 E46.54427
G1 X162.08 Y142.47 E46.54995
G1 X162.09 Y142.36 E46.55683
G1 X162.72 Y141.82 E46.60846
G1 X163.32 Y141.37 E46.65567
G1 X163.52 Y141.22 E46.67072
G1 X163.63 Y141.24 E46.67766
G1 X163.64 Y141.16 E46.68281
G1 X163.98 Y140.92 E46.70838
G1 X164.45 Y140.64 E46.74268
G1 X164.54 Y140.66 E46.74887
G1 X164.58 Y140.56 E46.75589
G1 X165.31 Y140.17 E46.80746
G1 X166.01 Y139.85 E46.85516
G1 X166.22 Y139.76 E46.86972
G1 X166.32 Y139.80 E46.87661
G1 X166.37 Y139.71 E46.88281
G1 X166.88 Y139.52 E46.91700
G1 X167.27 Y139.41 E46.94257
G1 X167.35 Y139.45 E46.94778
G1 X167.41 Y139.35 E46.95488
G1 X168.29 Y139.12 E47.01173
G1 X168.95 Y138.99 E47.05370
G1 X169.19 Y138.94 E47.06891
G1 X169.28 Y139.00 E47.07560
G1 X169.34 Y138.92 E47.08192
G1 X170.27 Y138.82 E47.14073
G1 X170.35 Y138.88 E47.14714
G1 X170.43 Y138.80 E47.15411
G1 X171.34 Y138.78 E47.21095
G1 X172.02 Y138.79 E47.25350
G1 X172.25 Y138.81 E47.26798
G1 X172.33 Y138.88 E47.27486
G1 X172.41 Y138.82 E47.28132
G1 X173.43 Y138.93 E47.34516
G1 X173.44 Y138.99 E47.34850
G1 X173.50 Y138.94 E47.35322
G1 X174.31 Y139.10 E47.40471
G1 X175.05 Y139.29 E47.45239
G1 X175.28 Y139.35 E47.46698
G1 X175.34 Y139.45 E47.47391
G1 X175.41 Y139.41 E47.47923
G1 X175.94 Y139.57 E47.51360
G1 X176.32 Y139.71 E47.53888
G1 X176.36 Y139.81 E47.54511
G1 X176.46 Y139.76 E47.55206
G1 X177.30 Y140.13 E47.60893
G1 X177.81 Y140.40 E47.64527
G1 X178.10 Y140.56 E47.66583
G1 X178.14 Y140.66 E47.67284
G1 X178.24 Y140.64 E47.67928
G1 X179.04 Y141.14 E47.73804
G1 X179.06 Y141.24 E47.74445
G1 X179.17 Y141.22 E47.75150
G1 X179.83 Y141.72 E47.80318
G1 X180.34 Y142.14 E47.84459
G1 X180.59 Y142.36 E47.86528
G1 X180.60 Y142.47 E47.87229
G1 X180.69 Y142.47 E47.87759
G1 X181.09 Y142.85 E47.91223
G1 X181.37 Y143.16 E47.93811
G1 X181.37 Y143.24 E47.94323
G1 X181.48 Y143.25 E47.95011
G1 X182.02 Y143.88 E48.00182
G1 X182.48 Y144.48 E48.04899
G1 X182.62 Y144.68 E48.06396
G1 X182.60 Y144.78 E48.07089
G1 X182.68 Y144.80 E48.07610
G1 X182.92 Y145.13 E48.10167
G1 X183.21 Y145.61 E48.13597
G1 X183.18 Y145.70 E48.14224
G1 X183.29 Y145.74 E48.14932
G1 X183.67 Y146.47 E48.20081
G1 X183.99 Y147.17 E48.24858
G1 X184.08 Y147.38 E48.26315
G1 X184.04 Y147.49 E48.26996
G1 X184.12 Y147.52 E48.27563
G1 X184.44 Y148.43 E48.33531
G1 X184.40 Y148.51 E48.34106
G1 X184.49 Y148.56 E48.34808
G1 X184.72 Y149.45 E48.40492
G1 X184.85 Y150.11 E48.44688
G1 X184.90 Y150.34 E48.46179
G1 X184.86 Y150.40 E48.46643
G1 X184.91 Y150.42 E48.46979
G1 X185.02 Y151.43 E48.53356
G1 X184.96 Y151.51 E48.54006
G1 X185.04 Y151.59 E48.54707
G1 X185.07 Y152.50 E48.60385
G1 X185.05 Y153.18 E48.64633
G1 X185.04 Y153.41 E48.66082
G1 X184.96 Y153.49 E48.66774
G1 X185.02 Y153.57 E48.67429
G1 X184.92 Y154.50 E48.73304
G1 X184.84 Y154.56 E48.73942
G1 X184.90 Y154.66 E48.74625
G1 X184.74 Y155.47 E48.79802
G1 X184.55 Y156.21 E48.84571
G1 X184.49 Y156.44 E48.86015
G1 X184.39 Y156.49 E48.86716
G1 X184.44 Y156.57 E48.87282
G1 X184.12 Y157.48 E48.93260
G1 X184.04 Y157.52 E48.93838
G1 X184.08 Y157.62 E48.94525
G1 X183.71 Y158.45 E49.00212
G1 X183.44 Y158.97 E49.03844
G1 X183.29 Y159.26 E49.05900
G1 X183.18 Y159.30 E49.06600
G1 X183.21 Y159.40 E49.07258
G1 X182.69 Y160.20 E49.13200
G1 X182.60 Y160.22 E49.13753
G1 X182.62 Y160.33 E49.14439
G1 X182.12 Y160.99 E49.19603
G1 X181.70 Y161.50 E49.23749
G1 X181.48 Y161.75 E49.25822
G1 X181.37 Y161.76 E49.26516
G1 X181.37 Y161.85 E49.27078
G1 X180.69 Y162.53 E49.33066
G1 X180.60 Y162.53 E49.33628
G1 X180.59 Y162.64 E49.34316
G1 X179.96 Y163.18 E49.39483
G1 X179.36 Y163.63 E49.44204
G1 X179.17 Y163.78 E49.45710
G1 X179.06 Y163.76 E49.46403
G1 X179.04 Y163.86 E49.47032
G1 X178.64 Y164.12 E49.49979
G1 X178.24 Y164.36 E49.52932
G1 X178.14 Y164.34 E49.53551
G1 X178.10 Y164.44 E49.54259
G1 X177.37 Y164.83 E49.59416
G1 X176.68 Y165.15 E49.64191
G1 X176.46 Y165.24 E49.65653
G1 X176.36 Y165.20 E49.66336
G1 X176.32 Y165.29 E49.66956
G1 X175.80 Y165.48 E49.70376
G1 X175.41 Y165.59 E49.72932
G1 X175.34 Y165.55 E49.73451
G1 X175.28 Y165.65 E49.74152
G1 X174.40 Y165.88 E49.79843
G1 X173.74 Y166.01 E49.84033
G1 X173.50 Y166.06 E49.85524
G1 X173.44 Y166.01 E49.85996
G1 X173.42 Y166.07 E49.86338
G1 X172.41 Y166.18 E49.92715
G1 X172.33 Y166.12 E49.93356
G1 X172.25 Y166.20 E49.94053
G1 X171.34 Y166.22 E49.99737
G1 X170.66 Y166.21 E50.03992
G1 X170.43 Y166.19 E50.05440
G1 X170.35 Y166.12 E50.06128
G1 X170.27 Y166.18 E50.06774
G1 X169.26 Y166.07 E50.13158
G1 X169.24 Y166.01 E50.13486
G1 X169.18 Y166.06 E50.13950
G1 X168.37 Y165.90 E50.19105
G1 X167.63 Y165.71 E50.23872
G1 X167.41 Y165.65 E50.25319
G1 X167.35 Y165.55 E50.26015
G1 X167.27 Y165.59 E50.26554
G1 X166.74 Y165.43 E50.29990
G1 X166.37 Y165.29 E50.32518
G1 X166.32 Y165.19 E50.33141
G1 X166.22 Y165.24 E50.33836
G1 X165.39 Y164.87 E50.39517
G1 X164.87 Y164.60 E50.43152
G1 X164.58 Y164.44 E50.45208
G1 X164.54 Y164.34 E50.45908
G1 X164.44 Y164.36 E50.46566
G1 X163.64 Y163.85 E50.52508
G1 X163.62 Y163.76 E50.53061
G1 X163.51 Y163.78 E50.53754
G1 X162.85 Y163.28 E50.58921
G1 X162.34 Y162.86 E50.63067
G1 X162.09 Y162.64 E50.65132
G1 X162.08 Y162.53 E50.65826
G1 X161.99 Y162.53 E50.66363
G1 X161.59 Y162.15 E50.69827
G1 X161.31 Y161.84 E50.72414
G1 X161.31 Y161.76 E50.72926
G1 X161.20 Y161.75 E50.73614
G1 X160.93 Y161.43 E50.76228
G1 X160.71 Y161.81 E50.78958
G1 X160.50 Y161.61 E50.80749
G1 X159.88 Y161.63 E50.84642
G1 X159.15 Y161.68 E50.89179
G1 X159.10 Y161.68 E50.89492
G1 X158.85 Y161.97 E50.91861
G1 X158.57 Y161.74 E50.94121
G1 X158.05 Y161.82 E50.97373
G1 X157.86 Y162.10 E50.99493
G1 X157.53 Y161.91 E51.01837
G1 X156.92 Y162.04 E51.05715
G1 X156.19 Y162.23 E51.10427
G1 X156.16 Y162.24 E51.10621
G1 X155.97 Y162.56 E51.12913
G1 X155.66 Y162.40 E51.15094
G1 X155.16 Y162.57 E51.18447
G1 X155.01 Y162.88 E51.20562
G1 X154.66 Y162.76 E51.22919
G1 X154.61 Y162.78 E51.23249
G1 X154.08 Y163.01 E51.26867
G1 X154.08 Y163.01 E51.26873
G1 X153.40 Y163.33 E51.31528
G1 X153.40 Y163.33 E51.31535
G1 X153.38 Y163.34 E51.31730
G1 X153.25 Y163.70 E51.34079
G1 X152.90 Y163.60 E51.36353
G1 X152.45 Y163.86 E51.39589
G1 X152.37 Y164.19 E51.41708
G1 X152.00 Y164.14 E51.44044
G1 X151.41 Y164.54 E51.48505
G1 X150.95 Y164.88 E51.52043
G1 X150.84 Y164.96 E51.52893
G1 X150.77 Y165.33 E51.55235
G1 X150.44 Y165.30 E51.57358
G1 X150.04 Y165.64 E51.60603
G1 X150.03 Y165.98 E51.62714
G1 X149.65 Y166.00 E51.65062
G1 X149.15 Y166.50 E51.69445
G1 X148.76 Y166.92 E51.73052
G1 X148.67 Y167.03 E51.73908
G1 X148.67 Y167.40 E51.76241
G1 X148.33 Y167.43 E51.78353
G1 X148.01 Y167.84 E51.81612
G1 X148.06 Y168.20 E51.83856
G1 X147.69 Y168.27 E51.86215
G1 X147.34 Y168.79 E51.90124
G1 X146.95 Y169.41 E51.94688
G1 X146.93 Y169.45 E51.94965
G1 X147.00 Y169.73 E51.96751
G1 X146.56 Y169.73 E51.99458
G1 X146.62 Y169.91 E52.00618
G1 X146.70 Y170.13 E52.02069
G1 X146.65 Y170.23 E52.02767
G1 X146.73 Y170.27 E52.03328
G1 X146.98 Y171.19 E52.09305
G1 X146.93 Y171.27 E52.09879
G1 X147.03 Y171.34 E52.10575
G1 X147.17 Y172.15 E52.15746
G1 X147.27 Y172.90 E52.20450
G1 X147.30 Y173.14 E52.21956
G1 X147.23 Y173.22 E52.22587
G1 X147.30 Y173.28 E52.23170
G1 X147.34 Y174.24 E52.29142
G1 X147.27 Y174.31 E52.29791
G1 X147.33 Y174.38 E52.30400
G1 X147.34 Y174.53 E52.31330
G1 X147.30 Y175.31 E52.36156
G1 X147.23 Y175.98 E52.40400
G1 X147.21 Y176.21 E52.41851
G1 X147.12 Y176.28 E52.42542
G1 X147.18 Y176.37 E52.43190
G1 X147.01 Y177.29 E52.49054
G1 X146.92 Y177.35 E52.49708
G1 X146.97 Y177.45 E52.50409
G1 X146.73 Y178.32 E52.56087
G1 X146.54 Y178.88 E52.59722
G1 X146.44 Y179.19 E52.61779
G1 X146.33 Y179.24 E52.62482
G1 X146.37 Y179.32 E52.63018
G1 X146.17 Y179.83 E52.66454
G1 X145.99 Y180.21 E52.69091
G1 X145.91 Y180.24 E52.69641
G1 X145.94 Y180.34 E52.70253
G1 X145.50 Y181.14 E52.75945
G1 X145.15 Y181.72 E52.80200
G1 X145.02 Y181.92 E52.81639
G1 X144.91 Y181.94 E52.82332
G1 X144.93 Y182.05 E52.82991
G1 X144.36 Y182.81 E52.88912
G1 X144.27 Y182.81 E52.89470
G1 X144.28 Y182.93 E52.90164
G1 X143.73 Y183.55 E52.95336
G1 X143.20 Y184.10 E53.00121
G1 X143.03 Y184.26 E53.01559
G1 X142.93 Y184.26 E53.02226
G1 X142.94 Y184.36 E53.02808
G1 X142.21 Y184.98 E53.08795
G1 X142.10 Y184.97 E53.09435
G1 X142.09 Y185.08 E53.10142
G1 X141.35 Y185.62 E53.15832
G1 X140.78 Y185.98 E53.20032
G1 X140.58 Y186.11 E53.21532
G1 X140.47 Y186.09 E53.22202
G1 X140.44 Y186.18 E53.22834
G1 X139.96 Y186.45 E53.26261
G1 X139.59 Y186.62 E53.28820
G1 X139.51 Y186.59 E53.29341
G1 X139.47 Y186.70 E53.30042
G1 X138.71 Y187.02 E53.35202
G1 X138.00 Y187.28 E53.39909
G1 X137.77 Y187.36 E53.41410
G1 X137.67 Y187.31 E53.42122
G1 X137.62 Y187.40 E53.42747
G1 X137.10 Y187.55 E53.46131
G1 X136.71 Y187.65 E53.48644
G1 X136.62 Y187.59 E53.49260
G1 X136.56 Y187.69 E53.49964
G1 X135.75 Y187.84 E53.55136
G1 X135.00 Y187.93 E53.59833
G1 X134.76 Y187.96 E53.61339
G1 X134.67 Y187.89 E53.62050
G1 X134.60 Y187.97 E53.62678
G1 X134.04 Y188.00 E53.66169
G1 X133.65 Y187.99 E53.68639
G1 X133.59 Y187.93 E53.69181
G1 X133.50 Y188.01 E53.69897
G1 X132.59 Y187.97 E53.75565
G1 X131.91 Y187.90 E53.79815
G1 X131.69 Y187.87 E53.81254
G1 X131.61 Y187.78 E53.81954
G1 X131.54 Y187.84 E53.82525
G1 X130.60 Y187.67 E53.88447
G1 X130.55 Y187.58 E53.89107
G1 X130.45 Y187.64 E53.89802
G1 X129.57 Y187.40 E53.95480
G1 X129.02 Y187.21 E53.99120
G1 X128.71 Y187.10 E54.01170
G1 X128.66 Y187.00 E54.01872
G1 X128.56 Y187.04 E54.02543
G1 X127.70 Y186.65 E54.08460
G1 X127.67 Y186.56 E54.09023
G1 X127.56 Y186.60 E54.09725
G1 X126.76 Y186.17 E54.15398
G1 X126.17 Y185.81 E54.19663
G1 X125.98 Y185.68 E54.21111
G1 X125.95 Y185.58 E54.21802
G1 X125.86 Y185.59 E54.22360
G1 X125.09 Y185.04 E54.28281
G1 X125.08 Y184.93 E54.28933
G1 X124.97 Y184.94 E54.29621
G1 X124.35 Y184.40 E54.34801
G1 X123.79 Y183.86 E54.39582
G1 X123.63 Y183.70 E54.41020
G1 X123.63 Y183.59 E54.41706
G1 X123.53 Y183.58 E54.42368
G1 X122.91 Y182.85 E54.48303
G1 X122.92 Y182.77 E54.48855
G1 X122.81 Y182.75 E54.49543
G1 X122.28 Y182.01 E54.55240
G1 X121.91 Y181.45 E54.59435
G1 X121.79 Y181.24 E54.60924
G1 X121.81 Y181.13 E54.61626
G1 X121.73 Y181.11 E54.62163
G1 X121.48 Y180.70 E54.65161
G1 X121.27 Y180.27 E54.68134
G1 X121.31 Y180.17 E54.68761
G1 X121.20 Y180.13 E54.69461
G1 X120.87 Y179.37 E54.74617
G1 X120.61 Y178.66 E54.79332
G1 X120.54 Y178.44 E54.80796
G1 X120.58 Y178.33 E54.81531
G1 X120.50 Y178.28 E54.82148
G1 X120.34 Y177.76 E54.85552
G1 X120.26 Y177.36 E54.88119
G1 X120.30 Y177.29 E54.88635
G1 X120.21 Y177.22 E54.89334
G1 X120.06 Y176.41 E54.94507
G1 X119.97 Y175.66 E54.99203
G1 X119.94 Y175.42 E55.00710
G1 X120.01 Y175.33 E55.01421
G1 X119.93 Y175.26 E55.02067
G1 X119.89 Y174.32 E55.07939
G1 X119.97 Y174.25 E55.08579
G1 X119.90 Y174.18 E55.09192
G1 X119.89 Y174.03 E55.10122
G1 X119.93 Y173.25 E55.14949
G1 X120.00 Y172.58 E55.19192
G1 X120.03 Y172.35 E55.20643
G1 X120.11 Y172.28 E55.21335
G1 X120.05 Y172.19 E55.21982
G1 X120.23 Y171.27 E55.27847
G1 X120.32 Y171.21 E55.28501
G1 X120.26 Y171.11 E55.29201
G1 X120.50 Y170.24 E55.34879
G1 X120.69 Y169.68 E55.38514
G1 X120.80 Y169.38 E55.40538
G1 X120.90 Y169.32 E55.41266
G1 X120.86 Y169.23 E55.41884
G1 X121.07 Y168.72 E55.45292
G1 X121.25 Y168.36 E55.47855
G1 X121.33 Y168.33 E55.48384
G1 X121.30 Y168.22 E55.49080
G1 X121.73 Y167.42 E55.54758
G1 X122.09 Y166.84 E55.59027
G1 X122.22 Y166.64 E55.60473
G1 X122.32 Y166.62 E55.61158
G1 X122.30 Y166.51 E55.61823
G1 X122.88 Y165.75 E55.67735
G1 X122.96 Y165.75 E55.68288
G1 X122.95 Y165.63 E55.68982
G1 X123.50 Y165.01 E55.74157
G1 X124.03 Y164.46 E55.78938
G1 X124.20 Y164.30 E55.80376
G1 X124.31 Y164.30 E55.81068
G1 X124.31 Y164.21 E55.81611
G1 X124.72 Y163.83 E55.85054
G1 X125.03 Y163.58 E55.87579
G1 X125.13 Y163.59 E55.88194
G1 X125.15 Y163.48 E55.88895
G1 X125.89 Y162.94 E55.94588
G1 X126.45 Y162.58 E55.98793
G1 X126.66 Y162.45 E56.00292
G1 X126.76 Y162.47 E56.00963
G1 X126.79 Y162.38 E56.01597
G1 X127.27 Y162.11 E56.05018
G1 X127.64 Y161.94 E56.07571
G1 X127.72 Y161.97 E56.08092
G1 X127.77 Y161.86 E56.08794
G1 X128.53 Y161.54 E56.13953
G1 X129.24 Y161.28 E56.18667
G1 X129.46 Y161.20 E56.20168
G1 X129.57 Y161.25 E56.20885
G1 X129.62 Y161.16 E56.21524
G1 X130.52 Y160.91 E56.27390
G1 X130.61 Y160.96 E56.28029
G1 X130.67 Y160.87 E56.28728
G1 X131.09 Y160.80 E56.31333
G1 X130.87 Y160.42 E56.34049
G1 X131.14 Y160.34 E56.35821
G1 X131.44 Y159.79 E56.39731
G1 X131.76 Y159.14 E56.44266
G1 X131.79 Y159.08 E56.44632
G1 X131.68 Y158.72 E56.46966
G1 X131.99 Y158.60 E56.49073
G1 X132.19 Y158.10 E56.52374
G1 X132.04 Y157.78 E56.54565
G1 X132.38 Y157.61 E56.56930
G1 X132.57 Y157.01 E56.60835
G1 X132.77 Y156.29 E56.65486
G1 X132.76 Y156.29 E56.65492
G1 X132.77 Y156.26 E56.65684
G1 X132.73 Y156.19 E56.66246
G1 X132.08 Y156.19 E56.70256
G1 X132.08 Y153.89 E56.84599
G1 X133.16 Y153.89 E56.91334
G1 X133.21 Y153.33 E56.94806
G1 X133.21 Y153.30 E56.95000
G1 X132.96 Y153.01 E56.97387
G1 X133.22 Y152.76 E56.99659
G1 X133.23 Y152.50 E57.01306
G1 X133.22 Y152.24 E57.02890
G1 X132.96 Y151.99 E57.05158
G1 X133.21 Y151.70 E57.07524
G1 X133.16 Y151.01 E57.11856
G1 X133.16 Y150.99 E57.12000
G1 X132.08 Y150.99 E57.18686
G1 X132.08 Y148.49 E57.34276
G1 X132.70 Y148.49 E57.38143
G1 X132.59 Y148.05 E57.40931
G1 X132.42 Y147.51 E57.44471
G1 X132.38 Y147.38 E57.45311
G1 X132.05 Y147.20 E57.47660
G1 X132.19 Y146.89 E57.49792
G1 X132.07 Y146.57 E57.51911
G1 X132.00 Y146.40 E57.53040
G1 X131.68 Y146.28 E57.55167
G1 X131.79 Y145.92 E57.57494
G1 X131.51 Y145.35 E57.61460
G1 X131.20 Y144.77 E57.65514
G1 X131.14 Y144.66 E57.66293
G1 X130.86 Y144.58 E57.68099
G1 X131.08 Y144.20 E57.70832
G1 X130.68 Y144.13 E57.73425
G1 X130.61 Y144.03 E57.74138
G1 X130.52 Y144.09 E57.74781
G1 X129.61 Y143.85 E57.80649
G1 X129.56 Y143.75 E57.81294
G1 X129.46 Y143.80 E57.81994
G1 X128.68 Y143.52 E57.87158
G1 X128.07 Y143.27 E57.91304
G1 X127.77 Y143.14 E57.93357
G1 X127.72 Y143.03 E57.94071
G1 X127.64 Y143.06 E57.94631
G1 X126.79 Y142.63 E58.00560
G1 X126.77 Y142.53 E58.01212
G1 X126.66 Y142.55 E58.01902
G1 X125.96 Y142.10 E58.07075
G1 X125.33 Y141.66 E58.11847
G1 X125.15 Y141.52 E58.13294
G1 X125.13 Y141.41 E58.13982
G1 X125.03 Y141.42 E58.14615
G1 X124.61 Y141.07 E58.18025
G1 X124.31 Y140.79 E58.20592
G1 X124.31 Y140.71 E58.21116
G1 X124.20 Y140.70 E58.21821
G1 X123.56 Y140.06 E58.27496
G1 X123.11 Y139.55 E58.31699
G1 X122.96 Y139.37 E58.33189
G1 X122.96 Y139.25 E58.33902
G1 X122.88 Y139.24 E58.34423
G1 X122.58 Y138.87 E58.37414
G1 X122.30 Y138.48 E58.40387
G1 X122.32 Y138.38 E58.41014
G1 X122.21 Y138.36 E58.41711
G1 X121.73 Y137.58 E58.47402
G1 X121.41 Y136.98 E58.51660
G1 X121.30 Y136.78 E58.53066
G1 X121.33 Y136.67 E58.53778
G1 X121.24 Y136.64 E58.54402
G1 X121.00 Y136.13 E58.57890
G1 X120.87 Y135.76 E58.60367
G1 X120.90 Y135.68 E58.60895
G1 X120.80 Y135.63 E58.61578
G1 X120.53 Y134.85 E58.66747
G1 X120.32 Y134.11 E58.71514
G1 X120.26 Y133.89 E58.72963
G1 X120.32 Y133.79 E58.73673
G1 X120.23 Y133.73 E58.74327
G1 X120.05 Y132.81 E58.80186
G1 X120.11 Y132.72 E58.80829
G1 X120.03 Y132.65 E58.81529
G1 X119.93 Y131.75 E58.87216
G1 X119.90 Y131.08 E58.91400
G1 X119.89 Y130.98 E58.92024
G1 X119.90 Y130.83 E58.92954
G1 X119.97 Y130.75 E58.93594
G1 X119.89 Y130.68 E58.94233
G1 X119.93 Y129.74 E59.00112
G1 X120.01 Y129.67 E59.00757
G1 X119.94 Y129.58 E59.01453
G1 X120.04 Y128.76 E59.06623
G1 X120.16 Y128.01 E59.11337
G1 X120.21 Y127.78 E59.12843
G1 X120.30 Y127.71 E59.13541
G1 X120.26 Y127.64 E59.14068
G1 X120.38 Y127.10 E59.17528
G1 X120.51 Y126.70 E59.20109
G1 X120.58 Y126.67 E59.20631
G1 X120.53 Y126.56 E59.21326
G1 X120.81 Y125.78 E59.26490
G1 X121.07 Y125.17 E59.30636
G1 X121.20 Y124.87 E59.32694
G1 X121.31 Y124.83 E59.33401
G1 X121.27 Y124.73 E59.34060
G1 X121.71 Y123.89 E59.39929
G1 X121.81 Y123.87 E59.40550
G1 X121.79 Y123.75 E59.41265
G1 X122.23 Y123.06 E59.46408
G1 X122.68 Y122.43 E59.51195
G1 X122.82 Y122.25 E59.52644
G1 X122.92 Y122.23 E59.53320
G1 X122.92 Y122.15 E59.53865
G1 X123.53 Y121.42 E59.59797
G1 X123.63 Y121.41 E59.60453
G1 X123.63 Y121.30 E59.61157
G1 X124.28 Y120.66 E59.66837
G0 F6000 X123.60 Y119.93
G1 F2700 X124.08 Y119.51 E59.70814
G1 X124.08 Y119.46 E59.71101
G1 X124.47 Y119.18 E59.74099
G1 X124.64 Y119.04 E59.75502
G1 X124.67 Y119.04 E59.75653
G1 X125.08 Y118.73 E59.78877
G1 X125.10 Y118.68 E59.79224
G1 X125.53 Y118.42 E59.82374
G1 X125.63 Y118.34 E59.83142
G1 X125.64 Y118.35 E59.83224
G1 X126.25 Y117.97 E59.87712
G1 X126.89 Y117.62 E59.92222
G1 X126.90 Y117.62 E59.92311
G1 X126.90 Y117.61 E59.92337
G1 X126.96 Y117.59 E59.92719
G1 X127.47 Y117.33 E59.96270
G1 X127.50 Y117.34 E59.96498
G1 X127.98 Y117.13 E59.99758
G1 X128.00 Y117.09 E60.00023
G1 X128.27 Y116.99 E60.01818
G1 X128.55 Y116.87 E60.03741
G1 X128.59 Y116.88 E60.04006
G1 X129.19 Y116.68 E60.07970
G1 X129.97 Y116.45 E60.13024
G1 X129.99 Y116.45 E60.13126
G1 X130.00 Y116.42 E60.13320
G1 X130.32 Y116.37 E60.15316
G1 X130.60 Y116.30 E60.17128
G1 X130.62 Y116.31 E60.17316
G1 X131.13 Y116.22 E60.20547
G1 X131.17 Y116.18 E60.20884
G1 X131.65 Y116.13 E60.23907
G1 X131.78 Y116.10 E60.24756
G1 X131.80 Y116.11 E60.24850
G1 X132.51 Y116.04 E60.29352
G1 X133.22 Y116.00 E60.33760
G1 X133.87 Y115.98 E60.37810
G1 X133.90 Y116.00 E60.38053
G1 X134.06 Y116.00 E60.39051
G1 X134.43 Y116.02 E60.41393
G1 X134.47 Y116.00 E60.41638
G1 X134.87 Y116.05 E60.44175
G1 X135.08 Y116.06 E60.45499
G1 X135.09 Y116.07 E60.45623
G1 X135.72 Y116.15 E60.49573
G1 X136.50 Y116.28 E60.54490
G1 X136.53 Y116.29 E60.54687
G1 X136.56 Y116.27 E60.54878
G1 X136.81 Y116.34 E60.56486
G1 X137.15 Y116.40 E60.58674
G1 X137.18 Y116.44 E60.58939
G1 X137.68 Y116.58 E60.62212
G1 X137.72 Y116.56 E60.62474
G1 X138.04 Y116.67 E60.64618
G1 X138.30 Y116.74 E60.66266
G1 X138.31 Y116.77 E60.66464
G1 X138.91 Y116.98 E60.70423
G1 X139.56 Y117.25 E60.74781
G1 X139.67 Y117.30 E60.75541
G1 X139.68 Y117.30 E60.75586
G1 X139.75 Y117.33 E60.76099
G1 X140.24 Y117.55 E60.79443
G1 X140.26 Y117.60 E60.79765
G1 X140.72 Y117.83 E60.83014
G1 X140.77 Y117.82 E60.83282
G1 X141.01 Y117.98 E60.85071
G1 X141.29 Y118.12 E60.87082
G1 X141.31 Y118.17 E60.87360
G1 X141.84 Y118.50 E60.91266
G1 X142.50 Y118.97 E60.96312
G1 X142.50 Y118.98 E60.96392
G1 X142.53 Y118.98 E60.96568
G1 X142.78 Y119.19 E60.98606
G1 X143.01 Y119.37 E61.00404
G1 X143.01 Y119.39 E61.00568
G1 X143.42 Y119.74 E61.03907
G1 X143.46 Y119.74 E61.04162
G1 X143.69 Y119.97 E61.06195
G1 X143.90 Y120.16 E61.07955
G1 X143.91 Y120.19 E61.08167
G1 X144.41 Y120.70 E61.12648
G1 X144.88 Y121.24 E61.17084
G1 X145.30 Y121.73 E61.21151
G1 X145.30 Y121.77 E61.21382
G1 X145.46 Y121.96 E61.22920
G1 X145.62 Y122.19 E61.24693
G1 X145.66 Y122.20 E61.24943
G1 X145.89 Y122.59 E61.27748
G1 X145.99 Y122.73 E61.28831
G1 X145.99 Y122.74 E61.28927
G1 X146.37 Y123.36 E61.33413
G1 X146.71 Y123.99 E61.37891
G1 X146.74 Y124.00 E61.38065
G1 X146.88 Y124.31 E61.40224
G1 X147.00 Y124.57 E61.41998
G1 X147.00 Y124.59 E61.42148
G1 X147.22 Y125.11 E61.45661
G1 X147.26 Y125.13 E61.45909
G1 X147.35 Y125.41 E61.47755
G1 X147.47 Y125.66 E61.49506
G1 X147.45 Y125.69 E61.49715
G1 X147.66 Y126.29 E61.53671
G1 X147.88 Y127.07 E61.58713
G1 X147.89 Y127.09 E61.58847
G1 X147.91 Y127.10 E61.58987
G1 X147.96 Y127.38 E61.60714
G1 X148.04 Y127.70 E61.62803
G1 X148.03 Y127.73 E61.62982
G1 X148.12 Y128.24 E61.66252
G1 X148.16 Y128.27 E61.66527
G1 X148.19 Y128.61 E61.68653
G1 X148.25 Y128.87 E61.70323
G1 X148.22 Y128.90 E61.70532
G1 X148.30 Y129.62 E61.75047
G1 X148.32 Y130.02 E61.77544
G1 X148.37 Y130.04 E61.77871
G1 X148.35 Y130.64 E61.81603
G1 X148.36 Y130.97 E61.83700
G1 X148.33 Y131.00 E61.83943
G1 X148.31 Y131.53 E61.87269
G1 X148.34 Y131.57 E61.87531
G1 X148.30 Y131.90 E61.89635
G1 X148.29 Y132.17 E61.91314
G1 X148.26 Y132.19 E61.91517
G1 X148.19 Y132.83 E61.95492
G1 X148.05 Y133.60 E62.00410
G1 X147.93 Y134.25 E62.04527
G1 X147.91 Y134.27 E62.04715
G1 X148.26 Y134.27 E62.06892
G1 X148.00 Y135.38 E62.13983
G1 X148.11 Y135.56 E62.15340
G1 X148.14 Y135.61 E62.15668
G1 X148.29 Y135.83 E62.17319
G1 X149.19 Y136.01 E62.23051
G1 X149.10 Y136.64 E62.27020
G1 X149.73 Y136.70 E62.30986
G1 X149.69 Y137.61 E62.36685
G1 X149.82 Y137.76 E62.37934
G1 X150.08 Y138.02 E62.40223
G1 X150.97 Y138.06 E62.45768
G1 X151.00 Y138.64 E62.49372
G1 X151.59 Y138.59 E62.53030
G1 X151.75 Y139.47 E62.58641
G1 X151.93 Y139.60 E62.60030
G1 X152.24 Y139.81 E62.62358
G1 X153.12 Y139.69 E62.67913
G1 X153.26 Y140.25 E62.71511
G1 X153.88 Y140.07 E62.75545
G1 X154.18 Y140.94 E62.81257
G1 X154.44 Y141.06 E62.83011
G1 X154.69 Y141.17 E62.84757
G1 X155.54 Y140.87 E62.90364
G1 X155.79 Y141.41 E62.94084
G1 X156.36 Y141.12 E62.98092
G1 X156.82 Y141.90 E63.03725
G1 X157.08 Y141.97 E63.05417
G1 X157.37 Y142.03 E63.07255
G1 X158.14 Y141.59 E63.12821
G1 X158.48 Y142.06 E63.16431
G1 X158.98 Y141.66 E63.20437
G1 X159.59 Y142.35 E63.26147
G1 X159.79 Y142.36 E63.27441
G1 X160.10 Y142.37 E63.29357
G1 X160.92 Y141.55 E63.36580
G1 X161.12 Y141.91 E63.39111
G1 X161.12 Y141.87 E63.39343
G1 X161.45 Y141.59 E63.42041
G1 X161.59 Y141.45 E63.43219
G1 X161.61 Y141.45 E63.43368
G1 X162.09 Y141.04 E63.47296
G1 X162.72 Y140.56 E63.52267
G1 X163.26 Y140.18 E63.56372
G1 X163.29 Y140.18 E63.56574
G1 X163.43 Y140.08 E63.57620
G1 X163.74 Y139.90 E63.59905
G1 X163.75 Y139.86 E63.60148
G1 X164.13 Y139.66 E63.62842
G1 X164.29 Y139.56 E63.63992
G1 X164.31 Y139.57 E63.64095
G1 X164.87 Y139.27 E63.68056
G1 X165.60 Y138.94 E63.73077
G1 X165.62 Y138.94 E63.73144
G1 X165.62 Y138.92 E63.73233
G1 X165.81 Y138.85 E63.74518
G1 X166.21 Y138.69 E63.77172
G1 X166.23 Y138.70 E63.77354
G1 X166.57 Y138.57 E63.79570
G1 X166.73 Y138.52 E63.80642
G1 X166.75 Y138.49 E63.80919
G1 X168.06 Y138.15 E63.89355
G1 X168.76 Y138.01 E63.93781
G1 X168.78 Y138.00 E63.93882
G1 X168.79 Y137.98 E63.94078
G1 X169.10 Y137.94 E63.95998
G1 X169.41 Y137.89 E63.97964
G1 X169.44 Y137.91 E63.98175
G1 X169.96 Y137.85 E64.01432
G1 X169.99 Y137.82 E64.01684
G1 X170.31 Y137.81 E64.03718
G1 X170.59 Y137.78 E64.05488
G1 X170.62 Y137.80 E64.05700
G1 X171.34 Y137.78 E64.10186
G1 X172.06 Y137.79 E64.14684
G1 X172.07 Y137.80 E64.14759
G1 X172.09 Y137.78 E64.14949
G1 X172.40 Y137.81 E64.16870
G1 X172.70 Y137.82 E64.18768
G1 X172.73 Y137.85 E64.18967
G1 X173.25 Y137.91 E64.22274
G1 X173.29 Y137.88 E64.22558
G1 X173.64 Y137.95 E64.24796
G1 X174.22 Y138.02 E64.28449
G1 X174.24 Y138.07 E64.28777
G1 X174.53 Y138.13 E64.30634
G1 X175.31 Y138.32 E64.35652
G1 X175.94 Y138.50 E64.39715
G1 X175.96 Y138.53 E64.39947
G1 X176.26 Y138.62 E64.41936
G1 X176.45 Y138.70 E64.43217
G1 X176.49 Y138.68 E64.43458
G1 X176.91 Y138.87 E64.46342
G1 X177.06 Y138.93 E64.47337
G1 X177.07 Y138.94 E64.47418
G1 X177.73 Y139.23 E64.51927
G1 X178.28 Y139.51 E64.55779
G1 X178.38 Y139.57 E64.56471
G1 X178.40 Y139.56 E64.56658
G1 X178.64 Y139.71 E64.58381
G1 X178.93 Y139.86 E64.60457
G1 X178.94 Y139.90 E64.60694
G1 X179.39 Y140.18 E64.64000
G1 X179.44 Y140.17 E64.64277
G1 X179.72 Y140.38 E64.66442
G1 X179.94 Y140.52 E64.68079
G1 X179.94 Y140.55 E64.68282
G1 X180.45 Y140.93 E64.72234
G1 X180.99 Y141.38 E64.76592
G1 X181.56 Y141.87 E64.81274
G1 X181.56 Y141.92 E64.81562
G1 X181.81 Y142.15 E64.83667
G1 X181.93 Y142.28 E64.84793
G1 X181.97 Y142.28 E64.85069
G1 X182.80 Y143.25 E64.92992
G1 X183.28 Y143.88 E64.97962
G1 X183.66 Y144.42 E65.02041
G1 X183.66 Y144.44 E65.02224
G1 X183.76 Y144.59 E65.03297
G1 X183.95 Y144.90 E65.05588
G1 X183.99 Y144.91 E65.05836
G1 X184.18 Y145.29 E65.08522
G1 X184.28 Y145.45 E65.09672
G1 X184.28 Y145.47 E65.09775
G1 X184.57 Y146.03 E65.13733
G1 X184.91 Y146.77 E65.18793
G1 X184.91 Y146.78 E65.18854
G1 X184.92 Y146.78 E65.18943
G1 X184.98 Y146.96 E65.20105
G1 X185.15 Y147.37 E65.22884
G1 X185.14 Y147.41 E65.23117
G1 X185.31 Y147.88 E65.26255
G1 X185.35 Y147.91 E65.26610
G1 X185.47 Y148.35 E65.29440
G1 X185.52 Y148.50 E65.30450
G1 X185.51 Y148.52 E65.30570
G1 X185.70 Y149.22 E65.35094
G1 X185.77 Y149.61 E65.37567
G1 X185.82 Y149.62 E65.37889
G1 X185.89 Y150.22 E65.41636
G1 X185.96 Y150.56 E65.43781
G1 X185.93 Y150.59 E65.44019
G1 X185.99 Y151.11 E65.47302
G1 X186.02 Y151.14 E65.47566
G1 X186.03 Y151.48 E65.49644
G1 X186.07 Y151.75 E65.51376
G1 X186.04 Y151.78 E65.51589
G1 X186.07 Y152.50 E65.56075
G1 X186.05 Y153.22 E65.60567
G1 X186.05 Y153.23 E65.60648
G1 X186.07 Y153.25 E65.60838
G1 X186.03 Y153.56 E65.62765
G1 X186.02 Y153.86 E65.64663
G1 X185.99 Y153.89 E65.64861
G1 X185.93 Y154.41 E65.68150
G1 X185.96 Y154.44 E65.68393
G1 X185.90 Y154.76 E65.70406
G1 X185.86 Y155.05 E65.72207
G1 X185.84 Y155.07 E65.72417
G1 X185.72 Y155.69 E65.76367
G1 X185.52 Y156.47 E65.81375
G1 X185.51 Y156.49 E65.81518
G1 X185.52 Y156.50 E65.81587
G1 X185.48 Y156.61 E65.82313
G1 X185.35 Y157.09 E65.85451
G1 X185.31 Y157.12 E65.85756
G1 X185.14 Y157.60 E65.88931
G1 X185.16 Y157.65 E65.89265
G1 X184.99 Y158.02 E65.91789
G1 X184.92 Y158.22 E65.93102
G1 X184.90 Y158.23 E65.93267
G1 X184.61 Y158.88 E65.97736
G1 X184.33 Y159.43 E66.01585
G1 X184.28 Y159.53 E66.02277
G1 X184.28 Y159.57 E66.02522
G1 X184.12 Y159.83 E66.04449
G1 X183.98 Y160.09 E66.06285
G1 X183.94 Y160.10 E66.06534
G1 X183.66 Y160.54 E66.09810
G1 X183.66 Y160.60 E66.10137
G1 X183.37 Y160.99 E66.13215
G1 X183.30 Y161.10 E66.14037
G1 X183.28 Y161.10 E66.14120
G1 X182.91 Y161.61 E66.18040
G1 X182.46 Y162.15 E66.22407
G1 X182.38 Y162.24 E66.23164
G1 X182.38 Y162.25 E66.23245
G1 X182.29 Y162.35 E66.24069
G1 X181.97 Y162.72 E66.27124
G1 X181.92 Y162.72 E66.27443
G1 X181.56 Y163.08 E66.30574
G1 X181.56 Y163.13 E66.30931
G1 X181.23 Y163.41 E66.33647
G1 X181.09 Y163.55 E66.34807
G1 X181.07 Y163.55 E66.34951
G1 X180.59 Y163.96 E66.38888
G1 X179.96 Y164.44 E66.43854
G1 X179.94 Y164.45 E66.43992
G1 X179.94 Y164.46 E66.44062
G1 X179.77 Y164.57 E66.45290
G1 X179.42 Y164.82 E66.47979
G1 X179.40 Y164.82 E66.48137
G1 X179.18 Y164.97 E66.49806
G1 X178.94 Y165.11 E66.51498
G1 X178.93 Y165.14 E66.51735
G1 X178.52 Y165.35 E66.54600
G1 X178.39 Y165.44 E66.55592
G1 X178.37 Y165.43 E66.55676
G1 X177.81 Y165.73 E66.59636
G1 X177.08 Y166.06 E66.64671
G1 X177.06 Y166.07 E66.64752
G1 X177.06 Y166.08 E66.64833
G1 X176.86 Y166.15 E66.66143
G1 X176.47 Y166.31 E66.68776
G1 X176.45 Y166.31 E66.68950
G1 X176.12 Y166.43 E66.71152
G1 X175.95 Y166.47 E66.72210
G1 X175.93 Y166.51 E66.72484
G1 X174.62 Y166.85 E66.80939
G1 X174.23 Y166.93 E66.83412
G1 X174.22 Y166.98 E66.83734
G1 X173.62 Y167.05 E66.87450
G1 X173.28 Y167.11 E66.89607
G1 X173.25 Y167.09 E66.89846
G1 X172.73 Y167.15 E66.93154
G1 X172.70 Y167.18 E66.93414
G1 X172.37 Y167.19 E66.95473
G1 X172.09 Y167.22 E66.97212
G1 X172.06 Y167.20 E66.97424
G1 X171.34 Y167.22 E67.01917
G1 X170.62 Y167.21 E67.06415
G1 X170.61 Y167.20 E67.06490
G1 X170.59 Y167.22 E67.06680
G1 X170.28 Y167.19 E67.08601
G1 X169.98 Y167.18 E67.10499
G1 X169.96 Y167.15 E67.10697
G1 X169.43 Y167.09 E67.13986
G1 X169.39 Y167.12 E67.14273
G1 X169.03 Y167.05 E67.16555
G1 X168.46 Y166.98 E67.20183
G1 X168.44 Y166.93 E67.20512
G1 X168.15 Y166.87 E67.22368
G1 X167.37 Y166.68 E67.27393
G1 X166.75 Y166.50 E67.31432
G1 X166.73 Y166.47 E67.31655
G1 X166.42 Y166.38 E67.33670
G1 X166.23 Y166.30 E67.34951
G1 X166.19 Y166.32 E67.35191
G1 X165.77 Y166.13 E67.38076
G1 X165.62 Y166.07 E67.39071
G1 X165.62 Y166.06 E67.39152
G1 X164.95 Y165.77 E67.43661
G1 X164.41 Y165.49 E67.47507
G1 X164.31 Y165.43 E67.48199
G1 X164.27 Y165.44 E67.48438
G1 X164.01 Y165.28 E67.50351
G1 X163.75 Y165.14 E67.52201
G1 X163.74 Y165.10 E67.52449
G1 X163.30 Y164.82 E67.55698
G1 X163.25 Y164.83 E67.56051
G1 X162.83 Y164.51 E67.59285
G1 X162.74 Y164.46 E67.59961
G1 X162.74 Y164.44 E67.60031
G1 X162.23 Y164.07 E67.63968
G1 X161.69 Y163.62 E67.68335
G1 X161.13 Y163.13 E67.73013
G1 X161.12 Y163.10 E67.73213
G1 X160.94 Y163.42 E67.75527
G1 X160.11 Y162.62 E67.82659
G1 X159.91 Y162.63 E67.83894
G1 X159.59 Y162.65 E67.85950
G1 X158.98 Y163.34 E67.91660
G1 X158.48 Y162.95 E67.95649
G1 X158.15 Y163.42 E67.99241
G1 X157.37 Y162.97 E68.04848
G1 X157.16 Y163.01 E68.06181
G1 X156.81 Y163.10 E68.08399
G1 X156.36 Y163.87 E68.13967
G1 X155.79 Y163.59 E68.17927
G1 X155.55 Y164.13 E68.21645
G1 X154.69 Y163.83 E68.27299
G1 X154.51 Y163.91 E68.28542
G1 X154.18 Y164.06 E68.30796
G1 X153.89 Y164.92 E68.36443
G1 X153.26 Y164.74 E68.40468
G1 X153.13 Y165.31 E68.44088
G1 X152.24 Y165.18 E68.49673
G1 X151.99 Y165.35 E68.51551
G1 X151.75 Y165.53 E68.53401
G1 X151.58 Y166.41 E68.58989
G1 X151.01 Y166.36 E68.62590
G1 X150.98 Y166.92 E68.66136
G1 X150.09 Y166.98 E68.71740
G1 X149.87 Y167.19 E68.73653
G1 X149.67 Y167.41 E68.75494
G1 X149.67 Y168.30 E68.81057
G1 X149.09 Y168.36 E68.84661
G1 X149.19 Y168.99 E68.88644
G1 X148.29 Y169.17 E68.94375
G1 X148.18 Y169.33 E68.95569
G1 X148.00 Y169.63 E68.97722
G1 X148.25 Y170.73 E69.04795
G1 X147.91 Y170.73 E69.06941
G1 X147.94 Y170.75 E69.07138
G1 X148.01 Y171.17 E69.09819
G1 X148.06 Y171.35 E69.10988
G1 X148.05 Y171.37 E69.11137
G1 X148.16 Y172.00 E69.15099
G1 X148.26 Y172.78 E69.20023
G1 X148.26 Y172.80 E69.20117
G1 X148.29 Y172.81 E69.20294
G1 X148.30 Y173.08 E69.21960
G1 X148.34 Y173.44 E69.24194
G1 X148.31 Y173.47 E69.24438
G1 X148.36 Y174.63 E69.31697
G1 X148.34 Y174.65 E69.31891
G1 X148.30 Y175.38 E69.36423
G1 X148.23 Y176.10 E69.40911
G1 X148.23 Y176.11 E69.40994
G1 X148.24 Y176.13 E69.41172
G1 X148.19 Y176.43 E69.43088
G1 X148.15 Y176.74 E69.44993
G1 X148.12 Y176.76 E69.45179
G1 X148.03 Y177.28 E69.48486
G1 X148.05 Y177.31 E69.48751
G1 X147.96 Y177.64 E69.50867
G1 X147.91 Y177.90 E69.52517
G1 X147.88 Y177.92 E69.52716
G1 X147.69 Y178.62 E69.57242
G1 X147.49 Y179.21 E69.61107
G1 X147.24 Y179.91 E69.65747
G1 X147.21 Y179.92 E69.65998
G1 X147.09 Y180.22 E69.67994
G1 X147.00 Y180.41 E69.69286
G1 X147.01 Y180.45 E69.69527
G1 X146.82 Y180.81 E69.72105
G1 X146.72 Y181.01 E69.73506
G1 X146.70 Y181.02 E69.73632
G1 X146.37 Y181.64 E69.78010
G1 X145.99 Y182.26 E69.82511
G1 X145.99 Y182.26 E69.82578
G1 X146.00 Y182.30 E69.82807
G1 X145.79 Y182.57 E69.84895
G1 X145.64 Y182.80 E69.86609
G1 X145.61 Y182.81 E69.86807
G1 X145.30 Y183.22 E69.90030
G1 X145.31 Y183.27 E69.90355
G1 X144.97 Y183.65 E69.93503
G1 X144.90 Y183.75 E69.94264
G1 X144.89 Y183.75 E69.94339
G1 X144.47 Y184.23 E69.98290
G1 X143.97 Y184.75 E70.02815
G1 X143.97 Y184.78 E70.03041
G1 X143.62 Y185.09 E70.05937
G1 X143.44 Y185.26 E70.07472
G1 X143.42 Y185.26 E70.07597
G1 X143.02 Y185.61 E70.10927
G1 X143.01 Y185.65 E70.11205
G1 X142.73 Y185.85 E70.13375
G1 X142.53 Y186.02 E70.14998
G1 X142.50 Y186.02 E70.15199
G1 X141.91 Y186.44 E70.19704
G1 X141.31 Y186.83 E70.24171
G1 X141.31 Y186.84 E70.24216
G1 X141.30 Y186.85 E70.24326
G1 X141.02 Y187.01 E70.26297
G1 X140.75 Y187.17 E70.28269
G1 X140.73 Y187.16 E70.28384
G1 X140.41 Y187.34 E70.30653
G1 X140.26 Y187.41 E70.31741
G1 X140.24 Y187.45 E70.32004
G1 X139.08 Y187.95 E70.39895
G1 X138.34 Y188.22 E70.44827
G1 X138.31 Y188.24 E70.45024
G1 X138.30 Y188.25 E70.45094
G1 X138.16 Y188.28 E70.45978
G1 X137.72 Y188.44 E70.48950
G1 X137.68 Y188.43 E70.49185
G1 X137.36 Y188.52 E70.51290
G1 X137.17 Y188.56 E70.52470
G1 X137.15 Y188.60 E70.52721
G1 X136.67 Y188.69 E70.55789
G1 X136.53 Y188.72 E70.56628
G1 X136.53 Y188.71 E70.56696
G1 X135.90 Y188.82 E70.60676
G1 X135.12 Y188.93 E70.65568
G1 X135.09 Y188.93 E70.65763
G1 X135.08 Y188.94 E70.65873
G1 X134.89 Y188.95 E70.67035
G1 X134.47 Y189.00 E70.69710
G1 X134.43 Y188.98 E70.69972
G1 X134.06 Y189.00 E70.72276
G1 X133.90 Y188.99 E70.73293
G1 X133.87 Y189.03 E70.73580
G1 X132.63 Y188.97 E70.81264
G1 X132.52 Y188.96 E70.82001
G1 X131.80 Y188.89 E70.86490
G1 X131.79 Y188.89 E70.86572
G1 X131.78 Y188.89 E70.86620
G1 X131.68 Y188.88 E70.87279
G1 X131.16 Y188.81 E70.90516
G1 X131.14 Y188.78 E70.90764
G1 X130.62 Y188.69 E70.94032
G1 X130.58 Y188.71 E70.94302
G1 X130.29 Y188.63 E70.96177
G1 X130.00 Y188.58 E70.98052
G1 X129.98 Y188.54 E70.98310
G1 X129.28 Y188.35 E71.02811
G1 X128.69 Y188.15 E71.06668
G1 X128.59 Y188.12 E71.07370
G1 X128.55 Y188.13 E71.07622
G1 X128.26 Y188.00 E71.09632
G1 X128.00 Y187.91 E71.11365
G1 X127.98 Y187.87 E71.11594
G1 X127.50 Y187.66 E71.14877
G1 X127.45 Y187.67 E71.15208
G1 X127.01 Y187.44 E71.18289
G1 X126.90 Y187.39 E71.19081
G1 X126.89 Y187.37 E71.19166
G1 X126.26 Y187.03 E71.23653
G1 X125.64 Y186.66 E71.28162
G1 X125.63 Y186.65 E71.28243
G1 X125.62 Y186.65 E71.28281
G1 X125.56 Y186.60 E71.28795
G1 X125.10 Y186.31 E71.32224
G1 X125.09 Y186.26 E71.32487
G1 X124.67 Y185.97 E71.35677
G1 X124.63 Y185.97 E71.35945
G1 X124.41 Y185.77 E71.37789
G1 X124.15 Y185.59 E71.39732
G1 X124.15 Y185.55 E71.40002
G1 X123.67 Y185.13 E71.43945
G1 X123.09 Y184.57 E71.49000
G1 X123.08 Y184.56 E71.49070
G1 X123.04 Y184.56 E71.49295
G1 X122.81 Y184.29 E71.51508
G1 X122.64 Y184.11 E71.53083
G1 X122.64 Y184.08 E71.53257
G1 X122.30 Y183.68 E71.56502
G1 X122.25 Y183.67 E71.56836
G1 X121.95 Y183.27 E71.59969
G1 X121.87 Y183.17 E71.60775
G1 X121.87 Y183.16 E71.60857
G1 X121.45 Y182.58 E71.65325
G1 X121.07 Y181.98 E71.69769
G1 X120.73 Y181.42 E71.73819
G1 X120.73 Y181.39 E71.74036
G1 X120.61 Y181.18 E71.75596
G1 X120.48 Y180.92 E71.77387
G1 X120.45 Y180.91 E71.77602
G1 X120.28 Y180.51 E71.80292
G1 X120.19 Y180.34 E71.81477
G1 X120.19 Y180.32 E71.81570
G1 X119.94 Y179.74 E71.85525
G1 X119.67 Y179.00 E71.90471
G1 X119.66 Y178.97 E71.90663
G1 X119.65 Y178.96 E71.90727
G1 X119.61 Y178.83 E71.91585
G1 X119.47 Y178.41 E71.94376
G1 X119.48 Y178.38 E71.94599
G1 X119.37 Y178.00 E71.97017
G1 X119.34 Y177.84 E71.98081
G1 X119.30 Y177.81 E71.98359
G1 X119.07 Y176.56 E72.06283
G1 X118.97 Y175.78 E72.11181
G1 X118.97 Y175.75 E72.11382
G1 X118.95 Y175.73 E72.11564
G1 X118.94 Y175.48 E72.13117
G1 X118.89 Y175.13 E72.15347
G1 X118.92 Y175.09 E72.15622
G1 X118.88 Y173.93 E72.22899
G1 X118.90 Y173.91 E72.23075
G1 X118.93 Y173.30 E72.26890
G1 X118.93 Y173.30 E72.26897
G1 X118.93 Y173.18 E72.27621
G1 X119.01 Y172.47 E72.32102
G1 X119.01 Y172.45 E72.32178
G1 X118.99 Y172.43 E72.32357
G1 X119.05 Y172.13 E72.34248
G1 X119.09 Y171.82 E72.36202
G1 X119.11 Y171.80 E72.36393
G1 X119.21 Y171.28 E72.39687
G1 X119.19 Y171.25 E72.39952
G1 X119.28 Y170.92 E72.42073
G1 X119.33 Y170.66 E72.43717
G1 X119.35 Y170.64 E72.43916
G1 X119.55 Y169.94 E72.48443
G1 X119.74 Y169.36 E72.52294
G1 X119.78 Y169.25 E72.53008
G1 X119.78 Y169.24 E72.53103
G1 X119.85 Y169.06 E72.54292
G1 X119.98 Y168.69 E72.56751
G1 X120.01 Y168.67 E72.56972
G1 X120.16 Y168.31 E72.59401
G1 X120.24 Y168.15 E72.60495
G1 X120.22 Y168.11 E72.60769
G1 X120.86 Y166.92 E72.69192
G1 X121.24 Y166.30 E72.73727
G1 X121.25 Y166.29 E72.73786
G1 X121.24 Y166.26 E72.74020
G1 X121.47 Y165.96 E72.76326
G1 X121.60 Y165.76 E72.77831
G1 X121.62 Y165.75 E72.77991
G1 X121.93 Y165.34 E72.81200
G1 X121.93 Y165.29 E72.81538
G1 X122.26 Y164.91 E72.84667
G1 X122.33 Y164.81 E72.85442
G1 X122.35 Y164.81 E72.85524
G1 X122.76 Y164.33 E72.89475
G1 X123.33 Y163.75 E72.94525
G1 X123.79 Y163.30 E72.98543
G1 X123.82 Y163.30 E72.98749
G1 X124.06 Y163.08 E73.00783
G1 X124.22 Y162.95 E73.02037
G1 X124.22 Y162.91 E73.02296
G1 X124.60 Y162.64 E73.05230
G1 X124.72 Y162.54 E73.06191
G1 X124.74 Y162.54 E73.06272
G1 X125.32 Y162.12 E73.10778
G1 X125.92 Y161.73 E73.15250
G1 X125.93 Y161.72 E73.15309
G1 X125.94 Y161.70 E73.15425
G1 X126.21 Y161.55 E73.17373
G1 X126.48 Y161.39 E73.19354
G1 X126.50 Y161.39 E73.19481
G1 X126.82 Y161.22 E73.21728
G1 X126.98 Y161.15 E73.22816
G1 X126.99 Y161.11 E73.23084
G1 X128.16 Y160.61 E73.30976
G1 X128.90 Y160.34 E73.35914
G1 X128.93 Y160.32 E73.36111
G1 X128.94 Y160.30 E73.36273
G1 X129.17 Y160.24 E73.37772
G1 X129.52 Y160.12 E73.40064
G1 X129.54 Y160.13 E73.40209
G1 X129.37 Y159.82 E73.42394
G1 X130.46 Y159.50 E73.49529
G1 X130.56 Y159.32 E73.50762
G1 X130.72 Y159.00 E73.53047
G1 X130.46 Y158.14 E73.58627
G1 X131.00 Y157.92 E73.62245
G1 X130.74 Y157.34 E73.66221
G1 X131.08 Y157.16 E73.68665
G1 X131.08 Y152.89 E73.95306
G1 X131.64 Y152.89 E73.98767
G1 X132.04 Y152.50 E74.02261
G1 X131.58 Y152.06 E74.06249
G1 X131.65 Y151.99 E74.06850
G1 X131.08 Y151.99 E74.10348
G1 X131.08 Y147.80 E74.36460
G1 X130.76 Y147.61 E74.38800
G1 X131.00 Y147.08 E74.42434
G1 X130.47 Y146.87 E74.46025
G1 X130.72 Y146.01 E74.51639
G1 X130.62 Y145.81 E74.52984
G1 X130.46 Y145.51 E74.55135
G1 X129.36 Y145.19 E74.62305
G1 X129.54 Y144.87 E74.64605
G1 X129.51 Y144.88 E74.64805
G1 X129.20 Y144.77 E74.66904
G1 X128.94 Y144.70 E74.68570
G1 X128.92 Y144.67 E74.68768
G1 X128.32 Y144.46 E74.72746
G1 X127.68 Y144.19 E74.77104
G1 X127.56 Y144.14 E74.77867
G1 X127.56 Y144.14 E74.77920
G1 X127.48 Y144.10 E74.78467
G1 X126.99 Y143.89 E74.81771
G1 X126.97 Y143.84 E74.82093
G1 X126.51 Y143.61 E74.85337
G1 X126.47 Y143.62 E74.85598
G1 X126.23 Y143.46 E74.87392
G1 X125.94 Y143.32 E74.89384
G1 X125.93 Y143.27 E74.89656
G1 X125.40 Y142.94 E74.93590
G1 X124.74 Y142.47 E74.98617
G1 X124.73 Y142.46 E74.98711
G1 X124.71 Y142.46 E74.98811
G1 X124.53 Y142.31 E75.00264
G1 X124.22 Y142.08 E75.02708
G1 X124.22 Y142.05 E75.02885
G1 X123.94 Y141.82 E75.05108
G1 X123.82 Y141.70 E75.06193
G1 X123.77 Y141.70 E75.06473
G1 X122.83 Y140.74 E75.14892
G1 X122.36 Y140.20 E75.19328
G1 X121.93 Y139.71 E75.23399
G1 X121.94 Y139.67 E75.23643
G1 X121.78 Y139.48 E75.25171
G1 X121.62 Y139.25 E75.26931
G1 X121.58 Y139.24 E75.27174
G1 X121.34 Y138.85 E75.30033
G1 X121.25 Y138.71 E75.31054
G1 X121.25 Y138.70 E75.31142
G1 X120.87 Y138.09 E75.35651
G1 X120.52 Y137.45 E75.40180
G1 X120.52 Y137.44 E75.40222
G1 X120.50 Y137.44 E75.40314
G1 X120.40 Y137.20 E75.41905
G1 X120.25 Y136.90 E75.44008
G1 X120.25 Y136.88 E75.44142
G1 X120.08 Y136.51 E75.46685
G1 X120.03 Y136.36 E75.47683
G1 X119.99 Y136.34 E75.47920
G1 X119.58 Y135.15 E75.55817
G1 X119.35 Y134.37 E75.60843
G1 X119.35 Y134.35 E75.60991
G1 X119.33 Y134.34 E75.61149
G1 X119.28 Y134.08 E75.62768
G1 X119.19 Y133.74 E75.64939
G1 X119.21 Y133.71 E75.65154
G1 X119.11 Y133.20 E75.68429
G1 X119.08 Y133.17 E75.68700
G1 X119.04 Y132.84 E75.70788
G1 X118.99 Y132.57 E75.72515
G1 X119.01 Y132.54 E75.72729
G1 X118.93 Y131.82 E75.77213
G1 X118.90 Y131.12 E75.81577
G1 X118.90 Y131.12 E75.81583
G1 X118.90 Y131.09 E75.81777
G1 X118.88 Y131.07 E75.81954
G1 X118.92 Y129.91 E75.89199
G1 X118.89 Y129.88 E75.89470
G1 X118.94 Y129.53 E75.91630
G1 X118.95 Y129.27 E75.93296
G1 X118.97 Y129.25 E75.93500
G1 X119.05 Y128.61 E75.97469
G1 X119.18 Y127.83 E76.02411
G1 X119.31 Y127.19 E76.06527
G1 X119.34 Y127.16 E76.06792
G1 X119.42 Y126.83 E76.08890
G1 X119.47 Y126.66 E76.10056
G1 X119.45 Y126.62 E76.10324
G1 X119.88 Y125.42 E76.18208
G1 X120.15 Y124.78 E76.22586
G1 X120.20 Y124.67 E76.23315
G1 X120.19 Y124.64 E76.23512
G1 X120.32 Y124.38 E76.25353
G1 X120.45 Y124.09 E76.27288
G1 X120.48 Y124.08 E76.27503
G1 X120.74 Y123.59 E76.30991
G1 X120.73 Y123.55 E76.31263
G1 X120.91 Y123.27 E76.33308
G1 X121.03 Y123.04 E76.34915
G1 X121.06 Y123.03 E76.35108
G1 X121.40 Y122.50 E76.39046
G1 X121.87 Y121.84 E76.44109
G1 X121.88 Y121.83 E76.44163
G1 X121.88 Y121.83 E76.44188
G1 X121.92 Y121.78 E76.44617
G1 X122.27 Y121.32 E76.48173
G1 X122.30 Y121.32 E76.48388
G1 X122.64 Y120.92 E76.51619
G1 X122.64 Y120.88 E76.51906
G1 X122.86 Y120.66 E76.53811
G1 X123.04 Y120.44 E76.55640
G1 X123.08 Y120.44 E76.55896
G1 X123.60 Y119.93 E76.60403
G0 F6000 X123.26 Y119.56
G1 F2700 X123.58 Y119.28 E76.63058
G1 X123.58 Y119.20 E76.63532
G1 X124.16 Y118.79 E76.67991
G1 X124.47 Y118.52 E76.70555
G1 X124.52 Y118.53 E76.70836
G1 X124.64 Y118.44 E76.71774
G1 X124.66 Y118.36 E76.72248
G1 X125.25 Y118.00 E76.76540
G1 X125.51 Y117.81 E76.78577
G1 X125.54 Y117.82 E76.78792
G1 X126.00 Y117.54 E76.82152
G1 X126.50 Y117.27 E76.85668
G1 X126.51 Y117.24 E76.85820
G1 X126.74 Y117.14 E76.87436
G1 X127.42 Y116.80 E76.92172
G1 X127.47 Y116.81 E76.92477
G1 X127.61 Y116.74 E76.93451
G1 X127.64 Y116.68 E76.93884
G1 X128.09 Y116.53 E76.96824
G1 X128.54 Y116.32 E76.99961
G1 X128.61 Y116.35 E77.00397
G1 X129.04 Y116.20 E77.03247
G1 X129.67 Y116.02 E77.07321
G1 X129.70 Y115.97 E77.07686
G1 X130.20 Y115.88 E77.10867
G1 X130.67 Y115.76 E77.13888
G1 X130.72 Y115.79 E77.14203
G1 X130.87 Y115.76 E77.15148
G1 X130.91 Y115.70 E77.15613
G1 X131.58 Y115.63 E77.19790
G1 X131.91 Y115.57 E77.21875
G1 X131.94 Y115.59 E77.22098
G1 X132.48 Y115.54 E77.25490
G1 X133.20 Y115.50 E77.30004
G1 X134.05 Y115.47 E77.35333
G1 X134.09 Y115.50 E77.35620
G1 X134.28 Y115.51 E77.36789
G1 X134.32 Y115.48 E77.37148
G1 X134.92 Y115.55 E77.40923
G1 X135.32 Y115.57 E77.43415
G1 X135.34 Y115.60 E77.43645
G1 X135.80 Y115.65 E77.46484
G1 X136.43 Y115.76 E77.50509
G1 X136.48 Y115.73 E77.50853
G1 X136.91 Y115.85 E77.53668
G1 X137.45 Y115.95 E77.57037
G1 X137.48 Y116.00 E77.57440
G1 X137.63 Y116.05 E77.58422
G1 X137.69 Y116.02 E77.58829
G1 X138.19 Y116.19 E77.62113
G1 X138.64 Y116.31 E77.65000
G1 X138.66 Y116.36 E77.65346
G1 X139.09 Y116.52 E77.68186
G1 X139.69 Y116.77 E77.72226
G1 X139.72 Y116.76 E77.72403
G1 X139.97 Y116.88 E77.74155
G1 X140.63 Y117.17 E77.78649
G1 X140.65 Y117.24 E77.79085
G1 X140.79 Y117.31 E77.80050
G1 X140.86 Y117.29 E77.80491
G1 X141.26 Y117.55 E77.83449
G1 X141.72 Y117.78 E77.86665
G1 X141.74 Y117.85 E77.87117
G1 X142.11 Y118.09 E77.89890
G1 X142.64 Y118.47 E77.93929
G1 X142.70 Y118.46 E77.94268
G1 X143.09 Y118.80 E77.97523
G1 X143.47 Y119.09 E78.00512
G1 X143.48 Y119.13 E78.00784
G1 X143.61 Y119.24 E78.01837
G1 X143.67 Y119.24 E78.02236
G1 X144.03 Y119.61 E78.05406
G1 X144.40 Y119.92 E78.08414
G1 X144.40 Y119.98 E78.08776
G1 X144.78 Y120.36 E78.12136
G1 X145.26 Y120.91 E78.16692
G1 X145.81 Y121.56 E78.22046
G1 X145.81 Y121.61 E78.22302
G1 X145.85 Y121.66 E78.22732
G1 X145.92 Y121.75 E78.23440
G1 X145.97 Y121.77 E78.23786
G1 X146.30 Y122.30 E78.27720
G1 X146.52 Y122.61 E78.30097
G1 X146.52 Y122.65 E78.30300
G1 X146.80 Y123.11 E78.33663
G1 X147.06 Y123.58 E78.37056
G1 X147.11 Y123.60 E78.37382
G1 X147.32 Y124.09 E78.40724
G1 X147.54 Y124.52 E78.43709
G1 X147.53 Y124.56 E78.43963
G1 X147.61 Y124.75 E78.45273
G1 X147.67 Y124.78 E78.45672
G1 X147.82 Y125.23 E78.48626
G1 X148.01 Y125.66 E78.51567
G1 X147.99 Y125.71 E78.51921
G1 X148.14 Y126.14 E78.54757
G1 X148.32 Y126.78 E78.58857
G1 X148.36 Y126.80 E78.59155
G1 X148.45 Y127.26 E78.62088
G1 X148.57 Y127.77 E78.65373
G1 X148.55 Y127.81 E78.65660
G1 X148.58 Y127.97 E78.66633
G1 X148.63 Y128.01 E78.67058
G1 X148.69 Y128.54 E78.70382
G1 X148.78 Y128.99 E78.73239
G1 X148.74 Y129.04 E78.73596
G1 X148.80 Y129.58 E78.77008
G1 X148.81 Y129.69 E78.77663
G1 X148.88 Y129.72 E78.78180
G1 X148.85 Y130.65 E78.83965
G1 X148.87 Y131.16 E78.87160
G1 X148.82 Y131.20 E78.87536
G1 X148.82 Y131.37 E78.88591
G1 X148.86 Y131.42 E78.89004
G1 X148.80 Y131.95 E78.92301
G1 X148.78 Y132.41 E78.95165
G1 X148.74 Y132.44 E78.95510
G1 X148.68 Y132.90 E78.98374
G1 X148.57 Y133.53 E79.02399
G1 X148.58 Y133.54 E79.02436
G1 X148.56 Y133.61 E79.02877
G1 X148.55 Y133.69 E79.03396
G1 X148.53 Y133.77 E79.03890
G1 X148.89 Y133.77 E79.06117
G1 X148.53 Y135.29 E79.15863
G1 X148.54 Y135.30 E79.15958
G1 X148.56 Y135.34 E79.16263
G1 X148.59 Y135.38 E79.16500
G1 X149.75 Y135.61 E79.23909
G1 X149.67 Y136.19 E79.27564
G1 X150.25 Y136.25 E79.31216
G1 X150.20 Y137.43 E79.38600
G1 X150.30 Y137.53 E79.39504
G1 X151.45 Y137.59 E79.46653
G1 X151.47 Y138.09 E79.49826
G1 X151.99 Y138.04 E79.53084
G1 X152.21 Y139.19 E79.60332
G1 X152.23 Y139.20 E79.60488
G1 X152.36 Y139.29 E79.61493
G1 X153.50 Y139.13 E79.68646
G1 X153.62 Y139.62 E79.71801
G1 X154.20 Y139.46 E79.75551
G1 X154.59 Y140.58 E79.82947
G1 X154.63 Y140.60 E79.83231
G1 X154.71 Y140.63 E79.83796
G1 X155.81 Y140.25 E79.91022
G1 X156.03 Y140.73 E79.94332
G1 X156.56 Y140.46 E79.98038
G1 X157.15 Y141.47 E80.05341
G1 X157.19 Y141.48 E80.05625
G1 X157.28 Y141.50 E80.06232
G1 X158.28 Y140.93 E80.13412
G1 X158.58 Y141.34 E80.16575
G1 X159.05 Y140.97 E80.20288
G1 X159.83 Y141.87 E80.27678
G1 X159.90 Y141.87 E80.28133
G1 X161.02 Y140.74 E80.38059
G1 X161.23 Y141.10 E80.40650
G1 X161.39 Y140.94 E80.42013
G1 X161.44 Y140.95 E80.42312
G1 X161.78 Y140.66 E80.45108
G1 X162.43 Y140.16 E80.50212
G1 X163.13 Y139.65 E80.55608
G1 X163.16 Y139.66 E80.55829
G1 X163.32 Y139.56 E80.56979
G1 X163.34 Y139.51 E80.57332
G1 X163.88 Y139.23 E80.61125
G1 X164.22 Y139.03 E80.63584
G1 X164.25 Y139.03 E80.63809
G1 X164.65 Y138.82 E80.66638
G1 X165.23 Y138.56 E80.70620
G1 X165.25 Y138.53 E80.70832
G1 X165.63 Y138.38 E80.73388
G1 X166.20 Y138.15 E80.77222
G1 X166.24 Y138.16 E80.77482
G1 X166.40 Y138.10 E80.78585
G1 X166.43 Y138.05 E80.78909
G1 X167.95 Y137.66 E80.88717
G1 X168.49 Y137.55 E80.92139
G1 X168.52 Y137.51 E80.92482
G1 X169.03 Y137.45 E80.95651
G1 X169.52 Y137.36 E80.98789
G1 X169.57 Y137.39 E80.99121
G1 X169.72 Y137.37 E81.00075
G1 X169.76 Y137.32 E81.00481
G1 X170.28 Y137.31 E81.03732
G1 X170.75 Y137.25 E81.06675
G1 X170.80 Y137.29 E81.07029
G1 X171.34 Y137.28 E81.10405
G1 X171.90 Y137.29 E81.13886
G1 X171.94 Y137.25 E81.14227
G1 X172.44 Y137.31 E81.17365
G1 X172.93 Y137.34 E81.20437
G1 X172.96 Y137.37 E81.20754
G1 X173.13 Y137.39 E81.21784
G1 X173.19 Y137.35 E81.22220
G1 X173.73 Y137.46 E81.25653
G1 X174.62 Y137.56 E81.31295
G1 X174.65 Y137.64 E81.31809
G1 X175.44 Y137.84 E81.36911
G1 X176.27 Y138.07 E81.42277
G1 X176.29 Y138.11 E81.42545
G1 X176.42 Y138.15 E81.43425
G1 X176.45 Y138.16 E81.43625
G1 X176.50 Y138.14 E81.43958
G1 X177.10 Y138.41 E81.48051
G1 X177.44 Y138.53 E81.50260
G1 X177.45 Y138.56 E81.50438
G1 X177.94 Y138.78 E81.53830
G1 X178.44 Y139.03 E81.57275
G1 X178.49 Y139.02 E81.57611
G1 X178.90 Y139.28 E81.60618
G1 X179.35 Y139.52 E81.63801
G1 X179.36 Y139.57 E81.64168
G1 X179.50 Y139.66 E81.65199
G1 X179.57 Y139.65 E81.65622
G1 X180.00 Y139.97 E81.68980
G1 X180.39 Y140.22 E81.71811
G1 X180.40 Y140.27 E81.72153
G1 X180.76 Y140.54 E81.74991
G1 X181.26 Y140.95 E81.79022
G1 X181.26 Y140.95 E81.79034
G1 X181.28 Y140.97 E81.79184
G1 X181.31 Y141.00 E81.79454
G1 X182.04 Y141.62 E81.85446
G1 X182.04 Y141.68 E81.85803
G1 X182.16 Y141.79 E81.86835
G1 X182.17 Y141.80 E81.86858
G1 X182.22 Y141.80 E81.87189
G1 X183.19 Y142.94 E81.96484
G1 X183.68 Y143.59 E82.01579
G1 X184.19 Y144.29 E82.06953
G1 X184.18 Y144.32 E82.07155
G1 X184.28 Y144.48 E82.08341
G1 X184.33 Y144.50 E82.08708
G1 X184.62 Y145.04 E82.12532
G1 X184.82 Y145.38 E82.14949
G1 X184.81 Y145.41 E82.15175
G1 X185.02 Y145.81 E82.18000
G1 X185.28 Y146.40 E82.22019
G1 X185.32 Y146.41 E82.22273
G1 X185.45 Y146.78 E82.24718
G1 X185.69 Y147.37 E82.28636
G1 X185.67 Y147.41 E82.28964
G1 X185.72 Y147.54 E82.29810
G1 X185.79 Y147.58 E82.30316
G1 X185.95 Y148.20 E82.34291
G1 X186.07 Y148.54 E82.36546
G1 X186.05 Y148.58 E82.36822
G1 X186.18 Y149.11 E82.40231
G1 X186.20 Y149.21 E82.40848
G1 X186.28 Y149.23 E82.41357
G1 X186.39 Y150.15 E82.47126
G1 X186.48 Y150.67 E82.50431
G1 X186.45 Y150.72 E82.50791
G1 X186.47 Y150.88 E82.51801
G1 X186.52 Y150.92 E82.52202
G1 X186.53 Y151.43 E82.55378
G1 X186.59 Y151.91 E82.58397
G1 X186.55 Y151.96 E82.58765
G1 X186.57 Y152.50 E82.62134
G1 X186.55 Y153.05 E82.65609
G1 X186.59 Y153.09 E82.65950
G1 X186.53 Y153.59 E82.69082
G1 X186.51 Y154.09 E82.72172
G1 X186.47 Y154.12 E82.72490
G1 X186.45 Y154.28 E82.73494
G1 X186.49 Y154.34 E82.73876
G1 X186.39 Y154.84 E82.77072
G1 X186.33 Y155.32 E82.80078
G1 X186.29 Y155.35 E82.80426
G1 X186.20 Y155.80 E82.83259
G1 X186.04 Y156.43 E82.87333
G1 X186.06 Y156.46 E82.87551
G1 X185.96 Y156.75 E82.89478
G1 X185.78 Y157.42 E82.93806
G1 X185.72 Y157.46 E82.94226
G1 X185.67 Y157.59 E82.95117
G1 X185.70 Y157.66 E82.95605
G1 X185.46 Y158.21 E82.99296
G1 X185.32 Y158.59 E83.01830
G1 X185.28 Y158.61 E83.02151
G1 X185.06 Y159.10 E83.05501
G1 X184.81 Y159.59 E83.08943
G1 X184.82 Y159.66 E83.09356
G1 X184.55 Y160.09 E83.12568
G1 X184.33 Y160.50 E83.15498
G1 X184.27 Y160.52 E83.15890
G1 X184.18 Y160.66 E83.16892
G1 X184.19 Y160.73 E83.17351
G1 X183.78 Y161.28 E83.21623
G1 X183.60 Y161.55 E83.23654
G1 X183.57 Y161.56 E83.23863
G1 X183.30 Y161.92 E83.26652
G1 X182.89 Y162.42 E83.30700
G1 X182.89 Y162.45 E83.30925
G1 X182.65 Y162.69 E83.33015
G1 X182.21 Y163.20 E83.37193
G1 X182.14 Y163.20 E83.37637
G1 X182.05 Y163.30 E83.38479
G1 X182.04 Y163.38 E83.38986
G1 X181.56 Y163.78 E83.42871
G1 X181.29 Y164.06 E83.45261
G1 X181.25 Y164.05 E83.45561
G1 X180.91 Y164.34 E83.48361
G1 X180.39 Y164.73 E83.52370
G1 X180.39 Y164.76 E83.52555
G1 X180.06 Y164.98 E83.54979
G1 X179.55 Y165.35 E83.58907
G1 X179.52 Y165.34 E83.59139
G1 X179.44 Y165.39 E83.59693
G1 X179.36 Y165.44 E83.60280
G1 X179.34 Y165.49 E83.60621
G1 X178.78 Y165.79 E83.64610
G1 X178.46 Y165.97 E83.66889
G1 X178.43 Y165.97 E83.67077
G1 X178.03 Y166.18 E83.69919
G1 X177.44 Y166.44 E83.73941
G1 X177.43 Y166.47 E83.74145
G1 X177.05 Y166.62 E83.76694
G1 X176.48 Y166.85 E83.80535
G1 X176.44 Y166.84 E83.80770
G1 X176.28 Y166.90 E83.81836
G1 X176.26 Y166.94 E83.82163
G1 X174.73 Y167.34 E83.91996
G1 X174.63 Y167.36 E83.92613
G1 X174.61 Y167.44 E83.93122
G1 X173.70 Y167.54 E83.98865
G1 X173.18 Y167.64 E84.02177
G1 X173.13 Y167.61 E84.02542
G1 X172.96 Y167.63 E84.03565
G1 X172.92 Y167.68 E84.03975
G1 X172.40 Y167.69 E84.07189
G1 X171.93 Y167.75 E84.10158
G1 X171.89 Y167.71 E84.10520
G1 X171.34 Y167.72 E84.13902
G1 X170.79 Y167.71 E84.17383
G1 X170.75 Y167.75 E84.17724
G1 X170.25 Y167.69 E84.20862
G1 X169.75 Y167.66 E84.23934
G1 X169.72 Y167.63 E84.24251
G1 X169.56 Y167.61 E84.25262
G1 X169.50 Y167.65 E84.25689
G1 X168.96 Y167.54 E84.29109
G1 X168.06 Y167.44 E84.34789
G1 X168.04 Y167.36 E84.35303
G1 X167.24 Y167.16 E84.40418
G1 X166.42 Y166.93 E84.45754
G1 X166.40 Y166.89 E84.46000
G1 X166.26 Y166.85 E84.46914
G1 X166.23 Y166.84 E84.47113
G1 X166.18 Y166.86 E84.47452
G1 X165.57 Y166.59 E84.51568
G1 X165.25 Y166.47 E84.53748
G1 X165.24 Y166.44 E84.53927
G1 X164.74 Y166.22 E84.57319
G1 X164.25 Y165.97 E84.60758
G1 X164.19 Y165.98 E84.61165
G1 X163.75 Y165.71 E84.64355
G1 X163.34 Y165.48 E84.67307
G1 X163.32 Y165.42 E84.67699
G1 X163.19 Y165.34 E84.68678
G1 X163.11 Y165.35 E84.69151
G1 X162.55 Y164.93 E84.73539
G1 X162.29 Y164.76 E84.75469
G1 X162.28 Y164.73 E84.75672
G1 X161.92 Y164.46 E84.78479
G1 X161.43 Y164.05 E84.82504
G1 X161.42 Y164.05 E84.82523
G1 X161.39 Y164.02 E84.82770
G1 X161.37 Y164.00 E84.82956
G1 X161.24 Y163.89 E84.84022
G1 X161.05 Y164.22 E84.86399
G1 X159.92 Y163.13 E84.96187
G1 X159.82 Y163.14 E84.96774
G1 X159.05 Y164.03 E85.04146
G1 X158.58 Y163.66 E85.07819
G1 X158.29 Y164.08 E85.10982
G1 X157.28 Y163.50 E85.18229
G1 X157.25 Y163.50 E85.18433
G1 X157.14 Y163.53 E85.19149
G1 X156.56 Y164.53 E85.26358
G1 X156.03 Y164.27 E85.29992
G1 X155.82 Y164.75 E85.33310
G1 X154.71 Y164.37 E85.40596
G1 X154.70 Y164.37 E85.40677
G1 X154.59 Y164.43 E85.41458
G1 X154.20 Y165.53 E85.48742
G1 X153.63 Y165.37 E85.52469
G1 X153.51 Y165.87 E85.55678
G1 X152.36 Y165.71 E85.62883
G1 X152.27 Y165.76 E85.63552
G1 X152.21 Y165.81 E85.64065
G1 X151.99 Y166.95 E85.71272
G1 X151.49 Y166.90 E85.74435
G1 X151.46 Y167.40 E85.77519
G1 X150.30 Y167.46 E85.84753
G1 X150.24 Y167.53 E85.85335
G1 X150.17 Y167.60 E85.85961
G1 X150.17 Y168.75 E85.93139
G1 X149.66 Y168.81 E85.96305
G1 X149.75 Y169.39 E85.99991
G1 X148.59 Y169.62 E86.07394
G1 X148.53 Y169.71 E86.08050
G1 X148.88 Y171.23 E86.17768
G1 X148.54 Y171.23 E86.19869
G1 X148.60 Y171.43 E86.21175
G1 X148.57 Y171.47 E86.21475
G1 X148.66 Y171.92 E86.24308
G1 X148.74 Y172.55 E86.28244
G1 X148.78 Y172.58 E86.28575
G1 X148.79 Y173.04 E86.31428
G1 X148.85 Y173.59 E86.34859
G1 X148.82 Y173.63 E86.35232
G1 X148.87 Y174.83 E86.42697
G1 X148.83 Y174.87 E86.43041
G1 X148.81 Y175.29 E86.45663
G1 X148.80 Y175.42 E86.46474
G1 X148.74 Y175.97 E86.49948
G1 X148.77 Y176.01 E86.50278
G1 X148.68 Y176.51 E86.53426
G1 X148.62 Y177.00 E86.56487
G1 X148.58 Y177.03 E86.56784
G1 X148.55 Y177.19 E86.57813
G1 X148.58 Y177.25 E86.58224
G1 X148.44 Y177.76 E86.61522
G1 X148.36 Y178.21 E86.64365
G1 X148.31 Y178.24 E86.64708
G1 X148.17 Y178.76 E86.68136
G1 X147.99 Y179.29 E86.71619
G1 X147.99 Y179.29 E86.71625
G1 X147.98 Y179.30 E86.71687
G1 X147.96 Y179.37 E86.72115
G1 X147.64 Y180.26 E86.78038
G1 X147.60 Y180.29 E86.78345
G1 X147.55 Y180.42 E86.79229
G1 X147.53 Y180.45 E86.79428
G1 X147.55 Y180.50 E86.79785
G1 X147.26 Y181.04 E86.83588
G1 X147.09 Y181.42 E86.86177
G1 X147.05 Y181.43 E86.86416
G1 X146.80 Y181.89 E86.89675
G1 X146.51 Y182.36 E86.93132
G1 X146.53 Y182.43 E86.93550
G1 X146.19 Y182.87 E86.96978
G1 X145.96 Y183.24 E86.99744
G1 X145.90 Y183.25 E87.00070
G1 X145.81 Y183.37 E87.01010
G1 X145.82 Y183.44 E87.01454
G1 X145.37 Y183.96 E87.05723
G1 X145.17 Y184.22 E87.07763
G1 X145.14 Y184.22 E87.07970
G1 X144.84 Y184.56 E87.10799
G1 X144.48 Y184.93 E87.13996
G1 X144.49 Y185.00 E87.14403
G1 X143.95 Y185.46 E87.18834
G1 X143.64 Y185.75 E87.21476
G1 X143.61 Y185.75 E87.21694
G1 X143.48 Y185.87 E87.22751
G1 X143.47 Y185.93 E87.23174
G1 X143.04 Y186.25 E87.26510
G1 X142.69 Y186.54 E87.29349
G1 X142.64 Y186.54 E87.29694
G1 X142.20 Y186.86 E87.33092
G1 X141.74 Y187.15 E87.36489
G1 X141.73 Y187.19 E87.36728
G1 X141.28 Y187.44 E87.39944
G1 X140.84 Y187.70 E87.43116
G1 X140.81 Y187.69 E87.43308
G1 X140.65 Y187.78 E87.44474
G1 X140.63 Y187.83 E87.44796
G1 X139.26 Y188.42 E87.54054
G1 X138.66 Y188.64 E87.58096
G1 X138.64 Y188.67 E87.58280
G1 X138.31 Y188.76 E87.60417
G1 X137.69 Y188.98 E87.64551
G1 X137.64 Y188.96 E87.64875
G1 X137.49 Y189.00 E87.65876
G1 X137.48 Y189.01 E87.65933
G1 X137.44 Y189.05 E87.66288
G1 X136.77 Y189.18 E87.70553
G1 X136.45 Y189.25 E87.72624
G1 X136.43 Y189.24 E87.72795
G1 X135.97 Y189.32 E87.75654
G1 X135.34 Y189.40 E87.79633
G1 X135.31 Y189.43 E87.79881
G1 X134.92 Y189.45 E87.82323
G1 X134.32 Y189.52 E87.86122
G1 X134.27 Y189.49 E87.86486
G1 X134.09 Y189.50 E87.87635
G1 X134.05 Y189.53 E87.87980
G1 X132.61 Y189.47 E87.96944
G1 X132.48 Y189.46 E87.97774
G1 X131.93 Y189.41 E88.01240
G1 X131.90 Y189.42 E88.01415
G1 X131.61 Y189.37 E88.03271
G1 X130.90 Y189.28 E88.07721
G1 X130.87 Y189.24 E88.08062
G1 X130.71 Y189.21 E88.09044
G1 X130.65 Y189.25 E88.09483
G1 X130.18 Y189.12 E88.12502
G1 X129.69 Y189.03 E88.15600
G1 X129.66 Y188.97 E88.16029
G1 X129.13 Y188.83 E88.19418
G1 X128.61 Y188.65 E88.22887
G1 X128.55 Y188.68 E88.23300
G1 X128.07 Y188.46 E88.26555
G1 X127.64 Y188.31 E88.29419
G1 X127.61 Y188.26 E88.29801
G1 X127.46 Y188.19 E88.30806
G1 X127.39 Y188.21 E88.31268
G1 X126.79 Y187.88 E88.35559
G1 X126.50 Y187.75 E88.37535
G1 X126.49 Y187.72 E88.37740
G1 X126.01 Y187.47 E88.41111
G1 X125.53 Y187.18 E88.44607
G1 X125.50 Y187.18 E88.44778
G1 X125.28 Y187.02 E88.46521
G1 X124.66 Y186.62 E88.51142
G1 X124.64 Y186.56 E88.51500
G1 X124.53 Y186.48 E88.52398
G1 X124.46 Y186.48 E88.52830
G1 X124.10 Y186.17 E88.55774
G1 X123.68 Y185.87 E88.58991
G1 X123.67 Y185.80 E88.59437
G1 X123.33 Y185.50 E88.62257
G1 X122.87 Y185.05 E88.66288
G1 X122.80 Y185.05 E88.66700
G1 X122.44 Y184.62 E88.70179
G1 X122.14 Y184.31 E88.72869
G1 X122.14 Y184.27 E88.73162
G1 X122.04 Y184.15 E88.74123
G1 X121.97 Y184.14 E88.74590
G1 X121.56 Y183.57 E88.78921
G1 X121.35 Y183.33 E88.80944
G1 X121.36 Y183.29 E88.81157
G1 X121.04 Y182.86 E88.84497
G1 X120.64 Y182.24 E88.89062
G1 X120.20 Y181.51 E88.94400
G1 X120.20 Y181.48 E88.94630
G1 X120.17 Y181.41 E88.95094
G1 X120.11 Y181.31 E88.95819
G1 X120.07 Y181.29 E88.96130
G1 X119.82 Y180.72 E88.99981
G1 X119.65 Y180.37 E89.02419
G1 X119.66 Y180.34 E89.02610
G1 X119.48 Y179.93 E89.05443
G1 X119.26 Y179.32 E89.09493
G1 X119.23 Y179.30 E89.09677
G1 X119.13 Y178.97 E89.11860
G1 X118.93 Y178.39 E89.15655
G1 X118.95 Y178.35 E89.15951
G1 X118.89 Y178.13 E89.17348
G1 X118.85 Y178.10 E89.17666
G1 X118.58 Y176.64 E89.26960
G1 X118.50 Y176.00 E89.30959
G1 X118.45 Y175.97 E89.31309
G1 X118.44 Y175.51 E89.34136
G1 X118.38 Y174.98 E89.37469
G1 X118.42 Y174.93 E89.37882
G1 X118.37 Y173.73 E89.45371
G1 X118.41 Y173.69 E89.45702
G1 X118.43 Y173.27 E89.48337
G1 X118.44 Y173.14 E89.49130
G1 X118.49 Y172.59 E89.52584
G1 X118.46 Y172.55 E89.52918
G1 X118.56 Y172.04 E89.56130
G1 X118.61 Y171.56 E89.59171
G1 X118.65 Y171.53 E89.59468
G1 X118.68 Y171.37 E89.60477
G1 X118.65 Y171.31 E89.60885
G1 X118.79 Y170.80 E89.64177
G1 X118.88 Y170.35 E89.67027
G1 X118.92 Y170.32 E89.67370
G1 X119.07 Y169.79 E89.70798
G1 X119.25 Y169.27 E89.74261
G1 X119.23 Y169.24 E89.74471
G1 X119.39 Y168.86 E89.77043
G1 X119.57 Y168.34 E89.80447
G1 X119.61 Y168.32 E89.80754
G1 X119.70 Y168.11 E89.82177
G1 X119.69 Y168.06 E89.82509
G1 X120.43 Y166.67 E89.92305
G1 X120.72 Y166.19 E89.95812
G1 X120.71 Y166.13 E89.96217
G1 X121.05 Y165.68 E89.99761
G1 X121.29 Y165.32 E90.02428
G1 X121.33 Y165.31 E90.02715
G1 X121.42 Y165.19 E90.03628
G1 X121.42 Y165.12 E90.04085
G1 X121.88 Y164.59 E90.08447
G1 X122.06 Y164.34 E90.10393
G1 X122.10 Y164.34 E90.10594
G1 X122.39 Y163.99 E90.13431
G1 X122.85 Y163.53 E90.17489
G1 X122.85 Y163.53 E90.17495
G1 X122.86 Y163.51 E90.17641
G1 X122.97 Y163.40 E90.18611
G1 X123.58 Y162.81 E90.23921
G1 X123.62 Y162.81 E90.24164
G1 X123.73 Y162.70 E90.25095
G1 X123.75 Y162.69 E90.25255
G1 X123.76 Y162.63 E90.25621
G1 X124.30 Y162.24 E90.29738
G1 X124.57 Y162.02 E90.31936
G1 X124.60 Y162.02 E90.32130
G1 X125.04 Y161.70 E90.35519
G1 X125.50 Y161.40 E90.38948
G1 X125.51 Y161.37 E90.39181
G1 X125.96 Y161.12 E90.42388
G1 X126.39 Y160.86 E90.45541
G1 X126.42 Y160.87 E90.45731
G1 X126.59 Y160.78 E90.46889
G1 X126.61 Y160.73 E90.47211
G1 X127.97 Y160.14 E90.56469
G1 X128.58 Y159.92 E90.60517
G1 X128.60 Y159.88 E90.60829
G1 X128.79 Y159.83 E90.62011
G1 X128.61 Y159.53 E90.64165
G1 X130.12 Y159.08 E90.73973
G1 X130.18 Y158.95 E90.74855
G1 X129.86 Y157.84 E90.82047
G1 X130.33 Y157.65 E90.85236
G1 X130.09 Y157.12 E90.88906
G1 X130.58 Y156.85 E90.92421
G1 X130.58 Y155.47 E91.01070
G1 X130.57 Y155.45 E91.01193
G1 X130.58 Y155.44 E91.01266
G1 X130.58 Y149.57 E91.37923
G1 X130.57 Y149.56 E91.38018
G1 X130.58 Y149.54 E91.38183
G1 X130.58 Y148.09 E91.47201
G1 X130.11 Y147.82 E91.50583
G1 X130.33 Y147.35 E91.53792
G1 X129.86 Y147.17 E91.56945
G1 X130.18 Y146.05 E91.64191
G1 X130.17 Y146.01 E91.64453
G1 X130.12 Y145.93 E91.65047
G1 X128.60 Y145.49 E91.74898
G1 X128.79 Y145.18 E91.77156
G1 X128.60 Y145.13 E91.78357
G1 X128.57 Y145.08 E91.78706
G1 X128.14 Y144.92 E91.81560
G1 X127.54 Y144.68 E91.85600
G1 X127.52 Y144.68 E91.85777
G1 X127.27 Y144.56 E91.87515
G1 X126.61 Y144.27 E91.92023
G1 X126.58 Y144.20 E91.92467
G1 X126.44 Y144.13 E91.93413
G1 X126.38 Y144.15 E91.93847
G1 X125.97 Y143.89 E91.96825
G1 X125.52 Y143.66 E92.00007
G1 X125.50 Y143.59 E92.00447
G1 X125.12 Y143.35 E92.03257
G1 X124.59 Y142.98 E92.07282
G1 X124.56 Y142.98 E92.07520
G1 X124.23 Y142.71 E92.10190
G1 X123.76 Y142.35 E92.13846
G1 X123.75 Y142.31 E92.14111
G1 X123.61 Y142.20 E92.15223
G1 X123.56 Y142.20 E92.15560
G1 X122.46 Y141.08 E92.25341
G1 X121.98 Y140.53 E92.29896
G1 X121.42 Y139.88 E92.35259
G1 X121.42 Y139.83 E92.35521
G1 X121.38 Y139.78 E92.35942
G1 X121.32 Y139.69 E92.36627
G1 X121.26 Y139.68 E92.36974
G1 X120.92 Y139.13 E92.40992
G1 X120.72 Y138.83 E92.43276
G1 X120.72 Y138.80 E92.43473
G1 X120.43 Y138.34 E92.46870
G1 X120.17 Y137.85 E92.50333
G1 X120.14 Y137.84 E92.50552
G1 X119.94 Y137.41 E92.53438
G1 X119.72 Y136.96 E92.56595
G1 X119.72 Y136.93 E92.56794
G1 X119.63 Y136.72 E92.58229
G1 X119.59 Y136.70 E92.58522
G1 X119.10 Y135.30 E92.67785
G1 X118.92 Y134.67 E92.71891
G1 X118.88 Y134.64 E92.72197
G1 X118.79 Y134.19 E92.75042
G1 X118.66 Y133.67 E92.78377
G1 X118.68 Y133.63 E92.78701
G1 X118.65 Y133.47 E92.79692
G1 X118.60 Y133.43 E92.80109
G1 X118.55 Y132.91 E92.83345
G1 X118.46 Y132.45 E92.86316
G1 X118.49 Y132.40 E92.86686
G1 X118.44 Y131.86 E92.90054
G1 X118.41 Y131.31 E92.93506
G1 X118.37 Y131.27 E92.93842
G1 X118.42 Y130.08 E93.01280
G1 X118.37 Y130.03 E93.01693
G1 X118.44 Y129.50 E93.04991
G1 X118.45 Y129.03 E93.07918
G1 X118.50 Y129.00 E93.08271
G1 X118.55 Y128.54 E93.11123
G1 X118.66 Y127.90 E93.15154
G1 X118.66 Y127.90 E93.15168
G1 X118.67 Y127.87 E93.15346
G1 X118.69 Y127.74 E93.16176
G1 X118.85 Y126.89 E93.21600
G1 X118.90 Y126.86 E93.21927
G1 X118.93 Y126.70 E93.22944
G1 X118.94 Y126.69 E93.23029
G1 X118.92 Y126.64 E93.23344
G1 X119.41 Y125.25 E93.32585
G1 X119.66 Y124.65 E93.36622
G1 X119.64 Y124.60 E93.36958
G1 X119.87 Y124.16 E93.40032
G1 X120.07 Y123.71 E93.43112
G1 X120.12 Y123.69 E93.43456
G1 X120.22 Y123.50 E93.44742
G1 X120.21 Y123.44 E93.45154
G1 X120.47 Y123.02 E93.48238
G1 X120.69 Y122.61 E93.51117
G1 X120.75 Y122.60 E93.51467
G1 X120.99 Y122.22 E93.54266
G1 X121.36 Y121.69 E93.58296
G1 X121.36 Y121.67 E93.58453
G1 X121.52 Y121.48 E93.59984
G1 X122.00 Y120.86 E93.64884
G1 X122.04 Y120.85 E93.65181
G1 X122.14 Y120.74 E93.66124
G1 X122.14 Y120.66 E93.66579
G1 X122.49 Y120.32 E93.69608
G1 X122.80 Y119.95 E93.72667
G1 X122.87 Y119.94 E93.73098
G1 X123.26 Y119.56 E93.76494
G0 F6000 X122.92 Y119.20
G1 F2700 X123.08 Y119.05 E93.77832
G1 X123.08 Y118.95 E93.78487
G1 X123.85 Y118.39 E93.84424
G1 X124.21 Y118.10 E93.87316
G1 X124.22 Y118.05 E93.87617
G1 X124.97 Y117.59 E93.93083
G1 X125.39 Y117.28 E93.96357
G1 X125.45 Y117.29 E93.96706
G1 X125.75 Y117.10 E93.98946
G1 X126.09 Y116.92 E94.01359
G1 X126.11 Y116.88 E94.01651
G1 X126.53 Y116.68 E94.04554
G1 X127.26 Y116.31 E94.09666
G1 X127.28 Y116.28 E94.09931
G1 X127.90 Y116.06 E94.14008
G1 X128.54 Y115.78 E94.18367
G1 X128.63 Y115.81 E94.18977
G1 X128.89 Y115.72 E94.20704
G1 X129.35 Y115.59 E94.23689
G1 X129.40 Y115.52 E94.24239
G1 X130.11 Y115.39 E94.28726
G1 X130.63 Y115.26 E94.32080
G1 X130.65 Y115.23 E94.32337
G1 X131.50 Y115.14 E94.37674
G1 X132.03 Y115.04 E94.40994
G1 X132.08 Y115.08 E94.41356
G1 X132.44 Y115.04 E94.43632
G1 X133.18 Y115.00 E94.48252
G1 X134.16 Y114.97 E94.54374
G1 X134.17 Y114.96 E94.54485
G1 X134.97 Y115.05 E94.59497
G1 X135.56 Y115.08 E94.63163
G1 X135.59 Y115.13 E94.63503
G1 X135.87 Y115.16 E94.65218
G1 X136.33 Y115.24 E94.68148
G1 X136.40 Y115.20 E94.68661
G1 X137.02 Y115.36 E94.72663
G1 X137.66 Y115.48 E94.76705
G1 X137.67 Y115.48 E94.76766
G1 X137.70 Y115.49 E94.77005
G1 X137.74 Y115.50 E94.77246
G1 X137.75 Y115.50 E94.77308
G1 X138.33 Y115.72 E94.81196
G1 X138.98 Y115.89 E94.85341
G1 X139.01 Y115.96 E94.85838
G1 X139.27 Y116.05 E94.87546
G1 X139.71 Y116.23 E94.90504
G1 X139.76 Y116.22 E94.90813
G1 X140.17 Y116.43 E94.93706
G1 X140.94 Y116.76 E94.98937
G1 X140.96 Y116.76 E94.99038
G1 X141.01 Y116.79 E94.99414
G1 X141.01 Y116.79 E94.99469
G1 X141.01 Y116.80 E94.99483
G1 X141.51 Y117.11 E95.03132
G1 X142.15 Y117.44 E95.07600
G1 X142.17 Y117.53 E95.08226
G1 X142.39 Y117.67 E95.09861
G1 X142.78 Y117.95 E95.12801
G1 X142.86 Y117.94 E95.13302
G1 X143.40 Y118.40 E95.17751
G1 X143.85 Y118.75 E95.21266
G1 X143.88 Y118.75 E95.21490
G1 X144.37 Y119.24 E95.25838
G1 X144.89 Y119.68 E95.30057
G1 X144.89 Y119.76 E95.30563
G1 X145.14 Y120.02 E95.32807
G1 X145.64 Y120.58 E95.37482
G1 X146.26 Y121.32 E95.43496
G1 X146.29 Y121.33 E95.43688
G1 X146.73 Y122.04 E95.48899
G1 X147.05 Y122.50 E95.52423
G1 X147.04 Y122.55 E95.52728
G1 X147.23 Y122.85 E95.54971
G1 X147.41 Y123.18 E95.57279
G1 X147.48 Y123.20 E95.57756
G1 X147.78 Y123.88 E95.62352
G1 X148.05 Y124.42 E95.66123
G1 X148.08 Y124.44 E95.66330
G1 X148.29 Y125.05 E95.70359
G1 X148.56 Y125.66 E95.74525
G1 X148.53 Y125.73 E95.75034
G1 X148.61 Y125.99 E95.76742
G1 X148.75 Y126.46 E95.79758
G1 X148.81 Y126.50 E95.80218
G1 X148.94 Y127.16 E95.84396
G1 X149.08 Y127.72 E95.88053
G1 X149.11 Y127.75 E95.88319
G1 X149.19 Y128.47 E95.92790
G1 X149.31 Y129.11 E95.96879
G1 X149.26 Y129.18 E95.97393
G1 X149.28 Y129.35 E95.98458
G1 X149.39 Y129.40 E95.99246
G1 X149.35 Y130.64 E96.07016
G1 X149.37 Y131.26 E96.10897
G1 X149.38 Y131.28 E96.11008
G1 X149.30 Y131.98 E96.15449
G1 X149.27 Y132.64 E96.19549
G1 X149.21 Y132.69 E96.20044
G1 X149.18 Y132.97 E96.21790
G1 X149.13 Y133.27 E96.23675
G1 X149.52 Y133.27 E96.26126
G1 X149.12 Y134.97 E96.37043
G1 X150.31 Y135.21 E96.44631
G1 X150.24 Y135.74 E96.47971
G1 X150.77 Y135.79 E96.51310
G1 X150.72 Y137.05 E96.59162
G1 X151.92 Y137.11 E96.66692
G1 X151.94 Y137.55 E96.69421
G1 X152.40 Y137.50 E96.72272
G1 X152.64 Y138.75 E96.80187
G1 X153.88 Y138.58 E96.87989
G1 X153.98 Y139.00 E96.90707
G1 X154.51 Y138.84 E96.94176
G1 X154.93 Y140.03 E97.01995
G1 X156.07 Y139.62 E97.09553
G1 X156.26 Y140.05 E97.12455
G1 X156.75 Y139.80 E97.15869
G1 X157.38 Y140.87 E97.23632
G1 X158.42 Y140.27 E97.31172
G1 X158.68 Y140.62 E97.33902
G1 X159.11 Y140.29 E97.37312
G1 X159.88 Y141.17 E97.44653
G1 X161.13 Y139.93 E97.55634
G1 X161.37 Y140.34 E97.58635
G1 X161.46 Y140.27 E97.59374
G1 X162.13 Y139.76 E97.64606
G1 X162.92 Y139.19 E97.70664
G1 X162.93 Y139.16 E97.70853
G1 X163.65 Y138.79 E97.75910
G1 X164.14 Y138.49 E97.79508
G1 X164.19 Y138.50 E97.79830
G1 X164.43 Y138.37 E97.81546
G1 X164.85 Y138.18 E97.84431
G1 X164.88 Y138.13 E97.84766
G1 X165.44 Y137.93 E97.88492
G1 X166.09 Y137.65 E97.92909
G1 X166.10 Y137.62 E97.93091
G1 X167.84 Y137.17 E98.04280
G1 X168.20 Y137.10 E98.06588
G1 X168.25 Y137.03 E98.07092
G1 X168.96 Y136.95 E98.11535
G1 X169.52 Y136.85 E98.15123
G1 X169.54 Y136.83 E98.15286
G1 X170.24 Y136.81 E98.19660
G1 X170.91 Y136.73 E98.23858
G1 X170.97 Y136.79 E98.24358
G1 X171.34 Y136.78 E98.26623
G1 X171.72 Y136.78 E98.29006
G1 X171.78 Y136.73 E98.29502
G1 X172.47 Y136.81 E98.33845
G1 X173.05 Y136.84 E98.37479
G1 X173.08 Y136.82 E98.37681
G1 X173.80 Y136.96 E98.42245
G1 X175.02 Y137.10 E98.49940
G1 X175.06 Y137.23 E98.50745
G1 X175.21 Y137.27 E98.51740
G1 X175.22 Y137.26 E98.51824
G1 X175.39 Y137.31 E98.52893
G1 X175.57 Y137.35 E98.54050
G1 X176.49 Y137.61 E98.60004
G1 X176.52 Y137.60 E98.60217
G1 X177.29 Y137.95 E98.65511
G1 X177.81 Y138.14 E98.68933
G1 X177.82 Y138.18 E98.69207
G1 X178.16 Y138.33 E98.71493
G1 X178.49 Y138.50 E98.73831
G1 X178.57 Y138.48 E98.74321
G1 X179.14 Y138.84 E98.78532
G1 X179.68 Y139.13 E98.82366
G1 X179.71 Y139.13 E98.82498
G1 X180.28 Y139.56 E98.87015
G1 X180.84 Y139.91 E98.91076
G1 X180.85 Y139.99 E98.91572
G1 X181.07 Y140.15 E98.93278
G1 X181.43 Y140.45 E98.96214
G1 X181.45 Y140.45 E98.96332
G1 X181.61 Y140.60 E98.97705
G1 X181.63 Y140.62 E98.97873
G1 X182.45 Y141.32 E99.04604
G1 X182.47 Y141.32 E99.04697
G1 X182.50 Y141.37 E99.05056
G1 X182.52 Y141.38 E99.05202
G1 X182.52 Y141.38 E99.05233
G1 X183.58 Y142.62 E99.15377
G1 X184.08 Y143.29 E99.20602
G1 X184.65 Y144.07 E99.26637
G1 X184.68 Y144.09 E99.26854
G1 X185.05 Y144.79 E99.31838
G1 X185.35 Y145.30 E99.35500
G1 X185.34 Y145.35 E99.35836
G1 X185.47 Y145.59 E99.37538
G1 X185.66 Y146.02 E99.40459
G1 X185.72 Y146.05 E99.40884
G1 X185.92 Y146.61 E99.44584
G1 X186.18 Y147.24 E99.48826
G1 X186.22 Y147.26 E99.49114
G1 X186.43 Y148.06 E99.54250
G1 X186.61 Y148.58 E99.57726
G1 X186.58 Y148.64 E99.58147
G1 X186.62 Y148.80 E99.59171
G1 X186.74 Y148.83 E99.59951
G1 X186.88 Y150.08 E99.67772
G1 X187.00 Y150.68 E99.71616
G1 X187.01 Y150.70 E99.71744
G1 X187.03 Y151.40 E99.76124
G1 X187.11 Y152.07 E99.80329
G1 X187.06 Y152.13 E99.80838
G1 X187.07 Y152.50 E99.83103
G1 X187.06 Y152.88 E99.85486
G1 X187.11 Y152.94 E99.85982
G1 X187.03 Y153.63 E99.90338
G1 X187.00 Y154.21 E99.93928
G1 X187.02 Y154.23 E99.94085
G1 X186.88 Y154.91 E99.98399
G1 X186.81 Y155.59 E100.02673
G1 X186.74 Y155.64 E100.03171
G1 X186.69 Y155.90 E100.04874
G1 X186.57 Y156.37 E100.07857
G1 X186.60 Y156.42 E100.08250
G1 X186.43 Y156.92 E100.11504
G1 X186.23 Y157.66 E100.16285
G1 X186.24 Y157.68 E100.16439
G1 X185.92 Y158.39 E100.21295
G1 X185.73 Y158.96 E100.25038
G1 X185.66 Y158.99 E100.25501
G1 X185.51 Y159.32 E100.27746
G1 X185.34 Y159.65 E100.30089
G1 X185.36 Y159.74 E100.30670
G1 X184.99 Y160.33 E100.35032
G1 X184.71 Y160.85 E100.38695
G1 X184.71 Y160.87 E100.38802
G1 X184.19 Y161.56 E100.44189
G1 X183.91 Y162.00 E100.47505
G1 X183.85 Y162.01 E100.47848
G1 X183.69 Y162.23 E100.49505
G1 X183.39 Y162.59 E100.52459
G1 X183.39 Y162.65 E100.52852
G1 X183.02 Y163.03 E100.56177
G1 X182.52 Y163.60 E100.60885
G1 X182.52 Y163.63 E100.61036
G1 X181.90 Y164.15 E100.66084
G1 X181.50 Y164.56 E100.69695
G1 X181.42 Y164.56 E100.70145
G1 X181.22 Y164.73 E100.71826
G1 X180.85 Y165.02 E100.74740
G1 X180.84 Y165.06 E100.75045
G1 X180.36 Y165.38 E100.78650
G1 X179.77 Y165.81 E100.83179
G1 X179.76 Y165.84 E100.83376
G1 X179.01 Y166.23 E100.88626
G1 X178.54 Y166.51 E100.92052
G1 X178.50 Y166.50 E100.92336
G1 X178.25 Y166.63 E100.94060
G1 X177.82 Y166.82 E100.96990
G1 X177.80 Y166.87 E100.97317
G1 X177.24 Y167.08 E101.01078
G1 X176.60 Y167.34 E101.05360
G1 X176.58 Y167.38 E101.05592
G1 X175.04 Y167.78 E101.15536
G1 X175.01 Y167.90 E101.16311
G1 X173.77 Y168.04 E101.24094
G1 X173.15 Y168.16 E101.28001
G1 X173.14 Y168.17 E101.28121
G1 X172.44 Y168.19 E101.32482
G1 X171.77 Y168.27 E101.36687
G1 X171.71 Y168.21 E101.37196
G1 X171.35 Y168.22 E101.39460
G1 X170.96 Y168.22 E101.41844
G1 X170.90 Y168.27 E101.42339
G1 X170.21 Y168.19 E101.46683
G1 X169.63 Y168.16 E101.50285
G1 X169.61 Y168.18 E101.50496
G1 X168.88 Y168.04 E101.55092
G1 X167.66 Y167.90 E101.62781
G1 X167.63 Y167.77 E101.63586
G1 X167.47 Y167.73 E101.64581
G1 X167.46 Y167.74 E101.64664
G1 X167.29 Y167.69 E101.65753
G1 X167.11 Y167.64 E101.66910
G1 X166.20 Y167.38 E101.72831
G1 X166.16 Y167.40 E101.73071
G1 X165.38 Y167.05 E101.78385
G1 X164.88 Y166.86 E101.81782
G1 X164.86 Y166.82 E101.82055
G1 X164.52 Y166.67 E101.84342
G1 X164.19 Y166.50 E101.86673
G1 X164.10 Y166.52 E101.87254
G1 X163.50 Y166.14 E101.91667
G1 X163.00 Y165.87 E101.95238
G1 X162.98 Y165.87 E101.95376
G1 X162.27 Y165.34 E102.00909
G1 X161.84 Y165.06 E102.04099
G1 X161.83 Y165.01 E102.04436
G1 X161.61 Y164.85 E102.06111
G1 X161.38 Y164.66 E102.08029
G1 X161.16 Y165.02 E102.10658
G1 X159.90 Y163.81 E102.21570
G1 X159.11 Y164.71 E102.29065
G1 X158.69 Y164.38 E102.32419
G1 X158.44 Y164.74 E102.35142
G1 X157.37 Y164.12 E102.42786
G1 X156.75 Y165.19 E102.50473
G1 X156.28 Y164.95 E102.53778
G1 X156.08 Y165.38 E102.56695
G1 X154.93 Y164.97 E102.64331
G1 X154.52 Y166.14 E102.72043
G1 X153.99 Y165.99 E102.75478
G1 X153.88 Y166.42 E102.78270
G1 X152.63 Y166.25 E102.86155
G1 X152.40 Y167.49 E102.94029
G1 X151.96 Y167.45 E102.96753
G1 X151.94 Y167.87 E102.99387
G1 X150.67 Y167.94 E103.07327
G1 X150.67 Y169.21 E103.15197
G1 X150.23 Y169.25 E103.17930
G1 X150.31 Y169.79 E103.21320
G1 X149.12 Y170.03 E103.28926
G1 X149.51 Y171.73 E103.39835
G1 X149.13 Y171.73 E103.42217
G1 X149.15 Y171.84 E103.42940
G1 X149.21 Y172.29 E103.45770
G1 X149.27 Y172.35 E103.46278
G1 X149.29 Y173.02 E103.50440
G1 X149.37 Y173.74 E103.54951
G1 X149.32 Y173.80 E103.55444
G1 X149.37 Y175.03 E103.63114
G1 X149.32 Y175.08 E103.63621
G1 X149.31 Y175.31 E103.65045
G1 X149.30 Y175.46 E103.65938
G1 X149.26 Y175.84 E103.68320
G1 X149.31 Y175.90 E103.68798
G1 X149.18 Y176.58 E103.73152
G1 X149.10 Y177.15 E103.76722
G1 X149.12 Y177.18 E103.76937
G1 X148.93 Y177.87 E103.81366
G1 X148.81 Y178.51 E103.85448
G1 X148.74 Y178.55 E103.85944
G1 X148.65 Y178.91 E103.88273
G1 X148.52 Y179.28 E103.90669
G1 X148.53 Y179.29 E103.90750
G1 X148.46 Y179.46 E103.91901
G1 X148.44 Y179.53 E103.92382
G1 X148.08 Y180.53 E103.98980
G1 X148.09 Y180.56 E103.99150
G1 X147.71 Y181.26 E104.04141
G1 X147.45 Y181.82 E104.07953
G1 X147.40 Y181.84 E104.08304
G1 X147.24 Y182.14 E104.10450
G1 X147.04 Y182.46 E104.12809
G1 X147.06 Y182.55 E104.13399
G1 X146.61 Y183.14 E104.17997
G1 X146.33 Y183.58 E104.21263
G1 X146.33 Y183.61 E104.21463
G1 X145.76 Y184.27 E104.26918
G1 X145.44 Y184.69 E104.30181
G1 X145.39 Y184.70 E104.30514
G1 X145.21 Y184.90 E104.32215
G1 X145.00 Y185.12 E104.34094
G1 X145.01 Y185.21 E104.34676
G1 X144.29 Y185.83 E104.40584
G1 X143.94 Y186.16 E104.43601
G1 X143.93 Y186.22 E104.43923
G1 X143.35 Y186.63 E104.48370
G1 X142.85 Y187.06 E104.52482
G1 X142.77 Y187.06 E104.52984
G1 X142.48 Y187.27 E104.55266
G1 X142.17 Y187.47 E104.57544
G1 X142.16 Y187.53 E104.57906
G1 X141.52 Y187.88 E104.62438
G1 X141.03 Y188.17 E104.65993
G1 X141.01 Y188.21 E104.66268
G1 X139.45 Y188.88 E104.76897
G1 X139.00 Y189.05 E104.79850
G1 X138.98 Y189.09 E104.80154
G1 X138.46 Y189.24 E104.83533
G1 X137.75 Y189.49 E104.88221
G1 X137.74 Y189.51 E104.88370
G1 X136.87 Y189.66 E104.93864
G1 X136.36 Y189.79 E104.97127
G1 X136.33 Y189.76 E104.97393
G1 X136.05 Y189.81 E104.99137
G1 X135.59 Y189.87 E105.02023
G1 X135.55 Y189.92 E105.02403
G1 X134.97 Y189.95 E105.06063
G1 X134.24 Y190.03 E105.10627
G1 X134.23 Y190.04 E105.10694
G1 X134.19 Y190.04 E105.10925
G1 X134.17 Y190.04 E105.11063
G1 X134.17 Y190.04 E105.11103
G1 X132.59 Y189.97 E105.20954
G1 X132.44 Y189.96 E105.21871
G1 X132.06 Y189.92 E105.24241
G1 X132.02 Y189.95 E105.24549
G1 X131.54 Y189.87 E105.27602
G1 X130.75 Y189.77 E105.32593
G1 X130.72 Y189.78 E105.32817
G1 X130.07 Y189.61 E105.36988
G1 X129.39 Y189.49 E105.41301
G1 X129.34 Y189.41 E105.41901
G1 X128.99 Y189.31 E105.44178
G1 X128.63 Y189.19 E105.46541
G1 X128.54 Y189.22 E105.47131
G1 X127.89 Y188.93 E105.51563
G1 X127.36 Y188.74 E105.55113
G1 X127.34 Y188.75 E105.55237
G1 X126.56 Y188.33 E105.60754
G1 X126.10 Y188.12 E105.63899
G1 X126.08 Y188.07 E105.64225
G1 X125.76 Y187.90 E105.66485
G1 X125.43 Y187.70 E105.68889
G1 X125.39 Y187.71 E105.69187
G1 X125.01 Y187.44 E105.72087
G1 X124.32 Y186.99 E105.77216
G1 X124.28 Y186.99 E105.77416
G1 X123.79 Y186.56 E105.81523
G1 X123.21 Y186.15 E105.85955
G1 X123.20 Y186.05 E105.86571
G1 X122.99 Y185.87 E105.88259
G1 X122.66 Y185.54 E105.91201
G1 X122.56 Y185.54 E105.91794
G1 X122.07 Y184.96 E105.96507
G1 X121.73 Y184.60 E105.99595
G1 X121.69 Y184.60 E105.99866
G1 X121.17 Y183.88 E106.05375
G1 X120.83 Y183.48 E106.08633
G1 X120.84 Y183.43 E106.08971
G1 X120.63 Y183.14 E106.11191
G1 X120.22 Y182.51 E106.15878
G1 X119.72 Y181.69 E106.21888
G1 X119.69 Y181.68 E106.22070
G1 X119.37 Y180.93 E106.27137
G1 X119.11 Y180.41 E106.30774
G1 X119.12 Y180.37 E106.31064
G1 X119.01 Y180.11 E106.32776
G1 X118.85 Y179.67 E106.35737
G1 X118.81 Y179.64 E106.36042
G1 X118.66 Y179.12 E106.39458
G1 X118.41 Y178.41 E106.44118
G1 X118.39 Y178.40 E106.44262
G1 X118.08 Y176.72 E106.54937
G1 X118.03 Y176.25 E106.57835
G1 X117.96 Y176.20 E106.58348
G1 X117.94 Y175.56 E106.62373
G1 X117.85 Y174.84 E106.66894
G1 X117.91 Y174.76 E106.67449
G1 X117.86 Y173.53 E106.75144
G1 X117.92 Y173.48 E106.75638
G1 X117.93 Y173.25 E106.77074
G1 X117.94 Y173.11 E106.77948
G1 X117.97 Y172.73 E106.80299
G1 X117.93 Y172.67 E106.80785
G1 X118.06 Y171.97 E106.85203
G1 X118.13 Y171.41 E106.88741
G1 X118.11 Y171.38 E106.88956
G1 X118.30 Y170.69 E106.93386
G1 X118.42 Y170.05 E106.97467
G1 X118.49 Y170.01 E106.97964
G1 X118.59 Y169.65 E107.00292
G1 X118.71 Y169.29 E107.02649
G1 X118.69 Y169.24 E107.02981
G1 X118.92 Y168.69 E107.06708
G1 X119.15 Y168.02 E107.11138
G1 X119.15 Y168.00 E107.11255
G1 X119.77 Y166.84 E107.19468
G1 X119.82 Y166.74 E107.20180
G1 X119.83 Y166.74 E107.20213
G1 X120.00 Y166.42 E107.22429
G1 X120.20 Y166.09 E107.24847
G1 X120.18 Y166.00 E107.25423
G1 X120.64 Y165.39 E107.30186
G1 X120.91 Y164.99 E107.33191
G1 X120.90 Y164.94 E107.33472
G1 X121.49 Y164.27 E107.39054
G1 X121.79 Y163.87 E107.42180
G1 X121.85 Y163.86 E107.42506
G1 X122.03 Y163.66 E107.44226
G1 X122.36 Y163.31 E107.47181
G1 X122.36 Y163.30 E107.47293
G1 X122.52 Y163.15 E107.48665
G1 X122.62 Y163.04 E107.49561
G1 X123.29 Y162.39 E107.55409
G1 X123.30 Y162.35 E107.55693
G1 X123.99 Y161.84 E107.61038
G1 X124.41 Y161.50 E107.64432
G1 X124.46 Y161.50 E107.64727
G1 X124.76 Y161.29 E107.67009
G1 X125.07 Y161.09 E107.69320
G1 X125.08 Y161.03 E107.69687
G1 X125.72 Y160.69 E107.74175
G1 X126.20 Y160.39 E107.77737
G1 X126.22 Y160.35 E107.78005
G1 X127.50 Y159.80 E107.86732
G1 X127.53 Y159.78 E107.86911
G1 X127.53 Y159.78 E107.86917
G1 X127.79 Y159.68 E107.88641
G1 X128.06 Y159.57 E107.90479
G1 X127.86 Y159.23 E107.92966
G1 X129.59 Y158.71 E108.04219
G1 X129.25 Y157.55 E108.11790
G1 X129.66 Y157.38 E108.14548
G1 X129.43 Y156.90 E108.17902
G1 X130.08 Y156.55 E108.22488
G1 X130.08 Y155.60 E108.28425
G1 X129.90 Y155.29 E108.30672
G1 X130.08 Y155.17 E108.32010
G1 X130.08 Y154.61 E108.35528
G1 X130.04 Y154.55 E108.35966
G1 X130.08 Y154.52 E108.36294
G1 X130.08 Y149.84 E108.65461
G1 X129.90 Y149.72 E108.66819
G1 X130.08 Y149.40 E108.69112
G1 X130.08 Y148.38 E108.75498
G1 X129.47 Y148.03 E108.79914
G1 X129.65 Y147.62 E108.82685
G1 X129.25 Y147.46 E108.85403
G1 X129.59 Y146.30 E108.92993
G1 X127.85 Y145.79 E109.04296
G1 X128.06 Y145.43 E109.06929
G1 X127.96 Y145.39 E109.07591
G1 X127.52 Y145.21 E109.10549
G1 X127.48 Y145.22 E109.10859
G1 X127.07 Y145.01 E109.13737
G1 X126.30 Y144.68 E109.18976
G1 X126.28 Y144.68 E109.19066
G1 X126.24 Y144.65 E109.19400
G1 X126.22 Y144.65 E109.19514
G1 X126.22 Y144.64 E109.19548
G1 X125.73 Y144.33 E109.23162
G1 X125.09 Y144.00 E109.27610
G1 X125.07 Y143.91 E109.28231
G1 X124.84 Y143.76 E109.29907
G1 X124.46 Y143.49 E109.32837
G1 X124.40 Y143.50 E109.33213
G1 X123.91 Y143.10 E109.37140
G1 X123.38 Y142.69 E109.41304
G1 X123.35 Y142.69 E109.41503
G1 X122.37 Y141.70 E109.50235
G1 X122.35 Y141.68 E109.50402
G1 X122.35 Y141.68 E109.50408
G1 X122.09 Y141.42 E109.52658
G1 X121.60 Y140.86 E109.57332
G1 X120.98 Y140.12 E109.63323
G1 X120.95 Y140.12 E109.63509
G1 X120.51 Y139.41 E109.68737
G1 X120.19 Y138.95 E109.72230
G1 X120.19 Y138.90 E109.72529
G1 X120.00 Y138.59 E109.74817
G1 X119.82 Y138.25 E109.77180
G1 X119.77 Y138.24 E109.77524
G1 X119.49 Y137.63 E109.81645
G1 X119.21 Y137.07 E109.85555
G1 X119.18 Y137.06 E109.85770
G1 X118.62 Y135.45 E109.96407
G1 X118.49 Y134.98 E109.99429
G1 X118.42 Y134.94 E109.99897
G1 X118.30 Y134.31 E110.03923
G1 X118.15 Y133.71 E110.07787
G1 X118.12 Y133.69 E110.07982
G1 X118.05 Y132.99 E110.12378
G1 X117.92 Y132.33 E110.16574
G1 X117.97 Y132.26 E110.17101
G1 X117.94 Y131.90 E110.19352
G1 X117.92 Y131.53 E110.21687
G1 X117.86 Y131.47 E110.22185
G1 X117.91 Y130.24 E110.29824
G1 X117.85 Y130.17 E110.30383
G1 X117.94 Y129.46 E110.34880
G1 X117.96 Y128.80 E110.39005
G1 X118.02 Y128.75 E110.39500
G1 X118.06 Y128.47 E110.41233
G1 X118.14 Y128.00 E110.44176
G1 X118.13 Y127.99 E110.44285
G1 X118.18 Y127.77 E110.45666
G1 X118.20 Y127.65 E110.46432
G1 X118.38 Y126.69 E110.52574
G1 X118.38 Y126.67 E110.52697
G1 X118.85 Y125.33 E110.61520
G1 X118.86 Y125.32 E110.61624
G1 X118.86 Y125.32 E110.61633
G1 X118.95 Y125.06 E110.63302
G1 X119.13 Y124.63 E110.66240
G1 X119.10 Y124.55 E110.66747
G1 X119.42 Y123.95 E110.71021
G1 X119.69 Y123.35 E110.75097
G1 X119.68 Y123.33 E110.75187
G1 X120.05 Y122.77 E110.79399
G1 X120.35 Y122.19 E110.83469
G1 X120.43 Y122.17 E110.83967
G1 X120.57 Y121.94 E110.85641
G1 X120.84 Y121.56 E110.88562
G1 X120.84 Y121.51 E110.88870
G1 X121.14 Y121.15 E110.91782
G1 X121.64 Y120.50 E110.96923
G1 X121.64 Y120.45 E110.97222
G1 X122.12 Y119.98 E111.01433
G1 X122.56 Y119.46 E111.05674
G1 X122.66 Y119.45 E111.06273
G1 X122.92 Y119.20 E111.08558
G0 F6000 X122.58 Y118.83
G1 F2700 X122.58 Y118.83 E111.08575
G1 X122.58 Y118.69 E111.09411
G1 X123.54 Y118.00 E111.16791
G1 X123.76 Y117.82 E111.18576
G1 X123.78 Y117.73 E111.19126
G1 X124.10 Y117.53 E111.21501
G1 X124.14 Y117.50 E111.21824
G1 X124.16 Y117.50 E111.21899
G1 X124.69 Y117.17 E111.25842
G1 X125.27 Y116.75 E111.30300
G1 X125.35 Y116.77 E111.30776
G1 X125.50 Y116.67 E111.31896
G1 X125.69 Y116.57 E111.33216
G1 X125.71 Y116.51 E111.33640
G1 X126.31 Y116.23 E111.37762
G1 X126.89 Y115.94 E111.41803
G1 X126.93 Y115.87 E111.42303
G1 X127.26 Y115.75 E111.44512
G1 X127.33 Y115.72 E111.44966
G1 X127.34 Y115.73 E111.45071
G1 X127.71 Y115.60 E111.47512
G1 X128.53 Y115.23 E111.53131
G1 X128.65 Y115.28 E111.53910
G1 X128.74 Y115.25 E111.54516
G1 X129.03 Y115.16 E111.56411
G1 X129.10 Y115.06 E111.57146
G1 X130.00 Y114.90 E111.62894
G1 X130.34 Y114.81 E111.65091
G1 X130.40 Y114.75 E111.65597
G1 X130.74 Y114.71 E111.67773
G1 X130.82 Y114.70 E111.68248
G1 X130.83 Y114.70 E111.68363
G1 X131.43 Y114.64 E111.72106
G1 X132.15 Y114.51 E111.76681
G1 X132.22 Y114.56 E111.77182
G1 X132.40 Y114.54 E111.78335
G1 X133.16 Y114.50 E111.83061
G1 X133.98 Y114.47 E111.88185
G1 X134.03 Y114.44 E111.88571
G1 X134.26 Y114.46 E111.90041
G1 X134.42 Y114.46 E111.91046
G1 X134.46 Y114.49 E111.91315
G1 X135.01 Y114.55 E111.94776
G1 X135.80 Y114.60 E111.99723
G1 X135.85 Y114.65 E112.00183
G1 X135.94 Y114.66 E112.00773
G1 X136.23 Y114.71 E112.02614
G1 X136.32 Y114.66 E112.03286
G1 X137.13 Y114.87 E112.08470
G1 X137.59 Y114.96 E112.11426
G1 X137.64 Y114.94 E112.11764
G1 X137.83 Y115.00 E112.13022
G1 X138.04 Y115.04 E112.14323
G1 X138.07 Y115.09 E112.14672
G1 X138.48 Y115.24 E112.17408
G1 X139.31 Y115.46 E112.22786
G1 X139.36 Y115.55 E112.23430
G1 X139.45 Y115.58 E112.24020
G1 X139.73 Y115.70 E112.25882
G1 X139.80 Y115.67 E112.26336
G1 X140.39 Y115.97 E112.30461
G1 X140.99 Y116.24 E112.34569
G1 X141.05 Y116.22 E112.34946
G1 X141.24 Y116.35 E112.36365
G1 X141.40 Y116.42 E112.37454
G1 X141.42 Y116.46 E112.37750
G1 X141.76 Y116.68 E112.40271
G1 X142.57 Y117.09 E112.45952
G1 X142.60 Y117.22 E112.46746
G1 X142.67 Y117.26 E112.47257
G1 X142.91 Y117.43 E112.49100
G1 X143.02 Y117.42 E112.49770
G1 X143.72 Y118.02 E112.55519
G1 X144.02 Y118.25 E112.57855
G1 X144.09 Y118.25 E112.58336
G1 X144.33 Y118.48 E112.60386
G1 X144.40 Y118.54 E112.60943
G1 X144.40 Y118.56 E112.61075
G1 X144.71 Y118.88 E112.63862
G1 X145.38 Y119.45 E112.69314
G1 X145.38 Y119.55 E112.69976
G1 X145.51 Y119.68 E112.71092
G1 X145.65 Y119.84 E112.72395
G1 X145.65 Y119.84 E112.72433
G1 X145.72 Y119.93 E112.73160
G1 X146.01 Y120.26 E112.75899
G1 X146.53 Y120.87 E112.80908
G1 X146.61 Y120.89 E112.81376
G1 X146.76 Y121.14 E112.83224
G1 X146.84 Y121.23 E112.83941
G1 X146.84 Y121.26 E112.84129
G1 X147.15 Y121.76 E112.87831
G1 X147.58 Y122.39 E112.92573
G1 X147.57 Y122.45 E112.92979
G1 X147.67 Y122.60 E112.94107
G1 X147.76 Y122.78 E112.95330
G1 X147.85 Y122.81 E112.95955
G1 X148.23 Y123.66 E113.01758
G1 X148.43 Y124.06 E113.04508
G1 X148.49 Y124.09 E113.04957
G1 X148.59 Y124.37 E113.06823
G1 X148.61 Y124.42 E113.07166
G1 X148.61 Y124.44 E113.07245
G1 X148.75 Y124.87 E113.10087
G1 X149.10 Y125.66 E113.15473
G1 X149.06 Y125.75 E113.16133
G1 X149.09 Y125.84 E113.16720
G1 X149.18 Y126.14 E113.18647
G1 X149.26 Y126.19 E113.19278
G1 X149.43 Y127.06 E113.24751
