;-- START GCODE --
;Sliced for Type A Machines Series 1
;Sliced at: Thu 17-11-2016 21:56:57
;Basic settings: Layer height: 0.2 Walls: 1.2 Fill: 20
;Print Speed: 40 Support: 0
;Retraction Speed: 40 Retraction Distance: 1.2
;Print time: #P_TIME#
;Filament used: #F_AMNT#m #F_WGHT#g
;Filament cost: #F_COST#
M106 S255	 ;start with the fan on
G21        ;metric values
G90        ;absolute positioning
M106 S255    ;start with the fan on
G28     ;move to endstops
G29		;allows for auto-levelling
G1 X150 Y5  Z15.0 F12000 ;center and move the platform down 15mm
M109 S220 ;Heat To temp
G92 E0                  ;zero the extruded length
G1 F200 E30              ;extrude 30mm of feed stock
G92 E0                  ;zero the extruded length again
G1 X175 Y25  Z0 F12000 ;remove bugger
G1 X220 F12000 ;remove bugger
G1 X150 Y150  Z15 F12000 ;recenter and begin
G1 F12000

;Layer count: 39
;LAYER:0
M106 S255
G0 F12000 X118.23 Y121.75 Z0.30
;TYPE:SKIRT
G1 F2400 X168.68 Y121.75 E2.51686
G1 X168.68 Y131.40 E2.99815
G1 X185.32 Y131.40 E3.82857
G1 X185.32 Y172.97 E5.90286
G1 X184.34 Y172.97 E5.95175
G1 X184.34 Y173.86 E5.99575
G1 X167.97 Y173.86 E6.81246
G1 X167.97 Y182.85 E7.26127
G1 X166.99 Y182.85 E7.31016
G1 X166.99 Y183.74 E7.35417
G1 X118.51 Y183.74 E9.77324
G1 X118.51 Y182.85 E9.81724
G1 X117.53 Y182.85 E9.86614
G1 X117.53 Y141.28 E11.94047
G1 X117.85 Y141.28 E11.95674
G1 X117.85 Y131.27 E12.45589
G1 X118.23 Y131.27 E12.47480
G1 X118.23 Y121.75 E12.94970
G0 F12000 X118.63 Y122.15
G1 F2400 X168.28 Y122.15 E15.42665
G1 X168.28 Y131.80 E15.90794
G1 X184.92 Y131.80 E16.73836
G1 X184.92 Y172.57 E18.77274
G1 X183.94 Y172.57 E18.82163
G1 X183.94 Y173.46 E18.86563
G1 X167.57 Y173.46 E19.68233
G1 X167.57 Y182.45 E20.13115
G1 X166.59 Y182.45 E20.18004
G1 X166.59 Y183.34 E20.22404
G1 X118.91 Y183.34 E22.60321
G1 X118.91 Y182.45 E22.64721
G1 X117.93 Y182.45 E22.69610
G1 X117.93 Y141.68 E24.73052
G1 X118.25 Y141.68 E24.74679
G1 X118.25 Y131.67 E25.24594
G1 X118.63 Y131.67 E25.26485
G1 X118.63 Y122.15 E25.73975
G0 F12000 X119.03 Y122.55
G1 F2400 X167.88 Y122.55 E28.17679
G1 X167.88 Y132.20 E28.65808
G1 X184.52 Y132.20 E29.48850
G1 X184.52 Y172.18 E31.48296
G1 X183.54 Y172.18 E31.53186
G1 X183.54 Y173.06 E31.57586
G1 X167.17 Y173.06 E32.39256
G1 X167.17 Y182.05 E32.84137
G1 X166.19 Y182.05 E32.89027
G1 X166.19 Y182.94 E32.93427
G1 X119.31 Y182.94 E35.27352
G1 X119.31 Y182.05 E35.31752
G1 X118.33 Y182.05 E35.36642
G1 X118.33 Y142.07 E37.36093
G1 X118.65 Y142.07 E37.37719
G1 X118.65 Y132.07 E37.87634
G1 X119.03 Y132.07 E37.89525
G1 X119.03 Y122.55 E38.37016
G0 F12000 X119.43 Y122.95
G1 F2400 X167.48 Y122.95 E40.76728
G1 X167.48 Y132.60 E41.24857
G1 X184.12 Y132.60 E42.07899
G1 X184.12 Y171.78 E44.03354
G1 X183.14 Y171.78 E44.08243
G1 X183.14 Y172.66 E44.12644
G1 X166.77 Y172.66 E44.94314
G1 X166.77 Y181.65 E45.39195
G1 X165.79 Y181.65 E45.44084
G1 X165.79 Y182.53 E45.48485
G1 X119.71 Y182.53 E47.78419
G1 X119.71 Y181.65 E47.82819
G1 X118.73 Y181.65 E47.87708
G1 X118.73 Y142.47 E49.83168
G1 X119.05 Y142.47 E49.84795
G1 X119.05 Y132.47 E50.34710
G1 X119.43 Y132.47 E50.36601
G1 X119.43 Y122.95 E50.84091
G0 F12000 X119.83 Y123.35
G1 F2400 X167.08 Y123.35 E53.19812
G1 X167.08 Y133.00 E53.67941
G1 X183.72 Y133.00 E54.50984
G1 X183.72 Y171.38 E56.42447
G1 X182.74 Y171.38 E56.47336
G1 X182.74 Y172.26 E56.51737
G1 X166.37 Y172.26 E57.33407
G1 X166.37 Y181.25 E57.78288
G1 X165.39 Y181.25 E57.83177
G1 X165.39 Y182.13 E57.87578
G1 X120.11 Y182.13 E60.13521
G1 X120.11 Y181.25 E60.17921
G1 X119.13 Y181.25 E60.22810
G1 X119.13 Y142.88 E62.14279
G1 X119.45 Y142.88 E62.15905
G1 X119.45 Y132.87 E62.65820
G1 X119.83 Y132.87 E62.67711
G1 X119.83 Y123.35 E63.15202
G0 F12000 X120.23 Y123.75
G1 F2400 X166.68 Y123.75 E65.46932
G1 X166.68 Y133.40 E65.95061
G1 X183.32 Y133.40 E66.78103
G1 X183.32 Y170.97 E68.65575
G1 X182.34 Y170.97 E68.70465
G1 X182.34 Y171.86 E68.74865
G1 X165.97 Y171.86 E69.56535
G1 X165.97 Y180.85 E70.01416
G1 X164.99 Y180.85 E70.06306
G1 X164.99 Y181.74 E70.10706
G1 X120.51 Y181.74 E72.32658
G1 X120.51 Y180.85 E72.37058
G1 X119.53 Y180.85 E72.41947
G1 X119.53 Y143.28 E74.29424
G1 X119.85 Y143.28 E74.31051
G1 X119.85 Y133.27 E74.80966
G1 X120.23 Y133.27 E74.82857
G1 X120.23 Y123.75 E75.30347
G0 F12000 X120.63 Y124.15
G1 F2400 X166.28 Y124.15 E77.58086
G1 X166.28 Y133.80 E78.06215
G1 X182.92 Y133.80 E78.89257
G1 X182.92 Y170.57 E80.72739
G1 X181.94 Y170.57 E80.77628
G1 X181.94 Y171.46 E80.82028
G1 X165.57 Y171.46 E81.63698
G1 X165.57 Y180.45 E82.08580
G1 X164.59 Y180.45 E82.13469
G1 X164.59 Y181.34 E82.17869
G1 X120.91 Y181.34 E84.35830
G1 X120.91 Y180.45 E84.40230
G1 X119.93 Y180.45 E84.45119
G1 X119.93 Y143.68 E86.28605
G1 X120.25 Y143.68 E86.30232
G1 X120.25 Y133.67 E86.80147
G1 X120.63 Y133.67 E86.82038
G1 X120.63 Y124.15 E87.29528
G0 F12000 X121.03 Y124.55
G1 F2400 X165.88 Y124.55 E89.53276
G1 X165.88 Y134.20 E90.01405
G1 X182.52 Y134.20 E90.84447
G1 X182.52 Y170.18 E92.63937
G1 X181.54 Y170.18 E92.68826
G1 X181.54 Y171.06 E92.73227
G1 X165.17 Y171.06 E93.54897
G1 X165.17 Y180.05 E93.99778
G1 X164.19 Y180.05 E94.04667
G1 X164.19 Y180.94 E94.09068
G1 X121.31 Y180.94 E96.23037
G1 X121.31 Y180.05 E96.27437
G1 X120.33 Y180.05 E96.32326
G1 X120.33 Y144.07 E98.11821
G1 X120.65 Y144.07 E98.13448
G1 X120.65 Y134.07 E98.63363
G1 X121.03 Y134.07 E98.65254
G1 X121.03 Y124.55 E99.12744
G0 F12000 X121.43 Y124.95
G1 F2400 X165.48 Y124.95 E101.32501
G1 X165.48 Y134.60 E101.80630
G1 X182.12 Y134.60 E102.63672
G1 X182.12 Y169.78 E104.39171
G1 X181.14 Y169.78 E104.44060
G1 X181.14 Y170.66 E104.48460
G1 X164.77 Y170.66 E105.30130
G1 X164.77 Y179.65 E105.75012
G1 X163.79 Y179.65 E105.79901
G1 X163.79 Y180.53 E105.84301
G1 X121.71 Y180.53 E107.94279
G1 X121.71 Y179.65 E107.98679
G1 X120.73 Y179.65 E108.03569
G1 X120.73 Y144.47 E109.79072
G1 X121.05 Y144.47 E109.80699
G1 X121.05 Y134.47 E110.30614
G1 X121.43 Y134.47 E110.32505
G1 X121.43 Y124.95 E110.79995
G0 F12000 X121.83 Y125.35
G1 F2400 X165.08 Y125.35 E112.95761
G1 X165.08 Y135.00 E113.43890
G1 X181.72 Y135.00 E114.26932
G1 X181.72 Y169.38 E115.98439
G1 X180.74 Y169.38 E116.03329
G1 X180.74 Y170.26 E116.07729
G1 X164.37 Y170.26 E116.89399
G1 X164.37 Y179.25 E117.34280
G1 X163.39 Y179.25 E117.39170
G1 X163.39 Y180.13 E117.43570
G1 X122.11 Y180.13 E119.49557
G1 X122.11 Y179.25 E119.53957
G1 X121.13 Y179.25 E119.58846
G1 X121.13 Y144.88 E121.30359
G1 X121.45 Y144.88 E121.31985
G1 X121.45 Y134.87 E121.81900
G1 X121.83 Y134.87 E121.83791
G1 X121.83 Y125.35 E122.31282
G0 F12000 X122.23 Y125.75
G1 F2400 X164.68 Y125.75 E124.43056
G1 X164.68 Y135.40 E124.91185
G1 X181.32 Y135.40 E125.74227
G1 X181.32 Y168.97 E127.41743
G1 X180.34 Y168.97 E127.46632
G1 X180.34 Y169.86 E127.51033
G1 X163.97 Y169.86 E128.32703
G1 X163.97 Y178.85 E128.77584
G1 X162.99 Y178.85 E128.82473
G1 X162.99 Y179.74 E128.86874
G1 X122.51 Y179.74 E130.88869
G1 X122.51 Y178.85 E130.93270
G1 X121.53 Y178.85 E130.98159
G1 X121.53 Y145.28 E132.65680
G1 X121.85 Y145.28 E132.67307
G1 X121.85 Y135.27 E133.17222
G1 X122.23 Y135.27 E133.19113
G1 X122.23 Y125.75 E133.66603
G0 F12000 X122.63 Y126.15
G1 F2400 X164.28 Y126.15 E135.74386
G1 X164.28 Y135.80 E136.22515
G1 X180.92 Y135.80 E137.05557
G1 X180.92 Y168.57 E138.69082
G1 X179.94 Y168.57 E138.73971
G1 X179.94 Y169.46 E138.78372
G1 X163.57 Y169.46 E139.60042
G1 X163.57 Y178.45 E140.04923
G1 X162.59 Y178.45 E140.09812
G1 X162.59 Y179.34 E140.14213
G1 X122.91 Y179.34 E142.12217
G1 X122.91 Y178.45 E142.16617
G1 X121.93 Y178.45 E142.21507
G1 X121.93 Y145.68 E143.85037
G1 X122.25 Y145.68 E143.86663
G1 X122.25 Y135.67 E144.36578
G1 X122.63 Y135.67 E144.38469
G1 X122.63 Y126.15 E144.85960
G0 F12000 X123.03 Y126.55
G1 F2400 X163.88 Y126.55 E146.89751
G1 X163.88 Y136.20 E147.37880
G1 X180.52 Y136.20 E148.20922
G1 X180.52 Y168.18 E149.80456
G1 X179.54 Y168.18 E149.85346
G1 X179.54 Y169.06 E149.89746
G1 X163.17 Y169.06 E150.71416
G1 X163.17 Y178.05 E151.16297
G1 X162.19 Y178.05 E151.21187
G1 X162.19 Y178.94 E151.25587
G1 X123.31 Y178.94 E153.19600
G1 X123.31 Y178.05 E153.24000
G1 X122.33 Y178.05 E153.28889
G1 X122.33 Y146.07 E154.88428
G1 X122.65 Y146.07 E154.90055
G1 X122.65 Y136.07 E155.39970
G1 X123.03 Y136.07 E155.41861
G1 X123.03 Y126.55 E155.89351
G0 F12000 X123.43 Y126.95
G1 F2400 X163.48 Y126.95 E157.89152
G1 X163.48 Y136.60 E158.37281
G1 X180.12 Y136.60 E159.20323
G1 X180.12 Y167.78 E160.75866
G1 X179.14 Y167.78 E160.80755
G1 X179.14 Y168.66 E160.85155
G1 X162.77 Y168.66 E161.66825
G1 X162.77 Y177.65 E162.11707
G1 X161.79 Y177.65 E162.16596
G1 X161.79 Y178.53 E162.20996
G1 X123.71 Y178.53 E164.11018
G1 X123.71 Y177.65 E164.15418
G1 X122.73 Y177.65 E164.20307
G1 X122.73 Y146.47 E165.75855
G1 X123.05 Y146.47 E165.77482
G1 X123.05 Y136.47 E166.27397
G1 X123.43 Y136.47 E166.29288
G1 X123.43 Y126.95 E166.76778
G0 F12000 X123.83 Y127.35
G1 F2400 X163.08 Y127.35 E168.72587
G1 X163.08 Y137.00 E169.20716
G1 X179.72 Y137.00 E170.03758
G1 X179.72 Y167.38 E171.55310
G1 X178.74 Y167.38 E171.60199
G1 X178.74 Y168.26 E171.64599
G1 X162.37 Y168.26 E172.46270
G1 X162.37 Y177.25 E172.91151
G1 X161.39 Y177.25 E172.96040
G1 X161.39 Y178.13 E173.00441
G1 X124.11 Y178.13 E174.86471
G1 X124.11 Y177.25 E174.90871
G1 X123.13 Y177.25 E174.95761
G1 X123.13 Y146.88 E176.47317
G1 X123.45 Y146.88 E176.48944
G1 X123.45 Y136.87 E176.98859
G1 X123.83 Y136.87 E177.00750
G1 X123.83 Y127.35 E177.48240
G0 F12000 X124.23 Y127.75
G1 F2400 X162.68 Y127.75 E179.40058
G1 X162.68 Y137.40 E179.88187
G1 X179.32 Y137.40 E180.71229
G1 X179.32 Y166.97 E182.18789
G1 X178.34 Y166.97 E182.23679
G1 X178.34 Y167.86 E182.28079
G1 X161.97 Y167.86 E183.09749
G1 X161.97 Y176.85 E183.54630
G1 X160.99 Y176.85 E183.59520
G1 X160.99 Y177.74 E183.63920
G1 X124.51 Y177.74 E185.45959
G1 X124.51 Y176.85 E185.50360
G1 X123.53 Y176.85 E185.55249
G1 X123.53 Y147.28 E187.02814
G1 X123.85 Y147.28 E187.04441
G1 X123.85 Y137.27 E187.54356
G1 X124.23 Y137.27 E187.56247
G1 X124.23 Y127.75 E188.03737
G0 F12000 X124.63 Y128.15
G1 F2400 X162.28 Y128.15 E189.91564
G1 X162.28 Y137.80 E190.39693
G1 X178.92 Y137.80 E191.22735
G1 X178.92 Y166.57 E192.66304
G1 X177.94 Y166.57 E192.71193
G1 X177.94 Y167.46 E192.75594
G1 X161.57 Y167.46 E193.57264
G1 X161.57 Y176.45 E194.02145
G1 X160.59 Y176.45 E194.07034
G1 X160.59 Y177.34 E194.11435
G1 X124.91 Y177.34 E195.89483
G1 X124.91 Y176.45 E195.93883
G1 X123.93 Y176.45 E195.98772
G1 X123.93 Y147.68 E197.42346
G1 X124.25 Y147.68 E197.43973
G1 X124.25 Y137.67 E197.93888
G1 X124.63 Y137.67 E197.95779
G1 X124.63 Y128.15 E198.43269
G0 F12000 X125.03 Y128.55
G1 F2400 X161.88 Y128.55 E200.27105
G1 X161.88 Y138.20 E200.75234
G1 X178.52 Y138.20 E201.58276
G1 X178.52 Y166.18 E202.97854
G1 X177.54 Y166.18 E203.02743
G1 X177.54 Y167.06 E203.07143
G1 X161.17 Y167.06 E203.88814
G1 X161.17 Y176.05 E204.33695
G1 X160.19 Y176.05 E204.38584
G1 X160.19 Y176.94 E204.42984
G1 X125.31 Y176.94 E206.17041
G1 X125.31 Y176.05 E206.21442
G1 X124.33 Y176.05 E206.26331
G1 X124.33 Y148.07 E207.65914
G1 X124.65 Y148.07 E207.67540
G1 X124.65 Y138.07 E208.17455
G1 X125.03 Y138.07 E208.19346
G1 X125.03 Y128.55 E208.66837
G0 F12000 X125.43 Y128.95
G1 F2400 X161.48 Y128.95 E210.46681
G1 X161.48 Y138.60 E210.94810
G1 X178.12 Y138.60 E211.77852
G1 X178.12 Y165.78 E213.13439
G1 X177.14 Y165.78 E213.18328
G1 X177.14 Y166.66 E213.22728
G1 X160.77 Y166.66 E214.04399
G1 X160.77 Y175.65 E214.49280
G1 X159.79 Y175.65 E214.54169
G1 X159.79 Y176.53 E214.58569
G1 X125.71 Y176.53 E216.28635
G1 X125.71 Y175.65 E216.33035
G1 X124.73 Y175.65 E216.37925
G1 X124.73 Y148.47 E217.73516
G1 X125.05 Y148.47 E217.75143
G1 X125.05 Y138.47 E218.25058
G1 X125.43 Y138.47 E218.26949
G1 X125.43 Y128.95 E218.74439
G0 F12000 X125.83 Y129.35
G1 F2400 X161.08 Y129.35 E220.50292
G1 X161.08 Y139.00 E220.98421
G1 X177.72 Y139.00 E221.81463
G1 X177.72 Y165.38 E223.13059
G1 X176.74 Y165.38 E223.17948
G1 X176.74 Y166.26 E223.22348
G1 X160.37 Y166.26 E224.04019
G1 X160.37 Y175.25 E224.48900
G1 X159.39 Y175.25 E224.53789
G1 X159.39 Y176.13 E224.58189
G1 X126.11 Y176.13 E226.24264
G1 X126.11 Y175.25 E226.28664
G1 X125.13 Y175.25 E226.33553
G1 X125.13 Y148.88 E227.65154
G1 X125.45 Y148.88 E227.66780
G1 X125.45 Y138.87 E228.16695
G1 X125.83 Y138.87 E228.18586
G1 X125.83 Y129.35 E228.66077
G0 F12000 X126.23 Y129.75
G1 F2400 X160.68 Y129.75 E230.37939
G1 X160.68 Y139.40 E230.86068
G1 X177.32 Y139.40 E231.69110
G1 X177.32 Y164.97 E232.96714
G1 X176.34 Y164.97 E233.01603
G1 X176.34 Y165.86 E233.06004
G1 X159.97 Y165.86 E233.87674
G1 X159.97 Y174.85 E234.32555
G1 X158.99 Y174.85 E234.37444
G1 X158.99 Y175.74 E234.41845
G1 X126.51 Y175.74 E236.03928
G1 X126.51 Y174.85 E236.08328
G1 X125.53 Y174.85 E236.13217
G1 X125.53 Y149.28 E237.40827
G1 X125.85 Y149.28 E237.42453
G1 X125.85 Y139.27 E237.92368
G1 X126.23 Y139.27 E237.94259
G1 X126.23 Y129.75 E238.41750
G0 F12000 X126.63 Y130.15
G1 F2400 X160.28 Y130.15 E240.09620
G1 X160.28 Y139.80 E240.57749
G1 X176.92 Y139.80 E241.40791
G1 X176.92 Y164.57 E242.64404
G1 X175.94 Y164.57 E242.69294
G1 X175.94 Y165.46 E242.73694
G1 X159.57 Y165.46 E243.55364
G1 X159.57 Y174.45 E244.00245
G1 X158.59 Y174.45 E244.05135
G1 X158.59 Y175.34 E244.09535
G1 X126.91 Y175.34 E245.67627
G1 X126.91 Y174.45 E245.72027
G1 X125.93 Y174.45 E245.76917
G1 X125.93 Y149.68 E247.00535
G1 X126.25 Y149.68 E247.02161
G1 X126.25 Y139.67 E247.52076
G1 X126.63 Y139.67 E247.53967
G1 X126.63 Y130.15 E248.01457
G0 F12000 X127.03 Y130.55
G1 F2400 X159.88 Y130.55 E249.65337
G1 X159.88 Y140.20 E250.13466
G1 X176.52 Y140.20 E250.96508
G1 X176.52 Y164.18 E252.16130
G1 X175.54 Y164.18 E252.21019
G1 X175.54 Y165.06 E252.25419
G1 X159.17 Y165.06 E253.07090
G1 X159.17 Y174.05 E253.51971
G1 X158.19 Y174.05 E253.56860
G1 X158.19 Y174.94 E253.61260
G1 X127.31 Y174.94 E255.15361
G1 X127.31 Y174.05 E255.19762
G1 X126.33 Y174.05 E255.24651
G1 X126.33 Y150.07 E256.44278
G1 X126.65 Y150.07 E256.45904
G1 X126.65 Y140.07 E256.95819
G1 X127.03 Y140.07 E256.97710
G1 X127.03 Y130.55 E257.45200
G0 F12000 X127.43 Y130.95
G1 F2400 X159.48 Y130.95 E259.05089
G1 X159.48 Y140.60 E259.53218
G1 X176.12 Y140.60 E260.36260
G1 X176.12 Y163.78 E261.51890
G1 X175.14 Y163.78 E261.56780
G1 X175.14 Y164.66 E261.61180
G1 X158.77 Y164.66 E262.42850
G1 X158.77 Y173.65 E262.87731
G1 X157.79 Y173.65 E262.92621
G1 X157.79 Y174.53 E262.97021
G1 X127.71 Y174.53 E264.47131
G1 X127.71 Y173.65 E264.51531
G1 X126.73 Y173.65 E264.56420
G1 X126.73 Y150.47 E265.72056
G1 X127.05 Y150.47 E265.73682
G1 X127.05 Y140.47 E266.23597
G1 X127.43 Y140.47 E266.25488
G1 X127.43 Y130.95 E266.72979
G0 F12000 X127.83 Y131.35
G1 F2400 X159.08 Y131.35 E268.28876
G1 X159.08 Y141.00 E268.77005
G1 X175.72 Y141.00 E269.60047
G1 X175.72 Y163.38 E270.71686
G1 X174.74 Y163.38 E270.76575
G1 X174.74 Y164.26 E270.80976
G1 X158.37 Y164.26 E271.62646
G1 X158.37 Y173.25 E272.07527
G1 X157.39 Y173.25 E272.12416
G1 X157.39 Y174.13 E272.16817
G1 X128.11 Y174.13 E273.62935
G1 X128.11 Y173.25 E273.67335
G1 X127.13 Y173.25 E273.72225
G1 X127.13 Y150.88 E274.83869
G1 X127.45 Y150.88 E274.85495
G1 X127.45 Y140.87 E275.35411
G1 X127.83 Y140.87 E275.37301
G1 X127.83 Y131.35 E275.84792
G0 F12000 X128.23 Y131.75
G1 F2400 X158.68 Y131.75 E277.36698
G1 X158.68 Y141.40 E277.84827
G1 X175.32 Y141.40 E278.67869
G1 X175.32 Y162.97 E279.75517
G1 X174.34 Y162.97 E279.80406
G1 X174.34 Y163.86 E279.84807
G1 X157.97 Y163.86 E280.66477
G1 X157.97 Y172.85 E281.11358
G1 X156.99 Y172.85 E281.16247
G1 X156.99 Y173.74 E281.20648
G1 X128.51 Y173.74 E282.62775
G1 X128.51 Y172.85 E282.67175
G1 X127.53 Y172.85 E282.72064
G1 X127.53 Y151.28 E283.79717
G1 X127.85 Y151.28 E283.81344
G1 X127.85 Y141.27 E284.31259
G1 X128.23 Y141.27 E284.33150
G1 X128.23 Y131.75 E284.80640
G0 F12000 X128.63 Y132.15
G1 F2400 X158.28 Y132.15 E286.28555
G1 X158.28 Y141.80 E286.76684
G1 X174.92 Y141.80 E287.59726
G1 X174.92 Y162.57 E288.63383
G1 X173.94 Y162.57 E288.68272
G1 X173.94 Y163.46 E288.72673
G1 X157.57 Y163.46 E289.54343
G1 X157.57 Y172.45 E289.99224
G1 X156.59 Y172.45 E290.04113
G1 X156.59 Y173.34 E290.08514
G1 X128.91 Y173.34 E291.46650
G1 X128.91 Y172.45 E291.51050
G1 X127.93 Y172.45 E291.55939
G1 X127.93 Y151.68 E292.59601
G1 X128.25 Y151.68 E292.61227
G1 X128.25 Y141.67 E293.11143
G1 X128.63 Y141.67 E293.13033
G1 X128.63 Y132.15 E293.60524
G0 F12000 X129.03 Y132.55
G1 F2400 X157.88 Y132.55 E295.04447
G1 X157.88 Y142.20 E295.52576
G1 X174.52 Y142.20 E296.35618
G1 X174.52 Y162.18 E297.35284
G1 X173.54 Y162.18 E297.40173
G1 X173.54 Y163.06 E297.44574
G1 X157.17 Y163.06 E298.26244
G1 X157.17 Y172.05 E298.71125
G1 X156.19 Y172.05 E298.76014
G1 X156.19 Y172.94 E298.80415
G1 X129.31 Y172.94 E300.14560
G1 X129.31 Y172.05 E300.18960
G1 X128.33 Y172.05 E300.23849
G1 X128.33 Y152.07 E301.23520
G1 X128.65 Y152.07 E301.25146
G1 X128.65 Y142.07 E301.75061
G1 X129.03 Y142.07 E301.76952
G1 X129.03 Y132.55 E302.24443
G0 F12000 X129.43 Y132.95
G1 F2400 X157.48 Y132.95 E303.64375
G1 X157.48 Y142.60 E304.12504
G1 X174.12 Y142.60 E304.95546
G1 X174.12 Y161.78 E305.91220
G1 X173.14 Y161.78 E305.96110
G1 X173.14 Y162.66 E306.00510
G1 X156.77 Y162.66 E306.82180
G1 X156.77 Y171.65 E307.27061
G1 X155.79 Y171.65 E307.31951
G1 X155.79 Y172.53 E307.36351
G1 X129.71 Y172.53 E308.66505
G1 X129.71 Y171.65 E308.70905
G1 X128.73 Y171.65 E308.75794
G1 X128.73 Y152.47 E309.71474
G1 X129.05 Y152.47 E309.73100
G1 X129.05 Y142.47 E310.23015
G1 X129.43 Y142.47 E310.24906
G1 X129.43 Y132.95 E310.72396
G0 F12000 X129.83 Y133.35
G1 F2400 X157.08 Y133.35 E312.08337
G1 X157.08 Y143.00 E312.56466
G1 X173.72 Y143.00 E313.39509
G1 X173.72 Y161.38 E314.31192
G1 X172.74 Y161.38 E314.36081
G1 X172.74 Y162.26 E314.40481
G1 X156.37 Y162.26 E315.22152
G1 X156.37 Y171.25 E315.67033
G1 X155.39 Y171.25 E315.71922
G1 X155.39 Y172.13 E315.76322
G1 X130.11 Y172.13 E317.02485
G1 X130.11 Y171.25 E317.06885
G1 X129.13 Y171.25 E317.11774
G1 X129.13 Y152.88 E318.03463
G1 X129.45 Y152.88 E318.05089
G1 X129.45 Y142.87 E318.55004
G1 X129.83 Y142.87 E318.56895
G1 X129.83 Y133.35 E319.04385
G0 F12000 X130.23 Y133.75
G1 F2400 X156.68 Y133.75 E320.36335
G1 X156.68 Y143.40 E320.84464
G1 X173.32 Y143.40 E321.67506
G1 X173.32 Y160.97 E322.55198
G1 X172.34 Y160.97 E322.60088
G1 X172.34 Y161.86 E322.64488
G1 X155.97 Y161.86 E323.46158
G1 X155.97 Y170.85 E323.91039
G1 X154.99 Y170.85 E323.95929
G1 X154.99 Y171.74 E324.00329
G1 X130.51 Y171.74 E325.22500
G1 X130.51 Y170.85 E325.26900
G1 X129.53 Y170.85 E325.31790
G1 X129.53 Y153.28 E326.19487
G1 X129.85 Y153.28 E326.21113
G1 X129.85 Y143.27 E326.71028
G1 X130.23 Y143.27 E326.72919
G1 X130.23 Y133.75 E327.20410
G0 F12000 X130.63 Y134.15
G1 F2400 X156.28 Y134.15 E328.48368
G1 X156.28 Y143.80 E328.96497
G1 X172.92 Y143.80 E329.79539
G1 X172.92 Y160.57 E330.63240
G1 X171.94 Y160.57 E330.68129
G1 X171.94 Y161.46 E330.72530
G1 X155.57 Y161.46 E331.54200
G1 X155.57 Y170.45 E331.99081
G1 X154.59 Y170.45 E332.03970
G1 X154.59 Y171.34 E332.08371
G1 X130.91 Y171.34 E333.26551
G1 X130.91 Y170.45 E333.30951
G1 X129.93 Y170.45 E333.35840
G1 X129.93 Y153.68 E334.19546
G1 X130.25 Y153.68 E334.21172
G1 X130.25 Y143.67 E334.71087
G1 X130.63 Y143.67 E334.72978
G1 X130.63 Y134.15 E335.20469
G0 F12000 X131.03 Y134.55
G1 F2400 X155.88 Y134.55 E336.44436
G1 X155.88 Y144.20 E336.92565
G1 X172.52 Y144.20 E337.75607
G1 X172.52 Y160.18 E338.55317
G1 X171.54 Y160.18 E338.60206
G1 X171.54 Y161.06 E338.64606
G1 X155.17 Y161.06 E339.46277
G1 X155.17 Y170.05 E339.91158
G1 X154.19 Y170.05 E339.96047
G1 X154.19 Y170.94 E340.00447
G1 X131.31 Y170.94 E341.14636
G1 X131.31 Y170.05 E341.19036
G1 X130.33 Y170.05 E341.23926
G1 X130.33 Y154.07 E342.03640
G1 X130.65 Y154.07 E342.05267
G1 X130.65 Y144.07 E342.55182
G1 X131.03 Y144.07 E342.57073
G1 X131.03 Y134.55 E343.04563
G0 F12000 X131.43 Y134.95
G1 F2400 X155.48 Y134.95 E344.24539
G1 X155.48 Y144.60 E344.72668
G1 X172.12 Y144.60 E345.55710
G1 X172.12 Y159.78 E346.31429
G1 X171.14 Y159.78 E346.36318
G1 X171.14 Y160.66 E346.40718
G1 X154.77 Y160.66 E347.22389
G1 X154.77 Y169.65 E347.67270
G1 X153.79 Y169.65 E347.72159
G1 X153.79 Y170.53 E347.76559
G1 X131.71 Y170.53 E348.86757
G1 X131.71 Y169.65 E348.91157
G1 X130.73 Y169.65 E348.96046
G1 X130.73 Y154.47 E349.71770
G1 X131.05 Y154.47 E349.73396
G1 X131.05 Y144.47 E350.23311
G1 X131.43 Y144.47 E350.25202
G1 X131.43 Y134.95 E350.72693
G0 F12000 X131.83 Y135.35
G1 F2400 X155.08 Y135.35 E351.88677
G1 X155.08 Y145.00 E352.36806
G1 X171.72 Y145.00 E353.19849
G1 X171.72 Y159.38 E353.91576
G1 X170.74 Y159.38 E353.96465
G1 X170.74 Y160.26 E354.00865
G1 X154.37 Y160.26 E354.82536
G1 X154.37 Y169.25 E355.27417
G1 X153.39 Y169.25 E355.32306
G1 X153.39 Y170.13 E355.36706
G1 X132.11 Y170.13 E356.42913
G1 X132.11 Y169.25 E356.47313
G1 X131.13 Y169.25 E356.52202
G1 X131.13 Y154.88 E357.23934
G1 X131.45 Y154.88 E357.25561
G1 X131.45 Y144.87 E357.75476
G1 X131.83 Y144.87 E357.77367
G1 X131.83 Y135.35 E358.24857
G0 F12000 X132.23 Y135.75
G1 F2400 X154.68 Y135.75 E359.36851
G1 X154.68 Y145.40 E359.84980
G1 X171.32 Y145.40 E360.68022
G1 X171.32 Y158.97 E361.35758
G1 X170.34 Y158.97 E361.40647
G1 X170.34 Y159.86 E361.45048
G1 X153.97 Y159.86 E362.26718
G1 X153.97 Y168.85 E362.71599
G1 X152.99 Y168.85 E362.76488
G1 X152.99 Y169.74 E362.80889
G1 X132.51 Y169.74 E363.83104
G1 X132.51 Y168.85 E363.87504
G1 X131.53 Y168.85 E363.92393
G1 X131.53 Y155.28 E364.60134
G1 X131.85 Y155.28 E364.61761
G1 X131.85 Y145.27 E365.11676
G1 X132.23 Y145.27 E365.13567
G1 X132.23 Y135.75 E365.61057
G0 F12000 X132.63 Y136.15
G1 F2400 X154.28 Y136.15 E366.69059
G1 X154.28 Y145.80 E367.17188
G1 X170.92 Y145.80 E368.00231
G1 X170.92 Y158.57 E368.63975
G1 X169.94 Y158.57 E368.68865
G1 X169.94 Y159.46 E368.73265
G1 X153.57 Y159.46 E369.54935
G1 X153.57 Y168.45 E369.99816
G1 X152.59 Y168.45 E370.04706
G1 X152.59 Y169.34 E370.09106
G1 X132.91 Y169.34 E371.07330
G1 X132.91 Y168.45 E371.11730
G1 X131.93 Y168.45 E371.16619
G1 X131.93 Y155.68 E371.80369
G1 X132.25 Y155.68 E371.81996
G1 X132.25 Y145.67 E372.31911
G1 X132.63 Y145.67 E372.33802
G1 X132.63 Y136.15 E372.81292
G0 F12000 X133.03 Y136.55
G1 F2400 X153.88 Y136.55 E373.85303
G1 X153.88 Y146.20 E374.33432
G1 X170.52 Y146.20 E375.16474
G1 X170.52 Y158.18 E375.76228
G1 X169.54 Y158.18 E375.81117
G1 X169.54 Y159.06 E375.85517
G1 X160.41 Y159.06 E376.31097
G1 X160.41 Y158.18 E376.35497
G1 X159.79 Y158.18 E376.38571
G1 X159.79 Y159.06 E376.42971
G1 X153.17 Y159.06 E376.75988
G1 X153.17 Y168.05 E377.20870
G1 X152.19 Y168.05 E377.25759
G1 X152.19 Y168.94 E377.30159
G1 X143.06 Y168.94 E377.75739
G1 X143.06 Y168.05 E377.80139
G1 X142.44 Y168.05 E377.83212
G1 X142.44 Y168.94 E377.87613
G1 X133.31 Y168.94 E378.33192
G1 X133.31 Y168.05 E378.37593
G1 X132.33 Y168.05 E378.42482
G1 X132.33 Y156.07 E379.02240
G1 X132.65 Y156.07 E379.03867
G1 X132.65 Y146.07 E379.53782
G1 X133.03 Y146.07 E379.55673
G1 X133.03 Y136.55 E380.03163
G0 F12000 X133.43 Y136.95
G1 F2400 X153.48 Y136.95 E381.03183
G1 X153.48 Y146.60 E381.51312
G1 X170.12 Y146.60 E382.34355
G1 X170.12 Y157.78 E382.90117
G1 X169.14 Y157.78 E382.95006
G1 X169.14 Y158.66 E382.99406
G1 X160.81 Y158.66 E383.40995
G1 X160.81 Y157.78 E383.45395
G1 X159.39 Y157.78 E383.52460
G1 X159.39 Y158.66 E383.56860
G1 X152.77 Y158.66 E383.89877
G1 X152.77 Y167.65 E384.34758
G1 X151.79 Y167.65 E384.39648
G1 X151.79 Y168.53 E384.44048
G1 X143.46 Y168.53 E384.85637
G1 X143.46 Y167.65 E384.90037
G1 X142.04 Y167.65 E384.97101
G1 X142.04 Y168.53 E385.01502
G1 X133.71 Y168.53 E385.43090
G1 X133.71 Y167.65 E385.47490
G1 X132.73 Y167.65 E385.52380
G1 X132.73 Y156.47 E386.08147
G1 X133.05 Y156.47 E386.09773
G1 X133.05 Y146.47 E386.59688
G1 X133.43 Y146.47 E386.61579
G1 X133.43 Y136.95 E387.09070
G0 F12000 X133.83 Y137.35
G1 F2400 X153.08 Y137.35 E388.05098
G1 X153.08 Y147.00 E388.53228
G1 X169.72 Y147.00 E389.36270
G1 X169.72 Y157.38 E389.88041
G1 X168.74 Y157.38 E389.92930
G1 X168.74 Y158.26 E389.97330
G1 X161.21 Y158.26 E390.34928
G1 X161.21 Y157.38 E390.39328
G1 X158.99 Y157.38 E390.50384
G1 X158.99 Y158.26 E390.54784
G1 X152.37 Y158.26 E390.87801
G1 X152.37 Y167.25 E391.32683
G1 X151.39 Y167.25 E391.37572
G1 X151.39 Y168.13 E391.41972
G1 X143.86 Y168.13 E391.79569
G1 X143.86 Y167.25 E391.83970
G1 X141.64 Y167.25 E391.95025
G1 X141.64 Y168.13 E391.99426
G1 X134.11 Y168.13 E392.37023
G1 X134.11 Y167.25 E392.41423
G1 X133.13 Y167.25 E392.46312
G1 X133.13 Y156.88 E392.98088
G1 X133.45 Y156.88 E392.99715
G1 X133.45 Y146.87 E393.49630
G1 X133.83 Y146.87 E393.51521
G1 X133.83 Y137.35 E393.99011
G0 F12000 X134.23 Y137.75
G1 F2400 X152.68 Y137.75 E394.91049
G1 X152.68 Y147.33 E395.38834
G1 X152.30 Y147.33 E395.40729
G1 X152.30 Y147.40 E395.41074
G1 X169.32 Y147.40 E396.26012
G1 X169.32 Y156.97 E396.73792
G1 X168.34 Y156.97 E396.78681
G1 X168.34 Y157.86 E396.83081
G1 X161.61 Y157.86 E397.16687
G1 X161.61 Y156.97 E397.21088
G1 X158.59 Y156.97 E397.36134
G1 X158.59 Y157.86 E397.40535
G1 X151.97 Y157.86 E397.73552
G1 X151.97 Y166.85 E398.18433
G1 X150.99 Y166.85 E398.23323
G1 X150.99 Y167.74 E398.27723
G1 X144.26 Y167.74 E398.61329
G1 X144.26 Y166.85 E398.65729
G1 X141.24 Y166.85 E398.80776
G1 X141.24 Y167.74 E398.85176
G1 X134.51 Y167.74 E399.18782
G1 X134.51 Y166.85 E399.23183
G1 X133.53 Y166.85 E399.28072
G1 X133.53 Y157.28 E399.75857
G1 X134.83 Y157.28 E399.82368
G1 X134.83 Y156.85 E399.84498
G1 X133.85 Y156.85 E399.89382
G1 X133.85 Y147.27 E400.37167
G1 X134.23 Y147.27 E400.39058
G1 X134.23 Y137.75 E400.86548
G0 F12000 X134.63 Y138.15
G1 F2400 X152.28 Y138.15 E401.74594
G1 X152.28 Y146.93 E402.18388
G1 X151.30 Y146.93 E402.23277
G1 X151.30 Y147.67 E402.26974
G1 X151.90 Y147.67 E402.29968
G1 X151.90 Y147.80 E402.30606
G1 X168.92 Y147.80 E403.15544
G1 X168.92 Y156.57 E403.59333
G1 X167.94 Y156.57 E403.64222
G1 X167.94 Y157.46 E403.68622
G1 X162.01 Y157.46 E403.98237
G1 X162.01 Y156.57 E404.02638
G1 X158.19 Y156.57 E404.21676
G1 X158.19 Y157.46 E404.26076
G1 X152.26 Y157.46 E404.55691
G1 X152.26 Y156.57 E404.60091
G1 X151.28 Y156.57 E404.64980
G1 X151.28 Y156.45 E404.65614
G1 X150.92 Y156.45 E404.67390
G1 X150.92 Y157.33 E404.71790
G1 X144.98 Y157.33 E405.01410
G1 X144.98 Y156.45 E405.05811
G1 X141.17 Y156.45 E405.24844
G1 X141.17 Y157.33 E405.29244
G1 X135.23 Y157.33 E405.58864
G1 X135.23 Y156.45 E405.63264
G1 X134.25 Y156.45 E405.68148
G1 X134.25 Y147.67 E406.11942
G1 X135.61 Y147.67 E406.18722
G1 X135.61 Y146.93 E406.22419
G1 X134.63 Y146.93 E406.27308
G1 X134.63 Y138.15 E406.71102
G0 F12000 X135.03 Y138.55
G1 F2400 X151.88 Y138.55 E407.55157
G1 X151.88 Y146.53 E407.94959
G1 X150.90 Y146.53 E407.99848
G1 X150.90 Y147.41 E408.04249
G1 X145.76 Y147.41 E408.29872
G1 X145.76 Y146.53 E408.34273
G1 X141.15 Y146.53 E408.57297
G1 X141.15 Y147.41 E408.61697
G1 X136.01 Y147.41 E408.87326
G1 X136.01 Y146.53 E408.91726
G1 X135.03 Y146.53 E408.96615
G1 X135.03 Y138.55 E409.36418
G0 F12000 X135.43 Y138.95
G1 F2400 X151.48 Y138.95 E410.16482
G1 X151.48 Y146.13 E410.52293
G1 X150.50 Y146.13 E410.57182
G1 X150.50 Y147.01 E410.61582
G1 X146.16 Y147.01 E410.83215
G1 X146.16 Y146.13 E410.87615
G1 X140.75 Y146.13 E411.14631
G1 X140.75 Y147.01 E411.19031
G1 X136.41 Y147.01 E411.40668
G1 X136.41 Y146.13 E411.45069
G1 X135.43 Y146.13 E411.49958
G1 X135.43 Y138.95 E411.85769
G0 F12000 X135.83 Y139.35
G1 F2400 X151.08 Y139.35 E412.61842
G1 X151.08 Y145.73 E412.93662
G1 X150.10 Y145.73 E412.98551
G1 X150.10 Y146.61 E413.02951
G1 X146.56 Y146.61 E413.20592
G1 X146.56 Y145.73 E413.24993
G1 X140.35 Y145.73 E413.55999
G1 X140.35 Y146.61 E413.60400
G1 X136.81 Y146.61 E413.78046
G1 X136.81 Y145.73 E413.82446
G1 X135.83 Y145.73 E413.87336
G1 X135.83 Y139.35 E414.19155
G0 F12000 X134.65 Y148.07
G1 F2400 X151.50 Y148.07 E415.03206
G1 X151.50 Y156.05 E415.43008
G1 X150.52 Y156.05 E415.47892
G1 X150.52 Y156.93 E415.52292
G1 X145.38 Y156.93 E415.77921
G1 X145.38 Y156.05 E415.82321
G1 X140.77 Y156.05 E416.05346
G1 X140.77 Y156.93 E416.09746
G1 X135.63 Y156.93 E416.35375
G1 X135.63 Y156.05 E416.39775
G1 X134.65 Y156.05 E416.44659
G1 X134.65 Y148.07 E416.84462
G0 F12000 X135.05 Y148.47
G1 F2400 X151.10 Y148.47 E417.64520
G1 X151.10 Y155.65 E418.00332
G1 X150.12 Y155.65 E418.05216
G1 X150.12 Y156.53 E418.09616
G1 X145.78 Y156.53 E418.31254
G1 X145.78 Y155.65 E418.35654
G1 X140.37 Y155.65 E418.62669
G1 X140.37 Y156.53 E418.67070
G1 X136.03 Y156.53 E418.88707
G1 X136.03 Y155.65 E418.93107
G1 X135.05 Y155.65 E418.97992
G1 X135.05 Y148.47 E419.33803
G0 F12000 X135.45 Y148.87
G1 F2400 X150.70 Y148.87 E420.09870
G1 X150.70 Y155.25 E420.41690
G1 X149.72 Y155.25 E420.46575
G1 X149.72 Y156.13 E420.50975
G1 X146.18 Y156.13 E420.68621
G1 X146.18 Y155.25 E420.73021
G1 X139.97 Y155.25 E421.04028
G1 X139.97 Y156.13 E421.08429
G1 X136.43 Y156.13 E421.26075
G1 X136.43 Y155.25 E421.30475
G1 X135.45 Y155.25 E421.35359
G1 X135.45 Y148.87 E421.67179
G0 F12000 X133.93 Y157.68
G1 F2400 X151.57 Y157.68 E422.55225
G1 X151.57 Y166.45 E422.99019
G1 X150.59 Y166.45 E423.03908
G1 X150.59 Y167.34 E423.08309
G1 X144.66 Y167.34 E423.37923
G1 X144.66 Y166.45 E423.42324
G1 X140.84 Y166.45 E423.61362
G1 X140.84 Y167.34 E423.65762
G1 X134.91 Y167.34 E423.95377
G1 X134.91 Y166.45 E423.99777
G1 X133.93 Y166.45 E424.04667
G1 X133.93 Y157.68 E424.48460
G0 F12000 X134.33 Y158.07
G1 F2400 X151.17 Y158.07 E425.32515
G1 X151.17 Y166.05 E425.72318
G1 X150.19 Y166.05 E425.77207
G1 X150.19 Y166.94 E425.81607
G1 X145.06 Y166.94 E426.07231
G1 X145.06 Y166.05 E426.11631
G1 X140.44 Y166.05 E426.34660
G1 X140.44 Y166.94 E426.39061
G1 X135.31 Y166.94 E426.64684
G1 X135.31 Y166.05 E426.69085
G1 X134.33 Y166.05 E426.73974
G1 X134.33 Y158.07 E427.13776
G0 F12000 X134.73 Y158.47
G1 F2400 X150.77 Y158.47 E427.93840
G1 X150.77 Y165.65 E428.29651
G1 X149.79 Y165.65 E428.34541
G1 X149.79 Y166.53 E428.38941
G1 X145.46 Y166.53 E428.60573
G1 X145.46 Y165.65 E428.64974
G1 X140.04 Y165.65 E428.91994
G1 X140.04 Y166.53 E428.96394
G1 X135.71 Y166.53 E429.18027
G1 X135.71 Y165.65 E429.22427
G1 X134.73 Y165.65 E429.27316
G1 X134.73 Y158.47 E429.63128
G0 F12000 X135.13 Y158.88
G1 F2400 X150.37 Y158.88 E430.39200
G1 X150.37 Y165.25 E430.71020
G1 X149.39 Y165.25 E430.75909
G1 X149.39 Y166.13 E430.80310
G1 X145.86 Y166.13 E430.97951
G1 X145.86 Y165.25 E431.02351
G1 X139.64 Y165.25 E431.33363
G1 X139.64 Y166.13 E431.37763
G1 X136.11 Y166.13 E431.55404
G1 X136.11 Y165.25 E431.59805
G1 X135.13 Y165.25 E431.64694
G1 X135.13 Y158.88 E431.96514
G0 F12000 X151.68 Y156.18
G1 F2400 X151.68 Y148.20 E432.36311
G1 X168.52 Y148.20 E433.20366
G1 X168.52 Y156.18 E433.60164
G1 X167.54 Y156.18 E433.65053
G1 X167.54 Y157.06 E433.69453
G1 X162.41 Y157.06 E433.95077
G1 X162.41 Y156.18 E433.99477
G1 X157.79 Y156.18 E434.22507
G1 X157.79 Y157.06 E434.26907
G1 X152.66 Y157.06 E434.52530
G1 X152.66 Y156.18 E434.56931
G1 X151.68 Y156.18 E434.61820
G0 F12000 X152.08 Y155.78
G1 F2400 X152.08 Y148.60 E434.97626
G1 X168.12 Y148.60 E435.77690
G1 X168.12 Y155.78 E436.13496
G1 X167.14 Y155.78 E436.18385
G1 X167.14 Y156.66 E436.22786
G1 X162.81 Y156.66 E436.44418
G1 X162.81 Y155.78 E436.48818
G1 X157.39 Y155.78 E436.75839
G1 X157.39 Y156.66 E436.80239
G1 X153.06 Y156.66 E437.01872
G1 X153.06 Y155.78 E437.06272
G1 X152.08 Y155.78 E437.11161
G0 F12000 X152.48 Y155.38
G1 F2400 X152.48 Y149.00 E437.42976
G1 X167.72 Y149.00 E438.19049
G1 X167.72 Y155.38 E438.50864
G1 X166.74 Y155.38 E438.55753
G1 X166.74 Y156.26 E438.60153
G1 X163.21 Y156.26 E438.77795
G1 X163.21 Y155.38 E438.82195
G1 X156.99 Y155.38 E439.13207
G1 X156.99 Y156.26 E439.17607
G1 X153.46 Y156.26 E439.35248
G1 X153.46 Y155.38 E439.39648
G1 X152.48 Y155.38 E439.44538
G1 F2400 E438.24538
G0 F12000 X148.90 Y145.41
;TYPE:WALL-INNER
G1 F2400 E439.44538
G1 X147.76 Y145.41 E439.50205
G1 X147.76 Y144.53 E439.54606
G1 X139.15 Y144.53 E439.97586
G1 X139.15 Y145.41 E440.01986
G1 X138.01 Y145.41 E440.07659
G1 X138.01 Y144.53 E440.12059
G1 X137.03 Y144.53 E440.16948
G1 X137.03 Y140.55 E440.36795
G1 X149.88 Y140.55 E441.00894
G1 X149.88 Y144.53 E441.20740
G1 X148.90 Y144.53 E441.25629
G1 X148.90 Y145.41 E441.30029
G0 F12000 X149.30 Y145.81
G1 F2400 X147.36 Y145.81 E441.39688
G1 X147.36 Y144.93 E441.44089
G1 X139.55 Y144.93 E441.83078
G1 X139.55 Y145.81 E441.87478
G1 X137.61 Y145.81 E441.97142
G1 X137.61 Y144.93 E442.01542
G1 X136.63 Y144.93 E442.06431
G1 X136.63 Y140.15 E442.30269
G1 X150.28 Y140.15 E442.98359
G1 X150.28 Y144.93 E443.22197
G1 X149.30 Y144.93 E443.27086
G1 X149.30 Y145.81 E443.31486
G0 F12000 X149.70 Y146.21
;TYPE:WALL-OUTER
G1 F2400 X146.96 Y146.21 E443.45136
G1 X146.96 Y145.33 E443.49536
G1 X139.95 Y145.33 E443.84534
G1 X139.95 Y146.21 E443.88935
G1 X137.21 Y146.21 E444.02590
G1 X137.21 Y145.33 E444.06990
G1 X136.23 Y145.33 E444.11879
G1 X136.23 Y139.75 E444.39708
G1 X150.68 Y139.75 E445.11789
G1 X150.68 Y145.33 E445.39618
G1 X149.70 Y145.33 E445.44507
G1 X149.70 Y146.21 E445.48908
G0 F12000 X148.76 Y145.08
;TYPE:FILL
G1 F2400 X144.37 Y140.69 E445.79881
G0 F12000 X143.80 Y140.69
G1 F2400 X147.50 Y144.39 E446.05966
G0 F12000 X146.93 Y144.39
G1 F2400 X143.24 Y140.69 E446.32047
G0 F12000 X142.67 Y140.69
G1 F2400 X146.37 Y144.39 E446.58131
G0 F12000 X145.80 Y144.39
G1 F2400 X142.10 Y140.69 E446.84215
G0 F12000 X141.54 Y140.69
G1 F2400 X145.24 Y144.39 E447.10296
G0 F12000 X144.67 Y144.39
G1 F2400 X140.97 Y140.69 E447.36380
G0 F12000 X140.41 Y140.69
G1 F2400 X144.10 Y144.39 E447.62465
G0 F12000 X143.54 Y144.39
G1 F2400 X139.84 Y140.69 E447.88545
G0 F12000 X139.28 Y140.69
G1 F2400 X142.97 Y144.39 E448.14623
G0 F12000 X142.41 Y144.39
G1 F2400 X138.71 Y140.69 E448.40700
G0 F12000 X138.15 Y140.69
G1 F2400 X141.84 Y144.39 E448.66777
G0 F12000 X141.28 Y144.39
G1 F2400 X137.58 Y140.69 E448.92855
G0 F12000 X137.17 Y140.85
G1 F2400 X140.71 Y144.39 E449.17831
G0 F12000 X140.15 Y144.39
G1 F2400 X137.17 Y141.41 E449.38818
G0 F12000 X137.17 Y141.98
G1 F2400 X139.58 Y144.39 E449.55811
G0 F12000 X139.01 Y144.39
G1 F2400 X137.17 Y142.54 E449.68815
G0 F12000 X137.17 Y143.11
G1 F2400 X139.01 Y144.95 E449.81779
G0 F12000 X138.76 Y145.27
G1 F2400 X138.15 Y144.66 E449.86111
G0 F12000 X137.88 Y144.39
G1 F2400 X137.17 Y143.68 E449.91131
G0 F12000 X137.17 Y144.24
G1 F2400 X137.32 Y144.39 E449.92158
G0 F12000 X144.93 Y140.69
G1 F2400 X148.76 Y144.51 E450.19138
G0 F12000 X149.20 Y144.39
G1 F2400 X145.50 Y140.69 E450.45223
G0 F12000 X146.06 Y140.69
G1 F2400 X149.74 Y144.36 E450.71138
G0 F12000 X149.74 Y143.80
G1 F2400 X146.63 Y140.69 E450.93059
G0 F12000 X147.20 Y140.69
G1 F2400 X149.74 Y143.23 E451.10987
G0 F12000 X149.74 Y142.67
G1 F2400 X147.76 Y140.69 E451.24929
G0 F12000 X148.33 Y140.69
G1 F2400 X149.74 Y142.10 E451.34877
G0 F12000 X149.74 Y141.53
G1 F2400 X148.89 Y140.69 E451.40832
G0 F12000 X149.46 Y140.69
G1 F2400 X149.74 Y140.97 E451.42801
G0 F12000 X147.90 Y144.79
G1 F2400 X148.38 Y145.27 E451.46191
G1 F2400 E450.26191
G0 F12000 X149.50 Y150.07
;TYPE:WALL-INNER
G1 F2400 E451.46191
G1 X149.50 Y154.05 E451.66037
G1 X148.52 Y154.05 E451.70921
G1 X148.52 Y154.93 E451.75322
G1 X147.38 Y154.93 E451.80994
G1 X147.38 Y154.05 E451.85395
G1 X138.77 Y154.05 E452.28375
G1 X138.77 Y154.93 E452.32775
G1 X137.63 Y154.93 E452.38448
G1 X137.63 Y154.05 E452.42848
G1 X136.65 Y154.05 E452.47732
G1 X136.65 Y150.07 E452.67579
G1 X149.50 Y150.07 E453.31673
G0 F12000 X149.90 Y149.67
G1 F2400 X149.90 Y154.45 E453.55510
G1 X148.92 Y154.45 E453.60394
G1 X148.92 Y155.33 E453.64795
G1 X146.98 Y155.33 E453.74458
G1 X146.98 Y154.45 E453.78859
G1 X139.17 Y154.45 E454.17848
G1 X139.17 Y155.33 E454.22248
G1 X137.23 Y155.33 E454.31912
G1 X137.23 Y154.45 E454.36312
G1 X136.25 Y154.45 E454.41197
G1 X136.25 Y149.67 E454.65034
G1 X149.90 Y149.67 E455.33119
G0 F12000 X150.30 Y149.27
;TYPE:WALL-OUTER
G1 F2400 X150.30 Y154.85 E455.60948
G1 X149.32 Y154.85 E455.65832
G1 X149.32 Y155.73 E455.70233
G1 X146.58 Y155.73 E455.83888
G1 X146.58 Y154.85 E455.88288
G1 X139.57 Y154.85 E456.23286
G1 X139.57 Y155.73 E456.27686
G1 X136.83 Y155.73 E456.41341
G1 X136.83 Y154.85 E456.45741
G1 X135.85 Y154.85 E456.50626
G1 X135.85 Y149.27 E456.78454
G1 X150.30 Y149.27 E457.50531
G0 F12000 X150.00 Y149.48
G0 X149.36 Y150.77
;TYPE:FILL
G1 F2400 X148.79 Y150.21 E457.54510
G0 F12000 X148.23 Y150.21
G1 F2400 X149.36 Y151.34 E457.62483
G0 F12000 X149.36 Y151.90
G1 F2400 X147.66 Y150.21 E457.74446
G0 F12000 X147.10 Y150.21
G1 F2400 X149.36 Y152.47 E457.90398
G0 F12000 X149.36 Y153.04
G1 F2400 X146.53 Y150.21 E458.10344
G0 F12000 X145.97 Y150.21
G1 F2400 X149.36 Y153.60 E458.34280
G0 F12000 X149.10 Y153.91
G1 F2400 X145.40 Y150.21 E458.60368
G0 F12000 X144.84 Y150.21
G1 F2400 X148.53 Y153.91 E458.86452
G0 F12000 X148.38 Y154.32
G1 F2400 X144.27 Y150.21 E459.15451
G0 F12000 X143.70 Y150.21
G1 F2400 X147.40 Y153.91 E459.41538
G0 F12000 X147.52 Y154.03
G1 F2400 X148.28 Y154.79 E459.46908
G0 F12000 X147.72 Y154.79
G1 F2400 X147.52 Y154.59 E459.48287
G0 F12000 X146.84 Y153.91
G1 F2400 X143.14 Y150.21 E459.74371
G0 F12000 X142.57 Y150.21
G1 F2400 X146.27 Y153.91 E460.00456
G0 F12000 X145.70 Y153.91
G1 F2400 X142.01 Y150.21 E460.26544
G0 F12000 X141.44 Y150.21
G1 F2400 X145.14 Y153.91 E460.52628
G0 F12000 X144.57 Y153.91
G1 F2400 X140.88 Y150.21 E460.78712
G0 F12000 X140.31 Y150.21
G1 F2400 X144.01 Y153.91 E461.04800
G0 F12000 X143.44 Y153.91
G1 F2400 X139.74 Y150.21 E461.30884
G0 F12000 X139.18 Y150.21
G1 F2400 X142.88 Y153.91 E461.56969
G0 F12000 X142.31 Y153.91
G1 F2400 X138.61 Y150.21 E461.83057
G0 F12000 X138.05 Y150.21
G1 F2400 X141.74 Y153.91 E462.09141
G0 F12000 X141.18 Y153.91
G1 F2400 X137.48 Y150.21 E462.35225
G0 F12000 X136.91 Y150.21
G1 F2400 X140.61 Y153.91 E462.61313
G0 F12000 X140.05 Y153.91
G1 F2400 X136.79 Y150.65 E462.84282
G0 F12000 X136.79 Y151.22
G1 F2400 X139.48 Y153.91 E463.03262
G0 F12000 X138.92 Y153.91
G1 F2400 X136.79 Y151.78 E463.18251
G0 F12000 X136.79 Y152.35
G1 F2400 X138.63 Y154.18 E463.31209
G0 F12000 X138.63 Y154.75
G1 F2400 X136.79 Y152.91 E463.44170
G0 F12000 X136.79 Y153.48
G1 F2400 X137.49 Y154.18 E463.47183
G1 X138.10 Y154.79 E463.51466
G1 F2400 E462.31466
G0 F12000 X136.33 Y160.07
;TYPE:WALL-INNER
G1 F2400 E463.51466
G1 X149.17 Y160.07 E464.15565
G1 X149.17 Y164.05 E464.35411
G1 X148.19 Y164.05 E464.40300
G1 X148.19 Y164.94 E464.44701
G1 X147.06 Y164.94 E464.50368
G1 X147.06 Y164.05 E464.54768
G1 X138.44 Y164.05 E464.97754
G1 X138.44 Y164.94 E465.02154
G1 X137.31 Y164.94 E465.07822
G1 X137.31 Y164.05 E465.12222
G1 X136.33 Y164.05 E465.17111
G1 X136.33 Y160.07 E465.36958
G0 F12000 X135.93 Y159.68
G1 F2400 X149.57 Y159.68 E466.05048
G1 X149.57 Y164.45 E466.28885
G1 X148.59 Y164.45 E466.33774
G1 X148.59 Y165.34 E466.38175
G1 X146.66 Y165.34 E466.47834
G1 X146.66 Y164.45 E466.52234
G1 X138.84 Y164.45 E466.91228
G1 X138.84 Y165.34 E466.95628
G1 X136.91 Y165.34 E467.05287
G1 X136.91 Y164.45 E467.09687
G1 X135.93 Y164.45 E467.14577
G1 X135.93 Y159.68 E467.38414
G0 F12000 X135.53 Y159.28
;TYPE:WALL-OUTER
G1 F2400 X149.97 Y159.28 E468.10496
G1 X149.97 Y164.85 E468.38324
G1 X148.99 Y164.85 E468.43214
G1 X148.99 Y165.74 E468.47614
G1 X146.26 Y165.74 E468.61264
G1 X146.26 Y164.85 E468.65664
G1 X139.24 Y164.85 E469.00667
G1 X139.24 Y165.74 E469.05067
G1 X136.51 Y165.74 E469.18717
G1 X136.51 Y164.85 E469.23118
G1 X135.53 Y164.85 E469.28007
G1 X135.53 Y159.28 E469.55836
G0 F12000 X135.83 Y159.49
G0 X136.74 Y160.21
;TYPE:FILL
G1 F2400 X140.44 Y163.91 E469.81927
G0 F12000 X139.87 Y163.91
G1 F2400 X136.47 Y160.51 E470.05951
G0 F12000 X136.47 Y161.07
G1 F2400 X139.30 Y163.91 E470.25982
G0 F12000 X138.74 Y163.91
G1 F2400 X136.47 Y161.64 E470.42026
G0 F12000 X136.47 Y162.20
G1 F2400 X138.30 Y164.04 E470.54984
G0 F12000 X138.30 Y164.61
G1 F2400 X136.47 Y162.77 E470.67941
G0 F12000 X136.47 Y163.34
G1 F2400 X137.04 Y163.91 E470.72002
G0 F12000 X137.45 Y164.32
G1 F2400 X137.92 Y164.79 E470.75374
G0 F12000 X141.00 Y163.91
G1 F2400 X137.30 Y160.21 E471.01466
G0 F12000 X137.87 Y160.21
G1 F2400 X141.57 Y163.91 E471.27553
G0 F12000 X142.13 Y163.91
G1 F2400 X138.44 Y160.21 E471.53645
G0 F12000 X139.00 Y160.21
G1 F2400 X142.70 Y163.91 E471.79736
G0 F12000 X143.26 Y163.91
G1 F2400 X139.57 Y160.21 E472.05824
G0 F12000 X140.13 Y160.21
G1 F2400 X143.83 Y163.91 E472.31912
G0 F12000 X144.40 Y163.91
G1 F2400 X140.70 Y160.21 E472.58003
G0 F12000 X141.26 Y160.21
G1 F2400 X144.96 Y163.91 E472.84091
G0 F12000 X145.53 Y163.91
G1 F2400 X141.83 Y160.21 E473.10179
G0 F12000 X142.40 Y160.21
G1 F2400 X146.09 Y163.91 E473.36270
G0 F12000 X146.66 Y163.91
G1 F2400 X142.96 Y160.21 E473.62358
G0 F12000 X143.53 Y160.21
G1 F2400 X148.05 Y164.74 E473.94299
G0 F12000 X147.54 Y164.79
G1 F2400 X147.20 Y164.45 E473.96719
G0 F12000 X148.05 Y164.18
G1 F2400 X144.09 Y160.21 E474.24673
G0 F12000 X144.66 Y160.21
G1 F2400 X148.35 Y163.91 E474.50761
G0 F12000 X148.92 Y163.91
G1 F2400 X145.22 Y160.21 E474.76849
G0 F12000 X145.79 Y160.21
G1 F2400 X149.03 Y163.46 E474.99744
G0 F12000 X149.03 Y162.89
G1 F2400 X146.35 Y160.21 E475.18646
G0 F12000 X146.92 Y160.21
G1 F2400 X149.03 Y162.33 E475.33554
G0 F12000 X149.03 Y161.76
G1 F2400 X147.49 Y160.21 E475.44472
G0 F12000 X148.05 Y160.21
G1 F2400 X149.03 Y161.20 E475.51401
G0 F12000 X149.03 Y160.63
G1 F2400 X148.62 Y160.21 E475.54336
G1 F2400 E474.34336
G0 F12000 X153.68 Y154.18
;TYPE:WALL-INNER
G1 F2400 E475.54336
G1 X153.68 Y150.20 E475.74177
G1 X166.52 Y150.20 E476.38276
G1 X166.52 Y154.18 E476.58118
G1 X165.54 Y154.18 E476.63007
G1 X165.54 Y155.06 E476.67407
G1 X164.41 Y155.06 E476.73075
G1 X164.41 Y154.18 E476.77475
G1 X155.79 Y154.18 E477.20460
G1 X155.79 Y155.06 E477.24861
G1 X154.66 Y155.06 E477.30528
G1 X154.66 Y154.18 E477.34929
G1 X153.68 Y154.18 E477.39818
G0 F12000 X153.28 Y154.57
G1 F2400 X153.28 Y149.80 E477.63650
G1 X166.92 Y149.80 E478.31740
G1 X166.92 Y154.57 E478.55573
G1 X165.94 Y154.57 E478.60462
G1 X165.94 Y155.46 E478.64863
G1 X164.01 Y155.46 E478.74521
G1 X164.01 Y154.57 E478.78922
G1 X156.19 Y154.57 E479.17916
G1 X156.19 Y155.46 E479.22316
G1 X154.26 Y155.46 E479.31975
G1 X154.26 Y154.57 E479.36375
G1 X153.28 Y154.57 E479.41264
G0 F12000 X152.88 Y154.97
;TYPE:WALL-OUTER
G1 F2400 X152.88 Y149.40 E479.69088
G1 X167.32 Y149.40 E480.41170
G1 X167.32 Y154.97 E480.68993
G1 X166.34 Y154.97 E480.73883
G1 X166.34 Y155.86 E480.78283
G1 X163.61 Y155.86 E480.91933
G1 X163.61 Y154.97 E480.96333
G1 X156.59 Y154.97 E481.31336
G1 X156.59 Y155.86 E481.35736
G1 X153.86 Y155.86 E481.49386
G1 X153.86 Y154.97 E481.53787
G1 X152.88 Y154.97 E481.58676
G0 F12000 X153.09 Y154.68
G0 X154.32 Y154.03
;TYPE:FILL
G1 F2400 X153.81 Y153.53 E481.62214
G0 F12000 X153.81 Y152.97
G1 F2400 X155.65 Y154.80 E481.75168
G0 F12000 X155.20 Y154.92
G1 F2400 X154.79 Y154.51 E481.78019
G0 F12000 X155.65 Y154.24
G1 F2400 X153.81 Y152.40 E481.90969
G0 F12000 X153.81 Y151.84
G1 F2400 X156.01 Y154.03 E482.06484
G0 F12000 X156.58 Y154.03
G1 F2400 X153.81 Y151.27 E482.25993
G0 F12000 X153.81 Y150.70
G1 F2400 X157.15 Y154.03 E482.49488
G0 F12000 X157.71 Y154.03
G1 F2400 X154.01 Y150.34 E482.75572
G0 F12000 X154.58 Y150.34
G1 F2400 X158.28 Y154.03 E483.01657
G0 F12000 X158.84 Y154.03
G1 F2400 X155.15 Y150.34 E483.27741
G0 F12000 X155.71 Y150.34
G1 F2400 X159.41 Y154.03 E483.53825
G0 F12000 X159.97 Y154.03
G1 F2400 X156.28 Y150.34 E483.79910
G0 F12000 X156.84 Y150.34
G1 F2400 X160.54 Y154.03 E484.05994
G0 F12000 X161.10 Y154.03
G1 F2400 X157.41 Y150.34 E484.32075
G0 F12000 X157.97 Y150.34
G1 F2400 X161.67 Y154.03 E484.58159
G0 F12000 X162.24 Y154.03
G1 F2400 X158.54 Y150.34 E484.84243
G0 F12000 X159.11 Y150.34
G1 F2400 X162.80 Y154.03 E485.10324
G0 F12000 X163.37 Y154.03
G1 F2400 X159.67 Y150.34 E485.36408
G0 F12000 X160.24 Y150.34
G1 F2400 X163.93 Y154.03 E485.62493
G0 F12000 X164.50 Y154.03
G1 F2400 X160.80 Y150.34 E485.88574
G0 F12000 X161.37 Y150.34
G1 F2400 X165.40 Y154.37 E486.17043
G0 F12000 X165.63 Y154.03
G1 F2400 X161.93 Y150.34 E486.43127
G0 F12000 X162.50 Y150.34
G1 F2400 X166.20 Y154.03 E486.69208
G0 F12000 X166.38 Y153.66
G1 F2400 X163.06 Y150.34 E486.92618
G0 F12000 X163.63 Y150.34
G1 F2400 X166.38 Y153.09 E487.12038
G0 F12000 X166.38 Y152.52
G1 F2400 X164.20 Y150.34 E487.27465
G0 F12000 X164.76 Y150.34
G1 F2400 X166.38 Y151.96 E487.38902
G0 F12000 X166.38 Y151.39
G1 F2400 X165.33 Y150.34 E487.46346
G0 F12000 X165.89 Y150.34
G1 F2400 X166.38 Y150.83 E487.49800
G0 F12000 X164.55 Y154.08
G1 F2400 X165.38 Y154.92 E487.55684
G0 F12000 X164.81 Y154.92
G1 F2400 X164.55 Y154.65 E487.57578
;LAYER:1
G0 F12000 X163.99 Y154.59 Z0.50
;TYPE:WALL-OUTER
G1 F1440 X163.99 Y155.47 E487.60498
G1 X165.96 Y155.47 E487.67021
G1 X165.96 Y154.59 E487.69940
G1 X166.94 Y154.59 E487.73192
G1 X166.94 Y149.85 E487.88917
G1 X166.76 Y149.78 E487.89552
G1 X153.26 Y149.78 E488.34337
G1 X153.26 Y154.58 E488.50262
G1 X154.24 Y154.59 E488.53514
G1 X154.24 Y155.47 E488.56436
G1 X156.21 Y155.47 E488.62959
G1 X156.21 Y154.59 E488.65879
G1 X163.99 Y154.59 E488.91710
G0 F12000 X163.61 Y154.98
G1 F1440 X156.59 Y154.98 E489.14981
G1 X156.59 Y155.86 E489.17907
G1 X153.85 Y155.86 E489.26991
G1 X153.85 Y154.98 E489.29917
G1 X152.88 Y154.98 E489.33168
G1 X152.88 Y149.40 E489.51678
G1 X167.32 Y149.40 E489.99618
G1 X167.32 Y154.98 E490.18128
G1 X166.34 Y154.98 E490.21379
G1 X166.34 Y155.86 E490.24305
G1 X163.61 Y155.86 E490.33389
G1 X163.61 Y154.98 E490.36315
G1 F2400 E489.16315
G0 F12000 X150.30 Y154.85
G1 F2400 E490.36315
G1 F1440 X149.32 Y154.85 E490.39563
G1 X149.32 Y155.73 E490.42490
G1 X146.58 Y155.73 E490.51577
G1 X146.58 Y154.85 E490.54503
G1 X139.57 Y154.85 E490.77770
G1 X139.57 Y155.73 E490.80696
G1 X136.83 Y155.73 E490.89783
G1 X136.83 Y154.85 E490.92710
G1 X135.85 Y154.85 E490.95958
G1 X135.85 Y149.27 E491.14470
G1 X150.30 Y149.27 E491.62408
G1 X150.30 Y154.85 E491.80921
G0 F12000 X149.91 Y154.46
G1 F1440 X149.91 Y149.72 E491.96643
G1 X149.74 Y149.66 E491.97277
G1 X136.24 Y149.66 E492.42060
G1 X136.24 Y154.46 E492.57981
G1 X137.22 Y154.46 E492.61233
G1 X137.22 Y155.34 E492.64156
G1 X139.18 Y155.34 E492.70678
G1 X139.18 Y154.46 E492.73598
G1 X146.97 Y154.46 E492.99426
G1 X146.97 Y155.34 E493.02346
G1 X148.94 Y155.34 E493.08871
G1 X148.94 Y154.46 E493.11791
G1 X149.91 Y154.46 E493.15039
G1 F2400 E491.95039
G0 F12000 X149.97 Y159.27
G1 F2400 E493.15039
G1 F1440 X149.97 Y164.85 E493.33552
G1 X149.00 Y164.85 E493.36803
G1 X149.00 Y165.74 E493.39729
G1 X146.26 Y165.74 E493.48813
G1 X146.26 Y164.85 E493.51739
G1 X139.24 Y164.85 E493.75010
G1 X139.24 Y165.74 E493.77936
G1 X136.50 Y165.74 E493.87020
G1 X136.50 Y164.85 E493.89946
G1 X135.53 Y164.85 E493.93197
G1 X135.53 Y159.27 E494.11710
G1 X149.97 Y159.27 E494.59651
G0 F12000 X149.59 Y159.73
G1 F1440 X149.41 Y159.66 E494.60285
G1 X135.91 Y159.66 E495.05071
G1 X135.91 Y164.46 E495.20999
G1 X136.89 Y164.47 E495.24250
G1 X136.89 Y165.35 E495.27173
G1 X138.86 Y165.35 E495.33696
G1 X138.86 Y164.47 E495.36615
G1 X146.64 Y164.47 E495.62447
G1 X146.64 Y165.35 E495.65367
G1 X148.61 Y165.35 E495.71889
G1 X148.61 Y164.47 E495.74809
G1 X149.59 Y164.47 E495.78060
G1 X149.59 Y159.73 E495.93789
G1 F2400 E494.73789
G0 F12000 X149.70 Y146.21
G1 F2400 E495.93789
G1 F1440 X146.96 Y146.21 E496.02873
G1 X146.96 Y145.33 E496.05799
G1 X139.95 Y145.33 E496.29066
G1 X139.95 Y146.21 E496.31993
G1 X137.21 Y146.21 E496.41080
G1 X137.21 Y145.33 E496.44006
G1 X136.23 Y145.33 E496.47257
G1 X136.23 Y139.75 E496.65770
G1 X150.68 Y139.75 E497.13711
G1 X150.68 Y145.33 E497.32224
G1 X149.70 Y145.33 E497.35475
G1 X149.70 Y146.21 E497.38401
G0 F12000 X149.31 Y145.83
G1 F1440 X149.31 Y144.95 E497.41321
G1 X150.29 Y144.94 E497.44572
G1 X150.29 Y140.20 E497.60301
G1 X150.12 Y140.14 E497.60935
G1 X136.62 Y140.14 E498.05721
G1 X136.62 Y144.94 E498.21649
G1 X137.60 Y144.94 E498.24901
G1 X137.60 Y145.82 E498.27824
G1 X139.56 Y145.83 E498.34349
G1 X139.56 Y144.95 E498.37269
G1 X147.35 Y144.94 E498.63097
G1 X147.35 Y145.82 E498.66017
G1 X149.31 Y145.83 E498.72539
;LAYER:2
G0 F12000 X149.31 Y145.83 Z0.70
;TYPE:WALL-OUTER
G1 F1440 X149.31 Y144.94 E498.75466
G1 X150.29 Y144.94 E498.78717
G1 X150.29 Y140.14 E498.94669
G1 X136.62 Y140.14 E499.40048
G1 X136.62 Y144.94 E499.56000
G1 X137.60 Y144.94 E499.59251
G1 X137.60 Y145.83 E499.62177
G1 X139.56 Y145.83 E499.68703
G1 X139.56 Y144.94 E499.71629
G1 X147.35 Y144.94 E499.97457
G1 X147.35 Y145.83 E500.00384
G1 X149.31 Y145.83 E500.06906
G0 F12000 X149.70 Y146.21
G1 F1440 X146.96 Y146.21 E500.15990
G1 X146.96 Y145.33 E500.18916
G1 X139.95 Y145.33 E500.42183
G1 X139.95 Y146.21 E500.45110
G1 X137.21 Y146.21 E500.54197
G1 X137.21 Y145.33 E500.57123
G1 X136.23 Y145.33 E500.60374
G1 X136.23 Y139.75 E500.78887
G1 X150.68 Y139.75 E501.26828
G1 X150.68 Y145.33 E501.45341
G1 X149.70 Y145.33 E501.48592
G1 X149.70 Y146.21 E501.51518
G1 F2400 E500.31518
G0 F12000 X150.30 Y149.27
G1 F2400 E501.51518
G1 F1440 X150.30 Y154.85 E501.70031
G1 X149.32 Y154.85 E501.73279
G1 X149.32 Y155.73 E501.76205
G1 X146.58 Y155.73 E501.85292
G1 X146.58 Y154.85 E501.88218
G1 X139.57 Y154.85 E502.11486
G1 X139.57 Y155.73 E502.14412
G1 X136.83 Y155.73 E502.23499
G1 X136.83 Y154.85 E502.26425
G1 X135.85 Y154.85 E502.29673
G1 X135.85 Y149.27 E502.48186
G1 X150.30 Y149.27 E502.96123
G0 F12000 X149.91 Y149.66
G1 F1440 X136.24 Y149.66 E503.41499
G1 X136.24 Y154.46 E503.57444
G1 X137.22 Y154.46 E503.60696
G1 X137.22 Y155.34 E503.63622
G1 X139.18 Y155.34 E503.70144
G1 X139.18 Y154.46 E503.73071
G1 X146.97 Y154.46 E503.98899
G1 X146.97 Y155.34 E504.01825
G1 X148.94 Y155.34 E504.08351
G1 X148.94 Y154.46 E504.11277
G1 X149.91 Y154.46 E504.14525
G1 X149.91 Y149.66 E504.30470
G1 F2400 E503.10470
G0 F12000 X152.88 Y149.40
G1 F2400 E504.30470
G1 F1440 X167.32 Y149.40 E504.78411
G1 X167.32 Y154.98 E504.96920
G1 X166.34 Y154.98 E505.00172
G1 X166.34 Y155.86 E505.03098
G1 X163.61 Y155.86 E505.12182
G1 X163.61 Y154.98 E505.15108
G1 X156.59 Y154.98 E505.38378
G1 X156.59 Y155.86 E505.41305
G1 X153.85 Y155.86 E505.50388
G1 X153.85 Y154.98 E505.53315
G1 X152.88 Y154.98 E505.56566
G1 X152.88 Y149.40 E505.75075
G0 F12000 X153.26 Y149.78
G1 F1440 X153.26 Y154.59 E505.91024
G1 X154.24 Y154.59 E505.94275
G1 X154.24 Y155.47 E505.97201
G1 X156.21 Y155.47 E506.03724
G1 X156.21 Y154.59 E506.06650
G1 X163.99 Y154.59 E506.32482
G1 X163.99 Y155.47 E506.35408
G1 X165.96 Y155.47 E506.41930
G1 X165.96 Y154.59 E506.44857
G1 X166.94 Y154.59 E506.48108
G1 X166.94 Y149.78 E506.64056
G1 X153.26 Y149.78 E507.09436
G1 F2400 E505.89436
G0 F12000 X149.97 Y159.27
G1 F2400 E507.09436
G1 F1440 X149.97 Y164.85 E507.27948
G1 X149.00 Y164.85 E507.31200
G1 X149.00 Y165.74 E507.34126
G1 X146.26 Y165.74 E507.43210
G1 X146.26 Y164.85 E507.46136
G1 X139.24 Y164.85 E507.69406
G1 X139.24 Y165.74 E507.72332
G1 X136.50 Y165.74 E507.81416
G1 X136.50 Y164.85 E507.84343
G1 X135.53 Y164.85 E507.87594
G1 X135.53 Y159.27 E508.06107
G1 X149.97 Y159.27 E508.54047
G0 F12000 X149.59 Y159.66
G1 F1440 X135.91 Y159.66 E508.99427
G1 X135.91 Y164.47 E509.15378
G1 X136.89 Y164.47 E509.18630
G1 X136.89 Y165.35 E509.21556
G1 X138.86 Y165.35 E509.28079
G1 X138.86 Y164.47 E509.31005
G1 X146.64 Y164.47 E509.56836
G1 X146.64 Y165.35 E509.59763
G1 X148.61 Y165.35 E509.66285
G1 X148.61 Y164.47 E509.69211
G1 X149.59 Y164.47 E509.72463
G1 X149.59 Y159.66 E509.88414
;LAYER:3
G0 F12000 X149.59 Y159.66 Z0.90
;TYPE:WALL-OUTER
G1 F1440 X135.91 Y159.66 E510.33794
G1 X135.91 Y164.47 E510.49745
G1 X136.89 Y164.47 E510.52997
G1 X136.89 Y165.35 E510.55923
G1 X138.86 Y165.35 E510.62445
G1 X138.86 Y164.47 E510.65372
G1 X146.64 Y164.47 E510.91203
G1 X146.64 Y165.35 E510.94129
G1 X148.61 Y165.35 E511.00652
G1 X148.61 Y164.47 E511.03578
G1 X149.59 Y164.47 E511.06829
G1 X149.59 Y159.66 E511.22781
G0 F12000 X149.97 Y159.27
G1 F1440 X149.97 Y164.85 E511.41294
G1 X149.00 Y164.85 E511.44545
G1 X149.00 Y165.74 E511.47471
G1 X146.26 Y165.74 E511.56555
G1 X146.26 Y164.85 E511.59481
G1 X139.24 Y164.85 E511.82752
G1 X139.24 Y165.74 E511.85678
G1 X136.50 Y165.74 E511.94762
G1 X136.50 Y164.85 E511.97688
G1 X135.53 Y164.85 E512.00939
G1 X135.53 Y159.27 E512.19452
G1 X149.97 Y159.27 E512.67393
G1 F2400 E511.47393
G0 F12000 X149.32 Y155.73
G1 F2400 E512.67393
G1 F1440 X146.58 Y155.73 E512.76480
G1 X146.58 Y154.85 E512.79406
G1 X139.57 Y154.85 E513.02673
G1 X139.57 Y155.73 E513.05599
G1 X136.83 Y155.73 E513.14687
G1 X136.83 Y154.85 E513.17613
G1 X135.85 Y154.85 E513.20861
G1 X135.85 Y149.27 E513.39374
G1 X150.30 Y149.27 E513.87311
G1 X150.30 Y154.85 E514.05824
G1 X149.32 Y154.85 E514.09072
G1 X149.32 Y155.73 E514.11998
G0 F12000 X148.94 Y155.34
G1 F1440 X148.94 Y154.46 E514.14924
G1 X149.91 Y154.46 E514.18172
G1 X149.91 Y149.66 E514.34117
G1 X136.24 Y149.66 E514.79493
G1 X136.24 Y154.46 E514.95438
G1 X137.22 Y154.46 E514.98689
G1 X137.22 Y155.34 E515.01616
G1 X139.18 Y155.34 E515.08138
G1 X139.18 Y154.46 E515.11064
G1 X146.97 Y154.46 E515.36893
G1 X146.97 Y155.34 E515.39819
G1 X148.94 Y155.34 E515.46345
G1 F2400 E514.26345
G0 F12000 X152.88 Y154.98
G1 F2400 E515.46345
G1 F1440 X152.88 Y149.40 E515.64854
G1 X167.32 Y149.40 E516.12795
G1 X167.32 Y154.98 E516.31305
G1 X166.34 Y154.98 E516.34556
G1 X166.34 Y155.86 E516.37482
G1 X163.61 Y155.86 E516.46566
G1 X163.61 Y154.98 E516.49492
G1 X156.59 Y154.98 E516.72762
G1 X156.59 Y155.86 E516.75689
G1 X153.85 Y155.86 E516.84773
G1 X153.85 Y154.98 E516.87699
G1 X152.88 Y154.98 E516.90950
G0 F12000 X153.26 Y154.59
G1 F1440 X154.24 Y154.59 E516.94201
G1 X154.24 Y155.47 E516.97128
G1 X156.21 Y155.47 E517.03650
G1 X156.21 Y154.59 E517.06576
G1 X163.99 Y154.59 E517.32408
G1 X163.99 Y155.47 E517.35334
G1 X165.96 Y155.47 E517.41857
G1 X165.96 Y154.59 E517.44783
G1 X166.94 Y154.59 E517.48034
G1 X166.94 Y149.78 E517.63983
G1 X153.26 Y149.78 E518.09362
G1 X153.26 Y154.59 E518.25310
G1 F2400 E517.05310
G0 F12000 X149.70 Y146.21
G1 F2400 E518.25310
G1 F1440 X146.96 Y146.21 E518.34394
G1 X146.96 Y145.33 E518.37320
G1 X139.95 Y145.33 E518.60587
G1 X139.95 Y146.21 E518.63514
G1 X137.21 Y146.21 E518.72601
G1 X137.21 Y145.33 E518.75527
G1 X136.23 Y145.33 E518.78778
G1 X136.23 Y139.75 E518.97291
G1 X150.68 Y139.75 E519.45232
G1 X150.68 Y145.33 E519.63745
G1 X149.70 Y145.33 E519.66996
G1 X149.70 Y146.21 E519.69922
G0 F12000 X149.31 Y145.83
G1 F1440 X149.31 Y144.94 E519.72848
G1 X150.29 Y144.94 E519.76100
G1 X150.29 Y140.14 E519.92051
G1 X136.62 Y140.14 E520.37431
G1 X136.62 Y144.94 E520.53382
G1 X137.60 Y144.94 E520.56633
G1 X137.60 Y145.83 E520.59560
G1 X139.56 Y145.83 E520.66086
G1 X139.56 Y144.94 E520.69012
G1 X147.35 Y144.94 E520.94840
G1 X147.35 Y145.83 E520.97766
G1 X149.31 Y145.83 E521.04289
;LAYER:4
G0 F12000 X149.31 Y145.83 Z1.10
;TYPE:WALL-OUTER
G1 F1440 X149.31 Y144.94 E521.07215
G1 X150.29 Y144.94 E521.10466
G1 X150.29 Y140.14 E521.26418
G1 X136.62 Y140.14 E521.71797
G1 X136.62 Y144.94 E521.87749
G1 X137.60 Y144.94 E521.91000
G1 X137.60 Y145.83 E521.93926
G1 X139.56 Y145.83 E522.00452
G1 X139.56 Y144.94 E522.03379
G1 X147.35 Y144.94 E522.29207
G1 X147.35 Y145.83 E522.32133
G1 X149.31 Y145.83 E522.38656
G0 F12000 X149.70 Y146.21
G1 F1440 X146.96 Y146.21 E522.47740
G1 X146.96 Y145.33 E522.50666
G1 X139.95 Y145.33 E522.73933
G1 X139.95 Y146.21 E522.76859
G1 X137.21 Y146.21 E522.85946
G1 X137.21 Y145.33 E522.88872
G1 X136.23 Y145.33 E522.92124
G1 X136.23 Y139.75 E523.10636
G1 X150.68 Y139.75 E523.58577
G1 X150.68 Y145.33 E523.77090
G1 X149.70 Y145.33 E523.80341
G1 X149.70 Y146.21 E523.83268
G1 F2400 E522.63268
G0 F12000 X150.30 Y149.27
G1 F2400 E523.83268
G1 F1440 X150.30 Y154.85 E524.01780
G1 X149.32 Y154.85 E524.05028
G1 X149.32 Y155.73 E524.07955
G1 X146.58 Y155.73 E524.17042
G1 X146.58 Y154.85 E524.19968
G1 X139.57 Y154.85 E524.43235
G1 X139.57 Y155.73 E524.46161
G1 X136.83 Y155.73 E524.55248
G1 X136.83 Y154.85 E524.58175
G1 X135.85 Y154.85 E524.61423
G1 X135.85 Y149.27 E524.79935
G1 X150.30 Y149.27 E525.27873
G0 F12000 X149.91 Y149.66
G1 F1440 X136.24 Y149.66 E525.73249
G1 X136.24 Y154.46 E525.89194
G1 X137.22 Y154.46 E525.92445
G1 X137.22 Y155.34 E525.95371
G1 X139.18 Y155.34 E526.01894
G1 X139.18 Y154.46 E526.04820
G1 X146.97 Y154.46 E526.30648
G1 X146.97 Y155.34 E526.33575
G1 X148.94 Y155.34 E526.40101
G1 X148.94 Y154.46 E526.43027
G1 X149.91 Y154.46 E526.46275
G1 X149.91 Y149.66 E526.62220
G1 F2400 E525.42220
G0 F12000 X152.88 Y149.40
G1 F2400 E526.62220
G1 F1440 X167.32 Y149.40 E527.10160
G1 X167.32 Y154.98 E527.28670
G1 X166.34 Y154.98 E527.31921
G1 X166.34 Y155.86 E527.34847
G1 X163.61 Y155.86 E527.43931
G1 X163.61 Y154.98 E527.46857
G1 X156.59 Y154.98 E527.70128
G1 X156.59 Y155.86 E527.73054
G1 X153.85 Y155.86 E527.82138
G1 X153.85 Y154.98 E527.85064
G1 X152.88 Y154.98 E527.88315
G1 X152.88 Y149.40 E528.06825
G0 F12000 X153.26 Y149.78
G1 F1440 X153.26 Y154.59 E528.22773
G1 X154.24 Y154.59 E528.26024
G1 X154.24 Y155.47 E528.28951
G1 X156.21 Y155.47 E528.35473
G1 X156.21 Y154.59 E528.38399
G1 X163.99 Y154.59 E528.64231
G1 X163.99 Y155.47 E528.67157
G1 X165.96 Y155.47 E528.73680
G1 X165.96 Y154.59 E528.76606
G1 X166.94 Y154.59 E528.79857
G1 X166.94 Y149.78 E528.95805
G1 X153.26 Y149.78 E529.41185
G1 F2400 E528.21185
G0 F12000 X149.97 Y159.27
G1 F2400 E529.41185
G1 F1440 X149.97 Y164.85 E529.59698
G1 X149.00 Y164.85 E529.62949
G1 X149.00 Y165.74 E529.65875
G1 X146.26 Y165.74 E529.74959
G1 X146.26 Y164.85 E529.77885
G1 X139.24 Y164.85 E530.01156
G1 X139.24 Y165.74 E530.04082
G1 X136.50 Y165.74 E530.13166
G1 X136.50 Y164.85 E530.16092
G1 X135.53 Y164.85 E530.19343
G1 X135.53 Y159.27 E530.37856
G1 X149.97 Y159.27 E530.85797
G0 F12000 X149.59 Y159.66
G1 F1440 X135.91 Y159.66 E531.31176
G1 X135.91 Y164.47 E531.47128
G1 X136.89 Y164.47 E531.50379
G1 X136.89 Y165.35 E531.53305
G1 X138.86 Y165.35 E531.59828
G1 X138.86 Y164.47 E531.62754
G1 X146.64 Y164.47 E531.88586
G1 X146.64 Y165.35 E531.91512
G1 X148.61 Y165.35 E531.98035
G1 X148.61 Y164.47 E532.00961
G1 X149.59 Y164.47 E532.04212
G1 X149.59 Y159.66 E532.20164
;LAYER:5
G0 F12000 X149.59 Y159.66 Z1.30
;TYPE:WALL-OUTER
G1 F1440 X135.91 Y159.66 E532.65543
G1 X135.91 Y164.47 E532.81495
G1 X136.89 Y164.47 E532.84746
G1 X136.89 Y165.35 E532.87672
G1 X138.86 Y165.35 E532.94195
G1 X138.86 Y164.47 E532.97121
G1 X146.64 Y164.47 E533.22953
G1 X146.64 Y165.35 E533.25879
G1 X148.61 Y165.35 E533.32401
G1 X148.61 Y164.47 E533.35328
G1 X149.59 Y164.47 E533.38579
G1 X149.59 Y159.66 E533.54530
G0 F12000 X149.97 Y159.27
G1 F1440 X149.97 Y164.85 E533.73043
G1 X149.00 Y164.85 E533.76294
G1 X149.00 Y165.74 E533.79221
G1 X146.26 Y165.74 E533.88305
G1 X146.26 Y164.85 E533.91231
G1 X139.24 Y164.85 E534.14501
G1 X139.24 Y165.74 E534.17427
G1 X136.50 Y165.74 E534.26511
G1 X136.50 Y164.85 E534.29437
G1 X135.53 Y164.85 E534.32689
G1 X135.53 Y159.27 E534.51201
G1 X149.97 Y159.27 E534.99142
G1 F2400 E533.79142
G0 F12000 X149.32 Y155.73
G1 F2400 E534.99142
G1 F1440 X146.58 Y155.73 E535.08229
G1 X146.58 Y154.85 E535.11156
G1 X139.57 Y154.85 E535.34423
G1 X139.57 Y155.73 E535.37349
G1 X136.83 Y155.73 E535.46436
G1 X136.83 Y154.85 E535.49362
G1 X135.85 Y154.85 E535.52610
G1 X135.85 Y149.27 E535.71123
G1 X150.30 Y149.27 E536.19060
G1 X150.30 Y154.85 E536.37573
G1 X149.32 Y154.85 E536.40821
G1 X149.32 Y155.73 E536.43747
G0 F12000 X148.94 Y155.34
G1 F1440 X148.94 Y154.46 E536.46674
G1 X149.91 Y154.46 E536.49922
G1 X149.91 Y149.66 E536.65867
G1 X136.24 Y149.66 E537.11243
G1 X136.24 Y154.46 E537.27188
G1 X137.22 Y154.46 E537.30439
G1 X137.22 Y155.34 E537.33365
G1 X139.18 Y155.34 E537.39888
G1 X139.18 Y154.46 E537.42814
G1 X146.97 Y154.46 E537.68642
G1 X146.97 Y155.34 E537.71568
G1 X148.94 Y155.34 E537.78094
G1 F2400 E536.58094
G0 F12000 X152.88 Y154.98
G1 F2400 E537.78094
G1 F1440 X152.88 Y149.40 E537.96604
G1 X167.32 Y149.40 E538.44544
G1 X167.32 Y154.98 E538.63054
G1 X166.34 Y154.98 E538.66305
G1 X166.34 Y155.86 E538.69231
G1 X163.61 Y155.86 E538.78315
G1 X163.61 Y154.98 E538.81242
G1 X156.59 Y154.98 E539.04512
G1 X156.59 Y155.86 E539.07438
G1 X153.85 Y155.86 E539.16522
G1 X153.85 Y154.98 E539.19448
G1 X152.88 Y154.98 E539.22700
G0 F12000 X153.26 Y154.59
G1 F1440 X154.24 Y154.59 E539.25951
G1 X154.24 Y155.47 E539.28877
G1 X156.21 Y155.47 E539.35400
G1 X156.21 Y154.59 E539.38326
G1 X163.99 Y154.59 E539.64157
G1 X163.99 Y155.47 E539.67084
G1 X165.96 Y155.47 E539.73606
G1 X165.96 Y154.59 E539.76532
G1 X166.94 Y154.59 E539.79784
G1 X166.94 Y149.78 E539.95732
G1 X153.26 Y149.78 E540.41111
G1 X153.26 Y154.59 E540.57060
G1 F2400 E539.37060
G0 F12000 X149.70 Y146.21
G1 F2400 E540.57060
G1 F1440 X146.96 Y146.21 E540.66144
G1 X146.96 Y145.33 E540.69070
G1 X139.95 Y145.33 E540.92337
G1 X139.95 Y146.21 E540.95263
G1 X137.21 Y146.21 E541.04350
G1 X137.21 Y145.33 E541.07276
G1 X136.23 Y145.33 E541.10528
G1 X136.23 Y139.75 E541.29040
G1 X150.68 Y139.75 E541.76981
G1 X150.68 Y145.33 E541.95494
G1 X149.70 Y145.33 E541.98745
G1 X149.70 Y146.21 E542.01672
G0 F12000 X149.31 Y145.83
G1 F1440 X149.31 Y144.94 E542.04598
G1 X150.29 Y144.94 E542.07849
G1 X150.29 Y140.14 E542.23801
G1 X136.62 Y140.14 E542.69180
G1 X136.62 Y144.94 E542.85132
G1 X137.60 Y144.94 E542.88383
G1 X137.60 Y145.83 E542.91309
G1 X139.56 Y145.83 E542.97835
G1 X139.56 Y144.94 E543.00761
G1 X147.35 Y144.94 E543.26589
G1 X147.35 Y145.83 E543.29516
G1 X149.31 Y145.83 E543.36038
;LAYER:6
G0 F12000 X149.31 Y145.83 Z1.50
;TYPE:WALL-OUTER
G1 F1440 X149.31 Y144.94 E543.38965
G1 X150.29 Y144.94 E543.42216
G1 X150.29 Y140.14 E543.58167
G1 X136.62 Y140.14 E544.03547
G1 X136.62 Y144.94 E544.19498
G1 X137.60 Y144.94 E544.22750
G1 X137.60 Y145.83 E544.25676
G1 X139.56 Y145.83 E544.32202
G1 X139.56 Y144.94 E544.35128
G1 X147.35 Y144.94 E544.60956
G1 X147.35 Y145.83 E544.63882
G1 X149.31 Y145.83 E544.70405
G0 F12000 X149.70 Y146.21
G1 F1440 X146.96 Y146.21 E544.79489
G1 X146.96 Y145.33 E544.82415
G1 X139.95 Y145.33 E545.05682
G1 X139.95 Y146.21 E545.08608
G1 X137.21 Y146.21 E545.17696
G1 X137.21 Y145.33 E545.20622
G1 X136.23 Y145.33 E545.23873
G1 X136.23 Y139.75 E545.42386
G1 X150.68 Y139.75 E545.90327
G1 X150.68 Y145.33 E546.08839
G1 X149.70 Y145.33 E546.12091
G1 X149.70 Y146.21 E546.15017
G1 F2400 E544.95017
G0 F12000 X150.30 Y149.27
G1 F2400 E546.15017
G1 F1440 X150.30 Y154.85 E546.33530
G1 X149.32 Y154.85 E546.36778
G1 X149.32 Y155.73 E546.39704
G1 X146.58 Y155.73 E546.48791
G1 X146.58 Y154.85 E546.51717
G1 X139.57 Y154.85 E546.74984
G1 X139.57 Y155.73 E546.77911
G1 X136.83 Y155.73 E546.86998
G1 X136.83 Y154.85 E546.89924
G1 X135.85 Y154.85 E546.93172
G1 X135.85 Y149.27 E547.11685
G1 X150.30 Y149.27 E547.59622
G0 F12000 X149.91 Y149.66
G1 F1440 X136.24 Y149.66 E548.04998
G1 X136.24 Y154.46 E548.20943
G1 X137.22 Y154.46 E548.24194
G1 X137.22 Y155.34 E548.27121
G1 X139.18 Y155.34 E548.33643
G1 X139.18 Y154.46 E548.36570
G1 X146.97 Y154.46 E548.62398
G1 X146.97 Y155.34 E548.65324
G1 X148.94 Y155.34 E548.71850
G1 X148.94 Y154.46 E548.74776
G1 X149.91 Y154.46 E548.78024
G1 X149.91 Y149.66 E548.93969
G1 F2400 E547.73969
G0 F12000 X152.88 Y149.40
G1 F2400 E548.93969
G1 F1440 X167.32 Y149.40 E549.41910
G1 X167.32 Y154.98 E549.60419
G1 X166.34 Y154.98 E549.63671
G1 X166.34 Y155.86 E549.66597
G1 X163.61 Y155.86 E549.75681
G1 X163.61 Y154.98 E549.78607
G1 X156.59 Y154.98 E550.01877
G1 X156.59 Y155.86 E550.04803
G1 X153.85 Y155.86 E550.13887
G1 X153.85 Y154.98 E550.16813
G1 X152.88 Y154.98 E550.20065
G1 X152.88 Y149.40 E550.38574
G0 F12000 X153.26 Y149.78
G1 F1440 X153.26 Y154.59 E550.54522
G1 X154.24 Y154.59 E550.57774
G1 X154.24 Y155.47 E550.60700
G1 X156.21 Y155.47 E550.67223
G1 X156.21 Y154.59 E550.70149
G1 X163.99 Y154.59 E550.95980
G1 X163.99 Y155.47 E550.98907
G1 X165.96 Y155.47 E551.05429
G1 X165.96 Y154.59 E551.08355
G1 X166.94 Y154.59 E551.11607
G1 X166.94 Y149.78 E551.27555
G1 X153.26 Y149.78 E551.72934
G1 F2400 E550.52934
G0 F12000 X149.97 Y159.27
G1 F2400 E551.72934
G1 F1440 X149.97 Y164.85 E551.91447
G1 X149.00 Y164.85 E551.94698
G1 X149.00 Y165.74 E551.97625
G1 X146.26 Y165.74 E552.06709
G1 X146.26 Y164.85 E552.09635
G1 X139.24 Y164.85 E552.32905
G1 X139.24 Y165.74 E552.35831
G1 X136.50 Y165.74 E552.44915
G1 X136.50 Y164.85 E552.47841
G1 X135.53 Y164.85 E552.51093
G1 X135.53 Y159.27 E552.69605
G1 X149.97 Y159.27 E553.17546
G0 F12000 X149.59 Y159.66
G1 F1440 X135.91 Y159.66 E553.62926
G1 X135.91 Y164.47 E553.78877
G1 X136.89 Y164.47 E553.82129
G1 X136.89 Y165.35 E553.85055
G1 X138.86 Y165.35 E553.91577
G1 X138.86 Y164.47 E553.94504
G1 X146.64 Y164.47 E554.20335
G1 X146.64 Y165.35 E554.23261
G1 X148.61 Y165.35 E554.29784
G1 X148.61 Y164.47 E554.32710
G1 X149.59 Y164.47 E554.35962
G1 X149.59 Y159.66 E554.51913
;LAYER:7
G0 F12000 X149.59 Y159.66 Z1.70
;TYPE:WALL-OUTER
G1 F1440 X135.91 Y159.66 E554.97292
G1 X135.91 Y164.47 E555.13244
G1 X136.89 Y164.47 E555.16495
G1 X136.89 Y165.35 E555.19422
G1 X138.86 Y165.35 E555.25944
G1 X138.86 Y164.47 E555.28870
G1 X146.64 Y164.47 E555.54702
G1 X146.64 Y165.35 E555.57628
G1 X148.61 Y165.35 E555.64151
G1 X148.61 Y164.47 E555.67077
G1 X149.59 Y164.47 E555.70328
G1 X149.59 Y159.66 E555.86280
G0 F12000 X149.97 Y159.27
G1 F1440 X149.97 Y164.85 E556.04793
G1 X149.00 Y164.85 E556.08044
G1 X149.00 Y165.74 E556.10970
G1 X146.26 Y165.74 E556.20054
G1 X146.26 Y164.85 E556.22980
G1 X139.24 Y164.85 E556.46251
G1 X139.24 Y165.74 E556.49177
G1 X136.50 Y165.74 E556.58261
G1 X136.50 Y164.85 E556.61187
G1 X135.53 Y164.85 E556.64438
G1 X135.53 Y159.27 E556.82951
G1 X149.97 Y159.27 E557.30892
G1 F2400 E556.10892
G0 F12000 X149.32 Y155.73
G1 F2400 E557.30892
G1 F1440 X146.58 Y155.73 E557.39979
G1 X146.58 Y154.85 E557.42905
G1 X139.57 Y154.85 E557.66172
G1 X139.57 Y155.73 E557.69098
G1 X136.83 Y155.73 E557.78185
G1 X136.83 Y154.85 E557.81112
G1 X135.85 Y154.85 E557.84360
G1 X135.85 Y149.27 E558.02872
G1 X150.30 Y149.27 E558.50810
G1 X150.30 Y154.85 E558.69323
G1 X149.32 Y154.85 E558.72571
G1 X149.32 Y155.73 E558.75497
G0 F12000 X148.94 Y155.34
G1 F1440 X148.94 Y154.46 E558.78423
G1 X149.91 Y154.46 E558.81671
G1 X149.91 Y149.66 E558.97616
G1 X136.24 Y149.66 E559.42992
G1 X136.24 Y154.46 E559.58937
G1 X137.22 Y154.46 E559.62188
G1 X137.22 Y155.34 E559.65115
G1 X139.18 Y155.34 E559.71637
G1 X139.18 Y154.46 E559.74563
G1 X146.97 Y154.46 E560.00392
G1 X146.97 Y155.34 E560.03318
G1 X148.94 Y155.34 E560.09844
G1 F2400 E558.89844
G0 F12000 X152.88 Y154.98
G1 F2400 E560.09844
G1 F1440 X152.88 Y149.40 E560.28353
G1 X167.32 Y149.40 E560.76294
G1 X167.32 Y154.98 E560.94803
G1 X166.34 Y154.98 E560.98055
G1 X166.34 Y155.86 E561.00981
G1 X163.61 Y155.86 E561.10065
G1 X163.61 Y154.98 E561.12991
G1 X156.59 Y154.98 E561.36261
G1 X156.59 Y155.86 E561.39188
G1 X153.85 Y155.86 E561.48271
G1 X153.85 Y154.98 E561.51198
G1 X152.88 Y154.98 E561.54449
G0 F12000 X153.26 Y154.59
G1 F1440 X154.24 Y154.59 E561.57700
G1 X154.24 Y155.47 E561.60626
G1 X156.21 Y155.47 E561.67149
G1 X156.21 Y154.59 E561.70075
G1 X163.99 Y154.59 E561.95907
G1 X163.99 Y155.47 E561.98833
G1 X165.96 Y155.47 E562.05356
G1 X165.96 Y154.59 E562.08282
G1 X166.94 Y154.59 E562.11533
G1 X166.94 Y149.78 E562.27481
G1 X153.26 Y149.78 E562.72861
G1 X153.26 Y154.59 E562.88809
G1 F2400 E561.68809
G0 F12000 X149.70 Y146.21
G1 F2400 E562.88809
G1 F1440 X146.96 Y146.21 E562.97893
G1 X146.96 Y145.33 E563.00819
G1 X139.95 Y145.33 E563.24086
G1 X139.95 Y146.21 E563.27012
G1 X137.21 Y146.21 E563.36100
G1 X137.21 Y145.33 E563.39026
G1 X136.23 Y145.33 E563.42277
G1 X136.23 Y139.75 E563.60790
G1 X150.68 Y139.75 E564.08731
G1 X150.68 Y145.33 E564.27243
G1 X149.70 Y145.33 E564.30495
G1 X149.70 Y146.21 E564.33421
G0 F12000 X149.31 Y145.83
G1 F1440 X149.31 Y144.94 E564.36347
G1 X150.29 Y144.94 E564.39598
G1 X150.29 Y140.14 E564.55550
G1 X136.62 Y140.14 E565.00929
G1 X136.62 Y144.94 E565.16881
G1 X137.60 Y144.94 E565.20132
G1 X137.60 Y145.83 E565.23058
G1 X139.56 Y145.83 E565.29584
G1 X139.56 Y144.94 E565.32511
G1 X147.35 Y144.94 E565.58339
G1 X147.35 Y145.83 E565.61265
G1 X149.31 Y145.83 E565.67788
;LAYER:8
G0 F12000 X149.31 Y145.83 Z1.90
;TYPE:WALL-OUTER
G1 F1440 X149.31 Y144.94 E565.70714
G1 X150.29 Y144.94 E565.73965
G1 X150.29 Y140.14 E565.89917
G1 X136.62 Y140.14 E566.35296
G1 X136.62 Y144.94 E566.51248
G1 X137.60 Y144.94 E566.54499
G1 X137.60 Y145.83 E566.57425
G1 X139.56 Y145.83 E566.63951
G1 X139.56 Y144.94 E566.66877
G1 X147.35 Y144.94 E566.92706
G1 X147.35 Y145.83 E566.95632
G1 X149.31 Y145.83 E567.02154
G0 F12000 X149.70 Y146.21
G1 F1440 X146.96 Y146.21 E567.11238
G1 X146.96 Y145.33 E567.14165
G1 X139.95 Y145.33 E567.37432
G1 X139.95 Y146.21 E567.40358
G1 X137.21 Y146.21 E567.49445
G1 X137.21 Y145.33 E567.52371
G1 X136.23 Y145.33 E567.55623
G1 X136.23 Y139.75 E567.74135
G1 X150.68 Y139.75 E568.22076
G1 X150.68 Y145.33 E568.40589
G1 X149.70 Y145.33 E568.43840
G1 X149.70 Y146.21 E568.46766
G1 F2400 E567.26766
G0 F12000 X150.30 Y149.27
G1 F2400 E568.46766
G1 F1440 X150.30 Y154.85 E568.65279
G1 X149.32 Y154.85 E568.68527
G1 X149.32 Y155.73 E568.71453
G1 X146.58 Y155.73 E568.80541
G1 X146.58 Y154.85 E568.83467
G1 X139.57 Y154.85 E569.06734
G1 X139.57 Y155.73 E569.09660
G1 X136.83 Y155.73 E569.18747
G1 X136.83 Y154.85 E569.21673
G1 X135.85 Y154.85 E569.24921
G1 X135.85 Y149.27 E569.43434
G1 X150.30 Y149.27 E569.91372
G0 F12000 X149.91 Y149.66
G1 F1440 X136.24 Y149.66 E570.36748
G1 X136.24 Y154.46 E570.52693
G1 X137.22 Y154.46 E570.55944
G1 X137.22 Y155.34 E570.58870
G1 X139.18 Y155.34 E570.65393
G1 X139.18 Y154.46 E570.68319
G1 X146.97 Y154.46 E570.94147
G1 X146.97 Y155.34 E570.97073
G1 X148.94 Y155.34 E571.03599
G1 X148.94 Y154.46 E571.06526
G1 X149.91 Y154.46 E571.09774
G1 X149.91 Y149.66 E571.25718
G1 F2400 E570.05718
G0 F12000 X152.88 Y149.40
G1 F2400 E571.25718
G1 F1440 X167.32 Y149.40 E571.73659
G1 X167.32 Y154.98 E571.92169
G1 X166.34 Y154.98 E571.95420
G1 X166.34 Y155.86 E571.98346
G1 X163.61 Y155.86 E572.07430
G1 X163.61 Y154.98 E572.10356
G1 X156.59 Y154.98 E572.33627
G1 X156.59 Y155.86 E572.36553
G1 X153.85 Y155.86 E572.45637
G1 X153.85 Y154.98 E572.48563
G1 X152.88 Y154.98 E572.51814
G1 X152.88 Y149.40 E572.70324
G0 F12000 X153.26 Y149.78
G1 F1440 X153.26 Y154.59 E572.86272
G1 X154.24 Y154.59 E572.89523
G1 X154.24 Y155.47 E572.92449
G1 X156.21 Y155.47 E572.98972
G1 X156.21 Y154.59 E573.01898
G1 X163.99 Y154.59 E573.27730
G1 X163.99 Y155.47 E573.30656
G1 X165.96 Y155.47 E573.37179
G1 X165.96 Y154.59 E573.40105
G1 X166.94 Y154.59 E573.43356
G1 X166.94 Y149.78 E573.59304
G1 X153.26 Y149.78 E574.04684
G1 F2400 E572.84684
G0 F12000 X149.97 Y159.27
G1 F2400 E574.04684
G1 F1440 X149.97 Y164.85 E574.23197
G1 X149.00 Y164.85 E574.26448
G1 X149.00 Y165.74 E574.29374
G1 X146.26 Y165.74 E574.38458
G1 X146.26 Y164.85 E574.41384
G1 X139.24 Y164.85 E574.64654
G1 X139.24 Y165.74 E574.67581
G1 X136.50 Y165.74 E574.76665
G1 X136.50 Y164.85 E574.79591
G1 X135.53 Y164.85 E574.82842
G1 X135.53 Y159.27 E575.01355
G1 X149.97 Y159.27 E575.49296
G0 F12000 X149.59 Y159.66
G1 F1440 X135.91 Y159.66 E575.94675
G1 X135.91 Y164.47 E576.10627
G1 X136.89 Y164.47 E576.13878
G1 X136.89 Y165.35 E576.16804
G1 X138.86 Y165.35 E576.23327
G1 X138.86 Y164.47 E576.26253
G1 X146.64 Y164.47 E576.52085
G1 X146.64 Y165.35 E576.55011
G1 X148.61 Y165.35 E576.61533
G1 X148.61 Y164.47 E576.64460
G1 X149.59 Y164.47 E576.67711
G1 X149.59 Y159.66 E576.83662
;LAYER:9
G0 F12000 X149.59 Y159.66 Z2.10
;TYPE:WALL-OUTER
G1 F1440 X135.91 Y159.66 E577.29042
G1 X135.91 Y164.47 E577.44993
G1 X136.89 Y164.47 E577.48245
G1 X136.89 Y165.35 E577.51171
G1 X138.86 Y165.35 E577.57694
G1 X138.86 Y164.47 E577.60620
G1 X146.64 Y164.47 E577.86451
G1 X146.64 Y165.35 E577.89378
G1 X148.61 Y165.35 E577.95900
G1 X148.61 Y164.47 E577.98826
G1 X149.59 Y164.47 E578.02078
G1 X149.59 Y159.66 E578.18029
G0 F12000 X149.97 Y159.27
G1 F1440 X149.97 Y164.85 E578.36542
G1 X149.00 Y164.85 E578.39793
G1 X149.00 Y165.74 E578.42720
G1 X146.26 Y165.74 E578.51803
G1 X146.26 Y164.85 E578.54730
G1 X139.24 Y164.85 E578.78000
G1 X139.24 Y165.74 E578.80926
G1 X136.50 Y165.74 E578.90010
G1 X136.50 Y164.85 E578.92936
G1 X135.53 Y164.85 E578.96188
G1 X135.53 Y159.27 E579.14700
G1 X149.97 Y159.27 E579.62641
G1 F2400 E578.42641
G0 F12000 X149.32 Y155.73
G1 F2400 E579.62641
G1 F1440 X146.58 Y155.73 E579.71728
G1 X146.58 Y154.85 E579.74654
G1 X139.57 Y154.85 E579.97921
G1 X139.57 Y155.73 E580.00848
G1 X136.83 Y155.73 E580.09935
G1 X136.83 Y154.85 E580.12861
G1 X135.85 Y154.85 E580.16109
G1 X135.85 Y149.27 E580.34622
G1 X150.30 Y149.27 E580.82559
G1 X150.30 Y154.85 E581.01072
G1 X149.32 Y154.85 E581.04320
G1 X149.32 Y155.73 E581.07246
G0 F12000 X148.94 Y155.34
G1 F1440 X148.94 Y154.46 E581.10172
G1 X149.91 Y154.46 E581.13420
G1 X149.91 Y149.66 E581.29365
G1 X136.24 Y149.66 E581.74741
G1 X136.24 Y154.46 E581.90686
G1 X137.22 Y154.46 E581.93938
G1 X137.22 Y155.34 E581.96864
G1 X139.18 Y155.34 E582.03387
G1 X139.18 Y154.46 E582.06313
G1 X146.97 Y154.46 E582.32141
G1 X146.97 Y155.34 E582.35067
G1 X148.94 Y155.34 E582.41593
G1 F2400 E581.21593
G0 F12000 X152.88 Y154.98
G1 F2400 E582.41593
G1 F1440 X152.88 Y149.40 E582.60103
G1 X167.32 Y149.40 E583.08043
G1 X167.32 Y154.98 E583.26553
G1 X166.34 Y154.98 E583.29804
G1 X166.34 Y155.86 E583.32730
G1 X163.61 Y155.86 E583.41814
G1 X163.61 Y154.98 E583.44740
G1 X156.59 Y154.98 E583.68011
G1 X156.59 Y155.86 E583.70937
G1 X153.85 Y155.86 E583.80021
G1 X153.85 Y154.98 E583.82947
G1 X152.88 Y154.98 E583.86198
G0 F12000 X153.26 Y154.59
G1 F1440 X154.24 Y154.59 E583.89450
G1 X154.24 Y155.47 E583.92376
G1 X156.21 Y155.47 E583.98898
G1 X156.21 Y154.59 E584.01825
G1 X163.99 Y154.59 E584.27656
G1 X163.99 Y155.47 E584.30582
G1 X165.96 Y155.47 E584.37105
G1 X165.96 Y154.59 E584.40031
G1 X166.94 Y154.59 E584.43283
G1 X166.94 Y149.78 E584.59231
G1 X153.26 Y149.78 E585.04610
G1 X153.26 Y154.59 E585.20558
G1 F2400 E584.00558
G0 F12000 X149.70 Y146.21
G1 F2400 E585.20558
G1 F1440 X146.96 Y146.21 E585.29642
G1 X146.96 Y145.33 E585.32569
G1 X139.95 Y145.33 E585.55836
G1 X139.95 Y146.21 E585.58762
G1 X137.21 Y146.21 E585.67849
G1 X137.21 Y145.33 E585.70775
G1 X136.23 Y145.33 E585.74027
G1 X136.23 Y139.75 E585.92539
G1 X150.68 Y139.75 E586.40480
G1 X150.68 Y145.33 E586.58993
G1 X149.70 Y145.33 E586.62244
G1 X149.70 Y146.21 E586.65170
G0 F12000 X149.31 Y145.83
G1 F1440 X149.31 Y144.94 E586.68097
G1 X150.29 Y144.94 E586.71348
G1 X150.29 Y140.14 E586.87299
G1 X136.62 Y140.14 E587.32679
G1 X136.62 Y144.94 E587.48630
G1 X137.60 Y144.94 E587.51882
G1 X137.60 Y145.83 E587.54808
G1 X139.56 Y145.83 E587.61334
G1 X139.56 Y144.94 E587.64260
G1 X147.35 Y144.94 E587.90088
G1 X147.35 Y145.83 E587.93015
G1 X149.31 Y145.83 E587.99537
;LAYER:10
G0 F12000 X149.31 Y145.83 Z2.30
;TYPE:WALL-OUTER
G1 F1440 X149.31 Y144.94 E588.02463
G1 X150.29 Y144.94 E588.05715
G1 X150.29 Y140.14 E588.21666
G1 X136.62 Y140.14 E588.67046
G1 X136.62 Y144.94 E588.82997
G1 X137.60 Y144.94 E588.86248
G1 X137.60 Y145.83 E588.89175
G1 X139.56 Y145.83 E588.95701
G1 X139.56 Y144.94 E588.98627
G1 X147.35 Y144.94 E589.24455
G1 X147.35 Y145.83 E589.27381
G1 X149.31 Y145.83 E589.33904
G0 F12000 X149.70 Y146.21
G1 F1440 X146.96 Y146.21 E589.42988
G1 X146.96 Y145.33 E589.45914
G1 X139.95 Y145.33 E589.69181
G1 X139.95 Y146.21 E589.72107
G1 X137.21 Y146.21 E589.81194
G1 X137.21 Y145.33 E589.84121
G1 X136.23 Y145.33 E589.87372
G1 X136.23 Y139.75 E590.05885
G1 X150.68 Y139.75 E590.53825
G1 X150.68 Y145.33 E590.72338
G1 X149.70 Y145.33 E590.75590
G1 X149.70 Y146.21 E590.78516
G1 F2400 E589.58516
G0 F12000 X150.30 Y149.27
G1 F2400 E590.78516
G1 F1440 X150.30 Y154.85 E590.97028
G1 X149.32 Y154.85 E591.00277
G1 X149.32 Y155.73 E591.03203
G1 X146.58 Y155.73 E591.12290
G1 X146.58 Y154.85 E591.15216
G1 X139.57 Y154.85 E591.38483
G1 X139.57 Y155.73 E591.41409
G1 X136.83 Y155.73 E591.50497
G1 X136.83 Y154.85 E591.53423
G1 X135.85 Y154.85 E591.56671
G1 X135.85 Y149.27 E591.75184
G1 X150.30 Y149.27 E592.23121
G0 F12000 X149.91 Y149.66
G1 F1440 X136.24 Y149.66 E592.68497
G1 X136.24 Y154.46 E592.84442
G1 X137.22 Y154.46 E592.87693
G1 X137.22 Y155.34 E592.90620
G1 X139.18 Y155.34 E592.97142
G1 X139.18 Y154.46 E593.00068
G1 X146.97 Y154.46 E593.25897
G1 X146.97 Y155.34 E593.28823
G1 X148.94 Y155.34 E593.35349
G1 X148.94 Y154.46 E593.38275
G1 X149.91 Y154.46 E593.41523
G1 X149.91 Y149.66 E593.57468
G1 F2400 E592.37468
G0 F12000 X152.88 Y149.40
G1 F2400 E593.57468
G1 F1440 X167.32 Y149.40 E594.05409
G1 X167.32 Y154.98 E594.23918
G1 X166.34 Y154.98 E594.27169
G1 X166.34 Y155.86 E594.30096
G1 X163.61 Y155.86 E594.39179
G1 X163.61 Y154.98 E594.42106
G1 X156.59 Y154.98 E594.65376
G1 X156.59 Y155.86 E594.68302
G1 X153.85 Y155.86 E594.77386
G1 X153.85 Y154.98 E594.80312
G1 X152.88 Y154.98 E594.83564
G1 X152.88 Y149.40 E595.02073
G0 F12000 X153.26 Y149.78
G1 F1440 X153.26 Y154.59 E595.18021
G1 X154.24 Y154.59 E595.21273
G1 X154.24 Y155.47 E595.24199
G1 X156.21 Y155.47 E595.30721
G1 X156.21 Y154.59 E595.33648
G1 X163.99 Y154.59 E595.59479
G1 X163.99 Y155.47 E595.62405
G1 X165.96 Y155.47 E595.68928
G1 X165.96 Y154.59 E595.71854
G1 X166.94 Y154.59 E595.75106
G1 X166.94 Y149.78 E595.91054
G1 X153.26 Y149.78 E596.36433
G1 F2400 E595.16433
G0 F12000 X149.97 Y159.27
G1 F2400 E596.36433
G1 F1440 X149.97 Y164.85 E596.54946
G1 X149.00 Y164.85 E596.58197
G1 X149.00 Y165.74 E596.61123
G1 X146.26 Y165.74 E596.70207
G1 X146.26 Y164.85 E596.73134
G1 X139.24 Y164.85 E596.96404
G1 X139.24 Y165.74 E596.99330
G1 X136.50 Y165.74 E597.08414
G1 X136.50 Y164.85 E597.11340
G1 X135.53 Y164.85 E597.14592
G1 X135.53 Y159.27 E597.33104
G1 X149.97 Y159.27 E597.81045
G0 F12000 X149.59 Y159.66
G1 F1440 X135.91 Y159.66 E598.26425
G1 X135.91 Y164.47 E598.42376
G1 X136.89 Y164.47 E598.45627
G1 X136.89 Y165.35 E598.48554
G1 X138.86 Y165.35 E598.55076
G1 X138.86 Y164.47 E598.58002
G1 X146.64 Y164.47 E598.83834
G1 X146.64 Y165.35 E598.86760
G1 X148.61 Y165.35 E598.93283
G1 X148.61 Y164.47 E598.96209
G1 X149.59 Y164.47 E598.99460
G1 X149.59 Y159.66 E599.15412
;LAYER:11
G0 F12000 X149.59 Y159.66 Z2.50
;TYPE:WALL-OUTER
G1 F1440 X135.91 Y159.66 E599.60791
G1 X135.91 Y164.47 E599.76743
G1 X136.89 Y164.47 E599.79994
G1 X136.89 Y165.35 E599.82920
G1 X138.86 Y165.35 E599.89443
G1 X138.86 Y164.47 E599.92369
G1 X146.64 Y164.47 E600.18201
G1 X146.64 Y165.35 E600.21127
G1 X148.61 Y165.35 E600.27650
G1 X148.61 Y164.47 E600.30576
G1 X149.59 Y164.47 E600.33827
G1 X149.59 Y159.66 E600.49779
G0 F12000 X149.97 Y159.27
G1 F1440 X149.97 Y164.85 E600.68291
G1 X149.00 Y164.85 E600.71543
G1 X149.00 Y165.74 E600.74469
G1 X146.26 Y165.74 E600.83553
G1 X146.26 Y164.85 E600.86479
G1 X139.24 Y164.85 E601.09749
G1 X139.24 Y165.74 E601.12676
G1 X136.50 Y165.74 E601.21759
G1 X136.50 Y164.85 E601.24686
G1 X135.53 Y164.85 E601.27937
G1 X135.53 Y159.27 E601.46450
G1 X149.97 Y159.27 E601.94390
G1 F2400 E600.74390
G0 F12000 X149.32 Y155.73
G1 F2400 E601.94390
G1 F1440 X146.58 Y155.73 E602.03478
G1 X146.58 Y154.85 E602.06404
G1 X139.57 Y154.85 E602.29671
G1 X139.57 Y155.73 E602.32597
G1 X136.83 Y155.73 E602.41684
G1 X136.83 Y154.85 E602.44610
G1 X135.85 Y154.85 E602.47858
G1 X135.85 Y149.27 E602.66371
G1 X150.30 Y149.27 E603.14309
G1 X150.30 Y154.85 E603.32821
G1 X149.32 Y154.85 E603.36069
G1 X149.32 Y155.73 E603.38996
G0 F12000 X148.94 Y155.34
G1 F1440 X148.94 Y154.46 E603.41922
G1 X149.91 Y154.46 E603.45170
G1 X149.91 Y149.66 E603.61115
G1 X136.24 Y149.66 E604.06491
G1 X136.24 Y154.46 E604.22436
G1 X137.22 Y154.46 E604.25687
G1 X137.22 Y155.34 E604.28613
G1 X139.18 Y155.34 E604.35136
G1 X139.18 Y154.46 E604.38062
G1 X146.97 Y154.46 E604.63890
G1 X146.97 Y155.34 E604.66817
G1 X148.94 Y155.34 E604.73343
G1 F2400 E603.53343
G0 F12000 X152.88 Y154.98
G1 F2400 E604.73343
G1 F1440 X152.88 Y149.40 E604.91852
G1 X167.32 Y149.40 E605.39793
G1 X167.32 Y154.98 E605.58302
G1 X166.34 Y154.98 E605.61553
G1 X166.34 Y155.86 E605.64480
G1 X163.61 Y155.86 E605.73564
G1 X163.61 Y154.98 E605.76490
G1 X156.59 Y154.98 E605.99760
G1 X156.59 Y155.86 E606.02686
G1 X153.85 Y155.86 E606.11770
G1 X153.85 Y154.98 E606.14696
G1 X152.88 Y154.98 E606.17948
G0 F12000 X153.26 Y154.59
G1 F1440 X154.24 Y154.59 E606.21199
G1 X154.24 Y155.47 E606.24125
G1 X156.21 Y155.47 E606.30648
G1 X156.21 Y154.59 E606.33574
G1 X163.99 Y154.59 E606.59406
G1 X163.99 Y155.47 E606.62332
G1 X165.96 Y155.47 E606.68855
G1 X165.96 Y154.59 E606.71781
G1 X166.94 Y154.59 E606.75032
G1 X166.94 Y149.78 E606.90980
G1 X153.26 Y149.78 E607.36360
G1 X153.26 Y154.59 E607.52308
G1 F2400 E606.32308
G0 F12000 X149.70 Y146.21
G1 F2400 E607.52308
G1 F1440 X146.96 Y146.21 E607.61392
G1 X146.96 Y145.33 E607.64318
G1 X139.95 Y145.33 E607.87585
G1 X139.95 Y146.21 E607.90511
G1 X137.21 Y146.21 E607.99598
G1 X137.21 Y145.33 E608.02525
G1 X136.23 Y145.33 E608.05776
G1 X136.23 Y139.75 E608.24289
G1 X150.68 Y139.75 E608.72229
G1 X150.68 Y145.33 E608.90742
G1 X149.70 Y145.33 E608.93994
G1 X149.70 Y146.21 E608.96920
G0 F12000 X149.31 Y145.83
G1 F1440 X149.31 Y144.94 E608.99846
G1 X150.29 Y144.94 E609.03097
G1 X150.29 Y140.14 E609.19049
G1 X136.62 Y140.14 E609.64428
G1 X136.62 Y144.94 E609.80380
G1 X137.60 Y144.94 E609.83631
G1 X137.60 Y145.83 E609.86557
G1 X139.56 Y145.83 E609.93083
G1 X139.56 Y144.94 E609.96009
G1 X147.35 Y144.94 E610.21838
G1 X147.35 Y145.83 E610.24764
G1 X149.31 Y145.83 E610.31287
;LAYER:12
G0 F12000 X149.31 Y145.83 Z2.70
;TYPE:WALL-OUTER
G1 F1440 X149.31 Y144.94 E610.34213
G1 X150.29 Y144.94 E610.37464
G1 X150.29 Y140.14 E610.53416
G1 X136.62 Y140.14 E610.98795
G1 X136.62 Y144.94 E611.14747
G1 X137.60 Y144.94 E611.17998
G1 X137.60 Y145.83 E611.20924
G1 X139.56 Y145.83 E611.27450
G1 X139.56 Y144.94 E611.30376
G1 X147.35 Y144.94 E611.56205
G1 X147.35 Y145.83 E611.59131
G1 X149.31 Y145.83 E611.65653
G0 F12000 X149.70 Y146.21
G1 F1440 X146.96 Y146.21 E611.74737
G1 X146.96 Y145.33 E611.77663
G1 X139.95 Y145.33 E612.00930
G1 X139.95 Y146.21 E612.03857
G1 X137.21 Y146.21 E612.12944
G1 X137.21 Y145.33 E612.15870
G1 X136.23 Y145.33 E612.19121
G1 X136.23 Y139.75 E612.37634
G1 X150.68 Y139.75 E612.85575
G1 X150.68 Y145.33 E613.04088
G1 X149.70 Y145.33 E613.07339
G1 X149.70 Y146.21 E613.10265
G1 F2400 E611.90265
G0 F12000 X150.30 Y149.27
G1 F2400 E613.10265
G1 F1440 X150.30 Y154.85 E613.28778
G1 X149.32 Y154.85 E613.32026
G1 X149.32 Y155.73 E613.34952
G1 X146.58 Y155.73 E613.44039
G1 X146.58 Y154.85 E613.46966
G1 X139.57 Y154.85 E613.70233
G1 X139.57 Y155.73 E613.73159
G1 X136.83 Y155.73 E613.82246
G1 X136.83 Y154.85 E613.85172
G1 X135.85 Y154.85 E613.88420
G1 X135.85 Y149.27 E614.06933
G1 X150.30 Y149.27 E614.54870
G0 F12000 X149.91 Y149.66
G1 F1440 X136.24 Y149.66 E615.00247
G1 X136.24 Y154.46 E615.16191
G1 X137.22 Y154.46 E615.19443
G1 X137.22 Y155.34 E615.22369
G1 X139.18 Y155.34 E615.28892
G1 X139.18 Y154.46 E615.31818
G1 X146.97 Y154.46 E615.57646
G1 X146.97 Y155.34 E615.60572
G1 X148.94 Y155.34 E615.67098
G1 X148.94 Y154.46 E615.70024
G1 X149.91 Y154.46 E615.73272
G1 X149.91 Y149.66 E615.89217
G1 F2400 E614.69217
G0 F12000 X152.88 Y149.40
G1 F2400 E615.89217
G1 F1440 X167.32 Y149.40 E616.37158
G1 X167.32 Y154.98 E616.55667
G1 X166.34 Y154.98 E616.58919
G1 X166.34 Y155.86 E616.61845
G1 X163.61 Y155.86 E616.70929
G1 X163.61 Y154.98 E616.73855
G1 X156.59 Y154.98 E616.97125
G1 X156.59 Y155.86 E617.00052
G1 X153.85 Y155.86 E617.09135
G1 X153.85 Y154.98 E617.12062
G1 X152.88 Y154.98 E617.15313
G1 X152.88 Y149.40 E617.33822
G0 F12000 X153.26 Y149.78
G1 F1440 X153.26 Y154.59 E617.49771
G1 X154.24 Y154.59 E617.53022
G1 X154.24 Y155.47 E617.55948
G1 X156.21 Y155.47 E617.62471
G1 X156.21 Y154.59 E617.65397
G1 X163.99 Y154.59 E617.91229
G1 X163.99 Y155.47 E617.94155
G1 X165.96 Y155.47 E618.00677
G1 X165.96 Y154.59 E618.03604
G1 X166.94 Y154.59 E618.06855
G1 X166.94 Y149.78 E618.22803
G1 X153.26 Y149.78 E618.68183
G1 F2400 E617.48183
G0 F12000 X149.97 Y159.27
G1 F2400 E618.68183
G1 F1440 X149.97 Y164.85 E618.86695
G1 X149.00 Y164.85 E618.89947
G1 X149.00 Y165.74 E618.92873
G1 X146.26 Y165.74 E619.01957
G1 X146.26 Y164.85 E619.04883
G1 X139.24 Y164.85 E619.28153
G1 X139.24 Y165.74 E619.31080
G1 X136.50 Y165.74 E619.40163
G1 X136.50 Y164.85 E619.43090
G1 X135.53 Y164.85 E619.46341
G1 X135.53 Y159.27 E619.64854
G1 X149.97 Y159.27 E620.12794
G0 F12000 X149.59 Y159.66
G1 F1440 X135.91 Y159.66 E620.58174
G1 X135.91 Y164.47 E620.74125
G1 X136.89 Y164.47 E620.77377
G1 X136.89 Y165.35 E620.80303
G1 X138.86 Y165.35 E620.86826
G1 X138.86 Y164.47 E620.89752
G1 X146.64 Y164.47 E621.15583
G1 X146.64 Y165.35 E621.18510
G1 X148.61 Y165.35 E621.25032
G1 X148.61 Y164.47 E621.27958
G1 X149.59 Y164.47 E621.31210
G1 X149.59 Y159.66 E621.47161
;LAYER:13
G0 F12000 X149.59 Y159.66 Z2.90
;TYPE:WALL-OUTER
G1 F1440 X135.91 Y159.66 E621.92541
G1 X135.91 Y164.47 E622.08492
G1 X136.89 Y164.47 E622.11744
G1 X136.89 Y165.35 E622.14670
G1 X138.86 Y165.35 E622.21192
G1 X138.86 Y164.47 E622.24119
G1 X146.64 Y164.47 E622.49950
G1 X146.64 Y165.35 E622.52876
G1 X148.61 Y165.35 E622.59399
G1 X148.61 Y164.47 E622.62325
G1 X149.59 Y164.47 E622.65577
G1 X149.59 Y159.66 E622.81528
G0 F12000 X149.97 Y159.27
G1 F1440 X149.97 Y164.85 E623.00041
G1 X149.00 Y164.85 E623.03292
G1 X149.00 Y165.74 E623.06218
G1 X146.26 Y165.74 E623.15302
G1 X146.26 Y164.85 E623.18228
G1 X139.24 Y164.85 E623.41499
G1 X139.24 Y165.74 E623.44425
G1 X136.50 Y165.74 E623.53509
G1 X136.50 Y164.85 E623.56435
G1 X135.53 Y164.85 E623.59686
G1 X135.53 Y159.27 E623.78199
G1 X149.97 Y159.27 E624.26140
G1 F2400 E623.06140
G0 F12000 X149.32 Y155.73
G1 F2400 E624.26140
G1 F1440 X146.58 Y155.73 E624.35227
G1 X146.58 Y154.85 E624.38153
G1 X139.57 Y154.85 E624.61420
G1 X139.57 Y155.73 E624.64346
G1 X136.83 Y155.73 E624.73434
G1 X136.83 Y154.85 E624.76360
G1 X135.85 Y154.85 E624.79608
G1 X135.85 Y149.27 E624.98121
G1 X150.30 Y149.27 E625.46058
G1 X150.30 Y154.85 E625.64571
G1 X149.32 Y154.85 E625.67819
G1 X149.32 Y155.73 E625.70745
G0 F12000 X148.94 Y155.34
G1 F1440 X148.94 Y154.46 E625.73671
G1 X149.91 Y154.46 E625.76919
G1 X149.91 Y149.66 E625.92864
G1 X136.24 Y149.66 E626.38240
G1 X136.24 Y154.46 E626.54185
G1 X137.22 Y154.46 E626.57437
G1 X137.22 Y155.34 E626.60363
G1 X139.18 Y155.34 E626.66885
G1 X139.18 Y154.46 E626.69812
G1 X146.97 Y154.46 E626.95640
G1 X146.97 Y155.34 E626.98566
G1 X148.94 Y155.34 E627.05092
G1 F2400 E625.85092
G0 F12000 X152.88 Y154.98
G1 F2400 E627.05092
G1 F1440 X152.88 Y149.40 E627.23601
G1 X167.32 Y149.40 E627.71542
G1 X167.32 Y154.98 E627.90052
G1 X166.34 Y154.98 E627.93303
G1 X166.34 Y155.86 E627.96229
G1 X163.61 Y155.86 E628.05313
G1 X163.61 Y154.98 E628.08239
G1 X156.59 Y154.98 E628.31510
G1 X156.59 Y155.86 E628.34436
G1 X153.85 Y155.86 E628.43520
G1 X153.85 Y154.98 E628.46446
G1 X152.88 Y154.98 E628.49697
G0 F12000 X153.26 Y154.59
G1 F1440 X154.24 Y154.59 E628.52948
G1 X154.24 Y155.47 E628.55875
G1 X156.21 Y155.47 E628.62397
G1 X156.21 Y154.59 E628.65324
G1 X163.99 Y154.59 E628.91155
G1 X163.99 Y155.47 E628.94081
G1 X165.96 Y155.47 E629.00604
G1 X165.96 Y154.59 E629.03530
G1 X166.94 Y154.59 E629.06781
G1 X166.94 Y149.78 E629.22730
G1 X153.26 Y149.78 E629.68109
G1 X153.26 Y154.59 E629.84057
G1 F2400 E628.64057
G0 F12000 X149.70 Y146.21
G1 F2400 E629.84057
G1 F1440 X146.96 Y146.21 E629.93141
G1 X146.96 Y145.33 E629.96067
G1 X139.95 Y145.33 E630.19334
G1 X139.95 Y146.21 E630.22261
G1 X137.21 Y146.21 E630.31348
G1 X137.21 Y145.33 E630.34274
G1 X136.23 Y145.33 E630.37525
G1 X136.23 Y139.75 E630.56038
G1 X150.68 Y139.75 E631.03979
G1 X150.68 Y145.33 E631.22492
G1 X149.70 Y145.33 E631.25743
G1 X149.70 Y146.21 E631.28669
G0 F12000 X149.31 Y145.83
G1 F1440 X149.31 Y144.94 E631.31595
G1 X150.29 Y144.94 E631.34847
G1 X150.29 Y140.14 E631.50798
G1 X136.62 Y140.14 E631.96178
G1 X136.62 Y144.94 E632.12129
G1 X137.60 Y144.94 E632.15381
G1 X137.60 Y145.83 E632.18307
G1 X139.56 Y145.83 E632.24833
G1 X139.56 Y144.94 E632.27759
G1 X147.35 Y144.94 E632.53587
G1 X147.35 Y145.83 E632.56513
G1 X149.31 Y145.83 E632.63036
;LAYER:14
G0 F12000 X149.31 Y145.83 Z3.10
;TYPE:WALL-OUTER
G1 F1440 X149.31 Y144.94 E632.65962
G1 X150.29 Y144.94 E632.69213
G1 X150.29 Y140.14 E632.85165
G1 X136.62 Y140.14 E633.30544
G1 X136.62 Y144.94 E633.46496
G1 X137.60 Y144.94 E633.49747
G1 X137.60 Y145.83 E633.52674
G1 X139.56 Y145.83 E633.59199
G1 X139.56 Y144.94 E633.62126
G1 X147.35 Y144.94 E633.87954
G1 X147.35 Y145.83 E633.90880
G1 X149.31 Y145.83 E633.97403
G0 F12000 X149.70 Y146.21
G1 F1440 X146.96 Y146.21 E634.06487
G1 X146.96 Y145.33 E634.09413
G1 X139.95 Y145.33 E634.32680
G1 X139.95 Y146.21 E634.35606
G1 X137.21 Y146.21 E634.44693
G1 X137.21 Y145.33 E634.47619
G1 X136.23 Y145.33 E634.50871
G1 X136.23 Y139.75 E634.69384
G1 X150.68 Y139.75 E635.17324
G1 X150.68 Y145.33 E635.35837
G1 X149.70 Y145.33 E635.39088
G1 X149.70 Y146.21 E635.42015
G1 F2400 E634.22015
G0 F12000 X150.30 Y149.27
G1 F2400 E635.42015
G1 F1440 X150.30 Y154.85 E635.60527
G1 X149.32 Y154.85 E635.63775
G1 X149.32 Y155.73 E635.66702
G1 X146.58 Y155.73 E635.75789
G1 X146.58 Y154.85 E635.78715
G1 X139.57 Y154.85 E636.01982
G1 X139.57 Y155.73 E636.04908
G1 X136.83 Y155.73 E636.13995
G1 X136.83 Y154.85 E636.16922
G1 X135.85 Y154.85 E636.20170
G1 X135.85 Y149.27 E636.38682
G1 X150.30 Y149.27 E636.86620
G0 F12000 X149.91 Y149.66
G1 F1440 X136.24 Y149.66 E637.31996
G1 X136.24 Y154.46 E637.47941
G1 X137.22 Y154.46 E637.51192
G1 X137.22 Y155.34 E637.54118
G1 X139.18 Y155.34 E637.60641
G1 X139.18 Y154.46 E637.63567
G1 X146.97 Y154.46 E637.89395
G1 X146.97 Y155.34 E637.92322
G1 X148.94 Y155.34 E637.98848
G1 X148.94 Y154.46 E638.01774
G1 X149.91 Y154.46 E638.05022
G1 X149.91 Y149.66 E638.20967
G1 F2400 E637.00967
G0 F12000 X152.88 Y149.40
G1 F2400 E638.20967
G1 F1440 X167.32 Y149.40 E638.68907
G1 X167.32 Y154.98 E638.87417
G1 X166.34 Y154.98 E638.90668
G1 X166.34 Y155.86 E638.93594
G1 X163.61 Y155.86 E639.02678
G1 X163.61 Y154.98 E639.05604
G1 X156.59 Y154.98 E639.28875
G1 X156.59 Y155.86 E639.31801
G1 X153.85 Y155.86 E639.40885
G1 X153.85 Y154.98 E639.43811
G1 X152.88 Y154.98 E639.47062
G1 X152.88 Y149.40 E639.65572
G0 F12000 X153.26 Y149.78
G1 F1440 X153.26 Y154.59 E639.81520
G1 X154.24 Y154.59 E639.84771
G1 X154.24 Y155.47 E639.87698
G1 X156.21 Y155.47 E639.94220
G1 X156.21 Y154.59 E639.97146
G1 X163.99 Y154.59 E640.22978
G1 X163.99 Y155.47 E640.25904
G1 X165.96 Y155.47 E640.32427
G1 X165.96 Y154.59 E640.35353
G1 X166.94 Y154.59 E640.38604
G1 X166.94 Y149.78 E640.54553
G1 X153.26 Y149.78 E640.99932
G1 F2400 E639.79932
G0 F12000 X149.97 Y159.27
G1 F2400 E640.99932
G1 F1440 X149.97 Y164.85 E641.18445
G1 X149.00 Y164.85 E641.21696
G1 X149.00 Y165.74 E641.24622
G1 X146.26 Y165.74 E641.33706
G1 X146.26 Y164.85 E641.36632
G1 X139.24 Y164.85 E641.59903
G1 X139.24 Y165.74 E641.62829
G1 X136.50 Y165.74 E641.71913
G1 X136.50 Y164.85 E641.74839
G1 X135.53 Y164.85 E641.78090
G1 X135.53 Y159.27 E641.96603
G1 X149.97 Y159.27 E642.44544
G0 F12000 X149.59 Y159.66
G1 F1440 X135.91 Y159.66 E642.89923
G1 X135.91 Y164.47 E643.05875
G1 X136.89 Y164.47 E643.09126
G1 X136.89 Y165.35 E643.12052
G1 X138.86 Y165.35 E643.18575
G1 X138.86 Y164.47 E643.21501
G1 X146.64 Y164.47 E643.47333
G1 X146.64 Y165.35 E643.50259
G1 X148.61 Y165.35 E643.56782
G1 X148.61 Y164.47 E643.59708
G1 X149.59 Y164.47 E643.62959
G1 X149.59 Y159.66 E643.78911
;LAYER:15
G0 F12000 X149.59 Y159.66 Z3.30
;TYPE:WALL-OUTER
G1 F1440 X135.91 Y159.66 E644.24290
G1 X135.91 Y164.47 E644.40242
G1 X136.89 Y164.47 E644.43493
G1 X136.89 Y165.35 E644.46419
G1 X138.86 Y165.35 E644.52942
G1 X138.86 Y164.47 E644.55868
G1 X146.64 Y164.47 E644.81700
G1 X146.64 Y165.35 E644.84626
G1 X148.61 Y165.35 E644.91148
G1 X148.61 Y164.47 E644.94075
G1 X149.59 Y164.47 E644.97326
G1 X149.59 Y159.66 E645.13277
G0 F12000 X149.97 Y159.27
G1 F1440 X149.97 Y164.85 E645.31790
G1 X149.00 Y164.85 E645.35042
G1 X149.00 Y165.74 E645.37968
G1 X146.26 Y165.74 E645.47052
G1 X146.26 Y164.85 E645.49978
G1 X139.24 Y164.85 E645.73248
G1 X139.24 Y165.74 E645.76174
G1 X136.50 Y165.74 E645.85258
G1 X136.50 Y164.85 E645.88184
G1 X135.53 Y164.85 E645.91436
G1 X135.53 Y159.27 E646.09949
G1 X149.97 Y159.27 E646.57889
G1 F2400 E645.37889
G0 F12000 X149.32 Y155.73
G1 F2400 E646.57889
G1 F1440 X146.58 Y155.73 E646.66976
G1 X146.58 Y154.85 E646.69903
G1 X139.57 Y154.85 E646.93170
G1 X139.57 Y155.73 E646.96096
G1 X136.83 Y155.73 E647.05183
G1 X136.83 Y154.85 E647.08109
G1 X135.85 Y154.85 E647.11357
G1 X135.85 Y149.27 E647.29870
G1 X150.30 Y149.27 E647.77807
G1 X150.30 Y154.85 E647.96320
G1 X149.32 Y154.85 E647.99568
G1 X149.32 Y155.73 E648.02494
G0 F12000 X148.94 Y155.34
G1 F1440 X148.94 Y154.46 E648.05421
G1 X149.91 Y154.46 E648.08669
G1 X149.91 Y149.66 E648.24614
G1 X136.24 Y149.66 E648.69990
G1 X136.24 Y154.46 E648.85935
G1 X137.22 Y154.46 E648.89186
G1 X137.22 Y155.34 E648.92112
G1 X139.18 Y155.34 E648.98635
G1 X139.18 Y154.46 E649.01561
G1 X146.97 Y154.46 E649.27389
G1 X146.97 Y155.34 E649.30315
G1 X148.94 Y155.34 E649.36841
G1 F2400 E648.16841
G0 F12000 X152.88 Y154.98
G1 F2400 E649.36841
G1 F1440 X152.88 Y149.40 E649.55351
G1 X167.32 Y149.40 E650.03292
G1 X167.32 Y154.98 E650.21801
G1 X166.34 Y154.98 E650.25052
G1 X166.34 Y155.86 E650.27979
G1 X163.61 Y155.86 E650.37062
G1 X163.61 Y154.98 E650.39989
G1 X156.59 Y154.98 E650.63259
G1 X156.59 Y155.86 E650.66185
G1 X153.85 Y155.86 E650.75269
G1 X153.85 Y154.98 E650.78195
G1 X152.88 Y154.98 E650.81447
G0 F12000 X153.26 Y154.59
G1 F1440 X154.24 Y154.59 E650.84698
G1 X154.24 Y155.47 E650.87624
G1 X156.21 Y155.47 E650.94147
G1 X156.21 Y154.59 E650.97073
G1 X163.99 Y154.59 E651.22905
G1 X163.99 Y155.47 E651.25831
G1 X165.96 Y155.47 E651.32353
G1 X165.96 Y154.59 E651.35280
G1 X166.94 Y154.59 E651.38531
G1 X166.94 Y149.78 E651.54479
G1 X153.26 Y149.78 E651.99859
G1 X153.26 Y154.59 E652.15807
G1 F2400 E650.95807
G0 F12000 X149.70 Y146.21
G1 F2400 E652.15807
G1 F1440 X146.96 Y146.21 E652.24891
G1 X146.96 Y145.33 E652.27817
G1 X139.95 Y145.33 E652.51084
G1 X139.95 Y146.21 E652.54010
G1 X137.21 Y146.21 E652.63097
G1 X137.21 Y145.33 E652.66023
G1 X136.23 Y145.33 E652.69275
G1 X136.23 Y139.75 E652.87787
G1 X150.68 Y139.75 E653.35728
G1 X150.68 Y145.33 E653.54241
G1 X149.70 Y145.33 E653.57492
G1 X149.70 Y146.21 E653.60419
G0 F12000 X149.31 Y145.83
G1 F1440 X149.31 Y144.94 E653.63345
G1 X150.29 Y144.94 E653.66596
G1 X150.29 Y140.14 E653.82548
G1 X136.62 Y140.14 E654.27927
G1 X136.62 Y144.94 E654.43879
G1 X137.60 Y144.94 E654.47130
G1 X137.60 Y145.83 E654.50056
G1 X139.56 Y145.83 E654.56582
G1 X139.56 Y144.94 E654.59508
G1 X147.35 Y144.94 E654.85337
G1 X147.35 Y145.83 E654.88263
G1 X149.31 Y145.83 E654.94785
;LAYER:16
G0 F12000 X149.31 Y145.83 Z3.50
;TYPE:WALL-OUTER
G1 F1440 X149.31 Y144.94 E654.97712
G1 X150.29 Y144.94 E655.00963
G1 X150.29 Y140.14 E655.16914
G1 X136.62 Y140.14 E655.62294
G1 X136.62 Y144.94 E655.78245
G1 X137.60 Y144.94 E655.81497
G1 X137.60 Y145.83 E655.84423
G1 X139.56 Y145.83 E655.90949
G1 X139.56 Y144.94 E655.93875
G1 X147.35 Y144.94 E656.19703
G1 X147.35 Y145.83 E656.22630
G1 X149.31 Y145.83 E656.29152
G0 F12000 X149.70 Y146.21
G1 F1440 X146.96 Y146.21 E656.38236
G1 X146.96 Y145.33 E656.41162
G1 X139.95 Y145.33 E656.64429
G1 X139.95 Y146.21 E656.67355
G1 X137.21 Y146.21 E656.76443
G1 X137.21 Y145.33 E656.79369
G1 X136.23 Y145.33 E656.82620
G1 X136.23 Y139.75 E657.01133
G1 X150.68 Y139.75 E657.49074
G1 X150.68 Y145.33 E657.67586
G1 X149.70 Y145.33 E657.70838
G1 X149.70 Y146.21 E657.73764
G1 F2400 E656.53764
G0 F12000 X150.30 Y149.27
G1 F2400 E657.73764
G1 F1440 X150.30 Y154.85 E657.92277
G1 X149.32 Y154.85 E657.95525
G1 X149.32 Y155.73 E657.98451
G1 X146.58 Y155.73 E658.07538
G1 X146.58 Y154.85 E658.10464
G1 X139.57 Y154.85 E658.33731
G1 X139.57 Y155.73 E658.36658
G1 X136.83 Y155.73 E658.45745
G1 X136.83 Y154.85 E658.48671
G1 X135.85 Y154.85 E658.51919
G1 X135.85 Y149.27 E658.70432
G1 X150.30 Y149.27 E659.18369
G0 F12000 X149.91 Y149.66
G1 F1440 X136.24 Y149.66 E659.63745
G1 X136.24 Y154.46 E659.79690
G1 X137.22 Y154.46 E659.82942
G1 X137.22 Y155.34 E659.85868
G1 X139.18 Y155.34 E659.92390
G1 X139.18 Y154.46 E659.95317
G1 X146.97 Y154.46 E660.21145
G1 X146.97 Y155.34 E660.24071
G1 X148.94 Y155.34 E660.30597
G1 X148.94 Y154.46 E660.33523
G1 X149.91 Y154.46 E660.36771
G1 X149.91 Y149.66 E660.52716
G1 F2400 E659.32716
G0 F12000 X152.88 Y149.40
G1 F2400 E660.52716
G1 F1440 X167.32 Y149.40 E661.00657
G1 X167.32 Y154.98 E661.19166
G1 X166.34 Y154.98 E661.22418
G1 X166.34 Y155.86 E661.25344
G1 X163.61 Y155.86 E661.34428
G1 X163.61 Y154.98 E661.37354
G1 X156.59 Y154.98 E661.60624
G1 X156.59 Y155.86 E661.63550
G1 X153.85 Y155.86 E661.72634
G1 X153.85 Y154.98 E661.75560
G1 X152.88 Y154.98 E661.78812
G1 X152.88 Y149.40 E661.97321
G0 F12000 X153.26 Y149.78
G1 F1440 X153.26 Y154.59 E662.13269
G1 X154.24 Y154.59 E662.16521
G1 X154.24 Y155.47 E662.19447
G1 X156.21 Y155.47 E662.25970
G1 X156.21 Y154.59 E662.28896
G1 X163.99 Y154.59 E662.54727
G1 X163.99 Y155.47 E662.57654
G1 X165.96 Y155.47 E662.64176
G1 X165.96 Y154.59 E662.67102
G1 X166.94 Y154.59 E662.70354
G1 X166.94 Y149.78 E662.86302
G1 X153.26 Y149.78 E663.31681
G1 F2400 E662.11681
G0 F12000 X149.97 Y159.27
G1 F2400 E663.31681
G1 F1440 X149.97 Y164.85 E663.50194
G1 X149.00 Y164.85 E663.53446
G1 X149.00 Y165.74 E663.56372
G1 X146.26 Y165.74 E663.65456
G1 X146.26 Y164.85 E663.68382
G1 X139.24 Y164.85 E663.91652
G1 X139.24 Y165.74 E663.94578
G1 X136.50 Y165.74 E664.03662
G1 X136.50 Y164.85 E664.06588
G1 X135.53 Y164.85 E664.09840
G1 X135.53 Y159.27 E664.28353
G1 X149.97 Y159.27 E664.76293
G0 F12000 X149.59 Y159.66
G1 F1440 X135.91 Y159.66 E665.21673
G1 X135.91 Y164.47 E665.37624
G1 X136.89 Y164.47 E665.40876
G1 X136.89 Y165.35 E665.43802
G1 X138.86 Y165.35 E665.50324
G1 X138.86 Y164.47 E665.53251
G1 X146.64 Y164.47 E665.79082
G1 X146.64 Y165.35 E665.82008
G1 X148.61 Y165.35 E665.88531
G1 X148.61 Y164.47 E665.91457
G1 X149.59 Y164.47 E665.94709
G1 X149.59 Y159.66 E666.10660
;LAYER:17
G0 F12000 X149.59 Y159.66 Z3.70
;TYPE:WALL-OUTER
G1 F1440 X135.91 Y159.66 E666.56040
G1 X135.91 Y164.47 E666.71991
G1 X136.89 Y164.47 E666.75242
G1 X136.89 Y165.35 E666.78169
G1 X138.86 Y165.35 E666.84691
G1 X138.86 Y164.47 E666.87617
G1 X146.64 Y164.47 E667.13449
G1 X146.64 Y165.35 E667.16375
G1 X148.61 Y165.35 E667.22898
G1 X148.61 Y164.47 E667.25824
G1 X149.59 Y164.47 E667.29075
G1 X149.59 Y159.66 E667.45027
G0 F12000 X149.97 Y159.27
G1 F1440 X149.97 Y164.85 E667.63540
G1 X149.00 Y164.85 E667.66791
G1 X149.00 Y165.74 E667.69717
G1 X146.26 Y165.74 E667.78801
G1 X146.26 Y164.85 E667.81727
G1 X139.24 Y164.85 E668.04998
G1 X139.24 Y165.74 E668.07924
G1 X136.50 Y165.74 E668.17008
G1 X136.50 Y164.85 E668.19934
G1 X135.53 Y164.85 E668.23185
G1 X135.53 Y159.27 E668.41698
G1 X149.97 Y159.27 E668.89639
G1 F2400 E667.69639
G0 F12000 X149.32 Y155.73
G1 F2400 E668.89639
G1 F1440 X146.58 Y155.73 E668.98726
G1 X146.58 Y154.85 E669.01652
G1 X139.57 Y154.85 E669.24919
G1 X139.57 Y155.73 E669.27845
G1 X136.83 Y155.73 E669.36932
G1 X136.83 Y154.85 E669.39859
G1 X135.85 Y154.85 E669.43107
G1 X135.85 Y149.27 E669.61619
G1 X150.30 Y149.27 E670.09557
G1 X150.30 Y154.85 E670.28070
G1 X149.32 Y154.85 E670.31318
G1 X149.32 Y155.73 E670.34244
G0 F12000 X148.94 Y155.34
G1 F1440 X148.94 Y154.46 E670.37170
G1 X149.91 Y154.46 E670.40418
G1 X149.91 Y149.66 E670.56363
G1 X136.24 Y149.66 E671.01739
G1 X136.24 Y154.46 E671.17684
G1 X137.22 Y154.46 E671.20935
G1 X137.22 Y155.34 E671.23862
G1 X139.18 Y155.34 E671.30384
G1 X139.18 Y154.46 E671.33310
G1 X146.97 Y154.46 E671.59139
G1 X146.97 Y155.34 E671.62065
G1 X148.94 Y155.34 E671.68591
G1 F2400 E670.48591
G0 F12000 X152.88 Y154.98
G1 F2400 E671.68591
G1 F1440 X152.88 Y149.40 E671.87100
G1 X167.32 Y149.40 E672.35041
G1 X167.32 Y154.98 E672.53550
G1 X166.34 Y154.98 E672.56802
G1 X166.34 Y155.86 E672.59728
G1 X163.61 Y155.86 E672.68812
G1 X163.61 Y154.98 E672.71738
G1 X156.59 Y154.98 E672.95008
G1 X156.59 Y155.86 E672.97935
G1 X153.85 Y155.86 E673.07018
G1 X153.85 Y154.98 E673.09945
G1 X152.88 Y154.98 E673.13196
G0 F12000 X153.26 Y154.59
G1 F1440 X154.24 Y154.59 E673.16447
G1 X154.24 Y155.47 E673.19374
G1 X156.21 Y155.47 E673.25896
G1 X156.21 Y154.59 E673.28822
G1 X163.99 Y154.59 E673.54654
G1 X163.99 Y155.47 E673.57580
G1 X165.96 Y155.47 E673.64103
G1 X165.96 Y154.59 E673.67029
G1 X166.94 Y154.59 E673.70280
G1 X166.94 Y149.78 E673.86228
G1 X153.26 Y149.78 E674.31608
G1 X153.26 Y154.59 E674.47556
G1 F2400 E673.27556
G0 F12000 X149.70 Y146.21
G1 F2400 E674.47556
G1 F1440 X146.96 Y146.21 E674.56640
G1 X146.96 Y145.33 E674.59566
G1 X139.95 Y145.33 E674.82833
G1 X139.95 Y146.21 E674.85759
G1 X137.21 Y146.21 E674.94847
G1 X137.21 Y145.33 E674.97773
G1 X136.23 Y145.33 E675.01024
G1 X136.23 Y139.75 E675.19537
G1 X150.68 Y139.75 E675.67478
G1 X150.68 Y145.33 E675.85990
G1 X149.70 Y145.33 E675.89242
G1 X149.70 Y146.21 E675.92168
G0 F12000 X149.31 Y145.83
G1 F1440 X149.31 Y144.94 E675.95094
G1 X150.29 Y144.94 E675.98346
G1 X150.29 Y140.14 E676.14297
G1 X136.62 Y140.14 E676.59676
G1 X136.62 Y144.94 E676.75628
G1 X137.60 Y144.94 E676.78879
G1 X137.60 Y145.83 E676.81806
G1 X139.56 Y145.83 E676.88331
G1 X139.56 Y144.94 E676.91258
