;-- START GCODE --
;Sliced for Type A Machines Series 1
;Sliced at: Fri 25-12-2015 10:06:07
;Basic settings: Layer height: 0.2 Walls: 2 Fill: 20
;Print Speed: 120 Support: 0
;Retraction Speed: 40 Retraction Distance: 1.2
;Print time: #P_TIME#
;Filament used: #F_AMNT#m #F_WGHT#g
;Filament cost: #F_COST#
M106 S255	 ;start with the fan on
G21        ;metric values
G90        ;absolute positioning
M106 S255    ;start with the fan on
G28     ;move to endstops
G29		;allows for auto-levelling
G1 X150 Y5  Z15.0 F6000 ;center and move the platform down 15mm
M109 S220 ;Heat To temp
G92 E0                  ;zero the extruded length
G1 F200 E30              ;extrude 30mm of feed stock
G92 E0                  ;zero the extruded length again
G1 X175 Y25  Z0 F6000 ;remove bugger
G1 X220 F6000 ;remove bugger
G1 X150 Y150  Z15 F6000 ;recenter and begin
G1 F6000

;Layer count: 47
;LAYER:0
M106 S255
G0 F6000 X157.89 Y127.87 Z0.30
;TYPE:SKIRT
G1 F2700 X160.19 Y125.08 E0.18016
G1 X160.93 Y124.19 E0.23780
G1 X163.77 Y122.23 E0.41024
G1 X165.04 Y121.34 E0.48750
G1 X168.59 Y120.55 E0.66892
G1 X170.34 Y120.16 E0.75821
G1 X174.07 Y120.99 E0.94899
G1 X175.60 Y121.33 E1.02718
G1 X178.84 Y123.56 E1.22324
G1 X179.77 Y124.22 E1.28035
G1 X182.27 Y127.25 E1.47611
G1 X182.78 Y127.87 E1.51642
G1 X185.01 Y132.03 E1.75166
G1 X186.52 Y136.18 E1.97192
G1 X186.72 Y136.71 E2.00040
G1 X187.89 Y141.67 E2.25471
G1 X188.60 Y146.95 E2.52053
G1 X188.83 Y152.01 E2.77323
G1 X188.85 Y152.47 E2.79631
G1 X188.63 Y157.51 E3.04769
G1 X188.61 Y157.96 E3.07022
G1 X187.92 Y163.12 E3.33018
G1 X186.85 Y167.72 E3.56551
G1 X186.73 Y168.25 E3.59289
G1 X185.26 Y172.32 E3.80866
G1 X185.03 Y172.93 E3.84124
G1 X183.18 Y176.40 E4.03713
G1 X182.77 Y177.13 E4.07917
G1 X180.48 Y179.92 E4.25934
G1 X179.74 Y180.81 E4.31697
G1 X176.90 Y182.77 E4.48941
G1 X175.62 Y183.66 E4.56667
G1 X172.07 Y184.45 E4.74814
G1 X170.33 Y184.84 E4.83743
G1 X166.59 Y184.00 E5.02867
G1 X165.07 Y183.67 E5.10635
G1 X161.83 Y181.44 E5.30241
G1 X160.89 Y180.78 E5.35953
G1 X158.40 Y177.75 E5.55528
G1 X157.88 Y177.13 E5.59560
G1 X155.66 Y172.97 E5.83079
G1 X154.13 Y168.77 E6.05378
G1 X153.95 Y168.29 E6.07964
G1 X152.78 Y163.33 E6.33393
G1 X152.07 Y158.05 E6.59966
G1 X151.84 Y152.95 E6.85416
G1 X151.81 Y152.52 E6.87554
G1 X152.03 Y147.49 E7.12692
G1 X152.06 Y147.04 E7.14940
G1 X152.74 Y141.88 E7.40931
G1 X153.81 Y137.28 E7.64463
G1 X153.94 Y136.75 E7.67210
G1 X155.41 Y132.68 E7.88791
G1 X155.63 Y132.07 E7.92043
G1 X157.49 Y128.60 E8.11632
G1 X157.89 Y127.87 E8.15836
G0 F6000 X158.22 Y128.09
G1 F2700 X160.50 Y125.33 E8.33661
G1 X161.20 Y124.49 E8.39144
G1 X164.00 Y122.56 E8.56116
G1 X165.21 Y121.72 E8.63455
G1 X168.68 Y120.94 E8.81206
G1 X170.34 Y120.57 E8.89690
G1 X173.98 Y121.38 E9.08324
G1 X175.44 Y121.71 E9.15754
G1 X178.61 Y123.89 E9.34968
G1 X179.50 Y124.52 E9.40400
G1 X181.93 Y127.47 E9.59473
G1 X182.45 Y128.09 E9.63539
G1 X184.65 Y132.19 E9.86721
G1 X186.15 Y136.31 E10.08615
G1 X186.34 Y136.83 E10.11341
G1 X187.49 Y141.75 E10.36551
G1 X188.20 Y146.99 E10.62947
G1 X188.43 Y152.03 E10.88137
G1 X188.45 Y152.48 E10.90350
G1 X188.24 Y157.49 E11.15393
G1 X188.21 Y157.92 E11.17556
G1 X187.53 Y163.05 E11.43372
G1 X186.46 Y167.63 E11.66807
G1 X186.34 Y168.14 E11.69427
G1 X184.88 Y172.18 E11.90878
G1 X184.67 Y172.77 E11.93991
G1 X182.83 Y176.21 E12.13439
G1 X182.44 Y176.91 E12.17442
G1 X180.17 Y179.67 E12.35267
G1 X179.47 Y180.51 E12.40750
G1 X176.67 Y182.44 E12.57722
G1 X175.46 Y183.29 E12.65065
G1 X171.99 Y184.06 E12.82819
G1 X170.33 Y184.43 E12.91303
G1 X166.67 Y183.61 E13.09983
G1 X165.23 Y183.29 E13.17363
G1 X162.06 Y181.11 E13.36576
G1 X161.17 Y180.48 E13.42009
G1 X158.71 Y177.50 E13.61308
G1 X158.22 Y176.91 E13.65148
G1 X156.02 Y172.81 E13.88325
G1 X154.50 Y168.64 E14.10481
G1 X154.33 Y168.17 E14.12956
G1 X153.18 Y163.25 E14.38164
G1 X152.46 Y158.01 E14.64551
G1 X152.24 Y152.97 E14.89746
G1 X152.22 Y152.52 E14.91964
G1 X152.43 Y147.51 E15.17008
G1 X152.45 Y147.08 E15.19165
G1 X153.14 Y141.95 E15.44976
G1 X154.20 Y137.37 E15.68410
G1 X154.32 Y136.86 E15.71040
G1 X155.78 Y132.81 E15.92493
G1 X156.00 Y132.23 E15.95601
G1 X157.84 Y128.79 E16.15049
G1 X158.22 Y128.09 E16.19052
G0 F6000 X158.56 Y128.32
G1 F2700 X160.80 Y125.59 E16.36685
G1 X161.47 Y124.79 E16.41886
G1 X164.20 Y122.91 E16.58399
G1 X165.37 Y122.09 E16.65541
G1 X168.76 Y121.33 E16.82897
G1 X170.34 Y120.98 E16.90932
G1 X173.90 Y121.78 E17.09131
G1 X175.27 Y122.08 E17.16169
G1 X178.38 Y124.22 E17.34985
G1 X179.23 Y124.81 E17.40138
G1 X181.62 Y127.72 E17.58951
G1 X182.12 Y128.32 E17.62816
G1 X184.28 Y132.35 E17.85648
G1 X185.77 Y136.46 E18.07418
G1 X185.95 Y136.94 E18.10016
G1 X187.10 Y141.82 E18.35006
G1 X187.80 Y147.03 E18.61216
G1 X188.03 Y152.09 E18.86486
G1 X188.05 Y152.48 E18.88444
G1 X187.84 Y157.47 E19.13387
G1 X187.81 Y157.89 E19.15460
G1 X187.13 Y162.98 E19.41100
G1 X186.07 Y167.54 E19.64433
G1 X185.96 Y168.03 E19.66939
G1 X184.51 Y172.05 E19.88269
G1 X184.30 Y172.60 E19.91234
G1 X182.47 Y176.01 E20.10534
G1 X182.11 Y176.68 E20.14343
G1 X179.86 Y179.41 E20.31976
G1 X179.20 Y180.21 E20.37177
G1 X176.47 Y182.09 E20.53690
G1 X175.30 Y182.91 E20.60839
G1 X171.90 Y183.67 E20.78194
G1 X170.33 Y184.02 E20.86233
G1 X166.77 Y183.22 E21.04423
G1 X165.39 Y182.92 E21.11460
G1 X162.29 Y180.78 E21.30277
G1 X161.44 Y180.19 E21.35430
G1 X159.04 Y177.28 E21.54243
G1 X158.55 Y176.68 E21.58108
G1 X156.39 Y172.65 E21.80935
G1 X154.88 Y168.50 E22.02952
G1 X154.71 Y168.06 E22.05315
G1 X153.57 Y163.18 E22.30303
G1 X152.86 Y157.98 E22.56504
G1 X152.63 Y152.92 E22.81774
G1 X152.62 Y152.52 E22.83742
G1 X152.83 Y147.53 E23.08685
G1 X152.85 Y147.11 E23.10753
G1 X153.53 Y142.02 E23.36388
G1 X154.59 Y137.46 E23.59725
G1 X154.71 Y136.97 E23.62236
G1 X156.16 Y132.95 E23.83563
G1 X156.37 Y132.40 E23.86527
G1 X158.19 Y128.99 E24.05828
G1 X158.56 Y128.32 E24.09637
G0 F6000 X158.89 Y128.54
G1 F2700 X161.11 Y125.84 E24.27075
G1 X161.74 Y125.08 E24.31999
G1 X164.45 Y123.22 E24.48423
G1 X165.53 Y122.46 E24.54994
G1 X168.85 Y121.72 E24.71956
G1 X170.34 Y121.39 E24.79546
G1 X173.81 Y122.17 E24.97300
G1 X175.11 Y122.45 E25.03949
G1 X178.15 Y124.55 E25.22374
G1 X178.95 Y125.11 E25.27247
G1 X181.31 Y127.98 E25.45795
G1 X181.78 Y128.54 E25.49458
G1 X183.91 Y132.52 E25.71946
G1 X185.40 Y136.59 E25.93583
G1 X185.57 Y137.06 E25.96059
G1 X186.71 Y141.89 E26.20829
G1 X187.41 Y147.06 E26.46852
G1 X187.63 Y152.07 E26.71883
G1 X187.65 Y152.48 E26.73911
G1 X187.44 Y157.45 E26.98754
G1 X187.42 Y157.85 E27.00737
G1 X186.74 Y162.91 E27.26195
G1 X185.69 Y167.44 E27.49431
G1 X185.57 Y167.91 E27.51819
G1 X184.13 Y171.91 E27.73021
G1 X183.94 Y172.44 E27.75842
G1 X182.12 Y175.82 E27.95002
G1 X181.78 Y176.46 E27.98613
G1 X179.56 Y179.16 E28.16051
G1 X178.92 Y179.92 E28.20975
G1 X176.21 Y181.78 E28.37398
G1 X175.13 Y182.54 E28.43974
G1 X171.81 Y183.28 E28.60936
G1 X170.33 Y183.61 E28.68526
G1 X166.86 Y182.84 E28.86275
G1 X165.56 Y182.55 E28.92924
G1 X162.52 Y180.45 E29.11349
G1 X161.72 Y179.89 E29.16222
G1 X159.33 Y176.99 E29.34972
G1 X158.88 Y176.46 E29.38433
G1 X156.75 Y172.48 E29.60916
G1 X155.25 Y168.36 E29.82789
G1 X155.10 Y167.94 E29.85040
G1 X153.96 Y163.11 E30.09804
G1 X153.26 Y157.94 E30.35823
G1 X153.03 Y152.90 E30.61003
G1 X153.02 Y152.52 E30.62886
G1 X153.23 Y147.54 E30.87735
G1 X153.25 Y147.15 E30.89713
G1 X153.93 Y142.09 E31.15166
G1 X154.98 Y137.56 E31.38401
G1 X155.09 Y137.09 E31.40799
G1 X156.53 Y133.09 E31.62005
G1 X156.73 Y132.56 E31.64819
G1 X158.54 Y129.18 E31.83979
G1 X158.89 Y128.54 E31.87589
G0 F6000 X159.22 Y128.77
G1 F2700 X161.42 Y126.10 E32.04829
G1 X162.02 Y125.38 E32.09477
G1 X164.65 Y123.56 E32.25459
G1 X165.70 Y122.83 E32.31820
G1 X168.94 Y122.11 E32.48383
G1 X170.34 Y121.80 E32.55528
G1 X173.73 Y122.56 E32.72873
G1 X173.73 Y122.56 E32.72878
G1 X174.95 Y122.83 E32.79102
G1 X177.92 Y124.88 E32.97133
G1 X178.68 Y125.41 E33.01727
G1 X181.01 Y128.24 E33.20012
G1 X181.45 Y128.77 E33.23473
G1 X183.55 Y132.68 E33.45610
G1 X185.04 Y136.78 E33.67344
G1 X185.19 Y137.18 E33.69474
G1 X186.31 Y141.96 E33.94018
G1 X187.01 Y147.10 E34.19860
G1 X187.23 Y152.12 E34.44950
G1 X187.23 Y152.12 E34.44955
G1 X187.25 Y152.48 E34.46749
G1 X187.04 Y157.44 E34.71498
G1 X187.02 Y157.81 E34.73390
G1 X186.35 Y162.84 E34.98668
G1 X185.29 Y167.35 E35.21806
G1 X185.19 Y167.80 E35.24077
G1 X183.76 Y171.77 E35.45157
G1 X183.57 Y172.27 E35.47830
G1 X181.77 Y175.63 E35.66843
G1 X181.44 Y176.23 E35.70258
G1 X179.25 Y178.90 E35.87498
G1 X178.65 Y179.62 E35.92146
G1 X176.01 Y181.44 E36.08128
G1 X174.97 Y182.17 E36.14489
G1 X171.73 Y182.89 E36.31058
G1 X170.33 Y183.20 E36.38202
G1 X166.94 Y182.44 E36.55547
G1 X166.94 Y182.44 E36.55552
G1 X165.72 Y182.17 E36.61772
G1 X162.74 Y180.12 E36.79802
G1 X161.99 Y179.59 E36.84396
G1 X159.64 Y176.73 E37.02869
G1 X159.22 Y176.23 E37.06142
G1 X157.12 Y172.32 E37.28277
G1 X155.63 Y168.23 E37.50003
G1 X155.48 Y167.82 E37.52149
G1 X154.36 Y163.03 E37.76692
G1 X153.66 Y157.90 E38.02524
G1 X153.43 Y152.88 E38.27614
G1 X153.44 Y152.88 E38.27619
G1 X153.42 Y152.52 E38.29423
G1 X153.63 Y147.56 E38.54167
G1 X153.65 Y147.19 E38.56060
G1 X154.32 Y142.16 E38.81332
G1 X155.37 Y137.65 E39.04469
G1 X155.47 Y137.20 E39.06750
G1 X156.91 Y133.23 E39.27827
G1 X157.10 Y132.73 E39.30500
G1 X158.90 Y129.37 E39.49513
G1 X159.22 Y128.77 E39.52928
G0 F6000 X159.56 Y128.99
G1 F2700 X161.73 Y126.35 E39.69973
G1 X162.29 Y125.68 E39.74337
G1 X164.88 Y123.89 E39.90058
G1 X164.88 Y123.89 E39.90063
G1 X165.86 Y123.21 E39.96030
G1 X169.03 Y122.50 E40.12199
G1 X170.34 Y122.21 E40.18899
G1 X173.64 Y122.95 E40.35764
G1 X174.78 Y123.20 E40.41636
G1 X177.69 Y125.21 E40.59272
G1 X178.40 Y125.70 E40.63586
G1 X180.70 Y128.49 E40.81612
G1 X181.12 Y128.99 E40.84868
G1 X183.18 Y132.84 E41.06663
G1 X184.66 Y136.91 E41.28254
G1 X184.80 Y137.29 E41.30271
G1 X185.92 Y142.04 E41.54595
G1 X186.61 Y147.13 E41.80246
G1 X186.83 Y152.11 E42.05117
G1 X186.85 Y152.48 E42.06960
G1 X186.64 Y157.42 E42.31608
G1 X186.62 Y157.78 E42.33411
G1 X185.95 Y162.76 E42.58513
G1 X184.91 Y167.26 E42.81553
G1 X184.81 Y167.68 E42.83706
G1 X183.38 Y171.63 E43.04659
G1 X183.21 Y172.11 E43.07188
G1 X181.42 Y175.44 E43.26057
G1 X181.11 Y176.01 E43.29277
G1 X178.94 Y178.65 E43.46322
G1 X178.38 Y179.32 E43.50686
G1 X175.78 Y181.11 E43.66407
G1 X175.78 Y181.11 E43.66412
G1 X174.80 Y181.79 E43.72378
G1 X171.64 Y182.50 E43.88553
G1 X170.33 Y182.79 E43.95253
G1 X167.03 Y182.05 E44.12112
G1 X165.88 Y181.80 E44.17984
G1 X162.97 Y179.79 E44.35620
G1 X162.26 Y179.30 E44.39934
G1 X159.94 Y176.48 E44.58142
G1 X159.55 Y176.01 E44.61216
G1 X157.49 Y172.16 E44.83005
G1 X156.01 Y168.09 E45.04593
G1 X155.87 Y167.71 E45.06626
G1 X154.75 Y162.96 E45.30948
G1 X154.06 Y157.87 E45.56595
G1 X153.83 Y152.86 E45.81595
G1 X153.82 Y152.52 E45.83313
G1 X154.03 Y147.58 E46.07962
G1 X154.05 Y147.22 E46.09760
G1 X154.71 Y142.24 E46.34857
G1 X155.76 Y137.74 E46.57896
G1 X155.86 Y137.32 E46.60054
G1 X157.28 Y133.37 E46.81014
G1 X157.46 Y132.89 E46.83537
G1 X159.25 Y129.56 E47.02407
G1 X159.56 Y128.99 E47.05626
G0 F6000 X159.89 Y129.22
G1 F2700 X162.04 Y126.61 E47.22476
G1 X162.56 Y125.98 E47.26561
G1 X165.11 Y124.22 E47.42023
G1 X166.03 Y123.58 E47.47595
G1 X169.11 Y122.89 E47.63371
G1 X170.34 Y122.62 E47.69621
G1 X173.56 Y123.34 E47.86081
G1 X173.56 Y123.34 E47.86086
G1 X174.62 Y123.58 E47.91533
G1 X177.47 Y125.54 E48.08775
G1 X178.13 Y126.00 E48.12809
G1 X180.41 Y128.78 E48.30740
G1 X180.78 Y129.22 E48.33623
G1 X182.81 Y133.01 E48.55076
G1 X184.28 Y137.05 E48.76518
G1 X184.28 Y137.05 E48.76523
G1 X184.42 Y137.41 E48.78434
G1 X185.52 Y142.11 E49.02538
G1 X186.21 Y147.17 E49.28003
G1 X186.43 Y152.16 E49.52919
G1 X186.43 Y152.16 E49.52924
G1 X186.45 Y152.48 E49.54552
G1 X186.24 Y157.40 E49.79101
G1 X186.22 Y157.74 E49.80814
G1 X185.56 Y162.69 E50.05734
G1 X184.52 Y167.17 E50.28672
G1 X184.42 Y167.57 E50.30712
G1 X183.01 Y171.50 E50.51544
G1 X182.84 Y171.94 E50.53924
G1 X181.07 Y175.25 E50.72651
G1 X180.78 Y175.78 E50.75672
G1 X178.63 Y178.39 E50.92522
G1 X178.11 Y179.02 E50.96606
G1 X175.56 Y180.78 E51.12068
G1 X174.64 Y181.42 E51.17640
G1 X171.55 Y182.11 E51.33421
G1 X170.33 Y182.38 E51.39677
G1 X167.11 Y181.66 E51.56129
G1 X167.11 Y181.66 E51.56134
G1 X166.04 Y181.43 E51.61581
G1 X163.20 Y179.46 E51.78822
G1 X162.54 Y179.00 E51.82857
G1 X160.25 Y176.22 E52.00788
G1 X159.88 Y175.78 E52.03671
G1 X157.85 Y171.99 E52.25117
G1 X156.38 Y167.95 E52.46560
G1 X156.25 Y167.59 E52.48481
G1 X155.14 Y162.89 E52.72584
G1 X154.46 Y157.83 E52.98044
G1 X154.23 Y152.84 E53.22955
G1 X154.23 Y152.84 E53.22960
G1 X154.22 Y152.52 E53.24593
G1 X154.43 Y147.60 E53.49143
G1 X154.45 Y147.26 E53.50856
G1 X155.11 Y142.31 E53.75771
G1 X156.15 Y137.83 E53.98712
G1 X156.24 Y137.43 E54.00752
G1 X157.66 Y133.50 E54.21585
G1 X157.83 Y133.06 E54.23966
G1 X159.60 Y129.75 E54.42693
G1 X159.89 Y129.22 E54.45714
G0 F6000 X160.22 Y129.44
G1 F2700 X162.34 Y126.86 E54.62372
G1 X162.83 Y126.28 E54.66177
G1 X165.34 Y124.55 E54.81377
G1 X166.19 Y123.95 E54.86555
G1 X169.20 Y123.28 E55.01937
G1 X170.34 Y123.03 E55.07743
G1 X173.47 Y123.73 E55.23754
G1 X174.46 Y123.95 E55.28820
G1 X177.24 Y125.87 E55.45667
G1 X177.86 Y126.30 E55.49419
G1 X180.09 Y129.00 E55.66921
G1 X180.45 Y129.44 E55.69773
G1 X182.45 Y133.17 E55.90872
G1 X183.90 Y137.15 E56.12002
G1 X184.03 Y137.52 E56.13977
G1 X185.13 Y142.18 E56.37859
G1 X185.81 Y147.20 E56.63138
G1 X186.03 Y152.15 E56.87848
G1 X186.05 Y152.48 E56.89507
G1 X185.84 Y157.38 E57.13955
G1 X185.82 Y157.71 E57.15579
G1 X185.16 Y162.62 E57.40323
G1 X184.13 Y167.08 E57.63164
G1 X184.04 Y167.46 E57.65085
G1 X182.63 Y171.36 E57.85791
G1 X182.47 Y171.78 E57.88026
G1 X180.72 Y175.06 E58.06608
G1 X180.44 Y175.56 E58.09432
G1 X178.32 Y178.14 E58.26090
G1 X177.84 Y178.72 E58.29895
G1 X175.31 Y180.47 E58.45228
G1 X174.47 Y181.05 E58.50277
G1 X171.47 Y181.72 E58.65659
G1 X170.33 Y181.97 E58.71465
G1 X167.20 Y181.27 E58.87476
G1 X166.21 Y181.05 E58.92537
G1 X163.43 Y179.13 E59.09384
G1 X162.81 Y178.70 E59.13136
G1 X160.56 Y175.97 E59.30794
G1 X160.22 Y175.56 E59.33490
G1 X158.22 Y171.83 E59.54590
G1 X156.77 Y167.85 E59.75719
G1 X156.77 Y167.85 E59.75724
G1 X156.63 Y167.48 E59.77699
G1 X155.54 Y162.82 E60.01580
G1 X154.86 Y157.80 E60.26859
G1 X154.63 Y152.83 E60.51680
G1 X154.62 Y152.52 E60.53228
G1 X154.83 Y147.62 E60.77682
G1 X154.84 Y147.29 E60.79300
G1 X155.50 Y142.38 E61.04040
G1 X156.54 Y137.92 E61.26879
G1 X156.63 Y137.54 E61.28806
G1 X158.04 Y133.64 E61.49517
G1 X158.19 Y133.22 E61.51748
G1 X159.95 Y129.94 E61.70330
G1 X160.22 Y129.44 E61.73154
G0 F6000 X160.56 Y129.67
G1 F2700 X162.65 Y127.12 E61.89617
G1 X163.10 Y126.58 E61.93145
G1 X165.59 Y124.86 E62.08202
G1 X166.36 Y124.33 E62.12865
G1 X169.29 Y123.67 E62.27849
G1 X170.34 Y123.44 E62.33210
G1 X173.38 Y124.12 E62.48777
G1 X174.30 Y124.32 E62.53453
G1 X177.01 Y126.19 E62.69906
G1 X177.58 Y126.59 E62.73381
G1 X179.78 Y129.26 E62.90621
G1 X180.12 Y129.67 E62.93271
G1 X182.08 Y133.34 E63.14024
G1 X183.52 Y137.29 E63.35021
G1 X183.65 Y137.64 E63.36873
G1 X184.74 Y142.26 E63.60536
G1 X185.41 Y147.24 E63.85628
G1 X185.63 Y152.17 E64.10259
G1 X185.65 Y152.49 E64.11822
G1 X185.44 Y157.36 E64.36176
G1 X185.42 Y157.67 E64.37710
G1 X184.77 Y162.55 E64.62272
G1 X183.74 Y166.99 E64.85015
G1 X183.66 Y167.34 E64.86815
G1 X182.26 Y171.22 E65.07401
G1 X182.11 Y171.61 E65.09488
G1 X180.36 Y174.87 E65.27930
G1 X180.11 Y175.33 E65.30555
G1 X178.01 Y177.88 E65.47019
G1 X177.56 Y178.43 E65.50547
G1 X175.08 Y180.14 E65.65603
G1 X174.31 Y180.67 E65.70266
G1 X171.38 Y181.33 E65.85255
G1 X170.33 Y181.56 E65.90616
G1 X167.28 Y180.88 E66.06183
G1 X166.37 Y180.68 E66.10854
G1 X163.66 Y178.81 E66.27307
G1 X163.09 Y178.41 E66.30782
G1 X160.87 Y175.72 E66.48164
G1 X160.55 Y175.33 E66.50672
G1 X158.59 Y171.66 E66.71425
G1 X157.13 Y167.68 E66.92583
G1 X157.02 Y167.36 E66.94276
G1 X155.93 Y162.74 E67.17937
G1 X155.26 Y157.76 E67.43030
G1 X155.03 Y152.81 E67.67760
G1 X155.02 Y152.51 E67.69229
G1 X155.23 Y147.64 E67.93578
G1 X155.24 Y147.33 E67.95112
G1 X155.90 Y142.45 E68.19670
G1 X156.93 Y138.01 E68.42411
G1 X157.01 Y137.66 E68.44220
G1 X158.41 Y133.78 E68.64806
G1 X158.56 Y133.39 E68.66891
G1 X160.30 Y130.13 E68.85332
G1 X160.56 Y129.67 E68.87958
G0 F6000 X160.89 Y129.89
G1 F2700 X162.96 Y127.37 E69.04227
G1 X163.38 Y126.87 E69.07475
G1 X165.80 Y125.20 E69.22148
G1 X166.52 Y124.70 E69.26538
G1 X169.37 Y124.06 E69.41128
G1 X170.34 Y123.85 E69.46045
G1 X173.29 Y124.51 E69.61166
G1 X174.13 Y124.70 E69.65460
G1 X176.78 Y126.52 E69.81514
G1 X177.31 Y126.89 E69.84710
G1 X179.47 Y129.52 E70.01687
G1 X179.78 Y129.89 E70.04132
G1 X181.72 Y133.50 E70.24541
G1 X183.15 Y137.43 E70.45406
G1 X183.27 Y137.75 E70.47134
G1 X184.34 Y142.33 E70.70577
G1 X185.01 Y147.28 E70.95483
G1 X185.23 Y152.19 E71.20029
G1 X185.25 Y152.49 E71.21502
G1 X185.04 Y157.34 E71.45756
G1 X185.02 Y157.63 E71.47200
G1 X184.38 Y162.48 E71.71586
G1 X183.35 Y166.90 E71.94227
G1 X183.27 Y167.23 E71.95913
G1 X181.88 Y171.08 E72.16374
G1 X181.74 Y171.45 E72.18322
G1 X180.01 Y174.68 E72.36609
G1 X179.78 Y175.11 E72.39042
G1 X177.71 Y177.63 E72.55311
G1 X177.29 Y178.13 E72.58559
G1 X174.87 Y179.80 E72.73233
G1 X174.15 Y180.30 E72.77623
G1 X171.29 Y180.94 E72.92218
G1 X170.33 Y181.15 E72.97134
G1 X167.37 Y180.49 E73.12251
G1 X166.53 Y180.30 E73.16544
G1 X163.88 Y178.48 E73.32599
G1 X163.36 Y178.11 E73.35794
G1 X161.20 Y175.48 E73.52772
G1 X160.88 Y175.11 E73.55216
G1 X158.95 Y171.50 E73.75622
G1 X157.51 Y167.54 E73.96636
G1 X157.40 Y167.25 E73.98221
G1 X156.32 Y162.67 E74.21662
G1 X155.66 Y157.72 E74.46568
G1 X155.43 Y152.79 E74.71209
G1 X155.42 Y152.51 E74.72593
G1 X155.63 Y147.66 E74.96847
G1 X155.64 Y147.37 E74.98286
G1 X156.29 Y142.52 E75.22667
G1 X157.32 Y138.10 E75.45312
G1 X157.40 Y137.77 E75.47004
G1 X158.79 Y133.92 E75.67460
G1 X158.92 Y133.55 E75.69408
G1 X160.65 Y130.32 E75.87695
G1 X160.89 Y129.89 E75.90128
G0 F6000 X161.22 Y130.12
G1 F2700 X163.27 Y127.63 E76.06202
G1 X163.65 Y127.17 E76.09171
G1 X166.04 Y125.52 E76.23679
G1 X166.04 Y125.52 E76.23684
G1 X166.68 Y125.07 E76.27586
G1 X169.46 Y124.45 E76.41782
G1 X170.34 Y124.26 E76.46249
G1 X173.21 Y124.90 E76.60930
G1 X173.97 Y125.07 E76.64835
G1 X176.56 Y126.85 E76.80498
G1 X177.03 Y127.19 E76.83411
G1 X179.16 Y129.77 E77.00126
G1 X179.45 Y130.12 E77.02368
G1 X181.35 Y133.66 E77.22432
G1 X182.77 Y137.57 E77.43173
G1 X182.88 Y137.87 E77.44776
G1 X183.95 Y142.40 E77.67992
G1 X184.61 Y147.31 E77.92717
G1 X184.83 Y152.21 E78.17183
G1 X184.85 Y152.49 E78.18567
G1 X184.64 Y157.32 E78.42721
G1 X184.63 Y157.60 E78.44075
G1 X183.98 Y162.41 E78.68280
G1 X182.96 Y166.81 E78.90823
G1 X182.89 Y167.11 E78.92392
G1 X181.50 Y170.95 E79.12726
G1 X181.38 Y171.28 E79.14529
G1 X179.66 Y174.49 E79.32675
G1 X179.45 Y174.88 E79.34910
G1 X177.40 Y177.37 E79.50984
G1 X177.02 Y177.83 E79.53953
G1 X174.62 Y179.48 E79.68461
G1 X174.62 Y179.48 E79.68466
G1 X173.98 Y179.93 E79.72368
G1 X171.21 Y180.55 E79.86569
G1 X170.33 Y180.74 E79.91041
G1 X167.47 Y180.10 E80.05688
G1 X167.47 Y180.10 E80.05693
G1 X166.70 Y179.93 E80.09623
G1 X164.11 Y178.15 E80.25286
G1 X163.63 Y177.81 E80.28199
G1 X161.49 Y175.21 E80.45031
G1 X161.22 Y174.88 E80.47156
G1 X159.32 Y171.34 E80.67220
G1 X157.89 Y167.41 E80.88091
G1 X157.78 Y167.13 E80.89565
G1 X156.72 Y162.60 E81.12786
G1 X156.05 Y157.69 E81.37505
G1 X155.83 Y152.77 E81.62056
G1 X155.82 Y152.51 E81.63355
G1 X156.03 Y147.68 E81.87509
G1 X156.04 Y147.40 E81.88863
G1 X156.68 Y142.60 E82.13064
G1 X157.71 Y138.19 E82.35611
G1 X157.78 Y137.89 E82.37185
G1 X159.16 Y134.05 E82.57519
G1 X159.29 Y133.72 E82.59317
G1 X161.01 Y130.51 E82.77464
G1 X161.22 Y130.12 E82.79699
G0 F6000 X161.55 Y130.34
G1 F2700 X163.58 Y127.88 E82.95578
G1 X163.92 Y127.47 E82.98263
G1 X166.27 Y125.85 E83.12506
G1 X166.85 Y125.45 E83.16017
G1 X169.55 Y124.84 E83.29820
G1 X170.34 Y124.67 E83.33841
G1 X173.12 Y125.29 E83.48057
G1 X173.81 Y125.44 E83.51594
G1 X176.33 Y127.18 E83.66860
G1 X176.76 Y127.48 E83.69501
G1 X178.85 Y130.03 E83.85947
G1 X178.86 Y130.03 E83.85952
G1 X179.12 Y130.34 E83.87992
G1 X180.98 Y133.83 E84.07710
G1 X182.40 Y137.71 E84.28319
G1 X182.50 Y137.99 E84.29798
G1 X183.55 Y142.47 E84.52794
G1 X184.22 Y147.35 E84.77333
G1 X184.43 Y152.23 E85.01719
G1 X184.45 Y152.49 E85.03008
G1 X184.24 Y157.31 E85.27062
G1 X184.23 Y157.56 E85.28331
G1 X183.59 Y162.33 E85.52355
G1 X182.57 Y166.72 E85.74802
G1 X182.50 Y167.00 E85.76252
G1 X181.13 Y170.81 E85.96462
G1 X181.01 Y171.12 E85.98118
G1 X179.31 Y174.30 E86.16122
G1 X179.11 Y174.66 E86.18158
G1 X177.09 Y177.12 E86.34037
G1 X176.75 Y177.53 E86.36722
G1 X174.40 Y179.15 E86.50965
G1 X173.82 Y179.55 E86.54476
G1 X171.12 Y180.16 E86.68284
G1 X170.33 Y180.33 E86.72305
G1 X167.55 Y179.71 E86.86537
G1 X166.86 Y179.56 E86.90053
G1 X164.34 Y177.82 E87.05319
G1 X163.91 Y177.52 E87.07960
G1 X161.81 Y174.97 E87.24406
G1 X161.81 Y174.97 E87.24411
G1 X161.55 Y174.66 E87.26451
G1 X159.68 Y171.17 E87.46169
G1 X158.26 Y167.27 E87.66896
G1 X158.17 Y167.01 E87.68259
G1 X157.11 Y162.53 E87.91258
G1 X156.45 Y157.65 E88.15793
G1 X156.23 Y152.75 E88.40254
G1 X156.22 Y152.51 E88.41467
G1 X156.43 Y147.69 E88.65522
G1 X156.44 Y147.44 E88.66791
G1 X157.08 Y142.67 E88.90810
G1 X158.10 Y138.28 E89.13261
G1 X158.16 Y138.00 E89.14712
G1 X159.54 Y134.19 E89.34923
G1 X159.65 Y133.88 E89.36579
G1 X161.36 Y130.70 E89.54582
G1 X161.55 Y130.34 E89.56619
G0 F6000 X161.89 Y130.57
G1 F2700 X163.88 Y128.14 E89.72299
G1 X164.19 Y127.77 E89.74708
G1 X166.50 Y126.18 E89.88678
G1 X167.01 Y125.82 E89.91806
G1 X169.63 Y125.23 E90.05215
G1 X170.34 Y125.08 E90.08793
G1 X173.03 Y125.68 E90.22565
G1 X173.65 Y125.82 E90.25713
G1 X176.10 Y127.51 E90.40587
G1 X176.49 Y127.78 E90.42945
G1 X178.55 Y130.28 E90.59136
G1 X178.78 Y130.57 E90.60971
G1 X180.62 Y133.99 E90.80346
G1 X182.02 Y137.85 E91.00826
G1 X182.12 Y138.10 E91.02178
G1 X183.16 Y142.55 E91.24954
G1 X183.82 Y147.38 E91.49306
G1 X184.03 Y152.25 E91.73612
G1 X184.05 Y152.49 E91.74806
G1 X183.84 Y157.29 E91.98765
G1 X183.83 Y157.52 E91.99939
G1 X183.20 Y162.26 E92.23787
G1 X182.18 Y166.62 E92.46136
G1 X182.12 Y166.88 E92.47470
G1 X180.75 Y170.67 E92.67553
G1 X180.65 Y170.96 E92.69064
G1 X178.96 Y174.11 E92.86922
G1 X178.78 Y174.43 E92.88764
G1 X176.78 Y176.86 E93.04445
G1 X176.47 Y177.23 E93.06854
G1 X174.17 Y178.82 E93.20824
G1 X173.65 Y179.18 E93.23956
G1 X171.03 Y179.77 E93.37365
G1 X170.33 Y179.92 E93.40943
G1 X167.63 Y179.32 E93.54730
G1 X167.02 Y179.18 E93.57858
G1 X164.57 Y177.49 E93.72732
G1 X164.18 Y177.22 E93.75090
G1 X162.11 Y174.70 E93.91377
G1 X161.88 Y174.43 E93.93116
G1 X160.05 Y171.01 E94.12486
G1 X158.64 Y167.13 E94.33074
G1 X158.55 Y166.90 E94.34324
G1 X157.51 Y162.45 E94.57099
G1 X156.85 Y157.62 E94.81447
G1 X156.63 Y152.74 E95.05823
G1 X156.62 Y152.51 E95.06957
G1 X156.83 Y147.71 E95.30912
G1 X156.84 Y147.48 E95.32086
G1 X157.47 Y142.74 E95.55933
G1 X158.49 Y138.38 E95.78276
G1 X158.55 Y138.12 E95.79615
G1 X159.91 Y134.33 E95.99704
G1 X160.02 Y134.04 E96.01210
G1 X161.71 Y130.89 E96.19069
G1 X161.89 Y130.57 E96.20911
G0 F6000 X162.22 Y130.79
G1 F2700 X164.19 Y128.39 E96.36397
G1 X164.47 Y128.07 E96.38529
G1 X166.71 Y126.52 E96.52148
G1 X167.18 Y126.19 E96.54971
G1 X169.72 Y125.62 E96.67982
G1 X170.34 Y125.49 E96.71114
G1 X172.94 Y126.07 E96.84442
G1 X173.48 Y126.19 E96.87202
G1 X175.87 Y127.84 E97.01681
G1 X176.21 Y128.08 E97.03760
G1 X178.25 Y130.55 E97.19770
G1 X178.25 Y130.55 E97.19775
G1 X178.45 Y130.79 E97.21330
G1 X180.25 Y134.15 E97.40353
G1 X181.65 Y137.99 E97.60706
G1 X181.73 Y138.22 E97.61931
G1 X182.77 Y142.62 E97.84492
G1 X183.42 Y147.42 E98.08658
G1 X183.63 Y152.27 E98.32879
G1 X183.63 Y152.27 E98.32884
G1 X183.65 Y152.49 E98.33993
G1 X183.44 Y157.27 E98.57847
G1 X183.43 Y157.49 E98.58936
G1 X182.80 Y162.19 E98.82602
G1 X181.79 Y166.53 E99.04850
G1 X181.73 Y166.77 E99.06070
G1 X180.38 Y170.53 E99.26030
G1 X180.28 Y170.79 E99.27394
G1 X178.61 Y173.92 E99.45108
G1 X178.45 Y174.21 E99.46753
G1 X176.47 Y176.61 E99.62239
G1 X176.20 Y176.93 E99.64371
G1 X173.95 Y178.48 E99.77990
G1 X173.49 Y178.81 E99.80813
G1 X170.94 Y179.38 E99.93829
G1 X170.33 Y179.51 E99.96961
G1 X167.72 Y178.93 E100.10284
G1 X167.19 Y178.81 E100.13044
G1 X164.80 Y177.16 E100.27523
G1 X164.45 Y176.92 E100.29602
G1 X162.41 Y174.45 E100.45612
G1 X162.42 Y174.45 E100.45617
G1 X162.22 Y174.21 E100.47172
G1 X160.41 Y170.85 E100.66196
G1 X159.01 Y167.00 E100.86640
G1 X158.93 Y166.78 E100.87780
G1 X157.90 Y162.38 E101.10335
G1 X157.25 Y157.58 E101.34496
G1 X157.03 Y152.73 E101.58722
G1 X157.03 Y152.73 E101.58727
G1 X157.02 Y152.51 E101.59836
G1 X157.23 Y147.73 E101.83690
G1 X157.24 Y147.51 E101.84779
G1 X157.87 Y142.81 E102.08445
G1 X158.88 Y138.47 E102.30692
G1 X158.93 Y138.23 E102.31912
G1 X160.29 Y134.47 E102.51875
G1 X160.38 Y134.21 E102.53238
G1 X162.06 Y131.08 E102.70951
G1 X162.22 Y130.79 E102.72597
G0 F6000 X162.55 Y131.02
G1 F2700 X164.50 Y128.65 E102.87894
G1 X164.74 Y128.36 E102.89743
G1 X166.95 Y126.84 E103.03161
G1 X167.34 Y126.57 E103.05526
G1 X169.81 Y126.01 E103.18144
G1 X170.33 Y125.90 E103.20827
G1 X172.85 Y126.46 E103.33714
G1 X173.32 Y126.56 E103.36085
G1 X175.64 Y128.17 E103.50171
G1 X175.94 Y128.37 E103.51973
G1 X177.94 Y130.81 E103.67706
G1 X178.12 Y131.02 E103.69067
G1 X179.89 Y134.32 E103.87747
G1 X181.27 Y138.13 E104.07967
G1 X181.35 Y138.33 E104.09069
G1 X182.37 Y142.69 E104.31409
G1 X183.02 Y147.46 E104.55389
G1 X183.24 Y152.30 E104.79580
G1 X183.24 Y152.30 E104.79585
G1 X183.25 Y152.49 E104.80549
G1 X183.04 Y157.25 E105.04309
G1 X183.03 Y157.45 E105.05303
G1 X182.41 Y162.12 E105.28793
G1 X181.40 Y166.44 E105.50943
G1 X181.35 Y166.66 E105.52045
G1 X180.00 Y170.40 E105.71879
G1 X179.92 Y170.62 E105.73098
G1 X178.25 Y173.73 E105.90666
G1 X178.12 Y173.98 E105.92115
G1 X176.17 Y176.35 E106.07412
G1 X175.93 Y176.64 E106.09262
G1 X173.72 Y178.16 E106.22680
G1 X173.33 Y178.43 E106.25045
G1 X170.86 Y178.99 E106.37667
G1 X170.33 Y179.10 E106.40351
G1 X167.81 Y178.54 E106.53233
G1 X167.35 Y178.44 E106.55604
G1 X165.02 Y176.83 E106.69689
G1 X164.73 Y176.63 E106.71491
G1 X162.72 Y174.19 E106.87225
G1 X162.55 Y173.98 E106.88585
G1 X160.78 Y170.68 E107.07265
G1 X159.40 Y166.87 E107.27488
G1 X159.32 Y166.66 E107.28594
G1 X158.29 Y162.31 E107.50928
G1 X157.65 Y157.54 E107.74903
G1 X157.43 Y152.70 E107.99099
G1 X157.43 Y152.70 E107.99104
G1 X157.42 Y152.51 E108.00069
G1 X157.63 Y147.75 E108.23828
G1 X157.64 Y147.55 E108.24822
G1 X158.26 Y142.88 E108.48313
G1 X159.26 Y138.56 E108.70461
G1 X159.32 Y138.34 E108.71564
G1 X160.66 Y134.60 E108.91404
G1 X160.75 Y134.38 E108.92618
G1 X162.41 Y131.27 E109.10187
G1 X162.55 Y131.02 E109.11635
G0 F6000 X162.88 Y131.24
G1 F2700 X164.81 Y128.90 E109.26738
G1 X165.01 Y128.66 E109.28307
G1 X167.18 Y127.17 E109.41453
G1 X167.50 Y126.94 E109.43435
G1 X169.90 Y126.40 E109.55658
G1 X170.33 Y126.31 E109.57896
G1 X172.77 Y126.85 E109.70354
G1 X172.77 Y126.85 E109.70359
G1 X173.16 Y126.94 E109.72326
G1 X175.41 Y128.50 E109.86017
G1 X175.66 Y128.67 E109.87536
G1 X177.63 Y131.05 E110.02944
G1 X177.78 Y131.24 E110.04166
G1 X179.52 Y134.48 E110.22504
G1 X180.90 Y138.28 E110.42662
G1 X180.96 Y138.45 E110.43571
G1 X181.98 Y142.76 E110.65686
G1 X182.62 Y147.49 E110.89480
G1 X182.84 Y152.31 E111.13546
G1 X182.84 Y152.49 E111.14465
G1 X182.64 Y157.23 E111.38125
G1 X182.63 Y157.41 E111.39034
G1 X182.01 Y162.04 E111.62343
G1 X181.01 Y166.35 E111.84395
G1 X180.97 Y166.54 E111.85380
G1 X179.63 Y170.26 E112.05093
G1 X179.55 Y170.46 E112.06163
G1 X177.90 Y173.54 E112.23588
G1 X177.78 Y173.76 E112.24839
G1 X175.86 Y176.10 E112.39941
G1 X175.66 Y176.34 E112.41510
G1 X173.49 Y177.83 E112.54656
G1 X173.16 Y178.06 E112.56638
G1 X170.77 Y178.60 E112.68866
G1 X170.33 Y178.69 E112.71104
G1 X167.90 Y178.15 E112.83557
G1 X167.90 Y178.15 E112.83562
G1 X167.51 Y178.06 E112.85529
G1 X165.25 Y176.50 E112.99220
G1 X165.00 Y176.33 E113.00739
G1 X163.03 Y173.94 E113.16200
G1 X162.88 Y173.76 E113.17369
G1 X161.15 Y170.52 E113.35701
G1 X159.77 Y166.72 E113.55860
G1 X159.70 Y166.55 E113.56780
G1 X158.69 Y162.23 E113.78894
G1 X158.05 Y157.51 E114.02683
G1 X157.83 Y152.68 E114.26790
G1 X157.82 Y152.51 E114.27669
G1 X158.03 Y147.77 E114.51329
G1 X158.03 Y147.59 E114.52238
G1 X158.65 Y142.96 E114.75547
G1 X159.65 Y138.65 E114.97598
G1 X159.70 Y138.46 E114.98583
G1 X161.04 Y134.74 E115.18297
G1 X161.12 Y134.54 E115.19367
G1 X162.76 Y131.46 E115.36793
G1 X162.88 Y131.24 E115.38043
G0 F6000 X163.22 Y131.47
G1 F2700 X165.12 Y129.16 E115.52950
G1 X165.28 Y128.96 E115.54240
G1 X167.41 Y127.50 E115.67110
G1 X167.67 Y127.31 E115.68711
G1 X169.98 Y126.80 E115.80541
G1 X170.33 Y126.72 E115.82334
G1 X172.68 Y127.24 E115.94338
G1 X172.68 Y127.24 E115.94343
G1 X172.99 Y127.31 E115.95933
G1 X175.19 Y128.82 E116.09230
G1 X175.39 Y128.97 E116.10470
G1 X177.32 Y131.31 E116.25615
G1 X177.45 Y131.47 E116.26635
G1 X179.15 Y134.65 E116.44621
G1 X180.53 Y138.41 E116.64636
G1 X180.52 Y138.41 E116.64641
G1 X180.58 Y138.57 E116.65446
G1 X181.59 Y142.84 E116.87340
G1 X182.22 Y147.53 E117.10948
G1 X182.44 Y152.34 E117.34964
G1 X182.44 Y152.34 E117.34969
G1 X182.44 Y152.50 E117.35763
G1 X182.24 Y157.21 E117.59328
G1 X182.23 Y157.38 E117.60142
G1 X181.62 Y161.97 E117.83275
G1 X180.62 Y166.26 E118.05225
G1 X180.58 Y166.43 E118.06092
G1 X179.25 Y170.12 E118.25681
G1 X179.19 Y170.29 E118.26608
G1 X177.55 Y173.35 E118.43888
G1 X177.45 Y173.53 E118.44944
G1 X175.55 Y175.84 E118.59852
G1 X175.38 Y176.04 E118.61141
G1 X173.26 Y177.50 E118.74011
G1 X173.00 Y177.69 E118.75613
G1 X170.68 Y178.21 E118.87447
G1 X170.33 Y178.28 E118.89241
G1 X167.99 Y177.76 E119.01239
G1 X167.99 Y177.76 E119.01244
G1 X167.67 Y177.69 E119.02835
G1 X165.48 Y176.18 E119.16131
G1 X165.28 Y176.03 E119.17371
G1 X163.34 Y173.68 E119.32555
G1 X163.22 Y173.53 E119.33536
G1 X161.51 Y170.35 E119.51522
G1 X160.14 Y166.59 E119.71539
G1 X160.14 Y166.59 E119.71544
G1 X160.09 Y166.43 E119.72349
G1 X159.08 Y162.16 E119.94242
G1 X158.45 Y157.47 E120.17849
G1 X158.23 Y152.66 E120.41866
G1 X158.23 Y152.66 E120.41871
G1 X158.22 Y152.50 E120.42670
G1 X158.43 Y147.79 E120.66230
G1 X158.43 Y147.62 E120.67045
G1 X159.05 Y143.03 E120.90177
G1 X160.04 Y138.74 E121.12126
G1 X160.08 Y138.57 E121.12998
G1 X161.42 Y134.88 E121.32584
G1 X161.48 Y134.71 E121.33511
G1 X163.12 Y131.65 E121.50791
G1 X163.22 Y131.47 E121.51847
G0 F6000 X163.55 Y131.69
G1 F2700 X165.43 Y129.41 E121.66560
G1 X165.55 Y129.26 E121.67566
G1 X167.63 Y127.83 E121.80166
G1 X167.83 Y127.69 E121.81384
G1 X170.07 Y127.19 E121.92820
G1 X170.33 Y127.13 E121.94169
G1 X172.60 Y127.63 E122.05733
G1 X172.83 Y127.68 E122.06929
G1 X174.96 Y129.15 E122.19831
G1 X175.12 Y129.26 E122.20792
G1 X177.01 Y131.57 E122.35675
G1 X177.12 Y131.69 E122.36493
G1 X178.79 Y134.81 E122.54135
G1 X180.15 Y138.55 E122.74007
G1 X180.15 Y138.55 E122.74012
G1 X180.20 Y138.68 E122.74705
G1 X181.19 Y142.91 E122.96379
G1 X181.82 Y147.56 E123.19800
G1 X182.04 Y152.35 E123.43707
G1 X182.04 Y152.50 E123.44441
G1 X181.84 Y157.19 E123.67901
G1 X181.84 Y157.34 E123.68630
G1 X181.23 Y161.90 E123.91582
G1 X180.23 Y166.17 E124.13434
G1 X180.20 Y166.31 E124.14183
G1 X178.88 Y169.98 E124.33651
G1 X178.82 Y170.13 E124.34428
G1 X177.20 Y173.16 E124.51568
G1 X177.12 Y173.31 E124.52425
G1 X175.24 Y175.59 E124.67137
G1 X175.11 Y175.74 E124.68144
G1 X173.03 Y177.18 E124.80744
G1 X172.83 Y177.31 E124.81966
G1 X170.60 Y177.81 E124.93402
G1 X170.33 Y177.87 E124.94751
G1 X168.07 Y177.37 E125.06310
G1 X167.84 Y177.32 E125.07506
G1 X165.71 Y175.85 E125.20408
G1 X165.55 Y175.74 E125.21369
G1 X163.65 Y173.43 E125.36284
G1 X163.55 Y173.31 E125.37070
G1 X161.88 Y170.19 E125.54712
G1 X160.52 Y166.45 E125.74586
G1 X160.52 Y166.45 E125.74591
G1 X160.47 Y166.32 E125.75284
G1 X159.48 Y162.09 E125.96956
G1 X158.84 Y157.44 E126.20378
G1 X158.63 Y152.65 E126.44304
G1 X158.62 Y152.50 E126.45019
G1 X158.82 Y147.81 E126.68479
G1 X158.83 Y147.66 E126.69208
G1 X159.44 Y143.10 E126.92160
G1 X160.43 Y138.83 E127.14011
G1 X160.47 Y138.69 E127.14760
G1 X161.79 Y135.02 E127.34230
G1 X161.85 Y134.87 E127.35006
G1 X163.47 Y131.84 E127.52146
G1 X163.55 Y131.69 E127.53003
G0 F6000 X163.88 Y131.92
G1 F2700 X165.73 Y129.67 E127.67521
G1 X165.83 Y129.56 E127.68251
G1 X167.86 Y128.15 E127.80574
G1 X168.00 Y128.06 E127.81413
G1 X170.33 Y127.54 E127.93350
G1 X172.67 Y128.06 E128.05287
G1 X174.73 Y129.48 E128.17790
G1 X174.84 Y129.56 E128.18471
G1 X176.71 Y131.82 E128.33092
G1 X176.78 Y131.92 E128.33708
G1 X178.42 Y134.97 E128.51004
G1 X179.77 Y138.69 E128.70732
G1 X179.81 Y138.80 E128.71312
G1 X180.80 Y142.98 E128.92766
G1 X181.42 Y147.60 E129.16001
G1 X181.64 Y152.37 E129.39822
G1 X181.64 Y152.50 E129.40467
G1 X181.44 Y157.18 E129.63832
G1 X181.44 Y157.31 E129.64471
G1 X180.83 Y161.83 E129.87242
G1 X179.84 Y166.08 E130.08997
G1 X179.81 Y166.20 E130.09628
G1 X178.50 Y169.85 E130.28969
G1 X178.46 Y169.97 E130.29602
G1 X176.85 Y172.97 E130.46597
G1 X176.78 Y173.08 E130.47258
G1 X174.93 Y175.33 E130.61776
G1 X174.84 Y175.44 E130.62505
G1 X172.81 Y176.85 E130.74829
G1 X172.67 Y176.94 E130.75667
G1 X170.33 Y177.46 E130.87609
G1 X168.00 Y176.94 E130.99541
G1 X165.94 Y175.52 E131.12044
G1 X165.82 Y175.44 E131.12725
G1 X163.96 Y173.18 E131.27364
G1 X163.88 Y173.08 E131.27962
G1 X162.25 Y170.03 E131.45254
G1 X160.89 Y166.31 E131.64989
G1 X160.85 Y166.20 E131.65568
G1 X159.87 Y162.02 E131.87021
G1 X159.24 Y157.40 E132.10256
G1 X159.03 Y152.63 E132.34092
G1 X159.02 Y152.50 E132.34722
G1 X159.22 Y147.82 E132.58088
G1 X159.23 Y147.69 E132.58727
G1 X159.84 Y143.17 E132.81498
G1 X160.82 Y138.92 E133.03252
G1 X160.85 Y138.80 E133.03882
G1 X162.17 Y135.15 E133.23225
G1 X162.21 Y135.03 E133.23858
G1 X163.82 Y132.03 E133.40853
G1 X163.88 Y131.92 E133.41514
G0 F6000 X164.22 Y132.14
G1 F2700 X166.04 Y129.92 E133.55837
G1 X166.10 Y129.85 E133.56287
G1 X168.09 Y128.48 E133.68338
G1 X168.09 Y128.48 E133.68343
G1 X168.16 Y128.43 E133.68801
G1 X170.33 Y127.95 E133.79899
G1 X172.50 Y128.43 E133.91002
G1 X174.50 Y129.81 E134.03114
G1 X174.57 Y129.86 E134.03515
G1 X176.40 Y132.08 E134.17873
G1 X176.45 Y132.14 E134.18288
G1 X178.06 Y135.14 E134.35233
G1 X179.40 Y138.82 E134.54812
G1 X179.43 Y138.91 E134.55292
G1 X180.40 Y143.06 E134.76525
G1 X181.02 Y147.63 E134.99573
G1 X181.24 Y152.50 E135.23869
G1 X181.04 Y157.16 E135.47129
G1 X181.04 Y157.27 E135.47679
G1 X180.44 Y161.76 E135.70273
G1 X179.43 Y166.09 E135.92443
G1 X178.12 Y169.71 E136.11662
G1 X178.09 Y169.80 E136.12146
G1 X176.50 Y172.78 E136.28996
G1 X176.45 Y172.86 E136.29463
G1 X174.63 Y175.08 E136.43786
G1 X174.57 Y175.15 E136.44236
G1 X172.58 Y176.52 E136.56286
G1 X172.58 Y176.52 E136.56291
G1 X172.50 Y176.57 E136.56750
G1 X170.33 Y177.05 E136.67853
G1 X168.16 Y176.57 E136.78951
G1 X166.16 Y175.19 E136.91062
G1 X166.10 Y175.14 E136.91464
G1 X164.27 Y172.92 E137.05822
G1 X164.22 Y172.86 E137.06237
G1 X162.61 Y169.86 E137.23182
G1 X161.27 Y166.17 E137.42773
G1 X161.24 Y166.09 E137.43242
G1 X160.26 Y161.94 E137.64474
G1 X159.64 Y157.37 E137.87522
G1 X159.42 Y152.50 E138.11818
G1 X159.62 Y147.84 E138.35079
G1 X159.63 Y147.73 E138.35629
G1 X160.23 Y143.24 E138.58223
G1 X161.24 Y138.91 E138.80392
G1 X162.54 Y135.29 E138.99612
G1 X162.58 Y135.20 E139.00097
G1 X164.17 Y132.22 E139.16946
G1 X164.22 Y132.14 E139.17413
G0 F6000 X167.84 Y134.15
G1 F2700 X167.49 Y135.20 E139.22954
G1 X166.99 Y137.09 E139.32678
G1 X166.57 Y139.22 E139.43516
G1 X166.20 Y141.60 E139.55523
G1 X165.91 Y144.15 E139.68360
G1 X165.71 Y146.85 E139.81851
G1 X165.58 Y149.66 E139.95860
G1 X165.53 Y152.50 E140.10070
G1 X165.58 Y155.34 E140.24251
G1 X165.71 Y158.15 E140.38259
G1 X165.91 Y160.85 E140.51750
G1 X166.20 Y163.40 E140.64588
G1 X166.57 Y165.78 E140.76594
G1 X166.99 Y167.91 E140.87432
G1 X167.49 Y169.80 E140.97147
G1 X167.74 Y170.55 E141.01127
G1 X168.74 Y170.55 E141.06076
G1 X169.46 Y170.91 E141.10099
G1 X169.57 Y171.02 E141.10882
G1 X170.25 Y171.16 E141.14346
G1 X170.86 Y171.23 E141.17419
G1 X171.49 Y170.91 E141.20939
G1 X171.85 Y170.55 E141.23476
G1 X172.92 Y170.55 E141.28834
G1 X173.18 Y169.80 E141.32815
G1 X173.67 Y167.91 E141.42529
G1 X174.10 Y165.78 E141.53367
G1 X174.46 Y163.40 E141.65373
G1 X174.75 Y160.85 E141.78211
G1 X174.75 Y160.85 E141.78216
G1 X174.96 Y158.15 E141.91707
G1 X174.96 Y158.15 E141.91712
G1 X175.09 Y155.34 E142.05720
G1 X175.13 Y152.50 E142.19931
G1 X175.09 Y149.65 E142.34141
G1 X174.96 Y146.85 E142.48120
G1 X174.96 Y146.85 E142.48125
G1 X174.75 Y144.15 E142.61616
G1 X174.75 Y144.15 E142.61621
G1 X174.46 Y141.59 E142.74499
G1 X174.24 Y140.15 E142.81756
G1 X173.12 Y140.15 E142.87344
G1 X173.12 Y138.15 E142.97322
G1 X173.89 Y138.15 E143.01134
G1 X173.67 Y137.09 E143.06542
G1 X173.18 Y135.20 E143.16267
G1 X172.82 Y134.15 E143.21807
G1 X172.01 Y134.15 E143.25859
G1 X171.48 Y133.88 E143.28826
G1 X170.85 Y133.68 E143.32123
G1 X170.25 Y133.74 E143.35156
G1 X169.42 Y133.91 E143.39367
G1 X168.94 Y134.15 E143.42073
G1 X167.84 Y134.15 E143.47516
G0 F6000 X168.13 Y134.55
G1 F2700 X167.87 Y135.32 E143.51592
G1 X167.38 Y137.19 E143.61208
G1 X166.96 Y139.28 E143.71843
G1 X166.60 Y141.66 E143.83849
G1 X166.31 Y144.20 E143.96606
G1 X166.10 Y146.89 E144.10062
G1 X165.98 Y149.66 E144.23881
G1 X165.94 Y152.51 E144.38121
G1 X165.98 Y155.34 E144.52271
G1 X166.10 Y158.11 E144.66090
G1 X166.31 Y160.80 E144.79546
G1 X166.60 Y163.34 E144.92303
G1 X166.96 Y165.71 E145.04264
G1 X167.38 Y167.81 E145.14944
G1 X167.87 Y169.68 E145.24560
G1 X168.03 Y170.15 E145.27064
G1 X168.83 Y170.15 E145.31060
G1 X169.69 Y170.58 E145.35875
G1 X169.76 Y170.66 E145.36383
G1 X170.31 Y170.76 E145.39171
G1 X170.78 Y170.82 E145.41540
G1 X171.25 Y170.58 E145.44155
G1 X171.68 Y170.15 E145.47192
G1 X172.64 Y170.15 E145.51952
G1 X172.80 Y169.68 E145.54455
G1 X173.29 Y167.81 E145.64072
G1 X173.71 Y165.71 E145.74751
G1 X174.07 Y163.34 E145.86713
G1 X174.35 Y160.80 E145.99470
G1 X174.56 Y158.11 E146.12920
G1 X174.69 Y155.34 E146.26744
G1 X174.73 Y152.49 E146.40985
G1 X174.69 Y149.66 E146.55135
G1 X174.56 Y146.87 E146.69054
G1 X174.35 Y144.18 E146.82515
G1 X174.07 Y141.66 E146.95167
G1 X173.90 Y140.55 E147.00753
G1 X172.72 Y140.55 E147.06626
G1 X172.72 Y137.75 E147.20595
G1 X173.40 Y137.75 E147.23972
G1 X173.29 Y137.19 E147.26832
G1 X172.80 Y135.32 E147.36449
G1 X172.54 Y134.55 E147.40524
G1 X171.92 Y134.55 E147.43617
G1 X171.32 Y134.25 E147.46931
G1 X170.81 Y134.08 E147.49633
G1 X170.31 Y134.14 E147.52128
G1 X169.55 Y134.29 E147.55999
G1 X169.03 Y134.55 E147.58902
G1 X168.13 Y134.55 E147.63387
G0 F6000 X168.42 Y134.95
G1 F2700 X168.25 Y135.43 E147.65923
G1 X167.77 Y137.27 E147.75421
G1 X167.36 Y139.34 E147.85928
G1 X167.00 Y141.70 E147.97859
G1 X166.71 Y144.24 E148.10616
G1 X166.50 Y146.89 E148.23842
G1 X166.38 Y149.66 E148.37696
G1 X166.34 Y152.51 E148.51936
G1 X166.38 Y155.33 E148.65967
G1 X166.50 Y158.10 E148.79800
G1 X166.71 Y160.76 E148.93106
G1 X167.00 Y163.30 E149.05863
G1 X167.36 Y165.66 E149.17769
G1 X167.77 Y167.73 E149.28301
G1 X168.25 Y169.57 E149.37799
G1 X168.31 Y169.75 E149.38763
G1 X168.92 Y169.75 E149.41807
G1 X169.93 Y170.25 E149.47418
G1 X169.96 Y170.28 E149.47637
G1 X170.38 Y170.37 E149.49743
G1 X170.71 Y170.41 E149.51445
G1 X171.01 Y170.25 E149.53122
G1 X171.52 Y169.75 E149.56678
G1 X172.35 Y169.75 E149.60839
G1 X172.41 Y169.57 E149.61803
G1 X172.90 Y167.73 E149.71301
G1 X173.31 Y165.66 E149.81834
G1 X173.67 Y163.30 E149.93739
G1 X173.96 Y160.76 E150.06496
G1 X174.16 Y158.10 E150.19787
G1 X174.29 Y155.32 E150.33646
G1 X174.33 Y152.49 E150.47816
G1 X174.29 Y149.66 E150.61907
G1 X174.16 Y146.89 E150.75761
G1 X173.96 Y144.24 E150.88987
G1 X173.67 Y141.70 E151.01744
G1 X173.56 Y140.95 E151.05539
G1 X172.32 Y140.95 E151.11691
G1 X172.32 Y137.35 E151.29651
G1 X172.91 Y137.35 E151.32585
G1 X172.90 Y137.27 E151.32976
G1 X172.41 Y135.43 E151.42474
G1 X172.25 Y134.95 E151.45009
G1 X171.82 Y134.95 E151.47150
G1 X171.18 Y134.63 E151.50760
G1 X170.77 Y134.49 E151.52910
G1 X170.38 Y134.53 E151.54867
G1 X169.68 Y134.67 E151.58408
G1 X169.12 Y134.95 E151.61505
G1 X168.42 Y134.95 E151.65042
G0 F6000 X168.70 Y135.35
G1 F2700 X168.63 Y135.55 E151.66103
G1 X168.16 Y137.35 E151.75384
G1 X167.75 Y139.44 E151.85993
G1 X167.39 Y141.75 E151.97691
G1 X167.11 Y144.24 E152.10173
G1 X166.90 Y146.92 E152.23589
G1 X166.78 Y149.71 E152.37507
G1 X166.74 Y152.50 E152.51408
G1 X166.78 Y155.29 E152.65359
G1 X166.90 Y158.08 E152.79278
G1 X167.11 Y160.75 E152.92634
G1 X167.39 Y163.25 E153.05176
G1 X167.75 Y165.56 E153.16874
G1 X168.16 Y167.65 E153.27483
G1 X168.61 Y169.35 E153.36264
G1 X169.02 Y169.35 E153.38305
G1 X170.15 Y169.91 E153.44590
G1 X170.44 Y169.97 E153.46101
G1 X170.64 Y170.00 E153.47094
G1 X170.78 Y169.93 E153.47864
G1 X171.35 Y169.35 E153.51921
G1 X172.06 Y169.35 E153.55438
G1 X172.50 Y167.65 E153.64220
G1 X172.92 Y165.56 E153.74829
G1 X173.27 Y163.25 E153.86527
G1 X173.56 Y160.75 E153.99079
G1 X173.76 Y158.08 E154.12404
G1 X173.89 Y155.29 E154.26348
G1 X173.93 Y152.50 E154.40294
G1 X173.89 Y149.71 E154.54190
G1 X173.76 Y146.91 E154.68199
G1 X173.56 Y144.24 E154.81530
G1 X173.27 Y141.75 E154.94011
G1 X173.21 Y141.35 E154.96051
G1 X171.92 Y141.35 E155.02481
G1 X171.92 Y136.95 E155.24433
G1 X172.40 Y136.95 E155.26803
G1 X172.03 Y135.55 E155.34016
G1 X171.96 Y135.35 E155.35076
G1 X171.73 Y135.35 E155.36254
G1 X171.02 Y135.00 E155.40214
G1 X170.72 Y134.90 E155.41771
G1 X170.44 Y134.93 E155.43192
G1 X169.81 Y135.05 E155.46382
G1 X169.22 Y135.35 E155.49691
G1 X168.70 Y135.35 E155.52265
G0 F6000 X169.00 Y135.75
G1 F2700 X168.55 Y137.44 E155.60988
G1 X168.14 Y139.51 E155.71511
G1 X167.79 Y141.79 E155.82993
G1 X167.51 Y144.30 E155.95614
G1 X167.30 Y146.98 E156.09030
G1 X167.18 Y149.67 E156.22475
G1 X167.13 Y152.49 E156.36550
G1 X167.18 Y155.31 E156.50611
G1 X167.30 Y158.02 E156.64130
G1 X167.51 Y160.70 E156.77546
G1 X167.79 Y163.21 E156.90168
G1 X168.14 Y165.49 E157.01649
G1 X168.55 Y167.56 E157.12172
G1 X168.92 Y168.95 E157.19360
G1 X169.11 Y168.95 E157.20333
G1 X170.28 Y169.53 E157.26814
G1 X170.50 Y169.58 E157.27934
G1 X170.56 Y169.58 E157.28235
G1 X171.19 Y168.95 E157.32694
G1 X171.75 Y168.95 E157.35498
G1 X172.11 Y167.56 E157.42686
G1 X172.53 Y165.49 E157.53209
G1 X172.88 Y163.21 E157.64690
G1 X173.16 Y160.70 E157.77322
G1 X173.37 Y158.02 E157.90722
G1 X173.49 Y155.31 E158.04257
G1 X173.53 Y152.49 E158.18307
G1 X173.49 Y149.69 E158.32298
G1 X173.37 Y146.98 E158.45832
G1 X173.16 Y144.30 E158.59233
G1 X172.88 Y141.79 E158.71865
G1 X172.87 Y141.75 E158.72041
G1 X171.52 Y141.75 E158.78761
G1 X171.52 Y136.55 E159.04704
G1 X171.88 Y136.55 E159.06485
G1 X171.67 Y135.75 E159.10609
G1 X171.63 Y135.75 E159.10804
G1 X170.87 Y135.37 E159.15088
G1 X170.68 Y135.31 E159.16061
G1 X170.49 Y135.33 E159.17015
G1 X169.94 Y135.44 E159.19797
G1 X169.31 Y135.75 E159.23309
G1 X169.00 Y135.75 E159.24901
G0 F6000 X169.30 Y136.15
G1 F2700 X168.94 Y137.54 E159.32052
G1 X168.54 Y139.56 E159.42356
G1 X168.19 Y141.87 E159.53978
G1 X167.91 Y144.34 E159.66424
G1 X167.70 Y146.96 E159.79495
G1 X167.58 Y149.71 E159.93259
G1 X167.53 Y152.50 E160.07165
G1 X167.58 Y155.29 E160.21071
G1 X167.70 Y158.04 E160.34835
G1 X167.91 Y160.66 E160.47906
G1 X168.19 Y163.13 E160.60352
G1 X168.54 Y165.44 E160.71974
G1 X168.94 Y167.46 E160.82278
G1 X169.23 Y168.56 E160.87950
G1 X170.40 Y169.15 E160.94505
G1 X170.42 Y169.15 E160.94586
G1 X171.02 Y168.55 E160.98834
G1 X171.44 Y168.55 E161.00919
G1 X171.72 Y167.46 E161.06535
G1 X172.13 Y165.44 E161.16839
G1 X172.48 Y163.13 E161.28461
G1 X172.76 Y160.65 E161.40912
G1 X172.96 Y158.05 E161.53963
G1 X173.09 Y155.29 E161.67747
G1 X173.13 Y152.50 E161.81648
G1 X173.09 Y149.71 E161.95549
G1 X172.96 Y146.94 E162.09398
G1 X172.76 Y144.35 E162.22383
G1 X172.51 Y142.15 E162.33403
G1 X171.12 Y142.15 E162.40343
G1 X171.12 Y136.15 E162.70277
G1 X171.36 Y136.15 E162.71475
G1 X171.34 Y136.05 E162.71996
G1 X170.71 Y135.74 E162.75499
G1 X170.64 Y135.71 E162.75878
G1 X170.57 Y135.72 E162.76214
G1 X170.07 Y135.82 E162.78737
G1 X169.41 Y136.15 E162.82447
G1 X169.30 Y136.15 E162.82966
G0 F6000 X169.63 Y136.49
G1 F2700 X169.33 Y137.63 E162.88854
G1 X168.93 Y139.64 E162.99087
G1 X168.59 Y141.89 E163.10457
G1 X168.30 Y144.39 E163.23004
G1 X168.10 Y147.01 E163.36085
G1 X167.98 Y149.70 E163.49559
G1 X167.94 Y152.50 E163.63510
G1 X167.98 Y155.30 E163.77460
G1 X168.10 Y157.99 E163.90935
G1 X168.30 Y160.61 E164.04015
G1 X168.59 Y163.11 E164.16562
G1 X168.93 Y165.36 E164.27932
G1 X169.33 Y167.37 E164.38165
G1 X169.57 Y168.28 E164.42878
G1 X170.34 Y168.67 E164.47157
G1 X170.86 Y168.15 E164.50812
G1 X171.13 Y168.15 E164.52184
G1 X171.34 Y167.37 E164.56206
G1 X171.74 Y165.36 E164.66439
G1 X172.08 Y163.11 E164.77809
G1 X172.36 Y160.61 E164.90366
G1 X172.57 Y158.00 E165.03421
G1 X172.69 Y155.29 E165.16921
G1 X172.73 Y152.50 E165.30861
G1 X172.69 Y149.71 E165.44802
G1 X172.57 Y147.00 E165.58302
G1 X172.36 Y144.39 E165.71357
G1 X172.16 Y142.55 E165.80610
G1 X170.72 Y142.55 E165.87759
G1 X170.72 Y136.19 E166.19490
G1 X170.59 Y136.12 E166.20244
G1 X170.21 Y136.20 E166.22192
G1 X169.63 Y136.49 E166.25400
G0 F6000 X169.97 Y136.76
G1 F2700 X169.72 Y137.72 E166.30329
G1 X169.33 Y139.69 E166.40364
G1 X168.98 Y141.97 E166.51880
G1 X168.70 Y144.41 E166.64115
G1 X168.50 Y147.03 E166.77196
G1 X168.38 Y149.73 E166.90695
G1 X168.34 Y152.49 E167.04477
G1 X168.38 Y155.27 E167.18357
G1 X168.50 Y157.97 E167.31857
G1 X168.70 Y160.59 E167.44937
G1 X168.98 Y163.03 E167.57173
G1 X169.33 Y165.31 E167.68689
G1 X169.72 Y167.28 E167.78724
G1 X169.91 Y168.01 E167.82483
G1 X170.26 Y168.18 E167.84417
G1 X170.69 Y167.75 E167.87458
G1 X170.82 Y167.75 E167.88116
G1 X170.94 Y167.28 E167.90545
G1 X171.34 Y165.31 E168.00580
G1 X171.69 Y163.03 E168.12096
G1 X171.96 Y160.59 E168.24342
G1 X172.17 Y157.98 E168.37392
G1 X172.29 Y155.27 E168.50921
G1 X172.33 Y152.49 E168.64792
G1 X172.29 Y149.73 E168.78564
G1 X172.17 Y147.02 E168.92093
G1 X171.96 Y144.41 E169.05143
G1 X171.80 Y142.95 E169.12484
G1 X170.32 Y142.95 E169.19847
G1 X170.32 Y136.59 E169.51593
G1 X169.97 Y136.76 E169.53556
G0 F6000 X169.92 Y138.75
G1 F2700 X169.72 Y139.79 E169.58802
G1 X169.38 Y142.00 E169.69986
G1 X169.10 Y144.46 E169.82322
G1 X168.90 Y147.04 E169.95252
G1 X168.78 Y149.75 E170.08781
G1 X168.74 Y152.49 E170.22438
G1 X168.78 Y155.25 E170.36204
G1 X168.90 Y157.96 E170.49733
G1 X169.10 Y160.54 E170.62664
G1 X169.38 Y163.00 E170.74999
G1 X169.72 Y165.21 E170.86183
G1 X170.12 Y167.20 E170.96299
G1 X170.23 Y167.65 E170.98584
G1 X170.51 Y167.37 E171.00545
G1 X170.55 Y167.20 E171.01396
G1 X170.95 Y165.21 E171.11512
G1 X171.29 Y163.00 E171.22695
G1 X171.57 Y160.54 E171.35036
G1 X171.77 Y157.93 E171.48096
G1 X171.89 Y155.28 E171.61336
G1 X171.93 Y152.49 E171.75257
G1 X171.89 Y149.72 E171.89068
G1 X171.77 Y147.07 E172.02308
G1 X171.57 Y144.46 E172.15368
G1 X171.44 Y143.35 E172.20936
G1 X169.92 Y143.35 E172.28509
G1 X169.92 Y138.75 E172.51439
G0 F6000 X169.58 Y143.75
G1 F2700 X169.50 Y144.47 E172.55069
G1 X169.30 Y147.09 E172.68170
G1 X169.18 Y149.74 E172.81409
G1 X169.14 Y152.49 E172.95105
G1 X169.18 Y155.26 E173.08922
G1 X169.30 Y157.91 E173.22161
G1 X169.50 Y160.53 E173.35262
G1 X169.77 Y162.92 E173.47271
G1 X170.11 Y165.16 E173.58576
G1 X170.33 Y166.26 E173.64184
G1 X170.55 Y165.16 E173.69790
G1 X170.90 Y162.92 E173.81095
G1 X171.17 Y160.52 E173.93114
G1 X171.37 Y157.91 E174.06190
G1 X171.49 Y155.25 E174.19454
G1 X171.53 Y152.49 E174.33261
G1 X171.49 Y149.75 E174.46947
G1 X171.37 Y147.09 E174.60212
G1 X171.17 Y144.48 E174.73287
G1 X171.08 Y143.75 E174.76927
G1 X169.58 Y143.75 E174.84416
G0 F6000 X169.94 Y144.15
G1 F2700 X169.90 Y144.55 E174.86424
G1 X169.70 Y147.08 E174.99079
G1 X169.58 Y149.77 E175.12499
G1 X169.54 Y152.49 E175.26065
G1 X169.58 Y155.23 E175.39772
G1 X169.70 Y157.92 E175.53191
G1 X169.90 Y160.45 E175.65846
G1 X170.17 Y162.89 E175.78086
G1 X170.33 Y163.96 E175.83482
G1 X170.50 Y162.89 E175.88877
G1 X170.77 Y160.45 E176.01121
G1 X170.97 Y157.92 E176.13752
G1 X171.09 Y155.23 E176.27201
G1 X171.13 Y152.49 E176.40897
G1 X171.09 Y149.77 E176.54454
G1 X170.97 Y147.08 E176.67904
G1 X170.77 Y144.55 E176.80534
G1 X170.73 Y144.15 E176.82547
G1 X169.94 Y144.15 E176.86463
G0 F6000 X163.92 Y143.96
;TYPE:WALL-INNER
G1 F2700 X163.71 Y146.73 E177.00320
G1 X163.58 Y149.59 E177.14613
G1 X163.53 Y152.50 E177.29123
G1 X163.58 Y155.41 E177.43632
G1 X163.71 Y158.27 E177.57926
G1 X163.92 Y161.04 E177.71782
G1 X164.22 Y163.67 E177.84991
G1 X164.59 Y166.12 E177.97381
G1 X165.04 Y168.37 E178.08784
G1 X165.57 Y170.37 E178.19101
G1 X166.14 Y172.05 E178.27963
G1 X165.89 Y171.74 E178.29955
G1 X164.44 Y169.04 E178.45224
G1 X163.16 Y165.51 E178.63977
G1 X162.23 Y161.59 E178.84092
G1 X161.64 Y157.18 E179.06269
G1 X161.43 Y152.52 E179.29562
G1 X161.43 Y152.49 E179.29691
G1 X161.62 Y147.94 E179.52413
G1 X161.62 Y147.91 E179.52568
G1 X162.20 Y143.60 E179.74241
G1 X163.16 Y139.49 E179.95329
G1 X164.41 Y136.02 E180.13691
G1 X165.88 Y133.26 E180.29317
G1 X166.14 Y132.95 E180.31327
G1 X165.57 Y134.63 E180.40189
G1 X165.04 Y136.63 E180.50506
G1 X164.59 Y138.88 E180.61909
G1 X164.22 Y141.33 E180.74299
G1 X163.92 Y143.96 E180.87508
G0 F6000 X167.90 Y132.00
G0 X169.39 Y130.28
G0 X170.33 Y130.02
G0 X171.28 Y130.28
G0 X172.77 Y132.00
G0 X174.45 Y136.90
G0 X176.45 Y141.33
G1 F2700 X176.07 Y138.88 E180.99898
G1 X175.62 Y136.63 E181.11300
G1 X175.10 Y134.63 E181.21617
G1 X174.53 Y132.95 E181.30479
G1 X174.78 Y133.26 E181.32471
G1 X176.22 Y135.96 E181.47723
G1 X177.51 Y139.49 E181.66491
G1 X178.43 Y143.41 E181.86607
G1 X179.03 Y147.82 E182.08785
G1 X179.24 Y152.48 E182.32077
G1 X179.24 Y152.51 E182.32207
G1 X179.05 Y157.06 E182.54928
G1 X178.47 Y161.40 E182.76756
G1 X177.51 Y165.52 E182.97861
G1 X176.26 Y168.97 E183.16194
G1 X174.78 Y171.74 E183.31832
G1 X174.53 Y172.05 E183.33842
G1 X175.10 Y170.37 E183.42704
G1 X175.62 Y168.37 E183.53021
G1 X176.07 Y166.12 E183.64423
G1 X176.45 Y163.67 E183.76813
G1 X176.74 Y161.04 E183.90027
G1 X176.96 Y158.27 E184.03878
G1 X177.09 Y155.41 E184.18167
G1 X177.13 Y152.50 E184.32681
G1 X177.09 Y149.59 E184.47196
G1 X176.96 Y146.73 E184.61485
G1 X176.74 Y143.96 E184.75336
G1 X176.45 Y141.33 E184.88550
G0 F6000 X176.05 Y141.38
G1 F2700 X175.68 Y138.94 E185.00854
G1 X175.23 Y136.72 E185.12159
G1 X174.72 Y134.75 E185.22337
G1 X174.13 Y133.04 E185.31348
G1 X173.47 Y131.61 E185.39229
G1 X172.75 Y130.55 E185.45601
G1 X173.47 Y131.04 E185.49956
G1 X175.12 Y133.04 E185.62847
G1 X176.59 Y135.79 E185.78407
G1 X177.90 Y139.38 E185.97466
G1 X178.83 Y143.35 E186.17838
G1 X179.43 Y147.77 E186.40086
G1 X179.64 Y152.47 E186.63528
G1 X179.64 Y152.50 E186.63688
G1 X179.44 Y157.09 E186.86619
G1 X179.44 Y157.12 E186.86754
G1 X178.86 Y161.47 E187.08658
G1 X177.90 Y165.62 E187.29911
G1 X176.63 Y169.14 E187.48607
G1 X175.12 Y171.96 E187.64546
G1 X173.47 Y173.96 E187.77444
G1 X172.76 Y174.45 E187.81805
G1 X173.47 Y173.39 E187.88174
G1 X174.13 Y171.96 E187.96056
G1 X174.72 Y170.25 E188.05066
G1 X175.23 Y168.28 E188.15244
G1 X175.68 Y166.06 E188.26550
G1 X176.05 Y163.62 E188.38854
G1 X176.34 Y161.00 E188.51988
G1 X176.56 Y158.25 E188.65779
G1 X176.69 Y155.40 E188.80007
G1 X176.73 Y152.50 E188.94457
G1 X176.69 Y149.60 E189.08907
G1 X176.56 Y146.75 E189.23136
G1 X176.34 Y144.00 E189.36927
G1 X176.05 Y141.38 E189.50061
G0 F6000 X172.77 Y132.00
G0 X171.28 Y130.28
G0 X170.33 Y130.02
G0 X169.39 Y130.28
G0 X167.90 Y132.00
G0 X166.22 Y136.90
G0 X164.99 Y138.94
G1 F2700 X164.62 Y141.38 E189.62365
G1 X164.32 Y144.00 E189.75499
G1 X164.11 Y146.75 E189.89290
G1 X163.98 Y149.60 E190.03518
G1 X163.94 Y152.50 E190.17968
G1 X163.98 Y155.40 E190.32418
G1 X164.11 Y158.25 E190.46646
G1 X164.32 Y161.00 E190.60438
G1 X164.62 Y163.62 E190.73572
G1 X164.99 Y166.06 E190.85876
G1 X165.43 Y168.28 E190.97182
G1 X165.95 Y170.25 E191.07360
G1 X166.53 Y171.96 E191.16370
G1 X167.20 Y173.39 E191.24251
G1 X167.91 Y174.45 E191.30623
G1 X167.19 Y173.96 E191.34978
G1 X165.55 Y171.96 E191.47880
G1 X164.08 Y169.21 E191.63429
G1 X162.77 Y165.62 E191.82489
G1 X161.84 Y161.65 E192.02861
G1 X161.24 Y157.23 E192.25108
G1 X161.03 Y152.53 E192.48551
G1 X161.02 Y152.50 E192.48711
G1 X161.22 Y147.91 E192.71642
G1 X161.22 Y147.88 E192.71777
G1 X161.81 Y143.53 E192.93681
G1 X162.77 Y139.38 E193.14933
G1 X164.04 Y135.86 E193.33631
G1 X165.55 Y133.04 E193.49570
G1 X167.19 Y131.04 E193.62468
G1 X167.91 Y130.55 E193.66828
G1 X167.20 Y131.61 E193.73198
G1 X166.53 Y133.04 E193.81079
G1 X165.95 Y134.75 E193.90090
G1 X165.43 Y136.72 E194.00268
G1 X164.99 Y138.94 E194.11573
G0 F6000 X165.38 Y139.01
G1 F2700 X165.01 Y141.44 E194.23797
G1 X164.72 Y144.04 E194.36855
G1 X164.51 Y146.78 E194.50581
G1 X164.38 Y149.62 E194.64745
G1 X164.34 Y152.50 E194.79135
G1 X164.38 Y155.38 E194.93525
G1 X164.51 Y158.22 E195.07688
G1 X164.72 Y160.96 E195.21414
G1 X165.01 Y163.56 E195.34473
G1 X165.38 Y165.99 E195.46696
G1 X165.82 Y168.19 E195.57896
G1 X166.33 Y170.14 E195.67945
G1 X166.91 Y171.81 E195.76776
G1 X167.55 Y173.20 E195.84392
G1 X168.28 Y174.29 E195.90973
G1 X169.19 Y175.08 E195.96977
G1 X170.33 Y175.41 E196.02899
G1 X171.47 Y175.08 E196.08825
G1 X172.38 Y174.29 E196.14830
G1 X173.12 Y173.20 E196.21411
G1 X173.76 Y171.81 E196.29027
G1 X174.33 Y170.14 E196.37857
G1 X174.84 Y168.19 E196.47907
G1 X175.28 Y165.99 E196.59106
G1 X175.65 Y163.56 E196.71330
G1 X175.95 Y160.96 E196.84388
G1 X176.16 Y158.22 E196.98114
G1 X176.29 Y155.38 E197.12278
G1 X176.33 Y152.50 E197.26668
G1 X176.29 Y149.62 E197.41058
G1 X176.16 Y146.78 E197.55221
G1 X175.95 Y144.04 E197.68947
G1 X175.65 Y141.44 E197.82006
G1 X175.28 Y139.01 E197.94229
G1 X174.84 Y136.81 E198.05428
G1 X174.33 Y134.86 E198.15478
G1 X173.76 Y133.19 E198.24308
G1 X173.12 Y131.80 E198.31924
G1 X172.38 Y130.71 E198.38505
G1 X171.47 Y129.92 E198.44510
G1 X170.33 Y129.59 E198.50436
G1 X169.19 Y129.92 E198.56358
G1 X168.28 Y130.71 E198.62363
G1 X167.55 Y131.80 E198.68944
G1 X166.91 Y133.19 E198.76560
G1 X166.33 Y134.86 E198.85390
G1 X165.82 Y136.81 E198.95440
G1 X165.38 Y139.01 E199.06639
G0 F6000 X162.38 Y139.29
G1 F2700 X163.67 Y135.70 E199.25684
G1 X165.22 Y132.82 E199.41997
G1 X166.92 Y130.75 E199.55353
G1 X168.65 Y129.55 E199.65880
G1 X170.33 Y129.18 E199.74468
G1 X172.02 Y129.55 E199.83071
G1 X173.75 Y130.75 E199.93576
G1 X175.45 Y132.82 E200.06945
G1 X176.96 Y135.62 E200.22822
G1 X178.27 Y139.24 E200.42023
G1 X179.22 Y143.27 E200.62692
G1 X179.83 Y147.74 E200.85206
G1 X180.04 Y152.45 E201.08693
G1 X180.04 Y152.50 E201.08963
G1 X179.84 Y157.10 E201.31934
G1 X179.84 Y157.16 E201.32254
G1 X179.26 Y161.54 E201.54264
G1 X178.29 Y165.71 E201.75635
G1 X177.00 Y169.30 E201.94678
G1 X175.45 Y172.18 E202.10991
G1 X173.75 Y174.25 E202.24347
G1 X172.01 Y175.45 E202.34874
G1 X170.33 Y175.82 E202.43467
G1 X168.65 Y175.45 E202.52060
G1 X166.92 Y174.25 E202.62569
G1 X165.22 Y172.18 E202.75939
G1 X163.71 Y169.38 E202.91815
G1 X162.40 Y165.76 E203.11018
G1 X161.44 Y161.72 E203.31730
G1 X160.84 Y157.26 E203.54200
G1 X160.63 Y152.55 E203.77687
G1 X160.62 Y152.49 E203.77987
G1 X160.82 Y147.90 E204.00928
G1 X160.83 Y147.84 E204.01248
G1 X161.41 Y143.46 E204.23263
G1 X162.38 Y139.29 E204.44628
G0 F6000 X161.99 Y139.20
G1 F2700 X163.29 Y135.57 E204.63868
G1 X164.87 Y132.61 E204.80623
G1 X164.88 Y132.59 E204.80708
G1 X166.64 Y130.45 E204.94527
G1 X168.49 Y129.18 E205.05714
G1 X170.33 Y128.77 E205.15147
G1 X172.18 Y129.18 E205.24584
G1 X174.02 Y130.45 E205.35761
G1 X175.78 Y132.59 E205.49573
G1 X177.32 Y135.46 E205.65836
G1 X178.65 Y139.10 E205.85155
G1 X179.62 Y143.20 E206.06150
G1 X180.23 Y147.72 E206.28911
G1 X180.44 Y152.43 E206.52433
G1 X180.44 Y152.50 E206.52798
G1 X180.24 Y157.12 E206.75864
G1 X180.24 Y157.19 E206.76218
G1 X179.65 Y161.62 E206.98511
G1 X178.68 Y165.80 E207.19933
G1 X177.37 Y169.43 E207.39171
G1 X175.79 Y172.39 E207.55926
G1 X175.78 Y172.41 E207.56011
G1 X174.03 Y174.55 E207.69831
G1 X172.18 Y175.82 E207.81018
G1 X170.33 Y176.23 E207.90455
G1 X168.49 Y175.82 E207.99888
G1 X166.64 Y174.55 E208.11064
G1 X164.88 Y172.41 E208.24877
G1 X163.34 Y169.54 E208.41144
G1 X162.02 Y165.90 E208.60460
G1 X161.05 Y161.80 E208.81453
G1 X160.44 Y157.28 E209.04215
G1 X160.23 Y152.57 E209.27737
G1 X160.22 Y152.50 E209.28122
G1 X160.42 Y147.88 E209.51168
G1 X160.43 Y147.81 E209.51523
G1 X161.02 Y143.38 E209.73815
G1 X161.99 Y139.20 E209.95236
G0 F6000 X165.78 Y139.08
G1 F2700 X165.41 Y141.49 E210.07369
G1 X165.12 Y144.07 E210.20357
G1 X164.91 Y146.80 E210.34013
G1 X164.78 Y149.63 E210.48117
G1 X164.74 Y152.50 E210.62447
G1 X164.78 Y155.37 E210.76777
G1 X164.91 Y158.20 E210.90880
G1 X165.12 Y160.93 E211.04537
G1 X165.41 Y163.51 E211.17525
G1 X165.78 Y165.92 E211.29657
G1 X166.21 Y168.10 E211.40755
G1 X166.72 Y170.02 E211.50675
G1 X167.28 Y171.66 E211.59325
G1 X167.90 Y173.00 E211.66680
G1 X168.59 Y174.02 E211.72838
G1 X169.39 Y174.72 E211.78139
G1 X170.33 Y174.99 E211.83043
G1 X171.28 Y174.72 E211.87953
G1 X172.08 Y174.02 E211.93254
G1 X172.77 Y173.00 E211.99411
G1 X173.39 Y171.66 E212.06766
G1 X173.95 Y170.02 E212.15417
G1 X174.45 Y168.10 E212.25337
G1 X174.89 Y165.92 E212.36434
G1 X175.26 Y163.51 E212.48567
G1 X175.55 Y160.93 E212.61555
G1 X175.76 Y158.20 E212.75211
G1 X175.89 Y155.37 E212.89315
G1 X175.93 Y152.50 E213.03645
G1 X175.89 Y149.63 E213.17975
G1 X175.76 Y146.80 E213.32078
G1 X175.55 Y144.07 E213.45735
G1 X175.26 Y141.49 E213.58723
G1 X174.89 Y139.08 E213.70855
G1 X174.45 Y136.90 E213.81952
G1 X173.95 Y134.98 E213.91873
G1 X173.39 Y133.34 E214.00523
G1 X172.77 Y132.00 E214.07878
G1 X172.08 Y130.98 E214.14035
G1 X171.28 Y130.28 E214.19337
G1 X170.33 Y130.01 E214.24246
G1 X169.39 Y130.28 E214.29151
G1 X168.59 Y130.98 E214.34452
G1 X167.90 Y132.00 E214.40609
G1 X167.28 Y133.34 E214.47964
G1 X166.72 Y134.98 E214.56615
G1 X166.21 Y136.90 E214.66535
G1 X165.78 Y139.08 E214.77632
G0 F6000 X166.17 Y139.15
;TYPE:WALL-OUTER
G1 F2700 X165.81 Y141.54 E214.89683
G1 X165.52 Y144.11 E215.02597
G1 X165.31 Y146.83 E215.16188
G1 X165.18 Y149.64 E215.30226
G1 X165.13 Y152.50 E215.44497
G1 X165.18 Y155.36 E215.58767
G1 X165.31 Y158.17 E215.72805
G1 X165.52 Y160.89 E215.86397
G1 X165.81 Y163.46 E215.99310
G1 X166.17 Y165.85 E216.11361
G1 X166.60 Y168.01 E216.22352
G1 X167.10 Y169.91 E216.32143
G1 X167.65 Y171.51 E216.40615
G1 X168.25 Y172.80 E216.47704
G1 X168.89 Y173.76 E216.53444
G1 X169.58 Y174.36 E216.58034
G1 X170.33 Y174.57 E216.61926
G1 X171.08 Y174.36 E216.65823
G1 X171.78 Y173.76 E216.70414
G1 X172.42 Y172.80 E216.76153
G1 X173.02 Y171.51 E216.83242
G1 X173.57 Y169.91 E216.91715
G1 X174.06 Y168.01 E217.01505
G1 X174.50 Y165.85 E217.12496
G1 X174.86 Y163.46 E217.24547
G1 X175.15 Y160.89 E217.37461
G1 X175.36 Y158.17 E217.51052
G1 X175.49 Y155.36 E217.65090
G1 X175.53 Y152.50 E217.79360
G1 X175.49 Y149.64 E217.93631
G1 X175.36 Y146.83 E218.07669
G1 X175.15 Y144.11 E218.21260
G1 X174.86 Y141.54 E218.34173
G1 X174.50 Y139.15 E218.46225
G1 X174.06 Y136.99 E218.57215
G1 X173.57 Y135.09 E218.67006
G1 X173.02 Y133.49 E218.75478
G1 X172.42 Y132.20 E218.82568
G1 X171.78 Y131.24 E218.88307
G1 X171.08 Y130.64 E218.92897
G1 X170.33 Y130.43 E218.96795
G1 X169.58 Y130.64 E219.00687
G1 X168.89 Y131.24 E219.05277
G1 X168.25 Y132.20 E219.11017
G1 X167.65 Y133.49 E219.18106
G1 X167.10 Y135.09 E219.26578
G1 X166.60 Y136.99 E219.36369
G1 X166.17 Y139.15 E219.47360
G0 F6000 X165.88 Y139.11
G0 X161.91 Y139.11
G0 X161.62 Y139.03
G1 F2700 X162.92 Y135.43 E219.66436
G1 X162.94 Y135.36 E219.66793
G1 X164.52 Y132.41 E219.83484
G1 X164.55 Y132.37 E219.83757
G1 X166.35 Y130.18 E219.97884
G1 X166.37 Y130.15 E219.98054
G1 X168.31 Y128.81 E220.09839
G1 X168.33 Y128.81 E220.09904
G1 X170.33 Y128.36 E220.20165
G1 X172.34 Y128.80 E220.30424
G1 X174.28 Y130.14 E220.42152
G1 X174.30 Y130.15 E220.42276
G1 X176.09 Y132.33 E220.56369
G1 X176.12 Y132.37 E220.56596
G1 X177.69 Y135.30 E220.73168
G1 X179.02 Y138.96 E220.92630
G1 X179.04 Y139.03 E220.92966
G1 X180.01 Y143.14 E221.14045
G1 X180.62 Y147.66 E221.36817
G1 X180.84 Y152.50 E221.60978
G1 X180.64 Y157.14 E221.84144
G1 X180.64 Y157.24 E221.84639
G1 X180.05 Y161.68 E222.06976
G1 X179.04 Y165.97 E222.28988
G1 X177.75 Y169.57 E222.48063
G1 X177.72 Y169.64 E222.48419
G1 X176.14 Y172.59 E222.65111
G1 X176.12 Y172.63 E222.65383
G1 X174.32 Y174.82 E222.79510
G1 X174.30 Y174.85 E222.79680
G1 X172.35 Y176.19 E222.91466
G1 X172.34 Y176.19 E222.91531
G1 X170.33 Y176.64 E223.01796
G1 X168.33 Y176.20 E223.12050
G1 X166.39 Y174.86 E223.23779
G1 X166.37 Y174.85 E223.23902
G1 X164.58 Y172.67 E223.37995
G1 X164.55 Y172.63 E223.38222
G1 X162.98 Y169.70 E223.54795
G1 X161.65 Y166.04 E223.74258
G1 X161.62 Y165.97 E223.74594
G1 X160.66 Y161.86 E223.95672
G1 X160.04 Y157.33 E224.18469
G1 X159.82 Y152.50 E224.42605
G1 X160.02 Y147.86 E224.65771
G1 X160.03 Y147.76 E224.66276
G1 X160.62 Y143.32 E224.88603
G1 X161.62 Y139.03 E225.10614
G0 F6000 X161.91 Y139.11
G0 X163.36 Y139.32
;TYPE:FILL
G1 F2700 X164.25 Y140.21 E225.16869
G0 F6000 X164.17 Y140.70
G1 F2700 X163.23 Y139.76 E225.23494
G0 F6000 X163.13 Y140.22
G1 F2700 X164.10 Y141.19 E225.30341
G0 F6000 X164.04 Y141.69
G1 F2700 X163.02 Y140.68 E225.37520
G0 F6000 X162.91 Y141.13
G1 F2700 X163.98 Y142.20 E225.45048
G0 F6000 X163.92 Y142.71
G1 F2700 X162.81 Y141.59 E225.52929
G0 F6000 X162.70 Y142.05
G1 F2700 X163.87 Y143.22 E225.61156
G0 F6000 X163.81 Y143.73
G1 F2700 X162.59 Y142.51 E225.69729
G0 F6000 X162.49 Y142.97
G1 F2700 X163.76 Y144.25 E225.78717
G0 F6000 X163.72 Y144.77
G1 F2700 X162.38 Y143.43 E225.88172
G0 F6000 X162.30 Y143.91
G1 F2700 X163.68 Y145.29 E225.97930
G0 F6000 X163.64 Y145.82
G1 F2700 X162.23 Y144.41 E226.07864
G0 F6000 X162.16 Y144.91
G1 F2700 X163.60 Y146.34 E226.17975
G0 F6000 X163.56 Y146.87
G1 F2700 X162.10 Y145.41 E226.28300
G0 F6000 X162.03 Y145.91
G1 F2700 X163.54 Y147.41 E226.38926
G0 F6000 X163.51 Y147.96
G1 F2700 X161.96 Y146.41 E226.49848
G0 F6000 X161.90 Y146.91
G1 F2700 X163.49 Y148.50 E226.61073
G0 F6000 X163.46 Y149.04
G1 F2700 X161.83 Y147.41 E226.72595
G0 F6000 X161.76 Y147.90
G1 F2700 X163.44 Y149.58 E226.84413
G0 F6000 X163.43 Y150.14
G1 F2700 X161.74 Y148.44 E226.96347
G0 F6000 X161.72 Y148.99
G1 F2700 X163.42 Y150.69 E227.08384
G0 F6000 X163.41 Y151.25
G1 F2700 X161.69 Y149.53 E227.20534
G0 F6000 X161.67 Y150.07
G1 F2700 X163.41 Y151.81 E227.32786
G0 F6000 X163.40 Y152.37
G1 F2700 X161.65 Y150.61 E227.45140
G0 F6000 X161.62 Y151.16
G1 F2700 X163.40 Y152.94 E227.57699
G0 F6000 X163.41 Y153.51
G1 F2700 X161.60 Y151.70 E227.70487
G0 F6000 X161.57 Y152.24
G1 F2700 X163.42 Y154.08 E227.83497
G0 F6000 X163.43 Y154.66
G1 F2700 X161.58 Y152.81 E227.96543
G0 F6000 X161.60 Y153.40
G1 F2700 X163.44 Y155.23 E228.09458
G0 F6000 X163.46 Y155.82
G1 F2700 X161.63 Y154.00 E228.22335
G0 F6000 X161.66 Y154.59
G1 F2700 X163.48 Y156.41 E228.35215
G0 F6000 X163.51 Y157.00
G1 F2700 X161.68 Y155.18 E228.48091
G0 F6000 X161.71 Y155.77
G1 F2700 X163.54 Y157.60 E228.60967
G0 F6000 X163.56 Y158.19
G1 F2700 X161.74 Y156.36 E228.73844
G0 F6000 X161.76 Y156.96
G1 F2700 X163.61 Y158.80 E228.86844
G0 F6000 X163.66 Y159.41
G1 F2700 X161.83 Y157.59 E228.99716
G0 F6000 X161.92 Y158.24
G1 F2700 X163.70 Y160.03 E229.12303
G0 F6000 X163.75 Y160.64
G1 F2700 X162.01 Y158.90 E229.24608
G0 F6000 X162.10 Y159.55
G1 F2700 X163.81 Y161.26 E229.36677
G0 F6000 X163.88 Y161.90
G1 F2700 X162.19 Y160.21 E229.48629
G0 F6000 X162.28 Y160.86
G1 F2700 X163.95 Y162.54 E229.60454
G0 F6000 X164.02 Y163.18
G1 F2700 X162.36 Y161.51 E229.72170
G0 F6000 X162.53 Y162.25
G1 F2700 X164.10 Y163.82 E229.83233
G0 F6000 X164.20 Y164.49
G1 F2700 X162.71 Y162.99 E229.93795
G0 F6000 X162.88 Y163.73
G1 F2700 X164.31 Y165.15 E230.03853
G0 F6000 X164.41 Y165.82
G1 F2700 X163.05 Y164.47 E230.13409
G0 F6000 X163.23 Y165.21
G1 F2700 X164.53 Y166.51 E230.22603
G0 F6000 X164.67 Y167.22
G1 F2700 X163.50 Y166.04 E230.30886
G0 F6000 X163.82 Y166.93
G1 F2700 X164.81 Y167.92 E230.37871
G0 F6000 X164.15 Y167.82
G1 F2700 X164.97 Y168.65 E230.43706
G0 F6000 X164.47 Y168.71
G1 F2700 X165.17 Y169.41 E230.48662
G0 F6000 X165.02 Y169.83
G1 F2700 X165.37 Y170.18 E230.51142
G0 F6000 X169.39 Y174.72
G0 X170.33 Y174.98
G0 X171.28 Y174.72
G0 X172.77 Y173.00
G0 X175.35 Y169.97
G1 F2700 X175.59 Y169.93 E230.52150
G1 X175.68 Y169.45 E230.53724
G1 X175.64 Y168.85 E230.55864
G1 X176.16 Y168.81 E230.58572
G1 X175.85 Y167.93 E230.61675
G1 X176.47 Y167.99 E230.65172
G1 X175.99 Y167.22 E230.69649
G0 F6000 X176.09 Y166.75
G1 F2700 X176.69 Y167.36 E230.73938
G0 F6000 X176.84 Y166.94
G1 F2700 X176.18 Y166.28 E230.78616
G0 F6000 X176.26 Y165.80
G1 F2700 X177.00 Y166.53 E230.83795
G0 F6000 X177.15 Y166.11
G1 F2700 X176.34 Y165.31 E230.89496
G0 F6000 X176.41 Y164.81
G1 F2700 X177.29 Y165.70 E230.95726
G0 F6000 X177.42 Y165.26
G1 F2700 X176.49 Y164.32 E231.02337
G0 F6000 X176.56 Y163.83
G1 F2700 X177.53 Y164.80 E231.09174
G0 F6000 X177.64 Y164.34
G1 F2700 X176.62 Y163.33 E231.16321
G0 F6000 X176.68 Y162.82
G1 F2700 X177.74 Y163.88 E231.23824
G0 F6000 X177.85 Y163.43
G1 F2700 X176.74 Y162.31 E231.31684
G0 F6000 X176.79 Y161.81
G1 F2700 X177.96 Y162.97 E231.39890
G0 F6000 X178.06 Y162.51
G1 F2700 X176.85 Y161.30 E231.48445
G0 F6000 X176.90 Y160.78
G1 F2700 X178.17 Y162.05 E231.57412
G0 F6000 X178.28 Y161.59
G1 F2700 X176.94 Y160.25 E231.66842
G0 F6000 X176.98 Y159.73
G1 F2700 X178.37 Y161.11 E231.76596
G0 F6000 X178.43 Y160.61
G1 F2700 X177.02 Y159.21 E231.86527
G0 F6000 X177.06 Y158.68
G1 F2700 X178.50 Y160.11 E231.96638
G0 F6000 X178.56 Y159.61
G1 F2700 X177.10 Y158.15 E232.06960
G0 F6000 X177.13 Y157.61
G1 F2700 X178.63 Y159.12 E232.17579
G0 F6000 X178.70 Y158.62
G1 F2700 X177.15 Y157.07 E232.28490
G0 F6000 X177.18 Y156.53
G1 F2700 X178.76 Y158.12 E232.39694
G0 F6000 X178.83 Y157.62
G1 F2700 X177.20 Y155.99 E232.51191
G0 F6000 X177.22 Y155.45
G1 F2700 X178.90 Y157.12 E232.62981
G0 F6000 X178.93 Y156.58
G1 F2700 X177.23 Y154.89 E232.74912
G0 F6000 X177.24 Y154.33
G1 F2700 X178.95 Y156.04 E232.86942
G0 F6000 X178.97 Y155.50
G1 F2700 X177.25 Y153.78 E232.99084
G0 F6000 X177.26 Y153.22
G1 F2700 X179.00 Y154.95 E233.11325
G0 F6000 X179.02 Y154.41
G1 F2700 X177.27 Y152.66 E233.23673
G0 F6000 X177.26 Y152.09
G1 F2700 X179.04 Y153.87 E233.36210
G0 F6000 X179.06 Y153.33
G1 F2700 X177.26 Y151.52 E233.48974
G0 F6000 X177.25 Y150.94
G1 F2700 X179.09 Y152.78 E233.61963
G0 F6000 X179.09 Y152.22
G1 F2700 X177.24 Y150.37 E233.75009
G0 F6000 X177.23 Y149.79
G1 F2700 X179.06 Y151.62 E233.87931
G0 F6000 X179.03 Y151.03
G1 F2700 X177.21 Y149.21 E234.00807
G0 F6000 X177.18 Y148.62
G1 F2700 X179.01 Y150.44 E234.13691
G0 F6000 X178.98 Y149.85
G1 F2700 X177.16 Y148.02 E234.26574
G0 F6000 X177.13 Y147.43
G1 F2700 X178.95 Y149.26 E234.39458
G0 F6000 X178.93 Y148.66
G1 F2700 X177.10 Y146.84 E234.52348
G0 F6000 X177.06 Y146.23
G1 F2700 X178.90 Y148.07 E234.65351
G0 F6000 X178.84 Y147.44
G1 F2700 X177.01 Y145.62 E234.78249
G0 F6000 X176.96 Y145.00
G1 F2700 X178.75 Y146.79 E234.90864
G0 F6000 X178.66 Y146.13
G1 F2700 X176.91 Y144.39 E235.03183
G0 F6000 X176.86 Y143.77
G1 F2700 X178.57 Y145.48 E235.15262
G0 F6000 X178.48 Y144.83
G1 F2700 X176.79 Y143.13 E235.27229
G0 F6000 X176.72 Y142.49
G1 F2700 X178.40 Y144.17 E235.39071
G0 F6000 X178.31 Y143.52
G1 F2700 X176.65 Y141.85 E235.50794
G0 F6000 X176.57 Y141.22
G1 F2700 X178.14 Y142.79 E235.61882
G0 F6000 X177.97 Y142.05
G1 F2700 X176.47 Y140.55 E235.72465
G0 F6000 X176.37 Y139.88
G1 F2700 X177.79 Y141.31 E235.82540
G0 F6000 X177.62 Y140.57
G1 F2700 X176.26 Y139.21 E235.92104
G0 F6000 X176.14 Y138.53
G1 F2700 X177.45 Y139.83 E236.01301
G0 F6000 X177.18 Y139.00
G1 F2700 X176.00 Y137.82 E236.09644
G0 F6000 X175.86 Y137.11
G1 F2700 X176.86 Y138.11 E236.16703
G0 F6000 X176.54 Y137.22
G1 F2700 X175.70 Y136.39 E236.22595
G0 F6000 X176.21 Y136.33
G1 F2700 X175.50 Y135.62 E236.27611
G0 F6000 X175.68 Y135.23
G1 F2700 X175.30 Y134.85 E236.30264
G0 F6000 X171.28 Y130.28
G0 X170.33 Y130.02
G0 X169.39 Y130.28
G0 X167.90 Y132.00
G0 X165.31 Y135.05
G1 F2700 X165.06 Y135.08 E236.31307
G1 X164.98 Y135.57 E236.32909
G1 X165.02 Y136.17 E236.35079
G1 X164.49 Y136.21 E236.37820
G1 X164.81 Y137.09 E236.40945
G1 X164.19 Y137.03 E236.44458
G1 X164.67 Y137.80 E236.48955
G0 F6000 X164.57 Y138.27
G1 F2700 X163.96 Y137.66 E236.53266
G0 F6000 X163.81 Y138.07
G1 F2700 X164.48 Y138.74 E236.57968
G0 F6000 X164.40 Y139.23
G1 F2700 X163.66 Y138.49 E236.63168
G0 F6000 X163.51 Y138.91
G1 F2700 X164.32 Y139.72 E236.68890
;LAYER:1
G0 F6000 X164.50 Y139.53 Z0.50
;TYPE:WALL-INNER
G1 F3780 X164.22 Y141.33 E236.74947
G1 X164.14 Y142.03 E236.77273
G1 X163.92 Y143.96 E236.83753
G1 X163.87 Y144.69 E236.86181
G1 X163.71 Y146.73 E236.92990
G1 X163.68 Y147.48 E236.95487
G1 X163.58 Y149.59 E237.02516
G1 X163.53 Y152.50 E237.12189
G1 X163.58 Y155.41 E237.21859
G1 X163.61 Y156.16 E237.24356
G1 X163.71 Y158.27 E237.31387
G1 X163.76 Y159.00 E237.33813
G1 X163.92 Y161.04 E237.40625
G1 X164.00 Y161.73 E237.42941
G1 X164.22 Y163.67 E237.49431
G1 X164.32 Y164.32 E237.51611
G1 X164.59 Y166.12 E237.57694
G1 X165.04 Y168.37 E237.65293
G1 X165.18 Y168.90 E237.67138
G1 X165.57 Y170.37 E237.72174
G1 X166.14 Y172.05 E237.78078
G1 X165.89 Y171.74 E237.79406
G1 X164.41 Y168.99 E237.89761
G1 X164.41 Y168.98 E237.89818
G1 X163.18 Y165.57 E238.01872
G1 X162.25 Y161.67 E238.15213
G1 X161.64 Y157.20 E238.30216
G1 X161.62 Y157.09 E238.30592
G1 X161.43 Y152.62 E238.45453
G1 X161.42 Y152.50 E238.45866
G1 X161.62 Y148.03 E238.60734
G1 X161.62 Y147.91 E238.61144
G1 X162.20 Y143.62 E238.75553
G1 X162.21 Y143.51 E238.75919
G1 X163.14 Y139.56 E238.89390
G1 X163.16 Y139.49 E238.89656
G1 X164.39 Y136.06 E239.01782
G1 X164.41 Y136.02 E239.01912
G1 X165.88 Y133.26 E239.12316
G1 X166.14 Y132.95 E239.13652
G1 X165.57 Y134.63 E239.19566
G1 X165.42 Y135.18 E239.21449
G1 X165.04 Y136.63 E239.26434
G1 X164.59 Y138.88 E239.34043
G1 X164.50 Y139.53 E239.36246
G0 F6000 X168.59 Y130.98
G0 X169.39 Y130.28
G0 X170.33 Y130.02
G0 X171.28 Y130.28
G0 X172.77 Y132.00
G0 X175.62 Y136.63
G1 F3780 X175.48 Y136.10 E239.38091
G1 X175.10 Y134.63 E239.43128
G1 X174.53 Y132.95 E239.49031
G1 X174.78 Y133.26 E239.50360
G1 X176.25 Y136.01 E239.60715
G1 X177.49 Y139.43 E239.72824
G1 X178.41 Y143.33 E239.86169
G1 X179.03 Y147.80 E240.01152
G1 X179.04 Y147.91 E240.01545
G1 X179.24 Y152.38 E240.16406
G1 X179.24 Y152.50 E240.16822
G1 X179.05 Y156.97 E240.31687
G1 X179.04 Y157.09 E240.32096
G1 X178.47 Y161.38 E240.46505
G1 X178.46 Y161.49 E240.46871
G1 X177.53 Y165.44 E240.60343
G1 X177.51 Y165.52 E240.60623
G1 X176.27 Y168.94 E240.72732
G1 X174.78 Y171.74 E240.83267
G1 X174.53 Y172.05 E240.84602
G1 X175.10 Y170.37 E240.90517
G1 X175.24 Y169.82 E240.92400
G1 X175.62 Y168.37 E240.97385
G1 X176.07 Y166.12 E241.04993
G1 X176.17 Y165.47 E241.07197
G1 X176.45 Y163.67 E241.13253
G1 X176.53 Y162.97 E241.15580
G1 X176.74 Y161.04 E241.22059
G1 X176.96 Y158.27 E241.31300
G1 X176.99 Y157.52 E241.33790
G1 X177.09 Y155.41 E241.40819
G1 X177.13 Y152.50 E241.50496
G1 X177.09 Y149.59 E241.60165
G1 X177.06 Y148.84 E241.62662
G1 X176.96 Y146.73 E241.69698
G1 X176.74 Y143.96 E241.78932
G1 X176.67 Y143.27 E241.81247
G1 X176.45 Y141.33 E241.87738
G1 X176.35 Y140.68 E241.89918
G1 X176.07 Y138.88 E241.96001
G1 X175.62 Y136.63 E242.03599
G0 F6000 X175.23 Y136.72
G1 F3780 X175.10 Y136.20 E242.05406
G1 X174.72 Y134.75 E242.10395
G1 X174.13 Y133.04 E242.16398
G1 X173.47 Y131.61 E242.21652
G1 X172.75 Y130.55 E242.25900
G1 X173.47 Y131.04 E242.28808
G1 X175.12 Y133.04 E242.37405
G1 X176.60 Y135.82 E242.47883
G1 X176.62 Y135.85 E242.48020
G1 X177.87 Y139.29 E242.60186
G1 X177.89 Y139.37 E242.60466
G1 X178.81 Y143.26 E242.73746
G1 X179.43 Y147.75 E242.88814
G1 X179.44 Y147.87 E242.89210
G1 X179.63 Y152.36 E243.04171
G1 X179.64 Y152.50 E243.04637
G1 X179.45 Y156.99 E243.19571
G1 X179.44 Y157.13 E243.20041
G1 X178.87 Y161.44 E243.34513
G1 X177.92 Y165.53 E243.48472
G1 X176.65 Y169.08 E243.61022
G1 X176.63 Y169.14 E243.61242
G1 X175.12 Y171.95 E243.71844
G1 X173.48 Y173.95 E243.80453
G1 X172.76 Y174.45 E243.83368
G1 X173.47 Y173.39 E243.87612
G1 X174.13 Y171.96 E243.92866
G1 X174.72 Y170.25 E243.98876
G1 X174.86 Y169.72 E244.00711
G1 X175.23 Y168.28 E244.05658
G1 X175.68 Y166.06 E244.13195
G1 X175.78 Y165.41 E244.15362
G1 X176.05 Y163.62 E244.21398
G1 X176.13 Y162.93 E244.23701
G1 X176.34 Y161.00 E244.30154
G1 X176.56 Y158.24 E244.39351
G1 X176.59 Y157.50 E244.41825
G1 X176.69 Y155.40 E244.48830
G1 X176.73 Y152.50 E244.58467
G1 X176.69 Y149.60 E244.68097
G1 X176.66 Y148.86 E244.70574
G1 X176.56 Y146.75 E244.77586
G1 X176.34 Y144.00 E244.86777
G1 X176.27 Y143.31 E244.89069
G1 X176.05 Y141.38 E244.95536
G1 X175.95 Y140.74 E244.97689
G1 X175.68 Y138.94 E245.03739
G1 X175.23 Y136.72 E245.11269
G0 F6000 X172.08 Y130.98
G0 X171.28 Y130.28
G0 X170.33 Y130.02
G0 X169.39 Y130.28
G0 X167.90 Y132.00
G0 X166.53 Y133.04
G1 F3780 X165.95 Y134.75 E245.17279
G1 X165.81 Y135.28 E245.19114
G1 X165.43 Y136.72 E245.24061
G1 X164.99 Y138.94 E245.31598
G1 X164.89 Y139.59 E245.33765
G1 X164.62 Y141.38 E245.39801
G1 X164.54 Y142.07 E245.42104
G1 X164.32 Y144.00 E245.48557
G1 X164.11 Y146.76 E245.57755
G1 X164.07 Y147.50 E245.60228
G1 X163.98 Y149.60 E245.67237
G1 X163.94 Y152.50 E245.76870
G1 X163.98 Y155.40 E245.86500
G1 X164.01 Y156.14 E245.88977
G1 X164.11 Y158.25 E245.95989
G1 X164.32 Y161.00 E246.05180
G1 X164.40 Y161.69 E246.07473
G1 X164.62 Y163.62 E246.13939
G1 X164.71 Y164.26 E246.16092
G1 X164.99 Y166.06 E246.22142
G1 X165.43 Y168.28 E246.29673
G1 X165.57 Y168.80 E246.31480
G1 X165.95 Y170.25 E246.36468
G1 X166.53 Y171.96 E246.42471
G1 X167.20 Y173.39 E246.47725
G1 X167.91 Y174.45 E246.51973
G1 X167.19 Y173.96 E246.54881
G1 X165.55 Y171.96 E246.63490
G1 X164.06 Y169.18 E246.73957
G1 X164.04 Y169.15 E246.74096
G1 X162.80 Y165.71 E246.86260
G1 X162.77 Y165.63 E246.86540
G1 X161.86 Y161.74 E246.99820
G1 X161.24 Y157.25 E247.14887
G1 X161.23 Y157.13 E247.15280
G1 X161.03 Y152.64 E247.30248
G1 X161.03 Y152.50 E247.30717
G1 X161.22 Y148.01 E247.45645
G1 X161.22 Y147.87 E247.46114
G1 X161.80 Y143.56 E247.60587
G1 X162.75 Y139.47 E247.74544
G1 X164.02 Y135.92 E247.87096
G1 X164.04 Y135.86 E247.87316
G1 X165.55 Y133.05 E247.97918
G1 X167.19 Y131.05 E248.06527
G1 X167.91 Y130.55 E248.09442
G1 X167.20 Y131.61 E248.13686
G1 X166.53 Y133.04 E248.18940
G0 F6000 X166.91 Y133.19
G1 F3780 X166.33 Y134.87 E248.24831
G1 X166.20 Y135.38 E248.26617
G1 X165.82 Y136.81 E248.31527
G1 X165.38 Y139.01 E248.38996
G1 X165.29 Y139.65 E248.41133
G1 X165.01 Y141.44 E248.47142
G1 X164.72 Y144.04 E248.55851
G1 X164.51 Y146.78 E248.64998
G1 X164.47 Y147.52 E248.67452
G1 X164.38 Y149.62 E248.74441
G1 X164.34 Y152.50 E248.84034
G1 X164.38 Y155.38 E248.93627
G1 X164.41 Y156.12 E248.96081
G1 X164.51 Y158.22 E249.03070
G1 X164.72 Y160.96 E249.12217
G1 X165.01 Y163.56 E249.20926
G1 X165.11 Y164.20 E249.23055
G1 X165.38 Y165.99 E249.29075
G1 X165.82 Y168.19 E249.36538
G1 X165.96 Y168.70 E249.38304
G1 X166.33 Y170.14 E249.43241
G1 X166.91 Y171.81 E249.49128
G1 X167.55 Y173.20 E249.54205
G1 X168.28 Y174.29 E249.58593
G1 X169.19 Y175.08 E249.62596
G1 X170.33 Y175.41 E249.66543
G1 X171.47 Y175.08 E249.70494
G1 X172.38 Y174.29 E249.74497
G1 X173.12 Y173.20 E249.78885
G1 X173.76 Y171.81 E249.83962
G1 X174.34 Y170.13 E249.89853
G1 X174.47 Y169.62 E249.91639
G1 X174.84 Y168.19 E249.96549
G1 X175.28 Y165.99 E250.04018
G1 X175.38 Y165.35 E250.06155
G1 X175.65 Y163.56 E250.12164
G1 X175.95 Y160.96 E250.20873
G1 X176.16 Y158.22 E250.30020
G1 X176.19 Y157.48 E250.32474
G1 X176.29 Y155.38 E250.39459
G1 X176.33 Y152.50 E250.49056
G1 X176.29 Y149.62 E250.58649
G1 X176.26 Y148.88 E250.61103
G1 X176.16 Y146.78 E250.68095
G1 X175.95 Y144.04 E250.77239
G1 X175.65 Y141.44 E250.85948
G1 X175.56 Y140.80 E250.88077
G1 X175.28 Y139.01 E250.94097
G1 X174.84 Y136.81 E251.01560
G1 X174.71 Y136.30 E251.03326
G1 X174.33 Y134.86 E251.08263
G1 X173.76 Y133.19 E251.14150
G1 X173.12 Y131.80 E251.19227
G1 X172.38 Y130.71 E251.23614
G1 X171.47 Y129.92 E251.27618
G1 X170.33 Y129.59 E251.31569
G1 X169.19 Y129.92 E251.35516
G1 X168.28 Y130.71 E251.39519
G1 X167.55 Y131.80 E251.43907
G1 X166.91 Y133.19 E251.48984
G0 F6000 X165.22 Y132.81
G1 F3780 X166.91 Y130.75 E251.57866
G1 X168.65 Y129.55 E251.64884
G1 X170.33 Y129.18 E251.70617
G1 X172.01 Y129.55 E251.76345
G1 X173.75 Y130.75 E251.83351
G1 X175.43 Y132.80 E251.92175
G1 X175.45 Y132.82 E251.92269
G1 X176.96 Y135.63 E252.02869
G1 X176.99 Y135.69 E252.03107
G1 X178.24 Y139.16 E252.15364
G1 X178.28 Y139.26 E252.15730
G1 X179.20 Y143.18 E252.29123
G1 X179.82 Y147.69 E252.44268
G1 X179.84 Y147.84 E252.44765
G1 X180.03 Y152.34 E252.59759
G1 X180.04 Y152.50 E252.60281
G1 X179.85 Y157.00 E252.75276
G1 X179.84 Y157.16 E252.75808
G1 X179.26 Y161.49 E252.90328
G1 X179.24 Y161.64 E252.90831
G1 X178.28 Y165.74 E253.04830
G1 X177.02 Y169.22 E253.17151
G1 X176.99 Y169.31 E253.17458
G1 X175.47 Y172.14 E253.28150
G1 X175.45 Y172.19 E253.28319
G1 X173.75 Y174.25 E253.37202
G1 X172.01 Y175.45 E253.44220
G1 X170.33 Y175.82 E253.49955
G1 X168.65 Y175.45 E253.55681
G1 X166.92 Y174.25 E253.62687
G1 X165.23 Y172.20 E253.71510
G1 X165.22 Y172.18 E253.71605
G1 X163.71 Y169.37 E253.82204
G1 X163.68 Y169.31 E253.82442
G1 X162.43 Y165.84 E253.94701
G1 X162.39 Y165.75 E253.95041
G1 X161.47 Y161.81 E254.08492
G1 X160.85 Y157.31 E254.23610
G1 X160.83 Y157.16 E254.24103
G1 X160.63 Y152.66 E254.39094
G1 X160.62 Y152.50 E254.39624
G1 X160.82 Y148.00 E254.54611
G1 X160.83 Y147.84 E254.55144
G1 X161.40 Y143.51 E254.69664
G1 X161.42 Y143.37 E254.70133
G1 X162.36 Y139.38 E254.83765
G1 X162.39 Y139.26 E254.84168
G1 X163.64 Y135.78 E254.96487
G1 X163.68 Y135.69 E254.96794
G1 X165.19 Y132.86 E255.07486
G1 X165.22 Y132.81 E255.07655
G0 F6000 X164.88 Y132.59
G1 F3780 X166.62 Y130.48 E255.16724
G1 X166.64 Y130.45 E255.16859
G1 X168.49 Y129.18 E255.24311
G1 X170.33 Y128.77 E255.30603
G1 X172.18 Y129.18 E255.36894
G1 X174.00 Y130.44 E255.44271
G1 X174.02 Y130.45 E255.44343
G1 X175.74 Y132.54 E255.53349
G1 X175.78 Y132.59 E255.53559
G1 X177.31 Y135.44 E255.64306
G1 X177.36 Y135.53 E255.64661
G1 X178.62 Y139.02 E255.76996
G1 X178.66 Y139.15 E255.77445
G1 X179.60 Y143.12 E255.91003
G1 X180.22 Y147.64 E256.06181
G1 X180.24 Y147.81 E256.06768
G1 X180.44 Y152.32 E256.21792
G1 X180.44 Y152.50 E256.22375
G1 X180.25 Y157.02 E256.37429
G1 X180.24 Y157.19 E256.37989
G1 X179.64 Y161.71 E256.53166
G1 X178.66 Y165.86 E256.67338
G1 X177.40 Y169.36 E256.79695
G1 X177.36 Y169.47 E256.80118
G1 X175.82 Y172.33 E256.90902
G1 X175.78 Y172.41 E256.91199
G1 X174.05 Y174.52 E257.00268
G1 X174.02 Y174.55 E257.00403
G1 X172.18 Y175.82 E257.07855
G1 X170.33 Y176.23 E257.14150
G1 X168.49 Y175.82 E257.20439
G1 X166.66 Y174.56 E257.27820
G1 X166.64 Y174.55 E257.27887
G1 X164.92 Y172.46 E257.36893
G1 X164.88 Y172.41 E257.37103
G1 X163.36 Y169.56 E257.47850
G1 X163.31 Y169.47 E257.48198
G1 X162.05 Y165.98 E257.60541
G1 X162.00 Y165.85 E257.60990
G1 X161.07 Y161.88 E257.74547
G1 X160.45 Y157.36 E257.89726
G1 X160.43 Y157.19 E257.90313
G1 X160.22 Y152.50 E258.05920
G1 X160.43 Y147.81 E258.21533
G1 X161.03 Y143.29 E258.36711
G1 X162.00 Y139.14 E258.50872
G1 X163.27 Y135.64 E258.63240
G1 X163.31 Y135.53 E258.63663
G1 X164.84 Y132.67 E258.74447
G1 X164.88 Y132.59 E258.74744
G0 F6000 X167.28 Y133.34
G1 F3780 X166.72 Y134.98 E258.80515
G1 X166.58 Y135.49 E258.82257
G1 X166.21 Y136.90 E258.87125
G1 X165.78 Y139.08 E258.94523
G1 X165.41 Y141.49 E259.02615
G1 X165.12 Y144.07 E259.11270
G1 X164.91 Y146.81 E259.20378
G1 X164.78 Y149.63 E259.29777
G1 X164.74 Y152.50 E259.39330
G1 X164.78 Y155.37 E259.48884
G1 X164.91 Y158.19 E259.58282
G1 X165.12 Y160.93 E259.67390
G1 X165.41 Y163.51 E259.76045
G1 X165.78 Y165.92 E259.84137
G1 X166.21 Y168.10 E259.91532
G1 X166.34 Y168.60 E259.93260
G1 X166.72 Y170.02 E259.98149
G1 X167.28 Y171.66 E260.03916
G1 X167.90 Y173.00 E260.08819
G1 X168.59 Y174.02 E260.12924
G1 X169.39 Y174.72 E260.16458
G1 X170.33 Y174.99 E260.19728
G1 X171.28 Y174.72 E260.23001
G1 X172.08 Y174.02 E260.26535
G1 X172.77 Y173.00 E260.30640
G1 X173.39 Y171.66 E260.35543
G1 X173.95 Y170.02 E260.41313
G1 X174.08 Y169.51 E260.43056
G1 X174.45 Y168.10 E260.47923
G1 X174.89 Y165.92 E260.55322
G1 X175.26 Y163.51 E260.63413
G1 X175.55 Y160.93 E260.72069
G1 X175.76 Y158.19 E260.81176
G1 X175.79 Y157.47 E260.83606
G1 X175.89 Y155.37 E260.90575
G1 X175.93 Y152.50 E261.00129
G1 X175.89 Y149.63 E261.09682
G1 X175.86 Y148.90 E261.12116
G1 X175.76 Y146.80 E261.19084
G1 X175.55 Y144.07 E261.28188
G1 X175.26 Y141.49 E261.36844
G1 X174.89 Y139.08 E261.44935
G1 X174.45 Y136.90 E261.52330
G1 X174.32 Y136.40 E261.54058
G1 X173.95 Y134.98 E261.58947
G1 X173.39 Y133.34 E261.64714
G1 X172.77 Y132.00 E261.69617
G1 X172.08 Y130.98 E261.73722
G1 X171.28 Y130.28 E261.77256
G1 X170.33 Y130.01 E261.80529
G1 X169.39 Y130.28 E261.83799
G1 X168.59 Y130.98 E261.87333
G1 X167.90 Y132.00 E261.91438
G1 X167.28 Y133.34 E261.96341
G0 F6000 X167.65 Y133.49
;TYPE:WALL-OUTER
G1 F3780 X167.10 Y135.09 E262.01993
G1 X166.60 Y136.99 E262.08517
G1 X166.17 Y139.15 E262.15844
G1 X165.81 Y141.54 E262.23878
G1 X165.52 Y144.11 E262.32487
G1 X165.31 Y146.83 E262.41548
G1 X165.18 Y149.64 E262.50907
G1 X165.13 Y152.50 E262.60420
G1 X165.18 Y155.36 E262.69934
G1 X165.31 Y158.17 E262.79293
G1 X165.52 Y160.89 E262.88353
G1 X165.81 Y163.46 E262.96962
G1 X166.17 Y165.85 E263.04996
G1 X166.60 Y168.01 E263.12324
G1 X167.10 Y169.91 E263.18848
G1 X167.65 Y171.51 E263.24499
G1 X168.25 Y172.80 E263.29225
G1 X168.89 Y173.76 E263.33051
G1 X169.58 Y174.36 E263.36111
G1 X170.33 Y174.57 E263.38706
G1 X171.08 Y174.36 E263.41305
G1 X171.78 Y173.76 E263.44365
G1 X172.42 Y172.80 E263.48191
G1 X173.02 Y171.51 E263.52917
G1 X173.57 Y169.91 E263.58569
G1 X174.06 Y168.01 E263.65093
G1 X174.50 Y165.85 E263.72420
G1 X174.86 Y163.46 E263.80454
G1 X175.15 Y160.89 E263.89063
G1 X175.36 Y158.17 E263.98123
G1 X175.49 Y155.36 E264.07482
G1 X175.53 Y152.50 E264.16996
G1 X175.49 Y149.64 E264.26509
G1 X175.36 Y146.83 E264.35868
G1 X175.15 Y144.11 E264.44929
G1 X174.86 Y141.54 E264.53538
G1 X174.50 Y139.15 E264.61572
G1 X174.06 Y136.99 E264.68899
G1 X173.57 Y135.09 E264.75423
G1 X173.02 Y133.49 E264.81075
G1 X172.42 Y132.20 E264.85801
G1 X171.78 Y131.24 E264.89627
G1 X171.08 Y130.64 E264.92687
G1 X170.33 Y130.43 E264.95285
G1 X169.58 Y130.64 E264.97880
G1 X168.89 Y131.24 E265.00940
G1 X168.25 Y132.20 E265.04767
G1 X167.65 Y133.49 E265.09493
G0 F6000 X167.38 Y133.36
G0 X164.80 Y132.53
G0 X164.55 Y132.37
G1 F3780 X166.31 Y130.23 E265.18708
G1 X166.37 Y130.15 E265.19024
G1 X168.33 Y128.80 E265.26929
G1 X170.33 Y128.36 E265.33766
G1 X172.34 Y128.80 E265.40605
G1 X174.30 Y130.16 E265.48517
G1 X176.05 Y132.29 E265.57695
G1 X176.12 Y132.37 E265.58052
G1 X177.72 Y135.36 E265.69343
G1 X179.04 Y139.03 E265.82299
G1 X179.99 Y143.05 E265.96051
G1 X180.64 Y147.76 E266.11860
G1 X180.84 Y152.50 E266.27643
G1 X180.64 Y157.24 E266.43417
G1 X180.03 Y161.77 E266.58631
G1 X179.04 Y165.97 E266.72991
G1 X177.72 Y169.64 E266.85946
G1 X176.12 Y172.63 E266.97248
G1 X174.36 Y174.77 E267.06463
G1 X174.30 Y174.85 E267.06780
G1 X172.34 Y176.20 E267.14684
G1 X170.33 Y176.64 E267.21524
G1 X168.33 Y176.20 E267.28360
G1 X166.37 Y174.84 E267.36272
G1 X164.62 Y172.71 E267.45450
G1 X164.55 Y172.63 E267.45807
G1 X162.94 Y169.64 E267.57098
G1 X161.62 Y165.97 E267.70055
G1 X160.68 Y161.95 E267.83806
G1 X160.03 Y157.24 E267.99632
G1 X159.82 Y152.50 E268.15399
G1 X160.03 Y147.76 E268.31182
G1 X160.63 Y143.23 E268.46386
G1 X161.62 Y139.03 E268.60746
G1 X162.94 Y135.36 E268.73702
G1 X164.55 Y132.37 E268.85004
G0 F6000 X164.80 Y132.53
G0 X165.41 Y134.69
;TYPE:FILL
G1 F3780 X165.13 Y134.97 E268.86312
G0 F6000 X165.21 Y135.46
G1 F3780 X164.51 Y136.16 E268.89604
G0 F6000 X165.00 Y136.22
G1 F3780 X164.19 Y137.04 E268.93454
G0 F6000 X164.83 Y136.96
G1 F3780 X163.87 Y137.93 E268.98007
G0 F6000 X164.55 Y138.37
G1 F3780 X163.25 Y139.67 E269.04103
G0 F6000 X163.08 Y140.41
G1 F3780 X164.42 Y139.07 E269.10409
G0 F6000 X164.32 Y139.73
G1 F3780 X162.91 Y141.15 E269.17053
G0 F6000 X162.74 Y141.88
G1 F3780 X164.22 Y140.40 E269.24030
G0 F6000 X164.12 Y141.07
G1 F3780 X162.56 Y142.62 E269.31345
G0 F6000 X162.39 Y143.36
G1 F3780 X164.03 Y141.72 E269.39087
G0 F6000 X163.96 Y142.35
G1 F3780 X162.28 Y144.04 E269.47001
G0 F6000 X162.19 Y144.69
G1 F3780 X163.89 Y142.99 E269.54985
G0 F6000 X163.82 Y143.63
G1 F3780 X162.11 Y145.34 E269.63048
G0 F6000 X162.02 Y146.00
G1 F3780 X163.76 Y144.25 E269.71241
G0 F6000 X163.71 Y144.87
G1 F3780 X161.93 Y146.65 E269.79616
G0 F6000 X161.84 Y147.30
G1 F3780 X163.66 Y145.48 E269.88179
G0 F6000 X163.62 Y146.10
G1 F3780 X161.76 Y147.95 E269.96909
G0 F6000 X161.74 Y148.54
G1 F3780 X163.57 Y146.71 E270.05529
G0 F6000 X163.54 Y147.30
G1 F3780 X161.71 Y149.13 E270.14144
G0 F6000 X161.68 Y149.73
G1 F3780 X163.51 Y147.90 E270.22756
G0 F6000 X163.49 Y148.49
G1 F3780 X161.66 Y150.32 E270.31359
G0 F6000 X161.63 Y150.91
G1 F3780 X163.46 Y149.08 E270.39960
G0 F6000 X163.44 Y149.67
G1 F3780 X161.61 Y151.50 E270.48568
G0 F6000 X161.58 Y152.09
G1 F3780 X163.43 Y150.24 E270.57260
G0 F6000 X163.42 Y150.82
G1 F3780 X161.57 Y152.67 E270.65955
G0 F6000 X161.59 Y153.21
G1 F3780 X163.41 Y151.39 E270.74499
G0 F6000 X163.40 Y151.97
G1 F3780 X161.62 Y153.75 E270.82893
G0 F6000 X161.64 Y154.29
G1 F3780 X163.39 Y152.54 E270.91139
G0 F6000 X163.40 Y153.10
G1 F3780 X161.66 Y154.84 E270.99314
G0 F6000 X161.69 Y155.38
G1 F3780 X163.41 Y153.66 E271.07418
G0 F6000 X163.42 Y154.21
G1 F3780 X161.71 Y155.92 E271.15454
G0 F6000 X161.74 Y156.46
G1 F3780 X163.43 Y154.77 E271.23418
G0 F6000 X163.44 Y155.33
G1 F3780 X161.76 Y157.00 E271.31310
G0 F6000 X161.82 Y157.51
G1 F3780 X163.46 Y155.87 E271.39015
G0 F6000 X163.48 Y156.41
G1 F3780 X161.89 Y158.00 E271.46510
G0 F6000 X161.96 Y158.50
G1 F3780 X163.51 Y156.95 E271.53801
G0 F6000 X163.53 Y157.49
G1 F3780 X162.03 Y159.00 E271.60887
G0 F6000 X162.09 Y159.50
G1 F3780 X163.56 Y158.03 E271.67764
G0 F6000 X163.59 Y158.57
G1 F3780 X162.16 Y159.99 E271.74479
G0 F6000 X162.23 Y160.49
G1 F3780 X163.63 Y159.09 E271.81064
G0 F6000 X163.67 Y159.62
G1 F3780 X162.30 Y160.99 E271.87517
G0 F6000 X162.37 Y161.49
G1 F3780 X163.71 Y160.14 E271.93841
G0 F6000 X163.75 Y160.67
G1 F3780 X162.46 Y161.96 E271.99907
G0 F6000 X162.57 Y162.41
G1 F3780 X163.80 Y161.19 E272.05673
G0 F6000 X163.86 Y161.69
G1 F3780 X162.68 Y162.87 E272.11200
G0 F6000 X162.79 Y163.33
G1 F3780 X163.91 Y162.20 E272.16490
G0 F6000 X163.97 Y162.71
G1 F3780 X162.90 Y163.78 E272.21534
G0 F6000 X163.01 Y164.24
G1 F3780 X164.03 Y163.22 E272.26342
G0 F6000 X164.09 Y163.73
G1 F3780 X163.11 Y164.70 E272.30909
G0 F6000 X163.22 Y165.16
G1 F3780 X164.16 Y164.22 E272.35319
G0 F6000 X164.24 Y164.71
G1 F3780 X163.34 Y165.61 E272.39538
G0 F6000 X163.49 Y166.02
G1 F3780 X164.31 Y165.20 E272.43407
G0 F6000 X164.39 Y165.69
G1 F3780 X163.64 Y166.44 E272.46923
G0 F6000 X163.79 Y166.85
G1 F3780 X164.46 Y166.18 E272.50093
G0 F6000 X164.56 Y166.65
G1 F3780 X163.94 Y167.27 E272.53002
G0 F6000 X164.09 Y167.68
G1 F3780 X164.70 Y167.36 E272.55640
G1 X164.31 Y168.31 E272.58020
G1 X164.89 Y168.30 E272.60137
G1 X164.64 Y169.11 E272.62020
G1 X165.12 Y169.20 E272.63524
G1 X165.11 Y169.77 E272.64650
G1 X165.13 Y170.03 E272.65530
G0 F6000 X169.39 Y174.72
G0 X170.33 Y174.98
G0 X171.28 Y174.72
G0 X172.77 Y173.00
G0 X175.34 Y170.01
G1 F3780 X175.78 Y169.57 E272.67609
G0 F6000 X175.54 Y169.25
G1 F3780 X176.28 Y168.50 E272.71118
G0 F6000 X175.74 Y168.48
G1 F3780 X176.60 Y167.62 E272.75189
G0 F6000 X175.88 Y167.77
G1 F3780 X176.92 Y166.73 E272.80067
G0 F6000 X176.17 Y166.35
G1 F3780 X177.47 Y165.05 E272.86217
G0 F6000 X177.65 Y164.31
G1 F3780 X176.28 Y165.68 E272.92651
G0 F6000 X176.38 Y165.01
G1 F3780 X177.82 Y163.57 E272.99420
G0 F6000 X178.00 Y162.83
G1 F3780 X176.49 Y164.34 E273.06523
G0 F6000 X176.59 Y163.67
G1 F3780 X178.17 Y162.09 E273.13969
G0 F6000 X178.33 Y161.36
G1 F3780 X176.66 Y163.04 E273.21838
G0 F6000 X176.73 Y162.40
G1 F3780 X178.42 Y160.71 E273.29775
G0 F6000 X178.50 Y160.06
G1 F3780 X176.80 Y161.76 E273.37788
G0 F6000 X176.87 Y161.12
G1 F3780 X178.59 Y159.40 E273.45874
G0 F6000 X178.68 Y158.75
G1 F3780 X176.92 Y160.51 E273.54133
G0 F6000 X176.97 Y159.89
G1 F3780 X178.77 Y158.10 E273.62574
G0 F6000 X178.85 Y157.44
G1 F3780 X177.02 Y159.28 E273.71205
G0 F6000 X177.07 Y158.67
G1 F3780 X178.91 Y156.82 E273.79896
G0 F6000 X178.94 Y156.23
G1 F3780 X177.11 Y158.06 E273.88517
G0 F6000 X177.13 Y157.47
G1 F3780 X178.97 Y155.64 E273.97135
G0 F6000 X178.99 Y155.05
G1 F3780 X177.16 Y156.88 E274.05742
G0 F6000 X177.19 Y156.28
G1 F3780 X179.02 Y154.45 E274.14348
G0 F6000 X179.04 Y153.86
G1 F3780 X177.22 Y155.69 E274.22941
G0 F6000 X177.23 Y155.11
G1 F3780 X179.07 Y153.27 E274.31575
G0 F6000 X179.09 Y152.68
G1 F3780 X177.24 Y154.53 E274.40291
G0 F6000 X177.25 Y153.96
G1 F3780 X179.08 Y152.12 E274.48922
G0 F6000 X179.06 Y151.58
G1 F3780 X177.26 Y153.38 E274.57403
G0 F6000 X177.27 Y152.81
G1 F3780 X179.04 Y151.04 E274.65733
G0 F6000 X179.01 Y150.50
G1 F3780 X177.27 Y152.24 E274.73946
G0 F6000 X177.26 Y151.69
G1 F3780 X178.99 Y149.95 E274.82093
G0 F6000 X178.97 Y149.41
G1 F3780 X177.25 Y151.13 E274.90169
G0 F6000 X177.24 Y150.57
G1 F3780 X178.94 Y148.87 E274.98175
G0 F6000 X178.92 Y148.33
G1 F3780 X177.23 Y150.01 E275.06110
G0 F6000 X177.22 Y149.46
G1 F3780 X178.89 Y147.80 E275.13941
G0 F6000 X178.82 Y147.30
G1 F3780 X177.20 Y148.92 E275.21566
G0 F6000 X177.17 Y148.38
G1 F3780 X178.75 Y146.80 E275.28989
G0 F6000 X178.68 Y146.30
G1 F3780 X177.15 Y147.84 E275.36204
G0 F6000 X177.12 Y147.30
G1 F3780 X178.61 Y145.81 E275.43212
G0 F6000 X178.54 Y145.31
G1 F3780 X177.10 Y146.75 E275.50014
G0 F6000 X177.06 Y146.23
G1 F3780 X178.48 Y144.81 E275.56679
G0 F6000 X178.41 Y144.31
G1 F3780 X177.02 Y145.71 E275.63215
G0 F6000 X176.98 Y145.18
G1 F3780 X178.34 Y143.82 E275.69626
G0 F6000 X178.27 Y143.32
G1 F3780 X176.94 Y144.66 E275.75887
G0 F6000 X176.90 Y144.13
G1 F3780 X178.16 Y142.87 E275.81827
G0 F6000 X178.05 Y142.41
G1 F3780 X176.84 Y143.62 E275.87502
G0 F6000 X176.79 Y143.11
G1 F3780 X177.94 Y141.95 E275.92935
G0 F6000 X177.83 Y141.50
G1 F3780 X176.73 Y142.60 E275.98126
G0 F6000 X176.67 Y142.09
G1 F3780 X177.72 Y141.04 E276.03076
G0 F6000 X177.62 Y140.58
G1 F3780 X176.62 Y141.58 E276.07789
G0 F6000 X176.55 Y141.08
G1 F3780 X177.51 Y140.12 E276.12296
G0 F6000 X177.40 Y139.67
G1 F3780 X176.47 Y140.59 E276.16647
G0 F6000 X176.40 Y140.10
G1 F3780 X177.27 Y139.23 E276.20729
G0 F6000 X177.12 Y138.82
G1 F3780 X176.32 Y139.61 E276.24457
G0 F6000 X176.25 Y139.12
G1 F3780 X176.97 Y138.40 E276.27834
G0 F6000 X176.82 Y137.99
G1 F3780 X176.17 Y138.64 E276.30892
G0 F6000 X176.07 Y138.16
G1 F3780 X176.67 Y137.57 E276.33690
G0 F6000 X176.52 Y137.15
G1 F3780 X175.93 Y137.46 E276.36224
G1 X176.29 Y136.53 E276.38492
G1 X175.73 Y136.52 E276.40504
G1 X175.95 Y135.74 E276.42241
G1 X175.50 Y135.62 E276.43602
G1 X175.49 Y135.07 E276.44582
G1 X175.46 Y134.82 E276.45414
G0 F6000 X171.28 Y130.28
G0 X170.33 Y130.02
G0 X169.39 Y130.28
G0 X167.90 Y132.00
G0 X164.69 Y137.66
G1 F3780 X163.55 Y138.81 E276.50807
G0 F6000 X168.59 Y130.98
G0 X169.39 Y130.28
G0 X170.33 Y130.02
G0 X171.28 Y130.28
G0 X172.77 Y132.00
G0 X174.45 Y136.90
G0 X175.76 Y146.81
G0 X175.76 Y158.19
G0 X177.24 Y165.85
G1 F3780 X176.03 Y167.06 E276.56522
;LAYER:2
G0 F6000 X175.80 Y167.49 Z0.70
;TYPE:WALL-INNER
G1 F4920 X176.07 Y166.12 E276.61139
G1 X176.45 Y163.67 E276.69402
G1 X176.56 Y162.64 E276.72833
G1 X176.74 Y161.04 E276.78205
G1 X176.96 Y158.27 E276.87446
G1 X177.01 Y157.16 E276.91145
G1 X177.09 Y155.41 E276.96971
G1 X177.10 Y154.28 E277.00727
G1 X177.13 Y152.50 E277.06641
G1 X177.12 Y151.37 E277.10403
G1 X177.09 Y149.59 E277.16321
G1 X177.04 Y148.48 E277.20020
G1 X176.96 Y146.73 E277.25846
G1 X176.74 Y143.96 E277.35080
G1 X176.63 Y142.94 E277.38501
G1 X176.45 Y141.33 E277.43890
G1 X176.07 Y138.88 E277.52146
G1 X175.90 Y138.00 E277.55107
G1 X175.62 Y136.63 E277.59755
G1 X175.10 Y134.63 E277.66626
G1 X174.87 Y133.96 E277.69004
G1 X174.53 Y132.95 E277.72538
G1 X174.78 Y133.26 E277.73885
G1 X176.26 Y136.01 E277.84262
G1 X177.46 Y139.35 E277.96056
G1 X177.51 Y139.49 E277.96555
G1 X178.41 Y143.33 E278.09661
G1 X179.01 Y147.70 E278.24336
G1 X179.24 Y152.50 E278.40319
G1 X179.04 Y157.09 E278.55606
G1 X178.48 Y161.29 E278.69690
G1 X178.46 Y161.49 E278.70381
G1 X177.55 Y165.35 E278.83549
G1 X177.51 Y165.52 E278.84130
G1 X176.30 Y168.87 E278.95978
G1 X176.26 Y168.99 E278.96396
G1 X174.78 Y171.74 E279.06770
G1 X174.53 Y172.05 E279.08114
G1 X174.75 Y171.41 E279.10366
G1 X175.10 Y170.37 E279.14022
G1 X175.62 Y168.37 E279.20900
G1 X175.80 Y167.49 E279.23885
G0 F6000 X172.08 Y174.02
G0 X171.28 Y174.72
G0 X170.33 Y174.98
G0 X169.39 Y174.72
G0 X167.90 Y173.00
G0 X165.80 Y171.04
G1 F4920 X166.14 Y172.05 E279.27418
G1 X165.88 Y171.74 E279.28765
G1 X164.41 Y168.99 E279.39138
G1 X163.21 Y165.65 E279.50938
G1 X163.16 Y165.51 E279.51427
G1 X162.25 Y161.67 E279.64539
G1 X161.65 Y157.30 E279.79217
G1 X161.44 Y152.72 E279.94471
G1 X161.43 Y152.49 E279.95223
G1 X161.61 Y148.13 E280.09735
G1 X161.62 Y147.91 E280.10487
G1 X162.18 Y143.71 E280.24571
G1 X162.21 Y143.51 E280.25262
G1 X163.12 Y139.65 E280.38429
G1 X163.16 Y139.49 E280.39000
G1 X164.37 Y136.13 E280.50860
G1 X164.41 Y136.01 E280.51278
G1 X165.88 Y133.26 E280.61651
G1 X166.14 Y132.95 E280.62995
G1 X165.92 Y133.59 E280.65247
G1 X165.57 Y134.63 E280.68903
G1 X165.04 Y136.63 E280.75781
G1 X164.87 Y137.51 E280.78766
G1 X164.59 Y138.88 E280.83383
G1 X164.22 Y141.33 E280.91646
G1 X164.10 Y142.36 E280.95077
G1 X163.92 Y143.96 E281.00449
G1 X163.84 Y145.04 E281.04045
G1 X163.71 Y146.73 E281.09687
G1 X163.58 Y149.59 E281.19216
G1 X163.56 Y150.72 E281.22971
G1 X163.53 Y152.50 E281.28885
G1 X163.55 Y153.63 E281.32647
G1 X163.58 Y155.41 E281.38565
G1 X163.71 Y158.27 E281.48087
G1 X163.79 Y159.35 E281.51680
G1 X163.92 Y161.04 E281.57325
G1 X164.04 Y162.06 E281.60745
G1 X164.22 Y163.67 E281.66134
G1 X164.59 Y166.12 E281.74391
G1 X164.77 Y167.00 E281.77352
G1 X165.04 Y168.37 E281.81999
G1 X165.57 Y170.37 E281.88871
G1 X165.80 Y171.04 E281.91249
G0 F6000 X166.18 Y170.91
G1 F4920 X166.53 Y171.96 E281.94926
G1 X166.79 Y172.52 E281.96963
G1 X167.20 Y173.39 E282.00184
G1 X167.91 Y174.45 E282.04424
G1 X167.19 Y173.96 E282.07329
G1 X165.58 Y172.00 E282.15758
G1 X165.55 Y171.96 E282.15911
G1 X164.04 Y169.15 E282.26534
G1 X162.83 Y165.78 E282.38426
G1 X162.77 Y165.63 E282.38982
G1 X161.87 Y161.76 E282.52183
G1 X161.82 Y161.56 E282.52873
G1 X161.26 Y157.35 E282.66993
G1 X161.22 Y157.12 E282.67765
G1 X161.04 Y152.74 E282.82366
G1 X161.02 Y152.50 E282.83145
G1 X161.21 Y148.11 E282.97770
G1 X161.22 Y147.88 E282.98526
G1 X161.79 Y143.66 E283.12703
G1 X161.82 Y143.43 E283.13468
G1 X162.73 Y139.56 E283.26690
G1 X162.77 Y139.37 E283.27350
G1 X163.99 Y135.99 E283.39280
G1 X164.04 Y135.85 E283.39779
G1 X165.55 Y133.04 E283.50399
G1 X167.19 Y131.04 E283.58991
G1 X167.91 Y130.55 E283.61896
G1 X167.20 Y131.61 E283.66147
G1 X166.93 Y132.19 E283.68297
G1 X166.53 Y133.04 E283.71397
G1 X166.30 Y133.72 E283.73796
G1 X165.95 Y134.75 E283.77400
G1 X165.43 Y136.72 E283.84192
G1 X165.26 Y137.59 E283.87140
G1 X164.99 Y138.94 E283.91726
G1 X164.62 Y141.38 E283.99932
G1 X164.50 Y142.40 E284.03336
G1 X164.32 Y144.00 E284.08685
G1 X164.24 Y145.07 E284.12257
G1 X164.11 Y146.75 E284.17879
G1 X163.98 Y149.60 E284.27364
G1 X163.96 Y150.73 E284.31100
G1 X163.94 Y152.50 E284.36994
G1 X163.95 Y153.62 E284.40736
G1 X163.98 Y155.40 E284.46631
G1 X164.11 Y158.25 E284.56116
G1 X164.19 Y159.31 E284.59686
G1 X164.32 Y161.00 E284.65311
G1 X164.44 Y162.02 E284.68708
G1 X164.62 Y163.62 E284.74067
G1 X164.99 Y166.06 E284.82269
G1 X165.16 Y166.92 E284.85196
G1 X165.43 Y168.28 E284.89807
G1 X165.95 Y170.25 E284.96592
G1 X166.18 Y170.91 E284.98922
G0 F6000 X169.39 Y174.72
G0 X170.33 Y174.98
G0 X171.28 Y174.72
G0 X172.76 Y174.45
G1 F4920 X173.47 Y173.39 E285.03172
G1 X173.74 Y172.81 E285.05323
G1 X174.13 Y171.96 E285.08422
G1 X174.37 Y171.28 E285.10822
G1 X174.72 Y170.25 E285.14426
G1 X175.23 Y168.28 E285.21218
G1 X175.41 Y167.41 E285.24166
G1 X175.68 Y166.06 E285.28752
G1 X176.05 Y163.62 E285.36958
G1 X176.16 Y162.60 E285.40361
G1 X176.34 Y161.00 E285.45710
G1 X176.56 Y158.25 E285.54904
G1 X176.69 Y155.40 E285.64390
G1 X176.71 Y154.27 E285.68126
G1 X176.73 Y152.50 E285.74020
G1 X176.72 Y151.38 E285.77762
G1 X176.69 Y149.60 E285.83657
G1 X176.56 Y146.75 E285.93142
G1 X176.34 Y144.00 E286.02333
G1 X176.23 Y142.98 E286.05733
G1 X176.05 Y141.38 E286.11092
G1 X175.68 Y138.94 E286.19295
G1 X175.51 Y138.08 E286.22222
G1 X175.23 Y136.72 E286.26832
G1 X174.72 Y134.75 E286.33617
G1 X174.49 Y134.09 E286.35947
G1 X174.13 Y133.04 E286.39624
G1 X173.88 Y132.48 E286.41662
G1 X173.47 Y131.61 E286.44882
G1 X172.76 Y130.55 E286.49122
G1 X173.47 Y131.04 E286.52028
G1 X175.09 Y133.00 E286.60456
G1 X175.12 Y133.04 E286.60610
G1 X176.62 Y135.85 E286.71233
G1 X177.84 Y139.21 E286.83120
G1 X177.89 Y139.37 E286.83676
G1 X178.80 Y143.24 E286.96881
G1 X178.85 Y143.44 E286.97571
G1 X179.41 Y147.65 E287.11691
G1 X179.44 Y147.88 E287.12463
G1 X179.64 Y152.50 E287.27853
G1 X179.44 Y157.13 E287.43260
G1 X178.88 Y161.34 E287.57400
G1 X178.85 Y161.57 E287.58166
G1 X177.94 Y165.44 E287.71388
G1 X177.89 Y165.63 E287.72048
G1 X176.68 Y169.01 E287.83977
G1 X176.62 Y169.15 E287.84476
G1 X175.12 Y171.96 E287.95091
G1 X173.47 Y173.96 E288.03688
G1 X172.76 Y174.45 E288.06593
G0 F6000 X172.38 Y174.29
G1 F4920 X173.12 Y173.19 E288.10983
G1 X173.38 Y172.64 E288.13032
G1 X173.76 Y171.81 E288.16057
G1 X173.99 Y171.15 E288.18387
G1 X174.33 Y170.14 E288.21944
G1 X174.84 Y168.19 E288.28647
G1 X175.01 Y167.33 E288.31561
G1 X175.28 Y165.99 E288.36110
G1 X175.65 Y163.56 E288.44259
G1 X175.77 Y162.55 E288.47639
G1 X175.95 Y160.96 E288.52965
G1 X176.16 Y158.22 E288.62115
G1 X176.29 Y155.38 E288.71558
G1 X176.33 Y152.50 E288.81151
G1 X176.29 Y149.62 E288.90744
G1 X176.16 Y146.78 E289.00187
G1 X175.95 Y144.04 E289.09334
G1 X175.83 Y143.03 E289.12711
G1 X175.65 Y141.44 E289.18047
G1 X175.28 Y139.01 E289.26189
G1 X175.11 Y138.16 E289.29085
G1 X174.84 Y136.81 E289.33658
G1 X174.33 Y134.86 E289.40358
G1 X174.11 Y134.22 E289.42638
G1 X173.76 Y133.19 E289.46245
G1 X173.51 Y132.65 E289.48212
G1 X173.12 Y131.80 E289.51324
G1 X172.38 Y130.71 E289.55709
G1 X171.47 Y129.92 E289.59712
G1 X170.33 Y129.59 E289.63663
G1 X169.19 Y129.92 E289.67611
G1 X168.28 Y130.71 E289.71614
G1 X167.55 Y131.81 E289.76004
G1 X167.29 Y132.36 E289.78053
G1 X166.91 Y133.19 E289.81078
G1 X166.68 Y133.85 E289.83408
G1 X166.33 Y134.86 E289.86965
G1 X165.82 Y136.81 E289.93668
G1 X165.65 Y137.67 E289.96582
G1 X165.38 Y139.01 E290.01131
G1 X165.01 Y141.44 E290.09280
G1 X164.90 Y142.45 E290.12660
G1 X164.72 Y144.04 E290.17986
G1 X164.51 Y146.78 E290.27137
G1 X164.38 Y149.62 E290.36579
G1 X164.34 Y152.50 E290.46172
G1 X164.38 Y155.38 E290.55765
G1 X164.51 Y158.22 E290.65208
G1 X164.72 Y160.96 E290.74355
G1 X164.83 Y161.97 E290.77732
G1 X165.01 Y163.56 E290.83068
G1 X165.38 Y165.99 E290.91210
G1 X165.55 Y166.84 E290.94106
G1 X165.82 Y168.19 E290.98679
G1 X166.33 Y170.14 E291.05379
G1 X166.55 Y170.78 E291.07659
G1 X166.91 Y171.81 E291.11266
G1 X167.15 Y172.35 E291.13233
G1 X167.55 Y173.20 E291.16345
G1 X168.28 Y174.29 E291.20730
G1 X169.19 Y175.08 E291.24733
G1 X170.33 Y175.41 E291.28681
G1 X171.47 Y175.08 E291.32632
G1 X172.38 Y174.29 E291.36635
G0 F6000 X172.02 Y175.45
G1 F4920 X170.33 Y175.82 E291.42374
G1 X168.65 Y175.45 E291.48099
G1 X166.93 Y174.26 E291.55059
G1 X166.92 Y174.25 E291.55116
G1 X165.27 Y172.25 E291.63717
G1 X165.22 Y172.19 E291.64013
G1 X163.68 Y169.31 E291.74845
G1 X162.45 Y165.92 E291.86840
G1 X162.39 Y165.75 E291.87456
G1 X161.47 Y161.86 E292.00754
G1 X161.42 Y161.64 E292.01506
G1 X160.83 Y157.16 E292.16511
G1 X160.64 Y152.76 E292.31186
G1 X160.62 Y152.50 E292.32049
G1 X160.81 Y148.10 E292.46697
G1 X160.83 Y147.84 E292.47566
G1 X161.42 Y143.37 E292.62548
G1 X162.34 Y139.47 E292.75883
G1 X162.39 Y139.26 E292.76590
G1 X163.62 Y135.86 E292.88626
G1 X163.68 Y135.69 E292.89223
G1 X165.22 Y132.81 E293.00070
G1 X166.89 Y130.78 E293.08817
G1 X166.92 Y130.75 E293.08964
G1 X168.65 Y129.55 E293.15974
G1 X170.33 Y129.18 E293.21710
G1 X172.01 Y129.55 E293.27439
G1 X173.74 Y130.74 E293.34399
G1 X173.75 Y130.75 E293.34456
G1 X175.39 Y132.75 E293.43057
G1 X175.45 Y132.81 E293.43352
G1 X176.99 Y135.69 E293.54182
G1 X178.21 Y139.08 E293.66179
G1 X178.28 Y139.26 E293.66823
G1 X179.24 Y143.36 E293.80835
G1 X179.84 Y147.84 E293.95851
G1 X180.04 Y152.50 E294.11378
G1 X179.84 Y157.16 E294.26905
G1 X179.24 Y161.64 E294.41921
G1 X178.28 Y165.74 E294.55926
G1 X177.05 Y169.14 E294.67964
G1 X176.99 Y169.31 E294.68562
G1 X175.45 Y172.19 E294.79408
G1 X173.78 Y174.22 E294.88156
G1 X173.75 Y174.25 E294.88302
G1 X172.02 Y175.45 E294.95313
G0 F6000 X172.21 Y175.80
G1 F4920 X172.18 Y175.82 E294.95432
G1 X170.34 Y176.23 E295.01724
G1 X168.51 Y175.83 E295.07950
G1 X168.49 Y175.82 E295.08007
G1 X166.70 Y174.59 E295.15231
