;-- START GCODE --
;Sliced for Type A Machines Series 1
;Sliced at: Mon 28-11-2016 22:41:39
;Basic settings: Layer height: 0.2 Walls: 1.2 Fill: 15
;Print Speed: 40 Support: 0
;Retraction Speed: 40 Retraction Distance: 1.2
;Print time: #P_TIME#
;Filament used: #F_AMNT#m #F_WGHT#g
;Filament cost: #F_COST#
M106 S255	 ;start with the fan on
G21        ;metric values
G90        ;absolute positioning
M106 S255    ;start with the fan on
G28     ;move to endstops
G29		;allows for auto-levelling
G1 X150 Y5  Z15.0 F12000 ;center and move the platform down 15mm
M109 S220 ;Heat To temp
G92 E0                  ;zero the extruded length
G1 F200 E30              ;extrude 30mm of feed stock
G92 E0                  ;zero the extruded length again
G1 X175 Y25  Z0 F12000 ;remove bugger
G1 X220 F12000 ;remove bugger
G1 X150 Y150  Z15 F12000 ;recenter and begin
G1 F12000

;Layer count: 232
;LAYER:0
M106 S255
G0 F12000 X81.42 Y101.65 Z0.30
;TYPE:SKIRT
G1 F2400 X87.06 Y99.03 E0.31001
G1 X90.77 Y98.43 E0.49741
G1 X91.97 Y98.29 E0.55776
G1 X95.02 Y97.75 E0.71259
G1 X96.89 Y98.28 E0.80925
G1 X97.44 Y98.22 E0.83679
G1 X101.20 Y98.38 E1.02466
G1 X106.83 Y99.86 E1.31498
G1 X109.61 Y101.91 E1.48738
G1 X112.90 Y103.92 E1.67958
G1 X116.18 Y109.66 E2.00955
G1 X117.75 Y113.47 E2.21524
G1 X118.19 Y119.66 E2.52497
G1 X117.22 Y123.80 E2.73683
G1 X116.20 Y126.60 E2.88565
G1 X114.23 Y130.13 E3.08722
G1 X111.78 Y133.26 E3.28554
G1 X111.09 Y133.76 E3.32842
G1 X109.15 Y136.48 E3.49482
G1 X107.42 Y137.17 E3.58747
G1 X102.85 Y142.07 E3.92208
G1 X102.13 Y141.77 E3.96115
G1 X100.24 Y143.75 E4.09750
G1 X95.40 Y141.27 E4.36878
G1 X94.69 Y141.41 E4.40498
G1 X90.80 Y140.88 E4.60094
G1 X86.70 Y139.94 E4.81084
G1 X83.42 Y137.91 E5.00344
G1 X81.20 Y136.46 E5.13519
G1 X79.93 Y135.06 E5.22960
G1 X78.61 Y133.90 E5.31755
G1 X75.95 Y129.62 E5.56865
G1 X74.79 Y126.37 E5.74094
G1 X74.77 Y126.27 E5.74614
G1 X73.38 Y123.57 E5.89756
G1 X72.49 Y114.45 E6.35452
G1 X74.40 Y110.69 E6.56534
G1 X75.13 Y108.67 E6.67247
G1 X78.05 Y104.86 E6.91172
G1 X81.42 Y101.65 E7.14424
G0 F12000 X81.65 Y101.98
G1 F2400 X87.18 Y99.41 E7.44825
G1 X90.82 Y98.82 E7.63242
G1 X92.02 Y98.69 E7.69272
G1 X95.00 Y98.16 E7.84374
G1 X96.86 Y98.68 E7.93973
G1 X97.45 Y98.62 E7.96963
G1 X101.14 Y98.78 E8.15384
G1 X106.65 Y100.23 E8.43818
G1 X109.39 Y102.25 E8.60790
G1 X112.60 Y104.20 E8.79560
G1 X115.82 Y109.83 E9.11914
G1 X117.36 Y113.56 E9.32033
G1 X117.78 Y119.63 E9.62376
G1 X116.84 Y123.69 E9.83148
G1 X115.84 Y126.44 E9.97748
G1 X113.90 Y129.91 E10.17590
G1 X111.50 Y132.97 E10.36985
G1 X110.80 Y133.48 E10.41335
G1 X108.89 Y136.15 E10.57699
G1 X107.19 Y136.83 E10.66820
G1 X102.75 Y141.60 E10.99346
G1 X102.03 Y141.30 E11.03235
G1 X100.16 Y143.26 E11.16747
G1 X95.46 Y140.85 E11.43089
G1 X94.68 Y141.01 E11.47065
G1 X90.87 Y140.48 E11.66238
G1 X86.85 Y139.57 E11.86803
G1 X83.63 Y137.57 E12.05712
G1 X81.47 Y136.16 E12.18609
G1 X80.21 Y134.78 E12.27915
G1 X78.92 Y133.64 E12.36512
G1 X76.32 Y129.45 E12.61107
G1 X75.18 Y126.25 E12.78035
G1 X75.14 Y126.12 E12.78694
G1 X73.77 Y123.45 E12.93677
G1 X72.90 Y114.53 E13.38405
G1 X74.77 Y110.85 E13.59031
G1 X75.49 Y108.86 E13.69557
G1 X78.34 Y105.13 E13.93016
G1 X81.65 Y101.98 E14.15782
G0 F12000 X81.88 Y102.32
G1 F2400 X87.30 Y99.80 E14.45577
G1 X90.88 Y99.22 E14.63675
G1 X92.08 Y99.08 E14.69701
G1 X94.98 Y98.57 E14.84428
G1 X96.82 Y99.09 E14.93933
G1 X97.46 Y99.02 E14.97174
G1 X101.08 Y99.17 E15.15236
G1 X106.48 Y100.59 E15.43071
G1 X109.16 Y102.58 E15.59732
G1 X112.31 Y104.49 E15.78095
G1 X115.46 Y110.01 E16.09805
G1 X116.96 Y113.66 E16.29472
G1 X117.38 Y119.60 E16.59195
G1 X116.45 Y123.57 E16.79547
G1 X115.47 Y126.27 E16.93866
G1 X113.56 Y129.69 E17.13393
G1 X111.22 Y132.68 E17.32348
G1 X110.51 Y133.19 E17.36736
G1 X108.63 Y135.82 E17.52849
G1 X106.96 Y136.49 E17.61830
G1 X102.64 Y141.12 E17.93420
G1 X101.93 Y140.82 E17.97289
G1 X100.07 Y142.76 E18.10684
G1 X95.52 Y140.43 E18.36236
G1 X94.66 Y140.60 E18.40575
G1 X90.94 Y140.09 E18.59320
G1 X87.00 Y139.19 E18.79465
G1 X83.85 Y137.23 E18.98018
G1 X81.73 Y135.85 E19.10634
G1 X80.50 Y134.49 E19.19774
G1 X79.22 Y133.38 E19.28212
G1 X76.68 Y129.27 E19.52300
G1 X75.56 Y126.14 E19.68920
G1 X75.52 Y125.98 E19.69703
G1 X74.16 Y123.34 E19.84541
G1 X73.31 Y114.61 E20.28307
G1 X75.14 Y111.00 E20.48502
G1 X75.84 Y109.06 E20.58815
G1 X78.64 Y105.39 E20.81808
G1 X81.88 Y102.32 E21.04090
G0 F12000 X82.11 Y102.65
G1 F2400 X87.41 Y100.19 E21.33285
G1 X90.93 Y99.62 E21.51055
G1 X92.14 Y99.48 E21.57136
G1 X94.96 Y98.98 E21.71432
G1 X96.78 Y99.49 E21.80869
G1 X97.47 Y99.42 E21.84336
G1 X101.02 Y99.57 E22.02039
G1 X106.30 Y100.96 E22.29277
G1 X108.94 Y102.91 E22.45660
G1 X112.01 Y104.78 E22.63581
G1 X115.10 Y110.19 E22.94648
G1 X116.57 Y113.75 E23.13861
G1 X116.98 Y119.57 E23.42964
G1 X116.07 Y123.46 E23.62896
G1 X115.11 Y126.10 E23.76934
G1 X113.23 Y129.46 E23.96146
G1 X110.94 Y132.39 E24.14666
G1 X110.23 Y132.91 E24.19086
G1 X108.38 Y135.49 E24.34949
G1 X106.73 Y136.15 E24.43796
G1 X102.54 Y140.65 E24.74443
G1 X101.83 Y140.35 E24.78297
G1 X99.99 Y142.27 E24.91572
G1 X95.57 Y140.01 E25.16334
G1 X94.65 Y140.20 E25.21034
G1 X91.01 Y139.69 E25.39351
G1 X87.16 Y138.82 E25.59071
G1 X84.06 Y136.89 E25.77274
G1 X81.99 Y135.54 E25.89612
G1 X80.77 Y134.20 E25.98643
G1 X79.53 Y133.12 E26.06858
G1 X77.04 Y129.10 E26.30442
G1 X75.94 Y126.02 E26.46754
G1 X75.90 Y125.84 E26.47670
G1 X74.55 Y123.22 E26.62352
G1 X73.72 Y114.69 E27.05150
G1 X75.51 Y111.17 E27.24863
G1 X76.20 Y109.25 E27.35017
G1 X78.94 Y105.66 E27.57547
G1 X82.11 Y102.65 E27.79342
G0 F12000 X82.34 Y102.99
G1 F2400 X87.53 Y100.57 E28.07932
G1 X90.98 Y100.01 E28.25384
G1 X92.20 Y99.87 E28.31474
G1 X94.94 Y99.39 E28.45376
G1 X96.75 Y99.90 E28.54747
G1 X97.49 Y99.82 E28.58450
G1 X100.96 Y99.97 E28.75788
G1 X106.12 Y101.33 E29.02432
G1 X108.72 Y103.25 E29.18548
G1 X111.71 Y105.07 E29.36012
G1 X114.74 Y110.36 E29.66443
G1 X116.17 Y113.84 E29.85205
G1 X116.57 Y119.53 E30.13682
G1 X115.69 Y123.34 E30.33188
G1 X114.74 Y125.93 E30.46950
G1 X112.90 Y129.24 E30.65847
G1 X110.66 Y132.10 E30.83930
G1 X109.94 Y132.62 E30.88397
G1 X108.12 Y135.16 E31.04000
G1 X106.50 Y135.81 E31.12714
G1 X102.44 Y140.17 E31.42419
G1 X101.73 Y139.87 E31.46250
G1 X99.91 Y141.78 E31.59401
G1 X95.63 Y139.59 E31.83372
G1 X94.64 Y139.79 E31.88432
G1 X91.09 Y139.30 E32.06321
G1 X87.31 Y138.44 E32.25622
G1 X84.28 Y136.55 E32.43469
G1 X82.25 Y135.24 E32.55530
G1 X81.05 Y133.92 E32.64413
G1 X79.84 Y132.85 E32.72444
G1 X77.41 Y128.92 E32.95518
G1 X76.33 Y125.90 E33.11528
G1 X76.27 Y125.70 E33.12584
G1 X74.94 Y123.11 E33.27103
G1 X74.13 Y114.76 E33.68939
G1 X75.87 Y111.33 E33.88181
G1 X76.56 Y109.44 E33.98161
G1 X79.24 Y105.93 E34.20228
G1 X82.34 Y102.99 E34.41536
G0 F12000 X82.56 Y103.32
G1 F2400 X87.65 Y100.96 E34.69526
G1 X91.04 Y100.41 E34.86653
G1 X92.25 Y100.27 E34.92744
G1 X94.92 Y99.80 E35.06266
G1 X96.72 Y100.30 E35.15564
G1 X97.50 Y100.22 E35.19498
G1 X100.90 Y100.37 E35.36476
G1 X105.95 Y101.69 E35.62521
G1 X108.50 Y103.58 E35.78330
G1 X111.42 Y105.36 E35.95384
G1 X114.38 Y110.54 E36.25172
G1 X115.78 Y113.93 E36.43479
G1 X116.17 Y119.50 E36.71337
G1 X115.30 Y123.23 E36.90424
G1 X114.38 Y125.77 E37.03904
G1 X112.56 Y129.02 E37.22488
G1 X110.38 Y131.81 E37.40131
G1 X109.65 Y132.34 E37.44641
G1 X107.86 Y134.84 E37.59986
G1 X106.27 Y135.47 E37.68564
G1 X102.33 Y139.69 E37.97326
G1 X101.63 Y139.40 E38.01135
G1 X99.83 Y141.29 E38.14170
G1 X95.69 Y139.17 E38.37351
G1 X94.63 Y139.38 E38.42767
G1 X91.16 Y138.91 E38.60233
G1 X87.47 Y138.06 E38.79115
G1 X84.49 Y136.22 E38.96601
G1 X82.51 Y134.93 E39.08384
G1 X81.33 Y133.63 E39.17132
G1 X80.15 Y132.59 E39.24976
G1 X77.77 Y128.75 E39.47539
G1 X76.71 Y125.78 E39.63242
G1 X76.65 Y125.56 E39.64420
G1 X75.33 Y123.00 E39.78795
G1 X74.53 Y114.84 E40.19668
G1 X76.24 Y111.48 E40.38457
G1 X76.91 Y109.64 E40.48246
G1 X79.54 Y106.20 E40.69848
G1 X82.56 Y103.32 E40.90672
G0 F12000 X82.79 Y103.66
G1 F2400 X87.77 Y101.34 E41.18059
G1 X91.09 Y100.81 E41.34863
G1 X92.32 Y100.67 E41.41004
G1 X94.90 Y100.21 E41.54096
G1 X96.68 Y100.71 E41.63321
G1 X97.51 Y100.62 E41.67495
G1 X100.84 Y100.77 E41.84104
G1 X105.77 Y102.06 E42.09556
G1 X108.28 Y103.91 E42.25113
G1 X111.12 Y105.64 E42.41695
G1 X114.02 Y110.71 E42.70841
G1 X115.38 Y114.03 E42.88701
G1 X115.77 Y119.47 E43.15934
G1 X114.92 Y123.11 E43.34600
G1 X114.01 Y125.60 E43.47804
G1 X112.23 Y128.80 E43.66069
G1 X110.10 Y131.51 E43.83275
G1 X109.36 Y132.05 E43.87828
G1 X107.61 Y134.51 E44.02915
G1 X106.03 Y135.14 E44.11354
G1 X102.23 Y139.22 E44.39177
G1 X101.53 Y138.92 E44.42971
G1 X99.74 Y140.80 E44.55889
G1 X95.75 Y138.75 E44.78287
G1 X94.61 Y138.98 E44.84055
G1 X91.23 Y138.51 E45.01093
G1 X87.62 Y137.69 E45.19555
G1 X84.70 Y135.88 E45.36689
G1 X82.77 Y134.62 E45.48191
G1 X81.61 Y133.34 E45.56788
G1 X80.46 Y132.33 E45.64452
G1 X78.13 Y128.57 E45.86508
G1 X77.09 Y125.67 E46.01905
G1 X77.03 Y125.41 E46.03222
G1 X75.72 Y122.88 E46.17434
G1 X74.94 Y114.92 E46.57340
G1 X76.61 Y111.65 E46.75658
G1 X77.27 Y109.83 E46.85278
G1 X79.84 Y106.47 E47.06414
G1 X82.79 Y103.66 E47.26747
G0 F12000 X83.02 Y103.99
G1 F2400 X87.89 Y101.73 E47.53534
G1 X91.15 Y101.20 E47.70015
G1 X92.38 Y101.06 E47.76181
G1 X94.88 Y100.62 E47.88867
G1 X96.65 Y101.11 E47.98019
G1 X97.53 Y101.02 E48.02423
G1 X100.78 Y101.16 E48.18672
G1 X105.60 Y102.43 E48.43527
G1 X108.05 Y104.24 E48.58751
G1 X110.83 Y105.93 E48.74948
G1 X113.66 Y110.89 E49.03448
G1 X114.99 Y114.12 E49.20856
G1 X115.36 Y119.44 E49.47468
G1 X114.53 Y123.00 E49.65715
G1 X113.65 Y125.43 E49.78638
G1 X111.89 Y128.58 E49.96588
G1 X109.82 Y131.22 E50.13357
G1 X109.08 Y131.76 E50.17966
G1 X107.35 Y134.18 E50.32786
G1 X105.80 Y134.80 E50.41086
G1 X102.13 Y138.74 E50.67966
G1 X101.43 Y138.45 E50.71744
G1 X99.66 Y140.30 E50.84542
G1 X95.81 Y138.33 E51.06143
G1 X94.60 Y138.57 E51.12278
G1 X91.30 Y138.12 E51.28888
G1 X87.78 Y137.31 E51.46930
G1 X84.92 Y135.54 E51.63706
G1 X83.03 Y134.31 E51.74930
G1 X81.90 Y133.06 E51.83367
G1 X80.77 Y132.07 E51.90861
G1 X78.49 Y128.40 E52.12409
G1 X77.47 Y125.55 E52.27498
G1 X77.40 Y125.27 E52.28960
G1 X76.11 Y122.77 E52.43008
G1 X75.35 Y115.00 E52.81952
G1 X76.98 Y111.80 E52.99833
G1 X77.62 Y110.03 E53.09247
G1 X80.14 Y106.73 E53.29916
G1 X83.02 Y103.99 E53.49766
G0 F12000 X83.25 Y104.33
G1 F2400 X88.01 Y102.11 E53.75948
G1 X91.20 Y101.60 E53.92105
G1 X92.44 Y101.46 E53.98297
G1 X94.86 Y101.03 E54.10582
G1 X96.61 Y101.52 E54.19656
G1 X97.54 Y101.42 E54.24296
G1 X100.72 Y101.56 E54.40186
G1 X105.42 Y102.80 E54.64448
G1 X107.83 Y104.58 E54.79390
G1 X110.53 Y106.22 E54.95144
G1 X113.30 Y111.07 E55.23001
G1 X114.59 Y114.21 E55.39961
G1 X114.96 Y119.41 E55.65948
G1 X114.15 Y122.89 E55.83774
G1 X113.28 Y125.27 E55.96416
G1 X111.56 Y128.35 E56.14051
G1 X109.54 Y130.93 E56.30382
G1 X108.79 Y131.48 E56.35035
G1 X107.09 Y133.85 E56.49597
G1 X105.57 Y134.46 E56.57756
G1 X102.03 Y138.26 E56.83701
G1 X101.33 Y137.97 E56.87456
G1 X99.58 Y139.81 E57.00135
G1 X95.86 Y137.91 E57.20955
G1 X94.59 Y138.17 E57.27441
G1 X91.37 Y137.72 E57.43622
G1 X87.93 Y136.94 E57.61245
G1 X85.13 Y135.20 E57.77664
G1 X83.30 Y134.01 E57.88612
G1 X82.18 Y132.78 E57.96915
G1 X81.08 Y131.81 E58.04215
G1 X78.85 Y128.22 E58.25256
G1 X77.86 Y125.44 E58.40037
G1 X77.78 Y125.13 E58.41622
G1 X76.50 Y122.65 E58.55526
G1 X75.76 Y115.07 E58.93506
G1 X77.34 Y111.97 E59.10892
G1 X77.98 Y110.22 E59.20156
G1 X80.43 Y107.00 E59.40362
G1 X83.25 Y104.33 E59.59725
G0 F12000 X83.48 Y104.66
G1 F2400 X88.12 Y102.50 E59.85307
G1 X91.26 Y101.99 E60.01141
G1 X92.49 Y101.85 E60.07347
G1 X94.84 Y101.44 E60.19233
G1 X96.58 Y101.93 E60.28246
G1 X97.55 Y101.83 E60.33117
G1 X100.66 Y101.96 E60.48642
G1 X105.25 Y103.17 E60.72304
G1 X107.60 Y104.90 E60.86911
G1 X110.23 Y106.51 E61.02284
G1 X112.94 Y111.24 E61.29497
G1 X114.20 Y114.30 E61.46003
G1 X114.56 Y119.37 E61.71370
G1 X113.77 Y122.77 E61.88776
G1 X112.92 Y125.10 E62.01137
G1 X111.23 Y128.13 E62.18457
G1 X109.26 Y130.64 E62.34352
G1 X108.50 Y131.19 E62.39047
G1 X106.83 Y133.53 E62.53351
G1 X105.34 Y134.12 E62.61376
G1 X101.92 Y137.79 E62.86379
G1 X101.23 Y137.50 E62.90118
G1 X99.49 Y139.32 E63.02677
G1 X95.92 Y137.49 E63.22703
G1 X94.57 Y137.76 E63.29556
G1 X91.45 Y137.33 E63.45309
G1 X88.08 Y136.56 E63.62512
G1 X85.35 Y134.87 E63.78580
G1 X83.56 Y133.70 E63.89242
G1 X82.46 Y132.49 E63.97376
G1 X81.39 Y131.55 E64.04520
G1 X79.22 Y128.05 E64.25050
G1 X78.24 Y125.32 E64.39525
G1 X78.16 Y124.98 E64.41245
G1 X76.89 Y122.53 E64.54990
G1 X76.17 Y115.15 E64.92003
G1 X77.72 Y112.12 E65.08974
G1 X78.33 Y110.42 E65.18014
G1 X80.73 Y107.27 E65.37754
G1 X83.48 Y104.66 E65.56634
G0 F12000 X83.70 Y105.00
G1 F2400 X88.24 Y102.89 E65.81615
G1 X91.31 Y102.39 E65.97125
G1 X92.54 Y102.25 E66.03276
G1 X94.82 Y101.85 E66.14837
G1 X96.54 Y102.33 E66.23772
G1 X97.56 Y102.23 E66.28879
G1 X100.60 Y102.36 E66.44045
G1 X105.07 Y103.53 E66.67108
G1 X107.39 Y105.24 E66.81472
G1 X109.94 Y106.80 E66.96370
G1 X112.58 Y111.42 E67.22940
G1 X113.81 Y114.39 E67.38994
G1 X114.15 Y119.34 E67.63741
G1 X113.38 Y122.66 E67.80722
G1 X112.55 Y124.93 E67.92805
G1 X110.89 Y127.91 E68.09815
G1 X108.98 Y130.35 E68.25272
G1 X108.22 Y130.91 E68.30000
G1 X106.58 Y133.20 E68.44053
G1 X105.11 Y133.78 E68.51944
G1 X101.82 Y137.31 E68.76004
G1 X101.13 Y137.03 E68.79728
G1 X99.41 Y138.83 E68.92167
G1 X95.98 Y137.07 E69.11407
G1 X94.56 Y137.36 E69.18616
G1 X91.52 Y136.94 E69.33941
G1 X88.24 Y136.19 E69.50720
G1 X85.56 Y134.53 E69.66433
G1 X83.82 Y133.39 E69.76821
G1 X82.74 Y132.21 E69.84824
G1 X81.69 Y131.29 E69.91767
G1 X79.58 Y127.88 E70.11793
G1 X78.62 Y125.20 E70.25961
G1 X78.53 Y124.84 E70.27815
G1 X77.28 Y122.42 E70.41401
G1 X76.58 Y115.23 E70.77452
G1 X78.08 Y112.28 E70.93952
G1 X78.69 Y110.61 E71.02816
G1 X81.03 Y107.54 E71.22094
G1 X83.70 Y105.00 E71.40487
G0 F12000 X83.93 Y105.33
G1 F2400 X88.36 Y103.27 E71.64863
G1 X91.37 Y102.79 E71.80050
G1 X92.60 Y102.65 E71.86256
G1 X94.80 Y102.26 E71.97386
G1 X96.51 Y102.74 E72.06254
G1 X97.58 Y102.63 E72.11591
G1 X100.54 Y102.75 E72.26392
G1 X104.89 Y103.90 E72.48858
G1 X107.16 Y105.57 E72.62902
G1 X109.64 Y107.08 E72.77399
G1 X112.22 Y111.59 E73.03326
G1 X113.41 Y114.49 E73.18931
G1 X113.75 Y119.31 E73.43052
G1 X113.00 Y122.54 E73.59613
G1 X112.19 Y124.77 E73.71416
G1 X110.56 Y127.69 E73.88111
G1 X108.70 Y130.06 E74.03131
G1 X107.93 Y130.62 E74.07905
G1 X106.32 Y132.87 E74.21698
G1 X104.88 Y133.44 E74.29454
G1 X101.72 Y136.84 E74.52569
G1 X101.03 Y136.55 E74.56270
G1 X99.33 Y138.34 E74.68592
G1 X96.03 Y136.65 E74.87043
G1 X94.55 Y136.95 E74.94614
G1 X91.59 Y136.54 E75.09511
G1 X88.39 Y135.81 E75.25870
G1 X85.78 Y134.19 E75.41228
G1 X84.08 Y133.09 E75.51335
G1 X83.02 Y131.92 E75.59190
G1 X82.00 Y131.03 E75.65956
G1 X79.94 Y127.70 E75.85472
G1 X79.01 Y125.08 E75.99336
G1 X78.91 Y124.70 E76.01313
G1 X77.67 Y122.31 E76.14755
G1 X76.99 Y115.31 E76.49843
G1 X78.45 Y112.43 E76.65917
G1 X79.04 Y110.80 E76.74565
G1 X81.33 Y107.81 E76.93373
G1 X83.93 Y105.33 E77.11282
G0 F12000 X84.16 Y105.67
G1 F2400 X88.48 Y103.66 E77.35058
G1 X91.42 Y103.18 E77.49921
G1 X92.66 Y103.04 E77.56153
G1 X94.78 Y102.67 E77.66873
G1 X96.47 Y103.14 E77.75662
G1 X97.59 Y103.03 E77.81241
G1 X100.48 Y103.15 E77.95677
G1 X104.72 Y104.27 E78.17550
G1 X106.94 Y105.90 E78.31297
G1 X109.34 Y107.37 E78.45374
G1 X111.86 Y111.77 E78.70657
G1 X113.02 Y114.58 E78.85809
G1 X113.35 Y119.28 E79.09310
G1 X112.61 Y122.43 E79.25451
G1 X111.82 Y124.60 E79.36972
G1 X110.22 Y127.47 E79.53352
G1 X108.42 Y129.77 E79.67935
G1 X107.64 Y130.33 E79.72752
G1 X106.06 Y132.54 E79.86288
G1 X104.64 Y133.11 E79.93905
G1 X101.61 Y136.36 E80.16080
G1 X100.93 Y136.07 E80.19761
G1 X99.24 Y137.84 E80.31967
G1 X96.09 Y136.23 E80.49632
G1 X94.53 Y136.55 E80.57559
G1 X91.66 Y136.15 E80.72028
G1 X88.55 Y135.44 E80.87968
G1 X85.99 Y133.85 E81.02971
G1 X84.34 Y132.78 E81.12800
G1 X83.30 Y131.63 E81.20507
G1 X82.31 Y130.76 E81.27089
G1 X80.30 Y127.53 E81.46097
G1 X79.39 Y124.97 E81.59656
G1 X79.28 Y124.56 E81.61777
G1 X78.06 Y122.19 E81.75056
G1 X77.40 Y115.38 E82.09172
G1 X78.82 Y112.60 E82.24755
G1 X79.40 Y111.00 E82.33260
G1 X81.63 Y108.08 E82.51597
G1 X84.16 Y105.67 E82.69023
G0 F12000 X84.39 Y106.00
G1 F2400 X88.60 Y104.05 E82.92194
G1 X91.48 Y103.58 E83.06738
G1 X92.72 Y103.44 E83.12960
G1 X94.76 Y103.08 E83.23311
G1 X96.44 Y103.55 E83.32028
G1 X97.60 Y103.43 E83.37837
G1 X100.42 Y103.55 E83.51914
G1 X104.54 Y104.64 E83.73194
G1 X106.71 Y106.23 E83.86620
G1 X109.05 Y107.66 E84.00294
G1 X111.50 Y111.95 E84.24933
G1 X112.62 Y114.67 E84.39636
G1 X112.94 Y119.25 E84.62512
G1 X112.23 Y122.31 E84.78233
G1 X111.46 Y124.43 E84.89473
G1 X109.89 Y127.25 E85.05543
G1 X108.14 Y129.48 E85.19680
G1 X107.35 Y130.05 E85.24536
G1 X105.81 Y132.21 E85.37822
G1 X104.41 Y132.77 E85.45298
G1 X101.51 Y135.88 E85.66538
G1 X100.83 Y135.60 E85.70201
G1 X99.16 Y137.35 E85.82284
G1 X96.15 Y135.81 E85.99159
G1 X94.52 Y136.14 E86.07447
G1 X91.73 Y135.76 E86.21493
G1 X88.70 Y135.06 E86.37008
G1 X86.21 Y133.52 E86.51653
G1 X84.60 Y132.47 E86.61201
G1 X83.58 Y131.35 E86.68773
G1 X82.62 Y130.50 E86.75169
G1 X80.67 Y127.35 E86.93666
G1 X79.77 Y124.85 E87.06917
G1 X79.66 Y124.41 E87.09171
G1 X78.46 Y122.07 E87.22294
G1 X77.81 Y115.46 E87.55448
G1 X79.18 Y112.76 E87.70548
G1 X79.75 Y111.19 E87.78889
G1 X81.93 Y108.34 E87.96763
G1 X84.39 Y106.00 E88.13702
G0 F12000 X84.62 Y106.34
G1 F2400 X88.72 Y104.43 E88.36273
G1 X91.53 Y103.98 E88.50489
G1 X92.78 Y103.83 E88.56756
G1 X94.74 Y103.49 E88.66681
G1 X96.41 Y103.96 E88.75321
G1 X97.61 Y103.83 E88.81376
G1 X100.36 Y103.95 E88.95088
G1 X104.37 Y105.00 E89.15769
G1 X106.50 Y106.57 E89.28959
G1 X108.75 Y107.95 E89.42147
G1 X111.14 Y112.12 E89.66145
G1 X112.23 Y114.76 E89.80396
G1 X112.54 Y119.21 E90.02652
G1 X111.84 Y122.20 E90.17954
G1 X111.09 Y124.27 E90.28912
G1 X109.55 Y127.02 E90.44669
G1 X107.86 Y129.19 E90.58366
G1 X107.06 Y129.76 E90.63276
G1 X105.55 Y131.88 E90.76297
G1 X104.18 Y132.43 E90.83630
G1 X101.41 Y135.41 E91.03931
G1 X100.73 Y135.13 E91.07578
G1 X99.08 Y136.86 E91.19537
G1 X96.21 Y135.39 E91.35616
G1 X94.51 Y135.74 E91.44271
G1 X91.81 Y135.36 E91.57889
G1 X88.86 Y134.69 E91.72985
G1 X86.42 Y133.18 E91.87275
G1 X84.86 Y132.16 E91.96545
G1 X83.86 Y131.06 E92.03986
G1 X82.93 Y130.24 E92.10180
G1 X81.03 Y127.18 E92.28169
G1 X80.16 Y124.73 E92.41117
G1 X80.04 Y124.27 E92.43495
G1 X78.85 Y121.96 E92.56472
G1 X78.22 Y115.54 E92.88663
G1 X79.55 Y112.92 E93.03322
G1 X80.11 Y111.38 E93.11461
G1 X82.22 Y108.61 E93.28869
G1 X84.62 Y106.34 E93.45325
G0 F12000 X84.84 Y106.67
G1 F2400 X88.84 Y104.82 E93.67290
G1 X91.59 Y104.37 E93.81189
G1 X92.83 Y104.23 E93.87415
G1 X94.72 Y103.90 E93.97000
G1 X96.37 Y104.36 E94.05572
G1 X97.62 Y104.23 E94.11853
G1 X100.30 Y104.35 E94.25206
G1 X104.19 Y105.37 E94.45287
G1 X106.26 Y106.90 E94.58139
G1 X108.46 Y108.23 E94.70948
G1 X110.78 Y112.30 E94.94303
G1 X111.83 Y114.86 E95.08105
G1 X112.14 Y119.18 E95.29736
G1 X111.46 Y122.09 E95.44612
G1 X110.73 Y124.10 E95.55294
G1 X109.22 Y126.80 E95.70736
G1 X107.58 Y128.90 E95.83996
G1 X106.78 Y129.48 E95.88949
G1 X105.29 Y131.56 E96.01713
G1 X103.95 Y132.09 E96.08911
G1 X101.31 Y134.93 E96.28269
G1 X100.63 Y134.65 E96.31901
G1 X98.99 Y136.37 E96.43740
G1 X96.27 Y134.97 E96.59033
G1 X94.50 Y135.33 E96.68045
G1 X91.88 Y134.97 E96.81234
G1 X89.01 Y134.31 E96.95910
G1 X86.64 Y132.84 E97.09845
G1 X85.13 Y131.86 E97.18834
G1 X84.14 Y130.77 E97.26141
G1 X83.24 Y129.98 E97.32140
G1 X81.39 Y127.00 E97.49623
G1 X80.54 Y124.62 E97.62260
G1 X80.41 Y124.13 E97.64777
G1 X79.24 Y121.84 E97.77595
G1 X78.63 Y115.61 E98.08824
G1 X79.92 Y113.08 E98.22990
G1 X80.46 Y111.58 E98.30976
G1 X82.52 Y108.88 E98.47921
G1 X84.84 Y106.67 E98.63890
G0 F12000 X85.07 Y107.01
G1 F2400 X88.95 Y105.20 E98.85250
G1 X91.64 Y104.77 E98.98825
G1 X92.89 Y104.63 E99.05076
G1 X94.70 Y104.31 E99.14256
G1 X96.34 Y104.77 E99.22746
G1 X97.64 Y104.63 E99.29272
G1 X100.24 Y104.74 E99.42261
G1 X104.02 Y105.74 E99.61746
G1 X106.04 Y107.23 E99.74320
G1 X108.16 Y108.52 E99.86686
G1 X110.42 Y112.47 E100.09401
G1 X111.44 Y114.95 E100.22746
G1 X111.73 Y119.15 E100.43757
G1 X111.08 Y121.97 E100.58212
G1 X110.36 Y123.93 E100.68613
G1 X108.89 Y126.58 E100.83740
G1 X107.30 Y128.60 E100.96567
G1 X106.49 Y129.19 E101.01551
G1 X105.03 Y131.23 E101.14064
G1 X103.72 Y131.75 E101.21122
G1 X101.20 Y134.46 E101.39545
G1 X100.53 Y134.18 E101.43154
G1 X98.91 Y135.88 E101.54873
G1 X96.32 Y134.55 E101.69376
G1 X94.48 Y134.92 E101.78750
G1 X91.95 Y134.57 E101.91512
G1 X89.16 Y133.94 E102.05768
G1 X86.85 Y132.50 E102.19344
G1 X85.39 Y131.55 E102.28062
G1 X84.43 Y130.49 E102.35192
G1 X83.55 Y129.72 E102.41036
G1 X81.75 Y126.83 E102.58012
G1 X80.92 Y124.50 E102.70341
G1 X80.79 Y123.98 E102.72993
G1 X79.63 Y121.73 E102.85653
G1 X79.04 Y115.69 E103.15915
G1 X80.29 Y113.24 E103.29655
G1 X80.82 Y111.77 E103.37429
G1 X82.82 Y109.15 E103.53905
G1 X85.07 Y107.01 E103.69394
G0 F12000 X85.30 Y107.34
G1 F2400 X89.07 Y105.59 E103.90149
G1 X91.69 Y105.17 E104.03401
G1 X92.95 Y105.02 E104.09687
G1 X94.68 Y104.72 E104.18452
G1 X96.30 Y105.17 E104.26878
G1 X97.65 Y105.03 E104.33631
G1 X100.18 Y105.14 E104.46260
G1 X103.84 Y106.10 E104.65151
G1 X105.81 Y107.56 E104.77388
G1 X107.86 Y108.81 E104.89370
G1 X110.06 Y112.65 E105.11441
G1 X111.04 Y115.04 E105.24332
G1 X111.33 Y119.12 E105.44723
G1 X110.69 Y121.86 E105.58758
G1 X110.00 Y123.76 E105.68878
G1 X108.55 Y126.36 E105.83690
G1 X107.02 Y128.31 E105.96080
G1 X106.20 Y128.90 E106.01114
G1 X104.78 Y130.90 E106.13363
G1 X103.49 Y131.41 E106.20286
G1 X101.10 Y133.98 E106.37763
G1 X100.44 Y133.70 E106.41350
G1 X98.83 Y135.38 E106.52953
G1 X96.38 Y134.13 E106.66670
G1 X94.47 Y134.52 E106.76400
G1 X92.02 Y134.18 E106.88734
G1 X89.32 Y133.56 E107.02570
G1 X87.06 Y132.17 E107.15794
G1 X85.65 Y131.24 E107.24227
G1 X84.71 Y130.21 E107.31216
G1 X83.86 Y129.46 E107.36876
G1 X82.11 Y126.65 E107.53340
G1 X81.30 Y124.38 E107.65366
G1 X81.17 Y123.84 E107.68140
G1 X80.02 Y121.61 E107.80656
G1 X79.45 Y115.77 E108.09954
G1 X80.66 Y113.39 E108.23241
G1 X81.17 Y111.97 E108.30823
G1 X83.12 Y109.42 E108.46836
G1 X85.30 Y107.34 E108.61838
G0 F12000 X85.53 Y107.68
G1 F2400 X89.19 Y105.97 E108.81993
G1 X91.75 Y105.56 E108.94921
G1 X93.00 Y105.42 E109.01207
G1 X94.66 Y105.13 E109.09593
G1 X96.27 Y105.58 E109.17943
G1 X97.66 Y105.43 E109.24931
G1 X100.12 Y105.54 E109.37196
G1 X103.66 Y106.47 E109.55492
G1 X105.60 Y107.90 E109.67487
G1 X107.57 Y109.10 E109.78994
G1 X109.70 Y112.83 E110.00420
G1 X110.65 Y115.13 E110.12865
G1 X110.93 Y119.09 E110.32630
G1 X110.31 Y121.74 E110.46246
G1 X109.63 Y123.60 E110.56085
G1 X108.22 Y126.14 E110.70582
G1 X106.74 Y128.02 E110.82534
G1 X105.92 Y128.62 E110.87605
G1 X104.52 Y130.57 E110.99603
G1 X103.25 Y131.08 E111.06398
G1 X101.00 Y133.50 E111.22929
G1 X100.33 Y133.23 E111.26496
G1 X98.75 Y134.89 E111.37978
G1 X96.44 Y133.71 E111.50906
G1 X94.46 Y134.11 E111.60993
G1 X92.09 Y133.79 E111.72904
G1 X89.47 Y133.19 E111.86315
G1 X87.28 Y131.83 E111.99188
G1 X85.91 Y130.94 E112.07344
G1 X84.99 Y129.92 E112.14178
G1 X84.16 Y129.20 E112.19661
G1 X82.48 Y126.48 E112.35618
G1 X81.69 Y124.27 E112.47338
G1 X81.54 Y123.70 E112.50261
G1 X80.41 Y121.50 E112.62605
G1 X79.86 Y115.85 E112.90942
G1 X81.02 Y113.55 E113.03780
G1 X81.53 Y112.16 E113.11166
G1 X83.42 Y109.68 E113.26716
G1 X85.53 Y107.68 E113.41231
G0 F12000 X85.76 Y108.02
G1 F2400 X89.31 Y106.36 E113.60783
G1 X91.81 Y105.96 E113.73392
G1 X93.06 Y105.81 E113.79699
G1 X94.64 Y105.54 E113.87684
G1 X96.23 Y105.99 E113.95966
G1 X97.67 Y105.83 E114.03186
G1 X100.06 Y105.94 E114.15086
G1 X103.49 Y106.84 E114.32784
G1 X105.37 Y108.23 E114.44458
G1 X107.27 Y109.39 E114.55566
G1 X109.34 Y113.00 E114.76348
G1 X110.25 Y115.23 E114.88340
G1 X110.52 Y119.05 E115.07485
G1 X109.92 Y121.63 E115.20681
G1 X109.27 Y123.43 E115.30243
G1 X107.88 Y125.91 E115.44424
G1 X106.46 Y127.73 E115.55936
G1 X105.63 Y128.33 E115.61060
G1 X104.26 Y130.24 E115.72786
G1 X103.02 Y130.74 E115.79441
G1 X100.89 Y133.03 E115.95040
G1 X100.23 Y132.75 E115.98592
G1 X98.66 Y134.40 E116.09957
G1 X96.50 Y133.29 E116.22089
G1 X94.44 Y133.71 E116.32535
G1 X92.17 Y133.39 E116.44018
G1 X89.63 Y132.81 E116.57010
G1 X87.50 Y131.49 E116.69524
G1 X86.17 Y130.63 E116.77402
G1 X85.27 Y129.64 E116.84070
G1 X84.47 Y128.94 E116.89393
G1 X82.84 Y126.30 E117.04844
G1 X82.07 Y124.15 E117.16256
G1 X81.92 Y123.56 E117.19314
G1 X80.80 Y121.38 E117.31499
G1 X80.27 Y115.92 E117.58868
G1 X81.39 Y113.72 E117.71227
G1 X81.88 Y112.35 E117.78452
G1 X83.72 Y109.95 E117.93536
G1 X85.76 Y108.02 E118.07564
G0 F12000 X85.98 Y108.35
G1 F2400 X89.43 Y106.75 E118.26514
G1 X91.86 Y106.35 E118.38796
G1 X93.11 Y106.21 E118.45097
G1 X94.62 Y105.95 E118.52707
G1 X96.20 Y106.39 E118.60916
G1 X97.69 Y106.23 E118.68371
G1 X100.00 Y106.33 E118.79912
G1 X103.31 Y107.21 E118.97013
G1 X105.15 Y108.56 E119.08390
G1 X106.98 Y109.67 E119.19077
G1 X108.98 Y113.18 E119.39216
G1 X109.86 Y115.32 E119.50760
G1 X110.12 Y119.02 E119.69279
G1 X109.54 Y121.52 E119.82054
G1 X108.90 Y123.26 E119.91336
G1 X107.55 Y125.69 E120.05201
G1 X106.18 Y127.44 E120.16276
G1 X105.34 Y128.05 E120.21450
G1 X104.00 Y129.92 E120.32915
G1 X102.79 Y130.40 E120.39420
G1 X100.79 Y132.55 E120.54087
G1 X100.14 Y132.28 E120.57620
G1 X98.58 Y133.91 E120.68863
G1 X96.55 Y132.87 E120.80211
G1 X94.43 Y133.30 E120.91015
G1 X92.24 Y133.00 E121.02069
G1 X89.78 Y132.44 E121.14641
G1 X87.71 Y131.15 E121.26803
G1 X86.43 Y130.32 E121.34400
G1 X85.55 Y129.35 E121.40938
G1 X84.78 Y128.67 E121.46060
G1 X83.20 Y126.13 E121.61002
G1 X82.45 Y124.03 E121.72112
G1 X82.30 Y123.41 E121.75293
G1 X81.19 Y121.27 E121.87333
G1 X80.68 Y116.00 E122.13740
G1 X81.76 Y113.87 E122.25659
G1 X82.24 Y112.55 E122.32679
G1 X84.02 Y110.22 E122.47300
G1 X85.98 Y108.35 E122.60840
G0 F12000 X86.21 Y108.69
G1 F2400 X89.55 Y107.13 E122.79186
G1 X91.91 Y106.75 E122.91148
G1 X93.17 Y106.61 E122.97475
G1 X94.60 Y106.36 E123.04679
G1 X96.17 Y106.80 E123.12811
G1 X97.70 Y106.64 E123.20506
G1 X99.94 Y106.73 E123.31681
G1 X103.14 Y107.57 E123.48190
G1 X104.93 Y108.89 E123.59279
G1 X106.68 Y109.96 E123.69527
G1 X108.62 Y113.36 E123.89026
G1 X109.47 Y115.41 E124.00116
G1 X109.72 Y118.99 E124.18016
G1 X109.16 Y121.40 E124.30366
G1 X108.54 Y123.10 E124.39371
G1 X107.22 Y125.47 E124.52921
G1 X105.90 Y127.15 E124.63559
G1 X105.05 Y127.76 E124.68777
G1 X103.75 Y129.59 E124.79984
G1 X102.56 Y130.06 E124.86354
G1 X100.69 Y132.07 E125.00079
G1 X100.03 Y131.80 E125.03597
G1 X98.50 Y133.41 E125.14719
G1 X96.61 Y132.45 E125.25275
G1 X94.42 Y132.90 E125.36440
G1 X92.31 Y132.60 E125.47067
G1 X89.93 Y132.06 E125.59220
G1 X87.92 Y130.82 E125.71021
G1 X86.69 Y130.01 E125.78344
G1 X85.83 Y129.06 E125.84765
G1 X85.09 Y128.41 E125.89675
G1 X83.56 Y125.95 E126.04107
G1 X82.84 Y123.92 E126.14910
G1 X82.67 Y123.27 E126.18225
G1 X81.58 Y121.15 E126.30107
G1 X81.09 Y116.08 E126.55552
G1 X82.13 Y114.03 E126.67009
G1 X82.59 Y112.74 E126.73849
G1 X84.31 Y110.49 E126.88001
G1 X86.21 Y108.69 E127.01058
G0 F12000 X86.44 Y109.02
G1 F2400 X89.67 Y107.52 E127.18803
G1 X91.97 Y107.15 E127.30442
G1 X93.23 Y107.00 E127.36794
G1 X94.58 Y106.77 E127.43588
G1 X96.13 Y107.20 E127.51652
G1 X97.71 Y107.04 E127.59578
G1 X99.88 Y107.13 E127.70394
G1 X102.96 Y107.94 E127.86303
G1 X104.71 Y109.23 E127.97121
G1 X106.38 Y110.25 E128.06923
G1 X108.26 Y113.53 E128.25778
G1 X109.07 Y115.50 E128.36416
G1 X109.31 Y118.96 E128.53696
G1 X108.77 Y121.29 E128.65626
G1 X108.17 Y122.93 E128.74349
G1 X106.88 Y125.25 E128.87587
G1 X105.62 Y126.86 E128.97787
G1 X104.77 Y127.48 E129.03054
G1 X103.49 Y129.26 E129.13997
G1 X102.33 Y129.72 E129.20233
G1 X100.58 Y131.60 E129.33015
G1 X99.94 Y131.33 E129.36511
G1 X98.41 Y132.92 E129.47513
G1 X96.67 Y132.03 E129.57284
G1 X94.41 Y132.49 E129.68805
G1 X92.38 Y132.21 E129.79003
G1 X90.09 Y131.69 E129.90737
G1 X88.14 Y130.48 E130.02182
G1 X86.96 Y129.71 E130.09224
G1 X86.11 Y128.78 E130.15497
G1 X85.40 Y128.15 E130.20230
G1 X83.93 Y125.78 E130.34155
G1 X83.22 Y123.80 E130.44646
G1 X83.05 Y123.13 E130.48101
G1 X81.97 Y121.04 E130.59824
G1 X81.50 Y116.16 E130.84301
G1 X82.49 Y114.20 E130.95265
G1 X82.95 Y112.94 E131.01957
G1 X84.61 Y110.75 E131.15646
G1 X86.44 Y109.02 E131.28216
G0 F12000 X86.67 Y109.36
G1 F2400 X89.78 Y107.91 E131.45356
G1 X92.02 Y107.54 E131.56672
G1 X93.25 Y107.40 E131.62848
G1 X93.26 Y107.40 E131.62898
G1 X94.56 Y107.17 E131.69444
G1 X96.10 Y107.61 E131.77431
G1 X97.72 Y107.44 E131.85593
G1 X99.82 Y107.53 E131.96050
G1 X102.78 Y108.31 E132.11360
G1 X104.48 Y109.56 E132.21874
G1 X106.09 Y110.54 E132.31258
G1 X107.90 Y113.71 E132.49473
G1 X108.68 Y115.60 E132.59661
G1 X108.91 Y118.93 E132.76316
G1 X108.39 Y121.17 E132.87827
G1 X107.81 Y122.76 E132.96268
G1 X106.55 Y125.03 E133.09190
G1 X105.34 Y126.57 E133.18957
G1 X104.48 Y127.19 E133.24260
G1 X103.23 Y128.93 E133.34949
G1 X102.10 Y129.38 E133.41046
G1 X100.48 Y131.12 E133.52886
G1 X99.84 Y130.85 E133.56361
G1 X98.33 Y132.43 E133.67251
G1 X96.73 Y131.61 E133.76231
G1 X94.39 Y132.09 E133.88115
G1 X92.45 Y131.82 E133.97885
G1 X90.24 Y131.31 E134.09199
G1 X88.35 Y130.14 E134.20290
G1 X87.22 Y129.40 E134.27054
G1 X86.39 Y128.49 E134.33178
G1 X85.71 Y127.89 E134.37728
G1 X84.29 Y125.61 E134.51144
G1 X83.60 Y123.68 E134.61332
G1 X83.42 Y122.99 E134.64915
G1 X82.36 Y120.92 E134.76493
G1 X81.91 Y116.23 E135.00002
G1 X82.86 Y114.35 E135.10525
G1 X83.30 Y113.13 E135.17014
G1 X84.91 Y111.02 E135.30241
G1 X86.67 Y109.36 E135.42324
G0 F12000 X86.90 Y109.69
G1 F2400 X89.90 Y108.29 E135.58863
G1 X92.08 Y107.94 E135.69856
G1 X93.27 Y107.80 E135.75821
G1 X93.29 Y107.81 E135.75936
G1 X94.53 Y107.58 E135.82249
G1 X96.06 Y108.02 E135.90158
G1 X97.74 Y107.84 E135.98561
G1 X99.76 Y107.93 E136.08649
G1 X102.61 Y108.68 E136.23366
G1 X104.26 Y109.89 E136.33603
G1 X105.79 Y110.83 E136.42543
G1 X107.54 Y113.88 E136.60115
G1 X108.28 Y115.69 E136.69851
G1 X108.51 Y118.89 E136.85885
G1 X108.00 Y121.06 E136.96975
G1 X107.44 Y122.60 E137.05135
G1 X106.21 Y124.80 E137.17745
G1 X105.06 Y126.28 E137.27067
G1 X104.19 Y126.90 E137.32406
G1 X102.98 Y128.60 E137.42849
G1 X101.87 Y129.05 E137.48812
G1 X100.38 Y130.65 E137.59709
G1 X99.74 Y130.38 E137.63167
G1 X98.25 Y131.94 E137.73933
G1 X96.78 Y131.19 E137.82128
G1 X94.38 Y131.68 E137.94367
G1 X92.53 Y131.42 E138.03710
G1 X90.40 Y130.94 E138.14603
G1 X88.57 Y129.80 E138.25338
G1 X87.48 Y129.09 E138.31821
G1 X86.67 Y128.21 E138.37808
G1 X86.02 Y127.63 E138.42166
G1 X84.65 Y125.43 E138.55076
G1 X83.98 Y123.56 E138.64958
G1 X83.80 Y122.84 E138.68680
G1 X82.75 Y120.81 E138.80095
G1 X82.31 Y116.31 E139.02642
G1 X83.23 Y114.52 E139.12687
G1 X83.66 Y113.32 E139.19008
G1 X85.21 Y111.29 E139.31768
G1 X86.90 Y109.69 E139.43368
G0 F12000 X87.12 Y110.03
G1 F2400 X90.02 Y108.68 E139.59307
G1 X92.13 Y108.34 E139.69971
G1 X93.28 Y108.20 E139.75731
G1 X93.32 Y108.21 E139.75916
G1 X94.51 Y108.00 E139.81985
G1 X96.03 Y108.42 E139.89826
G1 X97.75 Y108.24 E139.98459
G1 X99.70 Y108.32 E140.08187
G1 X102.43 Y109.04 E140.22307
G1 X104.03 Y110.22 E140.32204
G1 X105.50 Y111.11 E140.40766
G1 X107.18 Y114.06 E140.57694
G1 X107.89 Y115.78 E140.66983
G1 X108.10 Y118.86 E140.82392
G1 X107.62 Y120.94 E140.93062
G1 X107.08 Y122.43 E141.00941
G1 X105.88 Y124.58 E141.13236
G1 X104.78 Y125.98 E141.22121
G1 X103.91 Y126.62 E141.27506
G1 X102.72 Y128.28 E141.37687
G1 X101.63 Y128.71 E141.43515
G1 X100.27 Y130.17 E141.53470
G1 X99.64 Y129.90 E141.56912
G1 X98.16 Y131.45 E141.67558
G1 X96.84 Y130.77 E141.74959
G1 X94.37 Y131.27 E141.87565
G1 X92.60 Y131.03 E141.96480
G1 X90.55 Y130.56 E142.06954
G1 X88.78 Y129.47 E142.17333
G1 X87.74 Y128.79 E142.23539
G1 X86.95 Y127.92 E142.29374
G1 X86.32 Y127.37 E142.33559
G1 X85.01 Y125.25 E142.45959
G1 X84.37 Y123.45 E142.55532
G1 X84.18 Y122.70 E142.59383
G1 X83.14 Y120.69 E142.70647
G1 X82.72 Y116.39 E142.92226
G1 X83.60 Y114.67 E143.01840
G1 X84.01 Y113.52 E143.07957
G1 X85.51 Y111.56 E143.20247
G1 X87.12 Y110.03 E143.31363
G0 F12000 X87.35 Y110.36
G1 F2400 X90.14 Y109.06 E143.46697
G1 X92.19 Y108.73 E143.57043
G1 X93.29 Y108.61 E143.62597
G1 X93.34 Y108.61 E143.62846
G1 X94.49 Y108.41 E143.68677
G1 X95.99 Y108.83 E143.76440
G1 X97.76 Y108.64 E143.85315
G1 X99.64 Y108.72 E143.94678
G1 X102.26 Y109.41 E144.08203
G1 X103.81 Y110.56 E144.17857
G1 X105.20 Y111.40 E144.25942
G1 X106.82 Y114.23 E144.42226
G1 X107.49 Y115.87 E144.51061
G1 X107.70 Y118.83 E144.65850
G1 X107.23 Y120.83 E144.76095
G1 X106.71 Y122.26 E144.83698
G1 X105.54 Y124.36 E144.95678
G1 X104.50 Y125.69 E145.04126
G1 X103.62 Y126.33 E145.09565
G1 X102.46 Y127.95 E145.19482
G1 X101.40 Y128.37 E145.25164
G1 X100.17 Y129.69 E145.34184
G1 X99.54 Y129.43 E145.37605
G1 X98.08 Y130.96 E145.48135
G1 X96.90 Y130.35 E145.54755
G1 X94.35 Y130.87 E145.67713
G1 X92.67 Y130.64 E145.76203
G1 X90.70 Y130.19 E145.86249
G1 X89.00 Y129.13 E145.96277
G1 X88.00 Y128.48 E146.02201
G1 X87.24 Y127.64 E146.07881
G1 X86.63 Y127.11 E146.11893
G1 X85.38 Y125.08 E146.23781
G1 X84.75 Y123.33 E146.33054
G1 X84.56 Y122.56 E146.37032
G1 X83.53 Y120.58 E146.48147
G1 X83.13 Y116.47 E146.68763
G1 X83.97 Y114.83 E146.77918
G1 X84.37 Y113.71 E146.83850
G1 X85.81 Y111.83 E146.95671
G1 X87.35 Y110.36 E147.06303
G0 F12000 X87.58 Y110.69
G1 F2400 X90.26 Y109.45 E147.21037
G1 X92.24 Y109.13 E147.31059
G1 X93.31 Y109.01 E147.36402
G1 X93.37 Y109.01 E147.36717
G1 X94.47 Y108.81 E147.42315
G1 X95.96 Y109.23 E147.50010
G1 X97.77 Y109.04 E147.59110
G1 X99.58 Y109.12 E147.68114
G1 X102.08 Y109.78 E147.81042
G1 X103.58 Y110.89 E147.90346
G1 X104.90 Y111.69 E147.98060
G1 X106.46 Y114.41 E148.13705
G1 X107.10 Y115.97 E148.22088
G1 X107.30 Y118.80 E148.36251
G1 X106.85 Y120.72 E148.46077
G1 X106.35 Y122.09 E148.53398
G1 X105.21 Y124.14 E148.65063
G1 X104.22 Y125.40 E148.73074
G1 X103.33 Y126.05 E148.78552
G1 X102.20 Y127.62 E148.88214
G1 X101.17 Y128.03 E148.93758
G1 X100.07 Y129.22 E149.01838
G1 X99.44 Y128.96 E149.05242
G1 X98.00 Y130.46 E149.15648
G1 X96.96 Y129.93 E149.21479
G1 X94.34 Y130.46 E149.34797
G1 X92.74 Y130.24 E149.42860
G1 X90.86 Y129.81 E149.52485
G1 X89.21 Y128.79 E149.62158
G1 X88.26 Y128.17 E149.67805
G1 X87.52 Y127.35 E149.73357
G1 X86.94 Y126.84 E149.77165
G1 X85.74 Y124.91 E149.88549
G1 X85.13 Y123.21 E149.97514
G1 X84.93 Y122.42 E150.01622
G1 X83.92 Y120.46 E150.12582
G1 X83.54 Y116.54 E150.32237
G1 X84.33 Y114.98 E150.40949
G1 X84.72 Y113.91 E150.46680
G1 X86.11 Y112.10 E150.58037
G1 X87.58 Y110.69 E150.68183
G0 F12000 X87.81 Y111.03
G1 F2400 X90.38 Y109.84 E150.82312
G1 X92.30 Y109.53 E150.92011
G1 X93.32 Y109.41 E150.97148
G1 X93.39 Y109.41 E150.97522
G1 X94.45 Y109.22 E151.02888
G1 X95.92 Y109.64 E151.10507
G1 X97.78 Y109.44 E151.19848
G1 X99.52 Y109.52 E151.28492
G1 X101.91 Y110.14 E151.40821
G1 X103.36 Y111.22 E151.49858
G1 X104.61 Y111.98 E151.57122
G1 X106.10 Y114.59 E151.72123
G1 X106.70 Y116.06 E151.80052
G1 X106.89 Y118.77 E151.93595
G1 X106.47 Y120.60 E152.03000
G1 X105.98 Y121.93 E152.10040
G1 X104.88 Y123.92 E152.21393
G1 X103.94 Y125.11 E152.28964
G1 X103.04 Y125.76 E152.34491
G1 X101.95 Y127.29 E152.43889
G1 X100.94 Y127.69 E152.49294
G1 X99.97 Y128.74 E152.56435
G1 X99.34 Y128.48 E152.59819
G1 X97.91 Y129.97 E152.70108
G1 X97.01 Y129.51 E152.75153
G1 X94.33 Y130.06 E152.88829
G1 X92.81 Y129.85 E152.96464
G1 X91.01 Y129.44 E153.05669
G1 X89.43 Y128.45 E153.14988
G1 X88.53 Y127.87 E153.20353
G1 X87.80 Y127.07 E153.25739
G1 X87.25 Y126.58 E153.29387
G1 X86.10 Y124.73 E153.40265
G1 X85.52 Y123.10 E153.48922
G1 X85.31 Y122.27 E153.53163
G1 X84.32 Y120.35 E153.63967
G1 X83.95 Y116.62 E153.82659
G1 X84.70 Y115.15 E153.90888
G1 X85.08 Y114.10 E153.96459
G1 X86.41 Y112.36 E154.07350
G1 X87.81 Y111.03 E154.17013
G0 F12000 X88.04 Y111.36
G1 F2400 X90.50 Y110.22 E154.30541
G1 X92.35 Y109.92 E154.39917
G1 X93.33 Y109.81 E154.44848
G1 X93.42 Y109.81 E154.45287
G1 X94.43 Y109.63 E154.50415
G1 X95.89 Y110.04 E154.57966
G1 X97.80 Y109.84 E154.67538
G1 X99.46 Y109.91 E154.75817
G1 X101.73 Y110.51 E154.87549
G1 X103.14 Y111.55 E154.96269
G1 X104.31 Y112.27 E155.03130
G1 X105.74 Y114.76 E155.17485
G1 X106.31 Y116.15 E155.24963
G1 X106.49 Y118.73 E155.37887
G1 X106.08 Y120.49 E155.46871
G1 X105.62 Y121.76 E155.53631
G1 X104.54 Y123.69 E155.64668
G1 X103.66 Y124.82 E155.71805
G1 X102.76 Y125.47 E155.77362
G1 X101.69 Y126.96 E155.86513
G1 X100.71 Y127.36 E155.91788
G1 X99.86 Y128.26 E155.97980
G1 X99.24 Y128.00 E156.01346
G1 X97.83 Y129.48 E156.11515
G1 X97.06 Y129.08 E156.15837
G1 X97.04 Y129.10 E156.15952
G1 X94.31 Y129.65 E156.29830
G1 X92.88 Y129.45 E156.37037
G1 X91.17 Y129.06 E156.45824
G1 X89.64 Y128.12 E156.54784
G1 X88.79 Y127.56 E156.59872
G1 X88.08 Y126.78 E156.65138
G1 X87.56 Y126.32 E156.68578
G1 X86.46 Y124.56 E156.78940
G1 X85.90 Y122.98 E156.87296
G1 X85.69 Y122.13 E156.91661
G1 X84.71 Y120.23 E157.02320
G1 X84.36 Y116.70 E157.20044
G1 X85.07 Y115.31 E157.27822
G1 X85.44 Y114.29 E157.33202
G1 X86.70 Y112.63 E157.43631
G1 X88.04 Y111.36 E157.52806
G0 F12000 X88.27 Y111.70
G1 F2400 X90.61 Y110.61 E157.65729
G1 X92.41 Y110.32 E157.74786
G1 X93.35 Y110.21 E157.79506
G1 X93.44 Y110.22 E157.79980
G1 X94.41 Y110.04 E157.84899
G1 X95.88 Y110.46 E157.92498
G1 X95.91 Y110.44 E157.92661
G1 X97.81 Y110.24 E158.02202
G1 X99.39 Y110.31 E158.10117
G1 X101.56 Y110.88 E158.21260
G1 X102.91 Y111.88 E158.29684
G1 X104.02 Y112.55 E158.36119
G1 X105.38 Y114.94 E158.49831
G1 X105.92 Y116.24 E158.56860
G1 X106.09 Y118.70 E158.69153
G1 X105.70 Y120.37 E158.77722
G1 X105.25 Y121.59 E158.84201
G1 X104.21 Y123.47 E158.94924
G1 X103.38 Y124.53 E159.01624
G1 X102.47 Y125.19 E159.07223
G1 X101.43 Y126.64 E159.16117
G1 X100.48 Y127.02 E159.21253
G1 X99.76 Y127.79 E159.26506
G1 X99.17 Y127.54 E159.29715
G1 X99.11 Y127.56 E159.30026
G1 X97.75 Y128.99 E159.39843
G1 X97.03 Y128.62 E159.43846
G1 X96.89 Y128.72 E159.44739
G1 X94.30 Y129.25 E159.57890
G1 X92.96 Y129.06 E159.64669
G1 X91.32 Y128.69 E159.73035
G1 X89.86 Y127.78 E159.81637
G1 X89.05 Y127.25 E159.86450
G1 X88.36 Y126.49 E159.91567
G1 X87.87 Y126.06 E159.94823
G1 X86.83 Y124.38 E160.04682
G1 X86.28 Y122.86 E160.12725
G1 X86.06 Y121.99 E160.17233
G1 X85.10 Y120.12 E160.27730
G1 X84.77 Y116.77 E160.44492
G1 X85.44 Y115.47 E160.51808
G1 X85.79 Y114.49 E160.57008
G1 X87.00 Y112.90 E160.66971
G1 X88.27 Y111.70 E160.75659
G0 F12000 X88.49 Y112.03
G1 F2400 X90.73 Y110.99 E160.87982
G1 X92.46 Y110.71 E160.96711
G1 X93.36 Y110.61 E161.01229
G1 X93.47 Y110.62 E161.01769
G1 X94.39 Y110.45 E161.06450
G1 X95.91 Y110.88 E161.14295
G1 X96.01 Y110.84 E161.14852
G1 X97.82 Y110.64 E161.23952
G1 X99.33 Y110.71 E161.31503
G1 X101.38 Y111.25 E161.42046
G1 X102.70 Y112.22 E161.50223
G1 X103.72 Y112.84 E161.56188
G1 X105.02 Y115.12 E161.69256
G1 X105.52 Y116.33 E161.75833
G1 X105.69 Y118.67 E161.87506
G1 X105.31 Y120.26 E161.95651
G1 X104.89 Y121.43 E162.01853
G1 X103.87 Y123.25 E162.12261
G1 X103.10 Y124.24 E162.18524
G1 X102.18 Y124.90 E162.24170
G1 X101.18 Y126.31 E162.32804
G1 X100.24 Y126.68 E162.37808
G1 X99.66 Y127.31 E162.42122
G1 X99.17 Y127.11 E162.44759
G1 X98.97 Y127.19 E162.45822
G1 X98.90 Y127.20 E162.46156
G1 X97.67 Y128.50 E162.55098
G1 X97.01 Y128.16 E162.58775
G1 X96.73 Y128.34 E162.60449
G1 X94.29 Y128.84 E162.72871
G1 X93.03 Y128.67 E162.79222
G1 X91.47 Y128.31 E162.87169
G1 X90.07 Y127.44 E162.95419
G1 X89.31 Y126.94 E162.99951
G1 X88.64 Y126.21 E163.04906
G1 X88.18 Y125.80 E163.07995
G1 X87.19 Y124.21 E163.17347
G1 X86.67 Y122.75 E163.25083
G1 X86.44 Y121.84 E163.29737
G1 X85.49 Y120.00 E163.40063
G1 X85.18 Y116.85 E163.55863
G1 X85.80 Y115.63 E163.62702
G1 X86.15 Y114.68 E163.67733
G1 X87.30 Y113.17 E163.77229
G1 X88.49 Y112.03 E163.85434
G0 F12000 X88.72 Y112.37
G1 F2400 X90.85 Y111.38 E163.97155
G1 X92.52 Y111.11 E164.05565
G1 X93.37 Y111.01 E164.09873
G1 X93.50 Y111.02 E164.10482
G1 X94.37 Y110.86 E164.14925
G1 X95.93 Y111.30 E164.23004
G1 X96.11 Y111.23 E164.23973
G1 X97.83 Y111.05 E164.32626
G1 X99.28 Y111.11 E164.39817
G1 X101.20 Y111.61 E164.49763
G1 X102.47 Y112.55 E164.57598
G1 X103.42 Y113.13 E164.63180
G1 X104.66 Y115.29 E164.75607
G1 X105.13 Y116.43 E164.81734
G1 X105.28 Y118.64 E164.92783
G1 X104.93 Y120.14 E165.00508
G1 X104.52 Y121.26 E165.06433
G1 X103.54 Y123.03 E165.16521
G1 X102.82 Y123.95 E165.22347
G1 X101.89 Y124.62 E165.28050
G1 X100.92 Y125.98 E165.36415
G1 X100.01 Y126.34 E165.41276
G1 X99.55 Y126.84 E165.44651
G1 X99.17 Y126.68 E165.46715
G1 X98.86 Y126.80 E165.48381
G1 X98.70 Y126.83 E165.49170
G1 X97.58 Y128.00 E165.57282
G1 X96.98 Y127.70 E165.60636
G1 X96.57 Y127.97 E165.63088
G1 X94.28 Y128.44 E165.74778
G1 X93.10 Y128.27 E165.80706
G1 X91.63 Y127.94 E165.88233
G1 X90.28 Y127.10 E165.96124
G1 X89.57 Y126.64 E166.00378
G1 X88.92 Y125.92 E166.05199
G1 X88.48 Y125.54 E166.08094
G1 X87.55 Y124.03 E166.16935
G1 X87.05 Y122.63 E166.24370
G1 X86.81 Y121.70 E166.29167
G1 X85.88 Y119.89 E166.39326
G1 X85.59 Y116.93 E166.54159
G1 X86.17 Y115.79 E166.60541
G1 X86.50 Y114.88 E166.65390
G1 X87.60 Y113.44 E166.74424
G1 X88.72 Y112.37 E166.82138
G0 F12000 X88.95 Y112.71
G1 F2400 X90.97 Y111.77 E166.93258
G1 X92.57 Y111.51 E167.01344
G1 X93.39 Y111.41 E167.05442
G1 X93.52 Y111.42 E167.06106
G1 X94.35 Y111.27 E167.10321
G1 X95.87 Y111.70 E167.18204
G1 X95.96 Y111.73 E167.18651
G1 X96.21 Y111.62 E167.20021
G1 X97.85 Y111.45 E167.28228
G1 X99.22 Y111.51 E167.35060
G1 X101.03 Y111.98 E167.44407
G1 X102.25 Y112.88 E167.51974
G1 X103.13 Y113.42 E167.57106
G1 X104.30 Y115.47 E167.68890
G1 X104.73 Y116.52 E167.74565
G1 X104.88 Y118.61 E167.84993
G1 X104.55 Y120.03 E167.92298
G1 X104.16 Y121.09 E167.97940
G1 X103.20 Y122.81 E168.07718
G1 X102.54 Y123.66 E168.13103
G1 X101.61 Y124.33 E168.18843
G1 X100.66 Y125.65 E168.26957
G1 X99.78 Y126.00 E168.31679
G1 X99.45 Y126.36 E168.34114
G1 X99.17 Y126.25 E168.35600
G1 X98.75 Y126.41 E168.37866
G1 X98.51 Y126.45 E168.39105
G1 X97.50 Y127.51 E168.46392
G1 X96.96 Y127.24 E168.49397
G1 X96.94 Y127.25 E168.49507
G1 X96.42 Y127.59 E168.52639
G1 X94.26 Y128.03 E168.63606
G1 X93.17 Y127.88 E168.69106
G1 X91.78 Y127.56 E168.76208
G1 X90.50 Y126.77 E168.83747
G1 X89.83 Y126.33 E168.87724
G1 X89.20 Y125.64 E168.92379
G1 X88.79 Y125.28 E168.95112
G1 X87.91 Y123.86 E169.03445
G1 X87.43 Y122.51 E169.10571
G1 X87.19 Y121.56 E169.15497
G1 X86.27 Y119.77 E169.25507
G1 X86.00 Y117.01 E169.39376
G1 X86.54 Y115.94 E169.45320
G1 X86.86 Y115.07 E169.49962
G1 X87.90 Y113.70 E169.58529
G1 X88.95 Y112.71 E169.65760
G0 F12000 X89.18 Y113.04
G1 F2400 X91.09 Y112.15 E169.76275
G1 X92.62 Y111.90 E169.84038
G1 X93.40 Y111.81 E169.87935
G1 X93.55 Y111.82 E169.88659
G1 X94.33 Y111.68 E169.92641
G1 X95.76 Y112.09 E170.00058
G1 X95.98 Y112.15 E170.01201
G1 X96.31 Y112.01 E170.02988
G1 X97.86 Y111.85 E170.10754
G1 X99.16 Y111.90 E170.17221
G1 X100.85 Y112.35 E170.25976
G1 X102.02 Y113.21 E170.33229
G1 X102.83 Y113.71 E170.37951
G1 X103.94 Y115.64 E170.49091
G1 X104.34 Y116.61 E170.54317
G1 X104.47 Y118.57 E170.64120
G1 X104.16 Y119.92 E170.71005
G1 X103.80 Y120.93 E170.76366
G1 X102.87 Y122.58 E170.85834
G1 X102.26 Y123.36 E170.90774
G1 X101.32 Y124.04 E170.96559
G1 X100.40 Y125.32 E171.04416
G1 X99.55 Y125.66 E171.08997
G1 X99.35 Y125.88 E171.10497
G1 X99.18 Y125.81 E171.11416
G1 X98.64 Y126.03 E171.14280
G1 X98.31 Y126.08 E171.15965
G1 X97.42 Y127.02 E171.22429
G1 X96.97 Y126.79 E171.24895
G1 X96.75 Y126.89 E171.26124
G1 X96.26 Y127.21 E171.29037
G1 X94.25 Y127.62 E171.39275
G1 X93.24 Y127.48 E171.44346
G1 X91.94 Y127.19 E171.51029
G1 X90.71 Y126.43 E171.58217
G1 X90.09 Y126.02 E171.61909
G1 X89.49 Y125.35 E171.66423
G1 X89.10 Y125.02 E171.68972
G1 X88.28 Y123.68 E171.76798
G1 X87.81 Y122.40 E171.83616
G1 X87.56 Y121.41 E171.88672
G1 X86.66 Y119.66 E171.98532
G1 X86.41 Y117.08 E172.11435
G1 X86.91 Y116.10 E172.16937
G1 X87.21 Y115.26 E172.21376
G1 X88.20 Y113.97 E172.29481
G1 X89.18 Y113.04 E172.36225
G0 F12000 X89.41 Y113.38
G1 F2400 X91.21 Y112.54 E172.46135
G1 X92.68 Y112.30 E172.53574
G1 X93.41 Y112.22 E172.57260
G1 X93.57 Y112.22 E172.58059
G1 X94.31 Y112.09 E172.61797
G1 X95.65 Y112.47 E172.68747
G1 X96.01 Y112.57 E172.70593
G1 X96.41 Y112.40 E172.72792
G1 X97.87 Y112.25 E172.80112
G1 X99.09 Y112.30 E172.86219
G1 X100.68 Y112.72 E172.94375
G1 X101.80 Y113.55 E173.01350
G1 X102.53 Y113.99 E173.05633
G1 X103.58 Y115.82 E173.16130
G1 X103.94 Y116.70 E173.20904
G1 X104.07 Y118.54 E173.30086
G1 X103.78 Y119.80 E173.36551
G1 X103.43 Y120.76 E173.41631
G1 X102.54 Y122.36 E173.50784
G1 X101.98 Y123.07 E173.55290
G1 X101.03 Y123.76 E173.61111
G1 X100.15 Y125.00 E173.68715
G1 X99.32 Y125.33 E173.73157
G1 X99.24 Y125.41 E173.73718
G1 X99.18 Y125.38 E173.74058
G1 X98.53 Y125.64 E173.77527
G1 X98.11 Y125.71 E173.79667
G1 X97.33 Y126.53 E173.85292
G1 X96.99 Y126.35 E173.87209
G1 X96.56 Y126.54 E173.89572
G1 X96.11 Y126.84 E173.92262
G1 X94.24 Y127.22 E174.01773
G1 X93.32 Y127.09 E174.06416
G1 X92.09 Y126.81 E174.12679
G1 X90.93 Y126.09 E174.19509
G1 X90.36 Y125.72 E174.22927
G1 X89.76 Y125.06 E174.27313
G1 X89.41 Y124.75 E174.29657
G1 X88.64 Y123.51 E174.36977
G1 X88.20 Y122.28 E174.43489
G1 X87.94 Y121.26 E174.48750
G1 X87.93 Y121.25 E174.48796
G1 X87.05 Y119.54 E174.58387
G1 X86.82 Y117.16 E174.70322
G1 X87.28 Y116.26 E174.75349
G1 X87.57 Y115.46 E174.79626
G1 X88.50 Y114.24 E174.87261
G1 X89.41 Y113.38 E174.93525
G0 F12000 X89.63 Y113.71
G1 F2400 X91.33 Y112.92 E175.02831
G1 X92.73 Y112.70 E175.09952
G1 X93.43 Y112.62 E175.13427
G1 X93.60 Y112.62 E175.14286
G1 X94.29 Y112.50 E175.17791
G1 X95.54 Y112.86 E175.24275
G1 X95.99 Y112.98 E175.26593
G1 X96.05 Y112.99 E175.26918
G1 X96.51 Y112.79 E175.29419
G1 X97.89 Y112.65 E175.36297
G1 X99.03 Y112.70 E175.42035
G1 X100.50 Y113.08 E175.49597
G1 X101.58 Y113.88 E175.56265
G1 X102.24 Y114.28 E175.60138
G1 X103.22 Y116.00 E175.69991
G1 X103.55 Y116.80 E175.74311
G1 X103.67 Y118.51 E175.82874
G1 X103.39 Y119.69 E175.88918
G1 X103.06 Y120.59 E175.93718
G1 X102.20 Y122.14 E176.02556
G1 X101.70 Y122.78 E176.06624
G1 X100.75 Y123.47 E176.12489
G1 X99.89 Y124.67 E176.19830
G1 X98.42 Y125.25 E176.27700
G1 X97.91 Y125.34 E176.30286
G1 X97.25 Y126.03 E176.35085
G1 X96.96 Y125.89 E176.36690
G1 X96.84 Y125.98 E176.37470
G1 X96.36 Y126.19 E176.40044
G1 X95.95 Y126.46 E176.42525
G1 X94.22 Y126.81 E176.51307
G1 X93.39 Y126.70 E176.55522
G1 X92.25 Y126.44 E176.61366
G1 X91.14 Y125.75 E176.67839
G1 X90.62 Y125.41 E176.70976
G1 X90.05 Y124.78 E176.75197
G1 X89.72 Y124.49 E176.77381
G1 X89.00 Y123.33 E176.84190
G1 X88.58 Y122.16 E176.90400
G1 X88.30 Y121.04 E176.96186
G1 X88.25 Y121.00 E176.96472
G1 X87.44 Y119.43 E177.05302
G1 X87.23 Y117.24 E177.16274
G1 X87.64 Y116.42 E177.20846
G1 X87.92 Y115.65 E177.24932
G1 X88.79 Y114.51 E177.32104
G1 X89.63 Y113.71 E177.37881
G0 F12000 X89.86 Y114.05
G1 F2400 X91.44 Y113.31 E177.46586
G1 X92.79 Y113.09 E177.53379
G1 X93.44 Y113.02 E177.56653
G1 X93.63 Y113.03 E177.57582
G1 X94.27 Y112.91 E177.60845
G1 X95.43 Y113.24 E177.66861
G1 X95.92 Y113.38 E177.69392
G1 X96.12 Y113.39 E177.70417
G1 X96.61 Y113.19 E177.73084
G1 X97.90 Y113.05 E177.79515
G1 X98.97 Y113.10 E177.84893
G1 X100.32 Y113.45 E177.91857
G1 X101.36 Y114.21 E177.98252
G1 X101.94 Y114.57 E178.01675
G1 X102.86 Y116.17 E178.10888
G1 X103.15 Y116.89 E178.14761
G1 X103.27 Y118.48 E178.22698
G1 X103.01 Y119.57 E178.28317
G1 X102.70 Y120.43 E178.32840
G1 X101.87 Y121.92 E178.41363
G1 X101.42 Y122.49 E178.44995
G1 X100.46 Y123.19 E178.50912
G1 X99.63 Y124.34 E178.57985
G1 X98.32 Y124.86 E178.65055
G1 X97.72 Y124.97 E178.68097
G1 X97.17 Y125.54 E178.72066
G1 X96.92 Y125.42 E178.73430
G1 X96.64 Y125.63 E178.75222
G1 X96.17 Y125.83 E178.77735
G1 X95.79 Y126.08 E178.80007
G1 X94.21 Y126.41 E178.88062
G1 X93.46 Y126.30 E178.91849
G1 X92.40 Y126.06 E178.97274
G1 X91.36 Y125.42 E179.03390
G1 X90.88 Y125.10 E179.06249
G1 X90.33 Y124.49 E179.10350
G1 X90.03 Y124.23 E179.12325
G1 X89.36 Y123.16 E179.18626
G1 X88.96 Y122.05 E179.24523
G1 X88.70 Y121.02 E179.29810
G1 X88.74 Y120.89 E179.30452
G1 X88.57 Y120.75 E179.31548
G1 X87.83 Y119.31 E179.39619
G1 X87.64 Y117.31 E179.49630
G1 X88.01 Y116.58 E179.53733
G1 X88.28 Y115.84 E179.57643
G1 X89.09 Y114.78 E179.64353
G1 X89.86 Y114.05 E179.69643
G0 F12000 X90.09 Y114.38
G1 F2400 X91.56 Y113.70 E179.77747
G1 X92.84 Y113.49 E179.84216
G1 X93.45 Y113.42 E179.87280
G1 X93.65 Y113.43 E179.88264
G1 X94.25 Y113.32 E179.91298
G1 X95.32 Y113.62 E179.96855
G1 X95.85 Y113.78 E179.99594
G1 X96.19 Y113.80 E180.01313
G1 X96.72 Y113.58 E180.04150
G1 X97.91 Y113.45 E180.10135
G1 X98.91 Y113.49 E180.15154
G1 X100.15 Y113.82 E180.21520
G1 X101.13 Y114.54 E180.27607
G1 X101.65 Y114.86 E180.30621
G1 X102.50 Y116.35 E180.39191
G1 X102.76 Y116.98 E180.42609
G1 X102.86 Y118.44 E180.49926
G1 X102.63 Y119.46 E180.55125
G1 X102.33 Y120.26 E180.59368
G1 X101.53 Y121.70 E180.67578
G1 X101.14 Y122.20 E180.70769
G1 X100.24 Y122.85 E180.76283
G1 X100.19 Y122.86 E180.76534
G1 X100.19 Y122.87 E180.76613
G1 X99.38 Y124.01 E180.83590
G1 X98.21 Y124.48 E180.89864
G1 X97.52 Y124.59 E180.93351
G1 X97.08 Y125.05 E180.96498
G1 X96.88 Y124.95 E180.97625
G1 X96.43 Y125.28 E181.00429
G1 X95.98 Y125.48 E181.02882
G1 X95.64 Y125.71 E181.04934
G1 X94.20 Y126.00 E181.12266
G1 X93.53 Y125.91 E181.15625
G1 X92.55 Y125.69 E181.20629
G1 X91.57 Y125.08 E181.26390
G1 X91.14 Y124.80 E181.28972
G1 X90.61 Y124.21 E181.32921
G1 X90.34 Y123.97 E181.34716
G1 X89.72 Y122.98 E181.40510
G1 X89.35 Y121.93 E181.46101
G1 X89.12 Y121.02 E181.50760
G1 X89.17 Y120.82 E181.51801
G1 X89.12 Y120.70 E181.52482
G1 X88.89 Y120.50 E181.53974
G1 X88.22 Y119.20 E181.61286
G1 X88.05 Y117.39 E181.70329
G1 X88.38 Y116.74 E181.73966
G1 X88.63 Y116.04 E181.77706
G1 X89.39 Y115.05 E181.83941
G1 X90.09 Y114.38 E181.88751
G0 F12000 X90.32 Y114.72
G1 F2400 X91.68 Y114.08 E181.96251
G1 X92.90 Y113.89 E182.02397
G1 X93.47 Y113.82 E182.05254
G1 X93.68 Y113.83 E182.06313
G1 X94.23 Y113.73 E182.09105
G1 X95.21 Y114.01 E182.14194
G1 X95.75 Y114.16 E182.16969
G1 X95.77 Y114.17 E182.17106
G1 X96.25 Y114.20 E182.19519
G1 X96.26 Y114.21 E182.19567
G1 X96.28 Y114.19 E182.19685
G1 X96.82 Y113.97 E182.22580
G1 X97.92 Y113.85 E182.28123
G1 X98.85 Y113.89 E182.32777
G1 X99.97 Y114.19 E182.38549
G1 X100.92 Y114.88 E182.44390
G1 X101.35 Y115.14 E182.46928
G1 X102.14 Y116.53 E182.54859
G1 X102.36 Y117.08 E182.57826
G1 X102.46 Y118.41 E182.64517
G1 X102.24 Y119.35 E182.69296
G1 X101.97 Y120.09 E182.73258
G1 X101.20 Y121.47 E182.81153
G1 X100.86 Y121.91 E182.83907
G1 X100.08 Y122.47 E182.88732
G1 X99.88 Y122.52 E182.89724
G1 X99.83 Y122.69 E182.90633
G1 X99.12 Y123.68 E182.96708
G1 X98.10 Y124.09 E183.02182
G1 X97.32 Y124.22 E183.06114
G1 X97.00 Y124.56 E183.08439
G1 X96.84 Y124.48 E183.09325
G1 X96.23 Y124.94 E183.13144
G1 X95.79 Y125.13 E183.15515
G1 X95.48 Y125.33 E183.17376
G1 X94.19 Y125.60 E183.23980
G1 X93.60 Y125.52 E183.26916
G1 X92.71 Y125.31 E183.31496
G1 X91.79 Y124.74 E183.36902
G1 X91.40 Y124.49 E183.39202
G1 X90.89 Y123.92 E183.43010
G1 X90.64 Y123.71 E183.44622
G1 X90.09 Y122.81 E183.49905
G1 X89.73 Y121.81 E183.55193
G1 X89.53 Y121.03 E183.59223
G1 X89.60 Y120.79 E183.60446
G1 X89.45 Y120.46 E183.62282
G1 X89.22 Y120.25 E183.63838
G1 X88.61 Y119.08 E183.70393
G1 X88.46 Y117.47 E183.78474
G1 X88.74 Y116.90 E183.81642
G1 X88.99 Y116.23 E183.85207
G1 X89.69 Y115.31 E183.90980
G1 X90.32 Y114.72 E183.95302
G0 F12000 X90.55 Y115.05
G1 F2400 X91.80 Y114.47 E184.02202
G1 X92.95 Y114.28 E184.08024
G1 X93.48 Y114.22 E184.10675
G1 X93.70 Y114.23 E184.11774
G1 X94.21 Y114.14 E184.14352
G1 X95.10 Y114.39 E184.18970
G1 X95.61 Y114.54 E184.21626
G1 X95.68 Y114.57 E184.21977
G1 X96.19 Y114.60 E184.24531
G1 X96.31 Y114.63 E184.25142
G1 X96.45 Y114.56 E184.25968
G1 X96.92 Y114.36 E184.28492
G1 X97.93 Y114.25 E184.33589
G1 X98.79 Y114.29 E184.37884
G1 X99.80 Y114.55 E184.43058
G1 X100.68 Y115.21 E184.48556
G1 X101.05 Y115.43 E184.50717
G1 X101.78 Y116.70 E184.58001
G1 X101.97 Y117.17 E184.60516
G1 X102.06 Y118.38 E184.66587
G1 X101.86 Y119.23 E184.70947
G1 X101.61 Y119.92 E184.74627
G1 X100.86 Y121.25 E184.82207
G1 X100.58 Y121.62 E184.84525
G1 X99.91 Y122.10 E184.88659
G1 X99.57 Y122.18 E184.90395
G1 X99.46 Y122.51 E184.92126
G1 X98.86 Y123.36 E184.97297
G1 X97.99 Y123.70 E185.01976
G1 X97.12 Y123.85 E185.06358
G1 X96.92 Y124.07 E185.07854
G1 X96.80 Y124.01 E185.08503
G1 X96.03 Y124.59 E185.13334
G1 X95.60 Y124.78 E185.15669
G1 X95.33 Y124.95 E185.17290
G1 X94.17 Y125.19 E185.23165
G1 X93.67 Y125.12 E185.25673
G1 X92.86 Y124.94 E185.29833
G1 X92.00 Y124.40 E185.34883
G1 X91.66 Y124.18 E185.36907
G1 X91.17 Y123.64 E185.40580
G1 X90.95 Y123.45 E185.41994
G1 X90.45 Y122.64 E185.46773
G1 X90.11 Y121.69 E185.51753
G1 X89.94 Y121.03 E185.55161
G1 X90.03 Y120.71 E185.56818
G1 X89.97 Y120.64 E185.57308
G1 X89.78 Y120.21 E185.59636
G1 X89.54 Y120.00 E185.61251
G1 X89.00 Y118.97 E185.67048
G1 X88.87 Y117.55 E185.74166
G1 X89.11 Y117.07 E185.76859
G1 X89.34 Y116.43 E185.80256
G1 X89.99 Y115.58 E185.85559
G1 X90.55 Y115.05 E185.89399
G0 F12000 X90.77 Y115.39
G1 F2400 X91.92 Y114.85 E185.95693
G1 X93.01 Y114.68 E186.01197
G1 X93.49 Y114.62 E186.03637
G1 X93.72 Y114.63 E186.04796
G1 X94.19 Y114.55 E186.07141
G1 X94.99 Y114.78 E186.11297
G1 X95.48 Y114.92 E186.13834
G1 X95.58 Y114.96 E186.14406
G1 X96.12 Y115.00 E186.17085
G1 X96.35 Y115.06 E186.18271
G1 X96.62 Y114.92 E186.19804
G1 X97.02 Y114.75 E186.21953
G1 X97.95 Y114.65 E186.26609
G1 X98.73 Y114.69 E186.30539
G1 X99.62 Y114.92 E186.35114
G1 X100.47 Y115.54 E186.40345
G1 X100.76 Y115.72 E186.42051
G1 X101.42 Y116.88 E186.48694
G1 X101.58 Y117.26 E186.50761
G1 X101.65 Y118.35 E186.56208
G1 X101.47 Y119.12 E186.60147
G1 X101.24 Y119.76 E186.63545
G1 X100.53 Y121.03 E186.70810
G1 X100.30 Y121.33 E186.72690
G1 X99.74 Y121.73 E186.76139
G1 X99.29 Y121.83 E186.78417
G1 X99.24 Y121.89 E186.78812
G1 X99.10 Y122.33 E186.81118
G1 X98.60 Y123.03 E186.85380
G1 X97.88 Y123.31 E186.89259
G1 X96.93 Y123.48 E186.94096
G1 X96.83 Y123.57 E186.94763
G1 X96.76 Y123.54 E186.95171
G1 X95.83 Y124.24 E187.01014
G1 X95.41 Y124.42 E187.03282
G1 X95.17 Y124.58 E187.04701
G1 X94.16 Y124.78 E187.09847
G1 X93.75 Y124.73 E187.11927
G1 X93.02 Y124.56 E187.15663
G1 X92.22 Y124.06 E187.20361
G1 X91.92 Y123.87 E187.22104
G1 X91.45 Y123.35 E187.25625
G1 X91.26 Y123.19 E187.26866
G1 X90.81 Y122.46 E187.31134
G1 X90.50 Y121.58 E187.35808
G1 X90.36 Y121.04 E187.38588
G1 X90.48 Y120.60 E187.40836
G1 X90.31 Y120.42 E187.42110
G1 X90.11 Y119.97 E187.44536
G1 X89.86 Y119.75 E187.46215
G1 X89.39 Y118.85 E187.51253
G1 X89.28 Y117.62 E187.57409
G1 X89.48 Y117.21 E187.59703
G1 X89.70 Y116.62 E187.62854
G1 X90.29 Y115.85 E187.67695
G1 X90.77 Y115.39 E187.71047
G0 F12000 X91.00 Y115.72
G1 F2400 X92.04 Y115.24 E187.76741
G1 X93.06 Y115.07 E187.81917
G1 X93.51 Y115.02 E187.84156
G1 X93.75 Y115.03 E187.85385
G1 X94.17 Y114.96 E187.87487
G1 X94.88 Y115.16 E187.91177
G1 X95.34 Y115.30 E187.93594
G1 X95.51 Y115.37 E187.94471
G1 X95.55 Y115.36 E187.94661
G1 X96.05 Y115.39 E187.97200
G1 X96.35 Y115.48 E187.98759
G1 X96.44 Y115.47 E187.99177
G1 X96.79 Y115.28 E188.01170
G1 X97.12 Y115.14 E188.02947
G1 X97.96 Y115.06 E188.07156
G1 X98.67 Y115.09 E188.10721
G1 X99.44 Y115.29 E188.14704
G1 X100.23 Y115.87 E188.19588
G1 X100.46 Y116.01 E188.20920
G1 X101.06 Y117.05 E188.26920
G1 X101.18 Y117.35 E188.28533
G1 X101.25 Y118.32 E188.33360
G1 X101.09 Y119.00 E188.36874
G1 X100.88 Y119.59 E188.39996
G1 X100.20 Y120.81 E188.46946
G1 X100.02 Y121.04 E188.48392
G1 X99.57 Y121.36 E188.51151
G1 X99.08 Y121.47 E188.53638
G1 X98.88 Y121.69 E188.55103
G1 X98.74 Y122.15 E188.57533
G1 X98.35 Y122.70 E188.60894
G1 X97.77 Y122.93 E188.63977
G1 X96.85 Y123.08 E188.68658
G1 X96.79 Y123.04 E188.69025
G1 X96.75 Y123.08 E188.69286
G1 X96.69 Y123.05 E188.69645
G1 X96.59 Y123.17 E188.70407
G1 X95.62 Y123.89 E188.76443
G1 X95.21 Y124.07 E188.78661
G1 X95.02 Y124.20 E188.79853
G1 X94.15 Y124.38 E188.84272
G1 X93.82 Y124.33 E188.85924
G1 X93.17 Y124.19 E188.89240
G1 X92.43 Y123.73 E188.93585
G1 X92.19 Y123.57 E188.95049
G1 X91.73 Y123.07 E188.98408
G1 X91.57 Y122.93 E188.99482
G1 X91.17 Y122.29 E189.03240
G1 X90.88 Y121.46 E189.07611
G1 X90.77 Y121.04 E189.09762
G1 X90.93 Y120.50 E189.12601
G1 X90.64 Y120.19 E189.14659
G1 X90.48 Y119.81 E189.16745
G1 X90.45 Y119.74 E189.17113
G1 X90.18 Y119.50 E189.18940
G1 X89.78 Y118.74 E189.23218
G1 X89.68 Y117.70 E189.28406
G1 X89.85 Y117.38 E189.30216
G1 X90.05 Y116.81 E189.33212
G1 X90.59 Y116.12 E189.37590
G1 X91.00 Y115.72 E189.40455
G0 F12000 X91.23 Y116.06
G1 F2400 X92.16 Y115.63 E189.45545
G1 X93.12 Y115.47 E189.50402
G1 X93.52 Y115.42 E189.52430
G1 X93.78 Y115.44 E189.53714
G1 X94.15 Y115.37 E189.55594
G1 X94.77 Y115.55 E189.58813
G1 X95.21 Y115.67 E189.61110
G1 X95.44 Y115.77 E189.62354
G1 X95.55 Y115.76 E189.62884
G1 X95.99 Y115.79 E189.65083
G1 X96.33 Y115.89 E189.66855
G1 X96.56 Y115.85 E189.68030
G1 X96.96 Y115.64 E189.70277
G1 X97.22 Y115.53 E189.71679
G1 X97.97 Y115.46 E189.75442
G1 X98.61 Y115.48 E189.78647
G1 X99.27 Y115.66 E189.82037
G1 X100.02 Y116.21 E189.86675
G1 X100.17 Y116.30 E189.87532
G1 X100.70 Y117.23 E189.92889
G1 X100.79 Y117.44 E189.94050
G1 X100.85 Y118.28 E189.98256
G1 X100.70 Y118.89 E190.01350
G1 X100.51 Y119.42 E190.04191
G1 X99.86 Y120.59 E190.10829
G1 X99.74 Y120.75 E190.11835
G1 X99.40 Y120.99 E190.13903
G1 X98.88 Y121.11 E190.16601
G1 X98.53 Y121.48 E190.19125
G1 X98.38 Y121.97 E190.21697
G1 X98.09 Y122.37 E190.24150
G1 X97.66 Y122.54 E190.26438
G1 X96.94 Y122.66 E190.30107
G1 X96.73 Y122.52 E190.31354
G1 X96.67 Y122.59 E190.31813
G1 X96.59 Y122.55 E190.32272
G1 X96.31 Y122.87 E190.34393
G1 X95.42 Y123.55 E190.39969
G1 X95.03 Y123.71 E190.42089
G1 X94.86 Y123.83 E190.43101
G1 X94.13 Y123.97 E190.46796
G1 X93.89 Y123.94 E190.48020
G1 X93.33 Y123.81 E190.50916
G1 X92.65 Y123.39 E190.54904
G1 X92.45 Y123.26 E190.56088
G1 X92.02 Y122.78 E190.59288
G1 X91.88 Y122.67 E190.60192
G1 X91.54 Y122.11 E190.63446
G1 X91.26 Y121.34 E190.67509
G1 X91.19 Y121.05 E190.69033
G1 X91.38 Y120.37 E190.72565
G1 X91.27 Y120.27 E190.73276
G1 X90.98 Y119.97 E190.75355
G1 X90.85 Y119.67 E190.77008
G1 X90.80 Y119.52 E190.77759
G1 X90.74 Y119.47 E190.78172
G1 X90.50 Y119.25 E190.79801
G1 X90.18 Y118.62 E190.83320
G1 X90.09 Y117.78 E190.87546
G1 X90.22 Y117.53 E190.88911
G1 X90.41 Y117.01 E190.91706
G1 X90.88 Y116.39 E190.95618
G1 X91.23 Y116.06 E190.98000
G0 F12000 X91.46 Y116.39
G1 F2400 X92.27 Y116.01 E191.02488
G1 X93.17 Y115.87 E191.07022
G1 X93.53 Y115.83 E191.08840
G1 X93.81 Y115.84 E191.10198
G1 X94.13 Y115.78 E191.11830
G1 X94.66 Y115.93 E191.14588
G1 X95.08 Y116.05 E191.16765
G1 X95.37 Y116.18 E191.18364
G1 X95.55 Y116.17 E191.19234
G1 X95.92 Y116.19 E191.21093
G1 X96.30 Y116.29 E191.23077
G1 X96.69 Y116.24 E191.25014
G1 X97.13 Y116.01 E191.27511
G1 X97.32 Y115.93 E191.28542
G1 X97.98 Y115.86 E191.31862
G1 X98.55 Y115.88 E191.34704
G1 X99.09 Y116.02 E191.37494
G1 X99.79 Y116.54 E191.41822
G1 X99.87 Y116.58 E191.42272
G1 X100.34 Y117.41 E191.46985
G1 X100.39 Y117.54 E191.47696
G1 X100.44 Y118.25 E191.51277
G1 X100.32 Y118.78 E191.53952
G1 X100.14 Y119.26 E191.56512
G1 X99.53 Y120.36 E191.62835
G1 X99.46 Y120.45 E191.63403
G1 X99.23 Y120.62 E191.64787
G1 X98.63 Y120.75 E191.67863
G1 X98.57 Y120.85 E191.68408
G1 X98.32 Y121.12 E191.70290
G1 X98.09 Y121.03 E191.71500
G1 X98.09 Y121.07 E191.71704
G1 X98.12 Y121.43 E191.73527
G1 X98.01 Y121.79 E191.75389
G1 X97.83 Y122.04 E191.76938
G1 X97.56 Y122.15 E191.78432
G1 X97.03 Y122.24 E191.81088
G1 X96.68 Y122.00 E191.83222
G1 X96.58 Y122.10 E191.83878
G1 X96.50 Y122.06 E191.84338
G1 X96.31 Y122.25 E191.85689
G1 X96.03 Y122.58 E191.87849
G1 X95.22 Y123.20 E191.92962
G1 X94.83 Y123.36 E191.95035
G1 X94.70 Y123.45 E191.95817
G1 X94.12 Y123.57 E191.98786
G1 X93.96 Y123.55 E191.99582
G1 X93.48 Y123.44 E192.02058
G1 X92.86 Y123.05 E192.05688
G1 X92.71 Y122.95 E192.06597
G1 X92.30 Y122.50 E192.09666
G1 X92.19 Y122.40 E192.10370
G1 X91.90 Y121.94 E192.13117
G1 X91.64 Y121.23 E192.16874
G1 X91.60 Y121.05 E192.17769
G1 X91.81 Y120.29 E192.21731
G1 X91.83 Y120.23 E192.22047
G1 X91.54 Y119.98 E192.23945
G1 X91.32 Y119.75 E192.25558
G1 X91.22 Y119.52 E192.26779
G1 X91.15 Y119.31 E192.27909
G1 X91.02 Y119.17 E192.28865
G1 X90.82 Y119.00 E192.30173
G1 X90.57 Y118.51 E192.32933
G1 X90.50 Y117.86 E192.36197
G1 X90.58 Y117.70 E192.37087
G1 X90.76 Y117.20 E192.39713
G1 X91.18 Y116.65 E192.43162
G1 X91.46 Y116.39 E192.45057
G0 F12000 X92.14 Y117.40
;TYPE:WALL-INNER
G1 F2400 X92.63 Y117.17 E192.47746
G1 X93.32 Y117.06 E192.51248
G1 X93.58 Y117.03 E192.52514
G1 X93.88 Y117.04 E192.54037
G1 X94.06 Y117.01 E192.54969
G1 X94.68 Y117.19 E192.58171
G1 X95.17 Y117.39 E192.60819
G1 X95.56 Y117.37 E192.62739
G1 X95.72 Y117.38 E192.63554
G1 X96.23 Y117.52 E192.66181
G1 X97.06 Y117.39 E192.70399
G1 X97.63 Y117.10 E192.73596
G1 X98.02 Y117.06 E192.75533
G1 X98.37 Y117.07 E192.77305
G1 X98.57 Y117.12 E192.78301
G1 X98.96 Y117.42 E192.80756
G1 X99.21 Y117.85 E192.83257
G1 X99.23 Y118.16 E192.84787
G1 X99.17 Y118.43 E192.86186
G1 X99.05 Y118.76 E192.87933
G1 X98.62 Y119.53 E192.92302
G1 X97.88 Y119.69 E192.96084
G1 X97.86 Y119.73 E192.96308
G1 X96.86 Y119.69 E193.01322
G1 X96.88 Y120.69 E193.06353
G1 X96.80 Y120.64 E193.06841
G1 X96.56 Y120.74 E193.08139
G1 X96.26 Y120.58 E193.09804
G1 X95.42 Y121.44 E193.15787
G1 X95.21 Y121.70 E193.17483
G1 X94.61 Y122.15 E193.21213
G1 X94.24 Y122.32 E193.23248
G1 X94.10 Y122.35 E193.23929
G1 X93.94 Y122.31 E193.24754
G1 X93.51 Y122.04 E193.27305
G1 X93.49 Y122.03 E193.27402
G1 X93.14 Y121.64 E193.30034
G1 X93.11 Y121.62 E193.30186
G1 X92.99 Y121.41 E193.31400
G1 X92.85 Y121.03 E193.33396
G1 X93.07 Y120.32 E193.37134
G1 X92.98 Y119.62 E193.40612
G1 X92.37 Y119.11 E193.44613
G1 X92.34 Y119.08 E193.44818
G1 X92.20 Y118.66 E193.47000
G1 X91.85 Y118.30 E193.49526
G1 X91.78 Y118.25 E193.49939
G1 X91.74 Y118.16 E193.50439
G1 X91.73 Y118.06 E193.50940
G1 X91.83 Y117.79 E193.52393
G1 X92.08 Y117.46 E193.54458
G1 X92.14 Y117.40 E193.54892
G0 F12000 X91.91 Y117.06
G1 F2400 X92.51 Y116.78 E193.58182
G1 X93.28 Y116.66 E193.62048
G1 X93.56 Y116.63 E193.63480
G1 X93.86 Y116.64 E193.64948
G1 X94.09 Y116.60 E193.66113
G1 X94.81 Y116.81 E193.69865
G1 X95.24 Y116.99 E193.72188
G1 X95.55 Y116.97 E193.73759
G1 X95.79 Y116.98 E193.74923
G1 X96.25 Y117.11 E193.77337
G1 X96.94 Y117.01 E193.80792
G1 X97.46 Y116.74 E193.83751
G1 X97.53 Y116.71 E193.84081
G1 X98.01 Y116.66 E193.86535
G1 X98.43 Y116.68 E193.88622
G1 X98.74 Y116.76 E193.90222
G1 X99.27 Y117.15 E193.93483
G1 X99.60 Y117.73 E193.96857
G1 X99.64 Y118.19 E193.99153
G1 X99.55 Y118.54 E194.00951
G1 X99.42 Y118.92 E194.02979
G1 X98.89 Y119.88 E194.08406
G1 X98.13 Y120.05 E194.12255
G1 X98.07 Y120.15 E194.12870
G1 X98.04 Y120.14 E194.13020
G1 X97.27 Y120.11 E194.16875
G1 X97.29 Y121.11 E194.21891
G1 X97.31 Y121.34 E194.23068
G1 X97.30 Y121.39 E194.23276
G1 X97.21 Y121.40 E194.23731
G1 X96.75 Y121.09 E194.26490
G1 X96.54 Y121.18 E194.27634
G1 X96.34 Y121.08 E194.28749
G1 X95.72 Y121.71 E194.33191
G1 X95.48 Y121.99 E194.35029
G1 X94.81 Y122.50 E194.39254
G1 X94.45 Y122.66 E194.41192
G1 X94.39 Y122.70 E194.41538
G1 X94.10 Y122.76 E194.43039
G1 X93.79 Y122.69 E194.44631
G1 X93.28 Y122.37 E194.47584
G1 X93.23 Y122.34 E194.47905
G1 X92.86 Y121.92 E194.50685
G1 X92.81 Y121.88 E194.51017
G1 X92.62 Y121.59 E194.52742
G1 X92.43 Y121.05 E194.55583
G1 X92.58 Y120.51 E194.58401
G1 X92.66 Y120.28 E194.59603
G1 X92.60 Y119.83 E194.61855
G1 X92.10 Y119.40 E194.65166
G1 X92.00 Y119.30 E194.65871
G1 X91.85 Y118.88 E194.68096
G1 X91.46 Y118.50 E194.70813
G1 X91.35 Y118.28 E194.72058
G1 X91.32 Y118.01 E194.73391
G1 X91.47 Y117.59 E194.75624
G1 X91.78 Y117.19 E194.78148
G1 X91.91 Y117.06 E194.79062
G0 F12000 X91.69 Y116.72
;TYPE:WALL-OUTER
G1 F2400 X92.39 Y116.40 E194.82935
G1 X93.22 Y116.26 E194.87125
G1 X93.55 Y116.23 E194.88761
G1 X93.83 Y116.24 E194.90175
G1 X94.11 Y116.19 E194.91573
G1 X94.94 Y116.43 E194.95906
G1 X95.31 Y116.58 E194.97879
G1 X95.55 Y116.57 E194.99099
G1 X95.85 Y116.58 E195.00618
G1 X96.28 Y116.70 E195.02809
G1 X96.81 Y116.62 E195.05508
G1 X97.31 Y116.37 E195.08297
G1 X97.42 Y116.32 E195.08914
G1 X98.00 Y116.26 E195.11788
G1 X98.50 Y116.28 E195.14285
G1 X98.92 Y116.39 E195.16457
G1 X99.57 Y116.87 E195.20492
G1 X99.98 Y117.58 E195.24594
G1 X100.00 Y117.63 E195.24840
G1 X100.04 Y118.22 E195.27811
G1 X99.94 Y118.66 E195.30071
G1 X99.78 Y119.09 E195.32337
G1 X99.19 Y120.14 E195.38343
G1 X99.18 Y120.16 E195.38482
G1 X99.07 Y120.24 E195.39167
G1 X98.38 Y120.40 E195.42667
G1 X98.25 Y120.60 E195.43860
G1 X98.21 Y120.65 E195.44160
G1 X97.95 Y120.54 E195.45581
G1 X97.68 Y120.52 E195.46939
G1 X97.69 Y121.09 E195.49749
G1 X97.72 Y121.39 E195.51261
G1 X97.65 Y121.61 E195.52416
G1 X97.58 Y121.72 E195.53057
G1 X97.44 Y121.77 E195.53760
G1 X97.12 Y121.82 E195.55395
G1 X96.71 Y121.54 E195.57896
G1 X96.52 Y121.62 E195.58893
G1 X96.42 Y121.57 E195.59449
G1 X96.02 Y121.98 E195.62342
G1 X95.76 Y122.29 E195.64353
G1 X95.01 Y122.85 E195.69006
G1 X94.64 Y123.01 E195.71023
G1 X94.55 Y123.07 E195.71585
G1 X94.11 Y123.16 E195.73825
G1 X93.63 Y123.06 E195.76249
G1 X93.08 Y122.72 E195.79513
G1 X92.97 Y122.64 E195.80162
G1 X92.58 Y122.21 E195.83083
G1 X92.50 Y122.14 E195.83599
G1 X92.26 Y121.76 E195.85838
G1 X92.03 Y121.11 E195.89291
G1 X92.02 Y121.06 E195.89553
G1 X92.20 Y120.40 E195.92962
G1 X92.25 Y120.24 E195.93806
G1 X92.23 Y120.03 E195.94831
G1 X91.82 Y119.69 E195.97480
G1 X91.66 Y119.52 E195.98644
G1 X91.60 Y119.38 E195.99429
G1 X91.50 Y119.09 E196.00927
G1 X91.14 Y118.75 E196.03408
G1 X90.96 Y118.39 E196.05430
G1 X90.91 Y117.93 E196.07715
G1 X90.95 Y117.86 E196.08146
G1 X91.12 Y117.40 E196.10592
G1 X91.48 Y116.92 E196.13560
G1 X91.69 Y116.72 E196.14993
G0 F12000 X92.30 Y117.48
;TYPE:FILL
G1 F2400 X95.74 Y120.92 E196.39264
G0 F12000 X96.02 Y120.63
G1 F2400 X92.69 Y117.30 E196.62752
G0 F12000 X93.18 Y117.22
G1 F2400 X96.51 Y120.55 E196.86254
G0 F12000 X96.73 Y120.21
G1 F2400 X93.70 Y117.17 E197.07639
G0 F12000 X94.32 Y117.23
G1 F2400 X96.72 Y119.63 E197.24552
G0 F12000 X97.22 Y119.56
G1 F2400 X95.19 Y117.53 E197.38878
G0 F12000 X95.75 Y117.53
G1 F2400 X97.79 Y119.57 E197.53271
G0 F12000 X98.25 Y119.47
G1 F2400 X96.42 Y117.63 E197.66211
G0 F12000 X96.91 Y117.56
G1 F2400 X98.61 Y119.26 E197.78220
G0 F12000 X98.81 Y118.89
G1 F2400 X97.33 Y117.41 E197.88683
G0 F12000 X97.72 Y117.23
G1 F2400 X98.99 Y118.51 E197.97693
G0 F12000 X99.08 Y118.03
G1 F2400 X98.26 Y117.21 E198.03524
G0 F12000 X95.46 Y121.20
G1 F2400 X92.02 Y117.76 E198.27813
G0 F12000 X92.34 Y118.65
G1 F2400 X95.19 Y121.50 E198.47928
G0 F12000 X94.89 Y121.76
G1 F2400 X93.17 Y120.04 E198.60057
G0 F12000 X93.14 Y120.57
G1 F2400 X94.57 Y122.00 E198.70174
G0 F12000 X94.19 Y122.19
G1 F2400 X93.00 Y121.01 E198.78496
;LAYER:1
G0 F12000 X93.01 Y121.10 Z0.50
;TYPE:WALL-INNER
G1 F600 X93.22 Y120.42 E198.80844
G1 X93.13 Y119.62 E198.83516
G1 X92.51 Y119.15 E198.86114
G1 X92.58 Y118.47 E198.88378
G1 X91.93 Y118.12 E198.90841
G1 X91.92 Y118.11 E198.90888
G1 X91.85 Y117.98 E198.91352
G1 X91.96 Y117.70 E198.92365
G1 X92.11 Y117.50 E198.93175
G1 X92.40 Y117.23 E198.94494
G1 X92.76 Y117.07 E198.95802
G1 X93.69 Y116.94 E198.98938
G1 X93.98 Y116.96 E198.99888
G1 X94.39 Y117.07 E199.01299
G1 X94.47 Y117.12 E199.01617
G1 X95.17 Y117.42 E199.04142
G1 X95.77 Y117.38 E199.06131
G1 X96.21 Y117.40 E199.07596
G1 X97.11 Y117.25 E199.10643
G1 X97.34 Y117.11 E199.11518
G1 X97.62 Y116.99 E199.12530
G1 X97.88 Y116.95 E199.13395
G1 X98.46 Y117.10 E199.15404
G1 X98.90 Y117.38 E199.17122
G1 X99.13 Y117.77 E199.18623
G1 X99.16 Y117.82 E199.18820
G1 X99.19 Y118.20 E199.20069
G1 X99.07 Y118.70 E199.21769
G1 X98.59 Y119.56 E199.25069
G1 X98.42 Y119.60 E199.25633
G1 X97.83 Y119.58 E199.27594
G1 X97.80 Y119.65 E199.27842
G1 X96.82 Y119.78 E199.31114
G1 X96.84 Y120.59 E199.33822
G1 X96.77 Y120.62 E199.34097
G1 X96.54 Y120.50 E199.34951
G1 X95.51 Y121.56 E199.39831
G1 X95.36 Y121.72 E199.40594
G1 X94.75 Y122.15 E199.43060
G1 X94.56 Y122.24 E199.43757
G1 X94.39 Y122.35 E199.44435
G1 X94.28 Y122.37 E199.44795
G1 X94.09 Y122.33 E199.45432
G1 X93.64 Y122.06 E199.47182
G1 X93.27 Y121.67 E199.48964
G1 X93.25 Y121.65 E199.49065
G1 X93.19 Y121.56 E199.49402
G1 X93.01 Y121.10 E199.51052
G0 F12000 X92.60 Y121.15
G1 F600 X92.59 Y121.11 E199.51171
G1 X92.81 Y120.38 E199.53697
G1 X92.75 Y119.84 E199.55521
G1 X92.11 Y119.35 E199.58202
G1 X92.11 Y119.30 E199.58345
G1 X92.09 Y119.26 E199.58491
G1 X92.16 Y118.69 E199.60394
G1 X91.70 Y118.44 E199.62134
G1 X91.60 Y118.36 E199.62550
G1 X91.45 Y118.08 E199.63610
G1 X91.44 Y117.92 E199.64139
G1 X91.50 Y117.80 E199.64578
G1 X91.61 Y117.50 E199.65630
G1 X91.81 Y117.24 E199.66732
G1 X92.17 Y116.89 E199.68394
G1 X92.64 Y116.68 E199.70106
G1 X93.05 Y116.62 E199.71480
G1 X93.69 Y116.54 E199.73598
G1 X94.04 Y116.56 E199.74777
G1 X94.56 Y116.70 E199.76572
G1 X94.67 Y116.77 E199.76984
G1 X95.24 Y117.01 E199.79045
G1 X95.77 Y116.98 E199.80798
G1 X96.17 Y117.00 E199.82160
G1 X96.98 Y116.86 E199.84859
G1 X97.16 Y116.75 E199.85556
G1 X97.51 Y116.60 E199.86838
G1 X97.90 Y116.54 E199.88143
G1 X98.64 Y116.74 E199.90677
G1 X98.79 Y116.85 E199.91299
G1 X99.19 Y117.09 E199.92856
G1 X99.49 Y117.59 E199.94785
G1 X99.55 Y117.73 E199.95290
G1 X99.59 Y118.23 E199.96952
G1 X99.46 Y118.81 E199.98932
G1 X99.43 Y118.87 E199.99157
G1 X98.88 Y119.85 E200.02889
G1 X98.78 Y119.93 E200.03321
G1 X98.46 Y120.00 E200.04389
G1 X98.07 Y119.99 E200.05680
G1 X98.06 Y120.02 E200.05799
G1 X97.23 Y120.13 E200.08575
G1 X97.25 Y120.96 E200.11323
G1 X97.27 Y121.02 E200.11534
G1 X97.11 Y120.92 E200.12152
G1 X96.74 Y121.06 E200.13476
G1 X96.61 Y121.00 E200.13956
G1 X95.80 Y121.83 E200.17815
G1 X95.62 Y122.03 E200.18700
G1 X94.95 Y122.50 E200.21442
G1 X94.75 Y122.59 E200.22162
G1 X94.55 Y122.72 E200.22951
G1 X94.29 Y122.77 E200.23841
G1 X94.18 Y122.76 E200.24210
G1 X93.94 Y122.70 E200.25019
G1 X93.42 Y122.39 E200.27039
G1 X93.00 Y121.96 E200.29049
G1 X92.95 Y121.92 E200.29263
G1 X92.84 Y121.75 E200.29932
G1 X92.60 Y121.15 E200.32063
G0 F12000 X92.22 Y121.27
;TYPE:WALL-OUTER
G1 F600 X92.18 Y121.11 E200.32621
G1 X92.41 Y120.34 E200.35268
G1 X92.38 Y120.05 E200.36240
G1 X91.83 Y119.64 E200.38495
G1 X91.72 Y119.57 E200.38932
G1 X91.71 Y119.39 E200.39550
G1 X91.68 Y119.32 E200.39800
G1 X91.73 Y118.92 E200.41143
G1 X91.47 Y118.77 E200.42139
G1 X91.28 Y118.61 E200.42947
G1 X91.06 Y118.19 E200.44519
G1 X91.03 Y117.84 E200.45691
G1 X91.13 Y117.64 E200.46427
G1 X91.25 Y117.31 E200.47599
G1 X91.51 Y116.97 E200.49014
G1 X91.93 Y116.57 E200.50939
G1 X92.53 Y116.30 E200.53116
G1 X93.00 Y116.22 E200.54706
G1 X93.67 Y116.14 E200.56940
G1 X94.11 Y116.17 E200.58388
G1 X94.74 Y116.33 E200.60547
G1 X94.86 Y116.42 E200.61058
G1 X95.31 Y116.61 E200.62655
G1 X95.76 Y116.58 E200.64172
G1 X96.14 Y116.60 E200.65431
G1 X96.84 Y116.48 E200.67779
G1 X96.97 Y116.40 E200.68299
G1 X97.40 Y116.21 E200.69857
G1 X97.92 Y116.14 E200.71597
G1 X98.82 Y116.37 E200.74662
G1 X99.01 Y116.52 E200.75467
G1 X99.48 Y116.80 E200.77290
G1 X99.85 Y117.41 E200.79670
G1 X99.94 Y117.64 E200.80472
G1 X100.00 Y118.25 E200.82521
G1 X99.84 Y118.92 E200.84814
G1 X99.79 Y119.05 E200.85245
G1 X99.22 Y120.07 E200.89131
G1 X99.16 Y120.15 E200.89469
G1 X98.94 Y120.30 E200.90352
G1 X98.50 Y120.40 E200.91848
G1 X98.32 Y120.40 E200.92449
G1 X98.22 Y120.61 E200.93222
G1 X97.97 Y120.44 E200.94211
G1 X97.64 Y120.48 E200.95325
G1 X97.65 Y120.91 E200.96749
G1 X97.72 Y121.20 E200.97758
G1 X97.72 Y121.35 E200.98243
G1 X97.69 Y121.46 E200.98611
G1 X97.66 Y121.50 E200.98795
G1 X97.35 Y121.56 E200.99841
G1 X97.07 Y121.36 E201.00982
G1 X96.73 Y121.50 E201.02174
G1 X96.72 Y121.51 E201.02219
G1 X96.69 Y121.49 E201.02344
G1 X96.09 Y122.10 E201.05185
G1 X95.89 Y122.33 E201.06178
G1 X95.14 Y122.85 E201.09220
G1 X94.94 Y122.94 E201.09950
G1 X94.73 Y123.08 E201.10802
G1 X94.61 Y123.12 E201.11220
G1 X94.30 Y123.18 E201.12268
G1 X93.78 Y123.08 E201.13992
G1 X93.33 Y122.79 E201.15789
G1 X93.20 Y122.73 E201.16256
G1 X93.10 Y122.65 E201.16662
G1 X92.72 Y122.25 E201.18516
G1 X92.64 Y122.18 E201.18843
G1 X92.48 Y121.93 E201.19848
G1 X92.22 Y121.27 E201.22188
G0 F12000 X93.21 Y120.93
;TYPE:FILL
G1 F600 X96.68 Y117.46 E201.38462
G0 F12000 X96.05 Y117.53
G1 F600 X93.34 Y120.24 E201.51156
G0 F12000 X93.28 Y119.73
G1 F600 X95.48 Y117.53 E201.61455
G0 F12000 X94.97 Y117.48
G1 F600 X93.06 Y119.39 E201.70417
G0 F12000 X92.74 Y119.15
G1 F600 X94.57 Y117.32 E201.79008
G0 F12000 X94.17 Y117.15
G1 F600 X92.71 Y118.61 E201.85851
G0 F12000 X92.49 Y118.26
G1 F600 X93.67 Y117.09 E201.91350
G0 F12000 X93.02 Y117.17
G1 F600 X92.13 Y118.06 E201.95521
G0 F12000 X93.29 Y121.42
G1 F600 X97.53 Y117.18 E202.15410
G0 F12000 X98.11 Y117.16
G1 F600 X93.53 Y121.74 E202.36904
G0 F12000 X93.83 Y122.01
G1 F600 X98.53 Y117.31 E202.58954
G0 F12000 X98.84 Y117.55
G1 F600 X96.75 Y119.65 E202.68769
G0 F12000 X96.68 Y119.72
G1 F600 X94.19 Y122.21 E202.80429
G0 F12000 X96.59 Y120.37
G1 F600 X96.69 Y120.27 E202.80902
G0 F12000 X97.40 Y119.56
G1 F600 X99.03 Y117.94 E202.88532
G0 F12000 X98.96 Y118.57
G1 F600 X98.08 Y119.45 E202.92675
;LAYER:2
G0 F12000 X98.09 Y119.53 Z0.70
;TYPE:WALL-INNER
G1 F600 X97.59 Y119.52 E202.94308
G1 X97.55 Y119.60 E202.94615
G1 X96.77 Y119.70 E202.97220
G1 X96.80 Y120.58 E203.00144
G1 X96.54 Y120.68 E203.01089
G1 X96.22 Y121.02 E203.02607
G1 X96.15 Y121.12 E203.03021
G1 X95.72 Y121.59 E203.05156
G1 X94.88 Y122.15 E203.08492
G1 X94.57 Y122.36 E203.09720
G1 X94.47 Y122.38 E203.10086
G1 X94.23 Y122.34 E203.10877
G1 X93.85 Y122.12 E203.12336
G1 X93.79 Y122.07 E203.12605
G1 X93.61 Y121.88 E203.13469
G1 X93.40 Y121.69 E203.14402
G1 X93.27 Y121.46 E203.15292
G1 X93.18 Y121.18 E203.16253
G1 X93.38 Y120.52 E203.18559
G1 X93.33 Y120.05 E203.20122
G1 X93.11 Y119.58 E203.21818
G1 X92.78 Y119.35 E203.23168
G1 X93.41 Y118.70 E203.26155
G1 X92.04 Y117.92 E203.31371
G1 X92.00 Y117.85 E203.31659
G1 X92.05 Y117.75 E203.32039
G1 X92.10 Y117.61 E203.32511
G1 X92.38 Y117.31 E203.33874
G1 X92.49 Y117.21 E203.34373
G1 X92.88 Y116.98 E203.35873
G1 X93.83 Y116.86 E203.39041
G1 X93.97 Y116.87 E203.39516
G1 X94.32 Y116.98 E203.40743
G1 X94.68 Y117.24 E203.42198
G1 X95.17 Y117.44 E203.43963
G1 X95.97 Y117.39 E203.46646
G1 X96.07 Y117.39 E203.46975
G1 X96.84 Y117.21 E203.49598
G1 X97.60 Y116.89 E203.52322
G1 X97.74 Y116.86 E203.52798
G1 X97.78 Y116.87 E203.52932
G1 X97.83 Y116.89 E203.53131
G1 X98.42 Y117.06 E203.55146
G1 X98.82 Y117.30 E203.56697
G1 X99.01 Y117.61 E203.57900
G1 X99.11 Y117.86 E203.58775
G1 X99.14 Y118.08 E203.59537
G1 X99.15 Y118.21 E203.59962
G1 X99.08 Y118.52 E203.61011
G1 X98.92 Y118.94 E203.62493
G1 X98.58 Y119.55 E203.64820
G1 X98.24 Y119.54 E203.65938
G1 X98.21 Y119.52 E203.66060
G1 X98.09 Y119.53 E203.66478
G0 F12000 X98.11 Y119.93
G1 F600 X97.84 Y119.92 E203.67381
G1 X97.81 Y119.97 E203.67552
G1 X97.18 Y120.05 E203.69661
G1 X97.21 Y120.84 E203.72300
G1 X96.77 Y121.02 E203.73879
G1 X96.53 Y121.27 E203.74998
G1 X96.47 Y121.36 E203.75391
G1 X95.98 Y121.90 E203.77791
G1 X95.11 Y122.48 E203.81261
G1 X94.74 Y122.72 E203.82724
G1 X94.62 Y122.76 E203.83152
G1 X94.47 Y122.79 E203.83642
G1 X94.25 Y122.76 E203.84392
G1 X94.08 Y122.72 E203.84967
G1 X93.62 Y122.45 E203.86732
G1 X93.52 Y122.36 E203.87182
G1 X93.33 Y122.16 E203.88089
G1 X93.10 Y121.96 E203.89130
G1 X93.00 Y121.81 E203.89708
G1 X92.91 Y121.62 E203.90426
G1 X92.76 Y121.17 E203.91978
G1 X92.97 Y120.48 E203.94368
G1 X92.94 Y120.16 E203.95443
G1 X92.79 Y119.85 E203.96586
G1 X92.34 Y119.52 E203.98438
G1 X92.16 Y119.42 E203.99124
G1 X92.76 Y118.79 E204.02036
G1 X91.74 Y118.21 E204.05930
G1 X91.56 Y117.89 E204.07142
G1 X91.56 Y117.83 E204.07371
G1 X91.68 Y117.59 E204.08261
G1 X91.74 Y117.42 E204.08857
G1 X91.84 Y117.28 E204.09418
G1 X92.25 Y116.89 E204.11291
G1 X92.71 Y116.62 E204.13054
G1 X92.76 Y116.59 E204.13265
G1 X93.81 Y116.46 E204.16771
G1 X94.04 Y116.47 E204.17515
G1 X94.50 Y116.62 E204.19134
G1 X94.87 Y116.89 E204.20652
G1 X95.24 Y117.04 E204.21955
G1 X95.97 Y116.99 E204.24409
G1 X96.04 Y116.99 E204.24621
G1 X96.72 Y116.83 E204.26942
G1 X97.48 Y116.50 E204.29710
G1 X97.73 Y116.46 E204.30545
G1 X97.88 Y116.48 E204.31038
G1 X97.97 Y116.52 E204.31361
G1 X98.58 Y116.69 E204.33458
G1 X99.11 Y117.01 E204.35499
G1 X99.37 Y117.43 E204.37138
G1 X99.50 Y117.75 E204.38289
G1 X99.54 Y118.05 E204.39282
G1 X99.55 Y118.25 E204.39950
G1 X99.46 Y118.63 E204.41254
G1 X99.28 Y119.11 E204.42947
G1 X98.91 Y119.78 E204.45497
G1 X98.86 Y119.84 E204.45745
G1 X98.72 Y119.93 E204.46296
G1 X98.62 Y119.95 E204.46629
G1 X98.11 Y119.93 E204.48335
G0 F12000 X98.08 Y120.33
;TYPE:WALL-OUTER
G1 F600 X98.06 Y120.38 E204.48521
G1 X98.01 Y120.35 E204.48716
G1 X97.59 Y120.40 E204.50104
G1 X97.61 Y121.08 E204.52351
G1 X97.66 Y121.27 E204.53025
G1 X97.58 Y121.29 E204.53276
G1 X97.42 Y121.18 E204.53900
G1 X97.00 Y121.36 E204.55437
G1 X96.85 Y121.52 E204.56155
G1 X96.78 Y121.61 E204.56518
G1 X96.23 Y122.21 E204.59219
G1 X95.34 Y122.81 E204.62795
G1 X95.26 Y122.86 E204.63126
G1 X94.91 Y123.09 E204.64486
G1 X94.71 Y123.15 E204.65181
G1 X94.48 Y123.19 E204.65964
G1 X94.18 Y123.15 E204.66989
G1 X93.93 Y123.09 E204.67813
G1 X93.39 Y122.78 E204.69885
G1 X93.24 Y122.65 E204.70552
G1 X93.05 Y122.45 E204.71471
G1 X92.79 Y122.22 E204.72611
G1 X92.66 Y122.01 E204.73450
G1 X92.53 Y121.76 E204.74364
G1 X92.42 Y121.44 E204.75499
G1 X92.35 Y121.16 E204.76459
G1 X92.57 Y120.44 E204.78939
G1 X92.55 Y120.27 E204.79526
G1 X92.47 Y120.11 E204.80114
G1 X92.14 Y119.86 E204.81508
G1 X91.87 Y119.73 E204.82494
G1 X91.72 Y119.63 E204.83078
G1 X91.62 Y119.50 E204.83622
G1 X91.62 Y119.46 E204.83774
G1 X91.63 Y119.40 E204.83980
G1 X92.12 Y118.89 E204.86324
G1 X91.50 Y118.54 E204.88666
G1 X91.43 Y118.47 E204.89014
G1 X91.24 Y118.13 E204.90294
G1 X91.17 Y118.04 E204.90676
G1 X91.16 Y117.74 E204.91663
G1 X91.31 Y117.43 E204.92828
G1 X91.39 Y117.22 E204.93547
G1 X91.54 Y117.02 E204.94401
G1 X91.84 Y116.72 E204.95797
G1 X92.01 Y116.57 E204.96556
G1 X92.52 Y116.27 E204.98514
G1 X92.66 Y116.20 E204.99019
G1 X93.80 Y116.06 E205.02825
G1 X94.11 Y116.08 E205.03862
G1 X94.68 Y116.26 E205.05859
G1 X95.07 Y116.54 E205.07449
G1 X95.30 Y116.63 E205.08284
G1 X95.97 Y116.59 E205.10506
G1 X96.00 Y116.59 E205.10612
G1 X96.59 Y116.45 E205.12621
G1 X97.38 Y116.11 E205.15461
G1 X97.72 Y116.06 E205.16618
G1 X97.98 Y116.09 E205.17482
G1 X98.11 Y116.14 E205.17926
G1 X98.74 Y116.33 E205.20107
G1 X99.40 Y116.72 E205.22652
G1 X99.72 Y117.24 E205.24711
G1 X99.88 Y117.65 E205.26152
G1 X99.95 Y118.28 E205.28267
G1 X99.84 Y118.75 E205.29858
G1 X99.65 Y119.28 E205.31727
G1 X99.24 Y120.00 E205.34479
G1 X99.14 Y120.13 E205.35021
G1 X99.01 Y120.22 E205.35548
G1 X98.86 Y120.30 E205.36109
G1 X98.66 Y120.35 E205.36792
G1 X98.08 Y120.33 E205.38724
G0 F12000 X98.21 Y119.37
;TYPE:FILL
G1 F600 X96.32 Y117.48 E205.47610
G0 F12000 X96.78 Y117.37
G1 F600 X98.61 Y119.21 E205.56213
G0 F12000 X98.81 Y118.84
G1 F600 X97.19 Y117.22 E205.63828
G0 F12000 X97.58 Y117.05
G1 F600 X98.95 Y118.42 E205.70289
G0 F12000 X98.96 Y117.87
G1 F600 X98.26 Y117.16 E205.73601
G0 F12000 X97.65 Y119.38
G1 F600 X95.81 Y117.54 E205.82216
G0 F12000 X95.28 Y117.57
G1 F600 X97.21 Y119.50 E205.91248
G0 F12000 X96.71 Y119.56
G1 F600 X94.25 Y117.10 E206.02783
G0 F12000 X93.61 Y117.03
G1 F600 X96.64 Y120.06 E206.17009
G0 F12000 X96.55 Y120.53
G1 F600 X93.11 Y117.09 E206.33126
G0 F12000 X92.70 Y117.25
G1 F600 X96.24 Y120.79 E206.49737
G0 F12000 X95.98 Y121.09
G1 F600 X93.59 Y118.70 E206.60956
G0 F12000 X93.44 Y118.55
G1 F600 X92.39 Y117.50 E206.65894
G0 F12000 X93.32 Y118.99
G1 F600 X95.71 Y121.39 E206.77141
G0 F12000 X95.40 Y121.64
G1 F600 X93.04 Y119.28 E206.88199
G0 F12000 X93.49 Y120.30
G1 F600 X95.06 Y121.86 E206.95542
G0 F12000 X94.72 Y122.09
G1 F600 X93.44 Y120.81 E207.01562
G0 F12000 X93.36 Y121.30
G1 F600 X94.27 Y122.21 E207.05827
;LAYER:3
G0 F12000 X94.39 Y122.36 Z0.90
;TYPE:WALL-INNER
G1 F600 X94.01 Y122.15 E207.07272
G1 X93.56 Y121.74 E207.09311
G1 X93.38 Y121.37 E207.10684
G1 X93.35 Y121.24 E207.11125
G1 X93.52 Y120.68 E207.13053
G1 X93.52 Y120.30 E207.14323
G1 X93.23 Y119.67 E207.16619
G1 X92.85 Y119.40 E207.18178
G1 X92.66 Y119.30 E207.18893
G1 X93.09 Y118.66 E207.21477
G1 X92.14 Y117.76 E207.25836
G1 X92.12 Y117.74 E207.25912
G1 X92.21 Y117.56 E207.26571
G1 X92.56 Y117.22 E207.28166
G1 X93.04 Y116.91 E207.30081
G1 X93.09 Y116.89 E207.30255
G1 X93.95 Y116.78 E207.33121
G1 X94.26 Y116.89 E207.34219
G1 X95.06 Y117.46 E207.37463
G1 X96.41 Y117.59 E207.41964
G1 X96.70 Y117.25 E207.43458
G1 X96.80 Y117.23 E207.43783
G1 X97.29 Y116.91 E207.45734
G1 X97.55 Y116.79 E207.46679
G1 X97.88 Y116.83 E207.47779
G1 X98.07 Y116.91 E207.48485
G1 X98.35 Y116.99 E207.49432
G1 X98.75 Y117.23 E207.50995
G1 X98.87 Y117.42 E207.51718
G1 X99.05 Y117.86 E207.53302
G1 X99.11 Y118.24 E207.54576
G1 X99.08 Y118.35 E207.54940
G1 X98.78 Y119.17 E207.57839
G1 X98.59 Y119.49 E207.59094
G1 X98.15 Y119.48 E207.60551
G1 X97.95 Y119.42 E207.61240
G1 X96.57 Y119.93 E207.66105
G1 X96.75 Y120.60 E207.68388
G1 X96.52 Y120.83 E207.69476
G1 X96.20 Y121.33 E207.71433
G1 X96.06 Y121.47 E207.72107
G1 X95.60 Y121.78 E207.73958
G1 X94.99 Y122.21 E207.76411
G1 X94.75 Y122.36 E207.77350
G1 X94.64 Y122.40 E207.77730
G1 X94.39 Y122.36 E207.78564
G0 F12000 X94.24 Y122.74
G1 F600 X94.04 Y122.61 E207.79366
G1 X93.80 Y122.49 E207.80262
G1 X93.25 Y122.00 E207.82690
G1 X93.18 Y121.90 E207.83102
G1 X93.00 Y121.48 E207.84602
G1 X92.93 Y121.22 E207.85501
G1 X93.12 Y120.62 E207.87589
G1 X93.12 Y120.39 E207.88365
G1 X92.92 Y119.93 E207.90022
G1 X92.64 Y119.74 E207.91123
G1 X92.20 Y119.52 E207.92785
G1 X92.04 Y119.41 E207.93412
G1 X92.17 Y119.31 E207.93945
G1 X92.57 Y118.72 E207.96338
G1 X91.84 Y118.02 E207.99701
G1 X91.69 Y117.81 E208.00545
G1 X91.68 Y117.73 E208.00834
G1 X91.86 Y117.37 E208.02147
G1 X91.88 Y117.33 E208.02281
G1 X92.25 Y116.95 E208.04066
G1 X92.32 Y116.90 E208.04358
G1 X92.71 Y116.66 E208.05876
G1 X92.84 Y116.56 E208.06410
G1 X92.98 Y116.50 E208.06924
G1 X93.93 Y116.38 E208.10098
G1 X94.03 Y116.39 E208.10417
G1 X94.45 Y116.53 E208.11882
G1 X95.20 Y117.07 E208.14958
G1 X96.24 Y117.18 E208.18419
G1 X96.48 Y116.90 E208.19640
G1 X96.62 Y116.86 E208.20136
G1 X96.90 Y116.67 E208.21255
G1 X97.10 Y116.55 E208.22015
G1 X97.46 Y116.40 E208.23323
G1 X97.52 Y116.39 E208.23504
G1 X97.98 Y116.44 E208.25052
G1 X98.21 Y116.54 E208.25882
G1 X98.51 Y116.62 E208.26920
G1 X99.03 Y116.94 E208.28930
G1 X99.23 Y117.25 E208.30167
G1 X99.44 Y117.76 E208.31993
G1 X99.50 Y118.19 E208.33446
G1 X99.51 Y118.28 E208.33728
G1 X99.47 Y118.46 E208.34344
G1 X99.14 Y119.33 E208.37445
G1 X98.93 Y119.71 E208.38861
G1 X98.84 Y119.82 E208.39329
G1 X98.70 Y119.90 E208.39859
G1 X98.09 Y119.88 E208.41907
G1 X97.96 Y119.84 E208.42336
G1 X97.05 Y120.18 E208.45557
G1 X97.20 Y120.74 E208.47490
G1 X97.20 Y120.81 E208.47719
G1 X97.03 Y120.88 E208.48320
G1 X96.84 Y121.08 E208.49247
G1 X96.51 Y121.57 E208.51196
G1 X96.32 Y121.78 E208.52131
G1 X95.82 Y122.11 E208.54128
G1 X95.22 Y122.53 E208.56540
G1 X94.93 Y122.73 E208.57728
G1 X94.66 Y122.80 E208.58649
G1 X94.24 Y122.74 E208.60046
G0 F12000 X94.09 Y123.11
;TYPE:WALL-OUTER
G1 F600 X93.84 Y122.96 E208.61009
G1 X93.58 Y122.83 E208.61982
G1 X92.94 Y122.26 E208.64809
G1 X92.84 Y122.10 E208.65452
G1 X92.68 Y121.77 E208.66662
G1 X92.61 Y121.59 E208.67296
G1 X92.52 Y121.21 E208.68597
G1 X92.72 Y120.56 E208.70855
G1 X92.72 Y120.47 E208.71141
G1 X92.60 Y120.20 E208.72155
G1 X92.44 Y120.08 E208.72799
G1 X91.99 Y119.86 E208.74449
G1 X91.73 Y119.68 E208.75509
G1 X91.54 Y119.45 E208.76498
G1 X91.58 Y119.30 E208.77018
G1 X91.72 Y119.16 E208.77684
G1 X91.88 Y119.03 E208.78357
G1 X92.05 Y118.77 E208.79399
G1 X91.58 Y118.33 E208.81553
G1 X91.55 Y118.31 E208.81659
G1 X91.34 Y118.02 E208.82848
G1 X91.30 Y117.92 E208.83219
G1 X91.28 Y117.64 E208.84136
G1 X91.52 Y117.14 E208.86001
G1 X91.97 Y116.67 E208.88167
G1 X92.09 Y116.57 E208.88668
G1 X92.49 Y116.33 E208.90221
G1 X92.64 Y116.22 E208.90838
G1 X92.88 Y116.11 E208.91705
G1 X93.91 Y115.98 E208.95161
G1 X94.11 Y115.99 E208.95815
G1 X94.64 Y116.18 E208.97685
G1 X95.35 Y116.69 E209.00564
G1 X96.07 Y116.76 E209.02981
G1 X96.26 Y116.54 E209.03934
G1 X96.45 Y116.49 E209.04598
G1 X96.68 Y116.33 E209.05515
G1 X96.93 Y116.19 E209.06462
G1 X97.35 Y116.01 E209.07994
G1 X97.51 Y115.99 E209.08510
G1 X98.08 Y116.05 E209.10424
G1 X98.34 Y116.16 E209.11378
G1 X98.67 Y116.26 E209.12502
G1 X99.31 Y116.64 E209.14976
G1 X99.59 Y117.07 E209.16692
G1 X99.83 Y117.65 E209.18766
G1 X99.90 Y118.16 E209.20453
G1 X99.91 Y118.31 E209.20971
G1 X99.85 Y118.57 E209.21864
G1 X99.50 Y119.51 E209.25174
G1 X99.27 Y119.92 E209.26760
G1 X99.12 Y120.11 E209.27547
G1 X98.81 Y120.30 E209.28755
G1 X98.03 Y120.28 E209.31347
G1 X97.98 Y120.27 E209.31517
G1 X97.53 Y120.43 E209.33090
G1 X97.60 Y120.70 E209.34031
G1 X97.58 Y121.09 E209.35314
G1 X97.26 Y121.22 E209.36465
G1 X97.15 Y121.33 E209.36988
G1 X96.83 Y121.82 E209.38921
G1 X96.58 Y122.08 E209.40123
G1 X96.05 Y122.44 E209.42265
G1 X95.44 Y122.86 E209.44697
G1 X95.10 Y123.09 E209.46064
G1 X94.82 Y123.18 E209.47038
G1 X94.67 Y123.21 E209.47554
G1 X94.09 Y123.11 E209.49503
G0 F12000 X94.27 Y122.13
;TYPE:FILL
G1 F600 X96.44 Y119.96 E209.59685
G0 F12000 X96.64 Y119.75
G1 F600 X98.79 Y117.60 E209.69779
G0 F12000 X98.56 Y117.28
G1 F600 X93.94 Y121.89 E209.91440
G0 F12000 X93.65 Y121.62
G1 F600 X98.18 Y117.09 E210.12682
G0 F12000 X97.75 Y116.95
G1 F600 X93.51 Y121.20 E210.32595
G0 F12000 X93.66 Y120.48
G1 F600 X96.41 Y117.73 E210.45479
G0 F12000 X95.89 Y117.68
G1 F600 X93.55 Y120.03 E210.56477
G0 F12000 X93.37 Y119.64
G1 F600 X95.38 Y117.63 E210.65898
G0 F12000 X94.92 Y117.53
G1 F600 X93.07 Y119.38 E210.74574
G0 F12000 X93.26 Y118.62
G1 F600 X94.59 Y117.30 E210.80788
G0 F12000 X94.26 Y117.06
G1 F600 X92.97 Y118.35 E210.86824
G0 F12000 X92.68 Y118.08
G1 F600 X93.82 Y116.94 E210.92159
G0 F12000 X93.17 Y117.02
G1 F600 X92.39 Y117.80 E210.95821
G0 F12000 X96.56 Y120.41
G1 F600 X94.81 Y122.15 E211.04018
G0 F12000 X97.54 Y119.43
G1 F600 X98.93 Y118.03 E211.10568
G0 F12000 X98.78 Y118.74
G1 F600 X98.18 Y119.34 E211.13390
;LAYER:4
G0 F12000 X98.14 Y119.51 Z1.10
;TYPE:WALL-INNER
G1 F600 X97.85 Y119.44 E211.14363
G1 X96.55 Y119.92 E211.18963
G1 X96.77 Y120.74 E211.21780
G1 X96.49 Y121.18 E211.23501
G1 X96.33 Y121.40 E211.24406
G1 X95.20 Y122.20 E211.28995
G1 X94.94 Y122.37 E211.30029
G1 X94.81 Y122.41 E211.30487
G1 X94.50 Y122.37 E211.31509
G1 X94.23 Y122.22 E211.32555
G1 X93.81 Y121.86 E211.34383
G1 X93.70 Y121.77 E211.34828
G1 X93.57 Y121.50 E211.35854
G1 X93.52 Y121.31 E211.36501
G1 X93.80 Y120.51 E211.39302
G1 X93.40 Y119.84 E211.41902
G1 X93.16 Y119.58 E211.43066
G1 X92.55 Y119.32 E211.45264
G1 X93.09 Y118.52 E211.48446
G1 X92.41 Y117.89 E211.51520
G1 X92.25 Y117.64 E211.52507
G1 X92.28 Y117.58 E211.52758
G1 X92.65 Y117.20 E211.54501
G1 X92.86 Y117.04 E211.55396
G1 X93.41 Y116.80 E211.57390
G1 X93.71 Y116.74 E211.58406
G1 X94.00 Y116.71 E211.59352
G1 X94.15 Y116.76 E211.59887
G1 X94.39 Y116.82 E211.60721
G1 X94.44 Y116.88 E211.60966
G1 X95.03 Y117.36 E211.63495
G1 X95.46 Y117.67 E211.65252
G1 X96.42 Y117.76 E211.68441
G1 X96.94 Y117.15 E211.71109
G1 X97.05 Y117.00 E211.71745
G1 X97.48 Y116.74 E211.73403
G1 X97.98 Y116.79 E211.75064
G1 X98.22 Y116.89 E211.75948
G1 X98.66 Y117.16 E211.77640
G1 X98.82 Y117.39 E211.78579
G1 X98.98 Y117.78 E211.79974
G1 X99.01 Y117.88 E211.80340
G1 X99.05 Y118.25 E211.81578
G1 X98.63 Y119.39 E211.85599
G1 X98.57 Y119.48 E211.85958
G1 X98.50 Y119.52 E211.86208
G1 X98.14 Y119.51 E211.87422
G0 F12000 X98.09 Y119.91
G1 F600 X97.88 Y119.86 E211.88146
G1 X97.03 Y120.17 E211.91141
G1 X97.20 Y120.83 E211.93413
G1 X97.13 Y120.91 E211.93758
G1 X96.82 Y121.40 E211.95701
G1 X96.62 Y121.69 E211.96852
G1 X95.43 Y122.52 E212.01672
G1 X95.11 Y122.73 E212.02931
G1 X94.84 Y122.82 E212.03891
G1 X94.38 Y122.75 E212.05443
G1 X94.00 Y122.55 E212.06868
G1 X93.56 Y122.17 E212.08790
G1 X93.39 Y122.03 E212.09502
G1 X93.19 Y121.63 E212.10984
G1 X93.10 Y121.29 E212.12171
G1 X93.36 Y120.56 E212.14751
G1 X93.08 Y120.08 E212.16579
G1 X92.93 Y119.92 E212.17327
G1 X92.36 Y119.67 E212.19392
G1 X92.32 Y119.65 E212.19545
G1 X92.02 Y119.42 E212.20789
G1 X91.98 Y119.36 E212.21008
G1 X92.11 Y119.26 E212.21561
G1 X92.57 Y118.58 E212.24269
G1 X92.09 Y118.14 E212.26443
G1 X92.04 Y118.05 E212.26769
G1 X91.86 Y117.80 E212.27791
G1 X91.81 Y117.69 E212.28189
G1 X91.81 Y117.63 E212.28395
G1 X91.94 Y117.36 E212.29398
G1 X92.38 Y116.91 E212.31498
G1 X92.66 Y116.69 E212.32656
G1 X93.29 Y116.42 E212.34953
G1 X94.04 Y116.30 E212.37470
G1 X94.26 Y116.38 E212.38248
G1 X94.62 Y116.47 E212.39465
G1 X94.72 Y116.60 E212.40015
G1 X95.27 Y117.04 E212.42361
G1 X95.61 Y117.28 E212.43721
G1 X96.25 Y117.34 E212.45871
G1 X96.63 Y116.91 E212.47786
G1 X96.77 Y116.71 E212.48596
G1 X96.97 Y116.56 E212.49426
G1 X97.40 Y116.33 E212.51044
G1 X98.08 Y116.40 E212.53318
G1 X98.41 Y116.53 E212.54494
G1 X98.94 Y116.86 E212.56559
G1 X99.17 Y117.20 E212.57925
G1 X99.36 Y117.64 E212.59525
G1 X99.41 Y117.81 E212.60105
G1 X99.46 Y118.31 E212.61755
G1 X98.99 Y119.56 E212.66197
G1 X98.84 Y119.78 E212.67107
G1 X98.63 Y119.91 E212.67891
G1 X98.59 Y119.92 E212.68048
G1 X98.09 Y119.91 E212.69704
G0 F12000 X98.04 Y120.31
;TYPE:WALL-OUTER
G1 F600 X97.90 Y120.28 E212.70178
G1 X97.51 Y120.42 E212.71561
G1 X97.62 Y120.84 E212.73023
G1 X97.61 Y121.04 E212.73675
G1 X97.52 Y121.08 E212.73990
G1 X97.45 Y121.15 E212.74333
G1 X97.15 Y121.62 E212.76192
G1 X96.91 Y121.97 E212.77587
G1 X95.65 Y122.86 E212.82694
G1 X95.28 Y123.09 E212.84144
G1 X94.85 Y123.22 E212.85636
G1 X94.32 Y123.15 E212.87421
G1 X94.23 Y123.13 E212.87713
G1 X93.77 Y122.88 E212.89458
G1 X93.29 Y122.47 E212.91530
G1 X93.09 Y122.30 E212.92428
G1 X93.02 Y122.19 E212.92867
G1 X92.81 Y121.77 E212.94402
G1 X92.69 Y121.27 E212.96129
G1 X92.93 Y120.60 E212.98487
G1 X92.76 Y120.33 E212.99538
G1 X92.69 Y120.25 E212.99868
G1 X92.18 Y120.03 E213.01730
G1 X92.09 Y119.98 E213.02073
G1 X91.74 Y119.70 E213.03545
G1 X91.54 Y119.44 E213.04642
G1 X91.52 Y119.39 E213.04848
G1 X91.52 Y119.22 E213.05409
G1 X91.82 Y118.98 E213.06649
G1 X92.05 Y118.64 E213.08021
G1 X91.77 Y118.38 E213.09291
G1 X91.70 Y118.26 E213.09747
G1 X91.52 Y118.01 E213.10778
G1 X91.42 Y117.80 E213.11551
G1 X91.40 Y117.55 E213.12386
G1 X91.60 Y117.14 E213.13893
G1 X91.68 Y117.05 E213.14295
G1 X92.12 Y116.61 E213.16354
G1 X92.45 Y116.35 E213.17755
G1 X93.18 Y116.03 E213.20383
G1 X93.59 Y115.95 E213.21787
G1 X94.04 Y115.90 E213.23284
G1 X94.11 Y115.91 E213.23530
G1 X94.78 Y116.10 E213.25816
G1 X94.88 Y116.16 E213.26229
G1 X95.01 Y116.31 E213.26890
G1 X95.52 Y116.73 E213.29055
G1 X95.75 Y116.90 E213.30020
G1 X96.08 Y116.93 E213.31130
G1 X96.31 Y116.66 E213.32292
G1 X96.48 Y116.42 E213.33257
G1 X96.76 Y116.22 E213.34413
G1 X97.31 Y115.92 E213.36504
G1 X98.18 Y116.00 E213.39396
G1 X98.59 Y116.18 E213.40867
G1 X99.03 Y116.45 E213.42575
G1 X99.22 Y116.56 E213.43303
G1 X99.52 Y117.01 E213.45106
G1 X99.73 Y117.51 E213.46902
G1 X99.80 Y117.73 E213.47659
G1 X99.86 Y118.31 E213.49605
G1 X99.86 Y118.34 E213.49714
G1 X99.35 Y119.73 E213.54630
G1 X99.28 Y119.86 E213.55101
G1 X99.11 Y120.09 E213.56072
G1 X98.79 Y120.28 E213.57297
G1 X98.64 Y120.32 E213.57821
G1 X98.04 Y120.31 E213.59802
G0 F12000 X98.21 Y119.37
;TYPE:FILL
G1 F600 X96.60 Y117.76 E213.67361
G0 F12000 X96.86 Y117.46
G1 F600 X98.57 Y119.16 E213.75361
G0 F12000 X98.72 Y118.75
G1 F600 X97.12 Y117.15 E213.82882
G0 F12000 X97.45 Y116.92
G1 F600 X98.87 Y118.34 E213.89554
G0 F12000 X98.80 Y117.70
G1 F600 X98.08 Y116.98 E213.92948
G0 F12000 X96.15 Y117.88
G1 F600 X97.64 Y119.37 E213.99951
G0 F12000 X97.23 Y119.52
G1 F600 X95.53 Y117.82 E214.07944
G0 F12000 X94.01 Y116.86
G1 F600 X96.82 Y119.67 E214.21119
G0 F12000 X96.40 Y119.82
G1 F600 X93.51 Y116.92 E214.34706
G0 F12000 X93.10 Y117.08
G1 F600 X96.57 Y120.56 E214.50987
G0 F12000 X96.44 Y120.99
G1 F600 X92.75 Y117.30 E214.68289
G0 F12000 X92.47 Y117.58
G1 F600 X96.21 Y121.32 E214.85823
G0 F12000 X95.88 Y121.55
G1 F600 X93.09 Y118.77 E214.98885
G0 F12000 X92.86 Y119.11
G1 F600 X93.22 Y119.46 E215.00534
G0 F12000 X93.52 Y119.75
G1 F600 X95.54 Y121.78 E215.10052
G0 F12000 X95.21 Y122.02
G1 F600 X93.89 Y120.69 E215.16276
G0 F12000 X93.74 Y121.11
G1 F600 X94.87 Y122.24 E215.21601
;LAYER:5
G0 F12000 X94.96 Y122.42 Z1.30
;TYPE:WALL-INNER
G1 F600 X94.63 Y122.37 E215.22703
G1 X94.40 Y122.25 E215.23574
G1 X94.11 Y122.04 E215.24748
G1 X93.88 Y121.84 E215.25785
G1 X93.70 Y121.50 E215.27064
G1 X93.68 Y121.43 E215.27314
G1 X94.00 Y120.61 E215.30211
G1 X93.62 Y119.98 E215.32645
G1 X93.32 Y119.67 E215.34074
G1 X92.72 Y119.41 E215.36259
G1 X92.61 Y119.38 E215.36620
G1 X92.49 Y119.28 E215.37153
G1 X92.50 Y119.26 E215.37227
G1 X92.79 Y119.04 E215.38432
G1 X92.79 Y118.29 E215.40920
G1 X92.50 Y117.75 E215.42947
G1 X92.39 Y117.59 E215.43584
G1 X92.56 Y117.38 E215.44493
G1 X92.76 Y117.18 E215.45411
G1 X92.91 Y117.11 E215.45963
G1 X93.09 Y116.95 E215.46755
G1 X93.32 Y116.89 E215.47536
G1 X93.70 Y116.72 E215.48937
G1 X94.13 Y116.64 E215.50372
G1 X94.58 Y116.75 E215.51923
G1 X94.61 Y116.77 E215.52042
G1 X94.83 Y117.03 E215.53161
G1 X95.84 Y117.86 E215.57517
G1 X96.13 Y117.74 E215.58533
G1 X96.54 Y117.84 E215.59929
G1 X97.25 Y116.81 E215.64072
G1 X97.28 Y116.78 E215.64214
G1 X97.47 Y116.68 E215.64927
G1 X97.98 Y116.73 E215.66629
G1 X98.05 Y116.74 E215.66862
G1 X98.55 Y117.05 E215.68815
G1 X98.85 Y117.51 E215.70633
G1 X99.00 Y118.00 E215.72333
G1 X99.02 Y118.21 E215.73042
G1 X99.00 Y118.29 E215.73297
G1 X98.60 Y119.38 E215.77153
G1 X98.51 Y119.48 E215.77612
G1 X98.48 Y119.50 E215.77716
G1 X98.31 Y119.55 E215.78287
G1 X98.16 Y119.54 E215.78804
G1 X97.78 Y119.45 E215.80103
G1 X96.53 Y119.91 E215.84524
G1 X96.80 Y120.96 E215.88121
G1 X96.59 Y121.30 E215.89447
G1 X96.08 Y121.72 E215.91653
G1 X95.40 Y122.20 E215.94408
G1 X95.14 Y122.36 E215.95438
G1 X94.96 Y122.42 E215.96042
G0 F12000 X95.00 Y122.83
G1 F600 X94.51 Y122.76 E215.97674
G1 X94.18 Y122.59 E215.98914
G1 X93.56 Y122.09 E216.01539
G1 X93.32 Y121.65 E216.03204
G1 X93.26 Y121.40 E216.04056
G1 X93.56 Y120.65 E216.06729
G1 X93.30 Y120.23 E216.08360
G1 X93.09 Y120.01 E216.09373
G1 X92.57 Y119.78 E216.11247
G1 X92.44 Y119.74 E216.11696
G1 X92.40 Y119.71 E216.11865
G1 X92.12 Y119.50 E216.13042
G1 X92.04 Y119.42 E216.13418
G1 X91.94 Y119.30 E216.13935
G1 X92.05 Y119.22 E216.14371
G1 X92.20 Y118.98 E216.15313
G1 X92.39 Y118.84 E216.16079
G1 X92.39 Y118.39 E216.17589
G1 X92.17 Y117.96 E216.19193
G1 X92.04 Y117.78 E216.19919
G1 X91.93 Y117.57 E216.20697
G1 X91.93 Y117.54 E216.20807
G1 X92.27 Y117.10 E216.22648
G1 X92.52 Y116.86 E216.23816
G1 X92.69 Y116.77 E216.24427
G1 X92.89 Y116.60 E216.25311
G1 X93.18 Y116.51 E216.26314
G1 X93.58 Y116.34 E216.27776
G1 X94.14 Y116.23 E216.29653
G1 X94.74 Y116.38 E216.31693
G1 X94.88 Y116.46 E216.32247
G1 X95.11 Y116.75 E216.33457
G1 X95.91 Y117.40 E216.36889
G1 X96.09 Y117.33 E216.37542
G1 X96.36 Y117.39 E216.38461
G1 X96.96 Y116.52 E216.41943
G1 X97.07 Y116.45 E216.42376
G1 X97.35 Y116.29 E216.43465
G1 X97.47 Y116.28 E216.43838
G1 X98.02 Y116.34 E216.45698
G1 X98.18 Y116.35 E216.46211
G1 X98.50 Y116.54 E216.47467
G1 X98.84 Y116.77 E216.48802
G1 X99.21 Y117.32 E216.51000
G1 X99.39 Y117.92 E216.53104
G1 X99.42 Y118.24 E216.54153
G1 X99.39 Y118.40 E216.54703
G1 X98.96 Y119.54 E216.58728
G1 X98.93 Y119.61 E216.58975
G1 X98.77 Y119.79 E216.59790
G1 X98.64 Y119.87 E216.60293
G1 X98.36 Y119.94 E216.61244
G1 X98.11 Y119.94 E216.62080
G1 X97.80 Y119.87 E216.63130
G1 X97.00 Y120.16 E216.65950
G1 X97.23 Y121.02 E216.68902
G1 X96.90 Y121.56 E216.70989
G1 X96.76 Y121.69 E216.71639
G1 X96.31 Y122.05 E216.73563
G1 X95.63 Y122.52 E216.76283
G1 X95.30 Y122.73 E216.77577
G1 X95.00 Y122.83 E216.78639
G0 F12000 X95.03 Y123.23
;TYPE:WALL-OUTER
G1 F600 X94.39 Y123.14 E216.80780
G1 X93.96 Y122.92 E216.82396
G1 X93.80 Y122.79 E216.83094
G1 X93.64 Y122.69 E216.83718
G1 X93.24 Y122.34 E216.85451
G1 X92.96 Y121.82 E216.87418
G1 X92.94 Y121.76 E216.87631
G1 X92.84 Y121.37 E216.88962
G1 X93.11 Y120.69 E216.91408
G1 X92.98 Y120.47 E216.92230
G1 X92.86 Y120.34 E216.92833
G1 X92.28 Y120.10 E216.94919
G1 X91.86 Y119.80 E216.96632
G1 X91.74 Y119.68 E216.97198
G1 X91.58 Y119.49 E216.98025
G1 X91.51 Y119.30 E216.98686
G1 X91.52 Y119.16 E216.99168
G1 X91.54 Y119.10 E216.99357
G1 X91.75 Y118.94 E217.00252
G1 X91.91 Y118.70 E217.01193
G1 X91.99 Y118.64 E217.01517
G1 X91.99 Y118.48 E217.02054
G1 X91.83 Y118.17 E217.03232
G1 X91.69 Y117.99 E217.03973
G1 X91.54 Y117.68 E217.05120
G1 X91.52 Y117.45 E217.05878
G1 X91.58 Y117.34 E217.06298
G1 X91.97 Y116.84 E217.08404
G1 X92.29 Y116.53 E217.09884
G1 X92.47 Y116.44 E217.10542
G1 X92.67 Y116.26 E217.11447
G1 X92.76 Y116.22 E217.11769
G1 X93.04 Y116.14 E217.12744
G1 X93.47 Y115.95 E217.14268
G1 X94.15 Y115.82 E217.16587
G1 X94.89 Y116.00 E217.19112
G1 X95.14 Y116.16 E217.20094
G1 X95.39 Y116.47 E217.21406
G1 X95.98 Y116.94 E217.23909
G1 X96.06 Y116.91 E217.24193
G1 X96.19 Y116.94 E217.24639
G1 X96.67 Y116.24 E217.27462
G1 X96.85 Y116.11 E217.28188
G1 X97.23 Y115.90 E217.29622
G1 X97.46 Y115.88 E217.30400
G1 X98.06 Y115.94 E217.32409
G1 X98.28 Y115.96 E217.33123
G1 X98.36 Y116.00 E217.33405
G1 X98.72 Y116.21 E217.34792
G1 X99.13 Y116.48 E217.36427
G1 X99.56 Y117.13 E217.39008
G1 X99.63 Y117.29 E217.39588
G1 X99.79 Y117.85 E217.41534
G1 X99.82 Y118.26 E217.42893
G1 X99.77 Y118.52 E217.43754
G1 X99.33 Y119.69 E217.47922
G1 X99.27 Y119.83 E217.48414
G1 X99.03 Y120.10 E217.49605
G1 X98.80 Y120.24 E217.50526
G1 X98.42 Y120.34 E217.51832
G1 X98.06 Y120.34 E217.52996
G1 X97.83 Y120.28 E217.53800
G1 X97.48 Y120.41 E217.55016
G1 X97.64 Y120.99 E217.56993
G1 X97.63 Y121.14 E217.57508
G1 X97.32 Y121.65 E217.59472
G1 X97.21 Y121.81 E217.60135
G1 X97.02 Y121.99 E217.60999
G1 X96.55 Y122.37 E217.63006
G1 X95.86 Y122.85 E217.65790
G1 X95.47 Y123.10 E217.67307
G1 X95.03 Y123.23 E217.68842
G0 F12000 X94.72 Y122.24
;TYPE:FILL
G1 F600 X96.38 Y120.58 E217.76650
G0 F12000 X96.64 Y120.89
G1 F600 X95.73 Y121.79 E217.80896
G0 F12000 X95.54 Y121.93
G1 F600 X94.07 Y120.46 E217.87770
G0 F12000 X94.14 Y120.57
G1 F600 X94.55 Y120.16 E217.89698
G0 F12000 X94.82 Y120.45
G1 F600 X93.83 Y121.44 E217.94350
G0 F12000 X94.04 Y121.79
G1 F600 X95.00 Y120.83 E217.98850
G0 F12000 X95.11 Y121.29
G1 F600 X94.35 Y122.04 E218.02383
G0 F12000 X94.05 Y120.85
G1 F600 X98.02 Y116.89 E218.20991
G0 F12000 X98.06 Y116.91
G1 F600 X98.73 Y117.58 E218.24127
G0 F12000 X94.74 Y117.14
G1 F600 X94.55 Y117.05 E218.24569
G1 X94.07 Y116.96 E218.25740
G1 X93.66 Y117.09 E218.27161
G0 F12000 X93.43 Y117.33
G1 F600 X92.78 Y117.97 E218.30182
G0 F12000 X92.58 Y117.61
G1 F600 X92.95 Y117.24 E218.31923
G0 F12000 X93.61 Y117.71
G1 F600 X92.93 Y118.39 E218.35118
G0 F12000 X92.93 Y118.96
G1 F600 X93.52 Y118.37 E218.37884
G0 F12000 X93.38 Y119.07
G1 F600 X93.09 Y119.31 E218.38683
G1 X92.81 Y119.20 E218.39695
G0 F12000 X93.92 Y120.22
G1 F600 X94.18 Y119.96 E218.40898
;LAYER:6
G0 F12000 X93.85 Y120.14 Z1.50
;TYPE:WALL-INNER
G1 F600 X93.49 Y119.76 E218.42616
G1 X93.06 Y119.58 E218.44149
G1 X92.79 Y119.49 E218.45095
G1 X92.66 Y119.41 E218.45597
G1 X92.46 Y119.26 E218.46430
G1 X92.81 Y118.99 E218.47905
G1 X92.86 Y118.12 E218.50789
G1 X92.63 Y117.66 E218.52518
G1 X92.55 Y117.55 E218.52948
G1 X92.54 Y117.54 E218.53004
G1 X92.89 Y117.14 E218.54759
G1 X93.16 Y117.00 E218.55780
G1 X93.32 Y116.86 E218.56477
G1 X93.39 Y116.83 E218.56744
G1 X93.93 Y116.67 E218.58587
G1 X94.00 Y116.64 E218.58856
G1 X94.41 Y116.56 E218.60244
G1 X94.68 Y116.64 E218.61157
G1 X94.87 Y116.76 E218.61915
G1 X95.21 Y117.18 E218.63709
G1 X95.86 Y117.71 E218.66491
G1 X96.20 Y117.57 E218.67701
G1 X96.72 Y117.69 E218.69485
G1 X97.41 Y116.67 E218.73557
G1 X97.67 Y116.64 E218.74414
G1 X97.98 Y116.69 E218.75474
G1 X98.33 Y116.86 E218.76753
G1 X98.46 Y116.94 E218.77264
G1 X98.60 Y117.10 E218.77966
G1 X98.80 Y117.42 E218.79238
G1 X98.97 Y118.07 E218.81443
G1 X98.84 Y118.66 E218.83473
G1 X98.70 Y119.05 E218.84843
G1 X98.51 Y119.43 E218.86245
G1 X98.47 Y119.47 E218.86430
G1 X98.13 Y119.56 E218.87608
G1 X97.71 Y119.46 E218.89049
G1 X96.50 Y119.90 E218.93301
G1 X96.84 Y121.17 E218.97674
G1 X96.83 Y121.19 E218.97726
G1 X96.61 Y121.41 E218.98768
G1 X95.76 Y122.08 E219.02355
G1 X95.31 Y122.37 E219.04129
G1 X95.18 Y122.42 E219.04609
G1 X94.80 Y122.36 E219.05885
G1 X94.73 Y122.36 E219.06084
G1 X94.58 Y122.29 E219.06660
G1 X94.27 Y122.08 E219.07895
G1 X94.02 Y121.87 E219.08972
G1 X93.84 Y121.55 E219.10209
G1 X94.17 Y120.69 E219.13250
G1 X93.85 Y120.14 E219.15381
G0 F12000 X93.53 Y120.38
G1 F600 X93.25 Y120.10 E219.16681
G1 X92.92 Y119.95 E219.17896
G1 X92.62 Y119.85 E219.18936
G1 X92.44 Y119.75 E219.19625
G1 X92.20 Y119.56 E219.20622
G1 X91.97 Y119.33 E219.21716
G1 X91.93 Y119.21 E219.22124
G1 X91.98 Y119.17 E219.22345
G1 X92.06 Y119.07 E219.22762
G1 X92.43 Y118.78 E219.24315
G1 X92.46 Y118.21 E219.26229
G1 X92.28 Y117.87 E219.27495
G1 X92.21 Y117.77 E219.27918
G1 X92.08 Y117.50 E219.28913
