;-- START GCODE --
;Sliced for Type A Machines Series 1
;Sliced at: Sat 03-12-2016 23:01:19
;Basic settings: Layer height: 0.2 Walls: 1.2 Fill: 15
;Print Speed: 40 Support: 0
;Retraction Speed: 40 Retraction Distance: 1.2
;Print time: #P_TIME#
;Filament used: #F_AMNT#m #F_WGHT#g
;Filament cost: #F_COST#
M106 S255	 ;start with the fan on
G21        ;metric values
G90        ;absolute positioning
M106 S255    ;start with the fan on
G28     ;move to endstops
G29		;allows for auto-levelling
G1 X150 Y5  Z15.0 F12000 ;center and move the platform down 15mm
M109 S220 ;Heat To temp
G92 E0                  ;zero the extruded length
G1 F200 E30              ;extrude 30mm of feed stock
G92 E0                  ;zero the extruded length again
G1 X175 Y25  Z0 F12000 ;remove bugger
G1 X220 F12000 ;remove bugger
G1 X150 Y150  Z15 F12000 ;recenter and begin
G1 F12000

;Layer count: 20
;LAYER:0
M106 S255
G0 F12000 X121.64 Y114.13 Z0.30
;TYPE:SKIRT
G1 F2400 X157.92 Y100.92 E1.92607
G1 X159.27 Y104.61 E2.12207
G1 X172.36 Y101.10 E2.79857
G1 X177.35 Y119.74 E3.76102
G1 X181.14 Y133.87 E4.49119
G1 X185.39 Y133.87 E4.70323
G1 X185.39 Y199.47 E7.97597
G1 X175.43 Y199.47 E8.47288
G1 X175.43 Y199.64 E8.48136
G1 X136.83 Y199.64 E10.40712
G1 X136.83 Y155.84 E12.59227
G1 X128.24 Y132.25 E13.84496
G1 X121.64 Y114.13 E14.80717
G0 F12000 X122.16 Y114.36
G1 F2400 X157.68 Y101.44 E16.69332
G1 X159.01 Y105.09 E16.88761
G1 X172.08 Y101.59 E17.56250
G1 X176.97 Y119.84 E18.50501
G1 X180.83 Y134.27 E19.25048
G1 X184.99 Y134.27 E19.45787
G1 X184.99 Y199.07 E22.69070
G1 X175.03 Y199.07 E23.18761
G1 X175.03 Y199.24 E23.19609
G1 X137.23 Y199.24 E25.08194
G1 X137.23 Y155.77 E27.25062
G1 X128.62 Y132.11 E28.50681
G1 X122.16 Y114.36 E29.44913
G0 F12000 X122.67 Y114.60
G1 F2400 X157.44 Y101.95 E31.29534
G1 X158.76 Y105.58 E31.48795
G1 X171.80 Y102.08 E32.16113
G1 X176.58 Y119.94 E33.08367
G1 X180.53 Y134.67 E33.84447
G1 X184.59 Y134.67 E34.04718
G1 X184.59 Y198.67 E37.24010
G1 X174.63 Y198.67 E37.73701
G1 X174.63 Y198.84 E37.74549
G1 X137.63 Y198.84 E39.59143
G1 X137.63 Y155.70 E41.74369
G1 X129.00 Y131.98 E43.00339
G1 X122.67 Y114.60 E43.92574
G0 F12000 X123.18 Y114.84
G1 F2400 X157.21 Y102.46 E45.73204
G1 X158.51 Y106.06 E45.92305
G1 X171.51 Y102.57 E46.59459
G1 X176.19 Y120.05 E47.49716
G1 X180.22 Y135.07 E48.27326
G1 X184.19 Y135.07 E48.47137
G1 X184.19 Y198.27 E51.62438
G1 X174.23 Y198.27 E52.12129
G1 X174.23 Y198.44 E52.12977
G1 X138.03 Y198.44 E53.93579
G1 X138.03 Y155.63 E56.07164
G1 X129.37 Y131.84 E57.33485
G1 X123.18 Y114.84 E58.23723
G0 F12000 X123.70 Y115.08
G1 F2400 X156.97 Y102.97 E60.00360
G1 X158.26 Y106.54 E60.19291
G1 X171.23 Y103.06 E60.86279
G1 X175.81 Y120.15 E61.74538
G1 X179.91 Y135.47 E62.53682
G1 X183.79 Y135.47 E62.73025
G1 X183.79 Y197.87 E65.84335
G1 X173.83 Y197.87 E66.34025
G1 X173.83 Y198.04 E66.34873
G1 X138.43 Y198.04 E68.11485
G1 X138.43 Y155.56 E70.23433
G1 X129.75 Y131.70 E71.50099
G1 X123.70 Y115.08 E72.38341
G0 F12000 X124.21 Y115.32
G1 F2400 X156.73 Y103.49 E74.10990
G1 X158.01 Y107.02 E74.29750
G1 X170.95 Y103.55 E74.96572
G1 X175.42 Y120.25 E75.82837
G1 X175.42 Y120.25 E75.82842
G1 X179.61 Y135.87 E76.63515
G1 X183.39 Y135.87 E76.82393
G1 X183.39 Y197.47 E79.89712
G1 X173.43 Y197.47 E80.39402
G1 X173.43 Y197.64 E80.40250
G1 X138.83 Y197.64 E82.12871
G1 X138.83 Y155.49 E84.23178
G1 X130.12 Y131.57 E85.50178
G1 X130.12 Y131.57 E85.50183
G1 X124.21 Y115.32 E86.36445
G0 F12000 X124.72 Y115.56
G1 F2400 X156.49 Y104.00 E88.05100
G1 X157.76 Y107.50 E88.23696
G1 X170.67 Y104.04 E88.90349
G1 X175.03 Y120.36 E89.74616
G1 X179.30 Y136.27 E90.56823
G1 X182.99 Y136.27 E90.75237
G1 X182.99 Y197.07 E93.78565
G1 X173.03 Y197.07 E94.28256
G1 X173.03 Y197.24 E94.29104
G1 X139.23 Y197.24 E95.97733
G1 X139.23 Y155.42 E98.06393
G1 X130.50 Y131.43 E99.33749
G1 X130.50 Y131.43 E99.33754
G1 X124.72 Y115.56 E100.18019
G0 F12000 X125.23 Y115.80
G1 F2400 X156.25 Y104.51 E101.82678
G1 X157.51 Y107.98 E102.01111
G1 X170.38 Y104.53 E102.67597
G1 X174.65 Y120.46 E103.49871
G1 X178.99 Y136.67 E104.33607
G1 X182.59 Y136.67 E104.51557
G1 X182.59 Y196.67 E107.50893
G1 X172.63 Y196.67 E108.00584
G1 X172.63 Y196.84 E108.01432
G1 X139.63 Y196.84 E109.66070
G1 X139.63 Y155.35 E111.73074
G1 X130.87 Y131.29 E113.00807
G1 X125.23 Y115.80 E113.83064
G0 F12000 X125.75 Y116.04
G1 F2400 X156.01 Y105.02 E115.43735
G1 X157.26 Y108.46 E115.61997
G1 X170.10 Y105.02 E116.28318
G1 X174.26 Y120.56 E117.08593
G1 X174.26 Y120.56 E117.08598
G1 X178.69 Y137.07 E117.93868
G1 X182.19 Y137.07 E118.11349
G1 X182.19 Y196.27 E121.06694
G1 X172.23 Y196.27 E121.56385
G1 X172.23 Y196.44 E121.57233
G1 X140.03 Y196.44 E123.17879
G1 X140.03 Y155.28 E125.23242
G1 X131.25 Y131.16 E126.51326
G1 X125.75 Y116.04 E127.31588
G0 F12000 X126.26 Y116.28
G1 F2400 X155.77 Y105.54 E128.88266
G1 X157.01 Y108.95 E129.06364
G1 X169.82 Y105.51 E129.72515
G1 X173.88 Y120.67 E130.50797
G1 X178.38 Y137.47 E131.37595
G1 X181.79 Y137.47 E131.54618
G1 X181.79 Y195.87 E134.45972
G1 X171.83 Y195.87 E134.95662
G1 X171.83 Y196.04 E134.96510
G1 X140.43 Y196.04 E136.53166
G1 X140.43 Y155.21 E138.56887
G1 X131.63 Y131.02 E139.85321
G1 X126.26 Y116.28 E140.63587
G0 F12000 X126.77 Y116.52
G1 F2400 X155.53 Y106.05 E142.16274
G1 X156.76 Y109.43 E142.34207
G1 X169.53 Y106.00 E143.00188
G1 X173.49 Y120.77 E143.76471
G1 X173.49 Y120.77 E143.76476
G1 X178.07 Y137.87 E144.64807
G1 X181.39 Y137.87 E144.81366
G1 X181.39 Y195.47 E147.68728
G1 X171.43 Y195.47 E148.18419
G1 X171.43 Y195.64 E148.19267
G1 X140.83 Y195.64 E149.71931
G1 X140.83 Y155.14 E151.74006
G1 X132.00 Y130.88 E153.02790
G1 X132.00 Y130.88 E153.02795
G1 X126.77 Y116.52 E153.79071
G0 F12000 X127.28 Y116.76
G1 F2400 X155.29 Y106.56 E155.27766
G1 X156.51 Y109.91 E155.45529
G1 X169.25 Y106.49 E156.11344
G1 X173.10 Y120.88 E156.85634
G1 X177.76 Y138.27 E157.75495
G1 X180.99 Y138.27 E157.91590
G1 X180.99 Y195.07 E160.74961
G1 X171.03 Y195.07 E161.24652
G1 X171.03 Y195.24 E161.25500
G1 X141.23 Y195.24 E162.74173
G1 X141.23 Y155.07 E164.74606
G1 X132.38 Y130.75 E166.03741
G1 X132.38 Y130.75 E166.03746
G1 X127.28 Y116.76 E166.78020
G0 F12000 X127.80 Y117.00
G1 F2400 X155.05 Y107.08 E168.22727
G1 X156.26 Y110.39 E168.40325
G1 X168.97 Y106.98 E169.05975
G1 X172.72 Y120.98 E169.78267
G1 X177.46 Y138.67 E170.69661
G1 X180.59 Y138.67 E170.85292
G1 X180.59 Y194.67 E173.64672
G1 X170.63 Y194.67 E174.14362
G1 X170.63 Y194.84 E174.15211
G1 X141.63 Y194.84 E175.59892
G1 X141.63 Y155.00 E177.58685
G1 X132.75 Y130.61 E178.88158
G1 X132.75 Y130.61 E178.88163
G1 X127.80 Y117.00 E179.60451
G0 F12000 X128.31 Y117.23
G1 F2400 X154.81 Y107.59 E181.01165
G1 X156.01 Y110.87 E181.18593
G1 X168.69 Y107.47 E181.84073
G1 X172.33 Y121.08 E182.54371
G1 X177.15 Y139.07 E183.47296
G1 X180.19 Y139.07 E183.62457
G1 X180.19 Y194.27 E186.37846
G1 X170.23 Y194.27 E186.87537
G1 X170.23 Y194.44 E186.88385
G1 X142.03 Y194.44 E188.29075
G1 X142.03 Y154.93 E190.26226
G1 X133.13 Y130.47 E191.56050
G1 X133.13 Y130.47 E191.56055
G1 X128.31 Y117.23 E192.26346
G0 F12000 X128.82 Y117.47
G1 F2400 X154.57 Y108.10 E193.63064
G1 X155.76 Y111.35 E193.80329
G1 X168.40 Y107.96 E194.45648
G1 X171.94 Y121.19 E195.13945
G1 X176.84 Y139.47 E196.08403
G1 X179.79 Y139.47 E196.23105
G1 X179.79 Y193.87 E198.94503
G1 X169.83 Y193.87 E199.44194
G1 X169.83 Y194.04 E199.45042
G1 X142.43 Y194.04 E200.81741
G1 X142.43 Y154.85 E202.77251
G1 X133.51 Y130.34 E204.07425
G1 X133.51 Y130.34 E204.07430
G1 X128.82 Y117.47 E204.75725
G0 F12000 X129.34 Y117.71
G1 F2400 X154.34 Y108.61 E206.08450
G1 X155.51 Y111.83 E206.25548
G1 X168.12 Y108.45 E206.90702
G1 X171.56 Y121.29 E207.57007
G1 X176.54 Y139.87 E208.52994
G1 X179.39 Y139.87 E208.67228
G1 X179.39 Y193.47 E211.34634
G1 X169.43 Y193.47 E211.84325
G1 X169.43 Y193.64 E211.85173
G1 X142.83 Y193.64 E213.17881
G1 X142.83 Y154.78 E215.11744
G1 X133.88 Y130.20 E216.42280
G1 X129.34 Y117.71 E217.08573
G0 F12000 X129.85 Y117.95
G1 F2400 X154.10 Y109.13 E218.37310
G1 X155.26 Y112.31 E218.54240
G1 X167.84 Y108.94 E219.19224
G1 X171.17 Y121.39 E219.83529
G1 X171.17 Y121.39 E219.83534
G1 X176.23 Y140.27 E220.81054
G1 X178.99 Y140.27 E220.94824
G1 X178.99 Y193.07 E223.58239
G1 X169.03 Y193.07 E224.07930
G1 X169.03 Y193.24 E224.08778
G1 X143.23 Y193.24 E225.37495
G1 X143.23 Y154.72 E227.29707
G1 X134.26 Y130.06 E228.60604
G1 X134.26 Y130.06 E228.60609
G1 X129.85 Y117.95 E229.24908
G0 F12000 X130.36 Y118.19
G1 F2400 X153.86 Y109.64 E230.49653
G1 X155.01 Y112.80 E230.66419
G1 X167.55 Y109.43 E231.31231
G1 X170.78 Y121.50 E231.93544
G1 X175.92 Y140.67 E232.92593
G1 X178.59 Y140.67 E233.05903
G1 X178.59 Y192.67 E235.65327
G1 X168.63 Y192.67 E236.15018
G1 X168.63 Y192.84 E236.15866
G1 X143.63 Y192.84 E237.40592
G1 X143.63 Y154.65 E239.31162
G1 X134.63 Y129.92 E240.62410
G1 X134.63 Y129.92 E240.62415
G1 X130.36 Y118.19 E241.24717
G0 F12000 X130.87 Y118.43
G1 F2400 X153.62 Y110.15 E242.45469
G1 X154.75 Y113.28 E242.62064
G1 X167.27 Y109.92 E243.26711
G1 X170.40 Y121.60 E243.87031
G1 X175.62 Y141.07 E244.87609
G1 X178.19 Y141.07 E245.00451
G1 X178.19 Y192.27 E247.55884
G1 X168.23 Y192.27 E248.05574
G1 X168.23 Y192.44 E248.06423
G1 X144.03 Y192.44 E249.27157
G1 X144.03 Y154.57 E251.16086
G1 X135.01 Y129.79 E252.47684
G1 X135.01 Y129.79 E252.47689
G1 X130.87 Y118.43 E253.07994
G0 F12000 X131.39 Y118.67
G1 F2400 X153.38 Y110.66 E254.24758
G1 X154.50 Y113.76 E254.41188
G1 X166.99 Y110.41 E255.05670
G1 X170.01 Y121.70 E255.63990
G1 X175.31 Y141.47 E256.66102
G1 X177.79 Y141.47 E256.78485
G1 X177.79 Y191.87 E259.29926
G1 X167.83 Y191.87 E259.79617
G1 X167.83 Y192.04 E259.80465
G1 X144.43 Y192.04 E260.97208
G1 X144.43 Y154.50 E262.84496
G1 X135.38 Y129.65 E264.16445
G1 X131.39 Y118.67 E264.74753
G0 F12000 X131.90 Y118.91
G1 F2400 X153.14 Y111.18 E265.87520
G1 X154.25 Y114.24 E266.03780
G1 X166.71 Y110.90 E266.68097
G1 X169.63 Y121.81 E267.24430
G1 X169.62 Y121.81 E267.24435
G1 X175.00 Y141.87 E268.28072
G1 X177.39 Y141.87 E268.39985
G1 X177.39 Y191.47 E270.87436
G1 X167.43 Y191.47 E271.37126
G1 X167.43 Y191.64 E271.37975
G1 X144.83 Y191.64 E272.50726
G1 X144.83 Y154.43 E274.36368
G1 X135.76 Y129.51 E275.68667
G1 X131.90 Y118.91 E276.24984
G0 F12000 X132.41 Y119.15
G1 F2400 X152.90 Y111.69 E277.33759
G1 X154.00 Y114.72 E277.49855
G1 X166.42 Y111.39 E278.14003
G1 X169.24 Y121.91 E278.68336
G1 X174.69 Y142.27 E279.73511
G1 X176.99 Y142.27 E279.84961
G1 X176.99 Y191.07 E282.28420
G1 X167.03 Y191.07 E282.78111
G1 X167.03 Y191.24 E282.78959
G1 X145.23 Y191.24 E283.87719
G1 X145.23 Y154.36 E285.71719
G1 X136.14 Y129.38 E287.04369
G1 X132.41 Y119.15 E287.58689
G0 F12000 X132.93 Y119.39
G1 F2400 X152.66 Y112.20 E288.63471
G1 X153.75 Y115.20 E288.79397
G1 X166.14 Y111.88 E289.43379
G1 X168.85 Y122.02 E289.95724
G1 X168.85 Y122.02 E289.95729
G1 X174.39 Y142.67 E291.02429
G1 X176.59 Y142.67 E291.13414
G1 X176.59 Y190.67 E293.52882
G1 X166.63 Y190.67 E294.02573
G1 X166.63 Y190.84 E294.03421
G1 X145.63 Y190.84 E295.08191
G1 X145.63 Y154.29 E296.90549
G1 X136.51 Y129.24 E298.23549
G1 X132.93 Y119.39 E298.75873
G0 F12000 X133.44 Y119.62
G1 F2400 X152.42 Y112.72 E299.76666
G1 X153.50 Y115.68 E299.92428
G1 X165.86 Y112.37 E300.56241
G1 X168.47 Y122.12 E301.06582
G1 X174.08 Y143.07 E302.14820
G1 X176.19 Y143.07 E302.25341
G1 X176.19 Y190.27 E304.60818
G1 X166.23 Y190.27 E305.10509
G1 X166.23 Y190.44 E305.11357
G1 X146.03 Y190.44 E306.12135
G1 X146.03 Y154.22 E307.92852
G1 X136.89 Y129.10 E309.26202
G1 X133.44 Y119.62 E309.76532
G0 F12000 X133.95 Y119.86
G1 F2400 X152.18 Y113.23 E310.73334
G1 X153.25 Y116.17 E310.88932
G1 X165.57 Y112.86 E311.52578
G1 X168.08 Y122.22 E312.00925
G1 X173.77 Y143.47 E313.10691
G1 X175.79 Y143.47 E313.20749
G1 X175.79 Y189.87 E315.52234
G1 X165.83 Y189.87 E316.01925
G1 X165.83 Y190.04 E316.02773
G1 X146.43 Y190.04 E316.99560
G1 X146.43 Y154.15 E318.78621
G1 X137.26 Y128.97 E320.12337
G1 X137.26 Y128.97 E320.12342
G1 X133.95 Y119.86 E320.60675
G0 F12000 X134.46 Y120.10
G1 F2400 X151.94 Y113.74 E321.53484
G1 X153.00 Y116.65 E321.68916
G1 X165.29 Y113.35 E322.32398
G1 X167.69 Y122.33 E322.78745
G1 X173.47 Y143.87 E323.90046
G1 X175.39 Y143.87 E323.99640
G1 X175.39 Y189.47 E326.27134
G1 X165.43 Y189.47 E326.76825
G1 X165.43 Y189.64 E326.77673
G1 X146.83 Y189.64 E327.70469
G1 X146.83 Y154.08 E329.47884
G1 X137.64 Y128.83 E330.81950
G1 X137.64 Y128.83 E330.81955
G1 X134.46 Y120.10 E331.28296
G0 F12000 X134.98 Y120.34
G1 F2400 X151.70 Y114.25 E332.17107
G1 X152.75 Y117.13 E332.32371
G1 X165.01 Y113.84 E332.95687
G1 X167.31 Y122.43 E333.40041
G1 X173.16 Y144.27 E334.52870
G1 X174.99 Y144.27 E334.62000
G1 X174.99 Y189.07 E336.85503
G1 X165.03 Y189.07 E337.35194
G1 X165.03 Y189.24 E337.36042
G1 X147.23 Y189.24 E338.24847
G1 X147.23 Y154.01 E340.00620
G1 X138.02 Y128.69 E341.35036
G1 X138.02 Y128.69 E341.35041
G1 X134.98 Y120.34 E341.79386
G0 F12000 X135.49 Y120.58
G1 F2400 X151.47 Y114.77 E342.64204
G1 X152.50 Y117.61 E342.79297
G1 X164.72 Y114.33 E343.42447
G1 X166.92 Y122.53 E343.84802
G1 X172.85 Y144.67 E344.99166
G1 X174.59 Y144.67 E345.07832
G1 X174.59 Y188.67 E347.27344
G1 X164.63 Y188.67 E347.77035
G1 X164.63 Y188.84 E347.77883
G1 X147.63 Y188.84 E348.62696
G1 X147.63 Y153.94 E350.36833
G1 X135.49 Y120.58 E352.13941
G0 F12000 X136.00 Y120.82
G1 F2400 X151.23 Y115.28 E352.94769
G1 X152.25 Y118.09 E353.09697
G1 X164.44 Y114.82 E353.72677
G1 X166.53 Y122.64 E354.13039
G1 X172.55 Y145.07 E355.28931
G1 X174.19 Y145.07 E355.37133
G1 X174.19 Y188.27 E357.52654
G1 X164.23 Y188.27 E358.02344
G1 X164.23 Y188.44 E358.03192
G1 X148.03 Y188.44 E358.84014
G1 X148.03 Y153.87 E360.56510
G1 X136.00 Y120.82 E362.31972
G0 F12000 X136.51 Y121.06
G1 F2400 X150.99 Y115.79 E363.08806
G1 X152.00 Y118.57 E363.23571
G1 X164.16 Y115.31 E363.86381
G1 X166.15 Y122.74 E364.24745
G1 X172.24 Y145.47 E365.42172
G1 X173.79 Y145.47 E365.49905
G1 X173.79 Y187.87 E367.61434
G1 X163.83 Y187.87 E368.11125
G1 X163.83 Y188.04 E368.11973
G1 X148.43 Y188.04 E368.88804
G1 X148.43 Y153.80 E370.59658
G1 X136.51 Y121.06 E372.33474
G0 F12000 X137.03 Y121.30
G1 F2400 X150.75 Y116.30 E373.06320
G1 X151.75 Y119.05 E373.20914
G1 X163.88 Y115.80 E373.83559
G1 X165.76 Y122.84 E374.19934
G1 X165.76 Y122.84 E374.19939
G1 X171.93 Y145.87 E375.38890
G1 X173.39 Y145.87 E375.46164
G1 X173.39 Y187.47 E377.53702
G1 X163.43 Y187.47 E378.03393
G1 X163.43 Y187.64 E378.04241
G1 X148.83 Y187.64 E378.77080
G1 X148.83 Y153.73 E380.46288
G1 X137.03 Y121.30 E382.18465
G0 F12000 X137.54 Y121.54
G1 F2400 X150.51 Y116.82 E382.87319
G1 X151.50 Y119.53 E383.01747
G1 X163.59 Y116.29 E383.64226
G1 X165.38 Y122.95 E383.98597
G1 X171.63 Y146.27 E385.19087
G1 X172.99 Y146.27 E385.25892
G1 X172.99 Y187.07 E387.29439
G1 X163.03 Y187.07 E387.79130
G1 X163.03 Y187.24 E387.79978
G1 X149.23 Y187.24 E388.48826
G1 X149.23 Y153.66 E390.16393
G1 X137.54 Y121.54 E391.86923
G0 F12000 X138.05 Y121.78
G1 F2400 X150.27 Y117.33 E392.51782
G1 X151.25 Y120.02 E392.66041
G1 X163.31 Y116.78 E393.28354
G1 X164.99 Y123.05 E393.60732
G1 X171.32 Y146.67 E394.82750
G1 X172.59 Y146.67 E394.89091
G1 X172.59 Y186.67 E396.88647
G1 X162.63 Y186.67 E397.38338
G1 X162.63 Y186.84 E397.39186
G1 X149.63 Y186.84 E398.04043
G1 X149.63 Y153.59 E399.69953
G1 X138.05 Y121.78 E401.38847
G0 F12000 X138.56 Y122.02
G1 F2400 X150.03 Y117.84 E401.99717
G1 X152.00 Y123.25 E402.28422
G1 X151.24 Y120.43 E402.42977
G1 X163.03 Y117.27 E403.03850
G1 X171.01 Y147.07 E404.57780
G1 X172.19 Y147.07 E404.63662
G1 X172.19 Y186.27 E406.59227
G1 X162.23 Y186.27 E407.08918
G1 X162.23 Y186.44 E407.09766
G1 X150.03 Y186.44 E407.70632
G1 X150.03 Y153.52 E409.34900
G1 X138.56 Y122.02 E411.02150
G0 F12000 X139.08 Y122.25
G1 F2400 X149.79 Y118.36 E411.59027
G1 X154.75 Y132.00 E412.31448
G1 X151.73 Y120.71 E412.89720
G1 X162.74 Y117.76 E413.46600
G1 X170.71 Y147.47 E415.00067
G1 X171.79 Y147.47 E415.05480
G1 X171.79 Y185.87 E416.97054
G1 X161.83 Y185.87 E417.46744
G1 X161.83 Y186.04 E417.47592
G1 X150.43 Y186.04 E418.04467
G1 X150.43 Y153.45 E419.67094
G1 X139.08 Y122.25 E421.32697
G0 F12000 X139.59 Y122.49
G1 F2400 X149.55 Y118.87 E421.85583
G1 X157.51 Y140.74 E423.01721
G1 X152.22 Y121.00 E424.03704
G1 X162.46 Y118.25 E424.56597
G1 X170.40 Y147.87 E426.09598
G1 X171.39 Y147.87 E426.14547
G1 X171.39 Y185.47 E428.02129
G1 X161.43 Y185.47 E428.51820
G1 X161.43 Y185.64 E428.52668
G1 X150.83 Y185.64 E429.05552
G1 X150.83 Y153.38 E430.66533
G1 X139.59 Y122.49 E432.30494
G0 F12000 X140.10 Y122.73
G1 F2400 X149.31 Y119.38 E432.79392
G1 X159.89 Y148.44 E434.33696
G1 X159.99 Y148.44 E434.34200
G1 X152.71 Y121.28 E435.74508
G1 X162.18 Y118.74 E436.23407
G1 X170.09 Y148.27 E437.75943
G1 X170.99 Y148.27 E437.80428
G1 X170.99 Y185.07 E439.64019
G1 X161.19 Y185.07 E440.12912
G1 X161.19 Y152.92 E441.73339
G1 X161.03 Y152.32 E441.76422
G1 X161.03 Y185.24 E443.40676
G1 X151.23 Y185.24 E443.89568
G1 X151.23 Y153.31 E445.48907
G1 X140.10 Y122.73 E447.11225
G0 F12000 X140.62 Y122.97
G1 F2400 X149.07 Y119.89 E447.56129
G1 X159.61 Y148.84 E449.09832
G1 X160.51 Y148.84 E449.14342
G1 X153.20 Y121.56 E450.55255
G1 X161.90 Y119.23 E451.00161
G1 X169.78 Y148.67 E452.52233
G1 X170.59 Y148.67 E452.56254
G1 X170.59 Y184.67 E454.35854
G1 X161.59 Y184.67 E454.80755
G1 X161.59 Y152.87 E456.39446
G1 X160.63 Y149.28 E456.57952
G1 X160.63 Y184.84 E458.35367
G1 X151.63 Y184.84 E458.80268
G1 X151.63 Y153.23 E460.37966
G1 X140.62 Y122.97 E461.98637
G0 F12000 X141.13 Y123.21
G1 F2400 X148.84 Y120.41 E462.39550
G1 X159.33 Y149.24 E463.92658
G1 X160.23 Y149.24 E463.97153
G1 X160.23 Y184.44 E465.72762
G1 X152.03 Y184.44 E466.13672
G1 X152.03 Y153.16 E467.69728
G1 X141.13 Y123.21 E469.28753
G0 F12000 X141.64 Y123.45
G1 F2400 X148.59 Y120.92 E469.65673
G1 X159.05 Y149.64 E471.18185
G1 X159.83 Y149.64 E471.22076
G1 X159.83 Y184.04 E472.93693
G1 X152.43 Y184.04 E473.30612
G1 X152.43 Y153.09 E474.85027
G1 X141.64 Y123.45 E476.42408
G0 F12000 X142.15 Y123.69
G1 F2400 X148.36 Y121.43 E476.75335
G1 X158.77 Y150.04 E478.27247
G1 X159.43 Y150.04 E478.30539
G1 X159.43 Y183.64 E479.98165
G1 X152.83 Y183.64 E480.31093
G1 X152.83 Y153.02 E481.83862
G1 X142.15 Y123.69 E483.39601
G0 F12000 X142.67 Y123.93
G1 F2400 X148.12 Y121.94 E483.68535
G1 X158.49 Y150.44 E485.19847
G1 X159.03 Y150.44 E485.22541
G1 X159.03 Y183.24 E486.86176
G1 X153.23 Y183.24 E487.15112
G1 X153.23 Y152.95 E488.66230
G1 X142.67 Y123.93 E490.20332
G0 F12000 X143.18 Y124.17
G1 F2400 X147.88 Y122.46 E490.45279
G1 X158.21 Y150.84 E491.95996
G1 X158.63 Y150.84 E491.98092
G1 X158.63 Y182.84 E493.57735
G1 X153.63 Y182.84 E493.82681
G1 X153.63 Y152.88 E495.32157
G1 X143.18 Y124.17 E496.84614
G0 F12000 X143.69 Y124.41
G1 F2400 X147.64 Y122.97 E497.05569
G1 X157.93 Y151.24 E498.55684
G1 X158.23 Y151.24 E498.57186
G1 X158.23 Y182.44 E500.12839
G1 X154.03 Y182.44 E500.33792
G1 X154.03 Y152.81 E501.81627
G1 X143.69 Y124.41 E503.32439
G0 F12000 X144.21 Y124.64
G1 F2400 X147.40 Y123.48 E503.49400
G1 X157.65 Y151.64 E504.98916
G1 X157.83 Y151.64 E504.99819
G1 X157.83 Y182.04 E506.51480
G1 X154.43 Y182.04 E506.68443
G1 X154.43 Y152.74 E508.14636
G1 X144.21 Y124.64 E509.63802
G0 F12000 X153.69 Y121.84
G1 F2400 X161.61 Y119.72 E510.04716
G1 X169.48 Y149.07 E511.56323
G1 X170.19 Y149.07 E511.59880
G1 X170.19 Y184.27 E513.35489
G1 X161.99 Y184.27 E513.76399
G1 X161.99 Y152.81 E515.33363
G1 X153.69 Y121.84 E516.93304
G0 F12000 X154.18 Y122.13
G1 F2400 X161.33 Y120.21 E517.30226
G1 X169.17 Y149.47 E518.81368
G1 X169.79 Y149.47 E518.84461
G1 X169.79 Y183.87 E520.56079
G1 X162.39 Y183.87 E520.92997
G1 X162.39 Y152.76 E522.48226
G1 X154.18 Y122.13 E524.06436
G0 F12000 X154.67 Y122.41
G1 F2400 X161.05 Y120.70 E524.39364
G1 X168.86 Y149.87 E525.90043
G1 X169.39 Y149.87 E525.92667
G1 X169.39 Y183.47 E527.60293
G1 X162.79 Y183.47 E527.93221
G1 X162.79 Y152.71 E529.46708
G1 X154.67 Y122.41 E531.03197
G0 F12000 X155.16 Y122.69
G1 F2400 X160.76 Y121.19 E531.32138
G1 X168.56 Y150.27 E532.82351
G1 X168.99 Y150.27 E532.84516
G1 X168.99 Y183.07 E534.48151
G1 X163.19 Y183.07 E534.77087
G1 X163.19 Y152.65 E536.28853
G1 X155.16 Y122.69 E537.83599
G0 F12000 X155.65 Y122.98
G1 F2400 X160.48 Y121.68 E538.08547
G1 X168.25 Y150.67 E539.58295
G1 X168.59 Y150.67 E539.59996
G1 X168.59 Y182.67 E541.19640
G1 X163.59 Y182.67 E541.44585
G1 X163.59 Y152.60 E542.94610
G1 X155.65 Y122.98 E544.47630
G0 F12000 X156.14 Y123.26
G1 F2400 X160.20 Y122.17 E544.68585
G1 X167.94 Y151.07 E546.17870
G1 X168.19 Y151.07 E546.19103
G1 X168.19 Y182.27 E547.74755
G1 X163.99 Y182.27 E547.95709
G1 X163.99 Y152.55 E549.43998
G1 X156.14 Y123.26 E550.95287
G0 F12000 X156.63 Y123.54
G1 F2400 X159.91 Y122.66 E551.12250
G1 X167.63 Y151.47 E552.61069
G1 X167.79 Y151.47 E552.61842
G1 X167.79 Y181.87 E554.13503
G1 X164.39 Y181.87 E554.30466
G1 X164.39 Y152.50 E555.77029
G1 X156.63 Y123.54 E557.26577
G0 F12000 X146.68 Y125.02
;TYPE:WALL-INNER
G1 F2400 X156.63 Y152.35 E558.71688
G1 X156.63 Y180.84 E560.13831
G1 X155.63 Y180.84 E560.18820
G1 X155.63 Y152.53 E561.60079
G1 X145.74 Y125.36 E563.04312
G1 X146.68 Y125.02 E563.09298
G0 F12000 X146.92 Y124.51
G1 F2400 X157.03 Y152.28 E564.56761
G1 X157.03 Y181.24 E566.01248
G1 X155.23 Y181.24 E566.10228
G1 X155.23 Y152.60 E567.53133
G1 X145.23 Y125.12 E568.99008
G1 X146.92 Y124.51 E569.07987
G0 F12000 X147.16 Y123.99
;TYPE:WALL-OUTER
G1 F2400 X157.37 Y152.04 E570.56908
G1 X157.43 Y152.04 E570.57212
G1 X157.43 Y181.64 E572.04882
G1 X154.83 Y181.64 E572.17854
G1 X154.83 Y152.67 E573.62401
G1 X144.72 Y124.88 E575.09926
G1 X147.16 Y123.99 E575.22901
G0 F12000 X146.46 Y125.25
;TYPE:FILL
G1 F2400 X146.71 Y125.49 E575.24623
G0 F12000 X146.05 Y125.40
G1 F2400 X147.03 Y126.38 E575.31551
G0 F12000 X146.47 Y126.95
G1 F2400 X147.68 Y128.16 E575.40064
G0 F12000 X147.12 Y128.73
G1 F2400 X148.32 Y129.94 E575.48576
G0 F12000 X147.76 Y130.51
G1 F2400 X148.97 Y131.72 E575.57085
G0 F12000 X148.41 Y132.29
G1 F2400 X149.62 Y133.50 E575.65594
G0 F12000 X149.06 Y134.07
G1 F2400 X150.27 Y135.28 E575.74103
G0 F12000 X149.71 Y135.85
G1 F2400 X150.91 Y137.05 E575.82616
G0 F12000 X150.35 Y137.63
G1 F2400 X151.56 Y138.83 E575.91128
G0 F12000 X151.00 Y139.41
G1 F2400 X152.21 Y140.61 E575.99641
G0 F12000 X151.65 Y141.18
G1 F2400 X152.85 Y142.39 E576.08150
G0 F12000 X152.30 Y142.96
G1 F2400 X153.50 Y144.17 E576.16666
G0 F12000 X152.94 Y144.74
G1 F2400 X154.15 Y145.95 E576.25182
G0 F12000 X153.59 Y146.52
G1 F2400 X154.80 Y147.73 E576.33698
G0 F12000 X154.24 Y148.30
G1 F2400 X155.44 Y149.50 E576.42214
G0 F12000 X154.89 Y150.08
G1 F2400 X156.09 Y151.28 E576.50730
G0 F12000 X155.53 Y151.86
G1 F2400 X156.49 Y152.81 E576.57475
G0 F12000 X156.49 Y153.38
G1 F2400 X155.77 Y152.66 E576.62559
G0 F12000 X155.77 Y153.22
G1 F2400 X156.49 Y153.94 E576.67642
G0 F12000 X156.49 Y154.51
G1 F2400 X155.77 Y153.79 E576.72722
G0 F12000 X155.77 Y154.35
G1 F2400 X156.49 Y155.07 E576.77802
G0 F12000 X156.49 Y155.64
G1 F2400 X155.77 Y154.92 E576.82886
G0 F12000 X155.77 Y155.49
G1 F2400 X156.49 Y156.21 E576.87966
G0 F12000 X156.49 Y156.77
G1 F2400 X155.77 Y156.05 E576.93046
G0 F12000 X155.77 Y156.62
G1 F2400 X156.49 Y157.34 E576.98129
G0 F12000 X156.49 Y157.90
G1 F2400 X155.77 Y157.18 E577.03213
G0 F12000 X155.77 Y157.75
G1 F2400 X156.49 Y158.47 E577.08293
G0 F12000 X156.49 Y159.03
G1 F2400 X155.77 Y158.31 E577.13376
G0 F12000 X155.77 Y158.88
G1 F2400 X156.49 Y159.60 E577.18460
G0 F12000 X156.49 Y160.17
G1 F2400 X155.77 Y159.45 E577.23540
G0 F12000 X155.77 Y160.01
G1 F2400 X156.49 Y160.73 E577.28623
G0 F12000 X156.49 Y161.30
G1 F2400 X155.77 Y160.58 E577.33707
G0 F12000 X155.77 Y161.14
G1 F2400 X156.49 Y161.86 E577.38787
G0 F12000 X156.49 Y162.43
G1 F2400 X155.77 Y161.71 E577.43870
G0 F12000 X155.77 Y162.27
G1 F2400 X156.49 Y163.00 E577.48954
G0 F12000 X156.49 Y163.56
G1 F2400 X155.77 Y162.84 E577.54034
G0 F12000 X155.77 Y163.41
G1 F2400 X156.49 Y164.13 E577.59114
G0 F12000 X156.49 Y164.69
G1 F2400 X155.77 Y163.97 E577.64197
G0 F12000 X155.77 Y164.54
G1 F2400 X156.49 Y165.26 E577.69277
G0 F12000 X156.49 Y165.82
G1 F2400 X155.77 Y165.10 E577.74357
G0 F12000 X155.77 Y165.67
G1 F2400 X156.49 Y166.39 E577.79441
G0 F12000 X156.49 Y166.95
G1 F2400 X155.77 Y166.23 E577.84521
G0 F12000 X155.77 Y166.80
G1 F2400 X156.49 Y167.52 E577.89601
G0 F12000 X156.49 Y168.09
G1 F2400 X155.77 Y167.37 E577.94684
G0 F12000 X155.77 Y167.93
G1 F2400 X156.49 Y168.65 E577.99768
G0 F12000 X156.49 Y169.22
G1 F2400 X155.77 Y168.50 E578.04848
G0 F12000 X155.77 Y169.06
G1 F2400 X156.49 Y169.78 E578.09931
G0 F12000 X156.49 Y170.35
G1 F2400 X155.77 Y169.63 E578.15015
G0 F12000 X155.77 Y170.19
G1 F2400 X156.49 Y170.91 E578.20095
G0 F12000 X156.49 Y171.48
G1 F2400 X155.77 Y170.76 E578.25178
G0 F12000 X155.77 Y171.32
G1 F2400 X156.49 Y172.05 E578.30262
G0 F12000 X156.49 Y172.61
G1 F2400 X155.77 Y171.89 E578.35342
G0 F12000 X155.77 Y172.46
G1 F2400 X156.49 Y173.18 E578.40425
G0 F12000 X156.49 Y173.74
G1 F2400 X155.77 Y173.02 E578.45509
G0 F12000 X155.77 Y173.59
G1 F2400 X156.49 Y174.31 E578.50589
G0 F12000 X156.49 Y174.87
G1 F2400 X155.77 Y174.15 E578.55669
G0 F12000 X155.77 Y174.72
G1 F2400 X156.49 Y175.44 E578.60752
G0 F12000 X156.49 Y176.00
G1 F2400 X155.77 Y175.28 E578.65832
G0 F12000 X155.77 Y175.85
G1 F2400 X156.49 Y176.57 E578.70912
G0 F12000 X156.49 Y177.14
G1 F2400 X155.77 Y176.42 E578.75996
G0 F12000 X155.77 Y176.98
G1 F2400 X156.49 Y177.70 E578.81079
G0 F12000 X156.49 Y178.27
G1 F2400 X155.77 Y177.55 E578.86159
G0 F12000 X155.77 Y178.11
G1 F2400 X156.49 Y178.83 E578.91243
G0 F12000 X156.49 Y179.40
G1 F2400 X155.77 Y178.68 E578.96326
G0 F12000 X155.77 Y179.25
G1 F2400 X156.49 Y179.97 E579.01406
G0 F12000 X156.49 Y180.53
G1 F2400 X155.77 Y179.81 E579.06490
G0 F12000 X155.77 Y180.38
G1 F2400 X156.09 Y180.70 E579.08790
G0 F12000 X156.42 Y152.17
G1 F2400 X155.21 Y150.97 E579.17302
G0 F12000 X155.77 Y150.40
G1 F2400 X154.56 Y149.19 E579.25818
G0 F12000 X155.12 Y148.62
G1 F2400 X153.91 Y147.41 E579.34331
G0 F12000 X154.47 Y146.84
G1 F2400 X153.27 Y145.63 E579.42847
G0 F12000 X153.83 Y145.06
G1 F2400 X152.62 Y143.85 E579.51356
G0 F12000 X153.18 Y143.28
G1 F2400 X151.97 Y142.07 E579.59872
G0 F12000 X152.53 Y141.50
G1 F2400 X151.32 Y140.29 E579.68388
G0 F12000 X151.88 Y139.72
G1 F2400 X150.68 Y138.51 E579.76904
G0 F12000 X151.24 Y137.94
G1 F2400 X150.03 Y136.74 E579.85413
G0 F12000 X150.59 Y136.16
G1 F2400 X149.38 Y134.96 E579.93929
G0 F12000 X149.94 Y134.39
G1 F2400 X148.74 Y133.18 E580.02438
G0 F12000 X149.29 Y132.61
G1 F2400 X148.09 Y131.40 E580.10954
G0 F12000 X148.65 Y130.83
G1 F2400 X147.44 Y129.62 E580.19463
G0 F12000 X148.00 Y129.05
G1 F2400 X146.79 Y127.84 E580.27979
G0 F12000 X147.35 Y127.27
G1 F2400 X146.15 Y126.06 E580.36492
G0 F12000 X158.10 Y124.39
;TYPE:WALL-INNER
G1 F2400 X159.07 Y124.13 E580.41481
G1 X166.59 Y152.21 E581.86494
G1 X166.59 Y180.67 E583.28512
G1 X165.59 Y180.67 E583.33501
G1 X165.59 Y152.34 E584.74865
G1 X158.10 Y124.39 E586.19217
G0 F12000 X157.61 Y124.11
G1 F2400 X159.35 Y123.64 E586.28199
G1 X166.99 Y152.16 E587.75474
G1 X166.99 Y181.07 E589.19746
G1 X165.19 Y181.07 E589.28726
G1 X165.19 Y152.39 E590.71822
G1 X157.61 Y124.11 E592.17909
G0 F12000 X157.12 Y123.82
;TYPE:WALL-OUTER
G1 F2400 X159.63 Y123.15 E592.30884
G1 X167.33 Y151.87 E593.79238
G1 X167.39 Y151.87 E593.79542
G1 X167.39 Y181.47 E595.27212
G1 X164.79 Y181.47 E595.40184
G1 X164.79 Y152.44 E596.85010
G1 X157.12 Y123.82 E598.32833
G0 F12000 X158.32 Y124.66
;TYPE:FILL
G1 F2400 X159.34 Y125.68 E598.40019
G0 F12000 X159.13 Y124.90
G1 F2400 X158.62 Y124.40 E598.43603
G0 F12000 X158.52 Y125.43
G1 F2400 X159.54 Y126.45 E598.50786
G0 F12000 X159.75 Y127.22
G1 F2400 X158.73 Y126.20 E598.57968
G0 F12000 X158.94 Y126.98
G1 F2400 X159.96 Y128.00 E598.65158
G0 F12000 X160.16 Y128.77
G1 F2400 X159.14 Y127.75 E598.72348
G0 F12000 X159.35 Y128.52
G1 F2400 X160.37 Y129.54 E598.79530
G0 F12000 X160.58 Y130.31
G1 F2400 X159.56 Y129.29 E598.86713
G0 F12000 X159.77 Y130.07
G1 F2400 X160.78 Y131.09 E598.93895
G0 F12000 X160.99 Y131.86
G1 F2400 X159.97 Y130.84 E599.01081
G0 F12000 X160.18 Y131.61
G1 F2400 X161.20 Y132.63 E599.08271
G0 F12000 X161.41 Y133.40
G1 F2400 X160.39 Y132.38 E599.15460
G0 F12000 X160.59 Y133.16
G1 F2400 X161.61 Y134.18 E599.22650
G0 F12000 X161.82 Y134.95
G1 F2400 X160.80 Y133.93 E599.29833
G0 F12000 X161.01 Y134.70
G1 F2400 X162.03 Y135.72 E599.37019
G0 F12000 X162.23 Y136.50
G1 F2400 X161.22 Y135.48 E599.44201
G0 F12000 X161.42 Y136.25
G1 F2400 X162.44 Y137.27 E599.51391
G0 F12000 X162.65 Y138.04
G1 F2400 X161.63 Y137.02 E599.58580
G0 F12000 X161.84 Y137.79
G1 F2400 X162.85 Y138.81 E599.65770
G0 F12000 X163.06 Y139.59
G1 F2400 X162.04 Y138.57 E599.72960
G0 F12000 X162.25 Y139.34
G1 F2400 X163.27 Y140.36 E599.80146
G0 F12000 X163.48 Y141.13
G1 F2400 X162.46 Y140.11 E599.87332
G0 F12000 X162.66 Y140.89
G1 F2400 X163.68 Y141.91 E599.94521
G0 F12000 X163.89 Y142.68
G1 F2400 X162.87 Y141.66 E600.01711
G0 F12000 X163.08 Y142.43
G1 F2400 X164.10 Y143.45 E600.08901
G0 F12000 X164.31 Y144.22
G1 F2400 X163.29 Y143.20 E600.16090
G0 F12000 X163.49 Y143.98
G1 F2400 X164.51 Y145.00 E600.23280
G0 F12000 X164.72 Y145.77
G1 F2400 X163.70 Y144.75 E600.30473
G0 F12000 X163.91 Y145.52
G1 F2400 X164.93 Y146.54 E600.37662
G0 F12000 X165.13 Y147.31
G1 F2400 X164.11 Y146.29 E600.44852
G0 F12000 X164.32 Y147.07
G1 F2400 X165.34 Y148.09 E600.52042
G0 F12000 X165.55 Y148.86
G1 F2400 X164.53 Y147.84 E600.59231
G0 F12000 X164.74 Y148.61
G1 F2400 X165.75 Y149.63 E600.66417
G0 F12000 X165.96 Y150.41
G1 F2400 X164.94 Y149.39 E600.73610
G0 F12000 X165.15 Y150.16
G1 F2400 X166.17 Y151.18 E600.80804
G0 F12000 X166.38 Y151.95
G1 F2400 X165.36 Y150.93 E600.88000
G0 F12000 X165.56 Y151.70
G1 F2400 X166.45 Y152.59 E600.94251
G0 F12000 X166.45 Y153.16
G1 F2400 X165.73 Y152.44 E600.99338
G0 F12000 X165.73 Y153.00
G1 F2400 X166.45 Y153.72 E601.04426
G0 F12000 X166.45 Y154.29
G1 F2400 X165.73 Y153.57 E601.09509
G0 F12000 X165.73 Y154.13
G1 F2400 X166.45 Y154.85 E601.14593
G0 F12000 X166.45 Y155.42
G1 F2400 X165.73 Y154.70 E601.19680
G0 F12000 X165.73 Y155.26
G1 F2400 X166.45 Y155.98 E601.24763
G0 F12000 X166.45 Y156.55
G1 F2400 X165.73 Y155.83 E601.29847
G0 F12000 X165.73 Y156.40
G1 F2400 X166.45 Y157.12 E601.34934
G0 F12000 X166.45 Y157.68
G1 F2400 X165.73 Y156.96 E601.40017
G0 F12000 X165.73 Y157.53
G1 F2400 X166.45 Y158.25 E601.45101
G0 F12000 X166.45 Y158.81
G1 F2400 X165.73 Y158.09 E601.50188
G0 F12000 X165.73 Y158.66
G1 F2400 X166.45 Y159.38 E601.55275
G0 F12000 X166.45 Y159.94
G1 F2400 X165.73 Y159.22 E601.60358
G0 F12000 X165.73 Y159.79
G1 F2400 X166.45 Y160.51 E601.65445
G0 F12000 X166.45 Y161.08
G1 F2400 X165.73 Y160.35 E601.70532
G0 F12000 X165.73 Y160.92
G1 F2400 X166.45 Y161.64 E601.75616
G0 F12000 X166.45 Y162.21
G1 F2400 X165.73 Y161.49 E601.80703
G0 F12000 X165.73 Y162.05
G1 F2400 X166.45 Y162.77 E601.85790
G0 F12000 X166.45 Y163.34
G1 F2400 X165.73 Y162.62 E601.90874
G0 F12000 X165.73 Y163.18
G1 F2400 X166.45 Y163.90 E601.95961
G0 F12000 X166.45 Y164.47
G1 F2400 X165.73 Y163.75 E602.01048
G0 F12000 X165.73 Y164.31
G1 F2400 X166.45 Y165.03 E602.06131
G0 F12000 X166.45 Y165.60
G1 F2400 X165.73 Y164.88 E602.11215
G0 F12000 X165.73 Y165.45
G1 F2400 X166.45 Y166.17 E602.16302
G0 F12000 X166.45 Y166.73
G1 F2400 X165.73 Y166.01 E602.21385
G0 F12000 X165.73 Y166.58
G1 F2400 X166.45 Y167.30 E602.26469
G0 F12000 X166.45 Y167.86
G1 F2400 X165.73 Y167.14 E602.31556
G0 F12000 X165.73 Y167.71
G1 F2400 X166.45 Y168.43 E602.36643
G0 F12000 X166.45 Y169.00
G1 F2400 X165.73 Y168.28 E602.41726
G0 F12000 X165.73 Y168.84
G1 F2400 X166.45 Y169.56 E602.46813
G0 F12000 X166.45 Y170.13
G1 F2400 X165.73 Y169.41 E602.51900
G0 F12000 X165.73 Y169.97
G1 F2400 X166.45 Y170.69 E602.56984
G0 F12000 X166.45 Y171.26
G1 F2400 X165.73 Y170.54 E602.62071
G0 F12000 X165.73 Y171.10
G1 F2400 X166.45 Y171.82 E602.67158
G0 F12000 X166.45 Y172.39
G1 F2400 X165.73 Y171.67 E602.72242
G0 F12000 X165.73 Y172.23
G1 F2400 X166.45 Y172.96 E602.77329
G0 F12000 X166.45 Y173.52
G1 F2400 X165.73 Y172.80 E602.82416
G0 F12000 X165.73 Y173.37
G1 F2400 X166.45 Y174.09 E602.87499
G0 F12000 X166.45 Y174.65
G1 F2400 X165.73 Y173.93 E602.92583
G0 F12000 X165.73 Y174.50
G1 F2400 X166.45 Y175.22 E602.97670
G0 F12000 X166.45 Y175.78
G1 F2400 X165.73 Y175.06 E603.02753
G0 F12000 X165.73 Y175.63
G1 F2400 X166.45 Y176.35 E603.07837
G0 F12000 X166.45 Y176.91
G1 F2400 X165.73 Y176.19 E603.12924
G0 F12000 X165.73 Y176.76
G1 F2400 X166.45 Y177.48 E603.18007
G0 F12000 X166.45 Y178.05
G1 F2400 X165.73 Y177.33 E603.23091
G0 F12000 X165.73 Y177.89
G1 F2400 X166.45 Y178.61 E603.28178
G0 F12000 X166.45 Y179.18
G1 F2400 X165.73 Y178.46 E603.33265
G0 F12000 X165.73 Y179.02
G1 F2400 X166.45 Y179.74 E603.38348
G0 F12000 X166.45 Y180.31
G1 F2400 X165.73 Y179.59 E603.43435
G0 F12000 X165.73 Y180.15
G1 F2400 X166.11 Y180.53 E603.46102
;LAYER:1
G0 F12000 X166.59 Y180.68 Z0.50
;TYPE:WALL-INNER
G1 F2400 X165.59 Y180.68 E603.49440
G1 X165.59 Y152.34 E604.43454
G1 X158.10 Y124.39 E605.39458
G1 X159.07 Y124.13 E605.42797
G1 X166.59 Y152.21 E606.39248
G1 X166.59 Y180.68 E607.33696
G0 F12000 X166.99 Y181.07
G1 F2400 X165.19 Y181.07 E607.39681
G1 X165.19 Y152.39 E608.34846
G1 X157.61 Y124.11 E609.31998
G1 X159.35 Y123.64 E609.37981
G1 X166.99 Y152.16 E610.35929
G1 X166.99 Y181.07 E611.31874
G0 F12000 X167.39 Y181.47
;TYPE:WALL-OUTER
G1 F2400 X164.79 Y181.47 E611.40507
G1 X164.79 Y152.44 E612.36819
G1 X157.12 Y123.82 E613.35122
G1 X159.63 Y123.15 E613.43757
G1 X167.33 Y151.87 E614.42412
G1 X167.39 Y151.87 E614.42617
G1 X167.39 Y181.47 E615.40825
G0 F12000 X167.09 Y181.26
G0 X166.21 Y180.53
;TYPE:FILL
G1 F2400 X166.45 Y180.29 E615.41965
G0 F12000 X166.45 Y179.73
G1 F2400 X165.73 Y180.45 E615.45371
G0 F12000 X165.73 Y179.89
G1 F2400 X166.45 Y179.16 E615.48780
G0 F12000 X166.45 Y178.60
G1 F2400 X165.73 Y179.32 E615.52186
G0 F12000 X165.73 Y178.76
G1 F2400 X166.45 Y178.03 E615.55593
G0 F12000 X166.45 Y177.47
G1 F2400 X165.73 Y178.20 E615.58999
G0 F12000 X165.73 Y177.63
G1 F2400 X166.45 Y176.91 E615.62408
G0 F12000 X166.45 Y176.34
G1 F2400 X165.73 Y177.07 E615.65814
G0 F12000 X165.73 Y176.50
G1 F2400 X166.45 Y175.78 E615.69220
G0 F12000 X166.45 Y175.21
G1 F2400 X165.73 Y175.94 E615.72629
G0 F12000 X165.73 Y175.38
G1 F2400 X166.45 Y174.65 E615.76035
G0 F12000 X166.45 Y174.09
G1 F2400 X165.73 Y174.81 E615.79442
G0 F12000 X165.73 Y174.25
G1 F2400 X166.45 Y173.52 E615.82848
G0 F12000 X166.45 Y172.96
G1 F2400 X165.73 Y173.68 E615.86257
G0 F12000 X165.73 Y173.12
G1 F2400 X166.45 Y172.39 E615.89663
G0 F12000 X166.45 Y171.83
G1 F2400 X165.73 Y172.55 E615.93069
G0 F12000 X165.73 Y171.99
G1 F2400 X166.45 Y171.26 E615.96476
G0 F12000 X166.45 Y170.70
G1 F2400 X165.73 Y171.43 E615.99884
G0 F12000 X165.73 Y170.86
G1 F2400 X166.45 Y170.13 E616.03291
G0 F12000 X166.45 Y169.57
G1 F2400 X165.73 Y170.30 E616.06697
G0 F12000 X165.73 Y169.73
G1 F2400 X166.45 Y169.01 E616.10103
G0 F12000 X166.45 Y168.44
G1 F2400 X165.73 Y169.17 E616.13510
G0 F12000 X165.73 Y168.60
G1 F2400 X166.45 Y167.88 E616.16916
G0 F12000 X166.45 Y167.31
G1 F2400 X165.73 Y168.04 E616.20322
G0 F12000 X165.73 Y167.48
G1 F2400 X166.45 Y166.75 E616.23731
G0 F12000 X166.45 Y166.19
G1 F2400 X165.73 Y166.91 E616.27137
G0 F12000 X165.73 Y166.35
G1 F2400 X166.45 Y165.62 E616.30544
G0 F12000 X166.45 Y165.06
G1 F2400 X165.73 Y165.78 E616.33950
G0 F12000 X165.73 Y165.22
G1 F2400 X166.45 Y164.49 E616.37359
G0 F12000 X166.45 Y163.93
G1 F2400 X165.73 Y164.65 E616.40765
G0 F12000 X165.73 Y164.09
G1 F2400 X166.45 Y163.36 E616.44172
G0 F12000 X166.45 Y162.80
G1 F2400 X165.73 Y163.53 E616.47578
G0 F12000 X165.73 Y162.96
G1 F2400 X166.45 Y162.24 E616.50984
G0 F12000 X166.45 Y161.67
G1 F2400 X165.73 Y162.40 E616.54391
G0 F12000 X165.73 Y161.83
G1 F2400 X166.45 Y161.11 E616.57797
G0 F12000 X166.45 Y160.54
G1 F2400 X165.73 Y161.27 E616.61206
G0 F12000 X165.73 Y160.70
G1 F2400 X166.45 Y159.98 E616.64612
G0 F12000 X166.45 Y159.41
G1 F2400 X165.73 Y160.14 E616.68018
G0 F12000 X165.73 Y159.58
G1 F2400 X166.45 Y158.85 E616.71425
G0 F12000 X166.45 Y158.28
G1 F2400 X165.73 Y159.01 E616.74833
G0 F12000 X165.73 Y158.45
G1 F2400 X166.45 Y157.72 E616.78240
G0 F12000 X166.45 Y157.16
G1 F2400 X165.73 Y157.88 E616.81646
G0 F12000 X165.73 Y157.32
G1 F2400 X166.45 Y156.59 E616.85052
G0 F12000 X166.45 Y156.03
G1 F2400 X165.73 Y156.75 E616.88459
G0 F12000 X165.73 Y156.19
G1 F2400 X166.45 Y155.46 E616.91865
G0 F12000 X166.45 Y154.90
G1 F2400 X165.73 Y155.63 E616.95271
G0 F12000 X165.73 Y155.06
G1 F2400 X166.45 Y154.34 E616.98680
G0 F12000 X166.45 Y153.77
G1 F2400 X165.73 Y154.50 E617.02086
G0 F12000 X165.73 Y153.93
G1 F2400 X166.45 Y153.21 E617.05493
G0 F12000 X166.45 Y152.64
G1 F2400 X165.73 Y153.37 E617.08899
G0 F12000 X165.73 Y152.81
G1 F2400 X166.42 Y152.11 E617.12162
G0 F12000 X166.30 Y151.66
G1 F2400 X165.71 Y152.26 E617.14942
G0 F12000 X165.59 Y151.81
G1 F2400 X166.18 Y151.22 E617.17720
G0 F12000 X166.06 Y150.77
G1 F2400 X165.47 Y151.37 E617.20502
G0 F12000 X165.35 Y150.92
G1 F2400 X165.94 Y150.33 E617.23282
G0 F12000 X165.82 Y149.88
G1 F2400 X165.23 Y150.48 E617.26062
G0 F12000 X165.11 Y150.03
G1 F2400 X165.71 Y149.44 E617.28845
G0 F12000 X165.59 Y149.00
G1 F2400 X164.99 Y149.59 E617.31622
G0 F12000 X164.87 Y149.14
G1 F2400 X165.47 Y148.55 E617.34402
G0 F12000 X165.35 Y148.10
G1 F2400 X164.75 Y148.70 E617.37184
G0 F12000 X164.64 Y148.25
G1 F2400 X165.23 Y147.66 E617.39962
G0 F12000 X165.11 Y147.22
G1 F2400 X164.52 Y147.81 E617.42742
G0 F12000 X164.40 Y147.36
G1 F2400 X164.99 Y146.77 E617.45522
G0 F12000 X164.87 Y146.32
G1 F2400 X164.28 Y146.92 E617.48302
G0 F12000 X164.16 Y146.47
G1 F2400 X164.75 Y145.88 E617.51084
G0 F12000 X164.63 Y145.43
G1 F2400 X164.04 Y146.03 E617.53864
G0 F12000 X163.92 Y145.58
G1 F2400 X164.51 Y144.99 E617.56644
G0 F12000 X164.39 Y144.54
G1 F2400 X163.80 Y145.14 E617.59427
G0 F12000 X163.68 Y144.69
G1 F2400 X164.28 Y144.10 E617.62209
G0 F12000 X164.16 Y143.66
G1 F2400 X163.56 Y144.25 E617.64989
G0 F12000 X163.44 Y143.80
G1 F2400 X164.04 Y143.21 E617.67769
G0 F12000 X163.92 Y142.76
G1 F2400 X163.32 Y143.36 E617.70551
G0 F12000 X163.21 Y142.91
G1 F2400 X163.80 Y142.32 E617.73326
G0 F12000 X163.68 Y141.87
G1 F2400 X163.09 Y142.47 E617.76106
G0 F12000 X162.97 Y142.02
G1 F2400 X163.56 Y141.43 E617.78889
G0 F12000 X163.44 Y140.98
G1 F2400 X162.85 Y141.58 E617.81666
G0 F12000 X162.73 Y141.13
G1 F2400 X163.32 Y140.54 E617.84449
G0 F12000 X163.20 Y140.09
G1 F2400 X162.61 Y140.69 E617.87229
G0 F12000 X162.49 Y140.24
G1 F2400 X163.08 Y139.65 E617.90006
G0 F12000 X162.96 Y139.20
G1 F2400 X162.37 Y139.80 E617.92789
G0 F12000 X162.25 Y139.35
G1 F2400 X162.84 Y138.76 E617.95569
G0 F12000 X162.72 Y138.31
G1 F2400 X162.13 Y138.91 E617.98349
G0 F12000 X162.01 Y138.46
G1 F2400 X162.60 Y137.87 E618.01128
G0 F12000 X162.49 Y137.42
G1 F2400 X161.89 Y138.02 E618.03906
G0 F12000 X161.77 Y137.57
G1 F2400 X162.37 Y136.98 E618.06686
G0 F12000 X162.25 Y136.53
G1 F2400 X161.66 Y137.13 E618.09466
G0 F12000 X161.54 Y136.68
G1 F2400 X162.13 Y136.09 E618.12244
G0 F12000 X162.01 Y135.64
G1 F2400 X161.42 Y136.24 E618.15024
G0 F12000 X161.30 Y135.79
G1 F2400 X161.89 Y135.20 E618.17804
G0 F12000 X161.77 Y134.75
G1 F2400 X161.18 Y135.35 E618.20584
G0 F12000 X161.06 Y134.90
G1 F2400 X161.65 Y134.31 E618.23361
G0 F12000 X161.53 Y133.86
G1 F2400 X160.94 Y134.46 E618.26144
G0 F12000 X160.82 Y134.01
G1 F2400 X161.41 Y133.42 E618.28924
G0 F12000 X161.29 Y132.97
G1 F2400 X160.70 Y133.57 E618.31701
G0 F12000 X160.58 Y133.12
G1 F2400 X161.17 Y132.53 E618.34479
G0 F12000 X161.06 Y132.08
G1 F2400 X160.46 Y132.68 E618.37256
G0 F12000 X160.34 Y132.23
G1 F2400 X160.94 Y131.64 E618.40036
G0 F12000 X160.82 Y131.19
G1 F2400 X160.22 Y131.79 E618.42814
G0 F12000 X160.10 Y131.34
G1 F2400 X160.70 Y130.75 E618.45594
G0 F12000 X160.58 Y130.30
G1 F2400 X159.99 Y130.90 E618.48374
G0 F12000 X159.87 Y130.45
G1 F2400 X160.46 Y129.86 E618.51152
G0 F12000 X160.34 Y129.41
G1 F2400 X159.75 Y130.01 E618.53932
G0 F12000 X159.63 Y129.56
G1 F2400 X160.22 Y128.97 E618.56709
G0 F12000 X160.10 Y128.52
G1 F2400 X159.51 Y129.12 E618.59489
G0 F12000 X159.39 Y128.67
G1 F2400 X159.98 Y128.08 E618.62271
G0 F12000 X159.86 Y127.63
G1 F2400 X159.27 Y128.23 E618.65049
G0 F12000 X159.15 Y127.78
G1 F2400 X159.74 Y127.19 E618.67829
G0 F12000 X159.62 Y126.74
G1 F2400 X159.03 Y127.34 E618.70611
G0 F12000 X158.91 Y126.89
G1 F2400 X159.50 Y126.30 E618.73387
G0 F12000 X159.39 Y125.85
G1 F2400 X158.79 Y126.45 E618.76169
G0 F12000 X158.67 Y126.00
G1 F2400 X159.27 Y125.41 E618.78949
G0 F12000 X159.15 Y124.96
G1 F2400 X158.56 Y125.56 E618.81727
G0 F12000 X158.44 Y125.11
G1 F2400 X159.03 Y124.52 E618.84509
G0 F12000 X158.58 Y124.40
G1 F2400 X158.32 Y124.67 E618.85741
G0 F12000 X146.68 Y125.02
;TYPE:WALL-INNER
G1 F2400 X156.63 Y152.35 E619.82253
G1 X156.63 Y180.85 E620.76788
G1 X155.63 Y180.85 E620.80125
G1 X155.63 Y152.53 E621.74072
G1 X145.74 Y125.36 E622.69995
G1 X146.68 Y125.02 E622.73332
G0 F12000 X146.92 Y124.50
G1 F2400 X157.03 Y152.28 E623.71404
G1 X157.03 Y181.25 E624.67491
G1 X155.23 Y181.25 E624.73476
G1 X155.23 Y152.60 E625.68511
G1 X145.23 Y125.12 E626.65524
G1 X146.92 Y124.50 E626.71509
G0 F12000 X147.16 Y123.99
;TYPE:WALL-OUTER
G1 F2400 X157.37 Y152.04 E627.70542
G1 X157.43 Y152.04 E627.70745
G1 X157.43 Y181.64 E628.68952
G1 X154.83 Y181.64 E628.77585
G1 X154.83 Y152.67 E629.73712
G1 X144.72 Y124.88 E630.71816
G1 X147.16 Y123.99 E630.80449
G0 F12000 X146.45 Y125.25
;TYPE:FILL
G1 F2400 X146.01 Y125.69 E630.82508
G0 F12000 X146.16 Y126.10
G1 F2400 X146.72 Y125.54 E630.85166
G0 F12000 X146.87 Y125.95
G1 F2400 X146.31 Y126.52 E630.87822
G0 F12000 X146.46 Y126.93
G1 F2400 X147.02 Y126.36 E630.90478
G0 F12000 X147.18 Y126.78
G1 F2400 X146.61 Y127.34 E630.93131
G0 F12000 X146.76 Y127.76
G1 F2400 X147.32 Y127.19 E630.95784
G0 F12000 X147.48 Y127.61
G1 F2400 X146.91 Y128.17 E630.98440
G0 F12000 X147.06 Y128.59
G1 F2400 X147.63 Y128.02 E631.01091
G0 F12000 X147.78 Y128.43
G1 F2400 X147.21 Y129.00 E631.03747
G0 F12000 X147.36 Y129.41
G1 F2400 X147.93 Y128.85 E631.06402
G0 F12000 X148.08 Y129.26
G1 F2400 X147.51 Y129.83 E631.09053
G0 F12000 X147.66 Y130.24
G1 F2400 X148.23 Y129.67 E631.11709
G0 F12000 X148.38 Y130.09
G1 F2400 X147.81 Y130.65 E631.14362
G0 F12000 X147.96 Y131.07
G1 F2400 X148.53 Y130.50 E631.17015
G0 F12000 X148.68 Y130.91
G1 F2400 X148.12 Y131.48 E631.19671
G0 F12000 X148.27 Y131.90
G1 F2400 X148.83 Y131.33 E631.22324
G0 F12000 X148.98 Y131.74
G1 F2400 X148.42 Y132.31 E631.24978
G0 F12000 X148.57 Y132.72
G1 F2400 X149.13 Y132.16 E631.27638
G0 F12000 X149.28 Y132.57
G1 F2400 X148.72 Y133.14 E631.30293
G0 F12000 X148.87 Y133.55
G1 F2400 X149.43 Y132.98 E631.32951
G0 F12000 X149.58 Y133.40
G1 F2400 X149.02 Y133.96 E631.35607
G0 F12000 X149.17 Y134.38
G1 F2400 X149.73 Y133.81 E631.38258
G0 F12000 X149.88 Y134.22
G1 F2400 X149.32 Y134.79 E631.40914
G0 F12000 X149.47 Y135.21
G1 F2400 X150.04 Y134.64 E631.43569
G0 F12000 X150.19 Y135.05
G1 F2400 X149.62 Y135.62 E631.46223
G0 F12000 X149.77 Y136.03
G1 F2400 X150.34 Y135.47 E631.48878
G0 F12000 X150.49 Y135.88
G1 F2400 X149.92 Y136.45 E631.51532
G0 F12000 X150.07 Y136.86
G1 F2400 X150.64 Y136.29 E631.54185
G0 F12000 X150.79 Y136.71
G1 F2400 X150.22 Y137.27 E631.56840
G0 F12000 X150.37 Y137.69
G1 F2400 X150.94 Y137.12 E631.59494
G0 F12000 X151.09 Y137.53
G1 F2400 X150.52 Y138.10 E631.62147
G0 F12000 X150.68 Y138.51
G1 F2400 X151.24 Y137.95 E631.64800
G0 F12000 X151.39 Y138.36
G1 F2400 X150.82 Y138.93 E631.67456
G0 F12000 X150.97 Y139.34
G1 F2400 X151.54 Y138.78 E631.70114
G0 F12000 X151.69 Y139.19
G1 F2400 X151.13 Y139.76 E631.72772
G0 F12000 X151.28 Y140.17
G1 F2400 X151.84 Y139.60 E631.75428
G0 F12000 X151.99 Y140.02
G1 F2400 X151.43 Y140.58 E631.78083
G0 F12000 X151.58 Y141.00
G1 F2400 X152.14 Y140.43 E631.80736
G0 F12000 X152.29 Y140.84
G1 F2400 X151.73 Y141.41 E631.83390
G0 F12000 X151.88 Y141.82
G1 F2400 X152.44 Y141.26 E631.86045
G0 F12000 X152.59 Y141.67
G1 F2400 X152.03 Y142.24 E631.88699
G0 F12000 X152.18 Y142.65
G1 F2400 X152.75 Y142.09 E631.91352
G0 F12000 X152.90 Y142.50
G1 F2400 X152.33 Y143.06 E631.94005
G0 F12000 X152.48 Y143.48
G1 F2400 X153.05 Y142.91 E631.96661
G0 F12000 X153.20 Y143.33
G1 F2400 X152.63 Y143.89 E631.99314
G0 F12000 X152.78 Y144.31
G1 F2400 X153.35 Y143.74 E632.01967
G0 F12000 X153.50 Y144.15
G1 F2400 X152.93 Y144.72 E632.04623
G0 F12000 X153.08 Y145.13
G1 F2400 X153.65 Y144.57 E632.07279
G0 F12000 X153.80 Y144.98
G1 F2400 X153.23 Y145.55 E632.09934
G0 F12000 X153.38 Y145.96
G1 F2400 X153.95 Y145.40 E632.12588
G0 F12000 X154.10 Y145.81
G1 F2400 X153.53 Y146.38 E632.15246
G0 F12000 X153.69 Y146.79
G1 F2400 X154.25 Y146.22 E632.17904
G0 F12000 X154.40 Y146.64
G1 F2400 X153.84 Y147.20 E632.20562
G0 F12000 X153.99 Y147.62
G1 F2400 X154.55 Y147.05 E632.23217
G0 F12000 X154.70 Y147.46
G1 F2400 X154.14 Y148.03 E632.25871
G0 F12000 X154.29 Y148.44
G1 F2400 X154.85 Y147.88 E632.28526
G0 F12000 X155.00 Y148.29
G1 F2400 X154.44 Y148.86 E632.31179
G0 F12000 X154.59 Y149.27
G1 F2400 X155.16 Y148.71 E632.33833
G0 F12000 X155.31 Y149.12
G1 F2400 X154.74 Y149.68 E632.36488
G0 F12000 X154.89 Y150.10
G1 F2400 X155.46 Y149.53 E632.39142
G0 F12000 X155.61 Y149.95
G1 F2400 X155.04 Y150.51 E632.41795
G0 F12000 X155.19 Y150.93
G1 F2400 X155.76 Y150.36 E632.44448
G0 F12000 X155.91 Y150.77
G1 F2400 X155.34 Y151.34 E632.47104
G0 F12000 X155.49 Y151.75
G1 F2400 X156.06 Y151.19 E632.49757
G0 F12000 X156.21 Y151.60
G1 F2400 X155.64 Y152.17 E632.52410
G0 F12000 X155.77 Y152.61
G1 F2400 X156.36 Y152.01 E632.55197
G0 F12000 X156.49 Y152.45
G1 F2400 X155.77 Y153.17 E632.58604
G0 F12000 X155.77 Y153.74
G1 F2400 X156.49 Y153.01 E632.62013
G0 F12000 X156.49 Y153.57
G1 F2400 X155.77 Y154.30 E632.65419
G0 F12000 X155.77 Y154.87
G1 F2400 X156.49 Y154.14 E632.68825
G0 F12000 X156.49 Y154.70
G1 F2400 X155.77 Y155.43 E632.72232
G0 F12000 X155.77 Y155.99
G1 F2400 X156.49 Y155.27 E632.75640
G0 F12000 X156.49 Y155.83
G1 F2400 X155.77 Y156.56 E632.79047
G0 F12000 X155.77 Y157.12
G1 F2400 X156.49 Y156.40 E632.82453
G0 F12000 X156.49 Y156.96
G1 F2400 X155.77 Y157.69 E632.85859
G0 F12000 X155.77 Y158.25
G1 F2400 X156.49 Y157.53 E632.89266
G0 F12000 X156.49 Y158.09
G1 F2400 X155.77 Y158.81 E632.92672
G0 F12000 X155.77 Y159.38
G1 F2400 X156.49 Y158.65 E632.96078
G0 F12000 X156.49 Y159.22
G1 F2400 X155.77 Y159.94 E632.99487
G0 F12000 X155.77 Y160.51
G1 F2400 X156.49 Y159.78 E633.02893
G0 F12000 X156.49 Y160.35
G1 F2400 X155.77 Y161.07 E633.06300
G0 F12000 X155.77 Y161.64
G1 F2400 X156.49 Y160.91 E633.09706
G0 F12000 X156.49 Y161.47
G1 F2400 X155.77 Y162.20 E633.13115
G0 F12000 X155.77 Y162.76
G1 F2400 X156.49 Y162.04 E633.16521
G0 F12000 X156.49 Y162.60
G1 F2400 X155.77 Y163.33 E633.19927
G0 F12000 X155.77 Y163.89
G1 F2400 X156.49 Y163.17 E633.23334
G0 F12000 X156.49 Y163.73
G1 F2400 X155.77 Y164.46 E633.26742
G0 F12000 X155.77 Y165.02
G1 F2400 X156.49 Y164.30 E633.30149
G0 F12000 X156.49 Y164.86
G1 F2400 X155.77 Y165.59 E633.33555
G0 F12000 X155.77 Y166.15
G1 F2400 X156.49 Y165.42 E633.36964
G0 F12000 X156.49 Y165.99
G1 F2400 X155.77 Y166.71 E633.40365
G0 F12000 X155.77 Y167.28
G1 F2400 X156.49 Y166.55 E633.43767
G0 F12000 X156.49 Y167.12
G1 F2400 X155.77 Y167.84 E633.47171
G0 F12000 X155.77 Y168.41
G1 F2400 X156.49 Y167.68 E633.50575
G0 F12000 X156.49 Y168.25
G1 F2400 X155.77 Y168.97 E633.53977
G0 F12000 X155.77 Y169.53
G1 F2400 X156.49 Y168.81 E633.57378
G0 F12000 X156.49 Y169.37
G1 F2400 X155.77 Y170.10 E633.60782
G0 F12000 X155.77 Y170.66
G1 F2400 X156.49 Y169.94 E633.64186
G0 F12000 X156.49 Y170.50
G1 F2400 X155.77 Y171.23 E633.67588
G0 F12000 X155.77 Y171.79
G1 F2400 X156.49 Y171.07 E633.70992
G0 F12000 X156.49 Y171.63
G1 F2400 X155.77 Y172.36 E633.74396
G0 F12000 X155.77 Y172.92
G1 F2400 X156.49 Y172.20 E633.77798
G0 F12000 X156.49 Y172.76
G1 F2400 X155.77 Y173.49 E633.81199
G0 F12000 X155.77 Y174.05
G1 F2400 X156.49 Y173.32 E633.84603
G0 F12000 X156.49 Y173.89
G1 F2400 X155.77 Y174.61 E633.88007
G0 F12000 X155.77 Y175.18
G1 F2400 X156.49 Y174.45 E633.91409
G0 F12000 X156.49 Y175.02
G1 F2400 X155.77 Y175.74 E633.94811
G0 F12000 X155.77 Y176.31
G1 F2400 X156.49 Y175.58 E633.98215
G0 F12000 X156.49 Y176.15
G1 F2400 X155.77 Y176.87 E634.01619
G0 F12000 X155.77 Y177.44
G1 F2400 X156.49 Y176.71 E634.05020
G0 F12000 X156.49 Y177.27
G1 F2400 X155.77 Y178.00 E634.08422
G0 F12000 X155.77 Y178.56
G1 F2400 X156.49 Y177.84 E634.11826
G0 F12000 X156.49 Y178.40
G1 F2400 X155.77 Y179.13 E634.15228
G0 F12000 X155.77 Y179.69
G1 F2400 X156.49 Y178.97 E634.18629
G0 F12000 X156.49 Y179.53
G1 F2400 X155.77 Y180.26 E634.22033
G0 F12000 X155.88 Y180.71
G1 F2400 X156.49 Y180.09 E634.24893
;LAYER:2
G0 F12000 X156.63 Y180.85 Z0.70
;TYPE:WALL-INNER
G1 F2400 X155.63 Y180.85 E634.28231
G1 X155.63 Y152.53 E635.22178
G1 X145.74 Y125.36 E636.18101
G1 X146.68 Y125.02 E636.21437
G1 X156.63 Y152.35 E637.17950
G1 X156.63 Y180.85 E638.12484
G0 F12000 X157.03 Y181.25
G1 F2400 X155.23 Y181.25 E638.18469
G1 X155.23 Y152.60 E639.13505
G1 X145.23 Y125.12 E640.10518
G1 X146.92 Y124.50 E640.16499
G1 X157.03 Y152.28 E641.14572
G1 X157.03 Y181.25 E642.10659
G0 F12000 X157.43 Y181.64
;TYPE:WALL-OUTER
G1 F2400 X154.83 Y181.64 E642.19292
G1 X154.83 Y152.67 E643.15419
G1 X144.72 Y124.88 E644.13524
G1 X147.16 Y123.99 E644.22156
G1 X157.37 Y152.04 E645.21190
G1 X157.43 Y152.04 E645.21392
G1 X157.43 Y181.64 E646.19599
G0 F12000 X157.13 Y181.43
G0 X156.49 Y180.47
;TYPE:FILL
G1 F2400 X155.77 Y179.75 E646.23006
G0 F12000 X155.77 Y179.18
G1 F2400 X156.49 Y179.91 E646.26412
G0 F12000 X156.49 Y179.35
G1 F2400 X155.77 Y178.62 E646.29818
G0 F12000 X155.77 Y178.06
G1 F2400 X156.49 Y178.78 E646.33227
G0 F12000 X156.49 Y178.22
G1 F2400 X155.77 Y177.49 E646.36633
G0 F12000 X155.77 Y176.93
G1 F2400 X156.49 Y177.65 E646.40040
G0 F12000 X156.49 Y177.09
G1 F2400 X155.77 Y176.36 E646.43446
G0 F12000 X155.77 Y175.80
G1 F2400 X156.49 Y176.52 E646.46852
G0 F12000 X156.49 Y175.96
G1 F2400 X155.77 Y175.23 E646.50259
G0 F12000 X155.77 Y174.67
G1 F2400 X156.49 Y175.40 E646.53665
G0 F12000 X156.49 Y174.83
G1 F2400 X155.77 Y174.10 E646.57074
G0 F12000 X155.77 Y173.54
G1 F2400 X156.49 Y174.27 E646.60480
G0 F12000 X156.49 Y173.70
G1 F2400 X155.77 Y172.98 E646.63886
G0 F12000 X155.77 Y172.41
G1 F2400 X156.49 Y173.14 E646.67293
G0 F12000 X156.49 Y172.57
G1 F2400 X155.77 Y171.85 E646.70701
G0 F12000 X155.77 Y171.28
G1 F2400 X156.49 Y172.01 E646.74108
G0 F12000 X156.49 Y171.45
G1 F2400 X155.77 Y170.72 E646.77514
G0 F12000 X155.77 Y170.16
G1 F2400 X156.49 Y170.88 E646.80921
G0 F12000 X156.49 Y170.32
G1 F2400 X155.77 Y169.59 E646.84327
G0 F12000 X155.77 Y169.03
G1 F2400 X156.49 Y169.75 E646.87733
G0 F12000 X156.49 Y169.19
G1 F2400 X155.77 Y168.46 E646.91140
G0 F12000 X155.77 Y167.90
G1 F2400 X156.49 Y168.62 E646.94548
G0 F12000 X156.49 Y168.06
G1 F2400 X155.77 Y167.33 E646.97955
G0 F12000 X155.77 Y166.77
G1 F2400 X156.49 Y167.50 E647.01361
G0 F12000 X156.49 Y166.93
G1 F2400 X155.76 Y166.21 E647.04772
G0 F12000 X155.76 Y165.64
G1 F2400 X156.49 Y166.37 E647.08183
G0 F12000 X156.49 Y165.80
G1 F2400 X155.76 Y165.08 E647.11594
G0 F12000 X155.76 Y164.51
G1 F2400 X156.49 Y165.24 E647.15005
G0 F12000 X156.49 Y164.68
G1 F2400 X155.76 Y163.95 E647.18416
G0 F12000 X155.76 Y163.38
G1 F2400 X156.49 Y164.11 E647.21825
G0 F12000 X156.49 Y163.55
G1 F2400 X155.76 Y162.82 E647.25236
G0 F12000 X155.76 Y162.25
G1 F2400 X156.49 Y162.98 E647.28647
G0 F12000 X156.49 Y162.42
G1 F2400 X155.76 Y161.69 E647.32058
G0 F12000 X155.76 Y161.13
G1 F2400 X156.49 Y161.85 E647.35467
G0 F12000 X156.49 Y161.29
G1 F2400 X155.76 Y160.56 E647.38878
G0 F12000 X155.76 Y160.00
G1 F2400 X156.49 Y160.72 E647.42289
G0 F12000 X156.49 Y160.16
G1 F2400 X155.76 Y159.43 E647.45700
G0 F12000 X155.76 Y158.87
G1 F2400 X156.49 Y159.60 E647.49111
G0 F12000 X156.49 Y159.03
G1 F2400 X155.76 Y158.31 E647.52522
G0 F12000 X155.76 Y157.74
G1 F2400 X156.49 Y158.47 E647.55933
G0 F12000 X156.49 Y157.90
G1 F2400 X155.76 Y157.18 E647.59344
G0 F12000 X155.76 Y156.61
G1 F2400 X156.49 Y157.34 E647.62755
G0 F12000 X156.49 Y156.78
G1 F2400 X155.76 Y156.05 E647.66166
G0 F12000 X155.76 Y155.48
G1 F2400 X156.49 Y156.21 E647.69577
G0 F12000 X156.49 Y155.65
G1 F2400 X155.76 Y154.92 E647.72986
G0 F12000 X155.76 Y154.35
G1 F2400 X156.49 Y155.08 E647.76397
G0 F12000 X156.49 Y154.52
G1 F2400 X155.76 Y153.79 E647.79808
G0 F12000 X155.76 Y153.23
G1 F2400 X156.49 Y153.95 E647.83219
G0 F12000 X156.49 Y153.39
G1 F2400 X155.76 Y152.66 E647.86630
G0 F12000 X156.49 Y152.82
G1 F2400 X155.53 Y151.87 E647.91129
G0 F12000 X156.10 Y151.31
G1 F2400 X154.89 Y150.09 E647.96832
G0 F12000 X155.46 Y149.53
G1 F2400 X154.24 Y148.32 E648.02535
G0 F12000 X154.81 Y147.76
G1 F2400 X153.60 Y146.54 E648.08238
G0 F12000 X154.17 Y145.99
G1 F2400 X152.95 Y144.77 E648.13944
G0 F12000 X153.52 Y144.21
G1 F2400 X152.31 Y143.00 E648.19645
G0 F12000 X152.88 Y142.44
G1 F2400 X151.66 Y141.22 E648.25348
G0 F12000 X152.23 Y140.66
G1 F2400 X151.01 Y139.45 E648.31048
G0 F12000 X151.58 Y138.89
G1 F2400 X150.37 Y137.67 E648.36751
G0 F12000 X150.94 Y137.11
G1 F2400 X149.72 Y135.90 E648.42452
G0 F12000 X150.29 Y135.34
G1 F2400 X149.07 Y134.12 E648.48160
G0 F12000 X149.65 Y133.56
G1 F2400 X148.43 Y132.35 E648.53861
G0 F12000 X149.00 Y131.79
G1 F2400 X147.78 Y130.57 E648.59564
G0 F12000 X148.35 Y130.02
G1 F2400 X147.14 Y128.80 E648.65267
G0 F12000 X147.71 Y128.24
G1 F2400 X146.49 Y127.03 E648.70970
G0 F12000 X147.06 Y126.47
G1 F2400 X146.01 Y125.41 E648.75924
G0 F12000 X146.42 Y125.26
G1 F2400 X146.74 Y125.58 E648.77421
G0 F12000 X146.17 Y126.14
G1 F2400 X147.38 Y127.35 E648.83122
G0 F12000 X146.81 Y127.91
G1 F2400 X148.03 Y129.13 E648.88827
G0 F12000 X147.46 Y129.69
G1 F2400 X148.68 Y130.90 E648.94530
G0 F12000 X148.11 Y131.46
G1 F2400 X149.32 Y132.68 E649.00233
G0 F12000 X148.75 Y133.24
G1 F2400 X149.97 Y134.45 E649.05936
G0 F12000 X149.40 Y135.01
G1 F2400 X150.61 Y136.23 E649.11642
G0 F12000 X150.04 Y136.78
G1 F2400 X151.26 Y138.00 E649.17347
G0 F12000 X150.69 Y138.56
G1 F2400 X151.91 Y139.78 E649.23052
G0 F12000 X151.34 Y140.33
G1 F2400 X152.55 Y141.55 E649.28756
G0 F12000 X151.98 Y142.11
G1 F2400 X153.20 Y143.32 E649.34461
G0 F12000 X152.63 Y143.88
G1 F2400 X153.84 Y145.10 E649.40166
G0 F12000 X153.27 Y145.66
G1 F2400 X154.49 Y146.87 E649.45872
G0 F12000 X153.92 Y147.43
G1 F2400 X155.13 Y148.65 E649.51572
G0 F12000 X154.56 Y149.21
G1 F2400 X155.78 Y150.42 E649.57273
G0 F12000 X155.21 Y150.98
G1 F2400 X156.43 Y152.19 E649.62974
G0 F12000 X155.77 Y180.31
G1 F2400 X156.16 Y180.71 E649.64815
G0 F12000 X165.59 Y180.68
;TYPE:WALL-INNER
G1 F2400 X165.59 Y152.34 E650.58829
G1 X158.10 Y124.39 E651.54834
G1 X159.07 Y124.13 E651.58173
G1 X166.59 Y152.21 E652.54623
G1 X166.59 Y180.68 E653.49072
G1 X165.59 Y180.68 E653.52409
G0 F12000 X165.19 Y181.07
G1 F2400 X165.19 Y152.39 E654.47574
G1 X157.61 Y124.11 E655.44726
G1 X159.35 Y123.64 E655.50709
G1 X166.99 Y152.16 E656.48657
G1 X166.99 Y181.07 E657.44602
G1 X165.19 Y181.07 E657.50587
G0 F12000 X164.79 Y181.47
;TYPE:WALL-OUTER
G1 F2400 X164.79 Y152.44 E658.46900
G1 X157.12 Y123.82 E659.45202
G1 X159.63 Y123.15 E659.53837
G1 X167.33 Y151.87 E660.52492
G1 X167.39 Y151.87 E660.52698
G1 X167.39 Y181.47 E661.50905
G1 X164.79 Y181.47 E661.59538
G0 F12000 X165.00 Y181.17
G0 X166.15 Y180.53
;TYPE:FILL
G1 F2400 X165.73 Y180.12 E661.61503
G0 F12000 X165.73 Y179.55
G1 F2400 X166.45 Y180.28 E661.64912
G0 F12000 X166.45 Y179.71
G1 F2400 X165.73 Y178.99 E661.68321
G0 F12000 X165.73 Y178.42
G1 F2400 X166.45 Y179.15 E661.71730
G0 F12000 X166.45 Y178.59
G1 F2400 X165.73 Y177.86 E661.75138
G0 F12000 X165.73 Y177.29
G1 F2400 X166.45 Y178.02 E661.78547
G0 F12000 X166.45 Y177.46
G1 F2400 X165.73 Y176.73 E661.81953
G0 F12000 X165.73 Y176.16
G1 F2400 X166.45 Y176.89 E661.85362
G0 F12000 X166.45 Y176.33
G1 F2400 X165.73 Y175.60 E661.88771
G0 F12000 X165.73 Y175.04
G1 F2400 X166.45 Y175.76 E661.92179
G0 F12000 X166.45 Y175.20
G1 F2400 X165.73 Y174.47 E661.95588
G0 F12000 X165.73 Y173.91
G1 F2400 X166.45 Y174.63 E661.98997
G0 F12000 X166.45 Y174.07
G1 F2400 X165.73 Y173.34 E662.02405
G0 F12000 X165.73 Y172.78
G1 F2400 X166.45 Y173.51 E662.05814
G0 F12000 X166.45 Y172.94
G1 F2400 X165.73 Y172.22 E662.09223
G0 F12000 X165.73 Y171.65
G1 F2400 X166.45 Y172.38 E662.12631
G0 F12000 X166.45 Y171.81
G1 F2400 X165.73 Y171.09 E662.16040
G0 F12000 X165.73 Y170.52
G1 F2400 X166.45 Y171.25 E662.19447
G0 F12000 X166.45 Y170.69
G1 F2400 X165.73 Y169.96 E662.22855
G0 F12000 X165.73 Y169.39
G1 F2400 X166.45 Y170.12 E662.26264
G0 F12000 X166.45 Y169.56
G1 F2400 X165.73 Y168.83 E662.29673
G0 F12000 X165.73 Y168.26
G1 F2400 X166.45 Y168.99 E662.33081
G0 F12000 X166.45 Y168.43
G1 F2400 X165.73 Y167.70 E662.36490
G0 F12000 X165.73 Y167.14
G1 F2400 X166.45 Y167.86 E662.39899
G0 F12000 X166.45 Y167.30
G1 F2400 X165.73 Y166.57 E662.43307
G0 F12000 X165.73 Y166.01
G1 F2400 X166.45 Y166.74 E662.46716
G0 F12000 X166.45 Y166.17
G1 F2400 X165.73 Y165.44 E662.50125
G0 F12000 X165.73 Y164.88
G1 F2400 X166.45 Y165.61 E662.53533
G0 F12000 X166.45 Y165.04
G1 F2400 X165.73 Y164.32 E662.56940
G0 F12000 X165.73 Y163.75
G1 F2400 X166.45 Y164.48 E662.60348
G0 F12000 X166.45 Y163.91
G1 F2400 X165.73 Y163.19 E662.63757
G0 F12000 X165.73 Y162.62
G1 F2400 X166.45 Y163.35 E662.67166
G0 F12000 X166.45 Y162.78
G1 F2400 X165.73 Y162.06 E662.70575
G0 F12000 X165.73 Y161.49
G1 F2400 X166.45 Y162.22 E662.73983
G0 F12000 X166.45 Y161.66
G1 F2400 X165.73 Y160.93 E662.77392
G0 F12000 X165.73 Y160.37
G1 F2400 X166.45 Y161.09 E662.80801
G0 F12000 X166.45 Y160.53
G1 F2400 X165.73 Y159.80 E662.84209
G0 F12000 X165.73 Y159.24
G1 F2400 X166.45 Y159.96 E662.87618
G0 F12000 X166.45 Y159.40
G1 F2400 X165.73 Y158.67 E662.91027
G0 F12000 X165.73 Y158.11
G1 F2400 X166.45 Y158.84 E662.94433
G0 F12000 X166.45 Y158.27
G1 F2400 X165.73 Y157.54 E662.97842
G0 F12000 X165.73 Y156.98
G1 F2400 X166.45 Y157.71 E663.01250
G0 F12000 X166.45 Y157.14
G1 F2400 X165.73 Y156.42 E663.04659
G0 F12000 X165.73 Y155.85
G1 F2400 X166.45 Y156.58 E663.08068
G0 F12000 X166.45 Y156.01
G1 F2400 X165.73 Y155.29 E663.11476
G0 F12000 X165.73 Y154.72
G1 F2400 X166.45 Y155.45 E663.14885
G0 F12000 X166.45 Y154.89
G1 F2400 X165.73 Y154.16 E663.18294
G0 F12000 X165.73 Y153.59
G1 F2400 X166.45 Y154.32 E663.21703
G0 F12000 X166.45 Y153.76
G1 F2400 X165.73 Y153.03 E663.25111
G0 F12000 X165.73 Y152.47
G1 F2400 X166.45 Y153.19 E663.28520
G0 F12000 X166.45 Y152.63
G1 F2400 X165.57 Y151.75 E663.32649
G0 F12000 X165.37 Y150.98
G1 F2400 X166.39 Y152.01 E663.37475
G0 F12000 X166.19 Y151.24
G1 F2400 X165.16 Y150.21 E663.42298
G0 F12000 X164.95 Y149.44
G1 F2400 X165.98 Y150.46 E663.47121
G0 F12000 X165.77 Y149.69
G1 F2400 X164.75 Y148.66 E663.51944
G0 F12000 X164.54 Y147.89
G1 F2400 X165.57 Y148.92 E663.56772
G0 F12000 X165.36 Y148.15
G1 F2400 X164.33 Y147.12 E663.61598
G0 F12000 X164.13 Y146.35
G1 F2400 X165.15 Y147.38 E663.66421
G0 F12000 X164.95 Y146.61
G1 F2400 X163.92 Y145.58 E663.71247
G0 F12000 X163.71 Y144.81
G1 F2400 X164.74 Y145.84 E663.76070
G0 F12000 X164.53 Y145.07
G1 F2400 X163.51 Y144.04 E663.80894
G0 F12000 X163.30 Y143.27
G1 F2400 X164.33 Y144.30 E663.85717
G0 F12000 X164.12 Y143.53
G1 F2400 X163.09 Y142.50 E663.90543
G0 F12000 X162.89 Y141.73
G1 F2400 X163.91 Y142.76 E663.95366
G0 F12000 X163.71 Y141.99
G1 F2400 X162.68 Y140.96 E664.00189
G0 F12000 X162.47 Y140.19
G1 F2400 X163.50 Y141.21 E664.05013
G0 F12000 X163.30 Y140.44
G1 F2400 X162.27 Y139.42 E664.09836
G0 F12000 X162.06 Y138.65
G1 F2400 X163.09 Y139.67 E664.14657
G0 F12000 X162.88 Y138.90
G1 F2400 X161.85 Y137.87 E664.19480
G0 F12000 X161.65 Y137.10
G1 F2400 X162.68 Y138.13 E664.24303
G0 F12000 X162.47 Y137.36
G1 F2400 X161.44 Y136.33 E664.29127
G0 F12000 X161.24 Y135.56
G1 F2400 X162.26 Y136.59 E664.33950
G0 F12000 X162.06 Y135.82
G1 F2400 X161.03 Y134.79 E664.38773
G0 F12000 X160.82 Y134.02
G1 F2400 X161.85 Y135.05 E664.43597
G0 F12000 X161.64 Y134.28
G1 F2400 X160.62 Y133.25 E664.48420
G0 F12000 X160.41 Y132.48
G1 F2400 X161.44 Y133.51 E664.53243
G0 F12000 X161.23 Y132.74
G1 F2400 X160.20 Y131.71 E664.58067
G0 F12000 X160.00 Y130.94
G1 F2400 X161.02 Y131.96 E664.62885
G0 F12000 X160.82 Y131.19
G1 F2400 X159.79 Y130.17 E664.67706
G0 F12000 X159.58 Y129.40
G1 F2400 X160.61 Y130.42 E664.72527
G0 F12000 X160.40 Y129.65
G1 F2400 X159.38 Y128.62 E664.77350
G0 F12000 X159.17 Y127.85
G1 F2400 X160.20 Y128.88 E664.82174
G0 F12000 X159.99 Y128.11
G1 F2400 X158.96 Y127.08 E664.86997
G0 F12000 X158.76 Y126.31
G1 F2400 X159.78 Y127.34 E664.91823
G0 F12000 X159.58 Y126.57
G1 F2400 X158.55 Y125.54 E664.96646
G0 F12000 X158.34 Y124.77
G1 F2400 X159.37 Y125.80 E665.01469
G0 F12000 X159.16 Y125.03
G1 F2400 X158.55 Y124.41 E665.04357
;LAYER:3
G0 F12000 X158.10 Y124.39 Z0.90
;TYPE:WALL-INNER
G1 F2400 X159.07 Y124.13 E665.07696
G1 X166.59 Y152.21 E666.04147
G1 X166.59 Y180.68 E666.98595
G1 X165.59 Y180.68 E667.01933
G1 X165.59 Y152.34 E667.95946
G1 X158.10 Y124.39 E668.91951
G0 F12000 X157.61 Y124.11
G1 F2400 X159.35 Y123.64 E668.97934
G1 X166.99 Y152.16 E669.95883
G1 X166.99 Y181.07 E670.91827
G1 X165.19 Y181.07 E670.97812
G1 X165.19 Y152.39 E671.92977
G1 X157.61 Y124.11 E672.90129
G0 F12000 X157.12 Y123.82
;TYPE:WALL-OUTER
G1 F2400 X159.63 Y123.15 E672.98764
G1 X167.33 Y151.87 E673.97422
G1 X167.39 Y151.87 E673.97628
G1 X167.39 Y181.47 E674.95835
G1 X164.79 Y181.47 E675.04467
G1 X164.79 Y152.44 E676.00780
G1 X157.12 Y123.82 E676.99086
G0 F12000 X158.32 Y124.67
;TYPE:FILL
G1 F2400 X158.58 Y124.40 E677.00317
G0 F12000 X159.03 Y124.52
G1 F2400 X158.44 Y125.11 E677.03100
G0 F12000 X158.56 Y125.56
G1 F2400 X159.15 Y124.96 E677.05877
G0 F12000 X159.27 Y125.41
G1 F2400 X158.67 Y126.00 E677.08657
G0 F12000 X158.79 Y126.45
G1 F2400 X159.39 Y125.85 E677.11440
G0 F12000 X159.50 Y126.30
G1 F2400 X158.91 Y126.89 E677.14215
G0 F12000 X159.03 Y127.34
G1 F2400 X159.62 Y126.74 E677.16997
G0 F12000 X159.74 Y127.19
G1 F2400 X159.15 Y127.78 E677.19777
G0 F12000 X159.27 Y128.23
G1 F2400 X159.86 Y127.63 E677.22555
G0 F12000 X159.98 Y128.08
G1 F2400 X159.39 Y128.67 E677.25337
G0 F12000 X159.51 Y129.12
G1 F2400 X160.10 Y128.52 E677.28117
G0 F12000 X160.22 Y128.97
G1 F2400 X159.63 Y129.56 E677.30895
G0 F12000 X159.75 Y130.01
G1 F2400 X160.34 Y129.41 E677.33675
G0 F12000 X160.46 Y129.86
G1 F2400 X159.87 Y130.45 E677.36452
G0 F12000 X159.99 Y130.90
G1 F2400 X160.58 Y130.30 E677.39232
G0 F12000 X160.70 Y130.75
G1 F2400 X160.10 Y131.34 E677.42012
G0 F12000 X160.22 Y131.79
G1 F2400 X160.82 Y131.19 E677.44790
G0 F12000 X160.94 Y131.64
G1 F2400 X160.34 Y132.23 E677.47570
G0 F12000 X160.46 Y132.68
G1 F2400 X161.06 Y132.08 E677.50348
G0 F12000 X161.17 Y132.53
G1 F2400 X160.58 Y133.12 E677.53125
G0 F12000 X160.70 Y133.57
G1 F2400 X161.29 Y132.97 E677.55903
G0 F12000 X161.41 Y133.42
G1 F2400 X160.82 Y134.01 E677.58683
G0 F12000 X160.94 Y134.46
G1 F2400 X161.53 Y133.86 E677.61465
G0 F12000 X161.65 Y134.31
G1 F2400 X161.06 Y134.90 E677.64243
G0 F12000 X161.18 Y135.35
G1 F2400 X161.77 Y134.75 E677.67023
G0 F12000 X161.89 Y135.20
G1 F2400 X161.30 Y135.79 E677.69803
G0 F12000 X161.42 Y136.24
G1 F2400 X162.01 Y135.64 E677.72583
G0 F12000 X162.13 Y136.09
G1 F2400 X161.54 Y136.68 E677.75360
G0 F12000 X161.66 Y137.13
G1 F2400 X162.25 Y136.53 E677.78140
G0 F12000 X162.37 Y136.98
G1 F2400 X161.77 Y137.57 E677.80920
G0 F12000 X161.89 Y138.02
G1 F2400 X162.49 Y137.42 E677.83698
G0 F12000 X162.60 Y137.87
G1 F2400 X162.01 Y138.46 E677.86478
G0 F12000 X162.13 Y138.91
G1 F2400 X162.72 Y138.31 E677.89258
G0 F12000 X162.84 Y138.76
G1 F2400 X162.25 Y139.35 E677.92038
G0 F12000 X162.37 Y139.80
G1 F2400 X162.96 Y139.20 E677.94820
G0 F12000 X163.08 Y139.65
G1 F2400 X162.49 Y140.24 E677.97598
G0 F12000 X162.61 Y140.69
G1 F2400 X163.20 Y140.09 E678.00378
G0 F12000 X163.32 Y140.54
G1 F2400 X162.73 Y141.13 E678.03160
G0 F12000 X162.85 Y141.58
G1 F2400 X163.44 Y140.98 E678.05938
G0 F12000 X163.56 Y141.43
G1 F2400 X162.97 Y142.02 E678.08720
G0 F12000 X163.09 Y142.47
G1 F2400 X163.68 Y141.87 E678.11500
G0 F12000 X163.80 Y142.32
G1 F2400 X163.21 Y142.91 E678.14275
G0 F12000 X163.32 Y143.36
G1 F2400 X163.92 Y142.76 E678.17057
G0 F12000 X164.04 Y143.21
G1 F2400 X163.44 Y143.80 E678.19837
G0 F12000 X163.56 Y144.25
G1 F2400 X164.16 Y143.66 E678.22617
G0 F12000 X164.28 Y144.10
G1 F2400 X163.68 Y144.69 E678.25400
G0 F12000 X163.80 Y145.14
G1 F2400 X164.39 Y144.54 E678.28182
G0 F12000 X164.51 Y144.99
G1 F2400 X163.92 Y145.58 E678.30962
G0 F12000 X164.04 Y146.03
G1 F2400 X164.63 Y145.43 E678.33742
G0 F12000 X164.75 Y145.88
G1 F2400 X164.16 Y146.47 E678.36524
G0 F12000 X164.28 Y146.92
G1 F2400 X164.87 Y146.32 E678.39304
G0 F12000 X164.99 Y146.77
G1 F2400 X164.40 Y147.36 E678.42084
G0 F12000 X164.52 Y147.81
G1 F2400 X165.11 Y147.22 E678.44864
G0 F12000 X165.23 Y147.66
G1 F2400 X164.64 Y148.25 E678.47642
G0 F12000 X164.75 Y148.70
G1 F2400 X165.35 Y148.10 E678.50424
G0 F12000 X165.47 Y148.55
G1 F2400 X164.87 Y149.14 E678.53204
G0 F12000 X164.99 Y149.59
G1 F2400 X165.59 Y149.00 E678.55982
G0 F12000 X165.71 Y149.44
G1 F2400 X165.11 Y150.03 E678.58764
G0 F12000 X165.23 Y150.48
G1 F2400 X165.82 Y149.88 E678.61544
G0 F12000 X165.94 Y150.33
G1 F2400 X165.35 Y150.92 E678.64324
G0 F12000 X165.47 Y151.37
G1 F2400 X166.06 Y150.77 E678.67106
G0 F12000 X166.18 Y151.22
G1 F2400 X165.59 Y151.81 E678.69884
G0 F12000 X165.71 Y152.26
G1 F2400 X166.30 Y151.66 E678.72664
G0 F12000 X166.42 Y152.11
G1 F2400 X165.73 Y152.81 E678.75927
G0 F12000 X165.73 Y153.37
G1 F2400 X166.45 Y152.64 E678.79334
G0 F12000 X166.45 Y153.21
G1 F2400 X165.73 Y153.93 E678.82740
G0 F12000 X165.73 Y154.50
G1 F2400 X166.45 Y153.77 E678.86146
G0 F12000 X166.45 Y154.34
G1 F2400 X165.73 Y155.06 E678.89555
G0 F12000 X165.73 Y155.63
G1 F2400 X166.45 Y154.90 E678.92961
G0 F12000 X166.45 Y155.46
G1 F2400 X165.73 Y156.19 E678.96368
G0 F12000 X165.73 Y156.75
G1 F2400 X166.45 Y156.03 E678.99774
G0 F12000 X166.45 Y156.59
G1 F2400 X165.73 Y157.32 E679.03180
G0 F12000 X165.73 Y157.88
G1 F2400 X166.45 Y157.16 E679.06587
G0 F12000 X166.45 Y157.72
G1 F2400 X165.73 Y158.45 E679.09993
G0 F12000 X165.73 Y159.01
G1 F2400 X166.45 Y158.28 E679.13402
G0 F12000 X166.45 Y158.85
G1 F2400 X165.73 Y159.58 E679.16808
G0 F12000 X165.73 Y160.14
G1 F2400 X166.45 Y159.41 E679.20214
G0 F12000 X166.45 Y159.98
G1 F2400 X165.73 Y160.70 E679.23621
G0 F12000 X165.73 Y161.27
G1 F2400 X166.45 Y160.54 E679.27029
G0 F12000 X166.45 Y161.11
G1 F2400 X165.73 Y161.83 E679.30436
G0 F12000 X165.73 Y162.40
G1 F2400 X166.45 Y161.67 E679.33842
G0 F12000 X166.45 Y162.24
G1 F2400 X165.73 Y162.96 E679.37248
G0 F12000 X165.73 Y163.53
G1 F2400 X166.45 Y162.80 E679.40655
G0 F12000 X166.45 Y163.36
G1 F2400 X165.73 Y164.09 E679.44061
G0 F12000 X165.73 Y164.65
G1 F2400 X166.45 Y163.93 E679.47467
G0 F12000 X166.45 Y164.49
G1 F2400 X165.73 Y165.22 E679.50876
G0 F12000 X165.73 Y165.78
G1 F2400 X166.45 Y165.06 E679.54283
G0 F12000 X166.45 Y165.62
G1 F2400 X165.73 Y166.35 E679.57689
G0 F12000 X165.73 Y166.91
G1 F2400 X166.45 Y166.19 E679.61095
G0 F12000 X166.45 Y166.75
G1 F2400 X165.73 Y167.48 E679.64504
G0 F12000 X165.73 Y168.04
G1 F2400 X166.45 Y167.31 E679.67910
G0 F12000 X166.45 Y167.88
G1 F2400 X165.73 Y168.60 E679.71317
G0 F12000 X165.73 Y169.17
G1 F2400 X166.45 Y168.44 E679.74723
G0 F12000 X166.45 Y169.01
G1 F2400 X165.73 Y169.73 E679.78129
G0 F12000 X165.73 Y170.30
G1 F2400 X166.45 Y169.57 E679.81536
G0 F12000 X166.45 Y170.13
G1 F2400 X165.73 Y170.86 E679.84942
G0 F12000 X165.73 Y171.43
G1 F2400 X166.45 Y170.70 E679.88351
G0 F12000 X166.45 Y171.26
G1 F2400 X165.73 Y171.99 E679.91757
G0 F12000 X165.73 Y172.55
G1 F2400 X166.45 Y171.83 E679.95163
G0 F12000 X166.45 Y172.39
G1 F2400 X165.73 Y173.12 E679.98570
G0 F12000 X165.73 Y173.68
G1 F2400 X166.45 Y172.96 E680.01978
G0 F12000 X166.45 Y173.52
G1 F2400 X165.73 Y174.25 E680.05385
G0 F12000 X165.73 Y174.81
G1 F2400 X166.45 Y174.09 E680.08791
G0 F12000 X166.45 Y174.65
G1 F2400 X165.73 Y175.38 E680.12197
G0 F12000 X165.73 Y175.94
G1 F2400 X166.45 Y175.21 E680.15606
G0 F12000 X166.45 Y175.78
G1 F2400 X165.73 Y176.50 E680.19012
G0 F12000 X165.73 Y177.07
G1 F2400 X166.45 Y176.34 E680.22419
G0 F12000 X166.45 Y176.91
G1 F2400 X165.73 Y177.63 E680.25827
G0 F12000 X165.73 Y178.20
G1 F2400 X166.45 Y177.47 E680.29234
G0 F12000 X166.45 Y178.03
G1 F2400 X165.73 Y178.76 E680.32640
G0 F12000 X165.73 Y179.32
G1 F2400 X166.45 Y178.60 E680.36046
G0 F12000 X166.45 Y179.16
G1 F2400 X165.73 Y179.89 E680.39455
G0 F12000 X165.73 Y180.45
G1 F2400 X166.45 Y179.73 E680.42862
G0 F12000 X166.45 Y180.29
G1 F2400 X166.21 Y180.53 E680.44002
G0 F12000 X156.63 Y180.85
;TYPE:WALL-INNER
G1 F2400 X155.63 Y180.85 E680.47339
G1 X155.63 Y152.53 E681.41287
G1 X145.74 Y125.36 E682.37209
G1 X146.68 Y125.02 E682.40546
G1 X156.63 Y152.35 E683.37058
G1 X156.63 Y180.85 E684.31593
G0 F12000 X157.03 Y181.25
G1 F2400 X155.23 Y181.25 E684.37578
G1 X155.23 Y152.60 E685.32613
G1 X145.23 Y125.12 E686.29626
G1 X146.92 Y124.50 E686.35611
G1 X157.03 Y152.28 E687.33683
G1 X157.03 Y181.25 E688.29770
G0 F12000 X157.43 Y181.64
;TYPE:WALL-OUTER
G1 F2400 X154.83 Y181.64 E688.38403
G1 X154.83 Y152.67 E689.34530
G1 X144.72 Y124.88 E690.32634
G1 X147.16 Y123.99 E690.41267
G1 X157.37 Y152.04 E691.40300
G1 X157.43 Y152.04 E691.40503
G1 X157.43 Y181.64 E692.38710
G0 F12000 X157.13 Y181.43
G0 X155.88 Y180.71
;TYPE:FILL
G1 F2400 X156.49 Y180.09 E692.41570
G0 F12000 X156.49 Y179.53
G1 F2400 X155.77 Y180.26 E692.44974
G0 F12000 X155.77 Y179.69
G1 F2400 X156.49 Y178.97 E692.48375
G0 F12000 X156.49 Y178.40
G1 F2400 X155.77 Y179.13 E692.51777
G0 F12000 X155.77 Y178.56
G1 F2400 X156.49 Y177.84 E692.55181
G0 F12000 X156.49 Y177.27
G1 F2400 X155.77 Y178.00 E692.58583
G0 F12000 X155.77 Y177.44
G1 F2400 X156.49 Y176.71 E692.61984
G0 F12000 X156.49 Y176.15
G1 F2400 X155.77 Y176.87 E692.65388
G0 F12000 X155.77 Y176.31
G1 F2400 X156.49 Y175.58 E692.68792
G0 F12000 X156.49 Y175.02
G1 F2400 X155.77 Y175.74 E692.72194
G0 F12000 X155.77 Y175.18
G1 F2400 X156.49 Y174.45 E692.75596
G0 F12000 X156.49 Y173.89
G1 F2400 X155.77 Y174.61 E692.79000
G0 F12000 X155.77 Y174.05
G1 F2400 X156.49 Y173.32 E692.82404
G0 F12000 X156.49 Y172.76
G1 F2400 X155.77 Y173.49 E692.85805
G0 F12000 X155.77 Y172.92
G1 F2400 X156.49 Y172.20 E692.89207
G0 F12000 X156.49 Y171.63
G1 F2400 X155.77 Y172.36 E692.92611
G0 F12000 X155.77 Y171.79
G1 F2400 X156.49 Y171.07 E692.96015
G0 F12000 X156.49 Y170.50
G1 F2400 X155.77 Y171.23 E692.99416
G0 F12000 X155.77 Y170.66
G1 F2400 X156.49 Y169.94 E693.02820
G0 F12000 X156.49 Y169.37
G1 F2400 X155.77 Y170.10 E693.06224
G0 F12000 X155.77 Y169.53
G1 F2400 X156.49 Y168.81 E693.09626
G0 F12000 X156.49 Y168.25
G1 F2400 X155.77 Y168.97 E693.13028
G0 F12000 X155.77 Y168.41
G1 F2400 X156.49 Y167.68 E693.16432
G0 F12000 X156.49 Y167.12
G1 F2400 X155.77 Y167.84 E693.19836
G0 F12000 X155.77 Y167.28
G1 F2400 X156.49 Y166.55 E693.23237
G0 F12000 X156.49 Y165.99
G1 F2400 X155.77 Y166.71 E693.26639
G0 F12000 X155.77 Y166.15
G1 F2400 X156.49 Y165.42 E693.30048
G0 F12000 X156.49 Y164.86
G1 F2400 X155.77 Y165.59 E693.33454
G0 F12000 X155.77 Y165.02
G1 F2400 X156.49 Y164.30 E693.36860
G0 F12000 X156.49 Y163.73
G1 F2400 X155.77 Y164.46 E693.40269
G0 F12000 X155.77 Y163.89
G1 F2400 X156.49 Y163.17 E693.43676
G0 F12000 X156.49 Y162.60
G1 F2400 X155.77 Y163.33 E693.47082
G0 F12000 X155.77 Y162.76
G1 F2400 X156.49 Y162.04 E693.50488
G0 F12000 X156.49 Y161.47
G1 F2400 X155.77 Y162.20 E693.53897
G0 F12000 X155.77 Y161.64
G1 F2400 X156.49 Y160.91 E693.57303
G0 F12000 X156.49 Y160.35
G1 F2400 X155.77 Y161.07 E693.60710
G0 F12000 X155.77 Y160.51
G1 F2400 X156.49 Y159.78 E693.64116
G0 F12000 X156.49 Y159.22
G1 F2400 X155.77 Y159.94 E693.67525
G0 F12000 X155.77 Y159.38
G1 F2400 X156.49 Y158.65 E693.70931
G0 F12000 X156.49 Y158.09
G1 F2400 X155.77 Y158.81 E693.74337
G0 F12000 X155.77 Y158.25
G1 F2400 X156.49 Y157.53 E693.77744
G0 F12000 X156.49 Y156.96
G1 F2400 X155.77 Y157.69 E693.81150
G0 F12000 X155.77 Y157.12
G1 F2400 X156.49 Y156.40 E693.84556
G0 F12000 X156.49 Y155.83
G1 F2400 X155.77 Y156.56 E693.87963
G0 F12000 X155.77 Y155.99
G1 F2400 X156.49 Y155.27 E693.91371
G0 F12000 X156.49 Y154.70
G1 F2400 X155.77 Y155.43 E693.94778
G0 F12000 X155.77 Y154.87
G1 F2400 X156.49 Y154.14 E693.98184
G0 F12000 X156.49 Y153.57
G1 F2400 X155.77 Y154.30 E694.01590
G0 F12000 X155.77 Y153.74
G1 F2400 X156.49 Y153.01 E694.04999
G0 F12000 X156.49 Y152.45
G1 F2400 X155.77 Y153.17 E694.08405
G0 F12000 X155.77 Y152.61
G1 F2400 X156.36 Y152.01 E694.11192
G0 F12000 X156.21 Y151.60
G1 F2400 X155.64 Y152.17 E694.13846
G0 F12000 X155.49 Y151.75
G1 F2400 X156.06 Y151.19 E694.16499
G0 F12000 X155.91 Y150.77
G1 F2400 X155.34 Y151.34 E694.19155
G0 F12000 X155.19 Y150.93
G1 F2400 X155.76 Y150.36 E694.21808
G0 F12000 X155.61 Y149.95
G1 F2400 X155.04 Y150.51 E694.24461
G0 F12000 X154.89 Y150.10
G1 F2400 X155.46 Y149.53 E694.27115
G0 F12000 X155.31 Y149.12
G1 F2400 X154.74 Y149.68 E694.29770
G0 F12000 X154.59 Y149.27
G1 F2400 X155.16 Y148.71 E694.32423
G0 F12000 X155.00 Y148.29
G1 F2400 X154.44 Y148.86 E694.35077
G0 F12000 X154.29 Y148.44
G1 F2400 X154.85 Y147.88 E694.37732
G0 F12000 X154.70 Y147.46
G1 F2400 X154.14 Y148.03 E694.40386
G0 F12000 X153.99 Y147.62
G1 F2400 X154.55 Y147.05 E694.43041
G0 F12000 X154.40 Y146.64
G1 F2400 X153.84 Y147.20 E694.45699
G0 F12000 X153.69 Y146.79
G1 F2400 X154.25 Y146.22 E694.48357
G0 F12000 X154.10 Y145.81
G1 F2400 X153.53 Y146.38 E694.51015
G0 F12000 X153.38 Y145.96
G1 F2400 X153.95 Y145.40 E694.53669
G0 F12000 X153.80 Y144.98
G1 F2400 X153.23 Y145.55 E694.56324
G0 F12000 X153.08 Y145.13
G1 F2400 X153.65 Y144.57 E694.58980
G0 F12000 X153.50 Y144.15
G1 F2400 X152.93 Y144.72 E694.61635
G0 F12000 X152.78 Y144.31
G1 F2400 X153.35 Y143.74 E694.64289
G0 F12000 X153.20 Y143.33
G1 F2400 X152.63 Y143.89 E694.66942
G0 F12000 X152.48 Y143.48
G1 F2400 X153.05 Y142.91 E694.69598
G0 F12000 X152.90 Y142.50
G1 F2400 X152.33 Y143.06 E694.72251
G0 F12000 X152.18 Y142.65
G1 F2400 X152.75 Y142.09 E694.74904
G0 F12000 X152.59 Y141.67
G1 F2400 X152.03 Y142.24 E694.77558
G0 F12000 X151.88 Y141.82
G1 F2400 X152.44 Y141.26 E694.80213
G0 F12000 X152.29 Y140.84
G1 F2400 X151.73 Y141.41 E694.82866
G0 F12000 X151.58 Y141.00
G1 F2400 X152.14 Y140.43 E694.85520
G0 F12000 X151.99 Y140.02
G1 F2400 X151.43 Y140.58 E694.88175
G0 F12000 X151.28 Y140.17
G1 F2400 X151.84 Y139.60 E694.90831
G0 F12000 X151.69 Y139.19
G1 F2400 X151.13 Y139.76 E694.93489
G0 F12000 X150.97 Y139.34
G1 F2400 X151.54 Y138.78 E694.96147
G0 F12000 X151.39 Y138.36
G1 F2400 X150.82 Y138.93 E694.98803
G0 F12000 X150.68 Y138.51
G1 F2400 X151.24 Y137.95 E695.01456
G0 F12000 X151.09 Y137.53
G1 F2400 X150.52 Y138.10 E695.04109
G0 F12000 X150.37 Y137.69
G1 F2400 X150.94 Y137.12 E695.06762
G0 F12000 X150.79 Y136.71
G1 F2400 X150.22 Y137.27 E695.09418
G0 F12000 X150.07 Y136.86
G1 F2400 X150.64 Y136.29 E695.12071
G0 F12000 X150.49 Y135.88
G1 F2400 X149.92 Y136.45 E695.14725
G0 F12000 X149.77 Y136.03
G1 F2400 X150.34 Y135.47 E695.17380
G0 F12000 X150.19 Y135.05
G1 F2400 X149.62 Y135.62 E695.20034
G0 F12000 X149.47 Y135.21
G1 F2400 X150.04 Y134.64 E695.22689
G0 F12000 X149.88 Y134.22
G1 F2400 X149.32 Y134.79 E695.25345
G0 F12000 X149.17 Y134.38
G1 F2400 X149.73 Y133.81 E695.27996
G0 F12000 X149.58 Y133.40
G1 F2400 X149.02 Y133.96 E695.30651
G0 F12000 X148.87 Y133.55
G1 F2400 X149.43 Y132.98 E695.33309
G0 F12000 X149.28 Y132.57
G1 F2400 X148.72 Y133.14 E695.35965
G0 F12000 X148.57 Y132.72
G1 F2400 X149.13 Y132.16 E695.38625
G0 F12000 X148.98 Y131.74
G1 F2400 X148.42 Y132.31 E695.41279
G0 F12000 X148.27 Y131.90
G1 F2400 X148.83 Y131.33 E695.43932
G0 F12000 X148.68 Y130.91
G1 F2400 X148.12 Y131.48 E695.46588
G0 F12000 X147.96 Y131.07
G1 F2400 X148.53 Y130.50 E695.49241
G0 F12000 X148.38 Y130.09
G1 F2400 X147.81 Y130.65 E695.51894
G0 F12000 X147.66 Y130.24
G1 F2400 X148.23 Y129.67 E695.54550
G0 F12000 X148.08 Y129.26
G1 F2400 X147.51 Y129.83 E695.57201
G0 F12000 X147.36 Y129.41
G1 F2400 X147.93 Y128.85 E695.59856
G0 F12000 X147.78 Y128.43
G1 F2400 X147.21 Y129.00 E695.62512
G0 F12000 X147.06 Y128.59
G1 F2400 X147.63 Y128.02 E695.65163
G0 F12000 X147.48 Y127.61
G1 F2400 X146.91 Y128.17 E695.67819
G0 F12000 X146.76 Y127.76
G1 F2400 X147.32 Y127.19 E695.70472
G0 F12000 X147.18 Y126.78
G1 F2400 X146.61 Y127.34 E695.73125
G0 F12000 X146.46 Y126.93
G1 F2400 X147.02 Y126.36 E695.75781
G0 F12000 X146.87 Y125.95
G1 F2400 X146.31 Y126.52 E695.78436
G0 F12000 X146.16 Y126.10
G1 F2400 X146.72 Y125.54 E695.81094
G0 F12000 X146.45 Y125.25
G1 F2400 X146.01 Y125.69 E695.83154
;LAYER:4
G0 F12000 X145.74 Y125.36 Z1.10
;TYPE:WALL-INNER
G1 F2400 X146.68 Y125.02 E695.86491
G1 X156.63 Y152.35 E696.83003
G1 X156.63 Y180.85 E697.77538
G1 X155.63 Y180.85 E697.80875
G1 X155.63 Y152.53 E698.74823
G1 X145.74 Y125.36 E699.70745
G0 F12000 X145.23 Y125.12
G1 F2400 X146.92 Y124.50 E699.76727
G1 X157.03 Y152.28 E700.74803
G1 X157.03 Y181.25 E701.70890
G1 X155.23 Y181.25 E701.76875
G1 X155.23 Y152.60 E702.71911
G1 X145.23 Y125.12 E703.68927
G0 F12000 X144.72 Y124.88
;TYPE:WALL-OUTER
G1 F2400 X147.16 Y123.99 E703.77559
G1 X157.37 Y152.04 E704.76593
G1 X157.43 Y152.04 E704.76795
G1 X157.43 Y181.64 E705.75002
G1 X154.83 Y181.64 E705.83635
G1 X154.83 Y152.67 E706.79762
G1 X144.72 Y124.88 E707.77867
G0 F12000 X146.01 Y125.41
;TYPE:FILL
G1 F2400 X147.06 Y126.47 E707.82821
G0 F12000 X146.49 Y127.03
G1 F2400 X147.71 Y128.24 E707.88524
G0 F12000 X147.14 Y128.80
G1 F2400 X148.35 Y130.02 E707.94227
G0 F12000 X147.78 Y130.57
G1 F2400 X149.00 Y131.79 E707.99930
G0 F12000 X148.43 Y132.35
G1 F2400 X149.65 Y133.56 E708.05631
G0 F12000 X149.07 Y134.12
G1 F2400 X150.29 Y135.34 E708.11339
G0 F12000 X149.72 Y135.90
G1 F2400 X150.94 Y137.11 E708.17040
G0 F12000 X150.37 Y137.67
G1 F2400 X151.58 Y138.89 E708.22743
G0 F12000 X151.01 Y139.45
G1 F2400 X152.23 Y140.66 E708.28443
G0 F12000 X151.66 Y141.22
G1 F2400 X152.88 Y142.44 E708.34146
G0 F12000 X152.31 Y143.00
G1 F2400 X153.52 Y144.21 E708.39847
G0 F12000 X152.95 Y144.77
G1 F2400 X154.17 Y145.99 E708.45553
G0 F12000 X153.60 Y146.54
G1 F2400 X154.81 Y147.76 E708.51256
G0 F12000 X154.24 Y148.32
G1 F2400 X155.46 Y149.53 E708.56959
G0 F12000 X154.89 Y150.09
G1 F2400 X156.10 Y151.31 E708.62662
G0 F12000 X155.53 Y151.87
G1 F2400 X156.49 Y152.82 E708.67161
G0 F12000 X156.49 Y153.39
G1 F2400 X155.76 Y152.66 E708.70572
G0 F12000 X155.76 Y153.23
G1 F2400 X156.49 Y153.95 E708.73983
G0 F12000 X156.49 Y154.52
G1 F2400 X155.76 Y153.79 E708.77394
G0 F12000 X155.76 Y154.35
G1 F2400 X156.49 Y155.08 E708.80805
G0 F12000 X156.49 Y155.65
G1 F2400 X155.76 Y154.92 E708.84214
G0 F12000 X155.76 Y155.48
G1 F2400 X156.49 Y156.21 E708.87625
G0 F12000 X156.49 Y156.78
G1 F2400 X155.76 Y156.05 E708.91036
G0 F12000 X155.76 Y156.61
G1 F2400 X156.49 Y157.34 E708.94447
G0 F12000 X156.49 Y157.90
G1 F2400 X155.76 Y157.18 E708.97858
G0 F12000 X155.76 Y157.74
G1 F2400 X156.49 Y158.47 E709.01269
G0 F12000 X156.49 Y159.03
G1 F2400 X155.76 Y158.31 E709.04680
G0 F12000 X155.76 Y158.87
G1 F2400 X156.49 Y159.60 E709.08091
G0 F12000 X156.49 Y160.16
G1 F2400 X155.76 Y159.43 E709.11502
G0 F12000 X155.76 Y160.00
G1 F2400 X156.49 Y160.72 E709.14913
G0 F12000 X156.49 Y161.29
G1 F2400 X155.76 Y160.56 E709.18324
G0 F12000 X155.76 Y161.13
G1 F2400 X156.49 Y161.85 E709.21733
G0 F12000 X156.49 Y162.42
G1 F2400 X155.76 Y161.69 E709.25144
G0 F12000 X155.76 Y162.25
G1 F2400 X156.49 Y162.98 E709.28555
G0 F12000 X156.49 Y163.55
G1 F2400 X155.76 Y162.82 E709.31966
G0 F12000 X155.76 Y163.38
G1 F2400 X156.49 Y164.11 E709.35375
G0 F12000 X156.49 Y164.68
G1 F2400 X155.76 Y163.95 E709.38786
G0 F12000 X155.76 Y164.51
G1 F2400 X156.49 Y165.24 E709.42197
G0 F12000 X156.49 Y165.80
G1 F2400 X155.76 Y165.08 E709.45608
G0 F12000 X155.76 Y165.64
G1 F2400 X156.49 Y166.37 E709.49019
G0 F12000 X156.49 Y166.93
G1 F2400 X155.76 Y166.21 E709.52430
G0 F12000 X155.77 Y166.77
G1 F2400 X156.49 Y167.50 E709.55836
G0 F12000 X156.49 Y168.06
G1 F2400 X155.77 Y167.33 E709.59243
G0 F12000 X155.77 Y167.90
G1 F2400 X156.49 Y168.62 E709.62651
G0 F12000 X156.49 Y169.19
G1 F2400 X155.77 Y168.46 E709.66058
G0 F12000 X155.77 Y169.03
G1 F2400 X156.49 Y169.75 E709.69464
G0 F12000 X156.49 Y170.32
G1 F2400 X155.77 Y169.59 E709.72871
G0 F12000 X155.77 Y170.16
G1 F2400 X156.49 Y170.88 E709.76277
G0 F12000 X156.49 Y171.45
G1 F2400 X155.77 Y170.72 E709.79683
G0 F12000 X155.77 Y171.28
G1 F2400 X156.49 Y172.01 E709.83090
G0 F12000 X156.49 Y172.57
G1 F2400 X155.77 Y171.85 E709.86498
G0 F12000 X155.77 Y172.41
G1 F2400 X156.49 Y173.14 E709.89905
G0 F12000 X156.49 Y173.70
G1 F2400 X155.77 Y172.98 E709.93311
G0 F12000 X155.77 Y173.54
G1 F2400 X156.49 Y174.27 E709.96717
G0 F12000 X156.49 Y174.83
G1 F2400 X155.77 Y174.10 E710.00126
G0 F12000 X155.77 Y174.67
G1 F2400 X156.49 Y175.40 E710.03532
G0 F12000 X156.49 Y175.96
G1 F2400 X155.77 Y175.23 E710.06939
G0 F12000 X155.77 Y175.80
G1 F2400 X156.49 Y176.52 E710.10345
G0 F12000 X156.49 Y177.09
G1 F2400 X155.77 Y176.36 E710.13751
G0 F12000 X155.77 Y176.93
G1 F2400 X156.49 Y177.65 E710.17158
G0 F12000 X156.49 Y178.22
G1 F2400 X155.77 Y177.49 E710.20564
G0 F12000 X155.77 Y178.06
G1 F2400 X156.49 Y178.78 E710.23973
G0 F12000 X156.49 Y179.35
G1 F2400 X155.77 Y178.62 E710.27379
G0 F12000 X155.77 Y179.18
G1 F2400 X156.49 Y179.91 E710.30785
G0 F12000 X156.49 Y180.47
G1 F2400 X155.77 Y179.75 E710.34192
G0 F12000 X155.77 Y180.31
G1 F2400 X156.16 Y180.71 E710.36033
G0 F12000 X156.43 Y152.19
G1 F2400 X155.21 Y150.98 E710.41734
G0 F12000 X155.78 Y150.42
G1 F2400 X154.56 Y149.21 E710.47435
G0 F12000 X155.13 Y148.65
G1 F2400 X153.92 Y147.43 E710.53135
G0 F12000 X154.49 Y146.87
G1 F2400 X153.27 Y145.66 E710.58841
G0 F12000 X153.84 Y145.10
G1 F2400 X152.63 Y143.88 E710.64546
G0 F12000 X153.20 Y143.32
G1 F2400 X151.98 Y142.11 E710.70252
G0 F12000 X152.55 Y141.55
G1 F2400 X151.34 Y140.33 E710.75955
G0 F12000 X151.91 Y139.78
G1 F2400 X150.69 Y138.56 E710.81660
G0 F12000 X151.26 Y138.00
G1 F2400 X150.04 Y136.78 E710.87365
G0 F12000 X150.61 Y136.23
G1 F2400 X149.40 Y135.01 E710.93071
G0 F12000 X149.97 Y134.45
G1 F2400 X148.75 Y133.24 E710.98774
G0 F12000 X149.32 Y132.68
G1 F2400 X148.11 Y131.46 E711.04477
G0 F12000 X148.68 Y130.90
G1 F2400 X147.46 Y129.69 E711.10180
G0 F12000 X148.03 Y129.13
G1 F2400 X146.81 Y127.91 E711.15885
G0 F12000 X147.38 Y127.35
G1 F2400 X146.17 Y126.14 E711.21586
G0 F12000 X146.74 Y125.58
G1 F2400 X146.42 Y125.26 E711.23083
G0 F12000 X158.10 Y124.39
;TYPE:WALL-INNER
G1 F2400 X159.07 Y124.13 E711.26422
G1 X166.59 Y152.21 E712.22872
G1 X166.59 Y180.68 E713.17321
G1 X165.59 Y180.68 E713.20658
G1 X165.59 Y152.34 E714.14672
G1 X158.10 Y124.39 E715.10677
G0 F12000 X157.61 Y124.11
G1 F2400 X159.35 Y123.64 E715.16660
G1 X166.99 Y152.16 E716.14608
G1 X166.99 Y181.07 E717.10553
G1 X165.19 Y181.07 E717.16538
G1 X165.19 Y152.39 E718.11703
G1 X157.61 Y124.11 E719.08854
G0 F12000 X157.12 Y123.82
;TYPE:WALL-OUTER
G1 F2400 X159.63 Y123.15 E719.17486
G1 X167.33 Y151.87 E720.16142
G1 X167.39 Y151.87 E720.16348
G1 X167.39 Y181.47 E721.14555
G1 X164.79 Y181.47 E721.23187
G1 X164.79 Y152.44 E722.19500
G1 X157.12 Y123.82 E723.17803
G0 F12000 X157.40 Y124.06
G0 X158.55 Y124.41
;TYPE:FILL
G1 F2400 X159.16 Y125.03 E723.20691
G0 F12000 X159.37 Y125.80
G1 F2400 X158.34 Y124.77 E723.25514
G0 F12000 X158.55 Y125.54
G1 F2400 X159.58 Y126.57 E723.30337
G0 F12000 X159.78 Y127.34
G1 F2400 X158.76 Y126.31 E723.35163
G0 F12000 X158.96 Y127.08
G1 F2400 X159.99 Y128.11 E723.39986
G0 F12000 X160.20 Y128.88
G1 F2400 X159.17 Y127.85 E723.44809
G0 F12000 X159.38 Y128.62
G1 F2400 X160.40 Y129.65 E723.49633
G0 F12000 X160.61 Y130.42
G1 F2400 X159.58 Y129.40 E723.54454
G0 F12000 X159.79 Y130.17
G1 F2400 X160.82 Y131.19 E723.59275
G0 F12000 X161.02 Y131.96
G1 F2400 X160.00 Y130.94 E723.64093
G0 F12000 X160.20 Y131.71
G1 F2400 X161.23 Y132.74 E723.68917
G0 F12000 X161.44 Y133.51
G1 F2400 X160.41 Y132.48 E723.73740
G0 F12000 X160.62 Y133.25
G1 F2400 X161.64 Y134.28 E723.78563
G0 F12000 X161.85 Y135.05
G1 F2400 X160.82 Y134.02 E723.83386
G0 F12000 X161.03 Y134.79
G1 F2400 X162.06 Y135.82 E723.88210
G0 F12000 X162.26 Y136.59
G1 F2400 X161.24 Y135.56 E723.93033
G0 F12000 X161.44 Y136.33
G1 F2400 X162.47 Y137.36 E723.97856
G0 F12000 X162.68 Y138.13
G1 F2400 X161.65 Y137.10 E724.02680
G0 F12000 X161.85 Y137.87
G1 F2400 X162.88 Y138.90 E724.07503
G0 F12000 X163.09 Y139.67
G1 F2400 X162.06 Y138.65 E724.12324
G0 F12000 X162.27 Y139.42
G1 F2400 X163.30 Y140.44 E724.17147
G0 F12000 X163.50 Y141.21
G1 F2400 X162.47 Y140.19 E724.21971
G0 F12000 X162.68 Y140.96
G1 F2400 X163.71 Y141.99 E724.26794
G0 F12000 X163.91 Y142.76
G1 F2400 X162.89 Y141.73 E724.31617
G0 F12000 X163.09 Y142.50
G1 F2400 X164.12 Y143.53 E724.36443
G0 F12000 X164.33 Y144.30
G1 F2400 X163.30 Y143.27 E724.41266
G0 F12000 X163.51 Y144.04
G1 F2400 X164.53 Y145.07 E724.46089
G0 F12000 X164.74 Y145.84
G1 F2400 X163.71 Y144.81 E724.50913
G0 F12000 X163.92 Y145.58
G1 F2400 X164.95 Y146.61 E724.55738
G0 F12000 X165.15 Y147.38
G1 F2400 X164.13 Y146.35 E724.60562
G0 F12000 X164.33 Y147.12
G1 F2400 X165.36 Y148.15 E724.65387
G0 F12000 X165.57 Y148.92
G1 F2400 X164.54 Y147.89 E724.70215
G0 F12000 X164.75 Y148.66
G1 F2400 X165.77 Y149.69 E724.75039
G0 F12000 X165.98 Y150.46
G1 F2400 X164.95 Y149.44 E724.79862
G0 F12000 X165.16 Y150.21
G1 F2400 X166.19 Y151.24 E724.84685
G0 F12000 X166.39 Y152.01
G1 F2400 X165.37 Y150.98 E724.89511
G0 F12000 X165.57 Y151.75
G1 F2400 X166.45 Y152.63 E724.93640
G0 F12000 X166.45 Y153.19
G1 F2400 X165.73 Y152.47 E724.97049
G0 F12000 X165.73 Y153.03
G1 F2400 X166.45 Y153.76 E725.00457
G0 F12000 X166.45 Y154.32
G1 F2400 X165.73 Y153.59 E725.03866
G0 F12000 X165.73 Y154.16
G1 F2400 X166.45 Y154.89 E725.07275
G0 F12000 X166.45 Y155.45
G1 F2400 X165.73 Y154.72 E725.10683
G0 F12000 X165.73 Y155.29
G1 F2400 X166.45 Y156.01 E725.14092
G0 F12000 X166.45 Y156.58
G1 F2400 X165.73 Y155.85 E725.17501
G0 F12000 X165.73 Y156.42
G1 F2400 X166.45 Y157.14 E725.20909
G0 F12000 X166.45 Y157.71
G1 F2400 X165.73 Y156.98 E725.24318
G0 F12000 X165.73 Y157.54
G1 F2400 X166.45 Y158.27 E725.27727
G0 F12000 X166.45 Y158.84
G1 F2400 X165.73 Y158.11 E725.31133
G0 F12000 X165.73 Y158.67
G1 F2400 X166.45 Y159.40 E725.34542
G0 F12000 X166.45 Y159.96
G1 F2400 X165.73 Y159.24 E725.37951
G0 F12000 X165.73 Y159.80
G1 F2400 X166.45 Y160.53 E725.41359
G0 F12000 X166.45 Y161.09
G1 F2400 X165.73 Y160.37 E725.44768
G0 F12000 X165.73 Y160.93
G1 F2400 X166.45 Y161.66 E725.48177
G0 F12000 X166.45 Y162.22
G1 F2400 X165.73 Y161.49 E725.51585
G0 F12000 X165.73 Y162.06
G1 F2400 X166.45 Y162.78 E725.54994
G0 F12000 X166.45 Y163.35
G1 F2400 X165.73 Y162.62 E725.58403
G0 F12000 X165.73 Y163.19
G1 F2400 X166.45 Y163.91 E725.61811
G0 F12000 X166.45 Y164.48
G1 F2400 X165.73 Y163.75 E725.65220
G0 F12000 X165.73 Y164.32
G1 F2400 X166.45 Y165.04 E725.68626
G0 F12000 X166.45 Y165.61
G1 F2400 X165.73 Y164.88 E725.72035
G0 F12000 X165.73 Y165.44
G1 F2400 X166.45 Y166.17 E725.75444
G0 F12000 X166.45 Y166.74
G1 F2400 X165.73 Y166.01 E725.78852
G0 F12000 X165.73 Y166.57
G1 F2400 X166.45 Y167.30 E725.82261
G0 F12000 X166.45 Y167.86
G1 F2400 X165.73 Y167.14 E725.85670
G0 F12000 X165.73 Y167.70
G1 F2400 X166.45 Y168.43 E725.89079
G0 F12000 X166.45 Y168.99
G1 F2400 X165.73 Y168.26 E725.92487
G0 F12000 X165.73 Y168.83
G1 F2400 X166.45 Y169.56 E725.95896
G0 F12000 X166.45 Y170.12
G1 F2400 X165.73 Y169.39 E725.99305
G0 F12000 X165.73 Y169.96
G1 F2400 X166.45 Y170.69 E726.02713
G0 F12000 X166.45 Y171.25
G1 F2400 X165.73 Y170.52 E726.06120
G0 F12000 X165.73 Y171.09
G1 F2400 X166.45 Y171.81 E726.09528
G0 F12000 X166.45 Y172.38
G1 F2400 X165.73 Y171.65 E726.12937
G0 F12000 X165.73 Y172.22
G1 F2400 X166.45 Y172.94 E726.16346
G0 F12000 X166.45 Y173.51
G1 F2400 X165.73 Y172.78 E726.19754
G0 F12000 X165.73 Y173.34
G1 F2400 X166.45 Y174.07 E726.23163
G0 F12000 X166.45 Y174.63
G1 F2400 X165.73 Y173.91 E726.26572
G0 F12000 X165.73 Y174.47
G1 F2400 X166.45 Y175.20 E726.29980
G0 F12000 X166.45 Y175.76
G1 F2400 X165.73 Y175.04 E726.33389
G0 F12000 X165.73 Y175.60
G1 F2400 X166.45 Y176.33 E726.36798
G0 F12000 X166.45 Y176.89
G1 F2400 X165.73 Y176.16 E726.40207
G0 F12000 X165.73 Y176.73
G1 F2400 X166.45 Y177.46 E726.43613
G0 F12000 X166.45 Y178.02
G1 F2400 X165.73 Y177.29 E726.47022
G0 F12000 X165.73 Y177.86
G1 F2400 X166.45 Y178.59 E726.50430
G0 F12000 X166.45 Y179.15
G1 F2400 X165.73 Y178.42 E726.53839
G0 F12000 X165.73 Y178.99
G1 F2400 X166.45 Y179.71 E726.57248
G0 F12000 X166.45 Y180.28
G1 F2400 X165.73 Y179.55 E726.60656
G0 F12000 X165.73 Y180.12
G1 F2400 X166.15 Y180.53 E726.62622
;LAYER:5
G0 F12000 X166.59 Y180.68 Z1.30
;TYPE:WALL-INNER
G1 F2400 X165.59 Y180.68 E726.65960
G1 X165.59 Y152.34 E727.59974
G1 X158.10 Y124.39 E728.55978
G1 X159.07 Y124.13 E728.59317
G1 X166.59 Y152.21 E729.55768
G1 X166.59 Y180.68 E730.50216
G0 F12000 X166.99 Y181.07
G1 F2400 X165.19 Y181.07 E730.56201
G1 X165.19 Y152.39 E731.51366
G1 X157.61 Y124.11 E732.48518
G1 X159.35 Y123.64 E732.54501
G1 X166.99 Y152.16 E733.52449
G1 X166.99 Y181.07 E734.48394
G0 F12000 X167.39 Y181.47
;TYPE:WALL-OUTER
G1 F2400 X164.79 Y181.47 E734.57026
G1 X164.79 Y152.44 E735.53339
G1 X157.12 Y123.82 E736.51642
G1 X159.63 Y123.15 E736.60277
G1 X167.33 Y151.87 E737.58932
G1 X167.39 Y151.87 E737.59137
G1 X167.39 Y181.47 E738.57344
G0 F12000 X167.09 Y181.26
G0 X166.45 Y177.76
;TYPE:FILL
G1 F2400 X165.73 Y177.04 E738.60753
G0 F12000 X165.73 Y177.37
G1 F2400 X166.45 Y176.64 E738.64159
G0 F12000 X166.45 Y170.22
G1 F2400 X165.73 Y169.50 E738.67568
G0 F12000 X165.73 Y169.83
G1 F2400 X166.45 Y169.10 E738.70975
G0 F12000 X166.45 Y162.68
G1 F2400 X165.73 Y161.96 E738.74383
G0 F12000 X165.73 Y162.29
G1 F2400 X166.45 Y161.56 E738.77790
G0 F12000 X166.45 Y155.14
G1 F2400 X165.73 Y154.41 E738.81198
G0 F12000 X165.73 Y154.75
G1 F2400 X166.45 Y154.02 E738.84607
G0 F12000 X164.65 Y148.29
G1 F2400 X165.24 Y147.69 E738.87387
G0 F12000 X164.76 Y145.91
G1 F2400 X163.73 Y144.88 E738.92215
G0 F12000 X163.05 Y142.34
G1 F2400 X163.65 Y141.75 E738.94997
G0 F12000 X161.46 Y136.39
G1 F2400 X162.05 Y135.80 E738.97775
G0 F12000 X162.00 Y135.61
G1 F2400 X160.97 Y134.58 E739.02598
G0 F12000 X159.87 Y130.45
G1 F2400 X160.46 Y129.85 E739.05380
G0 F12000 X159.24 Y125.31
G1 F2400 X158.39 Y124.45 E739.09380
G0 F12000 X146.68 Y125.02
;TYPE:WALL-INNER
G1 F2400 X156.63 Y152.35 E740.05893
G1 X156.63 Y180.85 E741.00427
G1 X155.63 Y180.85 E741.03765
G1 X155.63 Y152.53 E741.97712
G1 X145.74 Y125.36 E742.93635
G1 X146.68 Y125.02 E742.96971
G0 F12000 X146.92 Y124.50
G1 F2400 X157.03 Y152.28 E743.95047
G1 X157.03 Y181.25 E744.91134
G1 X155.23 Y181.25 E744.97119
G1 X155.23 Y152.60 E745.92154
G1 X145.23 Y125.12 E746.89170
G1 X146.92 Y124.50 E746.95155
G0 F12000 X147.16 Y123.99
;TYPE:WALL-OUTER
G1 F2400 X157.37 Y152.04 E747.94188
G1 X157.43 Y152.04 E747.94391
G1 X157.43 Y181.64 E748.92598
G1 X154.83 Y181.64 E749.01231
G1 X154.83 Y152.67 E749.97358
G1 X144.72 Y124.88 E750.95462
G1 X147.16 Y123.99 E751.04095
G0 F12000 X146.95 Y124.29
G0 X147.51 Y127.72
;TYPE:FILL
G1 F2400 X146.95 Y128.28 E751.06748
G0 F12000 X146.84 Y127.99
G1 F2400 X148.06 Y129.21 E751.12451
G0 F12000 X149.53 Y133.24
G1 F2400 X148.96 Y133.81 E751.15107
G0 F12000 X151.54 Y138.77
G1 F2400 X150.97 Y139.34 E751.17765
G0 F12000 X151.16 Y139.85
G1 F2400 X152.38 Y141.06 E751.23470
G0 F12000 X153.55 Y144.30
G1 F2400 X152.99 Y144.87 E751.26126
G0 F12000 X155.56 Y149.83
G1 F2400 X155.00 Y150.39 E751.28779
G0 F12000 X155.47 Y151.70
G1 F2400 X156.49 Y152.72 E751.33553
G0 F12000 X156.49 Y156.44
G1 F2400 X155.77 Y157.17 E751.36959
G0 F12000 X155.76 Y159.54
G1 F2400 X156.49 Y160.26 E751.40368
G0 F12000 X156.49 Y163.98
G1 F2400 X155.77 Y164.71 E751.43775
G0 F12000 X155.77 Y167.08
G1 F2400 X156.49 Y167.80 E751.47181
G0 F12000 X156.49 Y171.52
G1 F2400 X155.77 Y172.25 E751.50585
G0 F12000 X155.77 Y174.62
G1 F2400 X156.49 Y175.34 E751.53994
G0 F12000 X156.49 Y179.06
G1 F2400 X155.77 Y179.79 E751.57395
;LAYER:6
G0 F12000 X155.63 Y180.85 Z1.50
;TYPE:WALL-INNER
G1 F2400 X155.63 Y152.53 E752.51342
G1 X145.74 Y125.36 E753.47265
G1 X146.68 Y125.02 E753.50602
G1 X156.63 Y152.35 E754.47114
G1 X156.63 Y180.85 E755.41649
G1 X155.63 Y180.85 E755.44986
G0 F12000 X155.23 Y181.25
G1 F2400 X155.23 Y152.60 E756.40022
G1 X145.23 Y125.12 E757.37036
G1 X146.92 Y124.50 E757.43020
G1 X157.03 Y152.28 E758.41094
G1 X157.03 Y181.25 E759.37181
G1 X155.23 Y181.25 E759.43166
G0 F12000 X154.83 Y181.64
;TYPE:WALL-OUTER
G1 F2400 X154.83 Y152.67 E760.39293
G1 X144.72 Y124.88 E761.37397
G1 X147.16 Y123.99 E761.46030
G1 X157.37 Y152.04 E762.45063
G1 X157.43 Y152.04 E762.45266
G1 X157.43 Y181.64 E763.43473
G1 X154.83 Y181.64 E763.52106
G0 F12000 X155.04 Y181.34
G0 X155.77 Y179.79
;TYPE:FILL
G1 F2400 X156.49 Y179.06 E763.55507
G0 F12000 X156.49 Y175.34
G1 F2400 X155.77 Y174.62 E763.58916
G0 F12000 X155.77 Y172.25
G1 F2400 X156.49 Y171.52 E763.62320
G0 F12000 X156.49 Y167.80
G1 F2400 X155.77 Y167.08 E763.65726
G0 F12000 X155.77 Y164.71
G1 F2400 X156.49 Y163.98 E763.69133
G0 F12000 X156.49 Y160.26
G1 F2400 X155.76 Y159.54 E763.72541
G0 F12000 X155.77 Y157.17
G1 F2400 X156.49 Y156.44 E763.75948
G0 F12000 X156.49 Y152.72
G1 F2400 X155.47 Y151.70 E763.80722
G0 F12000 X155.00 Y150.39
G1 F2400 X155.56 Y149.83 E763.83375
G0 F12000 X152.99 Y144.87
G1 F2400 X153.55 Y144.30 E763.86031
G0 F12000 X152.38 Y141.06
G1 F2400 X151.16 Y139.85 E763.91736
G0 F12000 X150.97 Y139.34
G1 F2400 X151.54 Y138.77 E763.94394
G0 F12000 X148.96 Y133.81
G1 F2400 X149.53 Y133.24 E763.97050
G0 F12000 X148.06 Y129.21
G1 F2400 X146.84 Y127.99 E764.02753
G0 F12000 X146.95 Y128.28
G1 F2400 X147.51 Y127.72 E764.05406
G0 F12000 X158.10 Y124.39
;TYPE:WALL-INNER
G1 F2400 X159.07 Y124.13 E764.08745
G1 X166.59 Y152.21 E765.05192
G1 X166.59 Y180.68 E765.99641
G1 X165.59 Y180.68 E766.02978
G1 X165.59 Y152.34 E766.96992
G1 X158.10 Y124.39 E767.92993
G0 F12000 X157.61 Y124.11
G1 F2400 X159.35 Y123.64 E767.98977
G1 X166.99 Y152.16 E768.96925
G1 X166.99 Y181.07 E769.92870
G1 X165.19 Y181.07 E769.98855
G1 X165.19 Y152.39 E770.94020
G1 X157.61 Y124.11 E771.91171
G0 F12000 X157.12 Y123.82
;TYPE:WALL-OUTER
G1 F2400 X159.63 Y123.15 E771.99806
G1 X167.33 Y151.87 E772.98464
G1 X167.39 Y151.87 E772.98670
G1 X167.39 Y181.47 E773.96877
G1 X164.79 Y181.47 E774.05510
G1 X164.79 Y152.44 E775.01823
G1 X157.12 Y123.82 E776.00128
G0 F12000 X158.39 Y124.46
;TYPE:FILL
G1 F2400 X159.24 Y125.31 E776.04119
G0 F12000 X160.46 Y129.85
G1 F2400 X159.87 Y130.45 E776.06896
G0 F12000 X160.97 Y134.58
G1 F2400 X162.00 Y135.61 E776.11720
G0 F12000 X162.05 Y135.80
G1 F2400 X161.46 Y136.39 E776.14502
G0 F12000 X163.65 Y141.75
G1 F2400 X163.05 Y142.34 E776.17284
G0 F12000 X163.73 Y144.88
G1 F2400 X164.76 Y145.91 E776.22110
G0 F12000 X165.24 Y147.69
G1 F2400 X164.65 Y148.29 E776.24890
G0 F12000 X166.45 Y154.02
G1 F2400 X165.73 Y154.75 E776.28299
G0 F12000 X165.73 Y154.41
G1 F2400 X166.45 Y155.14 E776.31707
G0 F12000 X166.45 Y161.56
G1 F2400 X165.73 Y162.29 E776.35114
G0 F12000 X165.73 Y161.96
G1 F2400 X166.45 Y162.68 E776.38522
G0 F12000 X166.45 Y169.10
G1 F2400 X165.73 Y169.83 E776.41929
G0 F12000 X165.73 Y169.50
G1 F2400 X166.45 Y170.22 E776.45337
G0 F12000 X166.45 Y176.64
G1 F2400 X165.73 Y177.37 E776.48744
G0 F12000 X165.73 Y177.04
G1 F2400 X166.45 Y177.76 E776.52152
;LAYER:7
G0 F12000 X166.59 Y180.68 Z1.70
;TYPE:WALL-INNER
G1 F2400 X165.59 Y180.68 E776.55490
G1 X165.59 Y152.34 E777.49504
G1 X158.10 Y124.39 E778.45508
G1 X159.07 Y124.13 E778.48847
G1 X166.59 Y152.21 E779.45298
G1 X166.59 Y180.68 E780.39746
G0 F12000 X166.99 Y181.07
G1 F2400 X165.19 Y181.07 E780.45731
G1 X165.19 Y152.39 E781.40896
G1 X157.61 Y124.11 E782.38048
G1 X159.35 Y123.64 E782.44031
G1 X166.99 Y152.16 E783.41979
G1 X166.99 Y181.07 E784.37924
G0 F12000 X167.39 Y181.47
;TYPE:WALL-OUTER
G1 F2400 X164.79 Y181.47 E784.46557
G1 X164.79 Y152.44 E785.42869
G1 X157.12 Y123.82 E786.41175
G1 X159.63 Y123.15 E786.49807
G1 X167.33 Y151.87 E787.48466
G1 X167.39 Y151.87 E787.48671
G1 X167.39 Y181.47 E788.46879
G0 F12000 X167.09 Y181.26
G0 X166.45 Y177.76
;TYPE:FILL
G1 F2400 X165.73 Y177.04 E788.50287
G0 F12000 X165.73 Y177.37
G1 F2400 X166.45 Y176.64 E788.53694
G0 F12000 X166.45 Y170.22
G1 F2400 X165.73 Y169.50 E788.57102
G0 F12000 X165.73 Y169.83
G1 F2400 X166.45 Y169.10 E788.60509
G0 F12000 X166.45 Y162.68
G1 F2400 X165.73 Y161.96 E788.63917
G0 F12000 X165.73 Y162.29
G1 F2400 X166.45 Y161.56 E788.67324
G0 F12000 X166.45 Y155.14
G1 F2400 X165.73 Y154.41 E788.70732
G0 F12000 X165.73 Y154.75
G1 F2400 X166.45 Y154.02 E788.74141
G0 F12000 X164.65 Y148.29
G1 F2400 X165.24 Y147.69 E788.76921
G0 F12000 X164.76 Y145.91
G1 F2400 X163.73 Y144.88 E788.81749
G0 F12000 X163.05 Y142.34
G1 F2400 X163.65 Y141.75 E788.84531
G0 F12000 X161.46 Y136.39
G1 F2400 X162.05 Y135.80 E788.87309
G0 F12000 X162.00 Y135.61
G1 F2400 X160.97 Y134.58 E788.92132
G0 F12000 X159.87 Y130.45
G1 F2400 X160.46 Y129.85 E788.94915
G0 F12000 X159.24 Y125.31
G1 F2400 X158.39 Y124.45 E788.98915
G0 F12000 X146.68 Y125.02
;TYPE:WALL-INNER
G1 F2400 X156.63 Y152.35 E789.95427
G1 X156.63 Y180.85 E790.89962
G1 X155.63 Y180.85 E790.93299
G1 X155.63 Y152.53 E791.87246
G1 X145.74 Y125.36 E792.83169
G1 X146.68 Y125.02 E792.86506
G0 F12000 X146.92 Y124.50
G1 F2400 X157.03 Y152.28 E793.84581
G1 X157.03 Y181.25 E794.80668
G1 X155.23 Y181.25 E794.86653
G1 X155.23 Y152.60 E795.81688
G1 X145.23 Y125.12 E796.78705
G1 X146.92 Y124.50 E796.84689
G0 F12000 X147.16 Y123.99
;TYPE:WALL-OUTER
G1 F2400 X157.37 Y152.04 E797.83723
G1 X157.43 Y152.04 E797.83925
G1 X157.43 Y181.64 E798.82132
G1 X154.83 Y181.64 E798.90765
G1 X154.83 Y152.67 E799.86892
G1 X144.72 Y124.88 E800.84997
G1 X147.16 Y123.99 E800.93629
G0 F12000 X146.95 Y124.29
G0 X147.51 Y127.72
;TYPE:FILL
G1 F2400 X146.95 Y128.28 E800.96282
G0 F12000 X146.84 Y127.99
G1 F2400 X148.06 Y129.21 E801.01985
G0 F12000 X149.53 Y133.24
G1 F2400 X148.96 Y133.81 E801.04641
G0 F12000 X151.54 Y138.77
G1 F2400 X150.97 Y139.34 E801.07299
G0 F12000 X151.16 Y139.85
G1 F2400 X152.38 Y141.06 E801.13004
G0 F12000 X153.55 Y144.30
G1 F2400 X152.99 Y144.87 E801.15660
G0 F12000 X155.56 Y149.83
G1 F2400 X155.00 Y150.39 E801.18313
G0 F12000 X155.47 Y151.70
G1 F2400 X156.49 Y152.72 E801.23087
G0 F12000 X156.49 Y156.44
G1 F2400 X155.77 Y157.17 E801.26494
G0 F12000 X155.76 Y159.54
G1 F2400 X156.49 Y160.26 E801.29902
G0 F12000 X156.49 Y163.98
G1 F2400 X155.77 Y164.71 E801.33309
G0 F12000 X155.77 Y167.08
G1 F2400 X156.49 Y167.80 E801.36715
G0 F12000 X156.49 Y171.52
G1 F2400 X155.77 Y172.25 E801.40119
G0 F12000 X155.77 Y174.62
G1 F2400 X156.49 Y175.34 E801.43528
G0 F12000 X156.49 Y179.06
G1 F2400 X155.77 Y179.79 E801.46929
;LAYER:8
G0 F12000 X155.63 Y180.85 Z1.90
;TYPE:WALL-INNER
G1 F2400 X155.63 Y152.53 E802.40877
G1 X145.74 Y125.36 E803.36799
G1 X146.68 Y125.02 E803.40136
G1 X156.63 Y152.35 E804.36648
G1 X156.63 Y180.85 E805.31183
G1 X155.63 Y180.85 E805.34520
G0 F12000 X155.23 Y181.25
G1 F2400 X155.23 Y152.60 E806.29556
G1 X145.23 Y125.12 E807.26573
G1 X146.92 Y124.50 E807.32558
G1 X157.03 Y152.28 E808.30634
G1 X157.03 Y181.25 E809.26721
G1 X155.23 Y181.25 E809.32706
G0 F12000 X154.83 Y181.64
;TYPE:WALL-OUTER
G1 F2400 X154.83 Y152.67 E810.28833
G1 X144.72 Y124.88 E811.26938
G1 X147.16 Y123.99 E811.35570
G1 X157.37 Y152.04 E812.34604
G1 X157.43 Y152.04 E812.34806
G1 X157.43 Y181.64 E813.33013
G1 X154.83 Y181.64 E813.41646
G0 F12000 X155.04 Y181.34
G0 X155.77 Y179.79
;TYPE:FILL
G1 F2400 X156.49 Y179.06 E813.45048
G0 F12000 X156.49 Y175.34
G1 F2400 X155.77 Y174.62 E813.48456
G0 F12000 X155.77 Y172.25
G1 F2400 X156.49 Y171.52 E813.51860
G0 F12000 X156.49 Y167.80
G1 F2400 X155.77 Y167.08 E813.55267
G0 F12000 X155.77 Y164.71
G1 F2400 X156.49 Y163.98 E813.58673
G0 F12000 X156.49 Y160.26
G1 F2400 X155.76 Y159.54 E813.62082
G0 F12000 X155.77 Y157.17
G1 F2400 X156.49 Y156.44 E813.65488
G0 F12000 X156.49 Y152.72
G1 F2400 X155.47 Y151.70 E813.70262
G0 F12000 X155.00 Y150.39
G1 F2400 X155.56 Y149.83 E813.72915
G0 F12000 X152.99 Y144.87
G1 F2400 X153.55 Y144.30 E813.75571
G0 F12000 X152.38 Y141.06
G1 F2400 X151.16 Y139.85 E813.81277
G0 F12000 X150.97 Y139.34
G1 F2400 X151.54 Y138.77 E813.83934
G0 F12000 X148.96 Y133.81
G1 F2400 X149.53 Y133.24 E813.86590
G0 F12000 X148.06 Y129.21
G1 F2400 X146.84 Y127.99 E813.92293
G0 F12000 X146.95 Y128.28
G1 F2400 X147.51 Y127.72 E813.94946
G0 F12000 X158.10 Y124.39
;TYPE:WALL-INNER
G1 F2400 X159.07 Y124.13 E813.98286
G1 X166.59 Y152.21 E814.94736
G1 X166.59 Y180.68 E815.89184
G1 X165.59 Y180.68 E815.92522
G1 X165.59 Y152.34 E816.86536
G1 X158.10 Y124.39 E817.82540
G0 F12000 X157.61 Y124.11
G1 F2400 X159.35 Y123.64 E817.88524
G1 X166.99 Y152.16 E818.86472
G1 X166.99 Y181.07 E819.82416
G1 X165.19 Y181.07 E819.88402
G1 X165.19 Y152.39 E820.83566
