;-- START GCODE --
;Sliced for Type A Machines Series 1
;Sliced at: Mon 28-11-2016 22:47:00
;Basic settings: Layer height: 0.2 Walls: 1.2 Fill: 15
;Print Speed: 40 Support: 0
;Retraction Speed: 40 Retraction Distance: 1.2
;Print time: #P_TIME#
;Filament used: #F_AMNT#m #F_WGHT#g
;Filament cost: #F_COST#
M106 S255	 ;start with the fan on
G21        ;metric values
G90        ;absolute positioning
M106 S255    ;start with the fan on
G28     ;move to endstops
G29		;allows for auto-levelling
G1 X150 Y5  Z15.0 F12000 ;center and move the platform down 15mm
M109 S220 ;Heat To temp
G92 E0                  ;zero the extruded length
G1 F200 E30              ;extrude 30mm of feed stock
G92 E0                  ;zero the extruded length again
G1 X175 Y25  Z0 F12000 ;remove bugger
G1 X220 F12000 ;remove bugger
G1 X150 Y150  Z15 F12000 ;recenter and begin
G1 F12000

;Layer count: 211
;LAYER:0
M106 S255
G0 F12000 X55.17 Y100.67 Z0.30
;TYPE:SKIRT
G1 F2400 X58.86 Y99.03 E0.20135
G1 X62.73 Y98.31 E0.39808
G1 X67.31 Y98.06 E0.62656
G1 X69.69 Y98.86 E0.75211
G1 X71.56 Y98.46 E0.84712
G1 X73.04 Y99.30 E0.93220
G1 X75.05 Y99.37 E1.03258
G1 X77.01 Y101.30 E1.16974
G1 X77.68 Y101.52 E1.20483
G1 X77.96 Y102.03 E1.23361
G1 X79.02 Y102.44 E1.29046
G1 X79.66 Y103.04 E1.33437
G1 X80.68 Y103.62 E1.39284
G1 X81.78 Y105.02 E1.48156
G1 X82.77 Y105.94 E1.54880
G1 X85.58 Y108.72 E1.74604
G1 X86.59 Y111.16 E1.87793
G1 X87.25 Y112.34 E1.94542
G1 X88.85 Y116.19 E2.15329
G1 X89.21 Y120.49 E2.36860
G1 X89.00 Y123.84 E2.53631
G1 X88.93 Y124.19 E2.55419
G1 X88.85 Y124.95 E2.59230
G1 X88.15 Y128.88 E2.79112
G1 X85.80 Y133.27 E3.03986
G1 X83.10 Y136.41 E3.24626
G1 X79.67 Y139.15 E3.46498
G1 X77.88 Y139.86 E3.56133
G1 X77.16 Y140.25 E3.60236
G1 X75.77 Y140.75 E3.67594
G1 X73.26 Y142.16 E3.81951
G1 X70.84 Y143.28 E3.95282
G1 X67.11 Y144.32 E4.14585
G1 X63.81 Y144.62 E4.31129
G1 X59.56 Y144.53 E4.52298
G1 X55.83 Y143.22 E4.72036
G1 X52.85 Y142.03 E4.88015
G1 X42.32 Y133.66 E5.55164
G1 X43.41 Y126.62 E5.90704
G1 X43.18 Y125.51 E5.96356
G1 X42.81 Y121.56 E6.16155
G1 X42.78 Y119.66 E6.25620
G1 X43.15 Y116.07 E6.43620
G1 X44.14 Y113.26 E6.58481
G1 X45.55 Y110.13 E6.75642
G1 X49.88 Y104.33 E7.11721
G1 X50.54 Y104.03 E7.15374
G1 X50.97 Y103.40 E7.19172
G1 X54.11 Y101.43 E7.37653
G1 X55.17 Y100.67 E7.44166
G0 F12000 X55.37 Y101.01
G1 F2400 X58.98 Y99.41 E7.63854
G1 X62.78 Y98.70 E7.83161
G1 X67.25 Y98.46 E8.05504
G1 X69.67 Y99.27 E8.18222
G1 X71.49 Y98.88 E8.27509
G1 X72.93 Y99.70 E8.35739
G1 X74.88 Y99.76 E8.45498
G1 X76.80 Y101.65 E8.58900
G1 X77.40 Y101.85 E8.62094
G1 X77.68 Y102.35 E8.64921
G1 X78.80 Y102.79 E8.70937
G1 X79.42 Y103.37 E8.75166
G1 X80.42 Y103.93 E8.80874
G1 X81.49 Y105.29 E8.89522
G1 X82.49 Y106.23 E8.96356
G1 X85.24 Y108.94 E9.15650
G1 X86.23 Y111.33 E9.28536
G1 X86.89 Y112.51 E9.35301
G1 X88.45 Y116.28 E9.55661
G1 X88.81 Y120.49 E9.76731
G1 X88.61 Y123.79 E9.93202
G1 X88.53 Y124.13 E9.94953
G1 X88.45 Y124.90 E9.98800
G1 X87.77 Y128.74 E10.18292
G1 X85.47 Y133.04 E10.42628
G1 X82.82 Y136.12 E10.62862
G1 X79.47 Y138.79 E10.84251
G1 X77.71 Y139.50 E10.93716
G1 X76.99 Y139.89 E10.97774
G1 X75.60 Y140.38 E11.05148
G1 X73.08 Y141.80 E11.19597
G1 X70.70 Y142.91 E11.32689
G1 X67.04 Y143.92 E11.51646
G1 X63.79 Y144.22 E11.67899
G1 X59.64 Y144.13 E11.88639
G1 X55.97 Y142.84 E12.08017
G1 X53.06 Y141.68 E12.23664
G1 X42.75 Y133.49 E12.89357
G1 X43.81 Y126.61 E13.24100
G1 X43.58 Y125.45 E13.29996
G1 X43.21 Y121.53 E13.49610
G1 X43.19 Y119.68 E13.58875
G1 X43.54 Y116.16 E13.76529
G1 X44.51 Y113.41 E13.91057
G1 X45.90 Y110.33 E14.07924
G1 X50.13 Y104.65 E14.43272
G1 X50.81 Y104.34 E14.46974
G1 X51.26 Y103.69 E14.50905
G1 X54.33 Y101.77 E14.69021
G1 X55.37 Y101.01 E14.75412
G0 F12000 X55.57 Y101.36
G1 F2400 X59.10 Y99.80 E14.94653
G1 X62.83 Y99.10 E15.13600
G1 X67.20 Y98.87 E15.35429
G1 X69.65 Y99.68 E15.48315
G1 X71.43 Y99.31 E15.57388
G1 X72.82 Y100.09 E15.65354
G1 X74.71 Y100.16 E15.74819
G1 X76.58 Y102.00 E15.87904
G1 X77.13 Y102.18 E15.90781
G1 X77.40 Y102.67 E15.93546
G1 X78.58 Y103.13 E15.99905
G1 X79.18 Y103.69 E16.04010
G1 X80.15 Y104.24 E16.09542
G1 X81.19 Y105.56 E16.17945
G1 X82.21 Y106.52 E16.24909
G1 X84.90 Y109.17 E16.43769
G1 X85.87 Y111.50 E16.56356
G1 X86.53 Y112.69 E16.63130
G1 X88.06 Y116.38 E16.83069
G1 X88.41 Y120.50 E17.03684
G1 X88.21 Y123.73 E17.19849
G1 X88.14 Y124.06 E17.21545
G1 X88.06 Y124.84 E17.25447
G1 X87.38 Y128.61 E17.44549
G1 X85.14 Y132.82 E17.68353
G1 X82.54 Y135.83 E17.88177
G1 X79.27 Y138.45 E18.09090
G1 X77.54 Y139.13 E18.18369
G1 X76.83 Y139.52 E18.22394
G1 X75.43 Y140.02 E18.29797
G1 X72.89 Y141.45 E18.44326
G1 X70.56 Y142.53 E18.57170
G1 X66.96 Y143.53 E18.75791
G1 X63.78 Y143.82 E18.91749
G1 X59.71 Y143.73 E19.12054
G1 X56.11 Y142.47 E19.31077
G1 X53.26 Y141.33 E19.46386
G1 X43.18 Y133.32 E20.10623
G1 X44.22 Y126.60 E20.44563
G1 X43.97 Y125.39 E20.50714
G1 X43.61 Y121.51 E20.70138
G1 X43.59 Y119.69 E20.79213
G1 X43.93 Y116.25 E20.96511
G1 X44.88 Y113.56 E21.10717
G1 X46.25 Y110.53 E21.27283
G1 X50.40 Y104.97 E21.61904
G1 X51.08 Y104.66 E21.65639
G1 X51.54 Y103.99 E21.69710
G1 X54.56 Y102.09 E21.87518
G1 X55.57 Y101.36 E21.93731
G0 F12000 X55.77 Y101.71
G1 F2400 X59.22 Y100.18 E22.12532
G1 X62.88 Y99.50 E22.31109
G1 X67.14 Y99.27 E22.52433
G1 X69.62 Y100.10 E22.65477
G1 X71.36 Y99.73 E22.74342
G1 X72.71 Y100.49 E22.82056
G1 X74.54 Y100.55 E22.91216
G1 X76.36 Y102.35 E23.03979
G1 X76.85 Y102.51 E23.06546
G1 X77.11 Y102.98 E23.09230
G1 X77.13 Y102.99 E23.09304
G1 X78.36 Y103.48 E23.15943
G1 X78.94 Y104.02 E23.19904
G1 X79.88 Y104.55 E23.25281
G1 X80.89 Y105.83 E23.33445
G1 X81.93 Y106.80 E23.40533
G1 X84.56 Y109.40 E23.58966
G1 X85.51 Y111.68 E23.71285
G1 X86.17 Y112.86 E23.78041
G1 X87.67 Y116.47 E23.97547
G1 X88.01 Y120.50 E24.17706
G1 X87.81 Y123.68 E24.33576
G1 X87.74 Y124.01 E24.35267
G1 X87.66 Y124.79 E24.39174
G1 X87.00 Y128.48 E24.57881
G1 X84.80 Y132.59 E24.81147
G1 X82.26 Y135.54 E25.00568
G1 X79.06 Y138.10 E25.20995
G1 X77.37 Y138.77 E25.30104
G1 X76.67 Y139.15 E25.34084
G1 X75.26 Y139.65 E25.41511
G1 X72.71 Y141.09 E25.56126
G1 X70.42 Y142.15 E25.68730
G1 X66.89 Y143.13 E25.87004
G1 X63.77 Y143.42 E26.02666
G1 X59.78 Y143.33 E26.22547
G1 X56.25 Y142.09 E26.41212
G1 X53.46 Y140.98 E26.56183
G1 X43.61 Y133.15 E27.18968
G1 X44.63 Y126.59 E27.52100
G1 X44.37 Y125.33 E27.58505
G1 X44.01 Y121.49 E27.77738
G1 X43.99 Y119.71 E27.86619
G1 X44.32 Y116.33 E28.03566
G1 X45.25 Y113.71 E28.17448
G1 X46.59 Y110.74 E28.33708
G1 X50.65 Y105.29 E28.67601
G1 X51.34 Y104.98 E28.71379
G1 X51.82 Y104.28 E28.75594
G1 X54.78 Y102.43 E28.92986
G1 X55.77 Y101.71 E28.99123
G0 F12000 X55.97 Y102.06
G1 F2400 X59.34 Y100.56 E29.17480
G1 X62.92 Y99.90 E29.35696
G1 X67.09 Y99.67 E29.56506
G1 X69.60 Y100.51 E29.69719
G1 X71.30 Y100.15 E29.78369
G1 X72.60 Y100.89 E29.85808
G1 X74.38 Y100.94 E29.94688
G1 X76.15 Y102.70 E30.07145
G1 X76.58 Y102.84 E30.09385
G1 X76.82 Y103.27 E30.11853
G1 X76.96 Y103.35 E30.12666
G1 X78.15 Y103.82 E30.19036
G1 X78.70 Y104.34 E30.22835
G1 X79.62 Y104.86 E30.28074
G1 X80.60 Y106.11 E30.36018
G1 X81.66 Y107.09 E30.43212
G1 X84.22 Y109.63 E30.61215
G1 X85.15 Y111.86 E30.73272
G1 X85.81 Y113.04 E30.80001
G1 X87.27 Y116.57 E30.99082
G1 X87.61 Y120.51 E31.18785
G1 X87.42 Y123.62 E31.34351
G1 X87.34 Y123.94 E31.36001
G1 X87.27 Y124.73 E31.39948
G1 X86.62 Y128.34 E31.58269
G1 X84.47 Y132.36 E31.80995
G1 X81.98 Y135.25 E32.00012
G1 X78.86 Y137.75 E32.19957
G1 X77.20 Y138.41 E32.28879
G1 X76.50 Y138.79 E32.32824
G1 X75.10 Y139.28 E32.40251
G1 X72.53 Y140.73 E32.54975
G1 X70.28 Y141.78 E32.67341
G1 X66.82 Y142.74 E32.85274
G1 X63.75 Y143.02 E33.00640
G1 X59.85 Y142.93 E33.20087
G1 X56.39 Y141.72 E33.38390
G1 X53.66 Y140.63 E33.53033
G1 X44.04 Y132.98 E34.14368
G1 X45.03 Y126.58 E34.46698
G1 X44.77 Y125.27 E34.53352
G1 X44.41 Y121.47 E34.72395
G1 X44.39 Y119.73 E34.81082
G1 X44.72 Y116.42 E34.97683
G1 X45.62 Y113.86 E35.11238
G1 X46.94 Y110.94 E35.27196
G1 X50.91 Y105.61 E35.60360
G1 X51.61 Y105.30 E35.64177
G1 X52.10 Y104.58 E35.68528
G1 X55.00 Y102.76 E35.85584
G1 X55.97 Y102.06 E35.91571
G0 F12000 X56.17 Y102.41
G1 F2400 X59.45 Y100.95 E36.09479
G1 X62.97 Y100.30 E36.27330
G1 X67.04 Y100.08 E36.47635
G1 X69.58 Y100.93 E36.61010
G1 X71.23 Y100.58 E36.69446
G1 X72.48 Y101.28 E36.76622
G1 X74.20 Y101.34 E36.85208
G1 X75.94 Y103.05 E36.97340
G1 X76.30 Y103.17 E36.99276
G1 X76.52 Y103.57 E37.01531
G1 X76.78 Y103.71 E37.03030
G1 X77.93 Y104.17 E37.09176
G1 X78.47 Y104.67 E37.12837
G1 X79.35 Y105.17 E37.17910
G1 X80.31 Y106.38 E37.25613
G1 X81.38 Y107.38 E37.32938
G1 X83.89 Y109.86 E37.50506
G1 X84.79 Y112.03 E37.62257
G1 X85.45 Y113.21 E37.69002
G1 X86.88 Y116.67 E37.87662
G1 X87.21 Y120.51 E38.06909
G1 X87.02 Y123.56 E38.22175
G1 X86.95 Y123.88 E38.23764
G1 X86.87 Y124.67 E38.27766
G1 X86.24 Y128.21 E38.45697
G1 X84.14 Y132.13 E38.67890
G1 X81.70 Y134.96 E38.86497
G1 X78.66 Y137.40 E39.05962
G1 X77.03 Y138.04 E39.14700
G1 X76.34 Y138.42 E39.18618
G1 X74.94 Y138.92 E39.26043
G1 X72.35 Y140.38 E39.40877
G1 X70.14 Y141.40 E39.52997
G1 X66.75 Y142.34 E39.70587
G1 X63.74 Y142.62 E39.85663
G1 X59.93 Y142.53 E40.04681
G1 X56.53 Y141.34 E40.22626
G1 X53.87 Y140.28 E40.36930
G1 X44.47 Y132.81 E40.96810
G1 X45.44 Y126.57 E41.28353
G1 X45.16 Y125.21 E41.35247
G1 X44.81 Y121.45 E41.54099
G1 X44.79 Y119.75 E41.62596
G1 X45.11 Y116.51 E41.78841
G1 X45.99 Y114.01 E41.92067
G1 X47.29 Y111.15 E42.07728
G1 X51.17 Y105.94 E42.40167
G1 X51.88 Y105.61 E42.44023
G1 X52.39 Y104.87 E42.48513
G1 X55.23 Y103.09 E42.65235
G1 X56.17 Y102.41 E42.71069
G0 F12000 X56.38 Y102.76
G1 F2400 X59.57 Y101.33 E42.88535
G1 X63.02 Y100.69 E43.06021
G1 X66.98 Y100.48 E43.25816
G1 X69.56 Y101.34 E43.39349
G1 X71.17 Y101.00 E43.47575
G1 X72.37 Y101.68 E43.54483
G1 X74.04 Y101.73 E43.62785
G1 X75.72 Y103.40 E43.74606
G1 X76.03 Y103.50 E43.76220
G1 X76.23 Y103.86 E43.78261
G1 X76.61 Y104.08 E43.80469
G1 X77.71 Y104.51 E43.86373
G1 X78.23 Y104.99 E43.89899
G1 X79.09 Y105.48 E43.94805
G1 X80.01 Y106.65 E44.02245
G1 X81.10 Y107.67 E44.09714
G1 X83.55 Y110.08 E44.26856
G1 X84.43 Y112.20 E44.38298
G1 X85.09 Y113.39 E44.45065
G1 X86.49 Y116.76 E44.63292
G1 X86.81 Y120.52 E44.82084
G1 X86.62 Y123.51 E44.97050
G1 X86.55 Y123.82 E44.98618
G1 X86.47 Y124.62 E45.02645
G1 X85.85 Y128.08 E45.20181
G1 X83.81 Y131.91 E45.41836
G1 X81.42 Y134.67 E45.60036
G1 X78.45 Y137.05 E45.79023
G1 X76.86 Y137.68 E45.87601
G1 X76.18 Y138.05 E45.91456
G1 X74.77 Y138.55 E45.98921
G1 X72.17 Y140.02 E46.13824
G1 X70.00 Y141.02 E46.25706
G1 X66.67 Y141.95 E46.42954
G1 X63.72 Y142.22 E46.57734
G1 X60.00 Y142.13 E46.76318
G1 X56.67 Y140.97 E46.93908
G1 X54.07 Y139.93 E47.07874
G1 X44.90 Y132.65 E47.66302
G1 X45.84 Y126.56 E47.97036
G1 X45.56 Y125.15 E48.04185
G1 X45.21 Y121.43 E48.22852
G1 X45.19 Y119.77 E48.31149
G1 X45.50 Y116.60 E48.47043
G1 X46.37 Y114.16 E48.59947
G1 X47.63 Y111.35 E48.75302
G1 X51.43 Y106.26 E49.07011
G1 X52.14 Y105.93 E49.10904
G1 X52.67 Y105.17 E49.15539
G1 X55.45 Y103.42 E49.31922
G1 X56.38 Y102.76 E49.37609
G0 F12000 X56.58 Y103.10
G1 F2400 X59.69 Y101.72 E49.54628
G1 X63.07 Y101.09 E49.71748
G1 X66.93 Y100.88 E49.91034
G1 X69.53 Y101.75 E50.04729
G1 X71.10 Y101.42 E50.12746
G1 X72.26 Y102.08 E50.19395
G1 X73.87 Y102.13 E50.27396
G1 X75.51 Y103.75 E50.38897
G1 X75.75 Y103.83 E50.40197
G1 X75.93 Y104.15 E50.42022
G1 X76.44 Y104.44 E50.44935
G1 X77.50 Y104.86 E50.50602
G1 X77.99 Y105.32 E50.53980
G1 X78.82 Y105.79 E50.58736
G1 X79.72 Y106.92 E50.65956
G1 X80.83 Y107.96 E50.73532
G1 X83.21 Y110.31 E50.90243
G1 X84.07 Y112.38 E51.01425
G1 X84.73 Y113.56 E51.08164
G1 X86.09 Y116.86 E51.25965
G1 X86.41 Y120.52 E51.44301
G1 X86.22 Y123.45 E51.58963
G1 X86.16 Y123.75 E51.60470
G1 X86.08 Y124.56 E51.64557
G1 X85.47 Y127.95 E51.81702
G1 X83.48 Y131.68 E52.02819
G1 X81.15 Y134.38 E52.20619
G1 X78.25 Y136.70 E52.39123
G1 X76.69 Y137.32 E52.47490
G1 X76.01 Y137.69 E52.51339
G1 X74.60 Y138.19 E52.58803
G1 X71.98 Y139.66 E52.73816
G1 X69.87 Y140.65 E52.85453
G1 X66.60 Y141.55 E53.02360
G1 X63.71 Y141.82 E53.16850
G1 X60.07 Y141.74 E53.35004
G1 X56.81 Y140.59 E53.52236
G1 X54.27 Y139.58 E53.65869
G1 X45.33 Y132.48 E54.22837
G1 X46.25 Y126.55 E54.52768
G1 X45.95 Y125.09 E54.60171
G1 X45.61 Y121.41 E54.78648
G1 X45.59 Y119.78 E54.86756
G1 X45.90 Y116.68 E55.02294
G1 X46.74 Y114.31 E55.14874
G1 X47.98 Y111.56 E55.29928
G1 X51.69 Y106.58 E55.60912
G1 X52.41 Y106.25 E55.64844
G1 X52.95 Y105.46 E55.69618
G1 X55.67 Y103.76 E55.85638
G1 X56.58 Y103.10 E55.91201
G0 F12000 X56.78 Y103.45
G1 F2400 X59.81 Y102.10 E56.07777
G1 X63.12 Y101.49 E56.24532
G1 X66.87 Y101.29 E56.43309
G1 X69.51 Y102.17 E56.57173
G1 X71.04 Y101.84 E56.64966
G1 X72.15 Y102.47 E56.71351
G1 X73.70 Y102.52 E56.79063
G1 X75.29 Y104.10 E56.90246
G1 X75.48 Y104.16 E56.91231
G1 X75.63 Y104.43 E56.92763
G1 X75.65 Y104.45 E56.92921
G1 X76.27 Y104.80 E56.96454
G1 X77.28 Y105.20 E57.01879
G1 X77.75 Y105.64 E57.05112
G1 X78.56 Y106.09 E57.09714
G1 X79.42 Y107.20 E57.16700
G1 X80.55 Y108.25 E57.24399
G1 X82.87 Y110.54 E57.40676
G1 X83.71 Y112.56 E57.51561
G1 X83.72 Y112.57 E57.51637
G1 X84.37 Y113.73 E57.58306
G1 X85.70 Y116.95 E57.75687
G1 X86.01 Y120.53 E57.93567
G1 X85.83 Y123.40 E58.07929
G1 X85.76 Y123.69 E58.09420
G1 X85.68 Y124.51 E58.13522
G1 X85.09 Y127.81 E58.30278
G1 X83.14 Y131.45 E58.50857
G1 X80.87 Y134.09 E58.68250
G1 X78.05 Y136.35 E58.86267
G1 X76.52 Y136.96 E58.94475
G1 X75.85 Y137.32 E58.98266
G1 X74.42 Y137.83 E59.05831
G1 X74.41 Y137.84 E59.05891
G1 X71.80 Y139.31 E59.20860
G1 X69.73 Y140.27 E59.32255
G1 X66.53 Y141.16 E59.48820
G1 X63.70 Y141.42 E59.63014
G1 X60.14 Y141.34 E59.80734
G1 X56.95 Y140.22 E59.97606
G1 X54.48 Y139.23 E60.10907
G1 X45.77 Y132.31 E60.66423
G1 X46.66 Y126.54 E60.95556
G1 X46.35 Y125.04 E61.03204
G1 X46.01 Y121.39 E61.21490
G1 X45.99 Y119.80 E61.29403
G1 X46.29 Y116.77 E61.44595
G1 X47.11 Y114.46 E61.56845
G1 X48.33 Y111.76 E61.71601
G1 X51.95 Y106.90 E62.01855
G1 X52.68 Y106.57 E62.05831
G1 X53.23 Y105.76 E62.10738
G1 X55.90 Y104.09 E62.26455
G1 X56.78 Y103.45 E62.31835
G0 F12000 X56.98 Y103.80
G1 F2400 X59.93 Y102.49 E62.47968
G1 X63.16 Y101.89 E62.64358
G1 X66.82 Y101.69 E62.82624
G1 X69.48 Y102.58 E62.96651
G1 X70.97 Y102.27 E63.04234
G1 X72.04 Y102.87 E63.10345
G1 X73.53 Y102.92 E63.17777
G1 X75.08 Y104.45 E63.28643
G1 X75.20 Y104.49 E63.29317
G1 X75.31 Y104.67 E63.30360
G1 X75.41 Y104.78 E63.31083
G1 X76.09 Y105.16 E63.34997
G1 X77.06 Y105.54 E63.40193
G1 X77.52 Y105.97 E63.43289
G1 X78.29 Y106.41 E63.47726
G1 X79.12 Y107.47 E63.54459
G1 X80.27 Y108.54 E63.62292
G1 X82.53 Y110.77 E63.78142
G1 X83.35 Y112.74 E63.88806
G1 X83.37 Y112.77 E63.88951
G1 X84.01 Y113.91 E63.95487
G1 X85.31 Y117.05 E64.12440
G1 X85.61 Y120.53 E64.29860
G1 X85.43 Y123.34 E64.43921
G1 X85.37 Y123.63 E64.45392
G1 X85.28 Y124.45 E64.49514
G1 X84.71 Y127.68 E64.65879
G1 X82.81 Y131.22 E64.85922
G1 X80.59 Y133.80 E65.02912
G1 X77.84 Y136.00 E65.20450
G1 X76.35 Y136.59 E65.28464
G1 X75.69 Y136.95 E65.32232
G1 X74.21 Y137.48 E65.40046
G1 X74.18 Y137.51 E65.40276
G1 X71.62 Y138.95 E65.54937
G1 X69.59 Y139.89 E65.66089
G1 X66.46 Y140.76 E65.82312
G1 X63.68 Y141.02 E65.96216
G1 X60.22 Y140.94 E66.13502
G1 X57.09 Y139.84 E66.30019
G1 X54.68 Y138.88 E66.42982
G1 X46.20 Y132.14 E66.97042
G1 X47.06 Y126.53 E67.25373
G1 X46.75 Y124.98 E67.33276
G1 X46.41 Y121.37 E67.51372
G1 X46.39 Y119.82 E67.59090
G1 X46.68 Y116.86 E67.73931
G1 X47.48 Y114.61 E67.85856
G1 X48.67 Y111.97 E68.00309
G1 X52.21 Y107.22 E68.29836
G1 X52.94 Y106.89 E68.33850
G1 X53.52 Y106.05 E68.38897
G1 X56.12 Y104.42 E68.54242
G1 X56.98 Y103.80 E68.59507
G0 F12000 X57.18 Y104.15
G1 F2400 X60.05 Y102.87 E68.75190
G1 X63.21 Y102.29 E68.91220
G1 X66.76 Y102.09 E69.08977
G1 X69.46 Y103.00 E69.23164
G1 X70.91 Y102.69 E69.30538
G1 X71.93 Y103.27 E69.36396
G1 X73.36 Y103.31 E69.43524
G1 X74.86 Y104.80 E69.54073
G1 X74.93 Y104.82 E69.54431
G1 X74.98 Y104.92 E69.54989
G1 X75.16 Y105.10 E69.56245
G1 X75.92 Y105.53 E69.60595
G1 X76.84 Y105.89 E69.65538
G1 X77.28 Y106.29 E69.68489
G1 X78.02 Y106.71 E69.72772
G1 X78.83 Y107.74 E69.79263
G1 X80.00 Y108.83 E69.87223
G1 X82.19 Y111.00 E70.02644
G1 X82.99 Y112.91 E70.13003
G1 X83.02 Y112.97 E70.13298
G1 X83.65 Y114.08 E70.19700
G1 X84.91 Y117.14 E70.36221
G1 X85.20 Y120.53 E70.53191
G1 X85.03 Y123.29 E70.66952
G1 X84.97 Y123.56 E70.68326
G1 X84.89 Y124.40 E70.72539
G1 X84.32 Y127.55 E70.88514
G1 X82.48 Y131.00 E71.08024
G1 X80.31 Y133.51 E71.24600
G1 X77.64 Y135.65 E71.41659
G1 X76.18 Y136.23 E71.49522
G1 X75.52 Y136.59 E71.53224
G1 X74.00 Y137.13 E71.61292
G1 X73.94 Y137.18 E71.61698
G1 X71.43 Y138.60 E71.76051
G1 X69.45 Y139.51 E71.86959
G1 X66.38 Y140.37 E72.02841
G1 X63.67 Y140.62 E72.16449
G1 X60.29 Y140.54 E72.33306
G1 X57.23 Y139.47 E72.49465
G1 X54.88 Y138.53 E72.62088
G1 X46.63 Y131.97 E73.14703
G1 X47.47 Y126.52 E73.42237
G1 X47.14 Y124.92 E73.50378
G1 X46.81 Y121.34 E73.68293
G1 X46.79 Y119.84 E73.75817
G1 X47.08 Y116.95 E73.90303
G1 X47.85 Y114.75 E74.01905
G1 X49.02 Y112.17 E74.16054
G1 X52.47 Y107.54 E74.44853
G1 X53.21 Y107.20 E74.48912
G1 X53.80 Y106.35 E74.54092
G1 X56.34 Y104.76 E74.69058
G1 X57.18 Y104.15 E74.74217
G0 F12000 X57.38 Y104.50
G1 F2400 X60.17 Y103.26 E74.89460
G1 X63.26 Y102.68 E75.05119
G1 X66.71 Y102.50 E75.22366
G1 X69.44 Y103.41 E75.36720
G1 X70.84 Y103.11 E75.43881
G1 X71.82 Y103.66 E75.49468
G1 X73.19 Y103.71 E75.56312
G1 X74.65 Y105.15 E75.66546
G1 X74.66 Y105.15 E75.66582
G1 X74.66 Y105.16 E75.66641
G1 X74.92 Y105.42 E75.68464
G1 X75.75 Y105.89 E75.73194
G1 X76.63 Y106.23 E75.77918
G1 X77.04 Y106.62 E75.80731
G1 X77.76 Y107.02 E75.84851
G1 X78.53 Y108.01 E75.91115
G1 X79.72 Y109.11 E75.99191
G1 X81.86 Y111.22 E76.14177
G1 X82.63 Y113.09 E76.24252
G1 X82.67 Y113.16 E76.24679
G1 X83.29 Y114.26 E76.30945
G1 X84.52 Y117.24 E76.47043
G1 X84.80 Y120.54 E76.63552
G1 X84.64 Y123.23 E76.77014
G1 X84.58 Y123.50 E76.78378
G1 X84.49 Y124.34 E76.82606
G1 X83.94 Y127.42 E76.98185
G1 X82.15 Y130.77 E77.17157
G1 X80.03 Y133.22 E77.33330
G1 X77.44 Y135.30 E77.49910
G1 X76.01 Y135.87 E77.57563
G1 X75.36 Y136.22 E77.61253
G1 X73.80 Y136.77 E77.69495
G1 X73.79 Y136.78 E77.69569
G1 X73.70 Y136.86 E77.70159
G1 X71.25 Y138.24 E77.84194
G1 X69.31 Y139.14 E77.94868
G1 X66.31 Y139.97 E78.10403
G1 X63.65 Y140.22 E78.23720
G1 X60.36 Y140.14 E78.40143
G1 X57.37 Y139.09 E78.55945
G1 X55.08 Y138.18 E78.68236
G1 X47.06 Y131.80 E79.19392
G1 X47.88 Y126.51 E79.46123
G1 X47.54 Y124.86 E79.54519
G1 X47.20 Y121.32 E79.72244
G1 X47.19 Y119.85 E79.79573
G1 X47.47 Y117.03 E79.93713
G1 X48.22 Y114.90 E80.04982
G1 X49.37 Y112.37 E80.18837
G1 X52.73 Y107.86 E80.46905
G1 X53.48 Y107.52 E80.51002
G1 X54.08 Y106.64 E80.56321
G1 X56.57 Y105.08 E80.70981
G1 X57.38 Y104.50 E80.75960
G0 F12000 X57.58 Y104.85
G1 F2400 X60.29 Y103.64 E80.90755
G1 X63.30 Y103.08 E81.06054
G1 X66.66 Y102.90 E81.22792
G1 X69.42 Y103.82 E81.37309
G1 X70.78 Y103.53 E81.44256
G1 X71.70 Y104.06 E81.49571
G1 X73.02 Y104.10 E81.56130
G1 X74.68 Y105.74 E81.67765
G1 X75.58 Y106.25 E81.72926
G1 X76.41 Y106.58 E81.77381
G1 X76.80 Y106.94 E81.80035
G1 X77.49 Y107.33 E81.84012
G1 X78.24 Y108.28 E81.90034
G1 X79.44 Y109.40 E81.98238
G1 X81.52 Y111.45 E82.12797
G1 X82.28 Y113.27 E82.22640
G1 X82.33 Y113.36 E82.23147
G1 X82.93 Y114.43 E82.29276
G1 X84.13 Y117.34 E82.44950
G1 X84.40 Y120.54 E82.61003
G1 X84.24 Y123.17 E82.74159
G1 X84.18 Y123.44 E82.75496
G1 X84.09 Y124.28 E82.79749
G1 X83.56 Y127.28 E82.94944
G1 X81.82 Y130.54 E83.13375
G1 X79.75 Y132.94 E83.29145
G1 X77.23 Y134.95 E83.45239
G1 X75.83 Y135.51 E83.52753
G1 X75.20 Y135.85 E83.56370
G1 X73.67 Y136.40 E83.64442
G1 X73.58 Y136.43 E83.64922
G1 X73.47 Y136.53 E83.65702
G1 X71.07 Y137.88 E83.79430
G1 X69.17 Y138.76 E83.89856
G1 X66.24 Y139.58 E84.05054
G1 X63.64 Y139.82 E84.18071
G1 X60.43 Y139.75 E84.34070
G1 X57.51 Y138.72 E84.49514
G1 X55.29 Y137.83 E84.61467
G1 X47.49 Y131.63 E85.11170
G1 X48.28 Y126.50 E85.37093
G1 X47.94 Y124.80 E85.45743
G1 X47.60 Y121.30 E85.63278
G1 X47.59 Y119.87 E85.70418
G1 X47.86 Y117.12 E85.84201
G1 X48.59 Y115.05 E85.95149
G1 X49.71 Y112.58 E86.08695
G1 X52.99 Y108.18 E86.36043
G1 X53.74 Y107.84 E86.40178
G1 X54.36 Y106.94 E86.45637
G1 X56.79 Y105.42 E86.59902
G1 X57.58 Y104.85 E86.64789
G0 F12000 X57.78 Y105.19
G1 F2400 X60.41 Y104.03 E86.79137
G1 X63.35 Y103.48 E86.94071
G1 X66.60 Y103.31 E87.10299
G1 X69.39 Y104.24 E87.24974
G1 X70.71 Y103.96 E87.31717
G1 X71.59 Y104.46 E87.36780
G1 X72.85 Y104.50 E87.43034
G1 X74.43 Y106.06 E87.54143
G1 X75.40 Y106.61 E87.59708
G1 X76.19 Y106.92 E87.63935
G1 X76.56 Y107.27 E87.66459
G1 X77.23 Y107.64 E87.70270
G1 X77.94 Y108.55 E87.76058
G1 X79.16 Y109.69 E87.84378
G1 X81.18 Y111.68 E87.98507
G1 X81.92 Y113.45 E88.08068
G1 X81.98 Y113.56 E88.08703
G1 X82.57 Y114.61 E88.14697
G1 X83.73 Y117.43 E88.29939
G1 X84.00 Y120.55 E88.45542
G1 X83.84 Y123.12 E88.58398
G1 X83.78 Y123.37 E88.59680
G1 X83.70 Y124.23 E88.63983
G1 X83.17 Y127.15 E88.78787
G1 X81.48 Y130.31 E88.96686
G1 X79.47 Y132.65 E89.12049
G1 X77.03 Y134.60 E89.27659
G1 X75.67 Y135.14 E89.34974
G1 X75.03 Y135.49 E89.38573
G1 X73.54 Y136.02 E89.46481
G1 X73.37 Y136.08 E89.47368
G1 X73.23 Y136.21 E89.48329
G1 X70.89 Y137.53 E89.61748
G1 X69.03 Y138.38 E89.71935
G1 X66.17 Y139.18 E89.86787
G1 X63.63 Y139.42 E89.99513
G1 X60.51 Y139.35 E90.15078
G1 X57.65 Y138.34 E90.30162
G1 X55.49 Y137.48 E90.41782
G1 X47.92 Y131.47 E90.90029
G1 X48.69 Y126.49 E91.15150
G1 X48.33 Y124.74 E91.24056
G1 X48.01 Y121.28 E91.41400
G1 X47.99 Y119.89 E91.48345
G1 X48.26 Y117.21 E91.61777
G1 X48.97 Y115.20 E91.72401
G1 X50.06 Y112.78 E91.85648
G1 X53.25 Y108.51 E92.12262
G1 X54.01 Y108.16 E92.16435
G1 X54.65 Y107.23 E92.22038
G1 X57.02 Y105.75 E92.35998
G1 X57.78 Y105.19 E92.40703
G0 F12000 X57.98 Y105.54
G1 F2400 X60.53 Y104.41 E92.54613
G1 X63.40 Y103.88 E92.69182
G1 X66.55 Y103.71 E92.84900
G1 X69.37 Y104.65 E92.99743
G1 X70.65 Y104.38 E93.06265
G1 X71.48 Y104.85 E93.11053
G1 X72.68 Y104.89 E93.17028
G1 X74.19 Y106.39 E93.27640
G1 X75.23 Y106.97 E93.33578
G1 X75.97 Y107.27 E93.37578
G1 X76.33 Y107.59 E93.39965
G1 X76.96 Y107.95 E93.43611
G1 X77.65 Y108.82 E93.49139
G1 X78.89 Y109.98 E93.57604
G1 X80.84 Y111.91 E93.71302
G1 X81.56 Y113.63 E93.80584
G1 X81.63 Y113.76 E93.81346
G1 X82.21 Y114.78 E93.87205
G1 X83.34 Y117.53 E94.02024
G1 X83.60 Y120.55 E94.17166
G1 X83.44 Y123.06 E94.29722
G1 X83.39 Y123.30 E94.30948
G1 X83.30 Y124.17 E94.35311
G1 X82.79 Y127.02 E94.49720
G1 X81.15 Y130.09 E94.67083
G1 X79.19 Y132.36 E94.82039
G1 X76.83 Y134.25 E94.97171
G1 X75.50 Y134.78 E95.04282
G1 X74.87 Y135.12 E95.07863
G1 X73.41 Y135.64 E95.15603
G1 X73.16 Y135.72 E95.16900
G1 X72.99 Y135.88 E95.18054
G1 X70.70 Y137.17 E95.31163
G1 X68.90 Y138.01 E95.41105
G1 X66.09 Y138.79 E95.55619
G1 X63.61 Y139.02 E95.68049
G1 X60.58 Y138.95 E95.83185
G1 X57.79 Y137.97 E95.97911
G1 X55.69 Y137.13 E96.09197
G1 X48.35 Y131.30 E96.55989
G1 X49.09 Y126.48 E96.80306
G1 X48.73 Y124.68 E96.89462
G1 X48.41 Y121.26 E97.06620
G1 X48.39 Y119.91 E97.13366
G1 X48.65 Y117.30 E97.26447
G1 X49.34 Y115.35 E97.36747
G1 X50.41 Y112.99 E97.49691
G1 X53.51 Y108.83 E97.75577
G1 X54.28 Y108.48 E97.79799
G1 X54.93 Y107.53 E97.85535
G1 X57.24 Y106.08 E97.99148
G1 X57.98 Y105.54 E98.03710
G0 F12000 X58.18 Y105.89
G1 F2400 X60.65 Y104.80 E98.17173
G1 X63.45 Y104.28 E98.31376
G1 X66.49 Y104.11 E98.46585
G1 X69.34 Y105.06 E98.61590
G1 X70.58 Y104.80 E98.67898
G1 X71.37 Y105.25 E98.72420
G1 X72.51 Y105.29 E98.78106
G1 X73.95 Y106.71 E98.88199
G1 X75.06 Y107.33 E98.94559
G1 X75.76 Y107.61 E98.98308
G1 X76.09 Y107.92 E99.00543
G1 X76.69 Y108.26 E99.04035
G1 X77.35 Y109.09 E99.09333
G1 X78.61 Y110.27 E99.17918
G1 X80.50 Y112.14 E99.31186
G1 X81.20 Y113.81 E99.40201
G1 X81.28 Y113.96 E99.41077
G1 X81.84 Y114.96 E99.46800
G1 X82.95 Y117.62 E99.61194
G1 X83.20 Y120.56 E99.75880
G1 X83.05 Y123.01 E99.88136
G1 X82.99 Y123.25 E99.89347
G1 X82.91 Y124.12 E99.93720
G1 X82.41 Y126.89 E100.07743
G1 X80.82 Y129.86 E100.24564
G1 X78.92 Y132.07 E100.39113
G1 X76.62 Y133.90 E100.53765
G1 X75.33 Y134.42 E100.60720
G1 X74.71 Y134.75 E100.64241
G1 X73.28 Y135.26 E100.71815
G1 X72.95 Y135.37 E100.73519
G1 X72.76 Y135.56 E100.74860
G1 X70.52 Y136.81 E100.87658
G1 X68.76 Y137.63 E100.97359
G1 X66.02 Y138.39 E101.11527
G1 X63.60 Y138.62 E101.23667
G1 X60.65 Y138.55 E101.38368
G1 X57.93 Y137.60 E101.52738
G1 X55.90 Y136.78 E101.63687
G1 X48.78 Y131.13 E102.09023
G1 X49.50 Y126.46 E102.32599
G1 X49.49 Y126.44 E102.32702
G1 X49.12 Y124.62 E102.41953
G1 X48.80 Y121.24 E102.58921
G1 X48.79 Y119.92 E102.65477
G1 X49.04 Y117.39 E102.78207
G1 X49.71 Y115.50 E102.88175
G1 X50.75 Y113.19 E103.00820
G1 X53.77 Y109.15 E103.25982
G1 X54.54 Y108.79 E103.30238
G1 X55.21 Y107.82 E103.36113
G1 X57.47 Y106.41 E103.49390
G1 X58.18 Y105.89 E103.53802
G0 F12000 X58.38 Y106.24
G1 F2400 X60.77 Y105.18 E103.66816
G1 X63.49 Y104.67 E103.80658
G1 X66.44 Y104.52 E103.95358
G1 X69.32 Y105.48 E104.10527
G1 X70.52 Y105.22 E104.16621
G1 X71.26 Y105.64 E104.20879
G1 X72.34 Y105.68 E104.26275
G1 X73.71 Y107.03 E104.35846
G1 X74.89 Y107.70 E104.42611
G1 X75.54 Y107.95 E104.46124
G1 X75.85 Y108.24 E104.48210
G1 X76.43 Y108.57 E104.51552
G1 X77.06 Y109.37 E104.56619
G1 X78.33 Y110.56 E104.65320
G1 X80.16 Y112.36 E104.78158
G1 X80.84 Y113.98 E104.86914
G1 X80.94 Y114.16 E104.87895
G1 X81.48 Y115.13 E104.93486
G1 X82.56 Y117.72 E105.07448
G1 X82.80 Y120.56 E105.21678
G1 X82.65 Y122.95 E105.33635
G1 X82.60 Y123.17 E105.34770
G1 X82.51 Y124.06 E105.39218
G1 X82.03 Y126.75 E105.52851
G1 X80.49 Y129.63 E105.69136
G1 X78.64 Y131.78 E105.83282
G1 X76.42 Y133.55 E105.97451
G1 X75.16 Y134.05 E106.04214
G1 X74.54 Y134.39 E106.07709
G1 X73.14 Y134.88 E106.15116
G1 X72.74 Y135.02 E106.17237
G1 X72.52 Y135.23 E106.18755
G1 X70.34 Y136.46 E106.31241
G1 X68.62 Y137.25 E106.40698
G1 X65.95 Y138.00 E106.54530
G1 X63.58 Y138.22 E106.66374
G1 X60.72 Y138.15 E106.80646
G1 X58.07 Y137.22 E106.94658
G1 X56.10 Y136.43 E107.05269
G1 X49.21 Y130.96 E107.49157
G1 X49.91 Y126.41 E107.72137
G1 X49.88 Y126.32 E107.72602
G1 X49.52 Y124.56 E107.81552
G1 X49.20 Y121.22 E107.98330
G1 X49.19 Y119.94 E108.04692
G1 X49.44 Y117.47 E108.17071
G1 X50.08 Y115.65 E108.26717
G1 X51.10 Y113.40 E108.39060
G1 X54.03 Y109.47 E108.63488
G1 X54.81 Y109.11 E108.67788
G1 X55.49 Y108.12 E108.73804
G1 X57.69 Y106.75 E108.86704
G1 X58.38 Y106.24 E108.91005
G0 F12000 X58.58 Y106.59
G1 F2400 X60.89 Y105.56 E109.03579
G1 X63.54 Y105.07 E109.17051
G1 X66.38 Y104.92 E109.31245
G1 X69.30 Y105.89 E109.46568
G1 X70.45 Y105.65 E109.52458
G1 X71.15 Y106.04 E109.56453
G1 X72.17 Y106.08 E109.61554
G1 X73.46 Y107.35 E109.70617
G1 X74.71 Y108.06 E109.77771
G1 X75.32 Y108.30 E109.81052
G1 X75.61 Y108.57 E109.83011
G1 X76.16 Y108.88 E109.86186
G1 X76.76 Y109.64 E109.90996
G1 X78.06 Y110.84 E109.99835
G1 X79.83 Y112.59 E110.12250
G1 X80.48 Y114.17 E110.20746
G1 X80.59 Y114.35 E110.21826
G1 X81.12 Y115.31 E110.27281
G1 X82.16 Y117.81 E110.40820
G1 X82.40 Y120.57 E110.54595
G1 X82.25 Y122.90 E110.66247
G1 X82.20 Y123.12 E110.67407
G1 X82.20 Y123.14 E110.67502
G1 X82.11 Y124.01 E110.71834
G1 X81.64 Y126.62 E110.85072
G1 X80.16 Y129.40 E111.00821
G1 X78.36 Y131.49 E111.14564
G1 X76.22 Y133.20 E111.28251
G1 X74.98 Y133.69 E111.34863
G1 X74.38 Y134.02 E111.38292
G1 X73.01 Y134.51 E111.45528
G1 X72.53 Y134.67 E111.48054
G1 X72.28 Y134.90 E111.49763
G1 X70.16 Y136.10 E111.61945
G1 X68.48 Y136.88 E111.71161
G1 X65.88 Y137.60 E111.84650
G1 X63.57 Y137.82 E111.96199
G1 X60.80 Y137.75 E112.10037
G1 X58.22 Y136.85 E112.23689
G1 X56.30 Y136.09 E112.33965
G1 X49.64 Y130.79 E112.76400
G1 X50.33 Y126.36 E112.98784
G1 X50.26 Y126.20 E112.99623
G1 X49.92 Y124.51 E113.08268
G1 X49.60 Y121.20 E113.24856
G1 X49.59 Y119.96 E113.31028
G1 X49.83 Y117.56 E113.43050
G1 X50.45 Y115.80 E113.52373
G1 X51.45 Y113.60 E113.64414
G1 X54.29 Y109.79 E113.88118
G1 X55.08 Y109.43 E113.92450
G1 X55.78 Y108.41 E113.98609
G1 X57.92 Y107.07 E114.11209
G1 X58.58 Y106.59 E114.15324
G0 F12000 X58.78 Y106.94
G1 F2400 X61.01 Y105.95 E114.27450
G1 X63.59 Y105.47 E114.40561
G1 X66.33 Y105.32 E114.54241
G1 X69.27 Y106.31 E114.69730
G1 X70.39 Y106.07 E114.75407
G1 X71.04 Y106.44 E114.79137
G1 X72.00 Y106.47 E114.83945
G1 X73.22 Y107.67 E114.92489
G1 X74.54 Y108.42 E115.00065
G1 X75.11 Y108.64 E115.03095
G1 X75.37 Y108.89 E115.04902
G1 X75.90 Y109.19 E115.07923
G1 X76.47 Y109.91 E115.12503
G1 X77.78 Y111.13 E115.21462
G1 X79.49 Y112.82 E115.33442
G1 X80.12 Y114.34 E115.41664
G1 X80.24 Y114.55 E115.42871
G1 X80.76 Y115.48 E115.48187
G1 X81.77 Y117.91 E115.61301
G1 X82.00 Y120.57 E115.74620
G1 X81.85 Y122.84 E115.85972
G1 X81.81 Y123.07 E115.87121
G1 X81.80 Y123.11 E115.87336
G1 X81.72 Y123.95 E115.91554
G1 X81.26 Y126.49 E116.04402
G1 X79.83 Y129.18 E116.19613
G1 X78.08 Y131.20 E116.32953
G1 X76.01 Y132.85 E116.46157
G1 X74.82 Y133.33 E116.52565
G1 X74.22 Y133.66 E116.55976
G1 X72.88 Y134.13 E116.63049
G1 X72.33 Y134.32 E116.65975
G1 X72.05 Y134.58 E116.67882
G1 X69.97 Y135.75 E116.79749
G1 X68.34 Y136.50 E116.88726
G1 X65.80 Y137.21 E117.01869
G1 X63.56 Y137.41 E117.13127
G1 X60.87 Y137.35 E117.26536
G1 X58.35 Y136.47 E117.39828
G1 X56.50 Y135.74 E117.49772
G1 X50.07 Y130.62 E117.90751
G1 X50.74 Y126.31 E118.12540
G1 X50.65 Y126.08 E118.13748
G1 X50.31 Y124.45 E118.22088
G1 X50.00 Y121.17 E118.38484
G1 X49.99 Y119.98 E118.44462
G1 X50.22 Y117.65 E118.56139
G1 X50.82 Y115.95 E118.65129
G1 X51.79 Y113.81 E118.76869
G1 X54.55 Y110.11 E118.99846
G1 X55.34 Y109.75 E119.04222
G1 X56.06 Y108.71 E119.10517
G1 X58.13 Y107.41 E119.22716
G1 X58.78 Y106.94 E119.26745
G0 F12000 X58.98 Y107.29
G1 F2400 X61.12 Y106.33 E119.38428
G1 X63.64 Y105.87 E119.51175
G1 X66.27 Y105.73 E119.64350
G1 X69.25 Y106.72 E119.80004
G1 X70.32 Y106.49 E119.85466
G1 X70.92 Y106.83 E119.88922
G1 X71.83 Y106.86 E119.93449
G1 X72.98 Y108.00 E120.01482
G1 X74.37 Y108.78 E120.09460
G1 X74.89 Y108.99 E120.12249
G1 X75.13 Y109.21 E120.13908
G1 X75.63 Y109.50 E120.16778
G1 X76.17 Y110.18 E120.21138
G1 X77.50 Y111.42 E120.30203
G1 X79.15 Y113.05 E120.41753
G1 X79.76 Y114.52 E120.49681
G1 X79.90 Y114.75 E120.51027
G1 X80.40 Y115.66 E120.56211
G1 X81.38 Y118.01 E120.68899
G1 X81.59 Y120.58 E120.81757
G1 X81.46 Y122.79 E120.92809
G1 X81.41 Y123.01 E120.93948
G1 X81.40 Y123.08 E120.94293
G1 X81.32 Y123.90 E120.98396
G1 X80.88 Y126.35 E121.10853
G1 X79.49 Y128.95 E121.25526
G1 X77.80 Y130.91 E121.38452
G1 X75.81 Y132.50 E121.51180
G1 X74.64 Y132.97 E121.57432
G1 X74.06 Y133.29 E121.60783
G1 X72.75 Y133.75 E121.67691
G1 X72.12 Y133.97 E121.71030
G1 X71.81 Y134.25 E121.73116
G1 X69.79 Y135.39 E121.84672
G1 X68.20 Y136.12 E121.93405
G1 X65.73 Y136.81 E122.06211
G1 X63.54 Y137.01 E122.17173
G1 X60.94 Y136.96 E122.30148
G1 X58.49 Y136.10 E122.43087
G1 X56.71 Y135.38 E122.52693
G1 X50.50 Y130.46 E122.92216
G1 X51.15 Y126.26 E123.13414
G1 X51.03 Y125.97 E123.14984
G1 X50.71 Y124.39 E123.23022
G1 X50.40 Y121.15 E123.39234
G1 X50.39 Y119.99 E123.45017
G1 X50.62 Y117.74 E123.56338
G1 X51.19 Y116.10 E123.65004
G1 X52.14 Y114.01 E123.76443
G1 X54.80 Y110.43 E123.98689
G1 X55.61 Y110.07 E124.03105
G1 X56.34 Y109.00 E124.09540
G1 X58.36 Y107.74 E124.21420
G1 X58.98 Y107.29 E124.25278
G0 F12000 X59.19 Y107.63
G1 F2400 X61.24 Y106.72 E124.36519
G1 X63.69 Y106.27 E124.48899
G1 X66.22 Y106.13 E124.61560
G1 X69.22 Y107.13 E124.77371
G1 X70.26 Y106.92 E124.82630
G1 X70.81 Y107.23 E124.85829
G1 X71.66 Y107.26 E124.90057
G1 X72.73 Y108.32 E124.97564
G1 X74.19 Y109.14 E125.05929
G1 X74.67 Y109.33 E125.08507
G1 X74.90 Y109.54 E125.10050
G1 X75.37 Y109.81 E125.12737
G1 X75.87 Y110.45 E125.16823
G1 X77.22 Y111.71 E125.26043
G1 X78.81 Y113.28 E125.37167
G1 X79.40 Y114.70 E125.44835
G1 X79.55 Y114.95 E125.46284
G1 X80.04 Y115.83 E125.51332
G1 X80.98 Y118.10 E125.63592
G1 X81.19 Y120.58 E125.76000
G1 X81.06 Y122.73 E125.86748
G1 X81.01 Y122.96 E125.87902
G1 X81.00 Y123.05 E125.88347
G1 X80.92 Y123.84 E125.92334
G1 X80.50 Y126.22 E126.04401
G1 X79.16 Y128.72 E126.18539
G1 X77.52 Y130.62 E126.31061
G1 X75.61 Y132.15 E126.43303
G1 X74.48 Y132.60 E126.49362
G1 X73.89 Y132.92 E126.52693
G1 X72.62 Y133.37 E126.59432
G1 X71.91 Y133.62 E126.63178
G1 X71.57 Y133.93 E126.65452
G1 X69.61 Y135.03 E126.76700
G1 X68.06 Y135.75 E126.85191
G1 X65.66 Y136.42 E126.97650
G1 X63.53 Y136.61 E127.08321
G1 X61.02 Y136.56 E127.20862
G1 X58.63 Y135.72 E127.33445
G1 X56.91 Y135.03 E127.42713
G1 X50.94 Y130.29 E127.80785
G1 X51.57 Y126.21 E128.01382
G1 X51.41 Y125.85 E128.03325
G1 X51.11 Y124.33 E128.11058
G1 X50.80 Y121.13 E128.27080
G1 X50.79 Y120.01 E128.32668
G1 X51.01 Y117.82 E128.43638
G1 X51.57 Y116.25 E128.51982
G1 X52.49 Y114.21 E128.63120
G1 X55.06 Y110.75 E128.84638
G1 X55.88 Y110.38 E128.89092
G1 X56.62 Y109.30 E128.95667
G1 X58.59 Y108.07 E129.07217
G1 X59.19 Y107.63 E129.10918
G0 F12000 X59.39 Y107.98
G1 F2400 X61.36 Y107.10 E129.21712
G1 X63.73 Y106.67 E129.33727
G1 X66.17 Y106.53 E129.45883
G1 X69.20 Y107.55 E129.61864
G1 X70.19 Y107.34 E129.66903
G1 X70.70 Y107.63 E129.69839
G1 X71.49 Y107.65 E129.73777
G1 X72.49 Y108.64 E129.80773
G1 X74.02 Y109.50 E129.89553
G1 X74.45 Y109.68 E129.91875
G1 X74.66 Y109.87 E129.93262
G1 X75.10 Y110.12 E129.95800
G1 X75.58 Y110.72 E129.99652
G1 X76.95 Y112.00 E130.08995
G1 X78.47 Y113.51 E130.19685
G1 X79.04 Y114.88 E130.27090
G1 X79.20 Y115.15 E130.28655
G1 X79.68 Y116.01 E130.33564
G1 X80.59 Y118.20 E130.45399
G1 X80.79 Y120.58 E130.57351
G1 X80.66 Y122.67 E130.67798
G1 X80.61 Y122.91 E130.68973
G1 X80.61 Y123.01 E130.69513
G1 X80.53 Y123.78 E130.73379
G1 X80.11 Y126.09 E130.85056
G1 X78.83 Y128.49 E130.98660
G1 X77.24 Y130.33 E131.10776
G1 X75.40 Y131.81 E131.22539
G1 X74.31 Y132.24 E131.28425
G1 X73.73 Y132.56 E131.31707
G1 X72.49 Y133.00 E131.38276
G1 X71.70 Y133.27 E131.42432
G1 X71.34 Y133.60 E131.44893
G1 X69.43 Y134.68 E131.55832
G1 X67.93 Y135.37 E131.64080
G1 X65.58 Y136.02 E131.76202
G1 X63.51 Y136.21 E131.86579
G1 X61.09 Y136.16 E131.98690
G1 X58.78 Y135.35 E132.10909
G1 X57.11 Y134.69 E132.19850
G1 X51.37 Y130.12 E132.56465
G1 X51.98 Y126.16 E132.76467
G1 X51.80 Y125.73 E132.78779
G1 X51.50 Y124.27 E132.86207
G1 X51.20 Y121.11 E133.02038
G1 X51.19 Y120.03 E133.07431
G1 X51.40 Y117.91 E133.18051
G1 X51.94 Y116.40 E133.26066
G1 X52.83 Y114.42 E133.36902
G1 X55.32 Y111.08 E133.57698
G1 X56.14 Y110.70 E133.62194
G1 X56.91 Y109.59 E133.68906
G1 X58.81 Y108.40 E133.80116
G1 X59.39 Y107.98 E133.83670
G0 F12000 X59.59 Y108.33
G1 F2400 X61.48 Y107.49 E133.94020
G1 X63.78 Y107.06 E134.05671
G1 X66.11 Y106.94 E134.17312
G1 X69.18 Y107.96 E134.33455
G1 X70.13 Y107.76 E134.38285
G1 X70.59 Y108.02 E134.40950
G1 X71.32 Y108.05 E134.44599
G1 X72.25 Y108.96 E134.51079
G1 X73.85 Y109.87 E134.60275
G1 X74.24 Y110.02 E134.62345
G1 X74.42 Y110.19 E134.63577
G1 X74.84 Y110.42 E134.65974
G1 X75.29 Y111.00 E134.69616
G1 X76.67 Y112.29 E134.79055
G1 X78.13 Y113.73 E134.89314
G1 X78.69 Y115.06 E134.96477
G1 X78.85 Y115.34 E134.98127
G1 X79.32 Y116.18 E135.02907
G1 X80.19 Y118.29 E135.14315
G1 X80.39 Y120.59 E135.25806
G1 X80.27 Y122.62 E135.35953
G1 X80.21 Y122.85 E135.37143
G1 X80.21 Y122.98 E135.37788
G1 X80.13 Y123.73 E135.41539
G1 X79.73 Y125.95 E135.52821
G1 X78.50 Y128.26 E135.65889
G1 X76.96 Y130.04 E135.77602
G1 X75.20 Y131.46 E135.88878
G1 X74.14 Y131.88 E135.94566
G1 X73.56 Y132.19 E135.97829
G1 X72.36 Y132.62 E136.04234
G1 X71.49 Y132.91 E136.08792
G1 X71.10 Y133.28 E136.11448
G1 X69.24 Y134.32 E136.22077
G1 X67.79 Y135.00 E136.30083
G1 X65.51 Y135.63 E136.41858
G1 X63.50 Y135.81 E136.51939
G1 X61.16 Y135.76 E136.63621
G1 X58.92 Y134.97 E136.75485
G1 X57.31 Y134.34 E136.84088
G1 X51.80 Y129.95 E137.19251
G1 X52.39 Y126.10 E137.38667
G1 X52.18 Y125.61 E137.41341
G1 X51.90 Y124.21 E137.48459
G1 X51.60 Y121.09 E137.64104
G1 X51.59 Y120.05 E137.69308
G1 X51.80 Y118.00 E137.79576
G1 X52.31 Y116.55 E137.87264
G1 X53.18 Y114.62 E137.97801
G1 X55.58 Y111.40 E138.17865
G1 X56.41 Y111.02 E138.22394
G1 X57.19 Y109.89 E138.29253
G1 X59.03 Y108.73 E138.40101
G1 X59.59 Y108.33 E138.43530
G0 F12000 X59.79 Y108.68
G1 F2400 X61.60 Y107.87 E138.53436
G1 X63.83 Y107.46 E138.64720
G1 X66.06 Y107.34 E138.75857
G1 X69.16 Y108.38 E138.92164
G1 X70.06 Y108.18 E138.96774
G1 X70.48 Y108.42 E138.99176
G1 X71.15 Y108.44 E139.02535
G1 X72.00 Y109.28 E139.08497
G1 X73.68 Y110.23 E139.18086
G1 X74.02 Y110.36 E139.19931
G1 X74.18 Y110.51 E139.21029
G1 X74.57 Y110.73 E139.23259
G1 X74.99 Y111.27 E139.26645
G1 X76.39 Y112.58 E139.36226
G1 X77.80 Y113.96 E139.46058
G1 X78.32 Y115.23 E139.52915
G1 X78.51 Y115.54 E139.54717
G1 X78.96 Y116.36 E139.59363
G1 X79.80 Y118.39 E139.70341
G1 X79.99 Y120.59 E139.81381
G1 X79.87 Y122.56 E139.91229
G1 X79.82 Y122.79 E139.92384
G1 X79.81 Y122.95 E139.93173
G1 X79.73 Y123.67 E139.96809
G1 X79.35 Y125.82 E140.07706
G1 X78.17 Y128.04 E140.20232
G1 X76.69 Y129.75 E140.31534
G1 X75.00 Y131.11 E140.42339
G1 X73.97 Y131.51 E140.47849
G1 X73.40 Y131.82 E140.51073
G1 X72.22 Y132.24 E140.57309
G1 X71.28 Y132.56 E140.62277
G1 X70.86 Y132.95 E140.65116
G1 X69.06 Y133.96 E140.75430
G1 X67.65 Y134.62 E140.83200
G1 X65.44 Y135.23 E140.94634
G1 X63.49 Y135.41 E141.04419
G1 X61.23 Y135.36 E141.15672
G1 X59.06 Y134.60 E141.27178
G1 X57.52 Y133.99 E141.35440
G1 X52.23 Y129.78 E141.69155
G1 X52.80 Y126.05 E141.87970
G1 X52.57 Y125.49 E141.91013
G1 X52.29 Y124.15 E141.97831
G1 X52.00 Y121.07 E142.13290
G1 X51.99 Y120.06 E142.18295
G1 X52.19 Y118.09 E142.28212
G1 X52.68 Y116.69 E142.35576
G1 X53.53 Y114.83 E142.45807
G1 X55.84 Y111.72 E142.65145
G1 X56.68 Y111.34 E142.69717
G1 X57.47 Y110.18 E142.76712
G1 X59.26 Y109.07 E142.87216
G1 X59.79 Y108.68 E142.90503
G0 F12000 X59.99 Y109.03
G1 F2400 X61.72 Y108.26 E142.99964
G1 X63.88 Y107.86 E143.10889
G1 X66.00 Y107.74 E143.21511
G1 X69.09 Y108.77 E143.37737
G1 X69.19 Y108.78 E143.38236
G1 X70.00 Y108.61 E143.42363
G1 X70.37 Y108.82 E143.44496
G1 X70.98 Y108.84 E143.47571
G1 X71.76 Y109.61 E143.53025
G1 X73.50 Y110.59 E143.63012
G1 X73.80 Y110.71 E143.64620
G1 X73.94 Y110.84 E143.65580
G1 X74.30 Y111.04 E143.67645
G1 X74.69 Y111.54 E143.70789
G1 X76.12 Y112.87 E143.80496
G1 X77.46 Y114.19 E143.89894
G1 X77.97 Y115.41 E143.96478
G1 X78.16 Y115.74 E143.98401
G1 X78.60 Y116.53 E144.02910
G1 X79.41 Y118.48 E144.13464
G1 X79.59 Y120.60 E144.24044
G1 X79.47 Y122.51 E144.33592
G1 X79.42 Y122.74 E144.34756
G1 X79.41 Y122.92 E144.35656
G1 X79.34 Y123.62 E144.39172
G1 X78.97 Y125.69 E144.49678
G1 X77.83 Y127.81 E144.61668
G1 X76.41 Y129.46 E144.72567
G1 X74.79 Y130.76 E144.82885
G1 X73.80 Y131.15 E144.88230
G1 X73.24 Y131.46 E144.91402
G1 X72.09 Y131.86 E144.97469
G1 X71.07 Y132.21 E145.02854
G1 X70.62 Y132.62 E145.05877
G1 X68.88 Y133.61 E145.15882
G1 X67.51 Y134.24 E145.23405
G1 X65.37 Y134.84 E145.34497
G1 X63.47 Y135.01 E145.43992
G1 X61.30 Y134.96 E145.54811
G1 X59.20 Y134.22 E145.65961
G1 X57.72 Y133.64 E145.73891
G1 X52.66 Y129.61 E146.06146
G1 X53.22 Y126.00 E146.24371
G1 X52.95 Y125.37 E146.27782
G1 X52.69 Y124.09 E146.34294
G1 X52.40 Y121.05 E146.49563
G1 X52.39 Y120.08 E146.54378
G1 X52.58 Y118.17 E146.63940
G1 X53.05 Y116.84 E146.70980
G1 X53.87 Y115.03 E146.80909
G1 X56.10 Y112.04 E146.99520
G1 X56.94 Y111.66 E147.04132
G1 X57.75 Y110.48 E147.11263
G1 X59.47 Y109.40 E147.21394
G1 X59.99 Y109.03 E147.24567
G0 F12000 X60.19 Y109.38
G1 F2400 X61.84 Y108.64 E147.33586
G1 X63.92 Y108.26 E147.44140
G1 X65.95 Y108.15 E147.54258
G1 X69.02 Y109.17 E147.70407
G1 X69.22 Y109.18 E147.71425
G1 X69.93 Y109.03 E147.75040
G1 X70.26 Y109.21 E147.76910
G1 X70.81 Y109.23 E147.79691
G1 X71.52 Y109.93 E147.84626
G1 X73.33 Y110.95 E147.95021
G1 X73.59 Y111.05 E147.96390
G1 X73.70 Y111.16 E147.97201
G1 X74.04 Y111.35 E147.99116
G1 X74.40 Y111.81 E148.02011
G1 X75.84 Y113.15 E148.11849
G1 X77.12 Y114.42 E148.20821
G1 X77.61 Y115.59 E148.27165
G1 X77.81 Y115.94 E148.29175
G1 X78.24 Y116.70 E148.33549
G1 X79.02 Y118.58 E148.43677
G1 X79.19 Y120.60 E148.53802
G1 X79.07 Y122.45 E148.63044
G1 X79.02 Y122.68 E148.64230
G1 X79.01 Y122.88 E148.65229
G1 X78.94 Y123.56 E148.68629
G1 X78.58 Y125.56 E148.78740
G1 X77.50 Y127.58 E148.90195
G1 X76.13 Y129.18 E149.00690
G1 X74.59 Y130.41 E149.10525
G1 X73.63 Y130.79 E149.15691
G1 X73.08 Y131.09 E149.18826
G1 X71.96 Y131.49 E149.24727
G1 X70.86 Y131.86 E149.30508
G1 X70.39 Y132.30 E149.33728
G1 X68.69 Y133.25 E149.43428
G1 X67.37 Y133.87 E149.50709
G1 X65.30 Y134.44 E149.61459
G1 X63.46 Y134.61 E149.70657
G1 X61.38 Y134.56 E149.81047
G1 X59.34 Y133.85 E149.91838
G1 X57.92 Y133.29 E149.99431
G1 X53.09 Y129.44 E150.30233
G1 X53.63 Y125.95 E150.47857
G1 X53.34 Y125.25 E150.51640
G1 X53.09 Y124.03 E150.57847
G1 X52.80 Y121.03 E150.72926
G1 X52.79 Y120.10 E150.77546
G1 X52.98 Y118.26 E150.86757
G1 X53.42 Y116.99 E150.93471
G1 X54.22 Y115.23 E151.03103
G1 X56.36 Y112.36 E151.20986
G1 X57.21 Y111.97 E151.25636
G1 X58.04 Y110.77 E151.32907
G1 X59.70 Y109.73 E151.42724
G1 X60.19 Y109.38 E151.45721
G0 F12000 X60.39 Y109.72
G1 F2400 X61.96 Y109.03 E151.54293
G1 X63.97 Y108.66 E151.64486
G1 X65.89 Y108.55 E151.74089
G1 X68.95 Y109.57 E151.90153
G1 X69.26 Y109.58 E151.91706
G1 X69.86 Y109.45 E151.94806
G1 X70.14 Y109.61 E151.96410
G1 X70.64 Y109.63 E151.98901
G1 X71.27 Y110.25 E152.03318
G1 X73.16 Y111.32 E152.14151
G1 X73.37 Y111.40 E152.15244
G1 X73.46 Y111.49 E152.15898
G1 X73.77 Y111.66 E152.17669
G1 X74.11 Y112.08 E152.20355
G1 X75.56 Y113.44 E152.30292
G1 X76.78 Y114.65 E152.38833
G1 X77.25 Y115.77 E152.44903
G1 X77.46 Y116.14 E152.47033
G1 X77.88 Y116.88 E152.51272
G1 X78.62 Y118.68 E152.60971
G1 X78.79 Y120.61 E152.70645
G1 X78.67 Y122.40 E152.79588
G1 X78.62 Y122.63 E152.80757
G1 X78.61 Y122.85 E152.81882
G1 X78.54 Y123.51 E152.85167
G1 X78.20 Y125.42 E152.94892
G1 X77.17 Y127.35 E153.05804
G1 X75.85 Y128.89 E153.15897
G1 X74.39 Y130.06 E153.25250
G1 X73.46 Y130.43 E153.30234
G1 X72.91 Y130.72 E153.33328
G1 X71.83 Y131.11 E153.39067
G1 X70.65 Y131.51 E153.45258
G1 X70.15 Y131.97 E153.48662
G1 X68.51 Y132.90 E153.58049
G1 X67.23 Y133.49 E153.65087
G1 X65.22 Y134.05 E153.75495
G1 X63.45 Y134.21 E153.84403
G1 X61.45 Y134.17 E153.94359
G1 X59.48 Y133.47 E154.04790
G1 X58.12 Y132.94 E154.12050
G1 X53.52 Y129.28 E154.41397
G1 X54.04 Y125.90 E154.58429
G1 X53.72 Y125.14 E154.62575
G1 X53.48 Y123.98 E154.68481
G1 X53.20 Y121.00 E154.83369
G1 X53.19 Y120.12 E154.87795
G1 X53.37 Y118.35 E154.96659
G1 X53.79 Y117.14 E155.03045
G1 X54.56 Y115.44 E155.12371
G1 X56.62 Y112.68 E155.29526
G1 X57.48 Y112.29 E155.34215
G1 X58.32 Y111.07 E155.41630
G1 X59.92 Y110.07 E155.51059
G1 X60.39 Y109.72 E155.53960
G0 F12000 X60.59 Y110.07
G1 F2400 X62.08 Y109.41 E155.62085
G1 X64.02 Y109.05 E155.71914
G1 X65.84 Y108.95 E155.81012
G1 X68.87 Y109.97 E155.96981
G1 X69.29 Y109.98 E155.99063
G1 X69.80 Y109.87 E156.01659
G1 X70.03 Y110.01 E156.03002
G1 X70.47 Y110.02 E156.05198
G1 X71.03 Y110.57 E156.09103
G1 X72.98 Y111.68 E156.20305
G1 X73.15 Y111.74 E156.21195
G1 X73.23 Y111.81 E156.21727
G1 X73.51 Y111.97 E156.23320
G1 X73.81 Y112.35 E156.25740
G1 X75.29 Y113.73 E156.35828
G1 X76.44 Y114.87 E156.43935
G1 X76.89 Y115.95 E156.49745
G1 X77.12 Y116.34 E156.51981
G1 X77.52 Y117.05 E156.56087
G1 X78.23 Y118.77 E156.65361
G1 X78.39 Y120.61 E156.74575
G1 X78.28 Y122.34 E156.83217
G1 X78.23 Y122.57 E156.84382
G1 X78.21 Y122.82 E156.85631
G1 X78.15 Y123.45 E156.88801
G1 X77.82 Y125.29 E156.98131
G1 X76.84 Y127.13 E157.08512
G1 X75.57 Y128.60 E157.18194
G1 X74.18 Y129.71 E157.27068
G1 X73.29 Y130.06 E157.31874
G1 X72.75 Y130.36 E157.34934
G1 X71.70 Y130.73 E157.40498
G1 X70.44 Y131.16 E157.47106
G1 X69.92 Y131.65 E157.50693
G1 X68.33 Y132.54 E157.59769
G1 X67.09 Y133.11 E157.66566
G1 X65.15 Y133.65 E157.76633
G1 X63.43 Y133.81 E157.85246
G1 X61.52 Y133.77 E157.94772
G1 X59.62 Y133.10 E158.04845
G1 X58.33 Y132.59 E158.11767
G1 X53.95 Y129.11 E158.39665
G1 X54.45 Y125.85 E158.56108
G1 X54.10 Y125.02 E158.60617
G1 X53.88 Y123.92 E158.66218
G1 X53.60 Y120.98 E158.80921
G1 X53.59 Y120.14 E158.85152
G1 X53.76 Y118.44 E158.93661
G1 X54.17 Y117.29 E158.99723
G1 X54.91 Y115.64 E159.08748
G1 X56.88 Y113.00 E159.25176
G1 X57.74 Y112.61 E159.29909
G1 X58.60 Y111.36 E159.37452
G1 X60.15 Y110.39 E159.46566
G1 X60.59 Y110.07 E159.49296
G0 F12000 X60.79 Y110.42
G1 F2400 X62.20 Y109.80 E159.56977
G1 X64.06 Y109.45 E159.66440
G1 X65.78 Y109.36 E159.75029
G1 X68.80 Y110.37 E159.90909
G1 X69.33 Y110.38 E159.93520
G1 X69.73 Y110.30 E159.95606
G1 X69.92 Y110.40 E159.96683
G1 X70.30 Y110.42 E159.98585
G1 X70.79 Y110.89 E160.01965
G1 X72.81 Y112.04 E160.13584
G1 X72.93 Y112.09 E160.14232
G1 X72.99 Y112.14 E160.14620
G1 X73.24 Y112.28 E160.16059
G1 X73.51 Y112.62 E160.18244
G1 X75.01 Y114.02 E160.28449
G1 X76.10 Y115.10 E160.36129
G1 X76.53 Y116.12 E160.41642
G1 X76.77 Y116.53 E160.44025
G1 X77.16 Y117.23 E160.47991
G1 X77.83 Y118.87 E160.56840
G1 X77.98 Y120.62 E160.65598
G1 X77.88 Y122.29 E160.73941
G1 X77.83 Y122.52 E160.75126
G1 X77.81 Y122.79 E160.76466
G1 X77.75 Y123.39 E160.79520
G1 X77.44 Y125.16 E160.88460
G1 X76.51 Y126.90 E160.98303
G1 X75.29 Y128.31 E161.07578
G1 X73.98 Y129.36 E161.15973
G1 X73.11 Y129.70 E161.20610
G1 X72.58 Y129.99 E161.23617
G1 X71.56 Y130.35 E161.29017
G1 X70.23 Y130.81 E161.36031
G1 X69.68 Y131.32 E161.39806
G1 X68.15 Y132.18 E161.48569
G1 X66.96 Y132.74 E161.55125
G1 X65.08 Y133.26 E161.64850
G1 X63.42 Y133.41 E161.73172
G1 X61.59 Y133.37 E161.82264
G1 X59.76 Y132.72 E161.91980
G1 X58.53 Y132.24 E161.98570
G1 X54.38 Y128.94 E162.25009
G1 X54.87 Y125.80 E162.40856
G1 X54.49 Y124.90 E162.45740
G1 X54.27 Y123.86 E162.51035
G1 X54.00 Y120.96 E162.65547
G1 X53.99 Y120.15 E162.69584
G1 X54.16 Y118.53 E162.77741
G1 X54.54 Y117.44 E162.83475
G1 X55.26 Y115.85 E162.92204
G1 X57.14 Y113.33 E163.07904
G1 X58.01 Y112.93 E163.12675
G1 X58.88 Y111.66 E163.20358
G1 X60.38 Y110.72 E163.29147
G1 X60.79 Y110.42 E163.31719
G0 F12000 X60.99 Y110.77
G1 F2400 X62.32 Y110.18 E163.38959
G1 X64.11 Y109.85 E163.48057
G1 X65.73 Y109.76 E163.56136
G1 X68.73 Y110.76 E163.71932
G1 X69.36 Y110.78 E163.75081
G1 X69.67 Y110.72 E163.76647
G1 X69.81 Y110.80 E163.77460
G1 X70.14 Y110.81 E163.79073
G1 X70.54 Y111.21 E163.81937
G1 X72.64 Y112.40 E163.93974
G1 X72.72 Y112.43 E163.94366
G1 X72.75 Y112.46 E163.94599
G1 X72.98 Y112.59 E163.95888
G1 X73.22 Y112.90 E163.97842
G1 X74.73 Y114.31 E164.08168
G1 X75.77 Y115.33 E164.15417
G1 X76.17 Y116.30 E164.20682
G1 X76.42 Y116.73 E164.23159
G1 X76.80 Y117.40 E164.26994
G1 X77.44 Y118.96 E164.35416
G1 X77.58 Y120.62 E164.43713
G1 X77.48 Y122.23 E164.51755
G1 X77.43 Y122.46 E164.52925
G1 X77.42 Y122.75 E164.54399
G1 X77.36 Y123.34 E164.57333
G1 X77.05 Y125.03 E164.65883
G1 X76.17 Y126.67 E164.75189
G1 X75.01 Y128.02 E164.84060
G1 X73.78 Y129.01 E164.91972
G1 X72.95 Y129.34 E164.96408
G1 X72.42 Y129.62 E164.99399
G1 X71.43 Y129.97 E165.04633
G1 X70.03 Y130.46 E165.12055
G1 X69.44 Y131.00 E165.16016
G1 X67.97 Y131.83 E165.24474
G1 X66.82 Y132.36 E165.30786
G1 X65.00 Y132.86 E165.40170
G1 X63.40 Y133.01 E165.48196
G1 X61.67 Y132.97 E165.56854
G1 X59.90 Y132.35 E165.66217
G1 X58.73 Y131.89 E165.72467
G1 X54.81 Y128.77 E165.97456
G1 X55.28 Y125.73 E166.12778
G1 X55.24 Y125.66 E166.13182
G1 X54.87 Y124.78 E166.17964
G1 X54.67 Y123.80 E166.22958
G1 X54.40 Y120.94 E166.37280
G1 X54.39 Y120.17 E166.41127
G1 X54.55 Y118.61 E166.48934
G1 X54.91 Y117.59 E166.54342
G1 X55.60 Y116.05 E166.62764
G1 X57.40 Y113.65 E166.77734
G1 X58.28 Y113.25 E166.82549
G1 X59.17 Y111.95 E166.90373
G1 X60.59 Y111.06 E166.98756
G1 X60.99 Y110.77 E167.01238
G0 F12000 X61.19 Y111.12
G1 F2400 X62.44 Y110.57 E167.08030
G1 X64.16 Y110.25 E167.16763
G1 X65.67 Y110.17 E167.24337
G1 X68.66 Y111.16 E167.40048
G1 X69.40 Y111.19 E167.43731
G1 X69.60 Y111.14 E167.44772
G1 X69.70 Y111.20 E167.45310
G1 X69.97 Y111.20 E167.46643
G1 X70.30 Y111.54 E167.49006
G1 X72.47 Y112.76 E167.61425
G1 X72.50 Y112.78 E167.61591
G1 X72.51 Y112.79 E167.61687
G1 X72.71 Y112.90 E167.62810
G1 X72.92 Y113.17 E167.64516
G1 X74.45 Y114.60 E167.74979
G1 X75.43 Y115.56 E167.81798
G1 X75.81 Y116.48 E167.86808
G1 X76.07 Y116.93 E167.89383
G1 X76.44 Y117.58 E167.93082
G1 X77.05 Y119.06 E168.01079
G1 X77.18 Y120.63 E168.08925
G1 X77.09 Y122.17 E168.16663
G1 X77.03 Y122.41 E168.17853
G1 X77.02 Y122.72 E168.19427
G1 X76.96 Y123.28 E168.22245
G1 X76.67 Y124.89 E168.30405
G1 X75.84 Y126.44 E168.39175
G1 X74.73 Y127.73 E168.47640
G1 X73.57 Y128.66 E168.55065
G1 X72.77 Y128.98 E168.59357
G1 X72.26 Y129.26 E168.62275
G1 X71.30 Y129.60 E168.67342
G1 X69.82 Y130.10 E168.75172
G1 X69.20 Y130.67 E168.79324
G1 X67.78 Y131.47 E168.87469
G1 X66.68 Y131.98 E168.93543
G1 X64.93 Y132.47 E169.02580
G1 X63.39 Y132.61 E169.10316
G1 X61.74 Y132.57 E169.18545
G1 X60.04 Y131.97 E169.27545
G1 X58.94 Y131.54 E169.33461
G1 X55.24 Y128.60 E169.56995
G1 X55.70 Y125.67 E169.71817
G1 X55.61 Y125.49 E169.72792
G1 X55.26 Y124.66 E169.77298
G1 X55.07 Y123.74 E169.81986
G1 X54.80 Y120.92 E169.96118
G1 X54.79 Y120.19 E169.99770
G1 X54.94 Y118.70 E170.07226
G1 X55.28 Y117.74 E170.12310
G1 X55.95 Y116.26 E170.20433
G1 X57.66 Y113.97 E170.34675
G1 X58.54 Y113.56 E170.39529
G1 X59.45 Y112.25 E170.47489
G1 X60.82 Y111.39 E170.55554
G1 X61.19 Y111.12 E170.57872
G0 F12000 X61.40 Y111.47
G1 F2400 X62.56 Y110.95 E170.64222
G1 X64.21 Y110.64 E170.72589
G1 X65.62 Y110.57 E170.79649
G1 X68.59 Y111.56 E170.95276
G1 X69.43 Y111.59 E170.99469
G1 X69.54 Y111.56 E171.00020
G1 X69.59 Y111.59 E171.00305
G1 X69.80 Y111.60 E171.01339
G1 X70.06 Y111.86 E171.03177
G1 X72.44 Y113.21 E171.16858
G1 X72.63 Y113.44 E171.18322
G1 X74.18 Y114.89 E171.28905
G1 X75.09 Y115.79 E171.35294
G1 X75.45 Y116.66 E171.40024
G1 X75.73 Y117.13 E171.42731
G1 X76.08 Y117.75 E171.46292
G1 X76.66 Y119.16 E171.53861
G1 X76.78 Y120.63 E171.61252
G1 X76.69 Y122.12 E171.68690
G1 X76.64 Y122.36 E171.69895
G1 X76.62 Y122.69 E171.71565
G1 X76.56 Y123.23 E171.74268
G1 X76.29 Y124.76 E171.82037
G1 X75.51 Y126.22 E171.90269
G1 X74.45 Y127.44 E171.98330
G1 X73.37 Y128.31 E172.05273
G1 X72.61 Y128.61 E172.09355
G1 X72.09 Y128.89 E172.12269
G1 X71.17 Y129.22 E172.17165
G1 X69.64 Y129.74 E172.25240
G1 X69.62 Y129.74 E172.25330
G1 X68.97 Y130.34 E172.29758
G1 X67.60 Y131.11 E172.37592
G1 X66.54 Y131.61 E172.43422
G1 X64.86 Y132.07 E172.52122
G1 X63.38 Y132.21 E172.59557
G1 X61.81 Y132.17 E172.67357
G1 X60.18 Y131.60 E172.76000
G1 X59.14 Y131.19 E172.81585
G1 X55.67 Y128.43 E173.03663
G1 X56.11 Y125.60 E173.17980
G1 X55.97 Y125.32 E173.19528
G1 X55.64 Y124.54 E173.23752
G1 X55.46 Y123.68 E173.28135
G1 X55.20 Y120.90 E173.42077
G1 X55.19 Y120.21 E173.45534
G1 X55.33 Y118.79 E173.52639
G1 X55.65 Y117.89 E173.57401
G1 X56.30 Y116.46 E173.65220
G1 X57.92 Y114.29 E173.78736
G1 X58.81 Y113.88 E173.83638
G1 X59.73 Y112.55 E173.91731
G1 X61.04 Y111.72 E173.99451
G1 X61.40 Y111.47 E174.01624
G0 F12000 X61.60 Y111.82
G1 F2400 X62.68 Y111.33 E174.07526
G1 X64.25 Y111.04 E174.15528
G1 X65.57 Y110.97 E174.22083
G1 X68.52 Y111.96 E174.37615
G1 X69.47 Y111.99 E174.42362
G1 X69.47 Y111.99 E174.42383
G1 X69.48 Y111.99 E174.42394
G1 X69.63 Y111.99 E174.43143
G1 X69.82 Y112.18 E174.44473
G1 X72.18 Y113.52 E174.58018
G1 X72.33 Y113.71 E174.59258
G1 X73.90 Y115.17 E174.69953
G1 X74.75 Y116.01 E174.75912
G1 X75.09 Y116.84 E174.80374
G1 X75.38 Y117.33 E174.83193
G1 X75.72 Y117.93 E174.86624
G1 X76.26 Y119.25 E174.93767
G1 X76.38 Y120.64 E175.00697
G1 X76.29 Y122.06 E175.07835
G1 X76.24 Y122.29 E175.09009
G1 X76.22 Y122.66 E175.10828
G1 X76.17 Y123.17 E175.13411
G1 X75.91 Y124.63 E175.20790
G1 X75.18 Y125.99 E175.28484
G1 X74.18 Y127.15 E175.36139
G1 X73.17 Y127.96 E175.42606
G1 X72.44 Y128.25 E175.46520
G1 X71.93 Y128.52 E175.49382
G1 X71.04 Y128.84 E175.54114
G1 X69.59 Y129.34 E175.61741
G1 X69.48 Y129.33 E175.62287
G1 X68.73 Y130.02 E175.67386
G1 X67.42 Y130.76 E175.74910
G1 X66.40 Y131.23 E175.80497
G1 X64.79 Y131.68 E175.88850
G1 X63.36 Y131.81 E175.95994
G1 X61.88 Y131.78 E176.03365
G1 X60.32 Y131.23 E176.11650
G1 X59.34 Y130.84 E176.16897
G1 X56.10 Y128.26 E176.37519
G1 X56.53 Y125.53 E176.51332
G1 X56.33 Y125.15 E176.53460
G1 X56.02 Y124.42 E176.57396
G1 X55.86 Y123.62 E176.61480
G1 X55.60 Y120.88 E176.75235
G1 X55.59 Y120.22 E176.78498
G1 X55.73 Y118.88 E176.85247
G1 X56.02 Y118.04 E176.89680
G1 X56.65 Y116.67 E176.97200
G1 X58.18 Y114.61 E177.09988
G1 X59.08 Y114.20 E177.14919
G1 X60.01 Y112.84 E177.23159
G1 X61.26 Y112.06 E177.30517
G1 X61.60 Y111.82 E177.32568
G0 F12000 X61.80 Y112.16
G1 F2400 X62.80 Y111.72 E177.38022
G1 X64.30 Y111.44 E177.45664
G1 X65.51 Y111.38 E177.51704
G1 X68.45 Y112.36 E177.67158
G1 X69.46 Y112.39 E177.72184
G1 X69.57 Y112.50 E177.72992
G1 X71.91 Y113.83 E177.86414
G1 X72.03 Y113.98 E177.87402
G1 X73.62 Y115.46 E177.98239
G1 X74.41 Y116.24 E178.03767
G1 X74.73 Y117.02 E178.07943
G1 X75.03 Y117.53 E178.10894
G1 X75.35 Y118.10 E178.14187
G1 X75.87 Y119.35 E178.20904
G1 X75.98 Y120.64 E178.27383
G1 X75.89 Y122.01 E178.34221
G1 X75.84 Y122.24 E178.35401
G1 X75.82 Y122.62 E178.37325
G1 X75.77 Y123.12 E178.39798
G1 X75.52 Y124.50 E178.46782
G1 X74.85 Y125.76 E178.53942
G1 X73.90 Y126.86 E178.61190
G1 X72.96 Y127.61 E178.67175
G1 X72.27 Y127.89 E178.70887
G1 X71.77 Y128.16 E178.73731
G1 X70.91 Y128.46 E178.78299
G1 X69.54 Y128.93 E178.85481
G1 X69.36 Y128.91 E178.86428
G1 X69.28 Y128.97 E178.86873
G1 X68.50 Y129.69 E178.92223
G1 X67.23 Y130.40 E178.99438
G1 X66.26 Y130.85 E179.04782
G1 X64.72 Y131.28 E179.12799
G1 X63.35 Y131.41 E179.19648
G1 X61.96 Y131.38 E179.26584
G1 X60.46 Y130.85 E179.34514
G1 X59.54 Y130.49 E179.39423
G1 X56.53 Y128.10 E179.58597
G1 X56.94 Y125.46 E179.71910
G1 X56.69 Y124.98 E179.74608
G1 X56.41 Y124.31 E179.78261
G1 X56.26 Y123.56 E179.82034
G1 X56.00 Y120.86 E179.95604
G1 X55.99 Y120.24 E179.98673
G1 X56.12 Y118.96 E180.05076
G1 X56.40 Y118.19 E180.09182
G1 X56.99 Y116.87 E180.16398
G1 X58.44 Y114.93 E180.28459
G1 X59.34 Y114.52 E180.33395
G1 X59.34 Y114.52 E180.33442
G1 X60.30 Y113.14 E180.41810
G1 X61.49 Y112.39 E180.48839
G1 X61.80 Y112.16 E180.50732
G0 F12000 X62.00 Y112.51
G1 F2400 X62.92 Y112.11 E180.55744
G1 X64.35 Y111.84 E180.63016
G1 X65.46 Y111.78 E180.68552
G1 X68.34 Y112.74 E180.83694
G1 X68.34 Y112.75 E180.83763
G1 X69.29 Y112.78 E180.88476
G1 X69.34 Y112.83 E180.88832
G1 X69.34 Y112.83 E180.88862
G1 X71.65 Y114.14 E181.02071
G1 X71.74 Y114.25 E181.02806
G1 X73.35 Y115.75 E181.13774
G1 X74.07 Y116.47 E181.18871
G1 X74.38 Y117.20 E181.22794
G1 X74.69 Y117.72 E181.25851
G1 X74.99 Y118.28 E181.29004
G1 X75.47 Y119.44 E181.35294
G1 X75.58 Y120.64 E181.41318
G1 X75.50 Y121.95 E181.47851
G1 X75.44 Y122.19 E181.49047
G1 X75.42 Y122.59 E181.51076
G1 X75.37 Y123.06 E181.53428
G1 X75.14 Y124.36 E181.60027
G1 X74.52 Y125.53 E181.66645
G1 X73.62 Y126.57 E181.73490
G1 X72.76 Y127.26 E181.78991
G1 X72.10 Y127.53 E181.82547
G1 X71.61 Y127.79 E181.85333
G1 X70.78 Y128.09 E181.89728
G1 X69.50 Y128.52 E181.96468
G1 X69.24 Y128.50 E181.97766
G1 X69.03 Y128.66 E181.99101
G1 X68.26 Y129.37 E182.04299
G1 X67.05 Y130.05 E182.11206
G1 X66.12 Y130.48 E182.16308
G1 X64.64 Y130.89 E182.23978
G1 X63.33 Y131.01 E182.30536
G1 X62.03 Y130.98 E182.37043
G1 X60.60 Y130.48 E182.44611
G1 X59.75 Y130.14 E182.49185
G1 X56.97 Y127.93 E182.66904
G1 X57.36 Y125.39 E182.79717
G1 X57.05 Y124.81 E182.82991
G1 X56.79 Y124.19 E182.86363
G1 X56.65 Y123.50 E182.89830
G1 X56.40 Y120.83 E183.03211
G1 X56.39 Y120.26 E183.06090
G1 X56.51 Y119.05 E183.12136
G1 X56.77 Y118.34 E183.15918
G1 X57.34 Y117.07 E183.22835
G1 X58.70 Y115.25 E183.34166
G1 X59.53 Y114.87 E183.38738
G1 X59.63 Y114.81 E183.39335
G1 X59.63 Y114.80 E183.39390
G1 X60.58 Y113.43 E183.47684
G1 X61.72 Y112.72 E183.54406
G1 X62.00 Y112.51 E183.56120
G0 F12000 X62.20 Y112.86
G1 F2400 X63.03 Y112.49 E183.60688
G1 X64.40 Y112.24 E183.67599
G1 X65.40 Y112.18 E183.72621
G1 X68.06 Y113.07 E183.86607
G1 X68.10 Y113.14 E183.87033
G1 X69.12 Y113.18 E183.92100
G1 X69.21 Y113.27 E183.92756
G1 X69.28 Y113.26 E183.93102
G1 X71.38 Y114.45 E184.05157
G1 X71.44 Y114.53 E184.05658
G1 X73.07 Y116.04 E184.16749
G1 X73.74 Y116.70 E184.21417
G1 X74.02 Y117.38 E184.25098
G1 X74.34 Y117.92 E184.28239
G1 X74.63 Y118.45 E184.31263
G1 X75.08 Y119.54 E184.37126
G1 X75.18 Y120.65 E184.42689
G1 X75.10 Y121.90 E184.48923
G1 X75.05 Y122.13 E184.50118
G1 X75.02 Y122.56 E184.52267
G1 X74.98 Y123.00 E184.54498
G1 X74.76 Y124.23 E184.60707
G1 X74.18 Y125.31 E184.66793
G1 X73.34 Y126.28 E184.73231
G1 X72.55 Y126.91 E184.78251
G1 X71.93 Y127.16 E184.81602
G1 X71.44 Y127.42 E184.84373
G1 X70.64 Y127.71 E184.88602
G1 X69.45 Y128.12 E184.94898
G1 X69.12 Y128.09 E184.96543
G1 X68.77 Y128.35 E184.98768
G1 X68.02 Y129.04 E185.03817
G1 X66.87 Y129.69 E185.10409
G1 X65.99 Y130.10 E185.15271
G1 X64.57 Y130.49 E185.22604
G1 X63.32 Y130.61 E185.28866
G1 X62.10 Y130.58 E185.34939
G1 X60.74 Y130.10 E185.42150
G1 X59.95 Y129.79 E185.46393
G1 X57.40 Y127.76 E185.62656
G1 X57.77 Y125.32 E185.74959
G1 X57.42 Y124.64 E185.78806
G1 X57.18 Y124.07 E185.81896
G1 X57.05 Y123.45 E185.85063
G1 X56.80 Y120.81 E185.98253
G1 X56.79 Y120.28 E186.00937
G1 X56.91 Y119.14 E186.06633
G1 X57.14 Y118.49 E186.10088
G1 X57.69 Y117.28 E186.16704
G1 X58.95 Y115.58 E186.27307
G1 X59.71 Y115.23 E186.31459
G1 X59.94 Y115.08 E186.32820
G1 X59.98 Y115.00 E186.33293
G1 X60.86 Y113.72 E186.41008
G1 X61.93 Y113.05 E186.47314
G1 X62.20 Y112.86 E186.48953
G0 F12000 X62.40 Y113.21
G1 F2400 X63.15 Y112.87 E186.53076
G1 X64.44 Y112.64 E186.59622
G1 X65.35 Y112.59 E186.64138
G1 X67.79 Y113.40 E186.76962
G1 X67.86 Y113.54 E186.77743
G1 X68.95 Y113.57 E186.83164
G1 X69.08 Y113.71 E186.84113
G1 X69.21 Y113.68 E186.84782
G1 X71.12 Y114.75 E186.95684
G1 X71.18 Y114.83 E186.96185
G1 X71.20 Y114.84 E186.96281
G1 X72.79 Y116.33 E187.07175
G1 X73.40 Y116.93 E187.11415
G1 X73.66 Y117.55 E187.14777
G1 X73.99 Y118.12 E187.18079
G1 X74.27 Y118.63 E187.20964
G1 X74.69 Y119.63 E187.26407
G1 X74.78 Y120.65 E187.31514
G1 X74.70 Y121.84 E187.37447
G1 X74.65 Y122.07 E187.38607
G1 X74.62 Y122.53 E187.40901
G1 X74.58 Y122.95 E187.43023
G1 X74.38 Y124.10 E187.48836
G1 X73.85 Y125.08 E187.54385
G1 X73.06 Y125.99 E187.60412
G1 X72.35 Y126.56 E187.64956
G1 X71.76 Y126.80 E187.68146
G1 X71.28 Y127.06 E187.70859
G1 X70.51 Y127.33 E187.74925
G1 X69.40 Y127.71 E187.80774
G1 X69.00 Y127.67 E187.82769
G1 X68.51 Y128.05 E187.85877
G1 X67.78 Y128.72 E187.90785
G1 X66.69 Y129.33 E187.97067
G1 X65.85 Y129.72 E188.01685
G1 X64.50 Y130.10 E188.08676
G1 X63.31 Y130.21 E188.14644
G1 X62.17 Y130.18 E188.20288
G1 X60.88 Y129.73 E188.27140
G1 X60.15 Y129.44 E188.31044
G1 X57.83 Y127.59 E188.45854
G1 X58.19 Y125.25 E188.57657
G1 X57.78 Y124.47 E188.62080
G1 X57.56 Y123.95 E188.64889
G1 X57.45 Y123.39 E188.67750
G1 X57.20 Y120.79 E188.80755
G1 X57.19 Y120.29 E188.83244
G1 X57.30 Y119.23 E188.88589
G1 X57.51 Y118.64 E188.91715
G1 X58.03 Y117.48 E188.98029
G1 X59.21 Y115.90 E189.07905
G1 X59.90 Y115.58 E189.11678
G1 X60.26 Y115.36 E189.13769
G1 X60.33 Y115.20 E189.14660
G1 X61.14 Y114.02 E189.21791
G1 X62.16 Y113.39 E189.27756
G1 X62.40 Y113.21 E189.29250
G0 F12000 X62.60 Y113.56
G1 F2400 X63.27 Y113.26 E189.32928
G1 X64.49 Y113.03 E189.39109
G1 X65.29 Y112.99 E189.43111
G1 X67.51 Y113.73 E189.54781
G1 X67.62 Y113.93 E189.55915
G1 X68.78 Y113.97 E189.61686
G1 X68.96 Y114.14 E189.62934
G1 X69.15 Y114.10 E189.63919
G1 X70.85 Y115.06 E189.73673
G1 X70.93 Y115.17 E189.74319
G1 X70.98 Y115.19 E189.74577
G1 X72.52 Y116.62 E189.85061
G1 X73.06 Y117.16 E189.88871
G1 X73.30 Y117.73 E189.91990
G1 X73.64 Y118.32 E189.95384
G1 X73.91 Y118.80 E189.98136
G1 X74.30 Y119.73 E190.03147
G1 X74.38 Y120.66 E190.07798
G1 X74.31 Y121.78 E190.13432
G1 X74.25 Y122.02 E190.14612
G1 X74.22 Y122.50 E190.17006
G1 X74.18 Y122.89 E190.19007
G1 X73.99 Y123.96 E190.24430
G1 X73.52 Y124.85 E190.29443
G1 X72.78 Y125.70 E190.35067
G1 X72.15 Y126.21 E190.39124
G1 X71.59 Y126.44 E190.42133
G1 X71.12 Y126.69 E190.44812
G1 X70.38 Y126.95 E190.48708
G1 X69.35 Y127.30 E190.54118
G1 X68.89 Y127.26 E190.56459
G1 X68.25 Y127.74 E190.60461
G1 X67.55 Y128.39 E190.65213
G1 X66.50 Y128.98 E190.71191
G1 X65.71 Y129.35 E190.75568
G1 X64.42 Y129.70 E190.82212
G1 X63.29 Y129.81 E190.87889
G1 X62.25 Y129.78 E190.93099
G1 X61.02 Y129.35 E190.99596
G1 X60.35 Y129.09 E191.03161
G1 X58.26 Y127.42 E191.16519
G1 X58.60 Y125.18 E191.27817
G1 X58.14 Y124.30 E191.32814
G1 X57.94 Y123.83 E191.35340
G1 X57.84 Y123.33 E191.37897
G1 X57.60 Y120.77 E191.50710
G1 X57.59 Y120.31 E191.53006
G1 X57.69 Y119.31 E191.58000
G1 X57.88 Y118.78 E191.60804
G1 X58.38 Y117.69 E191.66817
G1 X59.47 Y116.22 E191.75964
G1 X60.09 Y115.93 E191.79365
G1 X60.57 Y115.64 E191.82173
G1 X60.68 Y115.40 E191.83486
G1 X61.43 Y114.31 E191.90036
G1 X62.38 Y113.72 E191.95671
G1 X62.60 Y113.56 E191.97007
G0 F12000 X62.80 Y113.91
G1 F2400 X63.39 Y113.64 E192.00239
G1 X64.54 Y113.43 E192.06054
G1 X65.24 Y113.39 E192.09552
G1 X67.24 Y114.06 E192.20061
G1 X67.37 Y114.31 E192.21474
G1 X67.56 Y114.33 E192.22407
G1 X68.61 Y114.36 E192.27638
G1 X68.83 Y114.58 E192.29173
G1 X69.08 Y114.52 E192.30478
G1 X70.58 Y115.37 E192.39089
G1 X70.68 Y115.50 E192.39881
G1 X70.76 Y115.53 E192.40304
G1 X72.24 Y116.91 E192.50379
G1 X72.72 Y117.38 E192.53759
G1 X72.94 Y117.91 E192.56612
G1 X73.30 Y118.52 E192.60118
G1 X73.55 Y118.98 E192.62736
G1 X73.90 Y119.83 E192.67319
G1 X73.97 Y120.66 E192.71515
G1 X73.91 Y121.73 E192.76844
G1 X73.86 Y121.97 E192.78064
G1 X73.83 Y122.46 E192.80538
G1 X73.79 Y122.84 E192.82424
G1 X73.61 Y123.83 E192.87457
G1 X73.19 Y124.62 E192.91932
G1 X72.50 Y125.42 E192.97149
G1 X71.94 Y125.86 E193.00727
G1 X71.42 Y126.07 E193.03569
G1 X70.95 Y126.33 E193.06196
G1 X70.25 Y126.58 E193.09923
G1 X69.31 Y126.90 E193.14887
G1 X68.77 Y126.84 E193.17579
G1 X67.99 Y127.44 E193.22464
G1 X67.31 Y128.06 E193.27072
G1 X66.32 Y128.62 E193.32737
G1 X65.57 Y128.97 E193.36871
G1 X64.35 Y129.31 E193.43179
G1 X63.28 Y129.41 E193.48560
G1 X62.32 Y129.38 E193.53340
G1 X61.16 Y128.98 E193.59478
G1 X60.56 Y128.74 E193.62712
G1 X58.69 Y127.25 E193.74613
G1 X59.00 Y125.23 E193.84831
G1 X59.04 Y125.15 E193.85269
G1 X58.50 Y124.13 E193.91033
G1 X58.33 Y123.71 E193.93278
G1 X58.24 Y123.27 E193.95528
G1 X58.00 Y120.75 E194.08152
G1 X57.99 Y120.33 E194.10253
G1 X58.09 Y119.40 E194.14896
G1 X58.25 Y118.94 E194.17371
G1 X58.72 Y117.89 E194.23083
G1 X59.73 Y116.54 E194.31507
G1 X60.28 Y116.29 E194.34517
G1 X60.88 Y115.91 E194.38057
G1 X61.03 Y115.59 E194.39793
G1 X61.71 Y114.61 E194.45762
G1 X62.61 Y114.05 E194.51054
G1 X62.80 Y113.91 E194.52248
G0 F12000 X63.00 Y114.25
G1 F2400 X63.51 Y114.03 E194.55037
G1 X64.59 Y113.83 E194.60487
G1 X65.19 Y113.80 E194.63474
G1 X66.96 Y114.39 E194.72820
G1 X67.12 Y114.69 E194.74502
G1 X67.53 Y114.73 E194.76558
G1 X68.44 Y114.76 E194.81071
G1 X68.70 Y115.02 E194.82902
G1 X69.02 Y114.95 E194.84524
G1 X70.32 Y115.68 E194.91981
G1 X70.44 Y115.83 E194.92919
G1 X70.55 Y115.87 E194.93509
G1 X71.96 Y117.19 E195.03174
G1 X72.38 Y117.61 E195.06126
G1 X72.58 Y118.09 E195.08694
G1 X72.95 Y118.72 E195.12331
G1 X73.19 Y119.15 E195.14810
G1 X73.51 Y119.92 E195.18973
G1 X73.57 Y120.67 E195.22714
G1 X73.51 Y121.67 E195.27742
G1 X73.46 Y121.91 E195.28942
G1 X73.43 Y122.43 E195.31546
G1 X73.39 Y122.78 E195.33317
G1 X73.23 Y123.70 E195.37959
G1 X72.86 Y124.39 E195.41896
G1 X72.22 Y125.13 E195.46711
G1 X71.74 Y125.51 E195.49803
G1 X71.24 Y125.71 E195.52478
G1 X70.79 Y125.96 E195.55057
G1 X70.12 Y126.20 E195.58618
G1 X69.26 Y126.49 E195.63138
G1 X68.65 Y126.43 E195.66171
G1 X67.74 Y127.13 E195.71918
G1 X67.07 Y127.74 E195.76406
G1 X66.14 Y128.26 E195.81761
G1 X65.43 Y128.59 E195.85656
G1 X64.28 Y128.91 E195.91616
G1 X63.26 Y129.01 E195.96706
G1 X62.39 Y128.99 E196.01052
G1 X61.30 Y128.60 E196.06831
G1 X60.76 Y128.39 E196.09730
G1 X59.12 Y127.08 E196.20180
G1 X59.39 Y125.34 E196.28970
G1 X59.49 Y125.12 E196.30176
G1 X59.45 Y125.08 E196.30463
G1 X58.86 Y123.95 E196.36797
G1 X58.71 Y123.59 E196.38755
G1 X58.63 Y123.21 E196.40705
G1 X58.40 Y120.73 E196.53138
G1 X58.40 Y120.35 E196.55049
G1 X58.48 Y119.49 E196.59336
G1 X58.62 Y119.08 E196.61490
G1 X59.07 Y118.10 E196.66900
G1 X59.99 Y116.86 E196.74590
G1 X60.47 Y116.64 E196.77227
G1 X61.20 Y116.19 E196.81490
G1 X61.38 Y115.79 E196.83649
G1 X61.99 Y114.91 E196.89034
G1 X62.84 Y114.38 E196.94005
G1 X63.00 Y114.25 E196.95036
G0 F12000 X63.20 Y114.60
G1 F2400 X63.63 Y114.41 E196.97384
G1 X64.63 Y114.23 E197.02468
G1 X65.13 Y114.20 E197.04946
G1 X66.69 Y114.72 E197.13136
G1 X66.88 Y115.06 E197.15086
G1 X67.51 Y115.13 E197.18270
G1 X68.27 Y115.15 E197.22053
G1 X68.57 Y115.45 E197.24181
G1 X68.95 Y115.37 E197.26124
G1 X70.05 Y115.99 E197.32433
G1 X70.19 Y116.16 E197.33524
G1 X70.33 Y116.22 E197.34263
G1 X71.69 Y117.48 E197.43526
G1 X72.04 Y117.84 E197.46044
G1 X72.22 Y118.27 E197.48375
G1 X72.60 Y118.92 E197.52099
G1 X72.83 Y119.33 E197.54445
G1 X73.12 Y120.02 E197.58176
G1 X73.17 Y120.67 E197.61461
G1 X73.11 Y121.62 E197.66189
G1 X73.06 Y121.85 E197.67390
G1 X73.03 Y122.40 E197.70114
G1 X73.00 Y122.73 E197.71764
G1 X72.84 Y123.57 E197.76016
G1 X72.52 Y124.17 E197.79418
G1 X71.95 Y124.84 E197.83829
G1 X71.54 Y125.16 E197.86441
G1 X71.08 Y125.35 E197.88918
G1 X70.63 Y125.59 E197.91472
G1 X69.98 Y125.82 E197.94866
G1 X69.21 Y126.08 E197.98943
G1 X68.54 Y126.02 E198.02331
G1 X67.48 Y126.82 E198.08919
G1 X66.84 Y127.41 E198.13304
G1 X65.96 Y127.91 E198.18344
G1 X65.29 Y128.22 E198.21996
G1 X64.21 Y128.52 E198.27619
G1 X63.25 Y128.61 E198.32409
G1 X62.47 Y128.59 E198.36326
G1 X61.44 Y128.23 E198.41751
G1 X60.96 Y128.04 E198.44313
G1 X59.55 Y126.92 E198.53310
G1 X59.78 Y125.46 E198.60666
G1 X59.95 Y125.07 E198.62812
G1 X59.79 Y124.86 E198.64127
G1 X59.23 Y123.78 E198.70183
G1 X59.10 Y123.47 E198.71867
G1 X59.03 Y123.15 E198.73512
G1 X58.80 Y120.71 E198.85754
G1 X58.80 Y120.36 E198.87470
G1 X58.87 Y119.58 E198.91411
G1 X58.99 Y119.23 E198.93237
G1 X59.42 Y118.30 E198.98345
G1 X60.25 Y117.18 E199.05311
G1 X60.67 Y116.99 E199.07588
G1 X61.51 Y116.46 E199.12547
G1 X61.73 Y115.99 E199.15131
G1 X62.27 Y115.20 E199.19935
G1 X63.06 Y114.71 E199.24550
G1 X63.20 Y114.60 E199.25443
G0 F12000 X63.40 Y114.95
G1 F2400 X63.75 Y114.80 E199.27342
G1 X64.68 Y114.62 E199.32066
G1 X65.08 Y114.60 E199.34034
G1 X66.41 Y115.05 E199.41066
G1 X66.63 Y115.44 E199.43306
G1 X66.64 Y115.44 E199.43358
G1 X67.49 Y115.53 E199.47600
G1 X68.10 Y115.55 E199.50665
G1 X68.44 Y115.89 E199.53078
G1 X68.89 Y115.79 E199.55343
G1 X69.79 Y116.30 E199.60503
G1 X69.94 Y116.50 E199.61736
G1 X70.11 Y116.56 E199.62643
G1 X71.41 Y117.77 E199.71496
G1 X71.71 Y118.07 E199.73585
G1 X71.86 Y118.44 E199.75595
G1 X72.25 Y119.11 E199.79485
G1 X72.47 Y119.50 E199.81696
G1 X72.72 Y120.11 E199.85000
G1 X72.77 Y120.68 E199.87830
G1 X72.72 Y121.56 E199.92258
G1 X72.66 Y121.80 E199.93465
G1 X72.63 Y122.36 E199.96294
G1 X72.60 Y122.67 E199.97834
G1 X72.46 Y123.43 E200.01695
G1 X72.19 Y123.94 E200.04557
G1 X71.67 Y124.55 E200.08557
G1 X71.33 Y124.81 E200.10691
G1 X70.91 Y124.98 E200.12990
G1 X70.46 Y125.23 E200.15510
G1 X69.85 Y125.44 E200.18734
G1 X69.16 Y125.68 E200.22368
G1 X68.39 Y125.60 E200.26222
G1 X68.35 Y125.66 E200.26573
G1 X67.22 Y126.52 E200.33655
G1 X66.60 Y127.09 E200.37853
G1 X65.77 Y127.55 E200.42589
G1 X65.15 Y127.84 E200.45997
G1 X64.14 Y128.12 E200.51275
G1 X63.24 Y128.21 E200.55774
G1 X62.54 Y128.19 E200.59262
G1 X61.58 Y127.85 E200.64328
G1 X61.17 Y127.69 E200.66552
G1 X59.98 Y126.75 E200.74094
G1 X60.16 Y125.57 E200.80021
G1 X60.42 Y125.01 E200.83114
G1 X60.13 Y124.64 E200.85450
G1 X59.59 Y123.61 E200.91241
G1 X59.48 Y123.36 E200.92643
G1 X59.43 Y123.09 E200.93983
G1 X59.20 Y120.69 E201.06040
G1 X59.20 Y120.38 E201.07561
G1 X59.27 Y119.67 E201.11147
G1 X59.37 Y119.38 E201.12649
G1 X59.76 Y118.50 E201.17451
G1 X60.51 Y117.50 E201.23691
G1 X60.86 Y117.34 E201.25600
G1 X61.72 Y116.80 E201.30673
G1 X61.87 Y116.74 E201.31476
G1 X61.89 Y116.58 E201.32263
G1 X62.08 Y116.19 E201.34426
G1 X62.55 Y115.50 E201.38646
G1 X63.28 Y115.04 E201.42904
G1 X63.40 Y114.95 E201.43671
G0 F12000 X63.60 Y115.30
G1 F2400 X63.87 Y115.18 E201.45130
G1 X64.73 Y115.02 E201.49483
G1 X65.02 Y115.01 E201.50942
G1 X66.14 Y115.38 E201.56817
G1 X66.42 Y115.89 E201.59693
G1 X66.43 Y115.91 E201.59836
G1 X66.46 Y115.90 E201.59978
G1 X66.50 Y115.90 E201.60183
G1 X66.68 Y115.85 E201.61106
G1 X67.46 Y115.92 E201.65017
G1 X67.93 Y115.94 E201.67368
G1 X68.32 Y116.32 E201.70081
G1 X68.82 Y116.22 E201.72662
G1 X69.52 Y116.61 E201.76670
G1 X69.69 Y116.83 E201.78048
G1 X69.89 Y116.91 E201.79121
G1 X71.13 Y118.06 E201.87565
G1 X71.37 Y118.30 E201.89226
G1 X71.51 Y118.62 E201.91011
G1 X71.91 Y119.31 E201.94970
G1 X72.11 Y119.67 E201.97047
G1 X72.33 Y120.21 E201.99929
G1 X72.37 Y120.68 E202.02297
G1 X72.32 Y121.51 E202.06426
G1 X72.27 Y121.74 E202.07637
G1 X72.23 Y122.33 E202.10581
G1 X72.20 Y122.62 E202.12000
G1 X72.08 Y123.30 E202.15471
G1 X71.86 Y123.71 E202.17797
G1 X71.39 Y124.26 E202.21394
G1 X71.13 Y124.47 E202.23045
G1 X70.74 Y124.62 E202.25165
G1 X70.30 Y124.86 E202.27646
G1 X69.72 Y125.06 E202.30705
G1 X69.12 Y125.27 E202.33891
G1 X68.37 Y125.20 E202.37640
G1 X68.25 Y125.15 E202.38263
G1 X68.07 Y125.37 E202.39687
G1 X66.97 Y126.20 E202.46609
G1 X66.36 Y126.76 E202.50698
G1 X65.59 Y127.20 E202.55125
G1 X65.02 Y127.46 E202.58293
G1 X64.06 Y127.73 E202.63228
G1 X63.22 Y127.81 E202.67431
G1 X62.61 Y127.79 E202.70485
G1 X61.72 Y127.48 E202.75195
G1 X61.37 Y127.34 E202.77085
G1 X60.41 Y126.58 E202.83174
G1 X60.55 Y125.69 E202.87667
G1 X60.77 Y125.21 E202.90269
G1 X60.98 Y125.00 E202.91782
G1 X60.79 Y124.84 E202.93034
G1 X60.47 Y124.42 E202.95673
G1 X59.95 Y123.44 E203.01194
G1 X59.86 Y123.24 E203.02310
G1 X59.82 Y123.03 E203.03349
G1 X59.60 Y120.67 E203.15215
G1 X59.59 Y120.40 E203.16542
G1 X59.66 Y119.75 E203.19777
G1 X59.74 Y119.53 E203.20951
G1 X60.11 Y118.71 E203.25459
G1 X60.77 Y117.82 E203.30966
G1 X61.05 Y117.70 E203.32471
G1 X61.90 Y117.16 E203.37530
G1 X62.23 Y117.03 E203.39284
G1 X62.28 Y116.70 E203.40911
G1 X62.42 Y116.39 E203.42625
G1 X62.84 Y115.79 E203.46266
G1 X63.50 Y115.38 E203.50161
G1 X63.60 Y115.30 E203.50801
G0 F12000 X63.80 Y115.65
G1 F2400 X63.99 Y115.57 E203.51811
G1 X64.78 Y115.42 E203.55804
G1 X64.97 Y115.41 E203.56753
G1 X65.86 Y115.71 E203.61466
G1 X66.08 Y116.10 E203.63706
G1 X66.26 Y116.35 E203.65220
G1 X66.52 Y116.30 E203.66526
G1 X66.58 Y116.29 E203.66841
G1 X66.72 Y116.25 E203.67571
G1 X67.42 Y116.32 E203.71101
G1 X67.76 Y116.33 E203.72788
G1 X68.25 Y116.81 E203.76196
G1 X68.36 Y116.72 E203.76930
G1 X68.76 Y116.64 E203.78960
G1 X69.26 Y116.92 E203.81819
G1 X69.45 Y117.16 E203.83343
G1 X69.68 Y117.25 E203.84577
G1 X70.85 Y118.35 E203.92615
G1 X71.03 Y118.52 E203.93843
G1 X71.15 Y118.81 E203.95368
G1 X71.56 Y119.51 E203.99439
G1 X71.75 Y119.85 E204.01378
G1 X71.94 Y120.30 E204.03829
G1 X71.97 Y120.69 E204.05747
G1 X71.92 Y121.45 E204.09571
G1 X71.87 Y121.69 E204.10782
G1 X71.83 Y122.30 E204.13846
G1 X71.81 Y122.56 E204.15144
G1 X71.70 Y123.17 E204.18226
G1 X71.53 Y123.48 E204.20014
G1 X71.11 Y123.97 E204.23208
G1 X70.93 Y124.11 E204.24376
G1 X70.57 Y124.26 E204.26315
G1 X70.14 Y124.49 E204.28758
G1 X69.59 Y124.69 E204.31648
G1 X69.07 Y124.86 E204.34395
G1 X68.47 Y124.81 E204.37378
G1 X68.23 Y124.70 E204.38697
G1 X68.20 Y124.71 E204.38879
G1 X68.05 Y124.77 E204.39676
G1 X67.79 Y125.08 E204.41670
G1 X66.71 Y125.90 E204.48474
G1 X66.13 Y126.44 E204.52414
G1 X65.41 Y126.84 E204.56525
G1 X64.88 Y127.09 E204.59451
G1 X63.99 Y127.33 E204.64045
G1 X63.21 Y127.41 E204.67958
G1 X62.68 Y127.39 E204.70582
G1 X61.86 Y127.10 E204.74929
G1 X61.57 Y126.99 E204.76486
G1 X60.84 Y126.41 E204.81120
G1 X60.94 Y125.80 E204.84184
G1 X61.10 Y125.45 E204.86138
G1 X61.58 Y124.98 E204.89451
G1 X61.08 Y124.56 E204.92691
G1 X60.80 Y124.20 E204.94954
G1 X60.31 Y123.27 E205.00205
G1 X60.25 Y123.12 E205.01039
G1 X60.22 Y122.97 E205.01771
G1 X60.00 Y120.64 E205.13448
G1 X60.00 Y120.42 E205.14581
G1 X60.05 Y119.84 E205.17468
G1 X60.11 Y119.68 E205.18316
G1 X60.46 Y118.91 E205.22520
G1 X61.03 Y118.14 E205.27301
G1 X61.24 Y118.05 E205.28442
G1 X62.09 Y117.52 E205.33450
G1 X62.59 Y117.31 E205.36154
G1 X62.67 Y116.82 E205.38624
G1 X62.77 Y116.59 E205.39889
G1 X63.12 Y116.08 E205.42946
G1 X63.73 Y115.70 E205.46523
G1 X63.80 Y115.65 E205.46998
G0 F12000 X64.01 Y116.00
G1 F2400 X64.11 Y115.95 E205.47561
G1 X64.82 Y115.82 E205.51189
G1 X64.91 Y115.81 E205.51629
G1 X65.59 Y116.04 E205.55185
G1 X65.74 Y116.32 E205.56760
G1 X66.08 Y116.79 E205.59677
G1 X66.57 Y116.70 E205.62140
G1 X66.65 Y116.69 E205.62556
G1 X66.76 Y116.66 E205.63099
G1 X67.40 Y116.72 E205.66308
G1 X67.59 Y116.73 E205.67277
G1 X68.09 Y117.22 E205.70783
G1 X68.17 Y117.29 E205.71297
G1 X68.27 Y117.31 E205.71812
G1 X68.54 Y117.09 E205.73531
G1 X68.69 Y117.06 E205.74321
G1 X68.99 Y117.23 E205.76028
G1 X69.25 Y117.56 E205.78134
G1 X69.34 Y117.55 E205.78596
G1 X69.46 Y117.60 E205.79212
G1 X70.58 Y118.64 E205.86840
G1 X70.69 Y118.75 E205.87638
G1 X70.79 Y118.98 E205.88876
G1 X71.21 Y119.71 E205.93080
G1 X71.39 Y120.02 E205.94884
G1 X71.54 Y120.40 E205.96910
G1 X71.57 Y120.69 E205.98373
G1 X71.52 Y121.40 E206.01897
G1 X71.47 Y121.63 E206.03088
G1 X71.43 Y122.27 E206.06282
G1 X71.41 Y122.50 E206.07470
G1 X71.31 Y123.03 E206.10156
G1 X71.20 Y123.26 E206.11411
G1 X70.83 Y123.68 E206.14198
G1 X70.72 Y123.77 E206.14883
G1 X70.39 Y123.90 E206.16650
G1 X69.97 Y124.13 E206.19045
G1 X69.46 Y124.31 E206.21772
G1 X69.02 Y124.46 E206.24071
G1 X68.58 Y124.42 E206.26296
G1 X68.27 Y124.28 E206.27998
G1 X68.07 Y124.33 E206.29004
G1 X67.81 Y124.44 E206.30439
G1 X67.52 Y124.78 E206.32699
G1 X66.45 Y125.59 E206.39378
G1 X65.89 Y126.11 E206.43174
G1 X65.23 Y126.48 E206.46976
G1 X64.74 Y126.71 E206.49659
G1 X63.92 Y126.94 E206.53911
G1 X63.20 Y127.00 E206.57528
G1 X62.76 Y126.99 E206.59719
G1 X62.00 Y126.73 E206.63711
G1 X61.77 Y126.64 E206.64929
G1 X61.27 Y126.24 E206.68111
G1 X61.33 Y125.92 E206.69741
G1 X61.43 Y125.68 E206.71043
G1 X62.17 Y124.97 E206.76159
G1 X61.37 Y124.28 E206.81387
G1 X61.14 Y123.98 E206.83274
G1 X60.67 Y123.10 E206.88255
G1 X60.63 Y123.00 E206.88807
G1 X60.62 Y122.92 E206.89234
G1 X60.40 Y120.62 E207.00720
G1 X60.40 Y120.43 E207.01663
G1 X60.45 Y119.93 E207.04195
G1 X60.48 Y119.83 E207.04719
G1 X60.80 Y119.12 E207.08620
G1 X61.29 Y118.47 E207.12674
G1 X61.43 Y118.40 E207.13451
G1 X62.27 Y117.87 E207.18408
G1 X62.72 Y117.69 E207.20817
G1 X62.80 Y117.68 E207.21209
G1 X62.95 Y117.50 E207.22388
G1 X62.98 Y117.41 E207.22862
G1 X63.05 Y116.94 E207.25256
G1 X63.12 Y116.79 E207.26070
G1 X63.40 Y116.38 E207.28546
G1 X63.95 Y116.04 E207.31765
G1 X64.01 Y116.00 E207.32108
G0 F12000 X64.52 Y117.09
;TYPE:WALL-INNER
G1 F2400 X64.79 Y117.05 E207.33452
G1 X65.19 Y117.60 E207.36863
G1 X65.71 Y118.08 E207.40393
G1 X66.73 Y117.89 E207.45599
G1 X66.87 Y117.88 E207.46299
G1 X67.06 Y117.89 E207.47267
G1 X67.29 Y118.12 E207.48865
G1 X67.63 Y118.40 E207.51051
G1 X68.54 Y118.60 E207.55695
G1 X68.72 Y118.83 E207.57159
G1 X68.99 Y118.80 E207.58499
G1 X69.68 Y119.44 E207.63215
G1 X70.16 Y120.30 E207.68111
G1 X70.31 Y120.55 E207.69569
G1 X70.36 Y120.69 E207.70307
G1 X70.36 Y120.70 E207.70383
G1 X70.33 Y121.23 E207.73012
G1 X70.28 Y121.47 E207.74233
G1 X70.24 Y122.15 E207.77646
G1 X70.22 Y122.35 E207.78629
G1 X70.17 Y122.61 E207.79952
G1 X70.06 Y122.74 E207.80822
G1 X69.89 Y122.81 E207.81747
G1 X69.48 Y123.03 E207.84058
G1 X68.88 Y123.24 E207.87202
G1 X68.37 Y123.00 E207.90036
G1 X67.69 Y123.19 E207.93552
G1 X67.08 Y123.44 E207.96843
G1 X66.68 Y123.91 E207.99922
G1 X65.68 Y124.67 E208.06185
G1 X65.58 Y124.76 E208.06870
G1 X64.14 Y123.99 E208.15017
G1 X63.56 Y123.84 E208.18007
G1 X63.42 Y123.86 E208.18680
G1 X63.76 Y123.52 E208.21068
G1 X63.34 Y122.52 E208.26456
G1 X62.42 Y121.34 E208.33909
G1 X61.87 Y120.62 E208.38461
G1 X61.61 Y120.73 E208.39852
G1 X61.60 Y120.49 E208.41072
G1 X61.62 Y120.22 E208.42426
G1 X61.84 Y119.73 E208.45070
G1 X62.09 Y119.41 E208.47099
G1 X62.83 Y118.94 E208.51463
G1 X63.03 Y118.86 E208.52579
G1 X63.39 Y118.81 E208.54378
G1 X63.97 Y118.17 E208.58662
G1 X64.09 Y117.92 E208.60074
G1 X64.16 Y117.65 E208.61462
G1 X64.21 Y117.33 E208.63059
G1 X64.25 Y117.27 E208.63453
G1 X64.52 Y117.09 E208.65049
G0 F12000 X64.38 Y116.72
G1 F2400 X64.83 Y116.63 E208.67373
G1 X65.04 Y116.70 E208.68457
G1 X65.49 Y117.33 E208.72334
G1 X65.83 Y117.65 E208.74661
G1 X66.67 Y117.49 E208.78932
G1 X66.80 Y117.48 E208.79592
G1 X66.84 Y117.47 E208.79760
G1 X67.25 Y117.51 E208.81811
G1 X67.81 Y118.03 E208.85631
G1 X68.48 Y118.17 E208.89056
G1 X68.62 Y118.06 E208.89985
G1 X68.90 Y118.41 E208.92192
G1 X69.13 Y118.38 E208.93341
G1 X70.01 Y119.21 E208.99395
G1 X70.07 Y119.34 E209.00097
G1 X70.51 Y120.10 E209.04507
G1 X70.67 Y120.38 E209.06103
G1 X70.76 Y120.59 E209.07228
G1 X70.77 Y120.70 E209.07789
G1 X70.73 Y121.28 E209.10713
G1 X70.68 Y121.52 E209.11923
G1 X70.64 Y122.19 E209.15267
G1 X70.62 Y122.39 E209.16260
G1 X70.55 Y122.77 E209.18196
G1 X70.53 Y122.80 E209.18371
G1 X70.30 Y123.08 E209.20171
G1 X70.06 Y123.17 E209.21460
G1 X69.65 Y123.39 E209.23782
G1 X68.93 Y123.64 E209.27593
G1 X68.79 Y123.63 E209.28294
G1 X68.33 Y123.43 E209.30773
G1 X67.81 Y123.57 E209.33456
G1 X67.32 Y123.77 E209.36123
G1 X66.96 Y124.20 E209.38915
G1 X65.94 Y124.98 E209.45328
G1 X65.42 Y125.46 E209.48848
G1 X64.85 Y125.78 E209.52096
G1 X64.46 Y125.95 E209.54223
G1 X63.77 Y126.15 E209.57817
G1 X63.17 Y126.20 E209.60808
G1 X62.90 Y126.20 E209.62170
G1 X62.27 Y125.98 E209.65474
G1 X62.61 Y125.65 E209.67789
G1 X63.74 Y126.05 E209.73763
G1 X64.31 Y125.93 E209.76667
G1 X65.01 Y124.91 E209.82818
G1 X63.99 Y124.37 E209.88557
G1 X63.53 Y124.25 E209.90933
G1 X63.17 Y124.29 E209.92761
G1 X62.90 Y124.53 E209.94548
G1 X62.89 Y124.55 E209.94687
G1 X62.80 Y124.46 E209.95295
G1 X61.95 Y123.72 E210.00915
G1 X61.81 Y123.55 E210.02048
G1 X61.50 Y122.96 E210.05367
G1 X61.63 Y123.14 E210.06469
G1 X61.95 Y123.69 E210.09644
G1 X62.74 Y123.99 E210.13875
G1 X63.29 Y123.42 E210.17823
G1 X63.00 Y122.72 E210.21622
G1 X62.10 Y121.59 E210.28802
G1 X61.74 Y121.11 E210.31811
G1 X61.27 Y121.32 E210.34400
G1 X61.20 Y120.58 E210.38093
G1 X61.20 Y120.47 E210.38671
G1 X61.23 Y120.11 E210.40461
G1 X61.50 Y119.53 E210.43666
G1 X61.81 Y119.11 E210.46276
G1 X62.64 Y118.59 E210.51151
G1 X62.93 Y118.47 E210.52744
G1 X63.19 Y118.43 E210.54053
G1 X63.63 Y117.95 E210.57312
G1 X63.71 Y117.78 E210.58232
G1 X63.83 Y117.18 E210.61299
G1 X63.97 Y116.97 E210.62548
G1 X64.38 Y116.72 E210.64948
G0 F12000 X64.18 Y116.37
;TYPE:WALL-OUTER
G1 F2400 X64.21 Y116.35 E210.65120
G1 X64.23 Y116.34 E210.65240
G1 X64.86 Y116.22 E210.68453
G1 X65.31 Y116.37 E210.70835
G1 X65.40 Y116.53 E210.71768
G1 X65.79 Y117.07 E210.75054
G1 X65.96 Y117.22 E210.76177
G1 X66.62 Y117.09 E210.79555
G1 X66.73 Y117.08 E210.80095
G1 X66.80 Y117.06 E210.80445
G1 X67.37 Y117.12 E210.83334
G1 X67.42 Y117.12 E210.83584
G1 X67.83 Y117.53 E210.86434
G1 X67.99 Y117.66 E210.87472
G1 X68.38 Y117.74 E210.89448
G1 X68.67 Y117.50 E210.91323
G1 X68.72 Y117.54 E210.91652
G1 X69.07 Y117.98 E210.94477
G1 X69.27 Y117.96 E210.95440
G1 X70.30 Y118.92 E211.02482
G1 X70.35 Y118.98 E211.02863
G1 X70.43 Y119.16 E211.03832
G1 X70.86 Y119.91 E211.08144
G1 X71.03 Y120.20 E211.09848
G1 X71.15 Y120.50 E211.11430
G1 X71.17 Y120.69 E211.12406
G1 X71.13 Y121.34 E211.15670
G1 X71.07 Y121.58 E211.16861
G1 X71.03 Y122.24 E211.20175
G1 X70.93 Y122.90 E211.23527
G1 X70.86 Y123.03 E211.24228
G1 X70.55 Y123.39 E211.26612
G1 X70.52 Y123.42 E211.26818
G1 X70.23 Y123.53 E211.28403
G1 X69.81 Y123.76 E211.30781
G1 X69.33 Y123.93 E211.33321
G1 X68.97 Y124.05 E211.35183
G1 X68.68 Y124.02 E211.36652
G1 X68.30 Y123.85 E211.38737
G1 X67.94 Y123.95 E211.40583
G1 X67.56 Y124.10 E211.42637
G1 X67.24 Y124.49 E211.45170
G1 X66.19 Y125.28 E211.51700
G1 X65.65 Y125.78 E211.55365
G1 X65.04 Y126.13 E211.58870
G1 X64.61 Y126.33 E211.61274
G1 X63.84 Y126.54 E211.65230
G1 X63.18 Y126.60 E211.68527
G1 X62.83 Y126.60 E211.70293
G1 X62.14 Y126.35 E211.73952
G1 X61.98 Y126.29 E211.74817
G1 X61.71 Y126.07 E211.76539
G1 X61.71 Y126.03 E211.76750
G1 X61.77 Y125.92 E211.77386
G1 X62.73 Y124.98 E211.84100
G1 X62.52 Y124.75 E211.85645
G1 X61.66 Y124.00 E211.91330
G1 X61.48 Y123.77 E211.92825
G1 X61.03 Y122.93 E211.97556
G1 X61.01 Y122.86 E211.97930
G1 X60.80 Y120.60 E212.09215
G1 X60.80 Y120.45 E212.09968
G1 X60.84 Y120.02 E212.12139
G1 X61.15 Y119.32 E212.15936
G1 X61.55 Y118.79 E212.19277
G1 X62.45 Y118.23 E212.24572
G1 X62.82 Y118.08 E212.26576
G1 X62.99 Y118.05 E212.27431
G1 X63.30 Y117.72 E212.29663
G1 X63.33 Y117.65 E212.30088
G1 X63.44 Y117.05 E212.33101
G1 X63.47 Y116.99 E212.33442
G1 X63.69 Y116.67 E212.35350
G1 X64.18 Y116.37 E212.38246
G0 F12000 X64.35 Y116.61
G0 X61.85 Y121.43
G0 X61.61 Y121.61
G1 F2400 X61.32 Y121.73 E212.39830
G1 X61.39 Y122.07 E212.41541
G1 X61.97 Y122.93 E212.46709
G1 X62.22 Y123.37 E212.49227
G1 X62.63 Y123.53 E212.51437
G1 X62.82 Y123.34 E212.52750
G1 X62.65 Y122.93 E212.54960
G1 X61.79 Y121.84 E212.61866
G1 X61.61 Y121.61 E212.63329
G0 F12000 X61.85 Y121.43
G0 X63.25 Y123.42
G0 X63.30 Y124.38
G0 X63.34 Y124.67
G1 F2400 X63.23 Y124.77 E212.64023
G1 X62.99 Y125.36 E212.67243
G1 X63.76 Y125.64 E212.71345
G1 X64.07 Y125.57 E212.72896
G1 X64.42 Y125.05 E212.76028
G1 X63.84 Y124.74 E212.79298
G1 X63.50 Y124.66 E212.81066
G1 X63.34 Y124.67 E212.81904
G0 F12000 X64.18 Y123.86
;TYPE:FILL
G1 F2400 X63.89 Y123.57 E212.83901
G0 F12000 X63.56 Y122.67
G1 F2400 X65.39 Y124.50 E212.96791
G0 F12000 X65.83 Y124.38
G1 F2400 X61.98 Y120.52 E213.23994
G0 F12000 X61.90 Y120.45
G1 F2400 X61.76 Y120.30 E213.25017
G0 F12000 X61.92 Y119.90
G1 F2400 X66.15 Y124.14 E213.54890
G0 F12000 X66.47 Y123.89
G1 F2400 X62.14 Y119.56 E213.85441
G0 F12000 X62.48 Y119.33
G1 F2400 X66.75 Y123.61 E214.15628
G0 F12000 X67.02 Y123.31
G1 F2400 X62.82 Y119.11 E214.45261
G0 F12000 X63.25 Y118.97
G1 F2400 X67.42 Y123.14 E214.74725
G0 F12000 X67.84 Y123.00
G1 F2400 X63.61 Y118.77 E215.04574
G0 F12000 X63.88 Y118.47
G1 F2400 X68.29 Y122.88 E215.35660
G0 F12000 X69.02 Y123.04
G1 F2400 X64.13 Y118.15 E215.70134
G0 F12000 X64.28 Y117.73
G1 F2400 X69.43 Y122.89 E216.06519
G0 F12000 X69.80 Y122.69
G1 F2400 X64.43 Y117.32 E216.44443
G0 F12000 X65.87 Y118.19
G1 F2400 X70.07 Y122.39 E216.74083
G0 F12000 X70.11 Y121.88
G1 F2400 X66.34 Y118.10 E217.00703
G0 F12000 X66.83 Y118.02
G1 F2400 X70.16 Y121.36 E217.24244
G0 F12000 X70.22 Y120.84
G1 F2400 X67.99 Y118.62 E217.39936
G0 F12000 X68.89 Y118.95
G1 F2400 X69.70 Y119.77 E217.45700
;LAYER:1
G0 F12000 X69.74 Y119.78 Z0.50
;TYPE:WALL-INNER
G1 F840 X70.27 Y120.72 E217.49265
G1 X70.29 Y120.94 E217.50027
G1 X70.27 Y121.21 E217.50925
G1 X70.17 Y121.68 E217.52501
G1 X70.10 Y122.46 E217.55108
G1 X70.08 Y122.62 E217.55634
G1 X70.02 Y122.73 E217.56056
G1 X69.94 Y122.82 E217.56451
G1 X69.60 Y122.95 E217.57647
G1 X69.02 Y123.12 E217.59649
G1 X68.60 Y123.09 E217.61048
G1 X68.37 Y123.05 E217.61848
G1 X67.57 Y123.29 E217.64614
G1 X67.26 Y123.41 E217.65714
G1 X67.15 Y123.55 E217.66301
G1 X65.40 Y124.86 E217.73559
G1 X65.36 Y124.88 E217.73703
G1 X65.17 Y124.40 E217.75431
G1 X64.48 Y124.03 E217.78020
G1 X63.83 Y123.95 E217.80171
G1 X63.15 Y124.28 E217.82686
G1 X62.69 Y123.95 E217.84576
G1 X62.26 Y123.57 E217.86447
G1 X61.90 Y123.12 E217.88379
G1 X61.74 Y122.75 E217.89717
G1 X61.66 Y122.35 E217.91063
G1 X61.56 Y121.35 E217.94389
G1 X61.55 Y120.78 E217.96283
G1 X61.60 Y120.31 E217.97851
G1 X61.69 Y120.07 E217.98710
G1 X61.79 Y119.85 E217.99500
G1 X62.12 Y119.42 E218.01318
G1 X62.25 Y119.32 E218.01861
G1 X62.81 Y118.97 E218.04027
G1 X62.89 Y118.94 E218.04321
G1 X63.38 Y118.87 E218.05967
G1 X63.72 Y118.48 E218.07701
G1 X63.91 Y118.31 E218.08534
G1 X64.08 Y117.97 E218.09805
G1 X64.18 Y117.56 E218.11189
G1 X64.21 Y117.36 E218.11867
G1 X64.28 Y117.27 E218.12232
G1 X64.52 Y117.12 E218.13180
G1 X64.78 Y117.07 E218.14054
G1 X64.85 Y117.21 E218.14574
G1 X65.17 Y117.64 E218.16344
G1 X65.76 Y118.20 E218.19036
G1 X66.60 Y118.04 E218.21870
G1 X66.84 Y118.02 E218.22672
G1 X66.92 Y117.99 E218.22963
G1 X67.08 Y118.01 E218.23473
G1 X67.21 Y118.14 E218.24095
G1 X67.66 Y118.51 E218.26041
G1 X68.55 Y118.71 E218.29058
G1 X68.69 Y118.89 E218.29823
G1 X68.94 Y118.87 E218.30643
G1 X69.61 Y119.49 E218.33693
G1 X69.62 Y119.50 E218.33740
G1 X69.74 Y119.78 E218.34756
G0 F12000 X70.10 Y119.60
G1 F840 X70.66 Y120.59 E218.38537
G1 X70.69 Y120.94 E218.39672
G1 X70.67 Y121.27 E218.40796
G1 X70.57 Y121.74 E218.42375
G1 X70.50 Y122.52 E218.44986
G1 X70.46 Y122.75 E218.45745
G1 X70.35 Y122.95 E218.46524
G1 X70.19 Y123.14 E218.47329
G1 X70.17 Y123.16 E218.47426
G1 X69.75 Y123.33 E218.48928
G1 X69.07 Y123.52 E218.51268
G1 X68.55 Y123.49 E218.52990
G1 X68.39 Y123.46 E218.53549
G1 X67.70 Y123.66 E218.55919
G1 X67.51 Y123.74 E218.56617
G1 X67.43 Y123.84 E218.57018
G1 X65.60 Y125.21 E218.64596
G1 X65.06 Y125.49 E218.66616
G1 X64.99 Y125.02 E218.68190
G1 X64.85 Y124.68 E218.69420
G1 X64.36 Y124.42 E218.71278
G1 X63.90 Y124.36 E218.72795
G1 X63.24 Y124.68 E218.75237
G1 X63.12 Y124.70 E218.75646
G1 X63.08 Y124.68 E218.75776
G1 X62.98 Y124.65 E218.76140
G1 X62.44 Y124.26 E218.78338
G1 X61.97 Y123.85 E218.80402
G1 X61.56 Y123.33 E218.82615
G1 X61.36 Y122.88 E218.84245
G1 X61.26 Y122.40 E218.85861
G1 X61.16 Y121.38 E218.89241
G1 X61.16 Y120.76 E218.91304
G1 X61.21 Y120.23 E218.93089
G1 X61.44 Y119.64 E218.95170
G1 X61.83 Y119.15 E218.97244
G1 X62.03 Y118.98 E218.98125
G1 X62.62 Y118.61 E219.00438
G1 X62.78 Y118.55 E219.01009
G1 X63.18 Y118.50 E219.02330
G1 X63.44 Y118.20 E219.03650
G1 X63.59 Y118.07 E219.04313
G1 X63.70 Y117.83 E219.05170
G1 X63.79 Y117.48 E219.06361
G1 X63.83 Y117.25 E219.07167
G1 X63.89 Y117.12 E219.07639
G1 X64.01 Y116.97 E219.08255
G1 X64.36 Y116.75 E219.09663
G1 X64.80 Y116.66 E219.11141
G1 X65.04 Y116.73 E219.11971
G1 X65.19 Y117.00 E219.12981
G1 X65.47 Y117.38 E219.14542
G1 X65.89 Y117.77 E219.16433
G1 X66.55 Y117.64 E219.18666
G1 X66.77 Y117.62 E219.19398
G1 X66.89 Y117.59 E219.19814
G1 X67.26 Y117.62 E219.21047
G1 X67.48 Y117.84 E219.22084
G1 X67.84 Y118.14 E219.23651
G1 X68.46 Y118.28 E219.25743
G1 X68.62 Y118.14 E219.26455
G1 X68.87 Y118.47 E219.27818
G1 X69.07 Y118.45 E219.28488
G1 X69.88 Y119.19 E219.32118
G1 X69.96 Y119.27 E219.32503
G1 X70.10 Y119.60 E219.33695
G0 F12000 X70.46 Y119.43
;TYPE:WALL-OUTER
G1 F840 X71.03 Y120.44 E219.37570
G1 X71.05 Y120.49 E219.37736
G1 X71.09 Y120.93 E219.39200
G1 X71.06 Y121.33 E219.40543
G1 X70.96 Y121.80 E219.42130
G1 X70.90 Y122.56 E219.44664
G1 X70.84 Y122.88 E219.45757
G1 X70.68 Y123.18 E219.46874
G1 X70.47 Y123.42 E219.47938
G1 X70.37 Y123.51 E219.48377
G1 X69.90 Y123.69 E219.50031
G1 X69.11 Y123.93 E219.52766
G1 X68.49 Y123.89 E219.54824
G1 X68.40 Y123.87 E219.55133
G1 X67.83 Y124.04 E219.57101
G1 X67.75 Y124.07 E219.57398
G1 X67.71 Y124.12 E219.57615
G1 X67.29 Y124.44 E219.59368
G1 X65.81 Y125.55 E219.65483
G1 X65.08 Y125.94 E219.68235
G1 X64.92 Y125.99 E219.68813
G1 X64.88 Y125.98 E219.68942
G1 X64.34 Y125.96 E219.70738
G1 X63.51 Y126.42 E219.73888
G1 X63.49 Y126.43 E219.73970
G1 X62.75 Y126.41 E219.76409
G1 X62.11 Y126.17 E219.78684
G1 X62.18 Y126.01 E219.79270
G1 X62.62 Y125.58 E219.81288
G1 X62.72 Y125.78 E219.82012
G1 X63.00 Y125.77 E219.82945
G1 X63.96 Y126.09 E219.86281
G1 X64.17 Y126.04 E219.87018
G1 X64.47 Y125.81 E219.88263
G1 X64.66 Y125.47 E219.89560
G1 X64.60 Y125.13 E219.90683
G1 X64.53 Y124.96 E219.91288
G1 X64.23 Y124.80 E219.92413
G1 X63.97 Y124.77 E219.93298
G1 X63.35 Y125.07 E219.95572
G1 X63.22 Y125.09 E219.96023
G1 X63.14 Y125.16 E219.96376
G1 X62.93 Y125.05 E219.97154
G1 X62.79 Y125.01 E219.97622
G1 X62.19 Y124.57 E220.00090
G1 X61.68 Y124.12 E220.02333
G1 X61.21 Y123.53 E220.04850
G1 X60.98 Y123.00 E220.06790
G1 X60.87 Y122.46 E220.08589
G1 X60.77 Y121.40 E220.12125
G1 X60.76 Y120.74 E220.14312
G1 X60.82 Y120.14 E220.16327
G1 X61.10 Y119.44 E220.18822
G1 X61.53 Y118.88 E220.21194
G1 X61.80 Y118.66 E220.22322
G1 X62.44 Y118.26 E220.24844
G1 X62.68 Y118.16 E220.25703
G1 X62.98 Y118.12 E220.26686
G1 X63.16 Y117.91 E220.27606
G1 X63.27 Y117.82 E220.28081
G1 X63.32 Y117.70 E220.28526
G1 X63.40 Y117.41 E220.29526
G1 X63.44 Y117.13 E220.30456
G1 X63.57 Y116.89 E220.31361
G1 X63.74 Y116.67 E220.32272
G1 X64.16 Y116.40 E220.33935
G1 X64.24 Y116.36 E220.34243
G1 X64.80 Y116.26 E220.36129
G1 X64.83 Y116.26 E220.36215
G1 X65.31 Y116.39 E220.37881
G1 X65.53 Y116.78 E220.39360
G1 X65.77 Y117.11 E220.40712
G1 X66.01 Y117.34 E220.41806
G1 X66.49 Y117.24 E220.43444
G1 X66.69 Y117.23 E220.44103
G1 X66.85 Y117.18 E220.44647
G1 X67.25 Y117.22 E220.46001
G1 X67.43 Y117.23 E220.46569
G1 X67.75 Y117.55 E220.48063
G1 X68.02 Y117.78 E220.49251
G1 X68.35 Y117.85 E220.50379
G1 X68.66 Y117.59 E220.51708
G1 X68.72 Y117.62 E220.51907
G1 X68.79 Y117.70 E220.52266
G1 X69.05 Y118.05 E220.53716
G1 X69.23 Y118.03 E220.54293
G1 X70.16 Y118.91 E220.58535
G1 X70.30 Y119.04 E220.59175
G1 X70.46 Y119.43 E220.60553
G0 F12000 X69.57 Y119.74
;TYPE:FILL
G1 F840 X65.11 Y124.21 E220.81498
G0 F12000 X65.36 Y124.51
G1 F840 X69.77 Y120.11 E221.02152
G0 F12000 X69.97 Y120.47
G1 F840 X66.83 Y123.61 E221.16899
G0 F12000 X68.00 Y123.01
G1 F840 X70.14 Y120.86 E221.26965
G0 F12000 X70.06 Y121.50
G1 F840 X68.62 Y122.95 E221.33766
G0 F12000 X69.22 Y122.92
G1 F840 X69.99 Y122.14 E221.37403
G0 F12000 X70.63 Y122.20
G0 X69.76 Y118.95
G0 X69.33 Y119.42
G1 F840 X64.74 Y124.01 E221.58946
G0 F12000 X64.31 Y123.87
G1 F840 X69.04 Y119.15 E221.81096
G0 F12000 X68.61 Y119.01
G1 F840 X63.81 Y123.81 E222.03594
G0 F12000 X63.03 Y124.02
G1 F840 X68.27 Y118.79 E222.28163
G0 F12000 X67.81 Y118.69
G1 F840 X62.71 Y123.78 E222.52066
G0 F12000 X62.41 Y123.52
G1 F840 X67.43 Y118.50 E222.75611
G0 F12000 X67.12 Y118.24
G1 F840 X62.15 Y123.21 E222.98908
G0 F12000 X61.94 Y122.86
G1 F840 X66.63 Y118.17 E223.20892
G0 F12000 X65.93 Y118.31
G1 F840 X61.82 Y122.42 E223.40190
G0 F12000 X61.76 Y121.91
G1 F840 X65.51 Y118.16 E223.57818
G0 F12000 X65.22 Y117.88
G1 F840 X61.71 Y121.40 E223.74305
G0 F12000 X61.70 Y120.84
G1 F840 X64.95 Y117.59 E223.89592
G0 F12000 X64.72 Y117.26
G1 F840 X64.30 Y117.68 E223.91586
G0 F12000 X63.67 Y117.53
G0 X63.17 Y118.48
G0 X62.65 Y118.50
G0 X62.89 Y119.08
G1 F840 X61.80 Y120.18 E223.96714
;LAYER:2
G0 F12000 X61.76 Y119.94 Z0.70
;TYPE:WALL-INNER
G1 F780 X62.06 Y119.54 E223.98376
G1 X62.21 Y119.40 E223.99038
G1 X62.77 Y119.02 E224.01291
G1 X63.36 Y118.94 E224.03282
G1 X63.65 Y118.60 E224.04759
G1 X63.89 Y118.40 E224.05805
G1 X64.08 Y118.01 E224.07243
G1 X64.20 Y117.46 E224.09113
G1 X64.23 Y117.40 E224.09315
G1 X64.34 Y117.26 E224.09933
G1 X64.50 Y117.16 E224.10544
G1 X64.74 Y117.11 E224.11347
G1 X64.78 Y117.12 E224.11503
G1 X65.14 Y117.68 E224.13706
G1 X65.78 Y118.29 E224.16640
G1 X66.83 Y118.16 E224.20121
G1 X67.00 Y118.11 E224.20706
G1 X67.10 Y118.11 E224.21065
G1 X67.67 Y118.63 E224.23612
G1 X68.54 Y118.82 E224.26562
G1 X68.55 Y118.81 E224.26614
G1 X68.67 Y118.96 E224.27261
G1 X68.89 Y118.94 E224.27995
G1 X69.47 Y119.47 E224.30587
G1 X69.56 Y119.57 E224.31049
G1 X69.77 Y120.05 E224.32790
G1 X70.15 Y120.74 E224.35400
G1 X70.21 Y121.20 E224.36949
G1 X70.08 Y121.78 E224.38913
G1 X70.06 Y121.87 E224.39224
G1 X69.98 Y122.57 E224.41550
G1 X69.98 Y122.60 E224.41662
G1 X69.83 Y122.88 E224.42724
G1 X69.80 Y122.90 E224.42831
G1 X69.53 Y123.01 E224.43795
G1 X69.47 Y123.04 E224.44018
G1 X68.94 Y123.18 E224.45864
G1 X68.88 Y123.18 E224.46036
G1 X68.19 Y123.05 E224.48372
G1 X67.40 Y123.32 E224.51155
G1 X67.23 Y123.45 E224.51869
G1 X67.15 Y123.49 E224.52139
G1 X65.48 Y124.72 E224.59034
G1 X65.39 Y124.48 E224.59889
G1 X64.87 Y124.09 E224.62045
G1 X63.90 Y124.01 E224.65275
G1 X63.57 Y124.29 E224.66715
G1 X63.32 Y124.42 E224.67641
G1 X63.13 Y124.34 E224.68331
G1 X62.48 Y123.87 E224.70993
G1 X62.26 Y123.67 E224.71973
G1 X62.05 Y123.43 E224.73043
G1 X61.88 Y123.21 E224.73983
G1 X61.77 Y123.03 E224.74678
G1 X61.70 Y122.87 E224.75236
G1 X61.54 Y122.09 E224.77869
G1 X61.52 Y121.07 E224.81274
G1 X61.58 Y120.46 E224.83301
G1 X61.59 Y120.43 E224.83407
G1 X61.76 Y119.94 E224.85134
G0 F12000 X61.41 Y119.74
G1 F780 X61.77 Y119.27 E224.87109
G1 X61.95 Y119.10 E224.87938
G1 X62.31 Y118.83 E224.89442
G1 X62.61 Y118.64 E224.90617
G1 X62.64 Y118.63 E224.90721
G1 X63.16 Y118.56 E224.92450
G1 X63.37 Y118.32 E224.93532
G1 X63.57 Y118.15 E224.94392
G1 X63.70 Y117.88 E224.95398
G1 X63.82 Y117.33 E224.97258
G1 X63.89 Y117.19 E224.97778
G1 X64.07 Y116.96 E224.98761
G1 X64.30 Y116.81 E224.99651
G1 X64.38 Y116.77 E224.99956
G1 X64.76 Y116.70 E225.01221
G1 X65.04 Y116.78 E225.02206
G1 X65.32 Y117.25 E225.04015
G1 X65.44 Y117.42 E225.04705
G1 X65.92 Y117.87 E225.06884
G1 X66.74 Y117.76 E225.09633
G1 X66.95 Y117.70 E225.10343
G1 X67.27 Y117.72 E225.11403
G1 X67.86 Y118.26 E225.14058
G1 X68.44 Y118.39 E225.16016
G1 X68.62 Y118.23 E225.16806
G1 X68.85 Y118.54 E225.18083
G1 X69.04 Y118.52 E225.18700
G1 X69.74 Y119.18 E225.21883
G1 X69.90 Y119.34 E225.22650
G1 X70.13 Y119.87 E225.24567
G1 X70.52 Y120.58 E225.27239
G1 X70.54 Y120.65 E225.27496
G1 X70.61 Y121.19 E225.29289
G1 X70.61 Y121.26 E225.29528
G1 X70.48 Y121.85 E225.31532
G1 X70.45 Y121.94 E225.31848
G1 X70.38 Y122.63 E225.34154
G1 X70.36 Y122.73 E225.34484
G1 X70.16 Y123.11 E225.35915
G1 X70.01 Y123.25 E225.36591
G1 X69.71 Y123.37 E225.37660
G1 X69.63 Y123.42 E225.37972
G1 X68.98 Y123.59 E225.40180
G1 X68.83 Y123.58 E225.40682
G1 X68.22 Y123.46 E225.42748
G1 X67.59 Y123.68 E225.44959
G1 X67.44 Y123.80 E225.45602
G1 X67.36 Y123.83 E225.45895
G1 X65.63 Y125.11 E225.53031
G1 X65.25 Y125.30 E225.54419
G1 X65.23 Y125.30 E225.54497
G1 X65.19 Y125.07 E225.55284
G1 X65.06 Y124.73 E225.56471
G1 X64.72 Y124.48 E225.57871
G1 X64.03 Y124.42 E225.60162
G1 X63.80 Y124.63 E225.61200
G1 X63.36 Y124.85 E225.62839
G1 X63.24 Y124.82 E225.63241
G1 X62.94 Y124.69 E225.64323
G1 X62.23 Y124.17 E225.67244
G1 X61.98 Y123.96 E225.68340
G1 X61.73 Y123.68 E225.69576
G1 X61.55 Y123.43 E225.70593
G1 X61.41 Y123.20 E225.71481
G1 X61.32 Y122.99 E225.72248
G1 X61.15 Y122.14 E225.75115
G1 X61.12 Y121.05 E225.78749
G1 X61.19 Y120.42 E225.80843
G1 X61.19 Y120.34 E225.81099
G1 X61.41 Y119.74 E225.83210
G0 F12000 X61.05 Y119.56
;TYPE:WALL-OUTER
G1 F780 X61.47 Y119.00 E225.85541
G1 X61.69 Y118.79 E225.86541
G1 X62.08 Y118.50 E225.88156
G1 X62.43 Y118.29 E225.89510
G1 X62.54 Y118.24 E225.89908
G1 X62.96 Y118.19 E225.91300
G1 X63.09 Y118.03 E225.91982
G1 X63.25 Y117.90 E225.92656
G1 X63.32 Y117.75 E225.93226
G1 X63.44 Y117.20 E225.95065
G1 X63.55 Y116.96 E225.95960
G1 X63.80 Y116.66 E225.97261
G1 X64.11 Y116.45 E225.98482
G1 X64.26 Y116.39 E225.99031
G1 X64.73 Y116.30 E226.00630
G1 X64.80 Y116.30 E226.00836
G1 X65.31 Y116.44 E226.02588
G1 X65.66 Y117.03 E226.04870
G1 X65.74 Y117.16 E226.05372
G1 X66.06 Y117.45 E226.06793
G1 X66.66 Y117.37 E226.08813
G1 X66.90 Y117.30 E226.09654
G1 X67.43 Y117.33 E226.11416
G1 X68.05 Y117.89 E226.14174
G1 X68.33 Y117.95 E226.15138
G1 X68.66 Y117.68 E226.16547
G1 X68.69 Y117.70 E226.16675
G1 X68.82 Y117.84 E226.17293
G1 X69.04 Y118.12 E226.18463
G1 X69.19 Y118.10 E226.18977
G1 X69.39 Y118.32 E226.19960
G1 X70.02 Y118.90 E226.22799
G1 X70.24 Y119.11 E226.23803
G1 X70.49 Y119.70 E226.25912
G1 X70.89 Y120.42 E226.28647
G1 X70.94 Y120.57 E226.29164
G1 X71.01 Y121.17 E226.31184
G1 X71.00 Y121.32 E226.31679
G1 X70.86 Y121.95 E226.33819
G1 X70.85 Y122.01 E226.34039
G1 X70.78 Y122.68 E226.36265
G1 X70.74 Y122.86 E226.36885
G1 X70.49 Y123.34 E226.38662
G1 X70.39 Y123.46 E226.39189
G1 X70.21 Y123.60 E226.39932
G1 X69.89 Y123.73 E226.41096
G1 X69.78 Y123.79 E226.41508
G1 X69.03 Y123.99 E226.44074
G1 X68.78 Y123.97 E226.44901
G1 X68.25 Y123.87 E226.46697
G1 X67.78 Y124.03 E226.48337
G1 X67.64 Y124.14 E226.48919
G1 X67.56 Y124.18 E226.49221
G1 X65.83 Y125.46 E226.56363
G1 X65.38 Y125.68 E226.58016
G1 X65.02 Y125.75 E226.59239
G1 X64.89 Y125.68 E226.59752
G1 X64.80 Y125.17 E226.61443
G1 X64.73 Y124.99 E226.62117
G1 X64.57 Y124.87 E226.62764
G1 X64.17 Y124.83 E226.64115
G1 X64.02 Y124.96 E226.64758
G1 X63.51 Y125.22 E226.66656
G1 X63.36 Y125.26 E226.67192
G1 X63.12 Y125.20 E226.68012
G1 X62.74 Y125.04 E226.69369
G1 X61.97 Y124.48 E226.72514
G1 X61.70 Y124.24 E226.73719
G1 X61.43 Y123.94 E226.75073
G1 X61.21 Y123.65 E226.76270
G1 X61.06 Y123.39 E226.77279
G1 X60.94 Y123.11 E226.78293
G1 X60.75 Y122.19 E226.81418
G1 X60.72 Y121.04 E226.85231
G1 X60.79 Y120.38 E226.87418
G1 X60.80 Y120.26 E226.87821
G1 X61.05 Y119.56 E226.90290
G0 F12000 X62.00 Y119.84
;TYPE:FILL
G1 F780 X66.19 Y124.03 E227.09921
G0 F12000 X65.86 Y124.27
G1 F780 X61.81 Y120.21 E227.28945
G0 F12000 X61.70 Y120.67
G1 F780 X65.19 Y124.16 E227.45315
G0 F12000 X64.38 Y123.91
G1 F780 X61.66 Y121.19 E227.58077
G0 F12000 X61.67 Y121.77
G1 F780 X63.81 Y123.90 E227.68094
G0 F12000 X63.50 Y124.16
G1 F780 X61.75 Y122.41 E227.76319
G0 F12000 X62.27 Y119.54
G1 F780 X66.51 Y123.79 E227.96241
G0 F12000 X66.84 Y123.55
G1 F780 X62.59 Y119.31 E228.16145
G0 F12000 X62.98 Y119.13
G1 F780 X67.17 Y123.32 E228.35804
G0 F12000 X67.54 Y123.12
G1 F780 X63.46 Y119.04 E228.54966
G0 F12000 X63.72 Y118.74
G1 F780 X67.96 Y122.98 E228.74876
G0 F12000 X68.52 Y122.97
G1 F780 X64.02 Y118.47 E228.95992
G0 F12000 X64.19 Y118.08
G1 F780 X69.11 Y122.99 E229.19039
G0 F12000 X69.53 Y122.86
G1 F780 X64.31 Y117.63 E229.43554
G0 F12000 X64.53 Y117.29
G1 F780 X69.83 Y122.59 E229.68393
G0 F12000 X69.90 Y122.09
G1 F780 X66.18 Y118.38 E229.85821
G0 F12000 X66.68 Y118.31
G1 F780 X69.98 Y121.61 E230.01281
G0 F12000 X70.06 Y121.13
G1 F780 X67.71 Y118.78 E230.12321
G0 F12000 X68.43 Y118.94
G1 F780 X68.61 Y119.11 E230.13138
G1 X69.69 Y120.19 E230.18228
;LAYER:3
G0 F12000 X69.64 Y120.06 Z0.90
;TYPE:WALL-INNER
G1 F780 X69.94 Y120.59 E230.20240
G1 X70.03 Y120.87 E230.21209
G1 X70.10 Y121.33 E230.22756
G1 X69.92 Y122.02 E230.25105
G1 X69.87 Y122.60 E230.27057
G1 X69.68 Y122.96 E230.28419
G1 X69.64 Y122.99 E230.28575
G1 X69.49 Y123.05 E230.29117
G1 X69.35 Y123.14 E230.29666
G1 X68.94 Y123.24 E230.31043
G1 X68.03 Y123.05 E230.34123
G1 X67.37 Y123.30 E230.36480
G1 X67.07 Y123.54 E230.37737
G1 X66.92 Y123.60 E230.38283
G1 X66.57 Y123.84 E230.39700
G1 X65.58 Y124.58 E230.43782
G1 X64.94 Y124.09 E230.46463
G1 X64.07 Y124.01 E230.49338
G1 X63.47 Y124.54 E230.51979
G1 X63.06 Y124.35 E230.53477
G1 X62.27 Y123.79 E230.56690
G1 X61.89 Y123.33 E230.58660
G1 X61.66 Y122.95 E230.60136
G1 X61.63 Y122.81 E230.60624
G1 X61.54 Y122.19 E230.62695
G1 X61.54 Y121.99 E230.63355
G1 X61.49 Y121.26 E230.65785
G1 X61.56 Y120.57 E230.68095
G1 X61.77 Y119.99 E230.70125
G1 X62.01 Y119.66 E230.71490
G1 X62.27 Y119.41 E230.72696
G1 X62.70 Y119.09 E230.74472
G1 X63.34 Y119.01 E230.76603
G1 X63.59 Y118.72 E230.77855
G1 X63.87 Y118.48 E230.79081
G1 X64.07 Y118.07 E230.80600
G1 X64.22 Y117.48 E230.82599
G1 X64.24 Y117.40 E230.82885
G1 X64.38 Y117.26 E230.83539
G1 X64.46 Y117.21 E230.83849
G1 X64.51 Y117.18 E230.84051
G1 X64.70 Y117.15 E230.84668
G1 X64.76 Y117.17 E230.84886
G1 X64.95 Y117.48 E230.86087
G1 X65.05 Y117.71 E230.86926
G1 X65.85 Y118.39 E230.90406
G1 X66.77 Y118.31 E230.93487
G1 X67.05 Y118.22 E230.94460
G1 X67.10 Y118.22 E230.94600
G1 X67.72 Y118.75 E230.97306
G1 X68.52 Y118.92 E231.00007
G1 X68.57 Y118.88 E231.00243
G1 X68.70 Y119.02 E231.00865
G1 X68.85 Y119.01 E231.01376
G1 X68.89 Y119.05 E231.01575
G1 X69.33 Y119.46 E231.03566
G1 X69.47 Y119.62 E231.04280
G1 X69.61 Y119.92 E231.05368
G1 X69.64 Y120.06 E231.05862
G0 F12000 X70.02 Y119.91
G1 F780 X70.30 Y120.44 E231.07838
G1 X70.42 Y120.78 E231.09043
G1 X70.51 Y121.35 E231.10950
G1 X70.38 Y121.86 E231.12686
G1 X70.32 Y122.08 E231.13476
G1 X70.26 Y122.72 E231.15584
G1 X69.99 Y123.22 E231.17480
G1 X69.85 Y123.34 E231.18097
G1 X69.67 Y123.41 E231.18747
G1 X69.50 Y123.51 E231.19392
G1 X68.95 Y123.65 E231.21258
G1 X68.07 Y123.47 E231.24256
G1 X67.57 Y123.66 E231.26032
G1 X67.28 Y123.88 E231.27249
G1 X67.11 Y123.95 E231.27837
G1 X65.65 Y125.03 E231.33874
G1 X65.40 Y125.15 E231.34778
G1 X65.39 Y125.11 E231.34919
G1 X65.29 Y124.86 E231.35800
G1 X64.78 Y124.48 E231.37901
G1 X64.20 Y124.43 E231.39833
G1 X63.65 Y124.91 E231.42290
G1 X63.47 Y124.97 E231.42896
G1 X62.85 Y124.70 E231.45135
G1 X62.01 Y124.09 E231.48580
G1 X61.65 Y123.68 E231.50399
G1 X61.55 Y123.55 E231.50935
G1 X61.29 Y123.11 E231.52637
G1 X61.14 Y122.22 E231.55629
G1 X61.14 Y122.00 E231.56342
G1 X61.10 Y121.26 E231.58822
G1 X61.17 Y120.48 E231.61422
G1 X61.42 Y119.81 E231.63802
G1 X61.71 Y119.39 E231.65474
G1 X62.02 Y119.10 E231.66882
G1 X62.55 Y118.70 E231.69085
G1 X63.14 Y118.63 E231.71055
G1 X63.30 Y118.44 E231.71899
G1 X63.55 Y118.23 E231.72952
G1 X63.69 Y117.93 E231.74052
G1 X63.83 Y117.37 E231.75979
G1 X63.90 Y117.19 E231.76624
G1 X64.12 Y116.96 E231.77680
G1 X64.26 Y116.86 E231.78255
G1 X64.40 Y116.80 E231.78754
G1 X64.71 Y116.74 E231.79793
G1 X64.72 Y116.74 E231.79830
G1 X65.02 Y116.83 E231.80869
G1 X65.30 Y117.28 E231.82653
G1 X65.38 Y117.46 E231.83295
G1 X65.98 Y117.98 E231.85927
G1 X66.70 Y117.91 E231.88319
G1 X67.01 Y117.82 E231.89389
