;-- START GCODE --
;Sliced for Type A Machines Series 1
;Sliced at: Fri 10-06-2016 16:29:23
;Basic settings: Layer height: 0.2 Walls: 1 Fill: 50
;Print Speed: 100 Support: 0
;Retraction Speed: 40 Retraction Distance: 1.2
;Print time: #P_TIME#
;Filament used: #F_AMNT#m #F_WGHT#g
;Filament cost: #F_COST#
M106 S255	 ;start with the fan on
G21        ;metric values
G90        ;absolute positioning
M106 S255    ;start with the fan on
G28     ;move to endstops
G29		;allows for auto-levelling
G1 X150 Y5  Z15.0 F6000 ;center and move the platform down 15mm
M109 S220 ;Heat To temp
G92 E0                  ;zero the extruded length
G1 F200 E30              ;extrude 30mm of feed stock
G92 E0                  ;zero the extruded length again
G1 X175 Y25  Z0 F6000 ;remove bugger
G1 X220 F6000 ;remove bugger
G1 X150 Y150  Z15 F6000 ;recenter and begin
G1 F6000

;Layer count: 95
;LAYER:0
M106 S255
G0 F6000 X145.59 Y106.29 Z0.30
;TYPE:SKIRT
G1 F2700 X195.09 Y106.29 E3.08696
G1 X195.09 Y123.79 E4.17830
G1 X193.43 Y123.79 E4.28195
G1 X193.47 Y124.67 E4.33664
G1 X193.36 Y125.97 E4.41839
G1 X193.15 Y126.92 E4.47883
G1 X192.85 Y127.84 E4.53921
G1 X192.24 Y129.16 E4.63016
G1 X191.34 Y130.45 E4.72817
G1 X190.41 Y131.39 E4.81041
G1 X187.22 Y134.58 E5.09158
G1 X195.09 Y134.58 E5.58231
G1 X195.09 Y152.08 E6.67366
G1 X193.43 Y152.08 E6.77730
G1 X193.47 Y152.95 E6.83193
G1 X193.36 Y154.26 E6.91368
G1 X193.15 Y155.21 E6.97412
G1 X192.85 Y156.13 E7.03449
G1 X192.24 Y157.45 E7.12545
G1 X191.34 Y158.74 E7.22346
G1 X190.41 Y159.68 E7.30570
G1 X185.25 Y164.85 E7.76144
G1 X185.37 Y164.91 E7.76981
G1 X185.97 Y165.51 E7.82277
G1 X186.37 Y165.71 E7.85061
G1 X186.96 Y166.31 E7.90339
G1 X187.36 Y166.50 E7.93114
G1 X194.00 Y173.15 E8.51701
G1 X194.00 Y173.35 E8.52949
G1 X194.21 Y173.55 E8.54713
G1 X194.21 Y173.75 E8.55960
G1 X194.41 Y173.95 E8.57724
G1 X194.41 Y177.26 E8.78360
G1 X195.83 Y180.70 E9.01636
G1 X194.41 Y182.13 E9.14239
G1 X194.41 Y186.35 E9.40543
G1 X190.47 Y186.47 E9.65120
G1 X186.75 Y190.19 E9.97910
G1 X185.78 Y190.19 E10.03934
G1 X185.74 Y190.23 E10.04270
G1 X186.03 Y190.91 E10.08884
G1 X179.76 Y197.17 E10.64102
G1 X177.84 Y198.14 E10.77559
G1 X177.11 Y198.87 E10.83970
G1 X176.87 Y198.62 E10.86105
G1 X175.73 Y199.19 E10.94017
G1 X170.88 Y199.19 E11.24275
G1 X168.81 Y198.15 E11.38736
G1 X166.73 Y199.19 E11.53197
G1 X161.88 Y199.19 E11.83455
G1 X158.65 Y197.57 E12.06004
G1 X157.46 Y196.39 E12.16437
G1 X152.60 Y196.39 E12.46727
G1 X152.60 Y191.53 E12.77010
G1 X151.26 Y190.19 E12.88859
G1 X150.04 Y188.97 E12.99588
G1 X146.41 Y187.16 E13.24959
G1 X146.41 Y185.33 E13.36334
G1 X146.21 Y185.13 E13.38098
G1 X146.21 Y184.93 E13.39345
G1 X146.00 Y184.73 E13.41109
G1 X146.00 Y184.33 E13.43597
G1 X142.51 Y180.84 E13.74408
G1 X146.00 Y177.35 E14.05218
G1 X146.00 Y176.95 E14.07707
G1 X146.21 Y176.75 E14.09471
G1 X146.21 Y176.55 E14.10718
G1 X154.72 Y168.03 E14.85846
G1 X150.72 Y164.02 E15.21186
G1 X149.95 Y164.79 E15.27963
G1 X149.05 Y164.79 E15.33570
G1 X148.97 Y164.87 E15.34266
G1 X149.23 Y165.50 E15.38558
G1 X142.97 Y171.77 E15.93839
G1 X142.56 Y171.97 E15.96628
G1 X142.37 Y172.17 E15.98391
G1 X140.97 Y172.87 E16.08153
G1 X140.32 Y173.52 E16.13877
G1 X140.10 Y173.31 E16.15782
G1 X139.13 Y173.79 E16.22536
G1 X133.88 Y173.79 E16.55289
G1 X132.00 Y172.85 E16.68356
G1 X130.13 Y173.79 E16.81422
G1 X124.88 Y173.79 E17.14168
G1 X119.27 Y170.99 E17.53247
G1 X115.81 Y170.99 E17.74881
G1 X115.81 Y166.33 E18.03923
G1 X109.61 Y160.13 E18.58604
G1 X109.61 Y159.93 E18.59851
G1 X109.41 Y159.73 E18.61615
G1 X109.41 Y151.35 E19.13912
G1 X109.61 Y151.15 E19.15676
G1 X109.61 Y150.95 E19.16923
G1 X119.64 Y140.91 E20.05470
G1 X120.04 Y140.71 E20.08254
G1 X121.66 Y139.09 E20.22510
G1 X122.56 Y138.79 E20.28421
G1 X123.06 Y138.29 E20.32844
G1 X124.91 Y137.68 E20.44964
G1 X126.48 Y136.89 E20.55930
G1 X142.55 Y136.89 E21.56135
G1 X144.91 Y137.68 E21.71651
G1 X145.59 Y138.02 E21.76434
G1 X145.59 Y134.58 E21.97899
G1 X149.56 Y134.58 E22.22651
G1 X149.06 Y134.08 E22.27043
G1 X148.26 Y133.25 E22.34219
G1 X147.46 Y132.11 E22.42955
G1 X147.01 Y131.25 E22.49000
G1 X146.71 Y130.52 E22.53924
G1 X146.47 Y129.74 E22.59011
G1 X146.29 Y128.94 E22.64116
G1 X146.19 Y128.16 E22.69017
G1 X146.14 Y127.19 E22.75097
G1 X146.27 Y125.73 E22.84239
G1 X146.69 Y124.18 E22.94226
G1 X146.87 Y123.79 E22.96899
G1 X145.59 Y123.79 E23.04850
G1 X145.59 Y106.29 E24.13985
G0 F6000 X146.09 Y106.79
G1 F2700 X194.59 Y106.79 E27.16444
G1 X194.59 Y123.29 E28.19343
G1 X192.87 Y123.29 E28.30088
G1 X192.93 Y123.76 E28.33061
G1 X192.97 Y124.66 E28.38636
G1 X192.86 Y125.89 E28.46391
G1 X192.66 Y126.79 E28.52098
G1 X192.39 Y127.66 E28.57793
G1 X191.80 Y128.91 E28.66416
G1 X190.95 Y130.13 E28.75684
G1 X190.06 Y131.04 E28.83635
G1 X186.02 Y135.08 E29.19266
G1 X194.59 Y135.08 E29.72748
G1 X194.59 Y151.58 E30.75647
G1 X192.87 Y151.58 E30.86392
G1 X192.93 Y152.05 E30.89346
G1 X192.97 Y152.94 E30.94933
G1 X192.86 Y154.18 E31.02689
G1 X192.66 Y155.08 E31.08396
G1 X192.39 Y155.95 E31.14090
G1 X191.80 Y157.20 E31.22714
G1 X190.95 Y158.42 E31.31982
G1 X190.06 Y159.33 E31.39933
G1 X184.47 Y164.92 E31.89229
G1 X184.67 Y165.12 E31.90993
G1 X185.07 Y165.32 E31.93782
G1 X185.67 Y165.92 E31.99074
G1 X186.07 Y166.12 E32.01862
G1 X186.67 Y166.72 E32.07145
G1 X187.07 Y166.91 E32.09926
G1 X193.50 Y173.35 E32.66714
G1 X193.50 Y173.55 E32.67961
G1 X193.71 Y173.75 E32.69725
G1 X193.71 Y173.95 E32.70973
G1 X193.91 Y174.15 E32.72736
G1 X193.91 Y177.36 E32.92705
G1 X195.24 Y180.59 E33.14516
G1 X193.91 Y181.93 E33.26325
G1 X193.91 Y185.87 E33.50903
G1 X190.25 Y185.98 E33.73694
G1 X186.54 Y189.69 E34.06423
G1 X185.57 Y189.69 E34.12454
G1 X185.16 Y190.11 E34.16153
G1 X185.44 Y190.79 E34.20767
G1 X179.47 Y196.76 E34.73411
G1 X177.54 Y197.73 E34.86867
G1 X177.11 Y198.16 E34.90660
G1 X176.96 Y198.01 E34.91930
G1 X175.61 Y198.69 E35.01351
G1 X171.00 Y198.69 E35.30137
G1 X168.81 Y197.59 E35.45421
G1 X166.61 Y198.69 E35.60704
G1 X162.00 Y198.69 E35.89491
G1 X158.94 Y197.16 E36.10790
G1 X157.67 Y195.89 E36.22017
G1 X153.10 Y195.89 E36.50479
G1 X153.10 Y191.33 E36.78942
G1 X150.34 Y188.56 E37.03310
G1 X146.91 Y186.85 E37.27267
G1 X146.91 Y185.13 E37.38000
G1 X146.71 Y184.93 E37.39763
G1 X146.71 Y184.73 E37.41011
G1 X146.50 Y184.53 E37.42775
G1 X146.50 Y184.13 E37.45269
G1 X143.22 Y180.84 E37.74250
G1 X146.50 Y177.55 E38.03230
G1 X146.50 Y177.15 E38.05725
G1 X146.71 Y176.95 E38.07489
G1 X146.71 Y176.75 E38.08736
G1 X155.43 Y168.03 E38.85690
G1 X150.72 Y163.31 E39.27265
G1 X149.74 Y164.29 E39.35868
G1 X148.84 Y164.29 E39.41474
G1 X148.38 Y164.75 E39.45549
G1 X148.64 Y165.39 E39.49841
G1 X142.67 Y171.36 E40.02537
G1 X142.27 Y171.56 E40.05326
G1 X142.07 Y171.76 E40.07090
G1 X140.67 Y172.46 E40.16846
G1 X140.32 Y172.81 E40.19955
G1 X140.20 Y172.70 E40.20995
G1 X139.01 Y173.29 E40.29259
G1 X134.00 Y173.29 E40.60540
G1 X132.00 Y172.29 E40.74429
G1 X130.01 Y173.29 E40.88318
G1 X125.00 Y173.29 E41.19593
G1 X119.39 Y170.49 E41.58672
G1 X116.31 Y170.49 E41.77923
G1 X116.31 Y166.13 E42.05138
G1 X110.11 Y159.93 E42.59819
G1 X110.11 Y159.73 E42.61066
G1 X109.91 Y159.53 E42.62830
G1 X109.91 Y151.55 E43.12545
G1 X110.11 Y151.35 E43.14309
G1 X110.11 Y151.15 E43.15556
G1 X119.94 Y141.32 E44.02313
G1 X120.34 Y141.12 E44.05102
G1 X121.93 Y139.53 E44.19116
G1 X122.83 Y139.23 E44.25032
G1 X123.33 Y138.73 E44.29451
G1 X125.10 Y138.14 E44.41084
G1 X126.60 Y137.39 E44.51509
G1 X142.47 Y137.39 E45.50473
G1 X144.72 Y138.14 E45.65259
G1 X146.09 Y138.83 E45.74867
G1 X146.09 Y135.08 E45.98260
G1 X150.77 Y135.08 E46.27420
G1 X149.42 Y133.73 E46.39309
G1 X148.65 Y132.94 E46.46216
G1 X147.89 Y131.85 E46.54504
G1 X147.47 Y131.03 E46.60203
G1 X147.18 Y130.34 E46.64864
G1 X146.95 Y129.61 E46.69676
G1 X146.78 Y128.85 E46.74501
G1 X146.69 Y128.12 E46.79144
G1 X146.64 Y127.20 E46.84874
G1 X146.77 Y125.81 E46.93534
G1 X147.16 Y124.35 E47.02985
G1 X147.65 Y123.29 E47.10273
G1 X146.09 Y123.29 E47.19995
G1 X146.09 Y106.79 E48.22894
G0 F6000 X146.59 Y107.29
G1 F2700 X194.09 Y107.29 E51.19117
G1 X194.09 Y122.79 E52.15779
G1 X192.27 Y122.79 E52.27123
G1 X192.34 Y123.09 E52.29046
G1 X192.43 Y123.81 E52.33540
G1 X192.47 Y124.65 E52.38784
G1 X192.37 Y125.82 E52.46126
G1 X192.18 Y126.66 E52.51488
G1 X191.92 Y127.48 E52.56843
G1 X191.37 Y128.66 E52.64984
G1 X190.56 Y129.81 E52.73733
G1 X189.70 Y130.69 E52.81415
G1 X184.81 Y135.58 E53.24551
G1 X194.09 Y135.58 E53.82442
G1 X194.09 Y151.08 E54.79105
G1 X192.27 Y151.08 E54.90455
G1 X192.34 Y151.38 E54.92366
G1 X192.43 Y152.09 E54.96854
G1 X192.47 Y152.93 E55.02111
G1 X192.37 Y154.11 E55.09453
G1 X192.18 Y154.95 E55.14815
G1 X191.92 Y155.76 E55.20170
G1 X191.37 Y156.95 E55.28311
G1 X190.56 Y158.10 E55.37060
G1 X189.70 Y158.98 E55.44742
G1 X183.62 Y165.05 E55.98342
G1 X184.17 Y165.33 E56.02163
G1 X184.37 Y165.53 E56.03927
G1 X184.77 Y165.73 E56.06715
G1 X185.37 Y166.33 E56.12003
G1 X185.77 Y166.53 E56.14797
G1 X186.37 Y167.13 E56.20076
G1 X186.77 Y167.33 E56.22862
G1 X193.00 Y173.56 E56.77851
G1 X193.00 Y173.76 E56.79098
G1 X193.21 Y173.96 E56.80862
G1 X193.21 Y174.16 E56.82109
G1 X193.41 Y174.36 E56.83873
G1 X193.41 Y177.46 E57.03175
G1 X194.65 Y180.47 E57.23521
G1 X193.41 Y181.72 E57.34536
G1 X193.41 Y185.38 E57.57380
G1 X190.04 Y185.49 E57.78381
G1 X186.33 Y189.19 E58.11057
G1 X185.37 Y189.19 E58.17087
G1 X184.56 Y189.99 E58.24160
G1 X184.85 Y190.68 E58.28780
G1 X179.17 Y196.35 E58.78830
G1 X177.24 Y197.32 E58.92287
G1 X177.11 Y197.45 E58.93469
G1 X177.06 Y197.41 E58.93866
G1 X175.50 Y198.19 E59.04798
G1 X171.12 Y198.19 E59.32113
G1 X168.81 Y197.03 E59.48219
G1 X166.50 Y198.19 E59.64326
G1 X162.12 Y198.19 E59.91640
G1 X159.24 Y196.75 E60.11698
G1 X157.88 Y195.39 E60.23711
G1 X153.60 Y195.39 E60.50346
G1 X153.60 Y191.12 E60.76987
G1 X153.48 Y190.99 E60.78116
G1 X153.48 Y190.99 E60.78122
G1 X152.10 Y189.62 E60.90236
G1 X150.64 Y188.15 E61.03143
G1 X147.41 Y186.54 E61.25686
G1 X147.41 Y184.92 E61.35782
G1 X147.21 Y184.72 E61.37546
G1 X147.21 Y184.52 E61.38794
G1 X147.00 Y184.32 E61.40558
G1 X147.00 Y183.92 E61.43058
G1 X143.93 Y180.84 E61.70209
G1 X147.00 Y177.76 E61.97359
G1 X147.00 Y177.36 E61.99860
G1 X147.21 Y177.16 E62.01624
G1 X147.21 Y176.96 E62.02871
G1 X156.14 Y168.03 E62.81651
G1 X150.72 Y162.61 E63.29461
G1 X149.53 Y163.79 E63.39890
G1 X148.63 Y163.79 E63.45496
G1 X147.79 Y164.63 E63.52949
G1 X148.05 Y165.27 E63.57241
G1 X142.37 Y170.95 E64.07344
G1 X141.97 Y171.15 E64.10133
G1 X141.77 Y171.35 E64.11897
G1 X140.37 Y172.05 E64.21658
G1 X140.32 Y172.11 E64.22152
G1 X140.30 Y172.09 E64.22320
G1 X138.90 Y172.79 E64.32095
G1 X134.12 Y172.79 E64.61904
G1 X132.00 Y171.74 E64.76616
G1 X129.90 Y172.79 E64.91328
G1 X125.12 Y172.79 E65.21131
G1 X119.51 Y169.99 E65.60215
G1 X116.81 Y169.99 E65.77078
G1 X116.81 Y165.79 E66.03270
G1 X116.68 Y165.79 E66.04075
G1 X110.61 Y159.72 E66.57617
G1 X110.61 Y159.52 E66.58865
G1 X110.41 Y159.32 E66.60629
G1 X110.41 Y151.76 E67.07762
G1 X110.61 Y151.56 E67.09526
G1 X110.61 Y151.36 E67.10774
G1 X120.24 Y141.73 E67.95731
G1 X120.64 Y141.53 E67.98526
G1 X122.20 Y139.97 E68.12306
G1 X123.10 Y139.66 E68.18222
G1 X123.60 Y139.16 E68.22641
G1 X125.29 Y138.60 E68.33742
G1 X126.72 Y137.89 E68.43670
G1 X142.38 Y137.89 E69.41393
G1 X144.52 Y138.60 E69.55450
G1 X146.59 Y139.64 E69.69882
G1 X146.59 Y135.58 E69.95202
G1 X151.98 Y135.58 E70.28772
G1 X149.78 Y133.38 E70.48166
G1 X149.04 Y132.62 E70.54794
G1 X148.32 Y131.59 E70.62631
G1 X147.92 Y130.82 E70.67987
G1 X147.65 Y130.17 E70.72380
G1 X147.43 Y129.48 E70.76916
G1 X147.28 Y128.77 E70.81466
G1 X147.19 Y128.07 E70.85844
G1 X147.15 Y127.21 E70.91232
G1 X147.26 Y125.90 E70.99415
G1 X147.63 Y124.52 E71.08325
G1 X148.24 Y123.21 E71.17363
G1 X148.53 Y122.79 E71.20536
G1 X146.59 Y122.79 E71.32641
G1 X146.59 Y107.29 E72.29303
G0 F6000 X147.09 Y107.79
G1 F2700 X193.59 Y107.79 E75.19290
G1 X193.59 Y122.29 E76.09716
G1 X191.64 Y122.29 E76.21914
G1 X191.67 Y122.38 E76.22478
G1 X191.85 Y123.18 E76.27604
G1 X191.93 Y123.85 E76.31828
G1 X191.97 Y124.64 E76.36735
G1 X191.87 Y125.74 E76.43664
G1 X191.70 Y126.53 E76.48686
G1 X191.46 Y127.30 E76.53702
G1 X190.93 Y128.41 E76.61368
G1 X190.18 Y129.49 E76.69584
G1 X189.35 Y130.34 E76.76993
G1 X183.60 Y136.08 E77.27643
G1 X193.59 Y136.08 E77.89943
G1 X193.59 Y150.58 E78.80369
G1 X191.64 Y150.58 E78.92568
G1 X191.67 Y150.66 E78.93132
G1 X191.85 Y151.46 E78.98244
G1 X191.93 Y152.13 E79.02462
G1 X191.97 Y152.92 E79.07381
G1 X191.87 Y154.03 E79.14311
G1 X191.70 Y154.82 E79.19333
G1 X191.46 Y155.58 E79.24348
G1 X190.93 Y156.70 E79.32015
G1 X190.18 Y157.78 E79.40231
G1 X189.35 Y158.62 E79.47640
G1 X182.78 Y165.19 E80.05557
G1 X183.88 Y165.74 E80.13204
G1 X184.08 Y165.94 E80.14968
G1 X184.48 Y166.14 E80.17757
G1 X185.08 Y166.74 E80.23049
G1 X185.48 Y166.94 E80.25838
G1 X186.07 Y167.54 E80.31120
G1 X186.47 Y167.74 E80.33901
G1 X192.50 Y173.77 E80.87091
G1 X192.50 Y173.97 E80.88338
G1 X192.71 Y174.17 E80.90102
G1 X192.71 Y174.37 E80.91349
G1 X192.91 Y174.57 E80.93113
G1 X192.91 Y177.56 E81.11741
G1 X194.06 Y180.35 E81.30622
G1 X192.91 Y181.51 E81.40844
G1 X192.91 Y184.90 E81.61960
G1 X189.83 Y184.99 E81.81170
G1 X186.13 Y188.69 E82.13793
G1 X185.16 Y188.69 E82.19824
G1 X183.98 Y189.88 E82.30270
G1 X184.26 Y190.56 E82.34884
G1 X178.88 Y195.94 E82.82350
G1 X175.38 Y197.69 E83.06745
G1 X171.23 Y197.69 E83.32589
G1 X168.81 Y196.48 E83.49517
G1 X166.38 Y197.69 E83.66446
G1 X162.23 Y197.69 E83.92289
G1 X159.53 Y196.34 E84.11106
G1 X158.08 Y194.89 E84.23903
G1 X154.10 Y194.89 E84.48711
G1 X154.10 Y190.91 E84.73519
G1 X150.93 Y187.74 E85.01486
G1 X147.91 Y186.23 E85.22598
G1 X147.91 Y184.71 E85.32058
G1 X147.71 Y184.51 E85.33822
G1 X147.71 Y184.31 E85.35070
G1 X147.50 Y184.11 E85.36833
G1 X147.50 Y183.71 E85.39328
G1 X144.63 Y180.84 E85.64657
G1 X147.50 Y177.97 E85.89987
G1 X147.50 Y177.57 E85.92481
G1 X147.71 Y177.37 E85.94245
G1 X147.71 Y177.17 E85.95492
G1 X156.84 Y168.03 E86.76102
G1 X150.72 Y161.90 E87.30147
G1 X149.33 Y163.29 E87.42406
G1 X148.43 Y163.29 E87.48019
G1 X147.20 Y164.52 E87.58840
G1 X147.46 Y165.15 E87.63135
G1 X142.08 Y170.54 E88.10654
G1 X141.68 Y170.74 E88.13443
G1 X141.48 Y170.94 E88.15207
G1 X138.78 Y172.29 E88.34024
G1 X134.23 Y172.29 E88.62361
G1 X132.00 Y171.18 E88.77896
G1 X129.78 Y172.29 E88.93430
G1 X125.23 Y172.29 E89.21762
G1 X119.91 Y169.63 E89.58910
G1 X119.91 Y169.49 E89.59771
G1 X117.31 Y169.49 E89.75985
G1 X117.31 Y165.51 E90.00793
G1 X117.08 Y165.29 E90.02751
G1 X116.88 Y165.29 E90.03998
G1 X111.11 Y159.51 E90.54957
G1 X111.11 Y159.31 E90.56204
G1 X110.91 Y159.11 E90.57968
G1 X110.91 Y151.97 E91.02520
G1 X111.11 Y151.77 E91.04284
G1 X111.11 Y151.57 E91.05531
G1 X120.53 Y142.14 E91.88690
G1 X120.93 Y141.94 E91.91479
G1 X122.47 Y140.40 E92.05034
G1 X123.37 Y140.10 E92.10950
G1 X123.87 Y139.60 E92.15369
G1 X125.48 Y139.06 E92.25965
G1 X126.83 Y138.39 E92.35369
G1 X142.30 Y138.39 E93.31844
G1 X144.33 Y139.07 E93.45178
G1 X147.09 Y140.45 E93.64435
G1 X147.09 Y136.08 E93.91682
G1 X153.18 Y136.08 E94.29667
G1 X150.13 Y133.03 E94.56566
G1 X149.43 Y132.30 E94.62921
G1 X148.75 Y131.33 E94.70305
G1 X148.38 Y130.61 E94.75320
G1 X148.12 Y130.00 E94.79450
G1 X147.92 Y129.35 E94.83710
G1 X147.77 Y128.68 E94.87980
G1 X147.68 Y128.03 E94.92095
G1 X147.65 Y127.22 E94.97139
G1 X147.76 Y125.99 E95.04840
G1 X148.10 Y124.69 E95.13213
G1 X148.68 Y123.46 E95.21704
G1 X149.46 Y122.35 E95.30159
G1 X149.51 Y122.29 E95.30671
G1 X147.09 Y122.29 E95.45769
G1 X147.09 Y107.79 E96.36195
G0 F6000 X147.59 Y108.29
G1 F2700 X193.09 Y108.29 E99.19945
G1 X193.09 Y121.79 E100.04135
G1 X190.92 Y121.79 E100.17674
G1 X191.19 Y122.52 E100.22496
G1 X191.35 Y123.26 E100.27269
G1 X191.43 Y123.89 E100.31223
G1 X191.47 Y124.62 E100.35798
G1 X191.38 Y125.67 E100.42315
G1 X191.21 Y126.40 E100.46993
G1 X190.99 Y127.11 E100.51661
G1 X190.50 Y128.16 E100.58851
G1 X189.79 Y129.17 E100.66548
G1 X188.99 Y129.98 E100.73679
G1 X182.40 Y136.58 E101.31838
G1 X193.09 Y136.58 E101.98542
G1 X193.09 Y150.08 E102.82731
G1 X190.92 Y150.08 E102.96270
G1 X191.19 Y150.81 E103.01092
G1 X191.35 Y151.55 E103.05852
G1 X191.43 Y152.18 E103.09800
G1 X191.47 Y152.91 E103.14388
G1 X191.38 Y153.95 E103.20905
G1 X191.21 Y154.69 E103.25583
G1 X190.99 Y155.40 E103.30251
G1 X190.50 Y156.44 E103.37441
G1 X189.79 Y157.46 E103.45138
G1 X188.99 Y158.27 E103.52269
G1 X181.94 Y165.33 E104.14494
G1 X183.58 Y166.15 E104.25957
G1 X183.78 Y166.35 E104.27721
G1 X184.18 Y166.55 E104.30510
G1 X184.78 Y167.15 E104.35797
G1 X185.18 Y167.35 E104.38591
G1 X185.78 Y167.95 E104.43870
G1 X186.18 Y168.15 E104.46656
G1 X192.00 Y173.97 E104.98047
G1 X192.00 Y174.18 E104.99294
G1 X192.21 Y174.38 E105.01058
G1 X192.21 Y174.57 E105.02305
G1 X192.41 Y174.78 E105.04069
G1 X192.41 Y177.66 E105.22030
G1 X193.47 Y180.24 E105.39446
G1 X192.41 Y181.30 E105.48874
G1 X192.41 Y184.41 E105.68256
G1 X189.61 Y184.50 E105.85682
G1 X185.92 Y188.19 E106.18243
G1 X184.95 Y188.19 E106.24274
G1 X183.39 Y189.76 E106.38085
G1 X183.67 Y190.44 E106.42705
G1 X178.58 Y195.53 E106.87587
G1 X175.26 Y197.19 E107.10741
G1 X171.35 Y197.19 E107.35112
G1 X168.83 Y195.93 E107.52688
G1 X168.81 Y195.91 E107.52838
G1 X166.26 Y197.19 E107.70645
G1 X162.35 Y197.19 E107.95017
G1 X159.83 Y195.93 E108.12593
G1 X158.29 Y194.39 E108.26170
G1 X154.60 Y194.39 E108.49157
G1 X154.60 Y190.70 E108.72144
G1 X153.89 Y189.99 E108.78441
G1 X153.89 Y189.99 E108.78447
G1 X151.23 Y187.33 E109.01907
G1 X148.41 Y185.92 E109.21597
G1 X148.41 Y184.50 E109.30421
G1 X148.21 Y184.31 E109.32185
G1 X148.21 Y184.10 E109.33432
G1 X148.00 Y183.91 E109.35196
G1 X148.00 Y183.50 E109.37697
G1 X145.34 Y180.84 E109.61196
G1 X148.00 Y178.18 E109.84696
G1 X148.00 Y177.78 E109.87197
G1 X148.21 Y177.57 E109.88960
G1 X148.21 Y177.38 E109.90208
G1 X157.55 Y168.03 E110.72643
G1 X150.72 Y161.19 E111.32924
G1 X149.12 Y162.79 E111.47008
G1 X148.22 Y162.79 E111.52621
G1 X146.61 Y164.40 E111.66820
G1 X146.87 Y165.04 E111.71115
G1 X141.78 Y170.13 E112.16041
G1 X141.38 Y170.33 E112.18830
G1 X141.18 Y170.53 E112.20594
G1 X138.66 Y171.79 E112.38169
G1 X134.35 Y171.79 E112.65035
G1 X132.00 Y170.62 E112.81393
G1 X129.66 Y171.79 E112.97750
G1 X125.35 Y171.79 E113.24609
G1 X120.41 Y169.32 E113.59095
G1 X120.41 Y168.99 E113.61146
G1 X117.81 Y168.99 E113.77361
G1 X117.81 Y165.30 E114.00348
G1 X117.29 Y164.79 E114.04881
G1 X117.09 Y164.79 E114.06134
G1 X111.61 Y159.31 E114.54509
G1 X111.61 Y159.10 E114.55756
G1 X111.41 Y158.91 E114.57520
G1 X111.41 Y152.18 E114.99490
G1 X111.61 Y151.97 E115.01254
G1 X111.61 Y151.78 E115.02501
G1 X120.83 Y142.55 E115.83860
G1 X121.23 Y142.35 E115.86658
G1 X122.74 Y140.84 E115.99975
G1 X123.64 Y140.54 E116.05903
G1 X124.14 Y140.04 E116.10309
G1 X125.67 Y139.53 E116.20346
G1 X126.95 Y138.89 E116.29282
G1 X142.22 Y138.89 E117.24516
G1 X144.14 Y139.53 E117.37120
G1 X147.38 Y141.15 E117.59716
G1 X147.59 Y141.36 E117.61595
G1 X147.59 Y136.58 E117.91429
G1 X154.39 Y136.58 E118.33817
G1 X150.49 Y132.68 E118.68213
G1 X149.81 Y131.98 E118.74294
G1 X149.18 Y131.07 E118.81227
G1 X148.83 Y130.40 E118.85899
G1 X148.59 Y129.83 E118.89766
G1 X148.40 Y129.22 E118.93746
G1 X148.26 Y128.59 E118.97741
G1 X148.18 Y127.98 E119.01597
G1 X148.15 Y127.23 E119.06298
G1 X148.25 Y126.08 E119.13517
G1 X148.57 Y124.86 E119.21348
G1 X149.11 Y123.71 E119.29289
G1 X149.84 Y122.67 E119.37194
G1 X150.72 Y121.79 E119.44955
G1 X147.59 Y121.79 E119.64450
G1 X147.59 Y108.29 E120.48639
G0 F6000 X148.09 Y108.79
G1 F2700 X192.59 Y108.79 E123.26154
G1 X192.59 Y121.29 E124.04107
G1 X190.13 Y121.29 E124.19467
G1 X190.34 Y121.65 E124.22074
G1 X190.71 Y122.66 E124.28748
G1 X190.86 Y123.35 E124.33169
G1 X190.94 Y123.94 E124.36853
G1 X190.97 Y124.61 E124.41098
G1 X190.88 Y125.59 E124.47195
G1 X190.73 Y126.27 E124.51534
G1 X190.52 Y126.93 E124.55863
G1 X190.06 Y127.91 E124.62576
G1 X189.41 Y128.85 E124.69744
G1 X188.63 Y129.63 E124.76605
G1 X181.19 Y137.08 E125.42279
G1 X192.59 Y137.08 E126.13398
G1 X192.59 Y149.58 E126.91351
G1 X190.13 Y149.58 E127.06711
G1 X190.34 Y149.94 E127.09318
G1 X190.71 Y150.95 E127.15992
G1 X190.86 Y151.64 E127.20407
G1 X190.94 Y152.22 E127.24078
G1 X190.97 Y152.90 E127.28336
G1 X190.88 Y153.88 E127.34433
G1 X190.73 Y154.56 E127.38772
G1 X190.52 Y155.22 E127.43101
G1 X190.06 Y156.19 E127.49814
G1 X189.41 Y157.13 E127.56981
G1 X188.63 Y157.92 E127.63843
G1 X181.06 Y165.50 E128.30664
G1 X181.35 Y165.59 E128.32551
G1 X183.28 Y166.56 E128.46061
G1 X183.48 Y166.76 E128.47825
G1 X183.88 Y166.96 E128.50614
G1 X184.48 Y167.56 E128.55905
G1 X184.88 Y167.76 E128.58694
G1 X185.48 Y168.36 E128.63977
G1 X185.88 Y168.56 E128.66758
G1 X191.50 Y174.18 E129.16349
G1 X191.50 Y174.38 E129.17596
G1 X191.71 Y174.58 E129.19360
G1 X191.71 Y174.78 E129.20608
G1 X191.91 Y174.98 E129.22371
G1 X191.91 Y177.75 E129.39658
G1 X192.88 Y180.12 E129.55618
G1 X191.91 Y181.10 E129.64261
G1 X191.91 Y183.93 E129.81903
G1 X189.40 Y184.00 E129.97538
G1 X185.71 Y187.69 E130.30047
G1 X184.75 Y187.69 E130.36084
G1 X182.80 Y189.64 E130.53268
G1 X183.08 Y190.32 E130.57882
G1 X178.28 Y195.12 E131.00176
G1 X175.14 Y196.69 E131.22088
G1 X171.47 Y196.69 E131.44988
G1 X169.13 Y195.52 E131.61323
G1 X168.91 Y195.30 E131.63272
G1 X168.88 Y195.32 E131.63457
G1 X166.14 Y196.69 E131.82581
G1 X162.47 Y196.69 E132.05481
G1 X160.13 Y195.52 E132.21815
G1 X158.50 Y193.89 E132.36182
G1 X155.10 Y193.89 E132.57336
G1 X155.10 Y190.50 E132.78489
G1 X151.53 Y186.92 E133.10045
G1 X148.91 Y185.61 E133.28321
G1 X148.91 Y184.30 E133.36509
G1 X148.71 Y184.10 E133.38273
G1 X148.71 Y183.90 E133.39520
G1 X148.50 Y183.70 E133.41284
G1 X148.50 Y183.30 E133.43779
G1 X146.05 Y180.84 E133.65457
G1 X148.50 Y178.38 E133.87135
G1 X148.50 Y177.98 E133.89630
G1 X148.71 Y177.78 E133.91394
G1 X148.71 Y177.58 E133.92641
G1 X157.93 Y168.36 E134.73965
G1 X158.33 Y168.16 E134.76754
G1 X158.36 Y168.13 E134.77045
G1 X150.85 Y160.62 E135.43296
G1 X150.72 Y160.48 E135.44443
G1 X148.91 Y162.29 E135.60371
G1 X148.01 Y162.29 E135.65983
G1 X146.02 Y164.28 E135.83552
G1 X146.28 Y164.92 E135.87850
G1 X141.48 Y169.72 E136.30183
G1 X141.08 Y169.92 E136.32972
G1 X140.88 Y170.12 E136.34736
G1 X138.54 Y171.29 E136.51070
G1 X134.47 Y171.29 E136.76465
G1 X132.13 Y170.12 E136.92799
G1 X132.00 Y170.00 E136.93867
G1 X131.88 Y170.12 E136.94934
G1 X129.54 Y171.29 E137.11269
G1 X125.47 Y171.29 E137.36656
G1 X120.91 Y169.01 E137.68478
G1 X120.91 Y168.49 E137.71721
G1 X118.31 Y168.49 E137.87936
G1 X118.31 Y165.10 E138.09089
G1 X117.50 Y164.29 E138.16215
G1 X117.30 Y164.29 E138.17462
G1 X112.11 Y159.10 E138.63253
G1 X112.11 Y158.90 E138.64500
G1 X111.91 Y158.70 E138.66264
G1 X111.91 Y152.38 E139.05652
G1 X112.11 Y152.18 E139.07416
G1 X112.11 Y151.98 E139.08663
G1 X121.13 Y142.96 E139.88223
G1 X121.53 Y142.76 E139.91012
G1 X123.01 Y141.28 E140.04109
G1 X123.86 Y140.99 E140.09716
G1 X123.93 Y140.96 E140.10157
G1 X124.41 Y140.48 E140.14430
G1 X125.86 Y139.99 E140.23967
G1 X127.07 Y139.39 E140.32375
G1 X142.14 Y139.39 E141.26368
G1 X143.95 Y139.99 E141.38242
G1 X147.08 Y141.56 E141.60113
G1 X148.08 Y142.56 E141.68933
G1 X148.09 Y142.57 E141.68997
G1 X148.09 Y137.08 E142.03215
G1 X155.60 Y137.08 E142.50018
G1 X150.85 Y132.33 E142.91920
G1 X150.20 Y131.66 E142.97728
G1 X149.60 Y130.81 E143.04204
G1 X149.28 Y130.19 E143.08538
G1 X149.06 Y129.66 E143.12136
G1 X148.88 Y129.09 E143.15846
G1 X148.76 Y128.51 E143.19561
G1 X148.68 Y127.94 E143.23153
G1 X148.65 Y127.24 E143.27511
G1 X148.74 Y126.16 E143.34248
G1 X149.05 Y125.03 E143.41544
G1 X149.55 Y123.96 E143.48935
G1 X150.22 Y122.99 E143.56293
G1 X151.93 Y121.29 E143.71308
G1 X148.09 Y121.29 E143.95212
G1 X148.09 Y108.79 E144.73165
G0 F6000 X148.59 Y109.29
G1 F2700 X192.09 Y109.29 E147.44443
G1 X192.09 Y120.79 E148.16161
G1 X189.22 Y120.79 E148.34052
G1 X189.39 Y121.00 E148.35725
G1 X189.88 Y121.86 E148.41925
G1 X190.23 Y122.80 E148.48128
G1 X190.37 Y123.44 E148.52198
G1 X190.44 Y123.98 E148.55605
G1 X190.47 Y124.60 E148.59519
G1 X190.39 Y125.51 E148.65209
G1 X190.25 Y126.14 E148.69203
G1 X190.05 Y126.75 E148.73193
G1 X189.63 Y127.65 E148.79431
G1 X189.02 Y128.53 E148.86071
G1 X188.28 Y129.28 E148.92660
G1 X179.98 Y137.58 E149.65839
G1 X192.09 Y137.58 E150.41360
G1 X192.09 Y149.08 E151.13077
G1 X189.22 Y149.08 E151.30969
G1 X189.39 Y149.29 E151.32642
G1 X189.88 Y150.15 E151.38842
G1 X190.23 Y151.09 E151.45045
G1 X190.37 Y151.72 E151.49109
G1 X190.44 Y152.26 E151.52510
G1 X190.47 Y152.89 E151.56430
G1 X190.39 Y153.80 E151.62120
G1 X190.25 Y154.43 E151.66114
G1 X190.05 Y155.04 E151.70104
G1 X189.63 Y155.94 E151.76342
G1 X189.02 Y156.81 E151.82982
G1 X188.28 Y157.57 E151.89571
G1 X180.18 Y165.67 E152.61004
G1 X180.56 Y165.86 E152.63611
G1 X181.16 Y166.06 E152.67555
G1 X182.99 Y166.97 E152.80334
G1 X183.19 Y167.17 E152.82098
G1 X183.59 Y167.37 E152.84887
G1 X184.19 Y167.97 E152.90174
G1 X184.59 Y168.17 E152.92969
G1 X185.19 Y168.77 E152.98261
G1 X185.59 Y168.97 E153.01036
G1 X191.00 Y174.39 E153.48828
G1 X191.00 Y174.59 E153.50075
G1 X191.21 Y174.79 E153.51839
G1 X191.21 Y174.99 E153.53086
G1 X191.41 Y175.19 E153.54850
G1 X191.41 Y177.85 E153.71464
G1 X192.29 Y180.00 E153.85958
G1 X191.41 Y180.89 E153.93807
G1 X191.41 Y183.44 E154.09716
G1 X189.19 Y183.51 E154.23567
G1 X185.50 Y187.19 E154.56022
G1 X184.54 Y187.19 E154.62047
G1 X182.21 Y189.52 E154.82605
G1 X182.49 Y190.21 E154.87219
G1 X177.99 Y194.71 E155.26928
G1 X175.02 Y196.19 E155.47600
G1 X171.59 Y196.19 E155.69028
G1 X169.42 Y195.11 E155.84121
G1 X168.91 Y194.59 E155.88681
G1 X168.59 Y194.91 E155.91477
G1 X166.02 Y196.19 E156.09360
G1 X162.59 Y196.19 E156.30787
G1 X160.42 Y195.11 E156.45881
G1 X158.71 Y193.39 E156.61029
G1 X155.60 Y193.39 E156.80361
G1 X155.60 Y190.29 E156.99693
G1 X151.82 Y186.51 E157.33048
G1 X149.41 Y185.30 E157.49902
G1 X149.41 Y184.09 E157.57454
G1 X149.21 Y183.89 E157.59218
G1 X149.21 Y183.69 E157.60465
G1 X149.00 Y183.49 E157.62229
G1 X149.00 Y183.09 E157.64724
G1 X146.75 Y180.84 E157.84567
G1 X149.00 Y178.59 E158.04411
G1 X149.00 Y178.19 E158.06906
G1 X149.21 Y177.99 E158.08670
G1 X149.21 Y177.79 E158.09917
G1 X158.22 Y168.77 E158.89446
G1 X158.62 Y168.57 E158.92241
G1 X159.07 Y168.13 E158.96152
G1 X151.20 Y160.26 E159.65499
G1 X150.72 Y159.77 E159.69790
G1 X148.71 Y161.79 E159.87606
G1 X147.81 Y161.79 E159.93212
G1 X145.43 Y164.16 E160.14158
G1 X145.69 Y164.80 E160.18450
G1 X141.19 Y169.31 E160.58195
G1 X140.79 Y169.51 E160.60984
G1 X140.59 Y169.71 E160.62748
G1 X138.42 Y170.79 E160.77842
G1 X134.59 Y170.79 E161.01764
G1 X132.42 Y169.71 E161.16858
G1 X132.08 Y169.36 E161.19900
G1 X131.79 Y169.51 E161.21914
G1 X131.59 Y169.71 E161.23682
G1 X129.42 Y170.79 E161.38776
G1 X125.59 Y170.79 E161.62692
G1 X121.41 Y168.70 E161.91851
G1 X121.41 Y167.99 E161.96285
G1 X118.81 Y167.99 E162.12499
G1 X118.81 Y164.89 E162.31831
G1 X117.70 Y163.79 E162.41533
G1 X117.50 Y163.79 E162.42780
G1 X112.61 Y158.89 E162.85995
G1 X112.61 Y158.69 E162.87242
G1 X112.41 Y158.49 E162.89006
G1 X112.41 Y152.59 E163.25800
G1 X112.61 Y152.39 E163.27564
G1 X112.61 Y152.19 E163.28812
G1 X121.42 Y143.37 E164.06577
G1 X121.82 Y143.17 E164.09371
G1 X123.28 Y141.71 E164.22234
G1 X124.06 Y141.45 E164.27342
G1 X124.22 Y141.37 E164.28500
G1 X124.68 Y140.91 E164.32539
G1 X126.05 Y140.46 E164.41557
G1 X127.19 Y139.89 E164.49455
G1 X142.06 Y139.89 E165.42208
G1 X143.75 Y140.46 E165.53352
G1 X146.79 Y141.97 E165.74498
G1 X147.79 Y142.97 E165.83317
G1 X148.59 Y143.38 E165.88931
G1 X148.59 Y137.58 E166.25077
G1 X156.81 Y137.58 E166.76289
G1 X151.20 Y131.98 E167.25695
G1 X150.59 Y131.34 E167.31230
G1 X150.03 Y130.55 E167.37253
G1 X149.74 Y129.98 E167.41244
G1 X149.53 Y129.49 E167.44577
G1 X149.37 Y128.96 E167.48007
G1 X149.25 Y128.42 E167.51447
G1 X149.18 Y127.89 E167.54774
G1 X149.15 Y127.25 E167.58789
G1 X149.24 Y126.25 E167.65044
G1 X149.52 Y125.20 E167.71803
G1 X149.98 Y124.21 E167.78644
G1 X150.61 Y123.32 E167.85458
G1 X153.13 Y120.79 E168.07718
G1 X148.59 Y120.79 E168.36018
G1 X148.59 Y109.29 E169.07735
G0 F6000 X149.09 Y109.79
G1 F2700 X191.59 Y109.79 E171.72777
G1 X191.59 Y120.29 E172.38258
G1 X188.11 Y120.29 E172.59960
G1 X188.25 Y120.42 E172.61133
G1 X188.60 Y120.80 E172.64331
G1 X188.97 Y121.28 E172.68147
G1 X189.43 Y122.08 E172.73869
G1 X189.75 Y122.94 E172.79600
G1 X189.88 Y123.52 E172.83319
G1 X189.94 Y124.02 E172.86456
G1 X189.96 Y124.59 E172.90039
G1 X189.89 Y125.44 E172.95316
G1 X189.76 Y126.01 E172.98964
G1 X189.59 Y126.57 E173.02614
G1 X189.20 Y127.40 E173.08370
G1 X188.63 Y128.21 E173.14486
G1 X187.92 Y128.93 E173.20805
G1 X178.78 Y138.08 E174.01499
G1 X191.59 Y138.08 E174.81435
G1 X191.59 Y148.58 E175.46916
G1 X188.11 Y148.58 E175.68618
G1 X188.25 Y148.71 E175.69791
G1 X188.60 Y149.09 E175.72990
G1 X188.97 Y149.57 E175.76805
G1 X189.43 Y150.37 E175.82527
G1 X189.75 Y151.23 E175.88258
G1 X189.88 Y151.81 E175.91971
G1 X189.94 Y152.31 E175.95102
G1 X189.96 Y152.88 E175.98691
G1 X189.89 Y153.72 E176.03968
G1 X189.76 Y154.30 E176.07616
G1 X189.59 Y154.85 E176.11267
G1 X189.20 Y155.69 E176.17022
G1 X188.63 Y156.49 E176.23138
G1 X187.92 Y157.22 E176.29458
G1 X179.24 Y165.90 E177.06024
G1 X179.71 Y165.99 E177.09007
G1 X180.36 Y166.32 E177.13533
G1 X180.96 Y166.52 E177.17491
G1 X182.69 Y167.38 E177.29539
G1 X182.89 Y167.58 E177.31308
G1 X183.29 Y167.78 E177.34091
G1 X183.89 Y168.38 E177.39391
G1 X184.29 Y168.58 E177.42172
G1 X184.89 Y169.18 E177.47468
G1 X185.29 Y169.38 E177.50243
G1 X190.50 Y174.60 E177.96236
G1 X190.50 Y174.80 E177.97484
G1 X190.71 Y175.00 E177.99247
G1 X190.71 Y175.20 E178.00495
G1 X190.91 Y175.40 E178.02259
G1 X190.91 Y177.95 E178.18205
G1 X191.71 Y179.88 E178.31228
G1 X190.91 Y180.68 E178.38284
G1 X190.91 Y182.96 E178.52465
G1 X188.97 Y183.02 E178.64525
G1 X185.30 Y186.69 E178.96928
G1 X184.33 Y186.69 E179.02952
G1 X181.62 Y189.40 E179.26884
G1 X181.90 Y190.09 E179.31497
G1 X177.69 Y194.30 E179.68623
G1 X174.91 Y195.69 E179.88048
G1 X171.71 Y195.69 E180.08004
G1 X169.72 Y194.70 E180.21851
G1 X168.91 Y193.88 E180.29030
G1 X168.29 Y194.50 E180.34445
G1 X165.91 Y195.69 E180.51081
G1 X162.71 Y195.69 E180.71037
G1 X160.72 Y194.70 E180.84884
G1 X158.91 Y192.89 E181.00826
G1 X156.10 Y192.89 E181.18325
G1 X156.10 Y190.08 E181.35824
G1 X154.51 Y188.49 E181.49877
G1 X152.12 Y186.10 E181.70987
G1 X149.91 Y184.99 E181.86412
G1 X149.91 Y183.88 E181.93328
G1 X149.71 Y183.68 E181.95092
G1 X149.71 Y183.48 E181.96339
G1 X149.50 Y183.28 E181.98103
G1 X149.50 Y182.88 E182.00592
G1 X147.46 Y180.84 E182.18614
G1 X149.50 Y178.80 E182.36637
G1 X149.50 Y178.40 E182.39125
G1 X149.71 Y178.20 E182.40889
G1 X149.71 Y178.00 E182.42136
G1 X158.52 Y169.18 E183.19870
G1 X158.92 Y168.98 E183.22645
G1 X159.78 Y168.13 E183.30212
G1 X159.61 Y167.96 E183.31663
G1 X151.56 Y159.91 E184.02651
G1 X150.97 Y159.31 E184.07913
G1 X150.77 Y159.02 E184.10120
G1 X148.50 Y161.29 E184.30158
G1 X147.60 Y161.29 E184.35771
G1 X144.84 Y164.05 E184.60086
G1 X145.10 Y164.68 E184.64383
G1 X140.89 Y168.90 E185.01540
G1 X140.49 Y169.10 E185.04323
G1 X140.29 Y169.30 E185.06091
G1 X138.31 Y170.29 E185.19939
G1 X134.71 Y170.29 E185.42389
G1 X132.72 Y169.30 E185.56236
G1 X132.10 Y168.68 E185.61651
G1 X131.89 Y168.90 E185.63539
G1 X131.49 Y169.10 E185.66322
G1 X131.29 Y169.30 E185.68090
G1 X129.31 Y170.29 E185.81938
G1 X125.71 Y170.29 E186.04382
G1 X121.91 Y168.39 E186.30877
G1 X121.91 Y167.49 E186.36502
G1 X119.31 Y167.49 E186.52716
G1 X119.31 Y164.68 E186.70215
G1 X117.91 Y163.29 E186.82510
G1 X117.71 Y163.29 E186.83751
G1 X113.11 Y158.68 E187.24382
G1 X113.11 Y158.48 E187.25629
G1 X112.91 Y158.28 E187.27393
G1 X112.91 Y152.80 E187.61605
G1 X113.11 Y152.60 E187.63369
G1 X113.11 Y152.40 E187.64616
G1 X121.72 Y143.78 E188.40587
G1 X122.12 Y143.58 E188.43362
G1 X123.55 Y142.15 E188.56009
G1 X124.25 Y141.92 E188.60623
G1 X124.52 Y141.78 E188.62470
G1 X124.95 Y141.35 E188.66297
G1 X126.25 Y140.92 E188.74815
G1 X127.31 Y140.39 E188.82186
G1 X141.98 Y140.39 E189.73691
G1 X143.56 Y140.92 E189.84111
G1 X146.49 Y142.38 E190.04526
G1 X147.49 Y143.38 E190.13355
G1 X149.09 Y144.18 E190.24516
G1 X149.09 Y138.08 E190.62588
G1 X158.01 Y138.08 E191.18204
G1 X151.56 Y131.63 E191.75107
G1 X150.97 Y131.02 E191.80368
G1 X150.46 Y130.29 E191.85939
G1 X150.19 Y129.77 E191.89587
G1 X150.00 Y129.31 E191.92655
G1 X149.85 Y128.83 E191.95811
G1 X149.74 Y128.34 E191.98970
G1 X149.68 Y127.85 E192.02040
G1 X149.65 Y127.26 E192.05705
G1 X149.73 Y126.34 E192.11484
G1 X149.99 Y125.38 E192.17696
G1 X150.41 Y124.46 E192.23990
G1 X150.99 Y123.64 E192.30257
G1 X154.34 Y120.29 E192.59767
G1 X149.09 Y120.29 E192.92464
G1 X149.09 Y109.79 E193.57945
G0 F6000 X149.59 Y110.29
G1 F2700 X191.09 Y110.29 E196.16750
G1 X191.09 Y119.79 E196.75995
G1 X186.90 Y119.79 E197.02125
G1 X187.89 Y120.77 E197.10798
G1 X188.22 Y121.12 E197.13790
G1 X188.55 Y121.56 E197.17236
G1 X188.97 Y122.29 E197.22491
G1 X189.26 Y123.08 E197.27743
G1 X189.38 Y123.61 E197.31111
G1 X189.44 Y124.06 E197.33978
G1 X189.46 Y124.58 E197.37230
G1 X189.40 Y125.36 E197.42087
G1 X189.28 Y125.88 E197.45398
G1 X189.12 Y126.38 E197.48705
G1 X188.76 Y127.15 E197.53987
G1 X188.25 Y127.89 E197.59578
G1 X187.57 Y128.58 E197.65620
G1 X177.57 Y138.58 E198.53827
G1 X191.09 Y138.58 E199.38173
G1 X191.09 Y148.08 E199.97418
G1 X186.90 Y148.08 E200.23548
G1 X187.89 Y149.06 E200.32222
G1 X188.22 Y149.41 E200.35213
G1 X188.55 Y149.85 E200.38659
G1 X188.97 Y150.58 E200.43914
G1 X189.26 Y151.37 E200.49166
G1 X189.38 Y151.90 E200.52528
G1 X189.44 Y152.35 E200.55389
G1 X189.46 Y152.87 E200.58647
G1 X189.40 Y153.65 E200.63504
G1 X189.28 Y154.17 E200.66815
G1 X189.12 Y154.67 E200.70122
G1 X188.76 Y155.44 E200.75404
G1 X188.25 Y156.17 E200.80995
G1 X187.57 Y156.87 E200.87037
G1 X178.23 Y166.21 E201.69419
G1 X179.55 Y166.47 E201.77814
G1 X180.17 Y166.78 E201.82165
G1 X180.77 Y166.98 E201.86103
G1 X182.40 Y167.79 E201.97426
G1 X182.59 Y167.99 E201.99190
G1 X183.00 Y168.19 E202.01979
G1 X183.59 Y168.79 E202.07271
G1 X184.00 Y168.99 E202.10060
G1 X184.59 Y169.59 E202.15351
G1 X184.99 Y169.79 E202.18132
G1 X190.00 Y174.80 E202.62326
G1 X190.00 Y175.00 E202.63573
G1 X190.21 Y175.20 E202.65337
G1 X190.21 Y175.40 E202.66585
G1 X190.41 Y175.60 E202.68348
G1 X190.41 Y178.05 E202.83627
G1 X191.12 Y179.77 E202.95186
G1 X190.41 Y180.48 E203.01447
G1 X190.41 Y182.47 E203.13895
G1 X188.76 Y182.52 E203.24165
G1 X185.09 Y186.19 E203.56514
G1 X184.12 Y186.19 E203.62539
G1 X181.03 Y189.29 E203.89843
G1 X181.31 Y189.97 E203.94457
G1 X177.40 Y193.89 E204.28994
G1 X174.79 Y195.19 E204.47178
G1 X171.82 Y195.19 E204.65662
G1 X170.01 Y194.29 E204.78269
G1 X168.91 Y193.18 E204.88058
G1 X168.00 Y194.09 E204.96084
G1 X165.79 Y195.19 E205.11479
G1 X162.82 Y195.19 E205.29963
G1 X161.01 Y194.29 E205.42569
G1 X159.12 Y192.39 E205.59291
G1 X156.60 Y192.39 E205.74969
G1 X156.60 Y189.88 E205.90647
G1 X152.42 Y185.69 E206.27582
G1 X150.41 Y184.68 E206.41608
G1 X150.41 Y183.68 E206.47888
G1 X150.21 Y183.48 E206.49652
G1 X150.21 Y183.28 E206.50899
G1 X150.00 Y183.08 E206.52663
G1 X150.00 Y182.68 E206.55158
G1 X148.17 Y180.84 E206.71350
G1 X150.00 Y179.00 E206.87542
G1 X150.00 Y178.60 E206.90037
G1 X150.21 Y178.40 E206.91801
G1 X150.21 Y178.20 E206.93048
G1 X158.81 Y169.59 E207.68983
G1 X159.22 Y169.39 E207.71772
G1 X160.49 Y168.12 E207.83004
G1 X159.96 Y167.61 E207.87595
G1 X151.92 Y159.56 E208.58534
G1 X151.36 Y158.99 E208.63522
G1 X150.89 Y158.32 E208.68640
G1 X150.85 Y158.24 E208.69217
G1 X148.29 Y160.79 E208.91751
G1 X147.39 Y160.79 E208.97363
G1 X144.25 Y163.93 E209.25056
G1 X144.51 Y164.57 E209.29357
G1 X140.59 Y168.49 E209.63924
G1 X140.19 Y168.69 E209.66713
G1 X140.00 Y168.89 E209.68477
G1 X138.19 Y169.79 E209.81083
G1 X134.82 Y169.79 E210.02062
G1 X133.01 Y168.89 E210.14668
G1 X132.10 Y167.98 E210.22694
G1 X131.59 Y168.49 E210.27192
G1 X131.19 Y168.69 E210.29981
G1 X131.00 Y168.89 E210.31745
G1 X129.19 Y169.79 E210.44351
G1 X125.82 Y169.79 E210.65323
G1 X122.41 Y168.08 E210.89155
G1 X122.41 Y167.08 E210.95435
G1 X122.32 Y166.99 E210.96193
G1 X119.81 Y166.99 E211.11871
G1 X119.81 Y164.48 E211.27549
G1 X118.12 Y162.79 E211.42419
G1 X117.92 Y162.79 E211.43666
G1 X113.61 Y158.48 E211.81713
G1 X113.61 Y158.28 E211.82960
G1 X113.41 Y158.08 E211.84724
G1 X113.41 Y153.00 E212.16354
G1 X113.61 Y152.80 E212.18118
G1 X113.61 Y152.60 E212.19366
G1 X122.02 Y144.19 E212.93537
G1 X122.42 Y143.99 E212.96326
G1 X123.82 Y142.59 E213.08730
G1 X124.44 Y142.38 E213.12819
G1 X124.81 Y142.19 E213.15412
G1 X125.22 Y141.79 E213.19002
G1 X126.44 Y141.38 E213.27014
G1 X127.42 Y140.89 E213.33861
G1 X141.90 Y140.89 E214.24125
G1 X143.37 Y141.38 E214.33816
G1 X146.19 Y142.79 E214.53506
G1 X147.19 Y143.79 E214.62325
G1 X149.59 Y144.99 E214.79045
G1 X149.59 Y138.58 E215.19044
G1 X159.22 Y138.58 E215.79069
G1 X151.92 Y131.28 E216.43472
G1 X151.36 Y130.70 E216.48461
G1 X150.89 Y130.03 E216.53578
G1 X150.65 Y129.56 E216.56886
G1 X150.47 Y129.14 E216.59685
G1 X150.33 Y128.70 E216.62567
G1 X150.24 Y128.25 E216.65457
G1 X150.18 Y127.81 E216.68257
G1 X150.15 Y127.27 E216.71578
G1 X150.23 Y126.43 E216.76875
G1 X150.46 Y125.55 E216.82549
G1 X150.85 Y124.71 E216.88297
G1 X151.38 Y123.96 E216.94013
G1 X155.54 Y119.79 E217.30777
G1 X149.59 Y119.79 E217.67877
G1 X149.59 Y110.29 E218.27121
G0 F6000 X150.09 Y110.79
G1 F2700 X190.59 Y110.79 E220.79691
G1 X190.59 Y119.29 E221.32699
G1 X185.69 Y119.29 E221.63257
G1 X187.53 Y121.12 E221.79427
G1 X187.84 Y121.45 E221.82215
G1 X188.14 Y121.84 E221.85301
G1 X188.52 Y122.50 E221.90073
G1 X188.78 Y123.22 E221.94854
G1 X188.89 Y123.69 E221.97876
G1 X188.94 Y124.11 E222.00466
G1 X188.96 Y124.57 E222.03388
G1 X188.90 Y125.28 E222.07832
G1 X188.80 Y125.75 E222.10797
G1 X188.65 Y126.20 E222.13766
G1 X188.33 Y126.90 E222.18573
G1 X187.86 Y127.56 E222.23628
G1 X187.21 Y128.22 E222.29400
G1 X176.48 Y138.97 E223.24112
G1 X176.36 Y139.08 E223.25135
G1 X190.59 Y139.08 E224.13909
G1 X190.59 Y147.58 E224.66917
G1 X185.69 Y147.58 E224.97475
G1 X187.53 Y149.41 E225.13645
G1 X187.84 Y149.74 E225.16434
G1 X188.14 Y150.13 E225.19520
G1 X188.52 Y150.79 E225.24292
G1 X188.78 Y151.51 E225.29072
G1 X188.89 Y151.98 E225.32089
G1 X188.94 Y152.39 E225.34672
G1 X188.96 Y152.86 E225.37600
G1 X188.90 Y153.57 E225.42044
G1 X188.80 Y154.04 E225.45009
G1 X188.65 Y154.49 E225.47978
G1 X188.33 Y155.19 E225.52785
G1 X187.86 Y155.85 E225.57840
G1 X187.21 Y156.51 E225.63613
G1 X177.14 Y166.59 E226.52477
G1 X177.60 Y166.59 E226.55327
G1 X179.38 Y166.95 E226.66699
G1 X179.98 Y167.25 E226.70846
G1 X180.58 Y167.44 E226.74790
G1 X182.10 Y168.21 E226.85388
G1 X182.30 Y168.41 E226.87152
G1 X182.70 Y168.60 E226.89941
G1 X183.30 Y169.21 E226.95237
G1 X183.70 Y169.41 E226.98021
G1 X184.30 Y170.01 E227.03321
G1 X184.70 Y170.20 E227.06093
G1 X189.50 Y175.01 E227.48488
G1 X189.50 Y175.21 E227.49735
G1 X189.71 Y175.41 E227.51499
G1 X189.71 Y175.61 E227.52747
G1 X189.91 Y175.81 E227.54510
G1 X189.91 Y178.15 E227.69122
G1 X190.53 Y179.65 E227.79215
G1 X189.91 Y180.27 E227.84683
G1 X189.91 Y181.99 E227.95397
G1 X188.54 Y182.03 E228.03883
G1 X184.88 Y185.69 E228.36171
G1 X183.92 Y185.69 E228.42195
G1 X180.44 Y189.17 E228.72869
G1 X180.72 Y189.85 E228.77483
G1 X177.10 Y193.47 E229.09435
G1 X174.67 Y194.69 E229.26378
G1 X171.94 Y194.69 E229.43391
G1 X170.31 Y193.88 E229.54756
G1 X168.91 Y192.47 E229.67107
G1 X168.91 Y192.47 E229.67144
G1 X168.90 Y192.47 E229.67180
G1 X167.70 Y193.68 E229.77768
G1 X165.67 Y194.69 E229.91922
G1 X162.94 Y194.69 E230.08934
G1 X161.31 Y193.88 E230.20299
G1 X159.32 Y191.89 E230.37810
G1 X157.10 Y191.89 E230.51655
G1 X157.10 Y189.67 E230.65499
G1 X154.93 Y187.49 E230.84721
G1 X152.71 Y185.27 E231.04269
G1 X150.91 Y184.37 E231.16842
G1 X150.91 Y183.47 E231.22486
G1 X150.71 Y183.27 E231.24250
G1 X150.71 Y183.07 E231.25497
G1 X150.50 Y182.87 E231.27261
G1 X150.50 Y182.47 E231.29749
G1 X148.88 Y180.84 E231.44120
G1 X150.50 Y179.21 E231.58492
G1 X150.50 Y178.81 E231.60980
G1 X150.71 Y178.61 E231.62744
G1 X150.71 Y178.41 E231.63991
G1 X159.11 Y170.00 E232.38127
G1 X159.51 Y169.81 E232.40911
G1 X161.09 Y168.22 E232.54858
G1 X161.36 Y168.13 E232.56627
G1 X160.85 Y167.77 E232.60531
G1 X160.31 Y167.25 E232.65214
G1 X152.27 Y159.21 E233.36100
G1 X151.75 Y158.67 E233.40815
G1 X151.32 Y158.06 E233.45481
G1 X151.10 Y157.63 E233.48446
G1 X150.99 Y157.38 E233.50166
G1 X148.08 Y160.29 E233.75831
G1 X147.18 Y160.29 E233.81443
G1 X143.66 Y163.81 E234.12505
G1 X143.93 Y164.45 E234.16803
G1 X140.30 Y168.07 E234.48782
G1 X139.90 Y168.28 E234.51571
G1 X139.70 Y168.47 E234.53335
G1 X138.07 Y169.29 E234.64700
G1 X134.94 Y169.29 E234.84207
G1 X133.31 Y168.47 E234.95572
G1 X132.10 Y167.27 E235.06208
G1 X131.30 Y168.07 E235.13321
G1 X130.90 Y168.28 E235.16099
G1 X130.70 Y168.47 E235.17867
G1 X129.07 Y169.29 E235.29232
G1 X125.94 Y169.29 E235.48739
G1 X122.91 Y167.77 E235.69905
G1 X122.91 Y166.87 E235.75536
G1 X122.53 Y166.49 E235.78887
G1 X120.31 Y166.49 E235.92732
G1 X120.31 Y164.27 E236.06576
G1 X118.33 Y162.29 E236.24039
G1 X118.13 Y162.29 E236.25280
G1 X114.11 Y158.27 E236.60743
G1 X114.11 Y158.07 E236.61990
G1 X113.91 Y157.87 E236.63754
G1 X113.91 Y153.21 E236.92802
G1 X114.11 Y153.01 E236.94566
G1 X114.11 Y152.81 E236.95814
G1 X122.31 Y144.60 E237.68186
G1 X122.71 Y144.41 E237.70969
G1 X124.09 Y143.02 E237.83153
G1 X124.69 Y142.82 E237.87097
G1 X124.71 Y142.81 E237.87265
G1 X125.11 Y142.60 E237.90048
G1 X125.49 Y142.22 E237.93413
G1 X126.63 Y141.85 E238.00885
G1 X127.54 Y141.39 E238.07244
G1 X141.82 Y141.39 E238.96267
G1 X143.18 Y141.84 E239.05234
G1 X145.90 Y143.21 E239.24193
G1 X146.90 Y144.21 E239.33017
G1 X149.24 Y145.38 E239.49355
G1 X149.06 Y146.16 E239.54392
G1 X150.09 Y147.20 E239.63529
G1 X150.09 Y139.08 E240.14167
G1 X160.43 Y139.08 E240.78632
G1 X160.31 Y138.96 E240.79672
G1 X152.27 Y130.93 E241.50559
G1 X151.75 Y130.38 E241.55273
G1 X151.32 Y129.77 E241.59939
G1 X151.10 Y129.35 E241.62904
G1 X150.94 Y128.97 E241.65440
G1 X150.82 Y128.57 E241.68046
G1 X150.73 Y128.16 E241.70656
G1 X150.67 Y127.76 E241.73192
G1 X150.65 Y127.28 E241.76170
G1 X150.72 Y126.51 E241.80991
G1 X150.93 Y125.72 E241.86124
G1 X151.28 Y124.96 E241.91322
G1 X151.76 Y124.28 E241.96491
G1 X156.75 Y119.29 E242.40500
G1 X150.09 Y119.29 E242.81996
G1 X150.09 Y110.79 E243.35005
G0 F6000 X150.59 Y111.29
G1 F2700 X190.09 Y111.29 E245.81338
G1 X190.09 Y118.79 E246.28110
G1 X184.48 Y118.79 E246.63095
G1 X187.17 Y121.47 E246.86762
G1 X187.46 Y121.77 E246.89343
G1 X187.72 Y122.12 E246.92065
G1 X188.06 Y122.71 E246.96362
G1 X188.30 Y123.36 E247.00672
G1 X188.40 Y123.78 E247.03343
G1 X188.44 Y124.15 E247.05657
G1 X188.46 Y124.56 E247.08247
G1 X188.41 Y125.21 E247.12278
G1 X188.31 Y125.62 E247.14904
G1 X188.19 Y126.02 E247.17534
G1 X187.89 Y126.65 E247.21858
G1 X187.48 Y127.24 E247.26389
G1 X186.86 Y127.87 E247.31897
G1 X176.12 Y138.61 E248.26560
G1 X175.61 Y139.10 E248.31001
G1 X175.06 Y139.49 E248.35219
G1 X174.89 Y139.58 E248.36413
G1 X190.09 Y139.58 E249.31230
G1 X190.09 Y147.08 E249.78002
G1 X184.48 Y147.08 E250.12987
G1 X187.17 Y149.76 E250.36654
G1 X187.46 Y150.06 E250.39235
G1 X187.72 Y150.41 E250.41957
G1 X188.06 Y151.00 E250.46253
G1 X188.30 Y151.65 E250.50564
G1 X188.40 Y152.07 E250.53229
G1 X188.44 Y152.44 E250.55542
G1 X188.46 Y152.85 E250.58133
G1 X188.41 Y153.50 E250.62164
G1 X188.31 Y153.91 E250.64790
G1 X188.19 Y154.31 E250.67419
G1 X187.89 Y154.94 E250.71744
G1 X187.48 Y155.53 E250.76275
G1 X186.86 Y156.16 E250.81783
G1 X176.12 Y166.90 E251.76446
G1 X175.92 Y167.09 E251.78188
G1 X177.55 Y167.09 E251.88310
G1 X179.22 Y167.43 E251.98956
G1 X179.78 Y167.71 E252.02863
G1 X180.39 Y167.91 E252.06847
G1 X181.80 Y168.62 E252.16720
G1 X182.00 Y168.82 E252.18493
G1 X182.40 Y169.02 E252.21273
G1 X183.00 Y169.62 E252.26574
G1 X183.40 Y169.82 E252.29354
G1 X184.00 Y170.42 E252.34655
G1 X184.40 Y170.62 E252.37427
G1 X189.00 Y175.22 E252.78023
G1 X189.00 Y175.42 E252.79270
G1 X189.21 Y175.62 E252.81034
G1 X189.21 Y175.82 E252.82281
G1 X189.41 Y176.02 E252.84045
G1 X189.41 Y178.25 E252.97977
G1 X189.94 Y179.53 E253.06617
G1 X189.41 Y180.06 E253.11291
G1 X189.41 Y181.50 E253.20271
G1 X188.33 Y181.53 E253.26966
G1 X184.68 Y185.19 E253.59201
G1 X183.71 Y185.19 E253.65231
G1 X179.85 Y189.05 E253.99270
G1 X180.13 Y189.73 E254.03884
G1 X176.80 Y193.06 E254.33252
G1 X174.55 Y194.19 E254.48954
G1 X172.06 Y194.19 E254.64495
G1 X170.61 Y193.46 E254.74619
G1 X169.21 Y192.06 E254.86975
G1 X169.02 Y191.97 E254.88297
G1 X168.78 Y191.97 E254.89750
G1 X168.60 Y192.06 E254.91005
G1 X167.40 Y193.26 E255.01589
G1 X165.55 Y194.19 E255.14501
G1 X163.06 Y194.19 E255.30042
G1 X161.61 Y193.46 E255.40166
G1 X159.53 Y191.39 E255.58458
G1 X157.60 Y191.39 E255.70481
G1 X157.60 Y189.46 E255.82505
G1 X153.01 Y184.86 E256.23056
G1 X151.41 Y184.06 E256.34223
G1 X151.41 Y183.26 E256.39225
G1 X151.21 Y183.06 E256.40989
G1 X151.21 Y182.86 E256.42236
G1 X151.00 Y182.66 E256.44000
G1 X151.00 Y182.26 E256.46494
G1 X149.58 Y180.84 E256.59036
G1 X151.00 Y179.42 E256.71577
G1 X151.00 Y179.02 E256.74071
G1 X151.21 Y178.82 E256.75835
G1 X151.21 Y178.62 E256.77082
G1 X159.41 Y170.42 E257.49419
G1 X159.81 Y170.22 E257.52200
G1 X161.36 Y168.66 E257.65923
G1 X161.96 Y168.46 E257.69867
G1 X162.01 Y168.42 E257.70264
G1 X162.55 Y168.15 E257.74035
G1 X162.43 Y168.11 E257.74788
G1 X162.10 Y167.97 E257.77048
G1 X161.72 Y167.78 E257.79686
G1 X161.17 Y167.39 E257.83906
G1 X160.66 Y166.90 E257.88316
G1 X152.63 Y158.86 E258.59154
G1 X152.13 Y158.35 E258.63595
G1 X151.75 Y157.80 E258.67813
G1 X151.55 Y157.42 E258.70432
G1 X151.41 Y157.09 E258.72706
G1 X151.30 Y156.73 E258.75031
G1 X151.24 Y156.43 E258.76945
G1 X147.88 Y159.79 E259.06561
G1 X146.98 Y159.79 E259.12173
G1 X143.07 Y163.69 E259.46613
G1 X143.34 Y164.33 E259.50911
G1 X140.00 Y167.66 E259.80297
G1 X139.60 Y167.86 E259.83078
G1 X139.40 Y168.06 E259.84851
G1 X137.95 Y168.79 E259.94975
G1 X135.06 Y168.79 E260.13010
G1 X133.61 Y168.06 E260.23134
G1 X132.16 Y166.62 E260.35887
G1 X132.10 Y166.60 E260.36255
G1 X132.05 Y166.62 E260.36624
G1 X131.00 Y167.66 E260.45854
G1 X130.60 Y167.86 E260.48629
G1 X130.40 Y168.06 E260.50401
G1 X128.95 Y168.79 E260.60525
G1 X126.06 Y168.79 E260.78561
G1 X123.41 Y167.46 E260.97063
G1 X123.41 Y166.66 E261.02064
G1 X122.73 Y165.99 E261.07991
G1 X120.81 Y165.99 E261.20014
G1 X120.81 Y164.06 E261.32038
G1 X118.53 Y161.79 E261.52075
G1 X118.33 Y161.79 E261.53323
G1 X114.61 Y158.06 E261.86202
G1 X114.61 Y157.86 E261.87449
G1 X114.41 Y157.66 E261.89213
G1 X114.41 Y153.42 E262.15679
G1 X114.61 Y153.22 E262.17443
G1 X114.61 Y153.02 E262.18691
G1 X122.61 Y145.02 E262.89264
G1 X123.01 Y144.82 E262.92044
G1 X124.36 Y143.46 E263.04003
G1 X124.96 Y143.26 E263.07948
G1 X125.01 Y143.22 E263.08344
G1 X125.41 Y143.02 E263.11125
G1 X125.76 Y142.66 E263.14265
G1 X126.83 Y142.31 E263.21271
G1 X127.66 Y141.89 E263.27067
G1 X141.74 Y141.89 E264.14849
G1 X142.99 Y142.31 E264.23086
G1 X145.60 Y143.62 E264.41320
G1 X146.60 Y144.62 E264.50149
G1 X148.66 Y145.65 E264.64517
G1 X148.51 Y146.32 E264.68824
G1 X152.21 Y150.02 E265.01447
G1 X152.21 Y150.22 E265.02694
G1 X152.60 Y150.62 E265.06222
G1 X152.60 Y152.44 E265.17553
G1 X157.95 Y147.08 E265.64755
G1 X150.59 Y147.08 E266.10654
G1 X150.59 Y139.58 E266.57426
G1 X161.90 Y139.58 E267.27914
G1 X161.72 Y139.49 E267.29136
G1 X161.17 Y139.10 E267.33356
G1 X160.66 Y138.61 E267.37766
G1 X152.63 Y130.57 E268.08604
G1 X152.13 Y130.06 E268.13045
G1 X151.75 Y129.51 E268.17263
G1 X151.55 Y129.14 E268.19882
G1 X151.41 Y128.80 E268.22156
G1 X151.30 Y128.44 E268.24481
G1 X151.22 Y128.08 E268.26816
G1 X151.17 Y127.72 E268.29093
G1 X151.15 Y127.29 E268.31728
G1 X151.22 Y126.60 E268.36061
G1 X151.41 Y125.89 E268.40658
G1 X151.72 Y125.21 E268.45306
G1 X152.15 Y124.61 E268.49931
G1 X157.95 Y118.79 E269.01189
G1 X150.59 Y118.79 E269.47088
G1 X150.59 Y111.29 E269.93860
G0 F6000 X151.09 Y111.79
G1 F2700 X189.59 Y111.79 E272.33957
G1 X189.59 Y118.29 E272.74493
G1 X183.27 Y118.29 E273.13900
G1 X186.81 Y121.82 E273.45063
G1 X187.07 Y122.09 E273.47437
G1 X187.30 Y122.39 E273.49794
G1 X187.61 Y122.93 E273.53619
G1 X187.82 Y123.50 E273.57451
G1 X187.90 Y123.87 E273.59770
G1 X187.94 Y124.19 E273.61813
G1 X187.96 Y124.55 E273.64073
G1 X187.91 Y125.13 E273.67691
G1 X187.83 Y125.49 E273.69972
G1 X187.72 Y125.84 E273.72260
G1 X187.46 Y126.40 E273.76110
G1 X187.09 Y126.92 E273.80113
G1 X186.50 Y127.52 E273.85344
G1 X175.77 Y138.25 E274.79972
G1 X175.29 Y138.72 E274.84135
G1 X174.80 Y139.06 E274.87896
G1 X174.47 Y139.23 E274.90178
G1 X174.18 Y139.35 E274.92183
G1 X173.86 Y139.45 E274.94238
G1 X173.54 Y139.52 E274.96293
G1 X173.22 Y139.57 E274.98306
G1 X172.85 Y139.58 E275.00616
G1 X172.28 Y139.53 E275.04192
G1 X171.92 Y139.45 E275.06489
G1 X171.60 Y139.35 E275.08560
G1 X171.31 Y139.23 E275.10556
G1 X170.98 Y139.06 E275.12852
G1 X170.48 Y138.71 E275.16670
G1 X169.33 Y137.57 E275.26760
G1 X169.12 Y137.39 E275.28476
G1 X168.95 Y137.29 E275.29702
G1 X168.78 Y137.22 E275.30871
G1 X168.59 Y137.17 E275.32102
G1 X168.39 Y137.16 E275.33353
G1 X168.20 Y137.17 E275.34541
G1 X168.01 Y137.22 E275.35774
G1 X167.82 Y137.29 E275.37015
G1 X167.66 Y137.39 E275.38172
G1 X167.45 Y137.58 E275.39972
G1 X166.49 Y138.54 E275.48407
G1 X166.07 Y138.88 E275.51803
G1 X165.77 Y139.08 E275.54063
G1 X165.47 Y139.23 E275.56107
G1 X165.18 Y139.35 E275.58112
G1 X164.86 Y139.45 E275.60167
G1 X164.54 Y139.52 E275.62222
G1 X164.22 Y139.57 E275.64236
G1 X163.85 Y139.58 E275.66546
G1 X163.28 Y139.53 E275.70121
G1 X162.92 Y139.45 E275.72418
G1 X162.60 Y139.35 E275.74489
G1 X162.31 Y139.23 E275.76486
G1 X161.98 Y139.06 E275.78781
G1 X161.49 Y138.71 E275.82541
G1 X161.01 Y138.25 E275.86682
G1 X152.99 Y130.22 E276.57476
G1 X152.52 Y129.74 E276.61639
G1 X152.18 Y129.25 E276.65400
G1 X152.01 Y128.93 E276.67682
G1 X151.88 Y128.63 E276.69687
G1 X151.78 Y128.31 E276.71742
G1 X151.71 Y127.99 E276.73797
G1 X151.67 Y127.67 E276.75810
G1 X151.65 Y127.31 E276.78101
G1 X151.71 Y126.69 E276.81958
G1 X151.88 Y126.06 E276.86014
G1 X152.15 Y125.47 E276.90110
G1 X152.53 Y124.93 E276.94188
G1 X159.16 Y118.29 E277.52696
G1 X151.09 Y118.29 E278.02992
G1 X151.09 Y111.79 E278.43527
G0 F6000 X151.59 Y112.29
G1 F2700 X189.09 Y112.29 E280.77388
G1 X189.09 Y117.79 E281.11687
G1 X182.03 Y117.79 E281.55753
G1 X182.40 Y118.12 E281.58862
G1 X186.45 Y122.17 E281.94576
G1 X186.69 Y122.42 E281.96746
G1 X186.89 Y122.67 E281.98743
G1 X187.16 Y123.14 E282.02090
G1 X187.34 Y123.64 E282.05450
G1 X187.41 Y123.95 E282.07419
G1 X187.44 Y124.23 E282.09191
G1 X187.46 Y124.54 E282.11120
G1 X187.41 Y125.05 E282.14318
G1 X187.35 Y125.36 E282.16261
G1 X187.25 Y125.66 E282.18210
G1 X187.02 Y126.14 E282.21577
G1 X186.70 Y126.60 E282.25056
G1 X186.15 Y127.17 E282.30017
G1 X175.42 Y137.90 E283.24597
G1 X174.97 Y138.33 E283.28491
G1 X174.54 Y138.63 E283.31801
G1 X174.26 Y138.78 E283.33742
G1 X174.01 Y138.88 E283.35482
G1 X173.74 Y138.97 E283.37257
G1 X173.46 Y139.03 E283.39036
G1 X173.18 Y139.07 E283.40792
G1 X172.86 Y139.08 E283.42752
G1 X172.36 Y139.04 E283.45927
G1 X172.05 Y138.97 E283.47873
G1 X171.78 Y138.88 E283.49668
G1 X171.52 Y138.78 E283.51404
G1 X171.24 Y138.63 E283.53353
G1 X170.80 Y138.32 E283.56701
G1 X169.67 Y137.20 E283.66663
G1 X169.42 Y136.99 E283.68720
G1 X169.18 Y136.84 E283.70446
G1 X168.94 Y136.74 E283.72095
G1 X168.66 Y136.68 E283.73845
G1 X168.40 Y136.65 E283.75522
G1 X168.11 Y136.68 E283.77280
G1 X167.85 Y136.74 E283.78949
G1 X167.59 Y136.85 E283.80725
G1 X167.37 Y136.99 E283.82357
G1 X167.11 Y137.21 E283.84511
G1 X166.15 Y138.17 E283.92933
G1 X165.78 Y138.48 E283.95984
G1 X165.52 Y138.65 E283.97908
G1 X165.26 Y138.78 E283.99679
G1 X165.01 Y138.88 E284.01419
G1 X164.74 Y138.97 E284.03194
G1 X164.46 Y139.03 E284.04973
G1 X164.18 Y139.07 E284.06728
G1 X163.86 Y139.08 E284.08689
G1 X163.36 Y139.04 E284.11864
G1 X163.05 Y138.97 E284.13810
G1 X162.78 Y138.88 E284.15604
G1 X162.52 Y138.78 E284.17340
G1 X162.24 Y138.63 E284.19290
G1 X161.81 Y138.33 E284.22598
G1 X161.36 Y137.90 E284.26466
G1 X153.34 Y129.87 E284.97206
G1 X152.91 Y129.43 E285.01101
G1 X152.60 Y128.99 E285.04410
G1 X152.46 Y128.71 E285.06352
G1 X152.35 Y128.46 E285.08091
G1 X152.27 Y128.19 E285.09866
G1 X152.21 Y127.91 E285.11646
G1 X152.17 Y127.63 E285.13395
G1 X152.16 Y127.32 E285.15343
G1 X152.20 Y126.78 E285.18718
G1 X152.35 Y126.23 E285.22237
G1 X152.59 Y125.72 E285.25783
G1 X152.91 Y125.25 E285.29311
G1 X159.57 Y118.58 E285.88088
G1 X160.06 Y118.11 E285.92278
G1 X160.43 Y117.79 E285.95358
G1 X151.59 Y117.79 E286.50449
G1 X151.59 Y112.29 E286.84749
G0 F6000 X152.09 Y112.79
G1 F2700 X188.59 Y112.79 E289.12373
G1 X188.59 Y117.29 E289.40436
G1 X180.58 Y117.29 E289.90401
G1 X180.62 Y117.31 E289.90654
G1 X180.98 Y117.58 E289.93488
G1 X181.68 Y118.15 E289.99090
G1 X182.05 Y118.49 E290.02243
G1 X186.10 Y122.52 E290.37834
G1 X186.31 Y122.74 E290.39797
G1 X186.47 Y122.95 E290.41425
G1 X186.70 Y123.35 E290.44297
G1 X186.86 Y123.78 E290.47185
G1 X186.92 Y124.04 E290.48803
G1 X186.95 Y124.28 E290.50305
G1 X186.96 Y124.53 E290.51896
G1 X186.92 Y124.98 E290.54688
G1 X186.86 Y125.23 E290.56286
G1 X186.79 Y125.47 E290.57895
G1 X186.59 Y125.89 E290.60785
G1 X186.32 Y126.28 E290.63740
G1 X185.79 Y126.82 E290.68428
G1 X175.07 Y137.54 E291.62968
G1 X174.66 Y137.94 E291.66585
G1 X174.28 Y138.21 E291.69446
G1 X174.05 Y138.32 E291.71042
G1 X173.83 Y138.41 E291.72518
G1 X173.60 Y138.49 E291.74017
G1 X173.37 Y138.54 E291.75517
G1 X173.13 Y138.57 E291.77008
G1 X172.87 Y138.58 E291.78625
G1 X172.43 Y138.54 E291.81393
G1 X172.18 Y138.49 E291.82995
G1 X171.95 Y138.41 E291.84508
G1 X171.73 Y138.32 E291.85993
G1 X171.50 Y138.20 E291.87599
G1 X171.12 Y137.94 E291.90468
G1 X170.01 Y136.83 E292.00249
G1 X169.71 Y136.58 E292.02726
G1 X169.41 Y136.39 E292.04923
G1 X169.09 Y136.26 E292.07082
G1 X168.75 Y136.18 E292.09256
G1 X168.39 Y136.15 E292.11470
G1 X168.04 Y136.18 E292.13697
G1 X167.69 Y136.27 E292.15925
G1 X167.37 Y136.40 E292.18114
G1 X167.07 Y136.58 E292.20247
G1 X166.77 Y136.84 E292.22789
G1 X165.81 Y137.80 E292.31181
G1 X165.48 Y138.08 E292.33900
G1 X165.27 Y138.21 E292.35481
G1 X165.05 Y138.32 E292.36979
G1 X164.83 Y138.41 E292.38456
G1 X164.60 Y138.49 E292.39954
G1 X164.37 Y138.54 E292.41454
G1 X164.13 Y138.57 E292.42945
G1 X163.87 Y138.58 E292.44562
G1 X163.43 Y138.54 E292.47330
G1 X163.18 Y138.49 E292.48933
G1 X162.95 Y138.41 E292.50445
G1 X162.73 Y138.32 E292.51930
G1 X162.50 Y138.20 E292.53537
G1 X162.13 Y137.94 E292.56383
G1 X161.71 Y137.54 E292.59981
G1 X153.70 Y129.52 E293.30674
G1 X153.29 Y129.11 E293.34290
G1 X153.03 Y128.73 E293.37152
G1 X152.91 Y128.50 E293.38747
G1 X152.82 Y128.28 E293.40224
G1 X152.75 Y128.06 E293.41723
G1 X152.70 Y127.82 E293.43222
G1 X152.67 Y127.58 E293.44714
G1 X152.66 Y127.33 E293.46312
G1 X152.70 Y126.86 E293.49205
G1 X152.82 Y126.40 E293.52186
G1 X153.02 Y125.97 E293.55186
G1 X153.30 Y125.58 E293.58167
G1 X159.92 Y118.94 E294.16648
G1 X160.39 Y118.48 E294.20732
G1 X161.12 Y117.85 E294.26703
G1 X161.50 Y117.56 E294.29715
G1 X161.87 Y117.29 E294.32594
G1 X152.09 Y117.29 E294.93584
G1 X152.09 Y112.79 E295.21648
G0 F6000 X152.59 Y113.29
G1 F2700 X188.09 Y113.29 E297.43036
G1 X188.09 Y116.79 E297.64862
G1 X178.72 Y116.79 E298.23315
G1 X179.06 Y116.95 E298.25645
G1 X179.68 Y117.30 E298.30073
G1 X180.33 Y117.72 E298.34937
G1 X180.68 Y117.98 E298.37610
G1 X181.35 Y118.53 E298.43058
G1 X181.71 Y118.85 E298.46052
G1 X185.74 Y122.86 E298.81515
G1 X185.93 Y123.07 E298.83275
G1 X186.05 Y123.23 E298.84538
G1 X186.25 Y123.56 E298.86936
G1 X186.38 Y123.93 E298.89346
G1 X186.42 Y124.12 E298.90613
G1 X186.45 Y124.32 E298.91844
G1 X186.46 Y124.52 E298.93105
G1 X186.43 Y124.90 E298.95477
G1 X186.38 Y125.10 E298.96736
G1 X186.32 Y125.29 E298.98006
G1 X186.16 Y125.64 E299.00422
G1 X185.93 Y125.96 E299.02844
G1 X185.44 Y126.47 E299.07259
G1 X174.72 Y137.18 E300.01759
G1 X174.34 Y137.56 E300.05102
G1 X174.02 Y137.78 E300.07507
G1 X173.84 Y137.87 E300.08765
G1 X173.66 Y137.94 E300.09972
G1 X173.48 Y138.00 E300.11197
G1 X173.28 Y138.04 E300.12422
G1 X173.09 Y138.07 E300.13648
G1 X172.88 Y138.08 E300.14922
G1 X172.51 Y138.05 E300.17283
G1 X172.31 Y138.00 E300.18540
G1 X172.12 Y137.94 E300.19779
G1 X171.94 Y137.87 E300.21001
G1 X171.76 Y137.77 E300.22264
G1 X171.45 Y137.55 E300.24659
G1 X170.35 Y136.46 E300.34312
G1 X170.00 Y136.17 E300.37130
G1 X169.63 Y135.95 E300.39822
G1 X169.24 Y135.78 E300.42467
G1 X168.82 Y135.68 E300.45155
G1 X168.39 Y135.65 E300.47844
G1 X167.96 Y135.69 E300.50559
G1 X167.54 Y135.79 E300.53262
G1 X167.13 Y135.96 E300.55985
G1 X166.78 Y136.17 E300.58560
G1 X166.43 Y136.48 E300.61492
G1 X165.48 Y137.43 E300.69867
G1 X165.19 Y137.67 E300.72236
G1 X165.02 Y137.78 E300.73486
G1 X164.84 Y137.87 E300.74708
G1 X164.66 Y137.94 E300.75916
G1 X164.48 Y138.00 E300.77141
G1 X164.28 Y138.04 E300.78365
G1 X164.09 Y138.07 E300.79592
G1 X163.88 Y138.08 E300.80866
G1 X163.51 Y138.05 E300.83226
G1 X163.31 Y138.00 E300.84484
G1 X163.12 Y137.94 E300.85722
G1 X162.94 Y137.87 E300.86944
G1 X162.76 Y137.77 E300.88208
G1 X162.45 Y137.55 E300.90593
G1 X162.06 Y137.18 E300.93923
G1 X154.06 Y129.17 E301.64567
G1 X153.68 Y128.79 E301.67910
G1 X153.46 Y128.47 E301.70314
G1 X153.37 Y128.29 E301.71572
G1 X153.29 Y128.11 E301.72780
G1 X153.23 Y127.93 E301.74005
G1 X153.19 Y127.73 E301.75229
G1 X153.17 Y127.54 E301.76456
G1 X153.16 Y127.34 E301.77711
G1 X153.19 Y126.95 E301.80128
G1 X153.29 Y126.57 E301.82568
G1 X153.46 Y126.22 E301.85018
G1 X153.68 Y125.90 E301.87449
G1 X160.28 Y119.30 E302.45639
G1 X160.73 Y118.85 E302.49618
G1 X161.43 Y118.24 E302.55425
G1 X161.79 Y117.96 E302.58268
G1 X162.47 Y117.48 E302.63420
G1 X163.15 Y117.07 E302.68394
G1 X163.69 Y116.79 E302.72171
G1 X152.59 Y116.79 E303.41368
G1 X152.59 Y113.29 E303.63195
G0 F6000 X151.09 Y140.08
G1 F2700 X189.59 Y140.08 E306.03292
G1 X189.59 Y146.58 E306.43828
G1 X183.27 Y146.58 E306.83235
G1 X186.81 Y150.11 E307.14398
G1 X187.07 Y150.38 E307.16772
G1 X187.30 Y150.68 E307.19129
G1 X187.61 Y151.22 E307.22954
G1 X187.82 Y151.79 E307.26786
G1 X187.90 Y152.15 E307.29099
G1 X187.94 Y152.48 E307.31142
G1 X187.96 Y152.84 E307.33402
G1 X187.91 Y153.42 E307.37020
G1 X187.83 Y153.78 E307.39301
G1 X187.72 Y154.13 E307.41589
G1 X187.46 Y154.69 E307.45439
G1 X187.09 Y155.21 E307.49442
G1 X186.50 Y155.81 E307.54673
G1 X175.77 Y166.54 E308.49301
G1 X175.29 Y167.00 E308.53464
G1 X174.80 Y167.35 E308.57225
G1 X174.47 Y167.52 E308.59507
G1 X174.30 Y167.59 E308.60681
G1 X177.50 Y167.59 E308.80612
G1 X179.06 Y167.90 E308.90534
G1 X179.60 Y168.17 E308.94299
G1 X180.19 Y168.37 E308.98229
G1 X181.51 Y169.03 E309.07377
G1 X181.71 Y169.23 E309.09136
G1 X182.11 Y169.43 E309.11931
G1 X182.71 Y170.03 E309.17214
G1 X183.11 Y170.23 E309.20011
G1 X183.71 Y170.83 E309.25294
G1 X184.11 Y171.03 E309.28083
G1 X188.50 Y175.43 E309.66879
G1 X188.50 Y175.62 E309.68127
G1 X188.71 Y175.82 E309.69890
G1 X188.71 Y176.03 E309.71138
G1 X188.91 Y176.22 E309.72902
G1 X188.91 Y178.35 E309.86160
G1 X189.34 Y179.41 E309.93335
G1 X188.91 Y179.85 E309.97215
G1 X188.91 Y181.02 E310.04468
G1 X188.12 Y181.04 E310.09372
G1 X184.47 Y184.69 E310.41554
G1 X183.50 Y184.69 E310.47591
G1 X179.26 Y188.93 E310.84994
G1 X179.54 Y189.62 E310.89608
G1 X176.51 Y192.65 E311.16392
G1 X174.43 Y193.69 E311.30853
G1 X172.18 Y193.69 E311.44922
G1 X170.90 Y193.05 E311.53805
G1 X169.50 Y191.65 E311.66139
G1 X169.13 Y191.47 E311.68752
G1 X168.66 Y191.48 E311.71703
G1 X168.31 Y191.65 E311.74149
G1 X167.11 Y192.85 E311.84727
G1 X165.43 Y193.69 E311.96399
G1 X163.18 Y193.69 E312.10468
G1 X161.90 Y193.05 E312.19351
G1 X159.74 Y190.89 E312.38423
G1 X158.10 Y190.89 E312.48626
G1 X158.10 Y189.25 E312.58828
G1 X154.50 Y185.66 E312.90574
G1 X153.31 Y184.46 E313.01153
G1 X151.91 Y183.75 E313.10919
G1 X151.91 Y183.06 E313.15285
G1 X151.71 Y182.85 E313.17049
G1 X151.71 Y182.66 E313.18296
G1 X151.50 Y182.46 E313.20060
G1 X151.50 Y182.05 E313.22561
G1 X150.29 Y180.84 E313.33272
G1 X151.50 Y179.63 E313.43983
G1 X151.50 Y179.22 E313.46484
G1 X151.71 Y179.03 E313.48248
G1 X151.71 Y178.82 E313.49495
G1 X159.70 Y170.83 E314.20033
G1 X160.10 Y170.63 E314.22836
G1 X161.63 Y169.10 E314.36307
G1 X162.23 Y168.90 E314.40257
G1 X162.30 Y168.83 E314.40883
G1 X164.10 Y167.93 E314.53406
G1 X164.76 Y167.76 E314.57656
G1 X164.54 Y167.81 E314.59054
G1 X164.22 Y167.85 E314.61068
G1 X163.85 Y167.87 E314.63378
G1 X163.28 Y167.82 E314.66953
G1 X162.92 Y167.74 E314.69250
G1 X162.60 Y167.64 E314.71321
G1 X162.31 Y167.52 E314.73318
G1 X161.98 Y167.35 E314.75613
G1 X161.49 Y167.00 E314.79373
G1 X161.01 Y166.54 E314.83514
G1 X152.99 Y158.51 E315.54308
G1 X152.52 Y158.03 E315.58471
G1 X152.18 Y157.54 E315.62232
G1 X152.01 Y157.21 E315.64514
G1 X151.88 Y156.92 E315.66519
G1 X151.78 Y156.60 E315.68574
G1 X151.71 Y156.28 E315.70629
G1 X151.67 Y155.96 E315.72642
G1 X151.66 Y155.63 E315.74696
G1 X151.32 Y155.64 E315.76799
G1 X147.67 Y159.29 E316.08981
G1 X146.77 Y159.29 E316.14593
G1 X142.48 Y163.58 E316.52411
G1 X142.75 Y164.22 E316.56709
G1 X139.71 Y167.25 E316.83502
G1 X139.31 Y167.45 E316.86297
G1 X139.11 Y167.65 E316.88056
G1 X137.83 Y168.29 E316.96939
G1 X135.18 Y168.29 E317.13503
G1 X133.90 Y167.65 E317.22385
G1 X132.43 Y166.18 E317.35359
G1 X132.22 Y166.11 E317.36787
G1 X132.15 Y166.07 E317.37261
G1 X132.06 Y166.08 E317.37810
G1 X132.00 Y166.11 E317.38242
G1 X131.78 Y166.18 E317.39670
G1 X130.71 Y167.25 E317.49133
G1 X130.31 Y167.45 E317.51922
G1 X130.11 Y167.65 E317.53681
G1 X128.83 Y168.29 E317.62564
G1 X126.18 Y168.29 E317.79128
G1 X123.91 Y167.16 E317.94966
G1 X123.91 Y166.45 E317.99338
G1 X122.94 Y165.49 E318.07840
G1 X121.31 Y165.49 E318.18042
G1 X121.31 Y163.85 E318.28245
G1 X118.74 Y161.29 E318.50858
G1 X118.54 Y161.29 E318.52111
G1 X115.11 Y157.85 E318.82406
G1 X115.11 Y157.66 E318.83653
G1 X114.91 Y157.46 E318.85417
G1 X114.91 Y153.62 E319.09302
G1 X115.11 Y153.43 E319.11066
G1 X115.11 Y153.22 E319.12313
G1 X122.90 Y145.43 E319.81087
G1 X123.31 Y145.23 E319.83890
G1 X124.63 Y143.90 E319.95598
G1 X125.23 Y143.70 E319.99540
G1 X125.30 Y143.63 E320.00171
G1 X125.70 Y143.43 E320.02968
G1 X126.03 Y143.10 E320.05861
G1 X127.01 Y142.77 E320.12313
G1 X127.78 Y142.39 E320.17635
G1 X141.65 Y142.39 E321.04169
G1 X142.80 Y142.77 E321.11683
G1 X145.31 Y144.03 E321.29192
G1 X146.31 Y145.03 E321.37998
G1 X148.09 Y145.92 E321.50423
G1 X147.96 Y146.47 E321.53999
G1 X151.71 Y150.22 E321.87072
G1 X151.71 Y150.43 E321.88319
G1 X152.10 Y150.82 E321.91847
G1 X152.10 Y152.95 E322.05105
G1 X152.33 Y153.50 E322.08810
G1 X152.53 Y153.22 E322.10959
G1 X159.16 Y146.58 E322.69462
G1 X151.09 Y146.58 E323.19758
G1 X151.09 Y140.08 E323.60294
G0 F6000 X151.59 Y140.58
G1 F2700 X189.09 Y140.58 E325.94154
G1 X189.09 Y146.08 E326.28453
G1 X182.03 Y146.08 E326.72519
G1 X182.40 Y146.41 E326.75628
G1 X186.45 Y150.46 E327.11342
G1 X186.69 Y150.71 E327.13513
G1 X186.89 Y150.96 E327.15510
G1 X187.16 Y151.43 E327.18857
G1 X187.34 Y151.93 E327.22217
G1 X187.41 Y152.24 E327.24179
G1 X187.44 Y152.52 E327.25951
G1 X187.46 Y152.83 E327.27880
G1 X187.41 Y153.34 E327.31078
G1 X187.35 Y153.65 E327.33021
G1 X187.25 Y153.94 E327.34970
G1 X187.02 Y154.43 E327.38337
G1 X186.70 Y154.89 E327.41816
G1 X186.15 Y155.46 E327.46778
G1 X175.42 Y166.18 E328.41357
G1 X174.97 Y166.62 E328.45251
G1 X174.54 Y166.92 E328.48561
G1 X174.26 Y167.06 E328.50502
G1 X174.01 Y167.17 E328.52242
G1 X173.74 Y167.26 E328.54017
G1 X173.46 Y167.32 E328.55797
G1 X173.18 Y167.35 E328.57552
G1 X172.86 Y167.37 E328.59512
G1 X172.36 Y167.32 E328.62687
G1 X172.05 Y167.26 E328.64633
G1 X171.78 Y167.17 E328.66428
G1 X171.52 Y167.06 E328.68164
G1 X171.24 Y166.92 E328.70113
G1 X170.80 Y166.61 E328.73461
G1 X169.67 Y165.49 E328.83423
G1 X169.42 Y165.27 E328.85480
G1 X169.18 Y165.13 E328.87206
G1 X168.94 Y165.03 E328.88855
G1 X168.66 Y164.96 E328.90605
G1 X168.40 Y164.94 E328.92282
G1 X168.11 Y164.96 E328.94040
G1 X167.85 Y165.03 E328.95709
G1 X167.59 Y165.14 E328.97485
G1 X167.37 Y165.27 E328.99117
G1 X167.11 Y165.50 E329.01271
G1 X166.15 Y166.46 E329.09693
G1 X165.78 Y166.77 E329.12744
G1 X165.52 Y166.93 E329.14668
G1 X165.26 Y167.06 E329.16439
G1 X165.01 Y167.17 E329.18179
G1 X164.74 Y167.26 E329.19954
G1 X164.46 Y167.32 E329.21733
G1 X164.18 Y167.35 E329.23489
G1 X163.86 Y167.37 E329.25449
G1 X163.36 Y167.32 E329.28624
G1 X163.05 Y167.26 E329.30570
G1 X162.78 Y167.17 E329.32365
G1 X162.52 Y167.06 E329.34101
G1 X162.24 Y166.92 E329.36050
G1 X161.81 Y166.62 E329.39358
G1 X161.36 Y166.18 E329.43226
G1 X153.34 Y158.16 E330.13967
G1 X152.91 Y157.71 E330.17861
G1 X152.60 Y157.28 E330.21171
G1 X152.46 Y157.00 E330.23112
G1 X152.35 Y156.74 E330.24851
G1 X152.27 Y156.47 E330.26626
G1 X152.21 Y156.19 E330.28406
G1 X152.17 Y155.92 E330.30155
G1 X152.16 Y155.60 E330.32103
G1 X152.20 Y155.06 E330.35478
G1 X152.35 Y154.52 E330.38997
G1 X152.59 Y154.00 E330.42543
G1 X152.91 Y153.54 E330.46071
G1 X159.57 Y146.87 E331.04844
G1 X160.06 Y146.40 E331.09033
G1 X160.43 Y146.08 E331.12114
G1 X151.59 Y146.08 E331.67205
G1 X151.59 Y140.58 E332.01505
G0 F6000 X152.09 Y141.08
G1 F2700 X188.59 Y141.08 E334.29129
G1 X188.59 Y145.58 E334.57192
G1 X180.58 Y145.58 E335.07157
G1 X180.62 Y145.60 E335.07409
G1 X180.98 Y145.87 E335.10243
G1 X181.68 Y146.44 E335.15846
G1 X182.05 Y146.78 E335.18999
G1 X186.10 Y150.80 E335.54590
G1 X186.31 Y151.03 E335.56553
G1 X186.47 Y151.24 E335.58181
G1 X186.70 Y151.64 E335.61053
G1 X186.86 Y152.07 E335.63941
G1 X186.92 Y152.33 E335.65558
G1 X186.95 Y152.56 E335.67054
G1 X186.96 Y152.82 E335.68646
G1 X186.92 Y153.27 E335.71438
G1 X186.86 Y153.52 E335.73035
G1 X186.79 Y153.76 E335.74645
G1 X186.59 Y154.18 E335.77535
G1 X186.32 Y154.57 E335.80490
G1 X185.79 Y155.11 E335.85178
G1 X175.07 Y165.83 E336.79718
G1 X174.66 Y166.23 E336.83334
G1 X174.28 Y166.49 E336.86196
G1 X174.05 Y166.61 E336.87791
G1 X173.83 Y166.70 E336.89268
G1 X173.60 Y166.77 E336.90767
G1 X173.37 Y166.82 E336.92266
G1 X173.13 Y166.86 E336.93758
G1 X172.87 Y166.87 E336.95375
G1 X172.43 Y166.83 E336.98142
G1 X172.18 Y166.77 E336.99745
G1 X171.95 Y166.70 E337.01257
G1 X171.73 Y166.61 E337.02742
G1 X171.50 Y166.49 E337.04349
G1 X171.12 Y166.23 E337.07217
G1 X170.01 Y165.12 E337.16998
G1 X169.71 Y164.87 E337.19476
G1 X169.41 Y164.68 E337.21673
G1 X169.09 Y164.55 E337.23832
G1 X168.75 Y164.47 E337.26005
G1 X168.39 Y164.44 E337.28220
G1 X168.04 Y164.47 E337.30447
G1 X167.69 Y164.55 E337.32675
G1 X167.37 Y164.69 E337.34864
G1 X167.07 Y164.87 E337.36996
G1 X166.77 Y165.13 E337.39539
G1 X165.81 Y166.09 E337.47931
G1 X165.48 Y166.36 E337.50649
G1 X165.27 Y166.50 E337.52231
G1 X165.05 Y166.61 E337.53728
G1 X164.83 Y166.70 E337.55205
G1 X164.60 Y166.77 E337.56704
G1 X164.37 Y166.82 E337.58204
G1 X164.13 Y166.86 E337.59695
G1 X163.87 Y166.87 E337.61312
G1 X163.43 Y166.83 E337.64080
G1 X163.18 Y166.77 E337.65682
G1 X162.95 Y166.70 E337.67195
G1 X162.73 Y166.61 E337.68680
G1 X162.50 Y166.49 E337.70286
G1 X162.13 Y166.23 E337.73132
G1 X161.71 Y165.83 E337.76731
G1 X153.70 Y157.81 E338.47423
G1 X153.29 Y157.39 E338.51040
G1 X153.03 Y157.02 E338.53901
G1 X152.91 Y156.79 E338.55497
G1 X152.82 Y156.57 E338.56973
G1 X152.75 Y156.34 E338.58472
G1 X152.70 Y156.11 E338.59972
G1 X152.67 Y155.87 E338.61463
G1 X152.66 Y155.62 E338.63061
G1 X152.70 Y155.15 E338.65954
G1 X152.82 Y154.69 E338.68936
G1 X153.02 Y154.25 E338.71935
G1 X153.30 Y153.86 E338.74916
G1 X159.92 Y147.23 E339.33394
G1 X160.39 Y146.77 E339.37477
G1 X161.12 Y146.14 E339.43448
G1 X161.50 Y145.84 E339.46460
G1 X161.87 Y145.58 E339.49339
G1 X152.09 Y145.58 E340.10330
G1 X152.09 Y141.08 E340.38393
G0 F6000 X152.59 Y141.58
G1 F2700 X188.09 Y141.58 E342.59781
G1 X188.09 Y145.08 E342.81608
G1 X178.72 Y145.08 E343.40060
G1 X179.06 Y145.24 E343.42390
G1 X179.68 Y145.58 E343.46819
G1 X180.33 Y146.01 E343.51682
G1 X180.68 Y146.26 E343.54355
G1 X181.35 Y146.82 E343.59803
G1 X181.71 Y147.14 E343.62797
G1 X185.74 Y151.15 E343.98260
G1 X185.93 Y151.36 E344.00020
G1 X186.05 Y151.52 E344.01284
G1 X186.25 Y151.85 E344.03681
G1 X186.38 Y152.22 E344.06092
G1 X186.42 Y152.41 E344.07358
G1 X186.45 Y152.61 E344.08583
G1 X186.46 Y152.81 E344.09844
G1 X186.43 Y153.19 E344.12216
G1 X186.38 Y153.39 E344.13475
G1 X186.32 Y153.58 E344.14745
G1 X186.16 Y153.93 E344.17161
G1 X185.93 Y154.25 E344.19583
G1 X185.44 Y154.75 E344.23998
G1 X174.72 Y165.47 E345.18498
G1 X174.34 Y165.84 E345.21841
G1 X174.02 Y166.06 E345.24246
G1 X173.84 Y166.16 E345.25503
G1 X173.66 Y166.23 E345.26711
G1 X173.48 Y166.29 E345.27936
G1 X173.28 Y166.33 E345.29161
G1 X173.09 Y166.36 E345.30387
G1 X172.88 Y166.37 E345.31661
G1 X172.51 Y166.33 E345.34022
G1 X172.31 Y166.29 E345.35279
G1 X172.12 Y166.23 E345.36518
G1 X171.94 Y166.16 E345.37740
G1 X171.76 Y166.06 E345.39003
G1 X171.45 Y165.84 E345.41398
G1 X170.35 Y164.75 E345.51051
G1 X170.00 Y164.46 E345.53869
G1 X169.63 Y164.24 E345.56561
G1 X169.24 Y164.07 E345.59206
G1 X168.82 Y163.97 E345.61894
G1 X168.39 Y163.94 E345.64583
G1 X167.96 Y163.97 E345.67298
G1 X167.54 Y164.08 E345.70001
G1 X167.13 Y164.24 E345.72724
G1 X166.78 Y164.46 E345.75299
G1 X166.43 Y164.77 E345.78231
G1 X165.48 Y165.72 E345.86605
G1 X165.19 Y165.96 E345.88975
G1 X165.02 Y166.07 E345.90225
G1 X164.84 Y166.16 E345.91447
G1 X164.66 Y166.23 E345.92655
G1 X164.48 Y166.29 E345.93880
G1 X164.28 Y166.33 E345.95104
G1 X164.09 Y166.36 E345.96331
G1 X163.88 Y166.37 E345.97605
G1 X163.51 Y166.33 E345.99965
G1 X163.31 Y166.29 E346.01223
G1 X163.12 Y166.23 E346.02461
G1 X162.94 Y166.16 E346.03683
G1 X162.76 Y166.06 E346.04947
G1 X162.45 Y165.84 E346.07332
G1 X162.06 Y165.47 E346.10662
G1 X154.06 Y157.46 E346.81306
G1 X153.68 Y157.07 E346.84649
G1 X153.46 Y156.76 E346.87053
G1 X153.37 Y156.58 E346.88311
G1 X153.29 Y156.40 E346.89519
G1 X153.23 Y156.21 E346.90744
G1 X153.19 Y156.02 E346.91968
G1 X153.17 Y155.83 E346.93195
G1 X153.16 Y155.63 E346.94450
G1 X153.19 Y155.24 E346.96867
G1 X153.29 Y154.86 E346.99307
G1 X153.46 Y154.51 E347.01757
G1 X153.68 Y154.19 E347.04188
G1 X160.28 Y147.58 E347.62374
G1 X160.73 Y147.14 E347.66352
G1 X161.43 Y146.53 E347.72159
G1 X161.79 Y146.25 E347.75003
G1 X162.47 Y145.77 E347.80155
G1 X163.15 Y145.36 E347.85128
G1 X163.69 Y145.08 E347.88905
G1 X152.59 Y145.08 E348.58103
G1 X152.59 Y141.58 E348.79930
G0 F6000 X147.51 Y146.19
G1 F2700 X147.40 Y146.63 E348.82775
G1 X151.21 Y150.43 E349.16298
G1 X151.21 Y150.63 E349.17545
G1 X151.60 Y151.03 E349.21073
G1 X151.60 Y153.05 E349.33658
G1 X151.96 Y153.90 E349.39375
G1 X151.60 Y154.25 E349.42471
G1 X151.60 Y155.13 E349.47984
G1 X151.11 Y155.15 E349.51097
G1 X147.46 Y158.79 E349.83226
G1 X146.56 Y158.79 E349.88839
G1 X141.99 Y163.37 E350.29214
G1 X141.92 Y163.53 E350.30297
G1 X142.16 Y164.10 E350.34130
G1 X139.41 Y166.84 E350.58340
G1 X139.01 Y167.04 E350.61129
G1 X138.81 Y167.24 E350.62893
G1 X137.72 Y167.79 E350.70529
G1 X135.29 Y167.79 E350.85621
G1 X134.20 Y167.24 E350.93257
G1 X132.70 Y165.75 E351.06464
G1 X132.41 Y165.65 E351.08404
G1 X132.26 Y165.57 E351.09436
G1 X131.94 Y165.58 E351.11457
G1 X131.81 Y165.65 E351.12364
G1 X131.51 Y165.74 E351.14304
G1 X130.41 Y166.84 E351.23997
G1 X130.01 Y167.04 E351.26786
G1 X129.81 Y167.24 E351.28550
G1 X128.72 Y167.79 E351.36186
G1 X126.30 Y167.79 E351.51278
G1 X124.41 Y166.85 E351.64453
G1 X124.41 Y166.25 E351.68182
G1 X123.15 Y164.99 E351.79277
G1 X121.81 Y164.99 E351.87646
G1 X121.81 Y163.65 E351.96015
G1 X118.95 Y160.79 E352.21221
G1 X118.75 Y160.79 E352.22468
G1 X115.61 Y157.65 E352.50179
G1 X115.61 Y157.45 E352.51426
G1 X115.41 Y157.25 E352.53190
G1 X115.41 Y153.83 E352.74493
G1 X115.61 Y153.63 E352.76257
G1 X115.61 Y153.43 E352.77504
G1 X123.20 Y145.84 E353.44483
G1 X123.60 Y145.64 E353.47267
G1 X124.90 Y144.34 E353.58758
G1 X125.50 Y144.13 E353.62708
G1 X125.60 Y144.04 E353.63564
G1 X126.00 Y143.84 E353.66347
G1 X126.30 Y143.53 E353.69020
G1 X127.21 Y143.23 E353.74967
G1 X127.89 Y142.89 E353.79764
G1 X132.36 Y142.89 E354.07597
G1 X133.00 Y144.45 E354.18129
G1 X133.00 Y142.89 E354.27858
G1 X141.57 Y142.89 E354.81284
G1 X142.60 Y143.23 E354.88068
G1 X145.01 Y144.44 E355.04846
G1 X146.01 Y145.44 E355.13670
G1 X147.51 Y146.19 E355.24114
G0 F6000 X146.93 Y146.46
G1 F2700 X146.85 Y146.79 E355.26229
G1 X150.71 Y150.64 E355.60202
G1 X150.71 Y150.84 E355.61455
G1 X151.10 Y151.24 E355.64978
G1 X151.10 Y153.15 E355.76896
G1 X151.37 Y153.78 E355.81149
G1 X151.10 Y154.04 E355.83446
G1 X151.10 Y154.65 E355.87231
G1 X150.71 Y154.66 E355.89727
G1 X150.71 Y154.84 E355.90856
G1 X147.26 Y158.29 E356.21274
G1 X146.36 Y158.29 E356.26887
G1 X141.56 Y163.09 E356.69229
G1 X141.56 Y163.09 E356.69238
G1 X141.38 Y163.53 E356.72187
G1 X141.57 Y163.98 E356.75218
G1 X139.11 Y166.43 E356.96839
G1 X138.71 Y166.63 E356.99636
G1 X138.51 Y166.83 E357.01391
G1 X137.60 Y167.29 E357.07786
G1 X135.41 Y167.29 E357.21406
G1 X134.50 Y166.83 E357.27801
G1 X132.97 Y165.31 E357.41233
G1 X132.60 Y165.18 E357.43699
G1 X132.37 Y165.07 E357.45283
G1 X131.81 Y165.08 E357.48770
G1 X131.61 Y165.18 E357.50159
G1 X131.24 Y165.31 E357.52612
G1 X130.11 Y166.43 E357.62534
G1 X129.71 Y166.63 E357.65331
G1 X129.51 Y166.83 E357.67086
G1 X128.60 Y167.29 E357.73481
G1 X126.41 Y167.29 E357.87101
G1 X124.91 Y166.54 E357.97613
G1 X124.91 Y166.04 E358.00712
G1 X123.36 Y164.49 E358.14382
G1 X122.31 Y164.49 E358.20930
G1 X122.31 Y163.44 E358.27478
G1 X119.16 Y160.29 E358.55260
G1 X118.95 Y160.29 E358.56513
G1 X116.11 Y157.44 E358.81640
G1 X116.11 Y157.24 E358.82887
G1 X115.91 Y157.04 E358.84651
G1 X115.91 Y154.04 E359.03372
G1 X116.11 Y153.84 E359.05136
G1 X116.11 Y153.64 E359.06383
G1 X123.50 Y146.25 E359.71563
G1 X123.90 Y146.05 E359.74361
G1 X125.17 Y144.77 E359.85610
G1 X125.77 Y144.57 E359.89566
G1 X125.90 Y144.45 E359.90646
G1 X126.30 Y144.25 E359.93438
G1 X126.57 Y143.97 E359.95872
G1 X127.40 Y143.70 E360.01321
G1 X128.01 Y143.39 E360.05588
G1 X132.02 Y143.39 E360.30602
G1 X132.77 Y145.18 E360.42686
G1 X132.51 Y145.44 E360.44979
G1 X132.71 Y145.64 E360.46734
G1 X132.71 Y145.73 E360.47295
G1 X132.90 Y145.79 E360.48577
G1 X133.29 Y145.80 E360.51016
G1 X133.31 Y145.79 E360.51108
G1 X133.31 Y145.64 E360.52081
G1 X133.50 Y145.44 E360.53845
G1 X133.50 Y143.39 E360.66623
G1 X141.49 Y143.39 E361.16426
G1 X142.41 Y143.70 E361.22480
G1 X144.71 Y144.85 E361.38534
G1 X145.71 Y145.85 E361.47344
G1 X146.93 Y146.46 E361.55836
G0 F6000 X146.35 Y146.73
G1 F2700 X146.30 Y146.94 E361.57228
G1 X150.21 Y150.85 E361.91650
G1 X150.21 Y151.05 E361.92898
G1 X150.60 Y151.45 E361.96425
G1 X150.60 Y153.25 E362.07676
G1 X150.78 Y153.66 E362.10463
G1 X150.60 Y153.83 E362.11971
G1 X150.60 Y154.16 E362.14017
G1 X150.41 Y154.17 E362.15265
G1 X150.41 Y154.23 E362.15676
G1 X150.21 Y154.43 E362.17440
G1 X150.21 Y154.63 E362.18687
G1 X147.05 Y157.79 E362.46521
G1 X146.15 Y157.79 E362.52134
G1 X140.85 Y163.09 E362.98886
G1 X140.97 Y163.21 E362.99953
G1 X140.84 Y163.53 E363.02116
G1 X140.98 Y163.86 E363.04336
G1 X138.82 Y166.02 E363.23364
G1 X138.42 Y166.22 E363.26156
G1 X138.22 Y166.42 E363.27916
G1 X137.48 Y166.79 E363.33069
G1 X135.53 Y166.79 E363.45218
G1 X134.79 Y166.42 E363.50372
G1 X133.24 Y164.87 E363.64046
G1 X132.79 Y164.72 E363.67010
G1 X132.48 Y164.57 E363.69158
G1 X131.69 Y164.59 E363.74111
G1 X131.42 Y164.72 E363.75979
G1 X130.97 Y164.87 E363.78939
G1 X129.82 Y166.02 E363.89091
G1 X129.42 Y166.22 E363.91882
G1 X129.22 Y166.42 E363.93642
G1 X128.48 Y166.79 E363.98796
G1 X126.53 Y166.79 E364.10944
G1 X125.41 Y166.23 E364.18792
G1 X125.41 Y165.83 E364.21249
G1 X123.56 Y163.99 E364.37512
G1 X122.81 Y163.99 E364.42227
G1 X122.81 Y163.23 E364.46942
G1 X119.36 Y159.79 E364.77316
G1 X119.16 Y159.79 E364.78563
G1 X116.61 Y157.23 E365.01105
G1 X116.61 Y157.03 E365.02353
G1 X116.41 Y156.83 E365.04117
G1 X116.41 Y154.25 E365.20256
G1 X116.61 Y154.05 E365.22020
G1 X116.61 Y153.85 E365.23267
G1 X123.79 Y146.66 E365.86648
G1 X124.19 Y146.46 E365.89440
G1 X125.44 Y145.21 E366.00464
G1 X126.04 Y145.01 E366.04400
G1 X126.19 Y144.86 E366.05728
G1 X126.59 Y144.66 E366.08519
G1 X126.84 Y144.41 E366.10724
G1 X127.59 Y144.16 E366.15613
G1 X128.13 Y143.89 E366.19412
G1 X131.69 Y143.89 E366.41606
G1 X132.18 Y145.06 E366.49525
G1 X131.90 Y145.34 E366.51968
G1 X132.00 Y145.45 E366.52902
G1 X132.00 Y145.65 E366.54150
G1 X132.21 Y145.85 E366.55914
G1 X132.21 Y146.05 E366.57161
G1 X132.22 Y146.06 E366.57275
G1 X132.42 Y146.16 E366.58712
G1 X132.81 Y146.29 E366.61283
G1 X133.37 Y146.30 E366.64739
G1 X133.64 Y146.21 E366.66527
G1 X133.81 Y146.05 E366.67974
G1 X133.81 Y145.85 E366.69221
G1 X134.00 Y145.65 E366.70985
G1 X134.00 Y143.89 E366.81936
G1 X141.41 Y143.89 E367.28115
G1 X142.22 Y144.16 E367.33440
G1 X144.42 Y145.26 E367.48768
G1 X145.42 Y146.26 E367.57583
G1 X146.35 Y146.73 E367.64104
G0 F6000 X161.90 Y169.53
G1 F2700 X162.50 Y169.34 E367.68054
G1 X162.60 Y169.24 E367.68909
G1 X164.28 Y168.40 E367.80587
G1 X165.51 Y168.09 E367.88559
G1 X177.45 Y168.09 E368.62976
G1 X178.89 Y168.38 E368.72166
G1 X179.40 Y168.63 E368.75722
G1 X180.00 Y168.83 E368.79672
G1 X181.21 Y169.44 E368.88084
G1 X181.41 Y169.64 E368.89848
G1 X181.81 Y169.84 E368.92637
G1 X182.41 Y170.44 E368.97933
G1 X182.81 Y170.64 E369.00716
G1 X183.41 Y171.24 E369.06003
G1 X183.81 Y171.44 E369.08792
G1 X188.00 Y175.63 E369.45790
G1 X188.00 Y175.83 E369.47037
G1 X188.21 Y176.03 E369.48801
G1 X188.21 Y176.23 E369.50048
G1 X188.41 Y176.43 E369.51812
G1 X188.41 Y178.45 E369.64397
G1 X188.76 Y179.30 E369.70115
G1 X188.41 Y179.65 E369.73210
G1 X188.41 Y180.53 E369.78723
G1 X187.91 Y180.55 E369.81836
G1 X184.26 Y184.19 E370.13966
G1 X183.30 Y184.19 E370.19996
G1 X178.83 Y188.66 E370.59392
G1 X178.72 Y188.93 E370.61231
G1 X178.95 Y189.50 E370.65062
G1 X176.21 Y192.24 E370.89258
G1 X174.31 Y193.19 E371.02472
G1 X172.29 Y193.19 E371.15070
G1 X171.20 Y192.64 E371.22706
G1 X169.80 Y191.24 E371.35058
G1 X169.40 Y191.04 E371.37841
G1 X169.32 Y190.96 E371.38546
G1 X168.47 Y190.98 E371.43843
G1 X168.41 Y191.04 E371.44385
G1 X168.01 Y191.24 E371.47160
G1 X166.81 Y192.44 E371.57748
G1 X165.31 Y193.19 E371.68173
G1 X163.29 Y193.19 E371.80770
G1 X162.20 Y192.64 E371.88406
G1 X159.95 Y190.39 E372.08272
G1 X158.60 Y190.39 E372.16641
G1 X158.60 Y189.05 E372.25010
G1 X153.60 Y184.04 E372.69169
G1 X152.41 Y183.45 E372.77483
G1 X152.41 Y182.85 E372.81212
G1 X152.21 Y182.65 E372.82976
G1 X152.21 Y182.45 E372.84223
G1 X152.00 Y182.25 E372.85987
G1 X152.00 Y181.85 E372.88482
G1 X151.00 Y180.84 E372.97372
G1 X152.00 Y179.83 E373.06262
G1 X152.00 Y179.43 E373.08756
G1 X152.21 Y179.23 E373.10520
G1 X152.21 Y179.03 E373.11767
G1 X160.00 Y171.24 E373.80510
G1 X160.40 Y171.04 E373.83294
G1 X161.90 Y169.53 E373.96549
G0 F6000 X162.17 Y169.97
G1 F2700 X162.77 Y169.77 E374.00505
G1 X162.90 Y169.65 E374.01586
G1 X164.45 Y168.87 E374.12415
G1 X165.58 Y168.59 E374.19660
G1 X169.31 Y168.59 E374.42915
G1 X169.31 Y170.84 E374.56940
G1 X169.50 Y171.04 E374.58704
G1 X169.50 Y171.13 E374.59266
G1 X169.70 Y171.19 E374.60547
G1 X170.09 Y171.20 E374.62986
G1 X170.10 Y171.19 E374.63079
G1 X170.10 Y171.04 E374.64052
G1 X170.31 Y170.84 E374.65816
G1 X170.31 Y168.59 E374.79841
G1 X177.40 Y168.59 E375.24075
G1 X178.73 Y168.86 E375.32546
G1 X179.21 Y169.10 E375.35887
G1 X179.81 Y169.30 E375.39851
G1 X180.91 Y169.85 E375.47537
G1 X181.11 Y170.05 E375.49292
G1 X181.51 Y170.25 E375.52089
G1 X182.11 Y170.85 E375.57372
G1 X182.51 Y171.05 E375.60170
G1 X183.11 Y171.65 E375.65461
G1 X183.51 Y171.85 E375.68247
G1 X187.50 Y175.84 E376.03446
G1 X187.50 Y176.04 E376.04693
G1 X187.71 Y176.24 E376.06457
G1 X187.71 Y176.44 E376.07704
G1 X187.91 Y176.64 E376.09468
G1 X187.91 Y178.55 E376.21385
G1 X188.17 Y179.18 E376.25638
G1 X187.91 Y179.44 E376.27936
G1 X187.91 Y180.05 E376.31721
G1 X187.50 Y180.06 E376.34217
G1 X187.50 Y180.24 E376.35346
G1 X184.06 Y183.69 E376.65764
G1 X183.09 Y183.69 E376.71794
G1 X178.32 Y188.46 E377.13832
G1 X178.36 Y188.49 E377.14132
G1 X178.18 Y188.93 E377.17101
G1 X178.37 Y189.38 E377.20124
G1 X175.91 Y191.83 E377.41736
G1 X174.20 Y192.69 E377.53709
G1 X172.41 Y192.69 E377.64834
G1 X171.50 Y192.23 E377.71229
G1 X170.10 Y190.83 E377.83568
G1 X169.70 Y190.63 E377.86365
G1 X169.57 Y190.51 E377.87441
G1 X169.43 Y190.46 E377.88421
G1 X168.30 Y190.49 E377.95414
G1 X168.24 Y190.51 E377.95842
G1 X168.11 Y190.63 E377.96949
G1 X167.71 Y190.83 E377.99738
G1 X166.51 Y192.03 E378.10312
G1 X165.20 Y192.69 E378.19496
G1 X163.41 Y192.69 E378.30622
G1 X162.50 Y192.23 E378.37017
G1 X160.16 Y189.89 E378.57663
G1 X159.10 Y189.89 E378.64211
G1 X159.10 Y188.84 E378.70759
G1 X155.50 Y185.24 E379.02505
G1 X153.90 Y183.63 E379.16691
G1 X152.91 Y183.14 E379.23605
G1 X152.91 Y182.64 E379.26698
G1 X152.71 Y182.44 E379.28462
G1 X152.71 Y182.24 E379.29709
G1 X152.50 Y182.04 E379.31473
G1 X152.50 Y181.64 E379.33974
G1 X151.70 Y180.84 E379.41033
G1 X152.50 Y180.04 E379.48093
G1 X152.50 Y179.64 E379.50594
G1 X152.71 Y179.44 E379.52358
G1 X152.71 Y179.24 E379.53605
G1 X160.30 Y171.65 E380.20549
G1 X160.70 Y171.45 E380.23346
G1 X162.17 Y169.97 E380.36360
G0 F6000 X162.44 Y170.41
G1 F2700 X163.04 Y170.21 E380.40296
G1 X163.19 Y170.06 E380.41623
G1 X164.62 Y169.34 E380.51608
G1 X165.64 Y169.09 E380.58127
G1 X168.81 Y169.09 E380.77877
G1 X168.81 Y170.63 E380.87506
G1 X168.80 Y170.64 E380.87559
G1 X168.81 Y170.65 E380.87611
G1 X168.81 Y171.05 E380.90106
G1 X169.00 Y171.25 E380.91870
G1 X169.00 Y171.45 E380.93117
G1 X169.02 Y171.46 E380.93232
G1 X169.22 Y171.56 E380.94668
G1 X169.62 Y171.69 E380.97240
G1 X170.17 Y171.70 E381.00695
G1 X170.44 Y171.61 E381.02484
G1 X170.60 Y171.45 E381.03930
G1 X170.60 Y171.25 E381.05177
G1 X170.81 Y171.05 E381.06941
G1 X170.81 Y169.09 E381.19139
G1 X177.35 Y169.09 E381.59949
G1 X178.57 Y169.33 E381.67689
G1 X179.02 Y169.56 E381.70882
G1 X179.62 Y169.76 E381.74799
G1 X180.62 Y170.26 E381.81760
G1 X180.82 Y170.46 E381.83519
G1 X181.22 Y170.66 E381.86311
G1 X181.82 Y171.26 E381.91598
G1 X182.22 Y171.46 E381.94390
G1 X182.82 Y172.06 E381.99686
G1 X183.22 Y172.26 E382.02467
G1 X187.00 Y176.05 E382.35866
G1 X187.00 Y176.25 E382.37113
G1 X187.21 Y176.45 E382.38877
G1 X187.21 Y176.65 E382.40124
G1 X187.41 Y176.85 E382.41888
G1 X187.41 Y178.65 E382.53139
G1 X187.58 Y179.06 E382.55926
G1 X187.41 Y179.23 E382.57434
G1 X187.41 Y179.56 E382.59480
G1 X187.21 Y179.57 E382.60728
G1 X187.21 Y179.63 E382.61139
G1 X187.00 Y179.83 E382.62903
G1 X187.00 Y180.03 E382.64150
G1 X183.85 Y183.19 E382.91984
G1 X182.88 Y183.19 E382.98015
G1 X177.62 Y188.46 E383.44467
G1 X177.77 Y188.61 E383.45834
G1 X177.64 Y188.94 E383.48009
G1 X177.78 Y189.26 E383.50215
G1 X175.62 Y191.42 E383.69243
G1 X174.08 Y192.19 E383.79975
G1 X172.53 Y192.19 E383.89628
G1 X171.79 Y191.82 E383.94782
G1 X170.39 Y190.42 E384.07125
G1 X169.99 Y190.22 E384.09917
G1 X169.84 Y190.07 E384.11244
G1 X169.50 Y189.96 E384.13473
G1 X168.22 Y189.99 E384.21482
G1 X167.97 Y190.07 E384.23119
G1 X167.82 Y190.22 E384.24451
G1 X167.42 Y190.42 E384.27240
G1 X166.22 Y191.62 E384.37819
G1 X165.08 Y192.19 E384.45762
G1 X163.53 Y192.19 E384.55415
G1 X162.79 Y191.82 E384.60569
G1 X160.36 Y189.39 E384.82005
G1 X159.60 Y189.39 E384.86720
G1 X159.60 Y188.63 E384.91434
G1 X156.00 Y185.03 E385.23184
G1 X156.00 Y184.99 E385.23458
G1 X155.96 Y184.99 E385.23733
G1 X154.19 Y183.22 E385.39334
G1 X153.41 Y182.83 E385.44820
G1 X153.41 Y182.43 E385.47277
G1 X153.21 Y182.23 E385.49041
G1 X153.21 Y182.03 E385.50289
G1 X153.00 Y181.83 E385.52052
G1 X153.00 Y181.43 E385.54547
G1 X152.41 Y180.84 E385.59786
G1 X153.00 Y180.25 E385.65024
G1 X153.00 Y179.85 E385.67519
G1 X153.21 Y179.65 E385.69283
G1 X153.21 Y179.45 E385.70530
G1 X160.59 Y172.06 E386.35675
G1 X160.99 Y171.86 E386.38466
G1 X162.44 Y170.41 E386.51255
G0 F6000 X163.91 Y137.08
;TYPE:WALL-INNER
G1 F2700 X163.66 Y137.06 E386.52802
G1 X163.57 Y137.03 E386.53389
G1 X163.36 Y136.96 E386.54803
G1 X163.28 Y136.92 E386.55317
G1 X163.09 Y136.78 E386.56834
G1 X154.77 Y128.47 E387.30115
G1 X154.46 Y128.15 E387.32946
G1 X154.27 Y127.86 E387.35076
G1 X154.18 Y127.56 E387.37015
G1 X154.16 Y127.44 E387.37776
G1 X154.16 Y127.36 E387.38288
G1 X154.18 Y127.12 E387.39765
G1 X154.24 Y126.92 E387.41103
G1 X154.33 Y126.72 E387.42456
G1 X154.45 Y126.55 E387.43799
G1 X158.08 Y122.91 E387.75835
G1 X158.04 Y123.06 E387.76836
G1 X158.01 Y123.25 E387.78028
G1 X158.00 Y123.45 E387.79277
G1 X158.01 Y123.67 E387.80639
G1 X158.09 Y124.03 E387.82945
G1 X158.24 Y124.40 E387.85403
G1 X158.46 Y124.73 E387.87862
G1 X158.73 Y125.00 E387.90310
G1 X159.06 Y125.22 E387.92756
G1 X159.42 Y125.37 E387.95203
G1 X159.79 Y125.44 E387.97536
G1 X160.00 Y125.45 E387.98872
G1 X160.24 Y125.44 E388.00333
G1 X160.75 Y125.31 E388.03646
G1 X161.10 Y125.13 E388.06101
G1 X161.29 Y124.99 E388.07562
G1 X161.55 Y124.73 E388.09882
G1 X161.77 Y124.40 E388.12336
G1 X161.92 Y124.03 E388.14802
G1 X162.00 Y123.67 E388.17128
G1 X162.00 Y123.45 E388.18483
G1 X162.00 Y123.25 E388.19719
G1 X161.97 Y123.06 E388.20918
G1 X161.92 Y122.87 E388.22137
G1 X161.85 Y122.67 E388.23490
G1 X161.67 Y122.34 E388.25831
G1 X161.42 Y122.04 E388.28272
G1 X161.13 Y121.80 E388.30607
G1 X160.77 Y121.61 E388.33168
G1 X160.40 Y121.49 E388.35605
G1 X160.20 Y121.46 E388.36834
G1 X160.00 Y121.45 E388.38071
G1 X159.81 Y121.46 E388.39301
G1 X159.46 Y121.53 E388.41518
G1 X160.97 Y120.01 E388.54902
G1 X161.41 Y119.59 E388.58694
G1 X162.08 Y119.00 E388.64223
G1 X163.02 Y118.32 E388.71521
G1 X163.63 Y117.95 E388.75963
G1 X164.14 Y117.68 E388.79523
G1 X164.57 Y117.49 E388.82506
G1 X165.17 Y117.29 E388.86419
G1 X165.92 Y117.15 E388.91163
G1 X165.79 Y115.79 E388.99664
G1 X153.59 Y115.79 E389.75715
G1 X153.59 Y114.29 E389.85070
G1 X187.09 Y114.29 E391.93985
G1 X187.09 Y115.79 E392.03339
G1 X176.49 Y115.79 E392.69463
G1 X176.33 Y117.11 E392.77783
G1 X177.58 Y117.41 E392.85771
G1 X178.07 Y117.59 E392.89018
G1 X178.60 Y117.84 E392.92682
G1 X179.17 Y118.16 E392.96725
G1 X179.76 Y118.54 E393.01134
G1 X180.06 Y118.77 E393.03504
G1 X180.69 Y119.28 E393.08517
G1 X181.04 Y119.59 E393.11436
G1 X185.01 Y123.55 E393.46449
G1 X185.17 Y123.72 E393.47887
G1 X185.22 Y123.79 E393.48399
G1 X185.34 Y123.99 E393.49874
G1 X185.42 Y124.21 E393.51302
G1 X185.45 Y124.40 E393.52531
G1 X185.46 Y124.50 E393.53161
G1 X185.44 Y124.75 E393.54695
G1 X185.39 Y124.93 E393.55876
G1 X185.29 Y125.14 E393.57338
G1 X185.16 Y125.32 E393.58677
G1 X184.72 Y125.77 E393.62598
G1 X174.03 Y136.47 E394.56957
G1 X173.70 Y136.78 E394.59788
G1 X173.50 Y136.92 E394.61279
G1 X173.32 Y137.00 E394.62546
G1 X173.11 Y137.06 E394.63862
G1 X172.99 Y137.07 E394.64623
G1 X172.91 Y137.08 E394.65148
G1 X172.66 Y137.06 E394.66695
G1 X172.57 Y137.03 E394.67282
G1 X172.36 Y136.96 E394.68696
G1 X172.28 Y136.92 E394.69210
G1 X172.09 Y136.78 E394.70678
G1 X171.02 Y135.72 E394.80062
G1 X170.59 Y135.36 E394.83597
G1 X170.09 Y135.05 E394.87255
G1 X169.55 Y134.83 E394.90873
G1 X168.98 Y134.69 E394.94547
G1 X168.39 Y134.65 E394.98219
G1 X167.80 Y134.69 E395.01941
G1 X167.22 Y134.84 E395.05626
G1 X166.68 Y135.06 E395.09282
G1 X166.19 Y135.36 E395.12902
G1 X165.75 Y135.74 E395.16537
G1 X164.80 Y136.69 E395.24898
G1 X164.60 Y136.86 E395.26527
G1 X164.52 Y136.91 E395.27122
G1 X164.22 Y137.03 E395.29104
G1 X163.99 Y137.07 E395.30566
G1 X163.91 Y137.08 E395.31090
G0 F6000 X167.03 Y132.97
G1 F2700 X167.38 Y133.19 E395.33650
G1 X167.78 Y133.34 E395.36277
G1 X168.19 Y133.42 E395.38882
G1 X168.60 Y133.42 E395.41458
G1 X169.01 Y133.34 E395.44051
G1 X169.40 Y133.19 E395.46647
G1 X169.75 Y132.98 E395.49209
G1 X170.06 Y132.69 E395.51831
G1 X170.31 Y132.37 E395.54395
G1 X170.49 Y131.99 E395.57028
G1 X170.61 Y131.59 E395.59602
G1 X170.65 Y131.17 E395.62214
G1 X170.61 Y130.75 E395.64852
G1 X170.49 Y130.36 E395.67421
G1 X170.31 Y129.99 E395.70012
G1 X170.05 Y129.65 E395.72620
G1 X169.75 Y129.37 E395.75199
G1 X169.40 Y129.16 E395.77769
G1 X169.01 Y129.01 E395.80365
G1 X168.60 Y128.93 E395.82958
G1 X168.18 Y128.93 E395.85571
G1 X167.77 Y129.01 E395.88173
G1 X167.38 Y129.16 E395.90766
G1 X167.03 Y129.38 E395.93360
G1 X166.72 Y129.66 E395.95947
G1 X166.47 Y130.00 E395.98552
G1 X166.29 Y130.37 E396.01135
G1 X166.18 Y130.76 E396.03673
G1 X166.14 Y131.18 E396.06285
G1 X166.18 Y131.59 E396.08897
G1 X166.29 Y131.99 E396.11466
G1 X166.48 Y132.36 E396.14060
G1 X166.72 Y132.69 E396.16625
G1 X167.03 Y132.97 E396.19246
G0 F6000 X168.60 Y133.37
G0 X170.02 Y132.66
G0 X170.59 Y131.17
G0 X177.71 Y122.25
G1 F2700 X177.99 Y122.53 E396.21694
G1 X178.31 Y122.75 E396.24131
G1 X178.68 Y122.90 E396.26591
G1 X179.04 Y122.97 E396.28928
G1 X179.26 Y122.98 E396.30258
G1 X179.47 Y122.97 E396.31595
G1 X179.84 Y122.90 E396.33932
G1 X180.20 Y122.75 E396.36392
G1 X180.53 Y122.53 E396.38829
G1 X180.81 Y122.25 E396.41276
G1 X181.03 Y121.92 E396.43736
G1 X181.18 Y121.56 E396.46193
G1 X181.25 Y121.19 E396.48520
G1 X181.26 Y120.98 E396.49874
G1 X181.25 Y120.78 E396.51111
G1 X181.22 Y120.59 E396.52309
G1 X181.17 Y120.40 E396.53528
G1 X181.10 Y120.19 E396.54882
G1 X180.93 Y119.88 E396.57089
G1 X180.79 Y119.69 E396.58552
G1 X180.54 Y119.44 E396.60779
G1 X180.20 Y119.21 E396.63337
G1 X180.02 Y119.13 E396.64542
G1 X179.84 Y119.06 E396.65777
G1 X179.65 Y119.02 E396.67016
G1 X179.45 Y118.99 E396.68226
G1 X179.25 Y118.98 E396.69462
G1 X179.06 Y118.99 E396.70692
G1 X178.87 Y119.02 E396.71878
G1 X178.68 Y119.06 E396.73116
G1 X178.47 Y119.14 E396.74478
G1 X178.14 Y119.31 E396.76802
G1 X177.84 Y119.56 E396.79256
G1 X177.60 Y119.85 E396.81592
G1 X177.49 Y120.04 E396.82929
G1 X177.34 Y120.40 E396.85367
G1 X177.29 Y120.59 E396.86593
G1 X177.27 Y120.78 E396.87785
G1 X177.26 Y120.98 E396.89034
G1 X177.27 Y121.20 E396.90396
G1 X177.34 Y121.56 E396.92702
G1 X177.49 Y121.92 E396.95160
G1 X177.71 Y122.25 E396.97619
G0 F6000 X178.10 Y121.93
;TYPE:WALL-OUTER
G1 F2700 X178.31 Y122.14 E396.99454
G1 X178.55 Y122.30 E397.01279
G1 X178.82 Y122.42 E397.03118
G1 X179.10 Y122.47 E397.04922
G1 X179.26 Y122.48 E397.05871
G1 X179.41 Y122.47 E397.06826
G1 X179.69 Y122.42 E397.08630
G1 X179.97 Y122.30 E397.10469
G1 X180.21 Y122.14 E397.12294
G1 X180.42 Y121.93 E397.14128
G1 X180.58 Y121.69 E397.15972
G1 X180.69 Y121.42 E397.17809
G1 X180.75 Y121.13 E397.19601
G1 X180.76 Y120.98 E397.20575
G1 X180.73 Y120.69 E397.22398
G1 X180.69 Y120.54 E397.23309
G1 X180.64 Y120.40 E397.24272
G1 X180.51 Y120.15 E397.26032
G1 X180.41 Y120.02 E397.27031
G1 X180.21 Y119.82 E397.28791
G1 X180.09 Y119.73 E397.29745
G1 X179.83 Y119.59 E397.31567
G1 X179.69 Y119.54 E397.32490
G1 X179.40 Y119.49 E397.34326
G1 X179.25 Y119.48 E397.35256
G1 X179.11 Y119.49 E397.36174
G1 X178.82 Y119.54 E397.37991
G1 X178.68 Y119.60 E397.38954
G1 X178.42 Y119.73 E397.40756
G1 X178.19 Y119.92 E397.42595
G1 X178.01 Y120.14 E397.44390
G1 X177.87 Y120.41 E397.46248
G1 X177.82 Y120.54 E397.47172
G1 X177.76 Y120.83 E397.48989
G1 X177.76 Y120.98 E397.49920
G1 X177.76 Y121.13 E397.50888
G1 X177.82 Y121.42 E397.52673
G1 X177.93 Y121.69 E397.54510
G1 X178.10 Y121.93 E397.56354
G0 F6000 X177.81 Y122.13
G0 X178.69 Y122.85
G0 X180.18 Y122.70
G0 X181.13 Y121.54
G0 X180.89 Y119.91
G0 X180.80 Y119.17
G0 X181.03 Y118.91
G1 F2700 X181.37 Y119.22 E397.59198
G1 X185.38 Y123.21 E397.94471
G1 X185.63 Y123.50 E397.96901
G1 X185.79 Y123.78 E397.98869
G1 X185.90 Y124.07 E398.00808
G1 X185.93 Y124.21 E398.01728
G1 X185.95 Y124.36 E398.02651
G1 X185.96 Y124.51 E398.03619
G1 X185.93 Y124.82 E398.05559
G1 X185.85 Y125.11 E398.07406
G1 X185.72 Y125.39 E398.09334
G1 X185.55 Y125.64 E398.11232
G1 X185.08 Y126.11 E398.15377
G1 X174.37 Y136.82 E399.09829
G1 X174.01 Y137.17 E399.12934
G1 X173.76 Y137.35 E399.14859
G1 X173.49 Y137.47 E399.16718
G1 X173.20 Y137.55 E399.18578
G1 X173.05 Y137.57 E399.19571
G1 X172.90 Y137.58 E399.20514
G1 X172.58 Y137.55 E399.22474
G1 X172.45 Y137.52 E399.23341
G1 X172.15 Y137.41 E399.25328
G1 X172.02 Y137.35 E399.26193
G1 X171.77 Y137.17 E399.28144
G1 X170.68 Y136.09 E399.37656
G1 X170.30 Y135.76 E399.40824
G1 X169.86 Y135.50 E399.44000
G1 X169.40 Y135.31 E399.47132
G1 X168.90 Y135.19 E399.50319
G1 X168.39 Y135.15 E399.53497
G1 X167.88 Y135.19 E399.56719
G1 X167.38 Y135.31 E399.59910
G1 X166.91 Y135.51 E399.63086
G1 X166.48 Y135.77 E399.66212
G1 X166.09 Y136.11 E399.69480
G1 X165.14 Y137.06 E399.77858
G1 X164.89 Y137.27 E399.79864
G1 X164.63 Y137.42 E399.81733
G1 X164.34 Y137.52 E399.83619
G1 X164.05 Y137.57 E399.85511
G1 X163.90 Y137.58 E399.86453
G1 X163.58 Y137.55 E399.88413
G1 X163.45 Y137.52 E399.89280
G1 X163.15 Y137.41 E399.91267
G1 X163.02 Y137.35 E399.92132
G1 X162.76 Y137.16 E399.94115
G1 X154.41 Y128.82 E400.67748
G1 X154.07 Y128.47 E400.70826
G1 X153.89 Y128.21 E400.72752
G1 X153.76 Y127.94 E400.74610
G1 X153.69 Y127.65 E400.76471
G1 X153.67 Y127.50 E400.77470
G1 X153.66 Y127.34 E400.78419
G1 X153.69 Y127.04 E400.80329
G1 X153.76 Y126.75 E400.82201
G1 X153.89 Y126.47 E400.84104
G1 X154.07 Y126.22 E400.86011
G1 X160.62 Y119.65 E401.43884
G1 X161.08 Y119.22 E401.47809
G1 X161.75 Y118.62 E401.53422
G1 X162.75 Y117.90 E401.61104
G1 X163.39 Y117.51 E401.65781
G1 X163.90 Y117.24 E401.69387
G1 X164.39 Y117.02 E401.72714
G1 X164.85 Y116.86 E401.75758
G1 X165.38 Y116.74 E401.79118
G1 X165.33 Y116.29 E401.81950
G1 X153.09 Y116.29 E402.58282
G1 X153.09 Y113.79 E402.73873
G1 X187.59 Y113.79 E404.89024
G1 X187.59 Y116.29 E405.04615
G1 X176.94 Y116.29 E405.71081
G1 X176.88 Y116.73 E405.73856
G1 X177.72 Y116.93 E405.79190
G1 X178.27 Y117.13 E405.82861
G1 X178.83 Y117.39 E405.86717
G1 X179.43 Y117.73 E405.90981
G1 X180.04 Y118.13 E405.95570
G1 X180.38 Y118.38 E405.98158
G1 X181.03 Y118.91 E406.03446
G0 F6000 X180.80 Y119.17
G0 X181.13 Y121.54
G0 X180.18 Y122.70
G0 X178.69 Y122.85
G0 X169.92 Y129.73
G0 X169.68 Y129.99
G1 F2700 X169.45 Y129.78 E406.05450
G1 X169.17 Y129.61 E406.07444
G1 X168.87 Y129.49 E406.09464
G1 X168.56 Y129.43 E406.11474
G1 X168.23 Y129.43 E406.13513
G1 X167.91 Y129.49 E406.15531
G1 X167.61 Y129.61 E406.17547
G1 X167.33 Y129.78 E406.19567
G1 X167.10 Y130.00 E406.21571
G1 X166.90 Y130.26 E406.23597
G1 X166.76 Y130.55 E406.25611
G1 X166.67 Y130.85 E406.27579
G1 X166.64 Y131.18 E406.29608
G1 X166.67 Y131.50 E406.31637
G1 X166.76 Y131.81 E406.33636
G1 X166.90 Y132.10 E406.35653
G1 X167.10 Y132.35 E406.37639
G1 X167.34 Y132.57 E406.39682
G1 X167.61 Y132.74 E406.41671
G1 X167.91 Y132.86 E406.43715
G1 X168.23 Y132.92 E406.45731
G1 X168.56 Y132.92 E406.47745
G1 X168.87 Y132.86 E406.49755
G1 X169.17 Y132.74 E406.51774
G1 X169.44 Y132.58 E406.53760
G1 X169.69 Y132.35 E406.55803
G1 X169.88 Y132.10 E406.57789
G1 X170.03 Y131.81 E406.59839
G1 X170.11 Y131.50 E406.61843
G1 X170.14 Y131.18 E406.63866
G1 X170.11 Y130.85 E406.65920
G1 X170.02 Y130.54 E406.67919
G1 X169.88 Y130.25 E406.69933
G1 X169.68 Y129.99 E406.71959
G0 F6000 X169.92 Y129.73
G0 X161.45 Y124.60
G0 X161.16 Y124.41
G1 F2700 X161.33 Y124.16 E406.73797
G1 X161.44 Y123.89 E406.75642
G1 X161.50 Y123.61 E406.77434
G1 X161.50 Y123.45 E406.78408
G1 X161.47 Y123.16 E406.80232
G1 X161.44 Y123.02 E406.81142
G1 X161.39 Y122.87 E406.82105
G1 X161.25 Y122.62 E406.83907
G1 X161.06 Y122.39 E406.85741
G1 X160.84 Y122.21 E406.87540
G1 X160.71 Y122.13 E406.88486
G1 X160.58 Y122.07 E406.89409
G1 X160.30 Y121.98 E406.91240
G1 X160.00 Y121.95 E406.93089
G1 X159.71 Y121.98 E406.94906
G1 X159.43 Y122.07 E406.96749
G1 X159.29 Y122.14 E406.97711
G1 X159.05 Y122.30 E406.99500
G1 X158.85 Y122.50 E407.01299
G1 X158.68 Y122.75 E407.03170
G1 X158.57 Y123.02 E407.05001
G1 X158.51 Y123.31 E407.06819
G1 X158.50 Y123.45 E407.07749
G1 X158.51 Y123.61 E407.08717
G1 X158.57 Y123.89 E407.10503
G1 X158.68 Y124.16 E407.12340
G1 X158.84 Y124.41 E407.14184
G1 X159.05 Y124.61 E407.16018
G1 X159.30 Y124.78 E407.17851
G1 X159.57 Y124.89 E407.19678
G1 X159.85 Y124.95 E407.21478
G1 X160.00 Y124.95 E407.22433
G1 X160.16 Y124.95 E407.23432
G1 X160.57 Y124.84 E407.26056
G1 X160.83 Y124.71 E407.27897
G1 X160.96 Y124.61 E407.28891
G1 X161.16 Y124.41 E407.30682
G0 F6000 X161.80 Y124.67
;TYPE:FILL
G1 F2700 X166.63 Y129.51 E407.73324
G0 F6000 X167.01 Y129.18
G1 F2700 X162.04 Y124.21 E408.17205
G0 F6000 X162.17 Y123.63
G1 F2700 X167.47 Y128.94 E408.63974
G0 F6000 X168.03 Y128.78
G1 F2700 X162.09 Y122.85 E409.16313
G0 F6000 X160.62 Y121.38
G1 F2700 X160.24 Y120.99 E409.19713
G0 F6000 X160.59 Y120.64
G1 F2700 X168.73 Y128.78 E409.91481
G0 F6000 X166.32 Y129.91
G1 F2700 X161.47 Y125.05 E410.34273
G0 F6000 X161.06 Y125.35
G1 F2700 X166.10 Y130.39 E410.78749
G0 F6000 X165.98 Y130.98
G1 F2700 X160.55 Y125.55 E411.26678
G0 F6000 X159.92 Y125.63
G1 F2700 X166.04 Y131.75 E411.80658
G0 F6000 X167.82 Y133.53
G1 F2700 X168.80 Y134.50 E411.89248
G0 F6000 X168.08 Y134.50
G1 F2700 X158.94 Y125.36 E412.69866
G0 F6000 X158.10 Y124.52
G1 F2700 X157.41 Y123.82 E412.75965
G0 F6000 X157.06 Y124.18
G1 F2700 X167.47 Y134.59 E413.67815
G0 F6000 X166.94 Y134.76
G1 F2700 X156.71 Y124.53 E414.58059
G0 F6000 X156.35 Y124.89
G1 F2700 X166.46 Y134.99 E415.47189
G0 F6000 X166.03 Y135.27
G1 F2700 X156.00 Y125.24 E416.35634
G0 F6000 X155.65 Y125.59
G1 F2700 X165.65 Y135.60 E417.23846
G0 F6000 X165.29 Y135.95
G1 F2700 X155.29 Y125.95 E418.12049
G0 F6000 X154.94 Y126.30
G1 F2700 X164.94 Y136.30 E419.00243
G0 F6000 X164.58 Y136.65
G1 F2700 X154.59 Y126.66 E419.88358
G0 F6000 X154.36 Y127.13
G1 F2700 X164.10 Y136.88 E420.74286
G0 F6000 X168.59 Y133.59
G1 F2700 X169.71 Y134.71 E420.84102
G0 F6000 X169.18 Y133.47
G1 F2700 X172.55 Y136.84 E421.13867
G0 F6000 X173.25 Y136.84
G1 F2700 X169.66 Y133.24 E421.45617
G0 F6000 X170.06 Y132.93
G1 F2700 X173.68 Y136.56 E421.77570
G0 F6000 X174.03 Y136.21
G1 F2700 X170.38 Y132.55 E422.09788
G0 F6000 X170.63 Y132.10
G1 F2700 X174.39 Y135.85 E422.42909
G0 F6000 X174.74 Y135.50
G1 F2700 X170.78 Y131.54 E422.77816
G0 F6000 X170.79 Y130.84
G1 F2700 X175.10 Y135.15 E423.15810
G0 F6000 X175.45 Y134.79
G1 F2700 X160.94 Y120.29 E424.43736
G0 F6000 X161.30 Y119.94
G1 F2700 X175.80 Y134.44 E425.71626
G0 F6000 X176.16 Y134.08
G1 F2700 X161.67 Y119.59 E426.99407
G0 F6000 X162.04 Y119.26
G1 F2700 X176.51 Y133.73 E428.26989
G0 F6000 X176.86 Y133.38
G1 F2700 X162.44 Y118.95 E429.54182
G0 F6000 X162.85 Y118.66
G1 F2700 X177.22 Y133.02 E430.80882
G0 F6000 X177.57 Y132.67
G1 F2700 X163.27 Y118.37 E432.06996
G0 F6000 X163.71 Y118.11
G1 F2700 X177.92 Y132.31 E433.32315
G0 F6000 X178.28 Y131.96
G1 F2700 X164.18 Y117.86 E434.56669
G0 F6000 X164.66 Y117.64
G1 F2700 X178.63 Y131.61 E435.79850
G0 F6000 X178.98 Y131.25
G1 F2700 X165.19 Y117.47 E437.01452
G0 F6000 X165.79 Y117.35
G1 F2700 X179.34 Y130.90 E438.20964
G0 F6000 X179.69 Y130.55
G1 F2700 X166.07 Y116.93 E439.41085
G0 F6000 X166.00 Y116.14
G1 F2700 X180.04 Y130.19 E440.64989
G0 F6000 X180.40 Y129.84
G1 F2700 X165.02 Y114.47 E442.00574
G0 F6000 X164.32 Y114.47
G1 F2700 X165.47 Y115.61 E442.10708
G0 F6000 X164.76 Y115.61
G1 F2700 X163.61 Y114.47 E442.20846
G0 F6000 X162.90 Y114.47
G1 F2700 X164.05 Y115.61 E442.30984
G0 F6000 X163.34 Y115.61
G1 F2700 X162.19 Y114.47 E442.41122
G0 F6000 X161.49 Y114.47
G1 F2700 X162.64 Y115.61 E442.51260
G0 F6000 X161.93 Y115.61
G1 F2700 X160.78 Y114.47 E442.61397
G0 F6000 X160.07 Y114.47
G1 F2700 X161.22 Y115.61 E442.71535
G0 F6000 X160.52 Y115.61
G1 F2700 X159.37 Y114.47 E442.81673
G0 F6000 X158.66 Y114.47
G1 F2700 X159.81 Y115.61 E442.91807
G0 F6000 X159.10 Y115.61
G1 F2700 X157.95 Y114.47 E443.01940
G0 F6000 X157.24 Y114.47
G1 F2700 X158.39 Y115.61 E443.12078
G0 F6000 X157.69 Y115.61
G1 F2700 X156.54 Y114.47 E443.22216
G0 F6000 X155.83 Y114.47
G1 F2700 X156.98 Y115.61 E443.32354
G0 F6000 X156.27 Y115.61
G1 F2700 X155.12 Y114.47 E443.42492
G0 F6000 X154.42 Y114.47
G1 F2700 X155.57 Y115.61 E443.52630
G0 F6000 X154.86 Y115.61
G1 F2700 X153.77 Y114.52 E443.62256
G0 F6000 X153.77 Y115.23
G1 F2700 X154.15 Y115.61 E443.65648
G0 F6000 X165.73 Y114.47
G1 F2700 X180.75 Y129.49 E444.98115
G0 F6000 X181.10 Y129.13
G1 F2700 X166.44 Y114.47 E446.27465
G0 F6000 X167.14 Y114.47
G1 F2700 X181.46 Y128.78 E447.53698
G0 F6000 X181.81 Y128.42
G1 F2700 X167.85 Y114.47 E448.76813
G0 F6000 X168.56 Y114.47
G1 F2700 X182.16 Y128.07 E449.96805
G0 F6000 X182.52 Y127.72
G1 F2700 X169.26 Y114.47 E451.13676
G0 F6000 X169.97 Y114.47
G1 F2700 X177.21 Y121.70 E451.77467
G0 F6000 X177.09 Y120.87
G1 F2700 X170.68 Y114.47 E452.33964
G0 F6000 X171.39 Y114.47
G1 F2700 X177.20 Y120.28 E452.85240
G0 F6000 X177.43 Y119.80
G1 F2700 X172.09 Y114.47 E453.32292
G0 F6000 X172.80 Y114.47
G1 F2700 X177.75 Y119.41 E453.75913
G0 F6000 X178.15 Y119.11
G1 F2700 X176.34 Y117.30 E453.91898
G0 F6000 X176.16 Y117.11
G1 F2700 X173.51 Y114.47 E454.15256
G0 F6000 X174.22 Y114.47
G1 F2700 X176.23 Y116.48 E454.33032
G0 F6000 X176.31 Y115.85
G1 F2700 X174.92 Y114.47 E454.45233
G0 F6000 X175.63 Y114.47
G1 F2700 X176.78 Y115.61 E454.55380
G0 F6000 X177.49 Y115.61
G1 F2700 X176.34 Y114.47 E454.65527
G0 F6000 X177.04 Y114.47
G1 F2700 X178.19 Y115.61 E454.75674
G0 F6000 X178.90 Y115.61
G1 F2700 X177.75 Y114.47 E454.85816
G0 F6000 X178.46 Y114.47
G1 F2700 X179.61 Y115.61 E454.95958
G0 F6000 X180.31 Y115.61
G1 F2700 X179.16 Y114.47 E455.06101
G0 F6000 X179.87 Y114.47
G1 F2700 X181.02 Y115.61 E455.16243
G0 F6000 X181.73 Y115.61
G1 F2700 X180.58 Y114.47 E455.26385
