;-- START GCODE --
;Sliced for Type A Machines Series 1
;Sliced at: Thu 19-11-2015 17:18:27
;Basic settings: Layer height: 0.15 Walls: 1 Fill: 30
;Print Speed: 140 Support: 0
;Retraction Speed: 40 Retraction Distance: 1.2
;Print time: #P_TIME#
;Filament used: #F_AMNT#m #F_WGHT#g
;Filament cost: #F_COST#
M106 S255	 ;start with the fan on
G21        ;metric values
G90        ;absolute positioning
M106 S255    ;start with the fan on
G28     ;move to endstops
G29		;allows for auto-levelling
G1 X150 Y5  Z15.0 F6000 ;center and move the platform down 15mm
M109 S220 ;Heat To temp
G92 E0                  ;zero the extruded length
G1 F200 E30              ;extrude 30mm of feed stock
G92 E0                  ;zero the extruded length again
G1 X175 Y25  Z0 F6000 ;remove bugger
G1 X220 F6000 ;remove bugger
G1 X150 Y150  Z15 F6000 ;recenter and begin
G1 F6000

;Layer count: 6
;LAYER:0
M106 S255
G0 F6000 X127.97 Y115.34 Z0.30
;TYPE:SKIRT
G1 F2700 X177.03 Y115.34 E3.05939
G1 X177.03 Y189.66 E7.69407
G1 X127.97 Y189.66 E10.75346
G1 X127.97 Y115.34 E15.38813
G0 F6000 X128.47 Y115.84
G1 F2700 X176.53 Y115.84 E18.38516
G1 X176.53 Y189.16 E22.95748
G1 X128.47 Y189.16 E25.95450
G1 X128.47 Y115.84 E30.52682
G0 F6000 X128.97 Y116.34
G1 F2700 X176.03 Y116.34 E33.46148
G1 X176.03 Y188.66 E37.97143
G1 X128.97 Y188.66 E40.90610
G1 X128.97 Y116.34 E45.41605
G0 F6000 X129.47 Y116.84
G1 F2700 X175.53 Y116.84 E48.28835
G1 X175.53 Y188.16 E52.73594
G1 X129.47 Y188.16 E55.60824
G1 X129.47 Y116.84 E60.05583
G0 F6000 X129.97 Y117.34
G1 F2700 X175.03 Y117.34 E62.86577
G1 X175.03 Y187.66 E67.25100
G1 X129.97 Y187.66 E70.06094
G1 X129.97 Y117.34 E74.44616
G0 F6000 X130.47 Y117.84
G1 F2700 X174.53 Y117.84 E77.19374
G1 X174.53 Y187.16 E81.51660
G1 X130.47 Y187.16 E84.26418
G1 X130.47 Y117.84 E88.58704
G0 F6000 X130.97 Y118.34
G1 F2700 X174.03 Y118.34 E91.27225
G1 X174.03 Y186.66 E95.53275
G1 X130.97 Y186.66 E98.21797
G1 X130.97 Y118.34 E102.47847
G0 F6000 X131.47 Y118.84
G1 F2700 X173.53 Y118.84 E105.10132
G1 X173.53 Y186.16 E109.29946
G1 X131.47 Y186.16 E111.92231
G1 X131.47 Y118.84 E116.12044
G0 F6000 X131.97 Y119.34
G1 F2700 X173.03 Y119.34 E118.68093
G1 X173.03 Y185.66 E122.81671
G1 X131.97 Y185.66 E125.37720
G1 X131.97 Y119.34 E129.51297
G0 F6000 X132.47 Y119.84
G1 F2700 X172.53 Y119.84 E132.01110
G1 X172.53 Y185.16 E136.08451
G1 X132.47 Y185.16 E138.58263
G1 X132.47 Y119.84 E142.65605
G0 F6000 X132.97 Y120.34
G1 F2700 X172.03 Y120.34 E145.09181
G1 X172.03 Y184.66 E149.10286
G1 X132.97 Y184.66 E151.53862
G1 X132.97 Y120.34 E155.54967
G0 F6000 X133.47 Y120.84
G1 F2700 X171.53 Y120.84 E157.92307
G1 X171.53 Y184.16 E161.87176
G1 X133.47 Y184.16 E164.24516
G1 X133.47 Y120.84 E168.19384
G0 F6000 X133.97 Y121.34
G1 F2700 X171.03 Y121.34 E170.50488
G1 X171.03 Y183.66 E174.39120
G1 X133.97 Y183.66 E176.70224
G1 X133.97 Y121.34 E180.58856
G0 F6000 X134.47 Y121.84
G1 F2700 X170.53 Y121.84 E182.83724
G1 X170.53 Y183.16 E186.66120
G1 X134.47 Y183.16 E188.90988
G1 X134.47 Y121.84 E192.73383
G0 F6000 X134.97 Y122.34
G1 F2700 X170.03 Y122.34 E194.92015
G1 X170.03 Y182.66 E198.68174
G1 X134.97 Y182.66 E200.86806
G1 X134.97 Y122.34 E204.62965
G0 F6000 X135.47 Y122.84
G1 F2700 X169.53 Y122.84 E206.75361
G1 X169.53 Y182.16 E210.45284
G1 X135.47 Y182.16 E212.57679
G1 X135.47 Y122.84 E216.27602
G0 F6000 X135.97 Y123.34
G1 F2700 X169.03 Y123.34 E218.33761
G1 X169.03 Y181.66 E221.97448
G1 X135.97 Y181.66 E224.03607
G1 X135.97 Y123.34 E227.67294
G0 F6000 X136.47 Y123.84
G1 F2700 X168.53 Y123.84 E229.67217
G1 X168.53 Y181.16 E233.24668
G1 X136.47 Y181.16 E235.24590
G1 X136.47 Y123.84 E238.82041
G0 F6000 X136.97 Y124.34
G1 F2700 X168.03 Y124.34 E240.75727
G1 X168.03 Y180.66 E244.26942
G1 X136.97 Y180.66 E246.20628
G1 X136.97 Y124.34 E249.71842
G0 F6000 X137.47 Y124.84
G1 F2700 X167.53 Y124.84 E251.59292
G1 X167.53 Y180.16 E255.04271
G1 X137.47 Y180.16 E256.91721
G1 X137.47 Y124.84 E260.36699
G0 F6000 X138.47 Y125.84
;TYPE:WALL-INNER
G1 F2700 X166.53 Y125.84 E262.11676
G1 X166.53 Y179.16 E265.44182
G1 X138.47 Y179.16 E267.19159
G1 X138.47 Y125.84 E270.51665
G0 F6000 X137.97 Y125.34
;TYPE:WALL-OUTER
G1 F2700 X167.03 Y125.34 E272.32879
G1 X167.03 Y179.66 E275.71621
G1 X137.97 Y179.66 E277.52835
G1 X137.97 Y125.34 E280.91577
G0 F6000 X138.65 Y126.27
;TYPE:FILL
G1 F2700 X166.35 Y153.98 E283.35950
G0 F6000 X166.35 Y154.69
G1 F2700 X138.65 Y126.98 E285.80323
G0 F6000 X138.65 Y127.69
G1 F2700 X166.35 Y155.39 E288.24691
G0 F6000 X166.35 Y156.10
G1 F2700 X138.65 Y128.39 E290.69060
G0 F6000 X138.65 Y129.10
G1 F2700 X166.35 Y156.81 E293.13429
G0 F6000 X166.35 Y157.51
G1 F2700 X138.65 Y129.81 E295.57802
G0 F6000 X138.65 Y130.51
G1 F2700 X166.35 Y158.22 E298.02175
G0 F6000 X166.35 Y158.93
G1 F2700 X138.65 Y131.22 E300.46548
G0 F6000 X138.65 Y131.93
G1 F2700 X166.35 Y159.64 E302.90921
G0 F6000 X166.35 Y160.34
G1 F2700 X138.65 Y132.63 E305.35294
G0 F6000 X138.65 Y133.34
G1 F2700 X166.35 Y161.05 E307.79667
G0 F6000 X166.35 Y161.76
G1 F2700 X138.65 Y134.05 E310.24035
G0 F6000 X138.65 Y134.76
G1 F2700 X166.35 Y162.46 E312.68404
G0 F6000 X166.35 Y163.17
G1 F2700 X138.65 Y135.46 E315.12773
G0 F6000 X138.65 Y136.17
G1 F2700 X166.35 Y163.88 E317.57146
G0 F6000 X166.35 Y164.59
G1 F2700 X138.65 Y136.88 E320.01519
G0 F6000 X138.65 Y137.58
G1 F2700 X166.35 Y165.29 E322.45892
G0 F6000 X166.35 Y166.00
G1 F2700 X138.65 Y138.29 E324.90265
G0 F6000 X138.65 Y139.00
G1 F2700 X166.35 Y166.71 E327.34638
G0 F6000 X166.35 Y167.41
G1 F2700 X138.65 Y139.71 E329.79011
G0 F6000 X138.65 Y140.41
G1 F2700 X166.35 Y168.12 E332.23380
G0 F6000 X166.35 Y168.83
G1 F2700 X138.65 Y141.12 E334.67748
G0 F6000 X138.65 Y141.83
G1 F2700 X166.35 Y169.53 E337.12117
G0 F6000 X166.35 Y170.24
G1 F2700 X138.65 Y142.53 E339.56490
G0 F6000 X138.65 Y143.24
G1 F2700 X166.35 Y170.95 E342.00863
G0 F6000 X166.35 Y171.66
G1 F2700 X138.65 Y143.95 E344.45236
G0 F6000 X138.65 Y144.66
G1 F2700 X166.35 Y172.36 E346.89609
G0 F6000 X166.35 Y173.07
G1 F2700 X138.65 Y145.36 E349.33982
G0 F6000 X138.65 Y146.07
G1 F2700 X166.35 Y173.78 E351.78355
G0 F6000 X166.35 Y174.49
G1 F2700 X138.65 Y146.78 E354.22728
G0 F6000 X138.65 Y147.48
G1 F2700 X166.35 Y175.19 E356.67097
G0 F6000 X166.35 Y175.90
G1 F2700 X138.65 Y148.19 E359.11465
G0 F6000 X138.65 Y148.90
G1 F2700 X166.35 Y176.61 E361.55834
G0 F6000 X166.35 Y177.31
G1 F2700 X138.65 Y149.60 E364.00207
G0 F6000 X138.65 Y150.31
G1 F2700 X166.35 Y178.02 E366.44580
G0 F6000 X166.35 Y178.73
G1 F2700 X138.65 Y151.02 E368.88953
G0 F6000 X138.65 Y151.73
G1 F2700 X165.90 Y178.98 E371.29335
G0 F6000 X165.19 Y178.98
G1 F2700 X138.65 Y152.43 E373.63482
G0 F6000 X138.65 Y153.14
G1 F2700 X164.49 Y178.98 E375.91394
G0 F6000 X163.78 Y178.98
G1 F2700 X138.65 Y153.85 E378.13066
G0 F6000 X138.65 Y154.56
G1 F2700 X163.07 Y178.98 E380.28498
G0 F6000 X162.37 Y178.98
G1 F2700 X138.65 Y155.26 E382.37695
G0 F6000 X138.65 Y155.97
G1 F2700 X161.66 Y178.98 E384.40656
G0 F6000 X160.95 Y178.98
G1 F2700 X138.65 Y156.68 E386.37382
G0 F6000 X138.65 Y157.38
G1 F2700 X160.24 Y178.98 E388.27873
G0 F6000 X159.54 Y178.98
G1 F2700 X138.65 Y158.09 E390.12128
G0 F6000 X138.65 Y158.80
G1 F2700 X158.83 Y178.98 E391.90148
G0 F6000 X158.12 Y178.98
G1 F2700 X138.65 Y159.50 E393.61933
G0 F6000 X138.65 Y160.21
G1 F2700 X157.42 Y178.98 E395.27478
G0 F6000 X156.71 Y178.98
G1 F2700 X138.65 Y160.92 E396.86788
G0 F6000 X138.65 Y161.63
G1 F2700 X156.00 Y178.98 E398.39858
G0 F6000 X155.29 Y178.98
G1 F2700 X138.65 Y162.33 E399.86692
G0 F6000 X138.65 Y163.04
G1 F2700 X154.59 Y178.98 E401.27292
G0 F6000 X153.88 Y178.98
G1 F2700 X138.65 Y163.75 E402.61656
G0 F6000 X138.65 Y164.45
G1 F2700 X153.17 Y178.98 E403.89784
G0 F6000 X152.47 Y178.98
G1 F2700 X138.65 Y165.16 E405.11678
G0 F6000 X138.65 Y165.87
G1 F2700 X151.76 Y178.98 E406.27335
G0 F6000 X151.05 Y178.98
G1 F2700 X138.65 Y166.57 E407.36758
G0 F6000 X138.65 Y167.28
G1 F2700 X150.34 Y178.98 E408.39941
G0 F6000 X149.64 Y178.98
G1 F2700 X138.65 Y167.99 E409.36884
G0 F6000 X138.65 Y168.70
G1 F2700 X148.93 Y178.98 E410.27592
G0 F6000 X148.22 Y178.98
G1 F2700 X138.65 Y169.40 E411.12064
G0 F6000 X138.65 Y170.11
G1 F2700 X147.52 Y178.98 E411.90301
G0 F6000 X146.81 Y178.98
G1 F2700 X138.65 Y170.82 E412.62303
G0 F6000 X138.65 Y171.53
G1 F2700 X146.10 Y178.98 E413.28070
G0 F6000 X145.40 Y178.98
G1 F2700 X138.65 Y172.23 E413.87601
G0 F6000 X138.65 Y172.94
G1 F2700 X144.69 Y178.98 E414.40897
G0 F6000 X143.98 Y178.98
G1 F2700 X138.65 Y173.65 E414.87953
G0 F6000 X138.65 Y174.35
G1 F2700 X143.27 Y178.98 E415.28769
G0 F6000 X142.57 Y178.98
G1 F2700 X138.65 Y175.06 E415.63350
G0 F6000 X138.65 Y175.77
G1 F2700 X141.86 Y178.98 E415.91696
G0 F6000 X141.15 Y178.98
G1 F2700 X138.65 Y176.47 E416.13806
G0 F6000 X138.65 Y177.18
G1 F2700 X140.44 Y178.98 E416.29681
G0 F6000 X139.74 Y178.98
G1 F2700 X138.65 Y177.89 E416.39320
G0 F6000 X138.65 Y178.60
G1 F2700 X139.03 Y178.98 E416.42725
G0 F6000 X166.35 Y153.27
G1 F2700 X139.10 Y126.02 E418.83107
G0 F6000 X139.80 Y126.02
G1 F2700 X166.35 Y152.56 E421.17254
G0 F6000 X166.35 Y151.86
G1 F2700 X140.51 Y126.02 E423.45161
G0 F6000 X141.22 Y126.02
G1 F2700 X166.35 Y151.15 E425.66833
G0 F6000 X166.35 Y150.44
G1 F2700 X141.93 Y126.02 E427.82269
G0 F6000 X142.63 Y126.02
G1 F2700 X166.35 Y149.74 E429.91466
G0 F6000 X166.35 Y149.03
G1 F2700 X143.34 Y126.02 E431.94428
G0 F6000 X144.05 Y126.02
G1 F2700 X166.35 Y148.32 E433.91154
G0 F6000 X166.35 Y147.62
G1 F2700 X144.75 Y126.02 E435.81644
G0 F6000 X145.46 Y126.02
G1 F2700 X166.35 Y146.91 E437.65900
G0 F6000 X166.35 Y146.20
G1 F2700 X146.17 Y126.02 E439.43920
G0 F6000 X146.88 Y126.02
G1 F2700 X166.35 Y145.49 E441.15705
G0 F6000 X166.35 Y144.79
G1 F2700 X147.58 Y126.02 E442.81250
G0 F6000 X148.29 Y126.02
G1 F2700 X166.35 Y144.08 E444.40559
G0 F6000 X166.35 Y143.37
G1 F2700 X149.00 Y126.02 E445.93629
G0 F6000 X149.70 Y126.02
G1 F2700 X166.35 Y142.66 E447.40464
G0 F6000 X166.35 Y141.96
G1 F2700 X150.41 Y126.02 E448.81063
G0 F6000 X151.12 Y126.02
G1 F2700 X166.35 Y141.25 E450.15427
G0 F6000 X166.35 Y140.54
G1 F2700 X151.82 Y126.02 E451.43556
G0 F6000 X152.53 Y126.02
G1 F2700 X166.35 Y139.84 E452.65449
G0 F6000 X166.35 Y139.13
G1 F2700 X153.24 Y126.02 E453.81107
G0 F6000 X153.95 Y126.02
G1 F2700 X166.35 Y138.42 E454.90525
G0 F6000 X166.35 Y137.72
G1 F2700 X154.65 Y126.02 E455.93708
G0 F6000 X155.36 Y126.02
G1 F2700 X166.35 Y137.01 E456.90656
G0 F6000 X166.35 Y136.30
G1 F2700 X156.07 Y126.02 E457.81363
G0 F6000 X156.78 Y126.02
G1 F2700 X166.35 Y135.59 E458.65836
G0 F6000 X166.35 Y134.89
G1 F2700 X157.48 Y126.02 E459.44073
G0 F6000 X158.19 Y126.02
G1 F2700 X166.35 Y134.18 E460.16075
G0 F6000 X166.35 Y133.47
G1 F2700 X158.90 Y126.02 E460.81841
G0 F6000 X159.60 Y126.02
G1 F2700 X166.35 Y132.77 E461.41372
G0 F6000 X166.35 Y132.06
G1 F2700 X160.31 Y126.02 E461.94664
G0 F6000 X161.02 Y126.02
G1 F2700 X166.35 Y131.35 E462.41720
G0 F6000 X166.35 Y130.65
G1 F2700 X161.72 Y126.02 E462.82541
G0 F6000 X162.43 Y126.02
G1 F2700 X166.35 Y129.94 E463.17121
G0 F6000 X166.35 Y129.23
G1 F2700 X163.14 Y126.02 E463.45467
G0 F6000 X163.85 Y126.02
G1 F2700 X166.35 Y128.52 E463.67577
G0 F6000 X166.35 Y127.82
G1 F2700 X164.55 Y126.02 E463.83452
G0 F6000 X165.26 Y126.02
G1 F2700 X166.35 Y127.11 E463.93092
G0 F6000 X166.35 Y126.40
G1 F2700 X165.97 Y126.02 E463.96496
;LAYER:1
G0 F6000 X166.53 Y125.84 Z0.45
;TYPE:WALL-INNER
G1 F4080 X166.53 Y179.16 E465.62749
G1 X138.47 Y179.16 E466.50238
G1 X138.47 Y125.84 E468.16491
G1 X166.53 Y125.84 E469.03979
G0 F6000 X167.03 Y125.34
;TYPE:WALL-OUTER
G1 F4080 X167.03 Y179.66 E470.73350
G1 X137.97 Y179.66 E471.63957
G1 X137.97 Y125.34 E473.33328
G1 X167.03 Y125.34 E474.23935
G0 F6000 X166.35 Y126.03
;TYPE:FILL
G1 F4080 X138.65 Y153.74 E475.46117
G0 F6000 X138.65 Y154.45
G1 F4080 X166.35 Y126.74 E476.68299
G0 F6000 X166.35 Y127.45
G1 F4080 X138.65 Y155.16 E477.90481
G0 F6000 X138.65 Y155.86
G1 F4080 X166.35 Y128.16 E479.12666
G0 F6000 X166.35 Y128.86
G1 F4080 X138.65 Y156.57 E480.34850
G0 F6000 X138.65 Y157.28
G1 F4080 X166.35 Y129.57 E481.57034
G0 F6000 X166.35 Y130.28
G1 F4080 X138.65 Y157.99 E482.79217
G0 F6000 X138.65 Y158.69
G1 F4080 X166.35 Y130.99 E484.01399
G0 F6000 X166.35 Y131.69
G1 F4080 X138.65 Y159.40 E485.23581
G0 F6000 X138.65 Y160.11
G1 F4080 X166.35 Y132.40 E486.45763
G0 F6000 X166.35 Y133.11
G1 F4080 X138.65 Y160.81 E487.67945
G0 F6000 X138.65 Y161.52
G1 F4080 X166.35 Y133.81 E488.90127
G0 F6000 X166.35 Y134.52
G1 F4080 X138.65 Y162.23 E490.12309
G0 F6000 X138.65 Y162.94
G1 F4080 X166.35 Y135.23 E491.34494
G0 F6000 X166.35 Y135.93
G1 F4080 X138.65 Y163.64 E492.56678
G0 F6000 X138.65 Y164.35
G1 F4080 X166.35 Y136.64 E493.78860
G0 F6000 X166.35 Y137.35
G1 F4080 X138.65 Y165.06 E495.01042
G0 F6000 X138.65 Y165.76
G1 F4080 X166.35 Y138.06 E496.23224
G0 F6000 X166.35 Y138.76
G1 F4080 X138.65 Y166.47 E497.45406
G0 F6000 X138.65 Y167.18
G1 F4080 X166.35 Y139.47 E498.67588
G0 F6000 X166.35 Y140.18
G1 F4080 X138.65 Y167.88 E499.89770
G0 F6000 X138.65 Y168.59
G1 F4080 X166.35 Y140.88 E501.11953
G0 F6000 X166.35 Y141.59
G1 F4080 X138.65 Y169.30 E502.34137
G0 F6000 X138.65 Y170.01
G1 F4080 X166.35 Y142.30 E503.56321
G0 F6000 X166.35 Y143.00
G1 F4080 X138.65 Y170.71 E504.78506
G0 F6000 X138.65 Y171.42
G1 F4080 X166.35 Y143.71 E506.00688
G0 F6000 X166.35 Y144.42
G1 F4080 X138.65 Y172.13 E507.22870
G0 F6000 X138.65 Y172.83
G1 F4080 X166.35 Y145.13 E508.45052
G0 F6000 X166.35 Y145.83
G1 F4080 X138.65 Y173.54 E509.67234
G0 F6000 X138.65 Y174.25
G1 F4080 X166.35 Y146.54 E510.89416
G0 F6000 X166.35 Y147.25
G1 F4080 X138.65 Y174.96 E512.11598
G0 F6000 X138.65 Y175.66
G1 F4080 X166.35 Y147.96 E513.33783
G0 F6000 X166.35 Y148.66
G1 F4080 X138.65 Y176.37 E514.55967
G0 F6000 X138.65 Y177.08
G1 F4080 X166.35 Y149.37 E515.78151
G0 F6000 X166.35 Y150.08
G1 F4080 X138.65 Y177.78 E517.00333
G0 F6000 X138.65 Y178.49
G1 F4080 X166.35 Y150.78 E518.22515
G0 F6000 X166.35 Y151.49
G1 F4080 X138.86 Y178.98 E519.43749
G0 F6000 X139.57 Y178.98
G1 F4080 X166.35 Y152.20 E520.61864
G0 F6000 X166.35 Y152.91
G1 F4080 X140.28 Y178.98 E521.76860
G0 F6000 X140.98 Y178.98
G1 F4080 X166.35 Y153.61 E522.88739
G0 F6000 X166.35 Y154.32
G1 F4080 X141.69 Y178.98 E523.97500
G0 F6000 X142.40 Y178.98
G1 F4080 X166.35 Y155.03 E525.03143
G0 F6000 X166.35 Y155.73
G1 F4080 X143.10 Y178.98 E526.05669
G0 F6000 X143.81 Y178.98
G1 F4080 X166.35 Y156.44 E527.05075
G0 F6000 X166.35 Y157.15
G1 F4080 X144.52 Y178.98 E528.01364
G0 F6000 X145.22 Y178.98
G1 F4080 X166.35 Y157.85 E528.94534
G0 F6000 X166.35 Y158.56
G1 F4080 X145.93 Y178.98 E529.84587
G0 F6000 X146.64 Y178.98
G1 F4080 X166.35 Y159.27 E530.71520
G0 F6000 X166.35 Y159.98
G1 F4080 X147.35 Y178.98 E531.55336
G0 F6000 X148.05 Y178.98
G1 F4080 X166.35 Y160.68 E532.36033
G0 F6000 X166.35 Y161.39
G1 F4080 X148.76 Y178.98 E533.13613
G0 F6000 X149.47 Y178.98
G1 F4080 X166.35 Y162.10 E533.88076
G0 F6000 X166.35 Y162.80
G1 F4080 X150.17 Y178.98 E534.59421
G0 F6000 X150.88 Y178.98
G1 F4080 X166.35 Y163.51 E535.27645
G0 F6000 X166.35 Y164.22
G1 F4080 X151.59 Y178.98 E535.92753
G0 F6000 X152.29 Y178.98
G1 F4080 X166.35 Y164.93 E536.54742
G0 F6000 X166.35 Y165.63
G1 F4080 X153.00 Y178.98 E537.13612
G0 F6000 X153.71 Y178.98
G1 F4080 X166.35 Y166.34 E537.69364
G0 F6000 X166.35 Y167.05
G1 F4080 X154.42 Y178.98 E538.21998
G0 F6000 X155.12 Y178.98
G1 F4080 X166.35 Y167.75 E538.71515
G0 F6000 X166.35 Y168.46
G1 F4080 X155.83 Y178.98 E539.17914
G0 F6000 X156.54 Y178.98
G1 F4080 X166.35 Y169.17 E539.61195
G0 F6000 X166.35 Y169.88
G1 F4080 X157.25 Y178.98 E540.01357
G0 F6000 X157.95 Y178.98
G1 F4080 X166.35 Y170.58 E540.38400
G0 F6000 X166.35 Y171.29
G1 F4080 X158.66 Y178.98 E540.72326
G0 F6000 X159.37 Y178.98
G1 F4080 X166.35 Y172.00 E541.03133
G0 F6000 X166.35 Y172.70
G1 F4080 X160.07 Y178.98 E541.30821
G0 F6000 X160.78 Y178.98
G1 F4080 X166.35 Y173.41 E541.55392
G0 F6000 X166.35 Y174.12
G1 F4080 X161.49 Y178.98 E541.76845
G0 F6000 X162.19 Y178.98
G1 F4080 X166.35 Y174.82 E541.95181
G0 F6000 X166.35 Y175.53
G1 F4080 X162.90 Y178.98 E542.10399
G0 F6000 X163.61 Y178.98
G1 F4080 X166.35 Y176.24 E542.22497
G0 F6000 X166.35 Y176.95
G1 F4080 X164.32 Y178.98 E542.31477
G0 F6000 X165.02 Y178.98
G1 F4080 X166.35 Y177.65 E542.37340
G0 F6000 X166.35 Y178.36
G1 F4080 X165.73 Y178.98 E542.40085
G0 F6000 X138.65 Y153.03
G1 F4080 X165.66 Y126.02 E543.59236
G0 F6000 X164.96 Y126.02
G1 F4080 X138.65 Y152.33 E544.75268
G0 F6000 X138.65 Y151.62
G1 F4080 X164.25 Y126.02 E545.88183
G0 F6000 X163.54 Y126.02
G1 F4080 X138.65 Y150.91 E546.97981
G0 F6000 X138.65 Y150.21
G1 F4080 X162.84 Y126.02 E548.04661
G0 F6000 X162.13 Y126.02
G1 F4080 X138.65 Y149.50 E549.08223
G0 F6000 X138.65 Y148.79
G1 F4080 X161.42 Y126.02 E550.08665
G0 F6000 X160.72 Y126.02
G1 F4080 X138.65 Y148.09 E551.05990
G0 F6000 X138.65 Y147.38
G1 F4080 X160.01 Y126.02 E552.00196
G0 F6000 X159.30 Y126.02
G1 F4080 X138.65 Y146.67 E552.91283
G0 F6000 X138.65 Y145.96
G1 F4080 X158.59 Y126.02 E553.79253
G0 F6000 X157.89 Y126.02
G1 F4080 X138.65 Y145.26 E554.64105
G0 F6000 X138.65 Y144.55
G1 F4080 X157.18 Y126.02 E555.45839
G0 F6000 X156.47 Y126.02
G1 F4080 X138.65 Y143.84 E556.24455
G0 F6000 X138.65 Y143.14
G1 F4080 X155.77 Y126.02 E556.99954
G0 F6000 X155.06 Y126.02
G1 F4080 X138.65 Y142.43 E557.72332
G0 F6000 X138.65 Y141.72
G1 F4080 X154.35 Y126.02 E558.41594
G0 F6000 X153.65 Y126.02
G1 F4080 X138.65 Y141.01 E559.07737
G0 F6000 X138.65 Y140.31
G1 F4080 X152.94 Y126.02 E559.70763
G0 F6000 X152.23 Y126.02
G1 F4080 X138.65 Y139.60 E560.30669
G0 F6000 X138.65 Y138.89
G1 F4080 X151.52 Y126.02 E560.87457
G0 F6000 X150.82 Y126.02
G1 F4080 X138.65 Y138.19 E561.41128
G0 F6000 X138.65 Y137.48
G1 F4080 X150.11 Y126.02 E561.91681
G0 F6000 X149.40 Y126.02
G1 F4080 X138.65 Y136.77 E562.39116
G0 F6000 X138.65 Y136.06
G1 F4080 X148.69 Y126.02 E562.83434
G0 F6000 X147.99 Y126.02
G1 F4080 X138.65 Y135.36 E563.24631
G0 F6000 X138.65 Y134.65
G1 F4080 X147.28 Y126.02 E563.62711
G0 F6000 X146.57 Y126.02
G1 F4080 X138.65 Y133.94 E563.97674
G0 F6000 X138.65 Y133.24
G1 F4080 X145.87 Y126.02 E564.29516
G0 F6000 X145.16 Y126.02
G1 F4080 X138.65 Y132.53 E564.58241
G0 F6000 X138.65 Y131.82
G1 F4080 X144.45 Y126.02 E564.83848
G0 F6000 X143.75 Y126.02
G1 F4080 X138.65 Y131.12 E565.06338
G0 F6000 X138.65 Y130.41
G1 F4080 X143.04 Y126.02 E565.25710
G0 F6000 X142.33 Y126.02
G1 F4080 X138.65 Y129.70 E565.41964
G0 F6000 X138.65 Y128.99
G1 F4080 X141.62 Y126.02 E565.55098
G0 F6000 X140.92 Y126.02
G1 F4080 X138.65 Y128.29 E565.65115
G0 F6000 X138.65 Y127.58
G1 F4080 X140.21 Y126.02 E565.72014
G0 F6000 X139.50 Y126.02
G1 F4080 X138.65 Y126.87 E565.75793
G0 F6000 X138.65 Y126.17
G1 F4080 X138.79 Y126.02 E565.76455
;LAYER:2
G0 F6000 X138.47 Y125.84 Z0.60
;TYPE:WALL-INNER
G1 F5520 X166.53 Y125.84 E566.63943
G1 X166.53 Y179.16 E568.30196
G1 X138.47 Y179.16 E569.17685
G1 X138.47 Y125.84 E570.83938
G0 F6000 X137.97 Y125.34
;TYPE:WALL-OUTER
G1 F5520 X167.03 Y125.34 E571.74545
G1 X167.03 Y179.66 E573.43916
G1 X137.97 Y179.66 E574.34522
G1 X137.97 Y125.34 E576.03893
G0 F6000 X138.65 Y126.27
;TYPE:FILL
G1 F5520 X166.35 Y153.98 E577.26080
G0 F6000 X166.35 Y154.69
G1 F5520 X138.65 Y126.98 E578.48266
G0 F6000 X138.65 Y127.69
G1 F5520 X166.35 Y155.39 E579.70451
G0 F6000 X166.35 Y156.10
G1 F5520 X138.65 Y128.39 E580.92635
G0 F6000 X138.65 Y129.10
G1 F5520 X166.35 Y156.81 E582.14819
G0 F6000 X166.35 Y157.51
G1 F5520 X138.65 Y129.81 E583.37006
G0 F6000 X138.65 Y130.51
G1 F5520 X166.35 Y158.22 E584.59192
G0 F6000 X166.35 Y158.93
G1 F5520 X138.65 Y131.22 E585.81379
G0 F6000 X138.65 Y131.93
G1 F5520 X166.35 Y159.64 E587.03565
G0 F6000 X166.35 Y160.34
G1 F5520 X138.65 Y132.63 E588.25752
G0 F6000 X138.65 Y133.34
G1 F5520 X166.35 Y161.05 E589.47938
G0 F6000 X166.35 Y161.76
G1 F5520 X138.65 Y134.05 E590.70123
G0 F6000 X138.65 Y134.76
G1 F5520 X166.35 Y162.46 E591.92307
G0 F6000 X166.35 Y163.17
G1 F5520 X138.65 Y135.46 E593.14491
G0 F6000 X138.65 Y136.17
G1 F5520 X166.35 Y163.88 E594.36678
G0 F6000 X166.35 Y164.59
G1 F5520 X138.65 Y136.88 E595.58864
G0 F6000 X138.65 Y137.58
G1 F5520 X166.35 Y165.29 E596.81051
G0 F6000 X166.35 Y166.00
G1 F5520 X138.65 Y138.29 E598.03238
G0 F6000 X138.65 Y139.00
G1 F5520 X166.35 Y166.71 E599.25424
G0 F6000 X166.35 Y167.41
G1 F5520 X138.65 Y139.71 E600.47611
G0 F6000 X138.65 Y140.41
G1 F5520 X166.35 Y168.12 E601.69795
G0 F6000 X166.35 Y168.83
G1 F5520 X138.65 Y141.12 E602.91979
G0 F6000 X138.65 Y141.83
G1 F5520 X166.35 Y169.53 E604.14163
G0 F6000 X166.35 Y170.24
G1 F5520 X138.65 Y142.53 E605.36350
G0 F6000 X138.65 Y143.24
G1 F5520 X166.35 Y170.95 E606.58537
G0 F6000 X166.35 Y171.66
G1 F5520 X138.65 Y143.95 E607.80723
G0 F6000 X138.65 Y144.66
G1 F5520 X166.35 Y172.36 E609.02910
G0 F6000 X166.35 Y173.07
G1 F5520 X138.65 Y145.36 E610.25096
G0 F6000 X138.65 Y146.07
G1 F5520 X166.35 Y173.78 E611.47283
G0 F6000 X166.35 Y174.49
G1 F5520 X138.65 Y146.78 E612.69469
G0 F6000 X138.65 Y147.48
G1 F5520 X166.35 Y175.19 E613.91653
G0 F6000 X166.35 Y175.90
G1 F5520 X138.65 Y148.19 E615.13838
G0 F6000 X138.65 Y148.90
G1 F5520 X166.35 Y176.61 E616.36022
G0 F6000 X166.35 Y177.31
G1 F5520 X138.65 Y149.60 E617.58209
G0 F6000 X138.65 Y150.31
G1 F5520 X166.35 Y178.02 E618.80395
G0 F6000 X166.35 Y178.73
G1 F5520 X138.65 Y151.02 E620.02582
G0 F6000 X138.65 Y151.73
G1 F5520 X165.90 Y178.98 E621.22773
G0 F6000 X165.19 Y178.98
G1 F5520 X138.65 Y152.43 E622.39846
G0 F6000 X138.65 Y153.14
G1 F5520 X164.49 Y178.98 E623.53802
G0 F6000 X163.78 Y178.98
G1 F5520 X138.65 Y153.85 E624.64638
G0 F6000 X138.65 Y154.56
G1 F5520 X163.07 Y178.98 E625.72354
G0 F6000 X162.37 Y178.98
G1 F5520 X138.65 Y155.26 E626.76952
G0 F6000 X138.65 Y155.97
G1 F5520 X161.66 Y178.98 E627.78433
G0 F6000 X160.95 Y178.98
G1 F5520 X138.65 Y156.68 E628.76796
G0 F6000 X138.65 Y157.38
G1 F5520 X160.24 Y178.98 E629.72042
G0 F6000 X159.54 Y178.98
G1 F5520 X138.65 Y158.09 E630.64169
G0 F6000 X138.65 Y158.80
G1 F5520 X158.83 Y178.98 E631.53179
G0 F6000 X158.12 Y178.98
G1 F5520 X138.65 Y159.50 E632.39072
G0 F6000 X138.65 Y160.21
G1 F5520 X157.42 Y178.98 E633.21844
G0 F6000 X156.71 Y178.98
G1 F5520 X138.65 Y160.92 E634.01499
G0 F6000 X138.65 Y161.63
G1 F5520 X156.00 Y178.98 E634.78034
G0 F6000 X155.29 Y178.98
G1 F5520 X138.65 Y162.33 E635.51451
G0 F6000 X138.65 Y163.04
G1 F5520 X154.59 Y178.98 E636.21751
G0 F6000 X153.88 Y178.98
G1 F5520 X138.65 Y163.75 E636.88933
G0 F6000 X138.65 Y164.45
G1 F5520 X153.17 Y178.98 E637.52997
G0 F6000 X152.47 Y178.98
G1 F5520 X138.65 Y165.16 E638.13944
G0 F6000 X138.65 Y165.87
G1 F5520 X151.76 Y178.98 E638.71773
G0 F6000 X151.05 Y178.98
G1 F5520 X138.65 Y166.57 E639.26484
G0 F6000 X138.65 Y167.28
G1 F5520 X150.34 Y178.98 E639.78076
G0 F6000 X149.64 Y178.98
G1 F5520 X138.65 Y167.99 E640.26547
G0 F6000 X138.65 Y168.70
G1 F5520 X148.93 Y178.98 E640.71901
G0 F6000 X148.22 Y178.98
G1 F5520 X138.65 Y169.40 E641.14137
G0 F6000 X138.65 Y170.11
G1 F5520 X147.52 Y178.98 E641.53256
G0 F6000 X146.81 Y178.98
G1 F5520 X138.65 Y170.82 E641.89257
G0 F6000 X138.65 Y171.53
G1 F5520 X146.10 Y178.98 E642.22140
G0 F6000 X145.40 Y178.98
G1 F5520 X138.65 Y172.23 E642.51905
G0 F6000 X138.65 Y172.94
G1 F5520 X144.69 Y178.98 E642.78553
G0 F6000 X143.98 Y178.98
G1 F5520 X138.65 Y173.65 E643.02081
G0 F6000 X138.65 Y174.35
G1 F5520 X143.27 Y178.98 E643.22490
G0 F6000 X142.57 Y178.98
G1 F5520 X138.65 Y175.06 E643.39780
G0 F6000 X138.65 Y175.77
G1 F5520 X141.86 Y178.98 E643.53953
G0 F6000 X141.15 Y178.98
G1 F5520 X138.65 Y176.47 E643.65008
G0 F6000 X138.65 Y177.18
G1 F5520 X140.44 Y178.98 E643.72945
G0 F6000 X139.74 Y178.98
G1 F5520 X138.65 Y177.89 E643.77765
G0 F6000 X138.65 Y178.60
G1 F5520 X139.03 Y178.98 E643.79467
G0 F6000 X166.35 Y153.27
G1 F5520 X139.10 Y126.02 E644.99659
G0 F6000 X139.80 Y126.02
G1 F5520 X166.35 Y152.56 E646.16732
G0 F6000 X166.35 Y151.86
G1 F5520 X140.51 Y126.02 E647.30686
G0 F6000 X141.22 Y126.02
G1 F5520 X166.35 Y151.15 E648.41522
G0 F6000 X166.35 Y150.44
G1 F5520 X141.93 Y126.02 E649.49240
G0 F6000 X142.63 Y126.02
G1 F5520 X166.35 Y149.74 E650.53838
G0 F6000 X166.35 Y149.03
G1 F5520 X143.34 Y126.02 E651.55319
G0 F6000 X144.05 Y126.02
G1 F5520 X166.35 Y148.32 E652.53682
G0 F6000 X166.35 Y147.62
G1 F5520 X144.75 Y126.02 E653.48927
G0 F6000 X145.46 Y126.02
G1 F5520 X166.35 Y146.91 E654.41055
G0 F6000 X166.35 Y146.20
G1 F5520 X146.17 Y126.02 E655.30065
G0 F6000 X146.88 Y126.02
G1 F5520 X166.35 Y145.49 E656.15957
G0 F6000 X166.35 Y144.79
G1 F5520 X147.58 Y126.02 E656.98730
G0 F6000 X148.29 Y126.02
G1 F5520 X166.35 Y144.08 E657.78385
G0 F6000 X166.35 Y143.37
G1 F5520 X149.00 Y126.02 E658.54920
G0 F6000 X149.70 Y126.02
G1 F5520 X166.35 Y142.66 E659.28337
G0 F6000 X166.35 Y141.96
G1 F5520 X150.41 Y126.02 E659.98637
G0 F6000 X151.12 Y126.02
G1 F5520 X166.35 Y141.25 E660.65819
G0 F6000 X166.35 Y140.54
G1 F5520 X151.82 Y126.02 E661.29883
G0 F6000 X152.53 Y126.02
G1 F5520 X166.35 Y139.84 E661.90830
G0 F6000 X166.35 Y139.13
G1 F5520 X153.24 Y126.02 E662.48659
G0 F6000 X153.95 Y126.02
G1 F5520 X166.35 Y138.42 E663.03368
G0 F6000 X166.35 Y137.72
G1 F5520 X154.65 Y126.02 E663.54959
G0 F6000 X155.36 Y126.02
G1 F5520 X166.35 Y137.01 E664.03433
G0 F6000 X166.35 Y136.30
G1 F5520 X156.07 Y126.02 E664.48787
G0 F6000 X156.78 Y126.02
G1 F5520 X166.35 Y135.59 E664.91023
G0 F6000 X166.35 Y134.89
G1 F5520 X157.48 Y126.02 E665.30142
G0 F6000 X158.19 Y126.02
G1 F5520 X166.35 Y134.18 E665.66142
G0 F6000 X166.35 Y133.47
G1 F5520 X158.90 Y126.02 E665.99026
G0 F6000 X159.60 Y126.02
G1 F5520 X166.35 Y132.77 E666.28791
G0 F6000 X166.35 Y132.06
G1 F5520 X160.31 Y126.02 E666.55437
G0 F6000 X161.02 Y126.02
G1 F5520 X166.35 Y131.35 E666.78965
G0 F6000 X166.35 Y130.65
G1 F5520 X161.72 Y126.02 E666.99375
G0 F6000 X162.43 Y126.02
G1 F5520 X166.35 Y129.94 E667.16666
G0 F6000 X166.35 Y129.23
G1 F5520 X163.14 Y126.02 E667.30839
G0 F6000 X163.85 Y126.02
G1 F5520 X166.35 Y128.52 E667.41894
G0 F6000 X166.35 Y127.82
G1 F5520 X164.55 Y126.02 E667.49831
G0 F6000 X165.26 Y126.02
G1 F5520 X166.35 Y127.11 E667.54651
G0 F6000 X166.35 Y126.40
G1 F5520 X165.97 Y126.02 E667.56353
;LAYER:3
G0 F6000 X166.53 Y125.84 Z0.75
;TYPE:WALL-INNER
G1 F6960 X166.53 Y179.16 E669.22606
G1 X138.47 Y179.16 E670.10095
G1 X138.47 Y125.84 E671.76348
G1 X166.53 Y125.84 E672.63836
G0 F6000 X167.03 Y125.34
;TYPE:WALL-OUTER
G1 F6960 X167.03 Y179.66 E674.33207
G1 X137.97 Y179.66 E675.23814
G1 X137.97 Y125.34 E676.93185
G1 X167.03 Y125.34 E677.83792
G0 F6000 X166.35 Y126.03
;TYPE:FILL
G1 F6960 X138.65 Y153.74 E679.05974
G0 F6000 X138.65 Y154.45
G1 F6960 X166.35 Y126.74 E680.28156
G0 F6000 X166.35 Y127.45
G1 F6960 X138.65 Y155.16 E681.50338
G0 F6000 X138.65 Y155.86
G1 F6960 X166.35 Y128.16 E682.72523
G0 F6000 X166.35 Y128.86
G1 F6960 X138.65 Y156.57 E683.94707
G0 F6000 X138.65 Y157.28
G1 F6960 X166.35 Y129.57 E685.16891
G0 F6000 X166.35 Y130.28
G1 F6960 X138.65 Y157.99 E686.39073
G0 F6000 X138.65 Y158.69
G1 F6960 X166.35 Y130.99 E687.61256
G0 F6000 X166.35 Y131.69
G1 F6960 X138.65 Y159.40 E688.83438
G0 F6000 X138.65 Y160.11
G1 F6960 X166.35 Y132.40 E690.05620
G0 F6000 X166.35 Y133.11
G1 F6960 X138.65 Y160.81 E691.27802
G0 F6000 X138.65 Y161.52
G1 F6960 X166.35 Y133.81 E692.49984
G0 F6000 X166.35 Y134.52
G1 F6960 X138.65 Y162.23 E693.72166
G0 F6000 X138.65 Y162.94
G1 F6960 X166.35 Y135.23 E694.94350
G0 F6000 X166.35 Y135.93
G1 F6960 X138.65 Y163.64 E696.16535
G0 F6000 X138.65 Y164.35
G1 F6960 X166.35 Y136.64 E697.38717
G0 F6000 X166.35 Y137.35
G1 F6960 X138.65 Y165.06 E698.60899
G0 F6000 X138.65 Y165.76
G1 F6960 X166.35 Y138.06 E699.83081
G0 F6000 X166.35 Y138.76
G1 F6960 X138.65 Y166.47 E701.05263
G0 F6000 X138.65 Y167.18
G1 F6960 X166.35 Y139.47 E702.27445
G0 F6000 X166.35 Y140.18
G1 F6960 X138.65 Y167.88 E703.49627
G0 F6000 X138.65 Y168.59
G1 F6960 X166.35 Y140.88 E704.71810
G0 F6000 X166.35 Y141.59
G1 F6960 X138.65 Y169.30 E705.93994
G0 F6000 X138.65 Y170.01
G1 F6960 X166.35 Y142.30 E707.16178
G0 F6000 X166.35 Y143.00
G1 F6960 X138.65 Y170.71 E708.38362
G0 F6000 X138.65 Y171.42
G1 F6960 X166.35 Y143.71 E709.60545
G0 F6000 X166.35 Y144.42
G1 F6960 X138.65 Y172.13 E710.82727
G0 F6000 X138.65 Y172.83
G1 F6960 X166.35 Y145.13 E712.04909
G0 F6000 X166.35 Y145.83
G1 F6960 X138.65 Y173.54 E713.27091
G0 F6000 X138.65 Y174.25
G1 F6960 X166.35 Y146.54 E714.49273
G0 F6000 X166.35 Y147.25
G1 F6960 X138.65 Y174.96 E715.71455
G0 F6000 X138.65 Y175.66
G1 F6960 X166.35 Y147.96 E716.93639
G0 F6000 X166.35 Y148.66
G1 F6960 X138.65 Y176.37 E718.15824
G0 F6000 X138.65 Y177.08
G1 F6960 X166.35 Y149.37 E719.38008
G0 F6000 X166.35 Y150.08
G1 F6960 X138.65 Y177.78 E720.60190
G0 F6000 X138.65 Y178.49
G1 F6960 X166.35 Y150.78 E721.82372
G0 F6000 X166.35 Y151.49
G1 F6960 X138.86 Y178.98 E723.03606
G0 F6000 X139.57 Y178.98
G1 F6960 X166.35 Y152.20 E724.21720
G0 F6000 X166.35 Y152.91
G1 F6960 X140.28 Y178.98 E725.36717
G0 F6000 X140.98 Y178.98
G1 F6960 X166.35 Y153.61 E726.48596
G0 F6000 X166.35 Y154.32
G1 F6960 X141.69 Y178.98 E727.57357
G0 F6000 X142.40 Y178.98
G1 F6960 X166.35 Y155.03 E728.63000
G0 F6000 X166.35 Y155.73
G1 F6960 X143.10 Y178.98 E729.65526
G0 F6000 X143.81 Y178.98
G1 F6960 X166.35 Y156.44 E730.64932
G0 F6000 X166.35 Y157.15
G1 F6960 X144.52 Y178.98 E731.61220
G0 F6000 X145.22 Y178.98
G1 F6960 X166.35 Y157.85 E732.54391
G0 F6000 X166.35 Y158.56
G1 F6960 X145.93 Y178.98 E733.44444
G0 F6000 X146.64 Y178.98
G1 F6960 X166.35 Y159.27 E734.31377
G0 F6000 X166.35 Y159.98
G1 F6960 X147.35 Y178.98 E735.15192
G0 F6000 X148.05 Y178.98
G1 F6960 X166.35 Y160.68 E735.95890
G0 F6000 X166.35 Y161.39
G1 F6960 X148.76 Y178.98 E736.73470
G0 F6000 X149.47 Y178.98
G1 F6960 X166.35 Y162.10 E737.47933
G0 F6000 X166.35 Y162.80
G1 F6960 X150.17 Y178.98 E738.19277
G0 F6000 X150.88 Y178.98
G1 F6960 X166.35 Y163.51 E738.87502
G0 F6000 X166.35 Y164.22
G1 F6960 X151.59 Y178.98 E739.52610
G0 F6000 X152.29 Y178.98
G1 F6960 X166.35 Y164.93 E740.14599
G0 F6000 X166.35 Y165.63
G1 F6960 X153.00 Y178.98 E740.73469
G0 F6000 X153.71 Y178.98
G1 F6960 X166.35 Y166.34 E741.29221
G0 F6000 X166.35 Y167.05
G1 F6960 X154.42 Y178.98 E741.81855
G0 F6000 X155.12 Y178.98
G1 F6960 X166.35 Y167.75 E742.31372
G0 F6000 X166.35 Y168.46
G1 F6960 X155.83 Y178.98 E742.77771
G0 F6000 X156.54 Y178.98
G1 F6960 X166.35 Y169.17 E743.21052
G0 F6000 X166.35 Y169.88
G1 F6960 X157.25 Y178.98 E743.61213
G0 F6000 X157.95 Y178.98
G1 F6960 X166.35 Y170.58 E743.98257
G0 F6000 X166.35 Y171.29
G1 F6960 X158.66 Y178.98 E744.32183
G0 F6000 X159.37 Y178.98
G1 F6960 X166.35 Y172.00 E744.62990
G0 F6000 X166.35 Y172.70
G1 F6960 X160.07 Y178.98 E744.90678
G0 F6000 X160.78 Y178.98
G1 F6960 X166.35 Y173.41 E745.15249
G0 F6000 X166.35 Y174.12
G1 F6960 X161.49 Y178.98 E745.36702
G0 F6000 X162.19 Y178.98
G1 F6960 X166.35 Y174.82 E745.55038
G0 F6000 X166.35 Y175.53
G1 F6960 X162.90 Y178.98 E745.70256
G0 F6000 X163.61 Y178.98
G1 F6960 X166.35 Y176.24 E745.82354
G0 F6000 X166.35 Y176.95
G1 F6960 X164.32 Y178.98 E745.91334
G0 F6000 X165.02 Y178.98
G1 F6960 X166.35 Y177.65 E745.97197
G0 F6000 X166.35 Y178.36
G1 F6960 X165.73 Y178.98 E745.99942
G0 F6000 X138.65 Y153.03
G1 F6960 X165.66 Y126.02 E747.19093
G0 F6000 X164.96 Y126.02
G1 F6960 X138.65 Y152.33 E748.35125
G0 F6000 X138.65 Y151.62
G1 F6960 X164.25 Y126.02 E749.48040
G0 F6000 X163.54 Y126.02
G1 F6960 X138.65 Y150.91 E750.57838
G0 F6000 X138.65 Y150.21
G1 F6960 X162.84 Y126.02 E751.64518
G0 F6000 X162.13 Y126.02
G1 F6960 X138.65 Y149.50 E752.68080
G0 F6000 X138.65 Y148.79
G1 F6960 X161.42 Y126.02 E753.68522
G0 F6000 X160.72 Y126.02
G1 F6960 X138.65 Y148.09 E754.65846
G0 F6000 X138.65 Y147.38
G1 F6960 X160.01 Y126.02 E755.60053
G0 F6000 X159.30 Y126.02
G1 F6960 X138.65 Y146.67 E756.51140
G0 F6000 X138.65 Y145.96
G1 F6960 X158.59 Y126.02 E757.39110
G0 F6000 X157.89 Y126.02
G1 F6960 X138.65 Y145.26 E758.23961
G0 F6000 X138.65 Y144.55
G1 F6960 X157.18 Y126.02 E759.05695
G0 F6000 X156.47 Y126.02
G1 F6960 X138.65 Y143.84 E759.84312
G0 F6000 X138.65 Y143.14
G1 F6960 X155.77 Y126.02 E760.59811
G0 F6000 X155.06 Y126.02
G1 F6960 X138.65 Y142.43 E761.32189
G0 F6000 X138.65 Y141.72
G1 F6960 X154.35 Y126.02 E762.01450
G0 F6000 X153.65 Y126.02
G1 F6960 X138.65 Y141.01 E762.67594
G0 F6000 X138.65 Y140.31
G1 F6960 X152.94 Y126.02 E763.30620
G0 F6000 X152.23 Y126.02
G1 F6960 X138.65 Y139.60 E763.90526
G0 F6000 X138.65 Y138.89
G1 F6960 X151.52 Y126.02 E764.47314
G0 F6000 X150.82 Y126.02
G1 F6960 X138.65 Y138.19 E765.00985
G0 F6000 X138.65 Y137.48
G1 F6960 X150.11 Y126.02 E765.51538
G0 F6000 X149.40 Y126.02
G1 F6960 X138.65 Y136.77 E765.98973
G0 F6000 X138.65 Y136.06
G1 F6960 X148.69 Y126.02 E766.43290
G0 F6000 X147.99 Y126.02
G1 F6960 X138.65 Y135.36 E766.84488
G0 F6000 X138.65 Y134.65
G1 F6960 X147.28 Y126.02 E767.22568
G0 F6000 X146.57 Y126.02
G1 F6960 X138.65 Y133.94 E767.57531
G0 F6000 X138.65 Y133.24
G1 F6960 X145.87 Y126.02 E767.89373
G0 F6000 X145.16 Y126.02
G1 F6960 X138.65 Y132.53 E768.18098
G0 F6000 X138.65 Y131.82
G1 F6960 X144.45 Y126.02 E768.43705
G0 F6000 X143.75 Y126.02
G1 F6960 X138.65 Y131.12 E768.66195
G0 F6000 X138.65 Y130.41
G1 F6960 X143.04 Y126.02 E768.85567
G0 F6000 X142.33 Y126.02
G1 F6960 X138.65 Y129.70 E769.01821
G0 F6000 X138.65 Y128.99
G1 F6960 X141.62 Y126.02 E769.14955
G0 F6000 X140.92 Y126.02
G1 F6960 X138.65 Y128.29 E769.24972
G0 F6000 X138.65 Y127.58
G1 F6960 X140.21 Y126.02 E769.31871
G0 F6000 X139.50 Y126.02
G1 F6960 X138.65 Y126.87 E769.35650
G0 F6000 X138.65 Y126.17
G1 F6960 X138.79 Y126.02 E769.36311
;LAYER:4
G0 F6000 X138.47 Y125.84 Z0.90
;TYPE:WALL-INNER
G1 F8400 X166.53 Y125.84 E770.23800
G1 X166.53 Y179.16 E771.90053
G1 X138.47 Y179.16 E772.77542
G1 X138.47 Y125.84 E774.43795
G0 F6000 X137.97 Y125.34
;TYPE:WALL-OUTER
G1 F8400 X167.03 Y125.34 E775.34401
G1 X167.03 Y179.66 E777.03772
G1 X137.97 Y179.66 E777.94379
G1 X137.97 Y125.34 E779.63750
G0 F6000 X138.65 Y126.27
;TYPE:FILL
G1 F8400 X166.35 Y153.98 E780.85937
G0 F6000 X166.35 Y154.69
G1 F8400 X138.65 Y126.98 E782.08123
G0 F6000 X138.65 Y127.69
G1 F8400 X166.35 Y155.39 E783.30308
G0 F6000 X166.35 Y156.10
G1 F8400 X138.65 Y128.39 E784.52492
G0 F6000 X138.65 Y129.10
G1 F8400 X166.35 Y156.81 E785.74676
G0 F6000 X166.35 Y157.51
G1 F8400 X138.65 Y129.81 E786.96863
G0 F6000 X138.65 Y130.51
G1 F8400 X166.35 Y158.22 E788.19049
G0 F6000 X166.35 Y158.93
G1 F8400 X138.65 Y131.22 E789.41236
G0 F6000 X138.65 Y131.93
G1 F8400 X166.35 Y159.64 E790.63422
G0 F6000 X166.35 Y160.34
G1 F8400 X138.65 Y132.63 E791.85609
G0 F6000 X138.65 Y133.34
G1 F8400 X166.35 Y161.05 E793.07795
G0 F6000 X166.35 Y161.76
G1 F8400 X138.65 Y134.05 E794.29980
G0 F6000 X138.65 Y134.76
G1 F8400 X166.35 Y162.46 E795.52164
G0 F6000 X166.35 Y163.17
G1 F8400 X138.65 Y135.46 E796.74348
G0 F6000 X138.65 Y136.17
G1 F8400 X166.35 Y163.88 E797.96535
G0 F6000 X166.35 Y164.59
G1 F8400 X138.65 Y136.88 E799.18721
G0 F6000 X138.65 Y137.58
G1 F8400 X166.35 Y165.29 E800.40908
G0 F6000 X166.35 Y166.00
G1 F8400 X138.65 Y138.29 E801.63094
G0 F6000 X138.65 Y139.00
G1 F8400 X166.35 Y166.71 E802.85281
G0 F6000 X166.35 Y167.41
G1 F8400 X138.65 Y139.71 E804.07467
G0 F6000 X138.65 Y140.41
G1 F8400 X166.35 Y168.12 E805.29652
G0 F6000 X166.35 Y168.83
G1 F8400 X138.65 Y141.12 E806.51836
G0 F6000 X138.65 Y141.83
G1 F8400 X166.35 Y169.53 E807.74020
G0 F6000 X166.35 Y170.24
G1 F8400 X138.65 Y142.53 E808.96207
G0 F6000 X138.65 Y143.24
G1 F8400 X166.35 Y170.95 E810.18393
G0 F6000 X166.35 Y171.66
G1 F8400 X138.65 Y143.95 E811.40580
G0 F6000 X138.65 Y144.66
G1 F8400 X166.35 Y172.36 E812.62766
G0 F6000 X166.35 Y173.07
G1 F8400 X138.65 Y145.36 E813.84953
G0 F6000 X138.65 Y146.07
G1 F8400 X166.35 Y173.78 E815.07140
G0 F6000 X166.35 Y174.49
G1 F8400 X138.65 Y146.78 E816.29326
G0 F6000 X138.65 Y147.48
G1 F8400 X166.35 Y175.19 E817.51510
G0 F6000 X166.35 Y175.90
G1 F8400 X138.65 Y148.19 E818.73695
G0 F6000 X138.65 Y148.90
G1 F8400 X166.35 Y176.61 E819.95879
G0 F6000 X166.35 Y177.31
G1 F8400 X138.65 Y149.60 E821.18066
G0 F6000 X138.65 Y150.31
G1 F8400 X166.35 Y178.02 E822.40252
G0 F6000 X166.35 Y178.73
G1 F8400 X138.65 Y151.02 E823.62439
G0 F6000 X138.65 Y151.73
G1 F8400 X165.90 Y178.98 E824.82630
G0 F6000 X165.19 Y178.98
G1 F8400 X138.65 Y152.43 E825.99703
G0 F6000 X138.65 Y153.14
G1 F8400 X164.49 Y178.98 E827.13659
G0 F6000 X163.78 Y178.98
G1 F8400 X138.65 Y153.85 E828.24495
G0 F6000 X138.65 Y154.56
G1 F8400 X163.07 Y178.98 E829.32211
G0 F6000 X162.37 Y178.98
G1 F8400 X138.65 Y155.26 E830.36809
G0 F6000 X138.65 Y155.97
G1 F8400 X161.66 Y178.98 E831.38290
G0 F6000 X160.95 Y178.98
G1 F8400 X138.65 Y156.68 E832.36653
G0 F6000 X138.65 Y157.38
G1 F8400 X160.24 Y178.98 E833.31898
G0 F6000 X159.54 Y178.98
G1 F8400 X138.65 Y158.09 E834.24026
G0 F6000 X138.65 Y158.80
G1 F8400 X158.83 Y178.98 E835.13036
G0 F6000 X158.12 Y178.98
G1 F8400 X138.65 Y159.50 E835.98929
G0 F6000 X138.65 Y160.21
G1 F8400 X157.42 Y178.98 E836.81701
G0 F6000 X156.71 Y178.98
G1 F8400 X138.65 Y160.92 E837.61356
G0 F6000 X138.65 Y161.63
G1 F8400 X156.00 Y178.98 E838.37891
G0 F6000 X155.29 Y178.98
G1 F8400 X138.65 Y162.33 E839.11308
G0 F6000 X138.65 Y163.04
G1 F8400 X154.59 Y178.98 E839.81608
G0 F6000 X153.88 Y178.98
G1 F8400 X138.65 Y163.75 E840.48790
G0 F6000 X138.65 Y164.45
G1 F8400 X153.17 Y178.98 E841.12854
G0 F6000 X152.47 Y178.98
G1 F8400 X138.65 Y165.16 E841.73801
G0 F6000 X138.65 Y165.87
G1 F8400 X151.76 Y178.98 E842.31630
G0 F6000 X151.05 Y178.98
G1 F8400 X138.65 Y166.57 E842.86341
G0 F6000 X138.65 Y167.28
G1 F8400 X150.34 Y178.98 E843.37932
G0 F6000 X149.64 Y178.98
G1 F8400 X138.65 Y167.99 E843.86404
G0 F6000 X138.65 Y168.70
G1 F8400 X148.93 Y178.98 E844.31758
G0 F6000 X148.22 Y178.98
G1 F8400 X138.65 Y169.40 E844.73994
G0 F6000 X138.65 Y170.11
G1 F8400 X147.52 Y178.98 E845.13113
G0 F6000 X146.81 Y178.98
G1 F8400 X138.65 Y170.82 E845.49114
G0 F6000 X138.65 Y171.53
G1 F8400 X146.10 Y178.98 E845.81997
G0 F6000 X145.40 Y178.98
G1 F8400 X138.65 Y172.23 E846.11762
G0 F6000 X138.65 Y172.94
G1 F8400 X144.69 Y178.98 E846.38410
G0 F6000 X143.98 Y178.98
G1 F8400 X138.65 Y173.65 E846.61938
G0 F6000 X138.65 Y174.35
G1 F8400 X143.27 Y178.98 E846.82346
G0 F6000 X142.57 Y178.98
G1 F8400 X138.65 Y175.06 E846.99637
G0 F6000 X138.65 Y175.77
G1 F8400 X141.86 Y178.98 E847.13810
G0 F6000 X141.15 Y178.98
G1 F8400 X138.65 Y176.47 E847.24865
G0 F6000 X138.65 Y177.18
G1 F8400 X140.44 Y178.98 E847.32802
G0 F6000 X139.74 Y178.98
G1 F8400 X138.65 Y177.89 E847.37622
G0 F6000 X138.65 Y178.60
G1 F8400 X139.03 Y178.98 E847.39324
G0 F6000 X166.35 Y153.27
G1 F8400 X139.10 Y126.02 E848.59515
G0 F6000 X139.80 Y126.02
G1 F8400 X166.35 Y152.56 E849.76589
G0 F6000 X166.35 Y151.86
G1 F8400 X140.51 Y126.02 E850.90543
G0 F6000 X141.22 Y126.02
G1 F8400 X166.35 Y151.15 E852.01378
G0 F6000 X166.35 Y150.44
G1 F8400 X141.93 Y126.02 E853.09097
G0 F6000 X142.63 Y126.02
G1 F8400 X166.35 Y149.74 E854.13695
G0 F6000 X166.35 Y149.03
G1 F8400 X143.34 Y126.02 E855.15176
G0 F6000 X144.05 Y126.02
G1 F8400 X166.35 Y148.32 E856.13539
G0 F6000 X166.35 Y147.62
G1 F8400 X144.75 Y126.02 E857.08784
G0 F6000 X145.46 Y126.02
G1 F8400 X166.35 Y146.91 E858.00912
G0 F6000 X166.35 Y146.20
G1 F8400 X146.17 Y126.02 E858.89922
G0 F6000 X146.88 Y126.02
G1 F8400 X166.35 Y145.49 E859.75814
G0 F6000 X166.35 Y144.79
G1 F8400 X147.58 Y126.02 E860.58587
G0 F6000 X148.29 Y126.02
G1 F8400 X166.35 Y144.08 E861.38242
G0 F6000 X166.35 Y143.37
G1 F8400 X149.00 Y126.02 E862.14777
G0 F6000 X149.70 Y126.02
G1 F8400 X166.35 Y142.66 E862.88194
G0 F6000 X166.35 Y141.96
G1 F8400 X150.41 Y126.02 E863.58494
G0 F6000 X151.12 Y126.02
G1 F8400 X166.35 Y141.25 E864.25676
G0 F6000 X166.35 Y140.54
G1 F8400 X151.82 Y126.02 E864.89740
G0 F6000 X152.53 Y126.02
G1 F8400 X166.35 Y139.84 E865.50687
G0 F6000 X166.35 Y139.13
G1 F8400 X153.24 Y126.02 E866.08516
G0 F6000 X153.95 Y126.02
G1 F8400 X166.35 Y138.42 E866.63225
G0 F6000 X166.35 Y137.72
G1 F8400 X154.65 Y126.02 E867.14816
G0 F6000 X155.36 Y126.02
G1 F8400 X166.35 Y137.01 E867.63290
G0 F6000 X166.35 Y136.30
G1 F8400 X156.07 Y126.02 E868.08644
G0 F6000 X156.78 Y126.02
G1 F8400 X166.35 Y135.59 E868.50880
G0 F6000 X166.35 Y134.89
G1 F8400 X157.48 Y126.02 E868.89999
G0 F6000 X158.19 Y126.02
G1 F8400 X166.35 Y134.18 E869.25999
G0 F6000 X166.35 Y133.47
G1 F8400 X158.90 Y126.02 E869.58883
G0 F6000 X159.60 Y126.02
G1 F8400 X166.35 Y132.77 E869.88648
G0 F6000 X166.35 Y132.06
G1 F8400 X160.31 Y126.02 E870.15294
G0 F6000 X161.02 Y126.02
G1 F8400 X166.35 Y131.35 E870.38822
G0 F6000 X166.35 Y130.65
G1 F8400 X161.72 Y126.02 E870.59232
G0 F6000 X162.43 Y126.02
G1 F8400 X166.35 Y129.94 E870.76523
G0 F6000 X166.35 Y129.23
G1 F8400 X163.14 Y126.02 E870.90696
G0 F6000 X163.85 Y126.02
G1 F8400 X166.35 Y128.52 E871.01751
G0 F6000 X166.35 Y127.82
G1 F8400 X164.55 Y126.02 E871.09688
G0 F6000 X165.26 Y126.02
G1 F8400 X166.35 Y127.11 E871.14508
G0 F6000 X166.35 Y126.40
G1 F8400 X165.97 Y126.02 E871.16210
;LAYER:5
G0 F6000 X166.53 Y125.84 Z1.05
;TYPE:WALL-INNER
G1 F8400 X166.53 Y179.16 E872.82463
G1 X138.47 Y179.16 E873.69952
G1 X138.47 Y125.84 E875.36205
G1 X166.53 Y125.84 E876.23693
G0 F6000 X167.03 Y125.34
;TYPE:WALL-OUTER
G1 F8400 X167.03 Y179.66 E877.93064
G1 X137.97 Y179.66 E878.83671
G1 X137.97 Y125.34 E880.53042
G1 X167.03 Y125.34 E881.43649
G0 F6000 X166.35 Y126.03
;TYPE:FILL
G1 F8400 X138.65 Y153.74 E882.65831
G0 F6000 X138.65 Y154.45
G1 F8400 X166.35 Y126.74 E883.88013
G0 F6000 X166.35 Y127.45
G1 F8400 X138.65 Y155.16 E885.10195
G0 F6000 X138.65 Y155.86
G1 F8400 X166.35 Y128.16 E886.32380
G0 F6000 X166.35 Y128.86
G1 F8400 X138.65 Y156.57 E887.54564
G0 F6000 X138.65 Y157.28
G1 F8400 X166.35 Y129.57 E888.76748
G0 F6000 X166.35 Y130.28
G1 F8400 X138.65 Y157.99 E889.98930
G0 F6000 X138.65 Y158.69
G1 F8400 X166.35 Y130.99 E891.21112
G0 F6000 X166.35 Y131.69
G1 F8400 X138.65 Y159.40 E892.43295
G0 F6000 X138.65 Y160.11
G1 F8400 X166.35 Y132.40 E893.65477
G0 F6000 X166.35 Y133.11
G1 F8400 X138.65 Y160.81 E894.87659
G0 F6000 X138.65 Y161.52
G1 F8400 X166.35 Y133.81 E896.09841
G0 F6000 X166.35 Y134.52
G1 F8400 X138.65 Y162.23 E897.32023
G0 F6000 X138.65 Y162.94
G1 F8400 X166.35 Y135.23 E898.54207
G0 F6000 X166.35 Y135.93
G1 F8400 X138.65 Y163.64 E899.76392
G0 F6000 X138.65 Y164.35
G1 F8400 X166.35 Y136.64 E900.98574
G0 F6000 X166.35 Y137.35
G1 F8400 X138.65 Y165.06 E902.20756
G0 F6000 X138.65 Y165.76
G1 F8400 X166.35 Y138.06 E903.42938
G0 F6000 X166.35 Y138.76
G1 F8400 X138.65 Y166.47 E904.65120
G0 F6000 X138.65 Y167.18
G1 F8400 X166.35 Y139.47 E905.87302
G0 F6000 X166.35 Y140.18
G1 F8400 X138.65 Y167.88 E907.09484
G0 F6000 X138.65 Y168.59
G1 F8400 X166.35 Y140.88 E908.31666
G0 F6000 X166.35 Y141.59
G1 F8400 X138.65 Y169.30 E909.53851
G0 F6000 X138.65 Y170.01
G1 F8400 X166.35 Y142.30 E910.76035
G0 F6000 X166.35 Y143.00
G1 F8400 X138.65 Y170.71 E911.98219
G0 F6000 X138.65 Y171.42
G1 F8400 X166.35 Y143.71 E913.20402
G0 F6000 X166.35 Y144.42
G1 F8400 X138.65 Y172.13 E914.42584
G0 F6000 X138.65 Y172.83
G1 F8400 X166.35 Y145.13 E915.64766
G0 F6000 X166.35 Y145.83
G1 F8400 X138.65 Y173.54 E916.86948
G0 F6000 X138.65 Y174.25
G1 F8400 X166.35 Y146.54 E918.09130
G0 F6000 X166.35 Y147.25
G1 F8400 X138.65 Y174.96 E919.31312
G0 F6000 X138.65 Y175.66
G1 F8400 X166.35 Y147.96 E920.53496
G0 F6000 X166.35 Y148.66
G1 F8400 X138.65 Y176.37 E921.75681
G0 F6000 X138.65 Y177.08
G1 F8400 X166.35 Y149.37 E922.97865
G0 F6000 X166.35 Y150.08
G1 F8400 X138.65 Y177.78 E924.20047
G0 F6000 X138.65 Y178.49
G1 F8400 X166.35 Y150.78 E925.42229
G0 F6000 X166.35 Y151.49
G1 F8400 X138.86 Y178.98 E926.63463
G0 F6000 X139.57 Y178.98
G1 F8400 X166.35 Y152.20 E927.81577
G0 F6000 X166.35 Y152.91
G1 F8400 X140.28 Y178.98 E928.96574
G0 F6000 X140.98 Y178.98
G1 F8400 X166.35 Y153.61 E930.08453
G0 F6000 X166.35 Y154.32
G1 F8400 X141.69 Y178.98 E931.17214
G0 F6000 X142.40 Y178.98
G1 F8400 X166.35 Y155.03 E932.22857
G0 F6000 X166.35 Y155.73
G1 F8400 X143.10 Y178.98 E933.25383
G0 F6000 X143.81 Y178.98
G1 F8400 X166.35 Y156.44 E934.24789
G0 F6000 X166.35 Y157.15
G1 F8400 X144.52 Y178.98 E935.21077
G0 F6000 X145.22 Y178.98
G1 F8400 X166.35 Y157.85 E936.14248
G0 F6000 X166.35 Y158.56
G1 F8400 X145.93 Y178.98 E937.04301
G0 F6000 X146.64 Y178.98
G1 F8400 X166.35 Y159.27 E937.91234
G0 F6000 X166.35 Y159.98
G1 F8400 X147.35 Y178.98 E938.75049
G0 F6000 X148.05 Y178.98
G1 F8400 X166.35 Y160.68 E939.55747
G0 F6000 X166.35 Y161.39
G1 F8400 X148.76 Y178.98 E940.33327
G0 F6000 X149.47 Y178.98
G1 F8400 X166.35 Y162.10 E941.07790
G0 F6000 X166.35 Y162.80
G1 F8400 X150.17 Y178.98 E941.79134
G0 F6000 X150.88 Y178.98
G1 F8400 X166.35 Y163.51 E942.47359
G0 F6000 X166.35 Y164.22
G1 F8400 X151.59 Y178.98 E943.12466
G0 F6000 X152.29 Y178.98
G1 F8400 X166.35 Y164.93 E943.74456
G0 F6000 X166.35 Y165.63
G1 F8400 X153.00 Y178.98 E944.33326
G0 F6000 X153.71 Y178.98
G1 F8400 X166.35 Y166.34 E944.89078
G0 F6000 X166.35 Y167.05
G1 F8400 X154.42 Y178.98 E945.41712
G0 F6000 X155.12 Y178.98
G1 F8400 X166.35 Y167.75 E945.91229
G0 F6000 X166.35 Y168.46
G1 F8400 X155.83 Y178.98 E946.37628
G0 F6000 X156.54 Y178.98
G1 F8400 X166.35 Y169.17 E946.80909
G0 F6000 X166.35 Y169.88
G1 F8400 X157.25 Y178.98 E947.21070
G0 F6000 X157.95 Y178.98
G1 F8400 X166.35 Y170.58 E947.58114
G0 F6000 X166.35 Y171.29
G1 F8400 X158.66 Y178.98 E947.92040
G0 F6000 X159.37 Y178.98
G1 F8400 X166.35 Y172.00 E948.22847
G0 F6000 X166.35 Y172.70
G1 F8400 X160.07 Y178.98 E948.50535
G0 F6000 X160.78 Y178.98
G1 F8400 X166.35 Y173.41 E948.75106
G0 F6000 X166.35 Y174.12
G1 F8400 X161.49 Y178.98 E948.96559
G0 F6000 X162.19 Y178.98
G1 F8400 X166.35 Y174.82 E949.14895
G0 F6000 X166.35 Y175.53
G1 F8400 X162.90 Y178.98 E949.30113
G0 F6000 X163.61 Y178.98
G1 F8400 X166.35 Y176.24 E949.42211
G0 F6000 X166.35 Y176.95
G1 F8400 X164.32 Y178.98 E949.51191
G0 F6000 X165.02 Y178.98
G1 F8400 X166.35 Y177.65 E949.57054
G0 F6000 X166.35 Y178.36
G1 F8400 X165.73 Y178.98 E949.59799
G0 F6000 X138.65 Y153.03
G1 F8400 X165.66 Y126.02 E950.78949
G0 F6000 X164.96 Y126.02
G1 F8400 X138.65 Y152.33 E951.94982
G0 F6000 X138.65 Y151.62
G1 F8400 X164.25 Y126.02 E953.07897
G0 F6000 X163.54 Y126.02
G1 F8400 X138.65 Y150.91 E954.17695
G0 F6000 X138.65 Y150.21
G1 F8400 X162.84 Y126.02 E955.24375
G0 F6000 X162.13 Y126.02
G1 F8400 X138.65 Y149.50 E956.27937
G0 F6000 X138.65 Y148.79
G1 F8400 X161.42 Y126.02 E957.28379
G0 F6000 X160.72 Y126.02
G1 F8400 X138.65 Y148.09 E958.25703
G0 F6000 X138.65 Y147.38
G1 F8400 X160.01 Y126.02 E959.19910
G0 F6000 X159.30 Y126.02
G1 F8400 X138.65 Y146.67 E960.10997
G0 F6000 X138.65 Y145.96
G1 F8400 X158.59 Y126.02 E960.98967
G0 F6000 X157.89 Y126.02
G1 F8400 X138.65 Y145.26 E961.83818
G0 F6000 X138.65 Y144.55
G1 F8400 X157.18 Y126.02 E962.65552
G0 F6000 X156.47 Y126.02
G1 F8400 X138.65 Y143.84 E963.44169
G0 F6000 X138.65 Y143.14
G1 F8400 X155.77 Y126.02 E964.19667
G0 F6000 X155.06 Y126.02
G1 F8400 X138.65 Y142.43 E964.92046
G0 F6000 X138.65 Y141.72
G1 F8400 X154.35 Y126.02 E965.61307
G0 F6000 X153.65 Y126.02
G1 F8400 X138.65 Y141.01 E966.27451
G0 F6000 X138.65 Y140.31
G1 F8400 X152.94 Y126.02 E966.90477
G0 F6000 X152.23 Y126.02
G1 F8400 X138.65 Y139.60 E967.50383
G0 F6000 X138.65 Y138.89
G1 F8400 X151.52 Y126.02 E968.07171
G0 F6000 X150.82 Y126.02
G1 F8400 X138.65 Y138.19 E968.60842
G0 F6000 X138.65 Y137.48
G1 F8400 X150.11 Y126.02 E969.11394
G0 F6000 X149.40 Y126.02
G1 F8400 X138.65 Y136.77 E969.58830
G0 F6000 X138.65 Y136.06
G1 F8400 X148.69 Y126.02 E970.03147
G0 F6000 X147.99 Y126.02
G1 F8400 X138.65 Y135.36 E970.44345
G0 F6000 X138.65 Y134.65
G1 F8400 X147.28 Y126.02 E970.82425
G0 F6000 X146.57 Y126.02
G1 F8400 X138.65 Y133.94 E971.17388
G0 F6000 X138.65 Y133.24
G1 F8400 X145.87 Y126.02 E971.49230
G0 F6000 X145.16 Y126.02
G1 F8400 X138.65 Y132.53 E971.77955
G0 F6000 X138.65 Y131.82
G1 F8400 X144.45 Y126.02 E972.03562
G0 F6000 X143.75 Y126.02
G1 F8400 X138.65 Y131.12 E972.26052
G0 F6000 X138.65 Y130.41
G1 F8400 X143.04 Y126.02 E972.45424
G0 F6000 X142.33 Y126.02
G1 F8400 X138.65 Y129.70 E972.61678
G0 F6000 X138.65 Y128.99
G1 F8400 X141.62 Y126.02 E972.74812
G0 F6000 X140.92 Y126.02
G1 F8400 X138.65 Y128.29 E972.84829
G0 F6000 X138.65 Y127.58
G1 F8400 X140.21 Y126.02 E972.91728
G0 F6000 X139.50 Y126.02
G1 F8400 X138.65 Y126.87 E972.95507
G0 F6000 X138.65 Y126.17
G1 F8400 X138.79 Y126.02 E972.96168
M107
G0 F6000 X138.79 Y126.02 Z6.00
;-- END GCODE --
M104 S0     ;extruder heater off
M140 S0     ;heated bed heater off (if you have it)
G91         ;relative positioning
G1 E-1 F300   ;retract the filament a bit before lifting the nozzle, to release some of the pressure
G1 Z+0.5 E-5 X-20 Y-20 F6000 ;move Z up a bit and retract filament even more
G28 X0 Y0     ;move X/Y to min endstops, so the head is out of the way
M84           ;steppers off
G90           ;absolute positioning
;CURA_PROFILE_STRING:eNrtWlFz2kgSfiWu+xH9mNQFVhIQb5bSwyaxvXWV3F0tXF3iF9WABpiNpFGNRsbYxX+/b2YkITDOORtXdpOFBztqdfd0f9P9dbtCwtZcRUsuFksdej1/2FmxJIn0Usw+ZrwoQr/XUVwrNtNCZhHP2DTh4TlLCt4pZCLiKLEedgzmAi5inhVCr8O+18nkzU3Co0LccJwx6ORKZDoqcs7j0B941bPmac4V06XiYRAckAbhAWH/kHDQCKc83nF86nWKMs+l0uHZFVfr1ZIr3skTpudSpRGLl7xAouErJdJaM4pLlkT8WqvSvZN62VmJnEdarriq0NgKoiuZlCkPAaaUN8h7KXgSV2rAhqUckcUCvzXM/d7p8K7YJHtH2D8kHLSF80SuQt/zel772hzUgz0pS2WZaZwftKU22frVi96w/S4VWYSHK57AaufNTKZTkS3CiSr5noVId9BDEDvnLWVuZJ2p1FqmrULyev2OLS4vWolYL6M5LKQy2XXk9Dc+QwmJ7KM1lrjLhOU2eFfGLsy6yLzGvyvXCpBhR2S2WN2z8SSygmtvX3DdEsykTCwSVeULd9VzVrdH7FAoPgrUTiIyDnQsmpVowfKwD0fuqUYo4dlCL+HJnGGczUsE1nSmk23TaZ6ilF1bSRPXHFKUO6KqhEvO0KdirncaVwN4F6h9dPg4icWkwtTkVjeCXuc8fIuMikbEsgUI4UXTVpG1dcdvDa/XKNdCs2xmGOC0kd+0xUY/F4olhieqSEWagzlSGdeSKRqzDSqIQrE5YGRqIbJw2KuerUqRs5mpSr+WTlnB90psKzcmttJsiFYOCuEKdbdrFOy/bFtWL5lQ5p7xXAmKstI1VVOEAUC+RvErJVAyUZnZjjTUC4wjVt/D/SrThlDaOkhD5jyLpkIXhxTQh4aXr4CNFnq2NOg4tTwpASBQRUcswqdJ7p/06j6bcZNqdB12/T3R2ohmpVKGfFAwtsX/hitVureYmWsbdbs0nvz864QuXv/rzRl1uyejcSJmPCZQLk2QC/1M75iJhRc05krgl98oMf0T3cZsvTE/Nccv03Gbk9ErVogZoTk1kih+orcGWHINA5OkNdk29F/gBp3b3em2oXNUK8TtiQXX/zazg8amvfCyNa42NHaVC3FVw1D/tWGzxmaffDfUUnpT1fyunuPc5nSTZXN4lfJ5RfOEe45d2I72K9u0JVq5zBctq5ksdNvKPG9O3vneCxoHw+ETGtmLo5XQS9JLTiAZktnJReBT9Rlh5CjAfsWSkhcnFy+95g2bgkhKzSmXgBEZ4Vq2zq3Kfe5/rHyDckhL4llcgJ3gPnj55MkIVyZXha0WVmrZTTiYPTHeL3x6D8KkD3B/6aP36fy2TfwbGrk6JZbF5Nzj3HrcUyxXGfnDNDVxvqTx7Z1NAh5+4UzTRJKRIuGAzpqct5/RDVfSOreTLkbhOkI3MZ4Hnkdn/T2zUaVJfS9NSc7J8DYh8dnHzz+G2IKJzAFyOqQPgUHkAByKWxSm5WLBlVXHqvUQNQuz+WGAPmTQAnrKFy6WPbUOLrbFCmf/fLPlBFzAgMbeDjKmm5lxKudzKAy8RsHKzUFxS4WeijmtZUlLnElCPwOM/hY6xXHtYL6d+kSQZ10E2vc8p2Pb0VVn3TaMwKY4CyXDyYxRGFoNt9c+NyUL5xwzhAqZcnOXtswUKAY1ZA65/LvXG+KoIb3vAvAP3UOoW8wvqcyrIw2WdURNNCj+DKVs3KJv3sOX1+qe9z98MOFgDWi66DmCsvGYNYBEQbLUdYgrtj559+OgXWGF5jmqv7Cgt/r73hYfoWskwjMjBe2z2HRsmwf1Tf8/Hq/ev1rT61Kxg0MB87vnPWhsUOD5A7oIyJHoLyblp/8ok7V98ewrTI2vxtujdz5up+asvT90UE3/ybCUW3sUBItj0xroEzCeaZuWLpn1xbgzHXiQAu93ddDNS5r4hzwFv8uV9+VBfdkAO922xt3xZZpk24f3NqFVumx36uVdFf++IfapyTXx6eBnNF6ZBc+cYiwDcElNq18yxXzv8BDzH3WIubO6t4f/Lt2cTLwHJT0XqtDfUtq7Fw9KAVXb2jcjJwX3sAXGS0ZvX7+hYqY4z1Cg/qljO+j0ej0zZBvuPcOtX7zGP918nTQT9E5wh0eusfE/02Zw/yG/Y2x/4vOQif4p42921N+f1OPsAHtOP7ER7Gl+zn7Qf+h+cJzYx4n9fU3s4K84sY9rynFN2VtT+n/kmmJsguNqc1xtHn+1GRxXmz/VahM83mpz3JK+2pbUf9DsHCDo72hheNhq2P++kj6uhsfVcG81HHxrq6Gx6R/XyeM6+bjrZPU9mfYXKhrh9n9T3dd8dpSspKWhOGbsjPdmxVXYwSU4mjmr6rJZWB35TLleoTNt0tWXOxoOshdgLxqSRvqcVksYNJ1ul4m0TLTIk4YuVNE7GU2WANWcZsDFemOr3FaRcTp5mj3rABP9Z4qPzU0D1uH9D6S8Css=
;CURA_PROFILE_STRING:eNrtWlFz2kgSfiWu+xH9mNQFVhIQb5bSwyaxvXWV3F0tXF3iF9WABpiNpFGNRsbYxX+/b2YkITDOORtXdpOFBztqdfd0f9P9dbtCwtZcRUsuFksdej1/2FmxJIn0Usw+ZrwoQr/XUVwrNtNCZhHP2DTh4TlLCt4pZCLiKLEedgzmAi5inhVCr8O+18nkzU3Co0LccJwx6ORKZDoqcs7j0B941bPmac4V06XiYRAckAbhAWH/kHDQCKc83nF86nWKMs+l0uHZFVfr1ZIr3skTpudSpRGLl7xAouErJdJaM4pLlkT8WqvSvZN62VmJnEdarriq0NgKoiuZlCkPAaaUN8h7KXgSV2rAhqUckcUCvzXM/d7p8K7YJHtH2D8kHLSF80SuQt/zel772hzUgz0pS2WZaZwftKU22frVi96w/S4VWYSHK57AaufNTKZTkS3CiSr5noVId9BDEDvnLWVuZJ2p1FqmrULyev2OLS4vWolYL6M5LKQy2XXk9Dc+QwmJ7KM1lrjLhOU2eFfGLsy6yLzGvyvXCpBhR2S2WN2z8SSygmtvX3DdEsykTCwSVeULd9VzVrdH7FAoPgrUTiIyDnQsmpVowfKwD0fuqUYo4dlCL+HJnGGczUsE1nSmk23TaZ6ilF1bSRPXHFKUO6KqhEvO0KdirncaVwN4F6h9dPg4icWkwtTkVjeCXuc8fIuMikbEsgUI4UXTVpG1dcdvDa/XKNdCs2xmGOC0kd+0xUY/F4olhieqSEWagzlSGdeSKRqzDSqIQrE5YGRqIbJw2KuerUqRs5mpSr+WTlnB90psKzcmttJsiFYOCuEKdbdrFOy/bFtWL5lQ5p7xXAmKstI1VVOEAUC+RvErJVAyUZnZjjTUC4wjVt/D/SrThlDaOkhD5jyLpkIXhxTQh4aXr4CNFnq2NOg4tTwpASBQRUcswqdJ7p/06j6bcZNqdB12/T3R2ohmpVKGfFAwtsX/hitVureYmWsbdbs0nvz864QuXv/rzRl1uyejcSJmPCZQLk2QC/1M75iJhRc05krgl98oMf0T3cZsvTE/Nccv03Gbk9ErVogZoTk1kih+orcGWHINA5OkNdk29F/gBp3b3em2oXNUK8TtiQXX/zazg8amvfCyNa42NHaVC3FVw1D/tWGzxmaffDfUUnpT1fyunuPc5nSTZXN4lfJ5RfOEe45d2I72K9u0JVq5zBctq5ksdNvKPG9O3vneCxoHw+ETGtmLo5XQS9JLTiAZktnJReBT9Rlh5CjAfsWSkhcnFy+95g2bgkhKzSmXgBEZ4Vq2zq3Kfe5/rHyDckhL4llcgJ3gPnj55MkIVyZXha0WVmrZTTiYPTHeL3x6D8KkD3B/6aP36fy2TfwbGrk6JZbF5Nzj3HrcUyxXGfnDNDVxvqTx7Z1NAh5+4UzTRJKRIuGAzpqct5/RDVfSOreTLkbhOkI3MZ4Hnkdn/T2zUaVJfS9NSc7J8DYh8dnHzz+G2IKJzAFyOqQPgUHkAByKWxSm5WLBlVXHqvUQNQuz+WGAPmTQAnrKFy6WPbUOLrbFCmf/fLPlBFzAgMbeDjKmm5lxKudzKAy8RsHKzUFxS4WeijmtZUlLnElCPwOM/hY6xXHtYL6d+kSQZ10E2vc8p2Pb0VVn3TaMwKY4CyXDyYxRGFoNt9c+NyUL5xwzhAqZcnOXtswUKAY1ZA65/LvXG+KoIb3vAvAP3UOoW8wvqcyrIw2WdURNNCj+DKVs3KJv3sOX1+qe9z98MOFgDWi66DmCsvGYNYBEQbLUdYgrtj559+OgXWGF5jmqv7Cgt/r73hYfoWskwjMjBe2z2HRsmwf1Tf8/Hq/ev1rT61Kxg0MB87vnPWhsUOD5A7oIyJHoLyblp/8ok7V98ewrTI2vxtujdz5up+asvT90UE3/ybCUW3sUBItj0xroEzCeaZuWLpn1xbgzHXiQAu93ddDNS5r4hzwFv8uV9+VBfdkAO922xt3xZZpk24f3NqFVumx36uVdFf++IfapyTXx6eBnNF6ZBc+cYiwDcElNq18yxXzv8BDzH3WIubO6t4f/Lt2cTLwHJT0XqtDfUtq7Fw9KAVXb2jcjJwX3sAXGS0ZvX7+hYqY4z1Cg/qljO+j0ej0zZBvuPcOtX7zGP918nTQT9E5wh0eusfE/02Zw/yG/Y2x/4vOQif4p42921N+f1OPsAHtOP7ER7Gl+zn7Qf+h+cJzYx4n9fU3s4K84sY9rynFN2VtT+n/kmmJsguNqc1xtHn+1GRxXmz/VahM83mpz3JK+2pbUf9DsHCDo72hheNhq2P++kj6uhsfVcG81HHxrq6Gx6R/XyeM6+bjrZPU9mfYXKhrh9n9T3dd8dpSspKWhOGbsjPdmxVXYwSU4mjmr6rJZWB35TLleoTNt0tWXOxoOshdgLxqSRvqcVksYNJ1ul4m0TLTIk4YuVNE7GU2WANWcZsDFemOr3FaRcTp5mj3rABP9Z4qPzU0D1uH9D6S8Css=

