;-- START GCODE --
;Sliced for Type A Machines Series 1
;Sliced at: Sat 14-05-2016 12:36:41
;Basic settings: Layer height: 0.2 Walls: 1 Fill: 30
;Print Speed: 100 Support: 0
;Retraction Speed: 40 Retraction Distance: 1.2
;Print time: #P_TIME#
;Filament used: #F_AMNT#m #F_WGHT#g
;Filament cost: #F_COST#
M106 S255	 ;start with the fan on
G21        ;metric values
G90        ;absolute positioning
M106 S255    ;start with the fan on
G28     ;move to endstops
G29		;allows for auto-levelling
G1 X150 Y5  Z15.0 F6000 ;center and move the platform down 15mm
M109 S220 ;Heat To temp
G92 E0                  ;zero the extruded length
G1 F200 E30              ;extrude 30mm of feed stock
G92 E0                  ;zero the extruded length again
G1 X175 Y25  Z0 F6000 ;remove bugger
G1 X220 F6000 ;remove bugger
G1 X150 Y150  Z15 F6000 ;recenter and begin
G1 F6000

;Layer count: 70
;LAYER:0
M106 S255
G0 F6000 X139.38 Y139.52 Z0.30
;TYPE:SKIRT
G1 F2700 X142.19 Y137.22 E0.22661
G1 X144.54 Y135.96 E0.39281
G1 X145.39 Y135.50 E0.45302
G1 X148.87 Y134.45 E0.67987
G1 X151.06 Y134.23 E0.81734
G1 X151.06 Y134.23 E0.81740
G1 X152.48 Y134.09 E0.90627
G1 X156.09 Y134.45 E1.13267
G1 X157.42 Y134.85 E1.21878
G1 X159.58 Y135.50 E1.35970
G1 X161.93 Y136.76 E1.52604
G1 X162.78 Y137.22 E1.58639
G1 X165.59 Y139.52 E1.81273
G1 X167.28 Y141.59 E1.97942
G1 X167.90 Y142.33 E2.03966
G1 X168.89 Y144.19 E2.17059
G1 X169.61 Y145.54 E2.26615
G1 X170.32 Y147.87 E2.41839
G1 X170.66 Y149.01 E2.49261
G1 X170.94 Y151.83 E2.66939
G1 X171.01 Y152.66 E2.72092
G1 X170.66 Y156.24 E2.94570
G1 X170.12 Y158.02 E3.06138
G1 X169.61 Y159.72 E3.17196
G1 X168.99 Y160.87 E3.25359
G1 X168.35 Y162.07 E3.33874
G1 X167.89 Y162.92 E3.39890
G1 X166.64 Y164.45 E3.52227
G1 X166.21 Y164.97 E3.56409
G1 X165.59 Y165.73 E3.62499
G1 X162.78 Y168.04 E3.85199
G1 X159.58 Y169.75 E4.07865
G1 X157.93 Y170.25 E4.18591
G1 X156.10 Y170.81 E4.30523
G1 X152.48 Y171.16 E4.53176
G1 X149.83 Y170.90 E4.69801
G1 X148.87 Y170.81 E4.75842
G1 X145.39 Y169.75 E4.98495
G1 X142.19 Y168.04 E5.21158
G1 X139.38 Y165.73 E5.43814
G1 X137.07 Y162.92 E5.66483
G1 X135.82 Y160.58 E5.83047
G1 X135.82 Y160.58 E5.83054
G1 X135.36 Y159.72 E5.89099
G1 X134.57 Y157.11 E6.06158
G1 X134.30 Y156.23 E6.11850
G1 X134.15 Y154.69 E6.21512
G1 X134.04 Y153.59 E6.28406
G1 X133.95 Y152.63 E6.34453
G1 X134.22 Y149.93 E6.51341
G1 X134.30 Y149.02 E6.57023
G1 X135.08 Y146.46 E6.73760
G1 X135.36 Y145.53 E6.79763
G1 X136.03 Y144.28 E6.88610
G1 X137.07 Y142.33 E7.02429
G1 X139.38 Y139.52 E7.25085
G0 F6000 X139.73 Y139.88
G1 F2700 X142.47 Y137.63 E7.47133
G1 X144.77 Y136.40 E7.63446
G1 X145.58 Y135.97 E7.69155
G1 X148.97 Y134.94 E7.91229
G1 X151.12 Y134.73 E8.04713
G1 X152.48 Y134.59 E8.13255
G1 X156.00 Y134.94 E8.35281
G1 X157.27 Y135.32 E8.43581
G1 X159.38 Y135.97 E8.57361
G1 X161.69 Y137.20 E8.73688
G1 X162.50 Y137.63 E8.79410
G1 X165.23 Y139.88 E9.01433
G1 X166.90 Y141.90 E9.17797
G1 X167.48 Y142.61 E9.23514
G1 X168.45 Y144.42 E9.36298
G1 X169.14 Y145.73 E9.45549
G1 X169.84 Y148.02 E9.60468
G1 X170.17 Y149.11 E9.67582
G1 X170.44 Y151.88 E9.84941
G1 X170.51 Y152.65 E9.89787
G1 X170.17 Y156.15 E10.11663
G1 X169.65 Y157.87 E10.22918
G1 X169.15 Y159.52 E10.33676
G1 X168.55 Y160.63 E10.41535
G1 X167.91 Y161.84 E10.50045
G1 X167.48 Y162.65 E10.55753
G1 X166.25 Y164.14 E10.67784
G1 X165.81 Y164.67 E10.72126
G1 X165.24 Y165.37 E10.77754
G1 X162.50 Y167.62 E10.99839
G1 X159.38 Y169.29 E11.21883
G1 X157.78 Y169.77 E11.32311
G1 X157.78 Y169.77 E11.32317
G1 X156.00 Y170.31 E11.43937
G1 X152.48 Y170.66 E11.65977
G1 X149.88 Y170.40 E11.82295
G1 X148.97 Y170.31 E11.88029
G1 X145.58 Y169.29 E12.10069
G1 X142.47 Y167.62 E12.32113
G1 X139.73 Y165.38 E12.54158
G1 X137.49 Y162.64 E12.76215
G1 X136.26 Y160.34 E12.92531
G1 X135.83 Y159.53 E12.98211
G1 X135.04 Y156.96 E13.14964
G1 X134.80 Y156.13 E13.20350
G1 X134.65 Y154.64 E13.29705
G1 X134.65 Y154.64 E13.29712
G1 X134.54 Y153.54 E13.36605
G1 X134.45 Y152.63 E13.42346
G1 X134.71 Y149.98 E13.58928
G1 X134.79 Y149.12 E13.64308
G1 X135.56 Y146.60 E13.80732
G1 X135.82 Y145.73 E13.86429
G1 X136.47 Y144.52 E13.94972
G1 X137.49 Y142.61 E14.08481
G1 X139.73 Y139.88 E14.30521
G0 F6000 X140.09 Y140.23
G1 F2700 X142.75 Y138.05 E14.51954
G1 X145.01 Y136.84 E14.67958
G1 X145.01 Y136.84 E14.67964
G1 X145.77 Y136.43 E14.73377
G1 X149.06 Y135.43 E14.94831
G1 X151.16 Y135.23 E15.07965
G1 X151.16 Y135.23 E15.07971
G1 X152.48 Y135.10 E15.16249
G1 X155.90 Y135.43 E15.37661
G1 X157.13 Y135.80 E15.45653
G1 X159.19 Y136.43 E15.59127
G1 X161.46 Y137.64 E15.75142
G1 X162.22 Y138.05 E15.80563
G1 X164.88 Y140.23 E16.01974
G1 X166.51 Y142.22 E16.18023
G1 X167.06 Y142.89 E16.23434
G1 X168.00 Y144.66 E16.35914
G1 X168.68 Y145.92 E16.44856
G1 X169.36 Y148.16 E16.59466
G1 X169.68 Y149.21 E16.66275
G1 X169.94 Y151.93 E16.83314
G1 X170.01 Y152.65 E16.87854
G1 X169.68 Y156.05 E17.09128
G1 X169.17 Y157.72 E17.20053
G1 X169.17 Y157.72 E17.20060
G1 X168.68 Y159.33 E17.30539
G1 X168.11 Y160.40 E17.38086
G1 X167.47 Y161.60 E17.46595
G1 X167.06 Y162.37 E17.52000
G1 X165.87 Y163.82 E17.63720
G1 X165.42 Y164.36 E17.68062
G1 X164.88 Y165.02 E17.73385
G1 X162.22 Y167.20 E17.94858
G1 X159.19 Y168.82 E18.16291
G1 X157.64 Y169.29 E18.26400
G1 X155.90 Y169.82 E18.37720
G1 X152.48 Y170.16 E18.59144
G1 X149.93 Y169.91 E18.75155
G1 X149.06 Y169.82 E18.80582
G1 X145.78 Y168.82 E19.02008
G1 X142.75 Y167.20 E19.23436
G1 X140.09 Y165.02 E19.44869
G1 X137.91 Y162.36 E19.66311
G1 X136.70 Y160.10 E19.82322
G1 X136.29 Y159.34 E19.87699
G1 X135.52 Y156.82 E20.04138
G1 X135.29 Y156.04 E20.09212
G1 X135.15 Y154.59 E20.18266
G1 X135.04 Y153.49 E20.25160
G1 X134.95 Y152.63 E20.30593
G1 X135.21 Y150.03 E20.46867
G1 X135.21 Y150.03 E20.46873
G1 X135.29 Y149.22 E20.51953
G1 X136.04 Y146.75 E20.68057
G1 X136.29 Y145.92 E20.73448
G1 X136.91 Y144.75 E20.81687
G1 X137.91 Y142.89 E20.94892
G1 X140.09 Y140.23 E21.16316
G0 F6000 X140.44 Y140.59
G1 F2700 X143.02 Y138.47 E21.37134
G1 X145.24 Y137.28 E21.52833
G1 X145.97 Y136.90 E21.57934
G1 X149.16 Y135.93 E21.78774
G1 X151.22 Y135.72 E21.91645
G1 X152.48 Y135.60 E21.99573
G1 X155.80 Y135.93 E22.20371
G1 X156.98 Y136.28 E22.28058
G1 X159.00 Y136.90 E22.41224
G1 X161.22 Y138.08 E22.56929
G1 X161.94 Y138.47 E22.62046
G1 X164.52 Y140.59 E22.82841
G1 X166.12 Y142.54 E22.98575
G1 X166.64 Y143.17 E23.03686
G1 X167.56 Y144.89 E23.15862
G1 X168.22 Y146.11 E23.24494
G1 X168.88 Y148.31 E23.38799
G1 X169.18 Y149.31 E23.45301
G1 X169.45 Y151.97 E23.62021
G1 X169.51 Y152.65 E23.66253
G1 X169.18 Y155.95 E23.86926
G1 X168.69 Y157.58 E23.97569
G1 X168.22 Y159.14 E24.07715
G1 X167.67 Y160.16 E24.14958
G1 X167.03 Y161.37 E24.23462
G1 X166.64 Y162.09 E24.28562
G1 X165.48 Y163.50 E24.39972
G1 X165.04 Y164.04 E24.44310
G1 X164.53 Y164.66 E24.49336
G1 X161.94 Y166.78 E24.70188
G1 X159.00 Y168.36 E24.91007
G1 X155.81 Y169.33 E25.11822
G1 X152.48 Y169.65 E25.32633
G1 X149.98 Y169.41 E25.48337
G1 X149.16 Y169.33 E25.53456
G1 X145.97 Y168.36 E25.74266
G1 X143.02 Y166.78 E25.95084
G1 X140.44 Y164.67 E26.15902
G1 X138.32 Y162.09 E26.36729
G1 X137.14 Y159.87 E26.52386
G1 X137.14 Y159.87 E26.52392
G1 X136.75 Y159.15 E26.57511
G1 X136.00 Y156.67 E26.73639
G1 X135.78 Y155.94 E26.78400
G1 X135.65 Y154.54 E26.87147
G1 X135.65 Y154.54 E26.87153
G1 X135.46 Y152.62 E26.99186
G1 X135.71 Y150.10 E27.14984
G1 X135.78 Y149.31 E27.19926
G1 X136.52 Y146.89 E27.35719
G1 X136.75 Y146.11 E27.40802
G1 X137.35 Y144.99 E27.48740
G1 X138.33 Y143.17 E27.61624
G1 X140.44 Y140.59 E27.82441
G0 F6000 X140.80 Y140.94
G1 F2700 X143.30 Y138.89 E28.02643
G1 X145.48 Y137.72 E28.18038
G1 X146.16 Y137.36 E28.22834
G1 X149.26 Y136.42 E28.43055
G1 X151.27 Y136.22 E28.55619
G1 X152.48 Y136.10 E28.63240
G1 X155.70 Y136.42 E28.83431
G1 X156.84 Y136.76 E28.90804
G1 X158.81 Y137.36 E29.03658
G1 X160.99 Y138.52 E29.19059
G1 X161.67 Y138.89 E29.23869
G1 X164.17 Y140.94 E29.44053
G1 X165.74 Y142.85 E29.59477
G1 X166.22 Y143.45 E29.64281
G1 X167.12 Y145.13 E29.76150
G1 X167.75 Y146.31 E29.84475
G1 X168.40 Y148.45 E29.98474
G1 X168.69 Y149.40 E30.04670
G1 X168.95 Y152.02 E30.21070
G1 X169.01 Y152.65 E30.24996
G1 X168.69 Y155.85 E30.45067
G1 X168.21 Y157.43 E30.55379
G1 X168.21 Y157.43 E30.55385
G1 X167.75 Y158.95 E30.65251
G1 X167.23 Y159.93 E30.72184
G1 X166.59 Y161.13 E30.80688
G1 X166.22 Y161.81 E30.85476
G1 X165.09 Y163.19 E30.96586
G1 X164.65 Y163.72 E31.00918
G1 X164.17 Y164.31 E31.05647
G1 X161.66 Y166.37 E31.25879
G1 X158.81 Y167.89 E31.46084
G1 X155.71 Y168.83 E31.66286
G1 X152.48 Y169.15 E31.86483
G1 X150.03 Y168.91 E32.01879
G1 X149.26 Y168.83 E32.06691
G1 X146.16 Y167.89 E32.26887
G1 X143.30 Y166.37 E32.47092
G1 X140.80 Y164.31 E32.67293
G1 X138.74 Y161.81 E32.87503
G1 X137.58 Y159.63 E33.02901
G1 X137.22 Y158.95 E33.07669
G1 X136.48 Y156.53 E33.23489
G1 X136.28 Y155.84 E33.27944
G1 X136.14 Y154.50 E33.36384
G1 X135.96 Y152.62 E33.48109
G1 X136.21 Y150.13 E33.63764
G1 X136.27 Y149.41 E33.68243
G1 X136.99 Y147.04 E33.83721
G1 X137.22 Y146.30 E33.88499
G1 X137.79 Y145.22 E33.96127
G1 X138.74 Y143.45 E34.08707
G1 X140.80 Y140.94 E34.28908
G0 F6000 X141.15 Y141.30
G1 F2700 X143.58 Y139.30 E34.48498
G1 X145.72 Y138.16 E34.63586
G1 X146.35 Y137.82 E34.68072
G1 X149.36 Y136.91 E34.87682
G1 X151.31 Y136.72 E34.99901
G1 X152.48 Y136.60 E35.07252
G1 X155.61 Y136.91 E35.26828
G1 X156.69 Y137.24 E35.33896
G1 X158.62 Y137.82 E35.46443
G1 X160.75 Y138.97 E35.61534
G1 X161.39 Y139.31 E35.66035
G1 X163.81 Y141.30 E35.85612
G1 X165.35 Y143.17 E36.00726
G1 X165.81 Y143.73 E36.05220
G1 X166.68 Y145.36 E36.16784
G1 X167.29 Y146.50 E36.24800
G1 X167.93 Y148.60 E36.38493
G1 X168.20 Y149.50 E36.44376
G1 X168.45 Y152.07 E36.60463
G1 X168.50 Y152.65 E36.64082
G1 X168.20 Y155.75 E36.83552
G1 X167.73 Y157.29 E36.93575
G1 X167.29 Y158.75 E37.03114
G1 X166.79 Y159.69 E37.09737
G1 X166.15 Y160.89 E37.18239
G1 X165.81 Y161.53 E37.22725
G1 X164.71 Y162.87 E37.33524
G1 X164.27 Y163.40 E37.37853
G1 X163.82 Y163.95 E37.42280
G1 X161.38 Y165.95 E37.61897
G1 X158.62 Y167.43 E37.81488
G1 X155.61 Y168.34 E38.01077
G1 X152.48 Y168.65 E38.20659
G1 X150.08 Y168.41 E38.35749
G1 X149.36 Y168.34 E38.40255
G1 X146.35 Y167.43 E38.59837
G1 X143.58 Y165.95 E38.79428
G1 X141.15 Y163.96 E38.99014
G1 X139.16 Y161.53 E39.18608
G1 X138.02 Y159.39 E39.33702
G1 X137.68 Y158.76 E39.38166
G1 X136.96 Y156.38 E39.53666
G1 X136.77 Y155.75 E39.57815
G1 X136.64 Y154.45 E39.65955
G1 X136.46 Y152.62 E39.77372
G1 X136.70 Y150.18 E39.92713
G1 X136.77 Y149.51 E39.96891
G1 X137.47 Y147.18 E40.12056
G1 X137.68 Y146.50 E40.16536
G1 X138.23 Y145.46 E40.23857
G1 X139.16 Y143.72 E40.36127
G1 X141.15 Y141.30 E40.55713
G0 F6000 X141.51 Y141.65
G1 F2700 X143.86 Y139.72 E40.74687
G1 X145.95 Y138.60 E40.89465
G1 X146.54 Y138.29 E40.93653
G1 X149.46 Y137.40 E41.12643
G1 X151.36 Y137.22 E41.24587
G1 X151.36 Y137.22 E41.24593
G1 X152.48 Y137.11 E41.31613
G1 X155.51 Y137.40 E41.50569
G1 X156.55 Y137.72 E41.57332
G1 X158.42 Y138.29 E41.69565
G1 X160.51 Y139.41 E41.84352
G1 X161.11 Y139.72 E41.88545
G1 X163.46 Y141.65 E42.07505
G1 X164.96 Y143.49 E42.22314
G1 X165.39 Y144.01 E42.26502
G1 X166.24 Y145.60 E42.37762
G1 X166.82 Y146.69 E42.45468
G1 X167.45 Y148.74 E42.58854
G1 X167.71 Y149.60 E42.64431
G1 X167.95 Y152.12 E42.80198
G1 X168.00 Y152.64 E42.83511
G1 X167.71 Y155.66 E43.02379
G1 X167.25 Y157.15 E43.12095
G1 X167.25 Y157.15 E43.12102
G1 X166.82 Y158.56 E43.21334
G1 X166.35 Y159.46 E43.27651
G1 X165.70 Y160.66 E43.36146
G1 X165.39 Y161.25 E43.40329
G1 X164.32 Y162.55 E43.50818
G1 X163.88 Y163.09 E43.55142
G1 X163.46 Y163.60 E43.59272
G1 X161.11 Y165.53 E43.78272
G1 X158.42 Y166.97 E43.97253
G1 X155.51 Y167.85 E44.16223
G1 X152.48 Y168.15 E44.35192
G1 X150.12 Y167.91 E44.49975
G1 X149.46 Y167.85 E44.54173
G1 X146.54 Y166.97 E44.73144
G1 X143.86 Y165.53 E44.92116
G1 X141.51 Y163.60 E45.11090
G1 X139.58 Y161.25 E45.30068
G1 X138.46 Y159.16 E45.44852
G1 X138.15 Y158.57 E45.49018
G1 X137.44 Y156.24 E45.64206
G1 X137.26 Y155.65 E45.68042
G1 X137.14 Y154.40 E45.75881
G1 X137.14 Y154.40 E45.75887
G1 X136.96 Y152.62 E45.86998
G1 X137.20 Y150.23 E46.02033
G1 X137.26 Y149.61 E46.05910
G1 X137.95 Y147.33 E46.20763
G1 X138.15 Y146.69 E46.24935
G1 X138.68 Y145.70 E46.31946
G1 X139.58 Y144.00 E46.43910
G1 X141.51 Y141.65 E46.62884
G0 F6000 X141.86 Y142.01
G1 F2700 X144.14 Y140.14 E46.81247
G1 X146.18 Y139.05 E46.95696
G1 X146.74 Y138.75 E46.99594
G1 X149.56 Y137.90 E47.17971
G1 X151.41 Y137.72 E47.29582
G1 X152.48 Y137.61 E47.36319
G1 X155.41 Y137.90 E47.54666
G1 X156.40 Y138.20 E47.61116
G1 X158.23 Y138.75 E47.73043
G1 X160.28 Y139.85 E47.87521
G1 X160.83 Y140.14 E47.91410
G1 X163.10 Y142.01 E48.09755
G1 X164.58 Y143.80 E48.24253
G1 X164.97 Y144.29 E48.28135
G1 X165.80 Y145.83 E48.39086
G1 X166.36 Y146.88 E48.46488
G1 X166.97 Y148.89 E48.59568
G1 X167.21 Y149.70 E48.64839
G1 X167.46 Y152.16 E48.80286
G1 X167.50 Y152.64 E48.83292
G1 X167.21 Y155.56 E49.01559
G1 X166.77 Y157.00 E49.10971
G1 X166.36 Y158.37 E49.19898
G1 X165.91 Y159.22 E49.25904
G1 X165.26 Y160.42 E49.34400
G1 X164.97 Y160.97 E49.38275
G1 X163.94 Y162.23 E49.48454
G1 X163.49 Y162.77 E49.52782
G1 X163.10 Y163.24 E49.56611
G1 X160.83 Y165.11 E49.74991
G1 X158.23 Y166.50 E49.93355
G1 X155.41 Y167.36 E50.11714
G1 X152.48 Y167.64 E50.30068
G1 X150.17 Y167.42 E50.44543
G1 X149.55 Y167.36 E50.48434
G1 X146.74 Y166.50 E50.66787
G1 X144.14 Y165.11 E50.85151
G1 X141.86 Y163.25 E51.03509
G1 X140.00 Y160.97 E51.21876
G1 X138.91 Y158.93 E51.36317
G1 X138.91 Y158.93 E51.36323
G1 X138.61 Y158.38 E51.40212
G1 X137.92 Y156.09 E51.55093
G1 X137.75 Y155.55 E51.58623
G1 X137.64 Y154.35 E51.66148
G1 X137.47 Y152.63 E51.76952
G1 X137.70 Y150.28 E51.91685
G1 X137.70 Y150.28 E51.91691
G1 X137.75 Y149.70 E51.95267
G1 X138.43 Y147.47 E52.09801
G1 X138.61 Y146.88 E52.13667
G1 X139.12 Y145.93 E52.20380
G1 X140.00 Y144.28 E52.32033
G1 X141.86 Y142.01 E52.50392
G0 F6000 X142.22 Y142.36
G1 F2700 X144.42 Y140.56 E52.68138
G1 X146.42 Y139.49 E52.82284
G1 X146.93 Y139.22 E52.85877
G1 X149.65 Y138.39 E53.03635
G1 X151.46 Y138.21 E53.14939
G1 X152.48 Y138.11 E53.21369
G1 X155.31 Y138.39 E53.39103
G1 X156.26 Y138.68 E53.45247
G1 X158.04 Y139.22 E53.56866
G1 X160.04 Y140.29 E53.71034
G1 X160.55 Y140.56 E53.74614
G1 X162.75 Y142.36 E53.92348
G1 X164.19 Y144.12 E54.06536
G1 X164.55 Y144.56 E54.10113
G1 X165.36 Y146.07 E54.20759
G1 X165.89 Y147.07 E54.27849
G1 X166.49 Y149.03 E54.40622
G1 X166.72 Y149.79 E54.45588
G1 X166.96 Y152.21 E54.60716
G1 X167.00 Y152.64 E54.63408
G1 X166.72 Y155.46 E54.81073
G1 X166.30 Y156.85 E54.90177
G1 X166.29 Y156.85 E54.90184
G1 X165.90 Y158.18 E54.98809
G1 X165.47 Y158.99 E55.04506
G1 X164.82 Y160.19 E55.13002
G1 X164.55 Y160.69 E55.16573
G1 X163.55 Y161.91 E55.26445
G1 X163.11 Y162.45 E55.30765
G1 X162.75 Y162.89 E55.34293
G1 X160.55 Y164.69 E55.52062
G1 X158.04 Y166.04 E55.69806
G1 X155.31 Y166.86 E55.87552
G1 X152.48 Y167.14 E56.05292
G1 X150.22 Y166.92 E56.19461
G1 X149.65 Y166.86 E56.23045
G1 X146.93 Y166.04 E56.40785
G1 X144.42 Y164.69 E56.58529
G1 X142.22 Y162.89 E56.76276
G1 X140.41 Y160.69 E56.94026
G1 X139.34 Y158.69 E57.08194
G1 X139.07 Y158.18 E57.11751
G1 X138.40 Y155.95 E57.26320
G1 X138.25 Y155.45 E57.29538
G1 X138.13 Y154.30 E57.36762
G1 X138.13 Y154.30 E57.36769
G1 X137.97 Y152.63 E57.47266
G1 X138.19 Y150.34 E57.61598
G1 X138.19 Y150.34 E57.61604
G1 X138.25 Y149.80 E57.64974
G1 X138.91 Y147.62 E57.79196
G1 X139.07 Y147.07 E57.82755
G1 X139.56 Y146.17 E57.89164
G1 X140.41 Y144.56 E58.00508
G1 X142.22 Y142.36 E58.18249
G0 F6000 X142.57 Y142.72
G1 F2700 X144.70 Y140.97 E58.35384
G1 X146.66 Y139.93 E58.49237
G1 X147.12 Y139.68 E58.52507
G1 X149.75 Y138.88 E58.69651
G1 X151.51 Y138.71 E58.80654
G1 X152.48 Y138.61 E58.86770
G1 X155.22 Y138.88 E59.03890
G1 X156.11 Y139.15 E59.09726
G1 X157.85 Y139.68 E59.21034
G1 X159.81 Y140.73 E59.34900
G1 X160.27 Y140.98 E59.38171
G1 X162.39 Y142.72 E59.55297
G1 X163.80 Y144.44 E59.69166
G1 X164.13 Y144.84 E59.72436
G1 X164.92 Y146.31 E59.82785
G1 X165.43 Y147.27 E59.89570
G1 X166.01 Y149.18 E60.02032
G1 X166.23 Y149.89 E60.06690
G1 X166.46 Y152.26 E60.21498
G1 X166.50 Y152.64 E60.23884
G1 X166.23 Y155.36 E60.40947
G1 X165.82 Y156.71 E60.49746
G1 X165.43 Y157.99 E60.58065
G1 X165.02 Y158.75 E60.63458
G1 X164.38 Y159.95 E60.71948
G1 X164.13 Y160.41 E60.75210
G1 X163.16 Y161.60 E60.84778
G1 X162.72 Y162.13 E60.89093
G1 X162.39 Y162.53 E60.92323
G1 X160.27 Y164.28 E61.09476
G1 X157.85 Y165.57 E61.26604
G1 X155.22 Y166.37 E61.43736
G1 X152.48 Y166.64 E61.60862
G1 X150.27 Y166.42 E61.74723
G1 X149.75 Y166.37 E61.77994
G1 X147.12 Y165.57 E61.95126
G1 X144.70 Y164.28 E62.12254
G1 X142.57 Y162.53 E62.29389
G1 X140.83 Y160.41 E62.46524
G1 X139.78 Y158.45 E62.60387
G1 X139.54 Y157.99 E62.63635
G1 X138.87 Y155.80 E62.77896
G1 X138.74 Y155.36 E62.80802
G1 X138.63 Y154.25 E62.87726
G1 X138.47 Y152.63 E62.97915
G1 X138.69 Y150.37 E63.12033
G1 X138.74 Y149.90 E63.15009
G1 X139.39 Y147.76 E63.28911
G1 X139.54 Y147.26 E63.32170
G1 X140.00 Y146.40 E63.38269
G1 X140.83 Y144.84 E63.49303
G1 X142.57 Y142.72 E63.66434
G0 F6000 X142.93 Y143.07
G1 F2700 X144.98 Y141.39 E63.82954
G1 X146.89 Y140.37 E63.96502
G1 X147.31 Y140.15 E63.99465
G1 X149.85 Y139.38 E64.15987
G1 X151.56 Y139.21 E64.26689
G1 X152.48 Y139.12 E64.32499
G1 X155.12 Y139.38 E64.49010
G1 X155.97 Y139.63 E64.54536
G1 X157.65 Y140.15 E64.65539
G1 X159.57 Y141.17 E64.79092
G1 X159.99 Y141.39 E64.82058
G1 X162.04 Y143.07 E64.98564
G1 X163.42 Y144.75 E65.12131
G1 X163.72 Y145.12 E65.15092
G1 X164.48 Y146.54 E65.25130
G1 X164.97 Y147.46 E65.31611
G1 X165.53 Y149.32 E65.43766
G1 X165.73 Y149.99 E65.48118
G1 X165.96 Y152.30 E65.62607
G1 X165.99 Y152.63 E65.64686
G1 X165.73 Y155.26 E65.81148
G1 X165.34 Y156.56 E65.89639
G1 X165.34 Y156.56 E65.89645
G1 X164.97 Y157.79 E65.97659
G1 X164.58 Y158.51 E66.02739
G1 X163.94 Y159.71 E66.11226
G1 X163.72 Y160.13 E66.14184
G1 X162.78 Y161.28 E66.23441
G1 X162.34 Y161.81 E66.27756
G1 X162.04 Y162.18 E66.30690
G1 X159.99 Y163.86 E66.47222
G1 X157.65 Y165.11 E66.63741
G1 X155.12 Y165.88 E66.80254
G1 X152.48 Y166.14 E66.96766
G1 X150.32 Y165.92 E67.10320
G1 X149.85 Y165.88 E67.13285
G1 X147.31 Y165.11 E67.29797
G1 X144.98 Y163.86 E67.46317
G1 X142.93 Y162.18 E67.62836
G1 X141.25 Y160.13 E67.79355
G1 X140.23 Y158.22 E67.92909
G1 X140.23 Y158.22 E67.92915
G1 X140.00 Y157.80 E67.95867
G1 X139.35 Y155.66 E68.09811
G1 X139.23 Y155.26 E68.12415
G1 X139.13 Y154.20 E68.19032
G1 X138.97 Y152.63 E68.28915
G1 X139.19 Y150.42 E68.42720
G1 X139.23 Y150.00 E68.45401
G1 X139.86 Y147.91 E68.58990
G1 X140.00 Y147.46 E68.61943
G1 X140.44 Y146.64 E68.67737
G1 X141.25 Y145.12 E68.78459
G1 X142.93 Y143.07 E68.94979
G0 F6000 X143.29 Y143.43
G1 F2700 X145.26 Y141.81 E69.10882
G1 X147.13 Y140.81 E69.24120
G1 X147.50 Y140.61 E69.26779
G1 X149.95 Y139.87 E69.42688
G1 X151.61 Y139.71 E69.53096
G1 X151.61 Y139.71 E69.53102
G1 X152.48 Y139.62 E69.58592
G1 X155.02 Y139.87 E69.74491
G1 X155.82 Y140.11 E69.79709
G1 X157.46 Y140.61 E69.90399
G1 X159.34 Y141.61 E70.03649
G1 X159.71 Y141.81 E70.06308
G1 X161.68 Y143.43 E70.22202
G1 X163.03 Y145.07 E70.35459
G1 X163.30 Y145.40 E70.38118
G1 X164.04 Y146.78 E70.47850
G1 X164.50 Y147.65 E70.54021
G1 X165.05 Y149.47 E70.65870
G1 X165.24 Y150.09 E70.69916
G1 X165.47 Y152.35 E70.84085
G1 X165.49 Y152.63 E70.85857
G1 X165.24 Y155.16 E71.01717
G1 X164.86 Y156.42 E71.09892
G1 X164.86 Y156.42 E71.09898
G1 X164.50 Y157.60 E71.17620
G1 X164.14 Y158.28 E71.22396
G1 X163.30 Y159.85 E71.33531
G1 X162.39 Y160.96 E71.42483
G1 X161.95 Y161.50 E71.46789
G1 X161.68 Y161.82 E71.49422
G1 X159.71 Y163.44 E71.65338
G1 X157.46 Y164.65 E71.81244
G1 X155.02 Y165.38 E71.97145
G1 X152.48 Y165.63 E72.13042
G1 X149.95 Y165.38 E72.28946
G1 X147.51 Y164.65 E72.44847
G1 X145.26 Y163.44 E72.60752
G1 X143.29 Y161.82 E72.76655
G1 X141.67 Y159.85 E72.92558
G1 X140.67 Y157.98 E73.05808
G1 X140.47 Y157.60 E73.08453
G1 X139.83 Y155.51 E73.22082
G1 X139.72 Y155.16 E73.24375
G1 X139.63 Y154.16 E73.30685
G1 X139.47 Y152.63 E73.40267
G1 X139.69 Y150.47 E73.53765
G1 X139.69 Y150.47 E73.53772
G1 X139.72 Y150.09 E73.56151
G1 X140.34 Y148.06 E73.69422
G1 X140.47 Y147.65 E73.72074
G1 X140.88 Y146.87 E73.77559
G1 X141.67 Y145.40 E73.87977
G1 X143.29 Y143.43 E74.03880
G0 F6000 X143.64 Y143.78
G1 F2700 X145.54 Y142.23 E74.19167
G1 X147.37 Y141.25 E74.32101
G1 X147.70 Y141.07 E74.34456
G1 X150.04 Y140.36 E74.49745
G1 X151.66 Y140.20 E74.59840
G1 X152.48 Y140.12 E74.65035
G1 X154.92 Y140.36 E74.80313
G1 X155.68 Y140.59 E74.85225
G1 X157.27 Y141.07 E74.95608
G1 X159.10 Y142.05 E75.08548
G1 X159.43 Y142.23 E75.10897
G1 X161.33 Y143.78 E75.26184
G1 X162.64 Y145.39 E75.39127
G1 X162.88 Y145.68 E75.41480
G1 X163.59 Y147.01 E75.50908
G1 X164.04 Y147.84 E75.56769
G1 X164.57 Y149.61 E75.68310
G1 X164.75 Y150.19 E75.72051
G1 X164.97 Y152.40 E75.85900
G1 X164.99 Y152.63 E75.87366
G1 X164.75 Y155.07 E76.02625
G1 X164.04 Y157.41 E76.17908
G1 X163.70 Y158.04 E76.22372
G1 X162.88 Y159.57 E76.33202
G1 X162.00 Y160.65 E76.41839
G1 X161.56 Y161.18 E76.46150
G1 X161.33 Y161.47 E76.48481
G1 X159.43 Y163.02 E76.63777
G1 X157.27 Y164.18 E76.79066
G1 X154.92 Y164.89 E76.94355
G1 X152.48 Y165.13 E77.09639
G1 X150.04 Y164.89 E77.24929
G1 X147.70 Y164.18 E77.40218
G1 X145.54 Y163.02 E77.55507
G1 X143.64 Y161.47 E77.70795
G1 X142.09 Y159.57 E77.86086
G1 X141.11 Y157.74 E77.99023
G1 X140.93 Y157.41 E78.01364
G1 X140.31 Y155.37 E78.14686
G1 X140.22 Y155.06 E78.16673
G1 X140.01 Y153.00 E78.29600
G1 X139.98 Y152.63 E78.31950
G1 X140.19 Y150.52 E78.45141
G1 X140.19 Y150.52 E78.45148
G1 X140.22 Y150.19 E78.47226
G1 X140.93 Y147.84 E78.62524
G1 X141.32 Y147.11 E78.67710
G1 X142.09 Y145.68 E78.77818
G1 X143.64 Y143.78 E78.93105
G0 F6000 X144.00 Y144.14
G1 F2700 X145.81 Y142.65 E79.07781
G1 X147.89 Y141.54 E79.22459
G1 X150.14 Y140.85 E79.37129
G1 X152.48 Y140.62 E79.51805
G1 X154.82 Y140.85 E79.66475
G1 X155.53 Y141.07 E79.71074
G1 X157.08 Y141.54 E79.81151
G1 X159.15 Y142.65 E79.95823
G1 X160.97 Y144.14 E80.10499
G1 X162.26 Y145.71 E80.23132
G1 X162.46 Y145.96 E80.25179
G1 X163.15 Y147.25 E80.34297
G1 X163.57 Y148.03 E80.39852
G1 X164.26 Y150.28 E80.54522
G1 X164.47 Y152.44 E80.68052
G1 X164.49 Y152.63 E80.69210
G1 X164.26 Y154.97 E80.83867
G1 X163.57 Y157.22 E80.98536
G1 X162.62 Y159.01 E81.11172
G1 X162.46 Y159.29 E81.13214
G1 X161.62 Y160.33 E81.21545
G1 X161.18 Y160.86 E81.25851
G1 X160.97 Y161.11 E81.27885
G1 X159.15 Y162.61 E81.42565
G1 X157.08 Y163.72 E81.57243
G1 X154.82 Y164.40 E81.71913
G1 X152.48 Y164.63 E81.86583
G1 X150.14 Y164.40 E82.01259
G1 X147.89 Y163.72 E82.15929
G1 X145.81 Y162.61 E82.30607
G1 X144.00 Y161.11 E82.45282
G1 X142.50 Y159.29 E82.59958
G1 X141.55 Y157.51 E82.72591
G1 X141.40 Y157.22 E82.74627
G1 X140.79 Y155.22 E82.87638
G1 X140.71 Y154.97 E82.89311
G1 X140.48 Y152.63 E83.03981
G1 X140.68 Y150.57 E83.16841
G1 X140.68 Y150.57 E83.16847
G1 X140.71 Y150.29 E83.18651
G1 X141.40 Y148.03 E83.33330
G1 X141.76 Y147.34 E83.38204
G1 X142.50 Y145.96 E83.48005
G1 X144.00 Y144.14 E83.62681
G0 F6000 X144.35 Y144.49
G1 F2700 X146.09 Y143.06 E83.76741
G1 X148.08 Y142.00 E83.90805
G1 X150.24 Y141.35 E84.04861
G1 X152.48 Y141.13 E84.18923
G1 X154.73 Y141.35 E84.32979
G1 X156.88 Y142.00 E84.47035
G1 X158.87 Y143.06 E84.61100
G1 X160.62 Y144.49 E84.75160
G1 X162.05 Y146.24 E84.89220
G1 X163.11 Y148.23 E85.03284
G1 X163.76 Y150.38 E85.17340
G1 X163.97 Y152.49 E85.30551
G1 X163.98 Y152.63 E85.31402
G1 X163.76 Y154.87 E85.45458
G1 X163.11 Y157.03 E85.59514
G1 X162.05 Y159.01 E85.73573
G1 X160.62 Y160.76 E85.87638
G1 X158.87 Y162.19 E86.01698
G1 X156.88 Y163.25 E86.15762
G1 X154.73 Y163.91 E86.29818
G1 X152.48 Y164.13 E86.43874
G1 X150.24 Y163.91 E86.57936
G1 X148.08 Y163.25 E86.71992
G1 X146.09 Y162.19 E86.86057
G1 X144.35 Y160.76 E87.00116
G1 X142.92 Y159.02 E87.14176
G1 X141.86 Y157.03 E87.28238
G1 X141.20 Y154.87 E87.42296
G1 X140.98 Y152.63 E87.56358
G1 X141.18 Y150.62 E87.68935
G1 X141.20 Y150.38 E87.70413
G1 X141.86 Y148.23 E87.84473
G1 X142.92 Y146.24 E87.98529
G1 X144.35 Y144.49 E88.12593
G0 F6000 X145.06 Y145.21
;TYPE:WALL-INNER
G1 F2700 X146.66 Y143.90 E88.25444
G1 X148.47 Y142.93 E88.38244
G1 X150.44 Y142.33 E88.51115
G1 X152.48 Y142.13 E88.63923
G1 X154.53 Y142.33 E88.76739
G1 X155.10 Y142.50 E88.80432
G1 X156.50 Y142.93 E88.89595
G1 X158.31 Y143.90 E89.02396
G1 X159.91 Y145.21 E89.15246
G1 X161.09 Y146.66 E89.26944
G1 X161.21 Y146.80 E89.28096
G1 X161.83 Y147.96 E89.36279
G1 X162.18 Y148.61 E89.40908
G1 X162.78 Y150.58 E89.53767
G1 X162.98 Y152.58 E89.66293
G1 X162.98 Y152.62 E89.66563
G1 X162.78 Y154.67 E89.79377
G1 X162.18 Y156.64 E89.92236
G1 X161.30 Y158.30 E90.03937
G1 X161.21 Y158.46 E90.05070
G1 X160.46 Y159.38 E90.12466
G1 X160.02 Y159.91 E90.16772
G1 X159.90 Y160.05 E90.17907
G1 X158.31 Y161.35 E90.30748
G1 X156.50 Y162.32 E90.43548
G1 X154.53 Y162.92 E90.56419
G1 X152.48 Y163.12 E90.69221
G1 X150.44 Y162.92 E90.82030
G1 X148.47 Y162.32 E90.94900
G1 X146.66 Y161.35 E91.07701
G1 X145.06 Y160.05 E91.20551
G1 X143.76 Y158.46 E91.33384
G1 X142.87 Y156.80 E91.45093
G1 X142.79 Y156.65 E91.46198
G1 X142.22 Y154.79 E91.58295
G1 X142.19 Y154.67 E91.59045
G1 X141.99 Y152.63 E91.71879
G1 X142.18 Y150.72 E91.83849
G1 X142.19 Y150.58 E91.84713
G1 X142.79 Y148.61 E91.97540
G1 X143.09 Y148.05 E92.01488
G1 X143.75 Y146.80 E92.10349
G1 X145.06 Y145.21 E92.23199
G0 F6000 X149.65 Y149.80
G1 F2700 X149.16 Y150.40 E92.28091
G1 X148.79 Y151.09 E92.32987
G1 X148.56 Y151.85 E92.37882
G1 X148.48 Y152.63 E92.42770
G1 X148.56 Y153.41 E92.47665
G1 X148.79 Y154.16 E92.52559
G1 X149.16 Y154.85 E92.57456
G1 X149.65 Y155.46 E92.62347
G1 X150.26 Y155.96 E92.67244
G1 X150.95 Y156.32 E92.72137
G1 X151.70 Y156.55 E92.77032
G1 X152.48 Y156.63 E92.81926
G1 X153.26 Y156.55 E92.86814
G1 X154.02 Y156.32 E92.91714
G1 X154.71 Y155.95 E92.96611
G1 X155.31 Y155.46 E93.01499
G1 X155.81 Y154.85 E93.06390
G1 X156.18 Y154.16 E93.11289
G1 X156.41 Y153.41 E93.16184
G1 X156.49 Y152.63 E93.21078
G1 X156.41 Y151.85 E93.25966
G1 X156.18 Y151.09 E93.30860
G1 X155.81 Y150.40 E93.35759
G1 X155.31 Y149.80 E93.40651
G1 X154.71 Y149.30 E93.45539
G1 X154.01 Y148.93 E93.50441
G1 X153.26 Y148.70 E93.55333
G1 X152.48 Y148.62 E93.60222
G1 X151.70 Y148.70 E93.65117
G1 X150.95 Y148.93 E93.70004
G1 X150.26 Y149.30 E93.74903
G1 X149.65 Y149.80 E93.79799
G0 F6000 X150.01 Y150.15
;TYPE:WALL-OUTER
G1 F2700 X149.57 Y150.68 E93.84075
G1 X149.25 Y151.29 E93.88357
G1 X149.05 Y151.94 E93.92639
G1 X148.98 Y152.63 E93.96913
G1 X149.05 Y153.31 E94.01193
G1 X149.25 Y153.97 E94.05474
G1 X149.57 Y154.57 E94.09757
G1 X150.01 Y155.10 E94.14033
G1 X150.54 Y155.54 E94.18313
G1 X151.15 Y155.86 E94.22599
G1 X151.80 Y156.06 E94.26874
G1 X152.48 Y156.13 E94.31154
G1 X153.17 Y156.06 E94.35427
G1 X153.82 Y155.86 E94.39708
G1 X154.43 Y155.54 E94.43994
G1 X154.96 Y155.10 E94.48270
G1 X155.40 Y154.57 E94.52550
G1 X155.72 Y153.97 E94.56832
G1 X155.92 Y153.31 E94.61113
G1 X155.98 Y152.63 E94.65393
G1 X155.92 Y151.94 E94.69667
G1 X155.72 Y151.29 E94.73948
G1 X155.40 Y150.68 E94.78230
G1 X154.96 Y150.15 E94.82510
G1 X154.43 Y149.72 E94.86786
G1 X153.82 Y149.39 E94.91072
G1 X153.17 Y149.19 E94.95351
G1 X152.48 Y149.13 E94.99625
G1 X151.80 Y149.19 E95.03905
G1 X151.15 Y149.39 E95.08179
G1 X150.54 Y149.72 E95.12464
G1 X150.01 Y150.15 E95.16745
G0 F6000 X149.79 Y149.88
G0 X144.95 Y145.10
G0 X144.71 Y144.85
G1 F2700 X146.38 Y143.48 E95.30202
G1 X148.27 Y142.47 E95.43633
G1 X150.34 Y141.84 E95.57076
G1 X152.48 Y141.63 E95.70530
G1 X154.63 Y141.84 E95.83991
G1 X156.69 Y142.47 E95.97416
G1 X158.59 Y143.48 E96.10853
G1 X160.26 Y144.85 E96.24310
G1 X161.63 Y146.52 E96.37767
G1 X162.65 Y148.42 E96.51198
G1 X163.27 Y150.48 E96.64635
G1 X163.47 Y152.54 E96.77532
G1 X163.48 Y152.62 E96.78077
G1 X163.27 Y154.77 E96.91543
G1 X162.65 Y156.83 E97.04961
G1 X161.62 Y158.74 E97.18462
G1 X160.26 Y160.40 E97.31852
G1 X158.59 Y161.77 E97.45332
G1 X156.69 Y162.79 E97.58763
G1 X154.63 Y163.41 E97.72206
G1 X152.48 Y163.62 E97.85654
G1 X150.34 Y163.41 E97.99108
G1 X148.27 Y162.79 E98.12551
G1 X146.38 Y161.77 E98.25982
G1 X144.71 Y160.40 E98.39439
G1 X143.34 Y158.74 E98.52874
G1 X142.32 Y156.83 E98.66350
G1 X141.70 Y154.77 E98.79769
G1 X141.49 Y152.63 E98.93223
G1 X141.68 Y150.67 E99.05493
G1 X141.70 Y150.48 E99.06671
G1 X142.32 Y148.42 E99.20090
G1 X143.34 Y146.51 E99.33566
G1 X144.71 Y144.85 E99.47000
G0 F6000 X145.09 Y145.44
;TYPE:FILL
G1 F2700 X149.43 Y149.79 E99.85290
G0 F6000 X149.80 Y149.45
G1 F2700 X145.46 Y145.11 E100.23566
G0 F6000 X145.85 Y144.79
G1 F2700 X150.19 Y149.13 E100.61895
G0 F6000 X150.65 Y148.89
G1 F2700 X146.24 Y144.47 E101.00860
G0 F6000 X146.62 Y144.15
G1 F2700 X151.16 Y148.68 E101.40847
G0 F6000 X151.71 Y148.52
G1 F2700 X147.06 Y143.88 E101.81813
G0 F6000 X147.52 Y143.63
G1 F2700 X152.35 Y148.46 E102.24402
G0 F6000 X153.10 Y148.51
G1 F2700 X147.98 Y143.38 E102.69593
G0 F6000 X148.44 Y143.14
G1 F2700 X154.06 Y148.76 E103.19167
G0 F6000 X156.35 Y151.04
G1 F2700 X161.97 Y156.66 E103.68745
G0 F6000 X161.72 Y157.13
G1 F2700 X156.60 Y152.00 E104.13932
G0 F6000 X156.65 Y152.76
G1 F2700 X161.48 Y157.59 E104.56521
G0 F6000 X161.23 Y158.05
G1 F2700 X156.59 Y153.40 E104.97487
G0 F6000 X156.43 Y153.95
G1 F2700 X160.96 Y158.49 E105.37474
G0 F6000 X160.64 Y158.87
G1 F2700 X156.22 Y154.45 E105.76460
G0 F6000 X155.97 Y154.91
G1 F2700 X160.32 Y159.26 E106.14803
G0 F6000 X160.00 Y159.65
G1 F2700 X155.66 Y155.31 E106.53101
G0 F6000 X155.32 Y155.68
G1 F2700 X159.66 Y160.02 E106.91386
G0 F6000 X159.28 Y160.34
G1 F2700 X154.93 Y155.99 E107.29676
G0 F6000 X154.50 Y156.26
G1 F2700 X158.89 Y160.66 E107.68393
G0 F6000 X158.50 Y160.97
G1 F2700 X154.03 Y156.50 E108.07825
G0 F6000 X153.49 Y156.67
G1 F2700 X158.09 Y161.27 E108.48451
G0 F6000 X157.63 Y161.52
G1 F2700 X152.88 Y156.77 E108.90379
G0 F6000 X152.18 Y156.77
G1 F2700 X157.17 Y161.77 E109.34406
G0 F6000 X156.71 Y162.01
G1 F2700 X151.31 Y156.62 E109.82004
G0 F6000 X149.76 Y155.77
G1 F2700 X156.22 Y162.23 E110.38911
G0 F6000 X155.67 Y162.39
G1 F2700 X142.72 Y149.44 E111.53167
G0 F6000 X142.55 Y149.98
G1 F2700 X155.13 Y162.56 E112.64084
G0 F6000 X154.59 Y162.72
G1 F2700 X142.39 Y150.52 E113.71664
G0 F6000 X142.31 Y151.15
G1 F2700 X153.96 Y162.80 E114.74437
G0 F6000 X153.32 Y162.86
G1 F2700 X142.25 Y151.79 E115.72085
G0 F6000 X142.18 Y152.43
G1 F2700 X152.67 Y162.93 E116.64627
G0 F6000 X151.93 Y162.89
G1 F2700 X142.22 Y153.18 E117.50304
G0 F6000 X142.29 Y153.96
G1 F2700 X151.15 Y162.81 E118.28378
G0 F6000 X150.33 Y162.71
G1 F2700 X142.40 Y154.78 E118.98298
G0 F6000 X142.71 Y155.79
G1 F2700 X149.32 Y162.40 E119.56559
G0 F6000 X148.19 Y161.97
G1 F2700 X143.13 Y156.92 E120.01128
G0 F6000 X144.09 Y158.59
G1 F2700 X146.52 Y161.02 E120.22595
G0 F6000 X149.34 Y155.35
G1 F2700 X142.88 Y148.89 E120.79502
G0 F6000 X143.10 Y148.40
G1 F2700 X148.50 Y153.80 E121.27109
G0 F6000 X148.34 Y152.93
G1 F2700 X143.34 Y147.94 E121.71136
G0 F6000 X143.59 Y147.48
G1 F2700 X148.34 Y152.23 E122.13072
G0 F6000 X148.44 Y151.62
G1 F2700 X143.84 Y147.02 E122.53703
G0 F6000 X144.13 Y146.61
G1 F2700 X148.61 Y151.08 E122.93153
G0 F6000 X148.84 Y150.61
G1 F2700 X144.45 Y146.22 E123.31879
G0 F6000 X144.77 Y145.83
G1 F2700 X149.11 Y150.18 E123.70177
G0 F6000 X148.97 Y142.96
G1 F2700 X162.15 Y156.14 E124.86422
G0 F6000 X162.31 Y155.60
G1 F2700 X149.51 Y142.79 E125.99323
G0 F6000 X150.06 Y142.63
G1 F2700 X162.48 Y155.05 E127.08887
G0 F6000 X162.62 Y154.49
G1 F2700 X150.62 Y142.49 E128.14694
G0 F6000 X151.26 Y142.43
G1 F2700 X162.68 Y153.84 E129.15394
G0 F6000 X162.75 Y153.20
G1 F2700 X151.91 Y142.36 E130.10974
G0 F6000 X152.57 Y142.31
G1 F2700 X162.79 Y152.54 E131.01180
G0 F6000 X162.72 Y151.76
G1 F2700 X153.35 Y142.39 E131.83773
G0 F6000 X154.14 Y142.47
G1 F2700 X162.64 Y150.97 E132.58774
G0 F6000 X162.44 Y150.06
G1 F2700 X155.04 Y142.67 E133.23967
G0 F6000 X156.06 Y142.98
G1 F2700 X162.13 Y149.05 E133.77497
G0 F6000 X161.50 Y147.72
G1 F2700 X157.39 Y143.61 E134.13736
;LAYER:1
G0 F6000 X161.32 Y138.94 Z0.50
;TYPE:WALL-INNER
G1 F3480 X161.50 Y139.03 E134.14587
G1 X162.06 Y139.50 E134.17632
G1 X162.56 Y139.84 E134.20135
G1 X163.40 Y139.18 E134.24581
G1 X163.71 Y139.44 E134.26255
G1 X163.19 Y140.42 E134.30898
G1 X163.95 Y141.05 E134.35007
G1 X165.96 Y143.50 E134.48173
G1 X166.25 Y144.06 E134.50799
G1 X167.32 Y143.71 E134.55456
G1 X167.50 Y144.06 E134.57102
G1 X166.67 Y144.81 E134.61788
G1 X167.46 Y146.29 E134.68771
G1 X168.17 Y148.64 E134.78944
G1 X168.37 Y149.28 E134.81729
G1 X169.48 Y149.31 E134.86359
G1 X169.52 Y149.69 E134.87913
G1 X168.46 Y150.12 E134.92670
G1 X168.69 Y152.41 E135.02229
G1 X168.70 Y152.50 E135.02605
G1 X168.53 Y154.24 E135.09846
G1 X168.47 Y154.88 E135.12546
G1 X169.52 Y155.31 E135.17269
G1 X169.48 Y155.69 E135.18840
G1 X168.37 Y155.72 E135.23487
G1 X167.51 Y158.54 E135.35717
G1 X167.46 Y158.70 E135.36417
G1 X166.96 Y159.64 E135.40836
G1 X166.68 Y160.20 E135.43439
G1 X167.50 Y160.94 E135.48052
G1 X167.32 Y161.29 E135.49698
G1 X166.26 Y160.95 E135.54306
G1 X165.97 Y161.50 E135.56896
G1 X164.11 Y163.76 E135.69084
G1 X163.95 Y163.96 E135.70147
G1 X163.19 Y164.58 E135.74210
G1 X163.71 Y165.56 E135.78856
G1 X163.40 Y165.82 E135.80528
G1 X162.52 Y165.13 E135.85191
G1 X161.49 Y165.97 E135.90717
G1 X159.03 Y167.29 E136.02307
G1 X158.43 Y167.61 E136.05132
G1 X158.58 Y168.64 E136.09472
G1 X158.20 Y168.76 E136.11114
G1 X157.60 Y167.80 E136.15814
G1 X155.71 Y168.37 E136.24051
G1 X155.66 Y168.39 E136.24269
G1 X153.58 Y168.59 E136.32941
G1 X152.92 Y168.66 E136.35684
G1 X152.69 Y169.78 E136.40427
G1 X152.49 Y169.80 E136.41234
G1 X152.32 Y169.78 E136.41977
G1 X152.07 Y168.66 E136.46749
G1 X149.47 Y168.40 E136.57650
G1 X149.34 Y168.39 E136.58192
G1 X148.01 Y167.98 E136.63969
G1 X147.39 Y167.81 E136.66616
G1 X146.80 Y168.76 E136.71272
G1 X146.42 Y168.64 E136.72910
G1 X146.57 Y167.61 E136.77267
G1 X143.68 Y166.06 E136.90866
G1 X143.50 Y165.97 E136.91717
G1 X142.94 Y165.50 E136.94762
G1 X142.44 Y165.16 E136.97265
G1 X141.60 Y165.82 E137.01705
G1 X141.29 Y165.57 E137.03365
G1 X141.81 Y164.57 E137.08012
G1 X141.05 Y163.95 E137.12101
G1 X139.04 Y161.50 E137.25267
G1 X138.75 Y160.94 E137.27893
G1 X137.68 Y161.29 E137.32550
G1 X137.50 Y160.94 E137.34196
G1 X138.33 Y160.19 E137.38882
G1 X137.54 Y158.71 E137.45865
G1 X136.83 Y156.36 E137.56038
G1 X136.63 Y155.72 E137.58824
G1 X135.52 Y155.69 E137.63450
G1 X135.48 Y155.31 E137.65008
G1 X136.54 Y154.88 E137.69765
G1 X136.31 Y152.59 E137.79324
G1 X136.30 Y152.50 E137.79700
G1 X136.47 Y150.76 E137.86941
G1 X136.53 Y150.12 E137.89641
G1 X135.48 Y149.69 E137.94364
G1 X135.52 Y149.31 E137.95935
G1 X136.63 Y149.27 E138.00578
G1 X137.49 Y146.46 E138.12805
G1 X137.54 Y146.30 E138.13505
G1 X138.04 Y145.36 E138.17924
G1 X138.32 Y144.80 E138.20527
G1 X137.50 Y144.06 E138.25140
G1 X137.68 Y143.71 E138.26786
G1 X138.72 Y144.05 E138.31302
G1 X139.04 Y143.49 E138.33973
G1 X140.89 Y141.24 E138.46093
G1 X141.05 Y141.04 E138.47162
G1 X141.81 Y140.42 E138.51224
G1 X141.29 Y139.44 E138.55870
G1 X141.60 Y139.18 E138.57542
G1 X142.48 Y139.87 E138.62205
G1 X143.50 Y139.03 E138.67690
G1 X145.97 Y137.71 E138.79320
G1 X146.57 Y137.39 E138.82146
G1 X146.42 Y136.36 E138.86486
G1 X146.80 Y136.24 E138.88110
G1 X147.40 Y137.20 E138.92815
G1 X149.29 Y136.63 E139.01053
G1 X149.34 Y136.61 E139.01271
G1 X151.42 Y136.41 E139.09943
G1 X152.08 Y136.34 E139.12686
G1 X152.31 Y135.22 E139.17429
G1 X152.51 Y135.20 E139.18235
G1 X152.68 Y135.22 E139.18975
G1 X152.93 Y136.34 E139.23760
G1 X155.54 Y136.60 E139.34643
G1 X155.66 Y136.61 E139.35178
G1 X156.99 Y137.02 E139.40959
G1 X157.61 Y137.19 E139.43606
G1 X158.20 Y136.24 E139.48262
G1 X158.58 Y136.36 E139.49899
G1 X158.43 Y137.39 E139.54257
G1 X161.32 Y138.94 E139.67855
G0 F6000 X154.71 Y149.30
G1 F3480 X154.01 Y148.93 E139.71123
G1 X153.26 Y148.70 E139.74385
G1 X152.48 Y148.62 E139.77644
G1 X151.70 Y148.70 E139.80907
G1 X150.95 Y148.93 E139.84165
G1 X150.26 Y149.30 E139.87431
G1 X149.65 Y149.80 E139.90695
G1 X149.16 Y150.40 E139.93956
G1 X148.79 Y151.09 E139.97220
G1 X148.56 Y151.85 E140.00483
G1 X148.48 Y152.63 E140.03743
G1 X148.56 Y153.41 E140.07006
G1 X148.79 Y154.16 E140.10269
G1 X149.16 Y154.85 E140.13533
G1 X149.65 Y155.46 E140.16794
G1 X150.26 Y155.96 E140.20058
G1 X150.95 Y156.32 E140.23321
G1 X151.70 Y156.55 E140.26584
G1 X152.48 Y156.63 E140.29846
G1 X153.26 Y156.55 E140.33105
G1 X154.02 Y156.32 E140.36372
G1 X154.71 Y155.95 E140.39636
G1 X155.31 Y155.46 E140.42895
G1 X155.81 Y154.85 E140.46156
G1 X156.18 Y154.16 E140.49422
G1 X156.41 Y153.41 E140.52685
G1 X156.49 Y152.63 E140.55948
G1 X156.41 Y151.85 E140.59206
G1 X156.18 Y151.09 E140.62469
G1 X155.81 Y150.40 E140.65735
G1 X155.31 Y149.80 E140.68996
G1 X154.71 Y149.30 E140.72255
G0 F6000 X154.43 Y149.72
;TYPE:WALL-OUTER
G1 F3480 X153.82 Y149.39 E140.75112
G1 X153.17 Y149.19 E140.77965
G1 X152.48 Y149.13 E140.80814
G1 X151.80 Y149.19 E140.83668
G1 X151.15 Y149.39 E140.86517
G1 X150.54 Y149.72 E140.89374
G1 X150.01 Y150.15 E140.92227
G1 X149.57 Y150.68 E140.95078
G1 X149.25 Y151.29 E140.97933
G1 X149.05 Y151.94 E141.00787
G1 X148.98 Y152.63 E141.03637
G1 X149.05 Y153.31 E141.06490
G1 X149.25 Y153.97 E141.09344
G1 X149.57 Y154.57 E141.12199
G1 X150.01 Y155.10 E141.15050
G1 X150.54 Y155.54 E141.17904
G1 X151.15 Y155.86 E141.20761
G1 X151.80 Y156.06 E141.23611
G1 X152.48 Y156.13 E141.26464
G1 X153.17 Y156.06 E141.29313
G1 X153.82 Y155.86 E141.32167
G1 X154.43 Y155.54 E141.35024
G1 X154.96 Y155.10 E141.37875
G1 X155.40 Y154.57 E141.40728
G1 X155.72 Y153.97 E141.43583
G1 X155.92 Y153.31 E141.46437
G1 X155.98 Y152.63 E141.49290
G1 X155.92 Y151.94 E141.52139
G1 X155.72 Y151.29 E141.54993
G1 X155.40 Y150.68 E141.57848
G1 X154.96 Y150.15 E141.60701
G1 X154.43 Y149.72 E141.63552
G0 F6000 X154.59 Y149.41
G0 X162.14 Y139.37
G0 X162.36 Y139.10
G1 F3480 X162.54 Y139.22 E141.64440
G1 X163.41 Y138.54 E141.69028
G1 X164.35 Y139.31 E141.74065
G1 X163.82 Y140.29 E141.78705
G1 X164.31 Y140.69 E141.81314
G1 X166.38 Y143.22 E141.94911
G1 X166.50 Y143.45 E141.95986
G1 X167.56 Y143.10 E142.00621
G1 X168.13 Y144.17 E142.05635
G1 X167.29 Y144.92 E142.10319
G1 X167.90 Y146.06 E142.15660
G1 X167.93 Y146.11 E142.15932
G1 X168.65 Y148.49 E142.26253
G1 X168.74 Y148.79 E142.27559
G1 X169.90 Y148.83 E142.32355
G1 X169.96 Y149.03 E142.33211
G1 X170.05 Y150.01 E142.37310
G1 X169.00 Y150.44 E142.42067
G1 X169.19 Y152.36 E142.50076
G1 X169.20 Y152.50 E142.50656
G1 X169.02 Y154.28 E142.58102
G1 X169.00 Y154.56 E142.59250
G1 X170.05 Y154.99 E142.63987
G1 X169.97 Y155.89 E142.67755
G1 X169.96 Y155.97 E142.68115
G1 X169.90 Y156.17 E142.68971
G1 X168.74 Y156.21 E142.73776
G1 X167.99 Y158.68 E142.84516
G1 X167.93 Y158.90 E142.85433
G1 X167.41 Y159.87 E142.90023
G1 X167.30 Y160.08 E142.91014
G1 X168.13 Y160.83 E142.95671
G1 X167.56 Y161.90 E143.00686
G1 X166.51 Y161.55 E143.05302
G1 X166.38 Y161.78 E143.06366
G1 X164.30 Y164.31 E143.20016
G1 X163.82 Y164.71 E143.22581
G1 X164.35 Y165.69 E143.27222
G1 X163.41 Y166.46 E143.32258
G1 X162.53 Y165.77 E143.36920
G1 X161.79 Y166.37 E143.40875
G1 X159.27 Y167.73 E143.52774
G1 X158.98 Y167.88 E143.54153
G1 X159.13 Y169.00 E143.58828
G1 X157.98 Y169.35 E143.63833
G1 X157.38 Y168.39 E143.68537
G1 X155.85 Y168.85 E143.75171
G1 X155.76 Y168.88 E143.75589
G1 X153.63 Y169.09 E143.84470
G1 X153.34 Y169.12 E143.85696
G1 X153.10 Y170.24 E143.90452
G1 X152.55 Y170.29 E143.92766
G1 X152.50 Y170.30 E143.92959
G1 X151.91 Y170.24 E143.95436
G1 X151.74 Y169.50 E143.98584
G1 X151.66 Y169.12 E144.00212
G1 X149.42 Y168.90 E144.09583
G1 X149.24 Y168.88 E144.10322
G1 X147.87 Y168.46 E144.16302
G1 X147.62 Y168.39 E144.17369
G1 X147.02 Y169.35 E144.22058
G1 X145.87 Y169.00 E144.27062
G1 X146.03 Y167.88 E144.31747
G1 X143.22 Y166.38 E144.44968
G1 X142.64 Y165.90 E144.48119
G1 X142.46 Y165.78 E144.49007
G1 X141.59 Y166.46 E144.53595
G1 X140.66 Y165.70 E144.58602
G1 X141.18 Y164.70 E144.63253
G1 X140.69 Y164.31 E144.65856
G1 X138.62 Y161.78 E144.79453
G1 X138.50 Y161.55 E144.80528
G1 X137.44 Y161.90 E144.85163
G1 X136.87 Y160.83 E144.90177
G1 X137.71 Y160.08 E144.94861
G1 X137.10 Y158.94 E145.00203
G1 X137.07 Y158.89 E145.00474
G1 X136.35 Y156.51 E145.10795
G1 X136.26 Y156.21 E145.12101
G1 X135.10 Y156.17 E145.16897
G1 X135.04 Y155.97 E145.17753
G1 X134.95 Y154.99 E145.21852
G1 X136.00 Y154.56 E145.26609
G1 X135.81 Y152.64 E145.34618
G1 X135.80 Y152.50 E145.35198
G1 X135.98 Y150.72 E145.42644
G1 X136.00 Y150.44 E145.43792
G1 X134.95 Y150.01 E145.48529
G1 X135.04 Y149.03 E145.52653
G1 X135.10 Y148.83 E145.53513
G1 X136.26 Y148.79 E145.58313
G1 X137.01 Y146.32 E145.69059
G1 X137.07 Y146.10 E145.69975
G1 X137.59 Y145.13 E145.74566
G1 X137.70 Y144.92 E145.75557
G1 X136.87 Y144.17 E145.80214
G1 X137.44 Y143.10 E145.85228
G1 X138.49 Y143.45 E145.89814
G1 X138.63 Y143.20 E145.90986
G1 X140.70 Y140.69 E146.04533
G1 X141.18 Y140.29 E146.07100
G1 X140.65 Y139.31 E146.11740
G1 X141.59 Y138.54 E146.16777
G1 X142.47 Y139.23 E146.21439
G1 X143.22 Y138.61 E146.25474
G1 X146.02 Y137.12 E146.38676
G1 X145.87 Y136.00 E146.43352
G1 X147.01 Y135.66 E146.48331
G1 X147.41 Y136.27 E146.51378
G1 X147.62 Y136.61 E146.53041
G1 X149.15 Y136.15 E146.59675
G1 X149.24 Y136.12 E146.60093
G1 X151.37 Y135.91 E146.68975
G1 X151.66 Y135.88 E146.70200
G1 X151.90 Y134.76 E146.74956
G1 X152.48 Y134.70 E146.77388
G1 X152.50 Y134.70 E146.77467
G1 X153.09 Y134.76 E146.79940
G1 X153.34 Y135.88 E146.84721
G1 X155.58 Y136.10 E146.94088
G1 X155.76 Y136.12 E146.94823
G1 X157.13 Y136.54 E147.00803
G1 X157.38 Y136.61 E147.01869
G1 X157.98 Y135.65 E147.06559
G1 X159.13 Y136.00 E147.11563
G1 X158.97 Y137.12 E147.16248
G1 X161.78 Y138.62 E147.29469
G1 X162.36 Y139.10 E147.32619
G0 F6000 X161.95 Y139.63
;TYPE:FILL
G1 F3480 X153.07 Y148.51 E147.84813
G0 F6000 X153.65 Y148.63
G1 F3480 X162.37 Y139.92 E148.36054
G0 F6000 X163.11 Y140.59
G1 F3480 X154.64 Y149.06 E148.85889
G0 F6000 X155.05 Y149.36
G1 F3480 X163.50 Y140.91 E149.35578
G0 F6000 X163.88 Y141.24
G1 F3480 X155.44 Y149.68 E149.85193
G0 F6000 X155.76 Y150.06
G1 F3480 X164.20 Y141.62 E150.34805
G0 F6000 X164.52 Y142.01
G1 F3480 X156.05 Y150.48 E150.84582
G0 F6000 X156.30 Y150.94
G1 F3480 X164.84 Y142.40 E151.34788
G0 F6000 X165.16 Y142.79
G1 F3480 X156.48 Y151.47 E151.85811
G0 F6000 X156.60 Y152.05
G1 F3480 X165.47 Y143.18 E152.37964
G0 F6000 X165.79 Y143.57
G1 F3480 X156.65 Y152.71 E152.91700
G0 F6000 X156.56 Y153.50
G1 F3480 X166.04 Y144.03 E153.47419
G0 F6000 X166.67 Y144.11
G1 F3480 X156.11 Y154.66 E154.09484
G0 F6000 X154.52 Y156.25
G1 F3480 X144.48 Y166.29 E154.68515
G0 F6000 X144.94 Y166.54
G1 F3480 X166.54 Y144.94 E155.95488
G0 F6000 X166.78 Y145.40
G1 F3480 X145.40 Y166.78 E157.21203
G0 F6000 X145.86 Y167.03
G1 F3480 X167.03 Y145.86 E158.45657
G0 F6000 X167.28 Y146.32
G1 F3480 X146.32 Y167.28 E159.68853
G0 F6000 X146.75 Y167.56
G1 F3480 X167.45 Y146.86 E160.90543
G0 F6000 X167.61 Y147.40
G1 F3480 X147.39 Y167.62 E162.09450
G0 F6000 X147.15 Y167.87
G1 F3480 X146.64 Y168.38 E162.12460
G0 F6000 X147.94 Y167.78
G1 F3480 X167.78 Y147.94 E163.29091
G0 F6000 X167.94 Y148.49
G1 F3480 X148.49 Y167.94 E164.43497
G0 F6000 X149.03 Y168.11
G1 F3480 X168.11 Y149.03 E165.55692
G0 F6000 X168.39 Y149.45
G1 F3480 X149.61 Y168.24 E166.66134
G0 F6000 X150.25 Y168.30
G1 F3480 X168.30 Y150.25 E167.72235
G0 F6000 X168.72 Y149.83
G1 F3480 X169.07 Y149.48 E167.74293
G0 F6000 X168.36 Y150.90
G1 F3480 X150.90 Y168.36 E168.76986
G0 F6000 X151.54 Y168.43
G1 F3480 X168.43 Y151.54 E169.76278
G0 F6000 X168.49 Y152.18
G1 F3480 X152.18 Y168.49 E170.72163
G0 F6000 X152.34 Y169.04
G1 F3480 X152.75 Y168.63 E170.74603
G0 F6000 X152.89 Y168.49
G1 F3480 X168.48 Y152.90 E171.66290
G0 F6000 X168.41 Y153.68
G1 F3480 X153.68 Y168.41 E172.52902
G0 F6000 X154.46 Y168.33
G1 F3480 X168.33 Y154.46 E173.34450
G0 F6000 X168.44 Y155.06
G1 F3480 X155.25 Y168.25 E174.12020
G0 F6000 X156.16 Y168.05
G1 F3480 X168.05 Y156.16 E174.81961
G0 F6000 X168.67 Y155.54
G1 F3480 X168.94 Y155.26 E174.83577
G0 F6000 X167.74 Y157.17
G1 F3480 X157.17 Y167.74 E175.45743
G0 F6000 X157.81 Y167.81
G1 F3480 X167.44 Y158.19 E176.02310
G0 F6000 X166.84 Y159.49
G1 F3480 X159.48 Y166.85 E176.45605
G0 F6000 X158.31 Y168.02
G1 F3480 X158.09 Y168.24 E176.46945
G0 F6000 X158.53 Y167.66
G0 X161.00 Y166.04
G1 F3480 X166.03 Y161.00 E176.76543
G0 F6000 X166.27 Y160.76
G1 F3480 X166.83 Y160.56 E176.78708
G1 X166.81 Y160.94 E176.80269
G0 F6000 X166.31 Y161.06
G0 X163.05 Y164.69
G1 F3480 X162.90 Y165.20 E176.82346
G1 X163.30 Y165.15 E176.84029
G0 F6000 X153.36 Y156.70
G1 F3480 X144.02 Y166.05 E177.38956
G0 F6000 X143.56 Y165.79
G1 F3480 X152.56 Y156.80 E177.91861
G0 F6000 X151.90 Y156.75
G1 F3480 X143.18 Y165.47 E178.43172
G0 F6000 X142.77 Y165.18
G1 F3480 X151.32 Y156.62 E178.93478
G0 F6000 X150.80 Y156.44
G1 F3480 X141.79 Y165.44 E179.46418
G0 F6000 X142.01 Y164.52
G1 F3480 X150.34 Y156.19 E179.95352
G0 F6000 X149.92 Y155.90
G1 F3480 X141.62 Y164.20 E180.44129
G0 F6000 X141.24 Y163.88
G1 F3480 X149.53 Y155.58 E180.92909
G0 F6000 X149.21 Y155.20
G1 F3480 X140.91 Y163.50 E181.41745
G0 F6000 X140.59 Y163.11
G1 F3480 X148.92 Y154.78 E181.90737
G0 F6000 X148.67 Y154.32
G1 F3480 X140.27 Y162.73 E182.40161
G0 F6000 X139.95 Y162.34
G1 F3480 X148.49 Y153.79 E182.90394
G0 F6000 X148.36 Y153.22
G1 F3480 X139.63 Y161.95 E183.41737
G0 F6000 X139.31 Y161.56
G1 F3480 X148.31 Y152.56 E183.94642
G0 F6000 X148.40 Y151.77
G1 F3480 X139.04 Y161.13 E184.49675
G0 F6000 X138.68 Y160.78
G1 F3480 X148.84 Y150.62 E185.09406
G0 F6000 X150.48 Y148.98
G1 F3480 X160.67 Y138.79 E185.69343
G0 F6000 X161.13 Y139.03
G1 F3480 X151.62 Y148.54 E186.25253
G0 F6000 X152.42 Y148.46
G1 F3480 X161.56 Y139.31 E186.79016
G0 F6000 X160.21 Y138.54
G1 F3480 X138.54 Y160.21 E188.06409
G0 F6000 X138.33 Y160.42
G1 F3480 X137.75 Y161.00 E188.09820
G0 F6000 X138.30 Y159.75
G1 F3480 X159.75 Y138.29 E189.35955
G0 F6000 X159.29 Y138.05
G1 F3480 X138.05 Y159.29 E190.60826
G0 F6000 X137.80 Y158.83
G1 F3480 X158.83 Y137.80 E191.84439
G0 F6000 X158.37 Y137.56
G1 F3480 X137.60 Y158.32 E193.06509
G0 F6000 X137.44 Y157.78
G1 F3480 X158.32 Y136.89 E194.29305
G0 F6000 X157.24 Y137.27
G1 F3480 X137.27 Y157.24 E195.46691
G0 F6000 X137.11 Y156.69
G1 F3480 X156.69 Y137.11 E196.61838
G0 F6000 X156.15 Y136.94
G1 F3480 X136.94 Y156.15 E197.74773
G0 F6000 X136.78 Y155.61
G1 F3480 X155.60 Y136.78 E198.85469
G0 F6000 X154.96 Y136.72
G1 F3480 X136.72 Y154.96 E199.92704
G0 F6000 X136.67 Y155.01
G1 F3480 X136.15 Y155.53 E199.95794
G0 F6000 X136.66 Y154.31
G1 F3480 X154.32 Y136.66 E200.99622
G0 F6000 X153.67 Y136.59
G1 F3480 X136.59 Y153.67 E202.00043
G0 F6000 X136.53 Y153.03
G1 F3480 X153.03 Y136.53 E202.97054
G0 F6000 X152.71 Y136.15
G1 F3480 X136.49 Y152.36 E203.92392
G0 F6000 X136.57 Y151.58
G1 F3480 X151.58 Y136.56 E204.80680
G0 F6000 X150.80 Y136.64
G1 F3480 X136.64 Y150.79 E205.63900
G0 F6000 X136.72 Y150.01
G1 F3480 X150.01 Y136.72 E206.42061
G0 F6000 X149.18 Y136.84
G1 F3480 X136.84 Y149.18 E207.14592
G0 F6000 X136.57 Y149.45
G1 F3480 X136.03 Y149.64 E207.16657
G1 X135.73 Y149.59 E207.17937
G0 F6000 X136.57 Y149.19
G0 X137.15 Y148.16
G1 F3480 X148.16 Y137.15 E207.82687
G0 F6000 X147.27 Y137.34
G1 F3480 X137.46 Y147.15 E208.40386
G0 F6000 X137.88 Y146.02
G1 F3480 X146.02 Y137.88 E208.88244
G0 F6000 X146.71 Y137.19
G1 F3480 X146.81 Y136.73 E208.89929
G1 X146.71 Y136.49 E208.91049
G0 F6000 X146.47 Y137.34
G0 X144.50 Y138.69
G1 F3480 X138.48 Y144.71 E209.26438
G0 F6000 X138.11 Y144.38
G1 F3480 X138.10 Y144.03 E209.27972
G1 X137.74 Y144.04 E209.29495
G0 F6000 X138.67 Y143.93
G0 X140.51 Y141.98
G1 F3480 X141.97 Y140.52 E209.38085
G0 F6000 X142.03 Y140.46
G1 F3480 X142.23 Y139.90 E209.40461
G1 X141.66 Y139.77 E209.41946
G1 X141.64 Y139.44 E209.43329
G0 F6000 X142.48 Y139.75
G0 X146.47 Y137.34
G0 X152.00 Y136.26
G0 X152.38 Y135.77
G1 F3480 X152.58 Y135.57 E209.44522
G0 F6000 X153.00 Y136.26
G0 X157.57 Y137.09
G0 X162.56 Y139.73
G0 X163.46 Y139.53
G1 F3480 X154.18 Y148.82 E209.99109
;LAYER:2
G0 F6000 X154.01 Y148.93 Z0.70
;TYPE:WALL-INNER
G1 F4320 X153.26 Y148.70 E210.02371
G1 X152.48 Y148.62 E210.05630
G1 X151.70 Y148.70 E210.08893
G1 X150.95 Y148.93 E210.12151
G1 X150.26 Y149.30 E210.15417
G1 X149.65 Y149.80 E210.18681
G1 X149.16 Y150.40 E210.21942
G1 X148.79 Y151.09 E210.25206
G1 X148.56 Y151.85 E210.28469
G1 X148.48 Y152.63 E210.31728
G1 X148.56 Y153.41 E210.34991
G1 X148.79 Y154.16 E210.38254
G1 X149.16 Y154.85 E210.41519
G1 X149.65 Y155.46 E210.44780
G1 X150.26 Y155.96 E210.48044
G1 X150.95 Y156.32 E210.51306
G1 X151.70 Y156.55 E210.54569
G1 X152.48 Y156.63 E210.57832
G1 X153.26 Y156.55 E210.61091
G1 X154.02 Y156.32 E210.64358
G1 X154.71 Y155.95 E210.67622
G1 X155.31 Y155.46 E210.70881
G1 X155.81 Y154.85 E210.74142
G1 X156.18 Y154.16 E210.77408
G1 X156.41 Y153.41 E210.80671
G1 X156.49 Y152.63 E210.83933
G1 X156.41 Y151.85 E210.87192
G1 X156.18 Y151.09 E210.90455
G1 X155.81 Y150.40 E210.93721
G1 X155.31 Y149.80 E210.96982
G1 X154.71 Y149.30 E211.00241
G1 X154.01 Y148.93 E211.03509
G0 F6000 X157.51 Y137.35
G1 F4320 X158.09 Y136.43 E211.08027
G1 X158.20 Y136.24 E211.08924
G1 X158.58 Y136.36 E211.10561
G1 X158.41 Y137.57 E211.15662
G1 X160.94 Y138.93 E211.27600
G1 X161.40 Y139.17 E211.29789
G1 X161.88 Y139.57 E211.32390
G1 X162.40 Y139.97 E211.35078
G1 X163.40 Y139.18 E211.40388
G1 X163.71 Y139.44 E211.42060
G1 X163.11 Y140.58 E211.47430
G1 X163.83 Y141.17 E211.51321
G1 X165.51 Y143.22 E211.62339
G1 X165.81 Y143.57 E211.64256
G1 X166.06 Y144.12 E211.66758
G1 X167.32 Y143.71 E211.72273
G1 X167.50 Y144.06 E211.73919
G1 X166.54 Y144.93 E211.79338
G1 X167.25 Y146.27 E211.85638
G1 X167.31 Y146.37 E211.86110
G1 X167.93 Y148.44 E211.95089
G1 X168.19 Y149.27 E211.98719
G1 X169.25 Y149.31 E212.03141
G1 X169.48 Y149.31 E212.04106
G1 X169.52 Y149.69 E212.05680
G1 X168.30 Y150.19 E212.11158
G1 X168.50 Y152.23 E212.19680
G1 X168.53 Y152.50 E212.20838
G1 X168.38 Y154.04 E212.27243
G1 X168.30 Y154.81 E212.30492
G1 X169.52 Y155.31 E212.35966
G1 X169.48 Y155.69 E212.37537
G1 X168.19 Y155.73 E212.42933
G1 X167.43 Y158.21 E212.53699
G1 X167.31 Y158.63 E212.55540
G1 X166.86 Y159.46 E212.59431
G1 X166.54 Y160.07 E212.62310
G1 X167.50 Y160.94 E212.67694
G1 X167.32 Y161.29 E212.69344
G1 X166.20 Y160.93 E212.74217
G1 X165.42 Y161.89 E212.79383
G1 X164.22 Y163.36 E212.87281
G1 X163.84 Y163.83 E212.89796
G1 X163.11 Y164.42 E212.93695
G1 X163.71 Y165.56 E212.99063
G1 X163.40 Y165.82 E213.00735
G1 X162.38 Y165.02 E213.06119
G1 X161.42 Y165.81 E213.11304
G1 X159.22 Y167.00 E213.21702
G1 X158.41 Y167.43 E213.25502
G1 X158.55 Y168.47 E213.29886
G1 X158.58 Y168.64 E213.30600
G1 X158.20 Y168.76 E213.32228
G1 X157.51 Y167.65 E213.37666
G1 X155.81 Y168.16 E213.45038
G1 X155.62 Y168.22 E213.45843
G1 X153.78 Y168.40 E213.53525
G1 X152.96 Y168.48 E213.56960
G1 X152.69 Y169.78 E213.62465
G1 X152.50 Y169.80 E213.63246
G1 X152.31 Y169.78 E213.64028
G1 X152.04 Y168.48 E213.69537
G1 X149.73 Y168.25 E213.79175
G1 X149.37 Y168.22 E213.80687
G1 X148.20 Y167.86 E213.85781
G1 X147.49 Y167.65 E213.88837
G1 X146.91 Y168.57 E213.93355
G1 X146.80 Y168.76 E213.94255
G1 X146.42 Y168.64 E213.95893
G1 X146.59 Y167.43 E214.00998
G1 X144.06 Y166.07 E214.12935
G1 X143.60 Y165.83 E214.15124
G1 X143.12 Y165.43 E214.17726
G1 X142.60 Y165.03 E214.20411
G1 X141.60 Y165.82 E214.25719
G1 X141.29 Y165.56 E214.27391
G1 X141.89 Y164.42 E214.32760
G1 X141.17 Y163.83 E214.36652
G1 X139.49 Y161.78 E214.47670
G1 X139.19 Y161.43 E214.49587
G1 X138.94 Y160.88 E214.52089
G1 X137.68 Y161.29 E214.57603
G1 X137.50 Y160.94 E214.59249
G1 X138.46 Y160.07 E214.64668
G1 X137.75 Y158.73 E214.70968
G1 X137.69 Y158.63 E214.71441
G1 X137.07 Y156.56 E214.80420
G1 X136.81 Y155.73 E214.84050
G1 X135.52 Y155.69 E214.89437
G1 X135.48 Y155.31 E214.91015
G1 X136.70 Y154.81 E214.96493
G1 X136.50 Y152.77 E215.05011
G1 X136.47 Y152.50 E215.06169
G1 X136.62 Y150.96 E215.12573
G1 X136.70 Y150.18 E215.15831
G1 X135.70 Y149.78 E215.20332
G1 X135.48 Y149.69 E215.21300
G1 X135.52 Y149.31 E215.22875
G1 X136.81 Y149.27 E215.28267
G1 X137.57 Y146.79 E215.39042
G1 X137.69 Y146.37 E215.40883
G1 X138.14 Y145.54 E215.44775
G1 X138.46 Y144.93 E215.47653
G1 X137.50 Y144.06 E215.53037
G1 X137.68 Y143.71 E215.54687
G1 X138.79 Y144.07 E215.59547
G1 X141.17 Y141.17 E215.75148
G1 X141.89 Y140.58 E215.79030
G1 X141.37 Y139.58 E215.83709
G1 X141.29 Y139.44 E215.84397
G1 X141.60 Y139.18 E215.86069
G1 X142.62 Y139.98 E215.91460
G1 X143.60 Y139.17 E215.96738
G1 X145.78 Y138.00 E216.07044
G1 X146.59 Y137.57 E216.10844
G1 X146.45 Y136.53 E216.15229
G1 X146.42 Y136.36 E216.15938
G1 X146.80 Y136.24 E216.17572
G1 X147.49 Y137.35 E216.23007
G1 X149.19 Y136.84 E216.30379
G1 X149.38 Y136.78 E216.31184
G1 X151.22 Y136.60 E216.38866
G1 X152.04 Y136.52 E216.42301
G1 X152.31 Y135.22 E216.47806
G1 X152.50 Y135.20 E216.48591
G1 X152.69 Y135.22 E216.49373
G1 X152.97 Y136.52 E216.54888
G1 X155.27 Y136.75 E216.64518
G1 X155.63 Y136.78 E216.66025
G1 X156.80 Y137.14 E216.71119
G1 X157.51 Y137.35 E216.74175
G0 F6000 X157.29 Y136.76
;TYPE:WALL-OUTER
G1 F4320 X157.98 Y135.65 E216.79605
G1 X159.13 Y136.00 E216.84609
G1 X158.95 Y137.30 E216.90041
G1 X161.68 Y138.75 E217.02908
G1 X162.20 Y139.18 E217.05696
G1 X162.40 Y139.33 E217.06733
G1 X163.41 Y138.54 E217.12091
G1 X164.35 Y139.31 E217.17127
G1 X163.74 Y140.45 E217.22491
G1 X164.19 Y140.81 E217.24884
G1 X166.22 Y143.28 E217.38162
G1 X166.24 Y143.31 E217.38304
G1 X166.33 Y143.51 E217.39214
G1 X167.56 Y143.10 E217.44614
G1 X168.13 Y144.17 E217.49624
G1 X167.16 Y145.04 E217.55044
G1 X167.77 Y146.18 E217.60389
G1 X168.56 Y148.78 E217.71720
G1 X169.90 Y148.83 E217.77269
G1 X169.96 Y149.03 E217.78130
G1 X170.05 Y150.01 E217.82253
G1 X168.83 Y150.51 E217.87730
G1 X169.00 Y152.18 E217.94694
G1 X169.03 Y152.50 E217.96053
G1 X168.83 Y154.49 E218.04362
G1 X170.05 Y154.99 E218.09841
G1 X169.96 Y155.97 E218.13965
G1 X169.90 Y156.17 E218.14825
G1 X168.56 Y156.22 E218.20379
G1 X167.77 Y158.83 E218.31708
G1 X167.31 Y159.69 E218.35795
G1 X167.17 Y159.96 E218.37055
G1 X168.13 Y160.83 E218.42457
G1 X167.56 Y161.90 E218.47468
G1 X166.38 Y161.51 E218.52653
G1 X165.81 Y162.21 E218.56396
G1 X164.19 Y164.19 E218.67031
G1 X163.74 Y164.55 E218.69424
G1 X164.35 Y165.69 E218.74788
G1 X163.41 Y166.46 E218.79824
G1 X162.39 Y165.66 E218.85212
G1 X161.74 Y166.19 E218.88706
G1 X161.68 Y166.25 E218.89025
G1 X158.95 Y167.70 E219.01890
G1 X159.05 Y168.41 E219.04831
G1 X159.13 Y169.00 E219.07321
G1 X157.98 Y169.35 E219.12322
G1 X157.29 Y168.24 E219.17763
G1 X155.96 Y168.64 E219.23545
G1 X155.73 Y168.71 E219.24540
G1 X153.38 Y168.94 E219.34358
G1 X153.10 Y170.24 E219.39867
G1 X152.50 Y170.30 E219.42374
G1 X151.90 Y170.24 E219.44881
G1 X151.62 Y168.94 E219.50390
G1 X149.68 Y168.75 E219.58507
G1 X149.27 Y168.71 E219.60211
G1 X148.05 Y168.34 E219.65513
G1 X147.71 Y168.24 E219.66982
G1 X147.02 Y169.35 E219.72416
G1 X145.87 Y169.00 E219.77421
G1 X146.05 Y167.70 E219.82853
G1 X143.32 Y166.25 E219.95720
G1 X142.80 Y165.82 E219.98508
G1 X142.60 Y165.67 E219.99545
G1 X141.59 Y166.46 E220.04903
G1 X140.65 Y165.69 E220.09939
G1 X141.26 Y164.55 E220.15303
G1 X140.81 Y164.19 E220.17696
G1 X138.78 Y161.71 E220.31001
G1 X138.67 Y161.49 E220.32023
G1 X137.44 Y161.90 E220.37423
G1 X136.87 Y160.83 E220.42434
G1 X137.84 Y159.96 E220.47853
G1 X137.23 Y158.82 E220.53199
G1 X136.44 Y156.22 E220.64529
G1 X135.10 Y156.17 E220.70079
G1 X135.04 Y155.97 E220.70939
G1 X134.95 Y154.99 E220.75062
G1 X136.17 Y154.49 E220.80541
G1 X136.00 Y152.82 E220.87501
G1 X135.97 Y152.50 E220.88859
G1 X136.13 Y150.91 E220.95477
G1 X136.17 Y150.51 E220.97177
G1 X134.95 Y150.01 E221.02653
G1 X135.04 Y149.03 E221.06777
G1 X135.10 Y148.83 E221.07637
G1 X136.44 Y148.78 E221.13186
G1 X137.23 Y146.17 E221.24521
G1 X137.69 Y145.31 E221.28607
G1 X137.83 Y145.04 E221.29868
G1 X136.87 Y144.17 E221.35270
G1 X137.44 Y143.10 E221.40280
G1 X138.62 Y143.49 E221.45462
G1 X140.81 Y140.81 E221.59845
G1 X141.26 Y140.45 E221.62235
G1 X140.65 Y139.31 E221.67598
G1 X141.59 Y138.54 E221.72635
G1 X142.61 Y139.34 E221.78022
G1 X143.32 Y138.75 E221.81835
G1 X146.05 Y137.29 E221.94703
G1 X145.95 Y136.59 E221.97640
G1 X145.87 Y136.00 E222.00129
G1 X147.02 Y135.65 E222.05134
G1 X147.71 Y136.76 E222.10568
G1 X149.04 Y136.36 E222.16350
G1 X149.27 Y136.29 E222.17346
G1 X151.62 Y136.06 E222.27163
G1 X151.90 Y134.76 E222.32672
G1 X152.50 Y134.70 E222.35179
G1 X153.10 Y134.76 E222.37686
G1 X153.38 Y136.06 E222.43200
G1 X155.73 Y136.29 E222.53017
G1 X156.95 Y136.66 E222.58319
G1 X157.29 Y136.76 E222.59788
G0 F6000 X157.58 Y136.95
G0 X153.93 Y149.06
G0 X153.82 Y149.39
G1 F4320 X153.17 Y149.19 E222.62641
G1 X152.48 Y149.13 E222.65491
G1 X151.80 Y149.19 E222.68344
G1 X151.15 Y149.39 E222.71193
G1 X150.54 Y149.72 E222.74050
G1 X150.01 Y150.15 E222.76904
G1 X149.57 Y150.68 E222.79755
G1 X149.25 Y151.29 E222.82610
G1 X149.05 Y151.94 E222.85464
G1 X148.98 Y152.63 E222.88313
G1 X149.05 Y153.31 E222.91167
G1 X149.25 Y153.97 E222.94021
G1 X149.57 Y154.57 E222.96876
G1 X150.01 Y155.10 E222.99726
G1 X150.54 Y155.54 E223.02580
G1 X151.15 Y155.86 E223.05437
G1 X151.80 Y156.06 E223.08287
G1 X152.48 Y156.13 E223.11140
G1 X153.17 Y156.06 E223.13990
G1 X153.82 Y155.86 E223.16844
G1 X154.43 Y155.54 E223.19701
G1 X154.96 Y155.10 E223.22551
G1 X155.40 Y154.57 E223.25404
G1 X155.72 Y153.97 E223.28259
G1 X155.92 Y153.31 E223.31113
G1 X155.98 Y152.63 E223.33967
G1 X155.92 Y151.94 E223.36816
G1 X155.72 Y151.29 E223.39670
G1 X155.40 Y150.68 E223.42525
G1 X154.96 Y150.15 E223.45378
G1 X154.43 Y149.72 E223.48229
G1 X153.82 Y149.39 E223.51086
G0 F6000 X154.06 Y148.76
;TYPE:FILL
G1 F4320 X144.30 Y139.00 E224.08500
G0 F6000 X143.84 Y139.24
G1 F4320 X153.10 Y148.51 E224.62986
G0 F6000 X152.35 Y148.46
G1 F4320 X143.43 Y139.54 E225.15444
G0 F6000 X143.04 Y139.86
G1 F4320 X151.71 Y148.52 E225.66397
G0 F6000 X151.16 Y148.68
G1 F4320 X142.65 Y140.18 E226.16403
G0 F6000 X141.80 Y140.03
G1 F4320 X150.65 Y148.89 E226.68456
G0 F6000 X150.19 Y149.13
G1 F4320 X141.88 Y140.81 E227.17359
G0 F6000 X141.49 Y141.13
G1 F4320 X149.80 Y149.45 E227.66234
G0 F6000 X149.43 Y149.79
G1 F4320 X141.13 Y141.49 E228.15029
G0 F6000 X140.81 Y141.88
G1 F4320 X149.11 Y150.18 E228.63823
G0 F6000 X148.84 Y150.61
G1 F4320 X140.50 Y142.26 E229.12904
G0 F6000 X140.18 Y142.65
G1 F4320 X148.61 Y151.08 E229.62463
G0 F6000 X148.44 Y151.62
G1 F4320 X139.86 Y143.04 E230.12922
G0 F6000 X139.54 Y143.43
G1 F4320 X148.34 Y152.23 E230.64668
G0 F6000 X148.34 Y152.93
G1 F4320 X139.22 Y143.82 E231.18232
G0 F6000 X138.91 Y144.21
G1 F4320 X148.50 Y153.80 E231.74608
G0 F6000 X149.34 Y155.35
G1 F4320 X137.98 Y143.99 E232.41377
G0 F6000 X138.50 Y145.22
G1 F4320 X159.78 Y166.49 E233.66472
G0 F6000 X160.24 Y166.25
G1 F4320 X149.76 Y155.77 E234.28052
G0 F6000 X151.31 Y156.62
G1 F4320 X160.70 Y166.00 E234.83226
G0 F6000 X161.16 Y165.75
G1 F4320 X152.18 Y156.77 E235.36019
G0 F6000 X152.88 Y156.77
G1 F4320 X161.57 Y165.46 E235.87137
G0 F6000 X161.96 Y165.14
G1 F4320 X153.49 Y156.67 E236.36958
G0 F6000 X154.03 Y156.50
G1 F4320 X162.35 Y164.82 E236.85870
G0 F6000 X163.20 Y164.97
G1 F4320 X154.50 Y156.26 E237.37029
G0 F6000 X154.93 Y155.99
G1 F4320 X163.12 Y164.18 E237.85177
G0 F6000 X163.51 Y163.87
G1 F4320 X155.32 Y155.68 E238.33328
G0 F6000 X155.66 Y155.31
G1 F4320 X163.87 Y163.51 E238.81573
G0 F6000 X164.18 Y163.12
G1 F4320 X155.97 Y154.91 E239.29836
G0 F6000 X156.22 Y154.45
G1 F4320 X164.50 Y162.73 E239.78525
G0 F6000 X164.82 Y162.34
G1 F4320 X156.43 Y153.95 E240.27873
G0 F6000 X156.59 Y153.40
G1 F4320 X165.14 Y161.96 E240.78155
G0 F6000 X165.46 Y161.57
G1 F4320 X156.65 Y152.76 E241.29943
G0 F6000 X156.60 Y152.00
G1 F4320 X165.77 Y161.18 E241.83877
G0 F6000 X166.09 Y160.79
G1 F4320 X156.35 Y151.04 E242.41159
G0 F6000 X167.39 Y147.23
G1 F4320 X157.63 Y137.48 E242.98521
G0 F6000 X157.90 Y137.04
G1 F4320 X158.30 Y137.08 E243.00574
G1 X158.18 Y136.61 E243.02607
G0 F6000 X158.89 Y138.03
G1 F4320 X166.97 Y146.11 E243.50123
G0 F6000 X166.39 Y144.83
G1 F4320 X160.41 Y138.84 E243.85336
G0 F6000 X162.43 Y140.16
G1 F4320 X162.89 Y140.62 E243.88012
G0 F6000 X162.94 Y140.67
G1 F4320 X164.35 Y142.08 E243.96319
G0 F6000 X163.13 Y140.15
G1 F4320 X163.03 Y139.69 E243.98096
G1 X163.38 Y139.69 E243.99551
G0 F6000 X163.23 Y140.55
G0 X166.45 Y144.18
G1 F4320 X166.95 Y144.32 E244.01397
G1 X166.98 Y144.00 E244.02730
G0 F6000 X166.65 Y144.95
G0 X167.69 Y148.25
G1 F4320 X156.74 Y137.30 E244.67118
G0 F6000 X155.73 Y136.99
G1 F4320 X168.00 Y149.26 E245.39255
G0 F6000 X168.19 Y149.45
G1 F4320 X168.76 Y149.67 E245.41739
G1 X169.11 Y149.67 E245.43194
G0 F6000 X168.11 Y150.08
G1 F4320 X154.92 Y136.89 E246.20761
G0 F6000 X154.13 Y136.81
G1 F4320 X168.19 Y150.86 E247.03399
G0 F6000 X168.27 Y151.65
G1 F4320 X153.35 Y136.73 E247.91111
G0 F6000 X152.69 Y136.07
G1 F4320 X152.38 Y135.76 E247.92963
G0 F6000 X152.25 Y136.34
G1 F4320 X168.34 Y152.43 E248.87578
G0 F6000 X168.29 Y153.09
G1 F4320 X151.91 Y136.71 E249.83916
G0 F6000 X151.26 Y136.77
G1 F4320 X168.23 Y153.73 E250.83663
G0 F6000 X168.17 Y154.38
G1 F4320 X150.62 Y136.83 E251.86821
G0 F6000 X149.98 Y136.90
G1 F4320 X168.62 Y155.54 E252.96441
G0 F6000 X169.13 Y155.34
G1 F4320 X169.26 Y155.47 E252.97229
G0 F6000 X168.03 Y155.65
G1 F4320 X149.35 Y136.97 E254.07066
G0 F6000 X148.80 Y137.14
G1 F4320 X167.86 Y156.20 E255.19128
G0 F6000 X167.70 Y156.74
G1 F4320 X148.26 Y137.30 E256.33410
G0 F6000 X147.72 Y137.47
G1 F4320 X167.53 Y157.28 E257.49921
G0 F6000 X167.37 Y157.82
G1 F4320 X146.71 Y137.16 E258.71394
G0 F6000 X146.60 Y137.76
G1 F4320 X167.21 Y158.37 E259.92531
G0 F6000 X166.99 Y158.86
G1 F4320 X146.14 Y138.01 E261.15110
G0 F6000 X145.68 Y138.26
G1 F4320 X166.74 Y159.32 E262.38958
G0 F6000 X166.50 Y159.78
G1 F4320 X145.22 Y138.50 E263.64073
G0 F6000 X144.76 Y138.75
G1 F4320 X167.02 Y161.01 E264.94951
G0 F6000 X159.32 Y166.74
G1 F4320 X138.26 Y145.68 E266.18775
G0 F6000 X138.01 Y146.14
G1 F4320 X158.86 Y166.99 E267.41345
G0 F6000 X158.40 Y167.24
G1 F4320 X137.79 Y146.63 E268.62488
G0 F6000 X137.63 Y147.18
G1 F4320 X158.29 Y167.83 E269.83949
G0 F6000 X157.28 Y167.53
G1 F4320 X137.47 Y147.72 E271.00460
G0 F6000 X137.30 Y148.26
G1 F4320 X156.74 Y167.70 E272.14745
G0 F6000 X156.19 Y167.86
G1 F4320 X137.14 Y148.80 E273.26805
G0 F6000 X136.97 Y149.34
G1 F4320 X155.65 Y168.03 E274.36642
G0 F6000 X155.02 Y168.10
G1 F4320 X136.38 Y149.46 E275.46255
G0 F6000 X135.87 Y149.66
G1 F4320 X135.74 Y149.53 E275.47035
G0 F6000 X136.83 Y150.62
G1 F4320 X154.38 Y168.17 E276.50195
G0 F6000 X153.73 Y168.23
G1 F4320 X136.77 Y151.26 E277.49943
G0 F6000 X136.71 Y151.91
G1 F4320 X153.09 Y168.29 E278.46275
G0 F6000 X152.75 Y168.66
G1 F4320 X136.66 Y152.56 E279.40887
G0 F6000 X136.73 Y153.35
G1 F4320 X151.65 Y168.27 E280.28593
G0 F6000 X150.87 Y168.19
G1 F4320 X136.81 Y154.13 E281.11231
G0 F6000 X136.89 Y154.92
G1 F4320 X150.08 Y168.11 E281.88795
G0 F6000 X149.26 Y168.00
G1 F4320 X137.00 Y155.74 E282.60932
G0 F6000 X136.81 Y155.55
G1 F4320 X136.24 Y155.33 E282.63423
G1 X135.89 Y155.33 E282.64874
G0 F6000 X136.75 Y155.81
G0 X137.30 Y156.75
G1 F4320 X148.25 Y167.70 E283.29259
G0 F6000 X147.37 Y167.52
G1 F4320 X137.61 Y157.76 E283.86620
G0 F6000 X138.03 Y158.89
G1 F4320 X146.11 Y166.97 E284.34133
G0 F6000 X146.75 Y167.60
G1 F4320 X146.96 Y168.17 E284.36188
G1 X146.66 Y168.22 E284.37454
G0 F6000 X146.50 Y167.48
G0 X144.59 Y166.16
G1 F4320 X138.60 Y160.17 E284.72670
G0 F6000 X138.23 Y160.51
G1 F4320 X138.28 Y160.91 E284.74516
G1 X137.86 Y160.84 E284.76275
G0 F6000 X138.89 Y161.00
G0 X140.65 Y162.92
G1 F4320 X142.06 Y164.33 E284.84589
G0 F6000 X142.11 Y164.38
G1 F4320 X142.37 Y164.99 E284.87266
G1 X141.74 Y165.08 E284.89046
G1 X141.77 Y165.46 E284.90638
G0 F6000 X142.60 Y165.15
G0 X146.50 Y167.48
G0 X151.96 Y168.56
G0 X152.31 Y168.93
G1 F4320 X152.62 Y169.24 E284.92479
;LAYER:3
G0 F6000 X152.75 Y169.49 Z0.90
;TYPE:WALL-INNER
G1 F5160 X152.69 Y169.78 E284.93690
G1 X152.50 Y169.80 E284.94488
G1 X152.31 Y169.78 E284.95261
G1 X152.00 Y168.31 E285.01515
G1 X149.99 Y168.11 E285.09891
G1 X149.41 Y168.05 E285.12348
G1 X148.38 Y167.74 E285.16784
G1 X147.59 Y167.50 E285.20257
G1 X146.80 Y168.76 E285.26418
G1 X146.42 Y168.64 E285.28051
G1 X146.62 Y167.25 E285.33912
G1 X143.69 Y165.68 E285.47713
G1 X143.28 Y165.34 E285.49937
G1 X142.75 Y164.92 E285.52760
G1 X141.60 Y165.82 E285.58819
G1 X141.29 Y165.56 E285.60492
G1 X141.97 Y164.27 E285.66592
G1 X141.28 Y163.71 E285.70284
G1 X139.33 Y161.33 E285.83081
G1 X138.97 Y160.87 E285.85504
G1 X137.68 Y161.29 E285.91158
G1 X137.50 Y160.94 E285.92808
G1 X138.59 Y159.95 E285.98948
G1 X137.95 Y158.75 E286.04595
G1 X137.85 Y158.57 E286.05475
G1 X137.31 Y156.76 E286.13315
G1 X136.99 Y155.74 E286.17771
G1 X135.52 Y155.69 E286.23907
G1 X135.48 Y155.31 E286.25482
G1 X136.87 Y154.75 E286.31696
G1 X136.69 Y152.96 E286.39153
G1 X136.64 Y152.50 E286.41079
G1 X136.78 Y151.16 E286.46674
G1 X136.86 Y150.25 E286.50474
G1 X135.48 Y149.69 E286.56677
G1 X135.52 Y149.31 E286.58248
G1 X136.99 Y149.26 E286.64388
G1 X137.64 Y147.12 E286.73700
G1 X137.85 Y146.43 E286.76692
G1 X138.23 Y145.72 E286.80055
G1 X138.59 Y145.04 E286.83216
G1 X137.50 Y144.06 E286.89336
G1 X137.68 Y143.71 E286.90986
G1 X137.88 Y143.77 E286.91829
G1 X138.96 Y144.13 E286.96584
G1 X141.28 Y141.29 E287.11826
G1 X141.97 Y140.73 E287.15517
G1 X141.29 Y139.44 E287.21618
G1 X141.60 Y139.18 E287.23292
G1 X142.75 Y140.09 E287.29402
G1 X143.69 Y139.32 E287.34451
G1 X146.62 Y137.75 E287.48237
G1 X146.42 Y136.36 E287.54093
G1 X146.80 Y136.24 E287.55730
G1 X147.59 Y137.50 E287.61895
G1 X149.09 Y137.05 E287.68415
G1 X149.41 Y136.95 E287.69810
G1 X151.01 Y136.79 E287.76515
G1 X152.00 Y136.69 E287.80639
G1 X152.25 Y135.51 E287.85675
G1 X152.31 Y135.22 E287.86885
G1 X152.50 Y135.20 E287.87692
G1 X152.69 Y135.22 E287.88456
G1 X153.00 Y136.69 E287.94715
G1 X155.01 Y136.89 E288.03087
G1 X155.59 Y136.95 E288.05543
G1 X156.62 Y137.26 E288.09980
G1 X157.41 Y137.50 E288.13452
G1 X158.20 Y136.24 E288.19617
G1 X158.58 Y136.36 E288.21250
G1 X158.38 Y137.75 E288.27115
G1 X161.31 Y139.32 E288.40910
G1 X161.72 Y139.66 E288.43140
G1 X162.25 Y140.08 E288.45960
G1 X163.40 Y139.18 E288.52023
G1 X163.71 Y139.44 E288.53695
G1 X163.03 Y140.73 E288.59795
G1 X163.72 Y141.29 E288.63487
G1 X165.66 Y143.66 E288.76210
G1 X166.03 Y144.13 E288.78708
G1 X167.32 Y143.71 E288.84361
G1 X167.50 Y144.06 E288.86011
G1 X166.41 Y145.05 E288.92152
G1 X167.05 Y146.25 E288.97799
G1 X167.15 Y146.43 E288.98679
G1 X167.69 Y148.24 E289.06519
G1 X168.01 Y149.26 E289.10974
G1 X169.39 Y149.31 E289.16715
G1 X169.48 Y149.31 E289.17110
G1 X169.52 Y149.69 E289.18685
G1 X168.13 Y150.25 E289.24901
G1 X168.31 Y152.04 E289.32358
G1 X168.36 Y152.50 E289.34284
G1 X168.22 Y153.84 E289.39879
G1 X168.14 Y154.75 E289.43678
G1 X169.52 Y155.31 E289.49882
G1 X169.48 Y155.69 E289.51453
G1 X168.01 Y155.74 E289.57597
G1 X167.36 Y157.88 E289.66900
G1 X167.15 Y158.57 E289.69892
G1 X166.77 Y159.28 E289.73255
G1 X166.41 Y159.96 E289.76416
G1 X167.50 Y160.94 E289.82536
G1 X167.32 Y161.29 E289.84186
G1 X167.12 Y161.23 E289.85029
G1 X166.04 Y160.87 E289.89784
G1 X163.72 Y163.71 E290.05026
G1 X163.03 Y164.27 E290.08718
G1 X163.71 Y165.56 E290.14818
G1 X163.40 Y165.82 E290.16493
G1 X162.25 Y164.91 E290.22602
G1 X161.37 Y165.63 E290.27314
G1 X161.31 Y165.69 E290.27650
G1 X159.40 Y166.71 E290.36652
G1 X158.38 Y167.25 E290.41440
G1 X158.58 Y168.64 E290.47292
G1 X158.20 Y168.76 E290.48925
G1 X157.41 Y167.50 E290.55092
G1 X155.91 Y167.95 E290.61612
G1 X155.59 Y168.05 E290.63007
G1 X153.99 Y168.21 E290.69712
G1 X153.00 Y168.31 E290.73836
G1 X152.75 Y169.49 E290.78872
G0 F6000 X152.48 Y156.63
G1 F5160 X153.26 Y156.55 E290.82131
G1 X154.02 Y156.32 E290.85398
G1 X154.71 Y155.95 E290.88662
G1 X155.31 Y155.46 E290.91920
G1 X155.81 Y154.85 E290.95181
G1 X156.18 Y154.16 E290.98447
G1 X156.41 Y153.41 E291.01710
G1 X156.49 Y152.63 E291.04973
G1 X156.41 Y151.85 E291.08232
G1 X156.18 Y151.09 E291.11495
G1 X155.81 Y150.40 E291.14761
G1 X155.31 Y149.80 E291.18022
G1 X154.71 Y149.30 E291.21280
G1 X154.01 Y148.93 E291.24548
G1 X153.26 Y148.70 E291.27810
G1 X152.48 Y148.62 E291.31069
G1 X151.70 Y148.70 E291.34333
G1 X150.95 Y148.93 E291.37590
G1 X150.26 Y149.30 E291.40856
G1 X149.65 Y149.80 E291.44121
G1 X149.16 Y150.40 E291.47382
G1 X148.79 Y151.09 E291.50646
G1 X148.56 Y151.85 E291.53909
G1 X148.48 Y152.63 E291.57168
G1 X148.56 Y153.41 E291.60431
G1 X148.79 Y154.16 E291.63694
G1 X149.16 Y154.85 E291.66958
G1 X149.65 Y155.46 E291.70219
G1 X150.26 Y155.96 E291.73484
G1 X150.95 Y156.32 E291.76746
G1 X151.70 Y156.55 E291.80009
G1 X152.48 Y156.63 E291.83272
G0 F6000 X152.48 Y156.13
;TYPE:WALL-OUTER
G1 F5160 X153.17 Y156.06 E291.86121
G1 X153.82 Y155.86 E291.88975
G1 X154.43 Y155.54 E291.91832
G1 X154.96 Y155.10 E291.94682
G1 X155.40 Y154.57 E291.97536
G1 X155.72 Y153.97 E292.00391
G1 X155.92 Y153.31 E292.03245
G1 X155.98 Y152.63 E292.06098
G1 X155.92 Y151.94 E292.08947
G1 X155.72 Y151.29 E292.11801
G1 X155.40 Y150.68 E292.14656
G1 X154.96 Y150.15 E292.17509
G1 X154.43 Y149.72 E292.20360
G1 X153.82 Y149.39 E292.23217
G1 X153.17 Y149.19 E292.26070
G1 X152.48 Y149.13 E292.28919
G1 X151.80 Y149.19 E292.31773
G1 X151.15 Y149.39 E292.34622
G1 X150.54 Y149.72 E292.37479
G1 X150.01 Y150.15 E292.40333
G1 X149.57 Y150.68 E292.43183
G1 X149.25 Y151.29 E292.46038
G1 X149.05 Y151.94 E292.48892
G1 X148.98 Y152.63 E292.51742
G1 X149.05 Y153.31 E292.54595
G1 X149.25 Y153.97 E292.57449
G1 X149.57 Y154.57 E292.60304
G1 X150.01 Y155.10 E292.63155
G1 X150.54 Y155.54 E292.66009
G1 X151.15 Y155.86 E292.68866
G1 X151.80 Y156.06 E292.71716
G1 X152.48 Y156.13 E292.74569
G0 F6000 X152.45 Y156.47
G0 X151.62 Y168.42
G0 X151.59 Y168.77
G1 F5160 X149.31 Y168.54 E292.84094
G1 X147.81 Y168.09 E292.90607
G1 X147.02 Y169.35 E292.96778
G1 X145.87 Y169.00 E293.01778
G1 X146.08 Y167.52 E293.07966
G1 X143.41 Y166.10 E293.20532
G1 X142.96 Y165.73 E293.22939
G1 X142.74 Y165.56 E293.24102
G1 X141.59 Y166.46 E293.30191
G1 X140.65 Y165.69 E293.35225
G1 X141.34 Y164.40 E293.41318
G1 X140.93 Y164.07 E293.43503
G1 X138.95 Y161.65 E293.56495
G1 X138.80 Y161.45 E293.57535
G1 X137.44 Y161.90 E293.63472
G1 X136.87 Y160.83 E293.68487
G1 X137.97 Y159.84 E293.74628
G1 X137.39 Y158.76 E293.79732
G1 X136.62 Y156.22 E293.90749
G1 X135.10 Y156.17 E293.97047
G1 X135.04 Y155.97 E293.97908
G1 X134.95 Y154.99 E294.02035
G1 X136.33 Y154.42 E294.08249
G1 X136.14 Y152.50 E294.16283
G1 X136.28 Y151.11 E294.22079
G1 X136.33 Y150.57 E294.24325
G1 X134.95 Y150.01 E294.30534
G1 X135.04 Y149.03 E294.34662
G1 X135.10 Y148.83 E294.35518
G1 X136.62 Y148.78 E294.41816
G1 X137.39 Y146.24 E294.52838
G1 X137.79 Y145.48 E294.56405
G1 X137.97 Y145.16 E294.57941
G1 X136.87 Y144.17 E294.64070
G1 X137.44 Y143.10 E294.69085
G1 X138.79 Y143.54 E294.75004
G1 X140.93 Y140.93 E294.89040
G1 X141.34 Y140.60 E294.91225
G1 X140.65 Y139.31 E294.97314
G1 X141.59 Y138.54 E295.02350
G1 X142.75 Y139.44 E295.08460
G1 X143.41 Y138.90 E295.12041
G1 X146.07 Y137.47 E295.24589
G1 X145.87 Y136.00 E295.30772
G1 X147.02 Y135.65 E295.35775
G1 X147.81 Y136.91 E295.41940
G1 X149.31 Y136.46 E295.48449
G1 X151.59 Y136.23 E295.57982
G1 X151.90 Y134.76 E295.64235
G1 X152.50 Y134.70 E295.66750
G1 X153.10 Y134.76 E295.69247
G1 X153.41 Y136.23 E295.75510
G1 X155.69 Y136.46 E295.85031
G1 X157.19 Y136.91 E295.91543
G1 X157.98 Y135.65 E295.97718
G1 X159.13 Y136.00 E296.02718
G1 X158.92 Y137.48 E296.08910
G1 X161.59 Y138.90 E296.21476
G1 X162.04 Y139.27 E296.23883
G1 X162.26 Y139.44 E296.25046
G1 X163.41 Y138.54 E296.31135
G1 X164.35 Y139.31 E296.36172
G1 X163.66 Y140.60 E296.42261
G1 X164.07 Y140.93 E296.44446
G1 X166.05 Y143.35 E296.57438
G1 X166.20 Y143.55 E296.58478
G1 X167.56 Y143.10 E296.64415
G1 X168.13 Y144.17 E296.69430
G1 X167.03 Y145.16 E296.75571
G1 X167.61 Y146.24 E296.80674
G1 X168.38 Y148.78 E296.91692
G1 X169.90 Y148.83 E296.97990
G1 X169.96 Y149.03 E296.98851
G1 X170.05 Y150.01 E297.02978
G1 X168.67 Y150.58 E297.09190
G1 X168.86 Y152.50 E297.17229
G1 X168.72 Y153.89 E297.23024
G1 X168.67 Y154.43 E297.25271
G1 X170.05 Y154.99 E297.31479
G1 X169.96 Y155.97 E297.35603
G1 X169.90 Y156.17 E297.36463
G1 X168.38 Y156.22 E297.42766
G1 X167.61 Y158.76 E297.53782
G1 X167.21 Y159.52 E297.57350
G1 X167.03 Y159.84 E297.58886
G1 X168.13 Y160.83 E297.65015
G1 X167.56 Y161.90 E297.70029
G1 X166.21 Y161.46 E297.75948
G1 X164.07 Y164.07 E297.89984
G1 X163.66 Y164.40 E297.92169
G1 X164.35 Y165.69 E297.98258
G1 X163.41 Y166.46 E298.03295
G1 X162.25 Y165.56 E298.09405
G1 X161.69 Y166.02 E298.12439
G1 X161.59 Y166.10 E298.12970
G1 X158.93 Y167.53 E298.25534
G1 X159.13 Y169.00 E298.31717
G1 X157.98 Y169.35 E298.36718
G1 X157.19 Y168.09 E298.42888
G1 X155.69 Y168.54 E298.49397
G1 X153.41 Y168.77 E298.58931
G1 X153.10 Y170.24 E298.65183
G1 X152.50 Y170.30 E298.67690
G1 X151.90 Y170.24 E298.70197
G1 X151.59 Y168.77 E298.76454
G0 F6000 X152.21 Y168.46
;TYPE:FILL
G1 F5160 X168.18 Y152.49 E299.70337
G0 F6000 X168.12 Y151.85
G1 F5160 X151.85 Y168.12 E300.65975
G0 F6000 X151.21 Y168.05
G1 F5160 X168.05 Y151.21 E301.65017
G0 F6000 X167.99 Y150.56
G1 F5160 X150.56 Y167.99 E302.67472
G0 F6000 X149.92 Y167.92
G1 F5160 X168.39 Y149.45 E303.76087
G0 F6000 X168.73 Y149.82
G1 F5160 X169.08 Y149.47 E303.78142
G0 F6000 X167.84 Y149.30
G1 F5160 X149.30 Y167.84 E304.87114
G0 F6000 X148.76 Y167.67
G1 F5160 X167.67 Y148.76 E305.98313
G0 F6000 X167.51 Y148.22
G1 F5160 X148.22 Y167.51 E307.11742
G0 F6000 X147.67 Y167.34
G1 F5160 X167.34 Y147.67 E308.27394
G0 F6000 X167.18 Y147.13
G1 F5160 X146.75 Y167.56 E309.47479
G0 F6000 X147.15 Y167.87
G1 F5160 X146.64 Y168.38 E309.50484
G0 F6000 X146.58 Y167.02
G1 F5160 X167.01 Y146.59 E310.70640
G0 F6000 X166.78 Y146.12
G1 F5160 X146.12 Y166.78 E311.92133
G0 F6000 X145.65 Y166.53
G1 F5160 X166.53 Y145.65 E313.14888
G0 F6000 X166.29 Y145.19
G1 F5160 X145.19 Y166.29 E314.38904
G0 F6000 X144.73 Y166.04
G1 F5160 X154.52 Y156.25 E314.96456
G0 F6000 X153.36 Y156.70
G1 F5160 X144.27 Y165.79 E315.49902
G0 F6000 X143.81 Y165.55
G1 F5160 X152.56 Y156.80 E316.01360
G0 F6000 X151.90 Y156.75
G1 F5160 X143.42 Y165.23 E316.51255
G0 F6000 X143.02 Y164.92
G1 F5160 X151.32 Y156.62 E317.00062
G0 F6000 X150.80 Y156.44
G1 F5160 X141.80 Y165.44 E317.52975
G0 F6000 X142.07 Y164.46
G1 F5160 X150.34 Y156.19 E318.01582
G0 F6000 X149.92 Y155.90
G1 F5160 X141.87 Y163.96 E318.48936
G0 F6000 X141.48 Y163.64
G1 F5160 X149.53 Y155.58 E318.96306
G0 F6000 X149.21 Y155.20
G1 F5160 X141.15 Y163.26 E319.43734
G0 F6000 X140.83 Y162.87
G1 F5160 X148.92 Y154.78 E319.91311
G0 F6000 X148.67 Y154.32
G1 F5160 X140.51 Y162.49 E320.39321
G0 F6000 X140.19 Y162.10
G1 F5160 X148.49 Y153.79 E320.88137
G0 F6000 X148.36 Y153.22
G1 F5160 X139.87 Y161.71 E321.38058
G0 F6000 X139.55 Y161.32
G1 F5160 X148.31 Y152.56 E321.89546
G0 F6000 X148.40 Y151.77
G1 F5160 X139.24 Y160.93 E322.43391
G0 F6000 X138.68 Y160.78
G1 F5160 X148.84 Y150.62 E323.03125
G0 F6000 X150.48 Y148.98
G1 F5160 X160.42 Y139.04 E323.61583
G0 F6000 X160.88 Y139.28
G1 F5160 X151.62 Y148.54 E324.16014
G0 F6000 X152.42 Y148.46
G1 F5160 X161.32 Y139.55 E324.68354
G0 F6000 X161.71 Y139.87
G1 F5160 X153.07 Y148.51 E325.19142
G0 F6000 X153.65 Y148.63
G1 F5160 X162.10 Y140.18 E325.68837
G0 F6000 X162.87 Y140.83
G1 F5160 X154.64 Y149.06 E326.17238
G0 F6000 X155.05 Y149.36
G1 F5160 X163.26 Y141.15 E326.65501
G0 F6000 X163.64 Y141.48
G1 F5160 X155.44 Y149.68 E327.13708
G0 F6000 X155.76 Y150.06
G1 F5160 X163.96 Y141.87 E327.61909
G0 F6000 X164.28 Y142.25
G1 F5160 X156.05 Y150.48 E328.10274
G0 F6000 X156.30 Y150.94
G1 F5160 X164.60 Y142.64 E328.59069
G0 F6000 X164.91 Y143.03
G1 F5160 X156.48 Y151.47 E329.08676
G0 F6000 X156.60 Y152.05
G1 F5160 X165.23 Y143.42 E329.59411
G0 F6000 X165.55 Y143.81
G1 F5160 X156.65 Y152.71 E330.11728
G0 F6000 X156.56 Y153.50
G1 F5160 X165.86 Y144.21 E330.66396
G0 F6000 X166.67 Y144.10
G1 F5160 X156.11 Y154.66 E331.28467
G0 F6000 X156.36 Y151.86
G0 X155.28 Y149.83
G0 X154.18 Y148.82
G1 F5160 X163.46 Y139.53 E331.83051
G0 F6000 X162.25 Y139.96
G0 X159.96 Y138.79
G1 F5160 X138.79 Y159.96 E333.07490
G0 F6000 X138.55 Y159.50
G1 F5160 X159.50 Y138.55 E334.30665
G0 F6000 X159.04 Y138.30
G1 F5160 X138.30 Y159.04 E335.52585
G0 F6000 X138.05 Y158.58
G1 F5160 X158.58 Y138.05 E336.73246
G0 F6000 X158.21 Y137.72
G1 F5160 X137.88 Y158.05 E337.92785
G0 F6000 X137.71 Y157.50
G1 F5160 X158.32 Y136.89 E339.13970
G0 F6000 X156.96 Y137.55
G1 F5160 X137.55 Y156.96 E340.28128
G0 F6000 X137.38 Y156.42
G1 F5160 X156.42 Y137.38 E341.40058
G0 F6000 X155.88 Y137.22
G1 F5160 X137.22 Y155.88 E342.49760
G0 F6000 X136.83 Y155.56
G1 F5160 X155.29 Y137.09 E343.58298
G0 F6000 X154.65 Y137.03
G1 F5160 X137.03 Y154.65 E344.61879
G0 F6000 X136.67 Y155.01
G1 F5160 X136.15 Y155.53 E344.64922
G0 F6000 X136.97 Y154.00
G1 F5160 X154.00 Y136.97 E345.65090
G0 F6000 X153.36 Y136.91
G1 F5160 X136.91 Y153.36 E346.61848
G0 F6000 X136.84 Y152.72
G1 F5160 X152.83 Y136.73 E347.55848
G0 F6000 X152.71 Y136.15
G1 F5160 X152.18 Y136.67 E347.58912
G0 F6000 X151.98 Y136.87
G1 F5160 X136.87 Y151.98 E348.47770
G0 F6000 X136.95 Y151.20
G1 F5160 X151.20 Y136.95 E349.31567
G0 F6000 X150.41 Y137.03
G1 F5160 X137.02 Y150.42 E350.10306
G0 F6000 X136.72 Y150.01
G1 F5160 X149.63 Y137.10 E350.86171
G0 F6000 X148.67 Y137.35
G1 F5160 X137.36 Y148.67 E351.52690
G0 F6000 X137.66 Y147.65
G1 F5160 X147.66 Y137.66 E352.11439
G0 F6000 X147.28 Y137.33
G1 F5160 X146.80 Y137.81 E352.14223
G0 F6000 X146.71 Y137.90
G1 F5160 X137.97 Y146.64 E352.65596
G0 F6000 X138.70 Y145.20
G1 F5160 X145.19 Y138.71 E353.03743
G0 F6000 X143.48 Y139.72
G1 F5160 X139.72 Y143.47 E353.25827
G0 F6000 X138.90 Y144.29
G1 F5160 X138.29 Y144.55 E353.28314
G1 X138.10 Y144.03 E353.29853
G1 X137.74 Y144.04 E353.31380
G0 F6000 X138.47 Y145.07
G0 X136.93 Y149.18
G0 X136.57 Y149.45
G1 F5160 X136.03 Y149.64 E353.33436
G1 X135.73 Y149.59 E353.34707
G0 F6000 X136.93 Y149.18
G0 X142.03 Y140.46
G1 F5160 X142.23 Y139.90 E353.37082
G1 X141.66 Y139.77 E353.38566
G1 X141.64 Y139.44 E353.39953
G0 F6000 X142.75 Y139.97
G0 X146.52 Y137.70
G0 X146.72 Y137.19
G1 F5160 X146.82 Y136.73 E353.41642
G1 X146.72 Y136.47 E353.42781
G0 F6000 X147.63 Y137.39
G0 X151.93 Y136.61
G0 X152.37 Y135.77
G1 F5160 X152.58 Y135.56 E353.43998
G0 F6000 X153.07 Y136.61
G0 X168.10 Y153.28
G1 F5160 X153.28 Y168.10 E354.31178
G0 F6000 X152.75 Y168.63
G1 F5160 X152.33 Y169.04 E354.33636
G0 F6000 X154.06 Y168.03
G1 F5160 X168.03 Y154.06 E355.15762
G0 F6000 X167.95 Y154.84
G1 F5160 X154.84 Y167.95 E355.92824
G0 F6000 X155.65 Y167.85
G1 F5160 X167.85 Y155.65 E356.64552
G0 F6000 X167.93 Y155.57
G1 F5160 X168.56 Y155.30 E356.67533
G1 X168.94 Y155.26 E356.69157
G0 F6000 X168.07 Y155.82
G0 X167.54 Y156.66
G1 F5160 X156.66 Y167.54 E357.33109
G0 F6000 X157.54 Y167.37
G1 F5160 X167.23 Y157.68 E357.90091
G0 F6000 X166.83 Y158.79
G1 F5160 X158.79 Y166.83 E358.37361
G0 F6000 X158.22 Y167.40
G1 F5160 X157.95 Y168.02 E358.39769
G1 X158.31 Y168.02 E358.41274
G0 F6000 X158.48 Y167.30
G0 X160.31 Y166.02
G1 F5160 X166.27 Y160.06 E358.76299
G0 F6000 X166.64 Y160.40
G1 F5160 X166.54 Y160.85 E358.78464
G1 X167.01 Y160.73 E358.80502
G0 F6000 X166.07 Y160.97
G0 X164.22 Y162.82
G1 F5160 X162.87 Y164.17 E358.88434
G0 F6000 X162.81 Y164.23
G1 F5160 X162.50 Y164.89 E358.91405
G1 X163.17 Y164.92 E358.93484
G1 X163.09 Y165.36 E358.95319
G0 F6000 X138.33 Y160.42
G1 F5160 X137.75 Y161.00 E358.98755
;LAYER:4
G0 F6000 X137.50 Y160.94 Z1.10
;TYPE:WALL-INNER
G1 X138.72 Y159.83 E359.05631
G1 X138.01 Y158.50 E359.11896
G1 X137.17 Y155.74 E359.23892
G1 X135.52 Y155.69 E359.30777
G1 X135.48 Y155.31 E359.32347
G1 X136.03 Y155.09 E359.34792
G1 X137.03 Y154.68 E359.39309
G1 X136.81 Y152.50 E359.48409
G1 X136.93 Y151.36 E359.53172
G1 X137.03 Y150.32 E359.57525
G1 X135.48 Y149.69 E359.64477
G1 X135.52 Y149.31 E359.66047
G1 X137.17 Y149.26 E359.72928
G1 X137.72 Y147.45 E359.80782
G1 X138.01 Y146.50 E359.84912
G1 X138.33 Y145.89 E359.87771
G1 X138.72 Y145.16 E359.91197
G1 X137.50 Y144.06 E359.98049
G1 X137.61 Y143.85 E359.99039
G1 X137.68 Y143.71 E359.99697
G1 X139.14 Y144.18 E360.06059
G1 X141.41 Y141.41 E360.20958
G1 X142.06 Y140.88 E360.24431
G1 X141.29 Y139.44 E360.31255
G1 X141.60 Y139.18 E360.32923
G1 X142.01 Y139.51 E360.35124
G1 X142.89 Y140.19 E360.39771
G1 X143.79 Y139.46 E360.44591
G1 X146.64 Y137.93 E360.58050
G1 X146.42 Y136.36 E360.64653
G1 X146.80 Y136.24 E360.66288
G1 X147.68 Y137.65 E360.73188
G1 X148.99 Y137.26 E360.78860
G1 X149.44 Y137.12 E360.80852
G1 X150.81 Y136.98 E360.86566
G1 X151.96 Y136.87 E360.91380
G1 X152.31 Y135.22 E360.98368
G1 X152.50 Y135.20 E360.99158
G1 X152.69 Y135.22 E360.99931
G1 X152.81 Y135.82 E361.02461
G1 X153.04 Y136.87 E361.06930
G1 X154.74 Y137.04 E361.14045
G1 X155.56 Y137.12 E361.17470
G1 X156.43 Y137.38 E361.21234
G1 X157.32 Y137.65 E361.25111
G1 X158.20 Y136.24 E361.32004
G1 X158.58 Y136.36 E361.33641
G1 X158.50 Y136.88 E361.35849
G1 X158.35 Y137.93 E361.40253
G1 X161.21 Y139.46 E361.53731
G1 X162.11 Y140.19 E361.58545
G1 X163.40 Y139.18 E361.65352
G1 X163.71 Y139.44 E361.67021
G1 X163.47 Y139.89 E361.69137
G1 X162.94 Y140.88 E361.73837
G1 X163.59 Y141.41 E361.77313
G1 X164.85 Y142.94 E361.85535
G1 X165.49 Y143.72 E361.89732
G1 X165.85 Y144.19 E361.92181
G1 X166.98 Y143.82 E361.97125
G1 X167.32 Y143.71 E361.98616
G1 X167.50 Y144.06 E362.00262
G1 X166.28 Y145.17 E362.07138
G1 X166.99 Y146.50 E362.13403
G1 X167.83 Y149.26 E362.25399
G1 X169.48 Y149.31 E362.32283
G1 X169.52 Y149.69 E362.33862
G1 X167.97 Y150.32 E362.40817
G1 X168.19 Y152.50 E362.49930
G1 X168.07 Y153.64 E362.54689
G1 X167.97 Y154.68 E362.59042
G1 X169.52 Y155.31 E362.65995
G1 X169.48 Y155.69 E362.67566
G1 X168.89 Y155.71 E362.70024
G1 X167.83 Y155.75 E362.74455
G1 X167.28 Y157.55 E362.82295
G1 X166.99 Y158.50 E362.86425
G1 X166.67 Y159.11 E362.89284
G1 X166.28 Y159.84 E362.92709
G1 X167.50 Y160.94 E362.99562
G1 X167.32 Y161.29 E363.01208
G1 X165.86 Y160.82 E363.07565
G1 X163.59 Y163.59 E363.22464
G1 X162.94 Y164.12 E363.25939
G1 X163.71 Y165.56 E363.32759
G1 X163.40 Y165.82 E363.34428
G1 X162.99 Y165.49 E363.36629
G1 X162.10 Y164.80 E363.41281
G1 X161.21 Y165.54 E363.46089
G1 X159.58 Y166.41 E363.53796
G1 X158.36 Y167.07 E363.59561
G1 X158.58 Y168.64 E363.66164
G1 X158.20 Y168.76 E363.67798
G1 X157.32 Y167.35 E363.74699
G1 X156.01 Y167.74 E363.80371
G1 X155.56 Y167.88 E363.82363
G1 X154.19 Y168.02 E363.88077
G1 X153.04 Y168.13 E363.92891
G1 X152.69 Y169.78 E363.99879
G1 X152.50 Y169.80 E364.00665
G1 X152.31 Y169.78 E364.01442
G1 X151.96 Y168.13 E364.08434
G1 X150.26 Y167.96 E364.15562
G1 X149.44 Y167.88 E364.18987
G1 X148.57 Y167.62 E364.22751
G1 X147.68 Y167.35 E364.26628
G1 X146.80 Y168.76 E364.33520
G1 X146.42 Y168.64 E364.35159
G1 X146.50 Y168.12 E364.37363
G1 X146.65 Y167.07 E364.41767
G1 X143.79 Y165.54 E364.55245
G1 X142.89 Y164.81 E364.60059
G1 X141.60 Y165.82 E364.66862
G1 X141.29 Y165.56 E364.68535
G1 X141.53 Y165.11 E364.70651
G1 X142.06 Y164.12 E364.75351
G1 X141.41 Y163.59 E364.78827
G1 X140.15 Y162.06 E364.87049
G1 X139.51 Y161.27 E364.91287
G1 X139.15 Y160.81 E364.93695
G1 X138.02 Y161.18 E364.98639
G1 X137.68 Y161.29 E365.00130
G1 X137.50 Y160.94 E365.01776
G0 X149.16 Y154.85
G1 X149.65 Y155.46 E365.05037
G1 X150.26 Y155.96 E365.08301
G1 X150.95 Y156.32 E365.11563
G1 X151.70 Y156.55 E365.14826
G1 X152.48 Y156.63 E365.18089
G1 X153.26 Y156.55 E365.21348
G1 X154.02 Y156.32 E365.24615
G1 X154.71 Y155.95 E365.27879
G1 X155.31 Y155.46 E365.31138
G1 X155.81 Y154.85 E365.34399
G1 X156.18 Y154.16 E365.37665
G1 X156.41 Y153.41 E365.40928
G1 X156.49 Y152.63 E365.44191
G1 X156.41 Y151.85 E365.47449
G1 X156.18 Y151.09 E365.50712
G1 X155.81 Y150.40 E365.53978
G1 X155.31 Y149.80 E365.57239
G1 X154.71 Y149.30 E365.60498
G1 X154.01 Y148.93 E365.63766
G1 X153.26 Y148.70 E365.67028
G1 X152.48 Y148.62 E365.70287
G1 X151.70 Y148.70 E365.73550
G1 X150.95 Y148.93 E365.76808
G1 X150.26 Y149.30 E365.80074
G1 X149.65 Y149.80 E365.83338
G1 X149.16 Y150.40 E365.86599
G1 X148.79 Y151.09 E365.89863
G1 X148.56 Y151.85 E365.93126
G1 X148.48 Y152.63 E365.96385
G1 X148.56 Y153.41 E365.99648
G1 X148.79 Y154.16 E366.02911
G1 X149.16 Y154.85 E366.06176
G0 X149.57 Y154.57
;TYPE:WALL-OUTER
G1 X150.01 Y155.10 E366.09026
G1 X150.54 Y155.54 E366.11880
G1 X151.15 Y155.86 E366.14737
G1 X151.80 Y156.06 E366.17587
G1 X152.48 Y156.13 E366.20440
G1 X153.17 Y156.06 E366.23289
G1 X153.82 Y155.86 E366.26143
G1 X154.43 Y155.54 E366.29000
G1 X154.96 Y155.10 E366.31851
G1 X155.40 Y154.57 E366.34704
G1 X155.72 Y153.97 E366.37559
G1 X155.92 Y153.31 E366.40413
G1 X155.98 Y152.63 E366.43266
G1 X155.92 Y151.94 E366.46116
G1 X155.72 Y151.29 E366.48970
G1 X155.40 Y150.68 E366.51825
G1 X154.96 Y150.15 E366.54678
G1 X154.43 Y149.72 E366.57528
G1 X153.82 Y149.39 E366.60385
G1 X153.17 Y149.19 E366.63238
G1 X152.48 Y149.13 E366.66088
G1 X151.80 Y149.19 E366.68941
G1 X151.15 Y149.39 E366.71790
G1 X150.54 Y149.72 E366.74647
G1 X150.01 Y150.15 E366.77501
G1 X149.57 Y150.68 E366.80352
G1 X149.25 Y151.29 E366.83207
G1 X149.05 Y151.94 E366.86061
G1 X148.98 Y152.63 E366.88910
G1 X149.05 Y153.31 E366.91764
G1 X149.25 Y153.97 E366.94618
G1 X149.57 Y154.57 E366.97473
G0 X149.26 Y154.74
G0 X138.41 Y159.56
G0 X138.10 Y159.72
G1 X137.54 Y158.69 E367.02324
G1 X136.80 Y156.23 E367.13034
G1 X135.10 Y156.17 E367.20077
G1 X135.04 Y155.97 E367.20937
G1 X134.95 Y154.99 E367.25064
G1 X136.50 Y154.36 E367.32017
G1 X136.31 Y152.50 E367.39776
G1 X136.50 Y150.64 E367.47542
G1 X134.95 Y150.01 E367.54494
G1 X135.04 Y149.03 E367.58622
G1 X135.10 Y148.83 E367.59478
G1 X136.80 Y148.77 E367.66521
G1 X137.54 Y146.31 E367.77230
G1 X137.89 Y145.66 E367.80285
G1 X138.09 Y145.28 E367.82085
G1 X136.87 Y144.17 E367.88949
G1 X137.44 Y143.10 E367.93960
G1 X138.97 Y143.60 E368.00640
G1 X141.05 Y141.06 E368.14316
G1 X141.42 Y140.76 E368.16302
G1 X140.65 Y139.31 E368.23111
G1 X141.59 Y138.54 E368.28148
G1 X142.89 Y139.55 E368.34986
G1 X143.51 Y139.04 E368.38342
G1 X146.10 Y137.65 E368.50558
G1 X145.87 Y136.00 E368.57493
G1 X147.02 Y135.65 E368.62494
G1 X147.90 Y137.06 E368.69399
G1 X148.84 Y136.78 E368.73481
G1 X149.34 Y136.62 E368.75659
G1 X151.55 Y136.41 E368.84888
G1 X151.90 Y134.76 E368.91880
G1 X152.50 Y134.70 E368.94387
G1 X153.10 Y134.76 E368.96893
G1 X153.45 Y136.41 E369.03895
G1 X155.66 Y136.62 E369.13123
G1 X157.10 Y137.06 E369.19379
G1 X157.98 Y135.65 E369.26283
G1 X159.13 Y136.00 E369.31284
G1 X158.90 Y137.66 E369.38227
G1 X161.50 Y139.04 E369.50464
G1 X162.12 Y139.55 E369.53805
G1 X163.41 Y138.54 E369.60629
G1 X164.35 Y139.31 E369.65666
G1 X163.58 Y140.76 E369.72475
G1 X163.95 Y141.06 E369.74461
G1 X165.88 Y143.42 E369.87146
G1 X166.03 Y143.60 E369.88124
G1 X167.56 Y143.10 E369.94830
G1 X168.13 Y144.17 E369.99840
G1 X166.90 Y145.28 E370.06717
G1 X167.46 Y146.31 E370.11568
G1 X168.20 Y148.77 E370.22277
G1 X169.90 Y148.83 E370.29320
G1 X169.96 Y149.03 E370.30181
G1 X170.05 Y150.01 E370.34304
G1 X168.50 Y150.64 E370.41257
G1 X168.69 Y152.50 E370.49020
G1 X168.50 Y154.36 E370.56778
G1 X170.05 Y154.99 E370.63733
G1 X169.96 Y155.97 E370.67856
G1 X169.90 Y156.17 E370.68716
G1 X168.20 Y156.23 E370.75764
G1 X167.46 Y158.69 E370.86468
G1 X167.11 Y159.34 E370.89522
G1 X166.91 Y159.72 E370.91323
G1 X168.13 Y160.83 E370.98187
G1 X167.56 Y161.90 E371.03198
G1 X166.03 Y161.40 E371.09878
G1 X163.95 Y163.94 E371.23556
G1 X163.58 Y164.25 E371.25542
G1 X164.35 Y165.69 E371.32347
G1 X163.41 Y166.46 E371.37384
G1 X162.11 Y165.45 E371.44225
G1 X161.50 Y165.96 E371.47565
G1 X158.90 Y167.35 E371.59800
G1 X159.13 Y169.00 E371.66734
G1 X157.98 Y169.35 E371.71736
G1 X157.10 Y167.94 E371.78640
G1 X156.16 Y168.22 E371.82723
G1 X155.66 Y168.38 E371.84901
G1 X153.45 Y168.59 E371.94129
G1 X153.10 Y170.24 E372.01122
G1 X152.50 Y170.30 E372.03633
G1 X151.90 Y170.24 E372.06135
G1 X151.55 Y168.59 E372.13131
G1 X149.34 Y168.38 E372.22364
G1 X147.90 Y167.94 E372.28620
G1 X147.02 Y169.35 E372.35525
G1 X145.87 Y169.00 E372.40526
G1 X146.10 Y167.34 E372.47466
G1 X143.50 Y165.96 E372.59702
G1 X142.88 Y165.45 E372.63044
G1 X141.59 Y166.46 E372.69868
G1 X140.65 Y165.69 E372.74904
G1 X141.42 Y164.24 E372.81713
G1 X141.05 Y163.94 E372.83699
G1 X139.11 Y161.58 E372.96417
G1 X138.97 Y161.40 E372.97363
G1 X137.44 Y161.90 E373.04068
G1 X136.87 Y160.83 E373.09079
G1 X138.10 Y159.72 E373.15955
G0 X138.60 Y160.17
;TYPE:FILL
G1 X138.82 Y160.74 E373.18759
G1 X138.05 Y160.68 E373.20604
G1 X138.01 Y161.00 E373.21941
G0 X138.86 Y159.72
G1 X145.28 Y166.14 E373.59683
G0 X145.13 Y166.43
G0 X146.80 Y166.95
G1 X138.12 Y158.27 E374.10700
G0 X137.81 Y157.26
G1 X147.74 Y167.19 E374.69073
G0 X147.37 Y167.52
G1 X146.79 Y167.29 E374.72212
G1 X146.96 Y168.17 E374.74262
G1 X146.66 Y168.22 E374.75533
G0 X147.72 Y167.46
G0 X148.75 Y167.49
G1 X137.51 Y156.24 E375.41672
G0 X136.81 Y155.55
G1 X136.24 Y155.33 E375.44180
G1 X135.89 Y155.33 E375.45632
G0 X136.89 Y154.92
G1 X149.70 Y167.73 E376.20941
G0 X150.49 Y167.81
G1 X137.19 Y154.51 E376.99104
G0 X137.11 Y153.73
G1 X151.27 Y167.89 E377.82348
G0 X152.06 Y167.97
G1 X137.03 Y152.94 E378.70671
G0 X137.02 Y152.22
G1 X152.87 Y168.07 E379.63893
G0 X153.42 Y167.92
G1 X137.08 Y151.58 E380.59983
G0 X137.14 Y150.93
G1 X154.07 Y167.85 E381.59484
G0 X154.71 Y167.79
G1 X137.21 Y150.29 E382.62395
G0 X137.06 Y150.14
G1 X136.12 Y149.56 E382.66395
G1 X135.74 Y149.53 E382.68001
G0 X137.06 Y149.44
G1 X155.35 Y167.73 E383.75557
G0 X155.92 Y167.59
G1 X137.41 Y149.07 E384.84415
G0 X137.57 Y148.53
G1 X156.47 Y167.43 E385.95498
G0 X157.01 Y167.26
G1 X137.74 Y147.99 E387.08805
G0 X137.90 Y147.45
G1 X158.29 Y167.83 E388.28655
G0 X158.17 Y167.01
G1 X138.07 Y146.91 E389.46864
G0 X138.26 Y146.39
G1 X158.60 Y166.74 E390.66473
G0 X159.06 Y166.49
G1 X138.51 Y145.93 E391.87352
G0 X138.75 Y145.47
G1 X159.53 Y166.24 E393.09499
G0 X159.99 Y166.00
G1 X149.76 Y155.77 E393.69612
G0 X149.34 Y155.35
G1 X137.98 Y143.99 E394.36387
G0 X139.03 Y144.33
G1 X148.50 Y153.80 E394.92043
G0 X148.34 Y152.93
G1 X139.46 Y144.06 E395.44213
G0 X139.78 Y143.67
G1 X148.34 Y152.23 E395.94566
G0 X148.44 Y151.62
G1 X140.10 Y143.28 E396.43620
G0 X140.42 Y142.89
G1 X148.61 Y151.08 E396.91774
G0 X148.84 Y150.61
G1 X140.74 Y142.50 E397.39448
G0 X141.05 Y142.12
G1 X149.11 Y150.18 E397.86838
G0 X149.43 Y149.79
G1 X141.37 Y141.73 E398.34228
G0 X141.73 Y141.38
G1 X149.80 Y149.45 E398.81682
G0 X150.19 Y149.13
G1 X142.12 Y141.06 E399.29154
G0 X142.89 Y140.42
G1 X151.16 Y148.68 E399.77741
G0 X150.65 Y148.89
G1 X141.80 Y140.03 E400.29787
G0 X143.28 Y140.10
G1 X151.71 Y148.52 E400.79311
G0 X152.35 Y148.46
G1 X143.67 Y139.78 E401.30346
G0 X144.09 Y139.49
G1 X153.10 Y148.51 E401.83357
G0 X154.06 Y148.76
G1 X144.55 Y139.25 E402.39286
G0 X145.01 Y139.00
G1 X167.02 Y161.01 E403.68679
G0 X165.97 Y160.67
G1 X156.35 Y151.04 E404.25259
G0 X156.60 Y152.00
G1 X165.53 Y160.94 E404.77799
G0 X165.22 Y161.33
G1 X156.65 Y152.76 E405.28187
G0 X156.59 Y153.40
G1 X164.90 Y161.72 E405.77070
G0 X164.58 Y162.10
G1 X156.43 Y153.95 E406.25013
G0 X156.22 Y154.45
G1 X164.26 Y162.49 E406.72291
G0 X163.94 Y162.88
G1 X155.97 Y154.91 E407.19143
G0 X155.66 Y155.31
G1 X163.62 Y163.27 E407.65965
G0 X163.27 Y163.62
G1 X155.32 Y155.68 E408.12687
G0 X154.93 Y155.99
G1 X162.88 Y163.94 E408.59404
G0 X162.10 Y164.58
G1 X154.03 Y156.50 E409.06882
G0 X154.50 Y156.26
G1 X163.20 Y164.96 E409.58028
G0 X161.72 Y164.90
G1 X153.49 Y156.67 E410.06421
G0 X152.88 Y156.77
G1 X161.33 Y165.22 E410.56115
G0 X160.91 Y165.50
G1 X152.18 Y156.77 E411.07450
G0 X151.31 Y156.62
G1 X160.45 Y165.75 E411.61160
G0 X153.11 Y168.22
G0 X152.75 Y168.66
G1 X152.21 Y168.48 E411.64852
G1 X152.62 Y169.24 E411.68447
G0 X151.89 Y168.22
G0 X143.58 Y165.15
G1 X139.85 Y161.42 E411.90361
G0 X142.11 Y164.38
G1 X142.37 Y164.99 E411.93038
G1 X141.74 Y165.08 E411.94817
G1 X141.77 Y165.46 E411.96410
G0 X142.89 Y164.93
G0 X166.25 Y159.53
G1 X145.47 Y138.75 E413.18559
G0 X145.93 Y138.51
G1 X166.49 Y159.07 E414.39438
G0 X166.74 Y158.61
G1 X146.39 Y138.26 E415.59050
G0 X146.83 Y137.99
G1 X166.93 Y158.09 E416.77257
G0 X167.10 Y157.55
G1 X146.71 Y137.17 E417.97113
G0 X147.99 Y137.74
G1 X167.26 Y157.01 E419.10413
G0 X167.43 Y156.47
G1 X148.53 Y137.57 E420.21497
G0 X149.08 Y137.41
G1 X167.59 Y155.92 E421.30352
G0 X167.94 Y155.57
G1 X149.65 Y137.27 E422.37928
G0 X150.29 Y137.21
G1 X167.79 Y154.71 E423.40836
G0 X167.94 Y154.86
G1 X168.88 Y155.44 E423.44852
G1 X169.26 Y155.47 E423.46458
G0 X168.07 Y154.62
G0 X167.85 Y154.06
G1 X150.93 Y137.14 E424.45956
G0 X151.57 Y137.08
G1 X167.92 Y153.42 E425.42047
G0 X167.98 Y152.78
G1 X152.13 Y136.92 E426.35262
G0 X152.25 Y136.34
G1 X152.88 Y136.97 E426.38972
G0 X152.94 Y137.03
G1 X167.97 Y152.06 E427.27296
G0 X167.89 Y151.27
G1 X153.73 Y137.11 E428.10545
G0 X154.51 Y137.19
G1 X167.81 Y150.49 E428.88721
G0 X168.10 Y150.07
G1 X155.30 Y137.27 E429.64021
G0 X156.24 Y137.50
G1 X167.49 Y148.75 E430.30164
G0 X168.18 Y149.44
G1 X168.76 Y149.67 E430.32660
G1 X169.11 Y149.67 E430.34119
G0 X167.89 Y149.17
G0 X167.18 Y147.74
G1 X157.26 Y137.81 E430.92489
G0 X157.63 Y137.48
G1 X158.16 Y138.01 E430.95629
G0 X158.20 Y138.05
G1 X166.88 Y146.72 E431.46646
G0 X166.14 Y145.28
G1 X159.72 Y138.86 E431.84396
G0 X161.42 Y139.85
G1 X165.15 Y143.58 E432.06345
G0 X165.91 Y144.35
G1 X166.58 Y144.66 E432.09150
G1 X166.72 Y144.09 E432.10995
G1 X167.14 Y144.16 E432.12763
G0 X165.88 Y144.09
G0 X162.89 Y140.62
G1 X162.63 Y140.00 E432.15438
G1 X163.26 Y139.92 E432.17218
G1 X163.23 Y139.54 E432.18810
G0 X162.11 Y140.07
G0 X158.45 Y137.88
G0 X158.25 Y137.39
G1 X158.04 Y136.82 E432.20860
G1 X158.34 Y136.77 E432.22134
G0 X157.28 Y137.54
G0 X153.11 Y136.79
G0 X152.69 Y136.07
G1 X152.38 Y135.76 E432.23986
;LAYER:5
G0 X152.31 Y135.22 Z1.30
;TYPE:WALL-INNER
G1 X152.50 Y135.20 E432.24776
G1 X152.69 Y135.22 E432.25549
G1 X152.88 Y136.13 E432.29392
G1 X153.08 Y137.04 E432.33291
G1 X154.48 Y137.18 E432.39153
G1 X155.53 Y137.28 E432.43522
G1 X156.24 Y137.50 E432.46631
G1 X157.23 Y137.80 E432.50915
G1 X158.20 Y136.24 E432.58546
G1 X158.58 Y136.36 E432.60184
G1 X158.46 Y137.20 E432.63731
G1 X158.33 Y138.11 E432.67557
G1 X159.80 Y138.90 E432.74500
G1 X161.12 Y139.60 E432.80709
G1 X161.97 Y140.30 E432.85284
G1 X163.40 Y139.18 E432.92840
G1 X163.71 Y139.44 E432.94512
G1 X162.86 Y141.04 E433.02059
G1 X163.47 Y141.53 E433.05308
G1 X165.34 Y143.81 E433.17553
G1 X165.66 Y144.25 E433.19820
G1 X167.22 Y143.74 E433.26620
G1 X167.32 Y143.71 E433.27049
G1 X167.50 Y144.06 E433.28695
G1 X166.15 Y145.28 E433.36298
G1 X166.83 Y146.56 E433.42325
G1 X167.65 Y149.25 E433.54004
G1 X169.48 Y149.31 E433.61637
G1 X169.52 Y149.69 E433.63208
G1 X168.68 Y150.03 E433.66957
G1 X167.81 Y150.39 E433.70905
G1 X167.93 Y151.67 E433.76244
G1 X168.01 Y152.50 E433.79728
G1 X167.92 Y153.44 E433.83664
G1 X167.81 Y154.62 E433.88563
G1 X169.52 Y155.31 E433.96242
G1 X169.48 Y155.69 E433.97817
G1 X167.65 Y155.75 E434.05451
G1 X166.83 Y158.44 E434.17121
G1 X166.57 Y158.93 E434.19464
G1 X166.15 Y159.72 E434.23158
G1 X167.51 Y160.94 E434.30743
G1 X167.32 Y161.29 E434.32390
G1 X165.69 Y160.76 E434.39516
G1 X163.47 Y163.47 E434.54057
G1 X162.86 Y163.96 E434.57318
G1 X163.71 Y165.56 E434.64865
G1 X163.40 Y165.82 E434.66537
G1 X162.74 Y165.31 E434.70008
G1 X161.97 Y164.70 E434.74103
G1 X161.12 Y165.40 E434.78687
G1 X159.76 Y166.12 E434.85083
G1 X158.33 Y166.89 E434.91828
G1 X158.58 Y168.64 E434.99186
G1 X158.20 Y168.76 E435.00824
G1 X157.23 Y167.20 E435.08455
G1 X156.12 Y167.53 E435.13271
G1 X155.53 Y167.72 E435.15845
G1 X154.39 Y167.83 E435.20582
G1 X153.07 Y167.96 E435.26089
G1 X152.69 Y169.78 E435.33824
G1 X152.50 Y169.80 E435.34606
G1 X152.31 Y169.78 E435.35387
G1 X151.93 Y167.96 E435.43123
G1 X150.52 Y167.82 E435.48993
G1 X149.47 Y167.72 E435.53367
G1 X148.76 Y167.50 E435.56476
G1 X147.77 Y167.20 E435.60760
G1 X146.80 Y168.76 E435.68391
G1 X146.42 Y168.64 E435.70030
G1 X146.54 Y167.80 E435.73573
G1 X146.67 Y166.89 E435.77399
G1 X145.20 Y166.10 E435.84342
G1 X143.88 Y165.40 E435.90550
G1 X143.03 Y164.70 E435.95126
G1 X141.60 Y165.82 E436.02681
G1 X141.29 Y165.56 E436.04353
G1 X142.14 Y163.96 E436.11901
G1 X141.53 Y163.47 E436.15150
G1 X139.66 Y161.19 E436.27394
G1 X139.34 Y160.75 E436.29662
G1 X137.78 Y161.26 E436.36462
G1 X137.68 Y161.29 E436.36890
G1 X137.50 Y160.94 E436.38537
G1 X138.85 Y159.72 E436.46140
G1 X138.17 Y158.44 E436.52166
G1 X137.35 Y155.75 E436.63845
G1 X135.52 Y155.69 E436.71479
G1 X135.48 Y155.31 E436.73050
G1 X137.19 Y154.61 E436.80743
G1 X137.07 Y153.33 E436.86091
G1 X136.99 Y152.50 E436.89575
G1 X137.08 Y151.56 E436.93511
G1 X137.19 Y150.38 E436.98410
G1 X135.48 Y149.69 E437.06093
G1 X135.52 Y149.31 E437.07668
G1 X137.35 Y149.25 E437.15297
G1 X137.80 Y147.78 E437.21695
G1 X138.17 Y146.56 E437.26968
G1 X138.43 Y146.07 E437.29317
G1 X138.85 Y145.28 E437.33011
G1 X137.49 Y144.06 E437.40597
G1 X137.68 Y143.71 E437.42243
G1 X139.31 Y144.24 E437.49369
G1 X141.53 Y141.53 E437.63910
G1 X142.14 Y141.04 E437.67171
G1 X141.29 Y139.44 E437.74718
G1 X141.60 Y139.18 E437.76390
G1 X142.25 Y139.69 E437.79855
G1 X143.03 Y140.30 E437.83951
G1 X143.88 Y139.60 E437.88532
G1 X146.67 Y138.11 E438.01673
G1 X146.42 Y136.36 E438.09035
G1 X146.80 Y136.24 E438.10673
G1 X147.77 Y137.80 E438.18304
G1 X148.88 Y137.47 E438.23120
G1 X149.47 Y137.28 E438.25694
G1 X150.61 Y137.17 E438.30431
G1 X151.93 Y137.04 E438.35938
G1 X152.31 Y135.22 E438.43670
G0 X152.48 Y148.62
G1 X151.70 Y148.70 E438.46933
G1 X150.95 Y148.93 E438.50191
G1 X150.26 Y149.30 E438.53457
G1 X149.65 Y149.80 E438.56721
G1 X149.16 Y150.40 E438.59982
G1 X148.79 Y151.09 E438.63246
G1 X148.56 Y151.85 E438.66509
G1 X148.48 Y152.63 E438.69768
G1 X148.56 Y153.41 E438.73031
G1 X148.79 Y154.16 E438.76294
G1 X149.16 Y154.85 E438.79559
G1 X149.65 Y155.46 E438.82820
G1 X150.26 Y155.96 E438.86084
G1 X150.95 Y156.32 E438.89346
G1 X151.70 Y156.55 E438.92609
G1 X152.48 Y156.63 E438.95872
G1 X153.26 Y156.55 E438.99131
G1 X154.02 Y156.32 E439.02398
G1 X154.71 Y155.95 E439.05662
G1 X155.31 Y155.46 E439.08921
G1 X155.81 Y154.85 E439.12182
G1 X156.18 Y154.16 E439.15448
G1 X156.41 Y153.41 E439.18711
G1 X156.49 Y152.63 E439.21973
G1 X156.41 Y151.85 E439.25232
G1 X156.18 Y151.09 E439.28495
G1 X155.81 Y150.40 E439.31761
G1 X155.31 Y149.80 E439.35022
G1 X154.71 Y149.30 E439.38281
G1 X154.01 Y148.93 E439.41549
G1 X153.26 Y148.70 E439.44810
G1 X152.48 Y148.62 E439.48070
G0 X152.48 Y149.13
;TYPE:WALL-OUTER
G1 X151.80 Y149.19 E439.50923
G1 X151.15 Y149.39 E439.53772
G1 X150.54 Y149.72 E439.56629
G1 X150.01 Y150.15 E439.59483
G1 X149.57 Y150.68 E439.62333
G1 X149.25 Y151.29 E439.65188
G1 X149.05 Y151.94 E439.68042
G1 X148.98 Y152.63 E439.70892
G1 X149.05 Y153.31 E439.73746
G1 X149.25 Y153.97 E439.76600
G1 X149.57 Y154.57 E439.79455
G1 X150.01 Y155.10 E439.82305
G1 X150.54 Y155.54 E439.85159
G1 X151.15 Y155.86 E439.88016
G1 X151.80 Y156.06 E439.90866
G1 X152.48 Y156.13 E439.93719
G1 X153.17 Y156.06 E439.96568
G1 X153.82 Y155.86 E439.99422
G1 X154.43 Y155.54 E440.02279
G1 X154.96 Y155.10 E440.05130
G1 X155.40 Y154.57 E440.07983
G1 X155.72 Y153.97 E440.10838
G1 X155.92 Y153.31 E440.13692
G1 X155.98 Y152.63 E440.16545
G1 X155.92 Y151.94 E440.19395
G1 X155.72 Y151.29 E440.22249
G1 X155.40 Y150.68 E440.25104
G1 X154.96 Y150.15 E440.27957
G1 X154.43 Y149.72 E440.30807
G1 X153.82 Y149.39 E440.33664
G1 X153.17 Y149.19 E440.36517
G1 X152.48 Y149.13 E440.39367
G0 X152.52 Y148.78
G0 X151.85 Y136.65
G0 X151.51 Y136.58
G1 X151.90 Y134.76 E440.47103
G1 X152.50 Y134.70 E440.49610
G1 X153.10 Y134.76 E440.52117
G1 X153.49 Y136.58 E440.59857
G1 X155.63 Y136.79 E440.68789
G1 X156.39 Y137.02 E440.72093
G1 X157.01 Y137.21 E440.74784
G1 X157.98 Y135.65 E440.82421
G1 X159.13 Y136.00 E440.87425
G1 X158.87 Y137.84 E440.95128
G1 X161.40 Y139.18 E441.07032
G1 X161.98 Y139.66 E441.10143
G1 X163.41 Y138.54 E441.17698
G1 X164.35 Y139.31 E441.22735
G1 X163.50 Y140.91 E441.30267
G1 X163.82 Y141.17 E441.32011
G1 X165.72 Y143.48 E441.44421
G1 X165.85 Y143.66 E441.45348
G1 X167.56 Y143.10 E441.52826
G1 X168.13 Y144.17 E441.57837
G1 X166.77 Y145.39 E441.65440
G1 X167.30 Y146.37 E441.70049
G1 X168.02 Y148.76 E441.80446
G1 X169.90 Y148.83 E441.88238
G1 X169.96 Y149.03 E441.89098
G1 X170.05 Y150.01 E441.93221
G1 X168.34 Y150.71 E442.00911
G1 X168.52 Y152.50 E442.08393
G1 X168.42 Y153.49 E442.12535
G1 X168.34 Y154.29 E442.15880
G1 X170.05 Y154.99 E442.23568
G1 X169.96 Y155.97 E442.27696
G1 X169.90 Y156.17 E442.28552
G1 X168.02 Y156.24 E442.36348
G1 X167.30 Y158.63 E442.46743
G1 X167.01 Y159.17 E442.49284
G1 X166.78 Y159.61 E442.51353
G1 X168.13 Y160.83 E442.58944
G1 X167.56 Y161.90 E442.63955
G1 X165.86 Y161.34 E442.71395
G1 X163.83 Y163.82 E442.84737
G1 X163.50 Y164.09 E442.86493
G1 X164.35 Y165.69 E442.94026
G1 X163.41 Y166.46 E442.99062
G1 X161.98 Y165.34 E443.06626
G1 X161.40 Y165.82 E443.09738
G1 X158.88 Y167.17 E443.21642
G1 X159.13 Y169.00 E443.29333
G1 X157.98 Y169.35 E443.34341
G1 X157.01 Y167.79 E443.41976
