;-- START GCODE --
;Sliced for Type A Machines Series 1
;Sliced at: Thu 17-11-2016 19:25:48
;Basic settings: Layer height: 0.2 Walls: 1.2 Fill: 20
;Print Speed: 40 Support: 0
;Retraction Speed: 40 Retraction Distance: 1.2
;Print time: #P_TIME#
;Filament used: #F_AMNT#m #F_WGHT#g
;Filament cost: #F_COST#
M106 S255	 ;start with the fan on
G21        ;metric values
G90        ;absolute positioning
M106 S255    ;start with the fan on
G28     ;move to endstops
G29		;allows for auto-levelling
G1 X150 Y5  Z15.0 F12000 ;center and move the platform down 15mm
M109 S220 ;Heat To temp
G92 E0                  ;zero the extruded length
G1 F200 E30              ;extrude 30mm of feed stock
G92 E0                  ;zero the extruded length again
G1 X175 Y25  Z0 F12000 ;remove bugger
G1 X220 F12000 ;remove bugger
G1 X150 Y150  Z15 F12000 ;recenter and begin
G1 F12000

;Layer count: 93
;LAYER:0
M106 S255
G0 F12000 X111.29 Y115.69 Z0.30
;TYPE:SKIRT
G1 F2400 X183.46 Y115.69 E3.60058
G1 X183.46 Y127.88 E4.20874
G1 X185.10 Y129.12 E4.31116
G1 X187.96 Y132.65 E4.53823
G1 X188.19 Y132.87 E4.55414
G1 X189.51 Y134.39 E4.65423
G1 X190.36 Y135.58 E4.72740
G1 X190.99 Y136.58 E4.78631
G1 X191.34 Y137.21 E4.82235
G1 X191.89 Y138.21 E4.87930
G1 X192.64 Y140.08 E4.97986
G1 X193.06 Y141.50 E5.05355
G1 X193.47 Y143.31 E5.14612
G1 X193.71 Y145.50 E5.25599
G1 X193.71 Y149.25 E5.44348
G1 X193.71 Y149.29 E5.44512
G1 X193.71 Y152.17 E5.58896
G1 X193.71 Y156.58 E5.80887
G1 X193.71 Y157.98 E5.87902
G1 X193.71 Y159.15 E5.93739
G1 X193.71 Y159.33 E5.94617
G1 X193.78 Y160.46 E6.00245
G1 X193.50 Y162.71 E6.11568
G1 X193.25 Y164.22 E6.19218
G1 X192.68 Y166.17 E6.29336
G1 X191.78 Y168.43 E6.41460
G1 X190.80 Y170.10 E6.51136
G1 X189.77 Y171.66 E6.60472
G1 X189.17 Y172.36 E6.65059
G1 X188.40 Y173.33 E6.71217
G1 X186.32 Y175.19 E6.85184
G1 X185.17 Y176.07 E6.92405
G1 X184.24 Y176.69 E6.97955
G1 X183.46 Y177.17 E7.02541
G1 X183.46 Y189.31 E7.63118
G1 X111.29 Y189.31 E11.23175
G1 X111.29 Y115.69 E14.90467
G0 F12000 X111.69 Y116.09
G1 F2400 X183.06 Y116.09 E18.46533
G1 X183.06 Y128.08 E19.06352
G1 X184.82 Y129.41 E19.17342
G1 X187.67 Y132.93 E19.39935
G1 X187.90 Y133.15 E19.41555
G1 X189.19 Y134.64 E19.51379
G1 X190.03 Y135.80 E19.58547
G1 X190.65 Y136.78 E19.64322
G1 X190.99 Y137.40 E19.67856
G1 X191.53 Y138.38 E19.73431
G1 X192.26 Y140.21 E19.83278
G1 X192.68 Y141.60 E19.90487
G1 X193.08 Y143.37 E19.99564
G1 X193.31 Y145.52 E20.10330
G1 X193.31 Y149.25 E20.28949
G1 X193.31 Y149.29 E20.29149
G1 X193.31 Y152.17 E20.43522
G1 X193.31 Y156.58 E20.65509
G1 X193.31 Y157.98 E20.72523
G1 X193.31 Y159.15 E20.78331
G1 X193.31 Y159.34 E20.79293
G1 X193.37 Y160.44 E20.84806
G1 X193.10 Y162.65 E20.95898
G1 X192.85 Y164.13 E21.03391
G1 X192.30 Y166.04 E21.13291
G1 X191.42 Y168.25 E21.25167
G1 X190.46 Y169.89 E21.34646
G1 X189.45 Y171.42 E21.43802
G1 X188.86 Y172.11 E21.48312
G1 X188.11 Y173.05 E21.54328
G1 X186.06 Y174.88 E21.68043
G1 X184.94 Y175.75 E21.75118
G1 X184.02 Y176.35 E21.80569
G1 X183.06 Y176.94 E21.86241
G1 X183.06 Y188.91 E22.45934
G1 X111.69 Y188.91 E26.02001
G1 X111.69 Y116.09 E29.65301
G0 F12000 X112.09 Y116.49
G1 F2400 X182.66 Y116.49 E33.17376
G1 X182.66 Y128.28 E33.76197
G1 X184.54 Y129.69 E33.87936
G1 X187.34 Y133.16 E34.10174
G1 X187.38 Y133.20 E34.10450
G1 X187.61 Y133.43 E34.12066
G1 X188.88 Y134.88 E34.21707
G1 X189.70 Y136.03 E34.28721
G1 X190.30 Y136.99 E34.34377
G1 X190.64 Y137.59 E34.37849
G1 X191.16 Y138.55 E34.43301
G1 X191.88 Y140.35 E34.52938
G1 X192.29 Y141.70 E34.59990
G1 X192.68 Y143.44 E34.68883
G1 X192.91 Y145.54 E34.79429
G1 X192.91 Y149.25 E34.97918
G1 X192.91 Y149.28 E34.98112
G1 X192.91 Y152.17 E35.12511
G1 X192.91 Y156.58 E35.34497
G1 X192.91 Y157.98 E35.41507
G1 X192.91 Y159.14 E35.47284
G1 X192.91 Y159.35 E35.48317
G1 X192.97 Y160.43 E35.53730
G1 X192.71 Y162.59 E35.64601
G1 X192.47 Y164.04 E35.71927
G1 X191.92 Y165.91 E35.81618
G1 X191.06 Y168.07 E35.93247
G1 X190.12 Y169.68 E36.02525
G1 X189.13 Y171.18 E36.11497
G1 X188.55 Y171.85 E36.15929
G1 X187.82 Y172.78 E36.21803
G1 X185.81 Y174.58 E36.35279
G1 X184.71 Y175.42 E36.42204
G1 X183.81 Y176.01 E36.47553
G1 X182.86 Y176.60 E36.53118
G1 X182.66 Y176.70 E36.54249
G1 X182.66 Y188.51 E37.13184
G1 X112.09 Y188.51 E40.65259
G1 X112.09 Y116.49 E44.24569
G0 F12000 X112.49 Y116.89
G1 F2400 X182.26 Y116.89 E47.72653
G1 X182.26 Y128.48 E48.30470
G1 X184.26 Y129.99 E48.42961
G1 X187.04 Y133.43 E48.65050
G1 X187.08 Y133.47 E48.65330
G1 X187.32 Y133.70 E48.67010
G1 X188.56 Y135.13 E48.76460
G1 X189.37 Y136.25 E48.83327
G1 X189.96 Y137.19 E48.88866
G1 X190.29 Y137.79 E48.92269
G1 X190.80 Y138.72 E48.97596
G1 X191.51 Y140.48 E49.07034
G1 X191.90 Y141.80 E49.13920
G1 X192.29 Y143.50 E49.22635
G1 X192.51 Y145.56 E49.32959
G1 X192.51 Y149.24 E49.51319
G1 X192.51 Y149.28 E49.51513
G1 X192.51 Y152.17 E49.65931
G1 X192.51 Y156.58 E49.87918
G1 X192.51 Y157.98 E49.94923
G1 X192.51 Y159.13 E50.00675
G1 X192.51 Y159.37 E50.01852
G1 X192.57 Y160.42 E50.07085
G1 X192.31 Y162.54 E50.17730
G1 X192.07 Y163.95 E50.24899
G1 X191.54 Y165.78 E50.34372
G1 X190.70 Y167.90 E50.45760
G1 X189.78 Y169.47 E50.54834
G1 X188.81 Y170.94 E50.63627
G1 X188.24 Y171.59 E50.67949
G1 X187.53 Y172.50 E50.73716
G1 X185.55 Y174.27 E50.86940
G1 X184.47 Y175.09 E50.93717
G1 X183.59 Y175.67 E50.98968
G1 X182.66 Y176.25 E51.04413
G1 X182.26 Y176.45 E51.06687
G1 X182.26 Y188.11 E51.64864
G1 X112.49 Y188.11 E55.12948
G1 X112.49 Y116.89 E58.68266
G0 F12000 X112.89 Y117.29
G1 F2400 X181.86 Y117.29 E62.12359
G1 X181.86 Y128.68 E62.69173
G1 X183.98 Y130.27 E62.82412
G1 X186.74 Y133.69 E63.04303
G1 X186.79 Y133.75 E63.04707
G1 X187.03 Y133.98 E63.06383
G1 X188.25 Y135.38 E63.15645
G1 X189.03 Y136.47 E63.22366
G1 X189.62 Y137.39 E63.27782
G1 X189.94 Y137.98 E63.31120
G1 X190.44 Y138.90 E63.36328
G1 X191.13 Y140.61 E63.45556
G1 X191.52 Y141.90 E63.52286
G1 X191.89 Y143.57 E63.60816
G1 X192.11 Y145.58 E63.70915
G1 X192.11 Y149.24 E63.89145
G1 X192.11 Y149.28 E63.89339
G1 X192.11 Y152.17 E64.03787
G1 X192.11 Y156.58 E64.25769
G1 X192.11 Y157.98 E64.32769
G1 X192.11 Y159.13 E64.38496
G1 X192.11 Y159.38 E64.39738
G1 X192.17 Y160.41 E64.44876
G1 X191.92 Y162.48 E64.55295
G1 X191.68 Y163.86 E64.62297
G1 X191.16 Y165.65 E64.71563
G1 X190.34 Y167.72 E64.82698
G1 X189.44 Y169.25 E64.91575
G1 X188.49 Y170.70 E65.00184
G1 X187.94 Y171.33 E65.04361
G1 X187.23 Y172.22 E65.10057
G1 X185.30 Y173.96 E65.23038
G1 X184.24 Y174.77 E65.29664
G1 X183.38 Y175.34 E65.34812
G1 X182.47 Y175.90 E65.40137
G1 X181.86 Y176.20 E65.43557
G1 X181.86 Y187.71 E66.00976
G1 X112.89 Y187.71 E69.45069
G1 X112.89 Y117.29 E72.96395
G0 F12000 X113.29 Y117.69
G1 F2400 X181.46 Y117.69 E76.36497
G1 X181.46 Y128.88 E76.92309
G1 X183.70 Y130.56 E77.06303
G1 X186.44 Y133.95 E77.28049
G1 X186.49 Y134.02 E77.28471
G1 X186.74 Y134.25 E77.30186
G1 X187.94 Y135.63 E77.39268
G1 X188.70 Y136.70 E77.45835
G1 X189.27 Y137.60 E77.51131
G1 X189.59 Y138.17 E77.54405
G1 X190.07 Y139.07 E77.59491
G1 X190.75 Y140.74 E77.68516
G1 X191.13 Y142.00 E77.75079
G1 X191.50 Y143.64 E77.83429
G1 X191.71 Y145.60 E77.93307
G1 X191.71 Y149.23 E78.11407
G1 X191.71 Y149.27 E78.11597
G1 X191.71 Y152.17 E78.26070
G1 X191.71 Y156.58 E78.48052
G1 X191.71 Y157.98 E78.55051
G1 X191.71 Y159.12 E78.60744
G1 X191.71 Y159.38 E78.62051
G1 X191.77 Y160.39 E78.67094
G1 X191.52 Y162.42 E78.77287
G1 X191.29 Y163.77 E78.84132
G1 X190.79 Y165.52 E78.93183
G1 X189.98 Y167.54 E79.04072
G1 X189.10 Y169.04 E79.12748
G1 X188.17 Y170.46 E79.21177
G1 X187.63 Y171.09 E79.25329
G1 X186.94 Y171.95 E79.30830
G1 X185.04 Y173.65 E79.43560
G1 X184.01 Y174.44 E79.50040
G1 X183.16 Y175.00 E79.55091
G1 X182.28 Y175.55 E79.60297
G1 X181.46 Y175.95 E79.64862
G1 X181.46 Y187.31 E80.21517
G1 X113.29 Y187.31 E83.61619
G1 X113.29 Y117.69 E87.08954
G0 F12000 X113.69 Y118.09
G1 F2400 X181.06 Y118.09 E90.45064
G1 X181.06 Y129.08 E90.99879
G1 X183.42 Y130.85 E91.14621
G1 X186.10 Y134.17 E91.35920
G1 X186.21 Y134.29 E91.36713
G1 X186.45 Y134.53 E91.38418
G1 X187.62 Y135.88 E91.47316
G1 X188.37 Y136.92 E91.53729
G1 X188.93 Y137.80 E91.58914
G1 X189.24 Y138.36 E91.62123
G1 X189.71 Y139.24 E91.67085
G1 X190.37 Y140.88 E91.75900
G1 X190.74 Y142.11 E91.82307
G1 X191.10 Y143.70 E91.90473
G1 X191.31 Y145.63 E92.00130
G1 X191.31 Y149.23 E92.18101
G1 X191.31 Y149.27 E92.18290
G1 X191.31 Y152.17 E92.32784
G1 X191.31 Y156.58 E92.54765
G1 X191.31 Y157.98 E92.61760
G1 X191.31 Y159.12 E92.67427
G1 X191.31 Y159.41 E92.68884
G1 X191.37 Y160.38 E92.73747
G1 X191.12 Y162.36 E92.83713
G1 X190.90 Y163.68 E92.90391
G1 X190.41 Y165.38 E92.99231
G1 X189.62 Y167.37 E93.09878
G1 X188.76 Y168.83 E93.18350
G1 X187.85 Y170.21 E93.26595
G1 X187.32 Y170.82 E93.30624
G1 X186.65 Y171.68 E93.36036
G1 X184.79 Y173.34 E93.48515
G1 X183.78 Y174.12 E93.54846
G1 X182.95 Y174.66 E93.59796
G1 X182.08 Y175.20 E93.64881
G1 X181.06 Y175.71 E93.70593
G1 X181.06 Y186.91 E94.26490
G1 X113.69 Y186.91 E97.62600
G1 X113.69 Y118.09 E101.05944
G0 F12000 X114.09 Y118.49
G1 F2400 X180.66 Y118.49 E104.38063
G1 X180.66 Y129.28 E104.91880
G1 X183.14 Y131.14 E105.07371
G1 X185.80 Y134.44 E105.28521
G1 X185.91 Y134.56 E105.29328
G1 X186.16 Y134.81 E105.31089
G1 X187.31 Y136.13 E105.39796
G1 X188.04 Y137.15 E105.46062
G1 X188.58 Y138.00 E105.51128
G1 X188.89 Y138.56 E105.54268
G1 X189.35 Y139.41 E105.59105
G1 X190.00 Y141.01 E105.67721
G1 X190.35 Y142.21 E105.73961
G1 X190.71 Y143.77 E105.81949
G1 X190.91 Y145.65 E105.91380
G1 X190.91 Y149.22 E106.09226
G1 X190.91 Y149.26 E106.09410
G1 X190.91 Y152.17 E106.23934
G1 X190.91 Y156.58 E106.45910
G1 X190.91 Y157.98 E106.52900
G1 X190.91 Y159.11 E106.58542
G1 X190.91 Y159.41 E106.60059
G1 X190.97 Y160.37 E106.64827
G1 X190.73 Y162.31 E106.74568
G1 X190.51 Y163.59 E106.81089
G1 X190.03 Y165.25 E106.89715
G1 X189.26 Y167.19 E107.00109
G1 X188.42 Y168.62 E107.08385
G1 X187.53 Y169.97 E107.16445
G1 X187.02 Y170.57 E107.20375
G1 X186.36 Y171.40 E107.25670
G1 X184.53 Y173.04 E107.37906
G1 X183.55 Y173.79 E107.44087
G1 X182.73 Y174.32 E107.48936
G1 X181.89 Y174.85 E107.53902
G1 X180.66 Y175.46 E107.60756
G1 X180.66 Y186.51 E108.15895
G1 X114.09 Y186.51 E111.48014
G1 X114.09 Y118.49 E114.87367
G0 F12000 X114.49 Y118.89
G1 F2400 X180.26 Y118.89 E118.15495
G1 X180.26 Y129.48 E118.68314
G1 X182.86 Y131.43 E118.84553
G1 X185.50 Y134.71 E119.05554
G1 X185.61 Y134.84 E119.06386
G1 X185.87 Y135.08 E119.08186
G1 X186.99 Y136.38 E119.16713
G1 X187.71 Y137.37 E119.22826
G1 X188.24 Y138.21 E119.27772
G1 X188.54 Y138.75 E119.30845
G1 X188.99 Y139.58 E119.35565
G1 X189.62 Y141.14 E119.43970
G1 X189.97 Y142.31 E119.50053
G1 X190.31 Y143.84 E119.57858
G1 X190.51 Y145.67 E119.67068
G1 X190.51 Y149.22 E119.84779
G1 X190.51 Y149.26 E119.84963
G1 X190.51 Y152.17 E119.99511
G1 X190.51 Y156.58 E120.21488
G1 X190.51 Y157.98 E120.28473
G1 X190.51 Y159.10 E120.34085
G1 X190.51 Y159.43 E120.35697
G1 X190.56 Y160.35 E120.40340
G1 X190.33 Y162.25 E120.49859
G1 X190.12 Y163.50 E120.56214
G1 X189.65 Y165.12 E120.64630
G1 X188.90 Y167.01 E120.74778
G1 X188.08 Y168.41 E120.82853
G1 X187.21 Y169.73 E120.90730
G1 X186.70 Y170.32 E120.94635
G1 X186.06 Y171.12 E120.99735
G1 X184.28 Y172.73 E121.11726
G1 X183.31 Y173.46 E121.17762
G1 X182.52 Y173.99 E121.22509
G1 X181.69 Y174.50 E121.27353
G1 X180.26 Y175.21 E121.35354
G1 X180.26 Y186.11 E121.89734
G1 X114.49 Y186.11 E125.17862
G1 X114.49 Y118.89 E128.53224
G0 F12000 X114.89 Y119.29
G1 F2400 X179.86 Y119.29 E131.77360
G1 X179.86 Y129.68 E132.29181
G1 X182.58 Y131.72 E132.46169
G1 X185.20 Y134.96 E132.66963
G1 X185.32 Y135.11 E132.67916
G1 X185.58 Y135.36 E132.69720
G1 X186.68 Y136.62 E132.78059
G1 X187.38 Y137.59 E132.84022
G1 X187.89 Y138.41 E132.88852
G1 X188.19 Y138.94 E132.91858
G1 X188.63 Y139.75 E132.96457
G1 X189.24 Y141.27 E133.04652
G1 X189.58 Y142.41 E133.10574
G1 X189.92 Y143.90 E133.18199
G1 X190.11 Y145.69 E133.27189
G1 X190.11 Y149.22 E133.44770
G1 X190.11 Y149.25 E133.44955
G1 X190.11 Y152.17 E133.59523
G1 X190.11 Y156.58 E133.81499
G1 X190.11 Y157.98 E133.88479
G1 X190.11 Y159.10 E133.94062
G1 X190.11 Y159.44 E133.95798
G1 X190.16 Y160.34 E134.00291
G1 X189.94 Y162.19 E134.09579
G1 X189.73 Y163.42 E134.15777
G1 X189.27 Y164.99 E134.23977
G1 X188.53 Y166.84 E134.33882
G1 X187.74 Y168.20 E134.41754
G1 X186.89 Y169.49 E134.49447
G1 X186.40 Y170.06 E134.53221
G1 X185.77 Y170.85 E134.58239
G1 X184.02 Y172.42 E134.69976
G1 X183.08 Y173.14 E134.75862
G1 X182.30 Y173.65 E134.80513
G1 X181.50 Y174.15 E134.85240
G1 X179.86 Y174.96 E134.94385
G1 X179.86 Y185.71 E135.48002
G1 X114.89 Y185.71 E138.72139
G1 X114.89 Y119.29 E142.03509
G0 F12000 X115.29 Y119.69
G1 F2400 X179.46 Y119.69 E145.23655
G1 X179.46 Y129.91 E145.74663
G1 X179.60 Y129.98 E145.75461
G1 X182.30 Y132.01 E145.92302
G1 X184.91 Y135.24 E146.12994
G1 X185.03 Y135.39 E146.13968
G1 X185.29 Y135.64 E146.15768
G1 X186.37 Y136.87 E146.23923
G1 X187.04 Y137.82 E146.29739
G1 X187.55 Y138.62 E146.34451
G1 X187.84 Y139.13 E146.37392
G1 X188.26 Y139.92 E146.41865
G1 X188.86 Y141.41 E146.49857
G1 X189.19 Y142.51 E146.55618
G1 X189.52 Y143.97 E146.63059
G1 X189.71 Y145.71 E146.71828
G1 X189.71 Y149.21 E146.89279
G1 X189.71 Y149.25 E146.89459
G1 X189.71 Y152.17 E147.04052
G1 X189.71 Y156.58 E147.26028
G1 X189.71 Y157.98 E147.33008
G1 X189.71 Y159.09 E147.38561
G1 X189.71 Y159.46 E147.40387
G1 X189.76 Y160.33 E147.44755
G1 X189.54 Y162.13 E147.53821
G1 X189.34 Y163.33 E147.59852
G1 X188.89 Y164.86 E147.67844
G1 X188.18 Y166.66 E147.77497
G1 X187.40 Y167.99 E147.85171
G1 X186.57 Y169.25 E147.92685
G1 X186.09 Y169.81 E147.96388
G1 X185.48 Y170.57 E148.01257
G1 X183.76 Y172.11 E148.12750
G1 X182.85 Y172.81 E148.18487
G1 X182.09 Y173.31 E148.23037
G1 X181.30 Y173.80 E148.27644
G1 X179.46 Y174.72 E148.37932
G1 X179.46 Y185.31 E148.90791
G1 X115.29 Y185.31 E152.10936
G1 X115.29 Y119.69 E155.38316
G0 F12000 X115.69 Y120.09
G1 F2400 X179.06 Y120.09 E158.54470
G1 X179.06 Y130.16 E159.04730
G1 X179.39 Y130.33 E159.06588
G1 X182.02 Y132.30 E159.22987
G1 X184.57 Y135.46 E159.43242
G1 X184.74 Y135.66 E159.44535
G1 X185.00 Y135.91 E159.46370
G1 X186.05 Y137.12 E159.54339
G1 X186.71 Y138.04 E159.60004
G1 X187.21 Y138.82 E159.64597
G1 X187.48 Y139.32 E159.67471
G1 X187.90 Y140.09 E159.71822
G1 X188.48 Y141.54 E159.79608
G1 X188.81 Y142.61 E159.85208
G1 X189.12 Y144.03 E159.92474
G1 X189.31 Y145.74 E160.01012
G1 X189.31 Y149.21 E160.18338
G1 X189.31 Y149.24 E160.18518
G1 X189.31 Y152.17 E160.33136
G1 X189.31 Y156.58 E160.55108
G1 X189.31 Y157.98 E160.62082
G1 X189.31 Y159.08 E160.67605
G1 X189.31 Y159.46 E160.69496
G1 X189.36 Y160.32 E160.73774
G1 X189.15 Y162.08 E160.82610
G1 X188.95 Y163.24 E160.88483
G1 X188.51 Y164.73 E160.96257
G1 X187.81 Y166.49 E161.05668
G1 X187.06 Y167.78 E161.13146
G1 X186.25 Y169.01 E161.20471
G1 X185.78 Y169.56 E161.24093
G1 X185.19 Y170.30 E161.28827
G1 X183.51 Y171.80 E161.40073
G1 X182.62 Y172.48 E161.45664
G1 X181.87 Y172.97 E161.50113
G1 X181.11 Y173.45 E161.54597
G1 X179.26 Y174.37 E161.64923
G1 X179.06 Y174.43 E161.65956
G1 X179.06 Y184.91 E162.18266
G1 X115.69 Y184.91 E165.34420
G1 X115.69 Y120.09 E168.57808
G0 F12000 X116.09 Y120.49
G1 F2400 X178.66 Y120.49 E171.69971
G1 X178.66 Y130.41 E172.19482
G1 X179.18 Y130.67 E172.22396
G1 X181.74 Y132.59 E172.38357
G1 X184.30 Y135.76 E172.58698
G1 X184.44 Y135.92 E172.59743
G1 X184.45 Y135.94 E172.59824
G1 X184.71 Y136.19 E172.61659
G1 X185.74 Y137.37 E172.69439
G1 X186.38 Y138.27 E172.74955
G1 X186.86 Y139.02 E172.79431
G1 X187.13 Y139.52 E172.82236
G1 X187.54 Y140.26 E172.86467
G1 X188.10 Y141.67 E172.94049
G1 X188.42 Y142.72 E172.99488
G1 X188.73 Y144.10 E173.06570
G1 X188.91 Y145.76 E173.14887
G1 X188.91 Y149.20 E173.32079
G1 X188.91 Y149.24 E173.32254
G1 X188.91 Y152.17 E173.46901
G1 X188.91 Y156.58 E173.68878
G1 X188.91 Y157.97 E173.75843
G1 X188.91 Y159.08 E173.81336
G1 X188.91 Y159.47 E173.83296
G1 X188.96 Y160.31 E173.87474
G1 X188.75 Y162.02 E173.96089
G1 X188.56 Y163.15 E174.01796
G1 X188.13 Y164.60 E174.09362
G1 X187.45 Y166.31 E174.18526
G1 X186.72 Y167.57 E174.25800
G1 X185.93 Y168.76 E174.32946
G1 X185.47 Y169.29 E174.36444
G1 X184.90 Y170.02 E174.41085
G1 X183.25 Y171.50 E174.52084
G1 X182.39 Y172.16 E174.57522
G1 X181.66 Y172.64 E174.61870
G1 X180.91 Y173.10 E174.66238
G1 X179.11 Y173.99 E174.76287
G1 X178.66 Y174.12 E174.78643
G1 X178.66 Y184.51 E175.30459
G1 X116.09 Y184.51 E178.42622
G1 X116.09 Y120.49 E181.62019
G0 F12000 X116.49 Y120.89
G1 F2400 X178.26 Y120.89 E184.70191
G1 X178.26 Y130.66 E185.18959
G1 X178.97 Y131.01 E185.22926
G1 X181.46 Y132.88 E185.38449
G1 X183.97 Y135.98 E185.58346
G1 X184.13 Y136.18 E185.59603
G1 X184.17 Y136.23 E185.59942
G1 X184.42 Y136.47 E185.61664
G1 X185.42 Y137.62 E185.69261
G1 X186.05 Y138.49 E185.74626
G1 X186.52 Y139.23 E185.78983
G1 X186.78 Y139.71 E185.81723
G1 X187.18 Y140.43 E185.85836
G1 X187.73 Y141.80 E185.93207
G1 X188.03 Y142.82 E185.98484
G1 X188.34 Y144.17 E186.05388
G1 X188.51 Y145.78 E186.13484
G1 X188.51 Y149.20 E186.30546
G1 X188.51 Y149.23 E186.30721
G1 X188.51 Y152.17 E186.45389
G1 X188.51 Y156.58 E186.67365
G1 X188.51 Y157.97 E186.74325
G1 X188.51 Y159.14 E186.80137
G1 X188.51 Y159.49 E186.81898
G1 X188.56 Y160.29 E186.85896
G1 X188.35 Y161.96 E186.94285
G1 X188.17 Y163.06 E186.99834
G1 X187.76 Y164.47 E187.07188
G1 X187.09 Y166.13 E187.16104
G1 X186.38 Y167.36 E187.23177
G1 X185.61 Y168.52 E187.30139
G1 X185.16 Y169.05 E187.33609
G1 X184.60 Y169.75 E187.38062
G1 X183.00 Y171.19 E187.48810
G1 X182.16 Y171.83 E187.54102
G1 X181.44 Y172.30 E187.58353
G1 X180.72 Y172.75 E187.62598
G1 X178.97 Y173.62 E187.72377
G1 X178.26 Y173.82 E187.76053
G1 X178.26 Y184.11 E188.27375
G1 X116.49 Y184.11 E191.35547
G1 X116.49 Y120.89 E194.50953
G0 F12000 X116.89 Y121.29
G1 F2400 X177.86 Y121.29 E197.55133
G1 X177.86 Y130.91 E198.03147
G1 X178.76 Y131.35 E198.08170
G1 X181.18 Y133.17 E198.23258
G1 X183.67 Y136.25 E198.43002
G1 X183.84 Y136.45 E198.44313
G1 X183.88 Y136.50 E198.44666
G1 X184.13 Y136.74 E198.46391
G1 X185.11 Y137.86 E198.53800
G1 X185.72 Y138.71 E198.59016
G1 X186.17 Y139.43 E198.63254
G1 X186.43 Y139.90 E198.65934
G1 X186.81 Y140.60 E198.69919
G1 X187.35 Y141.94 E198.77084
G1 X187.64 Y142.92 E198.82202
G1 X187.94 Y144.23 E198.88922
G1 X188.11 Y145.80 E198.96793
G1 X188.11 Y149.19 E199.13730
G1 X188.11 Y149.24 E199.13955
G1 X188.11 Y152.18 E199.28598
G1 X188.11 Y156.58 E199.50569
G1 X188.11 Y157.97 E199.57529
G1 X188.11 Y159.16 E199.63426
G1 X188.11 Y159.50 E199.65137
G1 X188.16 Y160.28 E199.69040
G1 X187.96 Y161.90 E199.77203
G1 X187.78 Y162.97 E199.82586
G1 X187.38 Y164.34 E199.89726
G1 X186.73 Y165.96 E199.98395
G1 X186.04 Y167.15 E200.05271
G1 X185.29 Y168.28 E200.12053
G1 X184.86 Y168.78 E200.15346
G1 X184.31 Y169.47 E200.19753
G1 X182.74 Y170.88 E200.30257
G1 X181.92 Y171.50 E200.35403
G1 X181.23 Y171.96 E200.39552
G1 X180.53 Y172.40 E200.43678
G1 X178.82 Y173.25 E200.53185
G1 X177.86 Y173.52 E200.58180
G1 X177.86 Y183.71 E201.09008
G1 X116.89 Y183.71 E204.13189
G1 X116.89 Y121.29 E207.24603
G0 F12000 X117.29 Y121.69
G1 F2400 X177.46 Y121.69 E210.24793
G1 X177.46 Y131.16 E210.72063
G1 X178.55 Y131.70 E210.78144
G1 X180.90 Y133.46 E210.92790
G1 X183.34 Y136.49 E211.12179
G1 X183.53 Y136.71 E211.13611
G1 X183.60 Y136.78 E211.14140
G1 X183.84 Y137.02 E211.15841
G1 X184.79 Y138.11 E211.23066
G1 X185.39 Y138.94 E211.28128
G1 X185.83 Y139.63 E211.32250
G1 X186.08 Y140.09 E211.34861
G1 X186.45 Y140.77 E211.38723
G1 X186.97 Y142.07 E211.45687
G1 X187.26 Y143.02 E211.50640
G1 X187.54 Y144.30 E211.57181
G1 X187.71 Y145.82 E211.64830
G1 X187.71 Y149.19 E211.81638
G1 X187.71 Y149.24 E211.81858
G1 X187.71 Y152.18 E211.96525
G1 X187.71 Y156.58 E212.18497
G1 X187.71 Y157.97 E212.25452
G1 X187.71 Y159.15 E212.31314
G1 X187.71 Y159.51 E212.33120
G1 X187.75 Y160.27 E212.36903
G1 X187.56 Y161.85 E212.44839
G1 X187.39 Y162.88 E212.50065
G1 X187.00 Y164.21 E212.56993
G1 X186.37 Y165.78 E212.65416
G1 X185.70 Y166.93 E212.72088
G1 X184.97 Y168.04 E212.78686
G1 X184.54 Y168.54 E212.82004
G1 X184.02 Y169.20 E212.86170
G1 X182.49 Y170.57 E212.96430
G1 X181.69 Y171.18 E213.01423
G1 X181.01 Y171.62 E213.05472
G1 X180.33 Y172.05 E213.09477
G1 X178.67 Y172.87 E213.18712
G1 X177.46 Y173.22 E213.25030
G1 X177.46 Y183.31 E213.75364
G1 X117.29 Y183.31 E216.75554
G1 X117.29 Y121.69 E219.82977
G0 F12000 X117.69 Y122.09
G1 F2400 X177.06 Y122.09 E222.79175
G1 X177.06 Y131.41 E223.25698
G1 X178.34 Y132.04 E223.32833
G1 X180.62 Y133.75 E223.47041
G1 X183.03 Y136.74 E223.66193
G1 X183.24 Y136.98 E223.67770
G1 X183.30 Y137.06 E223.68278
G1 X183.56 Y137.29 E223.70007
G1 X184.48 Y138.36 E223.77049
G1 X185.05 Y139.16 E223.81961
G1 X185.48 Y139.84 E223.85966
G1 X185.73 Y140.28 E223.88507
G1 X186.09 Y140.94 E223.92249
G1 X186.59 Y142.20 E223.99005
G1 X186.87 Y143.12 E224.03801
G1 X187.15 Y144.36 E224.10158
G1 X187.31 Y145.84 E224.17587
G1 X187.31 Y149.19 E224.34265
G1 X187.31 Y149.23 E224.34484
G1 X187.31 Y152.18 E224.49172
G1 X187.31 Y156.58 E224.71144
G1 X187.31 Y157.97 E224.78093
G1 X187.31 Y159.14 E224.83926
G1 X187.31 Y159.53 E224.85861
G1 X187.35 Y160.25 E224.89490
G1 X187.17 Y161.79 E224.97200
G1 X187.00 Y162.79 E225.02259
G1 X186.62 Y164.08 E225.08979
G1 X186.01 Y165.60 E225.17154
G1 X185.36 Y166.72 E225.23625
G1 X184.65 Y167.80 E225.30043
G1 X184.24 Y168.28 E225.33187
G1 X183.73 Y168.92 E225.37310
G1 X182.23 Y170.26 E225.47316
G1 X181.46 Y170.85 E225.52167
G1 X180.80 Y171.29 E225.56114
G1 X180.14 Y171.70 E225.60001
G1 X178.53 Y172.50 E225.68961
G1 X177.06 Y172.92 E225.76597
G1 X177.06 Y182.91 E226.26443
G1 X117.69 Y182.91 E229.22641
G1 X117.69 Y122.09 E232.26073
G0 F12000 X118.09 Y122.49
G1 F2400 X176.66 Y122.49 E235.18280
G1 X176.66 Y131.67 E235.64059
G1 X178.13 Y132.38 E235.72248
G1 X180.34 Y134.04 E235.86018
G1 X182.73 Y137.00 E236.05017
G1 X182.93 Y137.23 E236.06512
G1 X183.03 Y137.35 E236.07310
G1 X183.26 Y137.57 E236.08901
G1 X184.17 Y138.61 E236.15755
G1 X184.72 Y139.38 E236.20520
G1 X185.14 Y140.04 E236.24404
G1 X185.38 Y140.48 E236.26879
G1 X185.73 Y141.12 E236.30502
G1 X186.22 Y142.33 E236.37052
G1 X186.48 Y143.22 E236.41683
G1 X186.75 Y144.43 E236.47860
G1 X186.91 Y145.87 E236.55068
G1 X186.91 Y149.18 E236.71611
G1 X186.91 Y149.22 E236.71826
G1 X186.91 Y152.18 E236.86549
G1 X186.91 Y156.58 E237.08515
G1 X186.91 Y157.97 E237.15460
G1 X186.91 Y159.13 E237.21262
G1 X186.91 Y159.54 E237.23288
G1 X186.95 Y160.24 E237.26796
G1 X186.77 Y161.73 E237.34279
G1 X186.61 Y162.70 E237.39183
G1 X186.24 Y163.95 E237.45683
G1 X185.65 Y165.43 E237.53611
G1 X185.02 Y166.51 E237.59886
G1 X184.33 Y167.56 E237.66119
G1 X183.93 Y168.02 E237.69182
G1 X183.43 Y168.65 E237.73171
G1 X181.98 Y169.95 E237.82929
G1 X181.23 Y170.53 E237.87630
G1 X180.58 Y170.95 E237.91478
G1 X179.94 Y171.35 E237.95244
G1 X178.38 Y172.12 E238.03932
G1 X176.66 Y172.62 E238.12893
G1 X176.66 Y182.51 E238.62240
G1 X118.09 Y182.51 E241.54447
G1 X118.09 Y122.49 E244.53888
G0 F12000 X118.49 Y122.89
G1 F2400 X176.26 Y122.89 E247.42103
G1 X176.26 Y131.92 E247.87134
G1 X177.92 Y132.73 E247.96378
G1 X180.06 Y134.33 E248.09710
G1 X182.40 Y137.22 E248.28266
G1 X182.63 Y137.51 E248.30111
G1 X182.74 Y137.63 E248.30916
G1 X182.97 Y137.85 E248.32508
G1 X183.85 Y138.86 E248.39178
G1 X184.39 Y139.61 E248.43793
G1 X184.79 Y140.25 E248.47560
G1 X185.03 Y140.67 E248.49972
G1 X185.36 Y141.28 E248.53464
G1 X185.84 Y142.47 E248.59810
G1 X186.10 Y143.32 E248.64284
G1 X186.36 Y144.50 E248.70277
G1 X186.51 Y145.89 E248.77259
G1 X186.51 Y149.18 E248.93678
G1 X186.51 Y149.22 E248.93888
G1 X186.51 Y152.18 E249.08635
G1 X186.51 Y156.58 E249.30602
G1 X186.51 Y157.97 E249.37542
G1 X186.51 Y159.13 E249.43309
G1 X186.51 Y159.55 E249.45409
G1 X186.55 Y160.23 E249.48823
G1 X186.37 Y161.67 E249.56080
G1 X186.22 Y162.61 E249.60816
G1 X185.86 Y163.82 E249.67109
G1 X185.29 Y165.25 E249.74791
G1 X184.68 Y166.30 E249.80862
G1 X184.01 Y167.32 E249.86916
G1 X183.63 Y167.76 E249.89841
G1 X183.14 Y168.37 E249.93747
G1 X181.72 Y169.65 E250.03262
G1 X181.00 Y170.20 E250.07810
G1 X180.37 Y170.61 E250.11560
G1 X179.75 Y171.00 E250.15207
G1 X178.24 Y171.75 E250.23623
G1 X176.26 Y172.32 E250.33903
G1 X176.26 Y182.11 E250.82755
G1 X118.49 Y182.11 E253.70971
G1 X118.49 Y122.89 E256.66421
G0 F12000 X118.89 Y123.29
G1 F2400 X175.86 Y123.29 E259.50645
G1 X175.86 Y132.17 E259.94928
G1 X177.71 Y133.07 E260.05230
G1 X179.78 Y134.62 E260.18122
G1 X182.10 Y137.49 E260.36529
G1 X182.32 Y137.76 E260.38294
G1 X182.46 Y137.91 E260.39271
G1 X182.69 Y138.12 E260.40842
G1 X183.54 Y139.11 E260.47321
G1 X184.06 Y139.83 E260.51786
G1 X184.45 Y140.45 E260.55437
G1 X184.68 Y140.86 E260.57780
G1 X185.00 Y141.46 E260.61153
G1 X185.46 Y142.60 E260.67289
G1 X185.71 Y143.43 E260.71602
G1 X185.96 Y144.56 E260.77416
G1 X186.11 Y145.91 E260.84177
G1 X186.11 Y149.17 E261.00466
G1 X186.11 Y149.22 E261.00676
G1 X186.11 Y152.18 E261.15443
G1 X186.11 Y156.58 E261.37410
G1 X186.11 Y157.97 E261.44350
G1 X186.11 Y159.12 E261.50077
G1 X186.11 Y159.56 E261.52307
G1 X186.15 Y160.22 E261.55566
G1 X185.98 Y161.62 E261.62597
G1 X185.82 Y162.52 E261.67177
G1 X185.49 Y163.69 E261.73250
G1 X184.93 Y165.07 E261.80691
G1 X184.34 Y166.09 E261.86560
G1 X183.69 Y167.07 E261.92430
G1 X183.31 Y167.52 E261.95345
G1 X182.85 Y168.10 E261.99049
G1 X181.47 Y169.34 E262.08313
G1 X180.76 Y169.87 E262.12715
G1 X180.15 Y170.28 E262.16364
G1 X179.55 Y170.65 E262.19892
G1 X178.09 Y171.37 E262.28034
G1 X176.01 Y171.97 E262.38833
G1 X175.86 Y171.99 E262.39604
G1 X175.86 Y181.71 E262.88117
G1 X118.89 Y181.71 E265.72342
G1 X118.89 Y123.29 E268.63800
G0 F12000 X119.29 Y123.69
G1 F2400 X175.46 Y123.69 E271.44034
G1 X175.46 Y132.45 E271.87727
G1 X175.61 Y132.49 E271.88536
G1 X177.50 Y133.41 E271.99028
G1 X179.50 Y134.91 E272.11479
G1 X181.79 Y137.75 E272.29688
G1 X182.03 Y138.04 E272.31562
G1 X182.17 Y138.18 E272.32547
G1 X182.40 Y138.40 E272.34117
G1 X183.22 Y139.35 E272.40412
G1 X183.73 Y140.06 E272.44727
G1 X184.11 Y140.66 E272.48260
G1 X184.33 Y141.05 E272.50536
G1 X184.64 Y141.63 E272.53788
G1 X185.08 Y142.73 E272.59720
G1 X185.32 Y143.53 E272.63872
G1 X185.57 Y144.63 E272.69502
G1 X185.71 Y145.93 E272.76042
G1 X185.71 Y149.17 E272.92202
G1 X185.71 Y149.21 E272.92407
G1 X185.71 Y152.18 E273.07199
G1 X185.71 Y156.58 E273.29166
G1 X185.71 Y157.97 E273.36100
G1 X185.71 Y159.11 E273.41798
G1 X185.71 Y159.58 E273.44123
G1 X185.75 Y160.20 E273.47256
G1 X185.58 Y161.56 E273.54066
G1 X185.44 Y162.43 E273.58478
G1 X185.11 Y163.56 E273.64345
G1 X184.57 Y164.90 E273.71532
G1 X184.00 Y165.88 E273.77205
G1 X183.37 Y166.83 E273.82895
G1 X183.01 Y167.25 E273.85682
G1 X182.56 Y167.82 E273.89291
G1 X181.21 Y169.03 E273.98307
G1 X180.53 Y169.55 E274.02563
G1 X179.94 Y169.94 E274.06112
G1 X179.36 Y170.30 E274.09519
G1 X177.95 Y171.00 E274.17389
G1 X175.94 Y171.58 E274.27823
G1 X175.46 Y171.62 E274.30223
G1 X175.46 Y181.31 E274.78557
G1 X119.29 Y181.31 E277.58790
G1 X119.29 Y123.69 E280.46258
G0 F12000 X119.69 Y124.09
G1 F2400 X175.06 Y124.09 E283.22500
G1 X175.06 Y132.75 E283.65700
G1 X175.47 Y132.87 E283.67842
G1 X177.29 Y133.75 E283.77964
G1 X179.22 Y135.20 E283.89981
G1 X181.47 Y137.98 E284.07807
G1 X181.72 Y138.29 E284.09826
G1 X181.89 Y138.47 E284.11044
G1 X182.11 Y138.68 E284.12530
G1 X182.91 Y139.60 E284.18645
G1 X183.40 Y140.28 E284.22806
G1 X183.76 Y140.86 E284.26223
G1 X183.98 Y141.25 E284.28429
G1 X184.28 Y141.80 E284.31564
G1 X184.70 Y142.86 E284.37285
G1 X184.93 Y143.63 E284.41275
G1 X185.17 Y144.69 E284.46727
G1 X185.31 Y145.95 E284.53046
G1 X185.31 Y149.16 E284.69071
G1 X185.31 Y149.21 E284.69271
G1 X185.31 Y152.18 E284.84098
G1 X185.31 Y156.58 E285.06060
G1 X185.31 Y157.97 E285.12989
G1 X185.31 Y159.10 E285.18652
G1 X185.31 Y159.58 E285.21047
G1 X185.35 Y160.19 E285.24090
G1 X185.19 Y161.50 E285.30670
G1 X185.04 Y162.34 E285.34925
G1 X184.73 Y163.43 E285.40578
G1 X184.21 Y164.72 E285.47519
G1 X183.66 Y165.67 E285.52989
G1 X183.05 Y166.59 E285.58495
G1 X182.70 Y167.00 E285.61200
G1 X182.26 Y167.55 E285.64674
G1 X180.96 Y168.72 E285.73447
G1 X180.30 Y169.22 E285.77550
G1 X179.72 Y169.60 E285.81001
G1 X179.16 Y169.95 E285.84289
G1 X177.80 Y170.62 E285.91886
G1 X175.86 Y171.18 E286.01953
G1 X175.06 Y171.26 E286.05981
G1 X175.06 Y180.91 E286.54135
G1 X119.69 Y180.91 E289.30377
G1 X119.69 Y124.09 E292.13853
G0 F12000 X120.09 Y124.49
G1 F2400 X174.66 Y124.49 E294.86104
G1 X174.66 Y133.05 E295.28820
G1 X175.33 Y133.24 E295.32290
G1 X177.08 Y134.10 E295.42045
G1 X178.94 Y135.49 E295.53625
G1 X181.20 Y138.28 E295.71528
G1 X181.42 Y138.56 E295.73303
G1 X181.60 Y138.75 E295.74602
G1 X181.82 Y138.95 E295.76091
G1 X182.59 Y139.85 E295.82019
G1 X183.06 Y140.50 E295.86030
G1 X183.42 Y141.06 E295.89326
G1 X183.62 Y141.44 E295.91472
G1 X183.91 Y141.97 E295.94477
G1 X184.33 Y143.00 E296.00000
G1 X184.55 Y143.73 E296.03829
G1 X184.78 Y144.76 E296.09096
G1 X184.91 Y145.97 E296.15190
G1 X184.91 Y149.16 E296.31090
G1 X184.91 Y149.20 E296.31284
G1 X184.91 Y152.18 E296.46137
G1 X184.91 Y156.58 E296.68098
G1 X184.91 Y157.97 E296.75023
G1 X184.91 Y159.09 E296.80646
G1 X184.91 Y159.61 E296.83210
G1 X184.94 Y160.18 E296.86064
G1 X184.79 Y161.44 E296.92422
G1 X184.65 Y162.25 E296.96509
G1 X184.35 Y163.30 E297.01950
G1 X183.85 Y164.55 E297.08649
G1 X183.32 Y165.46 E297.13924
G1 X182.73 Y166.35 E297.19239
G1 X182.40 Y166.74 E297.21804
G1 X181.97 Y167.27 E297.25205
G1 X180.70 Y168.41 E297.33727
G1 X180.07 Y168.89 E297.37685
G1 X179.51 Y169.26 E297.41035
G1 X178.97 Y169.60 E297.44200
G1 X177.65 Y170.25 E297.51527
G1 X175.79 Y170.79 E297.61220
G1 X174.66 Y170.89 E297.66883
G1 X174.66 Y180.51 E298.14857
G1 X120.09 Y180.51 E300.87108
G1 X120.09 Y124.49 E303.66593
G0 F12000 X120.49 Y124.89
G1 F2400 X174.26 Y124.89 E306.34853
G1 X174.26 Y133.35 E306.77075
G1 X175.18 Y133.62 E306.81879
G1 X176.88 Y134.44 E306.91266
G1 X178.66 Y135.78 E307.02406
G1 X180.86 Y138.50 E307.19873
G1 X181.12 Y138.82 E307.21928
G1 X181.31 Y139.03 E307.23330
G1 X181.53 Y139.23 E307.24791
G1 X182.28 Y140.10 E307.30531
G1 X182.73 Y140.73 E307.34395
G1 X183.07 Y141.27 E307.37570
G1 X183.28 Y141.63 E307.39651
G1 X183.55 Y142.14 E307.42536
G1 X183.95 Y143.13 E307.47850
G1 X184.16 Y143.83 E307.51516
G1 X184.38 Y144.83 E307.56605
G1 X184.51 Y146.00 E307.62477
G1 X184.51 Y149.16 E307.78248
G1 X184.51 Y149.20 E307.78442
G1 X184.51 Y152.18 E307.93315
G1 X184.51 Y156.58 E308.15276
G1 X184.51 Y157.97 E308.22201
G1 X184.51 Y159.09 E308.27789
G1 X184.51 Y159.61 E308.30418
G1 X184.54 Y160.17 E308.33182
G1 X184.39 Y161.39 E308.39309
G1 X184.26 Y162.16 E308.43240
G1 X183.97 Y163.17 E308.48467
G1 X183.49 Y164.37 E308.54918
G1 X182.98 Y165.25 E308.59992
G1 X182.41 Y166.11 E308.65127
G1 X182.08 Y166.50 E308.67688
G1 X181.68 Y167.00 E308.70874
G1 X180.44 Y168.10 E308.79152
G1 X179.84 Y168.57 E308.82957
G1 X179.29 Y168.93 E308.86206
G1 X178.77 Y169.25 E308.89255
G1 X177.51 Y169.88 E308.96305
G1 X175.71 Y170.39 E309.05634
G1 X174.26 Y170.53 E309.12925
G1 X174.26 Y180.11 E309.60720
G1 X120.49 Y180.11 E312.28980
G1 X120.49 Y124.89 E315.04473
G0 F12000 X120.89 Y125.29
G1 F2400 X173.86 Y125.29 E317.68742
G1 X173.86 Y133.66 E318.10475
G1 X175.04 Y133.99 E318.16612
G1 X176.66 Y134.78 E318.25628
G1 X178.38 Y136.07 E318.36331
G1 X180.56 Y138.77 E318.53649
G1 X180.81 Y139.08 E318.55619
G1 X181.03 Y139.31 E318.57225
G1 X181.24 Y139.51 E318.58633
G1 X181.97 Y140.35 E318.64189
G1 X182.40 Y140.95 E318.67900
G1 X182.73 Y141.47 E318.70959
G1 X182.92 Y141.82 E318.72971
G1 X183.19 Y142.31 E318.75737
G1 X183.57 Y143.26 E318.80845
G1 X183.77 Y143.93 E318.84351
G1 X183.99 Y144.89 E318.89255
G1 X184.11 Y146.02 E318.94907
G1 X184.11 Y149.15 E319.10547
G1 X184.11 Y149.19 E319.10737
G1 X184.11 Y152.18 E319.25639
G1 X184.11 Y156.58 E319.47596
G1 X184.11 Y157.97 E319.54516
G1 X184.11 Y159.08 E319.60063
G1 X184.11 Y159.62 E319.62792
G1 X184.14 Y160.15 E319.65436
G1 X184.00 Y161.33 E319.71342
G1 X183.87 Y162.07 E319.75106
G1 X183.59 Y163.04 E319.80125
G1 X183.13 Y164.19 E319.86323
G1 X182.64 Y165.04 E319.91200
G1 X182.09 Y165.87 E319.96152
G1 X181.78 Y166.23 E319.98567
G1 X181.39 Y166.72 E320.01682
G1 X180.19 Y167.79 E320.09710
G1 X179.61 Y168.24 E320.13368
G1 X179.08 Y168.59 E320.16520
G1 X178.58 Y168.90 E320.19446
G1 X177.36 Y169.50 E320.26228
G1 X175.64 Y170.00 E320.35188
G1 X174.21 Y170.13 E320.42319
G1 X173.86 Y170.13 E320.44100
G1 X173.86 Y179.71 E320.91885
G1 X120.89 Y179.71 E323.56153
G1 X120.89 Y125.29 E326.27655
G0 F12000 X121.29 Y125.69
G1 F2400 X173.46 Y125.69 E328.87933
G1 X173.46 Y133.96 E329.29177
G1 X174.90 Y134.37 E329.36642
G1 X176.46 Y135.13 E329.45292
G1 X178.10 Y136.36 E329.55557
G1 X180.22 Y138.98 E329.72350
G1 X180.52 Y139.35 E329.74749
G1 X180.75 Y139.60 E329.76450
G1 X180.95 Y139.78 E329.77774
G1 X181.65 Y140.60 E329.83146
G1 X182.07 Y141.18 E329.86707
G1 X182.38 Y141.67 E329.89649
G1 X182.57 Y142.01 E329.91592
G1 X182.83 Y142.48 E329.94237
G1 X183.19 Y143.39 E329.99137
G1 X183.39 Y144.03 E330.02482
G1 X183.59 Y144.96 E330.07206
G1 X183.71 Y146.04 E330.12632
G1 X183.71 Y149.15 E330.28142
G1 X183.71 Y149.19 E330.28327
G1 X183.71 Y152.18 E330.43259
G1 X183.71 Y156.58 E330.65216
G1 X183.71 Y157.97 E330.72131
G1 X183.71 Y159.07 E330.77644
G1 X183.71 Y159.63 E330.80443
G1 X183.74 Y160.14 E330.82991
G1 X183.60 Y161.27 E330.88671
G1 X183.48 Y161.98 E330.92278
G1 X183.21 Y162.91 E330.97079
G1 X182.77 Y164.02 E331.03037
G1 X182.30 Y164.82 E331.07711
G1 X181.77 Y165.62 E331.12482
G1 X181.47 Y165.97 E331.14784
G1 X181.09 Y166.45 E331.17796
G1 X179.93 Y167.49 E331.25572
G1 X179.38 Y167.91 E331.29085
G1 X178.86 Y168.25 E331.32136
G1 X178.38 Y168.55 E331.34942
G1 X177.22 Y169.13 E331.41446
G1 X175.56 Y169.60 E331.50039
G1 X174.19 Y169.73 E331.56894
G1 X173.46 Y169.73 E331.60576
G1 X173.46 Y179.31 E332.08361
G1 X121.29 Y179.31 E334.68638
G1 X121.29 Y125.69 E337.36149
G0 F12000 X121.69 Y126.09
G1 F2400 X173.06 Y126.09 E339.92435
G1 X173.06 Y134.29 E340.33345
G1 X173.22 Y134.31 E340.34183
G1 X174.75 Y134.74 E340.42113
G1 X176.25 Y135.47 E340.50394
G1 X177.82 Y136.65 E340.60220
G1 X179.93 Y139.26 E340.76943
G1 X180.22 Y139.61 E340.79249
G1 X180.46 Y139.87 E340.81000
G1 X180.66 Y140.06 E340.82351
G1 X181.34 Y140.84 E340.87536
G1 X181.74 Y141.40 E340.90950
G1 X182.04 Y141.88 E340.93774
G1 X182.22 Y142.21 E340.95654
G1 X182.46 Y142.65 E340.98172
G1 X182.81 Y143.52 E341.02867
G1 X183.00 Y144.14 E341.06053
G1 X183.20 Y145.02 E341.10595
G1 X183.31 Y146.06 E341.15799
G1 X183.31 Y149.14 E341.31181
G1 X183.31 Y149.20 E341.31445
G1 X183.31 Y152.18 E341.46317
G1 X183.31 Y156.58 E341.68274
G1 X183.31 Y157.96 E341.75184
G1 X183.31 Y159.17 E341.81221
G1 X183.31 Y159.66 E341.83620
G1 X183.34 Y160.13 E341.85989
G1 X183.21 Y161.21 E341.91442
G1 X183.09 Y161.89 E341.94883
G1 X182.83 Y162.78 E341.99476
G1 X182.41 Y163.84 E342.05185
G1 X181.96 Y164.61 E342.09658
G1 X181.45 Y165.38 E342.14245
G1 X181.16 Y165.73 E342.16512
G1 X180.80 Y166.17 E342.19343
G1 X179.68 Y167.18 E342.26876
G1 X179.14 Y167.59 E342.30236
G1 X178.65 Y167.91 E342.33186
G1 X178.19 Y168.20 E342.35876
G1 X177.07 Y168.75 E342.42108
G1 X175.49 Y169.21 E342.50331
G1 X174.18 Y169.33 E342.56900
G1 X173.06 Y169.33 E342.62488
G1 X173.06 Y178.91 E343.10273
G1 X121.69 Y178.91 E345.66559
G1 X121.69 Y126.09 E348.30079
G0 F12000 X122.09 Y126.49
G1 F2400 X172.66 Y126.49 E350.82374
G1 X172.66 Y134.65 E351.23094
G1 X173.15 Y134.70 E351.25556
G1 X174.61 Y135.12 E351.33135
G1 X176.04 Y135.81 E351.41051
G1 X177.54 Y136.94 E351.50439
G1 X179.60 Y139.49 E351.66796
G1 X179.92 Y139.88 E351.69311
G1 X180.18 Y140.15 E351.71157
G1 X180.37 Y140.34 E351.72491
G1 X181.02 Y141.09 E351.77489
G1 X181.41 Y141.62 E351.80748
G1 X181.70 Y142.08 E351.83457
G1 X181.87 Y142.40 E351.85270
G1 X182.10 Y142.82 E351.87665
G1 X182.44 Y143.66 E351.92156
G1 X182.61 Y144.24 E351.95177
G1 X182.80 Y145.09 E351.99539
G1 X182.91 Y146.08 E352.04523
G1 X182.91 Y149.14 E352.19774
G1 X182.91 Y149.19 E352.20034
G1 X182.91 Y152.18 E352.34936
G1 X182.91 Y156.58 E352.56888
G1 X182.91 Y157.96 E352.63797
G1 X182.91 Y159.16 E352.69789
G1 X182.91 Y159.66 E352.72264
G1 X182.94 Y160.12 E352.74538
G1 X182.81 Y161.16 E352.79765
G1 X182.70 Y161.81 E352.83048
G1 X182.46 Y162.65 E352.87425
G1 X182.05 Y163.66 E352.92886
G1 X181.62 Y164.40 E352.97162
G1 X181.13 Y165.14 E353.01569
G1 X180.85 Y165.47 E353.03719
G1 X180.51 Y165.90 E353.06443
G1 X179.42 Y166.87 E353.13732
G1 X178.91 Y167.26 E353.16946
G1 X178.43 Y167.58 E353.19795
G1 X178.00 Y167.85 E353.22362
G1 X176.93 Y168.38 E353.28326
G1 X175.41 Y168.81 E353.36175
G1 X174.16 Y168.93 E353.42469
G1 X172.66 Y168.93 E353.49958
G1 X172.66 Y178.51 E353.97743
G1 X122.09 Y178.51 E356.50037
G1 X122.09 Y126.49 E359.09566
G0 F12000 X122.49 Y126.89
G1 F2400 X172.26 Y126.89 E361.57870
G1 X172.26 Y135.01 E361.98406
G1 X173.07 Y135.10 E362.02497
G1 X174.47 Y135.49 E362.09722
G1 X175.83 Y136.15 E362.17268
G1 X177.26 Y137.23 E362.26217
G1 X179.33 Y139.79 E362.42634
G1 X179.62 Y140.14 E362.44915
G1 X179.89 Y140.44 E362.46910
G1 X180.08 Y140.61 E362.48184
G1 X180.71 Y141.34 E362.52998
G1 X181.07 Y141.85 E362.56107
G1 X181.35 Y142.29 E362.58700
G1 X181.52 Y142.59 E362.60444
G1 X181.74 Y142.99 E362.62721
G1 X182.06 Y143.79 E362.67001
G1 X182.22 Y144.34 E362.69866
G1 X182.41 Y145.16 E362.74044
G1 X182.51 Y146.10 E362.78807
G1 X182.51 Y149.14 E362.93929
G1 X182.51 Y149.19 E362.94178
G1 X182.51 Y152.18 E363.09110
G1 X182.51 Y156.58 E363.31062
G1 X182.51 Y157.96 E363.37967
G1 X182.51 Y159.16 E363.43924
G1 X182.51 Y159.67 E363.46468
G1 X182.54 Y160.10 E363.48652
G1 X182.41 Y161.10 E363.53653
G1 X182.31 Y161.72 E363.56770
G1 X182.08 Y162.52 E363.60937
G1 X181.69 Y163.49 E363.66153
G1 X181.28 Y164.19 E363.70225
G1 X180.81 Y164.90 E363.74449
G1 X180.54 Y165.22 E363.76528
G1 X180.22 Y165.62 E363.79110
G1 X179.17 Y166.56 E363.86145
G1 X178.68 Y166.94 E363.89212
G1 X178.22 Y167.24 E363.91962
G1 X177.80 Y167.50 E363.94412
G1 X176.78 Y168.00 E364.00097
G1 X175.34 Y168.42 E364.07584
G1 X174.14 Y168.53 E364.13597
G1 X172.26 Y168.53 E364.22986
G1 X172.26 Y178.11 E364.70771
G1 X122.49 Y178.11 E367.19075
G1 X122.49 Y126.89 E369.74612
G0 F12000 X122.89 Y127.29
G1 F2400 X171.86 Y127.29 E372.18924
G1 X171.86 Y135.38 E372.59306
G1 X171.94 Y135.38 E372.59705
G1 X173.00 Y135.49 E372.65024
G1 X174.32 Y135.87 E372.71897
G1 X175.62 Y136.50 E372.79073
G1 X176.98 Y137.52 E372.87584
G1 X179.03 Y140.06 E373.03848
G1 X179.32 Y140.41 E373.06119
G1 X179.60 Y140.71 E373.08188
G1 X179.79 Y140.89 E373.09469
G1 X180.40 Y141.59 E373.14095
G1 X180.74 Y142.07 E373.17055
G1 X181.01 Y142.49 E373.19528
G1 X181.17 Y142.78 E373.21205
G1 X181.38 Y143.16 E373.23362
G1 X181.68 Y143.92 E373.27438
G1 X181.84 Y144.44 E373.30137
G1 X182.01 Y145.22 E373.34136
G1 X182.11 Y146.13 E373.38673
G1 X182.11 Y149.13 E373.53670
G1 X182.11 Y149.18 E373.53915
G1 X182.11 Y152.18 E373.68872
G1 X182.11 Y156.58 E373.90824
G1 X182.11 Y157.96 E373.97723
G1 X182.11 Y159.15 E374.03640
G1 X182.11 Y159.69 E374.06354
G1 X182.13 Y160.09 E374.08349
G1 X182.02 Y161.04 E374.13123
G1 X181.92 Y161.63 E374.16083
G1 X181.70 Y162.39 E374.20037
G1 X181.33 Y163.31 E374.25006
G1 X180.94 Y163.98 E374.28877
G1 X180.49 Y164.66 E374.32920
G1 X180.23 Y164.96 E374.34922
G1 X179.93 Y165.35 E374.37362
G1 X178.91 Y166.25 E374.44153
G1 X178.45 Y166.61 E374.47067
G1 X178.00 Y166.90 E374.49719
G1 X177.61 Y167.15 E374.52049
G1 X176.63 Y167.63 E374.57464
G1 X175.26 Y168.03 E374.64582
G1 X174.12 Y168.13 E374.70314
G1 X171.86 Y168.13 E374.81604
G1 X171.86 Y177.71 E375.29389
G1 X122.89 Y177.71 E377.73702
G1 X122.89 Y127.29 E380.25248
G0 F12000 X123.29 Y127.69
G1 F2400 X171.46 Y127.69 E382.65569
G1 X171.46 Y135.78 E383.05925
G1 X171.56 Y135.78 E383.06434
G1 X171.91 Y135.78 E383.08205
G1 X172.92 Y135.88 E383.13265
G1 X174.18 Y136.24 E383.19779
G1 X175.41 Y136.84 E383.26589
G1 X176.70 Y137.81 E383.34662
G1 X178.72 Y140.31 E383.50724
G1 X179.02 Y140.67 E383.53037
G1 X179.32 Y141.00 E383.55240
G1 X179.50 Y141.16 E383.56461
G1 X180.08 Y141.84 E383.60903
G1 X180.41 Y142.29 E383.63716
G1 X180.66 Y142.69 E383.66071
G1 X180.82 Y142.98 E383.67679
G1 X181.01 Y143.33 E383.69713
G1 X181.30 Y144.05 E383.73583
G1 X181.45 Y144.54 E383.76126
G1 X181.62 Y145.29 E383.79941
G1 X181.71 Y146.15 E383.84257
G1 X181.71 Y149.13 E383.99119
G1 X181.71 Y149.18 E383.99359
G1 X181.71 Y152.18 E384.14351
G1 X181.71 Y156.58 E384.36298
G1 X181.71 Y157.96 E384.43192
G1 X181.71 Y159.14 E384.49065
G1 X181.71 Y159.70 E384.51858
G1 X181.73 Y160.08 E384.53763
G1 X181.62 Y160.98 E384.58312
G1 X181.53 Y161.54 E384.61109
G1 X181.32 Y162.26 E384.64846
G1 X180.97 Y163.13 E384.69566
G1 X180.60 Y163.77 E384.73241
G1 X180.17 Y164.42 E384.77100
G1 X179.93 Y164.70 E384.78957
G1 X179.63 Y165.07 E384.81326
G1 X178.66 Y165.95 E384.87869
G1 X178.22 Y166.28 E384.90638
G1 X177.79 Y166.56 E384.93188
G1 X177.41 Y166.80 E384.95399
G1 X176.49 Y167.26 E385.00538
G1 X175.19 Y167.63 E385.07286
G1 X174.10 Y167.73 E385.12738
G1 X171.46 Y167.73 E385.25934
G1 X171.46 Y177.31 E385.73719
G1 X123.29 Y177.31 E388.14040
G1 X123.29 Y127.69 E390.61595
G0 F12000 X123.69 Y128.09
G1 F2400 X171.06 Y128.09 E392.97925
G1 X171.06 Y136.18 E393.38281
G1 X171.56 Y136.18 E393.40771
G1 X171.89 Y136.18 E393.42443
G1 X172.85 Y136.28 E393.47240
G1 X174.04 Y136.62 E393.53404
G1 X175.20 Y137.18 E393.59846
G1 X176.42 Y138.10 E393.67477
G1 X178.42 Y140.57 E393.83312
G1 X178.72 Y140.94 E393.85693
G1 X179.03 Y141.27 E393.87938
G1 X179.21 Y141.44 E393.89198
G1 X179.77 Y142.09 E393.93453
G1 X180.08 Y142.52 E393.96112
G1 X180.32 Y142.90 E393.98346
G1 X180.47 Y143.17 E393.99893
G1 X180.65 Y143.50 E394.01802
G1 X180.93 Y144.19 E394.05464
G1 X181.06 Y144.64 E394.07851
G1 X181.22 Y145.35 E394.11482
G1 X181.31 Y146.17 E394.15577
G1 X181.31 Y149.12 E394.30310
G1 X181.31 Y149.17 E394.30544
G1 X181.31 Y152.18 E394.45561
G1 X181.31 Y156.58 E394.67508
G1 X181.31 Y157.96 E394.74398
G1 X181.31 Y159.13 E394.80235
G1 X181.31 Y159.71 E394.83124
G1 X181.33 Y160.07 E394.84908
G1 X181.23 Y160.93 E394.89230
G1 X181.14 Y161.45 E394.91865
G1 X180.94 Y162.13 E394.95394
G1 X180.61 Y162.96 E394.99870
G1 X180.26 Y163.56 E395.03340
G1 X179.85 Y164.18 E395.07020
G1 X179.62 Y164.45 E395.08820
G1 X179.34 Y164.80 E395.11029
G1 X178.40 Y165.64 E395.17325
G1 X177.98 Y165.96 E395.19944
G1 X177.57 Y166.23 E395.22391
G1 X177.22 Y166.45 E395.24481
G1 X176.34 Y166.88 E395.29350
G1 X175.12 Y167.24 E395.35730
G1 X174.08 Y167.33 E395.40902
G1 X171.06 Y167.33 E395.55998
G1 X171.06 Y176.91 E396.03783
G1 X123.69 Y176.91 E398.40113
G1 X123.69 Y128.09 E400.83677
G0 F12000 X124.09 Y128.49
G1 F2400 X170.66 Y128.49 E403.16016
G1 X170.66 Y136.58 E403.56372
G1 X171.55 Y136.58 E403.60842
G1 X171.87 Y136.58 E403.62414
G1 X172.77 Y136.67 E403.66951
G1 X173.89 Y136.99 E403.72756
G1 X174.99 Y137.53 E403.78830
G1 X176.14 Y138.39 E403.86026
G1 X178.06 Y140.77 E404.01283
G1 X178.42 Y141.20 E404.04075
G1 X178.75 Y141.56 E404.06486
G1 X178.92 Y141.72 E404.07661
G1 X179.45 Y142.33 E404.11731
G1 X179.75 Y142.74 E404.14241
G1 X179.97 Y143.10 E404.16356
G1 X180.12 Y143.36 E404.17839
G1 X180.29 Y143.68 E404.19627
G1 X180.55 Y144.32 E404.23086
G1 X180.68 Y144.75 E404.25303
G1 X180.83 Y145.42 E404.28755
G1 X180.91 Y146.19 E404.32625
G1 X180.91 Y149.12 E404.47233
G1 X180.91 Y149.16 E404.47458
G1 X180.91 Y152.18 E404.62505
G1 X180.91 Y156.58 E404.84451
G1 X180.91 Y157.96 E404.91341
G1 X180.91 Y159.12 E404.97128
G1 X180.91 Y159.73 E405.00162
G1 X180.93 Y160.05 E405.01786
G1 X180.83 Y160.87 E405.05887
G1 X180.75 Y161.36 E405.08361
G1 X180.56 Y162.00 E405.11677
G1 X180.25 Y162.78 E405.15904
G1 X179.92 Y163.35 E405.19173
G1 X179.53 Y163.93 E405.22669
G1 X179.31 Y164.19 E405.24324
G1 X179.05 Y164.52 E405.26462
G1 X178.15 Y165.33 E405.32507
G1 X177.75 Y165.63 E405.34977
G1 X177.36 Y165.89 E405.37329
G1 X177.02 Y166.10 E405.39301
G1 X176.20 Y166.51 E405.43897
G1 X175.04 Y166.84 E405.49909
G1 X174.06 Y166.93 E405.54799
G1 X170.66 Y166.93 E405.71797
G1 X170.66 Y176.51 E406.19582
G1 X124.09 Y176.51 E408.51921
G1 X124.09 Y128.49 E410.91493
G0 F12000 X124.49 Y128.89
G1 F2400 X170.26 Y128.89 E413.19841
G1 X170.26 Y136.98 E413.60197
G1 X171.55 Y136.98 E413.66648
G1 X171.84 Y136.98 E413.68120
G1 X172.70 Y137.07 E413.72391
G1 X173.75 Y137.37 E413.77849
G1 X174.78 Y137.87 E413.83552
G1 X175.86 Y138.68 E413.90310
G1 X177.79 Y141.07 E414.05627
G1 X178.12 Y141.47 E414.08196
G1 X178.46 Y141.84 E414.10724
G1 X178.63 Y141.99 E414.11860
G1 X179.14 Y142.58 E414.15746
G1 X179.42 Y142.97 E414.18110
G1 X179.63 Y143.31 E414.20106
G1 X179.77 Y143.55 E414.21519
G1 X179.93 Y143.85 E414.23187
G1 X180.17 Y144.45 E414.26437
G1 X180.29 Y144.85 E414.28498
G1 X180.43 Y145.49 E414.31766
G1 X180.51 Y146.21 E414.35415
G1 X180.51 Y149.12 E414.49893
G1 X180.51 Y149.16 E414.50113
G1 X180.51 Y152.18 E414.65185
G1 X180.51 Y156.58 E414.87131
G1 X180.51 Y157.96 E414.94016
G1 X180.51 Y159.11 E414.99759
G1 X180.51 Y159.74 E415.02902
G1 X180.53 Y160.04 E415.04406
G1 X180.43 Y160.81 E415.08276
G1 X180.36 Y161.27 E415.10588
G1 X180.18 Y161.87 E415.13690
G1 X179.89 Y162.61 E415.17669
G1 X179.58 Y163.14 E415.20742
G1 X179.21 Y163.69 E415.24055
G1 X178.99 Y163.95 E415.25724
G1 X178.76 Y164.25 E415.27628
G1 X177.89 Y165.02 E415.33429
G1 X177.52 Y165.30 E415.35753
G1 X177.14 Y165.55 E415.38004
G1 X176.83 Y165.75 E415.39857
G1 X176.05 Y166.13 E415.44176
G1 X174.97 Y166.45 E415.49820
G1 X174.04 Y166.53 E415.54435
G1 X170.26 Y166.53 E415.73333
G1 X170.26 Y176.11 E416.21118
G1 X124.49 Y176.11 E418.49465
G1 X124.49 Y128.89 E420.85047
G0 F12000 X124.89 Y129.29
G1 F2400 X169.86 Y129.29 E423.09403
G1 X169.86 Y137.38 E423.49764
G1 X171.55 Y137.38 E423.58196
G1 X171.82 Y137.38 E423.59568
G1 X172.62 Y137.46 E423.63579
G1 X173.61 Y137.74 E423.68683
G1 X174.57 Y138.21 E423.74016
G1 X175.58 Y138.97 E423.80336
G1 X177.45 Y141.28 E423.95156
G1 X177.82 Y141.73 E423.98062
G1 X178.18 Y142.12 E424.00706
G1 X178.34 Y142.27 E424.01803
G1 X178.82 Y142.83 E424.05503
G1 X179.08 Y143.19 E424.07711
G1 X179.29 Y143.51 E424.09595
G1 X179.42 Y143.75 E424.10939
G1 X179.56 Y144.02 E424.12484
G1 X179.79 Y144.58 E424.15533
G1 X179.90 Y144.95 E424.17429
G1 X180.04 Y145.55 E424.20517
G1 X180.11 Y146.24 E424.23945
G1 X180.11 Y149.11 E424.38289
G1 X180.11 Y149.15 E424.38503
G1 X180.11 Y152.18 E424.53610
G1 X180.11 Y157.96 E424.82432
G1 X180.11 Y159.10 E424.88134
G1 X180.11 Y159.75 E424.91352
G1 X180.13 Y160.03 E424.92761
G1 X180.04 Y160.75 E424.96410
G1 X179.97 Y161.18 E424.98560
G1 X179.81 Y161.74 E425.01449
G1 X179.53 Y162.43 E425.05184
G1 X179.24 Y162.93 E425.08057
G1 X178.89 Y163.45 E425.11182
G1 X178.69 Y163.69 E425.12727
G1 X178.46 Y163.97 E425.14542
G1 X177.63 Y164.71 E425.20096
G1 X177.29 Y164.98 E425.22270
G1 X176.93 Y165.21 E425.24418
G1 X176.63 Y165.40 E425.26150
G1 X175.91 Y165.76 E425.30199
G1 X174.89 Y166.05 E425.35475
G1 X174.03 Y166.13 E425.39804
G1 X169.86 Y166.13 E425.60608
G1 X169.86 Y175.71 E426.08393
G1 X124.89 Y175.71 E428.32749
G1 X124.89 Y129.29 E430.64340
G0 F12000 X125.29 Y129.69
G1 F2400 X169.46 Y129.69 E432.84705
G1 X169.46 Y137.78 E433.25066
G1 X171.54 Y137.78 E433.35478
G1 X171.80 Y137.78 E433.36750
G1 X172.55 Y137.86 E433.40500
G1 X173.46 Y138.12 E433.45247
G1 X174.36 Y138.55 E433.50219
G1 X175.30 Y139.26 E433.56097
G1 X177.14 Y141.54 E433.70698
G1 X177.52 Y141.99 E433.73656
G1 X177.89 Y142.39 E433.76367
G1 X178.05 Y142.55 E433.77482
G1 X178.51 Y143.08 E433.80994
G1 X178.75 Y143.41 E433.83053
G1 X178.94 Y143.71 E433.84818
G1 X179.06 Y143.94 E433.86100
G1 X179.20 Y144.19 E433.87519
G1 X179.41 Y144.72 E433.90360
G1 X179.51 Y145.05 E433.92099
G1 X179.64 Y145.62 E433.95004
G1 X179.71 Y146.26 E433.98211
G1 X179.71 Y149.11 E434.12425
G1 X179.71 Y149.15 E434.12630
G1 X179.71 Y152.18 E434.27766
G1 X179.71 Y157.96 E434.56583
G1 X179.71 Y159.09 E434.62240
G1 X179.71 Y159.76 E434.65603
G1 X179.73 Y160.02 E434.66858
G1 X179.64 Y160.70 E434.70275
G1 X179.58 Y161.09 E434.72264
G1 X179.43 Y161.60 E434.74945
G1 X179.17 Y162.25 E434.78431
G1 X178.90 Y162.72 E434.81104
G1 X178.57 Y163.21 E434.84048
G1 X178.39 Y163.42 E434.85456
G1 X178.17 Y163.69 E434.87189
G1 X177.38 Y164.40 E434.92492
G1 X177.06 Y164.65 E434.94520
G1 X176.71 Y164.88 E434.96570
G1 X176.44 Y165.05 E434.98183
G1 X175.76 Y165.38 E435.01960
G1 X174.82 Y165.66 E435.06866
G1 X174.01 Y165.73 E435.10915
G1 X169.46 Y165.73 E435.33620
G1 X169.46 Y175.31 E435.81405
G1 X125.29 Y175.31 E438.01770
G1 X125.29 Y129.69 E440.29369
G0 F12000 X125.69 Y130.09
G1 F2400 X169.06 Y130.09 E442.45743
G1 X169.06 Y138.18 E442.86104
G1 X171.54 Y138.18 E442.98497
G1 X171.78 Y138.18 E442.99674
G1 X172.47 Y138.25 E443.03159
G1 X173.32 Y138.49 E443.07552
G1 X174.15 Y138.90 E443.12151
G1 X175.02 Y139.55 E443.17594
G1 X176.86 Y141.82 E443.32166
G1 X177.21 Y142.25 E443.34918
G1 X177.61 Y142.68 E443.37880
G1 X177.76 Y142.82 E443.38897
G1 X178.20 Y143.33 E443.42221
G1 X178.42 Y143.64 E443.44130
G1 X178.60 Y143.92 E443.45779
G1 X178.72 Y144.13 E443.46993
G1 X178.84 Y144.36 E443.48293
G1 X179.04 Y144.85 E443.50923
G1 X179.13 Y145.15 E443.52501
G1 X179.25 Y145.68 E443.55227
G1 X179.31 Y146.28 E443.58208
G1 X179.31 Y149.10 E443.72297
G1 X179.31 Y149.14 E443.72492
G1 X179.31 Y152.18 E443.87658
G1 X179.31 Y157.96 E444.16470
G1 X179.31 Y159.08 E444.22083
G1 X179.31 Y159.78 E444.25550
G1 X179.32 Y160.00 E444.26684
G1 X179.25 Y160.64 E444.29881
G1 X179.19 Y161.00 E444.31707
G1 X179.05 Y161.47 E444.34170
G1 X178.81 Y162.08 E444.37415
G1 X178.56 Y162.50 E444.39886
G1 X178.25 Y162.97 E444.42646
G1 X178.07 Y163.18 E444.44026
G1 X177.88 Y163.42 E444.45571
G1 X177.12 Y164.10 E444.50627
G1 X176.83 Y164.32 E444.52506
G1 X176.50 Y164.54 E444.54458
G1 X176.25 Y164.70 E444.55948
G1 X175.62 Y165.01 E444.59453
G1 X174.74 Y165.26 E444.63990
G1 X173.99 Y165.33 E444.67763
G1 X169.06 Y165.33 E444.92369
G1 X169.06 Y174.91 E445.40154
G1 X125.69 Y174.91 E447.56527
G1 X125.69 Y130.09 E449.80135
G0 F12000 X126.09 Y130.49
G1 F2400 X168.66 Y130.49 E451.92518
G1 X168.66 Y138.58 E452.32879
G1 X171.54 Y138.58 E452.47252
G1 X171.75 Y138.58 E452.48330
G1 X172.40 Y138.65 E452.51554
G1 X173.18 Y138.87 E452.55590
G1 X173.94 Y139.24 E452.59823
G1 X174.74 Y139.84 E452.64829
G1 X176.53 Y142.05 E452.78990
G1 X176.92 Y142.52 E452.82062
G1 X177.32 Y142.96 E452.84999
G1 X177.47 Y143.10 E452.86047
G1 X177.88 Y143.58 E452.89191
G1 X178.09 Y143.86 E452.90950
G1 X178.25 Y144.12 E452.92479
G1 X178.36 Y144.32 E452.93625
G1 X178.48 Y144.53 E452.94799
G1 X178.66 Y144.98 E452.97230
G1 X178.74 Y145.25 E452.98647
G1 X178.85 Y145.75 E453.01189
G1 X178.91 Y146.30 E453.03949
G1 X178.91 Y149.10 E453.17909
G1 X178.91 Y149.14 E453.18098
G1 X178.91 Y152.18 E453.33295
G1 X178.91 Y157.96 E453.62096
G1 X178.91 Y159.07 E453.67664
G1 X178.91 Y159.78 E453.71211
G1 X178.92 Y159.99 E453.72251
G1 X178.85 Y160.58 E453.75221
G1 X178.79 Y160.91 E453.76886
G1 X178.67 Y161.34 E453.79141
G1 X178.45 Y161.90 E453.82134
G1 X178.22 Y162.29 E453.84406
G1 X177.93 Y162.73 E453.86982
G1 X177.77 Y162.92 E453.88235
G1 X177.59 Y163.15 E453.89694
G1 X176.87 Y163.79 E453.94503
G1 X176.59 Y164.00 E453.96232
G1 X176.28 Y164.20 E453.98081
G1 X176.05 Y164.35 E453.99454
G1 X175.47 Y164.63 E454.02685
G1 X174.67 Y164.87 E454.06855
G1 X173.97 Y164.93 E454.10347
G1 X168.66 Y164.93 E454.36854
G1 X168.66 Y174.51 E454.84639
G1 X126.09 Y174.51 E456.97021
G1 X126.09 Y130.49 E459.16638
G0 F12000 X126.49 Y130.89
G1 F2400 X168.26 Y130.89 E461.25029
G1 X168.26 Y139.02 E461.65575
G1 X168.65 Y138.98 E461.67549
G1 X171.53 Y138.98 E461.81938
G1 X171.73 Y138.98 E461.82916
G1 X172.32 Y139.04 E461.85879
G1 X173.03 Y139.24 E461.89562
G1 X173.73 Y139.58 E461.93424
G1 X174.46 Y140.13 E461.97992
G1 X176.24 Y142.33 E462.12103
G1 X176.61 Y142.78 E462.14995
G1 X177.04 Y143.24 E462.18137
G1 X177.18 Y143.38 E462.19125
G1 X177.57 Y143.82 E462.22085
G1 X177.76 Y144.09 E462.23693
G1 X177.91 Y144.32 E462.25104
G1 X178.01 Y144.51 E462.26183
G1 X178.11 Y144.70 E462.27238
G1 X178.28 Y145.11 E462.29459
G1 X178.35 Y145.35 E462.30715
G1 X178.46 Y145.82 E462.33077
G1 X178.51 Y146.32 E462.35617
G1 X178.51 Y149.09 E462.49441
G1 X178.51 Y149.11 E462.49541
G1 X178.51 Y152.18 E462.64853
G1 X178.51 Y157.96 E462.93654
G1 X178.51 Y159.06 E462.99172
G1 X178.51 Y159.79 E463.02824
G1 X178.52 Y159.98 E463.03748
G1 X178.46 Y160.52 E463.06492
G1 X178.41 Y160.82 E463.07995
G1 X178.29 Y161.21 E463.10033
G1 X178.09 Y161.72 E463.12783
G1 X177.88 Y162.08 E463.14853
G1 X177.61 Y162.49 E463.17250
G1 X177.47 Y162.65 E463.18367
G1 X177.29 Y162.87 E463.19742
G1 X176.61 Y163.48 E463.24303
G1 X176.36 Y163.67 E463.25884
G1 X176.07 Y163.87 E463.27634
G1 X175.86 Y164.00 E463.28884
G1 X175.32 Y164.26 E463.31843
G1 X174.59 Y164.47 E463.35648
G1 X173.95 Y164.53 E463.38855
G1 X168.26 Y164.53 E463.67268
G1 X168.26 Y174.11 E464.15053
G1 X126.49 Y174.11 E466.23444
G1 X126.49 Y130.89 E468.39069
G0 F12000 X126.89 Y131.29
G1 F2400 X167.86 Y131.29 E470.43470
G1 X167.86 Y139.50 E470.84439
G1 X168.08 Y139.44 E470.85619
G1 X168.67 Y139.38 E470.88556
G1 X171.53 Y139.38 E471.02834
G1 X171.71 Y139.38 E471.03712
G1 X172.25 Y139.44 E471.06410
G1 X172.89 Y139.62 E471.09745
G1 X173.52 Y139.93 E471.13241
G1 X174.18 Y140.42 E471.17367
G1 X175.91 Y142.56 E471.31088
G1 X176.32 Y143.05 E471.34269
G1 X176.75 Y143.52 E471.37454
G1 X176.89 Y143.65 E471.38421
G1 X177.25 Y144.07 E471.41190
G1 X177.43 Y144.31 E471.42649
G1 X177.56 Y144.53 E471.43943
G1 X177.66 Y144.71 E471.44957
G1 X177.75 Y144.87 E471.45890
G1 X177.90 Y145.25 E471.47905
G1 X177.97 Y145.46 E471.48999
G1 X178.06 Y145.88 E471.51178
G1 X178.11 Y146.34 E471.53497
G1 X178.11 Y149.09 E471.67191
G1 X178.11 Y149.16 E471.67546
G1 X178.11 Y152.18 E471.82623
G1 X178.11 Y157.95 E472.11419
G1 X178.11 Y159.10 E472.17132
G1 X178.11 Y159.10 E472.17162
G1 X178.11 Y159.81 E472.20694
G1 X178.12 Y159.97 E472.21454
G1 X178.06 Y160.47 E472.23972
G1 X178.01 Y160.73 E472.25313
G1 X177.91 Y161.08 E472.27141
G1 X177.73 Y161.55 E472.29645
G1 X177.54 Y161.87 E472.31514
G1 X177.29 Y162.24 E472.33727
G1 X177.15 Y162.41 E472.34841
G1 X177.00 Y162.59 E472.35999
G1 X176.36 Y163.17 E472.40313
G1 X176.13 Y163.35 E472.41747
G1 X175.85 Y163.53 E472.43397
G1 X175.66 Y163.65 E472.44531
G1 X175.18 Y163.89 E472.47218
G1 X174.52 Y164.08 E472.50649
G1 X173.93 Y164.13 E472.53580
G1 X167.86 Y164.13 E472.83894
G1 X167.86 Y173.71 E473.31678
G1 X126.89 Y173.71 E475.36079
G1 X126.89 Y131.29 E477.47713
G0 F12000 X127.29 Y131.69
G1 F2400 X167.46 Y131.69 E479.48122
G1 X167.46 Y140.06 E479.89880
G1 X167.56 Y140.00 E479.90484
G1 X168.16 Y139.83 E479.93579
G1 X168.69 Y139.78 E479.96230
G1 X171.53 Y139.78 E480.10398
G1 X171.69 Y139.78 E480.11177
G1 X172.17 Y139.83 E480.13614
G1 X172.75 Y139.99 E480.16591
G1 X173.31 Y140.27 E480.19721
G1 X173.90 Y140.71 E480.23409
G1 X175.60 Y142.82 E480.36910
G1 X176.01 Y143.31 E480.40085
G1 X176.47 Y143.80 E480.43474
G1 X176.60 Y143.93 E480.44377
G1 X176.94 Y144.32 E480.46966
G1 X177.09 Y144.53 E480.48274
G1 X177.22 Y144.73 E480.49445
G1 X177.31 Y144.90 E480.50394
G1 X177.39 Y145.04 E480.51207
G1 X177.52 Y145.38 E480.53013
G1 X177.58 Y145.56 E480.53946
G1 X177.67 Y145.95 E480.55946
G1 X177.71 Y146.37 E480.58039
G1 X177.71 Y149.09 E480.71609
G1 X177.71 Y149.15 E480.71943
G1 X177.71 Y152.18 E480.87065
G1 X177.71 Y157.95 E481.15851
G1 X177.71 Y159.08 E481.21464
G1 X177.71 Y159.08 E481.21495
G1 X177.71 Y159.82 E481.25186
G1 X177.72 Y159.95 E481.25831
G1 X177.66 Y160.41 E481.28122
G1 X177.62 Y160.64 E481.29301
G1 X177.53 Y160.95 E481.30918
G1 X177.37 Y161.37 E481.33170
G1 X177.20 Y161.66 E481.34840
G1 X176.97 Y162.00 E481.36873
G1 X176.84 Y162.15 E481.37856
G1 X176.71 Y162.32 E481.38928
G1 X176.10 Y162.86 E481.42995
G1 X175.90 Y163.02 E481.44279
G1 X175.64 Y163.19 E481.45829
G1 X175.47 Y163.30 E481.46839
G1 X175.03 Y163.51 E481.49256
G1 X174.44 Y163.68 E481.52319
G1 X173.91 Y163.73 E481.54970
G1 X167.46 Y163.73 E481.87184
G1 X167.46 Y173.31 E482.34969
G1 X127.29 Y173.31 E484.35378
G1 X127.29 Y131.69 E486.43021
G0 F12000 X127.69 Y132.09
G1 F2400 X167.06 Y132.09 E488.39439
G1 X167.06 Y140.75 E488.82664
G1 X167.22 Y140.63 E488.83686
G1 X167.71 Y140.38 E488.86451
G1 X168.24 Y140.22 E488.89160
G1 X168.71 Y140.18 E488.91530
G1 X171.53 Y140.18 E489.05589
G1 X171.66 Y140.18 E489.06268
G1 X172.10 Y140.22 E489.08444
G1 X172.60 Y140.37 E489.11069
G1 X173.10 Y140.61 E489.13826
G1 X173.62 Y141.00 E489.17079
G1 X175.29 Y143.07 E489.30364
G1 X175.72 Y143.58 E489.33662
G1 X176.18 Y144.08 E489.37051
G1 X176.19 Y144.09 E489.37108
G1 X176.31 Y144.21 E489.37965
G1 X176.63 Y144.57 E489.40363
G1 X176.76 Y144.76 E489.41521
G1 X176.88 Y144.94 E489.42577
G1 X176.96 Y145.09 E489.43461
G1 X177.03 Y145.21 E489.44149
G1 X177.15 Y145.51 E489.45756
G1 X177.19 Y145.66 E489.46526
G1 X177.27 Y146.01 E489.48342
G1 X177.31 Y146.39 E489.50214
G1 X177.31 Y149.08 E489.63654
G1 X177.31 Y149.14 E489.63969
G1 X177.31 Y152.18 E489.79130
G1 X177.31 Y157.95 E490.07917
G1 X177.31 Y159.06 E490.13430
G1 X177.31 Y159.06 E490.13465
G1 X177.31 Y159.83 E490.17282
G1 X177.32 Y159.94 E490.17832
G1 X177.27 Y160.35 E490.19897
G1 X177.23 Y160.55 E490.20914
G1 X177.15 Y160.82 E490.22318
G1 X177.00 Y161.20 E490.24326
G1 X176.86 Y161.45 E490.25795
G1 X176.65 Y161.76 E490.27644
G1 X176.53 Y161.91 E490.28617
G1 X176.42 Y162.04 E490.29483
G1 X175.85 Y162.56 E490.33303
G1 X175.67 Y162.69 E490.34438
G1 X175.42 Y162.85 E490.35890
G1 X175.27 Y162.95 E490.36781
G1 X174.89 Y163.14 E490.38921
G1 X174.37 Y163.29 E490.41621
G1 X173.90 Y163.33 E490.43986
G1 X167.06 Y163.33 E490.78106
G1 X167.06 Y172.91 E491.25891
G1 X127.69 Y172.91 E493.22309
G1 X127.69 Y132.09 E495.25960
G0 F12000 X128.09 Y132.49
G1 F2400 X166.66 Y132.49 E497.18387
G1 X166.66 Y141.70 E497.64336
G1 X166.74 Y141.60 E497.64960
G1 X167.06 Y141.25 E497.67350
G1 X167.43 Y140.97 E497.69677
G1 X167.86 Y140.75 E497.72082
G1 X168.31 Y140.62 E497.74411
G1 X168.73 Y140.58 E497.76496
G1 X171.52 Y140.58 E497.90445
G1 X171.64 Y140.58 E497.91024
G1 X172.02 Y140.62 E497.92939
G1 X172.46 Y140.74 E497.95206
G1 X172.89 Y140.95 E497.97598
G1 X173.34 Y141.29 E498.00412
G1 X174.99 Y143.33 E498.13477
G1 X175.41 Y143.84 E498.16765
G1 X175.89 Y144.35 E498.20288
G1 X175.90 Y144.37 E498.20398
G1 X176.02 Y144.48 E498.21213
G1 X176.31 Y144.82 E498.23427
G1 X176.43 Y144.98 E498.24435
G1 X176.53 Y145.14 E498.25375
G1 X176.61 Y145.28 E498.26190
G1 X176.66 Y145.38 E498.26757
G1 X176.77 Y145.64 E498.28156
G1 X176.80 Y145.76 E498.28765
G1 X176.88 Y146.08 E498.30401
G1 X176.91 Y146.41 E498.32052
G1 X176.91 Y149.08 E498.45363
G1 X176.91 Y149.14 E498.45657
G1 X176.91 Y152.18 E498.60859
G1 X176.91 Y157.95 E498.89641
G1 X176.91 Y159.04 E498.95054
G1 X176.91 Y159.04 E498.95094
G1 X176.91 Y159.85 E498.99105
G1 X176.92 Y159.93 E498.99495
G1 X176.87 Y160.29 E499.01340
G1 X176.84 Y160.46 E499.02195
G1 X176.78 Y160.69 E499.03384
G1 X176.65 Y161.02 E499.05146
G1 X176.52 Y161.24 E499.06414
G1 X176.33 Y161.52 E499.08083
G1 X176.23 Y161.63 E499.08844
G1 X176.13 Y161.77 E499.09703
G1 X175.59 Y162.25 E499.13279
G1 X175.44 Y162.37 E499.14264
G1 X175.21 Y162.51 E499.15612
G1 X175.08 Y162.60 E499.16388
G1 X174.74 Y162.76 E499.18255
G1 X174.29 Y162.89 E499.20581
G1 X173.88 Y162.93 E499.22670
G1 X166.66 Y162.93 E499.58691
G1 X166.66 Y172.51 E500.06476
G1 X128.09 Y172.51 E501.98902
G1 X128.09 Y132.49 E503.98563
G0 F12000 X128.49 Y132.89
G1 F2400 X166.26 Y132.89 E505.86998
G1 X166.26 Y142.82 E506.36564
G1 X167.04 Y141.87 E506.42738
G1 X167.33 Y141.55 E506.44885
G1 X167.65 Y141.31 E506.46863
G1 X168.01 Y141.12 E506.48909
G1 X168.39 Y141.01 E506.50858
G1 X168.75 Y140.98 E506.52658
G1 X171.52 Y140.98 E506.66497
G1 X171.62 Y140.98 E506.66976
G1 X171.95 Y141.01 E506.68631
G1 X172.31 Y141.12 E506.70545
G1 X172.68 Y141.30 E506.72571
G1 X173.06 Y141.58 E506.74943
G1 X174.68 Y143.58 E506.87785
G1 X175.11 Y144.10 E506.91122
G1 X175.60 Y144.63 E506.94720
G1 X175.62 Y144.65 E506.94861
G1 X175.73 Y144.76 E506.95662
G1 X176.00 Y145.07 E506.97692
G1 X176.10 Y145.21 E506.98550
G1 X176.19 Y145.34 E506.99370
G1 X176.26 Y145.48 E507.00121
G1 X176.30 Y145.55 E507.00565
G1 X176.39 Y145.78 E507.01753
G1 X176.42 Y145.86 E507.02207
G1 X176.48 Y146.15 E507.03659
G1 X176.51 Y146.43 E507.05084
G1 X176.51 Y149.07 E507.18265
G1 X176.51 Y149.13 E507.18545
G1 X176.51 Y157.95 E507.62563
G1 X176.51 Y159.02 E507.67876
G1 X176.51 Y159.03 E507.67921
G1 X176.51 Y159.86 E507.72092
G1 X176.51 Y159.91 E507.72362
G1 X176.47 Y160.24 E507.73975
G1 X176.45 Y160.37 E507.74668
G1 X176.40 Y160.56 E507.75650
G1 X176.28 Y160.84 E507.77161
G1 X176.18 Y161.03 E507.78230
G1 X176.01 Y161.28 E507.79715
G1 X175.91 Y161.40 E507.80504
G1 X175.83 Y161.49 E507.81122
G1 X175.34 Y161.94 E507.84443
G1 X175.20 Y162.04 E507.85282
G1 X174.99 Y162.18 E507.86533
G1 X174.88 Y162.25 E507.87185
G1 X174.60 Y162.39 E507.88783
G1 X174.22 Y162.50 E507.90741
G1 X173.86 Y162.53 E507.92550
G1 X166.52 Y162.53 E508.29179
G1 X166.26 Y162.50 E508.30478
G1 X166.26 Y172.11 E508.78398
G1 X128.49 Y172.11 E510.66833
G1 X128.49 Y132.89 E512.62502
G0 F12000 X128.89 Y133.29
G1 F2400 X165.86 Y133.29 E514.46946
G1 X165.86 Y143.95 E515.00139
G1 X167.34 Y142.13 E515.11875
G1 X167.60 Y141.85 E515.13774
G1 X167.86 Y141.65 E515.15399
G1 X168.16 Y141.50 E515.17089
G1 X168.46 Y141.41 E515.18658
G1 X168.76 Y141.38 E515.20172
G1 X171.52 Y141.38 E515.33901
G1 X171.59 Y141.38 E515.34281
G1 X171.87 Y141.41 E515.35674
G1 X172.17 Y141.49 E515.37235
G1 X172.47 Y141.64 E515.38890
G1 X172.78 Y141.87 E515.40825
G1 X174.37 Y143.84 E515.53450
G1 X174.80 Y144.36 E515.56823
G1 X175.30 Y144.90 E515.60498
G1 X175.33 Y144.92 E515.60661
G1 X175.44 Y145.03 E515.61462
G1 X175.68 Y145.31 E515.63304
G1 X175.77 Y145.43 E515.64012
G1 X175.84 Y145.55 E515.64713
G1 X175.91 Y145.67 E515.65397
G1 X175.94 Y145.72 E515.65720
G1 X176.01 Y145.91 E515.66705
G1 X176.03 Y145.96 E515.66992
G1 X176.09 Y146.21 E515.68266
G1 X176.11 Y146.45 E515.69470
G1 X176.11 Y149.07 E515.82521
G1 X176.11 Y149.12 E515.82781
G1 X176.11 Y157.95 E516.26834
G1 X176.11 Y159.00 E516.32047
G1 X176.11 Y159.00 E516.32098
G1 X176.11 Y159.87 E516.36398
G1 X176.11 Y159.90 E516.36573
G1 X176.08 Y160.18 E516.37965
G1 X176.06 Y160.28 E516.38497
G1 X176.02 Y160.43 E516.39261
G1 X175.92 Y160.67 E516.40528
G1 X175.84 Y160.82 E516.41396
G1 X175.69 Y161.04 E516.42701
G1 X175.61 Y161.13 E516.43355
G1 X175.54 Y161.22 E516.43888
G1 X175.08 Y161.63 E516.46962
G1 X174.97 Y161.71 E516.47652
G1 X174.78 Y161.84 E516.48805
G1 X174.69 Y161.90 E516.49338
G1 X174.45 Y162.01 E516.50659
G1 X174.14 Y162.10 E516.52252
G1 X173.84 Y162.13 E516.53781
G1 X166.54 Y162.13 E516.90211
G1 X166.16 Y162.09 E516.92087
G1 X165.86 Y162.00 E516.93688
G1 X165.86 Y171.71 E517.42152
G1 X128.89 Y171.71 E519.26596
G1 X128.89 Y133.29 E521.18274
G0 F12000 X130.83 Y135.20
G1 F2400 X130.83 Y169.80 E522.90894
G1 X163.92 Y169.80 E524.55976
G1 X163.92 Y135.20 E526.28596
G1 X130.83 Y135.20 E527.93677
G0 F12000 X131.23 Y135.60
G1 F2400 X131.23 Y169.40 E529.62306
G1 X163.52 Y169.40 E531.23397
G1 X163.52 Y135.60 E532.92026
G1 X131.23 Y135.60 E534.53116
G0 F12000 X131.63 Y136.00
G1 F2400 X131.63 Y169.00 E536.17754
G1 X163.12 Y169.00 E537.74853
G1 X163.12 Y136.00 E539.39491
G1 X131.63 Y136.00 E540.96590
G0 F12000 X132.03 Y136.40
G1 F2400 X132.03 Y168.60 E542.57236
G1 X162.72 Y168.60 E544.10344
G1 X162.72 Y136.40 E545.70991
G1 X132.03 Y136.40 E547.24099
G0 F12000 X132.43 Y136.80
G1 F2400 X132.43 Y168.20 E548.80754
G1 X162.32 Y168.20 E550.29871
G1 X162.32 Y136.80 E551.86526
G1 X132.43 Y136.80 E553.35643
G0 F12000 X132.83 Y137.20
G1 F2400 X132.83 Y167.80 E554.88307
G1 X161.92 Y167.80 E556.33433
G1 X161.92 Y137.20 E557.86097
G1 X132.83 Y137.20 E559.31222
G0 F12000 X133.23 Y137.60
G1 F2400 X133.23 Y167.40 E560.79895
G1 X161.52 Y167.40 E562.21029
G1 X161.52 Y137.60 E563.69702
G1 X133.23 Y137.60 E565.10837
G0 F12000 X133.63 Y138.00
G1 F2400 X133.63 Y167.00 E566.55518
G1 X161.12 Y167.00 E567.92661
G1 X161.12 Y138.00 E569.37343
G1 X133.63 Y138.00 E570.74486
G0 F12000 X134.03 Y138.40
G1 F2400 X134.03 Y166.60 E572.15177
G1 X160.72 Y166.60 E573.48329
G1 X160.72 Y138.40 E574.89019
G1 X134.03 Y138.40 E576.22171
G0 F12000 X134.43 Y138.80
G1 F2400 X134.43 Y166.20 E577.58870
G1 X160.32 Y166.20 E578.88031
G1 X160.32 Y138.80 E580.24730
G1 X134.43 Y138.80 E581.53891
G0 F12000 X134.83 Y139.20
G1 F2400 X134.83 Y165.80 E582.86599
G1 X159.92 Y165.80 E584.11768
G1 X159.92 Y139.20 E585.44476
G1 X134.83 Y139.20 E586.69646
G0 F12000 X135.23 Y139.60
G1 F2400 X135.23 Y165.40 E587.98362
G1 X159.52 Y165.40 E589.19541
G1 X159.52 Y139.60 E590.48257
G1 X135.23 Y139.60 E591.69436
G0 F12000 X135.63 Y140.00
G1 F2400 X135.63 Y165.00 E592.94161
G1 X159.12 Y165.00 E594.11348
G1 X159.12 Y140.00 E595.36074
G1 X135.63 Y140.00 E596.53261
G0 F12000 X136.03 Y140.40
G1 F2400 X136.03 Y164.60 E597.73995
G1 X158.72 Y164.60 E598.87191
G1 X158.72 Y140.40 E600.07925
G1 X136.03 Y140.40 E601.21121
G0 F12000 X136.43 Y140.80
G1 F2400 X136.43 Y164.20 E602.37864
G1 X158.32 Y164.20 E603.47069
G1 X158.32 Y140.80 E604.63812
G1 X136.43 Y140.80 E605.73017
G0 F12000 X136.83 Y141.20
G1 F2400 X136.83 Y163.80 E606.85769
G1 X157.92 Y163.80 E607.90982
G1 X157.92 Y141.20 E609.03734
G1 X136.83 Y141.20 E610.08947
G0 F12000 X137.23 Y141.60
G1 F2400 X137.23 Y163.40 E611.17708
G1 X157.52 Y163.40 E612.18930
G1 X157.52 Y141.60 E613.27691
G1 X137.23 Y141.60 E614.28913
G0 F12000 X137.63 Y142.00
G1 F2400 X137.63 Y163.00 E615.33683
G1 X157.12 Y163.00 E616.30914
G1 X157.12 Y142.00 E617.35683
G1 X137.63 Y142.00 E618.32914
G0 F12000 X138.03 Y142.40
G1 F2400 X138.03 Y162.60 E619.33692
G1 X156.72 Y162.60 E620.26932
G1 X156.72 Y142.40 E621.27710
G1 X138.03 Y142.40 E622.20950
G0 F12000 X138.43 Y142.80
G1 F2400 X138.43 Y162.20 E623.17737
G1 X156.32 Y162.20 E624.06986
G1 X156.32 Y142.80 E625.03773
G1 X138.43 Y142.80 E625.93021
G0 F12000 X138.83 Y143.20
G1 F2400 X138.83 Y161.80 E626.85817
G1 X155.92 Y161.80 E627.71074
G1 X155.92 Y143.20 E628.63870
G1 X138.83 Y143.20 E629.49127
G0 F12000 X139.23 Y143.60
G1 F2400 X139.23 Y161.40 E630.37932
G1 X155.52 Y161.40 E631.19198
G1 X155.52 Y143.60 E632.08003
G1 X139.23 Y143.60 E632.89269
G0 F12000 X139.63 Y144.00
G1 F2400 X139.63 Y161.00 E633.74082
G1 X155.12 Y161.00 E634.51357
G1 X155.12 Y144.00 E635.36170
G1 X139.63 Y144.00 E636.13445
G0 F12000 X140.03 Y144.40
G1 F2400 X140.03 Y160.60 E636.94268
G1 X154.72 Y160.60 E637.67551
G1 X154.72 Y144.40 E638.48373
G1 X140.03 Y144.40 E639.21657
G0 F12000 X140.43 Y144.80
G1 F2400 X140.43 Y160.20 E639.98488
G1 X154.32 Y160.20 E640.67781
G1 X154.32 Y144.80 E641.44611
G1 X140.43 Y144.80 E642.13904
G0 F12000 X140.83 Y145.20
G1 F2400 X140.83 Y159.80 E642.86744
G1 X153.92 Y159.80 E643.52045
G1 X153.92 Y145.20 E644.24885
G1 X140.83 Y145.20 E644.90186
G0 F12000 X141.23 Y145.60
G1 F2400 X141.23 Y159.40 E645.59034
G1 X153.52 Y159.40 E646.20344
G1 X153.52 Y145.60 E646.89193
G1 X141.23 Y145.60 E647.50503
G0 F12000 X141.63 Y146.00
G1 F2400 X141.63 Y159.00 E648.15360
G1 X153.12 Y159.00 E648.72679
G1 X153.12 Y146.00 E649.37536
G1 X141.63 Y146.00 E649.94855
G0 F12000 X142.03 Y146.40
G1 F2400 X142.03 Y158.60 E650.55721
G1 X152.72 Y158.60 E651.09049
G1 X152.72 Y146.40 E651.69915
G1 X142.03 Y146.40 E652.23243
G0 F12000 X142.43 Y146.80
G1 F2400 X142.43 Y158.20 E652.80117
G1 X152.32 Y158.20 E653.29454
G1 X152.32 Y146.80 E653.86329
G1 X142.43 Y146.80 E654.35665
G0 F12000 X142.83 Y147.20
G1 F2400 X142.83 Y157.80 E654.88549
G1 X151.92 Y157.80 E655.33894
G1 X151.92 Y147.20 E655.86778
G1 X142.83 Y147.20 E656.32123
G0 F12000 X143.23 Y147.60
G1 F2400 X143.23 Y157.40 E656.81015
G1 X151.52 Y157.40 E657.22369
G1 X151.52 Y147.60 E657.71262
G1 X143.23 Y147.60 E658.12616
G0 F12000 X143.63 Y148.00
G1 F2400 X143.63 Y157.00 E658.57517
G1 X151.12 Y157.00 E658.94879
G1 X151.12 Y148.00 E659.39781
G1 X143.63 Y148.00 E659.77143
G0 F12000 X144.03 Y148.40
G1 F2400 X144.03 Y156.60 E660.18053
G1 X150.72 Y156.60 E660.51425
G1 X150.72 Y148.40 E660.92335
G1 X144.03 Y148.40 E661.25706
G0 F12000 X144.43 Y148.80
G1 F2400 X144.43 Y156.20 E661.62625
G1 X150.32 Y156.20 E661.92006
G1 X150.32 Y148.80 E662.28924
G1 X144.43 Y148.80 E662.58305
G0 F12000 X144.83 Y149.20
G1 F2400 X144.83 Y155.80 E662.91232
G1 X149.92 Y155.80 E663.16621
G1 X149.92 Y149.20 E663.49549
G1 X144.83 Y149.20 E663.74938
G0 F12000 X145.23 Y149.60
G1 F2400 X145.23 Y155.40 E664.03874
G1 X149.52 Y155.40 E664.25272
G1 X149.52 Y149.60 E664.54209
G1 X145.23 Y149.60 E664.75606
G0 F12000 X145.63 Y150.00
G1 F2400 X145.63 Y155.00 E665.00552
G1 X149.12 Y155.00 E665.17958
G1 X149.12 Y150.00 E665.42903
G1 X145.63 Y150.00 E665.60310
G1 F2400 E664.40310
G0 F12000 X165.12 Y145.38
;TYPE:WALL-INNER
G1 F2400 E665.60310
G1 X165.99 Y145.69 E665.64927
G1 X168.24 Y142.92 E665.82770
G1 X168.41 Y142.74 E665.83991
G1 X168.50 Y142.67 E665.84540
G1 X168.61 Y142.62 E665.85145
G1 X168.69 Y142.59 E665.85582
G1 X171.50 Y142.58 E665.99606
G1 X171.64 Y142.59 E666.00317
G1 X171.74 Y142.62 E666.00835
G1 X171.84 Y142.67 E666.01384
G1 X171.94 Y142.74 E666.02004
G1 X173.44 Y144.60 E666.13934
G1 X173.91 Y145.16 E666.17526
G1 X174.43 Y145.72 E666.21353
G1 X174.77 Y146.09 E666.23882
G1 X174.85 Y146.24 E666.24709
G1 X174.87 Y146.29 E666.24984
G1 X174.91 Y146.52 E666.26149
G1 X174.91 Y149.05 E666.38766
G1 X174.91 Y149.11 E666.39071
G1 X174.91 Y152.18 E666.54422
G1 X174.91 Y157.95 E666.83169
G1 X174.91 Y158.94 E666.88103
G1 X174.91 Y158.95 E666.88163
G1 X174.91 Y159.84 E666.92628
G1 X174.89 Y160.03 E666.93569
G1 X174.81 Y160.20 E666.94500
G1 X174.73 Y160.31 E666.95171
G1 X174.66 Y160.39 E666.95706
G1 X174.28 Y160.73 E666.98279
G1 X174.01 Y160.89 E666.99810
G1 X173.92 Y160.92 E667.00298
G1 X166.60 Y160.93 E667.36808
G1 X166.41 Y160.91 E667.37786
G1 X166.32 Y160.88 E667.38256
G1 X165.12 Y160.22 E667.45093
G1 X165.12 Y145.38 E668.19135
G0 F12000 X165.06 Y144.94
G1 F2400 X165.85 Y145.22 E668.23359
G1 X167.95 Y142.65 E668.39935
G1 X168.14 Y142.44 E668.41304
G1 X168.28 Y142.33 E668.42216
G1 X168.46 Y142.24 E668.43192
G1 X168.62 Y142.20 E668.44024
G1 X171.51 Y142.18 E668.58437
G1 X171.72 Y142.20 E668.59508
G1 X171.89 Y142.24 E668.60364
G1 X172.05 Y142.32 E668.61275
G1 X172.22 Y142.45 E668.62343
G1 X173.75 Y144.35 E668.74504
G1 X174.21 Y144.89 E668.78029
G1 X174.72 Y145.45 E668.81799
G1 X174.86 Y145.59 E668.82808
G1 X175.06 Y145.81 E668.84276
G1 X175.21 Y146.06 E668.85766
G1 X175.26 Y146.17 E668.86357
G1 X175.31 Y146.49 E668.87967
G1 X175.31 Y149.05 E669.00749
G1 X175.31 Y149.11 E669.01028
G1 X175.31 Y157.95 E669.45121
G1 X175.31 Y158.96 E669.50145
G1 X175.31 Y158.97 E669.50200
G1 X175.31 Y159.87 E669.54685
G1 X175.28 Y160.11 E669.55908
G1 X175.21 Y160.31 E669.56970
G1 X175.05 Y160.55 E669.58407
G1 X174.96 Y160.67 E669.59165
G1 X174.57 Y161.01 E669.61744
G1 X174.29 Y161.20 E669.63409
G1 X174.16 Y161.26 E669.64139
G1 X173.99 Y161.31 E669.65032
G1 X166.58 Y161.33 E670.02001
G1 X166.33 Y161.31 E670.03275
G1 X166.16 Y161.25 E670.04159
G1 X165.06 Y160.65 E670.10422
G1 X165.06 Y170.91 E670.61614
G1 X129.69 Y170.91 E672.38076
G1 X129.69 Y134.09 E674.21771
G1 X165.06 Y134.09 E675.98233
G1 X165.06 Y144.94 E676.52359
G0 F12000 X164.72 Y134.40
G1 F2400 X130.03 Y134.40 E678.25423
G1 X130.03 Y170.60 E680.06026
G1 X164.72 Y170.60 E681.79090
G1 X164.72 Y134.40 E683.59692
G0 F12000 X164.32 Y134.80
;TYPE:WALL-OUTER
G1 F2400 X130.43 Y134.80 E685.28765
G1 X130.43 Y170.20 E687.05376
G1 X164.32 Y170.20 E688.74449
G1 X164.32 Y134.80 E690.51061
G0 F12000 X164.32 Y134.50
G0 X165.16 Y133.90
G0 X165.46 Y133.69
G1 F2400 X165.46 Y144.66 E691.05770
G1 X165.72 Y144.75 E691.07179
G1 X167.64 Y142.39 E691.22334
G1 X167.87 Y142.14 E691.24039
G1 X168.07 Y141.99 E691.25297
G1 X168.31 Y141.87 E691.26620
G1 X168.54 Y141.80 E691.27817
G1 X168.78 Y141.78 E691.29040
G1 X171.51 Y141.78 E691.42660
G1 X171.57 Y141.78 E691.42949
G1 X171.80 Y141.80 E691.44082
G1 X172.03 Y141.87 E691.45265
G1 X172.26 Y141.98 E691.46574
G1 X172.50 Y142.16 E691.48074
G1 X174.06 Y144.09 E691.60465
G1 X174.51 Y144.63 E691.63926
G1 X175.01 Y145.17 E691.67637
G1 X175.15 Y145.31 E691.68632
G1 X175.43 Y145.65 E691.70803
G1 X175.58 Y145.90 E691.72230
G1 X175.64 Y146.07 E691.73171
G1 X175.69 Y146.28 E691.74214
G1 X175.71 Y146.48 E691.75223
G1 X175.71 Y149.06 E691.88125
G1 X175.71 Y149.11 E691.88384
G1 X175.71 Y157.95 E692.32462
G1 X175.71 Y158.97 E692.37581
G1 X175.71 Y158.99 E692.37631
G1 X175.71 Y159.88 E692.42121
G1 X175.67 Y160.19 E692.43666
G1 X175.56 Y160.49 E692.45246
G1 X175.37 Y160.79 E692.47037
G1 X175.25 Y160.94 E692.48018
G1 X174.83 Y161.32 E692.50798
G1 X174.74 Y161.39 E692.51407
G1 X174.50 Y161.55 E692.52835
G1 X174.30 Y161.64 E692.53897
G1 X174.07 Y161.71 E692.55108
G1 X173.82 Y161.73 E692.56356
G1 X166.56 Y161.73 E692.92596
G1 X166.25 Y161.70 E692.94156
G1 X166.00 Y161.62 E692.95466
G1 X165.46 Y161.32 E692.98536
G1 X165.46 Y171.31 E693.48356
G1 X129.29 Y171.31 E695.28809
G1 X129.29 Y133.69 E697.16496
G1 X165.46 Y133.69 E698.96949
G0 F12000 X165.16 Y133.90
G0 X165.09 Y144.91
G0 X165.84 Y145.18
G0 X168.55 Y142.81
;TYPE:FILL
G1 F2400 X174.77 Y149.03 E699.40852
G0 F12000 X174.77 Y149.60
G1 F2400 X168.28 Y143.10 E699.86685
G0 F12000 X168.02 Y143.41
G1 F2400 X174.77 Y150.16 E700.34306
G0 F12000 X174.77 Y150.73
G1 F2400 X167.77 Y143.72 E700.83719
G0 F12000 X167.51 Y144.04
G1 F2400 X174.77 Y151.29 E701.34922
G0 F12000 X174.77 Y151.86
G1 F2400 X167.26 Y144.35 E701.87916
G0 F12000 X167.01 Y144.66
G1 F2400 X174.77 Y152.43 E702.42695
G0 F12000 X174.77 Y152.99
G1 F2400 X166.75 Y144.97 E702.99263
G0 F12000 X166.50 Y145.28
G1 F2400 X174.77 Y153.56 E703.57619
G0 F12000 X174.77 Y154.12
G1 F2400 X166.25 Y145.60 E704.17764
G0 F12000 X165.89 Y145.81
G1 F2400 X174.77 Y154.69 E704.80414
G0 F12000 X174.77 Y155.25
G1 F2400 X165.25 Y145.74 E705.47544
G0 F12000 X165.25 Y146.30
G1 F2400 X174.77 Y155.82 E706.14674
G0 F12000 X174.77 Y156.38
G1 F2400 X165.25 Y146.87 E706.81800
G0 F12000 X165.25 Y147.44
G1 F2400 X174.77 Y156.95 E707.48926
G0 F12000 X174.77 Y157.51
G1 F2400 X165.25 Y148.00 E708.16053
G0 F12000 X165.25 Y148.57
G1 F2400 X174.77 Y158.08 E708.83179
G0 F12000 X174.77 Y158.65
G1 F2400 X165.25 Y149.13 E709.50306
G0 F12000 X165.25 Y149.70
G1 F2400 X174.77 Y159.21 E710.17432
G0 F12000 X174.77 Y159.78
G1 F2400 X165.25 Y150.26 E710.84565
G0 F12000 X165.25 Y150.83
G1 F2400 X174.63 Y160.21 E711.50725
G0 F12000 X174.35 Y160.49
G1 F2400 X165.25 Y151.40 E712.14871
G0 F12000 X165.25 Y151.96
G1 F2400 X174.02 Y160.72 E712.76702
G0 F12000 X173.51 Y160.78
G1 F2400 X165.25 Y152.53 E713.34924
G0 F12000 X165.25 Y153.09
G1 F2400 X172.94 Y160.78 E713.89160
G0 F12000 X172.38 Y160.78
G1 F2400 X165.25 Y153.66 E714.39410
G0 F12000 X165.25 Y154.22
G1 F2400 X171.81 Y160.78 E714.85673
G0 F12000 X171.25 Y160.78
G1 F2400 X165.25 Y154.79 E715.27953
G0 F12000 X165.25 Y155.35
G1 F2400 X170.68 Y160.78 E715.66254
G0 F12000 X170.12 Y160.78
G1 F2400 X165.25 Y155.92 E716.00565
G0 F12000 X165.25 Y156.49
G1 F2400 X169.55 Y160.79 E716.30901
G0 F12000 X168.99 Y160.79
G1 F2400 X165.25 Y157.05 E716.57246
G0 F12000 X165.25 Y157.62
G1 F2400 X168.43 Y160.79 E716.79612
G0 F12000 X167.86 Y160.79
G1 F2400 X165.25 Y158.18 E716.97992
G0 F12000 X165.25 Y158.75
G1 F2400 X167.29 Y160.79 E717.12389
G0 F12000 X166.73 Y160.79
G1 F2400 X165.25 Y159.31 E717.22799
G0 F12000 X165.25 Y159.88
G1 F2400 X165.83 Y160.46 E717.26877
G0 F12000 X174.77 Y148.47
G1 F2400 X169.03 Y142.73 E717.67344
G0 F12000 X169.60 Y142.73
G1 F2400 X174.77 Y147.90 E718.03842
G0 F12000 X174.77 Y147.34
G1 F2400 X170.16 Y142.72 E718.36369
G0 F12000 X170.72 Y142.72
G1 F2400 X174.77 Y146.77 E718.64919
G0 F12000 X173.74 Y145.17
G1 F2400 X171.29 Y142.72 E718.82226
;LAYER:1
G0 F12000 X171.48 Y142.58 Z0.50
;TYPE:WALL-INNER
G1 F2400 X171.64 Y142.59 E718.82758
G1 X171.77 Y142.63 E718.83214
G1 X171.85 Y142.67 E718.83521
G1 X171.94 Y142.73 E718.83876
G1 X173.43 Y144.58 E718.91755
G1 X173.91 Y145.15 E718.94213
G1 X174.42 Y145.71 E718.96751
G1 X174.69 Y145.99 E718.98008
G1 X174.77 Y146.10 E718.98479
G1 X174.86 Y146.24 E718.99036
G1 X174.88 Y146.29 E718.99200
G1 X174.90 Y146.41 E718.99598
G1 X174.91 Y146.52 E718.99965
G1 X174.91 Y149.03 E719.08289
G1 X174.91 Y149.11 E719.08571
G1 X174.91 Y152.15 E719.18661
G1 X174.92 Y157.93 E719.37840
G1 X174.91 Y158.95 E719.41211
G1 X174.91 Y158.97 E719.41294
G1 X174.91 Y159.84 E719.44177
G1 X174.89 Y160.01 E719.44749
G1 X174.85 Y160.12 E719.45146
G1 X174.71 Y160.34 E719.45995
G1 X174.56 Y160.51 E719.46751
G1 X174.20 Y160.79 E719.48260
G1 X174.02 Y160.89 E719.48958
G1 X173.92 Y160.92 E719.49296
G1 X166.61 Y160.94 E719.73539
G1 X166.41 Y160.91 E719.74209
G1 X166.31 Y160.88 E719.74561
G1 X165.11 Y160.23 E719.79091
G1 X165.11 Y145.38 E720.28349
G1 X165.99 Y145.69 E720.31426
G1 X168.24 Y142.92 E720.43253
G1 X168.40 Y142.74 E720.44080
G1 X168.50 Y142.67 E720.44471
G1 X168.60 Y142.61 E720.44870
G1 X168.69 Y142.59 E720.45173
G1 X171.48 Y142.58 E720.54416
G0 F12000 X171.48 Y142.18
G1 F2400 X171.72 Y142.19 E720.55188
G1 X171.92 Y142.25 E720.55901
G1 X172.07 Y142.33 E720.56445
G1 X172.22 Y142.45 E720.57075
G1 X173.74 Y144.33 E720.65102
G1 X174.21 Y144.89 E720.67517
G1 X174.72 Y145.44 E720.70013
G1 X174.99 Y145.73 E720.71334
G1 X175.10 Y145.87 E720.71930
G1 X175.22 Y146.07 E720.72698
G1 X175.26 Y146.17 E720.73055
G1 X175.31 Y146.49 E720.74136
G1 X175.31 Y149.03 E720.82563
G1 X175.31 Y149.11 E720.82838
G1 X175.31 Y157.93 E721.12104
G1 X175.31 Y158.96 E721.15518
G1 X175.31 Y158.98 E721.15581
G1 X175.31 Y159.86 E721.18507
G1 X175.26 Y160.17 E721.19546
G1 X175.21 Y160.31 E721.20021
G1 X175.02 Y160.60 E721.21171
G1 X174.83 Y160.80 E721.22106
G1 X174.43 Y161.12 E721.23772
G1 X174.16 Y161.27 E721.24818
G1 X174.00 Y161.32 E721.25384
G1 X166.59 Y161.33 E721.49945
G1 X166.33 Y161.31 E721.50819
G1 X166.15 Y161.25 E721.51446
G1 X165.06 Y160.65 E721.55572
G1 X165.06 Y170.91 E721.89612
G1 X129.69 Y170.91 E723.06972
G1 X129.69 Y134.09 E724.29143
G1 X165.06 Y134.09 E725.46504
G1 X165.06 Y144.94 E725.82497
G1 X165.85 Y145.22 E725.85300
G1 X167.92 Y142.68 E725.96175
G1 X168.14 Y142.44 E725.97236
G1 X168.28 Y142.33 E725.97838
G1 X168.46 Y142.24 E725.98490
G1 X168.62 Y142.20 E725.99039
G1 X171.48 Y142.18 E726.08551
G0 F12000 X165.84 Y145.18
G0 X165.09 Y144.91
G0 X164.71 Y134.40
G1 F2400 X130.03 Y134.40 E727.23625
G1 X130.03 Y170.60 E728.43713
G1 X164.71 Y170.60 E729.58787
G1 X164.71 Y134.40 E730.78874
G0 F12000 X164.31 Y134.80
;TYPE:WALL-OUTER
G1 F2400 X130.43 Y134.80 E731.91301
G1 X130.43 Y170.20 E733.08741
G1 X164.31 Y170.20 E734.21168
G1 X164.31 Y134.80 E735.38608
G0 F12000 X164.31 Y134.50
G0 X165.25 Y133.99
G0 X165.46 Y133.69
G1 F2400 X165.46 Y144.66 E735.74993
G1 X165.72 Y144.75 E735.75926
G1 X167.62 Y142.42 E735.85902
G1 X167.87 Y142.14 E735.87135
G1 X168.07 Y141.99 E735.87963
G1 X168.31 Y141.87 E735.88854
G1 X168.54 Y141.80 E735.89657
G1 X168.78 Y141.78 E735.90460
G1 X171.49 Y141.78 E735.99437
G1 X171.57 Y141.78 E735.99713
G1 X171.79 Y141.80 E736.00453
G1 X172.07 Y141.88 E736.01404
G1 X172.28 Y141.99 E736.02195
G1 X172.50 Y142.16 E736.03122
G1 X174.05 Y144.07 E736.11284
G1 X174.50 Y144.62 E736.13654
G1 X175.01 Y145.17 E736.16108
G1 X175.29 Y145.46 E736.17450
G1 X175.44 Y145.66 E736.18289
G1 X175.58 Y145.90 E736.19202
G1 X175.65 Y146.07 E736.19813
G1 X175.69 Y146.27 E736.20507
G1 X175.71 Y146.47 E736.21178
G1 X175.71 Y149.03 E736.29671
G1 X175.71 Y149.12 E736.29937
G1 X175.71 Y157.94 E736.59199
G1 X175.71 Y158.97 E736.62616
G1 X175.71 Y158.99 E736.62702
G1 X175.71 Y159.87 E736.65632
G1 X175.71 Y159.88 E736.65668
G1 X175.67 Y160.19 E736.66696
G1 X175.56 Y160.49 E736.67743
G1 X175.37 Y160.80 E736.68944
G1 X175.10 Y161.09 E736.70283
G1 X174.67 Y161.44 E736.72118
G1 X174.49 Y161.55 E736.72832
G1 X174.31 Y161.64 E736.73498
G1 X174.07 Y161.71 E736.74310
G1 X173.82 Y161.73 E736.75139
G1 X166.57 Y161.73 E736.99196
G1 X166.25 Y161.70 E737.00280
G1 X166.00 Y161.62 E737.01156
G1 X165.46 Y161.32 E737.03185
G1 X165.46 Y171.31 E737.36316
G1 X129.29 Y171.31 E738.56324
G1 X129.29 Y133.69 E739.81142
G1 X165.46 Y133.69 E741.01150
G0 F12000 X165.25 Y133.99
G0 X165.09 Y144.91
G0 X165.84 Y145.18
G0 X169.03 Y142.73
;TYPE:FILL
G1 F2400 X166.59 Y145.18 E741.12638
G0 F12000 X165.94 Y145.82
G1 F2400 X165.25 Y146.51 E741.15864
G0 F12000 X165.25 Y147.07
G1 F2400 X169.60 Y142.72 E741.36264
G0 F12000 X170.17 Y142.72
G1 F2400 X165.25 Y147.64 E741.59325
G0 F12000 X165.25 Y148.20
G1 F2400 X170.73 Y142.72 E741.85049
G0 F12000 X171.30 Y142.72
G1 F2400 X165.25 Y148.76 E742.13428
G0 F12000 X165.25 Y149.33
G1 F2400 X171.79 Y142.79 E742.44090
G0 F12000 X172.05 Y143.09
G1 F2400 X165.25 Y149.89 E742.75986
G0 F12000 X165.25 Y150.46
G1 F2400 X172.30 Y143.41 E743.09071
G0 F12000 X172.56 Y143.72
G1 F2400 X165.25 Y151.02 E743.43341
G0 F12000 X165.25 Y151.59
G1 F2400 X172.81 Y144.03 E743.78798
G0 F12000 X173.06 Y144.34
G1 F2400 X165.25 Y152.15 E744.15442
G0 F12000 X165.25 Y152.72
G1 F2400 X173.32 Y144.65 E744.53280
G0 F12000 X173.57 Y144.96
G1 F2400 X165.25 Y153.28 E744.92305
G0 F12000 X165.25 Y153.84
G1 F2400 X173.82 Y145.27 E745.32524
G0 F12000 X174.10 Y145.56
G1 F2400 X165.25 Y154.41 E745.74027
G0 F12000 X165.25 Y154.97
G1 F2400 X174.37 Y145.85 E746.16805
G0 F12000 X174.63 Y146.15
G1 F2400 X165.25 Y155.54 E746.60830
G0 F12000 X165.25 Y156.10
G1 F2400 X174.77 Y146.58 E747.05506
G0 F12000 X174.77 Y147.14
G1 F2400 X165.25 Y156.66 E747.50183
G0 F12000 X165.25 Y157.23
G1 F2400 X174.77 Y147.71 E747.94859
G0 F12000 X174.77 Y148.27
G1 F2400 X165.25 Y157.79 E748.39536
G0 F12000 X165.25 Y158.36
G1 F2400 X174.77 Y148.84 E748.84210
G0 F12000 X174.77 Y149.40
G1 F2400 X165.25 Y158.92 E749.28882
G0 F12000 X165.25 Y159.49
G1 F2400 X174.77 Y149.97 E749.73554
G0 F12000 X174.77 Y150.53
G1 F2400 X165.25 Y160.05 E750.18226
G0 F12000 X165.56 Y160.31
G1 F2400 X174.77 Y151.09 E750.61474
G0 F12000 X174.77 Y151.66
G1 F2400 X165.92 Y160.51 E751.03005
G0 F12000 X166.29 Y160.71
G1 F2400 X174.77 Y152.22 E751.42820
G0 F12000 X174.77 Y152.79
G1 F2400 X166.76 Y160.79 E751.80393
G0 F12000 X167.33 Y160.79
G1 F2400 X174.77 Y153.35 E752.15315
G0 F12000 X174.77 Y153.91
G1 F2400 X167.90 Y160.79 E752.47584
G0 F12000 X168.46 Y160.79
G1 F2400 X174.77 Y154.48 E752.77200
G0 F12000 X174.77 Y155.04
G1 F2400 X169.03 Y160.79 E753.04160
G0 F12000 X169.59 Y160.79
G1 F2400 X174.77 Y155.61 E753.28468
G0 F12000 X174.77 Y156.17
G1 F2400 X170.16 Y160.79 E753.50126
G0 F12000 X170.72 Y160.79
G1 F2400 X174.77 Y156.74 E753.69129
G0 F12000 X174.77 Y157.30
G1 F2400 X171.29 Y160.79 E753.85475
G0 F12000 X171.85 Y160.79
G1 F2400 X174.77 Y157.87 E753.99171
G0 F12000 X174.77 Y158.43
G1 F2400 X172.42 Y160.78 E754.10211
G0 F12000 X172.98 Y160.78
G1 F2400 X174.77 Y159.00 E754.18598
G0 F12000 X174.77 Y159.56
G1 F2400 X173.55 Y160.78 E754.24339
G0 F12000 X165.25 Y145.94
G1 F2400 X165.52 Y145.67 E754.25608
;LAYER:2
G0 F12000 X165.99 Y145.69 Z0.70
;TYPE:WALL-INNER
G1 F2400 X168.21 Y142.96 E754.37284
G1 X168.41 Y142.74 E754.38285
G1 X168.50 Y142.67 E754.38652
G1 X168.60 Y142.61 E754.39051
G1 X168.69 Y142.59 E754.39355
G1 X171.46 Y142.58 E754.48518
G1 X171.64 Y142.59 E754.49137
G1 X171.77 Y142.62 E754.49579
G1 X171.85 Y142.67 E754.49893
G1 X171.94 Y142.73 E754.50248
G1 X173.42 Y144.56 E754.58047
G1 X173.90 Y145.15 E754.60573
G1 X174.42 Y145.71 E754.63104
G1 X174.68 Y145.98 E754.64371
G1 X174.77 Y146.10 E754.64853
G1 X174.86 Y146.25 E754.65429
G1 X174.90 Y146.41 E754.65965
G1 X174.91 Y146.51 E754.66333
G1 X174.91 Y148.96 E754.74458
G1 X174.91 Y149.00 E754.74587
G1 X174.91 Y149.06 E754.74777
G1 X174.91 Y149.11 E754.74943
G1 X174.91 Y152.12 E754.84919
G1 X174.92 Y157.92 E755.04165
G1 X174.91 Y158.93 E755.07529
G1 X174.91 Y158.98 E755.07695
G1 X174.91 Y159.84 E755.10542
G1 X174.90 Y159.98 E755.11006
G1 X174.85 Y160.14 E755.11567
G1 X174.66 Y160.40 E755.12626
G1 X174.29 Y160.73 E755.14286
G1 X174.01 Y160.90 E755.15341
G1 X173.92 Y160.92 E755.15652
G1 X166.60 Y160.94 E755.39938
G1 X166.42 Y160.92 E755.40544
G1 X166.31 Y160.88 E755.40945
G1 X165.11 Y160.23 E755.45459
G1 X165.11 Y145.38 E755.94720
G1 X165.99 Y145.69 E755.97797
G0 F12000 X165.85 Y145.22
G1 F2400 X167.90 Y142.70 E756.08563
G1 X168.14 Y142.44 E756.09739
G1 X168.28 Y142.33 E756.10334
G1 X168.46 Y142.24 E756.10985
G1 X168.62 Y142.20 E756.11531
G1 X171.46 Y142.18 E756.20960
G1 X171.72 Y142.19 E756.21819
G1 X171.92 Y142.25 E756.22526
G1 X172.07 Y142.33 E756.23075
G1 X172.22 Y142.45 E756.23704
G1 X173.72 Y144.31 E756.31652
G1 X174.20 Y144.88 E756.34140
G1 X174.71 Y145.44 E756.36621
G1 X174.99 Y145.72 E756.37947
G1 X175.11 Y145.88 E756.38602
G1 X175.22 Y146.07 E756.39323
G1 X175.26 Y146.18 E756.39709
G1 X175.31 Y146.49 E756.40763
G1 X175.31 Y148.99 E756.49044
G1 X175.31 Y149.01 E756.49130
G1 X175.31 Y149.04 E756.49240
G1 X175.31 Y149.11 E756.49465
G1 X175.31 Y157.92 E756.78688
G1 X175.31 Y158.94 E756.82085
G1 X175.31 Y158.99 E756.82228
G1 X175.31 Y159.86 E756.85137
G1 X175.29 Y160.05 E756.85769
G1 X175.26 Y160.18 E756.86195
G1 X175.20 Y160.32 E756.86699
G1 X174.95 Y160.68 E756.88147
G1 X174.67 Y160.94 E756.89443
G1 X174.30 Y161.20 E756.90932
G1 X174.16 Y161.27 E756.91455
G1 X174.00 Y161.32 E756.92017
G1 X166.59 Y161.33 E757.16575
G1 X166.54 Y161.33 E757.16738
G1 X166.34 Y161.31 E757.17436
G1 X166.15 Y161.25 E757.18078
G1 X165.07 Y160.66 E757.22175
G1 X165.06 Y170.91 E757.56198
G1 X129.69 Y170.91 E758.73559
G1 X129.69 Y134.09 E759.95730
G1 X165.06 Y134.09 E761.13090
G1 X165.06 Y144.94 E761.49084
G1 X165.85 Y145.22 E761.51886
G0 F12000 X165.09 Y144.91
G0 X164.71 Y134.40
G1 F2400 X130.03 Y134.40 E762.66961
G1 X130.03 Y170.60 E763.87048
G1 X164.71 Y170.60 E765.02123
G1 X164.71 Y134.40 E766.22210
G0 F12000 X164.31 Y134.80
;TYPE:WALL-OUTER
G1 F2400 X130.43 Y134.80 E767.34637
G1 X130.43 Y170.20 E768.52077
G1 X164.31 Y170.20 E769.64504
G1 X164.31 Y134.80 E770.81944
G0 F12000 X164.31 Y134.50
G0 X165.16 Y133.90
G0 X165.46 Y133.69
G1 F2400 X165.46 Y144.66 E771.18325
G1 X165.72 Y144.75 E771.19259
G1 X167.60 Y142.44 E771.29130
G1 X167.87 Y142.14 E771.30468
G1 X168.07 Y141.99 E771.31296
G1 X168.31 Y141.87 E771.32188
G1 X168.54 Y141.80 E771.32990
G1 X168.78 Y141.78 E771.33783
G1 X171.46 Y141.78 E771.42681
G1 X171.57 Y141.78 E771.43046
G1 X171.79 Y141.80 E771.43780
G1 X172.07 Y141.88 E771.44737
G1 X172.28 Y141.99 E771.45528
G1 X172.50 Y142.16 E771.46455
G1 X174.03 Y144.06 E771.54537
G1 X174.50 Y144.62 E771.56980
G1 X175.00 Y145.16 E771.59417
G1 X175.29 Y145.46 E771.60787
G1 X175.44 Y145.65 E771.61587
G1 X175.58 Y145.90 E771.62533
G1 X175.65 Y146.07 E771.63144
G1 X175.69 Y146.27 E771.63838
G1 X175.71 Y146.47 E771.64509
G1 X175.71 Y149.01 E771.72922
G1 X175.71 Y149.12 E771.73271
G1 X175.71 Y157.92 E772.02486
G1 X175.71 Y158.96 E772.05920
G1 X175.71 Y158.99 E772.06040
G1 X175.71 Y159.86 E772.08929
G1 X175.71 Y159.88 E772.08999
G1 X175.64 Y160.30 E772.10406
G1 X175.56 Y160.49 E772.11083
G1 X175.48 Y160.64 E772.11641
G1 X175.25 Y160.94 E772.12917
G1 X174.92 Y161.25 E772.14417
G1 X174.49 Y161.55 E772.16148
G1 X174.31 Y161.64 E772.16826
G1 X174.07 Y161.71 E772.17645
G1 X173.82 Y161.73 E772.18468
G1 X166.58 Y161.73 E772.42491
G1 X166.25 Y161.70 E772.43601
G1 X165.99 Y161.62 E772.44496
G1 X165.47 Y161.33 E772.46489
G1 X165.46 Y171.31 E772.79603
G1 X129.29 Y171.31 E773.99611
G1 X129.29 Y133.69 E775.24429
G1 X165.46 Y133.69 E776.44437
G0 F12000 X165.16 Y133.90
G0 X165.09 Y144.91
G0 X165.84 Y145.18
G0 X168.51 Y142.84
;TYPE:FILL
G1 F2400 X174.77 Y149.10 E776.73815
G0 F12000 X174.77 Y148.53
G1 F2400 X168.97 Y142.73 E777.01059
G0 F12000 X169.53 Y142.72
G1 F2400 X174.77 Y147.97 E777.25668
G0 F12000 X174.77 Y147.41
G1 F2400 X170.09 Y142.72 E777.47650
G0 F12000 X170.65 Y142.72
G1 F2400 X174.77 Y146.84 E777.66995
G0 F12000 X174.60 Y146.10
G1 F2400 X171.21 Y142.72 E777.82891
G0 F12000 X168.24 Y143.13
G1 F2400 X174.77 Y149.66 E778.13522
G0 F12000 X174.77 Y150.23
G1 F2400 X167.99 Y143.44 E778.45343
G0 F12000 X167.74 Y143.76
G1 F2400 X174.77 Y150.79 E778.78346
G0 F12000 X174.77 Y151.35
G1 F2400 X167.48 Y144.07 E779.12539
G0 F12000 X167.23 Y144.38
G1 F2400 X174.77 Y151.92 E779.47916
G0 F12000 X174.77 Y152.48
G1 F2400 X166.98 Y144.69 E779.84480
G0 F12000 X166.72 Y145.00
G1 F2400 X174.77 Y153.05 E780.22231
G0 F12000 X174.77 Y153.61
G1 F2400 X166.47 Y145.31 E780.61167
G0 F12000 X166.22 Y145.62
G1 F2400 X174.77 Y154.18 E781.01293
G0 F12000 X174.77 Y154.74
G1 F2400 X165.80 Y145.77 E781.43365
G0 F12000 X165.25 Y145.78
G1 F2400 X174.77 Y155.30 E781.88028
G0 F12000 X174.77 Y155.87
G1 F2400 X165.25 Y146.35 E782.32690
G0 F12000 X165.25 Y146.91
G1 F2400 X174.77 Y156.43 E782.77353
G0 F12000 X174.77 Y157.00
G1 F2400 X165.25 Y147.48 E783.22015
G0 F12000 X165.25 Y148.04
G1 F2400 X174.77 Y157.56 E783.66678
G0 F12000 X174.77 Y158.13
G1 F2400 X165.25 Y148.61 E784.11343
G0 F12000 X165.25 Y149.17
G1 F2400 X174.77 Y158.69 E784.56005
G0 F12000 X174.77 Y159.25
G1 F2400 X165.25 Y149.74 E785.00673
G0 F12000 X165.25 Y150.30
G1 F2400 X174.77 Y159.82 E785.45344
G0 F12000 X174.61 Y160.22
G1 F2400 X165.25 Y150.86 E785.89266
G0 F12000 X165.25 Y151.43
G1 F2400 X174.33 Y160.50 E786.31854
G0 F12000 X174.00 Y160.74
G1 F2400 X165.25 Y151.99 E786.72895
G0 F12000 X165.25 Y152.56
G1 F2400 X173.48 Y160.78 E787.11490
G0 F12000 X172.91 Y160.78
G1 F2400 X165.25 Y153.12 E787.47440
G0 F12000 X165.25 Y153.69
G1 F2400 X172.35 Y160.78 E787.80748
G0 F12000 X171.79 Y160.78
G1 F2400 X165.25 Y154.25 E788.11415
G0 F12000 X165.25 Y154.81
G1 F2400 X171.22 Y160.79 E788.39437
G0 F12000 X170.66 Y160.79
G1 F2400 X165.25 Y155.38 E788.64816
G0 F12000 X165.25 Y155.94
G1 F2400 X170.10 Y160.79 E788.87553
G0 F12000 X169.53 Y160.79
G1 F2400 X165.25 Y156.51 E789.07649
G0 F12000 X165.25 Y157.07
G1 F2400 X168.97 Y160.79 E789.25098
G0 F12000 X168.41 Y160.79
G1 F2400 X165.25 Y157.63 E789.39906
G0 F12000 X165.25 Y158.20
G1 F2400 X167.84 Y160.79 E789.52072
G0 F12000 X167.28 Y160.79
G1 F2400 X165.25 Y158.76 E789.61596
G0 F12000 X165.25 Y159.33
G1 F2400 X166.72 Y160.79 E789.68475
G0 F12000 X165.81 Y160.45
G1 F2400 X165.25 Y159.89 E789.71088
;LAYER:3
G0 F12000 X165.11 Y160.23 Z0.90
;TYPE:WALL-INNER
G1 F2400 X165.11 Y145.38 E790.20346
G1 X165.99 Y145.69 E790.23423
G1 X168.21 Y142.96 E790.35107
G1 X168.40 Y142.75 E790.36051
G1 X168.50 Y142.67 E790.36468
G1 X168.60 Y142.61 E790.36867
G1 X168.69 Y142.59 E790.37170
G1 X171.43 Y142.58 E790.46248
G1 X171.64 Y142.59 E790.46939
G1 X171.77 Y142.63 E790.47405
G1 X171.85 Y142.67 E790.47708
G1 X171.94 Y142.73 E790.48063
G1 X173.40 Y144.54 E790.55777
G1 X173.74 Y144.95 E790.57535
G1 X174.41 Y145.70 E790.60871
G1 X174.75 Y146.06 E790.62512
G1 X174.88 Y146.29 E790.63393
G1 X174.91 Y146.51 E790.64140
G1 X174.91 Y148.95 E790.72235
G1 X174.91 Y148.99 E790.72355
G1 X174.91 Y149.03 E790.72501
G1 X174.91 Y149.11 E790.72757
G1 X174.91 Y152.08 E790.82620
G1 X174.92 Y157.90 E791.01929
G1 X174.91 Y158.93 E791.05326
G1 X174.91 Y158.99 E791.05516
G1 X174.91 Y159.85 E791.08375
G1 X174.90 Y159.96 E791.08766
G1 X174.88 Y160.06 E791.09099
G1 X174.75 Y160.30 E791.09995
G1 X174.55 Y160.51 E791.10942
G1 X174.23 Y160.77 E791.12322
G1 X173.99 Y160.90 E791.13230
G1 X173.92 Y160.92 E791.13468
G1 X166.61 Y160.94 E791.37711
G1 X166.57 Y160.93 E791.37850
G1 X166.41 Y160.92 E791.38374
G1 X166.31 Y160.88 E791.38734
G1 X165.11 Y160.23 E791.43267
G0 F12000 X165.06 Y160.65
G1 F2400 X165.06 Y170.91 E791.77307
G1 X129.69 Y170.91 E792.94667
G1 X129.69 Y134.09 E794.16838
G1 X165.06 Y134.09 E795.34198
G1 X165.06 Y144.94 E795.70192
G1 X165.85 Y145.22 E795.72995
G1 X167.90 Y142.71 E795.83737
G1 X168.13 Y142.44 E795.84917
G1 X168.28 Y142.33 E795.85532
G1 X168.46 Y142.24 E795.86184
G1 X168.62 Y142.20 E795.86733
G1 X171.43 Y142.18 E795.96072
G1 X171.71 Y142.19 E795.97000
G1 X171.92 Y142.26 E795.97732
G1 X172.07 Y142.33 E795.98272
G1 X172.22 Y142.45 E795.98901
G1 X173.71 Y144.29 E796.06766
G1 X174.04 Y144.69 E796.08493
G1 X174.70 Y145.43 E796.11780
G1 X175.07 Y145.83 E796.13595
G1 X175.22 Y146.08 E796.14556
G1 X175.26 Y146.17 E796.14886
G1 X175.31 Y146.49 E796.15957
G1 X175.31 Y148.96 E796.24158
G1 X175.31 Y148.99 E796.24265
G1 X175.31 Y149.03 E796.24378
G1 X175.31 Y149.11 E796.24663
G1 X175.31 Y157.91 E796.53836
G1 X175.31 Y158.94 E796.57256
G1 X175.31 Y158.99 E796.57429
G1 X175.31 Y159.86 E796.60315
G1 X175.31 Y159.87 E796.60352
G1 X175.29 Y160.03 E796.60903
G1 X175.25 Y160.20 E796.61461
G1 X175.13 Y160.45 E796.62397
G1 X175.06 Y160.55 E796.62779
G1 X174.83 Y160.80 E796.63936
G1 X174.45 Y161.10 E796.65537
G1 X174.15 Y161.27 E796.66676
G1 X173.99 Y161.32 E796.67222
G1 X166.60 Y161.33 E796.91727
G1 X166.54 Y161.33 E796.91942
G1 X166.33 Y161.31 E796.92637
G1 X166.15 Y161.25 E796.93265
G1 X165.06 Y160.65 E796.97399
G0 F12000 X164.71 Y170.60
G1 F2400 X164.71 Y134.40 E798.17486
G1 X130.03 Y134.40 E799.32561
G1 X130.03 Y170.60 E800.52648
G1 X164.71 Y170.60 E801.67722
G0 F12000 X164.31 Y170.20
;TYPE:WALL-OUTER
G1 F2400 X164.31 Y134.80 E802.85162
G1 X130.43 Y134.80 E803.97589
G1 X130.43 Y170.20 E805.15029
G1 X164.31 Y170.20 E806.27456
G0 F12000 X164.31 Y170.50
G0 X165.16 Y171.10
G0 X165.46 Y171.31
G1 F2400 X129.29 Y171.31 E807.47464
G1 X129.29 Y133.69 E808.72282
G1 X165.46 Y133.69 E809.92290
G1 X165.46 Y144.66 E810.28675
G1 X165.72 Y144.75 E810.29608
G1 X167.59 Y142.46 E810.39415
G1 X167.67 Y142.35 E810.39873
G1 X167.87 Y142.14 E810.40818
G1 X168.07 Y141.99 E810.41646
G1 X168.31 Y141.87 E810.42537
G1 X168.54 Y141.80 E810.43343
G1 X168.78 Y141.78 E810.44126
G1 X171.44 Y141.78 E810.52945
G1 X171.57 Y141.78 E810.53396
G1 X171.79 Y141.80 E810.54123
G1 X172.07 Y141.88 E810.55082
G1 X172.28 Y141.99 E810.55878
G1 X172.50 Y142.16 E810.56805
G1 X174.02 Y144.04 E810.64806
G1 X174.34 Y144.43 E810.66498
G1 X175.00 Y145.16 E810.69733
G1 X175.40 Y145.61 E810.71756
G1 X175.58 Y145.90 E810.72878
G1 X175.64 Y146.06 E810.73477
G1 X175.69 Y146.27 E810.74184
G1 X175.71 Y146.47 E810.74848
G1 X175.71 Y148.97 E810.83136
G1 X175.71 Y149.00 E810.83222
G1 X175.71 Y149.02 E810.83295
G1 X175.71 Y149.12 E810.83617
G1 X175.71 Y157.91 E811.12786
G1 X175.71 Y158.95 E811.16234
G1 X175.71 Y158.99 E811.16390
G1 X175.71 Y159.85 E811.19246
G1 X175.71 Y159.89 E811.19366
G1 X175.69 Y160.11 E811.20091
G1 X175.63 Y160.34 E811.20888
G1 X175.48 Y160.64 E811.22002
G1 X175.37 Y160.80 E811.22623
G1 X175.10 Y161.09 E811.23964
G1 X174.67 Y161.44 E811.25782
G1 X174.30 Y161.64 E811.27203
G1 X174.07 Y161.71 E811.27988
G1 X173.82 Y161.73 E811.28817
G1 X166.60 Y161.73 E811.52791
G1 X166.52 Y161.73 E811.53047
G1 X166.24 Y161.70 E811.53968
G1 X165.99 Y161.62 E811.54838
G1 X165.46 Y161.32 E811.56864
G1 X165.46 Y171.31 E811.89995
G0 F12000 X165.16 Y171.10
G0 X165.16 Y160.82
G0 X166.76 Y160.79
;TYPE:FILL
G1 F2400 X174.77 Y152.79 E812.27561
G0 F12000 X174.77 Y153.35
G1 F2400 X167.33 Y160.79 E812.62476
G0 F12000 X167.90 Y160.79
G1 F2400 X174.77 Y153.92 E812.94738
G0 F12000 X174.77 Y154.48
G1 F2400 X168.46 Y160.79 E813.24349
G0 F12000 X169.03 Y160.79
G1 F2400 X174.77 Y155.04 E813.51308
G0 F12000 X174.77 Y155.61
G1 F2400 X169.59 Y160.79 E813.75615
G0 F12000 X170.16 Y160.79
G1 F2400 X174.77 Y156.17 E813.97273
G0 F12000 X174.77 Y156.74
G1 F2400 X170.72 Y160.79 E814.16275
G0 F12000 X171.29 Y160.79
G1 F2400 X174.77 Y157.30 E814.32627
G0 F12000 X174.77 Y157.87
G1 F2400 X171.85 Y160.79 E814.46329
G0 F12000 X172.42 Y160.78
G1 F2400 X174.77 Y158.43 E814.57374
G0 F12000 X174.77 Y158.99
G1 F2400 X172.98 Y160.78 E814.65770
G0 F12000 X173.55 Y160.78
G1 F2400 X174.77 Y159.56 E814.71513
G0 F12000 X174.77 Y152.22
G1 F2400 X166.29 Y160.71 E815.11324
G0 F12000 X165.92 Y160.51
G1 F2400 X174.77 Y151.66 E815.52846
G0 F12000 X174.77 Y151.09
G1 F2400 X165.56 Y160.31 E815.96084
G0 F12000 X165.25 Y160.05
G1 F2400 X174.77 Y150.53 E816.40747
G0 F12000 X174.77 Y149.97
G1 F2400 X165.25 Y159.49 E816.85409
G0 F12000 X165.25 Y158.92
G1 F2400 X174.77 Y149.40 E817.30072
G0 F12000 X174.77 Y148.84
G1 F2400 X165.25 Y158.36 E817.74734
G0 F12000 X165.25 Y157.79
G1 F2400 X174.77 Y148.27 E818.19402
G0 F12000 X174.77 Y147.71
G1 F2400 X165.25 Y157.23 E818.64071
G0 F12000 X165.25 Y156.66
G1 F2400 X174.77 Y147.14 E819.08741
G0 F12000 X174.77 Y146.58
G1 F2400 X165.25 Y156.10 E819.53413
G0 F12000 X165.25 Y155.54
G1 F2400 X174.64 Y146.15 E819.97442
G0 F12000 X174.37 Y145.85
G1 F2400 X165.25 Y154.97 E820.40216
G0 F12000 X165.25 Y154.41
G1 F2400 X174.10 Y145.56 E820.81735
G0 F12000 X173.83 Y145.26
G1 F2400 X165.25 Y153.84 E821.21991
G0 F12000 X165.25 Y153.28
G1 F2400 X173.57 Y144.96 E821.61007
G0 F12000 X173.31 Y144.65
G1 F2400 X165.25 Y152.72 E821.98836
G0 F12000 X165.25 Y152.15
G1 F2400 X173.06 Y144.34 E822.35475
G0 F12000 X172.81 Y144.03
G1 F2400 X165.25 Y151.59 E822.70932
G0 F12000 X165.25 Y151.02
G1 F2400 X172.56 Y143.72 E823.05200
G0 F12000 X172.30 Y143.41
G1 F2400 X165.25 Y150.46 E823.38280
G0 F12000 X165.25 Y149.89
G1 F2400 X172.05 Y143.09 E823.70176
G0 F12000 X171.79 Y142.79
G1 F2400 X165.25 Y149.33 E824.00838
G0 F12000 X165.25 Y148.76
G1 F2400 X171.30 Y142.72 E824.29219
G0 F12000 X170.73 Y142.72
G1 F2400 X165.25 Y148.20 E824.54943
G0 F12000 X165.25 Y147.64
G1 F2400 X170.17 Y142.72 E824.78004
G0 F12000 X169.60 Y142.72
G1 F2400 X165.25 Y147.07 E824.98404
G0 F12000 X165.25 Y146.51
G1 F2400 X165.94 Y145.82 E825.01630
G0 F12000 X165.52 Y145.67
G1 F2400 X165.25 Y145.94 E825.02901
G0 F12000 X166.58 Y145.18
G1 F2400 X169.03 Y142.73 E825.14394
;LAYER:4
G0 F12000 X168.69 Y142.59 Z1.10
;TYPE:WALL-INNER
G1 F2400 X171.40 Y142.58 E825.23402
G1 X171.64 Y142.59 E825.24196
G1 X171.77 Y142.62 E825.24635
G1 X171.94 Y142.73 E825.25295
G1 X173.38 Y144.52 E825.32930
G1 X173.72 Y144.94 E825.34707
G1 X174.40 Y145.69 E825.38074
G1 X174.74 Y146.05 E825.39710
G1 X174.88 Y146.29 E825.40625
G1 X174.91 Y146.51 E825.41375
G1 X174.91 Y148.92 E825.49374
G1 X174.91 Y148.97 E825.49524
G1 X174.91 Y149.01 E825.49667
G1 X174.91 Y149.11 E825.50002
G1 X174.91 Y152.05 E825.59749
G1 X174.92 Y157.89 E825.79121
G1 X174.91 Y158.92 E825.82545
G1 X174.91 Y158.99 E825.82764
G1 X174.91 Y159.85 E825.85614
G1 X174.90 Y159.96 E825.86005
G1 X174.86 Y160.12 E825.86536
G1 X174.73 Y160.32 E825.87322
G1 X174.34 Y160.69 E825.89096
G1 X174.10 Y160.85 E825.90065
G1 X174.02 Y160.89 E825.90378
G1 X173.92 Y160.92 E825.90717
G1 X166.62 Y160.94 E826.14916
G1 X166.57 Y160.93 E826.15095
G1 X166.41 Y160.92 E826.15616
G1 X166.31 Y160.88 E826.15976
G1 X165.11 Y160.23 E826.20509
G1 X165.11 Y145.38 E826.69767
G1 X165.99 Y145.69 E826.72844
G1 X168.19 Y142.98 E826.84421
G1 X168.40 Y142.75 E826.85472
G1 X168.50 Y142.67 E826.85888
G1 X168.60 Y142.61 E826.86288
G1 X168.69 Y142.59 E826.86574
G0 F12000 X168.62 Y142.20
G1 F2400 X171.41 Y142.18 E826.95827
G1 X171.72 Y142.19 E826.96874
G1 X171.92 Y142.25 E826.97559
G1 X172.07 Y142.33 E826.98115
G1 X172.22 Y142.45 E826.98744
G1 X173.69 Y144.27 E827.06526
G1 X174.03 Y144.68 E827.08287
G1 X174.70 Y145.42 E827.11588
G1 X175.05 Y145.81 E827.13339
G1 X175.25 Y146.14 E827.14614
G1 X175.26 Y146.17 E827.14710
G1 X175.31 Y146.49 E827.15795
G1 X175.31 Y148.94 E827.23926
G1 X175.31 Y148.97 E827.24033
G1 X175.31 Y149.00 E827.24139
G1 X175.31 Y149.11 E827.24507
G1 X175.31 Y157.89 E827.53630
G1 X175.31 Y158.93 E827.57071
G1 X175.31 Y158.99 E827.57276
G1 X175.31 Y159.85 E827.60116
G1 X175.31 Y159.87 E827.60189
G1 X175.29 Y160.03 E827.60744
G1 X175.25 Y160.22 E827.61373
G1 X175.21 Y160.30 E827.61660
G1 X175.00 Y160.62 E827.62935
G1 X174.96 Y160.67 E827.63147
G1 X174.59 Y161.00 E827.64818
G1 X174.30 Y161.20 E827.65961
G1 X174.16 Y161.27 E827.66478
G1 X173.99 Y161.32 E827.67055
G1 X166.62 Y161.33 E827.91530
G1 X166.54 Y161.33 E827.91785
G1 X166.33 Y161.31 E827.92479
G1 X166.15 Y161.25 E827.93108
G1 X165.06 Y160.65 E827.97241
G1 X165.06 Y170.91 E828.31281
G1 X129.69 Y170.91 E829.48641
G1 X129.69 Y134.09 E830.70812
G1 X165.06 Y134.09 E831.88172
G1 X165.06 Y144.94 E832.24166
G1 X165.85 Y145.22 E832.26969
G1 X167.88 Y142.73 E832.37606
G1 X167.98 Y142.61 E832.38143
G1 X168.13 Y142.44 E832.38892
G1 X168.28 Y142.33 E832.39508
G1 X168.46 Y142.24 E832.40159
G1 X168.62 Y142.20 E832.40708
G0 F12000 X165.84 Y145.18
G0 X165.09 Y144.91
G0 X164.71 Y134.40
G1 F2400 X130.03 Y134.40 E833.55783
G1 X130.03 Y170.60 E834.75870
G1 X164.71 Y170.60 E835.90944
G1 X164.71 Y134.40 E837.11032
G0 F12000 X164.31 Y134.80
;TYPE:WALL-OUTER
G1 F2400 X130.43 Y134.80 E838.23459
G1 X130.43 Y170.20 E839.40899
G1 X164.31 Y170.20 E840.53325
G1 X164.31 Y134.80 E841.70765
G0 F12000 X164.31 Y134.50
G0 X165.16 Y133.90
G0 X165.46 Y133.69
G1 F2400 X165.46 Y144.66 E842.07151
G1 X165.72 Y144.75 E842.08083
G1 X167.57 Y142.48 E842.17784
G1 X167.67 Y142.35 E842.18348
G1 X167.87 Y142.14 E842.19294
G1 X168.07 Y141.99 E842.20121
G1 X168.31 Y141.87 E842.21013
G1 X168.54 Y141.80 E842.21815
G1 X168.78 Y141.78 E842.22628
G1 X171.41 Y141.78 E842.31330
G1 X171.57 Y141.78 E842.31875
G1 X171.79 Y141.80 E842.32618
G1 X172.07 Y141.88 E842.33566
G1 X172.28 Y141.99 E842.34354
G1 X172.50 Y142.16 E842.35281
G1 X174.00 Y144.02 E842.43202
G1 X174.34 Y144.42 E842.44949
G1 X175.37 Y145.56 E842.50026
G1 X175.50 Y145.75 E842.50796
G1 X175.64 Y146.06 E842.51925
G1 X175.69 Y146.27 E842.52657
