;-- START GCODE --
;Sliced for Type A Machines Series 1
;Sliced at: Sat 20-08-2016 13:45:41
;Basic settings: Layer height: 0.1 Walls: 1.4 Fill: 50
;Print Speed: 10 Support: 0
;Retraction Speed: 40 Retraction Distance: 1.2
;Print time: #P_TIME#
;Filament used: #F_AMNT#m #F_WGHT#g
;Filament cost: #F_COST#
M106 S255	 ;start with the fan on
G21        ;metric values
G90        ;absolute positioning
M106 S255    ;start with the fan on
G28     ;move to endstops
G29		;allows for auto-levelling
G1 X150 Y5  Z15.0 F12000 ;center and move the platform down 15mm
M109 S220 ;Heat To temp
G92 E0                  ;zero the extruded length
G1 F200 E30              ;extrude 30mm of feed stock
G92 E0                  ;zero the extruded length again
G1 X175 Y25  Z0 F12000 ;remove bugger
G1 X220 F12000 ;remove bugger
G1 X150 Y150  Z15 F12000 ;recenter and begin
G1 F12000

;Layer count: 37
;LAYER:0
M106 S255
G0 F12000 X25.26 Y21.11 Z0.30
;TYPE:SKIRT
G1 F600 X26.49 Y19.61 E0.11257
G1 X27.35 Y18.56 E0.19189
G1 X28.90 Y17.29 E0.30801
G1 X29.97 Y16.41 E0.38881
G1 X31.69 Y15.49 E0.50210
G1 X32.90 Y14.84 E0.58174
G1 X34.82 Y14.26 E0.69829
G1 X36.11 Y13.86 E0.77700
G1 X38.08 Y13.67 E0.89206
G1 X39.44 Y13.53 E0.97117
G1 X41.45 Y13.73 E1.08886
G1 X42.82 Y13.87 E1.16896
G1 X44.69 Y14.43 E1.28225
G1 X46.03 Y14.84 E1.36381
G1 X47.78 Y15.78 E1.47900
G1 X47.81 Y15.79 E1.48098
G1 X55.05 Y15.79 E1.90178
G1 X55.05 Y23.67 E2.35926
G1 X55.27 Y24.07 E2.38576
G1 X55.29 Y24.16 E2.39117
G1 X55.45 Y24.31 E2.40399
G1 X55.45 Y24.67 E2.42486
G1 X55.84 Y25.95 E2.50247
G1 X56.25 Y27.30 E2.58452
G1 X56.44 Y29.28 E2.70009
G1 X56.58 Y30.61 E2.77762
G1 X56.38 Y32.62 E2.89529
G1 X56.24 Y34.01 E2.97645
G1 X55.67 Y35.87 E3.08973
G1 X55.45 Y36.61 E3.13428
G1 X55.45 Y36.71 E3.14015
G1 X55.40 Y36.75 E3.14377
G1 X55.27 Y37.20 E3.17100
G1 X55.25 Y37.24 E3.17336
G1 X55.25 Y45.23 E3.63770
G1 X48.31 Y45.23 E4.04118
G1 X47.23 Y45.80 E4.11193
G1 X46.04 Y46.44 E4.19058
G1 X45.86 Y46.50 E4.20176
G1 X45.73 Y46.62 E4.21220
G1 X45.44 Y46.62 E4.22923
G1 X44.16 Y47.01 E4.30684
G1 X42.81 Y47.42 E4.38889
G1 X40.83 Y47.62 E4.50445
G1 X39.50 Y47.75 E4.58199
G1 X37.49 Y47.56 E4.69966
G1 X36.10 Y47.41 E4.78082
G1 X34.23 Y46.85 E4.89410
G1 X32.91 Y46.45 E4.97444
G1 X31.16 Y45.51 E5.08963
G1 X29.93 Y44.85 E5.17090
G1 X29.13 Y44.19 E5.23107
G1 X24.52 Y42.65 E5.51384
G1 X24.52 Y38.80 E5.73802
G1 X24.31 Y38.41 E5.76358
G1 X24.18 Y38.17 E5.77911
G1 X23.72 Y37.71 E5.81741
G1 X23.72 Y37.51 E5.82903
G1 X23.52 Y37.31 E5.84547
G1 X23.52 Y37.11 E5.85710
G1 X23.32 Y36.91 E5.87354
G1 X23.32 Y36.07 E5.92242
G1 X23.09 Y35.31 E5.96857
G1 X22.69 Y34.00 E6.04825
G1 X22.49 Y32.03 E6.16331
G1 X22.35 Y30.67 E6.24242
G1 X22.55 Y28.66 E6.36011
G1 X22.69 Y27.28 E6.44074
G1 X23.26 Y25.41 E6.55402
G1 X23.32 Y25.22 E6.56557
G1 X23.32 Y24.31 E6.61846
G1 X23.52 Y24.11 E6.63490
G1 X23.52 Y23.91 E6.64652
G1 X23.72 Y23.71 E6.66296
G1 X23.72 Y23.51 E6.67459
G1 X24.26 Y22.97 E6.71930
G1 X24.60 Y22.34 E6.76059
G1 X25.26 Y21.11 E6.84186
G0 F12000 X25.65 Y21.37
G1 F600 X26.85 Y19.91 E6.95183
G1 X27.68 Y18.89 E7.02854
G1 X29.19 Y17.65 E7.14193
G1 X30.23 Y16.80 E7.22009
G1 X31.91 Y15.90 E7.33073
G1 X33.08 Y15.27 E7.40771
G1 X34.95 Y14.71 E7.52154
G1 X36.20 Y14.32 E7.59764
G1 X38.07 Y14.14 E7.70674
G1 X39.44 Y14.00 E7.78650
G1 X41.41 Y14.19 E7.90138
G1 X42.73 Y14.33 E7.97886
G1 X44.55 Y14.88 E8.08953
G1 X45.85 Y15.28 E8.16837
G1 X47.56 Y16.19 E8.28083
G1 X47.69 Y16.26 E8.28962
G1 X54.58 Y16.26 E8.69020
G1 X54.58 Y23.79 E9.12757
G1 X54.83 Y24.25 E9.15810
G1 X54.88 Y24.40 E9.16746
G1 X54.98 Y24.50 E9.17592
G1 X54.98 Y24.74 E9.18976
G1 X55.39 Y26.09 E9.27127
G1 X55.79 Y27.39 E9.35058
G1 X55.97 Y29.25 E9.45920
G1 X56.11 Y30.61 E9.53843
G1 X55.92 Y32.57 E9.65335
G1 X55.78 Y33.92 E9.73177
G1 X55.23 Y35.74 E9.84248
G1 X54.84 Y37.02 E9.92040
G1 X54.78 Y37.12 E9.92692
G1 X54.78 Y44.76 E10.37092
G1 X48.19 Y44.76 E10.75412
G1 X47.01 Y45.39 E10.83160
G1 X47.01 Y45.39 E10.83166
G1 X45.86 Y46.01 E10.90778
G1 X45.61 Y46.08 E10.92284
G1 X45.54 Y46.16 E10.92901
G1 X45.37 Y46.16 E10.93900
G1 X43.99 Y46.58 E11.02228
G1 X42.72 Y46.97 E11.09983
G1 X40.86 Y47.15 E11.20844
G1 X39.50 Y47.29 E11.28768
G1 X37.53 Y47.09 E11.40260
G1 X36.19 Y46.96 E11.48101
G1 X34.37 Y46.40 E11.59172
G1 X33.09 Y46.01 E11.66940
G1 X31.39 Y45.10 E11.78183
G1 X30.20 Y44.46 E11.86045
G1 X29.36 Y43.78 E11.92305
G1 X24.98 Y42.32 E12.19130
G1 X24.98 Y38.68 E12.40275
G1 X24.72 Y38.19 E12.43505
G1 X24.72 Y38.19 E12.43511
G1 X24.56 Y37.89 E12.45466
G1 X24.18 Y37.52 E12.48582
G1 X24.18 Y37.31 E12.49744
G1 X23.98 Y37.12 E12.51388
G1 X23.98 Y36.91 E12.52550
G1 X23.78 Y36.72 E12.54194
G1 X23.78 Y36.00 E12.58373
G1 X23.53 Y35.17 E12.63378
G1 X23.15 Y33.90 E12.71085
G1 X22.96 Y32.04 E12.81995
G1 X22.82 Y30.67 E12.89971
G1 X23.02 Y28.70 E13.01459
G1 X23.15 Y27.37 E13.09254
G1 X23.70 Y25.55 E13.20325
G1 X23.78 Y25.29 E13.21893
G1 X23.78 Y24.50 E13.26450
G1 X23.98 Y24.30 E13.28094
G1 X23.98 Y24.11 E13.29256
G1 X24.18 Y23.91 E13.30900
G1 X24.18 Y23.70 E13.32062
G1 X24.64 Y23.25 E13.35802
G1 X25.01 Y22.56 E13.40335
G1 X25.65 Y21.37 E13.48196
G0 F12000 X26.04 Y21.63
G1 F600 X27.21 Y20.21 E13.58929
G1 X28.02 Y19.22 E13.66335
G1 X29.49 Y18.01 E13.77407
G1 X30.49 Y17.19 E13.84954
G1 X32.08 Y16.34 E13.95433
G1 X32.08 Y16.34 E13.95439
G1 X33.26 Y15.70 E14.03194
G1 X35.09 Y15.15 E14.14298
G1 X36.30 Y14.78 E14.21652
G1 X38.17 Y14.60 E14.32614
G1 X39.44 Y14.47 E14.40006
G1 X41.36 Y14.66 E14.51219
G1 X42.64 Y14.79 E14.58698
G1 X44.42 Y15.32 E14.69499
G1 X45.67 Y15.71 E14.77120
G1 X47.34 Y16.60 E14.88090
G1 X47.57 Y16.73 E14.89656
G1 X54.12 Y16.73 E15.27685
G1 X54.12 Y23.90 E15.69388
G1 X54.40 Y24.43 E15.72862
G1 X54.47 Y24.65 E15.74204
G1 X54.52 Y24.70 E15.74607
G1 X54.52 Y24.81 E15.75258
G1 X54.94 Y26.22 E15.83828
G1 X55.33 Y27.48 E15.91491
G1 X55.51 Y29.30 E16.02090
G1 X55.64 Y30.61 E16.09744
G1 X55.45 Y32.53 E16.20956
G1 X55.32 Y33.82 E16.28535
G1 X54.78 Y35.60 E16.39339
G1 X54.40 Y36.84 E16.46864
G1 X54.32 Y37.00 E16.47925
G1 X54.32 Y44.29 E16.90302
G1 X48.07 Y44.29 E17.26593
G1 X46.85 Y44.95 E17.34659
G1 X45.68 Y45.58 E17.42367
G1 X45.37 Y45.67 E17.44287
G1 X45.34 Y45.69 E17.44451
G1 X45.30 Y45.69 E17.44718
G1 X43.89 Y46.12 E17.53288
G1 X42.63 Y46.51 E17.60952
G1 X40.79 Y46.68 E17.71655
G1 X39.50 Y46.82 E17.79205
G1 X37.58 Y46.63 E17.90416
G1 X36.28 Y46.50 E17.97995
G1 X34.51 Y45.96 E18.08799
G1 X33.27 Y45.58 E18.16306
G1 X31.61 Y44.69 E18.27278
G1 X30.46 Y44.07 E18.34870
G1 X29.59 Y43.36 E18.41366
G1 X25.45 Y41.98 E18.66741
G1 X25.45 Y38.56 E18.86607
G1 X25.16 Y38.02 E18.90159
G1 X24.94 Y37.61 E18.92900
G1 X24.65 Y37.32 E18.95267
G1 X24.65 Y37.12 E18.96430
G1 X24.45 Y36.92 E18.98074
G1 X24.45 Y36.72 E18.99236
G1 X24.25 Y36.52 E19.00880
G1 X24.25 Y35.93 E19.04327
G1 X23.99 Y35.06 E19.09574
G1 X23.61 Y33.81 E19.17190
G1 X23.42 Y31.93 E19.28152
G1 X23.29 Y30.67 E19.35543
G1 X23.48 Y28.75 E19.46756
G1 X23.61 Y27.46 E19.54282
G1 X24.15 Y25.68 E19.65086
G1 X24.25 Y25.36 E19.67050
G1 X24.25 Y24.70 E19.70898
G1 X24.45 Y24.50 E19.72542
G1 X24.45 Y24.30 E19.73704
G1 X24.65 Y24.10 E19.75348
G1 X24.65 Y23.90 E19.76510
G1 X25.02 Y23.53 E19.79544
G1 X25.42 Y22.78 E19.84463
G1 X26.04 Y21.63 E19.92054
G0 F12000 X26.43 Y21.89
G1 F600 X27.57 Y20.50 E20.02527
G1 X28.35 Y19.55 E20.09677
G1 X29.78 Y18.37 E20.20468
G1 X30.75 Y17.58 E20.27750
G1 X32.31 Y16.75 E20.37985
G1 X33.44 Y16.14 E20.45461
G1 X35.22 Y15.60 E20.56293
G1 X36.39 Y15.24 E20.63385
G1 X38.17 Y15.07 E20.73775
G1 X39.44 Y14.94 E20.81207
G1 X41.31 Y15.12 E20.92141
G1 X42.55 Y15.25 E20.99357
G1 X44.28 Y15.77 E21.09896
G1 X45.49 Y16.14 E21.17243
G1 X47.12 Y17.01 E21.27946
G1 X47.45 Y17.19 E21.30185
G1 X53.65 Y17.19 E21.66198
G1 X53.65 Y24.02 E22.05878
G1 X53.97 Y24.61 E22.09763
G1 X54.50 Y26.36 E22.20385
G1 X54.87 Y27.57 E22.27776
G1 X55.04 Y29.34 E22.38124
G1 X55.17 Y30.61 E22.45509
G1 X54.99 Y32.48 E22.56441
G1 X54.86 Y33.73 E22.63750
G1 X54.34 Y35.47 E22.74288
G1 X53.97 Y36.66 E22.81550
G1 X53.85 Y36.89 E22.83032
G1 X53.85 Y43.83 E23.23369
G1 X47.96 Y43.83 E23.57626
G1 X46.57 Y44.56 E23.66732
G1 X45.50 Y45.15 E23.73822
G1 X43.75 Y45.67 E23.84444
G1 X42.54 Y46.05 E23.91835
G1 X40.70 Y46.23 E24.02579
G1 X39.50 Y46.35 E24.09568
G1 X37.63 Y46.17 E24.20499
G1 X36.38 Y46.04 E24.27809
G1 X34.64 Y45.51 E24.38346
G1 X33.45 Y45.15 E24.45585
G1 X31.82 Y44.28 E24.56295
G1 X30.72 Y43.68 E24.63613
G1 X29.82 Y42.95 E24.70352
G1 X25.92 Y41.65 E24.94276
G1 X25.92 Y38.45 E25.12863
G1 X25.54 Y37.75 E25.17455
G1 X25.32 Y37.33 E25.20243
G1 X25.12 Y37.13 E25.21887
G1 X25.12 Y36.96 E25.22875
G1 X25.08 Y36.89 E25.23312
G1 X24.92 Y36.73 E25.24660
G1 X24.92 Y36.53 E25.25822
G1 X24.72 Y36.33 E25.27466
G1 X24.72 Y35.86 E25.30198
G1 X24.43 Y34.90 E25.36010
G1 X24.07 Y33.72 E25.43193
G1 X23.88 Y31.89 E25.53887
G1 X23.76 Y30.67 E25.61016
G1 X23.94 Y28.80 E25.71949
G1 X24.07 Y27.55 E25.79212
G1 X24.60 Y25.82 E25.89750
G1 X24.72 Y25.43 E25.92114
G1 X24.72 Y24.89 E25.95247
G1 X24.92 Y24.69 E25.96891
G1 X24.92 Y24.49 E25.98053
G1 X25.12 Y24.29 E25.99697
G1 X25.12 Y24.09 E26.00860
G1 X25.40 Y23.81 E26.03169
G1 X25.83 Y23.00 E26.08492
G1 X26.43 Y21.89 E26.15810
G0 F12000 X26.82 Y22.16
G1 F600 X27.93 Y20.80 E26.26031
G1 X28.68 Y19.88 E26.32909
G1 X30.08 Y18.73 E26.43431
G1 X31.01 Y17.97 E26.50445
G1 X32.53 Y17.16 E26.60430
G1 X33.62 Y16.57 E26.67631
G1 X35.32 Y16.06 E26.77945
G1 X36.48 Y15.70 E26.85020
G1 X38.23 Y15.53 E26.95234
G1 X39.44 Y15.40 E27.02311
G1 X41.27 Y15.58 E27.12964
G1 X42.45 Y15.71 E27.19917
G1 X44.15 Y16.22 E27.30190
G1 X45.31 Y16.57 E27.37270
G1 X46.89 Y17.42 E27.47700
G1 X47.34 Y17.66 E27.50621
G1 X53.18 Y17.66 E27.84611
G1 X53.18 Y24.14 E28.22268
G1 X53.53 Y24.79 E28.26562
G1 X54.05 Y26.49 E28.36922
G1 X54.41 Y27.66 E28.44040
G1 X54.58 Y29.44 E28.54417
G1 X54.70 Y30.61 E28.61242
G1 X54.53 Y32.43 E28.71893
G1 X54.40 Y33.64 E28.78934
G1 X53.89 Y35.33 E28.89216
G1 X53.54 Y36.48 E28.96206
G1 X53.38 Y36.77 E28.98097
G1 X53.38 Y43.36 E29.36411
G1 X47.84 Y43.36 E29.68639
G1 X46.40 Y44.13 E29.78091
G1 X46.40 Y44.13 E29.78097
G1 X45.32 Y44.71 E29.85251
G1 X43.59 Y45.24 E29.95765
G1 X42.44 Y45.59 E30.02729
G1 X40.65 Y45.76 E30.13200
G1 X39.50 Y45.88 E30.19931
G1 X37.67 Y45.70 E30.30582
G1 X36.47 Y45.58 E30.37624
G1 X34.78 Y45.07 E30.47906
G1 X33.63 Y44.72 E30.54877
G1 X32.05 Y43.87 E30.65309
G1 X30.98 Y43.29 E30.72360
G1 X30.05 Y42.53 E30.79339
G1 X26.38 Y41.31 E31.01815
G1 X26.38 Y38.33 E31.19142
G1 X25.98 Y37.58 E31.24069
G1 X25.98 Y37.58 E31.24075
G1 X25.69 Y37.05 E31.27596
G1 X25.58 Y36.94 E31.28517
G1 X25.58 Y36.84 E31.29075
G1 X25.46 Y36.61 E31.30575
G1 X25.38 Y36.54 E31.31208
G1 X25.38 Y36.45 E31.31714
G1 X25.33 Y36.29 E31.32697
G1 X25.18 Y36.14 E31.33939
G1 X25.18 Y35.79 E31.35955
G1 X24.87 Y34.77 E31.42163
G1 X24.52 Y33.63 E31.49085
G1 X24.35 Y31.84 E31.59510
G1 X24.23 Y30.67 E31.66376
G1 X24.41 Y28.84 E31.77029
G1 X24.53 Y27.65 E31.84024
G1 X25.04 Y25.95 E31.94305
G1 X25.18 Y25.50 E31.97065
G1 X25.18 Y25.08 E31.99483
G1 X25.36 Y24.90 E32.00987
G1 X25.38 Y24.85 E32.01322
G1 X25.38 Y24.68 E32.02263
G1 X25.55 Y24.52 E32.03628
G1 X25.58 Y24.45 E32.04049
G1 X25.58 Y24.28 E32.05037
G1 X25.78 Y24.09 E32.06632
G1 X26.24 Y23.22 E32.12342
G1 X26.82 Y22.16 E32.19392
G0 F12000 X27.20 Y22.42
G1 F600 X28.29 Y21.09 E32.29349
G1 X29.01 Y20.21 E32.35966
G1 X30.37 Y19.09 E32.46212
G1 X31.27 Y18.36 E32.52957
G1 X32.79 Y17.55 E32.62976
G1 X33.80 Y17.00 E32.69623
G1 X35.45 Y16.50 E32.79670
G1 X36.57 Y16.16 E32.86471
G1 X38.26 Y15.99 E32.96352
G1 X38.26 Y15.99 E32.96358
G1 X39.44 Y15.87 E33.03241
G1 X41.22 Y16.05 E33.13614
G1 X42.36 Y16.16 E33.20304
G1 X44.01 Y16.66 E33.30314
G1 X45.13 Y17.00 E33.37122
G1 X46.67 Y17.83 E33.47289
G1 X47.22 Y18.12 E33.50883
G1 X52.72 Y18.12 E33.82851
G1 X52.72 Y24.25 E34.18479
G1 X53.10 Y24.97 E34.23189
G1 X53.61 Y26.63 E34.33283
G1 X53.95 Y27.76 E34.40132
G1 X54.12 Y29.44 E34.49966
G1 X54.23 Y30.61 E34.56808
G1 X54.06 Y32.39 E34.67179
G1 X53.94 Y33.55 E34.73951
G1 X53.44 Y35.20 E34.83966
G1 X53.10 Y36.30 E34.90694
G1 X52.92 Y36.65 E34.93000
G1 X52.92 Y42.90 E35.29280
G1 X47.70 Y42.90 E35.59614
G1 X47.66 Y42.93 E35.59936
G1 X46.18 Y43.72 E35.69643
G1 X45.14 Y44.28 E35.76527
G1 X43.48 Y44.78 E35.86621
G1 X42.35 Y45.13 E35.93470
G1 X40.67 Y45.29 E36.03304
G1 X39.50 Y45.41 E36.10145
G1 X37.72 Y45.24 E36.20516
G1 X36.56 Y45.12 E36.27288
G1 X34.91 Y44.62 E36.37304
G1 X33.81 Y44.28 E36.44007
G1 X32.27 Y43.46 E36.54176
G1 X31.24 Y42.91 E36.60956
G1 X30.28 Y42.12 E36.68175
G1 X26.85 Y40.97 E36.89200
G1 X26.85 Y38.21 E37.05247
G1 X26.39 Y37.36 E37.10869
G1 X26.07 Y36.77 E37.14793
G1 X26.05 Y36.74 E37.14982
G1 X26.05 Y36.72 E37.15099
G1 X25.83 Y36.32 E37.17775
G1 X25.75 Y36.04 E37.19463
G1 X25.65 Y35.94 E37.20260
G1 X25.65 Y35.72 E37.21550
G1 X25.32 Y34.63 E37.28164
G1 X24.98 Y33.54 E37.34819
G1 X24.82 Y31.84 E37.44701
G1 X24.82 Y31.84 E37.44707
G1 X24.70 Y30.67 E37.51590
G1 X24.87 Y28.89 E37.61962
G1 X24.99 Y27.74 E37.68693
G1 X25.49 Y26.09 E37.78709
G1 X25.65 Y25.57 E37.81869
G1 X25.65 Y25.28 E37.83572
G1 X25.78 Y25.15 E37.84632
G1 X25.83 Y24.99 E37.85611
G1 X25.85 Y24.95 E37.85881
G1 X25.85 Y24.88 E37.86282
G1 X25.93 Y24.80 E37.86923
G1 X26.05 Y24.57 E37.88426
G1 X26.05 Y24.48 E37.88972
G1 X26.16 Y24.37 E37.89852
G1 X26.65 Y23.44 E37.95957
G1 X27.20 Y22.42 E38.02737
G0 F12000 X27.59 Y22.68
G1 F600 X28.65 Y21.39 E38.12433
G1 X29.34 Y20.54 E38.18795
G1 X30.67 Y19.45 E38.28768
G1 X31.53 Y18.75 E38.35245
G1 X33.01 Y17.96 E38.44993
G1 X33.98 Y17.43 E38.51380
G1 X35.59 Y16.95 E38.61160
G1 X36.66 Y16.62 E38.67695
G1 X38.36 Y16.45 E38.77582
G1 X39.44 Y16.34 E38.83928
G1 X41.17 Y16.51 E38.94026
G1 X42.27 Y16.62 E39.00448
G1 X43.88 Y17.11 E39.10197
G1 X44.95 Y17.44 E39.16731
G1 X46.45 Y18.24 E39.26628
G1 X47.10 Y18.59 E39.30903
G1 X52.25 Y18.59 E39.60848
G1 X52.25 Y24.37 E39.94460
G1 X52.67 Y25.15 E39.99580
G1 X53.16 Y26.77 E40.09401
G1 X53.49 Y27.85 E40.15977
G1 X53.65 Y29.49 E40.25560
G1 X53.77 Y30.61 E40.32127
G1 X53.60 Y32.34 E40.42218
G1 X53.48 Y33.45 E40.48722
G1 X53.00 Y35.06 E40.58474
G1 X52.67 Y36.12 E40.64935
G1 X52.45 Y36.54 E40.67662
G1 X52.45 Y42.43 E41.01908
G1 X47.53 Y42.43 E41.30492
G1 X47.40 Y42.54 E41.31521
G1 X45.96 Y43.31 E41.40980
G1 X44.96 Y43.85 E41.47594
G1 X43.34 Y44.34 E41.57414
G1 X42.26 Y44.67 E41.63991
G1 X40.58 Y44.83 E41.73836
G1 X39.50 Y44.94 E41.80141
G1 X37.77 Y44.78 E41.90232
G1 X36.66 Y44.66 E41.96735
G1 X35.05 Y44.17 E42.06487
G1 X33.99 Y43.85 E42.12930
G1 X32.49 Y43.05 E42.22823
G1 X31.50 Y42.52 E42.29338
G1 X30.51 Y41.70 E42.36800
G1 X27.31 Y40.64 E42.56373
G1 X27.31 Y38.10 E42.71136
G1 X26.78 Y37.09 E42.77756
G1 X26.26 Y36.14 E42.84073
G1 X26.16 Y35.79 E42.86162
G1 X26.11 Y35.75 E42.86515
G1 X26.11 Y35.65 E42.87085
G1 X25.76 Y34.50 E42.94105
G1 X25.44 Y33.45 E43.00494
G1 X25.27 Y31.75 E43.10381
G1 X25.16 Y30.67 E43.16727
G1 X25.33 Y28.94 E43.26825
G1 X25.45 Y27.83 E43.33282
G1 X25.93 Y26.23 E43.43034
G1 X26.11 Y25.64 E43.46614
G1 X26.11 Y25.47 E43.47585
G1 X26.19 Y25.40 E43.48193
G1 X26.26 Y25.17 E43.49590
G1 X26.51 Y24.69 E43.52752
G1 X26.51 Y24.67 E43.52845
G1 X26.53 Y24.65 E43.52993
G1 X27.06 Y23.66 E43.59501
G1 X27.59 Y22.68 E43.66016
G0 F12000 X27.98 Y22.94
G1 F600 X29.01 Y21.68 E43.75448
G1 X29.67 Y20.87 E43.81545
G1 X30.96 Y19.81 E43.91246
G1 X31.79 Y19.14 E43.97459
G1 X33.23 Y18.37 E44.06944
G1 X34.16 Y17.87 E44.13069
G1 X35.76 Y17.38 E44.22794
G1 X35.76 Y17.38 E44.22800
G1 X36.76 Y17.08 E44.28856
G1 X38.36 Y16.92 E44.38224
G1 X39.44 Y16.81 E44.44557
G1 X41.12 Y16.97 E44.54374
G1 X42.18 Y17.08 E44.60533
G1 X43.74 Y17.55 E44.70016
G1 X44.77 Y17.87 E44.76283
G1 X46.23 Y18.65 E44.85907
G1 X46.98 Y19.06 E44.90864
G1 X51.79 Y19.06 E45.18786
G1 X51.79 Y24.49 E45.50369
G1 X52.24 Y25.33 E45.55903
G1 X52.72 Y26.90 E45.65462
G1 X53.03 Y27.94 E45.71767
G1 X53.19 Y29.54 E45.81092
G1 X53.30 Y30.61 E45.87385
G1 X53.13 Y32.30 E45.97202
G1 X53.02 Y33.36 E46.03436
G1 X52.55 Y34.92 E46.12922
G1 X52.24 Y35.94 E46.19122
G1 X51.99 Y36.42 E46.22258
G1 X51.99 Y41.96 E46.54475
G1 X47.37 Y41.96 E46.81321
G1 X47.14 Y42.15 E46.83048
G1 X45.74 Y42.90 E46.92253
G1 X44.78 Y43.41 E46.98593
G1 X43.18 Y43.90 E47.08286
G1 X42.17 Y44.21 E47.14456
G1 X40.57 Y44.37 E47.23782
G1 X39.49 Y44.48 E47.30075
G1 X37.81 Y44.31 E47.39892
G1 X36.75 Y44.20 E47.46126
G1 X35.19 Y43.73 E47.55612
G1 X34.17 Y43.42 E47.61793
G1 X32.71 Y42.64 E47.71417
G1 X31.76 Y42.13 E47.77661
G1 X30.74 Y41.29 E47.85358
G1 X27.78 Y40.30 E48.03484
G1 X27.78 Y37.98 E48.16974
G1 X27.21 Y36.92 E48.23984
G1 X26.69 Y35.96 E48.30325
G1 X26.21 Y34.36 E48.40018
G1 X25.90 Y33.35 E48.46146
G1 X25.74 Y31.71 E48.55765
G1 X25.63 Y30.66 E48.61847
G1 X25.80 Y28.98 E48.71664
G1 X25.91 Y27.92 E48.77858
G1 X26.38 Y26.36 E48.87344
G1 X26.58 Y25.71 E48.91319
G1 X26.58 Y25.66 E48.91581
G1 X26.60 Y25.64 E48.91745
G1 X26.69 Y25.34 E48.93556
G1 X27.47 Y23.88 E49.03179
G1 X27.98 Y22.94 E49.09424
G0 F12000 X28.37 Y23.20
G1 F600 X29.37 Y21.98 E49.18600
G1 X29.37 Y21.98 E49.18605
G1 X30.01 Y21.20 E49.24439
G1 X31.26 Y20.17 E49.33862
G1 X32.05 Y19.53 E49.39806
G1 X33.45 Y18.78 E49.49032
G1 X34.34 Y18.30 E49.54891
G1 X35.90 Y17.83 E49.64344
G1 X36.85 Y17.54 E49.70136
G1 X38.41 Y17.38 E49.79241
G1 X39.45 Y17.28 E49.85306
G1 X41.08 Y17.44 E49.94843
G1 X42.09 Y17.54 E50.00739
G1 X43.61 Y18.00 E50.09960
G1 X44.59 Y18.30 E50.15959
G1 X46.01 Y19.06 E50.25310
G1 X46.87 Y19.52 E50.30951
G1 X51.32 Y19.52 E50.56844
G1 X51.32 Y24.61 E50.86411
G1 X51.81 Y25.51 E50.92351
G1 X52.27 Y27.04 E51.01643
G1 X52.57 Y28.03 E51.07672
G1 X52.72 Y29.58 E51.16741
G1 X52.83 Y30.62 E51.22771
G1 X52.67 Y32.25 E51.32306
G1 X52.57 Y33.27 E51.38273
G1 X52.11 Y34.79 E51.47497
G1 X51.81 Y35.76 E51.53423
G1 X51.52 Y36.30 E51.56975
G1 X51.52 Y41.50 E51.87164
G1 X47.20 Y41.50 E52.12266
G1 X46.88 Y41.76 E52.14691
G1 X45.48 Y42.51 E52.23922
G1 X44.60 Y42.98 E52.29716
G1 X43.07 Y43.45 E52.39009
G1 X42.08 Y43.75 E52.45037
G1 X40.52 Y43.90 E52.54106
G1 X39.49 Y44.01 E52.60136
G1 X37.86 Y43.85 E52.69672
G1 X36.84 Y43.74 E52.75638
G1 X35.32 Y43.28 E52.84863
G1 X34.35 Y42.99 E52.90770
G1 X32.93 Y42.23 E53.00128
G1 X32.02 Y41.74 E53.06102
G1 X30.97 Y40.87 E53.14051
G1 X28.25 Y39.97 E53.30714
G1 X28.25 Y37.86 E53.42932
G1 X27.60 Y36.65 E53.50904
G1 X27.13 Y35.78 E53.56698
G1 X26.66 Y34.23 E53.66118
G1 X26.36 Y33.26 E53.71983
G1 X26.20 Y31.66 E53.81333
G1 X26.10 Y30.66 E53.87153
G1 X26.26 Y29.03 E53.96690
G1 X26.37 Y28.02 E54.02621
G1 X26.83 Y26.50 E54.11846
G1 X27.12 Y25.52 E54.17753
G1 X27.88 Y24.10 E54.27111
G1 X28.37 Y23.20 E54.33085
G0 F12000 X28.76 Y23.46
G1 F600 X29.73 Y22.28 E54.41997
G1 X30.34 Y21.53 E54.47573
G1 X31.55 Y20.53 E54.56720
G1 X32.31 Y19.92 E54.62400
G1 X33.67 Y19.19 E54.71358
G1 X34.52 Y18.73 E54.76954
G1 X36.03 Y18.27 E54.86133
G1 X36.94 Y18.00 E54.91669
G1 X38.48 Y17.84 E55.00687
G1 X39.45 Y17.75 E55.06308
G1 X41.03 Y17.90 E55.15566
G1 X41.99 Y18.00 E55.21198
G1 X43.47 Y18.45 E55.30153
G1 X44.41 Y18.73 E55.35884
G1 X45.79 Y19.47 E55.44969
G1 X46.64 Y19.93 E55.50605
G1 X46.71 Y19.99 E55.51117
G1 X50.85 Y19.99 E55.75191
G1 X50.85 Y24.73 E56.02723
G1 X50.92 Y24.86 E56.03587
G1 X51.37 Y25.69 E56.09084
G1 X51.82 Y27.18 E56.18109
G1 X52.11 Y28.12 E56.23871
G1 X52.27 Y29.68 E56.32981
G1 X52.27 Y29.68 E56.32986
G1 X52.36 Y30.62 E56.38444
G1 X52.21 Y32.20 E56.47700
G1 X52.11 Y33.18 E56.53397
G1 X51.66 Y34.65 E56.62361
G1 X51.38 Y35.59 E56.68025
G1 X51.05 Y36.19 E56.71991
G1 X51.05 Y41.03 E57.00145
G1 X47.03 Y41.03 E57.23504
G1 X46.62 Y41.37 E57.26631
G1 X45.26 Y42.10 E57.35600
G1 X44.42 Y42.55 E57.41131
G1 X42.91 Y43.01 E57.50277
G1 X41.99 Y43.29 E57.55918
G1 X40.43 Y43.44 E57.65028
G1 X40.43 Y43.44 E57.65033
G1 X39.49 Y43.54 E57.70491
G1 X37.91 Y43.38 E57.79747
G1 X36.93 Y43.28 E57.85444
G1 X35.46 Y42.84 E57.94408
G1 X34.53 Y42.55 E58.00054
G1 X33.15 Y41.82 E58.09136
G1 X32.28 Y41.35 E58.14845
G1 X31.20 Y40.46 E58.23029
G1 X28.71 Y39.63 E58.38246
G1 X28.71 Y37.75 E58.49196
G1 X28.01 Y36.43 E58.57842
G1 X27.56 Y35.60 E58.63374
G1 X27.10 Y34.09 E58.72519
G1 X26.82 Y33.17 E58.78123
G1 X26.67 Y31.61 E58.87199
G1 X26.57 Y30.66 E58.92762
G1 X26.73 Y29.08 E59.02020
G1 X26.82 Y28.11 E59.07682
G1 X27.27 Y26.63 E59.16645
G1 X27.56 Y25.70 E59.22291
G1 X28.29 Y24.32 E59.31374
G1 X28.76 Y23.46 E59.37082
G0 F12000 X29.15 Y23.72
G1 F600 X30.09 Y22.57 E59.45730
G1 X30.67 Y21.86 E59.51042
G1 X31.85 Y20.89 E59.59920
G1 X32.57 Y20.31 E59.65332
G1 X33.89 Y19.60 E59.74028
G1 X34.70 Y19.16 E59.79359
G1 X36.13 Y18.73 E59.88084
G1 X37.03 Y18.46 E59.93540
G1 X38.54 Y18.31 E60.02348
G1 X39.45 Y18.21 E60.07647
G1 X40.98 Y18.36 E60.16624
G1 X41.90 Y18.46 E60.21988
G1 X43.34 Y18.89 E60.30687
G1 X44.23 Y19.17 E60.36145
G1 X45.57 Y19.88 E60.44958
G1 X46.38 Y20.32 E60.50331
G1 X46.55 Y20.45 E60.51549
G1 X50.39 Y20.45 E60.73885
G1 X50.39 Y24.84 E60.99384
G1 X50.51 Y25.08 E61.00925
G1 X50.94 Y25.87 E61.06166
G1 X51.38 Y27.31 E61.14922
G1 X51.38 Y27.31 E61.14928
G1 X51.66 Y28.21 E61.20416
G1 X51.80 Y29.68 E61.28976
G1 X51.89 Y30.62 E61.34463
G1 X51.74 Y32.16 E61.43439
G1 X51.65 Y33.09 E61.48866
G1 X51.21 Y34.52 E61.57565
G1 X50.94 Y35.41 E61.62961
G1 X50.59 Y36.07 E61.67343
G1 X50.59 Y40.56 E61.93469
G1 X46.87 Y40.56 E62.15078
G1 X46.36 Y40.98 E62.18912
G1 X45.04 Y41.69 E62.27615
G1 X44.24 Y42.12 E62.32889
G1 X42.80 Y42.55 E62.41645
G1 X42.80 Y42.56 E62.41651
G1 X41.90 Y42.83 E62.47139
G1 X40.39 Y42.98 E62.55927
G1 X39.49 Y43.07 E62.61186
G1 X37.95 Y42.92 E62.70162
G1 X37.02 Y42.83 E62.75590
G1 X35.59 Y42.39 E62.84288
G1 X34.71 Y42.12 E62.89666
G1 X33.37 Y41.41 E62.98486
G1 X32.55 Y40.96 E63.03924
G1 X31.43 Y40.04 E63.12348
G1 X29.18 Y39.29 E63.26113
G1 X29.18 Y37.60 E63.35970
G1 X29.13 Y37.54 E63.36437
G1 X28.42 Y36.22 E63.45140
G1 X27.99 Y35.42 E63.50414
G1 X27.55 Y33.98 E63.59170
G1 X27.55 Y33.98 E63.59176
G1 X27.28 Y33.08 E63.64633
G1 X27.13 Y31.57 E63.73440
G1 X27.04 Y30.66 E63.78739
G1 X27.19 Y29.12 E63.87716
G1 X27.28 Y28.20 E63.93115
G1 X27.72 Y26.77 E64.01813
G1 X27.99 Y25.88 E64.07191
G1 X28.70 Y24.55 E64.16011
G1 X29.15 Y23.72 E64.21449
G0 F12000 X29.54 Y23.98
G1 F600 X30.45 Y22.87 E64.29836
G1 X31.00 Y22.19 E64.34892
G1 X32.15 Y21.25 E64.43494
G1 X32.83 Y20.70 E64.48637
G1 X34.11 Y20.01 E64.57072
G1 X34.88 Y19.60 E64.62141
G1 X36.27 Y19.18 E64.70603
G1 X37.12 Y18.91 E64.75787
G1 X38.59 Y18.77 E64.84326
G1 X39.45 Y18.68 E64.89363
G1 X40.94 Y18.83 E64.98065
G1 X41.81 Y18.92 E65.03160
G1 X43.20 Y19.34 E65.11593
G1 X44.05 Y19.60 E65.16783
G1 X45.35 Y20.29 E65.25327
G1 X46.12 Y20.71 E65.30435
G1 X46.38 Y20.92 E65.32360
G1 X49.92 Y20.92 E65.52958
G1 X49.92 Y24.96 E65.76428
G1 X50.08 Y25.26 E65.78383
G1 X50.51 Y26.05 E65.83629
G1 X50.93 Y27.45 E65.92119
G1 X51.20 Y28.31 E65.97334
G1 X51.33 Y29.74 E66.05696
G1 X51.42 Y30.62 E66.10849
G1 X51.28 Y32.11 E66.19544
G1 X51.19 Y32.99 E66.24709
G1 X50.77 Y34.38 E66.33140
G1 X50.51 Y35.23 E66.38269
G1 X50.12 Y35.95 E66.43072
G1 X50.12 Y40.10 E66.67163
G1 X46.70 Y40.10 E66.87035
G1 X46.10 Y40.59 E66.91567
G1 X44.82 Y41.28 E67.00007
G1 X44.06 Y41.69 E67.05021
G1 X42.66 Y42.11 E67.13512
G1 X41.80 Y42.37 E67.18726
G1 X40.34 Y42.52 E67.27299
G1 X39.49 Y42.60 E67.32242
G1 X38.00 Y42.46 E67.40937
G1 X37.12 Y42.37 E67.46102
G1 X35.73 Y41.95 E67.54532
G1 X34.89 Y41.69 E67.59651
G1 X33.59 Y41.00 E67.68192
G1 X32.81 Y40.57 E67.73365
G1 X31.69 Y39.66 E67.81752
G1 X31.65 Y39.63 E67.82033
G1 X29.64 Y38.96 E67.94345
G1 X29.64 Y37.43 E68.03215
G1 X29.52 Y37.28 E68.04384
G1 X28.83 Y35.99 E68.12824
G1 X28.42 Y35.24 E68.17838
G1 X28.00 Y33.84 E68.26329
G1 X27.74 Y32.98 E68.31514
G1 X27.59 Y31.52 E68.40052
G1 X27.50 Y30.66 E68.45089
G1 X27.65 Y29.17 E68.53791
G1 X27.74 Y28.29 E68.58921
G1 X28.16 Y26.91 E68.67351
G1 X28.42 Y26.06 E68.72470
G1 X29.11 Y24.77 E68.81012
G1 X29.54 Y23.98 E68.86184
G0 F12000 X29.92 Y24.24
G1 F600 X30.81 Y23.16 E68.94311
G1 X30.81 Y23.16 E68.94317
G1 X31.33 Y22.52 E68.99105
G1 X32.44 Y21.62 E69.07430
G1 X33.09 Y21.09 E69.12308
G1 X34.33 Y20.42 E69.20481
G1 X35.06 Y20.03 E69.25284
G1 X36.43 Y19.61 E69.33638
G1 X37.22 Y19.37 E69.38398
G1 X38.60 Y19.24 E69.46475
G1 X39.45 Y19.15 E69.51442
G1 X40.89 Y19.29 E69.59863
G1 X41.72 Y19.38 E69.64696
G1 X43.06 Y19.78 E69.72867
G1 X43.87 Y20.03 E69.77784
G1 X45.13 Y20.70 E69.86058
G1 X45.86 Y21.10 E69.90900
G1 X46.21 Y21.39 E69.93539
G1 X49.46 Y21.39 E70.12394
G1 X49.46 Y25.07 E70.33829
G1 X49.67 Y25.48 E70.36476
G1 X50.08 Y26.23 E70.41451
G1 X50.49 Y27.58 E70.49674
G1 X50.74 Y28.40 E70.54622
G1 X50.87 Y29.78 E70.62669
G1 X50.96 Y30.62 E70.67606
G1 X50.82 Y32.06 E70.76026
G1 X50.73 Y32.90 E70.80917
G1 X50.32 Y34.25 E70.89092
G1 X50.08 Y35.05 E70.93955
G1 X49.66 Y35.84 E70.99160
G1 X49.66 Y39.63 E71.21229
G1 X46.54 Y39.63 E71.39352
G1 X46.49 Y39.67 E71.39719
G1 X45.84 Y40.20 E71.44586
G1 X44.60 Y40.87 E71.52764
G1 X43.88 Y41.25 E71.57520
G1 X42.52 Y41.66 E71.65743
G1 X41.71 Y41.91 E71.70690
G1 X40.33 Y42.05 E71.78737
G1 X39.49 Y42.13 E71.83674
G1 X38.05 Y41.99 E71.92095
G1 X37.21 Y41.91 E71.96986
G1 X35.86 Y41.50 E72.05160
G1 X35.06 Y41.26 E72.10010
G1 X33.81 Y40.59 E72.18284
G1 X33.07 Y40.19 E72.23186
G1 X31.99 Y39.30 E72.31314
G1 X31.99 Y39.30 E72.31320
G1 X31.88 Y39.21 E72.32100
G1 X30.11 Y38.62 E72.42955
G1 X30.11 Y37.27 E72.50837
G1 X29.91 Y37.02 E72.52704
G1 X29.24 Y35.78 E72.60882
G1 X28.86 Y35.06 E72.65638
G1 X28.44 Y33.69 E72.73964
G1 X28.20 Y32.89 E72.78779
G1 X28.06 Y31.48 E72.87043
G1 X27.97 Y30.66 E72.91823
G1 X28.11 Y29.22 E73.00245
G1 X28.20 Y28.39 E73.05106
G1 X28.61 Y27.04 E73.13281
G1 X28.85 Y26.24 E73.18131
G1 X29.52 Y24.99 E73.26405
G1 X29.92 Y24.24 E73.31307
G0 F12000 X30.31 Y24.50
G1 F600 X31.17 Y23.46 E73.39178
G1 X31.66 Y22.86 E73.43701
G1 X32.73 Y21.98 E73.51758
G1 X33.35 Y21.48 E73.56363
G1 X34.55 Y20.83 E73.64274
G1 X35.24 Y20.46 E73.68819
G1 X36.54 Y20.07 E73.76748
G1 X37.31 Y19.83 E73.81396
G1 X38.66 Y19.70 E73.89269
G1 X39.45 Y19.62 E73.93914
G1 X40.84 Y19.76 E74.02050
G1 X41.63 Y19.84 E74.06619
G1 X42.93 Y20.23 E74.14529
G1 X43.69 Y20.46 E74.19172
G1 X44.91 Y21.11 E74.27178
G1 X45.60 Y21.49 E74.31755
G1 X46.05 Y21.85 E74.35101
G1 X48.99 Y21.85 E74.52218
G1 X48.99 Y25.19 E74.71625
G1 X49.26 Y25.70 E74.74963
G1 X49.65 Y26.41 E74.79663
G1 X50.04 Y27.72 E74.87617
G1 X50.04 Y27.72 E74.87623
G1 X50.28 Y28.49 E74.92296
G1 X50.41 Y29.82 E75.00092
G1 X50.49 Y30.62 E75.04761
G1 X50.35 Y32.02 E75.12896
G1 X50.27 Y32.81 E75.17523
G1 X49.88 Y34.11 E75.25431
G1 X49.65 Y34.87 E75.30025
G1 X49.19 Y35.72 E75.35652
G1 X49.19 Y39.17 E75.55687
G1 X46.37 Y39.17 E75.72077
G1 X46.19 Y39.31 E75.73407
G1 X45.58 Y39.81 E75.78009
G1 X44.38 Y40.45 E75.85921
G1 X43.70 Y40.82 E75.90415
G1 X42.39 Y41.22 E75.98370
G1 X42.39 Y41.22 E75.98375
G1 X41.62 Y41.45 E76.03049
G1 X40.27 Y41.59 E76.10950
G1 X39.49 Y41.67 E76.15513
G1 X38.09 Y41.53 E76.23648
G1 X37.30 Y41.45 E76.28276
G1 X36.00 Y41.05 E76.36184
G1 X35.24 Y40.82 E76.40767
G1 X34.03 Y40.18 E76.48773
G1 X33.33 Y39.80 E76.53405
G1 X32.28 Y38.94 E76.61275
G1 X32.11 Y38.80 E76.62560
G1 X30.58 Y38.29 E76.71963
G1 X30.58 Y37.10 E76.78856
G1 X30.30 Y36.76 E76.81430
G1 X29.66 Y35.56 E76.89342
G1 X29.29 Y34.88 E76.93836
G1 X28.89 Y33.57 E77.01790
G1 X28.89 Y33.57 E77.01796
G1 X28.66 Y32.80 E77.06444
G1 X28.52 Y31.43 E77.14440
G1 X28.44 Y30.66 E77.18962
G1 X28.58 Y29.27 E77.27098
G1 X28.66 Y28.48 E77.31696
G1 X29.05 Y27.18 E77.39604
G1 X29.29 Y26.42 E77.44188
G1 X29.93 Y25.21 E77.52193
G1 X30.31 Y24.50 E77.56825
G0 F12000 X30.70 Y24.77
G1 F600 X31.53 Y23.75 E77.64432
G1 X32.00 Y23.19 E77.68699
G1 X33.03 Y22.34 E77.76475
G1 X33.61 Y21.86 E77.80820
G1 X34.77 Y21.24 E77.88465
G1 X35.42 Y20.89 E77.92746
G1 X36.70 Y20.51 E78.00548
G1 X37.40 Y20.29 E78.04784
G1 X38.72 Y20.16 E78.12517
G1 X39.45 Y20.09 E78.16776
G1 X40.80 Y20.22 E78.24632
G1 X41.53 Y20.30 E78.28938
G1 X42.79 Y20.68 E78.36580
G1 X43.51 Y20.90 E78.40963
G1 X44.69 Y21.52 E78.48696
G1 X45.34 Y21.88 E78.53005
G1 X45.88 Y22.32 E78.57061
G1 X48.52 Y22.32 E78.72435
G1 X48.52 Y25.31 E78.89807
G1 X48.87 Y25.95 E78.94056
G1 X48.87 Y25.95 E78.94062
G1 X49.21 Y26.59 E78.98272
G1 X49.60 Y27.86 E79.05962
G1 X49.82 Y28.58 E79.10369
G1 X49.94 Y29.87 E79.17902
G1 X50.02 Y30.62 E79.22301
G1 X49.89 Y31.97 E79.30161
G1 X49.81 Y32.72 E79.34520
G1 X49.43 Y33.97 E79.42161
G1 X49.21 Y34.69 E79.46494
G1 X48.72 Y35.60 E79.52530
G1 X48.72 Y38.70 E79.70536
G1 X46.20 Y38.70 E79.85188
G1 X45.90 Y38.95 E79.87481
G1 X45.32 Y39.42 E79.91818
G1 X44.16 Y40.04 E79.99463
G1 X44.16 Y40.04 E79.99468
G1 X43.52 Y40.39 E80.03705
G1 X42.25 Y40.77 E80.11394
G1 X41.53 Y40.99 E80.15801
G1 X40.20 Y41.12 E80.23556
G1 X39.48 Y41.20 E80.27733
G1 X38.14 Y41.07 E80.35593
G1 X37.39 Y40.99 E80.39952
G1 X36.13 Y40.61 E80.47593
G1 X35.42 Y40.39 E80.51914
G1 X34.25 Y39.77 E80.59647
G1 X33.59 Y39.41 E80.64013
G1 X32.58 Y38.58 E80.71620
G1 X32.34 Y38.38 E80.73400
G1 X31.04 Y37.95 E80.81357
G1 X31.04 Y36.93 E80.87273
G1 X30.69 Y36.50 E80.90545
G1 X30.07 Y35.34 E80.98190
G1 X30.07 Y35.34 E80.98196
G1 X29.72 Y34.70 E81.02432
G1 X29.34 Y33.43 E81.10121
G1 X29.12 Y32.71 E81.14497
G1 X28.98 Y31.39 E81.22230
G1 X28.91 Y30.66 E81.26490
G1 X29.04 Y29.31 E81.34345
G1 X29.12 Y28.57 E81.38680
G1 X29.50 Y27.31 E81.46322
G1 X29.72 Y26.60 E81.50642
G1 X30.34 Y25.43 E81.58375
G1 X30.70 Y24.77 E81.62742
G0 F12000 X31.09 Y25.03
G1 F600 X31.89 Y24.05 E81.70084
G1 X32.33 Y23.52 E81.74087
G1 X33.33 Y22.70 E81.81599
G1 X33.87 Y22.25 E81.85672
G1 X34.99 Y21.66 E81.93054
G1 X35.60 Y21.33 E81.97072
G1 X36.84 Y20.95 E82.04600
G1 X36.84 Y20.95 E82.04606
G1 X37.49 Y20.75 E82.08583
G1 X38.77 Y20.63 E82.16047
G1 X39.45 Y20.55 E82.20044
G1 X40.75 Y20.68 E82.27625
G1 X41.44 Y20.75 E82.31663
G1 X42.66 Y21.12 E82.39043
G1 X43.33 Y21.33 E82.43153
G1 X44.47 Y21.93 E82.50615
G1 X45.08 Y22.27 E82.54659
G1 X45.71 Y22.79 E82.59425
G1 X48.06 Y22.79 E82.73061
G1 X48.06 Y25.43 E82.88405
G1 X48.44 Y26.14 E82.93127
G1 X48.78 Y26.77 E82.97278
G1 X49.16 Y28.01 E83.04785
G1 X49.15 Y28.01 E83.04791
G1 X49.36 Y28.67 E83.08839
G1 X49.48 Y29.95 E83.16326
G1 X49.55 Y30.63 E83.20252
G1 X49.43 Y31.92 E83.27832
G1 X49.35 Y32.62 E83.31916
G1 X48.98 Y33.84 E83.39302
G1 X48.78 Y34.51 E83.43361
G1 X48.26 Y35.49 E83.49813
G1 X48.26 Y38.23 E83.65790
G1 X46.04 Y38.23 E83.78699
G1 X45.60 Y38.59 E83.81962
G1 X45.06 Y39.03 E83.86027
G1 X43.94 Y39.63 E83.93414
G1 X43.34 Y39.96 E83.97385
G1 X42.10 Y40.33 E84.04892
G1 X42.10 Y40.33 E84.04898
G1 X41.44 Y40.53 E84.08947
G1 X40.16 Y40.66 E84.16433
G1 X39.48 Y40.73 E84.20360
G1 X38.19 Y40.60 E84.27939
G1 X37.49 Y40.53 E84.32024
G1 X36.27 Y40.16 E84.39409
G1 X35.60 Y39.96 E84.43456
G1 X34.47 Y39.35 E84.50927
G1 X33.85 Y39.02 E84.55023
G1 X32.87 Y38.22 E84.62365
G1 X32.57 Y37.97 E84.64653
G1 X31.51 Y37.62 E84.71152
G1 X31.51 Y36.77 E84.76075
G1 X31.08 Y36.24 E84.80049
G1 X30.48 Y35.12 E84.87437
G1 X30.15 Y34.52 E84.91408
G1 X29.78 Y33.28 E84.98915
G1 X29.78 Y33.28 E84.98921
G1 X29.57 Y32.62 E85.02946
G1 X29.45 Y31.34 E85.10410
G1 X29.38 Y30.66 E85.14406
G1 X29.51 Y29.36 E85.21987
G1 X29.58 Y28.66 E85.26048
G1 X29.95 Y27.45 E85.33434
G1 X30.15 Y26.78 E85.37481
G1 X30.75 Y25.65 E85.44951
G1 X31.09 Y25.03 E85.49047
G0 F12000 X31.48 Y25.29
G1 F600 X32.25 Y24.35 E85.56134
G1 X32.66 Y23.85 E85.59876
G1 X33.62 Y23.06 E85.67111
G1 X34.13 Y22.64 E85.70919
G1 X35.21 Y22.07 E85.78036
G1 X35.21 Y22.07 E85.78042
G1 X35.78 Y21.76 E85.81803
G1 X36.97 Y21.40 E85.89053
G1 X37.58 Y21.21 E85.92772
G1 X38.79 Y21.09 E85.99822
G1 X39.45 Y21.02 E86.03701
G1 X40.70 Y21.15 E86.11001
G1 X41.35 Y21.21 E86.14776
G1 X42.52 Y21.57 E86.21890
G1 X43.15 Y21.76 E86.25731
G1 X44.24 Y22.34 E86.32926
G1 X44.82 Y22.65 E86.36705
G1 X45.55 Y23.25 E86.42177
G1 X47.59 Y23.25 E86.54075
G1 X47.59 Y25.54 E86.67385
G1 X48.05 Y26.39 E86.72983
G1 X48.35 Y26.95 E86.76684
G1 X48.70 Y28.13 E86.83838
G1 X48.90 Y28.76 E86.87697
G1 X49.02 Y29.97 E86.94722
G1 X49.08 Y30.63 E86.98579
G1 X48.96 Y31.88 E87.05878
G1 X48.90 Y32.53 E87.09699
G1 X48.54 Y33.70 E87.16817
G1 X48.35 Y34.33 E87.20615
G1 X47.79 Y35.37 E87.27483
G1 X47.79 Y37.77 E87.41426
G1 X45.87 Y37.77 E87.52597
G1 X45.31 Y38.23 E87.56822
G1 X44.80 Y38.64 E87.60626
G1 X43.72 Y39.22 E87.67741
G1 X43.16 Y39.52 E87.71462
G1 X41.97 Y39.89 E87.78690
G1 X41.34 Y40.08 E87.82476
G1 X40.14 Y40.19 E87.89501
G1 X39.48 Y40.26 E87.93357
G1 X38.23 Y40.14 E88.00657
G1 X37.58 Y40.07 E88.04478
G1 X36.41 Y39.72 E88.11596
G1 X35.78 Y39.53 E88.15383
G1 X34.69 Y38.94 E88.22580
G1 X34.11 Y38.63 E88.26401
G1 X33.17 Y37.86 E88.33487
G1 X32.80 Y37.55 E88.36279
G1 X31.97 Y37.28 E88.41326
G1 X31.97 Y36.60 E88.45267
G1 X31.88 Y36.48 E88.46138
G1 X31.46 Y35.98 E88.49943
G1 X30.89 Y34.90 E88.57057
G1 X30.58 Y34.34 E88.60778
G1 X30.22 Y33.15 E88.68006
G1 X30.03 Y32.53 E88.71768
G1 X29.91 Y31.30 E88.78957
G1 X29.85 Y30.66 E88.82697
G1 X29.97 Y29.41 E88.89997
G1 X30.04 Y28.75 E88.93795
G1 X30.39 Y27.58 E89.00913
G1 X30.58 Y26.96 E89.04700
G1 X31.16 Y25.87 E89.11897
G1 X31.48 Y25.29 E89.15718
G0 F12000 X31.87 Y25.55
G1 F600 X32.61 Y24.64 E89.22544
G1 X32.99 Y24.18 E89.26026
G1 X33.92 Y23.42 E89.32985
G1 X34.39 Y23.03 E89.36525
G1 X35.43 Y22.48 E89.43379
G1 X35.96 Y22.19 E89.46874
G1 X37.11 Y21.84 E89.53850
G1 X37.67 Y21.67 E89.57309
G1 X38.84 Y21.56 E89.64101
G1 X39.45 Y21.49 E89.67706
G1 X40.66 Y21.61 E89.74727
G1 X41.26 Y21.67 E89.78238
G1 X42.39 Y22.01 E89.85091
G1 X42.97 Y22.19 E89.88660
G1 X44.02 Y22.75 E89.95582
G1 X44.56 Y23.04 E89.99098
G1 X45.38 Y23.72 E90.05281
G1 X47.13 Y23.72 E90.15435
G1 X47.13 Y25.66 E90.26710
G1 X47.63 Y26.61 E90.32987
G1 X47.91 Y27.13 E90.36428
G1 X48.26 Y28.27 E90.43315
G1 X48.44 Y28.86 E90.46902
G1 X48.55 Y30.02 E90.53676
G1 X48.62 Y30.63 E90.57258
G1 X48.50 Y31.83 E90.64282
G1 X48.44 Y32.44 E90.67835
G1 X48.09 Y33.57 E90.74686
G1 X47.92 Y34.15 E90.78218
G1 X47.35 Y35.20 E90.85142
G1 X47.33 Y35.25 E90.85498
G1 X47.33 Y37.30 E90.97413
G1 X45.70 Y37.30 E91.06846
G1 X45.01 Y37.87 E91.12034
G1 X44.54 Y38.25 E91.15569
G1 X43.52 Y38.80 E91.22275
G1 X42.98 Y39.09 E91.25882
G1 X41.83 Y39.44 E91.32843
G1 X41.25 Y39.62 E91.36357
G1 X40.06 Y39.73 E91.43300
G1 X39.48 Y39.79 E91.46712
G1 X38.28 Y39.68 E91.53736
G1 X37.67 Y39.61 E91.57289
G1 X36.54 Y39.27 E91.64140
G1 X35.96 Y39.09 E91.67665
G1 X34.91 Y38.53 E91.74589
G1 X34.37 Y38.24 E91.78144
G1 X33.47 Y37.50 E91.84971
G1 X33.03 Y37.14 E91.88267
G1 X32.44 Y36.94 E91.91856
G1 X32.44 Y36.43 E91.94815
G1 X32.24 Y36.19 E91.96648
G1 X31.86 Y35.72 E92.00184
G1 X31.30 Y34.68 E92.07041
G1 X31.02 Y34.16 E92.10497
G1 X30.67 Y33.01 E92.17458
G1 X30.49 Y32.43 E92.20953
G1 X30.38 Y31.25 E92.27874
G1 X30.32 Y30.65 E92.31351
G1 X30.43 Y29.45 E92.38371
G1 X30.50 Y28.85 E92.41906
G1 X30.84 Y27.72 E92.48757
G1 X31.02 Y27.14 E92.52281
G1 X31.58 Y26.09 E92.59206
G1 X31.87 Y25.55 E92.62761
G0 F12000 X32.26 Y25.81
G1 F600 X32.97 Y24.94 E92.69327
G1 X33.32 Y24.51 E92.72545
G1 X34.21 Y23.78 E92.79231
G1 X34.65 Y23.42 E92.82507
G1 X35.65 Y22.89 E92.89099
G1 X36.14 Y22.62 E92.92329
G1 X37.22 Y22.30 E92.98928
G1 X37.77 Y22.13 E93.02228
G1 X38.91 Y22.02 E93.08881
G1 X39.46 Y21.96 E93.12094
G1 X40.61 Y22.07 E93.18833
G1 X41.17 Y22.13 E93.22082
G1 X42.25 Y22.46 E93.28669
G1 X42.79 Y22.62 E93.31969
G1 X43.80 Y23.16 E93.38621
G1 X44.30 Y23.43 E93.41876
G1 X45.17 Y24.15 E93.48431
G1 X45.21 Y24.18 E93.48769
G1 X46.66 Y24.18 E93.57179
G1 X46.66 Y25.79 E93.66537
G1 X46.69 Y25.83 E93.66793
G1 X47.22 Y26.83 E93.73400
G1 X47.48 Y27.31 E93.76578
G1 X47.82 Y28.41 E93.83265
G1 X47.82 Y28.41 E93.83271
G1 X47.98 Y28.95 E93.86524
G1 X48.09 Y30.06 E93.93040
G1 X48.09 Y30.06 E93.93046
G1 X48.15 Y30.63 E93.96359
G1 X48.03 Y31.78 E94.03098
G1 X47.98 Y32.35 E94.06381
G1 X47.65 Y33.43 E94.12971
G1 X47.48 Y33.97 E94.16240
G1 X46.95 Y34.98 E94.22889
G1 X46.86 Y35.14 E94.23932
G1 X46.86 Y36.84 E94.33818
G1 X45.54 Y36.84 E94.41508
G1 X44.72 Y37.51 E94.47662
G1 X44.28 Y37.86 E94.50933
G1 X43.28 Y38.40 E94.57522
G1 X42.80 Y38.66 E94.60721
G1 X41.70 Y38.99 E94.67408
G1 X41.70 Y38.99 E94.67414
G1 X41.16 Y39.16 E94.70667
G1 X40.05 Y39.27 E94.77183
G1 X40.05 Y39.27 E94.77189
G1 X39.48 Y39.32 E94.80502
G1 X38.33 Y39.21 E94.87241
G1 X37.76 Y39.15 E94.90524
G1 X36.68 Y38.83 E94.97114
G1 X36.14 Y38.66 E95.00372
G1 X35.13 Y38.12 E95.07029
G1 X34.63 Y37.85 E95.10313
G1 X33.76 Y37.14 E95.16879
G1 X33.33 Y36.78 E95.20114
G1 X33.29 Y36.73 E95.20494
G1 X32.91 Y36.61 E95.22839
G1 X32.91 Y36.27 E95.24815
G1 X32.60 Y35.90 E95.27611
G1 X32.24 Y35.46 E95.30883
G1 X31.71 Y34.46 E95.37472
G1 X31.45 Y33.98 E95.40671
G1 X31.11 Y32.87 E95.47358
G1 X31.12 Y32.87 E95.47364
G1 X30.95 Y32.34 E95.50598
G1 X30.84 Y31.20 E95.57250
G1 X30.78 Y30.65 E95.60464
G1 X30.90 Y29.50 E95.67203
G1 X30.95 Y28.94 E95.70469
G1 X31.28 Y27.86 E95.77059
G1 X31.45 Y27.32 E95.80317
G1 X31.99 Y26.31 E95.86973
G1 X32.26 Y25.81 E95.90258
G0 F12000 X32.64 Y26.07
G1 F600 X33.33 Y25.23 E95.96560
G1 X33.65 Y24.84 E95.99517
G1 X34.51 Y24.14 E96.05935
G1 X34.91 Y23.81 E96.08937
G1 X35.85 Y23.31 E96.15160
G1 X36.32 Y23.06 E96.18236
G1 X37.36 Y22.74 E96.24574
G1 X37.86 Y22.59 E96.27601
G1 X38.95 Y22.48 E96.33979
G1 X39.46 Y22.43 E96.36935
G1 X40.56 Y22.54 E96.43400
G1 X41.07 Y22.59 E96.46381
G1 X42.12 Y22.91 E96.52706
G1 X42.62 Y23.06 E96.55738
G1 X43.58 Y23.58 E96.62122
G1 X44.03 Y23.82 E96.65107
G1 X44.87 Y24.50 E96.71355
G1 X45.05 Y24.65 E96.72706
G1 X46.19 Y24.65 E96.79379
G1 X46.19 Y25.96 E96.86993
G1 X46.30 Y26.09 E96.87947
G1 X46.80 Y27.03 E96.94151
G1 X46.80 Y27.03 E96.94156
G1 X47.05 Y27.49 E96.97215
G1 X47.37 Y28.54 E97.03573
G1 X47.52 Y29.04 E97.06618
G1 X47.62 Y30.11 E97.12872
G1 X47.68 Y30.63 E97.15916
G1 X47.57 Y31.74 E97.22381
G1 X47.52 Y32.25 E97.25396
G1 X47.20 Y33.30 E97.31724
G1 X47.05 Y33.79 E97.34721
G1 X46.53 Y34.76 E97.41105
G1 X46.39 Y35.02 E97.42816
G1 X46.39 Y36.37 E97.50686
G1 X45.34 Y36.37 E97.56812
G1 X45.28 Y36.45 E97.57390
G1 X44.42 Y37.15 E97.63808
G1 X44.02 Y37.47 E97.66807
G1 X43.08 Y37.98 E97.73014
G1 X43.08 Y37.98 E97.73020
G1 X42.62 Y38.23 E97.76078
G1 X41.56 Y38.55 E97.82491
G1 X41.07 Y38.70 E97.85481
G1 X40.00 Y38.80 E97.91735
G1 X39.48 Y38.86 E97.94779
G1 X38.37 Y38.75 E98.01244
G1 X37.85 Y38.70 E98.04259
G1 X36.81 Y38.38 E98.10588
G1 X36.32 Y38.23 E98.13577
G1 X35.35 Y37.71 E98.19961
G1 X34.90 Y37.47 E98.22980
G1 X34.06 Y36.78 E98.29282
G1 X33.66 Y36.45 E98.32252
G1 X33.56 Y36.34 E98.33148
G1 X33.37 Y36.27 E98.34319
G1 X33.37 Y36.10 E98.35307
G1 X32.96 Y35.60 E98.39073
G1 X32.63 Y35.20 E98.42073
G1 X32.13 Y34.26 E98.48279
G1 X32.13 Y34.26 E98.48285
G1 X31.88 Y33.80 E98.51343
G1 X31.56 Y32.74 E98.57757
G1 X31.41 Y32.25 E98.60728
G1 X31.30 Y31.16 E98.67106
G1 X31.25 Y30.65 E98.70062
G1 X31.36 Y29.55 E98.76527
G1 X31.41 Y29.03 E98.79525
G1 X31.73 Y27.99 E98.85854
G1 X31.88 Y27.50 E98.88843
G1 X32.40 Y26.53 E98.95227
G1 X32.64 Y26.07 E98.98246
G0 F12000 X33.03 Y26.33
G1 F600 X33.69 Y25.53 E99.04284
G1 X33.99 Y25.17 E99.06985
G1 X34.80 Y24.50 E99.13122
G1 X35.17 Y24.20 E99.15861
G1 X36.07 Y23.72 E99.21834
G1 X36.50 Y23.49 E99.24634
G1 X37.51 Y23.18 E99.30783
G1 X37.95 Y23.05 E99.33464
G1 X38.98 Y22.95 E99.39479
G1 X38.98 Y22.95 E99.39485
G1 X39.46 Y22.90 E99.42272
G1 X40.52 Y23.00 E99.48457
G1 X40.98 Y23.05 E99.51174
G1 X41.98 Y23.35 E99.57239
G1 X42.44 Y23.49 E99.59998
G1 X43.36 Y23.99 E99.66109
G1 X43.77 Y24.21 E99.68832
G1 X44.58 Y24.87 E99.74866
G1 X44.58 Y24.87 E99.74872
G1 X44.88 Y25.11 E99.77144
G1 X45.73 Y25.11 E99.82072
G1 X45.73 Y26.12 E99.87943
G1 X45.91 Y26.35 E99.89603
G1 X46.39 Y27.25 E99.95557
G1 X46.62 Y27.67 E99.98337
G1 X46.92 Y28.68 E100.04479
G1 X47.06 Y29.13 E100.07201
G1 X47.16 Y30.16 E100.13205
G1 X47.21 Y30.63 E100.15979
G1 X47.11 Y31.69 E100.22157
G1 X47.06 Y32.16 E100.24910
G1 X46.76 Y33.16 E100.30972
G1 X46.62 Y33.61 E100.33706
G1 X46.12 Y34.54 E100.39814
G1 X45.93 Y34.90 E100.42206
G1 X45.93 Y35.91 E100.48053
G1 X45.12 Y35.91 E100.52761
G1 X44.95 Y36.12 E100.54352
G1 X44.13 Y36.79 E100.60493
G1 X43.76 Y37.09 E100.63231
G1 X42.86 Y37.57 E100.69189
G1 X42.44 Y37.80 E100.71969
G1 X41.43 Y38.10 E100.78110
G1 X40.98 Y38.24 E100.80833
G1 X39.95 Y38.34 E100.86836
G1 X39.48 Y38.39 E100.89611
G1 X38.42 Y38.28 E100.95788
G1 X37.95 Y38.24 E100.98541
G1 X36.95 Y37.93 E101.04603
G1 X36.50 Y37.80 E101.07326
G1 X35.57 Y37.30 E101.13444
G1 X35.16 Y37.08 E101.16193
G1 X34.35 Y36.42 E101.22230
G1 X33.99 Y36.12 E101.24940
G1 X33.84 Y35.94 E101.26344
G1 X33.84 Y35.94 E101.26350
G1 X33.84 Y35.93 E101.26356
G1 X33.32 Y35.30 E101.31085
G1 X33.02 Y34.94 E101.33823
G1 X32.54 Y34.04 E101.39781
G1 X32.31 Y33.62 E101.42561
G1 X32.01 Y32.60 E101.48702
G1 X32.01 Y32.60 E101.48707
G1 X31.87 Y32.16 E101.51419
G1 X31.77 Y31.13 E101.57435
G1 X31.77 Y31.13 E101.57440
G1 X31.72 Y30.65 E101.60227
G1 X31.82 Y29.59 E101.66413
G1 X31.87 Y29.12 E101.69147
G1 X32.18 Y28.13 E101.75209
G1 X32.31 Y27.68 E101.77932
G1 X32.81 Y26.75 E101.84050
G1 X33.03 Y26.33 E101.86799
G0 F12000 X33.42 Y26.59
G1 F600 X34.05 Y25.82 E101.92581
G1 X34.05 Y25.83 E101.92589
G1 X34.32 Y25.50 E101.95023
G1 X35.10 Y24.86 E102.00891
G1 X35.43 Y24.59 E102.03361
G1 X36.30 Y24.13 E102.09086
G1 X36.68 Y23.92 E102.11609
G1 X37.63 Y23.63 E102.17414
G1 X38.04 Y23.51 E102.19905
G1 X39.03 Y23.41 E102.25663
G1 X39.46 Y23.37 E102.28176
G1 X40.47 Y23.46 E102.34080
G1 X40.89 Y23.51 E102.36535
G1 X41.84 Y23.80 E102.42332
G1 X42.26 Y23.92 E102.44823
G1 X43.14 Y24.40 E102.50666
G1 X43.51 Y24.60 E102.53121
G1 X44.28 Y25.22 E102.58861
G1 X44.61 Y25.49 E102.61348
G1 X44.68 Y25.58 E102.62001
G1 X45.26 Y25.58 E102.65390
G1 X45.26 Y26.29 E102.69510
G1 X45.52 Y26.61 E102.71873
G1 X45.98 Y27.47 E102.77583
G1 X46.19 Y27.85 E102.80093
G1 X46.48 Y28.81 E102.85912
G1 X46.60 Y29.22 E102.88415
G1 X46.70 Y30.21 E102.94161
G1 X46.74 Y30.63 E102.96662
G1 X46.64 Y31.64 E103.02565
G1 X46.60 Y32.07 E103.05043
G1 X46.31 Y33.02 E103.10842
G1 X46.19 Y33.43 E103.13310
G1 X45.71 Y34.32 E103.19150
G1 X45.51 Y34.69 E103.21618
G1 X45.46 Y34.75 E103.22076
G1 X45.46 Y35.44 E103.26075
G1 X44.90 Y35.44 E103.29359
G1 X44.88 Y35.46 E103.29503
G1 X44.61 Y35.79 E103.31961
G1 X43.83 Y36.43 E103.37830
G1 X43.50 Y36.70 E103.40300
G1 X42.62 Y37.16 E103.46099
G1 X42.26 Y37.36 E103.48522
G1 X41.29 Y37.66 E103.54384
G1 X40.89 Y37.78 E103.56844
G1 X39.88 Y37.88 E103.62696
G1 X39.48 Y37.92 E103.65091
G1 X38.46 Y37.82 E103.70995
G1 X38.04 Y37.78 E103.73473
G1 X37.09 Y37.49 E103.79272
G1 X36.68 Y37.36 E103.81734
G1 X35.79 Y36.89 E103.87581
G1 X35.42 Y36.69 E103.90060
G1 X34.65 Y36.06 E103.95841
G1 X34.65 Y36.06 E103.95850
G1 X34.32 Y35.79 E103.98291
G1 X33.68 Y35.01 E104.04160
G1 X33.41 Y34.68 E104.06630
G1 X32.94 Y33.80 E104.12429
G1 X32.75 Y33.43 E104.14853
G1 X32.45 Y32.47 E104.20714
G1 X32.33 Y32.07 E104.23163
G1 X32.23 Y31.07 E104.29003
G1 X32.19 Y30.65 E104.31434
G1 X32.29 Y29.64 E104.37338
G1 X32.33 Y29.22 E104.39804
G1 X32.62 Y28.26 E104.45604
G1 X32.74 Y27.86 E104.48065
G1 X33.22 Y26.97 E104.53913
G1 X33.42 Y26.59 E104.56392
G0 F12000 X33.81 Y26.86
G1 F600 X34.41 Y26.12 E104.61909
G1 X34.41 Y26.12 E104.61915
G1 X34.65 Y25.83 E104.64088
G1 X35.39 Y25.22 E104.69675
G1 X35.69 Y24.98 E104.71881
G1 X36.52 Y24.54 E104.77350
G1 X36.52 Y24.54 E104.77355
G1 X36.86 Y24.35 E104.79602
G1 X37.78 Y24.07 E104.85205
G1 X38.13 Y23.97 E104.87369
G1 X39.09 Y23.87 E104.92941
G1 X39.09 Y23.87 E104.92947
G1 X39.46 Y23.83 E104.95115
G1 X40.42 Y23.93 E105.00739
G1 X40.80 Y23.97 E105.02930
G1 X41.71 Y24.24 E105.08467
G1 X42.08 Y24.35 E105.10684
G1 X42.92 Y24.81 E105.16257
G1 X43.25 Y24.99 E105.18449
G1 X43.98 Y25.59 E105.23938
G1 X44.28 Y25.83 E105.26156
G1 X44.46 Y26.05 E105.27816
G1 X44.80 Y26.05 E105.29775
G1 X44.80 Y26.46 E105.32158
G1 X44.89 Y26.57 E105.33001
G1 X45.13 Y26.86 E105.35215
G1 X45.57 Y27.69 E105.40675
G1 X45.75 Y28.03 E105.42914
G1 X46.03 Y28.95 E105.48471
G1 X46.14 Y29.31 E105.50695
G1 X46.24 Y30.27 E105.56278
G1 X46.27 Y30.64 E105.58417
G1 X46.18 Y31.60 E105.64040
G1 X46.14 Y31.98 E105.66255
G1 X45.87 Y32.89 E105.71787
G1 X45.75 Y33.25 E105.73988
G1 X45.30 Y34.10 E105.79560
G1 X45.12 Y34.43 E105.81760
G1 X45.00 Y34.58 E105.82925
G1 X45.00 Y34.97 E105.85186
G1 X44.68 Y34.97 E105.87040
G1 X44.52 Y35.16 E105.88469
G1 X44.28 Y35.45 E105.90662
G1 X43.54 Y36.07 E105.96258
G1 X43.24 Y36.30 E105.98460
G1 X42.42 Y36.75 E106.03918
G1 X42.08 Y36.93 E106.06157
G1 X41.16 Y37.21 E106.11750
G1 X40.80 Y37.32 E106.13938
G1 X39.84 Y37.41 E106.19521
G1 X39.47 Y37.45 E106.21660
G1 X38.51 Y37.36 E106.27283
G1 X38.13 Y37.32 E106.29498
G1 X37.22 Y37.04 E106.35030
G1 X36.86 Y36.93 E106.37231
G1 X36.01 Y36.48 E106.42803
G1 X35.68 Y36.30 E106.45017
G1 X34.94 Y35.70 E106.50534
G1 X34.94 Y35.70 E106.50540
G1 X34.65 Y35.46 E106.52717
G1 X34.04 Y34.72 E106.58312
G1 X33.80 Y34.42 E106.60514
G1 X33.35 Y33.58 E106.66050
G1 X33.18 Y33.25 E106.68212
G1 X32.90 Y32.33 E106.73805
G1 X32.79 Y31.97 E106.75987
G1 X32.70 Y31.02 E106.81559
G1 X32.70 Y31.02 E106.81565
G1 X32.66 Y30.65 E106.83733
G1 X32.75 Y29.69 E106.89357
G1 X32.79 Y29.31 E106.91560
G1 X33.07 Y28.40 E106.97093
G1 X33.18 Y28.04 E106.99293
G1 X33.63 Y27.19 E107.04866
G1 X33.81 Y26.86 E107.07079
G0 F12000 X34.20 Y27.12
G1 F600 X34.77 Y26.42 E107.12339
G1 X34.98 Y26.16 E107.14252
G1 X35.69 Y25.58 E107.19563
G1 X35.95 Y25.37 E107.21504
G1 X36.74 Y24.95 E107.26726
G1 X37.04 Y24.79 E107.28694
G1 X37.91 Y24.52 E107.34019
G1 X37.91 Y24.52 E107.34025
G1 X38.23 Y24.43 E107.35928
G1 X39.13 Y24.34 E107.41231
G1 X39.46 Y24.30 E107.43142
G1 X40.38 Y24.39 E107.48487
G1 X40.71 Y24.43 E107.50415
G1 X41.57 Y24.69 E107.55683
G1 X41.90 Y24.79 E107.57635
G1 X42.70 Y25.22 E107.62940
G1 X42.99 Y25.38 E107.64864
G1 X43.69 Y25.95 E107.70122
G1 X43.69 Y25.95 E107.70130
G1 X43.95 Y26.16 E107.72056
G1 X44.24 Y26.51 E107.74727
G1 X44.33 Y26.51 E107.75256
G1 X44.33 Y26.62 E107.75901
G1 X44.53 Y26.86 E107.77706
G1 X44.74 Y27.12 E107.79656
G1 X45.16 Y27.91 E107.84867
G1 X45.32 Y28.21 E107.86828
G1 X45.59 Y29.08 E107.92117
G1 X45.68 Y29.41 E107.94075
G1 X45.77 Y30.30 E107.99313
G1 X45.80 Y30.64 E108.01271
G1 X45.72 Y31.55 E108.06613
G1 X45.68 Y31.89 E108.08559
G1 X45.42 Y32.75 E108.13831
G1 X45.32 Y33.07 E108.15763
G1 X44.89 Y33.88 E108.21063
G1 X44.73 Y34.17 E108.22997
G1 X44.53 Y34.42 E108.24868
G1 X44.53 Y34.51 E108.25391
G1 X44.46 Y34.51 E108.25816
G1 X44.16 Y34.87 E108.28529
G1 X44.16 Y34.87 E108.28537
G1 X43.95 Y35.12 E108.30467
G1 X43.24 Y35.70 E108.35787
G1 X42.98 Y35.92 E108.37724
G1 X42.19 Y36.34 E108.42995
G1 X41.90 Y36.50 E108.44896
G1 X41.02 Y36.76 E108.50217
G1 X40.70 Y36.86 E108.52143
G1 X39.81 Y36.95 E108.57381
G1 X39.47 Y36.98 E108.59338
G1 X38.56 Y36.89 E108.64681
G1 X38.22 Y36.86 E108.66627
G1 X37.36 Y36.60 E108.71899
G1 X37.04 Y36.50 E108.73826
G1 X36.23 Y36.07 E108.79132
G1 X35.94 Y35.91 E108.81075
G1 X35.24 Y35.34 E108.86336
G1 X34.98 Y35.13 E108.88253
G1 X34.40 Y34.42 E108.93573
G1 X34.19 Y34.16 E108.95510
G1 X33.77 Y33.36 E109.00780
G1 X33.61 Y33.07 E109.02681
G1 X33.34 Y32.20 E109.08002
G1 X33.25 Y31.88 E109.09916
G1 X33.16 Y30.98 E109.15220
G1 X33.12 Y30.65 E109.17131
G1 X33.22 Y29.73 E109.22475
G1 X33.25 Y29.40 E109.24415
G1 X33.51 Y28.53 E109.29686
G1 X33.61 Y28.22 E109.31613
G1 X34.04 Y27.41 E109.36920
G1 X34.20 Y27.12 E109.38863
G0 F12000 X34.59 Y27.38
G1 F600 X35.13 Y26.71 E109.43859
G1 X35.31 Y26.49 E109.45508
G1 X35.98 Y25.94 E109.50554
G1 X36.20 Y25.76 E109.52222
G1 X36.96 Y25.36 E109.57189
G1 X36.96 Y25.36 E109.57195
G1 X37.22 Y25.22 E109.58893
G1 X38.05 Y24.97 E109.63944
G1 X38.32 Y24.89 E109.65584
G1 X39.18 Y24.80 E109.70618
G1 X39.46 Y24.77 E109.72266
G1 X40.33 Y24.86 E109.77335
G1 X40.61 Y24.89 E109.78995
G1 X41.44 Y25.13 E109.84002
G1 X41.72 Y25.22 E109.85681
G1 X42.48 Y25.63 E109.90717
G1 X42.73 Y25.76 E109.92377
G1 X43.40 Y26.31 E109.97374
G1 X43.62 Y26.49 E109.99031
G1 X44.17 Y27.16 E110.04077
G1 X44.35 Y27.38 E110.05750
G1 X44.75 Y28.14 E110.10708
G1 X44.75 Y28.14 E110.10714
G1 X44.89 Y28.39 E110.12405
G1 X45.14 Y29.22 E110.17428
G1 X45.23 Y29.50 E110.19112
G1 X45.31 Y30.35 E110.24098
G1 X45.34 Y30.64 E110.25781
G1 X45.25 Y31.51 E110.30850
G1 X45.22 Y31.79 E110.32521
G1 X44.97 Y32.62 E110.37532
G1 X44.89 Y32.89 E110.39197
G1 X44.48 Y33.66 E110.44229
G1 X44.34 Y33.91 E110.45896
G1 X43.80 Y34.57 E110.50893
G1 X43.62 Y34.79 E110.52558
G1 X42.95 Y35.34 E110.57601
G1 X42.73 Y35.53 E110.59274
G1 X41.97 Y35.93 E110.64230
G1 X41.72 Y36.07 E110.65920
G1 X40.89 Y36.32 E110.70943
G1 X40.61 Y36.40 E110.72627
G1 X39.75 Y36.48 E110.77667
G1 X39.47 Y36.51 E110.79297
G1 X38.60 Y36.43 E110.84365
G1 X38.32 Y36.40 E110.86037
G1 X37.49 Y36.15 E110.91047
G1 X37.22 Y36.07 E110.92711
G1 X36.45 Y35.66 E110.97745
G1 X36.20 Y35.52 E110.99423
G1 X35.54 Y34.98 E111.04419
G1 X35.31 Y34.80 E111.06076
G1 X34.77 Y34.12 E111.11119
G1 X34.58 Y33.90 E111.12792
G1 X34.18 Y33.15 E111.17748
G1 X34.04 Y32.89 E111.19438
G1 X33.79 Y32.06 E111.24485
G1 X33.71 Y31.79 E111.26138
G1 X33.62 Y30.93 E111.31172
G1 X33.59 Y30.65 E111.32820
G1 X33.68 Y29.78 E111.37889
G1 X33.71 Y29.49 E111.39555
G1 X33.96 Y28.67 E111.44565
G1 X34.04 Y28.39 E111.46229
G1 X34.45 Y27.63 E111.51263
G1 X34.59 Y27.38 E111.52941
G0 F12000 X34.98 Y27.64
G1 F600 X35.49 Y27.01 E111.57673
G1 X35.64 Y26.82 E111.59066
G1 X36.28 Y26.30 E111.63831
G1 X36.47 Y26.15 E111.65236
G1 X37.18 Y25.77 E111.69952
G1 X37.18 Y25.77 E111.69958
G1 X37.40 Y25.65 E111.71378
G1 X38.18 Y25.41 E111.76126
G1 X38.41 Y25.34 E111.77536
G1 X39.22 Y25.27 E111.82266
G1 X39.22 Y25.26 E111.82272
G1 X39.46 Y25.24 E111.83692
G1 X40.28 Y25.32 E111.88481
G1 X40.52 Y25.34 E111.89878
G1 X41.30 Y25.58 E111.94624
G1 X41.54 Y25.65 E111.96034
G1 X42.26 Y26.04 E112.00795
G1 X42.47 Y26.15 E112.02189
G1 X43.10 Y26.67 E112.06930
G1 X43.29 Y26.82 E112.08326
G1 X43.81 Y27.45 E112.13092
G1 X43.96 Y27.64 E112.14505
G1 X44.34 Y28.36 E112.19214
G1 X44.46 Y28.57 E112.20629
G1 X44.69 Y29.36 E112.25383
G1 X44.77 Y29.59 E112.26799
G1 X44.84 Y30.40 E112.31524
G1 X44.87 Y30.64 E112.32943
G1 X44.79 Y31.46 E112.37726
G1 X44.76 Y31.70 E112.39134
G1 X44.53 Y32.48 E112.43878
G1 X44.46 Y32.71 E112.45281
G1 X44.07 Y33.43 E112.50040
G1 X43.96 Y33.65 E112.51439
G1 X43.44 Y34.28 E112.56180
G1 X43.29 Y34.46 E112.57576
G1 X42.65 Y34.98 E112.62350
G1 X42.47 Y35.14 E112.63751
G1 X41.75 Y35.52 E112.68496
G1 X41.54 Y35.63 E112.69877
G1 X40.75 Y35.87 E112.74650
G1 X40.52 Y35.94 E112.76048
G1 X39.70 Y36.02 E112.80813
G1 X39.47 Y36.05 E112.82192
G1 X38.65 Y35.97 E112.86975
G1 X38.41 Y35.94 E112.88383
G1 X37.63 Y35.70 E112.93127
G1 X37.40 Y35.63 E112.94524
G1 X36.67 Y35.25 E112.99293
G1 X36.46 Y35.13 E113.00700
G1 X35.83 Y34.62 E113.05432
G1 X35.65 Y34.47 E113.06825
G1 X35.12 Y33.83 E113.11599
G1 X34.97 Y33.64 E113.12999
G1 X34.59 Y32.92 E113.17745
G1 X34.48 Y32.71 E113.19126
G1 X34.24 Y31.93 E113.23899
G1 X34.17 Y31.70 E113.25291
G1 X34.09 Y30.89 E113.30021
G1 X34.09 Y30.89 E113.30027
G1 X34.06 Y30.65 E113.31447
G1 X34.14 Y29.83 E113.36236
G1 X34.17 Y29.59 E113.37638
G1 X34.41 Y28.80 E113.42382
G1 X34.48 Y28.57 E113.43779
G1 X34.86 Y27.85 E113.48548
G1 X34.98 Y27.64 E113.49955
G0 F12000 X35.36 Y27.90
G1 F600 X35.85 Y27.30 E113.54431
G1 X35.98 Y27.15 E113.55559
G1 X36.57 Y26.66 E113.60052
G1 X36.73 Y26.54 E113.61188
G1 X37.41 Y26.18 E113.65671
G1 X37.58 Y26.08 E113.66802
G1 X38.32 Y25.86 E113.71300
G1 X38.50 Y25.80 E113.72425
G1 X39.27 Y25.73 E113.76917
G1 X39.27 Y25.73 E113.76922
G1 X39.46 Y25.71 E113.78051
G1 X40.24 Y25.78 E113.82560
G1 X40.43 Y25.80 E113.83694
G1 X41.17 Y26.03 E113.88173
G1 X41.36 Y26.08 E113.89316
G1 X42.04 Y26.45 E113.93804
G1 X42.21 Y26.54 E113.94936
G1 X42.80 Y27.03 E113.99413
G1 X42.95 Y27.15 E114.00549
G1 X43.45 Y27.75 E114.05041
G1 X43.57 Y27.90 E114.06181
G1 X43.93 Y28.58 E114.10646
G1 X44.02 Y28.75 E114.11787
G1 X44.25 Y29.49 E114.16283
G1 X44.25 Y29.49 E114.16289
G1 X44.31 Y29.68 E114.17427
G1 X44.38 Y30.45 E114.21917
G1 X44.38 Y30.45 E114.21923
G1 X44.40 Y30.64 E114.23045
G1 X44.33 Y31.41 E114.27553
G1 X44.30 Y31.61 E114.28693
G1 X44.08 Y32.35 E114.33174
G1 X44.02 Y32.53 E114.34304
G1 X43.66 Y33.21 E114.38798
G1 X43.57 Y33.38 E114.39929
G1 X43.08 Y33.98 E114.44406
G1 X42.96 Y34.13 E114.45542
G1 X42.36 Y34.62 E114.50039
G1 X42.21 Y34.75 E114.51179
G1 X41.53 Y35.11 E114.55659
G1 X41.36 Y35.20 E114.56780
G1 X40.62 Y35.43 E114.61275
G1 X40.62 Y35.42 E114.61281
G1 X40.43 Y35.48 E114.62419
G1 X39.66 Y35.56 E114.66910
G1 X39.66 Y35.56 E114.66916
G1 X39.47 Y35.58 E114.68038
G1 X38.70 Y35.50 E114.72545
G1 X38.50 Y35.48 E114.73685
G1 X37.76 Y35.26 E114.78166
G1 X37.58 Y35.20 E114.79297
G1 X36.89 Y34.84 E114.83795
G1 X36.72 Y34.74 E114.84932
G1 X36.13 Y34.26 E114.89408
G1 X35.98 Y34.13 E114.90536
G1 X35.49 Y33.53 E114.95033
G1 X35.36 Y33.38 E114.96173
G1 X35.00 Y32.70 E115.00653
G1 X34.91 Y32.53 E115.01774
G1 X34.68 Y31.79 E115.06269
G1 X34.68 Y31.79 E115.06275
G1 X34.63 Y31.61 E115.07408
G1 X34.55 Y30.84 E115.11899
G1 X34.55 Y30.84 E115.11905
G1 X34.53 Y30.64 E115.13033
G1 X34.61 Y29.87 E115.17542
G1 X34.63 Y29.68 E115.18682
G1 X34.85 Y28.94 E115.23163
G1 X34.91 Y28.75 E115.24293
G1 X35.27 Y28.07 E115.28792
G1 X35.36 Y27.90 E115.29928
G0 F12000 X35.75 Y28.16
G1 F600 X36.31 Y27.48 E115.35008
G1 X36.98 Y26.93 E115.40096
G1 X37.62 Y26.59 E115.44314
G1 X37.76 Y26.52 E115.45185
G1 X38.59 Y26.26 E115.50274
G1 X39.32 Y26.19 E115.54491
G1 X39.47 Y26.18 E115.55361
G1 X40.19 Y26.25 E115.59590
G1 X40.34 Y26.26 E115.60461
G1 X41.18 Y26.52 E115.65548
G1 X41.95 Y26.93 E115.70632
G1 X42.62 Y27.48 E115.75720
G1 X43.18 Y28.16 E115.80812
G1 X43.52 Y28.80 E115.85027
G1 X43.59 Y28.93 E115.85898
G1 X43.85 Y29.77 E115.90989
G1 X43.92 Y30.49 E115.95205
G1 X43.93 Y30.64 E115.96076
G1 X43.86 Y31.37 E116.00303
G1 X43.85 Y31.52 E116.01174
G1 X43.59 Y32.35 E116.06264
G1 X43.25 Y32.99 E116.10481
G1 X43.18 Y33.12 E116.11347
G1 X42.62 Y33.80 E116.16436
G1 X41.95 Y34.36 E116.21529
G1 X41.31 Y34.70 E116.25746
G1 X41.18 Y34.77 E116.26610
G1 X40.34 Y35.02 E116.31701
G1 X39.62 Y35.09 E116.35917
G1 X39.47 Y35.11 E116.36787
G1 X38.74 Y35.04 E116.41015
G1 X38.59 Y35.02 E116.41886
G1 X37.76 Y34.77 E116.46970
G1 X37.12 Y34.43 E116.51198
G1 X36.98 Y34.36 E116.52069
G1 X36.31 Y33.80 E116.57153
G1 X35.75 Y33.12 E116.62241
G1 X35.41 Y32.48 E116.66458
G1 X35.34 Y32.35 E116.67322
G1 X35.09 Y31.52 E116.72413
G1 X35.01 Y30.79 E116.76635
G1 X35.00 Y30.64 E116.77500
G1 X35.07 Y29.92 E116.81728
G1 X35.09 Y29.77 E116.82599
G1 X35.34 Y28.93 E116.87683
G1 X35.68 Y28.29 E116.91911
G1 X35.75 Y28.16 E116.92782
G0 F12000 X36.14 Y28.42
;TYPE:WALL-OUTER
G1 F600 X36.64 Y27.82 E116.97333
G1 X37.25 Y27.32 E117.01900
G1 X37.84 Y27.00 E117.05847
G1 X37.94 Y26.95 E117.06453
G1 X38.68 Y26.72 E117.10989
G1 X39.36 Y26.66 E117.14955
G1 X39.47 Y26.64 E117.15562
G1 X40.14 Y26.71 E117.19505
G1 X40.25 Y26.72 E117.20124
G1 X41.00 Y26.95 E117.24671
G1 X41.69 Y27.32 E117.29209
G1 X42.29 Y27.82 E117.33781
G1 X42.79 Y28.42 E117.38319
G1 X43.11 Y29.02 E117.42292
G1 X43.16 Y29.11 E117.42893
G1 X43.39 Y29.86 E117.47447
G1 X43.45 Y30.54 E117.51401
G1 X43.46 Y30.64 E117.52003
G1 X43.40 Y31.32 E117.55950
G1 X43.39 Y31.42 E117.56558
G1 X43.16 Y32.17 E117.61102
G1 X42.84 Y32.77 E117.65059
G1 X42.79 Y32.86 E117.65668
G1 X42.29 Y33.47 E117.70223
G1 X41.69 Y33.97 E117.74765
G1 X41.09 Y34.29 E117.78733
G1 X41.00 Y34.34 E117.79334
G1 X40.25 Y34.56 E117.83889
G1 X39.57 Y34.63 E117.87842
G1 X39.47 Y34.64 E117.88450
G1 X38.79 Y34.58 E117.92392
G1 X38.69 Y34.56 E117.93000
G1 X37.94 Y34.34 E117.97549
G1 X37.34 Y34.02 E118.01514
G1 X37.24 Y33.97 E118.02115
G1 X36.64 Y33.47 E118.06665
G1 X36.14 Y32.87 E118.11208
G1 X35.82 Y32.26 E118.15176
G1 X35.77 Y32.17 E118.15777
G1 X35.55 Y31.42 E118.20331
G1 X35.48 Y30.75 E118.24285
G1 X35.47 Y30.64 E118.24893
G1 X35.53 Y29.97 E118.28836
G1 X35.55 Y29.86 E118.29444
G1 X35.77 Y29.11 E118.33992
G1 X36.09 Y28.51 E118.37950
G1 X36.14 Y28.42 E118.38558
G0 F12000 X36.77 Y28.83
G1 F600 X36.49 Y29.35 E118.41980
G1 X36.31 Y29.93 E118.45482
G1 X36.28 Y30.00 E118.45944
G1 X36.22 Y30.56 E118.49207
G1 X36.21 Y30.64 E118.49687
G1 X36.27 Y31.20 E118.52953
G1 X36.27 Y31.27 E118.53390
G1 X36.44 Y31.81 E118.56649
G1 X36.46 Y31.88 E118.57096
G1 X36.73 Y32.38 E118.60345
G1 X36.75 Y32.44 E118.60736
G1 X37.11 Y32.87 E118.63994
G1 X37.16 Y32.94 E118.64503
G1 X37.60 Y33.30 E118.67791
G1 X37.66 Y33.35 E118.68250
G1 X38.15 Y33.60 E118.71458
G1 X38.21 Y33.64 E118.71882
G1 X38.76 Y33.81 E118.75185
G1 X38.82 Y33.83 E118.75587
G1 X39.38 Y33.88 E118.78857
G1 X39.46 Y33.90 E118.79293
G1 X40.02 Y33.84 E118.82606
G1 X40.10 Y33.83 E118.83068
G1 X40.62 Y33.67 E118.86234
G1 X40.70 Y33.65 E118.86712
G1 X41.20 Y33.38 E118.90017
G1 X41.27 Y33.34 E118.90481
G1 X41.70 Y32.99 E118.93656
G1 X41.76 Y32.95 E118.94107
G1 X42.12 Y32.51 E118.97424
G1 X42.17 Y32.45 E118.97883
G1 X42.43 Y31.95 E119.01113
G1 X42.47 Y31.90 E119.01516
G1 X42.64 Y31.33 E119.04939
G1 X42.70 Y30.77 E119.08226
G1 X42.71 Y30.75 E119.08325
G1 X42.71 Y30.64 E119.09017
G1 X42.65 Y30.01 E119.12684
G1 X42.49 Y29.47 E119.15939
G1 X42.47 Y29.40 E119.16380
G1 X42.20 Y28.91 E119.19641
G1 X42.17 Y28.84 E119.20067
G1 X41.82 Y28.41 E119.23313
G1 X41.77 Y28.35 E119.23776
G1 X41.34 Y28.00 E119.27006
G1 X41.27 Y27.94 E119.27488
G1 X40.78 Y27.68 E119.30746
G1 X40.71 Y27.64 E119.31191
G1 X40.18 Y27.48 E119.34403
G1 X40.10 Y27.45 E119.34887
G1 X39.54 Y27.40 E119.38156
G1 X39.47 Y27.39 E119.38607
G1 X38.91 Y27.45 E119.41867
G1 X38.83 Y27.45 E119.42303
G1 X38.30 Y27.62 E119.45569
G1 X38.22 Y27.64 E119.46023
G1 X37.73 Y27.90 E119.49247
G1 X37.66 Y27.94 E119.49720
G1 X37.21 Y28.31 E119.53103
G1 X36.83 Y28.77 E119.56572
G1 X36.77 Y28.83 E119.57099
G0 F12000 X36.52 Y28.94
;TYPE:FILL
G1 F600 X36.35 Y28.44 E119.59630
G1 X36.94 Y28.37 E119.62087
G1 X36.98 Y27.75 E119.64500
G1 X37.66 Y27.77 E119.66923
G1 X37.77 Y27.22 E119.69444
G1 X38.40 Y27.20 E119.72146
G1 X38.93 Y27.07 E119.74892
G1 X39.55 Y27.03 E119.78007
G1 X40.15 Y27.30 E119.81792
G0 F12000 X40.47 Y26.96
G1 F600 X41.25 Y27.74 E119.88220
G0 F12000 X41.76 Y27.59
G1 F600 X42.53 Y28.36 E119.94541
G0 F12000 X42.36 Y28.85
G1 F600 X43.15 Y29.64 E120.01026
G0 F12000 X42.81 Y29.96
G1 F600 X43.08 Y30.55 E120.04869
G1 X43.03 Y31.17 E120.08014
G1 X42.91 Y31.71 E120.10875
G1 X42.88 Y32.34 E120.13585
G1 X42.33 Y32.45 E120.16117
G1 X42.36 Y33.13 E120.18542
G1 X41.73 Y33.17 E120.20967
G1 X41.66 Y33.76 E120.23394
G1 X40.95 Y33.70 E120.25913
G1 X40.80 Y34.21 E120.28474
G1 X40.12 Y34.19 E120.31219
G1 X39.53 Y34.26 E120.34339
G1 X38.95 Y34.01 E120.38002
G0 F12000 X38.67 Y34.39
G1 F600 X37.98 Y33.70 E120.43633
G0 F12000 X37.59 Y33.97
G1 F600 X36.14 Y32.51 E120.55568
G0 F12000 X36.40 Y32.12
G1 F600 X35.72 Y31.43 E120.61178
G0 F12000 X36.10 Y31.16
G1 F600 X35.85 Y30.58 E120.64990
G1 X35.91 Y29.98 E120.68125
G1 X35.90 Y29.31 E120.70874
G1 X36.30 Y29.39 E120.73295
;LAYER:1
G0 F12000 X36.23 Y29.30 Z0.40
;TYPE:WALL-INNER
G1 F600 X36.02 Y29.95 E120.74625
G1 X35.95 Y30.64 E120.75964
G1 X36.02 Y31.33 E120.77294
G1 X36.22 Y31.98 E120.78624
G1 X36.54 Y32.59 E120.79950
G1 X36.97 Y33.12 E120.81269
G1 X37.51 Y33.56 E120.82611
G1 X37.97 Y33.80 E120.83621
G1 X38.04 Y33.84 E120.83783
G1 X38.14 Y33.89 E120.84008
G1 X38.69 Y34.06 E120.85122
G1 X38.84 Y34.10 E120.85416
G1 X38.91 Y34.09 E120.85558
G1 X39.29 Y34.13 E120.86286
G1 X39.34 Y34.14 E120.86393
G1 X39.48 Y34.15 E120.86657
G1 X40.10 Y34.09 E120.87869
G1 X40.54 Y33.96 E120.88754
G1 X40.55 Y33.96 E120.88781
G1 X40.81 Y33.89 E120.89298
G1 X41.37 Y33.59 E120.90538
G1 X41.68 Y33.33 E120.91315
G1 X41.70 Y33.33 E120.91346
G1 X41.95 Y33.12 E120.91972
G1 X42.35 Y32.63 E120.93206
G1 X42.55 Y32.26 E120.94021
G1 X42.56 Y32.26 E120.94048
G1 X42.71 Y31.99 E120.94636
G1 X42.87 Y31.44 E120.95739
G1 X42.91 Y31.31 E120.96010
G1 X42.95 Y30.92 E120.96769
G1 X42.96 Y30.88 E120.96841
G1 X42.97 Y30.62 E120.97357
G1 X42.91 Y29.96 E120.98627
G1 X42.71 Y29.30 E120.99979
G1 X42.38 Y28.69 E121.01309
G1 X41.95 Y28.16 E121.02637
G1 X41.42 Y27.73 E121.03968
G1 X40.82 Y27.40 E121.05292
G1 X40.16 Y27.20 E121.06616
G1 X39.47 Y27.13 E121.07960
G1 X38.90 Y27.19 E121.09082
G1 X38.78 Y27.20 E121.09312
G1 X38.12 Y27.40 E121.10644
G1 X37.65 Y27.66 E121.11691
G1 X37.52 Y27.72 E121.11965
G1 X36.98 Y28.16 E121.13316
G1 X36.65 Y28.57 E121.14326
G1 X36.55 Y28.68 E121.14618
G1 X36.23 Y29.30 E121.15974
G0 F12000 X36.20 Y29.29
G1 F600 X36.48 Y28.78 E121.17108
G1 X36.53 Y28.68 E121.17318
G1 X36.90 Y28.23 E121.18447
G1 X36.97 Y28.15 E121.18653
G1 X37.42 Y27.78 E121.19786
G1 X37.50 Y27.71 E121.19990
G1 X38.02 Y27.43 E121.21130
G1 X38.12 Y27.38 E121.21337
G1 X38.77 Y27.18 E121.22671
G1 X39.36 Y27.12 E121.23812
G1 X39.47 Y27.11 E121.24018
G1 X40.05 Y27.17 E121.25151
G1 X40.15 Y27.18 E121.25355
G1 X40.82 Y27.38 E121.26699
G1 X41.33 Y27.66 E121.27829
G1 X41.42 Y27.70 E121.28031
G1 X41.96 Y28.15 E121.29384
G1 X42.33 Y28.60 E121.30513
G1 X42.40 Y28.68 E121.30718
G1 X42.68 Y29.20 E121.31850
G1 X42.73 Y29.29 E121.32059
G1 X42.90 Y29.85 E121.33196
G1 X42.93 Y29.95 E121.33405
G1 X42.98 Y30.54 E121.34536
G1 X42.99 Y30.64 E121.34744
G1 X42.94 Y31.23 E121.35879
G1 X42.93 Y31.33 E121.36081
G1 X42.76 Y31.89 E121.37211
G1 X42.73 Y31.99 E121.37425
G1 X42.45 Y32.51 E121.38558
G1 X42.40 Y32.60 E121.38764
G1 X41.96 Y33.14 E121.40107
G1 X41.42 Y33.58 E121.41452
G1 X40.91 Y33.85 E121.42575
G1 X40.82 Y33.90 E121.42784
G1 X40.26 Y34.07 E121.43921
G1 X40.15 Y34.10 E121.44130
G1 X39.57 Y34.16 E121.45261
G1 X39.47 Y34.17 E121.45469
G1 X38.88 Y34.12 E121.46604
G1 X38.78 Y34.11 E121.46806
G1 X38.22 Y33.94 E121.47936
G1 X38.12 Y33.90 E121.48151
G1 X37.60 Y33.63 E121.49285
G1 X37.51 Y33.58 E121.49491
G1 X37.05 Y33.21 E121.50624
G1 X36.97 Y33.14 E121.50829
G1 X36.53 Y32.60 E121.52177
G1 X36.26 Y32.09 E121.53304
G1 X36.20 Y32.00 E121.53509
G1 X36.04 Y31.43 E121.54646
G1 X36.00 Y31.33 E121.54855
G1 X35.95 Y30.75 E121.55988
G1 X35.94 Y30.64 E121.56194
G1 X35.99 Y30.06 E121.57327
G1 X36.00 Y29.95 E121.57534
G1 X36.17 Y29.40 E121.58661
G1 X36.20 Y29.29 E121.58876
G0 F12000 X35.77 Y29.11
;TYPE:WALL-OUTER
G1 F600 X36.14 Y28.42 E121.60383
G1 X36.64 Y27.82 E121.61905
G1 X37.25 Y27.32 E121.63427
G1 X37.94 Y26.95 E121.64942
G1 X38.68 Y26.72 E121.66457
G1 X39.47 Y26.64 E121.67980
G1 X40.25 Y26.72 E121.69503
G1 X41.00 Y26.95 E121.71018
G1 X41.69 Y27.32 E121.72531
G1 X42.29 Y27.82 E121.74055
G1 X42.79 Y28.42 E121.75577
G1 X43.16 Y29.11 E121.77088
G1 X43.34 Y29.72 E121.78312
G1 X43.39 Y29.86 E121.78614
G1 X43.45 Y30.49 E121.79831
G1 X43.46 Y30.64 E121.80129
G1 X43.40 Y31.27 E121.81347
G1 X43.39 Y31.43 E121.81651
G1 X43.21 Y32.02 E121.82865
G1 X43.16 Y32.18 E121.83174
G1 X42.79 Y32.86 E121.84679
G1 X42.29 Y33.47 E121.86203
G1 X41.69 Y33.97 E121.87726
G1 X41.00 Y34.34 E121.89235
G1 X40.39 Y34.52 E121.90460
G1 X40.24 Y34.56 E121.90762
G1 X39.62 Y34.62 E121.91978
G1 X39.46 Y34.64 E121.92280
G1 X38.84 Y34.58 E121.93495
G1 X38.68 Y34.56 E121.93799
G1 X38.08 Y34.38 E121.95013
G1 X37.93 Y34.34 E121.95322
G1 X37.25 Y33.97 E121.96828
G1 X36.64 Y33.47 E121.98350
G1 X36.14 Y32.86 E121.99874
G1 X35.77 Y32.17 E122.01383
G1 X35.59 Y31.57 E122.02608
G1 X35.55 Y31.42 E122.02909
G1 X35.47 Y30.64 E122.04424
G1 X35.55 Y29.86 E122.05947
G1 X35.73 Y29.26 E122.07161
G1 X35.77 Y29.11 E122.07470
G0 F12000 X36.66 Y29.48
G1 F600 X36.48 Y30.05 E122.08625
G1 X36.42 Y30.64 E122.09783
G1 X36.48 Y31.23 E122.10936
G1 X36.65 Y31.80 E122.12088
G1 X36.93 Y32.33 E122.13238
G1 X37.31 Y32.78 E122.14381
G1 X37.77 Y33.17 E122.15538
G1 X38.27 Y33.44 E122.16640
G1 X38.31 Y33.46 E122.16731
G1 X38.82 Y33.61 E122.17774
G1 X38.88 Y33.63 E122.17897
G1 X38.92 Y33.63 E122.17959
G1 X39.35 Y33.67 E122.18812
G1 X39.40 Y33.68 E122.18908
G1 X39.47 Y33.69 E122.19037
G1 X40.01 Y33.63 E122.20090
G1 X40.49 Y33.49 E122.21055
G1 X40.50 Y33.49 E122.21080
G1 X40.63 Y33.45 E122.21339
G1 X41.11 Y33.20 E122.22401
G1 X41.49 Y32.89 E122.23332
G1 X41.50 Y32.89 E122.23357
G1 X41.62 Y32.79 E122.23655
G1 X41.97 Y32.37 E122.24713
G1 X42.20 Y31.94 E122.25659
G1 X42.21 Y31.94 E122.25683
G1 X42.28 Y31.81 E122.25964
G1 X42.42 Y31.32 E122.26950
G1 X42.45 Y31.23 E122.27133
G1 X42.49 Y30.79 E122.27998
G1 X42.50 Y30.77 E122.28036
G1 X42.50 Y30.64 E122.28292
G1 X42.46 Y30.23 E122.29091
G1 X42.45 Y30.05 E122.29430
G1 X42.28 Y29.48 E122.30593
G1 X42.00 Y28.95 E122.31744
G1 X41.62 Y28.49 E122.32894
G1 X41.16 Y28.11 E122.34049
G1 X40.64 Y27.84 E122.35196
G1 X40.07 Y27.66 E122.36343
G1 X39.47 Y27.60 E122.37507
G1 X38.94 Y27.65 E122.38539
G1 X38.87 Y27.66 E122.38677
G1 X38.30 Y27.83 E122.39833
G1 X37.78 Y28.11 E122.40985
G1 X37.32 Y28.49 E122.42145
G1 X36.94 Y28.95 E122.43293
G1 X36.66 Y29.48 E122.44451
;LAYER:2
G0 F12000 X36.42 Y29.38 Z0.50
;TYPE:WALL-INNER
G1 F600 X36.23 Y29.99 E122.45699
G1 X36.16 Y30.64 E122.46962
G1 X36.23 Y31.29 E122.48212
G1 X36.41 Y31.90 E122.49461
G1 X36.72 Y32.47 E122.50705
G1 X37.12 Y32.96 E122.51942
G1 X37.62 Y33.38 E122.53197
G1 X38.19 Y33.69 E122.54450
G1 X38.86 Y33.90 E122.55823
G1 X38.95 Y33.89 E122.55986
G1 X39.45 Y33.95 E122.56965
G1 X40.12 Y33.88 E122.58265
G1 X40.43 Y33.78 E122.58896
G1 X40.73 Y33.70 E122.59509
G1 X41.30 Y33.38 E122.60773
G1 X41.55 Y33.17 E122.61400
G1 X41.80 Y32.98 E122.62017
G1 X42.21 Y32.47 E122.63280
G1 X42.35 Y32.20 E122.63872
G1 X42.36 Y32.19 E122.63895
G1 X42.52 Y31.91 E122.64531
G1 X42.70 Y31.28 E122.65788
G1 X42.73 Y30.95 E122.66438
G1 X42.75 Y30.91 E122.66513
G1 X42.76 Y30.62 E122.67077
G1 X42.70 Y30.00 E122.68293
G1 X42.52 Y29.38 E122.69550
G1 X42.21 Y28.81 E122.70800
G1 X41.80 Y28.31 E122.72050
G1 X41.30 Y27.90 E122.73298
G1 X40.74 Y27.60 E122.74541
G1 X40.13 Y27.41 E122.75782
G1 X39.55 Y27.35 E122.76917
G1 X39.46 Y27.34 E122.77075
G1 X38.82 Y27.40 E122.78327
G1 X38.20 Y27.59 E122.79584
G1 X37.63 Y27.89 E122.80828
G1 X37.13 Y28.31 E122.82099
G1 X36.99 Y28.49 E122.82533
G1 X36.98 Y28.49 E122.82556
G1 X36.71 Y28.82 E122.83371
G1 X36.42 Y29.38 E122.84600
G0 F12000 X36.20 Y29.29
G1 F600 X36.53 Y28.68 E122.85941
G1 X36.87 Y28.27 E122.86974
G1 X36.97 Y28.15 E122.87278
G1 X37.38 Y27.81 E122.88316
G1 X37.51 Y27.71 E122.88624
G1 X38.11 Y27.38 E122.89961
G1 X38.63 Y27.23 E122.90997
G1 X38.78 Y27.18 E122.91301
G1 X39.31 Y27.13 E122.92340
G1 X39.47 Y27.11 E122.92642
G1 X40.00 Y27.16 E122.93679
G1 X40.15 Y27.18 E122.93981
G1 X40.67 Y27.34 E122.95019
G1 X40.82 Y27.38 E122.95323
G1 X41.43 Y27.71 E122.96666
G1 X41.96 Y28.15 E122.98007
G1 X42.30 Y28.56 E122.99042
G1 X42.40 Y28.68 E122.99346
G1 X42.73 Y29.29 E123.00688
G1 X42.93 Y29.95 E123.02026
G1 X42.98 Y30.49 E123.03064
G1 X43.00 Y30.64 E123.03370
G1 X42.94 Y31.18 E123.04407
G1 X42.93 Y31.33 E123.04703
G1 X42.73 Y32.00 E123.06053
G1 X42.40 Y32.60 E123.07387
G1 X41.96 Y33.14 E123.08732
G1 X41.42 Y33.58 E123.10077
G1 X40.82 Y33.90 E123.11411
G1 X40.16 Y34.10 E123.12752
G1 X39.62 Y34.16 E123.13789
G1 X39.47 Y34.17 E123.14095
G1 X38.93 Y34.12 E123.15132
G1 X38.78 Y34.11 E123.15428
G1 X38.12 Y33.90 E123.16777
G1 X37.50 Y33.58 E123.18118
G1 X37.09 Y33.24 E123.19154
G1 X36.97 Y33.14 E123.19455
G1 X36.53 Y32.60 E123.20803
G1 X36.20 Y32.00 E123.22137
G1 X36.00 Y31.33 E123.23477
G1 X35.95 Y30.80 E123.24517
G1 X35.94 Y30.64 E123.24820
G1 X35.99 Y30.11 E123.25856
G1 X36.00 Y29.96 E123.26154
G1 X36.20 Y29.29 E123.27502
G0 F12000 X35.77 Y29.11
;TYPE:WALL-OUTER
G1 F600 X36.14 Y28.42 E123.29030
G1 X36.64 Y27.82 E123.30543
G1 X37.25 Y27.32 E123.32065
G1 X37.94 Y26.95 E123.33580
G1 X38.68 Y26.72 E123.35095
G1 X39.47 Y26.64 E123.36618
G1 X40.25 Y26.72 E123.38140
G1 X41.00 Y26.95 E123.39656
G1 X41.69 Y27.32 E123.41169
G1 X42.29 Y27.82 E123.42693
G1 X42.79 Y28.42 E123.44205
G1 X43.16 Y29.11 E123.45733
G1 X43.39 Y29.86 E123.47248
G1 X43.44 Y30.44 E123.48371
G1 X43.46 Y30.64 E123.48766
G1 X43.41 Y31.22 E123.49887
G1 X43.39 Y31.42 E123.50285
G1 X43.16 Y32.18 E123.51809
G1 X42.79 Y32.86 E123.53316
G1 X42.29 Y33.47 E123.54840
G1 X41.69 Y33.97 E123.56364
G1 X41.00 Y34.34 E123.57871
G1 X40.25 Y34.56 E123.59396
G1 X39.67 Y34.62 E123.60519
G1 X39.46 Y34.64 E123.60918
G1 X38.89 Y34.59 E123.62035
G1 X38.69 Y34.56 E123.62433
G1 X37.94 Y34.34 E123.63947
G1 X37.24 Y33.97 E123.65475
G1 X36.64 Y33.47 E123.66988
G1 X36.14 Y32.86 E123.68512
G1 X35.77 Y32.18 E123.70019
G1 X35.55 Y31.42 E123.71543
G1 X35.47 Y30.64 E123.73062
G1 X35.55 Y29.86 E123.74581
G1 X35.77 Y29.11 E123.76095
G0 F12000 X36.85 Y29.56
G1 F600 X36.69 Y30.09 E123.77170
G1 X36.63 Y30.64 E123.78250
G1 X36.69 Y31.19 E123.79323
G1 X36.85 Y31.72 E123.80394
G1 X37.10 Y32.21 E123.81463
G1 X37.45 Y32.63 E123.82525
G1 X37.88 Y32.99 E123.83602
G1 X38.37 Y33.26 E123.84676
G1 X38.92 Y33.42 E123.85793
G1 X38.95 Y33.42 E123.85863
G1 X39.46 Y33.48 E123.86851
G1 X40.02 Y33.42 E123.87942
G1 X40.38 Y33.30 E123.88682
G1 X40.40 Y33.31 E123.88708
G1 X40.55 Y33.26 E123.89018
G1 X41.04 Y32.99 E123.90097
G1 X41.33 Y32.75 E123.90834
G1 X41.35 Y32.75 E123.90860
G1 X41.47 Y32.65 E123.91171
G1 X41.82 Y32.21 E123.92250
G1 X41.99 Y31.88 E123.92972
G1 X42.01 Y31.88 E123.93003
G1 X42.09 Y31.73 E123.93326
G1 X42.24 Y31.19 E123.94404
G1 X42.28 Y30.81 E123.95147
G1 X42.29 Y30.79 E123.95195
G1 X42.29 Y30.64 E123.95493
G1 X42.24 Y30.09 E123.96561
G1 X42.08 Y29.56 E123.97636
G1 X41.82 Y29.07 E123.98708
G1 X41.47 Y28.64 E123.99780
G1 X41.04 Y28.29 E124.00852
G1 X40.56 Y28.03 E124.01919
G1 X40.03 Y27.87 E124.02981
G1 X39.46 Y27.81 E124.04094
G1 X38.91 Y27.86 E124.05168
G1 X38.38 Y28.02 E124.06246
G1 X37.89 Y28.28 E124.07317
G1 X37.46 Y28.64 E124.08401
G1 X37.24 Y28.91 E124.09071
G1 X37.23 Y28.91 E124.09093
G1 X37.11 Y29.07 E124.09490
G1 X36.85 Y29.56 E124.10551
;LAYER:3
G0 F12000 X36.61 Y29.46 Z0.60
;TYPE:WALL-INNER
G1 F600 X36.43 Y30.03 E124.11714
G1 X36.37 Y30.64 E124.12897
G1 X36.43 Y31.24 E124.14067
G1 X36.60 Y31.82 E124.15237
G1 X36.89 Y32.35 E124.16400
G1 X37.28 Y32.83 E124.17597
G1 X37.73 Y33.20 E124.18735
G1 X38.28 Y33.50 E124.19944
G1 X38.90 Y33.69 E124.21197
G1 X38.98 Y33.68 E124.21352
G1 X39.47 Y33.74 E124.22304
G1 X40.08 Y33.67 E124.23492
G1 X40.33 Y33.59 E124.24011
G1 X40.35 Y33.59 E124.24044
G1 X40.65 Y33.50 E124.24652
G1 X41.08 Y33.27 E124.25604
G1 X41.20 Y33.19 E124.25887
G1 X41.39 Y33.04 E124.26352
G1 X41.40 Y33.04 E124.26376
G1 X41.66 Y32.83 E124.27008
G1 X42.04 Y32.35 E124.28194
G1 X42.16 Y32.13 E124.28680
G1 X42.17 Y32.12 E124.28709
G1 X42.33 Y31.83 E124.29356
G1 X42.50 Y31.22 E124.30574
G1 X42.52 Y30.98 E124.31053
G1 X42.54 Y30.94 E124.31141
G1 X42.55 Y30.62 E124.31752
G1 X42.50 Y30.04 E124.32887
G1 X42.32 Y29.46 E124.34063
G1 X42.04 Y28.92 E124.35236
G1 X41.66 Y28.46 E124.36404
G1 X41.19 Y28.07 E124.37587
G1 X40.65 Y27.78 E124.38761
G1 X40.07 Y27.61 E124.39935
G1 X39.46 Y27.55 E124.41115
G1 X38.86 Y27.61 E124.42287
G1 X38.28 Y27.78 E124.43465
G1 X37.75 Y28.07 E124.44631
G1 X37.27 Y28.48 E124.45855
G1 X37.19 Y28.58 E124.46107
G1 X37.17 Y28.58 E124.46133
G1 X36.88 Y28.93 E124.47019
G1 X36.61 Y29.46 E124.48167
G0 F12000 X36.20 Y29.30
G1 F600 X36.53 Y28.68 E124.49517
G1 X36.97 Y28.15 E124.50854
G1 X37.51 Y27.71 E124.52200
G1 X38.12 Y27.38 E124.53538
G1 X38.77 Y27.18 E124.54872
G1 X39.47 Y27.11 E124.56217
G1 X39.95 Y27.16 E124.57158
G1 X40.16 Y27.18 E124.57561
G1 X40.81 Y27.38 E124.58894
G1 X41.42 Y27.71 E124.60238
G1 X41.96 Y28.15 E124.61583
G1 X42.40 Y28.68 E124.62922
G1 X42.73 Y29.29 E124.64266
G1 X42.93 Y29.95 E124.65598
G1 X43.00 Y30.64 E124.66946
G1 X42.95 Y31.13 E124.67886
G1 X42.93 Y31.33 E124.68283
G1 X42.73 Y31.99 E124.69615
G1 X42.40 Y32.60 E124.70968
G1 X41.96 Y33.14 E124.72309
G1 X41.43 Y33.58 E124.73647
G1 X40.81 Y33.91 E124.74994
G1 X40.16 Y34.10 E124.76324
G1 X39.47 Y34.17 E124.77671
G1 X38.98 Y34.13 E124.78611
G1 X38.78 Y34.11 E124.79008
G1 X38.12 Y33.91 E124.80344
G1 X37.50 Y33.58 E124.81697
G1 X36.97 Y33.14 E124.83031
G1 X36.53 Y32.60 E124.84375
G1 X36.20 Y31.99 E124.85719
G1 X36.01 Y31.34 E124.87049
G1 X35.94 Y30.64 E124.88394
G1 X35.98 Y30.16 E124.89335
G1 X36.00 Y29.96 E124.89734
G1 X36.20 Y29.30 E124.91070
G0 F12000 X35.77 Y29.12
;TYPE:WALL-OUTER
G1 F600 X36.14 Y28.42 E124.92600
G1 X36.64 Y27.82 E124.94113
G1 X37.25 Y27.32 E124.95635
G1 X37.93 Y26.95 E124.97147
G1 X38.44 Y26.80 E124.98177
G1 X38.69 Y26.72 E124.98669
G1 X39.47 Y26.64 E125.00188
G1 X40.25 Y26.72 E125.01710
G1 X40.75 Y26.87 E125.02732
G1 X41.00 Y26.95 E125.03228
G1 X41.69 Y27.32 E125.04738
G1 X42.29 Y27.82 E125.06262
G1 X42.79 Y28.42 E125.07775
G1 X43.16 Y29.12 E125.09306
G1 X43.39 Y29.86 E125.10814
G1 X43.44 Y30.39 E125.11843
G1 X43.46 Y30.64 E125.12336
G1 X43.41 Y31.17 E125.13360
G1 X43.39 Y31.43 E125.13859
G1 X43.16 Y32.17 E125.15367
G1 X42.79 Y32.87 E125.16896
G1 X42.29 Y33.47 E125.18410
G1 X41.69 Y33.97 E125.19924
G1 X40.99 Y34.34 E125.21453
G1 X40.25 Y34.56 E125.22962
G1 X39.72 Y34.62 E125.23991
G1 X39.46 Y34.64 E125.24488
G1 X38.94 Y34.59 E125.25508
G1 X38.68 Y34.56 E125.26006
G1 X37.94 Y34.34 E125.27515
G1 X37.24 Y33.97 E125.29045
G1 X36.64 Y33.47 E125.30558
G1 X36.14 Y32.87 E125.32072
G1 X35.77 Y32.17 E125.33601
G1 X35.55 Y31.43 E125.35109
G1 X35.47 Y30.64 E125.36632
G1 X35.55 Y29.86 E125.38155
G1 X35.77 Y29.12 E125.39663
G0 F12000 X37.05 Y29.64
G1 F600 X36.89 Y30.13 E125.40655
G1 X36.84 Y30.64 E125.41656
G1 X36.89 Y31.15 E125.42646
G1 X37.04 Y31.64 E125.43639
G1 X37.28 Y32.09 E125.44626
G1 X37.61 Y32.50 E125.45644
G1 X37.99 Y32.81 E125.46605
G1 X38.46 Y33.07 E125.47637
G1 X38.95 Y33.22 E125.48637
G1 X38.99 Y33.22 E125.48711
G1 X39.47 Y33.27 E125.49635
G1 X39.98 Y33.21 E125.50637
G1 X40.28 Y33.12 E125.51256
G1 X40.30 Y33.12 E125.51291
G1 X40.47 Y33.07 E125.51630
G1 X40.93 Y32.81 E125.52647
G1 X41.17 Y32.62 E125.53247
G1 X41.19 Y32.61 E125.53281
G1 X41.32 Y32.50 E125.53628
G1 X41.65 Y32.10 E125.54627
G1 X41.79 Y31.82 E125.55233
G1 X41.81 Y31.81 E125.55269
G1 X41.89 Y31.65 E125.55621
G1 X42.03 Y31.15 E125.56632
G1 X42.06 Y30.84 E125.57239
G1 X42.08 Y30.81 E125.57295
G1 X42.08 Y30.64 E125.57632
G1 X42.04 Y30.13 E125.58622
G1 X41.89 Y29.64 E125.59616
G1 X41.65 Y29.18 E125.60610
G1 X41.33 Y28.79 E125.61601
G1 X40.92 Y28.46 E125.62605
G1 X40.47 Y28.22 E125.63601
G1 X39.98 Y28.07 E125.64598
G1 X39.46 Y28.02 E125.65600
G1 X38.95 Y28.07 E125.66595
G1 X38.46 Y28.22 E125.67593
G1 X38.01 Y28.46 E125.68586
G1 X37.71 Y28.70 E125.69328
G1 X37.61 Y28.80 E125.69599
G1 X37.44 Y29.01 E125.70131
G1 X37.42 Y29.01 E125.70155
G1 X37.28 Y29.19 E125.70602
G1 X37.05 Y29.64 E125.71585
;LAYER:4
G0 F12000 X36.81 Y29.54 Z0.70
;TYPE:WALL-INNER
G1 F600 X36.64 Y30.07 E125.72666
G1 X36.58 Y30.64 E125.73775
G1 X36.63 Y31.20 E125.74863
G1 X36.80 Y31.74 E125.75954
G1 X37.06 Y32.23 E125.77037
G1 X37.42 Y32.68 E125.78154
G1 X37.89 Y33.07 E125.79331
G1 X37.97 Y33.09 E125.79489
G1 X38.35 Y33.31 E125.80343
G1 X38.93 Y33.48 E125.81511
G1 X39.02 Y33.48 E125.81675
G1 X39.47 Y33.53 E125.82551
G1 X40.04 Y33.46 E125.83663
G1 X40.24 Y33.40 E125.84069
G1 X40.25 Y33.40 E125.84104
G1 X40.58 Y33.31 E125.84753
G1 X41.07 Y33.03 E125.85856
G1 X41.22 Y32.91 E125.86234
G1 X41.24 Y32.90 E125.86274
G1 X41.51 Y32.68 E125.86951
G1 X41.86 Y32.24 E125.88046
G1 X41.95 Y32.06 E125.88426
G1 X41.97 Y32.05 E125.88466
G1 X42.14 Y31.74 E125.89143
G1 X42.29 Y31.20 E125.90240
G1 X42.31 Y30.99 E125.90645
G1 X42.33 Y30.95 E125.90732
G1 X42.34 Y30.62 E125.91362
G1 X42.30 Y30.08 E125.92422
G1 X42.13 Y29.54 E125.93521
G1 X41.87 Y29.04 E125.94612
G1 X41.51 Y28.60 E125.95703
G1 X41.07 Y28.24 E125.96804
G1 X40.57 Y27.98 E125.97900
G1 X40.03 Y27.81 E125.98996
G1 X39.46 Y27.76 E126.00097
G1 X38.90 Y27.81 E126.01191
G1 X38.36 Y27.98 E126.02289
G1 X37.86 Y28.25 E126.03390
G1 X37.42 Y28.61 E126.04492
G1 X37.38 Y28.67 E126.04642
G1 X37.36 Y28.68 E126.04668
G1 X37.06 Y29.05 E126.05607
G1 X36.81 Y29.54 E126.06674
G0 F12000 X36.20 Y29.29
G1 F600 X36.53 Y28.68 E126.08011
G1 X36.97 Y28.15 E126.09353
G1 X37.51 Y27.71 E126.10697
G1 X38.11 Y27.38 E126.12035
G1 X38.78 Y27.18 E126.13375
G1 X39.46 Y27.11 E126.14715
G1 X39.90 Y27.16 E126.15560
G1 X40.15 Y27.18 E126.16056
G1 X40.82 Y27.38 E126.17402
G1 X41.42 Y27.71 E126.18737
G1 X41.96 Y28.15 E126.20083
G1 X42.40 Y28.68 E126.21419
G1 X42.73 Y29.29 E126.22761
G1 X42.93 Y29.95 E126.24102
G1 X42.99 Y30.64 E126.25445
G1 X42.93 Y31.33 E126.26788
G1 X42.73 Y31.99 E126.28126
G1 X42.40 Y32.60 E126.29462
G1 X41.96 Y33.14 E126.30807
G1 X41.43 Y33.58 E126.32148
G1 X40.82 Y33.90 E126.33486
G1 X40.16 Y34.10 E126.34827
G1 X39.47 Y34.17 E126.36170
G1 X38.78 Y34.10 E126.37513
G1 X38.12 Y33.90 E126.38851
G1 X37.51 Y33.58 E126.40189
G1 X36.97 Y33.14 E126.41530
G1 X36.53 Y32.60 E126.42873
G1 X36.20 Y32.00 E126.44211
G1 X36.00 Y31.33 E126.45552
G1 X35.94 Y30.64 E126.46891
G1 X35.98 Y30.21 E126.47736
G1 X36.00 Y29.96 E126.48229
G1 X36.20 Y29.29 E126.49577
G0 F12000 X35.77 Y29.11
;TYPE:WALL-OUTER
G1 F600 X36.14 Y28.42 E126.51105
G1 X36.64 Y27.82 E126.52618
G1 X37.25 Y27.32 E126.54140
G1 X37.94 Y26.95 E126.55655
G1 X38.68 Y26.72 E126.57170
G1 X39.47 Y26.64 E126.58693
G1 X40.25 Y26.72 E126.60215
G1 X41.00 Y26.95 E126.61731
G1 X41.69 Y27.32 E126.63244
G1 X42.29 Y27.82 E126.64768
G1 X42.79 Y28.42 E126.66280
G1 X43.16 Y29.11 E126.67808
G1 X43.39 Y29.86 E126.69323
G1 X43.46 Y30.64 E126.70841
G1 X43.39 Y31.42 E126.72360
G1 X43.16 Y32.17 E126.73874
G1 X42.79 Y32.87 E126.75401
G1 X42.29 Y33.47 E126.76915
G1 X41.69 Y33.97 E126.78429
G1 X40.99 Y34.34 E126.79955
G1 X40.25 Y34.56 E126.81470
G1 X39.47 Y34.64 E126.82988
G1 X38.69 Y34.56 E126.84507
G1 X37.94 Y34.34 E126.86021
G1 X37.24 Y33.97 E126.87549
G1 X36.64 Y33.47 E126.89062
G1 X36.14 Y32.87 E126.90576
G1 X35.77 Y32.17 E126.92102
G1 X35.55 Y31.42 E126.93617
G1 X35.47 Y30.64 E126.95136
G1 X35.55 Y29.86 E126.96654
G1 X35.77 Y29.11 E126.98169
G0 F12000 X36.08 Y29.24
G0 X36.92 Y29.62
G0 X37.24 Y29.72
G1 F600 X37.09 Y30.17 E126.99079
G1 X37.05 Y30.64 E127.00003
G1 X37.09 Y31.11 E127.00914
G1 X37.23 Y31.56 E127.01827
G1 X37.45 Y31.98 E127.02734
G1 X37.76 Y32.35 E127.03674
G1 X38.12 Y32.65 E127.04592
G1 X38.16 Y32.67 E127.04674
G1 X38.54 Y32.88 E127.05509
G1 X38.99 Y33.01 E127.06424
G1 X39.04 Y33.01 E127.06515
G1 X39.47 Y33.06 E127.07352
G1 X39.94 Y33.01 E127.08275
G1 X40.19 Y32.93 E127.08775
G1 X40.21 Y32.93 E127.08816
G1 X40.39 Y32.88 E127.09192
G1 X40.81 Y32.65 E127.10112
G1 X41.00 Y32.48 E127.10600
G1 X41.02 Y32.48 E127.10644
G1 X41.18 Y32.35 E127.11031
G1 X41.47 Y31.98 E127.11948
G1 X41.59 Y31.76 E127.12437
G1 X41.61 Y31.74 E127.12481
G1 X41.70 Y31.57 E127.12868
G1 X41.83 Y31.11 E127.13786
G1 X41.85 Y30.85 E127.14286
G1 X41.87 Y30.83 E127.14345
G1 X41.88 Y30.64 E127.14713
G1 X41.84 Y30.17 E127.15627
G1 X41.70 Y29.71 E127.16542
G1 X41.48 Y29.30 E127.17455
G1 X41.18 Y28.93 E127.18367
G1 X40.81 Y28.63 E127.19292
G1 X40.39 Y28.41 E127.20208
G1 X39.94 Y28.27 E127.21126
G1 X39.46 Y28.23 E127.22051
G1 X38.99 Y28.27 E127.22967
G1 X38.54 Y28.41 E127.23885
G1 X38.12 Y28.63 E127.24804
G1 X37.76 Y28.94 E127.25723
G1 X37.62 Y29.11 E127.26138
G1 X37.61 Y29.11 E127.26163
G1 X37.45 Y29.31 E127.26659
G1 X37.24 Y29.72 E127.27560
G0 F12000 X36.59 Y29.67
;TYPE:FILL
G1 F600 X36.45 Y29.20 E127.28260
G1 X36.92 Y29.01 E127.28895
G1 X36.97 Y28.41 E127.29507
G1 X37.53 Y28.30 E127.30130
G1 X37.69 Y27.81 E127.30735
G1 X38.24 Y27.70 E127.31365
G1 X38.74 Y27.53 E127.32051
G1 X39.31 Y27.45 E127.32835
G1 X40.02 Y27.50 E127.33786
G1 X40.72 Y27.87 E127.35318
G0 F12000 X41.45 Y27.94
G1 F600 X42.18 Y28.67 E127.37321
G0 F12000 X42.23 Y29.38
G1 F600 X42.60 Y30.08 E127.38685
G1 X42.66 Y30.80 E127.39653
G1 X42.57 Y31.37 E127.40409
G1 X42.41 Y31.87 E127.41106
G1 X42.30 Y32.41 E127.41740
G1 X41.80 Y32.57 E127.42367
G1 X41.70 Y33.13 E127.42972
G1 X41.09 Y33.19 E127.43596
G1 X40.91 Y33.66 E127.44236
G1 X40.31 Y33.72 E127.44918
G1 X39.75 Y33.82 E127.45683
G1 X39.08 Y33.81 E127.46558
G1 X38.45 Y33.51 E127.47915
G0 F12000 X37.87 Y33.59
G1 F600 X36.52 Y32.23 E127.51627
G0 F12000 X36.60 Y31.66
G1 F600 X36.29 Y31.02 E127.52843
G1 X36.28 Y30.35 E127.53720
G1 X36.18 Y29.92 E127.54578
;LAYER:5
G0 F12000 X36.00 Y29.95 Z0.80
;TYPE:WALL-INNER
G1 F600 X36.20 Y29.29 E127.55917
G1 X36.53 Y28.68 E127.57265
G1 X36.97 Y28.15 E127.58598
G1 X37.50 Y27.71 E127.59935
G1 X38.12 Y27.38 E127.61280
G1 X38.77 Y27.18 E127.62614
G1 X39.47 Y27.11 E127.63961
G1 X40.16 Y27.18 E127.65308
G1 X40.82 Y27.38 E127.66642
G1 X41.42 Y27.71 E127.67979
G1 X41.97 Y28.15 E127.69332
G1 X42.40 Y28.68 E127.70656
G1 X42.73 Y29.29 E127.72005
G1 X42.93 Y29.95 E127.73343
G1 X42.99 Y30.64 E127.74686
G1 X42.93 Y31.33 E127.76029
G1 X42.73 Y32.00 E127.77370
G1 X42.40 Y32.60 E127.78704
G1 X41.96 Y33.14 E127.80049
G1 X41.42 Y33.58 E127.81394
G1 X40.82 Y33.90 E127.82728
G1 X40.16 Y34.10 E127.84068
G1 X39.47 Y34.17 E127.85411
G1 X38.78 Y34.10 E127.86754
G1 X38.12 Y33.90 E127.88093
G1 X37.50 Y33.58 E127.89441
G1 X36.97 Y33.14 E127.90766
G1 X36.53 Y32.60 E127.92119
G1 X36.20 Y32.00 E127.93453
G1 X36.00 Y31.33 E127.94793
G1 X35.94 Y30.64 E127.96136
G1 X36.00 Y29.95 E127.97480
G0 F12000 X36.84 Y30.11
G1 F600 X36.79 Y30.64 E127.98513
G1 X36.84 Y31.16 E127.99524
G1 X37.07 Y31.92 E128.01050
G1 X37.14 Y31.95 E128.01211
G1 X37.23 Y32.11 E128.01565
G1 X37.57 Y32.53 E128.02623
G1 X38.01 Y32.89 E128.03713
G1 X38.09 Y32.92 E128.03883
G1 X38.43 Y33.12 E128.04653
G1 X38.98 Y33.28 E128.05760
G1 X39.07 Y33.27 E128.05927
G1 X39.47 Y33.32 E128.06706
G1 X40.00 Y33.26 E128.07740
G1 X40.14 Y33.21 E128.08024
G1 X40.16 Y33.22 E128.08072
G1 X40.50 Y33.12 E128.08752
G1 X40.96 Y32.86 E128.09777
G1 X41.06 Y32.77 E128.10032
G1 X41.08 Y32.77 E128.10078
G1 X41.36 Y32.54 E128.10776
G1 X41.70 Y32.10 E128.11849
G1 X41.75 Y32.00 E128.12057
G1 X41.77 Y31.99 E128.12105
G1 X41.94 Y31.66 E128.12830
G1 X42.08 Y31.16 E128.13841
G1 X42.10 Y31.02 E128.14096
G1 X42.12 Y30.98 E128.14196
G1 X42.13 Y30.62 E128.14884
G1 X42.09 Y30.12 E128.15866
G1 X41.94 Y29.61 E128.16886
G1 X41.69 Y29.16 E128.17896
G1 X41.36 Y28.75 E128.18906
G1 X40.95 Y28.42 E128.19930
G1 X40.49 Y28.17 E128.20947
G1 X39.99 Y28.02 E128.21964
G1 X39.46 Y27.96 E128.22990
G1 X38.94 Y28.02 E128.24002
G1 X38.44 Y28.17 E128.25021
G1 X38.19 Y28.31 E128.25580
G1 X37.97 Y28.42 E128.26041
G1 X37.57 Y28.76 E128.27069
G1 X37.55 Y28.79 E128.27125
G1 X37.54 Y28.79 E128.27161
G1 X37.23 Y29.17 E128.28110
G1 X37.00 Y29.62 E128.29087
G1 X36.84 Y30.11 E128.30088
G0 F12000 X37.30 Y30.21
;TYPE:WALL-OUTER
G1 F600 X37.26 Y30.64 E128.30933
G1 X37.30 Y31.07 E128.31766
G1 X37.45 Y31.57 E128.32770
G1 X37.48 Y31.58 E128.32839
G1 X37.62 Y31.86 E128.33436
G1 X37.90 Y32.20 E128.34308
G1 X38.23 Y32.48 E128.35138
G1 X38.28 Y32.49 E128.35230
G1 X38.62 Y32.68 E128.35985
G1 X39.03 Y32.81 E128.36823
G1 X39.08 Y32.80 E128.36912
G1 X39.47 Y32.85 E128.37670
G1 X39.90 Y32.80 E128.38515
G1 X40.09 Y32.74 E128.38892
G1 X40.11 Y32.74 E128.38940
G1 X40.31 Y32.68 E128.39353
G1 X40.69 Y32.47 E128.40193
G1 X40.84 Y32.35 E128.40562
G1 X40.86 Y32.34 E128.40610
G1 X41.03 Y32.20 E128.41029
G1 X41.30 Y31.86 E128.41885
G1 X41.38 Y31.70 E128.42236
G1 X41.41 Y31.68 E128.42288
G1 X41.51 Y31.48 E128.42715
G1 X41.62 Y31.07 E128.43549
G1 X41.64 Y30.88 E128.43919
G1 X41.66 Y30.85 E128.43986
G1 X41.66 Y30.64 E128.44399
G1 X41.63 Y30.21 E128.45236
G1 X41.51 Y29.79 E128.46070
G1 X41.30 Y29.41 E128.46902
G1 X41.03 Y29.08 E128.47734
G1 X40.69 Y28.80 E128.48581
G1 X40.31 Y28.60 E128.49419
G1 X39.90 Y28.48 E128.50258
G1 X39.46 Y28.43 E128.51105
G1 X39.03 Y28.48 E128.51940
G1 X38.62 Y28.60 E128.52779
G1 X38.24 Y28.81 E128.53619
G1 X37.91 Y29.09 E128.54462
G1 X37.81 Y29.21 E128.54763
G1 X37.79 Y29.21 E128.54795
G1 X37.62 Y29.43 E128.55321
G1 X37.43 Y29.80 E128.56136
G1 X37.30 Y30.21 E128.56970
G0 F12000 X36.97 Y30.18
G0 X35.87 Y29.93
G0 X35.55 Y29.86
G1 F600 X35.77 Y29.11 E128.58484
G1 X36.14 Y28.42 E128.60012
G1 X36.64 Y27.82 E128.61525
G1 X37.25 Y27.32 E128.63047
G1 X37.94 Y26.95 E128.64561
G1 X38.68 Y26.72 E128.66077
G1 X39.47 Y26.64 E128.67600
G1 X40.25 Y26.72 E128.69122
G1 X41.00 Y26.95 E128.70638
G1 X41.69 Y27.32 E128.72151
G1 X42.29 Y27.82 E128.73674
G1 X42.79 Y28.42 E128.75187
G1 X43.16 Y29.11 E128.76715
G1 X43.39 Y29.86 E128.78230
G1 X43.46 Y30.64 E128.79748
G1 X43.39 Y31.42 E128.81267
G1 X43.16 Y32.18 E128.82791
G1 X42.79 Y32.86 E128.84298
G1 X42.29 Y33.47 E128.85822
G1 X41.69 Y33.97 E128.87346
G1 X41.00 Y34.34 E128.88853
G1 X40.25 Y34.56 E128.90377
G1 X39.47 Y34.64 E128.91896
G1 X38.69 Y34.56 E128.93415
G1 X37.94 Y34.34 E128.94929
G1 X37.24 Y33.97 E128.96457
G1 X36.64 Y33.47 E128.97970
G1 X36.14 Y32.86 E128.99494
G1 X35.77 Y32.18 E129.01001
G1 X35.55 Y31.42 E129.02525
G1 X35.47 Y30.64 E129.04044
G1 X35.55 Y29.86 E129.05563
G0 F12000 X36.16 Y30.07
;TYPE:FILL
G1 F600 X37.03 Y29.20 E129.07949
G0 F12000 X36.52 Y29.06
G1 F600 X37.88 Y27.69 E129.11697
G0 F12000 X38.03 Y28.20
G1 F600 X38.90 Y27.33 E129.14071
G0 F12000 X39.05 Y27.84
G1 F600 X39.66 Y27.56 E129.15579
G1 X40.44 Y27.44 E129.16853
G1 X40.51 Y28.03 E129.17997
G1 X41.33 Y27.87 E129.19049
G1 X41.33 Y28.52 E129.20062
G1 X42.03 Y28.49 E129.21070
G1 X41.92 Y29.25 E129.22079
G1 X42.53 Y29.31 E129.23129
G1 X42.49 Y30.00 E129.24269
G1 X42.56 Y30.59 E129.25592
G1 X42.23 Y31.25 E129.27028
G0 F12000 X42.73 Y31.41
G1 F600 X40.23 Y33.91 E129.33883
G0 F12000 X40.08 Y33.40
G1 F600 X39.41 Y33.74 E129.35535
G1 X38.61 Y33.88 E129.36840
G1 X38.53 Y33.30 E129.37984
G1 X37.69 Y33.48 E129.39034
G1 X37.68 Y32.84 E129.40047
G1 X36.98 Y32.88 E129.41060
G1 X37.05 Y32.15 E129.42073
G1 X36.45 Y32.09 E129.43028
G1 X36.70 Y31.18 E129.44165
G1 X36.15 Y31.07 E129.45432
G1 X36.66 Y30.23 E129.47345
G0 F12000 X37.26 Y32.09
G0 X38.45 Y33.08
G0 X40.16 Y33.18
G0 X41.47 Y33.33
G1 F600 X42.15 Y32.65 E129.49227
;LAYER:6
G0 F12000 X42.01 Y32.34 Z0.90
;TYPE:WALL-INNER
G1 F600 X41.63 Y32.81 E129.50390
G1 X41.17 Y33.19 E129.51554
G1 X40.64 Y33.47 E129.52710
G1 X40.06 Y33.65 E129.53884
G1 X39.47 Y33.70 E129.55042
G1 X38.87 Y33.65 E129.56200
G1 X38.30 Y33.47 E129.57366
G1 X37.76 Y33.19 E129.58533
G1 X37.30 Y32.81 E129.59699
G1 X36.92 Y32.34 E129.60856
G1 X36.64 Y31.82 E129.62013
G1 X36.46 Y31.24 E129.63187
G1 X36.40 Y30.64 E129.64345
G1 X36.46 Y30.05 E129.65504
G1 X36.64 Y29.47 E129.66670
G1 X36.92 Y28.94 E129.67837
G1 X37.30 Y28.48 E129.68997
G1 X37.77 Y28.10 E129.70163
G1 X38.30 Y27.81 E129.71325
G1 X38.87 Y27.64 E129.72487
G1 X39.47 Y27.58 E129.73649
G1 X40.06 Y27.64 E129.74812
G1 X40.63 Y27.81 E129.75969
G1 X41.17 Y28.10 E129.77145
G1 X41.63 Y28.48 E129.78296
G1 X42.01 Y28.94 E129.79462
G1 X42.30 Y29.47 E129.80629
G1 X42.47 Y30.05 E129.81794
G1 X42.53 Y30.64 E129.82951
G1 X42.47 Y31.24 E129.84111
G1 X42.29 Y31.82 E129.85285
G1 X42.01 Y32.34 E129.86441
G0 F12000 X41.91 Y32.25
G1 F600 X41.92 Y32.23 E129.86487
G1 X41.94 Y32.22 E129.86530
G1 X42.19 Y31.75 E129.87548
G1 X42.34 Y31.19 E129.88676
G1 X42.34 Y31.17 E129.88709
G1 X42.37 Y31.12 E129.88829
G1 X42.39 Y30.62 E129.89797
G1 X42.35 Y30.07 E129.90856
G1 X42.18 Y29.52 E129.91989
G1 X41.91 Y29.01 E129.93099
G1 X41.55 Y28.57 E129.94205
G1 X41.10 Y28.20 E129.95327
G1 X40.59 Y27.93 E129.96447
G1 X40.04 Y27.76 E129.97563
G1 X39.46 Y27.70 E129.98685
G1 X38.89 Y27.76 E129.99793
G1 X38.34 Y27.93 E130.00915
G1 X37.82 Y28.20 E130.02049
G1 X37.52 Y28.47 E130.02820
G1 X37.45 Y28.48 E130.02961
G1 X37.01 Y29.04 E130.04333
G1 X36.76 Y29.52 E130.05392
G1 X36.59 Y30.05 E130.06475
G1 X36.53 Y30.64 E130.07620
G1 X36.58 Y31.21 E130.08727
G1 X36.87 Y32.15 E130.10634
G1 X36.99 Y32.21 E130.10883
G1 X37.00 Y32.24 E130.10963
G1 X37.38 Y32.72 E130.12137
G1 X37.83 Y33.08 E130.13250
G1 X38.07 Y33.20 E130.13766
G1 X38.31 Y33.35 E130.14315
G1 X38.96 Y33.55 E130.15641
G1 X39.09 Y33.54 E130.15883
G1 X39.45 Y33.58 E130.16587
G1 X39.90 Y33.54 E130.17464
G1 X40.07 Y33.49 E130.17806
G1 X40.12 Y33.50 E130.17900
G1 X40.59 Y33.36 E130.18849
G1 X41.11 Y33.06 E130.20024
G1 X41.14 Y33.05 E130.20080
G1 X41.56 Y32.71 E130.21118
G1 X41.91 Y32.25 E130.22245
G0 F12000 X41.52 Y32.00
G1 F600 X41.55 Y31.93 E130.22390
G1 X41.57 Y31.91 E130.22441
G1 X41.75 Y31.58 E130.23178
G1 X41.88 Y31.11 E130.24123
G1 X41.89 Y31.04 E130.24265
G1 X41.91 Y30.99 E130.24360
G1 X41.92 Y30.63 E130.25066
G1 X41.89 Y30.16 E130.25975
G1 X41.75 Y29.69 E130.26920
G1 X41.52 Y29.27 E130.27851
G1 X41.22 Y28.90 E130.28780
G1 X40.84 Y28.59 E130.29725
G1 X40.41 Y28.36 E130.30665
G1 X39.95 Y28.22 E130.31604
G1 X39.46 Y28.17 E130.32548
G1 X38.98 Y28.22 E130.33478
G1 X38.52 Y28.36 E130.34422
G1 X38.09 Y28.59 E130.35368
G1 X37.74 Y28.89 E130.36259
G1 X37.71 Y28.90 E130.36311
G1 X37.40 Y29.29 E130.37277
G1 X37.19 Y29.70 E130.38174
G1 X37.05 Y30.15 E130.39092
G1 X37.00 Y30.64 E130.40046
G1 X37.04 Y31.12 E130.40976
G1 X37.25 Y31.82 E130.42385
G1 X37.33 Y31.85 E130.42542
G1 X37.40 Y31.99 E130.42847
G1 X37.72 Y32.39 E130.43833
G1 X38.08 Y32.69 E130.44748
G1 X38.50 Y32.92 E130.45676
G1 X39.02 Y33.07 E130.46718
G1 X39.10 Y33.07 E130.46889
G1 X39.45 Y33.11 E130.47576
G1 X39.82 Y33.08 E130.48281
G1 X40.02 Y33.02 E130.48695
G1 X40.06 Y33.03 E130.48775
G1 X40.41 Y32.93 E130.49470
G1 X40.70 Y32.77 E130.50113
G1 X40.86 Y32.67 E130.50479
G1 X40.90 Y32.63 E130.50573
G1 X40.92 Y32.63 E130.50621
G1 X41.22 Y32.38 E130.51369
G1 X41.52 Y32.00 E130.52314
G0 F12000 X42.40 Y32.60
G1 F600 X41.96 Y33.14 E130.53659
G1 X41.42 Y33.58 E130.55004
G1 X40.82 Y33.90 E130.56338
G1 X40.16 Y34.10 E130.57678
G1 X39.47 Y34.17 E130.59021
G1 X38.78 Y34.10 E130.60364
G1 X38.12 Y33.90 E130.61703
G1 X37.50 Y33.58 E130.63052
G1 X36.97 Y33.14 E130.64376
G1 X36.53 Y32.60 E130.65729
G1 X36.20 Y32.00 E130.67063
G1 X36.00 Y31.33 E130.68403
G1 X35.94 Y30.64 E130.69748
G1 X36.00 Y29.95 E130.71090
G1 X36.20 Y29.29 E130.72428
G1 X36.53 Y28.68 E130.73777
G1 X36.97 Y28.15 E130.75110
G1 X37.50 Y27.71 E130.76446
G1 X38.12 Y27.38 E130.77792
G1 X38.77 Y27.18 E130.79125
G1 X39.47 Y27.11 E130.80473
G1 X40.16 Y27.18 E130.81820
G1 X40.82 Y27.38 E130.83154
G1 X41.42 Y27.71 E130.84490
G1 X41.97 Y28.15 E130.85844
G1 X42.40 Y28.68 E130.87168
G1 X42.73 Y29.29 E130.88516
G1 X42.93 Y29.95 E130.89855
G1 X42.99 Y30.64 E130.91196
G1 X42.93 Y31.33 E130.92541
G1 X42.73 Y32.00 E130.93881
G1 X42.40 Y32.60 E130.95215
G0 F12000 X42.79 Y32.86
;TYPE:WALL-OUTER
G1 F600 X42.29 Y33.47 E130.96739
G1 X41.69 Y33.97 E130.98263
G1 X41.00 Y34.34 E130.99770
G1 X40.25 Y34.56 E131.01295
G1 X39.47 Y34.64 E131.02813
G1 X38.69 Y34.56 E131.04332
G1 X37.94 Y34.34 E131.05846
G1 X37.24 Y33.97 E131.07374
G1 X36.64 Y33.47 E131.08887
G1 X36.14 Y32.86 E131.10411
G1 X35.77 Y32.18 E131.11918
G1 X35.54 Y31.42 E131.13448
G1 X35.47 Y30.64 E131.14961
G1 X35.55 Y29.86 E131.16480
G1 X35.77 Y29.11 E131.17994
G1 X36.14 Y28.42 E131.19522
G1 X36.64 Y27.82 E131.21035
G1 X37.25 Y27.32 E131.22557
G1 X37.94 Y26.95 E131.24072
G1 X38.68 Y26.72 E131.25587
G1 X39.47 Y26.64 E131.27110
G1 X40.25 Y26.72 E131.28633
G1 X41.00 Y26.95 E131.30148
G1 X41.69 Y27.32 E131.31661
G1 X42.29 Y27.82 E131.33185
G1 X42.79 Y28.42 E131.34697
G1 X43.16 Y29.11 E131.36225
G1 X43.39 Y29.86 E131.37740
G1 X43.46 Y30.64 E131.39258
G1 X43.39 Y31.42 E131.40771
G1 X43.16 Y32.18 E131.42301
G1 X42.79 Y32.86 E131.43809
G0 F12000 X42.51 Y32.68
G0 X41.39 Y31.95
G0 X41.12 Y31.75
G1 F600 X41.18 Y31.63 E131.44058
G1 X41.21 Y31.61 E131.44113
G1 X41.32 Y31.41 E131.44568
G1 X41.42 Y31.03 E131.45331
G1 X41.43 Y30.90 E131.45578
G1 X41.45 Y30.87 E131.45648
G1 X41.46 Y30.64 E131.46094
G1 X41.43 Y30.25 E131.46854
G1 X41.31 Y29.87 E131.47611
G1 X41.13 Y29.53 E131.48361
G1 X40.88 Y29.23 E131.49114
G1 X40.58 Y28.98 E131.49883
G1 X40.23 Y28.79 E131.50643
G1 X39.86 Y28.68 E131.51404
G1 X39.46 Y28.64 E131.52169
G1 X39.08 Y28.68 E131.52924
G1 X38.70 Y28.79 E131.53685
G1 X38.35 Y28.98 E131.54447
G1 X38.05 Y29.24 E131.55211
G1 X37.99 Y29.31 E131.55398
G1 X37.98 Y29.32 E131.55432
G1 X37.80 Y29.54 E131.55990
G1 X37.63 Y29.88 E131.56726
G1 X37.50 Y30.25 E131.57477
G1 X37.47 Y30.64 E131.58244
G1 X37.50 Y31.03 E131.58996
G1 X37.64 Y31.48 E131.59907
G1 X37.67 Y31.49 E131.59975
G1 X37.79 Y31.74 E131.60502
G1 X38.05 Y32.06 E131.61298
G1 X38.34 Y32.29 E131.62014
G1 X38.69 Y32.49 E131.62806
G1 X39.07 Y32.60 E131.63565
G1 X39.11 Y32.60 E131.63654
G1 X39.46 Y32.64 E131.64334
G1 X39.74 Y32.62 E131.64867
G1 X39.98 Y32.55 E131.65359
G1 X40.01 Y32.56 E131.65419
G1 X40.23 Y32.49 E131.65861
G1 X40.46 Y32.37 E131.66371
G1 X40.67 Y32.22 E131.66874
G1 X40.70 Y32.21 E131.66928
G1 X40.88 Y32.06 E131.67388
G1 X41.12 Y31.75 E131.68149
G0 F12000 X41.79 Y32.25
;LAYER:7
G0 X41.74 Y32.16 Z1.00
;TYPE:WALL-INNER
G1 F600 X42.00 Y31.67 E131.69227
G1 X42.12 Y31.22 E131.70123
G1 X42.16 Y31.13 E131.70324
G1 X42.18 Y30.62 E131.71303
G1 X42.14 Y30.12 E131.72280
G1 X41.99 Y29.59 E131.73339
G1 X41.73 Y29.12 E131.74371
G1 X41.40 Y28.72 E131.75395
G1 X40.98 Y28.37 E131.76438
G1 X40.51 Y28.12 E131.77475
G1 X40.00 Y27.97 E131.78513
G1 X39.46 Y27.91 E131.79561
G1 X38.93 Y27.97 E131.80593
G1 X38.41 Y28.12 E131.81640
G1 X37.93 Y28.38 E131.82695
G1 X37.75 Y28.55 E131.83180
G1 X37.65 Y28.57 E131.83365
G1 X37.17 Y29.16 E131.84837
G1 X36.96 Y29.60 E131.85802
G1 X36.79 Y30.09 E131.86793
G1 X36.74 Y30.64 E131.87872
G1 X36.79 Y31.17 E131.88900
G1 X37.06 Y32.07 E131.90720
G1 X37.17 Y32.12 E131.90956
G1 X37.53 Y32.57 E131.92072
G1 X37.95 Y32.91 E131.93122
G1 X38.14 Y33.00 E131.93524
G1 X38.39 Y33.16 E131.94095
G1 X39.00 Y33.34 E131.95325
G1 X39.12 Y33.33 E131.95566
G1 X39.47 Y33.38 E131.96241
G1 X39.98 Y33.31 E131.97240
G1 X40.02 Y33.31 E131.97333
G1 X40.51 Y33.17 E131.98310
G1 X40.84 Y32.99 E131.99032
G1 X40.92 Y32.93 E131.99226
G1 X40.98 Y32.91 E131.99353
G1 X41.41 Y32.56 E132.00435
G1 X41.69 Y32.20 E132.01320
G1 X41.74 Y32.16 E132.01442
G0 F12000 X42.01 Y32.34
G1 F600 X41.63 Y32.81 E132.02605
G1 X41.17 Y33.19 E132.03768
G1 X40.64 Y33.47 E132.04924
G1 X40.06 Y33.65 E132.06098
G1 X39.47 Y33.70 E132.07257
G1 X38.87 Y33.65 E132.08415
G1 X38.30 Y33.47 E132.09581
G1 X37.76 Y33.19 E132.10747
G1 X37.30 Y32.81 E132.11913
G1 X36.92 Y32.34 E132.13071
G1 X36.64 Y31.82 E132.14227
G1 X36.46 Y31.24 E132.15405
G1 X36.40 Y30.64 E132.16560
G1 X36.46 Y30.05 E132.17718
G1 X36.64 Y29.47 E132.18885
G1 X36.92 Y28.94 E132.20051
G1 X37.30 Y28.48 E132.21212
G1 X37.77 Y28.10 E132.22378
G1 X38.30 Y27.81 E132.23540
G1 X38.87 Y27.64 E132.24701
G1 X39.47 Y27.58 E132.25864
G1 X40.06 Y27.64 E132.27026
G1 X40.63 Y27.81 E132.28184
G1 X41.17 Y28.10 E132.29360
G1 X41.63 Y28.48 E132.30511
G1 X42.01 Y28.94 E132.31676
G1 X42.30 Y29.47 E132.32843
G1 X42.47 Y30.05 E132.34009
G1 X42.53 Y30.64 E132.35165
G1 X42.47 Y31.24 E132.36322
G1 X42.29 Y31.82 E132.37500
G1 X42.01 Y32.34 E132.38656
G0 F12000 X42.40 Y32.60
G1 F600 X41.96 Y33.14 E132.40001
G1 X41.42 Y33.58 E132.41346
G1 X40.82 Y33.90 E132.42680
G1 X40.16 Y34.10 E132.44020
G1 X39.47 Y34.17 E132.45363
G1 X38.78 Y34.10 E132.46707
G1 X38.12 Y33.90 E132.48045
G1 X37.50 Y33.58 E132.49394
G1 X36.97 Y33.14 E132.50718
G1 X36.53 Y32.60 E132.52071
G1 X36.20 Y32.00 E132.53405
G1 X36.00 Y31.33 E132.54745
G1 X35.94 Y30.64 E132.56091
G1 X36.00 Y29.95 E132.57432
G1 X36.20 Y29.29 E132.58771
G1 X36.53 Y28.68 E132.60119
G1 X36.97 Y28.15 E132.61452
G1 X37.50 Y27.71 E132.62789
G1 X38.12 Y27.38 E132.64134
G1 X38.77 Y27.18 E132.65468
G1 X39.47 Y27.11 E132.66815
G1 X40.16 Y27.18 E132.68162
G1 X40.82 Y27.38 E132.69496
G1 X41.42 Y27.71 E132.70833
G1 X41.97 Y28.15 E132.72186
G1 X42.40 Y28.68 E132.73510
G1 X42.73 Y29.29 E132.74859
G1 X42.93 Y29.95 E132.76197
G1 X42.99 Y30.64 E132.77538
G1 X42.93 Y31.33 E132.78883
G1 X42.73 Y32.00 E132.80224
G1 X42.40 Y32.60 E132.81558
G0 F12000 X41.37 Y31.85
G1 F600 X41.56 Y31.50 E132.82344
G1 X41.67 Y31.07 E132.83200
G1 X41.67 Y31.05 E132.83226
G1 X41.70 Y31.00 E132.83335
G1 X41.71 Y30.63 E132.84062
G1 X41.68 Y30.20 E132.84891
G1 X41.55 Y29.77 E132.85760
G1 X41.35 Y29.39 E132.86613
G1 X41.07 Y29.05 E132.87460
G1 X40.72 Y28.76 E132.88327
G1 X40.33 Y28.55 E132.89186
G1 X39.91 Y28.43 E132.90044
G1 X39.46 Y28.38 E132.90914
G1 X39.02 Y28.43 E132.91767
G1 X38.60 Y28.56 E132.92632
G1 X38.20 Y28.77 E132.93501
G1 X37.96 Y28.98 E132.94121
G1 X37.91 Y28.99 E132.94222
G1 X37.57 Y29.41 E132.95265
G1 X37.39 Y29.78 E132.96071
G1 X37.25 Y30.19 E132.96903
G1 X37.20 Y30.64 E132.97787
G1 X37.25 Y31.08 E132.98637
G1 X37.45 Y31.73 E132.99961
G1 X37.52 Y31.77 E133.00115
G1 X37.57 Y31.87 E133.00338
G1 X37.86 Y32.24 E133.01255
G1 X38.20 Y32.52 E133.02097
G1 X38.58 Y32.73 E133.02941
G1 X39.05 Y32.87 E133.03892
G1 X39.14 Y32.86 E133.04063
G1 X39.47 Y32.91 E133.04702
G1 X39.92 Y32.84 E133.05590
G1 X39.94 Y32.84 E133.05633
G1 X39.97 Y32.84 E133.05690
G1 X40.33 Y32.73 E133.06417
G1 X40.59 Y32.59 E133.06986
G1 X40.71 Y32.51 E133.07271
G1 X40.76 Y32.49 E133.07376
G1 X41.08 Y32.23 E133.08167
G1 X41.35 Y31.87 E133.09049
G1 X41.37 Y31.85 E133.09102
G0 F12000 X41.00 Y31.55
;TYPE:WALL-OUTER
G1 F600 X41.12 Y31.32 E133.09598
G1 X41.21 Y30.99 E133.10277
G1 X41.22 Y30.92 E133.10405
G1 X41.24 Y30.88 E133.10483
G1 X41.25 Y30.64 E133.10958
G1 X41.22 Y30.29 E133.11640
G1 X41.12 Y29.95 E133.12318
G1 X40.96 Y29.65 E133.12992
G1 X40.74 Y29.38 E133.13662
G1 X40.46 Y29.15 E133.14353
G1 X40.15 Y28.99 E133.15032
G1 X39.82 Y28.88 E133.15712
G1 X39.46 Y28.85 E133.16403
G1 X39.12 Y28.88 E133.17079
G1 X38.78 Y28.99 E133.17762
G1 X38.47 Y29.15 E133.18445
G1 X38.20 Y29.39 E133.19131
G1 X38.18 Y29.41 E133.19187
G1 X38.17 Y29.41 E133.19221
G1 X37.97 Y29.66 E133.19834
G1 X37.82 Y29.96 E133.20484
G1 X37.71 Y30.29 E133.21154
G1 X37.67 Y30.64 E133.21845
G1 X37.71 Y30.99 E133.22517
G1 X37.83 Y31.40 E133.23346
G1 X37.86 Y31.41 E133.23419
G1 X37.96 Y31.62 E133.23861
G1 X38.20 Y31.91 E133.24584
G1 X38.45 Y32.12 E133.25219
G1 X38.58 Y32.18 E133.25486
G1 X38.77 Y32.30 E133.25935
G1 X39.10 Y32.40 E133.26607
G1 X39.16 Y32.39 E133.26706
G1 X39.47 Y32.44 E133.27312
G1 X39.82 Y32.39 E133.28003
G1 X39.88 Y32.37 E133.28134
G1 X39.92 Y32.37 E133.28196
G1 X40.15 Y32.30 E133.28673
G1 X40.34 Y32.20 E133.29089
G1 X40.50 Y32.08 E133.29468
G1 X40.54 Y32.07 E133.29549
G1 X40.74 Y31.91 E133.30047
G1 X40.95 Y31.63 E133.30732
G1 X40.98 Y31.57 E133.30854
G1 X41.00 Y31.55 E133.30914
G0 F12000 X41.30 Y31.71
G0 X42.51 Y32.68
G0 X42.79 Y32.86
G1 F600 X42.29 Y33.47 E133.32438
G1 X41.69 Y33.97 E133.33962
G1 X41.00 Y34.34 E133.35469
G1 X40.25 Y34.56 E133.36994
G1 X39.47 Y34.64 E133.38512
G1 X38.69 Y34.56 E133.40031
G1 X37.94 Y34.34 E133.41545
G1 X37.24 Y33.97 E133.43073
G1 X36.64 Y33.47 E133.44586
G1 X36.14 Y32.86 E133.46110
G1 X35.77 Y32.18 E133.47617
G1 X35.55 Y31.42 E133.49141
G1 X35.47 Y30.64 E133.50660
G1 X35.55 Y29.86 E133.52179
G1 X35.77 Y29.11 E133.53693
G1 X36.14 Y28.42 E133.55221
G1 X36.64 Y27.82 E133.56734
G1 X37.25 Y27.32 E133.58256
G1 X37.94 Y26.95 E133.59771
G1 X38.68 Y26.72 E133.61286
G1 X39.47 Y26.64 E133.62809
G1 X40.25 Y26.72 E133.64332
G1 X41.00 Y26.95 E133.65847
G1 X41.69 Y27.32 E133.67360
G1 X42.29 Y27.82 E133.68884
G1 X42.79 Y28.42 E133.70396
G1 X43.16 Y29.11 E133.71924
G1 X43.39 Y29.86 E133.73439
G1 X43.46 Y30.64 E133.74957
G1 X43.39 Y31.42 E133.76476
G1 X43.16 Y32.18 E133.78000
G1 X42.79 Y32.86 E133.79507
G0 F12000 X41.86 Y32.35
;LAYER:8
G0 X42.01 Y32.34 Z1.10
;TYPE:WALL-INNER
G1 F600 X41.63 Y32.81 E133.80671
G1 X41.17 Y33.19 E133.81834
G1 X40.64 Y33.47 E133.82990
G1 X40.06 Y33.65 E133.84164
G1 X39.47 Y33.70 E133.85322
G1 X38.87 Y33.65 E133.86481
G1 X38.30 Y33.47 E133.87646
G1 X37.76 Y33.19 E133.88813
G1 X37.30 Y32.81 E133.89979
G1 X36.92 Y32.34 E133.91137
G1 X36.64 Y31.82 E133.92293
G1 X36.46 Y31.24 E133.93467
G1 X36.40 Y30.64 E133.94626
G1 X36.46 Y30.05 E133.95784
G1 X36.64 Y29.47 E133.96950
G1 X36.92 Y28.94 E133.98117
G1 X37.30 Y28.48 E133.99278
G1 X37.77 Y28.10 E134.00443
G1 X38.30 Y27.81 E134.01606
G1 X38.87 Y27.64 E134.02767
G1 X39.47 Y27.58 E134.03930
G1 X40.06 Y27.64 E134.05092
G1 X40.63 Y27.81 E134.06249
G1 X41.17 Y28.10 E134.07426
G1 X41.63 Y28.48 E134.08576
G1 X42.01 Y28.94 E134.09742
G1 X42.30 Y29.47 E134.10909
G1 X42.47 Y30.05 E134.12075
G1 X42.53 Y30.64 E134.13227
G1 X42.47 Y31.24 E134.14391
G1 X42.29 Y31.82 E134.15565
G1 X42.01 Y32.34 E134.16722
G0 F12000 X41.54 Y32.09
G1 F600 X41.81 Y31.58 E134.17838
G1 X41.88 Y31.28 E134.18447
G1 X41.95 Y31.15 E134.18723
G1 X41.97 Y30.63 E134.19741
G1 X41.94 Y30.16 E134.20650
G1 X41.79 Y29.67 E134.21636
G1 X41.56 Y29.24 E134.22583
G1 X41.24 Y28.86 E134.23552
G1 X40.83 Y28.53 E134.24567
G1 X40.43 Y28.32 E134.25445
G1 X39.92 Y28.16 E134.26480
G1 X39.46 Y28.12 E134.27372
G1 X38.97 Y28.17 E134.28326
G1 X38.47 Y28.32 E134.29340
G1 X38.29 Y28.43 E134.29758
G1 X38.06 Y28.54 E134.30238
G1 X37.97 Y28.63 E134.30491
G1 X37.90 Y28.67 E134.30644
G1 X37.81 Y28.69 E134.30826
G1 X37.76 Y28.75 E134.30974
G1 X37.47 Y28.92 E134.31624
G1 X37.53 Y29.05 E134.31901
G1 X37.32 Y29.33 E134.32571
G1 X37.14 Y29.72 E134.33399
G1 X36.98 Y30.15 E134.34293
G1 X36.95 Y30.64 E134.35241
G1 X36.99 Y31.12 E134.36185
G1 X37.27 Y32.05 E134.38051
G1 X37.42 Y32.10 E134.38376
G1 X37.68 Y32.42 E134.39156
G1 X38.09 Y32.76 E134.40194
G1 X38.23 Y32.81 E134.40484
G1 X38.47 Y32.96 E134.41030
G1 X39.03 Y33.13 E134.42167
G1 X39.16 Y33.12 E134.42419
G1 X39.47 Y33.17 E134.43029
G1 X39.82 Y33.12 E134.43714
G1 X39.93 Y33.12 E134.43926
G1 X40.47 Y32.96 E134.45009
G1 X40.71 Y32.81 E134.45575
G1 X40.82 Y32.78 E134.45799
G1 X41.27 Y32.41 E134.46919
G1 X41.46 Y32.15 E134.47534
G1 X41.54 Y32.09 E134.47727
G0 F12000 X41.17 Y31.79
G1 F600 X41.37 Y31.41 E134.48551
G1 X41.45 Y31.11 E134.49160
G1 X41.49 Y31.03 E134.49336
G1 X41.50 Y30.63 E134.50102
G1 X41.48 Y30.24 E134.50861
G1 X41.36 Y29.85 E134.51653
G1 X41.17 Y29.50 E134.52423
G1 X40.92 Y29.19 E134.53205
G1 X40.58 Y28.92 E134.54045
G1 X40.25 Y28.75 E134.54754
G1 X39.85 Y28.62 E134.55580
G1 X39.46 Y28.59 E134.56325
G1 X39.06 Y28.63 E134.57099
G1 X38.66 Y28.75 E134.57913
