;-- START GCODE --
;Sliced for Type A Machines Series 1
;Sliced at: Thu 04-08-2016 23:28:03
;Basic settings: Layer height: 0.2 Walls: 1.5 Fill: 40
;Print Speed: 100 Support: 0
;Retraction Speed: 40 Retraction Distance: 1.2
;Print time: #P_TIME#
;Filament used: #F_AMNT#m #F_WGHT#g
;Filament cost: #F_COST#
M106 S255	 ;start with the fan on
G21        ;metric values
G90        ;absolute positioning
M106 S255    ;start with the fan on
G28     ;move to endstops
G29		;allows for auto-levelling
G1 X150 Y5  Z15.0 F6000 ;center and move the platform down 15mm
M109 S220 ;Heat To temp
G92 E0                  ;zero the extruded length
G1 F200 E30              ;extrude 30mm of feed stock
G92 E0                  ;zero the extruded length again
G1 X175 Y25  Z0 F6000 ;remove bugger
G1 X220 F6000 ;remove bugger
G1 X150 Y150  Z15 F6000 ;recenter and begin
G1 F6000

;Layer count: 125
;LAYER:0
M106 S255
G0 F6000 X122.35 Y85.30 Z0.30
;TYPE:SKIRT
G1 F2700 X140.11 Y85.30 E1.10769
G1 X139.52 Y92.79 E1.57652
G1 X139.82 Y96.40 E1.80227
G1 X140.67 Y99.81 E2.02169
G1 X142.03 Y102.89 E2.23113
G1 X143.79 Y105.48 E2.42648
G1 X145.82 Y107.50 E2.60520
G1 X148.01 Y108.91 E2.76739
G1 X150.25 Y109.74 E2.91672
G1 X152.50 Y110.00 E3.05791
G1 X154.75 Y109.74 E3.19885
G1 X156.99 Y108.91 E3.34804
G1 X159.18 Y107.50 E3.51037
G1 X161.21 Y105.48 E3.68909
G1 X162.97 Y102.89 E3.88444
G1 X164.33 Y99.81 E4.09388
G1 X165.18 Y96.40 E4.31330
G1 X165.48 Y92.81 E4.53818
G1 X164.86 Y85.30 E5.00804
G1 X182.63 Y85.30 E6.11635
G1 X183.28 Y92.80 E6.58579
G1 X182.77 Y98.77 E6.95929
G1 X182.71 Y99.42 E7.00037
G1 X181.24 Y105.11 E7.36700
G1 X181.07 Y105.77 E7.40936
G1 X178.38 Y111.66 E7.81292
G1 X175.07 Y116.38 E8.17261
G1 X174.64 Y117.00 E8.21947
G1 X174.38 Y117.24 E8.24161
G1 X181.97 Y121.30 E8.77840
G1 X182.67 Y121.68 E8.82751
G1 X190.28 Y127.92 E9.44188
G1 X190.89 Y128.43 E9.49101
G1 X197.13 Y136.02 E10.10396
G1 X197.63 Y136.64 E10.15358
G1 X202.29 Y145.35 E10.76936
G1 X202.66 Y146.04 E10.81854
G1 X206.21 Y157.75 E11.58151
G1 X187.94 Y157.75 E12.72094
G1 X186.42 Y152.75 E13.04653
G1 X183.03 Y146.40 E13.49561
G1 X178.46 Y140.84 E13.94407
G1 X172.90 Y136.28 E14.39303
G1 X166.55 Y132.88 E14.84199
G1 X160.33 Y131.00 E15.24707
G1 X144.67 Y131.00 E16.22411
G1 X138.45 Y132.88 E16.62899
G1 X132.10 Y136.28 E17.07792
G1 X126.54 Y140.84 E17.52705
G1 X121.97 Y146.40 E17.97552
G1 X118.58 Y152.75 E18.42460
G1 X117.06 Y157.75 E18.75019
G1 X98.79 Y157.75 E19.88962
G1 X102.35 Y146.03 E20.65330
G1 X106.99 Y137.34 E21.26785
G1 X107.36 Y136.66 E21.31628
G1 X113.62 Y129.02 E21.93206
G1 X114.12 Y128.41 E21.98119
G1 X121.73 Y122.17 E22.59525
G1 X122.33 Y121.67 E22.64381
G1 X130.62 Y117.25 E23.22954
G1 X130.36 Y117.00 E23.25208
G1 X127.05 Y112.28 E23.61128
G1 X126.65 Y111.71 E23.65464
G1 X123.95 Y105.81 E24.05951
G1 X122.45 Y100.04 E24.43103
G1 X122.28 Y99.40 E24.47230
G1 X121.78 Y93.45 E24.84442
G1 X121.72 Y92.83 E24.88386
G1 X122.35 Y85.30 E25.35481
G0 F6000 X122.81 Y85.80
G1 F2700 X139.57 Y85.80 E26.40013
G1 X139.02 Y92.79 E26.83744
G1 X139.32 Y96.49 E27.06876
G1 X140.20 Y99.97 E27.29302
G1 X141.59 Y103.13 E27.50816
G1 X143.40 Y105.80 E27.70934
G1 X145.51 Y107.89 E27.89437
G1 X147.78 Y109.36 E28.06332
G1 X150.13 Y110.22 E28.21942
G1 X152.50 Y110.51 E28.36821
G1 X154.87 Y110.22 E28.51674
G1 X157.22 Y109.36 E28.67278
G1 X159.49 Y107.89 E28.84178
G1 X161.60 Y105.80 E29.02686
G1 X163.41 Y103.13 E29.22804
G1 X164.80 Y99.97 E29.44318
G1 X165.68 Y96.49 E29.66744
G1 X165.98 Y92.80 E29.89801
G1 X165.40 Y85.80 E30.33620
G1 X182.17 Y85.80 E31.38202
G1 X182.77 Y92.80 E31.82017
G1 X182.28 Y98.72 E32.19091
G1 X182.22 Y99.34 E32.22936
G1 X180.75 Y104.99 E32.59342
G1 X180.59 Y105.60 E32.63301
G1 X177.94 Y111.41 E33.03107
G1 X174.66 Y116.10 E33.38781
G1 X174.26 Y116.67 E33.43167
G1 X173.54 Y117.36 E33.49373
G1 X181.74 Y121.74 E34.07340
G1 X182.39 Y122.09 E34.11944
G1 X189.97 Y128.31 E34.73075
G1 X190.53 Y128.78 E34.77683
G1 X196.74 Y136.34 E35.38681
G1 X197.22 Y136.92 E35.43337
G1 X201.84 Y145.58 E36.04593
G1 X202.19 Y146.23 E36.09205
G1 X205.53 Y157.25 E36.80998
G1 X188.31 Y157.25 E37.88424
G1 X186.88 Y152.56 E38.18969
G1 X183.44 Y146.13 E38.64479
G1 X178.82 Y140.49 E39.09977
G1 X173.18 Y135.86 E39.55471
G1 X166.74 Y132.42 E40.00990
G1 X160.41 Y130.50 E40.42259
G1 X144.59 Y130.50 E41.40873
G1 X138.26 Y132.42 E41.82151
G1 X131.82 Y135.86 E42.27666
G1 X126.18 Y140.49 E42.73160
G1 X121.56 Y146.13 E43.18658
G1 X118.12 Y152.56 E43.64168
G1 X116.69 Y157.25 E43.94713
G1 X99.47 Y157.25 E45.02139
G1 X102.81 Y146.22 E45.73997
G1 X107.43 Y137.58 E46.35143
G1 X107.77 Y136.93 E46.39687
G1 X114.01 Y129.34 E47.00946
G1 X114.48 Y128.77 E47.05553
G1 X122.05 Y122.56 E47.66653
G1 X122.61 Y122.09 E47.71212
G1 X131.36 Y117.41 E48.33080
G1 X131.46 Y117.36 E48.33783
G1 X130.74 Y116.67 E48.40055
G1 X127.47 Y112.01 E48.75536
G1 X127.08 Y111.46 E48.79725
G1 X124.42 Y105.64 E49.19648
G1 X122.93 Y99.92 E49.56531
G1 X122.77 Y99.32 E49.60393
G1 X122.28 Y93.41 E49.97335
G1 X122.23 Y92.82 E50.01023
G1 X122.81 Y85.80 E50.44983
G0 F6000 X123.27 Y86.30
G1 F2700 X139.03 Y86.30 E51.43272
G1 X138.52 Y92.80 E51.83919
G1 X138.83 Y96.56 E52.07488
G1 X139.72 Y100.14 E52.30492
G1 X141.15 Y103.37 E52.52519
G1 X143.01 Y106.12 E52.73219
G1 X145.19 Y108.28 E52.92366
G1 X147.56 Y109.81 E53.09928
G1 X150.02 Y110.72 E53.26270
G1 X152.50 Y111.01 E53.41871
G1 X154.98 Y110.72 E53.57441
G1 X157.44 Y109.81 E53.73781
G1 X159.81 Y108.28 E53.91352
G1 X161.99 Y106.12 E54.10499
G1 X163.85 Y103.37 E54.31198
G1 X165.28 Y100.14 E54.53225
G1 X166.17 Y96.56 E54.76235
G1 X166.48 Y92.81 E54.99730
G1 X165.94 Y86.30 E55.40458
G1 X181.71 Y86.30 E56.38798
G1 X182.27 Y92.80 E56.79490
G1 X181.78 Y98.68 E57.16283
G1 X181.72 Y99.25 E57.19859
G1 X180.27 Y104.86 E57.56013
G1 X180.12 Y105.43 E57.59701
G1 X177.50 Y111.16 E57.98951
G1 X174.25 Y115.81 E58.34335
G1 X173.88 Y116.34 E58.38411
G1 X172.66 Y117.52 E58.48979
G1 X172.97 Y117.62 E58.51016
G1 X181.50 Y122.18 E59.11380
G1 X182.11 Y122.51 E59.15672
G1 X189.65 Y128.70 E59.76497
G1 X190.18 Y129.14 E59.80798
G1 X196.35 Y136.66 E60.41499
G1 X196.80 Y137.20 E60.45841
G1 X201.40 Y145.82 E61.06788
G1 X201.73 Y146.43 E61.11092
G1 X204.86 Y156.75 E61.78377
G1 X188.68 Y156.75 E62.79286
G1 X187.35 Y152.37 E63.07837
G1 X183.86 Y145.85 E63.53950
G1 X179.17 Y140.13 E64.00069
G1 X173.46 Y135.44 E64.46174
G1 X166.94 Y131.96 E64.92287
G1 X160.48 Y130.00 E65.34339
G1 X144.52 Y130.00 E66.33889
G1 X138.07 Y131.96 E66.75922
G1 X131.54 Y135.44 E67.22060
G1 X125.83 Y140.13 E67.68165
G1 X121.14 Y145.85 E68.14284
G1 X117.65 Y152.37 E68.60396
G1 X116.32 Y156.75 E68.88947
G1 X100.14 Y156.75 E69.89856
G1 X103.28 Y146.42 E70.57206
G1 X107.87 Y137.81 E71.18039
G1 X108.19 Y137.21 E71.22282
G1 X114.39 Y129.66 E71.83227
G1 X114.83 Y129.12 E71.87529
G1 X122.37 Y122.94 E72.48323
G1 X122.37 Y122.94 E72.48329
G1 X122.89 Y122.51 E72.52582
G1 X131.59 Y117.86 E73.14096
G1 X132.22 Y117.55 E73.18480
G1 X132.34 Y117.51 E73.19249
G1 X131.12 Y116.34 E73.29795
G1 X127.87 Y111.70 E73.65103
G1 X127.52 Y111.21 E73.68884
G1 X124.90 Y105.47 E74.08244
G1 X123.42 Y99.79 E74.44850
G1 X123.27 Y99.23 E74.48447
G1 X122.78 Y93.37 E74.85120
G1 X122.73 Y92.82 E74.88558
G1 X123.27 Y86.30 E75.29375
G0 F6000 X123.73 Y86.80
G1 F2700 X138.49 Y86.80 E76.21423
G1 X138.02 Y92.80 E76.58955
G1 X138.33 Y96.65 E76.83038
G1 X139.25 Y100.30 E77.06536
G1 X140.71 Y103.62 E77.29150
G1 X142.63 Y106.44 E77.50392
G1 X144.88 Y108.67 E77.70165
G1 X147.34 Y110.26 E77.88436
G1 X149.90 Y111.20 E78.05460
G1 X152.50 Y111.51 E78.21808
G1 X155.10 Y111.20 E78.38143
G1 X157.66 Y110.26 E78.55162
G1 X160.12 Y108.68 E78.73401
G1 X162.37 Y106.44 E78.93201
G1 X164.29 Y103.62 E79.14443
G1 X165.75 Y100.30 E79.37057
G1 X166.67 Y96.65 E79.60555
G1 X166.98 Y92.81 E79.84589
G1 X166.49 Y86.80 E80.22182
G1 X181.25 Y86.80 E81.14273
G1 X181.77 Y92.80 E81.51835
G1 X181.28 Y98.63 E81.88346
G1 X181.23 Y99.16 E81.91666
G1 X179.79 Y104.74 E82.27562
G1 X179.65 Y105.27 E82.30972
G1 X177.07 Y110.91 E82.69667
G1 X173.84 Y115.52 E83.04763
G1 X173.50 Y116.02 E83.08540
G1 X171.70 Y117.74 E83.24070
G1 X172.22 Y117.90 E83.27426
G1 X172.77 Y118.08 E83.31055
G1 X181.26 Y122.62 E83.91148
G1 X181.83 Y122.93 E83.95135
G1 X189.33 Y129.08 E84.55655
G1 X189.82 Y129.49 E84.59650
G1 X195.98 Y136.99 E85.20134
G1 X196.38 Y137.48 E85.24086
G1 X200.96 Y146.05 E85.84715
G1 X201.26 Y146.62 E85.88710
G1 X204.18 Y156.25 E86.51491
G1 X189.05 Y156.25 E87.45883
G1 X187.81 Y152.18 E87.72408
G1 X184.28 Y145.57 E88.19148
G1 X179.53 Y139.78 E88.65883
G1 X173.73 Y135.02 E89.12612
G1 X167.12 Y131.49 E89.59353
G1 X160.56 Y129.50 E90.02155
G1 X144.45 Y129.50 E91.02621
G1 X137.87 Y131.49 E91.45449
G1 X131.27 Y135.02 E91.92164
G1 X125.47 Y139.78 E92.38907
G1 X120.72 Y145.57 E92.85641
G1 X117.19 Y152.18 E93.32382
G1 X115.95 Y156.25 E93.58906
G1 X100.82 Y156.25 E94.53298
G1 X103.74 Y146.61 E95.16139
G1 X108.31 Y138.06 E95.76547
G1 X108.61 Y137.49 E95.80606
G1 X114.78 Y129.97 E96.41232
G1 X115.19 Y129.48 E96.45228
G1 X122.69 Y123.33 E97.05721
G1 X123.17 Y122.92 E97.09668
G1 X131.82 Y118.30 E97.70816
G1 X132.41 Y118.01 E97.74896
G1 X133.30 Y117.74 E97.80742
G1 X131.50 Y116.01 E97.96325
G1 X128.29 Y111.43 E98.31211
G1 X127.95 Y110.96 E98.34818
G1 X125.37 Y105.30 E98.73617
G1 X123.90 Y99.66 E99.09953
G1 X123.76 Y99.15 E99.13285
G1 X123.28 Y93.33 E99.49689
G1 X123.23 Y92.82 E99.52870
G1 X123.73 Y86.80 E99.90553
G0 F6000 X124.19 Y87.30
G1 F2700 X137.95 Y87.30 E100.76358
G1 X137.52 Y92.79 E101.10730
G1 X137.84 Y96.73 E101.35370
G1 X138.78 Y100.47 E101.59390
G1 X140.27 Y103.86 E101.82501
G1 X142.24 Y106.76 E102.04376
G1 X144.56 Y109.06 E102.24762
G1 X147.11 Y110.71 E102.43695
G1 X149.78 Y111.69 E102.61457
G1 X152.50 Y112.02 E102.78528
G1 X155.22 Y111.69 E102.95573
G1 X157.89 Y110.72 E103.13314
G1 X160.44 Y109.06 E103.32274
G1 X162.76 Y106.76 E103.52656
G1 X164.73 Y103.86 E103.74531
G1 X166.22 Y100.47 E103.97642
G1 X167.16 Y96.73 E104.21662
G1 X167.48 Y92.80 E104.46258
G1 X167.03 Y87.30 E104.80685
G1 X180.80 Y87.30 E105.66527
G1 X181.27 Y92.80 E106.00960
G1 X180.78 Y98.59 E106.37195
G1 X180.74 Y99.08 E106.40252
G1 X179.30 Y104.61 E106.75891
G1 X179.18 Y105.10 E106.79030
G1 X176.63 Y110.66 E107.17170
G1 X173.44 Y115.23 E107.51975
G1 X173.12 Y115.69 E107.55443
G1 X170.74 Y117.97 E107.76001
G1 X172.06 Y118.37 E107.84636
G1 X172.57 Y118.54 E107.87961
G1 X181.03 Y123.06 E108.47781
G1 X181.55 Y123.34 E108.51464
G1 X189.01 Y129.47 E109.11674
G1 X189.47 Y129.84 E109.15360
G1 X195.58 Y137.30 E109.75471
G1 X195.96 Y137.76 E109.79193
G1 X200.52 Y146.29 E110.39504
G1 X200.80 Y146.81 E110.43198
G1 X203.51 Y155.75 E111.01469
G1 X189.42 Y155.75 E111.89350
G1 X188.28 Y151.99 E112.13892
G1 X184.70 Y145.29 E112.61250
G1 X179.88 Y139.42 E113.08556
G1 X174.01 Y134.61 E113.55914
G1 X167.32 Y131.03 E114.03249
G1 X160.63 Y129.00 E114.46847
G1 X144.71 Y129.00 E115.46153
G1 X144.70 Y128.90 E115.46784
G1 X137.69 Y131.03 E115.92506
G1 X130.99 Y134.61 E116.39874
G1 X125.12 Y139.42 E116.87233
G1 X120.30 Y145.29 E117.34539
G1 X116.72 Y151.99 E117.81896
G1 X115.58 Y155.75 E118.06438
G1 X101.49 Y155.75 E118.94319
G1 X104.20 Y146.80 E119.52644
G1 X108.76 Y138.28 E120.12868
G1 X109.03 Y137.77 E120.16503
G1 X115.17 Y130.29 E120.76818
G1 X115.54 Y129.84 E120.80504
G1 X123.00 Y123.71 E121.40696
G1 X123.45 Y123.34 E121.44338
G1 X132.05 Y118.75 E122.05126
G1 X132.59 Y118.48 E122.08897
G1 X134.27 Y117.97 E122.19818
G1 X131.88 Y115.69 E122.40425
G1 X128.69 Y111.13 E122.75119
G1 X128.39 Y110.71 E122.78332
G1 X125.84 Y105.13 E123.16567
G1 X124.39 Y99.54 E123.52599
G1 X124.38 Y99.54 E123.52605
G1 X124.26 Y99.06 E123.55706
G1 X123.77 Y93.29 E123.91841
G1 X123.77 Y93.29 E123.91847
G1 X123.73 Y92.82 E123.94777
G1 X124.19 Y87.30 E124.29319
G0 F6000 X124.65 Y87.80
G1 F2700 X137.41 Y87.80 E125.08881
G1 X137.02 Y92.80 E125.40170
G1 X137.34 Y96.81 E125.65248
G1 X138.30 Y100.63 E125.89814
G1 X139.83 Y104.10 E126.13486
G1 X141.86 Y107.08 E126.35963
G1 X144.24 Y109.45 E126.56940
G1 X146.89 Y111.16 E126.76563
G1 X149.66 Y112.18 E126.95022
G1 X152.50 Y112.52 E127.12839
G1 X155.34 Y112.18 E127.30644
G1 X158.11 Y111.17 E127.49078
G1 X160.76 Y109.45 E127.68714
G1 X163.14 Y107.08 E127.89692
G1 X165.17 Y104.10 E128.12169
G1 X166.70 Y100.63 E128.35840
G1 X167.66 Y96.81 E128.60407
G1 X167.98 Y92.81 E128.85459
G1 X167.57 Y87.80 E129.16783
G1 X180.34 Y87.80 E129.96383
G1 X180.77 Y92.80 E130.27692
G1 X180.28 Y98.55 E130.63646
G1 X180.24 Y98.99 E130.66433
G1 X178.82 Y104.48 E131.01820
G1 X178.70 Y104.93 E131.04683
G1 X176.20 Y110.41 E131.42274
G1 X173.03 Y114.95 E131.76788
G1 X172.73 Y115.36 E131.79951
G1 X169.78 Y118.20 E132.05529
G1 X171.91 Y118.85 E132.19449
G1 X172.37 Y119.00 E132.22460
G1 X180.79 Y123.50 E132.82015
G1 X181.27 Y123.76 E132.85389
G1 X188.69 Y129.86 E133.45297
G1 X189.11 Y130.20 E133.48677
G1 X195.20 Y137.61 E134.08488
G1 X195.54 Y138.04 E134.11899
G1 X200.08 Y146.52 E134.71898
G1 X200.33 Y147.00 E134.75279
G1 X202.84 Y155.25 E135.29048
G1 X189.79 Y155.25 E136.10413
G1 X188.74 Y151.79 E136.32940
G1 X185.12 Y145.01 E136.80897
G1 X180.24 Y139.07 E137.28841
G1 X174.29 Y134.19 E137.76834
G1 X167.51 Y130.56 E138.24744
G1 X160.71 Y128.50 E138.69124
G1 X145.18 Y128.50 E139.65930
G1 X145.17 Y128.30 E139.67179
G1 X144.85 Y128.33 E139.69197
G1 X137.49 Y130.56 E140.17154
G1 X130.71 Y134.19 E140.65102
G1 X124.76 Y139.07 E141.13095
G1 X119.88 Y145.01 E141.61039
G1 X116.26 Y151.79 E142.08996
G1 X115.21 Y155.25 E142.31524
G1 X102.16 Y155.25 E143.12889
G1 X104.67 Y146.99 E143.66703
G1 X109.20 Y138.52 E144.26618
G1 X109.45 Y138.05 E144.29955
G1 X115.55 Y130.61 E144.89955
G1 X115.89 Y130.19 E144.93331
G1 X123.31 Y124.11 E145.53146
G1 X123.73 Y123.76 E145.56558
G1 X132.28 Y119.19 E146.16983
G1 X132.78 Y118.95 E146.20453
G1 X135.23 Y118.20 E146.36452
G1 X132.26 Y115.36 E146.62083
G1 X129.10 Y110.84 E146.96472
G1 X128.82 Y110.46 E146.99403
G1 X126.31 Y104.97 E147.37078
G1 X124.87 Y99.41 E147.72878
G1 X124.75 Y98.98 E147.75676
G1 X124.27 Y93.25 E148.11536
G1 X124.23 Y92.82 E148.14215
G1 X124.65 Y87.80 E148.45622
G0 F6000 X125.11 Y88.30
G1 F2700 X136.87 Y88.30 E149.18942
G1 X136.51 Y92.80 E149.47078
G1 X136.85 Y96.89 E149.72713
G1 X137.82 Y100.79 E149.97762
G1 X139.40 Y104.35 E150.22023
G1 X141.47 Y107.40 E150.45024
G1 X143.93 Y109.85 E150.66681
G1 X146.66 Y111.61 E150.86949
G1 X149.55 Y112.67 E151.06140
G1 X152.50 Y113.03 E151.24686
G1 X155.45 Y112.67 E151.43206
G1 X158.34 Y111.61 E151.62378
G1 X161.07 Y109.85 E151.82668
G1 X163.53 Y107.40 E152.04324
G1 X165.60 Y104.35 E152.27326
G1 X167.18 Y100.79 E152.51587
G1 X168.15 Y96.89 E152.76636
G1 X168.49 Y92.81 E153.02221
G1 X168.12 Y88.30 E153.30416
G1 X179.88 Y88.30 E154.03767
G1 X180.26 Y92.80 E154.31946
G1 X179.78 Y98.50 E154.67625
G1 X179.75 Y98.91 E154.70149
G1 X178.34 Y104.36 E155.05278
G1 X178.23 Y104.76 E155.07871
G1 X175.76 Y110.16 E155.44906
G1 X172.62 Y114.66 E155.79125
G1 X172.35 Y115.03 E155.81984
G1 X168.81 Y118.43 E156.12593
G1 X171.76 Y119.33 E156.31799
G1 X172.17 Y119.46 E156.34506
G1 X180.56 Y123.95 E156.93788
G1 X180.99 Y124.18 E156.96860
G1 X188.38 Y130.24 E157.56462
G1 X188.76 Y130.56 E157.59532
G1 X194.81 Y137.93 E158.19046
G1 X195.13 Y138.32 E158.22151
G1 X199.64 Y146.76 E158.81828
G1 X199.87 Y147.19 E158.84908
G1 X202.16 Y154.75 E159.34168
G1 X190.16 Y154.75 E160.09016
G1 X189.20 Y151.60 E160.29557
G1 X185.53 Y144.73 E160.78116
G1 X180.59 Y138.71 E161.26690
G1 X174.57 Y133.77 E161.75258
G1 X167.71 Y130.10 E162.23809
G1 X160.78 Y128.00 E162.68951
G1 X145.66 Y128.00 E163.63250
G1 X145.65 Y127.75 E163.64798
G1 X144.75 Y127.84 E163.70432
G1 X137.30 Y130.10 E164.18963
G1 X130.43 Y133.77 E164.67561
G1 X124.41 Y138.71 E165.16121
G1 X119.47 Y144.73 E165.64694
G1 X115.80 Y151.60 E166.13254
G1 X114.84 Y154.75 E166.33795
G1 X102.84 Y154.75 E167.08643
G1 X105.13 Y147.19 E167.57948
G1 X109.63 Y138.77 E168.17466
G1 X109.87 Y138.33 E168.20588
G1 X115.94 Y130.93 E168.80270
G1 X116.25 Y130.55 E168.83340
G1 X123.64 Y124.49 E169.42925
G1 X124.01 Y124.18 E169.45960
G1 X132.51 Y119.64 E170.06026
G1 X132.96 Y119.41 E170.09185
G1 X136.19 Y118.43 E170.30261
G1 X132.64 Y115.03 E170.60916
G1 X129.50 Y110.56 E170.95001
G1 X129.26 Y110.21 E170.97650
G1 X126.79 Y104.80 E171.34760
G1 X125.35 Y99.28 E171.70291
G1 X125.35 Y99.28 E171.70297
G1 X125.25 Y98.89 E171.72825
G1 X124.77 Y93.20 E172.08422
G1 X124.73 Y92.82 E172.10851
G1 X125.11 Y88.30 E172.39117
G0 F6000 X125.57 Y88.80
G1 F2700 X136.32 Y88.80 E173.06195
G1 X136.01 Y92.80 E173.31215
G1 X136.35 Y96.98 E173.57350
G1 X137.35 Y100.96 E173.82945
G1 X138.96 Y104.59 E174.07720
G1 X141.08 Y107.72 E174.31301
G1 X143.62 Y110.24 E174.53610
G1 X146.44 Y112.06 E174.74551
G1 X149.43 Y113.16 E174.94420
G1 X152.50 Y113.53 E175.13726
G1 X155.57 Y113.16 E175.32995
G1 X158.56 Y112.06 E175.52882
G1 X161.38 Y110.24 E175.73818
G1 X163.92 Y107.72 E175.96127
G1 X166.04 Y104.59 E176.19708
G1 X167.65 Y100.96 E176.44482
G1 X168.65 Y96.98 E176.70077
G1 X168.99 Y92.80 E176.96200
G1 X168.66 Y88.80 E177.21241
G1 X179.42 Y88.80 E177.88349
G1 X179.76 Y92.80 E178.13405
G1 X179.29 Y98.46 E178.48803
G1 X179.25 Y98.82 E178.51057
G1 X177.85 Y104.23 E178.85930
G1 X177.76 Y104.59 E178.88250
G1 X175.33 Y109.91 E179.24738
G1 X172.21 Y114.37 E179.58670
G1 X171.97 Y114.71 E179.61217
G1 X168.18 Y118.35 E179.93996
G1 X167.88 Y118.64 E179.96638
G1 X167.84 Y118.66 E179.96879
G1 X171.61 Y119.80 E180.21409
G1 X171.97 Y119.92 E180.23815
G1 X180.32 Y124.39 E180.82829
G1 X180.71 Y124.60 E180.85591
G1 X188.06 Y130.63 E181.44883
G1 X188.40 Y130.91 E181.47648
G1 X194.43 Y138.25 E182.06864
G1 X194.71 Y138.60 E182.09660
G1 X199.20 Y146.99 E182.69022
G1 X199.41 Y147.38 E182.71789
G1 X201.49 Y154.25 E183.16547
G1 X190.53 Y154.25 E183.84878
G1 X189.67 Y151.41 E184.03420
G1 X185.95 Y144.45 E184.52579
G1 X180.95 Y138.36 E185.01768
G1 X174.85 Y133.35 E185.50961
G1 X167.90 Y129.64 E186.00121
G1 X160.85 Y127.50 E186.46032
G1 X146.13 Y127.50 E187.37830
G1 X146.12 Y127.20 E187.39684
G1 X144.65 Y127.35 E187.48858
G1 X137.11 Y129.63 E187.98039
G1 X130.15 Y133.35 E188.47240
G1 X124.05 Y138.36 E188.96424
G1 X119.05 Y144.45 E189.45613
G1 X115.33 Y151.41 E189.94773
G1 X114.47 Y154.25 E190.13315
G1 X103.51 Y154.25 E190.81646
G1 X105.60 Y147.38 E191.26443
G1 X110.08 Y138.99 E191.85741
G1 X110.28 Y138.60 E191.88472
G1 X116.32 Y131.25 E192.47835
G1 X116.61 Y130.90 E192.50599
G1 X123.95 Y124.87 E193.09878
G1 X124.29 Y124.59 E193.12616
G1 X132.74 Y120.08 E193.72321
G1 X133.15 Y119.88 E193.75172
G1 X137.16 Y118.66 E194.01329
G1 X133.02 Y114.70 E194.37026
G1 X129.92 Y110.28 E194.70721
G1 X129.92 Y110.28 E194.70728
G1 X129.69 Y109.96 E194.73176
G1 X127.26 Y104.63 E195.09723
G1 X125.83 Y99.16 E195.44977
G1 X125.74 Y98.81 E195.47240
G1 X125.27 Y93.16 E195.82567
G1 X125.24 Y92.81 E195.84740
G1 X125.57 Y88.80 E196.09870
G0 F6000 X126.03 Y89.30
G1 F2700 X135.78 Y89.30 E196.70705
G1 X135.51 Y92.80 E196.92611
G1 X135.86 Y97.06 E197.19228
G1 X136.88 Y101.12 E197.45351
G1 X138.52 Y104.83 E197.70692
G1 X140.69 Y108.04 E197.94875
G1 X143.30 Y110.63 E198.17766
G1 X146.21 Y112.52 E198.39406
G1 X149.32 Y113.65 E198.60015
G1 X152.50 Y114.03 E198.80018
G1 X155.69 Y113.65 E199.00028
G1 X158.79 Y112.52 E199.20612
G1 X161.70 Y110.63 E199.42260
G1 X164.31 Y108.04 E199.65151
G1 X166.48 Y104.83 E199.89334
G1 X168.12 Y101.12 E200.14675
G1 X169.14 Y97.06 E200.40798
G1 X169.49 Y92.81 E200.67390
G1 X169.20 Y89.30 E200.89328
G1 X178.96 Y89.30 E201.50194
G1 X179.26 Y92.80 E201.72120
G1 X178.79 Y98.41 E202.07242
G1 X178.76 Y98.73 E202.09233
G1 X177.37 Y104.11 E202.43849
G1 X177.28 Y104.42 E202.45898
G1 X174.89 Y109.66 E202.81831
G1 X171.80 Y114.08 E203.15467
G1 X171.59 Y114.38 E203.17709
G1 X167.84 Y117.99 E203.50193
G1 X167.57 Y118.25 E203.52518
G1 X166.87 Y118.68 E203.57645
G1 X166.87 Y118.89 E203.58942
G1 X171.46 Y120.28 E203.88834
G1 X171.78 Y120.39 E203.90924
G1 X180.08 Y124.83 E204.49673
G1 X180.43 Y125.01 E204.52126
G1 X187.74 Y131.01 E205.11117
G1 X188.05 Y131.26 E205.13576
G1 X194.04 Y138.57 E205.72491
G1 X194.04 Y138.57 E205.72497
G1 X194.29 Y138.88 E205.74978
G1 X198.76 Y147.23 E206.34028
G1 X198.94 Y147.57 E206.36491
G1 X200.81 Y153.75 E206.76739
G1 X190.90 Y153.75 E207.38553
G1 X190.13 Y151.22 E207.55073
G1 X186.37 Y144.18 E208.04863
G1 X181.30 Y138.00 E208.54669
G1 X175.13 Y132.94 E209.04469
G1 X168.09 Y129.17 E209.54259
G1 X160.45 Y126.85 E210.04049
G1 X160.44 Y127.00 E210.04961
G1 X146.61 Y127.00 E210.91227
G1 X146.59 Y126.65 E210.93394
G1 X144.56 Y126.85 E211.06158
G1 X136.92 Y129.17 E211.55940
G1 X129.87 Y132.94 E212.05764
G1 X123.70 Y138.00 E212.55564
G1 X118.63 Y144.18 E213.05370
G1 X114.87 Y151.22 E213.55160
G1 X114.10 Y153.75 E213.71680
G1 X104.19 Y153.75 E214.33494
G1 X106.06 Y147.57 E214.73781
G1 X110.52 Y139.23 E215.32769
G1 X110.70 Y138.88 E215.35196
G1 X116.71 Y131.56 E215.94249
G1 X116.96 Y131.26 E215.96708
G1 X124.26 Y125.27 E216.55628
G1 X124.26 Y125.27 E216.55634
G1 X124.57 Y125.01 E216.58111
G1 X132.96 Y120.53 E217.17457
G1 X133.33 Y120.34 E217.20003
G1 X138.13 Y118.89 E217.51296
G1 X138.13 Y118.68 E217.52587
G1 X137.47 Y118.27 E217.57468
G1 X133.41 Y114.38 E217.92543
G1 X130.32 Y109.98 E218.26010
G1 X130.13 Y109.71 E218.28100
G1 X127.73 Y104.46 E218.64089
G1 X126.32 Y99.03 E218.99070
G1 X126.24 Y98.72 E219.01068
G1 X125.77 Y93.12 E219.36127
G1 X125.77 Y93.12 E219.36134
G1 X125.74 Y92.81 E219.38056
G1 X126.03 Y89.30 E219.60045
G0 F6000 X126.49 Y89.80
G1 F2700 X135.24 Y89.80 E220.14638
G1 X135.01 Y92.80 E220.33422
G1 X135.36 Y97.14 E220.60552
G1 X136.40 Y101.28 E220.87175
G1 X138.08 Y105.08 E221.13075
G1 X140.31 Y108.37 E221.37855
G1 X142.99 Y111.02 E221.61372
G1 X145.99 Y112.96 E221.83662
G1 X149.19 Y114.14 E222.04966
G1 X152.50 Y114.53 E222.25742
G1 X155.80 Y114.14 E222.46479
G1 X159.01 Y112.96 E222.67803
G1 X162.01 Y111.02 E222.90088
G1 X164.69 Y108.37 E223.13605
G1 X166.92 Y105.08 E223.38385
G1 X168.60 Y101.28 E223.64284
G1 X169.64 Y97.14 E223.90908
G1 X169.99 Y92.81 E224.18020
G1 X169.74 Y89.80 E224.36829
G1 X178.50 Y89.80 E224.91446
G1 X178.76 Y92.80 E225.10249
G1 X178.29 Y98.37 E225.45089
G1 X178.27 Y98.64 E225.46811
G1 X176.88 Y103.98 E225.81176
G1 X176.81 Y104.25 E225.82948
G1 X174.45 Y109.41 E226.18326
G1 X171.39 Y113.80 E226.51676
G1 X171.21 Y114.05 E226.53614
G1 X167.49 Y117.62 E226.85794
G1 X167.26 Y117.85 E226.87800
G1 X166.37 Y118.40 E226.94331
G1 X166.37 Y119.26 E226.99663
G1 X171.31 Y120.76 E227.31824
G1 X171.58 Y120.85 E227.33612
G1 X179.85 Y125.27 E227.92088
G1 X180.15 Y125.43 E227.94233
G1 X187.42 Y131.40 E228.52919
G1 X187.69 Y131.62 E228.55072
G1 X193.66 Y138.89 E229.13734
G1 X193.88 Y139.16 E229.15865
G1 X198.31 Y147.46 E229.74597
G1 X198.48 Y147.77 E229.76751
G1 X200.14 Y153.25 E230.12494
G1 X191.27 Y153.25 E230.67785
G1 X190.60 Y151.02 E230.82319
G1 X186.79 Y143.90 E231.32681
G1 X181.66 Y137.65 E231.83124
G1 X175.41 Y132.51 E232.33563
G1 X168.28 Y128.71 E232.83925
G1 X160.54 Y126.36 E233.34371
G1 X159.97 Y126.30 E233.37943
G1 X159.96 Y126.50 E233.39161
G1 X147.09 Y126.50 E234.19478
G1 X147.06 Y126.10 E234.21950
G1 X144.46 Y126.36 E234.38293
G1 X136.72 Y128.71 E234.88707
G1 X129.59 Y132.51 E235.39102
G1 X123.34 Y137.65 E235.89541
G1 X118.21 Y143.90 E236.39984
G1 X114.40 Y151.02 E236.90346
G1 X113.73 Y153.25 E237.04880
G1 X104.86 Y153.25 E237.60170
G1 X106.53 Y147.76 E237.95940
G1 X110.96 Y139.47 E238.54568
G1 X110.96 Y139.47 E238.54575
G1 X111.12 Y139.16 E238.56765
G1 X117.09 Y131.88 E239.15494
G1 X117.31 Y131.62 E239.17647
G1 X124.59 Y125.65 E239.76319
G1 X124.85 Y125.43 E239.78445
G1 X133.19 Y120.97 E240.37428
G1 X133.51 Y120.81 E240.39668
G1 X138.63 Y119.26 E240.73014
G1 X138.63 Y118.41 E240.78346
G1 X137.78 Y117.87 E240.84634
G1 X133.79 Y114.05 E241.19082
G1 X130.73 Y109.70 E241.52245
G1 X130.57 Y109.46 E241.54053
G1 X128.21 Y104.29 E241.89478
G1 X126.80 Y98.91 E242.24189
G1 X126.73 Y98.64 E242.25922
G1 X126.27 Y93.08 E242.60712
G1 X126.24 Y92.81 E242.62378
G1 X126.49 Y89.80 E242.81232
G0 F6000 X126.95 Y90.30
G1 F2700 X134.70 Y90.30 E243.29588
G1 X134.51 Y92.80 E243.45220
G1 X134.87 Y97.22 E243.72900
G1 X135.93 Y101.44 E244.00052
G1 X137.64 Y105.32 E244.26471
G1 X139.92 Y108.69 E244.51830
G1 X142.67 Y111.42 E244.75986
G1 X145.76 Y113.42 E244.98961
G1 X149.08 Y114.63 E245.21001
G1 X152.50 Y115.04 E245.42480
G1 X155.92 Y114.63 E245.63952
G1 X159.24 Y113.42 E245.85972
G1 X162.33 Y111.42 E246.08951
G1 X165.08 Y108.69 E246.33108
G1 X167.36 Y105.32 E246.58467
G1 X169.07 Y101.44 E246.84886
G1 X170.13 Y97.22 E247.12037
G1 X170.49 Y92.80 E247.39705
G1 X170.29 Y90.30 E247.55354
G1 X178.04 Y90.30 E248.03723
G1 X178.26 Y92.80 E248.19396
G1 X177.79 Y98.33 E248.53961
G1 X177.77 Y98.56 E248.55419
G1 X176.40 Y103.85 E248.89527
G1 X176.34 Y104.09 E248.91029
G1 X174.02 Y109.17 E249.25851
G1 X170.98 Y113.51 E249.58905
G1 X170.83 Y113.72 E249.60544
G1 X167.14 Y117.27 E249.92423
G1 X166.95 Y117.45 E249.94108
G1 X165.87 Y118.13 E250.02040
G1 X165.87 Y119.63 E250.11413
G1 X171.15 Y121.23 E250.45843
G1 X171.38 Y121.31 E250.47328
G1 X179.61 Y125.71 E251.05532
G1 X179.87 Y125.85 E251.07374
G1 X187.11 Y131.79 E251.65749
G1 X187.33 Y131.97 E251.67592
G1 X193.27 Y139.21 E252.25927
G1 X193.46 Y139.44 E252.27787
G1 X197.87 Y147.70 E252.86201
G1 X198.01 Y147.96 E252.88045
G1 X199.47 Y152.75 E253.19285
G1 X191.64 Y152.75 E253.68065
G1 X191.06 Y150.83 E253.80570
G1 X187.20 Y143.61 E254.31610
G1 X182.01 Y137.29 E254.82626
G1 X175.69 Y132.10 E255.33641
G1 X168.47 Y128.24 E255.84675
G1 X160.64 Y125.87 E256.35734
G1 X159.50 Y125.75 E256.42877
G1 X159.49 Y126.00 E256.44400
G1 X147.56 Y126.00 E257.18774
G1 X147.54 Y125.58 E257.21384
G1 X147.26 Y125.58 E257.23099
G1 X144.36 Y125.87 E257.41309
G1 X136.53 Y128.24 E257.92317
G1 X129.31 Y132.10 E258.43390
G1 X122.99 Y137.29 E258.94400
G1 X117.80 Y143.61 E259.45415
G1 X113.94 Y150.83 E259.96455
G1 X113.36 Y152.75 E260.08961
G1 X105.53 Y152.75 E260.57741
G1 X106.99 Y147.95 E260.89000
G1 X111.40 Y139.70 E261.47381
G1 X111.54 Y139.44 E261.49203
G1 X117.48 Y132.20 E262.07617
G1 X117.67 Y131.97 E262.09460
G1 X124.91 Y126.03 E262.67831
G1 X125.13 Y125.85 E262.69660
G1 X133.42 Y121.42 E263.28275
G1 X133.70 Y121.28 E263.30208
G1 X139.13 Y119.63 E263.65614
G1 X139.13 Y118.13 E263.74981
G1 X138.09 Y117.47 E263.82676
G1 X134.17 Y113.72 E264.16497
G1 X131.14 Y109.41 E264.49356
G1 X131.00 Y109.21 E264.50882
G1 X128.68 Y104.12 E264.85745
G1 X127.29 Y98.78 E265.20174
G1 X127.23 Y98.55 E265.21656
G1 X126.76 Y93.04 E265.56176
G1 X126.74 Y92.81 E265.57591
G1 X126.95 Y90.30 E265.73304
G0 F6000 X127.41 Y90.80
G1 F2700 X134.16 Y90.80 E266.15411
G1 X134.01 Y92.81 E266.27959
G1 X134.37 Y97.30 E266.56089
G1 X135.45 Y101.61 E266.83768
G1 X137.20 Y105.57 E267.10771
G1 X139.53 Y109.00 E267.36678
G1 X142.35 Y111.81 E267.61461
G1 X145.54 Y113.86 E267.85121
G1 X148.96 Y115.12 E268.07858
G1 X152.49 Y115.54 E268.30028
G1 X152.51 Y115.54 E268.30152
G1 X156.04 Y115.12 E268.52297
G1 X159.46 Y113.87 E268.75033
G1 X162.65 Y111.81 E268.98697
G1 X165.47 Y109.00 E269.23480
G1 X167.80 Y105.57 E269.49387
G1 X169.55 Y101.61 E269.76390
G1 X170.63 Y97.30 E270.04075
G1 X170.99 Y92.81 E270.32200
G1 X170.83 Y90.80 E270.44751
G1 X177.58 Y90.80 E270.86871
G1 X177.76 Y92.80 E270.99415
G1 X177.29 Y98.28 E271.33698
G1 X177.28 Y98.47 E271.34900
G1 X175.91 Y103.73 E271.68749
G1 X175.87 Y103.92 E271.69978
G1 X173.58 Y108.92 E272.04245
G1 X170.57 Y113.22 E272.37012
G1 X170.45 Y113.40 E272.38341
G1 X166.80 Y116.90 E272.69895
G1 X166.64 Y117.06 E272.71288
G1 X165.37 Y117.85 E272.80624
G1 X165.37 Y120.00 E272.94038
G1 X171.00 Y121.71 E273.30740
G1 X171.18 Y121.77 E273.31912
G1 X179.37 Y126.15 E273.89849
G1 X179.59 Y126.27 E273.91386
G1 X186.79 Y132.17 E274.49456
G1 X186.98 Y132.33 E274.50993
G1 X192.88 Y139.53 E275.09053
G1 X193.04 Y139.71 E275.10573
G1 X197.43 Y147.93 E275.68677
G1 X197.55 Y148.15 E275.70217
G1 X198.79 Y152.25 E275.96947
G1 X192.01 Y152.25 E276.39210
G1 X191.52 Y150.64 E276.49729
G1 X187.62 Y143.34 E277.01341
G1 X182.37 Y136.94 E277.52998
G1 X175.97 Y131.68 E278.04641
G1 X168.67 Y127.78 E278.56253
G1 X160.74 Y125.38 E279.07901
G1 X159.02 Y125.21 E279.18685
G1 X159.01 Y125.50 E279.20514
G1 X148.04 Y125.50 E279.88939
G1 X148.02 Y125.08 E279.91549
G1 X147.25 Y125.08 E279.96345
G1 X144.26 Y125.38 E280.15062
G1 X136.34 Y127.78 E280.66695
G1 X129.03 Y131.68 E281.18340
G1 X122.63 Y136.94 E281.69984
G1 X117.38 Y143.34 E282.21641
G1 X113.48 Y150.64 E282.73253
G1 X112.99 Y152.25 E282.83772
G1 X106.21 Y152.25 E283.26035
G1 X107.45 Y148.15 E283.52784
G1 X111.84 Y139.93 E284.10855
G1 X111.96 Y139.72 E284.12378
G1 X117.87 Y132.52 E284.70482
G1 X118.02 Y132.33 E284.72015
G1 X125.22 Y126.42 E285.30081
G1 X125.41 Y126.27 E285.31600
G1 X133.65 Y121.86 E285.89863
G1 X133.88 Y121.75 E285.91484
G1 X139.63 Y120.00 E286.28948
G1 X139.63 Y117.85 E286.42356
G1 X138.40 Y117.08 E286.51454
G1 X134.55 Y113.39 E286.84658
G1 X131.55 Y109.12 E287.17207
G1 X131.44 Y108.96 E287.18451
G1 X129.15 Y103.96 E287.52751
G1 X127.77 Y98.66 E287.86914
G1 X127.72 Y98.47 E287.88126
G1 X127.26 Y92.99 E288.22377
G1 X127.25 Y92.81 E288.23542
G1 X127.41 Y90.80 E288.36113
G0 F6000 X127.87 Y91.30
G1 F2700 X133.62 Y91.30 E288.71978
G1 X133.50 Y92.80 E288.81373
G1 X133.88 Y97.38 E289.10042
G1 X134.98 Y101.77 E289.38260
G1 X136.76 Y105.81 E289.65768
G1 X139.15 Y109.33 E289.92286
G1 X142.04 Y112.20 E290.17690
G1 X145.31 Y114.31 E290.42021
G1 X148.84 Y115.61 E290.65470
G1 X152.46 Y116.04 E290.88168
G1 X152.55 Y116.04 E290.88717
G1 X156.15 Y115.61 E291.11370
G1 X159.69 Y114.32 E291.34830
G1 X162.96 Y112.20 E291.59170
G1 X165.85 Y109.33 E291.84575
G1 X168.24 Y105.81 E292.11093
G1 X170.02 Y101.77 E292.38601
G1 X171.12 Y97.38 E292.66812
G1 X171.50 Y92.80 E292.95470
G1 X171.37 Y91.30 E293.04887
G1 X177.12 Y91.30 E293.40764
G1 X177.25 Y92.80 E293.50185
G1 X176.80 Y98.24 E293.84187
G1 X176.78 Y98.39 E293.85120
G1 X175.43 Y103.60 E294.18716
G1 X175.39 Y103.75 E294.19670
G1 X173.15 Y108.67 E294.53387
G1 X170.16 Y112.94 E294.85864
G1 X170.07 Y113.07 E294.86888
G1 X166.45 Y116.54 E295.18173
G1 X166.45 Y116.54 E295.18181
G1 X166.33 Y116.66 E295.19227
G1 X164.87 Y117.57 E295.29960
G1 X164.87 Y120.37 E295.47415
G1 X170.85 Y122.19 E295.86386
G1 X170.98 Y122.23 E295.87254
G1 X179.14 Y126.59 E296.44923
G1 X179.31 Y126.68 E296.46148
G1 X186.47 Y132.56 E297.03916
G1 X186.62 Y132.68 E297.05143
G1 X192.50 Y139.84 E297.62880
G1 X192.62 Y139.99 E297.64120
G1 X196.99 Y148.17 E298.21903
G1 X197.08 Y148.34 E298.23134
G1 X198.12 Y151.75 E298.45361
G1 X192.38 Y151.75 E298.81108
G1 X191.99 Y150.45 E298.89613
G1 X188.04 Y143.06 E299.41847
G1 X182.72 Y136.58 E299.94115
G1 X176.25 Y131.26 E300.46379
G1 X168.86 Y127.31 E300.98613
G1 X160.84 Y124.88 E301.50897
G1 X158.55 Y124.66 E301.65241
G1 X158.53 Y125.00 E301.67382
G1 X148.51 Y125.00 E302.29864
G1 X148.49 Y124.58 E302.32474
G1 X147.22 Y124.58 E302.40413
G1 X144.16 Y124.88 E302.59569
G1 X136.15 Y127.31 E303.11801
G1 X128.75 Y131.26 E303.64069
G1 X122.28 Y136.58 E304.16333
G1 X116.96 Y143.06 E304.68601
G1 X113.01 Y150.45 E305.20835
G1 X112.61 Y151.75 E305.29340
G1 X106.88 Y151.75 E305.65086
G1 X107.92 Y148.34 E305.87328
G1 X112.28 Y140.17 E306.45086
G1 X112.38 Y140.00 E306.46305
G1 X118.25 Y132.83 E307.04095
G1 X118.38 Y132.68 E307.05322
G1 X125.54 Y126.81 E307.63081
G1 X125.69 Y126.68 E307.64304
G1 X133.88 Y122.31 E308.22204
G1 X134.07 Y122.21 E308.23518
G1 X140.13 Y120.37 E308.63035
G1 X140.13 Y117.58 E308.80478
G1 X138.70 Y116.68 E308.90986
G1 X134.93 Y113.07 E309.23564
G1 X131.96 Y108.83 E309.55805
G1 X131.87 Y108.71 E309.56775
G1 X129.62 Y103.79 E309.90512
G1 X128.25 Y98.53 E310.24412
G1 X128.22 Y98.38 E310.25347
G1 X127.76 Y92.95 E310.59323
G1 X127.75 Y92.81 E310.60237
G1 X127.87 Y91.30 E310.69674
G0 F6000 X128.33 Y91.80
G1 F2700 X133.08 Y91.80 E310.99302
G1 X133.00 Y92.80 E311.05576
G1 X133.38 Y97.47 E311.34771
G1 X134.50 Y101.93 E311.63477
G1 X136.32 Y106.05 E311.91538
G1 X138.76 Y109.65 E312.18658
G1 X141.72 Y112.59 E312.44688
G1 X145.09 Y114.77 E312.69693
G1 X148.73 Y116.10 E312.93852
G1 X152.43 Y116.54 E313.17120
G1 X152.57 Y116.54 E313.17981
G1 X156.28 Y116.10 E313.41243
G1 X159.91 Y114.77 E313.65384
G1 X163.28 Y112.59 E313.90389
G1 X166.24 Y109.65 E314.16419
G1 X168.68 Y106.05 E314.43539
G1 X170.50 Y101.93 E314.71600
G1 X171.62 Y97.47 E315.00308
G1 X172.00 Y92.80 E315.29521
G1 X171.91 Y91.80 E315.35778
G1 X176.67 Y91.80 E315.65407
G1 X176.75 Y92.80 E315.71698
G1 X176.30 Y98.19 E316.05424
G1 X176.29 Y98.30 E316.06094
G1 X174.95 Y103.47 E316.39433
G1 X174.92 Y103.58 E316.40117
G1 X172.71 Y108.42 E316.73278
G1 X169.75 Y112.65 E317.05459
G1 X169.69 Y112.74 E317.06179
G1 X166.10 Y116.18 E317.37163
G1 X166.02 Y116.26 E317.37896
G1 X164.37 Y117.30 E317.50027
G1 X164.37 Y120.74 E317.71517
G1 X170.70 Y122.66 E318.12757
G1 X170.78 Y122.69 E318.13323
G1 X178.90 Y127.03 E318.70721
G1 X179.03 Y127.10 E318.71642
G1 X186.15 Y132.94 E319.29099
G1 X186.27 Y133.04 E319.30021
G1 X192.11 Y140.16 E319.87465
G1 X192.21 Y140.27 E319.88391
G1 X196.55 Y148.40 E320.45859
G1 X196.62 Y148.53 E320.46785
G1 X197.44 Y151.25 E320.64503
G1 X192.76 Y151.25 E320.93733
G1 X192.45 Y150.25 E321.00237
G1 X188.46 Y142.78 E321.53074
G1 X183.08 Y136.22 E322.05963
G1 X176.52 Y130.84 E322.58847
G1 X169.05 Y126.85 E323.11684
G1 X160.96 Y124.40 E323.64417
G1 X160.93 Y124.39 E323.64601
G1 X158.07 Y124.11 E323.82522
G1 X158.05 Y124.50 E323.84970
G1 X148.99 Y124.50 E324.41508
G1 X148.97 Y124.08 E324.44118
G1 X147.19 Y124.08 E324.55206
G1 X144.07 Y124.39 E324.74763
G1 X135.98 Y126.84 E325.27491
G1 X135.95 Y126.85 E325.27654
G1 X128.48 Y130.84 E325.80516
G1 X121.92 Y136.22 E326.33400
G1 X116.54 Y142.78 E326.86289
G1 X112.55 Y150.25 E327.39126
G1 X112.24 Y151.25 E327.45630
G1 X107.56 Y151.25 E327.74860
G1 X108.38 Y148.53 E327.92586
G1 X112.72 Y140.41 E328.50045
G1 X112.79 Y140.28 E328.50963
G1 X118.64 Y133.15 E329.08429
G1 X118.73 Y133.04 E329.09351
G1 X125.86 Y127.19 E329.66808
G1 X125.97 Y127.10 E329.67725
G1 X134.11 Y122.75 E330.25261
G1 X134.25 Y122.68 E330.26270
G1 X140.63 Y120.74 E330.67847
G1 X140.63 Y117.30 E330.89325
G1 X139.01 Y116.28 E331.01236
G1 X135.31 Y112.74 E331.33193
G1 X132.37 Y108.55 E331.65129
G1 X132.31 Y108.46 E331.65814
G1 X130.10 Y103.62 E331.98989
G1 X128.71 Y98.30 E332.33289
G1 X128.26 Y92.91 E332.66996
G1 X128.25 Y92.81 E332.67660
G1 X128.33 Y91.80 E332.73955
G0 F6000 X128.79 Y92.30
G1 F2700 X132.54 Y92.30 E332.97334
G1 X132.50 Y92.80 E333.00493
G1 X132.89 Y97.55 E333.30157
G1 X134.03 Y102.09 E333.59410
G1 X135.88 Y106.30 E333.88052
G1 X138.38 Y109.97 E334.15737
G1 X141.41 Y112.98 E334.42363
G1 X144.86 Y115.21 E334.68004
G1 X144.86 Y115.22 E334.68049
G1 X148.59 Y116.58 E334.92814
G1 X148.61 Y116.59 E334.92934
G1 X152.40 Y117.04 E335.16730
G1 X152.60 Y117.04 E335.18015
G1 X156.37 Y116.59 E335.41667
G1 X156.39 Y116.59 E335.41786
G1 X160.12 Y115.22 E335.66551
G1 X160.13 Y115.22 E335.66663
G1 X163.59 Y112.98 E335.92358
G1 X166.62 Y109.97 E336.18984
G1 X169.12 Y106.30 E336.46669
G1 X170.97 Y102.09 E336.75311
G1 X172.11 Y97.55 E337.04564
G1 X172.50 Y92.80 E337.34228
G1 X172.46 Y92.30 E337.37388
G1 X176.21 Y92.30 E337.60768
G1 X176.25 Y92.81 E337.63935
G1 X175.80 Y98.15 E337.97380
G1 X175.79 Y98.21 E337.97781
G1 X174.45 Y103.41 E338.31274
G1 X172.28 Y108.17 E338.63888
G1 X169.34 Y112.36 E338.95778
G1 X169.31 Y112.41 E338.96194
G1 X165.71 Y115.87 E339.27288
G1 X163.84 Y117.04 E339.41076
G1 X163.87 Y117.04 E339.41288
G1 X163.87 Y121.11 E339.66688
G1 X170.55 Y123.14 E340.10201
G1 X170.59 Y123.15 E340.10451
G1 X178.75 Y127.52 E340.68195
G1 X185.91 Y133.39 E341.25963
G1 X191.79 Y140.55 E341.83727
G1 X196.15 Y148.72 E342.41496
G1 X196.77 Y150.75 E342.54712
G1 X193.13 Y150.75 E342.77424
G1 X192.92 Y150.06 E342.81914
G1 X188.88 Y142.50 E343.35382
G1 X183.43 Y135.87 E343.88878
G1 X176.80 Y130.43 E344.42369
G1 X169.24 Y126.39 E344.95836
G1 X161.03 Y123.90 E345.49325
G1 X157.83 Y123.58 E345.69416
G1 X157.59 Y123.58 E345.70875
G1 X157.58 Y124.00 E345.73484
G1 X149.46 Y124.00 E346.24073
G1 X149.44 Y123.58 E346.26683
G1 X147.17 Y123.58 E346.40852
G1 X143.97 Y123.90 E346.60942
G1 X135.83 Y126.36 E347.13928
G1 X135.83 Y126.36 E347.13935
G1 X135.76 Y126.39 E347.14444
G1 X128.20 Y130.43 E347.67902
G1 X121.57 Y135.87 E348.21394
G1 X116.12 Y142.50 E348.74890
G1 X112.08 Y150.06 E349.28357
G1 X111.87 Y150.75 E349.32847
G1 X108.23 Y150.75 E349.55560
G1 X108.85 Y148.72 E349.68775
G1 X113.21 Y140.55 E350.26545
G1 X119.09 Y133.39 E350.84308
G1 X126.25 Y127.52 E351.42076
G1 X134.34 Y123.19 E351.99254
G1 X134.44 Y123.14 E351.99957
G1 X141.13 Y121.11 E352.43585
G1 X141.13 Y117.04 E352.68992
G1 X141.16 Y117.04 E352.69173
G1 X139.32 Y115.89 E352.82707
G1 X135.69 Y112.41 E353.14037
G1 X132.74 Y108.21 E353.46072
G1 X130.57 Y103.45 E353.78684
G1 X129.21 Y98.21 E354.12448
G1 X128.76 Y92.87 E354.45886
G1 X128.75 Y92.80 E354.46293
G1 X128.79 Y92.30 E354.49453
G0 F6000 X122.35 Y147.25
G1 F2700 X140.11 Y147.25 E355.60228
G1 X139.52 Y154.75 E356.07119
G1 X139.82 Y158.35 E356.29688
G1 X140.67 Y161.76 E356.51610
G1 X142.03 Y164.84 E356.72576
G1 X143.79 Y167.43 E356.92102
G1 X145.82 Y169.45 E357.09975
G1 X148.01 Y170.86 E357.26194
G1 X150.25 Y171.69 E357.41127
G1 X152.50 Y171.95 E357.55245
G1 X154.75 Y171.69 E357.69339
G1 X156.99 Y170.86 E357.84259
G1 X159.18 Y169.45 E358.00491
G1 X161.21 Y167.43 E358.18364
G1 X162.97 Y164.84 E358.37890
G1 X164.33 Y161.76 E358.58856
G1 X165.18 Y158.35 E358.80779
G1 X165.47 Y154.76 E359.03260
G1 X164.86 Y147.25 E359.50253
G1 X182.63 Y147.25 E360.61084
G1 X183.28 Y154.75 E361.08011
G1 X182.77 Y160.72 E361.45373
G1 X182.71 Y161.37 E361.49481
G1 X181.24 Y167.06 E361.86151
G1 X181.07 Y167.72 E361.90386
G1 X178.38 Y173.61 E362.30736
G1 X175.07 Y178.33 E362.66706
G1 X174.64 Y178.95 E362.71391
G1 X174.38 Y179.19 E362.73610
G1 X181.97 Y183.25 E363.27289
G1 X182.67 Y183.63 E363.32206
G1 X190.28 Y189.88 E363.93643
G1 X190.89 Y190.38 E363.98556
G1 X197.13 Y197.97 E364.59851
G1 X197.63 Y198.59 E364.64813
G1 X202.29 Y207.30 E365.26390
G1 X202.66 Y207.99 E365.31309
G1 X206.21 Y219.70 E366.07605
G1 X187.94 Y219.70 E367.21548
G1 X186.42 Y214.71 E367.54108
G1 X183.03 Y208.35 E367.99015
G1 X178.46 Y202.79 E368.43862
G1 X172.90 Y198.23 E368.88757
G1 X166.55 Y194.83 E369.33654
G1 X160.50 Y193.00 E369.73086
G1 X144.50 Y193.00 E370.72848
G1 X138.45 Y194.83 E371.12261
G1 X132.10 Y198.23 E371.57155
G1 X126.54 Y202.79 E372.02068
G1 X121.97 Y208.35 E372.46914
G1 X118.58 Y214.71 E372.91822
G1 X117.06 Y219.70 E373.24381
G1 X98.79 Y219.70 E374.38324
G1 X102.35 Y207.98 E375.14692
G1 X106.99 Y199.29 E375.76147
G1 X107.36 Y198.60 E375.80990
G1 X113.62 Y190.97 E376.42568
G1 X114.12 Y190.36 E376.47481
G1 X121.73 Y184.12 E377.08887
G1 X122.33 Y183.62 E377.13743
G1 X130.62 Y179.20 E377.72318
G1 X130.36 Y178.94 E377.74581
G1 X127.05 Y174.23 E378.10502
G1 X126.65 Y173.66 E378.14838
G1 X123.95 Y167.76 E378.55316
G1 X122.45 Y161.99 E378.92478
G1 X122.45 Y161.99 E378.92484
G1 X122.28 Y161.35 E378.96611
G1 X121.78 Y155.41 E379.33822
G1 X121.72 Y154.77 E379.37773
G1 X122.35 Y147.25 E379.84856
G0 F6000 X122.81 Y147.75
G1 F2700 X139.57 Y147.75 E380.89389
G1 X139.02 Y154.74 E381.33121
G1 X139.32 Y158.44 E381.56252
G1 X140.20 Y161.93 E381.78697
G1 X141.59 Y165.08 E382.00168
G1 X143.40 Y167.75 E382.20305
G1 X145.51 Y169.84 E382.38808
G1 X147.78 Y171.31 E382.55703
G1 X150.13 Y172.17 E382.71313
G1 X152.50 Y172.46 E382.86192
G1 X154.87 Y172.18 E383.01045
G1 X157.22 Y171.31 E383.16649
G1 X159.49 Y169.84 E383.33550
G1 X161.60 Y167.75 E383.52057
G1 X163.41 Y165.08 E383.72194
G1 X164.80 Y161.93 E383.93666
G1 X165.68 Y158.44 E384.16110
G1 X165.98 Y154.75 E384.39160
G1 X165.40 Y147.75 E384.82987
G1 X182.17 Y147.75 E385.87576
G1 X182.77 Y154.75 E386.31379
G1 X182.28 Y160.67 E386.68459
G1 X182.22 Y161.29 E386.72305
G1 X180.75 Y166.94 E387.08717
G1 X180.59 Y167.55 E387.12675
G1 X177.94 Y173.36 E387.52476
G1 X174.66 Y178.05 E387.88150
G1 X174.26 Y178.62 E387.92536
G1 X173.54 Y179.31 E387.98750
G1 X181.74 Y183.69 E388.56721
G1 X182.39 Y184.04 E388.61324
G1 X189.97 Y190.26 E389.22456
G1 X190.53 Y190.73 E389.27063
G1 X196.74 Y198.29 E389.88061
G1 X197.22 Y198.87 E389.92717
G1 X201.84 Y207.53 E390.53974
G1 X202.19 Y208.18 E390.58585
G1 X205.53 Y219.20 E391.30378
G1 X188.31 Y219.20 E392.37804
G1 X186.88 Y214.51 E392.68349
G1 X183.44 Y208.08 E393.13859
G1 X178.82 Y202.44 E393.59358
G1 X173.18 Y197.81 E394.04851
G1 X166.74 Y194.37 E394.50370
G1 X160.57 Y192.50 E394.90570
G1 X144.43 Y192.50 E395.91236
G1 X138.26 Y194.37 E396.31438
G1 X131.82 Y197.81 E396.76954
G1 X126.18 Y202.44 E397.22447
G1 X121.56 Y208.08 E397.67946
G1 X118.12 Y214.51 E398.13456
G1 X116.69 Y219.20 E398.44001
G1 X99.47 Y219.20 E399.51427
G1 X102.81 Y208.17 E400.23285
G1 X107.43 Y199.53 E400.84430
G1 X107.77 Y198.88 E400.88975
G1 X114.01 Y191.29 E401.50234
G1 X114.48 Y190.72 E401.54841
G1 X122.05 Y184.50 E402.15941
G1 X122.61 Y184.04 E402.20500
G1 X131.36 Y179.36 E402.82365
G1 X131.46 Y179.31 E402.83067
G1 X130.74 Y178.62 E402.89344
G1 X127.47 Y173.96 E403.24825
G1 X127.08 Y173.41 E403.29014
G1 X124.42 Y167.59 E403.68932
G1 X122.93 Y161.87 E404.05821
G1 X122.77 Y161.27 E404.09682
G1 X122.28 Y155.36 E404.46624
G1 X122.23 Y154.77 E404.50319
G1 X122.81 Y147.75 E404.94267
G0 F6000 X123.27 Y148.25
G1 F2700 X139.03 Y148.25 E405.92557
G1 X138.52 Y154.75 E406.33204
G1 X138.83 Y158.51 E406.56773
G1 X139.72 Y162.09 E406.79765
G1 X141.15 Y165.32 E407.01812
G1 X143.01 Y168.07 E407.22497
G1 X145.19 Y170.23 E407.41644
G1 X147.56 Y171.76 E407.59207
G1 X150.02 Y172.66 E407.75549
G1 X152.50 Y172.96 E407.91150
G1 X154.98 Y172.66 E408.06719
G1 X157.44 Y171.76 E408.23059
G1 X159.81 Y170.23 E408.40631
G1 X161.99 Y168.07 E408.59778
G1 X163.85 Y165.32 E408.80463
G1 X165.28 Y162.09 E409.02510
G1 X166.17 Y158.51 E409.25508
G1 X166.48 Y154.76 E409.48996
G1 X165.94 Y148.25 E409.89732
G1 X181.71 Y148.25 E410.88072
G1 X182.27 Y154.75 E411.28746
G1 X181.78 Y160.63 E411.65551
G1 X181.72 Y161.20 E411.69128
G1 X180.27 Y166.81 E412.05287
G1 X180.12 Y167.38 E412.08975
G1 X177.50 Y173.11 E412.48220
G1 X174.25 Y177.76 E412.83603
G1 X173.88 Y178.29 E412.87680
G1 X172.65 Y179.47 E412.98256
G1 X172.97 Y179.57 E413.00299
G1 X181.50 Y184.13 E413.60658
G1 X182.11 Y184.46 E413.64952
G1 X189.65 Y190.65 E414.25778
G1 X190.18 Y191.09 E414.30079
G1 X196.35 Y198.61 E414.90780
G1 X196.80 Y199.15 E414.95121
G1 X201.40 Y207.77 E415.56068
G1 X201.73 Y208.38 E415.60373
G1 X204.86 Y218.70 E416.27658
G1 X188.68 Y218.70 E417.28567
G1 X187.35 Y214.32 E417.57118
G1 X183.86 Y207.80 E418.03230
G1 X179.17 Y202.08 E418.49349
G1 X173.46 Y197.39 E418.95454
G1 X166.94 Y193.91 E419.41567
G1 X160.65 Y192.00 E419.82545
G1 X144.35 Y192.00 E420.84152
G1 X138.07 Y193.91 E421.25110
G1 X131.54 Y197.39 E421.71248
G1 X125.83 Y202.08 E422.17353
G1 X121.14 Y207.80 E422.63472
G1 X117.65 Y214.32 E423.09585
G1 X116.32 Y218.70 E423.38135
G1 X100.14 Y218.70 E424.39044
G1 X103.28 Y208.37 E425.06394
G1 X107.87 Y199.76 E425.67227
G1 X108.19 Y199.16 E425.71470
G1 X114.39 Y191.61 E426.32416
G1 X114.83 Y191.07 E426.36717
G1 X122.37 Y184.89 E426.97511
G1 X122.37 Y184.89 E426.97517
G1 X122.89 Y184.46 E427.01770
G1 X131.59 Y179.81 E427.63284
G1 X132.22 Y179.50 E427.67665
G1 X132.34 Y179.46 E427.68441
G1 X131.12 Y178.29 E427.78996
G1 X127.87 Y173.66 E428.14304
G1 X127.52 Y173.16 E428.18076
G1 X124.90 Y167.42 E428.57432
G1 X123.42 Y161.74 E428.94057
G1 X123.27 Y161.18 E428.97648
G1 X122.78 Y155.32 E429.34321
G1 X122.73 Y154.77 E429.37764
G1 X123.27 Y148.25 E429.78571
G0 F6000 X123.73 Y148.75
G1 F2700 X138.49 Y148.75 E430.70624
G1 X138.02 Y154.75 E431.08126
G1 X138.33 Y158.60 E431.32240
G1 X139.25 Y162.25 E431.55719
G1 X140.72 Y165.57 E431.78360
G1 X142.63 Y168.39 E431.99589
G1 X144.88 Y170.62 E432.19362
G1 X147.34 Y172.21 E432.37632
G1 X149.90 Y173.15 E432.54657
G1 X152.50 Y173.46 E432.71005
G1 X155.10 Y173.15 E432.87340
G1 X157.66 Y172.21 E433.04359
G1 X160.12 Y170.63 E433.22598
G1 X162.37 Y168.39 E433.42398
G1 X164.28 Y165.57 E433.63626
G1 X165.75 Y162.25 E433.86267
G1 X166.67 Y158.60 E434.09746
G1 X166.98 Y154.76 E434.33773
G1 X166.49 Y148.75 E434.71373
G1 X181.25 Y148.75 E435.63464
G1 X181.77 Y154.75 E436.01015
G1 X181.28 Y160.58 E436.37532
G1 X181.23 Y161.11 E436.40852
G1 X179.79 Y166.69 E436.76755
G1 X179.65 Y167.22 E436.80164
G1 X177.07 Y172.86 E437.18862
G1 X173.84 Y177.47 E437.53949
G1 X173.50 Y177.97 E437.57726
G1 X171.70 Y179.69 E437.73265
G1 X172.22 Y179.85 E437.76627
G1 X172.77 Y180.03 E437.80255
G1 X181.26 Y184.57 E438.40340
G1 X181.83 Y184.88 E438.44333
G1 X189.33 Y191.03 E439.04853
G1 X189.82 Y191.44 E439.08848
G1 X195.98 Y198.94 E439.69332
G1 X196.38 Y199.43 E439.73284
G1 X200.96 Y208.00 E440.33913
G1 X201.26 Y208.57 E440.37908
G1 X204.18 Y218.20 E441.00689
G1 X189.05 Y218.20 E441.95081
G1 X187.81 Y214.13 E442.21605
G1 X184.28 Y207.52 E442.68346
G1 X179.53 Y201.73 E443.15080
G1 X173.73 Y196.97 E443.61810
G1 X167.12 Y193.44 E444.08550
G1 X160.72 Y191.50 E444.50278
G1 X144.28 Y191.50 E445.52802
G1 X137.87 Y193.44 E445.94555
G1 X131.27 Y196.97 E446.41270
G1 X125.47 Y201.73 E446.88012
G1 X120.72 Y207.52 E447.34746
G1 X117.19 Y214.13 E447.81487
G1 X115.95 Y218.20 E448.08011
G1 X100.82 Y218.20 E449.02404
G1 X103.74 Y208.56 E449.65244
G1 X108.31 Y200.01 E450.25653
G1 X108.61 Y199.44 E450.29712
G1 X114.78 Y191.93 E450.90337
G1 X115.19 Y191.43 E450.94333
G1 X122.69 Y185.28 E451.54826
G1 X123.17 Y184.88 E451.58773
G1 X131.82 Y180.25 E452.19919
G1 X132.41 Y179.96 E452.23993
G1 X133.31 Y179.69 E452.29852
G1 X131.50 Y177.96 E452.45440
G1 X128.29 Y173.38 E452.80326
G1 X127.95 Y172.91 E452.83934
G1 X125.37 Y167.25 E453.22727
G1 X123.90 Y161.61 E453.59074
G1 X123.76 Y161.10 E453.62401
G1 X123.28 Y155.28 E453.98805
G1 X123.23 Y154.77 E454.01992
G1 X123.73 Y148.75 E454.39663
G0 F6000 X124.19 Y149.25
G1 F2700 X137.95 Y149.25 E455.25468
G1 X137.52 Y154.75 E455.59847
G1 X137.84 Y158.68 E455.84481
G1 X138.77 Y162.42 E456.08487
G1 X140.27 Y165.81 E456.31620
G1 X142.24 Y168.71 E456.53481
G1 X144.56 Y171.01 E456.73868
G1 X147.11 Y172.66 E456.92800
G1 X149.78 Y173.64 E457.10563
G1 X152.50 Y173.97 E457.27633
G1 X155.22 Y173.64 E457.44679
G1 X157.89 Y172.66 E457.62419
G1 X160.44 Y171.01 E457.81380
G1 X162.76 Y168.71 E458.01761
G1 X164.73 Y165.81 E458.23623
G1 X166.23 Y162.42 E458.46756
G1 X167.16 Y158.68 E458.70762
G1 X167.48 Y154.75 E458.95352
G1 X167.03 Y149.25 E459.29786
G1 X180.79 Y149.25 E460.15635
G1 X181.27 Y154.75 E460.50062
G1 X180.78 Y160.54 E460.86297
G1 X180.74 Y161.03 E460.89348
G1 X179.30 Y166.56 E461.24999
G1 X179.18 Y167.05 E461.28138
G1 X176.63 Y172.61 E461.66272
G1 X173.44 Y177.18 E462.01077
G1 X173.12 Y177.64 E462.04545
G1 X170.74 Y179.92 E462.25111
G1 X172.06 Y180.32 E462.33752
G1 X172.57 Y180.49 E462.37071
G1 X181.03 Y185.01 E462.96894
G1 X181.55 Y185.29 E463.00577
G1 X189.01 Y191.42 E463.60787
G1 X189.47 Y191.79 E463.64473
G1 X195.58 Y199.25 E464.24585
G1 X195.96 Y199.71 E464.28306
G1 X200.52 Y208.24 E464.88617
G1 X200.80 Y208.76 E464.92311
G1 X203.51 Y217.70 E465.50582
G1 X189.42 Y217.70 E466.38464
G1 X188.28 Y213.94 E466.63006
G1 X184.70 Y207.24 E467.10363
G1 X179.88 Y201.37 E467.57669
G1 X174.01 Y196.56 E468.05028
G1 X167.32 Y192.98 E468.52363
G1 X160.79 Y191.00 E468.94885
G1 X144.71 Y191.00 E469.95220
G1 X144.70 Y190.85 E469.96157
G1 X137.69 Y192.98 E470.41865
G1 X130.99 Y196.56 E470.89233
G1 X125.12 Y201.37 E471.36592
G1 X120.30 Y207.24 E471.83898
G1 X116.72 Y213.94 E472.31255
G1 X115.58 Y217.70 E472.55797
G1 X101.49 Y217.70 E473.43679
G1 X104.20 Y208.75 E474.02003
G1 X108.76 Y200.23 E474.62228
G1 X109.03 Y199.72 E474.65863
G1 X115.17 Y192.24 E475.26178
G1 X115.54 Y191.79 E475.29864
G1 X123.00 Y185.66 E475.90055
G1 X123.45 Y185.29 E475.93697
G1 X132.05 Y180.70 E476.54482
G1 X132.59 Y180.43 E476.58253
G1 X134.27 Y179.92 E476.69182
G1 X131.88 Y177.64 E476.89794
G1 X128.69 Y173.08 E477.24488
G1 X128.39 Y172.66 E477.27701
G1 X125.84 Y167.08 E477.65930
G1 X124.39 Y161.49 E478.01968
G1 X124.38 Y161.49 E478.01974
G1 X124.26 Y161.01 E478.05075
G1 X123.77 Y155.24 E478.41210
G1 X123.77 Y155.24 E478.41216
G1 X123.73 Y154.77 E478.44153
G1 X124.19 Y149.25 E478.78683
G0 F6000 X124.65 Y149.75
G1 F2700 X137.41 Y149.75 E479.58245
G1 X137.02 Y154.75 E479.89504
G1 X137.34 Y158.76 E480.14612
G1 X138.30 Y162.58 E480.39165
G1 X139.84 Y166.05 E480.62859
G1 X141.86 Y169.03 E480.85322
G1 X144.24 Y171.41 E481.06299
G1 X146.89 Y173.11 E481.25922
G1 X149.66 Y174.13 E481.44381
G1 X152.50 Y174.47 E481.62198
G1 X155.34 Y174.13 E481.80003
G1 X158.11 Y173.12 E481.98437
G1 X160.76 Y171.41 E482.18074
G1 X163.14 Y169.03 E482.39051
G1 X165.16 Y166.05 E482.61514
G1 X166.70 Y162.58 E482.85208
G1 X167.66 Y158.76 E483.09760
G1 X167.98 Y154.76 E483.34795
G1 X167.57 Y149.75 E483.66138
G1 X180.34 Y149.75 E484.45737
G1 X180.77 Y154.75 E484.77034
G1 X180.28 Y160.50 E485.12994
G1 X180.24 Y160.94 E485.15782
G1 X178.82 Y166.44 E485.51175
G1 X178.70 Y166.88 E485.54038
G1 X176.20 Y172.36 E485.91623
G1 X173.03 Y176.90 E486.26137
G1 X172.73 Y177.31 E486.29300
G1 X169.78 Y180.15 E486.54886
G1 X171.91 Y180.80 E486.68812
G1 X172.37 Y180.95 E486.71824
G1 X180.79 Y185.46 E487.31376
G1 X181.27 Y185.71 E487.34749
G1 X188.69 Y191.81 E487.94657
G1 X189.11 Y192.15 E487.98038
G1 X195.20 Y199.56 E488.57849
G1 X195.54 Y199.99 E488.61260
G1 X200.08 Y208.47 E489.21258
G1 X200.33 Y208.95 E489.24639
G1 X202.84 Y217.20 E489.78409
G1 X189.79 Y217.20 E490.59773
G1 X188.74 Y213.74 E490.82301
G1 X185.12 Y206.96 E491.30258
G1 X180.24 Y201.02 E491.78202
G1 X174.29 Y196.14 E492.26195
G1 X167.51 Y192.51 E492.74105
G1 X160.87 Y190.50 E493.17410
G1 X145.18 Y190.50 E494.15244
G1 X145.17 Y190.25 E494.16799
G1 X144.85 Y190.28 E494.18804
G1 X137.49 Y192.51 E494.66761
G1 X130.71 Y196.14 E495.14710
G1 X124.76 Y201.02 E495.62703
G1 X119.88 Y206.96 E496.10647
G1 X116.26 Y213.74 E496.58604
G1 X115.21 Y217.20 E496.81131
G1 X102.16 Y217.20 E497.62496
G1 X104.67 Y208.94 E498.16311
G1 X109.20 Y200.47 E498.76225
G1 X109.45 Y200.00 E498.79562
G1 X115.55 Y192.56 E499.39562
G1 X115.89 Y192.14 E499.42938
G1 X123.31 Y186.06 E500.02754
G1 X123.73 Y185.71 E500.06165
G1 X132.28 Y181.14 E500.66593
G1 X132.78 Y180.90 E500.70051
G1 X135.23 Y180.15 E500.86063
G1 X132.26 Y177.31 E501.11703
G1 X129.10 Y172.79 E501.46092
G1 X128.82 Y172.41 E501.49023
G1 X126.31 Y166.92 E501.86691
G1 X124.87 Y161.36 E502.22497
G1 X124.75 Y160.93 E502.25296
G1 X124.27 Y155.20 E502.61155
G1 X124.23 Y154.77 E502.63841
G1 X124.65 Y149.75 E502.95236
G0 F6000 X125.11 Y150.25
G1 F2700 X136.87 Y150.25 E503.68556
G1 X136.51 Y154.75 E503.96692
G1 X136.85 Y158.84 E504.22327
G1 X137.82 Y162.74 E504.47376
G1 X139.40 Y166.30 E504.71631
G1 X141.47 Y169.35 E504.94632
G1 X143.93 Y171.80 E505.16289
G1 X146.66 Y173.56 E505.36557
G1 X149.55 Y174.62 E505.55753
G1 X152.50 Y174.97 E505.74293
G1 X155.45 Y174.62 E505.92814
G1 X158.34 Y173.56 E506.11985
G1 X161.07 Y171.80 E506.32276
G1 X163.53 Y169.35 E506.53932
G1 X165.60 Y166.30 E506.76933
G1 X167.18 Y162.74 E507.01189
G1 X168.15 Y158.84 E507.26238
G1 X168.49 Y154.76 E507.51810
G1 X168.12 Y150.25 E507.80018
G1 X179.88 Y150.25 E508.53369
G1 X180.26 Y154.75 E508.81543
G1 X179.78 Y160.45 E509.17222
G1 X179.75 Y160.85 E509.19746
G1 X178.34 Y166.31 E509.54875
G1 X178.23 Y166.71 E509.57474
G1 X175.76 Y172.11 E509.94503
G1 X172.62 Y176.61 E510.28722
G1 X172.35 Y176.98 E510.31581
G1 X168.81 Y180.38 E510.62199
G1 X171.76 Y181.28 E510.81410
G1 X172.17 Y181.41 E510.84118
G1 X180.56 Y185.90 E511.43397
G1 X180.99 Y186.13 E511.46469
G1 X188.38 Y192.19 E512.06071
G1 X188.76 Y192.50 E512.09141
G1 X194.81 Y199.88 E512.68655
G1 X195.13 Y200.27 E512.71760
G1 X199.64 Y208.71 E513.31437
G1 X199.87 Y209.14 E513.34517
G1 X202.16 Y216.70 E513.83777
G1 X190.16 Y216.70 E514.58624
G1 X189.20 Y213.55 E514.79165
G1 X185.53 Y206.68 E515.27725
G1 X180.59 Y200.66 E515.76298
G1 X174.57 Y195.72 E516.24867
G1 X167.71 Y192.05 E516.73418
G1 X160.94 Y190.00 E517.17491
G1 X145.66 Y190.00 E518.12812
G1 X145.64 Y189.70 E518.14673
G1 X144.75 Y189.79 E518.20288
G1 X137.30 Y192.05 E518.68819
G1 X130.43 Y195.72 E519.17418
G1 X124.41 Y200.66 E519.65977
G1 X119.47 Y206.68 E520.14551
G1 X115.80 Y213.55 E520.63110
G1 X114.84 Y216.70 E520.83651
G1 X102.84 Y216.70 E521.58499
G1 X105.13 Y209.13 E522.07804
G1 X109.63 Y200.72 E522.67322
G1 X109.87 Y200.28 E522.70444
G1 X115.94 Y192.88 E523.30126
G1 X116.25 Y192.50 E523.33196
G1 X123.64 Y186.44 E523.92781
G1 X124.01 Y186.13 E523.95820
G1 X132.51 Y181.59 E524.55883
G1 X132.96 Y181.36 E524.59040
G1 X136.20 Y180.38 E524.80127
G1 X132.64 Y176.98 E525.10796
G1 X129.50 Y172.51 E525.44880
G1 X129.26 Y172.16 E525.47530
G1 X126.79 Y166.75 E525.84634
G1 X125.35 Y161.23 E526.20171
G1 X125.35 Y161.23 E526.20177
G1 X125.25 Y160.84 E526.22705
G1 X124.77 Y155.15 E526.58302
G1 X124.73 Y154.76 E526.60738
G1 X125.11 Y150.25 E526.88992
G0 F6000 X125.57 Y150.75
G1 F2700 X136.33 Y150.75 E527.56075
G1 X136.01 Y154.75 E527.81097
G1 X136.35 Y158.93 E528.07232
G1 X137.35 Y162.91 E528.32827
G1 X138.96 Y166.54 E528.57596
G1 X141.08 Y169.67 E528.81177
G1 X143.62 Y172.19 E529.03485
G1 X146.44 Y174.01 E529.24426
G1 X149.43 Y175.11 E529.44296
G1 X152.50 Y175.48 E529.63602
G1 X155.57 Y175.11 E529.82871
G1 X158.56 Y174.01 E530.02758
G1 X161.38 Y172.19 E530.23694
G1 X163.92 Y169.67 E530.46003
G1 X166.04 Y166.54 E530.69583
G1 X167.65 Y162.91 E530.94352
G1 X168.65 Y158.93 E531.19947
G1 X168.99 Y154.75 E531.46076
G1 X168.66 Y150.75 E531.71112
G1 X179.42 Y150.75 E532.38221
G1 X179.76 Y154.75 E532.63265
G1 X179.29 Y160.41 E532.98669
G1 X179.25 Y160.77 E533.00923
G1 X177.85 Y166.18 E533.35802
G1 X177.76 Y166.54 E533.38128
G1 X175.33 Y171.86 E533.74605
G1 X172.21 Y176.32 E534.08537
G1 X171.97 Y176.66 E534.11083
G1 X168.18 Y180.30 E534.43863
G1 X167.88 Y180.59 E534.46501
G1 X167.84 Y180.61 E534.46758
G1 X171.61 Y181.75 E534.71300
G1 X171.97 Y181.88 E534.73700
G1 X180.32 Y186.34 E535.32714
G1 X180.71 Y186.55 E535.35479
G1 X188.06 Y192.58 E535.94771
G1 X188.40 Y192.86 E535.97536
G1 X194.43 Y200.20 E536.56752
G1 X194.71 Y200.55 E536.59548
G1 X199.20 Y208.94 E537.18910
G1 X199.41 Y209.33 E537.21678
G1 X201.49 Y216.20 E537.66435
G1 X190.53 Y216.20 E538.34766
G1 X189.67 Y213.36 E538.53308
G1 X185.95 Y206.40 E539.02468
G1 X180.95 Y200.31 E539.51656
G1 X174.85 Y195.30 E540.00849
G1 X167.90 Y191.59 E540.50009
G1 X160.92 Y189.47 E540.95476
G1 X160.92 Y189.50 E540.95657
G1 X146.13 Y189.50 E541.87873
G1 X146.12 Y189.15 E541.90040
G1 X144.65 Y189.30 E541.99201
G1 X137.11 Y191.58 E542.48382
G1 X130.15 Y195.30 E542.97583
G1 X124.05 Y200.31 E543.46767
G1 X119.05 Y206.40 E543.95956
G1 X115.33 Y213.36 E544.45116
G1 X114.47 Y216.20 E544.63658
G1 X103.51 Y216.20 E545.31989
G1 X105.60 Y209.33 E545.76786
G1 X110.08 Y200.94 E546.36084
G1 X110.28 Y200.55 E546.38815
G1 X116.32 Y193.20 E546.98177
G1 X116.61 Y192.85 E547.00942
G1 X123.95 Y186.82 E547.60220
G1 X124.29 Y186.54 E547.62959
G1 X132.74 Y182.03 E548.22661
G1 X133.14 Y181.83 E548.25506
G1 X137.16 Y180.61 E548.51672
G1 X133.02 Y176.65 E548.87368
G1 X129.92 Y172.23 E549.21063
G1 X129.92 Y172.23 E549.21070
G1 X129.70 Y171.91 E549.23509
G1 X127.26 Y166.58 E549.60053
G1 X125.83 Y161.11 E549.95319
G1 X125.74 Y160.76 E549.97582
G1 X125.27 Y155.11 E550.32910
G1 X125.24 Y154.76 E550.35089
G1 X125.57 Y150.75 E550.60207
G0 F6000 X126.03 Y151.25
G1 F2700 X135.79 Y151.25 E551.21042
G1 X135.51 Y154.75 E551.42949
G1 X135.86 Y159.01 E551.69565
G1 X136.88 Y163.07 E551.95688
G1 X138.52 Y166.78 E552.21024
G1 X140.69 Y169.99 E552.45206
G1 X143.30 Y172.58 E552.68097
G1 X146.21 Y174.47 E552.89737
G1 X149.31 Y175.60 E553.10341
G1 X152.50 Y175.98 E553.30356
G1 X155.69 Y175.60 E553.50353
G1 X158.79 Y174.47 E553.70945
G1 X161.70 Y172.58 E553.92593
G1 X164.31 Y169.99 E554.15484
G1 X166.48 Y166.78 E554.39667
G1 X168.12 Y163.07 E554.65002
G1 X169.14 Y159.01 E554.91125
G1 X169.49 Y154.75 E555.17723
G1 X169.20 Y151.25 E555.39655
G1 X178.96 Y151.25 E556.00521
G1 X179.26 Y154.75 E556.22442
G1 X178.79 Y160.36 E556.57564
G1 X178.76 Y160.68 E556.59555
G1 X177.37 Y166.06 E556.94177
G1 X177.28 Y166.37 E556.96226
G1 X174.89 Y171.61 E557.32153
G1 X171.80 Y176.03 E557.65789
G1 X171.59 Y176.33 E557.68032
G1 X167.84 Y179.94 E558.00516
G1 X167.57 Y180.19 E558.02831
G1 X166.87 Y180.63 E558.07967
G1 X166.87 Y180.84 E558.09270
G1 X171.46 Y182.23 E558.39162
G1 X171.78 Y182.34 E558.41253
G1 X180.08 Y186.78 E558.99993
G1 X180.43 Y186.96 E559.02451
G1 X187.74 Y192.96 E559.61443
G1 X188.05 Y193.22 E559.63901
G1 X194.04 Y200.52 E560.22816
G1 X194.04 Y200.52 E560.22823
G1 X194.29 Y200.82 E560.25304
G1 X198.76 Y209.18 E560.84353
G1 X198.94 Y209.53 E560.86817
G1 X200.81 Y215.70 E561.27064
G1 X190.90 Y215.70 E561.88878
G1 X190.13 Y213.17 E562.05399
G1 X186.37 Y206.12 E562.55189
G1 X181.30 Y199.95 E563.04994
G1 X175.13 Y194.88 E563.54795
G1 X168.09 Y191.12 E564.04585
G1 X160.45 Y188.80 E564.54361
G1 X160.44 Y189.00 E564.55578
G1 X146.61 Y189.00 E565.41845
G1 X146.59 Y188.60 E565.44323
G1 X144.56 Y188.80 E565.57069
G1 X136.92 Y191.12 E566.06851
G1 X129.87 Y194.88 E566.56675
G1 X123.70 Y199.95 E567.06475
G1 X118.63 Y206.12 E567.56281
G1 X114.87 Y213.17 E568.06071
G1 X114.10 Y215.70 E568.22591
G1 X104.19 Y215.70 E568.84405
G1 X106.06 Y209.52 E569.24692
G1 X110.52 Y201.18 E569.83681
G1 X110.70 Y200.83 E569.86108
G1 X116.71 Y193.51 E570.45160
G1 X116.96 Y193.21 E570.47619
G1 X124.26 Y187.22 E571.06539
G1 X124.26 Y187.22 E571.06545
G1 X124.57 Y186.96 E571.09026
G1 X132.96 Y182.48 E571.68366
G1 X133.33 Y182.30 E571.70910
G1 X138.13 Y180.84 E572.02205
G1 X138.13 Y180.63 E572.03502
G1 X137.47 Y180.22 E572.08383
G1 X133.41 Y176.33 E572.43457
G1 X130.32 Y171.93 E572.76925
G1 X130.13 Y171.66 E572.79015
G1 X127.73 Y166.41 E573.14997
G1 X126.32 Y160.98 E573.49985
G1 X126.24 Y160.67 E573.51983
G1 X125.77 Y155.07 E573.87042
G1 X125.77 Y155.07 E573.87049
G1 X125.74 Y154.76 E573.88971
G1 X126.03 Y151.25 E574.10955
G0 F6000 X126.49 Y151.75
G1 F2700 X135.25 Y151.75 E574.65547
G1 X135.01 Y154.75 E574.84326
G1 X135.36 Y159.09 E575.11462
G1 X136.40 Y163.24 E575.38123
G1 X138.08 Y167.02 E575.63950
G1 X140.31 Y170.32 E575.88760
G1 X142.99 Y172.97 E576.12278
G1 X145.99 Y174.91 E576.34568
G1 X149.19 Y176.09 E576.55872
G1 X152.50 Y176.49 E576.76647
G1 X155.80 Y176.09 E576.97385
G1 X159.01 Y174.91 E577.18709
G1 X162.01 Y172.97 E577.40994
G1 X164.69 Y170.32 E577.64511
G1 X166.92 Y167.02 E577.89322
G1 X168.60 Y163.24 E578.15149
G1 X169.64 Y159.09 E578.41810
G1 X169.99 Y154.76 E578.68915
G1 X169.74 Y151.75 E578.87732
G1 X178.50 Y151.75 E579.42349
G1 X178.76 Y154.75 E579.61140
G1 X178.29 Y160.32 E579.95986
G1 X178.27 Y160.59 E579.97708
G1 X176.88 Y165.93 E580.32079
G1 X176.81 Y166.21 E580.33857
G1 X174.45 Y171.37 E580.69229
G1 X171.39 Y175.75 E581.02574
G1 X171.21 Y176.00 E581.04512
G1 X167.49 Y179.57 E581.36692
G1 X167.26 Y179.80 E581.38694
G1 X166.37 Y180.35 E581.45228
G1 X166.37 Y181.21 E581.50566
G1 X171.31 Y182.71 E581.82727
G1 X171.58 Y182.80 E581.84516
G1 X179.85 Y187.22 E582.42988
G1 X180.15 Y187.38 E582.45134
G1 X187.42 Y193.35 E583.03819
G1 X187.69 Y193.57 E583.05972
G1 X193.66 Y200.84 E583.64634
G1 X193.88 Y201.10 E583.66765
G1 X198.31 Y209.41 E584.25497
G1 X198.48 Y209.72 E584.27651
G1 X200.14 Y215.20 E584.63395
G1 X191.27 Y215.20 E585.18685
G1 X190.60 Y212.97 E585.33219
G1 X186.79 Y205.85 E585.83581
G1 X181.66 Y199.60 E586.34024
G1 X175.41 Y194.47 E586.84463
G1 X168.28 Y190.66 E587.34825
G1 X160.54 Y188.31 E587.85272
G1 X159.97 Y188.25 E587.88831
G1 X159.96 Y188.50 E587.90361
G1 X147.09 Y188.50 E588.70678
G1 X147.06 Y188.05 E588.73456
G1 X144.46 Y188.31 E588.89786
G1 X136.72 Y190.66 E589.40200
G1 X129.59 Y194.47 E589.90595
G1 X123.34 Y199.60 E590.41033
G1 X118.21 Y205.85 E590.91477
G1 X114.40 Y212.97 E591.41839
G1 X113.73 Y215.20 E591.56372
G1 X104.86 Y215.20 E592.11663
G1 X106.53 Y209.71 E592.47433
G1 X110.96 Y201.42 E593.06061
G1 X110.96 Y201.42 E593.06068
G1 X111.12 Y201.11 E593.08258
G1 X117.09 Y193.83 E593.66987
G1 X117.31 Y193.56 E593.69140
G1 X124.59 Y187.60 E594.27812
G1 X124.85 Y187.38 E594.29938
G1 X133.19 Y182.92 E594.88918
G1 X133.51 Y182.76 E594.91152
G1 X138.63 Y181.21 E595.24506
G1 X138.63 Y180.35 E595.29838
G1 X137.78 Y179.82 E595.36126
G1 X133.79 Y176.00 E595.70574
G1 X130.73 Y171.65 E596.03737
G1 X130.57 Y171.41 E596.05545
G1 X128.21 Y166.24 E596.40964
G1 X126.80 Y160.86 E596.75681
G1 X126.73 Y160.59 E596.77415
G1 X126.27 Y155.03 E597.12204
G1 X126.24 Y154.76 E597.13876
G1 X126.49 Y151.75 E597.32718
G0 F6000 X126.95 Y152.25
G1 F2700 X134.70 Y152.25 E597.81068
G1 X134.51 Y154.75 E597.96694
G1 X134.87 Y159.17 E598.24381
G1 X135.93 Y163.40 E598.51532
G1 X137.64 Y167.27 E598.77945
G1 X139.92 Y170.63 E599.03304
G1 X142.67 Y173.37 E599.27461
G1 X145.76 Y175.37 E599.50436
G1 X149.08 Y176.58 E599.72476
G1 X152.50 Y176.99 E599.93955
G1 X155.92 Y176.58 E600.15427
G1 X159.24 Y175.37 E600.37447
G1 X162.33 Y173.37 E600.60426
G1 X165.08 Y170.63 E600.84582
G1 X167.36 Y167.27 E601.09941
G1 X169.07 Y163.40 E601.36355
G1 X170.13 Y159.17 E601.63506
G1 X170.49 Y154.75 E601.91174
G1 X170.29 Y152.25 E602.06824
G1 X178.04 Y152.25 E602.55192
G1 X178.26 Y154.75 E602.70860
G1 X177.79 Y160.28 E603.05424
G1 X177.77 Y160.51 E603.06883
G1 X176.40 Y165.80 E603.40997
G1 X176.34 Y166.04 E603.42499
G1 X174.02 Y171.12 E603.77315
G1 X170.98 Y175.46 E604.10369
G1 X170.83 Y175.67 E604.12008
G1 X167.14 Y179.22 E604.43888
G1 X166.95 Y179.40 E604.45573
G1 X165.87 Y180.08 E604.53504
G1 X165.87 Y181.58 E604.62884
G1 X171.15 Y183.18 E604.97313
G1 X171.38 Y183.26 E604.98792
G1 X179.61 Y187.66 E605.57000
G1 X179.87 Y187.80 E605.58841
G1 X187.11 Y193.74 E606.17216
G1 X187.33 Y193.92 E606.19059
G1 X193.27 Y201.16 E606.77394
G1 X193.46 Y201.38 E606.79254
G1 X197.87 Y209.65 E607.37668
G1 X198.01 Y209.91 E607.39512
G1 X199.47 Y214.70 E607.70752
G1 X191.64 Y214.70 E608.19532
G1 X191.06 Y212.78 E608.32038
G1 X187.20 Y205.56 E608.83078
G1 X182.01 Y199.24 E609.34093
G1 X175.69 Y194.05 E609.85108
G1 X168.47 Y190.19 E610.36142
G1 X160.64 Y187.82 E610.87201
G1 X159.50 Y187.71 E610.94332
G1 X159.49 Y188.00 E610.96167
G1 X147.56 Y188.00 E611.70541
G1 X147.54 Y187.53 E611.73457
G1 X147.25 Y187.53 E611.75222
G1 X144.36 Y187.82 E611.93369
G1 X136.53 Y190.19 E612.44376
G1 X129.31 Y194.05 E612.95450
G1 X122.99 Y199.24 E613.46460
G1 X117.80 Y205.56 E613.97475
G1 X113.94 Y212.78 E614.48515
G1 X113.36 Y214.70 E614.61021
G1 X105.53 Y214.70 E615.09801
G1 X106.99 Y209.90 E615.41060
G1 X111.40 Y201.65 E615.99441
G1 X111.54 Y201.39 E616.01262
G1 X117.48 Y194.15 E616.59677
G1 X117.67 Y193.92 E616.61520
G1 X124.91 Y187.98 E617.19891
G1 X125.13 Y187.80 E617.21720
G1 X133.42 Y183.37 E617.80332
G1 X133.70 Y183.23 E617.82265
G1 X139.13 Y181.58 E618.17671
G1 X139.13 Y180.08 E618.27044
G1 X138.09 Y179.42 E618.34739
G1 X134.17 Y175.67 E618.68560
G1 X131.14 Y171.36 E619.01419
G1 X131.00 Y171.16 E619.02945
G1 X128.68 Y166.07 E619.37803
G1 X127.29 Y160.73 E619.72237
G1 X127.23 Y160.50 E619.73720
G1 X126.76 Y154.99 E620.08240
G1 X126.74 Y154.76 E620.09655
G1 X126.95 Y152.25 E620.25361
G0 F6000 X127.41 Y152.75
G1 F2700 X134.16 Y152.75 E620.67475
G1 X134.01 Y154.75 E620.80017
G1 X134.37 Y159.25 E621.08154
G1 X135.45 Y163.56 E621.35827
G1 X137.20 Y167.52 E621.62830
G1 X139.53 Y170.96 E621.88737
G1 X142.35 Y173.75 E622.13520
G1 X145.54 Y175.81 E622.37180
G1 X148.96 Y177.07 E622.59916
G1 X152.50 Y177.49 E622.82136
G1 X152.50 Y177.49 E622.82155
G1 X156.04 Y177.07 E623.04356
G1 X159.46 Y175.82 E623.27092
G1 X162.65 Y173.75 E623.50756
G1 X165.47 Y170.96 E623.75539
G1 X167.80 Y167.52 E624.01446
G1 X169.55 Y163.56 E624.28449
G1 X170.63 Y159.25 E624.56128
G1 X170.99 Y154.75 E624.84259
G1 X170.83 Y152.75 E624.96805
G1 X177.58 Y152.75 E625.38931
G1 X177.76 Y154.75 E625.51468
G1 X177.29 Y160.23 E625.85751
G1 X177.28 Y160.42 E625.86948
G1 X175.91 Y165.68 E626.20808
G1 X175.87 Y165.87 E626.22038
G1 X173.58 Y170.87 E626.56299
G1 X170.57 Y175.17 E626.89066
G1 X170.45 Y175.35 E626.90395
G1 X166.80 Y178.85 E627.21949
G1 X166.64 Y179.01 E627.23342
G1 X165.37 Y179.80 E627.32681
G1 X165.37 Y181.95 E627.46095
G1 X171.00 Y183.66 E627.82797
G1 X171.18 Y183.72 E627.83969
G1 X179.37 Y188.10 E628.41903
G1 X179.59 Y188.22 E628.43440
G1 X186.79 Y194.12 E629.01510
G1 X186.98 Y194.28 E629.03047
G1 X192.88 Y201.48 E629.61107
G1 X193.04 Y201.66 E629.62627
G1 X197.43 Y209.88 E630.20731
G1 X197.55 Y210.10 E630.22271
G1 X198.79 Y214.20 E630.49001
G1 X192.01 Y214.20 E630.91264
G1 X191.52 Y212.59 E631.01783
G1 X187.62 Y205.29 E631.53395
G1 X182.37 Y198.88 E632.05052
G1 X175.97 Y193.63 E632.56696
G1 X168.67 Y189.73 E633.08307
G1 X160.74 Y187.32 E633.59955
G1 X159.03 Y187.16 E633.70721
G1 X159.01 Y187.50 E633.72862
G1 X148.04 Y187.50 E634.41287
G1 X148.01 Y187.03 E634.44203
G1 X147.24 Y187.03 E634.49048
G1 X144.26 Y187.32 E634.67703
G1 X136.34 Y189.73 E635.19336
G1 X129.03 Y193.63 E635.70981
G1 X122.63 Y198.88 E636.22625
G1 X117.38 Y205.29 E636.74282
G1 X113.48 Y212.59 E637.25894
G1 X112.99 Y214.20 E637.36413
G1 X106.21 Y214.20 E637.78676
G1 X107.45 Y210.10 E638.05425
G1 X111.84 Y201.88 E638.63496
G1 X111.96 Y201.67 E638.65019
G1 X117.87 Y194.47 E639.23123
G1 X118.02 Y194.28 E639.24656
G1 X125.22 Y188.37 E639.82722
G1 X125.41 Y188.22 E639.84241
G1 X133.65 Y183.81 E640.42501
G1 X133.88 Y183.70 E640.44122
G1 X139.63 Y181.95 E640.81588
G1 X139.63 Y179.80 E640.94996
G1 X138.40 Y179.03 E641.04097
G1 X134.55 Y175.34 E641.37297
G1 X131.55 Y171.07 E641.69845
G1 X131.44 Y170.91 E641.71089
G1 X129.15 Y165.91 E642.05384
G1 X127.77 Y160.60 E642.39553
G1 X127.72 Y160.42 E642.40765
G1 X127.26 Y154.94 E642.75017
G1 X127.25 Y154.76 E642.76181
G1 X127.41 Y152.75 E642.88746
G0 F6000 X127.87 Y153.25
G1 F2700 X133.62 Y153.25 E643.24617
G1 X133.50 Y154.75 E643.34013
G1 X133.88 Y159.33 E643.62682
G1 X134.98 Y163.72 E643.90899
G1 X136.76 Y167.76 E644.18402
G1 X139.15 Y171.28 E644.44920
G1 X142.04 Y174.15 E644.70324
G1 X145.31 Y176.26 E644.94656
G1 X148.84 Y177.56 E645.18104
G1 X152.47 Y177.99 E645.40852
G1 X152.54 Y177.99 E645.41295
G1 X156.15 Y177.56 E645.64005
G1 X159.69 Y176.27 E645.87465
G1 X162.96 Y174.15 E646.11805
G1 X165.85 Y171.28 E646.37210
G1 X168.24 Y167.76 E646.63728
G1 X170.02 Y163.72 E646.91230
G1 X171.12 Y159.34 E647.19441
G1 X171.50 Y154.75 E647.48099
G1 X171.37 Y153.25 E647.57516
G1 X177.12 Y153.25 E647.93393
G1 X177.25 Y154.75 E648.02808
G1 X176.80 Y160.19 E648.36810
G1 X176.78 Y160.34 E648.37743
G1 X175.43 Y165.55 E648.71345
G1 X175.39 Y165.70 E648.72299
G1 X173.15 Y170.62 E649.06010
G1 X170.16 Y174.88 E649.38487
G1 X170.07 Y175.02 E649.39511
G1 X166.45 Y178.49 E649.70796
G1 X166.45 Y178.49 E649.70805
G1 X166.33 Y178.61 E649.71850
G1 X164.87 Y179.52 E649.82583
G1 X164.87 Y182.32 E650.00045
G1 X170.85 Y184.14 E650.39016
G1 X170.98 Y184.18 E650.39883
G1 X179.14 Y188.54 E650.97547
G1 X179.31 Y188.63 E650.98775
G1 X186.47 Y194.51 E651.56543
G1 X186.62 Y194.63 E651.57770
G1 X192.50 Y201.79 E652.15507
G1 X192.62 Y201.94 E652.16747
G1 X196.99 Y210.12 E652.74530
G1 X197.08 Y210.29 E652.75760
G1 X198.12 Y213.70 E652.97988
G1 X192.38 Y213.70 E653.33734
G1 X191.99 Y212.40 E653.42239
G1 X188.04 Y205.01 E653.94473
G1 X182.72 Y198.53 E654.46742
G1 X176.25 Y193.21 E654.99006
G1 X168.86 Y189.26 E655.51240
G1 X160.84 Y186.83 E656.03523
G1 X158.55 Y186.61 E656.17855
G1 X158.53 Y187.00 E656.20302
G1 X148.51 Y187.00 E656.82783
G1 X148.49 Y186.53 E656.85699
G1 X147.21 Y186.53 E656.93688
G1 X144.16 Y186.83 E657.12781
G1 X136.15 Y189.26 E657.65014
G1 X128.75 Y193.21 E658.17281
G1 X122.28 Y198.53 E658.69545
G1 X116.96 Y205.01 E659.21814
G1 X113.01 Y212.40 E659.74048
G1 X112.61 Y213.70 E659.82552
G1 X106.88 Y213.70 E660.18299
G1 X107.92 Y210.29 E660.40540
G1 X112.28 Y202.12 E660.98299
G1 X112.38 Y201.95 E660.99518
G1 X118.25 Y194.78 E661.57307
G1 X118.38 Y194.63 E661.58534
G1 X125.54 Y188.76 E662.16294
G1 X125.69 Y188.63 E662.17516
G1 X133.88 Y184.26 E662.75414
G1 X134.07 Y184.16 E662.76727
G1 X140.13 Y182.32 E663.16247
G1 X140.13 Y179.53 E663.33689
G1 X138.70 Y178.63 E663.44197
G1 X134.93 Y175.02 E663.76775
G1 X131.96 Y170.78 E664.09016
G1 X131.87 Y170.66 E664.09978
G1 X129.62 Y165.74 E664.43712
G1 X128.25 Y160.48 E664.77624
G1 X128.22 Y160.33 E664.78559
G1 X127.76 Y154.90 E665.12535
G1 X127.75 Y154.76 E665.13449
G1 X127.87 Y153.25 E665.22879
G0 F6000 X128.33 Y153.75
G1 F2700 X133.08 Y153.75 E665.52501
G1 X133.00 Y154.75 E665.58775
G1 X133.38 Y159.42 E665.87970
G1 X134.50 Y163.88 E666.16676
G1 X136.32 Y168.00 E666.44731
G1 X138.76 Y171.60 E666.71851
G1 X141.72 Y174.54 E666.97882
G1 X145.09 Y176.72 E667.22886
G1 X148.73 Y178.05 E667.47045
G1 X152.44 Y178.49 E667.70364
G1 X152.56 Y178.49 E667.71118
G1 X156.28 Y178.05 E667.94437
G1 X159.91 Y176.72 E668.18579
G1 X163.28 Y174.54 E668.43583
G1 X166.24 Y171.60 E668.69613
G1 X168.68 Y168.00 E668.96733
G1 X170.50 Y163.88 E669.24788
G1 X171.62 Y159.42 E669.53496
G1 X172.00 Y154.75 E669.82709
G1 X171.91 Y153.75 E669.88967
G1 X176.67 Y153.75 E670.18595
G1 X176.75 Y154.75 E670.24880
G1 X176.30 Y160.14 E670.58606
G1 X176.29 Y160.25 E670.59276
G1 X174.95 Y165.43 E670.92621
G1 X174.92 Y165.53 E670.93305
G1 X172.71 Y170.37 E671.26461
G1 X169.75 Y174.60 E671.58642
G1 X169.69 Y174.69 E671.59362
G1 X166.10 Y178.13 E671.90346
G1 X166.02 Y178.21 E671.91078
G1 X164.37 Y179.25 E672.03213
G1 X164.37 Y182.69 E672.24703
G1 X170.70 Y184.61 E672.65943
G1 X170.78 Y184.64 E672.66503
G1 X178.90 Y188.98 E673.23904
G1 X179.03 Y189.05 E673.24825
G1 X186.15 Y194.90 E673.82282
G1 X186.27 Y194.99 E673.83203
G1 X192.11 Y202.11 E674.40647
G1 X192.21 Y202.22 E674.41573
G1 X196.55 Y210.35 E674.99041
G1 X196.62 Y210.48 E674.99968
G1 X197.44 Y213.20 E675.17686
G1 X192.76 Y213.20 E675.46915
G1 X192.45 Y212.20 E675.53419
G1 X188.46 Y204.73 E676.06256
G1 X183.08 Y198.18 E676.59145
G1 X176.52 Y192.79 E677.12030
G1 X169.05 Y188.80 E677.64866
G1 X160.96 Y186.35 E678.17600
G1 X160.93 Y186.34 E678.17783
G1 X158.07 Y186.06 E678.35692
G1 X158.05 Y186.50 E678.38452
G1 X148.99 Y186.50 E678.94990
G1 X148.97 Y186.03 E678.97906
G1 X147.18 Y186.03 E679.09044
G1 X144.07 Y186.34 E679.28538
G1 X135.98 Y188.79 E679.81266
G1 X135.95 Y188.80 E679.81429
G1 X128.48 Y192.79 E680.34291
G1 X121.92 Y198.18 E680.87175
G1 X116.54 Y204.73 E681.40065
G1 X112.55 Y212.20 E681.92901
G1 X112.24 Y213.20 E681.99406
G1 X107.56 Y213.20 E682.28635
G1 X108.38 Y210.48 E682.46361
G1 X112.72 Y202.35 E683.03820
G1 X112.79 Y202.22 E683.04738
G1 X118.64 Y195.10 E683.62204
G1 X118.73 Y194.99 E683.63126
G1 X125.86 Y189.14 E684.20583
G1 X125.97 Y189.05 E684.21501
G1 X134.11 Y184.70 E684.79033
G1 X134.25 Y184.63 E684.80043
G1 X140.63 Y182.69 E685.21621
G1 X140.63 Y179.25 E685.43093
G1 X139.01 Y178.23 E685.55008
G1 X135.31 Y174.69 E685.86964
G1 X132.37 Y170.50 E686.18900
G1 X132.31 Y170.41 E686.19585
G1 X130.10 Y165.57 E686.52755
G1 X128.71 Y160.25 E686.87061
G1 X128.26 Y154.86 E687.20767
G1 X128.25 Y154.75 E687.21431
G1 X128.33 Y153.75 E687.27720
G0 F6000 X128.79 Y154.25
G1 F2700 X132.54 Y154.25 E687.51100
G1 X132.50 Y154.75 E687.54253
G1 X132.89 Y159.50 E687.83922
G1 X134.03 Y164.05 E688.13176
G1 X135.88 Y168.25 E688.41812
G1 X138.38 Y171.92 E688.69497
G1 X141.41 Y174.93 E688.96123
G1 X144.86 Y177.16 E689.21764
G1 X144.86 Y177.16 E689.21809
G1 X148.59 Y178.53 E689.46574
G1 X148.61 Y178.54 E689.46694
G1 X152.41 Y178.99 E689.70541
G1 X152.60 Y178.99 E689.71719
G1 X156.37 Y178.54 E689.95428
G1 X156.39 Y178.54 E689.95547
G1 X160.12 Y177.17 E690.20312
G1 X160.13 Y177.17 E690.20424
G1 X163.59 Y174.93 E690.46119
G1 X166.62 Y171.92 E690.72745
G1 X169.12 Y168.25 E691.00430
G1 X170.97 Y164.05 E691.29066
G1 X172.11 Y159.50 E691.58319
G1 X172.50 Y154.75 E691.87990
G1 X172.46 Y154.25 E691.91143
G1 X176.21 Y154.25 E692.14523
G1 X176.25 Y154.75 E692.17684
G1 X175.80 Y160.10 E692.51129
G1 X175.79 Y160.16 E692.51530
G1 X174.45 Y165.36 E692.85029
G1 X172.28 Y170.12 E693.17637
G1 X169.34 Y174.31 E693.49528
G1 X169.31 Y174.36 E693.49943
G1 X165.71 Y177.82 E693.81038
G1 X163.84 Y178.99 E693.94834
G1 X163.87 Y178.99 E693.95052
G1 X163.87 Y183.06 E694.20452
G1 X170.55 Y185.09 E694.63965
G1 X170.59 Y185.10 E694.64215
G1 X178.75 Y189.47 E695.21957
G1 X185.91 Y195.34 E695.79725
G1 X191.79 Y202.50 E696.37488
G1 X196.15 Y210.67 E696.95257
G1 X196.77 Y212.70 E697.08473
G1 X193.13 Y212.70 E697.31185
G1 X192.92 Y212.01 E697.35676
G1 X188.88 Y204.45 E697.89143
G1 X183.43 Y197.82 E698.42639
G1 X176.80 Y192.38 E698.96130
G1 X169.24 Y188.34 E699.49597
G1 X161.03 Y185.85 E700.03086
G1 X157.84 Y185.53 E700.23114
G1 X157.60 Y185.53 E700.24623
G1 X157.58 Y186.00 E700.27539
G1 X149.46 Y186.00 E700.78127
G1 X149.44 Y185.53 E700.81043
G1 X147.16 Y185.53 E700.95262
G1 X143.97 Y185.85 E701.15290
G1 X135.83 Y188.31 E701.68276
G1 X135.83 Y188.31 E701.68282
G1 X135.76 Y188.34 E701.68791
G1 X128.20 Y192.38 E702.22250
G1 X121.57 Y197.82 E702.75741
G1 X116.12 Y204.45 E703.29237
G1 X112.08 Y212.01 E703.82704
G1 X111.87 Y212.70 E703.87194
G1 X108.23 Y212.70 E704.09907
G1 X108.85 Y210.67 E704.23123
G1 X113.21 Y202.50 E704.80892
G1 X119.09 Y195.34 E705.38655
G1 X126.25 Y189.47 E705.96423
G1 X134.34 Y185.15 E706.53598
G1 X134.44 Y185.10 E706.54301
G1 X141.13 Y183.06 E706.97932
G1 X141.13 Y178.99 E707.23332
G1 X141.16 Y178.99 E707.23519
G1 X139.32 Y177.84 E707.37062
G1 X135.69 Y174.36 E707.68392
G1 X132.74 Y170.16 E708.00426
G1 X130.57 Y165.40 E708.33033
G1 X129.21 Y160.16 E708.66803
G1 X128.76 Y154.82 E709.00241
G1 X128.75 Y154.75 E709.00648
G1 X128.79 Y154.25 E709.03802
G0 F6000 X110.82 Y149.25
;TYPE:WALL-INNER
G1 F2700 X110.26 Y149.25 E709.07244
G1 X114.47 Y141.39 E709.62823
G1 X120.15 Y134.46 E710.18739
G1 X127.09 Y128.77 E710.74686
G1 X134.99 Y124.54 E711.30586
G1 X142.63 Y122.23 E711.80360
G1 X142.63 Y118.54 E712.03347
G1 X142.97 Y118.54 E712.05461
G1 X143.49 Y116.73 E712.17199
G1 X140.25 Y114.70 E712.41076
G1 X136.84 Y111.43 E712.70522
G1 X134.05 Y107.46 E713.00775
G1 X131.99 Y102.95 E713.31703
G1 X130.69 Y97.96 E713.63839
G1 X130.34 Y93.80 E713.89898
G1 X131.08 Y93.80 E713.94507
G1 X131.40 Y97.79 E714.19465
G1 X132.60 Y102.59 E714.50319
G1 X134.56 Y107.02 E714.80569
G1 X137.22 Y110.93 E715.10010
G1 X140.46 Y114.16 E715.38545
G1 X144.04 Y116.47 E715.65096
G1 X144.19 Y116.56 E715.66205
G1 X148.07 Y117.99 E715.92039
G1 X148.25 Y118.06 E715.93211
G1 X152.31 Y118.54 E716.18716
G1 X152.69 Y118.54 E716.21085
G1 X156.56 Y118.08 E716.45353
G1 X156.75 Y118.06 E716.46560
G1 X160.64 Y116.63 E716.72414
G1 X160.82 Y116.56 E716.73586
G1 X164.54 Y114.16 E717.01228
G1 X167.78 Y110.93 E717.29764
G1 X170.44 Y107.02 E717.59205
G1 X172.40 Y102.59 E717.89454
G1 X173.60 Y97.79 E718.20307
G1 X173.92 Y93.80 E718.45266
G1 X174.66 Y93.80 E718.49869
G1 X174.31 Y97.96 E718.75903
G1 X173.03 Y102.91 E719.07793
G1 X170.97 Y107.42 E719.38739
G1 X168.17 Y111.43 E719.69222
G1 X164.78 Y114.68 E719.98465
G1 X162.34 Y116.21 E720.16438
G1 X161.50 Y116.72 E720.22569
G1 X162.02 Y118.54 E720.34369
G1 X162.37 Y118.54 E720.36570
G1 X162.37 Y122.23 E720.59551
G1 X170.00 Y124.54 E721.09307
G1 X177.91 Y128.77 E721.65216
G1 X184.84 Y134.46 E722.21150
G1 X190.54 Y141.39 E722.77091
G1 X194.74 Y149.25 E723.32662
G1 X194.18 Y149.25 E723.36105
G1 X190.13 Y141.66 E723.89767
G1 X184.50 Y134.80 E724.45093
G1 X177.64 Y129.18 E725.00414
G1 X169.82 Y124.99 E725.55740
G1 X161.54 Y122.48 E726.09673
G1 X161.33 Y122.42 E726.11069
G1 X157.90 Y122.08 E726.32532
G1 X147.10 Y122.08 E726.99933
G1 X143.67 Y122.42 E727.21390
G1 X135.39 Y124.93 E727.75354
G1 X135.18 Y125.00 E727.76747
G1 X127.36 Y129.18 E728.32049
G1 X120.50 Y134.80 E728.87371
G1 X114.87 Y141.66 E729.42697
G1 X110.82 Y149.25 E729.96359
G0 F6000 X111.15 Y149.68
G1 F2700 X111.13 Y149.75 E729.96829
G1 X109.58 Y149.75 E730.06508
G1 X109.78 Y149.10 E730.10724
G1 X114.05 Y141.11 E730.67229
G1 X119.80 Y134.10 E731.23774
G1 X126.81 Y128.35 E731.80318
G1 X134.78 Y124.09 E732.36698
G1 X142.13 Y121.86 E732.84606
G1 X142.13 Y118.04 E733.08397
G1 X142.59 Y118.04 E733.11284
G1 X142.91 Y116.96 E733.18325
G1 X139.94 Y115.10 E733.40153
G1 X136.45 Y111.76 E733.70256
G1 X133.61 Y107.71 E734.01104
G1 X131.52 Y103.12 E734.32586
G1 X130.19 Y98.04 E734.65300
G1 X129.79 Y93.30 E734.94970
G1 X131.54 Y93.30 E735.05846
G1 X131.90 Y97.71 E735.33420
G1 X133.08 Y102.42 E735.63754
G1 X135.00 Y106.78 E735.93456
G1 X137.60 Y110.61 E736.22313
G1 X140.78 Y113.76 E736.50218
G1 X144.31 Y116.05 E736.76493
G1 X144.41 Y116.11 E736.77215
G1 X148.24 Y117.52 E737.02644
G1 X148.37 Y117.57 E737.03511
G1 X152.34 Y118.04 E737.28450
G1 X152.66 Y118.04 E737.30458
G1 X156.50 Y117.58 E737.54525
G1 X156.63 Y117.57 E737.55367
G1 X160.47 Y116.16 E737.80854
G1 X160.59 Y116.11 E737.81675
G1 X164.22 Y113.76 E738.08663
G1 X167.40 Y110.61 E738.36568
G1 X170.00 Y106.78 E738.65425
G1 X171.92 Y102.42 E738.95127
G1 X173.10 Y97.71 E739.25459
G1 X173.46 Y93.30 E739.53035
G1 X175.21 Y93.30 E739.63905
G1 X174.81 Y98.04 E739.93575
G1 X173.50 Y103.08 E740.26012
G1 X171.40 Y107.67 E740.57502
G1 X168.54 Y111.76 E740.88631
G1 X165.09 Y115.07 E741.18473
G1 X162.60 Y116.64 E741.36841
G1 X162.09 Y116.95 E741.40564
G1 X162.40 Y118.04 E741.47646
G1 X162.87 Y118.04 E741.50608
G1 X162.87 Y121.86 E741.74393
G1 X170.20 Y124.08 E742.22149
G1 X178.19 Y128.35 E742.78661
G1 X185.20 Y134.10 E743.35224
G1 X190.95 Y141.11 E743.91755
G1 X195.22 Y149.10 E744.48274
G1 X195.42 Y149.75 E744.52490
G1 X193.87 Y149.75 E744.62169
G1 X193.85 Y149.68 E744.62638
G1 X189.71 Y141.94 E745.17352
G1 X184.15 Y135.16 E745.72067
G1 X177.36 Y129.59 E746.26777
G1 X169.63 Y125.46 E746.81491
G1 X161.40 Y122.96 E747.35126
G1 X161.23 Y122.91 E747.36201
G1 X157.88 Y122.58 E747.57200
G1 X147.12 Y122.58 E748.24302
G1 X143.77 Y122.91 E748.45295
G1 X135.54 Y125.41 E748.98940
G1 X135.37 Y125.46 E749.00024
G1 X127.64 Y129.59 E749.54725
G1 X120.86 Y135.16 E750.09434
G1 X115.29 Y141.94 E750.64149
G1 X111.15 Y149.68 E751.18863
G0 F6000 X111.62 Y149.87
;TYPE:WALL-OUTER
G1 F2700 X111.50 Y150.25 E751.21339
G1 X108.91 Y150.25 E751.37541
G1 X109.31 Y148.91 E751.46253
G1 X113.63 Y140.83 E752.03389
G1 X119.44 Y133.75 E752.60549
G1 X126.53 Y127.93 E753.17714
G1 X134.56 Y123.64 E753.74499
G1 X141.63 Y121.48 E754.20600
G1 X141.63 Y117.54 E754.45196
G1 X142.22 Y117.54 E754.48850
G1 X142.32 Y117.18 E754.51199
G1 X139.63 Y115.49 E754.71013
G1 X136.07 Y112.09 E755.01707
G1 X133.18 Y107.95 E755.33183
G1 X131.04 Y103.28 E755.65195
G1 X129.70 Y98.13 E755.98437
G1 X129.25 Y92.83 E756.31612
G1 X129.25 Y92.80 E756.31781
G1 X132.00 Y92.80 E756.48918
G1 X132.39 Y97.62 E756.79113
G1 X133.56 Y102.26 E757.08921
G1 X135.44 Y106.54 E757.38076
G1 X137.99 Y110.29 E757.66348
G1 X141.09 Y113.37 E757.93627
G1 X144.59 Y115.63 E758.19574
G1 X144.64 Y115.67 E758.19961
G1 X148.42 Y117.05 E758.45077
G1 X148.49 Y117.08 E758.45551
G1 X152.37 Y117.54 E758.69925
G1 X152.63 Y117.54 E758.71559
G1 X156.43 Y117.09 E758.95430
G1 X156.51 Y117.08 E758.95908
G1 X160.29 Y115.69 E759.21024
G1 X160.36 Y115.66 E759.21498
G1 X163.91 Y113.37 E759.47829
G1 X167.01 Y110.29 E759.75108
G1 X169.56 Y106.54 E760.03379
G1 X171.44 Y102.26 E760.32535
G1 X172.61 Y97.62 E760.62341
G1 X173.00 Y92.81 E760.92500
G1 X175.75 Y92.80 E761.09637
G1 X175.30 Y98.10 E761.42837
G1 X175.30 Y98.13 E761.42981
G1 X173.97 Y103.25 E761.75960
G1 X171.84 Y107.92 E762.07991
G1 X168.94 Y112.07 E762.39600
G1 X168.93 Y112.09 E762.39712
G1 X165.40 Y115.47 E762.70172
G1 X162.86 Y117.06 E762.88856
G1 X162.67 Y117.18 E762.90261
G1 X162.77 Y117.54 E762.92621
G1 X163.37 Y117.54 E762.96337
G1 X163.37 Y121.48 E763.20927
G1 X170.39 Y123.61 E763.66669
G1 X178.47 Y127.93 E764.23816
G1 X185.56 Y133.75 E764.80981
G1 X191.37 Y140.83 E765.38142
G1 X195.69 Y148.91 E765.95278
G1 X196.09 Y150.25 E766.03990
G1 X193.50 Y150.25 E766.20192
G1 X193.38 Y149.87 E766.22668
G1 X189.29 Y142.22 E766.76768
G1 X183.79 Y135.51 E767.30867
G1 X177.09 Y130.01 E767.84961
G1 X169.43 Y125.92 E768.39061
G1 X161.13 Y123.40 E768.93164
G1 X157.85 Y123.08 E769.13699
G1 X147.15 Y123.08 E769.80490
G1 X143.87 Y123.40 E770.01025
G1 X135.69 Y125.89 E770.54350
G1 X135.57 Y125.92 E770.55128
G1 X127.92 Y130.01 E771.09228
G1 X121.21 Y135.51 E771.63322
G1 X115.71 Y142.22 E772.17421
G1 X111.62 Y149.87 E772.71521
G0 F6000 X111.28 Y149.77
G0 X115.33 Y141.97
G0 X120.89 Y135.20
G0 X127.67 Y129.64
G0 X135.55 Y125.45
G0 X142.81 Y121.94
;TYPE:FILL
G1 F2700 X143.23 Y122.37 E772.75261
G0 F6000 X143.80 Y122.23
G1 F2700 X142.81 Y121.24 E772.84001
G0 F6000 X142.81 Y120.53
G1 F2700 X144.44 Y122.17 E772.98421
G0 F6000 X145.08 Y122.10
G1 F2700 X142.81 Y119.82 E773.18520
G0 F6000 X142.81 Y119.12
G1 F2700 X145.73 Y122.04 E773.44291
G0 F6000 X146.37 Y121.98
G1 F2700 X143.10 Y118.71 E773.73112
G0 F6000 X143.26 Y118.16
G1 F2700 X147.01 Y121.91 E774.06221
G0 F6000 X147.72 Y121.91
G1 F2700 X143.42 Y117.61 E774.44113
G0 F6000 X143.58 Y117.06
G1 F2700 X148.42 Y121.91 E774.86848
G0 F6000 X149.13 Y121.91
G1 F2700 X143.65 Y116.42 E775.35183
G0 F6000 X144.97 Y117.04
G1 F2700 X149.84 Y121.91 E775.78098
G0 F6000 X150.54 Y121.91
G1 F2700 X146.09 Y117.45 E776.17397
G0 F6000 X147.21 Y117.86
G1 F2700 X151.25 Y121.91 E776.53072
G0 F6000 X151.96 Y121.91
G1 F2700 X148.29 Y118.24 E776.85413
G0 F6000 X149.09 Y118.33
G1 F2700 X152.66 Y121.91 E777.16911
G0 F6000 X153.37 Y121.91
G1 F2700 X149.90 Y118.43 E777.47568
G0 F6000 X150.70 Y118.53
G1 F2700 X154.08 Y121.91 E777.77382
G0 F6000 X154.79 Y121.91
G1 F2700 X151.50 Y118.62 E778.06349
G0 F6000 X152.30 Y118.72
G1 F2700 X155.49 Y121.91 E778.34479
G0 F6000 X156.20 Y121.91
G1 F2700 X152.98 Y118.68 E778.62895
G0 F6000 X153.61 Y118.61
G1 F2700 X156.91 Y121.91 E778.91981
G0 F6000 X157.61 Y121.91
G1 F2700 X154.24 Y118.53 E779.21729
G0 F6000 X154.87 Y118.46
G1 F2700 X158.37 Y121.95 E779.52553
G0 F6000 X159.15 Y122.03
G1 F2700 X155.50 Y118.38 E779.84722
G0 F6000 X156.13 Y118.31
G1 F2700 X159.94 Y122.11 E780.18236
G0 F6000 X160.72 Y122.18
G1 F2700 X156.77 Y118.23 E780.53099
G0 F6000 X157.29 Y118.04
G1 F2700 X161.54 Y122.30 E780.90643
G0 F6000 X162.19 Y122.24
G1 F2700 X157.81 Y117.85 E781.29352
G0 F6000 X158.32 Y117.66
G1 F2700 X162.19 Y121.54 E781.63496
G0 F6000 X162.19 Y120.83
G1 F2700 X158.84 Y117.47 E781.93076
G0 F6000 X159.36 Y117.28
G1 F2700 X162.19 Y120.12 E782.18097
G0 F6000 X162.19 Y119.41
G1 F2700 X159.87 Y117.09 E782.38558
G0 F6000 X160.39 Y116.90
G1 F2700 X161.76 Y118.27 E782.50606
G0 F6000 X161.48 Y117.28
G1 F2700 X161.12 Y116.57 E782.55652
G1 X161.61 Y116.35 E782.56632
G1 X162.04 Y116.08 E782.57660
G1 X162.47 Y115.80 E782.58753
G1 X162.90 Y115.53 E782.59908
G1 X163.34 Y115.25 E782.61111
G1 X163.77 Y114.98 E782.62371
G1 X164.20 Y114.70 E782.63694
G1 X164.69 Y114.49 E782.65064
G1 X164.93 Y114.02 E782.66284
G1 X165.43 Y113.81 E782.67563
G1 X165.64 Y113.31 E782.68896
G1 X166.15 Y113.12 E782.70282
G1 X166.34 Y112.61 E782.71720
G1 X166.87 Y112.43 E782.73215
G1 X167.06 Y111.90 E782.74764
G1 X167.59 Y111.73 E782.76361
G1 X167.76 Y111.19 E782.78012
G1 X168.26 Y110.98 E782.79583
G1 X168.37 Y110.38 E782.81199
G1 X168.84 Y110.15 E782.82863
G1 X168.94 Y109.54 E782.84573
G1 X169.43 Y109.32 E782.86327
G1 X169.51 Y108.70 E782.88125
G1 X170.01 Y108.49 E782.89970
G1 X170.08 Y107.86 E782.91864
G1 X170.59 Y107.66 E782.93800
G1 X170.74 Y107.10 E782.95786
G1 X170.97 Y106.62 E782.97809
G1 X171.19 Y106.14 E782.99882
G1 X171.41 Y105.65 E783.01992
G1 X171.63 Y105.16 E783.04153
G1 X171.85 Y104.67 E783.06362
G1 X172.07 Y104.18 E783.08616
G1 X172.28 Y103.70 E783.10918
G1 X172.50 Y103.21 E783.13262
G1 X172.71 Y102.70 E783.15644
G1 X172.86 Y102.15 E783.18163
G1 X173.01 Y101.59 E783.20718
G1 X173.15 Y101.03 E783.23291
G1 X173.29 Y100.46 E783.25910
G1 X173.44 Y99.90 E783.28556
G1 X173.58 Y99.33 E783.31251
G1 X173.72 Y98.77 E783.33966
G1 X173.87 Y98.21 E783.36711
G1 X173.97 Y97.61 E783.39568
G1 X174.03 Y96.95 E783.42658
G1 X174.08 Y96.30 E783.45755
G1 X174.14 Y95.65 E783.48861
G1 X174.19 Y95.00 E783.51991
G1 X174.25 Y94.34 E783.55132
G1 X174.23 Y93.97 E783.57435
G0 F6000 X171.87 Y102.41
G0 X169.95 Y106.75
G0 X167.36 Y110.58
G0 X164.19 Y113.72
G0 X160.45 Y116.11
G0 X156.49 Y117.53
G0 X152.34 Y117.99
G0 X148.16 Y117.40
G0 X144.34 Y116.01
G0 X142.29 Y115.77
G1 F2700 X141.65 Y115.13 E783.63079
G0 F6000 X140.39 Y114.58
G1 F2700 X136.60 Y110.79 E783.96509
G0 F6000 X136.06 Y109.55
G1 F2700 X134.94 Y108.42 E784.06414
G0 F6000 X134.57 Y107.35
G1 F2700 X133.89 Y106.31 E784.12572
G1 X133.31 Y105.03 E784.18157
G1 X132.74 Y103.75 E784.24074
G1 X132.24 Y102.54 E784.29949
G1 X132.00 Y101.59 E784.34145
G1 X131.75 Y100.64 E784.38450
G1 X131.51 Y99.69 E784.42858
G1 X131.27 Y98.74 E784.47383
G1 X131.04 Y97.81 E784.52028
G1 X130.97 Y97.03 E784.55643
G1 X130.91 Y96.26 E784.59295
G1 X130.85 Y95.49 E784.62967
G1 X130.78 Y94.72 E784.66663
G1 X130.54 Y94.12 E784.70674
G0 F6000 X130.34 Y155.75
;TYPE:WALL-INNER
G1 F2700 X131.08 Y155.75 E784.75283
G1 X131.40 Y159.74 E785.00241
G1 X132.60 Y164.54 E785.31095
G1 X134.56 Y168.97 E785.61339
G1 X137.22 Y172.88 E785.90780
G1 X140.46 Y176.10 E786.19316
G1 X144.04 Y178.42 E786.45866
G1 X144.19 Y178.51 E786.46975
G1 X148.07 Y179.94 E786.72809
G1 X148.25 Y180.01 E786.73981
G1 X152.32 Y180.49 E786.99536
G1 X152.68 Y180.49 E787.01800
G1 X156.56 Y180.03 E787.26124
G1 X156.75 Y180.01 E787.27331
G1 X160.64 Y178.58 E787.53185
G1 X160.82 Y178.51 E787.54357
G1 X164.54 Y176.10 E787.81999
G1 X167.78 Y172.88 E788.10535
G1 X170.44 Y168.97 E788.39976
G1 X172.40 Y164.54 E788.70220
G1 X173.60 Y159.74 E789.01072
G1 X173.92 Y155.75 E789.26032
G1 X174.66 Y155.75 E789.30634
G1 X174.31 Y159.91 E789.56662
G1 X173.03 Y164.86 E789.88558
G1 X170.97 Y169.37 E790.19498
G1 X168.17 Y173.38 E790.49982
G1 X164.78 Y176.63 E790.79229
G1 X162.34 Y178.16 E790.97202
G1 X161.50 Y178.67 E791.03332
G1 X162.02 Y180.49 E791.15132
G1 X162.37 Y180.49 E791.17334
G1 X162.37 Y184.18 E791.40315
G1 X170.00 Y186.49 E791.90071
G1 X177.91 Y190.72 E792.45977
G1 X184.84 Y196.41 E793.01910
G1 X190.54 Y203.34 E793.57852
G1 X194.74 Y211.20 E794.13423
G1 X194.18 Y211.20 E794.16865
G1 X190.13 Y203.61 E794.70528
G1 X184.50 Y196.75 E795.25854
G1 X177.64 Y191.13 E795.81175
G1 X169.82 Y186.94 E796.36501
G1 X161.54 Y184.43 E796.90434
G1 X161.33 Y184.37 E796.91830
G1 X157.91 Y184.03 E797.13230
G1 X147.09 Y184.03 E797.80756
G1 X143.67 Y184.37 E798.02150
G1 X135.39 Y186.88 E798.56114
G1 X135.18 Y186.95 E798.57507
G1 X127.36 Y191.13 E799.12810
G1 X120.50 Y196.75 E799.68131
G1 X114.87 Y203.61 E800.23457
G1 X110.82 Y211.20 E800.77120
G1 X110.26 Y211.20 E800.80562
G1 X114.47 Y203.34 E801.36141
G1 X120.15 Y196.41 E801.92057
G1 X127.09 Y190.72 E802.48003
G1 X134.99 Y186.49 E803.03901
G1 X142.63 Y184.18 E803.53677
G1 X142.63 Y180.49 E803.76657
G1 X142.97 Y180.49 E803.78772
G1 X143.49 Y178.68 E803.90506
G1 X140.25 Y176.65 E804.14402
G1 X136.84 Y173.38 E804.43840
G1 X134.05 Y169.41 E804.74092
G1 X131.99 Y164.90 E805.05016
G1 X130.69 Y159.91 E805.37157
G1 X130.34 Y155.75 E805.63210
G0 F6000 X129.79 Y155.25
G1 F2700 X131.54 Y155.25 E805.74086
G1 X131.90 Y159.66 E806.01660
G1 X133.08 Y164.38 E806.31994
G1 X135.00 Y168.73 E806.61691
G1 X137.60 Y172.56 E806.90547
G1 X140.78 Y175.71 E807.18452
G1 X144.31 Y178.00 E807.44728
G1 X144.41 Y178.06 E807.45449
G1 X148.24 Y179.47 E807.70878
G1 X148.37 Y179.52 E807.71745
G1 X152.35 Y179.99 E807.96734
G1 X152.65 Y179.99 E807.98636
G1 X156.50 Y179.53 E808.22760
G1 X156.63 Y179.52 E808.23602
G1 X160.47 Y178.11 E808.49089
G1 X160.59 Y178.06 E808.49910
G1 X164.22 Y175.71 E808.76898
G1 X167.40 Y172.56 E809.04803
G1 X170.00 Y168.73 E809.33659
G1 X171.92 Y164.38 E809.63356
G1 X173.10 Y159.66 E809.93689
G1 X173.46 Y155.25 E810.21264
G1 X175.21 Y155.25 E810.32134
G1 X174.81 Y159.99 E810.61798
G1 X173.50 Y165.03 E810.94241
G1 X171.40 Y169.62 E811.25726
G1 X168.54 Y173.71 E811.56855
G1 X165.09 Y177.02 E811.86697
G1 X162.60 Y178.59 E812.05068
G1 X162.09 Y178.90 E812.08791
G1 X162.40 Y179.99 E812.15873
G1 X162.87 Y179.99 E812.18835
G1 X162.87 Y183.81 E812.42620
G1 X170.20 Y186.03 E812.90376
G1 X178.19 Y190.30 E813.46884
G1 X185.20 Y196.05 E814.03447
G1 X190.95 Y203.06 E814.59978
G1 X195.22 Y211.05 E815.16498
G1 X195.42 Y211.70 E815.20714
G1 X193.87 Y211.70 E815.30393
G1 X193.85 Y211.63 E815.30862
G1 X189.71 Y203.89 E815.85576
G1 X184.15 Y197.11 E816.40291
G1 X177.36 Y191.54 E816.95000
G1 X169.63 Y187.41 E817.49715
G1 X161.40 Y184.91 E818.03349
G1 X161.23 Y184.86 E818.04425
G1 X157.89 Y184.53 E818.25361
G1 X147.11 Y184.53 E818.92588
G1 X143.77 Y184.86 E819.13518
G1 X135.54 Y187.36 E819.67163
G1 X135.37 Y187.41 E819.68248
G1 X127.64 Y191.54 E820.22948
G1 X120.86 Y197.11 E820.77657
G1 X115.29 Y203.89 E821.32372
G1 X111.15 Y211.63 E821.87086
G1 X111.13 Y211.70 E821.87556
G1 X109.58 Y211.70 E821.97234
G1 X109.78 Y211.05 E822.01450
G1 X114.05 Y203.06 E822.57956
G1 X119.80 Y196.05 E823.14500
G1 X126.81 Y190.30 E823.71045
G1 X134.78 Y186.04 E824.27422
G1 X142.13 Y183.81 E824.75331
G1 X142.13 Y179.99 E824.99116
G1 X142.59 Y179.99 E825.02004
G1 X142.91 Y178.91 E825.09044
G1 X139.94 Y177.05 E825.30875
G1 X136.45 Y173.71 E825.60979
G1 X133.61 Y169.66 E825.91827
G1 X131.52 Y165.07 E826.23303
G1 X130.19 Y159.99 E826.56023
G1 X129.79 Y155.25 E826.85687
G0 F6000 X129.25 Y154.78
;TYPE:WALL-OUTER
G1 F2700 X129.25 Y154.75 E826.85850
G1 X132.00 Y154.75 E827.02987
G1 X132.39 Y159.58 E827.33182
G1 X133.56 Y164.21 E827.62990
G1 X135.44 Y168.49 E827.92140
G1 X137.99 Y172.24 E828.20411
G1 X141.09 Y175.32 E828.47690
G1 X144.59 Y177.58 E828.73637
G1 X144.64 Y177.62 E828.74024
G1 X148.42 Y179.00 E828.99140
G1 X148.49 Y179.03 E828.99614
G1 X152.38 Y179.49 E829.24038
G1 X152.62 Y179.49 E829.25566
G1 X156.43 Y179.04 E829.49494
G1 X156.51 Y179.03 E829.49972
G1 X160.29 Y177.64 E829.75088
G1 X160.36 Y177.61 E829.75562
G1 X163.91 Y175.32 E830.01893
G1 X167.01 Y172.24 E830.29172
G1 X169.56 Y168.49 E830.57443
G1 X171.44 Y164.21 E830.86593
G1 X172.61 Y159.58 E831.16399
G1 X173.00 Y154.75 E831.46564
G1 X175.75 Y154.75 E831.63702
G1 X175.30 Y160.05 E831.96896
G1 X175.30 Y160.08 E831.97040
G1 X173.97 Y165.20 E832.30024
G1 X171.84 Y169.87 E832.62050
G1 X168.94 Y174.02 E832.93658
G1 X168.93 Y174.04 E832.93771
G1 X165.40 Y177.42 E833.24230
G1 X162.86 Y179.01 E833.42918
G1 X162.67 Y179.13 E833.44323
G1 X162.77 Y179.49 E833.46683
G1 X163.37 Y179.49 E833.50399
G1 X163.37 Y183.44 E833.74989
G1 X170.39 Y185.56 E834.20731
G1 X178.47 Y189.88 E834.77875
G1 X185.56 Y195.70 E835.35040
G1 X191.37 Y202.78 E835.92201
G1 X195.69 Y210.86 E836.49337
G1 X196.09 Y212.20 E836.58049
G1 X193.50 Y212.20 E836.74251
G1 X193.38 Y211.82 E836.76727
G1 X189.29 Y204.17 E837.30827
G1 X183.79 Y197.46 E837.84926
G1 X177.09 Y191.96 E838.39020
G1 X169.43 Y187.87 E838.93120
G1 X161.13 Y185.35 E839.47223
G1 X157.87 Y185.03 E839.67696
G1 X147.13 Y185.03 E840.34611
G1 X143.87 Y185.35 E840.55083
G1 X135.69 Y187.84 E841.08409
G1 X135.57 Y187.87 E841.09186
G1 X127.92 Y191.96 E841.63286
G1 X121.21 Y197.46 E842.17380
G1 X115.71 Y204.17 E842.71479
G1 X111.62 Y211.82 E843.25580
G1 X111.50 Y212.20 E843.28056
G1 X108.91 Y212.20 E843.44258
G1 X109.31 Y210.86 E843.52970
G1 X113.63 Y202.78 E844.10106
G1 X119.44 Y195.70 E844.67266
G1 X126.53 Y189.88 E845.24431
G1 X134.56 Y185.59 E845.81213
G1 X141.63 Y183.44 E846.27316
G1 X141.63 Y179.49 E846.51905
G1 X142.22 Y179.49 E846.55560
G1 X142.32 Y179.13 E846.57909
G1 X139.63 Y177.44 E846.77725
G1 X136.07 Y174.04 E847.08420
G1 X133.18 Y169.90 E847.39896
G1 X131.04 Y165.24 E847.71902
G1 X129.70 Y160.08 E848.05150
G1 X129.25 Y154.78 E848.38325
G0 F6000 X129.62 Y155.00
G0 X130.82 Y155.92
;TYPE:FILL
G1 F2700 X130.75 Y156.20 E848.39235
G1 X130.81 Y156.97 E848.42950
G1 X130.87 Y157.74 E848.46636
G1 X130.94 Y158.51 E848.50302
G1 X131.00 Y159.28 E848.53950
G1 X131.12 Y160.11 E848.57785
G1 X131.36 Y161.06 E848.62385
G1 X131.60 Y162.01 E848.66866
G1 X131.85 Y162.96 E848.71244
G1 X132.09 Y163.91 E848.75496
G1 X132.38 Y164.91 E848.79720
G1 X132.96 Y166.20 E848.85832
G1 X133.54 Y167.48 E848.91631
G1 X134.13 Y168.43 E848.98582
G0 F6000 X134.11 Y169.11
G1 F2700 X135.16 Y170.16 E849.07856
G0 F6000 X135.59 Y171.30
G1 F2700 X136.65 Y172.36 E849.17187
G0 F6000 X140.86 Y176.57
G1 F2700 X141.54 Y177.25 E849.23193
G0 F6000 X142.87 Y177.87
G1 F2700 X143.45 Y178.45 E849.28326
G0 F6000 X143.67 Y178.68
G1 F2700 X148.85 Y183.86 E849.74015
G0 F6000 X148.15 Y183.86
G1 F2700 X143.52 Y179.22 E850.14858
G0 F6000 X143.36 Y179.77
G1 F2700 X147.44 Y183.86 E850.50858
G0 F6000 X146.76 Y183.89
G1 F2700 X143.20 Y180.32 E850.82291
G0 F6000 X142.84 Y180.67
G1 F2700 X146.12 Y183.95 E851.11254
G0 F6000 X145.48 Y184.01
G1 F2700 X142.81 Y181.34 E851.34806
G0 F6000 X142.81 Y182.05
G1 F2700 X144.83 Y184.08 E851.52679
G0 F6000 X144.19 Y184.14
G1 F2700 X142.81 Y182.76 E851.64876
G0 F6000 X142.81 Y183.46
G1 F2700 X143.56 Y184.22 E851.71526
G0 F6000 X143.02 Y184.38
G1 F2700 X142.81 Y184.17 E851.73396
G0 F6000 X144.53 Y178.83
G1 F2700 X149.56 Y183.86 E852.17740
G0 F6000 X150.27 Y183.86
G1 F2700 X145.65 Y179.24 E852.58463
G0 F6000 X146.77 Y179.65
G1 F2700 X150.97 Y183.86 E852.95562
G0 F6000 X151.68 Y183.86
G1 F2700 X147.89 Y180.06 E853.29036
G0 F6000 X148.78 Y180.25
G1 F2700 X152.39 Y183.86 E853.60866
G0 F6000 X153.10 Y183.86
G1 F2700 X149.58 Y180.34 E853.91857
G0 F6000 X150.39 Y180.44
G1 F2700 X153.80 Y183.86 E854.22002
G0 F6000 X154.51 Y183.86
G1 F2700 X151.19 Y180.53 E854.51309
G0 F6000 X151.99 Y180.63
G1 F2700 X155.22 Y183.86 E854.79769
G0 F6000 X155.93 Y183.86
G1 F2700 X152.73 Y180.66 E855.07938
G0 F6000 X153.36 Y180.59
G1 F2700 X156.63 Y183.86 E855.36778
G0 F6000 X157.34 Y183.86
G1 F2700 X153.99 Y180.51 E855.66283
G0 F6000 X154.62 Y180.44
G1 F2700 X158.06 Y183.87 E855.96574
G0 F6000 X158.84 Y183.95
G1 F2700 X155.26 Y180.36 E856.28200
G0 F6000 X155.89 Y180.28
G1 F2700 X159.63 Y184.02 E856.61176
G0 F6000 X160.41 Y184.10
G1 F2700 X156.52 Y180.21 E856.95501
G0 F6000 X157.09 Y180.07
G1 F2700 X161.20 Y184.18 E857.31753
G0 F6000 X162.16 Y184.44
G1 F2700 X157.60 Y179.88 E857.71970
G0 F6000 X158.12 Y179.69
G1 F2700 X162.19 Y183.76 E858.07905
G0 F6000 X162.19 Y183.06
G1 F2700 X158.64 Y179.50 E858.39275
G0 F6000 X159.16 Y179.31
G1 F2700 X162.19 Y182.35 E858.66078
G0 F6000 X162.19 Y181.64
G1 F2700 X159.67 Y179.12 E858.88320
G0 F6000 X160.19 Y178.93
G1 F2700 X161.87 Y180.60 E859.03106
G0 F6000 X161.93 Y180.67
G1 F2700 X162.19 Y180.93 E859.05461
G0 F6000 X161.59 Y179.62
G1 F2700 X160.71 Y178.74 E859.13240
G0 F6000 X161.17 Y178.49
G1 F2700 X161.51 Y178.48 E859.14497
G1 X161.81 Y178.07 E859.15519
G1 X162.30 Y177.86 E859.16589
G1 X162.74 Y177.58 E859.17713
G1 X163.17 Y177.31 E859.18902
G1 X163.60 Y177.03 E859.20141
G1 X164.03 Y176.76 E859.21445
G1 X164.54 Y176.56 E859.22796
G1 X164.78 Y176.10 E859.24088
G1 X165.29 Y175.90 E859.25358
G1 X165.50 Y175.40 E859.26675
G1 X166.01 Y175.20 E859.28058
G1 X166.21 Y174.69 E859.29486
G1 X166.73 Y174.51 E859.30971
G1 X166.92 Y173.99 E859.32499
G1 X167.45 Y173.82 E859.34080
G1 X167.63 Y173.28 E859.35720
G1 X168.14 Y173.09 E859.37405
G1 X168.25 Y172.50 E859.39010
G1 X168.73 Y172.26 E859.40655
G1 X168.83 Y171.65 E859.42352
G1 X169.31 Y171.43 E859.44087
G1 X169.40 Y170.81 E859.45870
G1 X169.89 Y170.60 E859.47690
G1 X169.97 Y169.97 E859.49553
G1 X170.47 Y169.77 E859.51475
G1 X170.53 Y169.12 E859.53436
G1 X171.00 Y168.88 E859.55452
G1 X171.10 Y168.28 E859.57495
G1 X171.32 Y167.79 E859.59590
G1 X171.54 Y167.30 E859.61745
G1 X171.76 Y166.81 E859.63933
G1 X171.98 Y166.32 E859.66175
G1 X172.20 Y165.84 E859.68450
G1 X172.42 Y165.35 E859.70769
G1 X172.63 Y164.86 E859.73140
G1 X172.81 Y164.32 E859.75649
G1 X172.95 Y163.76 E859.78182
G1 X173.09 Y163.19 E859.80740
G1 X173.24 Y162.63 E859.83346
G1 X173.38 Y162.07 E859.85981
G1 X173.53 Y161.50 E859.88648
G1 X173.67 Y160.94 E859.91355
G1 X173.81 Y160.38 E859.94088
G1 X173.94 Y159.80 E859.96869
G1 X174.01 Y159.16 E859.99959
G1 X174.06 Y158.50 E860.03048
G1 X174.12 Y157.85 E860.06149
G1 X174.17 Y157.20 E860.09263
G1 X174.22 Y156.55 E860.12401
G1 X174.07 Y156.04 E860.15690
;LAYER:1
G0 F6000 X173.92 Y155.75 Z0.50
;TYPE:WALL-INNER
G1 F3480 X174.66 Y155.75 E860.18758
G1 X174.31 Y159.91 E860.36106
G1 X173.03 Y164.86 E860.57361
G1 X170.95 Y169.41 E860.78162
G1 X168.16 Y173.38 E860.98336
G1 X164.78 Y176.63 E861.17839
G1 X162.36 Y178.14 E861.29698
G1 X161.50 Y178.68 E861.33915
G1 X162.02 Y180.49 E861.41754
G1 X162.37 Y180.49 E861.43209
G1 X162.37 Y184.18 E861.58529
G1 X170.00 Y186.49 E861.91691
G1 X177.89 Y190.71 E862.28861
G1 X184.82 Y196.39 E862.66149
G1 X190.52 Y203.32 E863.03448
G1 X194.74 Y211.20 E863.40596
G1 X194.18 Y211.20 E863.42891
G1 X190.13 Y203.61 E863.78666
G1 X184.50 Y196.75 E864.15550
G1 X177.64 Y191.13 E864.52431
G1 X169.82 Y186.94 E864.89315
G1 X161.64 Y184.46 E865.24857
G1 X161.33 Y184.37 E865.26201
G1 X157.91 Y184.03 E865.40472
G1 X147.09 Y184.03 E865.85489
G1 X144.00 Y184.34 E865.98398
G1 X143.67 Y184.37 E865.99752
G1 X135.49 Y186.85 E866.35303
G1 X135.18 Y186.94 E866.36639
G1 X127.36 Y191.13 E866.73521
G1 X120.50 Y196.75 E867.10402
G1 X114.87 Y203.61 E867.47286
G1 X110.82 Y211.20 E867.83061
G1 X110.26 Y211.20 E867.85356
G1 X114.46 Y203.34 E868.22403
G1 X120.14 Y196.43 E868.59577
G1 X127.07 Y190.74 E868.96878
G1 X134.97 Y186.50 E869.34157
G1 X135.00 Y186.49 E869.34270
G1 X141.61 Y184.49 E869.63009
G1 X142.63 Y184.18 E869.67430
G1 X142.63 Y180.49 E869.82743
G1 X142.98 Y180.49 E869.84189
G1 X143.50 Y178.68 E869.92018
G1 X140.22 Y176.63 E870.08111
G1 X136.84 Y173.38 E870.27606
G1 X134.05 Y169.41 E870.47771
G1 X131.97 Y164.86 E870.68563
G1 X130.69 Y159.91 E870.89823
G1 X130.34 Y155.75 E871.07180
G1 X131.08 Y155.75 E871.10252
G1 X131.40 Y159.74 E871.26891
G1 X132.60 Y164.54 E871.47460
G1 X134.56 Y168.97 E871.67623
G1 X137.22 Y172.88 E871.87250
G1 X140.46 Y176.10 E872.06274
G1 X144.01 Y178.40 E872.23866
G1 X144.19 Y178.51 E872.24723
G1 X148.03 Y179.93 E872.41738
G1 X148.25 Y180.01 E872.42735
G1 X152.32 Y180.49 E872.59738
G1 X152.68 Y180.49 E872.61264
G1 X156.50 Y180.04 E872.77266
G1 X156.74 Y180.01 E872.78263
G1 X160.59 Y178.60 E872.95312
G1 X160.81 Y178.51 E872.96284
G1 X164.54 Y176.10 E873.14731
G1 X167.78 Y172.88 E873.33754
G1 X170.44 Y168.97 E873.53381
G1 X172.40 Y164.54 E873.73544
G1 X173.60 Y159.74 E873.94112
G1 X173.92 Y155.75 E874.10752
G0 F6000 X173.46 Y155.25
G1 F3480 X175.21 Y155.25 E874.17999
G1 X174.81 Y159.97 E874.37670
G1 X174.81 Y159.99 E874.37783
G1 X173.51 Y165.00 E874.59309
G1 X171.39 Y169.65 E874.80515
G1 X171.39 Y169.66 E874.80569
G1 X168.54 Y173.71 E875.01160
G1 X165.09 Y177.02 E875.21043
G1 X162.63 Y178.57 E875.33137
G1 X162.09 Y178.90 E875.35787
G1 X162.40 Y179.99 E875.40492
G1 X162.87 Y179.99 E875.42458
G1 X162.87 Y183.81 E875.58315
G1 X170.20 Y186.03 E875.90143
G1 X178.12 Y190.27 E876.27521
G1 X178.19 Y190.30 E876.27828
G1 X185.14 Y196.01 E876.65221
G1 X185.20 Y196.05 E876.65528
G1 X190.91 Y203.00 E877.02920
G1 X190.95 Y203.06 E877.03230
G1 X195.22 Y211.06 E877.40906
G1 X195.42 Y211.70 E877.43711
G1 X193.87 Y211.70 E877.50164
G1 X193.85 Y211.63 E877.50477
G1 X189.71 Y203.89 E877.86953
G1 X184.15 Y197.11 E878.23429
G1 X177.36 Y191.54 E878.59903
G1 X169.63 Y187.41 E878.96379
G1 X161.49 Y184.94 E879.31722
G1 X161.23 Y184.86 E879.32852
G1 X157.89 Y184.53 E879.46814
G1 X147.11 Y184.53 E879.91632
G1 X143.77 Y184.86 E880.05581
G1 X135.63 Y187.33 E880.40923
G1 X135.37 Y187.41 E880.42059
G1 X127.64 Y191.54 E880.78534
G1 X120.86 Y197.11 E881.15007
G1 X115.29 Y203.89 E881.51483
G1 X111.15 Y211.63 E881.87959
G1 X111.13 Y211.70 E881.88272
G1 X109.58 Y211.70 E881.94725
G1 X109.78 Y211.06 E881.97530
G1 X114.05 Y203.06 E882.35200
G1 X119.75 Y196.11 E882.72590
G1 X119.80 Y196.06 E882.72897
G1 X126.75 Y190.35 E883.10292
G1 X126.81 Y190.30 E883.10602
G1 X134.74 Y186.06 E883.47984
G1 X134.80 Y186.03 E883.48282
G1 X141.47 Y184.01 E883.77243
G1 X142.13 Y183.81 E883.80126
G1 X142.13 Y179.99 E883.95978
G1 X142.60 Y179.99 E883.97936
G1 X142.91 Y178.91 E884.02634
G1 X139.92 Y177.03 E884.17340
G1 X136.46 Y173.71 E884.37264
G1 X133.61 Y169.66 E884.57850
G1 X131.51 Y165.04 E884.78940
G1 X130.20 Y160.01 E885.00550
G1 X129.80 Y155.25 E885.20423
G1 X131.54 Y155.25 E885.27670
G1 X131.90 Y159.66 E885.46052
G1 X133.08 Y164.38 E885.66275
G1 X135.00 Y168.73 E885.86073
G1 X137.60 Y172.56 E886.05310
G1 X140.78 Y175.71 E886.23914
G1 X144.29 Y177.98 E886.41292
G1 X144.41 Y178.06 E886.41917
G1 X148.20 Y179.45 E886.58687
G1 X148.37 Y179.52 E886.59454
G1 X152.34 Y179.99 E886.76085
G1 X152.65 Y179.99 E886.77370
G1 X156.63 Y179.52 E886.94001
G1 X160.42 Y178.13 E887.10801
G1 X160.59 Y178.06 E887.11542
G1 X164.22 Y175.71 E887.29545
G1 X167.40 Y172.56 E887.48149
G1 X170.00 Y168.73 E887.67386
G1 X171.92 Y164.38 E887.87184
G1 X173.10 Y159.66 E888.07406
G1 X173.46 Y155.25 E888.25789
G0 F6000 X173.00 Y154.75
;TYPE:WALL-OUTER
G1 F3480 X175.75 Y154.75 E888.37214
G1 X175.31 Y160.01 E888.59164
G1 X175.30 Y160.08 E888.59439
G1 X173.99 Y165.13 E888.81150
G1 X173.97 Y165.20 E888.81425
G1 X171.82 Y169.90 E889.02945
G1 X168.92 Y174.04 E889.23948
G1 X165.40 Y177.42 E889.44234
G1 X162.67 Y179.13 E889.57634
G1 X162.78 Y179.49 E889.59200
