;-- START GCODE --
;Sliced for Type A Machines Series 1
;Sliced at: Sat 03-09-2016 13:48:07
;Basic settings: Layer height: 0.2 Walls: 1.5 Fill: 100
;Print Speed: 100 Support: 0
;Retraction Speed: 40 Retraction Distance: 1.2
;Print time: #P_TIME#
;Filament used: #F_AMNT#m #F_WGHT#g
;Filament cost: #F_COST#
M106 S255	 ;start with the fan on
G21        ;metric values
G90        ;absolute positioning
M106 S255    ;start with the fan on
G28     ;move to endstops
G29		;allows for auto-levelling
G1 X150 Y5  Z15.0 F6000 ;center and move the platform down 15mm
M109 S220 ;Heat To temp
G92 E0                  ;zero the extruded length
G1 F200 E30              ;extrude 30mm of feed stock
G92 E0                  ;zero the extruded length again
G1 X175 Y25  Z0 F6000 ;remove bugger
G1 X220 F6000 ;remove bugger
G1 X150 Y150  Z15 F6000 ;recenter and begin
G1 F6000

;Layer count: 107
;LAYER:0
M106 S255
G0 F6000 X117.25 Y131.06 Z0.30
;TYPE:SKIRT
G1 F2700 X126.13 Y132.42 E0.56041
G1 X135.49 Y133.85 E1.15088
G1 X140.97 Y133.85 E1.49219
G1 X145.63 Y134.52 E1.78638
G1 X147.25 Y134.72 E1.88788
G1 X147.25 Y131.06 E2.11625
G1 X156.13 Y132.42 E2.67667
G1 X165.49 Y133.85 E3.26707
G1 X170.97 Y133.85 E3.60844
G1 X175.63 Y134.52 E3.90263
G1 X177.26 Y134.72 E4.00451
G1 X188.35 Y136.31 E4.70339
G1 X188.35 Y168.13 E6.68833
G1 X179.22 Y169.66 E7.26582
G1 X177.81 Y169.86 E7.35407
G1 X176.62 Y170.06 E7.42988
G1 X175.22 Y170.26 E7.51814
G1 X174.02 Y170.46 E7.59394
G1 X172.61 Y170.66 E7.68258
G1 X170.86 Y170.95 E7.79322
G1 X166.59 Y170.95 E8.05945
G1 X156.29 Y172.56 E8.70975
G1 X155.78 Y172.64 E8.74176
G1 X147.25 Y173.96 E9.28002
G1 X147.25 Y169.95 E9.52972
G1 X146.62 Y170.06 E9.56980
G1 X145.22 Y170.26 E9.65806
G1 X144.02 Y170.46 E9.73387
G1 X142.61 Y170.66 E9.82250
G1 X140.86 Y170.95 E9.93314
G1 X136.59 Y170.95 E10.19931
G1 X126.29 Y172.56 E10.84967
G1 X125.78 Y172.64 E10.88168
G1 X117.25 Y173.96 E11.41994
G1 X117.25 Y131.06 E14.09518
G0 F6000 X117.75 Y131.64
G1 F2700 X126.06 Y132.91 E14.61931
G1 X135.46 Y134.35 E15.21224
G1 X140.93 Y134.35 E15.55355
G1 X145.56 Y135.01 E15.84516
G1 X147.19 Y135.22 E15.94773
G1 X147.75 Y135.30 E15.98301
G1 X147.75 Y131.64 E16.21107
G1 X156.06 Y132.91 E16.73521
G1 X165.46 Y134.35 E17.32807
G1 X170.93 Y134.35 E17.66944
G1 X175.56 Y135.01 E17.96105
G1 X177.19 Y135.22 E18.06363
G1 X187.85 Y136.74 E18.73516
G1 X187.85 Y167.71 E20.66666
G1 X179.14 Y169.16 E21.21740
G1 X177.75 Y169.36 E21.30484
G1 X176.54 Y169.56 E21.38140
G1 X175.15 Y169.76 E21.46896
G1 X173.94 Y169.96 E21.54546
G1 X172.54 Y170.16 E21.63346
G1 X170.82 Y170.45 E21.74259
G1 X166.55 Y170.45 E22.00863
G1 X156.22 Y172.06 E22.66063
G1 X156.22 Y172.06 E22.66070
G1 X155.70 Y172.14 E22.69339
G1 X147.75 Y173.37 E23.19524
G1 X147.75 Y169.36 E23.44538
G1 X146.54 Y169.56 E23.52188
G1 X145.15 Y169.76 E23.60944
G1 X143.94 Y169.96 E23.68594
G1 X142.54 Y170.16 E23.77394
G1 X140.82 Y170.45 E23.88307
G1 X136.55 Y170.45 E24.14911
G1 X126.22 Y172.06 E24.80111
G1 X126.22 Y172.06 E24.80117
G1 X125.70 Y172.14 E24.83387
G1 X117.75 Y173.37 E25.33572
G1 X117.75 Y131.64 E27.93830
G0 F6000 X118.25 Y132.22
G1 F2700 X125.98 Y133.40 E28.42610
G1 X135.42 Y134.85 E29.02149
G1 X140.89 Y134.85 E29.36293
G1 X145.48 Y135.50 E29.65176
G1 X147.12 Y135.71 E29.75509
G1 X148.25 Y135.87 E29.82609
G1 X148.25 Y132.22 E30.05377
G1 X155.98 Y133.40 E30.54157
G1 X165.42 Y134.85 E31.13690
G1 X170.89 Y134.85 E31.47839
G1 X175.48 Y135.50 E31.76723
G1 X177.12 Y135.71 E31.87056
G1 X187.35 Y137.17 E32.51482
G1 X187.35 Y167.29 E34.39282
G1 X179.06 Y168.67 E34.91675
G1 X177.68 Y168.87 E35.00393
G1 X176.46 Y169.07 E35.08082
G1 X175.08 Y169.27 E35.16800
G1 X173.86 Y169.47 E35.24488
G1 X172.47 Y169.67 E35.33250
G1 X170.78 Y169.95 E35.43973
G1 X166.51 Y169.95 E35.70564
G1 X156.14 Y171.57 E36.36011
G1 X156.14 Y171.57 E36.36017
G1 X155.63 Y171.65 E36.39281
G1 X148.25 Y172.79 E36.85824
G1 X148.25 Y168.78 E37.10787
G1 X147.68 Y168.87 E37.14384
G1 X146.46 Y169.07 E37.22072
G1 X145.08 Y169.27 E37.30790
G1 X143.86 Y169.47 E37.38479
G1 X142.47 Y169.67 E37.47241
G1 X140.78 Y169.95 E37.57964
G1 X136.51 Y169.95 E37.84555
G1 X126.14 Y171.57 E38.50002
G1 X126.14 Y171.57 E38.50008
G1 X125.63 Y171.65 E38.53271
G1 X118.25 Y172.79 E38.99814
G1 X118.25 Y132.22 E41.52801
G0 F6000 X118.75 Y132.80
G1 F2700 X125.91 Y133.90 E41.97947
G1 X135.38 Y135.35 E42.57726
G1 X140.86 Y135.35 E42.91882
G1 X145.47 Y136.01 E43.20904
G1 X147.06 Y136.21 E43.30910
G1 X148.75 Y136.45 E43.41575
G1 X148.75 Y132.80 E43.64312
G1 X155.91 Y133.90 E44.09459
G1 X165.38 Y135.35 E44.69231
G1 X170.86 Y135.35 E45.03393
G1 X175.47 Y136.01 E45.32415
G1 X177.06 Y136.21 E45.42421
G1 X186.85 Y137.61 E46.04113
G1 X186.85 Y166.86 E47.86574
G1 X178.99 Y168.18 E48.36292
G1 X177.61 Y168.37 E48.44966
G1 X176.39 Y168.57 E48.52693
G1 X175.01 Y168.77 E48.61379
G1 X173.79 Y168.97 E48.69099
G1 X172.40 Y169.17 E48.77829
G1 X170.73 Y169.45 E48.88369
G1 X166.47 Y169.45 E49.14929
G1 X156.06 Y171.07 E49.80635
G1 X155.55 Y171.16 E49.83892
G1 X148.75 Y172.21 E50.26794
G1 X148.75 Y168.21 E50.51714
G1 X147.61 Y168.37 E50.58901
G1 X146.39 Y168.57 E50.66627
G1 X145.01 Y168.77 E50.75314
G1 X143.79 Y168.97 E50.83034
G1 X142.40 Y169.17 E50.91764
G1 X140.73 Y169.45 E51.02304
G1 X136.48 Y169.45 E51.28858
G1 X126.06 Y171.07 E51.94570
G1 X125.55 Y171.16 E51.97827
G1 X118.75 Y172.21 E52.40729
G1 X118.75 Y132.80 E54.86451
G0 F6000 X119.25 Y133.39
G1 F2700 X125.83 Y134.39 E55.27968
G1 X135.34 Y135.85 E55.87993
G1 X140.82 Y135.85 E56.22155
G1 X145.39 Y136.50 E56.50900
G1 X146.99 Y136.70 E56.60981
G1 X149.25 Y137.03 E56.75218
G1 X149.25 Y133.39 E56.97912
G1 X155.83 Y134.39 E57.39430
G1 X165.34 Y135.85 E57.99448
G1 X170.82 Y135.85 E58.33617
G1 X175.39 Y136.50 E58.62362
G1 X176.99 Y136.70 E58.72442
G1 X186.35 Y138.04 E59.31407
G1 X186.35 Y166.44 E61.08517
G1 X178.91 Y167.68 E61.55556
G1 X177.50 Y167.88 E61.64413
G1 X176.31 Y168.08 E61.71963
G1 X174.90 Y168.28 E61.80819
G1 X173.71 Y168.48 E61.88369
G1 X172.30 Y168.68 E61.97269
G1 X170.69 Y168.95 E62.07411
G1 X166.44 Y168.95 E62.33959
G1 X155.99 Y170.58 E62.99911
G1 X155.47 Y170.66 E63.03168
G1 X149.25 Y171.62 E63.42423
G1 X149.25 Y167.62 E63.67356
G1 X148.91 Y167.68 E63.69506
G1 X147.50 Y167.88 E63.78362
G1 X146.31 Y168.08 E63.85912
G1 X144.90 Y168.28 E63.94769
G1 X143.71 Y168.48 E64.02318
G1 X142.30 Y168.68 E64.11219
G1 X140.69 Y168.95 E64.21361
G1 X136.44 Y168.95 E64.47902
G1 X125.99 Y170.58 E65.13860
G1 X125.47 Y170.66 E65.17118
G1 X119.25 Y171.62 E65.56373
G1 X119.25 Y133.39 E67.94823
G0 F6000 X119.75 Y133.97
G1 F2700 X125.75 Y134.89 E68.32708
G1 X135.30 Y136.35 E68.92934
G1 X140.79 Y136.35 E69.27146
G1 X145.31 Y137.00 E69.55633
G1 X146.92 Y137.20 E69.65783
G1 X149.75 Y137.60 E69.83586
G1 X149.75 Y133.97 E70.06249
G1 X155.75 Y134.89 E70.44134
G1 X165.30 Y136.35 E71.04360
G1 X170.79 Y136.35 E71.38572
G1 X175.31 Y137.00 E71.67059
G1 X176.92 Y137.20 E71.77209
G1 X185.85 Y138.47 E72.33440
G1 X185.85 Y166.02 E74.05206
G1 X178.83 Y167.19 E74.49569
G1 X177.43 Y167.39 E74.58388
G1 X176.23 Y167.59 E74.65969
G1 X174.83 Y167.79 E74.74795
G1 X173.63 Y167.99 E74.82375
G1 X172.23 Y168.19 E74.91201
G1 X170.65 Y168.45 E75.01203
G1 X166.40 Y168.45 E75.27732
G1 X155.91 Y170.09 E75.93930
G1 X155.39 Y170.17 E75.97181
G1 X149.75 Y171.04 E76.32795
G1 X149.75 Y167.03 E76.57778
G1 X148.83 Y167.19 E76.63576
G1 X147.43 Y167.39 E76.72395
G1 X146.23 Y167.59 E76.79976
G1 X144.83 Y167.79 E76.88801
G1 X143.63 Y167.99 E76.96382
G1 X142.23 Y168.19 E77.05207
G1 X140.65 Y168.45 E77.15210
G1 X136.40 Y168.45 E77.41733
G1 X125.91 Y170.09 E78.07937
G1 X125.39 Y170.17 E78.11188
G1 X119.75 Y171.04 E78.46802
G1 X119.75 Y133.97 E80.77987
G0 F6000 X120.25 Y134.55
G1 F2700 X125.68 Y135.38 E81.12238
G1 X135.26 Y136.85 E81.72711
G1 X140.75 Y136.85 E82.06935
G1 X145.24 Y137.49 E82.35208
G1 X146.86 Y137.69 E82.45377
G1 X150.25 Y138.18 E82.66746
G1 X150.25 Y134.55 E82.89377
G1 X155.68 Y135.38 E83.23628
G1 X165.26 Y136.85 E83.84095
G1 X170.75 Y136.85 E84.18326
G1 X175.24 Y137.49 E84.46598
G1 X176.86 Y137.69 E84.56768
G1 X185.35 Y138.91 E85.10264
G1 X185.35 Y165.59 E86.76685
G1 X178.76 Y166.69 E87.18368
G1 X177.36 Y166.89 E87.27149
G1 X176.16 Y167.09 E87.34774
G1 X174.76 Y167.29 E87.43556
G1 X173.56 Y167.49 E87.51180
G1 X172.16 Y167.69 E87.60006
G1 X170.61 Y167.95 E87.69780
G1 X166.36 Y167.95 E87.96297
G1 X155.83 Y169.59 E88.62741
G1 X155.32 Y169.67 E88.65986
G1 X150.25 Y170.46 E88.97959
G1 X150.25 Y166.44 E89.22986
G1 X148.76 Y166.69 E89.32425
G1 X147.36 Y166.89 E89.41206
G1 X146.16 Y167.09 E89.48831
G1 X144.76 Y167.29 E89.57613
G1 X143.56 Y167.49 E89.65237
G1 X142.16 Y167.69 E89.74063
G1 X140.61 Y167.95 E89.83838
G1 X136.36 Y167.95 E90.10348
G1 X125.83 Y169.59 E90.76798
G1 X125.32 Y169.67 E90.80043
G1 X120.25 Y170.46 E91.12016
G1 X120.25 Y134.55 E93.35936
G0 F6000 X120.75 Y135.13
G1 F2700 X135.22 Y137.35 E94.27253
G1 X140.72 Y137.35 E94.61502
G1 X145.16 Y137.99 E94.89504
G1 X146.79 Y138.19 E94.99748
G1 X150.75 Y138.75 E95.24689
G1 X150.75 Y135.13 E95.47277
G1 X155.60 Y135.88 E95.77899
G1 X165.23 Y137.35 E96.38606
G1 X170.72 Y137.35 E96.72843
G1 X175.16 Y137.99 E97.00844
G1 X176.79 Y138.19 E97.11089
G1 X184.85 Y139.34 E97.61858
G1 X184.85 Y165.17 E99.22935
G1 X178.68 Y166.20 E99.61943
G1 X177.30 Y166.40 E99.70649
G1 X176.08 Y166.60 E99.78343
G1 X174.70 Y166.79 E99.87055
G1 X173.48 Y167.00 E99.94749
G1 X172.09 Y167.20 E100.03505
G1 X170.57 Y167.45 E100.13128
G1 X166.32 Y167.45 E100.39632
G1 X155.75 Y169.10 E101.06360
G1 X155.24 Y169.18 E101.09561
G1 X150.75 Y169.87 E101.37894
G1 X150.75 Y165.85 E101.62963
G1 X148.68 Y166.20 E101.76051
G1 X147.30 Y166.40 E101.84756
G1 X146.08 Y166.60 E101.92451
G1 X144.70 Y166.79 E102.01162
G1 X143.48 Y167.00 E102.08857
G1 X142.09 Y167.20 E102.17613
G1 X140.57 Y167.45 E102.27236
G1 X136.32 Y167.45 E102.53734
G1 X125.75 Y169.10 E103.20468
G1 X125.24 Y169.18 E103.23669
G1 X120.75 Y169.87 E103.52001
G1 X120.75 Y135.13 E105.68649
G0 F6000 X121.25 Y135.72
G1 F2700 X135.19 Y137.85 E106.56578
G1 X140.68 Y137.85 E106.90840
G1 X145.09 Y138.48 E107.18621
G1 X146.72 Y138.69 E107.28891
G1 X151.25 Y139.33 E107.57397
G1 X151.25 Y135.72 E107.79947
G1 X165.19 Y137.85 E108.67870
G1 X170.68 Y137.85 E109.02138
G1 X175.09 Y138.48 E109.29919
G1 X176.72 Y138.69 E109.40189
G1 X184.35 Y139.77 E109.88223
G1 X184.35 Y164.75 E111.43956
G1 X178.60 Y165.70 E111.80284
G1 X177.23 Y165.90 E111.88958
G1 X176.00 Y166.10 E111.96690
G1 X174.63 Y166.30 E112.05364
G1 X173.40 Y166.50 E112.13096
G1 X172.03 Y166.70 E112.21770
G1 X170.53 Y166.95 E112.31254
G1 X166.28 Y166.95 E112.57733
G1 X155.67 Y168.61 E113.24707
G1 X155.16 Y168.69 E113.27908
G1 X151.25 Y169.29 E113.52600
G1 X151.25 Y165.26 E113.77713
G1 X148.60 Y165.70 E113.94442
G1 X147.23 Y165.90 E114.03116
G1 X146.00 Y166.10 E114.10848
G1 X144.63 Y166.30 E114.19522
G1 X143.40 Y166.50 E114.27254
G1 X142.03 Y166.70 E114.35928
G1 X140.53 Y166.95 E114.45412
G1 X136.28 Y166.95 E114.71891
G1 X125.67 Y168.61 E115.38865
G1 X125.16 Y168.69 E115.42066
G1 X121.25 Y169.29 E115.66757
G1 X121.25 Y135.72 E117.76140
G0 F6000 X121.75 Y136.30
G1 F2700 X135.45 Y138.40 E118.62574
G1 X135.45 Y138.35 E118.62861
G1 X140.65 Y138.35 E118.95259
G1 X145.03 Y138.98 E119.22876
G1 X146.66 Y139.18 E119.33114
G1 X151.75 Y139.91 E119.65192
G1 X151.75 Y136.30 E119.87711
G1 X165.45 Y138.40 E120.74145
G1 X165.45 Y138.35 E120.74432
G1 X170.65 Y138.35 E121.06830
G1 X175.03 Y138.98 E121.34447
G1 X176.66 Y139.18 E121.44685
G1 X183.85 Y140.21 E121.89992
G1 X183.85 Y164.32 E123.40374
G1 X178.53 Y165.21 E123.74028
G1 X177.12 Y165.41 E123.82910
G1 X175.93 Y165.61 E123.90428
G1 X174.52 Y165.81 E123.99316
G1 X173.33 Y166.01 E124.06834
G1 X171.95 Y166.21 E124.15508
G1 X170.49 Y166.45 E124.24770
G1 X166.24 Y166.45 E124.51237
G1 X155.59 Y168.11 E125.18451
G1 X155.09 Y168.19 E125.21652
G1 X151.75 Y168.71 E125.42703
G1 X151.75 Y164.67 E125.67866
G1 X148.53 Y165.21 E125.88244
G1 X147.12 Y165.41 E125.97126
G1 X145.93 Y165.61 E126.04644
G1 X144.52 Y165.81 E126.13532
G1 X143.33 Y166.01 E126.21050
G1 X141.95 Y166.21 E126.29724
G1 X140.49 Y166.45 E126.38986
G1 X136.24 Y166.45 E126.65446
G1 X125.59 Y168.11 E127.32667
G1 X125.09 Y168.19 E127.35868
G1 X121.75 Y168.71 E127.56918
G1 X121.75 Y136.30 E129.59036
G0 F6000 X122.25 Y136.88
G1 F2700 X135.95 Y138.98 E130.45469
G1 X135.95 Y138.85 E130.46267
G1 X140.61 Y138.85 E130.75328
G1 X144.97 Y139.47 E131.02769
G1 X146.59 Y139.68 E131.12989
G1 X152.25 Y140.49 E131.48632
G1 X152.25 Y136.88 E131.71114
G1 X165.95 Y138.98 E132.57547
G1 X165.95 Y138.85 E132.58345
G1 X170.61 Y138.85 E132.87406
G1 X174.97 Y139.47 E133.14847
G1 X176.59 Y139.68 E133.25067
G1 X183.35 Y140.64 E133.67640
G1 X183.35 Y163.90 E135.12677
G1 X178.45 Y164.72 E135.43650
G1 X177.05 Y164.91 E135.52463
G1 X175.85 Y165.12 E135.60057
G1 X174.45 Y165.31 E135.68869
G1 X173.25 Y165.52 E135.76463
G1 X171.84 Y165.72 E135.85320
G1 X170.44 Y165.95 E135.94178
G1 X166.20 Y165.95 E136.20626
G1 X155.52 Y167.62 E136.88054
G1 X155.52 Y167.62 E136.88060
G1 X155.01 Y167.70 E136.91286
G1 X152.25 Y168.12 E137.08696
G1 X152.25 Y164.08 E137.33903
G1 X148.45 Y164.72 E137.57922
G1 X147.05 Y164.91 E137.66734
G1 X145.85 Y165.12 E137.74328
G1 X144.45 Y165.31 E137.83141
G1 X143.25 Y165.52 E137.90734
G1 X141.84 Y165.72 E137.99591
G1 X140.44 Y165.95 E138.08449
G1 X136.20 Y165.95 E138.34897
G1 X125.52 Y167.62 E139.02325
G1 X125.52 Y167.62 E139.02332
G1 X125.01 Y167.70 E139.05557
G1 X122.25 Y168.12 E139.22967
G1 X122.25 Y136.88 E141.17813
G0 F6000 X122.75 Y137.46
G1 F2700 X136.45 Y139.56 E142.04246
G1 X136.45 Y139.35 E142.05556
G1 X140.57 Y139.35 E142.31274
G1 X144.92 Y139.97 E142.58652
G1 X146.53 Y140.17 E142.68739
G1 X152.75 Y141.06 E143.07954
G1 X152.75 Y137.46 E143.30399
G1 X166.45 Y139.56 E144.16833
G1 X166.45 Y139.35 E144.18149
G1 X170.57 Y139.35 E144.43867
G1 X174.92 Y139.97 E144.71245
G1 X176.53 Y140.17 E144.81332
G1 X182.85 Y141.07 E145.21177
G1 X182.85 Y163.47 E146.60870
G1 X178.38 Y164.22 E146.89163
G1 X176.98 Y164.42 E146.97950
G1 X175.78 Y164.62 E147.05569
G1 X174.38 Y164.82 E147.14356
G1 X173.18 Y165.02 E147.21976
G1 X171.78 Y165.22 E147.30763
G1 X170.40 Y165.45 E147.39469
G1 X166.45 Y165.45 E147.64121
G1 X166.45 Y165.41 E147.64395
G1 X155.44 Y167.12 E148.33875
G1 X154.93 Y167.20 E148.37095
G1 X152.75 Y167.54 E148.50864
G1 X152.75 Y163.49 E148.76114
G1 X148.38 Y164.22 E149.03775
G1 X146.98 Y164.42 E149.12562
G1 X145.78 Y164.62 E149.20181
G1 X144.38 Y164.82 E149.28968
G1 X143.18 Y165.02 E149.36588
G1 X141.78 Y165.22 E149.45375
G1 X140.40 Y165.45 E149.54081
G1 X136.45 Y165.45 E149.78733
G1 X136.45 Y165.41 E149.79007
G1 X125.44 Y167.12 E150.48487
G1 X124.93 Y167.20 E150.51707
G1 X122.75 Y167.54 E150.65476
G1 X122.75 Y137.46 E152.53057
G0 F6000 X123.25 Y138.04
G1 F2700 X136.95 Y140.14 E153.39491
G1 X136.95 Y139.85 E153.41325
G1 X140.54 Y139.85 E153.63707
G1 X144.85 Y140.47 E153.90864
G1 X146.46 Y140.67 E154.00977
G1 X152.35 Y141.51 E154.38088
G1 X152.35 Y163.05 E155.72436
G1 X148.30 Y163.73 E155.98054
G1 X146.91 Y163.93 E156.06829
G1 X145.70 Y164.13 E156.14460
G1 X144.31 Y164.33 E156.23235
G1 X143.10 Y164.53 E156.30866
G1 X141.71 Y164.73 E156.39641
G1 X140.36 Y164.95 E156.48132
G1 X136.95 Y164.95 E156.69410
G1 X136.95 Y164.82 E156.70209
G1 X125.36 Y166.63 E157.43337
G1 X124.86 Y166.71 E157.46550
G1 X123.25 Y166.96 E157.56678
G1 X123.25 Y138.04 E159.36994
G0 F6000 X123.75 Y138.63
G1 F2700 X137.45 Y140.73 E160.23427
G1 X137.45 Y140.35 E160.25772
G1 X140.50 Y140.35 E160.44812
G1 X144.78 Y140.96 E160.71755
G1 X146.39 Y141.16 E160.81893
G1 X151.85 Y141.94 E161.16270
G1 X151.85 Y162.63 E162.45267
G1 X148.22 Y163.23 E162.68205
G1 X146.82 Y163.43 E162.77017
G1 X146.82 Y163.43 E162.77023
G1 X145.62 Y163.63 E162.84616
G1 X144.22 Y163.83 E162.93429
G1 X144.22 Y163.83 E162.93435
G1 X143.02 Y164.03 E163.01028
G1 X141.62 Y164.23 E163.09847
G1 X140.32 Y164.45 E163.18079
G1 X137.45 Y164.45 E163.35977
G1 X137.45 Y164.24 E163.37299
G1 X125.29 Y166.14 E164.14075
G1 X124.78 Y166.22 E164.17282
G1 X123.75 Y166.38 E164.23769
G1 X123.75 Y138.63 E165.96813
G0 F6000 X124.25 Y139.21
G1 F2700 X137.95 Y141.31 E166.83248
G1 X137.95 Y140.85 E166.86111
G1 X140.47 Y140.85 E167.01814
G1 X144.72 Y141.46 E167.28587
G1 X146.33 Y141.66 E167.38693
G1 X151.35 Y142.38 E167.70342
G1 X151.35 Y162.21 E168.94001
G1 X148.15 Y162.74 E169.14264
G1 X146.74 Y162.94 E169.23114
G1 X146.74 Y162.94 E169.23121
G1 X145.54 Y163.14 E169.30676
G1 X144.14 Y163.34 E169.39526
G1 X144.14 Y163.34 E169.39532
G1 X142.94 Y163.54 E169.47087
G1 X141.54 Y163.74 E169.55937
G1 X141.54 Y163.74 E169.55944
G1 X140.28 Y163.95 E169.63916
G1 X137.95 Y163.95 E169.78440
G1 X137.95 Y163.65 E169.80292
G1 X124.25 Y165.79 E170.66764
G1 X124.25 Y139.21 E172.32543
G0 F6000 X142.15 Y150.59
G1 F2700 X142.15 Y150.79 E172.33791
G1 X141.95 Y150.99 E172.35554
G1 X141.95 Y151.19 E172.36802
G1 X141.75 Y151.39 E172.38566
G1 X141.75 Y151.99 E172.42307
G1 X141.55 Y152.19 E172.44071
G1 X141.55 Y152.61 E172.46641
G1 X141.75 Y152.81 E172.48404
G1 X141.75 Y153.41 E172.52146
G1 X141.95 Y153.61 E172.53910
G1 X141.95 Y153.81 E172.55157
G1 X142.15 Y154.01 E172.56921
G1 X142.15 Y154.21 E172.58169
G1 X142.55 Y154.61 E172.61696
G1 X142.55 Y154.61 E172.61740
G1 X142.56 Y154.62 E172.61829
G1 X142.76 Y154.82 E172.63593
G1 X143.37 Y155.12 E172.67818
G1 X143.76 Y155.25 E172.70422
G1 X145.75 Y155.31 E172.82812
G1 X145.94 Y155.22 E172.84101
G1 X146.14 Y155.02 E172.85869
G1 X146.54 Y154.82 E172.88661
G1 X147.15 Y154.21 E172.94067
G1 X147.15 Y154.01 E172.95314
G1 X147.35 Y153.81 E172.97078
G1 X147.35 Y153.61 E172.98325
G1 X147.55 Y153.41 E173.00089
G1 X147.55 Y151.39 E173.12637
G1 X147.35 Y151.19 E173.14400
G1 X147.35 Y150.99 E173.15648
G1 X147.15 Y150.79 E173.17412
G1 X147.15 Y150.59 E173.18659
G1 X146.54 Y149.98 E173.24065
G1 X146.14 Y149.78 E173.26857
G1 X145.94 Y149.58 E173.28625
G1 X145.75 Y149.49 E173.29914
G1 X143.76 Y149.55 E173.42304
G1 X143.37 Y149.68 E173.44907
G1 X142.76 Y149.98 E173.49133
G1 X142.56 Y150.18 E173.50892
G1 X142.55 Y150.19 E173.50984
G1 X142.55 Y150.19 E173.51028
G1 X142.15 Y150.59 E173.54556
G0 F6000 X154.25 Y139.21
G1 F2700 X167.95 Y141.31 E174.40990
G1 X167.95 Y140.85 E174.43853
G1 X170.47 Y140.85 E174.59556
G1 X174.72 Y141.46 E174.86329
G1 X176.33 Y141.66 E174.96435
G1 X181.35 Y142.38 E175.28084
G1 X181.35 Y162.21 E176.51743
G1 X178.15 Y162.74 E176.72006
G1 X176.74 Y162.94 E176.80857
G1 X176.74 Y162.94 E176.80863
G1 X175.54 Y163.14 E176.88418
G1 X174.14 Y163.34 E176.97268
G1 X174.14 Y163.34 E176.97274
G1 X172.94 Y163.54 E177.04829
G1 X171.54 Y163.74 E177.13680
G1 X171.54 Y163.74 E177.13686
G1 X170.28 Y163.95 E177.21658
G1 X167.95 Y163.95 E177.36182
G1 X167.95 Y163.65 E177.38034
G1 X154.25 Y165.79 E178.24507
G1 X154.25 Y139.21 E179.90285
G0 F6000 X153.75 Y138.63
G1 F2700 X167.45 Y140.73 E180.76719
G1 X167.45 Y140.35 E180.79064
G1 X170.50 Y140.35 E180.98104
G1 X174.78 Y140.96 E181.25047
G1 X176.39 Y141.16 E181.35185
G1 X181.85 Y141.94 E181.69562
G1 X181.85 Y162.63 E182.98559
G1 X178.22 Y163.23 E183.21497
G1 X176.82 Y163.43 E183.30309
G1 X176.82 Y163.43 E183.30315
G1 X175.62 Y163.63 E183.37908
G1 X174.22 Y163.83 E183.46721
G1 X174.22 Y163.83 E183.46727
G1 X173.02 Y164.03 E183.54320
G1 X171.62 Y164.23 E183.63139
G1 X170.32 Y164.45 E183.71371
G1 X167.45 Y164.45 E183.89269
G1 X167.45 Y164.24 E183.90597
G1 X155.29 Y166.14 E184.67374
G1 X154.78 Y166.22 E184.70581
G1 X153.75 Y166.38 E184.77068
G1 X153.75 Y138.63 E186.50113
G0 F6000 X153.25 Y138.04
G1 F2700 X166.95 Y140.14 E187.36547
G1 X166.95 Y139.85 E187.38381
G1 X170.54 Y139.85 E187.60763
G1 X174.85 Y140.47 E187.87921
G1 X176.46 Y140.67 E187.98033
G1 X182.35 Y141.51 E188.35144
G1 X182.35 Y163.05 E189.69492
G1 X178.30 Y163.73 E189.95110
G1 X176.91 Y163.93 E190.03885
G1 X175.70 Y164.13 E190.11516
G1 X174.31 Y164.33 E190.20291
G1 X173.10 Y164.53 E190.27922
G1 X171.71 Y164.73 E190.36697
G1 X170.36 Y164.95 E190.45188
G1 X166.95 Y164.95 E190.66467
G1 X166.95 Y164.82 E190.67271
G1 X155.36 Y166.63 E191.40400
G1 X154.85 Y166.71 E191.43613
G1 X153.25 Y166.96 E191.53741
G1 X153.25 Y138.04 E193.34057
G0 F6000 X172.15 Y150.59
G1 F2700 X172.15 Y150.79 E193.35304
G1 X171.95 Y150.99 E193.37068
G1 X171.95 Y151.19 E193.38315
G1 X171.75 Y151.39 E193.40079
G1 X171.75 Y151.99 E193.43821
G1 X171.55 Y152.19 E193.45585
G1 X171.55 Y152.61 E193.48154
G1 X171.75 Y152.81 E193.49918
G1 X171.75 Y153.41 E193.53660
G1 X171.95 Y153.61 E193.55424
G1 X171.95 Y153.81 E193.56671
G1 X172.15 Y154.01 E193.58435
G1 X172.15 Y154.21 E193.59682
G1 X172.55 Y154.61 E193.63210
G1 X172.55 Y154.61 E193.63253
G1 X172.56 Y154.62 E193.63343
G1 X172.76 Y154.82 E193.65107
G1 X173.37 Y155.12 E193.69332
G1 X173.76 Y155.25 E193.71935
G1 X175.75 Y155.31 E193.84326
G1 X175.94 Y155.22 E193.85614
G1 X176.14 Y155.02 E193.87382
G1 X176.54 Y154.82 E193.90174
G1 X177.15 Y154.21 E193.95580
G1 X177.15 Y154.01 E193.96828
G1 X177.35 Y153.81 E193.98592
G1 X177.35 Y153.61 E193.99839
G1 X177.55 Y153.41 E194.01603
G1 X177.55 Y151.39 E194.14150
G1 X177.35 Y151.19 E194.15914
G1 X177.35 Y150.99 E194.17161
G1 X177.15 Y150.79 E194.18925
G1 X177.15 Y150.59 E194.20172
G1 X176.54 Y149.98 E194.25579
G1 X176.14 Y149.78 E194.28370
G1 X175.94 Y149.58 E194.30139
G1 X175.75 Y149.49 E194.31427
G1 X173.76 Y149.55 E194.43818
G1 X173.37 Y149.68 E194.46421
G1 X172.76 Y149.98 E194.50646
G1 X172.56 Y150.18 E194.52406
G1 X172.55 Y150.19 E194.52498
G1 X172.55 Y150.19 E194.52541
G1 X172.15 Y150.59 E194.56069
G0 F6000 X137.75 Y142.79
;TYPE:WALL-INNER
G1 F2700 X137.75 Y162.17 E195.76878
G1 X125.75 Y164.04 E196.52600
G1 X125.75 Y140.96 E197.96546
G1 X137.75 Y142.79 E198.72235
G0 F6000 X138.25 Y142.37
G1 F2700 X138.25 Y162.59 E199.98395
G1 X125.25 Y164.62 E200.80429
G1 X125.25 Y140.37 E202.31659
G1 X138.25 Y142.37 E203.13658
G0 F6000 X138.75 Y141.94
;TYPE:WALL-OUTER
G1 F2700 X138.75 Y163.02 E204.45156
G1 X124.75 Y165.21 E205.33502
G1 X124.75 Y139.79 E206.92010
G1 X138.75 Y141.94 E207.80319
G0 F6000 X138.47 Y142.25
G0 X137.57 Y143.58
;TYPE:FILL
G1 F2700 X136.82 Y142.83 E207.86960
G0 F6000 X135.98 Y142.70
G1 F2700 X137.57 Y144.29 E208.00970
G0 F6000 X137.57 Y145.00
G1 F2700 X135.15 Y142.57 E208.22343
G0 F6000 X134.31 Y142.44
G1 F2700 X137.57 Y145.70 E208.51082
G0 F6000 X137.57 Y146.41
G1 F2700 X133.48 Y142.32 E208.87184
G0 F6000 X132.64 Y142.19
G1 F2700 X137.57 Y147.12 E209.30650
G0 F6000 X137.57 Y147.82
G1 F2700 X131.81 Y142.06 E209.81477
G0 F6000 X130.97 Y141.93
G1 F2700 X137.57 Y148.53 E210.39667
G0 F6000 X137.57 Y149.24
G1 F2700 X130.14 Y141.81 E211.05222
G0 F6000 X129.30 Y141.68
G1 F2700 X137.57 Y149.95 E211.78141
G0 F6000 X137.57 Y150.65
G1 F2700 X128.47 Y141.55 E212.58429
G0 F6000 X127.63 Y141.42
G1 F2700 X137.57 Y151.36 E213.46081
G0 F6000 X137.57 Y152.07
G1 F2700 X126.80 Y141.29 E214.41097
G0 F6000 X125.96 Y141.17
G1 F2700 X137.57 Y152.78 E215.43477
G0 F6000 X137.57 Y153.48
G1 F2700 X125.92 Y141.84 E216.46197
G0 F6000 X125.92 Y142.54
G1 F2700 X137.57 Y154.19 E217.48917
G0 F6000 X137.57 Y154.90
G1 F2700 X125.92 Y143.25 E218.51636
G0 F6000 X125.92 Y143.96
G1 F2700 X137.57 Y155.60 E219.54356
G0 F6000 X137.57 Y156.31
G1 F2700 X125.92 Y144.66 E220.57076
G0 F6000 X125.92 Y145.37
G1 F2700 X137.57 Y157.02 E221.59800
G0 F6000 X137.57 Y157.72
G1 F2700 X125.92 Y146.08 E222.62525
G0 F6000 X125.92 Y146.78
G1 F2700 X137.57 Y158.43 E223.65249
G0 F6000 X137.57 Y159.14
G1 F2700 X125.92 Y147.49 E224.67973
G0 F6000 X125.92 Y148.20
G1 F2700 X137.57 Y159.85 E225.70697
G0 F6000 X137.57 Y160.55
G1 F2700 X125.92 Y148.91 E226.73417
G0 F6000 X125.92 Y149.61
G1 F2700 X137.57 Y161.26 E227.76137
G0 F6000 X137.57 Y161.97
G1 F2700 X125.92 Y150.32 E228.78857
G0 F6000 X125.92 Y151.03
G1 F2700 X137.00 Y162.10 E229.76550
G0 F6000 X136.39 Y162.20
G1 F2700 X125.92 Y151.73 E230.68849
G0 F6000 X125.92 Y152.44
G1 F2700 X135.78 Y162.29 E231.55756
G0 F6000 X135.17 Y162.39
G1 F2700 X125.92 Y153.15 E232.37270
G0 F6000 X125.92 Y153.85
G1 F2700 X134.56 Y162.49 E233.13390
G0 F6000 X133.94 Y162.58
G1 F2700 X125.92 Y154.56 E233.84117
G0 F6000 X125.92 Y155.27
G1 F2700 X133.33 Y162.68 E234.49443
G0 F6000 X132.72 Y162.77
G1 F2700 X125.92 Y155.98 E235.09380
G0 F6000 X125.92 Y156.68
G1 F2700 X132.11 Y162.87 E235.63919
G0 F6000 X131.50 Y162.96
G1 F2700 X125.92 Y157.39 E236.13065
G0 F6000 X125.92 Y158.10
G1 F2700 X130.89 Y163.06 E236.56818
G0 F6000 X130.27 Y163.15
G1 F2700 X125.92 Y158.81 E236.95174
G0 F6000 X125.92 Y159.51
G1 F2700 X129.66 Y163.25 E237.28137
G0 F6000 X129.05 Y163.34
G1 F2700 X125.92 Y160.22 E237.55706
G0 F6000 X125.92 Y160.93
G1 F2700 X128.44 Y163.44 E237.77883
G0 F6000 X127.83 Y163.54
G1 F2700 X125.92 Y161.63 E237.94657
G0 F6000 X125.92 Y162.34
G1 F2700 X127.22 Y163.63 E238.06043
G0 F6000 X126.60 Y163.73
G1 F2700 X125.92 Y163.05 E238.12032
G0 F6000 X155.75 Y164.04
;TYPE:WALL-INNER
G1 F2700 X155.75 Y140.96 E239.55977
G1 X167.75 Y142.79 E240.31661
G1 X167.75 Y162.17 E241.52470
G1 X155.75 Y164.04 E242.28186
G0 F6000 X155.25 Y164.62
G1 F2700 X155.25 Y140.37 E243.79415
G1 X168.25 Y142.37 E244.61408
G1 X168.25 Y162.59 E245.87568
G1 X155.25 Y164.62 E246.69596
G0 F6000 X154.75 Y165.21
;TYPE:WALL-OUTER
G1 F2700 X154.75 Y139.79 E248.28103
G1 X168.75 Y141.94 E249.16406
G1 X168.75 Y163.02 E250.47904
G1 X154.75 Y165.21 E251.36244
G0 F6000 X156.34 Y163.77
;TYPE:FILL
G1 F2700 X155.92 Y163.35 E251.39948
G0 F6000 X155.92 Y162.64
G1 F2700 X156.96 Y163.67 E251.49046
G0 F6000 X157.57 Y163.58
G1 F2700 X155.92 Y161.93 E251.63536
G0 F6000 X155.92 Y161.23
G1 F2700 X158.18 Y163.48 E251.83424
G0 F6000 X158.79 Y163.39
G1 F2700 X155.92 Y160.52 E252.08700
G0 F6000 X155.92 Y159.81
G1 F2700 X159.40 Y163.29 E252.39374
G0 F6000 X160.01 Y163.20
G1 F2700 X155.92 Y159.11 E252.75446
G0 F6000 X155.92 Y158.40
G1 F2700 X160.62 Y163.10 E253.16910
G0 F6000 X161.24 Y163.00
G1 F2700 X155.92 Y157.69 E253.63772
G0 F6000 X155.92 Y156.98
G1 F2700 X161.85 Y162.91 E254.16023
G0 F6000 X162.46 Y162.81
G1 F2700 X155.92 Y156.28 E254.73671
G0 F6000 X155.92 Y155.57
G1 F2700 X163.07 Y162.72 E255.36712
G0 F6000 X163.68 Y162.62
G1 F2700 X155.92 Y154.86 E256.05142
G0 F6000 X155.92 Y154.16
G1 F2700 X164.29 Y162.53 E256.78965
G0 F6000 X164.91 Y162.43
G1 F2700 X155.92 Y153.45 E257.58181
G0 F6000 X155.92 Y152.74
G1 F2700 X165.52 Y162.34 E258.42795
G0 F6000 X166.13 Y162.24
G1 F2700 X155.92 Y152.03 E259.32797
G0 F6000 X155.92 Y151.33
G1 F2700 X166.74 Y162.15 E260.28201
G0 F6000 X167.35 Y162.05
G1 F2700 X155.92 Y150.62 E261.28998
G0 F6000 X155.92 Y149.91
G1 F2700 X167.57 Y161.56 E262.31710
G0 F6000 X167.57 Y160.85
G1 F2700 X155.92 Y149.21 E263.34421
G0 F6000 X155.92 Y148.50
G1 F2700 X167.57 Y160.15 E264.37132
G0 F6000 X167.57 Y159.44
G1 F2700 X155.92 Y147.79 E265.39843
G0 F6000 X155.92 Y147.09
G1 F2700 X167.57 Y158.73 E266.42554
G0 F6000 X167.57 Y158.02
G1 F2700 X155.92 Y146.38 E267.45265
G0 F6000 X155.92 Y145.67
G1 F2700 X167.57 Y157.32 E268.47976
G0 F6000 X167.57 Y156.61
G1 F2700 X155.92 Y144.96 E269.50691
G0 F6000 X155.92 Y144.26
G1 F2700 X167.57 Y155.90 E270.53402
G0 F6000 X167.57 Y155.19
G1 F2700 X155.92 Y143.55 E271.56113
G0 F6000 X155.92 Y142.84
G1 F2700 X167.57 Y154.49 E272.58824
G0 F6000 X167.57 Y153.78
G1 F2700 X155.92 Y142.13 E273.61535
G0 F6000 X155.92 Y141.43
G1 F2700 X167.57 Y153.07 E274.64246
G0 F6000 X167.57 Y152.37
G1 F2700 X156.44 Y141.24 E275.62376
G0 F6000 X157.28 Y141.37
G1 F2700 X167.57 Y151.66 E276.53141
G0 F6000 X167.57 Y150.95
G1 F2700 X158.11 Y141.50 E277.36537
G0 F6000 X158.95 Y141.62
G1 F2700 X167.57 Y150.25 E278.12569
G0 F6000 X167.57 Y149.54
G1 F2700 X159.78 Y141.75 E278.81237
G0 F6000 X160.62 Y141.88
G1 F2700 X167.57 Y148.83 E279.42541
G0 F6000 X167.57 Y148.12
G1 F2700 X161.45 Y142.01 E279.96481
G0 F6000 X162.29 Y142.14
G1 F2700 X167.57 Y147.42 E280.43056
G0 F6000 X167.57 Y146.71
G1 F2700 X163.12 Y142.26 E280.82267
G0 F6000 X163.96 Y142.39
G1 F2700 X167.57 Y146.00 E281.14114
G0 F6000 X167.57 Y145.30
G1 F2700 X164.79 Y142.52 E281.38597
G0 F6000 X165.63 Y142.65
G1 F2700 X167.57 Y144.59 E281.55716
G0 F6000 X167.57 Y143.88
G1 F2700 X166.46 Y142.78 E281.65470
G0 F6000 X167.30 Y142.90
G1 F2700 X167.57 Y143.17 E281.67851
G0 F6000 X148.32 Y142.12
;TYPE:SUPPORT
G1 F2700 X148.32 Y162.53 E282.95146
G0 F6000 X148.29 Y162.36
G0 X144.96 Y162.87
G0 X144.99 Y163.04
G1 F2700 X144.99 Y155.47 E283.42398
G0 F6000 X144.98 Y155.64
G0 X143.19 Y155.53
G0 X141.57 Y154.52
G0 X141.65 Y154.37
G1 F2700 X141.65 Y163.55 E283.99666
G0 F6000 X141.63 Y163.37
G0 X150.95 Y161.86
G0 X146.25 Y142.10
G0 X141.57 Y150.29
G0 X141.65 Y150.45
G1 F2700 X141.65 Y141.20 E284.57345
G0 F6000 X141.63 Y141.37
G0 X144.96 Y141.84
G0 X144.99 Y141.67
G1 F2700 X144.99 Y149.34 E285.05165
G0 F6000 X171.65 Y150.45
G1 F2700 X171.65 Y141.20 E285.62844
G0 F6000 X171.62 Y141.37
G0 X174.96 Y141.84
G0 X174.98 Y141.67
G1 F2700 X174.98 Y149.34 E286.10670
G0 F6000 X174.98 Y149.16
G0 X173.19 Y149.26
G0 X180.95 Y142.72
G0 X175.46 Y162.70
G0 X171.57 Y154.52
G0 X171.65 Y154.36
G1 F2700 X171.65 Y163.55 E286.67957
G0 F6000 X171.62 Y163.37
G0 X174.96 Y162.87
G0 X174.98 Y163.04
G1 F2700 X174.98 Y155.47 E287.15215
G0 F6000 X174.98 Y155.64
G0 X178.29 Y162.36
G0 X178.31 Y162.53
G1 F2700 X178.31 Y142.12 E288.42516
;LAYER:1
G0 F6000 X167.75 Y142.79 Z0.50
;TYPE:WALL-INNER
G1 F3480 X167.75 Y162.17 E289.23056
G1 X155.75 Y164.04 E289.73534
G1 X155.75 Y140.96 E290.69502
G1 X167.61 Y142.78 E291.19398
G1 X167.75 Y142.79 E291.19957
G0 F6000 X167.69 Y142.28
G1 F3480 X168.25 Y142.37 E291.22304
G1 X168.25 Y162.59 E292.06407
G1 X155.25 Y164.62 E292.61093
G1 X155.25 Y140.37 E293.61921
G1 X167.69 Y142.28 E294.14237
G0 F6000 X168.75 Y141.94
;TYPE:WALL-OUTER
G1 F3480 X168.75 Y163.02 E295.01902
G1 X154.75 Y165.21 E295.60796
G1 X154.75 Y139.79 E296.66467
G1 X168.75 Y141.94 E297.25336
G0 F6000 X168.47 Y142.25
G0 X167.57 Y143.20
;TYPE:FILL
G1 F3480 X155.93 Y154.85 E297.93801
G0 F6000 X155.93 Y154.14
G1 F3480 X167.18 Y142.88 E298.59976
G0 F6000 X166.57 Y142.79
G1 F3480 X155.93 Y153.43 E299.22547
G0 F6000 X155.93 Y152.73
G1 F3480 X165.95 Y142.70 E299.81514
G0 F6000 X165.34 Y142.60
G1 F3480 X155.92 Y152.02 E300.36882
G0 F6000 X155.92 Y151.31
G1 F3480 X164.73 Y142.51 E300.88646
G0 F6000 X164.11 Y142.42
G1 F3480 X155.92 Y150.60 E301.36797
G0 F6000 X155.92 Y149.90
G1 F3480 X163.50 Y142.32 E301.81344
G0 F6000 X162.89 Y142.23
G1 F3480 X155.92 Y149.19 E302.22287
G0 F6000 X155.92 Y148.48
G1 F3480 X162.28 Y142.13 E302.59625
G0 F6000 X161.66 Y142.04
G1 F3480 X155.92 Y147.78 E302.93360
G0 F6000 X155.92 Y147.07
G1 F3480 X161.05 Y141.95 E303.23490
G0 F6000 X160.44 Y141.85
G1 F3480 X155.92 Y146.36 E303.50019
G0 F6000 X155.92 Y145.66
G1 F3480 X159.82 Y141.76 E303.72943
G0 F6000 X159.21 Y141.66
G1 F3480 X155.92 Y144.95 E303.92264
G0 F6000 X155.92 Y144.24
G1 F3480 X158.60 Y141.57 E304.07974
G0 F6000 X157.98 Y141.48
G1 F3480 X155.92 Y143.53 E304.20077
G0 F6000 X155.92 Y142.83
G1 F3480 X157.37 Y141.38 E304.28576
G0 F6000 X156.76 Y141.29
G1 F3480 X155.92 Y142.12 E304.33471
G0 F6000 X155.92 Y141.41
G1 F3480 X156.14 Y141.19 E304.34761
G0 F6000 X167.57 Y143.91
G1 F3480 X155.93 Y155.56 E305.03230
G0 F6000 X155.93 Y156.26
G1 F3480 X167.57 Y144.62 E305.71698
G0 F6000 X167.57 Y145.32
G1 F3480 X155.93 Y156.97 E306.40166
G0 F6000 X155.93 Y157.68
G1 F3480 X167.57 Y146.03 E307.08634
G0 F6000 X167.57 Y146.74
G1 F3480 X155.93 Y158.38 E307.77102
G0 F6000 X155.93 Y159.09
G1 F3480 X167.57 Y147.44 E308.45570
G0 F6000 X167.57 Y148.15
G1 F3480 X155.93 Y159.80 E309.14036
G0 F6000 X155.93 Y160.50
G1 F3480 X167.57 Y148.86 E309.82501
G0 F6000 X167.57 Y149.57
G1 F3480 X155.93 Y161.21 E310.50966
G0 F6000 X155.93 Y161.92
G1 F3480 X167.57 Y150.27 E311.19431
G0 F6000 X167.57 Y150.98
G1 F3480 X155.93 Y162.63 E311.87899
G0 F6000 X155.93 Y163.33
G1 F3480 X167.57 Y151.69 E312.56367
G0 F6000 X167.57 Y152.40
G1 F3480 X156.17 Y163.80 E313.23407
G0 F6000 X157.00 Y163.67
G1 F3480 X167.57 Y153.10 E313.85522
G0 F6000 X167.57 Y153.81
G1 F3480 X157.84 Y163.54 E314.42713
G0 F6000 X158.68 Y163.41
G1 F3480 X167.57 Y154.52 E314.94977
G0 F6000 X167.57 Y155.22
G1 F3480 X159.52 Y163.27 E315.42305
G0 F6000 X160.36 Y163.14
G1 F3480 X167.57 Y155.93 E315.84706
G0 F6000 X167.57 Y156.64
G1 F3480 X161.20 Y163.01 E316.22182
G0 F6000 X162.03 Y162.88
G1 F3480 X167.57 Y157.34 E316.54732
G0 F6000 X167.57 Y158.05
G1 F3480 X162.87 Y162.75 E316.82354
G0 F6000 X163.71 Y162.62
G1 F3480 X167.57 Y158.76 E317.05050
G0 F6000 X167.57 Y159.47
G1 F3480 X164.55 Y162.49 E317.22821
G0 F6000 X165.38 Y162.36
G1 F3480 X167.57 Y160.17 E317.35668
G0 F6000 X167.57 Y160.88
G1 F3480 X166.22 Y162.23 E317.43588
G0 F6000 X167.06 Y162.10
G1 F3480 X167.57 Y161.59 E317.46577
G0 F6000 X137.75 Y162.17
;TYPE:WALL-INNER
G1 F3480 X125.75 Y164.04 E317.97059
G1 X125.75 Y140.96 E318.93027
G1 X137.61 Y142.78 E319.42928
G1 X137.75 Y142.79 E319.43487
G1 X137.75 Y162.17 E320.24026
G0 F6000 X138.25 Y162.59
G1 F3480 X125.25 Y164.62 E320.78717
G1 X125.25 Y140.37 E321.79545
G1 X137.69 Y142.28 E322.31865
G1 X138.25 Y142.37 E322.34212
G1 X138.25 Y162.59 E323.18314
G0 F6000 X138.75 Y163.02
;TYPE:WALL-OUTER
G1 F3480 X124.75 Y165.21 E323.77212
G1 X124.75 Y139.79 E324.82883
G1 X138.75 Y141.94 E325.41756
G1 X138.75 Y163.02 E326.29422
G0 F6000 X138.47 Y162.71
G0 X137.57 Y161.89
;TYPE:FILL
G1 F3480 X137.42 Y162.04 E326.30318
G0 F6000 X136.58 Y162.17
G1 F3480 X137.57 Y161.18 E326.36142
G0 F6000 X137.57 Y160.47
G1 F3480 X135.74 Y162.30 E326.46893
G0 F6000 X134.91 Y162.43
G1 F3480 X137.57 Y159.77 E326.62571
G0 F6000 X137.57 Y159.06
G1 F3480 X134.07 Y162.56 E326.83173
G0 F6000 X133.23 Y162.69
G1 F3480 X137.57 Y158.35 E327.08702
G0 F6000 X137.57 Y157.65
G1 F3480 X132.39 Y162.82 E327.39159
G0 F6000 X131.55 Y162.96
G1 F3480 X137.57 Y156.94 E327.74542
G0 F6000 X137.57 Y156.23
G1 F3480 X130.72 Y163.09 E328.14853
G0 F6000 X129.88 Y163.22
G1 F3480 X137.57 Y155.52 E328.60094
G0 F6000 X137.57 Y154.82
G1 F3480 X129.04 Y163.35 E329.10261
G0 F6000 X128.20 Y163.48
G1 F3480 X137.57 Y154.11 E329.65356
G0 F6000 X137.57 Y153.40
G1 F3480 X127.36 Y163.61 E330.25378
G0 F6000 X126.53 Y163.74
G1 F3480 X137.57 Y152.69 E330.90325
G0 F6000 X137.57 Y151.99
G1 F3480 X125.92 Y163.63 E331.58802
G0 F6000 X125.92 Y162.93
G1 F3480 X137.57 Y151.28 E332.27279
G0 F6000 X137.57 Y150.57
G1 F3480 X125.92 Y162.22 E332.95753
G0 F6000 X125.92 Y161.51
G1 F3480 X137.57 Y149.87 E333.64227
G0 F6000 X137.57 Y149.16
G1 F3480 X125.92 Y160.81 E334.32704
G0 F6000 X125.92 Y160.10
G1 F3480 X137.57 Y148.45 E335.01181
G0 F6000 X137.57 Y147.75
G1 F3480 X125.92 Y159.39 E335.69658
G0 F6000 X125.92 Y158.69
G1 F3480 X137.57 Y147.04 E336.38134
G0 F6000 X137.57 Y146.33
G1 F3480 X125.92 Y157.98 E337.06611
G0 F6000 X125.92 Y157.27
G1 F3480 X137.57 Y145.62 E337.75088
G0 F6000 X137.57 Y144.92
G1 F3480 X125.92 Y156.56 E338.43565
G0 F6000 X125.92 Y155.86
G1 F3480 X137.57 Y144.21 E339.12039
G0 F6000 X137.57 Y143.50
G1 F3480 X125.92 Y155.15 E339.80513
G0 F6000 X125.92 Y154.44
G1 F3480 X137.44 Y142.92 E340.48235
G0 F6000 X136.83 Y142.83
G1 F3480 X125.92 Y153.74 E341.12352
G0 F6000 X125.92 Y153.03
G1 F3480 X136.22 Y142.74 E341.72859
G0 F6000 X135.60 Y142.64
G1 F3480 X125.92 Y152.32 E342.29762
G0 F6000 X125.92 Y151.61
G1 F3480 X134.99 Y142.55 E342.83061
G0 F6000 X134.38 Y142.46
G1 F3480 X125.92 Y150.91 E343.32755
G0 F6000 X125.92 Y150.20
G1 F3480 X133.76 Y142.36 E343.78846
G0 F6000 X133.15 Y142.27
G1 F3480 X125.92 Y149.49 E344.21329
G0 F6000 X125.92 Y148.78
G1 F3480 X132.54 Y142.17 E344.60205
G0 F6000 X131.92 Y142.08
G1 F3480 X125.92 Y148.08 E344.95477
G0 F6000 X125.92 Y147.37
G1 F3480 X131.31 Y141.99 E345.27144
G0 F6000 X130.70 Y141.89
G1 F3480 X125.92 Y146.66 E345.55208
G0 F6000 X125.92 Y145.96
G1 F3480 X130.09 Y141.80 E345.79667
G0 F6000 X129.47 Y141.70
G1 F3480 X125.92 Y145.25 E346.00519
G0 F6000 X125.92 Y144.54
G1 F3480 X128.86 Y141.61 E346.17767
G0 F6000 X128.25 Y141.51
G1 F3480 X125.92 Y143.84 E346.31410
G0 F6000 X125.92 Y143.13
G1 F3480 X127.63 Y141.42 E346.41450
G0 F6000 X127.02 Y141.33
G1 F3480 X125.92 Y142.42 E346.47879
G0 F6000 X125.92 Y141.71
G1 F3480 X126.41 Y141.23 E346.50704
G0 F6000 X171.65 Y141.20
;TYPE:SUPPORT
G1 F3480 X171.65 Y150.45 E346.89157
G0 F6000 X171.57 Y150.29
G0 X173.69 Y149.10
G0 X174.98 Y149.16
G0 X174.98 Y149.34
G1 F3480 X174.98 Y141.67 E347.21041
G0 F6000 X174.96 Y141.84
G0 X178.29 Y142.29
G0 X178.31 Y142.12
G1 F3480 X178.31 Y162.53 E348.05909
G0 F6000 X178.29 Y162.36
G0 X174.96 Y162.87
G0 X174.98 Y163.04
G1 F3480 X174.98 Y155.47 E348.37414
G0 F6000 X174.98 Y155.64
G0 X173.19 Y155.53
G0 X171.57 Y154.52
G0 X171.65 Y154.36
G1 F3480 X171.65 Y163.55 E348.75605
G0 F6000 X148.32 Y162.53
G1 F3480 X148.32 Y142.12 E349.60469
G0 F6000 X148.29 Y142.29
G0 X144.96 Y141.84
G0 X144.99 Y141.67
G1 F3480 X144.99 Y149.34 E349.92348
G0 F6000 X144.98 Y149.16
G0 X143.19 Y149.26
G0 X141.57 Y150.29
G0 X141.65 Y150.45
G1 F3480 X141.65 Y141.20 E350.30801
G0 F6000 X141.63 Y141.37
G0 X150.95 Y142.72
G0 X145.46 Y162.70
G0 X141.57 Y154.52
G0 X141.65 Y154.37
G1 F3480 X141.65 Y163.55 E350.68980
G0 F6000 X141.63 Y163.37
G0 X144.96 Y162.87
G0 X144.99 Y163.04
G1 F3480 X144.99 Y155.47 E351.00481
;LAYER:2
G0 F6000 X137.75 Y162.17 Z0.70
;TYPE:WALL-INNER
G1 F4320 X126.31 Y163.95 E351.48593
G1 X125.75 Y164.04 E351.50963
G1 X125.75 Y140.96 E352.46935
G1 X125.92 Y140.98 E352.47654
G1 X126.52 Y141.07 E352.50161
G1 X137.02 Y142.68 E352.94329
G1 X137.75 Y142.80 E352.97396
G1 X137.75 Y162.17 E353.77932
G0 F6000 X138.25 Y162.59
G1 F4320 X126.39 Y164.44 E354.27820
G1 X125.54 Y164.58 E354.31409
G1 X125.25 Y164.62 E354.32621
G1 X125.25 Y140.37 E355.33445
G1 X137.09 Y142.19 E355.83258
G1 X137.99 Y142.33 E355.87018
G1 X138.25 Y142.37 E355.88112
G1 X138.25 Y162.59 E356.72214
G0 F6000 X138.75 Y163.02
;TYPE:WALL-OUTER
G1 F4320 X124.75 Y165.21 E357.31112
G1 X124.75 Y139.79 E358.36784
G1 X138.75 Y141.94 E358.95656
G1 X138.75 Y163.02 E359.83322
G0 F6000 X138.47 Y162.71
G0 X137.57 Y161.97
;TYPE:FILL
G1 F4320 X125.92 Y150.32 E360.51808
G0 F6000 X125.92 Y151.03
G1 F4320 X137.00 Y162.10 E361.16942
G0 F6000 X136.39 Y162.20
G1 F4320 X125.92 Y151.73 E361.78481
G0 F6000 X125.92 Y152.44
G1 F4320 X135.78 Y162.29 E362.36425
G0 F6000 X135.17 Y162.39
G1 F4320 X125.92 Y153.15 E362.90770
G0 F6000 X125.92 Y153.85
G1 F4320 X134.56 Y162.49 E363.41520
G0 F6000 X133.94 Y162.58
G1 F4320 X125.92 Y154.56 E363.88674
G0 F6000 X125.92 Y155.27
G1 F4320 X133.33 Y162.68 E364.32230
G0 F6000 X132.72 Y162.77
G1 F4320 X125.92 Y155.98 E364.72194
G0 F6000 X125.92 Y156.68
G1 F4320 X132.11 Y162.87 E365.08566
G0 F6000 X131.50 Y162.96
G1 F4320 X125.92 Y157.39 E365.41339
G0 F6000 X125.92 Y158.10
G1 F4320 X130.89 Y163.06 E365.70516
G0 F6000 X130.28 Y163.16
G1 F4320 X125.92 Y158.80 E365.96098
G0 F6000 X125.92 Y159.51
G1 F4320 X129.66 Y163.25 E366.18085
G0 F6000 X129.05 Y163.35
G1 F4320 X125.92 Y160.22 E366.36471
G0 F6000 X125.92 Y160.93
G1 F4320 X128.44 Y163.44 E366.51264
G0 F6000 X127.83 Y163.54
G1 F4320 X125.92 Y161.63 E366.62459
G0 F6000 X125.92 Y162.34
G1 F4320 X127.22 Y163.63 E366.70055
G0 F6000 X126.61 Y163.73
G1 F4320 X125.92 Y163.05 E366.74059
G0 F6000 X137.57 Y161.26
G1 F4320 X125.92 Y149.61 E367.42545
G0 F6000 X125.92 Y148.91
G1 F4320 X137.57 Y160.55 E368.11031
G0 F6000 X137.57 Y159.85
G1 F4320 X125.92 Y148.20 E368.79516
G0 F6000 X125.92 Y147.49
G1 F4320 X137.57 Y159.14 E369.48002
G0 F6000 X137.57 Y158.43
G1 F4320 X125.92 Y146.78 E370.16488
G0 F6000 X125.92 Y146.08
G1 F4320 X137.57 Y157.72 E370.84977
G0 F6000 X137.57 Y157.02
G1 F4320 X125.92 Y145.37 E371.53465
G0 F6000 X125.92 Y144.66
G1 F4320 X137.57 Y156.31 E372.21951
G0 F6000 X137.57 Y155.60
G1 F4320 X125.92 Y143.96 E372.90437
G0 F6000 X125.92 Y143.25
G1 F4320 X137.57 Y154.90 E373.58923
G0 F6000 X137.57 Y154.19
G1 F4320 X125.92 Y142.54 E374.27409
G0 F6000 X125.92 Y141.83
G1 F4320 X137.57 Y153.48 E374.95894
G0 F6000 X137.57 Y152.78
G1 F4320 X125.96 Y141.16 E375.64163
G0 F6000 X126.80 Y141.29
G1 F4320 X137.57 Y152.07 E376.27515
G0 F6000 X137.57 Y151.36
G1 F4320 X127.63 Y141.42 E376.85959
G0 F6000 X128.47 Y141.55
G1 F4320 X137.57 Y150.65 E377.39493
G0 F6000 X137.57 Y149.95
G1 F4320 X129.30 Y141.68 E377.88114
G0 F6000 X130.14 Y141.81
G1 F4320 X137.57 Y149.24 E378.31823
G0 F6000 X137.57 Y148.53
G1 F4320 X130.97 Y141.93 E378.70623
G0 F6000 X131.81 Y142.06
G1 F4320 X137.57 Y147.82 E379.04513
G0 F6000 X137.57 Y147.12
G1 F4320 X132.64 Y142.19 E379.33494
G0 F6000 X133.48 Y142.32
G1 F4320 X137.57 Y146.41 E379.57562
G0 F6000 X137.57 Y145.70
G1 F4320 X134.31 Y142.44 E379.76721
G0 F6000 X135.15 Y142.57
G1 F4320 X137.57 Y145.00 E379.90970
G0 F6000 X137.57 Y144.29
G1 F4320 X135.98 Y142.70 E380.00310
G0 F6000 X136.82 Y142.83
G1 F4320 X137.57 Y143.58 E380.04737
G0 F6000 X155.75 Y140.96
;TYPE:WALL-INNER
G1 F4320 X155.92 Y140.98 E380.05456
G1 X156.52 Y141.07 E380.07963
G1 X167.02 Y142.68 E380.52127
G1 X167.75 Y142.80 E380.55194
G1 X167.75 Y162.17 E381.35729
G1 X156.31 Y163.95 E381.83837
G1 X155.75 Y164.04 E381.86207
G1 X155.75 Y140.96 E382.82179
G0 F6000 X155.25 Y140.37
G1 F4320 X167.09 Y142.19 E383.31987
G1 X167.99 Y142.33 E383.35748
G1 X168.25 Y142.37 E383.36842
G1 X168.25 Y162.59 E384.20944
G1 X156.39 Y164.44 E384.70828
G1 X155.54 Y164.58 E384.74418
G1 X155.25 Y164.62 E384.75630
G1 X155.25 Y140.37 E385.76454
G0 F6000 X154.75 Y139.79
;TYPE:WALL-OUTER
G1 F4320 X168.75 Y141.94 E386.35322
G1 X168.75 Y163.02 E387.22988
G1 X154.75 Y165.21 E387.81881
G1 X154.75 Y139.79 E388.87553
G0 F6000 X155.92 Y141.43
;TYPE:FILL
G1 F4320 X167.57 Y153.07 E389.56027
G0 F6000 X167.57 Y153.78
G1 F4320 X155.92 Y142.13 E390.24501
G0 F6000 X155.92 Y142.84
G1 F4320 X167.57 Y154.49 E390.92975
G0 F6000 X167.57 Y155.19
G1 F4320 X155.92 Y143.55 E391.61449
G0 F6000 X155.92 Y144.26
G1 F4320 X167.57 Y155.90 E392.29923
G0 F6000 X167.57 Y156.61
G1 F4320 X155.92 Y144.96 E392.98400
G0 F6000 X155.92 Y145.67
G1 F4320 X167.57 Y157.32 E393.66874
G0 F6000 X167.57 Y158.02
G1 F4320 X155.92 Y146.38 E394.35348
G0 F6000 X155.92 Y147.09
G1 F4320 X167.57 Y158.73 E395.03822
G0 F6000 X167.57 Y159.44
G1 F4320 X155.92 Y147.79 E395.72296
G0 F6000 X155.92 Y148.50
G1 F4320 X167.57 Y160.15 E396.40770
G0 F6000 X167.57 Y160.85
G1 F4320 X155.92 Y149.21 E397.09244
G0 F6000 X155.92 Y149.91
G1 F4320 X167.57 Y161.56 E397.77718
G0 F6000 X167.35 Y162.05
G1 F4320 X155.92 Y150.62 E398.44916
G0 F6000 X155.92 Y151.33
G1 F4320 X166.74 Y162.15 E399.08519
G0 F6000 X166.13 Y162.24
G1 F4320 X155.92 Y152.03 E399.68520
G0 F6000 X155.92 Y152.74
G1 F4320 X165.52 Y162.34 E400.24929
G0 F6000 X164.91 Y162.43
G1 F4320 X155.92 Y153.45 E400.77746
G0 F6000 X155.92 Y154.16
G1 F4320 X164.29 Y162.53 E401.26961
G0 F6000 X163.68 Y162.62
G1 F4320 X155.92 Y154.86 E401.72581
G0 F6000 X155.92 Y155.57
G1 F4320 X163.07 Y162.72 E402.14606
G0 F6000 X162.46 Y162.81
G1 F4320 X155.92 Y156.28 E402.53035
G0 F6000 X155.92 Y156.99
G1 F4320 X161.85 Y162.91 E402.87866
G0 F6000 X161.24 Y163.00
G1 F4320 X155.92 Y157.69 E403.19104
G0 F6000 X155.92 Y158.40
G1 F4320 X160.62 Y163.10 E403.46744
G0 F6000 X160.01 Y163.20
G1 F4320 X155.92 Y159.11 E403.70792
G0 F6000 X155.92 Y159.81
G1 F4320 X159.40 Y163.29 E403.91241
G0 F6000 X158.79 Y163.39
G1 F4320 X155.92 Y160.52 E404.08089
G0 F6000 X155.92 Y161.23
G1 F4320 X158.18 Y163.48 E404.21348
G0 F6000 X157.57 Y163.58
G1 F4320 X155.92 Y161.94 E404.31011
G0 F6000 X155.92 Y162.64
G1 F4320 X156.96 Y163.67 E404.37079
G0 F6000 X156.34 Y163.77
G1 F4320 X155.92 Y163.35 E404.39548
G0 F6000 X167.57 Y152.37
G1 F4320 X156.44 Y141.24 E405.04977
G0 F6000 X157.28 Y141.37
G1 F4320 X167.57 Y151.66 E405.65495
G0 F6000 X167.57 Y150.95
G1 F4320 X158.11 Y141.50 E406.21105
G0 F6000 X158.95 Y141.62
G1 F4320 X167.57 Y150.25 E406.71805
G0 F6000 X167.57 Y149.54
G1 F4320 X159.78 Y141.75 E407.17592
G0 F6000 X160.62 Y141.88
G1 F4320 X167.57 Y148.83 E407.58464
G0 F6000 X167.57 Y148.12
G1 F4320 X161.45 Y142.01 E407.94427
G0 F6000 X162.29 Y142.14
G1 F4320 X167.57 Y147.42 E408.25480
G0 F6000 X167.57 Y146.71
G1 F4320 X163.12 Y142.26 E408.51624
G0 F6000 X163.96 Y142.39
G1 F4320 X167.57 Y146.00 E408.72858
G0 F6000 X167.57 Y145.30
G1 F4320 X164.79 Y142.52 E408.89180
G0 F6000 X165.63 Y142.65
G1 F4320 X167.57 Y144.59 E409.00592
G0 F6000 X167.57 Y143.88
G1 F4320 X166.46 Y142.78 E409.07095
G0 F6000 X167.30 Y142.90
G1 F4320 X167.57 Y143.17 E409.08683
G0 F6000 X148.32 Y142.12
;TYPE:SUPPORT
G1 F4320 X148.32 Y162.53 E409.93546
G0 F6000 X148.29 Y162.36
G0 X144.96 Y162.87
G0 X144.99 Y163.04
G1 F4320 X144.99 Y155.47 E410.25048
G0 F6000 X144.98 Y155.64
G0 X143.19 Y155.53
G0 X141.57 Y154.52
G0 X141.65 Y154.37
G1 F4320 X141.65 Y163.55 E410.63226
G0 F6000 X141.63 Y163.37
G0 X150.95 Y161.86
G0 X146.25 Y142.10
G0 X141.57 Y150.29
G0 X141.65 Y150.45
G1 F4320 X141.65 Y141.20 E411.01679
G0 F6000 X141.63 Y141.37
G0 X144.96 Y141.84
G0 X144.99 Y141.67
G1 F4320 X144.99 Y149.34 E411.33559
G0 F6000 X171.65 Y150.45
G1 F4320 X171.65 Y141.20 E411.72012
G0 F6000 X171.62 Y141.37
G0 X174.96 Y141.84
G0 X174.98 Y141.67
G1 F4320 X174.98 Y149.34 E412.03896
G0 F6000 X174.98 Y149.16
G0 X173.19 Y149.26
G0 X180.95 Y142.72
G0 X175.46 Y162.70
G0 X171.57 Y154.52
G0 X171.65 Y154.36
G1 F4320 X171.65 Y163.55 E412.42087
G0 F6000 X171.62 Y163.37
G0 X174.96 Y162.87
G0 X174.98 Y163.04
G1 F4320 X174.98 Y155.47 E412.73592
G0 F6000 X174.98 Y155.64
G0 X178.29 Y162.36
G0 X178.31 Y162.53
G1 F4320 X178.31 Y142.12 E413.58460
;LAYER:3
G0 F6000 X167.75 Y142.80 Z0.90
;TYPE:WALL-INNER
G1 F5160 X167.75 Y162.17 E414.38991
G1 X167.05 Y162.27 E414.41903
G1 X166.42 Y162.37 E414.44587
G1 X156.98 Y163.85 E414.84281
G1 X155.75 Y164.04 E414.89469
G1 X155.75 Y140.96 E415.85445
G1 X167.61 Y142.78 E416.35339
G1 X167.75 Y142.80 E416.35903
G0 F6000 X168.25 Y142.37
G1 F5160 X168.25 Y162.59 E417.20010
G1 X167.13 Y162.77 E417.24701
G1 X166.49 Y162.87 E417.27381
G1 X155.25 Y164.62 E417.74695
G1 X155.25 Y140.37 E418.75519
G1 X168.25 Y142.37 E419.30181
G0 F6000 X168.75 Y141.94
;TYPE:WALL-OUTER
G1 F5160 X168.75 Y163.02 E420.17847
G1 X154.75 Y165.21 E420.76740
G1 X154.75 Y139.79 E421.82412
G1 X168.75 Y141.94 E422.41280
G0 F6000 X168.47 Y142.25
G0 X167.57 Y143.20
;TYPE:FILL
G1 F5160 X155.93 Y154.85 E423.09745
G0 F6000 X155.93 Y154.14
G1 F5160 X167.18 Y142.88 E423.75921
G0 F6000 X166.57 Y142.79
G1 F5160 X155.93 Y153.43 E424.38491
G0 F6000 X155.93 Y152.73
G1 F5160 X165.95 Y142.70 E424.97458
G0 F6000 X165.34 Y142.60
G1 F5160 X155.93 Y152.02 E425.52821
G0 F6000 X155.93 Y151.31
G1 F5160 X164.73 Y142.51 E426.04579
G0 F6000 X164.12 Y142.41
G1 F5160 X155.93 Y150.60 E426.52733
G0 F6000 X155.93 Y149.90
G1 F5160 X163.50 Y142.32 E426.97283
G0 F6000 X162.89 Y142.23
G1 F5160 X155.93 Y149.19 E427.38228
G0 F6000 X155.93 Y148.48
G1 F5160 X162.28 Y142.13 E427.75567
G0 F6000 X161.66 Y142.04
G1 F5160 X155.93 Y147.78 E428.09298
G0 F6000 X155.93 Y147.07
G1 F5160 X161.05 Y141.94 E428.39425
G0 F6000 X160.44 Y141.85
G1 F5160 X155.93 Y146.36 E428.65948
G0 F6000 X155.93 Y145.66
G1 F5160 X159.82 Y141.76 E428.88867
G0 F6000 X159.21 Y141.66
G1 F5160 X155.93 Y144.95 E429.08182
G0 F6000 X155.93 Y144.24
G1 F5160 X158.60 Y141.57 E429.23892
G0 F6000 X157.99 Y141.47
G1 F5160 X155.93 Y143.53 E429.36004
G0 F6000 X155.93 Y142.83
G1 F5160 X157.37 Y141.38 E429.44512
G0 F6000 X156.76 Y141.29
G1 F5160 X155.93 Y142.12 E429.49412
G0 F6000 X155.93 Y141.41
G1 F5160 X156.15 Y141.19 E429.50709
G0 F6000 X167.57 Y143.91
G1 F5160 X155.93 Y155.56 E430.19177
G0 F6000 X155.93 Y156.26
G1 F5160 X167.57 Y144.62 E430.87645
G0 F6000 X167.57 Y145.32
G1 F5160 X155.93 Y156.97 E431.56113
G0 F6000 X155.93 Y157.68
G1 F5160 X167.57 Y146.03 E432.24582
G0 F6000 X167.57 Y146.74
G1 F5160 X155.93 Y158.38 E432.93050
G0 F6000 X155.93 Y159.09
G1 F5160 X167.57 Y147.44 E433.61518
G0 F6000 X167.57 Y148.15
G1 F5160 X155.93 Y159.80 E434.29983
G0 F6000 X155.93 Y160.50
G1 F5160 X167.57 Y148.86 E434.98448
G0 F6000 X167.57 Y149.57
G1 F5160 X155.93 Y161.21 E435.66913
G0 F6000 X155.93 Y161.92
G1 F5160 X167.57 Y150.27 E436.35379
G0 F6000 X167.57 Y150.98
G1 F5160 X155.93 Y162.63 E437.03847
G0 F6000 X155.93 Y163.33
G1 F5160 X167.57 Y151.69 E437.72315
G0 F6000 X167.57 Y152.40
G1 F5160 X156.17 Y163.80 E438.39354
G0 F6000 X157.00 Y163.67
G1 F5160 X167.57 Y153.10 E439.01469
G0 F6000 X167.57 Y153.81
G1 F5160 X157.84 Y163.54 E439.58660
G0 F6000 X158.68 Y163.41
G1 F5160 X167.57 Y154.52 E440.10924
G0 F6000 X167.57 Y155.22
G1 F5160 X159.52 Y163.27 E440.58252
G0 F6000 X160.36 Y163.14
G1 F5160 X167.57 Y155.93 E441.00653
G0 F6000 X167.57 Y156.64
G1 F5160 X161.20 Y163.01 E441.38130
G0 F6000 X162.03 Y162.88
G1 F5160 X167.57 Y157.34 E441.70679
G0 F6000 X167.57 Y158.05
G1 F5160 X162.87 Y162.75 E441.98302
G0 F6000 X163.71 Y162.62
G1 F5160 X167.57 Y158.76 E442.20997
G0 F6000 X167.57 Y159.47
G1 F5160 X164.55 Y162.49 E442.38768
G0 F6000 X165.38 Y162.36
G1 F5160 X167.57 Y160.17 E442.51615
G0 F6000 X167.57 Y160.88
G1 F5160 X166.22 Y162.23 E442.59535
G0 F6000 X167.06 Y162.10
G1 F5160 X167.57 Y161.59 E442.62525
G0 F6000 X137.75 Y162.17
;TYPE:WALL-INNER
G1 F5160 X137.06 Y162.27 E442.65437
G1 X136.42 Y162.37 E442.68122
G1 X126.98 Y163.85 E443.07819
G1 X125.75 Y164.04 E443.13008
G1 X125.75 Y140.96 E444.08984
G1 X137.61 Y142.78 E444.58881
G1 X137.75 Y142.80 E444.59445
G1 X137.75 Y162.17 E445.39976
G0 F6000 X138.25 Y162.59
G1 F5160 X137.13 Y162.77 E445.44668
G1 X136.50 Y162.87 E445.47348
G1 X125.25 Y164.62 E445.94666
G1 X125.25 Y140.37 E446.95490
G1 X138.25 Y142.37 E447.50156
G1 X138.25 Y162.59 E448.34263
G0 F6000 X138.75 Y163.02
;TYPE:WALL-OUTER
G1 F5160 X124.75 Y165.21 E448.93161
G1 X124.75 Y139.79 E449.98832
G1 X138.75 Y141.94 E450.57705
G1 X138.75 Y163.02 E451.45370
G0 F6000 X138.47 Y162.71
G0 X137.57 Y161.89
;TYPE:FILL
G1 F5160 X137.42 Y162.04 E451.46261
G0 F6000 X136.58 Y162.17
G1 F5160 X137.57 Y161.18 E451.52076
G0 F6000 X137.57 Y160.47
G1 F5160 X135.74 Y162.30 E451.62818
G0 F6000 X134.91 Y162.43
G1 F5160 X137.57 Y159.77 E451.78487
G0 F6000 X137.57 Y159.06
G1 F5160 X134.07 Y162.56 E451.99086
G0 F6000 X133.23 Y162.69
G1 F5160 X137.57 Y158.35 E452.24610
G0 F6000 X137.57 Y157.65
G1 F5160 X132.39 Y162.82 E452.55060
G0 F6000 X131.55 Y162.96
G1 F5160 X137.57 Y156.94 E452.90438
G0 F6000 X137.57 Y156.23
G1 F5160 X130.72 Y163.09 E453.30743
G0 F6000 X129.88 Y163.22
G1 F5160 X137.57 Y155.52 E453.75981
G0 F6000 X137.57 Y154.82
G1 F5160 X129.04 Y163.35 E454.26145
G0 F6000 X128.20 Y163.48
G1 F5160 X137.57 Y154.11 E454.81237
G0 F6000 X137.57 Y153.40
G1 F5160 X127.36 Y163.61 E455.41254
G0 F6000 X126.53 Y163.74
G1 F5160 X137.57 Y152.69 E456.06200
G0 F6000 X137.57 Y151.99
G1 F5160 X125.92 Y163.63 E456.74680
G0 F6000 X125.92 Y162.93
G1 F5160 X137.57 Y151.28 E457.43160
G0 F6000 X137.57 Y150.57
G1 F5160 X125.92 Y162.22 E458.11640
G0 F6000 X125.92 Y161.51
G1 F5160 X137.57 Y149.87 E458.80120
G0 F6000 X137.57 Y149.16
G1 F5160 X125.92 Y160.81 E459.48602
G0 F6000 X125.92 Y160.10
G1 F5160 X137.57 Y148.45 E460.17085
G0 F6000 X137.57 Y147.75
G1 F5160 X125.92 Y159.39 E460.85568
G0 F6000 X125.92 Y158.69
G1 F5160 X137.57 Y147.04 E461.54051
G0 F6000 X137.57 Y146.33
G1 F5160 X125.92 Y157.98 E462.22531
G0 F6000 X125.92 Y157.27
G1 F5160 X137.57 Y145.62 E462.91011
G0 F6000 X137.57 Y144.92
G1 F5160 X125.92 Y156.56 E463.59491
G0 F6000 X125.92 Y155.86
G1 F5160 X137.57 Y144.21 E464.27970
G0 F6000 X137.57 Y143.50
G1 F5160 X125.92 Y155.15 E464.96450
G0 F6000 X125.92 Y154.44
G1 F5160 X137.44 Y142.92 E465.64178
G0 F6000 X136.83 Y142.83
G1 F5160 X125.92 Y153.74 E466.28301
G0 F6000 X125.92 Y153.03
G1 F5160 X136.22 Y142.74 E466.88820
G0 F6000 X135.60 Y142.64
G1 F5160 X125.92 Y152.32 E467.45731
G0 F6000 X125.92 Y151.62
G1 F5160 X134.99 Y142.55 E467.99039
G0 F6000 X134.38 Y142.45
G1 F5160 X125.92 Y150.91 E468.48739
G0 F6000 X125.92 Y150.20
G1 F5160 X133.76 Y142.36 E468.94836
G0 F6000 X133.15 Y142.27
G1 F5160 X125.92 Y149.49 E469.37328
G0 F6000 X125.92 Y148.79
G1 F5160 X132.54 Y142.17 E469.76215
G0 F6000 X131.93 Y142.08
G1 F5160 X125.92 Y148.08 E470.11499
G0 F6000 X125.92 Y147.37
G1 F5160 X131.31 Y141.98 E470.43178
G0 F6000 X130.70 Y141.89
G1 F5160 X125.92 Y146.66 E470.71253
G0 F6000 X125.92 Y145.96
G1 F5160 X130.09 Y141.80 E470.95724
G0 F6000 X129.47 Y141.70
G1 F5160 X125.92 Y145.25 E471.16591
G0 F6000 X125.92 Y144.54
G1 F5160 X128.86 Y141.61 E471.33851
G0 F6000 X128.25 Y141.51
G1 F5160 X125.92 Y143.84 E471.47509
G0 F6000 X125.92 Y143.13
G1 F5160 X127.63 Y141.42 E471.57563
G0 F6000 X127.02 Y141.32
G1 F5160 X125.92 Y142.42 E471.64013
G0 F6000 X125.92 Y141.72
G1 F5160 X126.41 Y141.23 E471.66859
G0 F6000 X171.65 Y141.20
;TYPE:SUPPORT
G1 F5160 X171.65 Y150.45 E472.05312
G0 F6000 X171.57 Y150.29
G0 X173.69 Y149.10
G0 X174.98 Y149.16
G0 X174.98 Y149.34
G1 F5160 X174.98 Y141.67 E472.37196
G0 F6000 X174.96 Y141.84
G0 X178.29 Y142.29
G0 X178.31 Y142.12
G1 F5160 X178.31 Y162.53 E473.22063
G0 F6000 X178.29 Y162.36
G0 X174.96 Y162.87
G0 X174.98 Y163.04
G1 F5160 X174.98 Y155.47 E473.53569
G0 F6000 X174.98 Y155.64
G0 X173.19 Y155.53
G0 X171.57 Y154.52
G0 X171.65 Y154.36
G1 F5160 X171.65 Y163.55 E473.91760
G0 F6000 X148.32 Y162.53
G1 F5160 X148.32 Y142.12 E474.76623
G0 F6000 X148.29 Y142.29
G0 X144.96 Y141.84
G0 X144.99 Y141.67
G1 F5160 X144.99 Y149.34 E475.08503
G0 F6000 X144.98 Y149.16
G0 X143.19 Y149.26
G0 X141.57 Y150.29
G0 X141.65 Y150.45
G1 F5160 X141.65 Y141.20 E475.46956
G0 F6000 X141.63 Y141.37
G0 X150.95 Y142.72
G0 X145.46 Y162.70
G0 X141.57 Y154.52
G0 X141.65 Y154.37
G1 F5160 X141.65 Y163.55 E475.85134
G0 F6000 X141.63 Y163.37
G0 X144.96 Y162.87
G0 X144.99 Y163.04
G1 F5160 X144.99 Y155.47 E476.16636
;LAYER:4
G0 F6000 X137.75 Y162.17 Z1.10
;TYPE:WALL-INNER
G1 X136.62 Y162.34 E476.21391
G1 X135.82 Y162.47 E476.24736
G1 X126.23 Y163.97 E476.65090
G1 X125.75 Y164.04 E476.67118
G1 X125.75 Y140.96 E477.63090
G1 X135.82 Y142.50 E478.05466
G1 X137.31 Y142.73 E478.11730
G1 X137.75 Y142.80 E478.13551
G1 X137.75 Y162.17 E478.94083
G0 X138.25 Y162.59
G1 X125.25 Y164.62 E479.48773
G1 X125.25 Y140.37 E480.49597
G1 X136.70 Y142.13 E480.97740
G1 X137.39 Y142.24 E481.00655
G1 X138.25 Y142.37 E481.04264
G1 X138.25 Y162.59 E481.88362
G0 X138.75 Y163.02
;TYPE:WALL-OUTER
G1 X124.75 Y165.21 E482.47259
G1 X124.75 Y139.79 E483.52931
G1 X138.75 Y141.94 E484.11804
G1 X138.75 Y163.02 E484.99469
G0 X138.47 Y162.71
G0 X137.57 Y161.97
;TYPE:FILL
G1 X125.92 Y150.32 E485.67955
G0 X125.92 Y151.03
G1 X137.00 Y162.10 E486.33084
G0 X136.39 Y162.20
G1 X125.92 Y151.73 E486.94620
G0 X125.92 Y152.44
G1 X135.78 Y162.29 E487.52560
G0 X135.17 Y162.39
G1 X125.92 Y153.15 E488.06900
G0 X125.92 Y153.85
G1 X134.56 Y162.49 E488.57647
G0 X133.94 Y162.58
G1 X125.92 Y154.56 E489.04795
G0 X125.92 Y155.27
G1 X133.33 Y162.68 E489.48349
G0 X132.72 Y162.77
G1 X125.92 Y155.98 E489.88306
G0 X125.92 Y156.68
G1 X132.11 Y162.87 E490.24672
G0 X131.50 Y162.96
G1 X125.92 Y157.39 E490.57442
G0 X125.92 Y158.10
G1 X130.89 Y163.06 E490.86617
G0 X130.27 Y163.15
G1 X125.92 Y158.80 E491.12193
G0 X125.92 Y159.51
G1 X129.66 Y163.25 E491.34174
G0 X129.05 Y163.34
G1 X125.92 Y160.22 E491.52556
G0 X125.92 Y160.93
G1 X128.44 Y163.44 E491.67350
G0 X127.83 Y163.54
G1 X125.92 Y161.63 E491.78544
G0 X125.92 Y162.34
G1 X127.22 Y163.63 E491.86141
G0 X126.61 Y163.73
G1 X125.92 Y163.05 E491.90145
G0 X137.57 Y161.26
G1 X125.92 Y149.61 E492.58631
G0 X125.92 Y148.91
G1 X137.57 Y160.55 E493.27116
G0 X137.57 Y159.85
G1 X125.92 Y148.20 E493.95602
G0 X125.92 Y147.49
G1 X137.57 Y159.14 E494.64088
G0 X137.57 Y158.43
G1 X125.92 Y146.78 E495.32574
G0 X125.92 Y146.08
G1 X137.57 Y157.72 E496.01062
G0 X137.57 Y157.02
G1 X125.92 Y145.37 E496.69551
G0 X125.92 Y144.66
G1 X137.57 Y156.31 E497.38037
G0 X137.57 Y155.60
G1 X125.92 Y143.96 E498.06523
G0 X125.92 Y143.25
G1 X137.57 Y154.90 E498.75009
G0 X137.57 Y154.19
G1 X125.92 Y142.54 E499.43494
G0 X125.92 Y141.83
G1 X137.57 Y153.48 E500.11980
G0 X137.57 Y152.78
G1 X125.96 Y141.16 E500.80248
G0 X126.80 Y141.29
G1 X137.57 Y152.07 E501.43601
G0 X137.57 Y151.36
G1 X127.63 Y141.42 E502.02045
G0 X128.47 Y141.55
G1 X137.57 Y150.65 E502.55578
G0 X137.57 Y149.95
G1 X129.30 Y141.68 E503.04200
G0 X130.14 Y141.81
G1 X137.57 Y149.24 E503.47909
G0 X137.57 Y148.53
G1 X130.97 Y141.93 E503.86709
G0 X131.81 Y142.06
G1 X137.57 Y147.82 E504.20599
G0 X137.57 Y147.12
G1 X132.64 Y142.19 E504.49579
G0 X133.48 Y142.32
G1 X137.57 Y146.41 E504.73648
G0 X137.57 Y145.70
G1 X134.31 Y142.44 E504.92806
G0 X135.15 Y142.57
G1 X137.57 Y145.00 E505.07056
G0 X137.57 Y144.29
G1 X135.98 Y142.70 E505.16395
G0 X136.82 Y142.83
G1 X137.57 Y143.58 E505.20823
G0 X155.75 Y140.96
;TYPE:WALL-INNER
G1 X166.62 Y142.62 E505.66543
G1 X167.31 Y142.73 E505.69458
G1 X167.75 Y142.80 E505.71279
G1 X167.75 Y162.17 E506.51810
G1 X166.62 Y162.34 E506.56565
G1 X165.82 Y162.47 E506.59910
G1 X156.23 Y163.97 E507.00265
G1 X155.75 Y164.04 E507.02288
G1 X155.75 Y140.96 E507.98256
G0 X155.25 Y140.37
G1 X167.39 Y142.24 E508.49315
G1 X168.25 Y142.37 E508.52919
G1 X168.25 Y162.59 E509.37017
G1 X155.25 Y164.62 E509.91704
G1 X155.25 Y140.37 E510.92528
G0 X154.75 Y139.79
;TYPE:WALL-OUTER
G1 X168.75 Y141.94 E511.51396
G1 X168.75 Y163.02 E512.39062
G1 X154.75 Y165.21 E512.97955
G1 X154.75 Y139.79 E514.03627
G0 X155.92 Y141.43
;TYPE:FILL
G1 X167.57 Y153.07 E514.72101
G0 X167.57 Y153.78
G1 X155.92 Y142.13 E515.40575
G0 X155.92 Y142.84
G1 X167.57 Y154.49 E516.09049
G0 X167.57 Y155.19
G1 X155.92 Y143.55 E516.77523
G0 X155.92 Y144.26
G1 X167.57 Y155.90 E517.45997
G0 X167.57 Y156.61
G1 X155.92 Y144.96 E518.14474
G0 X155.92 Y145.67
G1 X167.57 Y157.32 E518.82948
G0 X167.57 Y158.02
G1 X155.92 Y146.38 E519.51422
G0 X155.92 Y147.09
G1 X167.57 Y158.73 E520.19896
G0 X167.57 Y159.44
G1 X155.92 Y147.79 E520.88370
G0 X155.92 Y148.50
G1 X167.57 Y160.15 E521.56844
G0 X167.57 Y160.85
G1 X155.92 Y149.21 E522.25318
G0 X155.92 Y149.91
G1 X167.57 Y161.56 E522.93792
G0 X167.35 Y162.05
G1 X155.92 Y150.62 E523.60990
G0 X155.92 Y151.33
G1 X166.74 Y162.15 E524.24593
G0 X166.13 Y162.24
G1 X155.92 Y152.03 E524.84594
G0 X155.92 Y152.74
G1 X165.52 Y162.34 E525.41003
G0 X164.91 Y162.43
G1 X155.92 Y153.45 E525.93820
G0 X155.92 Y154.16
G1 X164.29 Y162.53 E526.43035
G0 X163.68 Y162.62
G1 X155.92 Y154.86 E526.88655
G0 X155.92 Y155.57
G1 X163.07 Y162.72 E527.30680
G0 X162.46 Y162.81
G1 X155.92 Y156.28 E527.69109
G0 X155.92 Y156.99
G1 X161.85 Y162.91 E528.03940
G0 X161.24 Y163.00
G1 X155.92 Y157.69 E528.35178
G0 X155.92 Y158.40
G1 X160.62 Y163.10 E528.62818
G0 X160.01 Y163.20
G1 X155.92 Y159.11 E528.86866
G0 X155.92 Y159.81
G1 X159.40 Y163.29 E529.07315
G0 X158.79 Y163.39
G1 X155.92 Y160.52 E529.24163
G0 X155.92 Y161.23
G1 X158.18 Y163.48 E529.37422
G0 X157.57 Y163.58
G1 X155.92 Y161.94 E529.47085
G0 X155.92 Y162.64
G1 X156.96 Y163.67 E529.53153
G0 X156.34 Y163.77
G1 X155.92 Y163.35 E529.55622
G0 X167.57 Y152.37
G1 X156.44 Y141.24 E530.21042
G0 X157.28 Y141.37
G1 X167.57 Y151.66 E530.81552
G0 X167.57 Y150.95
G1 X158.11 Y141.50 E531.37149
G0 X158.95 Y141.62
G1 X167.57 Y150.25 E531.87838
G0 X167.57 Y149.54
G1 X159.78 Y141.75 E532.33613
G0 X160.62 Y141.88
G1 X167.57 Y148.83 E532.74477
G0 X167.57 Y148.12
G1 X161.46 Y142.01 E533.10431
G0 X162.29 Y142.14
G1 X167.57 Y147.42 E533.41475
G0 X167.57 Y146.71
G1 X163.12 Y142.26 E533.67610
G0 X163.96 Y142.39
G1 X167.57 Y146.00 E533.88829
G0 X167.57 Y145.30
G1 X164.80 Y142.52 E534.05139
G0 X165.63 Y142.65
G1 X167.57 Y144.59 E534.16540
G0 X167.57 Y143.88
G1 X166.47 Y142.78 E534.23031
G0 X167.30 Y142.91
G1 X167.57 Y143.17 E534.24610
G0 X148.32 Y142.12
;TYPE:SUPPORT
G1 X148.32 Y162.53 E535.09473
G0 X148.29 Y162.36
G0 X144.96 Y162.87
G0 X144.99 Y163.04
G1 X144.99 Y155.47 E535.40974
G0 X144.98 Y155.64
G0 X143.19 Y155.53
G0 X141.57 Y154.52
G0 X141.65 Y154.37
G1 X141.65 Y163.55 E535.79153
G0 X141.63 Y163.37
G0 X150.95 Y161.86
G0 X146.25 Y142.10
G0 X141.57 Y150.29
G0 X141.65 Y150.45
G1 X141.65 Y141.20 E536.17606
G0 X141.63 Y141.37
G0 X144.96 Y141.84
G0 X144.99 Y141.67
G1 X144.99 Y149.34 E536.49486
G0 X171.65 Y150.45
G1 X171.65 Y141.20 E536.87939
G0 X171.62 Y141.37
G0 X174.96 Y141.84
G0 X174.98 Y141.67
G1 X174.98 Y149.34 E537.19823
G0 X174.98 Y149.16
G0 X173.19 Y149.26
G0 X180.95 Y142.72
G0 X175.46 Y162.70
G0 X171.57 Y154.52
G0 X171.65 Y154.36
G1 X171.65 Y163.55 E537.58013
G0 X171.62 Y163.37
G0 X174.96 Y162.87
G0 X174.98 Y163.04
G1 X174.98 Y155.47 E537.89519
G0 X174.98 Y155.64
G0 X178.29 Y162.36
G0 X178.31 Y162.53
G1 X178.31 Y142.12 E538.74387
;LAYER:5
G0 X167.75 Y142.80 Z1.30
;TYPE:WALL-INNER
G1 X167.75 Y162.17 E539.54922
G1 X158.32 Y163.64 E539.94585
G1 X157.53 Y163.76 E539.97927
G1 X156.62 Y163.90 E540.01751
G1 X155.84 Y164.03 E540.05025
G1 X155.75 Y164.04 E540.05400
G1 X155.75 Y140.96 E541.01372
G1 X156.62 Y141.09 E541.05036
G1 X157.53 Y141.23 E541.08863
G1 X167.01 Y142.68 E541.48746
G1 X167.75 Y142.80 E541.51829
G0 X168.25 Y142.37
G1 X168.25 Y162.59 E542.35931
G1 X158.40 Y164.13 E542.77370
G1 X157.60 Y164.26 E542.80716
G1 X156.69 Y164.40 E542.84540
G1 X155.92 Y164.52 E542.87810
G1 X155.25 Y164.62 E542.90617
G1 X155.25 Y140.37 E543.91441
G1 X168.25 Y142.37 E544.46103
G0 X168.75 Y141.94
;TYPE:WALL-OUTER
G1 X168.75 Y163.02 E545.33769
G1 X154.75 Y165.21 E545.92662
G1 X154.75 Y139.79 E546.98334
G1 X168.75 Y141.94 E547.57202
G0 X168.47 Y142.25
G0 X167.57 Y143.20
;TYPE:FILL
G1 X155.93 Y154.85 E548.25668
G0 X155.93 Y154.14
G1 X167.18 Y142.88 E548.91843
G0 X166.57 Y142.79
G1 X155.93 Y153.43 E549.54414
G0 X155.93 Y152.73
G1 X165.95 Y142.70 E550.13380
G0 X165.34 Y142.60
G1 X155.92 Y152.02 E550.68749
G0 X155.92 Y151.31
G1 X164.73 Y142.51 E551.20513
G0 X164.12 Y142.41
G1 X155.92 Y150.60 E551.68670
G0 X155.92 Y149.90
G1 X163.50 Y142.32 E552.13223
G0 X162.89 Y142.23
G1 X155.92 Y149.19 E552.54171
G0 X155.92 Y148.48
G1 X162.28 Y142.13 E552.91516
G0 X161.66 Y142.04
G1 X155.92 Y147.78 E553.25253
G0 X155.92 Y147.07
G1 X161.05 Y141.94 E553.55386
G0 X160.44 Y141.85
G1 X155.92 Y146.36 E553.81915
G0 X155.92 Y145.66
G1 X159.82 Y141.76 E554.04839
G0 X159.21 Y141.66
G1 X155.92 Y144.95 E554.24160
G0 X155.92 Y144.24
G1 X158.60 Y141.57 E554.39876
G0 X157.98 Y141.47
G1 X155.92 Y143.53 E554.51985
G0 X155.92 Y142.83
G1 X157.37 Y141.38 E554.60490
G0 X156.76 Y141.29
G1 X155.92 Y142.12 E554.65390
G0 X155.92 Y141.41
G1 X156.15 Y141.19 E554.66690
G0 X167.57 Y143.91
G1 X155.93 Y155.56 E555.35158
G0 X155.93 Y156.26
G1 X167.57 Y144.62 E556.03626
G0 X167.57 Y145.32
G1 X155.93 Y156.97 E556.72094
G0 X155.93 Y157.68
G1 X167.57 Y146.03 E557.40562
G0 X167.57 Y146.74
G1 X155.93 Y158.38 E558.09031
G0 X155.93 Y159.09
G1 X167.57 Y147.44 E558.77499
G0 X167.57 Y148.15
G1 X155.93 Y159.80 E559.45964
G0 X155.93 Y160.50
G1 X167.57 Y148.86 E560.14429
G0 X167.57 Y149.57
G1 X155.93 Y161.21 E560.82894
G0 X155.93 Y161.92
G1 X167.57 Y150.27 E561.51359
G0 X167.57 Y150.98
G1 X155.93 Y162.63 E562.19828
G0 X155.93 Y163.33
G1 X167.57 Y151.69 E562.88296
G0 X167.57 Y152.40
G1 X156.17 Y163.80 E563.55335
G0 X157.00 Y163.67
G1 X167.57 Y153.10 E564.17450
G0 X167.57 Y153.81
G1 X157.84 Y163.54 E564.74641
G0 X158.68 Y163.41
G1 X167.57 Y154.52 E565.26905
G0 X167.57 Y155.22
G1 X159.52 Y163.27 E565.74233
G0 X160.36 Y163.14
G1 X167.57 Y155.93 E566.16634
G0 X167.57 Y156.64
G1 X161.20 Y163.01 E566.54111
G0 X162.03 Y162.88
G1 X167.57 Y157.34 E566.86660
G0 X167.57 Y158.05
G1 X162.87 Y162.75 E567.14283
G0 X163.71 Y162.62
G1 X167.57 Y158.76 E567.36978
G0 X167.57 Y159.47
G1 X164.55 Y162.49 E567.54749
G0 X165.38 Y162.36
G1 X167.57 Y160.17 E567.67596
G0 X167.57 Y160.88
G1 X166.22 Y162.23 E567.75516
G0 X167.06 Y162.10
G1 X167.57 Y161.59 E567.78506
G0 X137.75 Y162.17
;TYPE:WALL-INNER
G1 X128.32 Y163.64 E568.18173
G1 X127.53 Y163.76 E568.21515
G1 X126.62 Y163.90 E568.25335
G1 X125.84 Y164.03 E568.28613
G1 X125.75 Y164.04 E568.28988
G1 X125.75 Y140.96 E569.24956
G1 X127.53 Y141.23 E569.32450
G1 X137.01 Y142.68 E569.72333
G1 X137.75 Y142.80 E569.75416
G1 X137.75 Y162.17 E570.55951
G0 X138.25 Y162.59
G1 X128.40 Y164.13 E570.97394
G1 X127.60 Y164.26 E571.00736
G1 X126.69 Y164.40 E571.04560
G1 X125.92 Y164.52 E571.07835
G1 X125.25 Y164.62 E571.10641
G1 X125.25 Y140.37 E572.11465
G1 X138.25 Y142.37 E572.66132
G1 X138.25 Y162.59 E573.50234
G0 X138.75 Y163.02
;TYPE:WALL-OUTER
G1 X124.75 Y165.21 E574.09132
G1 X124.75 Y139.79 E575.14803
G1 X138.75 Y141.94 E575.73676
G1 X138.75 Y163.02 E576.61342
G0 X138.47 Y162.71
G0 X137.57 Y161.89
;TYPE:FILL
G1 X137.42 Y162.04 E576.62238
G0 X136.58 Y162.17
G1 X137.57 Y161.18 E576.68062
G0 X137.57 Y160.47
G1 X135.74 Y162.30 E576.78813
G0 X134.91 Y162.43
G1 X137.57 Y159.77 E576.94491
G0 X137.57 Y159.06
G1 X134.07 Y162.56 E577.15093
G0 X133.23 Y162.69
G1 X137.57 Y158.35 E577.40622
G0 X137.57 Y157.65
G1 X132.39 Y162.82 E577.71079
G0 X131.55 Y162.96
G1 X137.57 Y156.94 E578.06462
G0 X137.57 Y156.23
G1 X130.72 Y163.09 E578.46773
G0 X129.88 Y163.22
G1 X137.57 Y155.52 E578.92014
G0 X137.57 Y154.82
G1 X129.04 Y163.35 E579.42181
G0 X128.20 Y163.48
G1 X137.57 Y154.11 E579.97276
G0 X137.57 Y153.40
G1 X127.36 Y163.61 E580.57299
G0 X126.53 Y163.74
G1 X137.57 Y152.69 E581.22245
G0 X137.57 Y151.99
G1 X125.92 Y163.63 E581.90722
G0 X125.92 Y162.93
G1 X137.57 Y151.28 E582.59199
G0 X137.57 Y150.57
G1 X125.92 Y162.22 E583.27673
G0 X125.92 Y161.51
G1 X137.57 Y149.87 E583.96147
G0 X137.57 Y149.16
G1 X125.92 Y160.81 E584.64624
G0 X125.92 Y160.10
G1 X137.57 Y148.45 E585.33101
G0 X137.57 Y147.75
G1 X125.92 Y159.39 E586.01578
G0 X125.92 Y158.69
G1 X137.57 Y147.04 E586.70055
G0 X137.57 Y146.33
G1 X125.92 Y157.98 E587.38531
G0 X125.92 Y157.27
G1 X137.57 Y145.62 E588.07008
G0 X137.57 Y144.92
G1 X125.92 Y156.56 E588.75485
G0 X125.92 Y155.86
G1 X137.57 Y144.21 E589.43959
G0 X137.57 Y143.50
G1 X125.92 Y155.15 E590.12433
G0 X125.92 Y154.44
G1 X137.44 Y142.93 E590.80149
G0 X136.83 Y142.83
G1 X125.92 Y153.74 E591.44260
G0 X125.92 Y153.03
G1 X136.22 Y142.74 E592.04767
G0 X135.60 Y142.64
G1 X125.92 Y152.32 E592.61667
G0 X125.92 Y151.61
G1 X134.99 Y142.55 E593.14963
G0 X134.38 Y142.46
G1 X125.92 Y150.91 E593.64655
G0 X125.92 Y150.20
G1 X133.76 Y142.36 E594.10742
G0 X133.15 Y142.27
G1 X125.92 Y149.49 E594.53222
G0 X125.92 Y148.78
G1 X132.54 Y142.17 E594.92098
G0 X131.92 Y142.08
G1 X125.92 Y148.08 E595.27370
G0 X125.92 Y147.37
G1 X131.31 Y141.99 E595.59038
G0 X130.70 Y141.89
G1 X125.92 Y146.66 E595.87101
G0 X125.92 Y145.96
G1 X130.09 Y141.80 E596.11561
G0 X129.47 Y141.70
G1 X125.92 Y145.25 E596.32413
G0 X125.92 Y144.54
G1 X128.86 Y141.61 E596.49660
G0 X128.25 Y141.51
G1 X125.92 Y143.84 E596.63304
G0 X125.92 Y143.13
G1 X127.63 Y141.42 E596.73341
G0 X127.02 Y141.33
G1 X125.92 Y142.42 E596.79770
G0 X125.92 Y141.71
G1 X126.41 Y141.23 E596.82595
G0 X171.65 Y141.20
;TYPE:SUPPORT
G1 X171.65 Y150.45 E597.21048
G0 X171.57 Y150.29
G0 X173.69 Y149.10
G0 X174.98 Y149.16
G0 X174.98 Y149.34
G1 X174.98 Y141.67 E597.52932
G0 X174.96 Y141.84
G0 X178.29 Y142.29
G0 X178.31 Y142.12
G1 X178.31 Y162.53 E598.37799
G0 X178.29 Y162.36
G0 X174.96 Y162.87
G0 X174.98 Y163.04
G1 X174.98 Y155.47 E598.69305
G0 X174.98 Y155.64
G0 X173.19 Y155.53
G0 X171.57 Y154.52
G0 X171.65 Y154.36
G1 X171.65 Y163.55 E599.07496
G0 X148.32 Y162.53
G1 X148.32 Y142.12 E599.92359
G0 X148.29 Y142.29
G0 X144.96 Y141.84
G0 X144.99 Y141.67
G1 X144.99 Y149.34 E600.24239
G0 X144.98 Y149.16
G0 X143.19 Y149.26
G0 X141.57 Y150.29
G0 X141.65 Y150.45
G1 X141.65 Y141.20 E600.62692
G0 X141.63 Y141.37
G0 X150.95 Y142.72
G0 X145.46 Y162.70
G0 X141.57 Y154.52
G0 X141.65 Y154.37
G1 X141.65 Y163.55 E601.00870
G0 X141.63 Y163.37
G0 X144.96 Y162.87
G0 X144.99 Y163.04
G1 X144.99 Y155.47 E601.32372
;LAYER:6
G0 X137.75 Y162.17 Z1.50
;TYPE:WALL-INNER
G1 X134.63 Y162.65 E601.45496
G1 X128.99 Y163.53 E601.69224
G1 X128.06 Y163.68 E601.73125
G1 X127.00 Y163.84 E601.77581
G1 X125.75 Y164.04 E601.82854
G1 X125.75 Y140.96 E602.78826
G1 X134.63 Y142.32 E603.16180
G1 X137.43 Y142.75 E603.27933
G1 X137.75 Y142.80 E603.29287
G1 X137.75 Y162.17 E604.09822
G0 X138.25 Y162.59
G1 X129.07 Y164.03 E604.48450
G1 X128.14 Y164.17 E604.52351
G1 X125.25 Y164.62 E604.64512
G1 X125.25 Y140.37 E605.65336
G1 X138.25 Y142.37 E606.20002
G1 X138.25 Y162.59 E607.04109
G0 X138.75 Y163.02
;TYPE:WALL-OUTER
G1 X124.75 Y165.21 E607.63006
G1 X124.75 Y139.79 E608.68678
G1 X138.75 Y141.94 E609.27551
G1 X138.75 Y163.02 E610.15216
G0 X138.47 Y162.71
G0 X137.57 Y161.97
;TYPE:FILL
G1 X125.92 Y150.32 E610.83702
G0 X125.92 Y151.03
G1 X137.00 Y162.10 E611.48836
G0 X136.39 Y162.20
G1 X125.92 Y151.73 E612.10375
G0 X125.92 Y152.44
G1 X135.78 Y162.29 E612.68319
G0 X135.17 Y162.39
G1 X125.92 Y153.15 E613.22664
G0 X125.92 Y153.85
G1 X134.56 Y162.49 E613.73414
G0 X133.94 Y162.58
G1 X125.92 Y154.56 E614.20568
G0 X125.92 Y155.27
G1 X133.33 Y162.68 E614.64125
G0 X132.72 Y162.77
G1 X125.92 Y155.98 E615.04088
G0 X125.92 Y156.68
G1 X132.11 Y162.87 E615.40460
G0 X131.50 Y162.96
G1 X125.92 Y157.39 E615.73233
G0 X125.92 Y158.10
G1 X130.89 Y163.06 E616.02410
G0 X130.28 Y163.16
G1 X125.92 Y158.80 E616.27993
G0 X125.92 Y159.51
G1 X129.66 Y163.25 E616.49979
G0 X129.05 Y163.35
G1 X125.92 Y160.22 E616.68365
G0 X125.92 Y160.93
G1 X128.44 Y163.44 E616.83158
G0 X127.83 Y163.54
G1 X125.92 Y161.63 E616.94353
G0 X125.92 Y162.34
G1 X127.22 Y163.63 E617.01949
G0 X126.61 Y163.73
G1 X125.92 Y163.05 E617.05953
G0 X137.57 Y161.26
G1 X125.92 Y149.61 E617.74439
G0 X125.92 Y148.91
G1 X137.57 Y160.55 E618.42925
G0 X137.57 Y159.85
G1 X125.92 Y148.20 E619.11411
G0 X125.92 Y147.49
G1 X137.57 Y159.14 E619.79896
G0 X137.57 Y158.43
G1 X125.92 Y146.78 E620.48382
G0 X125.92 Y146.08
G1 X137.57 Y157.72 E621.16871
G0 X137.57 Y157.02
G1 X125.92 Y145.37 E621.85360
G0 X125.92 Y144.66
G1 X137.57 Y156.31 E622.53845
G0 X137.57 Y155.60
G1 X125.92 Y143.96 E623.22331
G0 X125.92 Y143.25
G1 X137.57 Y154.90 E623.90817
G0 X137.57 Y154.19
G1 X125.92 Y142.54 E624.59303
G0 X125.92 Y141.83
G1 X137.57 Y153.48 E625.27789
G0 X137.57 Y152.78
G1 X125.96 Y141.16 E625.96057
G0 X126.80 Y141.29
G1 X137.57 Y152.07 E626.59410
G0 X137.57 Y151.36
G1 X127.63 Y141.42 E627.17853
G0 X128.47 Y141.55
G1 X137.57 Y150.65 E627.71387
G0 X137.57 Y149.95
G1 X129.30 Y141.68 E628.20008
G0 X130.14 Y141.81
G1 X137.57 Y149.24 E628.63717
G0 X137.57 Y148.53
G1 X130.97 Y141.93 E629.02517
G0 X131.81 Y142.06
G1 X137.57 Y147.82 E629.36407
G0 X137.57 Y147.12
G1 X132.64 Y142.19 E629.65388
G0 X133.48 Y142.32
G1 X137.57 Y146.41 E629.89456
G0 X137.57 Y145.70
G1 X134.31 Y142.44 E630.08615
G0 X135.15 Y142.57
G1 X137.57 Y145.00 E630.22864
G0 X137.57 Y144.29
G1 X135.98 Y142.70 E630.32204
G0 X136.82 Y142.83
G1 X137.57 Y143.58 E630.36631
G0 X155.75 Y140.96
;TYPE:WALL-INNER
G1 X164.63 Y142.32 E630.73981
G1 X167.42 Y142.75 E630.85734
G1 X167.75 Y142.80 E630.87088
G1 X167.75 Y162.17 E631.67623
G1 X164.63 Y162.65 E631.80747
G1 X158.99 Y163.53 E632.04471
G1 X158.06 Y163.68 E632.08372
G1 X157.00 Y163.84 E632.12828
G1 X155.75 Y164.04 E632.18101
G1 X155.75 Y140.96 E633.14073
G0 X155.25 Y140.37
G1 X168.25 Y142.37 E633.68735
G1 X168.25 Y162.59 E634.52842
G1 X159.07 Y164.03 E634.91465
G1 X158.14 Y164.17 E634.95367
G1 X155.25 Y164.62 E635.07527
G1 X155.25 Y140.37 E636.08351
G0 X154.75 Y139.79
;TYPE:WALL-OUTER
G1 X168.75 Y141.94 E636.67220
G1 X168.75 Y163.02 E637.54885
G1 X154.75 Y165.21 E638.13779
G1 X154.75 Y139.79 E639.19451
G0 X155.92 Y141.43
;TYPE:FILL
G1 X167.57 Y153.07 E639.87925
G0 X167.57 Y153.78
G1 X155.92 Y142.13 E640.56399
G0 X155.92 Y142.84
G1 X167.57 Y154.49 E641.24873
G0 X167.57 Y155.19
G1 X155.92 Y143.55 E641.93347
G0 X155.92 Y144.26
G1 X167.57 Y155.90 E642.61821
G0 X167.57 Y156.61
G1 X155.92 Y144.96 E643.30298
G0 X155.92 Y145.67
G1 X167.57 Y157.32 E643.98772
G0 X167.57 Y158.02
G1 X155.92 Y146.38 E644.67246
G0 X155.92 Y147.09
G1 X167.57 Y158.73 E645.35720
G0 X167.57 Y159.44
G1 X155.92 Y147.79 E646.04194
G0 X155.92 Y148.50
G1 X167.57 Y160.15 E646.72668
G0 X167.57 Y160.85
G1 X155.92 Y149.21 E647.41142
G0 X155.92 Y149.91
G1 X167.57 Y161.56 E648.09616
G0 X167.35 Y162.05
G1 X155.92 Y150.62 E648.76814
G0 X155.92 Y151.33
G1 X166.74 Y162.15 E649.40417
G0 X166.13 Y162.24
G1 X155.92 Y152.03 E650.00418
G0 X155.92 Y152.74
G1 X165.52 Y162.34 E650.56827
G0 X164.91 Y162.43
G1 X155.92 Y153.45 E651.09644
G0 X155.92 Y154.16
G1 X164.29 Y162.53 E651.58859
G0 X163.68 Y162.62
G1 X155.92 Y154.86 E652.04479
G0 X155.92 Y155.57
G1 X163.07 Y162.72 E652.46504
G0 X162.46 Y162.81
G1 X155.92 Y156.28 E652.84933
G0 X155.92 Y156.99
G1 X161.85 Y162.91 E653.19764
G0 X161.24 Y163.00
G1 X155.92 Y157.69 E653.51002
G0 X155.92 Y158.40
G1 X160.62 Y163.10 E653.78642
G0 X160.01 Y163.20
G1 X155.92 Y159.11 E654.02690
G0 X155.92 Y159.81
G1 X159.40 Y163.29 E654.23139
G0 X158.79 Y163.39
G1 X155.92 Y160.52 E654.39987
G0 X155.92 Y161.23
G1 X158.18 Y163.48 E654.53246
G0 X157.57 Y163.58
G1 X155.92 Y161.94 E654.62909
G0 X155.92 Y162.64
G1 X156.96 Y163.67 E654.68976
G0 X156.34 Y163.77
G1 X155.92 Y163.35 E654.71446
G0 X167.57 Y152.37
G1 X156.44 Y141.24 E655.36874
G0 X157.28 Y141.37
G1 X167.57 Y151.66 E655.97393
G0 X167.57 Y150.95
G1 X158.11 Y141.50 E656.53003
G0 X158.95 Y141.62
G1 X167.57 Y150.25 E657.03703
G0 X167.57 Y149.54
G1 X159.78 Y141.75 E657.49490
G0 X160.62 Y141.88
G1 X167.57 Y148.83 E657.90362
G0 X167.57 Y148.12
G1 X161.45 Y142.01 E658.26325
G0 X162.29 Y142.14
G1 X167.57 Y147.42 E658.57378
G0 X167.57 Y146.71
G1 X163.12 Y142.26 E658.83522
G0 X163.96 Y142.39
G1 X167.57 Y146.00 E659.04756
G0 X167.57 Y145.30
G1 X164.79 Y142.52 E659.21078
G0 X165.63 Y142.65
G1 X167.57 Y144.59 E659.32490
G0 X167.57 Y143.88
G1 X166.46 Y142.78 E659.38993
G0 X167.30 Y142.90
G1 X167.57 Y143.17 E659.40581
G0 X148.32 Y142.12
;TYPE:SUPPORT
G1 X148.32 Y162.53 E660.25444
G0 X148.29 Y162.36
G0 X144.96 Y162.87
G0 X144.99 Y163.04
G1 X144.99 Y155.47 E660.56945
G0 X144.98 Y155.64
G0 X143.19 Y155.53
G0 X141.57 Y154.52
G0 X141.65 Y154.37
G1 X141.65 Y163.55 E660.95124
G0 X141.63 Y163.37
G0 X150.95 Y161.86
G0 X146.25 Y142.10
G0 X141.57 Y150.29
G0 X141.65 Y150.45
G1 X141.65 Y141.20 E661.33577
G0 X141.63 Y141.37
G0 X144.96 Y141.84
G0 X144.99 Y141.67
G1 X144.99 Y149.34 E661.65456
G0 X171.65 Y150.45
G1 X171.65 Y141.20 E662.03909
G0 X171.62 Y141.37
G0 X174.96 Y141.84
G0 X174.98 Y141.67
G1 X174.98 Y149.34 E662.35793
G0 X174.98 Y149.16
G0 X173.19 Y149.26
G0 X180.95 Y142.72
G0 X175.46 Y162.70
G0 X171.57 Y154.52
G0 X171.65 Y154.36
G1 X171.65 Y163.55 E662.73984
G0 X171.62 Y163.37
G0 X174.96 Y162.87
G0 X174.98 Y163.04
G1 X174.98 Y155.47 E663.05490
G0 X174.98 Y155.64
G0 X178.29 Y162.36
G0 X178.31 Y162.53
G1 X178.31 Y142.12 E663.90357
;LAYER:7
G0 X167.75 Y142.79 Z1.70
;TYPE:WALL-INNER
G1 X167.75 Y162.17 E664.70893
G1 X166.41 Y162.38 E664.76502
G1 X165.31 Y162.55 E664.81164
G1 X156.35 Y163.95 E665.18842
G1 X155.75 Y164.04 E665.21370
G1 X155.75 Y140.96 E666.17334
G1 X167.75 Y142.79 E666.67790
G0 X168.25 Y142.37
G1 X168.25 Y162.59 E667.51892
G1 X167.30 Y162.74 E667.55872
G1 X166.49 Y162.87 E667.59281
G1 X159.74 Y163.92 E667.87701
G1 X156.43 Y164.44 E668.01621
G1 X155.68 Y164.56 E668.04760
G1 X155.25 Y164.62 E668.06578
G1 X155.25 Y140.37 E669.07402
G1 X168.25 Y142.37 E669.62065
G0 X168.75 Y141.94
;TYPE:WALL-OUTER
G1 X168.75 Y163.02 E670.49730
G1 X154.75 Y165.21 E671.08623
G1 X154.75 Y139.79 E672.14295
G1 X168.75 Y141.94 E672.73164
G0 X168.47 Y142.25
G0 X167.57 Y143.20
;TYPE:FILL
G1 X155.92 Y154.85 E673.41635
G0 X155.92 Y155.56
G1 X167.57 Y143.91 E674.10106
G0 X167.57 Y144.62
G1 X155.92 Y156.26 E674.78577
G0 X155.92 Y156.97
G1 X167.57 Y145.32 E675.47048
G0 X167.57 Y146.03
G1 X155.92 Y157.68 E676.15522
G0 X155.92 Y158.38
G1 X167.57 Y146.74 E676.83996
G0 X167.57 Y147.44
G1 X155.92 Y159.09 E677.52470
G0 X155.92 Y159.80
G1 X167.57 Y148.15 E678.20941
G0 X167.57 Y148.86
G1 X155.92 Y160.50 E678.89412
G0 X155.92 Y161.21
G1 X167.57 Y149.57 E679.57883
G0 X167.57 Y150.27
G1 X155.92 Y161.92 E680.26354
G0 X155.92 Y162.63
G1 X167.57 Y150.98 E680.94825
G0 X167.57 Y151.69
G1 X155.92 Y163.33 E681.63296
G0 X156.17 Y163.80
G1 X167.57 Y152.40 E682.30330
G0 X167.57 Y153.10
G1 X157.01 Y163.66 E682.92436
G0 X157.84 Y163.53
G1 X167.57 Y153.81 E683.49621
G0 X167.57 Y154.52
G1 X158.68 Y163.40 E684.01880
G0 X159.52 Y163.27
G1 X167.57 Y155.22 E684.49208
G0 X167.57 Y155.93
G1 X160.36 Y163.14 E684.91608
G0 X161.20 Y163.01
G1 X167.57 Y156.64 E685.29085
G0 X167.57 Y157.34
G1 X162.03 Y162.88 E685.61635
G0 X162.87 Y162.75
G1 X167.57 Y158.05 E685.89257
G0 X167.57 Y158.76
G1 X163.71 Y162.62 E686.11952
G0 X164.55 Y162.49
G1 X167.57 Y159.47 E686.29724
G0 X167.57 Y160.17
G1 X165.38 Y162.36 E686.42570
G0 X166.22 Y162.23
G1 X167.57 Y160.88 E686.50490
G0 X167.57 Y161.59
G1 X167.06 Y162.10 E686.53480
G0 X155.92 Y154.14
G1 X167.18 Y142.88 E687.19661
G0 X166.57 Y142.79
G1 X155.92 Y153.43 E687.82238
G0 X155.92 Y152.73
G1 X165.95 Y142.70 E688.41210
G0 X165.34 Y142.60
G1 X155.92 Y152.02 E688.96579
G0 X155.92 Y151.31
G1 X164.73 Y142.51 E689.48343
G0 X164.11 Y142.42
G1 X155.92 Y150.60 E689.96494
G0 X155.92 Y149.90
G1 X163.50 Y142.32 E690.41041
G0 X162.89 Y142.23
G1 X155.92 Y149.19 E690.81984
G0 X155.92 Y148.48
G1 X162.28 Y142.13 E691.19322
G0 X161.66 Y142.04
G1 X155.92 Y147.78 E691.53056
G0 X155.92 Y147.07
G1 X161.05 Y141.95 E691.83187
G0 X160.44 Y141.85
G1 X155.92 Y146.36 E692.09715
G0 X155.92 Y145.66
G1 X159.82 Y141.76 E692.32640
G0 X159.21 Y141.66
G1 X155.92 Y144.95 E692.51960
G0 X155.92 Y144.24
G1 X158.60 Y141.57 E692.67671
G0 X157.98 Y141.48
G1 X155.92 Y143.53 E692.79774
G0 X155.92 Y142.83
G1 X157.37 Y141.38 E692.88273
G0 X156.76 Y141.29
G1 X155.92 Y142.12 E692.93168
G0 X155.92 Y141.41
G1 X156.14 Y141.19 E692.94458
G0 X137.75 Y142.79
;TYPE:WALL-INNER
G1 X137.75 Y162.17 E693.74994
G1 X136.41 Y162.38 E693.80603
G1 X135.31 Y162.55 E693.85265
G1 X126.35 Y163.95 E694.22947
G1 X125.75 Y164.04 E694.25475
G1 X125.75 Y140.96 E695.21439
G1 X137.75 Y142.79 E695.71899
G0 X138.25 Y142.37
G1 X138.25 Y162.59 E696.56001
G1 X137.30 Y162.74 E696.59982
G1 X136.49 Y162.87 E696.63390
G1 X129.74 Y163.92 E696.91814
G1 X126.43 Y164.44 E697.05734
G1 X125.68 Y164.56 E697.08873
G1 X125.25 Y164.62 E697.10691
G1 X125.25 Y140.37 E698.11515
G1 X138.25 Y142.37 E698.66182
G0 X138.75 Y141.94
;TYPE:WALL-OUTER
G1 X138.75 Y163.02 E699.53847
G1 X124.75 Y165.21 E700.12745
G1 X124.75 Y139.79 E701.18416
G1 X138.75 Y141.94 E701.77289
G0 X138.47 Y142.25
G0 X137.44 Y142.92
;TYPE:FILL
G1 X125.92 Y154.44 E702.45011
G0 X125.92 Y155.15
G1 X137.57 Y143.50 E703.13485
G0 X137.57 Y144.21
G1 X125.92 Y155.86 E703.81959
G0 X125.92 Y156.56
G1 X137.57 Y144.92 E704.50436
G0 X137.57 Y145.62
G1 X125.92 Y157.27 E705.18913
G0 X125.92 Y157.98
G1 X137.57 Y146.33 E705.87390
G0 X137.57 Y147.04
G1 X125.92 Y158.69 E706.55867
G0 X125.92 Y159.39
G1 X137.57 Y147.75 E707.24343
G0 X137.57 Y148.45
G1 X125.92 Y160.10 E707.92820
G0 X125.92 Y160.81
G1 X137.57 Y149.16 E708.61297
G0 X137.57 Y149.87
G1 X125.92 Y161.51 E709.29771
G0 X125.92 Y162.22
G1 X137.57 Y150.57 E709.98245
G0 X137.57 Y151.28
G1 X125.92 Y162.93 E710.66722
G0 X125.92 Y163.63
G1 X137.57 Y151.99 E711.35199
G0 X137.57 Y152.69
G1 X126.53 Y163.74 E712.00143
G0 X127.36 Y163.61
G1 X137.57 Y153.40 E712.60156
G0 X137.57 Y154.11
G1 X128.20 Y163.48 E713.15242
G0 X129.04 Y163.35
G1 X137.57 Y154.82 E713.65404
G0 X137.57 Y155.52
G1 X129.88 Y163.22 E714.10639
G0 X130.72 Y163.09
G1 X137.57 Y156.23 E714.50944
G0 X137.57 Y156.94
G1 X131.55 Y162.96 E714.86321
G0 X132.39 Y162.82
G1 X137.57 Y157.65 E715.16772
G0 X137.57 Y158.35
G1 X133.23 Y162.69 E715.42295
G0 X134.07 Y162.56
G1 X137.57 Y159.06 E715.62891
G0 X137.57 Y159.77
G1 X134.91 Y162.43 E715.78561
G0 X135.74 Y162.30
G1 X137.57 Y160.47 E715.89303
G0 X137.57 Y161.18
G1 X136.58 Y162.17 E715.95118
G0 X137.42 Y162.04
G1 X137.57 Y161.89 E715.96008
G0 X125.92 Y153.74
G1 X136.83 Y142.83 E716.60126
G0 X136.22 Y142.74
G1 X125.92 Y153.03 E717.20633
G0 X125.92 Y152.32
G1 X135.60 Y142.64 E717.77536
G0 X134.99 Y142.55
G1 X125.92 Y151.61 E718.30834
G0 X125.92 Y150.91
G1 X134.38 Y142.46 E718.80529
G0 X133.76 Y142.36
G1 X125.92 Y150.20 E719.26619
G0 X125.92 Y149.49
G1 X133.15 Y142.27 E719.69102
G0 X132.54 Y142.17
G1 X125.92 Y148.78 E720.07978
G0 X125.92 Y148.08
G1 X131.92 Y142.08 E720.43250
G0 X131.31 Y141.99
G1 X125.92 Y147.37 E720.74918
G0 X125.92 Y146.66
G1 X130.70 Y141.89 E721.02981
G0 X130.09 Y141.80
G1 X125.92 Y145.96 E721.27441
G0 X125.92 Y145.25
G1 X129.47 Y141.70 E721.48293
G0 X128.86 Y141.61
G1 X125.92 Y144.54 E721.65540
G0 X125.92 Y143.84
G1 X128.25 Y141.51 E721.79184
G0 X127.63 Y141.42
G1 X125.92 Y143.13 E721.89224
G0 X125.92 Y142.42
G1 X127.02 Y141.33 E721.95653
G0 X126.41 Y141.23
G1 X125.92 Y141.71 E721.98478
G0 X171.65 Y141.20
;TYPE:SUPPORT
G1 X171.65 Y150.45 E722.36931
G0 X171.57 Y150.29
G0 X173.69 Y149.10
G0 X174.98 Y149.16
G0 X174.98 Y149.34
G1 X174.98 Y141.67 E722.68815
G0 X174.96 Y141.84
G0 X178.29 Y142.29
G0 X178.31 Y142.12
G1 X178.31 Y162.53 E723.53682
G0 X178.29 Y162.36
G0 X174.96 Y162.87
G0 X174.98 Y163.04
G1 X174.98 Y155.47 E723.85188
G0 X174.98 Y155.64
G0 X173.19 Y155.53
G0 X171.57 Y154.52
G0 X171.65 Y154.36
G1 X171.65 Y163.55 E724.23379
G0 X148.32 Y162.53
G1 X148.32 Y142.12 E725.08242
G0 X148.29 Y142.29
G0 X144.96 Y141.84
G0 X144.99 Y141.67
G1 X144.99 Y149.34 E725.40122
G0 X144.98 Y149.16
G0 X143.19 Y149.26
G0 X141.57 Y150.29
G0 X141.65 Y150.45
G1 X141.65 Y141.20 E725.78575
G0 X141.63 Y141.37
G0 X150.95 Y142.72
G0 X145.46 Y162.70
G0 X141.57 Y154.52
G0 X141.65 Y154.37
G1 X141.65 Y163.55 E726.16753
G0 X141.63 Y163.37
G0 X144.96 Y162.87
G0 X144.99 Y163.04
G1 X144.99 Y155.47 E726.48255
;LAYER:8
G0 X137.75 Y162.17 Z1.90
;TYPE:WALL-INNER
G1 X125.75 Y164.04 E726.98737
G1 X125.75 Y140.96 E727.94709
G1 X133.44 Y142.13 E728.27045
G1 X134.87 Y142.35 E728.33073
G1 X137.75 Y142.79 E728.45169
G1 X137.75 Y162.17 E729.25709
G0 X138.25 Y162.59
G1 X125.25 Y164.62 E729.80398
G1 X125.25 Y140.37 E730.81222
G1 X138.25 Y142.37 E731.35889
G1 X138.25 Y162.59 E732.19995
G0 X138.75 Y163.02
;TYPE:WALL-OUTER
G1 X124.75 Y165.21 E732.78893
G1 X124.75 Y139.79 E733.84564
G1 X138.75 Y141.94 E734.43437
G1 X138.75 Y163.02 E735.31102
G0 X138.47 Y162.71
G0 X137.57 Y161.97
;TYPE:FILL
G1 X125.92 Y150.32 E735.99588
G0 X125.92 Y151.03
G1 X137.00 Y162.10 E736.64723
G0 X136.39 Y162.20
G1 X125.92 Y151.73 E737.26262
G0 X125.92 Y152.44
G1 X135.78 Y162.29 E737.84205
G0 X135.17 Y162.39
G1 X125.92 Y153.15 E738.38551
G0 X125.92 Y153.85
G1 X134.56 Y162.49 E738.89300
G0 X133.94 Y162.58
G1 X125.92 Y154.56 E739.36455
G0 X125.92 Y155.27
G1 X133.33 Y162.68 E739.80011
G0 X132.72 Y162.77
G1 X125.92 Y155.98 E740.19975
G0 X125.92 Y156.68
G1 X132.11 Y162.87 E740.56346
G0 X131.50 Y162.96
G1 X125.92 Y157.39 E740.89119
G0 X125.92 Y158.10
G1 X130.89 Y163.06 E741.18297
G0 X130.28 Y163.16
G1 X125.92 Y158.80 E741.43879
G0 X125.92 Y159.51
G1 X129.66 Y163.25 E741.65866
G0 X129.05 Y163.35
G1 X125.92 Y160.22 E741.84251
G0 X125.92 Y160.93
G1 X128.44 Y163.44 E741.99045
G0 X127.83 Y163.54
G1 X125.92 Y161.63 E742.10239
G0 X125.92 Y162.34
G1 X127.22 Y163.63 E742.17836
G0 X126.61 Y163.73
G1 X125.92 Y163.05 E742.21840
G0 X137.57 Y161.26
G1 X125.92 Y149.61 E742.90326
G0 X125.92 Y148.91
G1 X137.57 Y160.55 E743.58811
G0 X137.57 Y159.85
G1 X125.92 Y148.20 E744.27297
G0 X125.92 Y147.49
G1 X137.57 Y159.14 E744.95783
G0 X137.57 Y158.43
G1 X125.92 Y146.78 E745.64269
G0 X125.92 Y146.08
G1 X137.57 Y157.72 E746.32757
G0 X137.57 Y157.02
G1 X125.92 Y145.37 E747.01246
G0 X125.92 Y144.66
G1 X137.57 Y156.31 E747.69732
G0 X137.57 Y155.60
G1 X125.92 Y143.96 E748.38218
G0 X125.92 Y143.25
G1 X137.57 Y154.90 E749.06703
G0 X137.57 Y154.19
G1 X125.92 Y142.54 E749.75189
G0 X125.92 Y141.83
G1 X137.57 Y153.48 E750.43675
G0 X137.57 Y152.78
G1 X125.96 Y141.16 E751.11943
G0 X126.80 Y141.29
G1 X137.57 Y152.07 E751.75296
G0 X137.57 Y151.36
G1 X127.63 Y141.42 E752.33739
G0 X128.47 Y141.55
G1 X137.57 Y150.65 E752.87273
G0 X137.57 Y149.95
G1 X129.30 Y141.68 E753.35895
G0 X130.14 Y141.81
G1 X137.57 Y149.24 E753.79604
G0 X137.57 Y148.53
G1 X130.97 Y141.93 E754.18404
G0 X131.81 Y142.06
G1 X137.57 Y147.82 E754.52294
G0 X137.57 Y147.12
G1 X132.64 Y142.19 E754.81274
G0 X133.48 Y142.32
G1 X137.57 Y146.41 E755.05342
G0 X137.57 Y145.70
G1 X134.31 Y142.44 E755.24501
G0 X135.15 Y142.57
G1 X137.57 Y145.00 E755.38750
G0 X137.57 Y144.29
G1 X135.98 Y142.70 E755.48090
G0 X136.82 Y142.83
G1 X137.57 Y143.58 E755.52518
G0 X155.75 Y140.96
;TYPE:WALL-INNER
G1 X167.75 Y142.79 E756.02973
G1 X167.75 Y162.17 E756.83513
G1 X155.75 Y164.04 E757.33990
G1 X155.75 Y140.96 E758.29958
G0 X155.25 Y140.37
G1 X168.25 Y142.37 E758.84621
G1 X168.25 Y162.59 E759.68724
G1 X155.30 Y164.62 E760.23203
G1 X155.25 Y164.62 E760.23409
G1 X155.25 Y140.37 E761.24233
G0 X154.75 Y139.79
;TYPE:WALL-OUTER
G1 X168.75 Y141.94 E761.83102
G1 X168.75 Y163.02 E762.70767
G1 X154.75 Y165.21 E763.29661
G1 X154.75 Y139.79 E764.35332
G0 X155.92 Y141.43
;TYPE:FILL
G1 X167.57 Y153.07 E765.03806
G0 X167.57 Y153.78
G1 X155.92 Y142.13 E765.72280
G0 X155.92 Y142.84
G1 X167.57 Y154.49 E766.40754
G0 X167.57 Y155.19
G1 X155.92 Y143.55 E767.09228
G0 X155.92 Y144.26
G1 X167.57 Y155.90 E767.77702
G0 X167.57 Y156.61
G1 X155.92 Y144.96 E768.46179
G0 X155.92 Y145.67
G1 X167.57 Y157.32 E769.14653
G0 X167.57 Y158.02
G1 X155.92 Y146.38 E769.83127
G0 X155.92 Y147.09
G1 X167.57 Y158.73 E770.51601
G0 X167.57 Y159.44
G1 X155.92 Y147.79 E771.20075
G0 X155.92 Y148.50
G1 X167.57 Y160.15 E771.88549
G0 X167.57 Y160.85
G1 X155.92 Y149.21 E772.57023
G0 X155.92 Y149.91
G1 X167.57 Y161.56 E773.25497
G0 X167.35 Y162.05
G1 X155.92 Y150.62 E773.92695
G0 X155.92 Y151.33
G1 X166.74 Y162.15 E774.56298
G0 X166.13 Y162.24
G1 X155.92 Y152.03 E775.16300
G0 X155.92 Y152.74
G1 X165.52 Y162.34 E775.72709
G0 X164.91 Y162.43
G1 X155.92 Y153.45 E776.25525
G0 X155.92 Y154.16
G1 X164.29 Y162.53 E776.74741
G0 X163.68 Y162.62
G1 X155.92 Y154.86 E777.20361
G0 X155.92 Y155.57
G1 X163.07 Y162.72 E777.62385
G0 X162.46 Y162.81
G1 X155.92 Y156.28 E778.00814
G0 X155.92 Y156.99
G1 X161.85 Y162.91 E778.35645
G0 X161.24 Y163.00
G1 X155.92 Y157.69 E778.66884
G0 X155.92 Y158.40
G1 X160.62 Y163.10 E778.94524
G0 X160.01 Y163.20
G1 X155.92 Y159.11 E779.18571
G0 X155.92 Y159.81
G1 X159.40 Y163.29 E779.39021
G0 X158.79 Y163.39
G1 X155.92 Y160.52 E779.55869
G0 X155.92 Y161.23
G1 X158.18 Y163.48 E779.69127
G0 X157.57 Y163.58
G1 X155.92 Y161.94 E779.78790
G0 X155.92 Y162.64
G1 X156.96 Y163.67 E779.84858
G0 X156.34 Y163.77
G1 X155.92 Y163.35 E779.87328
G0 X167.57 Y152.37
G1 X156.44 Y141.24 E780.52747
G0 X157.28 Y141.37
G1 X167.57 Y151.66 E781.13257
G0 X167.57 Y150.95
G1 X158.11 Y141.50 E781.68855
G0 X158.95 Y141.62
G1 X167.57 Y150.25 E782.19543
G0 X167.57 Y149.54
G1 X159.78 Y141.75 E782.65322
G0 X160.62 Y141.88
G1 X167.57 Y148.83 E783.06191
G0 X167.57 Y148.12
G1 X161.45 Y142.01 E783.42151
G0 X162.29 Y142.14
G1 X167.57 Y147.42 E783.73201
G0 X167.57 Y146.71
G1 X163.12 Y142.26 E783.99342
G0 X163.96 Y142.39
G1 X167.57 Y146.00 E784.20573
G0 X167.57 Y145.30
G1 X164.79 Y142.52 E784.36895
G0 X165.63 Y142.65
G1 X167.57 Y144.59 E784.48307
G0 X167.57 Y143.88
G1 X166.46 Y142.78 E784.54810
G0 X167.30 Y142.90
G1 X167.57 Y143.17 E784.56398
G0 X148.32 Y142.12
;TYPE:SUPPORT
G1 X148.32 Y162.53 E785.41261
G0 X148.29 Y162.36
G0 X144.96 Y162.87
G0 X144.99 Y163.04
G1 X144.99 Y155.47 E785.72762
G0 X144.98 Y155.64
G0 X143.19 Y155.53
G0 X141.57 Y154.52
G0 X141.65 Y154.37
G1 X141.65 Y163.55 E786.10941
G0 X141.63 Y163.37
G0 X150.95 Y161.86
G0 X146.25 Y142.10
G0 X141.57 Y150.29
G0 X141.65 Y150.45
G1 X141.65 Y141.20 E786.49394
G0 X141.63 Y141.37
G0 X144.96 Y141.84
G0 X144.99 Y141.67
G1 X144.99 Y149.34 E786.81273
G0 X171.65 Y150.45
G1 X171.65 Y141.20 E787.19726
G0 X171.62 Y141.37
G0 X174.96 Y141.84
G0 X174.98 Y141.67
G1 X174.98 Y149.34 E787.51610
G0 X174.98 Y149.16
G0 X173.19 Y149.26
G0 X180.95 Y142.72
G0 X175.46 Y162.70
G0 X171.57 Y154.52
G0 X171.65 Y154.36
G1 X171.65 Y163.55 E787.89801
G0 X171.62 Y163.37
G0 X174.96 Y162.87
G0 X174.98 Y163.04
G1 X174.98 Y155.47 E788.21307
G0 X174.98 Y155.64
G0 X178.29 Y162.36
G0 X178.31 Y162.53
G1 X178.31 Y142.12 E789.06174
;LAYER:9
G0 X167.75 Y142.79 Z2.10
;TYPE:WALL-INNER
G1 X167.75 Y162.17 E789.86710
G1 X166.83 Y162.31 E789.90572
G1 X165.81 Y162.47 E789.94839
G1 X155.75 Y164.04 E790.37187
G1 X155.75 Y140.96 E791.33155
G1 X155.93 Y140.98 E791.33925
G1 X156.87 Y141.13 E791.37846
G1 X159.68 Y141.56 E791.49677
G1 X161.00 Y141.76 E791.55233
G1 X161.67 Y141.86 E791.58043
G1 X166.83 Y142.66 E791.79768
G1 X167.50 Y142.76 E791.82590
G1 X167.75 Y142.79 E791.83612
G0 X168.25 Y142.37
G1 X168.25 Y162.59 E792.67714
G1 X155.40 Y164.60 E793.21764
G1 X155.25 Y164.62 E793.22400
G1 X155.25 Y140.37 E794.23224
G1 X168.25 Y142.37 E794.77886
G0 X168.75 Y141.94
;TYPE:WALL-OUTER
G1 X168.75 Y163.02 E795.65552
G1 X154.75 Y165.21 E796.24445
G1 X154.75 Y139.79 E797.30117
G1 X168.75 Y141.94 E797.88985
G0 X168.47 Y142.25
G0 X167.57 Y143.20
;TYPE:FILL
G1 X155.92 Y154.85 E798.57456
G0 X155.92 Y155.56
G1 X167.57 Y143.91 E799.25928
G0 X167.57 Y144.62
G1 X155.92 Y156.26 E799.94399
G0 X155.92 Y156.97
G1 X167.57 Y145.32 E800.62870
G0 X167.57 Y146.03
G1 X155.92 Y157.68 E801.31344
G0 X155.92 Y158.38
G1 X167.57 Y146.74 E801.99818
G0 X167.57 Y147.44
G1 X155.92 Y159.09 E802.68292
G0 X155.92 Y159.80
G1 X167.57 Y148.15 E803.36763
G0 X167.57 Y148.86
G1 X155.92 Y160.50 E804.05234
G0 X155.92 Y161.21
G1 X167.57 Y149.57 E804.73705
G0 X167.57 Y150.27
G1 X155.92 Y161.92 E805.42176
G0 X155.92 Y162.63
G1 X167.57 Y150.98 E806.10647
G0 X167.57 Y151.69
G1 X155.92 Y163.33 E806.79118
G0 X156.17 Y163.80
G1 X167.57 Y152.40 E807.46152
G0 X167.57 Y153.10
G1 X157.01 Y163.66 E808.08258
G0 X157.84 Y163.53
G1 X167.57 Y153.81 E808.65443
G0 X167.57 Y154.52
G1 X158.68 Y163.40 E809.17701
G0 X159.52 Y163.27
G1 X167.57 Y155.22 E809.65029
G0 X167.57 Y155.93
G1 X160.36 Y163.14 E810.07430
G0 X161.20 Y163.01
G1 X167.57 Y156.64 E810.44907
G0 X167.57 Y157.34
G1 X162.03 Y162.88 E810.77456
G0 X162.87 Y162.75
G1 X167.57 Y158.05 E811.05079
G0 X167.57 Y158.76
G1 X163.71 Y162.62 E811.27774
G0 X164.55 Y162.49
G1 X167.57 Y159.47 E811.45545
G0 X167.57 Y160.17
G1 X165.38 Y162.36 E811.58392
G0 X166.22 Y162.23
G1 X167.57 Y160.88 E811.66312
G0 X167.57 Y161.59
G1 X167.06 Y162.10 E811.69302
G0 X155.92 Y154.14
G1 X167.18 Y142.88 E812.35483
G0 X166.57 Y142.79
G1 X155.92 Y153.43 E812.98060
G0 X155.92 Y152.73
G1 X165.95 Y142.70 E813.57032
G0 X165.34 Y142.60
G1 X155.92 Y152.02 E814.12401
G0 X155.92 Y151.31
G1 X164.73 Y142.51 E814.64165
G0 X164.12 Y142.41
G1 X155.92 Y150.60 E815.12322
G0 X155.92 Y149.90
G1 X163.50 Y142.32 E815.56874
G0 X162.89 Y142.23
G1 X155.92 Y149.19 E815.97823
G0 X155.92 Y148.48
G1 X162.28 Y142.13 E816.35167
G0 X161.66 Y142.04
G1 X155.92 Y147.78 E816.68905
G0 X155.92 Y147.07
G1 X161.05 Y141.94 E816.99038
G0 X160.44 Y141.85
G1 X155.92 Y146.36 E817.25567
G0 X155.92 Y145.66
G1 X159.82 Y141.76 E817.48491
G0 X159.21 Y141.66
G1 X155.92 Y144.95 E817.67812
G0 X155.92 Y144.24
G1 X158.60 Y141.57 E817.83528
G0 X157.98 Y141.47
G1 X155.92 Y143.53 E817.95637
G0 X155.92 Y142.83
G1 X157.37 Y141.38 E818.04142
G0 X156.76 Y141.29
G1 X155.92 Y142.12 E818.09042
G0 X155.92 Y141.41
G1 X156.15 Y141.19 E818.10342
G0 X137.75 Y142.79
;TYPE:WALL-INNER
G1 X137.75 Y162.17 E818.90877
G1 X136.83 Y162.31 E818.94740
G1 X135.81 Y162.47 E818.99007
G1 X125.75 Y164.04 E819.41360
G1 X125.75 Y140.96 E820.37332
G1 X125.93 Y140.98 E820.38106
G1 X126.86 Y141.13 E820.42022
G1 X129.68 Y141.56 E820.53857
G1 X131.00 Y141.76 E820.59414
G1 X131.67 Y141.86 E820.62223
G1 X136.83 Y142.66 E820.83948
G1 X137.50 Y142.76 E820.86770
G1 X137.75 Y142.79 E820.87792
G0 X138.25 Y142.37
G1 X138.25 Y162.59 E821.71899
G1 X125.40 Y164.60 E822.25949
G1 X125.25 Y164.62 E822.26588
G1 X125.25 Y140.37 E823.27412
G1 X126.01 Y140.49 E823.30600
G1 X126.94 Y140.63 E823.34525
G1 X138.25 Y142.37 E823.82079
G0 X138.75 Y141.94
;TYPE:WALL-OUTER
G1 X138.75 Y163.02 E824.69744
G1 X124.75 Y165.21 E825.28641
G1 X124.75 Y139.79 E826.34313
G1 X138.75 Y141.94 E826.93186
G0 X138.47 Y142.25
G0 X137.44 Y142.92
;TYPE:FILL
G1 X125.92 Y154.44 E827.60907
G0 X125.92 Y155.15
G1 X137.57 Y143.50 E828.29381
G0 X137.57 Y144.21
G1 X125.92 Y155.86 E828.97855
G0 X125.92 Y156.56
G1 X137.57 Y144.92 E829.66332
G0 X137.57 Y145.62
G1 X125.92 Y157.27 E830.34809
G0 X125.92 Y157.98
G1 X137.57 Y146.33 E831.03286
G0 X137.57 Y147.04
G1 X125.92 Y158.69 E831.71763
G0 X125.92 Y159.39
G1 X137.57 Y147.75 E832.40240
G0 X137.57 Y148.45
G1 X125.92 Y160.10 E833.08717
G0 X125.92 Y160.81
G1 X137.57 Y149.16 E833.77194
G0 X137.57 Y149.87
G1 X125.92 Y161.51 E834.45668
G0 X125.92 Y162.22
G1 X137.57 Y150.57 E835.14142
G0 X137.57 Y151.28
G1 X125.92 Y162.93 E835.82619
G0 X125.92 Y163.63
G1 X137.57 Y151.99 E836.51096
G0 X137.57 Y152.69
G1 X126.53 Y163.74 E837.16042
G0 X127.36 Y163.61
G1 X137.57 Y153.40 E837.76058
G0 X137.57 Y154.11
G1 X128.20 Y163.48 E838.31150
G0 X129.04 Y163.35
G1 X137.57 Y154.82 E838.81315
G0 X137.57 Y155.52
G1 X129.88 Y163.22 E839.26553
G0 X130.72 Y163.09
G1 X137.57 Y156.23 E839.66858
G0 X137.57 Y156.94
G1 X131.55 Y162.96 E840.02235
G0 X132.39 Y162.82
G1 X137.57 Y157.65 E840.32686
G0 X137.57 Y158.35
G1 X133.23 Y162.69 E840.58209
G0 X134.07 Y162.56
G1 X137.57 Y159.06 E840.78809
G0 X137.57 Y159.77
G1 X134.91 Y162.43 E840.94478
G0 X135.74 Y162.30
G1 X137.57 Y160.47 E841.05220
G0 X137.57 Y161.18
G1 X136.58 Y162.17 E841.11035
G0 X137.42 Y162.04
G1 X137.57 Y161.89 E841.11926
G0 X125.92 Y153.74
G1 X136.83 Y142.83 E841.76043
G0 X136.22 Y142.74
G1 X125.92 Y153.03 E842.36556
G0 X125.92 Y152.32
G1 X135.60 Y142.64 E842.93462
G0 X134.99 Y142.55
G1 X125.92 Y151.61 E843.46763
G0 X125.92 Y150.91
G1 X134.38 Y142.46 E843.96458
G0 X133.76 Y142.36
G1 X125.92 Y150.20 E844.42548
G0 X125.92 Y149.49
G1 X133.15 Y142.27 E844.85031
G0 X132.54 Y142.17
G1 X125.92 Y148.78 E845.23907
G0 X125.92 Y148.08
G1 X131.92 Y142.08 E845.59182
G0 X131.31 Y141.98
G1 X125.92 Y147.37 E845.90853
G0 X125.92 Y146.66
G1 X130.70 Y141.89 E846.18919
G0 X130.09 Y141.80
G1 X125.92 Y145.96 E846.43381
G0 X125.92 Y145.25
G1 X129.47 Y141.70 E846.64239
G0 X128.86 Y141.61
G1 X125.92 Y144.54 E846.81493
G0 X125.92 Y143.84
G1 X128.25 Y141.51 E846.95142
G0 X127.63 Y141.42
G1 X125.92 Y143.13 E847.05188
G0 X125.92 Y142.42
G1 X127.02 Y141.33 E847.11626
G0 X126.41 Y141.23
G1 X125.92 Y141.71 E847.14460
G0 X171.65 Y141.20
;TYPE:SUPPORT
G1 X171.65 Y150.45 E847.52913
G0 X171.57 Y150.29
G0 X173.69 Y149.10
G0 X174.98 Y149.16
G0 X174.98 Y149.34
G1 X174.98 Y141.67 E847.84797
G0 X174.96 Y141.84
G0 X178.29 Y142.29
G0 X178.31 Y142.12
G1 X178.31 Y162.53 E848.69664
G0 X178.29 Y162.36
G0 X174.96 Y162.87
G0 X174.98 Y163.04
G1 X174.98 Y155.47 E849.01170
G0 X174.98 Y155.64
G0 X173.19 Y155.53
G0 X171.57 Y154.52
G0 X171.65 Y154.36
G1 X171.65 Y163.55 E849.39361
G0 X148.32 Y162.53
G1 X148.32 Y142.12 E850.24224
G0 X148.29 Y142.29
G0 X144.96 Y141.84
G0 X144.99 Y141.67
G1 X144.99 Y149.34 E850.56104
G0 X144.98 Y149.16
G0 X143.19 Y149.26
G0 X141.57 Y150.29
G0 X141.65 Y150.45
G1 X141.65 Y141.20 E850.94557
G0 X141.63 Y141.37
G0 X150.95 Y142.72
G0 X145.46 Y162.70
G0 X141.57 Y154.52
G0 X141.65 Y154.37
G1 X141.65 Y163.55 E851.32735
G0 X141.63 Y163.37
G0 X144.96 Y162.87
G0 X144.99 Y163.04
G1 X144.99 Y155.47 E851.64237
;LAYER:10
G0 X137.75 Y162.17 Z2.30
;TYPE:WALL-INNER
G1 X136.63 Y162.34 E851.68924
G1 X135.52 Y162.51 E851.73624
G1 X133.84 Y162.78 E851.80693
G1 X133.84 Y142.19 E852.66263
G1 X134.00 Y142.22 E852.66941
G1 X136.64 Y142.63 E852.78046
G1 X137.37 Y142.74 E852.81145
G1 X137.75 Y142.79 E852.82718
G1 X137.75 Y162.17 E853.63257
G0 X137.45 Y162.72
G1 X136.71 Y162.83 E853.66354
G1 X135.59 Y163.01 E853.71050
G1 X133.34 Y163.36 E853.80551
G1 X133.34 Y141.61 E854.70973
G1 X138.25 Y142.37 E854.91633
G1 X138.25 Y162.59 E855.75740
G1 X137.45 Y162.72 E855.79110
G0 X138.75 Y163.02
;TYPE:WALL-OUTER
G1 X132.84 Y163.94 E856.03983
G1 X132.84 Y141.03 E856.99252
G1 X138.75 Y141.94 E857.24118
G1 X138.75 Y163.02 E858.11788
G0 X138.47 Y162.71
G0 X137.57 Y161.97
;TYPE:FILL
G1 X134.01 Y158.41 E858.32728
G0 X134.01 Y159.11
G1 X137.00 Y162.10 E858.50320
G0 X136.39 Y162.20
G1 X134.01 Y159.82 E858.64316
G0 X134.01 Y160.53
G1 X135.78 Y162.29 E858.74717
G0 X135.17 Y162.39
G1 X134.01 Y161.23 E858.81523
G0 X134.01 Y161.94
G1 X134.56 Y162.49 E858.84733
G0 X137.57 Y161.26
G1 X134.01 Y157.70 E859.05671
G0 X134.01 Y156.99
G1 X137.57 Y160.55 E859.26608
G0 X137.57 Y159.84
G1 X134.01 Y156.28 E859.47545
G0 X134.01 Y155.58
G1 X137.57 Y159.14 E859.68485
G0 X137.57 Y158.43
G1 X134.01 Y154.87 E859.89426
G0 X134.01 Y154.16
G1 X137.57 Y157.72 E860.10366
G0 X137.57 Y157.02
G1 X134.01 Y153.46 E860.31306
G0 X134.01 Y152.75
G1 X137.57 Y156.31 E860.52246
G0 X137.57 Y155.60
G1 X134.01 Y152.04 E860.73187
G0 X134.01 Y151.33
G1 X137.57 Y154.90 E860.94124
G0 X137.57 Y154.19
G1 X134.01 Y150.63 E861.15061
G0 X134.01 Y149.92
G1 X137.57 Y153.48 E861.35999
G0 X137.57 Y152.77
G1 X134.01 Y149.21 E861.56939
G0 X134.01 Y148.50
G1 X137.57 Y152.07 E861.77879
G0 X137.57 Y151.36
G1 X134.01 Y147.80 E861.98819
G0 X134.01 Y147.09
G1 X137.57 Y150.65 E862.19760
G0 X137.57 Y149.95
G1 X134.01 Y146.38 E862.40700
G0 X134.01 Y145.68
G1 X137.57 Y149.24 E862.61640
G0 X137.57 Y148.53
G1 X134.01 Y144.97 E862.82580
G0 X134.01 Y144.26
G1 X137.57 Y147.82 E863.03518
G0 X137.57 Y147.12
G1 X134.01 Y143.56 E863.24455
G0 X134.01 Y142.85
G1 X137.57 Y146.41 E863.45392
G0 X137.57 Y145.70
G1 X134.31 Y142.44 E863.64554
G0 X135.15 Y142.57
G1 X137.57 Y145.00 E863.78806
G0 X137.57 Y144.29
G1 X135.98 Y142.70 E863.88143
G0 X136.82 Y142.83
G1 X137.57 Y143.58 E863.92570
G0 X129.01 Y141.46
;TYPE:WALL-INNER
G1 X129.01 Y163.53 E864.84339
G1 X127.12 Y163.83 E864.92314
G1 X125.75 Y164.04 E864.98066
G1 X125.75 Y140.96 E865.94034
G1 X126.10 Y141.01 E865.95489
G1 X127.12 Y141.17 E865.99801
G1 X129.01 Y141.46 E866.07750
G0 X129.51 Y141.03
G1 X129.51 Y163.96 E867.03090
G1 X128.62 Y164.10 E867.06835
G1 X125.25 Y164.62 E867.21025
G1 X125.25 Y140.37 E868.21848
G1 X126.17 Y140.51 E868.25722
G1 X129.51 Y141.03 E868.39770
G0 X130.01 Y140.60
;TYPE:WALL-OUTER
G1 X130.01 Y164.39 E869.38674
G1 X124.75 Y165.21 E869.60816
G1 X124.75 Y139.79 E870.66487
G1 X130.01 Y140.60 E870.88615
G0 X129.74 Y140.91
G0 X128.84 Y141.92
;TYPE:FILL
G1 X128.47 Y141.55 E870.90788
G0 X127.63 Y141.42
G1 X128.84 Y142.62 E870.97870
G0 X128.84 Y143.33
G1 X126.80 Y141.29 E871.09864
G0 X125.96 Y141.16
G1 X128.84 Y144.04 E871.26768
G0 X128.84 Y144.75
G1 X125.92 Y141.84 E871.43884
G0 X125.92 Y142.54
G1 X128.84 Y145.45 E871.60999
G0 X128.84 Y146.16
G1 X125.92 Y143.25 E871.78118
G0 X125.92 Y143.96
G1 X128.84 Y146.87 E871.95236
G0 X128.84 Y147.57
G1 X125.92 Y144.66 E872.12355
G0 X125.92 Y145.37
G1 X128.84 Y148.28 E872.29473
G0 X128.84 Y148.99
G1 X125.92 Y146.08 E872.46592
G0 X125.92 Y146.78
G1 X128.84 Y149.70 E872.63710
G0 X128.84 Y150.40
G1 X125.92 Y147.49 E872.80829
G0 X125.92 Y148.20
G1 X128.84 Y151.11 E872.97947
G0 X128.84 Y151.82
G1 X125.92 Y148.91 E873.15063
G0 X125.92 Y149.61
G1 X128.84 Y152.53 E873.32181
G0 X128.84 Y153.23
G1 X125.92 Y150.32 E873.49300
G0 X125.92 Y151.03
G1 X128.84 Y153.94 E873.66418
G0 X128.84 Y154.65
G1 X125.92 Y151.73 E873.83537
G0 X125.92 Y152.44
G1 X128.84 Y155.35 E874.00655
G0 X128.84 Y156.06
G1 X125.92 Y153.15 E874.17774
G0 X125.92 Y153.85
G1 X128.84 Y156.77 E874.34892
G0 X128.84 Y157.47
G1 X125.92 Y154.56 E874.52011
G0 X125.92 Y155.27
G1 X128.84 Y158.18 E874.69126
G0 X128.84 Y158.89
G1 X125.92 Y155.98 E874.86245
G0 X125.92 Y156.68
G1 X128.84 Y159.60 E875.03363
G0 X128.84 Y160.30
G1 X125.92 Y157.39 E875.20482
G0 X125.92 Y158.10
G1 X128.84 Y161.01 E875.37601
G0 X128.84 Y161.72
G1 X125.92 Y158.81 E875.54719
G0 X125.92 Y159.51
G1 X128.84 Y162.42 E875.71838
G0 X128.84 Y163.13
G1 X125.92 Y160.22 E875.88956
G0 X125.92 Y160.93
G1 X128.44 Y163.44 E876.03731
G0 X127.83 Y163.54
G1 X125.92 Y161.63 E876.14915
G0 X125.92 Y162.34
G1 X127.22 Y163.63 E876.22499
G0 X126.60 Y163.73
G1 X125.92 Y163.05 E876.26491
G0 X155.75 Y164.04
;TYPE:WALL-INNER
G1 X155.75 Y140.96 E877.22459
G1 X156.10 Y141.01 E877.23915
G1 X157.12 Y141.17 E877.28222
G1 X159.01 Y141.46 E877.36171
G1 X159.01 Y163.53 E878.27940
G1 X157.12 Y163.83 E878.35915
G1 X155.75 Y164.04 E878.41663
G0 X155.25 Y164.62
G1 X155.25 Y140.37 E879.42487
G1 X159.51 Y141.03 E879.60404
G1 X159.51 Y163.96 E880.55748
G1 X158.62 Y164.10 E880.59493
G1 X155.25 Y164.62 E880.73679
G0 X154.75 Y165.21
;TYPE:WALL-OUTER
G1 X154.75 Y139.79 E881.79350
G1 X160.01 Y140.60 E882.01474
G1 X160.01 Y164.39 E883.00377
G1 X154.75 Y165.21 E883.22515
G0 X156.34 Y163.77
;TYPE:FILL
G1 X155.92 Y163.35 E883.24985
G0 X155.92 Y162.64
G1 X156.96 Y163.67 E883.31047
G0 X157.57 Y163.58
G1 X155.92 Y161.93 E883.40704
G0 X155.92 Y161.23
G1 X158.18 Y163.48 E883.53951
G0 X158.79 Y163.38
G1 X155.92 Y160.52 E883.70796
G0 X155.92 Y159.81
G1 X158.84 Y162.72 E883.87914
G0 X158.84 Y162.02
G1 X155.92 Y159.11 E884.05030
G0 X155.92 Y158.40
G1 X158.84 Y161.31 E884.22148
G0 X158.84 Y160.60
G1 X155.92 Y157.69 E884.39267
G0 X155.92 Y156.98
G1 X158.84 Y159.90 E884.56385
G0 X158.84 Y159.19
G1 X155.92 Y156.28 E884.73504
G0 X155.92 Y155.57
G1 X158.84 Y158.48 E884.90622
G0 X158.84 Y157.78
G1 X155.92 Y154.86 E885.07741
G0 X155.92 Y154.16
G1 X158.84 Y157.07 E885.24859
G0 X158.84 Y156.36
G1 X155.92 Y153.45 E885.41978
G0 X155.92 Y152.74
G1 X158.84 Y155.65 E885.59093
G0 X158.84 Y154.95
G1 X155.92 Y152.03 E885.76209
G0 X155.92 Y151.33
G1 X158.84 Y154.24 E885.93327
G0 X158.84 Y153.53
G1 X155.92 Y150.62 E886.10443
G0 X155.92 Y149.91
G1 X158.84 Y152.82 E886.27559
G0 X158.84 Y152.12
