;-- START GCODE --
;Sliced for Type A Machines Series 1
;Sliced at: Sun 15-11-2015 21:13:30
;Basic settings: Layer height: 0.15 Walls: 1 Fill: 80
;Print Speed: 140 Support: 0
;Retraction Speed: 40 Retraction Distance: 1.2
;Print time: #P_TIME#
;Filament used: #F_AMNT#m #F_WGHT#g
;Filament cost: #F_COST#
M106 S255	 ;start with the fan on
G21        ;metric values
G90        ;absolute positioning
M106 S255    ;start with the fan on
G28     ;move to endstops
G29		;allows for auto-levelling
G1 X150 Y5  Z15.0 F6000 ;center and move the platform down 15mm
M109 S220 ;Heat To temp
G92 E0                  ;zero the extruded length
G1 F200 E30              ;extrude 30mm of feed stock
G92 E0                  ;zero the extruded length again
G1 X175 Y25  Z0 F6000 ;remove bugger
G1 X220 F6000 ;remove bugger
G1 X150 Y150  Z15 F6000 ;recenter and begin
G1 F6000

;Layer count: 6
;LAYER:0
M106 S255
G0 F6000 X135.91 Y135.90 Z0.30
;TYPE:SKIRT
G1 F2700 X136.61 Y135.32 E0.05659
G1 X136.97 Y135.03 E0.08583
G1 X137.76 Y134.60 E0.14171
G1 X137.76 Y134.60 E0.14177
G1 X138.19 Y134.38 E0.17194
G1 X139.07 Y134.11 E0.22923
G1 X139.53 Y133.97 E0.25900
G1 X140.43 Y133.88 E0.31564
G1 X140.89 Y133.84 E0.34447
G1 X141.81 Y133.92 E0.40218
G1 X142.29 Y133.97 E0.43196
G1 X143.15 Y134.23 E0.48801
G1 X143.60 Y134.37 E0.51764
G1 X144.41 Y134.80 E0.57489
G1 X144.83 Y135.03 E0.60458
G1 X145.53 Y135.60 E0.66108
G1 X145.90 Y135.91 E0.69107
G1 X146.48 Y136.61 E0.74766
G1 X146.70 Y136.88 E0.76963
G1 X147.20 Y136.27 E0.81904
G1 X147.51 Y135.90 E0.84904
G1 X148.21 Y135.32 E0.90563
G1 X148.57 Y135.03 E0.93487
G1 X149.36 Y134.60 E0.99075
G1 X149.36 Y134.60 E0.99081
G1 X149.79 Y134.38 E1.02097
G1 X150.67 Y134.11 E1.07826
G1 X151.13 Y133.97 E1.10803
G1 X152.03 Y133.88 E1.16467
G1 X152.49 Y133.84 E1.19351
G1 X153.41 Y133.92 E1.25115
G1 X153.88 Y133.97 E1.28093
G1 X154.75 Y134.23 E1.33698
G1 X155.20 Y134.37 E1.36661
G1 X156.01 Y134.80 E1.42386
G1 X156.43 Y135.03 E1.45355
G1 X157.13 Y135.60 E1.51005
G1 X157.50 Y135.91 E1.54004
G1 X158.08 Y136.61 E1.59663
G1 X158.37 Y136.97 E1.62587
G1 X158.79 Y137.76 E1.68175
G1 X158.80 Y137.76 E1.68182
G1 X159.03 Y138.19 E1.71198
G1 X159.29 Y139.07 E1.76927
G1 X159.43 Y139.53 E1.79904
G1 X159.52 Y140.41 E1.85455
G1 X159.56 Y140.89 E1.88458
G1 X159.48 Y141.81 E1.94222
G1 X159.43 Y142.29 E1.97200
G1 X159.16 Y143.15 E2.02825
G1 X159.03 Y143.60 E2.05768
G1 X158.60 Y144.41 E2.11493
G1 X158.37 Y144.83 E2.14462
G1 X157.80 Y145.53 E2.20112
G1 X157.49 Y145.90 E2.23111
G1 X156.79 Y146.48 E2.28770
G1 X156.52 Y146.70 E2.30968
G1 X157.13 Y147.20 E2.35909
G1 X157.50 Y147.51 E2.38908
G1 X158.08 Y148.21 E2.44567
G1 X158.30 Y148.48 E2.46764
G1 X158.80 Y147.87 E2.51705
G1 X159.11 Y147.50 E2.54705
G1 X159.81 Y146.92 E2.60364
G1 X160.17 Y146.63 E2.63288
G1 X160.96 Y146.21 E2.68876
G1 X160.96 Y146.20 E2.68882
G1 X161.39 Y145.97 E2.71898
G1 X162.27 Y145.71 E2.77627
G1 X162.72 Y145.57 E2.80604
G1 X163.63 Y145.48 E2.86268
G1 X164.09 Y145.44 E2.89152
G1 X165.01 Y145.52 E2.94922
G1 X165.49 Y145.57 E2.97900
G1 X166.34 Y145.83 E3.03505
G1 X166.80 Y145.97 E3.06468
G1 X167.61 Y146.40 E3.12193
G1 X168.03 Y146.63 E3.15162
G1 X168.73 Y147.20 E3.20812
G1 X169.10 Y147.51 E3.23812
G1 X169.68 Y148.21 E3.29471
G1 X169.97 Y148.57 E3.32395
G1 X170.40 Y149.36 E3.37983
G1 X170.40 Y149.36 E3.37989
G1 X170.62 Y149.79 E3.41005
G1 X170.89 Y150.67 E3.46734
G1 X171.03 Y151.13 E3.49711
G1 X171.12 Y152.01 E3.55256
G1 X171.16 Y152.49 E3.58259
G1 X171.08 Y153.41 E3.64023
G1 X171.03 Y153.88 E3.67001
G1 X170.76 Y154.75 E3.72626
G1 X170.63 Y155.20 E3.75569
G1 X170.20 Y156.01 E3.81294
G1 X169.97 Y156.43 E3.84263
G1 X169.40 Y157.13 E3.89913
G1 X169.09 Y157.50 E3.92912
G1 X168.39 Y158.08 E3.98571
G1 X168.12 Y158.30 E4.00769
G1 X168.73 Y158.80 E4.05710
G1 X169.10 Y159.11 E4.08709
G1 X169.68 Y159.81 E4.14368
G1 X169.97 Y160.17 E4.17292
G1 X170.40 Y160.96 E4.22880
G1 X170.40 Y160.96 E4.22886
G1 X170.62 Y161.39 E4.25902
G1 X170.89 Y162.27 E4.31631
G1 X171.03 Y162.72 E4.34609
G1 X171.12 Y163.61 E4.40160
G1 X171.16 Y164.09 E4.43163
G1 X171.08 Y165.01 E4.48927
G1 X171.03 Y165.49 E4.51905
G1 X170.76 Y166.35 E4.57529
G1 X170.63 Y166.80 E4.60473
G1 X170.20 Y167.61 E4.66198
G1 X169.97 Y168.03 E4.69167
G1 X169.40 Y168.73 E4.74817
G1 X169.09 Y169.10 E4.77816
G1 X168.39 Y169.68 E4.83475
G1 X168.03 Y169.97 E4.86399
G1 X167.24 Y170.40 E4.91987
G1 X167.24 Y170.40 E4.91993
G1 X166.81 Y170.62 E4.95009
G1 X165.93 Y170.89 E5.00738
G1 X165.47 Y171.03 E5.03715
G1 X164.57 Y171.12 E5.09380
G1 X164.11 Y171.16 E5.12263
G1 X163.19 Y171.08 E5.18034
G1 X162.71 Y171.03 E5.21012
G1 X161.85 Y170.76 E5.26636
G1 X161.40 Y170.63 E5.29580
G1 X160.59 Y170.20 E5.35305
G1 X160.17 Y169.97 E5.38274
G1 X159.47 Y169.40 E5.43924
G1 X159.10 Y169.09 E5.46923
G1 X158.52 Y168.39 E5.52582
G1 X158.30 Y168.12 E5.54779
G1 X157.80 Y168.73 E5.59720
G1 X157.49 Y169.10 E5.62719
G1 X156.79 Y169.68 E5.68378
G1 X156.43 Y169.97 E5.71303
G1 X155.64 Y170.40 E5.76891
G1 X155.64 Y170.40 E5.76897
G1 X155.21 Y170.62 E5.79913
G1 X154.33 Y170.89 E5.85642
G1 X153.87 Y171.03 E5.88619
G1 X152.97 Y171.12 E5.94283
G1 X152.51 Y171.16 E5.97167
G1 X151.59 Y171.08 E6.02931
G1 X151.12 Y171.03 E6.05909
G1 X150.25 Y170.76 E6.11534
G1 X149.80 Y170.63 E6.14477
G1 X148.99 Y170.20 E6.20202
G1 X148.57 Y169.97 E6.23171
G1 X147.87 Y169.40 E6.28821
G1 X147.50 Y169.09 E6.31820
G1 X146.92 Y168.39 E6.37479
G1 X146.70 Y168.12 E6.39677
G1 X146.20 Y168.73 E6.44618
G1 X145.89 Y169.10 E6.47617
G1 X145.19 Y169.68 E6.53276
G1 X144.83 Y169.97 E6.56200
G1 X144.04 Y170.40 E6.61788
G1 X144.04 Y170.40 E6.61794
G1 X143.61 Y170.62 E6.64810
G1 X142.73 Y170.89 E6.70539
G1 X142.28 Y171.03 E6.73516
G1 X141.37 Y171.12 E6.79193
G1 X140.91 Y171.16 E6.82071
G1 X139.99 Y171.08 E6.87835
G1 X139.51 Y171.03 E6.90813
G1 X138.65 Y170.76 E6.96437
G1 X138.20 Y170.63 E6.99381
G1 X137.39 Y170.20 E7.05106
G1 X136.97 Y169.97 E7.08075
G1 X136.27 Y169.40 E7.13725
G1 X135.90 Y169.09 E7.16724
G1 X135.32 Y168.39 E7.22383
G1 X135.03 Y168.03 E7.25307
G1 X134.60 Y167.24 E7.30895
G1 X134.60 Y167.24 E7.30901
G1 X134.38 Y166.81 E7.33917
G1 X134.11 Y165.93 E7.39646
G1 X133.97 Y165.47 E7.42623
G1 X133.88 Y164.57 E7.48288
G1 X133.84 Y164.11 E7.51171
G1 X133.92 Y163.19 E7.56942
G1 X133.97 Y162.71 E7.59920
G1 X134.24 Y161.85 E7.65544
G1 X134.37 Y161.40 E7.68488
G1 X134.80 Y160.59 E7.74213
G1 X135.03 Y160.17 E7.77181
G1 X135.60 Y159.47 E7.82832
G1 X135.91 Y159.10 E7.85831
G1 X136.61 Y158.52 E7.91490
G1 X136.88 Y158.30 E7.93687
G1 X136.27 Y157.80 E7.98628
G1 X135.90 Y157.49 E8.01627
G1 X135.32 Y156.79 E8.07286
G1 X135.03 Y156.43 E8.10210
G1 X134.60 Y155.64 E8.15799
G1 X134.60 Y155.64 E8.15805
G1 X134.38 Y155.21 E8.18821
G1 X134.11 Y154.33 E8.24550
G1 X133.97 Y153.87 E8.27527
G1 X133.88 Y152.97 E8.33191
G1 X133.84 Y152.51 E8.36075
G1 X133.92 Y151.59 E8.41839
G1 X133.97 Y151.12 E8.44817
G1 X134.24 Y150.25 E8.50441
G1 X134.37 Y149.80 E8.53385
G1 X134.80 Y148.99 E8.59110
G1 X135.03 Y148.57 E8.62079
G1 X135.60 Y147.87 E8.67729
G1 X135.91 Y147.50 E8.70728
G1 X136.61 Y146.92 E8.76387
G1 X136.88 Y146.70 E8.78585
G1 X136.27 Y146.20 E8.83526
G1 X135.90 Y145.89 E8.86525
G1 X135.32 Y145.19 E8.92184
G1 X135.03 Y144.83 E8.95108
G1 X134.60 Y144.04 E9.00696
G1 X134.60 Y144.04 E9.00702
G1 X134.38 Y143.61 E9.03718
G1 X134.11 Y142.73 E9.09447
G1 X133.97 Y142.28 E9.12424
G1 X133.88 Y141.37 E9.18089
G1 X133.84 Y140.91 E9.20972
G1 X133.92 Y139.99 E9.26743
G1 X133.97 Y139.51 E9.29721
G1 X134.24 Y138.65 E9.35345
G1 X134.37 Y138.20 E9.38289
G1 X134.80 Y137.39 E9.44014
G1 X135.03 Y136.97 E9.46982
G1 X135.60 Y136.27 E9.52633
G1 X135.91 Y135.90 E9.55632
G0 F6000 X138.74 Y138.75
;TYPE:WALL-INNER
G1 F2700 X139.15 Y138.42 E9.58863
G1 X139.21 Y138.37 E9.59372
G1 X139.66 Y138.12 E9.62594
G1 X139.74 Y138.09 E9.63096
G1 X140.31 Y137.91 E9.66837
G1 X140.82 Y137.86 E9.70039
G1 X140.90 Y137.85 E9.70566
G1 X141.41 Y137.90 E9.73737
G1 X141.49 Y137.91 E9.74244
G1 X142.07 Y138.09 E9.78004
G1 X142.52 Y138.33 E9.81213
G1 X142.59 Y138.37 E9.81693
G1 X142.99 Y138.69 E9.84923
G1 X143.05 Y138.74 E9.85424
G1 X143.38 Y139.15 E9.88655
G1 X143.43 Y139.21 E9.89164
G1 X143.68 Y139.66 E9.92387
G1 X143.71 Y139.74 E9.92889
G1 X143.89 Y140.31 E9.96637
G1 X143.94 Y140.82 E9.99838
G1 X143.95 Y140.91 E10.00365
G1 X143.90 Y141.41 E10.03530
G1 X143.89 Y141.49 E10.04038
G1 X143.71 Y142.07 E10.07798
G1 X143.47 Y142.52 E10.10984
G1 X143.44 Y142.59 E10.11486
G1 X143.11 Y142.99 E10.14717
G1 X143.06 Y143.05 E10.15217
G1 X142.66 Y143.38 E10.18448
G1 X142.59 Y143.43 E10.18958
G1 X142.14 Y143.68 E10.22180
G1 X142.07 Y143.71 E10.22682
G1 X141.49 Y143.89 E10.26430
G1 X140.98 Y143.94 E10.29632
G1 X140.90 Y143.95 E10.30159
G1 X140.39 Y143.90 E10.33323
G1 X140.31 Y143.89 E10.33831
G1 X139.73 Y143.71 E10.37591
G1 X139.28 Y143.47 E10.40799
G1 X139.21 Y143.44 E10.41279
G1 X138.81 Y143.11 E10.44528
G1 X138.75 Y143.06 E10.45011
G1 X138.42 Y142.66 E10.48241
G1 X138.37 Y142.59 E10.48751
G1 X138.12 Y142.14 E10.51973
G1 X138.09 Y142.07 E10.52475
G1 X137.91 Y141.49 E10.56216
G1 X137.86 Y140.98 E10.59418
G1 X137.85 Y140.90 E10.59945
G1 X137.90 Y140.39 E10.63116
G1 X137.91 Y140.31 E10.63623
G1 X138.09 Y139.73 E10.67383
G1 X138.33 Y139.28 E10.70569
G1 X138.37 Y139.21 E10.71072
G1 X138.69 Y138.81 E10.74302
G1 X138.74 Y138.75 E10.74803
G0 F6000 X139.04 Y139.04
G1 F2700 X138.71 Y139.44 E10.78029
G1 X138.47 Y139.89 E10.81243
G1 X138.32 Y140.39 E10.84462
G1 X138.27 Y140.90 E10.87684
G1 X138.32 Y141.41 E10.90899
G1 X138.47 Y141.91 E10.94118
G1 X138.71 Y142.36 E10.97332
G1 X139.04 Y142.76 E11.00558
G1 X139.44 Y143.09 E11.03784
G1 X139.89 Y143.33 E11.06998
G1 X140.39 Y143.48 E11.10217
G1 X140.90 Y143.53 E11.13432
G1 X141.41 Y143.48 E11.16654
G1 X141.91 Y143.33 E11.19873
G1 X142.36 Y143.09 E11.23087
G1 X142.76 Y142.76 E11.26313
G1 X143.09 Y142.36 E11.29539
G1 X143.33 Y141.91 E11.32753
G1 X143.48 Y141.41 E11.35972
G1 X143.53 Y140.90 E11.39187
G1 X143.48 Y140.39 E11.42409
G1 X143.33 Y139.89 E11.45628
G1 X143.09 Y139.44 E11.48842
G1 X142.76 Y139.04 E11.52068
G1 X142.36 Y138.71 E11.55294
G1 X141.91 Y138.47 E11.58508
G1 X141.41 Y138.32 E11.61727
G1 X140.90 Y138.27 E11.64949
G1 X140.39 Y138.32 E11.68164
G1 X139.89 Y138.47 E11.71383
G1 X139.44 Y138.71 E11.74597
G1 X139.04 Y139.04 E11.77823
G0 F6000 X139.39 Y139.39
;TYPE:WALL-OUTER
G1 F2700 X139.13 Y139.72 E11.80433
G1 X138.93 Y140.09 E11.83034
G1 X138.81 Y140.49 E11.85640
G1 X138.77 Y140.90 E11.88247
G1 X138.81 Y141.32 E11.90847
G1 X138.93 Y141.72 E11.93453
G1 X139.13 Y142.08 E11.96054
G1 X139.39 Y142.41 E11.98664
G1 X139.72 Y142.67 E12.01274
G1 X140.09 Y142.87 E12.03874
G1 X140.49 Y142.99 E12.06480
G1 X140.90 Y143.03 E12.09081
G1 X141.32 Y142.99 E12.11688
G1 X141.72 Y142.87 E12.14294
G1 X142.08 Y142.67 E12.16894
G1 X142.41 Y142.41 E12.19505
G1 X142.67 Y142.08 E12.22115
G1 X142.87 Y141.72 E12.24715
G1 X142.99 Y141.32 E12.27321
G1 X143.03 Y140.90 E12.29922
G1 X142.99 Y140.49 E12.32529
G1 X142.87 Y140.09 E12.35135
G1 X142.67 Y139.72 E12.37735
G1 X142.41 Y139.39 E12.40345
G1 X142.08 Y139.13 E12.42956
G1 X141.72 Y138.93 E12.45556
G1 X141.32 Y138.81 E12.48162
G1 X140.90 Y138.77 E12.50769
G1 X140.49 Y138.81 E12.53369
G1 X140.09 Y138.93 E12.55976
G1 X139.72 Y139.13 E12.58576
G1 X139.39 Y139.39 E12.61186
G0 F6000 X138.31 Y138.49
G1 F2700 X138.39 Y138.39 E12.61997
G1 X138.83 Y138.03 E12.65528
G1 X138.93 Y137.95 E12.66330
G1 X139.43 Y137.68 E12.69865
G1 X139.54 Y137.62 E12.70685
G1 X140.21 Y137.42 E12.75012
G1 X140.77 Y137.37 E12.78539
G1 X140.90 Y137.35 E12.79367
G1 X141.46 Y137.41 E12.82870
G1 X141.59 Y137.42 E12.83710
G1 X142.26 Y137.62 E12.88017
G1 X142.76 Y137.89 E12.91557
G1 X142.87 Y137.95 E12.92372
G1 X143.31 Y138.31 E12.95891
G1 X143.41 Y138.39 E12.96702
G1 X143.77 Y138.83 E13.00233
G1 X143.85 Y138.93 E13.01026
G1 X144.12 Y139.43 E13.04570
G1 X144.18 Y139.54 E13.05390
G1 X144.38 Y140.21 E13.09716
G1 X144.44 Y140.77 E13.13250
G1 X144.45 Y140.90 E13.14078
G1 X144.39 Y141.46 E13.17575
G1 X144.38 Y141.59 E13.18415
G1 X144.18 Y142.26 E13.22722
G1 X143.91 Y142.76 E13.26254
G1 X143.85 Y142.87 E13.27077
G1 X143.49 Y143.31 E13.30596
G1 X143.41 Y143.41 E13.31406
G1 X142.97 Y143.77 E13.34938
G1 X142.87 Y143.85 E13.35740
G1 X142.37 Y144.12 E13.39275
G1 X142.26 Y144.18 E13.40095
G1 X141.59 Y144.38 E13.44421
G1 X141.03 Y144.44 E13.47955
G1 X140.90 Y144.45 E13.48783
G1 X140.34 Y144.39 E13.52280
G1 X140.21 Y144.38 E13.53120
G1 X139.54 Y144.18 E13.57427
G1 X139.04 Y143.91 E13.60967
G1 X138.93 Y143.85 E13.61782
G1 X138.49 Y143.49 E13.65310
G1 X138.39 Y143.41 E13.66111
G1 X138.03 Y142.97 E13.69643
G1 X137.95 Y142.87 E13.70445
G1 X137.68 Y142.37 E13.73980
G1 X137.62 Y142.26 E13.74800
G1 X137.42 Y141.59 E13.79126
G1 X137.37 Y141.03 E13.82654
G1 X137.35 Y140.90 E13.83482
G1 X137.41 Y140.34 E13.86985
G1 X137.42 Y140.21 E13.87825
G1 X137.62 Y139.54 E13.92132
G1 X137.89 Y139.04 E13.95664
G1 X137.95 Y138.93 E13.96487
G1 X138.31 Y138.49 E14.00006
G0 F6000 X140.31 Y149.51
;TYPE:WALL-INNER
G1 F2700 X140.82 Y149.46 E14.03208
G1 X140.90 Y149.45 E14.03735
G1 X141.41 Y149.50 E14.06906
G1 X141.49 Y149.51 E14.07413
G1 X142.07 Y149.69 E14.11173
G1 X142.52 Y149.93 E14.14382
G1 X142.59 Y149.97 E14.14862
G1 X142.99 Y150.29 E14.18092
G1 X143.05 Y150.34 E14.18593
G1 X143.38 Y150.75 E14.21824
G1 X143.43 Y150.81 E14.22333
G1 X143.68 Y151.26 E14.25556
G1 X143.71 Y151.34 E14.26058
G1 X143.89 Y151.91 E14.29798
G1 X143.94 Y152.42 E14.33000
G1 X143.95 Y152.50 E14.33527
G1 X143.90 Y153.01 E14.36692
G1 X143.89 Y153.09 E14.37199
G1 X143.71 Y153.67 E14.40960
G1 X143.47 Y154.12 E14.44146
G1 X143.44 Y154.19 E14.44648
G1 X143.11 Y154.59 E14.47879
G1 X143.06 Y154.65 E14.48379
G1 X142.66 Y154.98 E14.51610
G1 X142.59 Y155.03 E14.52119
G1 X142.14 Y155.28 E14.55342
G1 X142.07 Y155.31 E14.55844
G1 X141.49 Y155.49 E14.59592
G1 X140.98 Y155.54 E14.62793
G1 X140.90 Y155.55 E14.63320
G1 X140.39 Y155.50 E14.66485
G1 X140.31 Y155.49 E14.66993
G1 X139.73 Y155.31 E14.70753
G1 X139.28 Y155.07 E14.73961
G1 X139.21 Y155.03 E14.74441
G1 X138.81 Y154.71 E14.77689
G1 X138.75 Y154.66 E14.78172
G1 X138.42 Y154.25 E14.81403
G1 X138.37 Y154.19 E14.81913
G1 X138.12 Y153.74 E14.85135
G1 X138.09 Y153.66 E14.85637
G1 X137.91 Y153.09 E14.89378
G1 X137.86 Y152.58 E14.92580
G1 X137.85 Y152.50 E14.93106
G1 X137.90 Y151.99 E14.96271
G1 X137.91 Y151.91 E14.96779
G1 X138.09 Y151.33 E15.00539
G1 X138.33 Y150.88 E15.03725
G1 X138.37 Y150.81 E15.04227
G1 X138.69 Y150.41 E15.07458
G1 X138.74 Y150.35 E15.07959
G1 X139.15 Y150.02 E15.11189
G1 X139.21 Y149.97 E15.11699
G1 X139.66 Y149.72 E15.14921
G1 X139.74 Y149.69 E15.15423
G1 X140.31 Y149.51 E15.19164
G0 F6000 X140.39 Y149.92
G1 F2700 X139.89 Y150.07 E15.22383
G1 X139.44 Y150.31 E15.25597
G1 X139.04 Y150.64 E15.28823
G1 X138.71 Y151.04 E15.32049
G1 X138.47 Y151.49 E15.35263
G1 X138.32 Y151.99 E15.38483
G1 X138.27 Y152.50 E15.41698
G1 X138.32 Y153.01 E15.44913
G1 X138.47 Y153.51 E15.48132
G1 X138.71 Y153.96 E15.51346
G1 X139.04 Y154.36 E15.54572
G1 X139.44 Y154.69 E15.57798
G1 X139.89 Y154.93 E15.61012
G1 X140.39 Y155.08 E15.64231
G1 X140.90 Y155.13 E15.67446
G1 X141.41 Y155.08 E15.70668
G1 X141.91 Y154.93 E15.73887
G1 X142.36 Y154.69 E15.77101
G1 X142.76 Y154.36 E15.80327
G1 X143.09 Y153.96 E15.83553
G1 X143.33 Y153.51 E15.86767
G1 X143.48 Y153.01 E15.89986
G1 X143.53 Y152.50 E15.93201
G1 X143.48 Y151.99 E15.96416
G1 X143.33 Y151.49 E15.99636
G1 X143.09 Y151.04 E16.02850
G1 X142.76 Y150.64 E16.06076
G1 X142.36 Y150.31 E16.09302
G1 X141.91 Y150.07 E16.12516
G1 X141.41 Y149.92 E16.15735
G1 X140.90 Y149.87 E16.18956
G1 X140.39 Y149.92 E16.22171
G0 F6000 X140.49 Y150.41
;TYPE:WALL-OUTER
G1 F2700 X140.09 Y150.53 E16.24778
G1 X139.72 Y150.73 E16.27378
G1 X139.39 Y150.99 E16.29988
G1 X139.13 Y151.32 E16.32598
G1 X138.93 Y151.69 E16.35199
G1 X138.81 Y152.09 E16.37805
G1 X138.77 Y152.50 E16.40405
G1 X138.81 Y152.91 E16.43006
G1 X138.93 Y153.31 E16.45612
G1 X139.13 Y153.68 E16.48212
G1 X139.39 Y154.01 E16.50823
G1 X139.72 Y154.27 E16.53433
G1 X140.09 Y154.47 E16.56033
G1 X140.49 Y154.59 E16.58639
G1 X140.90 Y154.63 E16.61240
G1 X141.32 Y154.59 E16.63847
G1 X141.72 Y154.47 E16.66453
G1 X142.08 Y154.27 E16.69053
G1 X142.41 Y154.01 E16.71663
G1 X142.67 Y153.68 E16.74274
G1 X142.87 Y153.31 E16.76874
G1 X142.99 Y152.91 E16.79480
G1 X143.03 Y152.50 E16.82081
G1 X142.99 Y152.09 E16.84681
G1 X142.87 Y151.69 E16.87287
G1 X142.67 Y151.32 E16.89888
G1 X142.41 Y150.99 E16.92498
G1 X142.08 Y150.73 E16.95108
G1 X141.72 Y150.53 E16.97708
G1 X141.32 Y150.41 E17.00315
G1 X140.90 Y150.37 E17.02921
G1 X140.49 Y150.41 E17.05522
G0 F6000 X140.21 Y149.02
G1 F2700 X140.77 Y148.97 E17.09050
G1 X140.90 Y148.95 E17.09878
G1 X141.46 Y149.01 E17.13381
G1 X141.59 Y149.02 E17.14221
G1 X142.26 Y149.22 E17.18527
G1 X142.76 Y149.49 E17.22068
G1 X142.87 Y149.55 E17.22883
G1 X143.31 Y149.91 E17.26402
G1 X143.41 Y149.99 E17.27212
G1 X143.77 Y150.43 E17.30744
G1 X143.85 Y150.53 E17.31537
G1 X144.12 Y151.03 E17.35080
G1 X144.18 Y151.14 E17.35900
G1 X144.38 Y151.81 E17.40227
G1 X144.44 Y152.37 E17.43754
G1 X144.45 Y152.50 E17.44582
G1 X144.39 Y153.06 E17.48079
G1 X144.38 Y153.19 E17.48919
G1 X144.18 Y153.85 E17.53226
G1 X143.91 Y154.35 E17.56758
G1 X143.85 Y154.47 E17.57581
G1 X143.49 Y154.91 E17.61100
G1 X143.41 Y155.01 E17.61911
G1 X142.97 Y155.37 E17.65442
G1 X142.87 Y155.45 E17.66244
G1 X142.37 Y155.72 E17.69779
G1 X142.26 Y155.78 E17.70599
G1 X141.59 Y155.98 E17.74926
G1 X141.03 Y156.03 E17.78460
G1 X140.90 Y156.05 E17.79287
G1 X140.34 Y155.99 E17.82784
G1 X140.21 Y155.98 E17.83624
G1 X139.54 Y155.78 E17.87931
G1 X139.04 Y155.51 E17.91471
G1 X138.93 Y155.45 E17.92286
G1 X138.49 Y155.09 E17.95814
G1 X138.39 Y155.01 E17.96616
G1 X138.03 Y154.57 E18.00147
G1 X137.95 Y154.47 E18.00949
G1 X137.68 Y153.97 E18.04484
G1 X137.62 Y153.86 E18.05304
G1 X137.42 Y153.19 E18.09631
G1 X137.37 Y152.63 E18.13158
G1 X137.35 Y152.50 E18.13986
G1 X137.41 Y151.94 E18.17483
G1 X137.42 Y151.81 E18.18323
G1 X137.62 Y151.15 E18.22630
G1 X137.89 Y150.65 E18.26162
G1 X137.95 Y150.53 E18.26985
G1 X138.31 Y150.09 E18.30504
G1 X138.39 Y149.99 E18.31314
G1 X138.83 Y149.63 E18.34846
G1 X138.93 Y149.55 E18.35648
G1 X139.43 Y149.28 E18.39183
G1 X139.54 Y149.22 E18.40003
G1 X140.21 Y149.02 E18.44329
G0 F6000 X140.90 Y161.05
;TYPE:WALL-INNER
G1 F2700 X141.41 Y161.10 E18.47500
G1 X141.49 Y161.11 E18.48008
G1 X142.07 Y161.29 E18.51768
G1 X142.52 Y161.53 E18.54977
G1 X142.59 Y161.56 E18.55456
G1 X142.99 Y161.89 E18.58687
G1 X143.05 Y161.94 E18.59188
G1 X143.38 Y162.34 E18.62419
G1 X143.43 Y162.41 E18.62928
G1 X143.68 Y162.86 E18.66150
G1 X143.71 Y162.93 E18.66652
G1 X143.89 Y163.51 E18.70401
G1 X143.94 Y164.02 E18.73602
G1 X143.95 Y164.10 E18.74129
G1 X143.90 Y164.61 E18.77294
G1 X143.89 Y164.69 E18.77801
G1 X143.71 Y165.27 E18.81561
G1 X143.47 Y165.72 E18.84747
G1 X143.44 Y165.79 E18.85250
G1 X143.11 Y166.19 E18.88480
G1 X143.06 Y166.25 E18.88981
G1 X142.66 Y166.58 E18.92212
G1 X142.59 Y166.63 E18.92721
G1 X142.14 Y166.88 E18.95944
G1 X142.07 Y166.91 E18.96446
G1 X141.49 Y167.09 E19.00194
G1 X140.98 Y167.14 E19.03395
G1 X140.90 Y167.15 E19.03922
G1 X140.39 Y167.10 E19.07087
G1 X140.31 Y167.09 E19.07595
G1 X139.73 Y166.91 E19.11355
G1 X139.28 Y166.67 E19.14563
G1 X139.21 Y166.63 E19.15043
G1 X138.81 Y166.31 E19.18291
G1 X138.75 Y166.26 E19.18774
G1 X138.42 Y165.85 E19.22005
G1 X138.37 Y165.79 E19.22515
G1 X138.12 Y165.34 E19.25737
G1 X138.09 Y165.26 E19.26239
G1 X137.91 Y164.69 E19.29980
G1 X137.86 Y164.18 E19.33182
G1 X137.85 Y164.10 E19.33708
G1 X137.90 Y163.59 E19.36879
G1 X137.91 Y163.51 E19.37387
G1 X138.09 Y162.93 E19.41147
G1 X138.33 Y162.48 E19.44333
G1 X138.37 Y162.41 E19.44835
G1 X138.69 Y162.01 E19.48066
G1 X138.74 Y161.95 E19.48567
G1 X139.15 Y161.62 E19.51797
G1 X139.21 Y161.57 E19.52307
G1 X139.66 Y161.32 E19.55529
G1 X139.74 Y161.29 E19.56031
G1 X140.31 Y161.11 E19.59772
G1 X140.82 Y161.06 E19.62974
G1 X140.90 Y161.05 E19.63501
G0 F6000 X140.90 Y161.47
G1 F2700 X140.39 Y161.52 E19.66716
G1 X139.89 Y161.67 E19.69935
G1 X139.44 Y161.91 E19.73149
G1 X139.04 Y162.24 E19.76375
G1 X138.71 Y162.64 E19.79601
G1 X138.47 Y163.09 E19.82815
G1 X138.32 Y163.59 E19.86035
G1 X138.27 Y164.10 E19.89256
G1 X138.32 Y164.61 E19.92471
G1 X138.47 Y165.11 E19.95690
G1 X138.71 Y165.56 E19.98904
G1 X139.04 Y165.96 E20.02130
G1 X139.44 Y166.29 E20.05356
G1 X139.89 Y166.53 E20.08570
G1 X140.39 Y166.68 E20.11790
G1 X140.90 Y166.73 E20.15005
G1 X141.41 Y166.68 E20.18226
G1 X141.91 Y166.53 E20.21445
G1 X142.36 Y166.29 E20.24659
G1 X142.76 Y165.96 E20.27885
G1 X143.09 Y165.56 E20.31111
G1 X143.33 Y165.11 E20.34325
G1 X143.48 Y164.61 E20.37545
G1 X143.53 Y164.10 E20.40760
G1 X143.48 Y163.59 E20.43981
G1 X143.33 Y163.09 E20.47200
G1 X143.09 Y162.64 E20.50414
G1 X142.76 Y162.24 E20.53640
G1 X142.36 Y161.91 E20.56866
G1 X141.91 Y161.67 E20.60080
G1 X141.41 Y161.52 E20.63300
G1 X140.90 Y161.47 E20.66521
G0 F6000 X140.90 Y161.97
;TYPE:WALL-OUTER
G1 F2700 X140.49 Y162.01 E20.69121
G1 X140.09 Y162.13 E20.71728
G1 X139.72 Y162.33 E20.74328
G1 X139.39 Y162.59 E20.76938
G1 X139.13 Y162.92 E20.79548
G1 X138.93 Y163.28 E20.82149
G1 X138.81 Y163.68 E20.84755
G1 X138.77 Y164.10 E20.87362
G1 X138.81 Y164.51 E20.89962
G1 X138.93 Y164.91 E20.92568
G1 X139.13 Y165.28 E20.95168
G1 X139.39 Y165.61 E20.97779
G1 X139.72 Y165.87 E21.00389
G1 X140.09 Y166.07 E21.02989
G1 X140.49 Y166.19 E21.05595
G1 X140.90 Y166.23 E21.08196
G1 X141.32 Y166.19 E21.10803
G1 X141.72 Y166.07 E21.13409
G1 X142.08 Y165.87 E21.16009
G1 X142.41 Y165.61 E21.18620
G1 X142.67 Y165.28 E21.21230
G1 X142.87 Y164.91 E21.23830
G1 X142.99 Y164.51 E21.26436
G1 X143.03 Y164.10 E21.29037
G1 X142.99 Y163.68 E21.31644
G1 X142.87 Y163.28 E21.34250
G1 X142.67 Y162.92 E21.36850
G1 X142.41 Y162.59 E21.39460
G1 X142.08 Y162.33 E21.42071
G1 X141.72 Y162.13 E21.44671
G1 X141.32 Y162.01 E21.47277
G1 X140.90 Y161.97 E21.49884
G0 F6000 X140.77 Y160.56
G1 F2700 X140.90 Y160.55 E21.50712
G1 X141.46 Y160.61 E21.54215
G1 X141.59 Y160.62 E21.55055
G1 X142.26 Y160.82 E21.59361
G1 X142.76 Y161.09 E21.62902
G1 X142.87 Y161.15 E21.63717
G1 X143.31 Y161.51 E21.67236
G1 X143.41 Y161.59 E21.68046
G1 X143.77 Y162.03 E21.71578
G1 X143.85 Y162.12 E21.72371
G1 X144.12 Y162.63 E21.75914
G1 X144.18 Y162.74 E21.76734
G1 X144.38 Y163.41 E21.81061
G1 X144.44 Y163.97 E21.84595
G1 X144.45 Y164.10 E21.85423
G1 X144.39 Y164.66 E21.88919
G1 X144.38 Y164.79 E21.89759
G1 X144.18 Y165.46 E21.94066
G1 X143.91 Y165.96 E21.97598
G1 X143.85 Y166.07 E21.98421
G1 X143.49 Y166.51 E22.01940
G1 X143.41 Y166.61 E22.02751
G1 X142.97 Y166.97 E22.06283
G1 X142.87 Y167.05 E22.07084
G1 X142.37 Y167.32 E22.10619
G1 X142.26 Y167.38 E22.11439
G1 X141.59 Y167.58 E22.15766
G1 X141.03 Y167.63 E22.19300
G1 X140.90 Y167.65 E22.20128
G1 X140.34 Y167.59 E22.23624
G1 X140.21 Y167.58 E22.24464
G1 X139.54 Y167.38 E22.28771
G1 X139.04 Y167.11 E22.32312
G1 X138.93 Y167.05 E22.33126
G1 X138.49 Y166.69 E22.36654
G1 X138.39 Y166.61 E22.37456
G1 X138.03 Y166.17 E22.40988
G1 X137.95 Y166.07 E22.41789
G1 X137.68 Y165.57 E22.45324
G1 X137.62 Y165.46 E22.46144
G1 X137.42 Y164.79 E22.50471
G1 X137.37 Y164.23 E22.53999
G1 X137.35 Y164.10 E22.54826
G1 X137.41 Y163.54 E22.58329
G1 X137.42 Y163.41 E22.59169
G1 X137.62 Y162.74 E22.63476
G1 X137.89 Y162.24 E22.67008
G1 X137.95 Y162.13 E22.67831
G1 X138.31 Y161.69 E22.71350
G1 X138.39 Y161.59 E22.72161
G1 X138.83 Y161.23 E22.75693
G1 X138.93 Y161.15 E22.76494
G1 X139.43 Y160.88 E22.80029
G1 X139.54 Y160.82 E22.80849
G1 X140.21 Y160.62 E22.85176
G1 X140.77 Y160.56 E22.88704
G0 F6000 X149.51 Y163.51
;TYPE:WALL-INNER
G1 F2700 X149.69 Y162.93 E22.92464
G1 X149.93 Y162.48 E22.95650
G1 X149.97 Y162.41 E22.96152
G1 X150.29 Y162.01 E22.99383
G1 X150.34 Y161.95 E22.99883
G1 X150.75 Y161.62 E23.03114
G1 X150.81 Y161.57 E23.03624
G1 X151.26 Y161.32 E23.06846
G1 X151.34 Y161.29 E23.07348
G1 X151.91 Y161.11 E23.11089
G1 X152.42 Y161.06 E23.14291
G1 X152.50 Y161.05 E23.14817
G1 X153.01 Y161.10 E23.17982
G1 X153.09 Y161.11 E23.18490
G1 X153.67 Y161.29 E23.22250
G1 X154.12 Y161.53 E23.25458
G1 X154.19 Y161.56 E23.25938
G1 X154.59 Y161.89 E23.29169
G1 X154.65 Y161.94 E23.29670
G1 X154.98 Y162.34 E23.32900
G1 X155.03 Y162.41 E23.33410
G1 X155.28 Y162.86 E23.36632
G1 X155.31 Y162.93 E23.37134
G1 X155.49 Y163.51 E23.40882
G1 X155.54 Y164.02 E23.44084
G1 X155.55 Y164.10 E23.44611
G1 X155.50 Y164.61 E23.47775
G1 X155.49 Y164.69 E23.48283
G1 X155.31 Y165.27 E23.52043
G1 X155.07 Y165.72 E23.55229
G1 X155.03 Y165.79 E23.55731
G1 X154.71 Y166.19 E23.58962
G1 X154.66 Y166.25 E23.59463
G1 X154.25 Y166.58 E23.62694
G1 X154.19 Y166.63 E23.63203
G1 X153.74 Y166.88 E23.66425
G1 X153.66 Y166.91 E23.66928
G1 X153.09 Y167.09 E23.70668
G1 X152.58 Y167.14 E23.73870
G1 X152.50 Y167.15 E23.74397
G1 X151.99 Y167.10 E23.77562
G1 X151.91 Y167.09 E23.78069
G1 X151.33 Y166.91 E23.81829
G1 X150.88 Y166.67 E23.85038
G1 X150.81 Y166.63 E23.85518
G1 X150.41 Y166.31 E23.88766
G1 X150.35 Y166.26 E23.89249
G1 X150.02 Y165.85 E23.92480
G1 X149.97 Y165.79 E23.92989
G1 X149.72 Y165.34 E23.96211
G1 X149.69 Y165.26 E23.96714
G1 X149.51 Y164.69 E24.00454
G1 X149.46 Y164.18 E24.03656
G1 X149.45 Y164.10 E24.04183
G1 X149.50 Y163.59 E24.07354
G1 X149.51 Y163.51 E24.07861
G0 F6000 X149.92 Y163.59
G1 F2700 X149.87 Y164.10 E24.11083
G1 X149.92 Y164.61 E24.14298
G1 X150.07 Y165.11 E24.17517
G1 X150.31 Y165.56 E24.20731
G1 X150.64 Y165.96 E24.23957
G1 X151.04 Y166.29 E24.27183
G1 X151.49 Y166.53 E24.30397
G1 X151.99 Y166.68 E24.33616
G1 X152.50 Y166.73 E24.36831
G1 X153.01 Y166.68 E24.40046
G1 X153.51 Y166.53 E24.43266
G1 X153.96 Y166.29 E24.46480
G1 X154.36 Y165.96 E24.49706
G1 X154.69 Y165.56 E24.52932
G1 X154.93 Y165.11 E24.56146
G1 X155.08 Y164.61 E24.59365
G1 X155.13 Y164.10 E24.62580
G1 X155.08 Y163.59 E24.65801
G1 X154.93 Y163.09 E24.69021
G1 X154.69 Y162.64 E24.72235
G1 X154.36 Y162.24 E24.75461
G1 X153.96 Y161.91 E24.78687
G1 X153.51 Y161.67 E24.81901
G1 X153.01 Y161.52 E24.85120
G1 X152.50 Y161.47 E24.88335
G1 X151.99 Y161.52 E24.91550
G1 X151.49 Y161.67 E24.94770
G1 X151.04 Y161.91 E24.97984
G1 X150.64 Y162.24 E25.01210
G1 X150.31 Y162.64 E25.04436
G1 X150.07 Y163.09 E25.07650
G1 X149.92 Y163.59 E25.10869
G0 F6000 X150.41 Y163.68
;TYPE:WALL-OUTER
G1 F2700 X150.37 Y164.10 E25.13476
G1 X150.41 Y164.51 E25.16077
G1 X150.53 Y164.91 E25.18683
G1 X150.73 Y165.28 E25.21283
G1 X150.99 Y165.61 E25.23893
G1 X151.32 Y165.87 E25.26504
G1 X151.69 Y166.07 E25.29104
G1 X152.09 Y166.19 E25.31710
G1 X152.50 Y166.23 E25.34311
G1 X152.91 Y166.19 E25.36911
G1 X153.31 Y166.07 E25.39517
G1 X153.68 Y165.87 E25.42117
G1 X154.01 Y165.61 E25.44728
G1 X154.27 Y165.28 E25.47338
G1 X154.47 Y164.91 E25.49938
G1 X154.59 Y164.51 E25.52544
G1 X154.63 Y164.10 E25.55145
G1 X154.59 Y163.68 E25.57752
G1 X154.47 Y163.28 E25.60358
G1 X154.27 Y162.92 E25.62958
G1 X154.01 Y162.59 E25.65569
G1 X153.68 Y162.33 E25.68179
G1 X153.31 Y162.13 E25.70779
G1 X152.91 Y162.01 E25.73385
G1 X152.50 Y161.97 E25.75986
G1 X152.09 Y162.01 E25.78586
G1 X151.69 Y162.13 E25.81193
G1 X151.32 Y162.33 E25.83793
G1 X150.99 Y162.59 E25.86403
G1 X150.73 Y162.92 E25.89013
G1 X150.53 Y163.28 E25.91614
G1 X150.41 Y163.68 E25.94220
G0 F6000 X149.01 Y163.54
G1 F2700 X149.02 Y163.41 E25.95060
G1 X149.22 Y162.74 E25.99367
G1 X149.49 Y162.24 E26.02899
G1 X149.55 Y162.13 E26.03722
G1 X149.91 Y161.69 E26.07241
G1 X149.99 Y161.59 E26.08051
G1 X150.43 Y161.23 E26.11583
G1 X150.53 Y161.15 E26.12385
G1 X151.03 Y160.88 E26.15920
G1 X151.14 Y160.82 E26.16740
G1 X151.81 Y160.62 E26.21066
G1 X152.37 Y160.56 E26.24594
G1 X152.50 Y160.55 E26.25422
G1 X153.06 Y160.61 E26.28919
G1 X153.19 Y160.62 E26.29759
G1 X153.85 Y160.82 E26.34066
G1 X154.36 Y161.09 E26.37606
G1 X154.47 Y161.15 E26.38421
G1 X154.91 Y161.51 E26.41940
G1 X155.01 Y161.59 E26.42750
G1 X155.37 Y162.03 E26.46282
G1 X155.45 Y162.12 E26.47075
G1 X155.72 Y162.63 E26.50618
G1 X155.78 Y162.74 E26.51438
G1 X155.98 Y163.41 E26.55765
G1 X156.03 Y163.97 E26.59299
G1 X156.05 Y164.10 E26.60127
G1 X155.99 Y164.66 E26.63623
G1 X155.98 Y164.79 E26.64463
G1 X155.78 Y165.46 E26.68770
G1 X155.51 Y165.96 E26.72302
G1 X155.45 Y166.07 E26.73125
G1 X155.09 Y166.51 E26.76644
G1 X155.01 Y166.61 E26.77455
G1 X154.57 Y166.97 E26.80987
G1 X154.47 Y167.05 E26.81788
G1 X153.97 Y167.32 E26.85323
G1 X153.86 Y167.38 E26.86143
G1 X153.19 Y167.58 E26.90470
G1 X152.63 Y167.63 E26.93998
G1 X152.50 Y167.65 E26.94825
G1 X151.94 Y167.59 E26.98322
G1 X151.81 Y167.58 E26.99162
G1 X151.15 Y167.38 E27.03469
G1 X150.64 Y167.11 E27.07009
G1 X150.53 Y167.05 E27.07824
G1 X150.09 Y166.69 E27.11352
G1 X149.99 Y166.61 E27.12154
G1 X149.63 Y166.17 E27.15685
G1 X149.55 Y166.07 E27.16487
G1 X149.28 Y165.57 E27.20022
G1 X149.22 Y165.46 E27.20842
G1 X149.02 Y164.79 E27.25169
G1 X148.97 Y164.23 E27.28696
G1 X148.95 Y164.10 E27.29524
G1 X149.01 Y163.54 E27.33027
G0 F6000 X161.05 Y164.10
;TYPE:WALL-INNER
G1 F2700 X161.10 Y163.59 E27.36198
G1 X161.11 Y163.51 E27.36706
G1 X161.29 Y162.93 E27.40466
G1 X161.53 Y162.48 E27.43652
G1 X161.56 Y162.41 E27.44154
G1 X161.89 Y162.01 E27.47385
G1 X161.94 Y161.95 E27.47885
G1 X162.34 Y161.62 E27.51116
G1 X162.41 Y161.57 E27.51626
G1 X162.86 Y161.32 E27.54848
G1 X162.93 Y161.29 E27.55350
G1 X163.51 Y161.11 E27.59091
G1 X164.02 Y161.06 E27.62293
G1 X164.10 Y161.05 E27.62819
G1 X164.61 Y161.10 E27.65990
G1 X164.69 Y161.11 E27.66498
G1 X165.27 Y161.29 E27.70258
G1 X165.72 Y161.53 E27.73467
G1 X165.79 Y161.56 E27.73946
G1 X166.19 Y161.89 E27.77177
G1 X166.25 Y161.94 E27.77678
G1 X166.58 Y162.34 E27.80909
G1 X166.63 Y162.41 E27.81418
G1 X166.88 Y162.86 E27.84640
G1 X166.91 Y162.93 E27.85143
G1 X167.09 Y163.51 E27.88891
G1 X167.14 Y164.02 E27.92092
G1 X167.15 Y164.10 E27.92619
G1 X167.10 Y164.61 E27.95784
G1 X167.09 Y164.69 E27.96291
G1 X166.91 Y165.27 E28.00051
G1 X166.67 Y165.72 E28.03237
G1 X166.63 Y165.79 E28.03740
G1 X166.31 Y166.19 E28.06970
G1 X166.26 Y166.25 E28.07471
G1 X165.85 Y166.58 E28.10702
G1 X165.79 Y166.63 E28.11211
G1 X165.34 Y166.88 E28.14434
G1 X165.26 Y166.91 E28.14936
G1 X164.69 Y167.09 E28.18676
G1 X164.18 Y167.14 E28.21878
G1 X164.10 Y167.15 E28.22405
G1 X163.59 Y167.10 E28.25576
G1 X163.51 Y167.09 E28.26084
G1 X162.93 Y166.91 E28.29844
G1 X162.48 Y166.67 E28.33052
G1 X162.41 Y166.63 E28.33532
G1 X162.01 Y166.31 E28.36780
G1 X161.95 Y166.26 E28.37263
G1 X161.62 Y165.85 E28.40494
G1 X161.57 Y165.79 E28.41004
G1 X161.32 Y165.34 E28.44226
G1 X161.29 Y165.26 E28.44728
G1 X161.11 Y164.69 E28.48469
G1 X161.06 Y164.18 E28.51671
G1 X161.05 Y164.10 E28.52197
G0 F6000 X161.47 Y164.10
G1 F2700 X161.52 Y164.61 E28.55412
G1 X161.67 Y165.11 E28.58632
G1 X161.91 Y165.56 E28.61846
G1 X162.24 Y165.96 E28.65072
G1 X162.64 Y166.29 E28.68298
G1 X163.09 Y166.53 E28.71512
G1 X163.59 Y166.68 E28.74731
G1 X164.10 Y166.73 E28.77952
G1 X164.61 Y166.68 E28.81167
G1 X165.11 Y166.53 E28.84387
G1 X165.56 Y166.29 E28.87601
G1 X165.96 Y165.96 E28.90827
G1 X166.29 Y165.56 E28.94053
G1 X166.53 Y165.11 E28.97267
G1 X166.68 Y164.61 E29.00486
G1 X166.73 Y164.10 E29.03701
G1 X166.68 Y163.59 E29.06922
G1 X166.53 Y163.09 E29.10142
G1 X166.29 Y162.64 E29.13356
G1 X165.96 Y162.24 E29.16582
G1 X165.56 Y161.91 E29.19808
G1 X165.11 Y161.67 E29.23022
G1 X164.61 Y161.52 E29.26241
G1 X164.10 Y161.47 E29.29462
G1 X163.59 Y161.52 E29.32677
G1 X163.09 Y161.67 E29.35897
G1 X162.64 Y161.91 E29.39111
G1 X162.24 Y162.24 E29.42337
G1 X161.91 Y162.64 E29.45563
G1 X161.67 Y163.09 E29.48777
G1 X161.52 Y163.59 E29.51996
G1 X161.47 Y164.10 E29.55217
G0 F6000 X161.97 Y164.10
;TYPE:WALL-OUTER
G1 F2700 X162.01 Y164.51 E29.57818
G1 X162.13 Y164.91 E29.60424
G1 X162.33 Y165.28 E29.63024
G1 X162.59 Y165.61 E29.65635
G1 X162.92 Y165.87 E29.68245
G1 X163.28 Y166.07 E29.70845
G1 X163.68 Y166.19 E29.73451
G1 X164.10 Y166.23 E29.76058
G1 X164.51 Y166.19 E29.78659
G1 X164.91 Y166.07 E29.81265
G1 X165.28 Y165.87 E29.83865
G1 X165.61 Y165.61 E29.86476
G1 X165.87 Y165.28 E29.89086
G1 X166.07 Y164.91 E29.91686
G1 X166.19 Y164.51 E29.94292
G1 X166.23 Y164.10 E29.96893
G1 X166.19 Y163.68 E29.99500
G1 X166.07 Y163.28 E30.02106
G1 X165.87 Y162.92 E30.04706
G1 X165.61 Y162.59 E30.07316
G1 X165.28 Y162.33 E30.09927
G1 X164.91 Y162.13 E30.12527
G1 X164.51 Y162.01 E30.15133
G1 X164.10 Y161.97 E30.17740
G1 X163.68 Y162.01 E30.20340
G1 X163.28 Y162.13 E30.22947
G1 X162.92 Y162.33 E30.25547
G1 X162.59 Y162.59 E30.28157
G1 X162.33 Y162.92 E30.30767
G1 X162.13 Y163.28 E30.33368
G1 X162.01 Y163.68 E30.35974
G1 X161.97 Y164.10 E30.38581
G0 F6000 X160.56 Y164.23
G1 F2700 X160.55 Y164.10 E30.39408
G1 X160.61 Y163.54 E30.42911
G1 X160.62 Y163.41 E30.43751
G1 X160.82 Y162.74 E30.48058
G1 X161.09 Y162.24 E30.51590
G1 X161.15 Y162.13 E30.52413
G1 X161.51 Y161.69 E30.55932
G1 X161.59 Y161.59 E30.56743
G1 X162.03 Y161.23 E30.60275
G1 X162.13 Y161.15 E30.61076
G1 X162.63 Y160.88 E30.64611
G1 X162.74 Y160.82 E30.65431
G1 X163.41 Y160.62 E30.69758
G1 X163.97 Y160.56 E30.73286
G1 X164.10 Y160.55 E30.74113
G1 X164.66 Y160.61 E30.77616
G1 X164.79 Y160.62 E30.78456
G1 X165.46 Y160.82 E30.82763
G1 X165.96 Y161.09 E30.86304
G1 X166.07 Y161.15 E30.87118
G1 X166.51 Y161.51 E30.90637
G1 X166.61 Y161.59 E30.91448
G1 X166.97 Y162.03 E30.94980
G1 X167.05 Y162.12 E30.95773
G1 X167.32 Y162.63 E30.99316
G1 X167.38 Y162.74 E31.00136
G1 X167.58 Y163.41 E31.04463
G1 X167.63 Y163.97 E31.07996
G1 X167.65 Y164.10 E31.08824
G1 X167.59 Y164.66 E31.12321
G1 X167.58 Y164.79 E31.13161
G1 X167.38 Y165.46 E31.17468
G1 X167.11 Y165.96 E31.21000
G1 X167.05 Y166.07 E31.21823
G1 X166.69 Y166.51 E31.25342
G1 X166.61 Y166.61 E31.26153
G1 X166.17 Y166.97 E31.29684
G1 X166.07 Y167.05 E31.30486
G1 X165.57 Y167.32 E31.34021
G1 X165.46 Y167.38 E31.34841
G1 X164.79 Y167.58 E31.39168
G1 X164.23 Y167.63 E31.42695
G1 X164.10 Y167.65 E31.43523
G1 X163.54 Y167.59 E31.47026
G1 X163.41 Y167.58 E31.47866
G1 X162.74 Y167.38 E31.52173
G1 X162.24 Y167.11 E31.55713
G1 X162.13 Y167.05 E31.56528
G1 X161.69 Y166.69 E31.60056
G1 X161.59 Y166.61 E31.60858
G1 X161.23 Y166.17 E31.64389
G1 X161.15 Y166.07 E31.65191
G1 X160.88 Y165.57 E31.68726
G1 X160.82 Y165.46 E31.69546
G1 X160.62 Y164.79 E31.73873
G1 X160.56 Y164.23 E31.77400
G0 F6000 X163.51 Y155.49
;TYPE:WALL-INNER
G1 F2700 X162.93 Y155.31 E31.81161
G1 X162.48 Y155.07 E31.84369
G1 X162.41 Y155.03 E31.84849
G1 X162.01 Y154.71 E31.88097
G1 X161.95 Y154.66 E31.88580
G1 X161.62 Y154.25 E31.91811
G1 X161.57 Y154.19 E31.92320
G1 X161.32 Y153.74 E31.95543
G1 X161.29 Y153.66 E31.96045
G1 X161.11 Y153.09 E31.99785
G1 X161.06 Y152.58 E32.02987
G1 X161.05 Y152.50 E32.03514
G1 X161.10 Y151.99 E32.06679
G1 X161.11 Y151.91 E32.07186
G1 X161.29 Y151.33 E32.10947
G1 X161.53 Y150.88 E32.14133
G1 X161.56 Y150.81 E32.14635
G1 X161.89 Y150.41 E32.17866
G1 X161.94 Y150.35 E32.18366
G1 X162.34 Y150.02 E32.21597
G1 X162.41 Y149.97 E32.22106
G1 X162.86 Y149.72 E32.25329
G1 X162.93 Y149.69 E32.25831
G1 X163.51 Y149.51 E32.29571
G1 X164.02 Y149.46 E32.32773
G1 X164.10 Y149.45 E32.33300
G1 X164.61 Y149.50 E32.36471
G1 X164.69 Y149.51 E32.36979
G1 X165.27 Y149.69 E32.40739
G1 X165.72 Y149.93 E32.43947
G1 X165.79 Y149.97 E32.44427
G1 X166.19 Y150.29 E32.47658
G1 X166.25 Y150.34 E32.48159
G1 X166.58 Y150.75 E32.51389
G1 X166.63 Y150.81 E32.51899
G1 X166.88 Y151.26 E32.55121
G1 X166.91 Y151.34 E32.55623
G1 X167.09 Y151.91 E32.59364
G1 X167.14 Y152.42 E32.62566
G1 X167.15 Y152.50 E32.63093
G1 X167.10 Y153.01 E32.66257
G1 X167.09 Y153.09 E32.66765
G1 X166.91 Y153.67 E32.70525
G1 X166.67 Y154.12 E32.73711
G1 X166.63 Y154.19 E32.74213
G1 X166.31 Y154.59 E32.77444
G1 X166.26 Y154.65 E32.77945
G1 X165.85 Y154.98 E32.81175
G1 X165.79 Y155.03 E32.81685
G1 X165.34 Y155.28 E32.84907
G1 X165.26 Y155.31 E32.85409
G1 X164.69 Y155.49 E32.89150
G1 X164.18 Y155.54 E32.92352
G1 X164.10 Y155.55 E32.92879
G1 X163.59 Y155.50 E32.96050
G1 X163.51 Y155.49 E32.96557
G0 F6000 X163.59 Y155.08
G1 F2700 X164.10 Y155.13 E32.99778
G1 X164.61 Y155.08 E33.02993
G1 X165.11 Y154.93 E33.06213
G1 X165.56 Y154.69 E33.09427
G1 X165.96 Y154.36 E33.12653
G1 X166.29 Y153.96 E33.15879
G1 X166.53 Y153.51 E33.19093
G1 X166.68 Y153.01 E33.22312
G1 X166.73 Y152.50 E33.25527
G1 X166.68 Y151.99 E33.28742
G1 X166.53 Y151.49 E33.31962
G1 X166.29 Y151.04 E33.35176
G1 X165.96 Y150.64 E33.38402
G1 X165.56 Y150.31 E33.41628
G1 X165.11 Y150.07 E33.44841
G1 X164.61 Y149.92 E33.48061
G1 X164.10 Y149.87 E33.51282
G1 X163.59 Y149.92 E33.54497
G1 X163.09 Y150.07 E33.57717
G1 X162.64 Y150.31 E33.60931
G1 X162.24 Y150.64 E33.64157
G1 X161.91 Y151.04 E33.67383
G1 X161.67 Y151.49 E33.70596
G1 X161.52 Y151.99 E33.73816
G1 X161.47 Y152.50 E33.77031
G1 X161.52 Y153.01 E33.80246
G1 X161.67 Y153.51 E33.83466
G1 X161.91 Y153.96 E33.86679
G1 X162.24 Y154.36 E33.89905
G1 X162.64 Y154.69 E33.93131
G1 X163.09 Y154.93 E33.96345
G1 X163.59 Y155.08 E33.99565
G0 F6000 X163.68 Y154.59
;TYPE:WALL-OUTER
G1 F2700 X164.10 Y154.63 E34.02172
G1 X164.51 Y154.59 E34.04772
G1 X164.91 Y154.47 E34.07379
G1 X165.28 Y154.27 E34.09979
G1 X165.61 Y154.01 E34.12589
G1 X165.87 Y153.68 E34.15199
G1 X166.07 Y153.31 E34.17799
G1 X166.19 Y152.91 E34.20406
G1 X166.23 Y152.50 E34.23006
G1 X166.19 Y152.09 E34.25607
G1 X166.07 Y151.69 E34.28213
G1 X165.87 Y151.32 E34.30813
G1 X165.61 Y150.99 E34.33424
G1 X165.28 Y150.73 E34.36034
G1 X164.91 Y150.53 E34.38634
G1 X164.51 Y150.41 E34.41240
G1 X164.10 Y150.37 E34.43847
G1 X163.68 Y150.41 E34.46448
G1 X163.28 Y150.53 E34.49054
G1 X162.92 Y150.73 E34.51654
G1 X162.59 Y150.99 E34.54264
G1 X162.33 Y151.32 E34.56875
G1 X162.13 Y151.69 E34.59475
G1 X162.01 Y152.09 E34.62081
G1 X161.97 Y152.50 E34.64682
G1 X162.01 Y152.91 E34.67282
G1 X162.13 Y153.31 E34.69888
G1 X162.33 Y153.68 E34.72489
G1 X162.59 Y154.01 E34.75099
G1 X162.92 Y154.27 E34.77709
G1 X163.28 Y154.47 E34.80309
G1 X163.68 Y154.59 E34.82915
G0 F6000 X163.54 Y155.99
G1 F2700 X163.41 Y155.98 E34.83756
G1 X162.74 Y155.78 E34.88062
G1 X162.24 Y155.51 E34.91603
G1 X162.13 Y155.45 E34.92418
G1 X161.69 Y155.09 E34.95945
G1 X161.59 Y155.01 E34.96747
G1 X161.23 Y154.57 E35.00279
G1 X161.15 Y154.47 E35.01080
G1 X160.88 Y153.97 E35.04615
G1 X160.82 Y153.86 E35.05436
G1 X160.62 Y153.19 E35.09762
G1 X160.56 Y152.63 E35.13290
G1 X160.55 Y152.50 E35.14118
G1 X160.61 Y151.94 E35.17614
G1 X160.62 Y151.81 E35.18455
G1 X160.82 Y151.15 E35.22761
G1 X161.09 Y150.65 E35.26293
G1 X161.15 Y150.53 E35.27116
G1 X161.51 Y150.09 E35.30635
G1 X161.59 Y149.99 E35.31446
G1 X162.03 Y149.63 E35.34978
G1 X162.13 Y149.55 E35.35779
G1 X162.63 Y149.28 E35.39314
G1 X162.74 Y149.22 E35.40134
G1 X163.41 Y149.02 E35.44461
G1 X163.97 Y148.97 E35.47989
G1 X164.10 Y148.95 E35.48816
G1 X164.66 Y149.01 E35.52319
G1 X164.79 Y149.02 E35.53160
G1 X165.46 Y149.22 E35.57466
G1 X165.96 Y149.49 E35.61007
G1 X166.07 Y149.55 E35.61821
G1 X166.51 Y149.91 E35.65340
G1 X166.61 Y149.99 E35.66151
G1 X166.97 Y150.43 E35.69683
G1 X167.05 Y150.53 E35.70476
G1 X167.32 Y151.03 E35.74019
G1 X167.38 Y151.14 E35.74839
G1 X167.58 Y151.81 E35.79166
G1 X167.63 Y152.37 E35.82693
G1 X167.65 Y152.50 E35.83521
G1 X167.59 Y153.06 E35.87018
G1 X167.58 Y153.19 E35.87858
G1 X167.38 Y153.85 E35.92165
G1 X167.11 Y154.35 E35.95697
G1 X167.05 Y154.47 E35.96520
G1 X166.69 Y154.91 E36.00039
G1 X166.61 Y155.01 E36.00849
G1 X166.17 Y155.37 E36.04381
G1 X166.07 Y155.45 E36.05183
G1 X165.57 Y155.72 E36.08718
G1 X165.46 Y155.78 E36.09538
G1 X164.79 Y155.98 E36.13864
G1 X164.23 Y156.03 E36.17392
G1 X164.10 Y156.05 E36.18220
G1 X163.54 Y155.99 E36.21723
G0 F6000 X155.31 Y153.67
;TYPE:WALL-INNER
G1 F2700 X155.07 Y154.12 E36.24909
G1 X155.03 Y154.19 E36.25411
G1 X154.71 Y154.59 E36.28642
G1 X154.66 Y154.65 E36.29143
G1 X154.25 Y154.98 E36.32373
G1 X154.19 Y155.03 E36.32883
G1 X153.74 Y155.28 E36.36105
G1 X153.66 Y155.31 E36.36607
G1 X153.09 Y155.49 E36.40348
G1 X152.58 Y155.54 E36.43550
G1 X152.50 Y155.55 E36.44076
G1 X151.99 Y155.50 E36.47241
G1 X151.91 Y155.49 E36.47749
G1 X151.33 Y155.31 E36.51509
G1 X150.88 Y155.07 E36.54717
G1 X150.81 Y155.03 E36.55197
G1 X150.41 Y154.71 E36.58446
G1 X150.35 Y154.66 E36.58929
G1 X150.02 Y154.25 E36.62159
G1 X149.97 Y154.19 E36.62669
G1 X149.72 Y153.74 E36.65891
G1 X149.69 Y153.66 E36.66393
G1 X149.51 Y153.09 E36.70134
G1 X149.46 Y152.58 E36.73336
G1 X149.45 Y152.50 E36.73863
G1 X149.50 Y151.99 E36.77027
G1 X149.51 Y151.91 E36.77535
G1 X149.69 Y151.33 E36.81295
G1 X149.93 Y150.88 E36.84481
G1 X149.97 Y150.81 E36.84983
G1 X150.29 Y150.41 E36.88214
G1 X150.34 Y150.35 E36.88715
G1 X150.75 Y150.02 E36.91945
G1 X150.81 Y149.97 E36.92455
G1 X151.26 Y149.72 E36.95677
G1 X151.34 Y149.69 E36.96179
G1 X151.91 Y149.51 E36.99920
G1 X152.42 Y149.46 E37.03122
G1 X152.50 Y149.45 E37.03649
G1 X153.01 Y149.50 E37.06813
G1 X153.09 Y149.51 E37.07321
G1 X153.67 Y149.69 E37.11081
G1 X154.12 Y149.93 E37.14290
G1 X154.19 Y149.97 E37.14769
G1 X154.59 Y150.29 E37.18000
G1 X154.65 Y150.34 E37.18501
G1 X154.98 Y150.75 E37.21732
G1 X155.03 Y150.81 E37.22241
G1 X155.28 Y151.26 E37.25463
G1 X155.31 Y151.34 E37.25966
G1 X155.49 Y151.91 E37.29706
G1 X155.54 Y152.42 E37.32908
G1 X155.55 Y152.50 E37.33435
G1 X155.50 Y153.01 E37.36600
G1 X155.49 Y153.09 E37.37107
G1 X155.31 Y153.67 E37.40867
G0 F6000 X154.93 Y153.51
G1 F2700 X155.08 Y153.01 E37.44087
G1 X155.13 Y152.50 E37.47302
G1 X155.08 Y151.99 E37.50517
G1 X154.93 Y151.49 E37.53737
G1 X154.69 Y151.04 E37.56950
G1 X154.36 Y150.64 E37.60176
G1 X153.96 Y150.31 E37.63402
G1 X153.51 Y150.07 E37.66616
G1 X153.01 Y149.92 E37.69836
G1 X152.50 Y149.87 E37.73051
G1 X151.99 Y149.92 E37.76266
G1 X151.49 Y150.07 E37.79485
G1 X151.04 Y150.31 E37.82699
G1 X150.64 Y150.64 E37.85925
G1 X150.31 Y151.04 E37.89151
G1 X150.07 Y151.49 E37.92365
G1 X149.92 Y151.99 E37.95585
G1 X149.87 Y152.50 E37.98800
G1 X149.92 Y153.01 E38.02015
G1 X150.07 Y153.51 E38.05234
G1 X150.31 Y153.96 E38.08448
G1 X150.64 Y154.36 E38.11674
G1 X151.04 Y154.69 E38.14900
G1 X151.49 Y154.93 E38.18114
G1 X151.99 Y155.08 E38.21333
G1 X152.50 Y155.13 E38.24548
G1 X153.01 Y155.08 E38.27763
G1 X153.51 Y154.93 E38.30983
G1 X153.96 Y154.69 E38.34197
G1 X154.36 Y154.36 E38.37423
G1 X154.69 Y153.96 E38.40649
G1 X154.93 Y153.51 E38.43863
G0 F6000 X154.47 Y153.31
;TYPE:WALL-OUTER
G1 F2700 X154.59 Y152.91 E38.46469
G1 X154.63 Y152.50 E38.49069
G1 X154.59 Y152.09 E38.51670
G1 X154.47 Y151.69 E38.54276
G1 X154.27 Y151.32 E38.56876
G1 X154.01 Y150.99 E38.59487
G1 X153.68 Y150.73 E38.62097
G1 X153.31 Y150.53 E38.64697
G1 X152.91 Y150.41 E38.67303
G1 X152.50 Y150.37 E38.69904
G1 X152.09 Y150.41 E38.72505
G1 X151.69 Y150.53 E38.75111
G1 X151.32 Y150.73 E38.77711
G1 X150.99 Y150.99 E38.80321
G1 X150.73 Y151.32 E38.82932
G1 X150.53 Y151.69 E38.85532
G1 X150.41 Y152.09 E38.88138
G1 X150.37 Y152.50 E38.90739
G1 X150.41 Y152.91 E38.93339
G1 X150.53 Y153.31 E38.95945
G1 X150.73 Y153.68 E38.98545
G1 X150.99 Y154.01 E39.01156
G1 X151.32 Y154.27 E39.03766
G1 X151.69 Y154.47 E39.06366
G1 X152.09 Y154.59 E39.08972
G1 X152.50 Y154.63 E39.11573
G1 X152.91 Y154.59 E39.14174
G1 X153.31 Y154.47 E39.16780
G1 X153.68 Y154.27 E39.19380
G1 X154.01 Y154.01 E39.21990
G1 X154.27 Y153.68 E39.24601
G1 X154.47 Y153.31 E39.27201
G0 F6000 X155.78 Y153.85
G1 F2700 X155.51 Y154.35 E39.30733
G1 X155.45 Y154.47 E39.31556
G1 X155.09 Y154.91 E39.35075
G1 X155.01 Y155.01 E39.35885
G1 X154.57 Y155.37 E39.39417
G1 X154.47 Y155.45 E39.40219
G1 X153.97 Y155.72 E39.43754
G1 X153.86 Y155.78 E39.44574
G1 X153.19 Y155.98 E39.48900
G1 X152.63 Y156.03 E39.52428
G1 X152.50 Y156.05 E39.53256
G1 X151.94 Y155.99 E39.56753
G1 X151.81 Y155.98 E39.57593
G1 X151.15 Y155.78 E39.61900
G1 X150.64 Y155.51 E39.65440
G1 X150.53 Y155.45 E39.66255
G1 X150.09 Y155.09 E39.69783
G1 X149.99 Y155.01 E39.70584
G1 X149.63 Y154.57 E39.74116
G1 X149.55 Y154.47 E39.74918
G1 X149.28 Y153.97 E39.78453
G1 X149.22 Y153.86 E39.79273
G1 X149.02 Y153.19 E39.83599
G1 X148.97 Y152.63 E39.87127
G1 X148.95 Y152.50 E39.87955
G1 X149.01 Y151.94 E39.91452
G1 X149.02 Y151.81 E39.92292
G1 X149.22 Y151.15 E39.96598
G1 X149.49 Y150.65 E40.00130
G1 X149.55 Y150.53 E40.00954
G1 X149.91 Y150.09 E40.04473
G1 X149.99 Y149.99 E40.05283
G1 X150.43 Y149.63 E40.08815
G1 X150.53 Y149.55 E40.09617
G1 X151.03 Y149.28 E40.13151
G1 X151.14 Y149.22 E40.13972
G1 X151.81 Y149.02 E40.18298
G1 X152.37 Y148.97 E40.21826
G1 X152.50 Y148.95 E40.22654
G1 X153.06 Y149.01 E40.26150
G1 X153.19 Y149.02 E40.26991
G1 X153.85 Y149.22 E40.31297
G1 X154.36 Y149.49 E40.34838
G1 X154.47 Y149.55 E40.35652
G1 X154.91 Y149.91 E40.39171
G1 X155.01 Y149.99 E40.39982
G1 X155.37 Y150.43 E40.43514
G1 X155.45 Y150.53 E40.44307
G1 X155.72 Y151.03 E40.47850
G1 X155.78 Y151.14 E40.48670
G1 X155.98 Y151.81 E40.52997
G1 X156.03 Y152.37 E40.56524
G1 X156.05 Y152.50 E40.57352
G1 X155.99 Y153.06 E40.60849
G1 X155.98 Y153.19 E40.61689
G1 X155.78 Y153.85 E40.65996
G0 F6000 X153.09 Y143.89
;TYPE:WALL-INNER
G1 F2700 X152.58 Y143.94 E40.69198
G1 X152.50 Y143.95 E40.69725
G1 X151.99 Y143.90 E40.72889
G1 X151.91 Y143.89 E40.73397
G1 X151.33 Y143.71 E40.77157
G1 X150.88 Y143.47 E40.80365
G1 X150.81 Y143.44 E40.80845
G1 X150.41 Y143.11 E40.84094
G1 X150.35 Y143.06 E40.84577
G1 X150.02 Y142.66 E40.87807
G1 X149.97 Y142.59 E40.88317
G1 X149.72 Y142.14 E40.91539
G1 X149.69 Y142.07 E40.92041
G1 X149.51 Y141.49 E40.95782
G1 X149.46 Y140.98 E40.98984
G1 X149.45 Y140.90 E40.99511
G1 X149.50 Y140.39 E41.02682
G1 X149.51 Y140.31 E41.03189
G1 X149.69 Y139.73 E41.06949
G1 X149.93 Y139.28 E41.10135
G1 X149.97 Y139.21 E41.10638
G1 X150.29 Y138.81 E41.13868
G1 X150.34 Y138.75 E41.14369
G1 X150.75 Y138.42 E41.17600
G1 X150.81 Y138.37 E41.18109
G1 X151.26 Y138.12 E41.21332
G1 X151.34 Y138.09 E41.21834
G1 X151.91 Y137.91 E41.25574
G1 X152.42 Y137.86 E41.28776
G1 X152.50 Y137.85 E41.29303
G1 X153.01 Y137.90 E41.32468
G1 X153.09 Y137.91 E41.32975
G1 X153.67 Y138.09 E41.36736
G1 X154.12 Y138.33 E41.39944
G1 X154.19 Y138.37 E41.40424
G1 X154.59 Y138.69 E41.43654
G1 X154.65 Y138.74 E41.44155
G1 X154.98 Y139.15 E41.47386
G1 X155.03 Y139.21 E41.47895
G1 X155.28 Y139.66 E41.51118
G1 X155.31 Y139.74 E41.51620
G1 X155.49 Y140.31 E41.55368
G1 X155.54 Y140.82 E41.58569
G1 X155.55 Y140.91 E41.59096
G1 X155.50 Y141.41 E41.62261
G1 X155.49 Y141.49 E41.62769
G1 X155.31 Y142.07 E41.66529
G1 X155.07 Y142.52 E41.69715
G1 X155.03 Y142.59 E41.70217
G1 X154.71 Y142.99 E41.73448
G1 X154.66 Y143.05 E41.73948
G1 X154.25 Y143.38 E41.77179
G1 X154.19 Y143.43 E41.77689
G1 X153.74 Y143.68 E41.80911
G1 X153.66 Y143.71 E41.81413
G1 X153.09 Y143.89 E41.85154
G0 F6000 X153.01 Y143.48
G1 F2700 X153.51 Y143.33 E41.88373
G1 X153.96 Y143.09 E41.91587
G1 X154.36 Y142.76 E41.94813
G1 X154.69 Y142.36 E41.98039
G1 X154.93 Y141.91 E42.01253
G1 X155.08 Y141.41 E42.04472
G1 X155.13 Y140.90 E42.07687
G1 X155.08 Y140.39 E42.10909
G1 X154.93 Y139.89 E42.14128
G1 X154.69 Y139.44 E42.17342
G1 X154.36 Y139.04 E42.20568
G1 X153.96 Y138.71 E42.23794
G1 X153.51 Y138.47 E42.27008
G1 X153.01 Y138.32 E42.30228
G1 X152.50 Y138.27 E42.33442
G1 X151.99 Y138.32 E42.36657
G1 X151.49 Y138.47 E42.39877
G1 X151.04 Y138.71 E42.43091
G1 X150.64 Y139.04 E42.46317
G1 X150.31 Y139.44 E42.49543
G1 X150.07 Y139.89 E42.52757
G1 X149.92 Y140.39 E42.55976
G1 X149.87 Y140.90 E42.59198
G1 X149.92 Y141.41 E42.62412
G1 X150.07 Y141.91 E42.65632
G1 X150.31 Y142.36 E42.68846
G1 X150.64 Y142.76 E42.72072
G1 X151.04 Y143.09 E42.75298
G1 X151.49 Y143.33 E42.78512
G1 X151.99 Y143.48 E42.81731
G1 X152.50 Y143.53 E42.84946
G1 X153.01 Y143.48 E42.88161
G0 F6000 X152.91 Y142.99
;TYPE:WALL-OUTER
G1 F2700 X153.31 Y142.87 E42.90767
G1 X153.68 Y142.67 E42.93368
G1 X154.01 Y142.41 E42.95978
G1 X154.27 Y142.08 E42.98588
G1 X154.47 Y141.72 E43.01188
G1 X154.59 Y141.32 E43.03795
G1 X154.63 Y140.90 E43.06395
G1 X154.59 Y140.49 E43.09002
G1 X154.47 Y140.09 E43.11608
G1 X154.27 Y139.72 E43.14208
G1 X154.01 Y139.39 E43.16819
G1 X153.68 Y139.13 E43.19429
G1 X153.31 Y138.93 E43.22029
G1 X152.91 Y138.81 E43.24635
G1 X152.50 Y138.77 E43.27236
G1 X152.09 Y138.81 E43.29837
G1 X151.69 Y138.93 E43.32443
G1 X151.32 Y139.13 E43.35043
G1 X150.99 Y139.39 E43.37653
G1 X150.73 Y139.72 E43.40264
G1 X150.53 Y140.09 E43.42864
G1 X150.41 Y140.49 E43.45470
G1 X150.37 Y140.90 E43.48077
G1 X150.41 Y141.32 E43.50677
G1 X150.53 Y141.72 E43.53284
G1 X150.73 Y142.08 E43.55884
G1 X150.99 Y142.41 E43.58494
G1 X151.32 Y142.67 E43.61104
G1 X151.69 Y142.87 E43.63704
G1 X152.09 Y142.99 E43.66311
G1 X152.50 Y143.03 E43.68911
G1 X152.91 Y142.99 E43.71512
G0 F6000 X153.19 Y144.38
G1 F2700 X152.63 Y144.44 E43.75040
G1 X152.50 Y144.45 E43.75867
G1 X151.94 Y144.39 E43.79364
G1 X151.81 Y144.38 E43.80204
G1 X151.15 Y144.18 E43.84511
G1 X150.64 Y143.91 E43.88051
G1 X150.53 Y143.85 E43.88866
G1 X150.09 Y143.49 E43.92394
G1 X149.99 Y143.41 E43.93196
G1 X149.63 Y142.97 E43.96728
G1 X149.55 Y142.87 E43.97529
G1 X149.28 Y142.37 E44.01064
G1 X149.22 Y142.26 E44.01884
G1 X149.02 Y141.59 E44.06211
G1 X148.97 Y141.03 E44.09738
G1 X148.95 Y140.90 E44.10566
G1 X149.01 Y140.34 E44.14069
G1 X149.02 Y140.21 E44.14909
G1 X149.22 Y139.54 E44.19216
G1 X149.49 Y139.04 E44.22748
G1 X149.55 Y138.93 E44.23571
G1 X149.91 Y138.49 E44.27090
G1 X149.99 Y138.39 E44.27901
G1 X150.43 Y138.03 E44.31433
G1 X150.53 Y137.95 E44.32234
G1 X151.03 Y137.68 E44.35769
G1 X151.14 Y137.62 E44.36589
G1 X151.81 Y137.42 E44.40916
G1 X152.37 Y137.37 E44.44444
G1 X152.50 Y137.35 E44.45271
G1 X153.06 Y137.41 E44.48768
G1 X153.19 Y137.42 E44.49608
G1 X153.85 Y137.62 E44.53915
G1 X154.36 Y137.89 E44.57455
G1 X154.47 Y137.95 E44.58270
G1 X154.91 Y138.31 E44.61789
G1 X155.01 Y138.39 E44.62600
G1 X155.37 Y138.83 E44.66131
G1 X155.45 Y138.93 E44.66924
G1 X155.72 Y139.43 E44.70468
G1 X155.78 Y139.54 E44.71288
G1 X155.98 Y140.21 E44.75614
G1 X156.03 Y140.77 E44.79148
G1 X156.05 Y140.90 E44.79976
G1 X155.99 Y141.46 E44.83473
G1 X155.98 Y141.59 E44.84313
G1 X155.78 Y142.26 E44.88620
G1 X155.51 Y142.76 E44.92152
G1 X155.45 Y142.87 E44.92975
G1 X155.09 Y143.31 E44.96494
G1 X155.01 Y143.41 E44.97304
G1 X154.57 Y143.77 E45.00836
G1 X154.47 Y143.85 E45.01638
G1 X153.97 Y144.12 E45.05173
G1 X153.86 Y144.18 E45.05993
G1 X153.19 Y144.38 E45.10319
;LAYER:1
G0 F6000 X153.09 Y143.89 Z0.45
;TYPE:WALL-INNER
G1 F2400 X152.50 Y143.95 E45.12174
G1 X151.91 Y143.89 E45.14029
G1 X151.34 Y143.72 E45.15896
G1 X150.81 Y143.43 E45.17769
G1 X150.35 Y143.06 E45.19621
G1 X149.97 Y142.60 E45.21474
G1 X149.69 Y142.07 E45.23347
G1 X149.51 Y141.49 E45.25213
G1 X149.45 Y140.90 E45.27071
G1 X149.51 Y140.31 E45.28926
G1 X149.69 Y139.74 E45.30794
G1 X149.97 Y139.21 E45.32667
G1 X150.35 Y138.75 E45.34519
G1 X150.81 Y138.37 E45.36371
G1 X151.34 Y138.09 E45.38245
G1 X151.91 Y137.91 E45.40111
G1 X152.50 Y137.85 E45.41966
G1 X153.09 Y137.91 E45.43821
G1 X153.66 Y138.09 E45.45687
G1 X154.19 Y138.37 E45.47561
G1 X154.65 Y138.75 E45.49413
G1 X155.03 Y139.21 E45.51265
G1 X155.31 Y139.74 E45.53139
G1 X155.49 Y140.31 E45.55006
G1 X155.55 Y140.90 E45.56861
G1 X155.49 Y141.49 E45.58719
G1 X155.31 Y142.07 E45.60585
G1 X155.03 Y142.60 E45.62459
G1 X154.65 Y143.06 E45.64311
G1 X154.19 Y143.43 E45.66163
G1 X153.66 Y143.72 E45.68036
G1 X153.09 Y143.89 E45.69903
G0 F6000 X153.01 Y143.48
G1 F2400 X153.51 Y143.33 E45.71512
G1 X153.96 Y143.09 E45.73119
G1 X154.36 Y142.76 E45.74732
G1 X154.69 Y142.36 E45.76345
G1 X154.93 Y141.91 E45.77952
G1 X155.08 Y141.41 E45.79562
G1 X155.13 Y140.90 E45.81170
G1 X155.08 Y140.39 E45.82780
G1 X154.93 Y139.89 E45.84390
G1 X154.69 Y139.44 E45.85997
G1 X154.36 Y139.04 E45.87610
G1 X153.96 Y138.71 E45.89223
G1 X153.51 Y138.47 E45.90830
G1 X153.01 Y138.32 E45.92440
G1 X152.50 Y138.27 E45.94047
G1 X151.99 Y138.32 E45.95655
G1 X151.49 Y138.47 E45.97264
G1 X151.04 Y138.71 E45.98871
G1 X150.64 Y139.04 E46.00484
G1 X150.31 Y139.44 E46.02097
G1 X150.07 Y139.89 E46.03704
G1 X149.92 Y140.39 E46.05314
G1 X149.87 Y140.90 E46.06925
G1 X149.92 Y141.41 E46.08532
G1 X150.07 Y141.91 E46.10142
G1 X150.31 Y142.36 E46.11749
G1 X150.64 Y142.76 E46.13362
G1 X151.04 Y143.09 E46.14975
G1 X151.49 Y143.33 E46.16582
G1 X151.99 Y143.48 E46.18191
G1 X152.50 Y143.53 E46.19799
G1 X153.01 Y143.48 E46.21406
G0 F6000 X152.91 Y142.99
;TYPE:WALL-OUTER
G1 F2400 X153.31 Y142.87 E46.22710
G1 X153.68 Y142.67 E46.24010
G1 X154.01 Y142.41 E46.25315
G1 X154.27 Y142.08 E46.26620
G1 X154.47 Y141.72 E46.27920
G1 X154.59 Y141.32 E46.29223
G1 X154.63 Y140.90 E46.30523
G1 X154.59 Y140.49 E46.31827
G1 X154.47 Y140.09 E46.33130
G1 X154.27 Y139.72 E46.34430
G1 X154.01 Y139.39 E46.35735
G1 X153.68 Y139.13 E46.37040
G1 X153.31 Y138.93 E46.38340
G1 X152.91 Y138.81 E46.39643
G1 X152.50 Y138.77 E46.40944
G1 X152.09 Y138.81 E46.42244
G1 X151.69 Y138.93 E46.43547
G1 X151.32 Y139.13 E46.44847
G1 X150.99 Y139.39 E46.46152
G1 X150.73 Y139.72 E46.47458
G1 X150.53 Y140.09 E46.48758
G1 X150.41 Y140.49 E46.50061
G1 X150.37 Y140.90 E46.51364
G1 X150.41 Y141.32 E46.52665
G1 X150.53 Y141.72 E46.53968
G1 X150.73 Y142.08 E46.55268
G1 X150.99 Y142.41 E46.56573
G1 X151.32 Y142.67 E46.57878
G1 X151.69 Y142.87 E46.59178
G1 X152.09 Y142.99 E46.60481
G1 X152.50 Y143.03 E46.61781
G1 X152.91 Y142.99 E46.63082
G0 F6000 X153.19 Y144.38
G1 F2400 X152.50 Y144.45 E46.65260
G1 X151.81 Y144.38 E46.67437
G1 X151.15 Y144.18 E46.69584
G1 X150.52 Y143.85 E46.71784
G1 X149.99 Y143.41 E46.73935
G1 X149.55 Y142.88 E46.76087
G1 X149.22 Y142.25 E46.78287
G1 X149.02 Y141.60 E46.80433
G1 X148.95 Y140.90 E46.82614
G1 X149.02 Y140.21 E46.84792
G1 X149.22 Y139.55 E46.86938
G1 X149.55 Y138.92 E46.89138
G1 X149.99 Y138.39 E46.91290
G1 X150.52 Y137.95 E46.93442
G1 X151.15 Y137.62 E46.95641
G1 X151.81 Y137.42 E46.97788
G1 X152.50 Y137.35 E46.99966
G1 X153.19 Y137.42 E47.02143
G1 X153.85 Y137.62 E47.04290
G1 X154.48 Y137.95 E47.06490
G1 X155.01 Y138.39 E47.08641
G1 X155.45 Y138.92 E47.10793
G1 X155.78 Y139.55 E47.12993
G1 X155.98 Y140.21 E47.15140
G1 X156.05 Y140.90 E47.17317
G1 X155.98 Y141.60 E47.19498
G1 X155.78 Y142.25 E47.21645
G1 X155.45 Y142.88 E47.23845
G1 X155.01 Y143.41 E47.25996
G1 X154.48 Y143.85 E47.28148
G1 X153.85 Y144.18 E47.30348
G1 X153.19 Y144.38 E47.32494
G0 F6000 X152.50 Y149.45
;TYPE:WALL-INNER
G1 F2400 X153.09 Y149.51 E47.34349
G1 X153.66 Y149.69 E47.36216
G1 X154.19 Y149.97 E47.38089
G1 X154.65 Y150.35 E47.39941
G1 X155.03 Y150.81 E47.41793
G1 X155.31 Y151.34 E47.43667
G1 X155.49 Y151.91 E47.45533
G1 X155.55 Y152.50 E47.47388
G1 X155.49 Y153.09 E47.49243
G1 X155.31 Y153.66 E47.51110
G1 X155.03 Y154.19 E47.52983
G1 X154.65 Y154.65 E47.54835
G1 X154.19 Y155.03 E47.56687
G1 X153.66 Y155.31 E47.58561
G1 X153.09 Y155.49 E47.60427
G1 X152.50 Y155.55 E47.62282
G1 X151.91 Y155.49 E47.64137
G1 X151.34 Y155.31 E47.66004
G1 X150.81 Y155.03 E47.67877
G1 X150.35 Y154.65 E47.69729
G1 X149.97 Y154.19 E47.71581
G1 X149.69 Y153.66 E47.73455
G1 X149.51 Y153.09 E47.75321
G1 X149.45 Y152.50 E47.77176
G1 X149.51 Y151.91 E47.79031
G1 X149.69 Y151.34 E47.80898
G1 X149.97 Y150.81 E47.82771
G1 X150.35 Y150.35 E47.84623
G1 X150.81 Y149.97 E47.86475
G1 X151.34 Y149.69 E47.88349
G1 X151.91 Y149.51 E47.90215
G1 X152.50 Y149.45 E47.92070
G0 F6000 X152.50 Y149.87
G1 F2400 X151.99 Y149.92 E47.93678
G1 X151.49 Y150.07 E47.95287
G1 X151.04 Y150.31 E47.96894
G1 X150.64 Y150.64 E47.98507
G1 X150.31 Y151.04 E48.00120
G1 X150.07 Y151.49 E48.01727
G1 X149.92 Y151.99 E48.03337
G1 X149.87 Y152.50 E48.04944
G1 X149.92 Y153.01 E48.06552
G1 X150.07 Y153.51 E48.08162
G1 X150.31 Y153.96 E48.09769
G1 X150.64 Y154.36 E48.11382
G1 X151.04 Y154.69 E48.12995
G1 X151.49 Y154.93 E48.14602
G1 X151.99 Y155.08 E48.16211
G1 X152.50 Y155.13 E48.17819
G1 X153.01 Y155.08 E48.19426
G1 X153.51 Y154.93 E48.21036
G1 X153.96 Y154.69 E48.22643
G1 X154.36 Y154.36 E48.24256
G1 X154.69 Y153.96 E48.25869
G1 X154.93 Y153.51 E48.27476
G1 X155.08 Y153.01 E48.29086
G1 X155.13 Y152.50 E48.30693
G1 X155.08 Y151.99 E48.32301
G1 X154.93 Y151.49 E48.33911
G1 X154.69 Y151.04 E48.35518
G1 X154.36 Y150.64 E48.37130
G1 X153.96 Y150.31 E48.38743
G1 X153.51 Y150.07 E48.40350
G1 X153.01 Y149.92 E48.41960
G1 X152.50 Y149.87 E48.43568
G0 F6000 X152.50 Y150.37
;TYPE:WALL-OUTER
G1 F2400 X152.09 Y150.41 E48.44868
G1 X151.69 Y150.53 E48.46171
G1 X151.32 Y150.73 E48.47471
G1 X150.99 Y150.99 E48.48776
G1 X150.73 Y151.32 E48.50081
G1 X150.53 Y151.69 E48.51382
G1 X150.41 Y152.09 E48.52685
G1 X150.37 Y152.50 E48.53985
G1 X150.41 Y152.91 E48.55285
G1 X150.53 Y153.31 E48.56588
G1 X150.73 Y153.68 E48.57888
G1 X150.99 Y154.01 E48.59194
G1 X151.32 Y154.27 E48.60499
G1 X151.69 Y154.47 E48.61799
G1 X152.09 Y154.59 E48.63102
G1 X152.50 Y154.63 E48.64402
G1 X152.91 Y154.59 E48.65703
G1 X153.31 Y154.47 E48.67006
G1 X153.68 Y154.27 E48.68306
G1 X154.01 Y154.01 E48.69611
G1 X154.27 Y153.68 E48.70916
G1 X154.47 Y153.31 E48.72216
G1 X154.59 Y152.91 E48.73519
G1 X154.63 Y152.50 E48.74820
G1 X154.59 Y152.09 E48.76120
G1 X154.47 Y151.69 E48.77423
G1 X154.27 Y151.32 E48.78723
G1 X154.01 Y150.99 E48.80028
G1 X153.68 Y150.73 E48.81333
G1 X153.31 Y150.53 E48.82633
G1 X152.91 Y150.41 E48.83936
G1 X152.50 Y150.37 E48.85237
G0 F6000 X152.50 Y148.95
G1 F2400 X153.19 Y149.02 E48.87415
G1 X153.85 Y149.22 E48.89561
G1 X154.48 Y149.55 E48.91761
G1 X155.01 Y149.99 E48.93913
G1 X155.45 Y150.52 E48.96064
G1 X155.78 Y151.15 E48.98264
G1 X155.98 Y151.81 E49.00411
G1 X156.05 Y152.50 E49.02588
G1 X155.98 Y153.19 E49.04766
G1 X155.78 Y153.85 E49.06913
G1 X155.45 Y154.48 E49.09113
G1 X155.01 Y155.01 E49.11264
G1 X154.48 Y155.45 E49.13416
G1 X153.85 Y155.78 E49.15616
G1 X153.19 Y155.98 E49.17762
G1 X152.50 Y156.05 E49.19940
G1 X151.81 Y155.98 E49.22118
G1 X151.15 Y155.78 E49.24264
G1 X150.52 Y155.45 E49.26464
G1 X149.99 Y155.01 E49.28616
G1 X149.55 Y154.48 E49.30767
G1 X149.22 Y153.85 E49.32967
G1 X149.02 Y153.19 E49.35114
G1 X148.95 Y152.50 E49.37291
G1 X149.02 Y151.81 E49.39469
G1 X149.22 Y151.15 E49.41616
G1 X149.55 Y150.52 E49.43816
G1 X149.99 Y149.99 E49.45967
G1 X150.52 Y149.55 E49.48119
G1 X151.15 Y149.22 E49.50319
G1 X151.81 Y149.02 E49.52465
G1 X152.50 Y148.95 E49.54643
G0 F6000 X161.28 Y151.34
;TYPE:WALL-INNER
G1 F2400 X161.57 Y150.81 E49.56516
G1 X161.94 Y150.35 E49.58369
G1 X162.40 Y149.97 E49.60221
G1 X162.93 Y149.69 E49.62094
G1 X163.51 Y149.51 E49.63960
G1 X164.10 Y149.45 E49.65819
G1 X164.69 Y149.51 E49.67673
G1 X165.26 Y149.69 E49.69541
G1 X165.79 Y149.97 E49.71414
G1 X166.25 Y150.35 E49.73266
G1 X166.63 Y150.81 E49.75118
G1 X166.91 Y151.34 E49.76992
G1 X167.09 Y151.91 E49.78858
G1 X167.15 Y152.50 E49.80713
G1 X167.09 Y153.09 E49.82568
G1 X166.91 Y153.66 E49.84435
G1 X166.63 Y154.19 E49.86308
G1 X166.25 Y154.65 E49.88160
G1 X165.79 Y155.03 E49.90012
G1 X165.26 Y155.31 E49.91886
G1 X164.69 Y155.49 E49.93752
G1 X164.10 Y155.55 E49.95610
G1 X163.51 Y155.49 E49.97465
G1 X162.93 Y155.31 E49.99332
G1 X162.40 Y155.03 E50.01206
G1 X161.94 Y154.65 E50.03058
G1 X161.57 Y154.19 E50.04910
G1 X161.28 Y153.66 E50.06783
G1 X161.11 Y153.09 E50.08650
G1 X161.05 Y152.50 E50.10505
G1 X161.11 Y151.91 E50.12360
G1 X161.28 Y151.34 E50.14226
G0 F6000 X161.67 Y151.49
G1 F2400 X161.52 Y151.99 E50.15836
G1 X161.47 Y152.50 E50.17444
G1 X161.52 Y153.01 E50.19051
G1 X161.67 Y153.51 E50.20661
G1 X161.91 Y153.96 E50.22268
G1 X162.24 Y154.36 E50.23881
G1 X162.64 Y154.69 E50.25494
G1 X163.09 Y154.93 E50.27101
G1 X163.59 Y155.08 E50.28710
G1 X164.10 Y155.13 E50.30321
G1 X164.61 Y155.08 E50.31929
G1 X165.11 Y154.93 E50.33538
G1 X165.56 Y154.69 E50.35145
G1 X165.96 Y154.36 E50.36758
G1 X166.29 Y153.96 E50.38371
G1 X166.53 Y153.51 E50.39978
G1 X166.68 Y153.01 E50.41588
G1 X166.73 Y152.50 E50.43195
G1 X166.68 Y151.99 E50.44803
G1 X166.53 Y151.49 E50.46413
G1 X166.29 Y151.04 E50.48020
G1 X165.96 Y150.64 E50.49633
G1 X165.56 Y150.31 E50.51246
G1 X165.11 Y150.07 E50.52853
G1 X164.61 Y149.92 E50.54462
G1 X164.10 Y149.87 E50.56073
G1 X163.59 Y149.92 E50.57680
G1 X163.09 Y150.07 E50.59290
G1 X162.64 Y150.31 E50.60897
G1 X162.24 Y150.64 E50.62510
G1 X161.91 Y151.04 E50.64123
G1 X161.67 Y151.49 E50.65730
G0 F6000 X162.13 Y151.69
;TYPE:WALL-OUTER
G1 F2400 X162.01 Y152.09 E50.67033
G1 X161.97 Y152.50 E50.68334
G1 X162.01 Y152.91 E50.69634
G1 X162.13 Y153.31 E50.70937
G1 X162.33 Y153.68 E50.72237
G1 X162.59 Y154.01 E50.73542
G1 X162.92 Y154.27 E50.74847
G1 X163.28 Y154.47 E50.76147
G1 X163.68 Y154.59 E50.77450
G1 X164.10 Y154.63 E50.78754
G1 X164.51 Y154.59 E50.80054
G1 X164.91 Y154.47 E50.81357
G1 X165.28 Y154.27 E50.82657
G1 X165.61 Y154.01 E50.83963
G1 X165.87 Y153.68 E50.85268
G1 X166.07 Y153.31 E50.86568
G1 X166.19 Y152.91 E50.87871
G1 X166.23 Y152.50 E50.89171
G1 X166.19 Y152.09 E50.90471
G1 X166.07 Y151.69 E50.91775
G1 X165.87 Y151.32 E50.93075
G1 X165.61 Y150.99 E50.94380
G1 X165.28 Y150.73 E50.95685
G1 X164.91 Y150.53 E50.96985
G1 X164.51 Y150.41 E50.98288
G1 X164.10 Y150.37 E50.99592
G1 X163.68 Y150.41 E51.00892
G1 X163.28 Y150.53 E51.02195
G1 X162.92 Y150.73 E51.03495
G1 X162.59 Y150.99 E51.04800
G1 X162.33 Y151.32 E51.06105
G1 X162.13 Y151.69 E51.07405
G0 F6000 X160.82 Y151.15
G1 F2400 X161.15 Y150.52 E51.09605
G1 X161.59 Y149.99 E51.11757
G1 X162.12 Y149.55 E51.13909
G1 X162.75 Y149.22 E51.16108
G1 X163.40 Y149.02 E51.18255
G1 X164.10 Y148.95 E51.20436
G1 X164.79 Y149.02 E51.22614
G1 X165.45 Y149.22 E51.24760
G1 X166.08 Y149.55 E51.26960
G1 X166.61 Y149.99 E51.29112
G1 X167.05 Y150.52 E51.31263
G1 X167.38 Y151.15 E51.33463
G1 X167.58 Y151.81 E51.35610
G1 X167.65 Y152.50 E51.37787
G1 X167.58 Y153.19 E51.39965
G1 X167.38 Y153.85 E51.42112
G1 X167.05 Y154.48 E51.44312
G1 X166.61 Y155.01 E51.46463
G1 X166.08 Y155.45 E51.48615
G1 X165.45 Y155.78 E51.50815
G1 X164.79 Y155.98 E51.52961
G1 X164.10 Y156.05 E51.55142
G1 X163.40 Y155.98 E51.57320
G1 X162.75 Y155.78 E51.59466
G1 X162.12 Y155.45 E51.61666
G1 X161.59 Y155.01 E51.63818
G1 X161.15 Y154.48 E51.65969
G1 X160.82 Y153.85 E51.68169
G1 X160.62 Y153.19 E51.70316
G1 X160.55 Y152.50 E51.72494
G1 X160.62 Y151.81 E51.74671
G1 X160.82 Y151.15 E51.76818
G0 F6000 X163.51 Y161.11
;TYPE:WALL-INNER
G1 F2400 X164.10 Y161.05 E51.78676
G1 X164.69 Y161.11 E51.80531
G1 X165.26 Y161.28 E51.82398
G1 X165.79 Y161.57 E51.84271
G1 X166.25 Y161.94 E51.86124
G1 X166.63 Y162.40 E51.87976
G1 X166.91 Y162.93 E51.89849
G1 X167.09 Y163.51 E51.91716
G1 X167.15 Y164.10 E51.93571
G1 X167.09 Y164.69 E51.95429
G1 X166.91 Y165.26 E51.97296
G1 X166.63 Y165.79 E51.99169
G1 X166.25 Y166.25 E52.01021
G1 X165.79 Y166.63 E52.02873
G1 X165.26 Y166.91 E52.04747
G1 X164.69 Y167.09 E52.06613
G1 X164.10 Y167.15 E52.08471
G1 X163.51 Y167.09 E52.10326
G1 X162.93 Y166.91 E52.12193
G1 X162.40 Y166.63 E52.14067
G1 X161.94 Y166.25 E52.15919
G1 X161.57 Y165.79 E52.17771
G1 X161.28 Y165.26 E52.19644
G1 X161.11 Y164.69 E52.21511
G1 X161.05 Y164.10 E52.23369
G1 X161.11 Y163.51 E52.25224
G1 X161.28 Y162.93 E52.27091
G1 X161.57 Y162.40 E52.28964
G1 X161.94 Y161.94 E52.30817
G1 X162.40 Y161.57 E52.32669
G1 X162.93 Y161.28 E52.34542
G1 X163.51 Y161.11 E52.36408
G0 F6000 X163.59 Y161.52
G1 F2400 X163.09 Y161.67 E52.38018
G1 X162.64 Y161.91 E52.39625
G1 X162.24 Y162.24 E52.41238
G1 X161.91 Y162.64 E52.42851
G1 X161.67 Y163.09 E52.44458
G1 X161.52 Y163.59 E52.46068
G1 X161.47 Y164.10 E52.47679
G1 X161.52 Y164.61 E52.49286
G1 X161.67 Y165.11 E52.50896
G1 X161.91 Y165.56 E52.52503
G1 X162.24 Y165.96 E52.54116
G1 X162.64 Y166.29 E52.55729
G1 X163.09 Y166.53 E52.57336
G1 X163.59 Y166.68 E52.58945
G1 X164.10 Y166.73 E52.60556
G1 X164.61 Y166.68 E52.62164
G1 X165.11 Y166.53 E52.63773
G1 X165.56 Y166.29 E52.65380
G1 X165.96 Y165.96 E52.66993
G1 X166.29 Y165.56 E52.68606
G1 X166.53 Y165.11 E52.70213
G1 X166.68 Y164.61 E52.71823
G1 X166.73 Y164.10 E52.73430
G1 X166.68 Y163.59 E52.75041
G1 X166.53 Y163.09 E52.76651
G1 X166.29 Y162.64 E52.78258
G1 X165.96 Y162.24 E52.79871
G1 X165.56 Y161.91 E52.81484
G1 X165.11 Y161.67 E52.83091
G1 X164.61 Y161.52 E52.84700
G1 X164.10 Y161.47 E52.86311
G1 X163.59 Y161.52 E52.87919
G0 F6000 X163.68 Y162.01
;TYPE:WALL-OUTER
G1 F2400 X163.28 Y162.13 E52.89222
G1 X162.92 Y162.33 E52.90522
G1 X162.59 Y162.59 E52.91827
G1 X162.33 Y162.92 E52.93132
G1 X162.13 Y163.28 E52.94432
G1 X162.01 Y163.68 E52.95735
G1 X161.97 Y164.10 E52.97039
G1 X162.01 Y164.51 E52.98339
G1 X162.13 Y164.91 E52.99642
G1 X162.33 Y165.28 E53.00942
G1 X162.59 Y165.61 E53.02247
G1 X162.92 Y165.87 E53.03552
G1 X163.28 Y166.07 E53.04852
G1 X163.68 Y166.19 E53.06156
G1 X164.10 Y166.23 E53.07459
G1 X164.51 Y166.19 E53.08759
G1 X164.91 Y166.07 E53.10062
G1 X165.28 Y165.87 E53.11362
G1 X165.61 Y165.61 E53.12668
G1 X165.87 Y165.28 E53.13973
G1 X166.07 Y164.91 E53.15273
G1 X166.19 Y164.51 E53.16576
G1 X166.23 Y164.10 E53.17876
G1 X166.19 Y163.68 E53.19180
G1 X166.07 Y163.28 E53.20483
G1 X165.87 Y162.92 E53.21783
G1 X165.61 Y162.59 E53.23088
G1 X165.28 Y162.33 E53.24393
G1 X164.91 Y162.13 E53.25693
G1 X164.51 Y162.01 E53.26996
G1 X164.10 Y161.97 E53.28300
G1 X163.68 Y162.01 E53.29600
G0 F6000 X163.40 Y160.62
G1 F2400 X164.10 Y160.55 E53.31781
G1 X164.79 Y160.62 E53.33959
G1 X165.45 Y160.82 E53.36105
G1 X166.08 Y161.15 E53.38305
G1 X166.61 Y161.59 E53.40457
G1 X167.05 Y162.12 E53.42608
G1 X167.38 Y162.75 E53.44808
G1 X167.58 Y163.40 E53.46955
G1 X167.65 Y164.10 E53.49132
G1 X167.58 Y164.79 E53.51313
G1 X167.38 Y165.45 E53.53460
G1 X167.05 Y166.08 E53.55660
G1 X166.61 Y166.61 E53.57811
G1 X166.08 Y167.05 E53.59963
G1 X165.45 Y167.38 E53.62163
G1 X164.79 Y167.58 E53.64309
G1 X164.10 Y167.65 E53.66490
G1 X163.40 Y167.58 E53.68668
G1 X162.75 Y167.38 E53.70814
G1 X162.12 Y167.05 E53.73014
G1 X161.59 Y166.61 E53.75166
G1 X161.15 Y166.08 E53.77318
G1 X160.82 Y165.45 E53.79517
G1 X160.62 Y164.79 E53.81664
G1 X160.55 Y164.10 E53.83845
G1 X160.62 Y163.40 E53.86023
G1 X160.82 Y162.75 E53.88169
G1 X161.15 Y162.12 E53.90369
G1 X161.59 Y161.59 E53.92521
G1 X162.12 Y161.15 E53.94672
G1 X162.75 Y160.82 E53.96872
G1 X163.40 Y160.62 E53.99019
G0 F6000 X155.31 Y162.93
;TYPE:WALL-INNER
G1 F2400 X155.49 Y163.51 E54.00886
G1 X155.55 Y164.10 E54.02741
G1 X155.49 Y164.69 E54.04599
G1 X155.31 Y165.26 E54.06465
G1 X155.03 Y165.79 E54.08339
G1 X154.65 Y166.25 E54.10191
G1 X154.19 Y166.63 E54.12043
G1 X153.66 Y166.91 E54.13916
G1 X153.09 Y167.09 E54.15783
G1 X152.50 Y167.15 E54.17638
G1 X151.91 Y167.09 E54.19493
G1 X151.34 Y166.91 E54.21359
G1 X150.81 Y166.63 E54.23233
G1 X150.35 Y166.25 E54.25085
G1 X149.97 Y165.79 E54.26937
G1 X149.69 Y165.26 E54.28810
G1 X149.51 Y164.69 E54.30677
G1 X149.45 Y164.10 E54.32535
G1 X149.51 Y163.51 E54.34390
G1 X149.69 Y162.93 E54.36257
G1 X149.97 Y162.40 E54.38130
G1 X150.35 Y161.94 E54.39982
G1 X150.81 Y161.57 E54.41835
G1 X151.34 Y161.28 E54.43708
G1 X151.91 Y161.11 E54.45574
G1 X152.50 Y161.05 E54.47429
G1 X153.09 Y161.11 E54.49284
G1 X153.66 Y161.28 E54.51151
G1 X154.19 Y161.57 E54.53024
G1 X154.65 Y161.94 E54.54876
G1 X155.03 Y162.40 E54.56728
G1 X155.31 Y162.93 E54.58602
G0 F6000 X154.93 Y163.09
G1 F2400 X154.69 Y162.64 E54.60209
G1 X154.36 Y162.24 E54.61822
G1 X153.96 Y161.91 E54.63435
G1 X153.51 Y161.67 E54.65042
G1 X153.01 Y161.52 E54.66652
G1 X152.50 Y161.47 E54.68259
G1 X151.99 Y161.52 E54.69867
G1 X151.49 Y161.67 E54.71476
G1 X151.04 Y161.91 E54.73083
G1 X150.64 Y162.24 E54.74696
G1 X150.31 Y162.64 E54.76309
G1 X150.07 Y163.09 E54.77916
G1 X149.92 Y163.59 E54.79526
G1 X149.87 Y164.10 E54.81137
G1 X149.92 Y164.61 E54.82744
G1 X150.07 Y165.11 E54.84354
G1 X150.31 Y165.56 E54.85961
G1 X150.64 Y165.96 E54.87574
G1 X151.04 Y166.29 E54.89187
G1 X151.49 Y166.53 E54.90794
G1 X151.99 Y166.68 E54.92403
G1 X152.50 Y166.73 E54.94011
G1 X153.01 Y166.68 E54.95618
G1 X153.51 Y166.53 E54.97228
G1 X153.96 Y166.29 E54.98835
G1 X154.36 Y165.96 E55.00448
G1 X154.69 Y165.56 E55.02061
G1 X154.93 Y165.11 E55.03668
G1 X155.08 Y164.61 E55.05278
G1 X155.13 Y164.10 E55.06885
G1 X155.08 Y163.59 E55.08496
G1 X154.93 Y163.09 E55.10106
G0 F6000 X154.47 Y163.28
;TYPE:WALL-OUTER
G1 F2400 X154.27 Y162.92 E55.11406
G1 X154.01 Y162.59 E55.12711
G1 X153.68 Y162.33 E55.14016
G1 X153.31 Y162.13 E55.15316
G1 X152.91 Y162.01 E55.16619
G1 X152.50 Y161.97 E55.17920
G1 X152.09 Y162.01 E55.19220
G1 X151.69 Y162.13 E55.20523
G1 X151.32 Y162.33 E55.21823
G1 X150.99 Y162.59 E55.23128
G1 X150.73 Y162.92 E55.24433
G1 X150.53 Y163.28 E55.25734
G1 X150.41 Y163.68 E55.27037
G1 X150.37 Y164.10 E55.28340
G1 X150.41 Y164.51 E55.29640
G1 X150.53 Y164.91 E55.30943
G1 X150.73 Y165.28 E55.32244
G1 X150.99 Y165.61 E55.33549
G1 X151.32 Y165.87 E55.34854
G1 X151.69 Y166.07 E55.36154
G1 X152.09 Y166.19 E55.37457
G1 X152.50 Y166.23 E55.38757
G1 X152.91 Y166.19 E55.40058
G1 X153.31 Y166.07 E55.41361
G1 X153.68 Y165.87 E55.42661
G1 X154.01 Y165.61 E55.43966
G1 X154.27 Y165.28 E55.45271
G1 X154.47 Y164.91 E55.46571
G1 X154.59 Y164.51 E55.47874
G1 X154.63 Y164.10 E55.49175
G1 X154.59 Y163.68 E55.50478
G1 X154.47 Y163.28 E55.51781
G0 F6000 X155.78 Y162.75
G1 F2400 X155.98 Y163.40 E55.53928
G1 X156.05 Y164.10 E55.56105
G1 X155.98 Y164.79 E55.58286
G1 X155.78 Y165.45 E55.60433
G1 X155.45 Y166.08 E55.62633
G1 X155.01 Y166.61 E55.64784
G1 X154.48 Y167.05 E55.66936
G1 X153.85 Y167.38 E55.69136
G1 X153.19 Y167.58 E55.71282
G1 X152.50 Y167.65 E55.73460
G1 X151.81 Y167.58 E55.75638
G1 X151.15 Y167.38 E55.77784
G1 X150.52 Y167.05 E55.79984
G1 X149.99 Y166.61 E55.82136
G1 X149.55 Y166.08 E55.84287
G1 X149.22 Y165.45 E55.86487
G1 X149.02 Y164.79 E55.88634
G1 X148.95 Y164.10 E55.90815
G1 X149.02 Y163.40 E55.92992
G1 X149.22 Y162.75 E55.95139
G1 X149.55 Y162.12 E55.97339
G1 X149.99 Y161.59 E55.99490
G1 X150.52 Y161.15 E56.01642
G1 X151.15 Y160.82 E56.03842
G1 X151.81 Y160.62 E56.05988
G1 X152.50 Y160.55 E56.08166
G1 X153.19 Y160.62 E56.10344
G1 X153.85 Y160.82 E56.12490
G1 X154.48 Y161.15 E56.14690
G1 X155.01 Y161.59 E56.16842
G1 X155.45 Y162.12 E56.18993
G1 X155.78 Y162.75 E56.21193
G0 F6000 X143.95 Y164.10
;TYPE:WALL-INNER
G1 F2400 X143.89 Y164.69 E56.23052
G1 X143.72 Y165.26 E56.24918
G1 X143.43 Y165.79 E56.26791
G1 X143.06 Y166.25 E56.28644
G1 X142.60 Y166.63 E56.30496
G1 X142.07 Y166.91 E56.32369
G1 X141.49 Y167.09 E56.34236
G1 X140.90 Y167.15 E56.36091
G1 X140.31 Y167.09 E56.37949
G1 X139.74 Y166.91 E56.39816
G1 X139.21 Y166.63 E56.41689
G1 X138.75 Y166.25 E56.43541
G1 X138.37 Y165.79 E56.45393
G1 X138.09 Y165.26 E56.47267
G1 X137.91 Y164.69 E56.49133
G1 X137.85 Y164.10 E56.50991
G1 X137.91 Y163.51 E56.52846
G1 X138.09 Y162.93 E56.54713
G1 X138.37 Y162.40 E56.56587
G1 X138.75 Y161.94 E56.58439
G1 X139.21 Y161.57 E56.60291
G1 X139.74 Y161.28 E56.62164
G1 X140.31 Y161.11 E56.64031
G1 X140.90 Y161.05 E56.65889
G1 X141.49 Y161.11 E56.67744
G1 X142.07 Y161.28 E56.69611
G1 X142.60 Y161.57 E56.71484
G1 X143.06 Y161.94 E56.73337
G1 X143.43 Y162.40 E56.75189
G1 X143.72 Y162.93 E56.77062
G1 X143.89 Y163.51 E56.78929
G1 X143.95 Y164.10 E56.80784
G0 F6000 X143.53 Y164.10
G1 F2400 X143.48 Y163.59 E56.82395
G1 X143.33 Y163.09 E56.84005
G1 X143.09 Y162.64 E56.85611
G1 X142.76 Y162.24 E56.87224
G1 X142.36 Y161.91 E56.88837
G1 X141.91 Y161.67 E56.90444
G1 X141.41 Y161.52 E56.92054
G1 X140.90 Y161.47 E56.93665
G1 X140.39 Y161.52 E56.95272
G1 X139.89 Y161.67 E56.96882
G1 X139.44 Y161.91 E56.98489
G1 X139.04 Y162.24 E57.00102
G1 X138.71 Y162.64 E57.01715
G1 X138.47 Y163.09 E57.03322
G1 X138.32 Y163.59 E57.04932
G1 X138.27 Y164.10 E57.06542
G1 X138.32 Y164.61 E57.08150
G1 X138.47 Y165.11 E57.09760
G1 X138.71 Y165.56 E57.11367
G1 X139.04 Y165.96 E57.12979
G1 X139.44 Y166.29 E57.14592
G1 X139.89 Y166.53 E57.16199
G1 X140.39 Y166.68 E57.17809
G1 X140.90 Y166.73 E57.19417
G1 X141.41 Y166.68 E57.21027
G1 X141.91 Y166.53 E57.22637
G1 X142.36 Y166.29 E57.24244
G1 X142.76 Y165.96 E57.25857
G1 X143.09 Y165.56 E57.27470
G1 X143.33 Y165.11 E57.29077
G1 X143.48 Y164.61 E57.30687
G1 X143.53 Y164.10 E57.32294
G0 F6000 X143.03 Y164.10
;TYPE:WALL-OUTER
G1 F2400 X142.99 Y163.68 E57.33598
G1 X142.87 Y163.28 E57.34901
G1 X142.67 Y162.92 E57.36201
G1 X142.41 Y162.59 E57.37506
G1 X142.08 Y162.33 E57.38811
G1 X141.72 Y162.13 E57.40111
G1 X141.32 Y162.01 E57.41414
G1 X140.90 Y161.97 E57.42718
G1 X140.49 Y162.01 E57.44018
G1 X140.09 Y162.13 E57.45321
G1 X139.72 Y162.33 E57.46621
G1 X139.39 Y162.59 E57.47926
G1 X139.13 Y162.92 E57.49231
G1 X138.93 Y163.28 E57.50532
G1 X138.81 Y163.68 E57.51835
G1 X138.77 Y164.10 E57.53138
G1 X138.81 Y164.51 E57.54438
G1 X138.93 Y164.91 E57.55741
G1 X139.13 Y165.28 E57.57042
G1 X139.39 Y165.61 E57.58347
G1 X139.72 Y165.87 E57.59652
G1 X140.09 Y166.07 E57.60952
G1 X140.49 Y166.19 E57.62255
G1 X140.90 Y166.23 E57.63555
G1 X141.32 Y166.19 E57.64859
G1 X141.72 Y166.07 E57.66162
G1 X142.08 Y165.87 E57.67462
G1 X142.41 Y165.61 E57.68767
G1 X142.67 Y165.28 E57.70072
G1 X142.87 Y164.91 E57.71372
G1 X142.99 Y164.51 E57.72675
G1 X143.03 Y164.10 E57.73976
G0 F6000 X144.45 Y164.10
G1 F2400 X144.38 Y164.79 E57.76157
G1 X144.18 Y165.45 E57.78303
G1 X143.85 Y166.08 E57.80503
G1 X143.41 Y166.61 E57.82655
G1 X142.88 Y167.05 E57.84806
G1 X142.25 Y167.38 E57.87006
G1 X141.60 Y167.58 E57.89153
G1 X140.90 Y167.65 E57.91330
G1 X140.21 Y167.58 E57.93511
G1 X139.55 Y167.38 E57.95658
G1 X138.92 Y167.05 E57.97858
G1 X138.39 Y166.61 E58.00009
G1 X137.95 Y166.08 E58.02161
G1 X137.62 Y165.45 E58.04361
G1 X137.42 Y164.79 E58.06507
G1 X137.35 Y164.10 E58.08688
G1 X137.42 Y163.40 E58.10866
G1 X137.62 Y162.75 E58.13012
G1 X137.95 Y162.12 E58.15212
G1 X138.39 Y161.59 E58.17364
G1 X138.92 Y161.15 E58.19515
G1 X139.55 Y160.82 E58.21715
G1 X140.21 Y160.62 E58.23862
G1 X140.90 Y160.55 E58.26043
G1 X141.60 Y160.62 E58.28221
G1 X142.25 Y160.82 E58.30367
G1 X142.88 Y161.15 E58.32567
G1 X143.41 Y161.59 E58.34719
G1 X143.85 Y162.12 E58.36870
G1 X144.18 Y162.75 E58.39070
G1 X144.38 Y163.40 E58.41217
G1 X144.45 Y164.10 E58.43394
G0 F6000 X142.07 Y155.31
;TYPE:WALL-INNER
G1 F2400 X141.49 Y155.49 E58.45262
G1 X140.90 Y155.55 E58.47116
G1 X140.31 Y155.49 E58.48974
G1 X139.74 Y155.31 E58.50841
G1 X139.21 Y155.03 E58.52714
G1 X138.75 Y154.65 E58.54566
G1 X138.37 Y154.19 E58.56419
G1 X138.09 Y153.66 E58.58292
G1 X137.91 Y153.09 E58.60158
G1 X137.85 Y152.50 E58.62013
G1 X137.91 Y151.91 E58.63868
G1 X138.09 Y151.34 E58.65735
G1 X138.37 Y150.81 E58.67608
G1 X138.75 Y150.35 E58.69460
G1 X139.21 Y149.97 E58.71312
G1 X139.74 Y149.69 E58.73186
G1 X140.31 Y149.51 E58.75052
G1 X140.90 Y149.45 E58.76910
G1 X141.49 Y149.51 E58.78765
G1 X142.07 Y149.69 E58.80633
G1 X142.60 Y149.97 E58.82506
G1 X143.06 Y150.35 E58.84358
G1 X143.43 Y150.81 E58.86210
G1 X143.72 Y151.34 E58.88084
G1 X143.89 Y151.91 E58.89950
G1 X143.95 Y152.50 E58.91805
G1 X143.89 Y153.09 E58.93660
G1 X143.72 Y153.66 E58.95526
G1 X143.43 Y154.19 E58.97400
G1 X143.06 Y154.65 E58.99252
G1 X142.60 Y155.03 E59.01104
G1 X142.07 Y155.31 E59.02978
G0 F6000 X141.91 Y154.93
G1 F2400 X142.36 Y154.69 E59.04585
G1 X142.76 Y154.36 E59.06198
G1 X143.09 Y153.96 E59.07810
G1 X143.33 Y153.51 E59.09417
G1 X143.48 Y153.01 E59.11027
G1 X143.53 Y152.50 E59.12635
G1 X143.48 Y151.99 E59.14242
G1 X143.33 Y151.49 E59.15852
G1 X143.09 Y151.04 E59.17459
G1 X142.76 Y150.64 E59.19072
G1 X142.36 Y150.31 E59.20685
G1 X141.91 Y150.07 E59.22292
G1 X141.41 Y149.92 E59.23902
G1 X140.90 Y149.87 E59.25512
G1 X140.39 Y149.92 E59.27120
G1 X139.89 Y150.07 E59.28730
G1 X139.44 Y150.31 E59.30336
G1 X139.04 Y150.64 E59.31949
G1 X138.71 Y151.04 E59.33562
G1 X138.47 Y151.49 E59.35169
G1 X138.32 Y151.99 E59.36779
G1 X138.27 Y152.50 E59.38387
G1 X138.32 Y153.01 E59.39994
G1 X138.47 Y153.51 E59.41604
G1 X138.71 Y153.96 E59.43211
G1 X139.04 Y154.36 E59.44824
G1 X139.44 Y154.69 E59.46437
G1 X139.89 Y154.93 E59.48044
G1 X140.39 Y155.08 E59.49654
G1 X140.90 Y155.13 E59.51261
G1 X141.41 Y155.08 E59.52872
G1 X141.91 Y154.93 E59.54481
G0 F6000 X141.72 Y154.47
;TYPE:WALL-OUTER
G1 F2400 X142.08 Y154.27 E59.55782
G1 X142.41 Y154.01 E59.57087
G1 X142.67 Y153.68 E59.58392
G1 X142.87 Y153.31 E59.59692
G1 X142.99 Y152.91 E59.60995
G1 X143.03 Y152.50 E59.62295
G1 X142.99 Y152.09 E59.63596
G1 X142.87 Y151.69 E59.64899
G1 X142.67 Y151.32 E59.66199
G1 X142.41 Y150.99 E59.67504
G1 X142.08 Y150.73 E59.68809
G1 X141.72 Y150.53 E59.70109
G1 X141.32 Y150.41 E59.71412
G1 X140.90 Y150.37 E59.72716
G1 X140.49 Y150.41 E59.74016
G1 X140.09 Y150.53 E59.75319
G1 X139.72 Y150.73 E59.76619
G1 X139.39 Y150.99 E59.77924
G1 X139.13 Y151.32 E59.79229
G1 X138.93 Y151.69 E59.80530
G1 X138.81 Y152.09 E59.81833
G1 X138.77 Y152.50 E59.83133
G1 X138.81 Y152.91 E59.84433
G1 X138.93 Y153.31 E59.85736
G1 X139.13 Y153.68 E59.87036
G1 X139.39 Y154.01 E59.88342
G1 X139.72 Y154.27 E59.89647
G1 X140.09 Y154.47 E59.90947
G1 X140.49 Y154.59 E59.92250
G1 X140.90 Y154.63 E59.93550
G1 X141.32 Y154.59 E59.94854
G1 X141.72 Y154.47 E59.96157
G0 F6000 X142.25 Y155.78
G1 F2400 X141.60 Y155.98 E59.98303
G1 X140.90 Y156.05 E60.00481
G1 X140.21 Y155.98 E60.02662
G1 X139.55 Y155.78 E60.04808
G1 X138.92 Y155.45 E60.07008
G1 X138.39 Y155.01 E60.09160
G1 X137.95 Y154.48 E60.11311
G1 X137.62 Y153.85 E60.13511
G1 X137.42 Y153.19 E60.15658
G1 X137.35 Y152.50 E60.17836
G1 X137.42 Y151.81 E60.20013
G1 X137.62 Y151.15 E60.22160
G1 X137.95 Y150.52 E60.24360
G1 X138.39 Y149.99 E60.26511
G1 X138.92 Y149.55 E60.28663
G1 X139.55 Y149.22 E60.30863
G1 X140.21 Y149.02 E60.33009
G1 X140.90 Y148.95 E60.35190
G1 X141.60 Y149.02 E60.37368
G1 X142.25 Y149.22 E60.39515
G1 X142.88 Y149.55 E60.41714
G1 X143.41 Y149.99 E60.43866
G1 X143.85 Y150.52 E60.46018
G1 X144.18 Y151.15 E60.48218
G1 X144.38 Y151.81 E60.50364
G1 X144.45 Y152.50 E60.52542
G1 X144.38 Y153.19 E60.54720
G1 X144.18 Y153.85 E60.56866
G1 X143.85 Y154.48 E60.59066
G1 X143.41 Y155.01 E60.61218
G1 X142.88 Y155.45 E60.63369
G1 X142.25 Y155.78 E60.65569
G0 F6000 X140.90 Y143.95
;TYPE:WALL-INNER
G1 F2400 X140.31 Y143.89 E60.67427
G1 X139.74 Y143.72 E60.69294
G1 X139.21 Y143.43 E60.71167
G1 X138.75 Y143.06 E60.73019
G1 X138.37 Y142.60 E60.74871
G1 X138.09 Y142.07 E60.76745
G1 X137.91 Y141.49 E60.78611
G1 X137.85 Y140.90 E60.80469
G1 X137.91 Y140.31 E60.82324
G1 X138.09 Y139.74 E60.84191
G1 X138.37 Y139.21 E60.86065
G1 X138.75 Y138.75 E60.87917
G1 X139.21 Y138.37 E60.89769
G1 X139.74 Y138.09 E60.91642
G1 X140.31 Y137.91 E60.93509
G1 X140.90 Y137.85 E60.95367
G1 X141.49 Y137.91 E60.97222
G1 X142.07 Y138.09 E60.99089
G1 X142.60 Y138.37 E61.00962
G1 X143.06 Y138.75 E61.02815
G1 X143.43 Y139.21 E61.04667
G1 X143.72 Y139.74 E61.06540
G1 X143.89 Y140.31 E61.08407
G1 X143.95 Y140.90 E61.10262
G1 X143.89 Y141.49 E61.12120
G1 X143.72 Y142.07 E61.13987
G1 X143.43 Y142.60 E61.15860
G1 X143.06 Y143.06 E61.17712
G1 X142.60 Y143.43 E61.19564
G1 X142.07 Y143.72 E61.21438
G1 X141.49 Y143.89 E61.23305
G1 X140.90 Y143.95 E61.25160
G0 F6000 X140.90 Y143.53
G1 F2400 X141.41 Y143.48 E61.26770
G1 X141.91 Y143.33 E61.28380
G1 X142.36 Y143.09 E61.29987
G1 X142.76 Y142.76 E61.31600
G1 X143.09 Y142.36 E61.33213
G1 X143.33 Y141.91 E61.34820
G1 X143.48 Y141.41 E61.36430
G1 X143.53 Y140.90 E61.38037
G1 X143.48 Y140.39 E61.39648
G1 X143.33 Y139.89 E61.41258
G1 X143.09 Y139.44 E61.42865
G1 X142.76 Y139.04 E61.44478
G1 X142.36 Y138.71 E61.46091
G1 X141.91 Y138.47 E61.47698
G1 X141.41 Y138.32 E61.49307
G1 X140.90 Y138.27 E61.50918
G1 X140.39 Y138.32 E61.52525
G1 X139.89 Y138.47 E61.54135
G1 X139.44 Y138.71 E61.55742
G1 X139.04 Y139.04 E61.57355
G1 X138.71 Y139.44 E61.58968
G1 X138.47 Y139.89 E61.60575
G1 X138.32 Y140.39 E61.62185
G1 X138.27 Y140.90 E61.63795
G1 X138.32 Y141.41 E61.65403
G1 X138.47 Y141.91 E61.67013
G1 X138.71 Y142.36 E61.68620
G1 X139.04 Y142.76 E61.70233
G1 X139.44 Y143.09 E61.71846
G1 X139.89 Y143.33 E61.73453
G1 X140.39 Y143.48 E61.75062
G1 X140.90 Y143.53 E61.76670
G0 F6000 X140.90 Y143.03
;TYPE:WALL-OUTER
G1 F2400 X141.32 Y142.99 E61.77973
G1 X141.72 Y142.87 E61.79276
G1 X142.08 Y142.67 E61.80576
G1 X142.41 Y142.41 E61.81882
G1 X142.67 Y142.08 E61.83187
G1 X142.87 Y141.72 E61.84487
G1 X142.99 Y141.32 E61.85790
G1 X143.03 Y140.90 E61.87090
G1 X142.99 Y140.49 E61.88394
G1 X142.87 Y140.09 E61.89697
G1 X142.67 Y139.72 E61.90997
G1 X142.41 Y139.39 E61.92302
G1 X142.08 Y139.13 E61.93607
G1 X141.72 Y138.93 E61.94907
G1 X141.32 Y138.81 E61.96210
G1 X140.90 Y138.77 E61.97514
G1 X140.49 Y138.81 E61.98814
G1 X140.09 Y138.93 E62.00117
G1 X139.72 Y139.13 E62.01417
G1 X139.39 Y139.39 E62.02722
G1 X139.13 Y139.72 E62.04028
G1 X138.93 Y140.09 E62.05328
G1 X138.81 Y140.49 E62.06631
G1 X138.77 Y140.90 E62.07934
G1 X138.81 Y141.32 E62.09234
G1 X138.93 Y141.72 E62.10537
G1 X139.13 Y142.08 E62.11838
G1 X139.39 Y142.41 E62.13143
G1 X139.72 Y142.67 E62.14448
G1 X140.09 Y142.87 E62.15748
G1 X140.49 Y142.99 E62.17051
G1 X140.90 Y143.03 E62.18351
G0 F6000 X140.90 Y144.45
G1 F2400 X140.21 Y144.38 E62.20532
G1 X139.55 Y144.18 E62.22679
G1 X138.92 Y143.85 E62.24879
G1 X138.39 Y143.41 E62.27030
G1 X137.95 Y142.88 E62.29182
G1 X137.62 Y142.25 E62.31382
G1 X137.42 Y141.60 E62.33528
G1 X137.35 Y140.90 E62.35709
G1 X137.42 Y140.21 E62.37887
G1 X137.62 Y139.55 E62.40033
G1 X137.95 Y138.92 E62.42233
G1 X138.39 Y138.39 E62.44385
G1 X138.92 Y137.95 E62.46536
G1 X139.55 Y137.62 E62.48736
G1 X140.21 Y137.42 E62.50883
G1 X140.90 Y137.35 E62.53064
G1 X141.60 Y137.42 E62.55242
G1 X142.25 Y137.62 E62.57388
G1 X142.88 Y137.95 E62.59588
G1 X143.41 Y138.39 E62.61740
G1 X143.85 Y138.92 E62.63891
G1 X144.18 Y139.55 E62.66091
G1 X144.38 Y140.21 E62.68238
G1 X144.45 Y140.90 E62.70415
G1 X144.38 Y141.60 E62.72596
G1 X144.18 Y142.25 E62.74743
G1 X143.85 Y142.88 E62.76943
G1 X143.41 Y143.41 E62.79094
G1 X142.88 Y143.85 E62.81246
G1 X142.25 Y144.18 E62.83446
G1 X141.60 Y144.38 E62.85592
G1 X140.90 Y144.45 E62.87770
;LAYER:2
G0 F6000 X140.90 Y143.95 Z0.60
;TYPE:WALL-INNER
G1 F2340 X140.31 Y143.89 E62.89628
G1 X139.74 Y143.72 E62.91494
G1 X139.21 Y143.43 E62.93368
G1 X138.75 Y143.06 E62.95220
G1 X138.37 Y142.60 E62.97072
G1 X138.09 Y142.07 E62.98946
G1 X137.91 Y141.49 E63.00812
G1 X137.85 Y140.90 E63.02670
G1 X137.91 Y140.31 E63.04525
G1 X138.09 Y139.74 E63.06392
G1 X138.37 Y139.21 E63.08266
G1 X138.75 Y138.75 E63.10118
G1 X139.21 Y138.37 E63.11970
G1 X139.74 Y138.09 E63.13843
G1 X140.31 Y137.91 E63.15710
G1 X140.90 Y137.85 E63.17568
G1 X141.49 Y137.91 E63.19423
G1 X142.07 Y138.09 E63.21290
G1 X142.60 Y138.37 E63.23163
G1 X143.06 Y138.75 E63.25015
G1 X143.43 Y139.21 E63.26867
G1 X143.72 Y139.74 E63.28741
G1 X143.89 Y140.31 E63.30608
G1 X143.95 Y140.90 E63.32463
G1 X143.89 Y141.49 E63.34321
G1 X143.72 Y142.07 E63.36188
G1 X143.43 Y142.60 E63.38061
G1 X143.06 Y143.06 E63.39913
G1 X142.60 Y143.43 E63.41765
G1 X142.07 Y143.72 E63.43639
G1 X141.49 Y143.89 E63.45506
G1 X140.90 Y143.95 E63.47361
G0 F6000 X140.90 Y143.53
G1 F2340 X141.41 Y143.48 E63.48971
G1 X141.91 Y143.33 E63.50581
G1 X142.36 Y143.09 E63.52188
G1 X142.76 Y142.76 E63.53801
G1 X143.09 Y142.36 E63.55414
G1 X143.33 Y141.91 E63.57021
G1 X143.48 Y141.41 E63.58631
G1 X143.53 Y140.90 E63.60238
G1 X143.48 Y140.39 E63.61849
G1 X143.33 Y139.89 E63.63459
G1 X143.09 Y139.44 E63.65066
G1 X142.76 Y139.04 E63.66678
G1 X142.36 Y138.71 E63.68291
G1 X141.91 Y138.47 E63.69898
G1 X141.41 Y138.32 E63.71508
G1 X140.90 Y138.27 E63.73119
G1 X140.39 Y138.32 E63.74726
G1 X139.89 Y138.47 E63.76336
G1 X139.44 Y138.71 E63.77943
G1 X139.04 Y139.04 E63.79556
G1 X138.71 Y139.44 E63.81169
G1 X138.47 Y139.89 E63.82776
G1 X138.32 Y140.39 E63.84386
G1 X138.27 Y140.90 E63.85996
G1 X138.32 Y141.41 E63.87604
G1 X138.47 Y141.91 E63.89214
G1 X138.71 Y142.36 E63.90821
G1 X139.04 Y142.76 E63.92433
G1 X139.44 Y143.09 E63.94046
G1 X139.89 Y143.33 E63.95653
G1 X140.39 Y143.48 E63.97263
G1 X140.90 Y143.53 E63.98871
G0 F6000 X140.90 Y143.03
;TYPE:WALL-OUTER
G1 F2340 X141.32 Y142.99 E64.00174
G1 X141.72 Y142.87 E64.01477
G1 X142.08 Y142.67 E64.02777
G1 X142.41 Y142.41 E64.04082
G1 X142.67 Y142.08 E64.05388
G1 X142.87 Y141.72 E64.06688
G1 X142.99 Y141.32 E64.07991
G1 X143.03 Y140.90 E64.09291
G1 X142.99 Y140.49 E64.10595
G1 X142.87 Y140.09 E64.11898
G1 X142.67 Y139.72 E64.13198
G1 X142.41 Y139.39 E64.14503
G1 X142.08 Y139.13 E64.15808
G1 X141.72 Y138.93 E64.17108
G1 X141.32 Y138.81 E64.18411
G1 X140.90 Y138.77 E64.19715
G1 X140.49 Y138.81 E64.21015
G1 X140.09 Y138.93 E64.22318
G1 X139.72 Y139.13 E64.23618
G1 X139.39 Y139.39 E64.24923
G1 X139.13 Y139.72 E64.26228
G1 X138.93 Y140.09 E64.27528
G1 X138.81 Y140.49 E64.28832
G1 X138.77 Y140.90 E64.30135
G1 X138.81 Y141.32 E64.31435
G1 X138.93 Y141.72 E64.32738
G1 X139.13 Y142.08 E64.34038
G1 X139.39 Y142.41 E64.35344
G1 X139.72 Y142.67 E64.36649
G1 X140.09 Y142.87 E64.37949
G1 X140.49 Y142.99 E64.39252
G1 X140.90 Y143.03 E64.40552
G0 F6000 X140.90 Y144.45
G1 F2340 X140.21 Y144.38 E64.42733
G1 X139.55 Y144.18 E64.44880
G1 X138.92 Y143.85 E64.47080
G1 X138.39 Y143.41 E64.49231
G1 X137.95 Y142.88 E64.51383
G1 X137.62 Y142.25 E64.53583
G1 X137.42 Y141.60 E64.55729
G1 X137.35 Y140.90 E64.57910
G1 X137.42 Y140.21 E64.60088
G1 X137.62 Y139.55 E64.62234
G1 X137.95 Y138.92 E64.64434
G1 X138.39 Y138.39 E64.66586
G1 X138.92 Y137.95 E64.68737
G1 X139.55 Y137.62 E64.70937
G1 X140.21 Y137.42 E64.73084
G1 X140.90 Y137.35 E64.75265
G1 X141.60 Y137.42 E64.77442
G1 X142.25 Y137.62 E64.79589
G1 X142.88 Y137.95 E64.81789
G1 X143.41 Y138.39 E64.83940
G1 X143.85 Y138.92 E64.86092
G1 X144.18 Y139.55 E64.88292
G1 X144.38 Y140.21 E64.90438
G1 X144.45 Y140.90 E64.92616
G1 X144.38 Y141.60 E64.94797
G1 X144.18 Y142.25 E64.96944
G1 X143.85 Y142.88 E64.99143
G1 X143.41 Y143.41 E65.01295
G1 X142.88 Y143.85 E65.03447
G1 X142.25 Y144.18 E65.05647
G1 X141.60 Y144.38 E65.07793
G1 X140.90 Y144.45 E65.09971
G0 F6000 X140.90 Y149.45
;TYPE:WALL-INNER
G1 F2340 X141.49 Y149.51 E65.11826
G1 X142.07 Y149.69 E65.13693
G1 X142.60 Y149.97 E65.15566
G1 X143.06 Y150.35 E65.17418
G1 X143.43 Y150.81 E65.19270
G1 X143.72 Y151.34 E65.21144
G1 X143.89 Y151.91 E65.23010
G1 X143.95 Y152.50 E65.24865
G1 X143.89 Y153.09 E65.26720
G1 X143.72 Y153.66 E65.28587
G1 X143.43 Y154.19 E65.30460
G1 X143.06 Y154.65 E65.32312
G1 X142.60 Y155.03 E65.34164
G1 X142.07 Y155.31 E65.36038
G1 X141.49 Y155.49 E65.37905
G1 X140.90 Y155.55 E65.39760
G1 X140.31 Y155.49 E65.41618
G1 X139.74 Y155.31 E65.43484
G1 X139.21 Y155.03 E65.45358
G1 X138.75 Y154.65 E65.47210
G1 X138.37 Y154.19 E65.49062
G1 X138.09 Y153.66 E65.50936
G1 X137.91 Y153.09 E65.52802
G1 X137.85 Y152.50 E65.54657
G1 X137.91 Y151.91 E65.56512
G1 X138.09 Y151.34 E65.58378
G1 X138.37 Y150.81 E65.60252
G1 X138.75 Y150.35 E65.62104
G1 X139.21 Y149.97 E65.63956
G1 X139.74 Y149.69 E65.65830
G1 X140.31 Y149.51 E65.67696
G1 X140.90 Y149.45 E65.69554
G0 F6000 X140.90 Y149.87
G1 F2340 X140.39 Y149.92 E65.71162
G1 X139.89 Y150.07 E65.72771
G1 X139.44 Y150.31 E65.74378
G1 X139.04 Y150.64 E65.75991
G1 X138.71 Y151.04 E65.77604
G1 X138.47 Y151.49 E65.79211
G1 X138.32 Y151.99 E65.80821
G1 X138.27 Y152.50 E65.82429
G1 X138.32 Y153.01 E65.84036
G1 X138.47 Y153.51 E65.85646
G1 X138.71 Y153.96 E65.87253
G1 X139.04 Y154.36 E65.88866
G1 X139.44 Y154.69 E65.90479
G1 X139.89 Y154.93 E65.92086
G1 X140.39 Y155.08 E65.93695
G1 X140.90 Y155.13 E65.95303
G1 X141.41 Y155.08 E65.96914
G1 X141.91 Y154.93 E65.98523
G1 X142.36 Y154.69 E66.00130
G1 X142.76 Y154.36 E66.01743
G1 X143.09 Y153.96 E66.03356
G1 X143.33 Y153.51 E66.04963
G1 X143.48 Y153.01 E66.06573
G1 X143.53 Y152.50 E66.08180
G1 X143.48 Y151.99 E66.09788
G1 X143.33 Y151.49 E66.11398
G1 X143.09 Y151.04 E66.13005
G1 X142.76 Y150.64 E66.14618
G1 X142.36 Y150.31 E66.16231
G1 X141.91 Y150.07 E66.17838
G1 X141.41 Y149.92 E66.19447
G1 X140.90 Y149.87 E66.21058
G0 F6000 X140.90 Y150.37
;TYPE:WALL-OUTER
G1 F2340 X140.49 Y150.41 E66.22358
G1 X140.09 Y150.53 E66.23661
G1 X139.72 Y150.73 E66.24961
G1 X139.39 Y150.99 E66.26267
G1 X139.13 Y151.32 E66.27572
G1 X138.93 Y151.69 E66.28872
G1 X138.81 Y152.09 E66.30175
G1 X138.77 Y152.50 E66.31475
G1 X138.81 Y152.91 E66.32776
G1 X138.93 Y153.31 E66.34079
G1 X139.13 Y153.68 E66.35379
G1 X139.39 Y154.01 E66.36684
G1 X139.72 Y154.27 E66.37989
G1 X140.09 Y154.47 E66.39289
G1 X140.49 Y154.59 E66.40592
G1 X140.90 Y154.63 E66.41892
G1 X141.32 Y154.59 E66.43196
G1 X141.72 Y154.47 E66.44499
G1 X142.08 Y154.27 E66.45799
G1 X142.41 Y154.01 E66.47104
G1 X142.67 Y153.68 E66.48409
G1 X142.87 Y153.31 E66.49709
G1 X142.99 Y152.91 E66.51013
G1 X143.03 Y152.50 E66.52313
G1 X142.99 Y152.09 E66.53613
G1 X142.87 Y151.69 E66.54916
G1 X142.67 Y151.32 E66.56216
G1 X142.41 Y150.99 E66.57522
G1 X142.08 Y150.73 E66.58827
G1 X141.72 Y150.53 E66.60127
G1 X141.32 Y150.41 E66.61430
G1 X140.90 Y150.37 E66.62733
G0 F6000 X140.90 Y148.95
G1 F2340 X141.60 Y149.02 E66.64911
G1 X142.25 Y149.22 E66.67058
G1 X142.88 Y149.55 E66.69257
G1 X143.41 Y149.99 E66.71409
G1 X143.85 Y150.52 E66.73561
G1 X144.18 Y151.15 E66.75761
G1 X144.38 Y151.81 E66.77907
G1 X144.45 Y152.50 E66.80085
G1 X144.38 Y153.19 E66.82263
G1 X144.18 Y153.85 E66.84409
G1 X143.85 Y154.48 E66.86609
G1 X143.41 Y155.01 E66.88761
G1 X142.88 Y155.45 E66.90912
G1 X142.25 Y155.78 E66.93112
G1 X141.60 Y155.98 E66.95259
G1 X140.90 Y156.05 E66.97436
G1 X140.21 Y155.98 E66.99617
G1 X139.55 Y155.78 E67.01764
G1 X138.92 Y155.45 E67.03964
G1 X138.39 Y155.01 E67.06115
G1 X137.95 Y154.48 E67.08267
G1 X137.62 Y153.85 E67.10467
G1 X137.42 Y153.19 E67.12613
G1 X137.35 Y152.50 E67.14791
G1 X137.42 Y151.81 E67.16969
G1 X137.62 Y151.15 E67.19115
G1 X137.95 Y150.52 E67.21315
G1 X138.39 Y149.99 E67.23467
G1 X138.92 Y149.55 E67.25618
G1 X139.55 Y149.22 E67.27818
G1 X140.21 Y149.02 E67.29965
G1 X140.90 Y148.95 E67.32146
G0 F6000 X149.69 Y151.34
;TYPE:WALL-INNER
G1 F2340 X149.97 Y150.81 E67.34019
G1 X150.35 Y150.35 E67.35871
G1 X150.81 Y149.97 E67.37723
G1 X151.34 Y149.69 E67.39597
G1 X151.91 Y149.51 E67.41463
G1 X152.50 Y149.45 E67.43318
G1 X153.09 Y149.51 E67.45173
G1 X153.66 Y149.69 E67.47040
G1 X154.19 Y149.97 E67.48913
G1 X154.65 Y150.35 E67.50765
G1 X155.03 Y150.81 E67.52617
G1 X155.31 Y151.34 E67.54491
G1 X155.49 Y151.91 E67.56357
G1 X155.55 Y152.50 E67.58212
G1 X155.49 Y153.09 E67.60067
G1 X155.31 Y153.66 E67.61934
G1 X155.03 Y154.19 E67.63807
G1 X154.65 Y154.65 E67.65659
G1 X154.19 Y155.03 E67.67511
G1 X153.66 Y155.31 E67.69385
G1 X153.09 Y155.49 E67.71251
G1 X152.50 Y155.55 E67.73106
G1 X151.91 Y155.49 E67.74961
G1 X151.34 Y155.31 E67.76828
G1 X150.81 Y155.03 E67.78701
G1 X150.35 Y154.65 E67.80553
G1 X149.97 Y154.19 E67.82405
G1 X149.69 Y153.66 E67.84279
G1 X149.51 Y153.09 E67.86145
G1 X149.45 Y152.50 E67.88000
G1 X149.51 Y151.91 E67.89855
G1 X149.69 Y151.34 E67.91722
G0 F6000 X150.07 Y151.49
G1 F2340 X149.92 Y151.99 E67.93331
G1 X149.87 Y152.50 E67.94939
G1 X149.92 Y153.01 E67.96546
G1 X150.07 Y153.51 E67.98156
G1 X150.31 Y153.96 E67.99763
G1 X150.64 Y154.36 E68.01376
G1 X151.04 Y154.69 E68.02989
G1 X151.49 Y154.93 E68.04596
G1 X151.99 Y155.08 E68.06206
G1 X152.50 Y155.13 E68.07813
G1 X153.01 Y155.08 E68.09421
G1 X153.51 Y154.93 E68.11031
G1 X153.96 Y154.69 E68.12637
G1 X154.36 Y154.36 E68.14250
G1 X154.69 Y153.96 E68.15863
G1 X154.93 Y153.51 E68.17470
G1 X155.08 Y153.01 E68.19080
G1 X155.13 Y152.50 E68.20688
G1 X155.08 Y151.99 E68.22295
G1 X154.93 Y151.49 E68.23905
G1 X154.69 Y151.04 E68.25512
G1 X154.36 Y150.64 E68.27125
G1 X153.96 Y150.31 E68.28738
G1 X153.51 Y150.07 E68.30345
G1 X153.01 Y149.92 E68.31955
G1 X152.50 Y149.87 E68.33562
G1 X151.99 Y149.92 E68.35170
G1 X151.49 Y150.07 E68.36779
G1 X151.04 Y150.31 E68.38386
G1 X150.64 Y150.64 E68.39999
G1 X150.31 Y151.04 E68.41612
G1 X150.07 Y151.49 E68.43219
G0 F6000 X150.53 Y151.69
;TYPE:WALL-OUTER
G1 F2340 X150.41 Y152.09 E68.44522
G1 X150.37 Y152.50 E68.45823
G1 X150.41 Y152.91 E68.47123
G1 X150.53 Y153.31 E68.48426
G1 X150.73 Y153.68 E68.49726
G1 X150.99 Y154.01 E68.51031
G1 X151.32 Y154.27 E68.52336
G1 X151.69 Y154.47 E68.53636
G1 X152.09 Y154.59 E68.54939
G1 X152.50 Y154.63 E68.56240
G1 X152.91 Y154.59 E68.57540
G1 X153.31 Y154.47 E68.58843
G1 X153.68 Y154.27 E68.60143
G1 X154.01 Y154.01 E68.61448
G1 X154.27 Y153.68 E68.62754
G1 X154.47 Y153.31 E68.64054
G1 X154.59 Y152.91 E68.65357
G1 X154.63 Y152.50 E68.66657
G1 X154.59 Y152.09 E68.67957
G1 X154.47 Y151.69 E68.69260
G1 X154.27 Y151.32 E68.70561
G1 X154.01 Y150.99 E68.71866
G1 X153.68 Y150.73 E68.73171
G1 X153.31 Y150.53 E68.74471
G1 X152.91 Y150.41 E68.75774
G1 X152.50 Y150.37 E68.77074
G1 X152.09 Y150.41 E68.78375
G1 X151.69 Y150.53 E68.79678
G1 X151.32 Y150.73 E68.80978
G1 X150.99 Y150.99 E68.82283
G1 X150.73 Y151.32 E68.83588
G1 X150.53 Y151.69 E68.84888
G0 F6000 X149.22 Y151.15
G1 F2340 X149.55 Y150.52 E68.87088
G1 X149.99 Y149.99 E68.89240
G1 X150.52 Y149.55 E68.91391
G1 X151.15 Y149.22 E68.93591
G1 X151.81 Y149.02 E68.95738
G1 X152.50 Y148.95 E68.97916
G1 X153.19 Y149.02 E69.00093
G1 X153.85 Y149.22 E69.02240
G1 X154.48 Y149.55 E69.04440
G1 X155.01 Y149.99 E69.06591
G1 X155.45 Y150.52 E69.08743
G1 X155.78 Y151.15 E69.10943
G1 X155.98 Y151.81 E69.13089
G1 X156.05 Y152.50 E69.15267
G1 X155.98 Y153.19 E69.17445
G1 X155.78 Y153.85 E69.19591
G1 X155.45 Y154.48 E69.21791
G1 X155.01 Y155.01 E69.23943
G1 X154.48 Y155.45 E69.26094
G1 X153.85 Y155.78 E69.28294
G1 X153.19 Y155.98 E69.30441
G1 X152.50 Y156.05 E69.32619
G1 X151.81 Y155.98 E69.34796
G1 X151.15 Y155.78 E69.36943
G1 X150.52 Y155.45 E69.39143
G1 X149.99 Y155.01 E69.41294
G1 X149.55 Y154.48 E69.43446
G1 X149.22 Y153.85 E69.45646
G1 X149.02 Y153.19 E69.47792
G1 X148.95 Y152.50 E69.49970
G1 X149.02 Y151.81 E69.52148
G1 X149.22 Y151.15 E69.54294
G0 F6000 X151.34 Y143.72
;TYPE:WALL-INNER
G1 F2340 X150.81 Y143.43 E69.56168
G1 X150.35 Y143.06 E69.58020
G1 X149.97 Y142.60 E69.59872
G1 X149.69 Y142.07 E69.61746
G1 X149.51 Y141.49 E69.63612
G1 X149.45 Y140.90 E69.65470
G1 X149.51 Y140.31 E69.67325
G1 X149.69 Y139.74 E69.69192
G1 X149.97 Y139.21 E69.71066
G1 X150.35 Y138.75 E69.72918
G1 X150.81 Y138.37 E69.74770
G1 X151.34 Y138.09 E69.76643
G1 X151.91 Y137.91 E69.78510
G1 X152.50 Y137.85 E69.80365
G1 X153.09 Y137.91 E69.82220
G1 X153.66 Y138.09 E69.84086
G1 X154.19 Y138.37 E69.85960
G1 X154.65 Y138.75 E69.87812
G1 X155.03 Y139.21 E69.89664
G1 X155.31 Y139.74 E69.91537
G1 X155.49 Y140.31 E69.93404
G1 X155.55 Y140.90 E69.95259
G1 X155.49 Y141.49 E69.97117
G1 X155.31 Y142.07 E69.98984
G1 X155.03 Y142.60 E70.00857
G1 X154.65 Y143.06 E70.02709
G1 X154.19 Y143.43 E70.04561
G1 X153.66 Y143.72 E70.06435
G1 X153.09 Y143.89 E70.08301
G1 X152.50 Y143.95 E70.10156
G1 X151.91 Y143.89 E70.12011
G1 X151.34 Y143.72 E70.13878
G0 F6000 X151.49 Y143.33
G1 F2340 X151.99 Y143.48 E70.15488
G1 X152.50 Y143.53 E70.17095
G1 X153.01 Y143.48 E70.18703
G1 X153.51 Y143.33 E70.20312
G1 X153.96 Y143.09 E70.21919
G1 X154.36 Y142.76 E70.23532
G1 X154.69 Y142.36 E70.25145
G1 X154.93 Y141.91 E70.26752
G1 X155.08 Y141.41 E70.28362
G1 X155.13 Y140.90 E70.29969
G1 X155.08 Y140.39 E70.31580
G1 X154.93 Y139.89 E70.33190
G1 X154.69 Y139.44 E70.34797
G1 X154.36 Y139.04 E70.36410
G1 X153.96 Y138.71 E70.38023
G1 X153.51 Y138.47 E70.39630
G1 X153.01 Y138.32 E70.41239
G1 X152.50 Y138.27 E70.42847
G1 X151.99 Y138.32 E70.44454
G1 X151.49 Y138.47 E70.46064
G1 X151.04 Y138.71 E70.47671
G1 X150.64 Y139.04 E70.49284
G1 X150.31 Y139.44 E70.50897
G1 X150.07 Y139.89 E70.52504
G1 X149.92 Y140.39 E70.54114
G1 X149.87 Y140.90 E70.55724
G1 X149.92 Y141.41 E70.57332
G1 X150.07 Y141.91 E70.58942
G1 X150.31 Y142.36 E70.60549
G1 X150.64 Y142.76 E70.62162
G1 X151.04 Y143.09 E70.63775
G1 X151.49 Y143.33 E70.65382
G0 F6000 X151.69 Y142.87
;TYPE:WALL-OUTER
G1 F2340 X152.09 Y142.99 E70.66685
G1 X152.50 Y143.03 E70.67985
G1 X152.91 Y142.99 E70.69285
G1 X153.31 Y142.87 E70.70588
G1 X153.68 Y142.67 E70.71888
G1 X154.01 Y142.41 E70.73194
G1 X154.27 Y142.08 E70.74499
G1 X154.47 Y141.72 E70.75799
G1 X154.59 Y141.32 E70.77102
G1 X154.63 Y140.90 E70.78402
G1 X154.59 Y140.49 E70.79706
G1 X154.47 Y140.09 E70.81009
G1 X154.27 Y139.72 E70.82309
G1 X154.01 Y139.39 E70.83614
G1 X153.68 Y139.13 E70.84919
G1 X153.31 Y138.93 E70.86219
G1 X152.91 Y138.81 E70.87522
G1 X152.50 Y138.77 E70.88823
G1 X152.09 Y138.81 E70.90123
G1 X151.69 Y138.93 E70.91426
G1 X151.32 Y139.13 E70.92726
G1 X150.99 Y139.39 E70.94031
G1 X150.73 Y139.72 E70.95336
G1 X150.53 Y140.09 E70.96636
G1 X150.41 Y140.49 E70.97940
G1 X150.37 Y140.90 E70.99243
G1 X150.41 Y141.32 E71.00543
G1 X150.53 Y141.72 E71.01846
G1 X150.73 Y142.08 E71.03146
G1 X150.99 Y142.41 E71.04452
G1 X151.32 Y142.67 E71.05757
G1 X151.69 Y142.87 E71.07057
G0 F6000 X151.15 Y144.18
G1 F2340 X150.52 Y143.85 E71.09257
G1 X149.99 Y143.41 E71.11408
G1 X149.55 Y142.88 E71.13560
G1 X149.22 Y142.25 E71.15760
G1 X149.02 Y141.60 E71.17906
G1 X148.95 Y140.90 E71.20087
G1 X149.02 Y140.21 E71.22265
G1 X149.22 Y139.55 E71.24412
G1 X149.55 Y138.92 E71.26611
G1 X149.99 Y138.39 E71.28763
G1 X150.52 Y137.95 E71.30915
G1 X151.15 Y137.62 E71.33115
G1 X151.81 Y137.42 E71.35261
G1 X152.50 Y137.35 E71.37439
G1 X153.19 Y137.42 E71.39617
G1 X153.85 Y137.62 E71.41763
G1 X154.48 Y137.95 E71.43963
G1 X155.01 Y138.39 E71.46115
G1 X155.45 Y138.92 E71.48266
G1 X155.78 Y139.55 E71.50466
G1 X155.98 Y140.21 E71.52613
G1 X156.05 Y140.90 E71.54790
G1 X155.98 Y141.60 E71.56971
G1 X155.78 Y142.25 E71.59118
G1 X155.45 Y142.88 E71.61318
G1 X155.01 Y143.41 E71.63469
G1 X154.48 Y143.85 E71.65621
G1 X153.85 Y144.18 E71.67821
G1 X153.19 Y144.38 E71.69967
G1 X152.50 Y144.45 E71.72145
G1 X151.81 Y144.38 E71.74323
G1 X151.15 Y144.18 E71.76469
G0 F6000 X161.57 Y150.81
;TYPE:WALL-INNER
G1 F2340 X161.94 Y150.35 E71.78321
G1 X162.40 Y149.97 E71.80173
G1 X162.93 Y149.69 E71.82047
G1 X163.51 Y149.51 E71.83913
G1 X164.10 Y149.45 E71.85771
G1 X164.69 Y149.51 E71.87626
G1 X165.26 Y149.69 E71.89493
G1 X165.79 Y149.97 E71.91367
G1 X166.25 Y150.35 E71.93219
G1 X166.63 Y150.81 E71.95071
G1 X166.91 Y151.34 E71.96945
G1 X167.09 Y151.91 E71.98811
G1 X167.15 Y152.50 E72.00666
G1 X167.09 Y153.09 E72.02521
G1 X166.91 Y153.66 E72.04387
G1 X166.63 Y154.19 E72.06261
G1 X166.25 Y154.65 E72.08113
G1 X165.79 Y155.03 E72.09965
G1 X165.26 Y155.31 E72.11839
G1 X164.69 Y155.49 E72.13705
G1 X164.10 Y155.55 E72.15563
G1 X163.51 Y155.49 E72.17418
G1 X162.93 Y155.31 E72.19285
G1 X162.40 Y155.03 E72.21159
G1 X161.94 Y154.65 E72.23011
G1 X161.57 Y154.19 E72.24863
G1 X161.28 Y153.66 E72.26736
G1 X161.11 Y153.09 E72.28603
G1 X161.05 Y152.50 E72.30458
G1 X161.11 Y151.91 E72.32313
G1 X161.28 Y151.34 E72.34179
G1 X161.57 Y150.81 E72.36053
G0 F6000 X161.91 Y151.04
G1 F2340 X161.67 Y151.49 E72.37659
G1 X161.52 Y151.99 E72.39269
G1 X161.47 Y152.50 E72.40877
G1 X161.52 Y153.01 E72.42484
G1 X161.67 Y153.51 E72.44094
G1 X161.91 Y153.96 E72.45701
G1 X162.24 Y154.36 E72.47314
G1 X162.64 Y154.69 E72.48927
G1 X163.09 Y154.93 E72.50534
G1 X163.59 Y155.08 E72.52144
G1 X164.10 Y155.13 E72.53754
G1 X164.61 Y155.08 E72.55362
G1 X165.11 Y154.93 E72.56972
G1 X165.56 Y154.69 E72.58579
G1 X165.96 Y154.36 E72.60191
G1 X166.29 Y153.96 E72.61804
G1 X166.53 Y153.51 E72.63411
G1 X166.68 Y153.01 E72.65021
G1 X166.73 Y152.50 E72.66629
G1 X166.68 Y151.99 E72.68236
G1 X166.53 Y151.49 E72.69846
G1 X166.29 Y151.04 E72.71453
G1 X165.96 Y150.64 E72.73066
G1 X165.56 Y150.31 E72.74679
G1 X165.11 Y150.07 E72.76286
G1 X164.61 Y149.92 E72.77896
G1 X164.10 Y149.87 E72.79506
G1 X163.59 Y149.92 E72.81114
G1 X163.09 Y150.07 E72.82724
G1 X162.64 Y150.31 E72.84330
G1 X162.24 Y150.64 E72.85943
G1 X161.91 Y151.04 E72.87556
G0 F6000 X162.33 Y151.32
;TYPE:WALL-OUTER
G1 F2340 X162.13 Y151.69 E72.88856
G1 X162.01 Y152.09 E72.90160
G1 X161.97 Y152.50 E72.91460
G1 X162.01 Y152.91 E72.92760
G1 X162.13 Y153.31 E72.94063
G1 X162.33 Y153.68 E72.95363
G1 X162.59 Y154.01 E72.96668
G1 X162.92 Y154.27 E72.97974
G1 X163.28 Y154.47 E72.99274
G1 X163.68 Y154.59 E73.00577
G1 X164.10 Y154.63 E73.01880
G1 X164.51 Y154.59 E73.03181
G1 X164.91 Y154.47 E73.04484
G1 X165.28 Y154.27 E73.05784
G1 X165.61 Y154.01 E73.07089
G1 X165.87 Y153.68 E73.08394
G1 X166.07 Y153.31 E73.09694
G1 X166.19 Y152.91 E73.10997
G1 X166.23 Y152.50 E73.12298
G1 X166.19 Y152.09 E73.13598
G1 X166.07 Y151.69 E73.14901
G1 X165.87 Y151.32 E73.16201
G1 X165.61 Y150.99 E73.17506
G1 X165.28 Y150.73 E73.18811
G1 X164.91 Y150.53 E73.20111
G1 X164.51 Y150.41 E73.21414
G1 X164.10 Y150.37 E73.22718
G1 X163.68 Y150.41 E73.24018
G1 X163.28 Y150.53 E73.25321
G1 X162.92 Y150.73 E73.26621
G1 X162.59 Y150.99 E73.27927
G1 X162.33 Y151.32 E73.29232
G0 F6000 X161.15 Y150.52
G1 F2340 X161.59 Y149.99 E73.31383
G1 X162.12 Y149.55 E73.33535
G1 X162.75 Y149.22 E73.35735
G1 X163.40 Y149.02 E73.37881
G1 X164.10 Y148.95 E73.40062
G1 X164.79 Y149.02 E73.42240
G1 X165.45 Y149.22 E73.44386
G1 X166.08 Y149.55 E73.46586
G1 X166.61 Y149.99 E73.48738
G1 X167.05 Y150.52 E73.50889
G1 X167.38 Y151.15 E73.53089
G1 X167.58 Y151.81 E73.55236
G1 X167.65 Y152.50 E73.57414
G1 X167.58 Y153.19 E73.59591
G1 X167.38 Y153.85 E73.61738
G1 X167.05 Y154.48 E73.63938
G1 X166.61 Y155.01 E73.66089
G1 X166.08 Y155.45 E73.68241
G1 X165.45 Y155.78 E73.70441
G1 X164.79 Y155.98 E73.72587
G1 X164.10 Y156.05 E73.74768
G1 X163.40 Y155.98 E73.76946
G1 X162.75 Y155.78 E73.79093
G1 X162.12 Y155.45 E73.81293
G1 X161.59 Y155.01 E73.83444
G1 X161.15 Y154.48 E73.85596
G1 X160.82 Y153.85 E73.87796
G1 X160.62 Y153.19 E73.89942
G1 X160.55 Y152.50 E73.92120
G1 X160.62 Y151.81 E73.94298
G1 X160.82 Y151.15 E73.96444
G1 X161.15 Y150.52 E73.98644
G0 F6000 X163.51 Y161.11
