;-- START GCODE --
;Sliced for Type A Machines Series 1
;Sliced at: Sun 12-06-2016 18:57:32
;Basic settings: Layer height: 0.2 Walls: 1.4 Fill: 5
;Print Speed: 40 Support: 0
;Retraction Speed: 40 Retraction Distance: 1.2
;Print time: #P_TIME#
;Filament used: #F_AMNT#m #F_WGHT#g
;Filament cost: #F_COST#
M106 S255	 ;start with the fan on
G21        ;metric values
G90        ;absolute positioning
M106 S255    ;start with the fan on
G28     ;move to endstops
G29		;allows for auto-levelling
G1 X150 Y5  Z15.0 F12000 ;center and move the platform down 15mm
M109 S220 ;Heat To temp
G92 E0                  ;zero the extruded length
G1 F200 E30              ;extrude 30mm of feed stock
G92 E0                  ;zero the extruded length again
G1 X175 Y25  Z0 F12000 ;remove bugger
G1 X220 F12000 ;remove bugger
G1 X150 Y150  Z15 F12000 ;recenter and begin
G1 F12000

;Layer count: 87
;LAYER:0
M106 S255
G0 F12000 X114.49 Y29.70 Z0.30
;TYPE:SKIRT
G1 F2400 X116.24 Y27.07 E0.18340
G1 X117.67 Y24.93 E0.33277
G1 X120.39 Y23.12 E0.52283
G1 X122.52 Y21.70 E0.67161
G1 X126.94 Y20.82 E0.93372
G1 X136.91 Y20.81 E1.51325
G1 X138.94 Y21.22 E1.63348
G1 X141.45 Y21.75 E1.78245
G1 X143.53 Y23.14 E1.92780
G1 X145.90 Y21.56 E2.09344
G1 X148.03 Y20.14 E2.24248
G1 X152.45 Y19.26 E2.50458
G1 X162.43 Y19.25 E3.08412
G1 X164.45 Y19.66 E3.20435
G1 X165.00 Y19.77 E3.23681
G1 X178.05 Y19.77 E3.99524
G1 X178.05 Y6.59 E4.76152
G1 X221.26 Y6.59 E7.27298
G1 X221.26 Y19.77 E8.03926
G1 X234.44 Y19.77 E8.80560
G1 X234.44 Y62.98 E11.31706
G1 X221.26 Y62.98 E12.08340
G1 X221.26 Y76.17 E12.84974
G1 X178.05 Y76.17 E15.36119
G1 X178.05 Y62.98 E16.12753
G1 X164.87 Y62.98 E16.89381
G1 X164.87 Y48.81 E17.71764
G1 X162.44 Y49.29 E17.86103
G1 X152.47 Y49.30 E18.44062
G1 X150.45 Y48.89 E18.56075
G1 X147.94 Y48.35 E18.70965
G1 X145.86 Y46.97 E18.85500
G1 X143.49 Y48.55 E19.02064
G1 X141.36 Y49.97 E19.16981
G1 X136.93 Y50.85 E19.43190
G1 X126.96 Y50.85 E20.01150
G1 X124.94 Y50.45 E20.13163
G1 X122.44 Y49.92 E20.28017
G1 X119.81 Y48.16 E20.46356
G1 X117.67 Y46.74 E20.61293
G1 X115.86 Y44.02 E20.80299
G1 X114.44 Y41.89 E20.95178
G1 X113.56 Y37.49 E21.21247
G1 X113.55 Y34.25 E21.40102
G1 X113.96 Y32.20 E21.52256
G1 X114.49 Y29.70 E21.67110
G0 F12000 X114.93 Y29.88
G1 F2400 X116.63 Y27.33 E21.84929
G1 X118.01 Y25.27 E21.99326
G1 X120.65 Y23.50 E22.17795
G1 X122.70 Y22.14 E22.32134
G1 X126.99 Y21.28 E22.57539
G1 X136.87 Y21.28 E23.14964
G1 X138.85 Y21.67 E23.26691
G1 X141.26 Y22.19 E23.41051
G1 X143.53 Y23.70 E23.56878
G1 X146.16 Y21.95 E23.75248
G1 X148.21 Y20.58 E23.89616
G1 X152.50 Y19.72 E24.15022
G1 X162.38 Y19.72 E24.72446
G1 X164.36 Y20.11 E24.84173
G1 X165.33 Y20.32 E24.89951
G1 X165.33 Y20.24 E24.90427
G1 X178.51 Y20.24 E25.67055
G1 X178.51 Y7.06 E26.43684
G1 X220.79 Y7.06 E28.89412
G1 X220.79 Y20.24 E29.66040
G1 X233.98 Y20.24 E30.42674
G1 X233.98 Y62.52 E32.88403
G1 X220.79 Y62.52 E33.65037
G1 X220.79 Y75.70 E34.41671
G1 X178.51 Y75.70 E36.87399
G1 X178.51 Y62.52 E37.64033
G1 X165.33 Y62.52 E38.40662
G1 X165.33 Y48.24 E39.23637
G1 X162.40 Y48.83 E39.41012
G1 X152.52 Y48.83 E39.98436
G1 X150.54 Y48.44 E40.10163
G1 X148.13 Y47.92 E40.24512
G1 X145.86 Y46.41 E40.40339
G1 X143.23 Y48.16 E40.58709
G1 X141.18 Y49.53 E40.73085
G1 X136.89 Y50.38 E40.98495
G1 X127.01 Y50.39 E41.55920
G1 X125.03 Y49.99 E41.67647
G1 X122.62 Y49.48 E41.81966
G1 X120.07 Y47.78 E41.99785
G1 X118.01 Y46.40 E42.14182
G1 X116.25 Y43.76 E42.32651
G1 X114.88 Y41.71 E42.46990
G1 X114.03 Y37.44 E42.72259
G1 X114.02 Y34.29 E42.90579
G1 X114.41 Y32.29 E43.02443
G1 X114.93 Y29.88 E43.16762
G0 F12000 X115.37 Y30.07
G1 F2400 X117.02 Y27.59 E43.34062
G1 X118.34 Y25.61 E43.47922
G1 X120.91 Y23.89 E43.65851
G1 X122.88 Y22.58 E43.79648
G1 X127.03 Y21.75 E44.04253
G1 X136.82 Y21.75 E44.61143
G1 X138.75 Y22.13 E44.72585
G1 X141.08 Y22.63 E44.86405
G1 X143.55 Y24.28 E45.03652
G1 X143.65 Y24.35 E45.04394
G1 X143.85 Y24.05 E45.06481
G1 X146.41 Y22.34 E45.24404
G1 X148.39 Y21.02 E45.38230
G1 X152.55 Y20.19 E45.62835
G1 X162.33 Y20.19 E46.19725
G1 X164.26 Y20.57 E46.31167
G1 X165.80 Y20.90 E46.40273
G1 X165.80 Y20.71 E46.41389
G1 X178.98 Y20.71 E47.18017
G1 X178.98 Y7.52 E47.94645
G1 X220.33 Y7.52 E50.34957
G1 X220.33 Y20.71 E51.11585
G1 X233.51 Y20.71 E51.88219
G1 X233.51 Y62.05 E54.28531
G1 X220.33 Y62.05 E55.05165
G1 X220.33 Y75.24 E55.81799
G1 X178.98 Y75.24 E58.22110
G1 X178.98 Y62.05 E58.98744
G1 X165.80 Y62.05 E59.75372
G1 X165.80 Y47.67 E60.58934
G1 X162.35 Y48.36 E60.79343
G1 X152.56 Y48.36 E61.36238
G1 X150.63 Y47.98 E61.47675
G1 X148.31 Y47.48 E61.61483
G1 X145.84 Y45.83 E61.78730
G1 X145.74 Y45.76 E61.79472
G1 X145.54 Y46.06 E61.81559
G1 X142.97 Y47.77 E61.99482
G1 X140.99 Y49.09 E62.13321
G1 X136.84 Y49.92 E62.37925
G1 X127.05 Y49.92 E62.94821
G1 X125.12 Y49.54 E63.06257
G1 X122.81 Y49.04 E63.20036
G1 X120.33 Y47.39 E63.37336
G1 X118.34 Y46.07 E63.51196
G1 X116.63 Y43.50 E63.69125
G1 X115.32 Y41.53 E63.82922
G1 X114.50 Y37.40 E64.07396
G1 X114.48 Y34.34 E64.25188
G1 X114.87 Y32.38 E64.36755
G1 X115.37 Y30.07 E64.50534
G0 F12000 X115.80 Y30.25
G1 F2400 X117.41 Y27.85 E64.67318
G1 X118.68 Y25.94 E64.80634
G1 X121.17 Y24.28 E64.98018
G1 X123.06 Y23.02 E65.11283
G1 X127.08 Y22.22 E65.35082
G1 X136.78 Y22.21 E65.91437
G1 X138.66 Y22.59 E66.02594
G1 X140.89 Y23.07 E66.15874
G1 X143.29 Y24.66 E66.32602
G1 X143.78 Y24.99 E66.36055
G1 X144.19 Y24.39 E66.40309
G1 X146.67 Y22.72 E66.57690
G1 X148.58 Y21.45 E66.70981
G1 X152.59 Y20.66 E66.94780
G1 X162.29 Y20.65 E67.51135
G1 X164.17 Y21.03 E67.62292
G1 X166.26 Y21.48 E67.74728
G1 X166.26 Y21.17 E67.76489
G1 X179.45 Y21.17 E68.53118
G1 X179.45 Y7.99 E69.29746
G1 X219.86 Y7.99 E71.64640
G1 X219.86 Y21.17 E72.41269
G1 X233.05 Y21.17 E73.17903
G1 X233.05 Y61.59 E75.52797
G1 X219.86 Y61.59 E76.29431
G1 X219.86 Y74.77 E77.06065
G1 X179.45 Y74.77 E79.40960
G1 X179.45 Y61.59 E80.17594
G1 X166.26 Y61.59 E80.94222
G1 X166.26 Y47.11 E81.78377
G1 X162.31 Y47.89 E82.01819
G1 X152.61 Y47.90 E82.58180
G1 X150.73 Y47.52 E82.69333
G1 X148.50 Y47.04 E82.82600
G1 X146.10 Y45.45 E82.99328
G1 X145.61 Y45.12 E83.02781
G1 X145.20 Y45.72 E83.07035
G1 X142.72 Y47.39 E83.24416
G1 X140.81 Y48.66 E83.37715
G1 X136.80 Y49.45 E83.61519
G1 X127.10 Y49.46 E84.17880
G1 X125.22 Y49.08 E84.29032
G1 X122.99 Y48.60 E84.42275
G1 X120.59 Y47.00 E84.59059
G1 X118.68 Y45.73 E84.72375
G1 X117.02 Y43.24 E84.89759
G1 X115.75 Y41.34 E85.03024
G1 X114.96 Y37.35 E85.26692
G1 X114.95 Y34.38 E85.43955
G1 X115.33 Y32.48 E85.55232
G1 X115.80 Y30.25 E85.68475
G0 F12000 X116.24 Y30.43
G1 F2400 X117.79 Y28.11 E85.84723
G1 X117.79 Y28.11 E85.84729
G1 X119.01 Y26.28 E85.97528
G1 X121.42 Y24.67 E86.14375
G1 X123.25 Y23.45 E86.27096
G1 X127.13 Y22.68 E86.50095
G1 X136.73 Y22.68 E87.05921
G1 X138.57 Y23.04 E87.16789
G1 X140.71 Y23.50 E87.29527
G1 X143.03 Y25.05 E87.45744
G1 X143.91 Y25.64 E87.51900
G1 X144.52 Y24.72 E87.58321
G1 X146.93 Y23.11 E87.75161
G1 X148.76 Y21.89 E87.87911
G1 X152.64 Y21.12 E88.10910
G1 X162.24 Y21.12 E88.66736
G1 X164.08 Y21.48 E88.77604
G1 X166.22 Y21.94 E88.90342
G1 X166.73 Y22.28 E88.93900
G1 X166.73 Y21.64 E88.97643
G1 X179.91 Y21.64 E89.74271
G1 X179.91 Y8.45 E90.50899
G1 X219.40 Y8.45 E92.80377
G1 X219.40 Y21.64 E93.57005
G1 X232.58 Y21.64 E94.33639
G1 X232.58 Y61.12 E96.63116
G1 X219.40 Y61.12 E97.39750
G1 X219.40 Y74.31 E98.16384
G1 X179.91 Y74.31 E100.45862
G1 X179.91 Y61.12 E101.22496
G1 X166.73 Y61.12 E101.99124
G1 X166.73 Y46.27 E102.85464
G1 X166.14 Y46.66 E102.89564
G1 X162.26 Y47.43 E103.12562
G1 X152.66 Y47.43 E103.68388
G1 X150.82 Y47.07 E103.79250
G1 X148.68 Y46.61 E103.91982
G1 X146.35 Y45.05 E104.08270
G1 X145.48 Y44.47 E104.14355
G1 X144.87 Y45.39 E104.20776
G1 X142.46 Y47.00 E104.37617
G1 X140.63 Y48.22 E104.50379
G1 X136.75 Y48.99 E104.73377
G1 X127.14 Y48.99 E105.29203
G1 X125.31 Y48.63 E105.40065
G1 X123.17 Y48.17 E105.52774
G1 X120.85 Y46.62 E105.69021
G1 X120.85 Y46.62 E105.69027
G1 X119.02 Y45.40 E105.81826
G1 X117.41 Y42.98 E105.98673
G1 X116.19 Y41.16 E106.11394
G1 X115.43 Y37.30 E106.34269
G1 X115.42 Y34.42 E106.50996
G1 X115.78 Y32.57 E106.61977
G1 X116.24 Y30.43 E106.74685
G0 F12000 X116.68 Y30.62
G1 F2400 X118.18 Y28.36 E106.90435
G1 X119.35 Y26.61 E107.02673
G1 X121.68 Y25.06 E107.18975
G1 X123.43 Y23.89 E107.31164
G1 X127.17 Y23.15 E107.53357
G1 X136.69 Y23.14 E108.08649
G1 X138.47 Y23.50 E108.19231
G1 X140.52 Y23.94 E108.31429
G1 X142.77 Y25.44 E108.47130
G1 X144.04 Y26.29 E108.55999
G1 X144.86 Y25.06 E108.64591
G1 X147.19 Y23.50 E108.80887
G1 X148.94 Y22.33 E108.93097
G1 X152.68 Y21.59 E109.15290
G1 X162.20 Y21.59 E109.70581
G1 X163.98 Y21.94 E109.81164
G1 X166.03 Y22.38 E109.93362
G1 X167.19 Y23.15 E110.01470
G1 X167.19 Y22.10 E110.07573
G1 X180.38 Y22.10 E110.84201
G1 X180.38 Y8.92 E111.60829
G1 X218.93 Y8.92 E113.84890
G1 X218.93 Y22.10 E114.61518
G1 X232.11 Y22.10 E115.38152
G1 X232.11 Y60.65 E117.62213
G1 X218.93 Y60.65 E118.38847
G1 X218.93 Y73.84 E119.15481
G1 X180.38 Y73.84 E121.39541
G1 X180.38 Y60.65 E122.16175
G1 X167.19 Y60.65 E122.92803
G1 X167.19 Y45.39 E123.81498
G1 X165.96 Y46.22 E123.90119
G1 X162.22 Y46.96 E124.12317
G1 X152.70 Y46.96 E124.67608
G1 X150.92 Y46.61 E124.78185
G1 X148.87 Y46.17 E124.90377
G1 X146.62 Y44.67 E125.06078
G1 X145.35 Y43.82 E125.14947
G1 X144.53 Y45.05 E125.23539
G1 X142.20 Y46.61 E125.39835
G1 X140.45 Y47.78 E125.52053
G1 X136.70 Y48.52 E125.74251
G1 X127.19 Y48.52 E126.29542
G1 X125.41 Y48.17 E126.40119
G1 X123.36 Y47.73 E126.52287
G1 X121.11 Y46.23 E126.68037
G1 X119.35 Y45.06 E126.80275
G1 X117.80 Y42.73 E126.96577
G1 X116.63 Y40.98 E127.08766
G1 X115.89 Y37.26 E127.30840
G1 X115.88 Y34.47 E127.47033
G1 X116.24 Y32.67 E127.57723
G1 X116.68 Y30.62 E127.69891
G0 F12000 X117.11 Y30.80
G1 F2400 X118.57 Y28.62 E127.85125
G1 X119.69 Y26.95 E127.96818
G1 X121.94 Y25.44 E128.12581
G1 X123.61 Y24.33 E128.24227
G1 X127.22 Y23.61 E128.45621
G1 X136.64 Y23.61 E129.00377
G1 X138.38 Y23.96 E129.10670
G1 X140.34 Y24.38 E129.22338
G1 X142.51 Y25.83 E129.37523
G1 X144.17 Y26.93 E129.49099
G1 X145.20 Y25.39 E129.59862
G1 X147.45 Y23.89 E129.75618
G1 X149.12 Y22.77 E129.87286
G1 X152.73 Y22.05 E130.08679
G1 X162.15 Y22.05 E130.63436
G1 X163.89 Y22.40 E130.73729
G1 X165.85 Y22.82 E130.85397
G1 X167.66 Y24.03 E130.98051
G1 X167.66 Y22.57 E131.06514
G1 X180.84 Y22.57 E131.83142
G1 X180.84 Y9.39 E132.59770
G1 X218.46 Y9.39 E134.78414
G1 X218.46 Y22.57 E135.55042
G1 X231.65 Y22.57 E136.31676
G1 X231.65 Y60.19 E138.50319
G1 X218.46 Y60.19 E139.26953
G1 X218.46 Y73.37 E140.03587
G1 X180.84 Y73.37 E142.22231
G1 X180.84 Y60.19 E142.98865
G1 X167.66 Y60.19 E143.75493
G1 X167.66 Y44.52 E144.66541
G1 X167.45 Y44.66 E144.68008
G1 X165.78 Y45.78 E144.79689
G1 X162.17 Y46.49 E145.01081
G1 X152.75 Y46.50 E145.55838
G1 X151.01 Y46.15 E145.66131
G1 X149.05 Y45.73 E145.77787
G1 X146.87 Y44.27 E145.93035
G1 X145.22 Y43.18 E146.04540
G1 X144.19 Y44.72 E146.15302
G1 X141.94 Y46.22 E146.31058
G1 X140.27 Y47.34 E146.42738
G1 X136.66 Y48.05 E146.64130
G1 X127.24 Y48.06 E147.18887
G1 X125.50 Y47.71 E147.29180
G1 X123.54 Y47.29 E147.40812
G1 X121.36 Y45.84 E147.56046
G1 X119.69 Y44.72 E147.67739
G1 X118.18 Y42.47 E147.83502
G1 X117.07 Y40.80 E147.95149
G1 X116.36 Y37.21 E148.16429
G1 X116.35 Y34.52 E148.32087
G1 X116.70 Y32.76 E148.42487
G1 X117.11 Y30.80 E148.54119
G0 F12000 X117.55 Y30.99
G1 F2400 X118.96 Y28.88 E148.68834
G1 X120.02 Y27.29 E148.79991
G1 X122.20 Y25.83 E148.95211
G1 X123.79 Y24.77 E149.06323
G1 X127.27 Y24.08 E149.26910
G1 X136.59 Y24.08 E149.81132
G1 X138.28 Y24.41 E149.91140
G1 X140.16 Y24.81 E150.02268
G1 X142.25 Y26.22 E150.16937
G1 X142.25 Y26.21 E150.16943
G1 X143.85 Y27.28 E150.28087
G1 X144.17 Y27.77 E150.31485
G1 X144.47 Y27.32 E150.34581
G1 X145.53 Y25.73 E150.45717
G1 X147.71 Y24.27 E150.60928
G1 X149.30 Y23.21 E150.72064
G1 X152.78 Y22.52 E150.92651
G1 X162.10 Y22.52 E151.46873
G1 X163.79 Y22.85 E151.56881
G1 X165.67 Y23.25 E151.68009
G1 X167.76 Y24.66 E151.82678
G1 X167.76 Y24.66 E151.82684
G1 X168.13 Y24.90 E151.85220
G1 X168.13 Y23.04 E151.96036
G1 X181.31 Y23.04 E152.72664
G1 X181.31 Y9.85 E153.49292
G1 X218.00 Y9.85 E155.62519
G1 X218.00 Y23.04 E156.39147
G1 X231.18 Y23.04 E157.15781
G1 X231.18 Y59.72 E159.29008
G1 X218.00 Y59.72 E160.05642
G1 X218.00 Y72.91 E160.82276
G1 X181.31 Y72.91 E162.95502
G1 X181.31 Y59.72 E163.72136
G1 X168.13 Y59.72 E164.48765
G1 X168.13 Y43.65 E165.42173
G1 X167.19 Y44.27 E165.48701
G1 X165.60 Y45.34 E165.59845
G1 X162.12 Y46.03 E165.80437
G1 X152.79 Y46.03 E166.34665
G1 X151.11 Y45.70 E166.44661
G1 X149.24 Y45.30 E166.55783
G1 X147.14 Y43.89 E166.70452
G1 X147.14 Y43.89 E166.70458
G1 X145.54 Y42.83 E166.81636
G1 X145.22 Y42.35 E166.84997
G1 X144.92 Y42.78 E166.88063
G1 X144.92 Y42.78 E166.88069
G1 X143.86 Y44.38 E166.99226
G1 X141.68 Y45.84 E167.14437
G1 X140.09 Y46.90 E167.25581
G1 X136.61 Y47.59 E167.46172
G1 X127.28 Y47.59 E168.00400
G1 X125.59 Y47.26 E168.10397
G1 X123.73 Y46.86 E168.21494
G1 X121.62 Y45.45 E168.36209
G1 X120.03 Y44.39 E168.47366
G1 X118.57 Y42.21 E168.62586
G1 X117.51 Y40.62 E168.73698
G1 X116.82 Y37.16 E168.94178
G1 X116.81 Y34.56 E169.09302
G1 X117.15 Y32.85 E169.19405
G1 X117.55 Y30.99 E169.30503
G0 F12000 X117.99 Y31.17
G1 F2400 X119.34 Y29.14 E169.44706
G1 X120.36 Y27.62 E169.55318
G1 X122.46 Y26.22 E169.69999
G1 X123.97 Y25.21 E169.80574
G1 X127.31 Y24.55 E170.00349
G1 X136.55 Y24.54 E170.54048
G1 X138.19 Y24.87 E170.63766
G1 X139.97 Y25.25 E170.74353
G1 X142.00 Y26.60 E170.88508
G1 X143.51 Y27.61 E170.99112
G1 X144.17 Y28.60 E171.06026
G1 X144.86 Y27.58 E171.13180
G1 X145.87 Y26.06 E171.23771
G1 X147.97 Y24.66 E171.38445
G1 X149.48 Y23.65 E171.49041
G1 X152.82 Y22.99 E171.68816
G1 X162.06 Y22.98 E172.22515
G1 X163.70 Y23.31 E172.32233
G1 X165.48 Y23.69 E172.42820
G1 X167.51 Y25.04 E172.56975
G1 X168.59 Y25.77 E172.64569
G1 X168.59 Y23.50 E172.77739
G1 X181.78 Y23.50 E173.54368
G1 X181.78 Y10.32 E174.30996
G1 X217.53 Y10.32 E176.38806
G1 X217.53 Y23.50 E177.15434
G1 X230.72 Y23.50 E177.92068
G1 X230.72 Y59.26 E179.99877
G1 X217.53 Y59.26 E180.76511
G1 X217.53 Y72.44 E181.53145
G1 X181.78 Y72.44 E183.60955
G1 X181.78 Y59.26 E184.37589
G1 X168.59 Y59.26 E185.14217
G1 X168.59 Y42.78 E186.09985
G1 X166.93 Y43.89 E186.21583
G1 X165.42 Y44.90 E186.32187
G1 X162.08 Y45.56 E186.51973
G1 X152.84 Y45.57 E187.05666
G1 X151.20 Y45.24 E187.15379
G1 X149.42 Y44.86 E187.25959
G1 X147.40 Y43.51 E187.40114
G1 X145.87 Y42.49 E187.50747
G1 X145.22 Y41.51 E187.57621
G1 X144.53 Y42.53 E187.64747
G1 X143.52 Y44.05 E187.75359
G1 X141.42 Y45.45 E187.90034
G1 X139.91 Y46.46 E188.00637
G1 X136.57 Y47.12 E188.20423
G1 X127.33 Y47.13 E188.74116
G1 X125.69 Y46.80 E188.83829
G1 X123.91 Y46.42 E188.94385
G1 X121.88 Y45.06 E189.08589
G1 X120.36 Y44.05 E189.19201
G1 X118.96 Y41.95 E189.33881
G1 X117.95 Y40.44 E189.44456
G1 X117.29 Y37.12 E189.64136
G1 X117.28 Y34.60 E189.78725
G1 X117.61 Y32.95 E189.88539
G1 X117.99 Y31.17 E189.99095
G0 F12000 X118.43 Y31.36
G1 F2400 X119.73 Y29.40 E190.12778
G1 X120.69 Y27.96 E190.22850
G1 X122.72 Y26.61 E190.36991
G1 X124.15 Y25.65 E190.47024
G1 X127.36 Y25.01 E190.65999
G1 X136.50 Y25.01 E191.19163
G1 X138.09 Y25.32 E191.28597
G1 X139.78 Y25.69 E191.38642
G1 X141.74 Y26.99 E191.52282
G1 X143.18 Y27.95 E191.62346
G1 X144.17 Y29.44 E191.72775
G1 X145.25 Y27.84 E191.83985
G1 X146.20 Y26.40 E191.94036
G1 X148.23 Y25.05 E192.08170
G1 X149.66 Y24.09 E192.18224
G1 X152.87 Y23.45 E192.37200
G1 X162.01 Y23.45 E192.90364
G1 X163.61 Y23.77 E192.99798
G1 X165.30 Y24.13 E193.09843
G1 X167.25 Y25.43 E193.23482
G1 X168.69 Y26.39 E193.33546
G1 X169.06 Y26.95 E193.37426
G1 X169.06 Y23.97 E193.54735
G1 X182.24 Y23.97 E194.31363
G1 X182.24 Y10.78 E195.07991
G1 X217.06 Y10.78 E197.10384
G1 X217.06 Y23.97 E197.87012
G1 X230.25 Y23.97 E198.63646
G1 X230.25 Y58.79 E200.66039
G1 X217.06 Y58.79 E201.42673
G1 X217.06 Y71.97 E202.19307
G1 X182.24 Y71.97 E204.21700
G1 X182.24 Y58.79 E204.98334
G1 X169.06 Y58.79 E205.74962
G1 X169.06 Y41.61 E206.74839
G1 X168.70 Y42.15 E206.78632
G1 X166.68 Y43.50 E206.92766
G1 X165.24 Y44.46 E207.02828
G1 X162.03 Y45.10 E207.21814
G1 X152.88 Y45.10 E207.74972
G1 X151.29 Y44.78 E207.84400
G1 X149.60 Y44.42 E207.94440
G1 X147.65 Y43.11 E208.08142
G1 X146.21 Y42.16 E208.18172
G1 X145.22 Y40.67 E208.28562
G1 X144.14 Y42.28 E208.39820
G1 X143.19 Y43.71 E208.49816
G1 X141.16 Y45.06 E208.63950
G1 X139.72 Y46.02 E208.74012
G1 X136.52 Y46.66 E208.92998
G1 X127.37 Y46.66 E209.46157
G1 X125.78 Y46.34 E209.55584
G1 X124.10 Y45.98 E209.65606
G1 X122.14 Y44.68 E209.79289
G1 X120.70 Y43.72 E209.89361
G1 X119.35 Y41.69 E210.03501
G1 X118.39 Y40.26 E210.13534
G1 X117.76 Y37.07 E210.32414
G1 X117.75 Y34.65 E210.46474
G1 X118.06 Y33.04 E210.55998
G1 X118.43 Y31.36 E210.66019
G0 F12000 X118.86 Y31.54
G1 F2400 X120.12 Y29.66 E210.79183
G1 X121.03 Y28.29 E210.88718
G1 X122.98 Y27.00 E211.02314
G1 X124.34 Y26.09 E211.11815
G1 X127.40 Y25.48 E211.29984
G1 X136.46 Y25.48 E211.82614
G1 X138.00 Y25.78 E211.91762
G1 X139.60 Y26.12 E212.01268
G1 X141.49 Y27.38 E212.14451
G1 X142.84 Y28.29 E212.23918
G1 X144.14 Y30.23 E212.37514
G1 X144.28 Y30.44 E212.38939
G1 X144.38 Y29.98 E212.41637
G1 X145.63 Y28.10 E212.54801
G1 X146.54 Y26.73 E212.64323
G1 X148.48 Y25.44 E212.77907
G1 X149.85 Y24.53 E212.87426
G1 X152.91 Y23.92 E213.05596
G1 X161.97 Y23.91 E213.58226
G1 X163.51 Y24.22 E213.67374
G1 X165.11 Y24.56 E213.76879
G1 X167.00 Y25.82 E213.90062
G1 X168.35 Y26.73 E213.99530
G1 X169.53 Y28.48 E214.11789
G1 X169.53 Y24.43 E214.35311
G1 X182.71 Y24.43 E215.11939
G1 X182.71 Y11.25 E215.88567
G1 X216.60 Y11.25 E217.85543
G1 X216.60 Y24.43 E218.62171
G1 X229.78 Y24.43 E219.38805
G1 X229.78 Y58.32 E221.35781
G1 X216.60 Y58.32 E222.12415
G1 X216.60 Y71.51 E222.89049
G1 X182.71 Y71.51 E224.86025
G1 X182.71 Y58.32 E225.62659
G1 X169.53 Y58.32 E226.39287
G1 X169.53 Y40.07 E227.45395
G1 X169.26 Y40.46 E227.48130
G1 X168.36 Y41.81 E227.57594
G1 X166.42 Y43.11 E227.71179
G1 X165.05 Y44.02 E227.80706
G1 X161.99 Y44.63 E227.98886
G1 X152.93 Y44.63 E228.51509
G1 X151.39 Y44.33 E228.60652
G1 X149.79 Y43.98 E228.70152
G1 X147.90 Y42.73 E228.83335
G1 X146.54 Y41.82 E228.92828
G1 X145.25 Y39.87 E229.06424
G1 X145.11 Y39.67 E229.07823
G1 X145.01 Y40.13 E229.10551
G1 X143.75 Y42.02 E229.23748
G1 X142.85 Y43.37 E229.33213
G1 X140.91 Y44.67 E229.46797
G1 X139.54 Y45.58 E229.56324
G1 X136.47 Y46.19 E229.74504
G1 X127.42 Y46.19 E230.27128
G1 X125.88 Y45.89 E230.36270
G1 X124.28 Y45.55 E230.45752
G1 X122.40 Y44.29 E230.58915
G1 X121.03 Y43.38 E230.68450
G1 X119.73 Y41.43 E230.82046
G1 X118.83 Y40.07 E230.91547
G1 X118.22 Y37.02 E231.09628
G1 X118.21 Y34.70 E231.23153
G1 X118.52 Y33.14 E231.32385
G1 X118.86 Y31.54 E231.41866
G0 F12000 X119.30 Y31.73
G1 F2400 X120.51 Y29.92 E231.54519
G1 X121.37 Y28.63 E231.63512
G1 X123.23 Y27.38 E231.76566
G1 X124.52 Y26.53 E231.85523
G1 X127.45 Y25.94 E232.02892
G1 X136.41 Y25.94 E232.54987
G1 X137.91 Y26.24 E232.63846
G1 X139.42 Y26.56 E232.72821
G1 X141.23 Y27.77 E232.85480
G1 X142.50 Y28.62 E232.94411
G1 X143.75 Y30.49 E233.07466
G1 X144.50 Y31.61 E233.15307
G1 X144.81 Y30.17 E233.23901
G1 X146.02 Y28.36 E233.36554
G1 X146.88 Y27.07 E233.45532
G1 X148.74 Y25.82 E233.58576
G1 X150.03 Y24.97 E233.67553
G1 X152.96 Y24.38 E233.84923
G1 X161.92 Y24.38 E234.37017
G1 X163.42 Y24.68 E234.45877
G1 X164.93 Y25.00 E234.54851
G1 X166.74 Y26.21 E234.67511
G1 X168.02 Y27.06 E234.76441
G1 X169.26 Y28.93 E234.89497
G1 X169.99 Y30.02 E234.97099
G1 X169.99 Y24.90 E235.26852
G1 X183.18 Y24.90 E236.03480
G1 X183.18 Y11.72 E236.80108
G1 X216.13 Y11.72 E238.71667
G1 X216.13 Y24.90 E239.48295
G1 X229.32 Y24.90 E240.24929
G1 X229.32 Y57.86 E242.16488
G1 X216.13 Y57.86 E242.93122
G1 X216.13 Y71.04 E243.69756
G1 X183.18 Y71.04 E245.61315
G1 X183.18 Y57.86 E246.37949
G1 X169.99 Y57.86 E247.14577
G1 X169.99 Y38.53 E248.26898
G1 X168.88 Y40.20 E248.38554
G1 X168.02 Y41.48 E248.47482
G1 X166.16 Y42.73 E248.60526
G1 X164.87 Y43.58 E248.69508
G1 X161.94 Y44.16 E248.86883
G1 X152.98 Y44.17 E249.38984
G1 X151.48 Y43.87 E249.47831
G1 X149.97 Y43.55 E249.56801
G1 X148.16 Y42.34 E249.69460
G1 X146.88 Y41.48 E249.78420
G1 X145.63 Y39.61 E249.91474
G1 X144.89 Y38.50 E249.99285
G1 X144.58 Y39.95 E250.07909
G1 X143.37 Y41.76 E250.20588
G1 X142.51 Y43.04 E250.29515
G1 X140.65 Y44.28 E250.42560
G1 X139.36 Y45.14 E250.51542
G1 X136.43 Y45.73 E250.68917
G1 X127.47 Y45.73 E251.21017
G1 X125.97 Y45.43 E251.29865
G1 X124.47 Y45.11 E251.38810
G1 X122.66 Y43.90 E251.51463
G1 X121.37 Y43.04 E251.60457
G1 X120.12 Y41.17 E251.73511
G1 X119.27 Y39.89 E251.82467
G1 X118.69 Y36.98 E251.99753
G1 X118.68 Y34.74 E252.12744
G1 X118.98 Y33.23 E252.21680
G1 X119.30 Y31.73 E252.30625
G0 F12000 X119.74 Y31.91
G1 F2400 X120.89 Y30.18 E252.42741
G1 X121.70 Y28.96 E252.51211
G1 X123.49 Y27.77 E252.63720
G1 X124.70 Y26.97 E252.72145
G1 X127.49 Y26.41 E252.88708
G1 X136.37 Y26.41 E253.40274
G1 X137.81 Y26.69 E253.48842
G1 X139.23 Y27.00 E253.57277
G1 X140.96 Y28.15 E253.69370
G1 X142.17 Y28.96 E253.77816
G1 X143.37 Y30.75 E253.90331
G1 X144.18 Y31.96 E253.98806
G1 X144.66 Y34.42 E254.13373
G1 X144.66 Y33.23 E254.20331
G1 X144.95 Y31.77 E254.28977
G1 X145.25 Y30.35 E254.37387
G1 X146.41 Y28.62 E254.49503
G1 X147.21 Y27.41 E254.57957
G1 X149.00 Y26.21 E254.70464
G1 X150.21 Y25.41 E254.78902
G1 X153.00 Y24.85 E254.95465
G1 X161.88 Y24.85 E255.47031
G1 X163.32 Y25.13 E255.55599
G1 X164.74 Y25.44 E255.64034
G1 X166.47 Y26.59 E255.76127
G1 X167.68 Y27.40 E255.84573
G1 X168.88 Y29.19 E255.97088
G1 X169.68 Y30.40 E256.05534
G1 X170.24 Y33.18 E256.22020
G1 X170.25 Y35.32 E256.34475
G1 X169.96 Y36.78 E256.43121
G1 X169.65 Y38.20 E256.51556
G1 X168.49 Y39.94 E256.63715
G1 X167.69 Y41.14 E256.72106
G1 X165.90 Y42.34 E256.84614
G1 X164.69 Y43.14 E256.93056
G1 X161.89 Y43.70 E257.09625
G1 X153.02 Y43.70 E257.61191
G1 X151.58 Y43.41 E257.69753
G1 X150.16 Y43.11 E257.78182
G1 X148.42 Y41.95 E257.90326
G1 X147.22 Y41.15 E257.98745
G1 X146.02 Y39.36 E258.11255
G1 X145.22 Y38.15 E258.19679
G1 X144.73 Y35.69 E258.34257
G1 X144.73 Y36.88 E258.41168
G1 X144.45 Y38.34 E258.49811
G1 X144.14 Y39.76 E258.58275
G1 X142.98 Y41.50 E258.70435
G1 X142.18 Y42.70 E258.78825
G1 X140.39 Y43.90 E258.91333
G1 X139.18 Y44.70 E258.99775
G1 X136.38 Y45.26 E259.16344
G1 X127.51 Y45.26 E259.67910
G1 X126.07 Y44.98 E259.76473
G1 X124.65 Y44.67 E259.84884
G1 X122.92 Y43.52 E259.97000
G1 X121.70 Y42.71 E260.05469
G1 X120.51 Y40.92 E260.17978
G1 X119.71 Y39.71 E260.26403
G1 X119.15 Y36.93 E260.42889
G1 X119.14 Y34.78 E260.55344
G1 X119.43 Y33.33 E260.63990
G1 X119.74 Y31.91 E260.72401
G0 F12000 X120.17 Y32.10
G1 F2400 X121.28 Y30.43 E260.84014
G1 X122.04 Y29.30 E260.91931
G1 X123.75 Y28.16 E261.03900
G1 X124.88 Y27.41 E261.11783
G1 X127.54 Y26.88 E261.27546
G1 X136.32 Y26.87 E261.78577
G1 X137.72 Y27.15 E261.86860
G1 X139.05 Y27.43 E261.94755
G1 X140.71 Y28.55 E262.06379
G1 X141.83 Y29.30 E262.14238
G1 X142.98 Y31.01 E262.26209
G1 X143.74 Y32.14 E262.34143
G1 X144.26 Y34.79 E262.49837
G1 X144.27 Y36.84 E262.61705
G1 X143.99 Y38.24 E262.70054
G1 X143.70 Y39.58 E262.77976
G1 X142.59 Y41.24 E262.89620
G1 X141.84 Y42.37 E262.97471
G1 X140.13 Y43.51 E263.09438
G1 X139.00 Y44.26 E263.17339
G1 X136.34 Y44.79 E263.33108
G1 X127.56 Y44.80 E263.84139
G1 X126.16 Y44.52 E263.92418
G1 X124.84 Y44.23 E264.00287
G1 X123.17 Y43.13 E264.11900
G1 X122.04 Y42.37 E264.19816
G1 X120.90 Y40.66 E264.31786
G1 X120.14 Y39.53 E264.39668
G1 X119.62 Y36.88 E264.55360
G1 X119.61 Y34.83 E264.67281
G1 X119.89 Y33.42 E264.75637
G1 X120.17 Y32.10 E264.83506
G0 F12000 X120.61 Y32.28
G1 F2400 X121.67 Y30.69 E264.94604
G1 X122.38 Y29.64 E265.01975
G1 X124.01 Y28.55 E265.13403
G1 X125.06 Y27.84 E265.20750
G1 X127.59 Y27.34 E265.35708
G1 X136.27 Y27.34 E265.86204
G1 X137.62 Y27.61 E265.94204
G1 X138.86 Y27.87 E266.01557
G1 X140.44 Y28.93 E266.12623
G1 X141.50 Y29.63 E266.19987
G1 X142.59 Y31.27 E266.31416
G1 X143.30 Y32.33 E266.38810
G1 X143.79 Y34.84 E266.53698
G1 X143.80 Y36.79 E266.65038
G1 X143.53 Y38.15 E266.73096
G1 X143.27 Y39.39 E266.80478
G1 X142.20 Y40.98 E266.91603
G1 X141.50 Y42.03 E266.98916
G1 X139.87 Y43.12 E267.10339
G1 X138.82 Y43.83 E267.17708
G1 X136.29 Y44.33 E267.32671
G1 X127.60 Y44.33 E267.83167
G1 X126.25 Y44.06 E267.91161
G1 X125.02 Y43.80 E267.98496
G1 X123.43 Y42.74 E268.09593
G1 X122.38 Y42.03 E268.16965
G1 X121.28 Y40.40 E268.28392
G1 X120.58 Y39.35 E268.35740
G1 X120.08 Y36.83 E268.50631
G1 X120.08 Y34.88 E268.62017
G1 X120.35 Y33.51 E268.70083
G1 X120.61 Y32.28 E268.77418
G0 F12000 X121.05 Y32.47
G1 F2400 X122.06 Y30.95 E268.87983
G1 X122.71 Y29.97 E268.94831
G1 X124.27 Y28.93 E269.05718
G1 X125.24 Y28.28 E269.12524
G1 X127.63 Y27.81 E269.26681
G1 X136.23 Y27.80 E269.76649
G1 X137.53 Y28.06 E269.84358
G1 X138.68 Y28.31 E269.91170
G1 X140.19 Y29.32 E270.01718
G1 X141.16 Y29.97 E270.08549
G1 X142.20 Y31.53 E270.19435
G1 X142.86 Y32.51 E270.26288
G1 X143.33 Y34.89 E270.40383
G1 X143.34 Y36.74 E270.51188
G1 X143.08 Y38.06 E270.58953
G1 X142.83 Y39.21 E270.65796
G1 X141.82 Y40.72 E270.76401
G1 X141.17 Y41.70 E270.83186
G1 X139.61 Y42.73 E270.94064
G1 X138.63 Y43.39 E271.00888
G1 X136.25 Y43.86 E271.15051
G1 X127.65 Y43.86 E271.65012
G1 X126.35 Y43.61 E271.72716
G1 X125.20 Y43.36 E271.79515
G1 X123.69 Y42.35 E271.90081
G1 X122.71 Y41.70 E271.96928
G1 X121.67 Y40.14 E272.07816
G1 X121.02 Y39.17 E272.14622
G1 X120.55 Y36.79 E272.28714
G1 X120.54 Y34.92 E272.39577
G1 X120.80 Y33.61 E272.47340
G1 X121.05 Y32.47 E272.54140
G0 F12000 X121.48 Y32.65
G1 F2400 X122.45 Y31.21 E272.64202
G1 X123.05 Y30.31 E272.70502
G1 X124.53 Y29.32 E272.80841
G1 X125.42 Y28.72 E272.87115
G1 X127.68 Y28.27 E273.00466
G1 X136.18 Y28.27 E273.49899
G1 X137.44 Y28.52 E273.57317
G1 X138.49 Y28.75 E273.63595
G1 X139.93 Y29.70 E273.73632
G1 X140.83 Y30.30 E273.79919
G1 X141.82 Y31.79 E273.90268
G1 X142.42 Y32.69 E273.96576
G1 X142.86 Y34.93 E274.09870
G1 X142.87 Y36.70 E274.20152
G1 X142.62 Y37.96 E274.27623
G1 X142.39 Y39.02 E274.33923
G1 X141.43 Y40.47 E274.44013
G1 X140.83 Y41.36 E274.50258
G1 X139.35 Y42.35 E274.60596
G1 X138.45 Y42.95 E274.66882
G1 X136.20 Y43.40 E274.80239
G1 X127.69 Y43.40 E275.29672
G1 X126.44 Y43.15 E275.37086
G1 X125.39 Y42.92 E275.43344
G1 X123.95 Y41.96 E275.53399
G1 X123.05 Y41.36 E275.59706
G1 X122.06 Y39.88 E275.70046
G1 X121.46 Y38.98 E275.76320
G1 X121.02 Y36.74 E275.89612
G1 X121.01 Y34.96 E275.99940
G1 X121.26 Y33.70 E276.07413
G1 X121.48 Y32.65 E276.13672
G0 F12000 X121.92 Y32.83
G1 F2400 X122.83 Y31.47 E276.23218
G1 X123.38 Y30.64 E276.28973
G1 X124.79 Y29.71 E276.38776
G1 X125.61 Y29.16 E276.44510
G1 X127.72 Y28.74 E276.57055
G1 X136.14 Y28.74 E277.05953
G1 X137.34 Y28.98 E277.13087
G1 X138.31 Y29.18 E277.18830
G1 X139.67 Y30.10 E277.28379
G1 X140.49 Y30.64 E277.34092
G1 X141.43 Y32.04 E277.43901
G1 X141.98 Y32.87 E277.49672
G1 X142.40 Y34.98 E277.62166
G1 X142.40 Y36.66 E277.71914
G1 X142.16 Y37.87 E277.79094
G1 X141.96 Y38.84 E277.84860
G1 X141.04 Y40.21 E277.94425
G1 X140.50 Y41.02 E278.00133
G1 X139.09 Y41.96 E278.09930
G1 X138.27 Y42.51 E278.15677
G1 X136.15 Y42.93 E278.28233
G1 X127.74 Y42.93 E278.77131
G1 X126.54 Y42.69 E278.84260
G1 X125.57 Y42.49 E278.89984
G1 X124.21 Y41.58 E278.99530
G1 X123.38 Y41.03 E279.05285
G1 X122.45 Y39.62 E279.15088
G1 X121.90 Y38.80 E279.20822
G1 X121.48 Y36.69 E279.33314
G1 X121.47 Y35.01 E279.43107
G1 X121.72 Y33.80 E279.50290
G1 X121.92 Y32.83 E279.56013
G0 F12000 X122.36 Y33.02
G1 F2400 X123.22 Y31.73 E279.65041
G1 X123.72 Y30.98 E279.70259
G1 X125.05 Y30.10 E279.79521
G1 X125.79 Y29.60 E279.84714
G1 X127.77 Y29.21 E279.96459
G1 X136.09 Y29.20 E280.44822
G1 X137.25 Y29.43 E280.51672
G1 X138.12 Y29.62 E280.56874
G1 X139.41 Y30.48 E280.65904
G1 X140.16 Y30.98 E280.71084
G1 X141.04 Y32.30 E280.80346
G1 X141.54 Y33.05 E280.85574
G1 X141.93 Y35.02 E280.97269
G1 X141.94 Y36.61 E281.06493
G1 X141.71 Y37.77 E281.13384
G1 X141.52 Y38.65 E281.18602
G1 X140.65 Y39.95 E281.27644
G1 X140.16 Y40.69 E281.32820
G1 X138.84 Y41.57 E281.42077
G1 X138.09 Y42.07 E281.47287
G1 X136.11 Y42.46 E281.59038
G1 X127.79 Y42.47 E282.07401
G1 X126.63 Y42.24 E282.14245
G1 X125.76 Y42.05 E282.19428
G1 X124.47 Y41.19 E282.28456
G1 X123.72 Y40.69 E282.33674
G1 X122.84 Y39.36 E282.42936
G1 X122.34 Y38.62 E282.48129
G1 X121.95 Y36.65 E282.59826
G1 X121.94 Y35.05 E282.69085
G1 X122.17 Y33.89 E282.75976
G1 X122.36 Y33.02 E282.81160
G0 F12000 X122.80 Y33.20
G1 F2400 X123.61 Y31.99 E282.89671
G1 X124.06 Y31.32 E282.94349
G1 X125.30 Y30.48 E283.03067
G1 X125.97 Y30.04 E283.07728
G1 X127.82 Y29.67 E283.18667
G1 X136.05 Y29.67 E283.66501
G1 X137.15 Y29.89 E283.73061
G1 X137.94 Y30.06 E283.77722
G1 X139.15 Y30.87 E283.86207
G1 X139.82 Y31.31 E283.90880
G1 X140.65 Y32.56 E283.99600
G1 X141.10 Y33.23 E284.04286
G1 X141.46 Y35.07 E284.15187
G1 X141.47 Y36.57 E284.23876
G1 X141.25 Y37.68 E284.30476
G1 X141.08 Y38.47 E284.35154
G1 X140.27 Y39.68 E284.43643
G1 X139.82 Y40.35 E284.48316
G1 X138.58 Y41.18 E284.57033
G1 X137.91 Y41.63 E284.61701
G1 X136.06 Y42.00 E284.72652
G1 X127.83 Y42.00 E285.20480
G1 X126.73 Y41.78 E285.27035
G1 X125.94 Y41.61 E285.31682
G1 X124.73 Y40.80 E285.40186
G1 X124.06 Y40.35 E285.44872
G1 X123.22 Y39.11 E285.53590
G1 X122.78 Y38.44 E285.58250
G1 X122.41 Y36.60 E285.69147
G1 X122.41 Y35.10 E285.77871
G1 X122.63 Y33.99 E285.84468
G1 X122.80 Y33.20 E285.89115
G0 F12000 X123.23 Y33.39
G1 F2400 X124.00 Y32.24 E285.97111
G1 X124.39 Y31.65 E286.01244
G1 X125.56 Y30.87 E286.09425
G1 X126.15 Y30.48 E286.13541
G1 X127.86 Y30.14 E286.23680
G1 X136.00 Y30.14 E286.70979
G1 X137.06 Y30.34 E286.77254
G1 X137.75 Y30.49 E286.81374
G1 X138.89 Y31.26 E286.89349
G1 X139.48 Y31.65 E286.93477
G1 X140.27 Y32.82 E287.01657
G1 X140.66 Y33.41 E287.05801
G1 X141.00 Y35.12 E287.15903
G1 X141.00 Y36.52 E287.24063
G1 X140.79 Y37.59 E287.30372
G1 X140.65 Y38.28 E287.34509
G1 X139.88 Y39.43 E287.42516
G1 X139.49 Y40.02 E287.46624
G1 X138.32 Y40.80 E287.54795
G1 X137.73 Y41.19 E287.58923
G1 X136.01 Y41.53 E287.69068
G1 X127.88 Y41.53 E288.16362
G1 X126.82 Y41.32 E288.22631
G1 X126.13 Y41.18 E288.26744
G1 X124.98 Y40.41 E288.34732
G1 X124.39 Y40.02 E288.38873
G1 X123.61 Y38.85 E288.47054
G1 X123.22 Y38.26 E288.51170
G1 X122.88 Y36.55 E288.61273
G1 X122.87 Y35.14 E288.69463
G1 X123.08 Y34.08 E288.75768
G1 X123.23 Y33.39 E288.79881
G0 F12000 X123.67 Y33.57
G1 F2400 X124.38 Y32.50 E288.87357
G1 X124.73 Y31.99 E288.90954
G1 X125.82 Y31.26 E288.98590
G1 X126.33 Y30.92 E289.02173
G1 X127.91 Y30.60 E289.11506
G1 X135.95 Y30.60 E289.58271
G1 X136.96 Y30.80 E289.64256
G1 X137.57 Y30.93 E289.67841
G1 X138.63 Y31.64 E289.75300
G1 X139.15 Y31.99 E289.78888
G1 X139.88 Y33.08 E289.86531
G1 X140.22 Y33.59 E289.90135
G1 X140.53 Y35.16 E289.99437
G1 X140.54 Y36.48 E290.07068
G1 X140.34 Y37.49 E290.13081
G1 X140.21 Y38.10 E290.16678
G1 X139.49 Y39.17 E290.24165
G1 X139.15 Y39.68 E290.27736
G1 X138.06 Y40.41 E290.35362
G1 X137.55 Y40.75 E290.38954
G1 X135.97 Y41.06 E290.48299
G1 X127.92 Y41.07 E290.95064
G1 X126.91 Y40.87 E291.01043
G1 X126.31 Y40.74 E291.04615
G1 X125.24 Y40.02 E291.12091
G1 X124.73 Y39.68 E291.15688
G1 X124.00 Y38.59 E291.23324
G1 X123.66 Y38.08 E291.26908
G1 X123.34 Y36.51 E291.36211
G1 X123.34 Y35.19 E291.43866
G1 X123.54 Y34.17 E291.49881
G1 X123.67 Y33.57 E291.53452
G0 F12000 X124.11 Y33.76
G1 F2400 X124.77 Y32.76 E291.60418
G1 X125.06 Y32.32 E291.63473
G1 X126.08 Y31.65 E291.70564
G1 X126.51 Y31.36 E291.73606
G1 X127.95 Y31.07 E291.82139
G1 X135.91 Y31.07 E292.28369
G1 X136.87 Y31.26 E292.34070
G1 X137.38 Y31.37 E292.37119
G1 X138.38 Y32.03 E292.44059
G1 X138.81 Y32.32 E292.47109
G1 X139.49 Y33.34 E292.54207
G1 X139.78 Y33.78 E292.57269
G1 X140.07 Y35.21 E292.65771
G1 X140.07 Y36.43 E292.72873
G1 X139.88 Y37.40 E292.78596
G1 X139.77 Y37.91 E292.81652
G1 X139.11 Y38.91 E292.88603
G1 X139.11 Y38.91 E292.88608
G1 X138.81 Y39.34 E292.91663
G1 X137.80 Y40.02 E292.98753
G1 X137.36 Y40.31 E293.01804
G1 X135.92 Y40.60 E293.10337
G1 X127.97 Y40.60 E293.56574
G1 X127.01 Y40.41 E293.62263
G1 X126.50 Y40.30 E293.65299
G1 X125.50 Y39.64 E293.72265
G1 X125.06 Y39.34 E293.75320
G1 X124.39 Y38.33 E293.82411
G1 X124.10 Y37.90 E293.85453
G1 X123.81 Y36.46 E293.93956
G1 X123.81 Y35.23 E294.01082
G1 X124.00 Y34.27 E294.06801
G1 X124.11 Y33.76 E294.09838
G0 F12000 X124.54 Y33.94
G1 F2400 X125.40 Y32.66 E294.18797
G1 X126.70 Y31.80 E294.27854
G1 X128.00 Y31.54 E294.35581
G1 X135.86 Y31.53 E294.81282
G1 X136.78 Y31.71 E294.86692
G1 X137.20 Y31.80 E294.89201
G1 X138.12 Y32.42 E294.95625
G1 X138.48 Y32.66 E294.98140
G1 X139.10 Y33.60 E295.04693
G1 X139.34 Y33.96 E295.07212
G1 X139.60 Y35.26 E295.14920
G1 X139.61 Y36.39 E295.21494
G1 X139.43 Y37.30 E295.26921
G1 X139.33 Y37.73 E295.29435
G1 X138.72 Y38.65 E295.35888
G1 X138.48 Y39.01 E295.38382
G1 X137.54 Y39.63 E295.44932
G1 X137.18 Y39.87 E295.47442
G1 X135.88 Y40.13 E295.55175
G1 X128.01 Y40.14 E296.00876
G1 X127.10 Y39.95 E296.06280
G1 X126.68 Y39.87 E296.08782
G1 X125.40 Y39.01 E296.17742
G1 X124.53 Y37.71 E296.26798
G1 X124.28 Y36.41 E296.34501
G1 X124.27 Y35.28 E296.41093
G1 X124.45 Y34.36 E296.46521
G1 X124.54 Y33.94 E296.49023
G0 F12000 X124.98 Y34.13
G1 F2400 X125.74 Y33.00 E296.56927
G1 X126.88 Y32.23 E296.64901
G1 X128.05 Y32.00 E296.71828
G1 X135.82 Y32.00 E297.16995
G1 X136.68 Y32.17 E297.22121
G1 X137.01 Y32.24 E297.24088
G1 X137.86 Y32.81 E297.30001
G1 X138.14 Y32.99 E297.31971
G1 X138.72 Y33.85 E297.37984
G1 X138.91 Y34.14 E297.39967
G1 X139.13 Y35.30 E297.46869
G1 X139.14 Y36.34 E297.52914
G1 X138.97 Y37.21 E297.58050
G1 X138.90 Y37.54 E297.60024
G1 X138.33 Y38.39 E297.65958
G1 X138.14 Y38.67 E297.67915
G1 X137.28 Y39.25 E297.73923
G1 X137.00 Y39.44 E297.75898
G1 X135.83 Y39.67 E297.82825
G1 X128.06 Y39.67 E298.27991
G1 X127.20 Y39.50 E298.33112
G1 X126.87 Y39.43 E298.35072
G1 X125.74 Y38.67 E298.42976
G1 X124.97 Y37.53 E298.50951
G1 X124.74 Y36.37 E298.57860
G1 X124.74 Y35.32 E298.63916
G1 X124.91 Y34.46 E298.69055
G1 X124.98 Y34.13 E298.71015
G0 F12000 X125.42 Y34.31
G1 F2400 X126.07 Y33.33 E298.77858
G1 X127.06 Y32.67 E298.84756
G1 X128.09 Y32.47 E298.90877
G1 X135.77 Y32.47 E299.35509
G1 X136.59 Y32.63 E299.40350
G1 X136.83 Y32.68 E299.41777
G1 X137.60 Y33.20 E299.47179
G1 X137.81 Y33.33 E299.48604
G1 X138.33 Y34.11 E299.54080
G1 X138.47 Y34.32 E299.55518
G1 X138.67 Y35.35 E299.61627
G1 X138.67 Y36.30 E299.67137
G1 X138.51 Y37.12 E299.71982
G1 X138.46 Y37.36 E299.73415
G1 X137.94 Y38.13 E299.78833
G1 X137.81 Y38.34 E299.80258
G1 X137.03 Y38.86 E299.85718
G1 X136.82 Y39.00 E299.87151
G1 X135.79 Y39.20 E299.93278
G1 X128.11 Y39.20 E300.37910
G1 X127.29 Y39.04 E300.42745
G1 X127.05 Y38.99 E300.44172
G1 X126.07 Y38.34 E300.51015
G1 X125.41 Y37.35 E300.57912
G1 X125.21 Y36.32 E300.64022
G1 X125.20 Y35.37 E300.69544
G1 X125.37 Y34.55 E300.74390
G1 X125.42 Y34.31 E300.75817
G0 F12000 X125.86 Y34.50
G1 F2400 X126.41 Y33.67 E300.81604
G1 X127.24 Y33.11 E300.87425
G1 X128.14 Y32.93 E300.92740
G1 X135.73 Y32.93 E301.36843
G1 X136.49 Y33.08 E301.41388
G1 X136.64 Y33.12 E301.42280
G1 X137.47 Y33.67 E301.48059
G1 X137.94 Y34.37 E301.52987
G1 X138.03 Y34.50 E301.53884
G1 X138.20 Y35.40 E301.59192
G1 X138.21 Y36.26 E301.64179
G1 X138.06 Y37.02 E301.68728
G1 X138.02 Y37.17 E301.69621
G1 X137.56 Y37.87 E301.74520
G1 X137.47 Y38.00 E301.75408
G1 X136.64 Y38.56 E301.81219
G1 X135.74 Y38.73 E301.86546
G1 X128.15 Y38.74 E302.30649
G1 X127.39 Y38.59 E302.35188
G1 X127.24 Y38.55 E302.36079
G1 X126.41 Y38.00 E302.41866
G1 X125.85 Y37.17 E302.47687
G1 X125.67 Y36.27 E302.52997
G1 X125.67 Y35.41 E302.57984
G1 X125.82 Y34.65 E302.62534
G1 X125.86 Y34.50 E302.63426
G0 F12000 X126.29 Y34.68
G1 F2400 X126.74 Y34.00 E302.68157
G1 X127.42 Y33.55 E302.72896
G1 X128.18 Y33.40 E302.77411
G1 X135.68 Y33.40 E303.20980
G1 X136.40 Y33.54 E303.25240
G1 X136.46 Y33.55 E303.25592
G1 X137.13 Y34.00 E303.30315
G1 X137.59 Y34.68 E303.35057
G1 X137.74 Y35.44 E303.39571
G1 X137.74 Y36.21 E303.44023
G1 X137.60 Y36.93 E303.48283
G1 X137.59 Y36.99 E303.48634
G1 X137.13 Y37.66 E303.53366
G1 X136.46 Y38.12 E303.58100
G1 X135.69 Y38.27 E303.62621
G1 X128.20 Y38.27 E304.06189
G1 X127.48 Y38.13 E304.10444
G1 X127.42 Y38.12 E304.10794
G1 X126.74 Y37.66 E304.15525
G1 X126.29 Y36.99 E304.20265
G1 X126.14 Y36.23 E304.24780
G1 X126.14 Y35.46 E304.29232
G1 X126.28 Y34.74 E304.33493
G1 X126.29 Y34.68 E304.33843
G0 F12000 X145.13 Y35.32
G1 F2400 X145.12 Y33.27 E304.45764
G1 X145.40 Y31.86 E304.54120
G1 X145.69 Y30.54 E304.61989
G1 X146.79 Y28.87 E304.73602
G1 X147.55 Y27.74 E304.81503
G1 X149.26 Y26.60 E304.93470
G1 X150.39 Y25.84 E305.01366
G1 X153.05 Y25.32 E305.17129
G1 X161.83 Y25.31 E305.68160
G1 X163.23 Y25.59 E305.76444
G1 X164.56 Y25.88 E305.84338
G1 X166.22 Y26.99 E305.95962
G1 X167.34 Y27.74 E306.03821
G1 X168.49 Y29.45 E306.15792
G1 X169.25 Y30.58 E306.23700
G1 X169.77 Y33.23 E306.39392
G1 X169.78 Y35.28 E306.51313
G1 X169.50 Y36.69 E306.59669
G1 X169.22 Y38.02 E306.67562
G1 X168.10 Y39.68 E306.79206
G1 X167.35 Y40.81 E306.87057
G1 X165.64 Y41.95 E306.99024
G1 X164.51 Y42.70 E307.06925
G1 X161.85 Y43.23 E307.22694
G1 X153.07 Y43.24 E307.73725
G1 X151.67 Y42.96 E307.82004
G1 X150.34 Y42.67 E307.89891
G1 X148.68 Y41.56 E308.01515
G1 X147.55 Y40.81 E308.09398
G1 X146.41 Y39.10 E308.21367
G1 X145.66 Y37.97 E308.29250
G1 X145.13 Y35.32 E308.44942
G0 F12000 X145.60 Y35.27
G1 F2400 X145.59 Y33.31 E308.56328
G1 X145.86 Y31.95 E308.64393
G1 X146.12 Y30.72 E308.71728
G1 X147.18 Y29.13 E308.82825
G1 X147.88 Y28.08 E308.90181
G1 X149.52 Y26.99 E309.01604
G1 X150.57 Y26.28 E309.08967
G1 X153.10 Y25.78 E309.23925
G1 X161.78 Y25.78 E309.74421
G1 X163.13 Y26.05 E309.82421
G1 X164.37 Y26.31 E309.89773
G1 X165.96 Y27.37 E310.00840
G1 X167.01 Y28.07 E310.08204
G1 X168.10 Y29.71 E310.19633
G1 X168.81 Y30.76 E310.27001
G1 X169.31 Y33.27 E310.41893
G1 X169.31 Y35.23 E310.53279
G1 X169.04 Y36.59 E310.61345
G1 X168.78 Y37.83 E310.68697
G1 X167.71 Y39.42 E310.79822
G1 X167.02 Y40.47 E310.87136
G1 X165.38 Y41.56 E310.98558
G1 X164.33 Y42.27 E311.05927
G1 X161.80 Y42.77 E311.20890
G1 X153.11 Y42.77 E311.71387
G1 X151.76 Y42.50 E311.79380
G1 X150.53 Y42.24 E311.86728
G1 X148.94 Y41.17 E311.97836
G1 X147.89 Y40.47 E312.05179
G1 X146.80 Y38.84 E312.16606
G1 X146.10 Y37.79 E312.23954
G1 X145.60 Y35.27 E312.38845
G0 F12000 X146.06 Y35.23
G1 F2400 X146.06 Y33.36 E312.49708
G1 X146.31 Y32.05 E312.57471
G1 X146.56 Y30.91 E312.64271
G1 X147.57 Y29.39 E312.74836
G1 X148.22 Y28.41 E312.81676
G1 X149.78 Y27.37 E312.92554
G1 X150.75 Y26.72 E312.99372
G1 X153.14 Y26.25 E313.13530
G1 X161.74 Y26.25 E313.63497
G1 X163.04 Y26.50 E313.71206
G1 X164.19 Y26.75 E313.78019
G1 X165.70 Y27.76 E313.88566
G1 X166.67 Y28.41 E313.95398
G1 X167.72 Y29.97 E314.06284
G1 X168.37 Y30.94 E314.13111
G1 X168.84 Y33.32 E314.27203
G1 X168.85 Y35.19 E314.38066
G1 X168.59 Y36.50 E314.45828
G1 X168.34 Y37.65 E314.52647
G1 X167.33 Y39.16 E314.63252
G1 X166.68 Y40.13 E314.70037
G1 X165.12 Y41.17 E314.80915
G1 X164.15 Y41.83 E314.87739
G1 X161.76 Y42.30 E315.01901
G1 X153.16 Y42.30 E315.51863
G1 X151.86 Y42.05 E315.59566
G1 X150.71 Y41.80 E315.66379
G1 X149.20 Y40.79 E315.76968
G1 X148.22 Y40.14 E315.83774
G1 X147.19 Y38.58 E315.94662
G1 X146.53 Y37.61 E316.01468
G1 X146.06 Y35.23 E316.15560
G0 F12000 X146.53 Y35.18
G1 F2400 X146.52 Y33.40 E316.25888
G1 X146.77 Y32.14 E316.33361
G1 X147.00 Y31.09 E316.39620
G1 X147.96 Y29.65 E316.49682
G1 X148.56 Y28.75 E316.55969
G1 X150.04 Y27.76 E316.66307
G1 X150.94 Y27.16 E316.72589
G1 X153.19 Y26.71 E316.85940
G1 X161.69 Y26.71 E317.35373
G1 X162.95 Y26.96 E317.42791
G1 X164.00 Y27.19 E317.49069
G1 X165.44 Y28.14 E317.59105
G1 X166.34 Y28.75 E317.65392
G1 X167.33 Y30.23 E317.75741
G1 X167.93 Y31.12 E317.82028
G1 X168.37 Y33.37 E317.95320
G1 X168.38 Y35.15 E318.05649
G1 X168.13 Y36.41 E318.13122
G1 X167.90 Y37.46 E318.19398
G1 X166.94 Y38.91 E318.29488
G1 X166.34 Y39.80 E318.35733
G1 X164.86 Y40.79 E318.46071
G1 X163.96 Y41.39 E318.52358
G1 X161.71 Y41.84 E318.65715
G1 X153.21 Y41.84 E319.15147
G1 X151.95 Y41.59 E319.22561
G1 X150.90 Y41.36 E319.28832
G1 X149.46 Y40.40 E319.38869
G1 X148.56 Y39.80 E319.45176
G1 X147.57 Y38.32 E319.55516
G1 X146.97 Y37.42 E319.61790
G1 X146.53 Y35.18 E319.75082
G0 F12000 X146.99 Y35.13
G1 F2400 X146.99 Y33.45 E319.84875
G1 X147.23 Y32.24 E319.92058
G1 X147.43 Y31.27 E319.97782
G1 X148.35 Y29.91 E320.07328
G1 X148.89 Y29.09 E320.13070
G1 X150.29 Y28.15 E320.22866
G1 X151.12 Y27.60 E320.28613
G1 X153.24 Y27.18 E320.41158
G1 X161.65 Y27.18 E320.90056
G1 X162.85 Y27.42 E320.97191
G1 X163.82 Y27.62 E321.02933
G1 X165.18 Y28.54 E321.12483
G1 X166.00 Y29.08 E321.18196
G1 X166.94 Y30.48 E321.28005
G1 X167.49 Y31.31 E321.33755
G1 X167.91 Y33.41 E321.46247
G1 X167.91 Y35.10 E321.56040
G1 X167.67 Y36.31 E321.63223
G1 X167.47 Y37.28 E321.68965
G1 X166.55 Y38.65 E321.78530
G1 X166.01 Y39.46 E321.84238
G1 X164.61 Y40.40 E321.94035
G1 X163.78 Y40.95 E321.99782
G1 X161.66 Y41.37 E322.12338
G1 X153.25 Y41.37 E322.61236
G1 X152.05 Y41.13 E322.68365
G1 X151.08 Y40.93 E322.74102
G1 X149.72 Y40.01 E322.83651
G1 X148.90 Y39.47 E322.89385
G1 X147.96 Y38.06 E322.99188
G1 X147.41 Y37.24 E323.04922
G1 X146.99 Y35.13 E323.17414
G0 F12000 X147.46 Y35.09
G1 F2400 X147.45 Y33.49 E323.26672
G1 X147.68 Y32.33 E323.33564
G1 X147.87 Y31.46 E323.38748
G1 X148.73 Y30.17 E323.47775
G1 X149.23 Y29.42 E323.52980
G1 X150.55 Y28.54 E323.62236
G1 X151.30 Y28.04 E323.67442
G1 X153.28 Y27.65 E323.79187
G1 X161.60 Y27.64 E324.27550
G1 X162.76 Y27.87 E324.34400
G1 X163.63 Y28.06 E324.39601
G1 X164.93 Y28.92 E324.48632
G1 X165.67 Y29.42 E324.53811
G1 X166.55 Y30.74 E324.63074
G1 X167.05 Y31.49 E324.68284
G1 X167.44 Y33.46 E324.79981
G1 X167.45 Y35.05 E324.89240
G1 X167.22 Y36.22 E324.96132
G1 X167.03 Y37.09 E325.01334
G1 X166.16 Y38.39 E325.10375
G1 X165.67 Y39.13 E325.15552
G1 X164.35 Y40.01 E325.24808
G1 X163.60 Y40.51 E325.30018
G1 X161.62 Y40.90 E325.41769
G1 X153.30 Y40.91 E325.90132
G1 X152.14 Y40.68 E325.96976
G1 X151.27 Y40.49 E326.02172
G1 X149.98 Y39.63 E326.11203
G1 X149.23 Y39.13 E326.16400
G1 X148.35 Y37.80 E326.25662
G1 X147.85 Y37.06 E326.30855
G1 X147.46 Y35.09 E326.42552
G0 F12000 X147.93 Y35.04
G1 F2400 X147.92 Y33.54 E326.51276
G1 X148.14 Y32.43 E326.57873
G1 X148.31 Y31.64 E326.62520
G1 X149.12 Y30.43 E326.71032
G1 X149.57 Y29.76 E326.75697
G1 X150.81 Y28.93 E326.84413
G1 X151.48 Y28.48 E326.89081
G1 X153.33 Y28.11 E327.00021
G1 X161.56 Y28.11 E327.47855
G1 X162.66 Y28.33 E327.54415
G1 X163.45 Y28.50 E327.59075
G1 X164.66 Y29.31 E327.67561
G1 X165.33 Y29.75 E327.72234
G1 X166.16 Y31.00 E327.80954
G1 X166.61 Y31.67 E327.85627
G1 X166.98 Y33.51 E327.96524
G1 X166.98 Y35.01 E328.05248
G1 X166.76 Y36.12 E328.11845
G1 X166.59 Y36.91 E328.16511
G1 X165.78 Y38.12 E328.25000
G1 X165.34 Y38.79 E328.29673
G1 X164.09 Y39.62 E328.38389
G1 X163.42 Y40.07 E328.43057
G1 X161.57 Y40.44 E328.54008
G1 X153.34 Y40.44 E329.01837
G1 X152.24 Y40.22 E329.08391
G1 X151.45 Y40.05 E329.13051
G1 X150.24 Y39.24 E329.21537
G1 X149.57 Y38.79 E329.26223
G1 X148.74 Y37.55 E329.34941
G1 X148.29 Y36.88 E329.39601
G1 X147.93 Y35.04 E329.50498
G0 F12000 X148.39 Y34.99
G1 F2400 X148.39 Y33.58 E329.58688
G1 X148.60 Y32.52 E329.64992
G1 X148.75 Y31.83 E329.69105
G1 X149.51 Y30.68 E329.77101
G1 X149.90 Y30.09 E329.81229
G1 X151.07 Y29.31 E329.89401
G1 X151.66 Y28.92 E329.93524
G1 X153.37 Y28.58 E330.03663
G1 X161.51 Y28.57 E330.50963
G1 X162.57 Y28.79 E330.57238
G1 X163.26 Y28.93 E330.61358
G1 X164.40 Y29.70 E330.69333
G1 X165.00 Y30.09 E330.73461
G1 X165.78 Y31.26 E330.81640
G1 X166.17 Y31.85 E330.85772
G1 X166.51 Y33.56 E330.95876
G1 X166.52 Y34.97 E331.04065
G1 X166.31 Y36.03 E331.10370
G1 X166.16 Y36.72 E331.14495
G1 X165.39 Y37.87 E331.22502
G1 X165.00 Y38.46 E331.26610
G1 X163.83 Y39.24 E331.34781
G1 X163.24 Y39.63 E331.38909
G1 X161.53 Y39.97 E331.49054
G1 X153.39 Y39.97 E331.96348
G1 X152.33 Y39.76 E332.02617
G1 X151.64 Y39.62 E332.06737
G1 X150.49 Y38.85 E332.14733
G1 X149.90 Y38.46 E332.18853
G1 X149.12 Y37.29 E332.27034
G1 X148.73 Y36.70 E332.31150
G1 X148.39 Y34.99 E332.41254
G0 F12000 X148.86 Y34.95
G1 F2400 X148.85 Y33.63 E332.48908
G1 X149.05 Y32.61 E332.54923
G1 X149.18 Y32.01 E332.58495
G1 X149.90 Y30.94 E332.65971
G1 X150.24 Y30.43 E332.69563
G1 X151.33 Y29.70 E332.77189
G1 X151.84 Y29.36 E332.80781
G1 X153.42 Y29.04 E332.90114
G1 X161.47 Y29.04 E333.36879
G1 X162.47 Y29.24 E333.42864
G1 X163.08 Y29.37 E333.46449
G1 X164.15 Y30.08 E333.53908
G1 X164.66 Y30.43 E333.57496
G1 X165.39 Y31.52 E333.65139
G1 X165.73 Y32.03 E333.68730
G1 X166.04 Y33.60 E333.78034
G1 X166.05 Y34.92 E333.85689
G1 X165.85 Y35.94 E333.91704
G1 X165.72 Y36.54 E333.95288
G1 X165.00 Y37.61 E334.02775
G1 X164.66 Y38.12 E334.06346
G1 X163.57 Y38.85 E334.13973
G1 X163.06 Y39.19 E334.17564
G1 X161.48 Y39.51 E334.26909
G1 X153.43 Y39.51 E334.73674
G1 X152.43 Y39.31 E334.79654
G1 X151.82 Y39.18 E334.83232
G1 X150.75 Y38.46 E334.90712
G1 X150.24 Y38.12 E334.94292
G1 X149.51 Y37.03 E335.01928
G1 X149.17 Y36.52 E335.05512
G1 X148.86 Y34.95 E335.14815
G0 F12000 X149.32 Y34.90
G1 F2400 X149.32 Y33.67 E335.21941
G1 X149.51 Y32.71 E335.27660
G1 X149.62 Y32.20 E335.30697
G1 X150.28 Y31.20 E335.37662
G1 X150.57 Y30.77 E335.40709
G1 X151.59 Y30.09 E335.47799
G1 X152.03 Y29.80 E335.50845
G1 X153.47 Y29.51 E335.59378
G1 X161.42 Y29.51 E336.05609
G1 X162.38 Y29.70 E336.11309
G1 X162.89 Y29.81 E336.14359
G1 X163.89 Y30.47 E336.21298
G1 X164.32 Y30.76 E336.24348
G1 X165.00 Y31.78 E336.31446
G1 X165.29 Y32.21 E336.34496
G1 X165.58 Y33.65 E336.42999
G1 X165.58 Y34.88 E336.50125
G1 X165.39 Y35.84 E336.55844
G1 X165.28 Y36.35 E336.58893
G1 X164.62 Y37.35 E336.65844
G1 X164.62 Y37.35 E336.65850
G1 X164.33 Y37.78 E336.68905
G1 X163.31 Y38.46 E336.75995
G1 X162.88 Y38.75 E336.79046
G1 X161.44 Y39.04 E336.87579
G1 X153.48 Y39.04 E337.33815
G1 X152.52 Y38.85 E337.39504
G1 X152.01 Y38.74 E337.42554
G1 X151.01 Y38.08 E337.49494
G1 X150.58 Y37.78 E337.52556
G1 X149.90 Y36.77 E337.59648
G1 X149.61 Y36.34 E337.62690
G1 X149.32 Y34.90 E337.71193
G0 F12000 X149.79 Y34.85
G1 F2400 X149.78 Y33.72 E337.77784
G1 X149.97 Y32.80 E337.83212
G1 X150.06 Y32.38 E337.85714
G1 X150.91 Y31.10 E337.94666
G1 X151.85 Y30.48 E338.01215
G1 X152.21 Y30.23 E338.03725
G1 X153.51 Y29.98 E338.11453
G1 X161.37 Y29.97 E338.57154
G1 X162.29 Y30.15 E338.62564
G1 X162.71 Y30.25 E338.65073
G1 X163.63 Y30.86 E338.71497
G1 X163.99 Y31.10 E338.74012
G1 X164.62 Y32.04 E338.80564
G1 X164.85 Y32.40 E338.83079
G1 X165.11 Y33.70 E338.90782
G1 X165.12 Y34.83 E338.97374
G1 X164.94 Y35.75 E339.02802
G1 X164.84 Y36.17 E339.05311
G1 X164.23 Y37.09 E339.11764
G1 X163.99 Y37.45 E339.14257
G1 X163.05 Y38.07 E339.20807
G1 X162.69 Y38.31 E339.23317
G1 X161.39 Y38.57 E339.31050
G1 X153.53 Y38.58 E339.76751
G1 X152.61 Y38.40 E339.82155
G1 X152.19 Y38.30 E339.84664
G1 X151.27 Y37.69 E339.91088
G1 X150.91 Y37.45 E339.93611
G1 X150.05 Y36.15 E340.02667
G1 X149.79 Y34.85 E340.10371
G0 F12000 X150.25 Y34.81
G1 F2400 X150.25 Y33.76 E340.16427
G1 X150.42 Y32.90 E340.21566
G1 X150.49 Y32.57 E340.23526
G1 X151.25 Y31.44 E340.31425
G1 X152.11 Y30.86 E340.37428
G1 X152.39 Y30.67 E340.39403
G1 X153.56 Y30.44 E340.46324
G1 X161.33 Y30.44 E340.91491
G1 X162.19 Y30.61 E340.96617
G1 X162.52 Y30.68 E340.98585
G1 X163.37 Y31.25 E341.04498
G1 X163.65 Y31.43 E341.06467
G1 X164.23 Y32.30 E341.12480
G1 X164.42 Y32.58 E341.14458
G1 X164.65 Y33.74 E341.21361
G1 X164.65 Y34.78 E341.27418
G1 X164.48 Y35.65 E341.32556
G1 X164.41 Y35.98 E341.34524
G1 X163.84 Y36.83 E341.40458
G1 X163.65 Y37.11 E341.42415
G1 X162.79 Y37.69 E341.48423
G1 X162.51 Y37.88 E341.50397
G1 X161.34 Y38.11 E341.57324
G1 X153.57 Y38.11 E342.02491
G1 X152.71 Y37.94 E342.07611
G1 X152.38 Y37.87 E342.09579
G1 X151.53 Y37.30 E342.15500
G1 X151.25 Y37.11 E342.17470
G1 X150.49 Y35.97 E342.25444
G1 X150.25 Y34.81 E342.32353
G0 F12000 X150.72 Y34.76
G1 F2400 X150.72 Y33.81 E342.37875
G1 X150.88 Y32.99 E342.42721
G1 X150.93 Y32.75 E342.44147
G1 X151.58 Y31.77 E342.50991
G1 X152.37 Y31.25 E342.56450
G1 X152.57 Y31.11 E342.57883
G1 X153.60 Y30.91 E342.64005
G1 X161.28 Y30.91 E343.08637
G1 X162.10 Y31.07 E343.13478
G1 X162.34 Y31.12 E343.14905
G1 X163.11 Y31.64 E343.20307
G1 X163.32 Y31.77 E343.21732
G1 X163.84 Y32.55 E343.27208
G1 X163.98 Y32.76 E343.28641
G1 X164.18 Y33.79 E343.34751
G1 X164.19 Y34.74 E343.40272
G1 X164.02 Y35.56 E343.45119
G1 X163.97 Y35.80 E343.46546
G1 X163.45 Y36.57 E343.51964
G1 X163.32 Y36.78 E343.53389
G1 X162.54 Y37.30 E343.58849
G1 X162.33 Y37.44 E343.60282
G1 X161.30 Y37.64 E343.66409
G1 X153.62 Y37.64 E344.11041
G1 X152.80 Y37.48 E344.15876
G1 X152.56 Y37.43 E344.17304
G1 X151.79 Y36.91 E344.22705
G1 X151.58 Y36.78 E344.24139
G1 X150.93 Y35.79 E344.31036
G1 X150.72 Y34.76 E344.37146
G0 F12000 X151.19 Y34.71
G1 F2400 X151.18 Y33.85 E344.42133
G1 X151.34 Y33.09 E344.46683
G1 X151.37 Y32.94 E344.47575
G1 X151.92 Y32.11 E344.53362
G1 X152.75 Y31.55 E344.59170
G1 X153.65 Y31.37 E344.64492
G1 X161.24 Y31.37 E345.08595
G1 X162.00 Y31.52 E345.13140
G1 X162.15 Y31.56 E345.14032
G1 X162.98 Y32.11 E345.19812
G1 X163.45 Y32.81 E345.24739
G1 X163.54 Y32.94 E345.25636
G1 X163.72 Y33.84 E345.30945
G1 X163.72 Y34.70 E345.35932
G1 X163.57 Y35.46 E345.40483
G1 X163.53 Y35.61 E345.41375
G1 X163.07 Y36.31 E345.46274
G1 X162.98 Y36.44 E345.47162
G1 X162.15 Y37.00 E345.52974
G1 X161.25 Y37.17 E345.58300
G1 X153.66 Y37.18 E346.02403
G1 X152.90 Y37.03 E346.06942
G1 X152.75 Y36.99 E346.07835
G1 X151.92 Y36.44 E346.13614
G1 X151.36 Y35.61 E346.19435
G1 X151.19 Y34.71 E346.24745
G0 F12000 X151.65 Y34.66
G1 F2400 X151.65 Y33.90 E346.29197
G1 X151.79 Y33.18 E346.33458
G1 X151.80 Y33.12 E346.33808
G1 X152.26 Y32.44 E346.38539
G1 X152.93 Y31.99 E346.43270
G1 X153.69 Y31.84 E346.47786
G1 X161.19 Y31.84 E346.91355
G1 X161.91 Y31.98 E346.95615
G1 X161.97 Y31.99 E346.95967
G1 X162.65 Y32.44 E347.00690
G1 X163.10 Y33.12 E347.05429
G1 X163.25 Y33.88 E347.09945
G1 X163.25 Y34.65 E347.14397
G1 X163.11 Y35.37 E347.18658
G1 X163.10 Y35.43 E347.19009
G1 X162.65 Y36.10 E347.23741
G1 X161.97 Y36.56 E347.28475
G1 X161.21 Y36.71 E347.32996
G1 X153.71 Y36.71 E347.76564
G1 X152.99 Y36.57 E347.80819
G1 X152.93 Y36.56 E347.81170
G1 X152.26 Y36.10 E347.85894
G1 X151.80 Y35.43 E347.90633
G1 X151.65 Y34.66 E347.95148
G0 F12000 X170.46 Y25.37
G1 F2400 X183.64 Y25.37 E348.71776
G1 X183.64 Y12.18 E349.48404
G1 X215.67 Y12.18 E351.34546
G1 X215.67 Y25.37 E352.11174
G1 X228.85 Y25.37 E352.87808
G1 X228.85 Y57.39 E354.73950
G1 X215.67 Y57.39 E355.50584
G1 X215.67 Y70.58 E356.27218
G1 X183.64 Y70.58 E358.13360
G1 X183.64 Y57.39 E358.89994
G1 X170.46 Y57.39 E359.66622
G1 X170.46 Y25.37 E361.52764
G0 F12000 X170.92 Y25.83
G1 F2400 X184.11 Y25.83 E362.29392
G1 X184.11 Y12.65 E363.06020
G1 X215.20 Y12.65 E364.86745
G1 X215.20 Y25.83 E365.63373
G1 X228.39 Y25.83 E366.40007
G1 X228.39 Y56.93 E368.20732
G1 X215.20 Y56.93 E368.97366
G1 X215.20 Y70.11 E369.74000
G1 X184.11 Y70.11 E371.54725
G1 X184.11 Y56.93 E372.31358
G1 X170.92 Y56.93 E373.07987
G1 X170.92 Y25.83 E374.88711
G0 F12000 X171.39 Y26.30
G1 F2400 X184.57 Y26.30 E375.65340
G1 X184.57 Y13.11 E376.41968
G1 X214.74 Y13.11 E378.17276
G1 X214.74 Y26.30 E378.93904
G1 X227.92 Y26.30 E379.70538
G1 X227.92 Y56.46 E381.45846
G1 X214.74 Y56.46 E382.22480
G1 X214.74 Y69.64 E382.99114
G1 X184.57 Y69.64 E384.74421
G1 X184.57 Y56.46 E385.51055
G1 X171.39 Y56.46 E386.27683
G1 X171.39 Y26.30 E388.02991
G0 F12000 X171.85 Y26.76
G1 F2400 X185.04 Y26.76 E388.79619
G1 X185.04 Y13.58 E389.56248
G1 X214.27 Y13.58 E391.26138
G1 X214.27 Y26.76 E392.02767
G1 X227.45 Y26.76 E392.79401
G1 X227.45 Y55.99 E394.49291
G1 X214.27 Y55.99 E395.25925
G1 X214.27 Y69.18 E396.02559
G1 X185.04 Y69.18 E397.72450
G1 X185.04 Y55.99 E398.49084
G1 X171.85 Y55.99 E399.25712
G1 X171.85 Y26.76 E400.95603
G0 F12000 X172.32 Y27.23
G1 F2400 X185.50 Y27.23 E401.72231
G1 X185.50 Y14.05 E402.48860
G1 X213.80 Y14.05 E404.13333
G1 X213.80 Y27.23 E404.89962
G1 X226.99 Y27.23 E405.66596
G1 X226.99 Y55.53 E407.31069
G1 X213.80 Y55.53 E408.07703
G1 X213.80 Y68.71 E408.84337
G1 X185.50 Y68.71 E410.48811
G1 X185.50 Y55.53 E411.25445
G1 X172.32 Y55.53 E412.02073
G1 X172.32 Y27.23 E413.66547
G0 F12000 X172.79 Y27.70
G1 F2400 X185.97 Y27.70 E414.43175
G1 X185.97 Y14.51 E415.19804
G1 X213.34 Y14.51 E416.78861
G1 X213.34 Y27.70 E417.55489
G1 X226.52 Y27.70 E418.32123
G1 X226.52 Y55.06 E419.91180
G1 X213.34 Y55.06 E420.67814
G1 X213.34 Y68.25 E421.44447
G1 X185.97 Y68.25 E423.03504
G1 X185.97 Y55.06 E423.80138
G1 X172.79 Y55.06 E424.56767
G1 X172.79 Y27.70 E426.15823
G0 F12000 X173.25 Y28.16
G1 F2400 X186.44 Y28.16 E426.92452
G1 X186.44 Y14.98 E427.69080
G1 X212.87 Y14.98 E429.22720
G1 X212.87 Y28.16 E429.99348
G1 X226.06 Y28.16 E430.75982
G1 X226.06 Y54.60 E432.29622
G1 X212.87 Y54.60 E433.06256
G1 X212.87 Y67.78 E433.82890
G1 X186.44 Y67.78 E435.36530
G1 X186.44 Y54.60 E436.13164
G1 X173.25 Y54.60 E436.89792
G1 X173.25 Y28.16 E438.43432
G0 F12000 X173.72 Y28.63
G1 F2400 X186.90 Y28.63 E439.20060
G1 X186.90 Y15.44 E439.96688
G1 X212.41 Y15.44 E441.44911
G1 X212.41 Y28.63 E442.21539
G1 X225.59 Y28.63 E442.98173
G1 X225.59 Y54.13 E444.46396
G1 X212.41 Y54.13 E445.23030
G1 X212.41 Y67.31 E445.99664
G1 X186.90 Y67.31 E447.47887
G1 X186.90 Y54.13 E448.24521
G1 X173.72 Y54.13 E449.01149
G1 X173.72 Y28.63 E450.49372
G0 F12000 X174.19 Y29.09
G1 F2400 X187.37 Y29.09 E451.26000
G1 X187.37 Y15.91 E452.02628
G1 X211.94 Y15.91 E453.45434
G1 X211.94 Y29.09 E454.22062
G1 X225.12 Y29.09 E454.98696
G1 X225.12 Y53.66 E456.41502
G1 X211.94 Y53.66 E457.18136
G1 X211.94 Y66.85 E457.94770
G1 X187.37 Y66.85 E459.37576
G1 X187.37 Y53.66 E460.14210
G1 X174.19 Y53.66 E460.90838
G1 X174.19 Y29.09 E462.33644
G0 F12000 X174.65 Y29.56
G1 F2400 X187.84 Y29.56 E463.10272
G1 X187.84 Y16.38 E463.86901
G1 X211.47 Y16.38 E465.24290
G1 X211.47 Y29.56 E466.00918
G1 X224.66 Y29.56 E466.77552
G1 X224.66 Y53.20 E468.14941
G1 X211.47 Y53.20 E468.91575
G1 X211.47 Y66.38 E469.68209
G1 X187.84 Y66.38 E471.05598
G1 X187.84 Y53.20 E471.82232
G1 X174.65 Y53.20 E472.58860
G1 X174.65 Y29.56 E473.96249
G0 F12000 X175.12 Y30.03
G1 F2400 X188.30 Y30.03 E474.72877
G1 X188.30 Y16.84 E475.49505
G1 X211.01 Y16.84 E476.81477
G1 X211.01 Y30.03 E477.58105
G1 X224.19 Y30.03 E478.34739
G1 X224.19 Y52.73 E479.66711
G1 X211.01 Y52.73 E480.43345
G1 X211.01 Y65.92 E481.19979
G1 X188.30 Y65.92 E482.51951
G1 X188.30 Y52.73 E483.28585
G1 X175.12 Y52.73 E484.05213
G1 X175.12 Y30.03 E485.37185
G0 F12000 X175.58 Y30.49
G1 F2400 X188.77 Y30.49 E486.13813
G1 X188.77 Y17.31 E486.90442
G1 X210.54 Y17.31 E488.16997
G1 X210.54 Y30.49 E488.93625
G1 X223.73 Y30.49 E489.70259
G1 X223.73 Y52.27 E490.96814
G1 X210.54 Y52.27 E491.73448
G1 X210.54 Y65.45 E492.50082
G1 X188.77 Y65.45 E493.76637
G1 X188.77 Y52.27 E494.53271
G1 X175.58 Y52.27 E495.29899
G1 X175.58 Y30.49 E496.56454
G0 F12000 X176.05 Y30.96
G1 F2400 X189.23 Y30.96 E497.33082
G1 X189.23 Y17.77 E498.09710
G1 X210.07 Y17.77 E499.30848
G1 X210.07 Y30.96 E500.07476
G1 X223.26 Y30.96 E500.84110
G1 X223.26 Y51.80 E502.05248
G1 X210.07 Y51.80 E502.81882
G1 X210.07 Y64.98 E503.58516
G1 X189.23 Y64.98 E504.79654
G1 X189.23 Y51.80 E505.56288
G1 X176.05 Y51.80 E506.32917
G1 X176.05 Y30.96 E507.54055
G0 F12000 X176.51 Y31.42
G1 F2400 X189.70 Y31.42 E508.30683
G1 X189.70 Y18.24 E509.07311
G1 X209.61 Y18.24 E510.23032
G1 X209.61 Y31.42 E510.99660
G1 X222.79 Y31.42 E511.76294
G1 X222.79 Y51.33 E512.92015
G1 X209.61 Y51.33 E513.68649
G1 X209.61 Y64.52 E514.45283
G1 X189.70 Y64.52 E515.61004
G1 X189.70 Y51.33 E516.37638
G1 X176.51 Y51.33 E517.14266
G1 X176.51 Y31.42 E518.29987
G0 F12000 X176.98 Y31.89
G1 F2400 X190.16 Y31.89 E519.06616
G1 X190.16 Y18.71 E519.83244
G1 X209.14 Y18.71 E520.93548
G1 X209.14 Y31.89 E521.70176
G1 X222.33 Y31.89 E522.46810
G1 X222.33 Y50.87 E523.57114
G1 X209.14 Y50.87 E524.33748
G1 X209.14 Y64.05 E525.10382
G1 X190.16 Y64.05 E526.20686
G1 X190.16 Y50.87 E526.97320
G1 X176.98 Y50.87 E527.73948
G1 X176.98 Y31.89 E528.84252
G0 F12000 X177.45 Y32.36
G1 F2400 X190.63 Y32.36 E529.60881
G1 X190.63 Y19.17 E530.37509
G1 X208.68 Y19.17 E531.42396
G1 X208.68 Y32.36 E532.19024
G1 X221.86 Y32.36 E532.95658
G1 X221.86 Y50.40 E534.00545
G1 X208.68 Y50.40 E534.77179
G1 X208.68 Y63.59 E535.53813
G1 X190.63 Y63.59 E536.58700
G1 X190.63 Y50.40 E537.35334
G1 X177.45 Y50.40 E538.11962
G1 X177.45 Y32.36 E539.16849
G1 F2400 E537.96849
G0 F12000 X136.34 Y35.58
;TYPE:WALL-INNER
G1 F2400 E539.16849
G1 X136.34 Y36.08 E539.19709
G1 X136.27 Y36.44 E539.21878
G1 X136.13 Y36.66 E539.23374
G1 X135.91 Y36.80 E539.24878
G1 X135.56 Y36.87 E539.26994
G1 X128.34 Y36.87 E539.68946
G1 X127.97 Y36.80 E539.71139
G1 X127.75 Y36.66 E539.72640
G1 X127.61 Y36.44 E539.74141
G1 X127.54 Y36.08 E539.76268
G1 X127.53 Y35.59 E539.79104
G1 X127.61 Y35.23 E539.81286
G1 X127.75 Y35.01 E539.82787
G1 X127.97 Y34.87 E539.84288
G1 X128.32 Y34.80 E539.86403
G1 X135.54 Y34.80 E540.28350
G1 X135.91 Y34.87 E540.30543
G1 X136.13 Y35.01 E540.32052
G1 X136.27 Y35.23 E540.33543
G1 X136.34 Y35.58 E540.35663
G0 F12000 X136.81 Y35.54
G1 F2400 X136.81 Y36.12 E540.39046
G1 X136.71 Y36.62 E540.42027
G1 X136.46 Y36.99 E540.44612
G1 X136.09 Y37.24 E540.47180
G1 X135.60 Y37.34 E540.50113
G1 X128.29 Y37.34 E540.92595
G1 X127.78 Y37.24 E540.95599
G1 X127.42 Y36.99 E540.98172
G1 X127.17 Y36.62 E541.00745
G1 X127.07 Y36.13 E541.03678
G1 X127.07 Y35.55 E541.07049
G1 X127.17 Y35.04 E541.10048
G1 X127.42 Y34.68 E541.12621
G1 X127.78 Y34.43 E541.15193
G1 X128.28 Y34.33 E541.18121
G1 X135.59 Y34.33 E541.60602
G1 X136.09 Y34.43 E541.63612
G1 X136.46 Y34.67 E541.66172
G1 X136.71 Y35.05 E541.68766
G1 X136.81 Y35.54 E541.71681
G0 F12000 X137.27 Y35.49
;TYPE:WALL-OUTER
G1 F2400 X137.28 Y36.16 E541.75587
G1 X137.15 Y36.80 E541.79379
G1 X136.80 Y37.33 E541.83054
G1 X136.28 Y37.68 E541.86696
G1 X135.65 Y37.80 E541.90429
G1 X128.25 Y37.81 E542.33439
G1 X127.60 Y37.68 E542.37250
G1 X127.08 Y37.33 E542.40904
G1 X126.73 Y36.81 E542.44559
G1 X126.61 Y36.18 E542.48286
G1 X126.60 Y35.51 E542.52192
G1 X126.73 Y34.86 E542.55997
G1 X127.08 Y34.34 E542.59651
G1 X127.60 Y33.99 E542.63306
G1 X128.23 Y33.87 E542.67033
G1 X135.63 Y33.86 E543.10043
G1 X136.28 Y33.99 E543.13860
G1 X136.80 Y34.34 E543.17501
G1 X137.15 Y34.86 E543.21172
G1 X137.27 Y35.49 E543.24892
G0 F12000 X136.18 Y35.67
;TYPE:FILL
G1 F2400 X135.46 Y34.96 E543.30774
G0 F12000 X134.80 Y34.96
G1 F2400 X136.13 Y36.29 E543.41714
G0 F12000 X135.83 Y36.65
G1 F2400 X134.14 Y34.96 E543.55589
G0 F12000 X133.48 Y34.96
G1 F2400 X135.23 Y36.71 E543.69940
G0 F12000 X134.57 Y36.71
G1 F2400 X132.82 Y34.96 E543.84292
G0 F12000 X132.17 Y34.96
G1 F2400 X133.91 Y36.71 E543.98652
G0 F12000 X133.25 Y36.71
G1 F2400 X131.51 Y34.96 E544.13012
G0 F12000 X130.85 Y34.96
G1 F2400 X132.59 Y36.71 E544.27367
G0 F12000 X131.94 Y36.71
G1 F2400 X130.19 Y34.96 E544.41723
G0 F12000 X129.53 Y34.96
G1 F2400 X131.28 Y36.71 E544.56071
G0 F12000 X130.62 Y36.71
G1 F2400 X128.87 Y34.96 E544.70422
G0 F12000 X128.24 Y34.98
G1 F2400 X129.96 Y36.71 E544.84601
G0 F12000 X129.30 Y36.71
G1 F2400 X127.81 Y35.22 E544.96861
G0 F12000 X127.70 Y35.77
G1 F2400 X128.64 Y36.71 E545.04620
G1 F2400 E543.84620
G0 F12000 X153.05 Y34.52
;TYPE:WALL-INNER
G1 F2400 E545.04620
G1 X153.05 Y34.03 E545.07457
G1 X153.12 Y33.67 E545.09638
G1 X153.26 Y33.45 E545.11139
G1 X153.48 Y33.31 E545.12635
G1 X153.84 Y33.24 E545.14751
G1 X161.05 Y33.23 E545.56698
G1 X161.42 Y33.31 E545.58891
G1 X161.64 Y33.45 E545.60399
G1 X161.78 Y33.67 E545.61895
G1 X161.85 Y34.03 E545.64022
G1 X161.85 Y34.51 E545.66859
G1 X161.78 Y34.88 E545.69035
G1 X161.64 Y35.10 E545.70544
G1 X161.42 Y35.24 E545.72040
G1 X161.07 Y35.31 E545.74155
G1 X153.85 Y35.31 E546.16108
G1 X153.48 Y35.24 E546.18294
G1 X153.26 Y35.10 E546.19798
G1 X153.12 Y34.88 E546.21299
G1 X153.05 Y34.52 E546.23426
G0 F12000 X152.58 Y34.57
G1 F2400 X152.58 Y33.99 E546.26797
G1 X152.68 Y33.48 E546.29796
G1 X152.93 Y33.12 E546.32369
G1 X153.29 Y32.87 E546.34937
G1 X153.79 Y32.77 E546.37864
G1 X161.10 Y32.77 E546.80345
G1 X161.61 Y32.87 E546.83356
G1 X161.97 Y33.12 E546.85916
G1 X162.22 Y33.49 E546.88509
G1 X162.32 Y33.98 E546.91431
G1 X162.32 Y34.56 E546.94802
G1 X162.22 Y35.06 E546.97790
G1 X161.97 Y35.43 E547.00375
G1 X161.61 Y35.68 E547.02943
G1 X161.11 Y35.78 E547.05876
G1 X153.80 Y35.78 E547.48357
G1 X153.30 Y35.68 E547.51356
G1 X152.93 Y35.43 E547.53929
G1 X152.68 Y35.06 E547.56502
G1 X152.58 Y34.57 E547.59435
G0 F12000 X152.12 Y34.62
;TYPE:WALL-OUTER
G1 F2400 X152.12 Y33.95 E547.63341
G1 X152.24 Y33.30 E547.67146
G1 X152.59 Y32.78 E547.70800
G1 X153.11 Y32.43 E547.74450
G1 X153.74 Y32.31 E547.78177
G1 X161.14 Y32.30 E548.21187
G1 X161.79 Y32.43 E548.25004
G1 X162.31 Y32.78 E548.28645
G1 X162.66 Y33.30 E548.32316
G1 X162.78 Y33.93 E548.36037
G1 X162.79 Y34.60 E548.39943
G1 X162.66 Y35.24 E548.43736
G1 X162.31 Y35.77 E548.47414
G1 X161.79 Y36.12 E548.51056
G1 X161.16 Y36.24 E548.54789
G1 X153.76 Y36.25 E548.97799
G1 X153.11 Y36.12 E549.01610
G1 X152.59 Y35.77 E549.05259
G1 X152.24 Y35.25 E549.08914
G1 X152.12 Y34.62 E549.12641
G0 F12000 X153.21 Y34.26
;TYPE:FILL
G1 F2400 X154.10 Y35.15 E549.19977
G0 F12000 X154.76 Y35.15
G1 F2400 X153.30 Y33.69 E549.31978
G0 F12000 X153.70 Y33.43
G1 F2400 X155.42 Y35.15 E549.46087
G0 F12000 X156.08 Y35.15
G1 F2400 X154.33 Y33.40 E549.60439
G0 F12000 X154.99 Y33.40
G1 F2400 X156.74 Y35.15 E549.74786
G0 F12000 X157.40 Y35.15
G1 F2400 X155.65 Y33.40 E549.89146
G0 F12000 X156.31 Y33.40
G1 F2400 X158.06 Y35.15 E550.03506
G0 F12000 X158.71 Y35.15
G1 F2400 X156.97 Y33.40 E550.17866
G0 F12000 X157.63 Y33.40
G1 F2400 X159.37 Y35.15 E550.32226
G0 F12000 X160.03 Y35.15
G1 F2400 X158.28 Y33.40 E550.46577
G0 F12000 X158.94 Y33.40
G1 F2400 X160.69 Y35.15 E550.60929
G0 F12000 X161.30 Y35.10
G1 F2400 X159.60 Y33.40 E550.74878
G0 F12000 X160.26 Y33.40
G1 F2400 X161.63 Y34.77 E550.86172
G0 F12000 X161.69 Y34.17
G1 F2400 X160.92 Y33.40 E550.92484
G1 F2400 E549.72484
G0 F12000 X178.84 Y33.75
;TYPE:WALL-INNER
G1 F2400 E550.92484
G1 X192.03 Y33.75 E551.69112
G1 X192.03 Y20.57 E552.45741
G1 X207.28 Y20.57 E553.34377
G1 X207.28 Y33.75 E554.11005
G1 X220.46 Y33.75 E554.87639
G1 X220.46 Y49.00 E555.76275
G1 X207.28 Y49.00 E556.52909
G1 X207.28 Y62.19 E557.29543
G1 X192.03 Y62.19 E558.18179
G1 X192.03 Y49.00 E558.94813
G1 X178.84 Y49.00 E559.71441
G1 X178.84 Y33.75 E560.60077
G0 F12000 X178.38 Y33.29
G1 F2400 X191.56 Y33.29 E561.36706
G1 X191.56 Y20.10 E562.13334
G1 X207.75 Y20.10 E563.07387
G1 X207.75 Y33.29 E563.84015
G1 X220.93 Y33.29 E564.60649
G1 X220.93 Y49.47 E565.54702
G1 X207.75 Y49.47 E566.31336
G1 X207.75 Y62.66 E567.07970
G1 X191.56 Y62.66 E568.02023
G1 X191.56 Y49.47 E568.78657
G1 X178.38 Y49.47 E569.55285
G1 X178.38 Y33.29 E570.49339
G0 F12000 X177.91 Y32.82
;TYPE:WALL-OUTER
G1 F2400 X191.10 Y32.82 E571.25967
G1 X191.10 Y19.64 E572.02595
G1 X208.21 Y19.64 E573.02065
G1 X208.21 Y32.82 E573.78693
G1 X221.40 Y32.82 E574.55327
G1 X221.40 Y49.94 E575.54797
G1 X208.21 Y49.94 E576.31431
G1 X208.21 Y63.12 E577.08065
G1 X191.10 Y63.12 E578.07535
G1 X191.10 Y49.94 E578.84169
G1 X177.91 Y49.94 E579.60798
G1 X177.91 Y32.82 E580.60268
G0 F12000 X178.25 Y33.06
G0 X179.23 Y33.92
;TYPE:FILL
G1 F2400 X207.11 Y61.80 E582.89441
G0 F12000 X206.68 Y62.02
G1 F2400 X179.01 Y34.35 E585.16897
G0 F12000 X179.01 Y35.01
G1 F2400 X206.02 Y62.02 E587.38936
G0 F12000 X205.36 Y62.02
G1 F2400 X192.19 Y48.85 E588.47189
G0 F12000 X192.18 Y48.84
G1 F2400 X179.01 Y35.67 E589.55435
G0 F12000 X179.01 Y36.33
G1 F2400 X191.52 Y48.84 E590.58263
G0 F12000 X190.86 Y48.84
G1 F2400 X179.01 Y36.99 E591.55675
G0 F12000 X179.01 Y37.65
G1 F2400 X190.20 Y48.84 E592.47670
G0 F12000 X189.54 Y48.84
G1 F2400 X179.01 Y38.31 E593.34248
G0 F12000 X179.01 Y38.97
G1 F2400 X188.88 Y48.84 E594.15409
G0 F12000 X188.22 Y48.84
G1 F2400 X179.01 Y39.62 E594.91154
G0 F12000 X179.01 Y40.28
G1 F2400 X187.56 Y48.84 E595.61482
G0 F12000 X186.91 Y48.84
G1 F2400 X179.01 Y40.94 E596.26393
G0 F12000 X179.01 Y41.60
G1 F2400 X186.25 Y48.84 E596.85887
G0 F12000 X185.59 Y48.84
G1 F2400 X179.01 Y42.26 E597.39964
G0 F12000 X179.01 Y42.92
G1 F2400 X184.93 Y48.84 E597.88625
G0 F12000 X184.27 Y48.84
G1 F2400 X179.01 Y43.58 E598.31869
G0 F12000 X179.01 Y44.24
G1 F2400 X183.61 Y48.84 E598.69692
G0 F12000 X182.95 Y48.84
G1 F2400 X179.01 Y44.90 E599.02098
G0 F12000 X179.01 Y45.56
G1 F2400 X182.29 Y48.84 E599.29087
G0 F12000 X181.63 Y48.84
G1 F2400 X179.01 Y46.22 E599.50660
G0 F12000 X179.01 Y46.87
G1 F2400 X180.97 Y48.84 E599.66816
G0 F12000 X180.31 Y48.84
G1 F2400 X179.01 Y47.53 E599.77555
G0 F12000 X179.01 Y48.19
G1 F2400 X179.66 Y48.84 E599.82877
G0 F12000 X192.19 Y49.51
G1 F2400 X204.70 Y62.02 E600.85714
G0 F12000 X204.04 Y62.02
G1 F2400 X192.19 Y50.17 E601.83134
G0 F12000 X192.19 Y50.83
G1 F2400 X203.38 Y62.02 E602.75137
G0 F12000 X202.73 Y62.02
G1 F2400 X192.19 Y51.49 E603.61723
G0 F12000 X192.19 Y52.15
G1 F2400 X202.07 Y62.02 E604.42893
G0 F12000 X201.41 Y62.02
G1 F2400 X192.19 Y52.81 E605.18646
G0 F12000 X192.19 Y53.47
G1 F2400 X200.75 Y62.02 E605.88982
G0 F12000 X200.09 Y62.02
G1 F2400 X192.19 Y54.13 E606.53901
G0 F12000 X192.19 Y54.78
G1 F2400 X199.43 Y62.02 E607.13399
G0 F12000 X198.77 Y62.02
G1 F2400 X192.19 Y55.44 E607.67481
G0 F12000 X192.19 Y56.10
G1 F2400 X198.11 Y62.02 E608.16145
G0 F12000 X197.45 Y62.02
G1 F2400 X192.19 Y56.76 E608.59393
G0 F12000 X192.19 Y57.42
G1 F2400 X196.79 Y62.02 E608.97221
G0 F12000 X196.13 Y62.02
G1 F2400 X192.19 Y58.08 E609.29631
G0 F12000 X192.19 Y58.74
G1 F2400 X195.48 Y62.02 E609.56624
G0 F12000 X194.82 Y62.02
G1 F2400 X192.19 Y59.40 E609.78201
G0 F12000 X192.19 Y60.06
G1 F2400 X194.16 Y62.02 E609.94361
G0 F12000 X193.50 Y62.02
G1 F2400 X192.19 Y60.72 E610.05104
G0 F12000 X192.19 Y61.38
G1 F2400 X192.84 Y62.02 E610.10431
G0 F12000 X207.11 Y61.14
G1 F2400 X179.89 Y33.92 E612.34187
G0 F12000 X180.55 Y33.92
G1 F2400 X207.11 Y60.48 E614.52527
G0 F12000 X207.11 Y59.82
G1 F2400 X181.21 Y33.92 E616.65451
G0 F12000 X181.87 Y33.92
G1 F2400 X207.11 Y59.16 E618.72957
G0 F12000 X207.11 Y58.50
G1 F2400 X182.53 Y33.92 E620.75047
G0 F12000 X183.19 Y33.92
G1 F2400 X207.11 Y57.84 E622.71719
G0 F12000 X207.11 Y57.19
G1 F2400 X183.85 Y33.92 E624.62976
G0 F12000 X184.50 Y33.92
G1 F2400 X207.11 Y56.53 E626.48815
G0 F12000 X207.11 Y55.87
G1 F2400 X185.16 Y33.92 E628.29237
G0 F12000 X185.82 Y33.92
G1 F2400 X207.11 Y55.21 E630.04243
G0 F12000 X207.11 Y54.55
G1 F2400 X186.48 Y33.92 E631.73832
G0 F12000 X187.14 Y33.92
G1 F2400 X207.11 Y53.89 E633.38004
G0 F12000 X207.11 Y53.23
G1 F2400 X187.80 Y33.92 E634.96760
G0 F12000 X188.46 Y33.92
G1 F2400 X207.11 Y52.57 E636.50098
G0 F12000 X207.11 Y51.91
G1 F2400 X189.12 Y33.92 E637.98020
G0 F12000 X189.78 Y33.92
G1 F2400 X207.11 Y51.26 E639.40525
G0 F12000 X207.11 Y50.60
G1 F2400 X190.44 Y33.92 E640.77613
G0 F12000 X191.09 Y33.92
G1 F2400 X207.11 Y49.94 E642.09285
G0 F12000 X207.11 Y49.28
G1 F2400 X191.75 Y33.92 E643.35539
G0 F12000 X192.19 Y33.70
G1 F2400 X207.34 Y48.84 E644.60006
G0 F12000 X207.99 Y48.84
G1 F2400 X192.19 Y33.04 E645.89890
G0 F12000 X192.19 Y32.38
G1 F2400 X208.65 Y48.84 E647.25190
G0 F12000 X209.31 Y48.84
G1 F2400 X192.19 Y31.72 E648.65907
G0 F12000 X192.19 Y31.06
G1 F2400 X209.97 Y48.84 E650.12041
G0 F12000 X210.63 Y48.84
G1 F2400 X192.19 Y30.40 E651.63592
G0 F12000 X192.19 Y29.74
G1 F2400 X211.29 Y48.84 E653.20560
G0 F12000 X211.95 Y48.84
G1 F2400 X192.19 Y29.08 E654.82944
G0 F12000 X192.19 Y28.42
G1 F2400 X212.61 Y48.84 E656.50749
G0 F12000 X213.27 Y48.84
G1 F2400 X192.19 Y27.77 E658.23972
G0 F12000 X192.19 Y27.11
G1 F2400 X213.93 Y48.84 E660.02610
G0 F12000 X214.58 Y48.84
G1 F2400 X192.19 Y26.45 E661.86666
G0 F12000 X192.19 Y25.79
G1 F2400 X215.24 Y48.84 E663.76138
G0 F12000 X215.90 Y48.84
G1 F2400 X192.19 Y25.13 E665.71028
G0 F12000 X192.19 Y24.47
G1 F2400 X216.56 Y48.84 E667.71334
G0 F12000 X217.22 Y48.84
G1 F2400 X192.19 Y23.81 E669.77056
G0 F12000 X192.19 Y23.15
G1 F2400 X217.88 Y48.84 E671.88196
G0 F12000 X218.54 Y48.84
G1 F2400 X192.19 Y22.49 E674.04752
G0 F12000 X192.19 Y21.83
G1 F2400 X219.20 Y48.84 E676.26725
G0 F12000 X219.86 Y48.84
G1 F2400 X192.19 Y21.18 E678.54115
G0 F12000 X192.41 Y20.73
G1 F2400 X220.30 Y48.62 E680.83355
G0 F12000 X220.30 Y47.96
G1 F2400 X193.07 Y20.73 E683.07177
G0 F12000 X193.73 Y20.73
G1 F2400 X220.30 Y47.30 E685.25583
G0 F12000 X220.30 Y46.65
G1 F2400 X207.57 Y33.92 E686.30203
G0 F12000 X207.11 Y33.46
G1 F2400 X194.39 Y20.73 E687.34815
G0 F12000 X195.05 Y20.73
G1 F2400 X207.11 Y32.80 E688.34011
G0 F12000 X207.11 Y32.14
G1 F2400 X195.71 Y20.73 E689.27789
G0 F12000 X196.36 Y20.73
G1 F2400 X207.11 Y31.48 E690.16151
G0 F12000 X207.11 Y30.82
G1 F2400 X197.02 Y20.73 E690.99096
G0 F12000 X197.68 Y20.73
G1 F2400 X207.11 Y30.17 E691.76624
G0 F12000 X207.11 Y29.51
G1 F2400 X198.34 Y20.73 E692.48736
G0 F12000 X199.00 Y20.73
G1 F2400 X207.11 Y28.85 E693.15431
G0 F12000 X207.11 Y28.19
G1 F2400 X199.66 Y20.73 E693.76709
G0 F12000 X200.32 Y20.73
G1 F2400 X207.11 Y27.53 E694.32570
G0 F12000 X207.11 Y26.87
G1 F2400 X200.98 Y20.73 E694.83014
G0 F12000 X201.64 Y20.73
G1 F2400 X207.11 Y26.21 E695.28042
G0 F12000 X207.11 Y25.55
G1 F2400 X202.29 Y20.73 E695.67652
G0 F12000 X202.95 Y20.73
G1 F2400 X207.11 Y24.89 E696.01846
G0 F12000 X207.11 Y24.23
G1 F2400 X203.61 Y20.73 E696.30623
G0 F12000 X204.27 Y20.73
G1 F2400 X207.11 Y23.58 E696.53984
G0 F12000 X207.11 Y22.92
G1 F2400 X204.93 Y20.73 E696.71927
G0 F12000 X205.59 Y20.73
G1 F2400 X207.11 Y22.26 E696.84454
G0 F12000 X207.11 Y21.60
G1 F2400 X206.25 Y20.73 E696.91564
G0 F12000 X206.91 Y20.73
G1 F2400 X207.11 Y20.94 E696.93258
G0 F12000 X207.84 Y33.20
G0 X208.23 Y33.92
G1 F2400 X220.30 Y45.99 E697.92461
G0 F12000 X220.30 Y45.33
G1 F2400 X208.89 Y33.92 E698.86248
G0 F12000 X209.55 Y33.92
G1 F2400 X220.30 Y44.67 E699.74618
G0 F12000 X220.30 Y44.01
G1 F2400 X210.21 Y33.92 E700.57571
G0 F12000 X210.87 Y33.92
G1 F2400 X220.30 Y43.35 E701.35108
G0 F12000 X220.30 Y42.69
G1 F2400 X211.53 Y33.92 E702.07227
G0 F12000 X212.18 Y33.92
G1 F2400 X220.30 Y42.03 E702.73930
G0 F12000 X220.30 Y41.37
G1 F2400 X212.84 Y33.92 E703.35216
G0 F12000 X213.50 Y33.92
G1 F2400 X220.30 Y40.72 E703.91086
G0 F12000 X220.30 Y40.06
G1 F2400 X214.16 Y33.92 E704.41538
G0 F12000 X214.82 Y33.92
G1 F2400 X220.30 Y39.40 E704.86574
G0 F12000 X220.30 Y38.74
G1 F2400 X215.48 Y33.92 E705.26193
G0 F12000 X216.14 Y33.92
G1 F2400 X220.30 Y38.08 E705.60395
G0 F12000 X220.30 Y37.42
G1 F2400 X216.80 Y33.92 E705.89181
G0 F12000 X217.46 Y33.92
G1 F2400 X220.30 Y36.76 E706.12549
G0 F12000 X220.30 Y36.10
G1 F2400 X218.12 Y33.92 E706.30501
G0 F12000 X218.77 Y33.92
G1 F2400 X220.30 Y35.44 E706.43036
G0 F12000 X220.30 Y34.78
G1 F2400 X219.43 Y33.92 E706.50150
G0 F12000 X220.09 Y33.92
G1 F2400 X220.30 Y34.12 E706.51848
;LAYER:1
G0 F12000 X220.46 Y33.75 Z0.50
;TYPE:WALL-INNER
G1 F2400 X220.46 Y49.00 E707.10938
G1 X207.28 Y49.00 E707.62028
G1 X207.28 Y62.19 E708.13117
G1 X192.03 Y62.19 E708.72208
G1 X192.03 Y49.00 E709.23297
G1 X178.84 Y49.00 E709.74383
G1 X178.84 Y33.75 E710.33473
G1 X192.03 Y33.75 E710.84559
G1 X192.03 Y20.57 E711.35644
G1 X207.28 Y20.57 E711.94735
G1 X207.28 Y33.75 E712.45821
G1 X220.46 Y33.75 E712.96910
G0 F12000 X220.93 Y33.29
G1 F2400 X220.93 Y49.47 E713.59612
G1 X207.75 Y49.47 E714.10701
G1 X207.75 Y62.66 E714.61791
G1 X191.56 Y62.66 E715.24493
G1 X191.56 Y49.47 E715.75582
G1 X178.38 Y49.47 E716.26667
G1 X178.38 Y33.29 E716.89370
G1 X191.56 Y33.29 E717.40455
G1 X191.56 Y20.10 E717.91540
G1 X207.75 Y20.10 E718.54243
G1 X207.75 Y33.29 E719.05328
G1 X220.93 Y33.29 E719.56417
G0 F12000 X221.40 Y32.82
;TYPE:WALL-OUTER
G1 F2400 X221.40 Y49.94 E720.22731
G1 X208.21 Y49.94 E720.73820
G1 X208.21 Y63.12 E721.24909
G1 X191.10 Y63.12 E721.91223
G1 X191.10 Y49.94 E722.42312
G1 X177.91 Y49.94 E722.93398
G1 X177.91 Y32.82 E723.59711
G1 X191.10 Y32.82 E724.10796
G1 X191.10 Y19.64 E724.61882
G1 X208.21 Y19.64 E725.28195
G1 X208.21 Y32.82 E725.79281
G1 X221.40 Y32.82 E726.30370
G0 F12000 X221.15 Y33.16
G0 X220.13 Y33.92
;TYPE:FILL
G1 F2400 X192.19 Y61.86 E727.83492
G0 F12000 X192.69 Y62.02
G1 F2400 X220.30 Y34.41 E729.34800
G0 F12000 X220.30 Y35.07
G1 F2400 X193.35 Y62.02 E730.82498
G0 F12000 X194.00 Y62.02
G1 F2400 X207.11 Y48.92 E731.54332
G0 F12000 X207.19 Y48.84
G1 F2400 X220.30 Y35.73 E732.26164
G0 F12000 X220.30 Y36.39
G1 F2400 X207.85 Y48.84 E732.94385
G0 F12000 X208.51 Y48.84
G1 F2400 X220.30 Y37.05 E733.58995
G0 F12000 X220.30 Y37.71
G1 F2400 X209.17 Y48.84 E734.19993
G0 F12000 X209.83 Y48.84
G1 F2400 X220.30 Y38.37 E734.77380
G0 F12000 X220.30 Y39.03
G1 F2400 X210.49 Y48.84 E735.31156
G0 F12000 X211.14 Y48.84
G1 F2400 X220.30 Y39.69 E735.81321
G0 F12000 X220.30 Y40.34
G1 F2400 X211.80 Y48.84 E736.27875
G0 F12000 X212.46 Y48.84
G1 F2400 X220.30 Y41.00 E736.70817
G0 F12000 X220.30 Y41.66
G1 F2400 X213.12 Y48.84 E737.10149
G0 F12000 X213.78 Y48.84
G1 F2400 X220.30 Y42.32 E737.45866
G0 F12000 X220.30 Y42.98
G1 F2400 X214.44 Y48.84 E737.77972
G0 F12000 X215.10 Y48.84
G1 F2400 X220.30 Y43.64 E738.06467
G0 F12000 X220.30 Y44.30
G1 F2400 X215.76 Y48.84 E738.31351
G0 F12000 X216.42 Y48.84
G1 F2400 X220.30 Y44.96 E738.52624
G0 F12000 X220.30 Y45.62
G1 F2400 X217.08 Y48.84 E738.70285
G0 F12000 X217.74 Y48.84
G1 F2400 X220.30 Y46.27 E738.84335
G0 F12000 X220.30 Y46.93
G1 F2400 X218.39 Y48.84 E738.94774
G0 F12000 X219.05 Y48.84
G1 F2400 X220.30 Y47.59 E739.01602
G0 F12000 X220.30 Y48.25
G1 F2400 X219.71 Y48.84 E739.04819
G0 F12000 X207.11 Y49.58
G1 F2400 X194.66 Y62.02 E739.73042
G0 F12000 X195.32 Y62.02
G1 F2400 X207.11 Y50.23 E740.37655
G0 F12000 X207.11 Y50.89
G1 F2400 X195.98 Y62.02 E740.98656
G0 F12000 X196.64 Y62.02
G1 F2400 X207.11 Y51.55 E741.56046
G0 F12000 X207.11 Y52.21
G1 F2400 X197.30 Y62.02 E742.09825
G0 F12000 X197.96 Y62.02
G1 F2400 X207.11 Y52.87 E742.59992
G0 F12000 X207.11 Y53.53
G1 F2400 X198.62 Y62.02 E743.06549
G0 F12000 X199.28 Y62.02
G1 F2400 X207.11 Y54.19 E743.49494
G0 F12000 X207.11 Y54.85
G1 F2400 X199.94 Y62.02 E743.88828
G0 F12000 X200.59 Y62.02
G1 F2400 X207.11 Y55.51 E744.24551
G0 F12000 X207.11 Y56.16
G1 F2400 X201.25 Y62.02 E744.56662
G0 F12000 X201.91 Y62.02
G1 F2400 X207.11 Y56.82 E744.85163
G0 F12000 X207.11 Y57.48
G1 F2400 X202.57 Y62.02 E745.10052
G0 F12000 X203.23 Y62.02
G1 F2400 X207.11 Y58.14 E745.31330
G0 F12000 X207.11 Y58.80
G1 F2400 X203.89 Y62.02 E745.48997
G0 F12000 X204.55 Y62.02
G1 F2400 X207.11 Y59.46 E745.63053
G0 F12000 X207.11 Y60.12
G1 F2400 X205.21 Y62.02 E745.73497
G0 F12000 X205.87 Y62.02
G1 F2400 X207.11 Y60.78 E745.80330
G0 F12000 X207.11 Y61.44
G1 F2400 X206.53 Y62.02 E745.83553
G0 F12000 X192.19 Y61.20
G1 F2400 X219.48 Y33.92 E747.33063
G0 F12000 X218.82 Y33.92
G1 F2400 X192.19 Y60.54 E748.78963
G0 F12000 X192.19 Y59.88
G1 F2400 X218.16 Y33.92 E750.21249
G0 F12000 X217.50 Y33.92
G1 F2400 X192.19 Y59.23 E751.59924
G0 F12000 X192.19 Y58.57
G1 F2400 X216.84 Y33.92 E752.94987
G0 F12000 X216.18 Y33.92
G1 F2400 X192.19 Y57.91 E754.26439
G0 F12000 X192.19 Y57.25
G1 F2400 X215.52 Y33.92 E755.54280
G0 F12000 X214.86 Y33.92
G1 F2400 X192.19 Y56.59 E756.78510
G0 F12000 X192.19 Y55.93
G1 F2400 X214.20 Y33.92 E757.99129
G0 F12000 X213.54 Y33.92
G1 F2400 X192.19 Y55.27 E759.16136
G0 F12000 X192.19 Y54.61
G1 F2400 X212.88 Y33.92 E760.29530
G0 F12000 X212.23 Y33.92
G1 F2400 X192.19 Y53.95 E761.39312
G0 F12000 X192.19 Y53.29
G1 F2400 X211.57 Y33.92 E762.45484
G0 F12000 X210.91 Y33.92
G1 F2400 X192.19 Y52.63 E763.48044
G0 F12000 X192.19 Y51.98
G1 F2400 X210.25 Y33.92 E764.46992
G0 F12000 X209.59 Y33.92
G1 F2400 X192.19 Y51.32 E765.42330
G0 F12000 X192.19 Y50.66
G1 F2400 X208.93 Y33.92 E766.34056
G0 F12000 X208.27 Y33.92
G1 F2400 X192.19 Y50.00 E767.22172
G0 F12000 X192.19 Y49.34
G1 F2400 X207.61 Y33.92 E768.06676
G0 F12000 X207.11 Y33.76
G1 F2400 X192.03 Y48.84 E768.89322
G0 F12000 X191.37 Y48.84
G1 F2400 X207.11 Y33.10 E769.75580
G0 F12000 X207.11 Y32.44
G1 F2400 X190.71 Y48.84 E770.65448
G0 F12000 X190.06 Y48.84
G1 F2400 X207.11 Y31.78 E771.58928
G0 F12000 X207.11 Y31.12
G1 F2400 X189.40 Y48.84 E772.56020
G0 F12000 X188.74 Y48.84
G1 F2400 X207.11 Y30.46 E773.56722
G0 F12000 X207.11 Y29.80
G1 F2400 X188.08 Y48.84 E774.61035
G0 F12000 X187.42 Y48.84
G1 F2400 X207.11 Y29.14 E775.68960
G0 F12000 X207.11 Y28.49
G1 F2400 X186.76 Y48.84 E776.80496
G0 F12000 X186.10 Y48.84
G1 F2400 X207.11 Y27.83 E777.95643
G0 F12000 X207.11 Y27.17
G1 F2400 X185.44 Y48.84 E779.14401
G0 F12000 X184.78 Y48.84
G1 F2400 X207.11 Y26.51 E780.36771
G0 F12000 X207.11 Y25.85
G1 F2400 X184.12 Y48.84 E781.62752
G0 F12000 X183.47 Y48.84
G1 F2400 X207.11 Y25.19 E782.92343
G0 F12000 X207.11 Y24.53
G1 F2400 X182.81 Y48.84 E784.25546
G0 F12000 X182.15 Y48.84
G1 F2400 X207.11 Y23.87 E785.62361
G0 F12000 X207.11 Y23.21
G1 F2400 X181.49 Y48.84 E787.02786
G0 F12000 X180.83 Y48.84
G1 F2400 X207.11 Y22.55 E788.46823
G0 F12000 X207.11 Y21.90
G1 F2400 X180.17 Y48.84 E789.94471
G0 F12000 X179.51 Y48.84
G1 F2400 X207.11 Y21.24 E791.45730
G0 F12000 X206.96 Y20.73
G1 F2400 X179.01 Y48.68 E792.98893
G0 F12000 X179.01 Y48.02
G1 F2400 X206.30 Y20.73 E794.48445
G0 F12000 X205.64 Y20.73
G1 F2400 X179.01 Y47.37 E795.94386
G0 F12000 X179.01 Y46.71
G1 F2400 X191.80 Y33.92 E796.64470
G0 F12000 X192.19 Y33.52
G1 F2400 X204.98 Y20.73 E797.34554
G0 F12000 X204.32 Y20.73
G1 F2400 X192.19 Y32.86 E798.01026
G0 F12000 X192.19 Y32.20
G1 F2400 X203.66 Y20.73 E798.63888
G0 F12000 X203.00 Y20.73
G1 F2400 X192.19 Y31.55 E799.23138
G0 F12000 X192.19 Y30.89
G1 F2400 X202.34 Y20.73 E799.78777
G0 F12000 X201.69 Y20.73
G1 F2400 X192.19 Y30.23 E800.30805
G0 F12000 X192.19 Y29.57
G1 F2400 X201.03 Y20.73 E800.79222
G0 F12000 X200.37 Y20.73
G1 F2400 X192.19 Y28.91 E801.24028
G0 F12000 X192.19 Y28.25
G1 F2400 X199.71 Y20.73 E801.65222
G0 F12000 X199.05 Y20.73
G1 F2400 X192.19 Y27.59 E802.02805
G0 F12000 X192.19 Y26.93
G1 F2400 X198.39 Y20.73 E802.36775
G0 F12000 X197.73 Y20.73
G1 F2400 X192.19 Y26.27 E802.67133
G0 F12000 X192.19 Y25.61
G1 F2400 X197.07 Y20.73 E802.93880
G0 F12000 X196.41 Y20.73
G1 F2400 X192.19 Y24.95 E803.17015
G0 F12000 X192.19 Y24.30
G1 F2400 X195.75 Y20.73 E803.36540
G0 F12000 X195.10 Y20.73
G1 F2400 X192.19 Y23.64 E803.52453
G0 F12000 X192.19 Y22.98
G1 F2400 X194.44 Y20.73 E803.64755
G0 F12000 X193.78 Y20.73
G1 F2400 X192.19 Y22.32 E803.73446
G0 F12000 X192.19 Y21.66
G1 F2400 X193.12 Y20.73 E803.78526
G0 F12000 X192.46 Y20.73
G1 F2400 X192.19 Y21.00 E803.79995
G0 F12000 X191.47 Y33.20
G0 X191.14 Y33.92
G1 F2400 X179.01 Y46.05 E804.46468
G0 F12000 X179.01 Y45.39
G1 F2400 X190.48 Y33.92 E805.09329
G0 F12000 X189.82 Y33.92
G1 F2400 X179.01 Y44.73 E805.68579
G0 F12000 X179.01 Y44.07
G1 F2400 X189.16 Y33.92 E806.24219
G0 F12000 X188.50 Y33.92
G1 F2400 X179.01 Y43.41 E806.76247
G0 F12000 X179.01 Y42.75
G1 F2400 X187.84 Y33.92 E807.24663
G0 F12000 X187.18 Y33.92
G1 F2400 X179.01 Y42.09 E807.69469
G0 F12000 X179.01 Y41.44
G1 F2400 X186.53 Y33.92 E808.10663
G0 F12000 X185.87 Y33.92
G1 F2400 X179.01 Y40.78 E808.48247
G0 F12000 X179.01 Y40.12
G1 F2400 X185.21 Y33.92 E808.82216
G0 F12000 X184.55 Y33.92
G1 F2400 X179.01 Y39.46 E809.12574
G0 F12000 X179.01 Y38.80
G1 F2400 X183.89 Y33.92 E809.39321
G0 F12000 X183.23 Y33.92
G1 F2400 X179.01 Y38.14 E809.62457
G0 F12000 X179.01 Y37.48
G1 F2400 X182.57 Y33.92 E809.81981
G0 F12000 X181.91 Y33.92
G1 F2400 X179.01 Y36.82 E809.97895
G0 F12000 X179.01 Y36.16
G1 F2400 X181.25 Y33.92 E810.10197
G0 F12000 X180.59 Y33.92
G1 F2400 X179.01 Y35.50 E810.18888
G0 F12000 X179.01 Y34.84
G1 F2400 X179.94 Y33.92 E810.23968
G0 F12000 X179.28 Y33.92
G1 F2400 X179.01 Y34.19 E810.25436
G1 F2400 E809.05436
G0 F12000 X161.85 Y34.52
;TYPE:WALL-INNER
G1 F2400 E810.25436
G1 X161.78 Y34.88 E810.26874
G1 X161.64 Y35.10 E810.27885
G1 X161.42 Y35.24 E810.28877
G1 X161.08 Y35.31 E810.30236
G1 X153.85 Y35.31 E810.58258
G1 X153.48 Y35.24 E810.59716
G1 X153.26 Y35.10 E810.60719
G1 X153.12 Y34.88 E810.61716
G1 X153.05 Y34.53 E810.63094
G1 X153.05 Y34.03 E810.65040
G1 X153.12 Y33.67 E810.66477
G1 X153.26 Y33.45 E810.67489
G1 X153.48 Y33.31 E810.68477
G1 X153.82 Y33.24 E810.69836
G1 X161.05 Y33.23 E810.97863
G1 X161.42 Y33.31 E810.99316
G1 X161.64 Y33.45 E811.00324
G1 X161.78 Y33.67 E811.01318
G1 X161.85 Y34.02 E811.02697
G1 X161.85 Y34.52 E811.04642
G0 F12000 X162.32 Y34.56
G1 F2400 X162.22 Y35.06 E811.06621
G1 X161.97 Y35.43 E811.08350
G1 X161.60 Y35.68 E811.10065
G1 X161.12 Y35.77 E811.11965
G1 X153.80 Y35.78 E811.40336
G1 X153.30 Y35.68 E811.42327
G1 X152.93 Y35.43 E811.44054
G1 X152.68 Y35.07 E811.45764
G1 X152.59 Y34.58 E811.47676
G1 X152.58 Y33.99 E811.49978
G1 X152.68 Y33.48 E811.51964
G1 X152.93 Y33.12 E811.53685
G1 X153.30 Y32.87 E811.55400
G1 X153.78 Y32.77 E811.57296
G1 X161.10 Y32.77 E811.85667
G1 X161.60 Y32.87 E811.87662
G1 X161.97 Y33.12 E811.89386
G1 X162.22 Y33.48 E811.91106
G1 X162.32 Y33.97 E811.93011
G1 X162.32 Y34.56 E811.95312
G0 F12000 X162.79 Y34.60
;TYPE:WALL-OUTER
G1 F2400 X162.66 Y35.24 E811.97837
G1 X162.31 Y35.77 E812.00282
G1 X161.79 Y36.12 E812.02723
G1 X161.17 Y36.24 E812.05157
G1 X153.76 Y36.25 E812.33881
G1 X153.12 Y36.12 E812.36409
G1 X152.59 Y35.77 E812.38852
G1 X152.24 Y35.25 E812.41288
G1 X152.12 Y34.63 E812.43733
G1 X152.12 Y33.95 E812.46379
G1 X152.24 Y33.30 E812.48911
G1 X152.59 Y32.78 E812.51347
G1 X153.12 Y32.43 E812.53789
G1 X153.73 Y32.31 E812.56219
G1 X161.14 Y32.30 E812.84943
G1 X161.78 Y32.43 E812.87475
G1 X162.31 Y32.78 E812.89914
G1 X162.66 Y33.30 E812.92361
G1 X162.78 Y33.92 E812.94791
G1 X162.79 Y34.60 E812.97445
G0 F12000 X161.69 Y34.37
;TYPE:FILL
G1 F2400 X160.91 Y35.14 E813.01681
G0 F12000 X160.25 Y35.15
G1 F2400 X161.63 Y33.77 E813.09229
G0 F12000 X161.29 Y33.45
G1 F2400 X159.60 Y35.15 E813.18526
G0 F12000 X158.94 Y35.15
G1 F2400 X160.68 Y33.40 E813.28096
G0 F12000 X160.02 Y33.40
G1 F2400 X158.28 Y35.15 E813.37667
G0 F12000 X157.62 Y35.15
G1 F2400 X159.36 Y33.40 E813.47243
G0 F12000 X158.70 Y33.40
G1 F2400 X156.96 Y35.15 E813.56819
G0 F12000 X156.30 Y35.15
G1 F2400 X158.04 Y33.40 E813.66389
G0 F12000 X157.38 Y33.40
G1 F2400 X155.64 Y35.15 E813.75957
G0 F12000 X154.98 Y35.15
G1 F2400 X156.72 Y33.40 E813.85530
G0 F12000 X156.07 Y33.40
G1 F2400 X154.32 Y35.15 E813.95106
G0 F12000 X153.69 Y35.12
G1 F2400 X155.41 Y33.40 E814.04493
G0 F12000 X154.75 Y33.40
G1 F2400 X153.30 Y34.85 E814.12439
G0 F12000 X153.21 Y34.28
G1 F2400 X154.09 Y33.40 E814.17228
G1 F2400 E812.97228
G0 F12000 X136.34 Y35.57
;TYPE:WALL-INNER
G1 F2400 E814.17228
G1 X136.34 Y36.08 E814.19196
G1 X136.27 Y36.44 E814.20622
G1 X136.13 Y36.66 E814.21633
G1 X135.91 Y36.80 E814.22625
G1 X135.57 Y36.87 E814.23984
G1 X128.34 Y36.87 E814.52006
G1 X127.97 Y36.80 E814.53464
G1 X127.75 Y36.66 E814.54470
G1 X127.61 Y36.44 E814.55467
G1 X127.54 Y36.09 E814.56846
G1 X127.54 Y35.59 E814.58791
G1 X127.61 Y35.23 E814.60229
G1 X127.75 Y35.01 E814.61235
G1 X127.97 Y34.87 E814.62232
G1 X128.31 Y34.80 E814.63591
G1 X135.54 Y34.80 E814.91617
G1 X135.91 Y34.87 E814.93071
G1 X136.13 Y35.01 E814.94079
G1 X136.27 Y35.23 E814.95073
G1 X136.34 Y35.57 E814.96439
G0 F12000 X136.80 Y35.53
G1 F2400 X136.81 Y36.12 E814.98749
G1 X136.71 Y36.62 E815.00723
G1 X136.46 Y36.99 E815.02452
G1 X136.09 Y37.24 E815.04167
G1 X135.61 Y37.33 E815.06067
G1 X128.29 Y37.34 E815.34438
G1 X127.78 Y37.24 E815.36437
G1 X127.42 Y36.99 E815.38161
G1 X127.17 Y36.63 E815.39871
G1 X127.07 Y36.14 E815.41783
G1 X127.07 Y35.55 E815.44084
G1 X127.17 Y35.05 E815.46071
G1 X127.42 Y34.67 E815.47794
G1 X127.78 Y34.43 E815.49504
G1 X128.26 Y34.34 E815.51408
G1 X135.59 Y34.33 E815.79779
G1 X136.09 Y34.43 E815.81774
G1 X136.46 Y34.68 E815.83498
G1 X136.71 Y35.05 E815.85218
G1 X136.80 Y35.53 E815.87118
G0 F12000 X137.27 Y35.48
;TYPE:WALL-OUTER
G1 F2400 X137.28 Y36.16 E815.89772
G1 X137.15 Y36.80 E815.92296
G1 X136.80 Y37.33 E815.94741
G1 X136.28 Y37.68 E815.97183
G1 X135.66 Y37.80 E815.99616
G1 X128.25 Y37.81 E816.28340
G1 X127.60 Y37.68 E816.30876
G1 X127.08 Y37.33 E816.33315
G1 X126.73 Y36.81 E816.35751
G1 X126.61 Y36.19 E816.38196
G1 X126.60 Y35.51 E816.40843
G1 X126.73 Y34.86 E816.43375
G1 X127.08 Y34.34 E816.45814
G1 X127.60 Y33.99 E816.48251
G1 X128.22 Y33.87 E816.50688
G1 X135.63 Y33.86 E816.79412
G1 X136.27 Y33.99 E816.81944
G1 X136.80 Y34.34 E816.84383
G1 X137.15 Y34.86 E816.86830
G1 X137.27 Y35.48 E816.89259
G0 F12000 X136.16 Y35.52
;TYPE:FILL
G1 F2400 X134.97 Y36.70 E816.95763
G0 F12000 X134.31 Y36.70
G1 F2400 X135.94 Y35.08 E817.04665
G0 F12000 X135.40 Y34.96
G1 F2400 X133.65 Y36.70 E817.14236
G0 F12000 X132.99 Y36.71
G1 F2400 X134.74 Y34.96 E817.23812
G0 F12000 X134.08 Y34.96
G1 F2400 X132.33 Y36.71 E817.33385
G0 F12000 X131.67 Y36.71
G1 F2400 X133.42 Y34.96 E817.42955
G0 F12000 X132.76 Y34.96
G1 F2400 X131.01 Y36.71 E817.52529
G0 F12000 X130.35 Y36.71
G1 F2400 X132.10 Y34.96 E817.62102
G0 F12000 X131.44 Y34.96
G1 F2400 X129.69 Y36.71 E817.71678
G0 F12000 X129.03 Y36.71
G1 F2400 X130.78 Y34.96 E817.81254
G0 F12000 X130.12 Y34.96
G1 F2400 X128.38 Y36.71 E817.90824
G0 F12000 X127.88 Y36.55
G1 F2400 X129.46 Y34.96 E817.99499
G0 F12000 X128.80 Y34.96
G1 F2400 X127.70 Y36.06 E818.05524
G0 F12000 X127.75 Y35.36
G1 F2400 X128.10 Y35.01 E818.07442
G0 F12000 X135.65 Y36.68
G1 F2400 X136.15 Y36.18 E818.10206
;LAYER:2
G0 F12000 X136.34 Y36.08 Z0.70
;TYPE:WALL-INNER
G1 F2400 X136.27 Y36.44 E818.11636
G1 X136.13 Y36.66 E818.12634
G1 X135.91 Y36.80 E818.13640
G1 X135.58 Y36.87 E818.14947
G1 X128.34 Y36.87 E818.43013
G1 X127.97 Y36.80 E818.44482
G1 X127.75 Y36.66 E818.45471
G1 X127.61 Y36.44 E818.46477
G1 X127.54 Y36.11 E818.47805
G1 X127.54 Y35.59 E818.49800
G1 X127.61 Y35.23 E818.51246
G1 X127.75 Y35.01 E818.52235
G1 X127.97 Y34.87 E818.53241
G1 X128.30 Y34.80 E818.54549
G1 X135.54 Y34.80 E818.82614
G1 X135.91 Y34.87 E818.84080
G1 X136.13 Y35.01 E818.85077
G1 X136.27 Y35.23 E818.86083
G1 X136.34 Y35.56 E818.87402
G1 X136.34 Y36.08 E818.89410
G0 F12000 X136.81 Y36.12
G1 F2400 X136.71 Y36.62 E818.91396
G1 X136.46 Y36.99 E818.93111
G1 X136.09 Y37.24 E818.94830
G1 X135.63 Y37.33 E818.96678
G1 X128.29 Y37.34 E819.25100
G1 X127.79 Y37.24 E819.27096
G1 X127.42 Y36.99 E819.28814
G1 X127.17 Y36.62 E819.30535
G1 X127.08 Y36.15 E819.32392
G1 X127.07 Y35.55 E819.34740
G1 X127.17 Y35.05 E819.36723
G1 X127.42 Y34.68 E819.38442
G1 X127.78 Y34.43 E819.40162
G1 X128.25 Y34.34 E819.42008
G1 X135.59 Y34.33 E819.70429
G1 X136.09 Y34.43 E819.72436
G1 X136.46 Y34.67 E819.74146
G1 X136.71 Y35.05 E819.75870
G1 X136.80 Y35.52 E819.77726
G1 X136.81 Y36.12 E819.80078
G0 F12000 X137.28 Y36.16
;TYPE:WALL-OUTER
G1 F2400 X137.15 Y36.81 E819.82610
G1 X136.80 Y37.33 E819.85047
G1 X136.28 Y37.68 E819.87483
G1 X135.67 Y37.80 E819.89869
G1 X128.25 Y37.81 E820.18643
G1 X127.60 Y37.68 E820.21184
G1 X127.08 Y37.33 E820.23618
G1 X126.73 Y36.81 E820.26057
G1 X126.61 Y36.20 E820.28444
G1 X126.60 Y35.51 E820.31144
G1 X126.73 Y34.86 E820.33681
G1 X127.08 Y34.34 E820.36115
G1 X127.60 Y33.99 E820.38555
G1 X128.21 Y33.87 E820.40937
G1 X135.63 Y33.86 E820.69711
G1 X136.28 Y33.99 E820.72256
G1 X136.80 Y34.34 E820.74687
G1 X137.15 Y34.86 E820.77128
G1 X137.27 Y35.47 E820.79514
G1 X137.28 Y36.16 E820.82218
G0 F12000 X136.13 Y36.29
;TYPE:FILL
G1 F2400 X134.80 Y34.96 E820.89506
G0 F12000 X135.46 Y34.96
G1 F2400 X136.17 Y35.67 E820.93408
G0 F12000 X135.83 Y36.65
G1 F2400 X134.14 Y34.96 E821.02653
G0 F12000 X133.49 Y34.96
G1 F2400 X135.23 Y36.70 E821.12193
G0 F12000 X134.57 Y36.70
G1 F2400 X132.83 Y34.96 E821.21733
G0 F12000 X132.17 Y34.96
G1 F2400 X133.91 Y36.70 E821.31274
G0 F12000 X133.25 Y36.70
G1 F2400 X131.51 Y34.96 E821.40814
G0 F12000 X130.85 Y34.96
G1 F2400 X132.59 Y36.70 E821.50354
G0 F12000 X131.93 Y36.70
G1 F2400 X130.19 Y34.97 E821.59892
G0 F12000 X129.53 Y34.97
G1 F2400 X131.28 Y36.71 E821.69432
G0 F12000 X130.62 Y36.71
G1 F2400 X128.88 Y34.97 E821.78970
G0 F12000 X128.24 Y34.98
G1 F2400 X129.96 Y36.71 E821.88420
G0 F12000 X129.30 Y36.71
G1 F2400 X127.81 Y35.22 E821.96590
G0 F12000 X127.70 Y35.77
G1 F2400 X128.64 Y36.71 E822.01752
G1 F2400 E820.81752
G0 F12000 X153.05 Y34.55
;TYPE:WALL-INNER
G1 F2400 E822.01752
G1 X153.05 Y34.03 E822.03748
G1 X153.12 Y33.66 E822.05194
G1 X153.26 Y33.45 E822.06182
G1 X153.48 Y33.31 E822.07188
G1 X153.81 Y33.24 E822.08492
G1 X161.05 Y33.23 E822.36558
G1 X161.42 Y33.31 E822.38024
G1 X161.64 Y33.45 E822.39021
G1 X161.78 Y33.67 E822.40027
G1 X161.85 Y34.00 E822.41350
G1 X161.85 Y34.52 E822.43346
G1 X161.78 Y34.88 E822.44781
G1 X161.64 Y35.10 E822.45781
G1 X161.42 Y35.24 E822.46787
G1 X161.09 Y35.31 E822.48095
G1 X153.85 Y35.31 E822.76160
G1 X153.48 Y35.24 E822.77622
G1 X153.26 Y35.10 E822.78620
G1 X153.12 Y34.88 E822.79620
G1 X153.05 Y34.55 E822.80948
G0 F12000 X152.59 Y34.59
G1 F2400 X152.58 Y33.99 E822.83296
G1 X152.68 Y33.49 E822.85279
G1 X152.93 Y33.12 E822.87006
G1 X153.30 Y32.87 E822.88716
G1 X153.76 Y32.78 E822.90561
G1 X161.10 Y32.77 E823.18983
G1 X161.61 Y32.87 E823.20990
G1 X161.97 Y33.12 E823.22700
G1 X162.22 Y33.48 E823.24424
G1 X162.31 Y33.95 E823.26281
G1 X162.32 Y34.56 E823.28629
G1 X162.22 Y35.06 E823.30620
G1 X161.97 Y35.43 E823.32335
G1 X161.60 Y35.68 E823.34054
G1 X161.14 Y35.77 E823.35902
G1 X153.80 Y35.78 E823.64324
G1 X153.29 Y35.68 E823.66327
G1 X152.93 Y35.44 E823.68028
G1 X152.68 Y35.06 E823.69758
G1 X152.59 Y34.59 E823.71615
G0 F12000 X152.12 Y34.64
;TYPE:WALL-OUTER
G1 F2400 X152.12 Y33.95 E823.74316
G1 X152.24 Y33.30 E823.76852
G1 X152.59 Y32.78 E823.79287
G1 X153.11 Y32.43 E823.81723
G1 X153.72 Y32.31 E823.84105
G1 X161.14 Y32.30 E824.12879
G1 X161.79 Y32.43 E824.15424
G1 X162.31 Y32.78 E824.17855
G1 X162.66 Y33.30 E824.20296
G1 X162.78 Y33.91 E824.22682
G1 X162.79 Y34.60 E824.25383
G1 X162.66 Y35.25 E824.27920
G1 X162.31 Y35.77 E824.30356
G1 X161.79 Y36.12 E824.32792
G1 X161.18 Y36.24 E824.35179
G1 X153.76 Y36.25 E824.63953
G1 X153.11 Y36.12 E824.66493
G1 X152.59 Y35.77 E824.68924
G1 X152.24 Y35.25 E824.71364
G1 X152.12 Y34.64 E824.73750
G0 F12000 X153.21 Y34.26
;TYPE:FILL
G1 F2400 X154.10 Y35.15 E824.78619
G0 F12000 X154.76 Y35.15
G1 F2400 X153.30 Y33.69 E824.86611
G0 F12000 X153.70 Y33.43
G1 F2400 X155.42 Y35.15 E824.96014
G0 F12000 X156.08 Y35.15
G1 F2400 X154.34 Y33.41 E825.05544
G0 F12000 X155.00 Y33.41
G1 F2400 X156.74 Y35.15 E825.15079
G0 F12000 X157.39 Y35.15
G1 F2400 X155.65 Y33.41 E825.24616
G0 F12000 X156.31 Y33.40
G1 F2400 X158.05 Y35.15 E825.34156
G0 F12000 X158.71 Y35.14
G1 F2400 X156.97 Y33.40 E825.43697
G0 F12000 X157.63 Y33.40
G1 F2400 X159.37 Y35.14 E825.53234
G0 F12000 X160.03 Y35.14
G1 F2400 X158.29 Y33.40 E825.62775
G0 F12000 X158.94 Y33.40
G1 F2400 X160.69 Y35.14 E825.72315
G0 F12000 X161.30 Y35.09
G1 F2400 X159.60 Y33.40 E825.81603
G0 F12000 X160.26 Y33.40
G1 F2400 X161.63 Y34.77 E825.89127
G0 F12000 X161.69 Y34.16
G1 F2400 X160.92 Y33.40 E825.93319
G1 F2400 E824.73319
G0 F12000 X178.84 Y33.75
;TYPE:WALL-INNER
G1 F2400 E825.93319
G1 X192.03 Y33.75 E826.44405
G1 X192.03 Y20.57 E826.95490
G1 X207.28 Y20.57 E827.54581
G1 X207.28 Y33.75 E828.05666
G1 X220.46 Y33.75 E828.56756
G1 X220.46 Y49.00 E829.15846
G1 X207.28 Y49.00 E829.66936
G1 X207.28 Y62.19 E830.18025
G1 X192.03 Y62.19 E830.77116
G1 X192.03 Y49.00 E831.28205
G1 X178.84 Y49.00 E831.79291
G1 X178.84 Y33.75 E832.38381
G0 F12000 X178.38 Y33.29
G1 F2400 X191.56 Y33.29 E832.89467
G1 X191.56 Y20.10 E833.40552
G1 X207.75 Y20.10 E834.03254
G1 X207.75 Y33.29 E834.54340
G1 X220.93 Y33.29 E835.05429
G1 X220.93 Y49.47 E835.68131
G1 X207.75 Y49.47 E836.19220
G1 X207.75 Y62.66 E836.70310
G1 X191.56 Y62.66 E837.33012
G1 X191.56 Y49.47 E837.84101
G1 X178.38 Y49.47 E838.35187
G1 X178.38 Y33.29 E838.97889
G0 F12000 X177.91 Y32.82
;TYPE:WALL-OUTER
G1 F2400 X191.10 Y32.82 E839.48974
G1 X191.10 Y19.64 E840.00060
G1 X208.21 Y19.64 E840.66373
G1 X208.21 Y32.82 E841.17459
G1 X221.40 Y32.82 E841.68548
G1 X221.40 Y49.94 E842.34861
G1 X208.21 Y49.94 E842.85951
G1 X208.21 Y63.12 E843.37040
G1 X191.10 Y63.12 E844.03353
G1 X191.10 Y49.94 E844.54443
G1 X177.91 Y49.94 E845.05528
G1 X177.91 Y32.82 E845.71841
G0 F12000 X178.25 Y33.06
G0 X179.23 Y33.92
;TYPE:FILL
G1 F2400 X207.11 Y61.80 E847.24624
G0 F12000 X206.68 Y62.02
G1 F2400 X179.01 Y34.35 E848.76261
G0 F12000 X179.01 Y35.01
G1 F2400 X206.02 Y62.02 E850.24287
G0 F12000 X205.36 Y62.02
G1 F2400 X192.19 Y48.85 E850.96456
G0 F12000 X192.18 Y48.84
G1 F2400 X179.01 Y35.67 E851.68619
G0 F12000 X179.01 Y36.33
G1 F2400 X191.52 Y48.84 E852.37172
G0 F12000 X190.86 Y48.84
G1 F2400 X179.01 Y36.99 E853.02113
G0 F12000 X179.01 Y37.65
G1 F2400 X190.20 Y48.84 E853.63443
G0 F12000 X189.54 Y48.84
G1 F2400 X179.01 Y38.31 E854.21162
G0 F12000 X179.01 Y38.97
G1 F2400 X188.88 Y48.84 E854.75269
G0 F12000 X188.22 Y48.84
G1 F2400 X179.01 Y39.62 E855.25766
G0 F12000 X179.01 Y40.28
G1 F2400 X187.56 Y48.84 E855.72651
G0 F12000 X186.91 Y48.84
G1 F2400 X179.01 Y40.94 E856.15925
G0 F12000 X179.01 Y41.60
G1 F2400 X186.25 Y48.84 E856.55588
G0 F12000 X185.59 Y48.84
G1 F2400 X179.01 Y42.26 E856.91639
G0 F12000 X179.01 Y42.92
G1 F2400 X184.93 Y48.84 E857.24080
G0 F12000 X184.27 Y48.84
G1 F2400 X179.01 Y43.58 E857.52909
G0 F12000 X179.01 Y44.24
G1 F2400 X183.61 Y48.84 E857.78124
G0 F12000 X182.95 Y48.84
G1 F2400 X179.01 Y44.90 E857.99728
G0 F12000 X179.01 Y45.56
G1 F2400 X182.29 Y48.84 E858.17721
G0 F12000 X181.63 Y48.84
G1 F2400 X179.01 Y46.22 E858.32103
G0 F12000 X179.01 Y46.87
G1 F2400 X180.97 Y48.84 E858.42874
G0 F12000 X180.31 Y48.84
G1 F2400 X179.01 Y47.53 E858.50033
G0 F12000 X179.01 Y48.19
G1 F2400 X179.66 Y48.84 E858.53581
G0 F12000 X192.19 Y49.51
G1 F2400 X204.70 Y62.02 E859.22139
G0 F12000 X204.04 Y62.02
G1 F2400 X192.19 Y50.17 E859.87085
G0 F12000 X192.19 Y50.83
G1 F2400 X203.38 Y62.02 E860.48421
G0 F12000 X202.73 Y62.02
G1 F2400 X192.19 Y51.49 E861.06145
G0 F12000 X192.19 Y52.15
G1 F2400 X202.07 Y62.02 E861.60258
G0 F12000 X201.41 Y62.02
G1 F2400 X192.19 Y52.81 E862.10760
G0 F12000 X192.19 Y53.47
G1 F2400 X200.75 Y62.02 E862.57651
G0 F12000 X200.09 Y62.02
G1 F2400 X192.19 Y54.13 E863.00930
G0 F12000 X192.19 Y54.78
G1 F2400 X199.43 Y62.02 E863.40596
G0 F12000 X198.77 Y62.02
G1 F2400 X192.19 Y55.44 E863.76650
G0 F12000 X192.19 Y56.10
G1 F2400 X198.11 Y62.02 E864.09093
G0 F12000 X197.45 Y62.02
G1 F2400 X192.19 Y56.76 E864.37925
G0 F12000 X192.19 Y57.42
G1 F2400 X196.79 Y62.02 E864.63143
G0 F12000 X196.13 Y62.02
G1 F2400 X192.19 Y58.08 E864.84750
G0 F12000 X192.19 Y58.74
G1 F2400 X195.48 Y62.02 E865.02746
G0 F12000 X194.82 Y62.02
G1 F2400 X192.19 Y59.40 E865.17130
G0 F12000 X192.19 Y60.06
G1 F2400 X194.16 Y62.02 E865.27904
G0 F12000 X193.50 Y62.02
G1 F2400 X192.19 Y60.72 E865.35066
G0 F12000 X192.19 Y61.38
G1 F2400 X192.84 Y62.02 E865.38617
G0 F12000 X207.11 Y61.14
G1 F2400 X179.89 Y33.92 E866.87788
G0 F12000 X180.55 Y33.92
G1 F2400 X207.11 Y60.48 E868.33348
G0 F12000 X207.11 Y59.82
G1 F2400 X181.21 Y33.92 E869.75297
G0 F12000 X181.87 Y33.92
G1 F2400 X207.11 Y59.16 E871.13634
G0 F12000 X207.11 Y58.50
G1 F2400 X182.53 Y33.92 E872.48361
G0 F12000 X183.19 Y33.92
G1 F2400 X207.11 Y57.84 E873.79476
G0 F12000 X207.11 Y57.19
G1 F2400 X183.85 Y33.92 E875.06980
G0 F12000 X184.50 Y33.92
G1 F2400 X207.11 Y56.53 E876.30873
G0 F12000 X207.11 Y55.87
G1 F2400 X185.16 Y33.92 E877.51155
G0 F12000 X185.82 Y33.92
G1 F2400 X207.11 Y55.21 E878.67825
G0 F12000 X207.11 Y54.55
G1 F2400 X186.48 Y33.92 E879.80884
G0 F12000 X187.14 Y33.92
G1 F2400 X207.11 Y53.89 E880.90332
G0 F12000 X207.11 Y53.23
G1 F2400 X187.80 Y33.92 E881.96169
G0 F12000 X188.46 Y33.92
G1 F2400 X207.11 Y52.57 E882.98395
G0 F12000 X207.11 Y51.91
G1 F2400 X189.12 Y33.92 E883.97010
G0 F12000 X189.78 Y33.92
G1 F2400 X207.11 Y51.26 E884.92013
G0 F12000 X207.11 Y50.60
G1 F2400 X190.44 Y33.92 E885.83405
G0 F12000 X191.09 Y33.92
G1 F2400 X207.11 Y49.94 E886.71186
G0 F12000 X207.11 Y49.28
G1 F2400 X191.75 Y33.92 E887.55356
G0 F12000 X192.19 Y33.70
G1 F2400 X207.34 Y48.84 E888.38334
G0 F12000 X207.99 Y48.84
G1 F2400 X192.19 Y33.04 E889.24923
G0 F12000 X192.19 Y32.38
G1 F2400 X208.65 Y48.84 E890.15123
G0 F12000 X209.31 Y48.84
G1 F2400 X192.19 Y31.72 E891.08935
G0 F12000 X192.19 Y31.06
G1 F2400 X209.97 Y48.84 E892.06357
G0 F12000 X210.63 Y48.84
G1 F2400 X192.19 Y30.40 E893.07391
G0 F12000 X192.19 Y29.74
G1 F2400 X211.29 Y48.84 E894.12036
G0 F12000 X211.95 Y48.84
G1 F2400 X192.19 Y29.08 E895.20292
G0 F12000 X192.19 Y28.42
G1 F2400 X212.61 Y48.84 E896.32163
G0 F12000 X213.27 Y48.84
G1 F2400 X192.19 Y27.77 E897.47644
G0 F12000 X192.19 Y27.11
G1 F2400 X213.93 Y48.84 E898.66737
G0 F12000 X214.58 Y48.84
G1 F2400 X192.19 Y26.45 E899.89440
G0 F12000 X192.19 Y25.79
G1 F2400 X215.24 Y48.84 E901.15755
G0 F12000 X215.90 Y48.84
G1 F2400 X192.19 Y25.13 E902.45681
G0 F12000 X192.19 Y24.47
G1 F2400 X216.56 Y48.84 E903.79219
G0 F12000 X217.22 Y48.84
G1 F2400 X192.19 Y23.81 E905.16367
G0 F12000 X192.19 Y23.15
G1 F2400 X217.88 Y48.84 E906.57127
G0 F12000 X218.54 Y48.84
G1 F2400 X192.19 Y22.49 E908.01498
G0 F12000 X192.19 Y21.83
G1 F2400 X219.20 Y48.84 E909.49480
G0 F12000 X219.86 Y48.84
G1 F2400 X192.19 Y21.18 E911.01073
G0 F12000 X192.41 Y20.73
G1 F2400 X220.30 Y48.62 E912.53899
G0 F12000 X220.30 Y47.96
G1 F2400 X193.07 Y20.73 E914.03114
G0 F12000 X193.73 Y20.73
G1 F2400 X220.30 Y47.30 E915.48718
G0 F12000 X220.30 Y46.65
G1 F2400 X207.57 Y33.92 E916.18465
G0 F12000 X207.11 Y33.46
G1 F2400 X194.39 Y20.73 E916.88207
G0 F12000 X195.05 Y20.73
G1 F2400 X207.11 Y32.80 E917.54337
G0 F12000 X207.11 Y32.14
G1 F2400 X195.71 Y20.73 E918.16856
G0 F12000 X196.36 Y20.73
G1 F2400 X207.11 Y31.48 E918.75764
G0 F12000 X207.11 Y30.82
G1 F2400 X197.02 Y20.73 E919.31060
G0 F12000 X197.68 Y20.73
G1 F2400 X207.11 Y30.17 E919.82746
G0 F12000 X207.11 Y29.51
G1 F2400 X198.34 Y20.73 E920.30820
G0 F12000 X199.00 Y20.73
G1 F2400 X207.11 Y28.85 E920.75283
G0 F12000 X207.11 Y28.19
G1 F2400 X199.66 Y20.73 E921.16135
G0 F12000 X200.32 Y20.73
G1 F2400 X207.11 Y27.53 E921.53376
G0 F12000 X207.11 Y26.87
G1 F2400 X200.98 Y20.73 E921.87006
G0 F12000 X201.64 Y20.73
G1 F2400 X207.11 Y26.21 E922.17024
G0 F12000 X207.11 Y25.55
G1 F2400 X202.29 Y20.73 E922.43431
G0 F12000 X202.95 Y20.73
G1 F2400 X207.11 Y24.89 E922.66227
G0 F12000 X207.11 Y24.23
G1 F2400 X203.61 Y20.73 E922.85412
G0 F12000 X204.27 Y20.73
G1 F2400 X207.11 Y23.58 E923.00986
G0 F12000 X207.11 Y22.92
G1 F2400 X204.93 Y20.73 E923.12948
G0 F12000 X205.59 Y20.73
G1 F2400 X207.11 Y22.26 E923.21299
G0 F12000 X207.11 Y21.60
G1 F2400 X206.25 Y20.73 E923.26039
G0 F12000 X206.91 Y20.73
G1 F2400 X207.11 Y20.94 E923.27168
G0 F12000 X207.84 Y33.20
G0 X208.23 Y33.92
G1 F2400 X220.30 Y45.99 E923.93304
G0 F12000 X220.30 Y45.33
G1 F2400 X208.89 Y33.92 E924.55828
G0 F12000 X209.55 Y33.92
G1 F2400 X220.30 Y44.67 E925.14742
G0 F12000 X220.30 Y44.01
G1 F2400 X210.21 Y33.92 E925.70044
G0 F12000 X210.87 Y33.92
G1 F2400 X220.30 Y43.35 E926.21735
G0 F12000 X220.30 Y42.69
G1 F2400 X211.53 Y33.92 E926.69815
G0 F12000 X212.18 Y33.92
G1 F2400 X220.30 Y42.03 E927.14283
G0 F12000 X220.30 Y41.37
G1 F2400 X212.84 Y33.92 E927.55141
G0 F12000 X213.50 Y33.92
G1 F2400 X220.30 Y40.72 E927.92387
G0 F12000 X220.30 Y40.06
G1 F2400 X214.16 Y33.92 E928.26022
G0 F12000 X214.82 Y33.92
G1 F2400 X220.30 Y39.40 E928.56046
G0 F12000 X220.30 Y38.74
G1 F2400 X215.48 Y33.92 E928.82458
G0 F12000 X216.14 Y33.92
G1 F2400 X220.30 Y38.08 E929.05260
G0 F12000 X220.30 Y37.42
G1 F2400 X216.80 Y33.92 E929.24450
G0 F12000 X217.46 Y33.92
G1 F2400 X220.30 Y36.76 E929.40029
G0 F12000 X220.30 Y36.10
G1 F2400 X218.12 Y33.92 E929.51997
G0 F12000 X218.77 Y33.92
G1 F2400 X220.30 Y35.44 E929.60354
G0 F12000 X220.30 Y34.78
G1 F2400 X219.43 Y33.92 E929.65097
G0 F12000 X220.09 Y33.92
G1 F2400 X220.30 Y34.12 E929.66228
;LAYER:3
G0 F12000 X220.46 Y33.75 Z0.90
;TYPE:WALL-INNER
G1 F2400 X220.46 Y49.00 E930.25319
G1 X207.28 Y49.00 E930.76408
G1 X207.28 Y62.19 E931.27498
G1 X192.03 Y62.19 E931.86588
G1 X192.03 Y49.00 E932.37678
G1 X178.84 Y49.00 E932.88763
G1 X178.84 Y33.75 E933.47854
G1 X192.03 Y33.75 E933.98939
G1 X192.03 Y20.57 E934.50025
G1 X207.28 Y20.57 E935.09116
G1 X207.28 Y33.75 E935.60201
G1 X220.46 Y33.75 E936.11290
G0 F12000 X220.93 Y33.29
G1 F2400 X220.93 Y49.47 E936.73992
G1 X207.75 Y49.47 E937.25082
G1 X207.75 Y62.66 E937.76171
G1 X191.56 Y62.66 E938.38873
G1 X191.56 Y49.47 E938.89962
G1 X178.38 Y49.47 E939.41048
G1 X178.38 Y33.29 E940.03750
G1 X191.56 Y33.29 E940.54835
G1 X191.56 Y20.10 E941.05921
G1 X207.75 Y20.10 E941.68623
G1 X207.75 Y33.29 E942.19708
G1 X220.93 Y33.29 E942.70798
G0 F12000 X221.40 Y32.82
;TYPE:WALL-OUTER
G1 F2400 X221.40 Y49.94 E943.37111
G1 X208.21 Y49.94 E943.88200
G1 X208.21 Y63.12 E944.39290
G1 X191.10 Y63.12 E945.05603
G1 X191.10 Y49.94 E945.56693
G1 X177.91 Y49.94 E946.07778
G1 X177.91 Y32.82 E946.74091
G1 X191.10 Y32.82 E947.25177
G1 X191.10 Y19.64 E947.76262
G1 X208.21 Y19.64 E948.42576
G1 X208.21 Y32.82 E948.93661
G1 X221.40 Y32.82 E949.44750
G0 F12000 X221.15 Y33.16
