;-- START GCODE --
;Sliced for Type A Machines Series 1
;Sliced at: Fri 18-11-2016 01:47:24
;Basic settings: Layer height: 0.2 Walls: 1.2 Fill: 3
;Print Speed: 40 Support: 0
;Retraction Speed: 40 Retraction Distance: 1.2
;Print time: #P_TIME#
;Filament used: #F_AMNT#m #F_WGHT#g
;Filament cost: #F_COST#
M106 S255	 ;start with the fan on
G21        ;metric values
G90        ;absolute positioning
M106 S255    ;start with the fan on
G28     ;move to endstops
G29		;allows for auto-levelling
G1 X150 Y5  Z15.0 F12000 ;center and move the platform down 15mm
M109 S220 ;Heat To temp
G92 E0                  ;zero the extruded length
G1 F200 E30              ;extrude 30mm of feed stock
G92 E0                  ;zero the extruded length again
G1 X175 Y25  Z0 F12000 ;remove bugger
G1 X220 F12000 ;remove bugger
G1 X150 Y150  Z15 F12000 ;recenter and begin
G1 F12000

;Layer count: 29
;LAYER:0
M106 S255
G0 F12000 X102.87 Y102.97 Z0.30
;TYPE:SKIRT
G1 F2400 X104.22 Y101.68 E0.09312
G1 X105.62 Y100.47 E0.18541
G1 X107.08 Y99.33 E0.27769
G1 X108.60 Y98.25 E0.37083
G1 X110.16 Y97.26 E0.46298
G1 X111.77 Y96.34 E0.55533
G1 X113.43 Y95.50 E0.64811
G1 X114.72 Y94.93 E0.71879
G1 X115.13 Y94.74 E0.74123
G1 X116.87 Y94.07 E0.83414
G1 X118.61 Y93.49 E0.92574
G1 X120.41 Y93.00 E1.01853
G1 X122.20 Y92.59 E1.11061
G1 X124.04 Y92.26 E1.20362
G1 X125.89 Y92.03 E1.29642
G1 X127.73 Y91.90 E1.38853
G1 X129.15 Y91.86 E1.45930
G1 X129.60 Y91.84 E1.48221
G1 X131.45 Y91.89 E1.57423
G1 X133.28 Y92.02 E1.66597
G1 X135.14 Y92.25 E1.75919
G1 X136.96 Y92.56 E1.85164
G1 X138.77 Y92.96 E1.94383
G1 X140.57 Y93.46 E2.03701
G1 X142.32 Y94.03 E2.12920
G1 X144.05 Y94.70 E2.22156
G1 X145.76 Y95.45 E2.31455
G1 X147.41 Y96.28 E2.40692
G1 X149.03 Y97.19 E2.49936
G1 X150.60 Y98.18 E2.59207
G1 X152.12 Y99.25 E2.68498
G1 X152.50 Y99.54 E2.70869
G1 X152.78 Y99.33 E2.72624
G1 X154.30 Y98.25 E2.81914
G1 X155.86 Y97.26 E2.91145
G1 X157.47 Y96.34 E3.00411
G1 X159.13 Y95.50 E3.09666
G1 X160.42 Y94.93 E3.16735
G1 X160.83 Y94.74 E3.18979
G1 X162.57 Y94.07 E3.28270
G1 X164.31 Y93.49 E3.37430
G1 X166.10 Y93.00 E3.46709
G1 X167.90 Y92.59 E3.55917
G1 X169.74 Y92.26 E3.65218
G1 X171.59 Y92.03 E3.74498
G1 X173.43 Y91.90 E3.83709
G1 X174.84 Y91.86 E3.90786
G1 X175.30 Y91.84 E3.93077
G1 X177.15 Y91.89 E4.02279
G1 X178.98 Y92.02 E4.11453
G1 X180.84 Y92.25 E4.20774
G1 X182.66 Y92.56 E4.30020
G1 X184.47 Y92.96 E4.39239
G1 X186.27 Y93.46 E4.48557
G1 X188.02 Y94.03 E4.57775
G1 X189.75 Y94.70 E4.67012
G1 X191.46 Y95.45 E4.76311
G1 X193.11 Y96.28 E4.85548
G1 X194.73 Y97.19 E4.94792
G1 X196.30 Y98.18 E5.04063
G1 X197.82 Y99.25 E5.13353
G1 X199.28 Y100.38 E5.22543
G1 X200.69 Y101.59 E5.31806
G1 X202.04 Y102.88 E5.41122
G1 X203.32 Y104.22 E5.50403
G1 X204.53 Y105.62 E5.59631
G1 X205.68 Y107.08 E5.68859
G1 X206.75 Y108.60 E5.78149
G1 X207.74 Y110.16 E5.87380
G1 X208.66 Y111.77 E5.96646
G1 X209.50 Y113.43 E6.05901
G1 X210.07 Y114.72 E6.12970
G1 X210.26 Y115.13 E6.15214
G1 X210.93 Y116.87 E6.24505
G1 X211.51 Y118.61 E6.33665
G1 X212.00 Y120.41 E6.42944
G1 X212.41 Y122.20 E6.52152
G1 X212.74 Y124.04 E6.61453
G1 X212.97 Y125.89 E6.70733
G1 X213.10 Y127.73 E6.79944
G1 X213.14 Y129.14 E6.87011
G1 X213.14 Y129.14 E6.87016
G1 X213.16 Y129.60 E6.89312
G1 X213.11 Y131.45 E6.98519
G1 X212.98 Y133.28 E7.07693
G1 X212.75 Y135.14 E7.17015
G1 X212.44 Y136.96 E7.26260
G1 X212.04 Y138.77 E7.35479
G1 X211.54 Y140.57 E7.44797
G1 X210.97 Y142.32 E7.54016
G1 X210.30 Y144.05 E7.63252
G1 X209.55 Y145.76 E7.72551
G1 X208.72 Y147.41 E7.81788
G1 X207.81 Y149.03 E7.91032
G1 X206.82 Y150.60 E8.00303
G1 X205.75 Y152.12 E8.09593
G1 X205.46 Y152.50 E8.11964
G1 X205.68 Y152.78 E8.13720
G1 X206.75 Y154.30 E8.23009
G1 X207.74 Y155.86 E8.32241
G1 X208.66 Y157.47 E8.41507
G1 X209.50 Y159.13 E8.50762
G1 X210.07 Y160.42 E8.57830
G1 X210.26 Y160.83 E8.60075
G1 X210.93 Y162.57 E8.69366
G1 X211.51 Y164.31 E8.78526
G1 X212.00 Y166.10 E8.87805
G1 X212.41 Y167.90 E8.97013
G1 X212.74 Y169.74 E9.06313
G1 X212.97 Y171.59 E9.15594
G1 X213.10 Y173.43 E9.24805
G1 X213.14 Y174.84 E9.31872
G1 X213.14 Y174.84 E9.31877
G1 X213.16 Y175.30 E9.34173
G1 X213.11 Y177.15 E9.43380
G1 X212.98 Y178.98 E9.52553
G1 X212.75 Y180.84 E9.61875
G1 X212.44 Y182.66 E9.71121
G1 X212.04 Y184.47 E9.80339
G1 X211.54 Y186.27 E9.89658
G1 X210.97 Y188.02 E9.98876
G1 X210.30 Y189.75 E10.08113
G1 X209.55 Y191.46 E10.17412
G1 X208.72 Y193.11 E10.26649
G1 X207.81 Y194.73 E10.35893
G1 X206.82 Y196.30 E10.45164
G1 X205.75 Y197.82 E10.54454
G1 X204.62 Y199.28 E10.63644
G1 X203.41 Y200.69 E10.72907
G1 X202.12 Y202.04 E10.82223
G1 X200.78 Y203.32 E10.91504
G1 X199.38 Y204.53 E11.00732
G1 X197.92 Y205.68 E11.09960
G1 X196.40 Y206.75 E11.19250
G1 X194.84 Y207.74 E11.28481
G1 X193.23 Y208.66 E11.37747
G1 X191.57 Y209.50 E11.47002
G1 X190.28 Y210.07 E11.54071
G1 X189.87 Y210.26 E11.56315
G1 X188.13 Y210.93 E11.65606
G1 X186.39 Y211.51 E11.74766
G1 X184.59 Y212.00 E11.84045
G1 X182.79 Y212.41 E11.93253
G1 X180.96 Y212.74 E12.02553
G1 X179.11 Y212.97 E12.11834
G1 X177.27 Y213.10 E12.21045
G1 X175.85 Y213.14 E12.28122
G1 X175.40 Y213.16 E12.30413
G1 X173.55 Y213.11 E12.39615
G1 X171.72 Y212.98 E12.48788
G1 X169.86 Y212.75 E12.58110
G1 X168.04 Y212.44 E12.67356
G1 X166.23 Y212.04 E12.76574
G1 X164.43 Y211.54 E12.85893
G1 X162.68 Y210.97 E12.95111
G1 X160.95 Y210.30 E13.04348
G1 X159.24 Y209.55 E13.13647
G1 X157.59 Y208.72 E13.22884
G1 X155.97 Y207.81 E13.32128
G1 X154.40 Y206.82 E13.41399
G1 X152.88 Y205.75 E13.50689
G1 X152.50 Y205.46 E13.53060
G1 X152.22 Y205.68 E13.54816
G1 X150.70 Y206.75 E13.64105
G1 X149.14 Y207.74 E13.73337
G1 X147.53 Y208.66 E13.82603
G1 X145.87 Y209.50 E13.91858
G1 X144.58 Y210.07 E13.98926
G1 X144.17 Y210.26 E14.01170
G1 X142.43 Y210.93 E14.10461
G1 X140.69 Y211.51 E14.19621
G1 X138.90 Y212.00 E14.28900
G1 X137.10 Y212.41 E14.38109
G1 X135.26 Y212.74 E14.47409
G1 X133.41 Y212.97 E14.56689
G1 X131.57 Y213.10 E14.65900
G1 X130.16 Y213.14 E14.72967
G1 X130.16 Y213.14 E14.72972
G1 X129.70 Y213.16 E14.75268
G1 X127.85 Y213.11 E14.84476
G1 X126.02 Y212.98 E14.93649
G1 X124.16 Y212.75 E15.02971
G1 X122.34 Y212.44 E15.12216
G1 X120.53 Y212.04 E15.21435
G1 X118.73 Y211.54 E15.30754
G1 X116.98 Y210.97 E15.39972
G1 X115.25 Y210.30 E15.49209
G1 X113.54 Y209.55 E15.58508
G1 X111.89 Y208.72 E15.67745
G1 X110.27 Y207.81 E15.76989
G1 X108.70 Y206.82 E15.86260
G1 X107.18 Y205.75 E15.95550
G1 X105.72 Y204.62 E16.04740
G1 X104.31 Y203.41 E16.14003
G1 X102.96 Y202.12 E16.23351
G1 X101.68 Y200.78 E16.32596
G1 X100.47 Y199.38 E16.41792
G1 X99.33 Y197.92 E16.51056
G1 X98.25 Y196.40 E16.60345
G1 X97.26 Y194.84 E16.69577
G1 X96.34 Y193.23 E16.78843
G1 X95.50 Y191.57 E16.88098
G1 X94.93 Y190.28 E16.95167
G1 X94.74 Y189.87 E16.97411
G1 X94.07 Y188.13 E17.06702
G1 X93.49 Y186.39 E17.15862
G1 X93.00 Y184.59 E17.25141
G1 X92.59 Y182.79 E17.34349
G1 X92.26 Y180.96 E17.43649
G1 X92.03 Y179.11 E17.52930
G1 X91.90 Y177.27 E17.62141
G1 X91.86 Y175.85 E17.69218
G1 X91.84 Y175.40 E17.71508
G1 X91.89 Y173.55 E17.80711
G1 X92.02 Y171.72 E17.89884
G1 X92.25 Y169.86 E17.99206
G1 X92.56 Y168.04 E18.08452
G1 X92.96 Y166.23 E18.17670
G1 X93.46 Y164.43 E18.26989
G1 X94.03 Y162.68 E18.36207
G1 X94.70 Y160.95 E18.45444
G1 X95.45 Y159.24 E18.54743
G1 X96.28 Y157.59 E18.63980
G1 X97.19 Y155.97 E18.73224
G1 X98.18 Y154.41 E18.82470
G1 X99.25 Y152.88 E18.91789
G1 X99.54 Y152.50 E18.94160
G1 X99.33 Y152.22 E18.95912
G1 X98.25 Y150.70 E19.05201
G1 X97.26 Y149.14 E19.14433
G1 X96.34 Y147.53 E19.23699
G1 X95.50 Y145.87 E19.32954
G1 X94.93 Y144.58 E19.40022
G1 X94.74 Y144.17 E19.42266
G1 X94.07 Y142.43 E19.51558
G1 X93.49 Y140.69 E19.60718
G1 X93.00 Y138.90 E19.69997
G1 X92.59 Y137.10 E19.79205
G1 X92.26 Y135.26 E19.88505
G1 X92.03 Y133.41 E19.97786
G1 X91.90 Y131.57 E20.06996
G1 X91.86 Y130.16 E20.14073
G1 X91.84 Y129.70 E20.16364
G1 X91.89 Y127.85 E20.25567
G1 X92.02 Y126.02 E20.34740
G1 X92.25 Y124.16 E20.44062
G1 X92.56 Y122.34 E20.53307
G1 X92.96 Y120.53 E20.62526
G1 X93.46 Y118.73 E20.71845
G1 X94.03 Y116.98 E20.81063
G1 X94.70 Y115.25 E20.90300
G1 X95.45 Y113.54 E20.99599
G1 X96.28 Y111.89 E21.08836
G1 X97.19 Y110.27 E21.18080
G1 X98.18 Y108.71 E21.27326
G1 X99.25 Y107.18 E21.36645
G1 X100.39 Y105.71 E21.45895
G1 X101.59 Y104.31 E21.55097
G1 X102.87 Y102.97 E21.64378
G0 F12000 X103.15 Y103.25
G1 F2400 X104.49 Y101.97 E21.73595
G1 X105.88 Y100.78 E21.82725
G1 X107.31 Y99.65 E21.91857
G1 X108.82 Y98.58 E22.01067
G1 X110.37 Y97.60 E22.10191
G1 X111.96 Y96.69 E22.19325
G1 X113.60 Y95.86 E22.28509
G1 X114.80 Y95.33 E22.35080
G1 X115.29 Y95.11 E22.37728
G1 X117.01 Y94.45 E22.46912
G1 X118.73 Y93.88 E22.55977
G1 X120.50 Y93.38 E22.65158
G1 X122.28 Y92.98 E22.74268
G1 X124.10 Y92.66 E22.83468
G1 X125.93 Y92.43 E22.92653
G1 X127.75 Y92.30 E23.01764
G1 X129.16 Y92.26 E23.08791
G1 X129.61 Y92.25 E23.11037
G1 X131.43 Y92.29 E23.20139
G1 X133.25 Y92.42 E23.29218
G1 X135.08 Y92.64 E23.38439
G1 X136.89 Y92.95 E23.47588
G1 X138.67 Y93.35 E23.56711
G1 X140.45 Y93.84 E23.65930
G1 X142.19 Y94.41 E23.75049
G1 X143.90 Y95.07 E23.84189
G1 X145.59 Y95.81 E23.93390
G1 X147.22 Y96.63 E24.02526
G1 X148.82 Y97.53 E24.11674
G1 X150.38 Y98.51 E24.20849
G1 X151.88 Y99.57 E24.30038
G1 X152.50 Y100.05 E24.33920
G1 X153.01 Y99.65 E24.37186
G1 X154.52 Y98.58 E24.46371
G1 X156.06 Y97.60 E24.55515
G1 X157.66 Y96.69 E24.64676
G1 X159.30 Y95.86 E24.73838
G1 X160.50 Y95.33 E24.80408
G1 X160.99 Y95.11 E24.83056
G1 X162.71 Y94.45 E24.92240
G1 X164.43 Y93.88 E25.01305
G1 X166.20 Y93.38 E25.10487
G1 X167.98 Y92.98 E25.19597
G1 X169.80 Y92.66 E25.28796
G1 X171.63 Y92.43 E25.37981
G1 X173.45 Y92.30 E25.47092
G1 X174.85 Y92.26 E25.54119
G1 X175.31 Y92.25 E25.56365
G1 X177.13 Y92.29 E25.65468
G1 X178.94 Y92.42 E25.74546
G1 X180.78 Y92.64 E25.83768
G1 X182.59 Y92.95 E25.92916
G1 X184.37 Y93.35 E26.02039
G1 X186.15 Y93.84 E26.11258
G1 X187.89 Y94.41 E26.20377
G1 X189.60 Y95.07 E26.29518
G1 X191.29 Y95.81 E26.38718
G1 X192.92 Y96.63 E26.47855
G1 X194.52 Y97.53 E26.57003
G1 X196.08 Y98.51 E26.66177
G1 X197.58 Y99.57 E26.75366
G1 X199.02 Y100.69 E26.84461
G1 X200.42 Y101.89 E26.93624
G1 X201.76 Y103.16 E27.02842
G1 X203.03 Y104.49 E27.12024
G1 X204.22 Y105.88 E27.21153
G1 X205.35 Y107.31 E27.30285
G1 X206.42 Y108.82 E27.39471
G1 X207.40 Y110.37 E27.48615
G1 X208.31 Y111.96 E27.57776
G1 X209.13 Y113.60 E27.66937
G1 X209.67 Y114.80 E27.73508
G1 X209.89 Y115.29 E27.76156
G1 X210.55 Y117.01 E27.85340
G1 X211.12 Y118.73 E27.94405
G1 X211.62 Y120.50 E28.03586
G1 X212.02 Y122.28 E28.12696
G1 X212.34 Y124.10 E28.21896
G1 X212.57 Y125.93 E28.31081
G1 X212.71 Y127.75 E28.40192
G1 X212.74 Y129.16 E28.47214
G1 X212.75 Y129.60 E28.49460
G1 X212.71 Y131.43 E28.58568
G1 X212.58 Y133.25 E28.67646
G1 X212.36 Y135.08 E28.76868
G1 X212.05 Y136.89 E28.86016
G1 X211.65 Y138.67 E28.95139
G1 X211.16 Y140.45 E29.04358
G1 X210.59 Y142.19 E29.13477
G1 X209.93 Y143.90 E29.22618
G1 X209.19 Y145.59 E29.31818
G1 X208.37 Y147.22 E29.40955
G1 X207.47 Y148.82 E29.50103
G1 X206.49 Y150.38 E29.59277
G1 X205.43 Y151.88 E29.68466
G1 X204.95 Y152.50 E29.72348
G1 X205.35 Y153.01 E29.75614
G1 X206.42 Y154.52 E29.84800
G1 X207.40 Y156.06 E29.93944
G1 X208.31 Y157.66 E30.03105
G1 X209.13 Y159.30 E30.12266
G1 X209.67 Y160.50 E30.18837
G1 X209.89 Y160.99 E30.21485
G1 X210.55 Y162.71 E30.30669
G1 X211.12 Y164.43 E30.39734
G1 X211.62 Y166.20 E30.48915
G1 X212.02 Y167.98 E30.58025
G1 X212.34 Y169.80 E30.67225
G1 X212.57 Y171.63 E30.76410
G1 X212.71 Y173.45 E30.85521
G1 X212.74 Y174.85 E30.92543
G1 X212.75 Y175.30 E30.94789
G1 X212.71 Y177.13 E31.03896
G1 X212.58 Y178.94 E31.12975
G1 X212.36 Y180.78 E31.22196
G1 X212.05 Y182.59 E31.31345
G1 X211.65 Y184.37 E31.40468
G1 X211.16 Y186.15 E31.49687
G1 X210.59 Y187.89 E31.58806
G1 X209.93 Y189.60 E31.67946
G1 X209.19 Y191.29 E31.77147
G1 X208.37 Y192.92 E31.86283
G1 X207.47 Y194.52 E31.95431
G1 X206.49 Y196.08 E32.04606
G1 X205.43 Y197.58 E32.13795
G1 X204.31 Y199.02 E32.22889
G1 X203.11 Y200.42 E32.32053
G1 X201.84 Y201.76 E32.41271
G1 X200.51 Y203.03 E32.50452
G1 X199.12 Y204.22 E32.59582
G1 X197.69 Y205.35 E32.68714
G1 X196.18 Y206.42 E32.77899
G1 X194.63 Y207.40 E32.87044
G1 X193.04 Y208.31 E32.96205
G1 X191.40 Y209.13 E33.05366
G1 X190.20 Y209.67 E33.11936
G1 X189.71 Y209.89 E33.14585
G1 X187.99 Y210.55 E33.23768
G1 X186.27 Y211.12 E33.32834
G1 X184.50 Y211.62 E33.42015
G1 X182.72 Y212.02 E33.51125
G1 X180.90 Y212.34 E33.60325
G1 X179.07 Y212.57 E33.69510
G1 X177.25 Y212.71 E33.78621
G1 X175.84 Y212.74 E33.85648
G1 X175.39 Y212.75 E33.87894
G1 X173.57 Y212.71 E33.96996
G1 X171.75 Y212.58 E34.06074
G1 X169.92 Y212.36 E34.15296
G1 X168.11 Y212.05 E34.24445
G1 X166.33 Y211.65 E34.33568
G1 X164.55 Y211.16 E34.42787
G1 X162.81 Y210.59 E34.51906
G1 X161.10 Y209.93 E34.61046
G1 X159.41 Y209.19 E34.70247
G1 X157.78 Y208.37 E34.79383
G1 X156.18 Y207.47 E34.88531
G1 X154.62 Y206.49 E34.97706
G1 X153.12 Y205.43 E35.06895
G1 X152.50 Y204.95 E35.10777
G1 X151.99 Y205.35 E35.14042
G1 X150.48 Y206.42 E35.23228
G1 X148.94 Y207.40 E35.32372
G1 X147.34 Y208.31 E35.41533
G1 X145.70 Y209.13 E35.50694
G1 X144.50 Y209.67 E35.57265
G1 X144.01 Y209.89 E35.59913
G1 X142.29 Y210.55 E35.69097
G1 X140.57 Y211.12 E35.78162
G1 X138.80 Y211.62 E35.87343
G1 X137.02 Y212.02 E35.96454
G1 X135.20 Y212.34 E36.05653
G1 X133.37 Y212.57 E36.14838
G1 X131.55 Y212.71 E36.23949
G1 X130.15 Y212.74 E36.30971
G1 X129.70 Y212.75 E36.33217
G1 X127.87 Y212.71 E36.42325
G1 X126.06 Y212.58 E36.51403
G1 X124.22 Y212.36 E36.60625
G1 X122.41 Y212.05 E36.69773
G1 X120.63 Y211.65 E36.78896
G1 X118.85 Y211.16 E36.88115
G1 X117.11 Y210.59 E36.97234
G1 X115.40 Y209.93 E37.06375
G1 X113.71 Y209.19 E37.15575
G1 X112.08 Y208.37 E37.24712
G1 X110.48 Y207.47 E37.33860
G1 X108.92 Y206.49 E37.43034
G1 X107.42 Y205.43 E37.52223
G1 X105.98 Y204.31 E37.61318
G1 X104.58 Y203.11 E37.70481
G1 X103.24 Y201.84 E37.79727
G1 X101.97 Y200.51 E37.88874
G1 X100.78 Y199.13 E37.97978
G1 X99.65 Y197.69 E38.07142
G1 X98.58 Y196.18 E38.16328
G1 X97.60 Y194.63 E38.25472
G1 X96.69 Y193.04 E38.34633
G1 X95.86 Y191.40 E38.43794
G1 X95.33 Y190.20 E38.50365
G1 X95.11 Y189.71 E38.53013
G1 X94.45 Y187.99 E38.62197
G1 X93.88 Y186.27 E38.71262
G1 X93.38 Y184.50 E38.80443
G1 X92.98 Y182.72 E38.89553
G1 X92.66 Y180.90 E38.98753
G1 X92.43 Y179.07 E39.07938
G1 X92.30 Y177.25 E39.17049
G1 X92.26 Y175.84 E39.24076
G1 X92.25 Y175.39 E39.26322
G1 X92.29 Y173.57 E39.35424
G1 X92.42 Y171.75 E39.44503
G1 X92.64 Y169.92 E39.53724
G1 X92.95 Y168.11 E39.62873
G1 X93.35 Y166.33 E39.71996
G1 X93.84 Y164.55 E39.81215
G1 X94.41 Y162.81 E39.90334
G1 X95.07 Y161.10 E39.99474
G1 X95.81 Y159.41 E40.08675
G1 X96.63 Y157.78 E40.17811
G1 X97.53 Y156.18 E40.26959
G1 X98.51 Y154.63 E40.36105
G1 X99.57 Y153.11 E40.45331
G1 X100.05 Y152.50 E40.49209
G1 X99.65 Y151.99 E40.52471
G1 X98.58 Y150.48 E40.61656
G1 X97.60 Y148.94 E40.70801
G1 X96.69 Y147.34 E40.79962
G1 X95.86 Y145.70 E40.89123
G1 X95.33 Y144.50 E40.95693
G1 X95.11 Y144.01 E40.98342
G1 X94.45 Y142.29 E41.07525
G1 X93.88 Y140.57 E41.16591
G1 X93.38 Y138.80 E41.25772
G1 X92.98 Y137.02 E41.34882
G1 X92.66 Y135.20 E41.44081
G1 X92.43 Y133.37 E41.53267
G1 X92.30 Y131.55 E41.62378
G1 X92.26 Y130.15 E41.69405
G1 X92.25 Y129.69 E41.71651
G1 X92.29 Y127.87 E41.80753
G1 X92.42 Y126.06 E41.89831
G1 X92.64 Y124.22 E41.99053
G1 X92.95 Y122.41 E42.08202
G1 X93.35 Y120.63 E42.17325
G1 X93.84 Y118.85 E42.26544
G1 X94.41 Y117.11 E42.35663
G1 X95.07 Y115.40 E42.44803
G1 X95.81 Y113.71 E42.54004
G1 X96.63 Y112.08 E42.63140
G1 X97.53 Y110.48 E42.72288
G1 X98.51 Y108.93 E42.81433
G1 X99.57 Y107.41 E42.90660
G1 X100.70 Y105.97 E42.99806
G1 X101.89 Y104.58 E43.08913
G1 X103.15 Y103.25 E43.18092
G0 F12000 X103.44 Y103.53
G1 F2400 X104.76 Y102.27 E43.27207
G1 X106.13 Y101.08 E43.36240
G1 X107.55 Y99.97 E43.45274
G1 X109.05 Y98.91 E43.54387
G1 X110.57 Y97.94 E43.63410
G1 X112.15 Y97.05 E43.72453
G1 X113.77 Y96.23 E43.81536
G1 X115.05 Y95.66 E43.88504
G1 X115.44 Y95.48 E43.90656
G1 X117.14 Y94.83 E43.99737
G1 X118.85 Y94.26 E44.08708
G1 X120.60 Y93.77 E44.17791
G1 X122.36 Y93.37 E44.26804
G1 X124.16 Y93.06 E44.35902
G1 X125.97 Y92.83 E44.44987
G1 X127.77 Y92.69 E44.54008
G1 X129.12 Y92.66 E44.60735
G1 X129.61 Y92.64 E44.63181
G1 X131.41 Y92.69 E44.72184
G1 X133.21 Y92.82 E44.81162
G1 X135.02 Y93.04 E44.90283
G1 X136.81 Y93.35 E44.99336
G1 X138.57 Y93.74 E45.08361
G1 X140.34 Y94.22 E45.17482
G1 X142.06 Y94.79 E45.26506
G1 X143.75 Y95.44 E45.35545
G1 X145.42 Y96.17 E45.44648
G1 X147.04 Y96.98 E45.53688
G1 X148.62 Y97.88 E45.62738
G1 X150.16 Y98.85 E45.71814
G1 X151.65 Y99.89 E45.80906
G1 X152.50 Y100.56 E45.86296
G1 X153.25 Y99.97 E45.91069
G1 X154.74 Y98.92 E46.00158
G1 X156.27 Y97.94 E46.09201
G1 X157.85 Y97.05 E46.18266
G1 X159.47 Y96.23 E46.27331
G1 X160.75 Y95.66 E46.34299
G1 X161.14 Y95.48 E46.36452
G1 X162.84 Y94.83 E46.45533
G1 X164.55 Y94.26 E46.54503
G1 X166.30 Y93.77 E46.63586
G1 X168.06 Y93.37 E46.72600
G1 X169.86 Y93.06 E46.81697
G1 X171.66 Y92.83 E46.90782
G1 X173.47 Y92.69 E46.99803
G1 X174.82 Y92.66 E47.06531
G1 X175.31 Y92.64 E47.08976
G1 X177.11 Y92.69 E47.17979
G1 X178.91 Y92.82 E47.26957
G1 X180.72 Y93.04 E47.36078
G1 X182.51 Y93.35 E47.45131
G1 X184.27 Y93.74 E47.54156
G1 X186.04 Y94.22 E47.63277
G1 X187.75 Y94.79 E47.72302
G1 X189.45 Y95.44 E47.81341
G1 X191.12 Y96.17 E47.90443
G1 X192.74 Y96.98 E47.99484
G1 X194.32 Y97.88 E48.08533
G1 X195.85 Y98.85 E48.17609
G1 X197.35 Y99.89 E48.26702
G1 X198.77 Y101.00 E48.35700
G1 X200.15 Y102.18 E48.44765
G1 X201.47 Y103.44 E48.53880
G1 X202.73 Y104.76 E48.62967
G1 X203.92 Y106.13 E48.72000
G1 X205.03 Y107.55 E48.81034
G1 X206.08 Y109.04 E48.90122
G1 X207.06 Y110.57 E48.99166
G1 X207.96 Y112.15 E49.08231
G1 X208.77 Y113.77 E49.17296
G1 X209.31 Y114.97 E49.23826
G1 X209.52 Y115.44 E49.26416
G1 X210.17 Y117.14 E49.35497
G1 X210.74 Y118.85 E49.44468
G1 X211.23 Y120.60 E49.53551
G1 X211.63 Y122.36 E49.62564
G1 X211.94 Y124.16 E49.71662
G1 X212.17 Y125.97 E49.80747
G1 X212.31 Y127.77 E49.89768
G1 X212.34 Y129.12 E49.96490
G1 X212.35 Y129.61 E49.98936
G1 X212.31 Y131.41 E50.07944
G1 X212.18 Y133.21 E50.16922
G1 X211.96 Y135.02 E50.26043
G1 X211.65 Y136.81 E50.35096
G1 X211.26 Y138.57 E50.44121
G1 X210.78 Y140.34 E50.53242
G1 X210.21 Y142.06 E50.62266
G1 X209.56 Y143.75 E50.71305
G1 X208.83 Y145.42 E50.80408
G1 X208.01 Y147.04 E50.89449
G1 X207.12 Y148.62 E50.98498
G1 X206.15 Y150.16 E51.07574
G1 X205.11 Y151.65 E51.16666
G1 X204.44 Y152.50 E51.22056
G1 X205.03 Y153.25 E51.26829
G1 X206.08 Y154.74 E51.35918
G1 X207.06 Y156.27 E51.44961
G1 X207.96 Y157.85 E51.54026
G1 X208.77 Y159.47 E51.63091
G1 X209.31 Y160.67 E51.69622
G1 X209.52 Y161.14 E51.72212
G1 X210.17 Y162.84 E51.81293
G1 X210.74 Y164.55 E51.90263
G1 X211.23 Y166.30 E51.99346
G1 X211.63 Y168.06 E52.08360
G1 X211.94 Y169.86 E52.17458
G1 X212.17 Y171.66 E52.26542
G1 X212.31 Y173.47 E52.35563
G1 X212.34 Y174.81 E52.42286
G1 X212.35 Y175.31 E52.44731
G1 X212.31 Y177.11 E52.53739
G1 X212.18 Y178.91 E52.62717
G1 X211.96 Y180.72 E52.71839
G1 X211.65 Y182.51 E52.80891
G1 X211.26 Y184.27 E52.89916
G1 X210.78 Y186.04 E52.99037
G1 X210.21 Y187.75 E53.08062
G1 X209.56 Y189.45 E53.17101
G1 X208.83 Y191.12 E53.26203
G1 X208.01 Y192.74 E53.35244
G1 X207.12 Y194.32 E53.44294
G1 X206.15 Y195.85 E53.53370
G1 X205.11 Y197.35 E53.62462
G1 X204.00 Y198.77 E53.71460
G1 X202.82 Y200.15 E53.80525
G1 X201.56 Y201.47 E53.89640
G1 X200.24 Y202.73 E53.98727
G1 X198.87 Y203.92 E54.07760
G1 X197.45 Y205.03 E54.16794
G1 X195.96 Y206.08 E54.25882
G1 X194.43 Y207.06 E54.34926
G1 X192.85 Y207.96 E54.43991
G1 X191.23 Y208.77 E54.53056
G1 X189.95 Y209.34 E54.60024
G1 X189.56 Y209.52 E54.62177
G1 X187.86 Y210.17 E54.71257
G1 X186.15 Y210.74 E54.80228
G1 X184.40 Y211.23 E54.89311
G1 X182.64 Y211.63 E54.98324
G1 X180.84 Y211.94 E55.07422
G1 X179.03 Y212.17 E55.16507
G1 X177.23 Y212.31 E55.25528
G1 X175.88 Y212.34 E55.32255
G1 X175.39 Y212.35 E55.34701
G1 X173.59 Y212.31 E55.43704
G1 X171.79 Y212.18 E55.52682
G1 X169.98 Y211.96 E55.61803
G1 X168.19 Y211.65 E55.70856
G1 X166.43 Y211.26 E55.79881
G1 X164.66 Y210.78 E55.89002
G1 X162.94 Y210.21 E55.98026
G1 X161.25 Y209.56 E56.07066
G1 X159.58 Y208.83 E56.16168
G1 X157.96 Y208.01 E56.25209
G1 X156.38 Y207.12 E56.34258
G1 X154.84 Y206.15 E56.43334
G1 X153.35 Y205.11 E56.52427
G1 X152.50 Y204.44 E56.57816
G1 X151.75 Y205.03 E56.62589
G1 X150.26 Y206.08 E56.71678
G1 X148.73 Y207.06 E56.80721
G1 X147.15 Y207.96 E56.89786
G1 X145.53 Y208.77 E56.98851
G1 X144.25 Y209.34 E57.05820
G1 X143.86 Y209.52 E57.07972
G1 X142.16 Y210.17 E57.17053
G1 X140.45 Y210.74 E57.26023
G1 X138.70 Y211.23 E57.35107
G1 X136.94 Y211.63 E57.44120
G1 X135.14 Y211.94 E57.53218
G1 X133.34 Y212.17 E57.62302
G1 X131.53 Y212.31 E57.71323
G1 X130.19 Y212.34 E57.78046
G1 X129.69 Y212.35 E57.80491
G1 X127.89 Y212.31 E57.89499
G1 X126.09 Y212.18 E57.98477
G1 X124.28 Y211.96 E58.07599
G1 X122.49 Y211.65 E58.16651
G1 X120.73 Y211.26 E58.25676
G1 X118.96 Y210.78 E58.34797
G1 X117.25 Y210.21 E58.43822
G1 X115.55 Y209.56 E58.52861
G1 X113.88 Y208.83 E58.61963
G1 X112.26 Y208.01 E58.71004
G1 X110.68 Y207.12 E58.80054
G1 X109.14 Y206.15 E58.89130
G1 X107.65 Y205.11 E58.98222
G1 X106.23 Y204.00 E59.07220
G1 X104.85 Y202.82 E59.16285
G1 X103.52 Y201.55 E59.25436
G1 X102.27 Y200.24 E59.34480
G1 X101.09 Y198.88 E59.43485
G1 X99.97 Y197.45 E59.52553
G1 X98.92 Y195.96 E59.61642
G1 X97.94 Y194.43 E59.70685
G1 X97.05 Y192.85 E59.79750
G1 X96.23 Y191.23 E59.88815
G1 X95.66 Y189.95 E59.95784
G1 X95.48 Y189.56 E59.97936
G1 X94.83 Y187.86 E60.07017
G1 X94.26 Y186.15 E60.15988
G1 X93.77 Y184.40 E60.25071
G1 X93.37 Y182.64 E60.34084
G1 X93.06 Y180.84 E60.43182
G1 X92.83 Y179.03 E60.52267
G1 X92.69 Y177.23 E60.61287
G1 X92.66 Y175.83 E60.68264
G1 X92.64 Y175.39 E60.70461
G1 X92.69 Y173.59 E60.79463
G1 X92.82 Y171.79 E60.88441
G1 X93.04 Y169.98 E60.97563
G1 X93.35 Y168.19 E61.06615
G1 X93.74 Y166.43 E61.15640
G1 X94.22 Y164.66 E61.24762
G1 X94.79 Y162.94 E61.33786
G1 X95.44 Y161.25 E61.42825
G1 X96.17 Y159.58 E61.51928
G1 X96.98 Y157.96 E61.60968
G1 X97.88 Y156.38 E61.70018
G1 X98.84 Y154.85 E61.79069
G1 X99.89 Y153.35 E61.88194
G1 X100.56 Y152.50 E61.93576
G1 X99.97 Y151.75 E61.98349
G1 X98.92 Y150.26 E62.07438
G1 X97.94 Y148.73 E62.16481
G1 X97.05 Y147.15 E62.25546
G1 X96.23 Y145.53 E62.34611
G1 X95.66 Y144.25 E62.41579
G1 X95.48 Y143.86 E62.43732
G1 X94.83 Y142.16 E62.52813
G1 X94.26 Y140.45 E62.61783
G1 X93.77 Y138.70 E62.70866
G1 X93.37 Y136.94 E62.79880
G1 X93.06 Y135.14 E62.88978
G1 X92.83 Y133.34 E62.98062
G1 X92.69 Y131.53 E63.07083
G1 X92.66 Y130.13 E63.14060
G1 X92.64 Y129.69 E63.16256
G1 X92.69 Y127.89 E63.25259
G1 X92.82 Y126.09 E63.34237
G1 X93.04 Y124.28 E63.43359
G1 X93.35 Y122.49 E63.52411
G1 X93.74 Y120.73 E63.61436
G1 X94.22 Y118.96 E63.70557
G1 X94.79 Y117.25 E63.79582
G1 X95.44 Y115.55 E63.88621
G1 X96.17 Y113.88 E63.97723
G1 X96.98 Y112.26 E64.06764
G1 X97.88 Y110.68 E64.15814
G1 X98.84 Y109.15 E64.24865
G1 X99.89 Y107.65 E64.33990
G1 X101.01 Y106.22 E64.43041
G1 X102.19 Y104.85 E64.52048
G1 X103.44 Y103.53 E64.61132
G0 F12000 X103.72 Y103.81
G1 F2400 X105.03 Y102.56 E64.70151
G1 X106.38 Y101.39 E64.79090
G1 X107.79 Y100.29 E64.88023
G1 X109.27 Y99.25 E64.97037
G1 X110.78 Y98.29 E65.05966
G1 X112.34 Y97.40 E65.14906
G1 X113.94 Y96.59 E65.23889
G1 X115.17 Y96.04 E65.30584
G1 X115.60 Y95.85 E65.32917
G1 X117.28 Y95.20 E65.41897
G1 X118.96 Y94.64 E65.50773
G1 X120.70 Y94.16 E65.59757
G1 X122.44 Y93.76 E65.68673
G1 X124.22 Y93.45 E65.77675
G1 X126.01 Y93.23 E65.86659
G1 X127.79 Y93.09 E65.95580
G1 X129.13 Y93.06 E66.02267
G1 X129.61 Y93.05 E66.04658
G1 X131.39 Y93.09 E66.13561
G1 X133.17 Y93.22 E66.22444
G1 X134.96 Y93.43 E66.31465
G1 X136.73 Y93.74 E66.40421
G1 X138.48 Y94.13 E66.49349
G1 X140.22 Y94.61 E66.58369
G1 X141.92 Y95.17 E66.67297
G1 X143.60 Y95.81 E66.76240
G1 X145.25 Y96.53 E66.85244
G1 X146.85 Y97.34 E66.94184
G1 X148.41 Y98.22 E67.03138
G1 X149.93 Y99.18 E67.12113
G1 X151.41 Y100.22 E67.21106
G1 X152.50 Y101.06 E67.28010
G1 X153.49 Y100.29 E67.34292
G1 X154.96 Y99.25 E67.43284
G1 X156.48 Y98.29 E67.52226
G1 X158.04 Y97.40 E67.61197
G1 X159.64 Y96.59 E67.70158
G1 X160.87 Y96.04 E67.76853
G1 X161.29 Y95.85 E67.79187
G1 X162.97 Y95.20 E67.88166
G1 X164.66 Y94.64 E67.97042
G1 X166.40 Y94.16 E68.06026
G1 X168.14 Y93.76 E68.14943
G1 X169.92 Y93.45 E68.23945
G1 X171.71 Y93.23 E68.32928
G1 X173.49 Y93.09 E68.41849
G1 X174.83 Y93.06 E68.48537
G1 X175.31 Y93.05 E68.50927
G1 X177.09 Y93.09 E68.59830
G1 X178.87 Y93.22 E68.68714
G1 X180.66 Y93.43 E68.77735
G1 X182.43 Y93.74 E68.86690
G1 X184.18 Y94.13 E68.95619
G1 X185.92 Y94.61 E69.04638
G1 X187.62 Y95.17 E69.13566
G1 X189.29 Y95.81 E69.22509
G1 X190.95 Y96.53 E69.31513
G1 X192.55 Y97.34 E69.40454
G1 X194.11 Y98.22 E69.49407
G1 X195.63 Y99.18 E69.58382
G1 X197.11 Y100.22 E69.67375
G1 X198.52 Y101.31 E69.76281
G1 X199.88 Y102.48 E69.85246
G1 X201.19 Y103.73 E69.94266
G1 X202.44 Y105.03 E70.03250
G1 X203.61 Y106.38 E70.12189
G1 X204.71 Y107.79 E70.21122
G1 X205.75 Y109.27 E70.30114
G1 X206.71 Y110.78 E70.39056
G1 X207.60 Y112.34 E70.48027
G1 X208.41 Y113.94 E70.56988
G1 X208.94 Y115.13 E70.63487
G1 X209.15 Y115.60 E70.66017
G1 X209.80 Y117.28 E70.74996
G1 X210.36 Y118.96 E70.83872
G1 X210.84 Y120.70 E70.92856
G1 X211.24 Y122.44 E71.01772
G1 X211.55 Y124.22 E71.10774
G1 X211.77 Y126.01 E71.19758
G1 X211.91 Y127.79 E71.28679
G1 X211.94 Y129.13 E71.35362
G1 X211.96 Y129.61 E71.37752
G1 X211.91 Y131.39 E71.46660
G1 X211.78 Y133.17 E71.55543
G1 X211.57 Y134.96 E71.64565
G1 X211.26 Y136.73 E71.73520
G1 X210.87 Y138.48 E71.82449
G1 X210.39 Y140.22 E71.91468
G1 X209.84 Y141.92 E72.00396
G1 X209.19 Y143.60 E72.09339
G1 X208.47 Y145.25 E72.18343
G1 X207.66 Y146.85 E72.27284
G1 X206.78 Y148.41 E72.36237
G1 X205.82 Y149.93 E72.45212
G1 X204.78 Y151.41 E72.54205
G1 X203.94 Y152.50 E72.61109
G1 X204.71 Y153.49 E72.67391
G1 X205.75 Y154.96 E72.76383
G1 X206.71 Y156.48 E72.85325
G1 X207.60 Y158.04 E72.94296
G1 X208.41 Y159.64 E73.03257
G1 X208.94 Y160.83 E73.09756
G1 X209.15 Y161.29 E73.12286
G1 X209.80 Y162.97 E73.21266
G1 X210.36 Y164.66 E73.30142
G1 X210.84 Y166.40 E73.39125
G1 X211.24 Y168.14 E73.48042
G1 X211.55 Y169.92 E73.57044
G1 X211.77 Y171.71 E73.66028
G1 X211.91 Y173.49 E73.74948
G1 X211.94 Y174.83 E73.81631
G1 X211.96 Y175.31 E73.84022
G1 X211.91 Y177.09 E73.92929
G1 X211.78 Y178.87 E74.01813
G1 X211.57 Y180.66 E74.10834
G1 X211.26 Y182.43 E74.19790
G1 X210.87 Y184.18 E74.28718
G1 X210.39 Y185.92 E74.37737
G1 X209.84 Y187.62 E74.46665
G1 X209.19 Y189.29 E74.55608
G1 X208.47 Y190.95 E74.64612
G1 X207.66 Y192.55 E74.73553
G1 X206.78 Y194.11 E74.82506
G1 X205.82 Y195.63 E74.91481
G1 X204.78 Y197.11 E75.00474
G1 X203.69 Y198.52 E75.09380
G1 X202.52 Y199.88 E75.18345
G1 X201.27 Y201.19 E75.27365
G1 X199.97 Y202.44 E75.36349
G1 X198.62 Y203.61 E75.45288
G1 X197.21 Y204.71 E75.54221
G1 X195.74 Y205.75 E75.63213
G1 X194.22 Y206.71 E75.72155
G1 X192.66 Y207.60 E75.81126
G1 X191.06 Y208.41 E75.90087
G1 X189.83 Y208.96 E75.96782
G1 X189.40 Y209.15 E75.99116
G1 X187.72 Y209.80 E76.08095
G1 X186.04 Y210.36 E76.16971
G1 X184.30 Y210.84 E76.25955
G1 X182.56 Y211.24 E76.34872
G1 X180.78 Y211.55 E76.43874
G1 X178.99 Y211.77 E76.52857
G1 X177.21 Y211.91 E76.61778
G1 X175.87 Y211.94 E76.68466
G1 X175.39 Y211.96 E76.70856
G1 X173.61 Y211.91 E76.79759
G1 X171.83 Y211.78 E76.88643
G1 X170.04 Y211.57 E76.97664
G1 X168.27 Y211.26 E77.06619
G1 X166.52 Y210.87 E77.15548
G1 X164.78 Y210.39 E77.24567
G1 X163.08 Y209.84 E77.33495
G1 X161.40 Y209.19 E77.42438
G1 X159.75 Y208.47 E77.51442
G1 X158.15 Y207.66 E77.60383
G1 X156.59 Y206.78 E77.69336
G1 X155.07 Y205.82 E77.78311
G1 X153.59 Y204.78 E77.87304
G1 X152.50 Y203.94 E77.94208
G1 X151.51 Y204.71 E78.00490
G1 X150.04 Y205.75 E78.09482
G1 X148.52 Y206.71 E78.18425
G1 X146.96 Y207.60 E78.27395
G1 X145.36 Y208.41 E78.36356
G1 X144.13 Y208.96 E78.43052
G1 X143.71 Y209.15 E78.45385
G1 X142.03 Y209.80 E78.54365
G1 X140.34 Y210.36 E78.63241
G1 X138.60 Y210.84 E78.72224
G1 X136.86 Y211.24 E78.81141
G1 X135.08 Y211.55 E78.90143
G1 X133.29 Y211.77 E78.99127
G1 X131.51 Y211.91 E79.08047
G1 X130.17 Y211.94 E79.14730
G1 X129.69 Y211.96 E79.17121
G1 X127.91 Y211.91 E79.26029
G1 X126.13 Y211.78 E79.34912
G1 X124.34 Y211.57 E79.43933
G1 X122.57 Y211.26 E79.52889
G1 X120.82 Y210.87 E79.61817
G1 X119.08 Y210.39 E79.70836
G1 X117.38 Y209.84 E79.79764
G1 X115.70 Y209.19 E79.88707
G1 X114.05 Y208.47 E79.97712
G1 X112.45 Y207.66 E80.06652
G1 X110.89 Y206.78 E80.15605
G1 X109.37 Y205.82 E80.24580
G1 X107.89 Y204.78 E80.33573
G1 X106.48 Y203.69 E80.42479
G1 X105.12 Y202.52 E80.51444
G1 X103.80 Y201.27 E80.60493
G1 X102.57 Y199.97 E80.69441
G1 X101.40 Y198.62 E80.78355
G1 X100.29 Y197.21 E80.87320
G1 X99.25 Y195.74 E80.96312
G1 X98.29 Y194.22 E81.05254
G1 X97.40 Y192.66 E81.14225
G1 X96.59 Y191.06 E81.23185
G1 X96.02 Y189.79 E81.30111
G1 X95.85 Y189.40 E81.32214
G1 X95.20 Y187.72 E81.41194
G1 X94.64 Y186.04 E81.50070
G1 X94.16 Y184.30 E81.59054
G1 X93.76 Y182.56 E81.67970
G1 X93.45 Y180.78 E81.76972
G1 X93.23 Y178.99 E81.85956
G1 X93.09 Y177.21 E81.94877
G1 X93.06 Y175.82 E82.01809
G1 X93.05 Y175.39 E82.03955
G1 X93.09 Y173.61 E82.12858
G1 X93.22 Y171.83 E82.21741
G1 X93.43 Y170.04 E82.30762
G1 X93.74 Y168.27 E82.39718
G1 X94.13 Y166.52 E82.48646
G1 X94.61 Y164.78 E82.57666
G1 X95.17 Y163.08 E82.66594
G1 X95.81 Y161.40 E82.75537
G1 X96.53 Y159.75 E82.84541
G1 X97.34 Y158.15 E82.93481
G1 X98.22 Y156.59 E83.02435
G1 X99.18 Y155.07 E83.11388
G1 X100.22 Y153.59 E83.20411
G1 X101.06 Y152.50 E83.27311
G1 X100.29 Y151.51 E83.33589
G1 X99.25 Y150.04 E83.42581
G1 X98.29 Y148.52 E83.51523
G1 X97.40 Y146.96 E83.60494
G1 X96.59 Y145.36 E83.69455
G1 X96.02 Y144.09 E83.76380
G1 X95.85 Y143.71 E83.78484
G1 X95.20 Y142.03 E83.87464
G1 X94.64 Y140.34 E83.96340
G1 X94.16 Y138.60 E84.05323
G1 X93.76 Y136.86 E84.14240
G1 X93.45 Y135.08 E84.23242
G1 X93.23 Y133.29 E84.32226
G1 X93.09 Y131.51 E84.41146
G1 X93.06 Y130.12 E84.48078
G1 X93.05 Y129.69 E84.50225
G1 X93.09 Y127.91 E84.59128
G1 X93.22 Y126.13 E84.68011
G1 X93.43 Y124.34 E84.77032
G1 X93.74 Y122.57 E84.85988
G1 X94.13 Y120.82 E84.94916
G1 X94.61 Y119.08 E85.03935
G1 X95.17 Y117.38 E85.12863
G1 X95.81 Y115.70 E85.21806
G1 X96.53 Y114.05 E85.30810
G1 X97.34 Y112.45 E85.39751
G1 X98.22 Y110.89 E85.48704
G1 X99.18 Y109.37 E85.57657
G1 X100.22 Y107.89 E85.66680
G1 X101.32 Y106.47 E85.75635
G1 X102.48 Y105.12 E85.84547
G1 X103.72 Y103.81 E85.93528
G0 F12000 X104.00 Y104.09
G1 F2400 X105.30 Y102.86 E86.02441
G1 X106.64 Y101.70 E86.11284
G1 X108.03 Y100.61 E86.20122
G1 X109.49 Y99.58 E86.29035
G1 X110.99 Y98.63 E86.37867
G1 X112.53 Y97.75 E86.46711
G1 X114.12 Y96.95 E86.55597
G1 X115.33 Y96.41 E86.62199
G1 X115.75 Y96.22 E86.64526
G1 X117.41 Y95.58 E86.73405
G1 X119.08 Y95.02 E86.82181
G1 X120.80 Y94.55 E86.91072
G1 X122.52 Y94.16 E86.99891
G1 X124.28 Y93.85 E87.08792
G1 X126.05 Y93.63 E87.17680
G1 X127.81 Y93.49 E87.26506
G1 X129.14 Y93.46 E87.33149
G1 X129.61 Y93.44 E87.35490
G1 X131.37 Y93.49 E87.44288
G1 X133.13 Y93.61 E87.53076
G1 X134.91 Y93.83 E87.61996
G1 X136.65 Y94.13 E87.70851
G1 X138.38 Y94.52 E87.79682
G1 X140.11 Y94.99 E87.88608
G1 X141.79 Y95.54 E87.97436
G1 X143.44 Y96.18 E88.06283
G1 X145.08 Y96.90 E88.15184
G1 X146.66 Y97.69 E88.24028
G1 X148.21 Y98.56 E88.32884
G1 X149.71 Y99.51 E88.41760
G1 X151.17 Y100.54 E88.50656
G1 X152.50 Y101.57 E88.59071
G1 X153.73 Y100.61 E88.66864
G1 X155.19 Y99.58 E88.75756
G1 X156.68 Y98.63 E88.84600
G1 X158.23 Y97.75 E88.93475
G1 X159.81 Y96.95 E89.02339
G1 X161.02 Y96.41 E89.08941
G1 X161.45 Y96.22 E89.11268
G1 X163.11 Y95.58 E89.20147
G1 X164.78 Y95.02 E89.28923
G1 X166.50 Y94.55 E89.37814
G1 X168.22 Y94.16 E89.46633
G1 X169.98 Y93.85 E89.55533
G1 X171.75 Y93.63 E89.64422
G1 X173.51 Y93.49 E89.73248
G1 X174.84 Y93.46 E89.79890
G1 X175.31 Y93.44 E89.82231
G1 X177.07 Y93.49 E89.91029
G1 X178.83 Y93.61 E89.99818
G1 X180.60 Y93.83 E90.08738
G1 X182.35 Y94.13 E90.17593
G1 X184.08 Y94.52 E90.26424
G1 X185.81 Y94.99 E90.35349
G1 X187.49 Y95.54 E90.44178
G1 X189.14 Y96.18 E90.53025
G1 X190.78 Y96.90 E90.61926
G1 X192.36 Y97.69 E90.70770
G1 X193.91 Y98.56 E90.79625
G1 X195.41 Y99.51 E90.88502
G1 X196.87 Y100.54 E90.97398
G1 X198.26 Y101.62 E91.06204
G1 X199.61 Y102.78 E91.15074
G1 X200.91 Y104.01 E91.23992
G1 X202.14 Y105.30 E91.32877
G1 X203.30 Y106.64 E91.41720
G1 X204.39 Y108.03 E91.50557
G1 X205.42 Y109.49 E91.59449
G1 X206.37 Y110.98 E91.68293
G1 X207.25 Y112.53 E91.77168
G1 X208.05 Y114.12 E91.86033
G1 X208.58 Y115.30 E91.92487
G1 X208.78 Y115.75 E91.94961
G1 X209.42 Y117.41 E92.03840
G1 X209.98 Y119.08 E92.12617
G1 X210.45 Y120.80 E92.21507
G1 X210.84 Y122.52 E92.30327
G1 X211.15 Y124.28 E92.39227
G1 X211.37 Y126.05 E92.48116
G1 X211.51 Y127.81 E92.56936
G1 X211.54 Y129.14 E92.63579
G1 X211.56 Y129.61 E92.65915
G1 X211.51 Y131.37 E92.74723
G1 X211.39 Y133.13 E92.83511
G1 X211.17 Y134.91 E92.92432
G1 X210.87 Y136.65 E93.01287
G1 X210.49 Y138.38 E93.10118
G1 X210.01 Y140.11 E93.19043
G1 X209.46 Y141.79 E93.27872
G1 X208.82 Y143.44 E93.36718
G1 X208.10 Y145.08 E93.45620
G1 X207.31 Y146.66 E93.54464
G1 X206.44 Y148.21 E93.63319
G1 X205.49 Y149.71 E93.72196
G1 X204.46 Y151.17 E93.81092
G1 X203.43 Y152.50 E93.89506
G1 X204.39 Y153.73 E93.97299
G1 X205.42 Y155.19 E94.06191
G1 X206.37 Y156.68 E94.15035
G1 X207.25 Y158.23 E94.23910
G1 X208.05 Y159.81 E94.32775
G1 X208.58 Y161.00 E94.39229
G1 X208.78 Y161.45 E94.41703
G1 X209.42 Y163.11 E94.50582
G1 X209.98 Y164.78 E94.59359
G1 X210.45 Y166.50 E94.68249
G1 X210.84 Y168.22 E94.77069
G1 X211.15 Y169.98 E94.85969
G1 X211.37 Y171.75 E94.94858
G1 X211.51 Y173.51 E95.03678
G1 X211.54 Y174.84 E95.10321
G1 X211.56 Y175.31 E95.12657
G1 X211.51 Y177.07 E95.21465
G1 X211.39 Y178.83 E95.30253
G1 X211.17 Y180.60 E95.39173
G1 X210.87 Y182.35 E95.48028
G1 X210.49 Y184.08 E95.56860
G1 X210.01 Y185.81 E95.65785
G1 X209.46 Y187.49 E95.74613
G1 X208.82 Y189.14 E95.83460
G1 X208.10 Y190.78 E95.92361
G1 X207.31 Y192.36 E96.01206
G1 X206.44 Y193.91 E96.10061
G1 X205.49 Y195.41 E96.18938
G1 X204.46 Y196.87 E96.27833
G1 X203.38 Y198.26 E96.36639
G1 X202.22 Y199.61 E96.45510
G1 X200.99 Y200.91 E96.54427
G1 X199.70 Y202.14 E96.63312
G1 X198.36 Y203.30 E96.72155
G1 X196.97 Y204.39 E96.80993
G1 X195.51 Y205.42 E96.89885
G1 X194.02 Y206.37 E96.98729
G1 X192.47 Y207.25 E97.07604
G1 X190.88 Y208.05 E97.16468
G1 X189.70 Y208.58 E97.22923
G1 X189.25 Y208.78 E97.25397
G1 X187.59 Y209.42 E97.34276
G1 X185.92 Y209.98 E97.43052
G1 X184.20 Y210.45 E97.51943
G1 X182.48 Y210.84 E97.60762
G1 X180.72 Y211.15 E97.69663
G1 X178.95 Y211.37 E97.78551
G1 X177.19 Y211.51 E97.87377
G1 X175.86 Y211.54 E97.94020
G1 X175.39 Y211.56 E97.96361
G1 X173.63 Y211.51 E98.05159
G1 X171.87 Y211.39 E98.13947
G1 X170.09 Y211.17 E98.22867
G1 X168.35 Y210.87 E98.31722
G1 X166.62 Y210.49 E98.40553
G1 X164.89 Y210.01 E98.49479
G1 X163.21 Y209.46 E98.58307
G1 X161.56 Y208.82 E98.67154
G1 X159.92 Y208.10 E98.76055
G1 X158.34 Y207.31 E98.84899
G1 X156.79 Y206.44 E98.93755
G1 X155.29 Y205.49 E99.02631
G1 X153.83 Y204.46 E99.11527
G1 X152.50 Y203.43 E99.19942
G1 X151.27 Y204.39 E99.27735
G1 X149.81 Y205.42 E99.36627
G1 X148.32 Y206.37 E99.45471
G1 X146.77 Y207.25 E99.54346
G1 X145.19 Y208.05 E99.63210
G1 X144.00 Y208.58 E99.69665
G1 X143.55 Y208.78 E99.72139
G1 X141.89 Y209.42 E99.81018
G1 X140.22 Y209.98 E99.89794
G1 X138.50 Y210.45 E99.98685
G1 X136.78 Y210.84 E100.07504
G1 X135.02 Y211.15 E100.16404
G1 X133.25 Y211.37 E100.25293
G1 X131.49 Y211.51 E100.34114
G1 X130.16 Y211.54 E100.40756
G1 X129.69 Y211.56 E100.43092
G1 X127.93 Y211.51 E100.51900
G1 X126.17 Y211.39 E100.60689
G1 X124.40 Y211.17 E100.69609
G1 X122.65 Y210.87 E100.78464
G1 X120.92 Y210.49 E100.87295
G1 X119.19 Y210.01 E100.96220
G1 X117.51 Y209.46 E101.05049
G1 X115.86 Y208.82 E101.13896
G1 X114.22 Y208.10 E101.22797
G1 X112.64 Y207.31 E101.31641
G1 X111.09 Y206.44 E101.40496
G1 X109.59 Y205.49 E101.49373
G1 X108.13 Y204.46 E101.58269
G1 X106.74 Y203.38 E101.67075
G1 X105.39 Y202.22 E101.75945
G1 X104.09 Y200.99 E101.84891
G1 X102.86 Y199.70 E101.93745
G1 X101.71 Y198.37 E102.02559
G1 X100.61 Y196.97 E102.11428
G1 X99.58 Y195.51 E102.20320
G1 X98.63 Y194.02 E102.29164
G1 X97.75 Y192.47 E102.38039
G1 X96.95 Y190.88 E102.46904
G1 X96.39 Y189.63 E102.53774
G1 X96.22 Y189.25 E102.55832
G1 X95.58 Y187.59 E102.64711
G1 X95.02 Y185.92 E102.73488
G1 X94.55 Y184.20 E102.82378
G1 X94.16 Y182.48 E102.91198
G1 X93.85 Y180.72 E103.00098
G1 X93.63 Y178.95 E103.08987
G1 X93.49 Y177.19 E103.17812
G1 X93.46 Y175.81 E103.24689
G1 X93.44 Y175.39 E103.26796
G1 X93.49 Y173.63 E103.35594
G1 X93.61 Y171.87 E103.44382
G1 X93.83 Y170.09 E103.53303
G1 X94.13 Y168.35 E103.62157
G1 X94.52 Y166.62 E103.70989
G1 X94.99 Y164.89 E103.79914
G1 X95.54 Y163.21 E103.88743
G1 X96.18 Y161.56 E103.97589
G1 X96.90 Y159.92 E104.06490
G1 X97.69 Y158.34 E104.15335
G1 X98.56 Y156.79 E104.24190
G1 X99.51 Y155.29 E104.33044
G1 X100.54 Y153.83 E104.41970
G1 X101.57 Y152.50 E104.50377
G1 X100.61 Y151.27 E104.58170
G1 X99.58 Y149.81 E104.67062
G1 X98.63 Y148.32 E104.75906
G1 X97.75 Y146.77 E104.84781
G1 X96.95 Y145.19 E104.93646
G1 X96.39 Y143.93 E105.00516
G1 X96.22 Y143.55 E105.02574
G1 X95.58 Y141.89 E105.11453
G1 X95.02 Y140.22 E105.20230
G1 X94.55 Y138.50 E105.29120
G1 X94.16 Y136.78 E105.37940
G1 X93.85 Y135.02 E105.46840
G1 X93.63 Y133.25 E105.55729
G1 X93.49 Y131.49 E105.64554
G1 X93.46 Y130.11 E105.71431
G1 X93.44 Y129.69 E105.73538
G1 X93.49 Y127.93 E105.82336
G1 X93.61 Y126.17 E105.91124
G1 X93.83 Y124.40 E106.00044
G1 X94.13 Y122.65 E106.08899
G1 X94.52 Y120.92 E106.17731
G1 X94.99 Y119.19 E106.26656
G1 X95.54 Y117.51 E106.35484
G1 X96.18 Y115.86 E106.44331
G1 X96.90 Y114.22 E106.53232
G1 X97.69 Y112.64 E106.62077
G1 X98.56 Y111.09 E106.70932
G1 X99.51 Y109.59 E106.79786
G1 X100.54 Y108.13 E106.88712
G1 X101.63 Y106.73 E106.97567
G1 X102.78 Y105.39 E107.06384
G1 X104.00 Y104.09 E107.15270
G0 F12000 X104.29 Y104.38
G1 F2400 X105.57 Y103.16 E107.24088
G1 X106.89 Y102.01 E107.32832
G1 X108.27 Y100.93 E107.41574
G1 X109.71 Y99.91 E107.50387
G1 X111.19 Y98.97 E107.59120
G1 X112.72 Y98.11 E107.67870
G1 X114.29 Y97.31 E107.76657
G1 X115.46 Y96.79 E107.83075
G1 X115.91 Y96.59 E107.85494
G1 X117.55 Y95.96 E107.94267
G1 X119.20 Y95.41 E108.02947
G1 X120.89 Y94.94 E108.11735
G1 X122.60 Y94.55 E108.20461
G1 X124.34 Y94.24 E108.29261
G1 X126.09 Y94.03 E108.38053
G1 X127.83 Y93.89 E108.46779
G1 X129.15 Y93.86 E108.53377
G1 X129.61 Y93.84 E108.55668
G1 X131.35 Y93.89 E108.64366
G1 X133.09 Y94.01 E108.73054
G1 X134.85 Y94.22 E108.81879
G1 X136.58 Y94.52 E108.90637
G1 X138.29 Y94.90 E108.99372
G1 X139.99 Y95.37 E109.08194
G1 X141.65 Y95.92 E109.16928
G1 X143.29 Y96.55 E109.25674
G1 X144.91 Y97.26 E109.34481
G1 X146.47 Y98.05 E109.43227
G1 X148.00 Y98.91 E109.51984
G1 X149.49 Y99.84 E109.60764
G1 X150.93 Y100.86 E109.69559
G1 X152.31 Y101.93 E109.78269
G1 X152.50 Y102.09 E109.79497
G1 X152.59 Y102.01 E109.80109
G1 X153.97 Y100.93 E109.88851
G1 X155.41 Y99.91 E109.97646
G1 X156.89 Y98.97 E110.06393
G1 X158.42 Y98.10 E110.15165
G1 X159.99 Y97.31 E110.23934
G1 X161.16 Y96.79 E110.30353
G1 X161.60 Y96.59 E110.32771
G1 X163.25 Y95.96 E110.41544
G1 X164.90 Y95.41 E110.50224
G1 X166.59 Y94.94 E110.59012
G1 X168.30 Y94.55 E110.67739
G1 X170.04 Y94.24 E110.76538
G1 X171.78 Y94.03 E110.85331
G1 X173.53 Y93.89 E110.94056
G1 X174.85 Y93.86 E111.00654
G1 X175.31 Y93.84 E111.02945
G1 X177.05 Y93.89 E111.11644
G1 X178.79 Y94.01 E111.20332
G1 X180.55 Y94.22 E111.29157
G1 X182.28 Y94.52 E111.37915
G1 X183.99 Y94.90 E111.46649
G1 X185.69 Y95.37 E111.55471
G1 X187.35 Y95.92 E111.64205
G1 X188.99 Y96.55 E111.72951
G1 X190.60 Y97.26 E111.81759
G1 X192.17 Y98.05 E111.90505
G1 X193.70 Y98.91 E111.99262
G1 X195.19 Y99.84 E112.08041
G1 X196.63 Y100.86 E112.16836
G1 X198.01 Y101.93 E112.25546
G1 X199.34 Y103.08 E112.34314
G1 X200.63 Y104.29 E112.43136
G1 X201.84 Y105.57 E112.51923
G1 X202.99 Y106.89 E112.60667
G1 X204.07 Y108.27 E112.69408
G1 X205.09 Y109.71 E112.78204
G1 X206.03 Y111.19 E112.86951
G1 X206.90 Y112.72 E112.95723
G1 X207.69 Y114.29 E113.04492
G1 X208.21 Y115.46 E113.10910
G1 X208.41 Y115.91 E113.13329
G1 X209.04 Y117.55 E113.22102
G1 X209.59 Y119.20 E113.30782
G1 X210.06 Y120.89 E113.39570
G1 X210.45 Y122.60 E113.48296
G1 X210.76 Y124.34 E113.57096
G1 X210.97 Y126.09 E113.65888
G1 X211.11 Y127.83 E113.74614
G1 X211.14 Y129.15 E113.81207
G1 X211.16 Y129.61 E113.83493
G1 X211.11 Y131.35 E113.92196
G1 X210.99 Y133.09 E114.00889
G1 X210.78 Y134.85 E114.09714
G1 X210.48 Y136.58 E114.18472
G1 X210.10 Y138.29 E114.27207
G1 X209.63 Y139.99 E114.36029
G1 X209.08 Y141.65 E114.44763
G1 X208.45 Y143.29 E114.53509
G1 X207.74 Y144.91 E114.62316
G1 X206.96 Y146.47 E114.71062
G1 X206.09 Y148.00 E114.79819
G1 X205.16 Y149.49 E114.88599
G1 X204.14 Y150.93 E114.97394
G1 X203.07 Y152.31 E115.06104
G1 X202.91 Y152.50 E115.07332
G1 X202.99 Y152.59 E115.07944
G1 X204.07 Y153.97 E115.16686
G1 X205.09 Y155.41 E115.25481
G1 X206.03 Y156.89 E115.34228
G1 X206.90 Y158.42 E115.43000
G1 X207.69 Y159.99 E115.51769
G1 X208.21 Y161.16 E115.58188
G1 X208.41 Y161.60 E115.60606
G1 X209.04 Y163.25 E115.69379
G1 X209.59 Y164.90 E115.78059
G1 X210.06 Y166.59 E115.86847
G1 X210.45 Y168.30 E115.95574
G1 X210.76 Y170.04 E116.04373
G1 X210.97 Y171.78 E116.13166
G1 X211.11 Y173.53 E116.21891
G1 X211.14 Y174.85 E116.28484
G1 X211.16 Y175.31 E116.30770
G1 X211.11 Y177.05 E116.39474
G1 X210.99 Y178.79 E116.48167
G1 X210.78 Y180.55 E116.56992
G1 X210.48 Y182.28 E116.65750
G1 X210.10 Y183.99 E116.74484
G1 X209.63 Y185.69 E116.83306
G1 X209.08 Y187.35 E116.92040
G1 X208.45 Y188.99 E117.00786
G1 X207.74 Y190.60 E117.09594
G1 X206.96 Y192.17 E117.18340
G1 X206.09 Y193.70 E117.27097
G1 X205.16 Y195.19 E117.35876
G1 X204.14 Y196.63 E117.44671
G1 X203.07 Y198.01 E117.53381
G1 X201.93 Y199.34 E117.62149
G1 X200.71 Y200.63 E117.70971
G1 X199.43 Y201.84 E117.79758
G1 X198.11 Y202.99 E117.88502
G1 X196.73 Y204.07 E117.97243
G1 X195.29 Y205.09 E118.06039
G1 X193.81 Y206.03 E118.14786
G1 X192.28 Y206.90 E118.23558
G1 X190.71 Y207.69 E118.32327
G1 X189.54 Y208.21 E118.38745
G1 X189.09 Y208.41 E118.41164
G1 X187.45 Y209.04 E118.49937
G1 X185.80 Y209.59 E118.58617
G1 X184.11 Y210.06 E118.67405
G1 X182.40 Y210.45 E118.76131
G1 X180.66 Y210.76 E118.84931
G1 X178.91 Y210.97 E118.93723
G1 X177.17 Y211.11 E119.02449
G1 X175.85 Y211.14 E119.09047
G1 X175.39 Y211.16 E119.11338
G1 X173.65 Y211.11 E119.20036
G1 X171.91 Y210.99 E119.28724
G1 X170.15 Y210.78 E119.37549
G1 X168.42 Y210.48 E119.46307
G1 X166.71 Y210.10 E119.55042
G1 X165.01 Y209.63 E119.63864
G1 X163.35 Y209.08 E119.72598
G1 X161.71 Y208.45 E119.81344
G1 X160.09 Y207.74 E119.90151
G1 X158.53 Y206.96 E119.98897
G1 X157.00 Y206.09 E120.07654
G1 X155.51 Y205.16 E120.16434
G1 X154.07 Y204.14 E120.25229
G1 X152.69 Y203.07 E120.33939
G1 X152.50 Y202.91 E120.35167
G1 X152.41 Y202.99 E120.35779
G1 X151.03 Y204.07 E120.44521
G1 X149.59 Y205.09 E120.53316
G1 X148.11 Y206.03 E120.62063
G1 X146.58 Y206.90 E120.70835
G1 X145.01 Y207.69 E120.79604
G1 X143.84 Y208.21 E120.86023
G1 X143.40 Y208.41 E120.88441
G1 X141.75 Y209.04 E120.97214
G1 X140.10 Y209.59 E121.05894
G1 X138.41 Y210.06 E121.14682
G1 X136.70 Y210.45 E121.23409
G1 X134.96 Y210.76 E121.32208
G1 X133.22 Y210.97 E121.41001
G1 X131.47 Y211.11 E121.49726
G1 X130.15 Y211.14 E121.56319
G1 X129.69 Y211.16 E121.58605
G1 X127.95 Y211.11 E121.67309
G1 X126.21 Y210.99 E121.76002
G1 X124.45 Y210.78 E121.84827
G1 X122.72 Y210.48 E121.93585
G1 X121.02 Y210.10 E122.02319
G1 X119.31 Y209.63 E122.11141
G1 X117.65 Y209.08 E122.19875
G1 X116.01 Y208.45 E122.28621
G1 X114.39 Y207.74 E122.37429
G1 X112.83 Y206.96 E122.46175
G1 X111.30 Y206.09 E122.54932
G1 X109.81 Y205.16 E122.63711
G1 X108.37 Y204.14 E122.72506
G1 X106.99 Y203.07 E122.81216
G1 X105.66 Y201.93 E122.89984
G1 X104.37 Y200.70 E122.98835
G1 X103.16 Y199.43 E123.07589
G1 X102.02 Y198.11 E123.16305
G1 X100.93 Y196.73 E123.25078
G1 X99.91 Y195.29 E123.33874
G1 X98.97 Y193.81 E123.42621
G1 X98.10 Y192.28 E123.51393
G1 X97.31 Y190.71 E123.60161
G1 X96.75 Y189.46 E123.66984
G1 X96.59 Y189.09 E123.68998
G1 X95.96 Y187.45 E123.77772
G1 X95.41 Y185.80 E123.86452
G1 X94.94 Y184.11 E123.95240
G1 X94.55 Y182.40 E124.03966
G1 X94.24 Y180.66 E124.12765
G1 X94.03 Y178.91 E124.21558
G1 X93.89 Y177.17 E124.30284
G1 X93.86 Y175.80 E124.37116
G1 X93.84 Y175.39 E124.39173
G1 X93.89 Y173.65 E124.47871
G1 X94.01 Y171.91 E124.56559
G1 X94.22 Y170.15 E124.65384
G1 X94.52 Y168.42 E124.74142
G1 X94.90 Y166.71 E124.82877
G1 X95.37 Y165.01 E124.91699
G1 X95.92 Y163.35 E125.00433
G1 X96.55 Y161.71 E125.09179
G1 X97.26 Y160.09 E125.17986
G1 X98.05 Y158.53 E125.26732
G1 X98.91 Y157.00 E125.35489
G1 X99.84 Y155.51 E125.44247
G1 X100.86 Y154.06 E125.53072
G1 X101.94 Y152.68 E125.61831
G1 X102.09 Y152.50 E125.63002
G1 X102.01 Y152.41 E125.63614
G1 X100.93 Y151.03 E125.72356
G1 X99.91 Y149.59 E125.81151
G1 X98.97 Y148.11 E125.89898
G1 X98.10 Y146.58 E125.98671
G1 X97.31 Y145.01 E126.07439
G1 X96.79 Y143.84 E126.13858
G1 X96.59 Y143.40 E126.16276
G1 X95.96 Y141.75 E126.25049
G1 X95.41 Y140.10 E126.33729
G1 X94.94 Y138.41 E126.42517
G1 X94.55 Y136.70 E126.51244
G1 X94.24 Y134.96 E126.60043
G1 X94.03 Y133.22 E126.68836
G1 X93.89 Y131.47 E126.77561
G1 X93.86 Y130.10 E126.84394
G1 X93.84 Y129.69 E126.86450
G1 X93.89 Y127.95 E126.95149
G1 X94.01 Y126.21 E127.03837
G1 X94.22 Y124.45 E127.12662
G1 X94.52 Y122.72 E127.21420
G1 X94.90 Y121.02 E127.30154
G1 X95.37 Y119.31 E127.38976
G1 X95.92 Y117.65 E127.47711
G1 X96.55 Y116.01 E127.56456
G1 X97.26 Y114.39 E127.65264
G1 X98.05 Y112.83 E127.74010
G1 X98.91 Y111.30 E127.82767
G1 X99.84 Y109.81 E127.91524
G1 X100.86 Y108.37 E128.00349
G1 X101.94 Y106.98 E128.09109
G1 X103.08 Y105.66 E128.17822
G1 X104.29 Y104.38 E128.26610
G0 F12000 X104.57 Y104.66
G1 F2400 X105.84 Y103.45 E128.35333
G1 X107.15 Y102.32 E128.43974
G1 X108.51 Y101.25 E128.52620
G1 X109.94 Y100.24 E128.61336
G1 X111.40 Y99.32 E128.69968
G1 X112.91 Y98.46 E128.78622
G1 X114.46 Y97.67 E128.87308
G1 X115.70 Y97.12 E128.94087
G1 X116.06 Y96.96 E128.96052
G1 X117.68 Y96.33 E129.04727
G1 X119.31 Y95.79 E129.13309
G1 X120.99 Y95.32 E129.21998
G1 X122.68 Y94.94 E129.30627
G1 X124.40 Y94.64 E129.39330
G1 X126.12 Y94.42 E129.48017
G1 X127.85 Y94.29 E129.56648
G1 X129.21 Y94.26 E129.63430
G1 X129.21 Y94.26 E129.63435
G1 X129.61 Y94.25 E129.65447
G1 X131.34 Y94.29 E129.74045
G1 X133.05 Y94.41 E129.82639
G1 X134.79 Y94.62 E129.91363
G1 X136.50 Y94.92 E130.00025
G1 X138.19 Y95.29 E130.08657
G1 X139.88 Y95.75 E130.17381
G1 X141.52 Y96.30 E130.26021
G1 X143.14 Y96.92 E130.34670
G1 X144.74 Y97.62 E130.43375
G1 X146.28 Y98.40 E130.52025
G1 X147.80 Y99.25 E130.60686
G1 X149.27 Y100.18 E130.69365
G1 X150.70 Y101.18 E130.78064
G1 X152.06 Y102.24 E130.86674
G1 X152.50 Y102.62 E130.89575
G1 X152.84 Y102.32 E130.91857
G1 X154.21 Y101.25 E131.00502
G1 X155.63 Y100.25 E131.09197
G1 X157.10 Y99.32 E131.17847
G1 X158.61 Y98.46 E131.26521
G1 X160.16 Y97.67 E131.35191
G1 X161.40 Y97.12 E131.41970
G1 X161.76 Y96.96 E131.43935
G1 X163.38 Y96.33 E131.52610
G1 X165.01 Y95.79 E131.61192
G1 X166.69 Y95.32 E131.69881
G1 X168.38 Y94.94 E131.78510
G1 X170.10 Y94.64 E131.87213
G1 X171.82 Y94.42 E131.95900
G1 X173.55 Y94.29 E132.04531
G1 X174.91 Y94.26 E132.11313
G1 X174.91 Y94.26 E132.11318
G1 X175.31 Y94.25 E132.13330
G1 X177.03 Y94.29 E132.21928
G1 X178.75 Y94.41 E132.30522
G1 X180.49 Y94.62 E132.39246
G1 X182.20 Y94.92 E132.47908
G1 X183.89 Y95.29 E132.56540
G1 X185.57 Y95.75 E132.65264
G1 X187.22 Y96.30 E132.73904
G1 X188.84 Y96.92 E132.82553
G1 X190.43 Y97.62 E132.91258
G1 X191.98 Y98.40 E132.99908
G1 X193.50 Y99.25 E133.08569
G1 X194.97 Y100.18 E133.17248
G1 X196.40 Y101.18 E133.25947
G1 X197.76 Y102.24 E133.34557
G1 X199.08 Y103.37 E133.43229
G1 X200.34 Y104.58 E133.51952
G1 X201.55 Y105.84 E133.60644
G1 X202.68 Y107.15 E133.69285
G1 X203.75 Y108.51 E133.77930
G1 X204.75 Y109.93 E133.86625
G1 X205.68 Y111.40 E133.95275
G1 X206.54 Y112.91 E134.03949
G1 X207.33 Y114.46 E134.12619
G1 X207.88 Y115.70 E134.19398
G1 X208.04 Y116.06 E134.21363
G1 X208.67 Y117.68 E134.30038
G1 X209.21 Y119.31 E134.38620
G1 X209.68 Y120.99 E134.47309
G1 X210.06 Y122.68 E134.55938
G1 X210.36 Y124.40 E134.64641
G1 X210.58 Y126.12 E134.73328
G1 X210.71 Y127.85 E134.81959
G1 X210.74 Y129.21 E134.88736
G1 X210.74 Y129.21 E134.88741
G1 X210.75 Y129.61 E134.90748
G1 X210.71 Y131.33 E134.99351
G1 X210.59 Y133.05 E135.07949
G1 X210.38 Y134.79 E135.16674
G1 X210.08 Y136.50 E135.25336
G1 X209.71 Y138.19 E135.33968
G1 X209.25 Y139.88 E135.42692
G1 X208.70 Y141.52 E135.51332
G1 X208.08 Y143.14 E135.59981
G1 X207.38 Y144.74 E135.68686
G1 X206.60 Y146.28 E135.77336
G1 X205.75 Y147.80 E135.85997
G1 X204.82 Y149.27 E135.94676
G1 X203.82 Y150.70 E136.03375
G1 X202.76 Y152.06 E136.11985
G1 X202.38 Y152.50 E136.14886
G1 X202.68 Y152.84 E136.17168
G1 X203.75 Y154.21 E136.25813
G1 X204.75 Y155.63 E136.34508
G1 X205.68 Y157.10 E136.43158
G1 X206.54 Y158.61 E136.51832
G1 X207.33 Y160.16 E136.60502
G1 X207.88 Y161.40 E136.67281
G1 X208.04 Y161.76 E136.69246
G1 X208.67 Y163.38 E136.77921
G1 X209.21 Y165.01 E136.86503
G1 X209.68 Y166.69 E136.95192
G1 X210.06 Y168.38 E137.03821
G1 X210.36 Y170.10 E137.12524
G1 X210.58 Y171.82 E137.21211
G1 X210.71 Y173.55 E137.29842
G1 X210.74 Y174.91 E137.36619
G1 X210.74 Y174.91 E137.36624
G1 X210.75 Y175.31 E137.38631
G1 X210.71 Y177.03 E137.47234
G1 X210.59 Y178.75 E137.55833
G1 X210.38 Y180.49 E137.64557
G1 X210.08 Y182.20 E137.73219
G1 X209.71 Y183.89 E137.81851
G1 X209.25 Y185.57 E137.90575
G1 X208.70 Y187.22 E137.99215
G1 X208.08 Y188.84 E138.07864
G1 X207.38 Y190.43 E138.16569
G1 X206.60 Y191.98 E138.25219
G1 X205.75 Y193.50 E138.33880
G1 X204.82 Y194.97 E138.42559
G1 X203.82 Y196.40 E138.51258
G1 X202.76 Y197.76 E138.59868
G1 X201.63 Y199.08 E138.68540
G1 X200.42 Y200.34 E138.77263
G1 X199.16 Y201.55 E138.85955
G1 X197.85 Y202.68 E138.94596
G1 X196.49 Y203.75 E139.03241
G1 X195.07 Y204.75 E139.11936
G1 X193.60 Y205.68 E139.20586
G1 X192.09 Y206.54 E139.29260
G1 X190.54 Y207.33 E139.37930
G1 X189.30 Y207.88 E139.44709
G1 X188.94 Y208.04 E139.46674
G1 X187.32 Y208.67 E139.55349
G1 X185.69 Y209.21 E139.63931
G1 X184.01 Y209.68 E139.72620
G1 X182.32 Y210.06 E139.81249
G1 X180.60 Y210.36 E139.89952
G1 X178.88 Y210.58 E139.98639
G1 X177.15 Y210.71 E140.07270
G1 X175.79 Y210.74 E140.14052
G1 X175.79 Y210.74 E140.14057
G1 X175.39 Y210.75 E140.16069
G1 X173.66 Y210.71 E140.24667
G1 X171.95 Y210.59 E140.33260
G1 X170.21 Y210.38 E140.41985
G1 X168.50 Y210.08 E140.50647
G1 X166.81 Y209.71 E140.59279
G1 X165.12 Y209.25 E140.68003
G1 X163.48 Y208.70 E140.76643
G1 X161.86 Y208.08 E140.85292
G1 X160.26 Y207.38 E140.93997
G1 X158.72 Y206.60 E141.02647
G1 X157.20 Y205.75 E141.11308
G1 X155.73 Y204.82 E141.19986
G1 X154.30 Y203.82 E141.28686
G1 X152.94 Y202.76 E141.37296
G1 X152.50 Y202.38 E141.40197
G1 X152.16 Y202.68 E141.42479
G1 X150.79 Y203.75 E141.51124
G1 X149.37 Y204.75 E141.59819
G1 X147.90 Y205.68 E141.68469
G1 X146.39 Y206.54 E141.77143
G1 X144.84 Y207.33 E141.85813
G1 X143.60 Y207.88 E141.92592
G1 X143.24 Y208.04 E141.94557
G1 X141.62 Y208.67 E142.03232
G1 X139.99 Y209.21 E142.11814
G1 X138.31 Y209.68 E142.20503
G1 X136.62 Y210.06 E142.29132
G1 X134.90 Y210.36 E142.37835
G1 X133.18 Y210.58 E142.46522
G1 X131.45 Y210.71 E142.55153
G1 X130.09 Y210.74 E142.61930
G1 X130.09 Y210.74 E142.61935
G1 X129.69 Y210.75 E142.63942
G1 X127.97 Y210.71 E142.72545
G1 X126.25 Y210.59 E142.81143
G1 X124.51 Y210.38 E142.89868
G1 X122.80 Y210.08 E142.98530
G1 X121.11 Y209.71 E143.07162
G1 X119.43 Y209.25 E143.15886
G1 X117.78 Y208.70 E143.24526
G1 X116.16 Y208.08 E143.33175
G1 X114.57 Y207.38 E143.41880
G1 X113.02 Y206.60 E143.50530
G1 X111.50 Y205.75 E143.59191
G1 X110.03 Y204.82 E143.67870
G1 X108.61 Y203.82 E143.76569
G1 X107.24 Y202.76 E143.85179
G1 X105.92 Y201.63 E143.93851
G1 X104.65 Y200.42 E144.02603
G1 X103.45 Y199.16 E144.11262
G1 X102.32 Y197.86 E144.19878
G1 X101.25 Y196.49 E144.28552
G1 X100.25 Y195.07 E144.37246
G1 X99.32 Y193.60 E144.45897
G1 X98.46 Y192.09 E144.54571
G1 X97.67 Y190.54 E144.63241
G1 X97.12 Y189.30 E144.70019
G1 X96.96 Y188.94 E144.71984
G1 X96.33 Y187.32 E144.80659
G1 X95.79 Y185.69 E144.89242
G1 X95.32 Y184.01 E144.97930
G1 X94.94 Y182.32 E145.06560
G1 X94.64 Y180.60 E145.15262
G1 X94.42 Y178.88 E145.23950
G1 X94.29 Y177.15 E145.32581
G1 X94.26 Y175.79 E145.39363
G1 X94.26 Y175.79 E145.39368
G1 X94.25 Y175.39 E145.41380
G1 X94.29 Y173.66 E145.49978
G1 X94.41 Y171.95 E145.58571
G1 X94.62 Y170.21 E145.67296
G1 X94.92 Y168.50 E145.75958
G1 X95.29 Y166.81 E145.84590
G1 X95.75 Y165.12 E145.93314
G1 X96.30 Y163.48 E146.01953
G1 X96.92 Y161.86 E146.10602
G1 X97.62 Y160.26 E146.19307
G1 X98.40 Y158.72 E146.27957
G1 X99.25 Y157.20 E146.36618
G1 X100.18 Y155.74 E146.45275
G1 X101.18 Y154.30 E146.54000
G1 X102.25 Y152.93 E146.62660
G1 X102.62 Y152.50 E146.65508
G1 X102.32 Y152.16 E146.67789
G1 X101.25 Y150.79 E146.76435
G1 X100.25 Y149.37 E146.85129
G1 X99.32 Y147.90 E146.93780
G1 X98.46 Y146.39 E147.02454
G1 X97.67 Y144.84 E147.11124
G1 X97.12 Y143.60 E147.17902
G1 X96.96 Y143.24 E147.19867
G1 X96.33 Y141.62 E147.28542
G1 X95.79 Y139.99 E147.37125
G1 X95.32 Y138.31 E147.45813
G1 X94.94 Y136.62 E147.54443
G1 X94.64 Y134.90 E147.63145
G1 X94.42 Y133.18 E147.71833
G1 X94.29 Y131.45 E147.80464
G1 X94.26 Y130.09 E147.87246
G1 X94.26 Y130.09 E147.87251
G1 X94.25 Y129.69 E147.89263
G1 X94.29 Y127.97 E147.97861
G1 X94.41 Y126.25 E148.06454
G1 X94.62 Y124.51 E148.15179
G1 X94.92 Y122.80 E148.23841
G1 X95.29 Y121.11 E148.32473
G1 X95.75 Y119.43 E148.41197
G1 X96.30 Y117.78 E148.49836
G1 X96.92 Y116.16 E148.58485
G1 X97.62 Y114.57 E148.67190
G1 X98.40 Y113.02 E148.75840
G1 X99.25 Y111.50 E148.84501
G1 X100.18 Y110.04 E148.93158
G1 X101.18 Y108.60 E149.01883
G1 X102.25 Y107.23 E149.10543
G1 X103.37 Y105.92 E149.19165
G1 X104.57 Y104.66 E149.27853
G0 F12000 X104.86 Y104.94
G1 F2400 X106.11 Y103.75 E149.36474
G1 X107.40 Y102.63 E149.45019
G1 X108.75 Y101.57 E149.53566
G1 X110.16 Y100.58 E149.62185
G1 X111.61 Y99.66 E149.70723
G1 X113.09 Y98.81 E149.79272
G1 X114.63 Y98.03 E149.87862
G1 X115.79 Y97.52 E149.94203
G1 X115.79 Y97.52 E149.94208
G1 X116.21 Y97.33 E149.96512
G1 X117.82 Y96.71 E150.05084
G1 X119.43 Y96.17 E150.13572
G1 X121.09 Y95.71 E150.22163
G1 X122.76 Y95.33 E150.30690
G1 X124.46 Y95.03 E150.39297
G1 X126.17 Y94.82 E150.47889
G1 X127.87 Y94.69 E150.56424
G1 X129.18 Y94.66 E150.62937
G1 X129.61 Y94.65 E150.65118
G1 X131.31 Y94.69 E150.73612
G1 X133.01 Y94.81 E150.82115
G1 X134.73 Y95.02 E150.90738
G1 X136.42 Y95.31 E150.99301
G1 X138.09 Y95.68 E151.07840
G1 X139.76 Y96.14 E151.16465
G1 X141.38 Y96.67 E151.25000
G1 X142.99 Y97.29 E151.33553
G1 X144.56 Y97.98 E151.42164
G1 X146.10 Y98.75 E151.50714
G1 X147.59 Y99.59 E151.59277
G1 X149.05 Y100.51 E151.67857
G1 X150.46 Y101.50 E151.76459
G1 X151.81 Y102.55 E151.84974
G1 X152.50 Y103.15 E151.89549
G1 X153.10 Y102.63 E151.93500
G1 X154.45 Y101.57 E152.02046
G1 X155.85 Y100.58 E152.10640
G1 X157.30 Y99.66 E152.19195
G1 X158.80 Y98.81 E152.27771
G1 X160.33 Y98.03 E152.36343
G1 X161.49 Y97.52 E152.42683
G1 X161.49 Y97.52 E152.42688
G1 X161.91 Y97.33 E152.44993
G1 X163.52 Y96.71 E152.53565
G1 X165.13 Y96.17 E152.62053
G1 X166.79 Y95.71 E152.70643
G1 X168.46 Y95.33 E152.79171
G1 X170.16 Y95.03 E152.87778
G1 X171.86 Y94.82 E152.96369
G1 X173.57 Y94.69 E153.04905
G1 X174.88 Y94.66 E153.11418
G1 X175.31 Y94.65 E153.13599
G1 X177.01 Y94.69 E153.22092
G1 X178.71 Y94.81 E153.30596
G1 X180.43 Y95.02 E153.39219
G1 X182.12 Y95.31 E153.47781
G1 X183.79 Y95.68 E153.56321
G1 X185.46 Y96.14 E153.64946
G1 X187.08 Y96.67 E153.73481
G1 X188.69 Y97.29 E153.82034
G1 X190.26 Y97.98 E153.90645
G1 X191.80 Y98.75 E153.99194
G1 X193.29 Y99.59 E154.07757
G1 X194.75 Y100.51 E154.16338
G1 X196.16 Y101.50 E154.24940
G1 X197.50 Y102.55 E154.33454
G1 X198.81 Y103.67 E154.42027
G1 X200.06 Y104.86 E154.50648
G1 X201.25 Y106.11 E154.59244
G1 X202.37 Y107.40 E154.67790
G1 X203.43 Y108.75 E154.76336
G1 X204.42 Y110.16 E154.84931
G1 X205.34 Y111.60 E154.93485
G1 X206.19 Y113.10 E155.02061
G1 X206.97 Y114.63 E155.10633
G1 X207.48 Y115.79 E155.16974
G1 X207.48 Y115.79 E155.16979
G1 X207.67 Y116.21 E155.19283
G1 X208.29 Y117.82 E155.27855
G1 X208.83 Y119.43 E155.36343
G1 X209.29 Y121.09 E155.44933
G1 X209.67 Y122.76 E155.53461
G1 X209.97 Y124.46 E155.62068
G1 X210.18 Y126.17 E155.70659
G1 X210.31 Y127.87 E155.79195
G1 X210.34 Y129.18 E155.85703
G1 X210.35 Y129.61 E155.87879
G1 X210.31 Y131.31 E155.96383
G1 X210.19 Y133.01 E156.04886
G1 X209.98 Y134.73 E156.13509
G1 X209.69 Y136.42 E156.22071
G1 X209.32 Y138.09 E156.30611
G1 X208.86 Y139.76 E156.39236
G1 X208.33 Y141.38 E156.47771
G1 X207.71 Y142.99 E156.56324
G1 X207.02 Y144.56 E156.64935
G1 X206.25 Y146.10 E156.73485
G1 X205.41 Y147.59 E156.82047
G1 X204.49 Y149.05 E156.90628
G1 X203.50 Y150.46 E156.99230
G1 X202.45 Y151.81 E157.07745
G1 X201.85 Y152.50 E157.12319
G1 X202.37 Y153.10 E157.16270
G1 X203.43 Y154.45 E157.24816
G1 X204.42 Y155.85 E157.33411
G1 X205.34 Y157.30 E157.41966
G1 X206.19 Y158.80 E157.50541
G1 X206.97 Y160.33 E157.59113
G1 X207.48 Y161.49 E157.65454
G1 X207.48 Y161.49 E157.65459
G1 X207.67 Y161.91 E157.67763
G1 X208.29 Y163.52 E157.76336
G1 X208.83 Y165.13 E157.84823
G1 X209.29 Y166.79 E157.93414
G1 X209.67 Y168.46 E158.01942
G1 X209.97 Y170.16 E158.10548
G1 X210.18 Y171.86 E158.19140
G1 X210.31 Y173.57 E158.27675
G1 X210.34 Y174.87 E158.34183
G1 X210.35 Y175.31 E158.36359
G1 X210.31 Y177.01 E158.44863
G1 X210.19 Y178.71 E158.53366
G1 X209.98 Y180.43 E158.61990
G1 X209.69 Y182.12 E158.70552
G1 X209.32 Y183.79 E158.79091
G1 X208.86 Y185.46 E158.87716
G1 X208.33 Y187.08 E158.96251
G1 X207.71 Y188.69 E159.04804
G1 X207.02 Y190.26 E159.13415
G1 X206.25 Y191.80 E159.21965
G1 X205.41 Y193.29 E159.30528
G1 X204.49 Y194.75 E159.39108
G1 X203.50 Y196.16 E159.47710
G1 X202.45 Y197.50 E159.56225
G1 X201.33 Y198.81 E159.64798
G1 X200.14 Y200.06 E159.73419
G1 X198.90 Y201.25 E159.82015
G1 X197.60 Y202.37 E159.90561
G1 X196.25 Y203.43 E159.99107
G1 X194.84 Y204.42 E160.07701
G1 X193.40 Y205.34 E160.16256
G1 X191.90 Y206.19 E160.24831
G1 X190.37 Y206.97 E160.33404
G1 X189.21 Y207.48 E160.39744
G1 X189.21 Y207.48 E160.39749
G1 X188.79 Y207.67 E160.42054
G1 X187.18 Y208.29 E160.50626
G1 X185.57 Y208.83 E160.59114
G1 X183.91 Y209.29 E160.67704
G1 X182.24 Y209.67 E160.76232
G1 X180.54 Y209.97 E160.84839
G1 X178.84 Y210.18 E160.93430
G1 X177.13 Y210.31 E161.01966
G1 X175.82 Y210.34 E161.08479
G1 X175.39 Y210.35 E161.10660
G1 X173.69 Y210.31 E161.19153
G1 X171.99 Y210.19 E161.27657
G1 X170.27 Y209.98 E161.36280
G1 X168.58 Y209.69 E161.44842
G1 X166.91 Y209.32 E161.53382
G1 X165.24 Y208.86 E161.62007
G1 X163.62 Y208.33 E161.70542
G1 X162.01 Y207.71 E161.79095
G1 X160.44 Y207.02 E161.87706
G1 X158.90 Y206.25 E161.96255
G1 X157.41 Y205.41 E162.04818
G1 X155.95 Y204.49 E162.13399
G1 X154.54 Y203.50 E162.22001
G1 X153.19 Y202.45 E162.30515
G1 X152.50 Y201.85 E162.35090
G1 X151.90 Y202.37 E162.39041
G1 X150.55 Y203.43 E162.47587
G1 X149.15 Y204.42 E162.56182
G1 X147.70 Y205.34 E162.64736
G1 X146.20 Y206.19 E162.73312
G1 X144.67 Y206.97 E162.81884
G1 X143.51 Y207.48 E162.88225
G1 X143.51 Y207.48 E162.88230
G1 X143.09 Y207.67 E162.90534
G1 X141.48 Y208.29 E162.99106
G1 X139.87 Y208.83 E163.07594
G1 X138.21 Y209.29 E163.16185
G1 X136.54 Y209.67 E163.24712
G1 X134.84 Y209.97 E163.33319
G1 X133.14 Y210.18 E163.41911
G1 X131.43 Y210.31 E163.50446
G1 X130.13 Y210.34 E163.56954
G1 X129.69 Y210.35 E163.59130
G1 X127.99 Y210.31 E163.67634
G1 X126.29 Y210.19 E163.76137
G1 X124.57 Y209.98 E163.84760
G1 X122.88 Y209.69 E163.93322
G1 X121.21 Y209.32 E164.01862
G1 X119.54 Y208.86 E164.10487
G1 X117.92 Y208.33 E164.19022
G1 X116.31 Y207.71 E164.27575
G1 X114.74 Y207.02 E164.36186
G1 X113.20 Y206.25 E164.44736
G1 X111.71 Y205.41 E164.53299
G1 X110.25 Y204.49 E164.61879
G1 X108.84 Y203.50 E164.70481
G1 X107.50 Y202.45 E164.78996
G1 X106.19 Y201.33 E164.87568
G1 X104.93 Y200.14 E164.96222
G1 X103.75 Y198.90 E165.04782
G1 X102.63 Y197.60 E165.13299
G1 X101.57 Y196.25 E165.21877
G1 X100.58 Y194.84 E165.30472
G1 X99.66 Y193.40 E165.39027
G1 X98.81 Y191.90 E165.47602
G1 X98.03 Y190.37 E165.56174
G1 X97.52 Y189.21 E165.62515
G1 X97.52 Y189.21 E165.62520
G1 X97.33 Y188.79 E165.64824
G1 X96.71 Y187.18 E165.73397
G1 X96.17 Y185.57 E165.81884
G1 X95.71 Y183.91 E165.90475
G1 X95.33 Y182.24 E165.99003
G1 X95.03 Y180.54 E166.07609
G1 X94.82 Y178.84 E166.16201
G1 X94.69 Y177.13 E166.24736
G1 X94.66 Y175.78 E166.31469
G1 X94.65 Y175.39 E166.33430
G1 X94.69 Y173.69 E166.41924
G1 X94.81 Y171.99 E166.50427
G1 X95.02 Y170.27 E166.59051
G1 X95.31 Y168.58 E166.67613
G1 X95.68 Y166.91 E166.76152
G1 X96.14 Y165.24 E166.84777
G1 X96.67 Y163.62 E166.93312
G1 X97.29 Y162.01 E167.01865
G1 X97.98 Y160.44 E167.10476
G1 X98.75 Y158.90 E167.19026
G1 X99.59 Y157.41 E167.27589
G1 X100.51 Y155.96 E167.36151
G1 X101.50 Y154.54 E167.44776
G1 X102.56 Y153.19 E167.53339
G1 X103.15 Y152.50 E167.57857
G1 X102.63 Y151.90 E167.61812
G1 X101.57 Y150.55 E167.70358
G1 X100.58 Y149.15 E167.78953
G1 X99.66 Y147.70 E167.87507
G1 X98.81 Y146.20 E167.96083
G1 X98.03 Y144.67 E168.04655
G1 X97.52 Y143.51 E168.10995
G1 X97.52 Y143.51 E168.11000
G1 X97.33 Y143.09 E168.13305
G1 X96.71 Y141.48 E168.21877
G1 X96.17 Y139.87 E168.30365
G1 X95.71 Y138.21 E168.38955
G1 X95.33 Y136.54 E168.47483
G1 X95.03 Y134.84 E168.56090
G1 X94.82 Y133.14 E168.64681
G1 X94.69 Y131.43 E168.73217
G1 X94.66 Y130.08 E168.79949
G1 X94.65 Y129.69 E168.81911
G1 X94.69 Y127.99 E168.90405
G1 X94.81 Y126.29 E168.98908
G1 X95.02 Y124.57 E169.07531
G1 X95.31 Y122.88 E169.16093
G1 X95.68 Y121.21 E169.24633
G1 X96.14 Y119.54 E169.33258
G1 X96.67 Y117.92 E169.41793
G1 X97.29 Y116.31 E169.50346
G1 X97.98 Y114.74 E169.58957
G1 X98.75 Y113.20 E169.67507
G1 X99.59 Y111.71 E169.76069
G1 X100.51 Y110.26 E169.84632
G1 X101.50 Y108.84 E169.93256
G1 X102.56 Y107.49 E170.01820
G1 X103.67 Y106.19 E170.10343
G1 X104.86 Y104.94 E170.18936
G0 F12000 X105.14 Y105.22
G1 F2400 X106.37 Y104.05 E170.27461
G1 X107.66 Y102.94 E170.35908
G1 X108.99 Y101.89 E170.44358
G1 X110.38 Y100.91 E170.52874
G1 X111.81 Y100.00 E170.61318
G1 X113.28 Y99.16 E170.69771
G1 X114.80 Y98.39 E170.78265
G1 X116.03 Y97.85 E170.84940
G1 X116.37 Y97.70 E170.86812
G1 X117.95 Y97.09 E170.95285
G1 X119.55 Y96.56 E171.03676
G1 X121.19 Y96.10 E171.12169
G1 X122.84 Y95.72 E171.20600
G1 X124.52 Y95.43 E171.29104
G1 X126.20 Y95.22 E171.37601
G1 X127.89 Y95.09 E171.46036
G1 X129.19 Y95.06 E171.52509
G1 X129.61 Y95.05 E171.54635
G1 X131.30 Y95.09 E171.63029
G1 X132.98 Y95.21 E171.71432
G1 X134.67 Y95.41 E171.79960
G1 X136.34 Y95.70 E171.88426
G1 X138.00 Y96.07 E171.96868
G1 X139.64 Y96.52 E172.05390
G1 X141.25 Y97.05 E172.13831
G1 X142.83 Y97.66 E172.22288
G1 X144.39 Y98.34 E172.30796
G1 X145.91 Y99.10 E172.39250
G1 X147.39 Y99.94 E172.47712
G1 X148.83 Y100.84 E172.56202
G1 X150.22 Y101.82 E172.64701
G1 X151.55 Y102.86 E172.73120
G1 X152.50 Y103.67 E172.79364
G1 X153.35 Y102.94 E172.84985
G1 X154.69 Y101.89 E172.93435
G1 X156.08 Y100.91 E173.01933
G1 X157.51 Y100.00 E173.10391
G1 X158.99 Y99.16 E173.18868
G1 X160.50 Y98.39 E173.27342
G1 X161.72 Y97.85 E173.34017
G1 X162.07 Y97.70 E173.35888
G1 X163.65 Y97.09 E173.44361
G1 X165.25 Y96.56 E173.52753
G1 X166.89 Y96.10 E173.61245
G1 X168.53 Y95.72 E173.69676
G1 X170.21 Y95.43 E173.78181
G1 X171.90 Y95.22 E173.86678
G1 X173.59 Y95.09 E173.95113
G1 X174.89 Y95.06 E174.01586
G1 X175.31 Y95.05 E174.03712
G1 X177.00 Y95.09 E174.12106
G1 X178.68 Y95.21 E174.20509
G1 X180.37 Y95.41 E174.29037
G1 X182.04 Y95.70 E174.37502
G1 X183.70 Y96.07 E174.45945
G1 X185.34 Y96.52 E174.54467
G1 X186.95 Y97.05 E174.62908
G1 X188.53 Y97.66 E174.71364
G1 X190.09 Y98.34 E174.79872
G1 X191.61 Y99.10 E174.88326
G1 X193.09 Y99.94 E174.96789
G1 X194.53 Y100.84 E175.05279
G1 X195.92 Y101.82 E175.13778
G1 X197.25 Y102.86 E175.22196
G1 X198.54 Y103.97 E175.30670
G1 X199.78 Y105.14 E175.39192
G1 X200.96 Y106.37 E175.47690
G1 X202.06 Y107.66 E175.56136
G1 X203.11 Y108.99 E175.64587
G1 X204.09 Y110.38 E175.73084
G1 X205.00 Y111.81 E175.81542
G1 X205.84 Y113.29 E175.90019
G1 X206.60 Y114.80 E175.98493
G1 X207.15 Y116.03 E176.05169
G1 X207.30 Y116.37 E176.07040
G1 X207.91 Y117.95 E176.15513
G1 X208.44 Y119.55 E176.23905
G1 X208.90 Y121.19 E176.32397
G1 X209.28 Y122.84 E176.40828
G1 X209.57 Y124.52 E176.49333
G1 X209.78 Y126.20 E176.57829
G1 X209.91 Y127.89 E176.66264
G1 X209.94 Y129.19 E176.72733
G1 X209.95 Y129.61 E176.74854
G1 X209.91 Y131.30 E176.83258
G1 X209.79 Y132.98 E176.91661
G1 X209.59 Y134.67 E177.00189
G1 X209.30 Y136.34 E177.08654
G1 X208.93 Y138.00 E177.17097
G1 X208.48 Y139.64 E177.25619
G1 X207.95 Y141.25 E177.34059
G1 X207.34 Y142.83 E177.42516
G1 X206.66 Y144.39 E177.51024
G1 X205.90 Y145.91 E177.59478
G1 X205.06 Y147.39 E177.67940
G1 X204.16 Y148.83 E177.76431
G1 X203.18 Y150.22 E177.84929
G1 X202.14 Y151.55 E177.93348
G1 X201.32 Y152.50 E177.99593
G1 X202.06 Y153.35 E178.05213
G1 X203.11 Y154.69 E178.13663
G1 X204.09 Y156.08 E178.22161
G1 X205.00 Y157.51 E178.30619
G1 X205.84 Y158.99 E178.39096
G1 X206.60 Y160.50 E178.47570
G1 X207.15 Y161.72 E178.54246
G1 X207.30 Y162.07 E178.56117
G1 X207.91 Y163.65 E178.64590
G1 X208.44 Y165.25 E178.72981
G1 X208.90 Y166.89 E178.81474
G1 X209.28 Y168.53 E178.89905
G1 X209.57 Y170.21 E178.98410
G1 X209.78 Y171.90 E179.06906
G1 X209.91 Y173.59 E179.15341
G1 X209.94 Y174.89 E179.21809
G1 X209.95 Y175.31 E179.23931
G1 X209.91 Y177.00 E179.32335
G1 X209.79 Y178.68 E179.40737
G1 X209.59 Y180.37 E179.49265
G1 X209.30 Y182.04 E179.57731
G1 X208.93 Y183.70 E179.66173
G1 X208.48 Y185.34 E179.74696
G1 X207.95 Y186.95 E179.83136
G1 X207.34 Y188.53 E179.91593
G1 X206.66 Y190.09 E180.00101
G1 X205.90 Y191.61 E180.08555
G1 X205.06 Y193.09 E180.17017
G1 X204.16 Y194.53 E180.25508
G1 X203.18 Y195.92 E180.34006
G1 X202.14 Y197.25 E180.42425
G1 X201.03 Y198.54 E180.50898
G1 X199.86 Y199.78 E180.59421
G1 X198.63 Y200.96 E180.67918
G1 X197.34 Y202.06 E180.76365
G1 X196.01 Y203.11 E180.84815
G1 X194.62 Y204.09 E180.93313
G1 X193.19 Y205.00 E181.01771
G1 X191.71 Y205.84 E181.10248
G1 X190.20 Y206.60 E181.18722
G1 X188.97 Y207.15 E181.25397
G1 X188.63 Y207.30 E181.27268
G1 X187.05 Y207.91 E181.35741
G1 X185.45 Y208.44 E181.44133
G1 X183.81 Y208.90 E181.52625
G1 X182.16 Y209.28 E181.61056
G1 X180.49 Y209.57 E181.69561
G1 X178.79 Y209.78 E181.78058
G1 X177.11 Y209.91 E181.86493
G1 X175.81 Y209.94 E181.92966
G1 X175.39 Y209.95 E181.95092
G1 X173.70 Y209.91 E182.03486
G1 X172.02 Y209.79 E182.11889
G1 X170.33 Y209.59 E182.20417
G1 X168.66 Y209.30 E182.28882
G1 X167.00 Y208.93 E182.37325
G1 X165.36 Y208.48 E182.45847
G1 X163.75 Y207.95 E182.54288
G1 X162.17 Y207.34 E182.62744
G1 X160.61 Y206.66 E182.71252
G1 X159.09 Y205.90 E182.79706
G1 X157.61 Y205.06 E182.88169
G1 X156.17 Y204.16 E182.96659
G1 X154.78 Y203.18 E183.05158
G1 X153.45 Y202.14 E183.13576
G1 X152.50 Y201.32 E183.19821
G1 X151.65 Y202.06 E183.25441
G1 X150.31 Y203.11 E183.33892
G1 X148.92 Y204.09 E183.42389
G1 X147.49 Y205.00 E183.50847
G1 X146.01 Y205.84 E183.59324
G1 X144.50 Y206.60 E183.67798
G1 X143.28 Y207.15 E183.74474
G1 X142.93 Y207.30 E183.76345
G1 X141.35 Y207.91 E183.84818
G1 X139.75 Y208.44 E183.93210
G1 X138.11 Y208.90 E184.01702
G1 X136.47 Y209.28 E184.10133
G1 X134.79 Y209.57 E184.18638
G1 X133.10 Y209.78 E184.27134
G1 X131.41 Y209.91 E184.35570
G1 X130.11 Y209.94 E184.42038
G1 X129.69 Y209.95 E184.44159
G1 X128.00 Y209.91 E184.52563
G1 X126.33 Y209.79 E184.60966
G1 X124.63 Y209.59 E184.69494
G1 X122.96 Y209.30 E184.77959
G1 X121.30 Y208.93 E184.86402
G1 X119.66 Y208.48 E184.94924
G1 X118.05 Y207.95 E185.03364
G1 X116.47 Y207.34 E185.11821
G1 X114.91 Y206.66 E185.20329
G1 X113.39 Y205.90 E185.28783
G1 X111.92 Y205.06 E185.37245
G1 X110.47 Y204.16 E185.45736
G1 X109.08 Y203.18 E185.54234
G1 X107.75 Y202.14 E185.62653
G1 X106.46 Y201.03 E185.71127
G1 X105.22 Y199.85 E185.79677
G1 X104.05 Y198.63 E185.88140
G1 X102.94 Y197.35 E185.96568
G1 X101.89 Y196.01 E186.05043
G1 X100.91 Y194.62 E186.13541
G1 X100.00 Y193.19 E186.21999
G1 X99.16 Y191.71 E186.30476
G1 X98.39 Y190.20 E186.38950
G1 X97.85 Y188.97 E186.45625
G1 X97.70 Y188.63 E186.47496
G1 X97.09 Y187.05 E186.55969
G1 X96.56 Y185.45 E186.64361
G1 X96.10 Y183.81 E186.72853
G1 X95.72 Y182.16 E186.81284
G1 X95.43 Y180.49 E186.89789
G1 X95.22 Y178.79 E186.98286
G1 X95.09 Y177.11 E187.06721
G1 X95.06 Y175.77 E187.13409
G1 X95.05 Y175.39 E187.15320
G1 X95.09 Y173.70 E187.23714
G1 X95.21 Y172.02 E187.32117
G1 X95.41 Y170.33 E187.40645
G1 X95.70 Y168.66 E187.49110
G1 X96.07 Y167.00 E187.57553
G1 X96.52 Y165.36 E187.66075
G1 X97.05 Y163.75 E187.74516
G1 X97.66 Y162.17 E187.82972
G1 X98.34 Y160.61 E187.91481
G1 X99.10 Y159.09 E187.99934
G1 X99.94 Y157.61 E188.08397
G1 X100.84 Y156.18 E188.16862
G1 X101.82 Y154.78 E188.25390
G1 X102.87 Y153.44 E188.33858
G1 X103.67 Y152.50 E188.40046
G1 X102.94 Y151.65 E188.45670
G1 X101.89 Y150.31 E188.54120
G1 X100.91 Y148.92 E188.62618
G1 X100.00 Y147.49 E188.71076
G1 X99.16 Y146.01 E188.79553
G1 X98.39 Y144.50 E188.88027
G1 X97.85 Y143.28 E188.94702
G1 X97.70 Y142.93 E188.96573
G1 X97.09 Y141.35 E189.05046
G1 X96.56 Y139.75 E189.13438
G1 X96.10 Y138.11 E189.21930
G1 X95.72 Y136.47 E189.30361
G1 X95.43 Y134.79 E189.38866
G1 X95.22 Y133.10 E189.47362
G1 X95.09 Y131.41 E189.55798
G1 X95.06 Y130.07 E189.62485
G1 X95.05 Y129.69 E189.64397
G1 X95.09 Y128.00 E189.72791
G1 X95.21 Y126.33 E189.81194
G1 X95.41 Y124.63 E189.89722
G1 X95.70 Y122.96 E189.98187
G1 X96.07 Y121.30 E190.06630
G1 X96.52 Y119.66 E190.15152
G1 X97.05 Y118.05 E190.23593
G1 X97.66 Y116.47 E190.32049
G1 X98.34 Y114.91 E190.40557
G1 X99.10 Y113.39 E190.49011
G1 X99.94 Y111.92 E190.57474
G1 X100.84 Y110.48 E190.65939
G1 X101.82 Y109.08 E190.74467
G1 X102.87 Y107.74 E190.82934
G1 X103.97 Y106.46 E190.91358
G1 X105.14 Y105.22 E190.99849
G0 F12000 X105.42 Y105.51
G1 F2400 X106.64 Y104.34 E191.08272
G1 X107.91 Y103.25 E191.16620
G1 X109.23 Y102.21 E191.24974
G1 X110.61 Y101.24 E191.33393
G1 X112.02 Y100.34 E191.41736
G1 X113.47 Y99.52 E191.50095
G1 X114.97 Y98.76 E191.58487
G1 X116.15 Y98.23 E191.64914
G1 X116.52 Y98.06 E191.66944
G1 X118.09 Y97.46 E191.75310
G1 X119.67 Y96.94 E191.83608
G1 X121.29 Y96.49 E191.92001
G1 X122.92 Y96.12 E192.00334
G1 X124.58 Y95.83 E192.08743
G1 X126.25 Y95.62 E192.17139
G1 X127.91 Y95.49 E192.25480
G1 X129.20 Y95.46 E192.31908
G1 X129.62 Y95.45 E192.33979
G1 X131.28 Y95.49 E192.42273
G1 X132.94 Y95.61 E192.50581
G1 X134.62 Y95.81 E192.59009
G1 X136.27 Y96.09 E192.67373
G1 X137.90 Y96.46 E192.75718
G1 X139.53 Y96.90 E192.84142
G1 X141.12 Y97.43 E192.92488
G1 X142.68 Y98.03 E193.00848
G1 X144.22 Y98.71 E193.09258
G1 X145.72 Y99.46 E193.17612
G1 X147.18 Y100.28 E193.25976
G1 X148.60 Y101.18 E193.34368
G1 X149.98 Y102.14 E193.42767
G1 X151.30 Y103.17 E193.51093
G1 X152.50 Y104.20 E193.59000
G1 X153.61 Y103.25 E193.66290
G1 X154.93 Y102.21 E193.74645
G1 X156.30 Y101.24 E193.83046
G1 X157.72 Y100.34 E193.91403
G1 X159.18 Y99.51 E193.99784
G1 X160.67 Y98.76 E194.08157
G1 X161.85 Y98.23 E194.14585
G1 X162.22 Y98.06 E194.16615
G1 X163.79 Y97.46 E194.24980
G1 X165.36 Y96.94 E194.33279
G1 X166.99 Y96.49 E194.41672
G1 X168.61 Y96.12 E194.50005
G1 X170.27 Y95.83 E194.58414
G1 X171.94 Y95.62 E194.66810
G1 X173.61 Y95.49 E194.75150
G1 X174.90 Y95.46 E194.81579
G1 X175.31 Y95.45 E194.83650
G1 X176.98 Y95.49 E194.91944
G1 X178.64 Y95.61 E195.00252
G1 X180.31 Y95.81 E195.08680
G1 X181.97 Y96.09 E195.17044
G1 X183.60 Y96.46 E195.25389
G1 X185.23 Y96.90 E195.33813
G1 X186.82 Y97.43 E195.42159
G1 X188.38 Y98.03 E195.50519
G1 X189.92 Y98.71 E195.58929
G1 X191.42 Y99.46 E195.67282
G1 X192.88 Y100.28 E195.75646
G1 X194.30 Y101.18 E195.84039
G1 X195.68 Y102.14 E195.92437
G1 X197.00 Y103.17 E196.00763
G1 X198.27 Y104.26 E196.09138
G1 X199.50 Y105.43 E196.17561
G1 X200.66 Y106.64 E196.25960
G1 X201.75 Y107.91 E196.34307
G1 X202.79 Y109.23 E196.42662
G1 X203.76 Y110.60 E196.51063
G1 X204.66 Y112.02 E196.59420
G1 X205.49 Y113.48 E196.67801
G1 X206.24 Y114.97 E196.76174
G1 X206.75 Y116.12 E196.82437
G1 X206.94 Y116.52 E196.84632
G1 X207.54 Y118.09 E196.92997
G1 X208.06 Y119.67 E197.01296
G1 X208.51 Y121.29 E197.09689
G1 X208.88 Y122.92 E197.18022
G1 X209.17 Y124.58 E197.26431
G1 X209.38 Y126.25 E197.34827
G1 X209.51 Y127.91 E197.43162
G1 X209.54 Y129.20 E197.49591
G1 X209.55 Y129.61 E197.51657
G1 X209.51 Y131.28 E197.59961
G1 X209.40 Y132.94 E197.68269
G1 X209.19 Y134.62 E197.76697
G1 X208.91 Y136.27 E197.85061
G1 X208.54 Y137.90 E197.93406
G1 X208.10 Y139.53 E198.01830
G1 X207.57 Y141.12 E198.10176
G1 X206.97 Y142.68 E198.18536
G1 X206.29 Y144.22 E198.26946
G1 X205.54 Y145.72 E198.35299
G1 X204.72 Y147.18 E198.43663
G1 X203.82 Y148.60 E198.52056
G1 X202.85 Y149.98 E198.60454
G1 X201.83 Y151.30 E198.68780
G1 X200.80 Y152.50 E198.76688
G1 X201.75 Y153.61 E198.83978
G1 X202.79 Y154.93 E198.92333
G1 X203.76 Y156.30 E199.00734
G1 X204.66 Y157.72 E199.09090
G1 X205.49 Y159.18 E199.17472
G1 X206.24 Y160.67 E199.25845
G1 X206.75 Y161.82 E199.32108
G1 X206.94 Y162.22 E199.34303
G1 X207.54 Y163.79 E199.42668
G1 X208.06 Y165.36 E199.50967
G1 X208.51 Y166.99 E199.59360
G1 X208.88 Y168.61 E199.67693
G1 X209.17 Y170.27 E199.76102
G1 X209.38 Y171.94 E199.84498
G1 X209.51 Y173.61 E199.92833
G1 X209.54 Y174.90 E199.99261
G1 X209.55 Y175.31 E200.01328
G1 X209.51 Y176.98 E200.09632
G1 X209.40 Y178.64 E200.17940
G1 X209.19 Y180.31 E200.26367
G1 X208.91 Y181.97 E200.34732
G1 X208.54 Y183.60 E200.43077
G1 X208.10 Y185.23 E200.51501
G1 X207.57 Y186.82 E200.59847
G1 X206.97 Y188.38 E200.68207
G1 X206.29 Y189.92 E200.76617
G1 X205.54 Y191.42 E200.84970
G1 X204.72 Y192.88 E200.93334
G1 X203.82 Y194.30 E201.01726
G1 X202.85 Y195.68 E201.10125
G1 X201.83 Y197.00 E201.18451
G1 X200.74 Y198.27 E201.26826
G1 X199.57 Y199.50 E201.35249
G1 X198.36 Y200.66 E201.43648
G1 X197.09 Y201.75 E201.51995
G1 X195.77 Y202.79 E201.60350
G1 X194.40 Y203.76 E201.68751
G1 X192.98 Y204.66 E201.77107
G1 X191.52 Y205.49 E201.85489
G1 X190.03 Y206.24 E201.93862
G1 X188.88 Y206.75 E202.00125
G1 X188.48 Y206.94 E202.02320
G1 X186.91 Y207.54 E202.10685
G1 X185.34 Y208.06 E202.18984
G1 X183.71 Y208.51 E202.27377
G1 X182.09 Y208.88 E202.35710
G1 X180.43 Y209.17 E202.44119
G1 X178.75 Y209.38 E202.52515
G1 X177.09 Y209.51 E202.60855
G1 X175.80 Y209.54 E202.67283
G1 X175.38 Y209.55 E202.69355
G1 X173.72 Y209.51 E202.77649
G1 X172.06 Y209.40 E202.85957
G1 X170.38 Y209.19 E202.94384
G1 X168.73 Y208.91 E203.02749
G1 X167.10 Y208.54 E203.11094
G1 X165.47 Y208.10 E203.19518
G1 X163.88 Y207.57 E203.27864
G1 X162.32 Y206.97 E203.36224
G1 X160.78 Y206.29 E203.44634
G1 X159.28 Y205.54 E203.52987
G1 X157.82 Y204.72 E203.61351
G1 X156.40 Y203.82 E203.69743
G1 X155.02 Y202.85 E203.78142
G1 X153.70 Y201.83 E203.86468
G1 X152.50 Y200.80 E203.94376
G1 X151.39 Y201.75 E204.01666
G1 X150.07 Y202.79 E204.10020
G1 X148.70 Y203.76 E204.18421
G1 X147.28 Y204.66 E204.26778
G1 X145.82 Y205.49 E204.35159
G1 X144.33 Y206.24 E204.43533
G1 X143.18 Y206.75 E204.49796
G1 X142.78 Y206.94 E204.51991
G1 X141.21 Y207.54 E204.60356
G1 X139.64 Y208.06 E204.68655
G1 X138.01 Y208.51 E204.77048
G1 X136.39 Y208.88 E204.85381
G1 X134.73 Y209.17 E204.93790
G1 X133.06 Y209.38 E205.02186
G1 X131.39 Y209.51 E205.10521
G1 X130.10 Y209.54 E205.16949
G1 X129.69 Y209.55 E205.19015
G1 X128.02 Y209.51 E205.27320
G1 X126.36 Y209.40 E205.35628
G1 X124.69 Y209.19 E205.44055
G1 X123.03 Y208.91 E205.52420
G1 X121.40 Y208.54 E205.60765
G1 X119.77 Y208.10 E205.69189
G1 X118.18 Y207.57 E205.77535
G1 X116.62 Y206.97 E205.85895
G1 X115.08 Y206.29 E205.94305
G1 X113.58 Y205.54 E206.02658
G1 X112.12 Y204.72 E206.11022
G1 X110.70 Y203.82 E206.19414
G1 X109.32 Y202.85 E206.27813
G1 X108.00 Y201.83 E206.36139
G1 X106.73 Y200.74 E206.44514
G1 X105.50 Y199.57 E206.52962
G1 X104.34 Y198.36 E206.61329
G1 X103.25 Y197.09 E206.69658
G1 X102.21 Y195.77 E206.78037
G1 X101.24 Y194.40 E206.86438
G1 X100.34 Y192.98 E206.94795
G1 X99.51 Y191.52 E207.03176
G1 X98.76 Y190.03 E207.11550
G1 X98.22 Y188.81 E207.18179
G1 X98.06 Y188.48 E207.20007
G1 X97.46 Y186.91 E207.28373
G1 X96.94 Y185.34 E207.36671
G1 X96.49 Y183.71 E207.45064
G1 X96.12 Y182.09 E207.53397
G1 X95.83 Y180.43 E207.61806
G1 X95.62 Y178.75 E207.70202
G1 X95.49 Y177.09 E207.78543
G1 X95.46 Y175.76 E207.85176
G1 X95.45 Y175.38 E207.87042
G1 X95.49 Y173.72 E207.95336
G1 X95.61 Y172.06 E208.03644
G1 X95.81 Y170.38 E208.12072
G1 X96.09 Y168.73 E208.20437
G1 X96.46 Y167.10 E208.28781
G1 X96.90 Y165.47 E208.37205
G1 X97.43 Y163.88 E208.45551
G1 X98.03 Y162.32 E208.53912
G1 X98.71 Y160.78 E208.62321
G1 X99.46 Y159.28 E208.70675
G1 X100.28 Y157.82 E208.79039
G1 X101.17 Y156.40 E208.87406
G1 X102.14 Y155.02 E208.95834
G1 X103.18 Y153.69 E209.04202
G1 X104.20 Y152.50 E209.12063
G1 X103.25 Y151.39 E209.19360
G1 X102.21 Y150.07 E209.27715
G1 X101.24 Y148.70 E209.36116
G1 X100.34 Y147.28 E209.44472
G1 X99.51 Y145.82 E209.52854
G1 X98.76 Y144.33 E209.61227
G1 X98.22 Y143.11 E209.67856
G1 X98.06 Y142.78 E209.69685
G1 X97.46 Y141.21 E209.78050
G1 X96.94 Y139.64 E209.86349
G1 X96.49 Y138.01 E209.94742
G1 X96.12 Y136.39 E210.03075
G1 X95.83 Y134.73 E210.11484
G1 X95.62 Y133.06 E210.19880
G1 X95.49 Y131.39 E210.28220
G1 X95.46 Y130.06 E210.34853
G1 X95.45 Y129.69 E210.36720
G1 X95.49 Y128.02 E210.45014
G1 X95.61 Y126.36 E210.53322
G1 X95.81 Y124.69 E210.61750
G1 X96.09 Y123.03 E210.70114
G1 X96.46 Y121.40 E210.78459
G1 X96.90 Y119.77 E210.86883
G1 X97.43 Y118.18 E210.95229
G1 X98.03 Y116.62 E211.03589
G1 X98.71 Y115.08 E211.11999
G1 X99.46 Y113.58 E211.20352
G1 X100.28 Y112.12 E211.28716
G1 X101.17 Y110.70 E211.37084
G1 X102.14 Y109.32 E211.45511
G1 X103.18 Y108.00 E211.53879
G1 X104.27 Y106.73 E211.62215
G1 X105.42 Y105.51 E211.70607
G0 F12000 X105.70 Y105.79
G1 F2400 X106.91 Y104.64 E211.78931
G1 X108.16 Y103.56 E211.87186
G1 X109.47 Y102.53 E211.95441
G1 X110.83 Y101.57 E212.03760
G1 X112.22 Y100.69 E212.12005
G1 X113.66 Y99.87 E212.20268
G1 X115.15 Y99.12 E212.28561
G1 X116.29 Y98.61 E212.34821
G1 X116.68 Y98.43 E212.36923
G1 X118.22 Y97.84 E212.45185
G1 X119.78 Y97.32 E212.53385
G1 X121.38 Y96.88 E212.61684
G1 X122.99 Y96.51 E212.69921
G1 X124.63 Y96.22 E212.78229
G1 X126.28 Y96.02 E212.86524
G1 X127.93 Y95.89 E212.94769
G1 X129.21 Y95.86 E213.01152
G1 X129.62 Y95.85 E213.03174
G1 X131.26 Y95.89 E213.11368
G1 X132.90 Y96.00 E213.19581
G1 X134.56 Y96.20 E213.27903
G1 X136.19 Y96.49 E213.36176
G1 X137.80 Y96.84 E213.44425
G1 X139.41 Y97.29 E213.52749
G1 X140.98 Y97.80 E213.60996
G1 X142.53 Y98.40 E213.69255
G1 X144.05 Y99.07 E213.77567
G1 X145.53 Y99.81 E213.85827
G1 X146.98 Y100.62 E213.94092
G1 X148.38 Y101.51 E214.02383
G1 X149.74 Y102.47 E214.10685
G1 X151.04 Y103.48 E214.18911
G1 X152.31 Y104.56 E214.27191
G1 X152.50 Y104.75 E214.28528
G1 X152.61 Y104.64 E214.29301
G1 X153.86 Y103.56 E214.37557
G1 X155.16 Y102.53 E214.45811
G1 X156.52 Y101.58 E214.54112
G1 X157.92 Y100.69 E214.62371
G1 X159.36 Y99.87 E214.70654
G1 X160.84 Y99.12 E214.78931
G1 X161.99 Y98.61 E214.85191
G1 X162.38 Y98.43 E214.87293
G1 X163.92 Y97.84 E214.95555
G1 X165.48 Y97.32 E215.03755
G1 X167.08 Y96.88 E215.12054
G1 X168.69 Y96.51 E215.20291
G1 X170.33 Y96.22 E215.28599
G1 X171.98 Y96.02 E215.36894
G1 X173.63 Y95.89 E215.45139
G1 X174.91 Y95.86 E215.51522
G1 X175.31 Y95.85 E215.53544
G1 X176.96 Y95.89 E215.61738
G1 X178.60 Y96.00 E215.69951
G1 X180.25 Y96.20 E215.78273
G1 X181.89 Y96.49 E215.86546
G1 X183.50 Y96.84 E215.94795
G1 X185.11 Y97.29 E216.03120
G1 X186.68 Y97.80 E216.11366
G1 X188.23 Y98.40 E216.19625
G1 X189.75 Y99.07 E216.27937
G1 X191.23 Y99.81 E216.36197
G1 X192.68 Y100.62 E216.44462
G1 X194.08 Y101.51 E216.52753
G1 X195.44 Y102.47 E216.61055
G1 X196.74 Y103.48 E216.69281
G1 X198.00 Y104.56 E216.77561
G1 X199.21 Y105.71 E216.85886
G1 X200.36 Y106.91 E216.94182
G1 X201.44 Y108.16 E217.02437
G1 X202.47 Y109.47 E217.10692
G1 X203.43 Y110.83 E217.18993
G1 X204.31 Y112.22 E217.27252
G1 X205.13 Y113.67 E217.35534
G1 X205.88 Y115.15 E217.43812
G1 X206.39 Y116.29 E217.50039
G1 X206.57 Y116.68 E217.52173
G1 X207.16 Y118.22 E217.60436
G1 X207.68 Y119.78 E217.68635
G1 X208.12 Y121.38 E217.76935
G1 X208.49 Y122.99 E217.85171
G1 X208.78 Y124.63 E217.93479
G1 X208.98 Y126.28 E218.01775
G1 X209.11 Y127.93 E218.10020
G1 X209.14 Y129.21 E218.16398
G1 X209.15 Y129.61 E218.18414
G1 X209.11 Y131.26 E218.26619
G1 X209.00 Y132.90 E218.34831
G1 X208.80 Y134.56 E218.43154
G1 X208.51 Y136.19 E218.51427
G1 X208.16 Y137.80 E218.59676
G1 X207.71 Y139.41 E218.68000
G1 X207.20 Y140.98 E218.76247
G1 X206.60 Y142.53 E218.84506
G1 X205.93 Y144.05 E218.92818
G1 X205.19 Y145.53 E219.01077
G1 X204.38 Y146.98 E219.09343
G1 X203.49 Y148.38 E219.17634
G1 X202.53 Y149.74 E219.25936
G1 X201.52 Y151.04 E219.34162
G1 X200.44 Y152.31 E219.42442
G1 X200.25 Y152.50 E219.43779
G1 X200.36 Y152.61 E219.44552
G1 X201.44 Y153.86 E219.52807
G1 X202.47 Y155.16 E219.61062
G1 X203.43 Y156.52 E219.69363
G1 X204.31 Y157.92 E219.77622
G1 X205.13 Y159.36 E219.85905
G1 X205.88 Y160.84 E219.94182
G1 X206.39 Y161.99 E220.00409
G1 X206.57 Y162.38 E220.02544
G1 X207.16 Y163.92 E220.10806
G1 X207.68 Y165.48 E220.19005
G1 X208.12 Y167.08 E220.27305
G1 X208.49 Y168.69 E220.35541
G1 X208.78 Y170.33 E220.43849
G1 X208.98 Y171.98 E220.52145
G1 X209.11 Y173.63 E220.60390
G1 X209.14 Y174.91 E220.66768
G1 X209.15 Y175.31 E220.68784
G1 X209.11 Y176.96 E220.76989
G1 X209.00 Y178.60 E220.85202
G1 X208.80 Y180.25 E220.93524
G1 X208.51 Y181.89 E221.01797
G1 X208.16 Y183.50 E221.10046
G1 X207.71 Y185.11 E221.18370
G1 X207.20 Y186.68 E221.26617
G1 X206.60 Y188.23 E221.34876
G1 X205.93 Y189.75 E221.43188
G1 X205.19 Y191.23 E221.51447
G1 X204.38 Y192.68 E221.59713
G1 X203.49 Y194.08 E221.68004
G1 X202.53 Y195.44 E221.76306
G1 X201.52 Y196.74 E221.84532
G1 X200.44 Y198.00 E221.92812
G1 X199.29 Y199.21 E222.01136
G1 X198.09 Y200.36 E222.09432
G1 X196.84 Y201.44 E222.17688
G1 X195.53 Y202.47 E222.25943
G1 X194.18 Y203.43 E222.34244
G1 X192.78 Y204.31 E222.42502
G1 X191.34 Y205.13 E222.50785
G1 X189.85 Y205.88 E222.59063
G1 X188.71 Y206.39 E222.65290
G1 X188.32 Y206.57 E222.67424
G1 X186.78 Y207.16 E222.75687
G1 X185.22 Y207.68 E222.83886
G1 X183.62 Y208.12 E222.92186
G1 X182.01 Y208.49 E223.00422
G1 X180.37 Y208.78 E223.08730
G1 X178.72 Y208.98 E223.17025
G1 X177.07 Y209.11 E223.25270
G1 X175.79 Y209.14 E223.31654
G1 X175.38 Y209.15 E223.33675
G1 X173.74 Y209.11 E223.41870
G1 X172.10 Y209.00 E223.50082
G1 X170.44 Y208.80 E223.58405
G1 X168.81 Y208.51 E223.66677
G1 X167.20 Y208.16 E223.74926
G1 X165.59 Y207.71 E223.83251
G1 X164.02 Y207.20 E223.91498
G1 X162.47 Y206.60 E223.99757
G1 X160.95 Y205.93 E224.08068
G1 X159.47 Y205.19 E224.16328
G1 X158.02 Y204.38 E224.24594
G1 X156.62 Y203.49 E224.32885
G1 X155.26 Y202.53 E224.41187
G1 X153.96 Y201.52 E224.49413
G1 X152.69 Y200.44 E224.57692
G1 X152.50 Y200.25 E224.59030
G1 X152.39 Y200.36 E224.59803
G1 X151.14 Y201.44 E224.68058
G1 X149.84 Y202.47 E224.76313
G1 X148.48 Y203.43 E224.84614
G1 X147.08 Y204.31 E224.92873
G1 X145.64 Y205.13 E225.01155
G1 X144.16 Y205.88 E225.09433
G1 X143.01 Y206.39 E225.15660
G1 X142.62 Y206.57 E225.17794
G1 X141.08 Y207.16 E225.26057
G1 X139.52 Y207.68 E225.34256
G1 X137.92 Y208.12 E225.42556
G1 X136.31 Y208.49 E225.50792
G1 X134.67 Y208.78 E225.59100
G1 X133.02 Y208.98 E225.67395
G1 X131.37 Y209.11 E225.75641
G1 X130.09 Y209.14 E225.82019
G1 X129.69 Y209.15 E225.84035
G1 X128.04 Y209.11 E225.92240
G1 X126.40 Y209.00 E226.00452
G1 X124.75 Y208.80 E226.08775
G1 X123.11 Y208.51 E226.17047
G1 X121.50 Y208.16 E226.25296
G1 X119.89 Y207.71 E226.33621
G1 X118.32 Y207.20 E226.41868
G1 X116.77 Y206.60 E226.50127
G1 X115.25 Y205.93 E226.58438
G1 X113.77 Y205.19 E226.66698
G1 X112.33 Y204.38 E226.74964
G1 X110.92 Y203.49 E226.83255
G1 X109.56 Y202.53 E226.91557
G1 X108.26 Y201.52 E226.99783
G1 X107.00 Y200.44 E227.08062
G1 X105.78 Y199.29 E227.16412
G1 X104.64 Y198.09 E227.24680
G1 X103.56 Y196.84 E227.32910
G1 X102.53 Y195.53 E227.41194
G1 X101.58 Y194.18 E227.49495
G1 X100.69 Y192.78 E227.57753
G1 X99.87 Y191.34 E227.66036
G1 X99.12 Y189.85 E227.74314
G1 X98.58 Y188.65 E227.80896
G1 X98.43 Y188.32 E227.82675
G1 X97.84 Y186.78 E227.90938
G1 X97.32 Y185.22 E227.99137
G1 X96.88 Y183.62 E228.07437
G1 X96.51 Y182.01 E228.15673
G1 X96.22 Y180.37 E228.23981
G1 X96.02 Y178.72 E228.32276
G1 X95.89 Y177.07 E228.40522
G1 X95.86 Y175.75 E228.47109
G1 X95.85 Y175.38 E228.48926
G1 X95.89 Y173.74 E228.57121
G1 X96.00 Y172.10 E228.65333
G1 X96.20 Y170.44 E228.73656
G1 X96.49 Y168.81 E228.81928
G1 X96.84 Y167.20 E228.90177
G1 X97.29 Y165.59 E228.98502
G1 X97.80 Y164.02 E229.06749
G1 X98.40 Y162.47 E229.15008
G1 X99.07 Y160.95 E229.23319
G1 X99.81 Y159.47 E229.31579
G1 X100.62 Y158.02 E229.39845
G1 X101.51 Y156.62 E229.48118
G1 X102.47 Y155.25 E229.56442
G1 X103.49 Y153.95 E229.64714
G1 X104.56 Y152.69 E229.72950
G1 X104.75 Y152.50 E229.74277
G1 X104.64 Y152.39 E229.75053
G1 X103.56 Y151.14 E229.83309
G1 X102.53 Y149.84 E229.91564
G1 X101.58 Y148.48 E229.99865
G1 X100.69 Y147.08 E230.08123
G1 X99.87 Y145.64 E230.16406
G1 X99.12 Y144.16 E230.24684
G1 X98.58 Y142.95 E230.31266
G1 X98.43 Y142.62 E230.33045
G1 X97.84 Y141.08 E230.41308
G1 X97.32 Y139.52 E230.49507
G1 X96.88 Y137.92 E230.57807
G1 X96.51 Y136.31 E230.66043
G1 X96.22 Y134.67 E230.74351
G1 X96.02 Y133.02 E230.82646
G1 X95.89 Y131.37 E230.90891
G1 X95.86 Y130.05 E230.97479
G1 X95.85 Y129.69 E230.99296
G1 X95.89 Y128.04 E231.07491
G1 X96.00 Y126.40 E231.15703
G1 X96.20 Y124.75 E231.24026
G1 X96.49 Y123.11 E231.32298
G1 X96.84 Y121.50 E231.40547
G1 X97.29 Y119.89 E231.48872
G1 X97.80 Y118.32 E231.57119
G1 X98.40 Y116.77 E231.65378
G1 X99.07 Y115.25 E231.73689
G1 X99.81 Y113.77 E231.81949
G1 X100.62 Y112.33 E231.90215
G1 X101.51 Y110.92 E231.98488
G1 X102.47 Y109.56 E232.06812
G1 X103.49 Y108.25 E232.15084
G1 X104.56 Y107.00 E232.23320
G1 X105.70 Y105.79 E232.31610
G0 F12000 X105.99 Y106.07
G1 F2400 X107.18 Y104.93 E232.39832
G1 X108.42 Y103.86 E232.47988
G1 X109.70 Y102.86 E232.56147
G1 X111.05 Y101.91 E232.64365
G1 X112.43 Y101.03 E232.72518
G1 X113.85 Y100.22 E232.80678
G1 X115.32 Y99.48 E232.88873
G1 X116.51 Y98.95 E232.95410
G1 X116.83 Y98.80 E232.97140
G1 X118.36 Y98.22 E233.05302
G1 X119.90 Y97.70 E233.13405
G1 X121.48 Y97.26 E233.21602
G1 X123.07 Y96.90 E233.29746
G1 X124.69 Y96.62 E233.37953
G1 X126.32 Y96.41 E233.46153
G1 X127.95 Y96.29 E233.54298
G1 X129.22 Y96.26 E233.60626
G1 X129.62 Y96.25 E233.62608
G1 X131.24 Y96.29 E233.70702
G1 X132.86 Y96.40 E233.78815
G1 X134.50 Y96.60 E233.87042
G1 X136.11 Y96.88 E233.95213
G1 X137.71 Y97.23 E234.03364
G1 X139.30 Y97.67 E234.11591
G1 X140.85 Y98.18 E234.19743
G1 X142.38 Y98.77 E234.27906
G1 X143.88 Y99.43 E234.36119
G1 X145.34 Y100.16 E234.44279
G1 X146.77 Y100.97 E234.52448
G1 X148.16 Y101.84 E234.60638
G1 X149.51 Y102.79 E234.68843
G1 X150.79 Y103.79 E234.76974
G1 X152.04 Y104.86 E234.85154
G1 X152.50 Y105.30 E234.88341
G1 X152.88 Y104.93 E234.90962
G1 X154.12 Y103.86 E234.99119
G1 X155.40 Y102.86 E235.07278
G1 X156.75 Y101.91 E235.15478
G1 X158.13 Y101.03 E235.23640
G1 X159.55 Y100.22 E235.31827
G1 X161.02 Y99.48 E235.40004
G1 X162.21 Y98.95 E235.46541
G1 X162.53 Y98.80 E235.48272
G1 X164.06 Y98.22 E235.56433
G1 X165.60 Y97.70 E235.64536
G1 X167.18 Y97.26 E235.72733
G1 X168.77 Y96.90 E235.80877
G1 X170.39 Y96.62 E235.89084
G1 X172.02 Y96.41 E235.97284
G1 X173.65 Y96.29 E236.05429
G1 X174.92 Y96.26 E236.11757
G1 X175.32 Y96.25 E236.13739
G1 X176.94 Y96.29 E236.21833
G1 X178.56 Y96.40 E236.29946
G1 X180.20 Y96.60 E236.38173
G1 X181.81 Y96.88 E236.46344
G1 X183.41 Y97.23 E236.54496
G1 X185.00 Y97.67 E236.62722
G1 X186.55 Y98.18 E236.70874
G1 X188.08 Y98.77 E236.79037
G1 X189.58 Y99.43 E236.87250
G1 X191.04 Y100.16 E236.95410
G1 X192.47 Y100.97 E237.03579
G1 X193.86 Y101.84 E237.11769
G1 X195.21 Y102.79 E237.19974
G1 X196.49 Y103.79 E237.28105
G1 X197.74 Y104.86 E237.36285
G1 X198.93 Y105.99 E237.44508
G1 X200.07 Y107.18 E237.52708
G1 X201.13 Y108.42 E237.60865
G1 X202.14 Y109.70 E237.69024
G1 X203.09 Y111.05 E237.77224
G1 X203.97 Y112.43 E237.85386
G1 X204.78 Y113.85 E237.93573
G1 X205.52 Y115.32 E238.01750
G1 X206.05 Y116.51 E238.08287
G1 X206.20 Y116.83 E238.10017
G1 X206.78 Y118.36 E238.18179
G1 X207.30 Y119.90 E238.26282
G1 X207.74 Y121.48 E238.34479
G1 X208.10 Y123.07 E238.42623
G1 X208.38 Y124.69 E238.50830
G1 X208.59 Y126.32 E238.59030
G1 X208.71 Y127.95 E238.67175
G1 X208.74 Y129.22 E238.73513
G1 X208.75 Y129.62 E238.75480
G1 X208.71 Y131.24 E238.83579
G1 X208.60 Y132.86 E238.91692
G1 X208.40 Y134.50 E238.99919
G1 X208.12 Y136.11 E239.08090
G1 X207.77 Y137.71 E239.16241
G1 X207.33 Y139.30 E239.24468
G1 X206.82 Y140.85 E239.32620
G1 X206.23 Y142.38 E239.40783
G1 X205.57 Y143.88 E239.48996
G1 X204.84 Y145.34 E239.57156
G1 X204.03 Y146.77 E239.65325
G1 X203.16 Y148.16 E239.73515
G1 X202.21 Y149.51 E239.81720
G1 X201.21 Y150.79 E239.89851
G1 X200.14 Y152.04 E239.98031
G1 X199.70 Y152.50 E240.01218
G1 X200.07 Y152.88 E240.03839
G1 X201.13 Y154.12 E240.11996
G1 X202.14 Y155.40 E240.20155
G1 X203.09 Y156.75 E240.28355
G1 X203.97 Y158.13 E240.36517
G1 X204.78 Y159.55 E240.44704
G1 X205.52 Y161.02 E240.52881
G1 X206.05 Y162.21 E240.59418
G1 X206.20 Y162.53 E240.61149
G1 X206.78 Y164.06 E240.69310
G1 X207.30 Y165.60 E240.77413
G1 X207.74 Y167.18 E240.85610
G1 X208.10 Y168.77 E240.93754
G1 X208.38 Y170.39 E241.01961
G1 X208.59 Y172.02 E241.10161
G1 X208.71 Y173.65 E241.18306
G1 X208.74 Y174.92 E241.24644
G1 X208.75 Y175.31 E241.26611
G1 X208.71 Y176.94 E241.34710
G1 X208.60 Y178.56 E241.42823
G1 X208.40 Y180.20 E241.51050
G1 X208.12 Y181.81 E241.59221
G1 X207.77 Y183.41 E241.67373
G1 X207.33 Y185.00 E241.75599
G1 X206.82 Y186.55 E241.83751
G1 X206.23 Y188.08 E241.91914
G1 X205.57 Y189.58 E242.00127
G1 X204.84 Y191.04 E242.08287
G1 X204.03 Y192.47 E242.16456
G1 X203.16 Y193.86 E242.24646
G1 X202.21 Y195.21 E242.32851
G1 X201.21 Y196.49 E242.40982
G1 X200.14 Y197.74 E242.49162
G1 X199.01 Y198.93 E242.57385
G1 X197.82 Y200.07 E242.65585
G1 X196.58 Y201.13 E242.73742
G1 X195.29 Y202.14 E242.81901
G1 X193.95 Y203.09 E242.90101
G1 X192.57 Y203.97 E242.98263
G1 X191.15 Y204.78 E243.06450
G1 X189.68 Y205.52 E243.14627
G1 X188.49 Y206.05 E243.21164
G1 X188.17 Y206.20 E243.22894
G1 X186.64 Y206.78 E243.31056
G1 X185.10 Y207.30 E243.39159
G1 X183.52 Y207.74 E243.47356
G1 X181.93 Y208.10 E243.55500
G1 X180.31 Y208.38 E243.63707
G1 X178.68 Y208.59 E243.71907
G1 X177.05 Y208.71 E243.80052
G1 X175.78 Y208.74 E243.86395
G1 X175.38 Y208.75 E243.88362
G1 X173.76 Y208.71 E243.96456
G1 X172.14 Y208.60 E244.04569
G1 X170.50 Y208.40 E244.12796
G1 X168.89 Y208.12 E244.20967
G1 X167.29 Y207.77 E244.29118
G1 X165.70 Y207.33 E244.37345
G1 X164.15 Y206.82 E244.45497
G1 X162.62 Y206.23 E244.53660
G1 X161.12 Y205.57 E244.61873
G1 X159.66 Y204.84 E244.70033
G1 X158.23 Y204.03 E244.78202
G1 X156.84 Y203.16 E244.86392
G1 X155.49 Y202.21 E244.94597
G1 X154.21 Y201.21 E245.02728
G1 X152.96 Y200.14 E245.10908
G1 X152.50 Y199.70 E245.14095
G1 X152.12 Y200.07 E245.16716
G1 X150.88 Y201.13 E245.24873
G1 X149.60 Y202.14 E245.33032
G1 X148.25 Y203.09 E245.41232
G1 X146.87 Y203.97 E245.49394
G1 X145.45 Y204.78 E245.57581
G1 X143.98 Y205.52 E245.65758
G1 X142.79 Y206.05 E245.72295
G1 X142.47 Y206.20 E245.74026
G1 X140.94 Y206.78 E245.82187
G1 X139.40 Y207.30 E245.90290
G1 X137.82 Y207.74 E245.98487
G1 X136.23 Y208.10 E246.06631
G1 X134.61 Y208.38 E246.14838
G1 X132.98 Y208.59 E246.23038
G1 X131.35 Y208.71 E246.31183
G1 X130.08 Y208.74 E246.37521
G1 X129.69 Y208.75 E246.39488
G1 X128.06 Y208.71 E246.47587
G1 X126.44 Y208.60 E246.55700
G1 X124.80 Y208.40 E246.63927
G1 X123.19 Y208.12 E246.72098
G1 X121.59 Y207.77 E246.80250
G1 X120.00 Y207.33 E246.88476
G1 X118.45 Y206.82 E246.96628
G1 X116.92 Y206.23 E247.04791
G1 X115.42 Y205.57 E247.13004
G1 X113.96 Y204.84 E247.21164
G1 X112.53 Y204.03 E247.29333
G1 X111.14 Y203.16 E247.37523
G1 X109.80 Y202.21 E247.45728
G1 X108.51 Y201.21 E247.53859
G1 X107.26 Y200.14 E247.62039
G1 X106.06 Y199.00 E247.70290
G1 X104.94 Y197.82 E247.78459
G1 X103.87 Y196.59 E247.86594
G1 X102.86 Y195.29 E247.94778
G1 X101.91 Y193.95 E248.02978
G1 X101.03 Y192.57 E248.11140
G1 X100.22 Y191.15 E248.19327
G1 X99.48 Y189.68 E248.27504
G1 X98.95 Y188.49 E248.34041
G1 X98.80 Y188.17 E248.35771
G1 X98.22 Y186.64 E248.43933
G1 X97.70 Y185.10 E248.52036
G1 X97.26 Y183.52 E248.60233
G1 X96.90 Y181.93 E248.68377
G1 X96.62 Y180.31 E248.76584
G1 X96.41 Y178.68 E248.84783
G1 X96.29 Y177.05 E248.92929
G1 X96.26 Y175.74 E248.99466
G1 X96.25 Y175.38 E249.01238
G1 X96.29 Y173.76 E249.09333
G1 X96.40 Y172.14 E249.17446
G1 X96.60 Y170.50 E249.25672
G1 X96.88 Y168.89 E249.33844
G1 X97.23 Y167.29 E249.41995
G1 X97.67 Y165.70 E249.50222
G1 X98.18 Y164.15 E249.58374
G1 X98.77 Y162.62 E249.66537
G1 X99.43 Y161.12 E249.74750
G1 X100.16 Y159.66 E249.82909
G1 X100.97 Y158.23 E249.91079
G1 X101.84 Y156.84 E249.99251
G1 X102.79 Y155.49 E250.07478
G1 X103.80 Y154.20 E250.15651
G1 X104.86 Y152.96 E250.23792
G1 X105.30 Y152.50 E250.26968
G1 X104.93 Y152.12 E250.29593
G1 X103.86 Y150.88 E250.37750
G1 X102.86 Y149.60 E250.45909
G1 X101.91 Y148.25 E250.54109
G1 X101.03 Y146.87 E250.62270
G1 X100.22 Y145.45 E250.70457
G1 X99.48 Y143.98 E250.78635
G1 X98.95 Y142.79 E250.85172
G1 X98.80 Y142.47 E250.86902
G1 X98.22 Y140.94 E250.95064
G1 X97.70 Y139.40 E251.03167
G1 X97.26 Y137.82 E251.11364
G1 X96.90 Y136.23 E251.19508
G1 X96.62 Y134.61 E251.27714
G1 X96.41 Y132.98 E251.35914
G1 X96.29 Y131.35 E251.44060
G1 X96.26 Y130.04 E251.50597
G1 X96.25 Y129.68 E251.52369
G1 X96.29 Y128.06 E251.60464
G1 X96.40 Y126.44 E251.68577
G1 X96.60 Y124.80 E251.76803
G1 X96.88 Y123.19 E251.84975
G1 X97.23 Y121.59 E251.93126
G1 X97.67 Y120.00 E252.01353
G1 X98.18 Y118.45 E252.09505
G1 X98.77 Y116.92 E252.17668
G1 X99.43 Y115.42 E252.25881
G1 X100.16 Y113.96 E252.34040
G1 X100.97 Y112.53 E252.42210
G1 X101.84 Y111.14 E252.50382
G1 X102.79 Y109.79 E252.58609
G1 X103.80 Y108.50 E252.66782
G1 X104.86 Y107.26 E252.74922
G1 X105.99 Y106.07 E252.83117
G0 F12000 X106.27 Y106.35
G1 F2400 X107.45 Y105.23 E252.91240
G1 X108.67 Y104.17 E252.99297
G1 X109.94 Y103.18 E253.07361
G1 X111.27 Y102.24 E253.15482
G1 X112.64 Y101.37 E253.23533
G1 X114.04 Y100.57 E253.31602
G1 X115.49 Y99.84 E253.39694
G1 X116.61 Y99.34 E253.45845
G1 X116.98 Y99.17 E253.47863
G1 X118.49 Y98.59 E253.55924
G1 X120.02 Y98.09 E253.63932
G1 X121.58 Y97.65 E253.72031
G1 X123.15 Y97.29 E253.80079
G1 X124.75 Y97.01 E253.88188
G1 X126.36 Y96.81 E253.96287
G1 X127.97 Y96.69 E254.04338
G1 X129.24 Y96.66 E254.10641
G1 X129.62 Y96.65 E254.12548
G1 X131.22 Y96.69 E254.20542
G1 X132.82 Y96.80 E254.28560
G1 X134.44 Y97.00 E254.36687
G1 X136.03 Y97.27 E254.44762
G1 X137.61 Y97.62 E254.52816
G1 X139.18 Y98.05 E254.60945
G1 X140.72 Y98.56 E254.68997
G1 X142.22 Y99.14 E254.77063
G1 X143.71 Y99.79 E254.85174
G1 X145.16 Y100.52 E254.93237
G1 X146.57 Y101.31 E255.01309
G1 X147.94 Y102.18 E255.09405
G1 X149.27 Y103.11 E255.17509
G1 X150.54 Y104.10 E255.25540
G1 X151.77 Y105.15 E255.33625
G1 X152.50 Y105.85 E255.38657
G1 X153.15 Y105.23 E255.43131
G1 X154.37 Y104.17 E255.51189
G1 X155.64 Y103.18 E255.59252
G1 X156.97 Y102.24 E255.67355
G1 X158.33 Y101.37 E255.75420
G1 X159.74 Y100.57 E255.83509
G1 X161.19 Y99.84 E255.91586
G1 X162.31 Y99.34 E255.97736
G1 X162.68 Y99.17 E255.99755
G1 X164.19 Y98.59 E256.07816
G1 X165.71 Y98.09 E256.15824
G1 X167.28 Y97.65 E256.23923
G1 X168.85 Y97.29 E256.31970
G1 X170.45 Y97.01 E256.40080
G1 X172.06 Y96.81 E256.48179
G1 X173.67 Y96.69 E256.56229
G1 X174.94 Y96.66 E256.62532
G1 X175.32 Y96.65 E256.64439
G1 X176.92 Y96.69 E256.72434
G1 X178.52 Y96.80 E256.80452
G1 X180.14 Y97.00 E256.88578
G1 X181.73 Y97.27 E256.96653
G1 X183.31 Y97.62 E257.04707
G1 X184.88 Y98.05 E257.12836
G1 X186.41 Y98.56 E257.20889
G1 X187.92 Y99.14 E257.28955
G1 X189.41 Y99.79 E257.37066
G1 X190.86 Y100.52 E257.45129
G1 X192.26 Y101.31 E257.53200
G1 X193.64 Y102.18 E257.61296
G1 X194.97 Y103.11 E257.69400
G1 X196.24 Y104.10 E257.77432
G1 X197.47 Y105.15 E257.85516
G1 X198.65 Y106.28 E257.93643
G1 X199.77 Y107.45 E258.01742
G1 X200.83 Y108.67 E258.09799
G1 X201.82 Y109.94 E258.17862
G1 X202.76 Y111.27 E258.25966
G1 X203.63 Y112.64 E258.34031
G1 X204.43 Y114.04 E258.42119
G1 X205.16 Y115.49 E258.50196
G1 X205.66 Y116.61 E258.56347
G1 X205.83 Y116.98 E258.58365
G1 X206.41 Y118.49 E258.66426
G1 X206.91 Y120.02 E258.74434
G1 X207.35 Y121.58 E258.82533
G1 X207.71 Y123.15 E258.90581
G1 X207.99 Y124.75 E258.98690
G1 X208.19 Y126.36 E259.06789
G1 X208.31 Y127.97 E259.14835
G1 X208.34 Y129.23 E259.21133
G1 X208.35 Y129.62 E259.23045
G1 X208.31 Y131.22 E259.31044
G1 X208.20 Y132.82 E259.39062
G1 X208.00 Y134.44 E259.47189
G1 X207.73 Y136.03 E259.55264
G1 X207.38 Y137.61 E259.63318
G1 X206.95 Y139.18 E259.71446
G1 X206.44 Y140.72 E259.79499
G1 X205.86 Y142.22 E259.87565
G1 X205.21 Y143.71 E259.95676
G1 X204.48 Y145.16 E260.03739
G1 X203.69 Y146.57 E260.11811
G1 X202.82 Y147.94 E260.19907
G1 X201.89 Y149.27 E260.28011
G1 X200.90 Y150.54 E260.36042
G1 X199.85 Y151.77 E260.44127
G1 X199.15 Y152.50 E260.49163
G1 X199.77 Y153.15 E260.53633
G1 X200.83 Y154.37 E260.61691
G1 X201.82 Y155.64 E260.69754
G1 X202.76 Y156.97 E260.77857
G1 X203.63 Y158.33 E260.85922
G1 X204.43 Y159.74 E260.94011
G1 X205.16 Y161.19 E261.02088
G1 X205.66 Y162.31 E261.08238
G1 X205.83 Y162.68 E261.10257
G1 X206.41 Y164.19 E261.18318
G1 X206.91 Y165.71 E261.26326
G1 X207.35 Y167.28 E261.34425
G1 X207.71 Y168.85 E261.42472
G1 X207.99 Y170.45 E261.50582
G1 X208.19 Y172.06 E261.58681
G1 X208.31 Y173.67 E261.66726
G1 X208.34 Y174.93 E261.73024
G1 X208.35 Y175.32 E261.74936
G1 X208.31 Y176.92 E261.82936
G1 X208.20 Y178.52 E261.90954
G1 X208.00 Y180.14 E261.99080
G1 X207.73 Y181.73 E262.07155
G1 X207.38 Y183.31 E262.15209
G1 X206.95 Y184.88 E262.23338
G1 X206.44 Y186.41 E262.31390
G1 X205.86 Y187.92 E262.39457
G1 X205.21 Y189.41 E262.47567
G1 X204.48 Y190.86 E262.55631
G1 X203.69 Y192.26 E262.63702
G1 X202.82 Y193.64 E262.71798
G1 X201.89 Y194.97 E262.79902
G1 X200.90 Y196.24 E262.87934
G1 X199.85 Y197.47 E262.96018
G1 X198.72 Y198.65 E263.04145
G1 X197.55 Y199.77 E263.12244
G1 X196.33 Y200.83 E263.20301
G1 X195.06 Y201.82 E263.28364
G1 X193.73 Y202.76 E263.36468
G1 X192.37 Y203.63 E263.44533
G1 X190.96 Y204.43 E263.52621
G1 X189.51 Y205.16 E263.60698
G1 X188.38 Y205.66 E263.66849
G1 X188.02 Y205.83 E263.68867
G1 X186.51 Y206.41 E263.76928
G1 X184.99 Y206.91 E263.84936
G1 X183.42 Y207.35 E263.93035
G1 X181.85 Y207.71 E264.01083
G1 X180.25 Y207.99 E264.09192
G1 X178.64 Y208.19 E264.17291
G1 X177.03 Y208.31 E264.25341
G1 X175.76 Y208.34 E264.31640
G1 X175.38 Y208.35 E264.33552
G1 X173.78 Y208.31 E264.41546
G1 X172.18 Y208.20 E264.49564
G1 X170.56 Y208.00 E264.57691
G1 X168.97 Y207.73 E264.65765
G1 X167.39 Y207.38 E264.73820
G1 X165.82 Y206.95 E264.81948
G1 X164.28 Y206.44 E264.90001
G1 X162.78 Y205.86 E264.98067
G1 X161.29 Y205.21 E265.06178
G1 X159.84 Y204.48 E265.14241
G1 X158.43 Y203.69 E265.22313
G1 X157.06 Y202.82 E265.30409
G1 X155.73 Y201.89 E265.38513
G1 X154.46 Y200.90 E265.46544
G1 X153.23 Y199.85 E265.54629
G1 X152.50 Y199.15 E265.59664
G1 X151.85 Y199.77 E265.64135
G1 X150.63 Y200.83 E265.72193
G1 X149.36 Y201.82 E265.80256
G1 X148.03 Y202.76 E265.88359
G1 X146.67 Y203.63 E265.96424
G1 X145.26 Y204.43 E266.04513
G1 X143.81 Y205.16 E266.12590
G1 X142.69 Y205.66 E266.18740
G1 X142.32 Y205.83 E266.20759
G1 X140.81 Y206.41 E266.28820
G1 X139.29 Y206.91 E266.36828
G1 X137.72 Y207.35 E266.44927
G1 X136.15 Y207.71 E266.52974
G1 X134.55 Y207.99 E266.61084
G1 X132.94 Y208.19 E266.69183
G1 X131.33 Y208.31 E266.77228
G1 X130.07 Y208.34 E266.83526
G1 X129.68 Y208.35 E266.85438
G1 X128.08 Y208.31 E266.93438
G1 X126.48 Y208.20 E267.01456
G1 X124.86 Y208.00 E267.09582
G1 X123.27 Y207.73 E267.17657
G1 X121.69 Y207.38 E267.25711
G1 X120.12 Y206.95 E267.33840
G1 X118.59 Y206.44 E267.41892
G1 X117.08 Y205.86 E267.49959
G1 X115.59 Y205.21 E267.58069
G1 X114.14 Y204.48 E267.66133
G1 X112.73 Y203.69 E267.74204
G1 X111.36 Y202.82 E267.82300
G1 X110.03 Y201.89 E267.90404
G1 X108.76 Y200.90 E267.98436
G1 X107.53 Y199.85 E268.06520
G1 X106.35 Y198.72 E268.14668
G1 X105.23 Y197.55 E268.22742
G1 X104.18 Y196.33 E268.30778
G1 X103.18 Y195.06 E268.38866
G1 X102.24 Y193.73 E268.46970
G1 X101.37 Y192.37 E268.55034
G1 X100.57 Y190.96 E268.63123
G1 X99.84 Y189.51 E268.71200
G1 X99.31 Y188.32 E268.77683
