;-- START GCODE --
;Sliced for Type A Machines Series 1
;Sliced at: Sat 12-03-2016 17:38:05
;Basic settings: Layer height: 0.2 Walls: 0.8 Fill: 8
;Print Speed: 70 Support: 0
;Retraction Speed: 40 Retraction Distance: 1.2
;Print time: #P_TIME#
;Filament used: #F_AMNT#m #F_WGHT#g
;Filament cost: #F_COST#
M106 S255	 ;start with the fan on
G21        ;metric values
G90        ;absolute positioning
M106 S255    ;start with the fan on
G28     ;move to endstops
G29		;allows for auto-levelling
G1 X150 Y5  Z15.0 F12000 ;center and move the platform down 15mm
M109 S220 ;Heat To temp
G92 E0                  ;zero the extruded length
G1 F200 E30              ;extrude 30mm of feed stock
G92 E0                  ;zero the extruded length again
G1 X175 Y25  Z0 F12000 ;remove bugger
G1 X220 F12000 ;remove bugger
G1 X150 Y150  Z15 F12000 ;recenter and begin
G1 F12000

;Layer count: 132
;LAYER:0
M106 S255
G0 F12000 X105.91 Y117.70 Z0.30
;TYPE:SKIRT
G1 F2700 X137.85 Y117.70 E1.59334
G1 X137.85 Y104.88 E2.23284
G1 X167.15 Y104.88 E3.69502
G1 X167.15 Y117.70 E4.33451
G1 X199.09 Y117.70 E5.92785
G1 X199.09 Y147.30 E7.40460
G1 X167.15 Y147.30 E8.99795
G1 X167.15 Y157.70 E9.51681
G1 X199.09 Y157.70 E11.11015
G1 X199.09 Y187.30 E12.58690
G1 X167.15 Y187.30 E14.18024
G1 X167.15 Y200.12 E14.81974
G1 X137.85 Y200.12 E16.28192
G1 X137.85 Y187.30 E16.92141
G1 X105.91 Y187.30 E18.51475
G1 X105.91 Y157.70 E19.99150
G1 X137.85 Y157.70 E21.58485
G1 X137.85 Y147.30 E22.10370
G1 X105.91 Y147.30 E23.69705
G1 X105.91 Y117.70 E25.17380
G0 F12000 X106.31 Y118.10
G1 F2700 X138.25 Y118.10 E26.76714
G1 X138.25 Y105.28 E27.40663
G1 X166.75 Y105.28 E28.82890
G1 X166.75 Y118.10 E29.46840
G1 X198.69 Y118.10 E31.06174
G1 X198.69 Y146.90 E32.49858
G1 X166.75 Y146.90 E34.09192
G1 X166.75 Y158.10 E34.65069
G1 X198.69 Y158.10 E36.24403
G1 X198.69 Y186.90 E37.68087
G1 X166.75 Y186.90 E39.27422
G1 X166.75 Y199.72 E39.91371
G1 X138.25 Y199.72 E41.33598
G1 X138.25 Y186.90 E41.97547
G1 X106.31 Y186.90 E43.56881
G1 X106.31 Y158.10 E45.00565
G1 X138.25 Y158.10 E46.59900
G1 X138.25 Y146.90 E47.15777
G1 X106.31 Y146.90 E48.75111
G1 X106.31 Y118.10 E50.18795
G0 F12000 X106.71 Y118.50
G1 F2700 X138.65 Y118.50 E51.78129
G1 X138.65 Y105.68 E52.42078
G1 X166.35 Y105.68 E53.80314
G1 X166.35 Y118.50 E54.44263
G1 X198.29 Y118.50 E56.03598
G1 X198.29 Y146.50 E57.43290
G1 X166.35 Y146.50 E59.02625
G1 X166.35 Y158.50 E59.62493
G1 X198.29 Y158.50 E61.21827
G1 X198.29 Y186.50 E62.61520
G1 X166.35 Y186.50 E64.20854
G1 X166.35 Y199.32 E64.84803
G1 X138.65 Y199.32 E66.23039
G1 X138.65 Y186.50 E66.86988
G1 X106.71 Y186.50 E68.46323
G1 X106.71 Y158.50 E69.86015
G1 X138.65 Y158.50 E71.45350
G1 X138.65 Y146.50 E72.05218
G1 X106.71 Y146.50 E73.64552
G1 X106.71 Y118.50 E75.04245
G0 F12000 X107.11 Y118.90
G1 F2700 X139.05 Y118.90 E76.63579
G1 X139.05 Y106.08 E77.27528
G1 X165.95 Y106.08 E78.61773
G1 X165.95 Y118.90 E79.25722
G1 X197.89 Y118.90 E80.85057
G1 X197.89 Y146.10 E82.20758
G1 X165.95 Y146.10 E83.80092
G1 X165.95 Y158.90 E84.43952
G1 X197.89 Y158.90 E86.03286
G1 X197.89 Y186.10 E87.38987
G1 X165.95 Y186.10 E88.98322
G1 X165.95 Y198.92 E89.62271
G1 X139.05 Y198.92 E90.96516
G1 X139.05 Y186.10 E91.60465
G1 X107.11 Y186.10 E93.19799
G1 X107.11 Y158.90 E94.55501
G1 X139.05 Y158.90 E96.14835
G1 X139.05 Y146.10 E96.78694
G1 X107.11 Y146.10 E98.38029
G1 X107.11 Y118.90 E99.73730
G0 F12000 X107.51 Y119.30
G1 F2700 X139.45 Y119.30 E101.33064
G1 X139.45 Y106.48 E101.97014
G1 X165.55 Y106.48 E103.27267
G1 X165.55 Y119.30 E103.91216
G1 X197.49 Y119.30 E105.50551
G1 X197.49 Y145.70 E106.82261
G1 X165.55 Y145.70 E108.41595
G1 X165.55 Y159.30 E109.09446
G1 X197.49 Y159.30 E110.68780
G1 X197.49 Y185.70 E112.00490
G1 X165.55 Y185.70 E113.59825
G1 X165.55 Y198.52 E114.23774
G1 X139.45 Y198.52 E115.54027
G1 X139.45 Y185.70 E116.17976
G1 X107.51 Y185.70 E117.77311
G1 X107.51 Y159.30 E119.09021
G1 X139.45 Y159.30 E120.68355
G1 X139.45 Y145.70 E121.36206
G1 X107.51 Y145.70 E122.95540
G1 X107.51 Y119.30 E124.27250
G0 F12000 X107.91 Y119.70
G1 F2700 X139.85 Y119.70 E125.86585
G1 X139.85 Y106.88 E126.50534
G1 X165.15 Y106.88 E127.76796
G1 X165.15 Y119.70 E128.40745
G1 X197.09 Y119.70 E130.00080
G1 X197.09 Y145.30 E131.27799
G1 X165.15 Y145.30 E132.87133
G1 X165.15 Y159.70 E133.58975
G1 X197.09 Y159.70 E135.18309
G1 X197.09 Y185.30 E136.46028
G1 X165.15 Y185.30 E138.05362
G1 X165.15 Y198.12 E138.69312
G1 X139.85 Y198.12 E139.95574
G1 X139.85 Y185.30 E140.59523
G1 X107.91 Y185.30 E142.18857
G1 X107.91 Y159.70 E143.46576
G1 X139.85 Y159.70 E145.05911
G1 X139.85 Y145.30 E145.77753
G1 X107.91 Y145.30 E147.37087
G1 X107.91 Y119.70 E148.64806
G0 F12000 X108.31 Y120.10
G1 F2700 X140.25 Y120.10 E150.24140
G1 X140.25 Y107.28 E150.88089
G1 X164.75 Y107.28 E152.10360
G1 X164.75 Y120.10 E152.74310
G1 X196.69 Y120.10 E154.33644
G1 X196.69 Y144.90 E155.57372
G1 X164.75 Y144.90 E157.16706
G1 X164.75 Y160.10 E157.92539
G1 X196.69 Y160.10 E159.51873
G1 X196.69 Y184.90 E160.75601
G1 X164.75 Y184.90 E162.34935
G1 X164.75 Y197.72 E162.98885
G1 X140.25 Y197.72 E164.21156
G1 X140.25 Y184.90 E164.85105
G1 X108.31 Y184.90 E166.44439
G1 X108.31 Y160.10 E167.68167
G1 X140.25 Y160.10 E169.27501
G1 X140.25 Y144.90 E170.03334
G1 X108.31 Y144.90 E171.62669
G1 X108.31 Y120.10 E172.86396
G0 F12000 X108.71 Y120.50
G1 F2700 X140.65 Y120.50 E174.45731
G1 X140.65 Y107.68 E175.09680
G1 X164.35 Y107.68 E176.27960
G1 X164.35 Y120.50 E176.91909
G1 X196.29 Y120.50 E178.51243
G1 X196.29 Y144.50 E179.70980
G1 X164.35 Y144.50 E181.30314
G1 X164.35 Y160.50 E182.10138
G1 X196.29 Y160.50 E183.69473
G1 X196.29 Y184.50 E184.89209
G1 X164.35 Y184.50 E186.48544
G1 X164.35 Y197.32 E187.12493
G1 X140.65 Y197.32 E188.30773
G1 X140.65 Y184.50 E188.94722
G1 X108.71 Y184.50 E190.54056
G1 X108.71 Y160.50 E191.73793
G1 X140.65 Y160.50 E193.33127
G1 X140.65 Y144.50 E194.12951
G1 X108.71 Y144.50 E195.72286
G1 X108.71 Y120.50 E196.92022
G0 F12000 X109.11 Y120.90
G1 F2700 X141.05 Y120.90 E198.51357
G1 X141.05 Y108.08 E199.15306
G1 X163.95 Y108.08 E200.29594
G1 X163.95 Y120.90 E200.93544
G1 X195.89 Y120.90 E202.52878
G1 X195.89 Y144.10 E203.68623
G1 X163.95 Y144.10 E205.27957
G1 X163.95 Y160.90 E206.11773
G1 X195.89 Y160.90 E207.71107
G1 X195.89 Y184.10 E208.86853
G1 X163.95 Y184.10 E210.46187
G1 X163.95 Y196.92 E211.10136
G1 X141.05 Y196.92 E212.24425
G1 X141.05 Y184.10 E212.88374
G1 X109.11 Y184.10 E214.47708
G1 X109.11 Y160.90 E215.63454
G1 X141.05 Y160.90 E217.22788
G1 X141.05 Y144.10 E218.06603
G1 X109.11 Y144.10 E219.65938
G1 X109.11 Y120.90 E220.81683
G0 F12000 X109.51 Y121.30
G1 F2700 X141.45 Y121.30 E222.41017
G1 X141.45 Y108.48 E223.04967
G1 X163.55 Y108.48 E224.15264
G1 X163.55 Y121.30 E224.79213
G1 X195.49 Y121.30 E226.38548
G1 X195.49 Y143.70 E227.50302
G1 X163.55 Y143.70 E229.09636
G1 X163.55 Y161.30 E229.97443
G1 X195.49 Y161.30 E231.56777
G1 X195.49 Y183.70 E232.68531
G1 X163.55 Y183.70 E234.27865
G1 X163.55 Y196.52 E234.91815
G1 X141.45 Y196.52 E236.02112
G1 X141.45 Y183.70 E236.66061
G1 X109.51 Y183.70 E238.25396
G1 X109.51 Y161.30 E239.37150
G1 X141.45 Y161.30 E240.96484
G1 X141.45 Y143.70 E241.84291
G1 X109.51 Y143.70 E243.43625
G1 X109.51 Y121.30 E244.55379
G0 F12000 X109.91 Y121.70
G1 F2700 X141.85 Y121.70 E246.14713
G1 X141.85 Y108.88 E246.78663
G1 X163.15 Y108.88 E247.84969
G1 X163.15 Y121.70 E248.48918
G1 X195.09 Y121.70 E250.08252
G1 X195.09 Y143.30 E251.16015
G1 X163.15 Y143.30 E252.75349
G1 X163.15 Y161.70 E253.67147
G1 X195.09 Y161.70 E255.26482
G1 X195.09 Y183.30 E256.34245
G1 X163.15 Y183.30 E257.93579
G1 X163.15 Y196.12 E258.57528
G1 X141.85 Y196.12 E259.63834
G1 X141.85 Y183.30 E260.27784
G1 X109.91 Y183.30 E261.87118
G1 X109.91 Y161.70 E262.94881
G1 X141.85 Y161.70 E264.54215
G1 X141.85 Y143.30 E265.46013
G1 X109.91 Y143.30 E267.05347
G1 X109.91 Y121.70 E268.13110
G0 F12000 X110.31 Y122.10
G1 F2700 X142.25 Y122.10 E269.72445
G1 X142.25 Y109.28 E270.36394
G1 X162.75 Y109.28 E271.38709
G1 X162.75 Y122.10 E272.02658
G1 X194.69 Y122.10 E273.61992
G1 X194.69 Y142.90 E274.65764
G1 X162.75 Y142.90 E276.25098
G1 X162.75 Y162.10 E277.20887
G1 X194.69 Y162.10 E278.80222
G1 X194.69 Y182.90 E279.83993
G1 X162.75 Y182.90 E281.43328
G1 X162.75 Y195.72 E282.07277
G1 X142.25 Y195.72 E283.09592
G1 X142.25 Y182.90 E283.73541
G1 X110.31 Y182.90 E285.32875
G1 X110.31 Y162.10 E286.36647
G1 X142.25 Y162.10 E287.95981
G1 X142.25 Y142.90 E288.91771
G1 X110.31 Y142.90 E290.51105
G1 X110.31 Y122.10 E291.54876
G0 F12000 X110.71 Y122.50
G1 F2700 X142.65 Y122.50 E293.14211
G1 X142.65 Y109.68 E293.78160
G1 X162.35 Y109.68 E294.76484
G1 X162.35 Y122.50 E295.40433
G1 X194.29 Y122.50 E296.99767
G1 X194.29 Y142.50 E297.99548
G1 X162.35 Y142.50 E299.58882
G1 X162.35 Y162.50 E300.58662
G1 X194.29 Y162.50 E302.17997
G1 X194.29 Y182.50 E303.17777
G1 X162.35 Y182.50 E304.77112
G1 X162.35 Y195.32 E305.41061
G1 X142.65 Y195.32 E306.39384
G1 X142.65 Y182.50 E307.03334
G1 X110.71 Y182.50 E308.62668
G1 X110.71 Y162.50 E309.62448
G1 X142.65 Y162.50 E311.21783
G1 X142.65 Y142.50 E312.21563
G1 X110.71 Y142.50 E313.80898
G1 X110.71 Y122.50 E314.80678
G0 F12000 X111.11 Y122.90
G1 F2700 X143.05 Y122.90 E316.40012
G1 X143.05 Y110.08 E317.03962
G1 X161.95 Y110.08 E317.98294
G1 X161.95 Y122.90 E318.62243
G1 X193.89 Y122.90 E320.21578
G1 X193.89 Y142.10 E321.17367
G1 X161.95 Y142.10 E322.76701
G1 X161.95 Y162.90 E323.80473
G1 X193.89 Y162.90 E325.39807
G1 X193.89 Y182.10 E326.35596
G1 X161.95 Y182.10 E327.94931
G1 X161.95 Y194.92 E328.58880
G1 X143.05 Y194.92 E329.53212
G1 X143.05 Y182.10 E330.17161
G1 X111.11 Y182.10 E331.76496
G1 X111.11 Y162.90 E332.72285
G1 X143.05 Y162.90 E334.31619
G1 X143.05 Y142.10 E335.35391
G1 X111.11 Y142.10 E336.94725
G1 X111.11 Y122.90 E337.90514
G0 F12000 X111.51 Y123.30
G1 F2700 X143.45 Y123.30 E339.49849
G1 X143.45 Y110.48 E340.13798
G1 X161.55 Y110.48 E341.04139
G1 X161.55 Y123.30 E341.68089
G1 X193.49 Y123.30 E343.27423
G1 X193.49 Y141.70 E344.19221
G1 X161.55 Y141.70 E345.78555
G1 X161.55 Y163.30 E346.86318
G1 X193.49 Y163.30 E348.45652
G1 X193.49 Y181.70 E349.37450
G1 X161.55 Y181.70 E350.96785
G1 X161.55 Y194.52 E351.60734
G1 X143.45 Y194.52 E352.51075
G1 X143.45 Y181.70 E353.15024
G1 X111.51 Y181.70 E354.74359
G1 X111.51 Y163.30 E355.66157
G1 X143.45 Y163.30 E357.25491
G1 X143.45 Y141.70 E358.33254
G1 X111.51 Y141.70 E359.92588
G1 X111.51 Y123.30 E360.84386
G0 F12000 X111.91 Y123.70
G1 F2700 X143.85 Y123.70 E362.43720
G1 X143.85 Y110.88 E363.07670
G1 X161.15 Y110.88 E363.94020
G1 X161.15 Y123.70 E364.57969
G1 X193.09 Y123.70 E366.17303
G1 X193.09 Y141.30 E367.05110
G1 X161.15 Y141.30 E368.64444
G1 X161.15 Y163.70 E369.76198
G1 X193.09 Y163.70 E371.35533
G1 X193.09 Y181.30 E372.23340
G1 X161.15 Y181.30 E373.82674
G1 X161.15 Y194.12 E374.46623
G1 X143.85 Y194.12 E375.32973
G1 X143.85 Y181.30 E375.96922
G1 X111.91 Y181.30 E377.56257
G1 X111.91 Y163.70 E378.44063
G1 X143.85 Y163.70 E380.03398
G1 X143.85 Y141.30 E381.15152
G1 X111.91 Y141.30 E382.74486
G1 X111.91 Y123.70 E383.62293
G0 F12000 X112.31 Y124.10
G1 F2700 X144.25 Y124.10 E385.21627
G1 X144.25 Y111.28 E385.85577
G1 X160.75 Y111.28 E386.67935
G1 X160.75 Y124.10 E387.31885
G1 X192.69 Y124.10 E388.91219
G1 X192.69 Y140.90 E389.75034
G1 X160.75 Y140.90 E391.34369
G1 X160.75 Y164.10 E392.50114
G1 X192.69 Y164.10 E394.09448
G1 X192.69 Y180.90 E394.93264
G1 X160.75 Y180.90 E396.52598
G1 X160.75 Y193.72 E397.16548
G1 X144.25 Y193.72 E397.98906
G1 X144.25 Y180.90 E398.62856
G1 X112.31 Y180.90 E400.22190
G1 X112.31 Y164.10 E401.06005
G1 X144.25 Y164.10 E402.65340
G1 X144.25 Y140.90 E403.81085
G1 X112.31 Y140.90 E405.40419
G1 X112.31 Y124.10 E406.24235
G0 F12000 X112.71 Y124.50
G1 F2700 X144.65 Y124.50 E407.83569
G1 X144.65 Y111.68 E408.47519
G1 X160.35 Y111.68 E409.25886
G1 X160.35 Y124.50 E409.89835
G1 X192.29 Y124.50 E411.49170
G1 X192.29 Y140.50 E412.28994
G1 X160.35 Y140.50 E413.88328
G1 X160.35 Y164.50 E415.08065
G1 X192.29 Y164.50 E416.67399
G1 X192.29 Y180.50 E417.47223
G1 X160.35 Y180.50 E419.06558
G1 X160.35 Y193.32 E419.70507
G1 X144.65 Y193.32 E420.48875
G1 X144.65 Y180.50 E421.12824
G1 X112.71 Y180.50 E422.72158
G1 X112.71 Y164.50 E423.51983
G1 X144.65 Y164.50 E425.11317
G1 X144.65 Y140.50 E426.31053
G1 X112.71 Y140.50 E427.90388
G1 X112.71 Y124.50 E428.70212
G0 F12000 X113.11 Y124.90
G1 F2700 X145.05 Y124.90 E430.29546
G1 X145.05 Y112.08 E430.93496
G1 X159.95 Y112.08 E431.67872
G1 X159.95 Y124.90 E432.31821
G1 X191.89 Y124.90 E433.91156
G1 X191.89 Y140.10 E434.66989
G1 X159.95 Y140.10 E436.26323
G1 X159.95 Y164.90 E437.50051
G1 X191.89 Y164.90 E439.09385
G1 X191.89 Y180.10 E439.85218
G1 X159.95 Y180.10 E441.44552
G1 X159.95 Y192.92 E442.08502
G1 X145.05 Y192.92 E442.82878
G1 X145.05 Y180.10 E443.46827
G1 X113.11 Y180.10 E445.06162
G1 X113.11 Y164.90 E445.81995
G1 X145.05 Y164.90 E447.41329
G1 X145.05 Y140.10 E448.65057
G1 X113.11 Y140.10 E450.24391
G1 X113.11 Y124.90 E451.00224
G0 F12000 X113.51 Y125.30
G1 F2700 X145.45 Y125.30 E452.59559
G1 X145.45 Y112.48 E453.23508
G1 X159.55 Y112.48 E453.93893
G1 X159.55 Y125.30 E454.57842
G1 X191.49 Y125.30 E456.17177
G1 X191.49 Y139.70 E456.89018
G1 X159.55 Y139.70 E458.48353
G1 X159.55 Y165.30 E459.76072
G1 X191.49 Y165.30 E461.35406
G1 X191.49 Y179.70 E462.07248
G1 X159.55 Y179.70 E463.66582
G1 X159.55 Y192.52 E464.30532
G1 X145.45 Y192.52 E465.00917
G1 X145.45 Y179.70 E465.64866
G1 X113.51 Y179.70 E467.24200
G1 X113.51 Y165.30 E467.96042
G1 X145.45 Y165.30 E469.55376
G1 X145.45 Y139.70 E470.83095
G1 X113.51 Y139.70 E472.42430
G1 X113.51 Y125.30 E473.14272
G0 F12000 X113.91 Y125.70
G1 F2700 X145.85 Y125.70 E474.73606
G1 X145.85 Y112.88 E475.37555
G1 X159.15 Y112.88 E476.03949
G1 X159.15 Y125.70 E476.67898
G1 X191.09 Y125.70 E478.27233
G1 X191.09 Y139.30 E478.95083
G1 X159.15 Y139.30 E480.54418
G1 X159.15 Y152.12 E481.18372
G1 X145.85 Y152.12 E481.84766
G1 X145.85 Y139.30 E482.48720
G1 X113.91 Y139.30 E484.08054
G1 X113.91 Y125.70 E484.75905
G0 F12000 X114.31 Y126.10
G1 F2700 X146.25 Y126.10 E486.35239
G1 X146.25 Y113.28 E486.99189
G1 X158.75 Y113.28 E487.61591
G1 X158.75 Y126.10 E488.25541
G1 X190.69 Y126.10 E489.84875
G1 X190.69 Y138.90 E490.48734
G1 X158.75 Y138.90 E492.08069
G1 X158.75 Y151.72 E492.72023
G1 X146.25 Y151.72 E493.34426
G1 X146.25 Y138.90 E493.98380
G1 X114.31 Y138.90 E495.57714
G1 X114.31 Y126.10 E496.21574
G0 F12000 X114.71 Y126.50
G1 F2700 X146.65 Y126.50 E497.80908
G1 X146.65 Y113.68 E498.44857
G1 X158.35 Y113.68 E499.03269
G1 X158.35 Y126.50 E499.67218
G1 X190.29 Y126.50 E501.26552
G1 X190.29 Y138.50 E501.86421
G1 X158.35 Y138.50 E503.45755
G1 X158.35 Y151.32 E504.09709
G1 X146.65 Y151.32 E504.68121
G1 X146.65 Y138.50 E505.32075
G1 X114.71 Y138.50 E506.91409
G1 X114.71 Y126.50 E507.51278
G0 F12000 X115.11 Y126.90
G1 F2700 X147.05 Y126.90 E509.10612
G1 X147.05 Y114.08 E509.74561
G1 X157.95 Y114.08 E510.28981
G1 X157.95 Y126.90 E510.92931
G1 X189.89 Y126.90 E512.52265
G1 X189.89 Y138.10 E513.08142
G1 X157.95 Y138.10 E514.67476
G1 X157.95 Y150.92 E515.31431
G1 X147.05 Y150.92 E515.85851
G1 X147.05 Y138.10 E516.49805
G1 X115.11 Y138.10 E518.09139
G1 X115.11 Y126.90 E518.65016
G0 F12000 X115.51 Y127.30
G1 F2700 X147.45 Y127.30 E520.24351
G1 X147.45 Y114.48 E520.88300
G1 X157.55 Y114.48 E521.38729
G1 X157.55 Y127.30 E522.02678
G1 X189.49 Y127.30 E523.62013
G1 X189.49 Y137.70 E524.13898
G1 X157.55 Y137.70 E525.73233
G1 X157.55 Y150.52 E526.37187
G1 X147.45 Y150.52 E526.87616
G1 X147.45 Y137.70 E527.51570
G1 X115.51 Y137.70 E529.10905
G1 X115.51 Y127.30 E529.62790
G0 F12000 X113.91 Y165.70
G1 F2700 X145.85 Y165.70 E531.22125
G1 X145.85 Y152.88 E531.86079
G1 X159.15 Y152.88 E532.52473
G1 X159.15 Y165.70 E533.16427
G1 X191.09 Y165.70 E534.75762
G1 X191.09 Y179.30 E535.43612
G1 X159.15 Y179.30 E537.02947
G1 X159.15 Y192.12 E537.66896
G1 X145.85 Y192.12 E538.33290
G1 X145.85 Y179.30 E538.97239
G1 X113.91 Y179.30 E540.56573
G1 X113.91 Y165.70 E541.24424
G0 F12000 X114.31 Y166.10
G1 F2700 X146.25 Y166.10 E542.83758
G1 X146.25 Y153.28 E543.47713
G1 X158.75 Y153.28 E544.10115
G1 X158.75 Y166.10 E544.74069
G1 X190.69 Y166.10 E546.33404
G1 X190.69 Y178.90 E546.97263
G1 X158.75 Y178.90 E548.56598
G1 X158.75 Y191.72 E549.20547
G1 X146.25 Y191.72 E549.82950
G1 X146.25 Y178.90 E550.46899
G1 X114.31 Y178.90 E552.06233
G1 X114.31 Y166.10 E552.70093
G0 F12000 X114.71 Y166.50
G1 F2700 X146.65 Y166.50 E554.29427
G1 X146.65 Y153.68 E554.93381
G1 X158.35 Y153.68 E555.51793
G1 X158.35 Y166.50 E556.15747
G1 X190.29 Y166.50 E557.75081
G1 X190.29 Y178.50 E558.34949
G1 X158.35 Y178.50 E559.94284
G1 X158.35 Y191.32 E560.58233
G1 X146.65 Y191.32 E561.16645
G1 X146.65 Y178.50 E561.80594
G1 X114.71 Y178.50 E563.39928
G1 X114.71 Y166.50 E563.99796
G0 F12000 X115.11 Y166.90
G1 F2700 X147.05 Y166.90 E565.59131
G1 X147.05 Y154.08 E566.23085
G1 X157.95 Y154.08 E566.77505
G1 X157.95 Y166.90 E567.41459
G1 X189.89 Y166.90 E569.00794
G1 X189.89 Y178.10 E569.56671
G1 X157.95 Y178.10 E571.16005
G1 X157.95 Y190.92 E571.79954
G1 X147.05 Y190.92 E572.34375
G1 X147.05 Y178.10 E572.98324
G1 X115.11 Y178.10 E574.57658
G1 X115.11 Y166.90 E575.13535
G0 F12000 X115.51 Y167.30
G1 F2700 X147.45 Y167.30 E576.72870
G1 X147.45 Y154.48 E577.36824
G1 X157.55 Y154.48 E577.87253
G1 X157.55 Y167.30 E578.51207
G1 X189.49 Y167.30 E580.10541
G1 X189.49 Y177.70 E580.62427
G1 X157.55 Y177.70 E582.21762
G1 X157.55 Y190.52 E582.85711
G1 X147.45 Y190.52 E583.36140
G1 X147.45 Y177.70 E584.00089
G1 X115.51 Y177.70 E585.59424
G1 X115.51 Y167.30 E586.11309
G1 F2400 E584.91309
G0 F12000 X116.31 Y136.90
;TYPE:WALL-INNER
G1 F2400 E586.11309
G1 F2700 X116.31 Y128.10 E586.55213
G1 X148.25 Y128.10 E588.14547
G1 X148.25 Y115.28 E588.78496
G1 X156.75 Y115.28 E589.20943
G1 X156.75 Y128.10 E589.84892
G1 X188.69 Y128.10 E591.44226
G1 X188.69 Y136.90 E591.88130
G1 X156.75 Y136.90 E593.47464
G1 X156.75 Y149.72 E594.11418
G1 X148.25 Y149.72 E594.53865
G1 X148.25 Y136.90 E595.17819
G1 X116.31 Y136.90 E596.77154
G0 F12000 X115.91 Y137.30
;TYPE:WALL-OUTER
G1 F2700 X115.91 Y127.70 E597.25048
G1 X147.85 Y127.70 E598.84383
G1 X147.85 Y114.88 E599.48332
G1 X157.15 Y114.88 E599.94770
G1 X157.15 Y127.70 E600.58719
G1 X189.09 Y127.70 E602.18053
G1 X189.09 Y137.30 E602.65948
G1 X157.15 Y137.30 E604.25282
G1 X157.15 Y150.12 E604.89236
G1 X147.85 Y150.12 E605.35674
G1 X147.85 Y137.30 E605.99628
G1 X115.91 Y137.30 E607.58963
G0 F12000 X116.68 Y136.76
;TYPE:FILL
G1 F2700 X116.45 Y136.53 E607.60579
G0 F12000 X116.45 Y135.96
G1 F2700 X117.24 Y136.76 E607.66188
G0 F12000 X117.81 Y136.76
G1 F2700 X116.45 Y135.40 E607.75787
G0 F12000 X116.45 Y134.83
G1 F2700 X118.37 Y136.76 E607.89376
G0 F12000 X118.94 Y136.76
G1 F2700 X116.45 Y134.27 E608.06958
G0 F12000 X116.45 Y133.70
G1 F2700 X119.50 Y136.76 E608.28530
G0 F12000 X120.07 Y136.76
G1 F2700 X116.45 Y133.14 E608.54093
G0 F12000 X116.45 Y132.57
G1 F2700 X120.64 Y136.76 E608.83648
G0 F12000 X121.20 Y136.76
G1 F2700 X116.45 Y132.00 E609.17197
G0 F12000 X116.45 Y131.44
G1 F2700 X121.77 Y136.76 E609.54733
G0 F12000 X122.33 Y136.76
G1 F2700 X116.45 Y130.87 E609.96262
G0 F12000 X116.45 Y130.31
G1 F2700 X122.90 Y136.76 E610.41784
G0 F12000 X123.47 Y136.76
G1 F2700 X116.45 Y129.74 E610.91293
G0 F12000 X116.45 Y129.18
G1 F2700 X124.03 Y136.76 E611.44795
G0 F12000 X124.60 Y136.76
G1 F2700 X116.45 Y128.61 E612.02291
G0 F12000 X116.64 Y128.24
G1 F2700 X125.16 Y136.76 E612.62397
G0 F12000 X125.73 Y136.76
G1 F2700 X117.21 Y128.24 E613.22503
G0 F12000 X117.77 Y128.24
G1 F2700 X126.29 Y136.76 E613.82613
G0 F12000 X126.86 Y136.76
G1 F2700 X118.34 Y128.24 E614.42719
G0 F12000 X118.91 Y128.24
G1 F2700 X127.42 Y136.76 E615.02825
G0 F12000 X127.99 Y136.76
G1 F2700 X119.47 Y128.24 E615.62931
G0 F12000 X120.04 Y128.24
G1 F2700 X128.56 Y136.76 E616.23037
G0 F12000 X129.12 Y136.76
G1 F2700 X120.60 Y128.24 E616.83143
G0 F12000 X121.17 Y128.24
G1 F2700 X129.69 Y136.76 E617.43249
G0 F12000 X130.25 Y136.76
G1 F2700 X121.73 Y128.24 E618.03359
G0 F12000 X122.30 Y128.24
G1 F2700 X130.82 Y136.76 E618.63465
G0 F12000 X131.38 Y136.76
G1 F2700 X122.87 Y128.24 E619.23571
G0 F12000 X123.43 Y128.24
G1 F2700 X131.95 Y136.76 E619.83681
G0 F12000 X132.52 Y136.76
G1 F2700 X124.00 Y128.24 E620.43787
G0 F12000 X124.56 Y128.24
G1 F2700 X133.08 Y136.76 E621.03893
G0 F12000 X133.65 Y136.76
G1 F2700 X125.13 Y128.24 E621.64003
G0 F12000 X125.69 Y128.24
G1 F2700 X134.21 Y136.76 E622.24109
G0 F12000 X134.78 Y136.76
G1 F2700 X126.26 Y128.24 E622.84215
G0 F12000 X126.83 Y128.24
G1 F2700 X135.34 Y136.76 E623.44325
G0 F12000 X135.91 Y136.76
G1 F2700 X127.39 Y128.24 E624.04431
G0 F12000 X127.96 Y128.24
G1 F2700 X136.48 Y136.76 E624.64537
G0 F12000 X137.04 Y136.76
G1 F2700 X128.52 Y128.24 E625.24643
G0 F12000 X129.09 Y128.24
G1 F2700 X137.61 Y136.76 E625.84750
G0 F12000 X138.17 Y136.76
G1 F2700 X129.65 Y128.24 E626.44856
G0 F12000 X130.22 Y128.24
G1 F2700 X138.74 Y136.76 E627.04962
G0 F12000 X139.30 Y136.76
G1 F2700 X130.78 Y128.24 E627.65068
G0 F12000 X131.35 Y128.24
G1 F2700 X139.87 Y136.76 E628.25174
G0 F12000 X140.44 Y136.76
G1 F2700 X131.92 Y128.24 E628.85280
G0 F12000 X132.48 Y128.24
G1 F2700 X141.00 Y136.76 E629.45390
G0 F12000 X141.57 Y136.76
G1 F2700 X133.05 Y128.24 E630.05496
G0 F12000 X133.61 Y128.24
G1 F2700 X142.13 Y136.76 E630.65602
G0 F12000 X142.70 Y136.76
G1 F2700 X134.18 Y128.24 E631.25712
G0 F12000 X134.75 Y128.24
G1 F2700 X143.26 Y136.76 E631.85818
G0 F12000 X143.83 Y136.76
G1 F2700 X135.31 Y128.24 E632.45924
G0 F12000 X135.88 Y128.24
G1 F2700 X144.40 Y136.76 E633.06034
G0 F12000 X144.96 Y136.76
G1 F2700 X136.44 Y128.24 E633.66140
G0 F12000 X137.01 Y128.24
G1 F2700 X145.53 Y136.76 E634.26246
G0 F12000 X146.09 Y136.76
G1 F2700 X137.57 Y128.24 E634.86356
G0 F12000 X138.14 Y128.24
G1 F2700 X146.66 Y136.76 E635.46462
G0 F12000 X147.22 Y136.76
G1 F2700 X138.71 Y128.24 E636.06568
G0 F12000 X139.27 Y128.24
G1 F2700 X147.79 Y136.76 E636.66674
G0 F12000 X148.35 Y136.76
G1 F2700 X139.84 Y128.24 E637.26781
G0 F12000 X140.40 Y128.24
G1 F2700 X156.61 Y144.45 E638.41158
G0 F12000 X156.61 Y145.02
G1 F2700 X148.38 Y136.79 E638.99214
G0 F12000 X148.38 Y137.35
G1 F2700 X156.61 Y145.58 E639.57271
G0 F12000 X156.61 Y146.15
G1 F2700 X148.38 Y137.92 E640.15331
G0 F12000 X148.38 Y138.49
G1 F2700 X156.61 Y146.71 E640.73391
G0 F12000 X156.61 Y147.28
G1 F2700 X148.38 Y139.05 E641.31447
G0 F12000 X148.38 Y139.62
G1 F2700 X156.61 Y147.84 E641.89508
G0 F12000 X156.61 Y148.41
G1 F2700 X148.38 Y140.18 E642.47568
G0 F12000 X148.38 Y140.75
G1 F2700 X156.61 Y148.98 E643.05624
G0 F12000 X156.61 Y149.54
G1 F2700 X148.38 Y141.31 E643.63684
G0 F12000 X148.38 Y141.88
G1 F2700 X156.08 Y149.58 E644.18005
G0 F12000 X155.52 Y149.58
G1 F2700 X148.38 Y142.44 E644.68335
G0 F12000 X148.38 Y143.01
G1 F2700 X154.95 Y149.58 E645.14676
G0 F12000 X154.39 Y149.58
G1 F2700 X148.38 Y143.58 E645.57016
G0 F12000 X148.38 Y144.14
G1 F2700 X153.82 Y149.58 E645.95367
G0 F12000 X153.25 Y149.58
G1 F2700 X148.38 Y144.71 E646.29727
G0 F12000 X148.38 Y145.27
G1 F2700 X152.69 Y149.58 E646.60094
G0 F12000 X152.12 Y149.58
G1 F2700 X148.38 Y145.84 E646.86472
G0 F12000 X148.38 Y146.41
G1 F2700 X151.56 Y149.58 E647.08859
G0 F12000 X150.99 Y149.58
G1 F2700 X148.38 Y146.97 E647.27253
G0 F12000 X148.38 Y147.54
G1 F2700 X150.43 Y149.58 E647.41656
G0 F12000 X149.86 Y149.58
G1 F2700 X148.38 Y148.10 E647.52070
G0 F12000 X148.38 Y148.67
G1 F2700 X149.29 Y149.58 E647.58491
G0 F12000 X148.73 Y149.58
G1 F2700 X148.38 Y149.23 E647.60922
G0 F12000 X156.61 Y143.88
G1 F2700 X140.97 Y128.24 E648.71306
G0 F12000 X141.53 Y128.24
G1 F2700 X156.61 Y143.32 E649.77700
G0 F12000 X156.61 Y142.75
G1 F2700 X142.10 Y128.24 E650.80104
G0 F12000 X142.66 Y128.24
G1 F2700 X156.61 Y142.19 E651.78514
G0 F12000 X156.61 Y141.62
G1 F2700 X143.23 Y128.24 E652.72935
G0 F12000 X143.80 Y128.24
G1 F2700 X156.61 Y141.06 E653.63366
G0 F12000 X156.61 Y140.49
G1 F2700 X144.36 Y128.24 E654.49803
G0 F12000 X144.93 Y128.24
G1 F2700 X156.61 Y139.93 E655.32251
G0 F12000 X156.61 Y139.36
G1 F2700 X145.49 Y128.24 E656.10708
G0 F12000 X146.06 Y128.24
G1 F2700 X156.61 Y138.79 E656.85173
G0 F12000 X156.61 Y138.23
G1 F2700 X146.62 Y128.24 E657.55647
G0 F12000 X147.19 Y128.24
G1 F2700 X156.61 Y137.66 E658.22131
G0 F12000 X156.61 Y137.10
G1 F2700 X147.76 Y128.24 E658.84622
G0 F12000 X148.32 Y128.24
G1 F2700 X156.84 Y136.76 E659.44732
G0 F12000 X157.41 Y136.76
G1 F2700 X148.38 Y127.74 E660.08387
G0 F12000 X148.38 Y127.17
G1 F2700 X157.97 Y136.76 E660.76035
G0 F12000 X158.54 Y136.76
G1 F2700 X148.38 Y126.61 E661.47674
G0 F12000 X148.38 Y126.04
G1 F2700 X159.10 Y136.76 E662.23302
G0 F12000 X159.67 Y136.76
G1 F2700 X148.38 Y125.47 E663.02924
G0 F12000 X148.38 Y124.91
G1 F2700 X160.24 Y136.76 E663.86539
G0 F12000 X160.80 Y136.76
G1 F2700 X148.38 Y124.34 E664.74141
G0 F12000 X148.38 Y123.78
G1 F2700 X161.37 Y136.76 E665.65736
G0 F12000 X161.93 Y136.76
G1 F2700 X148.38 Y123.21 E666.61324
G0 F12000 X148.38 Y122.65
G1 F2700 X162.50 Y136.76 E667.60903
G0 F12000 X163.06 Y136.76
G1 F2700 X148.38 Y122.08 E668.64471
G0 F12000 X148.38 Y121.52
G1 F2700 X163.63 Y136.76 E669.72033
G0 F12000 X164.19 Y136.76
G1 F2700 X148.38 Y120.95 E670.83584
G0 F12000 X148.38 Y120.38
G1 F2700 X164.76 Y136.76 E671.99126
G0 F12000 X165.33 Y136.76
G1 F2700 X156.81 Y128.24 E672.59239
G0 F12000 X156.61 Y128.05
G1 F2700 X148.38 Y119.82 E673.17292
G0 F12000 X148.38 Y119.25
G1 F2700 X156.61 Y127.48 E673.75345
G0 F12000 X156.61 Y126.92
G1 F2700 X148.38 Y118.69 E674.33398
G0 F12000 X148.38 Y118.12
G1 F2700 X156.61 Y126.35 E674.91451
G0 F12000 X156.61 Y125.78
G1 F2700 X148.38 Y117.56 E675.49504
G0 F12000 X148.38 Y116.99
G1 F2700 X156.61 Y125.22 E676.07557
G0 F12000 X156.61 Y124.65
G1 F2700 X148.38 Y116.42 E676.65610
G0 F12000 X148.38 Y115.86
G1 F2700 X156.61 Y124.09 E677.23663
G0 F12000 X156.61 Y123.52
G1 F2700 X148.51 Y115.42 E677.80806
G0 F12000 X149.08 Y115.42
G1 F2700 X156.61 Y122.95 E678.33959
G0 F12000 X156.61 Y122.39
G1 F2700 X149.65 Y115.42 E678.83122
G0 F12000 X150.21 Y115.42
G1 F2700 X156.61 Y121.82 E679.28291
G0 F12000 X156.61 Y121.26
G1 F2700 X150.78 Y115.42 E679.69471
G0 F12000 X151.34 Y115.42
G1 F2700 X156.61 Y120.69 E680.06661
G0 F12000 X156.61 Y120.13
G1 F2700 X151.91 Y115.42 E680.39857
G0 F12000 X152.47 Y115.42
G1 F2700 X156.61 Y119.56 E680.69063
G0 F12000 X156.61 Y119.00
G1 F2700 X153.04 Y115.42 E680.94280
G0 F12000 X153.60 Y115.42
G1 F2700 X156.61 Y118.43 E681.15503
G0 F12000 X156.61 Y117.86
G1 F2700 X154.17 Y115.42 E681.32736
G0 F12000 X154.74 Y115.42
G1 F2700 X156.61 Y117.30 E681.45979
G0 F12000 X156.61 Y116.73
G1 F2700 X155.30 Y115.42 E681.55229
G0 F12000 X155.87 Y115.42
G1 F2700 X156.61 Y116.17 E681.60489
G0 F12000 X156.61 Y115.60
G1 F2700 X156.43 Y115.42 E681.61759
G0 F12000 X156.81 Y128.04
G0 X157.37 Y128.24
G1 F2700 X165.89 Y136.76 E682.21872
G0 F12000 X166.46 Y136.76
G1 F2700 X157.94 Y128.24 E682.81985
G0 F12000 X158.50 Y128.24
G1 F2700 X167.02 Y136.76 E683.42099
G0 F12000 X167.59 Y136.76
G1 F2700 X159.07 Y128.24 E684.02208
G0 F12000 X159.63 Y128.24
G1 F2700 X168.16 Y136.76 E684.62321
G0 F12000 X168.72 Y136.76
G1 F2700 X160.20 Y128.24 E685.22435
G0 F12000 X160.77 Y128.24
G1 F2700 X169.29 Y136.76 E685.82548
G0 F12000 X169.85 Y136.76
G1 F2700 X161.33 Y128.24 E686.42661
G0 F12000 X161.90 Y128.24
G1 F2700 X170.42 Y136.76 E687.02774
G0 F12000 X170.98 Y136.76
G1 F2700 X162.46 Y128.24 E687.62887
G0 F12000 X163.03 Y128.24
G1 F2700 X171.55 Y136.76 E688.23001
G0 F12000 X172.12 Y136.76
G1 F2700 X163.59 Y128.24 E688.83114
G0 F12000 X164.16 Y128.24
G1 F2700 X172.68 Y136.76 E689.43227
G0 F12000 X173.25 Y136.76
G1 F2700 X164.73 Y128.24 E690.03340
G0 F12000 X165.29 Y128.24
G1 F2700 X173.81 Y136.76 E690.63453
G0 F12000 X174.38 Y136.76
G1 F2700 X165.86 Y128.24 E691.23567
G0 F12000 X166.42 Y128.24
G1 F2700 X174.94 Y136.76 E691.83680
G0 F12000 X175.51 Y136.76
G1 F2700 X166.99 Y128.24 E692.43793
G0 F12000 X167.56 Y128.24
G1 F2700 X176.07 Y136.76 E693.03906
G0 F12000 X176.64 Y136.76
G1 F2700 X168.12 Y128.24 E693.64016
G0 F12000 X168.69 Y128.24
G1 F2700 X177.21 Y136.76 E694.24129
G0 F12000 X177.77 Y136.76
G1 F2700 X169.25 Y128.24 E694.84242
G0 F12000 X169.82 Y128.24
G1 F2700 X178.34 Y136.76 E695.44352
G0 F12000 X178.90 Y136.76
G1 F2700 X170.38 Y128.24 E696.04465
G0 F12000 X170.95 Y128.24
G1 F2700 X179.47 Y136.76 E696.64578
G0 F12000 X180.03 Y136.76
G1 F2700 X171.51 Y128.24 E697.24692
G0 F12000 X172.08 Y128.24
G1 F2700 X180.60 Y136.76 E697.84805
G0 F12000 X181.17 Y136.76
G1 F2700 X172.65 Y128.24 E698.44918
G0 F12000 X173.21 Y128.24
G1 F2700 X181.73 Y136.76 E699.05031
G0 F12000 X182.30 Y136.76
G1 F2700 X173.78 Y128.24 E699.65144
G0 F12000 X174.34 Y128.24
G1 F2700 X182.86 Y136.76 E700.25258
G0 F12000 X183.43 Y136.76
G1 F2700 X174.91 Y128.24 E700.85371
G0 F12000 X175.47 Y128.24
G1 F2700 X183.99 Y136.76 E701.45484
G0 F12000 X184.56 Y136.76
G1 F2700 X176.04 Y128.24 E702.05597
G0 F12000 X176.61 Y128.24
G1 F2700 X185.13 Y136.76 E702.65710
G0 F12000 X185.69 Y136.76
G1 F2700 X177.17 Y128.24 E703.25824
G0 F12000 X177.74 Y128.24
G1 F2700 X186.26 Y136.76 E703.85937
G0 F12000 X186.82 Y136.76
G1 F2700 X178.30 Y128.24 E704.46050
G0 F12000 X178.87 Y128.24
G1 F2700 X187.39 Y136.76 E705.06160
G0 F12000 X187.95 Y136.76
G1 F2700 X179.43 Y128.24 E705.66273
G0 F12000 X180.00 Y128.24
G1 F2700 X188.52 Y136.76 E706.26386
G0 F12000 X188.55 Y136.22
G1 F2700 X180.57 Y128.24 E706.82718
G0 F12000 X181.13 Y128.24
G1 F2700 X188.55 Y135.66 E707.35063
G0 F12000 X188.55 Y135.09
G1 F2700 X181.70 Y128.24 E707.83414
G0 F12000 X182.26 Y128.24
G1 F2700 X188.55 Y134.53 E708.27772
G0 F12000 X188.55 Y133.96
G1 F2700 X182.83 Y128.24 E708.68144
G0 F12000 X183.39 Y128.24
G1 F2700 X188.55 Y133.40 E709.04523
G0 F12000 X188.55 Y132.83
G1 F2700 X183.96 Y128.24 E709.36908
G0 F12000 X184.53 Y128.24
G1 F2700 X188.55 Y132.26 E709.65306
G0 F12000 X188.55 Y131.70
G1 F2700 X185.09 Y128.24 E709.89711
G0 F12000 X185.66 Y128.24
G1 F2700 X188.55 Y131.13 E710.10123
G0 F12000 X188.55 Y130.57
G1 F2700 X186.22 Y128.24 E710.26545
G0 F12000 X186.79 Y128.24
G1 F2700 X188.55 Y130.00 E710.38976
G0 F12000 X188.55 Y129.44
G1 F2700 X187.35 Y128.24 E710.47415
G0 F12000 X187.92 Y128.24
G1 F2700 X188.55 Y128.87 E710.51863
G0 F12000 X188.55 Y128.31
G1 F2700 X188.49 Y128.24 E710.52322
G1 F2400 E709.32322
G0 F12000 X188.69 Y168.10
;TYPE:WALL-INNER
G1 F2400 E710.52322
G1 F2700 X188.69 Y176.90 E710.96225
G1 X156.75 Y176.90 E712.55560
G1 X156.75 Y189.72 E713.19509
G1 X148.25 Y189.72 E713.61956
G1 X148.25 Y176.90 E714.25905
G1 X116.31 Y176.90 E715.85239
G1 X116.31 Y168.10 E716.29143
G1 X148.25 Y168.10 E717.88477
G1 X148.25 Y155.28 E718.52431
G1 X156.75 Y155.28 E718.94878
G1 X156.75 Y168.10 E719.58832
G1 X188.69 Y168.10 E721.18166
G0 F12000 X189.09 Y167.70
;TYPE:WALL-OUTER
G1 F2700 X189.09 Y177.30 E721.66061
G1 X157.15 Y177.30 E723.25395
G1 X157.15 Y190.12 E723.89345
G1 X147.85 Y190.12 E724.35782
G1 X147.85 Y177.30 E724.99732
G1 X115.91 Y177.30 E726.59066
G1 X115.91 Y167.70 E727.06961
G1 X147.85 Y167.70 E728.66295
G1 X147.85 Y154.88 E729.30249
G1 X157.15 Y154.88 E729.76687
G1 X157.15 Y167.70 E730.40641
G1 X189.09 Y167.70 E731.99976
G0 F12000 X188.55 Y168.47
;TYPE:FILL
G1 F2700 X188.32 Y168.24 E732.01591
G0 F12000 X187.75 Y168.24
G1 F2700 X188.55 Y169.03 E732.07200
G0 F12000 X188.55 Y169.60
G1 F2700 X187.19 Y168.24 E732.16799
G0 F12000 X186.62 Y168.24
G1 F2700 X188.55 Y170.16 E732.30388
G0 F12000 X188.55 Y170.73
G1 F2700 X186.06 Y168.24 E732.47971
G0 F12000 X185.49 Y168.24
G1 F2700 X188.55 Y171.30 E732.69543
G0 F12000 X188.55 Y171.86
G1 F2700 X184.93 Y168.24 E732.95109
G0 F12000 X184.36 Y168.24
G1 F2700 X188.55 Y172.43 E733.24665
G0 F12000 X188.55 Y172.99
G1 F2700 X183.80 Y168.24 E733.58210
G0 F12000 X183.23 Y168.24
G1 F2700 X188.55 Y173.56 E733.95749
G0 F12000 X188.55 Y174.12
G1 F2700 X182.66 Y168.24 E734.37278
G0 F12000 X182.10 Y168.24
G1 F2700 X188.55 Y174.69 E734.82797
G0 F12000 X188.55 Y175.26
G1 F2700 X181.53 Y168.24 E735.32309
G0 F12000 X180.97 Y168.24
G1 F2700 X188.55 Y175.82 E735.85811
G0 F12000 X188.55 Y176.39
G1 F2700 X180.40 Y168.24 E736.43303
G0 F12000 X179.84 Y168.24
G1 F2700 X188.36 Y176.76 E737.03417
G0 F12000 X187.79 Y176.76
G1 F2700 X179.27 Y168.24 E737.63530
G0 F12000 X178.70 Y168.24
G1 F2700 X187.22 Y176.76 E738.23643
G0 F12000 X186.66 Y176.76
G1 F2700 X178.14 Y168.24 E738.83756
G0 F12000 X177.57 Y168.24
G1 F2700 X186.09 Y176.76 E739.43869
G0 F12000 X185.53 Y176.76
G1 F2700 X177.01 Y168.24 E740.03983
G0 F12000 X176.44 Y168.24
G1 F2700 X184.96 Y176.76 E740.64096
G0 F12000 X184.40 Y176.76
G1 F2700 X175.88 Y168.24 E741.24209
G0 F12000 X175.31 Y168.24
G1 F2700 X183.83 Y176.76 E741.84322
G0 F12000 X183.26 Y176.76
G1 F2700 X174.75 Y168.24 E742.44435
G0 F12000 X174.18 Y168.24
G1 F2700 X182.70 Y176.76 E743.04549
G0 F12000 X182.13 Y176.76
G1 F2700 X173.61 Y168.24 E743.64662
G0 F12000 X173.05 Y168.24
G1 F2700 X181.57 Y176.76 E744.24775
G0 F12000 X181.00 Y176.76
G1 F2700 X172.48 Y168.24 E744.84888
G0 F12000 X171.92 Y168.24
G1 F2700 X180.44 Y176.76 E745.45001
G0 F12000 X179.87 Y176.76
G1 F2700 X171.35 Y168.24 E746.05111
G0 F12000 X170.78 Y168.24
G1 F2700 X179.31 Y176.76 E746.65224
G0 F12000 X178.74 Y176.76
G1 F2700 X170.22 Y168.24 E747.25337
G0 F12000 X169.65 Y168.24
G1 F2700 X178.17 Y176.76 E747.85447
G0 F12000 X177.61 Y176.76
G1 F2700 X169.09 Y168.24 E748.45560
G0 F12000 X168.52 Y168.24
G1 F2700 X177.04 Y176.76 E749.05674
G0 F12000 X176.48 Y176.76
G1 F2700 X167.96 Y168.24 E749.65787
G0 F12000 X167.39 Y168.24
G1 F2700 X175.91 Y176.76 E750.25900
G0 F12000 X175.34 Y176.76
G1 F2700 X166.82 Y168.24 E750.86013
G0 F12000 X166.26 Y168.24
G1 F2700 X174.78 Y176.76 E751.46126
G0 F12000 X174.21 Y176.76
G1 F2700 X165.69 Y168.24 E752.06240
G0 F12000 X165.13 Y168.24
G1 F2700 X173.65 Y176.76 E752.66353
G0 F12000 X173.08 Y176.76
G1 F2700 X164.56 Y168.24 E753.26466
G0 F12000 X164.00 Y168.24
G1 F2700 X172.52 Y176.76 E753.86579
G0 F12000 X171.95 Y176.76
G1 F2700 X163.43 Y168.24 E754.46692
G0 F12000 X162.87 Y168.24
G1 F2700 X171.38 Y176.76 E755.06806
G0 F12000 X170.82 Y176.76
G1 F2700 X162.30 Y168.24 E755.66919
G0 F12000 X161.73 Y168.24
G1 F2700 X170.25 Y176.76 E756.27032
G0 F12000 X169.69 Y176.76
G1 F2700 X161.17 Y168.24 E756.87145
G0 F12000 X160.60 Y168.24
G1 F2700 X169.12 Y176.76 E757.47255
G0 F12000 X168.56 Y176.76
G1 F2700 X160.04 Y168.24 E758.07368
G0 F12000 X159.47 Y168.24
G1 F2700 X167.99 Y176.76 E758.67481
G0 F12000 X167.43 Y176.76
G1 F2700 X158.91 Y168.24 E759.27594
G0 F12000 X158.34 Y168.24
G1 F2700 X166.86 Y176.76 E759.87708
G0 F12000 X166.29 Y176.76
G1 F2700 X157.77 Y168.24 E760.47821
G0 F12000 X157.21 Y168.24
G1 F2700 X165.73 Y176.76 E761.07934
G0 F12000 X165.16 Y176.76
G1 F2700 X156.64 Y168.24 E761.68047
G0 F12000 X156.61 Y168.21
G1 F2700 X148.38 Y159.98 E762.26104
G0 F12000 X148.38 Y160.55
G1 F2700 X164.60 Y176.76 E763.40488
G0 F12000 X164.03 Y176.76
G1 F2700 X148.38 Y161.11 E764.50879
G0 F12000 X148.38 Y161.68
G1 F2700 X163.47 Y176.76 E765.57280
G0 F12000 X162.90 Y176.76
G1 F2700 X148.38 Y162.24 E766.59691
G0 F12000 X148.38 Y162.81
G1 F2700 X162.33 Y176.76 E767.58109
G0 F12000 X161.77 Y176.76
G1 F2700 X148.38 Y163.38 E768.52537
G0 F12000 X148.38 Y163.94
G1 F2700 X161.20 Y176.76 E769.42971
G0 F12000 X160.64 Y176.76
G1 F2700 X148.38 Y164.51 E770.29416
G0 F12000 X148.38 Y165.07
G1 F2700 X160.07 Y176.76 E771.11870
G0 F12000 X159.51 Y176.76
G1 F2700 X148.38 Y165.64 E771.90331
G0 F12000 X148.38 Y166.20
G1 F2700 X158.94 Y176.76 E772.64803
G0 F12000 X158.37 Y176.76
G1 F2700 X148.38 Y166.77 E773.35280
G0 F12000 X148.38 Y167.34
G1 F2700 X157.81 Y176.76 E774.01768
G0 F12000 X157.24 Y176.76
G1 F2700 X148.38 Y167.90 E774.64266
G0 F12000 X148.16 Y168.24
G1 F2700 X156.68 Y176.76 E775.24380
G0 F12000 X156.61 Y177.26
G1 F2700 X147.59 Y168.24 E775.88038
G0 F12000 X147.03 Y168.24
G1 F2700 X156.61 Y177.83 E776.55690
G0 F12000 X156.61 Y178.39
G1 F2700 X146.46 Y168.24 E777.27332
G0 F12000 X145.89 Y168.24
G1 F2700 X156.61 Y178.96 E778.02964
G0 F12000 X156.61 Y179.52
G1 F2700 X145.33 Y168.24 E778.82589
G0 F12000 X144.76 Y168.24
G1 F2700 X156.61 Y180.09 E779.66205
G0 F12000 X156.61 Y180.66
G1 F2700 X144.20 Y168.24 E780.53810
G0 F12000 X143.63 Y168.24
G1 F2700 X156.61 Y181.22 E781.45408
G0 F12000 X156.61 Y181.79
G1 F2700 X143.07 Y168.24 E782.40997
G0 F12000 X142.50 Y168.24
G1 F2700 X156.61 Y182.35 E783.40575
G0 F12000 X156.61 Y182.92
G1 F2700 X141.93 Y168.24 E784.44147
G0 F12000 X141.37 Y168.24
G1 F2700 X156.61 Y183.48 E785.51709
G0 F12000 X156.61 Y184.05
G1 F2700 X140.80 Y168.24 E786.63260
G0 F12000 X140.24 Y168.24
G1 F2700 X156.61 Y184.62 E787.78805
G0 F12000 X156.61 Y185.18
G1 F2700 X148.38 Y176.95 E788.36865
G0 F12000 X148.19 Y176.76
G1 F2700 X139.67 Y168.24 E788.96978
G0 F12000 X139.11 Y168.24
G1 F2700 X147.63 Y176.76 E789.57092
G0 F12000 X147.06 Y176.76
G1 F2700 X138.54 Y168.24 E790.17205
G0 F12000 X137.97 Y168.24
G1 F2700 X146.49 Y176.76 E790.77318
G0 F12000 X145.93 Y176.76
G1 F2700 X137.41 Y168.24 E791.37431
G0 F12000 X136.84 Y168.24
G1 F2700 X145.36 Y176.76 E791.97544
G0 F12000 X144.80 Y176.76
G1 F2700 X136.28 Y168.24 E792.57658
G0 F12000 X135.71 Y168.24
G1 F2700 X144.23 Y176.76 E793.17771
G0 F12000 X143.67 Y176.76
G1 F2700 X135.15 Y168.24 E793.77884
G0 F12000 X134.58 Y168.24
G1 F2700 X143.10 Y176.76 E794.37997
G0 F12000 X142.53 Y176.76
G1 F2700 X134.01 Y168.24 E794.98110
G0 F12000 X133.45 Y168.24
G1 F2700 X141.97 Y176.76 E795.58224
G0 F12000 X141.40 Y176.76
G1 F2700 X132.88 Y168.24 E796.18337
G0 F12000 X132.32 Y168.24
G1 F2700 X140.84 Y176.76 E796.78447
G0 F12000 X140.27 Y176.76
G1 F2700 X131.75 Y168.24 E797.38560
G0 F12000 X131.19 Y168.24
G1 F2700 X139.71 Y176.76 E797.98673
G0 F12000 X139.14 Y176.76
G1 F2700 X130.62 Y168.24 E798.58783
G0 F12000 X130.06 Y168.24
G1 F2700 X138.57 Y176.76 E799.18896
G0 F12000 X138.01 Y176.76
G1 F2700 X129.49 Y168.24 E799.79009
G0 F12000 X128.92 Y168.24
G1 F2700 X137.44 Y176.76 E800.39122
G0 F12000 X136.88 Y176.76
G1 F2700 X128.36 Y168.24 E800.99235
G0 F12000 X127.79 Y168.24
G1 F2700 X136.31 Y176.76 E801.59349
G0 F12000 X135.75 Y176.76
G1 F2700 X127.23 Y168.24 E802.19462
G0 F12000 X126.66 Y168.24
G1 F2700 X135.18 Y176.76 E802.79575
G0 F12000 X134.62 Y176.76
G1 F2700 X126.09 Y168.24 E803.39688
G0 F12000 X125.53 Y168.24
G1 F2700 X134.05 Y176.76 E803.99801
G0 F12000 X133.48 Y176.76
G1 F2700 X124.96 Y168.24 E804.59915
G0 F12000 X124.40 Y168.24
G1 F2700 X132.92 Y176.76 E805.20028
G0 F12000 X132.35 Y176.76
G1 F2700 X123.83 Y168.24 E805.80141
G0 F12000 X123.27 Y168.24
G1 F2700 X131.79 Y176.76 E806.40254
G0 F12000 X131.22 Y176.76
G1 F2700 X122.70 Y168.24 E807.00367
G0 F12000 X122.14 Y168.24
G1 F2700 X130.66 Y176.76 E807.60481
G0 F12000 X130.09 Y176.76
G1 F2700 X121.57 Y168.24 E808.20590
G0 F12000 X121.00 Y168.24
G1 F2700 X129.52 Y176.76 E808.80704
G0 F12000 X128.96 Y176.76
G1 F2700 X120.44 Y168.24 E809.40817
G0 F12000 X119.87 Y168.24
G1 F2700 X128.39 Y176.76 E810.00930
G0 F12000 X127.83 Y176.76
G1 F2700 X119.31 Y168.24 E810.61043
G0 F12000 X118.74 Y168.24
G1 F2700 X127.26 Y176.76 E811.21156
G0 F12000 X126.69 Y176.76
G1 F2700 X118.17 Y168.24 E811.81270
G0 F12000 X117.61 Y168.24
G1 F2700 X126.13 Y176.76 E812.41383
G0 F12000 X125.56 Y176.76
G1 F2700 X117.04 Y168.24 E813.01496
G0 F12000 X116.48 Y168.24
G1 F2700 X125.00 Y176.76 E813.61609
G0 F12000 X124.43 Y176.76
G1 F2700 X116.45 Y168.78 E814.17941
G0 F12000 X116.45 Y169.34
G1 F2700 X123.87 Y176.76 E814.70282
G0 F12000 X123.30 Y176.76
G1 F2700 X116.45 Y169.91 E815.18630
G0 F12000 X116.45 Y170.47
G1 F2700 X122.74 Y176.76 E815.62988
G0 F12000 X122.17 Y176.76
G1 F2700 X116.45 Y171.04 E816.03357
G0 F12000 X116.45 Y171.60
G1 F2700 X121.60 Y176.76 E816.39731
G0 F12000 X121.04 Y176.76
G1 F2700 X116.45 Y172.17 E816.72116
G0 F12000 X116.45 Y172.73
G1 F2700 X120.47 Y176.76 E817.00511
G0 F12000 X119.91 Y176.76
G1 F2700 X116.45 Y173.30 E817.24913
G0 F12000 X116.45 Y173.87
G1 F2700 X119.34 Y176.76 E817.45321
G0 F12000 X118.78 Y176.76
G1 F2700 X116.45 Y174.43 E817.61743
G0 F12000 X116.45 Y175.00
G1 F2700 X118.21 Y176.76 E817.74171
G0 F12000 X117.64 Y176.76
G1 F2700 X116.45 Y175.56 E817.82606
G0 F12000 X116.45 Y176.13
G1 F2700 X117.08 Y176.76 E817.87055
G0 F12000 X116.51 Y176.76
G1 F2700 X116.45 Y176.69 E817.87510
G0 F12000 X148.19 Y176.96
G0 X148.38 Y177.52
G1 F2700 X156.61 Y185.75 E818.45570
G0 F12000 X156.61 Y186.31
G1 F2700 X148.38 Y178.08 E819.03626
G0 F12000 X148.38 Y178.65
G1 F2700 X156.61 Y186.88 E819.61686
G0 F12000 X156.61 Y187.44
G1 F2700 X148.38 Y179.22 E820.19746
G0 F12000 X148.38 Y179.78
G1 F2700 X156.61 Y188.01 E820.77803
G0 F12000 X156.61 Y188.57
G1 F2700 X148.38 Y180.35 E821.35863
G0 F12000 X148.38 Y180.91
G1 F2700 X156.61 Y189.14 E821.93923
G0 F12000 X156.48 Y189.58
G1 F2700 X148.38 Y181.48 E822.51066
G0 F12000 X148.38 Y182.04
G1 F2700 X155.92 Y189.58 E823.04222
G0 F12000 X155.35 Y189.58
G1 F2700 X148.38 Y182.61 E823.53385
G0 F12000 X148.38 Y183.18
G1 F2700 X154.79 Y189.58 E823.98555
G0 F12000 X154.22 Y189.58
G1 F2700 X148.38 Y183.74 E824.39738
G0 F12000 X148.38 Y184.31
G1 F2700 X153.66 Y189.58 E824.76928
G0 F12000 X153.09 Y189.58
G1 F2700 X148.38 Y184.87 E825.10124
G0 F12000 X148.38 Y185.44
G1 F2700 X152.53 Y189.58 E825.39330
G0 F12000 X151.96 Y189.58
G1 F2700 X148.38 Y186.00 E825.64547
G0 F12000 X148.38 Y186.57
G1 F2700 X151.39 Y189.58 E825.85770
G0 F12000 X150.83 Y189.58
G1 F2700 X148.38 Y187.13 E826.03000
G0 F12000 X148.38 Y187.70
G1 F2700 X150.26 Y189.58 E826.16243
G0 F12000 X149.70 Y189.58
G1 F2700 X148.38 Y188.27 E826.25493
G0 F12000 X148.38 Y188.83
G1 F2700 X149.13 Y189.58 E826.30749
G0 F12000 X148.56 Y189.58
G1 F2700 X148.38 Y189.40 E826.32019
G0 F12000 X156.61 Y167.65
G1 F2700 X148.38 Y159.42 E826.90079
G0 F12000 X148.38 Y158.85
G1 F2700 X156.61 Y167.08 E827.48139
G0 F12000 X156.61 Y166.51
G1 F2700 X148.38 Y158.28 E828.06196
G0 F12000 X148.38 Y157.72
G1 F2700 X156.61 Y165.95 E828.64256
G0 F12000 X156.61 Y165.38
G1 F2700 X148.38 Y157.15 E829.22316
G0 F12000 X148.38 Y156.59
G1 F2700 X156.61 Y164.82 E829.80372
G0 F12000 X156.61 Y164.25
G1 F2700 X148.38 Y156.02 E830.38432
G0 F12000 X148.38 Y155.46
G1 F2700 X156.61 Y163.69 E830.96492
G0 F12000 X156.61 Y163.12
G1 F2700 X148.91 Y155.42 E831.50813
G0 F12000 X149.48 Y155.42
G1 F2700 X156.61 Y162.55 E832.01144
G0 F12000 X156.61 Y161.99
G1 F2700 X150.05 Y155.42 E832.47484
G0 F12000 X150.61 Y155.42
G1 F2700 X156.61 Y161.42 E832.89832
G0 F12000 X156.61 Y160.86
G1 F2700 X151.18 Y155.42 E833.28186
G0 F12000 X151.74 Y155.42
G1 F2700 X156.61 Y160.29 E833.62553
G0 F12000 X156.61 Y159.72
G1 F2700 X152.31 Y155.42 E833.92927
G0 F12000 X152.88 Y155.42
G1 F2700 X156.61 Y159.16 E834.19305
G0 F12000 X156.61 Y158.59
G1 F2700 X153.44 Y155.42 E834.41692
G0 F12000 X154.01 Y155.42
G1 F2700 X156.61 Y158.03 E834.60086
G0 F12000 X156.61 Y157.46
G1 F2700 X154.57 Y155.42 E834.74489
G0 F12000 X155.14 Y155.42
G1 F2700 X156.61 Y156.90 E834.84903
G0 F12000 X156.61 Y156.33
G1 F2700 X155.70 Y155.42 E834.91324
G0 F12000 X156.27 Y155.42
G1 F2700 X156.61 Y155.76 E834.93755
;LAYER:1
G0 F12000 X156.75 Y155.28 Z0.50
;TYPE:WALL-INNER
G1 F3000 X156.75 Y168.10 E835.36391
G1 X188.69 Y168.10 E836.42614
G1 X188.69 Y176.90 E836.71883
G1 X156.75 Y176.90 E837.78105
G1 X156.75 Y189.72 E838.20738
G1 X148.25 Y189.72 E838.49036
G1 X148.25 Y176.90 E838.91669
G1 X116.31 Y176.90 E839.97892
G1 X116.31 Y168.10 E840.27161
G1 X148.25 Y168.10 E841.33384
G1 X148.25 Y155.28 E841.76020
G1 X156.75 Y155.28 E842.04317
G0 F12000 X157.15 Y154.88
;TYPE:WALL-OUTER
G1 F3000 X157.15 Y167.70 E842.46954
G1 X189.09 Y167.70 E843.53176
G1 X189.09 Y177.30 E843.85106
G1 X157.15 Y177.30 E844.91329
G1 X157.15 Y190.12 E845.33962
G1 X147.85 Y190.12 E845.64920
G1 X147.85 Y177.30 E846.07553
G1 X115.91 Y177.30 E847.13776
G1 X115.91 Y167.70 E847.45706
G1 X147.85 Y167.70 E848.51929
G1 X147.85 Y154.88 E848.94565
G1 X157.15 Y154.88 E849.25524
G0 F12000 X156.55 Y155.42
;TYPE:FILL
G1 F3000 X148.39 Y163.59 E849.63946
G0 F12000 X148.39 Y164.15
G1 F3000 X156.61 Y155.93 E850.02643
G0 F12000 X156.61 Y156.49
G1 F3000 X148.39 Y164.72 E850.41340
G0 F12000 X148.39 Y165.29
G1 F3000 X156.61 Y157.06 E850.80038
G0 F12000 X156.61 Y157.62
G1 F3000 X148.39 Y165.85 E851.18735
G0 F12000 X148.39 Y166.42
G1 F3000 X156.61 Y158.19 E851.57432
G0 F12000 X156.61 Y158.76
G1 F3000 X148.39 Y166.98 E851.96129
G0 F12000 X148.39 Y167.55
G1 F3000 X156.61 Y159.32 E852.34827
G0 F12000 X156.61 Y159.89
G1 F3000 X148.39 Y168.11 E852.73524
G0 F12000 X148.26 Y168.24
G1 F3000 X139.74 Y176.76 E853.13599
G0 F12000 X140.31 Y176.76
G1 F3000 X156.61 Y160.45 E853.90300
G0 F12000 X156.61 Y161.02
G1 F3000 X140.87 Y176.76 E854.64341
G0 F12000 X141.44 Y176.76
G1 F3000 X156.61 Y161.58 E855.35720
G0 F12000 X156.61 Y162.15
G1 F3000 X142.00 Y176.76 E856.04436
G0 F12000 X142.57 Y176.76
G1 F3000 X156.61 Y162.72 E856.70495
G0 F12000 X156.61 Y163.28
G1 F3000 X143.13 Y176.76 E857.33891
G0 F12000 X143.70 Y176.76
G1 F3000 X156.61 Y163.85 E857.94625
G0 F12000 X156.61 Y164.41
G1 F3000 X144.27 Y176.76 E858.52701
G0 F12000 X144.83 Y176.76
G1 F3000 X156.61 Y164.98 E859.08116
G0 F12000 X156.61 Y165.54
G1 F3000 X145.40 Y176.76 E859.60868
G0 F12000 X145.96 Y176.76
G1 F3000 X156.61 Y166.11 E860.10962
G0 F12000 X156.61 Y166.68
G1 F3000 X146.53 Y176.76 E860.58394
G0 F12000 X147.09 Y176.76
G1 F3000 X156.61 Y167.24 E861.03164
G0 F12000 X156.61 Y167.81
G1 F3000 X147.66 Y176.76 E861.45274
G0 F12000 X148.23 Y176.76
G1 F3000 X156.75 Y168.24 E861.85351
G0 F12000 X157.31 Y168.24
G1 F3000 X148.38 Y177.17 E862.27341
G0 F12000 X148.38 Y177.73
G1 F3000 X157.88 Y168.24 E862.71991
G0 F12000 X158.44 Y168.24
G1 F3000 X148.38 Y178.30 E863.19303
G0 F12000 X148.38 Y178.86
G1 F3000 X159.01 Y168.24 E863.69275
G0 F12000 X159.57 Y168.24
G1 F3000 X148.38 Y179.43 E864.21910
G0 F12000 X148.38 Y179.99
G1 F3000 X160.14 Y168.24 E864.77204
G0 F12000 X160.71 Y168.24
G1 F3000 X148.38 Y180.56 E865.35158
G0 F12000 X148.38 Y181.13
G1 F3000 X161.27 Y168.24 E865.95775
G0 F12000 X161.84 Y168.24
G1 F3000 X148.38 Y181.69 E866.59051
G0 F12000 X148.38 Y182.26
G1 F3000 X162.40 Y168.24 E867.24990
G0 F12000 X162.97 Y168.24
G1 F3000 X148.38 Y182.82 E867.93588
G0 F12000 X148.38 Y183.39
G1 F3000 X163.53 Y168.24 E868.64847
G0 F12000 X164.10 Y168.24
G1 F3000 X148.38 Y183.95 E869.38768
G0 F12000 X148.38 Y184.52
G1 F3000 X164.67 Y168.24 E870.15349
G0 F12000 X165.23 Y168.24
G1 F3000 X156.71 Y176.76 E870.55426
G0 F12000 X156.61 Y176.86
G1 F3000 X148.38 Y185.09 E870.94126
G0 F12000 X148.38 Y185.65
G1 F3000 X156.61 Y177.42 E871.32828
G0 F12000 X156.61 Y177.99
G1 F3000 X148.38 Y186.22 E871.71530
G0 F12000 X148.38 Y186.78
G1 F3000 X156.61 Y178.56 E872.10230
G0 F12000 X156.61 Y179.12
G1 F3000 X148.38 Y187.35 E872.48932
G0 F12000 X148.38 Y187.91
G1 F3000 X156.61 Y179.69 E872.87634
G0 F12000 X156.61 Y180.25
G1 F3000 X148.38 Y188.48 E873.26336
G0 F12000 X148.38 Y189.04
G1 F3000 X156.61 Y180.82 E873.65038
G0 F12000 X156.61 Y181.38
G1 F3000 X148.42 Y189.58 E874.03580
G0 F12000 X148.99 Y189.58
G1 F3000 X156.61 Y181.95 E874.39460
G0 F12000 X156.61 Y182.51
G1 F3000 X149.55 Y189.58 E874.72682
G0 F12000 X150.12 Y189.58
G1 F3000 X156.61 Y183.08 E875.03242
G0 F12000 X156.61 Y183.65
G1 F3000 X150.68 Y189.58 E875.31139
G0 F12000 X151.25 Y189.58
G1 F3000 X156.61 Y184.21 E875.56377
G0 F12000 X156.61 Y184.78
G1 F3000 X151.81 Y189.58 E875.78955
G0 F12000 X152.38 Y189.58
G1 F3000 X156.61 Y185.34 E875.98870
G0 F12000 X156.61 Y185.91
G1 F3000 X152.94 Y189.58 E876.16126
G0 F12000 X153.51 Y189.58
G1 F3000 X156.61 Y186.47 E876.30721
G0 F12000 X156.61 Y187.04
G1 F3000 X154.08 Y189.58 E876.42654
G0 F12000 X154.64 Y189.58
G1 F3000 X156.61 Y187.61 E876.51925
G0 F12000 X156.61 Y188.17
G1 F3000 X155.21 Y189.58 E876.58539
G0 F12000 X155.77 Y189.58
G1 F3000 X156.61 Y188.74 E876.62490
G0 F12000 X156.61 Y189.30
G1 F3000 X156.34 Y189.58 E876.63779
G0 F12000 X156.81 Y176.96
G0 X157.28 Y176.76
G1 F3000 X165.80 Y168.24 E877.03856
G0 F12000 X166.36 Y168.24
G1 F3000 X157.84 Y176.76 E877.43932
G0 F12000 X158.41 Y176.76
G1 F3000 X166.93 Y168.24 E877.84010
G0 F12000 X167.50 Y168.24
G1 F3000 X158.97 Y176.76 E878.24088
G0 F12000 X159.54 Y176.76
G1 F3000 X168.06 Y168.24 E878.64163
G0 F12000 X168.63 Y168.24
G1 F3000 X160.10 Y176.76 E879.04241
G0 F12000 X160.67 Y176.76
G1 F3000 X169.19 Y168.24 E879.44319
G0 F12000 X169.76 Y168.24
G1 F3000 X161.24 Y176.76 E879.84394
G0 F12000 X161.80 Y176.76
G1 F3000 X170.32 Y168.24 E880.24470
G0 F12000 X170.89 Y168.24
G1 F3000 X162.37 Y176.76 E880.64547
G0 F12000 X162.93 Y176.76
G1 F3000 X171.46 Y168.24 E881.04625
G0 F12000 X172.02 Y168.24
G1 F3000 X163.50 Y176.76 E881.44701
G0 F12000 X164.06 Y176.76
G1 F3000 X172.59 Y168.24 E881.84779
G0 F12000 X173.15 Y168.24
G1 F3000 X164.63 Y176.76 E882.24856
G0 F12000 X165.20 Y176.76
G1 F3000 X173.72 Y168.24 E882.64932
G0 F12000 X174.28 Y168.24
G1 F3000 X165.76 Y176.76 E883.05010
G0 F12000 X166.33 Y176.76
G1 F3000 X174.85 Y168.24 E883.45087
G0 F12000 X175.41 Y168.24
G1 F3000 X166.89 Y176.76 E883.85163
G0 F12000 X167.46 Y176.76
G1 F3000 X175.98 Y168.24 E884.25241
G0 F12000 X176.55 Y168.24
G1 F3000 X168.03 Y176.76 E884.65319
G0 F12000 X168.59 Y176.76
G1 F3000 X177.11 Y168.24 E885.05394
G0 F12000 X177.68 Y168.24
G1 F3000 X169.16 Y176.76 E885.45472
G0 F12000 X169.72 Y176.76
G1 F3000 X178.24 Y168.24 E885.85550
G0 F12000 X178.81 Y168.24
G1 F3000 X170.29 Y176.76 E886.25625
G0 F12000 X170.85 Y176.76
G1 F3000 X179.37 Y168.24 E886.65703
G0 F12000 X179.94 Y168.24
G1 F3000 X171.42 Y176.76 E887.05781
G0 F12000 X171.99 Y176.76
G1 F3000 X180.50 Y168.24 E887.45856
G0 F12000 X181.07 Y168.24
G1 F3000 X172.55 Y176.76 E887.85932
G0 F12000 X173.12 Y176.76
G1 F3000 X181.64 Y168.24 E888.26010
G0 F12000 X182.20 Y168.24
G1 F3000 X173.68 Y176.76 E888.66087
G0 F12000 X174.25 Y176.76
G1 F3000 X182.77 Y168.24 E889.06163
G0 F12000 X183.33 Y168.24
G1 F3000 X174.81 Y176.76 E889.46241
G0 F12000 X175.38 Y176.76
G1 F3000 X183.90 Y168.24 E889.86318
G0 F12000 X184.47 Y168.24
G1 F3000 X175.94 Y176.76 E890.26394
G0 F12000 X176.51 Y176.76
G1 F3000 X185.03 Y168.24 E890.66472
G0 F12000 X185.60 Y168.24
G1 F3000 X177.08 Y176.76 E891.06550
G0 F12000 X177.64 Y176.76
G1 F3000 X186.16 Y168.24 E891.46625
G0 F12000 X186.73 Y168.24
G1 F3000 X178.21 Y176.76 E891.86703
G0 F12000 X178.77 Y176.76
G1 F3000 X187.29 Y168.24 E892.26781
G0 F12000 X187.86 Y168.24
G1 F3000 X179.34 Y176.76 E892.66856
G0 F12000 X179.90 Y176.76
G1 F3000 X188.43 Y168.24 E893.06934
G0 F12000 X188.55 Y168.68
G1 F3000 X180.47 Y176.76 E893.44937
G0 F12000 X181.04 Y176.76
G1 F3000 X188.55 Y169.25 E893.80279
G0 F12000 X188.55 Y169.81
G1 F3000 X181.60 Y176.76 E894.12962
G0 F12000 X182.17 Y176.76
G1 F3000 X188.55 Y170.38 E894.42984
G0 F12000 X188.55 Y170.94
G1 F3000 X182.73 Y176.76 E894.70343
G0 F12000 X183.30 Y176.76
G1 F3000 X188.55 Y171.51 E894.95042
G0 F12000 X188.55 Y172.07
G1 F3000 X183.86 Y176.76 E895.17081
G0 F12000 X184.43 Y176.76
G1 F3000 X188.55 Y172.64 E895.36458
G0 F12000 X188.55 Y173.21
G1 F3000 X185.00 Y176.76 E895.53175
G0 F12000 X185.56 Y176.76
G1 F3000 X188.55 Y173.77 E895.67232
G0 F12000 X188.55 Y174.34
G1 F3000 X186.13 Y176.76 E895.78626
G0 F12000 X186.69 Y176.76
G1 F3000 X188.55 Y174.90 E895.87361
G0 F12000 X188.55 Y175.47
G1 F3000 X187.26 Y176.76 E895.93436
G0 F12000 X187.82 Y176.76
G1 F3000 X188.55 Y176.03 E895.96848
G0 F12000 X188.55 Y176.60
G1 F3000 X188.39 Y176.76 E895.97601
G0 F12000 X156.81 Y168.04
G0 X155.99 Y155.42
G1 F3000 X148.39 Y163.02 E896.33363
G0 F12000 X148.39 Y162.46
G1 F3000 X155.42 Y155.42 E896.66463
G0 F12000 X154.86 Y155.42
G1 F3000 X148.39 Y161.89 E896.96903
G0 F12000 X148.39 Y161.33
G1 F3000 X154.29 Y155.42 E897.24683
G0 F12000 X153.73 Y155.42
G1 F3000 X148.39 Y160.76 E897.49801
G0 F12000 X148.39 Y160.19
G1 F3000 X153.16 Y155.42 E897.72259
G0 F12000 X152.59 Y155.42
G1 F3000 X148.39 Y159.63 E897.92056
G0 F12000 X148.39 Y159.06
G1 F3000 X152.03 Y155.42 E898.09197
G0 F12000 X151.46 Y155.42
G1 F3000 X148.39 Y158.50 E898.23675
G0 F12000 X148.39 Y157.93
G1 F3000 X150.90 Y155.42 E898.35493
G0 F12000 X150.33 Y155.42
G1 F3000 X148.39 Y157.37 E898.44651
G0 F12000 X148.39 Y156.80
G1 F3000 X149.77 Y155.42 E898.51147
G0 F12000 X149.20 Y155.42
G1 F3000 X148.39 Y156.24 E898.54982
G0 F12000 X148.39 Y155.67
G1 F3000 X148.63 Y155.42 E898.56156
G0 F12000 X148.19 Y168.04
G0 X147.70 Y168.24
G1 F3000 X139.18 Y176.76 E898.96234
G0 F12000 X138.61 Y176.76
G1 F3000 X147.13 Y168.24 E899.36312
G0 F12000 X146.56 Y168.24
G1 F3000 X138.04 Y176.76 E899.76387
G0 F12000 X137.48 Y176.76
G1 F3000 X146.00 Y168.24 E900.16465
G0 F12000 X145.43 Y168.24
G1 F3000 X136.91 Y176.76 E900.56543
G0 F12000 X136.35 Y176.76
G1 F3000 X144.87 Y168.24 E900.96618
G0 F12000 X144.30 Y168.24
G1 F3000 X135.78 Y176.76 E901.36696
G0 F12000 X135.22 Y176.76
G1 F3000 X143.74 Y168.24 E901.76774
G0 F12000 X143.17 Y168.24
G1 F3000 X134.65 Y176.76 E902.16849
G0 F12000 X134.08 Y176.76
G1 F3000 X142.60 Y168.24 E902.56927
G0 F12000 X142.04 Y168.24
G1 F3000 X133.52 Y176.76 E902.97005
G0 F12000 X132.95 Y176.76
G1 F3000 X141.47 Y168.24 E903.37080
G0 F12000 X140.91 Y168.24
G1 F3000 X132.39 Y176.76 E903.77156
G0 F12000 X131.82 Y176.76
G1 F3000 X140.34 Y168.24 E904.17234
G0 F12000 X139.78 Y168.24
G1 F3000 X131.25 Y176.76 E904.57312
G0 F12000 X130.69 Y176.76
G1 F3000 X139.21 Y168.24 E904.97387
G0 F12000 X138.65 Y168.24
G1 F3000 X130.12 Y176.76 E905.37465
G0 F12000 X129.56 Y176.76
G1 F3000 X138.08 Y168.24 E905.77543
G0 F12000 X137.51 Y168.24
G1 F3000 X128.99 Y176.76 E906.17618
G0 F12000 X128.43 Y176.76
G1 F3000 X136.95 Y168.24 E906.57696
G0 F12000 X136.38 Y168.24
G1 F3000 X127.86 Y176.76 E906.97774
G0 F12000 X127.30 Y176.76
G1 F3000 X135.82 Y168.24 E907.37849
G0 F12000 X135.25 Y168.24
G1 F3000 X126.73 Y176.76 E907.77927
G0 F12000 X126.16 Y176.76
G1 F3000 X134.69 Y168.24 E908.18005
G0 F12000 X134.12 Y168.24
G1 F3000 X125.60 Y176.76 E908.58080
G0 F12000 X125.03 Y176.76
G1 F3000 X133.55 Y168.24 E908.98158
G0 F12000 X132.99 Y168.24
G1 F3000 X124.47 Y176.76 E909.38236
G0 F12000 X123.90 Y176.76
G1 F3000 X132.42 Y168.24 E909.78311
G0 F12000 X131.86 Y168.24
G1 F3000 X123.34 Y176.76 E910.18389
G0 F12000 X122.77 Y176.76
G1 F3000 X131.29 Y168.24 E910.58467
G0 F12000 X130.72 Y168.24
G1 F3000 X122.20 Y176.76 E910.98543
G0 F12000 X121.64 Y176.76
G1 F3000 X130.16 Y168.24 E911.38618
G0 F12000 X129.59 Y168.24
G1 F3000 X121.07 Y176.76 E911.78696
G0 F12000 X120.51 Y176.76
G1 F3000 X129.03 Y168.24 E912.18774
G0 F12000 X128.46 Y168.24
G1 F3000 X119.94 Y176.76 E912.58849
G0 F12000 X119.38 Y176.76
G1 F3000 X127.90 Y168.24 E912.98927
G0 F12000 X127.33 Y168.24
G1 F3000 X118.81 Y176.76 E913.39005
G0 F12000 X118.25 Y176.76
G1 F3000 X126.77 Y168.24 E913.79080
G0 F12000 X126.20 Y168.24
G1 F3000 X117.68 Y176.76 E914.19158
G0 F12000 X117.11 Y176.76
G1 F3000 X125.63 Y168.24 E914.59236
G0 F12000 X125.07 Y168.24
G1 F3000 X116.55 Y176.76 E914.99311
G0 F12000 X116.45 Y176.29
G1 F3000 X124.50 Y168.24 E915.37195
G0 F12000 X123.94 Y168.24
G1 F3000 X116.45 Y175.73 E915.72416
G0 F12000 X116.45 Y175.16
G1 F3000 X123.37 Y168.24 E916.04975
G0 F12000 X122.81 Y168.24
G1 F3000 X116.45 Y174.59 E916.34874
G0 F12000 X116.45 Y174.03
G1 F3000 X122.24 Y168.24 E916.62113
G0 F12000 X121.67 Y168.24
G1 F3000 X116.45 Y173.46 E916.86690
G0 F12000 X116.45 Y172.90
G1 F3000 X121.11 Y168.24 E917.08607
G0 F12000 X120.54 Y168.24
G1 F3000 X116.45 Y172.33 E917.27864
G0 F12000 X116.45 Y171.77
G1 F3000 X119.98 Y168.24 E917.44458
G0 F12000 X119.41 Y168.24
G1 F3000 X116.45 Y171.20 E917.58391
G0 F12000 X116.45 Y170.64
G1 F3000 X118.85 Y168.24 E917.69666
G0 F12000 X118.28 Y168.24
G1 F3000 X116.45 Y170.07 E917.78278
G0 F12000 X116.45 Y169.50
G1 F3000 X117.71 Y168.24 E917.84228
G0 F12000 X117.15 Y168.24
G1 F3000 X116.45 Y168.94 E917.87521
G0 F12000 X116.45 Y168.37
G1 F3000 X116.58 Y168.24 E917.88151
G1 F2400 E916.68151
G0 F12000 X116.31 Y136.90
;TYPE:WALL-INNER
G1 F2400 E917.88151
G1 F3000 X116.31 Y128.10 E918.17420
G1 X148.25 Y128.10 E919.23643
G1 X148.25 Y115.28 E919.66276
G1 X156.75 Y115.28 E919.94573
G1 X156.75 Y128.10 E920.37206
G1 X188.69 Y128.10 E921.43429
G1 X188.69 Y136.90 E921.72698
G1 X156.75 Y136.90 E922.78921
G1 X156.75 Y149.72 E923.21557
G1 X148.25 Y149.72 E923.49855
G1 X148.25 Y136.90 E923.92491
G1 X116.31 Y136.90 E924.98714
G0 F12000 X115.91 Y137.30
;TYPE:WALL-OUTER
G1 F3000 X115.91 Y127.70 E925.30644
G1 X147.85 Y127.70 E926.36867
G1 X147.85 Y114.88 E926.79499
G1 X157.15 Y114.88 E927.10458
G1 X157.15 Y127.70 E927.53091
G1 X189.09 Y127.70 E928.59314
G1 X189.09 Y137.30 E928.91243
G1 X157.15 Y137.30 E929.97466
G1 X157.15 Y150.12 E930.40102
G1 X147.85 Y150.12 E930.71061
G1 X147.85 Y137.30 E931.13697
G1 X115.91 Y137.30 E932.19920
G0 F12000 X116.45 Y136.69
;TYPE:FILL
G1 F3000 X124.90 Y128.24 E932.59692
G0 F12000 X124.34 Y128.24
G1 F3000 X116.45 Y136.13 E932.96804
G0 F12000 X116.45 Y135.56
G1 F3000 X123.77 Y128.24 E933.31254
G0 F12000 X123.21 Y128.24
G1 F3000 X116.45 Y135.00 E933.63042
G0 F12000 X116.45 Y134.43
G1 F3000 X122.64 Y128.24 E933.92172
G0 F12000 X122.08 Y128.24
G1 F3000 X116.45 Y133.87 E934.18639
G0 F12000 X116.45 Y133.30
G1 F3000 X121.51 Y128.24 E934.42445
G0 F12000 X120.94 Y128.24
G1 F3000 X116.45 Y132.74 E934.63590
G0 F12000 X116.45 Y132.17
G1 F3000 X120.38 Y128.24 E934.82076
G0 F12000 X119.81 Y128.24
G1 F3000 X116.45 Y131.60 E934.97899
G0 F12000 X116.45 Y131.04
G1 F3000 X119.25 Y128.24 E935.11062
G0 F12000 X118.68 Y128.24
G1 F3000 X116.45 Y130.47 E935.21566
G0 F12000 X116.45 Y129.91
G1 F3000 X118.12 Y128.24 E935.29407
G0 F12000 X117.55 Y128.24
G1 F3000 X116.45 Y129.34 E935.34588
G0 F12000 X116.45 Y128.78
G1 F3000 X116.98 Y128.24 E935.37109
G0 F12000 X125.47 Y128.24
G1 F3000 X116.95 Y136.76 E935.77189
G0 F12000 X117.52 Y136.76
G1 F3000 X126.04 Y128.24 E936.17269
G0 F12000 X126.60 Y128.24
G1 F3000 X118.08 Y136.76 E936.57347
G0 F12000 X118.65 Y136.76
G1 F3000 X127.17 Y128.24 E936.97427
G0 F12000 X127.73 Y128.24
G1 F3000 X119.21 Y136.76 E937.37507
G0 F12000 X119.78 Y136.76
G1 F3000 X128.30 Y128.24 E937.77585
G0 F12000 X128.86 Y128.24
G1 F3000 X120.34 Y136.76 E938.17665
G0 F12000 X120.91 Y136.76
G1 F3000 X129.43 Y128.24 E938.57746
G0 F12000 X130.00 Y128.24
G1 F3000 X121.47 Y136.76 E938.97823
G0 F12000 X122.04 Y136.76
G1 F3000 X130.56 Y128.24 E939.37904
G0 F12000 X131.13 Y128.24
G1 F3000 X122.61 Y136.76 E939.77984
G0 F12000 X123.17 Y136.76
G1 F3000 X131.69 Y128.24 E940.18062
G0 F12000 X132.26 Y128.24
G1 F3000 X123.74 Y136.76 E940.58139
G0 F12000 X124.30 Y136.76
G1 F3000 X132.82 Y128.24 E940.98220
G0 F12000 X133.39 Y128.24
G1 F3000 X124.87 Y136.76 E941.38300
G0 F12000 X125.44 Y136.76
G1 F3000 X133.96 Y128.24 E941.78378
G0 F12000 X134.52 Y128.24
G1 F3000 X126.00 Y136.76 E942.18458
G0 F12000 X126.57 Y136.76
G1 F3000 X135.09 Y128.24 E942.58538
G0 F12000 X135.65 Y128.24
G1 F3000 X127.13 Y136.76 E942.98616
G0 F12000 X127.70 Y136.76
G1 F3000 X136.22 Y128.24 E943.38696
G0 F12000 X136.78 Y128.24
G1 F3000 X128.26 Y136.76 E943.78776
G0 F12000 X128.83 Y136.76
G1 F3000 X137.35 Y128.24 E944.18854
G0 F12000 X137.91 Y128.24
G1 F3000 X129.39 Y136.76 E944.58934
G0 F12000 X129.96 Y136.76
G1 F3000 X138.48 Y128.24 E944.99014
G0 F12000 X139.05 Y128.24
G1 F3000 X130.53 Y136.76 E945.39092
G0 F12000 X131.09 Y136.76
G1 F3000 X139.61 Y128.24 E945.79172
G0 F12000 X140.18 Y128.24
G1 F3000 X131.66 Y136.76 E946.19252
G0 F12000 X132.22 Y136.76
G1 F3000 X140.74 Y128.24 E946.59330
G0 F12000 X141.31 Y128.24
G1 F3000 X132.79 Y136.76 E946.99410
G0 F12000 X133.35 Y136.76
G1 F3000 X141.88 Y128.24 E947.39491
G0 F12000 X142.44 Y128.24
G1 F3000 X133.92 Y136.76 E947.79571
G0 F12000 X134.49 Y136.76
G1 F3000 X143.01 Y128.24 E948.19649
G0 F12000 X143.57 Y128.24
G1 F3000 X135.05 Y136.76 E948.59729
G0 F12000 X135.62 Y136.76
G1 F3000 X144.14 Y128.24 E948.99809
G0 F12000 X144.70 Y128.24
G1 F3000 X136.18 Y136.76 E949.39887
G0 F12000 X136.75 Y136.76
G1 F3000 X145.27 Y128.24 E949.79967
G0 F12000 X145.84 Y128.24
G1 F3000 X137.31 Y136.76 E950.20047
G0 F12000 X137.88 Y136.76
G1 F3000 X146.40 Y128.24 E950.60125
G0 F12000 X146.97 Y128.24
G1 F3000 X138.44 Y136.76 E951.00205
G0 F12000 X139.01 Y136.76
G1 F3000 X147.53 Y128.24 E951.40285
G0 F12000 X148.10 Y128.24
G1 F3000 X139.58 Y136.76 E951.80363
G0 F12000 X140.14 Y136.76
G1 F3000 X156.61 Y120.29 E952.57838
G0 F12000 X156.61 Y120.86
G1 F3000 X140.71 Y136.76 E953.32650
G0 F12000 X141.27 Y136.76
G1 F3000 X156.61 Y121.42 E954.04802
G0 F12000 X156.61 Y121.99
G1 F3000 X141.84 Y136.76 E954.74295
G0 F12000 X142.41 Y136.76
G1 F3000 X156.61 Y122.55 E955.41125
G0 F12000 X156.61 Y123.12
G1 F3000 X142.97 Y136.76 E956.05295
G0 F12000 X143.54 Y136.76
G1 F3000 X156.61 Y123.68 E956.66803
G0 F12000 X156.61 Y124.25
G1 F3000 X144.10 Y136.76 E957.25650
G0 F12000 X144.67 Y136.76
G1 F3000 X156.61 Y124.81 E957.81838
G0 F12000 X156.61 Y125.38
G1 F3000 X145.23 Y136.76 E958.35364
G0 F12000 X145.80 Y136.76
G1 F3000 X156.61 Y125.95 E958.86230
G0 F12000 X156.61 Y126.51
G1 F3000 X146.37 Y136.76 E959.34433
G0 F12000 X146.93 Y136.76
G1 F3000 X156.61 Y127.08 E959.79977
G0 F12000 X156.61 Y127.64
G1 F3000 X147.50 Y136.76 E960.22860
G0 F12000 X148.06 Y136.76
G1 F3000 X156.61 Y128.21 E960.63082
G0 F12000 X157.15 Y128.24
G1 F3000 X148.38 Y137.00 E961.04298
G0 F12000 X148.38 Y137.57
G1 F3000 X157.71 Y128.24 E961.48174
G0 F12000 X158.28 Y128.24
G1 F3000 X148.38 Y138.13 E961.94712
G0 F12000 X148.38 Y138.70
G1 F3000 X158.84 Y128.24 E962.43910
G0 F12000 X159.41 Y128.24
G1 F3000 X148.38 Y139.26 E962.95769
G0 F12000 X148.38 Y139.83
G1 F3000 X159.98 Y128.24 E963.50289
G0 F12000 X160.54 Y128.24
G1 F3000 X148.38 Y140.40 E964.07470
G0 F12000 X148.38 Y140.96
G1 F3000 X161.11 Y128.24 E964.67310
G0 F12000 X161.67 Y128.24
G1 F3000 X148.38 Y141.53 E965.29813
G0 F12000 X148.38 Y142.09
G1 F3000 X162.24 Y128.24 E965.94975
G0 F12000 X162.80 Y128.24
G1 F3000 X148.38 Y142.66 E966.62798
G0 F12000 X148.39 Y143.22
G1 F3000 X163.37 Y128.24 E967.33278
G0 F12000 X163.94 Y128.24
G1 F3000 X148.39 Y143.79 E968.06420
G0 F12000 X148.39 Y144.35
G1 F3000 X164.50 Y128.24 E968.82223
G0 F12000 X165.07 Y128.24
G1 F3000 X148.39 Y144.92 E969.60685
G0 F12000 X148.39 Y145.49
G1 F3000 X156.61 Y137.26 E969.99380
G0 F12000 X156.61 Y137.83
G1 F3000 X148.39 Y146.05 E970.38073
G0 F12000 X148.39 Y146.62
G1 F3000 X156.61 Y138.39 E970.76765
G0 F12000 X156.61 Y138.96
G1 F3000 X148.39 Y147.18 E971.15460
G0 F12000 X148.39 Y147.75
G1 F3000 X156.61 Y139.52 E971.54153
G0 F12000 X156.61 Y140.09
G1 F3000 X148.39 Y148.31 E971.92845
G0 F12000 X148.39 Y148.88
G1 F3000 X156.61 Y140.65 E972.31540
G0 F12000 X156.61 Y141.22
G1 F3000 X148.39 Y149.45 E972.70235
G0 F12000 X148.82 Y149.58
G1 F3000 X156.61 Y141.79 E973.06891
G0 F12000 X156.61 Y142.35
G1 F3000 X149.38 Y149.58 E973.40887
G0 F12000 X149.95 Y149.58
G1 F3000 X156.61 Y142.92 E973.72221
G0 F12000 X156.61 Y143.48
G1 F3000 X150.52 Y149.58 E974.00894
G0 F12000 X151.08 Y149.58
G1 F3000 X156.61 Y144.05 E974.26908
G0 F12000 X156.61 Y144.61
G1 F3000 X151.65 Y149.58 E974.50260
G0 F12000 X152.21 Y149.58
G1 F3000 X156.61 Y145.18 E974.70951
G0 F12000 X156.61 Y145.75
G1 F3000 X152.78 Y149.58 E974.88980
G0 F12000 X153.34 Y149.58
G1 F3000 X156.61 Y146.31 E975.04350
G0 F12000 X156.61 Y146.88
G1 F3000 X153.91 Y149.58 E975.17059
G0 F12000 X154.48 Y149.58
G1 F3000 X156.61 Y147.44 E975.27106
G0 F12000 X156.61 Y148.01
G1 F3000 X155.04 Y149.58 E975.34493
G0 F12000 X155.61 Y149.58
G1 F3000 X156.61 Y148.57 E975.39218
G0 F12000 X156.61 Y149.14
G1 F3000 X156.17 Y149.58 E975.41283
G0 F12000 X156.81 Y136.96
G0 X157.11 Y136.76
G1 F3000 X165.63 Y128.24 E975.81359
G0 F12000 X166.20 Y128.24
G1 F3000 X157.68 Y136.76 E976.21434
G0 F12000 X158.24 Y136.76
G1 F3000 X166.76 Y128.24 E976.61510
G0 F12000 X167.33 Y128.24
G1 F3000 X158.81 Y136.76 E977.01585
G0 F12000 X159.38 Y136.76
G1 F3000 X167.90 Y128.24 E977.41661
G0 F12000 X168.46 Y128.24
G1 F3000 X159.94 Y136.76 E977.81736
G0 F12000 X160.51 Y136.76
G1 F3000 X169.03 Y128.24 E978.21811
G0 F12000 X169.59 Y128.24
G1 F3000 X161.07 Y136.76 E978.61887
G0 F12000 X161.64 Y136.76
G1 F3000 X170.16 Y128.24 E979.01962
G0 F12000 X170.72 Y128.24
G1 F3000 X162.20 Y136.76 E979.42038
G0 F12000 X162.77 Y136.76
G1 F3000 X171.29 Y128.24 E979.82113
G0 F12000 X171.85 Y128.24
G1 F3000 X163.34 Y136.76 E980.22186
G0 F12000 X163.90 Y136.76
G1 F3000 X172.42 Y128.24 E980.62262
G0 F12000 X172.99 Y128.24
G1 F3000 X164.47 Y136.76 E981.02337
G0 F12000 X165.03 Y136.76
G1 F3000 X173.55 Y128.24 E981.42410
G0 F12000 X174.12 Y128.24
G1 F3000 X165.60 Y136.76 E981.82486
G0 F12000 X166.16 Y136.76
G1 F3000 X174.68 Y128.24 E982.22561
G0 F12000 X175.25 Y128.24
G1 F3000 X166.73 Y136.76 E982.62637
G0 F12000 X167.29 Y136.76
G1 F3000 X175.81 Y128.24 E983.02712
G0 F12000 X176.38 Y128.24
G1 F3000 X167.86 Y136.76 E983.42788
G0 F12000 X168.43 Y136.76
G1 F3000 X176.95 Y128.24 E983.82863
G0 F12000 X177.51 Y128.24
G1 F3000 X168.99 Y136.76 E984.22939
G0 F12000 X169.56 Y136.76
G1 F3000 X178.08 Y128.24 E984.63014
G0 F12000 X178.64 Y128.24
G1 F3000 X170.12 Y136.76 E985.03090
G0 F12000 X170.69 Y136.76
G1 F3000 X179.21 Y128.24 E985.43165
G0 F12000 X179.78 Y128.24
G1 F3000 X171.25 Y136.76 E985.83241
G0 F12000 X171.82 Y136.76
G1 F3000 X180.34 Y128.24 E986.23316
G0 F12000 X180.91 Y128.24
G1 F3000 X172.39 Y136.76 E986.63392
G0 F12000 X172.95 Y136.76
G1 F3000 X181.47 Y128.24 E987.03467
G0 F12000 X182.04 Y128.24
G1 F3000 X173.52 Y136.76 E987.43543
G0 F12000 X174.08 Y136.76
G1 F3000 X182.60 Y128.24 E987.83616
G0 F12000 X183.17 Y128.24
G1 F3000 X174.65 Y136.76 E988.23691
G0 F12000 X175.22 Y136.76
G1 F3000 X183.74 Y128.24 E988.63767
G0 F12000 X184.30 Y128.24
G1 F3000 X175.78 Y136.76 E989.03842
G0 F12000 X176.35 Y136.76
G1 F3000 X184.87 Y128.24 E989.43918
G0 F12000 X185.43 Y128.24
G1 F3000 X176.91 Y136.76 E989.83993
G0 F12000 X177.48 Y136.76
G1 F3000 X186.00 Y128.24 E990.24068
G0 F12000 X186.56 Y128.24
G1 F3000 X178.04 Y136.76 E990.64144
G0 F12000 X178.61 Y136.76
G1 F3000 X187.13 Y128.24 E991.04219
G0 F12000 X187.69 Y128.24
G1 F3000 X179.18 Y136.76 E991.44295
G0 F12000 X179.74 Y136.76
G1 F3000 X188.26 Y128.24 E991.84370
G0 F12000 X188.55 Y128.52
G1 F3000 X180.31 Y136.76 E992.23148
G0 F12000 X180.87 Y136.76
G1 F3000 X188.55 Y129.08 E992.59263
G0 F12000 X188.55 Y129.65
G1 F3000 X181.44 Y136.76 E992.92718
G0 F12000 X182.00 Y136.76
G1 F3000 X188.55 Y130.21 E993.23513
G0 F12000 X188.55 Y130.78
G1 F3000 X182.57 Y136.76 E993.51645
G0 F12000 X183.13 Y136.76
G1 F3000 X188.55 Y131.34 E993.77118
G0 F12000 X188.55 Y131.91
G1 F3000 X183.70 Y136.76 E993.99931
G0 F12000 X184.27 Y136.76
G1 F3000 X188.55 Y132.48 E994.20082
G0 F12000 X188.55 Y133.04
G1 F3000 X184.83 Y136.76 E994.37570
G0 F12000 X185.40 Y136.76
G1 F3000 X188.55 Y133.61 E994.52401
G0 F12000 X188.55 Y134.17
G1 F3000 X185.96 Y136.76 E994.64569
G0 F12000 X186.53 Y136.76
G1 F3000 X188.55 Y134.74 E994.74075
G0 F12000 X188.55 Y135.30
G1 F3000 X187.09 Y136.76 E994.80924
G0 F12000 X187.66 Y136.76
G1 F3000 X188.55 Y135.87 E994.85110
G0 F12000 X188.55 Y136.44
G1 F3000 X188.23 Y136.76 E994.86634
G0 F12000 X156.81 Y128.04
G0 X156.61 Y119.72
G1 F3000 X148.38 Y127.95 E995.25336
G0 F12000 X148.38 Y127.39
G1 F3000 X156.61 Y119.16 E995.64036
G0 F12000 X156.61 Y118.59
G1 F3000 X148.38 Y126.82 E996.02738
G0 F12000 X148.38 Y126.25
G1 F3000 X156.61 Y118.03 E996.41440
G0 F12000 X156.61 Y117.46
G1 F3000 X148.38 Y125.69 E996.80140
G0 F12000 X148.38 Y125.12
G1 F3000 X156.61 Y116.89 E997.18842
G0 F12000 X156.61 Y116.33
G1 F3000 X148.38 Y124.56 E997.57544
G0 F12000 X148.38 Y123.99
G1 F3000 X156.61 Y115.76 E997.96246
G0 F12000 X156.39 Y115.42
G1 F3000 X148.38 Y123.43 E998.33899
G0 F12000 X148.38 Y122.86
G1 F3000 X155.82 Y115.42 E998.68889
G0 F12000 X155.26 Y115.42
G1 F3000 X148.38 Y122.29 E999.01218
G0 F12000 X148.38 Y121.73
G1 F3000 X154.69 Y115.42 E999.30889
G0 F12000 X154.13 Y115.42
G1 F3000 X148.38 Y121.16 E999.57897
G0 F12000 X148.38 Y120.60
G1 F3000 X153.56 Y115.42 E999.82244
G0 F12000 X153.00 Y115.42
G1 F3000 X148.38 Y120.03 E1000.03930
G0 F12000 X148.38 Y119.47
G1 F3000 X152.43 Y115.42 E1000.22957
G0 F12000 X151.86 Y115.42
G1 F3000 X148.38 Y118.90 E1000.39321
G0 F12000 X148.38 Y118.33
G1 F3000 X151.30 Y115.42 E1000.53025
G0 F12000 X150.73 Y115.42
G1 F3000 X148.38 Y117.77 E1000.64069
G0 F12000 X148.38 Y117.20
G1 F3000 X150.17 Y115.42 E1000.72451
G0 F12000 X149.60 Y115.42
G1 F3000 X148.38 Y116.64 E1000.78171
G0 F12000 X148.38 Y116.07
G1 F3000 X149.04 Y115.42 E1000.81233
G0 F12000 X148.47 Y115.42
G1 F3000 X148.38 Y115.51 E1000.81633
;LAYER:2
G0 F12000 X148.25 Y115.28 Z0.70
;TYPE:WALL-INNER
G1 F3420 X156.75 Y115.28 E1001.09930
G1 X156.75 Y128.10 E1001.52563
G1 X188.69 Y128.10 E1002.58786
G1 X188.69 Y136.90 E1002.88055
G1 X156.75 Y136.90 E1003.94278
G1 X156.75 Y149.72 E1004.36914
G1 X148.25 Y149.72 E1004.65212
G1 X148.25 Y136.90 E1005.07848
G1 X116.31 Y136.90 E1006.14071
G1 X116.31 Y128.10 E1006.43340
G1 X148.25 Y128.10 E1007.49563
G1 X148.25 Y115.28 E1007.92196
G0 F12000 X147.85 Y114.88
;TYPE:WALL-OUTER
G1 F3420 X157.15 Y114.88 E1008.23154
G1 X157.15 Y127.70 E1008.65787
G1 X189.09 Y127.70 E1009.72010
G1 X189.09 Y137.30 E1010.03940
G1 X157.15 Y137.30 E1011.10163
G1 X157.15 Y150.12 E1011.52799
G1 X147.85 Y150.12 E1011.83757
G1 X147.85 Y137.30 E1012.26393
G1 X115.91 Y137.30 E1013.32616
G1 X115.91 Y127.70 E1013.64546
G1 X147.85 Y127.70 E1014.70769
G1 X147.85 Y114.88 E1015.13402
G0 F12000 X148.51 Y115.42
;TYPE:FILL
G1 F3420 X156.61 Y123.52 E1015.51497
G0 F12000 X156.61 Y122.95
G1 F3420 X149.08 Y115.42 E1015.86932
G0 F12000 X149.65 Y115.42
G1 F3420 X156.61 Y122.39 E1016.19708
G0 F12000 X156.61 Y121.82
G1 F3420 X150.21 Y115.42 E1016.49821
G0 F12000 X150.78 Y115.42
G1 F3420 X156.61 Y121.26 E1016.77274
G0 F12000 X156.61 Y120.69
G1 F3420 X151.34 Y115.42 E1017.02067
G0 F12000 X151.91 Y115.42
G1 F3420 X156.61 Y120.13 E1017.24198
G0 F12000 X156.61 Y119.56
G1 F3420 X152.47 Y115.42 E1017.43669
G0 F12000 X153.04 Y115.42
G1 F3420 X156.61 Y119.00 E1017.60480
G0 F12000 X156.61 Y118.43
G1 F3420 X153.60 Y115.42 E1017.74628
G0 F12000 X154.17 Y115.42
G1 F3420 X156.61 Y117.86 E1017.86117
G0 F12000 X156.61 Y117.30
G1 F3420 X154.74 Y115.42 E1017.94946
G0 F12000 X155.30 Y115.42
G1 F3420 X156.61 Y116.73 E1018.01113
G0 F12000 X156.61 Y116.17
G1 F3420 X155.87 Y115.42 E1018.04619
G0 F12000 X156.43 Y115.42
G1 F3420 X156.61 Y115.60 E1018.05466
G0 F12000 X148.38 Y115.86
G1 F3420 X156.61 Y124.09 E1018.44168
G0 F12000 X156.61 Y124.65
G1 F3420 X148.38 Y116.42 E1018.82870
G0 F12000 X148.38 Y116.99
G1 F3420 X156.61 Y125.22 E1019.21572
G0 F12000 X156.61 Y125.78
G1 F3420 X148.38 Y117.56 E1019.60274
G0 F12000 X148.38 Y118.12
G1 F3420 X156.61 Y126.35 E1019.98976
G0 F12000 X156.61 Y126.92
G1 F3420 X148.38 Y118.69 E1020.37678
G0 F12000 X148.38 Y119.25
G1 F3420 X156.61 Y127.48 E1020.76380
G0 F12000 X156.61 Y128.05
G1 F3420 X148.38 Y119.82 E1021.15082
G0 F12000 X148.38 Y120.38
G1 F3420 X164.76 Y136.76 E1021.92109
G0 F12000 X164.19 Y136.76
G1 F3420 X148.38 Y120.95 E1022.66477
G0 F12000 X148.38 Y121.52
G1 F3420 X163.63 Y136.76 E1023.38185
G0 F12000 X163.06 Y136.76
G1 F3420 X148.38 Y122.08 E1024.07230
G0 F12000 X148.38 Y122.65
G1 F3420 X162.50 Y136.76 E1024.73616
G0 F12000 X161.93 Y136.76
G1 F3420 X148.38 Y123.21 E1025.37342
G0 F12000 X148.38 Y123.78
G1 F3420 X161.37 Y136.76 E1025.98405
G0 F12000 X160.80 Y136.76
G1 F3420 X148.38 Y124.34 E1026.56806
G0 F12000 X148.38 Y124.91
G1 F3420 X160.24 Y136.76 E1027.12550
G0 F12000 X159.67 Y136.76
G1 F3420 X148.38 Y125.47 E1027.65631
G0 F12000 X148.38 Y126.04
G1 F3420 X159.10 Y136.76 E1028.16050
G0 F12000 X158.54 Y136.76
G1 F3420 X148.38 Y126.61 E1028.63809
G0 F12000 X148.38 Y127.17
G1 F3420 X157.97 Y136.76 E1029.08908
G0 F12000 X157.41 Y136.76
G1 F3420 X148.38 Y127.74 E1029.51344
G0 F12000 X148.32 Y128.24
G1 F3420 X156.84 Y136.76 E1029.91417
G0 F12000 X156.61 Y137.10
G1 F3420 X147.76 Y128.24 E1030.33078
G0 F12000 X147.19 Y128.24
G1 F3420 X156.61 Y137.66 E1030.77401
G0 F12000 X156.61 Y138.23
G1 F3420 X146.62 Y128.24 E1031.24384
G0 F12000 X146.06 Y128.24
G1 F3420 X156.61 Y138.79 E1031.74027
G0 F12000 X156.61 Y139.36
G1 F3420 X145.49 Y128.24 E1032.26332
G0 F12000 X144.93 Y128.24
G1 F3420 X156.61 Y139.93 E1032.81297
G0 F12000 X156.61 Y140.49
G1 F3420 X144.36 Y128.24 E1033.38922
G0 F12000 X143.80 Y128.24
G1 F3420 X156.61 Y141.06 E1033.99209
G0 F12000 X156.61 Y141.62
G1 F3420 X143.23 Y128.24 E1034.62156
G0 F12000 X142.66 Y128.24
G1 F3420 X156.61 Y142.19 E1035.27763
G0 F12000 X156.61 Y142.75
G1 F3420 X142.10 Y128.24 E1035.96033
G0 F12000 X141.53 Y128.24
G1 F3420 X156.61 Y143.32 E1036.66962
G0 F12000 X156.61 Y143.88
G1 F3420 X140.97 Y128.24 E1037.40551
G0 F12000 X140.40 Y128.24
G1 F3420 X156.61 Y144.45 E1038.16803
G0 F12000 X156.61 Y145.02
G1 F3420 X148.38 Y136.79 E1038.55507
G0 F12000 X148.35 Y136.76
G1 F3420 X139.84 Y128.24 E1038.95578
G0 F12000 X139.27 Y128.24
G1 F3420 X147.79 Y136.76 E1039.35649
G0 F12000 X147.22 Y136.76
G1 F3420 X138.71 Y128.24 E1039.75719
G0 F12000 X138.14 Y128.24
G1 F3420 X146.66 Y136.76 E1040.15790
G0 F12000 X146.09 Y136.76
G1 F3420 X137.57 Y128.24 E1040.55863
G0 F12000 X137.01 Y128.24
G1 F3420 X145.53 Y136.76 E1040.95934
G0 F12000 X144.96 Y136.76
G1 F3420 X136.44 Y128.24 E1041.36005
G0 F12000 X135.88 Y128.24
G1 F3420 X144.40 Y136.76 E1041.76078
G0 F12000 X143.83 Y136.76
G1 F3420 X135.31 Y128.24 E1042.16149
G0 F12000 X134.75 Y128.24
G1 F3420 X143.26 Y136.76 E1042.56219
G0 F12000 X142.70 Y136.76
G1 F3420 X134.18 Y128.24 E1042.96293
G0 F12000 X133.61 Y128.24
G1 F3420 X142.13 Y136.76 E1043.36363
G0 F12000 X141.57 Y136.76
G1 F3420 X133.05 Y128.24 E1043.76434
G0 F12000 X132.48 Y128.24
G1 F3420 X141.00 Y136.76 E1044.16507
G0 F12000 X140.44 Y136.76
G1 F3420 X131.92 Y128.24 E1044.56578
G0 F12000 X131.35 Y128.24
G1 F3420 X139.87 Y136.76 E1044.96649
G0 F12000 X139.30 Y136.76
G1 F3420 X130.78 Y128.24 E1045.36719
G0 F12000 X130.22 Y128.24
G1 F3420 X138.74 Y136.76 E1045.76790
G0 F12000 X138.17 Y136.76
G1 F3420 X129.65 Y128.24 E1046.16861
G0 F12000 X129.09 Y128.24
G1 F3420 X137.61 Y136.76 E1046.56932
G0 F12000 X137.04 Y136.76
G1 F3420 X128.52 Y128.24 E1046.97003
G0 F12000 X127.96 Y128.24
G1 F3420 X136.48 Y136.76 E1047.37073
G0 F12000 X135.91 Y136.76
G1 F3420 X127.39 Y128.24 E1047.77144
G0 F12000 X126.83 Y128.24
G1 F3420 X135.34 Y136.76 E1048.17217
G0 F12000 X134.78 Y136.76
G1 F3420 X126.26 Y128.24 E1048.57288
G0 F12000 X125.69 Y128.24
G1 F3420 X134.21 Y136.76 E1048.97359
G0 F12000 X133.65 Y136.76
G1 F3420 X125.13 Y128.24 E1049.37432
G0 F12000 X124.56 Y128.24
G1 F3420 X133.08 Y136.76 E1049.77503
G0 F12000 X132.52 Y136.76
G1 F3420 X124.00 Y128.24 E1050.17573
G0 F12000 X123.43 Y128.24
G1 F3420 X131.95 Y136.76 E1050.57646
G0 F12000 X131.38 Y136.76
G1 F3420 X122.87 Y128.24 E1050.97717
G0 F12000 X122.30 Y128.24
G1 F3420 X130.82 Y136.76 E1051.37788
G0 F12000 X130.25 Y136.76
G1 F3420 X121.73 Y128.24 E1051.77861
G0 F12000 X121.17 Y128.24
G1 F3420 X129.69 Y136.76 E1052.17932
G0 F12000 X129.12 Y136.76
G1 F3420 X120.60 Y128.24 E1052.58003
G0 F12000 X120.04 Y128.24
G1 F3420 X128.56 Y136.76 E1052.98073
G0 F12000 X127.99 Y136.76
G1 F3420 X119.47 Y128.24 E1053.38144
G0 F12000 X118.91 Y128.24
G1 F3420 X127.42 Y136.76 E1053.78215
G0 F12000 X126.86 Y136.76
G1 F3420 X118.34 Y128.24 E1054.18286
G0 F12000 X117.77 Y128.24
G1 F3420 X126.29 Y136.76 E1054.58359
G0 F12000 X125.73 Y136.76
G1 F3420 X117.21 Y128.24 E1054.98430
G0 F12000 X116.64 Y128.24
G1 F3420 X125.16 Y136.76 E1055.38500
G0 F12000 X124.60 Y136.76
G1 F3420 X116.45 Y128.61 E1055.76831
G0 F12000 X116.45 Y129.18
G1 F3420 X124.03 Y136.76 E1056.12499
G0 F12000 X123.47 Y136.76
G1 F3420 X116.45 Y129.74 E1056.45505
G0 F12000 X116.45 Y130.31
G1 F3420 X122.90 Y136.76 E1056.75853
G0 F12000 X122.33 Y136.76
G1 F3420 X116.45 Y130.87 E1057.03539
G0 F12000 X116.45 Y131.44
G1 F3420 X121.77 Y136.76 E1057.28563
G0 F12000 X121.20 Y136.76
G1 F3420 X116.45 Y132.00 E1057.50929
G0 F12000 X116.45 Y132.57
G1 F3420 X120.64 Y136.76 E1057.70632
G0 F12000 X120.07 Y136.76
G1 F3420 X116.45 Y133.14 E1057.87674
G0 F12000 X116.45 Y133.70
G1 F3420 X119.50 Y136.76 E1058.02055
G0 F12000 X118.94 Y136.76
G1 F3420 X116.45 Y134.27 E1058.13777
G0 F12000 X116.45 Y134.83
G1 F3420 X118.37 Y136.76 E1058.22836
G0 F12000 X117.81 Y136.76
G1 F3420 X116.45 Y135.40 E1058.29236
G0 F12000 X116.45 Y135.96
G1 F3420 X117.24 Y136.76 E1058.32975
G0 F12000 X116.68 Y136.76
G1 F3420 X116.45 Y136.53 E1058.34052
G0 F12000 X148.19 Y136.96
G0 X148.38 Y137.35
G1 F3420 X156.61 Y145.58 E1058.72757
G0 F12000 X156.61 Y146.15
G1 F3420 X148.38 Y137.92 E1059.11463
G0 F12000 X148.38 Y138.49
G1 F3420 X156.61 Y146.71 E1059.50170
G0 F12000 X156.61 Y147.28
G1 F3420 X148.38 Y139.05 E1059.88874
G0 F12000 X148.38 Y139.62
G1 F3420 X156.61 Y147.84 E1060.27581
G0 F12000 X156.61 Y148.41
G1 F3420 X148.38 Y140.18 E1060.66288
G0 F12000 X148.38 Y140.75
G1 F3420 X156.61 Y148.98 E1061.04992
G0 F12000 X156.61 Y149.54
G1 F3420 X148.38 Y141.31 E1061.43699
G0 F12000 X148.38 Y141.88
G1 F3420 X156.08 Y149.58 E1061.79912
G0 F12000 X155.52 Y149.58
G1 F3420 X148.38 Y142.44 E1062.13466
G0 F12000 X148.38 Y143.01
G1 F3420 X154.95 Y149.58 E1062.44360
G0 F12000 X154.39 Y149.58
G1 F3420 X148.38 Y143.58 E1062.72587
G0 F12000 X148.38 Y144.14
G1 F3420 X153.82 Y149.58 E1062.98154
G0 F12000 X153.25 Y149.58
G1 F3420 X148.38 Y144.71 E1063.21061
G0 F12000 X148.38 Y145.27
G1 F3420 X152.69 Y149.58 E1063.41306
G0 F12000 X152.12 Y149.58
G1 F3420 X148.38 Y145.84 E1063.58890
G0 F12000 X148.38 Y146.41
G1 F3420 X151.56 Y149.58 E1063.73815
G0 F12000 X150.99 Y149.58
G1 F3420 X148.38 Y146.97 E1063.86078
G0 F12000 X148.38 Y147.54
G1 F3420 X150.43 Y149.58 E1063.95680
G0 F12000 X149.86 Y149.58
G1 F3420 X148.38 Y148.10 E1064.02623
G0 F12000 X148.38 Y148.67
G1 F3420 X149.29 Y149.58 E1064.06903
G0 F12000 X148.73 Y149.58
G1 F3420 X148.38 Y149.23 E1064.08524
G0 F12000 X156.81 Y136.96
G0 X165.33 Y136.76
G1 F3420 X156.81 Y128.24 E1064.48599
G0 F12000 X157.37 Y128.24
G1 F3420 X165.89 Y136.76 E1064.88675
G0 F12000 X166.46 Y136.76
G1 F3420 X157.94 Y128.24 E1065.28750
G0 F12000 X158.50 Y128.24
G1 F3420 X167.02 Y136.76 E1065.68826
G0 F12000 X167.59 Y136.76
G1 F3420 X159.07 Y128.24 E1066.08899
G0 F12000 X159.63 Y128.24
G1 F3420 X168.16 Y136.76 E1066.48974
G0 F12000 X168.72 Y136.76
G1 F3420 X160.20 Y128.24 E1066.89050
G0 F12000 X160.77 Y128.24
G1 F3420 X169.29 Y136.76 E1067.29125
G0 F12000 X169.85 Y136.76
G1 F3420 X161.33 Y128.24 E1067.69201
G0 F12000 X161.90 Y128.24
G1 F3420 X170.42 Y136.76 E1068.09276
G0 F12000 X170.98 Y136.76
G1 F3420 X162.46 Y128.24 E1068.49352
G0 F12000 X163.03 Y128.24
G1 F3420 X171.55 Y136.76 E1068.89427
G0 F12000 X172.12 Y136.76
G1 F3420 X163.59 Y128.24 E1069.29502
G0 F12000 X164.16 Y128.24
G1 F3420 X172.68 Y136.76 E1069.69578
G0 F12000 X173.25 Y136.76
G1 F3420 X164.73 Y128.24 E1070.09653
G0 F12000 X165.29 Y128.24
G1 F3420 X173.81 Y136.76 E1070.49729
G0 F12000 X174.38 Y136.76
G1 F3420 X165.86 Y128.24 E1070.89804
G0 F12000 X166.42 Y128.24
G1 F3420 X174.94 Y136.76 E1071.29880
G0 F12000 X175.51 Y136.76
G1 F3420 X166.99 Y128.24 E1071.69955
G0 F12000 X167.56 Y128.24
G1 F3420 X176.07 Y136.76 E1072.10031
G0 F12000 X176.64 Y136.76
G1 F3420 X168.12 Y128.24 E1072.50104
G0 F12000 X168.69 Y128.24
G1 F3420 X177.21 Y136.76 E1072.90179
G0 F12000 X177.77 Y136.76
G1 F3420 X169.25 Y128.24 E1073.30255
G0 F12000 X169.82 Y128.24
G1 F3420 X178.34 Y136.76 E1073.70328
G0 F12000 X178.90 Y136.76
G1 F3420 X170.38 Y128.24 E1074.10403
G0 F12000 X170.95 Y128.24
G1 F3420 X179.47 Y136.76 E1074.50479
G0 F12000 X180.03 Y136.76
G1 F3420 X171.51 Y128.24 E1074.90554
G0 F12000 X172.08 Y128.24
G1 F3420 X180.60 Y136.76 E1075.30630
G0 F12000 X181.17 Y136.76
G1 F3420 X172.65 Y128.24 E1075.70705
G0 F12000 X173.21 Y128.24
G1 F3420 X181.73 Y136.76 E1076.10781
G0 F12000 X182.30 Y136.76
G1 F3420 X173.78 Y128.24 E1076.50856
G0 F12000 X174.34 Y128.24
G1 F3420 X182.86 Y136.76 E1076.90932
G0 F12000 X183.43 Y136.76
G1 F3420 X174.91 Y128.24 E1077.31007
G0 F12000 X175.47 Y128.24
G1 F3420 X183.99 Y136.76 E1077.71083
G0 F12000 X184.56 Y136.76
G1 F3420 X176.04 Y128.24 E1078.11158
G0 F12000 X176.61 Y128.24
G1 F3420 X185.13 Y136.76 E1078.51234
G0 F12000 X185.69 Y136.76
G1 F3420 X177.17 Y128.24 E1078.91309
G0 F12000 X177.74 Y128.24
G1 F3420 X186.26 Y136.76 E1079.31384
G0 F12000 X186.82 Y136.76
G1 F3420 X178.30 Y128.24 E1079.71460
G0 F12000 X178.87 Y128.24
G1 F3420 X187.39 Y136.76 E1080.11533
G0 F12000 X187.95 Y136.76
G1 F3420 X179.43 Y128.24 E1080.51608
G0 F12000 X180.00 Y128.24
G1 F3420 X188.52 Y136.76 E1080.91684
G0 F12000 X188.55 Y136.22
G1 F3420 X180.57 Y128.24 E1081.29238
G0 F12000 X181.13 Y128.24
G1 F3420 X188.55 Y135.66 E1081.64135
G0 F12000 X188.55 Y135.09
G1 F3420 X181.70 Y128.24 E1081.96369
G0 F12000 X182.26 Y128.24
G1 F3420 X188.55 Y134.53 E1082.25941
G0 F12000 X188.55 Y133.96
G1 F3420 X182.83 Y128.24 E1082.52856
G0 F12000 X183.39 Y128.24
G1 F3420 X188.55 Y133.40 E1082.77108
G0 F12000 X188.55 Y132.83
G1 F3420 X183.96 Y128.24 E1082.98698
G0 F12000 X184.53 Y128.24
G1 F3420 X188.55 Y132.26 E1083.17631
G0 F12000 X188.55 Y131.70
G1 F3420 X185.09 Y128.24 E1083.33901
G0 F12000 X185.66 Y128.24
G1 F3420 X188.55 Y131.13 E1083.47508
G0 F12000 X188.55 Y130.57
G1 F3420 X186.22 Y128.24 E1083.58456
G0 F12000 X186.79 Y128.24
G1 F3420 X188.55 Y130.00 E1083.66744
G0 F12000 X188.55 Y129.44
G1 F3420 X187.35 Y128.24 E1083.72370
G0 F12000 X187.92 Y128.24
G1 F3420 X188.55 Y128.87 E1083.75335
G0 F12000 X188.55 Y128.31
G1 F3420 X188.49 Y128.24 E1083.75641
G1 F2400 E1082.55641
G0 F12000 X188.69 Y168.10
;TYPE:WALL-INNER
G1 F2400 E1083.75641
G1 F3420 X188.69 Y176.90 E1084.04910
G1 X156.75 Y176.90 E1085.11133
G1 X156.75 Y189.72 E1085.53766
G1 X148.25 Y189.72 E1085.82064
G1 X148.25 Y176.90 E1086.24696
G1 X116.31 Y176.90 E1087.30919
G1 X116.31 Y168.10 E1087.60188
G1 X148.25 Y168.10 E1088.66411
G1 X148.25 Y155.28 E1089.09047
G1 X156.75 Y155.28 E1089.37345
G1 X156.75 Y168.10 E1089.79981
G1 X188.69 Y168.10 E1090.86204
G0 F12000 X189.09 Y167.70
;TYPE:WALL-OUTER
G1 F3420 X189.09 Y177.30 E1091.18134
G1 X157.15 Y177.30 E1092.24357
G1 X157.15 Y190.12 E1092.66990
G1 X147.85 Y190.12 E1092.97948
G1 X147.85 Y177.30 E1093.40581
G1 X115.91 Y177.30 E1094.46804
G1 X115.91 Y167.70 E1094.78734
G1 X147.85 Y167.70 E1095.84956
G1 X147.85 Y154.88 E1096.27593
G1 X157.15 Y154.88 E1096.58551
G1 X157.15 Y167.70 E1097.01187
G1 X189.09 Y167.70 E1098.07410
G0 F12000 X188.55 Y168.47
;TYPE:FILL
G1 F3420 X188.32 Y168.24 E1098.08487
G0 F12000 X187.75 Y168.24
G1 F3420 X188.55 Y169.03 E1098.12227
G0 F12000 X188.55 Y169.60
G1 F3420 X187.19 Y168.24 E1098.18626
G0 F12000 X186.62 Y168.24
G1 F3420 X188.55 Y170.16 E1098.27685
G0 F12000 X188.55 Y170.73
G1 F3420 X186.06 Y168.24 E1098.39407
G0 F12000 X185.49 Y168.24
G1 F3420 X188.55 Y171.30 E1098.53789
G0 F12000 X188.55 Y171.86
G1 F3420 X184.93 Y168.24 E1098.70832
G0 F12000 X184.36 Y168.24
G1 F3420 X188.55 Y172.43 E1098.90536
G0 F12000 X188.55 Y172.99
G1 F3420 X183.80 Y168.24 E1099.12900
G0 F12000 X183.23 Y168.24
G1 F3420 X188.55 Y173.56 E1099.37926
G0 F12000 X188.55 Y174.12
G1 F3420 X182.66 Y168.24 E1099.65612
G0 F12000 X182.10 Y168.24
G1 F3420 X188.55 Y174.69 E1099.95958
G0 F12000 X188.55 Y175.26
G1 F3420 X181.53 Y168.24 E1100.28966
G0 F12000 X180.97 Y168.24
G1 F3420 X188.55 Y175.82 E1100.64634
G0 F12000 X188.55 Y176.39
G1 F3420 X180.40 Y168.24 E1101.02962
G0 F12000 X179.84 Y168.24
G1 F3420 X188.36 Y176.76 E1101.43038
G0 F12000 X187.79 Y176.76
G1 F3420 X179.27 Y168.24 E1101.83113
G0 F12000 X178.70 Y168.24
G1 F3420 X187.22 Y176.76 E1102.23188
G0 F12000 X186.66 Y176.76
G1 F3420 X178.14 Y168.24 E1102.63264
G0 F12000 X177.57 Y168.24
G1 F3420 X186.09 Y176.76 E1103.03339
G0 F12000 X185.53 Y176.76
G1 F3420 X177.01 Y168.24 E1103.43415
G0 F12000 X176.44 Y168.24
G1 F3420 X184.96 Y176.76 E1103.83490
G0 F12000 X184.40 Y176.76
G1 F3420 X175.88 Y168.24 E1104.23566
G0 F12000 X175.31 Y168.24
G1 F3420 X183.83 Y176.76 E1104.63641
G0 F12000 X183.26 Y176.76
G1 F3420 X174.75 Y168.24 E1105.03717
G0 F12000 X174.18 Y168.24
G1 F3420 X182.70 Y176.76 E1105.43792
G0 F12000 X182.13 Y176.76
G1 F3420 X173.61 Y168.24 E1105.83868
G0 F12000 X173.05 Y168.24
G1 F3420 X181.57 Y176.76 E1106.23943
G0 F12000 X181.00 Y176.76
G1 F3420 X172.48 Y168.24 E1106.64019
G0 F12000 X171.92 Y168.24
G1 F3420 X180.44 Y176.76 E1107.04094
G0 F12000 X179.87 Y176.76
G1 F3420 X171.35 Y168.24 E1107.44167
G0 F12000 X170.78 Y168.24
G1 F3420 X179.31 Y176.76 E1107.84243
G0 F12000 X178.74 Y176.76
G1 F3420 X170.22 Y168.24 E1108.24318
G0 F12000 X169.65 Y168.24
G1 F3420 X178.17 Y176.76 E1108.64391
G0 F12000 X177.61 Y176.76
G1 F3420 X169.09 Y168.24 E1109.04467
G0 F12000 X168.52 Y168.24
G1 F3420 X177.04 Y176.76 E1109.44542
G0 F12000 X176.48 Y176.76
G1 F3420 X167.96 Y168.24 E1109.84618
G0 F12000 X167.39 Y168.24
G1 F3420 X175.91 Y176.76 E1110.24693
G0 F12000 X175.34 Y176.76
G1 F3420 X166.82 Y168.24 E1110.64769
G0 F12000 X166.26 Y168.24
G1 F3420 X174.78 Y176.76 E1111.04844
G0 F12000 X174.21 Y176.76
G1 F3420 X165.69 Y168.24 E1111.44920
G0 F12000 X165.13 Y168.24
G1 F3420 X173.65 Y176.76 E1111.84995
G0 F12000 X173.08 Y176.76
G1 F3420 X164.56 Y168.24 E1112.25070
G0 F12000 X164.00 Y168.24
G1 F3420 X172.52 Y176.76 E1112.65146
G0 F12000 X171.95 Y176.76
G1 F3420 X163.43 Y168.24 E1113.05221
G0 F12000 X162.87 Y168.24
G1 F3420 X171.38 Y176.76 E1113.45297
G0 F12000 X170.82 Y176.76
G1 F3420 X162.30 Y168.24 E1113.85372
G0 F12000 X161.73 Y168.24
G1 F3420 X170.25 Y176.76 E1114.25448
G0 F12000 X169.69 Y176.76
G1 F3420 X161.17 Y168.24 E1114.65523
G0 F12000 X160.60 Y168.24
G1 F3420 X169.12 Y176.76 E1115.05596
G0 F12000 X168.56 Y176.76
G1 F3420 X160.04 Y168.24 E1115.45672
G0 F12000 X159.47 Y168.24
G1 F3420 X167.99 Y176.76 E1115.85747
G0 F12000 X167.43 Y176.76
G1 F3420 X158.91 Y168.24 E1116.25823
G0 F12000 X158.34 Y168.24
G1 F3420 X166.86 Y176.76 E1116.65898
G0 F12000 X166.29 Y176.76
G1 F3420 X157.77 Y168.24 E1117.05974
G0 F12000 X157.21 Y168.24
G1 F3420 X165.73 Y176.76 E1117.46049
G0 F12000 X165.16 Y176.76
G1 F3420 X156.64 Y168.24 E1117.86125
G0 F12000 X156.61 Y168.21
G1 F3420 X148.38 Y159.98 E1118.24829
G0 F12000 X148.38 Y160.55
G1 F3420 X164.60 Y176.76 E1119.01085
G0 F12000 X164.03 Y176.76
G1 F3420 X148.38 Y161.11 E1119.74679
G0 F12000 X148.38 Y161.68
G1 F3420 X163.47 Y176.76 E1120.45613
G0 F12000 X162.90 Y176.76
G1 F3420 X148.38 Y162.24 E1121.13887
G0 F12000 X148.38 Y162.81
G1 F3420 X162.33 Y176.76 E1121.79499
G0 F12000 X161.77 Y176.76
G1 F3420 X148.38 Y163.38 E1122.42451
G0 F12000 X148.38 Y163.94
G1 F3420 X161.20 Y176.76 E1123.02741
G0 F12000 X160.64 Y176.76
G1 F3420 X148.38 Y164.51 E1123.60370
G0 F12000 X148.38 Y165.07
G1 F3420 X160.07 Y176.76 E1124.15340
G0 F12000 X159.51 Y176.76
G1 F3420 X148.38 Y165.64 E1124.67648
G0 F12000 X148.38 Y166.20
G1 F3420 X158.94 Y176.76 E1125.17295
G0 F12000 X158.37 Y176.76
G1 F3420 X148.38 Y166.77 E1125.64280
G0 F12000 X148.38 Y167.34
G1 F3420 X157.81 Y176.76 E1126.08605
G0 F12000 X157.24 Y176.76
G1 F3420 X148.38 Y167.90 E1126.50271
G0 F12000 X148.16 Y168.24
G1 F3420 X156.68 Y176.76 E1126.90346
G0 F12000 X156.61 Y177.26
G1 F3420 X147.59 Y168.24 E1127.32785
G0 F12000 X147.03 Y168.24
G1 F3420 X156.61 Y177.83 E1127.77887
G0 F12000 X156.61 Y178.39
G1 F3420 X146.46 Y168.24 E1128.25648
G0 F12000 X145.89 Y168.24
G1 F3420 X156.61 Y178.96 E1128.76069
G0 F12000 X156.61 Y179.52
G1 F3420 X145.33 Y168.24 E1129.29153
G0 F12000 X144.76 Y168.24
G1 F3420 X156.61 Y180.09 E1129.84896
G0 F12000 X156.61 Y180.66
G1 F3420 X144.20 Y168.24 E1130.43300
G0 F12000 X143.63 Y168.24
G1 F3420 X156.61 Y181.22 E1131.04365
G0 F12000 X156.61 Y181.79
G1 F3420 X143.07 Y168.24 E1131.68091
G0 F12000 X142.50 Y168.24
G1 F3420 X156.61 Y182.35 E1132.34477
G0 F12000 X156.61 Y182.92
G1 F3420 X141.93 Y168.24 E1133.03524
G0 F12000 X141.37 Y168.24
G1 F3420 X156.61 Y183.48 E1133.75232
G0 F12000 X156.61 Y184.05
G1 F3420 X140.80 Y168.24 E1134.49600
G0 F12000 X140.24 Y168.24
G1 F3420 X156.61 Y184.62 E1135.26630
G0 F12000 X156.61 Y185.18
G1 F3420 X148.38 Y176.95 E1135.65337
G0 F12000 X148.19 Y176.76
G1 F3420 X139.67 Y168.24 E1136.05412
G0 F12000 X139.11 Y168.24
G1 F3420 X147.63 Y176.76 E1136.45488
G0 F12000 X147.06 Y176.76
G1 F3420 X138.54 Y168.24 E1136.85563
G0 F12000 X137.97 Y168.24
G1 F3420 X146.49 Y176.76 E1137.25639
G0 F12000 X145.93 Y176.76
G1 F3420 X137.41 Y168.24 E1137.65714
G0 F12000 X136.84 Y168.24
G1 F3420 X145.36 Y176.76 E1138.05790
G0 F12000 X144.80 Y176.76
G1 F3420 X136.28 Y168.24 E1138.45865
G0 F12000 X135.71 Y168.24
G1 F3420 X144.23 Y176.76 E1138.85940
G0 F12000 X143.67 Y176.76
G1 F3420 X135.15 Y168.24 E1139.26016
G0 F12000 X134.58 Y168.24
G1 F3420 X143.10 Y176.76 E1139.66091
G0 F12000 X142.53 Y176.76
G1 F3420 X134.01 Y168.24 E1140.06167
G0 F12000 X133.45 Y168.24
G1 F3420 X141.97 Y176.76 E1140.46242
G0 F12000 X141.40 Y176.76
G1 F3420 X132.88 Y168.24 E1140.86318
G0 F12000 X132.32 Y168.24
G1 F3420 X140.84 Y176.76 E1141.26391
G0 F12000 X140.27 Y176.76
G1 F3420 X131.75 Y168.24 E1141.66466
G0 F12000 X131.19 Y168.24
G1 F3420 X139.71 Y176.76 E1142.06542
G0 F12000 X139.14 Y176.76
G1 F3420 X130.62 Y168.24 E1142.46615
G0 F12000 X130.06 Y168.24
G1 F3420 X138.57 Y176.76 E1142.86690
G0 F12000 X138.01 Y176.76
G1 F3420 X129.49 Y168.24 E1143.26766
G0 F12000 X128.92 Y168.24
G1 F3420 X137.44 Y176.76 E1143.66841
G0 F12000 X136.88 Y176.76
G1 F3420 X128.36 Y168.24 E1144.06917
G0 F12000 X127.79 Y168.24
G1 F3420 X136.31 Y176.76 E1144.46992
G0 F12000 X135.75 Y176.76
G1 F3420 X127.23 Y168.24 E1144.87068
G0 F12000 X126.66 Y168.24
G1 F3420 X135.18 Y176.76 E1145.27143
G0 F12000 X134.62 Y176.76
G1 F3420 X126.09 Y168.24 E1145.67219
G0 F12000 X125.53 Y168.24
G1 F3420 X134.05 Y176.76 E1146.07294
G0 F12000 X133.48 Y176.76
G1 F3420 X124.96 Y168.24 E1146.47370
G0 F12000 X124.40 Y168.24
G1 F3420 X132.92 Y176.76 E1146.87445
G0 F12000 X132.35 Y176.76
G1 F3420 X123.83 Y168.24 E1147.27521
G0 F12000 X123.27 Y168.24
G1 F3420 X131.79 Y176.76 E1147.67596
G0 F12000 X131.22 Y176.76
G1 F3420 X122.70 Y168.24 E1148.07671
G0 F12000 X122.14 Y168.24
G1 F3420 X130.66 Y176.76 E1148.47747
G0 F12000 X130.09 Y176.76
G1 F3420 X121.57 Y168.24 E1148.87820
G0 F12000 X121.00 Y168.24
G1 F3420 X129.52 Y176.76 E1149.27896
G0 F12000 X128.96 Y176.76
G1 F3420 X120.44 Y168.24 E1149.67971
G0 F12000 X119.87 Y168.24
G1 F3420 X128.39 Y176.76 E1150.08046
G0 F12000 X127.83 Y176.76
G1 F3420 X119.31 Y168.24 E1150.48122
G0 F12000 X118.74 Y168.24
G1 F3420 X127.26 Y176.76 E1150.88197
G0 F12000 X126.69 Y176.76
G1 F3420 X118.17 Y168.24 E1151.28273
G0 F12000 X117.61 Y168.24
G1 F3420 X126.13 Y176.76 E1151.68348
G0 F12000 X125.56 Y176.76
G1 F3420 X117.04 Y168.24 E1152.08424
G0 F12000 X116.48 Y168.24
G1 F3420 X125.00 Y176.76 E1152.48499
G0 F12000 X124.43 Y176.76
G1 F3420 X116.45 Y168.78 E1152.86054
G0 F12000 X116.45 Y169.34
G1 F3420 X123.87 Y176.76 E1153.20948
G0 F12000 X123.30 Y176.76
G1 F3420 X116.45 Y169.91 E1153.53180
G0 F12000 X116.45 Y170.47
G1 F3420 X122.74 Y176.76 E1153.82752
G0 F12000 X122.17 Y176.76
G1 F3420 X116.45 Y171.04 E1154.09664
G0 F12000 X116.45 Y171.60
G1 F3420 X121.60 Y176.76 E1154.33914
G0 F12000 X121.04 Y176.76
G1 F3420 X116.45 Y172.17 E1154.55504
G0 F12000 X116.45 Y172.73
G1 F3420 X120.47 Y176.76 E1154.74434
G0 F12000 X119.91 Y176.76
G1 F3420 X116.45 Y173.30 E1154.90702
G0 F12000 X116.45 Y173.87
G1 F3420 X119.34 Y176.76 E1155.04307
G0 F12000 X118.78 Y176.76
G1 F3420 X116.45 Y174.43 E1155.15255
G0 F12000 X116.45 Y175.00
G1 F3420 X118.21 Y176.76 E1155.23541
G0 F12000 X117.64 Y176.76
G1 F3420 X116.45 Y175.56 E1155.29164
G0 F12000 X116.45 Y176.13
G1 F3420 X117.08 Y176.76 E1155.32130
G0 F12000 X116.51 Y176.76
G1 F3420 X116.45 Y176.69 E1155.32433
G0 F12000 X148.19 Y176.96
G0 X148.38 Y177.52
G1 F3420 X156.61 Y185.75 E1155.71140
G0 F12000 X156.61 Y186.31
G1 F3420 X148.38 Y178.08 E1156.09844
G0 F12000 X148.38 Y178.65
G1 F3420 X156.61 Y186.88 E1156.48551
G0 F12000 X156.61 Y187.44
G1 F3420 X148.38 Y179.22 E1156.87257
G0 F12000 X148.38 Y179.78
G1 F3420 X156.61 Y188.01 E1157.25962
G0 F12000 X156.61 Y188.57
G1 F3420 X148.38 Y180.35 E1157.64669
G0 F12000 X148.38 Y180.91
G1 F3420 X156.61 Y189.14 E1158.03375
G0 F12000 X156.48 Y189.58
G1 F3420 X148.38 Y181.48 E1158.41470
G0 F12000 X148.38 Y182.04
G1 F3420 X155.92 Y189.58 E1158.76908
G0 F12000 X155.35 Y189.58
G1 F3420 X148.38 Y182.61 E1159.09683
G0 F12000 X148.38 Y183.18
G1 F3420 X154.79 Y189.58 E1159.39796
G0 F12000 X154.22 Y189.58
G1 F3420 X148.38 Y183.74 E1159.67252
G0 F12000 X148.38 Y184.31
G1 F3420 X153.66 Y189.58 E1159.92045
G0 F12000 X153.09 Y189.58
G1 F3420 X148.38 Y184.87 E1160.14176
G0 F12000 X148.38 Y185.44
G1 F3420 X152.53 Y189.58 E1160.33647
G0 F12000 X151.96 Y189.58
G1 F3420 X148.38 Y186.00 E1160.50458
G0 F12000 X148.38 Y186.57
G1 F3420 X151.39 Y189.58 E1160.64607
G0 F12000 X150.83 Y189.58
G1 F3420 X148.38 Y187.13 E1160.76093
G0 F12000 X148.38 Y187.70
G1 F3420 X150.26 Y189.58 E1160.84922
G0 F12000 X149.70 Y189.58
G1 F3420 X148.38 Y188.27 E1160.91088
G0 F12000 X148.38 Y188.83
G1 F3420 X149.13 Y189.58 E1160.94593
G0 F12000 X148.56 Y189.58
G1 F3420 X148.38 Y189.40 E1160.95439
G0 F12000 X156.61 Y167.65
G1 F3420 X148.38 Y159.42 E1161.34146
G0 F12000 X148.38 Y158.85
G1 F3420 X156.61 Y167.08 E1161.72853
G0 F12000 X156.61 Y166.51
G1 F3420 X148.38 Y158.28 E1162.11557
G0 F12000 X148.38 Y157.72
G1 F3420 X156.61 Y165.95 E1162.50264
G0 F12000 X156.61 Y165.38
G1 F3420 X148.38 Y157.15 E1162.88970
G0 F12000 X148.38 Y156.59
G1 F3420 X156.61 Y164.82 E1163.27675
G0 F12000 X156.61 Y164.25
G1 F3420 X148.38 Y156.02 E1163.66381
G0 F12000 X148.38 Y155.46
G1 F3420 X156.61 Y163.69 E1164.05088
G0 F12000 X156.61 Y163.12
G1 F3420 X148.91 Y155.42 E1164.41302
G0 F12000 X149.48 Y155.42
G1 F3420 X156.61 Y162.55 E1164.74856
G0 F12000 X156.61 Y161.99
G1 F3420 X150.05 Y155.42 E1165.05750
G0 F12000 X150.61 Y155.42
G1 F3420 X156.61 Y161.42 E1165.33981
G0 F12000 X156.61 Y160.86
G1 F3420 X151.18 Y155.42 E1165.59550
G0 F12000 X151.74 Y155.42
G1 F3420 X156.61 Y160.29 E1165.82462
G0 F12000 X156.61 Y159.72
G1 F3420 X152.31 Y155.42 E1166.02711
G0 F12000 X152.88 Y155.42
G1 F3420 X156.61 Y159.16 E1166.20296
G0 F12000 X156.61 Y158.59
G1 F3420 X153.44 Y155.42 E1166.35221
G0 F12000 X154.01 Y155.42
G1 F3420 X156.61 Y158.03 E1166.47484
G0 F12000 X156.61 Y157.46
G1 F3420 X154.57 Y155.42 E1166.57086
G0 F12000 X155.14 Y155.42
G1 F3420 X156.61 Y156.90 E1166.64029
G0 F12000 X156.61 Y156.33
G1 F3420 X155.70 Y155.42 E1166.68309
G0 F12000 X156.27 Y155.42
G1 F3420 X156.61 Y155.76 E1166.69930
;LAYER:3
G0 F12000 X156.75 Y155.28 Z0.90
;TYPE:WALL-INNER
G1 F3780 X156.75 Y168.10 E1167.12566
G1 X188.69 Y168.10 E1168.18789
G1 X188.69 Y176.90 E1168.48058
G1 X156.75 Y176.90 E1169.54280
G1 X156.75 Y189.72 E1169.96913
G1 X148.25 Y189.72 E1170.25211
G1 X148.25 Y176.90 E1170.67844
G1 X116.31 Y176.90 E1171.74067
G1 X116.31 Y168.10 E1172.03336
G1 X148.25 Y168.10 E1173.09559
G1 X148.25 Y155.28 E1173.52195
G1 X156.75 Y155.28 E1173.80492
G0 F12000 X157.15 Y154.88
;TYPE:WALL-OUTER
G1 F3780 X157.15 Y167.70 E1174.23129
G1 X189.09 Y167.70 E1175.29352
G1 X189.09 Y177.30 E1175.61281
G1 X157.15 Y177.30 E1176.67504
G1 X157.15 Y190.12 E1177.10137
G1 X147.85 Y190.12 E1177.41096
G1 X147.85 Y177.30 E1177.83728
G1 X115.91 Y177.30 E1178.89951
G1 X115.91 Y167.70 E1179.21881
G1 X147.85 Y167.70 E1180.28104
G1 X147.85 Y154.88 E1180.70740
G1 X157.15 Y154.88 E1181.01699
G0 F12000 X156.55 Y155.42
;TYPE:FILL
G1 F3780 X148.39 Y163.59 E1181.40121
G0 F12000 X148.39 Y164.15
G1 F3780 X156.61 Y155.93 E1181.78818
G0 F12000 X156.61 Y156.49
G1 F3780 X148.39 Y164.72 E1182.17515
G0 F12000 X148.39 Y165.29
G1 F3780 X156.61 Y157.06 E1182.56213
G0 F12000 X156.61 Y157.62
G1 F3780 X148.39 Y165.85 E1182.94910
G0 F12000 X148.39 Y166.42
G1 F3780 X156.61 Y158.19 E1183.33607
G0 F12000 X156.61 Y158.76
G1 F3780 X148.39 Y166.98 E1183.72304
G0 F12000 X148.39 Y167.55
G1 F3780 X156.61 Y159.32 E1184.11002
G0 F12000 X156.61 Y159.89
G1 F3780 X148.39 Y168.11 E1184.49699
G0 F12000 X148.26 Y168.24
G1 F3780 X139.74 Y176.76 E1184.89774
G0 F12000 X140.31 Y176.76
G1 F3780 X156.61 Y160.45 E1185.66475
G0 F12000 X156.61 Y161.02
G1 F3780 X140.87 Y176.76 E1186.40516
G0 F12000 X141.44 Y176.76
G1 F3780 X156.61 Y161.58 E1187.11895
G0 F12000 X156.61 Y162.15
G1 F3780 X142.00 Y176.76 E1187.80611
G0 F12000 X142.57 Y176.76
G1 F3780 X156.61 Y162.72 E1188.46670
G0 F12000 X156.61 Y163.28
G1 F3780 X143.13 Y176.76 E1189.10066
G0 F12000 X143.70 Y176.76
G1 F3780 X156.61 Y163.85 E1189.70800
G0 F12000 X156.61 Y164.41
G1 F3780 X144.27 Y176.76 E1190.28877
G0 F12000 X144.83 Y176.76
G1 F3780 X156.61 Y164.98 E1190.84291
G0 F12000 X156.61 Y165.54
G1 F3780 X145.40 Y176.76 E1191.37043
G0 F12000 X145.96 Y176.76
G1 F3780 X156.61 Y166.11 E1191.87137
G0 F12000 X156.61 Y166.68
G1 F3780 X146.53 Y176.76 E1192.34569
G0 F12000 X147.09 Y176.76
G1 F3780 X156.61 Y167.24 E1192.79339
G0 F12000 X156.61 Y167.81
G1 F3780 X147.66 Y176.76 E1193.21449
G0 F12000 X148.23 Y176.76
G1 F3780 X156.75 Y168.24 E1193.61526
G0 F12000 X157.31 Y168.24
G1 F3780 X148.38 Y177.17 E1194.03516
G0 F12000 X148.38 Y177.73
G1 F3780 X157.88 Y168.24 E1194.48166
G0 F12000 X158.44 Y168.24
G1 F3780 X148.38 Y178.30 E1194.95478
G0 F12000 X148.38 Y178.86
G1 F3780 X159.01 Y168.24 E1195.45450
G0 F12000 X159.57 Y168.24
G1 F3780 X148.38 Y179.43 E1195.98085
G0 F12000 X148.38 Y179.99
G1 F3780 X160.14 Y168.24 E1196.53379
G0 F12000 X160.71 Y168.24
G1 F3780 X148.38 Y180.56 E1197.11333
G0 F12000 X148.38 Y181.13
G1 F3780 X161.27 Y168.24 E1197.71950
G0 F12000 X161.84 Y168.24
G1 F3780 X148.38 Y181.69 E1198.35226
G0 F12000 X148.38 Y182.26
G1 F3780 X162.40 Y168.24 E1199.01165
G0 F12000 X162.97 Y168.24
G1 F3780 X148.38 Y182.82 E1199.69763
G0 F12000 X148.38 Y183.39
G1 F3780 X163.53 Y168.24 E1200.41022
G0 F12000 X164.10 Y168.24
G1 F3780 X148.38 Y183.95 E1201.14943
G0 F12000 X148.38 Y184.52
G1 F3780 X164.67 Y168.24 E1201.91524
G0 F12000 X165.23 Y168.24
G1 F3780 X156.71 Y176.76 E1202.31602
G0 F12000 X156.61 Y176.86
G1 F3780 X148.38 Y185.09 E1202.70301
G0 F12000 X148.38 Y185.65
G1 F3780 X156.61 Y177.42 E1203.09003
G0 F12000 X156.61 Y177.99
G1 F3780 X148.38 Y186.22 E1203.47705
G0 F12000 X148.38 Y186.78
G1 F3780 X156.61 Y178.56 E1203.86405
G0 F12000 X156.61 Y179.12
G1 F3780 X148.38 Y187.35 E1204.25107
G0 F12000 X148.38 Y187.91
G1 F3780 X156.61 Y179.69 E1204.63809
G0 F12000 X156.61 Y180.25
G1 F3780 X148.38 Y188.48 E1205.02511
G0 F12000 X148.38 Y189.04
G1 F3780 X156.61 Y180.82 E1205.41213
G0 F12000 X156.61 Y181.38
G1 F3780 X148.42 Y189.58 E1205.79755
G0 F12000 X148.99 Y189.58
G1 F3780 X156.61 Y181.95 E1206.15635
G0 F12000 X156.61 Y182.51
G1 F3780 X149.55 Y189.58 E1206.48857
G0 F12000 X150.12 Y189.58
G1 F3780 X156.61 Y183.08 E1206.79417
G0 F12000 X156.61 Y183.65
G1 F3780 X150.68 Y189.58 E1207.07314
G0 F12000 X151.25 Y189.58
G1 F3780 X156.61 Y184.21 E1207.32552
G0 F12000 X156.61 Y184.78
G1 F3780 X151.81 Y189.58 E1207.55130
G0 F12000 X152.38 Y189.58
G1 F3780 X156.61 Y185.34 E1207.75045
G0 F12000 X156.61 Y185.91
G1 F3780 X152.94 Y189.58 E1207.92301
G0 F12000 X153.51 Y189.58
G1 F3780 X156.61 Y186.47 E1208.06896
G0 F12000 X156.61 Y187.04
G1 F3780 X154.08 Y189.58 E1208.18829
G0 F12000 X154.64 Y189.58
G1 F3780 X156.61 Y187.61 E1208.28100
G0 F12000 X156.61 Y188.17
G1 F3780 X155.21 Y189.58 E1208.34714
G0 F12000 X155.77 Y189.58
G1 F3780 X156.61 Y188.74 E1208.38665
G0 F12000 X156.61 Y189.30
G1 F3780 X156.34 Y189.58 E1208.39954
G0 F12000 X156.81 Y176.96
G0 X157.28 Y176.76
G1 F3780 X165.80 Y168.24 E1208.80032
G0 F12000 X166.36 Y168.24
G1 F3780 X157.84 Y176.76 E1209.20107
G0 F12000 X158.41 Y176.76
G1 F3780 X166.93 Y168.24 E1209.60185
G0 F12000 X167.50 Y168.24
G1 F3780 X158.97 Y176.76 E1210.00263
G0 F12000 X159.54 Y176.76
G1 F3780 X168.06 Y168.24 E1210.40338
G0 F12000 X168.63 Y168.24
G1 F3780 X160.10 Y176.76 E1210.80416
G0 F12000 X160.67 Y176.76
G1 F3780 X169.19 Y168.24 E1211.20494
G0 F12000 X169.76 Y168.24
G1 F3780 X161.24 Y176.76 E1211.60569
G0 F12000 X161.80 Y176.76
G1 F3780 X170.32 Y168.24 E1212.00645
G0 F12000 X170.89 Y168.24
G1 F3780 X162.37 Y176.76 E1212.40722
G0 F12000 X162.93 Y176.76
G1 F3780 X171.46 Y168.24 E1212.80800
G0 F12000 X172.02 Y168.24
G1 F3780 X163.50 Y176.76 E1213.20876
G0 F12000 X164.06 Y176.76
G1 F3780 X172.59 Y168.24 E1213.60954
G0 F12000 X173.15 Y168.24
G1 F3780 X164.63 Y176.76 E1214.01031
G0 F12000 X165.20 Y176.76
G1 F3780 X173.72 Y168.24 E1214.41107
G0 F12000 X174.28 Y168.24
G1 F3780 X165.76 Y176.76 E1214.81185
G0 F12000 X166.33 Y176.76
G1 F3780 X174.85 Y168.24 E1215.21263
G0 F12000 X175.41 Y168.24
G1 F3780 X166.89 Y176.76 E1215.61338
G0 F12000 X167.46 Y176.76
G1 F3780 X175.98 Y168.24 E1216.01416
G0 F12000 X176.55 Y168.24
G1 F3780 X168.03 Y176.76 E1216.41494
G0 F12000 X168.59 Y176.76
G1 F3780 X177.11 Y168.24 E1216.81569
G0 F12000 X177.68 Y168.24
G1 F3780 X169.16 Y176.76 E1217.21647
G0 F12000 X169.72 Y176.76
G1 F3780 X178.24 Y168.24 E1217.61725
G0 F12000 X178.81 Y168.24
G1 F3780 X170.29 Y176.76 E1218.01800
G0 F12000 X170.85 Y176.76
G1 F3780 X179.37 Y168.24 E1218.41878
G0 F12000 X179.94 Y168.24
G1 F3780 X171.42 Y176.76 E1218.81956
G0 F12000 X171.99 Y176.76
G1 F3780 X180.50 Y168.24 E1219.22031
G0 F12000 X181.07 Y168.24
G1 F3780 X172.55 Y176.76 E1219.62107
