;-- START GCODE --
;Sliced for Type A Machines Series 1
;Sliced at: Thu 24-11-2016 22:17:11
;Basic settings: Layer height: 0.2 Walls: 1.5 Fill: 20
;Print Speed: 100 Support: 0
;Retraction Speed: 40 Retraction Distance: 1.2
;Print time: #P_TIME#
;Filament used: #F_AMNT#m #F_WGHT#g
;Filament cost: #F_COST#
M106 S255	 ;start with the fan on
G21        ;metric values
G90        ;absolute positioning
M106 S255    ;start with the fan on
G28     ;move to endstops
G29		;allows for auto-levelling
G1 X150 Y5  Z15.0 F6000 ;center and move the platform down 15mm
M109 S220 ;Heat To temp
G92 E0                  ;zero the extruded length
G1 F200 E30              ;extrude 30mm of feed stock
G92 E0                  ;zero the extruded length again
G1 X175 Y25  Z0 F6000 ;remove bugger
G1 X220 F6000 ;remove bugger
G1 X150 Y150  Z15 F6000 ;recenter and begin
G1 F6000

;Layer count: 18
;LAYER:0
M106 S255
G0 F6000 X122.75 Y124.08 Z0.30
;TYPE:SKIRT
G1 F2700 X168.47 Y124.08 E2.85123
G1 X170.84 Y125.73 E3.03125
G1 X171.25 Y126.02 E3.06300
G1 X178.00 Y130.75 E3.57661
G1 X182.25 Y133.72 E3.90024
G1 X182.25 Y155.23 E5.24110
G1 X162.75 Y155.23 E6.45718
G1 X162.75 Y145.23 E7.08080
G1 X147.25 Y145.23 E8.04743
G1 X147.25 Y177.87 E10.08332
G1 X139.25 Y177.87 E10.58222
G1 X139.25 Y182.53 E10.87240
G1 X122.45 Y182.53 E11.92009
G1 X122.45 Y163.43 E13.11122
G1 X125.98 Y163.43 E13.33142
G1 X127.73 Y161.68 E13.48568
G1 X127.75 Y161.68 E13.48692
G1 X127.75 Y159.07 E13.64938
G1 X122.75 Y159.07 E13.96119
G1 X122.75 Y142.88 E14.97078
G1 X127.75 Y142.88 E15.28260
G1 X127.75 Y140.27 E15.44518
G1 X122.75 Y140.27 E15.75699
G1 X122.75 Y124.08 E16.76664
G0 F6000 X123.25 Y124.58
G1 F2700 X168.31 Y124.58 E19.57689
G1 X170.55 Y126.14 E19.74706
G1 X170.97 Y126.43 E19.77878
G1 X177.71 Y131.16 E20.29242
G1 X181.75 Y133.99 E20.59980
G1 X181.75 Y154.73 E21.89327
G1 X163.25 Y154.73 E23.04698
G1 X163.25 Y144.73 E23.67061
G1 X146.75 Y144.73 E24.69959
G1 X146.75 Y177.37 E26.73549
G1 X138.75 Y177.37 E27.23439
G1 X138.75 Y182.03 E27.52457
G1 X122.95 Y182.03 E28.50990
G1 X122.95 Y163.93 E29.63866
G1 X126.19 Y163.93 E29.84059
G1 X127.94 Y162.18 E29.99484
G1 X128.25 Y162.18 E30.01436
G1 X128.25 Y158.57 E30.23918
G1 X123.25 Y158.57 E30.55100
G1 X123.25 Y143.38 E31.49822
G1 X128.25 Y143.38 E31.81004
G1 X128.25 Y139.77 E32.03498
G1 X123.25 Y139.77 E32.34679
G1 X123.25 Y124.58 E33.29408
G0 F6000 X123.75 Y125.08
G1 F2700 X168.16 Y125.08 E36.06330
G1 X170.26 Y126.55 E36.22368
G1 X170.68 Y126.84 E36.25537
G1 X177.43 Y131.57 E36.76902
G1 X181.25 Y134.25 E37.06019
G1 X181.25 Y154.23 E38.30620
G1 X163.75 Y154.23 E39.39755
G1 X163.75 Y144.23 E40.02118
G1 X146.25 Y144.23 E41.11252
G1 X146.25 Y176.87 E43.14842
G1 X138.25 Y176.87 E43.64732
G1 X138.25 Y181.53 E43.93749
G1 X123.45 Y181.53 E44.86046
G1 X123.45 Y164.43 E45.92687
G1 X126.39 Y164.43 E46.11052
G1 X128.14 Y162.68 E46.26478
G1 X128.75 Y162.68 E46.30257
G1 X128.75 Y158.07 E46.58975
G1 X123.75 Y158.07 E46.90156
G1 X123.75 Y143.88 E47.78649
G1 X128.75 Y143.88 E48.09830
G1 X128.75 Y139.27 E48.38561
G1 X123.75 Y139.27 E48.69742
G1 X123.75 Y125.08 E49.58241
G0 F6000 X124.25 Y125.58
G1 F2700 X168.00 Y125.58 E52.31066
G1 X169.98 Y126.96 E52.46117
G1 X170.39 Y127.25 E52.49283
G1 X177.14 Y131.98 E53.00648
G1 X180.75 Y134.51 E53.28144
G1 X180.75 Y153.73 E54.48005
G1 X164.25 Y153.73 E55.50904
G1 X164.25 Y143.73 E56.13267
G1 X145.75 Y143.73 E57.28638
G1 X145.75 Y176.37 E59.32227
G1 X137.75 Y176.37 E59.82117
G1 X137.75 Y181.03 E60.11135
G1 X123.95 Y181.03 E60.97195
G1 X123.95 Y164.93 E61.97599
G1 X126.60 Y164.93 E62.14138
G1 X128.35 Y163.18 E62.29563
G1 X129.25 Y163.18 E62.35170
G1 X129.25 Y157.57 E62.70118
G1 X124.25 Y157.57 E63.01299
G1 X124.25 Y144.38 E63.83556
G1 X129.25 Y144.38 E64.14737
G1 X129.25 Y138.77 E64.49697
G1 X124.25 Y138.77 E64.80879
G1 X124.25 Y125.58 E65.63142
G0 F6000 X124.75 Y126.08
G1 F2700 X167.84 Y126.08 E68.31863
G1 X169.69 Y127.37 E68.45933
G1 X170.10 Y127.66 E68.49091
G1 X176.85 Y132.39 E69.00469
G1 X180.25 Y134.77 E69.26335
G1 X180.25 Y153.23 E70.41457
G1 X164.75 Y153.23 E71.38119
G1 X164.75 Y143.23 E72.00482
G1 X145.25 Y143.23 E73.22089
G1 X145.25 Y175.87 E75.25679
G1 X137.25 Y175.87 E75.75569
G1 X137.25 Y180.53 E76.04587
G1 X124.45 Y180.53 E76.84411
G1 X124.45 Y165.43 E77.78579
G1 X126.81 Y165.43 E77.93290
G1 X128.56 Y163.68 E78.08715
G1 X129.75 Y163.68 E78.16149
G1 X129.75 Y157.07 E78.57333
G1 X124.75 Y157.07 E78.88515
G1 X124.75 Y144.88 E79.64535
G1 X129.75 Y144.88 E79.95716
G1 X129.75 Y138.27 E80.36913
G1 X124.75 Y138.27 E80.68094
G1 X124.75 Y126.08 E81.44121
G0 F6000 X125.25 Y126.58
G1 F2700 X167.68 Y126.58 E84.08745
G1 X169.40 Y127.78 E84.21831
G1 X169.82 Y128.07 E84.24987
G1 X176.57 Y132.79 E84.76361
G1 X179.75 Y135.03 E85.00607
G1 X179.75 Y152.73 E86.10989
G1 X165.25 Y152.73 E87.01415
G1 X165.25 Y142.73 E87.63778
G1 X144.75 Y142.73 E88.91621
G1 X144.75 Y175.37 E90.95211
G1 X136.75 Y175.37 E91.45101
G1 X136.75 Y180.03 E91.74118
G1 X124.95 Y180.03 E92.47706
G1 X124.95 Y165.93 E93.35638
G1 X127.02 Y165.93 E93.48522
G1 X128.76 Y164.18 E93.63947
G1 X130.25 Y164.18 E93.73208
G1 X130.25 Y156.57 E94.20629
G1 X125.25 Y156.57 E94.51810
G1 X125.25 Y145.38 E95.21594
G1 X130.25 Y145.38 E95.52775
G1 X130.25 Y137.77 E96.00208
G1 X125.25 Y137.77 E96.31390
G1 X125.25 Y126.58 E97.01180
G0 F6000 X125.75 Y127.08
G1 F2700 X167.53 Y127.08 E99.61700
G1 X169.12 Y128.19 E99.73805
G1 X169.53 Y128.48 E99.76958
G1 X176.28 Y133.21 E100.28336
G1 X179.25 Y135.29 E100.50957
G1 X179.25 Y152.23 E101.56599
G1 X165.75 Y152.23 E102.40789
G1 X165.75 Y142.23 E103.03152
G1 X144.25 Y142.23 E104.37232
G1 X144.25 Y174.87 E106.40821
G1 X136.25 Y174.87 E106.90711
G1 X136.25 Y179.53 E107.19729
G1 X125.45 Y179.53 E107.87081
G1 X125.45 Y166.43 E108.68776
G1 X127.22 Y166.43 E108.79839
G1 X128.97 Y164.68 E108.95264
G1 X130.75 Y164.68 E109.06346
G1 X130.75 Y156.07 E109.60003
G1 X125.75 Y156.07 E109.91184
G1 X125.75 Y145.88 E110.54738
G1 X130.75 Y145.88 E110.85919
G1 X130.75 Y137.27 E111.39589
G1 X125.75 Y137.27 E111.70770
G1 X125.75 Y127.08 E112.34330
G0 F6000 X126.25 Y127.58
G1 F2700 X167.37 Y127.58 E114.90754
G1 X168.83 Y128.60 E115.01873
G1 X169.24 Y128.89 E115.05034
G1 X169.24 Y128.89 E115.05040
G1 X175.99 Y133.61 E115.56409
G1 X178.75 Y135.55 E115.77413
G1 X178.75 Y151.73 E116.78309
G1 X166.25 Y151.73 E117.56263
G1 X166.25 Y141.73 E118.18626
G1 X143.75 Y141.73 E119.58942
G1 X143.75 Y174.37 E121.62531
G1 X135.75 Y174.37 E122.12422
G1 X135.75 Y179.03 E122.41439
G1 X125.95 Y179.03 E123.02554
G1 X125.95 Y166.93 E123.78013
G1 X127.43 Y166.93 E123.87249
G1 X129.18 Y165.18 E124.02674
G1 X131.25 Y165.18 E124.15584
G1 X131.25 Y155.57 E124.75470
G1 X126.25 Y155.57 E125.06652
G1 X126.25 Y146.38 E125.63969
G1 X131.25 Y146.38 E125.95151
G1 X131.25 Y136.77 E126.55050
G1 X126.25 Y136.77 E126.86232
G1 X126.25 Y127.58 E127.43555
G0 F6000 X126.75 Y128.08
G1 F2700 X167.21 Y128.08 E129.95875
G1 X168.54 Y129.01 E130.06010
G1 X178.25 Y135.81 E130.79919
G1 X178.25 Y151.23 E131.76076
G1 X166.75 Y151.23 E132.47793
G1 X166.75 Y141.23 E133.10156
G1 X143.25 Y141.23 E134.56709
G1 X143.25 Y173.87 E136.60298
G1 X135.25 Y173.87 E137.10188
G1 X135.25 Y178.53 E137.39206
G1 X126.45 Y178.53 E137.94085
G1 X126.45 Y167.43 E138.63307
G1 X127.64 Y167.43 E138.70716
G1 X129.39 Y165.68 E138.86141
G1 X131.75 Y165.68 E139.00878
G1 X131.75 Y155.07 E139.67001
G1 X126.75 Y155.07 E139.98182
G1 X126.75 Y146.88 E140.49264
G1 X131.75 Y146.88 E140.80445
G1 X131.75 Y136.27 E141.46581
G1 X126.75 Y136.27 E141.77762
G1 X126.75 Y128.08 E142.28850
G0 F6000 X127.25 Y128.58
G1 F2700 X167.05 Y128.58 E144.77072
G1 X168.26 Y129.42 E144.86226
G1 X177.75 Y136.07 E145.58505
G1 X177.75 Y150.73 E146.49923
G1 X167.25 Y150.73 E147.15404
G1 X167.25 Y140.73 E147.77766
G1 X142.75 Y140.73 E149.30555
G1 X142.75 Y173.37 E151.34145
G1 X134.75 Y173.37 E151.84035
G1 X134.75 Y178.03 E152.13059
G1 X126.95 Y178.03 E152.61701
G1 X126.95 Y167.93 E153.24688
G1 X127.84 Y167.93 E153.30269
G1 X129.59 Y166.18 E153.45694
G1 X132.25 Y166.18 E153.62258
G1 X132.25 Y154.57 E154.34618
G1 X131.82 Y154.57 E154.37312
G1 X127.25 Y154.57 E154.65799
G1 X127.25 Y147.38 E155.10644
G1 X132.25 Y147.38 E155.41825
G1 X132.25 Y135.77 E156.14191
G1 X131.82 Y135.77 E156.16885
G1 X127.25 Y135.77 E156.45372
G1 X127.25 Y128.58 E156.90224
G0 F6000 X127.75 Y129.08
G1 F2700 X166.90 Y129.08 E159.34349
G1 X167.97 Y129.83 E159.42517
G1 X177.25 Y136.33 E160.13171
G1 X177.25 Y150.23 E160.99849
G1 X167.75 Y150.23 E161.59094
G1 X167.75 Y140.23 E162.21457
G1 X142.25 Y140.23 E163.80482
G1 X142.25 Y172.87 E165.84071
G1 X134.25 Y172.87 E166.33962
G1 X134.25 Y177.53 E166.62985
G1 X127.45 Y177.53 E167.05392
G1 X127.45 Y168.43 E167.62142
G1 X128.05 Y168.43 E167.65896
G1 X129.80 Y166.68 E167.81321
G1 X132.75 Y166.68 E167.99712
G1 X132.75 Y154.07 E168.78308
G1 X131.82 Y154.07 E168.84120
G1 X127.75 Y154.07 E169.09489
G1 X127.75 Y147.88 E169.48104
G1 X132.75 Y147.88 E169.79286
G1 X132.75 Y135.27 E170.57888
G1 X131.82 Y135.27 E170.63700
G1 X127.75 Y135.27 E170.89069
G1 X127.75 Y129.08 E171.27690
G0 F6000 X128.25 Y129.58
G1 F2700 X166.74 Y129.58 E173.67712
G1 X167.68 Y130.24 E173.74895
G1 X176.75 Y136.59 E174.43929
G1 X176.75 Y149.73 E175.25867
G1 X168.25 Y149.73 E175.78876
G1 X168.25 Y139.73 E176.41239
G1 X141.75 Y139.73 E178.06500
G1 X141.75 Y172.37 E180.10089
G1 X133.75 Y172.37 E180.59979
G1 X133.75 Y177.03 E180.89003
G1 X127.95 Y177.03 E181.25173
G1 X127.95 Y168.93 E181.75687
G1 X128.26 Y168.93 E181.77614
G1 X130.01 Y167.18 E181.93040
G1 X133.25 Y167.18 E182.13258
G1 X133.25 Y153.57 E182.98090
G1 X128.25 Y153.57 E183.29271
G1 X128.25 Y148.38 E183.61656
G1 X133.25 Y148.38 E183.92837
G1 X133.25 Y134.77 E184.77676
G1 X128.25 Y134.77 E185.08857
G1 X128.25 Y129.58 E185.41248
G0 F6000 X128.75 Y130.08
G1 F2700 X166.58 Y130.08 E187.77173
G1 X167.40 Y130.65 E187.83375
G1 X176.25 Y136.85 E188.50779
G1 X176.25 Y149.23 E189.27978
G1 X168.75 Y149.23 E189.74750
G1 X168.75 Y139.23 E190.37113
G1 X141.25 Y139.23 E192.08610
G1 X141.25 Y171.87 E194.12200
G1 X133.25 Y171.87 E194.62090
G1 X133.25 Y176.53 E194.91113
G1 X128.45 Y176.53 E195.21048
G1 X128.45 Y169.43 E195.65325
G1 X128.75 Y169.43 E195.67202
G1 X128.75 Y169.14 E195.68980
G1 X130.22 Y167.68 E195.81891
G1 X133.75 Y167.68 E196.03936
G1 X133.75 Y153.07 E196.95011
G1 X128.75 Y153.07 E197.26192
G1 X128.75 Y148.88 E197.52341
G1 X133.75 Y148.88 E197.83523
G1 X133.75 Y134.27 E198.74597
G1 X128.75 Y134.27 E199.05778
G1 X128.75 Y130.08 E199.31933
G0 F6000 X129.25 Y130.58
G1 F2700 X166.42 Y130.58 E201.63754
G1 X175.75 Y137.11 E202.34755
G1 X175.75 Y148.73 E203.07214
G1 X169.25 Y148.73 E203.47750
G1 X169.25 Y138.73 E204.10113
G1 X140.75 Y138.73 E205.87847
G1 X140.75 Y171.37 E207.91436
G1 X132.75 Y171.37 E208.41326
G1 X132.75 Y176.03 E208.70350
G1 X128.95 Y176.03 E208.94048
G1 X128.95 Y169.93 E209.32089
G1 X129.25 Y169.93 E209.33966
G1 X129.25 Y169.35 E209.37571
G1 X130.42 Y168.18 E209.47898
G1 X134.25 Y168.18 E209.71771
G1 X134.25 Y152.57 E210.69082
G1 X129.25 Y152.57 E211.00263
G1 X129.25 Y149.38 E211.20176
G1 X134.25 Y149.38 E211.51357
G1 X134.25 Y133.77 E212.48668
G1 X129.25 Y133.77 E212.79849
G1 X129.25 Y130.58 E212.99768
G0 F6000 X129.75 Y131.08
G1 F2700 X166.27 Y131.08 E215.27492
G1 X175.25 Y137.37 E215.95885
G1 X175.25 Y148.23 E216.63599
G1 X169.75 Y148.23 E216.97898
G1 X169.75 Y138.23 E217.60261
G1 X140.25 Y138.23 E219.44231
G1 X140.25 Y170.87 E221.47821
G1 X132.25 Y170.87 E221.97711
G1 X132.25 Y175.53 E222.26734
G1 X129.45 Y175.53 E222.44196
G1 X129.45 Y170.43 E222.76001
G1 X129.75 Y170.43 E222.77872
G1 X129.75 Y169.55 E222.83304
G1 X130.63 Y168.68 E222.91047
G1 X134.75 Y168.68 E223.16747
G1 X134.75 Y152.07 E224.20294
G1 X129.75 Y152.07 E224.51475
G1 X129.75 Y149.88 E224.65151
G1 X134.75 Y149.88 E224.96333
G1 X134.75 Y133.27 E225.99880
G1 X129.75 Y133.27 E226.31061
G1 X129.75 Y131.08 E226.44744
G0 F6000 X130.60 Y131.84
G0 X136.25 Y132.58
;TYPE:WALL-INNER
G1 F2700 X165.79 Y132.58 E228.28988
G1 X173.75 Y138.15 E228.89558
G1 X173.75 Y146.73 E229.43047
G1 X171.25 Y146.73 E229.58638
G1 X171.25 Y136.73 E230.21000
G1 X138.75 Y136.73 E232.23679
G1 X138.75 Y169.37 E234.27269
G1 X136.25 Y169.37 E234.42859
G1 X136.25 Y132.58 E236.72311
G0 F6000 X135.75 Y132.27
G1 F2700 X130.75 Y132.27 E237.03492
G1 X130.75 Y132.08 E237.04702
G1 X165.95 Y132.08 E239.24219
G1 X174.25 Y137.89 E239.87405
G1 X174.25 Y147.23 E240.45633
G1 X170.75 Y147.23 E240.67460
G1 X170.75 Y137.23 E241.29823
G1 X139.25 Y137.23 E243.26265
G1 X139.25 Y169.87 E245.29855
G1 X130.85 Y169.87 E245.82252
G1 X131.04 Y169.68 E245.83972
G1 X135.75 Y169.68 E246.13326
G1 X135.75 Y151.07 E247.29346
G1 X130.75 Y151.07 E247.60527
G1 X130.75 Y150.88 E247.61731
G1 X135.75 Y150.88 E247.92912
G1 X135.75 Y132.27 E249.08932
G0 F6000 X135.25 Y132.77
;TYPE:WALL-OUTER
G1 F2700 X130.25 Y132.77 E249.40113
G1 X130.25 Y131.58 E249.47559
G1 X166.11 Y131.58 E251.71180
G1 X174.75 Y137.63 E252.36968
G1 X174.75 Y147.73 E252.99941
G1 X170.25 Y147.73 E253.28005
G1 X170.25 Y137.73 E253.90367
G1 X139.75 Y137.73 E255.80574
G1 X139.75 Y170.37 E257.84163
G1 X130.25 Y170.37 E258.43408
G1 X130.25 Y169.76 E258.47206
G1 X130.84 Y169.18 E258.52374
G1 X135.25 Y169.18 E258.79895
G1 X135.25 Y151.57 E259.89678
G1 X130.25 Y151.57 E260.20859
G1 X130.25 Y150.38 E260.28299
G1 X135.25 Y150.38 E260.59481
G1 X135.25 Y132.77 E261.69264
G0 F6000 X136.42 Y133.24
;TYPE:FILL
G1 F2700 X139.73 Y136.55 E261.98439
G0 F6000 X139.03 Y136.55
G1 F2700 X136.42 Y133.95 E262.21378
G0 F6000 X136.42 Y134.66
G1 F2700 X138.57 Y136.81 E262.40340
G0 F6000 X138.57 Y137.51
G1 F2700 X136.42 Y135.36 E262.59302
G0 F6000 X136.42 Y136.07
G1 F2700 X138.57 Y138.22 E262.78263
G0 F6000 X138.57 Y138.93
G1 F2700 X136.42 Y136.78 E262.97230
G0 F6000 X136.42 Y137.48
G1 F2700 X138.57 Y139.63 E263.16196
G0 F6000 X138.57 Y140.34
G1 F2700 X136.42 Y138.19 E263.35162
G0 F6000 X136.42 Y138.90
G1 F2700 X138.57 Y141.05 E263.54124
G0 F6000 X138.57 Y141.76
G1 F2700 X136.42 Y139.61 E263.73085
G0 F6000 X136.42 Y140.31
G1 F2700 X138.57 Y142.46 E263.92047
G0 F6000 X138.57 Y143.17
G1 F2700 X136.42 Y141.02 E264.11009
G0 F6000 X136.42 Y141.73
G1 F2700 X138.57 Y143.88 E264.29971
G0 F6000 X138.57 Y144.58
G1 F2700 X136.42 Y142.43 E264.48932
G0 F6000 X136.42 Y143.14
G1 F2700 X138.57 Y145.29 E264.67899
G0 F6000 X138.57 Y146.00
G1 F2700 X136.42 Y143.85 E264.86865
G0 F6000 X136.42 Y144.56
G1 F2700 X138.57 Y146.71 E265.05831
G0 F6000 X138.57 Y147.41
G1 F2700 X136.42 Y145.26 E265.24793
G0 F6000 X136.42 Y145.97
G1 F2700 X138.57 Y148.12 E265.43755
G0 F6000 X138.57 Y148.83
G1 F2700 X136.42 Y146.68 E265.62716
G0 F6000 X136.42 Y147.38
G1 F2700 X138.57 Y149.53 E265.81678
G0 F6000 X138.57 Y150.24
G1 F2700 X136.42 Y148.09 E266.00640
G0 F6000 X136.42 Y148.80
G1 F2700 X138.57 Y150.95 E266.19602
G0 F6000 X138.57 Y151.66
G1 F2700 X136.42 Y149.50 E266.38568
G0 F6000 X136.42 Y150.21
G1 F2700 X138.57 Y152.36 E266.57534
G0 F6000 X138.57 Y153.07
G1 F2700 X136.42 Y150.92 E266.76500
G0 F6000 X136.42 Y151.63
G1 F2700 X138.57 Y153.78 E266.95462
G0 F6000 X138.57 Y154.48
G1 F2700 X136.42 Y152.33 E267.14424
G0 F6000 X136.42 Y153.04
G1 F2700 X138.57 Y155.19 E267.33385
G0 F6000 X138.57 Y155.90
G1 F2700 X136.42 Y153.75 E267.52347
G0 F6000 X136.42 Y154.46
G1 F2700 X138.57 Y156.60 E267.71309
G0 F6000 X138.57 Y157.31
G1 F2700 X136.42 Y155.16 E267.90271
G0 F6000 X136.42 Y155.87
G1 F2700 X138.57 Y158.02 E268.09232
G0 F6000 X138.57 Y158.73
G1 F2700 X136.42 Y156.58 E268.28199
G0 F6000 X136.42 Y157.28
G1 F2700 X138.57 Y159.43 E268.47165
G0 F6000 X138.57 Y160.14
G1 F2700 X136.42 Y157.99 E268.66131
G0 F6000 X136.42 Y158.70
G1 F2700 X138.57 Y160.85 E268.85093
G0 F6000 X138.57 Y161.56
G1 F2700 X136.42 Y159.41 E269.04054
G0 F6000 X136.42 Y160.11
G1 F2700 X138.57 Y162.26 E269.23016
G0 F6000 X138.57 Y162.97
G1 F2700 X136.42 Y160.82 E269.41978
G0 F6000 X136.42 Y161.53
G1 F2700 X138.57 Y163.68 E269.60940
G0 F6000 X138.57 Y164.38
G1 F2700 X136.42 Y162.23 E269.79902
G0 F6000 X136.42 Y162.94
G1 F2700 X138.57 Y165.09 E269.98868
G0 F6000 X138.57 Y165.80
G1 F2700 X136.42 Y163.65 E270.17834
G0 F6000 X136.42 Y164.35
G1 F2700 X138.57 Y166.50 E270.36800
G0 F6000 X138.57 Y167.21
G1 F2700 X136.42 Y165.06 E270.55762
G0 F6000 X136.42 Y165.77
G1 F2700 X138.57 Y167.92 E270.74724
G0 F6000 X138.57 Y168.63
G1 F2700 X136.42 Y166.48 E270.93685
G0 F6000 X136.42 Y167.18
G1 F2700 X138.44 Y169.20 E271.11439
G0 F6000 X137.73 Y169.20
G1 F2700 X136.42 Y167.89 E271.22957
G0 F6000 X136.42 Y168.60
G1 F2700 X137.02 Y169.20 E271.28240
G0 F6000 X139.36 Y137.34
G0 X140.44 Y136.55
G1 F2700 X136.64 Y132.75 E271.61718
G0 F6000 X137.35 Y132.75
G1 F2700 X141.15 Y136.55 E271.95197
G0 F6000 X141.85 Y136.55
G1 F2700 X138.06 Y132.75 E272.28680
G0 F6000 X138.76 Y132.75
G1 F2700 X142.56 Y136.55 E272.62163
G0 F6000 X143.27 Y136.55
G1 F2700 X139.47 Y132.75 E272.95646
G0 F6000 X140.18 Y132.75
G1 F2700 X143.97 Y136.55 E273.29129
G0 F6000 X144.68 Y136.55
G1 F2700 X140.89 Y132.75 E273.62607
G0 F6000 X141.59 Y132.75
G1 F2700 X145.39 Y136.55 E273.96086
G0 F6000 X146.10 Y136.55
G1 F2700 X142.30 Y132.75 E274.29564
G0 F6000 X143.01 Y132.75
G1 F2700 X146.80 Y136.55 E274.63043
G0 F6000 X147.51 Y136.55
G1 F2700 X143.71 Y132.75 E274.96521
G0 F6000 X144.42 Y132.75
G1 F2700 X148.22 Y136.55 E275.30004
G0 F6000 X148.93 Y136.55
G1 F2700 X145.13 Y132.75 E275.63487
G0 F6000 X145.84 Y132.75
G1 F2700 X149.63 Y136.55 E275.96970
G0 F6000 X150.34 Y136.55
G1 F2700 X146.54 Y132.75 E276.30453
G0 F6000 X147.25 Y132.75
G1 F2700 X151.05 Y136.55 E276.63932
G0 F6000 X151.75 Y136.55
G1 F2700 X147.96 Y132.75 E276.97410
G0 F6000 X148.66 Y132.75
G1 F2700 X152.46 Y136.55 E277.30889
G0 F6000 X153.17 Y136.55
G1 F2700 X149.37 Y132.75 E277.64367
G0 F6000 X150.08 Y132.75
G1 F2700 X153.87 Y136.55 E277.97846
G0 F6000 X154.58 Y136.55
G1 F2700 X150.78 Y132.75 E278.31329
G0 F6000 X151.49 Y132.75
G1 F2700 X155.29 Y136.55 E278.64821
G0 F6000 X156.00 Y136.55
G1 F2700 X152.20 Y132.75 E278.98308
G0 F6000 X152.91 Y132.75
G1 F2700 X156.70 Y136.55 E279.31795
G0 F6000 X157.41 Y136.55
G1 F2700 X153.61 Y132.75 E279.65283
G0 F6000 X154.32 Y132.75
G1 F2700 X158.12 Y136.55 E279.98770
G0 F6000 X158.82 Y136.55
G1 F2700 X155.03 Y132.75 E280.32257
G0 F6000 X155.73 Y132.75
G1 F2700 X159.53 Y136.55 E280.65745
G0 F6000 X160.24 Y136.55
G1 F2700 X156.44 Y132.75 E280.99232
G0 F6000 X157.15 Y132.75
G1 F2700 X160.94 Y136.55 E281.32719
G0 F6000 X161.65 Y136.55
G1 F2700 X157.85 Y132.75 E281.66211
G0 F6000 X158.56 Y132.75
G1 F2700 X162.36 Y136.55 E281.99699
G0 F6000 X163.07 Y136.55
G1 F2700 X159.27 Y132.75 E282.33186
G0 F6000 X159.98 Y132.75
G1 F2700 X163.77 Y136.55 E282.66673
G0 F6000 X164.48 Y136.55
G1 F2700 X160.68 Y132.75 E283.00161
G0 F6000 X161.39 Y132.75
G1 F2700 X165.19 Y136.55 E283.33648
G0 F6000 X165.90 Y136.55
G1 F2700 X162.10 Y132.75 E283.67135
G0 F6000 X162.81 Y132.75
G1 F2700 X166.60 Y136.55 E284.00623
G0 F6000 X167.31 Y136.55
G1 F2700 X163.51 Y132.75 E284.34110
G0 F6000 X164.22 Y132.75
G1 F2700 X168.02 Y136.55 E284.67602
G0 F6000 X168.72 Y136.55
G1 F2700 X164.93 Y132.75 E285.01094
G0 F6000 X165.63 Y132.75
G1 F2700 X169.43 Y136.55 E285.34581
G0 F6000 X170.14 Y136.55
G1 F2700 X167.75 Y134.16 E285.55659
G0 F6000 X170.11 Y135.81
G1 F2700 X170.84 Y136.55 E285.62168
G0 F6000 X171.42 Y137.13
G1 F2700 X173.57 Y139.28 E285.81134
G0 F6000 X173.57 Y139.99
G1 F2700 X171.42 Y137.84 E286.00100
G0 F6000 X171.42 Y138.54
G1 F2700 X173.57 Y140.69 E286.19067
G0 F6000 X173.57 Y141.40
G1 F2700 X171.42 Y139.25 E286.38033
G0 F6000 X171.42 Y139.96
G1 F2700 X173.57 Y142.11 E286.56999
G0 F6000 X173.57 Y142.81
G1 F2700 X171.42 Y140.66 E286.75970
G0 F6000 X171.42 Y141.37
G1 F2700 X173.57 Y143.52 E286.94940
G0 F6000 X173.57 Y144.23
G1 F2700 X171.42 Y142.08 E287.13911
G0 F6000 X171.42 Y142.79
G1 F2700 X173.57 Y144.94 E287.32877
G0 F6000 X173.57 Y145.64
G1 F2700 X171.42 Y143.49 E287.51843
G0 F6000 X171.42 Y144.20
G1 F2700 X173.57 Y146.35 E287.70809
G0 F6000 X173.07 Y146.55
G1 F2700 X171.42 Y144.91 E287.85304
G0 F6000 X171.42 Y145.61
G1 F2700 X172.36 Y146.55 E287.93563
G0 F6000 X171.65 Y146.55
G1 F2700 X171.42 Y146.32 E287.95583
G0 F6000 X173.57 Y138.57
G1 F2700 X172.46 Y137.46 E288.05373
;LAYER:1
G0 F6000 X171.25 Y136.73 Z0.50
;TYPE:WALL-INNER
G1 F3480 X138.75 Y136.73 E289.40492
G1 X138.75 Y169.69 E290.77540
G1 X136.25 Y169.69 E290.87934
G1 X136.25 Y132.26 E292.43546
G1 X165.34 Y132.26 E293.64484
G1 X165.94 Y132.68 E293.67550
G1 X173.75 Y138.15 E294.07172
G1 X173.75 Y146.73 E294.42831
G1 X171.25 Y146.73 E294.53225
G1 X171.25 Y136.73 E294.94800
G0 F6000 X170.75 Y137.23
G1 F3480 X139.25 Y137.23 E296.25762
G1 X139.25 Y170.19 E297.62810
G1 X130.75 Y170.19 E297.98145
G1 X130.75 Y169.97 E297.99064
G1 X131.36 Y169.36 E298.02644
G1 X135.75 Y169.36 E298.20896
G1 X135.75 Y151.39 E298.95602
G1 X130.75 Y151.39 E299.16390
G1 X130.75 Y150.56 E299.19836
G1 X135.75 Y150.56 E299.40624
G1 X135.75 Y132.59 E300.15330
G1 X130.75 Y132.59 E300.36118
G1 X130.75 Y131.76 E300.39565
G1 X165.50 Y131.76 E301.84022
G1 X174.25 Y137.89 E302.28450
G1 X174.25 Y147.23 E302.67269
G1 X170.75 Y147.23 E302.81820
G1 X170.75 Y137.23 E303.23395
G0 F6000 X170.25 Y137.73
;TYPE:WALL-OUTER
G1 F3480 X139.75 Y137.73 E304.50200
G1 X139.75 Y170.69 E305.87248
G1 X130.25 Y170.69 E306.26744
G1 X130.25 Y169.76 E306.30598
G1 X131.16 Y168.86 E306.35911
G1 X135.25 Y168.86 E306.52936
G1 X135.25 Y151.89 E307.23485
G1 X130.25 Y151.89 E307.44272
G1 X130.25 Y150.06 E307.51876
G1 X135.25 Y150.06 E307.72664
G1 X135.25 Y133.09 E308.43213
G1 X130.25 Y133.09 E308.64000
G1 X130.25 Y131.26 E308.71604
G1 X165.65 Y131.26 E310.18797
G1 X174.75 Y137.63 E310.64960
G1 X174.75 Y147.73 E311.06943
G1 X170.25 Y147.73 E311.25652
G1 X170.25 Y137.73 E311.67227
G0 F6000 X171.42 Y137.93
;TYPE:FILL
G1 F3480 X172.13 Y137.23 E311.71381
G0 F6000 X172.55 Y137.52
G1 F3480 X171.42 Y138.64 E311.77978
G0 F6000 X171.42 Y139.35
G1 F3480 X172.96 Y137.81 E311.87021
G0 F6000 X173.38 Y138.10
G1 F3480 X171.42 Y140.06 E311.98506
G0 F6000 X171.42 Y140.76
G1 F3480 X173.57 Y138.61 E312.11148
G0 F6000 X173.57 Y139.32
G1 F3480 X171.42 Y141.47 E312.23789
G0 F6000 X171.42 Y142.18
G1 F3480 X173.57 Y140.03 E312.36430
G0 F6000 X173.57 Y140.73
G1 F3480 X171.42 Y142.88 E312.49071
G0 F6000 X171.42 Y143.59
G1 F3480 X173.57 Y141.44 E312.61712
G0 F6000 X173.57 Y142.15
G1 F3480 X171.42 Y144.30 E312.74354
G0 F6000 X171.42 Y145.00
G1 F3480 X173.57 Y142.86 E312.86992
G0 F6000 X173.57 Y143.56
G1 F3480 X171.42 Y145.71 E312.99630
G0 F6000 X171.42 Y146.42
G1 F3480 X173.57 Y144.27 E313.12268
G0 F6000 X173.57 Y144.98
G1 F3480 X172.00 Y146.55 E313.21523
G0 F6000 X172.71 Y146.55
G1 F3480 X173.57 Y145.68 E313.26620
G0 F6000 X173.57 Y146.39
G1 F3480 X173.41 Y146.55 E313.27561
G0 F6000 X171.42 Y137.23
G1 F3480 X171.72 Y136.94 E313.29272
G0 F6000 X170.88 Y136.35
G1 F3480 X170.58 Y136.31 E313.30425
G1 X169.98 Y136.55 E313.33107
G0 F6000 X169.27 Y136.55
G1 F3480 X170.05 Y135.77 E313.37687
G0 F6000 X169.63 Y135.48
G1 F3480 X168.56 Y136.55 E313.43975
G0 F6000 X167.86 Y136.55
G1 F3480 X169.22 Y135.19 E313.51980
G0 F6000 X168.80 Y134.90
G1 F3480 X167.15 Y136.55 E313.61696
G0 F6000 X166.44 Y136.55
G1 F3480 X168.39 Y134.61 E313.73126
G0 F6000 X167.97 Y134.32
G1 F3480 X165.74 Y136.55 E313.86267
G0 F6000 X165.03 Y136.55
G1 F3480 X167.56 Y134.03 E314.01119
G0 F6000 X167.14 Y133.73
G1 F3480 X164.32 Y136.55 E314.17682
G0 F6000 X163.62 Y136.55
G1 F3480 X166.72 Y133.44 E314.35956
G0 F6000 X166.31 Y133.15
G1 F3480 X162.91 Y136.55 E314.55944
G0 F6000 X162.20 Y136.55
G1 F3480 X165.89 Y132.86 E314.77639
G0 F6000 X165.47 Y132.57
G1 F3480 X161.49 Y136.55 E315.01052
G0 F6000 X160.79 Y136.55
G1 F3480 X164.90 Y132.44 E315.25253
G0 F6000 X164.19 Y132.44
G1 F3480 X160.08 Y136.55 E315.49453
G0 F6000 X159.37 Y136.55
G1 F3480 X163.49 Y132.44 E315.73654
G0 F6000 X162.78 Y132.44
G1 F3480 X158.66 Y136.55 E315.97854
G0 F6000 X157.96 Y136.55
G1 F3480 X162.07 Y132.44 E316.22055
G0 F6000 X161.37 Y132.44
G1 F3480 X157.25 Y136.55 E316.46255
G0 F6000 X156.54 Y136.55
G1 F3480 X160.66 Y132.44 E316.70456
G0 F6000 X159.95 Y132.44
G1 F3480 X155.84 Y136.55 E316.94656
G0 F6000 X155.13 Y136.55
G1 F3480 X159.25 Y132.44 E317.18857
G0 F6000 X158.54 Y132.44
G1 F3480 X154.42 Y136.55 E317.43057
G0 F6000 X153.72 Y136.55
G1 F3480 X157.83 Y132.44 E317.67258
G0 F6000 X157.12 Y132.44
G1 F3480 X153.01 Y136.55 E317.91458
G0 F6000 X152.30 Y136.55
G1 F3480 X156.42 Y132.44 E318.15659
G0 F6000 X155.71 Y132.44
G1 F3480 X151.59 Y136.55 E318.39859
G0 F6000 X150.89 Y136.55
G1 F3480 X155.00 Y132.44 E318.64060
G0 F6000 X154.30 Y132.44
G1 F3480 X150.18 Y136.55 E318.88260
G0 F6000 X149.47 Y136.55
G1 F3480 X153.59 Y132.44 E319.12461
G0 F6000 X152.88 Y132.44
G1 F3480 X148.77 Y136.55 E319.36661
G0 F6000 X148.06 Y136.55
G1 F3480 X152.18 Y132.44 E319.60865
G0 F6000 X151.47 Y132.44
G1 F3480 X147.35 Y136.55 E319.85065
G0 F6000 X146.64 Y136.55
G1 F3480 X150.76 Y132.44 E320.09266
G0 F6000 X150.05 Y132.44
G1 F3480 X145.94 Y136.55 E320.33466
G0 F6000 X145.23 Y136.55
G1 F3480 X149.35 Y132.44 E320.57667
G0 F6000 X148.64 Y132.44
G1 F3480 X144.52 Y136.55 E320.81867
G0 F6000 X143.82 Y136.55
G1 F3480 X147.93 Y132.44 E321.06068
G0 F6000 X147.22 Y132.44
G1 F3480 X143.11 Y136.55 E321.30268
G0 F6000 X142.40 Y136.55
G1 F3480 X146.52 Y132.44 E321.54469
G0 F6000 X145.81 Y132.44
G1 F3480 X141.69 Y136.55 E321.78669
G0 F6000 X140.99 Y136.55
G1 F3480 X145.10 Y132.44 E322.02870
G0 F6000 X144.40 Y132.44
G1 F3480 X140.28 Y136.55 E322.27070
G0 F6000 X139.57 Y136.55
G1 F3480 X143.69 Y132.44 E322.51271
G0 F6000 X142.98 Y132.44
G1 F3480 X138.87 Y136.55 E322.75471
G0 F6000 X138.57 Y136.84
G1 F3480 X136.42 Y138.99 E322.88112
G0 F6000 X136.42 Y139.70
G1 F3480 X138.57 Y137.55 E323.00753
G0 F6000 X138.57 Y138.26
G1 F3480 X136.42 Y140.41 E323.13395
G0 F6000 X136.42 Y141.11
G1 F3480 X138.57 Y138.96 E323.26036
G0 F6000 X138.57 Y139.67
G1 F3480 X136.42 Y141.82 E323.38677
G0 F6000 X136.42 Y142.53
G1 F3480 X138.57 Y140.38 E323.51315
G0 F6000 X138.57 Y141.09
G1 F3480 X136.42 Y143.24 E323.63953
G0 F6000 X136.42 Y143.94
G1 F3480 X138.57 Y141.79 E323.76592
G0 F6000 X138.57 Y142.50
G1 F3480 X136.42 Y144.65 E323.89233
G0 F6000 X136.42 Y145.36
G1 F3480 X138.57 Y143.21 E324.01874
G0 F6000 X138.57 Y143.91
G1 F3480 X136.42 Y146.06 E324.14515
G0 F6000 X136.42 Y146.77
G1 F3480 X138.57 Y144.62 E324.27156
G0 F6000 X138.57 Y145.33
G1 F3480 X136.42 Y147.48 E324.39798
G0 F6000 X136.42 Y148.19
G1 F3480 X138.57 Y146.03 E324.52439
G0 F6000 X138.57 Y146.74
G1 F3480 X136.42 Y148.89 E324.65077
G0 F6000 X136.42 Y149.60
G1 F3480 X138.57 Y147.45 E324.77715
G0 F6000 X138.57 Y148.16
G1 F3480 X136.42 Y150.31 E324.90353
G0 F6000 X136.42 Y151.01
G1 F3480 X138.57 Y148.86 E325.02992
G0 F6000 X138.57 Y149.57
G1 F3480 X136.42 Y151.72 E325.15633
G0 F6000 X136.42 Y152.43
G1 F3480 X138.57 Y150.28 E325.28274
G0 F6000 X138.57 Y150.99
G1 F3480 X136.42 Y153.13 E325.40915
G0 F6000 X136.42 Y153.84
G1 F3480 X138.57 Y151.69 E325.53556
G0 F6000 X138.57 Y152.40
G1 F3480 X136.42 Y154.55 E325.66198
G0 F6000 X136.42 Y155.26
G1 F3480 X138.57 Y153.11 E325.78836
G0 F6000 X138.57 Y153.81
G1 F3480 X136.42 Y155.96 E325.91474
G0 F6000 X136.42 Y156.67
G1 F3480 X138.57 Y154.52 E326.04112
G0 F6000 X138.57 Y155.23
G1 F3480 X136.42 Y157.38 E326.16750
G0 F6000 X136.42 Y158.09
G1 F3480 X138.57 Y155.94 E326.29392
G0 F6000 X138.57 Y156.64
G1 F3480 X136.42 Y158.79 E326.42033
G0 F6000 X136.42 Y159.50
G1 F3480 X138.57 Y157.35 E326.54674
G0 F6000 X138.57 Y158.06
G1 F3480 X136.42 Y160.21 E326.67315
G0 F6000 X136.42 Y160.91
G1 F3480 X138.57 Y158.76 E326.79956
G0 F6000 X138.57 Y159.47
G1 F3480 X136.42 Y161.62 E326.92598
G0 F6000 X136.42 Y162.33
G1 F3480 X138.57 Y160.18 E327.05236
G0 F6000 X138.57 Y160.88
G1 F3480 X136.42 Y163.03 E327.17874
G0 F6000 X136.42 Y163.74
G1 F3480 X138.57 Y161.59 E327.30512
G0 F6000 X138.57 Y162.30
G1 F3480 X136.42 Y164.45 E327.43150
G0 F6000 X136.42 Y165.16
G1 F3480 X138.57 Y163.01 E327.55792
G0 F6000 X138.57 Y163.71
G1 F3480 X136.42 Y165.86 E327.68433
G0 F6000 X136.42 Y166.57
G1 F3480 X138.57 Y164.42 E327.81074
G0 F6000 X138.57 Y165.13
G1 F3480 X136.42 Y167.28 E327.93715
G0 F6000 X136.42 Y167.98
G1 F3480 X138.57 Y165.83 E328.06356
G0 F6000 X138.57 Y166.54
G1 F3480 X136.42 Y168.69 E328.18995
G0 F6000 X136.42 Y169.40
G1 F3480 X138.57 Y167.25 E328.31633
G0 F6000 X138.57 Y167.96
G1 F3480 X137.02 Y169.51 E328.40793
G0 F6000 X137.72 Y169.51
G1 F3480 X138.57 Y168.66 E328.45797
G0 F6000 X138.57 Y169.37
G1 F3480 X138.43 Y169.51 E328.46644
G0 F6000 X136.42 Y138.29
G1 F3480 X142.28 Y132.44 E328.81045
G0 F6000 X141.57 Y132.44
G1 F3480 X136.42 Y137.58 E329.11287
G0 F6000 X136.42 Y136.87
G1 F3480 X140.86 Y132.44 E329.37372
G0 F6000 X140.15 Y132.44
G1 F3480 X136.42 Y136.16 E329.59300
G0 F6000 X136.42 Y135.46
G1 F3480 X139.45 Y132.44 E329.77071
G0 F6000 X138.74 Y132.44
G1 F3480 X136.42 Y134.75 E329.90685
G0 F6000 X136.42 Y134.04
G1 F3480 X138.03 Y132.44 E330.00140
G0 F6000 X137.32 Y132.44
G1 F3480 X136.42 Y133.34 E330.05437
G0 F6000 X136.42 Y132.63
G1 F3480 X136.62 Y132.44 E330.06578
;LAYER:2
G0 F6000 X136.25 Y132.31 Z0.70
;TYPE:WALL-INNER
G1 F4320 X131.25 Y132.31 E330.27365
G1 X131.25 Y132.04 E330.28488
G1 X165.03 Y132.04 E331.68908
G1 X165.56 Y132.41 E331.71595
G1 X173.75 Y138.15 E332.13190
G1 X173.75 Y146.73 E332.48849
G1 X171.25 Y146.73 E332.59243
G1 X171.25 Y136.73 E333.00818
G1 X138.75 Y136.73 E334.35937
G1 X138.75 Y169.91 E335.73901
G1 X131.52 Y169.91 E336.03972
G1 X131.79 Y169.64 E336.05565
G1 X134.93 Y169.64 E336.18620
G1 X136.25 Y169.67 E336.24118
G1 X136.25 Y151.11 E337.01273
G1 X131.25 Y151.11 E337.22060
G1 X131.25 Y150.84 E337.23191
G1 X136.25 Y150.84 E337.43979
G1 X136.25 Y132.31 E338.21009
G0 F6000 X135.75 Y132.81
G1 F4320 X130.75 Y132.81 E338.41797
G1 X130.75 Y131.54 E338.47077
G1 X165.18 Y131.54 E339.90229
G1 X165.84 Y132.00 E339.93573
G1 X174.25 Y137.89 E340.36249
G1 X174.25 Y147.23 E340.75072
G1 X170.75 Y147.23 E340.89623
G1 X170.75 Y137.23 E341.31198
G1 X139.25 Y137.23 E342.62160
G1 X139.25 Y170.41 E344.00123
G1 X130.75 Y170.41 E344.35458
G1 X130.75 Y169.97 E344.37295
G1 X131.58 Y169.14 E344.42172
G1 X134.94 Y169.14 E344.56137
G1 X135.75 Y169.16 E344.59506
G1 X135.75 Y151.61 E345.32454
G1 X130.75 Y151.61 E345.53241
G1 X130.75 Y150.34 E345.58530
G1 X135.75 Y150.34 E345.79317
G1 X135.75 Y132.81 E346.52190
G0 F6000 X135.25 Y133.31
;TYPE:WALL-OUTER
G1 F4320 X130.25 Y133.31 E346.72978
G1 X130.25 Y131.04 E346.82415
G1 X165.34 Y131.04 E348.28298
G1 X174.75 Y137.63 E348.76059
G1 X174.75 Y147.73 E349.18042
G1 X170.25 Y147.73 E349.36750
G1 X170.25 Y137.73 E349.78326
G1 X139.75 Y137.73 E351.05130
G1 X139.75 Y170.91 E352.43093
G1 X130.25 Y170.91 E352.82589
G1 X130.25 Y169.76 E352.87362
G1 X131.38 Y168.64 E352.93968
G1 X134.95 Y168.64 E353.08839
G1 X135.25 Y168.65 E353.10079
G1 X135.25 Y152.11 E353.78819
G1 X130.25 Y152.11 E353.99607
G1 X130.25 Y149.84 E354.09052
G1 X135.25 Y149.84 E354.29840
G1 X135.25 Y133.31 E354.98556
G0 F6000 X136.42 Y133.24
;TYPE:FILL
G1 F4320 X139.73 Y136.55 E355.18005
G0 F6000 X139.03 Y136.55
G1 F4320 X136.42 Y133.95 E355.33298
G0 F6000 X136.42 Y134.66
G1 F4320 X138.57 Y136.81 E355.45945
G0 F6000 X138.57 Y137.51
G1 F4320 X136.42 Y135.36 E355.58592
G0 F6000 X136.42 Y136.07
G1 F4320 X138.57 Y138.22 E355.71239
G0 F6000 X138.57 Y138.93
G1 F4320 X136.42 Y136.78 E355.83886
G0 F6000 X136.42 Y137.48
G1 F4320 X138.57 Y139.63 E355.96533
G0 F6000 X138.57 Y140.34
G1 F4320 X136.42 Y138.19 E356.09183
G0 F6000 X136.42 Y138.90
G1 F4320 X138.57 Y141.05 E356.21831
G0 F6000 X138.57 Y141.76
G1 F4320 X136.42 Y139.61 E356.34478
G0 F6000 X136.42 Y140.31
G1 F4320 X138.57 Y142.46 E356.47125
G0 F6000 X138.57 Y143.17
G1 F4320 X136.42 Y141.02 E356.59772
G0 F6000 X136.42 Y141.73
G1 F4320 X138.57 Y143.88 E356.72419
G0 F6000 X138.57 Y144.59
G1 F4320 X136.42 Y142.43 E356.85066
G0 F6000 X136.42 Y143.14
G1 F4320 X138.57 Y145.29 E356.97713
G0 F6000 X138.57 Y146.00
G1 F4320 X136.42 Y143.85 E357.10360
G0 F6000 X136.42 Y144.56
G1 F4320 X138.57 Y146.71 E357.23007
G0 F6000 X138.57 Y147.41
G1 F4320 X136.42 Y145.26 E357.35654
G0 F6000 X136.42 Y145.97
G1 F4320 X138.57 Y148.12 E357.48301
G0 F6000 X138.57 Y148.83
G1 F4320 X136.42 Y146.68 E357.60948
G0 F6000 X136.42 Y147.38
G1 F4320 X138.57 Y149.53 E357.73595
G0 F6000 X138.57 Y150.24
G1 F4320 X136.42 Y148.09 E357.86242
G0 F6000 X136.42 Y148.80
G1 F4320 X138.57 Y150.95 E357.98889
G0 F6000 X138.57 Y151.66
G1 F4320 X136.42 Y149.50 E358.11536
G0 F6000 X136.42 Y150.21
G1 F4320 X138.57 Y152.36 E358.24183
G0 F6000 X138.57 Y153.07
G1 F4320 X136.42 Y150.92 E358.36830
G0 F6000 X136.42 Y151.63
G1 F4320 X138.57 Y153.78 E358.49478
G0 F6000 X138.57 Y154.49
G1 F4320 X136.42 Y152.33 E358.62125
G0 F6000 X136.42 Y153.04
G1 F4320 X138.57 Y155.19 E358.74772
G0 F6000 X138.57 Y155.90
G1 F4320 X136.42 Y153.75 E358.87419
G0 F6000 X136.42 Y154.46
G1 F4320 X138.57 Y156.61 E359.00066
G0 F6000 X138.57 Y157.31
G1 F4320 X136.42 Y155.16 E359.12713
G0 F6000 X136.42 Y155.87
G1 F4320 X138.57 Y158.02 E359.25360
G0 F6000 X138.57 Y158.73
G1 F4320 X136.42 Y156.58 E359.38007
G0 F6000 X136.42 Y157.28
G1 F4320 X138.57 Y159.43 E359.50654
G0 F6000 X138.57 Y160.14
G1 F4320 X136.42 Y157.99 E359.63304
G0 F6000 X136.42 Y158.70
G1 F4320 X138.57 Y160.85 E359.75951
G0 F6000 X138.57 Y161.56
G1 F4320 X136.42 Y159.41 E359.88598
G0 F6000 X136.42 Y160.11
G1 F4320 X138.57 Y162.26 E360.01245
G0 F6000 X138.57 Y162.97
G1 F4320 X136.42 Y160.82 E360.13892
G0 F6000 X136.42 Y161.53
G1 F4320 X138.57 Y163.68 E360.26539
G0 F6000 X138.57 Y164.38
G1 F4320 X136.42 Y162.23 E360.39186
G0 F6000 X136.42 Y162.94
G1 F4320 X138.57 Y165.09 E360.51833
G0 F6000 X138.57 Y165.80
G1 F4320 X136.42 Y163.65 E360.64480
G0 F6000 X136.42 Y164.35
G1 F4320 X138.57 Y166.50 E360.77127
G0 F6000 X138.57 Y167.21
G1 F4320 X136.42 Y165.06 E360.89775
G0 F6000 X136.42 Y165.77
G1 F4320 X138.57 Y167.92 E361.02422
G0 F6000 X138.57 Y168.63
G1 F4320 X136.42 Y166.48 E361.15069
G0 F6000 X136.42 Y167.18
G1 F4320 X138.57 Y169.33 E361.27716
G0 F6000 X138.27 Y169.73
G1 F4320 X136.42 Y167.89 E361.38552
G0 F6000 X136.42 Y168.60
G1 F4320 X137.56 Y169.73 E361.45231
G0 F6000 X136.85 Y169.73
G1 F4320 X136.42 Y169.30 E361.47753
G0 F6000 X139.36 Y137.34
G0 X140.44 Y136.55
G1 F4320 X136.42 Y132.53 E361.71360
G0 F6000 X136.81 Y132.22
G1 F4320 X141.15 Y136.55 E361.96848
G0 F6000 X141.85 Y136.55
G1 F4320 X137.52 Y132.22 E362.22339
G0 F6000 X138.22 Y132.22
G1 F4320 X142.56 Y136.55 E362.47830
G0 F6000 X143.27 Y136.55
G1 F4320 X138.93 Y132.22 E362.73318
G0 F6000 X139.64 Y132.22
G1 F4320 X143.97 Y136.55 E362.98807
G0 F6000 X144.68 Y136.55
G1 F4320 X140.35 Y132.22 E363.24295
G0 F6000 X141.05 Y132.22
G1 F4320 X145.39 Y136.55 E363.49783
G0 F6000 X146.10 Y136.55
G1 F4320 X141.76 Y132.22 E363.75271
G0 F6000 X142.47 Y132.22
G1 F4320 X146.80 Y136.55 E364.00759
G0 F6000 X147.51 Y136.55
G1 F4320 X143.18 Y132.22 E364.26247
G0 F6000 X143.88 Y132.22
G1 F4320 X148.22 Y136.55 E364.51738
G0 F6000 X148.93 Y136.55
G1 F4320 X144.59 Y132.22 E364.77229
G0 F6000 X145.30 Y132.22
G1 F4320 X149.63 Y136.55 E365.02718
G0 F6000 X150.34 Y136.55
G1 F4320 X146.00 Y132.22 E365.28206
G0 F6000 X146.71 Y132.22
G1 F4320 X151.05 Y136.55 E365.53694
G0 F6000 X151.75 Y136.55
G1 F4320 X147.42 Y132.22 E365.79182
G0 F6000 X148.12 Y132.22
G1 F4320 X152.46 Y136.55 E366.04670
G0 F6000 X153.17 Y136.55
G1 F4320 X148.83 Y132.22 E366.30158
G0 F6000 X149.54 Y132.22
G1 F4320 X153.87 Y136.55 E366.55646
G0 F6000 X154.58 Y136.55
G1 F4320 X150.25 Y132.22 E366.81138
G0 F6000 X150.95 Y132.22
G1 F4320 X155.29 Y136.55 E367.06629
G0 F6000 X156.00 Y136.55
G1 F4320 X151.66 Y132.22 E367.32120
G0 F6000 X152.37 Y132.22
G1 F4320 X156.70 Y136.55 E367.57608
G0 F6000 X157.41 Y136.55
G1 F4320 X153.07 Y132.22 E367.83096
G0 F6000 X153.78 Y132.22
G1 F4320 X158.12 Y136.55 E368.08584
G0 F6000 X158.82 Y136.55
G1 F4320 X154.49 Y132.22 E368.34072
G0 F6000 X155.20 Y132.22
G1 F4320 X159.53 Y136.55 E368.59560
G0 F6000 X160.24 Y136.55
G1 F4320 X155.90 Y132.22 E368.85049
G0 F6000 X156.61 Y132.22
G1 F4320 X160.94 Y136.55 E369.10537
G0 F6000 X161.65 Y136.55
G1 F4320 X157.32 Y132.22 E369.36028
G0 F6000 X158.02 Y132.22
G1 F4320 X162.36 Y136.55 E369.61519
G0 F6000 X163.07 Y136.55
G1 F4320 X158.73 Y132.22 E369.87007
G0 F6000 X159.44 Y132.22
G1 F4320 X163.77 Y136.55 E370.12495
G0 F6000 X164.48 Y136.55
G1 F4320 X160.15 Y132.22 E370.37983
G0 F6000 X160.85 Y132.22
G1 F4320 X165.19 Y136.55 E370.63471
G0 F6000 X165.90 Y136.55
G1 F4320 X161.56 Y132.22 E370.88960
G0 F6000 X162.27 Y132.22
G1 F4320 X166.60 Y136.55 E371.14448
G0 F6000 X167.31 Y136.55
G1 F4320 X162.97 Y132.22 E371.39936
G0 F6000 X163.68 Y132.22
G1 F4320 X168.02 Y136.55 E371.65427
G0 F6000 X168.72 Y136.55
G1 F4320 X164.39 Y132.22 E371.90918
G0 F6000 X165.39 Y132.51
G1 F4320 X169.43 Y136.55 E372.14683
G0 F6000 X170.14 Y136.55
G1 F4320 X167.75 Y134.16 E372.28736
G0 F6000 X170.11 Y135.81
G1 F4320 X170.84 Y136.55 E372.33075
G0 F6000 X171.42 Y137.13
G1 F4320 X173.57 Y139.28 E372.45719
G0 F6000 X173.57 Y139.99
G1 F4320 X171.42 Y137.84 E372.58363
G0 F6000 X171.42 Y138.54
G1 F4320 X173.57 Y140.69 E372.71007
G0 F6000 X173.57 Y141.40
G1 F4320 X171.42 Y139.25 E372.83651
G0 F6000 X171.42 Y139.96
G1 F4320 X173.57 Y142.11 E372.96295
G0 F6000 X173.57 Y142.81
G1 F4320 X171.42 Y140.66 E373.08942
G0 F6000 X171.42 Y141.37
G1 F4320 X173.57 Y143.52 E373.21589
G0 F6000 X173.57 Y144.23
G1 F4320 X171.42 Y142.08 E373.34237
G0 F6000 X171.42 Y142.79
G1 F4320 X173.57 Y144.94 E373.46881
G0 F6000 X173.57 Y145.64
G1 F4320 X171.42 Y143.49 E373.59525
G0 F6000 X171.42 Y144.20
G1 F4320 X173.57 Y146.35 E373.72169
G0 F6000 X173.07 Y146.55
G1 F4320 X171.42 Y144.91 E373.81832
G0 F6000 X171.42 Y145.61
G1 F4320 X172.36 Y146.55 E373.87338
G0 F6000 X171.65 Y146.55
G1 F4320 X171.42 Y146.32 E373.88685
G0 F6000 X173.57 Y138.57
G1 F4320 X172.46 Y137.46 E373.95211
;LAYER:3
G0 F6000 X171.25 Y136.73 Z0.90
;TYPE:WALL-INNER
G1 F4740 X138.75 Y136.73 E375.30330
G1 X138.75 Y170.07 E376.68975
G1 X131.35 Y170.07 E376.99724
G1 X131.95 Y169.47 E377.03240
G1 X134.39 Y169.47 E377.13368
G1 X136.25 Y169.48 E377.21109
G1 X136.25 Y151.27 E377.96793
G1 X131.25 Y151.27 E378.17580
G1 X131.25 Y150.68 E378.20062
G1 X136.25 Y150.68 E378.40850
G1 X136.25 Y132.47 E379.16521
G1 X131.25 Y132.47 E379.37309
G1 X131.25 Y131.88 E379.39795
G1 X164.79 Y131.88 E380.79242
G1 X173.75 Y138.15 E381.24712
G1 X173.75 Y146.73 E381.60371
G1 X171.25 Y146.73 E381.70765
G1 X171.25 Y136.73 E382.12340
G0 F6000 X170.75 Y137.23
G1 F4740 X139.25 Y137.23 E383.43302
G1 X139.25 Y170.57 E384.81947
G1 X130.75 Y170.57 E385.17281
G1 X130.75 Y169.97 E385.19793
G1 X131.75 Y168.97 E385.25637
G1 X134.39 Y168.97 E385.36629
G1 X135.75 Y168.98 E385.42288
G1 X135.75 Y151.77 E386.13810
G1 X130.75 Y151.77 E386.34597
G1 X130.75 Y150.18 E386.41232
G1 X135.75 Y150.18 E386.62020
G1 X135.75 Y132.97 E387.33534
G1 X130.75 Y132.97 E387.54321
G1 X130.75 Y131.38 E387.60961
G1 X164.95 Y131.38 E389.03144
G1 X174.25 Y137.89 E389.50351
G1 X174.25 Y147.23 E389.89169
G1 X170.75 Y147.23 E390.03721
G1 X170.75 Y137.23 E390.45296
G0 F6000 X170.25 Y137.73
;TYPE:WALL-OUTER
G1 F4740 X139.75 Y137.73 E391.72100
G1 X139.75 Y171.07 E393.10745
G1 X130.25 Y171.07 E393.50241
G1 X130.25 Y169.76 E393.55692
G1 X131.54 Y168.47 E393.63256
G1 X135.25 Y168.48 E393.78689
G1 X135.25 Y152.27 E394.46049
G1 X130.25 Y152.27 E394.66836
G1 X130.25 Y149.68 E394.77629
G1 X135.25 Y149.68 E394.98417
G1 X135.25 Y133.47 E395.65773
G1 X130.25 Y133.47 E395.86560
G1 X130.25 Y130.88 E395.97358
G1 X165.11 Y130.88 E397.42272
G1 X174.75 Y137.63 E397.91219
G1 X174.75 Y147.73 E398.33198
G1 X170.25 Y147.73 E398.51907
G1 X170.25 Y137.73 E398.93482
G0 F6000 X171.42 Y137.93
;TYPE:FILL
G1 F4740 X172.13 Y137.23 E398.97636
G0 F6000 X172.55 Y137.52
G1 F4740 X171.42 Y138.64 E399.04233
G0 F6000 X171.42 Y139.35
G1 F4740 X172.96 Y137.81 E399.13276
G0 F6000 X173.38 Y138.10
G1 F4740 X171.42 Y140.06 E399.24761
G0 F6000 X171.42 Y140.76
G1 F4740 X173.57 Y138.61 E399.37403
G0 F6000 X173.57 Y139.32
G1 F4740 X171.42 Y141.47 E399.50044
G0 F6000 X171.42 Y142.18
G1 F4740 X173.57 Y140.03 E399.62685
G0 F6000 X173.57 Y140.73
G1 F4740 X171.42 Y142.88 E399.75326
G0 F6000 X171.42 Y143.59
G1 F4740 X173.57 Y141.44 E399.87967
G0 F6000 X173.57 Y142.15
G1 F4740 X171.42 Y144.30 E400.00609
G0 F6000 X171.42 Y145.00
G1 F4740 X173.57 Y142.86 E400.13247
G0 F6000 X173.57 Y143.56
G1 F4740 X171.42 Y145.71 E400.25885
G0 F6000 X171.42 Y146.42
G1 F4740 X173.57 Y144.27 E400.38523
G0 F6000 X173.57 Y144.98
G1 F4740 X172.00 Y146.55 E400.47778
G0 F6000 X172.71 Y146.55
G1 F4740 X173.57 Y145.68 E400.52875
G0 F6000 X173.57 Y146.39
G1 F4740 X173.41 Y146.55 E400.53816
G0 F6000 X171.42 Y137.23
G1 F4740 X171.72 Y136.94 E400.55527
G0 F6000 X170.88 Y136.35
G1 F4740 X170.58 Y136.31 E400.56680
G1 X169.98 Y136.55 E400.59362
G0 F6000 X169.27 Y136.55
G1 F4740 X170.05 Y135.77 E400.63942
G0 F6000 X169.63 Y135.48
G1 F4740 X168.56 Y136.55 E400.70230
G0 F6000 X167.86 Y136.55
G1 F4740 X169.22 Y135.19 E400.78235
G0 F6000 X168.80 Y134.90
G1 F4740 X167.15 Y136.55 E400.87951
G0 F6000 X166.44 Y136.55
G1 F4740 X168.39 Y134.61 E400.99381
G0 F6000 X167.97 Y134.32
G1 F4740 X165.74 Y136.55 E401.12522
G0 F6000 X165.03 Y136.55
G1 F4740 X167.56 Y134.03 E401.27374
G0 F6000 X167.14 Y133.73
G1 F4740 X164.32 Y136.55 E401.43937
G0 F6000 X163.62 Y136.55
G1 F4740 X166.72 Y133.44 E401.62211
G0 F6000 X166.31 Y133.15
G1 F4740 X162.91 Y136.55 E401.82199
G0 F6000 X162.20 Y136.55
G1 F4740 X165.89 Y132.86 E402.03900
G0 F6000 X165.47 Y132.57
G1 F4740 X161.49 Y136.55 E402.27313
G0 F6000 X160.79 Y136.55
G1 F4740 X165.06 Y132.28 E402.52437
G0 F6000 X164.58 Y132.05
G1 F4740 X160.08 Y136.55 E402.78895
G0 F6000 X159.37 Y136.55
G1 F4740 X163.87 Y132.05 E403.05353
G0 F6000 X163.16 Y132.05
G1 F4740 X158.66 Y136.55 E403.31811
G0 F6000 X157.96 Y136.55
G1 F4740 X162.46 Y132.05 E403.58270
G0 F6000 X161.75 Y132.05
G1 F4740 X157.25 Y136.55 E403.84728
G0 F6000 X156.54 Y136.55
G1 F4740 X161.04 Y132.05 E404.11186
G0 F6000 X160.34 Y132.05
G1 F4740 X155.84 Y136.55 E404.37644
G0 F6000 X155.13 Y136.55
G1 F4740 X159.63 Y132.05 E404.64103
G0 F6000 X158.92 Y132.05
G1 F4740 X154.42 Y136.55 E404.90561
G0 F6000 X153.72 Y136.55
G1 F4740 X158.22 Y132.05 E405.17019
G0 F6000 X157.51 Y132.05
G1 F4740 X153.01 Y136.55 E405.43478
G0 F6000 X152.30 Y136.55
G1 F4740 X156.80 Y132.05 E405.69936
G0 F6000 X156.09 Y132.05
G1 F4740 X151.59 Y136.55 E405.96394
G0 F6000 X150.89 Y136.55
G1 F4740 X155.39 Y132.05 E406.22852
G0 F6000 X154.68 Y132.05
G1 F4740 X150.18 Y136.55 E406.49311
G0 F6000 X149.47 Y136.55
G1 F4740 X153.97 Y132.05 E406.75769
G0 F6000 X153.27 Y132.05
G1 F4740 X148.77 Y136.55 E407.02227
G0 F6000 X148.06 Y136.55
G1 F4740 X152.56 Y132.05 E407.28686
G0 F6000 X151.85 Y132.05
G1 F4740 X147.35 Y136.55 E407.55144
G0 F6000 X146.64 Y136.55
G1 F4740 X151.14 Y132.05 E407.81602
G0 F6000 X150.44 Y132.05
G1 F4740 X145.94 Y136.55 E408.08060
G0 F6000 X145.23 Y136.55
G1 F4740 X149.73 Y132.05 E408.34519
G0 F6000 X149.02 Y132.05
G1 F4740 X144.52 Y136.55 E408.60977
G0 F6000 X143.82 Y136.55
G1 F4740 X148.32 Y132.05 E408.87435
G0 F6000 X147.61 Y132.05
G1 F4740 X143.11 Y136.55 E409.13893
G0 F6000 X142.40 Y136.55
G1 F4740 X146.90 Y132.05 E409.40352
G0 F6000 X146.19 Y132.05
G1 F4740 X141.69 Y136.55 E409.66810
G0 F6000 X140.99 Y136.55
G1 F4740 X145.49 Y132.05 E409.93268
G0 F6000 X144.78 Y132.05
G1 F4740 X140.28 Y136.55 E410.19727
G0 F6000 X139.57 Y136.55
G1 F4740 X144.07 Y132.05 E410.46185
G0 F6000 X143.37 Y132.05
G1 F4740 X138.87 Y136.55 E410.72643
G0 F6000 X138.57 Y136.84
G1 F4740 X136.42 Y138.99 E410.85284
G0 F6000 X136.42 Y139.70
G1 F4740 X138.57 Y137.55 E410.97925
G0 F6000 X138.57 Y138.26
G1 F4740 X136.42 Y140.41 E411.10567
G0 F6000 X136.42 Y141.11
G1 F4740 X138.57 Y138.96 E411.23208
G0 F6000 X138.57 Y139.67
G1 F4740 X136.42 Y141.82 E411.35849
G0 F6000 X136.42 Y142.53
G1 F4740 X138.57 Y140.38 E411.48487
G0 F6000 X138.57 Y141.09
G1 F4740 X136.42 Y143.24 E411.61125
G0 F6000 X136.42 Y143.94
G1 F4740 X138.57 Y141.79 E411.73764
G0 F6000 X138.57 Y142.50
G1 F4740 X136.42 Y144.65 E411.86405
G0 F6000 X136.42 Y145.36
G1 F4740 X138.57 Y143.21 E411.99046
G0 F6000 X138.57 Y143.91
G1 F4740 X136.42 Y146.06 E412.11687
G0 F6000 X136.42 Y146.77
G1 F4740 X138.57 Y144.62 E412.24328
G0 F6000 X138.57 Y145.33
G1 F4740 X136.42 Y147.48 E412.36970
G0 F6000 X136.42 Y148.19
G1 F4740 X138.57 Y146.03 E412.49611
G0 F6000 X138.57 Y146.74
G1 F4740 X136.42 Y148.89 E412.62249
G0 F6000 X136.42 Y149.60
G1 F4740 X138.57 Y147.45 E412.74887
G0 F6000 X138.57 Y148.16
G1 F4740 X136.42 Y150.31 E412.87525
G0 F6000 X135.88 Y150.85
G1 F4740 X135.40 Y150.97 E412.88987
G1 X134.70 Y150.97 E412.90445
G1 X133.99 Y150.97 E412.91903
G1 X133.28 Y150.97 E412.93361
G1 X132.57 Y150.97 E412.94819
G1 X131.87 Y150.97 E412.96277
G1 X131.42 Y151.06 E412.98161
G0 F6000 X136.34 Y151.10
G1 F4740 X138.57 Y148.86 E413.11296
G0 F6000 X138.57 Y149.57
G1 F4740 X136.42 Y151.72 E413.23937
G0 F6000 X136.42 Y152.43
G1 F4740 X138.57 Y150.28 E413.36579
G0 F6000 X138.57 Y150.99
G1 F4740 X136.42 Y153.13 E413.49220
G0 F6000 X136.42 Y153.84
G1 F4740 X138.57 Y151.69 E413.61861
G0 F6000 X138.57 Y152.40
G1 F4740 X136.42 Y154.55 E413.74502
G0 F6000 X136.42 Y155.26
G1 F4740 X138.57 Y153.11 E413.87140
G0 F6000 X138.57 Y153.81
G1 F4740 X136.42 Y155.96 E413.99779
G0 F6000 X136.42 Y156.67
G1 F4740 X138.57 Y154.52 E414.12417
G0 F6000 X138.57 Y155.23
G1 F4740 X136.42 Y157.38 E414.25055
G0 F6000 X136.42 Y158.09
G1 F4740 X138.57 Y155.94 E414.37696
G0 F6000 X138.57 Y156.64
G1 F4740 X136.42 Y158.79 E414.50337
G0 F6000 X136.42 Y159.50
G1 F4740 X138.57 Y157.35 E414.62979
G0 F6000 X138.57 Y158.06
G1 F4740 X136.42 Y160.21 E414.75620
G0 F6000 X136.42 Y160.91
G1 F4740 X138.57 Y158.76 E414.88261
G0 F6000 X138.57 Y159.47
G1 F4740 X136.42 Y161.62 E415.00902
G0 F6000 X136.42 Y162.33
G1 F4740 X138.57 Y160.18 E415.13540
G0 F6000 X138.57 Y160.88
G1 F4740 X136.42 Y163.03 E415.26179
G0 F6000 X136.42 Y163.74
G1 F4740 X138.57 Y161.59 E415.38817
G0 F6000 X138.57 Y162.30
G1 F4740 X136.42 Y164.45 E415.51455
G0 F6000 X136.42 Y165.16
G1 F4740 X138.57 Y163.01 E415.64096
G0 F6000 X138.57 Y163.71
G1 F4740 X136.42 Y165.86 E415.76737
G0 F6000 X136.42 Y166.57
G1 F4740 X138.57 Y164.42 E415.89379
G0 F6000 X138.57 Y165.13
G1 F4740 X136.42 Y167.28 E416.02020
G0 F6000 X136.42 Y167.98
G1 F4740 X138.57 Y165.83 E416.14661
G0 F6000 X138.57 Y166.54
G1 F4740 X136.42 Y168.69 E416.27299
G0 F6000 X136.42 Y169.40
G1 F4740 X138.57 Y167.25 E416.39937
G0 F6000 X138.57 Y167.96
G1 F4740 X136.63 Y169.90 E416.51356
G0 F6000 X136.17 Y169.65
G1 F4740 X135.69 Y169.77 E416.52806
G1 X134.99 Y169.77 E416.54252
G1 X134.28 Y169.77 E416.55698
G1 X133.57 Y169.77 E416.57150
G1 X132.87 Y169.77 E416.58600
G1 X132.39 Y169.90 E416.60653
G0 F6000 X137.34 Y169.90
G1 F4740 X138.57 Y168.66 E416.67914
G0 F6000 X138.57 Y169.37
G1 F4740 X138.05 Y169.90 E416.71019
G0 F6000 X136.42 Y138.29
G1 F4740 X142.66 Y132.05 E417.07678
G0 F6000 X141.95 Y132.05
G1 F4740 X136.42 Y137.58 E417.40178
G0 F6000 X136.42 Y136.87
G1 F4740 X141.25 Y132.05 E417.68521
G0 F6000 X140.54 Y132.05
G1 F4740 X136.42 Y136.16 E417.92706
G0 F6000 X136.42 Y135.46
G1 F4740 X139.83 Y132.05 E418.12735
G0 F6000 X139.12 Y132.05
G1 F4740 X136.42 Y134.75 E418.28604
G0 F6000 X136.42 Y134.04
G1 F4740 X138.42 Y132.05 E418.40317
G0 F6000 X137.71 Y132.05
G1 F4740 X136.42 Y133.34 E418.47872
G0 F6000 X136.42 Y132.63
G1 F4740 X136.65 Y132.05 E418.51269
G1 X135.82 Y132.18 E418.52729
G1 X135.11 Y132.18 E418.54187
G1 X134.40 Y132.18 E418.55645
G1 X133.70 Y132.18 E418.57102
G1 X132.99 Y132.18 E418.58560
G1 X132.28 Y132.18 E418.60015
G1 X131.80 Y132.30 E418.62064
;LAYER:4
G0 F6000 X131.25 Y132.60 Z1.10
;TYPE:WALL-INNER
G1 F4860 X131.25 Y131.75 E418.65585
G1 X164.62 Y131.75 E420.04301
G1 X165.16 Y132.13 E420.07064
G1 X173.75 Y138.15 E420.50666
G1 X173.75 Y146.73 E420.86325
G1 X171.25 Y146.73 E420.96718
G1 X171.25 Y136.73 E421.38294
G1 X138.75 Y136.73 E422.73413
G1 X138.75 Y170.20 E424.12578
G1 X131.25 Y170.20 E424.43751
G1 X131.25 Y170.18 E424.43838
G1 X132.08 Y169.35 E424.48689
G1 X134.49 Y169.35 E424.58721
G1 X136.25 Y169.35 E424.66038
G1 X136.25 Y151.40 E425.40690
G1 X131.25 Y151.40 E425.61478
G1 X131.25 Y150.55 E425.64991
G1 X136.25 Y150.55 E425.85779
G1 X136.25 Y132.60 E426.60414
G1 X131.25 Y132.60 E426.81202
G0 F6000 X130.75 Y133.10
G1 F4860 X130.75 Y131.25 E426.88881
G1 X164.77 Y131.25 E428.30324
G1 X174.25 Y137.89 E428.78433
G1 X174.25 Y147.23 E429.17251
G1 X170.75 Y147.23 E429.31803
G1 X170.75 Y137.23 E429.73378
G1 X139.25 Y137.23 E431.04340
G1 X139.25 Y170.70 E432.43504
G1 X130.75 Y170.70 E432.78839
G1 X130.75 Y169.97 E432.81866
G1 X131.87 Y168.85 E432.88436
G1 X134.49 Y168.85 E432.99337
G1 X135.75 Y168.85 E433.04571
G1 X135.75 Y151.90 E433.75062
G1 X130.75 Y151.90 E433.95850
G1 X130.75 Y150.05 E434.03520
G1 X135.75 Y150.05 E434.24308
G1 X135.75 Y133.10 E434.94786
G1 X130.75 Y133.10 E435.15574
G0 F6000 X130.25 Y133.60
;TYPE:WALL-OUTER
G1 F4860 X130.25 Y130.75 E435.27406
G1 X164.93 Y130.75 E436.71585
G1 X174.75 Y137.63 E437.21428
G1 X174.75 Y147.73 E437.63411
G1 X170.25 Y147.73 E437.82120
G1 X170.25 Y137.73 E438.23695
G1 X139.75 Y137.73 E439.50499
G1 X139.75 Y171.20 E440.89664
G1 X131.01 Y171.20 E441.26017
G1 X131.00 Y174.47 E441.39641
G1 X130.90 Y174.47 E441.40094
G1 X130.90 Y171.20 E441.53719
G1 X130.25 Y171.20 E441.56404
G1 X130.25 Y169.76 E441.62379
G1 X131.66 Y168.35 E441.70672
G1 X135.25 Y168.35 E441.85585
G1 X135.25 Y152.40 E442.51914
G1 X130.25 Y152.40 E442.72701
G1 X130.25 Y149.55 E442.84525
G1 X135.25 Y149.55 E443.05313
G1 X135.25 Y133.60 E443.71634
G1 X130.25 Y133.60 E443.92421
G0 F6000 X130.51 Y133.25
G0 X131.57 Y131.93
;TYPE:FILL
G1 F4860 X132.18 Y132.18 E443.95339
G1 X132.88 Y132.18 E443.98261
G1 X133.59 Y132.18 E444.01183
G1 X134.30 Y132.18 E444.04105
G1 X135.00 Y132.18 E444.07024
G1 X135.71 Y132.18 E444.09940
G1 X136.31 Y132.42 E444.12649
G0 F6000 X136.42 Y132.53
G1 F4860 X140.44 Y136.55 E444.36255
G0 F6000 X139.73 Y136.55
G1 F4860 X136.42 Y133.24 E444.55705
G0 F6000 X136.42 Y133.95
G1 F4860 X139.03 Y136.55 E444.70998
G0 F6000 X138.57 Y136.81
G1 F4860 X136.42 Y134.66 E444.83645
G0 F6000 X136.42 Y135.36
G1 F4860 X138.57 Y137.51 E444.96292
G0 F6000 X138.57 Y138.22
G1 F4860 X136.42 Y136.07 E445.08939
G0 F6000 X136.42 Y136.78
G1 F4860 X138.57 Y138.93 E445.21586
G0 F6000 X138.57 Y139.63
G1 F4860 X136.42 Y137.48 E445.34233
G0 F6000 X136.42 Y138.19
G1 F4860 X138.57 Y140.34 E445.46883
G0 F6000 X138.57 Y141.05
G1 F4860 X136.42 Y138.90 E445.59530
G0 F6000 X136.42 Y139.61
G1 F4860 X138.57 Y141.76 E445.72177
G0 F6000 X138.57 Y142.46
G1 F4860 X136.42 Y140.31 E445.84825
G0 F6000 X136.42 Y141.02
G1 F4860 X138.57 Y143.17 E445.97472
G0 F6000 X138.57 Y143.88
G1 F4860 X136.42 Y141.73 E446.10119
G0 F6000 X136.42 Y142.43
G1 F4860 X138.57 Y144.59 E446.22766
G0 F6000 X138.57 Y145.29
G1 F4860 X136.42 Y143.14 E446.35413
G0 F6000 X136.42 Y143.85
G1 F4860 X138.57 Y146.00 E446.48060
G0 F6000 X138.57 Y146.71
G1 F4860 X136.42 Y144.56 E446.60707
G0 F6000 X136.42 Y145.26
G1 F4860 X138.57 Y147.41 E446.73354
G0 F6000 X138.57 Y148.12
G1 F4860 X136.42 Y145.97 E446.86001
G0 F6000 X136.42 Y146.68
G1 F4860 X138.57 Y148.83 E446.98648
G0 F6000 X138.57 Y149.53
G1 F4860 X136.42 Y147.38 E447.11295
G0 F6000 X136.42 Y148.09
G1 F4860 X138.57 Y150.24 E447.23942
G0 F6000 X138.57 Y150.95
G1 F4860 X136.42 Y148.80 E447.36589
G0 F6000 X136.42 Y149.50
G1 F4860 X138.57 Y151.66 E447.49236
G0 F6000 X138.57 Y152.36
G1 F4860 X136.42 Y150.21 E447.61883
G0 F6000 X136.23 Y150.73
G1 F4860 X138.57 Y153.07 E447.75662
G0 F6000 X138.57 Y153.78
G1 F4860 X136.42 Y151.63 E447.88309
G0 F6000 X136.02 Y151.22
G1 F4860 X135.42 Y150.97 E447.91215
G1 X134.71 Y150.97 E447.94113
G1 X134.00 Y150.97 E447.97011
G1 X133.30 Y150.97 E447.99909
G1 X132.59 Y150.97 E448.02808
G1 X131.88 Y150.97 E448.05706
G1 X131.42 Y150.87 E448.07658
G0 F6000 X136.42 Y152.33
G1 F4860 X138.57 Y154.49 E448.20306
G0 F6000 X138.57 Y155.19
G1 F4860 X136.42 Y153.04 E448.32953
G0 F6000 X136.42 Y153.75
G1 F4860 X138.57 Y155.90 E448.45597
G0 F6000 X138.57 Y156.61
G1 F4860 X136.42 Y154.46 E448.58241
G0 F6000 X136.42 Y155.16
G1 F4860 X138.57 Y157.31 E448.70885
G0 F6000 X138.57 Y158.02
G1 F4860 X136.42 Y155.87 E448.83529
G0 F6000 X136.42 Y156.58
G1 F4860 X138.57 Y158.73 E448.96173
G0 F6000 X138.57 Y159.43
G1 F4860 X136.42 Y157.28 E449.08817
G0 F6000 X136.42 Y157.99
G1 F4860 X138.57 Y160.14 E449.21464
G0 F6000 X138.57 Y160.85
G1 F4860 X136.42 Y158.70 E449.34111
G0 F6000 X136.42 Y159.41
G1 F4860 X138.57 Y161.56 E449.46758
G0 F6000 X138.57 Y162.26
G1 F4860 X136.42 Y160.11 E449.59403
G0 F6000 X136.42 Y160.82
G1 F4860 X138.57 Y162.97 E449.72047
G0 F6000 X138.57 Y163.68
G1 F4860 X136.42 Y161.53 E449.84691
G0 F6000 X136.42 Y162.23
G1 F4860 X138.57 Y164.38 E449.97335
G0 F6000 X138.57 Y165.09
G1 F4860 X136.42 Y162.94 E450.09979
G0 F6000 X136.42 Y163.65
G1 F4860 X138.57 Y165.80 E450.22623
G0 F6000 X138.57 Y166.50
G1 F4860 X136.42 Y164.35 E450.35267
G0 F6000 X136.42 Y165.06
G1 F4860 X138.57 Y167.21 E450.47914
G0 F6000 X138.57 Y167.92
G1 F4860 X136.42 Y165.77 E450.60561
G0 F6000 X136.42 Y166.48
G1 F4860 X138.57 Y168.63 E450.73208
G0 F6000 X138.57 Y169.33
G1 F4860 X136.42 Y167.18 E450.85853
G0 F6000 X136.42 Y167.89
G1 F4860 X138.56 Y170.02 E450.98385
G0 F6000 X137.85 Y170.02
G1 F4860 X136.42 Y168.60 E451.06760
G0 F6000 X136.42 Y169.31
G1 F4860 X137.14 Y170.02 E451.10976
G0 F6000 X136.43 Y170.02
G1 F4860 X135.83 Y169.77 E451.13870
G1 X135.13 Y169.77 E451.16766
G1 X134.42 Y169.77 E451.19663
G1 X133.71 Y169.77 E451.22571
G1 X133.00 Y169.77 E451.25469
G1 X132.16 Y169.64 E451.28372
G1 X132.19 Y170.02 E451.29960
G0 F6000 X139.36 Y170.81
G0 X139.36 Y137.34
G0 X141.15 Y136.55
G1 F4860 X136.52 Y131.93 E451.57142
G0 F6000 X137.23 Y131.93
G1 F4860 X141.85 Y136.55 E451.84326
G0 F6000 X142.56 Y136.55
G1 F4860 X137.94 Y131.93 E452.11511
G0 F6000 X138.64 Y131.93
G1 F4860 X143.27 Y136.55 E452.38695
G0 F6000 X143.97 Y136.55
G1 F4860 X139.35 Y131.93 E452.65880
G0 F6000 X140.06 Y131.93
G1 F4860 X144.68 Y136.55 E452.93064
G0 F6000 X145.39 Y136.55
G1 F4860 X140.76 Y131.93 E453.20248
G0 F6000 X141.47 Y131.93
G1 F4860 X146.10 Y136.55 E453.47433
G0 F6000 X146.80 Y136.55
G1 F4860 X142.18 Y131.93 E453.74614
G0 F6000 X142.89 Y131.93
G1 F4860 X147.51 Y136.55 E454.01796
G0 F6000 X148.22 Y136.55
G1 F4860 X143.59 Y131.93 E454.28980
G0 F6000 X144.30 Y131.93
G1 F4860 X148.93 Y136.55 E454.56165
G0 F6000 X149.63 Y136.55
G1 F4860 X145.01 Y131.93 E454.83349
G0 F6000 X145.72 Y131.93
G1 F4860 X150.34 Y136.55 E455.10533
G0 F6000 X151.05 Y136.55
G1 F4860 X146.42 Y131.93 E455.37718
G0 F6000 X147.13 Y131.93
G1 F4860 X151.75 Y136.55 E455.64902
G0 F6000 X152.46 Y136.55
G1 F4860 X147.84 Y131.93 E455.92087
G0 F6000 X148.54 Y131.93
G1 F4860 X153.17 Y136.55 E456.19268
G0 F6000 X153.87 Y136.55
G1 F4860 X149.25 Y131.93 E456.46450
G0 F6000 X149.96 Y131.93
G1 F4860 X154.58 Y136.55 E456.73634
G0 F6000 X155.29 Y136.55
G1 F4860 X150.66 Y131.93 E457.00818
G0 F6000 X151.37 Y131.93
G1 F4860 X156.00 Y136.55 E457.28003
G0 F6000 X156.70 Y136.55
G1 F4860 X152.08 Y131.93 E457.55187
G0 F6000 X152.79 Y131.93
G1 F4860 X157.41 Y136.55 E457.82372
G0 F6000 X158.12 Y136.55
G1 F4860 X153.49 Y131.93 E458.09556
G0 F6000 X154.20 Y131.93
G1 F4860 X158.82 Y136.55 E458.36740
G0 F6000 X159.53 Y136.55
G1 F4860 X154.91 Y131.93 E458.63922
G0 F6000 X155.62 Y131.93
G1 F4860 X160.24 Y136.55 E458.91103
G0 F6000 X160.94 Y136.55
G1 F4860 X156.32 Y131.93 E459.18285
G0 F6000 X157.03 Y131.93
G1 F4860 X161.65 Y136.55 E459.45469
G0 F6000 X162.36 Y136.55
G1 F4860 X157.74 Y131.93 E459.72654
G0 F6000 X158.44 Y131.93
G1 F4860 X163.07 Y136.55 E459.99838
G0 F6000 X163.77 Y136.55
G1 F4860 X159.15 Y131.93 E460.27022
G0 F6000 X159.86 Y131.93
G1 F4860 X164.48 Y136.55 E460.54207
G0 F6000 X165.19 Y136.55
G1 F4860 X160.56 Y131.93 E460.81391
G0 F6000 X161.27 Y131.93
G1 F4860 X165.90 Y136.55 E461.08576
G0 F6000 X166.60 Y136.55
G1 F4860 X161.98 Y131.93 E461.35757
G0 F6000 X162.69 Y131.93
G1 F4860 X167.31 Y136.55 E461.62939
G0 F6000 X168.02 Y136.55
G1 F4860 X163.39 Y131.93 E461.90123
G0 F6000 X164.10 Y131.93
G1 F4860 X168.72 Y136.55 E462.17307
G0 F6000 X169.43 Y136.55
G1 F4860 X165.39 Y132.51 E462.41073
G0 F6000 X167.75 Y134.16
G1 F4860 X170.14 Y136.55 E462.55116
G0 F6000 X170.84 Y136.55
G1 F4860 X170.11 Y135.81 E462.59438
G0 F6000 X171.42 Y137.13
G1 F4860 X173.57 Y139.28 E462.72082
G0 F6000 X173.57 Y139.99
G1 F4860 X171.42 Y137.84 E462.84726
G0 F6000 X171.42 Y138.54
G1 F4860 X173.57 Y140.69 E462.97370
G0 F6000 X173.57 Y141.40
G1 F4860 X171.42 Y139.25 E463.10014
G0 F6000 X171.42 Y139.96
G1 F4860 X173.57 Y142.11 E463.22658
G0 F6000 X173.57 Y142.81
G1 F4860 X171.42 Y140.66 E463.35305
G0 F6000 X171.42 Y141.37
G1 F4860 X173.57 Y143.52 E463.47953
G0 F6000 X173.57 Y144.23
G1 F4860 X171.42 Y142.08 E463.60600
G0 F6000 X171.42 Y142.79
G1 F4860 X173.57 Y144.94 E463.73244
G0 F6000 X173.57 Y145.64
G1 F4860 X171.42 Y143.49 E463.85888
G0 F6000 X171.42 Y144.20
G1 F4860 X173.57 Y146.35 E463.98532
G0 F6000 X173.07 Y146.55
G1 F4860 X171.42 Y144.91 E464.08195
G0 F6000 X171.42 Y145.61
G1 F4860 X172.36 Y146.55 E464.13701
G0 F6000 X171.65 Y146.55
G1 F4860 X171.42 Y146.32 E464.15048
G0 F6000 X173.57 Y138.57
G1 F4860 X172.47 Y137.47 E464.21559
;LAYER:5
G0 F6000 X171.25 Y136.73 Z1.30
;TYPE:WALL-INNER
G1 F4860 X138.75 Y136.73 E465.56679
G1 X138.75 Y170.29 E466.96226
G1 X131.25 Y170.29 E467.27399
G1 X131.25 Y170.18 E467.27881
G1 X132.17 Y169.26 E467.33273
G1 X136.25 Y169.26 E467.50240
G1 X136.25 Y151.49 E468.24106
G1 X131.25 Y151.49 E468.44894
G1 X131.25 Y150.46 E468.49184
G1 X136.25 Y150.46 E468.69972
G1 X136.25 Y132.69 E469.43838
G1 X131.25 Y132.69 E469.64626
G1 X131.25 Y131.66 E469.68921
G1 X164.48 Y131.66 E471.07083
G1 X173.75 Y138.15 E471.54121
G1 X173.75 Y146.73 E471.89784
G1 X171.25 Y146.73 E472.00178
G1 X171.25 Y136.73 E472.41753
G0 F6000 X170.75 Y137.23
G1 F4860 X139.25 Y137.23 E473.72715
G1 X139.25 Y170.79 E475.12262
G1 X130.75 Y170.79 E475.47597
G1 X130.75 Y169.97 E475.51022
G1 X131.96 Y168.76 E475.58134
G1 X135.75 Y168.76 E475.73882
G1 X135.75 Y151.99 E476.43592
G1 X130.75 Y151.99 E476.64379
G1 X130.75 Y149.96 E476.72827
G1 X135.75 Y149.96 E476.93615
G1 X135.75 Y133.19 E477.63324
G1 X130.75 Y133.19 E477.84111
G1 X130.75 Y131.16 E477.92564
G1 X164.64 Y131.16 E479.33454
G1 X174.25 Y137.89 E479.82237
G1 X174.25 Y147.23 E480.21056
G1 X170.75 Y147.23 E480.35607
G1 X170.75 Y137.23 E480.77183
G0 F6000 X170.25 Y137.73
;TYPE:WALL-OUTER
G1 F4860 X139.75 Y137.73 E482.03987
G1 X139.75 Y171.29 E483.43534
G1 X131.34 Y171.29 E483.78486
G1 X131.34 Y174.47 E483.91724
G1 X130.56 Y174.47 E483.94979
G1 X130.56 Y171.29 E484.08217
G1 X130.25 Y171.29 E484.09497
G1 X130.25 Y169.76 E484.15858
G1 X131.76 Y168.26 E484.24698
G1 X135.25 Y168.26 E484.39224
G1 X135.25 Y152.49 E485.04776
G1 X130.25 Y152.49 E485.25564
G1 X130.25 Y149.46 E485.38169
G1 X135.25 Y149.46 E485.58957
G1 X135.25 Y133.69 E486.24508
G1 X130.25 Y133.69 E486.45296
G1 X130.25 Y130.66 E486.57906
G1 X164.80 Y130.66 E488.01531
G1 X174.75 Y137.63 E488.52050
G1 X174.75 Y147.73 E488.94032
G1 X170.25 Y147.73 E489.12741
G1 X170.25 Y137.73 E489.54316
G0 F6000 X171.42 Y137.94
;TYPE:FILL
G1 F4860 X172.13 Y137.23 E489.58476
G0 F6000 X172.55 Y137.52
G1 F4860 X171.42 Y138.64 E489.65085
G0 F6000 X171.42 Y139.35
G1 F4860 X172.96 Y137.81 E489.74136
G0 F6000 X173.38 Y138.10
G1 F4860 X171.42 Y140.06 E489.85634
G0 F6000 X171.42 Y140.76
G1 F4860 X173.57 Y138.61 E489.98278
G0 F6000 X173.57 Y139.32
G1 F4860 X171.42 Y141.47 E490.10922
G0 F6000 X171.42 Y142.18
G1 F4860 X173.57 Y140.03 E490.23566
G0 F6000 X173.57 Y140.73
G1 F4860 X171.42 Y142.88 E490.36213
G0 F6000 X171.42 Y143.59
G1 F4860 X173.57 Y141.44 E490.48860
G0 F6000 X173.57 Y142.15
G1 F4860 X171.42 Y144.30 E490.61507
G0 F6000 X171.42 Y145.01
G1 F4860 X173.57 Y142.86 E490.74152
G0 F6000 X173.57 Y143.56
G1 F4860 X171.42 Y145.71 E490.86796
G0 F6000 X171.42 Y146.42
G1 F4860 X173.57 Y144.27 E490.99440
G0 F6000 X173.57 Y144.98
G1 F4860 X172.00 Y146.55 E491.08694
G0 F6000 X172.71 Y146.55
G1 F4860 X173.57 Y145.68 E491.13792
G0 F6000 X173.57 Y146.39
G1 F4860 X173.41 Y146.55 E491.14733
G0 F6000 X171.42 Y137.23
G1 F4860 X171.72 Y136.94 E491.16450
G0 F6000 X170.88 Y136.35
G1 F4860 X170.58 Y136.31 E491.17603
G1 X169.98 Y136.55 E491.20289
G0 F6000 X169.27 Y136.55
G1 F4860 X170.05 Y135.77 E491.24866
G0 F6000 X169.63 Y135.48
G1 F4860 X168.56 Y136.55 E491.31157
G0 F6000 X167.86 Y136.55
G1 F4860 X169.22 Y135.19 E491.39159
G0 F6000 X168.80 Y134.90
G1 F4860 X167.15 Y136.55 E491.48875
G0 F6000 X166.44 Y136.55
G1 F4860 X168.39 Y134.61 E491.60305
G0 F6000 X167.97 Y134.32
G1 F4860 X165.74 Y136.55 E491.73440
G0 F6000 X165.03 Y136.55
G1 F4860 X167.56 Y134.03 E491.88289
G0 F6000 X167.14 Y133.73
G1 F4860 X164.32 Y136.55 E492.04852
G0 F6000 X163.62 Y136.55
G1 F4860 X166.72 Y133.44 E492.23126
G0 F6000 X166.31 Y133.15
G1 F4860 X162.91 Y136.55 E492.43114
G0 F6000 X162.20 Y136.55
G1 F4860 X165.89 Y132.86 E492.64812
G0 F6000 X165.48 Y132.57
G1 F4860 X161.49 Y136.55 E492.88222
G0 F6000 X160.79 Y136.55
G1 F4860 X165.06 Y132.28 E493.13346
G0 F6000 X164.64 Y131.99
G1 F4860 X160.08 Y136.55 E493.40180
G0 F6000 X159.37 Y136.55
G1 F4860 X164.09 Y131.83 E493.67915
G0 F6000 X163.38 Y131.83
G1 F4860 X158.67 Y136.55 E493.95649
G0 F6000 X157.96 Y136.55
G1 F4860 X162.68 Y131.83 E494.23383
G0 F6000 X161.97 Y131.83
G1 F4860 X157.25 Y136.55 E494.51117
G0 F6000 X156.54 Y136.55
G1 F4860 X161.26 Y131.83 E494.78854
G0 F6000 X160.55 Y131.83
G1 F4860 X155.84 Y136.55 E495.06588
G0 F6000 X155.13 Y136.55
G1 F4860 X159.85 Y131.83 E495.34322
G0 F6000 X159.14 Y131.83
G1 F4860 X154.42 Y136.55 E495.62057
G0 F6000 X153.72 Y136.55
G1 F4860 X158.43 Y131.83 E495.89791
G0 F6000 X157.73 Y131.83
G1 F4860 X153.01 Y136.55 E496.17525
G0 F6000 X152.30 Y136.55
G1 F4860 X157.02 Y131.83 E496.45259
G0 F6000 X156.31 Y131.83
G1 F4860 X151.59 Y136.55 E496.72993
G0 F6000 X150.89 Y136.55
G1 F4860 X155.60 Y131.83 E497.00727
G0 F6000 X154.90 Y131.83
G1 F4860 X150.18 Y136.55 E497.28464
G0 F6000 X149.47 Y136.55
G1 F4860 X154.19 Y131.83 E497.56199
G0 F6000 X153.48 Y131.83
G1 F4860 X148.77 Y136.55 E497.83933
G0 F6000 X148.06 Y136.55
G1 F4860 X152.78 Y131.83 E498.11667
G0 F6000 X152.07 Y131.83
G1 F4860 X147.35 Y136.55 E498.39401
G0 F6000 X146.65 Y136.55
G1 F4860 X151.36 Y131.83 E498.67135
G0 F6000 X150.66 Y131.83
G1 F4860 X145.94 Y136.55 E498.94869
G0 F6000 X145.23 Y136.55
G1 F4860 X149.95 Y131.83 E499.22603
G0 F6000 X149.24 Y131.83
G1 F4860 X144.52 Y136.55 E499.50338
G0 F6000 X143.82 Y136.55
G1 F4860 X148.53 Y131.83 E499.78072
G0 F6000 X147.83 Y131.83
G1 F4860 X143.11 Y136.55 E500.05809
G0 F6000 X142.40 Y136.55
G1 F4860 X147.12 Y131.83 E500.33543
G0 F6000 X146.41 Y131.83
G1 F4860 X141.69 Y136.55 E500.61277
G0 F6000 X140.99 Y136.55
G1 F4860 X145.71 Y131.83 E500.89011
G0 F6000 X145.00 Y131.83
G1 F4860 X140.28 Y136.55 E501.16745
G0 F6000 X139.57 Y136.55
G1 F4860 X144.29 Y131.83 E501.44480
G0 F6000 X143.58 Y131.83
G1 F4860 X138.87 Y136.55 E501.72214
G0 F6000 X138.57 Y136.84
G1 F4860 X136.42 Y138.99 E501.84855
G0 F6000 X136.42 Y139.70
G1 F4860 X138.57 Y137.55 E501.97496
G0 F6000 X138.57 Y138.26
G1 F4860 X136.42 Y140.41 E502.10137
G0 F6000 X136.42 Y141.11
G1 F4860 X138.57 Y138.96 E502.22778
G0 F6000 X138.57 Y139.67
G1 F4860 X136.42 Y141.82 E502.35420
G0 F6000 X136.42 Y142.53
G1 F4860 X138.57 Y140.38 E502.48058
G0 F6000 X138.57 Y141.09
G1 F4860 X136.42 Y143.24 E502.60696
G0 F6000 X136.42 Y143.94
G1 F4860 X138.57 Y141.79 E502.73334
G0 F6000 X138.57 Y142.50
G1 F4860 X136.42 Y144.65 E502.85976
G0 F6000 X136.42 Y145.36
G1 F4860 X138.57 Y143.21 E502.98617
G0 F6000 X138.57 Y143.91
G1 F4860 X136.42 Y146.06 E503.11258
G0 F6000 X136.42 Y146.77
G1 F4860 X138.57 Y144.62 E503.23899
G0 F6000 X138.57 Y145.33
G1 F4860 X136.42 Y147.48 E503.36540
G0 F6000 X136.42 Y148.19
G1 F4860 X138.57 Y146.03 E503.49181
G0 F6000 X138.57 Y146.74
G1 F4860 X136.42 Y148.89 E503.61820
G0 F6000 X136.42 Y149.60
G1 F4860 X138.57 Y147.45 E503.74458
G0 F6000 X138.57 Y148.16
G1 F4860 X136.42 Y150.31 E503.87096
G0 F6000 X136.10 Y150.63
G1 F4860 X135.40 Y150.97 E503.91106
G1 X134.70 Y150.97 E503.95116
G1 X133.99 Y150.97 E503.99125
G1 X133.28 Y150.97 E504.03134
G1 X132.57 Y150.97 E504.07144
G1 X131.65 Y151.19 E504.11156
G1 X131.86 Y150.63 E504.13622
G0 F6000 X136.12 Y151.31
G1 F4860 X138.57 Y148.86 E504.28033
G0 F6000 X138.57 Y149.57
G1 F4860 X136.42 Y151.72 E504.40674
G0 F6000 X136.42 Y152.43
G1 F4860 X138.57 Y150.28 E504.53315
G0 F6000 X138.57 Y150.99
G1 F4860 X136.42 Y153.13 E504.65956
G0 F6000 X136.42 Y153.84
G1 F4860 X138.57 Y151.69 E504.78597
G0 F6000 X138.57 Y152.40
G1 F4860 X136.42 Y154.55 E504.91239
G0 F6000 X136.42 Y155.26
G1 F4860 X138.57 Y153.11 E505.03877
G0 F6000 X138.57 Y153.81
G1 F4860 X136.42 Y155.96 E505.16515
G0 F6000 X136.42 Y156.67
G1 F4860 X138.57 Y154.52 E505.29153
G0 F6000 X138.57 Y155.23
G1 F4860 X136.42 Y157.38 E505.41792
G0 F6000 X136.42 Y158.09
G1 F4860 X138.57 Y155.94 E505.54433
G0 F6000 X138.57 Y156.64
G1 F4860 X136.42 Y158.79 E505.67074
G0 F6000 X136.42 Y159.50
G1 F4860 X138.57 Y157.35 E505.79715
G0 F6000 X138.57 Y158.06
G1 F4860 X136.42 Y160.21 E505.92356
G0 F6000 X136.42 Y160.91
G1 F4860 X138.57 Y158.76 E506.04997
G0 F6000 X138.57 Y159.47
G1 F4860 X136.42 Y161.62 E506.17639
G0 F6000 X136.42 Y162.33
G1 F4860 X138.57 Y160.18 E506.30277
G0 F6000 X138.57 Y160.88
G1 F4860 X136.42 Y163.03 E506.42915
G0 F6000 X136.42 Y163.74
G1 F4860 X138.57 Y161.59 E506.55553
G0 F6000 X138.57 Y162.30
G1 F4860 X136.42 Y164.45 E506.68192
G0 F6000 X136.42 Y165.16
G1 F4860 X138.57 Y163.01 E506.80833
G0 F6000 X138.57 Y163.71
G1 F4860 X136.42 Y165.86 E506.93474
G0 F6000 X136.42 Y166.57
G1 F4860 X138.57 Y164.42 E507.06115
G0 F6000 X138.57 Y165.13
G1 F4860 X136.42 Y167.28 E507.18756
G0 F6000 X136.42 Y167.98
G1 F4860 X138.57 Y165.83 E507.31397
G0 F6000 X138.57 Y166.54
G1 F4860 X136.42 Y168.69 E507.44036
G0 F6000 X136.42 Y169.40
G1 F4860 X138.57 Y167.25 E507.56674
G0 F6000 X138.57 Y167.96
G1 F4860 X136.41 Y170.12 E507.69368
G0 F6000 X136.39 Y169.43
G1 F4860 X135.69 Y169.77 E507.73378
G1 X134.99 Y169.77 E507.77388
G1 X134.28 Y169.77 E507.81397
G1 X133.57 Y169.77 E507.85406
G1 X132.87 Y169.77 E507.89415
G1 X132.17 Y170.12 E507.92636
G0 F6000 X137.12 Y170.12
G1 F4860 X138.57 Y168.66 E508.01173
G0 F6000 X138.57 Y169.37
G1 F4860 X137.83 Y170.12 E508.05553
G0 F6000 X136.42 Y138.29
G1 F4860 X142.88 Y131.83 E508.43494
G0 F6000 X142.17 Y131.83
G1 F4860 X136.42 Y137.58 E508.77276
G0 F6000 X136.42 Y136.87
G1 F4860 X141.46 Y131.83 E509.06900
G0 F6000 X140.75 Y131.83
G1 F4860 X136.42 Y136.16 E509.32365
G0 F6000 X136.42 Y135.46
G1 F4860 X140.05 Y131.83 E509.53673
G0 F6000 X139.34 Y131.83
G1 F4860 X136.42 Y134.75 E509.70823
G0 F6000 X136.42 Y134.04
G1 F4860 X138.63 Y131.83 E509.83817
G0 F6000 X137.93 Y131.83
G1 F4860 X136.42 Y133.34 E509.92654
G0 F6000 X136.42 Y132.63
G1 F4860 X137.22 Y131.83 E509.97335
G0 F6000 X136.51 Y131.83
G1 F4860 X135.82 Y132.17 E510.01345
G1 X135.11 Y132.17 E510.05354
G1 X134.40 Y132.17 E510.09364
G1 X133.70 Y132.17 E510.13378
G1 X132.99 Y132.17 E510.17388
G1 X132.28 Y132.17 E510.21397
G1 X131.50 Y132.24 E510.25406
G1 X131.56 Y131.83 E510.27132
;LAYER:6
G0 F6000 X131.25 Y131.59 Z1.50
;TYPE:WALL-INNER
G1 F3480 X164.39 Y131.59 E511.64899
G1 X173.75 Y138.15 E512.12422
G1 X173.75 Y146.73 E512.48082
G1 X171.25 Y146.73 E512.58475
G1 X171.25 Y136.73 E513.00050
G1 X138.75 Y136.73 E514.35170
G1 X138.75 Y170.36 E515.74995
G1 X131.39 Y170.36 E516.05586
G1 X131.39 Y170.33 E516.05707
G1 X131.25 Y170.33 E516.06289
G1 X131.25 Y170.18 E516.06938
G1 X132.24 Y169.19 E516.12723
G1 X136.25 Y169.19 E516.29412
G1 X136.25 Y151.56 E517.02725
G1 X131.25 Y151.56 E517.23513
G1 X131.25 Y150.39 E517.28352
G1 X133.83 Y150.39 E517.39066
G1 X136.25 Y150.39 E517.49140
G1 X136.25 Y132.76 E518.22445
G1 X131.25 Y132.76 E518.43233
G1 X131.25 Y131.59 E518.48076
G0 F6000 X130.75 Y131.09
G1 F3480 X164.54 Y131.09 E519.88579
G1 X174.25 Y137.89 E520.37837
G1 X174.25 Y147.23 E520.76660
G1 X170.75 Y147.23 E520.91211
G1 X170.75 Y137.23 E521.32787
G1 X139.25 Y137.23 E522.63748
G1 X139.25 Y170.86 E524.03574
G1 X131.01 Y170.86 E524.37836
G1 X131.01 Y173.97 E524.50799
G1 X130.89 Y173.97 E524.51277
G1 X130.89 Y170.84 E524.64311
G1 X130.75 Y170.84 E524.64898
G1 X130.75 Y169.97 E524.68540
G1 X132.03 Y168.69 E524.76045
G1 X135.75 Y168.69 E524.91515
G1 X135.75 Y152.06 E525.60671
G1 X130.75 Y152.06 E525.81459
G1 X130.75 Y149.89 E525.90456
G1 X135.75 Y149.89 E526.11243
G1 X135.75 Y133.26 E526.80395
G1 X130.75 Y133.26 E527.01183
G1 X130.75 Y131.09 E527.10184
G0 F6000 X130.25 Y130.59
;TYPE:WALL-OUTER
G1 F3480 X164.70 Y130.59 E528.53418
G1 X174.75 Y137.63 E529.04417
G1 X174.75 Y147.73 E529.46399
G1 X170.25 Y147.73 E529.65108
G1 X170.25 Y137.73 E530.06683
G1 X139.75 Y137.73 E531.33488
G1 X139.75 Y171.36 E532.73313
G1 X131.51 Y171.36 E533.07575
G1 X131.51 Y174.47 E533.20538
G1 X130.39 Y174.47 E533.25174
G1 X130.39 Y171.35 E533.38162
G1 X130.25 Y171.35 E533.38753
G1 X130.25 Y169.76 E533.45376
G1 X131.82 Y168.19 E533.54610
G1 X135.25 Y168.19 E533.68857
G1 X135.25 Y152.56 E534.33856
G1 X130.25 Y152.56 E534.54644
G1 X130.25 Y149.39 E534.67798
G1 X135.25 Y149.39 E534.88586
G1 X135.25 Y133.76 E535.53580
G1 X130.25 Y133.76 E535.74368
G1 X130.25 Y130.59 E535.87526
G0 F6000 X130.60 Y130.85
G0 X131.42 Y131.78
;TYPE:FILL
G1 F3480 X132.23 Y132.58 E535.92250
G0 F6000 X132.58 Y132.58
G1 F3480 X133.16 Y132.00 E535.95661
G0 F6000 X132.83 Y131.77
G1 F3480 X133.64 Y132.58 E536.00455
G0 F6000 X132.94 Y132.58
G1 F3480 X132.12 Y131.77 E536.05250
G0 F6000 X131.42 Y132.49
G1 F3480 X131.52 Y132.58 E536.05818
G0 F6000 X133.53 Y131.77
G1 F3480 X134.35 Y132.58 E536.10615
G0 F6000 X135.06 Y132.58
G1 F3480 X134.24 Y131.77 E536.15413
G0 F6000 X134.95 Y131.77
G1 F3480 X135.76 Y132.58 E536.20211
G0 F6000 X136.12 Y132.58
G1 F3480 X135.54 Y132.00 E536.23624
G0 F6000 X135.66 Y131.77
G1 F3480 X136.54 Y132.65 E536.28833
G0 F6000 X136.42 Y132.89
G1 F3480 X140.09 Y136.55 E536.50365
G0 F6000 X142.76 Y136.55
G1 F3480 X147.30 Y132.00 E536.77105
G0 F6000 X146.97 Y131.77
G1 F3480 X147.86 Y132.65 E536.82314
G0 F6000 X148.56 Y132.65
G1 F3480 X147.68 Y131.77 E536.87524
G0 F6000 X148.38 Y131.77
G1 F3480 X149.27 Y132.65 E536.92733
G0 F6000 X149.98 Y132.65
G1 F3480 X149.09 Y131.77 E536.97942
G0 F6000 X149.68 Y132.00
G1 F3480 X154.23 Y136.55 E537.24677
G0 F6000 X156.90 Y136.55
G1 F3480 X161.45 Y132.00 E537.51418
G0 F6000 X161.11 Y131.77
G1 F3480 X162.00 Y132.65 E537.56627
G0 F6000 X161.29 Y132.65
G1 F3480 X160.41 Y131.77 E537.61836
G0 F6000 X159.70 Y131.77
G1 F3480 X160.58 Y132.65 E537.67046
G0 F6000 X159.88 Y132.65
G1 F3480 X158.99 Y131.77 E537.72255
G0 F6000 X158.28 Y131.77
G1 F3480 X159.17 Y132.65 E537.77464
G0 F6000 X158.46 Y132.65
G1 F3480 X157.58 Y131.77 E537.82674
G0 F6000 X156.87 Y131.77
G1 F3480 X157.75 Y132.65 E537.87883
G0 F6000 X157.05 Y132.65
G1 F3480 X156.16 Y131.77 E537.93092
G0 F6000 X156.75 Y132.00
G1 F3480 X161.30 Y136.55 E538.19827
G0 F6000 X163.97 Y136.55
G1 F3480 X166.82 Y133.69 E538.36613
G0 F6000 X164.83 Y132.65
G1 F3480 X163.94 Y131.77 E538.41823
G0 F6000 X163.82 Y132.00
G1 F3480 X168.37 Y136.55 E538.68557
G0 F6000 X170.64 Y137.34
G0 X171.42 Y139.60
G1 F3480 X173.57 Y141.75 E538.81201
G0 F6000 X173.57 Y141.09
G1 F3480 X171.42 Y143.24 E538.93845
G0 F6000 X170.64 Y137.34
G0 X164.12 Y132.65
G1 F3480 X163.23 Y131.77 E538.99055
G0 F6000 X162.53 Y131.77
G1 F3480 X163.41 Y132.65 E539.04264
G0 F6000 X162.71 Y132.65
G1 F3480 X161.82 Y131.77 E539.09473
G0 F6000 X156.34 Y132.65
G1 F3480 X155.46 Y131.77 E539.14683
G0 F6000 X154.75 Y131.77
G1 F3480 X155.63 Y132.65 E539.19892
G0 F6000 X154.93 Y132.65
G1 F3480 X154.04 Y131.77 E539.25101
G0 F6000 X154.38 Y132.00
G1 F3480 X149.83 Y136.55 E539.51842
G0 F6000 X147.16 Y136.55
G1 F3480 X142.61 Y132.00 E539.78577
G0 F6000 X142.73 Y131.77
G1 F3480 X143.61 Y132.65 E539.83786
G0 F6000 X142.91 Y132.65
G1 F3480 X142.02 Y131.77 E539.88995
G0 F6000 X141.31 Y131.77
G1 F3480 X142.20 Y132.65 E539.94205
G0 F6000 X141.49 Y132.65
G1 F3480 X140.61 Y131.77 E539.99414
G0 F6000 X140.23 Y132.00
G1 F3480 X136.42 Y135.81 E540.21809
G0 F6000 X137.25 Y132.65
G1 F3480 X136.36 Y131.77 E540.27019
G0 F6000 X137.07 Y131.77
G1 F3480 X137.96 Y132.65 E540.32228
G0 F6000 X138.66 Y132.65
G1 F3480 X137.78 Y131.77 E540.37437
G0 F6000 X138.48 Y131.77
G1 F3480 X139.37 Y132.65 E540.42647
G0 F6000 X140.08 Y132.65
G1 F3480 X139.19 Y131.77 E540.47856
G0 F6000 X139.90 Y131.77
G1 F3480 X140.78 Y132.65 E540.53065
G0 F6000 X143.43 Y131.77
G1 F3480 X144.32 Y132.65 E540.58275
G0 F6000 X145.03 Y132.65
G1 F3480 X144.14 Y131.77 E540.63484
G0 F6000 X144.85 Y131.77
G1 F3480 X145.73 Y132.65 E540.68693
G0 F6000 X146.44 Y132.65
G1 F3480 X145.56 Y131.77 E540.73903
G0 F6000 X146.26 Y131.77
G1 F3480 X147.15 Y132.65 E540.79112
G0 F6000 X149.80 Y131.77
G1 F3480 X150.68 Y132.65 E540.84321
G0 F6000 X151.39 Y132.65
G1 F3480 X150.50 Y131.77 E540.89531
G0 F6000 X151.21 Y131.77
G1 F3480 X152.10 Y132.65 E540.94740
G0 F6000 X152.81 Y132.65
G1 F3480 X151.92 Y131.77 E540.99949
G0 F6000 X152.63 Y131.77
G1 F3480 X153.51 Y132.65 E541.05159
G0 F6000 X154.22 Y132.65
G1 F3480 X153.33 Y131.77 E541.10368
G0 F6000 X139.36 Y137.34
G0 X138.57 Y140.73
G1 F3480 X136.42 Y142.88 E541.23009
G0 F6000 X138.57 Y142.11
G1 F3480 X136.42 Y139.96 E541.35653
G0 F6000 X136.42 Y147.03
G1 F3480 X138.57 Y149.18 E541.48298
G0 F6000 X138.57 Y147.80
G1 F3480 X136.42 Y149.95 E541.60939
G0 F6000 X136.07 Y150.56
G1 F3480 X136.32 Y150.82 E541.62441
G0 F6000 X135.81 Y150.56
G1 F3480 X135.00 Y151.38 E541.67239
G0 F6000 X134.76 Y151.38
G1 F3480 X133.95 Y150.57 E541.72031
G0 F6000 X134.66 Y150.57
G1 F3480 X135.47 Y151.38 E541.76822
G0 F6000 X136.18 Y151.38
G1 F3480 X135.36 Y150.56 E541.81620
G0 F6000 X134.06 Y151.38
G1 F3480 X133.24 Y150.57 E541.86409
G0 F6000 X132.89 Y150.57
G1 F3480 X133.70 Y151.38 E541.91189
G0 F6000 X133.35 Y151.38
G1 F3480 X132.54 Y150.57 E541.95969
G0 F6000 X131.83 Y150.57
G1 F3480 X132.64 Y151.38 E542.00750
G0 F6000 X131.94 Y151.38
G1 F3480 X131.42 Y150.87 E542.03751
G0 F6000 X135.64 Y152.17
G0 X136.42 Y154.10
G1 F3480 X138.57 Y156.25 E542.16392
G0 F6000 X138.57 Y154.87
G1 F3480 X136.42 Y157.02 E542.29033
G0 F6000 X136.42 Y161.17
G1 F3480 X138.57 Y163.32 E542.41675
G0 F6000 X138.57 Y161.94
G1 F3480 X136.42 Y164.09 E542.54316
G0 F6000 X136.42 Y168.24
G1 F3480 X138.36 Y170.18 E542.65705
G0 F6000 X138.57 Y170.04
G1 F3480 X137.83 Y169.30 E542.70085
G0 F6000 X137.12 Y169.30
G1 F3480 X138.01 Y170.18 E542.75288
G0 F6000 X137.41 Y170.18
G1 F3480 X138.57 Y169.02 E542.82141
G0 F6000 X137.30 Y170.18
G1 F3480 X136.42 Y169.31 E542.87295
G0 F6000 X135.78 Y169.37
G1 F3480 X136.59 Y170.18 E542.92087
G0 F6000 X135.89 Y170.18
G1 F3480 X135.07 Y169.37 E542.96878
G0 F6000 X134.36 Y169.37
G1 F3480 X135.18 Y170.18 E543.01670
G0 F6000 X134.47 Y170.18
G1 F3480 X133.66 Y169.37 E543.06462
G0 F6000 X132.95 Y169.37
G1 F3480 X133.76 Y170.18 E543.11254
G0 F6000 X133.06 Y170.18
G1 F3480 X132.28 Y169.40 E543.15858
G0 F6000 X131.92 Y169.75
G1 F3480 X132.35 Y170.18 E543.18380
;LAYER:7
G0 F6000 X132.63 Y170.40 Z1.70
;TYPE:WALL-INNER
G1 F3420 X131.25 Y170.40 E543.24105
G1 X131.25 Y170.17 E543.25053
G1 X132.28 Y169.15 E543.31080
G1 X136.25 Y169.15 E543.47593
G1 X136.25 Y151.60 E544.20554
G1 X131.25 Y151.60 E544.41341
G1 X131.25 Y150.35 E544.46538
G1 X136.25 Y150.35 E544.67326
G1 X136.25 Y132.80 E545.40282
G1 X131.25 Y132.80 E545.61069
G1 X131.25 Y131.55 E545.66262
G1 X164.33 Y131.55 E547.03776
G1 X173.75 Y138.15 E547.51607
G1 X173.75 Y146.73 E547.87266
G1 X171.25 Y146.73 E547.97660
G1 X171.25 Y136.73 E548.39235
G1 X138.75 Y136.73 E549.74354
G1 X138.75 Y170.40 E551.14355
G1 X132.63 Y170.40 E551.39803
G0 F6000 X132.63 Y170.90
G1 F3420 X131.10 Y170.90 E551.46155
G1 X131.10 Y173.97 E551.58932
G1 X130.80 Y173.97 E551.60187
G1 X130.80 Y170.91 E551.72909
G1 X130.75 Y170.91 E551.73113
G1 X130.75 Y170.07 E551.76601
G1 X130.75 Y169.97 E551.77050
G1 X132.07 Y168.65 E551.84799
G1 X135.75 Y168.65 E552.00095
G1 X135.75 Y152.10 E552.68898
G1 X130.75 Y152.10 E552.89685
G1 X130.75 Y149.85 E552.99040
G1 X135.75 Y149.85 E553.19827
G1 X135.75 Y133.30 E553.88626
G1 X130.75 Y133.30 E554.09413
G1 X130.75 Y131.05 E554.18764
G1 X164.48 Y131.05 E555.59013
G1 X174.25 Y137.89 E556.08579
G1 X174.25 Y147.23 E556.47402
G1 X170.75 Y147.23 E556.61953
G1 X170.75 Y137.23 E557.03528
G1 X139.25 Y137.23 E558.34490
G1 X139.25 Y170.90 E559.74490
G1 X132.63 Y170.90 E560.02013
G0 F6000 X131.60 Y171.40
;TYPE:WALL-OUTER
G1 F3420 X131.60 Y174.47 E560.14793
G1 X130.30 Y174.47 E560.20202
G1 X130.30 Y171.41 E560.32966
G1 X130.25 Y171.40 E560.33170
G1 X130.25 Y169.76 E560.40000
G1 X131.87 Y168.15 E560.49478
G1 X135.25 Y168.15 E560.63552
G1 X135.25 Y152.60 E561.28197
G1 X130.25 Y152.60 E561.48984
G1 X130.25 Y149.35 E561.62496
G1 X135.25 Y149.35 E561.83284
G1 X135.25 Y133.80 E562.47925
G1 X130.25 Y133.80 E562.68713
G1 X130.25 Y130.55 E562.82220
G1 X164.64 Y130.55 E564.25202
G1 X174.75 Y137.63 E564.76508
G1 X174.75 Y147.73 E565.18490
G1 X170.25 Y147.73 E565.37199
G1 X170.25 Y137.73 E565.78774
G1 X139.75 Y137.73 E567.05579
G1 X139.75 Y171.40 E568.45579
G1 X131.60 Y171.40 E568.79454
G0 F6000 X132.06 Y170.23
;TYPE:FILL
G1 F3420 X132.97 Y169.32 E568.84766
G0 F6000 X133.67 Y169.32
G1 F3420 X132.77 Y170.23 E568.90079
G0 F6000 X133.48 Y170.23
G1 F3420 X134.38 Y169.32 E568.95385
G0 F6000 X135.09 Y169.32
G1 F3420 X134.18 Y170.23 E569.00691
G0 F6000 X134.89 Y170.23
G1 F3420 X135.79 Y169.32 E569.05998
G0 F6000 X136.32 Y169.50
G1 F3420 X135.60 Y170.22 E569.10272
G0 F6000 X136.31 Y170.22
G1 F3420 X136.96 Y169.92 E569.13867
G1 X137.67 Y169.92 E569.17447
G1 X138.45 Y169.84 E569.21028
G1 X138.43 Y170.22 E569.22607
G0 F6000 X138.40 Y170.22
G1 F3420 X136.42 Y168.24 E569.34246
G0 F6000 X137.37 Y170.22
G1 F3420 X138.57 Y169.02 E569.41349
G0 F6000 X136.42 Y164.09
G1 F3420 X138.57 Y161.94 E569.53990
G0 F6000 X138.57 Y163.32
G1 F3420 X136.42 Y161.17 E569.66634
G0 F6000 X136.42 Y157.02
G1 F3420 X138.57 Y154.87 E569.79275
G0 F6000 X138.57 Y156.25
G1 F3420 X136.42 Y154.10 E569.91919
G0 F6000 X136.01 Y151.43
G1 F3420 X136.32 Y151.11 E569.93748
G0 F6000 X136.21 Y150.52
G1 F3420 X135.31 Y151.43 E569.99051
G0 F6000 X134.95 Y151.43
G1 F3420 X135.85 Y150.52 E570.04358
G0 F6000 X135.50 Y150.52
G1 F3420 X134.60 Y151.43 E570.09661
G0 F6000 X133.89 Y151.43
G1 F3420 X134.79 Y150.52 E570.14964
G0 F6000 X134.09 Y150.52
G1 F3420 X133.18 Y151.43 E570.20271
G0 F6000 X133.75 Y151.42
G1 F3420 X132.85 Y150.52 E570.25568
G0 F6000 X132.67 Y150.52
G1 F3420 X131.77 Y151.43 E570.30875
G0 F6000 X131.42 Y151.06
G1 F3420 X131.97 Y150.52 E570.34056
G0 F6000 X132.48 Y151.43
G1 F3420 X133.38 Y150.52 E570.39362
G0 F6000 X136.42 Y149.95
G1 F3420 X138.57 Y147.80 E570.52003
G0 F6000 X138.57 Y149.18
G1 F3420 X136.42 Y147.03 E570.64650
G0 F6000 X136.42 Y142.88
G1 F3420 X138.57 Y140.73 E570.77291
G0 F6000 X138.57 Y142.11
G1 F3420 X136.42 Y139.96 E570.89938
G0 F6000 X136.42 Y135.81
G1 F3420 X140.51 Y131.72 E571.13968
G0 F6000 X140.86 Y131.72
G1 F3420 X140.21 Y132.03 E571.17563
G1 X139.50 Y132.03 E571.21155
G1 X138.79 Y132.03 E571.24747
G1 X138.08 Y132.03 E571.28338
G1 X137.38 Y132.03 E571.31930
G1 X136.72 Y132.34 E571.34951
G0 F6000 X136.62 Y131.72
G1 F3420 X135.72 Y132.63 E571.40254
G0 F6000 X136.16 Y132.62
G1 F3420 X135.26 Y131.72 E571.45546
G0 F6000 X135.21 Y131.72
G1 F3420 X134.31 Y132.62 E571.50843
G0 F6000 X135.01 Y132.63
G1 F3420 X135.91 Y131.72 E571.56147
G0 F6000 X136.42 Y132.89
G1 F3420 X140.09 Y136.55 E571.77678
G0 F6000 X142.75 Y136.55
G1 F3420 X147.58 Y131.72 E572.06059
G0 F6000 X147.94 Y131.72
G1 F3420 X147.28 Y132.03 E572.09653
G1 X146.57 Y132.03 E572.13245
G1 X145.86 Y132.03 E572.16837
G1 X145.15 Y132.03 E572.20428
G1 X144.45 Y132.03 E572.24020
G1 X143.74 Y132.03 E572.27612
G1 X143.03 Y132.03 E572.31204
G1 X142.37 Y132.34 E572.34225
G0 F6000 X142.33 Y131.72
G1 F3420 X147.16 Y136.55 E572.62600
G0 F6000 X149.83 Y136.55
G1 F3420 X154.65 Y131.72 E572.90981
G0 F6000 X155.01 Y131.72
G1 F3420 X154.35 Y132.03 E572.94567
G1 X153.64 Y132.03 E572.98159
G1 X152.93 Y132.03 E573.01751
G1 X152.23 Y132.03 E573.05343
G1 X151.52 Y132.03 E573.08935
G1 X150.81 Y132.03 E573.12527
G1 X150.10 Y132.03 E573.16118
G1 X149.44 Y132.34 E573.19139
G0 F6000 X149.40 Y131.72
G1 F3420 X154.23 Y136.55 E573.47514
G0 F6000 X156.90 Y136.55
G1 F3420 X161.72 Y131.72 E573.75895
G0 F6000 X162.08 Y131.72
G1 F3420 X161.42 Y132.03 E573.79486
G1 X160.71 Y132.03 E573.83072
G1 X160.00 Y132.03 E573.86664
G1 X159.30 Y132.03 E573.90256
G1 X158.59 Y132.03 E573.93847
G1 X157.88 Y132.03 E573.97439
G1 X157.18 Y132.03 E574.01031
G1 X156.52 Y132.34 E574.04052
G0 F6000 X156.47 Y131.72
G1 F3420 X161.30 Y136.55 E574.32427
G0 F6000 X163.97 Y136.55
G1 F3420 X166.93 Y133.59 E574.49851
G0 F6000 X164.64 Y131.99
G1 F3420 X164.25 Y132.03 E574.51900
G1 X163.59 Y132.34 E574.54921
G0 F6000 X163.54 Y131.72
G1 F3420 X168.37 Y136.55 E574.83296
G0 F6000 X170.64 Y137.34
G0 X171.42 Y139.60
G1 F3420 X173.57 Y141.75 E574.95940
G0 F6000 X173.57 Y141.09
G1 F3420 X171.42 Y143.24 E575.08578
G0 F6000 X170.64 Y137.34
G0 X162.88 Y132.34
G1 F3420 X163.14 Y131.72 E575.12172
G1 X162.17 Y132.34 E575.16917
G0 F6000 X156.42 Y131.72
G1 F3420 X155.76 Y132.03 E575.20509
G1 X155.10 Y132.34 E575.23530
G0 F6000 X149.35 Y131.72
G1 F3420 X148.69 Y132.03 E575.27123
G1 X148.03 Y132.34 E575.30144
G0 F6000 X142.28 Y131.72
G1 F3420 X141.62 Y132.03 E575.33737
G1 X140.96 Y132.34 E575.36758
G0 F6000 X134.50 Y131.72
G1 F3420 X133.60 Y132.62 E575.42053
G0 F6000 X132.89 Y132.62
G1 F3420 X133.79 Y131.72 E575.47344
G0 F6000 X133.44 Y131.72
G1 F3420 X132.54 Y132.62 E575.52636
G0 F6000 X132.19 Y132.62
G1 F3420 X133.09 Y131.72 E575.57928
G0 F6000 X132.38 Y131.72
G1 F3420 X131.48 Y132.62 E575.63219
G0 F6000 X131.42 Y131.97
G1 F3420 X131.67 Y131.72 E575.64677
;LAYER:8
G0 F6000 X131.25 Y131.53 Z1.90
;TYPE:WALL-INNER
G1 F3540 X164.29 Y131.53 E577.02058
G1 X173.75 Y138.15 E577.50051
G1 X173.75 Y146.73 E577.85710
G1 X171.25 Y146.73 E577.96104
G1 X171.25 Y136.73 E578.37679
G1 X138.75 Y136.73 E579.72798
G1 X138.75 Y170.42 E581.12890
G1 X137.30 Y170.42 E581.18918
G1 X131.25 Y170.42 E581.44063
G1 X131.25 Y170.17 E581.45094
G1 X132.30 Y169.13 E581.51250
G1 X134.46 Y169.13 E581.60218
G1 X136.25 Y169.13 E581.67672
G1 X136.25 Y151.62 E582.40462
G1 X131.25 Y151.62 E582.61250
G1 X131.25 Y150.33 E582.66625
G1 X136.25 Y150.33 E582.87413
G1 X136.25 Y132.82 E583.60190
G1 X131.25 Y132.82 E583.80978
G1 X131.25 Y131.53 E583.86358
G0 F6000 X130.75 Y131.03
G1 F3540 X164.45 Y131.03 E585.26470
G1 X174.25 Y137.89 E585.76201
G1 X174.25 Y147.23 E586.15023
G1 X170.75 Y147.23 E586.29575
G1 X170.75 Y137.23 E586.71150
G1 X139.25 Y137.23 E588.02112
G1 X139.25 Y170.92 E589.42203
G1 X131.15 Y170.92 E589.75900
G1 X131.15 Y173.97 E589.88597
G1 X130.75 Y173.97 E589.90223
G1 X130.75 Y172.69 E589.95578
G1 X130.75 Y171.67 E589.99789
G1 X130.75 Y171.11 E590.02151
G1 X130.75 Y170.59 E590.04275
G1 X130.75 Y170.04 E590.06599
G1 X130.75 Y169.97 E590.06886
G1 X131.31 Y169.41 E590.10158
G1 X131.67 Y169.05 E590.12292
G1 X132.09 Y168.63 E590.14765
G1 X134.46 Y168.63 E590.24597
G1 X135.75 Y168.63 E590.29969
G1 X135.75 Y152.12 E590.98597
G1 X130.75 Y152.12 E591.19385
G1 X130.75 Y149.83 E591.28914
G1 X135.75 Y149.83 E591.49701
G1 X135.75 Y133.32 E592.18321
G1 X130.75 Y133.32 E592.39109
G1 X130.75 Y131.03 E592.48642
G0 F6000 X130.25 Y130.53
;TYPE:WALL-OUTER
G1 F3540 X164.61 Y130.53 E593.91490
G1 X174.75 Y137.63 E594.42957
G1 X174.75 Y147.73 E594.84940
G1 X170.25 Y147.73 E595.03649
G1 X170.25 Y137.73 E595.45224
G1 X139.75 Y137.73 E596.72028
G1 X139.75 Y171.42 E598.12120
G1 X131.65 Y171.42 E598.45817
G1 X131.65 Y174.47 E598.58510
G1 X130.26 Y174.47 E598.64284
G1 X130.25 Y171.67 E598.75938
G1 X130.25 Y169.76 E598.83883
G1 X131.89 Y168.13 E598.93490
G1 X135.25 Y168.13 E599.07472
G1 X135.25 Y152.62 E599.71938
G1 X130.25 Y152.62 E599.92726
G1 X130.25 Y149.33 E600.06413
G1 X135.25 Y149.33 E600.27200
G1 X135.25 Y133.82 E600.91662
G1 X130.25 Y133.82 E601.12450
G1 X130.25 Y130.53 E601.26141
G0 F6000 X130.60 Y130.79
G0 X131.42 Y131.78
;TYPE:FILL
G1 F3540 X131.82 Y132.18 E601.28120
G1 X132.29 Y132.65 E601.30892
G0 F6000 X132.52 Y132.65
G1 F3540 X133.46 Y131.70 E601.36449
G0 F6000 X133.47 Y131.70
G1 F3540 X133.94 Y132.18 E601.38866
G1 X134.56 Y132.44 E601.41278
G1 X135.27 Y132.44 E601.43689
G1 X135.83 Y132.65 E601.46164
G0 F6000 X136.18 Y132.65
G1 F3540 X135.24 Y131.70 E601.51714
G0 F6000 X135.59 Y131.70
G1 F3540 X136.06 Y132.18 E601.54134
G1 X136.32 Y132.44 E601.55663
G0 F6000 X136.42 Y132.89
G1 F3540 X140.09 Y136.55 E601.77194
G0 F6000 X142.75 Y136.55
G1 F3540 X147.60 Y131.70 E602.05704
G0 F6000 X147.61 Y131.70
G1 F3540 X148.17 Y131.91 E602.08127
G1 X148.88 Y131.91 E602.10543
G1 X149.44 Y132.12 E602.13024
G0 F6000 X149.38 Y131.70
G1 F3540 X154.23 Y136.55 E602.41522
G0 F6000 X156.90 Y136.55
G1 F3540 X161.75 Y131.70 E602.70032
G0 F6000 X161.75 Y131.70
G1 F3540 X162.31 Y131.91 E602.72455
G1 X163.02 Y131.91 E602.74871
G1 X163.58 Y132.12 E602.77352
G0 F6000 X163.52 Y131.70
G1 F3540 X168.37 Y136.55 E603.05850
G0 F6000 X166.93 Y133.59
G1 F3540 X163.97 Y136.55 E603.23271
G0 F6000 X161.30 Y136.55
G1 F3540 X156.45 Y131.70 E603.51770
G0 F6000 X156.81 Y131.70
G1 F3540 X157.36 Y131.91 E603.54192
G1 X158.07 Y131.91 E603.56612
G1 X158.78 Y131.91 E603.59022
G1 X159.49 Y131.91 E603.61432
G1 X160.19 Y131.91 E603.63843
G1 X160.90 Y131.91 E603.66253
G1 X161.46 Y132.12 E603.68734
G0 F6000 X163.88 Y131.70
G1 F3540 X164.29 Y132.12 E603.71156
G0 F6000 X156.51 Y132.12
G1 F3540 X155.95 Y131.91 E603.73577
G1 X155.24 Y131.91 E603.75993
G1 X154.68 Y131.70 E603.78470
G0 F6000 X154.68 Y131.70
G1 F3540 X149.83 Y136.55 E604.06981
G0 F6000 X147.16 Y136.55
G1 F3540 X142.31 Y131.70 E604.35479
G0 F6000 X142.66 Y131.70
G1 F3540 X143.22 Y131.91 E604.37901
G1 X143.93 Y131.91 E604.40318
G1 X144.64 Y131.91 E604.42737
G1 X145.34 Y131.91 E604.45147
G1 X146.05 Y131.91 E604.47558
G1 X146.76 Y131.91 E604.49968
G1 X147.32 Y132.12 E604.52445
G0 F6000 X149.73 Y131.70
G1 F3540 X150.29 Y131.91 E604.54867
G1 X151.00 Y131.91 E604.57287
G1 X151.71 Y131.91 E604.59697
G1 X152.41 Y131.91 E604.62107
G1 X153.12 Y131.91 E604.64518
G1 X153.83 Y131.91 E604.66928
G1 X154.39 Y132.12 E604.69405
G0 F6000 X142.37 Y132.12
G1 F3540 X141.81 Y131.91 E604.71826
G1 X141.10 Y131.91 E604.74242
G1 X140.54 Y131.70 E604.76719
G0 F6000 X140.53 Y131.70
G1 F3540 X136.42 Y135.81 E605.00878
G0 F6000 X136.71 Y132.12
G1 F3540 X136.65 Y131.70 E605.03297
G1 X137.56 Y131.91 E605.05718
G1 X138.27 Y131.91 E605.08137
G1 X138.98 Y131.91 E605.10547
G1 X139.69 Y131.91 E605.12958
G1 X140.25 Y132.12 E605.15435
G0 F6000 X135.30 Y132.12
G1 F3540 X134.74 Y131.91 E605.17856
G1 X134.18 Y131.70 E605.20333
G0 F6000 X133.30 Y132.24
G1 F3540 X133.35 Y132.65 E605.22749
G1 X132.53 Y132.18 E605.25158
G1 X132.41 Y131.70 E605.27573
G1 X133.18 Y132.12 E605.31186
G0 F6000 X131.59 Y132.65
G1 F3540 X131.42 Y132.49 E605.32135
G0 F6000 X135.64 Y133.43
G0 X136.42 Y139.96
G1 F3540 X138.57 Y142.11 E605.44782
G0 F6000 X138.57 Y140.73
G1 F3540 X136.42 Y142.88 E605.57423
G0 F6000 X136.42 Y147.03
G1 F3540 X138.57 Y149.18 E605.70071
G0 F6000 X138.57 Y147.80
G1 F3540 X136.42 Y149.95 E605.82712
G0 F6000 X136.01 Y150.50
G1 F3540 X136.08 Y150.93 E605.84576
G1 X135.89 Y151.45 E605.86988
G1 X135.06 Y150.97 E605.89402
G1 X134.44 Y150.71 E605.91809
G1 X133.74 Y150.71 E605.94216
G1 X133.18 Y150.50 E605.96691
G0 F6000 X132.82 Y150.50
G1 F3540 X133.77 Y151.45 E606.02238
G0 F6000 X134.12 Y151.45
G1 F3540 X133.56 Y151.24 E606.04651
G1 X132.94 Y150.97 E606.07060
G1 X132.32 Y150.71 E606.09473
G1 X131.68 Y150.77 E606.11891
G1 X132.15 Y151.24 E606.14302
G1 X132.71 Y151.45 E606.16779
G0 F6000 X134.42 Y151.03
G1 F3540 X134.83 Y151.45 E606.19193
G0 F6000 X134.93 Y151.45
G1 F3540 X135.88 Y150.50 E606.24746
G0 F6000 X135.71 Y150.91
G1 F3540 X135.30 Y150.50 E606.27160
G0 F6000 X136.42 Y154.10
G1 F3540 X138.57 Y156.25 E606.39804
G0 F6000 X138.57 Y154.87
G1 F3540 X136.42 Y157.02 E606.52445
G0 F6000 X136.42 Y161.17
G1 F3540 X138.57 Y163.32 E606.65089
G0 F6000 X138.57 Y161.94
G1 F3540 X136.42 Y164.09 E606.77730
G0 F6000 X136.42 Y168.24
G1 F3540 X138.43 Y170.25 E606.89501
G0 F6000 X138.57 Y170.04
G1 F3540 X138.22 Y170.04 E606.90714
G1 X137.51 Y170.04 E606.93137
G1 X136.81 Y170.04 E606.95556
G1 X136.20 Y169.79 E606.97977
G1 X135.57 Y169.51 E607.00547
G1 X134.86 Y169.51 E607.03020
G1 X134.15 Y169.51 E607.05422
G1 X133.44 Y169.51 E607.07832
G1 X132.74 Y169.51 E607.10251
G1 X132.14 Y169.62 E607.12101
G1 X132.56 Y170.04 E607.14519
G1 X133.27 Y170.04 E607.16936
G1 X133.98 Y170.04 E607.19352
G1 X134.68 Y170.04 E607.21768
G1 X135.39 Y170.04 E607.24184
G1 X135.95 Y170.25 E607.26665
G0 F6000 X137.34 Y170.25
G1 F3540 X138.57 Y169.02 E607.33897
G0 F6000 X131.71 Y170.25
G1 F3540 X131.57 Y170.10 E607.34726
G0 F6000 X130.65 Y174.08
G0 X131.25 Y171.03
G0 X139.36 Y171.03
G0 X139.36 Y137.34
G0 X170.64 Y137.34
G0 X171.42 Y143.24
G1 F3540 X173.57 Y141.09 E607.47364
G0 F6000 X173.57 Y141.75
G1 F3540 X171.42 Y139.60 E607.60008
;LAYER:9
G0 F6000 X173.75 Y138.15 Z2.10
;TYPE:WALL-INNER
G1 F3420 X173.75 Y146.73 E607.95667
G1 X171.25 Y146.73 E608.06061
G1 X171.25 Y136.73 E608.47636
G1 X138.75 Y136.73 E609.82755
G1 X138.75 Y170.42 E611.22843
G1 X133.18 Y170.42 E611.46009
G1 X131.25 Y170.42 E611.54012
G1 X131.25 Y170.17 E611.55035
G1 X131.68 Y169.75 E611.57525
G1 X132.07 Y169.36 E611.59826
G1 X132.30 Y169.13 E611.61185
G1 X134.49 Y169.13 E611.70285
G1 X136.25 Y169.13 E611.77611
G1 X136.25 Y151.62 E612.50405
G1 X131.25 Y151.62 E612.71193
G1 X131.25 Y150.33 E612.76572
G1 X134.21 Y150.33 E612.88862
G1 X136.25 Y150.33 E612.97360
G1 X136.25 Y132.82 E613.70154
G1 X131.25 Y132.82 E613.90942
G1 X131.25 Y131.53 E613.96326
G1 X164.30 Y131.53 E615.33715
G1 X173.75 Y138.15 E615.81698
G0 F6000 X174.25 Y137.89
G1 F3420 X174.25 Y147.23 E616.20521
G1 X170.75 Y147.23 E616.35072
G1 X170.75 Y137.23 E616.76648
G1 X139.25 Y137.23 E618.07609
G1 X139.25 Y170.92 E619.47697
G1 X131.14 Y170.92 E619.81398
G1 X131.15 Y173.76 E619.93188
G1 X131.15 Y173.97 E619.94095
G1 X130.75 Y173.97 E619.95716
G1 X130.75 Y172.64 E620.01279
G1 X130.75 Y171.67 E620.05283
G1 X130.75 Y171.14 E620.07494
G1 X130.75 Y170.57 E620.09868
G1 X130.75 Y169.97 E620.12384
G1 X132.09 Y168.63 E620.20251
G1 X134.49 Y168.63 E620.30220
G1 X135.75 Y168.63 E620.35463
G1 X135.75 Y152.12 E621.04095
G1 X130.75 Y152.12 E621.24883
G1 X130.75 Y149.83 E621.34420
G1 X135.75 Y149.83 E621.55208
G1 X135.75 Y133.32 E622.23836
G1 X130.75 Y133.32 E622.44624
G1 X130.75 Y131.03 E622.54165
G1 X164.45 Y131.03 E623.94290
G1 X174.25 Y137.89 E624.44008
G0 F6000 X174.75 Y137.63
;TYPE:WALL-OUTER
G1 F3420 X174.75 Y147.73 E624.85991
G1 X170.25 Y147.73 E625.04699
G1 X170.25 Y137.73 E625.46275
G1 X139.75 Y137.73 E626.73079
G1 X139.75 Y171.42 E628.13166
G1 X131.64 Y171.42 E628.46867
G1 X131.64 Y174.47 E628.59564
G1 X130.26 Y174.47 E628.65335
G1 X130.25 Y171.67 E628.76988
G1 X130.25 Y169.76 E628.84938
G1 X131.89 Y168.13 E628.94536
G1 X135.25 Y168.13 E629.08522
G1 X135.25 Y152.62 E629.72993
G1 X130.25 Y152.62 E629.93780
G1 X130.25 Y149.33 E630.07475
G1 X135.25 Y149.33 E630.28263
G1 X135.25 Y133.82 E630.92733
G1 X130.25 Y133.82 E631.13521
G1 X130.25 Y130.53 E631.27220
G1 X164.61 Y130.53 E632.70076
G1 X174.75 Y137.63 E633.21535
G0 F6000 X174.40 Y137.77
G0 X173.57 Y141.09
;TYPE:FILL
G1 F3420 X171.42 Y143.24 E633.34173
G0 F6000 X173.57 Y141.75
G1 F3420 X171.42 Y139.60 E633.46817
G0 F6000 X170.64 Y137.34
G0 X168.37 Y136.55
G1 F3420 X163.52 Y131.70 E633.75316
G0 F6000 X163.51 Y131.70
G1 F3420 X162.95 Y131.91 E633.77742
G1 X162.25 Y131.91 E633.80167
G1 X161.69 Y132.12 E633.82645
G0 F6000 X161.75 Y131.70
G1 F3420 X156.90 Y136.55 E634.11156
G0 F6000 X154.23 Y136.55
G1 F3420 X149.38 Y131.70 E634.39654
G0 F6000 X149.37 Y131.70
G1 F3420 X148.81 Y131.91 E634.42084
G1 X148.10 Y131.91 E634.44506
G1 X147.54 Y132.12 E634.46988
G0 F6000 X147.60 Y131.70
G1 F3420 X142.75 Y136.55 E634.75502
G0 F6000 X140.09 Y136.55
G1 F3420 X136.42 Y132.89 E634.97033
G0 F6000 X136.18 Y132.65
G1 F3420 X135.24 Y131.70 E635.02583
G0 F6000 X135.23 Y131.70
G1 F3420 X134.76 Y132.17 E635.05011
G1 X134.14 Y132.44 E635.07435
G1 X133.43 Y132.44 E635.09863
G1 X132.87 Y132.65 E635.12346
G0 F6000 X132.52 Y132.65
G1 F3420 X133.46 Y131.70 E635.17896
G0 F6000 X133.11 Y131.70
G1 F3420 X132.64 Y132.17 E635.20324
G1 X132.02 Y132.44 E635.22748
G1 X131.44 Y132.31 E635.25178
G1 X131.84 Y131.91 E635.26762
G1 X132.40 Y131.70 E635.29247
G0 F6000 X133.40 Y132.12
G1 F3420 X133.96 Y131.91 E635.31674
G1 X134.52 Y131.70 E635.34159
G0 F6000 X135.41 Y132.23
G1 F3420 X135.35 Y132.65 E635.36584
G1 X136.17 Y132.17 E635.39012
G1 X136.79 Y131.91 E635.41438
G1 X137.50 Y131.91 E635.43866
G1 X138.21 Y131.91 E635.46294
G1 X138.91 Y131.91 E635.48722
G1 X139.62 Y131.91 E635.51150
G1 X140.18 Y131.70 E635.53634
G0 F6000 X140.53 Y131.70
G1 F3420 X136.42 Y135.81 E635.77794
G0 F6000 X135.52 Y132.12
G1 F3420 X135.94 Y131.70 E635.80222
G0 F6000 X140.47 Y132.12
G1 F3420 X141.03 Y131.91 E635.82650
G1 X141.74 Y131.91 E635.85075
G1 X142.30 Y131.70 E635.87556
G0 F6000 X142.31 Y131.70
G1 F3420 X147.16 Y136.55 E636.16060
G0 F6000 X149.83 Y136.55
G1 F3420 X154.68 Y131.70 E636.44570
G0 F6000 X155.03 Y131.70
G1 F3420 X154.47 Y131.91 E636.46997
G1 X153.76 Y131.91 E636.49425
G1 X153.05 Y131.91 E636.51852
G1 X152.35 Y131.91 E636.54280
G1 X151.64 Y131.91 E636.56708
G1 X150.93 Y131.91 E636.59136
G1 X150.23 Y131.91 E636.61564
G1 X149.67 Y132.12 E636.64046
G0 F6000 X147.25 Y131.70
G1 F3420 X146.69 Y131.91 E636.66476
G1 X145.98 Y131.91 E636.68904
G1 X145.28 Y131.91 E636.71332
G1 X144.57 Y131.91 E636.73760
G1 X143.86 Y131.91 E636.76188
G1 X143.16 Y131.91 E636.78616
G1 X142.59 Y132.12 E636.81098
G0 F6000 X139.36 Y137.34
G0 X138.57 Y140.73
G1 F3420 X136.42 Y142.88 E636.93739
G0 F6000 X138.57 Y142.11
G1 F3420 X136.42 Y139.96 E637.06386
G0 F6000 X136.42 Y147.03
G1 F3420 X138.57 Y149.18 E637.19033
G0 F6000 X138.57 Y147.80
G1 F3420 X136.42 Y149.95 E637.31674
G0 F6000 X136.23 Y150.50
G1 F3420 X135.76 Y150.97 E637.34079
G1 X135.28 Y151.45 E637.36851
G0 F6000 X134.93 Y151.45
G1 F3420 X135.87 Y150.50 E637.42389
G0 F6000 X135.52 Y150.50
G1 F3420 X135.05 Y150.97 E637.44794
G1 X134.43 Y151.24 E637.47208
G1 X133.87 Y151.45 E637.49685
G0 F6000 X133.77 Y151.44
G1 F3420 X132.82 Y150.50 E637.55224
G0 F6000 X132.69 Y150.50
G1 F3420 X132.22 Y150.97 E637.57633
G1 X131.66 Y151.18 E637.60050
G1 X131.99 Y150.50 E637.63174
G0 F6000 X132.87 Y151.03
G1 F3420 X132.81 Y151.45 E637.65590
G1 X133.63 Y150.97 E637.68001
G1 X134.25 Y150.71 E637.70408
G1 X134.81 Y150.50 E637.72884
G0 F6000 X133.40 Y150.50
G1 F3420 X132.99 Y150.91 E637.75297
G0 F6000 X135.99 Y151.45
G1 F3420 X136.32 Y151.11 E637.77249
G0 F6000 X136.42 Y154.10
G1 F3420 X138.57 Y156.25 E637.89893
G0 F6000 X138.57 Y154.87
G1 F3420 X136.42 Y157.02 E638.02535
G0 F6000 X136.42 Y161.17
G1 F3420 X138.57 Y163.32 E638.15179
G0 F6000 X138.57 Y161.94
G1 F3420 X136.42 Y164.09 E638.27820
G0 F6000 X136.42 Y168.24
G1 F3420 X138.42 Y170.24 E638.39579
G0 F6000 X138.41 Y170.25
G1 F3420 X138.34 Y169.95 E638.40574
G1 X137.70 Y170.25 E638.43513
G0 F6000 X137.35 Y170.25
G1 F3420 X138.57 Y169.02 E638.50736
G0 F6000 X137.40 Y169.83
G1 F3420 X136.84 Y170.04 E638.53157
G1 X136.14 Y170.04 E638.55573
G1 X135.43 Y170.04 E638.57989
G1 X134.72 Y170.04 E638.60399
G1 X134.02 Y170.04 E638.62810
G1 X133.31 Y170.04 E638.65220
G1 X132.60 Y170.04 E638.67630
G1 X132.31 Y169.98 E638.70048
G1 X133.13 Y169.51 E638.72465
G1 X133.84 Y169.51 E638.74876
G1 X134.55 Y169.51 E638.77286
G1 X135.25 Y169.51 E638.79696
G1 X135.96 Y169.51 E638.82107
G1 X136.32 Y169.50 E638.83620
G0 F6000 X139.36 Y137.34
G0 X161.30 Y136.55
G1 F3420 X156.45 Y131.70 E639.12119
G0 F6000 X156.44 Y131.70
G1 F3420 X155.88 Y131.91 E639.14545
G1 X155.32 Y132.12 E639.17027
G0 F6000 X156.74 Y132.12
G1 F3420 X157.30 Y131.91 E639.19455
G1 X158.00 Y131.91 E639.21883
G1 X158.71 Y131.91 E639.24311
G1 X159.42 Y131.91 E639.26739
G1 X160.12 Y131.91 E639.29166
G1 X160.83 Y131.91 E639.31594
G1 X161.39 Y131.70 E639.34075
G0 F6000 X163.81 Y132.12
G1 F3420 X164.37 Y131.91 E639.36503
G1 X164.64 Y131.99 E639.37696
G0 F6000 X166.93 Y133.59
G1 F3420 X163.97 Y136.55 E639.55120
;LAYER:10
G0 F6000 X164.33 Y131.55 Z2.30
;TYPE:WALL-INNER
G1 F3540 X173.75 Y138.15 E640.02946
G1 X173.75 Y146.73 E640.38605
G1 X171.25 Y146.73 E640.48999
G1 X171.25 Y136.73 E640.90574
G1 X138.75 Y136.73 E642.25693
G1 X138.75 Y170.40 E643.65689
G1 X131.30 Y170.40 E643.96663
G1 X131.30 Y170.37 E643.96767
G1 X131.25 Y170.38 E643.96962
G1 X131.25 Y170.17 E643.97798
G1 X132.09 Y169.33 E644.02742
G1 X132.28 Y169.15 E644.03821
G1 X133.47 Y169.15 E644.08765
G1 X136.25 Y169.15 E644.20335
G1 X136.25 Y151.60 E644.93304
G1 X131.25 Y151.60 E645.14091
G1 X131.25 Y150.35 E645.19296
G1 X136.25 Y150.35 E645.40084
G1 X136.25 Y132.80 E646.13048
G1 X131.25 Y132.80 E646.33836
G1 X131.25 Y131.55 E646.39037
G1 X164.33 Y131.55 E647.76555
G0 F6000 X164.49 Y131.05
G1 F3540 X174.25 Y137.89 E648.26115
G1 X174.25 Y147.23 E648.64938
G1 X170.75 Y147.23 E648.79489
G1 X170.75 Y137.23 E649.21064
G1 X139.25 Y137.23 E650.52026
G1 X139.25 Y170.90 E651.92022
G1 X131.10 Y170.90 E652.25910
G1 X131.10 Y172.03 E652.30633
G1 X131.10 Y173.97 E652.38699
G1 X130.80 Y173.97 E652.39954
G1 X130.80 Y170.88 E652.52805
G1 X130.75 Y170.88 E652.53005
G1 X130.75 Y169.97 E652.56826
G1 X132.07 Y168.65 E652.64566
G1 X135.75 Y168.65 E652.79866
G1 X135.75 Y152.10 E653.48673
G1 X130.75 Y152.10 E653.69460
G1 X130.75 Y149.85 E653.78823
G1 X135.75 Y149.85 E653.99611
G1 X135.75 Y133.30 E654.68417
G1 X130.75 Y133.30 E654.89205
G1 X130.75 Y131.05 E654.98564
G1 X164.49 Y131.05 E656.38817
G0 F6000 X164.64 Y130.55
;TYPE:WALL-OUTER
G1 F3540 X174.75 Y137.63 E656.90118
G1 X174.75 Y147.73 E657.32100
G1 X170.25 Y147.73 E657.50809
G1 X170.25 Y137.73 E657.92384
G1 X139.75 Y137.73 E659.19189
G1 X139.75 Y171.40 E660.59185
G1 X131.60 Y171.40 E660.93069
G1 X131.60 Y174.47 E661.05857
G1 X130.30 Y174.47 E661.11266
G1 X130.30 Y171.39 E661.24075
G1 X130.25 Y171.40 E661.24279
G1 X130.25 Y169.76 E661.31077
G1 X131.86 Y168.15 E661.40546
G1 X135.25 Y168.15 E661.54623
G1 X135.25 Y152.60 E662.19272
G1 X130.25 Y152.60 E662.40060
G1 X130.25 Y149.35 E662.53580
G1 X135.25 Y149.35 E662.74368
G1 X135.25 Y133.80 E663.39017
G1 X130.25 Y133.80 E663.59805
G1 X130.25 Y130.55 E663.73321
G1 X164.64 Y130.55 E665.16306
G0 F6000 X163.90 Y131.73
;TYPE:FILL
G1 F3540 X164.16 Y132.34 E665.19893
G1 X163.19 Y131.73 E665.24632
G0 F6000 X163.55 Y131.73
G1 F3540 X168.37 Y136.55 E665.52995
G0 F6000 X166.93 Y133.59
G1 F3540 X163.97 Y136.55 E665.70417
G0 F6000 X161.30 Y136.55
G1 F3540 X156.47 Y131.73 E665.98783
G0 F6000 X156.12 Y131.73
G1 F3540 X156.78 Y132.03 E666.02365
G1 X157.49 Y132.03 E666.05945
G1 X158.19 Y132.03 E666.09525
G1 X158.90 Y132.03 E666.13105
G1 X159.61 Y132.03 E666.16691
G1 X160.31 Y132.03 E666.20277
G1 X161.02 Y132.03 E666.23857
G1 X161.68 Y132.34 E666.26876
G0 F6000 X161.72 Y131.72
G1 F3540 X156.90 Y136.55 E666.55251
G0 F6000 X154.23 Y136.55
G1 F3540 X149.40 Y131.73 E666.83617
G0 F6000 X149.05 Y131.73
G1 F3540 X149.71 Y132.03 E666.87199
G1 X150.41 Y132.03 E666.90779
G1 X151.12 Y132.03 E666.94359
G1 X151.83 Y132.03 E666.97940
G1 X152.54 Y132.03 E667.01520
G1 X153.24 Y132.03 E667.05105
G1 X153.95 Y132.03 E667.08691
G1 X154.61 Y132.34 E667.11710
G0 F6000 X154.65 Y131.72
G1 F3540 X149.83 Y136.55 E667.40085
G0 F6000 X147.16 Y136.55
G1 F3540 X142.33 Y131.72 E667.68454
G0 F6000 X142.69 Y131.72
G1 F3540 X143.34 Y132.03 E667.72047
G1 X144.05 Y132.03 E667.75639
G1 X144.76 Y132.03 E667.79231
G1 X145.47 Y132.03 E667.82823
G1 X146.17 Y132.03 E667.86414
G1 X146.88 Y132.03 E667.90006
G1 X147.54 Y132.34 E667.93026
G0 F6000 X147.58 Y131.72
G1 F3540 X142.75 Y136.55 E668.21407
G0 F6000 X140.09 Y136.55
G1 F3540 X136.42 Y132.89 E668.42935
G0 F6000 X136.16 Y132.62
G1 F3540 X135.26 Y131.72 E668.48221
G0 F6000 X135.61 Y131.72
G1 F3540 X136.32 Y132.44 E668.52396
G0 F6000 X135.81 Y132.62
G1 F3540 X134.91 Y131.72 E668.57681
G0 F6000 X134.20 Y131.72
G1 F3540 X135.10 Y132.62 E668.62967
G0 F6000 X134.39 Y132.62
G1 F3540 X133.49 Y131.72 E668.68253
G0 F6000 X133.44 Y131.72
G1 F3540 X132.54 Y132.62 E668.73551
G0 F6000 X132.27 Y132.62
G1 F3540 X131.42 Y131.78 E668.78528
G0 F6000 X132.08 Y131.72
G1 F3540 X132.98 Y132.62 E668.83813
G0 F6000 X133.69 Y132.62
G1 F3540 X132.79 Y131.72 E668.89099
G0 F6000 X131.56 Y132.62
G1 F3540 X131.42 Y132.49 E668.89919
G0 F6000 X136.32 Y131.72
G1 F3540 X136.98 Y132.03 E668.93512
G1 X137.69 Y132.03 E668.97104
G1 X138.39 Y132.03 E669.00696
G1 X139.10 Y132.03 E669.04282
G1 X139.81 Y132.03 E669.07873
G1 X140.47 Y132.34 E669.10894
G0 F6000 X140.51 Y131.72
G1 F3540 X136.42 Y135.81 E669.34924
G0 F6000 X136.42 Y139.96
G1 F3540 X138.57 Y142.11 E669.47565
G0 F6000 X138.57 Y140.73
G1 F3540 X136.42 Y142.88 E669.60206
G0 F6000 X136.42 Y147.03
G1 F3540 X138.57 Y149.18 E669.72847
G0 F6000 X138.57 Y147.80
