;-- START GCODE --
;Sliced for Type A Machines Series 1
;Sliced at: Wed 29-06-2016 18:17:54
;Basic settings: Layer height: 0.2 Walls: 1 Fill: 50
;Print Speed: 100 Support: 0
;Retraction Speed: 40 Retraction Distance: 1.2
;Print time: #P_TIME#
;Filament used: #F_AMNT#m #F_WGHT#g
;Filament cost: #F_COST#
M106 S255	 ;start with the fan on
G21        ;metric values
G90        ;absolute positioning
M106 S255    ;start with the fan on
G28     ;move to endstops
G29		;allows for auto-levelling
G1 X150 Y5  Z15.0 F6000 ;center and move the platform down 15mm
M109 S220 ;Heat To temp
G92 E0                  ;zero the extruded length
G1 F200 E30              ;extrude 30mm of feed stock
G92 E0                  ;zero the extruded length again
G1 X175 Y25  Z0 F6000 ;remove bugger
G1 X220 F6000 ;remove bugger
G1 X150 Y150  Z15 F6000 ;recenter and begin
G1 F6000

;Layer count: 140
;LAYER:0
M106 S255
G0 F6000 X127.25 Y131.25 Z0.30
;TYPE:SKIRT
G1 F2700 X177.75 Y131.25 E3.14932
G1 X177.75 Y173.75 E5.79974
G1 X127.25 Y173.75 E8.94906
G1 X127.25 Y131.25 E11.59947
G0 F6000 X127.75 Y131.75
G1 F2700 X177.25 Y131.75 E14.68643
G1 X177.25 Y173.25 E17.27448
G1 X127.75 Y173.25 E20.36144
G1 X127.75 Y131.75 E22.94949
G0 F6000 X128.25 Y132.25
G1 F2700 X176.75 Y132.25 E25.97409
G1 X176.75 Y172.75 E28.49978
G1 X128.25 Y172.75 E31.52437
G1 X128.25 Y132.25 E34.05006
G0 F6000 X128.75 Y132.75
G1 F2700 X176.25 Y132.75 E37.01229
G1 X176.25 Y172.25 E39.47562
G1 X128.75 Y172.25 E42.43785
G1 X128.75 Y132.75 E44.90118
G0 F6000 X129.25 Y133.25
G1 F2700 X175.75 Y133.25 E47.80105
G1 X175.75 Y171.75 E50.20202
G1 X129.25 Y171.75 E53.10188
G1 X129.25 Y133.25 E55.50285
G0 F6000 X129.75 Y133.75
G1 F2700 X175.25 Y133.75 E58.34036
G1 X175.25 Y171.25 E60.67896
G1 X129.75 Y171.25 E63.51646
G1 X129.75 Y133.75 E65.85507
G0 F6000 X130.25 Y134.25
G1 F2700 X174.75 Y134.25 E68.63021
G1 X174.75 Y170.75 E70.90645
G1 X130.25 Y170.75 E73.68159
G1 X130.25 Y134.25 E75.95783
G0 F6000 X130.75 Y134.75
G1 F2700 X174.25 Y134.75 E78.67061
G1 X174.25 Y170.25 E80.88449
G1 X130.75 Y170.25 E83.59727
G1 X130.75 Y134.75 E85.81115
G0 F6000 X131.25 Y135.25
G1 F2700 X173.75 Y135.25 E88.46157
G1 X173.75 Y169.75 E90.61308
G1 X131.25 Y169.75 E93.26350
G1 X131.25 Y135.25 E95.41501
G0 F6000 X131.75 Y135.75
G1 F2700 X173.25 Y135.75 E98.00307
G1 X173.25 Y169.25 E100.09222
G1 X131.75 Y169.25 E102.68027
G1 X131.75 Y135.75 E104.76943
G0 F6000 X132.25 Y136.25
G1 F2700 X172.75 Y136.25 E107.29512
G1 X172.75 Y168.75 E109.32191
G1 X132.25 Y168.75 E111.84760
G1 X132.25 Y136.25 E113.87439
G0 F6000 X132.75 Y136.75
G1 F2700 X152.25 Y136.75 E115.09046
G1 X152.25 Y168.25 E117.05489
G1 X132.75 Y168.25 E118.27096
G1 X132.75 Y136.75 E120.23539
G0 F6000 X133.25 Y137.25
G1 F2700 X151.75 Y137.25 E121.38910
G1 X151.75 Y167.75 E123.29116
G1 X133.25 Y167.75 E124.44487
G1 X133.25 Y137.25 E126.34694
G0 F6000 X133.75 Y137.75
G1 F2700 X151.25 Y137.75 E127.43829
G1 X151.25 Y167.25 E129.27799
G1 X133.75 Y167.25 E130.36934
G1 X133.75 Y137.75 E132.20904
G0 F6000 X134.25 Y138.25
G1 F2700 X150.75 Y138.25 E133.23802
G1 X150.75 Y166.75 E135.01536
G1 X134.25 Y166.75 E136.04435
G1 X134.25 Y138.25 E137.82168
G0 F6000 X152.75 Y136.75
G1 F2700 X172.25 Y136.75 E139.03776
G1 X172.25 Y168.25 E141.00219
G1 X152.75 Y168.25 E142.21826
G1 X152.75 Y136.75 E144.18269
G0 F6000 X153.25 Y137.25
G1 F2700 X171.75 Y137.25 E145.33640
G1 X171.75 Y167.75 E147.23846
G1 X153.25 Y167.75 E148.39217
G1 X153.25 Y137.25 E150.29424
G0 F6000 X153.75 Y137.75
G1 F2700 X171.25 Y137.75 E151.38558
G1 X171.25 Y167.25 E153.22528
G1 X153.75 Y167.25 E154.31663
G1 X153.75 Y137.75 E156.15633
G0 F6000 X154.25 Y138.25
G1 F2700 X170.75 Y138.25 E157.18532
G1 X170.75 Y166.75 E158.96266
G1 X154.25 Y166.75 E159.99164
G1 X154.25 Y138.25 E161.76898
G0 F6000 X149.75 Y139.25
;TYPE:WALL-INNER
G1 F2700 X149.75 Y165.75 E163.42159
G1 X135.25 Y165.75 E164.32585
G1 X135.25 Y139.25 E165.97847
G1 X149.75 Y139.25 E166.88273
G0 F6000 X150.25 Y138.75
;TYPE:WALL-OUTER
G1 F2700 X150.25 Y166.25 E168.59770
G1 X134.75 Y166.25 E169.56433
G1 X134.75 Y138.75 E171.27930
G1 X150.25 Y138.75 E172.24592
G0 F6000 X149.57 Y140.03
;TYPE:FILL
G1 F2700 X148.97 Y139.42 E172.29928
G0 F6000 X148.26 Y139.42
G1 F2700 X149.57 Y140.74 E172.41499
G0 F6000 X149.57 Y141.44
G1 F2700 X147.56 Y139.42 E172.59306
G0 F6000 X146.85 Y139.42
G1 F2700 X149.57 Y142.15 E172.83347
G0 F6000 X149.57 Y142.86
G1 F2700 X146.14 Y139.42 E173.13625
G0 F6000 X145.43 Y139.42
G1 F2700 X149.57 Y143.56 E173.50141
G0 F6000 X149.57 Y144.27
G1 F2700 X144.73 Y139.42 E173.92894
G0 F6000 X144.02 Y139.42
G1 F2700 X149.57 Y144.98 E174.41881
G0 F6000 X149.57 Y145.69
G1 F2700 X143.31 Y139.42 E174.97104
G0 F6000 X142.61 Y139.42
G1 F2700 X149.57 Y146.39 E175.58566
G0 F6000 X149.57 Y147.10
G1 F2700 X141.90 Y139.42 E176.26264
G0 F6000 X141.19 Y139.42
G1 F2700 X149.57 Y147.81 E177.00198
G0 F6000 X149.57 Y148.51
G1 F2700 X140.49 Y139.42 E177.80366
G0 F6000 X139.78 Y139.42
G1 F2700 X149.57 Y149.22 E178.66770
G0 F6000 X149.57 Y149.93
G1 F2700 X139.07 Y139.42 E179.59414
G0 F6000 X138.36 Y139.42
G1 F2700 X149.57 Y150.63 E180.58293
G0 F6000 X149.57 Y151.34
G1 F2700 X137.66 Y139.42 E181.63407
G0 F6000 X136.95 Y139.42
G1 F2700 X149.57 Y152.05 E182.74757
G0 F6000 X149.57 Y152.76
G1 F2700 X136.24 Y139.42 E183.92342
G0 F6000 X135.53 Y139.42
G1 F2700 X149.57 Y153.46 E185.16166
G0 F6000 X149.57 Y154.17
G1 F2700 X135.43 Y140.02 E186.40961
G0 F6000 X135.43 Y140.73
G1 F2700 X149.57 Y154.88 E187.65756
G0 F6000 X149.57 Y155.59
G1 F2700 X135.43 Y141.44 E188.90551
G0 F6000 X135.43 Y142.14
G1 F2700 X149.57 Y156.29 E190.15346
G0 F6000 X149.57 Y157.00
G1 F2700 X135.43 Y142.85 E191.40141
G0 F6000 X135.43 Y143.56
G1 F2700 X149.57 Y157.71 E192.64936
G0 F6000 X149.57 Y158.41
G1 F2700 X135.43 Y144.26 E193.89730
G0 F6000 X135.43 Y144.97
G1 F2700 X149.57 Y159.12 E195.14521
G0 F6000 X149.57 Y159.83
G1 F2700 X135.43 Y145.68 E196.39316
G0 F6000 X135.43 Y146.38
G1 F2700 X149.57 Y160.53 E197.64111
G0 F6000 X149.57 Y161.24
G1 F2700 X135.43 Y147.09 E198.88905
G0 F6000 X135.43 Y147.80
G1 F2700 X149.57 Y161.95 E200.13700
G0 F6000 X149.57 Y162.66
G1 F2700 X135.43 Y148.51 E201.38495
G0 F6000 X135.43 Y149.21
G1 F2700 X149.57 Y163.36 E202.63290
G0 F6000 X149.57 Y164.07
G1 F2700 X135.43 Y149.92 E203.88085
G0 F6000 X135.43 Y150.63
G1 F2700 X149.57 Y164.78 E205.12880
G0 F6000 X149.57 Y165.48
G1 F2700 X135.43 Y151.33 E206.37675
G0 F6000 X135.43 Y152.04
G1 F2700 X148.96 Y165.57 E207.57015
G0 F6000 X148.25 Y165.57
G1 F2700 X135.43 Y152.75 E208.70119
G0 F6000 X135.43 Y153.46
G1 F2700 X147.54 Y165.57 E209.76989
G0 F6000 X146.84 Y165.57
G1 F2700 X135.43 Y154.16 E210.77623
G0 F6000 X135.43 Y154.87
G1 F2700 X146.13 Y165.57 E211.72022
G0 F6000 X145.42 Y165.57
G1 F2700 X135.43 Y155.58 E212.60185
G0 F6000 X135.43 Y156.28
G1 F2700 X144.71 Y165.57 E213.42113
G0 F6000 X144.01 Y165.57
G1 F2700 X135.43 Y156.99 E214.17806
G0 F6000 X135.43 Y157.70
G1 F2700 X143.30 Y165.57 E214.87263
G0 F6000 X142.59 Y165.57
G1 F2700 X135.43 Y158.41 E215.50481
G0 F6000 X135.43 Y159.11
G1 F2700 X141.88 Y165.57 E216.07459
G0 F6000 X141.18 Y165.57
G1 F2700 X135.43 Y159.82 E216.58201
G0 F6000 X135.43 Y160.53
G1 F2700 X140.47 Y165.57 E217.02708
G0 F6000 X139.76 Y165.57
G1 F2700 X135.43 Y161.23 E217.40980
G0 F6000 X135.43 Y161.94
G1 F2700 X139.06 Y165.57 E217.73017
G0 F6000 X138.35 Y165.57
G1 F2700 X135.43 Y162.65 E217.98818
G0 F6000 X135.43 Y163.35
G1 F2700 X137.64 Y165.57 E218.18384
G0 F6000 X136.94 Y165.57
G1 F2700 X135.43 Y164.06 E218.31715
G0 F6000 X135.43 Y164.77
G1 F2700 X136.23 Y165.57 E218.38805
G0 F6000 X135.52 Y165.57
G1 F2700 X135.43 Y165.48 E218.39657
G0 F6000 X155.25 Y165.75
;TYPE:WALL-INNER
G1 F2700 X155.25 Y139.25 E220.04918
G1 X169.75 Y139.25 E220.95344
G1 X169.75 Y165.75 E222.60605
G1 X155.25 Y165.75 E223.51031
G0 F6000 X154.75 Y166.25
;TYPE:WALL-OUTER
G1 F2700 X154.75 Y138.75 E225.22529
G1 X170.25 Y138.75 E226.19191
G1 X170.25 Y166.25 E227.90689
G1 X154.75 Y166.25 E228.87351
G0 F6000 X156.03 Y165.57
;TYPE:FILL
G1 F2700 X155.42 Y164.97 E228.92678
G0 F6000 X155.42 Y164.26
G1 F2700 X156.74 Y165.57 E229.04240
G0 F6000 X157.44 Y165.57
G1 F2700 X155.42 Y163.56 E229.22042
G0 F6000 X155.42 Y162.85
G1 F2700 X158.15 Y165.57 E229.46084
G0 F6000 X158.86 Y165.57
G1 F2700 X155.42 Y162.14 E229.76361
G0 F6000 X155.42 Y161.43
G1 F2700 X159.56 Y165.57 E230.12873
G0 F6000 X160.27 Y165.57
G1 F2700 X155.42 Y160.73 E230.55621
G0 F6000 X155.42 Y160.02
G1 F2700 X160.98 Y165.57 E231.04604
G0 F6000 X161.69 Y165.57
G1 F2700 X155.42 Y159.31 E231.59823
G0 F6000 X155.42 Y158.61
G1 F2700 X162.39 Y165.57 E232.21276
G0 F6000 X163.10 Y165.57
G1 F2700 X155.42 Y157.90 E232.88965
G0 F6000 X155.42 Y157.19
G1 F2700 X163.81 Y165.57 E233.62894
G0 F6000 X164.51 Y165.57
G1 F2700 X155.42 Y156.48 E234.43063
G0 F6000 X155.42 Y155.78
G1 F2700 X165.22 Y165.57 E235.29467
G0 F6000 X165.93 Y165.57
G1 F2700 X155.42 Y155.07 E236.22106
G0 F6000 X155.42 Y154.36
G1 F2700 X166.63 Y165.57 E237.20980
G0 F6000 X167.34 Y165.57
G1 F2700 X155.42 Y153.66 E238.26090
G0 F6000 X155.42 Y152.95
G1 F2700 X168.05 Y165.57 E239.37436
G0 F6000 X168.76 Y165.57
G1 F2700 X155.42 Y152.24 E240.55016
G0 F6000 X155.42 Y151.53
G1 F2700 X169.46 Y165.57 E241.78832
G0 F6000 X169.57 Y164.98
G1 F2700 X155.42 Y150.83 E243.03627
G0 F6000 X155.42 Y150.12
G1 F2700 X169.57 Y164.27 E244.28422
G0 F6000 X169.57 Y163.56
G1 F2700 X155.42 Y149.41 E245.53217
G0 F6000 X155.42 Y148.71
G1 F2700 X169.57 Y162.86 E246.78012
G0 F6000 X169.57 Y162.15
G1 F2700 X155.42 Y148.00 E248.02806
G0 F6000 X155.42 Y147.29
G1 F2700 X169.57 Y161.44 E249.27601
G0 F6000 X169.57 Y160.74
G1 F2700 X155.42 Y146.59 E250.52396
G0 F6000 X155.42 Y145.88
G1 F2700 X169.57 Y160.03 E251.77191
G0 F6000 X169.57 Y159.32
G1 F2700 X155.42 Y145.17 E253.01986
G0 F6000 X155.42 Y144.46
G1 F2700 X169.57 Y158.61 E254.26776
G0 F6000 X169.57 Y157.91
G1 F2700 X155.42 Y143.76 E255.51571
G0 F6000 X155.42 Y143.05
G1 F2700 X169.57 Y157.20 E256.76366
G0 F6000 X169.57 Y156.49
G1 F2700 X155.42 Y142.34 E258.01161
G0 F6000 X155.42 Y141.63
G1 F2700 X169.57 Y155.78 E259.25956
G0 F6000 X169.57 Y155.08
G1 F2700 X155.42 Y140.93 E260.50751
G0 F6000 X155.42 Y140.22
G1 F2700 X169.57 Y154.37 E261.75546
G0 F6000 X169.57 Y153.66
G1 F2700 X155.42 Y139.51 E263.00340
G0 F6000 X156.04 Y139.43
G1 F2700 X169.57 Y152.96 E264.19685
G0 F6000 X169.57 Y152.25
G1 F2700 X156.75 Y139.43 E265.32790
G0 F6000 X157.46 Y139.43
G1 F2700 X169.57 Y151.54 E266.39659
G0 F6000 X169.57 Y150.84
G1 F2700 X158.16 Y139.43 E267.40293
G0 F6000 X158.87 Y139.43
G1 F2700 X169.57 Y150.13 E268.34692
G0 F6000 X169.57 Y149.42
G1 F2700 X159.58 Y139.43 E269.22855
G0 F6000 X160.28 Y139.43
G1 F2700 X169.57 Y148.71 E270.04783
G0 F6000 X169.57 Y148.01
G1 F2700 X160.99 Y139.43 E270.80476
G0 F6000 X161.70 Y139.43
G1 F2700 X169.57 Y147.30 E271.49929
G0 F6000 X169.57 Y146.59
G1 F2700 X162.41 Y139.43 E272.13147
G0 F6000 X163.11 Y139.43
G1 F2700 X169.57 Y145.89 E272.70129
G0 F6000 X169.57 Y145.18
G1 F2700 X163.82 Y139.43 E273.20871
G0 F6000 X164.53 Y139.43
G1 F2700 X169.57 Y144.47 E273.65379
G0 F6000 X169.57 Y143.76
G1 F2700 X165.23 Y139.43 E274.03651
G0 F6000 X165.94 Y139.43
G1 F2700 X169.57 Y143.06 E274.35687
G0 F6000 X169.57 Y142.35
G1 F2700 X166.65 Y139.43 E274.61488
G0 F6000 X167.35 Y139.43
G1 F2700 X169.57 Y141.64 E274.81054
G0 F6000 X169.57 Y140.94
G1 F2700 X168.06 Y139.43 E274.94380
G0 F6000 X168.77 Y139.43
G1 F2700 X169.57 Y140.23 E275.01471
G0 F6000 X169.57 Y139.52
G1 F2700 X169.48 Y139.43 E275.02327
;LAYER:1
G0 F6000 X169.75 Y139.25 Z0.50
;TYPE:WALL-INNER
G1 F3480 X169.75 Y165.75 E276.12501
G1 X155.25 Y165.75 E276.72785
G1 X155.25 Y139.25 E277.82959
G1 X169.75 Y139.25 E278.43243
G0 F6000 X170.25 Y138.75
;TYPE:WALL-OUTER
G1 F3480 X170.25 Y166.25 E279.57575
G1 X154.75 Y166.25 E280.22016
G1 X154.75 Y138.75 E281.36348
G1 X170.25 Y138.75 E282.00789
G0 F6000 X169.23 Y139.42
;TYPE:FILL
G1 F3480 X155.42 Y153.23 E282.81946
G0 F6000 X155.42 Y153.93
G1 F3480 X169.57 Y139.78 E283.65139
G0 F6000 X169.57 Y140.49
G1 F3480 X155.42 Y154.64 E284.48333
G0 F6000 X155.42 Y155.35
G1 F3480 X169.57 Y141.20 E285.31527
G0 F6000 X169.57 Y141.91
G1 F3480 X155.42 Y156.06 E286.14720
G0 F6000 X155.42 Y156.76
G1 F3480 X169.57 Y142.61 E286.97914
G0 F6000 X169.57 Y143.32
G1 F3480 X155.42 Y157.47 E287.81108
G0 F6000 X155.42 Y158.18
G1 F3480 X169.57 Y144.03 E288.64301
G0 F6000 X169.57 Y144.73
G1 F3480 X155.42 Y158.88 E289.47498
G0 F6000 X155.42 Y159.59
G1 F3480 X169.57 Y145.44 E290.30694
G0 F6000 X169.57 Y146.15
G1 F3480 X155.42 Y160.30 E291.13888
G0 F6000 X155.42 Y161.00
G1 F3480 X169.57 Y146.86 E291.97082
G0 F6000 X169.57 Y147.56
G1 F3480 X155.42 Y161.71 E292.80275
G0 F6000 X155.42 Y162.42
G1 F3480 X169.57 Y148.27 E293.63469
G0 F6000 X169.57 Y148.98
G1 F3480 X155.42 Y163.13 E294.46663
G0 F6000 X155.42 Y163.83
G1 F3480 X169.57 Y149.68 E295.29856
G0 F6000 X169.57 Y150.39
G1 F3480 X155.42 Y164.54 E296.13050
G0 F6000 X155.42 Y165.25
G1 F3480 X169.57 Y151.10 E296.96246
G0 F6000 X169.57 Y151.81
G1 F3480 X155.81 Y165.57 E297.77203
G0 F6000 X156.51 Y165.57
G1 F3480 X169.57 Y152.51 E298.54000
G0 F6000 X169.57 Y153.22
G1 F3480 X157.22 Y165.57 E299.26639
G0 F6000 X157.93 Y165.57
G1 F3480 X169.57 Y153.93 E299.95122
G0 F6000 X169.57 Y154.63
G1 F3480 X158.63 Y165.57 E300.59448
G0 F6000 X159.34 Y165.57
G1 F3480 X169.57 Y155.34 E301.19617
G0 F6000 X169.57 Y156.05
G1 F3480 X160.05 Y165.57 E301.75629
G0 F6000 X160.75 Y165.57
G1 F3480 X169.57 Y156.75 E302.27482
G0 F6000 X169.57 Y157.46
G1 F3480 X161.46 Y165.57 E302.75177
G0 F6000 X162.17 Y165.57
G1 F3480 X169.57 Y158.17 E303.18716
G0 F6000 X169.57 Y158.88
G1 F3480 X162.88 Y165.57 E303.58097
G0 F6000 X163.58 Y165.57
G1 F3480 X169.57 Y159.58 E303.93319
G0 F6000 X169.57 Y160.29
G1 F3480 X164.29 Y165.57 E304.24384
G0 F6000 X165.00 Y165.57
G1 F3480 X169.57 Y161.00 E304.51292
G0 F6000 X169.57 Y161.71
G1 F3480 X165.70 Y165.57 E304.74043
G0 F6000 X166.41 Y165.57
G1 F3480 X169.57 Y162.41 E304.92638
G0 F6000 X169.57 Y163.12
G1 F3480 X167.12 Y165.57 E305.07072
G0 F6000 X167.83 Y165.57
G1 F3480 X169.57 Y163.83 E305.17350
G0 F6000 X169.57 Y164.53
G1 F3480 X168.53 Y165.57 E305.23470
G0 F6000 X169.24 Y165.57
G1 F3480 X169.57 Y165.24 E305.25434
G0 F6000 X155.42 Y152.52
G1 F3480 X168.52 Y139.42 E306.02434
G0 F6000 X167.81 Y139.42
G1 F3480 X155.42 Y151.81 E306.75273
G0 F6000 X155.42 Y151.10
G1 F3480 X167.11 Y139.42 E307.43956
G0 F6000 X166.40 Y139.42
G1 F3480 X155.42 Y150.40 E308.08482
G0 F6000 X155.42 Y149.69
G1 F3480 X165.69 Y139.42 E308.68851
G0 F6000 X164.98 Y139.42
G1 F3480 X155.42 Y148.98 E309.25060
G0 F6000 X155.42 Y148.28
G1 F3480 X164.28 Y139.42 E309.77112
G0 F6000 X163.57 Y139.42
G1 F3480 X155.42 Y147.57 E310.25008
G0 F6000 X155.42 Y146.86
G1 F3480 X162.86 Y139.42 E310.68746
G0 F6000 X162.16 Y139.42
G1 F3480 X155.42 Y146.16 E311.08328
G0 F6000 X155.42 Y145.45
G1 F3480 X161.45 Y139.42 E311.43752
G0 F6000 X160.74 Y139.42
G1 F3480 X155.42 Y144.74 E311.75017
G0 F6000 X155.42 Y144.03
G1 F3480 X160.03 Y139.42 E312.02125
G0 F6000 X159.33 Y139.42
G1 F3480 X155.42 Y143.33 E312.25076
G0 F6000 X155.42 Y142.62
G1 F3480 X158.62 Y139.42 E312.43870
G0 F6000 X157.91 Y139.42
G1 F3480 X155.42 Y141.91 E312.58505
G0 F6000 X155.42 Y141.21
G1 F3480 X157.21 Y139.42 E312.68982
G0 F6000 X156.50 Y139.42
G1 F3480 X155.42 Y140.50 E312.75303
G0 F6000 X155.42 Y139.79
G1 F3480 X155.79 Y139.42 E312.77467
G0 F6000 X149.75 Y139.25
;TYPE:WALL-INNER
G1 F3480 X149.75 Y165.75 E313.87641
G1 X135.25 Y165.75 E314.47925
G1 X135.25 Y139.25 E315.58099
G1 X149.75 Y139.25 E316.18383
G0 F6000 X150.25 Y138.75
;TYPE:WALL-OUTER
G1 F3480 X150.25 Y166.25 E317.32715
G1 X134.75 Y166.25 E317.97156
G1 X134.75 Y138.75 E319.11488
G1 X150.25 Y138.75 E319.75929
G0 F6000 X149.43 Y139.42
;TYPE:FILL
G1 F3480 X135.43 Y153.43 E320.58265
G0 F6000 X135.43 Y154.13
G1 F3480 X149.57 Y139.99 E321.41458
G0 F6000 X149.57 Y140.69
G1 F3480 X135.43 Y154.84 E322.24649
G0 F6000 X135.43 Y155.55
G1 F3480 X149.57 Y141.40 E323.07840
G0 F6000 X149.57 Y142.11
G1 F3480 X135.43 Y156.26 E323.91030
G0 F6000 X135.43 Y156.96
G1 F3480 X149.57 Y142.81 E324.74221
G0 F6000 X149.57 Y143.52
G1 F3480 X135.43 Y157.67 E325.57412
G0 F6000 X135.43 Y158.38
G1 F3480 X149.57 Y144.23 E326.40602
G0 F6000 X149.57 Y144.94
G1 F3480 X135.43 Y159.08 E327.23793
G0 F6000 X135.43 Y159.79
G1 F3480 X149.57 Y145.64 E328.06984
G0 F6000 X149.57 Y146.35
G1 F3480 X135.43 Y160.50 E328.90177
G0 F6000 X135.43 Y161.21
G1 F3480 X149.57 Y147.06 E329.73371
G0 F6000 X149.57 Y147.76
G1 F3480 X135.43 Y161.91 E330.56562
G0 F6000 X135.43 Y162.62
G1 F3480 X149.57 Y148.47 E331.39752
G0 F6000 X149.57 Y149.18
G1 F3480 X135.43 Y163.33 E332.22943
G0 F6000 X135.43 Y164.03
G1 F3480 X149.57 Y149.88 E333.06134
G0 F6000 X149.57 Y150.59
G1 F3480 X135.43 Y164.74 E333.89325
G0 F6000 X135.43 Y165.45
G1 F3480 X149.57 Y151.30 E334.72515
G0 F6000 X149.57 Y152.01
G1 F3480 X136.01 Y165.57 E335.52290
G0 F6000 X136.71 Y165.57
G1 F3480 X149.57 Y152.71 E336.27908
G0 F6000 X149.57 Y153.42
G1 F3480 X137.42 Y165.57 E336.99369
G0 F6000 X138.13 Y165.57
G1 F3480 X149.57 Y154.13 E337.66670
G0 F6000 X149.57 Y154.84
G1 F3480 X138.83 Y165.57 E338.29814
G0 F6000 X139.54 Y165.57
G1 F3480 X149.57 Y155.54 E338.88801
G0 F6000 X149.57 Y156.25
G1 F3480 X140.25 Y165.57 E339.43631
G0 F6000 X140.96 Y165.57
G1 F3480 X149.57 Y156.96 E339.94302
G0 F6000 X149.57 Y157.66
G1 F3480 X141.66 Y165.57 E340.40815
G0 F6000 X142.37 Y165.57
G1 F3480 X149.57 Y158.37 E340.83172
G0 F6000 X149.57 Y159.08
G1 F3480 X143.08 Y165.57 E341.21372
G0 F6000 X143.78 Y165.57
G1 F3480 X149.57 Y159.78 E341.55415
G0 F6000 X149.57 Y160.49
G1 F3480 X144.49 Y165.57 E341.85298
G0 F6000 X145.20 Y165.57
G1 F3480 X149.57 Y161.20 E342.11025
G0 F6000 X149.57 Y161.91
G1 F3480 X145.91 Y165.57 E342.32594
G0 F6000 X146.61 Y165.57
G1 F3480 X149.57 Y162.61 E342.50006
G0 F6000 X149.57 Y163.32
G1 F3480 X147.32 Y165.57 E342.63259
G0 F6000 X148.03 Y165.57
G1 F3480 X149.57 Y164.03 E342.72355
G0 F6000 X149.57 Y164.73
G1 F3480 X148.73 Y165.57 E342.77294
G0 F6000 X149.44 Y165.57
G1 F3480 X149.57 Y165.44 E342.78076
G0 F6000 X135.43 Y152.72
G1 F3480 X148.72 Y139.42 E343.56251
G0 F6000 X148.01 Y139.42
G1 F3480 X135.43 Y152.01 E344.30270
G0 F6000 X135.43 Y151.31
G1 F3480 X147.31 Y139.42 E345.00131
G0 F6000 X146.60 Y139.42
G1 F3480 X135.43 Y150.60 E345.65836
G0 F6000 X135.43 Y149.89
G1 F3480 X145.89 Y139.42 E346.27384
G0 F6000 X145.19 Y139.42
G1 F3480 X135.43 Y149.19 E346.84772
G0 F6000 X135.43 Y148.48
G1 F3480 X144.48 Y139.42 E347.38003
G0 F6000 X143.77 Y139.42
G1 F3480 X135.43 Y147.77 E347.87077
G0 F6000 X135.43 Y147.06
G1 F3480 X143.06 Y139.42 E348.31994
G0 F6000 X142.36 Y139.42
G1 F3480 X135.43 Y146.36 E348.72752
G0 F6000 X135.43 Y145.65
G1 F3480 X141.65 Y139.42 E349.09352
G0 F6000 X140.94 Y139.42
G1 F3480 X135.43 Y144.94 E349.41796
G0 F6000 X135.43 Y144.24
G1 F3480 X140.24 Y139.42 E349.70083
G0 F6000 X139.53 Y139.42
G1 F3480 X135.43 Y143.53 E349.94213
G0 F6000 X135.43 Y142.82
G1 F3480 X138.82 Y139.42 E350.14186
G0 F6000 X138.11 Y139.42
G1 F3480 X135.43 Y142.11 E350.29999
G0 F6000 X135.43 Y141.41
G1 F3480 X137.41 Y139.42 E350.41656
G0 F6000 X136.70 Y139.42
G1 F3480 X135.43 Y140.70 E350.49155
G0 F6000 X135.43 Y139.99
G1 F3480 X135.99 Y139.42 E350.52498
;LAYER:2
G0 F6000 X135.25 Y139.25 Z0.70
;TYPE:WALL-INNER
G1 F4320 X149.75 Y139.25 E351.12782
G1 X149.75 Y165.75 E352.22956
G1 X135.25 Y165.75 E352.83240
G1 X135.25 Y139.25 E353.93414
G0 F6000 X134.75 Y138.75
;TYPE:WALL-OUTER
G1 F4320 X150.25 Y138.75 E354.57856
G1 X150.25 Y166.25 E355.72187
G1 X134.75 Y166.25 E356.36629
G1 X134.75 Y138.75 E357.50960
G0 F6000 X135.53 Y139.42
;TYPE:FILL
G1 F4320 X149.57 Y153.46 E358.33510
G0 F6000 X149.57 Y154.17
G1 F4320 X135.43 Y140.02 E359.16707
G0 F6000 X135.43 Y140.73
G1 F4320 X149.57 Y154.88 E359.99903
G0 F6000 X149.57 Y155.59
G1 F4320 X135.43 Y141.44 E360.83100
G0 F6000 X135.43 Y142.14
G1 F4320 X149.57 Y156.29 E361.66297
G0 F6000 X149.57 Y157.00
G1 F4320 X135.43 Y142.85 E362.49493
G0 F6000 X135.43 Y143.56
G1 F4320 X149.57 Y157.71 E363.32690
G0 F6000 X149.57 Y158.41
G1 F4320 X135.43 Y144.26 E364.15886
G0 F6000 X135.43 Y144.97
G1 F4320 X149.57 Y159.12 E364.99080
G0 F6000 X149.57 Y159.83
G1 F4320 X135.43 Y145.68 E365.82277
G0 F6000 X135.43 Y146.38
G1 F4320 X149.57 Y160.53 E366.65473
G0 F6000 X149.57 Y161.24
G1 F4320 X135.43 Y147.09 E367.48670
G0 F6000 X135.43 Y147.80
G1 F4320 X149.57 Y161.95 E368.31866
G0 F6000 X149.57 Y162.66
G1 F4320 X135.43 Y148.51 E369.15063
G0 F6000 X135.43 Y149.21
G1 F4320 X149.57 Y163.36 E369.98259
G0 F6000 X149.57 Y164.07
G1 F4320 X135.43 Y149.92 E370.81456
G0 F6000 X135.43 Y150.63
G1 F4320 X149.57 Y164.78 E371.64653
G0 F6000 X149.57 Y165.48
G1 F4320 X135.43 Y151.33 E372.47849
G0 F6000 X135.43 Y152.04
G1 F4320 X148.96 Y165.57 E373.27409
G0 F6000 X148.25 Y165.57
G1 F4320 X135.43 Y152.75 E374.02812
G0 F6000 X135.43 Y153.46
G1 F4320 X147.54 Y165.57 E374.74059
G0 F6000 X146.84 Y165.57
G1 F4320 X135.43 Y154.16 E375.41148
G0 F6000 X135.43 Y154.87
G1 F4320 X146.13 Y165.57 E376.04080
G0 F6000 X145.42 Y165.57
G1 F4320 X135.43 Y155.58 E376.62856
G0 F6000 X135.43 Y156.28
G1 F4320 X144.71 Y165.57 E377.17475
G0 F6000 X144.01 Y165.57
G1 F4320 X135.43 Y156.99 E377.67937
G0 F6000 X135.43 Y157.70
G1 F4320 X143.30 Y165.57 E378.14241
G0 F6000 X142.59 Y165.57
G1 F4320 X135.43 Y158.41 E378.56387
G0 F6000 X135.43 Y159.11
G1 F4320 X141.88 Y165.57 E378.94372
G0 F6000 X141.18 Y165.57
G1 F4320 X135.43 Y159.82 E379.28200
G0 F6000 X135.43 Y160.53
G1 F4320 X140.47 Y165.57 E379.57872
G0 F6000 X139.76 Y165.57
G1 F4320 X135.43 Y161.23 E379.83386
G0 F6000 X135.43 Y161.94
G1 F4320 X139.06 Y165.57 E380.04744
G0 F6000 X138.35 Y165.57
G1 F4320 X135.43 Y162.65 E380.21945
G0 F6000 X135.43 Y163.35
G1 F4320 X137.64 Y165.57 E380.34989
G0 F6000 X136.94 Y165.57
G1 F4320 X135.43 Y164.06 E380.43876
G0 F6000 X135.43 Y164.77
G1 F4320 X136.23 Y165.57 E380.48603
G0 F6000 X135.52 Y165.57
G1 F4320 X135.43 Y165.48 E380.49170
G0 F6000 X149.57 Y152.76
G1 F4320 X136.24 Y139.42 E381.27560
G0 F6000 X136.95 Y139.42
G1 F4320 X149.57 Y152.05 E382.01793
G0 F6000 X149.57 Y151.34
G1 F4320 X137.66 Y139.42 E382.71870
G0 F6000 X138.36 Y139.42
G1 F4320 X149.57 Y150.63 E383.37789
G0 F6000 X149.57 Y149.93
G1 F4320 X139.07 Y139.42 E383.99551
G0 F6000 X139.78 Y139.42
G1 F4320 X149.57 Y149.22 E384.57154
G0 F6000 X149.57 Y148.51
G1 F4320 X140.49 Y139.42 E385.10600
G0 F6000 X141.19 Y139.42
G1 F4320 X149.57 Y147.81 E385.59889
G0 F6000 X149.57 Y147.10
G1 F4320 X141.90 Y139.42 E386.05021
G0 F6000 X142.61 Y139.42
G1 F4320 X149.57 Y146.39 E386.45996
G0 F6000 X149.57 Y145.69
G1 F4320 X143.31 Y139.42 E386.82811
G0 F6000 X144.02 Y139.42
G1 F4320 X149.57 Y144.98 E387.15469
G0 F6000 X149.57 Y144.27
G1 F4320 X144.73 Y139.42 E387.43971
G0 F6000 X145.43 Y139.42
G1 F4320 X149.57 Y143.56 E387.68315
G0 F6000 X149.57 Y142.86
G1 F4320 X146.14 Y139.42 E387.88500
G0 F6000 X146.85 Y139.42
G1 F4320 X149.57 Y142.15 E388.04528
G0 F6000 X149.57 Y141.44
G1 F4320 X147.56 Y139.42 E388.16399
G0 F6000 X148.26 Y139.42
G1 F4320 X149.57 Y140.74 E388.24113
G0 F6000 X149.57 Y140.03
G1 F4320 X148.97 Y139.42 E388.27670
G0 F6000 X155.25 Y139.25
;TYPE:WALL-INNER
G1 F4320 X169.75 Y139.25 E388.87954
G1 X169.75 Y165.75 E389.98128
G1 X155.25 Y165.75 E390.58412
G1 X155.25 Y139.25 E391.68586
G0 F6000 X154.75 Y138.75
;TYPE:WALL-OUTER
G1 F4320 X170.25 Y138.75 E392.33028
G1 X170.25 Y166.25 E393.47359
G1 X154.75 Y166.25 E394.11801
G1 X154.75 Y138.75 E395.26133
G0 F6000 X155.42 Y139.51
;TYPE:FILL
G1 F4320 X169.57 Y153.66 E396.09329
G0 F6000 X169.57 Y154.37
G1 F4320 X155.42 Y140.22 E396.92526
G0 F6000 X155.42 Y140.93
G1 F4320 X169.57 Y155.08 E397.75722
G0 F6000 X169.57 Y155.78
G1 F4320 X155.42 Y141.63 E398.58919
G0 F6000 X155.42 Y142.34
G1 F4320 X169.57 Y156.49 E399.42116
G0 F6000 X169.57 Y157.20
G1 F4320 X155.42 Y143.05 E400.25312
G0 F6000 X155.42 Y143.76
G1 F4320 X169.57 Y157.91 E401.08509
G0 F6000 X169.57 Y158.61
G1 F4320 X155.42 Y144.46 E401.91702
G0 F6000 X155.42 Y145.17
G1 F4320 X169.57 Y159.32 E402.74899
G0 F6000 X169.57 Y160.03
G1 F4320 X155.42 Y145.88 E403.58096
G0 F6000 X155.42 Y146.59
G1 F4320 X169.57 Y160.74 E404.41292
G0 F6000 X169.57 Y161.44
G1 F4320 X155.42 Y147.29 E405.24489
G0 F6000 X155.42 Y148.00
G1 F4320 X169.57 Y162.15 E406.07685
G0 F6000 X169.57 Y162.86
G1 F4320 X155.42 Y148.71 E406.90882
G0 F6000 X155.42 Y149.41
G1 F4320 X169.57 Y163.56 E407.74078
G0 F6000 X169.57 Y164.27
G1 F4320 X155.42 Y150.12 E408.57275
G0 F6000 X155.42 Y150.83
G1 F4320 X169.57 Y164.98 E409.40472
G0 F6000 X169.46 Y165.57
G1 F4320 X155.42 Y151.53 E410.23015
G0 F6000 X155.42 Y152.24
G1 F4320 X168.76 Y165.57 E411.01403
G0 F6000 X168.05 Y165.57
G1 F4320 X155.42 Y152.95 E411.75633
G0 F6000 X155.42 Y153.66
G1 F4320 X167.34 Y165.57 E412.45706
G0 F6000 X166.63 Y165.57
G1 F4320 X155.42 Y154.36 E413.11622
G0 F6000 X155.42 Y155.07
G1 F4320 X165.93 Y165.57 E413.73382
G0 F6000 X165.22 Y165.57
G1 F4320 X155.42 Y155.78 E414.30984
G0 F6000 X155.42 Y156.48
G1 F4320 X164.51 Y165.57 E414.84430
G0 F6000 X163.81 Y165.57
G1 F4320 X155.42 Y157.19 E415.33716
G0 F6000 X155.42 Y157.90
G1 F4320 X163.10 Y165.57 E415.78842
G0 F6000 X162.39 Y165.57
G1 F4320 X155.42 Y158.61 E416.19811
G0 F6000 X155.42 Y159.31
G1 F4320 X161.69 Y165.57 E416.56624
G0 F6000 X160.98 Y165.57
G1 F4320 X155.42 Y160.02 E416.89279
G0 F6000 X155.42 Y160.73
G1 F4320 X160.27 Y165.57 E417.17777
G0 F6000 X159.56 Y165.57
G1 F4320 X155.42 Y161.43 E417.42119
G0 F6000 X155.42 Y162.14
G1 F4320 X158.86 Y165.57 E417.62304
G0 F6000 X158.15 Y165.57
G1 F4320 X155.42 Y162.85 E417.78332
G0 F6000 X155.42 Y163.56
G1 F4320 X157.44 Y165.57 E417.90200
G0 F6000 X156.74 Y165.57
G1 F4320 X155.42 Y164.26 E417.97908
G0 F6000 X155.42 Y164.97
G1 F4320 X156.03 Y165.57 E418.01459
G0 F6000 X169.57 Y152.96
G1 F4320 X156.04 Y139.43 E418.81022
G0 F6000 X156.75 Y139.43
G1 F4320 X169.57 Y152.25 E419.56425
G0 F6000 X169.57 Y151.54
G1 F4320 X157.46 Y139.43 E420.27671
G0 F6000 X158.16 Y139.43
G1 F4320 X169.57 Y150.84 E420.94761
G0 F6000 X169.57 Y150.13
G1 F4320 X158.87 Y139.43 E421.57693
G0 F6000 X159.58 Y139.43
G1 F4320 X169.57 Y149.42 E422.16469
G0 F6000 X169.57 Y148.71
G1 F4320 X160.28 Y139.43 E422.71088
G0 F6000 X160.99 Y139.43
G1 F4320 X169.57 Y148.01 E423.21549
G0 F6000 X169.57 Y147.30
G1 F4320 X161.70 Y139.43 E423.67851
G0 F6000 X162.41 Y139.43
G1 F4320 X169.57 Y146.59 E424.09997
G0 F6000 X169.57 Y145.89
G1 F4320 X163.11 Y139.43 E424.47985
G0 F6000 X163.82 Y139.43
G1 F4320 X169.57 Y145.18 E424.81813
G0 F6000 X169.57 Y144.47
G1 F4320 X164.53 Y139.43 E425.11485
G0 F6000 X165.23 Y139.43
G1 F4320 X169.57 Y143.76 E425.36999
G0 F6000 X169.57 Y143.06
G1 F4320 X165.94 Y139.43 E425.58357
G0 F6000 X166.65 Y139.43
G1 F4320 X169.57 Y142.35 E425.75558
G0 F6000 X169.57 Y141.64
G1 F4320 X167.35 Y139.43 E425.88602
G0 F6000 X168.06 Y139.43
G1 F4320 X169.57 Y140.94 E425.97486
G0 F6000 X169.57 Y140.23
G1 F4320 X168.77 Y139.43 E426.02213
G0 F6000 X169.48 Y139.43
G1 F4320 X169.57 Y139.52 E426.02783
;LAYER:3
G0 F6000 X169.75 Y139.25 Z0.90
;TYPE:WALL-INNER
G1 F5160 X169.75 Y165.75 E427.12957
G1 X155.25 Y165.75 E427.73241
G1 X155.25 Y139.25 E428.83416
G1 X169.75 Y139.25 E429.43700
G0 F6000 X170.25 Y138.75
;TYPE:WALL-OUTER
G1 F5160 X170.25 Y166.25 E430.58031
G1 X154.75 Y166.25 E431.22473
G1 X154.75 Y138.75 E432.36805
G1 X170.25 Y138.75 E433.01246
G0 F6000 X169.23 Y139.42
;TYPE:FILL
G1 F5160 X155.42 Y153.23 E433.82402
G0 F6000 X155.42 Y153.93
G1 F5160 X169.57 Y139.78 E434.65596
G0 F6000 X169.57 Y140.49
G1 F5160 X155.42 Y154.64 E435.48790
G0 F6000 X155.42 Y155.35
G1 F5160 X169.57 Y141.20 E436.31983
G0 F6000 X169.57 Y141.91
G1 F5160 X155.42 Y156.06 E437.15177
G0 F6000 X155.42 Y156.76
G1 F5160 X169.57 Y142.61 E437.98371
G0 F6000 X169.57 Y143.32
G1 F5160 X155.42 Y157.47 E438.81564
G0 F6000 X155.42 Y158.18
G1 F5160 X169.57 Y144.03 E439.64758
G0 F6000 X169.57 Y144.73
G1 F5160 X155.42 Y158.88 E440.47954
G0 F6000 X155.42 Y159.59
G1 F5160 X169.57 Y145.44 E441.31151
G0 F6000 X169.57 Y146.15
G1 F5160 X155.42 Y160.30 E442.14345
G0 F6000 X155.42 Y161.00
G1 F5160 X169.57 Y146.86 E442.97538
G0 F6000 X169.57 Y147.56
G1 F5160 X155.42 Y161.71 E443.80732
G0 F6000 X155.42 Y162.42
G1 F5160 X169.57 Y148.27 E444.63926
G0 F6000 X169.57 Y148.98
G1 F5160 X155.42 Y163.13 E445.47119
G0 F6000 X155.42 Y163.83
G1 F5160 X169.57 Y149.68 E446.30313
G0 F6000 X169.57 Y150.39
G1 F5160 X155.42 Y164.54 E447.13507
G0 F6000 X155.42 Y165.25
G1 F5160 X169.57 Y151.10 E447.96703
G0 F6000 X169.57 Y151.81
G1 F5160 X155.81 Y165.57 E448.77660
G0 F6000 X156.51 Y165.57
G1 F5160 X169.57 Y152.51 E449.54456
G0 F6000 X169.57 Y153.22
G1 F5160 X157.22 Y165.57 E450.27096
G0 F6000 X157.93 Y165.57
G1 F5160 X169.57 Y153.93 E450.95579
G0 F6000 X169.57 Y154.63
G1 F5160 X158.63 Y165.57 E451.59905
G0 F6000 X159.34 Y165.57
G1 F5160 X169.57 Y155.34 E452.20074
G0 F6000 X169.57 Y156.05
G1 F5160 X160.05 Y165.57 E452.76086
G0 F6000 X160.75 Y165.57
G1 F5160 X169.57 Y156.75 E453.27938
G0 F6000 X169.57 Y157.46
G1 F5160 X161.46 Y165.57 E453.75634
G0 F6000 X162.17 Y165.57
G1 F5160 X169.57 Y158.17 E454.19172
G0 F6000 X169.57 Y158.88
G1 F5160 X162.88 Y165.57 E454.58554
G0 F6000 X163.58 Y165.57
G1 F5160 X169.57 Y159.58 E454.93776
G0 F6000 X169.57 Y160.29
G1 F5160 X164.29 Y165.57 E455.24841
G0 F6000 X165.00 Y165.57
G1 F5160 X169.57 Y161.00 E455.51749
G0 F6000 X169.57 Y161.71
G1 F5160 X165.70 Y165.57 E455.74500
G0 F6000 X166.41 Y165.57
G1 F5160 X169.57 Y162.41 E455.93094
G0 F6000 X169.57 Y163.12
G1 F5160 X167.12 Y165.57 E456.07529
G0 F6000 X167.83 Y165.57
G1 F5160 X169.57 Y163.83 E456.17806
G0 F6000 X169.57 Y164.53
G1 F5160 X168.53 Y165.57 E456.23927
G0 F6000 X169.24 Y165.57
G1 F5160 X169.57 Y165.24 E456.25891
G0 F6000 X155.42 Y152.52
G1 F5160 X168.52 Y139.42 E457.02890
G0 F6000 X167.81 Y139.42
G1 F5160 X155.42 Y151.81 E457.75730
G0 F6000 X155.42 Y151.10
G1 F5160 X167.11 Y139.42 E458.44413
G0 F6000 X166.40 Y139.42
G1 F5160 X155.42 Y150.40 E459.08938
G0 F6000 X155.42 Y149.69
G1 F5160 X165.69 Y139.42 E459.69307
G0 F6000 X164.98 Y139.42
G1 F5160 X155.42 Y148.98 E460.25517
G0 F6000 X155.42 Y148.28
G1 F5160 X164.28 Y139.42 E460.77569
G0 F6000 X163.57 Y139.42
G1 F5160 X155.42 Y147.57 E461.25464
G0 F6000 X155.42 Y146.86
G1 F5160 X162.86 Y139.42 E461.69203
G0 F6000 X162.16 Y139.42
G1 F5160 X155.42 Y146.16 E462.08784
G0 F6000 X155.42 Y145.45
G1 F5160 X161.45 Y139.42 E462.44209
G0 F6000 X160.74 Y139.42
G1 F5160 X155.42 Y144.74 E462.75474
G0 F6000 X155.42 Y144.03
G1 F5160 X160.03 Y139.42 E463.02582
G0 F6000 X159.33 Y139.42
G1 F5160 X155.42 Y143.33 E463.25533
G0 F6000 X155.42 Y142.62
G1 F5160 X158.62 Y139.42 E463.44327
G0 F6000 X157.91 Y139.42
G1 F5160 X155.42 Y141.91 E463.58961
G0 F6000 X155.42 Y141.21
G1 F5160 X157.21 Y139.42 E463.69439
G0 F6000 X156.50 Y139.42
G1 F5160 X155.42 Y140.50 E463.75759
G0 F6000 X155.42 Y139.79
G1 F5160 X155.79 Y139.42 E463.77923
G0 F6000 X149.75 Y139.25
;TYPE:WALL-INNER
G1 F5160 X149.75 Y165.75 E464.88097
G1 X135.25 Y165.75 E465.48381
G1 X135.25 Y139.25 E466.58556
G1 X149.75 Y139.25 E467.18840
G0 F6000 X150.25 Y138.75
;TYPE:WALL-OUTER
G1 F5160 X150.25 Y166.25 E468.33171
G1 X134.75 Y166.25 E468.97613
G1 X134.75 Y138.75 E470.11944
G1 X150.25 Y138.75 E470.76386
G0 F6000 X149.43 Y139.42
;TYPE:FILL
G1 F5160 X135.43 Y153.43 E471.58721
G0 F6000 X135.43 Y154.13
G1 F5160 X149.57 Y139.99 E472.41915
G0 F6000 X149.57 Y140.69
G1 F5160 X135.43 Y154.84 E473.25106
G0 F6000 X135.43 Y155.55
G1 F5160 X149.57 Y141.40 E474.08296
G0 F6000 X149.57 Y142.11
G1 F5160 X135.43 Y156.26 E474.91487
G0 F6000 X135.43 Y156.96
G1 F5160 X149.57 Y142.81 E475.74678
G0 F6000 X149.57 Y143.52
G1 F5160 X135.43 Y157.67 E476.57868
G0 F6000 X135.43 Y158.38
G1 F5160 X149.57 Y144.23 E477.41059
G0 F6000 X149.57 Y144.94
G1 F5160 X135.43 Y159.08 E478.24250
G0 F6000 X135.43 Y159.79
G1 F5160 X149.57 Y145.64 E479.07440
G0 F6000 X149.57 Y146.35
G1 F5160 X135.43 Y160.50 E479.90634
G0 F6000 X135.43 Y161.21
G1 F5160 X149.57 Y147.06 E480.73828
G0 F6000 X149.57 Y147.76
G1 F5160 X135.43 Y161.91 E481.57018
G0 F6000 X135.43 Y162.62
G1 F5160 X149.57 Y148.47 E482.40209
G0 F6000 X149.57 Y149.18
G1 F5160 X135.43 Y163.33 E483.23400
G0 F6000 X135.43 Y164.03
G1 F5160 X149.57 Y149.88 E484.06590
G0 F6000 X149.57 Y150.59
G1 F5160 X135.43 Y164.74 E484.89781
G0 F6000 X135.43 Y165.45
G1 F5160 X149.57 Y151.30 E485.72972
G0 F6000 X149.57 Y152.01
G1 F5160 X136.01 Y165.57 E486.52747
G0 F6000 X136.71 Y165.57
G1 F5160 X149.57 Y152.71 E487.28364
G0 F6000 X149.57 Y153.42
G1 F5160 X137.42 Y165.57 E487.99825
G0 F6000 X138.13 Y165.57
G1 F5160 X149.57 Y154.13 E488.67126
G0 F6000 X149.57 Y154.84
G1 F5160 X138.83 Y165.57 E489.30270
G0 F6000 X139.54 Y165.57
G1 F5160 X149.57 Y155.54 E489.89258
G0 F6000 X149.57 Y156.25
G1 F5160 X140.25 Y165.57 E490.44088
G0 F6000 X140.96 Y165.57
G1 F5160 X149.57 Y156.96 E490.94758
G0 F6000 X149.57 Y157.66
G1 F5160 X141.66 Y165.57 E491.41272
G0 F6000 X142.37 Y165.57
G1 F5160 X149.57 Y158.37 E491.83629
G0 F6000 X149.57 Y159.08
G1 F5160 X143.08 Y165.57 E492.21829
G0 F6000 X143.78 Y165.57
G1 F5160 X149.57 Y159.78 E492.55872
G0 F6000 X149.57 Y160.49
G1 F5160 X144.49 Y165.57 E492.85755
G0 F6000 X145.20 Y165.57
G1 F5160 X149.57 Y161.20 E493.11481
G0 F6000 X149.57 Y161.91
G1 F5160 X145.91 Y165.57 E493.33051
G0 F6000 X146.61 Y165.57
G1 F5160 X149.57 Y162.61 E493.50463
G0 F6000 X149.57 Y163.32
G1 F5160 X147.32 Y165.57 E493.63716
G0 F6000 X148.03 Y165.57
G1 F5160 X149.57 Y164.03 E493.72811
G0 F6000 X149.57 Y164.73
G1 F5160 X148.73 Y165.57 E493.77750
G0 F6000 X149.44 Y165.57
G1 F5160 X149.57 Y165.44 E493.78532
G0 F6000 X135.43 Y152.72
G1 F5160 X148.72 Y139.42 E494.56708
G0 F6000 X148.01 Y139.42
G1 F5160 X135.43 Y152.01 E495.30726
G0 F6000 X135.43 Y151.31
G1 F5160 X147.31 Y139.42 E496.00588
G0 F6000 X146.60 Y139.42
G1 F5160 X135.43 Y150.60 E496.66292
G0 F6000 X135.43 Y149.89
G1 F5160 X145.89 Y139.42 E497.27840
G0 F6000 X145.19 Y139.42
G1 F5160 X135.43 Y149.19 E497.85228
G0 F6000 X135.43 Y148.48
G1 F5160 X144.48 Y139.42 E498.38459
G0 F6000 X143.77 Y139.42
G1 F5160 X135.43 Y147.77 E498.87534
G0 F6000 X135.43 Y147.06
G1 F5160 X143.06 Y139.42 E499.32451
G0 F6000 X142.36 Y139.42
G1 F5160 X135.43 Y146.36 E499.73208
G0 F6000 X135.43 Y145.65
G1 F5160 X141.65 Y139.42 E500.09809
G0 F6000 X140.94 Y139.42
G1 F5160 X135.43 Y144.94 E500.42253
G0 F6000 X135.43 Y144.24
G1 F5160 X140.24 Y139.42 E500.70540
G0 F6000 X139.53 Y139.42
G1 F5160 X135.43 Y143.53 E500.94670
G0 F6000 X135.43 Y142.82
G1 F5160 X138.82 Y139.42 E501.14643
G0 F6000 X138.11 Y139.42
G1 F5160 X135.43 Y142.11 E501.30456
G0 F6000 X135.43 Y141.41
G1 F5160 X137.41 Y139.42 E501.42112
G0 F6000 X136.70 Y139.42
G1 F5160 X135.43 Y140.70 E501.49612
G0 F6000 X135.43 Y139.99
G1 F5160 X135.99 Y139.42 E501.52954
;LAYER:4
G0 F6000 X135.25 Y139.25 Z1.10
;TYPE:WALL-INNER
G1 X149.75 Y139.25 E502.13238
G1 X149.75 Y165.75 E503.23412
G1 X135.25 Y165.75 E503.83696
G1 X135.25 Y139.25 E504.93871
G0 X134.75 Y138.75
;TYPE:WALL-OUTER
G1 X150.25 Y138.75 E505.58312
G1 X150.25 Y166.25 E506.72644
G1 X134.75 Y166.25 E507.37085
G1 X134.75 Y138.75 E508.51417
G0 X135.53 Y139.42
;TYPE:FILL
G1 X149.57 Y153.46 E509.33967
G0 X149.57 Y154.17
G1 X135.43 Y140.02 E510.17163
G0 X135.43 Y140.73
G1 X149.57 Y154.88 E511.00360
G0 X149.57 Y155.59
G1 X135.43 Y141.44 E511.83557
G0 X135.43 Y142.14
G1 X149.57 Y156.29 E512.66753
G0 X149.57 Y157.00
G1 X135.43 Y142.85 E513.49950
G0 X135.43 Y143.56
G1 X149.57 Y157.71 E514.33146
G0 X149.57 Y158.41
G1 X135.43 Y144.26 E515.16343
G0 X135.43 Y144.97
G1 X149.57 Y159.12 E515.99537
G0 X149.57 Y159.83
G1 X135.43 Y145.68 E516.82733
G0 X135.43 Y146.38
G1 X149.57 Y160.53 E517.65930
G0 X149.57 Y161.24
G1 X135.43 Y147.09 E518.49126
G0 X135.43 Y147.80
G1 X149.57 Y161.95 E519.32323
G0 X149.57 Y162.66
G1 X135.43 Y148.51 E520.15519
G0 X135.43 Y149.21
G1 X149.57 Y163.36 E520.98716
G0 X149.57 Y164.07
G1 X135.43 Y149.92 E521.81913
G0 X135.43 Y150.63
G1 X149.57 Y164.78 E522.65109
G0 X149.57 Y165.48
G1 X135.43 Y151.33 E523.48306
G0 X135.43 Y152.04
G1 X148.96 Y165.57 E524.27866
G0 X148.25 Y165.57
G1 X135.43 Y152.75 E525.03269
G0 X135.43 Y153.46
G1 X147.54 Y165.57 E525.74515
G0 X146.84 Y165.57
G1 X135.43 Y154.16 E526.41605
G0 X135.43 Y154.87
G1 X146.13 Y165.57 E527.04537
G0 X145.42 Y165.57
G1 X135.43 Y155.58 E527.63313
G0 X135.43 Y156.28
G1 X144.71 Y165.57 E528.17931
G0 X144.01 Y165.57
G1 X135.43 Y156.99 E528.68393
G0 X135.43 Y157.70
G1 X143.30 Y165.57 E529.14698
G0 X142.59 Y165.57
G1 X135.43 Y158.41 E529.56843
G0 X135.43 Y159.11
G1 X141.88 Y165.57 E529.94828
G0 X141.18 Y165.57
G1 X135.43 Y159.82 E530.28657
G0 X135.43 Y160.53
G1 X140.47 Y165.57 E530.58328
G0 X139.76 Y165.57
G1 X135.43 Y161.23 E530.83843
G0 X135.43 Y161.94
G1 X139.06 Y165.57 E531.05201
G0 X138.35 Y165.57
G1 X135.43 Y162.65 E531.22401
G0 X135.43 Y163.35
G1 X137.64 Y165.57 E531.35445
G0 X136.94 Y165.57
G1 X135.43 Y164.06 E531.44332
G0 X135.43 Y164.77
G1 X136.23 Y165.57 E531.49060
G0 X135.52 Y165.57
G1 X135.43 Y165.48 E531.49627
G0 X149.57 Y152.76
G1 X136.24 Y139.42 E532.28017
G0 X136.95 Y139.42
G1 X149.57 Y152.05 E533.02250
G0 X149.57 Y151.34
G1 X137.66 Y139.42 E533.72326
G0 X138.36 Y139.42
G1 X149.57 Y150.63 E534.38246
G0 X149.57 Y149.93
G1 X139.07 Y139.42 E535.00008
G0 X139.78 Y139.42
G1 X149.57 Y149.22 E535.57611
G0 X149.57 Y148.51
G1 X140.49 Y139.42 E536.11056
G0 X141.19 Y139.42
G1 X149.57 Y147.81 E536.60345
G0 X149.57 Y147.10
G1 X141.90 Y139.42 E537.05477
G0 X142.61 Y139.42
G1 X149.57 Y146.39 E537.46452
G0 X149.57 Y145.69
G1 X143.31 Y139.42 E537.83267
G0 X144.02 Y139.42
G1 X149.57 Y144.98 E538.15926
G0 X149.57 Y144.27
G1 X144.73 Y139.42 E538.44427
G0 X145.43 Y139.42
G1 X149.57 Y143.56 E538.68772
G0 X149.57 Y142.86
G1 X146.14 Y139.42 E538.88956
G0 X146.85 Y139.42
G1 X149.57 Y142.15 E539.04984
G0 X149.57 Y141.44
G1 X147.56 Y139.42 E539.16855
G0 X148.26 Y139.42
G1 X149.57 Y140.74 E539.24569
G0 X149.57 Y140.03
G1 X148.97 Y139.42 E539.28126
G0 X155.25 Y139.25
;TYPE:WALL-INNER
G1 X169.75 Y139.25 E539.88410
G1 X169.75 Y165.75 E540.98585
G1 X155.25 Y165.75 E541.58869
G1 X155.25 Y139.25 E542.69043
G0 X154.75 Y138.75
;TYPE:WALL-OUTER
G1 X170.25 Y138.75 E543.33484
G1 X170.25 Y166.25 E544.47816
G1 X154.75 Y166.25 E545.12258
G1 X154.75 Y138.75 E546.26589
G0 X155.42 Y139.51
;TYPE:FILL
G1 X169.57 Y153.66 E547.09786
G0 X169.57 Y154.37
G1 X155.42 Y140.22 E547.92982
G0 X155.42 Y140.93
G1 X169.57 Y155.08 E548.76179
G0 X169.57 Y155.78
G1 X155.42 Y141.63 E549.59376
G0 X155.42 Y142.34
G1 X169.57 Y156.49 E550.42572
G0 X169.57 Y157.20
G1 X155.42 Y143.05 E551.25769
G0 X155.42 Y143.76
G1 X169.57 Y157.91 E552.08965
G0 X169.57 Y158.61
G1 X155.42 Y144.46 E552.92159
G0 X155.42 Y145.17
G1 X169.57 Y159.32 E553.75356
G0 X169.57 Y160.03
G1 X155.42 Y145.88 E554.58552
G0 X155.42 Y146.59
G1 X169.57 Y160.74 E555.41749
G0 X169.57 Y161.44
G1 X155.42 Y147.29 E556.24945
G0 X155.42 Y148.00
G1 X169.57 Y162.15 E557.08142
G0 X169.57 Y162.86
G1 X155.42 Y148.71 E557.91338
G0 X155.42 Y149.41
G1 X169.57 Y163.56 E558.74535
G0 X169.57 Y164.27
G1 X155.42 Y150.12 E559.57732
G0 X155.42 Y150.83
G1 X169.57 Y164.98 E560.40928
G0 X169.46 Y165.57
G1 X155.42 Y151.53 E561.23472
G0 X155.42 Y152.24
G1 X168.76 Y165.57 E562.01859
G0 X168.05 Y165.57
G1 X155.42 Y152.95 E562.76089
G0 X155.42 Y153.66
G1 X167.34 Y165.57 E563.46163
G0 X166.63 Y165.57
G1 X155.42 Y154.36 E564.12079
G0 X155.42 Y155.07
G1 X165.93 Y165.57 E564.73838
G0 X165.22 Y165.57
G1 X155.42 Y155.78 E565.31441
G0 X155.42 Y156.48
G1 X164.51 Y165.57 E565.84887
G0 X163.81 Y165.57
G1 X155.42 Y157.19 E566.34173
G0 X155.42 Y157.90
G1 X163.10 Y165.57 E566.79299
G0 X162.39 Y165.57
G1 X155.42 Y158.61 E567.20268
G0 X155.42 Y159.31
G1 X161.69 Y165.57 E567.57080
G0 X160.98 Y165.57
G1 X155.42 Y160.02 E567.89736
G0 X155.42 Y160.73
G1 X160.27 Y165.57 E568.18234
G0 X159.56 Y165.57
G1 X155.42 Y161.43 E568.42576
G0 X155.42 Y162.14
G1 X158.86 Y165.57 E568.62760
G0 X158.15 Y165.57
G1 X155.42 Y162.85 E568.78788
G0 X155.42 Y163.56
G1 X157.44 Y165.57 E568.90656
G0 X156.74 Y165.57
G1 X155.42 Y164.26 E568.98364
G0 X155.42 Y164.97
G1 X156.03 Y165.57 E569.01916
G0 X169.57 Y152.96
G1 X156.04 Y139.43 E569.81479
G0 X156.75 Y139.43
G1 X169.57 Y152.25 E570.56882
G0 X169.57 Y151.54
G1 X157.46 Y139.43 E571.28128
G0 X158.16 Y139.43
G1 X169.57 Y150.84 E571.95217
G0 X169.57 Y150.13
G1 X158.87 Y139.43 E572.58150
G0 X159.58 Y139.43
G1 X169.57 Y149.42 E573.16926
G0 X169.57 Y148.71
G1 X160.28 Y139.43 E573.71544
G0 X160.99 Y139.43
G1 X169.57 Y148.01 E574.22006
G0 X169.57 Y147.30
G1 X161.70 Y139.43 E574.68308
G0 X162.41 Y139.43
G1 X169.57 Y146.59 E575.10453
G0 X169.57 Y145.89
G1 X163.11 Y139.43 E575.48441
G0 X163.82 Y139.43
G1 X169.57 Y145.18 E575.82270
G0 X169.57 Y144.47
G1 X164.53 Y139.43 E576.11941
G0 X165.23 Y139.43
G1 X169.57 Y143.76 E576.37456
G0 X169.57 Y143.06
G1 X165.94 Y139.43 E576.58814
G0 X166.65 Y139.43
G1 X169.57 Y142.35 E576.76014
G0 X169.57 Y141.64
G1 X167.35 Y139.43 E576.89058
G0 X168.06 Y139.43
G1 X169.57 Y140.94 E576.97942
G0 X169.57 Y140.23
G1 X168.77 Y139.43 E577.02670
G0 X169.48 Y139.43
G1 X169.57 Y139.52 E577.03240
;LAYER:5
G0 X169.75 Y139.25 Z1.30
;TYPE:WALL-INNER
G1 X169.75 Y165.75 E578.13414
G1 X155.25 Y165.75 E578.73698
G1 X155.25 Y139.25 E579.83872
G1 X169.75 Y139.25 E580.44156
G0 X170.25 Y138.75
;TYPE:WALL-OUTER
G1 X170.25 Y166.25 E581.58488
G1 X154.75 Y166.25 E582.22930
G1 X154.75 Y138.75 E583.37261
G1 X170.25 Y138.75 E584.01703
G0 X169.23 Y139.42
;TYPE:FILL
G1 X155.42 Y153.23 E584.82859
G0 X155.42 Y153.93
G1 X169.57 Y139.78 E585.66053
G0 X169.57 Y140.49
G1 X155.42 Y154.64 E586.49246
G0 X155.42 Y155.35
G1 X169.57 Y141.20 E587.32440
G0 X169.57 Y141.91
G1 X155.42 Y156.06 E588.15634
G0 X155.42 Y156.76
G1 X169.57 Y142.61 E588.98827
G0 X169.57 Y143.32
G1 X155.42 Y157.47 E589.82021
G0 X155.42 Y158.18
G1 X169.57 Y144.03 E590.65215
G0 X169.57 Y144.73
G1 X155.42 Y158.88 E591.48411
G0 X155.42 Y159.59
G1 X169.57 Y145.44 E592.31608
G0 X169.57 Y146.15
G1 X155.42 Y160.30 E593.14801
G0 X155.42 Y161.00
G1 X169.57 Y146.86 E593.97995
G0 X169.57 Y147.56
G1 X155.42 Y161.71 E594.81189
G0 X155.42 Y162.42
G1 X169.57 Y148.27 E595.64382
G0 X169.57 Y148.98
G1 X155.42 Y163.13 E596.47576
G0 X155.42 Y163.83
G1 X169.57 Y149.68 E597.30770
G0 X169.57 Y150.39
G1 X155.42 Y164.54 E598.13963
G0 X155.42 Y165.25
G1 X169.57 Y151.10 E598.97160
G0 X169.57 Y151.81
G1 X155.81 Y165.57 E599.78116
G0 X156.51 Y165.57
G1 X169.57 Y152.51 E600.54913
G0 X169.57 Y153.22
G1 X157.22 Y165.57 E601.27553
G0 X157.93 Y165.57
G1 X169.57 Y153.93 E601.96035
G0 X169.57 Y154.63
G1 X158.63 Y165.57 E602.60361
G0 X159.34 Y165.57
G1 X169.57 Y155.34 E603.20530
G0 X169.57 Y156.05
G1 X160.05 Y165.57 E603.76543
G0 X160.75 Y165.57
G1 X169.57 Y156.75 E604.28395
G0 X169.57 Y157.46
G1 X161.46 Y165.57 E604.76090
G0 X162.17 Y165.57
G1 X169.57 Y158.17 E605.19629
G0 X169.57 Y158.88
G1 X162.88 Y165.57 E605.59011
G0 X163.58 Y165.57
G1 X169.57 Y159.58 E605.94232
G0 X169.57 Y160.29
G1 X164.29 Y165.57 E606.25297
G0 X165.00 Y165.57
G1 X169.57 Y161.00 E606.52205
G0 X169.57 Y161.71
G1 X165.70 Y165.57 E606.74957
G0 X166.41 Y165.57
G1 X169.57 Y162.41 E606.93551
G0 X169.57 Y163.12
G1 X167.12 Y165.57 E607.07985
G0 X167.83 Y165.57
G1 X169.57 Y163.83 E607.18263
G0 X169.57 Y164.53
G1 X168.53 Y165.57 E607.24384
G0 X169.24 Y165.57
G1 X169.57 Y165.24 E607.26347
G0 X155.42 Y152.52
G1 X168.52 Y139.42 E608.03347
G0 X167.81 Y139.42
G1 X155.42 Y151.81 E608.76186
G0 X155.42 Y151.10
G1 X167.11 Y139.42 E609.44869
G0 X166.40 Y139.42
G1 X155.42 Y150.40 E610.09395
G0 X155.42 Y149.69
G1 X165.69 Y139.42 E610.69764
G0 X164.98 Y139.42
G1 X155.42 Y148.98 E611.25973
G0 X155.42 Y148.28
G1 X164.28 Y139.42 E611.78025
G0 X163.57 Y139.42
G1 X155.42 Y147.57 E612.25921
G0 X155.42 Y146.86
G1 X162.86 Y139.42 E612.69659
G0 X162.16 Y139.42
G1 X155.42 Y146.16 E613.09241
G0 X155.42 Y145.45
G1 X161.45 Y139.42 E613.44666
G0 X160.74 Y139.42
G1 X155.42 Y144.74 E613.75930
G0 X155.42 Y144.03
G1 X160.03 Y139.42 E614.03038
G0 X159.33 Y139.42
G1 X155.42 Y143.33 E614.25989
G0 X155.42 Y142.62
G1 X158.62 Y139.42 E614.44784
G0 X157.91 Y139.42
G1 X155.42 Y141.91 E614.59418
G0 X155.42 Y141.21
G1 X157.21 Y139.42 E614.69895
G0 X156.50 Y139.42
G1 X155.42 Y140.50 E614.76216
G0 X155.42 Y139.79
G1 X155.79 Y139.42 E614.78380
G0 X149.75 Y139.25
;TYPE:WALL-INNER
G1 X149.75 Y165.75 E615.88554
G1 X135.25 Y165.75 E616.48838
G1 X135.25 Y139.25 E617.59012
G1 X149.75 Y139.25 E618.19296
G0 X150.25 Y138.75
;TYPE:WALL-OUTER
G1 X150.25 Y166.25 E619.33628
G1 X134.75 Y166.25 E619.98069
G1 X134.75 Y138.75 E621.12401
G1 X150.25 Y138.75 E621.76843
G0 X149.43 Y139.42
;TYPE:FILL
G1 X135.43 Y153.43 E622.59178
G0 X135.43 Y154.13
G1 X149.57 Y139.99 E623.42371
G0 X149.57 Y140.69
G1 X135.43 Y154.84 E624.25562
G0 X135.43 Y155.55
G1 X149.57 Y141.40 E625.08753
G0 X149.57 Y142.11
G1 X135.43 Y156.26 E625.91944
G0 X135.43 Y156.96
G1 X149.57 Y142.81 E626.75134
G0 X149.57 Y143.52
G1 X135.43 Y157.67 E627.58325
G0 X135.43 Y158.38
G1 X149.57 Y144.23 E628.41516
G0 X149.57 Y144.94
G1 X135.43 Y159.08 E629.24706
G0 X135.43 Y159.79
G1 X149.57 Y145.64 E630.07897
G0 X149.57 Y146.35
G1 X135.43 Y160.50 E630.91091
G0 X135.43 Y161.21
G1 X149.57 Y147.06 E631.74284
G0 X149.57 Y147.76
G1 X135.43 Y161.91 E632.57475
G0 X135.43 Y162.62
G1 X149.57 Y148.47 E633.40666
G0 X149.57 Y149.18
G1 X135.43 Y163.33 E634.23856
G0 X135.43 Y164.03
G1 X149.57 Y149.88 E635.07047
G0 X149.57 Y150.59
G1 X135.43 Y164.74 E635.90238
G0 X135.43 Y165.45
G1 X149.57 Y151.30 E636.73428
G0 X149.57 Y152.01
G1 X136.01 Y165.57 E637.53203
G0 X136.71 Y165.57
G1 X149.57 Y152.71 E638.28821
G0 X149.57 Y153.42
G1 X137.42 Y165.57 E639.00282
G0 X138.13 Y165.57
G1 X149.57 Y154.13 E639.67583
G0 X149.57 Y154.84
G1 X138.83 Y165.57 E640.30727
G0 X139.54 Y165.57
G1 X149.57 Y155.54 E640.89714
G0 X149.57 Y156.25
G1 X140.25 Y165.57 E641.44545
G0 X140.96 Y165.57
G1 X149.57 Y156.96 E641.95215
G0 X149.57 Y157.66
G1 X141.66 Y165.57 E642.41729
G0 X142.37 Y165.57
G1 X149.57 Y158.37 E642.84085
G0 X149.57 Y159.08
G1 X143.08 Y165.57 E643.22285
G0 X143.78 Y165.57
G1 X149.57 Y159.78 E643.56328
G0 X149.57 Y160.49
G1 X144.49 Y165.57 E643.86211
G0 X145.20 Y165.57
G1 X149.57 Y161.20 E644.11938
G0 X149.57 Y161.91
G1 X145.91 Y165.57 E644.33507
G0 X146.61 Y165.57
G1 X149.57 Y162.61 E644.50920
G0 X149.57 Y163.32
G1 X147.32 Y165.57 E644.64172
G0 X148.03 Y165.57
G1 X149.57 Y164.03 E644.73268
G0 X149.57 Y164.73
G1 X148.73 Y165.57 E644.78207
G0 X149.44 Y165.57
G1 X149.57 Y165.44 E644.78989
G0 X135.43 Y152.72
G1 X148.72 Y139.42 E645.57164
G0 X148.01 Y139.42
G1 X135.43 Y152.01 E646.31183
G0 X135.43 Y151.31
G1 X147.31 Y139.42 E647.01044
G0 X146.60 Y139.42
G1 X135.43 Y150.60 E647.66749
G0 X135.43 Y149.89
G1 X145.89 Y139.42 E648.28297
G0 X145.19 Y139.42
G1 X135.43 Y149.19 E648.85685
G0 X135.43 Y148.48
G1 X144.48 Y139.42 E649.38916
G0 X143.77 Y139.42
G1 X135.43 Y147.77 E649.87990
G0 X135.43 Y147.06
G1 X143.06 Y139.42 E650.32908
G0 X142.36 Y139.42
G1 X135.43 Y146.36 E650.73665
G0 X135.43 Y145.65
G1 X141.65 Y139.42 E651.10266
G0 X140.94 Y139.42
G1 X135.43 Y144.94 E651.42709
G0 X135.43 Y144.24
G1 X140.24 Y139.42 E651.70996
G0 X139.53 Y139.42
G1 X135.43 Y143.53 E651.95126
G0 X135.43 Y142.82
G1 X138.82 Y139.42 E652.15099
G0 X138.11 Y139.42
G1 X135.43 Y142.11 E652.30913
G0 X135.43 Y141.41
G1 X137.41 Y139.42 E652.42569
G0 X136.70 Y139.42
G1 X135.43 Y140.70 E652.50068
G0 X135.43 Y139.99
G1 X135.99 Y139.42 E652.53411
;LAYER:6
G0 X135.25 Y139.25 Z1.50
;TYPE:WALL-INNER
G1 X149.75 Y139.25 E653.13695
G1 X149.75 Y165.75 E654.23869
G1 X135.25 Y165.75 E654.84153
G1 X135.25 Y139.25 E655.94327
G0 X134.75 Y138.75
;TYPE:WALL-OUTER
G1 X150.25 Y138.75 E656.58769
G1 X150.25 Y166.25 E657.73100
G1 X134.75 Y166.25 E658.37542
G1 X134.75 Y138.75 E659.51874
G0 X135.89 Y139.42
;TYPE:FILL
G1 X149.57 Y153.11 E660.32345
G0 X149.12 Y153.72
G1 X148.69 Y153.28 E660.34926
G0 X147.98 Y153.28
G1 X149.12 Y154.43 E660.41664
G0 X149.57 Y154.52
G1 X135.43 Y140.37 E661.24861
G0 X135.43 Y141.79
G1 X147.57 Y153.93 E661.96257
G0 X147.27 Y153.28
G1 X149.12 Y155.13 E662.07155
G0 X149.12 Y155.84
G1 X146.56 Y153.28 E662.22210
G0 X145.86 Y153.28
G1 X149.12 Y156.55 E662.41421
G0 X149.12 Y157.26
G1 X145.15 Y153.28 E662.64793
G0 X144.44 Y153.28
G1 X149.12 Y157.96 E662.92321
G0 X149.12 Y158.67
G1 X143.74 Y153.28 E663.24006
G0 X143.03 Y153.28
G1 X149.12 Y159.38 E663.59849
G0 X149.12 Y160.09
G1 X142.32 Y153.28 E663.99848
G0 X141.62 Y153.28
G1 X149.12 Y160.79 E664.44004
G0 X149.12 Y161.50
G1 X140.91 Y153.28 E664.92319
G0 X140.20 Y153.28
G1 X149.12 Y162.21 E665.44792
G0 X149.12 Y162.91
G1 X139.49 Y153.28 E666.01421
G0 X138.79 Y153.28
G1 X149.12 Y163.62 E666.62208
G0 X149.09 Y164.29
G1 X138.08 Y153.28 E667.26919
G0 X137.37 Y153.28
G1 X149.09 Y165.00 E667.95787
G0 X148.96 Y165.57
G1 X136.66 Y153.28 E668.68056
G0 X135.96 Y153.28
G1 X148.25 Y165.57 E669.40325
G0 X147.54 Y165.57
G1 X135.88 Y153.91 E670.08920
G0 X135.88 Y154.61
G1 X146.84 Y165.57 E670.73358
G0 X146.13 Y165.57
G1 X135.88 Y155.32 E671.33638
G0 X135.88 Y156.03
G1 X145.42 Y165.57 E671.89762
G0 X144.71 Y165.57
G1 X135.88 Y156.74 E672.41729
G0 X135.88 Y157.44
G1 X144.01 Y165.57 E672.89539
G0 X143.30 Y165.57
G1 X135.88 Y158.15 E673.33190
G0 X135.88 Y158.86
G1 X142.59 Y165.57 E673.72683
G0 X141.88 Y165.57
G1 X135.88 Y159.56 E674.08017
G0 X135.88 Y160.27
G1 X141.18 Y165.57 E674.39193
G0 X140.47 Y165.57
G1 X135.88 Y160.98 E674.66213
G0 X135.88 Y161.69
G1 X139.76 Y165.57 E674.89076
G0 X139.06 Y165.57
G1 X135.88 Y162.39 E675.07782
G0 X135.88 Y163.10
G1 X138.35 Y165.57 E675.22331
G0 X137.64 Y165.57
G1 X135.91 Y163.84 E675.32494
G0 X135.91 Y164.55
G1 X136.94 Y165.57 E675.38500
G0 X136.56 Y165.56
G1 X135.43 Y164.42 E675.45200
G0 X135.91 Y165.26
G1 X136.23 Y165.57 E675.47046
G0 X136.56 Y164.14
G1 X135.43 Y163.00 E675.53746
G0 X136.53 Y162.69
G1 X135.43 Y161.59 E675.60219
G0 X136.53 Y161.27
G1 X135.43 Y160.17 E675.66693
G0 X136.53 Y159.86
G1 X135.43 Y158.76 E675.73166
G0 X136.53 Y158.45
G1 X135.43 Y157.34 E675.79640
G0 X136.53 Y157.03
G1 X135.43 Y155.93 E675.86113
G0 X136.53 Y155.62
G1 X135.43 Y154.52 E675.92587
G0 X136.53 Y154.20
G1 X135.43 Y153.10 E675.99060
G0 X135.43 Y151.69
G1 X137.67 Y153.93 E676.12251
G0 X139.08 Y153.93
G1 X135.43 Y150.27 E676.33756
G0 X135.43 Y148.86
G1 X140.50 Y153.93 E676.63577
G0 X141.91 Y153.93
G1 X135.43 Y147.44 E677.01715
G0 X135.43 Y146.03
G1 X143.32 Y153.93 E677.48167
G0 X144.74 Y153.93
G1 X135.43 Y144.62 E678.02933
G0 X135.43 Y143.20
G1 X146.15 Y153.93 E678.66015
G0 X148.47 Y154.84
G1 X149.57 Y155.94 E678.72486
G0 X148.47 Y156.25
G1 X149.57 Y157.35 E678.78959
G0 X148.47 Y157.67
G1 X149.57 Y158.77 E678.85430
G0 X148.47 Y159.08
G1 X149.57 Y160.18 E678.91900
G0 X148.47 Y160.50
G1 X149.57 Y161.59 E678.98371
G0 X148.47 Y161.91
G1 X149.57 Y163.01 E679.04844
G0 X148.44 Y163.28
G1 X149.57 Y164.42 E679.11544
G0 X148.44 Y164.70
G1 X149.31 Y165.57 E679.16689
G0 X149.57 Y151.70
G1 X137.30 Y139.42 E679.88843
G0 X138.72 Y139.42
G1 X149.57 Y150.28 E680.52684
G0 X149.57 Y148.87
G1 X140.13 Y139.42 E681.08208
G0 X141.54 Y139.42
G1 X149.57 Y147.45 E681.55419
G0 X149.57 Y146.04
G1 X142.96 Y139.42 E681.94313
G0 X144.37 Y139.42
G1 X149.57 Y144.62 E682.24892
G0 X149.57 Y143.21
G1 X145.79 Y139.42 E682.47159
G0 X147.20 Y139.42
G1 X149.57 Y141.80 E682.61108
G0 X149.57 Y140.38
G1 X148.62 Y139.42 E682.66744
G0 X155.25 Y139.25
;TYPE:WALL-INNER
G1 X169.75 Y139.25 E683.27028
G1 X169.75 Y165.75 E684.37202
G1 X155.25 Y165.75 E684.97486
G1 X155.25 Y139.25 E686.07660
G0 X154.75 Y138.75
;TYPE:WALL-OUTER
G1 X170.25 Y138.75 E686.72101
G1 X170.25 Y166.25 E687.86433
G1 X154.75 Y166.25 E688.50875
G1 X154.75 Y138.75 E689.65206
G0 X155.69 Y139.43
;TYPE:FILL
G1 X169.57 Y153.31 E690.46848
G0 X169.12 Y153.92
G1 X168.49 Y153.28 E690.50593
G0 X167.78 Y153.28
G1 X169.12 Y154.63 E690.58495
G0 X169.57 Y154.72
G1 X155.42 Y140.57 E691.41692
G0 X155.42 Y141.99
G1 X167.37 Y153.93 E692.11912
G0 X167.07 Y153.28
G1 X169.12 Y155.33 E692.23971
G0 X169.12 Y156.04
G1 X166.36 Y153.28 E692.40187
G0 X165.66 Y153.28
G1 X169.12 Y156.75 E692.60560
G0 X169.12 Y157.46
G1 X164.95 Y153.28 E692.85090
G0 X164.24 Y153.28
G1 X169.12 Y158.16 E693.13776
G0 X169.12 Y158.87
G1 X163.54 Y153.28 E693.46620
G0 X162.83 Y153.28
G1 X169.12 Y159.58 E693.83623
G0 X169.12 Y160.28
G1 X162.12 Y153.28 E694.24787
G0 X161.41 Y153.28
G1 X169.12 Y160.99 E694.70107
G0 X169.12 Y161.70
G1 X160.71 Y153.28 E695.19584
G0 X160.00 Y153.28
G1 X169.12 Y162.41 E695.73218
G0 X169.12 Y163.11
G1 X159.29 Y153.28 E696.31008
G0 X158.59 Y153.28
G1 X169.08 Y163.78 E696.92732
G0 X169.08 Y164.49
G1 X157.88 Y153.28 E697.58614
G0 X157.17 Y153.28
G1 X169.08 Y165.19 E698.28652
G0 X169.11 Y165.57
G1 X168.43 Y164.90 E698.32626
G0 X168.76 Y165.57
G1 X156.47 Y153.28 E699.04893
G0 X155.87 Y153.40
G1 X168.05 Y165.57 E699.76480
G0 X167.34 Y165.57
G1 X155.87 Y154.11 E700.43910
G0 X155.87 Y154.81
G1 X166.63 Y165.57 E701.07184
G0 X165.93 Y165.57
G1 X155.87 Y155.52 E701.66300
G0 X155.87 Y156.23
G1 X165.22 Y165.57 E702.21260
G0 X164.51 Y165.57
G1 X155.87 Y156.93 E702.72063
G0 X155.87 Y157.64
G1 X163.81 Y165.57 E703.18706
G0 X163.10 Y165.57
G1 X155.87 Y158.35 E703.61192
G0 X155.87 Y159.06
G1 X162.39 Y165.57 E703.99521
G0 X161.69 Y165.57
G1 X155.87 Y159.76 E704.33694
G0 X155.87 Y160.47
G1 X160.98 Y165.57 E704.63706
G0 X160.27 Y165.57
G1 X155.87 Y161.18 E704.89562
G0 X155.87 Y161.88
G1 X159.56 Y165.57 E705.11260
G0 X158.86 Y165.57
G1 X155.87 Y162.59 E705.28802
G0 X155.87 Y163.30
G1 X158.15 Y165.57 E705.42187
G0 X157.44 Y165.57
G1 X155.91 Y164.04 E705.51177
G0 X155.91 Y164.75
G1 X156.74 Y165.57 E705.56010
G0 X156.38 Y165.57
G1 X155.42 Y164.62 E705.61640
G0 X155.91 Y165.46
G1 X156.03 Y165.57 E705.62316
G0 X156.56 Y164.34
G1 X155.42 Y163.20 E705.69019
G0 X156.53 Y162.89
G1 X155.42 Y161.79 E705.75492
G0 X156.53 Y161.47
G1 X155.42 Y160.37 E705.81966
G0 X156.53 Y160.06
G1 X155.42 Y158.96 E705.88439
G0 X156.53 Y158.65
G1 X155.42 Y157.54 E705.94913
G0 X156.53 Y157.23
G1 X155.42 Y156.13 E706.01386
G0 X156.53 Y155.82
G1 X155.42 Y154.72 E706.07860
G0 X156.53 Y154.40
G1 X155.42 Y153.30 E706.14333
G0 X155.42 Y151.89
G1 X157.47 Y153.93 E706.26351
G0 X158.88 Y153.93
G1 X155.42 Y150.47 E706.46683
G0 X155.42 Y149.06
G1 X160.30 Y153.93 E706.75328
G0 X161.71 Y153.93
G1 X155.42 Y147.65 E707.12290
G0 X155.42 Y146.23
G1 X163.12 Y153.93 E707.57569
G0 X164.54 Y153.93
G1 X155.42 Y144.82 E708.11162
G0 X155.42 Y143.40
G1 X165.95 Y153.93 E708.73068
G0 X168.47 Y155.04
G1 X169.57 Y156.14 E708.79542
G0 X168.47 Y156.45
G1 X169.57 Y157.55 E708.86015
G0 X168.47 Y157.87
G1 X169.57 Y158.97 E708.92489
G0 X168.47 Y159.28
G1 X169.57 Y160.38 E708.98962
G0 X168.47 Y160.69
G1 X169.57 Y161.79 E709.05436
G0 X168.47 Y162.11
G1 X169.57 Y163.21 E709.11909
G0 X168.43 Y163.48
G1 X169.57 Y164.62 E709.18612
G0 X169.57 Y151.90
G1 X157.10 Y139.43 E709.91940
G0 X158.52 Y139.43
G1 X169.57 Y150.48 E710.56951
G0 X169.57 Y149.07
G1 X159.93 Y139.43 E711.13648
G0 X161.34 Y139.43
G1 X169.57 Y147.65 E711.62028
G0 X169.57 Y146.24
G1 X162.76 Y139.43 E712.02095
G0 X164.17 Y139.43
G1 X169.57 Y144.82 E712.33848
G0 X169.57 Y143.41
G1 X165.59 Y139.43 E712.57284
G0 X167.00 Y139.43
G1 X169.57 Y142.00 E712.72403
G0 X169.57 Y140.58
G1 X168.42 Y139.43 E712.79209
;LAYER:7
G0 X169.75 Y139.25 Z1.70
;TYPE:WALL-INNER
G1 X169.75 Y165.75 E713.89383
G1 X155.25 Y165.75 E714.49667
G1 X155.25 Y139.25 E715.59841
G1 X169.75 Y139.25 E716.20125
G0 X170.25 Y138.75
;TYPE:WALL-OUTER
G1 X170.25 Y166.25 E717.34457
G1 X154.75 Y166.25 E717.98899
G1 X154.75 Y138.75 E719.13230
G1 X170.25 Y138.75 E719.77672
G0 X169.57 Y139.43
;TYPE:FILL
G1 X155.42 Y153.58 E720.60865
G0 X155.87 Y153.48
G1 X156.70 Y152.66 E720.65698
G0 X157.40 Y152.66
G1 X155.87 Y154.19 E720.74688
G0 X155.87 Y154.90
G1 X158.11 Y152.66 E720.87835
G0 X158.82 Y152.66
G1 X155.87 Y155.60 E721.05139
G0 X155.87 Y156.31
G1 X159.52 Y152.66 E721.26602
G0 X160.23 Y152.66
G1 X155.87 Y157.02 E721.52223
G0 X155.87 Y157.73
G1 X160.94 Y152.66 E721.82000
G0 X161.65 Y152.66
G1 X155.87 Y158.43 E722.15937
G0 X155.88 Y159.14
G1 X162.35 Y152.66 E722.54025
G0 X163.06 Y152.66
G1 X155.88 Y159.85 E722.96271
G0 X155.88 Y160.55
G1 X163.77 Y152.66 E723.42672
G0 X164.47 Y152.66
G1 X155.88 Y161.26 E723.93234
G0 X155.88 Y161.97
G1 X165.18 Y152.66 E724.47953
G0 X165.89 Y152.66
G1 X155.88 Y162.68 E725.06828
G0 X155.88 Y163.38
G1 X166.59 Y152.66 E725.69861
G0 X167.30 Y152.66
G1 X155.88 Y164.09 E726.37050
G0 X155.91 Y164.76
G1 X168.01 Y152.66 E727.08167
G0 X168.69 Y152.69
G1 X155.91 Y165.47 E727.83285
G0 X156.16 Y165.57
G1 X156.56 Y165.17 E727.85663
G0 X156.51 Y165.57
G1 X169.12 Y152.96 E728.59817
G0 X169.12 Y153.67
G1 X157.22 Y165.57 E729.29814
G0 X157.93 Y165.57
G1 X169.12 Y154.38 E729.95654
G0 X169.12 Y155.08
G1 X158.63 Y165.57 E730.57334
G0 X159.34 Y165.57
G1 X169.12 Y155.79 E731.14857
G0 X169.12 Y156.50
G1 X160.05 Y165.57 E731.68224
G0 X160.75 Y165.57
G1 X169.12 Y157.21 E732.17430
G0 X169.12 Y157.91
G1 X161.46 Y165.57 E732.62480
G0 X162.17 Y165.57
G1 X169.12 Y158.62 E733.03372
G0 X169.12 Y159.33
G1 X162.88 Y165.57 E733.40108
G0 X163.58 Y165.57
G1 X169.12 Y160.03 E733.72687
G0 X169.12 Y160.74
G1 X164.29 Y165.57 E734.01109
G0 X165.00 Y165.57
G1 X169.12 Y161.45 E734.25372
G0 X169.12 Y162.16
G1 X165.70 Y165.57 E734.45477
G0 X166.41 Y165.57
G1 X169.12 Y162.86 E734.61425
G0 X169.12 Y163.57
G1 X167.12 Y165.57 E734.73214
G0 X167.82 Y165.57
G1 X169.12 Y164.28 E734.80846
G0 X169.08 Y165.02
G1 X168.71 Y165.57 E734.84088
G1 X169.57 Y164.89 E734.88680
G0 X168.43 Y164.61
G1 X169.57 Y163.47 E734.95383
G0 X168.47 Y163.16
G1 X169.57 Y162.06 E735.01857
G0 X168.47 Y161.75
G1 X169.57 Y160.64 E735.08330
G0 X168.47 Y160.33
G1 X169.57 Y159.23 E735.14801
G0 X168.47 Y158.92
G1 X169.57 Y157.82 E735.21271
G0 X168.47 Y157.50
G1 X169.57 Y156.40 E735.27742
G0 X168.47 Y156.09
G1 X169.57 Y154.99 E735.34215
G0 X168.47 Y154.67
G1 X169.57 Y153.57 E735.40686
G0 X168.40 Y153.33
G1 X169.57 Y152.16 E735.47579
G0 X169.57 Y150.75
G1 X166.99 Y153.33 E735.62775
G0 X165.58 Y153.33
G1 X169.57 Y149.33 E735.86273
G0 X169.57 Y147.92
G1 X164.16 Y153.32 E736.18076
G0 X162.75 Y153.32
G1 X169.57 Y146.50 E736.58175
G0 X169.57 Y145.09
G1 X161.34 Y153.32 E737.06579
G0 X159.93 Y153.32
G1 X169.57 Y143.67 E737.63285
G0 X169.57 Y142.26
G1 X158.52 Y153.32 E738.28296
G0 X157.11 Y153.31
G1 X169.57 Y140.84 E739.01603
G0 X168.17 Y139.42
G1 X155.42 Y152.17 E739.76521
G0 X155.96 Y152.69
G1 X155.87 Y152.78 E739.77044
G0 X156.52 Y153.90
G1 X155.42 Y154.99 E739.83509
G0 X156.52 Y155.31
G1 X155.42 Y156.41 E739.89976
G0 X156.52 Y156.72
G1 X155.42 Y157.82 E739.96444
G0 X156.52 Y158.14
G1 X155.42 Y159.24 E740.02909
G0 X156.52 Y159.55
G1 X155.42 Y160.65 E740.09373
G0 X156.52 Y160.97
G1 X155.42 Y162.07 E740.15841
G0 X156.52 Y162.38
G1 X155.42 Y163.48 E740.22308
G0 X156.56 Y163.76
G1 X155.42 Y164.89 E740.29002
G0 X155.42 Y150.75
G1 X166.75 Y139.42 E740.95607
G0 X165.34 Y139.42
G1 X155.42 Y149.34 E741.53897
G0 X155.42 Y147.92
G1 X163.92 Y139.42 E742.03871
G0 X162.51 Y139.42
G1 X155.42 Y146.51 E742.45531
G0 X155.42 Y145.09
G1 X161.09 Y139.42 E742.78874
G0 X159.68 Y139.42
G1 X155.42 Y143.68 E743.03904
G0 X155.42 Y142.27
G1 X158.27 Y139.42 E743.20620
G0 X156.85 Y139.42
G1 X155.42 Y140.85 E743.29019
G0 X149.75 Y139.25
;TYPE:WALL-INNER
G1 X149.75 Y165.75 E744.39193
G1 X135.25 Y165.75 E744.99477
G1 X135.25 Y139.25 E746.09651
G1 X149.75 Y139.25 E746.69935
G0 X150.25 Y138.75
;TYPE:WALL-OUTER
G1 X150.25 Y166.25 E747.84267
G1 X134.75 Y166.25 E748.48708
G1 X134.75 Y138.75 E749.63040
G1 X150.25 Y138.75 E750.27481
G0 X149.57 Y139.63
;TYPE:FILL
G1 X135.43 Y153.78 E751.10672
G0 X135.88 Y153.68
G1 X136.90 Y152.66 E751.16678
G0 X137.60 Y152.66
G1 X135.88 Y154.39 E751.26844
G0 X135.88 Y155.10
G1 X138.31 Y152.66 E751.41167
G0 X139.02 Y152.66
G1 X135.88 Y155.81 E751.59646
G0 X135.88 Y156.51
G1 X139.73 Y152.66 E751.82283
G0 X140.43 Y152.66
G1 X135.88 Y157.22 E752.09076
G0 X135.88 Y157.93
G1 X141.14 Y152.66 E752.40027
G0 X141.85 Y152.66
G1 X135.88 Y158.63 E752.75134
G0 X135.88 Y159.34
G1 X142.55 Y152.66 E753.14398
G0 X143.26 Y152.66
G1 X135.88 Y160.05 E753.57819
G0 X135.88 Y160.75
G1 X143.97 Y152.66 E754.05403
G0 X144.68 Y152.66
G1 X135.88 Y161.46 E754.57143
G0 X135.88 Y162.17
G1 X145.38 Y152.66 E755.13041
G0 X146.09 Y152.66
G1 X135.88 Y162.88 E755.73095
G0 X135.88 Y163.58
G1 X146.80 Y152.66 E756.37307
G0 X147.50 Y152.66
G1 X135.88 Y164.29 E757.05675
G0 X135.91 Y164.96
G1 X148.21 Y152.66 E757.77970
G0 X148.88 Y152.70
G1 X136.01 Y165.57 E758.53656
G0 X136.36 Y165.57
G1 X136.56 Y165.37 E758.54861
G0 X136.71 Y165.57
G1 X149.12 Y153.16 E759.27830
G0 X149.12 Y153.87
G1 X137.42 Y165.57 E759.96642
G0 X138.13 Y165.57
G1 X149.12 Y154.58 E760.61297
G0 X149.12 Y155.28
G1 X138.84 Y165.57 E761.21796
G0 X139.54 Y165.57
G1 X149.12 Y155.99 E761.78137
G0 X149.12 Y156.70
G1 X140.25 Y165.57 E762.30319
G0 X140.96 Y165.57
G1 X149.12 Y157.41 E762.78343
G0 X149.12 Y158.11
G1 X141.66 Y165.57 E763.22211
G0 X142.37 Y165.57
G1 X149.12 Y158.82 E763.61919
G0 X149.12 Y159.53
G1 X143.08 Y165.57 E763.97470
G0 X143.78 Y165.57
G1 X149.12 Y160.23 E764.28865
G0 X149.12 Y160.94
G1 X144.49 Y165.57 E764.56102
G0 X145.20 Y165.57
G1 X149.12 Y161.65 E764.79182
G0 X149.12 Y162.35
G1 X145.91 Y165.57 E764.98106
G0 X146.61 Y165.57
G1 X149.12 Y163.06 E765.12870
G0 X149.12 Y163.77
G1 X147.32 Y165.57 E765.23476
G0 X148.03 Y165.57
G1 X149.09 Y164.52 E765.29697
G0 X149.09 Y165.22
G1 X148.91 Y165.57 E765.31758
G1 X149.57 Y165.09 E765.35179
G0 X148.44 Y164.81
G1 X149.57 Y163.67 E765.41873
G0 X148.47 Y163.36
G1 X149.57 Y162.26 E765.48341
G0 X148.47 Y161.94
G1 X149.57 Y160.84 E765.54808
G0 X148.47 Y160.53
G1 X149.57 Y159.43 E765.61273
G0 X148.47 Y159.12
G1 X149.57 Y158.02 E765.67738
G0 X148.47 Y157.70
G1 X149.57 Y156.60 E765.74205
G0 X148.47 Y156.29
G1 X149.57 Y155.19 E765.80673
G0 X148.47 Y154.87
G1 X149.57 Y153.77 E765.87140
G0 X148.47 Y153.46
G1 X149.57 Y152.36 E765.93605
G0 X149.57 Y150.95
G1 X147.19 Y153.33 E766.07619
G0 X145.78 Y153.33
G1 X149.57 Y149.53 E766.29932
G0 X149.57 Y148.12
G1 X144.37 Y153.32 E766.60547
G0 X142.96 Y153.32
G1 X149.57 Y146.70 E766.99465
G0 X149.57 Y145.29
G1 X141.54 Y153.32 E767.46687
G0 X140.13 Y153.32
G1 X149.57 Y143.88 E768.02205
G0 X149.57 Y142.46
G1 X138.72 Y153.31 E768.66028
G0 X137.31 Y153.31
G1 X149.57 Y141.05 E769.38153
G0 X148.37 Y139.42
G1 X135.43 Y152.37 E770.14250
G0 X135.88 Y152.98
G1 X136.17 Y152.68 E770.15991
G0 X136.53 Y154.09
G1 X135.43 Y155.19 E770.22464
G0 X136.53 Y155.51
G1 X135.43 Y156.61 E770.28938
G0 X136.53 Y156.92
G1 X135.43 Y158.02 E770.35411
G0 X136.53 Y158.34
G1 X135.43 Y159.44 E770.41885
G0 X136.53 Y159.75
G1 X135.43 Y160.85 E770.48358
G0 X136.53 Y161.16
G1 X135.43 Y162.27 E770.54832
G0 X136.53 Y162.58
G1 X135.43 Y163.68 E770.61305
G0 X136.56 Y163.96
G1 X135.43 Y165.09 E770.68005
G0 X135.43 Y150.95
G1 X146.95 Y139.42 E771.35788
G0 X145.54 Y139.42
G1 X135.43 Y149.54 E771.95254
G0 X135.43 Y148.12
G1 X144.12 Y139.42 E772.46407
G0 X142.71 Y139.42
G1 X135.43 Y146.71 E772.89246
G0 X135.43 Y145.30
G1 X141.30 Y139.42 E773.23768
G0 X139.88 Y139.42
G1 X135.43 Y143.88 E773.49977
G0 X135.43 Y142.47
G1 X138.47 Y139.42 E773.67868
G0 X137.05 Y139.42
G1 X135.43 Y141.05 E773.77446
G0 X135.43 Y139.64
G1 X135.64 Y139.42 E773.78710
;LAYER:8
G0 X135.25 Y139.25 Z1.90
;TYPE:WALL-INNER
G1 X149.75 Y139.25 E774.38994
G1 X149.75 Y165.75 E775.49168
G1 X135.25 Y165.75 E776.09452
G1 X135.25 Y139.25 E777.19627
G0 X134.75 Y138.75
;TYPE:WALL-OUTER
G1 X150.25 Y138.75 E777.84068
G1 X150.25 Y166.25 E778.98400
G1 X134.75 Y166.25 E779.62841
G1 X134.75 Y138.75 E780.77173
G0 X135.89 Y139.42
;TYPE:FILL
G1 X149.57 Y153.11 E781.57644
G0 X149.12 Y153.01
G1 X148.12 Y152.00 E781.63583
G0 X147.41 Y152.00
G1 X149.12 Y153.72 E781.73678
G0 X149.12 Y154.43
G1 X146.70 Y152.00 E781.87930
G0 X145.99 Y152.00
G1 X149.12 Y155.13 E782.06339
G0 X149.12 Y155.84
G1 X145.29 Y152.00 E782.28905
G0 X144.58 Y152.00
G1 X149.12 Y156.55 E782.55628
G0 X149.12 Y157.26
G1 X143.87 Y152.00 E782.86514
G0 X143.16 Y152.00
G1 X149.12 Y157.96 E783.21556
G0 X149.12 Y158.67
G1 X142.46 Y152.00 E783.60756
G0 X141.75 Y152.00
G1 X149.12 Y159.38 E784.04112
G0 X149.12 Y160.09
G1 X141.04 Y152.00 E784.51625
G0 X140.34 Y152.00
G1 X149.12 Y160.79 E785.03295
G0 X149.12 Y161.50
G1 X139.63 Y152.00 E785.59122
G0 X138.92 Y152.00
G1 X149.12 Y162.21 E786.19106
G0 X149.12 Y162.91
G1 X138.22 Y152.00 E786.83247
G0 X137.51 Y152.00
G1 X149.12 Y163.62 E787.51547
G0 X149.12 Y164.33
G1 X136.80 Y152.00 E788.24008
G0 X136.09 Y152.00
G1 X149.12 Y165.03 E789.00625
G0 X148.96 Y165.57
G1 X135.88 Y152.49 E789.77533
G0 X135.88 Y153.20
G1 X148.25 Y165.57 E790.50285
G0 X147.54 Y165.57
G1 X135.88 Y153.91 E791.18879
G0 X135.88 Y154.61
G1 X146.84 Y165.57 E791.83317
G0 X146.13 Y165.57
G1 X135.88 Y155.32 E792.43598
G0 X135.88 Y156.03
G1 X145.42 Y165.57 E792.99722
G0 X144.71 Y165.57
G1 X135.88 Y156.74 E793.51689
G0 X135.88 Y157.44
G1 X144.01 Y165.57 E793.99499
G0 X143.30 Y165.57
G1 X135.88 Y158.15 E794.43149
G0 X135.88 Y158.86
G1 X142.59 Y165.57 E794.82643
G0 X141.88 Y165.57
G1 X135.88 Y159.56 E795.17976
G0 X135.88 Y160.27
G1 X141.18 Y165.57 E795.49153
G0 X140.47 Y165.57
G1 X135.88 Y160.98 E795.76173
G0 X135.88 Y161.69
G1 X139.76 Y165.57 E795.99035
G0 X139.06 Y165.57
G1 X135.88 Y162.39 E796.17741
G0 X135.88 Y163.10
G1 X138.35 Y165.57 E796.32291
G0 X137.64 Y165.57
G1 X135.88 Y163.81 E796.42683
G0 X135.88 Y164.51
G1 X136.94 Y165.57 E796.48915
G0 X136.56 Y165.56
G1 X135.43 Y164.42 E796.55615
G0 X135.91 Y165.26
G1 X136.23 Y165.57 E796.57461
G0 X136.53 Y164.10
G1 X135.43 Y163.00 E796.63935
G0 X136.53 Y162.69
G1 X135.43 Y161.59 E796.70408
G0 X136.53 Y161.27
G1 X135.43 Y160.17 E796.76882
G0 X136.53 Y159.86
G1 X135.43 Y158.76 E796.83355
G0 X136.53 Y158.45
G1 X135.43 Y157.34 E796.89828
G0 X136.53 Y157.03
G1 X135.43 Y155.93 E796.96302
G0 X136.53 Y155.62
G1 X135.43 Y154.52 E797.02775
G0 X136.53 Y154.20
G1 X135.43 Y153.10 E797.09249
G0 X136.53 Y152.79
G1 X135.43 Y151.69 E797.15722
G0 X135.43 Y150.27
G1 X137.81 Y152.66 E797.29719
G0 X139.22 Y152.66
G1 X135.43 Y148.86 E797.52038
G0 X135.43 Y147.44
G1 X140.64 Y152.66 E797.82685
G0 X142.05 Y152.66
G1 X135.43 Y146.03 E798.21661
G0 X135.43 Y144.62
G1 X143.47 Y152.66 E798.68960
G0 X144.89 Y152.66
G1 X135.43 Y143.20 E799.24587
G0 X135.43 Y141.79
G1 X146.30 Y152.67 E799.88539
G0 X147.72 Y152.67
G1 X135.43 Y140.37 E800.60818
G0 X137.30 Y139.42
G1 X149.57 Y151.70 E801.32972
G0 X149.12 Y152.31
G1 X148.85 Y152.03 E801.34571
G0 X148.47 Y153.42
G1 X149.57 Y154.52 E801.41042
G0 X148.47 Y154.84
G1 X149.57 Y155.94 E801.47513
G0 X148.47 Y156.25
G1 X149.57 Y157.35 E801.53986
G0 X148.47 Y157.67
G1 X149.57 Y158.77 E801.60457
G0 X148.47 Y159.08
G1 X149.57 Y160.18 E801.66927
G0 X148.47 Y160.50
G1 X149.57 Y161.59 E801.73398
G0 X148.47 Y161.91
G1 X149.57 Y163.01 E801.79871
G0 X148.47 Y163.32
G1 X149.57 Y164.42 E801.86344
G0 X148.44 Y164.70
G1 X149.31 Y165.57 E801.91489
G0 X149.57 Y150.28
G1 X138.72 Y139.42 E802.55330
G0 X140.13 Y139.42
G1 X149.57 Y148.87 E803.10854
G0 X149.57 Y147.45
G1 X141.54 Y139.42 E803.58065
G0 X142.96 Y139.42
G1 X149.57 Y146.04 E803.96958
G0 X149.57 Y144.62
G1 X144.37 Y139.42 E804.27538
G0 X145.79 Y139.42
G1 X149.57 Y143.21 E804.49804
G0 X149.57 Y141.80
G1 X147.20 Y139.42 E804.63754
G0 X148.62 Y139.42
G1 X149.57 Y140.38 E804.69389
G0 X155.25 Y139.25
;TYPE:WALL-INNER
G1 X169.75 Y139.25 E805.29673
G1 X169.75 Y165.75 E806.39847
G1 X155.25 Y165.75 E807.00131
G1 X155.25 Y139.25 E808.10306
G0 X154.75 Y138.75
;TYPE:WALL-OUTER
G1 X170.25 Y138.75 E808.74747
G1 X170.25 Y166.25 E809.89079
G1 X154.75 Y166.25 E810.53520
G1 X154.75 Y138.75 E811.67852
G0 X155.69 Y139.43
;TYPE:FILL
G1 X169.57 Y153.31 E812.49493
G0 X169.12 Y153.21
G1 X167.91 Y152.00 E812.56596
G0 X167.21 Y152.00
G1 X169.12 Y153.92 E812.67856
G0 X169.12 Y154.63
G1 X166.50 Y152.00 E812.83272
G0 X165.79 Y152.00
G1 X169.12 Y155.34 E813.02851
G0 X169.12 Y156.04
G1 X165.09 Y152.00 E813.26587
G0 X164.38 Y152.00
G1 X169.12 Y156.75 E813.54480
G0 X169.12 Y157.46
G1 X163.67 Y152.00 E813.86530
G0 X162.97 Y152.00
G1 X169.12 Y158.16 E814.22736
G0 X169.12 Y158.87
G1 X162.26 Y152.00 E814.63100
G0 X161.55 Y152.00
G1 X169.12 Y159.58 E815.07620
G0 X169.12 Y160.28
G1 X160.84 Y152.00 E815.56298
G0 X160.14 Y152.00
G1 X169.12 Y160.99 E816.09132
G0 X169.12 Y161.70
G1 X159.43 Y152.00 E816.66129
G0 X158.72 Y152.00
G1 X169.12 Y162.41 E817.27283
G0 X169.12 Y163.11
G1 X158.01 Y152.00 E817.92594
G0 X157.31 Y152.00
G1 X169.12 Y163.82 E818.62061
G0 X169.12 Y164.53
G1 X156.60 Y152.00 E819.35686
G0 X155.89 Y152.00
G1 X169.08 Y165.19 E820.13235
G0 X169.11 Y165.57
G1 X168.43 Y164.90 E820.17210
G0 X168.76 Y165.57
G1 X155.87 Y152.69 E820.92951
G0 X155.87 Y153.40
G1 X168.05 Y165.57 E821.64535
G0 X167.34 Y165.57
G1 X155.87 Y154.11 E822.31963
G0 X155.87 Y154.81
G1 X166.63 Y165.57 E822.95233
G0 X165.93 Y165.57
G1 X155.87 Y155.52 E823.54344
G0 X155.87 Y156.23
G1 X165.22 Y165.57 E824.09298
G0 X164.51 Y165.57
G1 X155.87 Y156.94 E824.60095
G0 X155.87 Y157.64
G1 X163.81 Y165.57 E825.06732
G0 X163.10 Y165.57
G1 X155.87 Y158.35 E825.49212
G0 X155.87 Y159.06
G1 X162.39 Y165.57 E825.87535
G0 X161.69 Y165.57
G1 X155.87 Y159.76 E826.21702
G0 X155.87 Y160.47
G1 X160.98 Y165.57 E826.51712
G0 X160.27 Y165.57
G1 X155.87 Y161.18 E826.77564
G0 X155.87 Y161.88
G1 X159.56 Y165.57 E826.99257
G0 X158.86 Y165.57
G1 X155.87 Y162.59 E827.16793
G0 X155.87 Y163.30
G1 X158.15 Y165.57 E827.30172
G0 X157.44 Y165.57
G1 X155.87 Y164.01 E827.39391
G0 X155.87 Y164.71
G1 X156.74 Y165.57 E827.44454
G0 X156.38 Y165.57
G1 X155.42 Y164.62 E827.50083
G0 X155.91 Y165.46
G1 X156.03 Y165.57 E827.50754
G0 X156.53 Y164.30
G1 X155.42 Y163.20 E827.57227
G0 X156.53 Y162.89
G1 X155.42 Y161.79 E827.63701
G0 X156.53 Y161.47
G1 X155.42 Y160.37 E827.70174
G0 X156.53 Y160.06
G1 X155.42 Y158.96 E827.76647
G0 X156.53 Y158.65
G1 X155.42 Y157.54 E827.83121
G0 X156.53 Y157.23
G1 X155.42 Y156.13 E827.89594
G0 X156.53 Y155.82
G1 X155.42 Y154.72 E827.96068
G0 X156.53 Y154.40
G1 X155.42 Y153.30 E828.02541
G0 X156.53 Y152.99
G1 X155.42 Y151.89 E828.09015
G0 X155.42 Y150.47
G1 X157.60 Y152.66 E828.21838
G0 X159.02 Y152.66
G1 X155.42 Y149.06 E828.42987
G0 X155.42 Y147.65
G1 X160.44 Y152.66 E828.72462
G0 X161.85 Y152.66
G1 X155.42 Y146.23 E829.10265
G0 X155.42 Y144.82
G1 X163.27 Y152.66 E829.56390
G0 X164.69 Y152.66
G1 X155.42 Y143.40 E830.10844
G0 X155.42 Y141.99
G1 X166.10 Y152.67 E830.73621
G0 X167.52 Y152.67
G1 X155.42 Y140.57 E831.44726
G0 X157.10 Y139.43
G1 X169.57 Y151.90 E832.18054
G0 X169.12 Y152.51
G1 X168.64 Y152.02 E832.20888
G0 X168.47 Y153.62
G1 X169.57 Y154.72 E832.27361
G0 X168.47 Y155.04
G1 X169.57 Y156.14 E832.33835
G0 X168.47 Y156.45
G1 X169.57 Y157.55 E832.40308
G0 X168.47 Y157.87
G1 X169.57 Y158.97 E832.46782
G0 X168.47 Y159.28
G1 X169.57 Y160.38 E832.53255
G0 X168.47 Y160.69
G1 X169.57 Y161.79 E832.59729
G0 X168.47 Y162.11
G1 X169.57 Y163.21 E832.66202
G0 X168.47 Y163.52
G1 X169.57 Y164.62 E832.72675
G0 X169.57 Y150.48
G1 X158.52 Y139.43 E833.37686
G0 X159.93 Y139.43
G1 X169.57 Y149.07 E833.94384
G0 X169.57 Y147.65
G1 X161.34 Y139.43 E834.42764
G0 X162.76 Y139.43
G1 X169.57 Y146.24 E834.82831
G0 X169.57 Y144.82
G1 X164.17 Y139.43 E835.14583
G0 X165.59 Y139.43
G1 X169.57 Y143.41 E835.38020
G0 X169.57 Y142.00
G1 X167.00 Y139.43 E835.53139
G0 X168.42 Y139.43
G1 X169.57 Y140.58 E835.59945
;LAYER:9
G0 X169.75 Y139.25 Z2.10
;TYPE:WALL-INNER
G1 X169.75 Y165.75 E836.70119
G1 X155.25 Y165.75 E837.30403
G1 X155.25 Y139.25 E838.40577
G1 X169.75 Y139.25 E839.00861
G0 X169.09 Y157.74
G1 X156.83 Y157.74 E839.51832
G1 X155.95 Y157.75 E839.55474
G1 X155.95 Y159.26 E839.61769
G1 X169.01 Y159.26 E840.16079
G1 X169.09 Y157.74 E840.22409
G0 X168.56 Y158.24
;TYPE:WALL-OUTER
G1 X156.83 Y158.24 E840.71190
G1 X156.45 Y158.24 E840.72761
G1 X156.45 Y158.76 E840.74915
G1 X168.54 Y158.76 E841.25162
G1 X168.56 Y158.24 E841.27331
G0 X168.91 Y158.25
G0 X169.90 Y165.99
G0 X170.25 Y166.25
G1 X154.75 Y166.25 E841.91773
G1 X154.75 Y138.75 E843.06104
G1 X170.25 Y138.75 E843.70546
G1 X170.25 Y166.25 E844.84877
G0 X169.90 Y165.99
G0 X169.57 Y164.89
;TYPE:FILL
G1 X168.71 Y165.57 E844.88919
G1 X169.12 Y164.99 E844.91869
G0 X169.12 Y164.28
G1 X167.82 Y165.57 E844.99460
G0 X167.12 Y165.57
G1 X169.12 Y163.58 E845.11213
G0 X169.57 Y163.47
G1 X168.47 Y164.58 E845.17725
G0 X168.47 Y163.16
G1 X169.57 Y162.06 E845.24233
G0 X169.12 Y162.16
G1 X165.70 Y165.57 E845.44312
G0 X166.41 Y165.57
G1 X169.12 Y162.87 E845.60231
G0 X168.47 Y161.75
G1 X169.57 Y160.64 E845.66734
G0 X169.12 Y160.74
G1 X164.29 Y165.57 E845.95145
G0 X163.58 Y165.57
G1 X169.12 Y160.03 E846.27718
G0 X169.02 Y159.43
G1 X162.88 Y165.57 E846.63824
G0 X162.17 Y165.57
G1 X168.31 Y159.43 E846.99925
G0 X167.60 Y159.43
G1 X161.46 Y165.57 E847.36026
G0 X160.75 Y165.57
G1 X166.90 Y159.43 E847.72127
G0 X166.19 Y159.43
G1 X160.05 Y165.57 E848.08231
G0 X159.34 Y165.57
G1 X165.48 Y159.43 E848.44334
G0 X164.77 Y159.43
G1 X158.63 Y165.57 E848.80438
G0 X157.93 Y165.57
G1 X164.07 Y159.43 E849.16542
G0 X163.36 Y159.43
G1 X157.22 Y165.57 E849.52646
G0 X156.51 Y165.57
G1 X162.65 Y159.43 E849.88747
G0 X161.95 Y159.43
G1 X155.88 Y165.50 E850.24442
G0 X156.16 Y165.57
G1 X156.56 Y165.17 E850.26826
G0 X155.88 Y164.80
G1 X161.24 Y159.43 E850.58364
G0 X160.53 Y159.43
G1 X155.88 Y164.09 E850.85746
G0 X155.88 Y163.38
G1 X159.82 Y159.43 E851.08970
G0 X159.12 Y159.43
G1 X155.88 Y162.68 E851.28038
G0 X155.88 Y161.97
G1 X158.41 Y159.43 E851.42948
G0 X157.70 Y159.43
G1 X155.88 Y161.26 E851.53699
G0 X155.88 Y160.55
G1 X157.00 Y159.43 E851.60290
G0 X156.52 Y159.55
G1 X155.42 Y160.65 E851.66755
G0 X155.88 Y159.85
G1 X156.03 Y159.16 E851.69186
G1 X155.42 Y159.24 E851.71730
G0 X155.42 Y157.82
G1 X156.53 Y156.72 E851.78200
G0 X155.88 Y157.02
G1 X161.55 Y151.35 E852.11550
G0 X162.25 Y151.35
G1 X156.03 Y157.57 E852.48138
G0 X156.74 Y157.57
G1 X162.96 Y151.35 E852.84727
G0 X163.67 Y151.35
G1 X157.45 Y157.57 E853.21316
G0 X158.15 Y157.57
G1 X164.38 Y151.35 E853.57899
G0 X165.08 Y151.35
G1 X158.86 Y157.57 E853.94482
G0 X159.57 Y157.57
G1 X165.79 Y151.35 E854.31068
G0 X166.50 Y151.35
G1 X160.28 Y157.57 E854.67651
G0 X160.98 Y157.57
G1 X167.21 Y151.35 E855.04234
G0 X167.91 Y151.35
G1 X161.69 Y157.57 E855.40811
G0 X162.40 Y157.57
G1 X168.62 Y151.35 E855.77388
G0 X169.12 Y151.55
G1 X163.10 Y157.57 E856.12766
G0 X163.81 Y157.57
G1 X169.12 Y152.26 E856.43981
G0 X169.57 Y152.16
G1 X168.47 Y153.26 E856.50454
G0 X169.12 Y152.96
G1 X164.52 Y157.57 E856.77512
G0 X165.23 Y157.57
G1 X169.12 Y153.67 E857.00413
G0 X169.57 Y153.57
G1 X168.47 Y154.68 E857.06893
G0 X169.12 Y154.38
G1 X165.94 Y157.57 E857.25634
G0 X166.64 Y157.57
G1 X169.12 Y155.09 E857.40218
G0 X169.57 Y154.99
G1 X168.47 Y156.09 E857.46703
G0 X169.12 Y155.79
G1 X167.35 Y157.56 E857.57131
G0 X168.06 Y157.56
G1 X169.12 Y156.50 E857.63402
G0 X169.57 Y156.40
G1 X168.47 Y157.50 E857.69887
G0 X168.76 Y157.56
G1 X169.35 Y157.51 E857.71994
G1 X169.24 Y158.15 E857.74688
G0 X169.57 Y159.23
G1 X168.47 Y160.34 E857.81188
G0 X169.12 Y161.45
G1 X165.00 Y165.57 E858.05432
G0 X156.52 Y163.79
G1 X155.42 Y164.89 E858.11900
G0 X155.42 Y163.48
G1 X156.52 Y162.38 E858.18368
G0 X155.42 Y162.07
G1 X156.52 Y160.97 E858.24835
G0 X155.42 Y156.41
G1 X156.53 Y155.31 E858.31320
G0 X155.88 Y155.60
G1 X160.13 Y151.35 E858.56332
G0 X160.84 Y151.35
G1 X155.88 Y156.31 E858.85510
G0 X155.42 Y154.99
G1 X156.53 Y153.89 E858.92016
G0 X155.88 Y154.18
G1 X158.72 Y151.35 E859.08693
G0 X159.43 Y151.35
G1 X155.88 Y154.89 E859.29536
G0 X155.42 Y153.58
G1 X156.53 Y152.47 E859.36060
G0 X157.01 Y152.00
G1 X169.57 Y139.43 E860.09940
G0 X168.17 Y139.42
G1 X155.42 Y152.17 E860.84858
G0 X155.89 Y152.06
G1 X156.60 Y151.35 E860.89033
G0 X157.31 Y151.35
G1 X155.89 Y152.76 E860.97370
G0 X155.88 Y153.47
G1 X158.01 Y151.35 E861.09876
G0 X158.42 Y152.00
G1 X169.57 Y140.84 E861.75440
G0 X169.57 Y142.26
G1 X159.84 Y152.00 E862.32689
G0 X161.25 Y152.00
G1 X169.57 Y143.67 E862.81623
G0 X169.57 Y145.09
G1 X162.66 Y152.00 E863.22248
G0 X164.08 Y152.00
G1 X169.57 Y146.50 E863.54556
G0 X169.57 Y147.92
G1 X165.49 Y152.00 E863.78551
G0 X166.91 Y152.00
G1 X169.57 Y149.33 E863.94229
G0 X169.57 Y150.75
G1 X168.32 Y152.00 E864.01593
G0 X166.75 Y139.42
G1 X155.42 Y150.75 E864.68197
G0 X155.42 Y149.34
G1 X165.34 Y139.42 E865.26488
G0 X163.92 Y139.42
G1 X155.42 Y147.92 E865.76462
G0 X155.42 Y146.51
G1 X162.51 Y139.42 E866.18122
G0 X161.09 Y139.42
G1 X155.42 Y145.09 E866.51465
G0 X155.42 Y143.68
G1 X159.68 Y139.42 E866.76495
G0 X158.27 Y139.42
G1 X155.42 Y142.27 E866.93210
G0 X155.42 Y140.85
G1 X156.85 Y139.42 E867.01609
G0 X149.75 Y139.25
;TYPE:WALL-INNER
G1 X149.75 Y165.75 E868.11784
G1 X135.25 Y165.75 E868.72068
G1 X135.25 Y139.25 E869.82242
G1 X149.75 Y139.25 E870.42526
G0 X149.09 Y157.74
G1 X136.83 Y157.74 E870.93497
G1 X135.95 Y157.75 E870.97139
G1 X135.95 Y159.26 E871.03434
G1 X149.01 Y159.26 E871.57743
G1 X149.09 Y157.74 E871.64074
G0 X148.56 Y158.24
;TYPE:WALL-OUTER
G1 X136.83 Y158.24 E872.12854
G1 X136.45 Y158.24 E872.14426
G1 X136.45 Y158.76 E872.16579
G1 X148.54 Y158.76 E872.66827
G1 X148.56 Y158.24 E872.68996
G0 X148.91 Y158.25
G0 X149.90 Y165.99
G0 X150.25 Y166.25
G1 X134.75 Y166.25 E873.33437
G1 X134.75 Y138.75 E874.47769
G1 X150.25 Y138.75 E875.12210
G1 X150.25 Y166.25 E876.26542
G0 X149.57 Y165.09
;TYPE:FILL
G1 X148.91 Y165.57 E876.29402
G1 X149.12 Y165.19 E876.31207
G0 X149.12 Y164.48
G1 X148.03 Y165.57 E876.37615
G0 X147.32 Y165.57
G1 X149.12 Y163.78 E876.48190
G0 X149.57 Y163.67
G1 X148.47 Y164.78 E876.54690
G0 X148.47 Y163.37
G1 X149.57 Y162.26 E876.61190
G0 X149.12 Y162.36
G1 X145.91 Y165.57 E876.80090
G0 X146.61 Y165.57
G1 X149.12 Y163.07 E876.94827
G0 X148.47 Y161.95
G1 X149.57 Y160.84 E877.01324
G0 X149.12 Y160.94
G1 X144.49 Y165.57 E877.28552
G0 X145.20 Y165.57
G1 X149.12 Y161.65 E877.51618
G0 X148.47 Y160.53
G1 X149.57 Y159.43 E877.58103
G0 X149.12 Y159.53
G1 X143.08 Y165.57 E877.93652
G0 X143.78 Y165.57
G1 X149.12 Y160.24 E878.25040
G0 X148.51 Y159.43
G1 X142.37 Y165.57 E878.61147
G0 X141.66 Y165.57
G1 X147.80 Y159.43 E878.97253
G0 X147.10 Y159.43
G1 X140.96 Y165.57 E879.33360
G0 X140.25 Y165.57
G1 X146.39 Y159.43 E879.69470
G0 X145.68 Y159.43
G1 X139.54 Y165.57 E880.05579
G0 X138.83 Y165.57
G1 X144.97 Y159.43 E880.41686
G0 X144.27 Y159.43
G1 X138.13 Y165.57 E880.77793
G0 X137.42 Y165.57
G1 X143.56 Y159.43 E881.13900
G0 X142.85 Y159.43
G1 X136.71 Y165.57 E881.50006
G0 X136.56 Y165.37
G1 X136.36 Y165.57 E881.51212
G0 X136.01 Y165.57
G1 X142.15 Y159.43 E881.87318
G0 X141.44 Y159.43
G1 X135.88 Y165.00 E882.20033
G0 X135.43 Y165.09
G1 X136.53 Y163.99 E882.26506
G0 X135.88 Y164.29
G1 X140.73 Y159.43 E882.55063
G0 X140.03 Y159.43
G1 X135.88 Y163.58 E882.79464
G0 X135.43 Y163.68
G1 X136.53 Y162.58 E882.85937
G0 X135.88 Y162.88
G1 X139.32 Y159.43 E883.06181
G0 X138.61 Y159.43
G1 X135.88 Y162.17 E883.22267
G0 X135.43 Y162.27
G1 X136.53 Y161.16 E883.28741
G0 X135.88 Y161.46
G1 X137.90 Y159.43 E883.40668
G0 X137.20 Y159.43
G1 X135.88 Y160.75 E883.48437
G0 X135.43 Y160.85
G1 X136.53 Y159.75 E883.54911
G0 X136.49 Y159.43
G1 X135.65 Y159.74 E883.58513
G1 X135.78 Y159.09 E883.61285
G0 X135.43 Y158.02
G1 X135.83 Y157.62 E883.63339
G1 X136.53 Y156.92 E883.67446
G0 X136.23 Y157.57
G1 X142.46 Y151.34 E884.04038
G0 X141.75 Y151.34
G1 X135.88 Y157.22 E884.38572
G0 X135.88 Y156.51
G1 X141.04 Y151.34 E884.68937
G0 X140.34 Y151.34
G1 X135.88 Y155.80 E884.95134
G0 X135.88 Y155.09
G1 X139.63 Y151.34 E885.17165
G0 X138.92 Y151.34
G1 X135.88 Y154.38 E885.35027
G0 X135.89 Y153.67
G1 X138.22 Y151.34 E885.48724
G0 X137.51 Y151.34
G1 X135.89 Y152.96 E885.58249
G0 X135.89 Y152.26
G1 X136.80 Y151.34 E885.63611
G0 X136.09 Y151.34
G1 X135.89 Y151.55 E885.64805
G0 X135.43 Y150.95
G1 X146.95 Y139.42 E886.32588
G0 X148.37 Y139.42
G1 X135.43 Y152.37 E887.08685
G0 X136.53 Y152.67
G1 X135.43 Y153.78 E887.15211
G0 X136.53 Y154.09
G1 X135.43 Y155.19 E887.21714
G0 X136.53 Y155.51
G1 X135.43 Y156.61 E887.28202
G0 X136.94 Y157.57
G1 X143.16 Y151.34 E887.64791
G0 X143.87 Y151.34
G1 X137.65 Y157.57 E888.01380
G0 X138.36 Y157.57
G1 X144.58 Y151.34 E888.37966
G0 X145.28 Y151.34
G1 X139.06 Y157.57 E888.74552
G0 X139.77 Y157.57
G1 X145.99 Y151.34 E889.11135
G0 X146.70 Y151.34
G1 X140.48 Y157.57 E889.47715
G0 X141.19 Y157.57
G1 X147.41 Y151.34 E889.84295
G0 X148.11 Y151.34
G1 X141.89 Y157.57 E890.20875
G0 X142.60 Y157.57
G1 X148.82 Y151.34 E890.57452
G0 X149.12 Y151.75
G1 X143.31 Y157.57 E890.91653
G0 X144.01 Y157.57
G1 X149.12 Y152.46 E891.21695
G0 X149.57 Y152.36
G1 X148.47 Y153.46 E891.28163
G0 X149.12 Y153.16
G1 X144.72 Y157.56 E891.54045
G0 X145.43 Y157.56
G1 X149.12 Y153.87 E891.75770
G0 X149.57 Y153.77
G1 X148.47 Y154.88 E891.82244
G0 X149.12 Y154.58
G1 X146.14 Y157.56 E891.99809
G0 X146.84 Y157.56
G1 X149.12 Y155.28 E892.13217
G0 X149.57 Y155.19
G1 X148.47 Y156.29 E892.19697
G0 X149.12 Y155.99
G1 X147.55 Y157.56 E892.28943
G0 X148.26 Y157.56
G1 X149.12 Y156.70 E892.34031
G0 X149.57 Y156.60
G1 X148.61 Y157.56 E892.39682
G0 X148.97 Y157.56
G1 X149.35 Y157.71 E892.40614
G1 X149.23 Y158.36 E892.43351
G0 X148.47 Y152.04
G1 X149.57 Y150.95 E892.49816
G0 X149.57 Y149.53
G1 X147.11 Y152.00 E892.64306
G0 X145.69 Y152.00
G1 X149.57 Y148.12 E892.87113
G0 X149.57 Y146.70
G1 X144.28 Y152.00 E893.18234
G0 X142.87 Y152.00
G1 X149.57 Y145.29 E893.57669
G0 X149.57 Y143.88
G1 X141.45 Y152.00 E894.05417
G0 X140.04 Y152.00
G1 X149.57 Y142.46 E894.61485
G0 X149.57 Y141.05
G1 X138.62 Y152.00 E895.25867
G0 X137.21 Y152.00
G1 X149.57 Y139.63 E895.98563
G0 X145.54 Y139.42
G1 X135.43 Y149.54 E896.58029
G0 X135.43 Y148.12
G1 X144.12 Y139.42 E897.09182
G0 X142.71 Y139.42
G1 X135.43 Y146.71 E897.52021
G0 X135.43 Y145.30
G1 X141.30 Y139.42 E897.86543
G0 X139.88 Y139.42
G1 X135.43 Y143.88 E898.12751
G0 X135.43 Y142.47
G1 X138.47 Y139.42 E898.30643
G0 X137.05 Y139.42
G1 X135.43 Y141.05 E898.40221
G0 X135.43 Y139.64
G1 X135.64 Y139.42 E898.41485
;LAYER:10
G0 X135.25 Y139.25 Z2.30
;TYPE:WALL-INNER
G1 F4620 X149.75 Y139.25 E899.01769
G1 X149.75 Y165.75 E900.11943
G1 X149.01 Y165.75 E900.15015
G1 X149.01 Y161.50 E900.32681
G1 X149.05 Y161.51 E900.32848
G1 X149.05 Y155.63 E900.57303
G1 X149.01 Y155.63 E900.57466
G1 X149.01 Y153.36 E900.66924
G1 X135.99 Y153.36 E901.21059
G1 X135.99 Y155.74 E901.30962
G1 X135.95 Y155.74 E901.31124
G1 X135.95 Y161.39 E901.54610
G1 X135.99 Y161.39 E901.54774
G1 X135.99 Y165.75 E901.72917
G1 X135.25 Y165.75 E901.75994
G1 X135.25 Y139.25 E902.86168
G0 F6000 X134.75 Y138.75
;TYPE:WALL-OUTER
G1 F4620 X150.25 Y138.75 E903.50609
G1 X150.25 Y166.25 E904.64941
G1 X148.51 Y166.25 E904.72171
G1 X148.51 Y160.85 E904.94605
G1 X148.55 Y160.86 E904.94772
G1 X148.55 Y156.18 E905.14234
G1 X148.51 Y156.19 E905.14397
G1 X148.51 Y153.86 E905.24080
G1 X136.49 Y153.86 E905.74057
G1 X136.49 Y156.22 E905.83873
G1 X136.45 Y156.22 E905.84035
G1 X136.45 Y160.82 E906.03168
G1 X136.49 Y160.82 E906.03332
G1 X136.49 Y166.25 E906.25915
G1 X134.75 Y166.25 E906.33149
G1 X134.75 Y138.75 E907.47481
G0 F6000 X135.89 Y139.42
;TYPE:FILL
G1 F4620 X147.84 Y151.38 E908.17775
G0 F6000 X147.55 Y150.73
G1 F4620 X149.12 Y152.31 E908.27047
G0 F6000 X149.12 Y151.60
G1 F4620 X148.25 Y150.73 E908.32162
G0 F6000 X148.96 Y150.73
G1 F4620 X149.12 Y150.89 E908.33121
G0 F6000 X149.57 Y150.28
G1 F4620 X138.72 Y139.42 E908.96962
G0 F6000 X137.30 Y139.42
G1 F4620 X149.57 Y151.70 E909.69116
G0 F6000 X148.48 Y152.01
G1 F4620 X149.57 Y153.11 E909.75578
G0 F6000 X149.12 Y153.01
G1 F4620 X146.84 Y150.73 E909.89004
G0 F6000 X146.13 Y150.73
G1 F4620 X148.59 Y153.18 E910.03412
G0 F6000 X147.88 Y153.18
G1 F4620 X145.43 Y150.73 E910.17820
G0 F6000 X144.72 Y150.73
G1 F4620 X147.17 Y153.18 E910.32228
G0 F6000 X146.46 Y153.18
G1 F4620 X144.01 Y150.73 E910.46633
G0 F6000 X143.31 Y150.73
G1 F4620 X145.76 Y153.18 E910.61038
G0 F6000 X145.05 Y153.18
G1 F4620 X142.60 Y150.73 E910.75443
G0 F6000 X141.89 Y150.73
G1 F4620 X144.34 Y153.18 E910.89845
G0 F6000 X143.64 Y153.18
G1 F4620 X141.19 Y150.73 E911.04247
G0 F6000 X140.48 Y150.73
G1 F4620 X142.93 Y153.18 E911.18647
G0 F6000 X142.22 Y153.18
G1 F4620 X139.77 Y150.73 E911.33040
G0 F6000 X139.06 Y150.73
G1 F4620 X141.51 Y153.18 E911.47436
G0 F6000 X140.81 Y153.18
G1 F4620 X138.36 Y150.73 E911.61832
G0 F6000 X137.65 Y150.73
G1 F4620 X140.10 Y153.18 E911.76226
G0 F6000 X139.39 Y153.18
G1 F4620 X136.94 Y150.73 E911.90619
G0 F6000 X136.24 Y150.73
G1 F4620 X138.69 Y153.18 E912.05012
G0 F6000 X137.98 Y153.18
G1 F4620 X135.88 Y151.08 E912.17374
G0 F6000 X135.88 Y151.79
G1 F4620 X137.27 Y153.18 E912.25579
G0 F6000 X136.56 Y153.18
G1 F4620 X135.88 Y152.49 E912.29624
G0 F6000 X136.53 Y152.79
G1 F4620 X135.43 Y151.69 E912.36098
G0 F6000 X136.53 Y151.38
G1 F4620 X135.43 Y150.27 E912.42601
G0 F6000 X135.43 Y148.86
G1 F4620 X137.94 Y151.38 E912.57417
G0 F6000 X139.36 Y151.38
G1 F4620 X135.43 Y147.44 E912.80551
G0 F6000 X135.43 Y146.03
G1 F4620 X140.77 Y151.38 E913.11998
G0 F6000 X142.19 Y151.38
G1 F4620 X135.43 Y144.62 E913.51759
G0 F6000 X135.43 Y143.20
G1 F4620 X143.60 Y151.38 E913.99831
G0 F6000 X145.01 Y151.38
G1 F4620 X135.43 Y141.79 E914.56216
G0 F6000 X135.43 Y140.37
G1 F4620 X146.43 Y151.38 E915.20918
G0 F6000 X148.90 Y153.47
G0 X149.19 Y154.13
G1 F4620 X149.57 Y154.52 E915.23205
G0 F6000 X149.22 Y155.59
G1 F4620 X149.57 Y155.94 E915.25266
G0 F6000 X149.22 Y157.00
G1 F4620 X149.57 Y157.35 E915.27327
G0 F6000 X149.22 Y158.42
G1 F4620 X149.57 Y158.77 E915.29388
G0 F6000 X149.22 Y159.83
G1 F4620 X149.57 Y160.18 E915.31449
G0 F6000 X149.22 Y161.25
G1 F4620 X149.57 Y161.59 E915.33510
G0 F6000 X149.19 Y162.62
G1 F4620 X149.57 Y163.01 E915.35803
G0 F6000 X149.19 Y164.03
G1 F4620 X149.57 Y164.42 E915.38096
G0 F6000 X149.19 Y165.45
G1 F4620 X149.31 Y165.57 E915.38833
G0 F6000 X149.86 Y139.14
G0 X135.14 Y139.14
G0 X135.81 Y164.81
G1 F4620 X135.43 Y164.42 E915.41124
G0 F6000 X135.81 Y163.39
G1 F4620 X135.43 Y163.00 E915.43411
G0 F6000 X135.81 Y161.98
G1 F4620 X135.43 Y161.59 E915.45698
G0 F6000 X135.78 Y160.52
G1 F4620 X135.43 Y160.17 E915.47759
G0 F6000 X135.78 Y159.11
G1 F4620 X135.43 Y158.76 E915.49820
G0 F6000 X135.78 Y157.70
G1 F4620 X135.43 Y157.34 E915.51880
G0 F6000 X135.78 Y156.28
G1 F4620 X135.43 Y155.93 E915.53938
G0 F6000 X135.81 Y154.91
G1 F4620 X135.43 Y154.52 E915.56228
G0 F6000 X135.81 Y153.49
G1 F4620 X135.43 Y153.10 E915.58518
G0 F6000 X140.13 Y139.42
G1 F4620 X149.57 Y148.87 E916.14043
G0 F6000 X149.57 Y147.45
G1 F4620 X141.54 Y139.42 E916.61253
G0 F6000 X142.96 Y139.42
G1 F4620 X149.57 Y146.04 E917.00147
G0 F6000 X149.57 Y144.62
G1 F4620 X144.37 Y139.42 E917.30727
G0 F6000 X145.79 Y139.42
G1 F4620 X149.57 Y143.21 E917.52993
G0 F6000 X149.57 Y141.80
G1 F4620 X147.20 Y139.42 E917.66942
G0 F6000 X148.62 Y139.42
G1 F4620 X149.57 Y140.38 E917.72578
G0 F6000 X155.25 Y139.25
;TYPE:WALL-INNER
G1 F4620 X169.75 Y139.25 E918.32862
G1 X169.75 Y165.75 E919.43036
G1 X169.01 Y165.75 E919.46112
G1 X169.01 Y161.50 E919.63778
G1 X169.05 Y161.51 E919.63945
G1 X169.05 Y155.63 E919.88400
G1 X169.01 Y155.63 E919.88563
G1 X169.01 Y153.36 E919.98021
G1 X155.99 Y153.36 E920.52156
G1 X155.99 Y155.74 E920.62059
G1 X155.95 Y155.74 E920.62222
G1 X155.95 Y161.39 E920.85707
G1 X155.99 Y161.39 E920.85871
G1 X155.99 Y165.75 E921.04014
G1 X155.25 Y165.75 E921.07087
G1 X155.25 Y139.25 E922.17261
G0 F6000 X154.75 Y138.75
;TYPE:WALL-OUTER
G1 F4620 X170.25 Y138.75 E922.81702
G1 X170.25 Y166.25 E923.96034
G1 X168.51 Y166.25 E924.03268
G1 X168.51 Y160.85 E924.25702
G1 X168.55 Y160.86 E924.25870
G1 X168.55 Y156.18 E924.45331
G1 X168.51 Y156.19 E924.45494
G1 X168.51 Y153.86 E924.55177
G1 X156.49 Y153.86 E925.05154
G1 X156.49 Y156.22 E925.14970
G1 X156.45 Y156.22 E925.15132
G1 X156.45 Y160.82 E925.34265
G1 X156.49 Y160.82 E925.34429
G1 X156.49 Y166.25 E925.57012
G1 X154.75 Y166.25 E925.64242
G1 X154.75 Y138.75 E926.78574
G0 F6000 X155.69 Y139.43
;TYPE:FILL
G1 F4620 X167.64 Y151.38 E927.48865
G0 F6000 X167.35 Y150.73
G1 F4620 X169.12 Y152.51 E927.59307
G0 F6000 X169.09 Y153.18
G1 F4620 X166.64 Y150.73 E927.73724
G0 F6000 X165.93 Y150.73
G1 F4620 X168.39 Y153.18 E927.88144
G0 F6000 X167.68 Y153.18
G1 F4620 X165.23 Y150.73 E928.02561
G0 F6000 X164.52 Y150.73
G1 F4620 X166.97 Y153.18 E928.16974
G0 F6000 X166.26 Y153.18
G1 F4620 X163.81 Y150.73 E928.31382
G0 F6000 X163.11 Y150.73
G1 F4620 X165.56 Y153.18 E928.45793
G0 F6000 X164.85 Y153.18
G1 F4620 X162.40 Y150.73 E928.60198
G0 F6000 X161.69 Y150.73
G1 F4620 X164.14 Y153.18 E928.74603
G0 F6000 X163.44 Y153.18
G1 F4620 X160.99 Y150.73 E928.89009
G0 F6000 X160.28 Y150.73
G1 F4620 X162.73 Y153.18 E929.03414
G0 F6000 X162.02 Y153.18
G1 F4620 X159.57 Y150.73 E929.17819
G0 F6000 X158.87 Y150.73
G1 F4620 X161.31 Y153.18 E929.32218
G0 F6000 X160.61 Y153.18
G1 F4620 X158.16 Y150.73 E929.46614
G0 F6000 X157.45 Y150.74
G1 F4620 X159.90 Y153.18 E929.61007
G0 F6000 X159.19 Y153.18
G1 F4620 X156.75 Y150.74 E929.75401
G0 F6000 X156.04 Y150.74
G1 F4620 X158.49 Y153.18 E929.89794
G0 F6000 X157.78 Y153.18
G1 F4620 X155.87 Y151.28 E930.00995
G0 F6000 X155.87 Y151.99
G1 F4620 X157.07 Y153.18 E930.08038
G0 F6000 X156.52 Y152.99
G1 F4620 X155.42 Y151.89 E930.14506
G0 F6000 X155.87 Y152.69
G1 F4620 X156.09 Y153.44 E930.17388
G1 X155.42 Y153.30 E930.20209
G0 F6000 X155.42 Y154.72
G1 F4620 X155.81 Y155.10 E930.22493
G0 F6000 X155.42 Y156.13
G1 F4620 X155.77 Y156.48 E930.24554
G0 F6000 X155.42 Y157.54
G1 F4620 X155.77 Y157.90 E930.26615
G0 F6000 X155.42 Y158.96
G1 F4620 X155.77 Y159.31 E930.28676
G0 F6000 X155.42 Y160.37
G1 F4620 X155.77 Y160.72 E930.30737
G0 F6000 X155.42 Y161.79
G1 F4620 X155.81 Y162.18 E930.33024
G0 F6000 X155.42 Y163.20
G1 F4620 X155.81 Y163.59 E930.35311
G0 F6000 X155.42 Y164.62
G1 F4620 X155.81 Y165.01 E930.37601
G0 F6000 X155.14 Y139.14
G0 X169.86 Y139.14
G0 X169.18 Y164.23
G1 F4620 X169.57 Y164.62 E930.39894
G0 F6000 X169.57 Y163.21
G1 F4620 X169.18 Y162.82 E930.42187
G0 F6000 X169.57 Y161.79
G1 F4620 X169.22 Y161.44 E930.44248
G0 F6000 X169.57 Y160.38
G1 F4620 X169.22 Y160.03 E930.46312
G0 F6000 X169.57 Y158.97
G1 F4620 X169.22 Y158.62 E930.48375
G0 F6000 X169.57 Y157.55
G1 F4620 X169.22 Y157.20 E930.50439
G0 F6000 X169.57 Y156.14
G1 F4620 X169.22 Y155.79 E930.52503
G0 F6000 X169.57 Y154.72
G1 F4620 X169.18 Y154.33 E930.54799
G0 F6000 X169.57 Y153.31
G1 F4620 X168.47 Y152.21 E930.61269
G0 F6000 X169.12 Y151.80
G1 F4620 X168.05 Y150.73 E930.67561
G0 F6000 X168.76 Y150.73
G1 F4620 X169.12 Y151.09 E930.69695
G0 F6000 X169.57 Y150.48
G1 F4620 X158.52 Y139.43 E931.34706
G0 F6000 X159.93 Y139.43
G1 F4620 X169.57 Y149.07 E931.91403
G0 F6000 X169.57 Y147.65
G1 F4620 X161.34 Y139.43 E932.39783
G0 F6000 X162.76 Y139.43
G1 F4620 X169.57 Y146.24 E932.79850
G0 F6000 X169.57 Y144.82
G1 F4620 X164.17 Y139.43 E933.11603
G0 F6000 X165.59 Y139.43
G1 F4620 X169.57 Y143.41 E933.35039
G0 F6000 X169.57 Y142.00
G1 F4620 X167.00 Y139.43 E933.50159
G0 F6000 X168.42 Y139.43
G1 F4620 X169.57 Y140.58 E933.56964
G0 F6000 X166.23 Y151.38
G1 F4620 X155.42 Y140.57 E934.20496
G0 F6000 X155.42 Y141.99
G1 F4620 X164.81 Y151.38 E934.75712
G0 F6000 X163.40 Y151.38
G1 F4620 X155.42 Y143.40 E935.22614
G0 F6000 X155.42 Y144.82
G1 F4620 X161.99 Y151.38 E935.61202
G0 F6000 X160.57 Y151.38
G1 F4620 X155.42 Y146.23 E935.91476
G0 F6000 X155.42 Y147.65
G1 F4620 X159.16 Y151.38 E936.13436
G0 F6000 X157.75 Y151.38
G1 F4620 X155.42 Y149.06 E936.27083
G0 F6000 X155.42 Y150.47
G1 F4620 X156.52 Y151.57 E936.33550
G0 F6000 X157.10 Y139.43
G1 F4620 X169.57 Y151.90 E937.06878
;LAYER:11
G0 F6000 X169.01 Y153.36 Z2.50
;TYPE:WALL-INNER
G1 F4500 X155.99 Y153.36 E937.61013
G1 X155.99 Y154.07 E937.63994
G1 X155.95 Y154.08 E937.64156
G1 X155.95 Y162.92 E938.00929
G1 X155.99 Y162.92 E938.01083
G1 X155.99 Y165.75 E938.12841
G1 X155.25 Y165.75 E938.15909
G1 X155.25 Y139.25 E939.26083
G1 X169.75 Y139.25 E939.86367
G1 X169.75 Y165.75 E940.96541
G1 X169.01 Y165.75 E940.99618
G1 X169.01 Y162.94 E941.11288
G1 X169.05 Y162.94 E941.11450
G1 X169.05 Y154.96 E941.44660
G1 X169.04 Y154.08 E941.48315
G1 X169.01 Y154.07 E941.48456
G1 X169.01 Y153.36 E941.51437
G0 F6000 X168.51 Y153.86
;TYPE:WALL-OUTER
G1 F4500 X156.49 Y153.86 E942.01415
G1 X156.49 Y154.56 E942.04342
G1 X156.45 Y154.56 E942.04504
G1 X156.45 Y162.44 E942.37232
G1 X156.49 Y162.44 E942.37382
G1 X156.49 Y166.25 E942.53238
G1 X154.75 Y166.25 E942.60468
G1 X154.75 Y138.75 E943.74800
G1 X170.25 Y138.75 E944.39241
G1 X170.25 Y166.25 E945.53573
G1 X168.51 Y166.25 E945.60807
G1 X168.51 Y162.44 E945.76635
G1 X168.55 Y162.44 E945.76797
G1 X168.55 Y154.96 E946.07924
G1 X168.55 Y154.56 E946.09558
G1 X168.51 Y154.56 E946.09712
G1 X168.51 Y153.86 E946.12639
G0 F6000 X168.55 Y153.18
;TYPE:FILL
G1 F4500 X169.57 Y152.16 E946.18657
G0 F6000 X169.12 Y152.25
G1 F4500 X168.20 Y153.18 E946.24113
G0 F6000 X168.90 Y153.18
G1 F4500 X169.35 Y153.27 E946.25411
G1 X169.22 Y153.93 E946.28222
G0 F6000 X169.57 Y154.99
G1 F4500 X169.22 Y155.34 E946.30321
G0 F6000 X169.57 Y156.40
G1 F4500 X169.22 Y156.76 E946.32408
G0 F6000 X169.57 Y157.82
G1 F4500 X169.22 Y158.17 E946.34493
G0 F6000 X169.57 Y159.23
G1 F4500 X169.22 Y159.58 E946.36568
G0 F6000 X169.57 Y160.64
G1 F4500 X169.22 Y161.00 E946.38641
G0 F6000 X169.57 Y162.06
G1 F4500 X169.22 Y162.41 E946.40704
G0 F6000 X169.57 Y163.47
G1 F4500 X169.18 Y163.86 E946.42994
G0 F6000 X169.57 Y164.89
G1 F4500 X169.18 Y165.28 E946.45287
G0 F6000 X168.90 Y153.47
G0 X167.49 Y153.18
G1 F4500 X169.12 Y151.55 E946.54901
G0 F6000 X169.12 Y150.84
G1 F4500 X166.78 Y153.18 E946.68671
G0 F6000 X166.07 Y153.18
G1 F4500 X168.90 Y150.36 E946.85292
G0 F6000 X168.19 Y150.36
G1 F4500 X165.37 Y153.18 E947.01914
G0 F6000 X164.66 Y153.18
G1 F4500 X167.49 Y150.36 E947.18536
G0 F6000 X166.78 Y150.36
G1 F4500 X163.95 Y153.18 E947.35157
G0 F6000 X163.25 Y153.18
G1 F4500 X166.07 Y150.36 E947.51779
G0 F6000 X165.37 Y150.36
G1 F4500 X162.54 Y153.18 E947.68401
G0 F6000 X161.83 Y153.18
G1 F4500 X164.66 Y150.36 E947.85022
G0 F6000 X163.95 Y150.36
G1 F4500 X161.12 Y153.18 E948.01644
G0 F6000 X160.42 Y153.18
G1 F4500 X163.25 Y150.36 E948.18266
G0 F6000 X162.54 Y150.36
G1 F4500 X159.71 Y153.18 E948.34887
G0 F6000 X159.00 Y153.18
G1 F4500 X161.83 Y150.36 E948.51509
G0 F6000 X161.12 Y150.36
G1 F4500 X158.30 Y153.18 E948.68131
G0 F6000 X157.59 Y153.18
G1 F4500 X160.42 Y150.36 E948.84753
G0 F6000 X159.71 Y150.36
G1 F4500 X156.88 Y153.18 E949.01374
G0 F6000 X156.18 Y153.18
G1 F4500 X159.00 Y150.36 E949.17996
G0 F6000 X158.29 Y150.36
G1 F4500 X155.87 Y152.78 E949.32230
G0 F6000 X155.82 Y153.18
G1 F4500 X156.52 Y152.48 E949.36349
G0 F6000 X155.87 Y152.07
G1 F4500 X157.59 Y150.36 E949.46427
G0 F6000 X156.88 Y150.36
G1 F4500 X155.87 Y151.36 E949.52348
G0 F6000 X155.87 Y150.66
G1 F4500 X156.17 Y150.36 E949.54111
G0 F6000 X156.58 Y151.01
G1 F4500 X168.17 Y139.42 E950.22209
G0 F6000 X169.57 Y139.43
G1 F4500 X158.00 Y151.01 E950.90269
G0 F6000 X159.41 Y151.01
G1 F4500 X169.57 Y140.84 E951.50014
G0 F6000 X169.57 Y142.26
G1 F4500 X160.83 Y151.01 E952.01443
G0 F6000 X162.24 Y151.01
G1 F4500 X169.57 Y143.67 E952.44556
G0 F6000 X169.57 Y145.09
G1 F4500 X163.66 Y151.01 E952.79354
G0 F6000 X165.07 Y151.01
G1 F4500 X169.57 Y146.50 E953.05839
G0 F6000 X169.57 Y147.92
G1 F4500 X166.48 Y151.01 E953.24007
G0 F6000 X167.90 Y151.01
G1 F4500 X169.57 Y149.33 E953.33858
G0 F6000 X169.57 Y150.75
G1 F4500 X168.47 Y151.84 E953.40323
G0 F6000 X156.52 Y151.07
G1 F4500 X155.42 Y152.17 E953.46785
G0 F6000 X155.81 Y153.19
G1 F4500 X155.42 Y153.58 E953.49069
G0 F6000 X155.77 Y154.65
G1 F4500 X155.42 Y154.99 E953.51124
G0 F6000 X155.77 Y156.06
G1 F4500 X155.42 Y156.41 E953.53182
G0 F6000 X155.77 Y157.47
G1 F4500 X155.42 Y157.82 E953.55237
G0 F6000 X155.77 Y158.89
G1 F4500 X155.42 Y159.24 E953.57291
G0 F6000 X155.77 Y160.30
G1 F4500 X155.42 Y160.65 E953.59346
G0 F6000 X155.77 Y161.72
G1 F4500 X155.42 Y162.07 E953.61404
G0 F6000 X155.81 Y163.09
G1 F4500 X155.42 Y163.48 E953.63686
G0 F6000 X155.81 Y164.51
G1 F4500 X155.42 Y164.89 E953.65967
G0 F6000 X155.42 Y150.75
G1 F4500 X166.75 Y139.42 E954.32571
G0 F6000 X165.34 Y139.42
G1 F4500 X155.42 Y149.34 E954.90862
G0 F6000 X155.42 Y147.92
G1 F4500 X163.92 Y139.42 E955.40835
G0 F6000 X162.51 Y139.42
G1 F4500 X155.42 Y146.51 E955.82495
G0 F6000 X155.42 Y145.09
G1 F4500 X161.09 Y139.42 E956.15839
G0 F6000 X159.68 Y139.42
G1 F4500 X155.42 Y143.68 E956.40868
G0 F6000 X155.42 Y142.27
G1 F4500 X158.27 Y139.42 E956.57584
G0 F6000 X156.85 Y139.42
G1 F4500 X155.42 Y140.85 E956.65983
G0 F6000 X149.75 Y139.25
;TYPE:WALL-INNER
G1 F4500 X149.75 Y165.75 E957.76157
G1 X149.01 Y165.75 E957.79230
G1 X149.01 Y162.94 E957.90900
G1 X149.05 Y162.94 E957.91062
G1 X149.05 Y154.96 E958.24272
G1 X149.04 Y154.08 E958.27927
G1 X149.01 Y154.07 E958.28068
G1 X149.01 Y153.36 E958.31049
G1 X135.99 Y153.36 E958.85184
G1 X135.99 Y154.07 E958.88165
G1 X135.95 Y154.08 E958.88327
G1 X135.95 Y162.92 E959.25101
G1 X135.99 Y162.92 E959.25254
G1 X135.99 Y165.75 E959.37012
G1 X135.25 Y165.75 E959.40084
G1 X135.25 Y139.25 E960.50258
G1 X149.75 Y139.25 E961.10542
G0 F6000 X150.25 Y138.75
;TYPE:WALL-OUTER
G1 F4500 X150.25 Y166.25 E962.24874
G1 X148.51 Y166.25 E962.32104
G1 X148.51 Y162.44 E962.47932
G1 X148.55 Y162.44 E962.48094
G1 X148.55 Y154.96 E962.79221
G1 X148.55 Y154.56 E962.80855
G1 X148.51 Y154.56 E962.81009
G1 X148.51 Y153.86 E962.83936
G1 X136.49 Y153.86 E963.33913
G1 X136.49 Y154.56 E963.36840
G1 X136.45 Y154.56 E963.37003
G1 X136.45 Y162.44 E963.69731
G1 X136.49 Y162.44 E963.69880
G1 X136.49 Y166.25 E963.85737
G1 X134.75 Y166.25 E963.92971
G1 X134.75 Y138.75 E965.07303
G1 X150.25 Y138.75 E965.71744
G0 F6000 X149.57 Y139.63
;TYPE:FILL
G1 F4500 X138.20 Y151.01 E966.38619
G0 F6000 X138.50 Y150.35
G1 F4500 X135.88 Y152.98 E966.54030
G0 F6000 X136.02 Y153.18
G1 F4500 X136.53 Y152.68 E966.56981
G0 F6000 X136.38 Y153.18
G1 F4500 X139.20 Y150.35 E966.73597
G0 F6000 X139.91 Y150.35
G1 F4500 X137.09 Y153.18 E966.90213
G0 F6000 X137.79 Y153.18
G1 F4500 X140.62 Y150.35 E967.06829
G0 F6000 X141.32 Y150.35
G1 F4500 X138.50 Y153.18 E967.23444
G0 F6000 X139.21 Y153.18
G1 F4500 X142.03 Y150.35 E967.40063
G0 F6000 X142.74 Y150.35
G1 F4500 X139.91 Y153.18 E967.56685
G0 F6000 X140.62 Y153.18
G1 F4500 X143.45 Y150.35 E967.73306
G0 F6000 X144.16 Y150.35
G1 F4500 X141.33 Y153.18 E967.89928
G0 F6000 X142.03 Y153.18
G1 F4500 X144.86 Y150.35 E968.06550
G0 F6000 X145.57 Y150.35
G1 F4500 X142.74 Y153.18 E968.23171
G0 F6000 X143.45 Y153.18
G1 F4500 X146.28 Y150.35 E968.39793
G0 F6000 X146.98 Y150.35
G1 F4500 X144.16 Y153.18 E968.56415
G0 F6000 X144.86 Y153.18
G1 F4500 X147.69 Y150.35 E968.73036
G0 F6000 X148.40 Y150.35
G1 F4500 X145.57 Y153.18 E968.89658
G0 F6000 X146.28 Y153.18
G1 F4500 X149.10 Y150.35 E969.06280
G0 F6000 X149.12 Y151.04
G1 F4500 X146.98 Y153.18 E969.18868
G0 F6000 X147.69 Y153.18
G1 F4500 X149.12 Y151.75 E969.27299
G0 F6000 X149.12 Y152.46
G1 F4500 X148.40 Y153.18 E969.31568
G0 F6000 X148.75 Y153.18
G1 F4500 X149.57 Y152.36 E969.36404
G0 F6000 X148.48 Y152.04
G1 F4500 X149.57 Y150.95 E969.42860
G0 F6000 X149.57 Y149.53
G1 F4500 X148.10 Y151.00 E969.51526
G0 F6000 X146.69 Y151.00
G1 F4500 X149.57 Y148.12 E969.68507
G0 F6000 X149.57 Y146.70
G1 F4500 X145.27 Y151.00 E969.93801
G0 F6000 X143.86 Y151.00
G1 F4500 X149.57 Y145.29 E970.27409
G0 F6000 X149.57 Y143.88
G1 F4500 X142.44 Y151.01 E970.69336
G0 F6000 X141.03 Y151.01
G1 F4500 X149.57 Y142.46 E971.19584
G0 F6000 X149.57 Y141.05
G1 F4500 X139.61 Y151.01 E971.78145
G0 F6000 X137.79 Y150.35
G1 F4500 X135.88 Y152.27 E971.89398
G0 F6000 X135.43 Y152.37
G1 F4500 X136.53 Y151.27 E971.95872
G0 F6000 X136.79 Y151.01
G1 F4500 X148.37 Y139.42 E972.63966
G0 F6000 X146.95 Y139.42
G1 F4500 X135.43 Y150.95 E973.31749
G0 F6000 X135.88 Y150.85
G1 F4500 X136.38 Y150.35 E973.34689
G0 F6000 X137.08 Y150.35
G1 F4500 X135.88 Y151.56 E973.41786
G0 F6000 X135.81 Y153.39
G1 F4500 X135.43 Y153.78 E973.44076
G0 F6000 X135.78 Y154.84
G1 F4500 X135.43 Y155.19 E973.46134
G0 F6000 X135.78 Y156.26
G1 F4500 X135.43 Y156.61 E973.48195
G0 F6000 X135.78 Y157.67
G1 F4500 X135.43 Y158.02 E973.50256
G0 F6000 X135.78 Y159.09
G1 F4500 X135.43 Y159.44 E973.52316
G0 F6000 X135.78 Y160.50
G1 F4500 X135.43 Y160.85 E973.54377
G0 F6000 X135.78 Y161.92
G1 F4500 X135.43 Y162.27 E973.56435
G0 F6000 X135.81 Y163.29
G1 F4500 X135.43 Y163.68 E973.58713
G0 F6000 X135.81 Y164.71
G1 F4500 X135.43 Y165.09 E973.60995
G0 F6000 X135.14 Y139.14
G0 X149.86 Y139.14
G0 X149.19 Y165.48
G1 F4500 X149.57 Y165.09 E973.63276
G0 F6000 X149.19 Y164.06
G1 F4500 X149.57 Y163.67 E973.65557
G0 F6000 X149.22 Y162.61
G1 F4500 X149.57 Y162.26 E973.67615
G0 F6000 X149.22 Y161.19
G1 F4500 X149.57 Y160.84 E973.69673
G0 F6000 X149.22 Y159.78
G1 F4500 X149.57 Y159.43 E973.71740
G0 F6000 X149.22 Y158.37
G1 F4500 X149.57 Y158.02 E973.73809
G0 F6000 X149.22 Y156.96
G1 F4500 X149.57 Y156.60 E973.75891
G0 F6000 X149.22 Y155.54
G1 F4500 X149.57 Y155.19 E973.77972
G0 F6000 X149.22 Y154.13
G1 F4500 X149.57 Y153.77 E973.80059
G0 F6000 X135.43 Y149.54
G1 F4500 X145.54 Y139.42 E974.39526
G0 F6000 X144.12 Y139.42
G1 F4500 X135.43 Y148.12 E974.90678
G0 F6000 X135.43 Y146.71
