;-- START GCODE --
;Sliced for Type A Machines Series 1
;Sliced at: Thu 17-11-2016 20:25:54
;Basic settings: Layer height: 0.2 Walls: 1.2 Fill: 20
;Print Speed: 40 Support: 0
;Retraction Speed: 40 Retraction Distance: 1.2
;Print time: #P_TIME#
;Filament used: #F_AMNT#m #F_WGHT#g
;Filament cost: #F_COST#
M106 S255	 ;start with the fan on
G21        ;metric values
G90        ;absolute positioning
M106 S255    ;start with the fan on
G28     ;move to endstops
G29		;allows for auto-levelling
G1 X150 Y5  Z15.0 F12000 ;center and move the platform down 15mm
M109 S220 ;Heat To temp
G92 E0                  ;zero the extruded length
G1 F200 E30              ;extrude 30mm of feed stock
G92 E0                  ;zero the extruded length again
G1 X175 Y25  Z0 F12000 ;remove bugger
G1 X220 F12000 ;remove bugger
G1 X150 Y150  Z15 F12000 ;recenter and begin
G1 F12000

;Layer count: 14
;LAYER:0
M106 S255
G0 F12000 X128.60 Y128.47 Z0.30
;TYPE:SKIRT
G1 F2400 X130.89 Y126.18 E0.16164
G1 X133.53 Y124.26 E0.32425
G1 X136.43 Y122.79 E0.48644
G1 X139.49 Y121.80 E0.64705
G1 X142.63 Y121.29 E0.80590
G1 X145.40 Y121.28 E0.94370
G1 X161.03 Y121.28 E1.72373
G1 X162.66 Y121.34 E1.80522
G1 X165.51 Y121.80 E1.94896
G1 X168.57 Y122.79 E2.10957
G1 X171.47 Y124.26 E2.27176
G1 X174.11 Y126.18 E2.43437
G1 X176.40 Y128.47 E2.59601
G1 X178.31 Y131.10 E2.75862
G1 X179.78 Y134.00 E2.92081
G1 X180.78 Y137.07 E3.08142
G1 X181.28 Y140.22 E3.24082
G1 X181.30 Y143.32 E3.39528
G1 X181.30 Y163.46 E4.40007
G1 X181.23 Y165.09 E4.48155
G1 X180.78 Y167.93 E4.62530
G1 X179.78 Y171.00 E4.78591
G1 X178.31 Y173.90 E4.94809
G1 X176.40 Y176.53 E5.11070
G1 X174.11 Y178.82 E5.27235
G1 X171.47 Y180.74 E5.43496
G1 X168.57 Y182.21 E5.59714
G1 X165.51 Y183.20 E5.75775
G1 X162.37 Y183.71 E5.91660
G1 X159.60 Y183.72 E6.05440
G1 X143.97 Y183.72 E6.83443
G1 X142.34 Y183.66 E6.91592
G1 X139.49 Y183.20 E7.05966
G1 X136.43 Y182.21 E7.22027
G1 X133.53 Y180.74 E7.38246
G1 X130.89 Y178.82 E7.54507
G1 X128.60 Y176.53 E7.70671
G1 X126.69 Y173.90 E7.86932
G1 X125.22 Y171.00 E8.03151
G1 X124.22 Y167.93 E8.19212
G1 X123.72 Y164.78 E8.35152
G1 X123.70 Y161.68 E8.50598
G1 X123.70 Y141.54 E9.51077
G1 X123.77 Y139.91 E9.59226
G1 X124.22 Y137.07 E9.73600
G1 X125.22 Y134.00 E9.89661
G1 X126.69 Y131.10 E10.05880
G1 X128.60 Y128.47 E10.22141
G0 F12000 X128.91 Y128.73
G1 F2400 X131.16 Y126.48 E10.37994
G1 X133.74 Y124.60 E10.53941
G1 X136.58 Y123.16 E10.69845
G1 X139.59 Y122.19 E10.85592
G1 X142.67 Y121.69 E11.01169
G1 X145.40 Y121.67 E11.14789
G1 X161.02 Y121.67 E11.92747
G1 X162.62 Y121.74 E12.00736
G1 X165.41 Y122.19 E12.14837
G1 X168.42 Y123.16 E12.30585
G1 X171.26 Y124.60 E12.46489
G1 X173.84 Y126.48 E12.62435
G1 X176.09 Y128.73 E12.78289
G1 X177.97 Y131.31 E12.94236
G1 X179.41 Y134.16 E13.10140
G1 X180.39 Y137.16 E13.25887
G1 X180.88 Y140.25 E13.41519
G1 X180.90 Y143.32 E13.56806
G1 X180.90 Y163.45 E14.57240
G1 X180.84 Y165.05 E14.65229
G1 X180.39 Y167.84 E14.79330
G1 X179.41 Y170.84 E14.95077
G1 X177.97 Y173.69 E15.10981
G1 X176.09 Y176.27 E15.26927
G1 X173.84 Y178.52 E15.42781
G1 X171.26 Y180.40 E15.58728
G1 X168.42 Y181.84 E15.74632
G1 X165.41 Y182.81 E15.90379
G1 X162.33 Y183.31 E16.05956
G1 X159.60 Y183.32 E16.19576
G1 X143.98 Y183.32 E16.97534
G1 X142.38 Y183.26 E17.05523
G1 X139.59 Y182.81 E17.19624
G1 X136.58 Y181.84 E17.35371
G1 X133.74 Y180.40 E17.51275
G1 X131.16 Y178.52 E17.67222
G1 X128.91 Y176.27 E17.83076
G1 X127.03 Y173.69 E17.99023
G1 X125.59 Y170.84 E18.14926
G1 X124.61 Y167.84 E18.30674
G1 X124.12 Y164.75 E18.46306
G1 X124.10 Y161.68 E18.61593
G1 X124.10 Y141.55 E19.62026
G1 X124.17 Y139.95 E19.70016
G1 X124.61 Y137.16 E19.84117
G1 X125.59 Y134.16 E19.99864
G1 X127.03 Y131.31 E20.15768
G1 X128.91 Y128.73 E20.31714
G0 F12000 X129.21 Y128.99
G1 F2400 X131.41 Y126.79 E20.47251
G1 X133.95 Y124.95 E20.62880
G1 X136.74 Y123.53 E20.78474
G1 X139.68 Y122.58 E20.93910
G1 X142.70 Y122.09 E21.09178
G1 X145.40 Y122.08 E21.22639
G1 X161.01 Y122.08 E22.00548
G1 X162.59 Y122.14 E22.08387
G1 X165.32 Y122.58 E22.22210
G1 X168.26 Y123.53 E22.37646
G1 X171.05 Y124.95 E22.53240
G1 X173.59 Y126.79 E22.68869
G1 X175.79 Y128.99 E22.84406
G1 X177.63 Y131.52 E23.00035
G1 X179.04 Y134.31 E23.15629
G1 X180.00 Y137.25 E23.31065
G1 X180.48 Y140.29 E23.46389
G1 X180.50 Y143.32 E23.61521
G1 X180.50 Y163.44 E24.61900
G1 X180.44 Y165.01 E24.69739
G1 X180.00 Y167.75 E24.83562
G1 X179.04 Y170.69 E24.98999
G1 X177.63 Y173.48 E25.14593
G1 X175.79 Y176.01 E25.30222
G1 X173.59 Y178.21 E25.45758
G1 X171.05 Y180.05 E25.61388
G1 X168.26 Y181.47 E25.76982
G1 X165.32 Y182.42 E25.92418
G1 X162.30 Y182.91 E26.07686
G1 X159.60 Y182.93 E26.21147
G1 X143.99 Y182.93 E26.99055
G1 X142.41 Y182.86 E27.06895
G1 X139.68 Y182.42 E27.20718
G1 X136.74 Y181.47 E27.36154
G1 X133.95 Y180.05 E27.51748
G1 X131.41 Y178.21 E27.67377
G1 X129.21 Y176.01 E27.82913
G1 X127.37 Y173.48 E27.98543
G1 X125.96 Y170.69 E28.14137
G1 X125.00 Y167.75 E28.29573
G1 X124.52 Y164.71 E28.44897
G1 X124.50 Y161.68 E28.60029
G1 X124.50 Y141.56 E29.60408
G1 X124.56 Y139.99 E29.68247
G1 X125.00 Y137.25 E29.82070
G1 X125.96 Y134.31 E29.97507
G1 X127.37 Y131.52 E30.13100
G1 X129.21 Y128.99 E30.28730
G0 F12000 X129.52 Y129.25
G1 F2400 X131.68 Y127.09 E30.43956
G1 X134.16 Y125.29 E30.59271
G1 X136.89 Y123.90 E30.74545
G1 X139.77 Y122.97 E30.89673
G1 X142.73 Y122.49 E31.04632
G1 X145.40 Y122.47 E31.17938
G1 X161.01 Y122.47 E31.95797
G1 X162.54 Y122.54 E32.03476
G1 X165.23 Y122.97 E32.17027
G1 X168.11 Y123.90 E32.32154
G1 X170.84 Y125.29 E32.47429
G1 X173.32 Y127.09 E32.62744
G1 X175.48 Y129.25 E32.77970
G1 X177.29 Y131.73 E32.93285
G1 X178.67 Y134.46 E33.08560
G1 X179.61 Y137.35 E33.23687
G1 X180.08 Y140.32 E33.38702
G1 X180.10 Y143.32 E33.53675
G1 X180.10 Y163.43 E34.54009
G1 X180.04 Y164.97 E34.61688
G1 X179.61 Y167.65 E34.75239
G1 X178.67 Y170.54 E34.90366
G1 X177.29 Y173.27 E35.05641
G1 X175.48 Y175.75 E35.20956
G1 X173.32 Y177.91 E35.36182
G1 X170.84 Y179.71 E35.51497
G1 X168.11 Y181.10 E35.66771
G1 X165.23 Y182.03 E35.81899
G1 X162.27 Y182.51 E35.96858
G1 X159.60 Y182.53 E36.10164
G1 X143.99 Y182.53 E36.88023
G1 X142.46 Y182.46 E36.95702
G1 X139.77 Y182.03 E37.09253
G1 X136.89 Y181.10 E37.24380
G1 X134.16 Y179.71 E37.39655
G1 X131.68 Y177.91 E37.54970
G1 X129.52 Y175.75 E37.70196
G1 X127.71 Y173.27 E37.85511
G1 X126.33 Y170.54 E38.00786
G1 X125.39 Y167.65 E38.15913
G1 X124.92 Y164.68 E38.30928
G1 X124.90 Y161.68 E38.45901
G1 X124.90 Y141.57 E39.46235
G1 X124.96 Y140.03 E39.53914
G1 X125.39 Y137.35 E39.67465
G1 X126.33 Y134.46 E39.82592
G1 X127.71 Y131.73 E39.97867
G1 X129.52 Y129.25 E40.13182
G0 F12000 X129.82 Y129.51
G1 F2400 X131.94 Y127.40 E40.28097
G1 X134.37 Y125.63 E40.43094
G1 X137.04 Y124.27 E40.58054
G1 X139.87 Y123.36 E40.72872
G1 X142.77 Y122.89 E40.87523
G1 X145.40 Y122.88 E41.00670
G1 X161.00 Y122.88 E41.78483
G1 X162.50 Y122.94 E41.86003
G1 X165.13 Y123.36 E41.99280
G1 X167.96 Y124.27 E42.14098
G1 X170.63 Y125.63 E42.29058
G1 X173.06 Y127.40 E42.44055
G1 X175.18 Y129.51 E42.58971
G1 X176.94 Y131.94 E42.73967
G1 X178.30 Y134.62 E42.88927
G1 X179.22 Y137.44 E43.03745
G1 X179.68 Y140.35 E43.18452
G1 X179.70 Y143.32 E43.33265
G1 X179.70 Y163.42 E44.33554
G1 X179.64 Y164.93 E44.41074
G1 X179.22 Y167.56 E44.54351
G1 X178.30 Y170.38 E44.69169
G1 X176.94 Y173.06 E44.84130
G1 X175.18 Y175.49 E44.99126
G1 X173.06 Y177.60 E45.14042
G1 X170.63 Y179.37 E45.29038
G1 X167.96 Y180.73 E45.43998
G1 X165.13 Y181.64 E45.58816
G1 X162.23 Y182.11 E45.73468
G1 X159.60 Y182.12 E45.86614
G1 X144.00 Y182.12 E46.64428
G1 X142.50 Y182.06 E46.71947
G1 X139.87 Y181.64 E46.85225
G1 X137.04 Y180.73 E47.00043
G1 X134.37 Y179.37 E47.15003
G1 X131.94 Y177.60 E47.30000
G1 X129.82 Y175.49 E47.44915
G1 X128.06 Y173.06 E47.59912
G1 X126.70 Y170.38 E47.74872
G1 X125.78 Y167.56 E47.89690
G1 X125.32 Y164.65 E48.04397
G1 X125.30 Y161.68 E48.19210
G1 X125.30 Y141.58 E49.19499
G1 X125.36 Y140.07 E49.27018
G1 X125.78 Y137.44 E49.40296
G1 X126.70 Y134.62 E49.55114
G1 X128.06 Y131.94 E49.70074
G1 X129.82 Y129.51 E49.85071
G0 F12000 X130.13 Y129.77
G1 F2400 X132.20 Y127.70 E49.99669
G1 X134.58 Y125.97 E50.14352
G1 X137.19 Y124.64 E50.28995
G1 X139.96 Y123.75 E50.43504
G1 X142.80 Y123.29 E50.57848
G1 X145.40 Y123.28 E50.70835
G1 X160.99 Y123.28 E51.48603
G1 X162.47 Y123.33 E51.55963
G1 X165.04 Y123.75 E51.68968
G1 X167.81 Y124.64 E51.83476
G1 X170.42 Y125.97 E51.98120
G1 X172.80 Y127.70 E52.12803
G1 X174.87 Y129.77 E52.27401
G1 X176.60 Y132.15 E52.42084
G1 X177.93 Y134.77 E52.56728
G1 X178.83 Y137.54 E52.71236
G1 X179.28 Y140.38 E52.85630
G1 X179.30 Y143.32 E53.00288
G1 X179.30 Y163.42 E54.00533
G1 X179.24 Y164.89 E54.07893
G1 X178.83 Y167.46 E54.20897
G1 X177.93 Y170.23 E54.35406
G1 X176.60 Y172.85 E54.50049
G1 X174.87 Y175.23 E54.64732
G1 X172.80 Y177.30 E54.79330
G1 X170.42 Y179.03 E54.94014
G1 X167.81 Y180.36 E55.08657
G1 X165.04 Y181.25 E55.23166
G1 X162.20 Y181.71 E55.37509
G1 X159.60 Y181.72 E55.50496
G1 X144.01 Y181.72 E56.28265
G1 X142.53 Y181.66 E56.35625
G1 X139.96 Y181.25 E56.48629
G1 X137.19 Y180.36 E56.63138
G1 X134.58 Y179.03 E56.77781
G1 X132.20 Y177.30 E56.92465
G1 X130.13 Y175.23 E57.07063
G1 X128.40 Y172.85 E57.21746
G1 X127.07 Y170.23 E57.36389
G1 X126.17 Y167.46 E57.50898
G1 X125.72 Y164.62 E57.65292
G1 X125.70 Y161.68 E57.79950
G1 X125.70 Y141.58 E58.80194
G1 X125.76 Y140.11 E58.87554
G1 X126.17 Y137.54 E59.00559
G1 X127.07 Y134.77 E59.15067
G1 X128.40 Y132.15 E59.29711
G1 X130.13 Y129.77 E59.44394
G0 F12000 X130.43 Y130.03
G1 F2400 X132.46 Y128.01 E59.58681
G1 X134.79 Y126.31 E59.73046
G1 X137.35 Y125.02 E59.87380
G1 X140.05 Y124.14 E60.01570
G1 X142.83 Y123.69 E60.15610
G1 X145.41 Y123.67 E60.28442
G1 X160.98 Y123.67 E61.06161
G1 X162.43 Y123.73 E61.13361
G1 X164.95 Y124.14 E61.26098
G1 X167.65 Y125.02 E61.40288
G1 X170.21 Y126.31 E61.54621
G1 X172.54 Y128.01 E61.68986
G1 X174.57 Y130.03 E61.83274
G1 X176.26 Y132.36 E61.97639
G1 X177.56 Y134.92 E62.11972
G1 X178.44 Y137.63 E62.26162
G1 X178.88 Y140.42 E62.40252
G1 X178.90 Y143.32 E62.54750
G1 X178.90 Y163.41 E63.54950
G1 X178.84 Y164.85 E63.62150
G1 X178.44 Y167.37 E63.74887
G1 X177.56 Y170.08 E63.89077
G1 X176.26 Y172.64 E64.03410
G1 X174.57 Y174.97 E64.17775
G1 X172.54 Y176.99 E64.32062
G1 X170.21 Y178.69 E64.46427
G1 X167.65 Y179.99 E64.60761
G1 X164.95 Y180.86 E64.74951
G1 X162.17 Y181.31 E64.88991
G1 X159.59 Y181.32 E65.01823
G1 X144.02 Y181.32 E65.79542
G1 X142.57 Y181.27 E65.86742
G1 X140.05 Y180.86 E65.99479
G1 X137.35 Y179.99 E66.13669
G1 X134.79 Y178.69 E66.28002
G1 X132.46 Y176.99 E66.42367
G1 X130.43 Y174.97 E66.56654
G1 X128.74 Y172.64 E66.71019
G1 X127.44 Y170.08 E66.85353
G1 X126.56 Y167.37 E66.99543
G1 X126.12 Y164.58 E67.13633
G1 X126.10 Y161.68 E67.28131
G1 X126.10 Y141.59 E68.28331
G1 X126.16 Y140.15 E68.35531
G1 X126.56 Y137.63 E68.48268
G1 X127.44 Y134.92 E68.62458
G1 X128.74 Y132.36 E68.76791
G1 X130.43 Y130.03 E68.91156
G0 F12000 X130.74 Y130.29
G1 F2400 X132.72 Y128.31 E69.05126
G1 X135.00 Y126.66 E69.19181
G1 X137.50 Y125.39 E69.33197
G1 X140.15 Y124.53 E69.47076
G1 X142.87 Y124.09 E69.60808
G1 X145.41 Y124.08 E69.73480
G1 X160.97 Y124.08 E70.51155
G1 X162.39 Y124.13 E70.58200
G1 X164.85 Y124.53 E70.70659
G1 X167.50 Y125.39 E70.84538
G1 X170.00 Y126.66 E70.98554
G1 X172.28 Y128.31 E71.12609
G1 X174.26 Y130.29 E71.26579
G1 X175.92 Y132.57 E71.40634
G1 X177.19 Y135.08 E71.54650
G1 X178.05 Y137.72 E71.68529
G1 X178.49 Y140.45 E71.82312
G1 X178.50 Y143.32 E71.96651
G1 X178.50 Y163.40 E72.96805
G1 X178.44 Y164.81 E73.03850
G1 X178.05 Y167.28 E73.16309
G1 X177.19 Y169.92 E73.30189
G1 X175.92 Y172.43 E73.44205
G1 X174.26 Y174.71 E73.58260
G1 X172.28 Y176.69 E73.72230
G1 X170.00 Y178.34 E73.86284
G1 X167.50 Y179.62 E74.00301
G1 X164.85 Y180.47 E74.14180
G1 X162.13 Y180.91 E74.27912
G1 X159.59 Y180.93 E74.40584
G1 X144.03 Y180.93 E75.18258
G1 X142.61 Y180.87 E75.25304
G1 X140.15 Y180.47 E75.37762
G1 X137.50 Y179.62 E75.51642
G1 X135.00 Y178.34 E75.65658
G1 X132.72 Y176.69 E75.79713
G1 X130.74 Y174.71 E75.93683
G1 X129.08 Y172.43 E76.07737
G1 X127.81 Y169.92 E76.21754
G1 X126.95 Y167.28 E76.35633
G1 X126.52 Y164.55 E76.49416
G1 X126.50 Y161.68 E76.63754
G1 X126.50 Y141.60 E77.63909
G1 X126.56 Y140.19 E77.70954
G1 X126.95 Y137.72 E77.83413
G1 X127.81 Y135.08 E77.97292
G1 X129.08 Y132.57 E78.11309
G1 X130.74 Y130.29 E78.25363
G0 F12000 X131.04 Y130.55
G1 F2400 X132.98 Y128.62 E78.39023
G1 X135.21 Y127.00 E78.52759
G1 X137.66 Y125.76 E78.66461
G1 X140.24 Y124.92 E78.80031
G1 X142.90 Y124.49 E78.93454
G1 X145.41 Y124.47 E79.05967
G1 X160.97 Y124.47 E79.83596
G1 X162.35 Y124.53 E79.90482
G1 X164.76 Y124.92 E80.02668
G1 X167.34 Y125.76 E80.16238
G1 X169.79 Y127.00 E80.29939
G1 X172.02 Y128.62 E80.43676
G1 X173.96 Y130.55 E80.57335
G1 X175.58 Y132.78 E80.71072
G1 X176.82 Y135.23 E80.84773
G1 X177.66 Y137.82 E80.98343
G1 X178.09 Y140.48 E81.11818
G1 X178.10 Y143.33 E81.25997
G1 X178.10 Y163.39 E82.26106
G1 X178.04 Y164.77 E82.32992
G1 X177.66 Y167.18 E82.45178
G1 X176.82 Y169.77 E82.58748
G1 X175.58 Y172.22 E82.72449
G1 X173.96 Y174.45 E82.86186
G1 X172.02 Y176.38 E82.99845
G1 X169.79 Y178.00 E83.13582
G1 X167.34 Y179.24 E83.27283
G1 X164.76 Y180.08 E83.40853
G1 X162.10 Y180.51 E83.54277
G1 X159.59 Y180.53 E83.66790
G1 X144.03 Y180.53 E84.44419
G1 X142.65 Y180.47 E84.51304
G1 X140.24 Y180.08 E84.63490
G1 X137.66 Y179.24 E84.77060
G1 X135.21 Y178.00 E84.90762
G1 X132.98 Y176.38 E85.04498
G1 X131.04 Y174.45 E85.18158
G1 X129.42 Y172.22 E85.31894
G1 X128.18 Y169.77 E85.45596
G1 X127.34 Y167.18 E85.59166
G1 X126.92 Y164.52 E85.72640
G1 X126.90 Y161.67 E85.86819
G1 X126.90 Y141.61 E86.86929
G1 X126.96 Y140.23 E86.93814
G1 X127.34 Y137.82 E87.06000
G1 X128.18 Y135.23 E87.19570
G1 X129.42 Y132.78 E87.33272
G1 X131.04 Y130.55 E87.47008
G0 F12000 X131.35 Y130.81
G1 F2400 X133.24 Y128.92 E87.60357
G1 X135.42 Y127.34 E87.73776
G1 X137.81 Y126.13 E87.87161
G1 X140.34 Y125.31 E88.00422
G1 X142.93 Y124.89 E88.13537
G1 X145.41 Y124.88 E88.25895
G1 X160.96 Y124.88 E89.03474
G1 X162.31 Y124.93 E89.10200
G1 X164.66 Y125.31 E89.22113
G1 X167.19 Y126.13 E89.35374
G1 X169.58 Y127.34 E89.48759
G1 X171.76 Y128.92 E89.62178
G1 X173.65 Y130.81 E89.75527
G1 X175.23 Y132.99 E89.88946
G1 X176.45 Y135.38 E90.02331
G1 X177.27 Y137.91 E90.15591
G1 X177.69 Y140.52 E90.28757
G1 X177.70 Y143.33 E90.42777
G1 X177.70 Y163.38 E91.42841
G1 X177.65 Y164.73 E91.49567
G1 X177.27 Y167.09 E91.61480
G1 X176.45 Y169.62 E91.74741
G1 X175.23 Y172.01 E91.88126
G1 X173.65 Y174.19 E92.01545
G1 X171.76 Y176.08 E92.14894
G1 X169.58 Y177.66 E92.28313
G1 X167.19 Y178.87 E92.41698
G1 X164.66 Y179.69 E92.54958
G1 X162.07 Y180.11 E92.68074
G1 X159.59 Y180.12 E92.80432
G1 X144.04 Y180.12 E93.58011
G1 X142.69 Y180.07 E93.64737
G1 X140.34 Y179.69 E93.76650
G1 X137.81 Y178.87 E93.89910
G1 X135.42 Y177.66 E94.03295
G1 X133.24 Y176.08 E94.16714
G1 X131.35 Y174.19 E94.30063
G1 X129.77 Y172.01 E94.43482
G1 X128.55 Y169.62 E94.56867
G1 X127.73 Y167.09 E94.70128
G1 X127.31 Y164.48 E94.83294
G1 X127.30 Y161.67 E94.97313
G1 X127.30 Y141.62 E95.97378
G1 X127.36 Y140.27 E96.04104
G1 X127.73 Y137.91 E96.16017
G1 X128.55 Y135.38 E96.29277
G1 X129.77 Y132.99 E96.42662
G1 X131.35 Y130.81 E96.56081
G0 F12000 X131.65 Y131.07
G1 F2400 X133.50 Y129.23 E96.69113
G1 X135.62 Y127.68 E96.82218
G1 X137.96 Y126.50 E96.95288
G1 X140.43 Y125.70 E97.08238
G1 X142.97 Y125.29 E97.21046
G1 X145.41 Y125.28 E97.33245
G1 X160.95 Y125.28 E98.10779
G1 X162.27 Y125.33 E98.17345
G1 X164.57 Y125.70 E98.28986
G1 X167.04 Y126.50 E98.41936
G1 X169.38 Y127.68 E98.55006
G1 X171.50 Y129.23 E98.68111
G1 X173.35 Y131.07 E98.81143
G1 X174.89 Y133.20 E98.94247
G1 X176.08 Y135.54 E99.07318
G1 X176.88 Y138.00 E99.20268
G1 X177.28 Y140.55 E99.33126
G1 X177.30 Y143.33 E99.46986
G1 X177.30 Y163.38 E100.47006
G1 X177.25 Y164.69 E100.53571
G1 X176.88 Y167.00 E100.65213
G1 X176.08 Y169.46 E100.78162
G1 X174.89 Y171.80 E100.91233
G1 X173.35 Y173.93 E101.04338
G1 X171.50 Y175.77 E101.17369
G1 X169.38 Y177.32 E101.30474
G1 X167.04 Y178.50 E101.43544
G1 X164.57 Y179.30 E101.56494
G1 X162.03 Y179.71 E101.69302
G1 X159.59 Y179.72 E101.81501
G1 X144.05 Y179.72 E102.59035
G1 X142.73 Y179.67 E102.65601
G1 X140.43 Y179.30 E102.77242
G1 X137.96 Y178.50 E102.90192
G1 X135.62 Y177.32 E103.03263
G1 X133.50 Y175.77 E103.16367
G1 X131.65 Y173.93 E103.29399
G1 X130.11 Y171.80 E103.42503
G1 X128.92 Y169.46 E103.55574
G1 X128.12 Y167.00 E103.68524
G1 X127.72 Y164.45 E103.81382
G1 X127.70 Y161.67 E103.95242
G1 X127.70 Y141.62 E104.95262
G1 X127.75 Y140.31 E105.01828
G1 X128.12 Y138.00 E105.13469
G1 X128.92 Y135.54 E105.26419
G1 X130.11 Y133.20 E105.39489
G1 X131.65 Y131.07 E105.52594
G0 F12000 X131.96 Y131.34
G1 F2400 X133.76 Y129.53 E105.65308
G1 X135.83 Y128.03 E105.78097
G1 X138.12 Y126.87 E105.90857
G1 X140.52 Y126.09 E106.03493
G1 X143.00 Y125.69 E106.15998
G1 X145.41 Y125.67 E106.28032
G1 X160.94 Y125.67 E107.05521
G1 X162.23 Y125.73 E107.11927
G1 X164.48 Y126.09 E107.23295
G1 X166.88 Y126.87 E107.35931
G1 X169.17 Y128.03 E107.48692
G1 X171.24 Y129.53 E107.61481
G1 X173.04 Y131.34 E107.74195
G1 X174.55 Y133.41 E107.86984
G1 X175.71 Y135.69 E107.99744
G1 X176.49 Y138.10 E108.12380
G1 X176.88 Y140.58 E108.24925
G1 X176.90 Y143.33 E108.38630
G1 X176.90 Y163.37 E109.38605
G1 X176.85 Y164.65 E109.45012
G1 X176.49 Y166.90 E109.56380
G1 X175.71 Y169.31 E109.69016
G1 X174.55 Y171.59 E109.81776
G1 X173.04 Y173.66 E109.94565
G1 X171.24 Y175.47 E110.07279
G1 X169.17 Y176.97 E110.20068
G1 X166.88 Y178.13 E110.32828
G1 X164.48 Y178.91 E110.45464
G1 X162.00 Y179.31 E110.57969
G1 X159.59 Y179.32 E110.70003
G1 X144.06 Y179.32 E111.47493
G1 X142.77 Y179.27 E111.53899
G1 X140.52 Y178.91 E111.65267
G1 X138.12 Y178.13 E111.77903
G1 X135.83 Y176.97 E111.90663
G1 X133.76 Y175.47 E112.03452
G1 X131.96 Y173.66 E112.16166
G1 X130.45 Y171.59 E112.28955
G1 X129.29 Y169.31 E112.41716
G1 X128.51 Y166.90 E112.54352
G1 X128.12 Y164.42 E112.66897
G1 X128.10 Y161.67 E112.80602
G1 X128.10 Y141.63 E113.80577
G1 X128.15 Y140.35 E113.86983
G1 X128.51 Y138.10 E113.98351
G1 X129.29 Y135.69 E114.10987
G1 X130.45 Y133.41 E114.23747
G1 X131.96 Y131.34 E114.36536
G0 F12000 X132.26 Y131.60
G1 F2400 X134.02 Y129.84 E114.48940
G1 X136.04 Y128.37 E114.61415
G1 X138.27 Y127.24 E114.73856
G1 X140.62 Y126.48 E114.86183
G1 X143.03 Y126.09 E114.98379
G1 X145.41 Y126.08 E115.10258
G1 X160.93 Y126.08 E115.87693
G1 X162.19 Y126.13 E115.93949
G1 X164.38 Y126.48 E116.05039
G1 X166.73 Y127.24 E116.17366
G1 X168.96 Y128.37 E116.29807
G1 X170.98 Y129.84 E116.42282
G1 X172.74 Y131.60 E116.54686
G1 X174.21 Y133.62 E116.67160
G1 X175.34 Y135.84 E116.79602
G1 X176.10 Y138.19 E116.91928
G1 X176.49 Y140.62 E117.04165
G1 X176.50 Y143.33 E117.17710
G1 X176.50 Y163.36 E118.17635
G1 X176.45 Y164.61 E118.23892
G1 X176.10 Y166.81 E118.34982
G1 X175.34 Y169.16 E118.47309
G1 X174.21 Y171.38 E118.59750
G1 X172.74 Y173.40 E118.72225
G1 X170.98 Y175.16 E118.84628
G1 X168.96 Y176.63 E118.97103
G1 X166.73 Y177.76 E119.09544
G1 X164.38 Y178.52 E119.21871
G1 X161.97 Y178.91 E119.34067
G1 X159.59 Y178.93 E119.45946
G1 X144.07 Y178.93 E120.23381
G1 X142.81 Y178.87 E120.29637
G1 X140.62 Y178.52 E120.40728
G1 X138.27 Y177.76 E120.53054
G1 X136.04 Y176.63 E120.65495
G1 X134.02 Y175.16 E120.77970
G1 X132.26 Y173.40 E120.90374
G1 X130.79 Y171.38 E121.02849
G1 X129.66 Y169.16 E121.15290
G1 X128.90 Y166.81 E121.27617
G1 X128.51 Y164.38 E121.39853
G1 X128.50 Y161.67 E121.53399
G1 X128.50 Y141.64 E122.53324
G1 X128.55 Y140.39 E122.59580
G1 X128.90 Y138.19 E122.70670
G1 X129.66 Y135.84 E122.82997
G1 X130.79 Y133.62 E122.95438
G1 X132.26 Y131.60 E123.07913
G0 F12000 X132.57 Y131.86
G1 F2400 X134.28 Y130.14 E123.19999
G1 X136.25 Y128.71 E123.32157
G1 X138.42 Y127.61 E123.44288
G1 X140.71 Y126.87 E123.56304
G1 X143.06 Y126.49 E123.68192
G1 X145.41 Y126.47 E123.79911
G1 X160.93 Y126.47 E124.57301
G1 X162.15 Y126.52 E124.63397
G1 X164.29 Y126.87 E124.74215
G1 X166.58 Y127.61 E124.86231
G1 X168.75 Y128.71 E124.98362
G1 X170.72 Y130.14 E125.10520
G1 X172.43 Y131.86 E125.22606
G1 X173.86 Y133.83 E125.34763
G1 X174.97 Y136.00 E125.46894
G1 X175.71 Y138.29 E125.58910
G1 X176.09 Y140.65 E125.70839
G1 X176.10 Y143.33 E125.84225
G1 X176.10 Y163.35 E126.84105
G1 X176.05 Y164.57 E126.90202
G1 X175.71 Y166.71 E127.01019
G1 X174.97 Y169.00 E127.13035
G1 X173.86 Y171.17 E127.25166
G1 X172.43 Y173.14 E127.37324
G1 X170.72 Y174.86 E127.49410
G1 X168.75 Y176.29 E127.61568
G1 X166.58 Y177.39 E127.73699
G1 X164.29 Y178.13 E127.85715
G1 X161.94 Y178.51 E127.97603
G1 X159.59 Y178.53 E128.09322
G1 X144.07 Y178.53 E128.86712
G1 X142.85 Y178.48 E128.92808
G1 X140.71 Y178.13 E129.03626
G1 X138.42 Y177.39 E129.15642
G1 X136.25 Y176.29 E129.27773
G1 X134.28 Y174.86 E129.39931
G1 X132.57 Y173.14 E129.52017
G1 X131.14 Y171.17 E129.64174
G1 X130.03 Y169.00 E129.76305
G1 X129.29 Y166.71 E129.88321
G1 X128.91 Y164.35 E130.00250
G1 X128.90 Y161.67 E130.13636
G1 X128.90 Y141.65 E131.13516
G1 X128.95 Y140.43 E131.19613
G1 X129.29 Y138.29 E131.30430
G1 X130.03 Y136.00 E131.42446
G1 X131.14 Y133.83 E131.54577
G1 X132.57 Y131.86 E131.66735
G0 F12000 X132.87 Y132.12
G1 F2400 X134.54 Y130.45 E131.78511
G1 X136.46 Y129.05 E131.90354
G1 X138.57 Y127.98 E132.02166
G1 X140.81 Y127.26 E132.13873
G1 X143.10 Y126.89 E132.25453
G1 X145.41 Y126.88 E132.37013
G1 X160.92 Y126.88 E133.14358
G1 X162.11 Y126.92 E133.20294
G1 X164.19 Y127.26 E133.30839
G1 X166.43 Y127.98 E133.42546
G1 X168.54 Y129.05 E133.54358
G1 X170.46 Y130.45 E133.66201
G1 X172.13 Y132.12 E133.77977
G1 X173.52 Y134.04 E133.89820
G1 X174.59 Y136.15 E134.01632
G1 X175.32 Y138.38 E134.13338
G1 X175.69 Y140.68 E134.24959
G1 X175.70 Y143.33 E134.38185
G1 X175.70 Y163.34 E135.38021
G1 X175.65 Y164.53 E135.43957
G1 X175.32 Y166.62 E135.54502
G1 X174.59 Y168.85 E135.66209
G1 X173.52 Y170.96 E135.78021
G1 X172.13 Y172.88 E135.89864
G1 X170.46 Y174.55 E136.01639
G1 X168.54 Y175.95 E136.13483
G1 X166.43 Y177.02 E136.25295
G1 X164.19 Y177.74 E136.37001
G1 X161.90 Y178.11 E136.48582
G1 X159.59 Y178.12 E136.60142
G1 X144.08 Y178.12 E137.37486
G1 X142.89 Y178.08 E137.43423
G1 X140.81 Y177.74 E137.53968
G1 X138.57 Y177.02 E137.65674
G1 X136.46 Y175.95 E137.77486
G1 X134.54 Y174.55 E137.89330
G1 X132.87 Y172.88 E138.01105
G1 X131.48 Y170.96 E138.12949
G1 X130.41 Y168.85 E138.24761
G1 X129.68 Y166.62 E138.36467
G1 X129.31 Y164.32 E138.48088
G1 X129.30 Y161.67 E138.61314
G1 X129.30 Y141.66 E139.61149
G1 X129.35 Y140.47 E139.67086
G1 X129.68 Y138.38 E139.77631
G1 X130.41 Y136.15 E139.89337
G1 X131.48 Y134.04 E140.01149
G1 X132.87 Y132.12 E140.12993
G0 F12000 X133.18 Y132.38
G1 F2400 X134.80 Y130.75 E140.24458
G1 X136.67 Y129.40 E140.35983
G1 X138.73 Y128.35 E140.47480
G1 X140.90 Y127.65 E140.58873
G1 X143.13 Y127.29 E140.70150
G1 X145.42 Y127.28 E140.81555
G1 X160.91 Y127.28 E141.58850
G1 X162.07 Y127.32 E141.64627
G1 X164.10 Y127.65 E141.74903
G1 X166.27 Y128.35 E141.86296
G1 X168.33 Y129.40 E141.97793
G1 X170.20 Y130.75 E142.09318
G1 X171.82 Y132.38 E142.20783
G1 X173.18 Y134.25 E142.32308
G1 X174.22 Y136.30 E142.43806
G1 X174.93 Y138.47 E142.55198
G1 X175.29 Y140.71 E142.66516
G1 X175.30 Y143.33 E142.79582
G1 X175.30 Y163.34 E143.79372
G1 X175.25 Y164.49 E143.85149
G1 X174.93 Y166.53 E143.95426
G1 X174.22 Y168.70 E144.06819
G1 X173.18 Y170.75 E144.18316
G1 X171.82 Y172.62 E144.29841
G1 X170.20 Y174.25 E144.41306
G1 X168.33 Y175.60 E144.52831
G1 X166.27 Y176.65 E144.64328
G1 X164.10 Y177.35 E144.75721
G1 X161.87 Y177.71 E144.86998
G1 X159.58 Y177.72 E144.98403
G1 X144.09 Y177.72 E145.75698
G1 X142.93 Y177.68 E145.81475
G1 X140.90 Y177.35 E145.91751
G1 X138.73 Y176.65 E146.03144
G1 X136.67 Y175.60 E146.14641
G1 X134.80 Y174.25 E146.26166
G1 X133.18 Y172.62 E146.37632
G1 X131.82 Y170.75 E146.49156
G1 X130.78 Y168.70 E146.60654
G1 X130.07 Y166.53 E146.72046
G1 X129.71 Y164.29 E146.83364
G1 X129.70 Y161.67 E146.96430
G1 X129.70 Y141.66 E147.96221
G1 X129.75 Y140.51 E148.01998
G1 X130.07 Y138.47 E148.12274
G1 X130.78 Y136.30 E148.23667
G1 X131.82 Y134.25 E148.35164
G1 X133.18 Y132.38 E148.46689
G0 F12000 X133.48 Y132.64
G1 F2400 X135.06 Y131.06 E148.57837
G1 X136.88 Y129.74 E148.69051
G1 X138.88 Y128.72 E148.80234
G1 X140.99 Y128.04 E148.91313
G1 X143.16 Y127.69 E149.02281
G1 X145.42 Y127.67 E149.13527
G1 X160.90 Y127.67 E149.90777
G1 X162.03 Y127.72 E149.96394
G1 X164.01 Y128.04 E150.06397
G1 X166.12 Y128.72 E150.17476
G1 X168.12 Y129.74 E150.28659
G1 X169.94 Y131.06 E150.39873
G1 X171.52 Y132.64 E150.51021
G1 X172.84 Y134.46 E150.62236
G1 X173.85 Y136.46 E150.73418
G1 X174.54 Y138.57 E150.84497
G1 X174.89 Y140.75 E150.95506
G1 X174.90 Y143.34 E151.08418
G1 X174.90 Y163.33 E152.08158
G1 X174.85 Y164.45 E152.13776
G1 X174.54 Y166.43 E152.23779
G1 X173.85 Y168.54 E152.34858
G1 X172.84 Y170.54 E152.46040
G1 X171.52 Y172.36 E152.57255
G1 X169.94 Y173.94 E152.68403
G1 X168.12 Y175.26 E152.79617
G1 X166.12 Y176.28 E152.90800
G1 X164.01 Y176.96 E153.01879
G1 X161.84 Y177.31 E153.12847
G1 X159.58 Y177.32 E153.24093
G1 X144.10 Y177.32 E154.01343
G1 X142.97 Y177.28 E154.06960
G1 X140.99 Y176.96 E154.16963
G1 X138.88 Y176.28 E154.28042
G1 X136.88 Y175.26 E154.39225
G1 X135.06 Y173.94 E154.50439
G1 X133.48 Y172.36 E154.61587
G1 X132.16 Y170.54 E154.72802
G1 X131.15 Y168.54 E154.83984
G1 X130.46 Y166.43 E154.95063
G1 X130.11 Y164.25 E155.06072
G1 X130.10 Y161.66 E155.18984
G1 X130.10 Y141.67 E156.18724
G1 X130.15 Y140.55 E156.24342
G1 X130.46 Y138.57 E156.34345
G1 X131.15 Y136.46 E156.45424
G1 X132.16 Y134.46 E156.56606
G1 X133.48 Y132.64 E156.67821
G0 F12000 X133.79 Y132.90
G1 F2400 X135.32 Y131.36 E156.78658
G1 X137.09 Y130.08 E156.89551
G1 X139.03 Y129.09 E157.00422
G1 X141.09 Y128.43 E157.11191
G1 X143.20 Y128.09 E157.21851
G1 X145.42 Y128.07 E157.32937
G1 X160.89 Y128.07 E158.10142
G1 X161.99 Y128.12 E158.15605
G1 X163.91 Y128.43 E158.25331
G1 X165.97 Y129.09 E158.36100
G1 X167.91 Y130.08 E158.46971
G1 X169.68 Y131.36 E158.57864
G1 X171.21 Y132.90 E158.68701
G1 X172.50 Y134.67 E158.79594
G1 X173.48 Y136.61 E158.90465
G1 X174.15 Y138.66 E159.01234
G1 X174.49 Y140.78 E159.11930
G1 X174.50 Y143.34 E159.24687
G1 X174.50 Y163.32 E160.24383
G1 X174.46 Y164.41 E160.29845
G1 X174.15 Y166.34 E160.39571
G1 X173.48 Y168.39 E160.50340
G1 X172.50 Y170.33 E160.61211
G1 X171.21 Y172.10 E160.72104
G1 X169.68 Y173.64 E160.82941
G1 X167.91 Y174.92 E160.93835
G1 X165.97 Y175.91 E161.04705
G1 X163.91 Y176.57 E161.15474
G1 X161.80 Y176.91 E161.26135
G1 X159.58 Y176.93 E161.37221
G1 X144.11 Y176.93 E162.14426
G1 X143.01 Y176.88 E162.19888
G1 X141.09 Y176.57 E162.29614
G1 X139.03 Y175.91 E162.40384
G1 X137.09 Y174.92 E162.51254
G1 X135.32 Y173.64 E162.62147
G1 X133.79 Y172.10 E162.72984
G1 X132.50 Y170.33 E162.83878
G1 X131.52 Y168.39 E162.94748
G1 X130.85 Y166.34 E163.05518
G1 X130.51 Y164.22 E163.16213
G1 X130.50 Y161.66 E163.28970
G1 X130.50 Y141.68 E164.28666
G1 X130.54 Y140.59 E164.34128
G1 X130.85 Y138.66 E164.43854
G1 X131.52 Y136.61 E164.54624
G1 X132.50 Y134.67 E164.65494
G1 X133.79 Y132.90 E164.76387
G0 F12000 X134.09 Y133.16
G1 F2400 X135.59 Y131.67 E164.86907
G1 X137.30 Y130.42 E164.97490
G1 X139.19 Y129.46 E165.08044
G1 X141.18 Y128.82 E165.18502
G1 X143.23 Y128.49 E165.28854
G1 X145.42 Y128.47 E165.39785
G1 X160.89 Y128.47 E166.16941
G1 X161.95 Y128.52 E166.22243
G1 X163.82 Y128.82 E166.31696
G1 X165.81 Y129.46 E166.42155
G1 X167.70 Y130.42 E166.52708
G1 X169.41 Y131.67 E166.63291
G1 X170.91 Y133.16 E166.73811
G1 X172.15 Y134.88 E166.84394
G1 X173.11 Y136.76 E166.94948
G1 X173.76 Y138.76 E167.05406
G1 X174.09 Y140.81 E167.15793
G1 X174.10 Y143.34 E167.28391
G1 X174.10 Y163.31 E168.28042
G1 X174.06 Y164.37 E168.33344
G1 X173.76 Y166.24 E168.42797
G1 X173.11 Y168.24 E168.53256
G1 X172.15 Y170.12 E168.63809
G1 X170.91 Y171.84 E168.74392
G1 X169.41 Y173.33 E168.84912
G1 X167.70 Y174.58 E168.95495
G1 X165.81 Y175.54 E169.06049
G1 X163.82 Y176.18 E169.16507
G1 X161.77 Y176.51 E169.26859
G1 X159.58 Y176.53 E169.37790
G1 X144.11 Y176.53 E170.14946
G1 X143.05 Y176.48 E170.20248
G1 X141.18 Y176.18 E170.29701
G1 X139.19 Y175.54 E170.40160
G1 X137.30 Y174.58 E170.50713
G1 X135.59 Y173.33 E170.61296
G1 X134.09 Y171.84 E170.71816
G1 X132.85 Y170.12 E170.82399
G1 X131.89 Y168.24 E170.92953
G1 X131.24 Y166.24 E171.03411
G1 X130.91 Y164.19 E171.13799
G1 X130.90 Y161.66 E171.26396
G1 X130.90 Y141.69 E172.26047
G1 X130.94 Y140.63 E172.31349
G1 X131.24 Y138.76 E172.40802
G1 X131.89 Y136.76 E172.51261
G1 X132.85 Y134.88 E172.61815
G1 X134.09 Y133.16 E172.72397
G0 F12000 X134.40 Y133.42
G1 F2400 X135.85 Y131.97 E172.82607
G1 X137.51 Y130.76 E172.92871
G1 X139.34 Y129.84 E173.03110
G1 X141.28 Y129.21 E173.13260
G1 X143.26 Y128.89 E173.23304
G1 X145.42 Y128.88 E173.34076
G1 X160.88 Y128.88 E174.11186
G1 X161.91 Y128.92 E174.16329
G1 X163.72 Y129.21 E174.25509
G1 X165.66 Y129.84 E174.35658
G1 X167.49 Y130.76 E174.45897
G1 X169.15 Y131.97 E174.56162
G1 X170.60 Y133.42 E174.66371
G1 X171.81 Y135.09 E174.76635
G1 X172.74 Y136.91 E174.86874
G1 X173.37 Y138.85 E174.97024
G1 X173.69 Y140.84 E175.07103
G1 X173.70 Y143.34 E175.19541
G1 X173.70 Y163.30 E176.19147
G1 X173.66 Y164.33 E176.24290
G1 X173.37 Y166.15 E176.33470
G1 X172.74 Y168.09 E176.43619
G1 X171.81 Y169.91 E176.53858
G1 X170.60 Y171.58 E176.64123
G1 X169.15 Y173.03 E176.74332
G1 X167.49 Y174.24 E176.84597
G1 X165.66 Y175.16 E176.94836
G1 X163.72 Y175.79 E177.04985
G1 X161.74 Y176.11 E177.15029
G1 X159.58 Y176.12 E177.25801
G1 X144.12 Y176.12 E178.02911
G1 X143.09 Y176.08 E178.08054
G1 X141.28 Y175.79 E178.17234
G1 X139.34 Y175.16 E178.27383
G1 X137.51 Y174.24 E178.37622
G1 X135.85 Y173.03 E178.47887
G1 X134.40 Y171.58 E178.58096
G1 X133.19 Y169.91 E178.68361
G1 X132.26 Y168.09 E178.78600
G1 X131.63 Y166.15 E178.88749
G1 X131.31 Y164.16 E178.98829
G1 X131.30 Y161.66 E179.11266
G1 X131.30 Y141.70 E180.10872
G1 X131.34 Y140.67 E180.16015
G1 X131.63 Y138.85 E180.25195
G1 X132.26 Y136.91 E180.35344
G1 X133.19 Y135.09 E180.45583
G1 X134.40 Y133.42 E180.55848
G0 F12000 X134.70 Y133.68
G1 F2400 X136.11 Y132.28 E180.65747
G1 X137.72 Y131.11 E180.75693
G1 X139.49 Y130.21 E180.85617
G1 X141.37 Y129.60 E180.95458
G1 X143.30 Y129.29 E181.05193
G1 X145.42 Y129.28 E181.15805
G1 X160.87 Y129.28 E181.92871
G1 X161.87 Y129.31 E181.97854
G1 X163.63 Y129.60 E182.06761
G1 X165.51 Y130.21 E182.16601
G1 X167.28 Y131.11 E182.26526
G1 X168.89 Y132.28 E182.36472
G1 X170.30 Y133.68 E182.46371
G1 X171.47 Y135.29 E182.56317
G1 X172.37 Y137.07 E182.66241
G1 X172.98 Y138.94 E182.76082
G1 X173.29 Y140.88 E182.85853
G1 X173.30 Y143.34 E182.98131
G1 X173.30 Y163.29 E183.97692
G1 X173.26 Y164.29 E184.02675
G1 X172.98 Y166.06 E184.11582
G1 X172.37 Y167.93 E184.21422
G1 X171.47 Y169.71 E184.31347
G1 X170.30 Y171.32 E184.41293
G1 X168.89 Y172.72 E184.51192
G1 X167.28 Y173.89 E184.61138
G1 X165.51 Y174.79 E184.71062
G1 X163.63 Y175.40 E184.80903
G1 X161.70 Y175.71 E184.90639
G1 X159.58 Y175.72 E185.01250
G1 X144.13 Y175.72 E185.78316
G1 X143.13 Y175.69 E185.83299
G1 X141.37 Y175.40 E185.92206
G1 X139.49 Y174.79 E186.02046
G1 X137.72 Y173.89 E186.11971
G1 X136.11 Y172.72 E186.21917
G1 X134.70 Y171.32 E186.31816
G1 X133.53 Y169.71 E186.41762
G1 X132.63 Y167.93 E186.51686
G1 X132.02 Y166.06 E186.61527
G1 X131.71 Y164.12 E186.71298
G1 X131.70 Y161.66 E186.83576
G1 X131.70 Y141.71 E187.83137
G1 X131.74 Y140.71 E187.88120
G1 X132.02 Y138.94 E187.97027
G1 X132.63 Y137.07 E188.06868
G1 X133.53 Y135.29 E188.16792
G1 X134.70 Y133.68 E188.26738
G0 F12000 X135.01 Y133.94
G1 F2400 X136.37 Y132.58 E188.36319
G1 X137.93 Y131.45 E188.45952
G1 X139.65 Y130.58 E188.55564
G1 X141.46 Y129.99 E188.65091
G1 X143.33 Y129.69 E188.74518
G1 X145.43 Y129.68 E188.84975
G1 X160.86 Y129.68 E189.61986
G1 X161.83 Y129.71 E189.66814
G1 X163.54 Y129.99 E189.75448
G1 X165.35 Y130.58 E189.84975
G1 X167.07 Y131.45 E189.94587
G1 X168.63 Y132.58 E190.04220
G1 X169.99 Y133.94 E190.13801
G1 X171.13 Y135.50 E190.23434
G1 X172.00 Y137.22 E190.33046
G1 X172.59 Y139.04 E190.42572
G1 X172.89 Y140.91 E190.52035
G1 X172.90 Y143.34 E190.64153
G1 X172.90 Y163.29 E191.63664
G1 X172.86 Y164.25 E191.68493
G1 X172.59 Y165.96 E191.77127
G1 X172.00 Y167.78 E191.86653
G1 X171.13 Y169.50 E191.96265
G1 X169.99 Y171.06 E192.05898
G1 X168.63 Y172.42 E192.15480
G1 X167.07 Y173.55 E192.25112
G1 X165.35 Y174.42 E192.34724
G1 X163.54 Y175.01 E192.44251
G1 X161.67 Y175.31 E192.53678
G1 X159.57 Y175.32 E192.64135
G1 X144.14 Y175.32 E193.41146
G1 X143.17 Y175.29 E193.45974
G1 X141.46 Y175.01 E193.54609
G1 X139.65 Y174.42 E193.64135
G1 X137.93 Y173.55 E193.73747
G1 X136.37 Y172.42 E193.83380
G1 X135.01 Y171.06 E193.92961
G1 X133.87 Y169.50 E194.02594
G1 X133.00 Y167.78 E194.12206
G1 X132.41 Y165.96 E194.21732
G1 X132.11 Y164.09 E194.31195
G1 X132.10 Y161.66 E194.43314
G1 X132.10 Y141.71 E195.42825
G1 X132.14 Y140.75 E195.47653
G1 X132.41 Y139.04 E195.56287
G1 X133.00 Y137.22 E195.65813
G1 X133.87 Y135.50 E195.75425
G1 X135.01 Y133.94 E195.85058
G0 F12000 X135.31 Y134.20
G1 F2400 X136.63 Y132.89 E195.94329
G1 X138.14 Y131.79 E196.03644
G1 X139.80 Y130.95 E196.12941
G1 X141.56 Y130.38 E196.22158
G1 X143.36 Y130.09 E196.31282
G1 X145.43 Y130.07 E196.41575
G1 X160.85 Y130.07 E197.18540
G1 X161.79 Y130.11 E197.23214
G1 X163.44 Y130.38 E197.31570
G1 X165.20 Y130.95 E197.40787
G1 X166.86 Y131.79 E197.50085
G1 X168.37 Y132.89 E197.59399
G1 X169.69 Y134.20 E197.68670
G1 X170.78 Y135.71 E197.77985
G1 X171.63 Y137.38 E197.87282
G1 X172.20 Y139.13 E197.96499
G1 X172.49 Y140.94 E198.05648
G1 X172.50 Y143.34 E198.17612
G1 X172.50 Y163.28 E199.17078
G1 X172.46 Y164.21 E199.21752
G1 X172.20 Y165.87 E199.30108
G1 X171.63 Y167.62 E199.39325
G1 X170.78 Y169.29 E199.48623
G1 X169.69 Y170.80 E199.57937
G1 X168.37 Y172.11 E199.67208
G1 X166.86 Y173.21 E199.76523
G1 X165.20 Y174.05 E199.85820
G1 X163.44 Y174.62 E199.95037
G1 X161.64 Y174.91 E200.04161
G1 X159.57 Y174.93 E200.14454
G1 X144.15 Y174.93 E200.91419
G1 X143.21 Y174.89 E200.96093
G1 X141.56 Y174.62 E201.04449
G1 X139.80 Y174.05 E201.13666
G1 X138.14 Y173.21 E201.22964
G1 X136.63 Y172.11 E201.32278
G1 X135.31 Y170.80 E201.41549
G1 X134.22 Y169.29 E201.50864
G1 X133.37 Y167.62 E201.60161
G1 X132.80 Y165.87 E201.69378
G1 X132.51 Y164.06 E201.78527
G1 X132.50 Y161.66 E201.90491
G1 X132.50 Y141.72 E202.89957
G1 X132.54 Y140.79 E202.94631
G1 X132.80 Y139.13 E203.02987
G1 X133.37 Y137.38 E203.12204
G1 X134.22 Y135.71 E203.21502
G1 X135.31 Y134.20 E203.30816
G0 F12000 X135.62 Y134.46
G1 F2400 X136.89 Y133.19 E203.39777
G1 X138.35 Y132.13 E203.48777
G1 X139.95 Y131.32 E203.57755
G1 X141.65 Y130.77 E203.66658
G1 X143.40 Y130.49 E203.75479
G1 X145.43 Y130.47 E203.85612
G1 X160.84 Y130.47 E204.62532
G1 X161.75 Y130.51 E204.67046
G1 X163.35 Y130.77 E204.75134
G1 X165.05 Y131.32 E204.84037
G1 X166.65 Y132.13 E204.93016
G1 X168.11 Y133.19 E205.02016
G1 X169.38 Y134.46 E205.10976
G1 X170.44 Y135.92 E205.19976
G1 X171.26 Y137.53 E205.28955
G1 X171.81 Y139.22 E205.37858
G1 X172.09 Y140.98 E205.46704
G1 X172.10 Y143.34 E205.58508
G1 X172.10 Y163.27 E206.57929
G1 X172.06 Y164.17 E206.62443
G1 X171.81 Y165.78 E206.70531
G1 X171.26 Y167.47 E206.79434
G1 X170.44 Y169.08 E206.88412
G1 X169.38 Y170.54 E206.97413
G1 X168.11 Y171.81 E207.06373
G1 X166.65 Y172.87 E207.15373
G1 X165.05 Y173.68 E207.24352
G1 X163.35 Y174.23 E207.33255
G1 X161.60 Y174.51 E207.42075
G1 X159.57 Y174.53 E207.52208
G1 X144.16 Y174.53 E208.29129
G1 X143.25 Y174.49 E208.33643
G1 X141.65 Y174.23 E208.41731
G1 X139.95 Y173.68 E208.50634
G1 X138.35 Y172.87 E208.59612
G1 X136.89 Y171.81 E208.68612
G1 X135.62 Y170.54 E208.77573
G1 X134.56 Y169.08 E208.86573
G1 X133.74 Y167.47 E208.95551
G1 X133.19 Y165.78 E209.04454
G1 X132.91 Y164.02 E209.13300
G1 X132.90 Y161.66 E209.25105
G1 X132.90 Y141.73 E210.24526
G1 X132.94 Y140.83 E210.29040
G1 X133.19 Y139.22 E210.37128
G1 X133.74 Y137.53 E210.46031
G1 X134.56 Y135.92 E210.55009
G1 X135.62 Y134.46 E210.64009
G0 F12000 X135.92 Y134.72
G1 F2400 X137.15 Y133.50 E210.72652
G1 X138.56 Y132.48 E210.81335
G1 X140.11 Y131.69 E210.90003
G1 X141.74 Y131.16 E210.98594
G1 X143.43 Y130.89 E211.07108
G1 X145.43 Y130.88 E211.17086
G1 X160.84 Y130.88 E211.93957
G1 X161.71 Y130.91 E211.98311
G1 X163.26 Y131.16 E212.06127
G1 X164.89 Y131.69 E212.14718
G1 X166.44 Y132.48 E212.23386
G1 X167.85 Y133.50 E212.32069
G1 X169.08 Y134.72 E212.40712
G1 X170.10 Y136.13 E212.49395
G1 X170.89 Y137.68 E212.58063
G1 X171.42 Y139.32 E212.66654
G1 X171.69 Y141.01 E212.75193
G1 X171.70 Y143.34 E212.86838
G1 X171.70 Y163.26 E213.86214
G1 X171.66 Y164.13 E213.90568
G1 X171.42 Y165.68 E213.98384
G1 X170.89 Y167.32 E214.06975
G1 X170.10 Y168.87 E214.15643
G1 X169.08 Y170.28 E214.24326
G1 X167.85 Y171.50 E214.32969
G1 X166.44 Y172.52 E214.41652
G1 X164.89 Y173.31 E214.50320
G1 X163.26 Y173.84 E214.58911
G1 X161.57 Y174.11 E214.67425
G1 X159.57 Y174.12 E214.77403
G1 X144.16 Y174.12 E215.54274
G1 X143.29 Y174.09 E215.58628
G1 X141.74 Y173.84 E215.66444
G1 X140.11 Y173.31 E215.75035
G1 X138.56 Y172.52 E215.83703
G1 X137.15 Y171.50 E215.92386
G1 X135.92 Y170.28 E216.01029
G1 X134.90 Y168.87 E216.09712
G1 X134.11 Y167.32 E216.18380
G1 X133.58 Y165.68 E216.26971
G1 X133.31 Y163.99 E216.35510
G1 X133.30 Y161.66 E216.47155
G1 X133.30 Y141.74 E217.46531
G1 X133.34 Y140.87 E217.50885
G1 X133.58 Y139.32 E217.58702
G1 X134.11 Y137.68 E217.67292
G1 X134.90 Y136.13 E217.75960
G1 X135.92 Y134.72 E217.84643
G0 F12000 X136.23 Y134.99
G1 F2400 X137.41 Y133.80 E217.92976
G1 X138.77 Y132.82 E218.01345
G1 X140.26 Y132.06 E218.09694
G1 X141.84 Y131.55 E218.17975
G1 X143.46 Y131.29 E218.26180
G1 X145.43 Y131.28 E218.35999
G1 X160.83 Y131.28 E219.12825
G1 X161.67 Y131.31 E219.17019
G1 X163.16 Y131.55 E219.24563
G1 X164.74 Y132.06 E219.32844
G1 X166.23 Y132.82 E219.41193
G1 X167.59 Y133.80 E219.49562
G1 X168.77 Y134.99 E219.57894
G1 X169.76 Y136.34 E219.66263
G1 X170.51 Y137.83 E219.74612
G1 X171.03 Y139.41 E219.82894
G1 X171.29 Y141.04 E219.91124
G1 X171.30 Y143.34 E220.02609
G1 X171.30 Y163.25 E221.01941
G1 X171.27 Y164.09 E221.06135
G1 X171.03 Y165.59 E221.13678
G1 X170.51 Y167.17 E221.21960
G1 X169.76 Y168.66 E221.30309
G1 X168.77 Y170.01 E221.38677
G1 X167.59 Y171.20 E221.47010
G1 X166.23 Y172.18 E221.55379
G1 X164.74 Y172.94 E221.63728
G1 X163.16 Y173.45 E221.72009
G1 X161.54 Y173.71 E221.80215
G1 X159.57 Y173.72 E221.90033
G1 X144.17 Y173.72 E222.66859
G1 X143.33 Y173.69 E222.71053
G1 X141.84 Y173.45 E222.78597
G1 X140.26 Y172.94 E222.86878
G1 X138.77 Y172.18 E222.95227
G1 X137.41 Y171.20 E223.03596
G1 X136.23 Y170.01 E223.11928
G1 X135.24 Y168.66 E223.20297
G1 X134.49 Y167.17 E223.28646
G1 X133.97 Y165.59 E223.36928
G1 X133.71 Y163.96 E223.45158
G1 X133.70 Y161.66 E223.56643
G1 X133.70 Y141.75 E224.55975
G1 X133.73 Y140.91 E224.60169
G1 X133.97 Y139.41 E224.67712
G1 X134.49 Y137.83 E224.75994
G1 X135.24 Y136.34 E224.84343
G1 X136.23 Y134.99 E224.92711
G0 F12000 X136.53 Y135.25
G1 F2400 X137.67 Y134.11 E225.00727
G1 X138.98 Y133.16 E225.08781
G1 X140.41 Y132.43 E225.16820
G1 X141.93 Y131.94 E225.24787
G1 X143.50 Y131.69 E225.32684
G1 X145.43 Y131.68 E225.42343
G1 X160.82 Y131.68 E226.19124
G1 X161.63 Y131.71 E226.23159
G1 X163.07 Y131.94 E226.30429
G1 X164.59 Y132.43 E226.38396
G1 X166.02 Y133.16 E226.46435
G1 X167.33 Y134.11 E226.54490
G1 X168.47 Y135.25 E226.62505
G1 X169.41 Y136.55 E226.70559
G1 X170.14 Y137.99 E226.78598
G1 X170.64 Y139.51 E226.86565
G1 X170.89 Y141.07 E226.94488
G1 X170.90 Y143.34 E227.05813
G1 X170.90 Y163.25 E228.05099
G1 X170.87 Y164.05 E228.09134
G1 X170.64 Y165.49 E228.16404
G1 X170.14 Y167.01 E228.24372
G1 X169.41 Y168.45 E228.32411
G1 X168.47 Y169.75 E228.40465
G1 X167.33 Y170.89 E228.48480
G1 X166.02 Y171.84 E228.56534
G1 X164.59 Y172.57 E228.64573
G1 X163.07 Y173.06 E228.72541
G1 X161.50 Y173.31 E228.80438
G1 X159.57 Y173.32 E228.90097
G1 X144.18 Y173.32 E229.66878
G1 X143.37 Y173.29 E229.70912
G1 X141.93 Y173.06 E229.78182
G1 X140.41 Y172.57 E229.86150
G1 X138.98 Y171.84 E229.94189
G1 X137.67 Y170.89 E230.02243
G1 X136.53 Y169.75 E230.10258
G1 X135.59 Y168.45 E230.18312
G1 X134.86 Y167.01 E230.26351
G1 X134.36 Y165.49 E230.34319
G1 X134.11 Y163.93 E230.42241
G1 X134.10 Y161.66 E230.53566
G1 X134.10 Y141.75 E231.52853
G1 X134.13 Y140.95 E231.56887
G1 X134.36 Y139.51 E231.64158
G1 X134.86 Y137.99 E231.72125
G1 X135.59 Y136.55 E231.80164
G1 X136.53 Y135.25 E231.88218
G0 F12000 X136.84 Y135.51
G1 F2400 X137.93 Y134.41 E231.95923
G1 X139.19 Y133.50 E232.03663
G1 X140.57 Y132.80 E232.11383
G1 X142.03 Y132.33 E232.19041
G1 X143.53 Y132.09 E232.26630
G1 X145.43 Y132.07 E232.36134
G1 X160.81 Y132.07 E233.12865
G1 X161.59 Y132.11 E233.16745
G1 X162.97 Y132.33 E233.23738
G1 X164.43 Y132.80 E233.31396
G1 X165.81 Y133.50 E233.39116
G1 X167.07 Y134.41 E233.46856
G1 X168.16 Y135.51 E233.54560
G1 X169.07 Y136.76 E233.62300
G1 X169.77 Y138.14 E233.70020
G1 X170.25 Y139.60 E233.77678
G1 X170.49 Y141.11 E233.85292
G1 X170.50 Y143.35 E233.96458
G1 X170.50 Y163.24 E234.95700
G1 X170.47 Y164.01 E234.99579
G1 X170.25 Y165.40 E235.06572
G1 X169.77 Y166.86 E235.14230
G1 X169.07 Y168.24 E235.21950
G1 X168.16 Y169.49 E235.29690
G1 X167.07 Y170.59 E235.37395
G1 X165.81 Y171.50 E235.45135
G1 X164.43 Y172.20 E235.52855
G1 X162.97 Y172.67 E235.60513
G1 X161.47 Y172.91 E235.68101
G1 X159.57 Y172.93 E235.77606
G1 X144.19 Y172.93 E236.54337
G1 X143.41 Y172.89 E236.58216
G1 X142.03 Y172.67 E236.65209
G1 X140.57 Y172.20 E236.72868
G1 X139.19 Y171.50 E236.80588
G1 X137.93 Y170.59 E236.88328
G1 X136.84 Y169.49 E236.96032
G1 X135.93 Y168.24 E237.03772
G1 X135.23 Y166.86 E237.11492
G1 X134.75 Y165.40 E237.19150
G1 X134.51 Y163.89 E237.26764
G1 X134.50 Y161.65 E237.37930
G1 X134.50 Y141.76 E238.37171
G1 X134.53 Y140.99 E238.41051
G1 X134.75 Y139.60 E238.48044
G1 X135.23 Y138.14 E238.55702
G1 X135.93 Y136.76 E238.63422
G1 X136.84 Y135.51 E238.71162
G0 F12000 X137.15 Y135.77
G1 F2400 X138.19 Y134.72 E238.78549
G1 X139.40 Y133.84 E238.85971
G1 X140.72 Y133.17 E238.93378
G1 X142.12 Y132.72 E239.00727
G1 X143.56 Y132.49 E239.08008
G1 X145.43 Y132.47 E239.17353
G1 X160.81 Y132.47 E239.94039
G1 X161.55 Y132.50 E239.97759
G1 X162.88 Y132.72 E240.04479
G1 X164.28 Y133.17 E240.11828
G1 X165.60 Y133.84 E240.19235
G1 X166.81 Y134.72 E240.26657
G1 X167.85 Y135.77 E240.34044
G1 X168.73 Y136.97 E240.41465
G1 X169.40 Y138.29 E240.48873
G1 X169.86 Y139.69 E240.56222
G1 X170.09 Y141.14 E240.63523
G1 X170.10 Y143.35 E240.74534
G1 X170.10 Y163.23 E241.73730
G1 X170.07 Y163.97 E241.77450
G1 X169.86 Y165.31 E241.84170
G1 X169.40 Y166.71 E241.91519
G1 X168.73 Y168.03 E241.98927
G1 X167.85 Y169.23 E242.06348
G1 X166.81 Y170.28 E242.13735
G1 X165.60 Y171.16 E242.21157
G1 X164.28 Y171.83 E242.28564
G1 X162.88 Y172.28 E242.35913
G1 X161.44 Y172.51 E242.43194
G1 X159.57 Y172.53 E242.52539
G1 X144.19 Y172.53 E243.29225
G1 X143.45 Y172.50 E243.32945
G1 X142.12 Y172.28 E243.39665
G1 X140.72 Y171.83 E243.47014
G1 X139.40 Y171.16 E243.54421
G1 X138.19 Y170.28 E243.61843
G1 X137.15 Y169.23 E243.69230
G1 X136.27 Y168.03 E243.76652
G1 X135.60 Y166.71 E243.84059
G1 X135.14 Y165.31 E243.91408
G1 X134.91 Y163.86 E243.98709
G1 X134.90 Y161.65 E244.09720
G1 X134.90 Y141.77 E245.08916
G1 X134.93 Y141.03 E245.12636
G1 X135.14 Y139.69 E245.19356
G1 X135.60 Y138.29 E245.26705
G1 X136.27 Y136.97 E245.34113
G1 X137.15 Y135.77 E245.41534
G0 F12000 X137.45 Y136.03
G1 F2400 X138.45 Y135.03 E245.48604
G1 X139.60 Y134.19 E245.55715
G1 X140.87 Y133.54 E245.62806
G1 X142.21 Y133.11 E245.69844
G1 X143.59 Y132.89 E245.76817
G1 X145.44 Y132.88 E245.86002
G1 X160.80 Y132.88 E246.62643
G1 X161.51 Y132.90 E246.66203
G1 X162.79 Y133.11 E246.72650
G1 X164.13 Y133.54 E246.79688
G1 X165.40 Y134.19 E246.86779
G1 X166.55 Y135.03 E246.93890
G1 X167.55 Y136.03 E247.00960
G1 X168.39 Y137.18 E247.08071
G1 X169.03 Y138.45 E247.15162
G1 X169.47 Y139.79 E247.22200
G1 X169.69 Y141.17 E247.29192
G1 X169.70 Y143.35 E247.40043
G1 X169.70 Y163.22 E248.39195
G1 X169.67 Y163.94 E248.42755
G1 X169.47 Y165.21 E248.49202
G1 X169.03 Y166.55 E248.56240
G1 X168.39 Y167.82 E248.63331
G1 X167.55 Y168.97 E248.70442
G1 X166.55 Y169.97 E248.77512
G1 X165.40 Y170.81 E248.84623
G1 X164.13 Y171.46 E248.91714
G1 X162.79 Y171.89 E248.98752
G1 X161.41 Y172.11 E249.05725
G1 X159.56 Y172.12 E249.14910
G1 X144.20 Y172.12 E249.91551
G1 X143.49 Y172.10 E249.95111
G1 X142.21 Y171.89 E250.01558
G1 X140.87 Y171.46 E250.08596
G1 X139.60 Y170.81 E250.15687
G1 X138.45 Y169.97 E250.22798
G1 X137.45 Y168.97 E250.29868
G1 X136.61 Y167.82 E250.36979
G1 X135.97 Y166.55 E250.44070
G1 X135.53 Y165.21 E250.51108
G1 X135.31 Y163.83 E250.58100
G1 X135.30 Y161.65 E250.68951
G1 X135.30 Y141.78 E251.68103
G1 X135.33 Y141.06 E251.71663
G1 X135.53 Y139.79 E251.78110
G1 X135.97 Y138.45 E251.85148
G1 X136.61 Y137.18 E251.92239
G1 X137.45 Y136.03 E251.99350
G0 F12000 X137.75 Y136.29
G1 F2400 X138.71 Y135.33 E252.06109
G1 X139.81 Y134.53 E252.12902
G1 X141.03 Y133.91 E252.19683
G1 X142.31 Y133.50 E252.26407
G1 X143.63 Y133.29 E252.33071
G1 X145.44 Y133.28 E252.42102
G1 X160.79 Y133.28 E253.18693
G1 X161.47 Y133.30 E253.22093
G1 X162.69 Y133.50 E253.28267
G1 X163.97 Y133.91 E253.34991
G1 X165.19 Y134.53 E253.41772
G1 X166.29 Y135.33 E253.48565
G1 X167.25 Y136.29 E253.55324
G1 X168.05 Y137.39 E253.62117
G1 X168.66 Y138.60 E253.68897
G1 X169.08 Y139.88 E253.75621
G1 X169.29 Y141.21 E253.82306
G1 X169.30 Y143.35 E253.92998
G1 X169.30 Y163.21 E254.92105
G1 X169.27 Y163.90 E254.95505
G1 X169.08 Y165.12 E255.01679
G1 X168.66 Y166.40 E255.08403
G1 X168.05 Y167.61 E255.15184
G1 X167.25 Y168.71 E255.21976
G1 X166.29 Y169.67 E255.28736
G1 X165.19 Y170.47 E255.35528
G1 X163.97 Y171.09 E255.42309
G1 X162.69 Y171.50 E255.49033
G1 X161.37 Y171.71 E255.55697
G1 X159.56 Y171.72 E255.64728
G1 X144.21 Y171.72 E256.41319
G1 X143.53 Y171.70 E256.44720
G1 X142.31 Y171.50 E256.50893
G1 X141.03 Y171.09 E256.57617
G1 X139.81 Y170.47 E256.64398
G1 X138.71 Y169.67 E256.71191
G1 X137.75 Y168.71 E256.77950
G1 X136.95 Y167.61 E256.84743
G1 X136.34 Y166.40 E256.91523
G1 X135.92 Y165.12 E256.98248
G1 X135.71 Y163.79 E257.04932
G1 X135.70 Y161.65 E257.15624
G1 X135.70 Y141.79 E258.14731
G1 X135.73 Y141.10 E258.18131
G1 X135.92 Y139.88 E258.24305
G1 X136.34 Y138.60 E258.31029
G1 X136.95 Y137.39 E258.37810
G1 X137.75 Y136.29 E258.44603
G0 F12000 X138.06 Y136.55
G1 F2400 X138.97 Y135.63 E258.51051
G1 X140.02 Y134.87 E258.57526
G1 X141.18 Y134.28 E258.63992
G1 X142.40 Y133.89 E258.70407
G1 X143.66 Y133.69 E258.76763
G1 X145.44 Y133.68 E258.85633
G1 X160.78 Y133.68 E259.62175
G1 X161.43 Y133.70 E259.65420
G1 X162.60 Y133.89 E259.71322
G1 X163.82 Y134.28 E259.77737
G1 X164.98 Y134.87 E259.84203
G1 X166.03 Y135.63 E259.90677
G1 X166.94 Y136.55 E259.97126
G1 X167.70 Y137.60 E260.03600
G1 X168.29 Y138.75 E260.10066
G1 X168.69 Y139.98 E260.16481
G1 X168.89 Y141.24 E260.22857
G1 X168.90 Y143.35 E260.33394
G1 X168.90 Y163.21 E261.32446
G1 X168.87 Y163.85 E261.35692
G1 X168.69 Y165.02 E261.41593
G1 X168.29 Y166.25 E261.48008
G1 X167.70 Y167.40 E261.54474
G1 X166.94 Y168.45 E261.60949
G1 X166.03 Y169.37 E261.67397
G1 X164.98 Y170.13 E261.73872
G1 X163.82 Y170.72 E261.80338
G1 X162.60 Y171.11 E261.86753
G1 X161.34 Y171.31 E261.93108
G1 X159.56 Y171.32 E262.01979
G1 X144.22 Y171.32 E262.78521
G1 X143.57 Y171.30 E262.81766
G1 X142.40 Y171.11 E262.87668
G1 X141.18 Y170.72 E262.94083
G1 X140.02 Y170.13 E263.00549
G1 X138.97 Y169.37 E263.07023
G1 X138.06 Y168.45 E263.13472
G1 X137.30 Y167.40 E263.19946
G1 X136.71 Y166.25 E263.26412
G1 X136.31 Y165.02 E263.32827
G1 X136.11 Y163.76 E263.39203
G1 X136.10 Y161.65 E263.49740
G1 X136.10 Y141.79 E264.48792
G1 X136.13 Y141.15 E264.52038
G1 X136.31 Y139.98 E264.57939
G1 X136.71 Y138.75 E264.64354
G1 X137.30 Y137.60 E264.70820
G1 X138.06 Y136.55 E264.77295
G0 F12000 X138.37 Y136.81
G1 F2400 X139.23 Y135.94 E264.83426
G1 X140.23 Y135.21 E264.89587
G1 X141.33 Y134.66 E264.95736
G1 X142.50 Y134.28 E265.01837
G1 X143.69 Y134.09 E265.07889
G1 X145.44 Y134.07 E265.16601
G1 X160.77 Y134.07 E265.93097
G1 X161.39 Y134.10 E265.96188
G1 X162.50 Y134.28 E266.01816
G1 X163.67 Y134.66 E266.07917
G1 X164.77 Y135.21 E266.14066
G1 X165.77 Y135.94 E266.20227
G1 X166.63 Y136.81 E266.26359
G1 X167.36 Y137.81 E266.32520
G1 X167.92 Y138.91 E266.38669
G1 X168.30 Y140.07 E266.44770
G1 X168.49 Y141.27 E266.50843
G1 X168.50 Y143.35 E266.61220
G1 X168.50 Y163.20 E267.60227
G1 X168.47 Y163.82 E267.63318
G1 X168.30 Y164.93 E267.68946
G1 X167.92 Y166.09 E267.75047
G1 X167.36 Y167.19 E267.81197
G1 X166.63 Y168.19 E267.87358
G1 X165.77 Y169.06 E267.93489
G1 X164.77 Y169.79 E267.99650
G1 X163.67 Y170.34 E268.05799
G1 X162.50 Y170.72 E268.11900
G1 X161.31 Y170.91 E268.17953
G1 X159.56 Y170.93 E268.26664
G1 X144.23 Y170.93 E269.03160
G1 X143.61 Y170.90 E269.06251
G1 X142.50 Y170.72 E269.11879
G1 X141.33 Y170.34 E269.17980
G1 X140.23 Y169.79 E269.24129
G1 X139.23 Y169.06 E269.30291
G1 X138.37 Y168.19 E269.36422
G1 X137.64 Y167.19 E269.42583
G1 X137.08 Y166.09 E269.48732
G1 X136.70 Y164.93 E269.54833
G1 X136.51 Y163.73 E269.60906
G1 X136.50 Y161.65 E269.71283
G1 X136.50 Y141.80 E270.70290
G1 X136.53 Y141.18 E270.73381
G1 X136.70 Y140.07 E270.79009
G1 X137.08 Y138.91 E270.85110
G1 X137.64 Y137.81 E270.91260
G1 X138.37 Y136.81 E270.97421
G0 F12000 X138.67 Y137.07
G1 F2400 X139.50 Y136.25 E271.03242
G1 X140.44 Y135.56 E271.09084
G1 X141.49 Y135.03 E271.14919
G1 X142.59 Y134.67 E271.20711
G1 X143.73 Y134.49 E271.26455
G1 X145.44 Y134.47 E271.35012
G1 X160.76 Y134.47 E272.11459
G1 X161.35 Y134.50 E272.14390
G1 X162.41 Y134.67 E272.19745
G1 X163.51 Y135.03 E272.25536
G1 X164.56 Y135.56 E272.31371
G1 X165.50 Y136.25 E272.37214
G1 X166.33 Y137.07 E272.43035
G1 X167.02 Y138.02 E272.48877
G1 X167.55 Y139.06 E272.54712
G1 X167.91 Y140.16 E272.60504
G1 X168.09 Y141.31 E272.66268
G1 X168.10 Y143.35 E272.76486
G1 X168.10 Y163.19 E273.75448
G1 X168.08 Y163.78 E273.78379
G1 X167.91 Y164.84 E273.83734
G1 X167.55 Y165.94 E273.89526
G1 X167.02 Y166.98 E273.95361
G1 X166.33 Y167.93 E274.01203
G1 X165.50 Y168.75 E274.07024
G1 X164.56 Y169.44 E274.12867
G1 X163.51 Y169.97 E274.18701
G1 X162.41 Y170.33 E274.24493
G1 X161.27 Y170.51 E274.30238
G1 X159.56 Y170.53 E274.38794
G1 X144.24 Y170.53 E275.15241
G1 X143.65 Y170.50 E275.18172
G1 X142.59 Y170.33 E275.23527
G1 X141.49 Y169.97 E275.29319
G1 X140.44 Y169.44 E275.35154
G1 X139.50 Y168.75 E275.40996
G1 X138.67 Y167.93 E275.46817
G1 X137.98 Y166.98 E275.52660
G1 X137.45 Y165.94 E275.58494
G1 X137.09 Y164.84 E275.64286
G1 X136.91 Y163.69 E275.70051
G1 X136.90 Y161.65 E275.80268
G1 X136.90 Y141.81 E276.79231
G1 X136.92 Y141.22 E276.82162
G1 X137.09 Y140.16 E276.87517
G1 X137.45 Y139.06 E276.93308
G1 X137.98 Y138.02 E276.99143
G1 X138.67 Y137.07 E277.04986
G0 F12000 X138.97 Y137.33
G1 F2400 X139.75 Y136.55 E277.10489
G1 X140.65 Y135.90 E277.16022
G1 X141.64 Y135.40 E277.21539
G1 X142.68 Y135.06 E277.27020
G1 X143.76 Y134.89 E277.32462
G1 X145.44 Y134.88 E277.40853
G1 X160.76 Y134.88 E278.17255
G1 X161.31 Y134.90 E278.20026
G1 X162.32 Y135.06 E278.25109
G1 X163.36 Y135.40 E278.30590
G1 X164.35 Y135.90 E278.36108
G1 X165.25 Y136.55 E278.41640
G1 X166.03 Y137.33 E278.47144
G1 X166.68 Y138.23 E278.52676
G1 X167.18 Y139.21 E278.58194
G1 X167.52 Y140.26 E278.63675
G1 X167.69 Y141.34 E278.69126
G1 X167.70 Y143.35 E278.79189
G1 X167.70 Y163.18 E279.78106
G1 X167.68 Y163.74 E279.80877
G1 X167.52 Y164.74 E279.85960
G1 X167.18 Y165.79 E279.91441
G1 X166.68 Y166.77 E279.96959
G1 X166.03 Y167.67 E280.02491
G1 X165.25 Y168.45 E280.07995
G1 X164.35 Y169.10 E280.13527
G1 X163.36 Y169.60 E280.19045
G1 X162.32 Y169.94 E280.24526
G1 X161.24 Y170.11 E280.29967
G1 X159.56 Y170.12 E280.38359
G1 X144.24 Y170.12 E281.14761
G1 X143.69 Y170.10 E281.17532
G1 X142.68 Y169.94 E281.22615
G1 X141.64 Y169.60 E281.28096
G1 X140.65 Y169.10 E281.33613
G1 X139.75 Y168.45 E281.39146
G1 X138.97 Y167.67 E281.44649
G1 X138.32 Y166.77 E281.50182
G1 X137.82 Y165.79 E281.55699
G1 X137.48 Y164.74 E281.61180
G1 X137.31 Y163.66 E281.66631
G1 X137.30 Y161.65 E281.76694
G1 X137.30 Y141.82 E282.75612
G1 X137.32 Y141.26 E282.78383
G1 X137.48 Y140.26 E282.83466
G1 X137.82 Y139.21 E282.88947
G1 X138.32 Y138.23 E282.94464
G1 X138.97 Y137.33 E282.99997
G0 F12000 X139.28 Y137.59
G1 F2400 X140.02 Y136.85 E283.05190
G1 X140.86 Y136.24 E283.10404
G1 X141.79 Y135.77 E283.15611
G1 X142.78 Y135.45 E283.20778
G1 X143.79 Y135.29 E283.25911
G1 X145.44 Y135.28 E283.34143
G1 X160.75 Y135.28 E284.10500
G1 X161.27 Y135.30 E284.13112
G1 X162.22 Y135.45 E284.17921
G1 X163.21 Y135.77 E284.23088
G1 X164.14 Y136.24 E284.28296
G1 X164.98 Y136.85 E284.33510
G1 X165.72 Y137.59 E284.38703
G1 X166.34 Y138.44 E284.43917
G1 X166.81 Y139.37 E284.49125
G1 X167.13 Y140.35 E284.54292
G1 X167.29 Y141.37 E284.59434
G1 X167.30 Y143.35 E284.69338
G1 X167.30 Y163.17 E285.68210
G1 X167.28 Y163.70 E285.70821
G1 X167.13 Y164.65 E285.75631
G1 X166.81 Y165.63 E285.80798
G1 X166.34 Y166.56 E285.86006
G1 X165.72 Y167.41 E285.91220
G1 X164.98 Y168.15 E285.96413
G1 X164.14 Y168.76 E286.01627
G1 X163.21 Y169.23 E286.06834
G1 X162.22 Y169.55 E286.12001
G1 X161.21 Y169.71 E286.17134
G1 X159.56 Y169.72 E286.25366
G1 X144.25 Y169.72 E287.01723
G1 X143.73 Y169.70 E287.04335
G1 X142.78 Y169.55 E287.09144
G1 X141.79 Y169.23 E287.14311
G1 X140.86 Y168.76 E287.19519
G1 X140.02 Y168.15 E287.24733
G1 X139.28 Y167.41 E287.29926
G1 X138.66 Y166.56 E287.35140
G1 X138.19 Y165.63 E287.40348
G1 X137.87 Y164.65 E287.45515
G1 X137.71 Y163.63 E287.50657
G1 X137.70 Y161.65 E287.60561
G1 X137.70 Y141.83 E288.59433
G1 X137.72 Y141.30 E288.62044
G1 X137.87 Y140.35 E288.66854
G1 X138.19 Y139.37 E288.72021
G1 X138.66 Y138.44 E288.77229
G1 X139.28 Y137.59 E288.82443
G0 F12000 X139.59 Y137.85
G1 F2400 X140.28 Y137.16 E288.87325
G1 X141.07 Y136.58 E288.92222
G1 X141.94 Y136.14 E288.97113
G1 X142.87 Y135.84 E289.01971
G1 X143.83 Y135.69 E289.06795
G1 X145.44 Y135.68 E289.14872
G1 X160.74 Y135.68 E289.91180
G1 X161.23 Y135.69 E289.93631
G1 X162.13 Y135.84 E289.98168
G1 X163.06 Y136.14 E290.03026
G1 X163.93 Y136.58 E290.07916
G1 X164.72 Y137.16 E290.12813
G1 X165.41 Y137.85 E290.17696
G1 X165.99 Y138.65 E290.22592
G1 X166.44 Y139.52 E290.27483
G1 X166.74 Y140.45 E290.32341
G1 X166.89 Y141.40 E290.37176
G1 X166.90 Y143.36 E290.46920
G1 X166.90 Y163.16 E291.45747
G1 X166.88 Y163.66 E291.48199
G1 X166.74 Y164.55 E291.52735
G1 X166.44 Y165.48 E291.57593
G1 X165.99 Y166.35 E291.62484
G1 X165.41 Y167.15 E291.67381
G1 X164.72 Y167.84 E291.72263
G1 X163.93 Y168.42 E291.77160
G1 X163.06 Y168.86 E291.82051
G1 X162.13 Y169.16 E291.86909
G1 X161.17 Y169.31 E291.91733
G1 X159.56 Y169.32 E291.99810
G1 X144.26 Y169.32 E292.76118
G1 X143.77 Y169.31 E292.78569
G1 X142.87 Y169.16 E292.83106
G1 X141.94 Y168.86 E292.87964
G1 X141.07 Y168.42 E292.92854
G1 X140.28 Y167.84 E292.97751
G1 X139.59 Y167.15 E293.02634
G1 X139.01 Y166.35 E293.07530
G1 X138.56 Y165.48 E293.12421
G1 X138.26 Y164.55 E293.17279
G1 X138.11 Y163.60 E293.22114
G1 X138.10 Y161.64 E293.31858
G1 X138.10 Y141.84 E294.30685
G1 X138.12 Y141.34 E294.33137
G1 X138.26 Y140.45 E294.37673
G1 X138.56 Y139.52 E294.42531
G1 X139.01 Y138.65 E294.47422
G1 X139.59 Y137.85 E294.52319
G0 F12000 X139.89 Y138.11
G1 F2400 X140.54 Y137.47 E294.56884
G1 X141.28 Y136.93 E294.61466
G1 X142.10 Y136.51 E294.66042
G1 X142.97 Y136.23 E294.70591
G1 X143.86 Y136.09 E294.75107
G1 X145.45 Y136.07 E294.83025
G1 X160.73 Y136.07 E295.59287
G1 X161.19 Y136.09 E295.61584
G1 X162.03 Y136.23 E295.65842
G1 X162.90 Y136.51 E295.70391
G1 X163.72 Y136.93 E295.74967
G1 X164.46 Y137.47 E295.79549
G1 X165.11 Y138.11 E295.84114
G1 X165.65 Y138.85 E295.88697
G1 X166.06 Y139.67 E295.93273
G1 X166.35 Y140.54 E295.97822
G1 X166.49 Y141.44 E296.02348
G1 X166.50 Y143.36 E296.11932
G1 X166.50 Y163.16 E297.10715
G1 X166.48 Y163.62 E297.13012
G1 X166.35 Y164.46 E297.17270
G1 X166.06 Y165.33 E297.21819
G1 X165.65 Y166.15 E297.26395
G1 X165.11 Y166.89 E297.30978
G1 X164.46 Y167.53 E297.35542
G1 X163.72 Y168.07 E297.40125
G1 X162.90 Y168.49 E297.44701
G1 X162.03 Y168.77 E297.49250
G1 X161.14 Y168.91 E297.53766
G1 X159.55 Y168.93 E297.61683
G1 X144.27 Y168.93 E298.37946
G1 X143.81 Y168.91 E298.40243
G1 X142.97 Y168.77 E298.44501
G1 X142.10 Y168.49 E298.49050
G1 X141.28 Y168.07 E298.53626
G1 X140.54 Y167.53 E298.58208
G1 X139.89 Y166.89 E298.62773
G1 X139.35 Y166.15 E298.67356
G1 X138.94 Y165.33 E298.71932
G1 X138.65 Y164.46 E298.76480
G1 X138.51 Y163.56 E298.81007
G1 X138.50 Y161.64 E298.90591
G1 X138.50 Y141.84 E299.89374
G1 X138.52 Y141.38 E299.91671
G1 X138.65 Y140.54 E299.95929
G1 X138.94 Y139.67 E300.00478
G1 X139.35 Y138.85 E300.05054
G1 X139.89 Y138.11 E300.09636
G0 F12000 X140.19 Y138.37
G1 F2400 X140.80 Y137.77 E300.13891
G1 X141.49 Y137.27 E300.18159
G1 X142.25 Y136.88 E300.22416
G1 X143.06 Y136.62 E300.26654
G1 X143.89 Y136.49 E300.30863
G1 X145.45 Y136.47 E300.38621
G1 X160.72 Y136.47 E301.14838
G1 X161.15 Y136.49 E301.16975
G1 X161.94 Y136.62 E301.20962
G1 X162.75 Y136.88 E301.25200
G1 X163.51 Y137.27 E301.29457
G1 X164.20 Y137.77 E301.33725
G1 X164.81 Y138.37 E301.37980
G1 X165.31 Y139.06 E301.42248
G1 X165.69 Y139.83 E301.46505
G1 X165.96 Y140.63 E301.50743
G1 X166.09 Y141.47 E301.54962
G1 X166.10 Y143.36 E301.64386
G1 X166.10 Y163.15 E302.63124
G1 X166.08 Y163.58 E302.65261
G1 X165.96 Y164.37 E302.69248
G1 X165.69 Y165.17 E302.73486
G1 X165.31 Y165.94 E302.77743
G1 X164.81 Y166.63 E302.82011
G1 X164.20 Y167.23 E302.86265
G1 X163.51 Y167.73 E302.90534
G1 X162.75 Y168.12 E302.94791
G1 X161.94 Y168.38 E302.99028
G1 X161.11 Y168.51 E303.03238
G1 X159.55 Y168.53 E303.10996
G1 X144.28 Y168.53 E303.87213
G1 X143.85 Y168.51 E303.89350
G1 X143.06 Y168.38 E303.93337
G1 X142.25 Y168.12 E303.97575
G1 X141.49 Y167.73 E304.01832
G1 X140.80 Y167.23 E304.06100
G1 X140.19 Y166.63 E304.10354
G1 X139.69 Y165.94 E304.14623
G1 X139.31 Y165.17 E304.18880
G1 X139.04 Y164.37 E304.23117
G1 X138.91 Y163.53 E304.27337
G1 X138.90 Y161.64 E304.36761
G1 X138.90 Y141.85 E305.35499
G1 X138.92 Y141.42 E305.37636
G1 X139.04 Y140.63 E305.41623
G1 X139.31 Y139.83 E305.45860
G1 X139.69 Y139.06 E305.50118
G1 X140.19 Y138.37 E305.54386
G0 F12000 X140.50 Y138.63
G1 F2400 X141.06 Y138.07 E305.58330
G1 X141.70 Y137.61 E305.62276
G1 X142.40 Y137.25 E305.66221
G1 X143.15 Y137.01 E305.70150
G1 X143.93 Y136.88 E305.74051
G1 X145.45 Y136.88 E305.81654
G1 X160.72 Y136.88 E306.57821
G1 X161.11 Y136.89 E306.59799
G1 X161.85 Y137.01 E306.63513
G1 X162.60 Y137.25 E306.67441
G1 X163.30 Y137.61 E306.71386
G1 X163.94 Y138.07 E306.75333
G1 X164.50 Y138.63 E306.79277
G1 X164.97 Y139.27 E306.83223
G1 X165.32 Y139.98 E306.87168
G1 X165.57 Y140.73 E306.91097
G1 X165.69 Y141.50 E306.95003
G1 X165.70 Y143.36 E307.04272
G1 X165.70 Y163.14 E308.02965
G1 X165.68 Y163.54 E308.04942
G1 X165.57 Y164.27 E308.08656
G1 X165.32 Y165.02 E308.12585
G1 X164.97 Y165.73 E308.16529
G1 X164.50 Y166.37 E308.20476
G1 X163.94 Y166.93 E308.24420
G1 X163.30 Y167.39 E308.28367
G1 X162.60 Y167.75 E308.32312
G1 X161.85 Y167.99 E308.36240
G1 X161.07 Y168.12 E308.40141
G1 X159.55 Y168.12 E308.47745
G1 X144.28 Y168.12 E309.23912
G1 X143.89 Y168.11 E309.25889
G1 X143.15 Y167.99 E309.29603
G1 X142.40 Y167.75 E309.33532
G1 X141.70 Y167.39 E309.37476
G1 X141.06 Y166.93 E309.41423
G1 X140.50 Y166.37 E309.45367
G1 X140.03 Y165.73 E309.49314
G1 X139.68 Y165.02 E309.53259
G1 X139.43 Y164.27 E309.57187
G1 X139.31 Y163.50 E309.61093
G1 X139.30 Y161.64 E309.70363
G1 X139.30 Y141.86 E310.69056
G1 X139.32 Y141.46 E310.71033
G1 X139.43 Y140.73 E310.74747
G1 X139.68 Y139.98 E310.78675
G1 X140.03 Y139.27 E310.82620
G1 X140.50 Y138.63 E310.86567
G0 F12000 X140.81 Y138.89
G1 F2400 X141.32 Y138.38 E310.90193
G1 X141.91 Y137.95 E310.93826
G1 X142.56 Y137.62 E310.97463
G1 X143.25 Y137.40 E311.01076
G1 X143.96 Y137.28 E311.04668
G1 X145.45 Y137.28 E311.12112
G1 X160.71 Y137.28 E311.88229
G1 X161.07 Y137.29 E311.90052
G1 X161.75 Y137.40 E311.93493
G1 X162.44 Y137.62 E311.97106
G1 X163.09 Y137.95 E312.00743
G1 X163.68 Y138.38 E312.04375
G1 X164.19 Y138.89 E312.08002
G1 X164.62 Y139.48 E312.11634
G1 X164.95 Y140.13 E312.15271
G1 X165.18 Y140.82 E312.18884
G1 X165.29 Y141.53 E312.22481
G1 X165.30 Y143.36 E312.31591
G1 X165.30 Y163.13 E313.30234
G1 X165.28 Y163.50 E313.32057
G1 X165.18 Y164.18 E313.35498
G1 X164.95 Y164.87 E313.39111
G1 X164.62 Y165.52 E313.42747
G1 X164.19 Y166.11 E313.46380
G1 X163.68 Y166.62 E313.50006
G1 X163.09 Y167.05 E313.53639
G1 X162.44 Y167.38 E313.57276
G1 X161.75 Y167.60 E313.60889
G1 X161.04 Y167.72 E313.64481
G1 X159.55 Y167.72 E313.71925
G1 X144.29 Y167.72 E314.48042
G1 X143.93 Y167.71 E314.49865
G1 X143.25 Y167.60 E314.53306
G1 X142.56 Y167.38 E314.56919
G1 X141.91 Y167.05 E314.60556
G1 X141.32 Y166.62 E314.64188
G1 X140.81 Y166.11 E314.67815
G1 X140.38 Y165.52 E314.71447
G1 X140.05 Y164.87 E314.75084
G1 X139.82 Y164.18 E314.78697
G1 X139.71 Y163.47 E314.82294
G1 X139.70 Y161.64 E314.91404
G1 X139.70 Y141.87 E315.90047
G1 X139.72 Y141.50 E315.91870
G1 X139.82 Y140.82 E315.95311
G1 X140.05 Y140.13 E315.98924
G1 X140.38 Y139.48 E316.02560
G1 X140.81 Y138.89 E316.06193
G0 F12000 X141.11 Y139.16
G1 F2400 X141.58 Y138.69 E316.09509
G1 X142.12 Y138.29 E316.12827
G1 X142.71 Y137.99 E316.16145
G1 X143.34 Y137.79 E316.19444
G1 X143.99 Y137.69 E316.22733
G1 X145.45 Y137.68 E316.30017
G1 X160.70 Y137.68 E317.06090
G1 X161.03 Y137.69 E317.07752
G1 X161.66 Y137.79 E317.10926
G1 X162.29 Y137.99 E317.14225
G1 X162.88 Y138.29 E317.17542
G1 X163.42 Y138.69 E317.20860
G1 X163.89 Y139.16 E317.24177
G1 X164.28 Y139.69 E317.27495
G1 X164.58 Y140.29 E317.30812
G1 X164.79 Y140.91 E317.34111
G1 X164.89 Y141.57 E317.37405
G1 X164.90 Y143.36 E317.46356
G1 X164.90 Y163.12 E318.44954
G1 X164.89 Y163.46 E318.46616
G1 X164.79 Y164.09 E318.49790
G1 X164.58 Y164.71 E318.53089
G1 X164.28 Y165.31 E318.56407
G1 X163.89 Y165.84 E318.59725
G1 X163.42 Y166.31 E318.63041
G1 X162.88 Y166.71 E318.66359
G1 X162.29 Y167.01 E318.69677
G1 X161.66 Y167.21 E318.72976
G1 X161.01 Y167.31 E318.76265
G1 X159.55 Y167.32 E318.83549
G1 X144.30 Y167.32 E319.59621
G1 X143.97 Y167.31 E319.61284
G1 X143.34 Y167.21 E319.64457
G1 X142.71 Y167.01 E319.67756
G1 X142.12 Y166.71 E319.71074
G1 X141.58 Y166.31 E319.74392
G1 X141.11 Y165.84 E319.77708
G1 X140.72 Y165.31 E319.81026
G1 X140.42 Y164.71 E319.84344
G1 X140.21 Y164.09 E319.87643
G1 X140.11 Y163.43 E319.90937
G1 X140.10 Y161.64 E319.99888
G1 X140.10 Y141.88 E320.98486
G1 X140.11 Y141.54 E321.00148
G1 X140.21 Y140.91 E321.03322
G1 X140.42 Y140.29 E321.06621
G1 X140.72 Y139.69 E321.09938
G1 X141.11 Y139.16 E321.13256
G0 F12000 X141.41 Y139.41
G1 F2400 X141.84 Y138.99 E321.16255
G1 X142.33 Y138.64 E321.19259
G1 X142.86 Y138.36 E321.22262
G1 X143.43 Y138.18 E321.25252
G1 X144.02 Y138.09 E321.28232
G1 X145.45 Y138.07 E321.35362
G1 X160.69 Y138.07 E322.11385
G1 X160.99 Y138.09 E322.12892
G1 X161.57 Y138.18 E322.15788
G1 X162.14 Y138.36 E322.18778
G1 X162.67 Y138.64 E322.21781
G1 X163.16 Y138.99 E322.24784
G1 X163.59 Y139.41 E322.27783
G1 X163.94 Y139.90 E322.30787
G1 X164.21 Y140.44 E322.33790
G1 X164.40 Y141.01 E322.36780
G1 X164.49 Y141.60 E322.39766
G1 X164.50 Y143.36 E322.48557
G1 X164.50 Y163.12 E323.47110
G1 X164.49 Y163.42 E323.48618
G1 X164.40 Y163.99 E323.51513
G1 X164.21 Y164.56 E323.54503
G1 X163.94 Y165.10 E323.57506
G1 X163.59 Y165.59 E323.60510
G1 X163.16 Y166.01 E323.63508
G1 X162.67 Y166.36 E323.66512
G1 X162.14 Y166.64 E323.69515
G1 X161.57 Y166.82 E323.72505
G1 X160.98 Y166.91 E323.75486
G1 X159.55 Y166.93 E323.82615
G1 X144.31 Y166.93 E324.58638
G1 X144.01 Y166.91 E324.60146
G1 X143.43 Y166.82 E324.63041
G1 X142.86 Y166.64 E324.66031
G1 X142.33 Y166.36 E324.69034
G1 X141.84 Y166.01 E324.72038
G1 X141.41 Y165.59 E324.75036
G1 X141.06 Y165.10 E324.78040
G1 X140.79 Y164.56 E324.81043
G1 X140.60 Y163.99 E324.84033
G1 X140.51 Y163.40 E324.87019
G1 X140.50 Y161.64 E324.95810
G1 X140.50 Y141.88 E325.94363
G1 X140.51 Y141.58 E325.95871
G1 X140.60 Y141.01 E325.98767
G1 X140.79 Y140.44 E326.01756
G1 X141.06 Y139.90 E326.04759
G1 X141.41 Y139.41 E326.07763
G0 F12000 X141.72 Y139.68
G1 F2400 X142.10 Y139.29 E326.10451
G1 X142.54 Y138.98 E326.13138
G1 X143.02 Y138.74 E326.15824
G1 X143.53 Y138.57 E326.18505
G1 X144.06 Y138.48 E326.21178
G1 X145.45 Y138.47 E326.28148
G1 X160.68 Y138.47 E327.04125
G1 X160.95 Y138.49 E327.05474
G1 X161.47 Y138.57 E327.08096
G1 X161.98 Y138.74 E327.10776
G1 X162.46 Y138.98 E327.13463
G1 X162.90 Y139.29 E327.16149
G1 X163.28 Y139.68 E327.18837
G1 X163.60 Y140.11 E327.21524
G1 X163.84 Y140.59 E327.24210
G1 X164.01 Y141.10 E327.26891
G1 X164.09 Y141.63 E327.29569
G1 X164.10 Y143.36 E327.38200
G1 X164.10 Y163.11 E328.36708
G1 X164.09 Y163.38 E328.38056
G1 X164.01 Y163.90 E328.40678
G1 X163.84 Y164.41 E328.43359
G1 X163.60 Y164.89 E328.46045
G1 X163.28 Y165.32 E328.48732
G1 X162.90 Y165.71 E328.51420
G1 X162.46 Y166.02 E328.54106
G1 X161.98 Y166.26 E328.56793
G1 X161.47 Y166.43 E328.59473
G1 X160.94 Y166.52 E328.62146
G1 X159.55 Y166.53 E328.69116
G1 X144.32 Y166.53 E329.45094
G1 X144.05 Y166.51 E329.46442
G1 X143.53 Y166.43 E329.49064
G1 X143.02 Y166.26 E329.51745
G1 X142.54 Y166.02 E329.54431
G1 X142.10 Y165.71 E329.57117
G1 X141.72 Y165.32 E329.59806
G1 X141.40 Y164.89 E329.62492
G1 X141.16 Y164.41 E329.65178
G1 X140.99 Y163.90 E329.67859
G1 X140.91 Y163.37 E329.70537
G1 X140.90 Y161.64 E329.79168
G1 X140.90 Y141.89 E330.77676
G1 X140.91 Y141.62 E330.79024
G1 X140.99 Y141.10 E330.81647
G1 X141.16 Y140.59 E330.84327
G1 X141.40 Y140.11 E330.87014
G1 X141.72 Y139.68 E330.89700
G0 F12000 X142.03 Y139.94
G1 F2400 X142.36 Y139.60 E330.92078
G1 X142.75 Y139.32 E330.94446
G1 X143.17 Y139.11 E330.96818
G1 X143.62 Y138.96 E330.99189
G1 X144.09 Y138.88 E331.01553
G1 X145.46 Y138.88 E331.08364
G1 X160.68 Y138.88 E331.84297
G1 X160.91 Y138.88 E331.85485
G1 X161.38 Y138.96 E331.87834
G1 X161.83 Y139.11 E331.90205
G1 X162.25 Y139.32 E331.92577
G1 X162.64 Y139.60 E331.94945
G1 X162.97 Y139.94 E331.97323
G1 X163.25 Y140.32 E331.99691
G1 X163.47 Y140.75 E332.02063
G1 X163.62 Y141.20 E332.04434
G1 X163.69 Y141.67 E332.06804
G1 X163.70 Y143.36 E332.15275
G1 X163.70 Y163.10 E333.13738
G1 X163.69 Y163.34 E333.14927
G1 X163.62 Y163.80 E333.17276
G1 X163.47 Y164.25 E333.19647
G1 X163.25 Y164.68 E333.22019
G1 X162.97 Y165.06 E333.24387
G1 X162.64 Y165.40 E333.26765
G1 X162.25 Y165.68 E333.29133
G1 X161.83 Y165.89 E333.31505
G1 X161.38 Y166.04 E333.33876
G1 X160.91 Y166.12 E333.36240
G1 X159.54 Y166.12 E333.43051
G1 X144.32 Y166.12 E334.18984
G1 X144.09 Y166.12 E334.20172
G1 X143.62 Y166.04 E334.22521
G1 X143.17 Y165.89 E334.24892
G1 X142.75 Y165.68 E334.27264
G1 X142.36 Y165.40 E334.29632
G1 X142.03 Y165.06 E334.32010
G1 X141.75 Y164.68 E334.34378
G1 X141.53 Y164.25 E334.36750
G1 X141.38 Y163.80 E334.39121
G1 X141.31 Y163.33 E334.41491
G1 X141.30 Y161.64 E334.49962
G1 X141.30 Y141.90 E335.48425
G1 X141.31 Y141.66 E335.49614
G1 X141.38 Y141.20 E335.51963
G1 X141.53 Y140.75 E335.54334
G1 X141.75 Y140.32 E335.56706
G1 X142.03 Y139.94 E335.59074
G0 F12000 X142.94 Y140.72
;TYPE:WALL-INNER
G1 F2400 X143.14 Y140.52 E335.60485
G1 X143.37 Y140.35 E335.61910
G1 X143.63 Y140.22 E335.63365
G1 X143.91 Y140.13 E335.64797
G1 X144.19 Y140.08 E335.66216
G1 X145.46 Y140.07 E335.72583
G1 X160.66 Y140.07 E336.48376
G1 X160.80 Y140.08 E336.49080
G1 X161.09 Y140.13 E336.50585
G1 X161.37 Y140.22 E336.52018
G1 X161.63 Y140.35 E336.53472
G1 X161.86 Y140.52 E336.54897
G1 X162.06 Y140.72 E336.56308
G1 X162.23 Y140.95 E336.57733
G1 X162.36 Y141.21 E336.59188
G1 X162.45 Y141.48 E336.60621
G1 X162.49 Y141.76 E336.62035
G1 X162.50 Y143.37 E336.70037
G1 X162.50 Y163.08 E337.68396
G1 X162.49 Y163.22 E337.69100
G1 X162.45 Y163.52 E337.70605
G1 X162.36 Y163.79 E337.72038
G1 X162.23 Y164.05 E337.73492
G1 X162.06 Y164.28 E337.74917
G1 X161.86 Y164.48 E337.76328
G1 X161.63 Y164.65 E337.77753
G1 X161.37 Y164.78 E337.79208
G1 X161.09 Y164.87 E337.80641
G1 X160.81 Y164.92 E337.82060
G1 X159.54 Y164.93 E337.88426
G1 X144.34 Y164.93 E338.64219
G1 X144.20 Y164.92 E338.64923
G1 X143.91 Y164.87 E338.66428
G1 X143.63 Y164.78 E338.67861
G1 X143.37 Y164.65 E338.69316
G1 X143.14 Y164.48 E338.70741
G1 X142.94 Y164.28 E338.72152
G1 X142.77 Y164.05 E338.73577
G1 X142.64 Y163.79 E338.75031
G1 X142.55 Y163.52 E338.76464
G1 X142.51 Y163.24 E338.77878
G1 X142.50 Y161.63 E338.85881
G1 X142.50 Y141.92 E339.84239
G1 X142.51 Y141.78 E339.84943
G1 X142.55 Y141.48 E339.86448
G1 X142.64 Y141.21 E339.87881
G1 X142.77 Y140.95 E339.89336
G1 X142.94 Y140.72 E339.90761
G0 F12000 X142.64 Y140.46
G1 F2400 X142.88 Y140.21 E339.92496
G1 X143.16 Y140.01 E339.94236
G1 X143.48 Y139.85 E339.95985
G1 X143.81 Y139.74 E339.97753
G1 X144.15 Y139.68 E339.99471
G1 X145.46 Y139.68 E340.05987
G1 X160.65 Y139.68 E340.81755
G1 X160.84 Y139.68 E340.82724
G1 X161.19 Y139.74 E340.84467
G1 X161.52 Y139.85 E340.86235
G1 X161.84 Y140.01 E340.87985
G1 X162.12 Y140.21 E340.89724
G1 X162.36 Y140.46 E340.91460
G1 X162.57 Y140.74 E340.93199
G1 X162.73 Y141.05 E340.94948
G1 X162.84 Y141.39 E340.96717
G1 X162.89 Y141.73 E340.98429
G1 X162.90 Y143.37 E341.06597
G1 X162.90 Y163.07 E342.04915
G1 X162.89 Y163.27 E342.05884
G1 X162.84 Y163.61 E342.07627
G1 X162.73 Y163.95 E342.09395
G1 X162.57 Y164.26 E342.11145
G1 X162.36 Y164.54 E342.12884
G1 X162.12 Y164.79 E342.14620
G1 X161.84 Y164.99 E342.16359
G1 X161.52 Y165.15 E342.18108
G1 X161.19 Y165.26 E342.19877
G1 X160.85 Y165.32 E342.21594
G1 X159.54 Y165.32 E342.28110
G1 X144.35 Y165.32 E343.03878
G1 X144.16 Y165.32 E343.04847
G1 X143.81 Y165.26 E343.06590
G1 X143.48 Y165.15 E343.08359
G1 X143.16 Y164.99 E343.10108
G1 X142.88 Y164.79 E343.11847
G1 X142.64 Y164.54 E343.13583
G1 X142.43 Y164.26 E343.15322
G1 X142.27 Y163.95 E343.17072
G1 X142.16 Y163.61 E343.18840
G1 X142.11 Y163.27 E343.20553
G1 X142.10 Y161.63 E343.28720
G1 X142.10 Y141.93 E344.27039
G1 X142.11 Y141.73 E344.28007
G1 X142.16 Y141.39 E344.29750
G1 X142.27 Y141.05 E344.31519
G1 X142.43 Y140.74 E344.33268
G1 X142.64 Y140.46 E344.35007
G0 F12000 X142.34 Y140.19
;TYPE:WALL-OUTER
G1 F2400 X142.62 Y139.91 E344.36997
G1 X142.96 Y139.66 E344.39105
G1 X143.32 Y139.48 E344.41149
G1 X143.72 Y139.35 E344.43215
G1 X144.12 Y139.28 E344.45251
G1 X145.46 Y139.28 E344.51917
G1 X160.66 Y139.28 E345.27780
G1 X160.88 Y139.28 E345.28853
G1 X161.28 Y139.35 E345.30894
G1 X161.68 Y139.48 E345.32961
G1 X162.04 Y139.66 E345.35004
G1 X162.38 Y139.91 E345.37112
G1 X162.66 Y140.19 E345.39102
G1 X162.91 Y140.53 E345.41209
G1 X163.10 Y140.90 E345.43253
G1 X163.23 Y141.29 E345.45320
G1 X163.29 Y141.70 E345.47356
G1 X163.30 Y143.37 E345.55683
G1 X163.30 Y163.09 E346.54081
G1 X163.29 Y163.30 E346.55155
G1 X163.23 Y163.71 E346.57195
G1 X163.10 Y164.10 E346.59262
G1 X162.91 Y164.47 E346.61306
G1 X162.66 Y164.81 E346.63414
G1 X162.38 Y165.09 E346.65403
G1 X162.04 Y165.34 E346.67511
G1 X161.68 Y165.52 E346.69555
G1 X161.28 Y165.65 E346.71621
G1 X160.88 Y165.72 E346.73657
G1 X159.54 Y165.72 E346.80323
G1 X144.34 Y165.72 E347.56186
G1 X144.12 Y165.72 E347.57259
G1 X143.72 Y165.65 E347.59300
G1 X143.32 Y165.52 E347.61367
G1 X142.96 Y165.34 E347.63411
G1 X142.62 Y165.09 E347.65518
G1 X142.34 Y164.81 E347.67508
G1 X142.09 Y164.47 E347.69616
G1 X141.90 Y164.10 E347.71659
G1 X141.77 Y163.71 E347.73726
G1 X141.71 Y163.30 E347.75762
G1 X141.70 Y161.63 E347.84089
G1 X141.70 Y141.91 E348.82487
G1 X141.71 Y141.70 E348.83561
G1 X141.77 Y141.29 E348.85601
G1 X141.90 Y140.90 E348.87668
G1 X142.09 Y140.53 E348.89712
G1 X142.34 Y140.19 E348.91820
G0 F12000 X142.94 Y140.96
;TYPE:FILL
G1 F2400 X162.36 Y160.38 E350.28845
G0 F12000 X162.36 Y160.94
G1 F2400 X142.75 Y141.33 E351.67222
G0 F12000 X142.64 Y141.79
G1 F2400 X162.36 Y161.51 E353.06326
G0 F12000 X162.36 Y162.08
G1 F2400 X142.64 Y142.36 E354.45471
G0 F12000 X142.64 Y142.92
G1 F2400 X162.36 Y162.64 E355.84621
G0 F12000 X162.35 Y163.20
G1 F2400 X142.64 Y143.49 E357.23724
G0 F12000 X142.64 Y144.05
G1 F2400 X162.25 Y163.67 E358.62105
G0 F12000 X162.06 Y164.04
G1 F2400 X142.64 Y144.62 E359.99130
G0 F12000 X142.64 Y145.19
G1 F2400 X161.80 Y164.34 E361.34304
G0 F12000 X161.46 Y164.57
G1 F2400 X142.64 Y145.75 E362.67110
G0 F12000 X142.64 Y146.32
G1 F2400 X161.06 Y164.74 E363.97059
G0 F12000 X160.53 Y164.78
G1 F2400 X142.64 Y146.88 E365.23297
G0 F12000 X142.64 Y147.45
G1 F2400 X159.97 Y164.78 E366.45541
G0 F12000 X159.40 Y164.78
G1 F2400 X142.64 Y148.01 E367.63799
G0 F12000 X142.64 Y148.58
G1 F2400 X158.84 Y164.78 E368.78064
G0 F12000 X158.27 Y164.78
G1 F2400 X142.64 Y149.15 E369.88338
G0 F12000 X142.64 Y149.71
G1 F2400 X157.71 Y164.78 E370.94623
G0 F12000 X157.14 Y164.78
G1 F2400 X142.64 Y150.28 E371.96914
G0 F12000 X142.64 Y150.84
G1 F2400 X156.57 Y164.78 E372.95219
G0 F12000 X156.01 Y164.78
G1 F2400 X142.64 Y151.41 E373.89523
G0 F12000 X142.64 Y151.98
G1 F2400 X155.44 Y164.78 E374.79834
G0 F12000 X154.88 Y164.78
G1 F2400 X142.64 Y152.54 E375.66166
G0 F12000 X142.64 Y153.11
G1 F2400 X154.31 Y164.78 E376.48500
G0 F12000 X153.75 Y164.78
G1 F2400 X142.64 Y153.67 E377.26852
G0 F12000 X142.64 Y154.24
G1 F2400 X153.18 Y164.78 E378.01203
G0 F12000 X152.62 Y164.78
G1 F2400 X142.64 Y154.81 E378.71565
G0 F12000 X142.64 Y155.37
G1 F2400 X152.05 Y164.78 E379.37936
G0 F12000 X151.49 Y164.78
G1 F2400 X142.65 Y155.94 E380.00314
G0 F12000 X142.65 Y156.50
G1 F2400 X150.92 Y164.78 E380.58706
G0 F12000 X150.35 Y164.78
G1 F2400 X142.65 Y157.07 E381.13104
G0 F12000 X142.65 Y157.64
G1 F2400 X149.79 Y164.78 E381.63512
G0 F12000 X149.22 Y164.78
G1 F2400 X142.65 Y158.20 E382.09927
G0 F12000 X142.65 Y158.77
G1 F2400 X148.66 Y164.78 E382.52352
G0 F12000 X148.09 Y164.78
G1 F2400 X142.65 Y159.33 E382.90791
G0 F12000 X142.65 Y159.90
G1 F2400 X147.53 Y164.78 E383.25236
G0 F12000 X146.96 Y164.78
G1 F2400 X142.65 Y160.47 E383.55688
G0 F12000 X142.65 Y161.03
G1 F2400 X146.40 Y164.78 E383.82146
G0 F12000 X145.83 Y164.78
G1 F2400 X142.65 Y161.60 E384.04618
G0 F12000 X142.65 Y162.16
G1 F2400 X145.27 Y164.78 E384.23096
G0 F12000 X144.70 Y164.78
G1 F2400 X142.65 Y162.73 E384.37581
G0 F12000 X142.66 Y163.31
G1 F2400 X144.11 Y164.76 E384.47833
G0 F12000 X162.36 Y159.81
G1 F2400 X143.20 Y140.65 E385.83007
G0 F12000 X143.53 Y140.42
G1 F2400 X162.36 Y159.25 E387.15813
G0 F12000 X162.36 Y158.68
G1 F2400 X143.94 Y140.26 E388.45762
G0 F12000 X144.47 Y140.22
G1 F2400 X162.36 Y158.12 E389.72000
G0 F12000 X162.36 Y157.55
G1 F2400 X145.03 Y140.22 E390.94248
G0 F12000 X145.60 Y140.22
G1 F2400 X162.36 Y156.98 E392.12505
G0 F12000 X162.36 Y156.42
G1 F2400 X146.16 Y140.22 E393.26770
G0 F12000 X146.73 Y140.22
G1 F2400 X162.36 Y155.85 E394.37041
G0 F12000 X162.36 Y155.28
G1 F2400 X147.29 Y140.22 E395.43319
G0 F12000 X147.86 Y140.22
G1 F2400 X162.36 Y154.72 E396.45606
G0 F12000 X162.36 Y154.15
G1 F2400 X148.42 Y140.22 E397.43911
G0 F12000 X148.99 Y140.22
G1 F2400 X162.35 Y153.59 E398.38215
G0 F12000 X162.35 Y153.02
G1 F2400 X149.56 Y140.22 E399.28530
G0 F12000 X150.12 Y140.22
G1 F2400 X162.35 Y152.46 E400.14858
G0 F12000 X162.35 Y151.89
G1 F2400 X150.69 Y140.22 E400.97196
G0 F12000 X151.25 Y140.22
G1 F2400 X162.35 Y151.32 E401.75548
G0 F12000 X162.35 Y150.76
G1 F2400 X151.82 Y140.22 E402.49899
G0 F12000 X152.38 Y140.22
G1 F2400 X162.35 Y150.19 E403.20261
G0 F12000 X162.35 Y149.63
G1 F2400 X152.95 Y140.22 E403.86632
G0 F12000 X153.51 Y140.22
G1 F2400 X162.35 Y149.06 E404.49010
G0 F12000 X162.35 Y148.49
G1 F2400 X154.08 Y140.22 E405.07402
G0 F12000 X154.64 Y140.22
G1 F2400 X162.35 Y147.93 E405.61800
G0 F12000 X162.35 Y147.36
G1 F2400 X155.21 Y140.22 E406.12212
G0 F12000 X155.77 Y140.22
G1 F2400 X162.35 Y146.80 E406.58630
G0 F12000 X162.35 Y146.23
G1 F2400 X156.34 Y140.22 E407.01055
G0 F12000 X156.90 Y140.22
G1 F2400 X162.35 Y145.66 E407.39490
G0 F12000 X162.35 Y145.10
G1 F2400 X157.47 Y140.22 E407.73935
G0 F12000 X158.03 Y140.22
G1 F2400 X162.35 Y144.53 E408.04387
G0 F12000 X162.35 Y143.97
G1 F2400 X158.60 Y140.22 E408.30845
G0 F12000 X159.17 Y140.22
G1 F2400 X162.35 Y143.40 E408.53317
G0 F12000 X162.35 Y142.83
G1 F2400 X159.73 Y140.22 E408.71799
G0 F12000 X160.30 Y140.22
G1 F2400 X162.35 Y142.27 E408.86291
G0 F12000 X162.34 Y141.69
G1 F2400 X160.88 Y140.24 E408.96546
;LAYER:1
G0 F12000 X160.79 Y140.08 Z0.50
;TYPE:WALL-INNER
G1 F2400 X161.10 Y140.13 E408.97598
G1 X161.38 Y140.22 E408.98589
G1 X161.62 Y140.34 E408.99443
G1 X161.95 Y140.59 E409.00847
G1 X162.15 Y140.83 E409.01876
G1 X162.30 Y141.07 E409.02821
G1 X162.41 Y141.34 E409.03784
G1 X162.49 Y141.74 E409.05136
G1 X162.50 Y144.83 E409.15377
G1 X162.50 Y163.08 E409.75939
G1 X162.50 Y163.21 E409.76377
G1 X162.45 Y163.53 E409.77429
G1 X162.36 Y163.81 E409.78419
G1 X162.24 Y164.04 E409.79274
G1 X161.98 Y164.37 E409.80678
G1 X161.75 Y164.58 E409.81706
G1 X161.50 Y164.72 E409.82652
G1 X161.23 Y164.84 E409.83614
G1 X160.84 Y164.92 E409.84966
G1 X158.41 Y164.93 E409.93002
G1 X144.34 Y164.93 E410.39678
G1 X144.21 Y164.92 E410.40117
G1 X143.90 Y164.87 E410.41168
G1 X143.62 Y164.78 E410.42159
G1 X143.38 Y164.66 E410.43013
G1 X143.05 Y164.41 E410.44418
G1 X142.85 Y164.17 E410.45446
G1 X142.70 Y163.93 E410.46391
G1 X142.59 Y163.66 E410.47354
G1 X142.51 Y163.26 E410.48706
G1 X142.50 Y160.17 E410.58948
G1 X142.50 Y141.92 E411.19509
G1 X142.50 Y141.79 E411.19947
G1 X142.55 Y141.47 E411.20999
G1 X142.64 Y141.19 E411.21989
G1 X142.76 Y140.96 E411.22844
G1 X143.02 Y140.63 E411.24248
G1 X143.25 Y140.42 E411.25276
G1 X143.50 Y140.28 E411.26222
G1 X143.77 Y140.16 E411.27184
G1 X144.16 Y140.08 E411.28536
G1 X146.59 Y140.07 E411.36572
G1 X160.66 Y140.07 E411.83249
G1 X160.79 Y140.08 E411.83687
G0 F12000 X160.83 Y139.68
G1 F2400 X161.19 Y139.74 E411.84886
G1 X161.54 Y139.85 E411.86100
G1 X161.82 Y139.99 E411.87148
G1 X162.13 Y140.22 E411.88421
G1 X162.24 Y140.31 E411.88890
G1 X162.48 Y140.60 E411.90123
G1 X162.66 Y140.89 E411.91274
G1 X162.79 Y141.22 E411.92432
G1 X162.88 Y141.56 E411.93613
G1 X162.89 Y141.72 E411.94137
G1 X162.90 Y144.83 E412.04449
G1 X162.90 Y163.07 E412.64980
G1 X162.89 Y163.26 E412.65601
G1 X162.84 Y163.62 E412.66800
G1 X162.72 Y163.96 E412.68014
G1 X162.58 Y164.25 E412.69062
G1 X162.36 Y164.56 E412.70335
G1 X162.26 Y164.66 E412.70790
G1 X161.98 Y164.90 E412.72037
G1 X161.68 Y165.08 E412.73188
G1 X161.36 Y165.22 E412.74346
G1 X161.01 Y165.30 E412.75527
G1 X160.86 Y165.32 E412.76051
G1 X158.41 Y165.33 E412.84150
G1 X144.35 Y165.33 E413.30803
G1 X144.17 Y165.32 E413.31424
G1 X143.81 Y165.26 E413.32623
G1 X143.46 Y165.15 E413.33837
G1 X143.18 Y165.01 E413.34885
G1 X142.87 Y164.78 E413.36158
G1 X142.76 Y164.69 E413.36627
G1 X142.52 Y164.40 E413.37860
G1 X142.34 Y164.11 E413.39012
G1 X142.21 Y163.78 E413.40169
G1 X142.12 Y163.44 E413.41350
G1 X142.11 Y163.28 E413.41874
G1 X142.10 Y160.17 E413.52186
G1 X142.10 Y141.93 E414.12717
G1 X142.11 Y141.74 E414.13338
G1 X142.16 Y141.38 E414.14538
G1 X142.28 Y141.03 E414.15772
G1 X142.42 Y140.75 E414.16799
G1 X142.64 Y140.44 E414.18072
G1 X142.74 Y140.34 E414.18541
G1 X143.02 Y140.10 E414.19775
G1 X143.32 Y139.92 E414.20926
G1 X143.64 Y139.78 E414.22083
G1 X143.99 Y139.70 E414.23264
G1 X144.14 Y139.68 E414.23788
G1 X146.59 Y139.67 E414.31887
G1 X160.65 Y139.67 E414.78541
G1 X160.83 Y139.68 E414.79161
G0 F12000 X160.87 Y139.28
;TYPE:WALL-OUTER
G1 F2400 X161.29 Y139.35 E414.80566
G1 X161.68 Y139.47 E414.81916
G1 X162.04 Y139.66 E414.83281
G1 X162.38 Y139.91 E414.84676
G1 X162.53 Y140.04 E414.85335
G1 X162.79 Y140.35 E414.86696
G1 X163.01 Y140.71 E414.88085
G1 X163.17 Y141.09 E414.89457
G1 X163.27 Y141.49 E414.90808
G1 X163.29 Y141.70 E414.91500
G1 X163.30 Y163.09 E415.62469
G1 X163.29 Y163.29 E415.63156
G1 X163.23 Y163.71 E415.64564
G1 X163.10 Y164.10 E415.65914
G1 X162.91 Y164.47 E415.67279
G1 X162.67 Y164.81 E415.68673
G1 X162.53 Y164.95 E415.69333
G1 X162.22 Y165.22 E415.70693
G1 X161.86 Y165.44 E415.72083
G1 X161.48 Y165.60 E415.73454
G1 X161.09 Y165.69 E415.74806
G1 X160.88 Y165.72 E415.75498
G1 X144.34 Y165.73 E416.30376
G1 X144.13 Y165.72 E416.31066
G1 X143.71 Y165.65 E416.32471
G1 X143.32 Y165.53 E416.33821
G1 X142.96 Y165.34 E416.35186
G1 X142.62 Y165.09 E416.36580
G1 X142.47 Y164.96 E416.37240
G1 X142.21 Y164.65 E416.38600
G1 X141.99 Y164.29 E416.39990
G1 X141.83 Y163.91 E416.41361
G1 X141.73 Y163.51 E416.42713
G1 X141.71 Y163.30 E416.43404
G1 X141.70 Y141.91 E417.14373
G1 X141.71 Y141.70 E417.15064
G1 X141.77 Y141.29 E417.16468
G1 X141.90 Y140.90 E417.17819
G1 X142.09 Y140.53 E417.19184
G1 X142.33 Y140.19 E417.20578
G1 X142.47 Y140.05 E417.21238
G1 X142.78 Y139.78 E417.22598
G1 X143.14 Y139.56 E417.23988
G1 X143.52 Y139.40 E417.25359
G1 X143.91 Y139.31 E417.26711
G1 X144.12 Y139.28 E417.27402
G1 X160.66 Y139.27 E417.82280
G1 X160.87 Y139.28 E417.82971
G0 F12000 X160.82 Y140.22
;TYPE:FILL
G1 F2400 X142.64 Y158.40 E418.68237
G0 F12000 X142.64 Y157.83
G1 F2400 X160.26 Y140.21 E419.50909
G0 F12000 X159.70 Y140.21
G1 F2400 X142.64 Y157.27 E420.30933
G0 F12000 X142.64 Y156.70
G1 F2400 X159.13 Y140.21 E421.08307
G0 F12000 X158.57 Y140.21
G1 F2400 X142.64 Y156.14 E421.83036
G0 F12000 X142.64 Y155.57
G1 F2400 X158.00 Y140.21 E422.55118
G0 F12000 X157.44 Y140.21
G1 F2400 X142.64 Y155.01 E423.24552
G0 F12000 X142.64 Y154.45
G1 F2400 X156.88 Y140.21 E423.91336
G0 F12000 X156.31 Y140.21
G1 F2400 X142.64 Y153.88 E424.55475
G0 F12000 X142.64 Y153.32
G1 F2400 X155.75 Y140.21 E425.16968
G0 F12000 X155.18 Y140.21
G1 F2400 X142.64 Y152.75 E425.75807
G0 F12000 X142.64 Y152.19
G1 F2400 X154.62 Y140.21 E426.32002
G0 F12000 X154.05 Y140.22
G1 F2400 X142.64 Y151.63 E426.85547
G0 F12000 X142.64 Y151.06
G1 F2400 X153.49 Y140.22 E427.36440
G0 F12000 X152.92 Y140.22
G1 F2400 X142.64 Y150.50 E427.84689
G0 F12000 X142.64 Y149.93
G1 F2400 X152.36 Y140.22 E428.30290
G0 F12000 X151.79 Y140.22
G1 F2400 X142.64 Y149.37 E428.73250
G0 F12000 X142.64 Y148.81
G1 F2400 X151.23 Y140.22 E429.13558
G0 F12000 X150.67 Y140.22
G1 F2400 X142.64 Y148.24 E429.51218
G0 F12000 X142.64 Y147.68
G1 F2400 X150.10 Y140.22 E429.86232
G0 F12000 X149.54 Y140.22
G1 F2400 X142.64 Y147.11 E430.18594
G0 F12000 X142.64 Y146.55
G1 F2400 X148.97 Y140.22 E430.48308
G0 F12000 X148.41 Y140.22
G1 F2400 X142.64 Y145.99 E430.75378
G0 F12000 X142.64 Y145.42
G1 F2400 X147.84 Y140.22 E430.99795
G0 F12000 X147.28 Y140.22
G1 F2400 X142.64 Y144.86 E431.21570
G0 F12000 X142.64 Y144.29
G1 F2400 X146.71 Y140.22 E431.40695
G0 F12000 X146.15 Y140.22
G1 F2400 X142.64 Y143.73 E431.57170
G0 F12000 X142.64 Y143.17
G1 F2400 X145.58 Y140.22 E431.71002
G0 F12000 X145.02 Y140.22
G1 F2400 X142.64 Y142.60 E431.82183
G0 F12000 X142.64 Y142.04
G1 F2400 X144.46 Y140.22 E431.90718
G0 F12000 X143.81 Y140.29
G1 F2400 X142.72 Y141.38 E431.95832
G0 F12000 X142.64 Y158.96
G1 F2400 X161.27 Y140.33 E432.83243
G0 F12000 X161.64 Y140.53
G1 F2400 X142.64 Y159.52 E433.72357
G0 F12000 X142.64 Y160.09
G1 F2400 X161.94 Y140.80 E434.62869
G0 F12000 X162.17 Y141.13
G1 F2400 X142.65 Y160.65 E435.54472
G0 F12000 X142.65 Y161.22
G1 F2400 X162.31 Y141.55 E436.46736
G0 F12000 X162.35 Y142.07
G1 F2400 X142.65 Y161.78 E437.39200
G0 F12000 X142.65 Y162.34
G1 F2400 X162.35 Y142.64 E438.31664
G0 F12000 X162.35 Y143.20
G1 F2400 X142.65 Y162.91 E439.24128
G0 F12000 X142.69 Y163.43
G1 F2400 X162.35 Y143.76 E440.16409
G0 F12000 X162.35 Y144.33
G1 F2400 X142.82 Y163.86 E441.08047
G0 F12000 X143.05 Y164.19
G1 F2400 X162.35 Y144.89 E441.98602
G0 F12000 X162.35 Y145.46
G1 F2400 X143.35 Y164.46 E442.87767
G0 F12000 X143.71 Y164.66
G1 F2400 X162.35 Y146.02 E443.75248
G0 F12000 X162.35 Y146.58
G1 F2400 X144.16 Y164.77 E444.60594
G0 F12000 X144.72 Y164.79
G1 F2400 X162.35 Y147.15 E445.43358
G0 F12000 X162.35 Y147.71
G1 F2400 X145.28 Y164.79 E446.23473
G0 F12000 X145.84 Y164.79
G1 F2400 X162.35 Y148.28 E447.00936
G0 F12000 X162.35 Y148.84
G1 F2400 X146.41 Y164.79 E447.75754
G0 F12000 X146.97 Y164.79
G1 F2400 X162.36 Y149.40 E448.47928
G0 F12000 X162.36 Y149.97
G1 F2400 X147.54 Y164.79 E449.17453
G0 F12000 X148.10 Y164.79
G1 F2400 X162.36 Y150.53 E449.84332
G0 F12000 X162.36 Y151.09
G1 F2400 X148.67 Y164.78 E450.48564
G0 F12000 X149.23 Y164.78
G1 F2400 X162.36 Y151.66 E451.10146
G0 F12000 X162.36 Y152.22
G1 F2400 X149.80 Y164.78 E451.69076
G0 F12000 X150.36 Y164.78
G1 F2400 X162.36 Y152.79 E452.25363
G0 F12000 X162.36 Y153.35
G1 F2400 X150.93 Y164.78 E452.79001
G0 F12000 X151.49 Y164.78
G1 F2400 X162.36 Y153.92 E453.29993
G0 F12000 X162.36 Y154.48
G1 F2400 X152.06 Y164.78 E453.78334
G0 F12000 X152.62 Y164.78
G1 F2400 X162.36 Y155.04 E454.24029
G0 F12000 X162.36 Y155.61
G1 F2400 X153.18 Y164.78 E454.67078
G0 F12000 X153.75 Y164.78
G1 F2400 X162.36 Y156.17 E455.07475
G0 F12000 X162.36 Y156.74
G1 F2400 X154.31 Y164.78 E455.45226
G0 F12000 X154.88 Y164.78
G1 F2400 X162.36 Y157.30 E455.80332
G0 F12000 X162.36 Y157.86
G1 F2400 X155.44 Y164.78 E456.12790
G0 F12000 X156.01 Y164.78
G1 F2400 X162.36 Y158.43 E456.42598
G0 F12000 X162.36 Y158.99
G1 F2400 X156.57 Y164.78 E456.69760
G0 F12000 X157.14 Y164.78
G1 F2400 X162.36 Y159.56 E456.94270
G0 F12000 X162.36 Y160.12
G1 F2400 X157.70 Y164.78 E457.16135
G0 F12000 X158.26 Y164.78
G1 F2400 X162.36 Y160.68 E457.35353
G0 F12000 X162.36 Y161.25
G1 F2400 X158.83 Y164.78 E457.51920
G0 F12000 X159.39 Y164.78
G1 F2400 X162.36 Y161.81 E457.65844
G0 F12000 X162.36 Y162.38
G1 F2400 X159.96 Y164.78 E457.77118
G0 F12000 X160.52 Y164.78
G1 F2400 X162.36 Y162.94 E457.85747
G0 F12000 X162.28 Y163.58
G1 F2400 X161.16 Y164.71 E457.91023
;LAYER:2
G0 F12000 X161.08 Y164.88 Z0.70
;TYPE:WALL-INNER
G1 F2400 X160.98 Y164.90 E457.91365
G1 X160.63 Y164.93 E457.92520
G1 X144.34 Y164.93 E458.46552
G1 X144.21 Y164.92 E458.46990
G1 X143.90 Y164.87 E458.48042
G1 X143.62 Y164.78 E458.49032
G1 X143.51 Y164.73 E458.49409
G1 X143.25 Y164.58 E458.50408
G1 X142.95 Y164.30 E458.51789
G1 X142.77 Y164.05 E458.52782
G1 X142.64 Y163.80 E458.53742
G1 X142.54 Y163.50 E458.54764
G1 X142.52 Y163.40 E458.55106
G1 X142.50 Y163.06 E458.56261
G1 X142.50 Y141.92 E459.26384
G1 X142.50 Y141.79 E459.26822
G1 X142.55 Y141.47 E459.27874
G1 X142.64 Y141.19 E459.28864
G1 X142.69 Y141.09 E459.29241
G1 X142.85 Y140.83 E459.30240
G1 X143.13 Y140.52 E459.31621
G1 X143.37 Y140.35 E459.32614
G1 X143.63 Y140.22 E459.33574
G1 X143.92 Y140.12 E459.34596
G1 X144.02 Y140.10 E459.34938
G1 X144.37 Y140.07 E459.36093
G1 X160.66 Y140.07 E459.90125
G1 X160.79 Y140.08 E459.90563
G1 X161.10 Y140.13 E459.91615
G1 X161.38 Y140.22 E459.92605
G1 X161.49 Y140.27 E459.92982
G1 X161.75 Y140.42 E459.93981
G1 X162.05 Y140.70 E459.95362
G1 X162.23 Y140.95 E459.96355
G1 X162.36 Y141.20 E459.97315
G1 X162.46 Y141.50 E459.98337
G1 X162.48 Y141.60 E459.98679
G1 X162.50 Y141.94 E459.99831
G1 X162.50 Y163.08 E460.69957
G1 X162.50 Y163.21 E460.70395
G1 X162.45 Y163.53 E460.71447
G1 X162.36 Y163.81 E460.72437
G1 X162.31 Y163.91 E460.72814
G1 X162.15 Y164.17 E460.73813
G1 X161.87 Y164.48 E460.75194
G1 X161.63 Y164.65 E460.76187
G1 X161.37 Y164.78 E460.77147
G1 X161.08 Y164.88 E460.78169
G0 F12000 X161.18 Y165.27
G1 F2400 X161.03 Y165.30 E460.78664
G1 X160.65 Y165.33 E460.79931
G1 X144.35 Y165.33 E461.33997
G1 X144.17 Y165.32 E461.34618
G1 X143.81 Y165.26 E461.35817
G1 X143.46 Y165.15 E461.37031
G1 X143.33 Y165.09 E461.37516
G1 X143.02 Y164.90 E461.38703
G1 X142.74 Y164.66 E461.39951
G1 X142.64 Y164.56 E461.40406
G1 X142.43 Y164.26 E461.41629
G1 X142.27 Y163.95 E461.42772
G1 X142.16 Y163.60 E461.43992
G1 X142.13 Y163.46 E461.44486
G1 X142.10 Y163.07 E461.45761
G1 X142.10 Y141.93 E462.15910
G1 X142.11 Y141.74 E462.16531
G1 X142.16 Y141.38 E462.17731
G1 X142.28 Y141.04 E462.18945
G1 X142.34 Y140.90 E462.19430
G1 X142.52 Y140.60 E462.20617
G1 X142.76 Y140.31 E462.21850
G1 X142.87 Y140.22 E462.22320
G1 X143.17 Y140.00 E462.23543
G1 X143.47 Y139.85 E462.24685
G1 X143.82 Y139.73 E462.25906
G1 X143.97 Y139.70 E462.26400
G1 X144.35 Y139.67 E462.27668
G1 X160.65 Y139.67 E462.81733
G1 X160.83 Y139.68 E462.82354
G1 X161.19 Y139.74 E462.83554
G1 X161.54 Y139.85 E462.84768
G1 X161.67 Y139.91 E462.85253
G1 X161.98 Y140.10 E462.86440
G1 X162.26 Y140.34 E462.87673
G1 X162.36 Y140.44 E462.88143
G1 X162.57 Y140.74 E462.89366
G1 X162.73 Y141.05 E462.90508
G1 X162.84 Y141.40 E462.91728
G1 X162.87 Y141.54 E462.92223
G1 X162.90 Y141.93 E462.93491
G1 X162.90 Y163.07 E463.63647
G1 X162.89 Y163.26 E463.64268
G1 X162.84 Y163.62 E463.65467
G1 X162.72 Y163.96 E463.66681
G1 X162.66 Y164.10 E463.67167
G1 X162.48 Y164.40 E463.68354
G1 X162.24 Y164.69 E463.69587
G1 X162.13 Y164.78 E463.70056
G1 X161.83 Y165.00 E463.71280
G1 X161.53 Y165.15 E463.72422
G1 X161.18 Y165.27 E463.73642
G0 F12000 X161.28 Y165.65
;TYPE:WALL-OUTER
G1 F2400 X161.08 Y165.69 E463.74323
G1 X160.67 Y165.73 E463.75704
G1 X144.34 Y165.73 E464.29885
G1 X144.13 Y165.72 E464.30576
G1 X143.71 Y165.65 E464.31980
G1 X143.32 Y165.53 E464.33331
G1 X143.14 Y165.44 E464.34002
G1 X142.78 Y165.22 E464.35403
G1 X142.47 Y164.95 E464.36763
G1 X142.33 Y164.81 E464.37423
G1 X142.09 Y164.47 E464.38820
G1 X141.90 Y164.10 E464.40179
G1 X141.77 Y163.71 E464.41550
G1 X141.73 Y163.51 E464.42230
G1 X141.70 Y163.10 E464.43601
G1 X141.70 Y141.91 E465.13884
G1 X141.71 Y141.70 E465.14574
G1 X141.78 Y141.28 E465.15986
G1 X141.90 Y140.90 E465.17329
G1 X141.98 Y140.72 E465.18000
G1 X142.21 Y140.35 E465.19401
G1 X142.47 Y140.04 E465.20761
G1 X142.62 Y139.91 E465.21421
G1 X142.96 Y139.66 E465.22818
G1 X143.32 Y139.47 E465.24177
G1 X143.72 Y139.35 E465.25547
G1 X143.92 Y139.31 E465.26228
G1 X144.33 Y139.27 E465.27609
G1 X160.66 Y139.27 E465.81791
G1 X160.87 Y139.28 E465.82481
G1 X161.29 Y139.35 E465.83886
G1 X161.68 Y139.47 E465.85236
G1 X161.86 Y139.56 E465.85907
G1 X162.22 Y139.78 E465.87308
G1 X162.53 Y140.05 E465.88669
G1 X162.67 Y140.19 E465.89328
G1 X162.91 Y140.53 E465.90725
G1 X163.10 Y140.90 E465.92085
G1 X163.23 Y141.29 E465.93455
G1 X163.27 Y141.49 E465.94135
G1 X163.30 Y141.90 E465.95507
G1 X163.30 Y163.09 E466.65789
G1 X163.29 Y163.30 E466.66479
G1 X163.23 Y163.71 E466.67884
G1 X163.10 Y164.10 E466.69234
G1 X163.02 Y164.28 E466.69905
G1 X162.79 Y164.65 E466.71307
G1 X162.53 Y164.96 E466.72667
G1 X162.38 Y165.09 E466.73327
G1 X162.04 Y165.34 E466.74724
G1 X161.68 Y165.53 E466.76083
G1 X161.28 Y165.65 E466.77453
G0 F12000 X161.07 Y164.74
;TYPE:FILL
G1 F2400 X142.64 Y146.30 E467.63932
G0 F12000 X142.64 Y146.87
G1 F2400 X160.55 Y164.79 E468.48005
G0 F12000 X159.99 Y164.79
G1 F2400 X142.64 Y147.43 E469.29429
G0 F12000 X142.64 Y148.00
G1 F2400 X159.43 Y164.79 E470.08206
G0 F12000 X158.86 Y164.79
G1 F2400 X142.64 Y148.56 E470.84337
G0 F12000 X142.64 Y149.12
G1 F2400 X158.30 Y164.79 E471.57820
G0 F12000 X157.73 Y164.79
G1 F2400 X142.64 Y149.69 E472.28654
G0 F12000 X142.64 Y150.25
G1 F2400 X157.17 Y164.79 E472.96842
G0 F12000 X156.60 Y164.79
G1 F2400 X142.64 Y150.82 E473.62384
G0 F12000 X142.64 Y151.38
G1 F2400 X156.04 Y164.79 E474.25275
G0 F12000 X155.48 Y164.79
G1 F2400 X142.64 Y151.95 E474.85519
G0 F12000 X142.64 Y152.51
G1 F2400 X154.91 Y164.79 E475.43117
G0 F12000 X154.35 Y164.79
G1 F2400 X142.64 Y153.07 E475.98067
G0 F12000 X142.64 Y153.64
G1 F2400 X153.78 Y164.79 E476.50368
G0 F12000 X153.22 Y164.79
G1 F2400 X142.64 Y154.20 E477.00022
G0 F12000 X142.64 Y154.77
G1 F2400 X152.66 Y164.79 E477.47031
G0 F12000 X152.09 Y164.79
G1 F2400 X142.64 Y155.33 E477.91391
G0 F12000 X142.64 Y155.90
G1 F2400 X151.53 Y164.79 E478.33102
G0 F12000 X150.96 Y164.79
G1 F2400 X142.64 Y156.46 E478.72167
G0 F12000 X142.64 Y157.03
G1 F2400 X150.40 Y164.79 E479.08586
G0 F12000 X149.83 Y164.79
G1 F2400 X142.64 Y157.59 E479.42354
G0 F12000 X142.64 Y158.15
G1 F2400 X149.27 Y164.79 E479.73475
G0 F12000 X148.71 Y164.79
G1 F2400 X142.64 Y158.72 E480.01951
G0 F12000 X142.64 Y159.28
G1 F2400 X148.14 Y164.79 E480.27778
G0 F12000 X147.58 Y164.79
G1 F2400 X142.64 Y159.85 E480.50956
G0 F12000 X142.64 Y160.41
G1 F2400 X147.01 Y164.79 E480.71488
G0 F12000 X146.45 Y164.79
G1 F2400 X142.64 Y160.97 E480.89373
G0 F12000 X142.64 Y161.54
G1 F2400 X145.88 Y164.79 E481.04610
G0 F12000 X145.32 Y164.79
G1 F2400 X142.64 Y162.10 E481.17199
G0 F12000 X142.64 Y162.67
G1 F2400 X144.75 Y164.79 E481.27141
G0 F12000 X144.18 Y164.77
G1 F2400 X142.65 Y163.25 E481.34303
G0 F12000 X142.64 Y145.74
G1 F2400 X161.47 Y164.58 E482.22680
G0 F12000 X161.80 Y164.34
G1 F2400 X142.64 Y145.18 E483.12615
G0 F12000 X142.64 Y144.61
G1 F2400 X162.06 Y164.04 E484.03775
G0 F12000 X162.26 Y163.67
G1 F2400 X142.64 Y144.05 E484.95831
G0 F12000 X142.64 Y143.48
G1 F2400 X162.36 Y163.21 E485.88365
G0 F12000 X162.36 Y162.65
G1 F2400 X142.64 Y142.92 E486.80921
G0 F12000 X142.64 Y142.35
G1 F2400 X162.36 Y162.08 E487.73478
G0 F12000 X162.36 Y161.52
G1 F2400 X142.64 Y141.79 E488.66013
G0 F12000 X142.74 Y141.33
G1 F2400 X162.36 Y160.95 E489.58073
G0 F12000 X162.36 Y160.39
G1 F2400 X142.93 Y140.96 E490.49237
G0 F12000 X143.19 Y140.66
G1 F2400 X162.36 Y159.82 E491.39177
G0 F12000 X162.36 Y159.26
G1 F2400 X143.53 Y140.42 E492.27554
G0 F12000 X143.93 Y140.26
G1 F2400 X162.36 Y158.69 E493.14034
G0 F12000 X162.36 Y158.13
G1 F2400 X144.44 Y140.21 E493.98116
G0 F12000 X145.01 Y140.21
G1 F2400 X162.36 Y157.57 E494.79549
G0 F12000 X162.36 Y157.00
G1 F2400 X145.57 Y140.21 E495.58336
G0 F12000 X146.13 Y140.21
G1 F2400 X162.36 Y156.44 E496.34474
G0 F12000 X162.36 Y155.87
G1 F2400 X146.70 Y140.21 E497.07966
G0 F12000 X147.26 Y140.21
G1 F2400 X162.36 Y155.31 E497.78810
G0 F12000 X162.36 Y154.75
G1 F2400 X147.83 Y140.21 E498.47007
G0 F12000 X148.39 Y140.21
G1 F2400 X162.36 Y154.18 E499.12556
G0 F12000 X162.36 Y153.62
G1 F2400 X148.96 Y140.21 E499.75458
G0 F12000 X149.52 Y140.21
G1 F2400 X162.36 Y153.05 E500.35712
G0 F12000 X162.36 Y152.49
G1 F2400 X150.09 Y140.21 E500.93317
G0 F12000 X150.65 Y140.21
G1 F2400 X162.36 Y151.92 E501.48276
G0 F12000 X162.36 Y151.36
G1 F2400 X151.21 Y140.21 E502.00586
G0 F12000 X151.78 Y140.21
G1 F2400 X162.36 Y150.80 E502.50251
G0 F12000 X162.36 Y150.23
G1 F2400 X152.34 Y140.21 E502.97266
G0 F12000 X152.91 Y140.21
G1 F2400 X162.36 Y149.67 E503.41635
G0 F12000 X162.36 Y149.10
G1 F2400 X153.47 Y140.21 E503.83356
G0 F12000 X154.03 Y140.21
G1 F2400 X162.36 Y148.54 E504.22430
G0 F12000 X162.36 Y147.97
G1 F2400 X154.60 Y140.21 E504.58856
G0 F12000 X155.16 Y140.21
G1 F2400 X162.36 Y147.41 E504.92636
G0 F12000 X162.36 Y146.85
G1 F2400 X155.73 Y140.21 E505.23767
G0 F12000 X156.29 Y140.21
G1 F2400 X162.36 Y146.28 E505.52252
G0 F12000 X162.36 Y145.72
G1 F2400 X156.86 Y140.21 E505.78088
G0 F12000 X157.42 Y140.21
G1 F2400 X162.36 Y145.15 E506.01275
G0 F12000 X162.36 Y144.59
G1 F2400 X157.99 Y140.21 E506.21817
G0 F12000 X158.55 Y140.21
G1 F2400 X162.36 Y144.02 E506.39709
G0 F12000 X162.36 Y143.46
G1 F2400 X159.11 Y140.21 E506.54956
G0 F12000 X159.68 Y140.21
G1 F2400 X162.36 Y142.90 E506.67554
G0 F12000 X162.36 Y142.33
G1 F2400 X160.24 Y140.21 E506.77505
G0 F12000 X160.82 Y140.22
G1 F2400 X162.35 Y141.75 E506.84681
;LAYER:3
G0 F12000 X162.49 Y141.74 Z0.90
;TYPE:WALL-INNER
G1 F2400 X162.50 Y147.75 E507.04624
G1 X162.50 Y163.08 E507.55488
G1 X162.48 Y163.36 E507.56426
G1 X162.41 Y163.66 E507.57436
G1 X162.24 Y164.04 E507.58821
G1 X162.06 Y164.28 E507.59811
G1 X161.76 Y164.56 E507.61180
G1 X161.52 Y164.72 E507.62145
G1 X161.11 Y164.87 E507.63599
G1 X160.84 Y164.92 E507.64509
G1 X156.16 Y164.93 E507.80019
G1 X144.34 Y164.93 E508.19224
G1 X144.06 Y164.91 E508.20163
G1 X143.77 Y164.84 E508.21172
G1 X143.38 Y164.66 E508.22558
G1 X143.14 Y164.49 E508.23548
G1 X142.86 Y164.19 E508.24916
G1 X142.71 Y163.94 E508.25881
G1 X142.55 Y163.53 E508.27336
G1 X142.51 Y163.26 E508.28245
G1 X142.50 Y157.25 E508.48188
G1 X142.50 Y141.92 E508.99052
G1 X142.52 Y141.64 E508.99990
G1 X142.59 Y141.34 E509.01000
G1 X142.76 Y140.96 E509.02385
G1 X142.94 Y140.72 E509.03375
G1 X143.24 Y140.44 E509.04744
G1 X143.48 Y140.28 E509.05709
G1 X143.89 Y140.13 E509.07163
G1 X144.16 Y140.08 E509.08073
G1 X148.84 Y140.07 E509.23583
G1 X160.66 Y140.07 E509.62788
G1 X160.94 Y140.09 E509.63726
G1 X161.23 Y140.16 E509.64736
G1 X161.62 Y140.34 E509.66122
G1 X161.86 Y140.51 E509.67112
G1 X162.14 Y140.81 E509.68480
G1 X162.29 Y141.06 E509.69445
G1 X162.45 Y141.47 E509.70899
G1 X162.49 Y141.74 E509.71809
G0 F12000 X162.89 Y141.72
G1 F2400 X162.90 Y163.07 E510.42655
G1 X162.89 Y163.28 E510.43333
G1 X162.88 Y163.44 E510.43874
G1 X162.79 Y163.78 E510.45055
G1 X162.65 Y164.12 E510.46258
G1 X162.58 Y164.25 E510.46740
G1 X162.37 Y164.54 E510.47963
G1 X162.11 Y164.80 E510.49159
G1 X161.99 Y164.89 E510.49667
G1 X161.69 Y165.08 E510.50837
G1 X161.22 Y165.25 E510.52486
G1 X161.01 Y165.30 E510.53196
G1 X160.86 Y165.32 E510.53727
G1 X156.16 Y165.33 E510.69300
G1 X144.35 Y165.33 E511.08479
G1 X144.15 Y165.32 E511.09156
G1 X143.99 Y165.30 E511.09697
G1 X143.64 Y165.22 E511.10879
G1 X143.31 Y165.08 E511.12082
G1 X143.18 Y165.01 E511.12563
G1 X142.88 Y164.79 E511.13786
G1 X142.63 Y164.53 E511.14983
G1 X142.53 Y164.41 E511.15490
G1 X142.35 Y164.11 E511.16661
G1 X142.17 Y163.65 E511.18309
G1 X142.13 Y163.44 E511.19019
G1 X142.11 Y163.28 E511.19547
G1 X142.10 Y141.93 E511.90393
G1 X142.11 Y141.72 E511.91071
G1 X142.12 Y141.56 E511.91612
G1 X142.21 Y141.22 E511.92793
G1 X142.35 Y140.88 E511.93996
G1 X142.42 Y140.75 E511.94477
G1 X142.63 Y140.46 E511.95700
G1 X142.89 Y140.20 E511.96897
G1 X143.01 Y140.11 E511.97405
G1 X143.31 Y139.92 E511.98575
G1 X143.78 Y139.75 E512.00223
G1 X143.99 Y139.70 E512.00933
G1 X144.14 Y139.68 E512.01465
G1 X148.84 Y139.67 E512.17038
G1 X160.65 Y139.67 E512.56217
G1 X160.85 Y139.68 E512.56894
G1 X161.01 Y139.70 E512.57435
G1 X161.36 Y139.78 E512.58616
G1 X161.69 Y139.92 E512.59820
G1 X161.82 Y139.99 E512.60301
G1 X162.12 Y140.21 E512.61524
G1 X162.37 Y140.47 E512.62720
G1 X162.47 Y140.59 E512.63228
G1 X162.65 Y140.89 E512.64399
G1 X162.83 Y141.35 E512.66047
G1 X162.87 Y141.56 E512.66757
G1 X162.89 Y141.72 E512.67285
G0 F12000 X163.29 Y141.70
;TYPE:WALL-OUTER
G1 F2400 X163.30 Y163.09 E513.38254
G1 X163.29 Y163.29 E513.38941
G1 X163.27 Y163.51 E513.39659
G1 X163.17 Y163.91 E513.41011
G1 X163.01 Y164.29 E513.42397
G1 X162.91 Y164.47 E513.43066
G1 X162.67 Y164.80 E513.44431
G1 X162.37 Y165.10 E513.45844
G1 X162.22 Y165.22 E513.46460
G1 X161.86 Y165.44 E513.47865
G1 X161.33 Y165.64 E513.49744
G1 X160.88 Y165.72 E513.51279
G1 X144.34 Y165.73 E514.06157
G1 X143.91 Y165.69 E514.07562
G1 X143.52 Y165.60 E514.08914
G1 X143.13 Y165.44 E514.10300
G1 X142.96 Y165.34 E514.10968
G1 X142.62 Y165.10 E514.12334
G1 X142.32 Y164.80 E514.13746
G1 X142.21 Y164.65 E514.14363
G1 X141.99 Y164.29 E514.15767
G1 X141.79 Y163.76 E514.17647
G1 X141.71 Y163.30 E514.19182
G1 X141.70 Y141.91 E514.90151
G1 X141.71 Y141.71 E514.90838
G1 X141.73 Y141.49 E514.91556
G1 X141.83 Y141.09 E514.92908
G1 X141.99 Y140.71 E514.94294
G1 X142.09 Y140.53 E514.94963
G1 X142.33 Y140.20 E514.96328
G1 X142.63 Y139.90 E514.97741
G1 X142.78 Y139.78 E514.98357
G1 X143.14 Y139.56 E514.99762
G1 X143.67 Y139.36 E515.01641
G1 X144.12 Y139.28 E515.03176
G1 X160.66 Y139.27 E515.58055
G1 X161.09 Y139.31 E515.59459
G1 X161.48 Y139.40 E515.60811
G1 X161.87 Y139.56 E515.62197
G1 X162.04 Y139.66 E515.62865
G1 X162.38 Y139.90 E515.64231
G1 X162.68 Y140.20 E515.65643
G1 X162.79 Y140.35 E515.66260
G1 X163.01 Y140.71 E515.67664
G1 X163.21 Y141.24 E515.69544
G1 X163.29 Y141.70 E515.71079
G0 F12000 X162.32 Y141.54
;TYPE:FILL
G1 F2400 X142.65 Y161.22 E516.63374
G0 F12000 X142.65 Y161.78
G1 F2400 X162.35 Y142.07 E517.55838
G0 F12000 X162.35 Y142.64
G1 F2400 X142.65 Y162.34 E518.48302
G0 F12000 X142.65 Y162.91
G1 F2400 X162.35 Y143.20 E519.40766
G0 F12000 X162.35 Y143.76
G1 F2400 X142.68 Y163.44 E520.33070
G0 F12000 X142.83 Y163.85
G1 F2400 X162.35 Y144.33 E521.24687
G0 F12000 X162.35 Y144.89
G1 F2400 X143.06 Y164.19 E522.15232
G0 F12000 X143.35 Y164.46
G1 F2400 X162.35 Y145.46 E523.04412
G0 F12000 X162.35 Y146.02
G1 F2400 X143.72 Y164.66 E523.91865
G0 F12000 X144.16 Y164.77
G1 F2400 X162.35 Y146.58 E524.77216
G0 F12000 X162.35 Y147.15
G1 F2400 X144.72 Y164.79 E525.59979
G0 F12000 X145.28 Y164.79
G1 F2400 X162.35 Y147.71 E526.40094
G0 F12000 X162.35 Y148.28
G1 F2400 X145.84 Y164.79 E527.17558
G0 F12000 X146.41 Y164.79
G1 F2400 X162.35 Y148.84 E527.92375
G0 F12000 X162.36 Y149.40
G1 F2400 X146.97 Y164.79 E528.64549
G0 F12000 X147.54 Y164.79
G1 F2400 X162.36 Y149.97 E529.34074
G0 F12000 X162.36 Y150.53
G1 F2400 X148.10 Y164.79 E530.00953
G0 F12000 X148.67 Y164.78
G1 F2400 X162.36 Y151.09 E530.65186
G0 F12000 X162.36 Y151.66
G1 F2400 X149.23 Y164.78 E531.26767
G0 F12000 X149.80 Y164.78
G1 F2400 X162.36 Y152.22 E531.85698
G0 F12000 X162.36 Y152.79
G1 F2400 X150.36 Y164.78 E532.41985
G0 F12000 X150.93 Y164.78
G1 F2400 X162.36 Y153.35 E532.95623
G0 F12000 X162.36 Y153.92
G1 F2400 X151.49 Y164.78 E533.46615
G0 F12000 X152.06 Y164.78
G1 F2400 X162.36 Y154.48 E533.94956
G0 F12000 X162.36 Y155.04
G1 F2400 X152.62 Y164.78 E534.40651
