;-- START GCODE --
;Sliced for Type A Machines Series 1
;Sliced at: Thu 13-10-2016 20:59:54
;Basic settings: Layer height: 0.2 Walls: 1.5 Fill: 20
;Print Speed: 100 Support: 0
;Retraction Speed: 40 Retraction Distance: 1.2
;Print time: #P_TIME#
;Filament used: #F_AMNT#m #F_WGHT#g
;Filament cost: #F_COST#
M106 S255	 ;start with the fan on
G21        ;metric values
G90        ;absolute positioning
M106 S255    ;start with the fan on
G28     ;move to endstops
G29		;allows for auto-levelling
G1 X150 Y5  Z15.0 F6000 ;center and move the platform down 15mm
M109 S220 ;Heat To temp
G92 E0                  ;zero the extruded length
G1 F200 E30              ;extrude 30mm of feed stock
G92 E0                  ;zero the extruded length again
G1 X175 Y25  Z0 F6000 ;remove bugger
G1 X220 F6000 ;remove bugger
G1 X150 Y150  Z15 F6000 ;recenter and begin
G1 F6000

;Layer count: 55
;LAYER:0
M106 S255
G0 F6000 X105.33 Y137.25 Z0.30
;TYPE:SKIRT
G1 F2700 X199.67 Y137.25 E5.88318
G1 X199.67 Y167.75 E7.78524
G1 X105.33 Y167.75 E13.66842
G1 X105.33 Y137.25 E15.57048
G0 F6000 X105.83 Y137.75
G1 F2700 X199.17 Y137.75 E21.39130
G1 X199.17 Y167.25 E23.23100
G1 X105.83 Y167.25 E29.05181
G1 X105.83 Y137.75 E30.89151
G0 F6000 X106.33 Y138.25
G1 F2700 X198.67 Y138.25 E36.64997
G1 X198.67 Y166.75 E38.42730
G1 X106.33 Y166.75 E44.18576
G1 X106.33 Y138.25 E45.96310
G0 F6000 X106.83 Y138.75
G1 F2700 X198.17 Y138.75 E51.65918
G1 X198.17 Y166.25 E53.37416
G1 X106.83 Y166.25 E59.07025
G1 X106.83 Y138.75 E60.78523
G0 F6000 X107.33 Y139.25
G1 F2700 X197.67 Y139.25 E66.41895
G1 X197.67 Y165.75 E68.07156
G1 X107.33 Y165.75 E73.70529
G1 X107.33 Y139.25 E75.35790
G0 F6000 X107.83 Y139.75
G1 F2700 X197.17 Y139.75 E80.92927
G1 X197.17 Y165.25 E82.51952
G1 X107.83 Y165.25 E88.09088
G1 X107.83 Y139.75 E89.68113
G0 F6000 X108.33 Y140.25
G1 F2700 X196.67 Y140.25 E95.19013
G1 X196.67 Y164.75 E96.71802
G1 X108.33 Y164.75 E102.22702
G1 X108.33 Y140.25 E103.75491
G0 F6000 X108.83 Y140.75
G1 F2700 X196.17 Y140.75 E109.20155
G1 X196.17 Y164.25 E110.66707
G1 X108.83 Y164.25 E116.11371
G1 X108.83 Y140.75 E117.57923
G0 F6000 X109.33 Y141.25
G1 F2700 X195.67 Y141.25 E122.96351
G1 X195.67 Y163.75 E124.36667
G1 X109.33 Y163.75 E129.75095
G1 X109.33 Y141.25 E131.15411
G0 F6000 X109.83 Y141.75
G1 F2700 X195.17 Y141.75 E136.47602
G1 X195.17 Y163.25 E137.81682
G1 X109.83 Y163.25 E143.13873
G1 X109.83 Y141.75 E144.47953
G0 F6000 X110.33 Y142.25
G1 F2700 X194.67 Y142.25 E149.73908
G1 X194.67 Y162.75 E151.01752
G1 X110.33 Y162.75 E156.27707
G1 X110.33 Y142.25 E157.55550
G0 F6000 X110.83 Y142.75
G1 F2700 X194.17 Y142.75 E162.75269
G1 X194.17 Y162.25 E163.96877
G1 X110.83 Y162.25 E169.16595
G1 X110.83 Y142.75 E170.38203
G0 F6000 X111.33 Y143.25
G1 F2700 X193.67 Y143.25 E175.51685
G1 X193.67 Y161.75 E176.67056
G1 X111.33 Y161.75 E181.80539
G1 X111.33 Y143.25 E182.95910
G0 F6000 X111.83 Y143.75
G1 F2700 X193.17 Y143.75 E188.03156
G1 X193.17 Y161.25 E189.12291
G1 X111.83 Y161.25 E194.19537
G1 X111.83 Y143.75 E195.28672
G0 F6000 X112.33 Y144.25
G1 F2700 X192.67 Y144.25 E200.29682
G1 X192.67 Y160.75 E201.32580
G1 X112.33 Y160.75 E206.33590
G1 X112.33 Y144.25 E207.36489
G0 F6000 X113.18 Y145.01
G0 X113.83 Y145.75
;TYPE:WALL-INNER
G1 F2700 X191.17 Y145.75 E212.18790
G1 X191.17 Y159.25 E213.02979
G1 X113.83 Y159.25 E217.85280
G1 X113.83 Y145.75 E218.69470
G0 F6000 X113.33 Y145.25
G1 F2700 X191.67 Y145.25 E223.58007
G1 X191.67 Y159.75 E224.48433
G1 X113.33 Y159.75 E229.36971
G1 X113.33 Y145.25 E230.27397
G0 F6000 X112.83 Y144.75
;TYPE:WALL-OUTER
G1 F2700 X192.17 Y144.75 E235.22170
G1 X192.17 Y160.25 E236.18833
G1 X112.83 Y160.25 E241.13606
G1 X112.83 Y144.75 E242.10268
G0 F6000 X113.18 Y145.01
G0 X114.00 Y146.18
;TYPE:FILL
G1 F2700 X126.90 Y159.07 E243.23999
G0 F6000 X126.19 Y159.07
G1 F2700 X114.00 Y146.88 E244.31495
G0 F6000 X114.00 Y147.59
G1 F2700 X125.49 Y159.07 E245.32755
G0 F6000 X124.78 Y159.07
G1 F2700 X114.00 Y148.30 E246.27776
G0 F6000 X114.00 Y149.01
G1 F2700 X124.07 Y159.07 E247.16561
G0 F6000 X123.36 Y159.07
G1 F2700 X114.00 Y149.71 E247.99111
G0 F6000 X114.00 Y150.42
G1 F2700 X122.66 Y159.07 E248.75425
G0 F6000 X121.95 Y159.07
G1 F2700 X114.00 Y151.13 E249.45504
G0 F6000 X114.00 Y151.84
G1 F2700 X121.24 Y159.07 E250.09348
G0 F6000 X120.54 Y159.07
G1 F2700 X114.00 Y152.54 E250.66952
G0 F6000 X114.00 Y153.25
G1 F2700 X119.83 Y159.07 E251.18321
G0 F6000 X119.12 Y159.07
G1 F2700 X114.00 Y153.96 E251.63454
G0 F6000 X114.00 Y154.66
G1 F2700 X118.42 Y159.07 E252.02348
G0 F6000 X117.71 Y159.07
G1 F2700 X114.00 Y155.37 E252.35006
G0 F6000 X114.00 Y156.08
G1 F2700 X117.00 Y159.07 E252.61429
G0 F6000 X116.29 Y159.07
G1 F2700 X114.00 Y156.78 E252.81617
G0 F6000 X114.00 Y157.49
G1 F2700 X115.59 Y159.07 E252.95569
G0 F6000 X114.88 Y159.07
G1 F2700 X114.00 Y158.20 E253.03286
G0 F6000 X114.00 Y158.91
G1 F2700 X114.17 Y159.07 E253.04764
G0 F6000 X114.46 Y145.92
G1 F2700 X127.61 Y159.07 E254.20739
G0 F6000 X128.31 Y159.07
G1 F2700 X115.17 Y145.92 E255.36714
G0 F6000 X115.87 Y145.92
G1 F2700 X129.02 Y159.07 E256.52690
G0 F6000 X129.73 Y159.07
G1 F2700 X116.58 Y145.92 E257.68665
G0 F6000 X117.29 Y145.92
G1 F2700 X130.44 Y159.07 E258.84636
G0 F6000 X131.14 Y159.07
G1 F2700 X117.99 Y145.92 E260.00607
G0 F6000 X118.70 Y145.92
G1 F2700 X131.85 Y159.07 E261.16578
G0 F6000 X132.56 Y159.07
G1 F2700 X119.41 Y145.92 E262.32549
G0 F6000 X120.11 Y145.92
G1 F2700 X133.26 Y159.07 E263.48520
G0 F6000 X133.97 Y159.07
G1 F2700 X120.82 Y145.92 E264.64492
G0 F6000 X121.53 Y145.92
G1 F2700 X134.68 Y159.07 E265.80467
G0 F6000 X135.39 Y159.07
G1 F2700 X122.24 Y145.92 E266.96442
G0 F6000 X122.94 Y145.92
G1 F2700 X136.09 Y159.07 E268.12418
G0 F6000 X136.80 Y159.07
G1 F2700 X123.65 Y145.92 E269.28389
G0 F6000 X124.36 Y145.92
G1 F2700 X137.51 Y159.07 E270.44360
G0 F6000 X138.21 Y159.07
G1 F2700 X125.06 Y145.92 E271.60331
G0 F6000 X125.77 Y145.92
G1 F2700 X138.92 Y159.07 E272.76302
G0 F6000 X139.63 Y159.07
G1 F2700 X126.48 Y145.92 E273.92273
G0 F6000 X127.19 Y145.92
G1 F2700 X140.34 Y159.07 E275.08244
G0 F6000 X141.04 Y159.07
G1 F2700 X127.89 Y145.92 E276.24219
G0 F6000 X128.60 Y145.92
G1 F2700 X141.75 Y159.07 E277.40195
G0 F6000 X142.46 Y159.07
G1 F2700 X129.31 Y145.92 E278.56170
G0 F6000 X130.01 Y145.92
G1 F2700 X143.16 Y159.07 E279.72141
G0 F6000 X143.87 Y159.07
G1 F2700 X130.72 Y145.92 E280.88112
G0 F6000 X131.43 Y145.92
G1 F2700 X144.58 Y159.07 E282.04083
G0 F6000 X145.28 Y159.07
G1 F2700 X132.14 Y145.92 E283.20054
G0 F6000 X132.84 Y145.92
G1 F2700 X145.99 Y159.07 E284.36025
G0 F6000 X146.70 Y159.07
G1 F2700 X133.55 Y145.92 E285.51997
G0 F6000 X134.26 Y145.92
G1 F2700 X147.41 Y159.07 E286.67972
G0 F6000 X148.11 Y159.07
G1 F2700 X134.96 Y145.92 E287.83947
G0 F6000 X135.67 Y145.92
G1 F2700 X148.82 Y159.07 E288.99923
G0 F6000 X149.53 Y159.07
G1 F2700 X136.38 Y145.92 E290.15898
G0 F6000 X137.09 Y145.92
G1 F2700 X150.24 Y159.07 E291.31869
G0 F6000 X150.94 Y159.07
G1 F2700 X137.79 Y145.92 E292.47840
G0 F6000 X138.50 Y145.92
G1 F2700 X151.65 Y159.07 E293.63811
G0 F6000 X152.36 Y159.07
G1 F2700 X139.21 Y145.92 E294.79782
G0 F6000 X139.91 Y145.92
G1 F2700 X153.06 Y159.07 E295.95753
G0 F6000 X153.77 Y159.07
G1 F2700 X140.62 Y145.92 E297.11724
G0 F6000 X141.33 Y145.92
G1 F2700 X154.48 Y159.07 E298.27700
G0 F6000 X155.19 Y159.07
G1 F2700 X142.03 Y145.92 E299.43675
G0 F6000 X142.74 Y145.92
G1 F2700 X155.89 Y159.07 E300.59651
G0 F6000 X156.60 Y159.07
G1 F2700 X143.45 Y145.92 E301.75622
G0 F6000 X144.16 Y145.92
G1 F2700 X157.31 Y159.07 E302.91593
G0 F6000 X158.01 Y159.07
G1 F2700 X144.86 Y145.92 E304.07564
G0 F6000 X145.57 Y145.92
G1 F2700 X158.72 Y159.07 E305.23535
G0 F6000 X159.43 Y159.07
G1 F2700 X146.28 Y145.92 E306.39506
G0 F6000 X146.99 Y145.92
G1 F2700 X160.13 Y159.07 E307.55477
G0 F6000 X160.84 Y159.07
G1 F2700 X147.69 Y145.92 E308.71452
G0 F6000 X148.40 Y145.92
G1 F2700 X161.55 Y159.07 E309.87428
G0 F6000 X162.26 Y159.07
G1 F2700 X149.11 Y145.92 E311.03403
G0 F6000 X149.81 Y145.92
G1 F2700 X162.96 Y159.07 E312.19374
G0 F6000 X163.67 Y159.07
G1 F2700 X150.52 Y145.92 E313.35345
G0 F6000 X151.23 Y145.92
G1 F2700 X164.38 Y159.07 E314.51316
G0 F6000 X165.08 Y159.07
G1 F2700 X151.94 Y145.92 E315.67287
G0 F6000 X152.64 Y145.92
G1 F2700 X165.79 Y159.07 E316.83258
G0 F6000 X166.50 Y159.07
G1 F2700 X153.35 Y145.92 E317.99229
G0 F6000 X154.06 Y145.92
G1 F2700 X167.21 Y159.07 E319.15205
G0 F6000 X167.91 Y159.07
G1 F2700 X154.76 Y145.92 E320.31180
G0 F6000 X155.47 Y145.92
G1 F2700 X168.62 Y159.07 E321.47156
G0 F6000 X169.33 Y159.07
G1 F2700 X156.18 Y145.92 E322.63131
G0 F6000 X156.88 Y145.92
G1 F2700 X170.03 Y159.07 E323.79102
G0 F6000 X170.74 Y159.07
G1 F2700 X157.59 Y145.92 E324.95073
G0 F6000 X158.30 Y145.92
G1 F2700 X171.45 Y159.07 E326.11044
G0 F6000 X172.16 Y159.07
G1 F2700 X159.01 Y145.92 E327.27015
G0 F6000 X159.71 Y145.92
G1 F2700 X172.86 Y159.07 E328.42986
G0 F6000 X173.57 Y159.07
G1 F2700 X160.42 Y145.92 E329.58957
G0 F6000 X161.13 Y145.92
G1 F2700 X174.28 Y159.07 E330.74933
G0 F6000 X174.98 Y159.07
G1 F2700 X161.83 Y145.92 E331.90908
G0 F6000 X162.54 Y145.92
G1 F2700 X175.69 Y159.07 E333.06884
G0 F6000 X176.40 Y159.07
G1 F2700 X163.25 Y145.92 E334.22855
G0 F6000 X163.96 Y145.92
G1 F2700 X177.10 Y159.07 E335.38826
G0 F6000 X177.81 Y159.07
G1 F2700 X164.66 Y145.92 E336.54797
G0 F6000 X165.37 Y145.92
G1 F2700 X178.52 Y159.07 E337.70768
G0 F6000 X179.23 Y159.07
G1 F2700 X166.08 Y145.92 E338.86739
G0 F6000 X166.78 Y145.92
G1 F2700 X179.93 Y159.07 E340.02710
G0 F6000 X180.64 Y159.07
G1 F2700 X167.49 Y145.92 E341.18685
G0 F6000 X168.20 Y145.92
G1 F2700 X181.35 Y159.07 E342.34661
G0 F6000 X182.06 Y159.07
G1 F2700 X168.91 Y145.92 E343.50636
G0 F6000 X169.61 Y145.92
G1 F2700 X182.76 Y159.07 E344.66612
G0 F6000 X183.47 Y159.07
G1 F2700 X170.32 Y145.92 E345.82583
G0 F6000 X171.03 Y145.92
G1 F2700 X184.18 Y159.07 E346.98554
G0 F6000 X184.88 Y159.07
G1 F2700 X171.73 Y145.92 E348.14525
G0 F6000 X172.44 Y145.92
G1 F2700 X185.59 Y159.07 E349.30496
G0 F6000 X186.30 Y159.07
G1 F2700 X173.15 Y145.92 E350.46467
G0 F6000 X173.85 Y145.92
G1 F2700 X187.00 Y159.07 E351.62438
G0 F6000 X187.71 Y159.07
G1 F2700 X174.56 Y145.92 E352.78413
G0 F6000 X175.27 Y145.92
G1 F2700 X188.42 Y159.07 E353.94389
G0 F6000 X189.13 Y159.07
G1 F2700 X175.98 Y145.92 E355.10364
G0 F6000 X176.68 Y145.92
G1 F2700 X189.83 Y159.07 E356.26335
G0 F6000 X190.54 Y159.07
G1 F2700 X177.39 Y145.92 E357.42306
G0 F6000 X178.10 Y145.92
G1 F2700 X190.99 Y158.82 E358.56037
G0 F6000 X190.99 Y158.11
G1 F2700 X178.81 Y145.92 E359.63533
G0 F6000 X179.51 Y145.92
G1 F2700 X190.99 Y157.41 E360.64793
G0 F6000 X190.99 Y156.70
G1 F2700 X180.22 Y145.92 E361.59818
G0 F6000 X180.93 Y145.92
G1 F2700 X190.99 Y155.99 E362.48603
G0 F6000 X190.99 Y155.28
G1 F2700 X181.63 Y145.92 E363.31153
G0 F6000 X182.34 Y145.92
G1 F2700 X190.99 Y154.58 E364.07467
G0 F6000 X190.99 Y153.87
G1 F2700 X183.05 Y145.92 E364.77542
G0 F6000 X183.75 Y145.92
G1 F2700 X190.99 Y153.16 E365.41381
G0 F6000 X190.99 Y152.46
G1 F2700 X184.46 Y145.92 E365.98986
G0 F6000 X185.17 Y145.92
G1 F2700 X190.99 Y151.75 E366.50354
G0 F6000 X190.99 Y151.04
G1 F2700 X185.88 Y145.92 E366.95488
G0 F6000 X186.58 Y145.92
G1 F2700 X190.99 Y150.34 E367.34386
G0 F6000 X190.99 Y149.63
G1 F2700 X187.29 Y145.92 E367.67049
G0 F6000 X188.00 Y145.92
G1 F2700 X190.99 Y148.92 E367.93472
G0 F6000 X190.99 Y148.21
G1 F2700 X188.70 Y145.92 E368.13659
G0 F6000 X189.41 Y145.92
G1 F2700 X190.99 Y147.51 E368.27612
G0 F6000 X190.99 Y146.80
G1 F2700 X190.12 Y145.92 E368.35324
G0 F6000 X190.83 Y145.92
G1 F2700 X190.99 Y146.09 E368.36801
;LAYER:1
G0 F6000 X191.17 Y145.75 Z0.50
;TYPE:WALL-INNER
G1 F3480 X191.17 Y159.25 E368.92928
G1 X113.83 Y159.25 E372.14462
G1 X113.83 Y145.75 E372.70588
G1 X191.17 Y145.75 E375.92122
G0 F6000 X191.67 Y145.25
G1 F3480 X191.67 Y159.75 E376.52406
G1 X113.33 Y159.75 E379.78098
G1 X113.33 Y145.25 E380.38382
G1 X191.67 Y145.25 E383.64073
G0 F6000 X192.17 Y144.75
;TYPE:WALL-OUTER
G1 F3480 X192.17 Y160.25 E384.28515
G1 X112.83 Y160.25 E387.58364
G1 X112.83 Y144.75 E388.22806
G1 X192.17 Y144.75 E391.52655
G0 F6000 X191.82 Y145.01
G0 X190.99 Y145.94
;TYPE:FILL
G1 F3480 X177.86 Y159.07 E392.29863
G0 F6000 X178.57 Y159.07
G1 F3480 X190.99 Y146.65 E393.02914
G0 F6000 X190.99 Y147.36
G1 F3480 X179.28 Y159.07 E393.71809
G0 F6000 X179.98 Y159.07
G1 F3480 X190.99 Y148.06 E394.36546
G0 F6000 X190.99 Y148.77
G1 F3480 X180.69 Y159.07 E394.97127
G0 F6000 X181.40 Y159.07
G1 F3480 X190.99 Y149.48 E395.53550
G0 F6000 X190.99 Y150.19
G1 F3480 X182.10 Y159.07 E396.05814
G0 F6000 X182.81 Y159.07
G1 F3480 X190.99 Y150.89 E396.53918
G0 F6000 X190.99 Y151.60
G1 F3480 X183.52 Y159.07 E396.97866
G0 F6000 X184.22 Y159.07
G1 F3480 X190.99 Y152.31 E397.37656
G0 F6000 X190.99 Y153.01
G1 F3480 X184.93 Y159.07 E397.73289
G0 F6000 X185.64 Y159.07
G1 F3480 X190.99 Y153.72 E398.04766
G0 F6000 X190.99 Y154.43
G1 F3480 X186.35 Y159.07 E398.32086
G0 F6000 X187.05 Y159.07
G1 F3480 X190.99 Y155.13 E398.55248
G0 F6000 X190.99 Y155.84
G1 F3480 X187.76 Y159.07 E398.74254
G0 F6000 X188.47 Y159.07
G1 F3480 X190.99 Y156.55 E398.89103
G0 F6000 X190.99 Y157.26
G1 F3480 X189.18 Y159.07 E398.99789
G0 F6000 X189.88 Y159.07
G1 F3480 X190.99 Y157.96 E399.06319
G0 F6000 X190.99 Y158.67
G1 F3480 X190.59 Y159.07 E399.08691
G0 F6000 X190.31 Y145.92
G1 F3480 X177.15 Y159.07 E399.86011
G0 F6000 X176.45 Y159.07
G1 F3480 X189.60 Y145.92 E400.63328
G0 F6000 X188.89 Y145.92
G1 F3480 X175.74 Y159.07 E401.40645
G0 F6000 X175.03 Y159.07
G1 F3480 X188.18 Y145.92 E402.17965
G0 F6000 X187.48 Y145.92
G1 F3480 X174.32 Y159.07 E402.95285
G0 F6000 X173.62 Y159.07
G1 F3480 X186.77 Y145.92 E403.72605
G0 F6000 X186.06 Y145.92
G1 F3480 X172.91 Y159.07 E404.49924
G0 F6000 X172.20 Y159.07
G1 F3480 X185.35 Y145.92 E405.27244
G0 F6000 X184.65 Y145.92
G1 F3480 X171.50 Y159.07 E406.04564
G0 F6000 X170.79 Y159.07
G1 F3480 X183.94 Y145.92 E406.81884
G0 F6000 X183.23 Y145.92
G1 F3480 X170.08 Y159.07 E407.59201
G0 F6000 X169.38 Y159.07
G1 F3480 X182.53 Y145.92 E408.36518
G0 F6000 X181.82 Y145.92
G1 F3480 X168.67 Y159.07 E409.13835
G0 F6000 X167.96 Y159.07
G1 F3480 X181.11 Y145.92 E409.91155
G0 F6000 X180.41 Y145.92
G1 F3480 X167.25 Y159.07 E410.68475
G0 F6000 X166.55 Y159.07
G1 F3480 X179.70 Y145.92 E411.45795
G0 F6000 X178.99 Y145.92
G1 F3480 X165.84 Y159.07 E412.23115
G0 F6000 X165.13 Y159.07
G1 F3480 X178.28 Y145.92 E413.00435
G0 F6000 X177.58 Y145.92
G1 F3480 X164.43 Y159.07 E413.77754
G0 F6000 X163.72 Y159.07
G1 F3480 X176.87 Y145.92 E414.55074
G0 F6000 X176.16 Y145.92
G1 F3480 X163.01 Y159.07 E415.32391
G0 F6000 X162.31 Y159.07
G1 F3480 X175.46 Y145.92 E416.09708
G0 F6000 X174.75 Y145.92
G1 F3480 X161.60 Y159.07 E416.87028
G0 F6000 X160.89 Y159.07
G1 F3480 X174.04 Y145.92 E417.64348
G0 F6000 X173.33 Y145.92
G1 F3480 X160.18 Y159.07 E418.41668
G0 F6000 X159.48 Y159.07
G1 F3480 X172.63 Y145.92 E419.18988
G0 F6000 X171.92 Y145.92
G1 F3480 X158.77 Y159.07 E419.96308
G0 F6000 X158.06 Y159.07
G1 F3480 X171.21 Y145.92 E420.73628
G0 F6000 X170.51 Y145.92
G1 F3480 X157.35 Y159.07 E421.50948
G0 F6000 X156.65 Y159.07
G1 F3480 X169.80 Y145.92 E422.28265
G0 F6000 X169.09 Y145.92
G1 F3480 X155.94 Y159.07 E423.05582
G0 F6000 X155.23 Y159.07
G1 F3480 X168.38 Y145.92 E423.82901
G0 F6000 X167.68 Y145.92
G1 F3480 X154.53 Y159.07 E424.60221
G0 F6000 X153.82 Y159.07
G1 F3480 X166.97 Y145.92 E425.37541
G0 F6000 X166.26 Y145.92
G1 F3480 X153.11 Y159.07 E426.14861
G0 F6000 X152.41 Y159.07
G1 F3480 X165.56 Y145.92 E426.92181
G0 F6000 X164.85 Y145.92
G1 F3480 X151.70 Y159.07 E427.69501
G0 F6000 X150.99 Y159.07
G1 F3480 X164.14 Y145.92 E428.46821
G0 F6000 X163.44 Y145.92
G1 F3480 X150.28 Y159.07 E429.24141
G0 F6000 X149.58 Y159.07
G1 F3480 X162.73 Y145.92 E430.01458
G0 F6000 X162.02 Y145.92
G1 F3480 X148.87 Y159.07 E430.78775
G0 F6000 X148.16 Y159.07
G1 F3480 X161.31 Y145.92 E431.56095
G0 F6000 X160.61 Y145.92
G1 F3480 X147.46 Y159.07 E432.33414
G0 F6000 X146.75 Y159.07
G1 F3480 X159.90 Y145.92 E433.10734
G0 F6000 X159.19 Y145.92
G1 F3480 X146.04 Y159.07 E433.88054
G0 F6000 X145.33 Y159.07
G1 F3480 X158.49 Y145.92 E434.65374
G0 F6000 X157.78 Y145.92
G1 F3480 X144.63 Y159.07 E435.42694
G0 F6000 X143.92 Y159.07
G1 F3480 X157.07 Y145.92 E436.20014
G0 F6000 X156.36 Y145.92
G1 F3480 X143.21 Y159.07 E436.97331
G0 F6000 X142.51 Y159.07
G1 F3480 X155.66 Y145.92 E437.74648
G0 F6000 X154.95 Y145.92
G1 F3480 X141.80 Y159.07 E438.51968
G0 F6000 X141.09 Y159.07
G1 F3480 X154.24 Y145.92 E439.29288
G0 F6000 X153.53 Y145.92
G1 F3480 X140.38 Y159.07 E440.06608
G0 F6000 X139.68 Y159.07
G1 F3480 X152.83 Y145.92 E440.83927
G0 F6000 X152.12 Y145.92
G1 F3480 X138.97 Y159.07 E441.61247
G0 F6000 X138.26 Y159.07
G1 F3480 X151.41 Y145.92 E442.38567
G0 F6000 X150.71 Y145.92
G1 F3480 X137.56 Y159.07 E443.15887
G0 F6000 X136.85 Y159.07
G1 F3480 X150.00 Y145.92 E443.93204
G0 F6000 X149.29 Y145.92
G1 F3480 X136.14 Y159.07 E444.70521
G0 F6000 X135.43 Y159.07
G1 F3480 X148.59 Y145.92 E445.47841
G0 F6000 X147.88 Y145.92
G1 F3480 X134.73 Y159.07 E446.25161
G0 F6000 X134.02 Y159.07
G1 F3480 X147.17 Y145.92 E447.02481
G0 F6000 X146.46 Y145.92
G1 F3480 X133.31 Y159.07 E447.79801
G0 F6000 X132.61 Y159.07
G1 F3480 X145.76 Y145.92 E448.57121
G0 F6000 X145.05 Y145.92
G1 F3480 X131.90 Y159.07 E449.34440
G0 F6000 X131.19 Y159.07
G1 F3480 X144.34 Y145.92 E450.11760
G0 F6000 X143.64 Y145.92
G1 F3480 X130.49 Y159.07 E450.89080
G0 F6000 X129.78 Y159.07
G1 F3480 X142.93 Y145.92 E451.66397
G0 F6000 X142.22 Y145.92
G1 F3480 X129.07 Y159.07 E452.43714
G0 F6000 X128.36 Y159.07
G1 F3480 X141.51 Y145.92 E453.21034
G0 F6000 X140.81 Y145.92
G1 F3480 X127.66 Y159.07 E453.98354
G0 F6000 X126.95 Y159.07
G1 F3480 X140.10 Y145.92 E454.75674
G0 F6000 X139.39 Y145.92
G1 F3480 X126.24 Y159.07 E455.52994
G0 F6000 X125.53 Y159.07
G1 F3480 X138.69 Y145.92 E456.30314
G0 F6000 X137.98 Y145.92
G1 F3480 X124.83 Y159.07 E457.07634
G0 F6000 X124.12 Y159.07
G1 F3480 X137.27 Y145.92 E457.84954
G0 F6000 X136.56 Y145.92
G1 F3480 X123.41 Y159.07 E458.62270
G0 F6000 X122.71 Y159.07
G1 F3480 X135.86 Y145.92 E459.39587
G0 F6000 X135.15 Y145.92
G1 F3480 X122.00 Y159.07 E460.16907
G0 F6000 X121.29 Y159.07
G1 F3480 X134.44 Y145.92 E460.94227
G0 F6000 X133.74 Y145.92
G1 F3480 X120.58 Y159.07 E461.71547
G0 F6000 X119.88 Y159.07
G1 F3480 X133.03 Y145.92 E462.48867
G0 F6000 X132.32 Y145.92
G1 F3480 X119.17 Y159.07 E463.26187
G0 F6000 X118.46 Y159.07
G1 F3480 X131.62 Y145.92 E464.03507
G0 F6000 X130.91 Y145.92
G1 F3480 X117.76 Y159.07 E464.80827
G0 F6000 X117.05 Y159.07
G1 F3480 X130.20 Y145.92 E465.58144
G0 F6000 X129.49 Y145.92
G1 F3480 X116.34 Y159.07 E466.35461
G0 F6000 X115.64 Y159.07
G1 F3480 X128.79 Y145.92 E467.12778
G0 F6000 X128.08 Y145.92
G1 F3480 X114.93 Y159.07 E467.90098
G0 F6000 X114.22 Y159.07
G1 F3480 X127.37 Y145.92 E468.67417
G0 F6000 X126.67 Y145.92
G1 F3480 X114.01 Y158.58 E469.41847
G0 F6000 X114.01 Y157.88
G1 F3480 X125.96 Y145.92 E470.12121
G0 F6000 X125.25 Y145.92
G1 F3480 X114.01 Y157.17 E470.78237
G0 F6000 X114.01 Y156.46
G1 F3480 X124.54 Y145.92 E471.40196
G0 F6000 X123.84 Y145.92
G1 F3480 X114.01 Y155.75 E471.97999
G0 F6000 X114.01 Y155.05
G1 F3480 X123.13 Y145.92 E472.51642
G0 F6000 X122.42 Y145.92
G1 F3480 X114.01 Y154.34 E473.01124
G0 F6000 X114.01 Y153.63
G1 F3480 X121.72 Y145.92 E473.46450
G0 F6000 X121.01 Y145.92
G1 F3480 X114.01 Y152.93 E473.87619
G0 F6000 X114.01 Y152.22
G1 F3480 X120.30 Y145.92 E474.24632
G0 F6000 X119.59 Y145.92
G1 F3480 X114.01 Y151.51 E474.57487
G0 F6000 X114.01 Y150.81
G1 F3480 X118.89 Y145.92 E474.86185
G0 F6000 X118.18 Y145.92
G1 F3480 X114.01 Y150.10 E475.10727
G0 F6000 X114.01 Y149.39
G1 F3480 X117.47 Y145.92 E475.31112
G0 F6000 X116.77 Y145.92
G1 F3480 X114.01 Y148.68 E475.47336
G0 F6000 X114.01 Y147.98
G1 F3480 X116.06 Y145.92 E475.59401
G0 F6000 X115.35 Y145.92
G1 F3480 X114.01 Y147.27 E475.67309
G0 F6000 X114.01 Y146.56
G1 F3480 X114.64 Y145.92 E475.71061
;LAYER:2
G0 F6000 X113.83 Y145.75 Z0.70
;TYPE:WALL-INNER
G1 F4320 X191.17 Y145.75 E478.92595
G1 X191.17 Y159.25 E479.48721
G1 X113.83 Y159.25 E482.70255
G1 X113.83 Y145.75 E483.26382
G0 F6000 X113.33 Y145.25
G1 F4320 X191.67 Y145.25 E486.52073
G1 X191.67 Y159.75 E487.12357
G1 X113.33 Y159.75 E490.38049
G1 X113.33 Y145.25 E490.98333
G0 F6000 X112.83 Y144.75
;TYPE:WALL-OUTER
G1 F4320 X192.17 Y144.75 E494.28182
G1 X192.17 Y160.25 E494.92623
G1 X112.83 Y160.25 E498.22472
G1 X112.83 Y144.75 E498.86914
G0 F6000 X113.18 Y145.01
G0 X114.00 Y146.18
;TYPE:FILL
G1 F4320 X126.90 Y159.07 E499.62734
G0 F6000 X126.19 Y159.07
G1 F4320 X114.00 Y146.88 E500.34398
G0 F6000 X114.00 Y147.59
G1 F4320 X125.49 Y159.07 E501.01905
G0 F6000 X124.78 Y159.07
G1 F4320 X114.00 Y148.30 E501.65252
G0 F6000 X114.00 Y149.01
G1 F4320 X124.07 Y159.07 E502.24442
G0 F6000 X123.36 Y159.07
G1 F4320 X114.00 Y149.71 E502.79475
G0 F6000 X114.00 Y150.42
G1 F4320 X122.66 Y159.07 E503.30352
G0 F6000 X121.95 Y159.07
G1 F4320 X114.00 Y151.13 E503.77071
G0 F6000 X114.00 Y151.84
G1 F4320 X121.24 Y159.07 E504.19634
G0 F6000 X120.54 Y159.07
G1 F4320 X114.00 Y152.54 E504.58036
G0 F6000 X114.00 Y153.25
G1 F4320 X119.83 Y159.07 E504.92282
G0 F6000 X119.12 Y159.07
G1 F4320 X114.00 Y153.96 E505.22371
G0 F6000 X114.00 Y154.66
G1 F4320 X118.42 Y159.07 E505.48300
G0 F6000 X117.71 Y159.07
G1 F4320 X114.00 Y155.37 E505.70072
G0 F6000 X114.00 Y156.08
G1 F4320 X117.00 Y159.07 E505.87688
G0 F6000 X116.29 Y159.07
G1 F4320 X114.00 Y156.78 E506.01146
G0 F6000 X114.00 Y157.49
G1 F4320 X115.59 Y159.07 E506.10448
G0 F6000 X114.88 Y159.07
G1 F4320 X114.00 Y158.20 E506.15592
G0 F6000 X114.00 Y158.91
G1 F4320 X114.17 Y159.07 E506.16577
G0 F6000 X114.46 Y145.92
G1 F4320 X127.61 Y159.07 E506.93894
G0 F6000 X128.31 Y159.07
G1 F4320 X115.17 Y145.92 E507.71211
G0 F6000 X115.87 Y145.92
G1 F4320 X129.02 Y159.07 E508.48528
G0 F6000 X129.73 Y159.07
G1 F4320 X116.58 Y145.92 E509.25845
G0 F6000 X117.29 Y145.92
G1 F4320 X130.44 Y159.07 E510.03159
G0 F6000 X131.14 Y159.07
G1 F4320 X117.99 Y145.92 E510.80473
G0 F6000 X118.70 Y145.92
G1 F4320 X131.85 Y159.07 E511.57787
G0 F6000 X132.56 Y159.07
G1 F4320 X119.41 Y145.92 E512.35101
G0 F6000 X120.11 Y145.92
G1 F4320 X133.26 Y159.07 E513.12415
G0 F6000 X133.97 Y159.07
G1 F4320 X120.82 Y145.92 E513.89729
G0 F6000 X121.53 Y145.92
G1 F4320 X134.68 Y159.07 E514.67046
G0 F6000 X135.39 Y159.07
G1 F4320 X122.24 Y145.92 E515.44363
G0 F6000 X122.94 Y145.92
G1 F4320 X136.09 Y159.07 E516.21680
G0 F6000 X136.80 Y159.07
G1 F4320 X123.65 Y145.92 E516.98994
G0 F6000 X124.36 Y145.92
G1 F4320 X137.51 Y159.07 E517.76308
G0 F6000 X138.21 Y159.07
G1 F4320 X125.06 Y145.92 E518.53622
G0 F6000 X125.77 Y145.92
G1 F4320 X138.92 Y159.07 E519.30936
G0 F6000 X139.63 Y159.07
G1 F4320 X126.48 Y145.92 E520.08250
G0 F6000 X127.19 Y145.92
G1 F4320 X140.34 Y159.07 E520.85564
G0 F6000 X141.04 Y159.07
G1 F4320 X127.89 Y145.92 E521.62881
G0 F6000 X128.60 Y145.92
G1 F4320 X141.75 Y159.07 E522.40198
G0 F6000 X142.46 Y159.07
G1 F4320 X129.31 Y145.92 E523.17515
G0 F6000 X130.01 Y145.92
G1 F4320 X143.16 Y159.07 E523.94829
G0 F6000 X143.87 Y159.07
G1 F4320 X130.72 Y145.92 E524.72143
G0 F6000 X131.43 Y145.92
G1 F4320 X144.58 Y159.07 E525.49457
G0 F6000 X145.28 Y159.07
G1 F4320 X132.14 Y145.92 E526.26771
G0 F6000 X132.84 Y145.92
G1 F4320 X145.99 Y159.07 E527.04085
G0 F6000 X146.70 Y159.07
G1 F4320 X133.55 Y145.92 E527.81399
G0 F6000 X134.26 Y145.92
G1 F4320 X147.41 Y159.07 E528.58716
G0 F6000 X148.11 Y159.07
G1 F4320 X134.96 Y145.92 E529.36033
G0 F6000 X135.67 Y145.92
G1 F4320 X148.82 Y159.07 E530.13350
G0 F6000 X149.53 Y159.07
G1 F4320 X136.38 Y145.92 E530.90667
G0 F6000 X137.09 Y145.92
G1 F4320 X150.24 Y159.07 E531.67981
G0 F6000 X150.94 Y159.07
G1 F4320 X137.79 Y145.92 E532.45295
G0 F6000 X138.50 Y145.92
G1 F4320 X151.65 Y159.07 E533.22609
G0 F6000 X152.36 Y159.07
G1 F4320 X139.21 Y145.92 E533.99923
G0 F6000 X139.91 Y145.92
G1 F4320 X153.06 Y159.07 E534.77237
G0 F6000 X153.77 Y159.07
G1 F4320 X140.62 Y145.92 E535.54551
G0 F6000 X141.33 Y145.92
G1 F4320 X154.48 Y159.07 E536.31868
G0 F6000 X155.19 Y159.07
G1 F4320 X142.03 Y145.92 E537.09185
G0 F6000 X142.74 Y145.92
G1 F4320 X155.89 Y159.07 E537.86502
G0 F6000 X156.60 Y159.07
G1 F4320 X143.45 Y145.92 E538.63816
G0 F6000 X144.16 Y145.92
G1 F4320 X157.31 Y159.07 E539.41130
G0 F6000 X158.01 Y159.07
G1 F4320 X144.86 Y145.92 E540.18444
G0 F6000 X145.57 Y145.92
G1 F4320 X158.72 Y159.07 E540.95758
G0 F6000 X159.43 Y159.07
G1 F4320 X146.28 Y145.92 E541.73072
G0 F6000 X146.99 Y145.92
G1 F4320 X160.13 Y159.07 E542.50386
G0 F6000 X160.84 Y159.07
G1 F4320 X147.69 Y145.92 E543.27703
G0 F6000 X148.40 Y145.92
G1 F4320 X161.55 Y159.07 E544.05020
G0 F6000 X162.26 Y159.07
G1 F4320 X149.11 Y145.92 E544.82337
G0 F6000 X149.81 Y145.92
G1 F4320 X162.96 Y159.07 E545.59651
G0 F6000 X163.67 Y159.07
G1 F4320 X150.52 Y145.92 E546.36965
G0 F6000 X151.23 Y145.92
G1 F4320 X164.38 Y159.07 E547.14279
G0 F6000 X165.08 Y159.07
G1 F4320 X151.94 Y145.92 E547.91593
G0 F6000 X152.64 Y145.92
G1 F4320 X165.79 Y159.07 E548.68907
G0 F6000 X166.50 Y159.07
G1 F4320 X153.35 Y145.92 E549.46221
G0 F6000 X154.06 Y145.92
G1 F4320 X167.21 Y159.07 E550.23538
G0 F6000 X167.91 Y159.07
G1 F4320 X154.76 Y145.92 E551.00855
G0 F6000 X155.47 Y145.92
G1 F4320 X168.62 Y159.07 E551.78172
G0 F6000 X169.33 Y159.07
G1 F4320 X156.18 Y145.92 E552.55489
G0 F6000 X156.88 Y145.92
G1 F4320 X170.03 Y159.07 E553.32803
G0 F6000 X170.74 Y159.07
G1 F4320 X157.59 Y145.92 E554.10117
G0 F6000 X158.30 Y145.92
G1 F4320 X171.45 Y159.07 E554.87431
G0 F6000 X172.16 Y159.07
G1 F4320 X159.01 Y145.92 E555.64745
G0 F6000 X159.71 Y145.92
G1 F4320 X172.86 Y159.07 E556.42059
G0 F6000 X173.57 Y159.07
G1 F4320 X160.42 Y145.92 E557.19373
G0 F6000 X161.13 Y145.92
G1 F4320 X174.28 Y159.07 E557.96690
G0 F6000 X174.98 Y159.07
G1 F4320 X161.83 Y145.92 E558.74007
G0 F6000 X162.54 Y145.92
G1 F4320 X175.69 Y159.07 E559.51324
G0 F6000 X176.40 Y159.07
G1 F4320 X163.25 Y145.92 E560.28638
G0 F6000 X163.96 Y145.92
G1 F4320 X177.10 Y159.07 E561.05952
G0 F6000 X177.81 Y159.07
G1 F4320 X164.66 Y145.92 E561.83266
G0 F6000 X165.37 Y145.92
G1 F4320 X178.52 Y159.07 E562.60580
G0 F6000 X179.23 Y159.07
G1 F4320 X166.08 Y145.92 E563.37894
G0 F6000 X166.78 Y145.92
G1 F4320 X179.93 Y159.07 E564.15208
G0 F6000 X180.64 Y159.07
G1 F4320 X167.49 Y145.92 E564.92525
G0 F6000 X168.20 Y145.92
G1 F4320 X181.35 Y159.07 E565.69842
G0 F6000 X182.06 Y159.07
G1 F4320 X168.91 Y145.92 E566.47159
G0 F6000 X169.61 Y145.92
G1 F4320 X182.76 Y159.07 E567.24476
G0 F6000 X183.47 Y159.07
G1 F4320 X170.32 Y145.92 E568.01790
G0 F6000 X171.03 Y145.92
G1 F4320 X184.18 Y159.07 E568.79104
G0 F6000 X184.88 Y159.07
G1 F4320 X171.73 Y145.92 E569.56418
G0 F6000 X172.44 Y145.92
G1 F4320 X185.59 Y159.07 E570.33732
G0 F6000 X186.30 Y159.07
G1 F4320 X173.15 Y145.92 E571.11046
G0 F6000 X173.85 Y145.92
G1 F4320 X187.00 Y159.07 E571.88360
G0 F6000 X187.71 Y159.07
G1 F4320 X174.56 Y145.92 E572.65677
G0 F6000 X175.27 Y145.92
G1 F4320 X188.42 Y159.07 E573.42994
G0 F6000 X189.13 Y159.07
G1 F4320 X175.98 Y145.92 E574.20311
G0 F6000 X176.68 Y145.92
G1 F4320 X189.83 Y159.07 E574.97625
G0 F6000 X190.54 Y159.07
G1 F4320 X177.39 Y145.92 E575.74939
G0 F6000 X178.10 Y145.92
G1 F4320 X190.99 Y158.82 E576.50760
G0 F6000 X190.99 Y158.11
G1 F4320 X178.81 Y145.92 E577.22423
G0 F6000 X179.51 Y145.92
G1 F4320 X190.99 Y157.41 E577.89930
G0 F6000 X190.99 Y156.70
G1 F4320 X180.22 Y145.92 E578.53280
G0 F6000 X180.93 Y145.92
G1 F4320 X190.99 Y155.99 E579.12470
G0 F6000 X190.99 Y155.28
G1 F4320 X181.63 Y145.92 E579.67503
G0 F6000 X182.34 Y145.92
G1 F4320 X190.99 Y154.58 E580.18380
G0 F6000 X190.99 Y153.87
G1 F4320 X183.05 Y145.92 E580.65096
G0 F6000 X183.75 Y145.92
G1 F4320 X190.99 Y153.16 E581.07656
G0 F6000 X190.99 Y152.46
G1 F4320 X184.46 Y145.92 E581.46059
G0 F6000 X185.17 Y145.92
G1 F4320 X190.99 Y151.75 E581.80304
G0 F6000 X190.99 Y151.04
G1 F4320 X185.88 Y145.92 E582.10393
G0 F6000 X186.58 Y145.92
G1 F4320 X190.99 Y150.34 E582.36325
G0 F6000 X190.99 Y149.63
G1 F4320 X187.29 Y145.92 E582.58101
G0 F6000 X188.00 Y145.92
G1 F4320 X190.99 Y148.92 E582.75716
G0 F6000 X190.99 Y148.21
G1 F4320 X188.70 Y145.92 E582.89174
G0 F6000 X189.41 Y145.92
G1 F4320 X190.99 Y147.51 E582.98476
G0 F6000 X190.99 Y146.80
G1 F4320 X190.12 Y145.92 E583.03618
G0 F6000 X190.83 Y145.92
G1 F4320 X190.99 Y146.09 E583.04602
;LAYER:3
G0 F6000 X191.17 Y145.75 Z0.90
;TYPE:WALL-INNER
G1 F5160 X191.17 Y159.25 E583.60729
G1 X113.83 Y159.25 E586.82263
G1 X113.83 Y145.75 E587.38389
G1 X191.17 Y145.75 E590.59923
G0 F6000 X191.67 Y145.25
G1 F5160 X191.67 Y159.75 E591.20207
G1 X113.33 Y159.75 E594.45899
G1 X113.33 Y145.25 E595.06183
G1 X191.67 Y145.25 E598.31875
G0 F6000 X192.17 Y144.75
;TYPE:WALL-OUTER
G1 F5160 X192.17 Y160.25 E598.96316
G1 X112.83 Y160.25 E602.26165
G1 X112.83 Y144.75 E602.90607
G1 X192.17 Y144.75 E606.20456
G0 F6000 X191.82 Y145.01
G0 X190.99 Y145.94
;TYPE:FILL
G1 F5160 X177.86 Y159.07 E606.97664
G0 F6000 X178.57 Y159.07
G1 F5160 X190.99 Y146.65 E607.70715
G0 F6000 X190.99 Y147.36
G1 F5160 X179.28 Y159.07 E608.39610
G0 F6000 X179.98 Y159.07
G1 F5160 X190.99 Y148.06 E609.04347
G0 F6000 X190.99 Y148.77
G1 F5160 X180.69 Y159.07 E609.64928
G0 F6000 X181.40 Y159.07
G1 F5160 X190.99 Y149.48 E610.21352
G0 F6000 X190.99 Y150.19
G1 F5160 X182.10 Y159.07 E610.73615
G0 F6000 X182.81 Y159.07
G1 F5160 X190.99 Y150.89 E611.21720
G0 F6000 X190.99 Y151.60
G1 F5160 X183.52 Y159.07 E611.65667
G0 F6000 X184.22 Y159.07
G1 F5160 X190.99 Y152.31 E612.05457
G0 F6000 X190.99 Y153.01
G1 F5160 X184.93 Y159.07 E612.41090
G0 F6000 X185.64 Y159.07
G1 F5160 X190.99 Y153.72 E612.72567
G0 F6000 X190.99 Y154.43
G1 F5160 X186.35 Y159.07 E612.99887
G0 F6000 X187.05 Y159.07
G1 F5160 X190.99 Y155.13 E613.23049
G0 F6000 X190.99 Y155.84
G1 F5160 X187.76 Y159.07 E613.42055
G0 F6000 X188.47 Y159.07
G1 F5160 X190.99 Y156.55 E613.56904
G0 F6000 X190.99 Y157.26
G1 F5160 X189.18 Y159.07 E613.67590
G0 F6000 X189.88 Y159.07
G1 F5160 X190.99 Y157.96 E613.74120
G0 F6000 X190.99 Y158.67
G1 F5160 X190.59 Y159.07 E613.76492
G0 F6000 X190.31 Y145.92
G1 F5160 X177.15 Y159.07 E614.53812
G0 F6000 X176.45 Y159.07
G1 F5160 X189.60 Y145.92 E615.31129
G0 F6000 X188.89 Y145.92
G1 F5160 X175.74 Y159.07 E616.08446
G0 F6000 X175.03 Y159.07
G1 F5160 X188.18 Y145.92 E616.85766
G0 F6000 X187.48 Y145.92
G1 F5160 X174.32 Y159.07 E617.63086
G0 F6000 X173.62 Y159.07
G1 F5160 X186.77 Y145.92 E618.40406
G0 F6000 X186.06 Y145.92
G1 F5160 X172.91 Y159.07 E619.17726
G0 F6000 X172.20 Y159.07
G1 F5160 X185.35 Y145.92 E619.95045
G0 F6000 X184.65 Y145.92
G1 F5160 X171.50 Y159.07 E620.72365
G0 F6000 X170.79 Y159.07
G1 F5160 X183.94 Y145.92 E621.49685
G0 F6000 X183.23 Y145.92
G1 F5160 X170.08 Y159.07 E622.27002
G0 F6000 X169.38 Y159.07
G1 F5160 X182.53 Y145.92 E623.04319
G0 F6000 X181.82 Y145.92
G1 F5160 X168.67 Y159.07 E623.81636
G0 F6000 X167.96 Y159.07
G1 F5160 X181.11 Y145.92 E624.58956
G0 F6000 X180.41 Y145.92
G1 F5160 X167.25 Y159.07 E625.36276
G0 F6000 X166.55 Y159.07
G1 F5160 X179.70 Y145.92 E626.13596
G0 F6000 X178.99 Y145.92
G1 F5160 X165.84 Y159.07 E626.90916
G0 F6000 X165.13 Y159.07
G1 F5160 X178.28 Y145.92 E627.68236
G0 F6000 X177.58 Y145.92
G1 F5160 X164.43 Y159.07 E628.45556
G0 F6000 X163.72 Y159.07
G1 F5160 X176.87 Y145.92 E629.22875
G0 F6000 X176.16 Y145.92
G1 F5160 X163.01 Y159.07 E630.00192
G0 F6000 X162.31 Y159.07
G1 F5160 X175.46 Y145.92 E630.77509
G0 F6000 X174.75 Y145.92
G1 F5160 X161.60 Y159.07 E631.54829
G0 F6000 X160.89 Y159.07
G1 F5160 X174.04 Y145.92 E632.32149
G0 F6000 X173.33 Y145.92
G1 F5160 X160.18 Y159.07 E633.09469
G0 F6000 X159.48 Y159.07
G1 F5160 X172.63 Y145.92 E633.86789
G0 F6000 X171.92 Y145.92
G1 F5160 X158.77 Y159.07 E634.64109
G0 F6000 X158.06 Y159.07
G1 F5160 X171.21 Y145.92 E635.41429
G0 F6000 X170.51 Y145.92
G1 F5160 X157.35 Y159.07 E636.18749
G0 F6000 X156.65 Y159.07
G1 F5160 X169.80 Y145.92 E636.96066
G0 F6000 X169.09 Y145.92
G1 F5160 X155.94 Y159.07 E637.73383
G0 F6000 X155.23 Y159.07
G1 F5160 X168.38 Y145.92 E638.50703
G0 F6000 X167.68 Y145.92
G1 F5160 X154.53 Y159.07 E639.28022
G0 F6000 X153.82 Y159.07
G1 F5160 X166.97 Y145.92 E640.05342
G0 F6000 X166.26 Y145.92
G1 F5160 X153.11 Y159.07 E640.82662
G0 F6000 X152.41 Y159.07
G1 F5160 X165.56 Y145.92 E641.59982
G0 F6000 X164.85 Y145.92
G1 F5160 X151.70 Y159.07 E642.37302
G0 F6000 X150.99 Y159.07
G1 F5160 X164.14 Y145.92 E643.14622
G0 F6000 X163.44 Y145.92
G1 F5160 X150.28 Y159.07 E643.91942
G0 F6000 X149.58 Y159.07
G1 F5160 X162.73 Y145.92 E644.69259
G0 F6000 X162.02 Y145.92
G1 F5160 X148.87 Y159.07 E645.46576
G0 F6000 X148.16 Y159.07
G1 F5160 X161.31 Y145.92 E646.23896
G0 F6000 X160.61 Y145.92
G1 F5160 X147.46 Y159.07 E647.01216
G0 F6000 X146.75 Y159.07
G1 F5160 X159.90 Y145.92 E647.78535
G0 F6000 X159.19 Y145.92
G1 F5160 X146.04 Y159.07 E648.55855
G0 F6000 X145.33 Y159.07
G1 F5160 X158.49 Y145.92 E649.33175
G0 F6000 X157.78 Y145.92
G1 F5160 X144.63 Y159.07 E650.10495
G0 F6000 X143.92 Y159.07
G1 F5160 X157.07 Y145.92 E650.87815
G0 F6000 X156.36 Y145.92
G1 F5160 X143.21 Y159.07 E651.65132
G0 F6000 X142.51 Y159.07
G1 F5160 X155.66 Y145.92 E652.42449
G0 F6000 X154.95 Y145.92
G1 F5160 X141.80 Y159.07 E653.19769
G0 F6000 X141.09 Y159.07
G1 F5160 X154.24 Y145.92 E653.97089
G0 F6000 X153.53 Y145.92
G1 F5160 X140.38 Y159.07 E654.74409
G0 F6000 X139.68 Y159.07
G1 F5160 X152.83 Y145.92 E655.51729
G0 F6000 X152.12 Y145.92
G1 F5160 X138.97 Y159.07 E656.29048
G0 F6000 X138.26 Y159.07
G1 F5160 X151.41 Y145.92 E657.06368
G0 F6000 X150.71 Y145.92
G1 F5160 X137.56 Y159.07 E657.83688
G0 F6000 X136.85 Y159.07
G1 F5160 X150.00 Y145.92 E658.61005
G0 F6000 X149.29 Y145.92
G1 F5160 X136.14 Y159.07 E659.38322
G0 F6000 X135.43 Y159.07
G1 F5160 X148.59 Y145.92 E660.15642
G0 F6000 X147.88 Y145.92
G1 F5160 X134.73 Y159.07 E660.92962
G0 F6000 X134.02 Y159.07
G1 F5160 X147.17 Y145.92 E661.70282
G0 F6000 X146.46 Y145.92
G1 F5160 X133.31 Y159.07 E662.47602
G0 F6000 X132.61 Y159.07
G1 F5160 X145.76 Y145.92 E663.24922
G0 F6000 X145.05 Y145.92
G1 F5160 X131.90 Y159.07 E664.02242
G0 F6000 X131.19 Y159.07
G1 F5160 X144.34 Y145.92 E664.79561
G0 F6000 X143.64 Y145.92
G1 F5160 X130.49 Y159.07 E665.56881
G0 F6000 X129.78 Y159.07
G1 F5160 X142.93 Y145.92 E666.34198
G0 F6000 X142.22 Y145.92
G1 F5160 X129.07 Y159.07 E667.11515
G0 F6000 X128.36 Y159.07
G1 F5160 X141.51 Y145.92 E667.88835
G0 F6000 X140.81 Y145.92
G1 F5160 X127.66 Y159.07 E668.66155
G0 F6000 X126.95 Y159.07
G1 F5160 X140.10 Y145.92 E669.43475
G0 F6000 X139.39 Y145.92
G1 F5160 X126.24 Y159.07 E670.20795
G0 F6000 X125.53 Y159.07
G1 F5160 X138.69 Y145.92 E670.98115
G0 F6000 X137.98 Y145.92
G1 F5160 X124.83 Y159.07 E671.75435
G0 F6000 X124.12 Y159.07
G1 F5160 X137.27 Y145.92 E672.52755
G0 F6000 X136.56 Y145.92
G1 F5160 X123.41 Y159.07 E673.30072
G0 F6000 X122.71 Y159.07
G1 F5160 X135.86 Y145.92 E674.07389
G0 F6000 X135.15 Y145.92
G1 F5160 X122.00 Y159.07 E674.84708
G0 F6000 X121.29 Y159.07
G1 F5160 X134.44 Y145.92 E675.62028
G0 F6000 X133.74 Y145.92
G1 F5160 X120.58 Y159.07 E676.39348
G0 F6000 X119.88 Y159.07
G1 F5160 X133.03 Y145.92 E677.16668
G0 F6000 X132.32 Y145.92
G1 F5160 X119.17 Y159.07 E677.93988
G0 F6000 X118.46 Y159.07
G1 F5160 X131.62 Y145.92 E678.71308
G0 F6000 X130.91 Y145.92
G1 F5160 X117.76 Y159.07 E679.48628
G0 F6000 X117.05 Y159.07
G1 F5160 X130.20 Y145.92 E680.25945
G0 F6000 X129.49 Y145.92
G1 F5160 X116.34 Y159.07 E681.03262
G0 F6000 X115.64 Y159.07
G1 F5160 X128.79 Y145.92 E681.80579
G0 F6000 X128.08 Y145.92
G1 F5160 X114.93 Y159.07 E682.57899
G0 F6000 X114.22 Y159.07
G1 F5160 X127.37 Y145.92 E683.35219
G0 F6000 X126.67 Y145.92
G1 F5160 X114.01 Y158.58 E684.09649
G0 F6000 X114.01 Y157.88
G1 F5160 X125.96 Y145.92 E684.79922
G0 F6000 X125.25 Y145.92
G1 F5160 X114.01 Y157.17 E685.46038
G0 F6000 X114.01 Y156.46
G1 F5160 X124.54 Y145.92 E686.07997
G0 F6000 X123.84 Y145.92
G1 F5160 X114.01 Y155.75 E686.65800
G0 F6000 X114.01 Y155.05
G1 F5160 X123.13 Y145.92 E687.19443
G0 F6000 X122.42 Y145.92
G1 F5160 X114.01 Y154.34 E687.68926
G0 F6000 X114.01 Y153.63
G1 F5160 X121.72 Y145.92 E688.14251
G0 F6000 X121.01 Y145.92
G1 F5160 X114.01 Y152.93 E688.55421
G0 F6000 X114.01 Y152.22
G1 F5160 X120.30 Y145.92 E688.92433
G0 F6000 X119.59 Y145.92
G1 F5160 X114.01 Y151.51 E689.25288
G0 F6000 X114.01 Y150.81
G1 F5160 X118.89 Y145.92 E689.53986
G0 F6000 X118.18 Y145.92
G1 F5160 X114.01 Y150.10 E689.78528
G0 F6000 X114.01 Y149.39
G1 F5160 X117.47 Y145.92 E689.98913
G0 F6000 X116.77 Y145.92
G1 F5160 X114.01 Y148.68 E690.15137
G0 F6000 X114.01 Y147.98
G1 F5160 X116.06 Y145.92 E690.27202
G0 F6000 X115.35 Y145.92
G1 F5160 X114.01 Y147.27 E690.35110
G0 F6000 X114.01 Y146.56
G1 F5160 X114.64 Y145.92 E690.38862
;LAYER:4
G0 F6000 X113.83 Y145.75 Z1.10
;TYPE:WALL-INNER
G1 X191.17 Y145.75 E693.60396
G1 X191.17 Y159.25 E694.16522
G1 X113.83 Y159.25 E697.38056
G1 X113.83 Y145.75 E697.94183
G0 X113.33 Y145.25
G1 X191.67 Y145.25 E701.19874
G1 X191.67 Y159.75 E701.80158
G1 X113.33 Y159.75 E705.05850
G1 X113.33 Y145.25 E705.66134
G0 X112.83 Y144.75
;TYPE:WALL-OUTER
G1 X192.17 Y144.75 E708.95983
G1 X192.17 Y160.25 E709.60424
G1 X112.83 Y160.25 E712.90273
G1 X112.83 Y144.75 E713.54715
G0 X113.18 Y145.01
G0 X114.00 Y146.18
;TYPE:FILL
G1 X126.90 Y159.07 E714.30536
G0 X126.19 Y159.07
G1 X114.00 Y146.88 E715.02199
G0 X114.00 Y147.59
G1 X125.49 Y159.07 E715.69706
G0 X124.78 Y159.07
G1 X114.00 Y148.30 E716.33053
G0 X114.00 Y149.01
G1 X124.07 Y159.07 E716.92243
G0 X123.36 Y159.07
G1 X114.00 Y149.71 E717.47276
G0 X114.00 Y150.42
G1 X122.66 Y159.07 E717.98153
G0 X121.95 Y159.07
G1 X114.00 Y151.13 E718.44872
G0 X114.00 Y151.84
G1 X121.24 Y159.07 E718.87435
G0 X120.54 Y159.07
G1 X114.00 Y152.54 E719.25837
G0 X114.00 Y153.25
G1 X119.83 Y159.07 E719.60083
G0 X119.12 Y159.07
G1 X114.00 Y153.96 E719.90172
G0 X114.00 Y154.66
G1 X118.42 Y159.07 E720.16101
G0 X117.71 Y159.07
G1 X114.00 Y155.37 E720.37874
G0 X114.00 Y156.08
G1 X117.00 Y159.07 E720.55489
G0 X116.29 Y159.07
G1 X114.00 Y156.78 E720.68947
G0 X114.00 Y157.49
G1 X115.59 Y159.07 E720.78249
G0 X114.88 Y159.07
G1 X114.00 Y158.20 E720.83394
G0 X114.00 Y158.91
G1 X114.17 Y159.07 E720.84378
G0 X114.46 Y145.92
G1 X127.61 Y159.07 E721.61695
G0 X128.31 Y159.07
G1 X115.17 Y145.92 E722.39012
G0 X115.87 Y145.92
G1 X129.02 Y159.07 E723.16329
G0 X129.73 Y159.07
G1 X116.58 Y145.92 E723.93646
G0 X117.29 Y145.92
G1 X130.44 Y159.07 E724.70960
G0 X131.14 Y159.07
G1 X117.99 Y145.92 E725.48274
G0 X118.70 Y145.92
G1 X131.85 Y159.07 E726.25588
G0 X132.56 Y159.07
G1 X119.41 Y145.92 E727.02902
G0 X120.11 Y145.92
G1 X133.26 Y159.07 E727.80216
G0 X133.97 Y159.07
G1 X120.82 Y145.92 E728.57530
G0 X121.53 Y145.92
G1 X134.68 Y159.07 E729.34847
G0 X135.39 Y159.07
G1 X122.24 Y145.92 E730.12164
G0 X122.94 Y145.92
G1 X136.09 Y159.07 E730.89481
G0 X136.80 Y159.07
G1 X123.65 Y145.92 E731.66795
G0 X124.36 Y145.92
G1 X137.51 Y159.07 E732.44109
G0 X138.21 Y159.07
G1 X125.06 Y145.92 E733.21423
G0 X125.77 Y145.92
G1 X138.92 Y159.07 E733.98737
G0 X139.63 Y159.07
G1 X126.48 Y145.92 E734.76051
G0 X127.19 Y145.92
G1 X140.34 Y159.07 E735.53365
G0 X141.04 Y159.07
G1 X127.89 Y145.92 E736.30682
G0 X128.60 Y145.92
G1 X141.75 Y159.07 E737.07999
G0 X142.46 Y159.07
G1 X129.31 Y145.92 E737.85316
G0 X130.01 Y145.92
G1 X143.16 Y159.07 E738.62630
G0 X143.87 Y159.07
G1 X130.72 Y145.92 E739.39944
G0 X131.43 Y145.92
G1 X144.58 Y159.07 E740.17258
G0 X145.28 Y159.07
G1 X132.14 Y145.92 E740.94572
G0 X132.84 Y145.92
G1 X145.99 Y159.07 E741.71886
G0 X146.70 Y159.07
G1 X133.55 Y145.92 E742.49200
G0 X134.26 Y145.92
G1 X147.41 Y159.07 E743.26517
G0 X148.11 Y159.07
G1 X134.96 Y145.92 E744.03834
G0 X135.67 Y145.92
G1 X148.82 Y159.07 E744.81151
G0 X149.53 Y159.07
G1 X136.38 Y145.92 E745.58468
G0 X137.09 Y145.92
G1 X150.24 Y159.07 E746.35782
G0 X150.94 Y159.07
G1 X137.79 Y145.92 E747.13096
G0 X138.50 Y145.92
G1 X151.65 Y159.07 E747.90410
G0 X152.36 Y159.07
G1 X139.21 Y145.92 E748.67724
G0 X139.91 Y145.92
G1 X153.06 Y159.07 E749.45038
G0 X153.77 Y159.07
G1 X140.62 Y145.92 E750.22352
G0 X141.33 Y145.92
G1 X154.48 Y159.07 E750.99669
G0 X155.19 Y159.07
G1 X142.03 Y145.92 E751.76986
G0 X142.74 Y145.92
G1 X155.89 Y159.07 E752.54303
G0 X156.60 Y159.07
G1 X143.45 Y145.92 E753.31617
G0 X144.16 Y145.92
G1 X157.31 Y159.07 E754.08931
G0 X158.01 Y159.07
G1 X144.86 Y145.92 E754.86245
G0 X145.57 Y145.92
G1 X158.72 Y159.07 E755.63559
G0 X159.43 Y159.07
G1 X146.28 Y145.92 E756.40873
G0 X146.99 Y145.92
G1 X160.13 Y159.07 E757.18187
G0 X160.84 Y159.07
G1 X147.69 Y145.92 E757.95504
G0 X148.40 Y145.92
G1 X161.55 Y159.07 E758.72821
G0 X162.26 Y159.07
G1 X149.11 Y145.92 E759.50138
G0 X149.81 Y145.92
G1 X162.96 Y159.07 E760.27452
G0 X163.67 Y159.07
G1 X150.52 Y145.92 E761.04766
G0 X151.23 Y145.92
G1 X164.38 Y159.07 E761.82080
G0 X165.08 Y159.07
G1 X151.94 Y145.92 E762.59394
G0 X152.64 Y145.92
G1 X165.79 Y159.07 E763.36708
G0 X166.50 Y159.07
G1 X153.35 Y145.92 E764.14022
G0 X154.06 Y145.92
G1 X167.21 Y159.07 E764.91339
G0 X167.91 Y159.07
G1 X154.76 Y145.92 E765.68656
G0 X155.47 Y145.92
G1 X168.62 Y159.07 E766.45973
G0 X169.33 Y159.07
G1 X156.18 Y145.92 E767.23290
G0 X156.88 Y145.92
G1 X170.03 Y159.07 E768.00604
G0 X170.74 Y159.07
G1 X157.59 Y145.92 E768.77918
G0 X158.30 Y145.92
G1 X171.45 Y159.07 E769.55232
G0 X172.16 Y159.07
G1 X159.01 Y145.92 E770.32546
G0 X159.71 Y145.92
G1 X172.86 Y159.07 E771.09860
G0 X173.57 Y159.07
G1 X160.42 Y145.92 E771.87174
G0 X161.13 Y145.92
G1 X174.28 Y159.07 E772.64491
G0 X174.98 Y159.07
G1 X161.83 Y145.92 E773.41808
G0 X162.54 Y145.92
G1 X175.69 Y159.07 E774.19125
G0 X176.40 Y159.07
G1 X163.25 Y145.92 E774.96439
G0 X163.96 Y145.92
G1 X177.10 Y159.07 E775.73753
G0 X177.81 Y159.07
G1 X164.66 Y145.92 E776.51067
G0 X165.37 Y145.92
G1 X178.52 Y159.07 E777.28381
G0 X179.23 Y159.07
G1 X166.08 Y145.92 E778.05695
G0 X166.78 Y145.92
G1 X179.93 Y159.07 E778.83009
G0 X180.64 Y159.07
G1 X167.49 Y145.92 E779.60326
G0 X168.20 Y145.92
G1 X181.35 Y159.07 E780.37643
G0 X182.06 Y159.07
G1 X168.91 Y145.92 E781.14960
G0 X169.61 Y145.92
G1 X182.76 Y159.07 E781.92277
G0 X183.47 Y159.07
G1 X170.32 Y145.92 E782.69591
G0 X171.03 Y145.92
G1 X184.18 Y159.07 E783.46905
G0 X184.88 Y159.07
G1 X171.73 Y145.92 E784.24219
G0 X172.44 Y145.92
G1 X185.59 Y159.07 E785.01533
G0 X186.30 Y159.07
G1 X173.15 Y145.92 E785.78847
G0 X173.85 Y145.92
G1 X187.00 Y159.07 E786.56161
G0 X187.71 Y159.07
G1 X174.56 Y145.92 E787.33478
G0 X175.27 Y145.92
G1 X188.42 Y159.07 E788.10795
G0 X189.13 Y159.07
G1 X175.98 Y145.92 E788.88112
G0 X176.68 Y145.92
G1 X189.83 Y159.07 E789.65426
G0 X190.54 Y159.07
G1 X177.39 Y145.92 E790.42740
G0 X178.10 Y145.92
G1 X190.99 Y158.82 E791.18561
G0 X190.99 Y158.11
G1 X178.81 Y145.92 E791.90224
G0 X179.51 Y145.92
G1 X190.99 Y157.41 E792.57731
G0 X190.99 Y156.70
G1 X180.22 Y145.92 E793.21081
G0 X180.93 Y145.92
G1 X190.99 Y155.99 E793.80271
G0 X190.99 Y155.28
G1 X181.63 Y145.92 E794.35305
G0 X182.34 Y145.92
G1 X190.99 Y154.58 E794.86181
G0 X190.99 Y153.87
G1 X183.05 Y145.92 E795.32897
G0 X183.75 Y145.92
G1 X190.99 Y153.16 E795.75457
G0 X190.99 Y152.46
G1 X184.46 Y145.92 E796.13860
G0 X185.17 Y145.92
G1 X190.99 Y151.75 E796.48105
G0 X190.99 Y151.04
G1 X185.88 Y145.92 E796.78194
G0 X186.58 Y145.92
G1 X190.99 Y150.34 E797.04126
G0 X190.99 Y149.63
G1 X187.29 Y145.92 E797.25902
G0 X188.00 Y145.92
G1 X190.99 Y148.92 E797.43517
G0 X190.99 Y148.21
G1 X188.70 Y145.92 E797.56975
G0 X189.41 Y145.92
G1 X190.99 Y147.51 E797.66277
G0 X190.99 Y146.80
G1 X190.12 Y145.92 E797.71419
G0 X190.83 Y145.92
G1 X190.99 Y146.09 E797.72404
;LAYER:5
G0 X191.17 Y145.75 Z1.30
;TYPE:WALL-INNER
G1 X191.17 Y159.25 E798.28530
G1 X113.83 Y159.25 E801.50064
G1 X113.83 Y145.75 E802.06191
G1 X191.17 Y145.75 E805.27725
G0 X191.67 Y145.25
G1 X191.67 Y159.75 E805.88009
G1 X113.33 Y159.75 E809.13700
G1 X113.33 Y145.25 E809.73984
G1 X191.67 Y145.25 E812.99676
G0 X192.17 Y144.75
;TYPE:WALL-OUTER
G1 X192.17 Y160.25 E813.64117
G1 X112.83 Y160.25 E816.93966
G1 X112.83 Y144.75 E817.58408
G1 X192.17 Y144.75 E820.88257
G0 X191.82 Y145.01
G0 X190.99 Y145.94
;TYPE:FILL
G1 X177.86 Y159.07 E821.65465
G0 X178.57 Y159.07
G1 X190.99 Y146.65 E822.38516
G0 X190.99 Y147.36
G1 X179.28 Y159.07 E823.07411
G0 X179.98 Y159.07
G1 X190.99 Y148.06 E823.72148
G0 X190.99 Y148.77
G1 X180.69 Y159.07 E824.32729
G0 X181.40 Y159.07
G1 X190.99 Y149.48 E824.89153
G0 X190.99 Y150.19
G1 X182.10 Y159.07 E825.41417
G0 X182.81 Y159.07
G1 X190.99 Y150.89 E825.89521
G0 X190.99 Y151.60
G1 X183.52 Y159.07 E826.33468
G0 X184.22 Y159.07
G1 X190.99 Y152.31 E826.73258
G0 X190.99 Y153.01
G1 X184.93 Y159.07 E827.08892
G0 X185.64 Y159.07
G1 X190.99 Y153.72 E827.40368
G0 X190.99 Y154.43
G1 X186.35 Y159.07 E827.67688
G0 X187.05 Y159.07
G1 X190.99 Y155.13 E827.90850
G0 X190.99 Y155.84
G1 X187.76 Y159.07 E828.09856
G0 X188.47 Y159.07
G1 X190.99 Y156.55 E828.24705
G0 X190.99 Y157.26
G1 X189.18 Y159.07 E828.35392
G0 X189.88 Y159.07
G1 X190.99 Y157.96 E828.41921
G0 X190.99 Y158.67
G1 X190.59 Y159.07 E828.44293
G0 X190.31 Y145.92
G1 X177.15 Y159.07 E829.21613
G0 X176.45 Y159.07
G1 X189.60 Y145.92 E829.98930
G0 X188.89 Y145.92
G1 X175.74 Y159.07 E830.76247
G0 X175.03 Y159.07
G1 X188.18 Y145.92 E831.53567
G0 X187.48 Y145.92
G1 X174.32 Y159.07 E832.30887
G0 X173.62 Y159.07
G1 X186.77 Y145.92 E833.08207
G0 X186.06 Y145.92
G1 X172.91 Y159.07 E833.85527
G0 X172.20 Y159.07
G1 X185.35 Y145.92 E834.62847
G0 X184.65 Y145.92
G1 X171.50 Y159.07 E835.40166
G0 X170.79 Y159.07
G1 X183.94 Y145.92 E836.17486
G0 X183.23 Y145.92
G1 X170.08 Y159.07 E836.94803
G0 X169.38 Y159.07
G1 X182.53 Y145.92 E837.72120
G0 X181.82 Y145.92
G1 X168.67 Y159.07 E838.49437
G0 X167.96 Y159.07
G1 X181.11 Y145.92 E839.26757
G0 X180.41 Y145.92
G1 X167.25 Y159.07 E840.04077
G0 X166.55 Y159.07
G1 X179.70 Y145.92 E840.81397
G0 X178.99 Y145.92
G1 X165.84 Y159.07 E841.58717
G0 X165.13 Y159.07
G1 X178.28 Y145.92 E842.36037
G0 X177.58 Y145.92
G1 X164.43 Y159.07 E843.13357
G0 X163.72 Y159.07
G1 X176.87 Y145.92 E843.90677
G0 X176.16 Y145.92
G1 X163.01 Y159.07 E844.67994
G0 X162.31 Y159.07
G1 X175.46 Y145.92 E845.45310
G0 X174.75 Y145.92
G1 X161.60 Y159.07 E846.22630
G0 X160.89 Y159.07
G1 X174.04 Y145.92 E846.99950
G0 X173.33 Y145.92
G1 X160.18 Y159.07 E847.77270
G0 X159.48 Y159.07
G1 X172.63 Y145.92 E848.54590
G0 X171.92 Y145.92
G1 X158.77 Y159.07 E849.31910
G0 X158.06 Y159.07
G1 X171.21 Y145.92 E850.09230
G0 X170.51 Y145.92
G1 X157.35 Y159.07 E850.86550
G0 X156.65 Y159.07
G1 X169.80 Y145.92 E851.63867
G0 X169.09 Y145.92
G1 X155.94 Y159.07 E852.41184
G0 X155.23 Y159.07
G1 X168.38 Y145.92 E853.18504
G0 X167.68 Y145.92
G1 X154.53 Y159.07 E853.95824
G0 X153.82 Y159.07
G1 X166.97 Y145.92 E854.73143
G0 X166.26 Y145.92
G1 X153.11 Y159.07 E855.50463
G0 X152.41 Y159.07
G1 X165.56 Y145.92 E856.27783
G0 X164.85 Y145.92
G1 X151.70 Y159.07 E857.05103
G0 X150.99 Y159.07
G1 X164.14 Y145.92 E857.82423
G0 X163.44 Y145.92
G1 X150.28 Y159.07 E858.59743
G0 X149.58 Y159.07
G1 X162.73 Y145.92 E859.37060
G0 X162.02 Y145.92
G1 X148.87 Y159.07 E860.14377
G0 X148.16 Y159.07
G1 X161.31 Y145.92 E860.91697
G0 X160.61 Y145.92
G1 X147.46 Y159.07 E861.69017
G0 X146.75 Y159.07
G1 X159.90 Y145.92 E862.46337
G0 X159.19 Y145.92
G1 X146.04 Y159.07 E863.23656
G0 X145.33 Y159.07
G1 X158.49 Y145.92 E864.00976
G0 X157.78 Y145.92
G1 X144.63 Y159.07 E864.78296
G0 X143.92 Y159.07
G1 X157.07 Y145.92 E865.55616
G0 X156.36 Y145.92
G1 X143.21 Y159.07 E866.32933
G0 X142.51 Y159.07
G1 X155.66 Y145.92 E867.10250
G0 X154.95 Y145.92
G1 X141.80 Y159.07 E867.87570
G0 X141.09 Y159.07
G1 X154.24 Y145.92 E868.64890
G0 X153.53 Y145.92
G1 X140.38 Y159.07 E869.42210
G0 X139.68 Y159.07
G1 X152.83 Y145.92 E870.19530
G0 X152.12 Y145.92
G1 X138.97 Y159.07 E870.96850
G0 X138.26 Y159.07
G1 X151.41 Y145.92 E871.74169
G0 X150.71 Y145.92
G1 X137.56 Y159.07 E872.51489
G0 X136.85 Y159.07
G1 X150.00 Y145.92 E873.28806
G0 X149.29 Y145.92
G1 X136.14 Y159.07 E874.06123
G0 X135.43 Y159.07
G1 X148.59 Y145.92 E874.83443
G0 X147.88 Y145.92
G1 X134.73 Y159.07 E875.60763
G0 X134.02 Y159.07
G1 X147.17 Y145.92 E876.38083
G0 X146.46 Y145.92
G1 X133.31 Y159.07 E877.15403
G0 X132.61 Y159.07
G1 X145.76 Y145.92 E877.92723
G0 X145.05 Y145.92
G1 X131.90 Y159.07 E878.70043
G0 X131.19 Y159.07
G1 X144.34 Y145.92 E879.47363
G0 X143.64 Y145.92
G1 X130.49 Y159.07 E880.24682
G0 X129.78 Y159.07
G1 X142.93 Y145.92 E881.01999
G0 X142.22 Y145.92
G1 X129.07 Y159.07 E881.79316
G0 X128.36 Y159.07
G1 X141.51 Y145.92 E882.56636
G0 X140.81 Y145.92
G1 X127.66 Y159.07 E883.33956
G0 X126.95 Y159.07
G1 X140.10 Y145.92 E884.11276
G0 X139.39 Y145.92
G1 X126.24 Y159.07 E884.88596
G0 X125.53 Y159.07
G1 X138.69 Y145.92 E885.65916
G0 X137.98 Y145.92
G1 X124.83 Y159.07 E886.43236
G0 X124.12 Y159.07
G1 X137.27 Y145.92 E887.20556
G0 X136.56 Y145.92
G1 X123.41 Y159.07 E887.97873
G0 X122.71 Y159.07
G1 X135.86 Y145.92 E888.75190
G0 X135.15 Y145.92
G1 X122.00 Y159.07 E889.52510
G0 X121.29 Y159.07
G1 X134.44 Y145.92 E890.29829
G0 X133.74 Y145.92
G1 X120.58 Y159.07 E891.07149
G0 X119.88 Y159.07
G1 X133.03 Y145.92 E891.84469
G0 X132.32 Y145.92
G1 X119.17 Y159.07 E892.61789
G0 X118.46 Y159.07
G1 X131.62 Y145.92 E893.39109
G0 X130.91 Y145.92
G1 X117.76 Y159.07 E894.16429
G0 X117.05 Y159.07
G1 X130.20 Y145.92 E894.93746
G0 X129.49 Y145.92
G1 X116.34 Y159.07 E895.71063
G0 X115.64 Y159.07
G1 X128.79 Y145.92 E896.48380
G0 X128.08 Y145.92
G1 X114.93 Y159.07 E897.25700
G0 X114.22 Y159.07
G1 X127.37 Y145.92 E898.03020
G0 X126.67 Y145.92
G1 X114.01 Y158.58 E898.77450
G0 X114.01 Y157.88
G1 X125.96 Y145.92 E899.47723
G0 X125.25 Y145.92
G1 X114.01 Y157.17 E900.13839
G0 X114.01 Y156.46
G1 X124.54 Y145.92 E900.75799
G0 X123.84 Y145.92
G1 X114.01 Y155.75 E901.33601
G0 X114.01 Y155.05
G1 X123.13 Y145.92 E901.87244
G0 X122.42 Y145.92
G1 X114.01 Y154.34 E902.36727
G0 X114.01 Y153.63
G1 X121.72 Y145.92 E902.82053
G0 X121.01 Y145.92
G1 X114.01 Y152.93 E903.23222
G0 X114.01 Y152.22
G1 X120.30 Y145.92 E903.60234
G0 X119.59 Y145.92
G1 X114.01 Y151.51 E903.93089
G0 X114.01 Y150.81
G1 X118.89 Y145.92 E904.21788
G0 X118.18 Y145.92
G1 X114.01 Y150.10 E904.46329
G0 X114.01 Y149.39
G1 X117.47 Y145.92 E904.66714
G0 X116.77 Y145.92
G1 X114.01 Y148.68 E904.82938
G0 X114.01 Y147.98
G1 X116.06 Y145.92 E904.95003
G0 X115.35 Y145.92
G1 X114.01 Y147.27 E905.02912
G0 X114.01 Y146.56
G1 X114.64 Y145.92 E905.06663
;LAYER:6
G0 X113.83 Y145.75 Z1.50
;TYPE:WALL-INNER
G1 F3960 X191.17 Y145.75 E908.28197
G1 X191.17 Y159.25 E908.84323
G1 X113.83 Y159.25 E912.05857
G1 X113.83 Y145.75 E912.61984
G0 F6000 X113.33 Y145.25
G1 F3960 X191.67 Y145.25 E915.87675
G1 X191.67 Y159.75 E916.47959
G1 X113.33 Y159.75 E919.73651
G1 X113.33 Y145.25 E920.33935
G0 F6000 X112.83 Y144.75
;TYPE:WALL-OUTER
G1 F3960 X192.17 Y144.75 E923.63784
G1 X192.17 Y160.25 E924.28225
G1 X112.83 Y160.25 E927.58075
G1 X112.83 Y144.75 E928.22516
G0 F6000 X113.18 Y145.01
G0 X114.11 Y145.92
;TYPE:FILL
G1 F3960 X127.25 Y159.07 E928.99830
G0 F6000 X127.30 Y159.07
G1 F3960 X140.45 Y145.92 E929.77150
G0 F6000 X142.39 Y145.92
G1 F3960 X155.54 Y159.07 E930.54464
G0 F6000 X155.59 Y159.07
G1 F3960 X168.74 Y145.92 E931.31784
G0 F6000 X170.67 Y145.92
G1 F3960 X183.82 Y159.07 E932.09101
G0 F6000 X183.87 Y159.07
G1 F3960 X190.99 Y151.95 E932.50973
G0 F6000 X190.99 Y152.10
G1 F3960 X184.81 Y145.92 E932.87297
G0 F6000 X182.88 Y145.92
G1 F3960 X169.73 Y159.07 E933.64617
G0 F6000 X169.68 Y159.07
G1 F3960 X156.53 Y145.92 E934.41931
G0 F6000 X154.60 Y145.92
G1 F3960 X141.44 Y159.07 E935.19251
G0 F6000 X141.40 Y159.07
G1 F3960 X128.25 Y145.92 E935.96565
G0 F6000 X126.31 Y145.92
G1 F3960 X114.01 Y158.23 E936.68913
G0 F6000 X114.00 Y152.90
G1 F3960 X120.18 Y159.07 E937.05238
G0 F6000 X120.23 Y159.07
G1 F3960 X133.38 Y145.92 E937.82555
G0 F6000 X135.32 Y145.92
G1 F3960 X148.47 Y159.07 E938.59869
G0 F6000 X148.52 Y159.07
G1 F3960 X161.67 Y145.92 E939.37188
G0 F6000 X163.60 Y145.92
G1 F3960 X176.75 Y159.07 E940.14503
G0 F6000 X176.80 Y159.07
G1 F3960 X189.95 Y145.92 E940.91822
G0 F6000 X177.74 Y145.92
G1 F3960 X190.89 Y159.07 E941.69139
G0 F6000 X175.81 Y145.92
G1 F3960 X162.66 Y159.07 E942.46459
G0 F6000 X162.61 Y159.07
G1 F3960 X149.46 Y145.92 E943.23773
G0 F6000 X147.53 Y145.92
G1 F3960 X134.37 Y159.07 E944.01093
G0 F6000 X134.32 Y159.07
G1 F3960 X121.18 Y145.92 E944.78407
G0 F6000 X119.24 Y145.92
G1 F3960 X114.01 Y151.16 E945.09181
;LAYER:7
G0 F6000 X113.83 Y145.75 Z1.70
;TYPE:WALL-INNER
G1 F4020 X191.17 Y145.75 E948.30715
G1 X191.17 Y159.25 E948.86842
G1 X113.83 Y159.25 E952.08376
G1 X113.83 Y145.75 E952.64502
G0 F6000 X113.33 Y145.25
G1 F4020 X191.67 Y145.25 E955.90194
G1 X191.67 Y159.75 E956.50478
G1 X113.33 Y159.75 E959.76169
G1 X113.33 Y145.25 E960.36453
G0 F6000 X112.83 Y144.75
;TYPE:WALL-OUTER
G1 F4020 X192.17 Y144.75 E963.66302
G1 X192.17 Y160.25 E964.30744
G1 X112.83 Y160.25 E967.60593
G1 X112.83 Y144.75 E968.25034
G0 F6000 X113.18 Y145.01
G0 X114.11 Y145.92
;TYPE:FILL
G1 F4020 X127.25 Y159.07 E969.02348
G0 F6000 X127.30 Y159.07
G1 F4020 X140.45 Y145.92 E969.79668
G0 F6000 X142.39 Y145.92
G1 F4020 X155.54 Y159.07 E970.56982
G0 F6000 X155.59 Y159.07
G1 F4020 X168.74 Y145.92 E971.34302
G0 F6000 X170.67 Y145.92
G1 F4020 X183.82 Y159.07 E972.11619
G0 F6000 X183.87 Y159.07
G1 F4020 X190.99 Y151.95 E972.53491
G0 F6000 X190.99 Y152.10
G1 F4020 X184.81 Y145.92 E972.89815
G0 F6000 X182.88 Y145.92
G1 F4020 X169.73 Y159.07 E973.67135
G0 F6000 X169.68 Y159.07
G1 F4020 X156.53 Y145.92 E974.44449
G0 F6000 X154.60 Y145.92
G1 F4020 X141.44 Y159.07 E975.21769
G0 F6000 X141.40 Y159.07
G1 F4020 X128.25 Y145.92 E975.99083
G0 F6000 X126.31 Y145.92
G1 F4020 X114.01 Y158.23 E976.71432
G0 F6000 X114.00 Y152.90
G1 F4020 X120.18 Y159.07 E977.07756
G0 F6000 X120.23 Y159.07
G1 F4020 X133.38 Y145.92 E977.85073
G0 F6000 X135.32 Y145.92
G1 F4020 X148.47 Y159.07 E978.62387
G0 F6000 X148.52 Y159.07
G1 F4020 X161.67 Y145.92 E979.39707
G0 F6000 X163.60 Y145.92
G1 F4020 X176.75 Y159.07 E980.17021
G0 F6000 X176.80 Y159.07
G1 F4020 X189.95 Y145.92 E980.94341
G0 F6000 X177.74 Y145.92
G1 F4020 X190.89 Y159.07 E981.71658
G0 F6000 X175.81 Y145.92
G1 F4020 X162.66 Y159.07 E982.48978
G0 F6000 X162.61 Y159.07
G1 F4020 X149.46 Y145.92 E983.26292
G0 F6000 X147.53 Y145.92
G1 F4020 X134.37 Y159.07 E984.03612
G0 F6000 X134.32 Y159.07
G1 F4020 X121.18 Y145.92 E984.80926
G0 F6000 X119.24 Y145.92
G1 F4020 X114.01 Y151.16 E985.11700
;LAYER:8
G0 F6000 X113.83 Y145.75 Z1.90
;TYPE:WALL-INNER
G1 F4020 X191.17 Y145.75 E988.33234
G1 X191.17 Y159.25 E988.89360
G1 X113.83 Y159.25 E992.10894
G1 X113.83 Y145.75 E992.67021
G0 F6000 X113.33 Y145.25
G1 F4020 X191.67 Y145.25 E995.92712
G1 X191.67 Y159.75 E996.52996
G1 X113.33 Y159.75 E999.78688
G1 X113.33 Y145.25 E1000.38972
G0 F6000 X112.83 Y144.75
;TYPE:WALL-OUTER
G1 F4020 X192.17 Y144.75 E1003.68821
G1 X192.17 Y160.25 E1004.33262
G1 X112.83 Y160.25 E1007.63111
G1 X112.83 Y144.75 E1008.27553
G0 F6000 X113.18 Y145.01
G0 X114.11 Y145.92
;TYPE:FILL
G1 F4020 X127.25 Y159.07 E1009.04867
G0 F6000 X127.30 Y159.07
G1 F4020 X140.45 Y145.92 E1009.82187
G0 F6000 X142.39 Y145.92
G1 F4020 X155.54 Y159.07 E1010.59501
G0 F6000 X155.59 Y159.07
G1 F4020 X168.74 Y145.92 E1011.36821
G0 F6000 X170.67 Y145.92
G1 F4020 X183.82 Y159.07 E1012.14138
G0 F6000 X183.87 Y159.07
G1 F4020 X190.99 Y151.95 E1012.56009
G0 F6000 X190.99 Y152.10
G1 F4020 X184.81 Y145.92 E1012.92334
G0 F6000 X182.88 Y145.92
G1 F4020 X169.73 Y159.07 E1013.69654
G0 F6000 X169.68 Y159.07
G1 F4020 X156.53 Y145.92 E1014.46968
G0 F6000 X154.60 Y145.92
G1 F4020 X141.44 Y159.07 E1015.24287
G0 F6000 X141.40 Y159.07
G1 F4020 X128.25 Y145.92 E1016.01601
G0 F6000 X126.31 Y145.92
G1 F4020 X114.01 Y158.23 E1016.73950
G0 F6000 X114.00 Y152.90
G1 F4020 X120.18 Y159.07 E1017.10274
G0 F6000 X120.23 Y159.07
G1 F4020 X133.38 Y145.92 E1017.87591
G0 F6000 X135.32 Y145.92
G1 F4020 X148.47 Y159.07 E1018.64905
G0 F6000 X148.52 Y159.07
G1 F4020 X161.67 Y145.92 E1019.42225
G0 F6000 X163.60 Y145.92
G1 F4020 X176.75 Y159.07 E1020.19539
G0 F6000 X176.80 Y159.07
G1 F4020 X189.95 Y145.92 E1020.96859
G0 F6000 X177.74 Y145.92
G1 F4020 X190.89 Y159.07 E1021.74176
G0 F6000 X175.81 Y145.92
G1 F4020 X162.66 Y159.07 E1022.51496
G0 F6000 X162.61 Y159.07
G1 F4020 X149.46 Y145.92 E1023.28810
G0 F6000 X147.53 Y145.92
G1 F4020 X134.37 Y159.07 E1024.06130
G0 F6000 X134.32 Y159.07
G1 F4020 X121.18 Y145.92 E1024.83444
G0 F6000 X119.24 Y145.92
G1 F4020 X114.01 Y151.16 E1025.14218
;LAYER:9
G0 F6000 X113.83 Y145.75 Z2.10
;TYPE:WALL-INNER
G1 F4020 X191.17 Y145.75 E1028.35752
G1 X191.17 Y159.25 E1028.91878
G1 X113.83 Y159.25 E1032.13412
G1 X113.83 Y145.75 E1032.69539
G0 F6000 X113.33 Y145.25
G1 F4020 X191.67 Y145.25 E1035.95231
G1 X191.67 Y159.75 E1036.55515
G1 X113.33 Y159.75 E1039.81206
G1 X113.33 Y145.25 E1040.41490
G0 F6000 X112.83 Y144.75
;TYPE:WALL-OUTER
G1 F4020 X192.17 Y144.75 E1043.71339
G1 X192.17 Y160.25 E1044.35781
G1 X112.83 Y160.25 E1047.65630
G1 X112.83 Y144.75 E1048.30071
G0 F6000 X113.18 Y145.01
G0 X114.11 Y145.92
;TYPE:FILL
G1 F4020 X127.25 Y159.07 E1049.07385
G0 F6000 X127.30 Y159.07
G1 F4020 X140.45 Y145.92 E1049.84705
G0 F6000 X142.39 Y145.92
G1 F4020 X155.54 Y159.07 E1050.62019
G0 F6000 X155.59 Y159.07
G1 F4020 X168.74 Y145.92 E1051.39339
G0 F6000 X170.67 Y145.92
G1 F4020 X183.82 Y159.07 E1052.16656
G0 F6000 X183.87 Y159.07
G1 F4020 X190.99 Y151.95 E1052.58528
G0 F6000 X190.99 Y152.10
G1 F4020 X184.81 Y145.92 E1052.94852
G0 F6000 X182.88 Y145.92
G1 F4020 X169.73 Y159.07 E1053.72172
G0 F6000 X169.68 Y159.07
G1 F4020 X156.53 Y145.92 E1054.49486
G0 F6000 X154.60 Y145.92
G1 F4020 X141.44 Y159.07 E1055.26806
G0 F6000 X141.40 Y159.07
G1 F4020 X128.25 Y145.92 E1056.04120
G0 F6000 X126.31 Y145.92
G1 F4020 X114.01 Y158.23 E1056.76469
G0 F6000 X114.00 Y152.90
G1 F4020 X120.18 Y159.07 E1057.12793
G0 F6000 X120.23 Y159.07
G1 F4020 X133.38 Y145.92 E1057.90110
G0 F6000 X135.32 Y145.92
G1 F4020 X148.47 Y159.07 E1058.67424
G0 F6000 X148.52 Y159.07
G1 F4020 X161.67 Y145.92 E1059.44744
G0 F6000 X163.60 Y145.92
G1 F4020 X176.75 Y159.07 E1060.22058
G0 F6000 X176.80 Y159.07
G1 F4020 X189.95 Y145.92 E1060.99378
G0 F6000 X177.74 Y145.92
G1 F4020 X190.89 Y159.07 E1061.76695
G0 F6000 X175.81 Y145.92
G1 F4020 X162.66 Y159.07 E1062.54014
G0 F6000 X162.61 Y159.07
G1 F4020 X149.46 Y145.92 E1063.31328
G0 F6000 X147.53 Y145.92
G1 F4020 X134.37 Y159.07 E1064.08648
G0 F6000 X134.32 Y159.07
G1 F4020 X121.18 Y145.92 E1064.85962
G0 F6000 X119.24 Y145.92
G1 F4020 X114.01 Y151.16 E1065.16736
;LAYER:10
G0 F6000 X113.83 Y145.75 Z2.30
;TYPE:WALL-INNER
G1 F4020 X191.17 Y145.75 E1068.38270
G1 X191.17 Y159.25 E1068.94397
G1 X113.83 Y159.25 E1072.15931
G1 X113.83 Y145.75 E1072.72057
G0 F6000 X113.33 Y145.25
G1 F4020 X191.67 Y145.25 E1075.97749
G1 X191.67 Y159.75 E1076.58033
G1 X113.33 Y159.75 E1079.83724
G1 X113.33 Y145.25 E1080.44008
G0 F6000 X112.83 Y144.75
;TYPE:WALL-OUTER
G1 F4020 X192.17 Y144.75 E1083.73858
G1 X192.17 Y160.25 E1084.38299
G1 X112.83 Y160.25 E1087.68148
G1 X112.83 Y144.75 E1088.32590
G0 F6000 X113.18 Y145.01
G0 X114.11 Y145.92
;TYPE:FILL
G1 F4020 X127.25 Y159.07 E1089.09904
G0 F6000 X127.30 Y159.07
G1 F4020 X140.45 Y145.92 E1089.87224
G0 F6000 X142.39 Y145.92
G1 F4020 X155.54 Y159.07 E1090.64538
G0 F6000 X155.59 Y159.07
G1 F4020 X168.74 Y145.92 E1091.41857
G0 F6000 X170.67 Y145.92
G1 F4020 X183.82 Y159.07 E1092.19174
G0 F6000 X183.87 Y159.07
G1 F4020 X190.99 Y151.95 E1092.61046
G0 F6000 X190.99 Y152.10
G1 F4020 X184.81 Y145.92 E1092.97370
G0 F6000 X182.88 Y145.92
G1 F4020 X169.73 Y159.07 E1093.74690
G0 F6000 X169.68 Y159.07
G1 F4020 X156.53 Y145.92 E1094.52004
G0 F6000 X154.60 Y145.92
G1 F4020 X141.44 Y159.07 E1095.29324
G0 F6000 X141.40 Y159.07
G1 F4020 X128.25 Y145.92 E1096.06638
G0 F6000 X126.31 Y145.92
G1 F4020 X114.01 Y158.23 E1096.78987
G0 F6000 X114.00 Y152.90
G1 F4020 X120.18 Y159.07 E1097.15311
G0 F6000 X120.23 Y159.07
G1 F4020 X133.38 Y145.92 E1097.92628
G0 F6000 X135.32 Y145.92
G1 F4020 X148.47 Y159.07 E1098.69942
G0 F6000 X148.52 Y159.07
G1 F4020 X161.67 Y145.92 E1099.47262
G0 F6000 X163.60 Y145.92
G1 F4020 X176.75 Y159.07 E1100.24576
G0 F6000 X176.80 Y159.07
G1 F4020 X189.95 Y145.92 E1101.01896
G0 F6000 X177.74 Y145.92
G1 F4020 X190.89 Y159.07 E1101.79213
G0 F6000 X175.81 Y145.92
G1 F4020 X162.66 Y159.07 E1102.56533
G0 F6000 X162.61 Y159.07
G1 F4020 X149.46 Y145.92 E1103.33847
G0 F6000 X147.53 Y145.92
G1 F4020 X134.37 Y159.07 E1104.11167
G0 F6000 X134.32 Y159.07
G1 F4020 X121.18 Y145.92 E1104.88481
G0 F6000 X119.24 Y145.92
G1 F4020 X114.01 Y151.16 E1105.19255
;LAYER:11
G0 F6000 X113.83 Y145.75 Z2.50
;TYPE:WALL-INNER
G1 F4020 X191.17 Y145.75 E1108.40789
G1 X191.17 Y159.25 E1108.96915
G1 X113.83 Y159.25 E1112.18449
G1 X113.83 Y145.75 E1112.74576
G0 F6000 X113.33 Y145.25
G1 F4020 X191.67 Y145.25 E1116.00267
G1 X191.67 Y159.75 E1116.60551
G1 X113.33 Y159.75 E1119.86243
G1 X113.33 Y145.25 E1120.46527
G0 F6000 X112.83 Y144.75
;TYPE:WALL-OUTER
G1 F4020 X192.17 Y144.75 E1123.76376
G1 X192.17 Y160.25 E1124.40817
G1 X112.83 Y160.25 E1127.70667
G1 X112.83 Y144.75 E1128.35108
G0 F6000 X113.18 Y145.01
G0 X114.11 Y145.92
;TYPE:FILL
G1 F4020 X127.25 Y159.07 E1129.12422
G0 F6000 X127.30 Y159.07
G1 F4020 X140.45 Y145.92 E1129.89742
G0 F6000 X142.39 Y145.92
G1 F4020 X155.54 Y159.07 E1130.67056
G0 F6000 X155.59 Y159.07
G1 F4020 X168.74 Y145.92 E1131.44376
G0 F6000 X170.67 Y145.92
G1 F4020 X183.82 Y159.07 E1132.21693
G0 F6000 X183.87 Y159.07
G1 F4020 X190.99 Y151.95 E1132.63565
G0 F6000 X190.99 Y152.10
G1 F4020 X184.81 Y145.92 E1132.99889
G0 F6000 X182.88 Y145.92
G1 F4020 X169.73 Y159.07 E1133.77209
G0 F6000 X169.68 Y159.07
G1 F4020 X156.53 Y145.92 E1134.54523
G0 F6000 X154.60 Y145.92
G1 F4020 X141.44 Y159.07 E1135.31843
G0 F6000 X141.40 Y159.07
G1 F4020 X128.25 Y145.92 E1136.09157
G0 F6000 X126.31 Y145.92
G1 F4020 X114.01 Y158.23 E1136.81505
G0 F6000 X114.00 Y152.90
G1 F4020 X120.18 Y159.07 E1137.17830
G0 F6000 X120.23 Y159.07
G1 F4020 X133.38 Y145.92 E1137.95147
G0 F6000 X135.32 Y145.92
G1 F4020 X148.47 Y159.07 E1138.72461
G0 F6000 X148.52 Y159.07
G1 F4020 X161.67 Y145.92 E1139.49780
G0 F6000 X163.60 Y145.92
G1 F4020 X176.75 Y159.07 E1140.27094
G0 F6000 X176.80 Y159.07
G1 F4020 X189.95 Y145.92 E1141.04414
G0 F6000 X177.74 Y145.92
G1 F4020 X190.89 Y159.07 E1141.81731
G0 F6000 X175.81 Y145.92
G1 F4020 X162.66 Y159.07 E1142.59051
G0 F6000 X162.61 Y159.07
G1 F4020 X149.46 Y145.92 E1143.36365
G0 F6000 X147.53 Y145.92
G1 F4020 X134.37 Y159.07 E1144.13685
G0 F6000 X134.32 Y159.07
G1 F4020 X121.18 Y145.92 E1144.90999
G0 F6000 X119.24 Y145.92
G1 F4020 X114.01 Y151.16 E1145.21773
;LAYER:12
G0 F6000 X113.83 Y145.75 Z2.70
;TYPE:WALL-INNER
G1 F4020 X191.17 Y145.75 E1148.43307
G1 X191.17 Y159.25 E1148.99434
G1 X113.83 Y159.25 E1152.20968
G1 X113.83 Y145.75 E1152.77094
G0 F6000 X113.33 Y145.25
G1 F4020 X191.67 Y145.25 E1156.02786
G1 X191.67 Y159.75 E1156.63070
G1 X113.33 Y159.75 E1159.88761
G1 X113.33 Y145.25 E1160.49045
G0 F6000 X112.83 Y144.75
;TYPE:WALL-OUTER
G1 F4020 X192.17 Y144.75 E1163.78894
G1 X192.17 Y160.25 E1164.43336
G1 X112.83 Y160.25 E1167.73185
G1 X112.83 Y144.75 E1168.37626
G0 F6000 X113.18 Y145.01
G0 X114.11 Y145.92
;TYPE:FILL
G1 F4020 X127.25 Y159.07 E1169.14940
G0 F6000 X127.30 Y159.07
G1 F4020 X140.45 Y145.92 E1169.92260
G0 F6000 X142.39 Y145.92
G1 F4020 X155.54 Y159.07 E1170.69574
G0 F6000 X155.59 Y159.07
G1 F4020 X168.74 Y145.92 E1171.46894
G0 F6000 X170.67 Y145.92
G1 F4020 X183.82 Y159.07 E1172.24211
G0 F6000 X183.87 Y159.07
G1 F4020 X190.99 Y151.95 E1172.66083
G0 F6000 X190.99 Y152.10
G1 F4020 X184.81 Y145.92 E1173.02407
G0 F6000 X182.88 Y145.92
G1 F4020 X169.73 Y159.07 E1173.79727
G0 F6000 X169.68 Y159.07
G1 F4020 X156.53 Y145.92 E1174.57041
G0 F6000 X154.60 Y145.92
G1 F4020 X141.44 Y159.07 E1175.34361
G0 F6000 X141.40 Y159.07
G1 F4020 X128.25 Y145.92 E1176.11675
G0 F6000 X126.31 Y145.92
G1 F4020 X114.01 Y158.23 E1176.84024
G0 F6000 X114.00 Y152.90
G1 F4020 X120.18 Y159.07 E1177.20348
G0 F6000 X120.23 Y159.07
G1 F4020 X133.38 Y145.92 E1177.97665
G0 F6000 X135.32 Y145.92
G1 F4020 X148.47 Y159.07 E1178.74979
G0 F6000 X148.52 Y159.07
G1 F4020 X161.67 Y145.92 E1179.52299
G0 F6000 X163.60 Y145.92
G1 F4020 X176.75 Y159.07 E1180.29613
G0 F6000 X176.80 Y159.07
G1 F4020 X189.95 Y145.92 E1181.06933
G0 F6000 X177.74 Y145.92
G1 F4020 X190.89 Y159.07 E1181.84250
G0 F6000 X175.81 Y145.92
G1 F4020 X162.66 Y159.07 E1182.61570
G0 F6000 X162.61 Y159.07
G1 F4020 X149.46 Y145.92 E1183.38884
G0 F6000 X147.53 Y145.92
G1 F4020 X134.37 Y159.07 E1184.16204
G0 F6000 X134.32 Y159.07
G1 F4020 X121.18 Y145.92 E1184.93518
G0 F6000 X119.24 Y145.92
G1 F4020 X114.01 Y151.16 E1185.24292
;LAYER:13
G0 F6000 X113.83 Y145.75 Z2.90
;TYPE:WALL-INNER
G1 F4020 X191.17 Y145.75 E1188.45826
G1 X191.17 Y159.25 E1189.01952
G1 X113.83 Y159.25 E1192.23486
G1 X113.83 Y145.75 E1192.79613
G0 F6000 X113.33 Y145.25
G1 F4020 X191.67 Y145.25 E1196.05304
G1 X191.67 Y159.75 E1196.65588
G1 X113.33 Y159.75 E1199.91280
G1 X113.33 Y145.25 E1200.51564
G0 F6000 X112.83 Y144.75
;TYPE:WALL-OUTER
G1 F4020 X192.17 Y144.75 E1203.81413
G1 X192.17 Y160.25 E1204.45854
G1 X112.83 Y160.25 E1207.75703
G1 X112.83 Y144.75 E1208.40145
G0 F6000 X113.18 Y145.01
G0 X114.11 Y145.92
;TYPE:FILL
G1 F4020 X127.25 Y159.07 E1209.17459
G0 F6000 X127.30 Y159.07
G1 F4020 X140.45 Y145.92 E1209.94779
G0 F6000 X142.39 Y145.92
G1 F4020 X155.54 Y159.07 E1210.72093
G0 F6000 X155.59 Y159.07
G1 F4020 X168.74 Y145.92 E1211.49413
G0 F6000 X170.67 Y145.92
G1 F4020 X183.82 Y159.07 E1212.26730
G0 F6000 X183.87 Y159.07
G1 F4020 X190.99 Y151.95 E1212.68601
G0 F6000 X190.99 Y152.10
G1 F4020 X184.81 Y145.92 E1213.04926
G0 F6000 X182.88 Y145.92
G1 F4020 X169.73 Y159.07 E1213.82245
G0 F6000 X169.68 Y159.07
G1 F4020 X156.53 Y145.92 E1214.59560
G0 F6000 X154.60 Y145.92
G1 F4020 X141.44 Y159.07 E1215.36879
G0 F6000 X141.40 Y159.07
G1 F4020 X128.25 Y145.92 E1216.14193
G0 F6000 X126.31 Y145.92
G1 F4020 X114.01 Y158.23 E1216.86542
G0 F6000 X114.00 Y152.90
G1 F4020 X120.18 Y159.07 E1217.22866
G0 F6000 X120.23 Y159.07
G1 F4020 X133.38 Y145.92 E1218.00183
G0 F6000 X135.32 Y145.92
G1 F4020 X148.47 Y159.07 E1218.77497
G0 F6000 X148.52 Y159.07
G1 F4020 X161.67 Y145.92 E1219.54817
G0 F6000 X163.60 Y145.92
G1 F4020 X176.75 Y159.07 E1220.32131
G0 F6000 X176.80 Y159.07
G1 F4020 X189.95 Y145.92 E1221.09451
G0 F6000 X177.74 Y145.92
G1 F4020 X190.89 Y159.07 E1221.86768
G0 F6000 X175.81 Y145.92
G1 F4020 X162.66 Y159.07 E1222.64088
G0 F6000 X162.61 Y159.07
G1 F4020 X149.46 Y145.92 E1223.41402
G0 F6000 X147.53 Y145.92
G1 F4020 X134.37 Y159.07 E1224.18722
G0 F6000 X134.32 Y159.07
G1 F4020 X121.18 Y145.92 E1224.96036
G0 F6000 X119.24 Y145.92
G1 F4020 X114.01 Y151.16 E1225.26810
;LAYER:14
G0 F6000 X113.83 Y145.75 Z3.10
;TYPE:WALL-INNER
G1 F4020 X191.17 Y145.75 E1228.48344
G1 X191.17 Y159.25 E1229.04470
G1 X113.83 Y159.25 E1232.26004
G1 X113.83 Y145.75 E1232.82131
G0 F6000 X113.33 Y145.25
G1 F4020 X191.67 Y145.25 E1236.07822
G1 X191.67 Y159.75 E1236.68106
G1 X113.33 Y159.75 E1239.93798
G1 X113.33 Y145.25 E1240.54082
G0 F6000 X112.83 Y144.75
;TYPE:WALL-OUTER
G1 F4020 X192.17 Y144.75 E1243.83931
G1 X192.17 Y160.25 E1244.48373
G1 X112.83 Y160.25 E1247.78222
G1 X112.83 Y144.75 E1248.42663
G0 F6000 X113.18 Y145.01
G0 X114.11 Y145.92
;TYPE:FILL
G1 F4020 X127.25 Y159.07 E1249.19977
G0 F6000 X127.30 Y159.07
G1 F4020 X140.45 Y145.92 E1249.97297
G0 F6000 X142.39 Y145.92
G1 F4020 X155.54 Y159.07 E1250.74611
G0 F6000 X155.59 Y159.07
G1 F4020 X168.74 Y145.92 E1251.51931
G0 F6000 X170.67 Y145.92
G1 F4020 X183.82 Y159.07 E1252.29248
G0 F6000 X183.87 Y159.07
G1 F4020 X190.99 Y151.95 E1252.71120
G0 F6000 X190.99 Y152.10
G1 F4020 X184.81 Y145.92 E1253.07444
G0 F6000 X182.88 Y145.92
G1 F4020 X169.73 Y159.07 E1253.84764
G0 F6000 X169.68 Y159.07
G1 F4020 X156.53 Y145.92 E1254.62078
G0 F6000 X154.60 Y145.92
G1 F4020 X141.44 Y159.07 E1255.39398
G0 F6000 X141.40 Y159.07
G1 F4020 X128.25 Y145.92 E1256.16712
G0 F6000 X126.31 Y145.92
G1 F4020 X114.01 Y158.23 E1256.89061
G0 F6000 X114.00 Y152.90
G1 F4020 X120.18 Y159.07 E1257.25385
G0 F6000 X120.23 Y159.07
G1 F4020 X133.38 Y145.92 E1258.02702
G0 F6000 X135.32 Y145.92
G1 F4020 X148.47 Y159.07 E1258.80016
G0 F6000 X148.52 Y159.07
G1 F4020 X161.67 Y145.92 E1259.57336
G0 F6000 X163.60 Y145.92
G1 F4020 X176.75 Y159.07 E1260.34650
G0 F6000 X176.80 Y159.07
G1 F4020 X189.95 Y145.92 E1261.11970
G0 F6000 X177.74 Y145.92
G1 F4020 X190.89 Y159.07 E1261.89287
G0 F6000 X175.81 Y145.92
G1 F4020 X162.66 Y159.07 E1262.66606
G0 F6000 X162.61 Y159.07
G1 F4020 X149.46 Y145.92 E1263.43920
G0 F6000 X147.53 Y145.92
G1 F4020 X134.37 Y159.07 E1264.21240
G0 F6000 X134.32 Y159.07
G1 F4020 X121.18 Y145.92 E1264.98554
G0 F6000 X119.24 Y145.92
G1 F4020 X114.01 Y151.16 E1265.29328
;LAYER:15
G0 F6000 X113.83 Y145.75 Z3.30
;TYPE:WALL-INNER
G1 F4020 X191.17 Y145.75 E1268.50862
G1 X191.17 Y159.25 E1269.06989
G1 X113.83 Y159.25 E1272.28523
G1 X113.83 Y145.75 E1272.84649
G0 F6000 X113.33 Y145.25
G1 F4020 X191.67 Y145.25 E1276.10341
G1 X191.67 Y159.75 E1276.70625
G1 X113.33 Y159.75 E1279.96316
G1 X113.33 Y145.25 E1280.56600
G0 F6000 X112.83 Y144.75
;TYPE:WALL-OUTER
G1 F4020 X192.17 Y144.75 E1283.86450
G1 X192.17 Y160.25 E1284.50891
G1 X112.83 Y160.25 E1287.80740
G1 X112.83 Y144.75 E1288.45182
G0 F6000 X113.18 Y145.01
G0 X114.11 Y145.92
;TYPE:FILL
G1 F4020 X127.25 Y159.07 E1289.22496
G0 F6000 X127.30 Y159.07
G1 F4020 X140.45 Y145.92 E1289.99816
G0 F6000 X142.39 Y145.92
G1 F4020 X155.54 Y159.07 E1290.77130
G0 F6000 X155.59 Y159.07
G1 F4020 X168.74 Y145.92 E1291.54449
G0 F6000 X170.67 Y145.92
G1 F4020 X183.82 Y159.07 E1292.31766
G0 F6000 X183.87 Y159.07
G1 F4020 X190.99 Y151.95 E1292.73638
G0 F6000 X190.99 Y152.10
G1 F4020 X184.81 Y145.92 E1293.09962
G0 F6000 X182.88 Y145.92
G1 F4020 X169.73 Y159.07 E1293.87282
G0 F6000 X169.68 Y159.07
G1 F4020 X156.53 Y145.92 E1294.64596
G0 F6000 X154.60 Y145.92
G1 F4020 X141.44 Y159.07 E1295.41916
G0 F6000 X141.40 Y159.07
G1 F4020 X128.25 Y145.92 E1296.19230
G0 F6000 X126.31 Y145.92
G1 F4020 X114.01 Y158.23 E1296.91579
G0 F6000 X114.00 Y152.90
G1 F4020 X120.18 Y159.07 E1297.27903
G0 F6000 X120.23 Y159.07
G1 F4020 X133.38 Y145.92 E1298.05220
G0 F6000 X135.32 Y145.92
G1 F4020 X148.47 Y159.07 E1298.82534
G0 F6000 X148.52 Y159.07
G1 F4020 X161.67 Y145.92 E1299.59854
G0 F6000 X163.60 Y145.92
G1 F4020 X176.75 Y159.07 E1300.37168
G0 F6000 X176.80 Y159.07
G1 F4020 X189.95 Y145.92 E1301.14488
G0 F6000 X177.74 Y145.92
G1 F4020 X190.89 Y159.07 E1301.91805
G0 F6000 X175.81 Y145.92
G1 F4020 X162.66 Y159.07 E1302.69125
G0 F6000 X162.61 Y159.07
G1 F4020 X149.46 Y145.92 E1303.46439
G0 F6000 X147.53 Y145.92
G1 F4020 X134.37 Y159.07 E1304.23759
G0 F6000 X134.32 Y159.07
G1 F4020 X121.18 Y145.92 E1305.01073
G0 F6000 X119.24 Y145.92
G1 F4020 X114.01 Y151.16 E1305.31847
;LAYER:16
G0 F6000 X113.83 Y145.75 Z3.50
;TYPE:WALL-INNER
G1 F4020 X191.17 Y145.75 E1308.53381
G1 X191.17 Y159.25 E1309.09507
G1 X113.83 Y159.25 E1312.31041
G1 X113.83 Y145.75 E1312.87168
G0 F6000 X113.33 Y145.25
G1 F4020 X191.67 Y145.25 E1316.12859
G1 X191.67 Y159.75 E1316.73143
G1 X113.33 Y159.75 E1319.98835
G1 X113.33 Y145.25 E1320.59119
G0 F6000 X112.83 Y144.75
;TYPE:WALL-OUTER
G1 F4020 X192.17 Y144.75 E1323.88968
G1 X192.17 Y160.25 E1324.53409
G1 X112.83 Y160.25 E1327.83258
G1 X112.83 Y144.75 E1328.47700
G0 F6000 X113.18 Y145.01
G0 X114.11 Y145.92
;TYPE:FILL
G1 F4020 X127.25 Y159.07 E1329.25014
G0 F6000 X127.30 Y159.07
G1 F4020 X140.45 Y145.92 E1330.02334
G0 F6000 X142.39 Y145.92
G1 F4020 X155.54 Y159.07 E1330.79648
G0 F6000 X155.59 Y159.07
G1 F4020 X168.74 Y145.92 E1331.56968
G0 F6000 X170.67 Y145.92
G1 F4020 X183.82 Y159.07 E1332.34285
G0 F6000 X183.87 Y159.07
G1 F4020 X190.99 Y151.95 E1332.76156
G0 F6000 X190.99 Y152.10
G1 F4020 X184.81 Y145.92 E1333.12481
G0 F6000 X182.88 Y145.92
G1 F4020 X169.73 Y159.07 E1333.89801
G0 F6000 X169.68 Y159.07
G1 F4020 X156.53 Y145.92 E1334.67115
G0 F6000 X154.60 Y145.92
G1 F4020 X141.44 Y159.07 E1335.44435
G0 F6000 X141.40 Y159.07
G1 F4020 X128.25 Y145.92 E1336.21749
G0 F6000 X126.31 Y145.92
G1 F4020 X114.01 Y158.23 E1336.94097
G0 F6000 X114.00 Y152.90
G1 F4020 X120.18 Y159.07 E1337.30422
G0 F6000 X120.23 Y159.07
G1 F4020 X133.38 Y145.92 E1338.07739
G0 F6000 X135.32 Y145.92
G1 F4020 X148.47 Y159.07 E1338.85053
G0 F6000 X148.52 Y159.07
G1 F4020 X161.67 Y145.92 E1339.62372
G0 F6000 X163.60 Y145.92
G1 F4020 X176.75 Y159.07 E1340.39686
G0 F6000 X176.80 Y159.07
G1 F4020 X189.95 Y145.92 E1341.17006
G0 F6000 X177.74 Y145.92
G1 F4020 X190.89 Y159.07 E1341.94323
G0 F6000 X175.81 Y145.92
G1 F4020 X162.66 Y159.07 E1342.71643
G0 F6000 X162.61 Y159.07
G1 F4020 X149.46 Y145.92 E1343.48957
G0 F6000 X147.53 Y145.92
G1 F4020 X134.37 Y159.07 E1344.26277
G0 F6000 X134.32 Y159.07
G1 F4020 X121.18 Y145.92 E1345.03591
G0 F6000 X119.24 Y145.92
G1 F4020 X114.01 Y151.16 E1345.34365
;LAYER:17
G0 F6000 X113.83 Y145.75 Z3.70
;TYPE:WALL-INNER
G1 F4020 X191.17 Y145.75 E1348.55899
G1 X191.17 Y159.25 E1349.12026
G1 X113.83 Y159.25 E1352.33560
G1 X113.83 Y145.75 E1352.89686
G0 F6000 X113.33 Y145.25
G1 F4020 X191.67 Y145.25 E1356.15378
G1 X191.67 Y159.75 E1356.75662
G1 X113.33 Y159.75 E1360.01353
G1 X113.33 Y145.25 E1360.61637
G0 F6000 X112.83 Y144.75
;TYPE:WALL-OUTER
G1 F4020 X192.17 Y144.75 E1363.91486
G1 X192.17 Y160.25 E1364.55928
G1 X112.83 Y160.25 E1367.85777
G1 X112.83 Y144.75 E1368.50218
G0 F6000 X113.18 Y145.01
G0 X114.11 Y145.92
;TYPE:FILL
G1 F4020 X127.25 Y159.07 E1369.27532
G0 F6000 X127.30 Y159.07
G1 F4020 X140.45 Y145.92 E1370.04852
G0 F6000 X142.39 Y145.92
G1 F4020 X155.54 Y159.07 E1370.82166
G0 F6000 X155.59 Y159.07
G1 F4020 X168.74 Y145.92 E1371.59486
G0 F6000 X170.67 Y145.92
G1 F4020 X183.82 Y159.07 E1372.36803
G0 F6000 X183.87 Y159.07
G1 F4020 X190.99 Y151.95 E1372.78675
G0 F6000 X190.99 Y152.10
G1 F4020 X184.81 Y145.92 E1373.14999
G0 F6000 X182.88 Y145.92
G1 F4020 X169.73 Y159.07 E1373.92319
G0 F6000 X169.68 Y159.07
G1 F4020 X156.53 Y145.92 E1374.69633
G0 F6000 X154.60 Y145.92
G1 F4020 X141.44 Y159.07 E1375.46953
G0 F6000 X141.40 Y159.07
G1 F4020 X128.25 Y145.92 E1376.24267
G0 F6000 X126.31 Y145.92
G1 F4020 X114.01 Y158.23 E1376.96616
G0 F6000 X114.00 Y152.90
G1 F4020 X120.18 Y159.07 E1377.32940
G0 F6000 X120.23 Y159.07
G1 F4020 X133.38 Y145.92 E1378.10257
G0 F6000 X135.32 Y145.92
G1 F4020 X148.47 Y159.07 E1378.87571
G0 F6000 X148.52 Y159.07
G1 F4020 X161.67 Y145.92 E1379.64891
G0 F6000 X163.60 Y145.92
G1 F4020 X176.75 Y159.07 E1380.42205
G0 F6000 X176.80 Y159.07
G1 F4020 X189.95 Y145.92 E1381.19525
G0 F6000 X177.74 Y145.92
G1 F4020 X190.89 Y159.07 E1381.96842
G0 F6000 X175.81 Y145.92
G1 F4020 X162.66 Y159.07 E1382.74162
G0 F6000 X162.61 Y159.07
G1 F4020 X149.46 Y145.92 E1383.51476
G0 F6000 X147.53 Y145.92
G1 F4020 X134.37 Y159.07 E1384.28796
G0 F6000 X134.32 Y159.07
G1 F4020 X121.18 Y145.92 E1385.06110
G0 F6000 X119.24 Y145.92
G1 F4020 X114.01 Y151.16 E1385.36883
;LAYER:18
G0 F6000 X113.83 Y145.75 Z3.90
;TYPE:WALL-INNER
G1 X191.17 Y145.75 E1388.58418
G1 X191.17 Y159.25 E1389.14544
G1 X113.83 Y159.25 E1392.36078
G1 X113.83 Y145.75 E1392.92205
G0 X113.33 Y145.25
G1 X191.67 Y145.25 E1396.17896
G1 X191.67 Y159.75 E1396.78180
G1 X113.33 Y159.75 E1400.03872
G1 X113.33 Y145.25 E1400.64156
G0 X112.83 Y144.75
;TYPE:WALL-OUTER
G1 X192.17 Y144.75 E1403.94005
G1 X192.17 Y160.25 E1404.58446
G1 X112.83 Y160.25 E1407.88295
G1 X112.83 Y144.75 E1408.52737
G0 X113.18 Y145.01
G0 X114.11 Y145.92
;TYPE:FILL
G1 X127.25 Y159.07 E1409.30051
G0 X127.30 Y159.07
G1 X127.97 Y158.41 E1409.33970
G0 X128.31 Y159.07
G1 X125.14 Y155.90 E1409.52620
G0 X124.74 Y154.79
G1 X129.02 Y159.07 E1409.77802
G0 X129.73 Y159.07
G1 X124.50 Y153.84 E1410.08547
G0 X125.21 Y154.10
G1 X120.23 Y159.07 E1410.37801
G0 X120.18 Y159.07
G1 X114.00 Y152.90 E1410.74125
G0 X114.01 Y151.16
G1 X119.24 Y145.92 E1411.04899
G0 X121.18 Y145.92
G1 X125.43 Y150.18 E1411.29902
G0 X124.82 Y149.93
G1 X133.97 Y159.07 E1411.83686
G0 X133.26 Y159.07
G1 X124.66 Y150.47 E1412.34283
G0 X124.51 Y151.03
G1 X132.56 Y159.07 E1412.81581
G0 X131.85 Y159.07
G1 X124.45 Y151.67 E1413.25099
G0 X124.39 Y152.32
G1 X131.14 Y159.07 E1413.64828
G0 X130.44 Y159.07
G1 X124.42 Y153.06 E1414.00182
G0 X124.99 Y149.38
G1 X134.68 Y159.07 E1414.57156
G0 X135.39 Y159.07
G1 X125.23 Y148.92 E1415.16840
G0 X125.48 Y148.46
G1 X136.09 Y159.07 E1415.79228
G0 X136.80 Y159.07
G1 X125.73 Y148.00 E1416.44327
G0 X126.04 Y147.61
G1 X137.39 Y158.95 E1417.11029
G0 X137.78 Y158.63
G1 X126.36 Y147.22 E1417.78136
G0 X126.68 Y146.83
G1 X138.16 Y158.32 E1418.45654
G0 X138.50 Y157.94
G1 X127.06 Y146.50 E1419.12940
G0 X127.44 Y146.18
G1 X138.82 Y157.56 E1419.79812
G0 X139.14 Y157.17
G1 X127.89 Y145.92 E1420.45923
G0 X128.25 Y145.92
G1 X128.51 Y146.19 E1420.47490
G0 X128.60 Y145.92
G1 X139.41 Y156.74 E1421.11054
G0 X139.66 Y156.28
G1 X129.31 Y145.92 E1421.71914
G0 X130.01 Y145.92
G1 X139.90 Y155.81 E1422.30061
G0 X140.10 Y155.31
G1 X130.72 Y145.92 E1422.85232
G0 X131.43 Y145.92
G1 X140.27 Y154.76 E1423.37214
G0 X140.43 Y154.22
G1 X132.14 Y145.92 E1423.86003
G0 X132.84 Y145.92
G1 X140.52 Y153.60 E1424.31158
G0 X140.59 Y152.96
G1 X133.55 Y145.92 E1424.72530
G0 X133.38 Y145.92
G1 X133.23 Y146.07 E1424.73409
G0 X134.26 Y145.92
G1 X140.61 Y152.28 E1425.10768
G0 X140.53 Y151.49
G1 X134.96 Y145.92 E1425.43512
G0 X135.32 Y145.92
G1 X135.47 Y146.07 E1425.44391
G0 X135.67 Y145.92
G1 X140.40 Y150.65 E1425.72172
G0 X139.57 Y150.18
G1 X148.47 Y159.07 E1426.24465
G0 X148.52 Y159.07
G1 X148.69 Y158.90 E1426.25488
G0 X148.82 Y159.07
G1 X144.83 Y155.08 E1426.48977
G0 X145.49 Y155.03
G1 X141.45 Y159.07 E1426.72763
G0 X141.40 Y159.07
G1 X138.81 Y156.49 E1426.87986
G0 X139.87 Y153.57
G1 X147.53 Y145.92 E1427.32974
G0 X147.72 Y145.95
G1 X159.04 Y157.28 E1427.99551
G0 X158.73 Y157.67
G1 X147.33 Y146.27 E1428.66538
G0 X146.94 Y146.59
G1 X158.41 Y158.05 E1429.33936
G0 X158.05 Y158.41
G1 X146.59 Y146.94 E1430.01331
G0 X146.27 Y147.33
G1 X157.66 Y158.72 E1430.68318
G0 X157.28 Y159.04
G1 X145.95 Y147.72 E1431.34895
G0 X145.66 Y148.13
G1 X156.60 Y159.07 E1431.99224
G0 X155.89 Y159.07
G1 X145.41 Y148.59 E1432.60843
G0 X145.16 Y149.05
G1 X155.19 Y159.07 E1433.19756
G0 X154.48 Y159.07
G1 X144.94 Y149.54 E1433.75824
G0 X144.78 Y150.08
G1 X153.77 Y159.07 E1434.28703
G0 X153.06 Y159.07
G1 X144.61 Y150.62 E1434.78394
G0 X144.50 Y151.21
G1 X152.36 Y159.07 E1435.24617
G0 X151.65 Y159.07
G1 X144.43 Y151.86 E1435.67053
G0 X144.37 Y152.50
G1 X150.94 Y159.07 E1436.05700
G0 X150.24 Y159.07
G1 X144.45 Y153.28 E1436.39737
G0 X144.52 Y154.07
G1 X149.53 Y159.07 E1436.69170
G0 X148.11 Y159.07
G1 X145.37 Y156.33 E1436.85280
G0 X145.77 Y149.30
G1 X142.39 Y145.92 E1437.05154
G0 X140.45 Y145.92
G1 X138.41 Y147.97 E1437.17174
G0 X139.40 Y148.24
G1 X137.09 Y145.92 E1437.30759
G0 X136.38 Y145.92
G1 X140.09 Y149.63 E1437.52567
G0 X148.40 Y145.92
G1 X159.34 Y156.87 E1438.16896
G0 X159.59 Y156.40
G1 X149.11 Y145.92 E1438.78514
G0 X149.46 Y145.92
G1 X149.61 Y146.07 E1438.79396
G0 X149.81 Y145.92
G1 X159.83 Y155.94 E1439.38307
G0 X160.06 Y155.46
G1 X150.52 Y145.92 E1439.94375
G0 X151.23 Y145.92
G1 X160.22 Y154.92 E1440.47253
G0 X160.39 Y154.38
G1 X151.94 Y145.92 E1440.96945
G0 X152.64 Y145.92
G1 X160.50 Y153.79 E1441.43170
G0 X160.57 Y153.14
G1 X153.35 Y145.92 E1441.85612
G0 X154.06 Y145.92
G1 X160.63 Y152.50 E1442.24265
G0 X160.55 Y151.71
G1 X154.76 Y145.92 E1442.58308
G0 X154.60 Y145.92
G1 X154.44 Y146.07 E1442.59199
G0 X155.47 Y145.92
G1 X160.48 Y150.93 E1442.88632
G0 X160.17 Y149.92
G1 X156.18 Y145.92 E1443.12127
G0 X156.53 Y145.92
G1 X165.54 Y154.93 E1443.65102
G0 X165.03 Y155.48
G1 X168.62 Y159.07 E1443.86237
G0 X167.91 Y159.07
G1 X165.77 Y156.93 E1443.98819
G0 X165.91 Y155.82
G1 X162.66 Y159.07 E1444.17960
G0 X162.61 Y159.07
G1 X159.23 Y155.69 E1444.37833
G0 X159.45 Y155.21
G1 X166.56 Y148.10 E1444.79643
G0 X166.24 Y148.56
G1 X163.60 Y145.92 E1444.95171
G0 X161.67 Y145.92
G1 X158.90 Y148.69 E1445.11431
G0 X159.62 Y148.66
G1 X156.88 Y145.92 E1445.27538
G0 X165.15 Y149.24
G1 X174.98 Y159.07 E1445.85379
G0 X174.28 Y159.07
G1 X164.96 Y149.75 E1446.40189
G0 X164.79 Y150.29
G1 X173.57 Y159.07 E1446.91812
G0 X172.86 Y159.07
G1 X164.62 Y150.84 E1447.40245
G0 X164.55 Y151.47
G1 X172.16 Y159.07 E1447.84975
G0 X171.45 Y159.07
G1 X164.49 Y152.11 E1448.25917
G0 X164.48 Y152.81
G1 X170.74 Y159.07 E1448.62744
G0 X170.03 Y159.07
G1 X164.56 Y153.59 E1448.94965
G0 X164.72 Y154.46
G1 X169.33 Y159.07 E1449.22072
G0 X175.69 Y159.07
G1 X165.39 Y148.78 E1449.82627
G0 X165.64 Y148.31
G1 X176.40 Y159.07 E1450.45888
G0 X176.51 Y158.84
G1 X176.75 Y159.07 E1450.47297
G0 X176.80 Y159.07
G1 X189.95 Y145.92 E1451.24616
G0 X184.81 Y145.92
G1 X190.99 Y152.10 E1451.60941
G0 X190.99 Y151.95
G1 X183.87 Y159.07 E1452.02812
G0 X183.82 Y159.07
G1 X179.63 Y154.88 E1452.27457
G0 X180.24 Y155.13
G1 X171.03 Y145.92 E1452.81605
G0 X170.82 Y146.07
G1 X170.67 Y145.92 E1452.82487
G0 X170.32 Y145.92
G1 X180.06 Y155.67 E1453.39763
G0 X179.81 Y156.13
G1 X169.61 Y145.92 E1453.99753
G0 X168.91 Y145.92
G1 X179.57 Y156.59 E1454.62453
G0 X179.32 Y157.04
G1 X168.20 Y145.92 E1455.27835
G0 X168.74 Y145.92
G1 X168.18 Y146.49 E1455.31145
G0 X167.65 Y146.08
G1 X179.00 Y157.43 E1455.97890
G0 X178.68 Y157.82
G1 X167.26 Y146.40 E1456.65041
G0 X166.87 Y146.72
G1 X178.36 Y158.21 E1457.32601
G0 X177.98 Y158.53
G1 X166.54 Y147.10 E1457.99840
G0 X166.22 Y147.49
G1 X177.59 Y158.85 E1458.66668
G0 X177.11 Y159.07
G1 X165.91 Y147.88 E1459.32517
G0 X171.73 Y145.92
G1 X180.40 Y154.59 E1459.83476
G0 X180.56 Y154.04
G1 X172.44 Y145.92 E1460.31206
G0 X173.15 Y145.92
G1 X180.62 Y153.40 E1460.75148
G0 X180.69 Y152.75
G1 X173.85 Y145.92 E1461.15305
G0 X174.56 Y145.92
G1 X180.66 Y152.03 E1461.51177
G0 X180.59 Y151.24
G1 X175.27 Y145.92 E1461.82439
G0 X175.66 Y146.07
G1 X175.81 Y145.92 E1461.83324
G0 X175.98 Y145.92
G1 X180.38 Y150.32 E1462.09188
G0 X180.03 Y149.27
G1 X176.68 Y145.92 E1462.28847
G0 X177.74 Y145.92
G1 X190.89 Y159.07 E1463.06164
G0 X179.38 Y149.43
G1 X182.88 Y145.92 E1463.26766
G0 X178.84 Y147.37
G1 X177.71 Y146.24 E1463.33410
G0 X126.31 Y145.92
G1 X114.01 Y158.23 E1464.05759
G0 X126.61 Y158.07
G1 X126.92 Y158.39 E1464.07611
;LAYER:19
G0 X113.83 Y159.25 Z4.10
;TYPE:WALL-INNER
G1 X113.83 Y145.75 E1464.63737
G1 X191.17 Y145.75 E1467.85271
G1 X191.17 Y159.25 E1468.41398
G1 X113.83 Y159.25 E1471.62932
G0 X113.33 Y159.75
G1 X113.33 Y145.25 E1472.23216
G1 X191.67 Y145.25 E1475.48907
G1 X191.67 Y159.75 E1476.09191
G1 X113.33 Y159.75 E1479.34883
G0 X112.83 Y160.25
;TYPE:WALL-OUTER
G1 X112.83 Y144.75 E1479.99324
G1 X192.17 Y144.75 E1483.29173
G1 X192.17 Y160.25 E1483.93615
G1 X112.83 Y160.25 E1487.23464
G0 X113.09 Y159.90
G0 X114.01 Y158.23
;TYPE:FILL
G1 X126.31 Y145.92 E1487.95813
G0 X128.08 Y145.92
G1 X125.42 Y148.59 E1488.11467
G0 X124.84 Y149.87
G1 X128.79 Y145.92 E1488.34656
G0 X128.51 Y146.19
G1 X128.25 Y145.92 E1488.36223
G0 X129.49 Y145.92
G1 X124.53 Y150.88 E1488.65380
G0 X124.45 Y151.68
G1 X130.20 Y145.92 E1488.99191
G0 X130.91 Y145.92
G1 X124.37 Y152.46 E1489.37611
G0 X124.43 Y153.11
G1 X131.61 Y145.92 E1489.79856
G0 X132.32 Y145.92
G1 X124.49 Y153.75 E1490.25891
G0 X124.61 Y154.35
G1 X133.03 Y145.92 E1490.75415
G0 X133.23 Y146.07
G1 X133.38 Y145.92 E1490.76294
G0 X133.74 Y145.92
G1 X124.77 Y154.89 E1491.29013
G0 X124.93 Y155.43
G1 X134.44 Y145.92 E1491.84920
G0 X135.15 Y145.92
G1 X125.15 Y155.92 E1492.43692
G0 X125.40 Y156.38
G1 X135.86 Y145.92 E1493.05176
G0 X135.47 Y146.07
G1 X135.32 Y145.92 E1493.06055
G0 X136.56 Y145.92
G1 X125.65 Y156.84 E1493.70242
G0 X125.94 Y157.26
G1 X137.26 Y145.94 E1494.36800
G0 X137.65 Y146.25
G1 X126.26 Y157.65 E1495.03768
G0 X126.58 Y158.03
G1 X138.03 Y146.57 E1495.71146
G0 X138.39 Y146.93
G1 X126.92 Y158.39 E1496.38565
G0 X127.31 Y158.71
G1 X138.71 Y147.31 E1497.05577
G0 X139.03 Y147.70
G1 X127.70 Y159.03 E1497.72179
G0 X127.30 Y159.07
G1 X127.97 Y158.41 E1497.76098
G0 X128.36 Y159.07
G1 X139.33 Y148.11 E1498.40568
G0 X139.57 Y148.57
G1 X129.07 Y159.07 E1499.02327
G0 X129.78 Y159.07
G1 X139.82 Y149.03 E1499.61376
G0 X140.05 Y149.51
G1 X130.49 Y159.07 E1500.17609
G0 X131.19 Y159.07
G1 X140.21 Y150.05 E1500.70649
G0 X140.38 Y150.59
G1 X131.90 Y159.07 E1501.20502
G0 X132.61 Y159.07
G1 X140.50 Y151.18 E1501.66922
G0 X140.56 Y151.82
G1 X133.31 Y159.07 E1502.09555
G0 X134.02 Y159.07
G1 X140.63 Y152.47 E1502.48401
G0 X140.56 Y153.24
G1 X134.73 Y159.07 E1502.82679
G0 X135.44 Y159.07
G1 X140.48 Y154.03 E1503.12342
G0 X139.87 Y153.57
G1 X147.53 Y145.92 E1503.57330
G0 X147.88 Y145.92
G1 X145.65 Y148.16 E1503.70445
G0 X145.77 Y149.30
G1 X142.39 Y145.92 E1503.90318
G0 X140.45 Y145.92
G1 X138.41 Y147.97 E1504.02339
G0 X139.57 Y150.18
G1 X148.47 Y159.07 E1504.54632
G0 X148.52 Y159.07
G1 X148.69 Y158.90 E1504.55655
G0 X148.87 Y159.07
G1 X159.50 Y148.44 E1505.18179
G0 X159.26 Y147.98
G1 X148.16 Y159.07 E1505.83407
G0 X147.59 Y158.94
G1 X158.94 Y147.59 E1506.50123
G0 X158.62 Y147.20
G1 X147.20 Y158.62 E1507.17245
G0 X146.81 Y158.30
G1 X158.30 Y146.81 E1507.84775
G0 X157.92 Y146.48
G1 X146.49 Y157.92 E1508.52032
G0 X146.17 Y157.53
G1 X157.54 Y146.17 E1509.18880
G0 X157.07 Y145.92
G1 X145.85 Y157.15 E1509.84867
G0 X145.58 Y156.71
G1 X156.36 Y145.92 E1510.48288
G0 X156.53 Y145.92
G1 X165.54 Y154.93 E1511.01263
G0 X164.90 Y155.06
G1 X174.04 Y145.92 E1511.55003
G0 X173.33 Y145.92
G1 X164.74 Y154.52 E1512.05553
G0 X164.59 Y153.96
G1 X172.63 Y145.92 E1512.52799
G0 X171.92 Y145.92
G1 X164.53 Y153.32 E1512.96258
G0 X164.47 Y152.67
G1 X171.21 Y145.92 E1513.35931
G0 X170.82 Y146.07
G1 X170.67 Y145.92 E1513.36812
G0 X170.50 Y145.92
G1 X164.50 Y151.93 E1513.72096
G0 X164.58 Y151.14
G1 X169.80 Y145.92 E1514.02770
G0 X169.09 Y145.92
G1 X164.82 Y150.19 E1514.27876
G0 X165.23 Y149.07
G1 X168.38 Y145.92 E1514.46403
G0 X168.74 Y145.92
G1 X168.18 Y146.49 E1514.49713
G0 X166.95 Y146.65
G1 X166.73 Y146.87 E1514.50977
G0 X166.56 Y148.10
G1 X159.45 Y155.21 E1514.92787
G0 X159.23 Y155.69
G1 X162.61 Y159.07 E1515.12660
G0 X162.66 Y159.07
G1 X165.91 Y155.82 E1515.31801
G0 X165.31 Y156.07
G1 X175.46 Y145.92 E1515.91450
G0 X175.66 Y146.07
G1 X175.81 Y145.92 E1515.92335
G0 X176.16 Y145.92
G1 X165.56 Y156.53 E1516.54688
G0 X165.80 Y156.99
G1 X176.87 Y145.92 E1517.19752
G0 X177.46 Y146.04
G1 X166.12 Y157.38 E1517.86444
G0 X166.44 Y157.77
G1 X177.85 Y146.36 E1518.53551
G0 X177.74 Y145.92
G1 X190.89 Y159.07 E1519.30868
G0 X190.99 Y152.10
G1 X184.81 Y145.92 E1519.67193
G0 X182.88 Y145.92
G1 X179.38 Y149.43 E1519.87795
G0 X179.98 Y149.18
G1 X170.08 Y159.07 E1520.45977
G0 X170.79 Y159.07
G1 X180.18 Y149.68 E1521.01186
G0 X180.34 Y150.23
G1 X171.50 Y159.07 E1521.53209
G0 X172.20 Y159.07
G1 X180.51 Y150.77 E1522.02042
G0 X180.60 Y151.39
G1 X172.91 Y159.07 E1522.47248
G0 X173.62 Y159.07
G1 X180.66 Y152.03 E1522.88667
G0 X180.69 Y152.71
G1 X174.32 Y159.07 E1523.26081
G0 X175.03 Y159.07
G1 X180.61 Y153.50 E1523.58887
G0 X180.48 Y154.34
G1 X175.74 Y159.07 E1523.86733
G0 X176.45 Y159.07
G1 X180.17 Y155.35 E1524.08617
G0 X179.63 Y154.88
G1 X183.82 Y159.07 E1524.33261
G0 X183.87 Y159.07
G1 X190.99 Y151.95 E1524.75133
G0 X189.95 Y145.92
G1 X176.80 Y159.07 E1525.52453
G0 X176.75 Y159.07
G1 X176.51 Y158.84 E1525.53861
G0 X177.15 Y159.07
G1 X179.49 Y156.74 E1525.67566
G0 X179.73 Y148.72
G1 X169.38 Y159.07 E1526.28455
G0 X168.67 Y159.07
G1 X179.49 Y148.26 E1526.92049
G0 X179.21 Y147.83
G1 X167.96 Y159.07 E1527.58180
G0 X167.52 Y158.81
G1 X178.89 Y147.44 E1528.25061
G0 X178.57 Y147.05
G1 X167.13 Y158.49 E1528.92350
G0 X166.76 Y158.16
G1 X178.24 Y146.68 E1529.59863
G0 X174.75 Y145.92
G1 X165.06 Y155.61 E1530.16795
G0 X160.28 Y154.74
G1 X155.94 Y159.07 E1530.42278
G0 X156.65 Y159.07
G1 X159.90 Y155.83 E1530.61369
G0 X160.50 Y153.81
G1 X155.23 Y159.07 E1530.92337
G0 X154.53 Y159.07
G1 X160.58 Y153.02 E1531.27920
G0 X160.61 Y152.28
G1 X153.82 Y159.07 E1531.67837
G0 X153.11 Y159.07
G1 X160.54 Y151.64 E1532.11537
G0 X160.48 Y151.00
G1 X152.41 Y159.07 E1532.59021
G0 X151.70 Y159.07
G1 X160.33 Y150.44 E1533.09771
G0 X160.17 Y149.90
G1 X150.99 Y159.07 E1533.63710
G0 X150.28 Y159.07
G1 X160.00 Y149.36 E1534.20816
G0 X159.75 Y148.90
G1 X149.58 Y159.07 E1534.80630
G0 X145.33 Y156.25
G1 X155.66 Y145.92 E1535.41342
G0 X154.95 Y145.92
G1 X145.08 Y155.79 E1535.99345
G0 X144.89 Y155.28
G1 X154.24 Y145.92 E1536.54346
G0 X154.44 Y146.07
G1 X154.60 Y145.92 E1536.55236
G0 X153.53 Y145.92
G1 X144.72 Y154.74 E1537.07048
G0 X144.56 Y154.19
G1 X152.83 Y145.92 E1537.55666
G0 X152.12 Y145.92
G1 X144.47 Y153.57 E1538.00622
G0 X144.41 Y152.93
G1 X151.41 Y145.92 E1538.41791
G0 X150.71 Y145.92
G1 X144.40 Y152.24 E1538.78897
G0 X144.47 Y151.45
G1 X150.00 Y145.92 E1539.11394
G0 X149.61 Y146.07
G1 X149.46 Y145.92 E1539.12276
G0 X149.29 Y145.92
G1 X144.62 Y150.59 E1539.39739
G0 X144.93 Y149.58
G1 X148.59 Y145.92 E1539.61229
G0 X145.49 Y155.03
G1 X141.45 Y159.07 E1539.85015
G0 X141.40 Y159.07
G1 X138.81 Y156.49 E1540.00238
G0 X139.67 Y156.26
G1 X136.85 Y159.07 E1540.16806
G0 X136.14 Y159.07
G1 X140.19 Y155.03 E1540.40601
G0 X127.25 Y159.07
G1 X114.11 Y145.92 E1541.17915
G0 X119.24 Y145.92
G1 X114.01 Y151.16 E1541.48689
G0 X114.00 Y152.90
G1 X120.18 Y159.07 E1541.85013
G0 X120.23 Y159.07
G1 X125.21 Y154.10 E1542.14268
G0 X125.43 Y150.18
G1 X121.18 Y145.92 E1542.39271
G0 X158.90 Y148.69
G1 X161.67 Y145.92 E1542.55531
G0 X163.60 Y145.92
G1 X166.24 Y148.56 E1542.71059
G0 X158.55 Y157.88
G1 X157.88 Y158.55 E1542.75022
;LAYER:20
G0 X191.17 Y159.25 Z4.30
;TYPE:WALL-INNER
G1 X113.83 Y159.25 E1545.96556
G1 X113.83 Y145.75 E1546.52682
G1 X191.17 Y145.75 E1549.74216
G1 X191.17 Y159.25 E1550.30343
G0 X191.67 Y159.75
G1 X113.33 Y159.75 E1553.56034
G1 X113.33 Y145.25 E1554.16318
G1 X191.67 Y145.25 E1557.42010
G1 X191.67 Y159.75 E1558.02294
G0 X192.17 Y160.25
;TYPE:WALL-OUTER
G1 X112.83 Y160.25 E1561.32143
G1 X112.83 Y144.75 E1561.96584
G1 X192.17 Y144.75 E1565.26433
G1 X192.17 Y160.25 E1565.90875
G0 X191.82 Y159.99
G0 X190.89 Y159.07
;TYPE:FILL
G1 X177.74 Y145.92 E1566.68192
G0 X177.71 Y146.24
G1 X178.84 Y147.37 E1566.74836
G0 X179.38 Y149.43
G1 X182.88 Y145.92 E1566.95438
G0 X184.81 Y145.92
G1 X190.99 Y152.10 E1567.31762
G0 X190.99 Y151.95
G1 X183.87 Y159.07 E1567.73634
G0 X183.82 Y159.07
G1 X179.63 Y154.88 E1567.98278
G0 X180.24 Y155.13
G1 X171.03 Y145.92 E1568.52427
G0 X170.82 Y146.07
G1 X170.67 Y145.92 E1568.53309
G0 X170.32 Y145.92
G1 X180.06 Y155.67 E1569.10585
G0 X179.81 Y156.13
G1 X169.61 Y145.92 E1569.70575
G0 X168.91 Y145.92
G1 X179.57 Y156.59 E1570.33275
G0 X179.32 Y157.04
G1 X168.20 Y145.92 E1570.98656
G0 X168.74 Y145.92
G1 X168.18 Y146.49 E1571.01966
G0 X167.65 Y146.08
G1 X179.00 Y157.43 E1571.68712
G0 X178.68 Y157.82
G1 X167.26 Y146.40 E1572.35863
G0 X166.87 Y146.72
G1 X178.36 Y158.21 E1573.03423
G0 X177.98 Y158.53
G1 X166.54 Y147.10 E1573.70662
G0 X166.22 Y147.49
G1 X177.59 Y158.85 E1574.37490
G0 X177.11 Y159.07
G1 X165.91 Y147.88 E1575.03339
G0 X165.64 Y148.31
G1 X176.40 Y159.07 E1575.66600
G0 X176.51 Y158.84
G1 X176.75 Y159.07 E1575.68008
G0 X176.80 Y159.07
G1 X189.95 Y145.92 E1576.45328
G0 X180.03 Y149.27
G1 X176.68 Y145.92 E1576.64987
G0 X175.98 Y145.92
G1 X180.38 Y150.32 E1576.90851
G0 X180.59 Y151.24
G1 X175.27 Y145.92 E1577.22113
G0 X175.66 Y146.07
G1 X175.81 Y145.92 E1577.22998
G0 X174.56 Y145.92
G1 X180.66 Y152.03 E1577.58870
G0 X180.69 Y152.75
G1 X173.85 Y145.92 E1577.99027
G0 X173.15 Y145.92
G1 X180.62 Y153.40 E1578.42969
G0 X180.56 Y154.04
G1 X172.44 Y145.92 E1578.90699
G0 X171.73 Y145.92
G1 X180.40 Y154.59 E1579.41658
G0 X175.69 Y159.07
G1 X165.39 Y148.78 E1580.02212
G0 X165.15 Y149.24
G1 X174.98 Y159.07 E1580.60053
G0 X174.28 Y159.07
G1 X164.96 Y149.75 E1581.14863
G0 X164.79 Y150.29
G1 X173.57 Y159.07 E1581.66486
G0 X172.86 Y159.07
G1 X164.62 Y150.84 E1582.14919
G0 X164.55 Y151.47
G1 X172.16 Y159.07 E1582.59648
G0 X171.45 Y159.07
G1 X164.49 Y152.11 E1583.00591
G0 X164.48 Y152.81
G1 X170.74 Y159.07 E1583.37418
G0 X170.03 Y159.07
G1 X164.56 Y153.59 E1583.69638
G0 X164.72 Y154.46
G1 X169.33 Y159.07 E1583.96746
G0 X168.62 Y159.07
G1 X165.03 Y155.48 E1584.17881
G0 X165.54 Y154.93
G1 X156.53 Y145.92 E1584.70856
G0 X156.18 Y145.92
G1 X160.17 Y149.92 E1584.94351
G0 X160.48 Y150.93
G1 X155.47 Y145.92 E1585.23784
G0 X154.76 Y145.92
G1 X160.55 Y151.71 E1585.57827
G0 X160.63 Y152.50
G1 X154.06 Y145.92 E1585.96480
G0 X154.44 Y146.07
G1 X154.60 Y145.92 E1585.97371
G0 X153.35 Y145.92
G1 X160.57 Y153.14 E1586.39813
G0 X160.50 Y153.79
G1 X152.64 Y145.92 E1586.86038
G0 X151.94 Y145.92
G1 X160.39 Y154.38 E1587.35730
G0 X160.22 Y154.92
G1 X151.23 Y145.92 E1587.88608
G0 X150.52 Y145.92
G1 X160.06 Y155.46 E1588.44676
G0 X159.83 Y155.94
G1 X149.81 Y145.92 E1589.03587
G0 X149.61 Y146.07
G1 X149.46 Y145.92 E1589.04469
G0 X149.11 Y145.92
G1 X159.59 Y156.40 E1589.66087
G0 X159.34 Y156.87
G1 X148.40 Y145.92 E1590.30416
G0 X147.72 Y145.95
G1 X159.04 Y157.28 E1590.96994
G0 X158.73 Y157.67
G1 X147.33 Y146.27 E1591.63980
G0 X147.53 Y145.92
G1 X139.87 Y153.57 E1592.08968
G0 X140.52 Y153.60
G1 X132.84 Y145.92 E1592.54124
G0 X133.23 Y146.07
G1 X133.38 Y145.92 E1592.55003
G0 X133.55 Y145.92
G1 X140.59 Y152.96 E1592.96375
G0 X140.61 Y152.28
G1 X134.26 Y145.92 E1593.33734
G0 X134.96 Y145.92
G1 X140.53 Y151.49 E1593.66477
G0 X140.40 Y150.65
G1 X135.67 Y145.92 E1593.94259
G0 X135.47 Y146.07
G1 X135.32 Y145.92 E1593.95138
G0 X136.38 Y145.92
G1 X140.09 Y149.63 E1594.16945
G0 X139.57 Y150.18
G1 X148.47 Y159.07 E1594.69238
G0 X148.52 Y159.07
G1 X148.69 Y158.90 E1594.70261
G0 X148.82 Y159.07
G1 X144.83 Y155.08 E1594.93750
G0 X145.49 Y155.03
G1 X141.45 Y159.07 E1595.17536
G0 X141.40 Y159.07
G1 X138.81 Y156.49 E1595.32759
G0 X139.41 Y156.74
G1 X128.60 Y145.92 E1595.96323
G0 X128.51 Y146.19
G1 X128.25 Y145.92 E1595.97890
G0 X127.89 Y145.92
G1 X139.14 Y157.17 E1596.64001
G0 X138.82 Y157.56
G1 X127.44 Y146.18 E1597.30873
G0 X127.06 Y146.50
G1 X138.50 Y157.94 E1597.98159
G0 X138.16 Y158.32
G1 X126.68 Y146.83 E1598.65677
G0 X126.36 Y147.22
G1 X137.78 Y158.63 E1599.32784
G0 X137.39 Y158.95
G1 X126.04 Y147.61 E1599.99486
G0 X125.73 Y148.00
G1 X136.80 Y159.07 E1600.64585
G0 X136.09 Y159.07
G1 X125.48 Y148.46 E1601.26973
G0 X125.23 Y148.92
G1 X135.39 Y159.07 E1601.86657
G0 X134.68 Y159.07
G1 X124.99 Y149.38 E1602.43631
G0 X124.82 Y149.93
G1 X133.97 Y159.07 E1602.97415
G0 X133.26 Y159.07
G1 X124.66 Y150.47 E1603.48012
G0 X124.51 Y151.03
G1 X132.56 Y159.07 E1603.95310
G0 X131.85 Y159.07
G1 X124.45 Y151.67 E1604.38828
G0 X124.39 Y152.32
G1 X131.14 Y159.07 E1604.78557
G0 X130.44 Y159.07
G1 X124.42 Y153.06 E1605.13911
G0 X124.50 Y153.84
G1 X129.73 Y159.07 E1605.44656
G0 X129.02 Y159.07
G1 X124.74 Y154.79 E1605.69838
G0 X125.21 Y154.10
G1 X120.23 Y159.07 E1605.99092
G0 X120.18 Y159.07
G1 X114.00 Y152.90 E1606.35416
G0 X114.01 Y151.16
G1 X119.24 Y145.92 E1606.66190
G0 X121.18 Y145.92
G1 X125.43 Y150.18 E1606.91193
G0 X126.31 Y145.92
G1 X114.01 Y158.23 E1607.63542
G0 X125.14 Y155.90
G1 X128.31 Y159.07 E1607.82192
G0 X127.97 Y158.41
G1 X127.30 Y159.07 E1607.86111
G0 X127.25 Y159.07
G1 X114.11 Y145.92 E1608.63425
G0 X129.31 Y145.92
G1 X139.66 Y156.28 E1609.24285
G0 X139.90 Y155.81
G1 X130.01 Y145.92 E1609.82431
G0 X130.72 Y145.92
G1 X140.10 Y155.31 E1610.37603
G0 X140.27 Y154.76
G1 X131.43 Y145.92 E1610.89584
G0 X132.14 Y145.92
G1 X140.43 Y154.22 E1611.38373
G0 X144.52 Y154.07
G1 X149.53 Y159.07 E1611.67807
G0 X150.24 Y159.07
G1 X144.45 Y153.28 E1612.01844
G0 X144.37 Y152.50
G1 X150.94 Y159.07 E1612.40491
G0 X151.65 Y159.07
G1 X144.43 Y151.86 E1612.82927
G0 X144.50 Y151.21
G1 X152.36 Y159.07 E1613.29149
G0 X153.06 Y159.07
G1 X144.61 Y150.62 E1613.78841
G0 X144.78 Y150.08
G1 X153.77 Y159.07 E1614.31719
G0 X154.48 Y159.07
G1 X144.94 Y149.54 E1614.87787
G0 X145.16 Y149.05
G1 X155.19 Y159.07 E1615.46701
G0 X155.89 Y159.07
G1 X145.41 Y148.59 E1616.08319
G0 X145.66 Y148.13
G1 X156.60 Y159.07 E1616.72648
G0 X157.28 Y159.04
G1 X145.95 Y147.72 E1617.39226
G0 X146.27 Y147.33
G1 X157.66 Y158.72 E1618.06213
G0 X158.05 Y158.41
G1 X146.59 Y146.94 E1618.73608
G0 X146.94 Y146.59
G1 X158.41 Y158.05 E1619.41006
G0 X159.23 Y155.69
G1 X162.61 Y159.07 E1619.60879
G0 X162.66 Y159.07
G1 X165.91 Y155.82 E1619.80020
G0 X165.77 Y156.93
G1 X167.91 Y159.07 E1619.92602
G0 X159.45 Y155.21
G1 X166.56 Y148.10 E1620.34412
G0 X166.24 Y148.56
G1 X163.60 Y145.92 E1620.49940
G0 X161.67 Y145.92
G1 X158.90 Y148.69 E1620.66200
G0 X159.62 Y148.66
G1 X156.88 Y145.92 E1620.82308
G0 X145.77 Y149.30
G1 X142.39 Y145.92 E1621.02181
G0 X140.45 Y145.92
G1 X138.41 Y147.97 E1621.14202
G0 X139.40 Y148.24
G1 X137.09 Y145.92 E1621.27786
G0 X145.37 Y156.33
G1 X148.11 Y159.07 E1621.43897
G0 X126.92 Y158.39
G1 X126.61 Y158.07 E1621.45749
;LAYER:21
G0 X113.83 Y159.25 Z4.50
;TYPE:WALL-INNER
G1 X113.83 Y145.75 E1622.01875
G1 X191.17 Y145.75 E1625.23409
G1 X191.17 Y159.25 E1625.79536
G1 X113.83 Y159.25 E1629.01070
G0 X113.33 Y159.75
G1 X113.33 Y145.25 E1629.61354
G1 X191.67 Y145.25 E1632.87045
G1 X191.67 Y159.75 E1633.47329
G1 X113.33 Y159.75 E1636.73021
G0 X112.83 Y160.25
;TYPE:WALL-OUTER
G1 X112.83 Y144.75 E1637.37462
G1 X192.17 Y144.75 E1640.67311
G1 X192.17 Y160.25 E1641.31753
G1 X112.83 Y160.25 E1644.61602
G0 X113.09 Y159.90
G0 X114.01 Y158.23
;TYPE:FILL
G1 X126.31 Y145.92 E1645.33951
G0 X128.08 Y145.92
G1 X125.42 Y148.59 E1645.49605
G0 X124.84 Y149.87
G1 X128.79 Y145.92 E1645.72794
G0 X128.51 Y146.19
G1 X128.25 Y145.92 E1645.74361
G0 X129.49 Y145.92
G1 X124.53 Y150.88 E1646.03518
G0 X124.45 Y151.68
G1 X130.20 Y145.92 E1646.37329
G0 X130.91 Y145.92
G1 X124.37 Y152.46 E1646.75749
G0 X124.43 Y153.11
G1 X131.61 Y145.92 E1647.17994
G0 X132.32 Y145.92
G1 X124.49 Y153.75 E1647.64029
G0 X124.61 Y154.35
G1 X133.03 Y145.92 E1648.13553
G0 X133.23 Y146.07
G1 X133.38 Y145.92 E1648.14432
G0 X133.74 Y145.92
G1 X124.77 Y154.89 E1648.67152
G0 X124.93 Y155.43
G1 X134.44 Y145.92 E1649.23058
G0 X135.15 Y145.92
G1 X125.15 Y155.92 E1649.81831
G0 X125.40 Y156.38
G1 X135.86 Y145.92 E1650.43314
G0 X135.47 Y146.07
G1 X135.32 Y145.92 E1650.44193
G0 X136.56 Y145.92
G1 X125.65 Y156.84 E1651.08380
G0 X125.94 Y157.26
G1 X137.26 Y145.94 E1651.74938
G0 X137.65 Y146.25
G1 X126.26 Y157.65 E1652.41907
G0 X126.58 Y158.03
G1 X138.03 Y146.57 E1653.09284
G0 X138.39 Y146.93
G1 X126.92 Y158.39 E1653.76703
G0 X127.31 Y158.71
G1 X138.71 Y147.31 E1654.43716
G0 X139.03 Y147.70
G1 X127.70 Y159.03 E1655.10317
G0 X127.30 Y159.07
G1 X127.97 Y158.41 E1655.14236
G0 X128.36 Y159.07
G1 X139.33 Y148.11 E1655.78706
G0 X139.57 Y148.57
G1 X129.07 Y159.07 E1656.40465
G0 X129.78 Y159.07
G1 X139.82 Y149.03 E1656.99514
G0 X140.05 Y149.51
G1 X130.49 Y159.07 E1657.55747
G0 X131.19 Y159.07
G1 X140.21 Y150.05 E1658.08787
G0 X140.38 Y150.59
G1 X131.90 Y159.07 E1658.58640
G0 X132.61 Y159.07
G1 X140.50 Y151.18 E1659.05060
G0 X140.56 Y151.82
G1 X133.31 Y159.07 E1659.47693
G0 X134.02 Y159.07
G1 X140.63 Y152.47 E1659.86539
G0 X140.56 Y153.24
G1 X134.73 Y159.07 E1660.20818
G0 X135.44 Y159.07
G1 X140.48 Y154.03 E1660.50480
G0 X139.87 Y153.57
G1 X147.53 Y145.92 E1660.95468
G0 X147.88 Y145.92
G1 X145.65 Y148.16 E1661.08583
G0 X145.77 Y149.30
G1 X142.39 Y145.92 E1661.28456
G0 X140.45 Y145.92
G1 X138.41 Y147.97 E1661.40477
G0 X139.57 Y150.18
G1 X148.47 Y159.07 E1661.92770
G0 X148.52 Y159.07
G1 X148.69 Y158.90 E1661.93793
G0 X148.87 Y159.07
G1 X159.50 Y148.44 E1662.56317
G0 X159.26 Y147.98
G1 X148.16 Y159.07 E1663.21545
G0 X147.59 Y158.94
G1 X158.94 Y147.59 E1663.88261
G0 X158.62 Y147.20
G1 X147.20 Y158.62 E1664.55383
G0 X146.81 Y158.30
G1 X158.30 Y146.81 E1665.22913
G0 X157.92 Y146.48
G1 X146.49 Y157.92 E1665.90170
G0 X146.17 Y157.53
G1 X157.54 Y146.17 E1666.57019
G0 X157.07 Y145.92
G1 X145.85 Y157.15 E1667.23006
G0 X145.58 Y156.71
G1 X156.36 Y145.92 E1667.86426
G0 X156.53 Y145.92
G1 X165.54 Y154.93 E1668.39401
G0 X164.90 Y155.06
G1 X174.04 Y145.92 E1668.93141
G0 X173.33 Y145.92
G1 X164.74 Y154.52 E1669.43691
G0 X164.59 Y153.96
G1 X172.63 Y145.92 E1669.90937
G0 X171.92 Y145.92
G1 X164.53 Y153.32 E1670.34396
G0 X164.47 Y152.67
G1 X171.21 Y145.92 E1670.74069
G0 X170.82 Y146.07
G1 X170.67 Y145.92 E1670.74951
G0 X170.50 Y145.92
G1 X164.50 Y151.93 E1671.10234
G0 X164.58 Y151.14
G1 X169.80 Y145.92 E1671.40908
G0 X169.09 Y145.92
G1 X164.82 Y150.19 E1671.66014
G0 X165.23 Y149.07
G1 X168.38 Y145.92 E1671.84541
G0 X168.74 Y145.92
G1 X168.18 Y146.49 E1671.87851
G0 X166.95 Y146.65
G1 X166.73 Y146.87 E1671.89115
G0 X166.56 Y148.10
G1 X159.45 Y155.21 E1672.30925
G0 X159.23 Y155.69
G1 X162.61 Y159.07 E1672.50798
G0 X162.66 Y159.07
G1 X165.91 Y155.82 E1672.69939
G0 X165.31 Y156.07
G1 X175.46 Y145.92 E1673.29588
G0 X175.66 Y146.07
G1 X175.81 Y145.92 E1673.30473
G0 X176.16 Y145.92
G1 X165.56 Y156.53 E1673.92826
G0 X165.80 Y156.99
G1 X176.87 Y145.92 E1674.57890
G0 X177.46 Y146.04
G1 X166.12 Y157.38 E1675.24583
G0 X166.44 Y157.77
G1 X177.85 Y146.36 E1675.91690
G0 X177.74 Y145.92
G1 X190.89 Y159.07 E1676.69006
G0 X190.99 Y152.10
G1 X184.81 Y145.92 E1677.05331
G0 X182.88 Y145.92
G1 X179.38 Y149.43 E1677.25933
G0 X179.98 Y149.18
G1 X170.08 Y159.07 E1677.84115
