;-- START GCODE --
;Sliced for Type A Machines Series 1
;Sliced at: Sat 25-06-2016 14:44:38
;Basic settings: Layer height: 0.2 Walls: 1 Fill: 50
;Print Speed: 100 Support: 0
;Retraction Speed: 40 Retraction Distance: 1.2
;Print time: #P_TIME#
;Filament used: #F_AMNT#m #F_WGHT#g
;Filament cost: #F_COST#
M106 S255	 ;start with the fan on
G21        ;metric values
G90        ;absolute positioning
M106 S255    ;start with the fan on
G28     ;move to endstops
G29		;allows for auto-levelling
G1 X150 Y5  Z15.0 F6000 ;center and move the platform down 15mm
M109 S220 ;Heat To temp
G92 E0                  ;zero the extruded length
G1 F200 E30              ;extrude 30mm of feed stock
G92 E0                  ;zero the extruded length again
G1 X175 Y25  Z0 F6000 ;remove bugger
G1 X220 F6000 ;remove bugger
G1 X150 Y150  Z15 F6000 ;recenter and begin
G1 F6000

;Layer count: 34
;LAYER:0
M106 S255
G0 F6000 X145.15 Y141.65 Z0.30
;TYPE:SKIRT
G1 F2700 X149.20 Y141.65 E0.25238
G1 X151.21 Y140.25 E0.40519
G1 X157.78 Y140.25 E0.81516
G1 X159.43 Y141.65 E0.94997
G1 X161.15 Y141.65 E1.05730
G1 X161.15 Y143.11 E1.14853
G1 X162.36 Y144.14 E1.24701
G1 X163.74 Y150.11 E1.62924
G1 X162.99 Y153.34 E1.83620
G1 X162.86 Y154.52 E1.91001
G1 X162.86 Y164.75 E2.54823
G1 X144.13 Y164.75 E3.71622
G1 X140.19 Y156.49 E4.28697
G1 X144.87 Y150.71 E4.75056
G1 X144.73 Y149.99 E4.79662
G1 X145.15 Y148.17 E4.91326
G1 X145.15 Y141.65 E5.31980
G0 F6000 X145.65 Y142.15
G1 F2700 X149.36 Y142.15 E5.55080
G1 X151.37 Y140.75 E5.70361
G1 X157.60 Y140.75 E6.09231
G1 X159.25 Y142.15 E6.22712
G1 X160.65 Y142.15 E6.31474
G1 X160.65 Y143.34 E6.38920
G1 X161.91 Y144.41 E6.49184
G1 X163.23 Y150.11 E6.85652
G1 X162.50 Y153.25 E7.05765
G1 X162.36 Y154.49 E7.13580
G1 X162.36 Y164.25 E7.74421
G1 X144.44 Y164.25 E8.86131
G1 X140.78 Y156.56 E9.39270
G1 X145.41 Y150.85 E9.85128
G1 X145.24 Y150.00 E9.90523
G1 X145.65 Y148.22 E10.01886
G1 X145.65 Y142.15 E10.39765
G0 F6000 X146.15 Y142.65
G1 F2700 X149.51 Y142.65 E10.60725
G1 X151.53 Y141.25 E10.76006
G1 X157.42 Y141.25 E11.12757
G1 X159.06 Y142.65 E11.26237
G1 X160.15 Y142.65 E11.33022
G1 X160.15 Y143.57 E11.38791
G1 X161.46 Y144.68 E11.49466
G1 X162.71 Y150.11 E11.84179
G1 X162.00 Y153.17 E12.03773
G1 X161.86 Y154.46 E12.11901
G1 X161.86 Y163.75 E12.69817
G1 X144.76 Y163.75 E13.76445
G1 X141.36 Y156.63 E14.25645
G1 X145.94 Y150.98 E14.71007
G1 X145.75 Y150.01 E14.77191
G1 X146.15 Y148.28 E14.88227
G1 X146.15 Y142.65 E15.23356
G0 F6000 X146.65 Y143.15
G1 F2700 X149.67 Y143.15 E15.42177
G1 X151.68 Y141.75 E15.57458
G1 X157.23 Y141.75 E15.92082
G1 X158.88 Y143.15 E16.05562
G1 X159.65 Y143.15 E16.10377
G1 X159.65 Y143.81 E16.14474
G1 X161.01 Y144.96 E16.25556
G1 X162.20 Y150.11 E16.58516
G1 X161.51 Y153.09 E16.77578
G1 X161.36 Y154.43 E16.86046
G1 X161.36 Y163.25 E17.41025
G1 X145.07 Y163.25 E18.42564
G1 X141.95 Y156.70 E18.87828
G1 X146.48 Y151.11 E19.32688
G1 X146.26 Y150.01 E19.39667
G1 X146.65 Y148.34 E19.50376
G1 X146.65 Y143.15 E19.82755
G0 F6000 X147.15 Y143.65
G1 F2700 X149.83 Y143.65 E19.99431
G1 X151.84 Y142.25 E20.14717
G1 X157.05 Y142.25 E20.47214
G1 X158.70 Y143.65 E20.60690
G1 X159.15 Y143.65 E20.63540
G1 X159.15 Y144.04 E20.65960
G1 X160.56 Y145.23 E20.77453
G1 X161.69 Y150.11 E21.08660
G1 X161.02 Y153.00 E21.27197
G1 X160.86 Y154.40 E21.35985
G1 X160.86 Y162.75 E21.88039
G1 X145.39 Y162.75 E22.84495
G1 X142.54 Y156.77 E23.25827
G1 X147.02 Y151.24 E23.70186
G1 X146.77 Y150.02 E23.77947
G1 X147.15 Y148.40 E23.88356
G1 X147.15 Y143.65 E24.17960
G0 F6000 X147.65 Y144.15
G1 F2700 X149.98 Y144.15 E24.32496
G1 X152.00 Y142.75 E24.47782
G1 X156.87 Y142.75 E24.78153
G1 X158.51 Y144.15 E24.91634
G1 X158.65 Y144.15 E24.92507
G1 X158.65 Y144.27 E24.93249
G1 X160.11 Y145.50 E25.05150
G1 X161.17 Y150.11 E25.34609
G1 X160.52 Y152.92 E25.52621
G1 X160.36 Y154.37 E25.61729
G1 X160.36 Y162.25 E26.10859
G1 X145.71 Y162.25 E27.02226
G1 X143.12 Y156.84 E27.39622
G1 X147.49 Y151.45 E27.82886
G1 X147.55 Y151.35 E27.83606
G1 X147.28 Y150.03 E27.91985
G1 X147.65 Y148.46 E28.02067
G1 X147.65 Y144.15 E28.28921
G0 F6000 X148.15 Y144.65
G1 F2700 X150.14 Y144.65 E28.41318
G1 X152.15 Y143.25 E28.56599
G1 X156.68 Y143.25 E28.84850
G1 X159.66 Y145.78 E29.09205
G1 X160.66 Y150.11 E29.36908
G1 X160.03 Y152.82 E29.54294
G1 X159.86 Y154.35 E29.63885
G1 X159.86 Y161.75 E30.10027
G1 X146.02 Y161.75 E30.96306
G1 X143.71 Y156.91 E31.29765
G1 X147.91 Y151.73 E31.71340
G1 X148.08 Y151.43 E31.73486
G1 X147.80 Y150.04 E31.82322
G1 X148.15 Y148.51 E31.92078
G1 X148.15 Y144.65 E32.16181
G0 F6000 X148.65 Y145.15
G1 F2700 X150.30 Y145.15 E32.26439
G1 X152.31 Y143.75 E32.41720
G1 X156.50 Y143.75 E32.67850
G1 X159.21 Y146.05 E32.90024
G1 X160.15 Y150.11 E33.15974
G1 X159.54 Y152.74 E33.32829
G1 X159.36 Y154.32 E33.42752
G1 X159.36 Y161.25 E33.85963
G1 X146.34 Y161.25 E34.67160
G1 X144.30 Y156.98 E34.96680
G1 X148.33 Y152.01 E35.36592
G1 X148.60 Y151.51 E35.40131
G1 X148.31 Y150.05 E35.49426
G1 X148.65 Y148.57 E35.58874
G1 X148.65 Y145.15 E35.80215
G0 F6000 X149.15 Y145.65
G1 F2700 X150.46 Y145.65 E35.88335
G1 X152.47 Y144.25 E36.03616
G1 X156.31 Y144.25 E36.27619
G1 X158.76 Y146.33 E36.47616
G1 X159.63 Y150.11 E36.71813
G1 X159.04 Y152.66 E36.88143
G1 X158.86 Y154.29 E36.98386
G1 X158.86 Y160.75 E37.38672
G1 X146.65 Y160.75 E38.14780
G1 X144.89 Y157.05 E38.40368
G1 X148.74 Y152.29 E38.78546
G1 X149.13 Y151.59 E38.83550
G1 X148.82 Y150.06 E38.93296
G1 X149.15 Y148.63 E39.02424
G1 X149.15 Y145.65 E39.21008
G0 F6000 X149.65 Y146.15
G1 F2700 X150.61 Y146.15 E39.26982
G1 X152.62 Y144.75 E39.42268
G1 X156.13 Y144.75 E39.64145
G1 X158.31 Y146.60 E39.81966
G1 X159.12 Y150.11 E40.04409
G1 X158.55 Y152.57 E40.20208
G1 X158.36 Y154.26 E40.30784
G1 X158.36 Y160.25 E40.68139
G1 X146.97 Y160.25 E41.39164
G1 X145.47 Y157.12 E41.60813
G1 X149.16 Y152.57 E41.97329
G1 X149.65 Y151.67 E42.03717
G1 X149.65 Y151.66 E42.03761
G1 X149.33 Y150.06 E42.13933
G1 X149.65 Y148.69 E42.22734
G1 X149.65 Y146.15 E42.38567
G0 F6000 X150.15 Y146.65
G1 F2700 X150.77 Y146.65 E42.42403
G1 X152.78 Y145.25 E42.57689
G1 X155.95 Y145.25 E42.77439
G1 X157.86 Y146.88 E42.93083
G1 X158.61 Y150.11 E43.13773
G1 X158.06 Y152.48 E43.28989
G1 X157.86 Y154.24 E43.39999
G1 X157.86 Y159.75 E43.74373
G1 X147.28 Y159.75 E44.40309
G1 X146.06 Y157.19 E44.58022
G1 X149.58 Y152.84 E44.92871
G1 X150.15 Y151.80 E45.00320
G1 X150.15 Y151.61 E45.01461
G1 X149.84 Y150.07 E45.11277
G1 X150.15 Y148.75 E45.19771
G1 X150.15 Y146.65 E45.32836
G0 F6000 X150.65 Y147.15
G1 F2700 X151.04 Y147.15 E45.35250
G1 X151.06 Y147.05 E45.35865
G1 X152.94 Y145.75 E45.50103
G1 X155.76 Y145.75 E45.67727
G1 X157.41 Y147.15 E45.81194
G1 X158.09 Y150.11 E46.00129
G1 X157.56 Y152.40 E46.14831
G1 X157.36 Y154.21 E46.26154
G1 X157.36 Y159.25 E46.57598
G1 X147.60 Y159.25 E47.18451
G1 X146.65 Y157.26 E47.32226
G1 X150.00 Y153.13 E47.65368
G1 X150.65 Y151.93 E47.73919
G1 X150.65 Y151.56 E47.76164
G1 X150.35 Y150.08 E47.85617
G1 X150.65 Y148.80 E47.93790
G1 X150.65 Y147.15 E48.04098
G0 F6000 X151.15 Y147.65
G1 F2700 X151.44 Y147.65 E48.05869
G1 X151.51 Y147.35 E48.07759
G1 X153.09 Y146.25 E48.19824
G1 X155.58 Y146.25 E48.35327
G1 X156.96 Y147.42 E48.46613
G1 X157.58 Y150.11 E48.63800
G1 X157.07 Y152.32 E48.77971
G1 X156.86 Y154.18 E48.89627
G1 X156.86 Y158.75 E49.18139
G1 X147.91 Y158.75 E49.73904
G1 X147.24 Y157.33 E49.83742
G1 X150.41 Y153.41 E50.15191
G1 X151.23 Y151.91 E50.25874
G1 X151.20 Y151.75 E50.26866
G1 X151.15 Y151.75 E50.27171
G1 X151.15 Y151.51 E50.28674
G1 X150.87 Y150.09 E50.37721
G1 X151.15 Y148.86 E50.45568
G1 X151.15 Y147.65 E50.53126
G0 F6000 X151.65 Y148.15
G1 F2700 X151.83 Y148.15 E50.54248
G1 X151.95 Y147.66 E50.57413
G1 X153.25 Y146.75 E50.67305
G1 X155.40 Y146.75 E50.80682
G1 X156.51 Y147.70 E50.89791
G1 X157.07 Y150.11 E51.05224
G1 X156.57 Y152.24 E51.18865
G1 X156.36 Y154.15 E51.30847
G1 X156.36 Y158.25 E51.56435
G1 X148.23 Y158.25 E52.07111
G1 X147.82 Y157.40 E52.13019
G1 X150.83 Y153.69 E52.42799
G1 X151.76 Y151.99 E52.54875
G1 X151.38 Y150.09 E52.66913
G1 X151.65 Y148.92 E52.74452
G1 X151.65 Y148.15 E52.79241
G0 F6000 X152.15 Y148.65
G1 F2700 X152.23 Y148.65 E52.79721
G1 X152.39 Y147.96 E52.84160
G1 X153.41 Y147.25 E52.91879
G1 X155.21 Y147.25 E53.03129
G1 X156.06 Y147.97 E53.10062
G1 X156.55 Y150.11 E53.23741
G1 X156.08 Y152.16 E53.36857
G1 X155.86 Y154.12 E53.49160
G1 X155.86 Y157.75 E53.71822
G1 X148.54 Y157.75 E54.17416
G1 X148.41 Y157.47 E54.19385
G1 X151.25 Y153.97 E54.47472
G1 X152.28 Y152.07 E54.60977
G1 X151.89 Y150.10 E54.73472
G1 X152.15 Y148.98 E54.80684
G1 X152.15 Y148.65 E54.82723
G0 F6000 X153.05 Y148.86
G0 X153.78 Y148.28
G0 X154.49 Y148.25
;TYPE:WALL-INNER
G1 F2700 X154.84 Y148.25 E54.84937
G1 X155.16 Y148.52 E54.87508
G1 X155.18 Y148.62 E54.88199
G1 X154.95 Y148.45 E54.90017
G1 X154.69 Y148.31 E54.91877
G1 X154.49 Y148.25 E54.93169
G0 F6000 X155.50 Y149.16
G0 X155.39 Y150.68
G1 F2700 X155.09 Y151.98 E55.01483
G1 X154.86 Y154.06 E55.14558
G1 X154.86 Y156.75 E55.31315
G1 X150.28 Y156.75 E55.59870
G1 X152.08 Y154.53 E55.77725
G1 X153.34 Y152.23 E55.94065
G1 X153.08 Y150.97 E56.02075
G1 X153.25 Y151.10 E56.03439
G1 X153.52 Y151.24 E56.05313
G1 X153.80 Y151.32 E56.07094
G1 X154.11 Y151.35 E56.09068
G1 X154.44 Y151.32 E56.11145
G1 X154.74 Y151.22 E56.13088
G1 X155.01 Y151.07 E56.15011
G1 X155.24 Y150.87 E56.16887
G1 X155.39 Y150.68 E56.18443
G0 F6000 X155.00 Y150.37
;TYPE:WALL-OUTER
G1 F2700 X155.10 Y150.19 E56.19728
G1 X155.16 Y149.99 E56.21028
G1 X155.18 Y149.77 E56.22375
G1 X155.16 Y149.55 E56.23799
G1 X155.09 Y149.34 E56.25125
G1 X154.99 Y149.16 E56.26440
G1 X154.85 Y149.00 E56.27758
G1 X154.69 Y148.87 E56.29069
G1 X154.50 Y148.78 E56.30363
G1 X154.32 Y148.72 E56.31557
G1 X154.10 Y148.70 E56.32891
G1 X153.88 Y148.72 E56.34316
G1 X153.68 Y148.79 E56.35641
G1 X153.49 Y148.89 E56.36950
G1 X153.33 Y149.03 E56.38265
G1 X153.20 Y149.19 E56.39580
G1 X153.11 Y149.38 E56.40868
G1 X153.05 Y149.56 E56.42083
G1 X153.03 Y149.78 E56.43411
G1 X153.06 Y150.01 E56.44866
G1 X153.13 Y150.22 E56.46273
G1 X153.22 Y150.39 E56.47462
G1 X153.36 Y150.55 E56.48773
G1 X153.53 Y150.68 E56.50096
G1 X153.71 Y150.77 E56.51390
G1 X153.90 Y150.83 E56.52590
G1 X154.11 Y150.85 E56.53925
G1 X154.34 Y150.83 E56.55349
G1 X154.54 Y150.76 E56.56668
G1 X154.72 Y150.66 E56.57983
G1 X154.88 Y150.52 E56.59279
G1 X155.00 Y150.37 E56.60506
G0 F6000 X156.04 Y150.11
G1 F2700 X155.59 Y152.06 E56.73040
G1 X155.36 Y154.09 E56.85762
G1 X155.36 Y157.25 E57.05457
G1 X149.23 Y157.25 E57.43679
G1 X151.66 Y154.25 E57.67798
G1 X152.81 Y152.15 E57.82718
G1 X152.40 Y150.11 E57.95676
G1 X152.84 Y148.26 E58.07538
G1 X153.56 Y147.75 E58.13079
G1 X155.03 Y147.75 E58.22216
G1 X155.61 Y148.24 E58.26963
G1 X156.04 Y150.11 E58.38894
G0 F6000 X155.69 Y150.09
G0 X154.62 Y151.44
;TYPE:FILL
G1 F2700 X154.96 Y151.78 E58.41866
G0 F6000 X154.87 Y152.40
G1 F2700 X153.99 Y151.52 E58.49609
G0 F6000 X153.39 Y151.63
G1 F2700 X154.80 Y153.03 E58.61992
G0 F6000 X154.72 Y153.66
G1 F2700 X153.45 Y152.39 E58.73259
G0 F6000 X153.20 Y152.84
G1 F2700 X154.68 Y154.33 E58.86347
G0 F6000 X154.68 Y155.03
G1 F2700 X152.95 Y153.30 E59.01635
G0 F6000 X152.70 Y153.76
G1 F2700 X154.68 Y155.74 E59.19129
G0 F6000 X154.68 Y156.45
G1 F2700 X152.45 Y154.22 E59.38827
G0 F6000 X152.19 Y154.67
G1 F2700 X154.10 Y156.57 E59.55654
G0 F6000 X153.39 Y156.57
G1 F2700 X151.87 Y155.06 E59.69042
G0 F6000 X151.56 Y155.45
G1 F2700 X152.69 Y156.57 E59.78990
G0 F6000 X151.98 Y156.57
G1 F2700 X151.24 Y155.84 E59.85495
G0 F6000 X150.92 Y156.23
G1 F2700 X151.27 Y156.57 E59.88551
;LAYER:1
G0 F6000 X150.28 Y156.75 Z0.50
;TYPE:WALL-INNER
G1 F540 X152.08 Y154.53 E60.00460
G1 X153.34 Y152.23 E60.11348
G1 X153.08 Y150.97 E60.16682
G1 X153.27 Y151.11 E60.17656
G1 X153.50 Y151.23 E60.18741
G1 X153.80 Y151.32 E60.20031
G1 X154.11 Y151.35 E60.21318
G1 X154.43 Y151.32 E60.22655
G1 X154.76 Y151.21 E60.24139
G1 X155.03 Y151.05 E60.25433
G1 X155.25 Y150.85 E60.26652
G1 X155.39 Y150.68 E60.27586
G1 X155.09 Y151.98 E60.33129
G1 X154.86 Y154.06 E60.41845
G1 X154.86 Y156.75 E60.53016
G1 X150.28 Y156.75 E60.72054
G0 F6000 X154.49 Y148.25
G1 F540 X154.84 Y148.25 E60.73529
G1 X155.16 Y148.52 E60.75243
G1 X155.18 Y148.63 E60.75708
G1 X154.94 Y148.44 E60.76993
G1 X154.71 Y148.32 E60.78068
G1 X154.49 Y148.25 E60.79024
G0 F6000 X154.32 Y148.72
;TYPE:WALL-OUTER
G1 F540 X154.11 Y148.70 E60.79901
G1 X153.89 Y148.72 E60.80795
G1 X153.66 Y148.80 E60.81830
G1 X153.47 Y148.91 E60.82706
G1 X153.31 Y149.05 E60.83617
G1 X153.11 Y149.35 E60.85110
G1 X153.05 Y149.57 E60.86040
G1 X153.03 Y149.78 E60.86934
G1 X153.06 Y150.03 E60.87987
G1 X153.14 Y150.24 E60.88911
G1 X153.24 Y150.41 E60.89715
G1 X153.38 Y150.56 E60.90584
G1 X153.54 Y150.69 E60.91442
G1 X153.69 Y150.77 E60.92164
G1 X153.90 Y150.83 E60.93041
G1 X154.11 Y150.85 E60.93918
G1 X154.32 Y150.83 E60.94812
G1 X154.56 Y150.75 E60.95844
G1 X154.74 Y150.64 E60.96722
G1 X154.89 Y150.51 E60.97576
G1 X155.00 Y150.37 E60.98318
G1 X155.10 Y150.17 E60.99255
G1 X155.16 Y149.99 E61.00035
G1 X155.18 Y149.78 E61.00925
G1 X155.16 Y149.56 E61.01819
G1 X155.08 Y149.32 E61.02853
G1 X154.97 Y149.14 E61.03733
G1 X154.83 Y148.99 E61.04611
G1 X154.67 Y148.86 E61.05466
G1 X154.52 Y148.78 E61.06182
G1 X154.32 Y148.72 E61.07056
G0 F6000 X155.03 Y147.75
G1 F540 X155.61 Y148.24 E61.10220
G1 X156.04 Y150.11 E61.18175
G1 X155.59 Y152.06 E61.26530
G1 X155.36 Y154.09 E61.35012
G1 X155.36 Y157.25 E61.48141
G1 X149.23 Y157.25 E61.73623
G1 X151.66 Y154.25 E61.89705
G1 X152.81 Y152.15 E61.99649
G1 X152.40 Y150.11 E62.08288
G1 X152.84 Y148.26 E62.16196
G1 X153.56 Y147.75 E62.19890
G1 X155.03 Y147.75 E62.25981
G0 F6000 X154.88 Y148.08
G0 X155.63 Y149.78
G0 X155.02 Y151.51
;TYPE:FILL
G1 F540 X152.61 Y153.92 E62.40160
G0 F6000 X153.46 Y152.36
G1 F540 X154.31 Y151.51 E62.45169
G0 F6000 X153.65 Y151.46
G1 F540 X153.41 Y151.71 E62.46598
G0 F6000 X154.87 Y152.36
G1 F540 X150.72 Y156.51 E62.70987
G0 F6000 X151.37 Y156.57
G1 F540 X154.78 Y153.16 E62.91048
G0 F6000 X154.69 Y153.96
G1 F540 X152.08 Y156.57 E63.06411
G0 F6000 X152.78 Y156.57
G1 F540 X154.68 Y154.68 E63.17559
G0 F6000 X154.68 Y155.39
G1 F540 X153.49 Y156.57 E63.24547
G0 F6000 X154.20 Y156.57
G1 F540 X154.68 Y156.09 E63.27378
;LAYER:2
G0 F6000 X154.86 Y156.75 Z0.70
;TYPE:WALL-INNER
G1 F540 X150.28 Y156.75 E63.46415
G1 X152.08 Y154.53 E63.58322
G1 X153.34 Y152.23 E63.69212
G1 X153.08 Y150.97 E63.74547
G1 X153.23 Y151.09 E63.75327
G1 X153.50 Y151.23 E63.76618
G1 X153.80 Y151.32 E63.77903
G1 X154.11 Y151.35 E63.79190
G1 X154.41 Y151.32 E63.80481
G1 X154.71 Y151.23 E63.81760
G1 X154.98 Y151.09 E63.83048
G1 X155.22 Y150.89 E63.84336
G1 X155.39 Y150.68 E63.85461
G1 X155.09 Y151.98 E63.91000
G1 X154.86 Y154.06 E63.99721
G1 X154.86 Y156.75 E64.10888
G0 F6000 X155.39 Y150.61
G0 X155.49 Y149.13
G0 X155.18 Y148.63
G1 F540 X154.98 Y148.46 E64.11978
G1 X154.71 Y148.32 E64.13258
G1 X154.49 Y148.25 E64.14210
G1 X154.84 Y148.25 E64.15686
G1 X155.16 Y148.52 E64.17399
G1 X155.18 Y148.63 E64.17868
G0 F6000 X154.87 Y149.01
;TYPE:WALL-OUTER
G1 F540 X154.70 Y148.88 E64.18743
G1 X154.52 Y148.78 E64.19619
G1 X154.32 Y148.72 E64.20492
G1 X154.11 Y148.70 E64.21370
G1 X153.89 Y148.72 E64.22272
G1 X153.65 Y148.81 E64.23353
G1 X153.51 Y148.88 E64.23998
G1 X153.34 Y149.01 E64.24876
G1 X153.21 Y149.18 E64.25751
G1 X153.11 Y149.36 E64.26632
G1 X153.05 Y149.57 E64.27515
G1 X153.03 Y149.78 E64.28387
G1 X153.05 Y149.99 E64.29273
G1 X153.12 Y150.21 E64.30230
G1 X153.21 Y150.37 E64.31018
G1 X153.34 Y150.53 E64.31890
G1 X153.51 Y150.67 E64.32770
G1 X153.69 Y150.77 E64.33649
G1 X153.90 Y150.83 E64.34527
G1 X154.11 Y150.85 E64.35404
G1 X154.32 Y150.83 E64.36282
G1 X154.52 Y150.77 E64.37155
G1 X154.70 Y150.67 E64.38035
G1 X154.87 Y150.54 E64.38912
G1 X155.00 Y150.37 E64.39816
G1 X155.11 Y150.15 E64.40827
G1 X155.16 Y149.99 E64.41527
G1 X155.18 Y149.78 E64.42417
G1 X155.16 Y149.56 E64.43319
G1 X155.07 Y149.31 E64.44400
G1 X155.00 Y149.18 E64.45049
G1 X154.87 Y149.01 E64.45929
G0 F6000 X155.61 Y148.24
G1 F540 X156.04 Y150.11 E64.53883
G1 X155.59 Y152.06 E64.62238
G1 X155.36 Y154.09 E64.70720
G1 X155.36 Y157.25 E64.83850
G1 X149.23 Y157.25 E65.09331
G1 X151.66 Y154.25 E65.25411
G1 X152.81 Y152.15 E65.35357
G1 X152.40 Y150.11 E65.43996
G1 X152.84 Y148.26 E65.51904
G1 X153.56 Y147.75 E65.55598
G1 X155.03 Y147.75 E65.61689
G1 X155.61 Y148.24 E65.64854
G0 F6000 X155.29 Y148.41
G0 X155.53 Y150.31
G0 X154.62 Y151.44
;TYPE:FILL
G1 F540 X154.96 Y151.78 E65.66841
G0 F6000 X154.87 Y152.40
G1 F540 X153.99 Y151.52 E65.71998
G0 F6000 X153.39 Y151.62
G1 F540 X154.80 Y153.03 E65.80264
G0 F6000 X154.72 Y153.66
G1 F540 X153.45 Y152.39 E65.87776
G0 F6000 X153.20 Y152.84
G1 F540 X154.68 Y154.33 E65.96501
G0 F6000 X154.68 Y155.03
G1 F540 X152.95 Y153.30 E66.06693
G0 F6000 X152.70 Y153.76
G1 F540 X154.68 Y155.74 E66.18355
G0 F6000 X154.68 Y156.45
G1 F540 X152.45 Y154.22 E66.31488
G0 F6000 X152.19 Y154.66
G1 F540 X154.10 Y156.57 E66.42712
G0 F6000 X153.39 Y156.57
G1 F540 X151.87 Y155.06 E66.51643
G0 F6000 X151.56 Y155.45
G1 F540 X152.69 Y156.57 E66.58275
G0 F6000 X151.98 Y156.57
G1 F540 X151.24 Y155.84 E66.62611
G0 F6000 X150.92 Y156.23
G1 F540 X151.27 Y156.57 E66.64649
;LAYER:3
G0 F6000 X150.28 Y156.75 Z0.90
;TYPE:WALL-INNER
G1 F540 X152.08 Y154.53 E66.76558
G1 X153.34 Y152.23 E66.87445
G1 X153.08 Y150.97 E66.92781
G1 X153.23 Y151.09 E66.93561
G1 X153.50 Y151.23 E66.94852
G1 X153.80 Y151.32 E66.96137
G1 X154.11 Y151.35 E66.97424
G1 X154.41 Y151.32 E66.98715
G1 X154.71 Y151.23 E66.99993
G1 X154.98 Y151.09 E67.01282
G1 X155.22 Y150.89 E67.02570
G1 X155.39 Y150.68 E67.03695
G1 X155.09 Y151.98 E67.09234
G1 X154.86 Y154.06 E67.17950
G1 X154.86 Y156.75 E67.29122
G1 X150.28 Y156.75 E67.48159
G0 F6000 X154.49 Y148.25
G1 F540 X154.84 Y148.25 E67.49635
G1 X155.16 Y148.52 E67.51348
G1 X155.18 Y148.63 E67.51817
G1 X154.98 Y148.46 E67.52908
G1 X154.71 Y148.32 E67.54187
G1 X154.49 Y148.25 E67.55139
G0 F6000 X154.32 Y148.72
;TYPE:WALL-OUTER
G1 F540 X154.11 Y148.70 E67.56017
G1 X153.90 Y148.72 E67.56894
G1 X153.69 Y148.78 E67.57771
G1 X153.51 Y148.88 E67.58647
G1 X153.34 Y149.01 E67.59525
G1 X153.21 Y149.18 E67.60400
G1 X153.11 Y149.36 E67.61282
G1 X153.05 Y149.57 E67.62164
G1 X153.03 Y149.78 E67.63037
G1 X153.05 Y149.99 E67.63922
G1 X153.12 Y150.21 E67.64879
G1 X153.21 Y150.37 E67.65668
G1 X153.34 Y150.53 E67.66539
G1 X153.51 Y150.67 E67.67419
G1 X153.69 Y150.77 E67.68299
G1 X153.90 Y150.83 E67.69176
G1 X154.11 Y150.85 E67.70053
G1 X154.32 Y150.83 E67.70931
G1 X154.52 Y150.77 E67.71804
G1 X154.70 Y150.67 E67.72684
G1 X154.87 Y150.54 E67.73561
G1 X155.00 Y150.37 E67.74438
G1 X155.09 Y150.21 E67.75229
G1 X155.16 Y149.99 E67.76178
G1 X155.18 Y149.78 E67.77068
G1 X155.16 Y149.56 E67.77945
G1 X155.10 Y149.36 E67.78823
G1 X155.00 Y149.18 E67.79702
G1 X154.87 Y149.01 E67.80582
G1 X154.70 Y148.88 E67.81457
G1 X154.52 Y148.78 E67.82333
G1 X154.32 Y148.72 E67.83206
G0 F6000 X155.03 Y147.75
G1 F540 X155.61 Y148.24 E67.86371
G1 X156.04 Y150.11 E67.94325
G1 X155.59 Y152.06 E68.02680
G1 X155.36 Y154.09 E68.11162
G1 X155.36 Y157.25 E68.24292
G1 X149.23 Y157.25 E68.49773
G1 X151.66 Y154.25 E68.65855
G1 X152.81 Y152.15 E68.75800
G1 X152.40 Y150.11 E68.84439
G1 X152.84 Y148.26 E68.92347
G1 X153.56 Y147.75 E68.96041
G1 X155.03 Y147.75 E69.02132
G0 F6000 X154.88 Y148.08
G0 X155.63 Y149.78
G0 X155.02 Y151.51
;TYPE:FILL
G1 F540 X152.61 Y153.92 E69.16313
G0 F6000 X153.46 Y152.36
G1 F540 X154.31 Y151.51 E69.21323
G0 F6000 X153.65 Y151.46
G1 F540 X153.41 Y151.71 E69.22757
G0 F6000 X154.87 Y152.36
G1 F540 X150.72 Y156.51 E69.47146
G0 F6000 X151.37 Y156.57
G1 F540 X154.78 Y153.16 E69.67207
G0 F6000 X154.69 Y153.96
G1 F540 X152.08 Y156.57 E69.82571
G0 F6000 X152.78 Y156.57
G1 F540 X154.68 Y154.68 E69.93719
G0 F6000 X154.68 Y155.39
G1 F540 X153.49 Y156.57 E70.00706
G0 F6000 X154.20 Y156.57
G1 F540 X154.68 Y156.09 E70.03537
;LAYER:4
G0 F6000 X154.86 Y156.75 Z1.10
;TYPE:WALL-INNER
G1 F600 X150.28 Y156.75 E70.22575
G1 X152.08 Y154.53 E70.34481
G1 X153.34 Y152.23 E70.45371
G1 X153.08 Y150.97 E70.50706
G1 X153.23 Y151.09 E70.51483
G1 X153.50 Y151.23 E70.52773
G1 X153.80 Y151.32 E70.54058
G1 X154.11 Y151.35 E70.55345
G1 X154.41 Y151.32 E70.56636
G1 X154.71 Y151.23 E70.57915
G1 X154.98 Y151.09 E70.59204
G1 X155.22 Y150.89 E70.60491
G1 X155.39 Y150.68 E70.61617
G1 X155.09 Y151.98 E70.67155
G1 X154.86 Y154.06 E70.75876
G1 X154.86 Y156.75 E70.87043
G0 F6000 X155.38 Y150.62
G0 X155.52 Y149.19
G0 X155.18 Y148.63
G1 F600 X154.98 Y148.46 E70.88133
G1 X154.71 Y148.32 E70.89413
G1 X154.49 Y148.25 E70.90365
G1 X154.84 Y148.25 E70.91841
G1 X155.16 Y148.52 E70.93554
G1 X155.18 Y148.63 E70.94023
G0 F6000 X154.87 Y149.01
;TYPE:WALL-OUTER
G1 F600 X154.70 Y148.88 E70.94898
G1 X154.52 Y148.78 E70.95774
G1 X154.32 Y148.72 E70.96647
G1 X154.11 Y148.70 E70.97525
G1 X153.90 Y148.72 E70.98402
G1 X153.69 Y148.78 E70.99280
G1 X153.51 Y148.88 E71.00156
G1 X153.34 Y149.01 E71.01033
G1 X153.21 Y149.18 E71.01908
G1 X153.11 Y149.36 E71.02790
G1 X153.05 Y149.57 E71.03672
G1 X153.03 Y149.78 E71.04545
G1 X153.05 Y149.99 E71.05459
G1 X153.16 Y150.28 E71.06712
G1 X153.21 Y150.37 E71.07170
G1 X153.34 Y150.53 E71.08044
G1 X153.51 Y150.67 E71.08924
G1 X153.69 Y150.77 E71.09804
G1 X153.90 Y150.83 E71.10681
G1 X154.11 Y150.85 E71.11559
G1 X154.32 Y150.83 E71.12436
G1 X154.52 Y150.77 E71.13309
G1 X154.70 Y150.67 E71.14189
G1 X154.87 Y150.54 E71.15066
G1 X155.00 Y150.37 E71.15944
G1 X155.09 Y150.21 E71.16734
G1 X155.16 Y149.99 E71.17683
G1 X155.18 Y149.78 E71.18573
G1 X155.16 Y149.56 E71.19450
G1 X155.10 Y149.36 E71.20328
G1 X155.00 Y149.18 E71.21207
G1 X154.87 Y149.01 E71.22087
G0 F6000 X155.61 Y148.24
G1 F600 X156.04 Y150.11 E71.30041
G1 X155.59 Y152.06 E71.38397
G1 X155.36 Y154.09 E71.46879
G1 X155.36 Y157.25 E71.60008
G1 X149.23 Y157.25 E71.85490
G1 X151.66 Y154.25 E72.01569
G1 X152.81 Y152.15 E72.11516
G1 X152.40 Y150.11 E72.20154
G1 X152.84 Y148.26 E72.28063
G1 X153.56 Y147.75 E72.31757
G1 X155.03 Y147.75 E72.37848
G1 X155.61 Y148.24 E72.41012
G0 F6000 X155.29 Y148.41
G0 X155.50 Y150.38
G0 X154.62 Y151.44
;TYPE:FILL
G1 F600 X154.96 Y151.78 E72.43000
G0 F6000 X154.87 Y152.40
G1 F600 X153.99 Y151.52 E72.48156
G0 F6000 X153.39 Y151.63
G1 F600 X154.80 Y153.03 E72.56411
G0 F6000 X154.72 Y153.66
G1 F600 X153.45 Y152.39 E72.63922
G0 F6000 X153.20 Y152.84
G1 F600 X154.68 Y154.33 E72.72648
G0 F6000 X154.68 Y155.03
G1 F600 X152.95 Y153.30 E72.82840
G0 F6000 X152.70 Y153.76
G1 F600 X154.68 Y155.74 E72.94502
G0 F6000 X154.68 Y156.45
G1 F600 X152.45 Y154.22 E73.07634
G0 F6000 X152.19 Y154.66
G1 F600 X154.10 Y156.57 E73.18858
G0 F6000 X153.39 Y156.57
G1 F600 X151.87 Y155.06 E73.27790
G0 F6000 X151.56 Y155.45
G1 F600 X152.69 Y156.57 E73.34422
G0 F6000 X151.98 Y156.57
G1 F600 X151.24 Y155.84 E73.38758
G0 F6000 X150.92 Y156.23
G1 F600 X151.27 Y156.57 E73.40795
;LAYER:5
G0 F6000 X150.28 Y156.75 Z1.30
;TYPE:WALL-INNER
G1 F600 X152.08 Y154.53 E73.52702
G1 X153.34 Y152.23 E73.63591
G1 X153.08 Y150.97 E73.68927
G1 X153.23 Y151.09 E73.69707
G1 X153.50 Y151.23 E73.70998
G1 X153.80 Y151.32 E73.72283
G1 X154.11 Y151.35 E73.73570
G1 X154.41 Y151.32 E73.74861
G1 X154.71 Y151.23 E73.76139
G1 X154.98 Y151.09 E73.77428
G1 X155.22 Y150.89 E73.78716
G1 X155.39 Y150.68 E73.79841
G1 X155.09 Y151.98 E73.85380
G1 X154.86 Y154.06 E73.94096
G1 X154.86 Y156.75 E74.05268
G1 X150.28 Y156.75 E74.24305
G0 F6000 X154.49 Y148.25
G1 F600 X154.84 Y148.25 E74.25781
G1 X155.16 Y148.52 E74.27494
G1 X155.18 Y148.63 E74.27963
G1 X154.98 Y148.46 E74.29054
G1 X154.71 Y148.32 E74.30333
G1 X154.49 Y148.25 E74.31285
G0 F6000 X154.32 Y148.72
;TYPE:WALL-OUTER
G1 F600 X154.11 Y148.70 E74.32163
G1 X153.90 Y148.72 E74.33040
G1 X153.69 Y148.78 E74.33917
G1 X153.51 Y148.88 E74.34793
G1 X153.34 Y149.01 E74.35671
G1 X153.21 Y149.18 E74.36546
G1 X153.11 Y149.36 E74.37428
G1 X153.05 Y149.57 E74.38310
G1 X153.03 Y149.78 E74.39183
G1 X153.05 Y149.99 E74.40068
G1 X153.12 Y150.21 E74.41025
G1 X153.21 Y150.37 E74.41814
G1 X153.34 Y150.53 E74.42685
G1 X153.51 Y150.67 E74.43565
G1 X153.69 Y150.77 E74.44445
G1 X153.90 Y150.83 E74.45322
G1 X154.11 Y150.85 E74.46199
G1 X154.32 Y150.83 E74.47077
G1 X154.52 Y150.77 E74.47950
G1 X154.70 Y150.67 E74.48830
G1 X154.87 Y150.54 E74.49707
G1 X155.00 Y150.37 E74.50584
G1 X155.09 Y150.21 E74.51375
G1 X155.16 Y149.99 E74.52324
G1 X155.18 Y149.78 E74.53214
G1 X155.16 Y149.56 E74.54091
G1 X155.10 Y149.36 E74.54969
G1 X155.00 Y149.18 E74.55848
G1 X154.87 Y149.01 E74.56728
G1 X154.70 Y148.88 E74.57603
G1 X154.52 Y148.78 E74.58479
G1 X154.32 Y148.72 E74.59352
G0 F6000 X155.03 Y147.75
G1 F600 X155.61 Y148.24 E74.62517
G1 X156.04 Y150.11 E74.70471
G1 X155.59 Y152.06 E74.78826
G1 X155.36 Y154.09 E74.87308
G1 X155.36 Y157.25 E75.00438
G1 X149.23 Y157.25 E75.25919
G1 X151.66 Y154.25 E75.41999
G1 X152.81 Y152.15 E75.51945
G1 X152.40 Y150.11 E75.60584
G1 X152.84 Y148.26 E75.68492
G1 X153.56 Y147.75 E75.72186
G1 X155.03 Y147.75 E75.78277
G0 F6000 X154.88 Y148.08
G0 X155.63 Y149.78
G0 X155.02 Y151.51
;TYPE:FILL
G1 F600 X152.61 Y153.92 E75.92471
G0 F6000 X153.46 Y152.36
G1 F600 X154.31 Y151.51 E75.97486
G0 F6000 X153.65 Y151.46
G1 F600 X153.41 Y151.71 E75.98920
G0 F6000 X154.87 Y152.36
G1 F600 X150.72 Y156.51 E76.23309
G0 F6000 X151.37 Y156.57
G1 F600 X154.78 Y153.16 E76.43370
G0 F6000 X154.69 Y153.96
G1 F600 X152.08 Y156.57 E76.58734
G0 F6000 X152.78 Y156.57
G1 F600 X154.68 Y154.68 E76.69882
G0 F6000 X154.68 Y155.39
G1 F600 X153.49 Y156.57 E76.76870
G0 F6000 X154.20 Y156.57
G1 F600 X154.68 Y156.09 E76.79701
;LAYER:6
G0 F6000 X154.86 Y156.75 Z1.50
;TYPE:WALL-INNER
G1 F600 X150.28 Y156.75 E76.98738
G1 X152.08 Y154.53 E77.10641
G1 X153.34 Y152.23 E77.21534
G1 X153.08 Y150.97 E77.26865
G1 X153.23 Y151.09 E77.27639
G1 X153.50 Y151.23 E77.28930
G1 X153.80 Y151.32 E77.30215
G1 X154.11 Y151.35 E77.31502
G1 X154.41 Y151.32 E77.32793
G1 X154.71 Y151.23 E77.34072
G1 X154.98 Y151.09 E77.35360
G1 X155.22 Y150.89 E77.36648
G1 X155.39 Y150.68 E77.37773
G1 X155.09 Y151.98 E77.43312
G1 X154.93 Y153.46 E77.49522
G1 X154.86 Y154.06 E77.52029
G1 X154.86 Y156.75 E77.63200
G0 F6000 X155.38 Y150.62
G0 X155.52 Y149.19
G0 X155.18 Y148.63
G1 F600 X154.98 Y148.46 E77.64290
G1 X154.71 Y148.32 E77.65570
G1 X154.49 Y148.25 E77.66522
G1 X154.84 Y148.25 E77.67998
G1 X155.16 Y148.52 E77.69711
G1 X155.18 Y148.63 E77.70180
G0 F6000 X154.87 Y149.01
;TYPE:WALL-OUTER
G1 F600 X154.70 Y148.88 E77.71055
G1 X154.52 Y148.78 E77.71931
G1 X154.32 Y148.72 E77.72804
G1 X154.11 Y148.70 E77.73682
G1 X153.90 Y148.72 E77.74559
G1 X153.69 Y148.78 E77.75436
G1 X153.51 Y148.88 E77.76312
G1 X153.34 Y149.01 E77.77190
G1 X153.21 Y149.18 E77.78065
G1 X153.11 Y149.36 E77.78946
G1 X153.05 Y149.57 E77.79829
G1 X153.03 Y149.78 E77.80701
G1 X153.05 Y149.99 E77.81587
G1 X153.12 Y150.21 E77.82544
G1 X153.21 Y150.37 E77.83333
G1 X153.34 Y150.53 E77.84204
G1 X153.51 Y150.67 E77.85084
G1 X153.69 Y150.77 E77.85964
G1 X153.90 Y150.83 E77.86841
G1 X154.11 Y150.85 E77.87718
G1 X154.32 Y150.83 E77.88596
G1 X154.52 Y150.77 E77.89469
G1 X154.70 Y150.67 E77.90349
G1 X154.87 Y150.54 E77.91226
G1 X155.00 Y150.37 E77.92103
G1 X155.09 Y150.21 E77.92894
G1 X155.16 Y149.99 E77.93843
G1 X155.18 Y149.78 E77.94733
G1 X155.16 Y149.56 E77.95610
G1 X155.10 Y149.36 E77.96488
G1 X155.00 Y149.18 E77.97367
G1 X154.87 Y149.01 E77.98247
G0 F6000 X155.61 Y148.24
G1 F600 X156.04 Y150.11 E78.06201
G1 X155.59 Y152.06 E78.14557
G1 X155.36 Y154.09 E78.23039
G1 X155.36 Y157.25 E78.36168
G1 X149.23 Y157.25 E78.61649
G1 X151.66 Y154.25 E78.77729
G1 X152.81 Y152.15 E78.87675
G1 X152.40 Y150.11 E78.96314
G1 X152.84 Y148.26 E79.04222
G1 X153.56 Y147.75 E79.07917
G1 X155.03 Y147.75 E79.14007
G1 X155.61 Y148.24 E79.17172
G0 F6000 X155.29 Y148.41
G0 X155.50 Y150.38
G0 X154.62 Y151.44
;TYPE:FILL
G1 F600 X154.96 Y151.78 E79.19159
G0 F6000 X154.87 Y152.40
G1 F600 X153.99 Y151.52 E79.24316
G0 F6000 X153.39 Y151.63
G1 F600 X154.80 Y153.03 E79.32571
G0 F6000 X154.72 Y153.66
G1 F600 X153.45 Y152.39 E79.40082
G0 F6000 X153.20 Y152.84
G1 F600 X154.68 Y154.33 E79.48807
G0 F6000 X154.68 Y155.03
G1 F600 X152.95 Y153.30 E79.59000
G0 F6000 X152.70 Y153.76
G1 F600 X154.47 Y155.53 E79.69407
G0 F6000 X154.68 Y155.39
G1 F600 X154.17 Y154.88 E79.72402
G0 F6000 X153.76 Y155.53
G1 F600 X152.45 Y154.22 E79.80122
G0 F6000 X152.19 Y154.67
G1 F600 X153.05 Y155.53 E79.85190
G0 F6000 X152.35 Y155.53
G1 F600 X151.87 Y155.06 E79.87966
G0 F6000 X151.72 Y155.25
G1 F600 X153.04 Y156.57 E79.95750
G0 F6000 X154.45 Y156.57
G1 F600 X152.76 Y154.88 E80.05719
G0 F6000 X151.64 Y155.53
G1 F600 X151.32 Y155.74 E80.06164
G1 X151.62 Y156.57 E80.09844
;LAYER:7
G0 F6000 X150.28 Y156.75 Z1.70
;TYPE:WALL-INNER
G1 F600 X152.08 Y154.53 E80.21751
G1 X153.01 Y152.82 E80.29840
G1 X153.34 Y152.23 E80.32637
G1 X153.08 Y150.97 E80.37976
G1 X153.23 Y151.09 E80.38752
G1 X153.50 Y151.23 E80.40043
G1 X153.80 Y151.32 E80.41328
G1 X154.11 Y151.35 E80.42615
G1 X154.41 Y151.32 E80.43906
G1 X154.71 Y151.23 E80.45185
G1 X154.98 Y151.09 E80.46474
G1 X155.23 Y150.88 E80.47805
G1 X155.40 Y150.67 E80.48937
G1 X155.09 Y151.98 E80.54531
G1 X154.86 Y154.06 E80.63248
G1 X154.86 Y156.75 E80.74419
G1 X150.28 Y156.75 E80.93456
G0 F6000 X154.49 Y148.25
G1 F600 X154.84 Y148.25 E80.94932
G1 X155.16 Y148.52 E80.96646
G1 X155.18 Y148.63 E80.97115
G1 X154.98 Y148.46 E80.98205
G1 X154.71 Y148.32 E80.99485
G1 X154.49 Y148.25 E81.00437
G0 F6000 X154.32 Y148.72
;TYPE:WALL-OUTER
G1 F600 X154.11 Y148.70 E81.01314
G1 X153.90 Y148.72 E81.02192
G1 X153.69 Y148.78 E81.03069
G1 X153.51 Y148.88 E81.03945
G1 X153.34 Y149.01 E81.04823
G1 X153.21 Y149.18 E81.05697
G1 X153.11 Y149.36 E81.06579
G1 X153.05 Y149.57 E81.07462
G1 X153.03 Y149.78 E81.08334
G1 X153.05 Y149.99 E81.09219
G1 X153.12 Y150.21 E81.10177
G1 X153.21 Y150.37 E81.10965
G1 X153.34 Y150.53 E81.11837
G1 X153.51 Y150.67 E81.12717
G1 X153.69 Y150.77 E81.13596
G1 X153.90 Y150.83 E81.14474
G1 X154.11 Y150.85 E81.15351
G1 X154.32 Y150.83 E81.16228
G1 X154.52 Y150.77 E81.17102
G1 X154.70 Y150.67 E81.17981
G1 X154.87 Y150.53 E81.18873
G1 X155.01 Y150.35 E81.19848
G1 X155.09 Y150.21 E81.20519
G1 X155.16 Y149.99 E81.21473
G1 X155.18 Y149.78 E81.22362
G1 X155.16 Y149.56 E81.23240
G1 X155.10 Y149.36 E81.24117
G1 X155.00 Y149.18 E81.24997
G1 X154.87 Y149.01 E81.25877
G1 X154.70 Y148.88 E81.26751
G1 X154.52 Y148.78 E81.27627
G1 X154.32 Y148.72 E81.28501
G0 F6000 X155.03 Y147.75
G1 F600 X155.55 Y148.19 E81.31326
G1 X155.61 Y148.24 E81.31671
G1 X156.04 Y150.11 E81.39621
G1 X155.59 Y152.06 E81.47977
G1 X155.36 Y154.09 E81.56459
G1 X155.36 Y157.25 E81.69588
G1 X149.23 Y157.25 E81.95069
G1 X151.66 Y154.25 E82.11149
G1 X152.81 Y152.15 E82.21095
G1 X152.40 Y150.11 E82.29734
G1 X152.84 Y148.26 E82.37642
G1 X153.56 Y147.75 E82.41337
G1 X155.03 Y147.75 E82.47423
G0 F6000 X154.88 Y148.08
G0 X155.63 Y149.78
G0 X155.02 Y151.51
;TYPE:FILL
G1 F600 X152.61 Y153.92 E82.61617
G0 F6000 X152.58 Y155.01
G1 F600 X151.02 Y156.57 E82.70818
G0 F6000 X151.58 Y155.66
G1 F600 X154.87 Y152.36 E82.90197
G0 F6000 X154.78 Y153.16
G1 F600 X152.28 Y155.66 E83.04885
G0 F6000 X152.99 Y155.66
G1 F600 X154.69 Y153.96 E83.14874
G0 F6000 X154.68 Y154.68
G1 F600 X153.70 Y155.66 E83.20648
G0 F6000 X154.41 Y155.66
G1 F600 X154.68 Y155.39 E83.22262
G0 F6000 X154.68 Y155.74
G1 F600 X153.84 Y156.57 E83.27177
G0 F6000 X152.43 Y156.57
G1 F600 X154.00 Y155.01 E83.36379
G0 F6000 X153.46 Y152.36
G1 F600 X154.31 Y151.51 E83.41397
G0 F6000 X153.65 Y151.46
G1 F600 X153.41 Y151.71 E83.42832
;LAYER:8
G0 F6000 X153.50 Y151.23 Z1.90
;TYPE:WALL-INNER
G1 F600 X153.80 Y151.32 E83.44117
G1 X154.11 Y151.35 E83.45404
G1 X154.41 Y151.32 E83.46695
G1 X154.71 Y151.23 E83.47973
G1 X154.98 Y151.09 E83.49262
G1 X155.23 Y150.89 E83.50573
G1 X155.40 Y150.67 E83.51706
G1 X155.14 Y151.79 E83.56472
G1 X155.09 Y151.98 E83.57271
G1 X154.94 Y153.36 E83.63037
G1 X152.72 Y153.36 E83.72259
G1 X153.13 Y152.61 E83.75786
G1 X153.34 Y152.23 E83.77610
G1 X153.08 Y150.97 E83.82945
G1 X153.23 Y151.09 E83.83725
G1 X153.50 Y151.23 E83.85016
G0 F6000 X153.54 Y151.08
G0 X154.69 Y151.19
G0 X155.60 Y150.08
G0 X155.33 Y148.59
G0 X155.18 Y148.63
G1 F600 X154.98 Y148.46 E83.86106
G1 X154.71 Y148.32 E83.87386
G1 X154.49 Y148.25 E83.88338
G1 X154.84 Y148.25 E83.89810
G1 X155.16 Y148.52 E83.91529
G1 X155.18 Y148.63 E83.91994
G0 F6000 X154.86 Y154.93
G1 F600 X154.86 Y156.75 E83.99557
G1 X150.28 Y156.75 E84.18594
G1 X151.82 Y154.84 E84.28798
G1 X152.22 Y154.93 E84.30475
G1 X154.86 Y154.93 E84.41451
G0 F6000 X155.36 Y154.43
;TYPE:WALL-OUTER
G1 F600 X155.36 Y157.25 E84.53171
G1 X149.23 Y157.25 E84.78653
G1 X151.66 Y154.25 E84.94732
G1 X151.71 Y154.17 E84.95102
G1 X151.69 Y154.30 E84.95663
G1 X152.27 Y154.43 E84.98132
G1 X155.36 Y154.43 E85.10958
G0 F6000 X155.38 Y153.86
G1 F600 X151.88 Y153.86 E85.25543
G1 X152.81 Y152.15 E85.33642
G1 X152.40 Y150.11 E85.42281
G1 X152.84 Y148.26 E85.50189
G1 X153.56 Y147.75 E85.53883
G1 X155.03 Y147.75 E85.59974
G1 X155.61 Y148.24 E85.63139
G1 X156.02 Y150.02 E85.70721
G1 X156.04 Y150.11 E85.71089
G1 X155.62 Y151.91 E85.78773
G1 X155.59 Y152.06 E85.79444
G1 X155.38 Y153.86 E85.86942
G0 F6000 X155.06 Y153.59
G0 X154.62 Y151.10
G0 X154.52 Y150.77
G1 F600 X154.70 Y150.67 E85.87822
G1 X154.87 Y150.53 E85.88707
G1 X155.00 Y150.36 E85.89622
G1 X155.09 Y150.21 E85.90360
G1 X155.16 Y149.99 E85.91313
G1 X155.18 Y149.78 E85.92203
G1 X155.16 Y149.56 E85.93081
G1 X155.10 Y149.36 E85.93958
G1 X155.00 Y149.18 E85.94838
G1 X154.87 Y149.01 E85.95718
G1 X154.70 Y148.88 E85.96592
G1 X154.52 Y148.78 E85.97468
G1 X154.32 Y148.72 E85.98342
G1 X154.11 Y148.70 E85.99219
G1 X153.90 Y148.72 E86.00096
G1 X153.69 Y148.78 E86.00974
G1 X153.51 Y148.88 E86.01850
G1 X153.34 Y149.01 E86.02728
G1 X153.21 Y149.18 E86.03602
G1 X153.11 Y149.36 E86.04484
G1 X153.05 Y149.57 E86.05366
G1 X153.03 Y149.78 E86.06239
G1 X153.05 Y149.99 E86.07124
G1 X153.12 Y150.21 E86.08081
G1 X153.21 Y150.37 E86.08870
G1 X153.34 Y150.53 E86.09741
G1 X153.51 Y150.67 E86.10621
G1 X153.69 Y150.77 E86.11501
G1 X153.90 Y150.83 E86.12378
G1 X154.11 Y150.85 E86.13256
G1 X154.32 Y150.83 E86.14133
G1 X154.52 Y150.77 E86.15006
G0 F6000 X154.88 Y151.34
;TYPE:FILL
G1 F600 X154.99 Y151.63 E86.15879
G1 X154.62 Y151.44 E86.17616
G0 F6000 X153.99 Y151.52
G1 F600 X154.87 Y152.40 E86.22772
G0 F6000 X154.83 Y152.71
G1 F600 X153.55 Y151.43 E86.30304
G0 F6000 X153.39 Y151.62
G1 F600 X154.80 Y153.03 E86.38571
G0 F6000 X154.24 Y153.18
G1 F600 X153.45 Y152.39 E86.43236
G0 F6000 X153.32 Y152.62
G1 F600 X153.71 Y153.18 E86.46559
G1 X153.20 Y152.84 E86.49111
G0 F6000 X153.34 Y155.10
G1 F600 X154.35 Y155.76 E86.53129
G1 X154.22 Y155.10 E86.56871
G1 X154.68 Y155.39 E86.59117
G0 F6000 X154.45 Y156.57
G1 F600 X152.98 Y155.10 E86.67760
G0 F6000 X152.63 Y155.10
G1 F600 X153.31 Y155.79 E86.71793
G0 F6000 X152.61 Y155.79
G1 F600 X151.87 Y155.06 E86.76115
G0 F6000 X151.72 Y155.25
G1 F600 X153.04 Y156.57 E86.83899
G0 F6000 X151.90 Y155.79
G1 F600 X151.32 Y155.74 E86.85924
G1 X151.62 Y156.57 E86.89620
;LAYER:9
G0 F6000 X150.28 Y156.75 Z2.10
;TYPE:WALL-INNER
G1 F600 X151.71 Y154.98 E86.99084
G1 X152.07 Y155.06 E87.00625
G1 X154.86 Y155.06 E87.12196
G1 X154.86 Y156.75 E87.19214
G1 X150.28 Y156.75 E87.38251
G0 F6000 X149.23 Y157.25
;TYPE:WALL-OUTER
G1 F600 X151.52 Y154.43 E87.53364
G1 X152.13 Y154.56 E87.55971
G1 X155.36 Y154.56 E87.69391
G1 X155.36 Y157.25 E87.80571
G1 X149.23 Y157.25 E88.06052
G0 F6000 X151.02 Y156.57
;TYPE:FILL
G1 F600 X152.35 Y155.24 E88.13922
G0 F6000 X152.01 Y155.23
G1 F600 X151.67 Y155.92 E88.18013
G1 X152.72 Y155.58 E88.22050
G1 X153.42 Y155.24 E88.25283
G0 F6000 X153.77 Y155.24
G1 F600 X152.43 Y156.57 E88.33150
G0 F6000 X153.44 Y155.92
G1 F600 X154.40 Y155.31 E88.37187
G1 X154.14 Y155.92 E88.39955
G0 F6000 X154.68 Y155.74
G1 F600 X153.84 Y156.57 E88.44870
;LAYER:10
G0 F6000 X154.86 Y156.75 Z2.30
;TYPE:WALL-INNER
G1 F600 X150.28 Y156.75 E88.63908
G1 X151.60 Y155.12 E88.72636
G1 X151.93 Y155.19 E88.74046
G1 X154.86 Y155.19 E88.86211
G1 X154.86 Y156.75 E88.92685
G0 F6000 X155.36 Y157.25
;TYPE:WALL-OUTER
G1 F600 X149.23 Y157.25 E89.18166
G1 X151.41 Y154.56 E89.32543
G1 X151.99 Y154.69 E89.35013
G1 X155.36 Y154.69 E89.49028
G1 X155.36 Y157.25 E89.59663
G0 F6000 X154.45 Y156.57
;TYPE:FILL
G1 F600 X153.25 Y155.37 E89.66766
G0 F6000 X152.89 Y155.37
G1 F600 X153.59 Y155.71 E89.70798
G1 X154.48 Y155.90 E89.74828
G1 X154.31 Y155.37 E89.77151
G0 F6000 X152.87 Y156.05
G1 F600 X152.18 Y155.37 E89.81190
G0 F6000 X151.81 Y155.34
G1 F600 X153.04 Y156.57 E89.88422
G0 F6000 X152.16 Y156.05
G1 F600 X151.40 Y155.64 E89.91987
G1 X151.27 Y156.04 E89.93259
G1 X151.62 Y156.57 E89.95918
;LAYER:11
G0 F6000 X151.79 Y155.32 Z2.50
;TYPE:WALL-INNER
G1 F600 X154.86 Y155.32 E90.08669
G1 X154.86 Y156.75 E90.14602
G1 X150.28 Y156.75 E90.33639
G1 X151.49 Y155.26 E90.41629
G1 X151.79 Y155.32 E90.42915
G0 F6000 X151.84 Y154.82
;TYPE:WALL-OUTER
G1 F600 X155.36 Y154.82 E90.57516
G1 X155.36 Y157.25 E90.67606
G1 X149.23 Y157.25 E90.93088
G1 X151.29 Y154.70 E91.06729
G1 X151.84 Y154.82 E91.09076
G0 F6000 X151.75 Y155.49
;TYPE:FILL
G1 F600 X151.06 Y156.17 E91.13080
G0 F6000 X151.02 Y156.57
G1 F600 X152.09 Y155.50 E91.19413
G0 F6000 X152.45 Y155.50
G1 F600 X152.11 Y156.19 E91.23453
G1 X153.15 Y155.50 E91.28644
G0 F6000 X153.51 Y155.50
G1 F600 X152.43 Y156.57 E91.34977
G0 F6000 X153.17 Y156.19
G1 F600 X153.87 Y155.84 E91.39016
G1 X154.57 Y155.50 E91.42251
G0 F6000 X154.68 Y155.74
G1 F600 X153.84 Y156.57 E91.47167
G0 F6000 X154.59 Y156.19
G1 F600 X154.68 Y156.09 E91.47713
;LAYER:12
G0 F6000 X154.86 Y155.45 Z2.70
;TYPE:WALL-INNER
G1 F600 X154.86 Y156.75 E91.53102
G1 X150.28 Y156.75 E91.72139
G1 X151.38 Y155.40 E91.79392
G1 X151.65 Y155.46 E91.80546
G1 X154.86 Y155.45 E91.93888
G0 F6000 X155.36 Y154.95
;TYPE:WALL-OUTER
G1 F600 X155.36 Y157.25 E92.03433
G1 X149.23 Y157.25 E92.28915
G1 X151.18 Y154.84 E92.41817
G1 X151.70 Y154.96 E92.44036
G1 X155.36 Y154.95 E92.59228
G0 F6000 X154.68 Y155.74
;TYPE:FILL
G1 F600 X154.56 Y155.97 E92.59889
G1 X153.86 Y155.63 E92.63119
G0 F6000 X153.51 Y155.63
G1 F600 X154.45 Y156.57 E92.68678
G0 F6000 X153.84 Y156.31
G1 F600 X153.14 Y155.97 E92.72715
G1 X152.45 Y155.63 E92.75941
G0 F6000 X152.09 Y155.63
G1 F600 X153.04 Y156.57 E92.81500
G0 F6000 X152.43 Y156.31
G1 F600 X151.49 Y155.73 E92.85533
G1 X151.67 Y156.44 E92.88345
G1 X151.00 Y156.13 E92.91526
G1 X151.01 Y156.31 E92.92301
;LAYER:13
G0 F6000 X151.26 Y155.53 Z2.90
;TYPE:WALL-INNER
G1 F600 X151.50 Y155.59 E92.93327
G1 X154.86 Y155.59 E93.07259
G1 X154.86 Y156.75 E93.12103
G1 X150.28 Y156.75 E93.31140
G1 X151.26 Y155.53 E93.37658
G0 F6000 X151.56 Y155.09
;TYPE:WALL-OUTER
G1 F600 X155.36 Y155.09 E93.53440
G1 X155.36 Y157.25 E93.62441
G1 X149.23 Y157.25 E93.87922
G1 X151.07 Y154.98 E94.00086
G1 X151.56 Y155.09 E94.02177
G0 F6000 X151.48 Y155.76
;TYPE:FILL
G1 F600 X150.84 Y156.40 E94.05957
G0 F6000 X151.02 Y156.57
G1 F600 X151.83 Y155.76 E94.10746
G0 F6000 X152.18 Y155.76
G1 F600 X151.85 Y156.45 E94.14786
G1 X152.89 Y155.76 E94.19977
G0 F6000 X153.25 Y155.76
G1 F600 X152.43 Y156.57 E94.24769
G0 F6000 X152.91 Y156.45
G1 F600 X153.61 Y156.10 E94.28802
G1 X154.31 Y155.76 E94.32037
G0 F6000 X154.66 Y155.76
G1 F600 X153.84 Y156.57 E94.36835
G0 F6000 X154.33 Y156.45
G1 F600 X154.68 Y156.09 E94.38919
;LAYER:14
G0 F6000 X154.86 Y155.72 Z3.10
;TYPE:WALL-INNER
G1 F600 X154.86 Y156.75 E94.43218
G1 X150.28 Y156.75 E94.62255
G1 X151.15 Y155.67 E94.68037
G1 X151.36 Y155.72 E94.68932
G1 X154.86 Y155.72 E94.83454
G0 F6000 X155.36 Y155.22
;TYPE:WALL-OUTER
G1 F600 X155.36 Y157.25 E94.91910
G1 X149.23 Y157.25 E95.17392
G1 X150.96 Y155.12 E95.28819
G1 X151.42 Y155.22 E95.30778
G1 X155.36 Y155.22 E95.47150
G0 F6000 X154.68 Y156.45
;TYPE:FILL
G1 F600 X153.95 Y155.89 E95.50426
G1 X154.28 Y156.57 E95.54449
G1 X153.40 Y156.23 E95.58468
G1 X152.53 Y155.89 E95.62477
G1 X152.86 Y156.57 E95.66489
G1 X151.99 Y156.23 E95.70500
G1 X151.18 Y155.96 E95.74595
G1 X151.45 Y156.57 E95.77783
G1 X150.92 Y156.23 E95.80392
;LAYER:15
G0 F6000 X151.04 Y155.81 Z3.30
;TYPE:WALL-INNER
G1 F600 X151.22 Y155.85 E95.81163
G1 X154.86 Y155.85 E95.96276
G1 X154.86 Y156.75 E96.00026
G1 X150.28 Y156.75 E96.19063
G1 X151.04 Y155.81 E96.24100
G0 F6000 X151.28 Y155.35
;TYPE:WALL-OUTER
G1 F600 X155.36 Y155.35 E96.41062
G1 X155.36 Y157.25 E96.48970
G1 X149.23 Y157.25 E96.74451
G1 X150.85 Y155.25 E96.85140
G1 X151.28 Y155.35 E96.86971
G0 F6000 X151.22 Y156.02
;TYPE:FILL
G1 F600 X150.87 Y156.54 E96.89850
G1 X151.75 Y156.02 E96.93093
G1 X151.72 Y156.57 E96.96336
G1 X152.81 Y156.02 E96.99572
G1 X152.61 Y156.57 E97.02821
G1 X153.41 Y156.30 E97.06071
G1 X154.22 Y156.02 E97.09319
G1 X154.02 Y156.57 E97.12565
G1 X154.68 Y156.09 E97.15963
;LAYER:16
G0 F6000 X154.86 Y155.98 Z3.50
;TYPE:WALL-INNER
G1 F600 X154.86 Y156.75 E97.19169
G1 X150.28 Y156.75 E97.38206
G1 X150.93 Y155.95 E97.42506
G1 X151.08 Y155.98 E97.43145
G1 X154.86 Y155.98 E97.58848
G0 F6000 X155.36 Y155.48
;TYPE:WALL-OUTER
G1 F600 X155.36 Y157.25 E97.66211
G1 X149.23 Y157.25 E97.91692
G1 X150.73 Y155.39 E98.01642
G1 X151.13 Y155.48 E98.03345
G1 X155.36 Y155.48 E98.20898
G0 F6000 X154.45 Y156.57
;TYPE:FILL
G1 F600 X154.03 Y156.15 E98.23374
G0 F6000 X153.04 Y156.57
G1 F600 X152.62 Y156.15 E98.25843
G0 F6000 X151.62 Y156.57
G1 F600 X151.20 Y156.15 E98.28313
;LAYER:17
G0 F6000 X150.94 Y156.11 Z3.70
;TYPE:WALL-INNER
G1 F600 X154.86 Y156.11 E98.44610
G1 X154.86 Y156.75 E98.47271
G1 X150.28 Y156.75 E98.66308
G1 X150.82 Y156.08 E98.69870
G1 X150.94 Y156.11 E98.70382
G0 F6000 X150.99 Y155.61
;TYPE:WALL-OUTER
G1 F600 X155.36 Y155.61 E98.88529
G1 X155.36 Y157.25 E98.95347
G1 X149.23 Y157.25 E99.20829
G1 X150.62 Y155.53 E99.30039
G1 X150.99 Y155.61 E99.31611
G0 F6000 X151.31 Y156.28
;TYPE:FILL
G1 F600 X151.02 Y156.57 E99.33316
G0 F6000 X152.43 Y156.57
G1 F600 X152.72 Y156.28 E99.35018
G0 F6000 X153.84 Y156.57
G1 F600 X154.13 Y156.28 E99.36723
;LAYER:18
G0 F6000 X154.86 Y156.24 Z3.90
;TYPE:WALL-INNER
G1 F600 X154.86 Y156.75 E99.38839
G1 X150.28 Y156.75 E99.57881
G1 X150.71 Y156.22 E99.60709
G1 X150.79 Y156.24 E99.61092
G1 X154.86 Y156.24 E99.77976
G0 F6000 X155.36 Y155.74
;TYPE:WALL-OUTER
G1 F600 X155.36 Y157.25 E99.84250
G1 X149.23 Y157.25 E100.09731
G1 X150.51 Y155.67 E100.18206
G1 X150.85 Y155.74 E100.19654
G1 X155.36 Y155.74 E100.38388
G0 F6000 X154.45 Y156.57
;TYPE:FILL
G1 F600 X154.29 Y156.41 E100.39317
G0 F6000 X153.04 Y156.57
G1 F600 X152.88 Y156.42 E100.40243
G0 F6000 X151.62 Y156.57
G1 F600 X151.47 Y156.42 E100.41166
;LAYER:19
G0 F6000 X150.65 Y156.37 Z4.10
;TYPE:WALL-INNER
G1 F600 X154.86 Y156.37 E100.58640
G1 X154.86 Y156.75 E100.60212
G1 X150.28 Y156.75 E100.79249
G1 X150.59 Y156.36 E100.81336
G1 X150.65 Y156.37 E100.81591
G0 F6000 X150.71 Y155.87
;TYPE:WALL-OUTER
G1 F600 X155.36 Y155.87 E101.00915
G1 X155.36 Y157.25 E101.06645
G1 X149.23 Y157.25 E101.32126
G1 X150.40 Y155.80 E101.39864
G1 X150.71 Y155.87 E101.41181
;LAYER:20
G0 F6000 X150.51 Y156.50 Z4.30
;TYPE:WALL-INNER
G1 F600 X154.86 Y156.50 E101.59245
G1 X154.86 Y156.75 E101.60272
G1 X150.28 Y156.75 E101.79309
G1 X150.48 Y156.50 E101.80663
G1 X150.51 Y156.50 E101.80787
G0 F6000 X150.57 Y156.00
;TYPE:WALL-OUTER
G1 F600 X155.36 Y156.00 E102.00702
G1 X155.36 Y157.25 E102.05886
G1 X149.23 Y157.25 E102.31367
G1 X150.29 Y155.94 E102.38367
G1 X150.57 Y156.00 E102.39555
;LAYER:21
G0 F6000 X150.37 Y156.63 Z4.50
;TYPE:WALL-INNER
G1 F600 X154.86 Y156.63 E102.58206
G1 X154.86 Y156.75 E102.58688
G1 X150.28 Y156.75 E102.77725
G1 X150.37 Y156.63 E102.78340
G0 F6000 X150.42 Y156.13
;TYPE:WALL-OUTER
G1 F600 X155.36 Y156.13 E102.98845
G1 X155.36 Y157.25 E103.03485
G1 X149.23 Y157.25 E103.28966
G1 X150.18 Y156.08 E103.35230
G1 X150.42 Y156.13 E103.36286
;LAYER:22
G0 F6000 X150.28 Y156.27 Z4.70
;TYPE:WALL-OUTER
G1 F600 X155.36 Y156.27 E103.57381
G1 X155.36 Y157.25 E103.61472
G1 X149.23 Y157.25 E103.86953
G1 X150.06 Y156.22 E103.92475
G1 X150.28 Y156.27 E103.93408
G0 F6000 X150.43 Y156.44
;TYPE:FILL
G1 F600 X150.89 Y157.07 E103.97128
G1 X150.01 Y156.55 E104.00756
G1 X150.36 Y157.07 E104.03348
G0 F6000 X151.14 Y156.44
G1 F600 X151.95 Y157.07 E104.07066
G1 X151.67 Y156.44 E104.10784
G1 X152.51 Y156.76 E104.14505
G1 X153.36 Y157.07 E104.18224
G1 X153.08 Y156.44 E104.21942
G1 X153.93 Y156.76 E104.25663
G1 X154.78 Y157.07 E104.29385
G1 X154.50 Y156.44 E104.33103
G1 X155.18 Y156.95 E104.36649
;LAYER:23
G0 F6000 X155.36 Y157.25 Z4.90
;TYPE:WALL-OUTER
G1 F600 X149.23 Y157.25 E104.62126
G1 X149.95 Y156.36 E104.66908
G1 X150.14 Y156.40 E104.67704
G1 X155.36 Y156.40 E104.89390
G1 X155.36 Y157.25 E104.92936
G0 F6000 X154.76 Y157.07
;TYPE:FILL
G1 F600 X155.04 Y156.61 E104.95409
G1 X154.30 Y156.82 E104.98368
G1 X153.52 Y157.07 E105.01326
G1 X153.67 Y156.57 E105.04285
G1 X152.89 Y156.82 E105.07242
G1 X152.11 Y157.07 E105.10200
G1 X152.26 Y156.57 E105.13159
G1 X151.47 Y156.82 E105.16116
G1 X150.69 Y157.07 E105.19075
G1 X150.84 Y156.57 E105.22038
G1 X150.16 Y157.07 E105.25555
;LAYER:24
G0 F6000 X150.00 Y156.53 Z5.10
;TYPE:WALL-OUTER
G1 F600 X155.36 Y156.53 E105.47835
G1 X155.36 Y157.25 E105.50836
G1 X149.23 Y157.25 E105.76318
G1 X149.84 Y156.49 E105.80364
G1 X150.00 Y156.53 E105.81033
G0 F6000 X149.99 Y156.70
;TYPE:FILL
G1 F600 X150.53 Y157.07 E105.83218
G1 X150.51 Y156.70 E105.85398
G1 X151.23 Y156.89 E105.87578
G1 X151.95 Y157.07 E105.89759
G1 X151.93 Y156.70 E105.91939
G1 X152.65 Y156.89 E105.94116
G1 X153.36 Y157.07 E105.96293
G1 X153.34 Y156.70 E105.98477
G1 X154.06 Y156.89 E106.00653
G1 X154.78 Y157.07 E106.02831
G1 X154.76 Y156.70 E106.05011
G1 X155.18 Y156.95 E106.07040
;LAYER:25
G0 F6000 X155.36 Y156.66 Z5.30
;TYPE:WALL-OUTER
G1 F600 X155.36 Y157.25 E106.09497
G1 X149.23 Y157.25 E106.34979
G1 X149.73 Y156.63 E106.38286
G1 X149.85 Y156.66 E106.38827
G1 X155.36 Y156.66 E106.61697
G0 F6000 X155.00 Y156.83
;TYPE:FILL
G1 F600 X154.70 Y156.95 E106.63120
G1 X154.17 Y156.95 E106.64542
G1 X153.64 Y156.95 E106.65961
G1 X153.29 Y156.95 E106.67382
G1 X152.76 Y156.95 E106.68803
G1 X152.23 Y156.95 E106.70222
G1 X151.87 Y156.95 E106.71635
G1 X151.34 Y156.95 E106.73045
G1 X150.81 Y156.95 E106.74458
G1 X150.46 Y156.95 E106.75870
G1 X150.16 Y157.07 E106.77204
;LAYER:26
G0 F6000 X149.71 Y156.79 Z5.50
;TYPE:WALL-OUTER
G1 F600 X155.36 Y156.79 E107.00660
G1 X155.36 Y157.25 E107.02573
G1 X149.23 Y157.25 E107.28054
G1 X149.62 Y156.77 E107.30626
G1 X149.71 Y156.79 E107.31044
;LAYER:27
G0 F6000 X149.57 Y156.92 Z5.70
;TYPE:WALL-OUTER
G1 F600 X155.36 Y156.92 E107.55091
G1 X155.36 Y157.25 E107.56458
G1 X149.23 Y157.25 E107.81940
G1 X149.50 Y156.91 E107.83775
G1 X149.57 Y156.92 E107.84061
;LAYER:28
G0 F6000 X149.43 Y157.05 Z5.90
;TYPE:WALL-OUTER
G1 F600 X155.36 Y157.05 E108.08698
G1 X155.36 Y157.25 E108.09522
G1 X149.23 Y157.25 E108.34999
G1 X149.39 Y157.04 E108.36096
G1 X149.43 Y157.05 E108.36249
;LAYER:29
G0 F6000 X149.28 Y157.18 Z6.10
;TYPE:WALL-OUTER
G1 F600 X155.36 Y157.18 E108.61502
G1 X155.36 Y157.25 E108.61776
G1 X149.23 Y157.25 E108.87253
G1 X149.28 Y157.18 E108.87608
;LAYER:30
;LAYER:31
;LAYER:32
;LAYER:33
M107
G0 F6000 X149.28 Y157.18 Z11.86
;-- END GCODE --
M104 S0     ;extruder heater off
M140 S0     ;heated bed heater off (if you have it)
G91         ;relative positioning
G1 E-1 F300   ;retract the filament a bit before lifting the nozzle, to release some of the pressure
G1 Z+0.5 E-5 X-20 Y-20 F6000 ;move Z up a bit and retract filament even more
G28 X0 Y0     ;move X/Y to min endstops, so the head is out of the way
M84           ;steppers off
G90           ;absolute positioning
;CURA_PROFILE_STRING:eNrtWl1v28YSfVWE/oh5THAjlaSkuKnAhyaxXVwkbVGpaOIXYkWupG1ILrFcWpYN/feeXX6IkuXUaYy0SaWH2BzOzM6cPfNhRDFbcxUsuVgste/0vc6KxXGglyJ8n/I8992O4lqxUAuZBjxls5j7ZyzOeSeXsYiC2Nq39ecCDiKe5kKv/ZHTSeX1dcyDXFxzHDDsZEqkOsgzziPfdZzqWfMk44rpQnHf8w5IPf+AcHBIOGyEMx7tOD5xOnmRZVJp//SSq/VqyRXvZDHTc6mSgEVLniNP/4USSa0ZRAWLA36lVVG+k3rZWYmMB1quuKrA2AqCSxkXCffdUUfKa+S9FDyOKjVgwxKOyCKBnxrmbv9kdFtskr0lHBwSDtvCeSxXBtO+0761EurhnpQlskg1zvfaUpts/epZf9R+l4g0wMMlj2G18yaUyUykC3+qCr5nIZId9BDEznlLmRlZZya1lkmLR05/0LHccoKViPQymMNCKssYOfuDh6CQSN9bY4m7jFlmg4cAyJdhtkhW+S/ZWgEy6ojUkrV8Np5EmnPt7AuuWoJQytgiURFflFc9Z3V1RCUK+XsB7sQi5UDHoOlUogXLmt9rfGKeLvTS3CTczAuE1BRkKdsm0jwFCbuykiaiOaQgOuKphEvOUKBirncqVgPyMkT7WCJTSiwaFZomq7oE9Drj/mvkkjcili7QCZ41BRVY2/L4reHVGkTNNUtDU/snjfy6LTb6mVAsNh2iilQkGXpGIqNaMkNJtuGEkWJzQMjUQqT+yJDbPFuVPGOh4aNbS2cs53vk2sqNieWYDdHK0Ty4AuN2jbz9l23L6iUTyt5w36sEeVHpGr7kvgeQr0B7pQTIEhSprUXTcoFxwOp7uFtl1rSStg7SkBlPg5nQ+SEFVKDpyJfARgsdLg06pVoWFwAQqKIWFv7jOHO7/brCQm5SDa78nrsnWhtRWChl2g4IY4v7G1yp0v1FaK5t3OvRZPrDr1M6f/nzq1Pq9brjSSxCHhGaLU2RC/1Ab5iJhec04Urgh9soMf093URsvTH/ao4fptY23fELlouQUJYaSeTf02sDLJUFA5O4NdA29Dtwg87N7lTb0BnYCnF7VsH1L2Zq0MSUF162BtWGJiVzIa44DPVfmz7W2Oy33Q21lF5VnN/VK7ttc7rJsjm8SvmsavCEe47KsMuGX9kmLdGqzHzRsgplrttW5nnTfeM6z2jijUaPaGwvjlZCL0kvOaHJkEy7555L1WeMYaMA+yWLC553z587zRs2QyMpNKdMAkZkhGvZOrcqd7n/rvKNlkNaEk+jHN0J7r3njx6NcWVylVu2sELLXszR02Pj/dylt+7IoXdwf+Gi9unspt3yNzQueUosjah0j3PrQU+RXKXkjpLExPmcJje3dgh4+JEzTVNJRoqEPTptct5+xtdcSevczrgIxC2buYnxzHMcOh3smY0rTRo4SUJyTqZvExIP33/8McQWTKQlICcjeucZRA7AobhFYVYsFlxZdSxZ91GzMJt/DNCHDFpAz/iijGVPrYOLbXWF059ebXsCLmBIE2cHGVPNzDiV8zkUhk6jYOXmoKilQo/FnNayoCXOJKGfAEZ3C53iuHZ0vh1+IsjTHgIdOE6pY8uxZGddNozQTXEWKMPJjFEYWo1yo31qKAvnHDOEcplwc5eWZgotBhwyh1z8z+mPcNSI3vYA+LveIdQt5hdUZNWRBss6oiYakD8FlY1b1M1b+HJa1fP223cmHKwBTRU9RVA2HrMGkMhJFroOccXW3TffDdsMyzXPwP7cgt6q7ztLfIyqkQjPjBSUz2LTsWXu1Tf9V328ev9iTS8LxQ4OBczvvnOvsUGe4w7p3KOyif5oUn78/yJe2xdPPsPU+Gx9e/zGxe3UPWvvTxyw6bcU67i1ByFYFJnSQJ2g45myaemSWV+MO1OBB1vg3a4OunlOU/eQJ+9vuXI+PahPG2An29K4Pb5MkWzr8M4itEoX7Uq9uK3i3jXEPjS5pi4d/IwnK7PgmVOMpYdeUrfVT5lirnN4iLkPOsTKs3o3h/8i3XSnzr2SnguV6y8p7d2LR0tBq7bcNyMnQe9hC4yXlF6/fEV5qDhPQVD3pOx20On3+2bINr33FLd+/hK/lvN12kzQW8EdHrnGxv1Im+Hdh/yNsf2Bz30m+oeMv9hRf3dSD7MD7Dn9wEawp/kx+8HgvvvBcWIfJ/bXNbG9/+LEPq4pxzVlb00Z/JNrirHxjqvNcbV5+NVmeFxt/lWrjfdwq81xS/psW9LgXrNziKC/ooXhfqvh4OtK+rgaHlfDvdVw+KWthsZmcFwnj+vkw66T1fdk2l+oaITb/00tv+azo2QlLQ3FMWND3g/zS7+DSyjbzGnFy2ZhLZvPjOsVKtMmXX25o+lB9gLsRUPSSJ/SagmDptLtMpEUsRZZ3LQLlfe74+kSoJrTDLhYbyzLLYuM0+nj9EkHmOh/U3xsbgqwDu9PoUEJFw==
;CURA_PROFILE_STRING:eNrtWl1v28YSfVWE/oh5THAjlaSkuKnAhyaxXVwkbVGpaOIXYkWupG1ILrFcWpYN/feeXX6IkuXUaYy0SaWH2BzOzM6cPfNhRDFbcxUsuVgste/0vc6KxXGglyJ8n/I8992O4lqxUAuZBjxls5j7ZyzOeSeXsYiC2Nq39ecCDiKe5kKv/ZHTSeX1dcyDXFxzHDDsZEqkOsgzziPfdZzqWfMk44rpQnHf8w5IPf+AcHBIOGyEMx7tOD5xOnmRZVJp//SSq/VqyRXvZDHTc6mSgEVLniNP/4USSa0ZRAWLA36lVVG+k3rZWYmMB1quuKrA2AqCSxkXCffdUUfKa+S9FDyOKjVgwxKOyCKBnxrmbv9kdFtskr0lHBwSDtvCeSxXBtO+0761EurhnpQlskg1zvfaUpts/epZf9R+l4g0wMMlj2G18yaUyUykC3+qCr5nIZId9BDEznlLmRlZZya1lkmLR05/0LHccoKViPQymMNCKssYOfuDh6CQSN9bY4m7jFlmg4cAyJdhtkhW+S/ZWgEy6ojUkrV8Np5EmnPt7AuuWoJQytgiURFflFc9Z3V1RCUK+XsB7sQi5UDHoOlUogXLmt9rfGKeLvTS3CTczAuE1BRkKdsm0jwFCbuykiaiOaQgOuKphEvOUKBirncqVgPyMkT7WCJTSiwaFZomq7oE9Drj/mvkkjcili7QCZ41BRVY2/L4reHVGkTNNUtDU/snjfy6LTb6mVAsNh2iilQkGXpGIqNaMkNJtuGEkWJzQMjUQqT+yJDbPFuVPGOh4aNbS2cs53vk2sqNieWYDdHK0Ty4AuN2jbz9l23L6iUTyt5w36sEeVHpGr7kvgeQr0B7pQTIEhSprUXTcoFxwOp7uFtl1rSStg7SkBlPg5nQ+SEFVKDpyJfARgsdLg06pVoWFwAQqKIWFv7jOHO7/brCQm5SDa78nrsnWhtRWChl2g4IY4v7G1yp0v1FaK5t3OvRZPrDr1M6f/nzq1Pq9brjSSxCHhGaLU2RC/1Ab5iJhec04Urgh9soMf093URsvTH/ao4fptY23fELlouQUJYaSeTf02sDLJUFA5O4NdA29Dtwg87N7lTb0BnYCnF7VsH1L2Zq0MSUF162BtWGJiVzIa44DPVfmz7W2Oy33Q21lF5VnN/VK7ttc7rJsjm8SvmsavCEe47KsMuGX9kmLdGqzHzRsgplrttW5nnTfeM6z2jijUaPaGwvjlZCL0kvOaHJkEy7555L1WeMYaMA+yWLC553z587zRs2QyMpNKdMAkZkhGvZOrcqd7n/rvKNlkNaEk+jHN0J7r3njx6NcWVylVu2sELLXszR02Pj/dylt+7IoXdwf+Gi9unspt3yNzQueUosjah0j3PrQU+RXKXkjpLExPmcJje3dgh4+JEzTVNJRoqEPTptct5+xtdcSevczrgIxC2buYnxzHMcOh3smY0rTRo4SUJyTqZvExIP33/8McQWTKQlICcjeucZRA7AobhFYVYsFlxZdSxZ91GzMJt/DNCHDFpAz/iijGVPrYOLbXWF059ebXsCLmBIE2cHGVPNzDiV8zkUhk6jYOXmoKilQo/FnNayoCXOJKGfAEZ3C53iuHZ0vh1+IsjTHgIdOE6pY8uxZGddNozQTXEWKMPJjFEYWo1yo31qKAvnHDOEcplwc5eWZgotBhwyh1z8z+mPcNSI3vYA+LveIdQt5hdUZNWRBss6oiYakD8FlY1b1M1b+HJa1fP223cmHKwBTRU9RVA2HrMGkMhJFroOccXW3TffDdsMyzXPwP7cgt6q7ztLfIyqkQjPjBSUz2LTsWXu1Tf9V328ev9iTS8LxQ4OBczvvnOvsUGe4w7p3KOyif5oUn78/yJe2xdPPsPU+Gx9e/zGxe3UPWvvTxyw6bcU67i1ByFYFJnSQJ2g45myaemSWV+MO1OBB1vg3a4OunlOU/eQJ+9vuXI+PahPG2An29K4Pb5MkWzr8M4itEoX7Uq9uK3i3jXEPjS5pi4d/IwnK7PgmVOMpYdeUrfVT5lirnN4iLkPOsTKs3o3h/8i3XSnzr2SnguV6y8p7d2LR0tBq7bcNyMnQe9hC4yXlF6/fEV5qDhPQVD3pOx20On3+2bINr33FLd+/hK/lvN12kzQW8EdHrnGxv1Im+Hdh/yNsf2Bz30m+oeMv9hRf3dSD7MD7Dn9wEawp/kx+8HgvvvBcWIfJ/bXNbG9/+LEPq4pxzVlb00Z/JNrirHxjqvNcbV5+NVmeFxt/lWrjfdwq81xS/psW9LgXrNziKC/ooXhfqvh4OtK+rgaHlfDvdVw+KWthsZmcFwnj+vkw66T1fdk2l+oaITb/00tv+azo2QlLQ3FMWND3g/zS7+DSyjbzGnFy2ZhLZvPjOsVKtMmXX25o+lB9gLsRUPSSJ/SagmDptLtMpEUsRZZ3LQLlfe74+kSoJrTDLhYbyzLLYuM0+nj9EkHmOh/U3xsbgqwDu9PoUEJFw==

