;-- START GCODE --
;Sliced for Type A Machines Series 1
;Sliced at: Sat 03-12-2016 18:36:05
;Basic settings: Layer height: 0.2 Walls: 3 Fill: 20
;Print Speed: 100 Support: 0
;Retraction Speed: 40 Retraction Distance: 1.2
;Print time: #P_TIME#
;Filament used: #F_AMNT#m #F_WGHT#g
;Filament cost: #F_COST#
M106 S255	 ;start with the fan on
G21        ;metric values
G90        ;absolute positioning
M106 S255    ;start with the fan on
G28     ;move to endstops
G29		;allows for auto-levelling
G1 X150 Y5  Z15.0 F6000 ;center and move the platform down 15mm
M109 S220 ;Heat To temp
G92 E0                  ;zero the extruded length
G1 F200 E30              ;extrude 30mm of feed stock
G92 E0                  ;zero the extruded length again
G1 X175 Y25  Z0 F6000 ;remove bugger
G1 X220 F6000 ;remove bugger
G1 X150 Y150  Z15 F6000 ;recenter and begin
G1 F6000

;Layer count: 32
;LAYER:0
M106 S255
G0 F6000 X142.71 Y140.43 Z0.30
;TYPE:SKIRT
G1 F2700 X143.11 Y140.22 E0.02387
G1 X143.31 Y140.03 E0.03897
G1 X143.71 Y139.82 E0.06285
G1 X144.11 Y139.42 E0.09312
G1 X146.59 Y138.18 E0.24118
G1 X147.39 Y137.98 E0.28515
G1 X148.57 Y137.39 E0.35543
G1 X155.75 Y137.39 E0.73899
G1 X158.11 Y137.99 E0.86881
G1 X160.99 Y139.42 E1.04067
G1 X161.39 Y139.82 E1.07095
G1 X161.79 Y140.03 E1.09477
G1 X163.56 Y141.79 E1.22832
G1 X167.01 Y141.79 E1.41228
G1 X167.01 Y146.04 E1.63889
G1 X167.21 Y146.24 E1.65398
G1 X167.21 Y146.84 E1.68601
G1 X167.41 Y147.04 E1.70111
G1 X167.41 Y147.24 E1.71179
G1 X167.61 Y147.44 E1.72689
G1 X167.61 Y148.64 E1.79095
G1 X167.81 Y148.84 E1.80605
G1 X167.81 Y155.96 E2.18624
G1 X167.61 Y156.16 E2.20134
G1 X167.61 Y157.36 E2.26539
G1 X167.41 Y157.56 E2.28049
G1 X167.41 Y157.76 E2.29117
G1 X167.21 Y157.96 E2.30627
G1 X167.21 Y158.56 E2.33830
G1 X167.01 Y158.76 E2.35340
G1 X167.01 Y163.01 E2.58001
G1 X163.56 Y163.01 E2.76396
G1 X161.79 Y164.78 E2.89751
G1 X161.39 Y164.97 E2.92134
G1 X160.99 Y165.38 E2.95161
G1 X158.11 Y166.82 E3.12359
G1 X157.31 Y167.01 E3.16739
G1 X156.59 Y167.38 E3.21063
G1 X153.59 Y167.81 E3.37229
G1 X152.02 Y167.81 E3.45632
G1 X148.61 Y167.43 E3.63920
G1 X147.39 Y166.82 E3.71216
G1 X146.59 Y166.62 E3.75613
G1 X144.11 Y165.38 E3.90419
G1 X143.71 Y164.97 E3.93446
G1 X143.31 Y164.78 E3.95834
G1 X143.11 Y164.57 E3.97343
G1 X142.71 Y164.38 E3.99731
G1 X139.09 Y160.76 E4.27018
G1 X139.09 Y160.56 E4.28086
G1 X138.69 Y160.16 E4.31106
G1 X138.69 Y159.96 E4.32173
G1 X138.09 Y159.36 E4.36703
G1 X138.09 Y159.16 E4.37771
G1 X137.89 Y158.96 E4.39280
G1 X137.89 Y158.76 E4.40348
G1 X137.69 Y158.56 E4.41858
G1 X137.69 Y157.96 E4.45061
G1 X137.49 Y157.76 E4.46571
G1 X137.49 Y157.56 E4.47638
G1 X137.29 Y157.36 E4.49148
G1 X137.29 Y147.44 E5.02114
G1 X137.49 Y147.24 E5.03624
G1 X137.49 Y147.04 E5.04692
G1 X137.69 Y146.84 E5.06202
G1 X137.69 Y146.24 E5.09405
G1 X137.89 Y146.04 E5.10915
G1 X137.89 Y145.84 E5.11982
G1 X138.09 Y145.64 E5.13492
G1 X138.09 Y145.44 E5.14560
G1 X138.69 Y144.84 E5.19090
G1 X138.69 Y144.64 E5.20157
G1 X139.09 Y144.24 E5.23177
G1 X139.09 Y144.04 E5.24245
G1 X142.71 Y140.43 E5.51532
G0 F6000 X142.96 Y140.78
G1 F2700 X143.36 Y140.58 E5.53919
G1 X143.56 Y140.38 E5.55429
G1 X143.96 Y140.18 E5.57817
G1 X144.36 Y139.78 E5.60844
G1 X146.74 Y138.59 E5.75027
G1 X147.54 Y138.39 E5.79406
G1 X148.67 Y137.82 E5.86167
G1 X155.70 Y137.82 E6.23700
G1 X157.96 Y138.39 E6.36149
G1 X160.74 Y139.78 E6.52715
G1 X161.14 Y140.18 E6.55734
G1 X161.54 Y140.38 E6.58126
G1 X163.38 Y142.22 E6.72063
G1 X166.58 Y142.22 E6.89113
G1 X166.58 Y146.22 E7.10439
G1 X166.78 Y146.42 E7.11949
G1 X166.78 Y147.02 E7.15152
G1 X166.98 Y147.22 E7.16662
G1 X166.98 Y147.42 E7.17730
G1 X167.18 Y147.62 E7.19240
G1 X167.18 Y148.82 E7.25645
G1 X167.38 Y149.02 E7.27155
G1 X167.38 Y155.78 E7.63274
G1 X167.18 Y155.98 E7.64784
G1 X167.18 Y157.18 E7.71190
G1 X166.98 Y157.38 E7.72700
G1 X166.98 Y157.58 E7.73767
G1 X166.78 Y157.78 E7.75277
G1 X166.78 Y158.38 E7.78480
G1 X166.58 Y158.58 E7.79990
G1 X166.58 Y162.58 E8.01316
G1 X163.38 Y162.58 E8.18367
G1 X161.54 Y164.42 E8.32303
G1 X161.14 Y164.62 E8.34695
G1 X160.74 Y165.02 E8.37715
G1 X157.96 Y166.41 E8.54288
G1 X157.16 Y166.61 E8.58661
G1 X156.46 Y166.96 E8.62877
G1 X153.56 Y167.38 E8.78505
G1 X152.04 Y167.38 E8.86619
G1 X148.74 Y167.01 E9.04375
G1 X147.54 Y166.41 E9.11533
G1 X146.74 Y166.21 E9.15913
G1 X144.36 Y165.03 E9.30096
G1 X143.96 Y164.62 E9.33123
G1 X143.56 Y164.42 E9.35511
G1 X143.36 Y164.22 E9.37020
G1 X142.96 Y164.02 E9.39408
G1 X139.52 Y160.58 E9.65382
G1 X139.52 Y160.38 E9.66449
G1 X139.12 Y159.98 E9.69469
G1 X139.12 Y159.78 E9.70537
G1 X138.52 Y159.18 E9.75066
G1 X138.52 Y158.98 E9.76134
G1 X138.32 Y158.78 E9.77644
G1 X138.32 Y158.58 E9.78712
G1 X138.12 Y158.38 E9.80221
G1 X138.12 Y157.78 E9.83424
G1 X137.92 Y157.58 E9.84934
G1 X137.92 Y157.38 E9.86002
G1 X137.72 Y157.18 E9.87512
G1 X137.72 Y147.62 E10.38578
G1 X137.92 Y147.42 E10.40087
G1 X137.92 Y147.22 E10.41155
G1 X138.12 Y147.02 E10.42665
G1 X138.12 Y146.42 E10.45868
G1 X138.32 Y146.22 E10.47378
G1 X138.32 Y146.02 E10.48445
G1 X138.52 Y145.82 E10.49955
G1 X138.52 Y145.62 E10.51023
G1 X139.12 Y145.02 E10.55553
G1 X139.12 Y144.82 E10.56620
G1 X139.52 Y144.42 E10.59640
G1 X139.52 Y144.22 E10.60708
G1 X142.96 Y140.78 E10.86681
G0 F6000 X143.22 Y141.13
G1 F2700 X143.62 Y140.93 E10.89069
G1 X143.82 Y140.73 E10.90579
G1 X144.22 Y140.53 E10.92966
G1 X144.62 Y140.13 E10.95993
G1 X146.89 Y138.99 E11.09556
G1 X147.69 Y138.79 E11.13936
G1 X148.77 Y138.25 E11.20408
G1 X155.65 Y138.25 E11.57114
G1 X157.81 Y138.79 E11.69034
G1 X160.48 Y140.13 E11.84979
G1 X160.88 Y140.53 E11.87999
G1 X161.28 Y140.73 E11.90386
G1 X163.21 Y142.65 E12.04896
G1 X166.15 Y142.65 E12.20612
G1 X166.15 Y146.39 E12.40599
G1 X166.35 Y146.59 E12.42108
G1 X166.35 Y147.19 E12.45311
G1 X166.55 Y147.39 E12.46821
G1 X166.55 Y147.59 E12.47889
G1 X166.75 Y147.79 E12.49399
G1 X166.75 Y148.99 E12.55805
G1 X166.95 Y149.19 E12.57315
G1 X166.95 Y155.61 E12.91544
G1 X166.75 Y155.81 E12.93053
G1 X166.75 Y157.01 E12.99459
G1 X166.55 Y157.21 E13.00969
G1 X166.55 Y157.41 E13.02037
G1 X166.35 Y157.61 E13.03547
G1 X166.35 Y158.21 E13.06750
G1 X166.15 Y158.41 E13.08260
G1 X166.15 Y162.15 E13.28246
G1 X163.21 Y162.15 E13.43962
G1 X161.28 Y164.07 E13.58472
G1 X160.88 Y164.27 E13.60859
G1 X160.48 Y164.67 E13.63879
G1 X157.81 Y166.01 E13.79831
G1 X157.01 Y166.21 E13.84216
G1 X156.33 Y166.55 E13.88301
G1 X153.53 Y166.95 E14.03400
G1 X152.06 Y166.95 E14.11220
G1 X148.86 Y166.59 E14.28440
G1 X147.69 Y166.01 E14.35437
G1 X146.89 Y165.81 E14.39823
G1 X144.62 Y164.67 E14.53385
G1 X144.22 Y164.27 E14.56412
G1 X143.82 Y164.07 E14.58800
G1 X143.62 Y163.87 E14.60310
G1 X143.22 Y163.67 E14.62697
G1 X139.95 Y160.41 E14.87353
G1 X139.95 Y160.21 E14.88421
G1 X139.55 Y159.81 E14.91441
G1 X139.55 Y159.61 E14.92508
G1 X138.95 Y159.01 E14.97038
G1 X138.95 Y158.81 E14.98106
G1 X138.75 Y158.61 E14.99616
G1 X138.75 Y158.41 E15.00683
G1 X138.55 Y158.21 E15.02193
G1 X138.55 Y157.61 E15.05396
G1 X138.35 Y157.41 E15.06906
G1 X138.35 Y157.21 E15.07974
G1 X138.15 Y157.01 E15.09484
G1 X138.15 Y147.79 E15.58659
G1 X138.35 Y147.59 E15.60169
G1 X138.35 Y147.39 E15.61237
G1 X138.55 Y147.19 E15.62747
G1 X138.55 Y146.59 E15.65950
G1 X138.75 Y146.39 E15.67460
G1 X138.75 Y146.19 E15.68527
G1 X138.95 Y145.99 E15.70037
G1 X138.95 Y145.79 E15.71105
G1 X139.55 Y145.19 E15.75635
G1 X139.55 Y144.99 E15.76702
G1 X139.95 Y144.59 E15.79722
G1 X139.95 Y144.39 E15.80790
G1 X143.22 Y141.13 E16.05446
G0 F6000 X143.47 Y141.48
G1 F2700 X143.87 Y141.28 E16.07833
G1 X144.07 Y141.08 E16.09343
G1 X144.47 Y140.88 E16.11731
G1 X144.87 Y140.48 E16.14758
G1 X147.04 Y139.40 E16.27700
G1 X147.83 Y139.20 E16.32075
G1 X148.87 Y138.68 E16.38265
G1 X155.59 Y138.68 E16.74149
G1 X157.66 Y139.20 E16.85534
G1 X160.23 Y140.48 E17.00859
G1 X160.63 Y140.88 E17.03886
G1 X161.03 Y141.08 E17.06273
G1 X163.03 Y143.08 E17.21357
G1 X165.72 Y143.08 E17.35733
G1 X165.72 Y146.57 E17.54380
G1 X165.92 Y146.77 E17.55889
G1 X165.92 Y147.37 E17.59092
G1 X166.12 Y147.57 E17.60602
G1 X166.12 Y147.77 E17.61670
G1 X166.32 Y147.97 E17.63180
G1 X166.32 Y149.17 E17.69586
G1 X166.52 Y149.37 E17.71096
G1 X166.52 Y155.43 E18.03435
G1 X166.32 Y155.63 E18.04945
G1 X166.32 Y156.83 E18.11351
G1 X166.12 Y157.03 E18.12860
G1 X166.12 Y157.23 E18.13928
G1 X165.92 Y157.43 E18.15438
G1 X165.92 Y158.03 E18.18641
G1 X165.72 Y158.23 E18.20151
G1 X165.72 Y161.72 E18.38797
G1 X163.03 Y161.72 E18.53173
G1 X161.03 Y163.72 E18.68257
G1 X160.63 Y163.92 E18.70644
G1 X160.23 Y164.32 E18.73672
G1 X157.66 Y165.60 E18.89001
G1 X156.86 Y165.80 E18.93392
G1 X156.20 Y166.14 E18.97351
G1 X153.50 Y166.52 E19.11910
G1 X152.09 Y166.52 E19.19448
G1 X148.98 Y166.18 E19.36131
G1 X147.84 Y165.60 E19.42961
G1 X147.04 Y165.40 E19.47358
G1 X144.87 Y164.32 E19.60299
G1 X144.47 Y163.92 E19.63327
G1 X144.07 Y163.72 E19.65714
G1 X143.87 Y163.52 E19.67224
G1 X143.47 Y163.32 E19.69611
G1 X140.38 Y160.23 E19.92947
G1 X140.38 Y160.03 E19.94014
G1 X139.98 Y159.63 E19.97034
G1 X139.98 Y159.43 E19.98102
G1 X139.38 Y158.83 E20.02631
G1 X139.38 Y158.63 E20.03699
G1 X139.18 Y158.43 E20.05209
G1 X139.18 Y158.23 E20.06277
G1 X138.98 Y158.03 E20.07786
G1 X138.98 Y157.43 E20.10989
G1 X138.78 Y157.23 E20.12499
G1 X138.78 Y157.03 E20.13567
G1 X138.58 Y156.83 E20.15077
G1 X138.58 Y147.97 E20.62363
G1 X138.78 Y147.77 E20.63873
G1 X138.78 Y147.57 E20.64941
G1 X138.98 Y147.37 E20.66450
G1 X138.98 Y146.77 E20.69653
G1 X139.18 Y146.57 E20.71163
G1 X139.18 Y146.37 E20.72231
G1 X139.38 Y146.17 E20.73741
G1 X139.38 Y145.97 E20.74808
G1 X139.98 Y145.37 E20.79338
G1 X139.98 Y145.17 E20.80406
G1 X140.38 Y144.77 E20.83426
G1 X140.38 Y144.57 E20.84493
G1 X143.47 Y141.48 E21.07828
G0 F6000 X143.72 Y141.83
G1 F2700 X144.12 Y141.63 E21.10216
G1 X144.32 Y141.43 E21.11726
G1 X144.72 Y141.23 E21.14113
G1 X145.12 Y140.83 E21.17140
G1 X147.19 Y139.80 E21.29457
G1 X147.99 Y139.60 E21.33843
G1 X148.97 Y139.11 E21.39735
G1 X155.54 Y139.11 E21.74797
G1 X157.51 Y139.60 E21.85654
G1 X159.98 Y140.83 E22.00358
G1 X160.38 Y141.23 E22.03385
G1 X160.78 Y141.43 E22.05768
G1 X162.85 Y143.51 E22.21425
G1 X165.29 Y143.51 E22.34467
G1 X165.29 Y146.75 E22.51779
G1 X165.49 Y146.95 E22.53288
G1 X165.49 Y147.55 E22.56491
G1 X165.69 Y147.75 E22.58001
G1 X165.69 Y147.95 E22.59069
G1 X165.89 Y148.15 E22.60579
G1 X165.89 Y149.35 E22.66985
G1 X166.09 Y149.55 E22.68495
G1 X166.09 Y155.25 E22.98933
G1 X165.89 Y155.45 E23.00443
G1 X165.89 Y156.65 E23.06849
G1 X165.69 Y156.85 E23.08359
G1 X165.69 Y157.05 E23.09427
G1 X165.49 Y157.25 E23.10937
G1 X165.49 Y157.85 E23.14139
G1 X165.29 Y158.05 E23.15649
G1 X165.29 Y161.29 E23.32961
G1 X162.85 Y161.29 E23.46003
G1 X160.78 Y163.37 E23.61660
G1 X160.38 Y163.57 E23.64043
G1 X159.98 Y163.97 E23.67070
G1 X157.51 Y165.20 E23.81778
G1 X156.71 Y165.40 E23.86170
G1 X156.07 Y165.72 E23.90009
G1 X153.47 Y166.09 E24.04040
G1 X152.11 Y166.09 E24.11284
G1 X149.10 Y165.76 E24.27435
G1 X147.99 Y165.20 E24.34122
G1 X147.19 Y165.00 E24.38507
G1 X145.12 Y163.97 E24.50824
G1 X144.72 Y163.57 E24.53851
G1 X144.32 Y163.37 E24.56238
G1 X144.12 Y163.17 E24.57748
G1 X143.72 Y162.97 E24.60135
G1 X140.81 Y160.05 E24.82157
G1 X140.81 Y159.85 E24.83225
G1 X140.41 Y159.45 E24.86245
G1 X140.41 Y159.25 E24.87312
G1 X139.81 Y158.65 E24.91842
G1 X139.81 Y158.45 E24.92910
G1 X139.61 Y158.25 E24.94419
G1 X139.61 Y158.05 E24.95487
G1 X139.41 Y157.85 E24.96997
G1 X139.41 Y157.25 E25.00200
G1 X139.21 Y157.05 E25.01710
G1 X139.21 Y156.85 E25.02777
G1 X139.01 Y156.65 E25.04287
G1 X139.01 Y148.15 E25.49673
G1 X139.21 Y147.95 E25.51183
G1 X139.21 Y147.75 E25.52251
G1 X139.41 Y147.55 E25.53761
G1 X139.41 Y146.95 E25.56964
G1 X139.61 Y146.75 E25.58473
G1 X139.61 Y146.55 E25.59541
G1 X139.81 Y146.35 E25.61051
G1 X139.81 Y146.15 E25.62119
G1 X140.41 Y145.55 E25.66648
G1 X140.41 Y145.35 E25.67716
G1 X140.81 Y144.95 E25.70736
G1 X140.81 Y144.75 E25.71803
G1 X143.72 Y141.83 E25.93825
G0 F6000 X143.98 Y142.18
G1 F2700 X144.38 Y141.98 E25.96212
G1 X144.58 Y141.78 E25.97722
G1 X144.98 Y141.58 E26.00122
G1 X145.38 Y141.18 E26.03134
G1 X147.34 Y140.20 E26.14836
G1 X148.14 Y140.00 E26.19239
G1 X149.07 Y139.53 E26.24822
G1 X155.49 Y139.53 E26.59067
G1 X157.36 Y140.00 E26.69386
G1 X159.72 Y141.18 E26.83469
G1 X160.12 Y141.58 E26.86481
G1 X160.52 Y141.78 E26.88881
G1 X162.67 Y143.93 E27.05116
G1 X164.87 Y143.93 E27.16817
G1 X164.87 Y146.93 E27.32789
G1 X165.07 Y147.13 E27.34299
G1 X165.07 Y147.73 E27.37502
G1 X165.27 Y147.93 E27.39012
G1 X165.27 Y148.13 E27.40080
G1 X165.47 Y148.33 E27.41589
G1 X165.47 Y149.53 E27.47995
G1 X165.67 Y149.73 E27.49505
G1 X165.67 Y155.07 E27.78054
G1 X165.47 Y155.27 E27.79564
G1 X165.47 Y156.47 E27.85970
G1 X165.27 Y156.67 E27.87480
G1 X165.27 Y156.87 E27.88548
G1 X165.07 Y157.07 E27.90057
G1 X165.07 Y157.67 E27.93260
G1 X164.87 Y157.87 E27.94770
G1 X164.87 Y160.87 E28.10742
G1 X162.67 Y160.87 E28.22444
G1 X160.52 Y163.02 E28.38679
G1 X160.12 Y163.22 E28.41078
G1 X159.72 Y163.62 E28.44090
G1 X157.36 Y164.80 E28.58173
G1 X156.56 Y165.00 E28.62565
G1 X155.94 Y165.31 E28.66292
G1 X153.44 Y165.67 E28.79783
G1 X152.14 Y165.67 E28.86739
G1 X149.23 Y165.34 E29.02358
G1 X148.14 Y164.80 E29.08871
G1 X147.34 Y164.60 E29.13267
G1 X145.38 Y163.62 E29.24970
G1 X144.98 Y163.22 E29.27982
G1 X144.58 Y163.02 E29.30382
G1 X144.38 Y162.82 E29.31892
G1 X143.98 Y162.62 E29.34279
G1 X141.23 Y159.87 E29.54983
G1 X141.23 Y159.67 E29.56051
G1 X140.83 Y159.27 E29.59071
G1 X140.83 Y159.07 E29.60138
G1 X140.23 Y158.47 E29.64668
G1 X140.23 Y158.27 E29.65736
G1 X140.03 Y158.07 E29.67246
G1 X140.03 Y157.87 E29.68313
G1 X139.83 Y157.67 E29.69823
G1 X139.83 Y157.07 E29.73026
G1 X139.63 Y156.87 E29.74536
G1 X139.63 Y156.67 E29.75604
G1 X139.43 Y156.47 E29.77113
G1 X139.43 Y148.33 E30.20610
G1 X139.63 Y148.13 E30.22119
G1 X139.63 Y147.93 E30.23187
G1 X139.83 Y147.73 E30.24697
G1 X139.83 Y147.13 E30.27900
G1 X140.03 Y146.93 E30.29410
G1 X140.03 Y146.73 E30.30477
G1 X140.23 Y146.53 E30.31987
G1 X140.23 Y146.33 E30.33055
G1 X140.83 Y145.73 E30.37585
G1 X140.83 Y145.53 E30.38652
G1 X141.23 Y145.13 E30.41672
G1 X141.23 Y144.93 E30.42740
G1 X143.98 Y142.18 E30.63444
G0 F6000 X144.23 Y142.53
G1 F2700 X144.63 Y142.34 E30.65836
G1 X144.83 Y142.13 E30.67342
G1 X145.23 Y141.93 E30.69741
G1 X145.63 Y141.53 E30.72754
G1 X147.49 Y140.61 E30.83831
G1 X148.28 Y140.41 E30.88205
G1 X149.18 Y139.96 E30.93535
G1 X155.44 Y139.96 E31.26953
G1 X157.21 Y140.41 E31.36744
G1 X159.47 Y141.53 E31.50206
G1 X159.87 Y141.94 E31.53222
G1 X160.27 Y142.13 E31.55614
G1 X162.50 Y144.36 E31.72426
G1 X164.44 Y144.36 E31.82788
G1 X164.44 Y147.10 E31.97420
G1 X164.64 Y147.30 E31.98930
G1 X164.64 Y147.90 E32.02133
G1 X164.84 Y148.10 E32.03643
G1 X164.84 Y148.30 E32.04711
G1 X165.04 Y148.50 E32.06220
G1 X165.04 Y149.70 E32.12626
G1 X165.24 Y149.90 E32.14136
G1 X165.24 Y154.90 E32.40795
G1 X165.04 Y155.10 E32.42305
G1 X165.04 Y156.30 E32.48711
G1 X164.84 Y156.50 E32.50221
G1 X164.84 Y156.70 E32.51289
G1 X164.64 Y156.90 E32.52799
G1 X164.64 Y157.50 E32.56002
G1 X164.44 Y157.70 E32.57511
G1 X164.44 Y160.44 E32.72144
G1 X162.50 Y160.44 E32.82505
G1 X160.27 Y162.66 E32.99318
G1 X159.87 Y162.87 E33.01710
G1 X159.47 Y163.26 E33.04726
G1 X157.21 Y164.39 E33.18195
G1 X156.42 Y164.59 E33.22580
G1 X155.81 Y164.90 E33.26188
G1 X153.41 Y165.24 E33.39146
G1 X152.16 Y165.24 E33.45813
G1 X149.35 Y164.93 E33.60900
G1 X148.28 Y164.39 E33.67270
G1 X147.49 Y164.19 E33.71655
G1 X145.63 Y163.26 E33.82732
G1 X145.23 Y162.87 E33.85744
G1 X144.83 Y162.66 E33.88144
G1 X144.63 Y162.47 E33.89650
G1 X144.23 Y162.26 E33.92042
G1 X141.66 Y159.70 E34.11429
G1 X141.66 Y159.50 E34.12497
G1 X141.26 Y159.10 E34.15516
G1 X141.26 Y158.90 E34.16584
G1 X140.66 Y158.30 E34.21114
G1 X140.66 Y158.10 E34.22181
G1 X140.46 Y157.90 E34.23691
G1 X140.46 Y157.70 E34.24759
G1 X140.26 Y157.50 E34.26269
G1 X140.26 Y156.90 E34.29472
G1 X140.06 Y156.70 E34.30982
G1 X140.06 Y156.50 E34.32049
G1 X139.86 Y156.30 E34.33559
G1 X139.86 Y148.50 E34.75165
G1 X140.06 Y148.30 E34.76675
G1 X140.06 Y148.10 E34.77743
G1 X140.26 Y147.90 E34.79253
G1 X140.26 Y147.30 E34.82456
G1 X140.46 Y147.10 E34.83966
G1 X140.46 Y146.90 E34.85033
G1 X140.66 Y146.70 E34.86543
G1 X140.66 Y146.50 E34.87611
G1 X141.26 Y145.90 E34.92140
G1 X141.26 Y145.70 E34.93208
G1 X141.66 Y145.30 E34.96228
G1 X141.66 Y145.10 E34.97296
G1 X144.23 Y142.53 E35.16682
G0 F6000 X144.48 Y142.89
G1 F2700 X144.88 Y142.69 E35.19070
G1 X145.08 Y142.49 E35.20580
G1 X145.48 Y142.29 E35.22955
G1 X145.88 Y141.89 E35.25990
G1 X147.64 Y141.01 E35.36444
G1 X148.43 Y140.81 E35.40835
G1 X149.28 Y140.39 E35.45862
G1 X155.38 Y140.39 E35.78458
G1 X157.06 Y140.81 E35.87720
G1 X159.22 Y141.89 E36.00557
G1 X159.62 Y142.29 E36.03580
G1 X160.02 Y142.49 E36.05963
G1 X162.32 Y144.79 E36.23353
G1 X164.01 Y144.79 E36.32375
G1 X164.01 Y147.28 E36.45667
G1 X164.21 Y147.48 E36.47177
G1 X164.21 Y148.08 E36.50380
G1 X164.41 Y148.28 E36.51890
G1 X164.41 Y148.48 E36.52957
G1 X164.61 Y148.68 E36.54467
G1 X164.61 Y149.88 E36.60873
G1 X164.81 Y150.08 E36.62383
G1 X164.81 Y154.72 E36.87152
G1 X164.61 Y154.92 E36.88662
G1 X164.61 Y156.12 E36.95068
G1 X164.41 Y156.32 E36.96578
G1 X164.41 Y156.52 E36.97646
G1 X164.21 Y156.72 E36.99156
G1 X164.21 Y157.32 E37.02359
G1 X164.01 Y157.52 E37.03868
G1 X164.01 Y160.01 E37.17161
G1 X162.32 Y160.01 E37.26182
G1 X160.02 Y162.31 E37.43572
G1 X159.62 Y162.51 E37.45955
G1 X159.22 Y162.91 E37.48979
G1 X157.06 Y163.99 E37.61822
G1 X156.27 Y164.19 E37.66213
G1 X155.68 Y164.48 E37.69701
G1 X153.38 Y164.81 E37.82125
G1 X152.18 Y164.81 E37.88504
G1 X149.47 Y164.51 E38.03049
G1 X148.44 Y163.99 E38.09251
G1 X147.64 Y163.79 E38.13653
G1 X145.88 Y162.91 E38.24108
G1 X145.48 Y162.51 E38.27142
G1 X145.08 Y162.31 E38.29518
G1 X144.88 Y162.11 E38.31028
G1 X144.48 Y161.91 E38.33415
G1 X142.09 Y159.52 E38.51485
G1 X142.09 Y159.32 E38.52552
G1 X141.69 Y158.92 E38.55572
G1 X141.69 Y158.72 E38.56640
G1 X141.09 Y158.12 E38.61169
G1 X141.09 Y157.92 E38.62237
G1 X140.89 Y157.72 E38.63747
G1 X140.89 Y157.52 E38.64815
G1 X140.69 Y157.32 E38.66324
G1 X140.69 Y156.72 E38.69527
G1 X140.49 Y156.52 E38.71037
G1 X140.49 Y156.32 E38.72105
G1 X140.29 Y156.12 E38.73615
G1 X140.29 Y148.68 E39.13331
G1 X140.49 Y148.48 E39.14841
G1 X140.49 Y148.28 E39.15909
G1 X140.69 Y148.08 E39.17419
G1 X140.69 Y147.48 E39.20622
G1 X140.89 Y147.28 E39.22132
G1 X140.89 Y147.08 E39.23199
G1 X141.09 Y146.88 E39.24709
G1 X141.09 Y146.68 E39.25777
G1 X141.69 Y146.08 E39.30306
G1 X141.69 Y145.88 E39.31374
G1 X142.09 Y145.48 E39.34394
G1 X142.09 Y145.28 E39.35462
G1 X144.48 Y142.89 E39.53531
G0 F6000 X144.74 Y143.24
G1 F2700 X145.14 Y143.04 E39.55918
G1 X145.34 Y142.84 E39.57428
G1 X145.74 Y142.64 E39.59811
G1 X146.14 Y142.24 E39.62838
G1 X147.79 Y141.41 E39.72676
G1 X148.59 Y141.22 E39.77073
G1 X149.38 Y140.82 E39.81803
G1 X155.33 Y140.82 E40.13576
G1 X156.91 Y141.22 E40.22304
G1 X158.96 Y142.24 E40.34524
G1 X159.36 Y142.64 E40.37552
G1 X159.76 Y142.84 E40.39934
G1 X162.14 Y145.22 E40.57894
G1 X163.58 Y145.22 E40.65581
G1 X163.58 Y147.46 E40.77539
G1 X163.78 Y147.66 E40.79049
G1 X163.78 Y148.26 E40.82252
G1 X163.98 Y148.46 E40.83762
G1 X163.98 Y148.66 E40.84829
G1 X164.18 Y148.86 E40.86339
G1 X164.18 Y150.06 E40.92745
G1 X164.38 Y150.26 E40.94255
G1 X164.38 Y154.54 E41.17124
G1 X164.18 Y154.74 E41.18634
G1 X164.18 Y155.94 E41.25040
G1 X163.98 Y156.14 E41.26550
G1 X163.98 Y156.34 E41.27618
G1 X163.78 Y156.54 E41.29127
G1 X163.78 Y157.14 E41.32330
G1 X163.58 Y157.34 E41.33840
G1 X163.58 Y159.58 E41.45798
G1 X162.14 Y159.58 E41.53485
G1 X159.76 Y161.96 E41.71445
G1 X159.36 Y162.16 E41.73828
G1 X158.96 Y162.56 E41.76855
G1 X156.91 Y163.59 E41.89076
G1 X156.12 Y163.78 E41.93478
G1 X155.55 Y164.07 E41.96834
G1 X153.35 Y164.38 E42.08725
G1 X152.21 Y164.38 E42.14816
G1 X149.60 Y164.09 E42.28829
G1 X148.58 Y163.59 E42.34881
G1 X147.79 Y163.38 E42.39273
G1 X146.14 Y162.56 E42.49111
G1 X145.74 Y162.16 E42.52138
G1 X145.34 Y161.96 E42.54521
G1 X145.14 Y161.76 E42.56031
G1 X144.74 Y161.56 E42.58418
G1 X142.52 Y159.34 E42.75170
G1 X142.52 Y159.14 E42.76238
G1 X142.12 Y158.74 E42.79258
G1 X142.12 Y158.54 E42.80325
G1 X141.52 Y157.94 E42.84855
G1 X141.52 Y157.74 E42.85922
G1 X141.32 Y157.54 E42.87432
G1 X141.32 Y157.34 E42.88500
G1 X141.12 Y157.14 E42.90010
G1 X141.12 Y156.54 E42.93213
G1 X140.92 Y156.34 E42.94723
G1 X140.92 Y156.14 E42.95790
G1 X140.72 Y155.94 E42.97300
G1 X140.72 Y148.86 E43.35116
G1 X140.92 Y148.66 E43.36626
G1 X140.92 Y148.46 E43.37694
G1 X141.12 Y148.26 E43.39204
G1 X141.12 Y147.66 E43.42407
G1 X141.32 Y147.46 E43.43917
G1 X141.32 Y147.26 E43.44984
G1 X141.52 Y147.06 E43.46494
G1 X141.52 Y146.86 E43.47562
G1 X142.12 Y146.26 E43.52092
G1 X142.12 Y146.06 E43.53159
G1 X142.52 Y145.66 E43.56179
G1 X142.52 Y145.46 E43.57247
G1 X144.74 Y143.24 E43.73999
G0 F6000 X144.99 Y143.59
G1 F2700 X145.39 Y143.39 E43.76379
G1 X145.59 Y143.19 E43.77896
G1 X145.99 Y142.99 E43.80272
G1 X146.39 Y142.59 E43.83303
G1 X147.94 Y141.82 E43.92516
G1 X148.73 Y141.62 E43.96912
G1 X149.48 Y141.25 E44.01355
G1 X155.28 Y141.25 E44.32307
G1 X156.77 Y141.62 E44.40506
G1 X158.71 Y142.59 E44.52101
G1 X159.11 Y142.99 E44.55132
G1 X159.51 Y143.19 E44.57508
G1 X161.97 Y145.65 E44.76049
G1 X163.15 Y145.65 E44.82396
G1 X163.15 Y147.63 E44.93014
G1 X163.35 Y147.84 E44.94524
G1 X163.35 Y148.44 E44.97727
G1 X163.55 Y148.63 E44.99237
G1 X163.55 Y148.84 E45.00304
G1 X163.75 Y149.03 E45.01814
G1 X163.75 Y150.24 E45.08220
G1 X163.95 Y150.44 E45.09730
G1 X163.95 Y154.37 E45.30709
G1 X163.75 Y154.56 E45.32219
G1 X163.75 Y155.76 E45.38625
G1 X163.55 Y155.97 E45.40135
G1 X163.55 Y156.16 E45.41203
G1 X163.35 Y156.37 E45.42713
G1 X163.35 Y156.97 E45.45916
G1 X163.15 Y157.16 E45.47426
G1 X163.15 Y159.15 E45.58043
G1 X161.97 Y159.15 E45.64391
G1 X159.51 Y161.61 E45.82932
G1 X159.11 Y161.81 E45.85307
G1 X158.71 Y162.21 E45.88338
G1 X156.76 Y163.18 E45.99938
G1 X155.97 Y163.38 E46.04330
G1 X155.42 Y163.65 E46.07577
G1 X153.32 Y163.95 E46.18934
G1 X152.23 Y163.95 E46.24731
G1 X149.72 Y163.68 E46.38212
G1 X148.73 Y163.18 E46.44104
G1 X147.94 Y162.98 E46.48501
G1 X146.39 Y162.21 E46.57714
G1 X145.99 Y161.81 E46.60745
G1 X145.59 Y161.61 E46.63120
G1 X145.39 Y161.41 E46.64638
G1 X144.99 Y161.21 E46.67018
G1 X142.95 Y159.16 E46.82457
G1 X142.95 Y158.97 E46.83524
G1 X142.55 Y158.56 E46.86544
G1 X142.55 Y158.37 E46.87612
G1 X141.95 Y157.76 E46.92141
G1 X141.95 Y157.56 E46.93209
G1 X141.75 Y157.37 E46.94719
G1 X141.75 Y157.16 E46.95787
G1 X141.55 Y156.97 E46.97296
G1 X141.55 Y156.37 E47.00499
G1 X141.35 Y156.16 E47.02009
G1 X141.35 Y155.97 E47.03077
G1 X141.15 Y155.76 E47.04587
G1 X141.15 Y149.03 E47.40513
G1 X141.35 Y148.84 E47.42023
G1 X141.35 Y148.63 E47.43091
G1 X141.55 Y148.44 E47.44601
G1 X141.55 Y147.84 E47.47804
G1 X141.75 Y147.63 E47.49314
G1 X141.75 Y147.44 E47.50381
G1 X141.95 Y147.24 E47.51891
G1 X141.95 Y147.03 E47.52959
G1 X142.55 Y146.44 E47.57488
G1 X142.55 Y146.24 E47.58556
G1 X142.95 Y145.84 E47.61576
G1 X142.95 Y145.63 E47.62643
G1 X144.99 Y143.59 E47.78082
G0 F6000 X145.24 Y143.94
G1 F2700 X145.64 Y143.74 E47.80469
G1 X145.84 Y143.54 E47.81979
G1 X146.24 Y143.34 E47.84367
G1 X146.64 Y142.94 E47.87386
G1 X148.08 Y142.22 E47.95978
G1 X148.88 Y142.02 E48.00358
G1 X149.58 Y141.67 E48.04531
G1 X155.22 Y141.67 E48.34666
G1 X156.62 Y142.02 E48.42327
G1 X158.46 Y142.94 E48.53306
G1 X158.86 Y143.34 E48.56326
G1 X159.26 Y143.54 E48.58713
G1 X161.73 Y146.01 E48.77360
G1 X161.73 Y146.07 E48.77691
G1 X162.73 Y146.07 E48.83030
G1 X162.73 Y147.81 E48.92307
G1 X162.93 Y148.01 E48.93817
G1 X162.93 Y148.61 E48.97020
G1 X163.13 Y148.81 E48.98530
G1 X163.13 Y149.01 E48.99598
G1 X163.33 Y149.21 E49.01108
G1 X163.33 Y150.41 E49.07514
G1 X163.53 Y150.61 E49.09023
G1 X163.53 Y154.19 E49.28113
G1 X163.33 Y154.39 E49.29623
G1 X163.33 Y155.59 E49.36029
G1 X163.13 Y155.79 E49.37539
G1 X163.13 Y155.99 E49.38606
G1 X162.93 Y156.19 E49.40116
G1 X162.93 Y156.79 E49.43319
G1 X162.73 Y156.99 E49.44829
G1 X162.73 Y158.73 E49.54107
G1 X161.73 Y158.73 E49.59445
G1 X161.73 Y158.79 E49.59776
G1 X159.26 Y161.26 E49.78423
G1 X158.86 Y161.46 E49.80811
G1 X158.46 Y161.86 E49.83830
G1 X156.62 Y162.78 E49.94810
G1 X155.82 Y162.98 E49.99195
G1 X155.29 Y163.24 E50.02330
G1 X153.29 Y163.53 E50.13152
G1 X152.25 Y163.53 E50.18667
G1 X149.84 Y163.26 E50.31611
G1 X148.88 Y162.78 E50.37350
G1 X148.08 Y162.58 E50.41746
G1 X146.64 Y161.86 E50.50338
G1 X146.24 Y161.46 E50.53358
G1 X145.84 Y161.26 E50.55745
G1 X145.64 Y161.06 E50.57255
G1 X145.24 Y160.86 E50.59642
G1 X143.37 Y158.99 E50.73760
G1 X143.37 Y158.79 E50.74827
G1 X142.97 Y158.39 E50.77847
G1 X142.97 Y158.19 E50.78915
G1 X142.37 Y157.59 E50.83445
G1 X142.37 Y157.39 E50.84512
G1 X142.17 Y157.19 E50.86022
G1 X142.17 Y156.99 E50.87090
G1 X141.97 Y156.79 E50.88600
G1 X141.97 Y156.19 E50.91803
G1 X141.77 Y155.99 E50.93312
G1 X141.77 Y155.79 E50.94380
G1 X141.57 Y155.59 E50.95890
G1 X141.57 Y149.21 E51.29927
G1 X141.77 Y149.01 E51.31437
G1 X141.77 Y148.81 E51.32504
G1 X141.97 Y148.61 E51.34014
G1 X141.97 Y148.01 E51.37217
G1 X142.17 Y147.81 E51.38727
G1 X142.17 Y147.61 E51.39795
G1 X142.37 Y147.41 E51.41305
G1 X142.37 Y147.21 E51.42372
G1 X142.97 Y146.61 E51.46902
G1 X142.97 Y146.41 E51.47969
G1 X143.37 Y146.01 E51.50989
G1 X143.37 Y145.81 E51.52057
G1 X145.24 Y143.94 E51.66174
G0 F6000 X145.50 Y144.29
G1 F2700 X145.90 Y144.09 E51.68569
G1 X146.10 Y143.89 E51.70071
G1 X146.50 Y143.69 E51.72466
G1 X146.90 Y143.29 E51.75478
G1 X148.23 Y142.63 E51.83444
G1 X149.03 Y142.43 E51.87841
G1 X149.68 Y142.10 E51.91716
G1 X155.17 Y142.10 E52.21023
G1 X156.47 Y142.43 E52.28156
G1 X158.20 Y143.29 E52.38509
G1 X158.60 Y143.69 E52.41522
G1 X159.00 Y143.89 E52.43916
G1 X161.30 Y146.19 E52.61250
G1 X161.30 Y146.39 E52.62317
G1 X161.41 Y146.50 E52.63163
G1 X162.30 Y146.50 E52.67903
G1 X162.30 Y147.99 E52.75847
G1 X162.50 Y148.19 E52.77356
G1 X162.50 Y148.79 E52.80559
G1 X162.70 Y148.99 E52.82069
G1 X162.70 Y149.19 E52.83137
G1 X162.90 Y149.39 E52.84647
G1 X162.90 Y150.59 E52.91053
G1 X163.10 Y150.79 E52.92563
G1 X163.10 Y154.01 E53.09752
G1 X162.90 Y154.21 E53.11262
G1 X162.90 Y155.41 E53.17668
G1 X162.70 Y155.61 E53.19177
G1 X162.70 Y155.81 E53.20245
G1 X162.50 Y156.01 E53.21755
G1 X162.50 Y156.61 E53.24958
G1 X162.30 Y156.81 E53.26468
G1 X162.30 Y158.30 E53.34411
G1 X161.41 Y158.30 E53.39151
G1 X161.30 Y158.41 E53.39997
G1 X161.30 Y158.61 E53.41065
G1 X159.00 Y160.91 E53.58398
G1 X158.60 Y161.11 E53.60793
G1 X158.20 Y161.51 E53.63805
G1 X156.47 Y162.37 E53.74159
G1 X155.67 Y162.57 E53.78561
G1 X155.16 Y162.82 E53.81564
G1 X153.26 Y163.10 E53.91853
G1 X152.28 Y163.10 E53.97074
G1 X149.97 Y162.84 E54.09481
G1 X149.03 Y162.37 E54.15084
G1 X148.23 Y162.17 E54.19465
G1 X146.90 Y161.51 E54.27431
G1 X146.50 Y161.11 E54.30443
G1 X146.10 Y160.91 E54.32838
G1 X145.90 Y160.71 E54.34340
G1 X145.50 Y160.51 E54.36735
G1 X143.80 Y158.81 E54.49538
G1 X143.80 Y158.61 E54.50606
G1 X143.40 Y158.21 E54.53626
G1 X143.40 Y158.01 E54.54694
G1 X142.80 Y157.41 E54.59223
G1 X142.80 Y157.21 E54.60291
G1 X142.60 Y157.01 E54.61801
G1 X142.60 Y156.81 E54.62868
G1 X142.40 Y156.61 E54.64378
G1 X142.40 Y156.01 E54.67581
G1 X142.20 Y155.81 E54.69091
G1 X142.20 Y155.61 E54.70159
G1 X142.00 Y155.41 E54.71669
G1 X142.00 Y149.39 E55.03805
G1 X142.20 Y149.19 E55.05315
G1 X142.20 Y148.99 E55.06382
G1 X142.40 Y148.79 E55.07892
G1 X142.40 Y148.19 E55.11095
G1 X142.60 Y147.99 E55.12605
G1 X142.60 Y147.79 E55.13673
G1 X142.80 Y147.59 E55.15183
G1 X142.80 Y147.39 E55.16250
G1 X143.40 Y146.79 E55.20780
G1 X143.40 Y146.59 E55.21848
G1 X143.80 Y146.19 E55.24867
G1 X143.80 Y145.99 E55.25935
G1 X145.50 Y144.29 E55.38739
G0 F6000 X145.75 Y144.65
G1 F2700 X146.15 Y144.45 E55.41121
G1 X146.35 Y144.25 E55.42635
G1 X146.75 Y144.05 E55.45018
G1 X147.15 Y143.65 E55.48045
G1 X148.38 Y143.03 E55.55396
G1 X149.18 Y142.83 E55.59791
G1 X149.78 Y142.53 E55.63375
G1 X155.12 Y142.53 E55.91860
G1 X156.32 Y142.83 E55.98464
G1 X157.95 Y143.65 E56.08197
G1 X158.35 Y144.05 E56.11221
G1 X158.75 Y144.25 E56.13603
G1 X160.87 Y146.37 E56.29615
G1 X160.87 Y146.57 E56.30678
G1 X161.23 Y146.93 E56.33422
G1 X161.87 Y146.93 E56.36822
G1 X161.87 Y148.17 E56.43426
G1 X162.07 Y148.37 E56.44936
G1 X162.07 Y148.97 E56.48139
G1 X162.27 Y149.17 E56.49649
G1 X162.27 Y149.37 E56.50716
G1 X162.47 Y149.57 E56.52226
G1 X162.47 Y150.77 E56.58632
G1 X162.67 Y150.97 E56.60142
G1 X162.67 Y153.83 E56.75441
G1 X162.47 Y154.03 E56.76951
G1 X162.47 Y155.23 E56.83357
G1 X162.27 Y155.43 E56.84867
G1 X162.27 Y155.63 E56.85935
G1 X162.07 Y155.83 E56.87445
G1 X162.07 Y156.43 E56.90648
G1 X161.87 Y156.63 E56.92157
G1 X161.87 Y157.87 E56.98761
G1 X161.23 Y157.87 E57.02161
G1 X160.87 Y158.23 E57.04906
G1 X160.87 Y158.43 E57.05968
G1 X158.75 Y160.55 E57.21980
G1 X158.35 Y160.75 E57.24363
G1 X157.95 Y161.15 E57.27386
G1 X156.32 Y161.97 E57.37127
G1 X155.52 Y162.17 E57.41517
G1 X155.03 Y162.41 E57.44408
G1 X153.23 Y162.67 E57.54163
G1 X152.30 Y162.67 E57.59095
G1 X150.09 Y162.42 E57.70971
G1 X149.18 Y161.97 E57.76395
G1 X148.38 Y161.77 E57.80792
G1 X147.15 Y161.16 E57.88142
G1 X146.75 Y160.75 E57.91170
G1 X146.35 Y160.55 E57.93552
G1 X146.15 Y160.35 E57.95066
G1 X145.75 Y160.15 E57.97449
G1 X144.23 Y158.63 E58.08931
G1 X144.23 Y158.43 E58.09994
G1 X143.83 Y158.03 E58.13017
G1 X143.83 Y157.83 E58.14079
G1 X143.23 Y157.23 E58.18613
G1 X143.23 Y157.03 E58.19681
G1 X143.03 Y156.83 E58.21190
G1 X143.03 Y156.63 E58.22258
G1 X142.83 Y156.43 E58.23768
G1 X142.83 Y155.83 E58.26971
G1 X142.63 Y155.63 E58.28481
G1 X142.63 Y155.43 E58.29548
G1 X142.43 Y155.23 E58.31058
G1 X142.43 Y149.57 E58.61305
G1 X142.63 Y149.37 E58.62815
G1 X142.63 Y149.17 E58.63882
G1 X142.83 Y148.97 E58.65392
G1 X142.83 Y148.37 E58.68595
G1 X143.03 Y148.17 E58.70105
G1 X143.03 Y147.97 E58.71173
G1 X143.23 Y147.77 E58.72683
G1 X143.23 Y147.57 E58.73750
G1 X143.83 Y146.97 E58.78284
G1 X143.83 Y146.77 E58.79346
G1 X144.23 Y146.37 E58.82370
G1 X144.23 Y146.17 E58.83432
G1 X145.75 Y144.65 E58.94915
G0 F6000 X146.00 Y145.00
G1 F2700 X146.40 Y144.80 E58.97295
G1 X146.60 Y144.60 E58.98812
G1 X147.00 Y144.40 E59.01192
G1 X147.41 Y144.00 E59.04220
G1 X148.53 Y143.43 E59.10945
G1 X149.33 Y143.23 E59.15347
G1 X149.88 Y142.96 E59.18637
G1 X155.06 Y142.96 E59.46299
G1 X156.17 Y143.23 E59.52369
G1 X157.69 Y144.00 E59.61482
G1 X158.10 Y144.40 E59.64509
G1 X158.50 Y144.60 E59.66889
G1 X160.44 Y146.54 E59.81588
G1 X160.44 Y146.74 E59.82655
G1 X161.04 Y147.34 E59.87185
G1 X161.04 Y147.36 E59.87260
G1 X161.44 Y147.36 E59.89395
G1 X161.44 Y148.34 E59.94659
G1 X161.64 Y148.54 E59.96169
G1 X161.64 Y149.14 E59.99371
G1 X161.84 Y149.34 E60.00881
G1 X161.84 Y149.54 E60.01949
G1 X162.04 Y149.74 E60.03459
G1 X162.04 Y150.94 E60.09865
G1 X162.24 Y151.14 E60.11375
G1 X162.24 Y153.66 E60.24784
G1 X162.04 Y153.86 E60.26294
G1 X162.04 Y155.06 E60.32700
G1 X161.84 Y155.26 E60.34210
G1 X161.84 Y155.46 E60.35278
G1 X161.64 Y155.66 E60.36788
G1 X161.64 Y156.26 E60.39991
G1 X161.44 Y156.46 E60.41500
G1 X161.44 Y157.44 E60.46764
G1 X161.04 Y157.44 E60.48899
G1 X161.04 Y157.46 E60.48974
G1 X160.44 Y158.06 E60.53504
G1 X160.44 Y158.26 E60.54571
G1 X158.50 Y160.20 E60.69270
G1 X158.10 Y160.40 E60.71650
G1 X157.69 Y160.80 E60.74678
G1 X156.17 Y161.57 E60.83790
G1 X155.37 Y161.77 E60.88192
G1 X154.91 Y162.00 E60.90957
G1 X153.20 Y162.24 E61.00172
G1 X152.32 Y162.24 E61.04822
G1 X150.21 Y162.01 E61.16160
G1 X149.33 Y161.57 E61.21415
G1 X148.53 Y161.37 E61.25827
G1 X147.41 Y160.80 E61.32552
G1 X147.00 Y160.40 E61.35580
G1 X146.60 Y160.20 E61.37960
G1 X146.40 Y160.00 E61.39477
G1 X146.00 Y159.80 E61.41858
G1 X144.66 Y158.46 E61.52027
G1 X144.66 Y158.26 E61.53094
G1 X144.26 Y157.86 E61.56114
G1 X144.26 Y157.66 E61.57182
G1 X143.66 Y157.06 E61.61711
G1 X143.66 Y156.86 E61.62779
G1 X143.46 Y156.66 E61.64289
G1 X143.46 Y156.46 E61.65357
G1 X143.26 Y156.26 E61.66866
G1 X143.26 Y155.66 E61.70069
G1 X143.06 Y155.46 E61.71579
G1 X143.06 Y155.26 E61.72647
G1 X142.86 Y155.06 E61.74157
G1 X142.86 Y149.74 E62.02514
G1 X143.06 Y149.54 E62.04024
G1 X143.06 Y149.34 E62.05091
G1 X143.26 Y149.14 E62.06601
G1 X143.26 Y148.54 E62.09804
G1 X143.46 Y148.34 E62.11314
G1 X143.46 Y148.14 E62.12382
G1 X143.66 Y147.94 E62.13891
G1 X143.66 Y147.74 E62.14959
G1 X144.26 Y147.14 E62.19489
G1 X144.26 Y146.94 E62.20556
G1 X144.66 Y146.54 E62.23576
G1 X144.66 Y146.34 E62.24644
G1 X146.00 Y145.00 E62.34813
G0 F6000 X146.26 Y145.35
G1 F2700 X146.66 Y145.15 E62.37205
G1 X146.86 Y144.95 E62.38711
G1 X147.26 Y144.75 E62.41103
G1 X147.66 Y144.35 E62.44119
G1 X148.68 Y143.84 E62.50224
G1 X149.48 Y143.64 E62.54643
G1 X149.98 Y143.39 E62.57629
G1 X155.01 Y143.39 E62.84470
G1 X156.02 Y143.64 E62.90011
G1 X157.44 Y144.35 E62.98503
G1 X157.84 Y144.75 E63.01519
G1 X158.24 Y144.95 E63.03911
G1 X160.01 Y146.72 E63.17289
G1 X160.01 Y146.92 E63.18362
G1 X160.61 Y147.52 E63.22888
G1 X160.61 Y147.72 E63.23961
G1 X160.68 Y147.79 E63.24444
G1 X161.01 Y147.79 E63.26237
G1 X161.01 Y148.52 E63.30166
G1 X161.21 Y148.72 E63.31672
G1 X161.21 Y149.32 E63.34881
G1 X161.41 Y149.52 E63.36387
G1 X161.41 Y149.72 E63.37460
G1 X161.61 Y149.92 E63.38966
G1 X161.61 Y151.12 E63.45377
G1 X161.81 Y151.32 E63.46883
G1 X161.81 Y153.48 E63.58403
G1 X161.61 Y153.68 E63.59909
G1 X161.61 Y154.88 E63.66321
G1 X161.41 Y155.08 E63.67827
G1 X161.41 Y155.28 E63.68900
G1 X161.21 Y155.48 E63.70406
G1 X161.21 Y156.08 E63.73614
G1 X161.01 Y156.28 E63.75120
G1 X161.01 Y157.01 E63.79049
G1 X160.68 Y157.01 E63.80843
G1 X160.61 Y157.08 E63.81326
G1 X160.61 Y157.28 E63.82399
G1 X160.01 Y157.88 E63.86925
G1 X160.01 Y158.08 E63.87998
G1 X158.24 Y159.85 E64.01375
G1 X157.84 Y160.05 E64.03768
G1 X157.44 Y160.45 E64.06784
G1 X156.02 Y161.16 E64.15275
G1 X155.22 Y161.36 E64.19694
G1 X154.78 Y161.58 E64.22323
G1 X153.16 Y161.81 E64.31010
G1 X152.35 Y161.81 E64.35366
G1 X150.34 Y161.59 E64.46173
G1 X149.48 Y161.16 E64.51265
G1 X148.68 Y160.96 E64.55684
G1 X147.66 Y160.45 E64.61788
G1 X147.26 Y160.05 E64.64804
G1 X146.86 Y159.85 E64.67196
G1 X146.66 Y159.65 E64.68702
G1 X146.26 Y159.45 E64.71095
G1 X145.09 Y158.28 E64.79942
G1 X145.09 Y158.08 E64.81015
G1 X144.69 Y157.68 E64.84031
G1 X144.69 Y157.48 E64.85104
G1 X144.09 Y156.88 E64.89630
G1 X144.09 Y156.68 E64.90703
G1 X143.89 Y156.48 E64.92209
G1 X143.89 Y156.28 E64.93282
G1 X143.69 Y156.08 E64.94789
G1 X143.69 Y155.48 E64.97997
G1 X143.49 Y155.28 E64.99503
G1 X143.49 Y155.08 E65.00576
G1 X143.29 Y154.88 E65.02082
G1 X143.29 Y149.92 E65.28549
G1 X143.49 Y149.72 E65.30055
G1 X143.49 Y149.52 E65.31128
G1 X143.69 Y149.32 E65.32634
G1 X143.69 Y148.72 E65.35843
G1 X143.89 Y148.52 E65.37349
G1 X143.89 Y148.32 E65.38422
G1 X144.09 Y148.12 E65.39928
G1 X144.09 Y147.92 E65.41001
G1 X144.69 Y147.32 E65.45527
G1 X144.69 Y147.12 E65.46600
G1 X145.09 Y146.72 E65.49616
G1 X145.09 Y146.52 E65.50689
G1 X146.26 Y145.35 E65.59537
G0 F6000 X150.23 Y150.24
;TYPE:WALL-INNER
G1 F2700 X150.62 Y149.91 E65.62263
G1 X151.04 Y149.64 E65.64921
G1 X151.48 Y149.46 E65.67446
G1 X151.97 Y149.34 E65.70130
G1 X152.51 Y149.29 E65.73008
G1 X153.00 Y149.33 E65.75658
G1 X153.46 Y149.44 E65.78173
G1 X153.93 Y149.63 E65.80891
G1 X154.38 Y149.90 E65.83673
G1 X154.76 Y150.23 E65.86377
G1 X155.09 Y150.62 E65.89104
G1 X155.36 Y151.04 E65.91762
G1 X155.54 Y151.48 E65.94287
G1 X155.66 Y151.97 E65.96970
G1 X155.71 Y152.50 E65.99843
G1 X155.67 Y153.00 E66.02500
G1 X155.56 Y153.46 E66.05014
G1 X155.37 Y153.93 E66.07732
G1 X155.10 Y154.38 E66.10514
G1 X154.77 Y154.76 E66.13218
G1 X154.38 Y155.09 E66.15945
G1 X153.96 Y155.36 E66.18603
G1 X153.52 Y155.54 E66.21128
G1 X153.03 Y155.66 E66.23812
G1 X152.50 Y155.71 E66.26685
G1 X152.00 Y155.67 E66.29341
G1 X151.54 Y155.56 E66.31855
G1 X151.07 Y155.37 E66.34574
G1 X150.62 Y155.10 E66.37356
G1 X150.24 Y154.77 E66.40060
G1 X149.91 Y154.38 E66.42786
G1 X149.64 Y153.96 E66.45444
G1 X149.46 Y153.52 E66.47969
G1 X149.34 Y153.03 E66.50653
G1 X149.29 Y152.49 E66.53531
G1 X149.33 Y152.00 E66.56181
G1 X149.44 Y151.54 E66.58718
G1 X149.63 Y151.07 E66.61414
G1 X149.90 Y150.62 E66.64196
G1 X150.23 Y150.24 E66.66900
G0 F6000 X150.59 Y150.33
G1 F2700 X150.25 Y150.68 E66.69524
G1 X149.97 Y151.09 E66.72150
G1 X149.77 Y151.54 E66.74773
G1 X149.65 Y152.01 E66.77387
G1 X149.61 Y152.50 E66.80007
G1 X149.65 Y152.99 E66.82626
G1 X149.77 Y153.46 E66.85240
G1 X149.97 Y153.91 E66.87864
G1 X150.25 Y154.32 E66.90489
G1 X150.59 Y154.67 E66.93113
G1 X150.98 Y154.96 E66.95732
G1 X151.42 Y155.19 E66.98346
G1 X151.89 Y155.33 E67.00965
G1 X152.38 Y155.39 E67.03591
G1 X152.87 Y155.37 E67.06199
G1 X153.35 Y155.27 E67.08819
G1 X153.80 Y155.08 E67.11447
G1 X154.22 Y154.83 E67.14065
G1 X154.59 Y154.50 E67.16686
G1 X154.90 Y154.12 E67.19309
G1 X155.14 Y153.69 E67.21931
G1 X155.30 Y153.23 E67.24553
G1 X155.38 Y152.74 E67.27173
G1 X155.38 Y152.26 E67.29778
G1 X155.30 Y151.77 E67.32399
G1 X155.14 Y151.31 E67.35021
G1 X154.90 Y150.88 E67.37642
G1 X154.59 Y150.50 E67.40265
G1 X154.22 Y150.17 E67.42887
G1 X153.80 Y149.92 E67.45504
G1 X153.35 Y149.73 E67.48132
G1 X152.87 Y149.63 E67.50753
G1 X152.38 Y149.61 E67.53360
G1 X151.89 Y149.67 E67.55986
G1 X151.42 Y149.81 E67.58605
G1 X150.98 Y150.04 E67.61220
G1 X150.59 Y150.33 E67.63839
G0 F6000 X150.87 Y150.65
;TYPE:WALL-OUTER
G1 F2700 X150.58 Y150.95 E67.66070
G1 X150.35 Y151.30 E67.68303
G1 X150.18 Y151.68 E67.70539
G1 X150.07 Y152.08 E67.72768
G1 X150.04 Y152.50 E67.74996
G1 X150.07 Y152.92 E67.77225
G1 X150.18 Y153.32 E67.79453
G1 X150.35 Y153.70 E67.81689
G1 X150.58 Y154.05 E67.83922
G1 X150.87 Y154.35 E67.86154
G1 X151.21 Y154.60 E67.88387
G1 X151.58 Y154.79 E67.90617
G1 X151.98 Y154.91 E67.92846
G1 X152.40 Y154.96 E67.95079
G1 X152.81 Y154.94 E67.97302
G1 X153.22 Y154.86 E67.99535
G1 X153.61 Y154.70 E68.01766
G1 X153.97 Y154.48 E68.04000
G1 X154.28 Y154.21 E68.06231
G1 X154.54 Y153.88 E68.08467
G1 X154.75 Y153.51 E68.10699
G1 X154.88 Y153.12 E68.12930
G1 X154.96 Y152.71 E68.15161
G1 X154.96 Y152.29 E68.17381
G1 X154.88 Y151.88 E68.19612
G1 X154.75 Y151.49 E68.21843
G1 X154.54 Y151.12 E68.24075
G1 X154.28 Y150.79 E68.26311
G1 X153.97 Y150.52 E68.28542
G1 X153.61 Y150.30 E68.30776
G1 X153.22 Y150.14 E68.33007
G1 X152.81 Y150.06 E68.35240
G1 X152.40 Y150.04 E68.37463
G1 X151.98 Y150.09 E68.39696
G1 X151.58 Y150.21 E68.41925
G1 X151.21 Y150.40 E68.44155
G1 X150.87 Y150.65 E68.46389
G0 F6000 X149.93 Y149.93
G1 F2700 X150.37 Y149.56 E68.49452
G1 X150.84 Y149.27 E68.52390
G1 X151.35 Y149.06 E68.55343
G1 X151.90 Y148.92 E68.58412
G1 X152.50 Y148.87 E68.61611
G1 X153.05 Y148.91 E68.64546
G1 X153.07 Y148.91 E68.64642
G1 X153.59 Y149.04 E68.67530
G1 X154.12 Y149.25 E68.70564
G1 X154.62 Y149.55 E68.73677
G1 X155.07 Y149.93 E68.76824
G1 X155.44 Y150.37 E68.79888
G1 X155.73 Y150.84 E68.82826
G1 X155.94 Y151.34 E68.85767
G1 X156.08 Y151.90 E68.88848
G1 X156.13 Y152.50 E68.92052
G1 X156.09 Y153.05 E68.94981
G1 X156.09 Y153.07 E68.95078
G1 X155.96 Y153.59 E68.97965
G1 X155.75 Y154.12 E69.01000
G1 X155.45 Y154.62 E69.04112
G1 X155.07 Y155.07 E69.07260
G1 X154.63 Y155.44 E69.10324
G1 X154.16 Y155.73 E69.13262
G1 X153.65 Y155.94 E69.16214
G1 X153.10 Y156.08 E69.19284
G1 X152.50 Y156.13 E69.22488
G1 X151.95 Y156.09 E69.25417
G1 X151.93 Y156.09 E69.25514
G1 X151.41 Y155.96 E69.28401
G1 X150.88 Y155.75 E69.31436
G1 X150.38 Y155.45 E69.34548
G1 X149.93 Y155.07 E69.37696
G1 X149.56 Y154.63 E69.40760
G1 X149.27 Y154.16 E69.43698
G1 X149.06 Y153.65 E69.46650
G1 X148.92 Y153.10 E69.49720
G1 X148.87 Y152.50 E69.52919
G1 X148.91 Y151.95 E69.55853
G1 X148.91 Y151.93 E69.55955
G1 X149.04 Y151.41 E69.58837
G1 X149.25 Y150.88 E69.61872
G1 X149.55 Y150.38 E69.64984
G1 X149.93 Y149.93 E69.68132
G0 F6000 X149.99 Y148.79
;TYPE:SUPPORT
G1 F2700 X149.99 Y143.55 E69.96115
G0 F6000 X150.06 Y143.70
G0 X152.85 Y143.70
G0 X152.85 Y143.54
G1 F2700 X152.85 Y148.04 E70.20153
G0 F6000 X152.86 Y147.88
G0 X154.61 Y148.25
G0 X155.83 Y149.26
G0 X155.71 Y149.36
G1 F2700 X155.71 Y143.72 E70.50298
G0 F6000 X155.67 Y143.87
G0 X158.45 Y145.60
G0 X158.56 Y145.48
G1 F2700 X158.56 Y159.32 E71.24158
G0 F6000 X158.45 Y159.20
G0 X155.67 Y160.93
G0 X155.71 Y161.09
G1 F2700 X155.71 Y155.64 E71.53246
G0 F6000 X155.83 Y155.74
G0 X154.00 Y157.01
G0 X152.86 Y157.12
G0 X152.85 Y156.96
G1 F2700 X152.85 Y161.66 E71.78379
G0 F6000 X152.85 Y161.50
G0 X150.06 Y161.10
G0 X149.99 Y161.25
G1 F2700 X149.99 Y156.21 E72.05289
G0 F6000 X149.91 Y156.35
G0 X147.21 Y159.68
G0 X147.13 Y159.82
G1 F2700 X147.13 Y144.98 E72.84535
G0 F6000 X147.21 Y145.12
G0 X144.39 Y148.06
G0 X144.28 Y147.94
G1 F2700 X144.28 Y156.86 E73.32137
G0 F6000 X144.39 Y156.74
G0 X153.29 Y157.18
G0 X155.38 Y156.27
G0 X161.31 Y154.75
G0 X161.42 Y154.86
G1 F2700 X161.42 Y149.94 E73.58406
G0 F6000 X152.85 Y150.93
G1 F2700 X152.85 Y154.07 E73.75142
;LAYER:1
G0 F6000 X153.35 Y155.27 Z0.50
;TYPE:WALL-INNER
G1 F600 X153.80 Y155.08 E73.76894
G1 X154.22 Y154.83 E73.78639
G1 X154.59 Y154.50 E73.80386
G1 X154.90 Y154.12 E73.82135
G1 X155.14 Y153.69 E73.83882
G1 X155.30 Y153.23 E73.85631
G1 X155.38 Y152.74 E73.87378
G1 X155.38 Y152.26 E73.89114
G1 X155.30 Y151.77 E73.90861
G1 X155.14 Y151.31 E73.92609
G1 X154.90 Y150.88 E73.94357
G1 X154.59 Y150.50 E73.96106
G1 X154.22 Y150.17 E73.97853
G1 X153.80 Y149.92 E73.99598
G1 X153.35 Y149.73 E74.01350
G1 X152.87 Y149.63 E74.03097
G1 X152.38 Y149.61 E74.04836
G1 X151.89 Y149.67 E74.06586
G1 X151.42 Y149.81 E74.08332
G1 X150.98 Y150.04 E74.10075
G1 X150.59 Y150.33 E74.11821
G1 X150.25 Y150.68 E74.13570
G1 X149.97 Y151.09 E74.15321
G1 X149.77 Y151.54 E74.17070
G1 X149.65 Y152.01 E74.18812
G1 X149.61 Y152.50 E74.20559
G1 X149.65 Y152.99 E74.22305
G1 X149.77 Y153.46 E74.24048
G1 X149.97 Y153.91 E74.25797
G1 X150.25 Y154.32 E74.27547
G1 X150.59 Y154.67 E74.29296
G1 X150.98 Y154.96 E74.31042
G1 X151.42 Y155.19 E74.32785
G1 X151.89 Y155.33 E74.34531
G1 X152.38 Y155.39 E74.36282
G1 X152.87 Y155.37 E74.38020
G1 X153.35 Y155.27 E74.39767
G0 F6000 X153.49 Y155.55
G1 F600 X153.06 Y155.65 E74.41326
G1 X152.50 Y155.71 E74.43321
G1 X152.00 Y155.67 E74.45109
G1 X151.57 Y155.56 E74.46701
G1 X151.05 Y155.36 E74.48682
G1 X150.62 Y155.09 E74.50487
G1 X150.23 Y154.76 E74.52294
G1 X149.91 Y154.38 E74.54089
G1 X149.64 Y153.96 E74.55867
G1 X149.45 Y153.49 E74.57662
G1 X149.35 Y153.06 E74.59221
G1 X149.30 Y152.51 E74.61212
G1 X149.29 Y152.50 E74.61252
G1 X149.33 Y152.00 E74.63004
G1 X149.44 Y151.57 E74.64596
G1 X149.64 Y151.06 E74.66539
G1 X149.91 Y150.62 E74.68382
G1 X150.24 Y150.23 E74.70189
G1 X150.62 Y149.91 E74.71984
G1 X151.04 Y149.64 E74.73762
G1 X151.51 Y149.45 E74.75557
G1 X151.94 Y149.35 E74.77116
G1 X152.49 Y149.30 E74.79107
G1 X153.00 Y149.33 E74.80898
G1 X153.43 Y149.44 E74.82490
G1 X153.94 Y149.64 E74.84433
G1 X154.38 Y149.91 E74.86276
G1 X154.77 Y150.24 E74.88083
G1 X155.09 Y150.62 E74.89878
G1 X155.36 Y151.04 E74.91656
G1 X155.55 Y151.51 E74.93451
G1 X155.65 Y151.94 E74.95010
G1 X155.71 Y152.49 E74.96987
G1 X155.71 Y152.50 E74.97023
G1 X155.67 Y153.00 E74.98794
G1 X155.56 Y153.43 E75.00385
G1 X155.36 Y153.94 E75.02328
G1 X155.09 Y154.38 E75.04171
G1 X154.76 Y154.77 E75.05978
G1 X154.38 Y155.09 E75.07773
G1 X153.96 Y155.36 E75.09551
G1 X153.49 Y155.55 E75.11346
G0 F6000 X153.62 Y155.96
;TYPE:WALL-OUTER
G1 F600 X153.13 Y156.07 E75.13129
G1 X152.55 Y156.13 E75.15228
G1 X152.50 Y156.13 E75.15399
G1 X151.98 Y156.09 E75.17234
G1 X151.93 Y156.09 E75.17416
G1 X151.44 Y155.97 E75.19220
G1 X150.90 Y155.76 E75.21294
G1 X150.85 Y155.74 E75.21490
G1 X150.41 Y155.47 E75.23320
G1 X150.37 Y155.44 E75.23505
G1 X149.93 Y155.07 E75.25537
G1 X149.56 Y154.63 E75.27580
G1 X149.29 Y154.19 E75.29417
G1 X149.26 Y154.15 E75.29596
G1 X149.04 Y153.62 E75.31637
G1 X148.93 Y153.13 E75.33419
G1 X148.87 Y152.55 E75.35514
G1 X148.87 Y152.50 E75.35693
G1 X148.91 Y151.98 E75.37524
G1 X148.91 Y151.93 E75.37707
G1 X149.03 Y151.44 E75.39511
G1 X149.24 Y150.90 E75.41584
G1 X149.26 Y150.85 E75.41781
G1 X149.53 Y150.41 E75.43610
G1 X149.56 Y150.37 E75.43796
G1 X149.93 Y149.93 E75.45828
G1 X150.37 Y149.56 E75.47870
G1 X150.81 Y149.29 E75.49708
G1 X150.85 Y149.26 E75.49886
G1 X151.38 Y149.04 E75.51927
G1 X151.87 Y148.93 E75.53710
G1 X152.45 Y148.87 E75.55805
G1 X152.50 Y148.87 E75.55984
G1 X153.02 Y148.91 E75.57815
G1 X153.07 Y148.91 E75.57997
G1 X153.56 Y149.03 E75.59801
G1 X154.10 Y149.24 E75.61875
G1 X154.15 Y149.26 E75.62071
G1 X154.59 Y149.53 E75.63901
G1 X154.63 Y149.56 E75.64086
G1 X155.07 Y149.93 E75.66119
G1 X155.44 Y150.37 E75.68161
G1 X155.71 Y150.81 E75.69998
G1 X155.74 Y150.85 E75.70177
G1 X155.96 Y151.38 E75.72218
G1 X156.07 Y151.87 E75.74000
G1 X156.13 Y152.45 E75.76092
G1 X156.13 Y152.50 E75.76271
G1 X156.09 Y153.02 E75.78105
G1 X156.09 Y153.07 E75.78288
G1 X155.97 Y153.56 E75.80092
G1 X155.76 Y154.10 E75.82166
G1 X155.74 Y154.15 E75.82362
G1 X155.47 Y154.59 E75.84191
G1 X155.44 Y154.63 E75.84377
G1 X155.07 Y155.07 E75.86409
G1 X154.63 Y155.44 E75.88451
G1 X154.19 Y155.71 E75.90289
G1 X154.15 Y155.74 E75.90468
G1 X153.62 Y155.96 E75.92508
G0 F6000 X153.22 Y154.86
G1 F600 X153.61 Y154.70 E75.93995
G1 X153.97 Y154.48 E75.95485
G1 X154.28 Y154.21 E75.96972
G1 X154.54 Y153.88 E75.98463
G1 X154.75 Y153.51 E75.99951
G1 X154.88 Y153.12 E76.01438
G1 X154.96 Y152.71 E76.02925
G1 X154.96 Y152.29 E76.04406
G1 X154.88 Y151.88 E76.05893
G1 X154.75 Y151.49 E76.07380
G1 X154.54 Y151.12 E76.08868
G1 X154.28 Y150.79 E76.10359
G1 X153.97 Y150.52 E76.11846
G1 X153.61 Y150.30 E76.13336
G1 X153.22 Y150.14 E76.14823
G1 X152.81 Y150.06 E76.16312
G1 X152.40 Y150.04 E76.17793
G1 X151.98 Y150.09 E76.19282
G1 X151.58 Y150.21 E76.20768
G1 X151.21 Y150.40 E76.22255
G1 X150.87 Y150.65 E76.23744
G1 X150.58 Y150.95 E76.25232
G1 X150.35 Y151.30 E76.26720
G1 X150.18 Y151.68 E76.28211
G1 X150.07 Y152.08 E76.29696
G1 X150.04 Y152.50 E76.31182
G1 X150.07 Y152.92 E76.32668
G1 X150.18 Y153.32 E76.34153
G1 X150.35 Y153.70 E76.35644
G1 X150.58 Y154.05 E76.37133
G1 X150.87 Y154.35 E76.38620
G1 X151.21 Y154.60 E76.40110
G1 X151.58 Y154.79 E76.41596
G1 X151.98 Y154.91 E76.43082
G1 X152.40 Y154.96 E76.44571
G1 X152.81 Y154.94 E76.46053
G1 X153.22 Y154.86 E76.47542
G0 F6000 X152.85 Y154.07
;TYPE:SUPPORT
G1 F600 X152.85 Y150.93 E76.58699
G0 F6000 X152.85 Y148.04
G1 F600 X152.85 Y143.54 E76.74724
G0 F6000 X152.85 Y143.70
G0 X150.06 Y143.70
G0 X149.99 Y143.55
G1 F600 X149.99 Y148.79 E76.93383
G0 F6000 X149.91 Y148.65
G0 X147.21 Y145.12
G0 X147.13 Y144.98
G1 F600 X147.13 Y159.82 E77.46214
G0 F6000 X147.21 Y159.68
G0 X150.06 Y161.10
G0 X149.99 Y161.25
G1 F600 X149.99 Y156.21 E77.64150
G0 F6000 X149.91 Y156.35
G0 X151.89 Y157.21
G0 X152.86 Y157.12
G0 X152.85 Y156.95
G1 F600 X152.85 Y161.66 E77.80913
G0 F6000 X152.85 Y161.50
G0 X155.67 Y160.93
G0 X155.71 Y161.09
G1 F600 X155.71 Y155.63 E78.00312
G0 F6000 X155.83 Y155.74
G0 X158.45 Y159.20
G0 X158.56 Y159.32
G1 F600 X158.56 Y145.48 E78.49552
G0 F6000 X158.45 Y145.60
G0 X155.67 Y143.87
G0 X155.71 Y143.72
G1 F600 X155.71 Y149.36 E78.69652
G0 F6000 X155.83 Y149.26
G0 X161.31 Y150.06
G0 X161.42 Y149.94
G1 F600 X161.42 Y154.86 E78.87165
G0 F6000 X161.31 Y154.75
G0 X152.50 Y157.25
G0 X150.34 Y156.73
G0 X144.39 Y156.74
G0 X144.28 Y156.86
G1 F600 X144.28 Y147.94 E79.18899
;LAYER:2
G0 F6000 X149.64 Y151.05 Z0.70
;TYPE:WALL-INNER
G1 F600 X149.91 Y150.61 E79.20708
G1 X150.23 Y150.24 E79.22480
G1 X150.62 Y149.91 E79.24277
G1 X151.05 Y149.64 E79.26084
G1 X151.51 Y149.45 E79.27860
G1 X152.00 Y149.33 E79.29659
G1 X152.50 Y149.29 E79.31437
G1 X153.00 Y149.33 E79.33236
G1 X153.44 Y149.44 E79.34824
G1 X153.95 Y149.64 E79.36797
G1 X154.39 Y149.91 E79.38606
G1 X154.76 Y150.23 E79.40378
G1 X155.09 Y150.62 E79.42175
G1 X155.36 Y151.05 E79.43982
G1 X155.55 Y151.51 E79.45758
G1 X155.67 Y152.00 E79.47557
G1 X155.71 Y152.50 E79.49335
G1 X155.67 Y153.00 E79.51113
G1 X155.56 Y153.44 E79.52723
G1 X155.36 Y153.95 E79.54696
G1 X155.09 Y154.39 E79.56504
G1 X154.77 Y154.76 E79.58276
G1 X154.38 Y155.09 E79.60074
G1 X153.95 Y155.36 E79.61880
G1 X153.49 Y155.55 E79.63656
G1 X153.00 Y155.67 E79.65456
G1 X152.50 Y155.71 E79.67245
G1 X152.00 Y155.67 E79.69012
G1 X151.56 Y155.56 E79.70622
G1 X151.05 Y155.36 E79.72594
G1 X150.61 Y155.09 E79.74403
G1 X150.24 Y154.77 E79.76175
G1 X149.91 Y154.38 E79.77972
G1 X149.64 Y153.95 E79.79779
G1 X149.45 Y153.49 E79.81555
G1 X149.33 Y153.00 E79.83354
G1 X149.29 Y152.50 E79.85132
G1 X149.33 Y152.00 E79.86931
G1 X149.44 Y151.56 E79.88519
G1 X149.64 Y151.05 E79.90492
G0 F6000 X149.97 Y151.09
G1 F600 X149.77 Y151.54 E79.92241
G1 X149.65 Y152.01 E79.93984
G1 X149.61 Y152.50 E79.95730
G1 X149.65 Y152.99 E79.97477
G1 X149.77 Y153.46 E79.99219
G1 X149.97 Y153.91 E80.00968
G1 X150.25 Y154.32 E80.02718
G1 X150.59 Y154.67 E80.04468
G1 X150.98 Y154.96 E80.06214
G1 X151.42 Y155.19 E80.07956
G1 X151.89 Y155.33 E80.09702
G1 X152.38 Y155.39 E80.11453
G1 X152.87 Y155.37 E80.13191
G1 X153.35 Y155.27 E80.14939
G1 X153.80 Y155.08 E80.16691
G1 X154.22 Y154.83 E80.18436
G1 X154.59 Y154.50 E80.20183
G1 X154.90 Y154.12 E80.21932
G1 X155.14 Y153.69 E80.23679
G1 X155.30 Y153.23 E80.25428
G1 X155.38 Y152.74 E80.27175
G1 X155.38 Y152.26 E80.28911
G1 X155.30 Y151.77 E80.30658
G1 X155.14 Y151.31 E80.32406
G1 X154.90 Y150.88 E80.34154
G1 X154.59 Y150.50 E80.35903
G1 X154.22 Y150.17 E80.37650
G1 X153.80 Y149.92 E80.39395
G1 X153.35 Y149.73 E80.41147
G1 X152.87 Y149.63 E80.42894
G1 X152.38 Y149.61 E80.44633
G1 X151.89 Y149.67 E80.46383
G1 X151.42 Y149.81 E80.48129
G1 X150.98 Y150.04 E80.49872
G1 X150.59 Y150.33 E80.51618
G1 X150.25 Y150.68 E80.53368
G1 X149.97 Y151.09 E80.55118
G0 F6000 X150.35 Y151.30
;TYPE:WALL-OUTER
G1 F600 X150.18 Y151.68 E80.56609
G1 X150.07 Y152.08 E80.58094
G1 X150.04 Y152.50 E80.59580
G1 X150.07 Y152.92 E80.61065
G1 X150.18 Y153.32 E80.62551
G1 X150.35 Y153.70 E80.64042
G1 X150.58 Y154.05 E80.65530
G1 X150.87 Y154.35 E80.67018
G1 X151.21 Y154.60 E80.68507
G1 X151.58 Y154.79 E80.69994
G1 X151.98 Y154.91 E80.71480
G1 X152.40 Y154.96 E80.72968
G1 X152.81 Y154.94 E80.74450
G1 X153.22 Y154.86 E80.75939
G1 X153.61 Y154.70 E80.77426
G1 X153.97 Y154.48 E80.78915
G1 X154.28 Y154.21 E80.80403
G1 X154.54 Y153.88 E80.81894
G1 X154.75 Y153.51 E80.83382
G1 X154.88 Y153.12 E80.84869
G1 X154.96 Y152.71 E80.86356
G1 X154.96 Y152.29 E80.87837
G1 X154.88 Y151.88 E80.89324
G1 X154.75 Y151.49 E80.90811
G1 X154.54 Y151.12 E80.92299
G1 X154.28 Y150.79 E80.93790
G1 X153.97 Y150.52 E80.95277
G1 X153.61 Y150.30 E80.96767
G1 X153.22 Y150.14 E80.98254
G1 X152.81 Y150.06 E80.99742
G1 X152.40 Y150.04 E81.01224
G1 X151.98 Y150.09 E81.02713
G1 X151.58 Y150.21 E81.04199
G1 X151.21 Y150.40 E81.05686
G1 X150.87 Y150.65 E81.07175
G1 X150.58 Y150.95 E81.08662
G1 X150.35 Y151.30 E81.10151
G0 F6000 X149.26 Y150.85
G1 F600 X149.56 Y150.37 E81.12156
G1 X149.93 Y149.93 E81.14198
G1 X150.37 Y149.56 E81.16241
G1 X150.85 Y149.26 E81.18246
G1 X151.38 Y149.04 E81.20298
G1 X151.94 Y148.91 E81.22330
G1 X152.50 Y148.87 E81.24347
G1 X153.07 Y148.91 E81.26371
G1 X153.62 Y149.04 E81.28398
G1 X154.15 Y149.26 E81.30447
G1 X154.63 Y149.56 E81.32452
G1 X155.07 Y149.93 E81.34495
G1 X155.44 Y150.37 E81.36537
G1 X155.74 Y150.85 E81.38542
G1 X155.96 Y151.38 E81.40594
G1 X156.09 Y151.94 E81.42626
G1 X156.14 Y152.50 E81.44650
G1 X156.09 Y153.07 E81.46668
G1 X155.96 Y153.62 E81.48695
G1 X155.74 Y154.15 E81.50744
G1 X155.44 Y154.63 E81.52749
G1 X155.07 Y155.07 E81.54792
G1 X154.63 Y155.44 E81.56834
G1 X154.15 Y155.74 E81.58839
G1 X153.62 Y155.96 E81.60891
G1 X153.06 Y156.09 E81.62923
G1 X152.50 Y156.14 E81.64947
G1 X151.93 Y156.09 E81.66965
G1 X151.38 Y155.96 E81.68992
G1 X150.85 Y155.74 E81.71041
G1 X150.37 Y155.44 E81.73046
G1 X149.93 Y155.07 E81.75089
G1 X149.56 Y154.63 E81.77131
G1 X149.26 Y154.15 E81.79136
G1 X149.04 Y153.62 E81.81188
G1 X148.91 Y153.06 E81.83220
G1 X148.87 Y152.50 E81.85237
G1 X148.91 Y151.93 E81.87261
G1 X149.04 Y151.38 E81.89289
G1 X149.26 Y150.85 E81.91337
G0 F6000 X149.99 Y148.79
;TYPE:SUPPORT
G1 F600 X149.99 Y143.55 E82.09996
G0 F6000 X150.06 Y143.70
G0 X152.85 Y143.70
G0 X152.85 Y143.54
G1 F600 X152.85 Y148.04 E82.26025
G0 F6000 X152.86 Y147.88
G0 X154.66 Y148.27
G0 X155.83 Y149.26
G0 X155.71 Y149.37
G1 F600 X155.71 Y143.72 E82.46133
G0 F6000 X155.67 Y143.87
G0 X158.45 Y145.60
G0 X158.56 Y145.48
G1 F600 X158.56 Y159.32 E82.95373
G0 F6000 X158.45 Y159.20
G0 X155.67 Y160.93
G0 X155.71 Y161.09
G1 F600 X155.71 Y155.63 E83.14783
G0 F6000 X155.83 Y155.74
G0 X153.97 Y157.02
G0 X152.86 Y157.12
G0 X152.85 Y156.96
G1 F600 X152.85 Y161.66 E83.31527
G0 F6000 X152.85 Y161.50
G0 X150.06 Y161.10
G0 X149.99 Y161.25
G1 F600 X149.99 Y156.21 E83.49464
G0 F6000 X149.91 Y156.35
G0 X147.21 Y159.68
G0 X147.13 Y159.82
G1 F600 X147.13 Y144.98 E84.02294
G0 F6000 X147.21 Y145.12
G0 X144.39 Y148.06
G0 X144.28 Y147.94
G1 F600 X144.28 Y156.86 E84.34029
G0 F6000 X144.39 Y156.74
G0 X153.24 Y157.19
G0 X155.42 Y156.23
G0 X161.31 Y154.75
G0 X161.42 Y154.86
G1 F600 X161.42 Y149.94 E84.51542
G0 F6000 X152.85 Y150.93
G1 F600 X152.85 Y154.07 E84.62699
;LAYER:3
G0 F6000 X153.35 Y155.27 Z0.90
;TYPE:WALL-INNER
G1 F600 X153.80 Y155.08 E84.64450
G1 X154.22 Y154.83 E84.66196
G1 X154.59 Y154.50 E84.67943
G1 X154.90 Y154.12 E84.69692
G1 X155.14 Y153.69 E84.71439
G1 X155.30 Y153.23 E84.73187
G1 X155.38 Y152.74 E84.74935
G1 X155.38 Y152.26 E84.76671
G1 X155.30 Y151.77 E84.78418
G1 X155.14 Y151.31 E84.80166
G1 X154.90 Y150.88 E84.81914
G1 X154.59 Y150.50 E84.83663
G1 X154.22 Y150.17 E84.85410
G1 X153.80 Y149.92 E84.87155
G1 X153.35 Y149.73 E84.88907
G1 X152.87 Y149.63 E84.90654
G1 X152.38 Y149.61 E84.92393
G1 X151.89 Y149.67 E84.94143
G1 X151.42 Y149.81 E84.95889
G1 X150.98 Y150.04 E84.97632
G1 X150.59 Y150.33 E84.99378
G1 X150.25 Y150.68 E85.01127
G1 X149.97 Y151.09 E85.02878
G1 X149.77 Y151.54 E85.04626
G1 X149.65 Y152.01 E85.06369
G1 X149.61 Y152.50 E85.08116
G1 X149.65 Y152.99 E85.09862
G1 X149.77 Y153.46 E85.11605
G1 X149.97 Y153.91 E85.13354
G1 X150.25 Y154.32 E85.15104
G1 X150.59 Y154.67 E85.16853
G1 X150.98 Y154.96 E85.18599
G1 X151.42 Y155.19 E85.20342
G1 X151.89 Y155.33 E85.22088
G1 X152.38 Y155.39 E85.23839
G1 X152.87 Y155.37 E85.25577
G1 X153.35 Y155.27 E85.27324
G0 F6000 X153.49 Y155.55
G1 F600 X153.00 Y155.67 E85.29103
G1 X152.50 Y155.71 E85.30899
G1 X152.00 Y155.67 E85.32695
G1 X151.51 Y155.55 E85.34474
G1 X151.04 Y155.36 E85.36269
G1 X150.62 Y155.09 E85.38056
G1 X150.23 Y154.77 E85.39849
G1 X149.91 Y154.38 E85.41642
G1 X149.64 Y153.96 E85.43429
G1 X149.45 Y153.49 E85.45224
G1 X149.33 Y153.00 E85.47003
G1 X149.29 Y152.50 E85.48799
G1 X149.33 Y152.00 E85.50594
G1 X149.45 Y151.51 E85.52373
G1 X149.64 Y151.04 E85.54168
G1 X149.91 Y150.62 E85.55956
G1 X150.23 Y150.23 E85.57749
G1 X150.62 Y149.91 E85.59541
G1 X151.04 Y149.64 E85.61329
G1 X151.51 Y149.45 E85.63124
G1 X152.00 Y149.33 E85.64903
G1 X152.50 Y149.29 E85.66699
G1 X153.00 Y149.33 E85.68494
G1 X153.49 Y149.45 E85.70273
G1 X153.96 Y149.64 E85.72068
G1 X154.38 Y149.91 E85.73856
G1 X154.77 Y150.23 E85.75649
G1 X155.09 Y150.62 E85.77441
G1 X155.36 Y151.04 E85.79229
G1 X155.55 Y151.51 E85.81024
G1 X155.67 Y152.00 E85.82803
G1 X155.71 Y152.50 E85.84599
G1 X155.67 Y153.00 E85.86395
G1 X155.55 Y153.49 E85.88174
G1 X155.36 Y153.96 E85.89969
G1 X155.09 Y154.38 E85.91756
G1 X154.77 Y154.77 E85.93549
G1 X154.38 Y155.09 E85.95342
G1 X153.96 Y155.36 E85.97129
G1 X153.49 Y155.55 E85.98924
G0 F6000 X153.62 Y155.96
;TYPE:WALL-OUTER
G1 F600 X153.07 Y156.09 E86.00949
G1 X152.50 Y156.14 E86.02973
G1 X151.93 Y156.09 E86.04998
G1 X151.38 Y155.96 E86.07022
G1 X150.85 Y155.74 E86.09074
G1 X150.37 Y155.44 E86.11079
G1 X149.93 Y155.07 E86.13121
G1 X149.56 Y154.63 E86.15164
G1 X149.26 Y154.15 E86.17169
G1 X149.04 Y153.62 E86.19221
G1 X148.91 Y153.07 E86.21245
G1 X148.87 Y152.50 E86.23269
G1 X148.91 Y151.93 E86.25293
G1 X149.04 Y151.38 E86.27318
G1 X149.26 Y150.85 E86.29370
G1 X149.56 Y150.37 E86.31375
G1 X149.93 Y149.93 E86.33417
G1 X150.37 Y149.56 E86.35460
G1 X150.85 Y149.26 E86.37465
G1 X151.38 Y149.04 E86.39517
G1 X151.93 Y148.91 E86.41541
G1 X152.50 Y148.87 E86.43565
G1 X153.07 Y148.91 E86.45589
G1 X153.62 Y149.04 E86.47613
G1 X154.15 Y149.26 E86.49665
G1 X154.63 Y149.56 E86.51671
G1 X155.07 Y149.93 E86.53713
G1 X155.44 Y150.37 E86.55755
G1 X155.74 Y150.85 E86.57760
G1 X155.96 Y151.38 E86.59812
G1 X156.09 Y151.93 E86.61837
G1 X156.14 Y152.50 E86.63861
G1 X156.09 Y153.07 E86.65886
G1 X155.96 Y153.62 E86.67910
G1 X155.74 Y154.15 E86.69962
G1 X155.44 Y154.63 E86.71967
G1 X155.07 Y155.07 E86.74009
G1 X154.63 Y155.44 E86.76052
G1 X154.15 Y155.74 E86.78057
G1 X153.62 Y155.96 E86.80109
G0 F6000 X153.22 Y154.86
G1 F600 X153.61 Y154.70 E86.81596
G1 X153.97 Y154.48 E86.83085
G1 X154.28 Y154.21 E86.84573
G1 X154.54 Y153.88 E86.86064
G1 X154.75 Y153.51 E86.87552
G1 X154.88 Y153.12 E86.89039
G1 X154.96 Y152.71 E86.90526
G1 X154.96 Y152.29 E86.92006
G1 X154.88 Y151.88 E86.93494
G1 X154.75 Y151.49 E86.94980
G1 X154.54 Y151.12 E86.96469
G1 X154.28 Y150.79 E86.97959
G1 X153.97 Y150.52 E86.99447
G1 X153.61 Y150.30 E87.00936
G1 X153.22 Y150.14 E87.02423
G1 X152.81 Y150.06 E87.03912
G1 X152.40 Y150.04 E87.05394
G1 X151.98 Y150.09 E87.06883
G1 X151.58 Y150.21 E87.08369
G1 X151.21 Y150.40 E87.09855
G1 X150.87 Y150.65 E87.11344
G1 X150.58 Y150.95 E87.12832
G1 X150.35 Y151.30 E87.14321
G1 X150.18 Y151.68 E87.15811
G1 X150.07 Y152.08 E87.17297
G1 X150.04 Y152.50 E87.18783
G1 X150.07 Y152.92 E87.20268
G1 X150.18 Y153.32 E87.21754
G1 X150.35 Y153.70 E87.23245
G1 X150.58 Y154.05 E87.24733
G1 X150.87 Y154.35 E87.26221
G1 X151.21 Y154.60 E87.27710
G1 X151.58 Y154.79 E87.29197
G1 X151.98 Y154.91 E87.30682
G1 X152.40 Y154.96 E87.32171
G1 X152.81 Y154.94 E87.33653
G1 X153.22 Y154.86 E87.35142
G0 F6000 X152.85 Y154.07
;TYPE:SUPPORT
G1 F600 X152.85 Y150.93 E87.46299
G0 F6000 X152.85 Y148.04
G1 F600 X152.85 Y143.54 E87.62328
G0 F6000 X152.85 Y143.70
G0 X150.06 Y143.70
G0 X149.99 Y143.55
G1 F600 X149.99 Y148.79 E87.80987
G0 F6000 X149.91 Y148.65
G0 X147.21 Y145.12
G0 X147.13 Y144.98
G1 F600 X147.13 Y159.82 E88.33818
G0 F6000 X147.21 Y159.68
G0 X150.06 Y161.10
G0 X149.99 Y161.25
G1 F600 X149.99 Y156.21 E88.51747
G0 F6000 X149.91 Y156.35
G0 X151.76 Y157.19
G0 X152.86 Y157.12
G0 X152.85 Y156.96
G1 F600 X152.85 Y161.66 E88.68492
G0 F6000 X152.85 Y161.50
G0 X155.67 Y160.93
G0 X155.71 Y161.09
G1 F600 X155.71 Y155.64 E88.87884
G0 F6000 X155.83 Y155.74
G0 X158.45 Y159.20
G0 X158.56 Y159.32
G1 F600 X158.56 Y145.48 E89.37124
G0 F6000 X158.45 Y145.60
G0 X155.67 Y143.87
G0 X155.71 Y143.72
G1 F600 X155.71 Y149.36 E89.57221
G0 F6000 X155.83 Y149.26
G0 X161.31 Y150.06
G0 X161.42 Y149.94
G1 F600 X161.42 Y154.86 E89.74734
G0 F6000 X161.31 Y154.75
G0 X152.50 Y157.25
G0 X150.34 Y156.73
G0 X144.39 Y156.74
G0 X144.28 Y156.86
G1 F600 X144.28 Y147.94 E90.06468
;LAYER:4
G0 F6000 X149.64 Y151.04 Z1.10
;TYPE:WALL-INNER
G1 F600 X149.91 Y150.62 E90.08255
G1 X150.23 Y150.23 E90.10048
G1 X150.62 Y149.91 E90.11841
G1 X151.04 Y149.64 E90.13629
G1 X151.51 Y149.45 E90.15424
G1 X152.00 Y149.33 E90.17203
G1 X152.50 Y149.29 E90.18998
G1 X153.00 Y149.33 E90.20793
G1 X153.49 Y149.45 E90.22572
G1 X153.96 Y149.64 E90.24368
G1 X154.38 Y149.91 E90.26155
G1 X154.77 Y150.23 E90.27948
G1 X155.09 Y150.62 E90.29741
G1 X155.36 Y151.04 E90.31528
G1 X155.55 Y151.51 E90.33323
G1 X155.67 Y152.00 E90.35102
G1 X155.71 Y152.50 E90.36898
G1 X155.67 Y153.00 E90.38694
G1 X155.55 Y153.49 E90.40473
G1 X155.36 Y153.96 E90.42268
G1 X155.09 Y154.38 E90.44056
G1 X154.77 Y154.77 E90.45848
G1 X154.38 Y155.09 E90.47641
G1 X153.96 Y155.36 E90.49429
G1 X153.49 Y155.55 E90.51224
G1 X153.00 Y155.67 E90.53003
G1 X152.50 Y155.71 E90.54799
G1 X152.00 Y155.67 E90.56594
G1 X151.51 Y155.55 E90.58373
G1 X151.04 Y155.36 E90.60168
G1 X150.62 Y155.09 E90.61956
G1 X150.23 Y154.77 E90.63749
G1 X149.91 Y154.38 E90.65541
G1 X149.64 Y153.96 E90.67329
G1 X149.45 Y153.49 E90.69124
G1 X149.33 Y153.00 E90.70903
G1 X149.29 Y152.50 E90.72699
G1 X149.33 Y152.00 E90.74494
G1 X149.45 Y151.51 E90.76273
G1 X149.64 Y151.04 E90.78068
G0 F6000 X149.97 Y151.09
G1 F600 X149.77 Y151.54 E90.79817
G1 X149.65 Y152.01 E90.81560
G1 X149.61 Y152.50 E90.83306
G1 X149.65 Y152.99 E90.85053
G1 X149.77 Y153.46 E90.86795
G1 X149.97 Y153.91 E90.88544
G1 X150.25 Y154.32 E90.90294
G1 X150.59 Y154.67 E90.92044
G1 X150.98 Y154.96 E90.93790
G1 X151.42 Y155.19 E90.95533
G1 X151.89 Y155.33 E90.97279
G1 X152.38 Y155.39 E90.99029
G1 X152.87 Y155.37 E91.00768
G1 X153.35 Y155.27 E91.02515
G1 X153.80 Y155.08 E91.04267
G1 X154.22 Y154.83 E91.06012
G1 X154.59 Y154.50 E91.07759
G1 X154.90 Y154.12 E91.09508
G1 X155.14 Y153.69 E91.11256
G1 X155.30 Y153.23 E91.13004
G1 X155.38 Y152.74 E91.14751
G1 X155.38 Y152.26 E91.16487
G1 X155.30 Y151.77 E91.18234
G1 X155.14 Y151.31 E91.19982
G1 X154.90 Y150.88 E91.21730
G1 X154.59 Y150.50 E91.23479
G1 X154.22 Y150.17 E91.25226
G1 X153.80 Y149.92 E91.26971
G1 X153.35 Y149.73 E91.28723
G1 X152.87 Y149.63 E91.30470
G1 X152.38 Y149.61 E91.32209
G1 X151.89 Y149.67 E91.33959
G1 X151.42 Y149.81 E91.35705
G1 X150.98 Y150.04 E91.37448
G1 X150.59 Y150.33 E91.39194
G1 X150.25 Y150.68 E91.40944
G1 X149.97 Y151.09 E91.42694
G0 F6000 X150.35 Y151.30
;TYPE:WALL-OUTER
G1 F600 X150.18 Y151.68 E91.44185
G1 X150.07 Y152.08 E91.45670
G1 X150.04 Y152.50 E91.47156
G1 X150.07 Y152.92 E91.48642
G1 X150.18 Y153.32 E91.50127
G1 X150.35 Y153.70 E91.51618
G1 X150.58 Y154.05 E91.53106
G1 X150.87 Y154.35 E91.54594
G1 X151.21 Y154.60 E91.56083
G1 X151.58 Y154.79 E91.57570
G1 X151.98 Y154.91 E91.59056
G1 X152.40 Y154.96 E91.60545
G1 X152.81 Y154.94 E91.62026
G1 X153.22 Y154.86 E91.63515
G1 X153.61 Y154.70 E91.65002
G1 X153.97 Y154.48 E91.66492
G1 X154.28 Y154.21 E91.67979
G1 X154.54 Y153.88 E91.69470
G1 X154.75 Y153.51 E91.70958
G1 X154.88 Y153.12 E91.72445
G1 X154.96 Y152.71 E91.73932
G1 X154.96 Y152.29 E91.75413
G1 X154.88 Y151.88 E91.76900
G1 X154.75 Y151.49 E91.78387
G1 X154.54 Y151.12 E91.79875
G1 X154.28 Y150.79 E91.81366
G1 X153.97 Y150.52 E91.82853
G1 X153.61 Y150.30 E91.84343
G1 X153.22 Y150.14 E91.85830
G1 X152.81 Y150.06 E91.87319
G1 X152.40 Y150.04 E91.88800
G1 X151.98 Y150.09 E91.90289
G1 X151.58 Y150.21 E91.91775
G1 X151.21 Y150.40 E91.93262
G1 X150.87 Y150.65 E91.94751
G1 X150.58 Y150.95 E91.96238
G1 X150.35 Y151.30 E91.97727
G0 F6000 X149.26 Y150.85
G1 F600 X149.56 Y150.37 E91.99732
G1 X149.93 Y149.93 E92.01774
G1 X150.37 Y149.56 E92.03817
G1 X150.85 Y149.26 E92.05822
G1 X151.38 Y149.04 E92.07874
G1 X151.93 Y148.91 E92.09898
G1 X152.50 Y148.87 E92.11922
G1 X153.07 Y148.91 E92.13946
G1 X153.62 Y149.04 E92.15971
G1 X154.15 Y149.26 E92.18023
G1 X154.63 Y149.56 E92.20028
G1 X155.07 Y149.93 E92.22070
G1 X155.44 Y150.37 E92.24113
G1 X155.74 Y150.85 E92.26118
G1 X155.96 Y151.38 E92.28170
G1 X156.09 Y151.93 E92.30194
G1 X156.14 Y152.50 E92.32218
G1 X156.09 Y153.07 E92.34243
G1 X155.96 Y153.62 E92.36267
G1 X155.74 Y154.15 E92.38319
G1 X155.44 Y154.63 E92.40324
G1 X155.07 Y155.07 E92.42367
G1 X154.63 Y155.44 E92.44409
G1 X154.15 Y155.74 E92.46414
G1 X153.62 Y155.96 E92.48466
G1 X153.07 Y156.09 E92.50490
G1 X152.50 Y156.14 E92.52515
G1 X151.93 Y156.09 E92.54539
G1 X151.38 Y155.96 E92.56563
G1 X150.85 Y155.74 E92.58615
G1 X150.37 Y155.44 E92.60621
G1 X149.93 Y155.07 E92.62663
G1 X149.56 Y154.63 E92.64705
G1 X149.26 Y154.15 E92.66710
G1 X149.04 Y153.62 E92.68762
G1 X148.91 Y153.07 E92.70787
G1 X148.87 Y152.50 E92.72811
G1 X148.91 Y151.93 E92.74835
G1 X149.04 Y151.38 E92.76859
G1 X149.26 Y150.85 E92.78911
G0 F6000 X149.99 Y148.79
;TYPE:SUPPORT
G1 F600 X149.99 Y143.55 E92.97570
G0 F6000 X150.06 Y143.70
G0 X152.85 Y143.70
G0 X152.85 Y143.54
G1 F600 X152.85 Y148.04 E93.13599
G0 F6000 X152.86 Y147.88
G0 X154.66 Y148.27
G0 X155.83 Y149.26
G0 X155.71 Y149.36
G1 F600 X155.71 Y143.72 E93.33696
G0 F6000 X155.67 Y143.87
G0 X158.45 Y145.60
G0 X158.56 Y145.48
G1 F600 X158.56 Y159.32 E93.82936
G0 F6000 X158.45 Y159.20
G0 X155.67 Y160.93
G0 X155.71 Y161.09
G1 F600 X155.71 Y155.64 E94.02328
G0 F6000 X155.83 Y155.74
G0 X153.97 Y157.02
G0 X152.86 Y157.12
G0 X152.85 Y156.96
G1 F600 X152.85 Y161.66 E94.19072
G0 F6000 X152.85 Y161.50
G0 X150.06 Y161.10
G0 X149.99 Y161.25
G1 F600 X149.99 Y156.21 E94.37002
G0 F6000 X149.91 Y156.35
G0 X147.21 Y159.68
G0 X147.13 Y159.82
G1 F600 X147.13 Y144.98 E94.89833
G0 F6000 X147.21 Y145.12
G0 X144.39 Y148.06
G0 X144.28 Y147.94
G1 F600 X144.28 Y156.86 E95.21567
G0 F6000 X144.39 Y156.74
G0 X153.24 Y157.19
G0 X155.29 Y156.34
G0 X161.31 Y154.75
G0 X161.42 Y154.86
G1 F600 X161.42 Y149.94 E95.39080
G0 F6000 X152.85 Y150.93
G1 F600 X152.85 Y154.07 E95.50237
;LAYER:5
G0 F6000 X153.35 Y155.27 Z1.30
;TYPE:WALL-INNER
G1 F600 X153.80 Y155.08 E95.51989
G1 X154.22 Y154.83 E95.53734
G1 X154.59 Y154.50 E95.55481
G1 X154.90 Y154.12 E95.57230
G1 X155.14 Y153.69 E95.58978
G1 X155.30 Y153.23 E95.60726
G1 X155.38 Y152.74 E95.62473
G1 X155.38 Y152.26 E95.64209
G1 X155.30 Y151.77 E95.65956
G1 X155.14 Y151.31 E95.67705
G1 X154.90 Y150.88 E95.69452
G1 X154.59 Y150.50 E95.71201
G1 X154.22 Y150.17 E95.72948
G1 X153.80 Y149.92 E95.74693
G1 X153.35 Y149.73 E95.76445
G1 X152.87 Y149.63 E95.78193
G1 X152.38 Y149.61 E95.79931
G1 X151.89 Y149.67 E95.81682
G1 X151.42 Y149.81 E95.83428
G1 X150.98 Y150.04 E95.85170
G1 X150.59 Y150.33 E95.86916
G1 X150.25 Y150.68 E95.88666
G1 X149.97 Y151.09 E95.90416
G1 X149.77 Y151.54 E95.92165
G1 X149.65 Y152.01 E95.93907
G1 X149.61 Y152.50 E95.95654
G1 X149.65 Y152.99 E95.97400
G1 X149.77 Y153.46 E95.99143
G1 X149.97 Y153.91 E96.00892
G1 X150.25 Y154.32 E96.02642
G1 X150.59 Y154.67 E96.04391
G1 X150.98 Y154.96 E96.06137
G1 X151.42 Y155.19 E96.07880
G1 X151.89 Y155.33 E96.09626
G1 X152.38 Y155.39 E96.11377
G1 X152.87 Y155.37 E96.13115
G1 X153.35 Y155.27 E96.14862
G0 F6000 X153.49 Y155.55
G1 F600 X153.00 Y155.67 E96.16641
G1 X152.50 Y155.71 E96.18437
G1 X152.00 Y155.67 E96.20233
G1 X151.51 Y155.55 E96.22012
G1 X151.04 Y155.36 E96.23807
G1 X150.62 Y155.09 E96.25595
G1 X150.23 Y154.77 E96.27387
G1 X149.91 Y154.38 E96.29180
G1 X149.64 Y153.96 E96.30968
G1 X149.45 Y153.49 E96.32763
G1 X149.33 Y153.00 E96.34542
G1 X149.29 Y152.50 E96.36337
G1 X149.33 Y152.00 E96.38133
G1 X149.45 Y151.51 E96.39912
G1 X149.64 Y151.04 E96.41707
G1 X149.91 Y150.62 E96.43494
G1 X150.23 Y150.23 E96.45287
G1 X150.62 Y149.91 E96.47080
G1 X151.04 Y149.64 E96.48867
G1 X151.51 Y149.45 E96.50663
G1 X152.00 Y149.33 E96.52442
G1 X152.50 Y149.29 E96.54237
G1 X153.00 Y149.33 E96.56032
G1 X153.49 Y149.45 E96.57811
G1 X153.96 Y149.64 E96.59606
G1 X154.38 Y149.91 E96.61394
G1 X154.77 Y150.23 E96.63187
G1 X155.09 Y150.62 E96.64980
G1 X155.36 Y151.04 E96.66767
G1 X155.55 Y151.51 E96.68562
G1 X155.67 Y152.00 E96.70341
G1 X155.71 Y152.50 E96.72137
G1 X155.67 Y153.00 E96.73933
G1 X155.55 Y153.49 E96.75712
G1 X155.36 Y153.96 E96.77507
G1 X155.09 Y154.38 E96.79295
G1 X154.77 Y154.77 E96.81087
G1 X154.38 Y155.09 E96.82880
G1 X153.96 Y155.36 E96.84668
G1 X153.49 Y155.55 E96.86463
G0 F6000 X153.62 Y155.96
;TYPE:WALL-OUTER
G1 F600 X153.07 Y156.09 E96.88487
G1 X152.50 Y156.14 E96.90511
G1 X151.93 Y156.09 E96.92536
G1 X151.38 Y155.96 E96.94560
G1 X150.85 Y155.74 E96.96612
G1 X150.37 Y155.44 E96.98617
G1 X149.93 Y155.07 E97.00660
G1 X149.56 Y154.63 E97.02702
G1 X149.26 Y154.15 E97.04707
G1 X149.04 Y153.62 E97.06759
G1 X148.91 Y153.07 E97.08783
G1 X148.87 Y152.50 E97.10807
G1 X148.91 Y151.93 E97.12832
G1 X149.04 Y151.38 E97.14856
G1 X149.26 Y150.85 E97.16908
G1 X149.56 Y150.37 E97.18913
G1 X149.93 Y149.93 E97.20955
G1 X150.37 Y149.56 E97.22998
G1 X150.85 Y149.26 E97.25003
G1 X151.38 Y149.04 E97.27055
G1 X151.93 Y148.91 E97.29079
G1 X152.50 Y148.87 E97.31103
G1 X153.07 Y148.91 E97.33128
G1 X153.62 Y149.04 E97.35152
G1 X154.15 Y149.26 E97.37204
G1 X154.63 Y149.56 E97.39209
G1 X155.07 Y149.93 E97.41251
G1 X155.44 Y150.37 E97.43294
G1 X155.74 Y150.85 E97.45299
G1 X155.96 Y151.38 E97.47351
G1 X156.09 Y151.93 E97.49375
G1 X156.14 Y152.50 E97.51399
G1 X156.09 Y153.07 E97.53424
G1 X155.96 Y153.62 E97.55448
G1 X155.74 Y154.15 E97.57500
G1 X155.44 Y154.63 E97.59505
G1 X155.07 Y155.07 E97.61548
G1 X154.63 Y155.44 E97.63590
G1 X154.15 Y155.74 E97.65595
G1 X153.62 Y155.96 E97.67647
G0 F6000 X153.22 Y154.86
G1 F600 X153.61 Y154.70 E97.69134
G1 X153.97 Y154.48 E97.70623
G1 X154.28 Y154.21 E97.72111
G1 X154.54 Y153.88 E97.73602
G1 X154.75 Y153.51 E97.75090
G1 X154.88 Y153.12 E97.76577
G1 X154.96 Y152.71 E97.78064
G1 X154.96 Y152.29 E97.79545
G1 X154.88 Y151.88 E97.81032
G1 X154.75 Y151.49 E97.82519
G1 X154.54 Y151.12 E97.84007
G1 X154.28 Y150.79 E97.85497
G1 X153.97 Y150.52 E97.86985
G1 X153.61 Y150.30 E97.88475
G1 X153.22 Y150.14 E97.89962
G1 X152.81 Y150.06 E97.91450
G1 X152.40 Y150.04 E97.92932
G1 X151.98 Y150.09 E97.94421
G1 X151.58 Y150.21 E97.95907
G1 X151.21 Y150.40 E97.97394
G1 X150.87 Y150.65 E97.98883
G1 X150.58 Y150.95 E98.00370
G1 X150.35 Y151.30 E98.01859
G1 X150.18 Y151.68 E98.03350
G1 X150.07 Y152.08 E98.04835
G1 X150.04 Y152.50 E98.06321
G1 X150.07 Y152.92 E98.07807
G1 X150.18 Y153.32 E98.09292
G1 X150.35 Y153.70 E98.10783
G1 X150.58 Y154.05 E98.12272
G1 X150.87 Y154.35 E98.13759
G1 X151.21 Y154.60 E98.15248
G1 X151.58 Y154.79 E98.16735
G1 X151.98 Y154.91 E98.18221
G1 X152.40 Y154.96 E98.19710
G1 X152.81 Y154.94 E98.21192
G1 X153.22 Y154.86 E98.22680
G0 F6000 X152.85 Y154.07
;TYPE:SUPPORT
G1 F600 X152.85 Y150.93 E98.33837
G0 F6000 X152.85 Y148.04
G1 F600 X152.85 Y143.54 E98.49866
G0 F6000 X152.85 Y143.70
G0 X150.06 Y143.70
G0 X149.99 Y143.55
G1 F600 X149.99 Y148.79 E98.68525
G0 F6000 X149.91 Y148.65
G0 X147.21 Y145.12
G0 X147.13 Y144.98
G1 F600 X147.13 Y159.82 E99.21356
G0 F6000 X147.21 Y159.68
G0 X150.06 Y161.10
G0 X149.99 Y161.25
G1 F600 X149.99 Y156.21 E99.39286
G0 F6000 X149.91 Y156.35
G0 X151.76 Y157.19
G0 X152.86 Y157.12
G0 X152.85 Y156.96
G1 F600 X152.85 Y161.66 E99.56030
G0 F6000 X152.85 Y161.50
G0 X155.67 Y160.93
G0 X155.71 Y161.09
G1 F600 X155.71 Y155.64 E99.75422
G0 F6000 X155.83 Y155.74
G0 X158.45 Y159.20
G0 X158.56 Y159.32
G1 F600 X158.56 Y145.48 E100.24662
G0 F6000 X158.45 Y145.60
G0 X155.67 Y143.87
G0 X155.71 Y143.72
G1 F600 X155.71 Y149.36 E100.44759
G0 F6000 X155.83 Y149.26
G0 X161.31 Y150.06
G0 X161.42 Y149.94
G1 F600 X161.42 Y154.86 E100.62272
G0 F6000 X161.31 Y154.75
G0 X152.50 Y157.25
G0 X150.34 Y156.73
G0 X144.39 Y156.74
G0 X144.28 Y156.86
G1 F600 X144.28 Y147.94 E100.94006
;LAYER:6
G0 F6000 X149.64 Y151.04 Z1.50
;TYPE:WALL-INNER
G1 F600 X149.91 Y150.62 E100.95794
G1 X150.23 Y150.23 E100.97586
G1 X150.62 Y149.91 E100.99379
G1 X151.04 Y149.64 E101.01167
G1 X151.51 Y149.45 E101.02962
G1 X152.00 Y149.33 E101.04741
G1 X152.50 Y149.29 E101.06536
G1 X153.00 Y149.33 E101.08332
G1 X153.49 Y149.45 E101.10111
G1 X153.96 Y149.64 E101.11906
G1 X154.38 Y149.91 E101.13694
G1 X154.77 Y150.23 E101.15486
G1 X155.09 Y150.62 E101.17279
G1 X155.36 Y151.04 E101.19067
G1 X155.55 Y151.51 E101.20862
G1 X155.67 Y152.00 E101.22641
G1 X155.71 Y152.50 E101.24436
G1 X155.67 Y153.00 E101.26232
G1 X155.55 Y153.49 E101.28011
G1 X155.36 Y153.96 E101.29806
G1 X155.09 Y154.38 E101.31594
G1 X154.77 Y154.77 E101.33387
G1 X154.38 Y155.09 E101.35179
G1 X153.96 Y155.36 E101.36967
G1 X153.49 Y155.55 E101.38762
G1 X153.00 Y155.67 E101.40541
G1 X152.50 Y155.71 E101.42337
G1 X152.00 Y155.67 E101.44133
G1 X151.51 Y155.55 E101.45912
G1 X151.04 Y155.36 E101.47707
G1 X150.62 Y155.09 E101.49494
G1 X150.23 Y154.77 E101.51287
G1 X149.91 Y154.38 E101.53080
G1 X149.64 Y153.96 E101.54867
G1 X149.45 Y153.49 E101.56662
G1 X149.33 Y153.00 E101.58441
G1 X149.29 Y152.50 E101.60237
G1 X149.33 Y152.00 E101.62032
G1 X149.45 Y151.51 E101.63811
G1 X149.64 Y151.04 E101.65606
G0 F6000 X149.97 Y151.09
G1 F600 X149.77 Y151.54 E101.67355
G1 X149.65 Y152.01 E101.69098
G1 X149.61 Y152.50 E101.70844
G1 X149.65 Y152.99 E101.72591
G1 X149.77 Y153.46 E101.74334
G1 X149.97 Y153.91 E101.76083
G1 X150.25 Y154.32 E101.77833
G1 X150.59 Y154.67 E101.79582
G1 X150.98 Y154.96 E101.81328
G1 X151.42 Y155.19 E101.83071
G1 X151.89 Y155.33 E101.84817
G1 X152.38 Y155.39 E101.86567
G1 X152.87 Y155.37 E101.88306
G1 X153.35 Y155.27 E101.90053
G1 X153.80 Y155.08 E101.91805
G1 X154.22 Y154.83 E101.93550
G1 X154.59 Y154.50 E101.95298
G1 X154.90 Y154.12 E101.97046
G1 X155.14 Y153.69 E101.98794
G1 X155.30 Y153.23 E102.00542
G1 X155.38 Y152.74 E102.02289
G1 X155.38 Y152.26 E102.04026
G1 X155.30 Y151.77 E102.05773
G1 X155.14 Y151.31 E102.07521
G1 X154.90 Y150.88 E102.09268
G1 X154.59 Y150.50 E102.11017
G1 X154.22 Y150.17 E102.12764
G1 X153.80 Y149.92 E102.14510
G1 X153.35 Y149.73 E102.16262
G1 X152.87 Y149.63 E102.18009
G1 X152.38 Y149.61 E102.19747
G1 X151.89 Y149.67 E102.21498
G1 X151.42 Y149.81 E102.23244
G1 X150.98 Y150.04 E102.24986
G1 X150.59 Y150.33 E102.26732
G1 X150.25 Y150.68 E102.28482
G1 X149.97 Y151.09 E102.30232
G0 F6000 X150.35 Y151.30
;TYPE:WALL-OUTER
G1 F600 X150.18 Y151.68 E102.31723
G1 X150.07 Y152.08 E102.33208
G1 X150.04 Y152.50 E102.34694
G1 X150.07 Y152.92 E102.36180
G1 X150.18 Y153.32 E102.37665
G1 X150.35 Y153.70 E102.39156
G1 X150.58 Y154.05 E102.40645
G1 X150.87 Y154.35 E102.42132
G1 X151.21 Y154.60 E102.43621
G1 X151.58 Y154.79 E102.45108
G1 X151.98 Y154.91 E102.46594
G1 X152.40 Y154.96 E102.48083
G1 X152.81 Y154.94 E102.49565
G1 X153.22 Y154.86 E102.51054
G1 X153.61 Y154.70 E102.52540
G1 X153.97 Y154.48 E102.54030
G1 X154.28 Y154.21 E102.55518
G1 X154.54 Y153.88 E102.57008
G1 X154.75 Y153.51 E102.58496
G1 X154.88 Y153.12 E102.59983
G1 X154.96 Y152.71 E102.61470
G1 X154.96 Y152.29 E102.62951
G1 X154.88 Y151.88 E102.64438
G1 X154.75 Y151.49 E102.65925
G1 X154.54 Y151.12 E102.67413
G1 X154.28 Y150.79 E102.68904
G1 X153.97 Y150.52 E102.70392
G1 X153.61 Y150.30 E102.71881
G1 X153.22 Y150.14 E102.73368
G1 X152.81 Y150.06 E102.74857
G1 X152.40 Y150.04 E102.76339
G1 X151.98 Y150.09 E102.77828
G1 X151.58 Y150.21 E102.79313
G1 X151.21 Y150.40 E102.80800
G1 X150.87 Y150.65 E102.82289
G1 X150.58 Y150.95 E102.83777
G1 X150.35 Y151.30 E102.85265
G0 F6000 X149.26 Y150.85
G1 F600 X149.56 Y150.37 E102.87270
G1 X149.93 Y149.93 E102.89313
G1 X150.37 Y149.56 E102.91355
G1 X150.85 Y149.26 E102.93360
G1 X151.38 Y149.04 E102.95412
G1 X151.93 Y148.91 E102.97436
G1 X152.50 Y148.87 E102.99461
G1 X153.07 Y148.91 E103.01485
G1 X153.62 Y149.04 E103.03509
G1 X154.15 Y149.26 E103.05561
G1 X154.63 Y149.56 E103.07566
G1 X155.07 Y149.93 E103.09608
G1 X155.44 Y150.37 E103.11651
G1 X155.74 Y150.85 E103.13656
G1 X155.96 Y151.38 E103.15708
G1 X156.09 Y151.93 E103.17732
G1 X156.14 Y152.50 E103.19757
G1 X156.09 Y153.07 E103.21781
G1 X155.96 Y153.62 E103.23805
G1 X155.74 Y154.15 E103.25857
G1 X155.44 Y154.63 E103.27862
G1 X155.07 Y155.07 E103.29905
G1 X154.63 Y155.44 E103.31947
G1 X154.15 Y155.74 E103.33952
G1 X153.62 Y155.96 E103.36004
G1 X153.07 Y156.09 E103.38029
G1 X152.50 Y156.14 E103.40053
G1 X151.93 Y156.09 E103.42077
G1 X151.38 Y155.96 E103.44102
G1 X150.85 Y155.74 E103.46154
G1 X150.37 Y155.44 E103.48159
G1 X149.93 Y155.07 E103.50201
G1 X149.56 Y154.63 E103.52244
G1 X149.26 Y154.15 E103.54249
G1 X149.04 Y153.62 E103.56301
G1 X148.91 Y153.07 E103.58325
G1 X148.87 Y152.50 E103.60349
G1 X148.91 Y151.93 E103.62373
G1 X149.04 Y151.38 E103.64397
G1 X149.26 Y150.85 E103.66450
G0 F6000 X149.99 Y148.79
;TYPE:SUPPORT
G1 F600 X149.99 Y143.55 E103.85109
G0 F6000 X150.06 Y143.70
G0 X152.85 Y143.70
G0 X152.85 Y143.54
G1 F600 X152.85 Y148.04 E104.01137
G0 F6000 X152.86 Y147.88
G0 X154.66 Y148.27
G0 X155.83 Y149.26
G0 X155.71 Y149.36
G1 F600 X155.71 Y143.72 E104.21234
G0 F6000 X155.67 Y143.87
G0 X158.45 Y145.60
G0 X158.56 Y145.48
G1 F600 X158.56 Y159.32 E104.70474
G0 F6000 X158.45 Y159.20
G0 X155.67 Y160.93
G0 X155.71 Y161.09
G1 F600 X155.71 Y155.64 E104.89866
G0 F6000 X155.83 Y155.74
G0 X153.97 Y157.02
G0 X152.86 Y157.12
G0 X152.85 Y156.96
G1 F600 X152.85 Y161.66 E105.06611
G0 F6000 X152.85 Y161.50
G0 X150.06 Y161.10
G0 X149.99 Y161.25
G1 F600 X149.99 Y156.21 E105.24540
G0 F6000 X149.91 Y156.35
G0 X147.21 Y159.68
G0 X147.13 Y159.82
G1 F600 X147.13 Y144.98 E105.77371
G0 F6000 X147.21 Y145.12
G0 X144.39 Y148.06
G0 X144.28 Y147.94
G1 F600 X144.28 Y156.86 E106.09105
G0 F6000 X144.39 Y156.74
G0 X153.24 Y157.19
G0 X155.29 Y156.34
G0 X161.31 Y154.75
G0 X161.42 Y154.86
G1 F600 X161.42 Y149.94 E106.26618
G0 F6000 X152.85 Y150.93
G1 F600 X152.85 Y154.07 E106.37775
;LAYER:7
G0 F6000 X153.35 Y155.27 Z1.70
;TYPE:WALL-INNER
G1 F600 X153.80 Y155.08 E106.39527
G1 X154.22 Y154.83 E106.41272
G1 X154.59 Y154.50 E106.43020
G1 X154.90 Y154.12 E106.44768
G1 X155.14 Y153.69 E106.46516
G1 X155.30 Y153.23 E106.48264
G1 X155.38 Y152.74 E106.50011
G1 X155.38 Y152.26 E106.51748
G1 X155.30 Y151.77 E106.53495
G1 X155.14 Y151.31 E106.55243
G1 X154.90 Y150.88 E106.56990
G1 X154.59 Y150.50 E106.58739
G1 X154.22 Y150.17 E106.60487
G1 X153.80 Y149.92 E106.62232
G1 X153.35 Y149.73 E106.63984
G1 X152.87 Y149.63 E106.65731
G1 X152.38 Y149.61 E106.67469
G1 X151.89 Y149.67 E106.69220
G1 X151.42 Y149.81 E106.70966
G1 X150.98 Y150.04 E106.72709
G1 X150.59 Y150.33 E106.74455
G1 X150.25 Y150.68 E106.76204
G1 X149.97 Y151.09 E106.77954
G1 X149.77 Y151.54 E106.79703
G1 X149.65 Y152.01 E106.81446
G1 X149.61 Y152.50 E106.83192
G1 X149.65 Y152.99 E106.84938
G1 X149.77 Y153.46 E106.86681
G1 X149.97 Y153.91 E106.88430
G1 X150.25 Y154.32 E106.90180
G1 X150.59 Y154.67 E106.91930
G1 X150.98 Y154.96 E106.93676
G1 X151.42 Y155.19 E106.95418
G1 X151.89 Y155.33 E106.97164
G1 X152.38 Y155.39 E106.98915
G1 X152.87 Y155.37 E107.00653
G1 X153.35 Y155.27 E107.02401
G0 F6000 X153.49 Y155.55
G1 F600 X153.00 Y155.67 E107.04180
G1 X152.50 Y155.71 E107.05975
G1 X152.00 Y155.67 E107.07771
G1 X151.51 Y155.55 E107.09550
G1 X151.04 Y155.36 E107.11345
G1 X150.62 Y155.09 E107.13133
G1 X150.23 Y154.77 E107.14926
G1 X149.91 Y154.38 E107.16718
G1 X149.64 Y153.96 E107.18506
G1 X149.45 Y153.49 E107.20301
G1 X149.33 Y153.00 E107.22080
G1 X149.29 Y152.50 E107.23875
G1 X149.33 Y152.00 E107.25671
G1 X149.45 Y151.51 E107.27450
G1 X149.64 Y151.04 E107.29245
G1 X149.91 Y150.62 E107.31033
G1 X150.23 Y150.23 E107.32825
G1 X150.62 Y149.91 E107.34618
G1 X151.04 Y149.64 E107.36406
G1 X151.51 Y149.45 E107.38201
G1 X152.00 Y149.33 E107.39980
G1 X152.50 Y149.29 E107.41775
G1 X153.00 Y149.33 E107.43571
G1 X153.49 Y149.45 E107.45350
G1 X153.96 Y149.64 E107.47145
G1 X154.38 Y149.91 E107.48933
G1 X154.77 Y150.23 E107.50725
G1 X155.09 Y150.62 E107.52518
G1 X155.36 Y151.04 E107.54306
G1 X155.55 Y151.51 E107.56101
G1 X155.67 Y152.00 E107.57880
G1 X155.71 Y152.50 E107.59675
G1 X155.67 Y153.00 E107.61471
G1 X155.55 Y153.49 E107.63250
G1 X155.36 Y153.96 E107.65045
G1 X155.09 Y154.38 E107.66833
G1 X154.77 Y154.77 E107.68626
G1 X154.38 Y155.09 E107.70418
G1 X153.96 Y155.36 E107.72206
G1 X153.49 Y155.55 E107.74001
G0 F6000 X153.62 Y155.96
;TYPE:WALL-OUTER
G1 F600 X153.07 Y156.09 E107.76025
G1 X152.50 Y156.14 E107.78050
G1 X151.93 Y156.09 E107.80074
G1 X151.38 Y155.96 E107.82098
G1 X150.85 Y155.74 E107.84150
G1 X150.37 Y155.44 E107.86155
G1 X149.93 Y155.07 E107.88198
G1 X149.56 Y154.63 E107.90240
G1 X149.26 Y154.15 E107.92245
G1 X149.04 Y153.62 E107.94297
G1 X148.91 Y153.07 E107.96322
G1 X148.87 Y152.50 E107.98346
G1 X148.91 Y151.93 E108.00370
G1 X149.04 Y151.38 E108.02394
G1 X149.26 Y150.85 E108.04446
G1 X149.56 Y150.37 E108.06451
G1 X149.93 Y149.93 E108.08494
G1 X150.37 Y149.56 E108.10536
G1 X150.85 Y149.26 E108.12541
G1 X151.38 Y149.04 E108.14593
G1 X151.93 Y148.91 E108.16617
G1 X152.50 Y148.87 E108.18642
G1 X153.07 Y148.91 E108.20666
G1 X153.62 Y149.04 E108.22690
G1 X154.15 Y149.26 E108.24742
G1 X154.63 Y149.56 E108.26747
G1 X155.07 Y149.93 E108.28789
G1 X155.44 Y150.37 E108.30832
G1 X155.74 Y150.85 E108.32837
G1 X155.96 Y151.38 E108.34889
G1 X156.09 Y151.93 E108.36913
G1 X156.14 Y152.50 E108.38938
G1 X156.09 Y153.07 E108.40962
G1 X155.96 Y153.62 E108.42986
G1 X155.74 Y154.15 E108.45038
G1 X155.44 Y154.63 E108.47043
G1 X155.07 Y155.07 E108.49086
G1 X154.63 Y155.44 E108.51128
G1 X154.15 Y155.74 E108.53133
G1 X153.62 Y155.96 E108.55185
G0 F6000 X153.22 Y154.86
G1 F600 X153.61 Y154.70 E108.56672
G1 X153.97 Y154.48 E108.58162
G1 X154.28 Y154.21 E108.59649
G1 X154.54 Y153.88 E108.61140
G1 X154.75 Y153.51 E108.62628
G1 X154.88 Y153.12 E108.64115
G1 X154.96 Y152.71 E108.65602
G1 X154.96 Y152.29 E108.67083
G1 X154.88 Y151.88 E108.68570
G1 X154.75 Y151.49 E108.70057
G1 X154.54 Y151.12 E108.71545
G1 X154.28 Y150.79 E108.73036
G1 X153.97 Y150.52 E108.74524
G1 X153.61 Y150.30 E108.76013
G1 X153.22 Y150.14 E108.77500
G1 X152.81 Y150.06 E108.78989
G1 X152.40 Y150.04 E108.80471
G1 X151.98 Y150.09 E108.81959
G1 X151.58 Y150.21 E108.83445
G1 X151.21 Y150.40 E108.84932
G1 X150.87 Y150.65 E108.86421
G1 X150.58 Y150.95 E108.87909
G1 X150.35 Y151.30 E108.89397
G1 X150.18 Y151.68 E108.90888
G1 X150.07 Y152.08 E108.92374
G1 X150.04 Y152.50 E108.93859
G1 X150.07 Y152.92 E108.95345
G1 X150.18 Y153.32 E108.96830
G1 X150.35 Y153.70 E108.98321
G1 X150.58 Y154.05 E108.99810
G1 X150.87 Y154.35 E109.01298
G1 X151.21 Y154.60 E109.02787
G1 X151.58 Y154.79 E109.04273
G1 X151.98 Y154.91 E109.05759
G1 X152.40 Y154.96 E109.07248
G1 X152.81 Y154.94 E109.08730
G1 X153.22 Y154.86 E109.10219
G0 F6000 X152.85 Y154.07
;TYPE:SUPPORT
G1 F600 X152.85 Y150.93 E109.21376
G0 F6000 X152.85 Y148.04
G1 F600 X152.85 Y143.54 E109.37405
G0 F6000 X152.85 Y143.70
G0 X150.06 Y143.70
G0 X149.99 Y143.55
G1 F600 X149.99 Y148.79 E109.56064
G0 F6000 X149.91 Y148.65
G0 X147.21 Y145.12
G0 X147.13 Y144.98
G1 F600 X147.13 Y159.82 E110.08894
G0 F6000 X147.21 Y159.68
G0 X150.06 Y161.10
G0 X149.99 Y161.25
G1 F600 X149.99 Y156.21 E110.26824
G0 F6000 X149.91 Y156.35
G0 X151.76 Y157.19
G0 X152.86 Y157.12
G0 X152.85 Y156.96
G1 F600 X152.85 Y161.66 E110.43568
G0 F6000 X152.85 Y161.50
G0 X155.67 Y160.93
G0 X155.71 Y161.09
G1 F600 X155.71 Y155.64 E110.62960
G0 F6000 X155.83 Y155.74
G0 X158.45 Y159.20
G0 X158.56 Y159.32
G1 F600 X158.56 Y145.48 E111.12200
G0 F6000 X158.45 Y145.60
G0 X155.67 Y143.87
G0 X155.71 Y143.72
G1 F600 X155.71 Y149.36 E111.32297
G0 F6000 X155.83 Y149.26
G0 X161.31 Y150.06
G0 X161.42 Y149.94
G1 F600 X161.42 Y154.86 E111.49810
G0 F6000 X161.31 Y154.75
G0 X152.50 Y157.25
G0 X150.34 Y156.73
G0 X144.39 Y156.74
G0 X144.28 Y156.86
G1 F600 X144.28 Y147.94 E111.81544
;LAYER:8
G0 F6000 X149.64 Y151.04 Z1.90
;TYPE:WALL-INNER
G1 F600 X149.91 Y150.62 E111.83332
G1 X150.23 Y150.23 E111.85125
G1 X150.62 Y149.91 E111.86917
G1 X151.04 Y149.64 E111.88705
G1 X151.51 Y149.45 E111.90500
G1 X152.00 Y149.33 E111.92279
G1 X152.50 Y149.29 E111.94075
G1 X153.00 Y149.33 E111.95870
G1 X153.49 Y149.45 E111.97649
G1 X153.96 Y149.64 E111.99444
G1 X154.38 Y149.91 E112.01232
G1 X154.77 Y150.23 E112.03024
G1 X155.09 Y150.62 E112.04817
G1 X155.36 Y151.04 E112.06605
G1 X155.55 Y151.51 E112.08400
G1 X155.67 Y152.00 E112.10179
G1 X155.71 Y152.50 E112.11975
G1 X155.67 Y153.00 E112.13770
G1 X155.55 Y153.49 E112.15549
G1 X155.36 Y153.96 E112.17344
G1 X155.09 Y154.38 E112.19132
G1 X154.77 Y154.77 E112.20925
G1 X154.38 Y155.09 E112.22718
G1 X153.96 Y155.36 E112.24505
G1 X153.49 Y155.55 E112.26300
G1 X153.00 Y155.67 E112.28079
G1 X152.50 Y155.71 E112.29875
G1 X152.00 Y155.67 E112.31671
G1 X151.51 Y155.55 E112.33450
G1 X151.04 Y155.36 E112.35245
G1 X150.62 Y155.09 E112.37033
G1 X150.23 Y154.77 E112.38825
G1 X149.91 Y154.38 E112.40618
G1 X149.64 Y153.96 E112.42406
G1 X149.45 Y153.49 E112.44201
G1 X149.33 Y153.00 E112.45980
G1 X149.29 Y152.50 E112.47775
G1 X149.33 Y152.00 E112.49571
G1 X149.45 Y151.51 E112.51350
G1 X149.64 Y151.04 E112.53145
G0 F6000 X149.97 Y151.09
G1 F600 X149.77 Y151.54 E112.54894
G1 X149.65 Y152.01 E112.56636
G1 X149.61 Y152.50 E112.58383
G1 X149.65 Y152.99 E112.60129
G1 X149.77 Y153.46 E112.61872
G1 X149.97 Y153.91 E112.63621
G1 X150.25 Y154.32 E112.65371
G1 X150.59 Y154.67 E112.67120
G1 X150.98 Y154.96 E112.68866
G1 X151.42 Y155.19 E112.70609
G1 X151.89 Y155.33 E112.72355
G1 X152.38 Y155.39 E112.74106
G1 X152.87 Y155.37 E112.75844
G1 X153.35 Y155.27 E112.77591
G1 X153.80 Y155.08 E112.79343
G1 X154.22 Y154.83 E112.81088
G1 X154.59 Y154.50 E112.82836
G1 X154.90 Y154.12 E112.84584
G1 X155.14 Y153.69 E112.86332
G1 X155.30 Y153.23 E112.88080
G1 X155.38 Y152.74 E112.89827
G1 X155.38 Y152.26 E112.91564
G1 X155.30 Y151.77 E112.93311
G1 X155.14 Y151.31 E112.95059
G1 X154.90 Y150.88 E112.96807
G1 X154.59 Y150.50 E112.98555
G1 X154.22 Y150.17 E113.00303
G1 X153.80 Y149.92 E113.02048
G1 X153.35 Y149.73 E113.03800
G1 X152.87 Y149.63 E113.05547
G1 X152.38 Y149.61 E113.07285
G1 X151.89 Y149.67 E113.09036
G1 X151.42 Y149.81 E113.10782
G1 X150.98 Y150.04 E113.12525
G1 X150.59 Y150.33 E113.14271
G1 X150.25 Y150.68 E113.16020
G1 X149.97 Y151.09 E113.17770
G0 F6000 X150.35 Y151.30
;TYPE:WALL-OUTER
G1 F600 X150.18 Y151.68 E113.19261
G1 X150.07 Y152.08 E113.20747
G1 X150.04 Y152.50 E113.22232
G1 X150.07 Y152.92 E113.23718
G1 X150.18 Y153.32 E113.25204
G1 X150.35 Y153.70 E113.26694
G1 X150.58 Y154.05 E113.28183
G1 X150.87 Y154.35 E113.29671
G1 X151.21 Y154.60 E113.31160
G1 X151.58 Y154.79 E113.32646
G1 X151.98 Y154.91 E113.34132
G1 X152.40 Y154.96 E113.35621
G1 X152.81 Y154.94 E113.37103
G1 X153.22 Y154.86 E113.38592
G1 X153.61 Y154.70 E113.40079
G1 X153.97 Y154.48 E113.41568
G1 X154.28 Y154.21 E113.43056
G1 X154.54 Y153.88 E113.44547
G1 X154.75 Y153.51 E113.46035
G1 X154.88 Y153.12 E113.47521
G1 X154.96 Y152.71 E113.49009
G1 X154.96 Y152.29 E113.50489
G1 X154.88 Y151.88 E113.51976
G1 X154.75 Y151.49 E113.53463
G1 X154.54 Y151.12 E113.54951
G1 X154.28 Y150.79 E113.56442
G1 X153.97 Y150.52 E113.57930
G1 X153.61 Y150.30 E113.59419
G1 X153.22 Y150.14 E113.60906
G1 X152.81 Y150.06 E113.62395
G1 X152.40 Y150.04 E113.63877
G1 X151.98 Y150.09 E113.65366
G1 X151.58 Y150.21 E113.66852
G1 X151.21 Y150.40 E113.68338
G1 X150.87 Y150.65 E113.69827
G1 X150.58 Y150.95 E113.71315
G1 X150.35 Y151.30 E113.72803
G0 F6000 X149.26 Y150.85
G1 F600 X149.56 Y150.37 E113.74809
G1 X149.93 Y149.93 E113.76851
G1 X150.37 Y149.56 E113.78893
G1 X150.85 Y149.26 E113.80898
G1 X151.38 Y149.04 E113.82950
G1 X151.93 Y148.91 E113.84975
G1 X152.50 Y148.87 E113.86999
G1 X153.07 Y148.91 E113.89023
G1 X153.62 Y149.04 E113.91047
G1 X154.15 Y149.26 E113.93099
G1 X154.63 Y149.56 E113.95104
G1 X155.07 Y149.93 E113.97147
G1 X155.44 Y150.37 E113.99189
G1 X155.74 Y150.85 E114.01194
G1 X155.96 Y151.38 E114.03246
G1 X156.09 Y151.93 E114.05270
G1 X156.14 Y152.50 E114.07295
G1 X156.09 Y153.07 E114.09319
G1 X155.96 Y153.62 E114.11344
G1 X155.74 Y154.15 E114.13396
G1 X155.44 Y154.63 E114.15401
G1 X155.07 Y155.07 E114.17443
G1 X154.63 Y155.44 E114.19485
G1 X154.15 Y155.74 E114.21491
G1 X153.62 Y155.96 E114.23543
G1 X153.07 Y156.09 E114.25567
G1 X152.50 Y156.14 E114.27591
G1 X151.93 Y156.09 E114.29616
G1 X151.38 Y155.96 E114.31640
G1 X150.85 Y155.74 E114.33692
G1 X150.37 Y155.44 E114.35697
G1 X149.93 Y155.07 E114.37739
G1 X149.56 Y154.63 E114.39782
G1 X149.26 Y154.15 E114.41787
G1 X149.04 Y153.62 E114.43839
G1 X148.91 Y153.07 E114.45863
G1 X148.87 Y152.50 E114.47887
G1 X148.91 Y151.93 E114.49912
G1 X149.04 Y151.38 E114.51936
G1 X149.26 Y150.85 E114.53988
G0 F6000 X149.99 Y148.79
;TYPE:SUPPORT
G1 F600 X149.99 Y143.55 E114.72647
G0 F6000 X150.06 Y143.70
G0 X152.85 Y143.70
G0 X152.85 Y143.54
G1 F600 X152.85 Y148.04 E114.88676
G0 F6000 X152.86 Y147.88
G0 X154.66 Y148.27
G0 X155.83 Y149.26
G0 X155.71 Y149.36
G1 F600 X155.71 Y143.72 E115.08772
G0 F6000 X155.67 Y143.87
G0 X158.45 Y145.60
G0 X158.56 Y145.48
G1 F600 X158.56 Y159.32 E115.58013
G0 F6000 X158.45 Y159.20
G0 X155.67 Y160.93
G0 X155.71 Y161.09
G1 F600 X155.71 Y155.64 E115.77405
G0 F6000 X155.83 Y155.74
G0 X153.97 Y157.02
G0 X152.86 Y157.12
G0 X152.85 Y156.96
G1 F600 X152.85 Y161.66 E115.94149
G0 F6000 X152.85 Y161.50
G0 X150.06 Y161.10
G0 X149.99 Y161.25
G1 F600 X149.99 Y156.21 E116.12078
G0 F6000 X149.91 Y156.35
G0 X147.21 Y159.68
G0 X147.13 Y159.82
G1 F600 X147.13 Y144.98 E116.64909
G0 F6000 X147.21 Y145.12
G0 X144.39 Y148.06
G0 X144.28 Y147.94
G1 F600 X144.28 Y156.86 E116.96643
G0 F6000 X144.39 Y156.74
G0 X153.24 Y157.19
G0 X155.29 Y156.34
G0 X161.31 Y154.75
G0 X161.42 Y154.86
G1 F600 X161.42 Y149.94 E117.14156
G0 F6000 X152.85 Y150.93
G1 F600 X152.85 Y154.07 E117.25313
;LAYER:9
G0 F6000 X153.35 Y155.27 Z2.10
;TYPE:WALL-INNER
G1 F600 X153.80 Y155.08 E117.27065
G1 X154.22 Y154.83 E117.28810
G1 X154.59 Y154.50 E117.30558
G1 X154.90 Y154.12 E117.32307
G1 X155.14 Y153.69 E117.34054
G1 X155.30 Y153.23 E117.35802
G1 X155.38 Y152.74 E117.37549
G1 X155.38 Y152.26 E117.39286
G1 X155.30 Y151.77 E117.41033
G1 X155.14 Y151.31 E117.42781
G1 X154.90 Y150.88 E117.44529
G1 X154.59 Y150.50 E117.46277
G1 X154.22 Y150.17 E117.48025
G1 X153.80 Y149.92 E117.49770
G1 X153.35 Y149.73 E117.51522
G1 X152.87 Y149.63 E117.53269
G1 X152.38 Y149.61 E117.55007
G1 X151.89 Y149.67 E117.56758
G1 X151.42 Y149.81 E117.58504
G1 X150.98 Y150.04 E117.60247
G1 X150.59 Y150.33 E117.61993
G1 X150.25 Y150.68 E117.63742
G1 X149.97 Y151.09 E117.65492
G1 X149.77 Y151.54 E117.67241
G1 X149.65 Y152.01 E117.68984
G1 X149.61 Y152.50 E117.70730
G1 X149.65 Y152.99 E117.72477
G1 X149.77 Y153.46 E117.74220
G1 X149.97 Y153.91 E117.75968
G1 X150.25 Y154.32 E117.77719
G1 X150.59 Y154.67 E117.79468
G1 X150.98 Y154.96 E117.81214
G1 X151.42 Y155.19 E117.82957
G1 X151.89 Y155.33 E117.84703
G1 X152.38 Y155.39 E117.86453
G1 X152.87 Y155.37 E117.88192
G1 X153.35 Y155.27 E117.89939
G0 F6000 X153.49 Y155.55
G1 F600 X153.00 Y155.67 E117.91718
G1 X152.50 Y155.71 E117.93514
G1 X152.00 Y155.67 E117.95309
G1 X151.51 Y155.55 E117.97088
G1 X151.04 Y155.36 E117.98883
G1 X150.62 Y155.09 E118.00671
G1 X150.23 Y154.77 E118.02464
G1 X149.91 Y154.38 E118.04256
G1 X149.64 Y153.96 E118.06044
G1 X149.45 Y153.49 E118.07839
G1 X149.33 Y153.00 E118.09618
G1 X149.29 Y152.50 E118.11414
G1 X149.33 Y152.00 E118.13209
G1 X149.45 Y151.51 E118.14988
G1 X149.64 Y151.04 E118.16783
G1 X149.91 Y150.62 E118.18571
G1 X150.23 Y150.23 E118.20364
G1 X150.62 Y149.91 E118.22156
G1 X151.04 Y149.64 E118.23944
G1 X151.51 Y149.45 E118.25739
G1 X152.00 Y149.33 E118.27518
G1 X152.50 Y149.29 E118.29314
G1 X153.00 Y149.33 E118.31109
G1 X153.49 Y149.45 E118.32888
G1 X153.96 Y149.64 E118.34683
G1 X154.38 Y149.91 E118.36471
G1 X154.77 Y150.23 E118.38263
G1 X155.09 Y150.62 E118.40056
G1 X155.36 Y151.04 E118.41844
G1 X155.55 Y151.51 E118.43639
G1 X155.67 Y152.00 E118.45418
G1 X155.71 Y152.50 E118.47214
G1 X155.67 Y153.00 E118.49009
G1 X155.55 Y153.49 E118.50788
G1 X155.36 Y153.96 E118.52583
G1 X155.09 Y154.38 E118.54371
G1 X154.77 Y154.77 E118.56164
G1 X154.38 Y155.09 E118.57956
G1 X153.96 Y155.36 E118.59744
G1 X153.49 Y155.55 E118.61539
G0 F6000 X153.62 Y155.96
;TYPE:WALL-OUTER
G1 F600 X153.07 Y156.09 E118.63563
G1 X152.50 Y156.14 E118.65588
G1 X151.93 Y156.09 E118.67612
G1 X151.38 Y155.96 E118.69637
G1 X150.85 Y155.74 E118.71689
G1 X150.37 Y155.44 E118.73694
G1 X149.93 Y155.07 E118.75736
G1 X149.56 Y154.63 E118.77779
G1 X149.26 Y154.15 E118.79784
G1 X149.04 Y153.62 E118.81836
G1 X148.91 Y153.07 E118.83860
G1 X148.87 Y152.50 E118.85884
G1 X148.91 Y151.93 E118.87908
G1 X149.04 Y151.38 E118.89932
G1 X149.26 Y150.85 E118.91984
G1 X149.56 Y150.37 E118.93990
G1 X149.93 Y149.93 E118.96032
G1 X150.37 Y149.56 E118.98074
G1 X150.85 Y149.26 E119.00079
G1 X151.38 Y149.04 E119.02131
G1 X151.93 Y148.91 E119.04156
G1 X152.50 Y148.87 E119.06180
G1 X153.07 Y148.91 E119.08204
G1 X153.62 Y149.04 E119.10228
G1 X154.15 Y149.26 E119.12280
G1 X154.63 Y149.56 E119.14285
G1 X155.07 Y149.93 E119.16328
G1 X155.44 Y150.37 E119.18370
G1 X155.74 Y150.85 E119.20375
G1 X155.96 Y151.38 E119.22427
G1 X156.09 Y151.93 E119.24451
G1 X156.14 Y152.50 E119.26476
G1 X156.09 Y153.07 E119.28500
G1 X155.96 Y153.62 E119.30525
G1 X155.74 Y154.15 E119.32577
G1 X155.44 Y154.63 E119.34582
G1 X155.07 Y155.07 E119.36624
G1 X154.63 Y155.44 E119.38666
G1 X154.15 Y155.74 E119.40672
G1 X153.62 Y155.96 E119.42724
G0 F6000 X153.22 Y154.86
G1 F600 X153.61 Y154.70 E119.44211
G1 X153.97 Y154.48 E119.45700
G1 X154.28 Y154.21 E119.47188
G1 X154.54 Y153.88 E119.48678
G1 X154.75 Y153.51 E119.50166
G1 X154.88 Y153.12 E119.51653
G1 X154.96 Y152.71 E119.53141
G1 X154.96 Y152.29 E119.54621
G1 X154.88 Y151.88 E119.56108
G1 X154.75 Y151.49 E119.57595
G1 X154.54 Y151.12 E119.59083
G1 X154.28 Y150.79 E119.60574
G1 X153.97 Y150.52 E119.62062
G1 X153.61 Y150.30 E119.63551
G1 X153.22 Y150.14 E119.65038
G1 X152.81 Y150.06 E119.66527
G1 X152.40 Y150.04 E119.68009
G1 X151.98 Y150.09 E119.69498
G1 X151.58 Y150.21 E119.70984
G1 X151.21 Y150.40 E119.72470
G1 X150.87 Y150.65 E119.73959
G1 X150.58 Y150.95 E119.75447
G1 X150.35 Y151.30 E119.76935
G1 X150.18 Y151.68 E119.78426
G1 X150.07 Y152.08 E119.79912
G1 X150.04 Y152.50 E119.81397
G1 X150.07 Y152.92 E119.82883
G1 X150.18 Y153.32 E119.84369
G1 X150.35 Y153.70 E119.85860
G1 X150.58 Y154.05 E119.87348
G1 X150.87 Y154.35 E119.88836
G1 X151.21 Y154.60 E119.90325
G1 X151.58 Y154.79 E119.91811
G1 X151.98 Y154.91 E119.93297
G1 X152.40 Y154.96 E119.94786
G1 X152.81 Y154.94 E119.96268
G1 X153.22 Y154.86 E119.97757
G0 F6000 X152.85 Y154.07
;TYPE:SUPPORT
G1 F600 X152.85 Y150.93 E120.08914
G0 F6000 X152.85 Y148.04
G1 F600 X152.85 Y143.54 E120.24943
G0 F6000 X152.85 Y143.70
G0 X150.06 Y143.70
G0 X149.99 Y143.55
G1 F600 X149.99 Y148.79 E120.43602
G0 F6000 X149.91 Y148.65
G0 X147.21 Y145.12
G0 X147.13 Y144.98
G1 F600 X147.13 Y159.82 E120.96433
G0 F6000 X147.21 Y159.68
G0 X150.06 Y161.10
G0 X149.99 Y161.25
G1 F600 X149.99 Y156.21 E121.14362
G0 F6000 X149.91 Y156.35
G0 X151.76 Y157.19
G0 X152.86 Y157.12
G0 X152.85 Y156.96
G1 F600 X152.85 Y161.66 E121.31106
G0 F6000 X152.85 Y161.50
G0 X155.67 Y160.93
G0 X155.71 Y161.09
G1 F600 X155.71 Y155.64 E121.50499
G0 F6000 X155.83 Y155.74
G0 X158.45 Y159.20
G0 X158.56 Y159.32
G1 F600 X158.56 Y145.48 E121.99739
G0 F6000 X158.45 Y145.60
G0 X155.67 Y143.87
G0 X155.71 Y143.72
G1 F600 X155.71 Y149.36 E122.19835
G0 F6000 X155.83 Y149.26
G0 X161.31 Y150.06
G0 X161.42 Y149.94
G1 F600 X161.42 Y154.86 E122.37348
G0 F6000 X161.31 Y154.75
G0 X152.50 Y157.25
G0 X150.34 Y156.73
G0 X144.39 Y156.74
G0 X144.28 Y156.86
G1 F600 X144.28 Y147.94 E122.69082
;LAYER:10
G0 F6000 X149.64 Y151.04 Z2.30
;TYPE:WALL-INNER
G1 F600 X149.91 Y150.62 E122.70870
G1 X150.23 Y150.23 E122.72663
G1 X150.62 Y149.91 E122.74456
G1 X151.04 Y149.64 E122.76243
G1 X151.51 Y149.45 E122.78038
G1 X152.00 Y149.33 E122.79817
G1 X152.50 Y149.29 E122.81613
G1 X153.00 Y149.33 E122.83408
G1 X153.49 Y149.45 E122.85187
G1 X153.96 Y149.64 E122.86982
G1 X154.38 Y149.91 E122.88770
G1 X154.77 Y150.23 E122.90563
G1 X155.09 Y150.62 E122.92355
G1 X155.36 Y151.04 E122.94143
G1 X155.55 Y151.51 E122.95938
G1 X155.67 Y152.00 E122.97717
G1 X155.71 Y152.50 E122.99513
G1 X155.67 Y153.00 E123.01309
G1 X155.55 Y153.49 E123.03088
G1 X155.36 Y153.96 E123.04883
G1 X155.09 Y154.38 E123.06670
G1 X154.77 Y154.77 E123.08463
G1 X154.38 Y155.09 E123.10256
G1 X153.96 Y155.36 E123.12044
G1 X153.49 Y155.55 E123.13839
G1 X153.00 Y155.67 E123.15618
G1 X152.50 Y155.71 E123.17413
G1 X152.00 Y155.67 E123.19209
G1 X151.51 Y155.55 E123.20988
G1 X151.04 Y155.36 E123.22783
G1 X150.62 Y155.09 E123.24571
G1 X150.23 Y154.77 E123.26364
G1 X149.91 Y154.38 E123.28156
G1 X149.64 Y153.96 E123.29944
G1 X149.45 Y153.49 E123.31739
G1 X149.33 Y153.00 E123.33518
G1 X149.29 Y152.50 E123.35313
G1 X149.33 Y152.00 E123.37109
G1 X149.45 Y151.51 E123.38888
G1 X149.64 Y151.04 E123.40683
G0 F6000 X149.97 Y151.09
G1 F600 X149.77 Y151.54 E123.42432
G1 X149.65 Y152.01 E123.44175
G1 X149.61 Y152.50 E123.45921
G1 X149.65 Y152.99 E123.47667
G1 X149.77 Y153.46 E123.49410
G1 X149.97 Y153.91 E123.51159
G1 X150.25 Y154.32 E123.52909
G1 X150.59 Y154.67 E123.54659
G1 X150.98 Y154.96 E123.56405
G1 X151.42 Y155.19 E123.58147
G1 X151.89 Y155.33 E123.59893
G1 X152.38 Y155.39 E123.61644
G1 X152.87 Y155.37 E123.63382
G1 X153.35 Y155.27 E123.65129
G1 X153.80 Y155.08 E123.66881
G1 X154.22 Y154.83 E123.68626
G1 X154.59 Y154.50 E123.70374
G1 X154.90 Y154.12 E123.72123
G1 X155.14 Y153.69 E123.73870
G1 X155.30 Y153.23 E123.75618
G1 X155.38 Y152.74 E123.77365
G1 X155.38 Y152.26 E123.79102
G1 X155.30 Y151.77 E123.80849
G1 X155.14 Y151.31 E123.82597
G1 X154.90 Y150.88 E123.84345
G1 X154.59 Y150.50 E123.86093
G1 X154.22 Y150.17 E123.87841
G1 X153.80 Y149.92 E123.89586
G1 X153.35 Y149.73 E123.91338
G1 X152.87 Y149.63 E123.93085
G1 X152.38 Y149.61 E123.94824
G1 X151.89 Y149.67 E123.96574
G1 X151.42 Y149.81 E123.98320
G1 X150.98 Y150.04 E124.00063
G1 X150.59 Y150.33 E124.01809
G1 X150.25 Y150.68 E124.03558
G1 X149.97 Y151.09 E124.05308
G0 F6000 X150.35 Y151.30
;TYPE:WALL-OUTER
G1 F600 X150.18 Y151.68 E124.06799
G1 X150.07 Y152.08 E124.08285
G1 X150.04 Y152.50 E124.09771
G1 X150.07 Y152.92 E124.11256
G1 X150.18 Y153.32 E124.12742
G1 X150.35 Y153.70 E124.14233
G1 X150.58 Y154.05 E124.15721
G1 X150.87 Y154.35 E124.17209
G1 X151.21 Y154.60 E124.18698
G1 X151.58 Y154.79 E124.20184
G1 X151.98 Y154.91 E124.21670
G1 X152.40 Y154.96 E124.23159
G1 X152.81 Y154.94 E124.24641
G1 X153.22 Y154.86 E124.26130
G1 X153.61 Y154.70 E124.27617
G1 X153.97 Y154.48 E124.29106
G1 X154.28 Y154.21 E124.30594
G1 X154.54 Y153.88 E124.32085
G1 X154.75 Y153.51 E124.33573
G1 X154.88 Y153.12 E124.35060
G1 X154.96 Y152.71 E124.36547
G1 X154.96 Y152.29 E124.38027
G1 X154.88 Y151.88 E124.39515
G1 X154.75 Y151.49 E124.41002
G1 X154.54 Y151.12 E124.42490
G1 X154.28 Y150.79 E124.43980
G1 X153.97 Y150.52 E124.45468
G1 X153.61 Y150.30 E124.46957
G1 X153.22 Y150.14 E124.48444
G1 X152.81 Y150.06 E124.49933
G1 X152.40 Y150.04 E124.51415
G1 X151.98 Y150.09 E124.52904
G1 X151.58 Y150.21 E124.54390
G1 X151.21 Y150.40 E124.55877
G1 X150.87 Y150.65 E124.57366
G1 X150.58 Y150.95 E124.58853
G1 X150.35 Y151.30 E124.60342
G0 F6000 X149.26 Y150.85
G1 F600 X149.56 Y150.37 E124.62347
G1 X149.93 Y149.93 E124.64389
G1 X150.37 Y149.56 E124.66432
G1 X150.85 Y149.26 E124.68437
G1 X151.38 Y149.04 E124.70489
G1 X151.93 Y148.91 E124.72513
G1 X152.50 Y148.87 E124.74537
G1 X153.07 Y148.91 E124.76561
G1 X153.62 Y149.04 E124.78585
G1 X154.15 Y149.26 E124.80638
G1 X154.63 Y149.56 E124.82643
G1 X155.07 Y149.93 E124.84685
G1 X155.44 Y150.37 E124.86727
G1 X155.74 Y150.85 E124.88732
G1 X155.96 Y151.38 E124.90785
G1 X156.09 Y151.93 E124.92809
G1 X156.14 Y152.50 E124.94833
G1 X156.09 Y153.07 E124.96858
G1 X155.96 Y153.62 E124.98882
G1 X155.74 Y154.15 E125.00934
G1 X155.44 Y154.63 E125.02939
G1 X155.07 Y155.07 E125.04981
G1 X154.63 Y155.44 E125.07024
G1 X154.15 Y155.74 E125.09029
G1 X153.62 Y155.96 E125.11081
G1 X153.07 Y156.09 E125.13105
G1 X152.50 Y156.14 E125.15130
G1 X151.93 Y156.09 E125.17154
G1 X151.38 Y155.96 E125.19178
G1 X150.85 Y155.74 E125.21230
G1 X150.37 Y155.44 E125.23235
G1 X149.93 Y155.07 E125.25278
G1 X149.56 Y154.63 E125.27320
G1 X149.26 Y154.15 E125.29325
G1 X149.04 Y153.62 E125.31377
G1 X148.91 Y153.07 E125.33401
G1 X148.87 Y152.50 E125.35426
G1 X148.91 Y151.93 E125.37450
G1 X149.04 Y151.38 E125.39474
G1 X149.26 Y150.85 E125.41526
G0 F6000 X149.99 Y148.79
;TYPE:SUPPORT
G1 F600 X149.99 Y143.55 E125.60185
G0 F6000 X150.06 Y143.70
G0 X152.85 Y143.70
G0 X152.85 Y143.54
G1 F600 X152.85 Y148.04 E125.76214
G0 F6000 X152.86 Y147.88
G0 X154.66 Y148.27
G0 X155.83 Y149.26
G0 X155.71 Y149.36
G1 F600 X155.71 Y143.72 E125.96311
G0 F6000 X155.67 Y143.87
G0 X158.45 Y145.60
G0 X158.56 Y145.48
G1 F600 X158.56 Y159.32 E126.45551
G0 F6000 X158.45 Y159.20
G0 X155.67 Y160.93
G0 X155.71 Y161.09
G1 F600 X155.71 Y155.64 E126.64943
G0 F6000 X155.83 Y155.74
G0 X153.97 Y157.02
G0 X152.86 Y157.12
G0 X152.85 Y156.96
G1 F600 X152.85 Y161.66 E126.81687
G0 F6000 X152.85 Y161.50
G0 X150.06 Y161.10
G0 X149.99 Y161.25
G1 F600 X149.99 Y156.21 E126.99617
G0 F6000 X149.91 Y156.35
G0 X147.21 Y159.68
G0 X147.13 Y159.82
G1 F600 X147.13 Y144.98 E127.52448
G0 F6000 X147.21 Y145.12
G0 X144.39 Y148.06
G0 X144.28 Y147.94
G1 F600 X144.28 Y156.86 E127.84182
G0 F6000 X144.39 Y156.74
G0 X153.24 Y157.19
G0 X155.29 Y156.34
G0 X161.31 Y154.75
G0 X161.42 Y154.86
G1 F600 X161.42 Y149.94 E128.01695
G0 F6000 X152.85 Y150.93
G1 F600 X152.85 Y154.07 E128.12852
;LAYER:11
G0 F6000 X153.35 Y155.27 Z2.50
;TYPE:WALL-INNER
G1 F600 X153.80 Y155.08 E128.14604
G1 X154.22 Y154.83 E128.16349
G1 X154.59 Y154.50 E128.18096
G1 X154.90 Y154.12 E128.19845
G1 X155.14 Y153.69 E128.21592
G1 X155.30 Y153.23 E128.23341
G1 X155.38 Y152.74 E128.25088
G1 X155.38 Y152.26 E128.26824
G1 X155.30 Y151.77 E128.28571
G1 X155.14 Y151.31 E128.30319
G1 X154.90 Y150.88 E128.32067
G1 X154.59 Y150.50 E128.33816
G1 X154.22 Y150.17 E128.35563
G1 X153.80 Y149.92 E128.37308
G1 X153.35 Y149.73 E128.39060
G1 X152.87 Y149.63 E128.40807
G1 X152.38 Y149.61 E128.42546
G1 X151.89 Y149.67 E128.44296
G1 X151.42 Y149.81 E128.46042
G1 X150.98 Y150.04 E128.47785
G1 X150.59 Y150.33 E128.49531
G1 X150.25 Y150.68 E128.51281
G1 X149.97 Y151.09 E128.53031
G1 X149.77 Y151.54 E128.54780
G1 X149.65 Y152.01 E128.56522
G1 X149.61 Y152.50 E128.58269
G1 X149.65 Y152.99 E128.60015
G1 X149.77 Y153.46 E128.61758
G1 X149.97 Y153.91 E128.63507
G1 X150.25 Y154.32 E128.65257
G1 X150.59 Y154.67 E128.67006
G1 X150.98 Y154.96 E128.68752
G1 X151.42 Y155.19 E128.70495
