;-- START GCODE --
;Sliced for Type A Machines Series 1
;Sliced at: Sat 03-12-2016 19:50:06
;Basic settings: Layer height: 0.2 Walls: 3 Fill: 20
;Print Speed: 100 Support: 0
;Retraction Speed: 40 Retraction Distance: 1.2
;Print time: #P_TIME#
;Filament used: #F_AMNT#m #F_WGHT#g
;Filament cost: #F_COST#
M106 S255	 ;start with the fan on
G21        ;metric values
G90        ;absolute positioning
M106 S255    ;start with the fan on
G28     ;move to endstops
G29		;allows for auto-levelling
G1 X150 Y5  Z15.0 F6000 ;center and move the platform down 15mm
M109 S220 ;Heat To temp
G92 E0                  ;zero the extruded length
G1 F200 E30              ;extrude 30mm of feed stock
G92 E0                  ;zero the extruded length again
G1 X175 Y25  Z0 F6000 ;remove bugger
G1 X220 F6000 ;remove bugger
G1 X150 Y150  Z15 F6000 ;recenter and begin
G1 F6000

;Layer count: 49
;LAYER:0
M106 S255
G0 F6000 X142.71 Y140.44 Z0.30
;TYPE:SKIRT
G1 F2700 X143.11 Y140.24 E0.02387
G1 X143.51 Y139.84 E0.05407
G1 X143.91 Y139.64 E0.07794
G1 X144.31 Y139.24 E0.10814
G1 X146.94 Y137.92 E0.26511
G1 X149.52 Y137.41 E0.40541
G1 X157.13 Y137.41 E0.81186
G1 X160.79 Y139.24 E1.03037
G1 X161.19 Y139.64 E1.06057
G1 X161.59 Y139.84 E1.08445
G1 X165.36 Y143.61 E1.36902
G1 X167.61 Y143.61 E1.48887
G1 X167.61 Y148.45 E1.74750
G1 X167.81 Y148.65 E1.76260
G1 X167.81 Y156.17 E2.16415
G1 X167.61 Y156.37 E2.17924
G1 X167.61 Y161.22 E2.43788
G1 X165.36 Y161.22 E2.55773
G1 X161.59 Y164.99 E2.84230
G1 X157.75 Y166.91 E3.07151
G1 X155.62 Y167.62 E3.19132
G1 X150.15 Y167.62 E3.48353
G1 X147.79 Y167.03 E3.61324
G1 X147.16 Y166.71 E3.65119
G1 X146.55 Y166.51 E3.68524
G1 X143.51 Y164.99 E3.86675
G1 X143.11 Y164.59 E3.89695
G1 X142.71 Y164.39 E3.92082
G1 X138.69 Y160.37 E4.22390
G1 X138.69 Y160.17 E4.23457
G1 X138.49 Y159.97 E4.24967
G1 X138.49 Y159.77 E4.26035
G1 X138.29 Y159.57 E4.27545
G1 X138.29 Y159.37 E4.28612
G1 X137.69 Y158.77 E4.33142
G1 X137.69 Y158.17 E4.36345
G1 X137.49 Y157.97 E4.37855
G1 X137.49 Y157.57 E4.39990
G1 X137.29 Y157.37 E4.41500
G1 X137.29 Y147.45 E4.94466
G1 X137.49 Y147.25 E4.95976
G1 X137.49 Y146.85 E4.98111
G1 X137.69 Y146.65 E4.99621
G1 X137.69 Y146.05 E5.02824
G1 X138.29 Y145.45 E5.07354
G1 X138.29 Y145.25 E5.08421
G1 X138.49 Y145.05 E5.09931
G1 X138.49 Y144.85 E5.10999
G1 X138.69 Y144.65 E5.12509
G1 X138.69 Y144.45 E5.13577
G1 X142.71 Y140.44 E5.43884
G0 F6000 X142.96 Y140.79
G1 F2700 X143.36 Y140.59 E5.46271
G1 X143.76 Y140.19 E5.49291
G1 X144.16 Y139.99 E5.51678
G1 X144.56 Y139.59 E5.54698
G1 X147.08 Y138.33 E5.69719
G1 X149.56 Y137.84 E5.83220
G1 X157.03 Y137.84 E6.23097
G1 X160.54 Y139.59 E6.44039
G1 X160.94 Y139.99 E6.47058
G1 X161.34 Y140.19 E6.49446
G1 X165.18 Y144.03 E6.78477
G1 X167.18 Y144.03 E6.89127
G1 X167.18 Y148.63 E7.13656
G1 X167.38 Y148.83 E7.15166
G1 X167.38 Y156.00 E7.53420
G1 X167.18 Y156.20 E7.54930
G1 X167.18 Y160.79 E7.79459
G1 X165.18 Y160.79 E7.90109
G1 X161.34 Y164.64 E8.19140
G1 X157.59 Y166.51 E8.41526
G1 X155.55 Y167.19 E8.52973
G1 X150.20 Y167.19 E8.81544
G1 X147.94 Y166.62 E8.93981
G1 X147.32 Y166.31 E8.97703
G1 X146.71 Y166.11 E9.01096
G1 X143.76 Y164.64 E9.18714
G1 X143.36 Y164.24 E9.21734
G1 X142.96 Y164.04 E9.24121
G1 X139.12 Y160.20 E9.53115
G1 X139.12 Y160.00 E9.54183
G1 X138.92 Y159.80 E9.55692
G1 X138.92 Y159.60 E9.56760
G1 X138.72 Y159.40 E9.58270
G1 X138.72 Y159.20 E9.59338
G1 X138.12 Y158.60 E9.63867
G1 X138.12 Y158.00 E9.67070
G1 X137.92 Y157.80 E9.68580
G1 X137.92 Y157.40 E9.70715
G1 X137.72 Y157.20 E9.72225
G1 X137.72 Y147.63 E10.23291
G1 X137.92 Y147.43 E10.24801
G1 X137.92 Y147.03 E10.26936
G1 X138.12 Y146.83 E10.28446
G1 X138.12 Y146.23 E10.31649
G1 X138.72 Y145.63 E10.36179
G1 X138.72 Y145.43 E10.37246
G1 X138.92 Y145.23 E10.38756
G1 X138.92 Y145.03 E10.39824
G1 X139.12 Y144.83 E10.41334
G1 X139.12 Y144.63 E10.42401
G1 X142.96 Y140.79 E10.71395
G0 F6000 X143.22 Y141.14
G1 F2700 X143.62 Y140.94 E10.73782
G1 X144.02 Y140.54 E10.76802
G1 X144.42 Y140.34 E10.79189
G1 X144.82 Y139.94 E10.82209
G1 X147.22 Y138.74 E10.96552
G1 X149.60 Y138.26 E11.09519
G1 X156.93 Y138.26 E11.48633
G1 X160.28 Y139.94 E11.68663
G1 X160.68 Y140.34 E11.71682
G1 X161.08 Y140.54 E11.74070
G1 X165.01 Y144.46 E12.03679
G1 X166.75 Y144.46 E12.12988
G1 X166.75 Y148.81 E12.36178
G1 X166.95 Y149.01 E12.37688
G1 X166.95 Y155.82 E12.74052
G1 X166.75 Y156.02 E12.75562
G1 X166.75 Y160.36 E12.98751
G1 X165.01 Y160.36 E13.08061
G1 X161.08 Y164.28 E13.37670
G1 X157.42 Y166.12 E13.59526
G1 X155.48 Y166.76 E13.70438
G1 X150.25 Y166.76 E13.98352
G1 X148.09 Y166.22 E14.10260
G1 X147.48 Y165.92 E14.13894
G1 X146.88 Y165.72 E14.17287
G1 X144.02 Y164.28 E14.34368
G1 X143.62 Y163.88 E14.37388
G1 X143.22 Y163.69 E14.39776
G1 X139.55 Y160.02 E14.67452
G1 X139.55 Y159.82 E14.68519
G1 X139.35 Y159.62 E14.70029
G1 X139.35 Y159.42 E14.71097
G1 X139.15 Y159.22 E14.72607
G1 X139.15 Y159.02 E14.73674
G1 X138.55 Y158.42 E14.78204
G1 X138.55 Y157.82 E14.81407
G1 X138.35 Y157.62 E14.82917
G1 X138.35 Y157.22 E14.85052
G1 X138.15 Y157.02 E14.86562
G1 X138.15 Y147.81 E15.35738
G1 X138.35 Y147.61 E15.37248
G1 X138.35 Y147.21 E15.39383
G1 X138.55 Y147.01 E15.40893
G1 X138.55 Y146.41 E15.44096
G1 X139.15 Y145.81 E15.48626
G1 X139.15 Y145.61 E15.49693
G1 X139.35 Y145.41 E15.51203
G1 X139.35 Y145.21 E15.52271
G1 X139.55 Y145.01 E15.53781
G1 X139.55 Y144.81 E15.54849
G1 X143.22 Y141.14 E15.82525
G0 F6000 X143.47 Y141.49
G1 F2700 X143.87 Y141.29 E15.84912
G1 X144.27 Y140.89 E15.87932
G1 X144.67 Y140.69 E15.90319
G1 X145.07 Y140.29 E15.93339
G1 X147.36 Y139.15 E16.07006
G1 X149.64 Y138.69 E16.19446
G1 X156.83 Y138.69 E16.57791
G1 X160.03 Y140.29 E16.76913
G1 X160.43 Y140.69 E16.79933
G1 X160.83 Y140.89 E16.82320
G1 X164.83 Y144.89 E17.12503
G1 X166.32 Y144.89 E17.20473
G1 X166.32 Y148.98 E17.42322
G1 X166.52 Y149.18 E17.43832
G1 X166.52 Y155.64 E17.78307
G1 X166.32 Y155.84 E17.79817
G1 X166.32 Y159.94 E18.01666
G1 X164.83 Y159.94 E18.09636
G1 X160.83 Y163.93 E18.39819
G1 X157.26 Y165.72 E18.61142
G1 X155.41 Y166.34 E18.71521
G1 X150.31 Y166.34 E18.98783
G1 X148.24 Y165.82 E19.10164
G1 X147.64 Y165.52 E19.13714
G1 X147.04 Y165.32 E19.17095
G1 X144.27 Y163.93 E19.33651
G1 X143.87 Y163.53 E19.36671
G1 X143.47 Y163.33 E19.39058
G1 X139.98 Y159.84 E19.65413
G1 X139.98 Y159.64 E19.66481
G1 X139.78 Y159.44 E19.67991
G1 X139.78 Y159.24 E19.69059
G1 X139.58 Y159.04 E19.70568
G1 X139.58 Y158.84 E19.71636
G1 X138.98 Y158.24 E19.76166
G1 X138.98 Y157.64 E19.79369
G1 X138.78 Y157.44 E19.80879
G1 X138.78 Y157.04 E19.83014
G1 X138.58 Y156.84 E19.84524
G1 X138.58 Y147.98 E20.31810
G1 X138.78 Y147.78 E20.33320
G1 X138.78 Y147.38 E20.35455
G1 X138.98 Y147.18 E20.36965
G1 X138.98 Y146.58 E20.40168
G1 X139.58 Y145.98 E20.44698
G1 X139.58 Y145.78 E20.45765
G1 X139.78 Y145.58 E20.47275
G1 X139.78 Y145.38 E20.48343
G1 X139.98 Y145.18 E20.49853
G1 X139.98 Y144.98 E20.50920
G1 X143.47 Y141.49 E20.77276
G0 F6000 X143.72 Y141.84
G1 F2700 X144.12 Y141.65 E20.79663
G1 X144.52 Y141.25 E20.82683
G1 X144.92 Y141.04 E20.85070
G1 X145.32 Y140.65 E20.88090
G1 X147.50 Y139.56 E21.01084
G1 X149.69 Y139.12 E21.12984
G1 X156.73 Y139.12 E21.50566
G1 X159.78 Y140.65 E21.68776
G1 X160.18 Y141.04 E21.71796
G1 X160.58 Y141.25 E21.74183
G1 X164.49 Y145.16 E22.03754
G1 X164.49 Y145.32 E22.04593
G1 X165.89 Y145.32 E22.12066
G1 X165.89 Y149.16 E22.32581
G1 X166.09 Y149.36 E22.34091
G1 X166.09 Y155.46 E22.66665
G1 X165.89 Y155.66 E22.68175
G1 X165.89 Y159.51 E22.88690
G1 X164.49 Y159.51 E22.96163
G1 X164.49 Y159.66 E22.97001
G1 X160.58 Y163.58 E23.26572
G1 X157.09 Y165.32 E23.47361
G1 X155.34 Y165.91 E23.57210
G1 X150.36 Y165.91 E23.83816
G1 X148.39 Y165.41 E23.94663
G1 X147.81 Y165.12 E23.98122
G1 X147.21 Y164.92 E24.01510
G1 X144.52 Y163.58 E24.17529
G1 X144.12 Y163.18 E24.20549
G1 X143.72 Y162.98 E24.22936
G1 X140.41 Y159.66 E24.47978
G1 X140.41 Y159.46 E24.49045
G1 X140.21 Y159.26 E24.50555
G1 X140.21 Y159.06 E24.51623
G1 X140.01 Y158.86 E24.53133
G1 X140.01 Y158.66 E24.54200
G1 X139.41 Y158.06 E24.58730
G1 X139.41 Y157.46 E24.61933
G1 X139.21 Y157.26 E24.63443
G1 X139.21 Y156.86 E24.65578
G1 X139.01 Y156.66 E24.67088
G1 X139.01 Y148.16 E25.12474
G1 X139.21 Y147.96 E25.13984
G1 X139.21 Y147.56 E25.16119
G1 X139.41 Y147.36 E25.17629
G1 X139.41 Y146.76 E25.20832
G1 X140.01 Y146.16 E25.25362
G1 X140.01 Y145.96 E25.26429
G1 X140.21 Y145.76 E25.27939
G1 X140.21 Y145.56 E25.29007
G1 X140.41 Y145.36 E25.30517
G1 X140.41 Y145.16 E25.31584
G1 X143.72 Y141.84 E25.56626
G0 F6000 X143.98 Y142.20
G1 F2700 X144.38 Y142.00 E25.59018
G1 X144.78 Y141.60 E25.62034
G1 X145.18 Y141.40 E25.64426
G1 X145.58 Y141.00 E25.67442
G1 X147.64 Y139.97 E25.79758
G1 X149.73 Y139.55 E25.91126
G1 X156.62 Y139.55 E26.27944
G1 X159.52 Y141.00 E26.45245
G1 X159.92 Y141.40 E26.48261
G1 X160.32 Y141.60 E26.50653
G1 X164.07 Y145.34 E26.78906
G1 X164.07 Y145.54 E26.79974
G1 X164.27 Y145.74 E26.81484
G1 X164.27 Y145.75 E26.81527
G1 X165.47 Y145.75 E26.87933
G1 X165.47 Y149.34 E27.07108
G1 X165.67 Y149.54 E27.08618
G1 X165.67 Y155.29 E27.39302
G1 X165.47 Y155.49 E27.40812
G1 X165.47 Y159.08 E27.59987
G1 X164.27 Y159.08 E27.66393
G1 X164.27 Y159.09 E27.66435
G1 X164.07 Y159.29 E27.67945
G1 X164.07 Y159.49 E27.69013
G1 X160.32 Y163.23 E27.97267
G1 X156.93 Y164.93 E28.17523
G1 X155.28 Y165.48 E28.26836
G1 X150.41 Y165.48 E28.52796
G1 X148.54 Y165.01 E28.63110
G1 X147.97 Y164.73 E28.66469
G1 X147.37 Y164.53 E28.69867
G1 X144.78 Y163.23 E28.85354
G1 X144.38 Y162.83 E28.88370
G1 X143.98 Y162.63 E28.90762
G1 X140.83 Y159.49 E29.14486
G1 X140.83 Y159.29 E29.15554
G1 X140.63 Y159.09 E29.17064
G1 X140.63 Y158.89 E29.18131
G1 X140.43 Y158.69 E29.19641
G1 X140.43 Y158.49 E29.20709
G1 X139.83 Y157.89 E29.25238
G1 X139.83 Y157.29 E29.28441
G1 X139.63 Y157.09 E29.29951
G1 X139.63 Y156.69 E29.32087
G1 X139.43 Y156.49 E29.33596
G1 X139.43 Y148.34 E29.77092
G1 X139.63 Y148.14 E29.78602
G1 X139.63 Y147.74 E29.80738
G1 X139.83 Y147.54 E29.82248
G1 X139.83 Y146.94 E29.85451
G1 X140.43 Y146.34 E29.89980
G1 X140.43 Y146.14 E29.91048
G1 X140.63 Y145.94 E29.92558
G1 X140.63 Y145.74 E29.93625
G1 X140.83 Y145.54 E29.95135
G1 X140.83 Y145.34 E29.96203
G1 X143.98 Y142.20 E30.19927
G0 F6000 X144.23 Y142.55
G1 F2700 X144.63 Y142.35 E30.22319
G1 X145.03 Y141.95 E30.25335
G1 X145.43 Y141.75 E30.27727
G1 X145.83 Y141.35 E30.30743
G1 X147.78 Y140.37 E30.42381
G1 X149.77 Y139.97 E30.53220
G1 X156.52 Y139.97 E30.89269
G1 X159.27 Y141.35 E31.05659
G1 X159.67 Y141.75 E31.08675
G1 X160.07 Y141.95 E31.11067
G1 X163.64 Y145.52 E31.38003
G1 X163.64 Y145.72 E31.39071
G1 X163.84 Y145.92 E31.40581
G1 X163.84 Y146.12 E31.41648
G1 X163.90 Y146.18 E31.42094
G1 X165.04 Y146.18 E31.48185
G1 X165.04 Y149.52 E31.66020
G1 X165.24 Y149.72 E31.67530
G1 X165.24 Y155.11 E31.96324
G1 X165.04 Y155.31 E31.97834
G1 X165.04 Y158.65 E32.15669
G1 X163.90 Y158.65 E32.21760
G1 X163.84 Y158.71 E32.22205
G1 X163.84 Y158.91 E32.23273
G1 X163.64 Y159.11 E32.24783
G1 X163.64 Y159.31 E32.25851
G1 X160.07 Y162.88 E32.52787
G1 X156.76 Y164.53 E32.72511
G1 X155.21 Y165.05 E32.81291
G1 X150.47 Y165.05 E33.06594
G1 X148.69 Y164.61 E33.16378
G1 X148.14 Y164.33 E33.19661
G1 X147.53 Y164.13 E33.23047
G1 X145.03 Y162.88 E33.37999
G1 X144.63 Y162.48 E33.41015
G1 X144.23 Y162.28 E33.43407
G1 X141.26 Y159.31 E33.65814
G1 X141.26 Y159.11 E33.66882
G1 X141.06 Y158.91 E33.68392
G1 X141.06 Y158.71 E33.69459
G1 X140.86 Y158.51 E33.70969
G1 X140.86 Y158.31 E33.72037
G1 X140.26 Y157.71 E33.76566
G1 X140.26 Y157.11 E33.79769
G1 X140.06 Y156.91 E33.81279
G1 X140.06 Y156.51 E33.83415
G1 X139.86 Y156.31 E33.84924
G1 X139.86 Y148.52 E34.26531
G1 X140.06 Y148.32 E34.28041
G1 X140.06 Y147.92 E34.30176
G1 X140.26 Y147.72 E34.31686
G1 X140.26 Y147.12 E34.34889
G1 X140.86 Y146.52 E34.39418
G1 X140.86 Y146.32 E34.40486
G1 X141.06 Y146.12 E34.41996
G1 X141.06 Y145.92 E34.43064
G1 X141.26 Y145.72 E34.44574
G1 X141.26 Y145.52 E34.45641
G1 X144.23 Y142.55 E34.68048
G0 F6000 X144.48 Y142.90
G1 F2700 X144.88 Y142.70 E34.70430
G1 X145.28 Y142.30 E34.73454
G1 X145.68 Y142.10 E34.75837
G1 X146.08 Y141.70 E34.78860
G1 X147.92 Y140.78 E34.89818
G1 X149.81 Y140.40 E35.00124
G1 X156.42 Y140.40 E35.35410
G1 X159.02 Y141.70 E35.50887
G1 X159.42 Y142.10 E35.53910
G1 X159.82 Y142.30 E35.56293
G1 X163.21 Y145.69 E35.81912
G1 X163.21 Y145.89 E35.82980
G1 X163.41 Y146.09 E35.84489
G1 X163.41 Y146.29 E35.85557
G1 X163.72 Y146.60 E35.87897
G1 X164.61 Y146.60 E35.92649
G1 X164.61 Y149.69 E36.09144
G1 X164.81 Y149.89 E36.10654
G1 X164.81 Y154.93 E36.37558
G1 X164.61 Y155.13 E36.39068
G1 X164.61 Y158.22 E36.55563
G1 X163.72 Y158.22 E36.60314
G1 X163.41 Y158.53 E36.62655
G1 X163.41 Y158.73 E36.63722
G1 X163.21 Y158.93 E36.65232
G1 X163.21 Y159.13 E36.66300
G1 X159.82 Y162.53 E36.91919
G1 X156.60 Y164.13 E37.11108
G1 X155.14 Y164.62 E37.19353
G1 X150.52 Y164.62 E37.44005
G1 X148.84 Y164.20 E37.53261
G1 X148.30 Y163.93 E37.56455
G1 X147.70 Y163.73 E37.59842
G1 X145.28 Y162.53 E37.74256
G1 X144.88 Y162.13 E37.77280
G1 X144.48 Y161.93 E37.79663
G1 X141.69 Y159.13 E38.00752
G1 X141.69 Y158.93 E38.01820
G1 X141.49 Y158.73 E38.03329
G1 X141.49 Y158.53 E38.04397
G1 X141.29 Y158.33 E38.05907
G1 X141.29 Y158.13 E38.06975
G1 X140.69 Y157.53 E38.11504
G1 X140.69 Y156.93 E38.14707
G1 X140.49 Y156.73 E38.16217
G1 X140.49 Y156.33 E38.18352
G1 X140.29 Y156.13 E38.19862
G1 X140.29 Y148.69 E38.59579
G1 X140.49 Y148.49 E38.61089
G1 X140.49 Y148.09 E38.63224
G1 X140.69 Y147.89 E38.64734
G1 X140.69 Y147.29 E38.67937
G1 X141.29 Y146.69 E38.72467
G1 X141.29 Y146.49 E38.73534
G1 X141.49 Y146.29 E38.75044
G1 X141.49 Y146.09 E38.76112
G1 X141.69 Y145.89 E38.77622
G1 X141.69 Y145.69 E38.78689
G1 X144.48 Y142.90 E38.99779
G0 F6000 X144.74 Y143.25
G1 F2700 X145.14 Y143.05 E39.02166
G1 X145.54 Y142.65 E39.05186
G1 X145.94 Y142.45 E39.07573
G1 X146.34 Y142.05 E39.10593
G1 X148.06 Y141.19 E39.20877
G1 X149.86 Y140.83 E39.30655
G1 X156.32 Y140.83 E39.65172
G1 X158.76 Y142.05 E39.79742
G1 X159.16 Y142.45 E39.82761
G1 X159.56 Y142.65 E39.85149
G1 X162.78 Y145.87 E40.09450
G1 X162.78 Y146.07 E40.10518
G1 X162.98 Y146.27 E40.12028
G1 X162.98 Y146.47 E40.13096
G1 X163.54 Y147.03 E40.17323
G1 X164.18 Y147.03 E40.20740
G1 X164.18 Y149.87 E40.35900
G1 X164.38 Y150.07 E40.37410
G1 X164.38 Y154.75 E40.62415
G1 X164.18 Y154.96 E40.63925
G1 X164.18 Y157.79 E40.79085
G1 X163.54 Y157.79 E40.82502
G1 X162.98 Y158.35 E40.86729
G1 X162.98 Y158.56 E40.87797
G1 X162.78 Y158.75 E40.89307
G1 X162.78 Y158.96 E40.90375
G1 X159.56 Y162.17 E41.14676
G1 X156.44 Y163.74 E41.33333
G1 X155.07 Y164.19 E41.41050
G1 X150.57 Y164.19 E41.65045
G1 X148.99 Y163.80 E41.73767
G1 X148.47 Y163.54 E41.76871
G1 X147.86 Y163.34 E41.80257
G1 X145.54 Y162.17 E41.94147
G1 X145.14 Y161.77 E41.97167
G1 X144.74 Y161.57 E41.99554
G1 X142.12 Y158.96 E42.19326
G1 X142.12 Y158.75 E42.20394
G1 X141.92 Y158.56 E42.21903
G1 X141.92 Y158.35 E42.22971
G1 X141.72 Y158.16 E42.24481
G1 X141.72 Y157.96 E42.25549
G1 X141.12 Y157.35 E42.30078
G1 X141.12 Y156.75 E42.33281
G1 X140.92 Y156.56 E42.34791
G1 X140.92 Y156.16 E42.36926
G1 X140.72 Y155.96 E42.38436
G1 X140.72 Y148.87 E42.76253
G1 X140.92 Y148.67 E42.77762
G1 X140.92 Y148.27 E42.79898
G1 X141.12 Y148.07 E42.81408
G1 X141.12 Y147.47 E42.84611
G1 X141.72 Y146.87 E42.89140
G1 X141.72 Y146.67 E42.90208
G1 X141.92 Y146.47 E42.91718
G1 X141.92 Y146.27 E42.92785
G1 X142.12 Y146.07 E42.94295
G1 X142.12 Y145.87 E42.95363
G1 X144.74 Y143.25 E43.15135
G0 F6000 X144.99 Y143.60
G1 F2700 X145.39 Y143.40 E43.17510
G1 X145.79 Y143.00 E43.20541
G1 X146.19 Y142.80 E43.22917
G1 X146.59 Y142.40 E43.25948
G1 X148.20 Y141.60 E43.35550
G1 X149.90 Y141.26 E43.44794
G1 X156.22 Y141.26 E43.78548
G1 X158.51 Y142.40 E43.92203
G1 X158.91 Y142.80 E43.95234
G1 X159.31 Y143.00 E43.97610
G1 X162.35 Y146.05 E44.20598
G1 X162.35 Y146.25 E44.21666
G1 X162.55 Y146.45 E44.23175
G1 X162.55 Y146.65 E44.24243
G1 X163.15 Y147.25 E44.28773
G1 X163.15 Y147.45 E44.29840
G1 X163.16 Y147.46 E44.29923
G1 X163.75 Y147.46 E44.33068
G1 X163.75 Y150.05 E44.46888
G1 X163.95 Y150.25 E44.48398
G1 X163.95 Y154.58 E44.71513
G1 X163.75 Y154.78 E44.73023
G1 X163.75 Y157.37 E44.86844
G1 X163.16 Y157.37 E44.89988
G1 X163.15 Y157.38 E44.90071
G1 X163.15 Y157.58 E44.91138
G1 X162.55 Y158.18 E44.95668
G1 X162.55 Y158.38 E44.96736
G1 X162.35 Y158.58 E44.98246
G1 X162.35 Y158.78 E44.99313
G1 X159.31 Y161.82 E45.22301
G1 X156.27 Y163.34 E45.40421
G1 X155.00 Y163.77 E45.47607
G1 X150.62 Y163.77 E45.70946
G1 X149.13 Y163.39 E45.79141
G1 X148.63 Y163.14 E45.82161
G1 X148.03 Y162.94 E45.85542
G1 X145.79 Y161.82 E45.98892
G1 X145.39 Y161.42 E46.01923
G1 X144.99 Y161.22 E46.04298
G1 X142.55 Y158.78 E46.22757
G1 X142.55 Y158.58 E46.23824
G1 X142.35 Y158.38 E46.25334
G1 X142.35 Y158.18 E46.26402
G1 X142.15 Y157.98 E46.27912
G1 X142.15 Y157.78 E46.28979
G1 X141.55 Y157.18 E46.33509
G1 X141.55 Y156.58 E46.36712
G1 X141.35 Y156.38 E46.38222
G1 X141.35 Y155.98 E46.40357
G1 X141.15 Y155.78 E46.41867
G1 X141.15 Y149.05 E46.77793
G1 X141.35 Y148.85 E46.79303
G1 X141.35 Y148.45 E46.81439
G1 X141.55 Y148.25 E46.82949
G1 X141.55 Y147.65 E46.86151
G1 X142.15 Y147.05 E46.90681
G1 X142.15 Y146.85 E46.91749
G1 X142.35 Y146.65 E46.93259
G1 X142.35 Y146.45 E46.94326
G1 X142.55 Y146.25 E46.95836
G1 X142.55 Y146.05 E46.96904
G1 X144.99 Y143.60 E47.15362
G0 F6000 X145.24 Y143.96
G1 F2700 X145.64 Y143.75 E47.17750
G1 X146.04 Y143.35 E47.20769
G1 X146.44 Y143.16 E47.23157
G1 X146.84 Y142.75 E47.26176
G1 X148.34 Y142.01 E47.35105
G1 X149.94 Y141.69 E47.43815
G1 X156.12 Y141.69 E47.76806
G1 X158.26 Y142.75 E47.89554
G1 X158.66 Y143.16 E47.92574
G1 X159.06 Y143.35 E47.94961
G1 X161.93 Y146.22 E48.16628
G1 X161.93 Y146.43 E48.17696
G1 X162.13 Y146.62 E48.19206
G1 X162.13 Y146.82 E48.20273
G1 X162.73 Y147.43 E48.24803
G1 X162.73 Y147.62 E48.25871
G1 X162.93 Y147.82 E48.27381
G1 X162.93 Y147.89 E48.27712
G1 X163.33 Y147.89 E48.29847
G1 X163.33 Y150.22 E48.42328
G1 X163.53 Y150.43 E48.43838
G1 X163.53 Y154.40 E48.65062
G1 X163.33 Y154.60 E48.66572
G1 X163.33 Y156.94 E48.79053
G1 X162.93 Y156.94 E48.81188
G1 X162.93 Y157.00 E48.81519
G1 X162.73 Y157.20 E48.83029
G1 X162.73 Y157.40 E48.84097
G1 X162.13 Y158.00 E48.88627
G1 X162.13 Y158.20 E48.89694
G1 X161.93 Y158.40 E48.91204
G1 X161.93 Y158.60 E48.92272
G1 X159.06 Y161.47 E49.13939
G1 X156.11 Y162.94 E49.31533
G1 X154.93 Y163.34 E49.38179
G1 X150.68 Y163.34 E49.60872
G1 X149.28 Y162.99 E49.68533
G1 X148.79 Y162.75 E49.71458
G1 X148.19 Y162.54 E49.74844
G1 X146.04 Y161.47 E49.87664
G1 X145.64 Y161.07 E49.90684
G1 X145.24 Y160.87 E49.93071
G1 X142.97 Y158.60 E50.10208
G1 X142.97 Y158.40 E50.11276
G1 X142.77 Y158.20 E50.12786
G1 X142.77 Y158.00 E50.13854
G1 X142.57 Y157.80 E50.15363
G1 X142.57 Y157.60 E50.16431
G1 X141.97 Y157.00 E50.20961
G1 X141.97 Y156.40 E50.24164
G1 X141.77 Y156.20 E50.25674
G1 X141.77 Y155.80 E50.27809
G1 X141.57 Y155.60 E50.29319
G1 X141.57 Y149.22 E50.63355
G1 X141.77 Y149.03 E50.64865
G1 X141.77 Y148.62 E50.67001
G1 X141.97 Y148.43 E50.68510
G1 X141.97 Y147.82 E50.71713
G1 X142.57 Y147.22 E50.76243
G1 X142.57 Y147.03 E50.77311
G1 X142.77 Y146.82 E50.78821
G1 X142.77 Y146.62 E50.79888
G1 X142.97 Y146.43 E50.81398
G1 X142.97 Y146.22 E50.82466
G1 X145.24 Y143.96 E50.99603
G0 F6000 X145.50 Y144.31
G1 F2700 X145.90 Y144.11 E51.01998
G1 X146.30 Y143.71 E51.05010
G1 X146.70 Y143.51 E51.07404
G1 X147.10 Y143.11 E51.10416
G1 X148.48 Y142.41 E51.18672
G1 X149.98 Y142.12 E51.26848
G1 X156.02 Y142.12 E51.59070
G1 X158.00 Y143.11 E51.70906
G1 X158.40 Y143.51 E51.73919
G1 X158.80 Y143.71 E51.76313
G1 X161.50 Y146.40 E51.96666
G1 X161.50 Y146.60 E51.97734
G1 X161.70 Y146.80 E51.99244
G1 X161.70 Y147.00 E52.00312
G1 X162.30 Y147.60 E52.04841
G1 X162.30 Y147.80 E52.05909
G1 X162.50 Y148.00 E52.07419
G1 X162.50 Y148.31 E52.09084
G1 X162.90 Y148.31 E52.11220
G1 X162.90 Y150.40 E52.22366
G1 X163.10 Y150.60 E52.23876
G1 X163.10 Y154.22 E52.43200
G1 X162.90 Y154.42 E52.44710
G1 X162.90 Y156.51 E52.55856
G1 X162.50 Y156.51 E52.57992
G1 X162.50 Y156.82 E52.59657
G1 X162.30 Y157.02 E52.61167
G1 X162.30 Y157.22 E52.62235
G1 X161.70 Y157.82 E52.66764
G1 X161.70 Y158.02 E52.67832
G1 X161.50 Y158.22 E52.69342
G1 X161.50 Y158.42 E52.70410
G1 X158.80 Y161.12 E52.90763
G1 X155.94 Y162.55 E53.07820
G1 X154.86 Y162.91 E53.13938
G1 X150.73 Y162.91 E53.35974
G1 X149.43 Y162.59 E53.43102
G1 X148.96 Y162.35 E53.45936
G1 X148.36 Y162.15 E53.49329
G1 X146.30 Y161.12 E53.61612
G1 X145.90 Y160.72 E53.64624
G1 X145.50 Y160.52 E53.67018
G1 X143.40 Y158.42 E53.82842
G1 X143.40 Y158.22 E53.83910
G1 X143.20 Y158.02 E53.85419
G1 X143.20 Y157.82 E53.86487
G1 X143.00 Y157.62 E53.87997
G1 X143.00 Y157.42 E53.89065
G1 X142.40 Y156.82 E53.93594
G1 X142.40 Y156.22 E53.96797
G1 X142.20 Y156.02 E53.98307
G1 X142.20 Y155.62 E54.00442
G1 X142.00 Y155.42 E54.01952
G1 X142.00 Y149.40 E54.34089
G1 X142.20 Y149.20 E54.35598
G1 X142.20 Y148.80 E54.37734
G1 X142.40 Y148.60 E54.39244
G1 X142.40 Y148.00 E54.42447
G1 X143.00 Y147.40 E54.46976
G1 X143.00 Y147.20 E54.48044
G1 X143.20 Y147.00 E54.49554
G1 X143.20 Y146.80 E54.50621
G1 X143.40 Y146.60 E54.52131
G1 X143.40 Y146.40 E54.53199
G1 X145.50 Y144.31 E54.69023
G0 F6000 X145.75 Y144.66
G1 F2700 X146.15 Y144.46 E54.71405
G1 X146.55 Y144.06 E54.74429
G1 X146.95 Y143.86 E54.76811
G1 X147.35 Y143.46 E54.79835
G1 X148.62 Y142.82 E54.87415
G1 X150.03 Y142.54 E54.95058
G1 X155.92 Y142.54 E55.26516
G1 X157.75 Y143.46 E55.37446
G1 X158.15 Y143.86 E55.40469
G1 X158.55 Y144.06 E55.42852
G1 X161.07 Y146.58 E55.61884
G1 X161.07 Y146.78 E55.62952
G1 X161.27 Y146.98 E55.64461
G1 X161.27 Y147.18 E55.65524
G1 X161.87 Y147.78 E55.70057
G1 X161.87 Y147.98 E55.71125
G1 X162.07 Y148.18 E55.72635
G1 X162.07 Y148.74 E55.75640
G1 X162.47 Y148.74 E55.77775
G1 X162.47 Y150.58 E55.87582
G1 X162.67 Y150.78 E55.89092
G1 X162.67 Y154.05 E56.06526
G1 X162.47 Y154.25 E56.08036
G1 X162.47 Y156.08 E56.17843
G1 X162.07 Y156.08 E56.19978
G1 X162.07 Y156.65 E56.22983
G1 X161.87 Y156.85 E56.24493
G1 X161.87 Y157.05 E56.25561
G1 X161.27 Y157.65 E56.30094
G1 X161.27 Y157.85 E56.31157
G1 X161.07 Y158.05 E56.32667
G1 X161.07 Y158.25 E56.33734
G1 X158.55 Y160.77 E56.52766
G1 X155.78 Y162.15 E56.69294
G1 X154.79 Y162.48 E56.74876
G1 X150.78 Y162.48 E56.96261
G1 X149.58 Y162.18 E57.02859
G1 X149.12 Y161.95 E57.05617
G1 X148.52 Y161.75 E57.08998
G1 X146.55 Y160.77 E57.20751
G1 X146.15 Y160.37 E57.23774
G1 X145.75 Y160.17 E57.26157
G1 X143.83 Y158.25 E57.40659
G1 X143.83 Y158.05 E57.41727
G1 X143.63 Y157.85 E57.43237
G1 X143.63 Y157.65 E57.44305
G1 X143.43 Y157.45 E57.45815
G1 X143.43 Y157.25 E57.46877
G1 X142.83 Y156.65 E57.51410
G1 X142.83 Y156.05 E57.54613
G1 X142.63 Y155.85 E57.56123
G1 X142.63 Y155.45 E57.58258
G1 X142.43 Y155.25 E57.59768
G1 X142.43 Y149.58 E57.90015
G1 X142.63 Y149.38 E57.91525
G1 X142.63 Y148.98 E57.93660
G1 X142.83 Y148.78 E57.95170
G1 X142.83 Y148.18 E57.98373
G1 X143.43 Y147.58 E58.02906
G1 X143.43 Y147.38 E58.03969
G1 X143.63 Y147.18 E58.05478
G1 X143.63 Y146.98 E58.06546
G1 X143.83 Y146.78 E58.08056
G1 X143.83 Y146.58 E58.09124
G1 X145.75 Y144.66 E58.23626
G0 F6000 X146.00 Y145.01
G1 F2700 X146.40 Y144.81 E58.26006
G1 X146.81 Y144.41 E58.29034
G1 X147.20 Y144.21 E58.31414
G1 X147.60 Y143.81 E58.34441
G1 X148.76 Y143.23 E58.41340
G1 X150.07 Y142.97 E58.48450
G1 X155.82 Y142.97 E58.79145
G1 X157.50 Y143.81 E58.89160
G1 X157.90 Y144.21 E58.92187
G1 X158.29 Y144.41 E58.94567
G1 X160.64 Y146.76 E59.12286
G1 X160.64 Y146.96 E59.13354
G1 X160.84 Y147.16 E59.14863
G1 X160.84 Y147.36 E59.15931
G1 X161.44 Y147.96 E59.20461
G1 X161.44 Y148.16 E59.21528
G1 X161.64 Y148.36 E59.23038
G1 X161.64 Y148.96 E59.26241
G1 X161.84 Y149.16 E59.27751
G1 X161.84 Y149.17 E59.27826
G1 X162.04 Y149.17 E59.28894
G1 X162.04 Y150.76 E59.37360
G1 X162.24 Y150.96 E59.38870
G1 X162.24 Y153.87 E59.54415
G1 X162.04 Y154.07 E59.55925
G1 X162.04 Y155.66 E59.64391
G1 X161.84 Y155.66 E59.65459
G1 X161.84 Y155.67 E59.65534
G1 X161.64 Y155.87 E59.67044
G1 X161.64 Y156.47 E59.70246
G1 X161.44 Y156.67 E59.71756
G1 X161.44 Y156.87 E59.72824
G1 X160.84 Y157.47 E59.77354
G1 X160.84 Y157.67 E59.78421
G1 X160.64 Y157.87 E59.79931
G1 X160.64 Y158.07 E59.80999
G1 X158.29 Y160.42 E59.98717
G1 X155.62 Y161.76 E60.14713
G1 X154.72 Y162.06 E60.19760
G1 X150.84 Y162.06 E60.40488
G1 X149.73 Y161.78 E60.46558
G1 X149.29 Y161.56 E60.49220
G1 X148.69 Y161.36 E60.52601
G1 X146.81 Y160.42 E60.63822
G1 X146.40 Y160.01 E60.66849
G1 X146.00 Y159.82 E60.69229
G1 X144.26 Y158.07 E60.82418
G1 X144.26 Y157.87 E60.83486
G1 X144.06 Y157.67 E60.84996
G1 X144.06 Y157.47 E60.86063
G1 X143.86 Y157.27 E60.87573
G1 X143.86 Y157.07 E60.88641
G1 X143.26 Y156.47 E60.93170
G1 X143.26 Y155.87 E60.96373
G1 X143.06 Y155.67 E60.97883
G1 X143.06 Y155.27 E61.00019
G1 X142.86 Y155.07 E61.01528
G1 X142.86 Y149.76 E61.29885
G1 X143.06 Y149.56 E61.31395
G1 X143.06 Y149.16 E61.33530
G1 X143.26 Y148.96 E61.35040
G1 X143.26 Y148.36 E61.38243
G1 X143.86 Y147.76 E61.42773
G1 X143.86 Y147.56 E61.43841
G1 X144.06 Y147.36 E61.45350
G1 X144.06 Y147.16 E61.46418
G1 X144.26 Y146.96 E61.47928
G1 X144.26 Y146.76 E61.48996
G1 X146.00 Y145.01 E61.62184
G0 F6000 X146.26 Y145.36
G1 F2700 X146.66 Y145.16 E61.64577
G1 X147.06 Y144.76 E61.67593
G1 X147.46 Y144.56 E61.69985
G1 X147.86 Y144.16 E61.73001
G1 X148.90 Y143.64 E61.79224
G1 X150.11 Y143.40 E61.85806
G1 X155.72 Y143.40 E62.15733
G1 X157.24 Y144.16 E62.24840
G1 X157.64 Y144.56 E62.27856
G1 X158.04 Y144.76 E62.30248
G1 X160.21 Y146.93 E62.46646
G1 X160.21 Y147.13 E62.47719
G1 X160.41 Y147.33 E62.49225
G1 X160.41 Y147.53 E62.50298
G1 X161.01 Y148.13 E62.54824
G1 X161.01 Y148.34 E62.55897
G1 X161.21 Y148.53 E62.57403
G1 X161.21 Y149.13 E62.60611
G1 X161.41 Y149.33 E62.62117
G1 X161.41 Y149.53 E62.63190
G1 X161.48 Y149.60 E62.63673
G1 X161.61 Y149.60 E62.64399
G1 X161.61 Y150.94 E62.71531
G1 X161.81 Y151.13 E62.73038
G1 X161.81 Y153.69 E62.86693
G1 X161.61 Y153.89 E62.88199
G1 X161.61 Y155.23 E62.95331
G1 X161.48 Y155.23 E62.96057
G1 X161.41 Y155.29 E62.96540
G1 X161.41 Y155.49 E62.97613
G1 X161.21 Y155.69 E62.99119
G1 X161.21 Y156.29 E63.02327
G1 X161.01 Y156.49 E63.03833
G1 X161.01 Y156.69 E63.04906
G1 X160.41 Y157.29 E63.09432
G1 X160.41 Y157.49 E63.10505
G1 X160.21 Y157.69 E63.12011
G1 X160.21 Y157.89 E63.13084
G1 X158.04 Y160.06 E63.29482
G1 X155.45 Y161.36 E63.44945
G1 X154.65 Y161.63 E63.49459
G1 X150.89 Y161.63 E63.69536
G1 X149.88 Y161.38 E63.75077
G1 X149.45 Y161.16 E63.77644
G1 X148.85 Y160.96 E63.81032
G1 X147.06 Y160.06 E63.91720
G1 X146.66 Y159.66 E63.94736
G1 X146.26 Y159.46 E63.97128
G1 X144.69 Y157.89 E64.08995
G1 X144.69 Y157.69 E64.10068
G1 X144.49 Y157.49 E64.11575
G1 X144.49 Y157.29 E64.12648
G1 X144.29 Y157.09 E64.14154
G1 X144.29 Y156.89 E64.15227
G1 X143.69 Y156.29 E64.19753
G1 X143.69 Y155.69 E64.22961
G1 X143.49 Y155.49 E64.24467
G1 X143.49 Y155.09 E64.26608
G1 X143.29 Y154.89 E64.28114
G1 X143.29 Y149.93 E64.54581
G1 X143.49 Y149.74 E64.56087
G1 X143.49 Y149.33 E64.58228
G1 X143.69 Y149.13 E64.59734
G1 X143.69 Y148.53 E64.62942
G1 X144.29 Y147.94 E64.67468
G1 X144.29 Y147.73 E64.68541
G1 X144.49 Y147.53 E64.70047
G1 X144.49 Y147.33 E64.71120
G1 X144.69 Y147.13 E64.72626
G1 X144.69 Y146.93 E64.73699
G1 X146.26 Y145.36 E64.85567
G0 F6000 X152.40 Y152.44
;TYPE:WALL-INNER
G1 F2700 X152.45 Y152.40 E64.85900
G1 X152.49 Y152.38 E64.86096
G1 X152.50 Y152.38 E64.86171
G1 X152.56 Y152.40 E64.86486
G1 X152.60 Y152.44 E64.86822
G1 X152.62 Y152.48 E64.87043
G1 X152.62 Y152.50 E64.87139
G1 X152.60 Y152.56 E64.87444
G1 X152.55 Y152.60 E64.87810
G1 X152.50 Y152.62 E64.88103
G1 X152.45 Y152.60 E64.88372
G1 X152.42 Y152.58 E64.88594
G1 X152.40 Y152.56 E64.88708
G1 X152.39 Y152.53 E64.88928
G1 X152.38 Y152.50 E64.89074
G1 X152.40 Y152.45 E64.89350
G1 X152.40 Y152.44 E64.89441
G0 F6000 X152.05 Y152.20
G1 F2700 X152.10 Y152.12 E64.89942
G1 X152.17 Y152.06 E64.90434
G1 X152.26 Y152.01 E64.90946
G1 X152.43 Y151.96 E64.91917
G1 X152.53 Y151.95 E64.92430
G1 X152.61 Y151.97 E64.92877
G1 X152.71 Y152.00 E64.93430
G1 X152.78 Y152.03 E64.93862
G1 X152.86 Y152.09 E64.94412
G1 X152.93 Y152.16 E64.94895
G1 X152.98 Y152.24 E64.95387
G1 X153.01 Y152.32 E64.95867
G1 X153.04 Y152.41 E64.96396
G1 X153.05 Y152.50 E64.96863
G1 X153.04 Y152.59 E64.97329
G1 X153.01 Y152.68 E64.97859
G1 X152.98 Y152.76 E64.98320
G1 X152.86 Y152.91 E64.99311
G1 X152.78 Y152.97 E64.99861
G1 X152.72 Y153.00 E65.00233
G1 X152.60 Y153.03 E65.00865
G1 X152.53 Y153.05 E65.01291
G1 X152.43 Y153.04 E65.01804
G1 X152.26 Y152.99 E65.02775
G1 X152.17 Y152.94 E65.03288
G1 X152.10 Y152.88 E65.03779
G1 X152.04 Y152.80 E65.04292
G1 X152.00 Y152.73 E65.04739
G1 X151.97 Y152.63 E65.05276
G1 X151.95 Y152.52 E65.05894
G1 X151.95 Y152.50 E65.06017
G1 X151.97 Y152.37 E65.06725
G1 X152.05 Y152.20 E65.07717
G0 F6000 X151.69 Y151.96
G1 F2700 X151.80 Y151.82 E65.08628
G1 X151.92 Y151.71 E65.09509
G1 X152.06 Y151.63 E65.10363
G1 X152.22 Y151.57 E65.11266
G1 X152.38 Y151.53 E65.12145
G1 X152.54 Y151.53 E65.13021
G1 X152.70 Y151.55 E65.13904
G1 X152.86 Y151.59 E65.14797
G1 X153.01 Y151.67 E65.15690
G1 X153.15 Y151.77 E65.16565
G1 X153.26 Y151.88 E65.17422
G1 X153.35 Y152.02 E65.18325
G1 X153.42 Y152.18 E65.19209
G1 X153.46 Y152.34 E65.20104
G1 X153.48 Y152.50 E65.20977
G1 X153.46 Y152.66 E65.21845
G1 X153.42 Y152.82 E65.22745
G1 X153.35 Y152.97 E65.23610
G1 X153.26 Y153.12 E65.24532
G1 X153.15 Y153.23 E65.25390
G1 X153.01 Y153.33 E65.26279
G1 X152.88 Y153.40 E65.27052
G1 X152.70 Y153.45 E65.28081
G1 X152.54 Y153.47 E65.28932
G1 X152.38 Y153.47 E65.29808
G1 X152.22 Y153.43 E65.30687
G1 X152.06 Y153.37 E65.31590
G1 X151.92 Y153.29 E65.32444
G1 X151.80 Y153.18 E65.33325
G1 X151.69 Y153.04 E65.34236
G1 X151.61 Y152.90 E65.35102
G1 X151.56 Y152.75 E65.35983
G1 X151.52 Y152.56 E65.37012
G1 X151.52 Y152.49 E65.37370
G1 X151.52 Y152.44 E65.37616
G1 X151.56 Y152.25 E65.38651
G1 X151.61 Y152.10 E65.39532
G1 X151.69 Y151.96 E65.40397
G0 F6000 X151.34 Y151.71
G1 F2700 X151.48 Y151.53 E65.41646
G1 X151.66 Y151.37 E65.42932
G1 X151.87 Y151.24 E65.44217
G1 X152.09 Y151.16 E65.45455
G1 X152.33 Y151.10 E65.46771
G1 X152.56 Y151.10 E65.47995
G1 X152.80 Y151.13 E65.49314
G1 X153.02 Y151.19 E65.50546
G1 X153.24 Y151.30 E65.51838
G1 X153.43 Y151.44 E65.53101
G1 X153.59 Y151.62 E65.54373
G1 X153.73 Y151.82 E65.55669
G1 X153.82 Y152.03 E65.56921
G1 X153.88 Y152.26 E65.58191
G1 X153.91 Y152.50 E65.59466
G1 X153.88 Y152.74 E65.60741
G1 X153.82 Y152.97 E65.62011
G1 X153.73 Y153.18 E65.63263
G1 X153.59 Y153.38 E65.64559
G1 X153.43 Y153.56 E65.65831
G1 X153.24 Y153.70 E65.67094
G1 X153.04 Y153.80 E65.68286
G1 X152.80 Y153.87 E65.69640
G1 X152.56 Y153.90 E65.70937
G1 X152.33 Y153.90 E65.72160
G1 X152.09 Y153.84 E65.73476
G1 X151.87 Y153.76 E65.74714
G1 X151.66 Y153.63 E65.75999
G1 X151.48 Y153.47 E65.77285
G1 X151.34 Y153.29 E65.78534
G1 X151.22 Y153.08 E65.79820
G1 X151.14 Y152.86 E65.81081
G1 X151.10 Y152.61 E65.82430
G1 X151.09 Y152.48 E65.83103
G1 X151.10 Y152.40 E65.83530
G1 X151.14 Y152.14 E65.84922
G1 X151.22 Y151.92 E65.86183
G1 X151.34 Y151.71 E65.87469
G0 F6000 X150.98 Y151.47
;TYPE:WALL-OUTER
G1 F2700 X151.18 Y151.23 E65.89128
G1 X151.41 Y151.02 E65.90796
G1 X151.68 Y150.86 E65.92453
G1 X151.96 Y150.75 E65.94105
G1 X152.26 Y150.68 E65.95759
G1 X152.58 Y150.67 E65.97442
G1 X152.88 Y150.71 E65.99079
G1 X153.18 Y150.80 E66.00752
G1 X153.46 Y150.94 E66.02423
G1 X153.71 Y151.12 E66.04061
G1 X153.93 Y151.35 E66.05753
G1 X154.10 Y151.60 E66.07395
G1 X154.23 Y151.89 E66.09065
G1 X154.31 Y152.19 E66.10731
G1 X154.34 Y152.50 E66.12381
G1 X154.31 Y152.81 E66.14031
G1 X154.23 Y153.11 E66.15697
G1 X154.10 Y153.40 E66.17367
G1 X153.93 Y153.65 E66.18990
G1 X153.71 Y153.88 E66.20701
G1 X153.46 Y154.06 E66.22338
G1 X153.20 Y154.19 E66.23907
G1 X152.88 Y154.29 E66.25675
G1 X152.58 Y154.33 E66.27317
G1 X152.26 Y154.32 E66.29000
G1 X151.96 Y154.25 E66.30654
G1 X151.68 Y154.14 E66.32307
G1 X151.41 Y153.98 E66.33963
G1 X151.18 Y153.77 E66.35631
G1 X150.98 Y153.53 E66.37290
G1 X150.83 Y153.25 E66.38968
G1 X150.72 Y152.96 E66.40619
G1 X150.67 Y152.65 E66.42304
G1 X150.66 Y152.49 E66.43164
G1 X150.67 Y152.35 E66.43918
G1 X150.72 Y152.04 E66.45603
G1 X150.83 Y151.75 E66.47254
G1 X150.98 Y151.47 E66.48932
G0 F6000 X151.91 Y152.03
G0 X149.99 Y151.56
;TYPE:SUPPORT
G1 F2700 X149.99 Y143.57 E66.91547
G0 F6000 X150.02 Y143.74
G0 X152.85 Y143.71
G0 X152.85 Y143.55
G1 F2700 X152.85 Y149.84 E67.25151
G0 F6000 X152.87 Y149.68
G0 X151.17 Y149.86
G0 X149.81 Y151.28
G0 X149.64 Y153.24
G0 X149.84 Y153.50
G0 X149.99 Y153.44
G1 F2700 X149.99 Y161.25 E67.66822
G0 F6000 X150.03 Y161.09
G0 X152.85 Y161.31
G0 X152.85 Y161.48
G1 F2700 X152.85 Y155.16 E68.00570
G0 F6000 X152.87 Y155.32
G0 X155.63 Y160.92
G0 X155.71 Y161.06
G1 F2700 X155.71 Y143.56 E68.94005
G0 F6000 X155.63 Y143.71
G0 X158.45 Y145.61
G0 X158.56 Y145.50
G1 F2700 X158.56 Y159.33 E69.67866
G0 F6000 X158.45 Y159.22
G0 X161.31 Y154.96
G0 X161.42 Y155.07
G1 F2700 X161.42 Y149.75 E69.96270
G0 F6000 X161.31 Y149.87
G0 X147.25 Y145.01
G0 X147.13 Y144.90
G1 F2700 X147.13 Y159.93 E70.76510
G0 F6000 X147.25 Y159.81
G0 X144.39 Y156.56
G0 X144.28 Y156.67
G1 F2700 X144.28 Y148.15 E71.21976
;LAYER:1
G0 F6000 X152.40 Y152.45 Z0.50
;TYPE:WALL-INNER
G1 F540 X152.40 Y152.44 E71.22036
G1 X152.45 Y152.40 E71.22258
G1 X152.49 Y152.38 E71.22389
G1 X152.50 Y152.38 E71.22439
G1 X152.56 Y152.40 E71.22649
G1 X152.60 Y152.44 E71.22873
G1 X152.62 Y152.48 E71.23020
G1 X152.62 Y152.50 E71.23085
G1 X152.61 Y152.53 E71.23211
G1 X152.58 Y152.59 E71.23429
G1 X152.56 Y152.60 E71.23492
G1 X152.50 Y152.62 E71.23728
G1 X152.45 Y152.60 E71.23907
G1 X152.42 Y152.58 E71.24055
G1 X152.40 Y152.56 E71.24131
G1 X152.40 Y152.55 E71.24191
G1 X152.38 Y152.50 E71.24375
G1 X152.40 Y152.45 E71.24559
G0 F6000 X152.05 Y152.20
G1 F540 X152.10 Y152.12 E71.24893
G1 X152.17 Y152.06 E71.25221
G1 X152.26 Y152.01 E71.25563
G1 X152.43 Y151.96 E71.26210
G1 X152.53 Y151.95 E71.26552
G1 X152.61 Y151.97 E71.26850
G1 X152.71 Y152.00 E71.27218
G1 X152.78 Y152.03 E71.27506
G1 X152.86 Y152.09 E71.27873
G1 X152.93 Y152.16 E71.28195
G1 X152.98 Y152.24 E71.28523
G1 X153.01 Y152.32 E71.28843
G1 X153.04 Y152.41 E71.29196
G1 X153.05 Y152.50 E71.29507
G1 X153.04 Y152.59 E71.29818
G1 X153.01 Y152.68 E71.30171
G1 X152.98 Y152.76 E71.30479
G1 X152.86 Y152.91 E71.31139
G1 X152.73 Y152.99 E71.31700
G1 X152.53 Y153.05 E71.32454
G1 X152.43 Y153.04 E71.32796
G1 X152.26 Y152.99 E71.33443
G1 X152.17 Y152.94 E71.33785
G1 X152.10 Y152.88 E71.34113
G1 X152.04 Y152.80 E71.34454
G1 X152.00 Y152.73 E71.34752
G1 X151.97 Y152.63 E71.35110
G1 X151.95 Y152.52 E71.35522
G1 X151.95 Y152.49 E71.35640
G1 X151.97 Y152.37 E71.36077
G1 X152.05 Y152.20 E71.36738
G0 F6000 X151.69 Y151.96
G1 F540 X151.80 Y151.82 E71.37346
G1 X151.92 Y151.71 E71.37933
G1 X152.06 Y151.63 E71.38502
G1 X152.22 Y151.57 E71.39104
G1 X152.38 Y151.53 E71.39690
G1 X152.54 Y151.53 E71.40275
G1 X152.70 Y151.55 E71.40863
G1 X152.86 Y151.59 E71.41458
G1 X153.01 Y151.67 E71.42054
G1 X153.15 Y151.77 E71.42637
G1 X153.26 Y151.88 E71.43208
G1 X153.35 Y152.02 E71.43810
G1 X153.42 Y152.18 E71.44400
G1 X153.46 Y152.34 E71.44996
G1 X153.48 Y152.50 E71.45578
G1 X153.46 Y152.66 E71.46157
G1 X153.42 Y152.82 E71.46757
G1 X153.35 Y152.97 E71.47334
G1 X153.26 Y153.12 E71.47949
G1 X153.15 Y153.23 E71.48520
G1 X153.01 Y153.33 E71.49100
G1 X152.90 Y153.39 E71.49574
G1 X152.69 Y153.46 E71.50334
G1 X152.54 Y153.47 E71.50880
G1 X152.38 Y153.47 E71.51464
G1 X152.22 Y153.43 E71.52050
G1 X152.06 Y153.37 E71.52652
G1 X151.92 Y153.29 E71.53221
G1 X151.80 Y153.18 E71.53809
G1 X151.69 Y153.04 E71.54416
G1 X151.61 Y152.90 E71.54993
G1 X151.56 Y152.75 E71.55581
G1 X151.52 Y152.56 E71.56267
G1 X151.52 Y152.49 E71.56509
G1 X151.52 Y152.44 E71.56666
G1 X151.56 Y152.25 E71.57359
G1 X151.61 Y152.10 E71.57947
G1 X151.69 Y151.96 E71.58523
G0 F6000 X151.34 Y151.71
G1 F540 X151.48 Y151.53 E71.59356
G1 X151.66 Y151.37 E71.60213
G1 X151.87 Y151.24 E71.61070
G1 X152.09 Y151.16 E71.61895
G1 X152.33 Y151.10 E71.62773
G1 X152.56 Y151.10 E71.63588
G1 X152.80 Y151.13 E71.64468
G1 X153.02 Y151.19 E71.65289
G1 X153.24 Y151.30 E71.66150
G1 X153.43 Y151.44 E71.66992
G1 X153.59 Y151.62 E71.67841
G1 X153.73 Y151.82 E71.68704
G1 X153.82 Y152.03 E71.69539
G1 X153.88 Y152.26 E71.70386
G1 X153.91 Y152.50 E71.71236
G1 X153.88 Y152.74 E71.72086
G1 X153.82 Y152.97 E71.72933
G1 X153.73 Y153.18 E71.73767
G1 X153.59 Y153.38 E71.74631
G1 X153.43 Y153.56 E71.75479
G1 X153.24 Y153.70 E71.76321
G1 X153.06 Y153.78 E71.77026
G1 X152.79 Y153.87 E71.78045
G1 X152.56 Y153.90 E71.78881
G1 X152.33 Y153.90 E71.79697
G1 X152.09 Y153.84 E71.80574
G1 X151.87 Y153.76 E71.81399
G1 X151.66 Y153.63 E71.82256
G1 X151.48 Y153.47 E71.83113
G1 X151.34 Y153.29 E71.83946
G1 X151.22 Y153.08 E71.84803
G1 X151.14 Y152.86 E71.85644
G1 X151.10 Y152.61 E71.86543
G1 X151.09 Y152.47 E71.87017
G1 X151.10 Y152.40 E71.87277
G1 X151.14 Y152.14 E71.88205
G1 X151.22 Y151.92 E71.89045
G1 X151.34 Y151.71 E71.89903
G0 F6000 X150.98 Y151.47
;TYPE:WALL-OUTER
G1 F540 X151.18 Y151.23 E71.91009
G1 X151.41 Y151.02 E71.92121
G1 X151.68 Y150.86 E71.93225
G1 X151.96 Y150.75 E71.94327
G1 X152.26 Y150.68 E71.95429
G1 X152.58 Y150.67 E71.96551
G1 X152.88 Y150.71 E71.97642
G1 X153.18 Y150.80 E71.98758
G1 X153.46 Y150.94 E71.99872
G1 X153.71 Y151.12 E72.00964
G1 X153.93 Y151.35 E72.02092
G1 X154.10 Y151.60 E72.03186
G1 X154.23 Y151.89 E72.04300
G1 X154.31 Y152.19 E72.05410
G1 X154.34 Y152.50 E72.06511
G1 X154.31 Y152.81 E72.07611
G1 X154.23 Y153.11 E72.08721
G1 X154.10 Y153.40 E72.09835
G1 X153.93 Y153.65 E72.10917
G1 X153.71 Y153.88 E72.12057
G1 X153.46 Y154.06 E72.13149
G1 X153.22 Y154.18 E72.14110
G1 X152.88 Y154.29 E72.15386
G1 X152.58 Y154.33 E72.16467
G1 X152.26 Y154.32 E72.17588
G1 X151.96 Y154.25 E72.18691
G1 X151.68 Y154.14 E72.19793
G1 X151.41 Y153.98 E72.20897
G1 X151.18 Y153.77 E72.22009
G1 X150.98 Y153.53 E72.23115
G1 X150.83 Y153.25 E72.24234
G1 X150.72 Y152.96 E72.25335
G1 X150.67 Y152.65 E72.26454
G1 X150.66 Y152.48 E72.27070
G1 X150.67 Y152.35 E72.27533
G1 X150.72 Y152.04 E72.28657
G1 X150.83 Y151.75 E72.29757
G1 X150.98 Y151.47 E72.30876
G0 F6000 X151.91 Y152.03
G0 X149.99 Y151.56
;TYPE:SUPPORT
G1 F540 X149.99 Y143.57 E72.59293
G0 F6000 X150.02 Y143.74
G0 X152.85 Y143.71
G0 X152.85 Y143.55
G1 F540 X152.85 Y149.84 E72.81696
G0 F6000 X152.87 Y149.68
G0 X151.17 Y149.86
G0 X149.81 Y151.28
G0 X149.64 Y153.24
G0 X149.84 Y153.50
G0 X149.99 Y153.44
G1 F540 X149.99 Y161.25 E73.09476
G0 F6000 X150.03 Y161.09
G0 X152.85 Y161.31
G0 X152.85 Y161.48
G1 F540 X152.85 Y155.16 E73.31972
G0 F6000 X152.87 Y155.32
G0 X155.63 Y160.92
G0 X155.71 Y161.06
G1 F540 X155.71 Y143.56 E73.94262
G0 F6000 X155.63 Y143.71
G0 X158.45 Y145.61
G0 X158.56 Y145.50
G1 F540 X158.56 Y159.33 E74.43502
G0 F6000 X158.45 Y159.22
G0 X161.31 Y154.96
G0 X161.42 Y155.07
G1 F540 X161.42 Y149.75 E74.62439
G0 F6000 X161.31 Y149.87
G0 X147.25 Y145.01
G0 X147.13 Y144.90
G1 F540 X147.13 Y159.93 E75.15932
G0 F6000 X147.25 Y159.81
G0 X144.39 Y156.56
G0 X144.28 Y156.67
G1 F540 X144.28 Y148.15 E75.46242
;LAYER:2
G0 F6000 X152.40 Y152.45 Z0.70
;TYPE:WALL-INNER
G1 F540 X152.40 Y152.44 E75.46303
G1 X152.45 Y152.40 E75.46525
G1 X152.49 Y152.38 E75.46656
G1 X152.50 Y152.38 E75.46706
G1 X152.56 Y152.40 E75.46915
G1 X152.60 Y152.44 E75.47139
G1 X152.62 Y152.48 E75.47287
G1 X152.62 Y152.50 E75.47351
G1 X152.61 Y152.53 E75.47478
G1 X152.58 Y152.59 E75.47696
G1 X152.54 Y152.61 E75.47834
G1 X152.50 Y152.62 E75.47997
G1 X152.45 Y152.60 E75.48177
G1 X152.42 Y152.58 E75.48325
G1 X152.40 Y152.56 E75.48401
G1 X152.39 Y152.53 E75.48547
G1 X152.38 Y152.50 E75.48645
G1 X152.40 Y152.45 E75.48829
G0 F6000 X152.05 Y152.20
G1 F540 X152.10 Y152.12 E75.49163
G1 X152.17 Y152.06 E75.49491
G1 X152.26 Y152.01 E75.49832
G1 X152.43 Y151.96 E75.50480
G1 X152.53 Y151.95 E75.50822
G1 X152.61 Y151.97 E75.51120
G1 X152.71 Y152.00 E75.51488
G1 X152.78 Y152.03 E75.51776
G1 X152.86 Y152.09 E75.52143
G1 X152.93 Y152.16 E75.52465
G1 X152.98 Y152.24 E75.52793
G1 X153.01 Y152.32 E75.53113
G1 X153.04 Y152.41 E75.53466
G1 X153.05 Y152.50 E75.53777
G1 X153.04 Y152.59 E75.54088
G1 X153.01 Y152.68 E75.54441
G1 X152.98 Y152.76 E75.54748
G1 X152.86 Y152.91 E75.55409
G1 X152.78 Y152.97 E75.55776
G1 X152.71 Y153.00 E75.56064
G1 X152.61 Y153.03 E75.56432
G1 X152.53 Y153.05 E75.56730
G1 X152.43 Y153.04 E75.57072
G1 X152.26 Y152.99 E75.57719
G1 X152.17 Y152.94 E75.58061
G1 X152.10 Y152.88 E75.58389
G1 X152.04 Y152.80 E75.58731
G1 X152.00 Y152.73 E75.59029
G1 X151.97 Y152.63 E75.59387
G1 X151.95 Y152.50 E75.59869
G1 X151.95 Y152.48 E75.59940
G1 X151.97 Y152.37 E75.60352
G1 X152.05 Y152.20 E75.61014
G0 F6000 X151.69 Y151.96
G1 F540 X151.80 Y151.82 E75.61621
G1 X151.92 Y151.71 E75.62209
G1 X152.06 Y151.63 E75.62778
G1 X152.22 Y151.57 E75.63380
G1 X152.38 Y151.53 E75.63966
G1 X152.54 Y151.53 E75.64550
G1 X152.70 Y151.55 E75.65139
G1 X152.86 Y151.59 E75.65734
G1 X153.01 Y151.67 E75.66329
G1 X153.15 Y151.77 E75.66912
G1 X153.26 Y151.88 E75.67484
G1 X153.35 Y152.02 E75.68086
G1 X153.42 Y152.18 E75.68675
G1 X153.46 Y152.34 E75.69272
G1 X153.48 Y152.50 E75.69854
G1 X153.46 Y152.66 E75.70433
G1 X153.42 Y152.82 E75.71033
G1 X153.35 Y152.97 E75.71609
G1 X153.26 Y153.12 E75.72224
G1 X153.15 Y153.23 E75.72796
G1 X153.01 Y153.33 E75.73379
G1 X152.86 Y153.41 E75.73974
G1 X152.70 Y153.45 E75.74569
G1 X152.54 Y153.47 E75.75158
G1 X152.38 Y153.47 E75.75742
G1 X152.22 Y153.43 E75.76328
G1 X152.06 Y153.37 E75.76930
G1 X151.92 Y153.29 E75.77499
G1 X151.80 Y153.18 E75.78087
G1 X151.69 Y153.04 E75.78694
G1 X151.61 Y152.90 E75.79271
G1 X151.56 Y152.75 E75.79859
G1 X151.52 Y152.56 E75.80548
G1 X151.52 Y152.50 E75.80748
G1 X151.52 Y152.44 E75.80947
G1 X151.56 Y152.25 E75.81637
G1 X151.61 Y152.10 E75.82225
G1 X151.69 Y151.96 E75.82802
G0 F6000 X151.34 Y151.71
G1 F540 X151.48 Y151.53 E75.83634
G1 X151.66 Y151.37 E75.84492
G1 X151.87 Y151.24 E75.85348
G1 X152.09 Y151.16 E75.86173
G1 X152.33 Y151.10 E75.87051
G1 X152.56 Y151.10 E75.87866
G1 X152.80 Y151.13 E75.88746
G1 X153.02 Y151.19 E75.89567
G1 X153.24 Y151.30 E75.90429
G1 X153.43 Y151.44 E75.91271
G1 X153.59 Y151.62 E75.92119
G1 X153.73 Y151.82 E75.92982
G1 X153.82 Y152.03 E75.93817
G1 X153.88 Y152.26 E75.94664
G1 X153.91 Y152.50 E75.95514
G1 X153.88 Y152.74 E75.96364
G1 X153.82 Y152.97 E75.97211
G1 X153.73 Y153.18 E75.98046
G1 X153.59 Y153.38 E75.98909
G1 X153.43 Y153.56 E75.99757
G1 X153.24 Y153.70 E76.00599
G1 X153.02 Y153.81 E76.01461
G1 X152.80 Y153.87 E76.02282
G1 X152.56 Y153.90 E76.03162
G1 X152.33 Y153.90 E76.03977
G1 X152.09 Y153.84 E76.04855
G1 X151.87 Y153.76 E76.05680
G1 X151.66 Y153.63 E76.06536
G1 X151.48 Y153.47 E76.07394
G1 X151.34 Y153.29 E76.08226
G1 X151.22 Y153.08 E76.09084
G1 X151.14 Y152.86 E76.09924
G1 X151.10 Y152.60 E76.10852
G1 X151.09 Y152.50 E76.11205
G1 X151.10 Y152.40 E76.11558
G1 X151.14 Y152.14 E76.12486
G1 X151.22 Y151.92 E76.13326
G1 X151.34 Y151.71 E76.14184
G0 F6000 X150.98 Y151.47
;TYPE:WALL-OUTER
G1 F540 X151.18 Y151.23 E76.15290
G1 X151.41 Y151.02 E76.16402
G1 X151.68 Y150.86 E76.17506
G1 X151.96 Y150.75 E76.18608
G1 X152.26 Y150.68 E76.19710
G1 X152.58 Y150.67 E76.20832
G1 X152.88 Y150.71 E76.21923
G1 X153.18 Y150.80 E76.23039
G1 X153.46 Y150.94 E76.24153
G1 X153.71 Y151.12 E76.25245
G1 X153.93 Y151.35 E76.26373
G1 X154.10 Y151.60 E76.27467
G1 X154.23 Y151.89 E76.28581
G1 X154.31 Y152.19 E76.29692
G1 X154.34 Y152.50 E76.30792
G1 X154.31 Y152.81 E76.31892
G1 X154.23 Y153.11 E76.33002
G1 X154.10 Y153.40 E76.34116
G1 X153.93 Y153.65 E76.35198
G1 X153.71 Y153.88 E76.36338
G1 X153.46 Y154.06 E76.37430
G1 X153.18 Y154.20 E76.38544
G1 X152.88 Y154.29 E76.39660
G1 X152.58 Y154.33 E76.40750
G1 X152.26 Y154.32 E76.41872
G1 X151.96 Y154.25 E76.42975
G1 X151.68 Y154.14 E76.44077
G1 X151.41 Y153.98 E76.45181
G1 X151.18 Y153.77 E76.46293
G1 X150.98 Y153.53 E76.47399
G1 X150.83 Y153.25 E76.48518
G1 X150.72 Y152.96 E76.49619
G1 X150.67 Y152.65 E76.50738
G1 X150.66 Y152.50 E76.51280
G1 X150.67 Y152.35 E76.51821
G1 X150.72 Y152.04 E76.52941
G1 X150.83 Y151.75 E76.54042
G1 X150.98 Y151.47 E76.55160
G0 F6000 X151.91 Y152.03
G0 X149.99 Y151.56
;TYPE:SUPPORT
G1 F540 X149.99 Y143.57 E76.83567
G0 F6000 X150.02 Y143.74
G0 X152.85 Y143.71
G0 X152.85 Y143.55
G1 F540 X152.85 Y149.84 E77.05970
G0 F6000 X152.87 Y149.68
G0 X151.17 Y149.86
G0 X149.81 Y151.28
G0 X149.64 Y153.24
G0 X149.84 Y153.50
G0 X149.99 Y153.44
G1 F540 X149.99 Y161.25 E77.33743
G0 F6000 X150.03 Y161.09
G0 X152.85 Y161.31
G0 X152.85 Y161.48
G1 F540 X152.85 Y155.16 E77.56242
G0 F6000 X152.87 Y155.32
G0 X155.63 Y160.92
G0 X155.71 Y161.06
G1 F540 X155.71 Y143.56 E78.18532
G0 F6000 X155.63 Y143.71
G0 X158.45 Y145.61
G0 X158.56 Y145.50
G1 F540 X158.56 Y159.33 E78.67772
G0 F6000 X158.45 Y159.22
G0 X161.31 Y154.96
G0 X161.42 Y155.07
G1 F540 X161.42 Y149.75 E78.86709
G0 F6000 X161.31 Y149.87
G0 X147.25 Y145.01
G0 X147.13 Y144.90
G1 F540 X147.13 Y159.93 E79.40202
G0 F6000 X147.25 Y159.81
G0 X144.39 Y156.56
G0 X144.28 Y156.67
G1 F540 X144.28 Y148.15 E79.70512
;LAYER:3
G0 F6000 X152.40 Y152.45 Z0.90
;TYPE:WALL-INNER
G1 F540 X152.40 Y152.44 E79.70573
G1 X152.45 Y152.40 E79.70795
G1 X152.49 Y152.38 E79.70926
G1 X152.50 Y152.38 E79.70976
G1 X152.56 Y152.40 E79.71185
G1 X152.60 Y152.44 E79.71409
G1 X152.62 Y152.48 E79.71557
G1 X152.62 Y152.50 E79.71621
G1 X152.61 Y152.53 E79.71748
G1 X152.58 Y152.59 E79.71966
G1 X152.54 Y152.61 E79.72104
G1 X152.50 Y152.62 E79.72267
G1 X152.45 Y152.60 E79.72447
G1 X152.42 Y152.58 E79.72595
G1 X152.40 Y152.56 E79.72671
G1 X152.39 Y152.53 E79.72817
G1 X152.38 Y152.50 E79.72915
G1 X152.40 Y152.45 E79.73099
G0 F6000 X152.05 Y152.20
G1 F540 X152.10 Y152.12 E79.73433
G1 X152.17 Y152.06 E79.73761
G1 X152.26 Y152.01 E79.74103
G1 X152.43 Y151.96 E79.74750
G1 X152.53 Y151.95 E79.75092
G1 X152.61 Y151.97 E79.75390
G1 X152.71 Y152.00 E79.75758
G1 X152.78 Y152.03 E79.76046
G1 X152.86 Y152.09 E79.76413
G1 X152.93 Y152.16 E79.76735
G1 X152.98 Y152.24 E79.77063
G1 X153.01 Y152.32 E79.77383
G1 X153.04 Y152.41 E79.77736
G1 X153.05 Y152.50 E79.78047
G1 X153.04 Y152.59 E79.78358
G1 X153.01 Y152.68 E79.78711
G1 X152.98 Y152.76 E79.79018
G1 X152.86 Y152.91 E79.79679
G1 X152.78 Y152.97 E79.80046
G1 X152.71 Y153.00 E79.80334
G1 X152.61 Y153.03 E79.80702
G1 X152.53 Y153.05 E79.81000
G1 X152.43 Y153.04 E79.81342
G1 X152.26 Y152.99 E79.81989
G1 X152.17 Y152.94 E79.82331
G1 X152.10 Y152.88 E79.82659
G1 X152.04 Y152.80 E79.83001
G1 X152.00 Y152.73 E79.83299
G1 X151.97 Y152.63 E79.83657
G1 X151.95 Y152.50 E79.84139
G1 X151.95 Y152.48 E79.84211
G1 X151.97 Y152.37 E79.84623
G1 X152.05 Y152.20 E79.85284
G0 F6000 X151.69 Y151.96
G1 F540 X151.80 Y151.82 E79.85891
G1 X151.92 Y151.71 E79.86479
G1 X152.06 Y151.63 E79.87048
G1 X152.22 Y151.57 E79.87650
G1 X152.38 Y151.53 E79.88236
G1 X152.54 Y151.53 E79.88820
G1 X152.70 Y151.55 E79.89409
G1 X152.86 Y151.59 E79.90004
G1 X153.01 Y151.67 E79.90599
G1 X153.15 Y151.77 E79.91182
G1 X153.26 Y151.88 E79.91754
G1 X153.35 Y152.02 E79.92356
G1 X153.42 Y152.18 E79.92945
G1 X153.46 Y152.34 E79.93542
G1 X153.48 Y152.50 E79.94124
G1 X153.46 Y152.66 E79.94703
G1 X153.42 Y152.82 E79.95303
G1 X153.35 Y152.97 E79.95879
G1 X153.26 Y153.12 E79.96494
G1 X153.15 Y153.23 E79.97066
G1 X153.01 Y153.33 E79.97649
G1 X152.86 Y153.41 E79.98244
G1 X152.70 Y153.45 E79.98839
G1 X152.54 Y153.47 E79.99428
G1 X152.38 Y153.47 E80.00012
G1 X152.22 Y153.43 E80.00598
G1 X152.06 Y153.37 E80.01200
G1 X151.92 Y153.29 E80.01769
G1 X151.80 Y153.18 E80.02357
G1 X151.69 Y153.04 E80.02964
G1 X151.61 Y152.90 E80.03541
G1 X151.56 Y152.75 E80.04129
G1 X151.52 Y152.56 E80.04819
G1 X151.52 Y152.50 E80.05018
G1 X151.52 Y152.44 E80.05217
G1 X151.56 Y152.25 E80.05907
G1 X151.61 Y152.10 E80.06495
G1 X151.69 Y151.96 E80.07072
G0 F6000 X151.34 Y151.71
G1 F540 X151.48 Y151.53 E80.07904
G1 X151.66 Y151.37 E80.08762
G1 X151.87 Y151.24 E80.09618
G1 X152.09 Y151.16 E80.10443
G1 X152.33 Y151.10 E80.11321
G1 X152.56 Y151.10 E80.12136
G1 X152.80 Y151.13 E80.13016
G1 X153.02 Y151.19 E80.13838
G1 X153.24 Y151.30 E80.14699
G1 X153.43 Y151.44 E80.15541
G1 X153.59 Y151.62 E80.16389
G1 X153.73 Y151.82 E80.17253
G1 X153.82 Y152.03 E80.18087
G1 X153.88 Y152.26 E80.18934
G1 X153.91 Y152.50 E80.19784
G1 X153.88 Y152.74 E80.20634
G1 X153.82 Y152.97 E80.21481
G1 X153.73 Y153.18 E80.22316
G1 X153.59 Y153.38 E80.23179
G1 X153.43 Y153.56 E80.24028
G1 X153.24 Y153.70 E80.24870
G1 X153.02 Y153.81 E80.25731
G1 X152.80 Y153.87 E80.26552
G1 X152.56 Y153.90 E80.27432
G1 X152.33 Y153.90 E80.28247
G1 X152.09 Y153.84 E80.29125
G1 X151.87 Y153.76 E80.29950
G1 X151.66 Y153.63 E80.30807
G1 X151.48 Y153.47 E80.31664
G1 X151.34 Y153.29 E80.32497
G1 X151.22 Y153.08 E80.33354
G1 X151.14 Y152.86 E80.34195
G1 X151.10 Y152.60 E80.35123
G1 X151.09 Y152.50 E80.35475
G1 X151.10 Y152.40 E80.35828
G1 X151.14 Y152.14 E80.36756
G1 X151.22 Y151.92 E80.37596
G1 X151.34 Y151.71 E80.38454
G0 F6000 X150.98 Y151.47
;TYPE:WALL-OUTER
G1 F540 X151.18 Y151.23 E80.39560
G1 X151.41 Y151.02 E80.40672
G1 X151.68 Y150.86 E80.41776
G1 X151.96 Y150.75 E80.42878
G1 X152.26 Y150.68 E80.43981
G1 X152.58 Y150.67 E80.45103
G1 X152.88 Y150.71 E80.46193
G1 X153.18 Y150.80 E80.47309
G1 X153.46 Y150.94 E80.48423
G1 X153.71 Y151.12 E80.49515
G1 X153.93 Y151.35 E80.50643
G1 X154.10 Y151.60 E80.51737
G1 X154.23 Y151.89 E80.52851
G1 X154.31 Y152.19 E80.53962
G1 X154.34 Y152.50 E80.55062
G1 X154.31 Y152.81 E80.56162
G1 X154.23 Y153.11 E80.57273
G1 X154.10 Y153.40 E80.58386
G1 X153.93 Y153.65 E80.59468
G1 X153.71 Y153.88 E80.60608
G1 X153.46 Y154.06 E80.61700
G1 X153.18 Y154.20 E80.62814
G1 X152.88 Y154.29 E80.63930
G1 X152.58 Y154.33 E80.65020
G1 X152.26 Y154.32 E80.66142
G1 X151.96 Y154.25 E80.67245
G1 X151.68 Y154.14 E80.68347
G1 X151.41 Y153.98 E80.69451
G1 X151.18 Y153.77 E80.70563
G1 X150.98 Y153.53 E80.71669
G1 X150.83 Y153.25 E80.72788
G1 X150.72 Y152.96 E80.73889
G1 X150.67 Y152.65 E80.75009
G1 X150.66 Y152.50 E80.75550
G1 X150.67 Y152.35 E80.76091
G1 X150.72 Y152.04 E80.77211
G1 X150.83 Y151.75 E80.78312
G1 X150.98 Y151.47 E80.79431
G0 F6000 X151.91 Y152.03
G0 X149.99 Y151.56
;TYPE:SUPPORT
G1 F540 X149.99 Y143.57 E81.07837
G0 F6000 X150.02 Y143.74
G0 X152.85 Y143.71
G0 X152.85 Y143.55
G1 F540 X152.85 Y149.84 E81.30240
G0 F6000 X152.87 Y149.68
G0 X151.17 Y149.86
G0 X149.81 Y151.28
G0 X149.64 Y153.24
G0 X149.84 Y153.50
G0 X149.99 Y153.44
G1 F540 X149.99 Y161.25 E81.58013
G0 F6000 X150.03 Y161.09
G0 X152.85 Y161.31
G0 X152.85 Y161.48
G1 F540 X152.85 Y155.16 E81.80512
G0 F6000 X152.87 Y155.32
G0 X155.63 Y160.92
G0 X155.71 Y161.06
G1 F540 X155.71 Y143.56 E82.42802
G0 F6000 X155.63 Y143.71
G0 X158.45 Y145.61
G0 X158.56 Y145.50
G1 F540 X158.56 Y159.33 E82.92042
G0 F6000 X158.45 Y159.22
G0 X161.31 Y154.96
G0 X161.42 Y155.07
G1 F540 X161.42 Y149.75 E83.10979
G0 F6000 X161.31 Y149.87
G0 X147.25 Y145.01
G0 X147.13 Y144.90
G1 F540 X147.13 Y159.93 E83.64472
G0 F6000 X147.25 Y159.81
G0 X144.39 Y156.56
G0 X144.28 Y156.67
G1 F540 X144.28 Y148.15 E83.94782
;LAYER:4
G0 F6000 X152.40 Y152.45 Z1.10
;TYPE:WALL-INNER
G1 F600 X152.40 Y152.44 E83.94843
G1 X152.45 Y152.40 E83.95065
G1 X152.49 Y152.38 E83.95196
G1 X152.50 Y152.38 E83.95246
G1 X152.56 Y152.40 E83.95456
G1 X152.60 Y152.44 E83.95680
G1 X152.62 Y152.48 E83.95827
G1 X152.62 Y152.50 E83.95891
G1 X152.61 Y152.53 E83.96018
G1 X152.58 Y152.59 E83.96236
G1 X152.54 Y152.61 E83.96374
G1 X152.50 Y152.62 E83.96537
G1 X152.45 Y152.60 E83.96717
G1 X152.42 Y152.58 E83.96865
G1 X152.40 Y152.56 E83.96941
G1 X152.39 Y152.53 E83.97087
G1 X152.38 Y152.50 E83.97185
G1 X152.40 Y152.45 E83.97369
G0 F6000 X152.05 Y152.20
G1 F600 X152.10 Y152.12 E83.97703
G1 X152.17 Y152.06 E83.98031
G1 X152.26 Y152.01 E83.98373
G1 X152.43 Y151.96 E83.99020
G1 X152.53 Y151.95 E83.99362
G1 X152.61 Y151.97 E83.99660
G1 X152.71 Y152.00 E84.00028
G1 X152.78 Y152.03 E84.00316
G1 X152.86 Y152.09 E84.00683
G1 X152.93 Y152.16 E84.01005
G1 X152.98 Y152.24 E84.01333
G1 X153.01 Y152.32 E84.01653
G1 X153.04 Y152.41 E84.02006
G1 X153.05 Y152.50 E84.02317
G1 X153.04 Y152.59 E84.02628
G1 X153.01 Y152.68 E84.02981
G1 X152.98 Y152.76 E84.03288
G1 X152.86 Y152.91 E84.03949
G1 X152.78 Y152.97 E84.04316
G1 X152.71 Y153.00 E84.04604
G1 X152.61 Y153.03 E84.04972
G1 X152.53 Y153.05 E84.05270
G1 X152.43 Y153.04 E84.05612
G1 X152.26 Y152.99 E84.06260
G1 X152.17 Y152.94 E84.06601
G1 X152.10 Y152.88 E84.06929
G1 X152.04 Y152.80 E84.07271
G1 X152.00 Y152.73 E84.07569
G1 X151.97 Y152.63 E84.07927
G1 X151.95 Y152.50 E84.08409
G1 X151.95 Y152.48 E84.08481
G1 X151.97 Y152.37 E84.08893
G1 X152.05 Y152.20 E84.09554
G0 F6000 X151.69 Y151.96
G1 F600 X151.80 Y151.82 E84.10161
G1 X151.92 Y151.71 E84.10749
G1 X152.06 Y151.63 E84.11318
G1 X152.22 Y151.57 E84.11920
G1 X152.38 Y151.53 E84.12506
G1 X152.54 Y151.53 E84.13090
G1 X152.70 Y151.55 E84.13679
G1 X152.86 Y151.59 E84.14274
G1 X153.01 Y151.67 E84.14870
G1 X153.15 Y151.77 E84.15453
G1 X153.26 Y151.88 E84.16024
G1 X153.35 Y152.02 E84.16626
G1 X153.42 Y152.18 E84.17215
G1 X153.46 Y152.34 E84.17812
G1 X153.48 Y152.50 E84.18394
G1 X153.46 Y152.66 E84.18973
G1 X153.42 Y152.82 E84.19573
G1 X153.35 Y152.97 E84.20149
G1 X153.26 Y153.12 E84.20764
G1 X153.15 Y153.23 E84.21336
G1 X153.01 Y153.33 E84.21919
G1 X152.86 Y153.41 E84.22514
G1 X152.70 Y153.45 E84.23110
G1 X152.54 Y153.47 E84.23698
G1 X152.38 Y153.47 E84.24282
G1 X152.22 Y153.43 E84.24868
G1 X152.06 Y153.37 E84.25471
G1 X151.92 Y153.29 E84.26039
G1 X151.80 Y153.18 E84.26627
G1 X151.69 Y153.04 E84.27234
G1 X151.61 Y152.90 E84.27811
G1 X151.56 Y152.75 E84.28399
G1 X151.52 Y152.56 E84.29089
G1 X151.52 Y152.50 E84.29288
G1 X151.52 Y152.44 E84.29488
G1 X151.56 Y152.25 E84.30177
G1 X151.61 Y152.10 E84.30765
G1 X151.69 Y151.96 E84.31342
G0 F6000 X151.34 Y151.71
G1 F600 X151.48 Y151.53 E84.32174
G1 X151.66 Y151.37 E84.33032
G1 X151.87 Y151.24 E84.33888
G1 X152.09 Y151.16 E84.34714
G1 X152.33 Y151.10 E84.35591
G1 X152.56 Y151.10 E84.36407
G1 X152.80 Y151.13 E84.37286
G1 X153.02 Y151.19 E84.38108
G1 X153.24 Y151.30 E84.38969
G1 X153.43 Y151.44 E84.39811
G1 X153.59 Y151.62 E84.40659
G1 X153.73 Y151.82 E84.41523
G1 X153.82 Y152.03 E84.42357
G1 X153.88 Y152.26 E84.43204
G1 X153.91 Y152.50 E84.44054
G1 X153.88 Y152.74 E84.44904
G1 X153.82 Y152.97 E84.45751
G1 X153.73 Y153.18 E84.46586
G1 X153.59 Y153.38 E84.47449
G1 X153.43 Y153.56 E84.48298
G1 X153.24 Y153.70 E84.49140
G1 X153.02 Y153.81 E84.50001
G1 X152.80 Y153.87 E84.50823
G1 X152.56 Y153.90 E84.51702
G1 X152.33 Y153.90 E84.52518
G1 X152.09 Y153.84 E84.53395
G1 X151.87 Y153.76 E84.54220
G1 X151.66 Y153.63 E84.55077
G1 X151.48 Y153.47 E84.55934
G1 X151.34 Y153.29 E84.56767
G1 X151.22 Y153.08 E84.57624
G1 X151.14 Y152.86 E84.58465
G1 X151.10 Y152.60 E84.59393
G1 X151.09 Y152.50 E84.59745
G1 X151.10 Y152.40 E84.60098
G1 X151.14 Y152.14 E84.61026
G1 X151.22 Y151.92 E84.61867
G1 X151.34 Y151.71 E84.62724
G0 F6000 X150.98 Y151.47
;TYPE:WALL-OUTER
G1 F600 X151.18 Y151.23 E84.63830
G1 X151.41 Y151.02 E84.64942
G1 X151.68 Y150.86 E84.66046
G1 X151.96 Y150.75 E84.67148
G1 X152.26 Y150.68 E84.68251
G1 X152.58 Y150.67 E84.69373
G1 X152.88 Y150.71 E84.70463
G1 X153.18 Y150.80 E84.71579
G1 X153.46 Y150.94 E84.72693
G1 X153.71 Y151.12 E84.73785
G1 X153.93 Y151.35 E84.74913
G1 X154.10 Y151.60 E84.76007
G1 X154.23 Y151.89 E84.77121
G1 X154.31 Y152.19 E84.78232
G1 X154.34 Y152.50 E84.79332
G1 X154.31 Y152.81 E84.80432
G1 X154.23 Y153.11 E84.81543
G1 X154.10 Y153.40 E84.82656
G1 X153.93 Y153.65 E84.83738
G1 X153.71 Y153.88 E84.84878
G1 X153.46 Y154.06 E84.85970
G1 X153.18 Y154.20 E84.87084
G1 X152.88 Y154.29 E84.88200
G1 X152.58 Y154.33 E84.89291
G1 X152.26 Y154.32 E84.90413
G1 X151.96 Y154.25 E84.91515
G1 X151.68 Y154.14 E84.92617
G1 X151.41 Y153.98 E84.93721
G1 X151.18 Y153.77 E84.94833
G1 X150.98 Y153.53 E84.95940
G1 X150.83 Y153.25 E84.97058
G1 X150.72 Y152.96 E84.98159
G1 X150.67 Y152.65 E84.99279
G1 X150.66 Y152.50 E84.99820
G1 X150.67 Y152.35 E85.00361
G1 X150.72 Y152.04 E85.01481
G1 X150.83 Y151.75 E85.02582
G1 X150.98 Y151.47 E85.03701
G0 F6000 X151.91 Y152.03
G0 X149.99 Y151.56
;TYPE:SUPPORT
G1 F600 X149.99 Y143.57 E85.32107
G0 F6000 X150.02 Y143.74
G0 X152.85 Y143.71
G0 X152.85 Y143.55
G1 F600 X152.85 Y149.84 E85.54510
G0 F6000 X152.87 Y149.68
G0 X151.17 Y149.86
G0 X149.81 Y151.28
G0 X149.64 Y153.24
G0 X149.84 Y153.50
G0 X149.99 Y153.44
G1 F600 X149.99 Y161.25 E85.82283
G0 F6000 X150.03 Y161.09
G0 X152.85 Y161.31
G0 X152.85 Y161.48
G1 F600 X152.85 Y155.16 E86.04782
G0 F6000 X152.87 Y155.32
G0 X155.63 Y160.92
G0 X155.71 Y161.06
G1 F600 X155.71 Y143.56 E86.67072
G0 F6000 X155.63 Y143.71
G0 X158.45 Y145.61
G0 X158.56 Y145.50
G1 F600 X158.56 Y159.33 E87.16313
G0 F6000 X158.45 Y159.22
G0 X161.31 Y154.96
G0 X161.42 Y155.07
G1 F600 X161.42 Y149.75 E87.35249
G0 F6000 X161.31 Y149.87
G0 X147.25 Y145.01
G0 X147.13 Y144.90
G1 F600 X147.13 Y159.93 E87.88742
G0 F6000 X147.25 Y159.81
G0 X144.39 Y156.56
G0 X144.28 Y156.67
G1 F600 X144.28 Y148.15 E88.19053
;LAYER:5
G0 F6000 X152.40 Y152.45 Z1.30
;TYPE:WALL-INNER
G1 F600 X152.40 Y152.44 E88.19113
G1 X152.45 Y152.40 E88.19335
G1 X152.49 Y152.38 E88.19466
G1 X152.50 Y152.38 E88.19516
G1 X152.56 Y152.40 E88.19726
G1 X152.60 Y152.44 E88.19950
G1 X152.62 Y152.48 E88.20097
G1 X152.62 Y152.50 E88.20162
G1 X152.61 Y152.53 E88.20288
G1 X152.58 Y152.59 E88.20506
G1 X152.54 Y152.61 E88.20644
G1 X152.50 Y152.62 E88.20808
G1 X152.45 Y152.60 E88.20987
G1 X152.42 Y152.58 E88.21135
G1 X152.40 Y152.56 E88.21211
G1 X152.39 Y152.53 E88.21358
G1 X152.38 Y152.50 E88.21455
G1 X152.40 Y152.45 E88.21639
G0 F6000 X152.05 Y152.20
G1 F600 X152.10 Y152.12 E88.21973
G1 X152.17 Y152.06 E88.22301
G1 X152.26 Y152.01 E88.22643
G1 X152.43 Y151.96 E88.23290
G1 X152.53 Y151.95 E88.23632
G1 X152.61 Y151.97 E88.23930
G1 X152.71 Y152.00 E88.24298
G1 X152.78 Y152.03 E88.24586
G1 X152.86 Y152.09 E88.24953
G1 X152.93 Y152.16 E88.25275
G1 X152.98 Y152.24 E88.25603
G1 X153.01 Y152.32 E88.25923
G1 X153.04 Y152.41 E88.26276
G1 X153.05 Y152.50 E88.26587
G1 X153.04 Y152.59 E88.26898
G1 X153.01 Y152.68 E88.27251
G1 X152.98 Y152.76 E88.27559
G1 X152.86 Y152.91 E88.28219
G1 X152.78 Y152.97 E88.28586
G1 X152.71 Y153.00 E88.28874
G1 X152.61 Y153.03 E88.29242
G1 X152.53 Y153.05 E88.29540
G1 X152.43 Y153.04 E88.29882
G1 X152.26 Y152.99 E88.30530
G1 X152.17 Y152.94 E88.30871
G1 X152.10 Y152.88 E88.31199
G1 X152.04 Y152.80 E88.31541
G1 X152.00 Y152.73 E88.31839
G1 X151.97 Y152.63 E88.32197
G1 X151.95 Y152.50 E88.32680
G1 X151.95 Y152.48 E88.32751
G1 X151.97 Y152.37 E88.33163
G1 X152.05 Y152.20 E88.33824
G0 F6000 X151.69 Y151.96
G1 F600 X151.80 Y151.82 E88.34432
G1 X151.92 Y151.71 E88.35019
G1 X152.06 Y151.63 E88.35588
G1 X152.22 Y151.57 E88.36190
G1 X152.38 Y151.53 E88.36776
G1 X152.54 Y151.53 E88.37361
G1 X152.70 Y151.55 E88.37949
G1 X152.86 Y151.59 E88.38544
G1 X153.01 Y151.67 E88.39140
G1 X153.15 Y151.77 E88.39723
G1 X153.26 Y151.88 E88.40294
G1 X153.35 Y152.02 E88.40896
G1 X153.42 Y152.18 E88.41486
G1 X153.46 Y152.34 E88.42082
G1 X153.48 Y152.50 E88.42664
G1 X153.46 Y152.66 E88.43243
G1 X153.42 Y152.82 E88.43843
G1 X153.35 Y152.97 E88.44420
G1 X153.26 Y153.12 E88.45035
G1 X153.15 Y153.23 E88.45606
G1 X153.01 Y153.33 E88.46189
G1 X152.86 Y153.41 E88.46784
G1 X152.70 Y153.45 E88.47380
G1 X152.54 Y153.47 E88.47968
G1 X152.38 Y153.47 E88.48552
G1 X152.22 Y153.43 E88.49139
G1 X152.06 Y153.37 E88.49741
G1 X151.92 Y153.29 E88.50310
G1 X151.80 Y153.18 E88.50897
G1 X151.69 Y153.04 E88.51505
G1 X151.61 Y152.90 E88.52082
G1 X151.56 Y152.75 E88.52669
G1 X151.52 Y152.56 E88.53359
G1 X151.52 Y152.50 E88.53558
G1 X151.52 Y152.44 E88.53758
G1 X151.56 Y152.25 E88.54447
G1 X151.61 Y152.10 E88.55035
G1 X151.69 Y151.96 E88.55612
G0 F6000 X151.34 Y151.71
G1 F600 X151.48 Y151.53 E88.56445
G1 X151.66 Y151.37 E88.57302
G1 X151.87 Y151.24 E88.58158
G1 X152.09 Y151.16 E88.58984
G1 X152.33 Y151.10 E88.59861
G1 X152.56 Y151.10 E88.60677
G1 X152.80 Y151.13 E88.61556
G1 X153.02 Y151.19 E88.62378
G1 X153.24 Y151.30 E88.63239
G1 X153.43 Y151.44 E88.64081
G1 X153.59 Y151.62 E88.64929
G1 X153.73 Y151.82 E88.65793
G1 X153.82 Y152.03 E88.66628
G1 X153.88 Y152.26 E88.67474
G1 X153.91 Y152.50 E88.68324
G1 X153.88 Y152.74 E88.69174
G1 X153.82 Y152.97 E88.70021
G1 X153.73 Y153.18 E88.70856
G1 X153.59 Y153.38 E88.71720
G1 X153.43 Y153.56 E88.72568
G1 X153.24 Y153.70 E88.73410
G1 X153.02 Y153.81 E88.74271
G1 X152.80 Y153.87 E88.75093
G1 X152.56 Y153.90 E88.75972
G1 X152.33 Y153.90 E88.76788
G1 X152.09 Y153.84 E88.77665
G1 X151.87 Y153.76 E88.78491
G1 X151.66 Y153.63 E88.79347
G1 X151.48 Y153.47 E88.80204
G1 X151.34 Y153.29 E88.81037
G1 X151.22 Y153.08 E88.81894
G1 X151.14 Y152.86 E88.82735
G1 X151.10 Y152.60 E88.83663
G1 X151.09 Y152.50 E88.84015
G1 X151.10 Y152.40 E88.84368
G1 X151.14 Y152.14 E88.85296
G1 X151.22 Y151.92 E88.86137
G1 X151.34 Y151.71 E88.86994
G0 F6000 X150.98 Y151.47
;TYPE:WALL-OUTER
G1 F600 X151.18 Y151.23 E88.88100
G1 X151.41 Y151.02 E88.89212
G1 X151.68 Y150.86 E88.90316
G1 X151.96 Y150.75 E88.91418
G1 X152.26 Y150.68 E88.92521
G1 X152.58 Y150.67 E88.93643
G1 X152.88 Y150.71 E88.94734
G1 X153.18 Y150.80 E88.95849
G1 X153.46 Y150.94 E88.96963
G1 X153.71 Y151.12 E88.98055
G1 X153.93 Y151.35 E88.99183
G1 X154.10 Y151.60 E89.00278
G1 X154.23 Y151.89 E89.01391
G1 X154.31 Y152.19 E89.02502
G1 X154.34 Y152.50 E89.03602
G1 X154.31 Y152.81 E89.04702
G1 X154.23 Y153.11 E89.05813
G1 X154.10 Y153.40 E89.06926
G1 X153.93 Y153.65 E89.08008
G1 X153.71 Y153.88 E89.09148
G1 X153.46 Y154.06 E89.10240
G1 X153.18 Y154.20 E89.11354
G1 X152.88 Y154.29 E89.12470
G1 X152.58 Y154.33 E89.13561
G1 X152.26 Y154.32 E89.14683
G1 X151.96 Y154.25 E89.15786
G1 X151.68 Y154.14 E89.16887
G1 X151.41 Y153.98 E89.17991
G1 X151.18 Y153.77 E89.19104
G1 X150.98 Y153.53 E89.20210
G1 X150.83 Y153.25 E89.21328
G1 X150.72 Y152.96 E89.22429
G1 X150.67 Y152.65 E89.23549
G1 X150.66 Y152.50 E89.24090
G1 X150.67 Y152.35 E89.24632
G1 X150.72 Y152.04 E89.25751
G1 X150.83 Y151.75 E89.26852
G1 X150.98 Y151.47 E89.27971
G0 F6000 X151.91 Y152.03
G0 X149.99 Y151.56
;TYPE:SUPPORT
G1 F600 X149.99 Y143.57 E89.56377
G0 F6000 X150.02 Y143.74
G0 X152.85 Y143.71
G0 X152.85 Y143.55
G1 F600 X152.85 Y149.84 E89.78780
G0 F6000 X152.87 Y149.68
G0 X151.17 Y149.86
G0 X149.81 Y151.28
G0 X149.64 Y153.24
G0 X149.84 Y153.50
G0 X149.99 Y153.44
G1 F600 X149.99 Y161.25 E90.06553
G0 F6000 X150.03 Y161.09
G0 X152.85 Y161.31
G0 X152.85 Y161.48
G1 F600 X152.85 Y155.16 E90.29052
G0 F6000 X152.87 Y155.32
G0 X155.63 Y160.92
G0 X155.71 Y161.06
G1 F600 X155.71 Y143.56 E90.91343
G0 F6000 X155.63 Y143.71
G0 X158.45 Y145.61
G0 X158.56 Y145.50
G1 F600 X158.56 Y159.33 E91.40583
G0 F6000 X158.45 Y159.22
G0 X161.31 Y154.96
G0 X161.42 Y155.07
G1 F600 X161.42 Y149.75 E91.59519
G0 F6000 X161.31 Y149.87
G0 X147.25 Y145.01
G0 X147.13 Y144.90
G1 F600 X147.13 Y159.93 E92.13012
G0 F6000 X147.25 Y159.81
G0 X144.39 Y156.56
G0 X144.28 Y156.67
G1 F600 X144.28 Y148.15 E92.43323
;LAYER:6
G0 F6000 X152.40 Y152.45 Z1.50
;TYPE:WALL-INNER
G1 F600 X152.40 Y152.44 E92.43383
G1 X152.45 Y152.40 E92.43605
G1 X152.49 Y152.38 E92.43736
G1 X152.50 Y152.38 E92.43786
G1 X152.56 Y152.40 E92.43996
G1 X152.60 Y152.44 E92.44220
G1 X152.62 Y152.48 E92.44367
G1 X152.62 Y152.50 E92.44432
G1 X152.61 Y152.53 E92.44558
G1 X152.58 Y152.59 E92.44776
G1 X152.54 Y152.61 E92.44914
G1 X152.50 Y152.62 E92.45078
G1 X152.45 Y152.60 E92.45257
G1 X152.42 Y152.58 E92.45405
G1 X152.40 Y152.56 E92.45481
G1 X152.39 Y152.53 E92.45628
G1 X152.38 Y152.50 E92.45725
G1 X152.40 Y152.45 E92.45909
G0 F6000 X152.05 Y152.20
G1 F600 X152.10 Y152.12 E92.46243
G1 X152.17 Y152.06 E92.46571
G1 X152.26 Y152.01 E92.46913
G1 X152.43 Y151.96 E92.47560
G1 X152.53 Y151.95 E92.47902
G1 X152.61 Y151.97 E92.48200
G1 X152.71 Y152.00 E92.48568
G1 X152.78 Y152.03 E92.48857
G1 X152.86 Y152.09 E92.49223
G1 X152.93 Y152.16 E92.49545
G1 X152.98 Y152.24 E92.49873
G1 X153.01 Y152.32 E92.50193
G1 X153.04 Y152.41 E92.50546
G1 X153.05 Y152.50 E92.50857
G1 X153.04 Y152.59 E92.51168
G1 X153.01 Y152.68 E92.51521
G1 X152.98 Y152.76 E92.51829
G1 X152.86 Y152.91 E92.52490
G1 X152.78 Y152.97 E92.52856
G1 X152.71 Y153.00 E92.53144
G1 X152.61 Y153.03 E92.53512
G1 X152.53 Y153.05 E92.53810
G1 X152.43 Y153.04 E92.54152
G1 X152.26 Y152.99 E92.54800
G1 X152.17 Y152.94 E92.55142
G1 X152.10 Y152.88 E92.55469
G1 X152.04 Y152.80 E92.55811
G1 X152.00 Y152.73 E92.56109
G1 X151.97 Y152.63 E92.56467
G1 X151.95 Y152.50 E92.56950
G1 X151.95 Y152.48 E92.57021
G1 X151.97 Y152.37 E92.57433
G1 X152.05 Y152.20 E92.58094
G0 F6000 X151.69 Y151.96
G1 F600 X151.80 Y151.82 E92.58702
G1 X151.92 Y151.71 E92.59289
G1 X152.06 Y151.63 E92.59858
G1 X152.22 Y151.57 E92.60460
G1 X152.38 Y151.53 E92.61046
G1 X152.54 Y151.53 E92.61631
G1 X152.70 Y151.55 E92.62219
G1 X152.86 Y151.59 E92.62815
G1 X153.01 Y151.67 E92.63410
G1 X153.15 Y151.77 E92.63993
G1 X153.26 Y151.88 E92.64564
G1 X153.35 Y152.02 E92.65166
G1 X153.42 Y152.18 E92.65756
G1 X153.46 Y152.34 E92.66352
G1 X153.48 Y152.50 E92.66934
G1 X153.46 Y152.66 E92.67513
G1 X153.42 Y152.82 E92.68113
G1 X153.35 Y152.97 E92.68690
G1 X153.26 Y153.12 E92.69305
G1 X153.15 Y153.23 E92.69876
G1 X153.01 Y153.33 E92.70459
G1 X152.86 Y153.41 E92.71054
G1 X152.70 Y153.45 E92.71650
G1 X152.54 Y153.47 E92.72238
G1 X152.38 Y153.47 E92.72822
G1 X152.22 Y153.43 E92.73409
G1 X152.06 Y153.37 E92.74011
G1 X151.92 Y153.29 E92.74580
G1 X151.80 Y153.18 E92.75167
G1 X151.69 Y153.04 E92.75775
G1 X151.61 Y152.90 E92.76352
G1 X151.56 Y152.75 E92.76939
G1 X151.52 Y152.56 E92.77629
G1 X151.52 Y152.50 E92.77828
G1 X151.52 Y152.44 E92.78028
G1 X151.56 Y152.25 E92.78718
G1 X151.61 Y152.10 E92.79305
G1 X151.69 Y151.96 E92.79882
G0 F6000 X151.34 Y151.71
G1 F600 X151.48 Y151.53 E92.80715
G1 X151.66 Y151.37 E92.81572
G1 X151.87 Y151.24 E92.82428
G1 X152.09 Y151.16 E92.83254
G1 X152.33 Y151.10 E92.84131
G1 X152.56 Y151.10 E92.84947
G1 X152.80 Y151.13 E92.85826
G1 X153.02 Y151.19 E92.86648
G1 X153.24 Y151.30 E92.87509
G1 X153.43 Y151.44 E92.88351
G1 X153.59 Y151.62 E92.89199
G1 X153.73 Y151.82 E92.90063
G1 X153.82 Y152.03 E92.90898
G1 X153.88 Y152.26 E92.91745
G1 X153.91 Y152.50 E92.92594
G1 X153.88 Y152.74 E92.93444
G1 X153.82 Y152.97 E92.94291
G1 X153.73 Y153.18 E92.95126
G1 X153.59 Y153.38 E92.95990
G1 X153.43 Y153.56 E92.96838
G1 X153.24 Y153.70 E92.97680
G1 X153.02 Y153.81 E92.98541
G1 X152.80 Y153.87 E92.99363
G1 X152.56 Y153.90 E93.00242
G1 X152.33 Y153.90 E93.01058
G1 X152.09 Y153.84 E93.01935
G1 X151.87 Y153.76 E93.02761
G1 X151.66 Y153.63 E93.03617
G1 X151.48 Y153.47 E93.04474
G1 X151.34 Y153.29 E93.05307
G1 X151.22 Y153.08 E93.06164
G1 X151.14 Y152.86 E93.07005
G1 X151.10 Y152.60 E93.07933
G1 X151.09 Y152.50 E93.08286
G1 X151.10 Y152.40 E93.08638
G1 X151.14 Y152.14 E93.09566
G1 X151.22 Y151.92 E93.10407
G1 X151.34 Y151.71 E93.11264
G0 F6000 X150.98 Y151.47
;TYPE:WALL-OUTER
G1 F600 X151.18 Y151.23 E93.12370
G1 X151.41 Y151.02 E93.13482
G1 X151.68 Y150.86 E93.14586
G1 X151.96 Y150.75 E93.15688
G1 X152.26 Y150.68 E93.16791
G1 X152.58 Y150.67 E93.17913
G1 X152.88 Y150.71 E93.19004
G1 X153.18 Y150.80 E93.20119
G1 X153.46 Y150.94 E93.21234
G1 X153.71 Y151.12 E93.22325
G1 X153.93 Y151.35 E93.23453
G1 X154.10 Y151.60 E93.24548
G1 X154.23 Y151.89 E93.25661
G1 X154.31 Y152.19 E93.26772
G1 X154.34 Y152.50 E93.27872
G1 X154.31 Y152.81 E93.28972
G1 X154.23 Y153.11 E93.30083
G1 X154.10 Y153.40 E93.31196
G1 X153.93 Y153.65 E93.32278
G1 X153.71 Y153.88 E93.33418
G1 X153.46 Y154.06 E93.34510
G1 X153.18 Y154.20 E93.35624
G1 X152.88 Y154.29 E93.36740
G1 X152.58 Y154.33 E93.37831
G1 X152.26 Y154.32 E93.38953
G1 X151.96 Y154.25 E93.40056
G1 X151.68 Y154.14 E93.41157
G1 X151.41 Y153.98 E93.42262
G1 X151.18 Y153.77 E93.43374
G1 X150.98 Y153.53 E93.44480
G1 X150.83 Y153.25 E93.45598
G1 X150.72 Y152.96 E93.46699
G1 X150.67 Y152.65 E93.47819
G1 X150.66 Y152.50 E93.48360
G1 X150.67 Y152.35 E93.48902
G1 X150.72 Y152.04 E93.50022
G1 X150.83 Y151.75 E93.51122
G1 X150.98 Y151.47 E93.52241
G0 F6000 X151.91 Y152.03
G0 X149.99 Y151.56
;TYPE:SUPPORT
G1 F600 X149.99 Y143.57 E93.80647
G0 F6000 X150.02 Y143.74
G0 X152.85 Y143.71
G0 X152.85 Y143.55
G1 F600 X152.85 Y149.84 E94.03050
G0 F6000 X152.87 Y149.68
G0 X151.17 Y149.86
G0 X149.81 Y151.28
G0 X149.64 Y153.24
G0 X149.84 Y153.50
G0 X149.99 Y153.44
G1 F600 X149.99 Y161.25 E94.30824
G0 F6000 X150.03 Y161.09
G0 X152.85 Y161.31
G0 X152.85 Y161.48
G1 F600 X152.85 Y155.16 E94.53322
G0 F6000 X152.87 Y155.32
G0 X155.63 Y160.92
G0 X155.71 Y161.06
G1 F600 X155.71 Y143.56 E95.15613
G0 F6000 X155.63 Y143.71
G0 X158.45 Y145.61
G0 X158.56 Y145.50
G1 F600 X158.56 Y159.33 E95.64853
G0 F6000 X158.45 Y159.22
G0 X161.31 Y154.96
G0 X161.42 Y155.07
G1 F600 X161.42 Y149.75 E95.83789
G0 F6000 X161.31 Y149.87
G0 X147.25 Y145.01
G0 X147.13 Y144.90
G1 F600 X147.13 Y159.93 E96.37282
G0 F6000 X147.25 Y159.81
G0 X144.39 Y156.56
G0 X144.28 Y156.67
G1 F600 X144.28 Y148.15 E96.67593
;LAYER:7
G0 F6000 X152.40 Y152.45 Z1.70
;TYPE:WALL-INNER
G1 F600 X152.40 Y152.44 E96.67653
G1 X152.45 Y152.40 E96.67876
G1 X152.49 Y152.38 E96.68006
G1 X152.50 Y152.38 E96.68056
G1 X152.56 Y152.40 E96.68266
G1 X152.60 Y152.44 E96.68490
G1 X152.62 Y152.48 E96.68637
G1 X152.62 Y152.50 E96.68702
G1 X152.61 Y152.53 E96.68828
G1 X152.58 Y152.59 E96.69046
G1 X152.54 Y152.61 E96.69185
G1 X152.50 Y152.62 E96.69348
G1 X152.45 Y152.60 E96.69527
G1 X152.42 Y152.58 E96.69675
G1 X152.40 Y152.56 E96.69751
G1 X152.39 Y152.53 E96.69898
G1 X152.38 Y152.50 E96.69996
G1 X152.40 Y152.45 E96.70179
G0 F6000 X152.05 Y152.20
G1 F600 X152.10 Y152.12 E96.70513
G1 X152.17 Y152.06 E96.70841
G1 X152.26 Y152.01 E96.71183
G1 X152.43 Y151.96 E96.71830
G1 X152.53 Y151.95 E96.72172
G1 X152.61 Y151.97 E96.72470
G1 X152.71 Y152.00 E96.72839
G1 X152.78 Y152.03 E96.73127
G1 X152.86 Y152.09 E96.73493
G1 X152.93 Y152.16 E96.73816
G1 X152.98 Y152.24 E96.74143
G1 X153.01 Y152.32 E96.74463
G1 X153.04 Y152.41 E96.74816
G1 X153.05 Y152.50 E96.75127
G1 X153.04 Y152.59 E96.75438
G1 X153.01 Y152.68 E96.75791
G1 X152.98 Y152.76 E96.76099
G1 X152.86 Y152.91 E96.76760
G1 X152.78 Y152.97 E96.77126
G1 X152.71 Y153.00 E96.77414
G1 X152.61 Y153.03 E96.77783
G1 X152.53 Y153.05 E96.78080
G1 X152.43 Y153.04 E96.78423
G1 X152.26 Y152.99 E96.79070
G1 X152.17 Y152.94 E96.79412
G1 X152.10 Y152.88 E96.79739
G1 X152.04 Y152.80 E96.80081
G1 X152.00 Y152.73 E96.80379
G1 X151.97 Y152.63 E96.80737
G1 X151.95 Y152.50 E96.81220
G1 X151.95 Y152.48 E96.81291
G1 X151.97 Y152.37 E96.81703
G1 X152.05 Y152.20 E96.82364
G0 F6000 X151.69 Y151.96
G1 F600 X151.80 Y151.82 E96.82972
G1 X151.92 Y151.71 E96.83559
G1 X152.06 Y151.63 E96.84128
G1 X152.22 Y151.57 E96.84730
G1 X152.38 Y151.53 E96.85317
G1 X152.54 Y151.53 E96.85901
G1 X152.70 Y151.55 E96.86489
G1 X152.86 Y151.59 E96.87085
G1 X153.01 Y151.67 E96.87680
G1 X153.15 Y151.77 E96.88263
G1 X153.26 Y151.88 E96.88834
G1 X153.35 Y152.02 E96.89436
G1 X153.42 Y152.18 E96.90026
G1 X153.46 Y152.34 E96.90622
G1 X153.48 Y152.50 E96.91205
G1 X153.46 Y152.66 E96.91783
G1 X153.42 Y152.82 E96.92383
G1 X153.35 Y152.97 E96.92960
G1 X153.26 Y153.12 E96.93575
G1 X153.15 Y153.23 E96.94146
G1 X153.01 Y153.33 E96.94729
G1 X152.86 Y153.41 E96.95324
G1 X152.70 Y153.45 E96.95920
G1 X152.54 Y153.47 E96.96508
G1 X152.38 Y153.47 E96.97093
G1 X152.22 Y153.43 E96.97679
G1 X152.06 Y153.37 E96.98281
G1 X151.92 Y153.29 E96.98850
G1 X151.80 Y153.18 E96.99437
G1 X151.69 Y153.04 E97.00045
G1 X151.61 Y152.90 E97.00622
G1 X151.56 Y152.75 E97.01209
G1 X151.52 Y152.56 E97.01899
G1 X151.52 Y152.50 E97.02098
G1 X151.52 Y152.44 E97.02298
G1 X151.56 Y152.25 E97.02988
G1 X151.61 Y152.10 E97.03575
G1 X151.69 Y151.96 E97.04152
G0 F6000 X151.34 Y151.71
G1 F600 X151.48 Y151.53 E97.04985
G1 X151.66 Y151.37 E97.05842
G1 X151.87 Y151.24 E97.06698
G1 X152.09 Y151.16 E97.07524
G1 X152.33 Y151.10 E97.08401
G1 X152.56 Y151.10 E97.09217
G1 X152.80 Y151.13 E97.10096
G1 X153.02 Y151.19 E97.10918
G1 X153.24 Y151.30 E97.11779
G1 X153.43 Y151.44 E97.12621
G1 X153.59 Y151.62 E97.13469
G1 X153.73 Y151.82 E97.14333
G1 X153.82 Y152.03 E97.15168
G1 X153.88 Y152.26 E97.16015
G1 X153.91 Y152.50 E97.16865
G1 X153.88 Y152.74 E97.17715
G1 X153.82 Y152.97 E97.18561
G1 X153.73 Y153.18 E97.19396
G1 X153.59 Y153.38 E97.20260
G1 X153.43 Y153.56 E97.21108
G1 X153.24 Y153.70 E97.21950
G1 X153.02 Y153.81 E97.22811
G1 X152.80 Y153.87 E97.23633
G1 X152.56 Y153.90 E97.24512
G1 X152.33 Y153.90 E97.25328
G1 X152.09 Y153.84 E97.26205
G1 X151.87 Y153.76 E97.27031
G1 X151.66 Y153.63 E97.27887
G1 X151.48 Y153.47 E97.28744
G1 X151.34 Y153.29 E97.29577
G1 X151.22 Y153.08 E97.30434
G1 X151.14 Y152.86 E97.31275
G1 X151.10 Y152.60 E97.32203
G1 X151.09 Y152.50 E97.32556
G1 X151.10 Y152.40 E97.32908
G1 X151.14 Y152.14 E97.33836
G1 X151.22 Y151.92 E97.34677
G1 X151.34 Y151.71 E97.35534
G0 F6000 X150.98 Y151.47
;TYPE:WALL-OUTER
G1 F600 X151.18 Y151.23 E97.36640
G1 X151.41 Y151.02 E97.37752
G1 X151.68 Y150.86 E97.38857
G1 X151.96 Y150.75 E97.39958
G1 X152.26 Y150.68 E97.41061
G1 X152.58 Y150.67 E97.42183
G1 X152.88 Y150.71 E97.43274
G1 X153.18 Y150.80 E97.44390
G1 X153.46 Y150.94 E97.45504
G1 X153.71 Y151.12 E97.46596
G1 X153.93 Y151.35 E97.47723
G1 X154.10 Y151.60 E97.48818
G1 X154.23 Y151.89 E97.49931
G1 X154.31 Y152.19 E97.51042
G1 X154.34 Y152.50 E97.52142
G1 X154.31 Y152.81 E97.53242
G1 X154.23 Y153.11 E97.54353
G1 X154.10 Y153.40 E97.55466
G1 X153.93 Y153.65 E97.56548
G1 X153.71 Y153.88 E97.57689
G1 X153.46 Y154.06 E97.58780
G1 X153.18 Y154.20 E97.59895
G1 X152.88 Y154.29 E97.61010
G1 X152.58 Y154.33 E97.62101
G1 X152.26 Y154.32 E97.63223
G1 X151.96 Y154.25 E97.64326
G1 X151.68 Y154.14 E97.65428
G1 X151.41 Y153.98 E97.66532
G1 X151.18 Y153.77 E97.67644
G1 X150.98 Y153.53 E97.68750
G1 X150.83 Y153.25 E97.69868
G1 X150.72 Y152.96 E97.70969
G1 X150.67 Y152.65 E97.72089
G1 X150.66 Y152.50 E97.72630
G1 X150.67 Y152.35 E97.73172
G1 X150.72 Y152.04 E97.74292
G1 X150.83 Y151.75 E97.75392
G1 X150.98 Y151.47 E97.76511
G0 F6000 X151.91 Y152.03
G0 X149.99 Y151.56
;TYPE:SUPPORT
G1 F600 X149.99 Y143.57 E98.04918
G0 F6000 X150.02 Y143.74
G0 X152.85 Y143.71
G0 X152.85 Y143.55
G1 F600 X152.85 Y149.84 E98.27320
G0 F6000 X152.87 Y149.68
G0 X151.17 Y149.86
G0 X149.81 Y151.28
G0 X149.64 Y153.24
G0 X149.84 Y153.50
G0 X149.99 Y153.44
G1 F600 X149.99 Y161.25 E98.55094
G0 F6000 X150.03 Y161.09
G0 X152.85 Y161.31
G0 X152.85 Y161.48
G1 F600 X152.85 Y155.16 E98.77593
G0 F6000 X152.87 Y155.32
G0 X155.63 Y160.92
G0 X155.71 Y161.06
G1 F600 X155.71 Y143.56 E99.39883
G0 F6000 X155.63 Y143.71
G0 X158.45 Y145.61
G0 X158.56 Y145.50
G1 F600 X158.56 Y159.33 E99.89123
G0 F6000 X158.45 Y159.22
G0 X161.31 Y154.96
G0 X161.42 Y155.07
G1 F600 X161.42 Y149.75 E100.08059
G0 F6000 X161.31 Y149.87
G0 X147.25 Y145.01
G0 X147.13 Y144.90
G1 F600 X147.13 Y159.93 E100.61552
G0 F6000 X147.25 Y159.81
G0 X144.39 Y156.56
G0 X144.28 Y156.67
G1 F600 X144.28 Y148.15 E100.91863
;LAYER:8
G0 F6000 X152.40 Y152.45 Z1.90
;TYPE:WALL-INNER
G1 F600 X152.40 Y152.44 E100.91923
G1 X152.45 Y152.40 E100.92146
G1 X152.49 Y152.38 E100.92276
G1 X152.50 Y152.38 E100.92326
G1 X152.56 Y152.40 E100.92536
G1 X152.60 Y152.44 E100.92760
G1 X152.62 Y152.48 E100.92907
G1 X152.62 Y152.50 E100.92972
G1 X152.61 Y152.53 E100.93098
G1 X152.58 Y152.59 E100.93316
G1 X152.54 Y152.61 E100.93455
G1 X152.50 Y152.62 E100.93618
G1 X152.45 Y152.60 E100.93797
G1 X152.42 Y152.58 E100.93946
G1 X152.40 Y152.56 E100.94021
G1 X152.39 Y152.53 E100.94168
G1 X152.38 Y152.50 E100.94266
G1 X152.40 Y152.45 E100.94450
G0 F6000 X152.05 Y152.20
G1 F600 X152.10 Y152.12 E100.94784
G1 X152.17 Y152.06 E100.95111
G1 X152.26 Y152.01 E100.95453
G1 X152.43 Y151.96 E100.96100
G1 X152.53 Y151.95 E100.96443
G1 X152.61 Y151.97 E100.96741
G1 X152.71 Y152.00 E100.97109
G1 X152.78 Y152.03 E100.97397
G1 X152.86 Y152.09 E100.97763
G1 X152.93 Y152.16 E100.98086
G1 X152.98 Y152.24 E100.98413
G1 X153.01 Y152.32 E100.98734
G1 X153.04 Y152.41 E100.99087
G1 X153.05 Y152.50 E100.99398
G1 X153.04 Y152.59 E100.99708
G1 X153.01 Y152.68 E101.00061
G1 X152.98 Y152.76 E101.00369
G1 X152.86 Y152.91 E101.01030
G1 X152.78 Y152.97 E101.01396
G1 X152.71 Y153.00 E101.01684
G1 X152.61 Y153.03 E101.02053
G1 X152.53 Y153.05 E101.02351
G1 X152.43 Y153.04 E101.02693
G1 X152.26 Y152.99 E101.03340
G1 X152.17 Y152.94 E101.03682
G1 X152.10 Y152.88 E101.04010
G1 X152.04 Y152.80 E101.04351
G1 X152.00 Y152.73 E101.04649
G1 X151.97 Y152.63 E101.05007
G1 X151.95 Y152.50 E101.05490
G1 X151.95 Y152.48 E101.05561
G1 X151.97 Y152.37 E101.05973
G1 X152.05 Y152.20 E101.06634
G0 F6000 X151.69 Y151.96
G1 F600 X151.80 Y151.82 E101.07242
G1 X151.92 Y151.71 E101.07829
G1 X152.06 Y151.63 E101.08398
G1 X152.22 Y151.57 E101.09000
G1 X152.38 Y151.53 E101.09587
G1 X152.54 Y151.53 E101.10171
G1 X152.70 Y151.55 E101.10759
G1 X152.86 Y151.59 E101.11355
G1 X153.01 Y151.67 E101.11950
G1 X153.15 Y151.77 E101.12533
G1 X153.26 Y151.88 E101.13104
G1 X153.35 Y152.02 E101.13707
G1 X153.42 Y152.18 E101.14296
G1 X153.46 Y152.34 E101.14892
G1 X153.48 Y152.50 E101.15475
G1 X153.46 Y152.66 E101.16053
G1 X153.42 Y152.82 E101.16653
G1 X153.35 Y152.97 E101.17230
G1 X153.26 Y153.12 E101.17845
G1 X153.15 Y153.23 E101.18416
G1 X153.01 Y153.33 E101.18999
G1 X152.86 Y153.41 E101.19595
G1 X152.70 Y153.45 E101.20190
G1 X152.54 Y153.47 E101.20778
G1 X152.38 Y153.47 E101.21363
G1 X152.22 Y153.43 E101.21949
G1 X152.06 Y153.37 E101.22551
G1 X151.92 Y153.29 E101.23120
G1 X151.80 Y153.18 E101.23707
G1 X151.69 Y153.04 E101.24315
G1 X151.61 Y152.90 E101.24892
G1 X151.56 Y152.75 E101.25479
G1 X151.52 Y152.56 E101.26169
G1 X151.52 Y152.50 E101.26369
G1 X151.52 Y152.44 E101.26568
G1 X151.56 Y152.25 E101.27258
G1 X151.61 Y152.10 E101.27845
G1 X151.69 Y151.96 E101.28422
G0 F6000 X151.34 Y151.71
G1 F600 X151.48 Y151.53 E101.29255
G1 X151.66 Y151.37 E101.30112
G1 X151.87 Y151.24 E101.30969
G1 X152.09 Y151.16 E101.31794
G1 X152.33 Y151.10 E101.32671
G1 X152.56 Y151.10 E101.33487
G1 X152.80 Y151.13 E101.34366
G1 X153.02 Y151.19 E101.35188
G1 X153.24 Y151.30 E101.36049
G1 X153.43 Y151.44 E101.36891
G1 X153.59 Y151.62 E101.37740
G1 X153.73 Y151.82 E101.38603
G1 X153.82 Y152.03 E101.39438
G1 X153.88 Y152.26 E101.40285
G1 X153.91 Y152.50 E101.41135
G1 X153.88 Y152.74 E101.41985
G1 X153.82 Y152.97 E101.42832
G1 X153.73 Y153.18 E101.43666
G1 X153.59 Y153.38 E101.44530
G1 X153.43 Y153.56 E101.45378
G1 X153.24 Y153.70 E101.46220
G1 X153.02 Y153.81 E101.47081
G1 X152.80 Y153.87 E101.47903
G1 X152.56 Y153.90 E101.48782
G1 X152.33 Y153.90 E101.49598
G1 X152.09 Y153.84 E101.50475
G1 X151.87 Y153.76 E101.51301
G1 X151.66 Y153.63 E101.52157
G1 X151.48 Y153.47 E101.53015
G1 X151.34 Y153.29 E101.53847
G1 X151.22 Y153.08 E101.54704
G1 X151.14 Y152.86 E101.55545
G1 X151.10 Y152.60 E101.56473
G1 X151.09 Y152.50 E101.56826
G1 X151.10 Y152.40 E101.57178
G1 X151.14 Y152.14 E101.58106
G1 X151.22 Y151.92 E101.58947
G1 X151.34 Y151.71 E101.59804
G0 F6000 X150.98 Y151.47
;TYPE:WALL-OUTER
G1 F600 X151.18 Y151.23 E101.60910
G1 X151.41 Y151.02 E101.62023
G1 X151.68 Y150.86 E101.63127
G1 X151.96 Y150.75 E101.64228
G1 X152.26 Y150.68 E101.65331
G1 X152.58 Y150.67 E101.66453
G1 X152.88 Y150.71 E101.67544
G1 X153.18 Y150.80 E101.68660
G1 X153.46 Y150.94 E101.69774
G1 X153.71 Y151.12 E101.70866
G1 X153.93 Y151.35 E101.71993
G1 X154.10 Y151.60 E101.73088
G1 X154.23 Y151.89 E101.74201
G1 X154.31 Y152.19 E101.75312
G1 X154.34 Y152.50 E101.76412
G1 X154.31 Y152.81 E101.77512
G1 X154.23 Y153.11 E101.78623
G1 X154.10 Y153.40 E101.79737
G1 X153.93 Y153.65 E101.80818
G1 X153.71 Y153.88 E101.81959
G1 X153.46 Y154.06 E101.83051
G1 X153.18 Y154.20 E101.84165
G1 X152.88 Y154.29 E101.85280
G1 X152.58 Y154.33 E101.86371
G1 X152.26 Y154.32 E101.87493
G1 X151.96 Y154.25 E101.88596
G1 X151.68 Y154.14 E101.89698
G1 X151.41 Y153.98 E101.90802
G1 X151.18 Y153.77 E101.91914
G1 X150.98 Y153.53 E101.93020
G1 X150.83 Y153.25 E101.94139
G1 X150.72 Y152.96 E101.95239
G1 X150.67 Y152.65 E101.96359
G1 X150.66 Y152.50 E101.96901
G1 X150.67 Y152.35 E101.97442
G1 X150.72 Y152.04 E101.98562
G1 X150.83 Y151.75 E101.99663
G1 X150.98 Y151.47 E102.00781
G0 F6000 X151.91 Y152.03
G0 X149.99 Y151.56
;TYPE:SUPPORT
G1 F600 X149.99 Y143.57 E102.29188
G0 F6000 X150.02 Y143.74
G0 X152.85 Y143.71
G0 X152.85 Y143.55
G1 F600 X152.85 Y149.84 E102.51591
G0 F6000 X152.87 Y149.68
G0 X151.17 Y149.86
G0 X149.81 Y151.28
G0 X149.64 Y153.24
G0 X149.84 Y153.50
G0 X149.99 Y153.44
G1 F600 X149.99 Y161.25 E102.79364
G0 F6000 X150.03 Y161.09
G0 X152.85 Y161.31
G0 X152.85 Y161.48
G1 F600 X152.85 Y155.16 E103.01863
G0 F6000 X152.87 Y155.32
G0 X155.63 Y160.92
G0 X155.71 Y161.06
G1 F600 X155.71 Y143.56 E103.64153
G0 F6000 X155.63 Y143.71
G0 X158.45 Y145.61
G0 X158.56 Y145.50
G1 F600 X158.56 Y159.33 E104.13393
G0 F6000 X158.45 Y159.22
G0 X161.31 Y154.96
G0 X161.42 Y155.07
G1 F600 X161.42 Y149.75 E104.32330
G0 F6000 X161.31 Y149.87
G0 X147.25 Y145.01
G0 X147.13 Y144.90
G1 F600 X147.13 Y159.93 E104.85822
G0 F6000 X147.25 Y159.81
G0 X144.39 Y156.56
G0 X144.28 Y156.67
G1 F600 X144.28 Y148.15 E105.16133
;LAYER:9
G0 F6000 X152.40 Y152.45 Z2.10
;TYPE:WALL-INNER
G1 F600 X152.40 Y152.44 E105.16194
G1 X152.45 Y152.40 E105.16416
G1 X152.49 Y152.38 E105.16546
G1 X152.50 Y152.38 E105.16596
G1 X152.56 Y152.40 E105.16806
G1 X152.60 Y152.44 E105.17030
G1 X152.62 Y152.48 E105.17178
G1 X152.62 Y152.50 E105.17242
G1 X152.61 Y152.53 E105.17368
G1 X152.58 Y152.59 E105.17587
G1 X152.54 Y152.61 E105.17725
G1 X152.50 Y152.62 E105.17888
G1 X152.45 Y152.60 E105.18068
G1 X152.42 Y152.58 E105.18216
G1 X152.40 Y152.56 E105.18291
G1 X152.39 Y152.53 E105.18438
G1 X152.38 Y152.50 E105.18536
G1 X152.40 Y152.45 E105.18720
G0 F6000 X152.05 Y152.20
G1 F600 X152.10 Y152.12 E105.19054
G1 X152.17 Y152.06 E105.19382
G1 X152.26 Y152.01 E105.19723
G1 X152.43 Y151.96 E105.20371
G1 X152.53 Y151.95 E105.20713
G1 X152.61 Y151.97 E105.21011
G1 X152.71 Y152.00 E105.21379
G1 X152.78 Y152.03 E105.21667
G1 X152.86 Y152.09 E105.22034
G1 X152.93 Y152.16 E105.22356
G1 X152.98 Y152.24 E105.22684
G1 X153.01 Y152.32 E105.23004
G1 X153.04 Y152.41 E105.23357
G1 X153.05 Y152.50 E105.23668
G1 X153.04 Y152.59 E105.23979
G1 X153.01 Y152.68 E105.24332
G1 X152.98 Y152.76 E105.24639
G1 X152.86 Y152.91 E105.25300
G1 X152.78 Y152.97 E105.25667
G1 X152.71 Y153.00 E105.25955
G1 X152.61 Y153.03 E105.26323
G1 X152.53 Y153.05 E105.26621
G1 X152.43 Y153.04 E105.26963
G1 X152.26 Y152.99 E105.27610
G1 X152.17 Y152.94 E105.27952
G1 X152.10 Y152.88 E105.28280
G1 X152.04 Y152.80 E105.28622
G1 X152.00 Y152.73 E105.28919
G1 X151.97 Y152.63 E105.29277
G1 X151.95 Y152.50 E105.29760
G1 X151.95 Y152.48 E105.29831
G1 X151.97 Y152.37 E105.30243
G1 X152.05 Y152.20 E105.30905
G0 F6000 X151.69 Y151.96
G1 F600 X151.80 Y151.82 E105.31512
G1 X151.92 Y151.71 E105.32100
G1 X152.06 Y151.63 E105.32668
G1 X152.22 Y151.57 E105.33271
G1 X152.38 Y151.53 E105.33857
G1 X152.54 Y151.53 E105.34441
G1 X152.70 Y151.55 E105.35029
G1 X152.86 Y151.59 E105.35625
G1 X153.01 Y151.67 E105.36220
G1 X153.15 Y151.77 E105.36803
G1 X153.26 Y151.88 E105.37375
G1 X153.35 Y152.02 E105.37977
G1 X153.42 Y152.18 E105.38566
G1 X153.46 Y152.34 E105.39163
G1 X153.48 Y152.50 E105.39745
G1 X153.46 Y152.66 E105.40323
G1 X153.42 Y152.82 E105.40923
G1 X153.35 Y152.97 E105.41500
G1 X153.26 Y153.12 E105.42115
G1 X153.15 Y153.23 E105.42686
G1 X153.01 Y153.33 E105.43269
G1 X152.86 Y153.41 E105.43865
G1 X152.70 Y153.45 E105.44460
G1 X152.54 Y153.47 E105.45049
G1 X152.38 Y153.47 E105.45633
G1 X152.22 Y153.43 E105.46219
G1 X152.06 Y153.37 E105.46821
G1 X151.92 Y153.29 E105.47390
G1 X151.80 Y153.18 E105.47978
G1 X151.69 Y153.04 E105.48585
G1 X151.61 Y152.90 E105.49162
G1 X151.56 Y152.75 E105.49750
G1 X151.52 Y152.56 E105.50439
G1 X151.52 Y152.50 E105.50639
G1 X151.52 Y152.44 E105.50838
G1 X151.56 Y152.25 E105.51528
G1 X151.61 Y152.10 E105.52115
G1 X151.69 Y151.96 E105.52692
G0 F6000 X151.34 Y151.71
G1 F600 X151.48 Y151.53 E105.53525
G1 X151.66 Y151.37 E105.54382
G1 X151.87 Y151.24 E105.55239
G1 X152.09 Y151.16 E105.56064
G1 X152.33 Y151.10 E105.56942
G1 X152.56 Y151.10 E105.57757
G1 X152.80 Y151.13 E105.58637
G1 X153.02 Y151.19 E105.59458
G1 X153.24 Y151.30 E105.60319
G1 X153.43 Y151.44 E105.61161
G1 X153.59 Y151.62 E105.62010
G1 X153.73 Y151.82 E105.62873
G1 X153.82 Y152.03 E105.63708
G1 X153.88 Y152.26 E105.64555
G1 X153.91 Y152.50 E105.65405
G1 X153.88 Y152.74 E105.66255
G1 X153.82 Y152.97 E105.67102
G1 X153.73 Y153.18 E105.67936
G1 X153.59 Y153.38 E105.68800
G1 X153.43 Y153.56 E105.69648
G1 X153.24 Y153.70 E105.70490
G1 X153.02 Y153.81 E105.71351
G1 X152.80 Y153.87 E105.72173
G1 X152.56 Y153.90 E105.73053
G1 X152.33 Y153.90 E105.73868
G1 X152.09 Y153.84 E105.74746
G1 X151.87 Y153.76 E105.75571
G1 X151.66 Y153.63 E105.76427
G1 X151.48 Y153.47 E105.77285
G1 X151.34 Y153.29 E105.78117
G1 X151.22 Y153.08 E105.78975
G1 X151.14 Y152.86 E105.79815
G1 X151.10 Y152.60 E105.80743
G1 X151.09 Y152.50 E105.81096
G1 X151.10 Y152.40 E105.81449
G1 X151.14 Y152.14 E105.82376
G1 X151.22 Y151.92 E105.83217
G1 X151.34 Y151.71 E105.84074
G0 F6000 X150.98 Y151.47
;TYPE:WALL-OUTER
G1 F600 X151.18 Y151.23 E105.85181
G1 X151.41 Y151.02 E105.86293
G1 X151.68 Y150.86 E105.87397
G1 X151.96 Y150.75 E105.88499
G1 X152.26 Y150.68 E105.89601
G1 X152.58 Y150.67 E105.90723
G1 X152.88 Y150.71 E105.91814
G1 X153.18 Y150.80 E105.92930
G1 X153.46 Y150.94 E105.94044
G1 X153.71 Y151.12 E105.95136
G1 X153.93 Y151.35 E105.96263
G1 X154.10 Y151.60 E105.97358
G1 X154.23 Y151.89 E105.98471
G1 X154.31 Y152.19 E105.99582
G1 X154.34 Y152.50 E106.00682
G1 X154.31 Y152.81 E106.01782
G1 X154.23 Y153.11 E106.02893
G1 X154.10 Y153.40 E106.04007
G1 X153.93 Y153.65 E106.05088
G1 X153.71 Y153.88 E106.06229
G1 X153.46 Y154.06 E106.07321
G1 X153.18 Y154.20 E106.08435
G1 X152.88 Y154.29 E106.09550
G1 X152.58 Y154.33 E106.10641
G1 X152.26 Y154.32 E106.11763
G1 X151.96 Y154.25 E106.12866
G1 X151.68 Y154.14 E106.13968
G1 X151.41 Y153.98 E106.15072
G1 X151.18 Y153.77 E106.16184
G1 X150.98 Y153.53 E106.17290
G1 X150.83 Y153.25 E106.18409
G1 X150.72 Y152.96 E106.19509
G1 X150.67 Y152.65 E106.20629
G1 X150.66 Y152.50 E106.21171
G1 X150.67 Y152.35 E106.21712
G1 X150.72 Y152.04 E106.22832
G1 X150.83 Y151.75 E106.23933
G1 X150.98 Y151.47 E106.25051
G0 F6000 X151.91 Y152.03
G0 X149.99 Y151.56
;TYPE:SUPPORT
G1 F600 X149.99 Y143.57 E106.53458
G0 F6000 X150.02 Y143.74
G0 X152.85 Y143.71
G0 X152.85 Y143.55
G1 F600 X152.85 Y149.84 E106.75861
G0 F6000 X152.87 Y149.68
G0 X151.17 Y149.86
G0 X149.81 Y151.28
G0 X149.64 Y153.24
G0 X149.84 Y153.50
G0 X149.99 Y153.44
G1 F600 X149.99 Y161.25 E107.03634
G0 F6000 X150.03 Y161.09
G0 X152.85 Y161.31
G0 X152.85 Y161.48
G1 F600 X152.85 Y155.16 E107.26133
G0 F6000 X152.87 Y155.32
G0 X155.63 Y160.92
G0 X155.71 Y161.06
G1 F600 X155.71 Y143.56 E107.88423
G0 F6000 X155.63 Y143.71
G0 X158.45 Y145.61
G0 X158.56 Y145.50
G1 F600 X158.56 Y159.33 E108.37663
G0 F6000 X158.45 Y159.22
G0 X161.31 Y154.96
G0 X161.42 Y155.07
G1 F600 X161.42 Y149.75 E108.56600
G0 F6000 X161.31 Y149.87
G0 X147.25 Y145.01
G0 X147.13 Y144.90
G1 F600 X147.13 Y159.93 E109.10093
G0 F6000 X147.25 Y159.81
G0 X144.39 Y156.56
G0 X144.28 Y156.67
G1 F600 X144.28 Y148.15 E109.40403
;LAYER:10
G0 F6000 X152.40 Y152.45 Z2.30
;TYPE:WALL-INNER
G1 F600 X152.40 Y152.44 E109.40464
G1 X152.45 Y152.40 E109.40686
G1 X152.49 Y152.38 E109.40817
G1 X152.50 Y152.38 E109.40867
G1 X152.56 Y152.40 E109.41076
G1 X152.60 Y152.44 E109.41300
G1 X152.62 Y152.48 E109.41448
G1 X152.62 Y152.50 E109.41512
G1 X152.61 Y152.53 E109.41639
G1 X152.58 Y152.59 E109.41857
G1 X152.54 Y152.61 E109.41995
G1 X152.50 Y152.62 E109.42158
G1 X152.45 Y152.60 E109.42338
G1 X152.42 Y152.58 E109.42486
G1 X152.40 Y152.56 E109.42562
G1 X152.39 Y152.53 E109.42708
G1 X152.38 Y152.50 E109.42806
G1 X152.40 Y152.45 E109.42990
G0 F6000 X152.05 Y152.20
G1 F600 X152.10 Y152.12 E109.43324
G1 X152.17 Y152.06 E109.43652
G1 X152.26 Y152.01 E109.43993
G1 X152.43 Y151.96 E109.44641
G1 X152.53 Y151.95 E109.44983
G1 X152.61 Y151.97 E109.45281
G1 X152.71 Y152.00 E109.45649
G1 X152.78 Y152.03 E109.45937
G1 X152.86 Y152.09 E109.46304
G1 X152.93 Y152.16 E109.46626
G1 X152.98 Y152.24 E109.46954
G1 X153.01 Y152.32 E109.47274
G1 X153.04 Y152.41 E109.47627
G1 X153.05 Y152.50 E109.47938
G1 X153.04 Y152.59 E109.48249
G1 X153.01 Y152.68 E109.48602
G1 X152.98 Y152.76 E109.48909
G1 X152.86 Y152.91 E109.49570
G1 X152.78 Y152.97 E109.49937
G1 X152.71 Y153.00 E109.50225
G1 X152.61 Y153.03 E109.50593
G1 X152.53 Y153.05 E109.50891
G1 X152.43 Y153.04 E109.51233
G1 X152.26 Y152.99 E109.51880
G1 X152.17 Y152.94 E109.52222
G1 X152.10 Y152.88 E109.52550
G1 X152.04 Y152.80 E109.52892
G1 X152.00 Y152.73 E109.53190
G1 X151.97 Y152.63 E109.53548
G1 X151.95 Y152.50 E109.54030
G1 X151.95 Y152.48 E109.54101
G1 X151.97 Y152.37 E109.54513
G1 X152.05 Y152.20 E109.55175
G0 F6000 X151.69 Y151.96
G1 F600 X151.80 Y151.82 E109.55782
G1 X151.92 Y151.71 E109.56370
G1 X152.06 Y151.63 E109.56939
G1 X152.22 Y151.57 E109.57541
G1 X152.38 Y151.53 E109.58127
G1 X152.54 Y151.53 E109.58711
G1 X152.70 Y151.55 E109.59300
G1 X152.86 Y151.59 E109.59895
G1 X153.01 Y151.67 E109.60490
G1 X153.15 Y151.77 E109.61073
G1 X153.26 Y151.88 E109.61645
G1 X153.35 Y152.02 E109.62247
G1 X153.42 Y152.18 E109.62836
G1 X153.46 Y152.34 E109.63433
G1 X153.48 Y152.50 E109.64015
G1 X153.46 Y152.66 E109.64594
G1 X153.42 Y152.82 E109.65194
G1 X153.35 Y152.97 E109.65770
G1 X153.26 Y153.12 E109.66385
G1 X153.15 Y153.23 E109.66957
G1 X153.01 Y153.33 E109.67540
G1 X152.86 Y153.41 E109.68135
G1 X152.70 Y153.45 E109.68730
G1 X152.54 Y153.47 E109.69319
G1 X152.38 Y153.47 E109.69903
G1 X152.22 Y153.43 E109.70489
G1 X152.06 Y153.37 E109.71091
G1 X151.92 Y153.29 E109.71660
G1 X151.80 Y153.18 E109.72248
G1 X151.69 Y153.04 E109.72855
G1 X151.61 Y152.90 E109.73432
G1 X151.56 Y152.75 E109.74020
G1 X151.52 Y152.56 E109.74709
G1 X151.52 Y152.50 E109.74909
G1 X151.52 Y152.44 E109.75108
G1 X151.56 Y152.25 E109.75798
G1 X151.61 Y152.10 E109.76386
G1 X151.69 Y151.96 E109.76963
G0 F6000 X151.34 Y151.71
G1 F600 X151.48 Y151.53 E109.77795
G1 X151.66 Y151.37 E109.78653
G1 X151.87 Y151.24 E109.79509
G1 X152.09 Y151.16 E109.80334
G1 X152.33 Y151.10 E109.81212
G1 X152.56 Y151.10 E109.82027
G1 X152.80 Y151.13 E109.82907
G1 X153.02 Y151.19 E109.83728
G1 X153.24 Y151.30 E109.84590
G1 X153.43 Y151.44 E109.85432
G1 X153.59 Y151.62 E109.86280
G1 X153.73 Y151.82 E109.87143
G1 X153.82 Y152.03 E109.87978
G1 X153.88 Y152.26 E109.88825
G1 X153.91 Y152.50 E109.89675
G1 X153.88 Y152.74 E109.90525
G1 X153.82 Y152.97 E109.91372
G1 X153.73 Y153.18 E109.92207
G1 X153.59 Y153.38 E109.93070
G1 X153.43 Y153.56 E109.93918
G1 X153.24 Y153.70 E109.94760
G1 X153.02 Y153.81 E109.95622
G1 X152.80 Y153.87 E109.96443
G1 X152.56 Y153.90 E109.97323
G1 X152.33 Y153.90 E109.98138
G1 X152.09 Y153.84 E109.99016
G1 X151.87 Y153.76 E109.99841
G1 X151.66 Y153.63 E110.00697
G1 X151.48 Y153.47 E110.01555
G1 X151.34 Y153.29 E110.02387
G1 X151.22 Y153.08 E110.03245
G1 X151.14 Y152.86 E110.04085
G1 X151.10 Y152.60 E110.05013
G1 X151.09 Y152.50 E110.05366
G1 X151.10 Y152.40 E110.05719
G1 X151.14 Y152.14 E110.06647
G1 X151.22 Y151.92 E110.07487
G1 X151.34 Y151.71 E110.08345
G0 F6000 X150.98 Y151.47
;TYPE:WALL-OUTER
G1 F600 X151.18 Y151.23 E110.09451
G1 X151.41 Y151.02 E110.10563
G1 X151.68 Y150.86 E110.11667
G1 X151.96 Y150.75 E110.12769
G1 X152.26 Y150.68 E110.13872
G1 X152.58 Y150.67 E110.14993
G1 X152.88 Y150.71 E110.16084
G1 X153.18 Y150.80 E110.17200
G1 X153.46 Y150.94 E110.18314
G1 X153.71 Y151.12 E110.19406
G1 X153.93 Y151.35 E110.20534
G1 X154.10 Y151.60 E110.21628
G1 X154.23 Y151.89 E110.22742
G1 X154.31 Y152.19 E110.23853
G1 X154.34 Y152.50 E110.24953
G1 X154.31 Y152.81 E110.26053
G1 X154.23 Y153.11 E110.27163
G1 X154.10 Y153.40 E110.28277
G1 X153.93 Y153.65 E110.29359
G1 X153.71 Y153.88 E110.30499
G1 X153.46 Y154.06 E110.31591
G1 X153.18 Y154.20 E110.32705
G1 X152.88 Y154.29 E110.33821
G1 X152.58 Y154.33 E110.34911
G1 X152.26 Y154.32 E110.36033
G1 X151.96 Y154.25 E110.37136
G1 X151.68 Y154.14 E110.38238
G1 X151.41 Y153.98 E110.39342
G1 X151.18 Y153.77 E110.40454
G1 X150.98 Y153.53 E110.41560
G1 X150.83 Y153.25 E110.42679
G1 X150.72 Y152.96 E110.43780
G1 X150.67 Y152.65 E110.44899
G1 X150.66 Y152.50 E110.45441
G1 X150.67 Y152.35 E110.45982
G1 X150.72 Y152.04 E110.47102
G1 X150.83 Y151.75 E110.48203
G1 X150.98 Y151.47 E110.49321
G0 F6000 X151.91 Y152.03
G0 X149.99 Y151.56
;TYPE:SUPPORT
G1 F600 X149.99 Y143.57 E110.77728
G0 F6000 X150.02 Y143.74
G0 X152.85 Y143.71
G0 X152.85 Y143.55
G1 F600 X152.85 Y149.84 E111.00131
G0 F6000 X152.87 Y149.68
G0 X151.17 Y149.86
G0 X149.81 Y151.28
G0 X149.64 Y153.24
G0 X149.84 Y153.50
G0 X149.99 Y153.44
G1 F600 X149.99 Y161.25 E111.27904
G0 F6000 X150.03 Y161.09
G0 X152.85 Y161.31
G0 X152.85 Y161.48
G1 F600 X152.85 Y155.16 E111.50403
G0 F6000 X152.87 Y155.32
G0 X155.63 Y160.92
G0 X155.71 Y161.06
G1 F600 X155.71 Y143.56 E112.12693
G0 F6000 X155.63 Y143.71
G0 X158.45 Y145.61
G0 X158.56 Y145.50
G1 F600 X158.56 Y159.33 E112.61933
G0 F6000 X158.45 Y159.22
G0 X161.31 Y154.96
G0 X161.42 Y155.07
G1 F600 X161.42 Y149.75 E112.80870
G0 F6000 X161.31 Y149.87
G0 X147.25 Y145.01
G0 X147.13 Y144.90
G1 F600 X147.13 Y159.93 E113.34363
G0 F6000 X147.25 Y159.81
G0 X144.39 Y156.56
G0 X144.28 Y156.67
G1 F600 X144.28 Y148.15 E113.64673
;LAYER:11
G0 F6000 X152.40 Y152.45 Z2.50
;TYPE:WALL-INNER
G1 F600 X152.40 Y152.44 E113.64734
G1 X152.45 Y152.40 E113.64956
G1 X152.49 Y152.38 E113.65087
G1 X152.50 Y152.38 E113.65137
G1 X152.56 Y152.40 E113.65346
G1 X152.60 Y152.44 E113.65570
G1 X152.62 Y152.48 E113.65718
G1 X152.62 Y152.50 E113.65782
G1 X152.61 Y152.53 E113.65909
G1 X152.58 Y152.59 E113.66127
G1 X152.54 Y152.61 E113.66265
G1 X152.50 Y152.62 E113.66428
G1 X152.45 Y152.60 E113.66608
G1 X152.42 Y152.58 E113.66756
G1 X152.40 Y152.56 E113.66832
G1 X152.39 Y152.53 E113.66978
G1 X152.38 Y152.50 E113.67076
G1 X152.40 Y152.45 E113.67260
G0 F6000 X152.05 Y152.20
G1 F600 X152.10 Y152.12 E113.67594
G1 X152.17 Y152.06 E113.67922
G1 X152.26 Y152.01 E113.68264
G1 X152.43 Y151.96 E113.68911
G1 X152.53 Y151.95 E113.69253
G1 X152.61 Y151.97 E113.69551
G1 X152.71 Y152.00 E113.69919
G1 X152.78 Y152.03 E113.70207
G1 X152.86 Y152.09 E113.70574
G1 X152.93 Y152.16 E113.70896
G1 X152.98 Y152.24 E113.71224
G1 X153.01 Y152.32 E113.71544
G1 X153.04 Y152.41 E113.71897
G1 X153.05 Y152.50 E113.72208
G1 X153.04 Y152.59 E113.72519
G1 X153.01 Y152.68 E113.72872
G1 X152.98 Y152.76 E113.73179
G1 X152.86 Y152.91 E113.73840
G1 X152.78 Y152.97 E113.74207
G1 X152.71 Y153.00 E113.74495
G1 X152.61 Y153.03 E113.74863
G1 X152.53 Y153.05 E113.75161
G1 X152.43 Y153.04 E113.75503
G1 X152.26 Y152.99 E113.76150
G1 X152.17 Y152.94 E113.76492
G1 X152.10 Y152.88 E113.76820
G1 X152.04 Y152.80 E113.77162
G1 X152.00 Y152.73 E113.77460
G1 X151.97 Y152.63 E113.77818
G1 X151.95 Y152.50 E113.78300
G1 X151.95 Y152.48 E113.78372
G1 X151.97 Y152.37 E113.78784
G1 X152.05 Y152.20 E113.79445
G0 F6000 X151.69 Y151.96
G1 F600 X151.80 Y151.82 E113.80052
G1 X151.92 Y151.71 E113.80640
G1 X152.06 Y151.63 E113.81209
G1 X152.22 Y151.57 E113.81811
G1 X152.38 Y151.53 E113.82397
G1 X152.54 Y151.53 E113.82981
G1 X152.70 Y151.55 E113.83570
G1 X152.86 Y151.59 E113.84165
G1 X153.01 Y151.67 E113.84760
G1 X153.15 Y151.77 E113.85343
G1 X153.26 Y151.88 E113.85915
G1 X153.35 Y152.02 E113.86517
G1 X153.42 Y152.18 E113.87106
G1 X153.46 Y152.34 E113.87703
G1 X153.48 Y152.50 E113.88285
G1 X153.46 Y152.66 E113.88864
G1 X153.42 Y152.82 E113.89464
G1 X153.35 Y152.97 E113.90040
G1 X153.26 Y153.12 E113.90655
G1 X153.15 Y153.23 E113.91227
G1 X153.01 Y153.33 E113.91810
G1 X152.86 Y153.41 E113.92405
G1 X152.70 Y153.45 E113.93000
G1 X152.54 Y153.47 E113.93589
G1 X152.38 Y153.47 E113.94173
G1 X152.22 Y153.43 E113.94759
G1 X152.06 Y153.37 E113.95361
G1 X151.92 Y153.29 E113.95930
G1 X151.80 Y153.18 E113.96518
G1 X151.69 Y153.04 E113.97125
G1 X151.61 Y152.90 E113.97702
G1 X151.56 Y152.75 E113.98290
G1 X151.52 Y152.56 E113.98980
G1 X151.52 Y152.50 E113.99179
G1 X151.52 Y152.44 E113.99378
G1 X151.56 Y152.25 E114.00068
G1 X151.61 Y152.10 E114.00656
G1 X151.69 Y151.96 E114.01233
G0 F6000 X151.34 Y151.71
G1 F600 X151.48 Y151.53 E114.02065
G1 X151.66 Y151.37 E114.02923
G1 X151.87 Y151.24 E114.03779
G1 X152.09 Y151.16 E114.04604
G1 X152.33 Y151.10 E114.05482
G1 X152.56 Y151.10 E114.06297
G1 X152.80 Y151.13 E114.07177
G1 X153.02 Y151.19 E114.07999
G1 X153.24 Y151.30 E114.08860
G1 X153.43 Y151.44 E114.09702
G1 X153.59 Y151.62 E114.10550
G1 X153.73 Y151.82 E114.11414
G1 X153.82 Y152.03 E114.12248
G1 X153.88 Y152.26 E114.13095
G1 X153.91 Y152.50 E114.13945
G1 X153.88 Y152.74 E114.14795
G1 X153.82 Y152.97 E114.15642
G1 X153.73 Y153.18 E114.16477
G1 X153.59 Y153.38 E114.17340
G1 X153.43 Y153.56 E114.18189
G1 X153.24 Y153.70 E114.19031
G1 X153.02 Y153.81 E114.19892
G1 X152.80 Y153.87 E114.20713
G1 X152.56 Y153.90 E114.21593
G1 X152.33 Y153.90 E114.22408
G1 X152.09 Y153.84 E114.23286
G1 X151.87 Y153.76 E114.24111
G1 X151.66 Y153.63 E114.24968
G1 X151.48 Y153.47 E114.25825
G1 X151.34 Y153.29 E114.26658
G1 X151.22 Y153.08 E114.27515
G1 X151.14 Y152.86 E114.28356
G1 X151.10 Y152.60 E114.29284
G1 X151.09 Y152.50 E114.29636
G1 X151.10 Y152.40 E114.29989
G1 X151.14 Y152.14 E114.30917
G1 X151.22 Y151.92 E114.31757
G1 X151.34 Y151.71 E114.32615
G0 F6000 X150.98 Y151.47
;TYPE:WALL-OUTER
G1 F600 X151.18 Y151.23 E114.33721
G1 X151.41 Y151.02 E114.34833
G1 X151.68 Y150.86 E114.35937
G1 X151.96 Y150.75 E114.37039
G1 X152.26 Y150.68 E114.38142
G1 X152.58 Y150.67 E114.39264
G1 X152.88 Y150.71 E114.40354
G1 X153.18 Y150.80 E114.41470
G1 X153.46 Y150.94 E114.42584
G1 X153.71 Y151.12 E114.43676
G1 X153.93 Y151.35 E114.44804
G1 X154.10 Y151.60 E114.45898
G1 X154.23 Y151.89 E114.47012
G1 X154.31 Y152.19 E114.48123
G1 X154.34 Y152.50 E114.49223
G1 X154.31 Y152.81 E114.50323
G1 X154.23 Y153.11 E114.51434
G1 X154.10 Y153.40 E114.52547
G1 X153.93 Y153.65 E114.53629
G1 X153.71 Y153.88 E114.54769
G1 X153.46 Y154.06 E114.55861
G1 X153.18 Y154.20 E114.56975
G1 X152.88 Y154.29 E114.58091
G1 X152.58 Y154.33 E114.59182
G1 X152.26 Y154.32 E114.60303
G1 X151.96 Y154.25 E114.61406
G1 X151.68 Y154.14 E114.62508
G1 X151.41 Y153.98 E114.63612
G1 X151.18 Y153.77 E114.64724
G1 X150.98 Y153.53 E114.65830
G1 X150.83 Y153.25 E114.66949
G1 X150.72 Y152.96 E114.68050
G1 X150.67 Y152.65 E114.69170
G1 X150.66 Y152.50 E114.69711
G1 X150.67 Y152.35 E114.70252
G1 X150.72 Y152.04 E114.71372
G1 X150.83 Y151.75 E114.72473
G1 X150.98 Y151.47 E114.73592
G0 F6000 X151.91 Y152.03
G0 X149.99 Y151.56
;TYPE:SUPPORT
G1 F600 X149.99 Y143.57 E115.01998
G0 F6000 X150.02 Y143.74
G0 X152.85 Y143.71
G0 X152.85 Y143.55
G1 F600 X152.85 Y149.84 E115.24401
G0 F6000 X152.87 Y149.68
G0 X151.17 Y149.86
G0 X149.81 Y151.28
G0 X149.64 Y153.24
G0 X149.84 Y153.50
G0 X149.99 Y153.44
G1 F600 X149.99 Y161.25 E115.52174
G0 F6000 X150.03 Y161.09
G0 X152.85 Y161.31
G0 X152.85 Y161.48
G1 F600 X152.85 Y155.16 E115.74673
G0 F6000 X152.87 Y155.32
G0 X155.63 Y160.92
G0 X155.71 Y161.06
G1 F600 X155.71 Y143.56 E116.36963
G0 F6000 X155.63 Y143.71
G0 X158.45 Y145.61
G0 X158.56 Y145.50
G1 F600 X158.56 Y159.33 E116.86203
G0 F6000 X158.45 Y159.22
G0 X161.31 Y154.96
G0 X161.42 Y155.07
G1 F600 X161.42 Y149.75 E117.05140
G0 F6000 X161.31 Y149.87
G0 X147.25 Y145.01
G0 X147.13 Y144.90
G1 F600 X147.13 Y159.93 E117.58633
G0 F6000 X147.25 Y159.81
G0 X144.39 Y156.56
G0 X144.28 Y156.67
G1 F600 X144.28 Y148.15 E117.88943
;LAYER:12
G0 F6000 X152.40 Y152.45 Z2.70
;TYPE:WALL-INNER
G1 F600 X152.40 Y152.44 E117.89004
G1 X152.45 Y152.40 E117.89226
G1 X152.49 Y152.38 E117.89357
G1 X152.50 Y152.38 E117.89403
G1 X152.58 Y152.41 E117.89702
G1 X152.60 Y152.44 E117.89823
G1 X152.62 Y152.48 E117.89983
G1 X152.62 Y152.50 E117.90048
G1 X152.61 Y152.53 E117.90174
G1 X152.58 Y152.59 E117.90392
G1 X152.54 Y152.61 E117.90530
G1 X152.50 Y152.62 E117.90694
G1 X152.45 Y152.60 E117.90873
G1 X152.42 Y152.58 E117.91021
G1 X152.41 Y152.57 E117.91082
G1 X152.38 Y152.50 E117.91347
G1 X152.40 Y152.45 E117.91520
G0 F6000 X152.05 Y152.20
G1 F600 X152.10 Y152.12 E117.91854
G1 X152.17 Y152.06 E117.92182
G1 X152.26 Y152.01 E117.92524
G1 X152.43 Y151.96 E117.93171
G1 X152.53 Y151.95 E117.93513
G1 X152.59 Y151.96 E117.93757
G1 X152.78 Y152.03 E117.94471
G1 X152.86 Y152.09 E117.94830
G1 X152.93 Y152.16 E117.95152
G1 X152.98 Y152.24 E117.95480
G1 X153.01 Y152.32 E117.95800
G1 X153.04 Y152.41 E117.96153
G1 X153.05 Y152.50 E117.96464
G1 X153.04 Y152.59 E117.96775
G1 X153.01 Y152.68 E117.97128
G1 X152.98 Y152.76 E117.97448
G1 X152.93 Y152.84 E117.97776
G1 X152.86 Y152.91 E117.98098
G1 X152.78 Y152.97 E117.98465
G1 X152.71 Y153.00 E117.98753
G1 X152.61 Y153.03 E117.99121
G1 X152.53 Y153.05 E117.99419
G1 X152.43 Y153.04 E117.99761
G1 X152.26 Y152.99 E118.00408
G1 X152.17 Y152.94 E118.00750
G1 X152.10 Y152.88 E118.01078
