;-- START GCODE --
;Sliced for Type A Machines Series 1
;Sliced at: Fri 26-02-2016 20:00:22
;Basic settings: Layer height: 0.25 Walls: 1 Fill: 100
;Print Speed: 120 Support: 0
;Retraction Speed: 40 Retraction Distance: 1.2
;Print time: #P_TIME#
;Filament used: #F_AMNT#m #F_WGHT#g
;Filament cost: #F_COST#
M106 S255	 ;start with the fan on
G21        ;metric values
G90        ;absolute positioning
M106 S255    ;start with the fan on
G28     ;move to endstops
G29		;allows for auto-levelling
G1 X150 Y5  Z15.0 F6000 ;center and move the platform down 15mm
M109 S220 ;Heat To temp
G92 E0                  ;zero the extruded length
G1 F200 E30              ;extrude 30mm of feed stock
G92 E0                  ;zero the extruded length again
G1 X175 Y25  Z0 F6000 ;remove bugger
G1 X220 F6000 ;remove bugger
G1 X150 Y150  Z15 F6000 ;recenter and begin
G1 F6000

;Layer count: 80
;LAYER:0
M106 S255
G0 F6000 X141.21 Y133.87 Z0.30
;TYPE:SKIRT
G1 F2700 X146.75 Y135.54 E0.36108
G1 X152.61 Y133.62 E0.74564
G1 X152.62 Y133.93 E0.76516
G1 X157.95 Y135.54 E1.11257
G1 X163.81 Y133.62 E1.49713
G1 X163.90 Y137.72 E1.75294
G1 X164.13 Y137.84 E1.76932
G1 X165.78 Y139.19 E1.90200
G1 X167.14 Y140.84 E2.03516
G1 X168.15 Y142.72 E2.16844
G1 X168.77 Y144.76 E2.30138
G1 X168.98 Y146.88 E2.43418
G1 X168.78 Y149.00 E2.56712
G1 X168.16 Y151.05 E2.70033
G1 X167.16 Y152.93 E2.83346
G1 X165.81 Y154.58 E2.96650
G1 X164.16 Y155.94 E3.09966
G1 X162.28 Y156.95 E3.23294
G1 X160.24 Y157.57 E3.36588
G1 X158.12 Y157.78 E3.49868
G1 X157.78 Y157.75 E3.52017
G1 X157.78 Y157.82 E3.52462
G1 X157.58 Y159.95 E3.65789
G1 X156.96 Y161.99 E3.79094
G1 X155.96 Y163.87 E3.92391
G1 X154.61 Y165.53 E4.05709
G1 X152.96 Y166.88 E4.19013
G1 X151.08 Y167.89 E4.32322
G1 X149.04 Y168.52 E4.45642
G1 X146.92 Y168.73 E4.58910
G1 X144.80 Y168.53 E4.72215
G1 X142.75 Y167.91 E4.85570
G1 X140.87 Y166.90 E4.98855
G1 X139.53 Y165.81 E5.09683
G1 X137.35 Y165.81 E5.23241
G1 X137.35 Y162.96 E5.41008
G1 X136.85 Y162.03 E5.47604
G1 X136.23 Y159.98 E5.60916
G1 X136.02 Y157.87 E5.74177
G1 X136.22 Y155.74 E5.87477
G1 X136.84 Y153.70 E6.00798
G1 X137.35 Y152.73 E6.07627
G1 X137.35 Y152.01 E6.12111
G1 X136.85 Y151.08 E6.18712
G1 X136.23 Y149.04 E6.32007
G1 X136.02 Y146.92 E6.45274
G1 X136.22 Y144.80 E6.58580
G1 X136.84 Y142.75 E6.71901
G1 X137.35 Y141.79 E6.78730
G1 X137.35 Y138.71 E6.97951
G1 X139.81 Y138.71 E7.13298
G1 X140.84 Y137.86 E7.21586
G1 X141.12 Y137.71 E7.23562
G1 X141.21 Y133.87 E7.47529
G0 F6000 X141.69 Y134.54
G1 F2700 X146.76 Y136.07 E7.80525
G1 X152.13 Y134.30 E8.15761
G1 X152.21 Y138.02 E8.38959
G1 X152.50 Y138.18 E8.41015
G1 X152.81 Y138.01 E8.43178
G1 X152.89 Y134.54 E8.64874
G1 X157.96 Y136.07 E8.97870
G1 X163.33 Y134.30 E9.33106
G1 X163.41 Y138.02 E9.56304
G1 X163.86 Y138.26 E9.59457
G1 X165.43 Y139.55 E9.72113
G1 X166.72 Y141.12 E9.84818
G1 X167.69 Y142.91 E9.97529
G1 X168.28 Y144.86 E10.10212
G1 X168.48 Y146.88 E10.22878
G1 X168.29 Y148.90 E10.35557
G1 X167.70 Y150.85 E10.48266
G1 X166.74 Y152.65 E10.60963
G1 X165.45 Y154.23 E10.73650
G1 X163.88 Y155.52 E10.86355
G1 X162.09 Y156.49 E10.99066
G1 X160.14 Y157.08 E11.11749
G1 X158.12 Y157.28 E11.24414
G1 X157.22 Y157.19 E11.30053
G1 X157.28 Y157.82 E11.33982
G1 X157.09 Y159.85 E11.46695
G1 X156.50 Y161.80 E11.59390
G1 X155.54 Y163.59 E11.72070
G1 X154.25 Y165.17 E11.84772
G1 X152.68 Y166.47 E11.97465
G1 X150.89 Y167.43 E12.10157
G1 X148.94 Y168.02 E12.22864
G1 X146.92 Y168.22 E12.35518
G1 X144.90 Y168.03 E12.48209
G1 X142.94 Y167.44 E12.60944
G1 X141.15 Y166.49 E12.73622
G1 X139.70 Y165.31 E12.85251
G1 X137.85 Y165.31 E12.96807
G1 X137.85 Y162.83 E13.12236
G1 X137.31 Y161.83 E13.19311
G1 X136.72 Y159.88 E13.32012
G1 X136.52 Y157.87 E13.44659
G1 X136.71 Y155.84 E13.57344
G1 X137.30 Y153.89 E13.70054
G1 X137.85 Y152.86 E13.77355
G1 X137.85 Y151.89 E13.83391
G1 X137.31 Y150.89 E13.90472
G1 X136.72 Y148.94 E14.03153
G1 X136.52 Y146.92 E14.15807
G1 X136.71 Y144.90 E14.28499
G1 X137.30 Y142.95 E14.41208
G1 X137.85 Y141.91 E14.48509
G1 X137.85 Y139.21 E14.65385
G1 X139.99 Y139.21 E14.78736
G1 X141.12 Y138.28 E14.87835
G1 X141.61 Y138.01 E14.91314
G1 X141.69 Y134.54 E15.13011
G0 F6000 X142.18 Y135.21
G1 F2700 X146.76 Y136.59 E15.42892
G1 X151.64 Y134.99 E15.74911
G1 X151.72 Y138.33 E15.95733
G1 X152.38 Y138.68 E16.00403
G1 X152.50 Y138.78 E16.01364
G1 X152.59 Y138.69 E16.02157
G1 X153.30 Y138.32 E16.07146
G1 X153.38 Y135.21 E16.26559
G1 X157.96 Y136.59 E16.56440
G1 X162.84 Y134.99 E16.88459
G1 X162.92 Y138.33 E17.09281
G1 X163.58 Y138.68 E17.13952
G1 X165.07 Y139.90 E17.26001
G1 X166.31 Y141.40 E17.38081
G1 X167.22 Y143.11 E17.50184
G1 X167.79 Y144.96 E17.62254
G1 X167.98 Y146.88 E17.74306
G1 X167.79 Y148.81 E17.86378
G1 X167.23 Y150.66 E17.98467
G1 X166.32 Y152.38 E18.10550
G1 X165.10 Y153.87 E18.22626
G1 X163.60 Y155.11 E18.34706
G1 X161.89 Y156.02 E18.46809
G1 X160.04 Y156.59 E18.58878
G1 X158.12 Y156.78 E18.70930
G1 X156.66 Y156.64 E18.80064
G1 X156.78 Y157.82 E18.87479
G1 X156.59 Y159.75 E18.99578
G1 X156.03 Y161.61 E19.11660
G1 X155.13 Y163.32 E19.23726
G1 X153.90 Y164.82 E19.35812
G1 X152.41 Y166.05 E19.47884
G1 X150.70 Y166.97 E19.59968
G1 X148.84 Y167.53 E19.72057
G1 X146.92 Y167.72 E19.84103
G1 X144.99 Y167.54 E19.96181
G1 X143.13 Y166.98 E20.08304
G1 X141.43 Y166.07 E20.20365
G1 X139.93 Y164.84 E20.32429
G1 X139.90 Y164.81 E20.32735
G1 X138.35 Y164.81 E20.42376
G1 X138.35 Y162.71 E20.55472
G1 X137.78 Y161.64 E20.63022
G1 X137.21 Y159.78 E20.75109
G1 X137.02 Y157.87 E20.87142
G1 X137.21 Y155.94 E20.99220
G1 X137.77 Y154.08 E21.11310
G1 X138.35 Y152.98 E21.19086
G1 X138.35 Y151.76 E21.26681
G1 X137.78 Y150.69 E21.34237
G1 X137.21 Y148.84 E21.46300
G1 X137.02 Y146.92 E21.58346
G1 X137.21 Y144.99 E21.70424
G1 X137.77 Y143.14 E21.82520
G1 X138.35 Y142.04 E21.90295
G1 X138.35 Y139.71 E22.04825
G1 X140.17 Y139.71 E22.16176
G1 X141.40 Y138.69 E22.26081
G1 X142.10 Y138.32 E22.31069
G1 X142.18 Y135.21 E22.50482
G0 F6000 X142.66 Y135.87
G1 F2700 X146.77 Y137.11 E22.77268
G1 X151.16 Y135.67 E23.06051
G1 X151.22 Y138.63 E23.24484
G1 X152.10 Y139.10 E23.30675
G1 X152.50 Y139.42 E23.33892
G1 X152.88 Y139.11 E23.36935
G1 X153.79 Y138.62 E23.43427
G1 X153.86 Y135.87 E23.60570
G1 X157.97 Y137.11 E23.87356
G1 X162.36 Y135.67 E24.16138
G1 X162.42 Y138.63 E24.34571
G1 X163.30 Y139.10 E24.40762
G1 X164.72 Y140.26 E24.52195
G1 X165.89 Y141.68 E24.63664
G1 X166.76 Y143.30 E24.75150
G1 X167.29 Y145.06 E24.86606
G1 X167.47 Y146.88 E24.98043
G1 X167.30 Y148.71 E25.09501
G1 X166.77 Y150.47 E25.20973
G1 X165.91 Y152.10 E25.32442
G1 X164.74 Y153.52 E25.43902
G1 X163.32 Y154.69 E25.55371
G1 X161.70 Y155.56 E25.66857
G1 X159.94 Y156.09 E25.78313
G1 X158.12 Y156.28 E25.89751
G1 X156.29 Y156.10 E26.01208
G1 X156.10 Y156.04 E26.02453
G1 X156.28 Y157.82 E26.13610
G1 X156.10 Y159.66 E26.25088
G1 X155.57 Y161.42 E26.36559
G1 X154.71 Y163.04 E26.48017
G1 X153.54 Y164.46 E26.59487
G1 X152.12 Y165.63 E26.70943
G1 X150.50 Y166.50 E26.82411
G1 X148.75 Y167.04 E26.93886
G1 X146.92 Y167.22 E27.05318
G1 X145.09 Y167.05 E27.16781
G1 X143.32 Y166.51 E27.28285
G1 X141.71 Y165.65 E27.39732
G1 X140.28 Y164.49 E27.51184
G1 X140.13 Y164.31 E27.52655
G1 X138.85 Y164.31 E27.60650
G1 X138.85 Y162.58 E27.71414
G1 X138.24 Y161.45 E27.79438
G1 X137.71 Y159.69 E27.90906
G1 X137.53 Y157.86 E28.02331
G1 X137.70 Y156.03 E28.13795
G1 X138.23 Y154.27 E28.25267
G1 X138.85 Y153.11 E28.33508
G1 X138.85 Y151.64 E28.42669
G1 X138.24 Y150.50 E28.50705
G1 X137.71 Y148.75 E28.62154
G1 X137.53 Y146.92 E28.73586
G1 X137.70 Y145.09 E28.85050
G1 X138.23 Y143.33 E28.96528
G1 X138.85 Y142.16 E29.04769
G1 X138.85 Y140.21 E29.16967
G1 X140.35 Y140.21 E29.26322
G1 X141.68 Y139.11 E29.37037
G1 X142.59 Y138.62 E29.43529
G1 X142.66 Y135.87 E29.60672
G0 F6000 X143.15 Y136.54
G1 F2700 X146.78 Y137.64 E29.84339
G1 X150.67 Y136.36 E30.09905
G1 X150.73 Y138.93 E30.25961
G1 X151.82 Y139.51 E30.33664
G1 X152.50 Y140.07 E30.39137
G1 X153.16 Y139.53 E30.44435
G1 X154.29 Y138.92 E30.52434
G1 X154.34 Y136.54 E30.67299
G1 X157.98 Y137.64 E30.90966
G1 X161.87 Y136.36 E31.16532
G1 X161.93 Y138.93 E31.32589
G1 X163.02 Y139.51 E31.40292
G1 X164.36 Y140.61 E31.51118
G1 X165.47 Y141.96 E31.61971
G1 X166.29 Y143.49 E31.72840
G1 X166.80 Y145.16 E31.83678
G1 X166.97 Y146.88 E31.94508
G1 X166.81 Y148.61 E32.05352
G1 X166.31 Y150.28 E32.16211
G1 X165.49 Y151.82 E32.27066
G1 X164.39 Y153.16 E32.37914
G1 X163.04 Y154.27 E32.48767
G1 X161.51 Y155.09 E32.59637
G1 X159.84 Y155.60 E32.70475
G1 X158.12 Y155.77 E32.81305
G1 X156.39 Y155.61 E32.92149
G1 X155.36 Y155.30 E32.98852
G1 X155.60 Y156.09 E33.04049
G1 X155.78 Y157.82 E33.14893
G1 X155.61 Y159.56 E33.25757
G1 X155.11 Y161.23 E33.36614
G1 X154.29 Y162.76 E33.47453
G1 X153.19 Y164.11 E33.58311
G1 X151.84 Y165.21 E33.69156
G1 X150.31 Y166.04 E33.80007
G1 X148.65 Y166.55 E33.90871
G1 X146.92 Y166.72 E34.01688
G1 X145.19 Y166.55 E34.12538
G1 X143.52 Y166.05 E34.23423
G1 X141.98 Y165.23 E34.34264
G1 X140.64 Y164.13 E34.45101
G1 X140.37 Y163.81 E34.47737
G1 X139.35 Y163.81 E34.54079
G1 X139.35 Y162.46 E34.62504
G1 X138.71 Y161.25 E34.71008
G1 X138.20 Y159.59 E34.81864
G1 X138.03 Y157.86 E34.92675
G1 X138.19 Y156.13 E35.03525
G1 X138.69 Y154.46 E35.14384
G1 X139.35 Y153.23 E35.23099
G1 X139.35 Y151.51 E35.33813
G1 X138.71 Y150.31 E35.42328
G1 X138.20 Y148.65 E35.53166
G1 X138.03 Y146.92 E35.63984
G1 X138.19 Y145.19 E35.74834
G1 X138.69 Y143.52 E35.85698
G1 X139.35 Y142.29 E35.94414
G1 X139.35 Y140.71 E36.04267
G1 X140.56 Y140.71 E36.11794
G1 X140.61 Y140.64 E36.12349
G1 X141.96 Y139.53 E36.23201
G1 X143.09 Y138.92 E36.31200
G1 X143.15 Y136.54 E36.46066
G0 F6000 X143.63 Y137.21
G1 F2700 X146.78 Y138.16 E36.66625
G1 X150.19 Y137.04 E36.88963
G1 X150.24 Y139.24 E37.02637
G1 X151.54 Y139.93 E37.11855
G1 X152.50 Y140.72 E37.19583
G1 X153.44 Y139.95 E37.27136
G1 X154.78 Y139.23 E37.36642
G1 X154.83 Y137.21 E37.49230
G1 X157.98 Y138.16 E37.69790
G1 X161.39 Y137.04 E37.92128
G1 X161.44 Y139.24 E38.05801
G1 X162.74 Y139.93 E38.15019
G1 X164.01 Y140.97 E38.25230
G1 X165.05 Y142.24 E38.35467
G1 X165.83 Y143.69 E38.45718
G1 X166.31 Y145.25 E38.55948
G1 X166.47 Y146.88 E38.66164
G1 X166.31 Y148.52 E38.76394
G1 X165.84 Y150.09 E38.86641
G1 X165.07 Y151.54 E38.96880
G1 X164.03 Y152.81 E39.07112
G1 X162.76 Y153.85 E39.17349
G1 X161.31 Y154.63 E39.27600
G1 X159.75 Y155.11 E39.37830
G1 X158.12 Y155.27 E39.48046
G1 X156.48 Y155.12 E39.58276
G1 X154.91 Y154.64 E39.68524
G1 X154.53 Y154.44 E39.71221
G1 X154.63 Y154.63 E39.72572
G1 X155.11 Y156.19 E39.82776
G1 X155.27 Y157.83 E39.93012
G1 X155.12 Y159.46 E40.03256
G1 X154.64 Y161.03 E40.13495
G1 X153.87 Y162.48 E40.23723
G1 X152.83 Y163.75 E40.33969
G1 X151.56 Y164.80 E40.44199
G1 X150.12 Y165.57 E40.54438
G1 X148.55 Y166.05 E40.64683
G1 X146.92 Y166.22 E40.74886
G1 X145.28 Y166.06 E40.85122
G1 X143.71 Y165.58 E40.95395
G1 X142.26 Y164.81 E41.05620
G1 X140.99 Y163.78 E41.15840
G1 X140.60 Y163.31 E41.19637
G1 X139.85 Y163.31 E41.24339
G1 X139.85 Y162.33 E41.30438
G1 X139.17 Y161.06 E41.39411
G1 X138.69 Y159.49 E41.49654
G1 X138.53 Y157.86 E41.59857
G1 X138.69 Y156.23 E41.70087
G1 X139.16 Y154.66 E41.80335
G1 X139.85 Y153.35 E41.89521
G1 X139.85 Y151.39 E42.01794
G1 X139.17 Y150.12 E42.10778
G1 X138.69 Y148.55 E42.21009
G1 X138.53 Y146.92 E42.31212
G1 X138.69 Y145.28 E42.41449
G1 X139.16 Y143.71 E42.51702
G1 X139.85 Y142.41 E42.60888
G1 X139.85 Y141.21 E42.68397
G1 X140.79 Y141.21 E42.74284
G1 X140.97 Y140.99 E42.76008
G1 X142.24 Y139.95 E42.86245
G1 X143.58 Y139.23 E42.95751
G1 X143.63 Y137.21 E43.08339
G0 F6000 X144.11 Y137.88
G1 F2700 X146.79 Y138.69 E43.25786
G1 X149.70 Y137.73 E43.44907
G1 X149.75 Y139.58 E43.56441
G1 X149.91 Y139.63 E43.57496
G1 X151.26 Y140.35 E43.67080
G1 X152.45 Y141.32 E43.76670
G1 X152.50 Y141.38 E43.77104
G1 X152.52 Y141.35 E43.77361
G1 X153.72 Y140.36 E43.86992
G1 X155.04 Y139.66 E43.96344
G1 X155.27 Y139.58 E43.97874
G1 X155.31 Y137.88 E44.08485
G1 X157.99 Y138.69 E44.25932
G1 X160.90 Y137.73 E44.45053
G1 X160.94 Y139.58 E44.56587
G1 X161.11 Y139.63 E44.57642
G1 X162.46 Y140.35 E44.67226
G1 X163.65 Y141.32 E44.76816
G1 X164.64 Y142.52 E44.86446
G1 X165.37 Y143.88 E44.96080
G1 X165.81 Y145.35 E45.05697
G1 X165.97 Y146.88 E45.15299
G1 X165.82 Y148.42 E45.24915
G1 X165.38 Y149.90 E45.34544
G1 X164.65 Y151.26 E45.44169
G1 X163.68 Y152.45 E45.53781
G1 X162.48 Y153.44 E45.63412
G1 X161.12 Y154.17 E45.73046
G1 X159.65 Y154.62 E45.82663
G1 X158.12 Y154.77 E45.92264
G1 X156.58 Y154.62 E46.01880
G1 X155.10 Y154.18 E46.11510
G1 X153.74 Y153.45 E46.21135
G1 X152.79 Y152.68 E46.28784
G1 X153.44 Y153.46 E46.35127
G1 X154.17 Y154.82 E46.44761
G1 X154.62 Y156.29 E46.54359
G1 X154.77 Y157.83 E46.63975
G1 X154.62 Y159.37 E46.73605
G1 X154.18 Y160.84 E46.83232
G1 X153.45 Y162.20 E46.92846
G1 X152.48 Y163.40 E47.02468
G1 X151.28 Y164.38 E47.12091
G1 X149.93 Y165.11 E47.21717
G1 X148.45 Y165.56 E47.31340
G1 X146.92 Y165.71 E47.40935
G1 X145.38 Y165.57 E47.50563
G1 X143.90 Y165.12 E47.60211
G1 X142.54 Y164.40 E47.69822
G1 X141.35 Y163.42 E47.79430
G1 X140.84 Y162.81 E47.84392
G1 X140.35 Y162.81 E47.87448
G1 X140.35 Y162.20 E47.91208
G1 X139.63 Y160.87 E48.00661
G1 X139.19 Y159.39 E48.10284
G1 X139.03 Y157.86 E48.19880
G1 X139.18 Y156.32 E48.29495
G1 X139.62 Y154.85 E48.39125
G1 X140.35 Y153.48 E48.48750
G1 X140.35 Y153.48 E48.48767
G1 X140.35 Y152.71 E48.53607
G1 X140.99 Y152.71 E48.57567
G1 X141.26 Y152.37 E48.60266
G1 X140.96 Y152.01 E48.63216
G1 X140.35 Y152.01 E48.67008
G1 X140.35 Y151.26 E48.71654
G1 X139.63 Y149.92 E48.81118
G1 X139.19 Y148.45 E48.90729
G1 X139.03 Y146.92 E49.00324
G1 X139.18 Y145.38 E49.09952
G1 X139.62 Y143.90 E49.19582
G1 X140.35 Y142.54 E49.29207
G1 X140.35 Y142.54 E49.29224
G1 X140.35 Y141.71 E49.34413
G1 X141.03 Y141.71 E49.38653
G1 X141.32 Y141.35 E49.41547
G1 X142.52 Y140.36 E49.51178
G1 X143.84 Y139.66 E49.60530
G1 X144.07 Y139.58 E49.62060
G1 X144.11 Y137.88 E49.72671
G0 F6000 X144.60 Y138.55
G1 F2700 X146.80 Y139.21 E49.87008
G1 X149.22 Y138.41 E50.02906
G1 X149.25 Y139.95 E50.12493
G1 X149.72 Y140.09 E50.15504
G1 X150.99 Y140.77 E50.24473
G1 X152.10 Y141.68 E50.33457
G1 X152.50 Y142.17 E50.37377
G1 X152.88 Y141.70 E50.41122
G1 X154.00 Y140.78 E50.50137
G1 X155.24 Y140.12 E50.58909
G1 X155.76 Y139.94 E50.62362
G1 X155.79 Y138.55 E50.71083
G1 X158.00 Y139.21 E50.85420
G1 X160.42 Y138.41 E51.01317
G1 X160.45 Y139.95 E51.10905
G1 X160.91 Y140.09 E51.13915
G1 X162.18 Y140.77 E51.22885
G1 X163.30 Y141.68 E51.31868
G1 X164.22 Y142.80 E51.40883
G1 X164.90 Y144.07 E51.49900
G1 X165.32 Y145.45 E51.58906
G1 X165.47 Y146.89 E51.67893
G1 X165.33 Y148.32 E51.76895
G1 X164.91 Y149.71 E51.85911
G1 X164.23 Y150.98 E51.94922
G1 X163.32 Y152.10 E52.03923
G1 X162.20 Y153.02 E52.12938
G1 X160.93 Y153.70 E52.21955
G1 X159.55 Y154.12 E52.30960
G1 X158.11 Y154.27 E52.39948
G1 X156.68 Y154.13 E52.48950
G1 X155.29 Y153.71 E52.57966
G1 X154.02 Y153.03 E52.66977
G1 X152.90 Y152.12 E52.75978
G1 X152.50 Y151.63 E52.79898
G1 X152.12 Y152.10 E52.83643
G1 X151.79 Y152.37 E52.86305
G1 X152.10 Y152.62 E52.88796
G1 X153.02 Y153.74 E52.97811
G1 X153.70 Y155.01 E53.06828
G1 X154.12 Y156.39 E53.15814
G1 X154.27 Y157.83 E53.24815
G1 X154.13 Y159.27 E53.33830
G1 X153.71 Y160.65 E53.42845
G1 X153.03 Y161.93 E53.51839
G1 X152.12 Y163.04 E53.60850
G1 X151.00 Y163.96 E53.69857
G1 X149.73 Y164.65 E53.78869
G1 X148.35 Y165.07 E53.87880
G1 X146.92 Y165.21 E53.96867
G1 X145.48 Y165.07 E54.05876
G1 X144.09 Y164.66 E54.14905
G1 X142.82 Y163.98 E54.23906
G1 X141.70 Y163.06 E54.32902
G1 X141.08 Y162.31 E54.39029
G1 X140.85 Y162.31 E54.40432
G1 X140.85 Y162.03 E54.42135
G1 X140.78 Y161.95 E54.42821
G1 X140.10 Y160.68 E54.51828
G1 X139.68 Y159.29 E54.60845
G1 X139.53 Y157.86 E54.69826
G1 X139.67 Y156.42 E54.78828
G1 X140.09 Y155.04 E54.87844
G1 X140.77 Y153.76 E54.96855
G1 X140.85 Y153.66 E54.97684
G1 X140.85 Y153.21 E55.00509
G1 X141.22 Y153.21 E55.02823
G1 X141.68 Y152.65 E55.07343
G1 X142.01 Y152.37 E55.10005
G1 X141.70 Y152.12 E55.12496
G1 X141.19 Y151.51 E55.17462
G1 X140.85 Y151.51 E55.19601
G1 X140.85 Y151.09 E55.22195
G1 X140.78 Y151.00 E55.22882
G1 X140.10 Y149.73 E55.31899
G1 X139.68 Y148.35 E55.40898
G1 X139.53 Y146.92 E55.49886
G1 X139.67 Y145.48 E55.58894
G1 X140.09 Y144.09 E55.67910
G1 X140.77 Y142.82 E55.76921
G1 X140.85 Y142.72 E55.77750
G1 X140.85 Y142.21 E55.80924
G1 X141.27 Y142.21 E55.83525
G1 X141.68 Y141.70 E55.87593
G1 X142.80 Y140.78 E55.96608
G1 X144.04 Y140.12 E56.05380
G1 X144.56 Y139.94 E56.08833
G1 X144.60 Y138.55 E56.17554
G0 F6000 X145.08 Y139.22
G1 F2700 X146.80 Y139.74 E56.28778
G1 X148.73 Y139.10 E56.41452
G1 X148.76 Y140.33 E56.49094
G1 X149.52 Y140.56 E56.54058
G1 X150.71 Y141.19 E56.62414
G1 X151.75 Y142.04 E56.70785
G1 X152.50 Y142.95 E56.78197
G1 X152.55 Y142.89 E56.78688
G1 X152.55 Y142.71 E56.79855
G1 X152.70 Y142.71 E56.80809
G1 X153.24 Y142.06 E56.86047
G1 X154.28 Y141.20 E56.94446
G1 X155.43 Y140.58 E57.02632
G1 X156.25 Y140.31 E57.08014
G1 X156.28 Y139.22 E57.14845
G1 X158.00 Y139.74 E57.26069
G1 X159.93 Y139.10 E57.38743
G1 X159.96 Y140.33 E57.46385
G1 X160.72 Y140.56 E57.51349
G1 X161.91 Y141.19 E57.59705
G1 X162.94 Y142.04 E57.68076
G1 X163.80 Y143.08 E57.76475
G1 X164.44 Y144.26 E57.84882
G1 X164.83 Y145.55 E57.93266
G1 X164.96 Y146.89 E58.01645
G1 X164.84 Y148.23 E58.10033
G1 X164.45 Y149.52 E58.18437
G1 X163.81 Y150.70 E58.26826
G1 X162.96 Y151.75 E58.35215
G1 X161.92 Y152.60 E58.43615
G1 X160.74 Y153.24 E58.52021
G1 X159.45 Y153.63 E58.60405
G1 X158.11 Y153.76 E58.68784
G1 X156.77 Y153.64 E58.77172
G1 X155.48 Y153.25 E58.85577
G1 X154.30 Y152.62 E58.93965
G1 X153.25 Y151.76 E59.02355
G1 X152.63 Y151.01 E59.08481
G1 X152.55 Y151.01 E59.08974
G1 X152.55 Y150.91 E59.09573
G1 X152.50 Y150.85 E59.10082
G1 X151.76 Y151.75 E59.17319
G1 X151.00 Y152.37 E59.23477
G1 X151.75 Y152.98 E59.29464
G1 X152.60 Y154.02 E59.37863
G1 X153.24 Y155.21 E59.46270
G1 X153.63 Y156.49 E59.54640
G1 X153.77 Y157.83 E59.63027
G1 X153.64 Y159.17 E59.71429
G1 X153.25 Y160.46 E59.79826
G1 X152.62 Y161.65 E59.88209
G1 X151.76 Y162.69 E59.96608
G1 X150.72 Y163.54 E60.05000
G1 X149.54 Y164.18 E60.13395
G1 X148.25 Y164.57 E60.21793
G1 X146.91 Y164.71 E60.30166
G1 X145.57 Y164.58 E60.38560
G1 X144.28 Y164.19 E60.46976
G1 X143.10 Y163.56 E60.55360
G1 X142.06 Y162.71 E60.63741
G1 X141.20 Y161.67 E60.72145
G1 X140.56 Y160.48 E60.80541
G1 X140.17 Y159.19 E60.88943
G1 X140.04 Y157.86 E60.97309
G1 X140.16 Y156.52 E61.05697
G1 X140.55 Y155.23 E61.14102
G1 X141.19 Y154.04 E61.22491
G1 X141.35 Y153.84 E61.24126
G1 X141.35 Y153.71 E61.24949
G1 X141.46 Y153.71 E61.25623
G1 X142.04 Y153.00 E61.31313
G1 X142.80 Y152.37 E61.37466
G1 X142.06 Y151.76 E61.43448
G1 X141.43 Y151.01 E61.49575
G1 X141.35 Y151.01 E61.50074
G1 X141.35 Y150.91 E61.50679
G1 X141.20 Y150.72 E61.52167
G1 X140.56 Y149.54 E61.60574
G1 X140.17 Y148.25 E61.68958
G1 X140.04 Y146.91 E61.77331
G1 X140.16 Y145.57 E61.85725
G1 X140.55 Y144.28 E61.94129
G1 X141.19 Y143.10 E62.02518
G1 X141.35 Y142.89 E62.04153
G1 X141.35 Y142.71 E62.05326
G1 X141.50 Y142.71 E62.06286
G1 X142.04 Y142.06 E62.11524
G1 X143.08 Y141.20 E62.19924
G1 X144.23 Y140.58 E62.28110
G1 X145.05 Y140.31 E62.33492
G1 X145.08 Y139.22 E62.40322
G0 F6000 X145.56 Y139.88
G1 F2700 X146.81 Y140.26 E62.48433
G1 X148.25 Y139.79 E62.57891
G1 X148.27 Y140.70 E62.63593
G1 X149.33 Y141.02 E62.70511
G1 X150.43 Y141.60 E62.78251
G1 X151.39 Y142.39 E62.86011
G1 X152.19 Y143.36 E62.93794
G1 X152.50 Y143.94 E62.97954
G1 X152.80 Y143.38 E63.01971
G1 X153.59 Y142.41 E63.09749
G1 X154.56 Y141.62 E63.17532
G1 X155.63 Y141.04 E63.25138
G1 X156.74 Y140.67 E63.32451
G1 X156.76 Y139.88 E63.37385
G1 X158.01 Y140.26 E63.45496
G1 X159.45 Y139.79 E63.54954
G1 X159.47 Y140.70 E63.60655
G1 X160.53 Y141.02 E63.67574
G1 X161.63 Y141.60 E63.75313
G1 X162.59 Y142.39 E63.83073
G1 X163.38 Y143.36 E63.90857
G1 X163.97 Y144.46 E63.98647
G1 X164.34 Y145.65 E64.06417
G1 X164.46 Y146.89 E64.14183
G1 X164.34 Y148.13 E64.21957
G1 X163.98 Y149.32 E64.29742
G1 X163.40 Y150.43 E64.37522
G1 X162.61 Y151.39 E64.45300
G1 X161.64 Y152.19 E64.53084
G1 X160.54 Y152.78 E64.60873
G1 X159.35 Y153.14 E64.68644
G1 X158.11 Y153.26 E64.76409
G1 X156.87 Y153.14 E64.84184
G1 X155.68 Y152.78 E64.91969
G1 X154.57 Y152.20 E64.99749
G1 X153.61 Y151.41 E65.07527
G1 X152.81 Y150.44 E65.15310
G1 X152.50 Y149.86 E65.19470
G1 X152.20 Y150.43 E65.23487
G1 X151.41 Y151.39 E65.31265
G1 X150.44 Y152.19 E65.39049
G1 X150.10 Y152.37 E65.41518
G1 X150.43 Y152.55 E65.43872
G1 X151.39 Y153.34 E65.51624
G1 X152.19 Y154.30 E65.59407
G1 X152.78 Y155.40 E65.67197
G1 X153.14 Y156.59 E65.74956
G1 X153.26 Y157.83 E65.82728
G1 X153.14 Y159.07 E65.90510
G1 X152.78 Y160.27 E65.98299
G1 X152.20 Y161.37 E66.06068
G1 X151.41 Y162.34 E66.13851
G1 X150.44 Y163.13 E66.21630
G1 X149.35 Y163.72 E66.29409
G1 X148.15 Y164.08 E66.37194
G1 X146.91 Y164.21 E66.44953
G1 X145.67 Y164.09 E66.52733
G1 X144.47 Y163.73 E66.60532
G1 X143.38 Y163.14 E66.68304
G1 X142.41 Y162.35 E66.76074
G1 X141.62 Y161.39 E66.83862
G1 X141.03 Y160.29 E66.91641
G1 X140.66 Y159.09 E66.99424
G1 X140.54 Y157.86 E67.07183
G1 X140.66 Y156.62 E67.14957
G1 X141.02 Y155.42 E67.22742
G1 X141.60 Y154.32 E67.30523
G1 X142.39 Y153.35 E67.38300
G1 X143.35 Y152.56 E67.46070
G1 X143.70 Y152.37 E67.48548
G1 X143.38 Y152.20 E67.50872
G1 X142.41 Y151.41 E67.58649
G1 X141.62 Y150.44 E67.66433
G1 X141.03 Y149.34 E67.74223
G1 X140.66 Y148.15 E67.81993
G1 X140.54 Y146.91 E67.89753
G1 X140.66 Y145.67 E67.97533
G1 X141.02 Y144.48 E68.05318
G1 X141.60 Y143.38 E68.13098
G1 X142.39 Y142.41 E68.20876
G1 X143.36 Y141.62 E68.28660
G1 X144.43 Y141.04 E68.36265
G1 X145.54 Y140.67 E68.43578
G1 X145.56 Y139.88 E68.48512
G0 F6000 X146.05 Y140.55
G1 F2700 X146.82 Y140.78 E68.53521
G1 X147.76 Y140.47 E68.59743
G1 X147.78 Y141.07 E68.63499
G1 X149.14 Y141.49 E68.72371
G1 X150.15 Y142.02 E68.79496
G1 X151.04 Y142.75 E68.86644
G1 X151.77 Y143.64 E68.93816
G1 X152.31 Y144.65 E69.00984
G1 X152.50 Y145.27 E69.05032
G1 X152.68 Y144.67 E69.08954
G1 X153.22 Y143.65 E69.16121
G1 X153.95 Y142.76 E69.23278
G1 X154.84 Y142.03 E69.30450
G1 X155.83 Y141.50 E69.37467
G1 X157.24 Y141.04 E69.46708
G1 X157.25 Y140.55 E69.49759
G1 X158.02 Y140.78 E69.54768
G1 X158.96 Y140.47 E69.60990
G1 X158.98 Y141.07 E69.64745
G1 X160.34 Y141.49 E69.73617
G1 X161.35 Y142.02 E69.80743
G1 X162.24 Y142.75 E69.87891
G1 X162.97 Y143.64 E69.95063
G1 X163.51 Y144.65 E70.02231
G1 X163.84 Y145.75 E70.09396
G1 X163.96 Y146.89 E70.16547
G1 X163.85 Y148.03 E70.23707
G1 X163.52 Y149.13 E70.30880
G1 X162.98 Y150.15 E70.38047
G1 X162.25 Y151.04 E70.45204
G1 X161.36 Y151.77 E70.52376
G1 X160.35 Y152.31 E70.59544
G1 X159.25 Y152.65 E70.66709
G1 X158.11 Y152.76 E70.73860
G1 X156.97 Y152.65 E70.81020
G1 X155.87 Y152.32 E70.88194
G1 X154.85 Y151.78 E70.95361
G1 X153.96 Y151.05 E71.02518
G1 X153.23 Y150.16 E71.09690
G1 X152.69 Y149.15 E71.16857
G1 X152.50 Y148.53 E71.20906
G1 X152.32 Y149.13 E71.24828
G1 X151.78 Y150.15 E71.31995
G1 X151.05 Y151.04 E71.39152
G1 X150.16 Y151.77 E71.46323
G1 X149.15 Y152.31 E71.53491
G1 X148.95 Y152.37 E71.54789
G1 X149.14 Y152.43 E71.56020
G1 X150.15 Y152.97 E71.63149
G1 X151.04 Y153.69 E71.70288
G1 X151.77 Y154.58 E71.77460
G1 X152.31 Y155.59 E71.84628
G1 X152.65 Y156.69 E71.91779
G1 X152.76 Y157.83 E71.98938
G1 X152.65 Y158.98 E72.06105
G1 X152.32 Y160.08 E72.13277
G1 X151.78 Y161.09 E72.20433
G1 X151.05 Y161.98 E72.27604
G1 X150.16 Y162.71 E72.34768
G1 X149.15 Y163.25 E72.41931
G1 X148.05 Y163.59 E72.49103
G1 X146.91 Y163.70 E72.56248
G1 X145.77 Y163.59 E72.63415
G1 X144.67 Y163.26 E72.70594
G1 X143.65 Y162.72 E72.77758
G1 X142.76 Y162.00 E72.84911
G1 X142.03 Y161.11 E72.92088
G1 X141.49 Y160.10 E72.99250
G1 X141.16 Y159.00 E73.06421
G1 X141.04 Y157.86 E73.13566
G1 X141.15 Y156.71 E73.20727
G1 X141.48 Y155.61 E73.27900
G1 X142.02 Y154.60 E73.35067
G1 X142.75 Y153.71 E73.42224
G1 X143.63 Y152.98 E73.49382
G1 X144.64 Y152.44 E73.56503
G1 X144.85 Y152.37 E73.57862
G1 X144.67 Y152.32 E73.59035
G1 X143.65 Y151.78 E73.66202
G1 X142.76 Y151.05 E73.73359
G1 X142.03 Y150.16 E73.80531
G1 X141.49 Y149.15 E73.87699
G1 X141.16 Y148.05 E73.94864
G1 X141.04 Y146.91 E74.02009
G1 X141.15 Y145.77 E74.09175
G1 X141.48 Y144.67 E74.16349
G1 X142.02 Y143.65 E74.23516
G1 X142.75 Y142.76 E74.30673
G1 X143.64 Y142.03 E74.37845
G1 X144.63 Y141.50 E74.44862
G1 X146.04 Y141.04 E74.54103
G1 X146.05 Y140.55 E74.57153
G0 F6000 X146.53 Y141.22
G1 F2700 X146.82 Y141.31 E74.59043
G1 X147.28 Y141.16 E74.62051
G1 X147.29 Y141.45 E74.63866
G1 X148.95 Y141.95 E74.74693
G1 X149.87 Y142.44 E74.81202
G1 X150.68 Y143.10 E74.87743
G1 X151.35 Y143.91 E74.94295
G1 X151.85 Y144.84 E75.00851
G1 X152.15 Y145.84 E75.07391
G1 X152.26 Y146.89 E75.13941
G1 X152.16 Y147.94 E75.20495
G1 X151.85 Y148.94 E75.27048
G1 X151.36 Y149.87 E75.33595
G1 X150.70 Y150.68 E75.40145
G1 X149.89 Y151.35 E75.46697
G1 X148.96 Y151.85 E75.53254
G1 X147.96 Y152.15 E75.59799
G1 X147.28 Y152.22 E75.64011
G1 X147.29 Y152.39 E75.65077
G1 X148.95 Y152.89 E75.75910
G1 X149.87 Y153.39 E75.82425
G1 X150.68 Y154.05 E75.88958
G1 X151.35 Y154.86 E75.95509
G1 X151.85 Y155.79 E76.02066
G1 X152.15 Y156.79 E76.08605
G1 X152.26 Y157.83 E76.15150
G1 X152.16 Y158.88 E76.21704
G1 X151.85 Y159.89 E76.28262
G1 X151.36 Y160.81 E76.34804
G1 X150.70 Y161.63 E76.41359
G1 X149.89 Y162.29 E76.47903
G1 X148.96 Y162.79 E76.54457
G1 X147.96 Y163.10 E76.61010
G1 X146.91 Y163.20 E76.67547
G1 X145.87 Y163.10 E76.74099
G1 X144.86 Y162.80 E76.80665
G1 X143.93 Y162.30 E76.87210
G1 X143.12 Y161.64 E76.93756
G1 X142.45 Y160.83 E77.00317
G1 X141.95 Y159.90 E77.06863
G1 X141.65 Y158.90 E77.13420
G1 X141.54 Y157.85 E77.19951
G1 X141.64 Y156.81 E77.26497
G1 X141.95 Y155.80 E77.33057
G1 X142.44 Y154.88 E77.39604
G1 X143.10 Y154.06 E77.46155
G1 X143.91 Y153.40 E77.52702
G1 X144.84 Y152.90 E77.59214
G1 X146.53 Y152.37 E77.70273
G1 X146.53 Y152.22 E77.71203
G1 X145.87 Y152.16 E77.75369
G1 X144.86 Y151.85 E77.81929
G1 X143.93 Y151.36 E77.88476
G1 X143.12 Y150.70 E77.95026
G1 X142.45 Y149.89 E78.01578
G1 X141.95 Y148.96 E78.08135
G1 X141.65 Y147.96 E78.14680
G1 X141.54 Y146.91 E78.21217
G1 X141.64 Y145.87 E78.27769
G1 X141.95 Y144.86 E78.34329
G1 X142.44 Y143.93 E78.40877
G1 X143.10 Y143.12 E78.47427
G1 X143.91 Y142.45 E78.53978
G1 X144.83 Y141.96 E78.60420
G1 X146.53 Y141.40 E78.71586
G1 X146.53 Y141.22 E78.72734
G0 F6000 X146.80 Y141.84
G1 F2700 X146.86 Y144.71 E78.90599
G1 X146.95 Y144.71 E78.91136
G1 X147.01 Y141.89 E79.08715
G1 X148.76 Y142.41 E79.20063
G1 X149.59 Y142.86 E79.25964
G1 X150.33 Y143.46 E79.31888
G1 X150.93 Y144.19 E79.37824
G1 X151.38 Y145.03 E79.43767
G1 X151.66 Y145.94 E79.49693
G1 X151.76 Y146.89 E79.55629
G1 X151.66 Y147.84 E79.61569
G1 X151.39 Y148.75 E79.67504
G1 X150.94 Y149.59 E79.73440
G1 X150.34 Y150.33 E79.79374
G1 X149.61 Y150.93 E79.85310
G1 X148.77 Y151.38 E79.91253
G1 X147.86 Y151.66 E79.97186
G1 X146.91 Y151.75 E80.03109
G1 X145.96 Y151.66 E80.09047
G1 X145.05 Y151.39 E80.14990
G1 X144.21 Y150.94 E80.20926
G1 X143.47 Y150.34 E80.26860
G1 X142.87 Y149.61 E80.32796
G1 X142.42 Y148.77 E80.38739
G1 X142.14 Y147.86 E80.44672
G1 X142.05 Y146.91 E80.50595
G1 X142.14 Y145.96 E80.56533
G1 X142.41 Y145.05 E80.62476
G1 X142.86 Y144.21 E80.68412
G1 X143.46 Y143.47 E80.74346
G1 X144.19 Y142.87 E80.80282
G1 X145.02 Y142.42 E80.86141
G1 X146.80 Y141.84 E80.97778
G0 F6000 X146.31 Y142.53
G1 F2700 X146.37 Y145.21 E81.14483
G1 X146.85 Y145.21 E81.17477
G1 X146.85 Y147.60 E81.32419
G1 X146.90 Y147.61 E81.32732
G1 X147.03 Y147.59 E81.33566
G1 X147.17 Y147.55 E81.34479
G1 X147.29 Y147.49 E81.35335
G1 X147.40 Y147.40 E81.36182
G1 X147.49 Y147.29 E81.37033
G1 X147.55 Y147.17 E81.37912
G1 X147.59 Y147.04 E81.38784
G1 X147.61 Y146.90 E81.39631
G1 X147.59 Y146.76 E81.40483
G1 X147.55 Y146.63 E81.41363
G1 X147.41 Y146.35 E81.43310
G1 X147.50 Y142.56 E81.67003
G1 X148.57 Y142.88 E81.73953
G1 X149.31 Y143.28 E81.79235
G1 X149.97 Y143.82 E81.84553
G1 X150.52 Y144.47 E81.89873
G1 X150.92 Y145.23 E81.95199
G1 X151.17 Y146.04 E82.00514
G1 X151.25 Y146.89 E82.05835
G1 X151.17 Y147.74 E82.11161
G1 X150.93 Y148.56 E82.16482
G1 X150.52 Y149.31 E82.21808
G1 X149.98 Y149.97 E82.27126
G1 X149.33 Y150.52 E82.32446
G1 X148.57 Y150.92 E82.37773
G1 X147.76 Y151.17 E82.43093
G1 X146.91 Y151.25 E82.48402
G1 X146.06 Y151.17 E82.53727
G1 X145.24 Y150.93 E82.59055
G1 X144.49 Y150.52 E82.64381
G1 X143.83 Y149.98 E82.69699
G1 X143.28 Y149.33 E82.75019
G1 X142.88 Y148.57 E82.80346
G1 X142.63 Y147.76 E82.85666
G1 X142.55 Y146.91 E82.90975
G1 X142.63 Y146.06 E82.96300
G1 X142.88 Y145.24 E83.01628
G1 X143.28 Y144.49 E83.06954
G1 X143.82 Y143.83 E83.12272
G1 X144.47 Y143.28 E83.17592
G1 X145.22 Y142.89 E83.22868
G1 X146.31 Y142.53 E83.30023
G0 F6000 X145.83 Y143.21
G1 F2700 X145.88 Y145.71 E83.45574
G1 X146.35 Y145.71 E83.48499
G1 X146.35 Y147.97 E83.62618
G1 X146.44 Y148.02 E83.63262
G1 X146.66 Y148.09 E83.64695
G1 X146.90 Y148.11 E83.66193
G1 X147.14 Y148.09 E83.67672
G1 X147.37 Y148.02 E83.69164
G1 X147.57 Y147.90 E83.70642
G1 X147.75 Y147.76 E83.72087
G1 X147.91 Y147.57 E83.73576
G1 X148.02 Y147.36 E83.75083
G1 X148.09 Y147.14 E83.76515
G1 X148.11 Y146.90 E83.78007
G1 X148.09 Y146.66 E83.79505
G1 X148.02 Y146.44 E83.80951
G1 X147.91 Y146.24 E83.82399
G1 X147.98 Y143.22 E84.01176
G1 X148.37 Y143.34 E84.03723
G1 X149.03 Y143.69 E84.08387
G1 X149.62 Y144.17 E84.13094
G1 X150.10 Y144.75 E84.17802
G1 X150.46 Y145.42 E84.22512
G1 X150.68 Y146.14 E84.27213
G1 X150.75 Y146.89 E84.31920
G1 X150.68 Y147.65 E84.36632
G1 X150.46 Y148.37 E84.41341
G1 X150.11 Y149.03 E84.46045
G1 X149.63 Y149.62 E84.50751
G1 X149.05 Y150.10 E84.55460
G1 X148.38 Y150.46 E84.60169
G1 X147.66 Y150.68 E84.64876
G1 X146.91 Y150.75 E84.69571
G1 X146.16 Y150.68 E84.74281
G1 X145.43 Y150.46 E84.78998
G1 X144.77 Y150.11 E84.83702
G1 X144.18 Y149.63 E84.88408
G1 X143.70 Y149.05 E84.93117
G1 X143.35 Y148.38 E84.97827
G1 X143.13 Y147.66 E85.02534
G1 X143.05 Y146.91 E85.07228
G1 X143.12 Y146.16 E85.11938
G1 X143.34 Y145.43 E85.16656
G1 X143.69 Y144.77 E85.21359
G1 X144.17 Y144.18 E85.26066
G1 X144.75 Y143.70 E85.30774
G1 X145.42 Y143.35 E85.35464
G1 X145.83 Y143.21 E85.38142
G0 F6000 X152.84 Y145.87
G1 F2700 X153.15 Y144.86 E85.44702
G1 X153.64 Y143.93 E85.51250
G1 X154.30 Y143.12 E85.57800
G1 X155.11 Y142.45 E85.64352
G1 X156.03 Y141.96 E85.70794
G1 X157.73 Y141.40 E85.81960
G1 X157.73 Y141.22 E85.83108
G1 X158.02 Y141.31 E85.84998
G1 X158.48 Y141.16 E85.88005
G1 X158.49 Y141.45 E85.89820
G1 X160.15 Y141.95 E86.00647
G1 X161.07 Y142.44 E86.07156
G1 X161.88 Y143.10 E86.13698
G1 X162.55 Y143.91 E86.20249
G1 X163.05 Y144.84 E86.26806
G1 X163.35 Y145.85 E86.33351
G1 X163.46 Y146.89 E86.39894
G1 X163.36 Y147.94 E86.46440
G1 X163.05 Y148.94 E86.53000
G1 X162.56 Y149.87 E86.59548
G1 X161.90 Y150.68 E86.66098
G1 X161.09 Y151.35 E86.72650
G1 X160.16 Y151.85 E86.79206
G1 X159.15 Y152.15 E86.85752
G1 X158.11 Y152.26 E86.92295
G1 X157.06 Y152.16 E86.98841
G1 X156.06 Y151.85 E87.05400
G1 X155.13 Y151.36 E87.11948
G1 X154.32 Y150.70 E87.18498
G1 X153.65 Y149.89 E87.25050
G1 X153.15 Y148.96 E87.31606
G1 X152.85 Y147.96 E87.38152
G1 X152.74 Y146.91 E87.44689
G1 X152.84 Y145.87 E87.51241
G0 F6000 X153.34 Y145.96
G1 F2700 X153.61 Y145.05 E87.57183
G1 X154.06 Y144.21 E87.63120
G1 X154.66 Y143.47 E87.69053
G1 X155.39 Y142.87 E87.74989
G1 X156.22 Y142.42 E87.80849
G1 X158.00 Y141.84 E87.92486
G1 X158.06 Y144.71 E88.10351
G1 X158.15 Y144.71 E88.10887
G1 X158.21 Y141.89 E88.28466
G1 X159.96 Y142.41 E88.39815
G1 X160.79 Y142.86 E88.45715
G1 X161.53 Y143.46 E88.51640
G1 X162.13 Y144.19 E88.57576
G1 X162.58 Y145.03 E88.63519
G1 X162.86 Y145.94 E88.69453
G1 X162.95 Y146.89 E88.75381
G1 X162.86 Y147.84 E88.81314
G1 X162.59 Y148.75 E88.87256
G1 X162.14 Y149.59 E88.93192
G1 X161.54 Y150.33 E88.99126
G1 X160.81 Y150.93 E89.05062
G1 X159.97 Y151.38 E89.11005
G1 X159.06 Y151.66 E89.16939
G1 X158.11 Y151.75 E89.22867
G1 X157.16 Y151.66 E89.28800
G1 X156.25 Y151.39 E89.34742
G1 X155.41 Y150.94 E89.40678
G1 X154.67 Y150.34 E89.46612
G1 X154.07 Y149.61 E89.52548
G1 X153.62 Y148.77 E89.58491
G1 X153.34 Y147.86 E89.64425
G1 X153.25 Y146.91 E89.70347
G1 X153.34 Y145.96 E89.76286
G0 F6000 X153.83 Y146.06
G1 F2700 X154.07 Y145.24 E89.81614
G1 X154.48 Y144.49 E89.86940
G1 X155.02 Y143.83 E89.92258
G1 X155.67 Y143.28 E89.97579
G1 X156.42 Y142.89 E90.02854
G1 X157.51 Y142.53 E90.10009
G1 X157.57 Y145.21 E90.26714
G1 X158.05 Y145.21 E90.29714
G1 X158.05 Y147.60 E90.44656
G1 X158.10 Y147.61 E90.44957
G1 X158.23 Y147.59 E90.45797
G1 X158.37 Y147.55 E90.46710
G1 X158.49 Y147.49 E90.47566
G1 X158.60 Y147.40 E90.48413
G1 X158.69 Y147.29 E90.49264
G1 X158.75 Y147.17 E90.50143
G1 X158.79 Y147.04 E90.51015
G1 X158.81 Y146.90 E90.51868
G1 X158.79 Y146.76 E90.52714
G1 X158.75 Y146.63 E90.53594
G1 X158.60 Y146.35 E90.55541
G1 X158.70 Y142.56 E90.79234
G1 X159.76 Y142.88 E90.86184
G1 X160.51 Y143.28 E90.91466
G1 X161.17 Y143.82 E90.96784
G1 X161.72 Y144.47 E91.02104
G1 X162.12 Y145.23 E91.07430
G1 X162.37 Y146.04 E91.12751
G1 X162.45 Y146.89 E91.18065
G1 X162.37 Y147.74 E91.23384
G1 X162.12 Y148.56 E91.28713
G1 X161.72 Y149.31 E91.34039
G1 X161.18 Y149.97 E91.39357
G1 X160.53 Y150.52 E91.44677
G1 X159.77 Y150.92 E91.50003
G1 X158.96 Y151.17 E91.55324
G1 X158.11 Y151.25 E91.60638
G1 X157.26 Y151.17 E91.65957
G1 X156.44 Y150.93 E91.71286
G1 X155.69 Y150.52 E91.76612
G1 X155.03 Y149.98 E91.81930
G1 X154.48 Y149.33 E91.87250
G1 X154.08 Y148.57 E91.92576
G1 X153.83 Y147.76 E91.97896
G1 X153.75 Y146.91 E92.03205
G1 X153.83 Y146.06 E92.08530
G0 F6000 X154.32 Y146.16
G1 F2700 X154.54 Y145.43 E92.13247
G1 X154.89 Y144.77 E92.17951
G1 X155.37 Y144.18 E92.22657
G1 X155.95 Y143.70 E92.27366
G1 X156.62 Y143.35 E92.32056
G1 X157.03 Y143.21 E92.34734
G1 X157.08 Y145.71 E92.50285
G1 X157.55 Y145.71 E92.53216
G1 X157.55 Y147.97 E92.67341
G1 X157.64 Y148.02 E92.67977
G1 X157.86 Y148.09 E92.69410
G1 X158.10 Y148.11 E92.70901
G1 X158.34 Y148.09 E92.72387
G1 X158.56 Y148.02 E92.73878
G1 X158.77 Y147.90 E92.75357
G1 X158.95 Y147.76 E92.76802
G1 X159.10 Y147.57 E92.78291
G1 X159.22 Y147.36 E92.79797
G1 X159.28 Y147.14 E92.81230
G1 X159.31 Y146.90 E92.82728
G1 X159.28 Y146.66 E92.84220
G1 X159.22 Y146.44 E92.85666
G1 X159.11 Y146.24 E92.87114
G1 X159.18 Y143.22 E93.05890
G1 X159.57 Y143.34 E93.08437
G1 X160.23 Y143.69 E93.13102
G1 X160.82 Y144.17 E93.17809
G1 X161.30 Y144.75 E93.22517
G1 X161.65 Y145.42 E93.27227
G1 X161.87 Y146.14 E93.31934
G1 X161.95 Y146.89 E93.36634
G1 X161.88 Y147.64 E93.41339
G1 X161.66 Y148.37 E93.46056
G1 X161.31 Y149.03 E93.50759
G1 X160.83 Y149.62 E93.55466
G1 X160.25 Y150.10 E93.60174
G1 X159.58 Y150.46 E93.64884
G1 X158.86 Y150.68 E93.69591
G1 X158.11 Y150.75 E93.74291
G1 X157.36 Y150.68 E93.78996
G1 X156.63 Y150.46 E93.83713
G1 X155.97 Y150.11 E93.88416
G1 X155.38 Y149.63 E93.93123
G1 X154.90 Y149.05 E93.97831
G1 X154.54 Y148.38 E94.02541
G1 X154.32 Y147.66 E94.07248
G1 X154.25 Y146.91 E94.11942
G1 X154.32 Y146.16 E94.16653
G0 F6000 X149.59 Y153.80
G1 F2700 X150.33 Y154.41 E94.22578
G1 X150.93 Y155.14 E94.28514
G1 X151.38 Y155.98 E94.34456
G1 X151.66 Y156.89 E94.40382
G1 X151.76 Y157.83 E94.46312
G1 X151.66 Y158.78 E94.52252
G1 X151.39 Y159.69 E94.58198
G1 X150.94 Y160.53 E94.64124
G1 X150.34 Y161.27 E94.70063
G1 X149.61 Y161.88 E94.75994
G1 X148.77 Y162.33 E94.81935
G1 X147.86 Y162.60 E94.87875
G1 X146.91 Y162.70 E94.93797
G1 X145.96 Y162.61 E94.99736
G1 X145.05 Y162.33 E95.05684
G1 X144.21 Y161.89 E95.11618
G1 X143.47 Y161.28 E95.17547
G1 X142.87 Y160.55 E95.23488
G1 X142.42 Y159.71 E95.29425
G1 X142.14 Y158.80 E95.35365
G1 X142.05 Y157.85 E95.41288
G1 X142.14 Y156.91 E95.47220
G1 X142.41 Y156.00 E95.53162
G1 X142.86 Y155.15 E95.59099
G1 X143.46 Y154.42 E95.65033
G1 X144.19 Y153.81 E95.70968
G1 X145.03 Y153.36 E95.76878
G1 X146.80 Y152.81 E95.88420
G1 X146.86 Y155.71 E96.06485
G1 X146.94 Y155.71 E96.07009
G1 X147.01 Y152.83 E96.24944
G1 X148.76 Y153.36 E96.36298
G1 X149.59 Y153.80 E96.42196
G0 F6000 X149.31 Y154.22
G1 F2700 X149.97 Y154.76 E96.47514
G1 X150.52 Y155.42 E96.52834
G1 X150.92 Y156.17 E96.58160
G1 X151.17 Y156.99 E96.63475
G1 X151.25 Y157.84 E96.68790
G1 X151.17 Y158.69 E96.74116
G1 X150.93 Y159.50 E96.79443
G1 X150.52 Y160.25 E96.84758
G1 X149.98 Y160.92 E96.90086
G1 X149.33 Y161.46 E96.95402
G1 X148.57 Y161.86 E97.00726
G1 X147.76 Y162.11 E97.06052
G1 X146.91 Y162.20 E97.11361
G1 X146.06 Y162.12 E97.16685
G1 X145.24 Y161.87 E97.22014
G1 X144.49 Y161.47 E97.27343
G1 X143.83 Y160.93 E97.32657
G1 X143.28 Y160.27 E97.37982
G1 X142.88 Y159.52 E97.43303
G1 X142.63 Y158.70 E97.48629
G1 X142.55 Y157.85 E97.53938
G1 X142.63 Y157.00 E97.59257
G1 X142.88 Y156.19 E97.64585
G1 X143.28 Y155.43 E97.69911
G1 X143.82 Y154.77 E97.75229
G1 X144.47 Y154.23 E97.80549
G1 X145.22 Y153.83 E97.85856
G1 X146.31 Y153.49 E97.92955
G1 X146.37 Y156.21 E98.09922
G1 X146.85 Y156.21 E98.12909
G1 X146.85 Y158.55 E98.27502
G1 X146.90 Y158.55 E98.27809
G1 X147.03 Y158.54 E98.28648
G1 X147.17 Y158.50 E98.29562
G1 X147.29 Y158.43 E98.30418
G1 X147.40 Y158.34 E98.31256
G1 X147.49 Y158.24 E98.32138
G1 X147.55 Y158.12 E98.32981
G1 X147.59 Y157.98 E98.33867
G1 X147.61 Y157.84 E98.34720
G1 X147.59 Y157.71 E98.35572
G1 X147.55 Y157.57 E98.36444
G1 X147.41 Y157.30 E98.38389
G1 X147.50 Y153.50 E98.62094
G1 X148.57 Y153.82 E98.69046
G1 X149.31 Y154.22 E98.74327
G0 F6000 X149.03 Y154.64
G1 F2700 X149.62 Y155.12 E98.79034
G1 X150.10 Y155.70 E98.83743
G1 X150.46 Y156.37 E98.88452
G1 X150.68 Y157.09 E98.93153
G1 X150.75 Y157.84 E98.97854
G1 X150.68 Y158.59 E99.02566
G1 X150.46 Y159.31 E99.07281
G1 X150.11 Y159.98 E99.11979
G1 X149.63 Y160.56 E99.16691
G1 X149.05 Y161.04 E99.21395
G1 X148.38 Y161.40 E99.26102
G1 X147.66 Y161.62 E99.30815
G1 X146.91 Y161.69 E99.35509
G1 X146.16 Y161.62 E99.40220
G1 X145.43 Y161.40 E99.44937
G1 X144.77 Y161.05 E99.49644
G1 X144.18 Y160.57 E99.54346
G1 X143.70 Y159.99 E99.59059
G1 X143.35 Y159.32 E99.63763
G1 X143.13 Y158.60 E99.68476
G1 X143.05 Y157.85 E99.73171
G1 X143.12 Y157.10 E99.77875
G1 X143.34 Y156.38 E99.82592
G1 X143.69 Y155.71 E99.87296
G1 X144.17 Y155.13 E99.92002
G1 X144.75 Y154.65 E99.96711
G1 X145.42 Y154.29 E100.01415
G1 X145.83 Y154.16 E100.04070
G1 X145.88 Y156.71 E100.19939
G1 X146.35 Y156.71 E100.22857
G1 X146.35 Y158.81 E100.35953
G1 X146.18 Y158.81 E100.37045
G1 X146.23 Y158.85 E100.37470
G1 X146.44 Y158.96 E100.38977
G1 X146.66 Y159.03 E100.40409
G1 X146.90 Y159.05 E100.41901
G1 X147.14 Y159.03 E100.43393
G1 X147.37 Y158.96 E100.44878
G1 X147.57 Y158.85 E100.46357
G1 X147.75 Y158.70 E100.47793
G1 X147.91 Y158.51 E100.49322
G1 X148.02 Y158.31 E100.50770
G1 X148.09 Y158.08 E100.52230
G1 X148.11 Y157.84 E100.53728
G1 X148.09 Y157.60 E100.55226
G1 X148.02 Y157.38 E100.56658
G1 X147.91 Y157.18 E100.58109
G1 X147.98 Y154.17 E100.76898
G1 X148.37 Y154.29 E100.79445
G1 X149.03 Y154.64 E100.84113
G0 F6000 X147.46 Y149.69
;TYPE:WALL-INNER
G1 F2700 X146.91 Y149.75 E100.87572
G1 X146.35 Y149.69 E100.91080
G1 X145.81 Y149.53 E100.94559
G1 X145.32 Y149.27 E100.98032
G1 X144.89 Y148.91 E101.01524
G1 X144.54 Y148.49 E101.04975
G1 X144.27 Y147.99 E101.08471
G1 X144.11 Y147.46 E101.11945
G1 X144.06 Y146.91 E101.15404
G1 X144.11 Y146.35 E101.18912
G1 X144.27 Y145.81 E101.22390
G1 X144.53 Y145.32 E101.25864
G1 X144.86 Y144.92 E101.29143
G1 X144.89 Y145.99 E101.35849
G1 X144.85 Y146.05 E101.36295
G1 X144.73 Y146.47 E101.38998
G1 X144.69 Y146.90 E101.41706
G1 X144.73 Y147.33 E101.44407
G1 X144.86 Y147.75 E101.47131
G1 X145.06 Y148.13 E101.49832
G1 X145.34 Y148.47 E101.52544
G1 X145.67 Y148.74 E101.55252
G1 X146.05 Y148.94 E101.57939
G1 X146.47 Y149.07 E101.60638
G1 X146.90 Y149.12 E101.63352
G1 X147.33 Y149.07 E101.66066
G1 X147.75 Y148.94 E101.68779
G1 X148.13 Y148.74 E101.71479
G1 X148.47 Y148.46 E101.74191
G1 X148.74 Y148.13 E101.76900
G1 X148.94 Y147.75 E101.79586
G1 X149.07 Y147.33 E101.82285
G1 X149.12 Y146.90 E101.84993
G1 X149.07 Y146.47 E101.87707
G1 X148.95 Y146.06 E101.90398
G1 X148.92 Y146.00 E101.90800
G1 X148.94 Y144.92 E101.97500
G1 X149.26 Y145.31 E102.00645
G1 X149.53 Y145.81 E102.04141
G1 X149.69 Y146.34 E102.07615
G1 X149.75 Y146.89 E102.11075
G1 X149.69 Y147.45 E102.14584
G1 X149.53 Y147.99 E102.18062
G1 X149.27 Y148.48 E102.21535
G1 X148.91 Y148.91 E102.25027
G1 X148.49 Y149.26 E102.28478
G1 X147.99 Y149.53 E102.31974
G1 X147.46 Y149.69 E102.35448
G0 F6000 X147.56 Y150.18
;TYPE:WALL-OUTER
G1 F2700 X146.91 Y150.25 E102.39547
G1 X146.25 Y150.19 E102.43657
G1 X145.63 Y150.00 E102.47721
G1 X145.04 Y149.69 E102.51853
G1 X144.54 Y149.28 E102.55904
G1 X144.12 Y148.76 E102.60033
G1 X143.81 Y148.19 E102.64101
G1 X143.62 Y147.56 E102.68194
G1 X143.55 Y146.91 E102.72294
G1 X143.62 Y146.25 E102.76403
G1 X143.80 Y145.63 E102.80468
G1 X144.12 Y145.04 E102.84599
G1 X144.53 Y144.54 E102.88650
G1 X145.04 Y144.12 E102.92779
G1 X145.34 Y143.95 E102.94944
G1 X145.39 Y146.11 E103.08399
G1 X145.32 Y146.25 E103.09353
G1 X145.22 Y146.57 E103.11445
G1 X145.19 Y146.90 E103.13538
G1 X145.22 Y147.23 E103.15625
G1 X145.32 Y147.56 E103.17730
G1 X145.48 Y147.85 E103.19822
G1 X145.69 Y148.11 E103.21913
G1 X145.95 Y148.32 E103.24005
G1 X146.25 Y148.48 E103.26084
G1 X146.57 Y148.58 E103.28175
G1 X146.90 Y148.61 E103.30269
G1 X147.24 Y148.58 E103.32363
G1 X147.56 Y148.48 E103.34462
G1 X147.85 Y148.32 E103.36554
G1 X148.11 Y148.11 E103.38645
G1 X148.32 Y147.85 E103.40737
G1 X148.48 Y147.56 E103.42816
G1 X148.58 Y147.23 E103.44907
G1 X148.61 Y146.90 E103.46995
G1 X148.58 Y146.57 E103.49088
G1 X148.48 Y146.25 E103.51180
G1 X148.41 Y146.12 E103.52089
G1 X148.47 Y143.96 E103.65551
G1 X148.76 Y144.12 E103.67635
G1 X149.26 Y144.53 E103.71677
G1 X149.68 Y145.04 E103.75806
G1 X149.99 Y145.61 E103.79874
G1 X150.18 Y146.24 E103.83967
G1 X150.25 Y146.90 E103.88073
G1 X150.19 Y147.55 E103.92178
G1 X150.00 Y148.17 E103.96242
G1 X149.69 Y148.76 E104.00373
G1 X149.28 Y149.26 E104.04424
G1 X148.76 Y149.68 E104.08553
G1 X148.19 Y149.99 E104.12621
G1 X147.56 Y150.18 E104.16715
G0 F6000 X147.67 Y149.44
;TYPE:FILL
G1 F2700 X147.45 Y149.22 E104.18681
G1 X147.82 Y149.23 E104.20644
G1 X148.17 Y149.23 E104.22462
G1 X148.18 Y148.89 E104.24279
G1 X148.59 Y148.95 E104.26023
G1 X148.57 Y148.57 E104.27771
G1 X148.95 Y148.59 E104.29533
G1 X148.89 Y148.18 E104.31291
G1 X149.23 Y148.17 E104.33122
G1 X149.23 Y147.82 E104.34953
G1 X149.22 Y147.45 E104.36935
G1 X149.50 Y147.38 E104.38922
G1 X149.28 Y146.80 E104.41314
G1 X149.53 Y146.70 E104.43710
G1 X149.09 Y145.91 E104.47295
G1 X149.50 Y146.32 E104.50894
G0 F6000 X148.43 Y148.43
G0 X146.81 Y149.28
G1 F2700 X147.08 Y149.55 E104.53279
G1 X146.56 Y149.39 E104.55662
G1 X145.85 Y149.03 E104.59749
G1 X146.32 Y149.50 E104.63841
G0 F6000 X144.76 Y147.94
G1 F2700 X144.30 Y147.48 E104.67907
G1 X144.64 Y147.47 E104.71967
G1 X144.25 Y146.72 E104.74374
G1 X144.55 Y146.67 E104.76780
G1 X144.36 Y146.12 E104.78768
G1 X144.65 Y146.06 E104.80756
G1 X144.57 Y145.63 E104.82002
G1 X144.71 Y145.77 E104.83255
G0 F6000 X144.86 Y155.86
;TYPE:WALL-INNER
G1 F2700 X144.89 Y156.94 E104.89967
G1 X144.86 Y157.00 E104.90399
G1 X144.73 Y157.41 E104.93104
G1 X144.69 Y157.84 E104.95811
G1 X144.73 Y158.28 E104.98519
G1 X144.86 Y158.69 E105.01249
G1 X145.06 Y159.07 E105.03933
G1 X145.34 Y159.41 E105.06646
G1 X145.67 Y159.69 E105.09363
G1 X146.05 Y159.89 E105.12050
G1 X146.47 Y160.01 E105.14755
G1 X146.90 Y160.06 E105.17462
G1 X147.33 Y160.01 E105.20163
G1 X147.75 Y159.89 E105.22888
G1 X148.13 Y159.68 E105.25588
G1 X148.47 Y159.41 E105.28300
G1 X148.74 Y159.07 E105.31013
G1 X148.94 Y158.69 E105.33689
G1 X149.07 Y158.28 E105.36394
G1 X149.12 Y157.84 E105.39108
G1 X149.07 Y157.41 E105.41822
G1 X148.94 Y157.00 E105.44521
G1 X148.92 Y156.94 E105.44909
G1 X148.94 Y155.87 E105.51609
G1 X149.26 Y156.26 E105.54754
G1 X149.53 Y156.75 E105.58250
G1 X149.69 Y157.28 E105.61724
G1 X149.75 Y157.84 E105.65184
G1 X149.69 Y158.40 E105.68699
G1 X149.53 Y158.93 E105.72165
G1 X149.27 Y159.42 E105.75619
G1 X148.91 Y159.85 E105.79129
G1 X148.49 Y160.21 E105.82589
G1 X147.99 Y160.47 E105.86090
G1 X147.46 Y160.63 E105.89552
G1 X146.91 Y160.69 E105.93012
G1 X146.35 Y160.64 E105.96520
G1 X145.82 Y160.48 E105.99984
G1 X145.32 Y160.21 E106.03486
G1 X144.89 Y159.86 E106.06939
G1 X144.54 Y159.43 E106.10438
G1 X144.27 Y158.94 E106.13907
G1 X144.11 Y158.40 E106.17387
G1 X144.06 Y157.85 E106.20846
G1 X144.11 Y157.29 E106.24348
G1 X144.27 Y156.76 E106.27826
G1 X144.53 Y156.27 E106.31299
G1 X144.86 Y155.86 E106.34579
G0 F6000 X144.53 Y155.48
;TYPE:WALL-OUTER
G1 F2700 X145.04 Y155.06 E106.38708
G1 X145.34 Y154.90 E106.40873
G1 X145.39 Y157.06 E106.54334
G1 X145.32 Y157.19 E106.55277
G1 X145.22 Y157.51 E106.57369
G1 X145.19 Y157.84 E106.59462
G1 X145.22 Y158.18 E106.61555
G1 X145.32 Y158.50 E106.63666
G1 X145.48 Y158.79 E106.65742
G1 X145.69 Y159.06 E106.67838
G1 X145.95 Y159.27 E106.69935
G1 X146.25 Y159.43 E106.72014
G1 X146.57 Y159.52 E106.74105
G1 X146.90 Y159.56 E106.76198
G1 X147.23 Y159.52 E106.78285
G1 X147.56 Y159.42 E106.80390
G1 X147.85 Y159.27 E106.82483
G1 X148.11 Y159.05 E106.84574
G1 X148.32 Y158.79 E106.86671
G1 X148.48 Y158.50 E106.88744
G1 X148.58 Y158.18 E106.90835
G1 X148.61 Y157.84 E106.92929
G1 X148.58 Y157.51 E106.95022
G1 X148.48 Y157.19 E106.97114
G1 X148.41 Y157.06 E106.98023
G1 X148.47 Y154.90 E107.11491
G1 X148.76 Y155.06 E107.13556
G1 X149.26 Y155.47 E107.17624
G1 X149.68 Y155.98 E107.21753
G1 X149.99 Y156.56 E107.25821
G1 X150.18 Y157.18 E107.29914
G1 X150.25 Y157.84 E107.34014
G1 X150.19 Y158.49 E107.38118
G1 X150.00 Y159.12 E107.42189
G1 X149.69 Y159.70 E107.46287
G1 X149.27 Y160.21 E107.50395
G1 X148.76 Y160.63 E107.54493
G1 X148.19 Y160.94 E107.58564
G1 X147.56 Y161.13 E107.62658
G1 X146.91 Y161.19 E107.66757
G1 X146.25 Y161.13 E107.70867
G1 X145.63 Y160.94 E107.74917
G1 X145.04 Y160.63 E107.79052
G1 X144.54 Y160.22 E107.83138
G1 X144.12 Y159.71 E107.87244
G1 X143.81 Y159.13 E107.91307
G1 X143.62 Y158.50 E107.95406
G1 X143.55 Y157.85 E107.99505
G1 X143.62 Y157.19 E108.03609
G1 X143.80 Y156.57 E108.07673
G1 X144.12 Y155.99 E108.11805
G1 X144.53 Y155.48 E108.15856
G0 F6000 X144.44 Y156.81
;TYPE:FILL
G1 F2700 X144.66 Y157.04 E108.17831
G1 X144.36 Y157.09 E108.19805
G1 X144.53 Y157.62 E108.22062
G1 X144.26 Y157.70 E108.24323
G1 X144.57 Y158.36 E108.27171
G1 X144.25 Y158.04 E108.30024
G0 F6000 X144.50 Y159.00
G1 F2700 X145.74 Y160.24 E108.40938
G1 X144.50 Y159.00 E108.51852
G0 F6000 X146.38 Y160.17
G1 F2700 X146.70 Y160.49 E108.54692
G1 X146.75 Y160.19 E108.57532
G1 X147.38 Y160.46 E108.59769
G1 X147.42 Y160.15 E108.62007
G1 X147.93 Y160.31 E108.63961
G1 X147.95 Y159.97 E108.65918
G1 X148.39 Y160.06 E108.67715
G1 X148.38 Y159.70 E108.69516
G1 X148.78 Y159.74 E108.71240
G1 X148.74 Y159.34 E108.72970
G1 X149.10 Y159.35 E108.74757
G1 X149.12 Y159.02 E108.76549
G1 X149.13 Y158.68 E108.78487
G1 X149.43 Y158.63 E108.80430
G1 X149.26 Y158.10 E108.82682
G1 X149.54 Y158.02 E108.84943
G1 X149.24 Y157.38 E108.87681
G1 X149.44 Y157.22 E108.90434
G1 X149.13 Y156.55 E108.92265
G1 X149.34 Y156.76 E108.94099
G0 F6000 X156.09 Y148.91
;TYPE:WALL-INNER
G1 F2700 X155.74 Y148.49 E108.97550
G1 X155.47 Y147.99 E109.01046
G1 X155.31 Y147.46 E109.04520
G1 X155.25 Y146.91 E109.07980
G1 X155.31 Y146.35 E109.11488
G1 X155.47 Y145.81 E109.14966
G1 X155.73 Y145.32 E109.18439
G1 X156.06 Y144.92 E109.21718
G1 X156.09 Y145.99 E109.28424
G1 X156.05 Y146.05 E109.28871
G1 X155.93 Y146.47 E109.31574
G1 X155.89 Y146.90 E109.34281
G1 X155.93 Y147.33 E109.36982
G1 X156.06 Y147.75 E109.39707
G1 X156.26 Y148.13 E109.42407
G1 X156.54 Y148.47 E109.45119
G1 X156.87 Y148.74 E109.47828
G1 X157.25 Y148.94 E109.50514
G1 X157.67 Y149.07 E109.53213
G1 X158.10 Y149.12 E109.55921
G1 X158.53 Y149.07 E109.58641
G1 X158.95 Y148.94 E109.61354
G1 X159.33 Y148.74 E109.64055
G1 X159.67 Y148.46 E109.66766
G1 X159.94 Y148.13 E109.69475
G1 X160.14 Y147.75 E109.72162
G1 X160.27 Y147.33 E109.74866
G1 X160.31 Y146.90 E109.77568
G1 X160.27 Y146.47 E109.80275
G1 X160.15 Y146.06 E109.82972
G1 X160.12 Y146.00 E109.83374
G1 X160.14 Y144.92 E109.90073
G1 X160.46 Y145.31 E109.93219
G1 X160.73 Y145.81 E109.96715
G1 X160.89 Y146.34 E110.00189
G1 X160.94 Y146.89 E110.03648
G1 X160.89 Y147.45 E110.07156
G1 X160.73 Y147.99 E110.10634
G1 X160.47 Y148.48 E110.14107
G1 X160.11 Y148.91 E110.17599
G1 X159.69 Y149.26 E110.21050
G1 X159.19 Y149.53 E110.24546
G1 X158.66 Y149.69 E110.28020
G1 X158.11 Y149.75 E110.31480
G1 X157.55 Y149.69 E110.34988
G1 X157.01 Y149.53 E110.38466
G1 X156.52 Y149.27 E110.41939
G1 X156.09 Y148.91 E110.45431
G0 F6000 X155.74 Y149.28
;TYPE:WALL-OUTER
G1 F2700 X155.32 Y148.76 E110.49560
G1 X155.01 Y148.19 E110.53628
G1 X154.82 Y147.56 E110.57722
G1 X154.75 Y146.91 E110.61821
G1 X154.81 Y146.25 E110.65931
G1 X155.00 Y145.63 E110.69995
G1 X155.31 Y145.04 E110.74127
G1 X155.72 Y144.54 E110.78177
G1 X156.24 Y144.12 E110.82306
G1 X156.54 Y143.95 E110.84471
G1 X156.59 Y146.11 E110.97927
G1 X156.52 Y146.25 E110.98881
G1 X156.42 Y146.57 E111.00972
G1 X156.39 Y146.90 E111.03065
G1 X156.42 Y147.23 E111.05152
G1 X156.52 Y147.56 E111.07257
G1 X156.68 Y147.85 E111.09349
G1 X156.89 Y148.11 E111.11441
G1 X157.15 Y148.32 E111.13533
G1 X157.44 Y148.48 E111.15611
G1 X157.77 Y148.58 E111.17702
G1 X158.10 Y148.61 E111.19790
G1 X158.43 Y148.58 E111.21890
G1 X158.76 Y148.48 E111.23989
G1 X159.05 Y148.32 E111.26081
G1 X159.31 Y148.11 E111.28172
G1 X159.52 Y147.85 E111.30265
G1 X159.68 Y147.56 E111.32343
G1 X159.78 Y147.23 E111.34434
G1 X159.81 Y146.90 E111.36521
G1 X159.78 Y146.57 E111.38614
G1 X159.68 Y146.25 E111.40706
G1 X159.61 Y146.12 E111.41615
G1 X159.66 Y143.96 E111.55077
G1 X159.96 Y144.12 E111.57161
G1 X160.46 Y144.53 E111.61203
G1 X160.88 Y145.04 E111.65332
G1 X161.19 Y145.61 E111.69400
G1 X161.38 Y146.24 E111.73493
G1 X161.45 Y146.89 E111.77592
G1 X161.38 Y147.55 E111.81702
G1 X161.20 Y148.17 E111.85766
G1 X160.88 Y148.76 E111.89898
G1 X160.47 Y149.26 E111.93949
G1 X159.96 Y149.68 E111.98078
G1 X159.39 Y149.99 E112.02146
G1 X158.76 Y150.18 E112.06239
G1 X158.10 Y150.25 E112.10345
G1 X157.45 Y150.19 E112.14448
G1 X156.83 Y150.00 E112.18513
G1 X156.24 Y149.69 E112.22644
G1 X155.74 Y149.28 E112.26695
G0 F6000 X155.98 Y149.02
G0 X157.26 Y149.13
;TYPE:FILL
G1 F2700 X157.66 Y149.53 E112.30183
G1 X157.69 Y149.21 E112.33669
G1 X158.38 Y149.54 E112.35902
G1 X158.43 Y149.24 E112.38134
G1 X158.96 Y149.41 E112.40112
G1 X158.99 Y149.09 E112.42087
G1 X159.45 Y149.19 E112.43903
G1 X159.45 Y148.84 E112.45715
G1 X159.85 Y148.90 E112.47461
G1 X159.83 Y148.51 E112.49209
G1 X160.20 Y148.53 E112.50969
G1 X160.13 Y148.11 E112.52723
G1 X160.47 Y148.10 E112.54548
G1 X160.47 Y147.74 E112.56371
G1 X160.44 Y147.36 E112.58370
G1 X160.71 Y147.28 E112.60364
G1 X160.46 Y146.68 E112.62970
G1 X160.70 Y146.56 E112.65577
G1 X160.29 Y145.80 E112.68702
G1 X160.65 Y146.15 E112.71837
G0 F6000 X159.63 Y148.43
G0 X158.10 Y149.06
G0 X156.57 Y148.43
G0 X155.94 Y146.90
G0 X155.81 Y146.26
G1 F2700 X155.58 Y146.04 E112.73831
G1 X155.63 Y146.44 E112.75816
G1 X155.71 Y146.87 E112.78073
G1 X155.46 Y146.98 E112.80333
G1 X155.87 Y147.74 E112.83815
G1 X155.47 Y147.34 E112.87303
;LAYER:1
G0 F6000 X155.31 Y147.47 Z0.55
;TYPE:WALL-INNER
G1 F780 X155.25 Y146.89 E112.90301
G1 X155.31 Y146.35 E112.93137
G1 X155.47 Y145.82 E112.96025
G1 X155.73 Y145.32 E112.98968
G1 X156.06 Y144.92 E113.01675
G1 X156.09 Y145.99 E113.07263
G1 X156.05 Y146.05 E113.07635
G1 X155.93 Y146.47 E113.09887
G1 X155.89 Y146.90 E113.12149
G1 X155.93 Y147.34 E113.14431
G1 X156.06 Y147.75 E113.16686
G1 X156.26 Y148.13 E113.18912
G1 X156.53 Y148.47 E113.21172
G1 X156.88 Y148.74 E113.23449
G1 X157.25 Y148.94 E113.25667
G1 X157.67 Y149.07 E113.27921
G1 X158.10 Y149.12 E113.30178
G1 X158.54 Y149.07 E113.32477
G1 X158.95 Y148.94 E113.34726
G1 X159.33 Y148.74 E113.36951
G1 X159.67 Y148.47 E113.39211
G1 X159.94 Y148.12 E113.41488
G1 X160.14 Y147.75 E113.43706
G1 X160.27 Y147.33 E113.45965
G1 X160.31 Y146.90 E113.48221
G1 X160.27 Y146.46 E113.50504
G1 X160.14 Y146.05 E113.52748
G1 X160.12 Y146.00 E113.53059
G1 X160.14 Y144.93 E113.58621
G1 X160.46 Y145.31 E113.61194
G1 X160.73 Y145.81 E113.64175
G1 X160.89 Y146.33 E113.67004
G1 X160.94 Y146.91 E113.70002
G1 X160.89 Y147.45 E113.72832
G1 X160.73 Y147.98 E113.75710
G1 X160.47 Y148.48 E113.78664
G1 X160.12 Y148.90 E113.81478
G1 X159.69 Y149.26 E113.84386
G1 X159.19 Y149.53 E113.87367
G1 X158.67 Y149.69 E113.90196
G1 X158.09 Y149.75 E113.93194
G1 X157.55 Y149.69 E113.96025
G1 X157.02 Y149.53 E113.98902
G1 X156.52 Y149.27 E114.01856
G1 X156.10 Y148.92 E114.04670
G1 X155.74 Y148.49 E114.07578
G1 X155.47 Y147.99 E114.10559
G1 X155.31 Y147.47 E114.13383
G0 F6000 X154.82 Y147.57
;TYPE:WALL-OUTER
G1 F780 X154.75 Y146.90 E114.16884
G1 X154.81 Y146.25 E114.20289
G1 X155.00 Y145.63 E114.23623
G1 X155.31 Y145.04 E114.27108
G1 X155.72 Y144.54 E114.30449
G1 X156.23 Y144.12 E114.33867
G1 X156.54 Y143.96 E114.35718
G1 X156.59 Y146.11 E114.46920
G1 X156.52 Y146.25 E114.47715
G1 X156.42 Y146.57 E114.49458
G1 X156.39 Y146.90 E114.51202
G1 X156.42 Y147.24 E114.52973
G1 X156.52 Y147.56 E114.54717
G1 X156.68 Y147.85 E114.56433
G1 X156.89 Y148.11 E114.58175
G1 X157.15 Y148.32 E114.59941
G1 X157.44 Y148.48 E114.61657
G1 X157.77 Y148.58 E114.63400
G1 X158.10 Y148.61 E114.65140
G1 X158.44 Y148.58 E114.66916
G1 X158.76 Y148.48 E114.68660
G1 X159.05 Y148.32 E114.70376
G1 X159.31 Y148.11 E114.72119
G1 X159.52 Y147.85 E114.73885
G1 X159.68 Y147.56 E114.75601
G1 X159.78 Y147.23 E114.77343
G1 X159.81 Y146.90 E114.79082
G1 X159.78 Y146.56 E114.80853
G1 X159.68 Y146.24 E114.82586
G1 X159.61 Y146.12 E114.83332
G1 X159.66 Y143.96 E114.94550
G1 X159.96 Y144.11 E114.96284
G1 X160.46 Y144.52 E114.99629
G1 X160.88 Y145.03 E115.03047
G1 X161.19 Y145.62 E115.06548
G1 X161.38 Y146.23 E115.09850
G1 X161.45 Y146.90 E115.13351
G1 X161.38 Y147.55 E115.16755
G1 X161.20 Y148.17 E115.20089
G1 X160.88 Y148.76 E115.23574
G1 X160.48 Y149.26 E115.26916
G1 X159.97 Y149.68 E115.30333
G1 X159.38 Y150.00 E115.33835
G1 X158.77 Y150.18 E115.37136
G1 X158.10 Y150.25 E115.40642
G1 X157.45 Y150.19 E115.44041
G1 X156.83 Y150.00 E115.47375
G1 X156.24 Y149.69 E115.50860
G1 X155.74 Y149.28 E115.54202
G1 X155.32 Y148.77 E115.57619
G1 X155.00 Y148.18 E115.61121
G1 X154.82 Y147.57 E115.64422
G0 F6000 X155.50 Y147.49
;TYPE:FILL
G1 F780 X155.74 Y147.25 E115.66201
G1 X155.70 Y147.65 E115.67980
G1 X155.68 Y148.02 E115.69492
G1 X156.02 Y148.04 E115.71004
G1 X155.94 Y148.46 E115.72463
G1 X156.31 Y148.45 E115.73924
G1 X156.27 Y148.84 E115.75385
G1 X156.68 Y148.79 E115.76846
G1 X156.67 Y149.15 E115.78383
G1 X157.01 Y149.16 E115.79923
G1 X157.37 Y149.16 E115.81578
G1 X157.42 Y149.46 E115.83234
G1 X157.96 Y149.28 E115.85127
G1 X158.06 Y149.53 E115.87020
G1 X158.76 Y149.18 E115.89628
G1 X158.41 Y149.54 E115.92237
G0 F6000 X159.48 Y149.17
G1 F780 X160.38 Y148.27 E115.98873
G1 X159.48 Y149.17 E116.05510
G0 F6000 X160.38 Y147.56
G1 F780 X160.74 Y147.21 E116.08134
G1 X160.43 Y147.16 E116.10761
G1 X160.73 Y146.51 E116.12613
G1 X160.42 Y146.47 E116.14469
G1 X160.58 Y145.95 E116.16101
G1 X160.36 Y146.17 E116.17736
G0 F6000 X159.90 Y148.09
G0 X158.53 Y149.02
G0 X156.91 Y148.70
G0 X155.98 Y147.33
G0 X155.90 Y145.68
G1 F780 X155.60 Y145.98 E116.19970
G1 X155.82 Y146.11 E116.22203
G1 X155.43 Y146.85 E116.24494
G1 X155.75 Y146.54 E116.26787
G0 F6000 X149.75 Y146.91
;TYPE:WALL-INNER
G1 F780 X149.69 Y147.45 E116.29623
G1 X149.53 Y147.98 E116.32500
G1 X149.27 Y148.48 E116.35455
G1 X148.92 Y148.90 E116.38268
G1 X148.49 Y149.26 E116.41177
G1 X147.99 Y149.53 E116.44158
G1 X147.47 Y149.69 E116.46982
G1 X146.89 Y149.75 E116.49980
G1 X146.35 Y149.69 E116.52815
G1 X145.82 Y149.53 E116.55693
G1 X145.32 Y149.27 E116.58647
G1 X144.90 Y148.92 E116.61461
G1 X144.54 Y148.49 E116.64369
G1 X144.27 Y147.99 E116.67350
G1 X144.11 Y147.47 E116.70174
G1 X144.06 Y146.89 E116.73173
G1 X144.11 Y146.35 E116.76008
G1 X144.27 Y145.82 E116.78896
G1 X144.53 Y145.32 E116.81839
G1 X144.86 Y144.92 E116.84546
G1 X144.89 Y145.99 E116.90134
G1 X144.85 Y146.05 E116.90506
G1 X144.73 Y146.47 E116.92758
G1 X144.69 Y146.90 E116.95020
G1 X144.73 Y147.34 E116.97302
G1 X144.86 Y147.75 E116.99558
G1 X145.06 Y148.13 E117.01783
G1 X145.34 Y148.47 E117.04043
G1 X145.68 Y148.74 E117.06320
G1 X146.05 Y148.94 E117.08538
G1 X146.47 Y149.07 E117.10792
G1 X146.90 Y149.12 E117.13059
G1 X147.34 Y149.07 E117.15348
G1 X147.75 Y148.94 E117.17597
G1 X148.13 Y148.74 E117.19822
G1 X148.47 Y148.47 E117.22082
G1 X148.74 Y148.12 E117.24359
G1 X148.94 Y147.75 E117.26577
G1 X149.07 Y147.33 E117.28831
G1 X149.12 Y146.90 E117.31088
G1 X149.07 Y146.46 E117.33381
G1 X148.94 Y146.05 E117.35620
G1 X148.92 Y146.00 E117.35932
G1 X148.94 Y144.93 E117.41494
G1 X149.26 Y145.31 E117.44066
G1 X149.53 Y145.81 E117.47047
G1 X149.69 Y146.33 E117.49877
G1 X149.75 Y146.91 E117.52870
G0 F6000 X150.25 Y146.90
;TYPE:WALL-OUTER
G1 F780 X150.19 Y147.55 E117.56275
G1 X150.00 Y148.17 E117.59609
G1 X149.69 Y148.76 E117.63094
G1 X149.28 Y149.26 E117.66436
G1 X148.77 Y149.68 E117.69853
G1 X148.18 Y150.00 E117.73355
G1 X147.57 Y150.18 E117.76651
G1 X146.90 Y150.25 E117.80157
G1 X146.25 Y150.19 E117.83562
G1 X145.63 Y150.00 E117.86896
G1 X145.04 Y149.69 E117.90381
G1 X144.54 Y149.28 E117.93722
G1 X144.12 Y148.77 E117.97140
G1 X143.81 Y148.18 E118.00641
G1 X143.62 Y147.57 E118.03942
G1 X143.55 Y146.90 E118.07443
G1 X143.62 Y146.25 E118.10848
G1 X143.80 Y145.63 E118.14182
G1 X144.12 Y145.04 E118.17667
G1 X144.52 Y144.54 E118.21008
G1 X145.03 Y144.12 E118.24426
G1 X145.34 Y143.96 E118.26277
G1 X145.39 Y146.11 E118.37479
G1 X145.32 Y146.25 E118.38274
G1 X145.22 Y146.57 E118.40017
G1 X145.19 Y146.90 E118.41761
G1 X145.22 Y147.24 E118.43532
G1 X145.32 Y147.56 E118.45276
G1 X145.48 Y147.85 E118.46992
G1 X145.69 Y148.11 E118.48734
G1 X145.96 Y148.32 E118.50500
G1 X146.25 Y148.48 E118.52216
G1 X146.57 Y148.58 E118.53959
G1 X146.90 Y148.61 E118.55704
G1 X147.24 Y148.58 E118.57475
G1 X147.56 Y148.48 E118.59219
G1 X147.85 Y148.32 E118.60935
G1 X148.11 Y148.11 E118.62678
G1 X148.32 Y147.85 E118.64444
G1 X148.48 Y147.56 E118.66160
G1 X148.58 Y147.23 E118.67902
G1 X148.61 Y146.90 E118.69642
G1 X148.58 Y146.56 E118.71418
G1 X148.48 Y146.24 E118.73146
G1 X148.41 Y146.12 E118.73892
G1 X148.47 Y143.96 E118.85110
G1 X148.76 Y144.11 E118.86845
G1 X149.26 Y144.52 E118.90190
G1 X149.68 Y145.03 E118.93607
G1 X150.00 Y145.62 E118.97109
G1 X150.18 Y146.23 E119.00405
G1 X150.25 Y146.90 E119.03911
G0 F6000 X149.55 Y147.08
;TYPE:FILL
G1 F780 X149.23 Y147.40 E119.06263
G1 X149.41 Y146.87 E119.08614
G1 X149.52 Y146.41 E119.10464
G1 X149.20 Y146.37 E119.12312
G1 X149.35 Y145.86 E119.13924
G1 X149.13 Y146.08 E119.15541
G0 F6000 X149.31 Y148.03
G1 F780 X148.03 Y149.31 E119.24934
G1 X149.31 Y148.03 E119.34326
G0 F6000 X147.40 Y149.23
G1 F780 X147.08 Y149.55 E119.36660
G1 X147.03 Y149.25 E119.38996
G1 X146.40 Y149.52 E119.40884
G1 X146.37 Y149.20 E119.42771
G1 X145.86 Y149.36 E119.44390
G1 X145.84 Y149.02 E119.46012
G1 X145.40 Y149.11 E119.47528
G1 X145.41 Y148.75 E119.49046
G1 X145.01 Y148.79 E119.50483
G1 X145.05 Y148.39 E119.51923
G1 X144.69 Y148.40 E119.53412
G1 X144.67 Y148.07 E119.54906
G1 X144.66 Y147.72 E119.56506
G1 X144.37 Y147.67 E119.58109
G1 X144.54 Y147.15 E119.59960
G1 X144.26 Y147.06 E119.61816
G1 X144.56 Y146.41 E119.64148
G1 X144.37 Y146.25 E119.66492
G1 X144.67 Y145.60 E119.67827
G1 X144.49 Y145.78 E119.69164
G0 F6000 X144.86 Y155.86
;TYPE:WALL-INNER
G1 F780 X144.89 Y156.94 E119.74758
G1 X144.86 Y157.00 E119.75118
G1 X144.73 Y157.41 E119.77372
G1 X144.69 Y157.84 E119.79633
G1 X144.73 Y158.28 E119.81921
G1 X144.86 Y158.70 E119.84178
G1 X145.06 Y159.07 E119.86396
G1 X145.34 Y159.41 E119.88657
G1 X145.68 Y159.69 E119.90936
G1 X146.05 Y159.89 E119.93155
G1 X146.47 Y160.01 E119.95413
G1 X146.90 Y160.06 E119.97675
G1 X147.34 Y160.01 E119.99957
G1 X147.75 Y159.89 E120.02213
G1 X148.13 Y159.68 E120.04438
G1 X148.47 Y159.41 E120.06702
G1 X148.74 Y159.07 E120.08978
G1 X148.94 Y158.69 E120.11192
G1 X149.07 Y158.28 E120.13446
G1 X149.12 Y157.84 E120.15713
G1 X149.07 Y157.41 E120.18001
G1 X148.94 Y156.99 E120.20245
G1 X148.92 Y156.94 E120.20552
G1 X148.94 Y155.87 E120.26109
G1 X149.26 Y156.25 E120.28682
G1 X149.53 Y156.76 E120.31662
G1 X149.69 Y157.28 E120.34487
G1 X149.75 Y157.85 E120.37480
G1 X149.69 Y158.39 E120.40321
G1 X149.53 Y158.92 E120.43189
G1 X149.27 Y159.42 E120.46127
G1 X148.92 Y159.85 E120.48982
G1 X148.49 Y160.20 E120.51879
G1 X147.99 Y160.47 E120.54856
G1 X147.47 Y160.63 E120.57675
G1 X146.89 Y160.69 E120.60673
G1 X146.35 Y160.64 E120.63509
G1 X145.82 Y160.48 E120.66369
G1 X145.32 Y160.21 E120.69333
G1 X144.90 Y159.87 E120.72169
G1 X144.54 Y159.44 E120.75071
G1 X144.27 Y158.93 E120.78052
G1 X144.11 Y158.41 E120.80863
G1 X144.06 Y157.84 E120.83867
G1 X144.11 Y157.29 E120.86697
G1 X144.27 Y156.76 E120.89597
G1 X144.53 Y156.26 E120.92528
G1 X144.86 Y155.86 E120.95235
G0 F6000 X144.52 Y155.49
;TYPE:WALL-OUTER
G1 F780 X145.03 Y155.07 E120.98641
G1 X145.34 Y154.90 E121.00502
G1 X145.39 Y157.06 E121.11709
G1 X145.32 Y157.19 E121.12495
G1 X145.22 Y157.51 E121.14238
G1 X145.19 Y157.84 E121.15982
G1 X145.22 Y158.18 E121.17758
G1 X145.32 Y158.50 E121.19502
G1 X145.48 Y158.79 E121.21213
G1 X145.69 Y159.06 E121.22960
G1 X145.96 Y159.27 E121.24726
G1 X146.25 Y159.43 E121.26442
G1 X146.57 Y159.52 E121.28185
G1 X146.90 Y159.56 E121.29929
G1 X147.24 Y159.52 E121.31700
G1 X147.56 Y159.42 E121.33444
G1 X147.85 Y159.27 E121.35160
G1 X148.11 Y159.05 E121.36902
G1 X148.32 Y158.79 E121.38672
G1 X148.48 Y158.50 E121.40384
G1 X148.58 Y158.18 E121.42126
G1 X148.61 Y157.84 E121.43871
G1 X148.58 Y157.50 E121.45648
G1 X148.48 Y157.19 E121.47380
G1 X148.41 Y157.06 E121.48117
G1 X148.47 Y154.90 E121.59335
G1 X148.76 Y155.06 E121.61079
G1 X149.26 Y155.47 E121.64414
G1 X149.68 Y155.97 E121.67831
G1 X150.00 Y156.57 E121.71333
G1 X150.18 Y157.17 E121.74629
G1 X150.25 Y157.84 E121.78130
G1 X150.19 Y158.50 E121.81546
G1 X150.00 Y159.11 E121.84863
G1 X149.69 Y159.70 E121.88355
G1 X149.28 Y160.20 E121.91701
G1 X148.77 Y160.62 E121.95104
G1 X148.18 Y160.94 E121.98618
G1 X147.57 Y161.12 E122.01914
G1 X146.90 Y161.19 E122.05420
G1 X146.25 Y161.13 E122.08825
G1 X145.63 Y160.94 E122.12159
G1 X145.04 Y160.63 E122.15658
G1 X144.54 Y160.22 E122.18985
G1 X144.13 Y159.72 E122.22396
G1 X143.81 Y159.12 E122.25909
G1 X143.62 Y158.51 E122.29199
G1 X143.55 Y157.84 E122.32710
G1 X143.62 Y157.19 E122.36109
G1 X143.80 Y156.58 E122.39444
G1 X144.12 Y155.99 E122.42928
G1 X144.52 Y155.49 E122.46270
G0 F6000 X144.71 Y156.87
;TYPE:FILL
G1 F780 X144.29 Y157.29 E122.49342
G1 X144.61 Y157.32 E122.52415
G1 X144.25 Y158.03 E122.54375
G1 X144.55 Y158.09 E122.56338
G1 X144.36 Y158.63 E122.57975
G1 X144.68 Y158.66 E122.59614
G1 X144.57 Y159.13 E122.61115
G1 X144.92 Y159.13 E122.62615
G1 X144.86 Y159.55 E122.64064
G1 X145.24 Y159.52 E122.65517
G1 X145.22 Y159.90 E122.66985
G1 X145.63 Y159.84 E122.68451
G1 X145.64 Y160.18 E122.69972
G1 X145.99 Y160.18 E122.71495
G1 X146.37 Y160.16 E122.73148
G1 X146.44 Y160.44 E122.74804
G1 X147.02 Y160.22 E122.76846
G1 X147.12 Y160.47 E122.78894
G1 X147.98 Y159.96 E122.82383
G1 X147.51 Y160.44 E122.85882
G0 F6000 X149.01 Y158.93
G1 F780 X149.49 Y158.45 E122.89388
G1 X149.01 Y158.93 E122.92893
G0 F6000 X149.28 Y157.96
G1 F780 X149.55 Y157.68 E122.94914
G1 X149.25 Y157.63 E122.96930
G1 X149.45 Y157.08 E122.98565
G1 X149.16 Y157.02 E123.00206
G1 X149.24 Y156.59 E123.01240
G1 X149.10 Y156.73 E123.02276
;LAYER:2
G0 F6000 X148.92 Y156.94 Z0.80
;TYPE:WALL-INNER
G1 F780 X148.94 Y155.87 E123.07828
G1 X149.26 Y156.25 E123.10389
G1 X149.53 Y156.76 E123.13368
G1 X149.69 Y157.29 E123.16284
G1 X149.75 Y157.85 E123.19177
G1 X149.69 Y158.39 E123.22023
G1 X149.53 Y158.94 E123.24983
G1 X149.27 Y159.42 E123.27850
G1 X148.93 Y159.84 E123.30638
G1 X148.50 Y160.20 E123.33550
G1 X147.99 Y160.47 E123.36575
G1 X147.45 Y160.64 E123.39477
G1 X146.90 Y160.69 E123.42369
G1 X146.35 Y160.64 E123.45220
G1 X145.81 Y160.47 E123.48160
G1 X145.32 Y160.21 E123.51070
G1 X144.91 Y159.87 E123.53833
G1 X144.55 Y159.44 E123.56759
G1 X144.27 Y158.93 E123.59756
G1 X144.11 Y158.40 E123.62673
G1 X144.05 Y157.84 E123.65566
G1 X144.11 Y157.30 E123.68411
G1 X144.27 Y156.75 E123.71367
G1 X144.53 Y156.27 E123.74229
G1 X144.86 Y155.86 E123.76951
G1 X144.89 Y156.94 E123.82539
G1 X144.86 Y157.00 E123.82899
G1 X144.73 Y157.41 E123.85153
G1 X144.69 Y157.84 E123.87415
G1 X144.73 Y158.29 E123.89734
G1 X144.86 Y158.71 E123.91998
G1 X145.07 Y159.08 E123.94242
G1 X145.34 Y159.42 E123.96498
G1 X145.68 Y159.69 E123.98741
G1 X146.05 Y159.89 E124.00938
G1 X146.47 Y160.01 E124.03192
G1 X146.90 Y160.06 E124.05459
G1 X147.34 Y160.01 E124.07768
G1 X147.76 Y159.88 E124.10026
G1 X148.14 Y159.68 E124.12280
G1 X148.48 Y159.40 E124.14539
G1 X148.75 Y159.06 E124.16779
G1 X148.94 Y158.69 E124.18967
G1 X149.07 Y158.28 E124.21221
G1 X149.12 Y157.84 E124.23488
G1 X149.07 Y157.40 E124.25808
G1 X148.94 Y156.99 E124.28032
G1 X148.92 Y156.94 E124.28321
G0 F6000 X148.48 Y157.18
;TYPE:WALL-OUTER
G1 F780 X148.41 Y157.06 E124.29046
G1 X148.47 Y154.90 E124.40264
G1 X148.76 Y155.06 E124.42008
G1 X149.25 Y155.46 E124.45298
G1 X149.67 Y155.96 E124.48696
G1 X150.00 Y156.56 E124.52249
G1 X150.18 Y157.19 E124.55637
G1 X150.25 Y157.84 E124.59059
G1 X150.19 Y158.49 E124.62437
G1 X149.99 Y159.12 E124.65880
G1 X149.69 Y159.70 E124.69258
G1 X149.29 Y160.19 E124.72567
G1 X148.78 Y160.61 E124.75985
G1 X148.18 Y160.94 E124.79536
G1 X147.56 Y161.13 E124.82929
G1 X146.90 Y161.19 E124.86345
G1 X146.25 Y161.13 E124.89749
G1 X145.62 Y160.94 E124.93154
G1 X145.04 Y160.63 E124.96583
G1 X144.55 Y160.23 E124.99852
G1 X144.13 Y159.72 E125.03277
G1 X143.81 Y159.12 E125.06825
G1 X143.62 Y158.50 E125.10219
G1 X143.55 Y157.84 E125.13634
G1 X143.62 Y157.20 E125.17012
G1 X143.81 Y156.56 E125.20450
G1 X144.12 Y155.98 E125.23870
G1 X144.52 Y155.50 E125.27156
G1 X145.02 Y155.07 E125.30561
G1 X145.34 Y154.90 E125.32463
G1 X145.39 Y157.06 E125.43666
G1 X145.32 Y157.19 E125.44452
G1 X145.22 Y157.51 E125.46194
G1 X145.19 Y157.84 E125.47938
G1 X145.22 Y158.19 E125.49735
G1 X145.32 Y158.51 E125.51483
G1 X145.49 Y158.80 E125.53222
G1 X145.70 Y159.06 E125.54965
G1 X145.96 Y159.27 E125.56699
G1 X146.25 Y159.43 E125.58396
G1 X146.57 Y159.52 E125.60138
G1 X146.90 Y159.56 E125.61888
G1 X147.24 Y159.52 E125.63674
G1 X147.56 Y159.42 E125.65422
G1 X147.86 Y159.26 E125.67166
G1 X148.12 Y159.05 E125.68908
G1 X148.33 Y158.79 E125.70641
G1 X148.48 Y158.50 E125.72334
G1 X148.58 Y158.18 E125.74077
G1 X148.61 Y157.84 E125.75822
G1 X148.58 Y157.50 E125.77619
G1 X148.48 Y157.18 E125.79342
G0 F6000 X149.24 Y157.37
;TYPE:FILL
G1 F780 X149.56 Y157.69 E125.81653
G1 X149.29 Y157.06 E125.83956
G1 X149.13 Y156.56 E125.85415
G1 X149.33 Y156.75 E125.86878
G0 F6000 X149.26 Y158.10
G1 F780 X149.52 Y158.36 E125.88774
G1 X149.20 Y158.39 E125.90666
G1 X149.35 Y158.90 E125.92284
G1 X149.01 Y158.91 E125.93905
G1 X149.10 Y159.35 E125.95409
G1 X148.74 Y159.34 E125.96911
G1 X148.78 Y159.74 E125.98347
G1 X148.38 Y159.70 E125.99780
G1 X148.39 Y160.06 E126.01269
G1 X148.06 Y160.08 E126.02762
G1 X147.71 Y160.08 E126.04400
G1 X147.66 Y160.38 E126.06036
G1 X147.13 Y160.21 E126.07919
G1 X147.04 Y160.48 E126.09807
G1 X146.38 Y160.17 E126.12188
G1 X146.71 Y160.49 E126.14570
G0 F6000 X145.74 Y160.24
G1 F780 X144.51 Y159.00 E126.23632
G1 X145.74 Y160.24 E126.32694
G0 F6000 X144.57 Y158.36
G1 F780 X144.25 Y158.04 E126.35082
G1 X144.55 Y157.99 E126.37473
G1 X144.28 Y157.36 E126.39376
G1 X144.60 Y157.33 E126.41278
G1 X144.44 Y156.81 E126.42917
G1 X144.66 Y157.04 E126.44564
G0 F6000 X146.35 Y149.69
;TYPE:WALL-INNER
G1 F780 X145.81 Y149.53 E126.47519
G1 X145.32 Y149.27 E126.50381
G1 X144.91 Y148.93 E126.53177
G1 X144.54 Y148.49 E126.56118
G1 X144.27 Y147.99 E126.59097
G1 X144.11 Y147.45 E126.62013
G1 X144.05 Y146.90 E126.64906
G1 X144.11 Y146.35 E126.67757
G1 X144.27 Y145.81 E126.70713
G1 X144.53 Y145.32 E126.73574
G1 X144.86 Y144.92 E126.76296
G1 X144.89 Y145.99 E126.81879
G1 X144.85 Y146.05 E126.82251
G1 X144.73 Y146.47 E126.84503
G1 X144.69 Y146.90 E126.86770
G1 X144.73 Y147.34 E126.89079
G1 X144.86 Y147.76 E126.91338
G1 X145.07 Y148.14 E126.93591
G1 X145.34 Y148.47 E126.95843
G1 X145.68 Y148.75 E126.98086
G1 X146.05 Y148.94 E127.00283
G1 X146.47 Y149.07 E127.02532
G1 X146.90 Y149.12 E127.04805
G1 X147.35 Y149.07 E127.07120
G1 X147.76 Y148.94 E127.09373
G1 X148.14 Y148.73 E127.11627
G1 X148.47 Y148.46 E127.13878
G1 X148.75 Y148.12 E127.16122
G1 X148.94 Y147.75 E127.18319
G1 X149.07 Y147.33 E127.20568
G1 X149.12 Y146.90 E127.22830
G1 X149.07 Y146.46 E127.25150
G1 X148.94 Y146.05 E127.27372
G1 X148.92 Y146.00 E127.27672
G1 X148.94 Y144.93 E127.33219
G1 X149.26 Y145.31 E127.35780
G1 X149.53 Y145.81 E127.38759
G1 X149.69 Y146.35 E127.41675
G1 X149.75 Y146.90 E127.44568
G1 X149.69 Y147.45 E127.47419
G1 X149.53 Y147.99 E127.50375
G1 X149.27 Y148.48 E127.53237
G1 X148.93 Y148.90 E127.56032
G1 X148.49 Y149.26 E127.58973
G1 X147.99 Y149.53 E127.61952
G1 X147.45 Y149.69 E127.64868
G1 X146.90 Y149.75 E127.67761
G1 X146.35 Y149.69 E127.70612
G0 F6000 X146.25 Y150.19
;TYPE:WALL-OUTER
G1 F780 X145.62 Y149.99 E127.74028
G1 X145.04 Y149.69 E127.77441
G1 X144.55 Y149.28 E127.80734
G1 X144.13 Y148.78 E127.84136
G1 X143.81 Y148.18 E127.87685
G1 X143.62 Y147.56 E127.91078
G1 X143.55 Y146.90 E127.94494
G1 X143.62 Y146.25 E127.97877
G1 X143.81 Y145.62 E128.01315
G1 X144.12 Y145.04 E128.04735
G1 X144.52 Y144.55 E128.08021
G1 X145.02 Y144.13 E128.11423
G1 X145.34 Y143.96 E128.13327
G1 X145.39 Y146.11 E128.24524
G1 X145.32 Y146.25 E128.25319
G1 X145.22 Y146.57 E128.27062
G1 X145.19 Y146.90 E128.28812
G1 X145.22 Y147.24 E128.30598
G1 X145.32 Y147.56 E128.32345
G1 X145.49 Y147.86 E128.34090
G1 X145.70 Y148.12 E128.35828
G1 X145.96 Y148.33 E128.37562
G1 X146.25 Y148.48 E128.39259
G1 X146.57 Y148.58 E128.41002
G1 X146.90 Y148.61 E128.42752
G1 X147.25 Y148.58 E128.44544
G1 X147.56 Y148.48 E128.46286
G1 X147.86 Y148.32 E128.48030
G1 X148.12 Y148.10 E128.49769
G1 X148.33 Y147.84 E128.51503
G1 X148.48 Y147.56 E128.53200
G1 X148.58 Y147.23 E128.54943
G1 X148.61 Y146.90 E128.56682
G1 X148.58 Y146.56 E128.58480
G1 X148.48 Y146.24 E128.60203
G1 X148.41 Y146.12 E128.60937
G1 X148.47 Y143.96 E128.72150
G1 X148.76 Y144.12 E128.73891
G1 X149.25 Y144.52 E128.77184
G1 X149.67 Y145.02 E128.80583
G1 X150.00 Y145.62 E128.84136
G1 X150.18 Y146.25 E128.87524
G1 X150.25 Y146.90 E128.90951
G1 X150.19 Y147.55 E128.94329
G1 X149.99 Y148.18 E128.97767
G1 X149.69 Y148.76 E129.01168
G1 X149.28 Y149.25 E129.04473
G1 X148.78 Y149.67 E129.07875
G1 X148.18 Y150.00 E129.11423
G1 X147.56 Y150.18 E129.14817
G1 X146.90 Y150.25 E129.18232
G1 X146.25 Y150.19 E129.21637
G0 F6000 X146.32 Y149.50
;TYPE:FILL
G1 F780 X145.85 Y149.04 E129.25047
G1 X146.56 Y149.39 E129.28456
G1 X147.08 Y149.55 E129.30458
G1 X147.13 Y149.25 E129.32463
G1 X147.67 Y149.44 E129.34109
G1 X147.71 Y149.12 E129.35760
G1 X148.17 Y149.23 E129.37263
G1 X148.18 Y148.89 E129.38766
G1 X148.59 Y148.94 E129.40202
G1 X148.57 Y148.57 E129.41634
G1 X148.95 Y148.59 E129.43103
G1 X148.89 Y148.18 E129.44568
G1 X149.23 Y148.17 E129.46094
G1 X149.23 Y147.82 E129.47620
G1 X149.22 Y147.45 E129.49272
G1 X149.50 Y147.38 E129.50926
G1 X149.28 Y146.80 E129.52936
G1 X149.53 Y146.70 E129.54953
G1 X149.09 Y145.91 E129.57945
G1 X149.50 Y146.32 E129.60944
G0 F6000 X148.44 Y148.42
G0 X146.90 Y149.06
G0 X145.38 Y148.44
G0 X144.74 Y146.90
G0 X144.71 Y145.77
G1 F780 X144.57 Y145.63 E129.61984
G1 X144.53 Y145.95 E129.63025
G1 X144.58 Y146.35 E129.64679
G1 X144.30 Y146.42 E129.66337
G1 X144.52 Y147.00 E129.68354
G1 X144.27 Y147.10 E129.70377
G1 X144.77 Y147.95 E129.73799
G1 X144.30 Y147.48 E129.77224
G0 F6000 X155.25 Y146.90
;TYPE:WALL-INNER
G1 F780 X155.31 Y146.35 E129.80075
G1 X155.47 Y145.81 E129.83031
G1 X155.73 Y145.32 E129.85893
G1 X156.06 Y144.92 E129.88614
G1 X156.09 Y145.99 E129.94197
G1 X156.05 Y146.05 E129.94569
G1 X155.93 Y146.47 E129.96822
G1 X155.89 Y146.90 E129.99088
G1 X155.93 Y147.34 E130.01398
G1 X156.06 Y147.76 E130.03656
G1 X156.27 Y148.14 E130.05909
G1 X156.54 Y148.47 E130.08161
G1 X156.88 Y148.75 E130.10404
G1 X157.25 Y148.94 E130.12602
G1 X157.67 Y149.07 E130.14850
G1 X158.10 Y149.12 E130.17112
G1 X158.54 Y149.07 E130.19438
G1 X158.96 Y148.94 E130.21691
G1 X159.34 Y148.73 E130.23945
G1 X159.67 Y148.46 E130.26196
G1 X159.94 Y148.12 E130.28440
G1 X160.14 Y147.75 E130.30637
G1 X160.27 Y147.33 E130.32891
G1 X160.31 Y146.90 E130.35147
G1 X160.27 Y146.46 E130.37461
G1 X160.14 Y146.05 E130.39690
G1 X160.12 Y146.00 E130.39990
G1 X160.14 Y144.93 E130.45537
G1 X160.46 Y145.31 E130.48098
G1 X160.73 Y145.81 E130.51077
G1 X160.89 Y146.35 E130.53993
G1 X160.95 Y146.90 E130.56891
G1 X160.89 Y147.45 E130.59737
G1 X160.73 Y147.99 E130.62692
G1 X160.47 Y148.48 E130.65554
G1 X160.13 Y148.90 E130.68350
G1 X159.69 Y149.26 E130.71291
G1 X159.19 Y149.53 E130.74270
G1 X158.65 Y149.69 E130.77186
G1 X158.10 Y149.75 E130.80084
G1 X157.55 Y149.69 E130.82930
G1 X157.01 Y149.53 E130.85885
G1 X156.52 Y149.27 E130.88747
G1 X156.10 Y148.93 E130.91543
G1 X155.74 Y148.49 E130.94484
G1 X155.47 Y147.99 E130.97463
G1 X155.31 Y147.45 E131.00379
G1 X155.25 Y146.90 E131.03272
G0 F6000 X154.75 Y146.90
;TYPE:WALL-OUTER
G1 F780 X154.81 Y146.25 E131.06655
G1 X155.01 Y145.62 E131.10093
G1 X155.31 Y145.04 E131.13513
G1 X155.72 Y144.55 E131.16799
G1 X156.22 Y144.13 E131.20201
G1 X156.54 Y143.96 E131.22105
G1 X156.59 Y146.11 E131.33302
G1 X156.52 Y146.25 E131.34097
G1 X156.42 Y146.57 E131.35840
G1 X156.39 Y146.90 E131.37590
G1 X156.42 Y147.24 E131.39376
G1 X156.52 Y147.56 E131.41123
G1 X156.68 Y147.86 E131.42868
G1 X156.90 Y148.12 E131.44606
G1 X157.16 Y148.33 E131.46340
G1 X157.44 Y148.48 E131.48037
G1 X157.77 Y148.58 E131.49780
G1 X158.10 Y148.61 E131.51519
G1 X158.44 Y148.58 E131.53322
G1 X158.76 Y148.48 E131.55064
G1 X159.06 Y148.32 E131.56808
G1 X159.32 Y148.10 E131.58547
G1 X159.53 Y147.84 E131.60281
G1 X159.68 Y147.56 E131.61978
G1 X159.78 Y147.23 E131.63721
G1 X159.81 Y146.90 E131.65460
G1 X159.78 Y146.56 E131.67257
G1 X159.68 Y146.24 E131.68979
G1 X159.61 Y146.12 E131.69714
G1 X159.66 Y143.96 E131.80927
G1 X159.96 Y144.12 E131.82668
G1 X160.45 Y144.52 E131.85961
G1 X160.87 Y145.02 E131.89360
G1 X161.19 Y145.62 E131.92913
G1 X161.38 Y146.25 E131.96306
G1 X161.45 Y146.90 E131.99727
G1 X161.38 Y147.55 E132.03105
G1 X161.19 Y148.18 E132.06543
G1 X160.89 Y148.76 E132.09944
G1 X160.48 Y149.25 E132.13248
G1 X159.98 Y149.67 E132.16651
G1 X159.38 Y150.00 E132.20199
G1 X158.75 Y150.18 E132.23593
G1 X158.10 Y150.25 E132.27013
G1 X157.45 Y150.19 E132.30413
G1 X156.82 Y149.99 E132.33829
G1 X156.24 Y149.69 E132.37242
G1 X155.75 Y149.28 E132.40535
G1 X155.33 Y148.78 E132.43937
G1 X155.00 Y148.18 E132.47486
G1 X154.82 Y147.56 E132.50879
G1 X154.75 Y146.90 E132.54295
G0 F6000 X155.46 Y146.62
;TYPE:FILL
G1 F780 X155.71 Y146.87 E132.56191
G1 X155.63 Y146.44 E132.58082
G1 X155.58 Y146.04 E132.59735
G1 X155.81 Y146.26 E132.61389
G0 F6000 X155.47 Y147.34
G1 F780 X155.87 Y147.74 E132.64336
G1 X155.47 Y147.34 E132.67283
G0 F6000 X157.26 Y149.13
G1 F780 X157.66 Y149.53 E132.70209
G1 X157.69 Y149.21 E132.73135
G1 X158.38 Y149.54 E132.75001
G1 X158.43 Y149.24 E132.76871
G1 X158.96 Y149.41 E132.78520
G1 X158.99 Y149.09 E132.80167
G1 X159.44 Y149.19 E132.81667
G1 X159.45 Y148.84 E132.83169
G1 X159.85 Y148.89 E132.84608
G1 X159.83 Y148.51 E132.86049
G1 X160.20 Y148.53 E132.87524
G1 X160.13 Y148.11 E132.88999
G1 X160.47 Y148.10 E132.90517
G1 X160.47 Y147.74 E132.92032
G1 X160.44 Y147.36 E132.93698
G1 X160.72 Y147.28 E132.95362
G1 X160.46 Y146.68 E132.97554
G1 X160.71 Y146.56 E132.99750
G1 X160.29 Y145.80 E133.02352
G1 X160.65 Y146.15 E133.04965
;LAYER:3
G0 F6000 X160.89 Y146.35 Z1.05
;TYPE:WALL-INNER
G1 F780 X160.94 Y146.91 E133.07888
G1 X160.89 Y147.45 E133.10707
G1 X160.73 Y147.99 E133.13656
G1 X160.47 Y148.48 E133.16523
G1 X160.11 Y148.91 E133.19443
G1 X159.68 Y149.27 E133.22345
G1 X159.19 Y149.53 E133.25230
G1 X158.65 Y149.69 E133.28163
G1 X158.09 Y149.75 E133.31087
G1 X157.55 Y149.69 E133.33906
G1 X157.01 Y149.53 E133.36855
G1 X156.52 Y149.27 E133.39722
G1 X156.09 Y148.91 E133.42642
G1 X155.73 Y148.48 E133.45544
G1 X155.47 Y147.99 E133.48429
G1 X155.31 Y147.45 E133.51361
G1 X155.25 Y146.89 E133.54279
G1 X155.31 Y146.35 E133.57099
G1 X155.47 Y145.81 E133.60053
G1 X155.73 Y145.32 E133.62919
G1 X156.06 Y144.92 E133.65644
G1 X156.09 Y146.00 E133.71264
G1 X156.05 Y146.07 E133.71691
G1 X155.93 Y146.47 E133.73848
G1 X155.89 Y146.90 E133.76120
G1 X155.93 Y147.35 E133.78456
G1 X156.06 Y147.76 E133.80716
G1 X156.27 Y148.15 E133.82972
G1 X156.55 Y148.48 E133.85226
G1 X156.89 Y148.75 E133.87481
G1 X157.27 Y148.95 E133.89712
G1 X157.67 Y149.07 E133.91875
G1 X158.10 Y149.12 E133.94148
G1 X158.55 Y149.07 E133.96494
G1 X158.96 Y148.94 E133.98749
G1 X159.34 Y148.73 E134.01005
G1 X159.68 Y148.45 E134.03260
G1 X159.95 Y148.11 E134.05514
G1 X160.15 Y147.73 E134.07746
G1 X160.27 Y147.33 E134.09914
G1 X160.31 Y146.90 E134.12181
G1 X160.27 Y146.45 E134.14506
G1 X160.14 Y146.05 E134.16679
G1 X160.12 Y146.00 E134.17002
G1 X160.14 Y144.92 E134.22596
G1 X160.47 Y145.32 E134.25262
G1 X160.73 Y145.81 E134.28147
G1 X160.89 Y146.35 E134.31080
G0 F6000 X161.38 Y146.24
;TYPE:WALL-OUTER
G1 F780 X161.45 Y146.90 E134.34500
G1 X161.45 Y146.91 E134.34553
G1 X161.38 Y147.55 E134.37899
G1 X161.20 Y148.17 E134.41291
G1 X161.19 Y148.18 E134.41359
G1 X160.89 Y148.75 E134.44702
G1 X160.88 Y148.76 E134.44760
G1 X160.47 Y149.26 E134.48134
G1 X159.97 Y149.68 E134.51541
G1 X159.39 Y149.99 E134.54959
G1 X158.76 Y150.18 E134.58367
G1 X158.10 Y150.25 E134.61787
G1 X158.09 Y150.25 E134.61840
G1 X157.45 Y150.19 E134.65186
G1 X156.83 Y150.00 E134.68578
G1 X156.82 Y149.99 E134.68646
G1 X156.25 Y149.69 E134.72012
G1 X155.74 Y149.27 E134.75420
G1 X155.32 Y148.77 E134.78827
G1 X155.01 Y148.19 E134.82245
G1 X154.82 Y147.56 E134.85653
G1 X154.75 Y146.91 E134.89068
G1 X154.75 Y146.90 E134.89120
G1 X154.81 Y146.26 E134.92441
G1 X154.81 Y146.25 E134.92498
G1 X155.00 Y145.63 E134.95865
G1 X155.01 Y145.62 E134.95933
G1 X155.31 Y145.05 E134.99276
G1 X155.31 Y145.04 E134.99334
G1 X155.73 Y144.54 E135.02708
G1 X156.23 Y144.12 E135.06115
G1 X156.54 Y143.96 E135.07943
G1 X156.59 Y146.11 E135.19165
G1 X156.51 Y146.26 E135.20021
G1 X156.42 Y146.57 E135.21688
G1 X156.39 Y146.90 E135.23437
G1 X156.43 Y147.25 E135.25245
G1 X156.53 Y147.57 E135.26989
G1 X156.69 Y147.86 E135.28733
G1 X156.90 Y148.12 E135.30474
G1 X157.16 Y148.33 E135.32215
G1 X157.46 Y148.48 E135.33949
G1 X157.76 Y148.58 E135.35618
G1 X158.10 Y148.61 E135.37368
G1 X158.45 Y148.57 E135.39181
G1 X158.77 Y148.47 E135.40925
G1 X159.06 Y148.31 E135.42669
G1 X159.32 Y148.10 E135.44411
G1 X159.53 Y147.84 E135.46152
G1 X159.68 Y147.54 E135.47886
G1 X159.78 Y147.23 E135.49559
G1 X159.81 Y146.90 E135.51303
G1 X159.77 Y146.55 E135.53111
G1 X159.68 Y146.25 E135.54785
G1 X159.61 Y146.12 E135.55543
G1 X159.66 Y143.96 E135.66766
G1 X159.96 Y144.12 E135.68507
G1 X160.46 Y144.53 E135.71881
G1 X160.88 Y145.03 E135.75288
G1 X161.19 Y145.61 E135.78706
G1 X161.38 Y146.24 E135.82114
G0 F6000 X160.73 Y146.51
;TYPE:FILL
G1 F780 X160.47 Y146.76 E135.84003
G1 X160.54 Y146.34 E135.85889
G1 X160.59 Y145.94 E135.87531
G1 X160.36 Y146.17 E135.89177
G0 F6000 X160.74 Y147.21
G1 F780 X160.38 Y147.56 E135.91808
G1 X160.74 Y147.21 E135.94440
G0 F6000 X160.38 Y148.27
G1 F780 X159.47 Y149.18 E136.01135
G1 X160.38 Y148.27 E136.07830
G0 F6000 X158.76 Y149.18
G1 F780 X158.40 Y149.54 E136.10469
G1 X158.36 Y149.23 E136.13107
G1 X157.70 Y149.53 E136.14999
G1 X157.66 Y149.22 E136.16893
G1 X157.14 Y149.39 E136.18546
G1 X157.12 Y149.05 E136.20199
G1 X156.67 Y149.15 E136.21736
G1 X156.68 Y148.79 E136.23274
G1 X156.27 Y148.84 E136.24729
G1 X156.31 Y148.45 E136.26183
G1 X155.94 Y148.46 E136.27636
G1 X156.02 Y148.04 E136.29090
G1 X155.68 Y148.02 E136.30635
G1 X155.70 Y147.65 E136.32178
G1 X155.75 Y147.25 E136.33962
G1 X155.47 Y147.17 E136.35744
G1 X155.75 Y146.54 E136.38038
G1 X155.52 Y146.42 E136.40337
G1 X155.90 Y145.68 E136.42563
G1 X155.60 Y145.98 E136.44797
G0 F6000 X149.69 Y146.35
;TYPE:WALL-INNER
G1 F780 X149.75 Y146.91 E136.47716
G1 X149.69 Y147.45 E136.50541
G1 X149.53 Y147.99 E136.53490
G1 X149.27 Y148.48 E136.56357
G1 X148.91 Y148.91 E136.59277
G1 X148.48 Y149.27 E136.62179
G1 X147.99 Y149.53 E136.65064
G1 X147.45 Y149.69 E136.67995
G1 X146.89 Y149.75 E136.70914
G1 X146.35 Y149.69 E136.73733
G1 X145.81 Y149.53 E136.76688
G1 X145.32 Y149.27 E136.79554
G1 X144.89 Y148.91 E136.82475
G1 X144.53 Y148.48 E136.85376
G1 X144.27 Y147.99 E136.88262
G1 X144.11 Y147.45 E136.91193
G1 X144.06 Y146.89 E136.94112
G1 X144.11 Y146.35 E136.96931
G1 X144.27 Y145.81 E136.99885
G1 X144.53 Y145.32 E137.02752
G1 X144.86 Y144.92 E137.05477
G1 X144.89 Y146.00 E137.11096
G1 X144.85 Y146.07 E137.11524
G1 X144.73 Y146.47 E137.13681
G1 X144.69 Y146.90 E137.15952
G1 X144.73 Y147.35 E137.18288
G1 X144.86 Y147.76 E137.20548
G1 X145.07 Y148.15 E137.22804
G1 X145.35 Y148.48 E137.25058
G1 X145.69 Y148.75 E137.27313
G1 X146.07 Y148.95 E137.29544
G1 X146.47 Y149.07 E137.31708
G1 X146.90 Y149.12 E137.33985
G1 X147.35 Y149.07 E137.36327
G1 X147.76 Y148.94 E137.38582
G1 X148.15 Y148.73 E137.40838
G1 X148.48 Y148.45 E137.43092
G1 X148.75 Y148.11 E137.45347
G1 X148.95 Y147.73 E137.47578
G1 X149.07 Y147.33 E137.49741
G1 X149.12 Y146.90 E137.52014
G1 X149.07 Y146.45 E137.54345
G1 X148.94 Y146.05 E137.56513
G1 X148.92 Y146.00 E137.56836
G1 X148.94 Y144.92 E137.62430
G1 X149.27 Y145.32 E137.65095
G1 X149.53 Y145.81 E137.67981
G1 X149.69 Y146.35 E137.70913
G0 F6000 X150.18 Y146.24
;TYPE:WALL-OUTER
G1 F780 X150.25 Y146.90 E137.74335
G1 X150.19 Y147.54 E137.77728
G1 X150.00 Y148.17 E137.81125
G1 X149.99 Y148.18 E137.81192
G1 X149.69 Y148.75 E137.84536
G1 X149.69 Y148.76 E137.84594
G1 X149.27 Y149.26 E137.87968
G1 X148.77 Y149.68 E137.91375
G1 X148.19 Y149.99 E137.94792
G1 X147.56 Y150.18 E137.98200
G1 X146.91 Y150.25 E138.01616
G1 X146.90 Y150.25 E138.01668
G1 X146.25 Y150.19 E138.05020
G1 X145.63 Y150.00 E138.08412
G1 X145.62 Y149.99 E138.08479
G1 X145.05 Y149.69 E138.11846
G1 X144.54 Y149.27 E138.15254
G1 X144.12 Y148.77 E138.18661
G1 X143.81 Y148.19 E138.22078
G1 X143.62 Y147.56 E138.25486
G1 X143.55 Y146.91 E138.28902
G1 X143.55 Y146.90 E138.28954
G1 X143.61 Y146.26 E138.32274
G1 X143.62 Y146.25 E138.32332
G1 X143.80 Y145.63 E138.35699
G1 X143.81 Y145.62 E138.35766
G1 X144.11 Y145.05 E138.39109
G1 X144.12 Y145.04 E138.39168
G1 X144.53 Y144.54 E138.42542
G1 X145.03 Y144.12 E138.45949
G1 X145.34 Y143.96 E138.47776
G1 X145.39 Y146.11 E138.58999
G1 X145.32 Y146.26 E138.59855
G1 X145.22 Y146.57 E138.61522
G1 X145.19 Y146.90 E138.63271
G1 X145.23 Y147.25 E138.65079
G1 X145.33 Y147.57 E138.66823
G1 X145.49 Y147.86 E138.68567
G1 X145.70 Y148.12 E138.70308
G1 X145.96 Y148.33 E138.72049
G1 X146.26 Y148.48 E138.73783
G1 X146.57 Y148.58 E138.75452
G1 X146.90 Y148.61 E138.77207
G1 X147.25 Y148.57 E138.79015
G1 X147.57 Y148.47 E138.80759
G1 X147.86 Y148.31 E138.82503
G1 X148.12 Y148.10 E138.84244
G1 X148.33 Y147.84 E138.85985
G1 X148.48 Y147.54 E138.87719
G1 X148.58 Y147.24 E138.89388
G1 X148.61 Y146.90 E138.91138
G1 X148.57 Y146.55 E138.92946
G1 X148.48 Y146.25 E138.94620
G1 X148.41 Y146.12 E138.95377
G1 X148.47 Y143.96 E139.06601
G1 X148.76 Y144.12 E139.08342
G1 X149.26 Y144.53 E139.11716
G1 X149.68 Y145.03 E139.15123
G1 X149.99 Y145.61 E139.18541
G1 X150.18 Y146.24 E139.21949
G0 F6000 X149.52 Y146.40
;TYPE:FILL
G1 F780 X149.26 Y146.66 E139.23830
G1 X149.33 Y146.24 E139.25711
G1 X149.36 Y145.86 E139.27336
G1 X149.13 Y146.08 E139.28967
G0 F6000 X149.55 Y147.08
G1 F780 X149.23 Y147.40 E139.31312
G1 X149.55 Y147.08 E139.33656
G0 F6000 X149.31 Y148.03
G1 F780 X148.03 Y149.31 E139.43097
G1 X149.31 Y148.03 E139.52537
G0 F6000 X147.40 Y149.23
G1 F780 X147.08 Y149.55 E139.54860
G1 X147.03 Y149.25 E139.57182
G1 X146.40 Y149.52 E139.59070
G1 X146.37 Y149.20 E139.60962
G1 X145.86 Y149.36 E139.62597
G1 X145.84 Y149.02 E139.64233
G1 X145.40 Y149.11 E139.65745
G1 X145.41 Y148.75 E139.67255
G1 X145.01 Y148.79 E139.68721
G1 X145.06 Y148.39 E139.70186
G1 X144.69 Y148.40 E139.71692
G1 X144.67 Y148.07 E139.73200
G1 X144.67 Y147.72 E139.74836
G1 X144.36 Y147.67 E139.76477
G1 X144.54 Y147.14 E139.78357
G1 X144.26 Y147.06 E139.80242
G1 X144.56 Y146.41 E139.82579
G1 X144.36 Y146.25 E139.84918
G1 X144.67 Y145.60 E139.86293
G1 X144.48 Y145.78 E139.87674
G0 F6000 X144.86 Y155.86
;TYPE:WALL-INNER
G1 F780 X144.89 Y156.94 E139.93294
G1 X144.85 Y157.01 E139.93710
G1 X144.73 Y157.41 E139.95873
G1 X144.69 Y157.85 E139.98145
G1 X144.73 Y158.29 E140.00486
G1 X144.87 Y158.71 E140.02747
G1 X145.07 Y159.09 E140.04992
G1 X145.35 Y159.42 E140.07247
G1 X145.69 Y159.69 E140.09509
G1 X146.07 Y159.89 E140.11740
G1 X146.47 Y160.01 E140.13908
G1 X146.90 Y160.06 E140.16180
G1 X147.35 Y160.01 E140.18516
G1 X147.76 Y159.88 E140.20776
G1 X148.15 Y159.67 E140.23032
G1 X148.48 Y159.40 E140.25286
G1 X148.75 Y159.06 E140.27545
G1 X148.95 Y158.68 E140.29772
G1 X149.07 Y158.28 E140.31935
G1 X149.12 Y157.84 E140.34212
G1 X149.07 Y157.40 E140.36544
G1 X148.94 Y157.00 E140.38717
G1 X148.92 Y156.94 E140.39040
G1 X148.94 Y155.87 E140.44623
G1 X149.27 Y156.26 E140.47289
G1 X149.53 Y156.75 E140.50174
G1 X149.69 Y157.29 E140.53107
G1 X149.75 Y157.85 E140.56026
G1 X149.69 Y158.39 E140.58851
G1 X149.53 Y158.93 E140.61777
G1 X149.27 Y159.42 E140.64667
G1 X148.91 Y159.86 E140.67599
G1 X148.48 Y160.21 E140.70476
G1 X147.99 Y160.47 E140.73384
G1 X147.45 Y160.64 E140.76300
G1 X146.89 Y160.69 E140.79219
G1 X146.35 Y160.64 E140.82038
G1 X145.81 Y160.47 E140.84976
G1 X145.32 Y160.21 E140.87868
G1 X144.89 Y159.85 E140.90793
G1 X144.53 Y159.43 E140.93677
G1 X144.27 Y158.93 E140.96585
G1 X144.11 Y158.40 E140.99500
G1 X144.06 Y157.84 E141.02419
G1 X144.11 Y157.30 E141.05238
G1 X144.27 Y156.75 E141.08187
G1 X144.53 Y156.27 E141.11054
G1 X144.86 Y155.86 E141.13779
G0 F6000 X144.53 Y155.48
;TYPE:WALL-OUTER
G1 F780 X145.03 Y155.06 E141.17186
G1 X145.34 Y154.90 E141.19016
G1 X145.39 Y157.06 E141.30239
G1 X145.32 Y157.20 E141.31087
G1 X145.22 Y157.51 E141.32761
G1 X145.19 Y157.84 E141.34510
G1 X145.23 Y158.19 E141.36323
G1 X145.33 Y158.51 E141.38067
G1 X145.49 Y158.81 E141.39806
G1 X145.70 Y159.06 E141.41552
G1 X145.96 Y159.27 E141.43293
G1 X146.26 Y159.43 E141.45027
G1 X146.57 Y159.52 E141.46700
G1 X146.90 Y159.56 E141.48449
G1 X147.25 Y159.52 E141.50257
G1 X147.57 Y159.42 E141.52001
G1 X147.86 Y159.26 E141.53745
G1 X148.12 Y159.04 E141.55487
G1 X148.33 Y158.78 E141.57232
G1 X148.48 Y158.49 E141.58961
G1 X148.58 Y158.18 E141.60630
G1 X148.61 Y157.84 E141.62385
G1 X148.57 Y157.50 E141.64193
G1 X148.48 Y157.19 E141.65867
G1 X148.41 Y157.06 E141.66624
G1 X148.47 Y154.90 E141.77843
G1 X148.76 Y155.06 E141.79584
G1 X149.26 Y155.47 E141.82958
G1 X149.68 Y155.98 E141.86365
G1 X149.99 Y156.56 E141.89783
G1 X150.18 Y157.18 E141.93190
G1 X150.25 Y157.84 E141.96606
G1 X150.19 Y158.49 E142.00000
G1 X150.00 Y159.12 E142.03402
G1 X149.69 Y159.69 E142.06807
G1 X149.69 Y159.70 E142.06865
G1 X149.27 Y160.21 E142.10244
G1 X148.77 Y160.62 E142.13647
G1 X148.19 Y160.93 E142.17067
G1 X147.56 Y161.13 E142.20475
G1 X146.91 Y161.19 E142.23891
G1 X146.90 Y161.19 E142.23943
G1 X146.25 Y161.13 E142.27295
G1 X145.63 Y160.94 E142.30687
G1 X145.05 Y160.63 E142.34118
G1 X144.54 Y160.22 E142.37527
G1 X144.12 Y159.71 E142.40938
G1 X143.81 Y159.13 E142.44351
G1 X143.62 Y158.50 E142.47764
G1 X143.55 Y157.85 E142.51179
G1 X143.55 Y157.84 E142.51232
G1 X143.61 Y157.21 E142.54547
G1 X143.62 Y157.19 E142.54604
G1 X143.80 Y156.57 E142.57971
G1 X143.81 Y156.56 E142.58039
G1 X144.11 Y155.99 E142.61382
G1 X144.12 Y155.98 E142.61440
G1 X144.53 Y155.48 E142.64814
G0 F6000 X144.71 Y156.87
;TYPE:FILL
G1 F780 X144.29 Y157.29 E142.67908
G1 X144.62 Y157.32 E142.71002
G1 X144.25 Y158.04 E142.72972
G1 X144.55 Y158.09 E142.74945
G1 X144.36 Y158.63 E142.76593
G1 X144.68 Y158.66 E142.78241
G1 X144.57 Y159.13 E142.79769
G1 X144.92 Y159.13 E142.81294
G1 X144.86 Y159.55 E142.82747
G1 X145.24 Y159.52 E142.84203
G1 X145.22 Y159.90 E142.85663
G1 X145.63 Y159.84 E142.87124
G1 X145.64 Y160.18 E142.88657
G1 X145.99 Y160.18 E142.90187
G1 X146.37 Y160.16 E142.91852
G1 X146.44 Y160.44 E142.93513
G1 X147.02 Y160.22 E142.95563
G1 X147.12 Y160.47 E142.97619
G1 X147.99 Y159.96 E143.01114
G1 X147.51 Y160.43 E143.04612
G0 F6000 X149.01 Y158.93
G1 F780 X149.49 Y158.45 E143.08154
G1 X149.01 Y158.93 E143.11697
G0 F6000 X149.28 Y157.96
G1 F780 X149.55 Y157.68 E143.13725
G1 X149.25 Y157.63 E143.15752
G1 X149.45 Y157.08 E143.17388
G1 X149.16 Y157.02 E143.19029
G1 X149.24 Y156.58 E143.20072
G1 X149.10 Y156.73 E143.21119
;LAYER:4
G0 F6000 X148.92 Y156.94 Z1.30
;TYPE:WALL-INNER
G1 F780 X148.94 Y155.87 E143.26713
G1 X149.27 Y156.26 E143.29368
G1 X149.53 Y156.76 E143.32288
G1 X149.69 Y157.29 E143.35209
G1 X149.75 Y157.85 E143.38118
G1 X149.69 Y158.39 E143.40943
G1 X149.53 Y158.93 E143.43858
G1 X149.27 Y159.42 E143.46769
G1 X148.91 Y159.85 E143.49664
G1 X148.48 Y160.21 E143.52574
G1 X147.99 Y160.47 E143.55484
G1 X147.45 Y160.64 E143.58411
G1 X146.90 Y160.69 E143.61293
G1 X146.35 Y160.64 E143.64165
G1 X145.82 Y160.48 E143.67047
G1 X145.32 Y160.21 E143.69969
G1 X144.89 Y159.86 E143.72872
G1 X144.53 Y159.43 E143.75774
G1 X144.27 Y158.93 E143.78678
G1 X144.11 Y158.39 E143.81605
G1 X144.06 Y157.84 E143.84518
G1 X144.11 Y157.30 E143.87332
G1 X144.27 Y156.76 E143.90258
G1 X144.53 Y156.26 E143.93167
G1 X144.86 Y155.86 E143.95873
G1 X144.89 Y156.94 E144.01492
G1 X144.85 Y157.02 E144.01936
G1 X144.73 Y157.41 E144.04072
G1 X144.69 Y157.85 E144.06348
G1 X144.74 Y158.30 E144.08711
G1 X144.87 Y158.71 E144.10972
G1 X145.07 Y159.09 E144.13222
G1 X145.35 Y159.43 E144.15476
G1 X145.69 Y159.69 E144.17709
G1 X146.05 Y159.89 E144.19855
G1 X146.47 Y160.01 E144.22114
G1 X146.90 Y160.06 E144.24386
G1 X147.35 Y160.01 E144.26743
G1 X147.77 Y159.88 E144.29005
G1 X148.15 Y159.67 E144.31235
G1 X148.47 Y159.41 E144.33411
G1 X148.75 Y159.06 E144.35744
G1 X148.94 Y158.69 E144.37890
G1 X149.07 Y158.28 E144.40144
G1 X149.12 Y157.84 E144.42421
G1 X149.07 Y157.39 E144.44789
G1 X148.94 Y156.99 E144.46985
G1 X148.92 Y156.94 E144.47238
G0 F6000 X148.48 Y157.18
;TYPE:WALL-OUTER
G1 F780 X148.41 Y157.06 E144.47938
G1 X148.47 Y154.90 E144.59156
G1 X148.76 Y155.06 E144.60900
G1 X149.27 Y155.48 E144.64312
G1 X149.69 Y155.98 E144.67723
G1 X149.99 Y156.55 E144.71046
G1 X150.00 Y156.56 E144.71141
G1 X150.18 Y157.18 E144.74467
G1 X150.19 Y157.19 E144.74561
G1 X150.25 Y157.83 E144.77876
G1 X150.25 Y157.84 E144.77960
G1 X150.19 Y158.48 E144.81271
G1 X150.19 Y158.50 E144.81360
G1 X150.00 Y159.10 E144.84666
G1 X149.69 Y159.69 E144.88090
G1 X149.27 Y160.21 E144.91600
G1 X148.76 Y160.63 E144.94997
G1 X148.20 Y160.93 E144.98333
G1 X148.18 Y160.94 E144.98428
G1 X147.57 Y161.12 E145.01755
G1 X147.55 Y161.13 E145.01848
G1 X146.92 Y161.19 E145.05163
G1 X146.90 Y161.19 E145.05258
G1 X146.26 Y161.13 E145.08568
G1 X146.25 Y161.13 E145.08651
G1 X145.64 Y160.94 E145.11953
G1 X145.06 Y160.64 E145.15391
G1 X145.04 Y160.63 E145.15479
G1 X144.53 Y160.21 E145.18887
G1 X144.12 Y159.71 E145.22292
G1 X143.81 Y159.14 E145.25621
G1 X143.81 Y159.12 E145.25716
G1 X143.62 Y158.51 E145.29048
G1 X143.62 Y158.49 E145.29141
G1 X143.56 Y157.86 E145.32456
G1 X143.55 Y157.84 E145.32551
G1 X143.61 Y157.21 E145.35824
G1 X143.62 Y157.19 E145.35939
G1 X143.80 Y156.58 E145.39241
G1 X144.11 Y156.00 E145.42669
G1 X144.53 Y155.48 E145.46175
G1 X145.04 Y155.06 E145.49575
G1 X145.34 Y154.90 E145.51372
G1 X145.39 Y157.06 E145.62595
G1 X145.31 Y157.21 E145.63472
G1 X145.22 Y157.51 E145.65117
G1 X145.19 Y157.84 E145.66867
G1 X145.23 Y158.20 E145.68701
G1 X145.33 Y158.52 E145.70445
G1 X145.49 Y158.81 E145.72189
G1 X145.70 Y159.07 E145.73927
G1 X145.97 Y159.28 E145.75662
G1 X146.25 Y159.43 E145.77317
G1 X146.57 Y159.52 E145.79060
G1 X146.90 Y159.56 E145.80809
G1 X147.25 Y159.52 E145.82638
G1 X147.57 Y159.42 E145.84382
G1 X147.87 Y159.26 E145.86119
G1 X148.11 Y159.05 E145.87778
G1 X148.33 Y158.78 E145.89605
G1 X148.48 Y158.50 E145.91255
G1 X148.58 Y158.18 E145.92998
G1 X148.61 Y157.84 E145.94748
G1 X148.57 Y157.49 E145.96588
G1 X148.48 Y157.18 E145.98287
G0 F6000 X149.24 Y157.37
;TYPE:FILL
G1 F780 X149.56 Y157.69 E146.00610
G1 X149.29 Y157.06 E146.02927
G1 X149.13 Y156.55 E146.04428
G1 X149.33 Y156.76 E146.05935
G0 F6000 X149.26 Y158.10
G1 F780 X149.52 Y158.36 E146.07831
G1 X149.20 Y158.39 E146.09724
G1 X149.35 Y158.90 E146.11341
G1 X149.01 Y158.91 E146.12962
G1 X149.10 Y159.35 E146.14466
G1 X148.74 Y159.34 E146.15967
G1 X148.78 Y159.74 E146.17408
G1 X148.38 Y159.70 E146.18844
G1 X148.39 Y160.06 E146.20361
G1 X148.06 Y160.08 E146.21879
G1 X147.71 Y160.08 E146.23519
G1 X147.66 Y160.38 E146.25159
G1 X147.13 Y160.21 E146.27039
G1 X147.04 Y160.48 E146.28921
G1 X146.38 Y160.17 E146.31298
G1 X146.71 Y160.49 E146.33675
G0 F6000 X145.74 Y160.24
G1 F780 X144.51 Y159.00 E146.42745
G1 X145.74 Y160.24 E146.51814
G0 F6000 X144.57 Y158.36
G1 F780 X144.25 Y158.04 E146.54181
G1 X144.55 Y157.99 E146.56546
G1 X144.28 Y157.36 E146.58433
G1 X144.60 Y157.32 E146.60328
G1 X144.44 Y156.81 E146.61968
G1 X144.66 Y157.03 E146.63614
G0 F6000 X146.35 Y149.69
;TYPE:WALL-INNER
G1 F780 X145.81 Y149.53 E146.66512
G1 X145.32 Y149.27 E146.69421
G1 X144.88 Y148.91 E146.72345
G1 X144.53 Y148.48 E146.75224
G1 X144.27 Y147.99 E146.78130
G1 X144.11 Y147.45 E146.81057
G1 X144.06 Y146.90 E146.83939
G1 X144.11 Y146.35 E146.86811
G1 X144.27 Y145.81 E146.89709
G1 X144.53 Y145.32 E146.92618
G1 X144.86 Y144.92 E146.95324
G1 X144.89 Y146.00 E147.00948
G1 X144.85 Y146.08 E147.01397
G1 X144.73 Y146.47 E147.03528
G1 X144.69 Y146.90 E147.05804
G1 X144.74 Y147.35 E147.08161
G1 X144.87 Y147.77 E147.10423
G1 X145.07 Y148.15 E147.12672
G1 X145.35 Y148.48 E147.14927
G1 X145.69 Y148.75 E147.17160
G1 X146.05 Y148.94 E147.19306
G1 X146.47 Y149.07 E147.21560
G1 X146.90 Y149.12 E147.23838
G1 X147.36 Y149.06 E147.26206
G1 X147.77 Y148.94 E147.28456
G1 X148.15 Y148.73 E147.30705
G1 X148.48 Y148.45 E147.32960
G1 X148.75 Y148.11 E147.35193
G1 X148.94 Y147.75 E147.37339
G1 X149.07 Y147.33 E147.39593
G1 X149.12 Y146.90 E147.41865
G1 X149.07 Y146.44 E147.44233
G1 X148.94 Y146.04 E147.46424
G1 X148.92 Y146.00 E147.46682
G1 X148.94 Y144.92 E147.52281
G1 X149.27 Y145.32 E147.54936
G1 X149.53 Y145.81 E147.57856
G1 X149.69 Y146.35 E147.60782
G1 X149.75 Y146.90 E147.63665
G1 X149.69 Y147.45 E147.66516
G1 X149.53 Y147.99 E147.69437
G1 X149.27 Y148.48 E147.72346
G1 X148.91 Y148.92 E147.75269
G1 X148.48 Y149.27 E147.78135
G1 X147.99 Y149.53 E147.81055
G1 X147.45 Y149.69 E147.83981
G1 X146.90 Y149.75 E147.86863
G1 X146.35 Y149.69 E147.89735
G0 F6000 X146.26 Y150.19
;TYPE:WALL-OUTER
G1 F780 X146.25 Y150.19 E147.89819
G1 X145.64 Y150.00 E147.93120
G1 X145.05 Y149.69 E147.96560
G1 X145.04 Y149.69 E147.96644
G1 X144.53 Y149.27 E148.00056
G1 X144.12 Y148.76 E148.03467
G1 X143.81 Y148.20 E148.06790
G1 X143.81 Y148.18 E148.06885
G1 X143.62 Y147.57 E148.10211
G1 X143.62 Y147.55 E148.10305
G1 X143.56 Y146.92 E148.13620
G1 X143.55 Y146.90 E148.13714
G1 X143.61 Y146.27 E148.16993
G1 X143.62 Y146.25 E148.17108
G1 X143.80 Y145.64 E148.20409
G1 X144.11 Y145.06 E148.23838
G1 X144.53 Y144.53 E148.27344
G1 X145.04 Y144.12 E148.30755
G1 X145.34 Y143.96 E148.32538
G1 X145.39 Y146.11 E148.43761
G1 X145.31 Y146.26 E148.44638
G1 X145.22 Y146.57 E148.46283
G1 X145.19 Y146.90 E148.48033
G1 X145.23 Y147.25 E148.49862
G1 X145.33 Y147.57 E148.51606
G1 X145.49 Y147.87 E148.53350
G1 X145.70 Y148.12 E148.55088
G1 X145.97 Y148.33 E148.56822
G1 X146.25 Y148.48 E148.58478
G1 X146.57 Y148.58 E148.60221
G1 X146.90 Y148.61 E148.61970
G1 X147.25 Y148.57 E148.63805
G1 X147.57 Y148.47 E148.65544
G1 X147.87 Y148.31 E148.67289
G1 X148.12 Y148.10 E148.69027
G1 X148.33 Y147.84 E148.70761
G1 X148.48 Y147.56 E148.72416
G1 X148.58 Y147.23 E148.74159
G1 X148.61 Y146.90 E148.75904
G1 X148.57 Y146.55 E148.77744
G1 X148.48 Y146.24 E148.79443
G1 X148.41 Y146.12 E148.80143
G1 X148.47 Y143.96 E148.91366
G1 X148.76 Y144.12 E148.93110
G1 X149.27 Y144.53 E148.96522
G1 X149.69 Y145.04 E148.99933
G1 X149.99 Y145.60 E149.03256
G1 X150.00 Y145.62 E149.03351
G1 X150.18 Y146.23 E149.06677
G1 X150.19 Y146.25 E149.06771
G1 X150.25 Y146.89 E149.10092
G1 X150.25 Y146.90 E149.10175
G1 X150.19 Y147.54 E149.13486
G1 X150.19 Y147.55 E149.13575
G1 X150.00 Y148.16 E149.16876
G1 X149.69 Y148.75 E149.20305
G1 X149.27 Y149.27 E149.23811
G1 X148.76 Y149.69 E149.27222
G1 X148.20 Y149.99 E149.30544
G1 X148.18 Y150.00 E149.30640
G1 X147.57 Y150.18 E149.33966
G1 X147.55 Y150.19 E149.34060
G1 X146.92 Y150.25 E149.37375
G1 X146.90 Y150.25 E149.37469
G1 X146.26 Y150.19 E149.40779
G0 F6000 X146.32 Y149.50
;TYPE:FILL
G1 F780 X145.85 Y149.04 E149.44182
G1 X146.56 Y149.39 E149.47576
G1 X147.08 Y149.55 E149.49574
G1 X147.13 Y149.25 E149.51570
G1 X147.67 Y149.44 E149.53207
G1 X147.71 Y149.12 E149.54848
G1 X148.17 Y149.23 E149.56366
G1 X148.18 Y148.89 E149.57880
G1 X148.59 Y148.95 E149.59345
G1 X148.57 Y148.57 E149.60814
G1 X148.95 Y148.59 E149.62282
G1 X148.89 Y148.18 E149.63747
G1 X149.23 Y148.17 E149.65277
G1 X149.23 Y147.82 E149.66808
G1 X149.22 Y147.45 E149.68476
G1 X149.50 Y147.38 E149.70143
G1 X149.28 Y146.80 E149.72154
G1 X149.53 Y146.70 E149.74171
G1 X149.09 Y145.91 E149.77163
G1 X149.50 Y146.32 E149.80162
G0 F6000 X148.44 Y148.41
G0 X146.90 Y149.06
G0 X145.39 Y148.44
G0 X144.74 Y146.90
G0 X144.71 Y145.77
G1 F780 X144.57 Y145.63 E149.81213
G1 X144.53 Y145.95 E149.82263
G1 X144.58 Y146.35 E149.83917
G1 X144.30 Y146.42 E149.85576
G1 X144.52 Y147.00 E149.87591
G1 X144.27 Y147.10 E149.89608
G1 X144.76 Y147.94 E149.93016
G1 X144.30 Y147.48 E149.96427
G0 F6000 X155.25 Y146.90
;TYPE:WALL-INNER
G1 F780 X155.31 Y146.35 E149.99299
G1 X155.47 Y145.81 E150.02197
G1 X155.73 Y145.32 E150.05106
G1 X156.06 Y144.92 E150.07812
G1 X156.09 Y146.00 E150.13436
G1 X156.05 Y146.08 E150.13885
G1 X155.93 Y146.47 E150.16015
G1 X155.89 Y146.90 E150.18292
G1 X155.93 Y147.35 E150.20649
G1 X156.06 Y147.77 E150.22911
G1 X156.27 Y148.15 E150.25160
G1 X156.55 Y148.48 E150.27414
G1 X156.89 Y148.75 E150.29648
G1 X157.25 Y148.94 E150.31794
G1 X157.67 Y149.07 E150.34048
G1 X158.10 Y149.12 E150.36320
G1 X158.56 Y149.06 E150.38689
G1 X158.97 Y148.94 E150.40944
G1 X159.35 Y148.73 E150.43193
G1 X159.68 Y148.45 E150.45447
G1 X159.95 Y148.11 E150.47681
G1 X160.14 Y147.75 E150.49827
G1 X160.27 Y147.33 E150.52086
G1 X160.31 Y146.90 E150.54352
G1 X160.26 Y146.45 E150.56715
G1 X160.14 Y146.04 E150.58910
G1 X160.12 Y146.00 E150.59168
G1 X160.14 Y144.92 E150.64767
G1 X160.47 Y145.32 E150.67422
G1 X160.73 Y145.81 E150.70342
G1 X160.89 Y146.35 E150.73242
G1 X160.94 Y146.91 E150.76182
G1 X160.89 Y147.45 E150.78996
G1 X160.73 Y147.99 E150.81922
G1 X160.47 Y148.48 E150.84831
G1 X160.11 Y148.92 E150.87754
G1 X159.68 Y149.27 E150.90620
G1 X159.19 Y149.53 E150.93540
G1 X158.65 Y149.69 E150.96440
G1 X158.09 Y149.75 E150.99379
G1 X157.55 Y149.69 E151.02193
G1 X157.01 Y149.53 E151.05119
G1 X156.52 Y149.27 E151.08028
G1 X156.08 Y148.91 E151.10952
G1 X155.73 Y148.48 E151.13832
G1 X155.47 Y147.99 E151.16738
G1 X155.31 Y147.45 E151.19664
G1 X155.25 Y146.90 E151.22546
G0 F6000 X154.75 Y146.92
;TYPE:WALL-OUTER
G1 F780 X154.75 Y146.90 E151.22640
G1 X154.81 Y146.27 E151.25918
G1 X154.81 Y146.25 E151.26034
G1 X155.00 Y145.64 E151.29335
G1 X155.31 Y145.06 E151.32764
G1 X155.73 Y144.53 E151.36269
G1 X156.24 Y144.12 E151.39681
G1 X156.54 Y143.96 E151.41464
G1 X156.59 Y146.11 E151.52687
G1 X156.51 Y146.26 E151.53563
G1 X156.42 Y146.57 E151.55209
G1 X156.39 Y146.90 E151.56958
G1 X156.43 Y147.25 E151.58787
G1 X156.53 Y147.57 E151.60531
G1 X156.69 Y147.87 E151.62276
G1 X156.90 Y148.12 E151.64014
G1 X157.16 Y148.33 E151.65748
G1 X157.44 Y148.48 E151.67404
G1 X157.77 Y148.58 E151.69146
G1 X158.10 Y148.61 E151.70891
G1 X158.45 Y148.57 E151.72731
G1 X158.77 Y148.47 E151.74470
G1 X159.06 Y148.31 E151.76214
G1 X159.32 Y148.10 E151.77952
G1 X159.53 Y147.84 E151.79687
G1 X159.68 Y147.56 E151.81342
G1 X159.78 Y147.23 E151.83085
G1 X159.81 Y146.90 E151.84829
G1 X159.77 Y146.55 E151.86663
G1 X159.68 Y146.24 E151.88368
G1 X159.61 Y146.12 E151.89068
G1 X159.66 Y143.96 E152.00291
G1 X159.96 Y144.12 E152.02035
G1 X160.47 Y144.53 E152.05446
G1 X160.88 Y145.04 E152.08858
G1 X161.19 Y145.60 E152.12180
G1 X161.19 Y145.62 E152.12275
G1 X161.38 Y146.23 E152.15602
G1 X161.38 Y146.25 E152.15695
G1 X161.44 Y146.89 E152.19016
G1 X161.45 Y146.90 E152.19110
G1 X161.39 Y147.53 E152.22383
G1 X161.38 Y147.55 E152.22498
G1 X161.20 Y148.16 E152.25800
G1 X160.89 Y148.75 E152.29229
G1 X160.47 Y149.27 E152.32734
G1 X159.96 Y149.69 E152.36146
G1 X159.40 Y149.99 E152.39468
G1 X159.38 Y150.00 E152.39563
G1 X158.77 Y150.18 E152.42889
G1 X158.75 Y150.19 E152.42983
