;-- START GCODE --
;Sliced for Type A Machines Series 1
;Sliced at: Sat 11-07-2015 22:49:25
;Basic settings: Layer height: 0.15 Walls: 0.8 Fill: 8
;Print Speed: 100 Support: 0
;Retraction Speed: 40 Retraction Distance: 1.2
;Print time: #P_TIME#
;Filament used: #F_AMNT#m #F_WGHT#g
;Filament cost: #F_COST#
M106 S255	 ;start with the fan on
G21        ;metric values
G90        ;absolute positioning
M106 S255    ;start with the fan on
G28     ;move to endstops
G29		;allows for auto-levelling
G1 X150 Y5  Z15.0 F12000 ;center and move the platform down 15mm
M109 S220 ;Heat To temp
G92 E0                  ;zero the extruded length
G1 F200 E30              ;extrude 30mm of feed stock
G92 E0                  ;zero the extruded length again
G1 X175 Y25  Z0 F12000 ;remove bugger
G1 X220 F12000 ;remove bugger
G1 X150 Y150  Z15 F12000 ;recenter and begin
G1 F12000

;Layer count: 40
;LAYER:0
M106 S255
G0 F12000 X145.55 Y144.11 Z0.30
;TYPE:SKIRT
G1 F2700 X150.00 Y144.11 E0.22201
G1 X150.62 Y143.92 E0.25435
G1 X152.50 Y143.74 E0.34861
G1 X154.38 Y143.92 E0.44287
G1 X155.00 Y144.11 E0.47521
G1 X162.65 Y144.11 E0.85687
G1 X162.65 Y162.31 E1.76487
G1 X155.74 Y162.31 E2.10986
G1 X154.37 Y162.73 E2.18112
G1 X152.50 Y162.91 E2.27479
G1 X150.63 Y162.73 E2.36847
G1 X149.26 Y162.31 E2.43972
G1 X145.55 Y162.31 E2.62507
G1 X145.55 Y159.89 E2.74575
G1 X144.52 Y158.65 E2.82628
G1 X143.64 Y156.99 E2.91999
G1 X143.10 Y155.20 E3.01310
G1 X142.91 Y153.32 E3.10741
G1 X143.10 Y151.44 E3.20162
G1 X143.64 Y149.65 E3.29492
G1 X144.53 Y148.00 E3.38862
G1 X145.55 Y146.75 E3.46887
G1 X145.55 Y144.11 E3.60072
G0 F12000 X145.95 Y144.51
G1 F2700 X150.06 Y144.51 E3.80572
G1 X150.70 Y144.32 E3.83910
G1 X152.50 Y144.14 E3.92940
G1 X154.30 Y144.32 E4.01970
G1 X154.94 Y144.51 E4.05308
G1 X162.25 Y144.51 E4.41773
G1 X162.25 Y161.91 E5.28582
G1 X155.68 Y161.91 E5.61385
G1 X154.29 Y162.33 E5.68603
G1 X152.50 Y162.51 E5.77581
G1 X150.71 Y162.33 E5.86558
G1 X149.32 Y161.91 E5.93777
G1 X145.95 Y161.91 E6.10615
G1 X145.95 Y159.75 E6.21401
G1 X144.86 Y158.42 E6.29968
G1 X144.01 Y156.83 E6.38951
G1 X143.49 Y155.12 E6.47869
G1 X143.31 Y153.32 E6.56904
G1 X143.49 Y151.52 E6.65929
G1 X144.01 Y149.81 E6.74868
G1 X144.86 Y148.22 E6.83847
G1 X145.95 Y146.90 E6.92389
G1 X145.95 Y144.51 E7.04293
G0 F12000 X146.35 Y144.91
G1 F2700 X150.12 Y144.91 E7.23092
G1 X150.78 Y144.71 E7.26534
G1 X152.50 Y144.54 E7.35168
G1 X154.22 Y144.71 E7.43801
G1 X154.88 Y144.91 E7.47244
G1 X161.85 Y144.91 E7.82007
G1 X161.85 Y161.51 E8.64825
G1 X155.62 Y161.51 E8.95921
G1 X154.21 Y161.94 E9.03249
G1 X152.50 Y162.11 E9.11830
G1 X150.79 Y161.94 E9.20411
G1 X149.38 Y161.51 E9.27739
G1 X146.35 Y161.51 E9.42871
G1 X146.35 Y159.58 E9.52495
G1 X146.29 Y159.53 E9.52881
G1 X145.19 Y158.20 E9.61494
G1 X144.38 Y156.68 E9.70082
G1 X143.89 Y155.04 E9.78614
G1 X143.72 Y153.32 E9.87253
G1 X143.89 Y151.60 E9.95881
G1 X144.39 Y149.96 E10.04431
G1 X145.20 Y148.44 E10.13012
G1 X146.29 Y147.11 E10.21604
G1 X146.35 Y147.06 E10.21990
G1 X146.35 Y144.91 E10.32732
G0 F12000 X146.75 Y145.31
G1 F2700 X150.18 Y145.31 E10.49839
G1 X150.86 Y145.10 E10.53376
G1 X152.50 Y144.94 E10.61614
G1 X154.14 Y145.10 E10.69851
G1 X154.82 Y145.31 E10.73388
G1 X161.45 Y145.31 E11.06460
G1 X161.45 Y161.11 E11.85287
G1 X155.56 Y161.11 E12.14692
G1 X154.13 Y161.55 E12.22109
G1 X152.50 Y161.70 E12.30300
G1 X150.87 Y161.55 E12.38490
G1 X149.44 Y161.11 E12.45907
G1 X146.75 Y161.11 E12.59347
G1 X146.75 Y159.40 E12.67914
G1 X146.57 Y159.25 E12.69051
G1 X145.53 Y157.98 E12.77271
G1 X144.76 Y156.53 E12.85466
G1 X144.28 Y154.97 E12.93608
G1 X144.12 Y153.32 E13.01850
G1 X144.28 Y151.68 E13.10083
G1 X144.76 Y150.12 E13.18246
G1 X145.53 Y148.67 E13.26432
G1 X146.57 Y147.40 E13.34630
G1 X146.75 Y147.25 E13.35768
G1 X146.75 Y145.31 E13.45452
G0 F12000 X147.15 Y145.71
G1 F2700 X150.24 Y145.71 E13.60853
G1 X150.94 Y145.50 E13.64499
G1 X152.50 Y145.34 E13.72340
G1 X154.06 Y145.50 E13.80182
G1 X154.76 Y145.71 E13.83827
G1 X161.05 Y145.71 E14.15193
G1 X161.05 Y160.71 E14.90029
G1 X155.50 Y160.71 E15.17733
G1 X154.06 Y161.15 E15.25248
G1 X152.50 Y161.30 E15.33047
G1 X150.94 Y161.15 E15.40847
G1 X149.50 Y160.71 E15.48362
G1 X147.15 Y160.71 E15.60101
G1 X147.15 Y159.21 E15.67615
G1 X146.86 Y158.97 E15.69501
G1 X145.86 Y157.75 E15.77327
G1 X145.13 Y156.37 E15.85125
G1 X144.68 Y154.89 E15.92876
G1 X144.52 Y153.32 E16.00727
G1 X144.68 Y151.76 E16.08564
G1 X145.13 Y150.27 E16.16335
G1 X145.87 Y148.89 E16.24133
G1 X146.86 Y147.68 E16.31935
G1 X147.15 Y147.44 E16.33820
G1 X147.15 Y145.71 E16.42452
G0 F12000 X147.55 Y146.11
G1 F2700 X150.30 Y146.11 E16.56151
G1 X151.01 Y145.89 E16.59901
G1 X152.50 Y145.75 E16.67347
G1 X153.99 Y145.89 E16.74792
G1 X154.70 Y146.11 E16.78542
G1 X160.65 Y146.11 E17.08206
G1 X160.65 Y160.31 E17.79051
G1 X155.42 Y160.31 E18.05143
G1 X155.40 Y160.32 E18.05279
G1 X153.98 Y160.76 E18.12680
G1 X152.50 Y160.90 E18.20083
G1 X151.02 Y160.76 E18.27486
G1 X149.60 Y160.32 E18.34886
G1 X149.58 Y160.31 E18.35022
G1 X147.55 Y160.31 E18.45150
G1 X147.55 Y159.02 E18.51611
G1 X147.14 Y158.68 E18.54245
G1 X146.20 Y157.53 E18.61678
G1 X145.50 Y156.22 E18.69085
G1 X145.07 Y154.81 E18.76444
G1 X144.92 Y153.32 E18.83900
G1 X145.07 Y151.84 E18.91340
G1 X145.50 Y150.42 E18.98721
G1 X146.20 Y149.11 E19.06122
G1 X147.14 Y147.97 E19.13534
G1 X147.55 Y147.63 E19.16168
G1 X147.55 Y146.11 E19.23746
G0 F12000 X147.95 Y146.51
G1 F2700 X150.36 Y146.51 E19.35755
G1 X151.09 Y146.29 E19.39595
G1 X152.50 Y146.15 E19.46649
G1 X153.91 Y146.29 E19.53703
G1 X154.64 Y146.51 E19.57543
G1 X160.25 Y146.51 E19.85516
G1 X160.25 Y159.91 E20.52369
G1 X155.32 Y159.91 E20.76970
G1 X155.24 Y159.95 E20.77405
G1 X153.90 Y160.36 E20.84411
G1 X152.50 Y160.50 E20.91423
G1 X151.10 Y160.36 E20.98435
G1 X149.76 Y159.95 E21.05440
G1 X149.68 Y159.91 E21.05875
G1 X147.95 Y159.91 E21.14511
G1 X147.95 Y158.83 E21.19925
G1 X147.43 Y158.40 E21.23302
G1 X146.53 Y157.31 E21.30338
G1 X145.87 Y156.07 E21.37355
G1 X145.46 Y154.73 E21.44324
G1 X145.32 Y153.32 E21.51383
G1 X145.46 Y151.92 E21.58433
G1 X145.87 Y150.58 E21.65418
G1 X146.53 Y149.34 E21.72428
G1 X147.43 Y148.25 E21.79446
G1 X147.95 Y147.82 E21.82824
G1 X147.95 Y146.51 E21.89354
G0 F12000 X148.35 Y146.91
G1 F2700 X150.42 Y146.91 E21.99667
G1 X151.17 Y146.68 E22.03604
G1 X152.50 Y146.55 E22.10263
G1 X153.83 Y146.68 E22.16921
G1 X154.58 Y146.91 E22.20859
G1 X159.85 Y146.91 E22.47136
G1 X159.85 Y159.51 E23.09998
G1 X155.22 Y159.51 E23.33092
G1 X155.09 Y159.58 E23.33837
G1 X153.82 Y159.97 E23.40452
G1 X152.50 Y160.10 E23.47073
G1 X151.18 Y159.97 E23.53693
G1 X149.91 Y159.58 E23.60308
G1 X149.78 Y159.51 E23.61053
G1 X148.35 Y159.51 E23.68182
G1 X148.35 Y158.64 E23.72538
G1 X147.71 Y158.11 E23.76667
G1 X146.87 Y157.09 E23.83309
G1 X146.24 Y155.91 E23.89931
G1 X145.86 Y154.65 E23.96514
G1 X145.72 Y153.32 E24.03177
G1 X145.86 Y152.00 E24.09830
G1 X146.24 Y150.73 E24.16422
G1 X146.87 Y149.56 E24.23042
G1 X147.71 Y148.53 E24.29666
G1 X148.35 Y148.01 E24.33796
G1 X148.35 Y146.91 E24.39268
G0 F12000 X148.75 Y147.31
G1 F2700 X150.48 Y147.31 E24.47880
G1 X151.25 Y147.08 E24.51921
G1 X152.50 Y146.95 E24.58184
G1 X153.75 Y147.08 E24.64446
G1 X154.52 Y147.31 E24.68488
G1 X159.45 Y147.31 E24.93064
G1 X159.45 Y159.11 E25.51934
G1 X155.12 Y159.11 E25.73532
G1 X154.94 Y159.21 E25.74583
G1 X153.74 Y159.57 E25.80804
G1 X152.50 Y159.69 E25.87030
G1 X151.26 Y159.57 E25.93255
G1 X150.06 Y159.21 E25.99476
G1 X149.88 Y159.11 E26.00527
G1 X148.75 Y159.11 E26.06160
G1 X148.75 Y158.45 E26.09463
G1 X148.00 Y157.83 E26.14340
G1 X147.20 Y156.86 E26.20588
G1 X146.61 Y155.76 E26.26820
G1 X146.25 Y154.57 E26.33011
G1 X146.13 Y153.32 E26.39278
G1 X146.25 Y152.07 E26.45535
G1 X146.61 Y150.88 E26.51736
G1 X147.20 Y149.78 E26.57961
G1 X148.00 Y148.82 E26.64196
G1 X148.75 Y148.20 E26.69073
G1 X148.75 Y147.31 E26.73493
G0 F12000 X149.15 Y147.71
G1 F2700 X150.54 Y147.71 E26.80408
G1 X151.33 Y147.47 E26.84549
G1 X152.50 Y147.35 E26.90415
G1 X153.67 Y147.47 E26.96281
G1 X154.46 Y147.71 E27.00423
G1 X159.05 Y147.71 E27.23302
G1 X159.05 Y158.71 E27.78182
G1 X155.02 Y158.71 E27.98282
G1 X154.78 Y158.84 E27.99633
G1 X153.66 Y159.18 E28.05464
G1 X152.50 Y159.29 E28.11298
G1 X151.34 Y159.18 E28.17133
G1 X150.22 Y158.84 E28.22964
G1 X149.98 Y158.71 E28.24315
G1 X149.15 Y158.71 E28.28451
G1 X149.15 Y158.26 E28.30701
G1 X148.28 Y157.54 E28.36326
G1 X147.53 Y156.64 E28.42178
G1 X146.99 Y155.61 E28.48014
G1 X146.65 Y154.49 E28.53819
G1 X146.53 Y153.32 E28.59690
G1 X146.65 Y152.15 E28.65551
G1 X146.99 Y151.04 E28.71362
G1 X147.54 Y150.01 E28.77196
G1 X148.28 Y149.10 E28.83034
G1 X149.15 Y148.39 E28.88659
G1 X149.15 Y147.71 E28.92027
G0 F12000 X149.55 Y148.11
G1 F2700 X150.59 Y148.11 E28.97241
G1 X151.41 Y147.86 E29.01486
G1 X152.50 Y147.75 E29.06956
G1 X153.59 Y147.86 E29.12426
G1 X154.41 Y148.11 E29.16672
G1 X158.65 Y148.11 E29.37850
G1 X158.65 Y158.31 E29.88738
G1 X154.92 Y158.31 E30.07337
G1 X154.63 Y158.47 E30.08997
G1 X153.59 Y158.79 E30.14438
G1 X152.50 Y158.89 E30.19876
G1 X151.41 Y158.79 E30.25314
G1 X150.37 Y158.47 E30.30754
G1 X150.08 Y158.31 E30.32415
G1 X149.55 Y158.31 E30.35049
G1 X149.55 Y158.03 E30.36451
G1 X149.41 Y157.96 E30.37252
G1 X148.56 Y157.26 E30.42711
G1 X147.87 Y156.42 E30.48169
G1 X147.36 Y155.45 E30.53615
G1 X147.04 Y154.41 E30.59028
G1 X146.93 Y153.32 E30.64503
G1 X147.04 Y152.23 E30.69968
G1 X147.36 Y151.19 E30.75392
G1 X147.87 Y150.23 E30.80832
G1 X148.56 Y149.39 E30.86276
G1 X149.41 Y148.69 E30.91735
G1 X149.55 Y148.62 E30.92536
G1 X149.55 Y148.11 E30.95055
G0 F12000 X149.95 Y148.51
G1 F2700 X150.66 Y148.51 E30.98577
G1 X151.49 Y148.26 E31.02917
G1 X152.50 Y148.16 E31.07991
G1 X153.51 Y148.26 E31.13065
G1 X154.34 Y148.51 E31.17405
G1 X158.25 Y148.51 E31.36892
G1 X158.25 Y157.91 E31.83789
G1 X154.82 Y157.91 E32.00897
G1 X154.47 Y158.10 E32.02852
G1 X153.51 Y158.39 E32.07900
G1 X152.50 Y158.49 E32.12948
G1 X151.49 Y158.39 E32.17996
G1 X150.53 Y158.10 E32.23044
G1 X150.18 Y157.91 E32.25000
G1 X149.95 Y157.91 E32.26142
G1 X149.95 Y157.79 E32.26751
G1 X149.63 Y157.62 E32.28552
G1 X148.85 Y156.98 E32.33613
G1 X148.20 Y156.19 E32.38675
G1 X147.73 Y155.30 E32.43726
G1 X147.43 Y154.34 E32.48754
G1 X147.33 Y153.32 E32.53828
G1 X147.43 Y152.31 E32.58902
G1 X147.73 Y151.35 E32.63935
G1 X148.20 Y150.45 E32.68979
G1 X148.85 Y149.67 E32.74034
G1 X149.63 Y149.03 E32.79096
G1 X149.95 Y148.86 E32.80897
G1 X149.95 Y148.51 E32.82623
G0 F12000 X150.35 Y148.91
G1 F2700 X150.72 Y148.91 E32.84444
G1 X151.57 Y148.65 E32.88888
G1 X152.50 Y148.56 E32.93566
G1 X153.43 Y148.65 E32.98244
G1 X154.28 Y148.91 E33.02688
G1 X157.85 Y148.91 E33.20474
G1 X157.85 Y157.51 E33.63379
G1 X154.72 Y157.51 E33.78985
G1 X154.32 Y157.72 E33.81250
G1 X153.43 Y158.00 E33.85903
G1 X152.50 Y158.09 E33.90559
G1 X151.57 Y158.00 E33.95216
G1 X150.68 Y157.72 E33.99868
G1 X149.85 Y157.29 E34.04524
G1 X149.13 Y156.69 E34.09195
G1 X148.54 Y155.97 E34.13867
G1 X148.10 Y155.15 E34.18523
G1 X147.83 Y154.26 E34.23154
G1 X147.74 Y153.32 E34.27837
G1 X147.83 Y152.39 E34.32515
G1 X148.10 Y151.50 E34.37157
G1 X148.54 Y150.68 E34.41810
G1 X149.13 Y149.96 E34.46471
G1 X149.85 Y149.36 E34.51142
G1 X150.35 Y149.10 E34.53939
G1 X150.35 Y148.91 E34.54867
G0 F12000 X150.75 Y149.31
G1 F2700 X150.80 Y149.31 E34.55111
G1 X150.83 Y149.29 E34.55303
G1 X151.65 Y149.05 E34.59544
G1 X152.50 Y148.96 E34.63825
G1 X153.35 Y149.05 E34.68107
G1 X154.17 Y149.29 E34.72348
G1 X154.20 Y149.31 E34.72540
G1 X157.45 Y149.31 E34.88749
G1 X157.45 Y157.11 E35.27663
G1 X154.62 Y157.11 E35.41767
G1 X154.17 Y157.35 E35.44343
G1 X153.35 Y157.60 E35.48604
G1 X152.50 Y157.69 E35.52864
G1 X151.65 Y157.60 E35.57125
G1 X150.83 Y157.35 E35.61386
G1 X150.08 Y156.95 E35.65651
G1 X149.42 Y156.41 E35.69929
G1 X148.87 Y155.75 E35.74207
G1 X148.47 Y154.99 E35.78472
G1 X148.22 Y154.18 E35.82712
G1 X148.14 Y153.32 E35.86999
G1 X148.22 Y152.47 E35.91281
G1 X148.47 Y151.65 E35.95532
G1 X148.87 Y150.90 E35.99795
G1 X149.42 Y150.24 E36.04059
G1 X150.08 Y149.69 E36.08337
G1 X150.75 Y149.34 E36.12133
G1 X150.75 Y149.31 E36.12263
G0 F12000 X150.99 Y149.67
G1 F2700 X151.72 Y149.44 E36.16119
G1 X152.50 Y149.36 E36.20004
G1 X153.28 Y149.44 E36.23890
G1 X154.01 Y149.67 E36.27745
G1 X154.10 Y149.71 E36.28236
G1 X157.05 Y149.71 E36.42949
G1 X157.05 Y156.71 E36.77872
G1 X154.52 Y156.71 E36.90484
G1 X154.01 Y156.98 E36.93354
G1 X153.27 Y157.21 E36.97225
G1 X152.50 Y157.28 E37.01095
G1 X151.73 Y157.21 E37.04964
G1 X150.99 Y156.98 E37.08835
G1 X150.30 Y156.62 E37.12705
G1 X149.70 Y156.12 E37.16586
G1 X149.21 Y155.52 E37.20468
G1 X148.84 Y154.84 E37.24338
G1 X148.62 Y154.10 E37.28193
G1 X148.54 Y153.32 E37.32084
G1 X148.62 Y152.55 E37.35969
G1 X148.84 Y151.81 E37.39829
G1 X149.21 Y151.12 E37.43697
G1 X149.70 Y150.52 E37.47572
G1 X150.30 Y150.03 E37.51453
G1 X150.99 Y149.67 E37.55323
G0 F12000 X151.14 Y150.04
G1 F2700 X151.80 Y149.83 E37.58787
G1 X152.50 Y149.76 E37.62276
G1 X153.20 Y149.83 E37.65766
G1 X153.86 Y150.04 E37.69230
G1 X154.00 Y150.11 E37.70027
G1 X156.65 Y150.11 E37.83243
G1 X156.65 Y156.31 E38.14174
G1 X154.42 Y156.31 E38.25285
G1 X153.86 Y156.61 E38.28465
G1 X153.19 Y156.81 E38.31939
G1 X152.50 Y156.88 E38.35417
G1 X151.81 Y156.81 E38.38896
G1 X151.14 Y156.61 E38.42370
G1 X150.52 Y156.28 E38.45849
G1 X149.98 Y155.84 E38.49337
G1 X149.54 Y155.30 E38.52825
G1 X149.21 Y154.68 E38.56304
G1 X149.01 Y154.02 E38.59768
G1 X148.94 Y153.32 E38.63262
G1 X149.01 Y152.63 E38.66752
G1 X149.21 Y151.96 E38.70221
G1 X149.54 Y151.35 E38.73698
G1 X149.98 Y150.81 E38.77179
G1 X150.52 Y150.36 E38.80667
G1 X151.14 Y150.04 E38.84146
G0 F12000 X151.29 Y150.41
G1 F2700 X151.88 Y150.23 E38.87222
G1 X152.50 Y150.17 E38.90316
G1 X153.12 Y150.23 E38.93409
G1 X153.71 Y150.41 E38.96485
G1 X153.90 Y150.51 E38.97588
G1 X156.25 Y150.51 E39.09302
G1 X156.25 Y155.91 E39.36243
G1 X154.30 Y155.91 E39.45981
G1 X154.25 Y155.95 E39.46272
G1 X153.71 Y156.24 E39.49359
G1 X153.12 Y156.42 E39.52446
G1 X152.50 Y156.48 E39.55529
G1 X151.88 Y156.42 E39.58611
G1 X151.29 Y156.24 E39.61698
G1 X150.75 Y155.95 E39.64785
G1 X150.27 Y155.56 E39.67876
G1 X149.88 Y155.08 E39.70968
G1 X149.58 Y154.53 E39.74054
G1 X149.41 Y153.94 E39.77130
G1 X149.34 Y153.32 E39.80229
G1 X149.41 Y152.71 E39.83323
G1 X149.59 Y152.12 E39.86400
G1 X149.88 Y151.57 E39.89485
G1 X150.27 Y151.09 E39.92572
G1 X150.75 Y150.70 E39.95663
G1 X151.29 Y150.41 E39.98750
G0 F12000 X151.45 Y150.78
G1 F2700 X151.96 Y150.62 E40.01436
G1 X152.50 Y150.57 E40.04133
G1 X153.04 Y150.62 E40.06831
G1 X153.55 Y150.78 E40.09517
G1 X153.80 Y150.91 E40.10923
G1 X155.85 Y150.91 E40.21141
G1 X155.85 Y155.51 E40.44090
G1 X154.16 Y155.51 E40.52546
G1 X154.03 Y155.62 E40.53355
G1 X153.55 Y155.87 E40.56048
G1 X153.04 Y156.03 E40.58741
G1 X152.50 Y156.08 E40.61432
G1 X151.96 Y156.03 E40.64124
G1 X151.45 Y155.87 E40.66816
G1 X150.97 Y155.62 E40.69510
G1 X150.55 Y155.27 E40.72207
G1 X150.21 Y154.85 E40.74904
G1 X149.96 Y154.38 E40.77598
G1 X149.80 Y153.86 E40.80284
G1 X149.75 Y153.32 E40.82986
G1 X149.80 Y152.78 E40.85684
G1 X149.96 Y152.27 E40.88375
G1 X150.21 Y151.79 E40.91060
G1 X150.55 Y151.38 E40.93757
G1 X150.97 Y151.03 E40.96454
G1 X151.45 Y150.78 E40.99147
G0 F12000 X151.60 Y151.15
G1 F2700 X152.04 Y151.02 E41.01442
G1 X152.50 Y150.97 E41.03744
G1 X152.96 Y151.02 E41.06045
G1 X153.40 Y151.15 E41.08340
G1 X153.70 Y151.31 E41.10056
G1 X155.45 Y151.31 E41.18772
G1 X155.45 Y155.11 E41.37730
G1 X154.01 Y155.11 E41.44904
G1 X153.81 Y155.28 E41.46230
G1 X153.40 Y155.50 E41.48533
G1 X152.96 Y155.63 E41.50828
G1 X152.50 Y155.68 E41.53129
G1 X152.04 Y155.63 E41.55429
G1 X151.60 Y155.50 E41.57724
G1 X151.19 Y155.28 E41.60027
G1 X150.84 Y154.99 E41.62331
G1 X150.54 Y154.63 E41.64634
G1 X150.33 Y154.22 E41.66937
G1 X150.19 Y153.78 E41.69232
G1 X150.15 Y153.32 E41.71539
G1 X150.19 Y152.86 E41.73840
G1 X150.33 Y152.42 E41.76139
G1 X150.54 Y152.02 E41.78436
G1 X150.84 Y151.66 E41.80736
G1 X151.19 Y151.37 E41.83040
G1 X151.60 Y151.15 E41.85343
G0 F12000 X151.75 Y151.52
G1 F2700 X152.12 Y151.41 E41.87251
G1 X152.50 Y151.37 E41.89157
G1 X152.88 Y151.41 E41.91062
G1 X153.25 Y151.52 E41.92970
G1 X153.58 Y151.70 E41.94880
G1 X153.60 Y151.71 E41.94958
G1 X155.05 Y151.71 E42.02212
G1 X155.05 Y154.71 E42.17179
G1 X153.87 Y154.71 E42.23076
G1 X153.58 Y154.95 E42.24912
G1 X153.25 Y155.13 E42.26823
G1 X152.88 Y155.24 E42.28731
G1 X152.50 Y155.27 E42.30636
G1 X152.12 Y155.24 E42.32541
G1 X151.75 Y155.13 E42.34449
G1 X151.42 Y154.95 E42.36359
G1 X151.12 Y154.70 E42.38266
G1 X150.88 Y154.41 E42.40173
G1 X150.70 Y154.07 E42.42083
G1 X150.59 Y153.70 E42.43991
G1 X150.55 Y153.32 E42.45902
G1 X150.59 Y152.94 E42.47807
G1 X150.70 Y152.58 E42.49715
G1 X150.88 Y152.24 E42.51621
G1 X151.12 Y151.94 E42.53528
G1 X151.42 Y151.70 E42.55435
G1 X151.75 Y151.52 E42.57345
G0 F12000 X135.65 Y150.13
G1 F2700 X135.45 Y150.33 E42.58756
G1 X135.45 Y151.73 E42.65741
G1 X135.25 Y151.93 E42.67152
G1 X135.25 Y154.69 E42.80912
G1 X135.45 Y154.89 E42.82323
G1 X135.45 Y156.29 E42.89307
G1 X135.65 Y156.49 E42.90719
G1 X135.65 Y157.89 E42.97703
G1 X135.85 Y158.09 E42.99114
G1 X135.85 Y159.49 E43.06099
G1 X136.05 Y159.69 E43.07510
G1 X136.05 Y160.29 E43.10503
G1 X136.25 Y160.49 E43.11915
G1 X136.25 Y161.29 E43.15906
G1 X136.45 Y161.49 E43.17317
G1 X136.45 Y162.29 E43.21308
G1 X136.65 Y162.49 E43.22719
G1 X136.65 Y163.29 E43.26710
G1 X136.85 Y163.49 E43.28122
G1 X136.85 Y164.29 E43.32113
G1 X137.05 Y164.49 E43.33524
G1 X137.05 Y164.69 E43.34522
G1 X137.25 Y164.89 E43.35933
G1 X137.25 Y165.29 E43.37928
G1 X137.45 Y165.49 E43.39339
G1 X137.45 Y165.89 E43.41335
G1 X137.65 Y166.09 E43.42746
G1 X137.65 Y166.49 E43.44742
G1 X137.85 Y166.69 E43.46153
G1 X137.85 Y167.09 E43.48148
G1 X138.05 Y167.29 E43.49560
G1 X138.05 Y167.49 E43.50557
G1 X138.25 Y167.69 E43.51969
G1 X138.25 Y168.09 E43.53964
G1 X138.45 Y168.29 E43.55375
G1 X138.45 Y168.69 E43.57371
G1 X138.65 Y168.89 E43.58782
G1 X138.65 Y169.09 E43.59780
G1 X138.85 Y169.29 E43.61191
G1 X138.85 Y169.49 E43.62189
G1 X139.05 Y169.69 E43.63600
G1 X139.05 Y170.09 E43.65595
G1 X139.25 Y170.29 E43.67006
G1 X139.25 Y170.49 E43.68004
G1 X139.45 Y170.69 E43.69415
G1 X139.45 Y170.89 E43.70413
G1 X139.65 Y171.09 E43.71824
G1 X139.65 Y171.49 E43.73820
G1 X139.85 Y171.69 E43.75231
G1 X139.85 Y171.89 E43.76229
G1 X140.05 Y172.09 E43.77640
G1 X140.05 Y172.29 E43.78638
G1 X140.25 Y172.49 E43.80049
G1 X140.25 Y172.89 E43.82044
G1 X140.65 Y173.29 E43.84867
G1 X140.65 Y173.49 E43.85864
G1 X140.85 Y173.69 E43.87276
G1 X140.85 Y173.89 E43.88273
G1 X141.25 Y174.29 E43.91096
G1 X141.25 Y174.49 E43.92093
G1 X141.45 Y174.69 E43.93505
G1 X141.45 Y174.89 E43.94502
G1 X141.65 Y175.09 E43.95913
G1 X141.65 Y175.29 E43.96911
G1 X142.05 Y175.69 E43.99733
G1 X142.05 Y175.89 E44.00731
G1 X142.25 Y176.09 E44.02142
G1 X142.25 Y176.29 E44.03140
G1 X142.45 Y176.49 E44.04551
G1 X142.45 Y176.69 E44.05549
G1 X143.45 Y177.69 E44.12605
G1 X143.45 Y177.89 E44.13602
G1 X144.25 Y178.69 E44.19247
G1 X144.25 Y178.89 E44.20245
G1 X144.99 Y179.63 E44.25438
G1 X145.38 Y179.83 E44.27664
G1 X145.78 Y180.23 E44.30479
G1 X146.19 Y180.43 E44.32717
G1 X146.58 Y180.83 E44.35532
G1 X146.99 Y181.03 E44.37770
G1 X147.38 Y181.43 E44.40585
G1 X148.51 Y181.99 E44.46888
G1 X148.73 Y182.04 E44.48009
G1 X149.33 Y182.25 E44.51156
G1 X150.13 Y182.44 E44.55253
G1 X150.84 Y182.68 E44.59004
G1 X151.68 Y182.79 E44.63227
G1 X153.10 Y182.99 E44.70364
G1 X154.28 Y182.84 E44.76322
G1 X155.79 Y182.34 E44.84253
G1 X157.62 Y181.43 E44.94449
G1 X157.81 Y181.23 E44.95846
G1 X158.22 Y181.03 E44.98084
G1 X158.62 Y180.63 E45.00899
G1 X159.02 Y180.43 E45.03137
G1 X159.41 Y180.03 E45.05952
G1 X159.82 Y179.83 E45.08190
G1 X160.55 Y179.09 E45.13369
G1 X160.55 Y178.89 E45.14371
G1 X161.35 Y178.09 E45.20016
G1 X161.35 Y177.89 E45.21014
G1 X162.15 Y177.09 E45.26658
G1 X162.15 Y176.89 E45.27656
G1 X162.55 Y176.49 E45.30478
G1 X162.55 Y176.29 E45.31476
G1 X162.75 Y176.09 E45.32887
G1 X162.75 Y175.89 E45.33885
G1 X163.15 Y175.49 E45.36707
G1 X163.15 Y175.29 E45.37705
G1 X163.35 Y175.09 E45.39116
G1 X163.35 Y174.89 E45.40114
G1 X163.55 Y174.69 E45.41525
G1 X163.55 Y174.49 E45.42523
G1 X163.95 Y174.09 E45.45345
G1 X163.95 Y173.89 E45.46343
G1 X164.15 Y173.69 E45.47754
G1 X164.15 Y173.49 E45.48752
G1 X164.35 Y173.29 E45.50163
G1 X164.35 Y173.09 E45.51160
G1 X164.55 Y172.89 E45.52572
G1 X164.55 Y172.69 E45.53569
G1 X164.75 Y172.49 E45.54980
G1 X164.75 Y172.29 E45.55978
G1 X164.95 Y172.09 E45.57389
G1 X164.95 Y171.89 E45.58387
G1 X165.15 Y171.69 E45.59798
G1 X165.15 Y171.49 E45.60796
G1 X165.35 Y171.29 E45.62207
G1 X165.35 Y171.09 E45.63205
G1 X165.55 Y170.89 E45.64616
G1 X165.55 Y170.69 E45.65614
G1 X165.75 Y170.49 E45.67025
G1 X165.75 Y170.29 E45.68023
G1 X165.95 Y170.09 E45.69434
G1 X165.95 Y169.89 E45.70432
G1 X166.15 Y169.69 E45.71843
G1 X166.15 Y169.49 E45.72841
G1 X166.35 Y169.29 E45.74252
G1 X166.35 Y168.89 E45.76247
G1 X166.55 Y168.69 E45.77658
G1 X166.55 Y168.09 E45.80652
G1 X166.75 Y167.89 E45.82063
G1 X166.75 Y167.29 E45.85056
G1 X166.95 Y167.09 E45.86468
G1 X166.95 Y166.89 E45.87465
G1 X167.15 Y166.69 E45.88876
G1 X167.15 Y166.29 E45.90872
G1 X167.35 Y166.09 E45.92283
G1 X167.35 Y165.69 E45.94279
G1 X167.55 Y165.49 E45.95690
G1 X167.55 Y165.09 E45.97685
G1 X167.75 Y164.89 E45.99097
G1 X167.75 Y164.49 E46.01092
G1 X167.95 Y164.29 E46.02503
G1 X167.95 Y163.69 E46.05497
G1 X168.15 Y163.49 E46.06908
G1 X168.15 Y162.89 E46.09901
G1 X168.35 Y162.69 E46.11312
G1 X168.35 Y162.09 E46.14306
G1 X168.55 Y161.89 E46.15717
G1 X168.55 Y161.29 E46.18710
G1 X168.75 Y161.09 E46.20121
G1 X168.75 Y160.49 E46.23115
G1 X168.95 Y160.29 E46.24526
G1 X168.95 Y159.69 E46.27519
G1 X169.15 Y159.49 E46.28930
G1 X169.15 Y158.09 E46.35915
G1 X169.35 Y157.89 E46.37326
G1 X169.35 Y156.49 E46.44311
G1 X169.55 Y156.29 E46.45722
G1 X169.55 Y154.89 E46.52707
G1 X169.75 Y154.69 E46.54118
G1 X169.75 Y151.93 E46.67877
G1 X169.55 Y151.73 E46.69288
G1 X169.55 Y150.13 E46.77271
G1 X169.35 Y149.93 E46.78682
G1 X169.35 Y148.53 E46.85667
G1 X169.15 Y148.33 E46.87078
G1 X169.15 Y146.93 E46.94062
G1 X168.95 Y146.73 E46.95473
G1 X168.95 Y146.13 E46.98467
G1 X168.75 Y145.93 E46.99878
G1 X168.75 Y145.33 E47.02871
G1 X168.55 Y145.13 E47.04283
G1 X168.55 Y144.53 E47.07276
G1 X168.35 Y144.33 E47.08687
G1 X168.35 Y143.73 E47.11680
G1 X168.15 Y143.53 E47.13092
G1 X168.15 Y142.93 E47.16085
G1 X167.95 Y142.73 E47.17496
G1 X167.95 Y142.13 E47.20489
G1 X167.75 Y141.93 E47.21901
G1 X167.75 Y141.33 E47.24894
G1 X167.55 Y141.13 E47.26305
G1 X167.55 Y140.73 E47.28301
G1 X167.35 Y140.53 E47.29712
G1 X167.35 Y140.13 E47.31707
G1 X167.15 Y139.93 E47.33119
G1 X167.15 Y139.53 E47.35114
G1 X166.95 Y139.33 E47.36525
G1 X166.95 Y138.93 E47.38521
G1 X166.75 Y138.73 E47.39932
G1 X166.75 Y138.33 E47.41928
G1 X166.55 Y138.13 E47.43339
G1 X166.55 Y137.73 E47.45334
G1 X166.35 Y137.53 E47.46745
G1 X166.35 Y137.13 E47.48741
G1 X166.15 Y136.93 E47.50152
G1 X166.15 Y136.73 E47.51150
G1 X165.95 Y136.53 E47.52561
G1 X165.95 Y136.33 E47.53559
G1 X165.75 Y136.13 E47.54970
G1 X165.75 Y135.93 E47.55968
G1 X165.55 Y135.73 E47.57379
G1 X165.55 Y135.53 E47.58377
G1 X165.35 Y135.33 E47.59788
G1 X165.35 Y135.13 E47.60786
G1 X165.15 Y134.93 E47.62197
G1 X165.15 Y134.73 E47.63194
G1 X164.95 Y134.53 E47.64606
G1 X164.95 Y134.33 E47.65603
G1 X164.75 Y134.13 E47.67015
G1 X164.75 Y133.93 E47.68012
G1 X164.55 Y133.73 E47.69423
G1 X164.55 Y133.53 E47.70421
G1 X164.35 Y133.33 E47.71832
G1 X164.35 Y133.13 E47.72830
G1 X164.15 Y132.93 E47.74241
G1 X164.15 Y132.73 E47.75239
G1 X163.95 Y132.53 E47.76650
G1 X163.95 Y132.33 E47.77648
G1 X163.55 Y131.93 E47.80470
G1 X163.55 Y131.73 E47.81468
G1 X163.35 Y131.53 E47.82879
G1 X163.35 Y131.33 E47.83877
G1 X163.15 Y131.13 E47.85288
G1 X163.15 Y130.93 E47.86286
G1 X162.75 Y130.53 E47.89108
G1 X162.75 Y130.33 E47.90106
G1 X162.55 Y130.13 E47.91517
G1 X162.55 Y129.93 E47.92515
G1 X162.15 Y129.53 E47.95337
G1 X162.15 Y129.33 E47.96335
G1 X161.35 Y128.53 E48.01979
G1 X161.35 Y128.33 E48.02977
G1 X160.55 Y127.53 E48.08621
G1 X160.55 Y127.33 E48.09624
G1 X159.82 Y126.60 E48.14803
G1 X159.41 Y126.40 E48.17041
G1 X159.02 Y126.00 E48.19856
G1 X158.62 Y125.80 E48.22094
G1 X158.22 Y125.40 E48.24909
G1 X157.81 Y125.20 E48.27147
G1 X157.62 Y125.00 E48.28544
G1 X155.79 Y124.08 E48.38740
G1 X154.28 Y123.58 E48.46665
G1 X153.65 Y123.50 E48.49868
G1 X152.91 Y123.51 E48.53535
G1 X151.75 Y123.65 E48.59392
G1 X150.78 Y123.76 E48.64221
G1 X150.13 Y123.98 E48.67667
G1 X149.33 Y124.18 E48.71775
G1 X148.73 Y124.38 E48.74916
G1 X148.51 Y124.43 E48.76036
G1 X147.38 Y125.00 E48.82339
G1 X146.99 Y125.40 E48.85154
G1 X146.58 Y125.60 E48.87392
G1 X146.19 Y126.00 E48.90207
G1 X145.78 Y126.20 E48.92445
G1 X145.38 Y126.60 E48.95260
G1 X144.99 Y126.80 E48.97487
G1 X144.25 Y127.53 E49.02680
G1 X144.25 Y127.73 E49.03678
G1 X143.45 Y128.53 E49.09322
G1 X143.45 Y128.73 E49.10320
G1 X142.45 Y129.73 E49.17376
G1 X142.45 Y129.93 E49.18373
G1 X142.25 Y130.13 E49.19784
G1 X142.25 Y130.33 E49.20782
G1 X142.05 Y130.53 E49.22193
G1 X142.05 Y130.73 E49.23191
G1 X141.65 Y131.13 E49.26013
G1 X141.65 Y131.33 E49.27011
G1 X141.45 Y131.53 E49.28422
G1 X141.45 Y131.73 E49.29420
G1 X141.25 Y131.93 E49.30831
G1 X141.25 Y132.13 E49.31829
G1 X140.85 Y132.53 E49.34651
G1 X140.85 Y132.73 E49.35649
G1 X140.65 Y132.93 E49.37060
G1 X140.65 Y133.13 E49.38058
G1 X140.25 Y133.53 E49.40880
G1 X140.25 Y133.93 E49.42876
G1 X140.05 Y134.13 E49.44287
G1 X140.05 Y134.33 E49.45285
G1 X139.85 Y134.53 E49.46696
G1 X139.85 Y134.73 E49.47694
G1 X139.65 Y134.93 E49.49105
G1 X139.65 Y135.33 E49.51100
G1 X139.45 Y135.53 E49.52511
G1 X139.45 Y135.73 E49.53509
G1 X139.25 Y135.93 E49.54920
G1 X139.25 Y136.13 E49.55918
G1 X139.05 Y136.33 E49.57329
G1 X139.05 Y136.73 E49.59325
G1 X138.85 Y136.93 E49.60736
G1 X138.85 Y137.13 E49.61734
G1 X138.65 Y137.33 E49.63145
G1 X138.65 Y137.53 E49.64143
G1 X138.45 Y137.73 E49.65554
G1 X138.45 Y138.13 E49.67549
G1 X138.25 Y138.33 E49.68961
G1 X138.25 Y138.73 E49.70956
G1 X138.05 Y138.93 E49.72367
G1 X138.05 Y139.33 E49.74363
G1 X137.85 Y139.53 E49.75774
G1 X137.85 Y139.73 E49.76772
G1 X137.65 Y139.93 E49.78183
G1 X137.65 Y140.33 E49.80178
G1 X137.45 Y140.53 E49.81590
G1 X137.45 Y140.93 E49.83585
G1 X137.25 Y141.13 E49.84996
G1 X137.25 Y141.53 E49.86992
G1 X137.05 Y141.73 E49.88403
G1 X137.05 Y141.93 E49.89401
G1 X136.85 Y142.13 E49.90812
G1 X136.85 Y142.93 E49.94803
G1 X136.65 Y143.13 E49.96214
G1 X136.65 Y143.93 E50.00205
G1 X136.45 Y144.13 E50.01617
G1 X136.45 Y144.93 E50.05608
G1 X136.25 Y145.13 E50.07019
G1 X136.25 Y145.93 E50.11010
G1 X136.05 Y146.13 E50.12421
G1 X136.05 Y146.73 E50.15415
G1 X135.85 Y146.93 E50.16826
G1 X135.85 Y148.53 E50.24808
G1 X135.65 Y148.73 E50.26219
G1 X135.65 Y150.13 E50.33204
G0 F12000 X135.25 Y149.97
G1 F2700 X135.05 Y150.17 E50.34615
G1 X135.05 Y151.57 E50.41600
G1 X134.85 Y151.77 E50.43011
G1 X134.85 Y154.86 E50.58427
G1 X135.05 Y155.06 E50.59838
G1 X135.05 Y156.46 E50.66823
G1 X135.25 Y156.66 E50.68234
G1 X135.25 Y158.06 E50.75218
G1 X135.45 Y158.26 E50.76629
G1 X135.45 Y159.66 E50.83614
G1 X135.65 Y159.86 E50.85025
G1 X135.65 Y160.46 E50.88019
G1 X135.85 Y160.66 E50.89430
G1 X135.85 Y161.46 E50.93421
G1 X136.05 Y161.66 E50.94832
G1 X136.05 Y162.46 E50.98823
G1 X136.25 Y162.66 E51.00234
G1 X136.25 Y163.46 E51.04226
G1 X136.45 Y163.66 E51.05637
G1 X136.45 Y164.46 E51.09628
G1 X136.65 Y164.66 E51.11039
G1 X136.65 Y164.86 E51.12037
G1 X136.85 Y165.06 E51.13448
G1 X136.85 Y165.46 E51.15443
G1 X137.05 Y165.66 E51.16855
G1 X137.05 Y166.06 E51.18850
G1 X137.25 Y166.26 E51.20261
G1 X137.25 Y166.66 E51.22257
G1 X137.45 Y166.86 E51.23668
G1 X137.45 Y167.26 E51.25664
G1 X137.65 Y167.46 E51.27075
G1 X137.65 Y167.66 E51.28073
G1 X137.85 Y167.86 E51.29484
G1 X137.85 Y168.26 E51.31479
G1 X138.05 Y168.46 E51.32890
G1 X138.05 Y168.86 E51.34886
G1 X138.25 Y169.06 E51.36297
G1 X138.25 Y169.26 E51.37295
G1 X138.45 Y169.46 E51.38706
G1 X138.45 Y169.66 E51.39704
G1 X138.65 Y169.86 E51.41115
G1 X138.65 Y170.26 E51.43111
G1 X138.85 Y170.46 E51.44522
G1 X138.85 Y170.66 E51.45519
G1 X139.05 Y170.86 E51.46931
G1 X139.05 Y171.06 E51.47928
G1 X139.25 Y171.26 E51.49339
G1 X139.25 Y171.66 E51.51335
G1 X139.45 Y171.86 E51.52746
G1 X139.45 Y172.06 E51.53744
G1 X139.65 Y172.26 E51.55155
G1 X139.65 Y172.46 E51.56153
G1 X139.85 Y172.66 E51.57564
G1 X139.85 Y173.06 E51.59560
G1 X140.25 Y173.46 E51.62382
G1 X140.25 Y173.66 E51.63380
G1 X140.45 Y173.86 E51.64791
G1 X140.45 Y174.06 E51.65789
G1 X140.85 Y174.46 E51.68611
G1 X140.85 Y174.66 E51.69609
G1 X141.05 Y174.86 E51.71020
G1 X141.05 Y175.06 E51.72017
G1 X141.25 Y175.26 E51.73429
G1 X141.25 Y175.46 E51.74426
G1 X141.65 Y175.86 E51.77249
G1 X141.65 Y176.06 E51.78246
G1 X141.85 Y176.26 E51.79658
G1 X141.85 Y176.46 E51.80655
G1 X142.05 Y176.66 E51.82066
G1 X142.05 Y176.86 E51.83064
G1 X143.05 Y177.86 E51.90120
G1 X143.05 Y178.06 E51.91118
G1 X143.85 Y178.86 E51.96762
G1 X143.85 Y179.06 E51.97760
G1 X144.75 Y179.96 E52.04096
G1 X145.15 Y180.16 E52.06327
G1 X145.55 Y180.56 E52.09153
G1 X145.95 Y180.75 E52.11379
G1 X146.35 Y181.16 E52.14205
G1 X146.75 Y181.35 E52.16432
G1 X147.15 Y181.75 E52.19254
G1 X148.38 Y182.37 E52.26108
G1 X148.62 Y182.43 E52.27358
G1 X149.21 Y182.63 E52.30483
G1 X150.01 Y182.83 E52.34601
G1 X150.75 Y183.07 E52.38466
G1 X151.63 Y183.18 E52.42876
G1 X153.09 Y183.39 E52.50274
G1 X154.37 Y183.23 E52.56670
G1 X154.38 Y183.23 E52.56747
G1 X155.94 Y182.71 E52.64940
G1 X157.85 Y181.75 E52.75605
G1 X158.05 Y181.56 E52.77016
G1 X158.45 Y181.35 E52.79243
G1 X158.85 Y180.96 E52.82069
G1 X159.25 Y180.75 E52.84295
G1 X159.65 Y180.35 E52.87121
G1 X160.05 Y180.16 E52.89341
G1 X160.95 Y179.26 E52.95691
G1 X160.95 Y179.06 E52.96684
G1 X161.75 Y178.26 E53.02328
G1 X161.75 Y178.06 E53.03326
G1 X162.55 Y177.26 E53.08971
G1 X162.55 Y177.06 E53.09968
G1 X162.95 Y176.66 E53.12791
G1 X162.95 Y176.46 E53.13788
G1 X163.15 Y176.26 E53.15199
G1 X163.15 Y176.06 E53.16197
G1 X163.55 Y175.66 E53.19019
G1 X163.55 Y175.46 E53.20017
G1 X163.75 Y175.26 E53.21428
G1 X163.75 Y175.06 E53.22426
G1 X163.95 Y174.86 E53.23837
G1 X163.95 Y174.66 E53.24835
G1 X164.35 Y174.26 E53.27657
G1 X164.35 Y174.06 E53.28655
G1 X164.55 Y173.86 E53.30066
G1 X164.55 Y173.66 E53.31064
G1 X164.75 Y173.46 E53.32475
G1 X164.75 Y173.26 E53.33473
G1 X164.95 Y173.06 E53.34884
G1 X164.95 Y172.86 E53.35882
G1 X165.15 Y172.66 E53.37293
G1 X165.15 Y172.46 E53.38291
G1 X165.35 Y172.26 E53.39702
G1 X165.35 Y172.06 E53.40700
G1 X165.55 Y171.86 E53.42111
G1 X165.55 Y171.66 E53.43109
G1 X165.75 Y171.46 E53.44520
G1 X165.75 Y171.26 E53.45518
G1 X165.95 Y171.06 E53.46929
G1 X165.95 Y170.86 E53.47926
G1 X166.15 Y170.66 E53.49338
G1 X166.15 Y170.46 E53.50335
G1 X166.35 Y170.26 E53.51746
G1 X166.35 Y170.06 E53.52744
G1 X166.55 Y169.86 E53.54155
G1 X166.55 Y169.66 E53.55153
G1 X166.75 Y169.46 E53.56564
G1 X166.75 Y169.06 E53.58560
G1 X166.95 Y168.86 E53.59971
G1 X166.95 Y168.26 E53.62964
G1 X167.15 Y168.06 E53.64376
G1 X167.15 Y167.46 E53.67369
G1 X167.35 Y167.26 E53.68780
G1 X167.35 Y167.06 E53.69778
G1 X167.55 Y166.86 E53.71189
G1 X167.55 Y166.46 E53.73185
G1 X167.75 Y166.26 E53.74596
G1 X167.75 Y165.86 E53.76591
G1 X167.95 Y165.66 E53.78002
G1 X167.95 Y165.26 E53.79998
G1 X168.15 Y165.06 E53.81409
G1 X168.15 Y164.66 E53.83405
G1 X168.35 Y164.46 E53.84816
G1 X168.35 Y163.86 E53.87809
G1 X168.55 Y163.66 E53.89220
G1 X168.55 Y163.06 E53.92214
G1 X168.75 Y162.86 E53.93625
G1 X168.75 Y162.26 E53.96618
G1 X168.95 Y162.06 E53.98029
G1 X168.95 Y161.46 E54.01023
G1 X169.15 Y161.26 E54.02434
G1 X169.15 Y160.66 E54.05427
G1 X169.35 Y160.46 E54.06838
G1 X169.35 Y159.86 E54.09832
G1 X169.55 Y159.66 E54.11243
G1 X169.55 Y158.26 E54.18228
G1 X169.75 Y158.06 E54.19639
G1 X169.75 Y156.66 E54.26623
G1 X169.95 Y156.46 E54.28034
G1 X169.95 Y155.06 E54.35019
G1 X170.15 Y154.86 E54.36430
G1 X170.15 Y151.77 E54.51846
G1 X169.95 Y151.57 E54.53257
G1 X169.95 Y149.97 E54.61240
G1 X169.75 Y149.77 E54.62651
G1 X169.75 Y148.37 E54.69635
G1 X169.55 Y148.17 E54.71047
G1 X169.55 Y146.77 E54.78031
G1 X169.35 Y146.57 E54.79442
G1 X169.35 Y145.97 E54.82436
G1 X169.15 Y145.77 E54.83847
G1 X169.15 Y145.17 E54.86840
G1 X168.95 Y144.97 E54.88251
G1 X168.95 Y144.37 E54.91245
G1 X168.75 Y144.17 E54.92656
G1 X168.75 Y143.57 E54.95649
G1 X168.55 Y143.37 E54.97060
G1 X168.55 Y142.77 E55.00054
G1 X168.35 Y142.57 E55.01465
G1 X168.35 Y141.97 E55.04458
G1 X168.15 Y141.77 E55.05869
G1 X168.15 Y141.17 E55.08863
G1 X167.95 Y140.97 E55.10274
G1 X167.95 Y140.57 E55.12270
G1 X167.75 Y140.37 E55.13681
G1 X167.75 Y139.97 E55.15676
G1 X167.55 Y139.77 E55.17087
G1 X167.55 Y139.37 E55.19083
G1 X167.35 Y139.17 E55.20494
G1 X167.35 Y138.77 E55.22490
G1 X167.15 Y138.57 E55.23901
G1 X167.15 Y138.17 E55.25896
G1 X166.95 Y137.97 E55.27308
G1 X166.95 Y137.57 E55.29303
G1 X166.75 Y137.37 E55.30714
G1 X166.75 Y136.97 E55.32710
G1 X166.55 Y136.77 E55.34121
G1 X166.55 Y136.57 E55.35119
G1 X166.35 Y136.37 E55.36530
G1 X166.35 Y136.17 E55.37528
G1 X166.15 Y135.97 E55.38939
G1 X166.15 Y135.77 E55.39937
G1 X165.95 Y135.57 E55.41348
G1 X165.95 Y135.37 E55.42346
G1 X165.75 Y135.17 E55.43757
G1 X165.75 Y134.97 E55.44754
G1 X165.55 Y134.77 E55.46166
G1 X165.55 Y134.57 E55.47163
G1 X165.35 Y134.37 E55.48574
G1 X165.35 Y134.17 E55.49572
G1 X165.15 Y133.97 E55.50983
G1 X165.15 Y133.77 E55.51981
G1 X164.95 Y133.57 E55.53392
G1 X164.95 Y133.37 E55.54390
G1 X164.75 Y133.17 E55.55801
G1 X164.75 Y132.97 E55.56799
G1 X164.55 Y132.77 E55.58210
G1 X164.55 Y132.57 E55.59208
G1 X164.35 Y132.37 E55.60619
G1 X164.35 Y132.17 E55.61617
G1 X163.95 Y131.77 E55.64439
G1 X163.95 Y131.57 E55.65437
G1 X163.75 Y131.37 E55.66848
G1 X163.75 Y131.17 E55.67846
G1 X163.55 Y130.97 E55.69257
G1 X163.55 Y130.77 E55.70255
G1 X163.15 Y130.37 E55.73077
G1 X163.15 Y130.17 E55.74075
G1 X162.95 Y129.97 E55.75486
G1 X162.95 Y129.77 E55.76484
G1 X162.55 Y129.37 E55.79306
G1 X162.55 Y129.17 E55.80304
G1 X161.75 Y128.37 E55.85948
G1 X161.75 Y128.17 E55.86946
G1 X160.95 Y127.37 E55.92590
G1 X160.95 Y127.17 E55.93583
G1 X160.05 Y126.27 E55.99933
G1 X159.65 Y126.07 E56.02153
G1 X159.25 Y125.67 E56.04979
G1 X158.85 Y125.47 E56.07206
G1 X158.45 Y125.07 E56.10031
G1 X158.05 Y124.87 E56.12258
G1 X157.85 Y124.67 E56.13669
G1 X155.94 Y123.71 E56.24334
G1 X154.38 Y123.19 E56.32527
G1 X154.37 Y123.19 E56.32599
G1 X153.67 Y123.10 E56.36109
G1 X152.88 Y123.11 E56.40045
G1 X151.70 Y123.26 E56.45993
G1 X150.70 Y123.37 E56.51018
G1 X150.02 Y123.59 E56.54599
G1 X149.22 Y123.80 E56.58708
G1 X148.62 Y123.99 E56.61848
G1 X148.38 Y124.06 E56.63098
G1 X147.15 Y124.67 E56.69952
G1 X146.75 Y125.07 E56.72774
G1 X146.35 Y125.27 E56.75001
G1 X145.95 Y125.67 E56.77827
G1 X145.55 Y125.87 E56.80053
G1 X145.15 Y126.27 E56.82879
G1 X144.75 Y126.47 E56.85110
G1 X143.85 Y127.37 E56.91446
G1 X143.85 Y127.57 E56.92444
G1 X143.05 Y128.37 E56.98088
G1 X143.05 Y128.57 E56.99086
G1 X142.05 Y129.57 E57.06142
G1 X142.05 Y129.77 E57.07139
G1 X141.85 Y129.97 E57.08551
G1 X141.85 Y130.17 E57.09548
G1 X141.65 Y130.37 E57.10959
G1 X141.65 Y130.57 E57.11957
G1 X141.25 Y130.97 E57.14779
G1 X141.25 Y131.17 E57.15777
G1 X141.05 Y131.37 E57.17188
G1 X141.05 Y131.57 E57.18186
G1 X140.85 Y131.77 E57.19597
G1 X140.85 Y131.97 E57.20595
G1 X140.45 Y132.37 E57.23417
G1 X140.45 Y132.57 E57.24415
G1 X140.25 Y132.77 E57.25826
G1 X140.25 Y132.97 E57.26824
G1 X139.85 Y133.37 E57.29646
G1 X139.85 Y133.77 E57.31642
G1 X139.65 Y133.97 E57.33053
G1 X139.65 Y134.17 E57.34051
G1 X139.45 Y134.37 E57.35462
G1 X139.45 Y134.57 E57.36460
G1 X139.25 Y134.77 E57.37871
G1 X139.25 Y135.17 E57.39866
G1 X139.05 Y135.37 E57.41278
G1 X139.05 Y135.57 E57.42275
G1 X138.85 Y135.77 E57.43686
G1 X138.85 Y135.97 E57.44684
G1 X138.65 Y136.17 E57.46095
G1 X138.65 Y136.57 E57.48091
G1 X138.45 Y136.77 E57.49502
G1 X138.45 Y136.97 E57.50500
G1 X138.25 Y137.17 E57.51911
G1 X138.25 Y137.37 E57.52909
G1 X138.05 Y137.57 E57.54320
G1 X138.05 Y137.97 E57.56315
G1 X137.85 Y138.17 E57.57727
G1 X137.85 Y138.57 E57.59722
G1 X137.65 Y138.77 E57.61133
G1 X137.65 Y139.17 E57.63129
G1 X137.45 Y139.37 E57.64540
G1 X137.45 Y139.57 E57.65538
G1 X137.25 Y139.77 E57.66949
G1 X137.25 Y140.17 E57.68945
G1 X137.05 Y140.37 E57.70356
G1 X137.05 Y140.77 E57.72351
G1 X136.85 Y140.97 E57.73762
G1 X136.85 Y141.37 E57.75758
G1 X136.65 Y141.57 E57.77169
G1 X136.65 Y141.77 E57.78167
G1 X136.45 Y141.97 E57.79578
G1 X136.45 Y142.77 E57.83569
G1 X136.25 Y142.97 E57.84980
G1 X136.25 Y143.77 E57.88972
G1 X136.05 Y143.97 E57.90383
G1 X136.05 Y144.77 E57.94374
G1 X135.85 Y144.97 E57.95785
G1 X135.85 Y145.77 E57.99776
G1 X135.65 Y145.97 E58.01187
G1 X135.65 Y146.57 E58.04181
G1 X135.45 Y146.77 E58.05592
G1 X135.45 Y148.37 E58.13574
G1 X135.25 Y148.57 E58.14985
G1 X135.25 Y149.97 E58.21970
G0 F12000 X134.85 Y149.80
G1 F2700 X134.65 Y150.00 E58.23381
G1 X134.65 Y151.40 E58.30366
G1 X134.45 Y151.60 E58.31777
G1 X134.45 Y155.02 E58.48849
G1 X134.65 Y155.22 E58.50260
G1 X134.65 Y156.62 E58.57245
G1 X134.85 Y156.82 E58.58656
G1 X134.85 Y158.22 E58.65641
G1 X135.05 Y158.42 E58.67052
G1 X135.05 Y159.82 E58.74036
G1 X135.25 Y160.02 E58.75448
G1 X135.25 Y160.62 E58.78441
G1 X135.45 Y160.82 E58.79852
G1 X135.45 Y161.62 E58.83843
G1 X135.65 Y161.82 E58.85254
G1 X135.65 Y162.62 E58.89246
G1 X135.85 Y162.82 E58.90657
G1 X135.85 Y163.62 E58.94648
G1 X136.05 Y163.82 E58.96059
G1 X136.05 Y164.62 E59.00050
G1 X136.25 Y164.82 E59.01461
G1 X136.25 Y165.02 E59.02459
G1 X136.45 Y165.22 E59.03870
G1 X136.45 Y165.62 E59.05866
G1 X136.65 Y165.82 E59.07277
G1 X136.65 Y166.22 E59.09273
G1 X136.85 Y166.42 E59.10684
G1 X136.85 Y166.82 E59.12679
G1 X137.05 Y167.02 E59.14090
G1 X137.05 Y167.42 E59.16086
G1 X137.25 Y167.62 E59.17497
G1 X137.25 Y167.82 E59.18495
G1 X137.45 Y168.02 E59.19906
G1 X137.45 Y168.42 E59.21902
G1 X137.65 Y168.62 E59.23313
G1 X137.65 Y169.02 E59.25308
G1 X137.85 Y169.22 E59.26720
G1 X137.85 Y169.42 E59.27717
G1 X138.05 Y169.62 E59.29128
G1 X138.05 Y169.82 E59.30126
G1 X138.25 Y170.02 E59.31537
G1 X138.25 Y170.42 E59.33533
G1 X138.45 Y170.62 E59.34944
G1 X138.45 Y170.82 E59.35942
G1 X138.65 Y171.02 E59.37353
G1 X138.65 Y171.22 E59.38351
G1 X138.85 Y171.42 E59.39762
G1 X138.85 Y171.82 E59.41757
G1 X139.05 Y172.02 E59.43169
G1 X139.05 Y172.22 E59.44166
G1 X139.25 Y172.42 E59.45577
G1 X139.25 Y172.62 E59.46575
G1 X139.45 Y172.82 E59.47986
G1 X139.45 Y173.22 E59.49982
G1 X139.85 Y173.62 E59.52804
G1 X139.85 Y173.82 E59.53802
G1 X140.05 Y174.02 E59.55213
G1 X140.05 Y174.22 E59.56211
G1 X140.45 Y174.62 E59.59033
G1 X140.45 Y174.82 E59.60031
G1 X140.65 Y175.02 E59.61442
G1 X140.65 Y175.22 E59.62440
G1 X140.85 Y175.42 E59.63851
G1 X140.85 Y175.62 E59.64849
G1 X141.25 Y176.02 E59.67671
G1 X141.25 Y176.22 E59.68669
G1 X141.45 Y176.42 E59.70080
G1 X141.45 Y176.62 E59.71078
G1 X141.65 Y176.82 E59.72489
G1 X141.65 Y177.02 E59.73487
G1 X142.65 Y178.02 E59.80542
G1 X142.65 Y178.22 E59.81540
G1 X143.45 Y179.02 E59.87184
G1 X143.45 Y179.22 E59.88182
G1 X144.25 Y180.02 E59.93827
G1 X144.25 Y180.05 E59.93976
G1 X144.31 Y180.08 E59.94322
G1 X144.51 Y180.28 E59.95733
G1 X144.91 Y180.48 E59.97964
G1 X145.31 Y180.88 E60.00787
G1 X145.71 Y181.08 E60.03018
G1 X146.11 Y181.48 E60.05840
G1 X146.51 Y181.68 E60.08071
G1 X146.91 Y182.09 E60.10900
G1 X148.24 Y182.75 E60.18279
G1 X148.51 Y182.81 E60.19678
G1 X149.11 Y183.01 E60.22833
G1 X149.90 Y183.21 E60.26922
G1 X150.66 Y183.47 E60.30897
G1 X151.57 Y183.58 E60.35498
G1 X153.09 Y183.80 E60.43139
G1 X154.44 Y183.63 E60.49921
G1 X154.49 Y183.62 E60.50168
G1 X156.10 Y183.08 E60.58645
G1 X158.09 Y182.09 E60.69734
G1 X158.29 Y181.88 E60.71152
G1 X158.69 Y181.68 E60.73383
G1 X159.09 Y181.28 E60.76205
G1 X159.49 Y181.08 E60.78437
G1 X159.89 Y180.68 E60.81259
G1 X160.29 Y180.48 E60.83490
G1 X161.35 Y179.42 E60.90983
G1 X161.35 Y179.22 E60.91976
G1 X162.15 Y178.42 E60.97620
G1 X162.15 Y178.22 E60.98618
G1 X162.95 Y177.42 E61.04262
G1 X162.95 Y177.22 E61.05260
G1 X163.35 Y176.82 E61.08083
G1 X163.35 Y176.62 E61.09080
G1 X163.55 Y176.42 E61.10491
G1 X163.55 Y176.22 E61.11489
G1 X163.95 Y175.82 E61.14311
G1 X163.95 Y175.62 E61.15309
G1 X164.15 Y175.42 E61.16720
G1 X164.15 Y175.22 E61.17718
G1 X164.35 Y175.02 E61.19129
G1 X164.35 Y174.82 E61.20127
G1 X164.75 Y174.42 E61.22949
G1 X164.75 Y174.22 E61.23947
G1 X164.95 Y174.02 E61.25358
G1 X164.95 Y173.82 E61.26356
G1 X165.15 Y173.62 E61.27767
G1 X165.15 Y173.42 E61.28765
G1 X165.35 Y173.22 E61.30176
G1 X165.35 Y173.02 E61.31174
G1 X165.55 Y172.82 E61.32585
G1 X165.55 Y172.62 E61.33583
G1 X165.75 Y172.42 E61.34994
G1 X165.75 Y172.22 E61.35992
G1 X165.95 Y172.02 E61.37403
G1 X165.95 Y171.82 E61.38401
G1 X166.15 Y171.62 E61.39812
G1 X166.15 Y171.42 E61.40809
G1 X166.35 Y171.22 E61.42221
G1 X166.35 Y171.02 E61.43218
G1 X166.55 Y170.82 E61.44629
G1 X166.55 Y170.62 E61.45627
G1 X166.75 Y170.42 E61.47038
G1 X166.75 Y170.22 E61.48036
G1 X166.95 Y170.02 E61.49447
G1 X166.95 Y169.82 E61.50445
G1 X167.15 Y169.62 E61.51856
G1 X167.15 Y169.22 E61.53852
G1 X167.35 Y169.02 E61.55263
G1 X167.35 Y168.42 E61.58256
G1 X167.55 Y168.22 E61.59667
G1 X167.55 Y167.62 E61.62661
G1 X167.75 Y167.42 E61.64072
G1 X167.75 Y167.22 E61.65070
G1 X167.95 Y167.02 E61.66481
G1 X167.95 Y166.62 E61.68477
G1 X168.15 Y166.42 E61.69888
G1 X168.15 Y166.02 E61.71883
G1 X168.35 Y165.82 E61.73294
G1 X168.35 Y165.42 E61.75290
G1 X168.55 Y165.22 E61.76701
G1 X168.55 Y164.82 E61.78697
G1 X168.75 Y164.62 E61.80108
G1 X168.75 Y164.02 E61.83101
G1 X168.95 Y163.82 E61.84512
G1 X168.95 Y163.22 E61.87506
G1 X169.15 Y163.02 E61.88917
G1 X169.15 Y162.42 E61.91910
G1 X169.35 Y162.22 E61.93321
G1 X169.35 Y161.62 E61.96315
G1 X169.55 Y161.42 E61.97726
G1 X169.55 Y160.82 E62.00719
G1 X169.75 Y160.62 E62.02130
G1 X169.75 Y160.02 E62.05124
G1 X169.95 Y159.82 E62.06535
G1 X169.95 Y158.42 E62.13520
G1 X170.15 Y158.22 E62.14931
G1 X170.15 Y156.82 E62.21915
G1 X170.35 Y156.62 E62.23326
G1 X170.35 Y155.22 E62.30311
G1 X170.55 Y155.02 E62.31722
G1 X170.55 Y151.60 E62.48795
G1 X170.35 Y151.40 E62.50206
G1 X170.35 Y149.80 E62.58188
G1 X170.15 Y149.60 E62.59599
G1 X170.15 Y148.20 E62.66584
G1 X169.95 Y148.00 E62.67995
G1 X169.95 Y146.60 E62.74980
G1 X169.75 Y146.40 E62.76391
G1 X169.75 Y145.80 E62.79384
G1 X169.55 Y145.60 E62.80795
G1 X169.55 Y145.00 E62.83789
G1 X169.35 Y144.80 E62.85200
G1 X169.35 Y144.20 E62.88193
G1 X169.15 Y144.00 E62.89604
G1 X169.15 Y143.40 E62.92598
G1 X168.95 Y143.20 E62.94009
G1 X168.95 Y142.60 E62.97002
G1 X168.75 Y142.40 E62.98413
G1 X168.75 Y141.80 E63.01407
G1 X168.55 Y141.60 E63.02818
G1 X168.55 Y141.00 E63.05811
G1 X168.35 Y140.80 E63.07222
G1 X168.35 Y140.40 E63.09218
G1 X168.15 Y140.20 E63.10629
G1 X168.15 Y139.80 E63.12625
G1 X167.95 Y139.60 E63.14036
G1 X167.95 Y139.20 E63.16031
G1 X167.75 Y139.00 E63.17442
G1 X167.75 Y138.60 E63.19438
G1 X167.55 Y138.40 E63.20849
G1 X167.55 Y138.00 E63.22845
G1 X167.35 Y137.80 E63.24256
G1 X167.35 Y137.40 E63.26251
G1 X167.15 Y137.20 E63.27663
G1 X167.15 Y136.80 E63.29658
G1 X166.95 Y136.60 E63.31069
G1 X166.95 Y136.40 E63.32067
G1 X166.75 Y136.20 E63.33478
G1 X166.75 Y136.00 E63.34476
G1 X166.55 Y135.80 E63.35887
G1 X166.55 Y135.60 E63.36885
G1 X166.35 Y135.40 E63.38296
G1 X166.35 Y135.20 E63.39294
G1 X166.15 Y135.00 E63.40705
G1 X166.15 Y134.80 E63.41703
G1 X165.95 Y134.60 E63.43114
G1 X165.95 Y134.40 E63.44112
G1 X165.75 Y134.20 E63.45523
G1 X165.75 Y134.00 E63.46521
G1 X165.55 Y133.80 E63.47932
G1 X165.55 Y133.60 E63.48929
G1 X165.35 Y133.40 E63.50341
G1 X165.35 Y133.20 E63.51338
G1 X165.15 Y133.00 E63.52750
G1 X165.15 Y132.80 E63.53747
G1 X164.95 Y132.60 E63.55158
G1 X164.95 Y132.40 E63.56156
G1 X164.75 Y132.20 E63.57567
G1 X164.75 Y132.00 E63.58565
G1 X164.35 Y131.60 E63.61387
G1 X164.35 Y131.40 E63.62385
G1 X164.15 Y131.20 E63.63796
G1 X164.15 Y131.00 E63.64794
G1 X163.95 Y130.80 E63.66205
G1 X163.95 Y130.60 E63.67203
G1 X163.55 Y130.20 E63.70025
G1 X163.55 Y130.00 E63.71023
G1 X163.35 Y129.80 E63.72434
G1 X163.35 Y129.60 E63.73432
G1 X162.95 Y129.20 E63.76254
G1 X162.95 Y129.00 E63.77252
G1 X162.15 Y128.20 E63.82896
G1 X162.15 Y128.00 E63.83894
G1 X161.35 Y127.20 E63.89539
G1 X161.35 Y127.00 E63.90531
G1 X160.29 Y125.94 E63.98024
G1 X159.89 Y125.74 E64.00256
G1 X159.49 Y125.34 E64.03078
G1 X159.09 Y125.14 E64.05309
G1 X158.69 Y124.74 E64.08131
G1 X158.29 Y124.54 E64.10362
G1 X158.09 Y124.34 E64.11780
G1 X156.10 Y123.34 E64.22869
G1 X154.49 Y122.81 E64.31346
G1 X154.44 Y122.80 E64.31583
G1 X153.69 Y122.70 E64.35344
G1 X152.85 Y122.71 E64.39525
G1 X151.65 Y122.86 E64.45578
G1 X150.61 Y122.97 E64.50794
G1 X149.90 Y123.21 E64.54517
G1 X149.11 Y123.41 E64.58615
G1 X148.51 Y123.61 E64.61766
G1 X148.24 Y123.68 E64.63165
G1 X146.91 Y124.34 E64.70543
G1 X146.51 Y124.74 E64.73372
G1 X146.11 Y124.94 E64.75604
G1 X145.71 Y125.34 E64.78426
G1 X145.31 Y125.54 E64.80657
G1 X144.91 Y125.94 E64.83479
G1 X144.51 Y126.14 E64.85710
G1 X144.31 Y126.34 E64.87121
G1 X144.25 Y126.37 E64.87467
G1 X144.25 Y126.40 E64.87617
G1 X143.45 Y127.20 E64.93261
G1 X143.45 Y127.40 E64.94259
G1 X142.65 Y128.20 E64.99904
G1 X142.65 Y128.40 E65.00901
G1 X141.65 Y129.40 E65.07957
G1 X141.65 Y129.60 E65.08955
G1 X141.45 Y129.80 E65.10366
G1 X141.45 Y130.00 E65.11364
G1 X141.25 Y130.20 E65.12775
G1 X141.25 Y130.40 E65.13773
G1 X140.85 Y130.80 E65.16595
G1 X140.85 Y131.00 E65.17593
G1 X140.65 Y131.20 E65.19004
G1 X140.65 Y131.40 E65.20002
G1 X140.45 Y131.60 E65.21413
G1 X140.45 Y131.80 E65.22410
G1 X140.05 Y132.20 E65.25233
G1 X140.05 Y132.40 E65.26230
G1 X139.85 Y132.60 E65.27642
G1 X139.85 Y132.80 E65.28639
G1 X139.45 Y133.20 E65.31462
G1 X139.45 Y133.60 E65.33457
G1 X139.25 Y133.80 E65.34868
G1 X139.25 Y134.00 E65.35866
G1 X139.05 Y134.20 E65.37277
G1 X139.05 Y134.40 E65.38275
G1 X138.85 Y134.60 E65.39686
G1 X138.85 Y135.00 E65.41682
G1 X138.65 Y135.20 E65.43093
G1 X138.65 Y135.40 E65.44091
G1 X138.45 Y135.60 E65.45502
G1 X138.45 Y135.80 E65.46500
G1 X138.25 Y136.00 E65.47911
G1 X138.25 Y136.40 E65.49906
G1 X138.05 Y136.60 E65.51317
G1 X138.05 Y136.80 E65.52315
G1 X137.85 Y137.00 E65.53726
G1 X137.85 Y137.20 E65.54724
G1 X137.65 Y137.40 E65.56135
G1 X137.65 Y137.80 E65.58131
G1 X137.45 Y138.00 E65.59542
G1 X137.45 Y138.40 E65.61538
G1 X137.25 Y138.60 E65.62949
G1 X137.25 Y139.00 E65.64944
G1 X137.05 Y139.20 E65.66355
G1 X137.05 Y139.40 E65.67353
G1 X136.85 Y139.60 E65.68764
G1 X136.85 Y140.00 E65.70760
G1 X136.65 Y140.20 E65.72171
G1 X136.65 Y140.60 E65.74167
G1 X136.45 Y140.80 E65.75578
G1 X136.45 Y141.20 E65.77573
G1 X136.25 Y141.40 E65.78984
G1 X136.25 Y141.60 E65.79982
G1 X136.05 Y141.80 E65.81393
G1 X136.05 Y142.60 E65.85385
G1 X135.85 Y142.80 E65.86796
G1 X135.85 Y143.60 E65.90787
G1 X135.65 Y143.80 E65.92198
G1 X135.65 Y144.60 E65.96189
G1 X135.45 Y144.80 E65.97600
G1 X135.45 Y145.60 E66.01592
G1 X135.25 Y145.80 E66.03003
G1 X135.25 Y146.40 E66.05996
G1 X135.05 Y146.60 E66.07407
G1 X135.05 Y148.20 E66.15390
G1 X134.85 Y148.40 E66.16801
G1 X134.85 Y149.80 E66.23785
G0 F12000 X134.45 Y149.64
G1 F2700 X134.25 Y149.84 E66.25196
G1 X134.25 Y151.24 E66.32181
G1 X134.05 Y151.44 E66.33592
G1 X134.05 Y155.19 E66.52311
G1 X134.25 Y155.39 E66.53722
G1 X134.25 Y156.79 E66.60707
G1 X134.45 Y156.99 E66.62118
G1 X134.45 Y158.39 E66.69102
G1 X134.65 Y158.59 E66.70514
G1 X134.65 Y159.99 E66.77498
G1 X134.85 Y160.19 E66.78909
G1 X134.85 Y160.79 E66.81903
G1 X135.05 Y160.99 E66.83314
G1 X135.05 Y161.79 E66.87305
G1 X135.25 Y161.99 E66.88716
G1 X135.25 Y162.79 E66.92707
G1 X135.45 Y162.99 E66.94118
G1 X135.45 Y163.79 E66.98110
G1 X135.65 Y163.99 E66.99521
G1 X135.65 Y164.79 E67.03512
G1 X135.85 Y164.99 E67.04923
G1 X135.85 Y165.19 E67.05921
G1 X136.05 Y165.39 E67.07332
G1 X136.05 Y165.79 E67.09328
G1 X136.25 Y165.99 E67.10739
G1 X136.25 Y166.39 E67.12734
G1 X136.45 Y166.59 E67.14145
G1 X136.45 Y166.99 E67.16141
G1 X136.65 Y167.19 E67.17552
G1 X136.65 Y167.59 E67.19548
G1 X136.85 Y167.79 E67.20959
G1 X136.85 Y167.99 E67.21957
G1 X137.05 Y168.19 E67.23368
G1 X137.05 Y168.59 E67.25363
G1 X137.25 Y168.79 E67.26775
G1 X137.25 Y169.19 E67.28770
G1 X137.45 Y169.39 E67.30181
G1 X137.45 Y169.59 E67.31179
G1 X137.65 Y169.79 E67.32590
G1 X137.65 Y169.99 E67.33588
G1 X137.85 Y170.19 E67.34999
G1 X137.85 Y170.59 E67.36995
G1 X138.05 Y170.79 E67.38406
G1 X138.05 Y170.99 E67.39404
G1 X138.25 Y171.19 E67.40815
G1 X138.25 Y171.39 E67.41812
G1 X138.45 Y171.59 E67.43224
G1 X138.45 Y171.99 E67.45219
G1 X138.65 Y172.19 E67.46630
G1 X138.65 Y172.39 E67.47628
G1 X138.85 Y172.59 E67.49039
G1 X138.85 Y172.79 E67.50037
G1 X139.05 Y172.99 E67.51448
G1 X139.05 Y173.39 E67.53444
G1 X139.45 Y173.79 E67.56266
G1 X139.45 Y173.99 E67.57264
G1 X139.65 Y174.19 E67.58675
G1 X139.65 Y174.39 E67.59673
G1 X140.05 Y174.79 E67.62495
G1 X140.05 Y174.99 E67.63493
G1 X140.25 Y175.19 E67.64904
G1 X140.25 Y175.39 E67.65902
G1 X140.45 Y175.59 E67.67313
G1 X140.45 Y175.79 E67.68311
G1 X140.85 Y176.19 E67.71133
G1 X140.85 Y176.39 E67.72131
G1 X141.05 Y176.59 E67.73542
G1 X141.05 Y176.79 E67.74539
G1 X141.25 Y176.99 E67.75951
G1 X141.25 Y177.19 E67.76948
G1 X142.25 Y178.19 E67.84004
G1 X142.25 Y178.39 E67.85002
G1 X143.05 Y179.19 E67.90646
G1 X143.05 Y179.39 E67.91644
G1 X143.85 Y180.19 E67.97288
G1 X143.85 Y180.30 E67.97852
G1 X144.07 Y180.41 E67.99106
G1 X144.28 Y180.61 E68.00517
G1 X144.68 Y180.81 E68.02748
G1 X145.07 Y181.21 E68.05571
G1 X145.47 Y181.41 E68.07802
G1 X145.88 Y181.81 E68.10624
G1 X146.28 Y182.01 E68.12855
G1 X146.67 Y182.41 E68.15670
G1 X148.10 Y183.12 E68.23613
G1 X148.40 Y183.20 E68.25145
G1 X148.99 Y183.40 E68.28266
G1 X149.79 Y183.60 E68.32394
G1 X150.57 Y183.86 E68.36496
G1 X151.52 Y183.98 E68.41268
G1 X153.09 Y184.20 E68.49165
G1 X154.51 Y184.02 E68.56325
G1 X154.61 Y184.00 E68.56818
G1 X156.25 Y183.45 E68.65437
G1 X158.32 Y182.41 E68.77028
G1 X158.53 Y182.21 E68.78439
G1 X158.93 Y182.01 E68.80670
G1 X159.32 Y181.61 E68.83493
G1 X159.72 Y181.41 E68.85724
G1 X160.12 Y181.01 E68.88546
G1 X160.53 Y180.81 E68.90777
G1 X161.75 Y179.59 E68.99420
G1 X161.75 Y179.39 E69.00418
G1 X162.55 Y178.59 E69.06062
G1 X162.55 Y178.39 E69.07060
G1 X163.35 Y177.59 E69.12705
G1 X163.35 Y177.39 E69.13702
G1 X163.75 Y176.99 E69.16525
G1 X163.75 Y176.79 E69.17522
G1 X163.95 Y176.59 E69.18934
G1 X163.95 Y176.39 E69.19931
G1 X164.35 Y175.99 E69.22754
G1 X164.35 Y175.79 E69.23751
G1 X164.55 Y175.59 E69.25162
G1 X164.55 Y175.39 E69.26160
G1 X164.75 Y175.19 E69.27571
G1 X164.75 Y174.99 E69.28569
G1 X165.15 Y174.59 E69.31391
G1 X165.15 Y174.39 E69.32389
G1 X165.35 Y174.19 E69.33800
G1 X165.35 Y173.99 E69.34798
G1 X165.55 Y173.79 E69.36209
G1 X165.55 Y173.59 E69.37207
G1 X165.75 Y173.39 E69.38618
G1 X165.75 Y173.19 E69.39616
G1 X165.95 Y172.99 E69.41027
G1 X165.95 Y172.79 E69.42025
G1 X166.15 Y172.59 E69.43436
G1 X166.15 Y172.39 E69.44434
G1 X166.35 Y172.19 E69.45845
G1 X166.35 Y171.99 E69.46843
G1 X166.55 Y171.79 E69.48254
G1 X166.55 Y171.59 E69.49252
G1 X166.75 Y171.39 E69.50663
G1 X166.75 Y171.19 E69.51660
G1 X166.95 Y170.99 E69.53072
G1 X166.95 Y170.79 E69.54069
G1 X167.15 Y170.59 E69.55481
G1 X167.15 Y170.39 E69.56478
G1 X167.35 Y170.19 E69.57889
G1 X167.35 Y169.99 E69.58887
G1 X167.55 Y169.79 E69.60298
G1 X167.55 Y169.39 E69.62294
G1 X167.75 Y169.19 E69.63705
G1 X167.75 Y168.59 E69.66698
G1 X167.95 Y168.39 E69.68110
G1 X167.95 Y167.79 E69.71103
G1 X168.15 Y167.59 E69.72514
G1 X168.15 Y167.39 E69.73512
G1 X168.35 Y167.19 E69.74923
G1 X168.35 Y166.79 E69.76919
G1 X168.55 Y166.59 E69.78330
G1 X168.55 Y166.19 E69.80325
G1 X168.75 Y165.99 E69.81736
G1 X168.75 Y165.59 E69.83732
G1 X168.95 Y165.39 E69.85143
G1 X168.95 Y164.99 E69.87139
G1 X169.15 Y164.79 E69.88550
G1 X169.15 Y164.19 E69.91543
G1 X169.35 Y163.99 E69.92954
G1 X169.35 Y163.39 E69.95948
G1 X169.55 Y163.19 E69.97359
G1 X169.55 Y162.59 E70.00352
G1 X169.75 Y162.39 E70.01763
G1 X169.75 Y161.79 E70.04757
G1 X169.95 Y161.59 E70.06168
G1 X169.95 Y160.99 E70.09161
G1 X170.15 Y160.79 E70.10572
G1 X170.15 Y160.19 E70.13566
G1 X170.35 Y159.99 E70.14977
G1 X170.35 Y158.59 E70.21962
G1 X170.55 Y158.39 E70.23373
G1 X170.55 Y156.99 E70.30357
G1 X170.75 Y156.79 E70.31768
G1 X170.75 Y155.39 E70.38753
G1 X170.95 Y155.19 E70.40164
G1 X170.95 Y151.44 E70.58883
G1 X170.75 Y151.24 E70.60294
G1 X170.75 Y149.64 E70.68277
G1 X170.55 Y149.44 E70.69688
G1 X170.55 Y148.04 E70.76672
G1 X170.35 Y147.84 E70.78083
G1 X170.35 Y146.44 E70.85068
G1 X170.15 Y146.24 E70.86479
G1 X170.15 Y145.64 E70.89473
G1 X169.95 Y145.44 E70.90884
G1 X169.95 Y144.84 E70.93877
G1 X169.75 Y144.64 E70.95288
G1 X169.75 Y144.04 E70.98282
G1 X169.55 Y143.84 E70.99693
G1 X169.55 Y143.24 E71.02686
G1 X169.35 Y143.04 E71.04097
G1 X169.35 Y142.44 E71.07091
G1 X169.15 Y142.24 E71.08502
G1 X169.15 Y141.64 E71.11495
G1 X168.95 Y141.44 E71.12906
G1 X168.95 Y140.84 E71.15900
G1 X168.75 Y140.64 E71.17311
G1 X168.75 Y140.24 E71.19306
G1 X168.55 Y140.04 E71.20717
G1 X168.55 Y139.64 E71.22713
G1 X168.35 Y139.44 E71.24124
G1 X168.35 Y139.04 E71.26120
G1 X168.15 Y138.84 E71.27531
G1 X168.15 Y138.44 E71.29527
G1 X167.95 Y138.24 E71.30938
G1 X167.95 Y137.84 E71.32933
G1 X167.75 Y137.64 E71.34344
G1 X167.75 Y137.24 E71.36340
G1 X167.55 Y137.04 E71.37751
G1 X167.55 Y136.64 E71.39747
G1 X167.35 Y136.44 E71.41158
G1 X167.35 Y136.24 E71.42156
G1 X167.15 Y136.04 E71.43567
G1 X167.15 Y135.84 E71.44564
G1 X166.95 Y135.64 E71.45976
G1 X166.95 Y135.44 E71.46973
G1 X166.75 Y135.24 E71.48385
G1 X166.75 Y135.04 E71.49382
G1 X166.55 Y134.84 E71.50793
G1 X166.55 Y134.64 E71.51791
G1 X166.35 Y134.44 E71.53202
G1 X166.35 Y134.24 E71.54200
G1 X166.15 Y134.04 E71.55611
G1 X166.15 Y133.84 E71.56609
G1 X165.95 Y133.64 E71.58020
G1 X165.95 Y133.44 E71.59018
G1 X165.75 Y133.24 E71.60429
G1 X165.75 Y133.04 E71.61427
G1 X165.55 Y132.84 E71.62838
G1 X165.55 Y132.64 E71.63836
G1 X165.35 Y132.44 E71.65247
G1 X165.35 Y132.24 E71.66245
G1 X165.15 Y132.04 E71.67656
G1 X165.15 Y131.84 E71.68654
G1 X164.75 Y131.44 E71.71476
G1 X164.75 Y131.24 E71.72474
G1 X164.55 Y131.04 E71.73885
G1 X164.55 Y130.84 E71.74883
G1 X164.35 Y130.64 E71.76294
G1 X164.35 Y130.44 E71.77291
G1 X163.95 Y130.04 E71.80114
G1 X163.95 Y129.84 E71.81111
G1 X163.75 Y129.64 E71.82523
G1 X163.75 Y129.44 E71.83520
G1 X163.35 Y129.04 E71.86343
G1 X163.35 Y128.84 E71.87340
G1 X162.55 Y128.04 E71.92985
G1 X162.55 Y127.84 E71.93983
G1 X161.75 Y127.04 E71.99627
G1 X161.75 Y126.84 E72.00625
G1 X160.53 Y125.61 E72.09268
G1 X160.12 Y125.41 E72.11499
G1 X159.72 Y125.01 E72.14321
G1 X159.32 Y124.81 E72.16552
G1 X158.93 Y124.41 E72.19375
G1 X158.53 Y124.21 E72.21606
G1 X158.32 Y124.01 E72.23017
G1 X156.25 Y122.97 E72.34608
G1 X154.61 Y122.43 E72.43227
G1 X154.51 Y122.40 E72.43715
G1 X153.72 Y122.30 E72.47718
G1 X152.84 Y122.31 E72.52113
G1 X151.60 Y122.46 E72.58302
G1 X150.53 Y122.58 E72.63723
G1 X149.79 Y122.83 E72.67579
G1 X148.99 Y123.03 E72.71708
G1 X148.40 Y123.23 E72.74828
G1 X148.10 Y123.30 E72.76360
G1 X146.67 Y124.01 E72.84303
G1 X146.28 Y124.41 E72.87118
G1 X145.88 Y124.61 E72.89350
G1 X145.47 Y125.01 E72.92172
G1 X145.07 Y125.21 E72.94403
G1 X144.68 Y125.61 E72.97225
G1 X144.28 Y125.81 E72.99456
G1 X144.07 Y126.01 E73.00867
G1 X143.85 Y126.12 E73.02124
G1 X143.85 Y126.24 E73.02682
G1 X143.05 Y127.04 E73.08327
G1 X143.05 Y127.24 E73.09325
G1 X142.25 Y128.04 E73.14969
G1 X142.25 Y128.24 E73.15967
G1 X141.25 Y129.24 E73.23022
G1 X141.25 Y129.44 E73.24020
G1 X141.05 Y129.64 E73.25431
G1 X141.05 Y129.84 E73.26429
G1 X140.85 Y130.04 E73.27840
G1 X140.85 Y130.24 E73.28838
G1 X140.45 Y130.64 E73.31660
G1 X140.45 Y130.84 E73.32658
G1 X140.25 Y131.04 E73.34069
G1 X140.25 Y131.24 E73.35067
G1 X140.05 Y131.44 E73.36478
G1 X140.05 Y131.64 E73.37476
G1 X139.65 Y132.04 E73.40298
G1 X139.65 Y132.24 E73.41296
G1 X139.45 Y132.44 E73.42707
G1 X139.45 Y132.64 E73.43705
G1 X139.05 Y133.04 E73.46527
G1 X139.05 Y133.44 E73.48523
G1 X138.85 Y133.64 E73.49934
G1 X138.85 Y133.84 E73.50931
G1 X138.65 Y134.04 E73.52343
G1 X138.65 Y134.24 E73.53340
G1 X138.45 Y134.44 E73.54752
G1 X138.45 Y134.84 E73.56747
G1 X138.25 Y135.04 E73.58158
G1 X138.25 Y135.24 E73.59156
G1 X138.05 Y135.44 E73.60567
G1 X138.05 Y135.64 E73.61565
G1 X137.85 Y135.84 E73.62976
G1 X137.85 Y136.24 E73.64972
G1 X137.65 Y136.44 E73.66383
G1 X137.65 Y136.64 E73.67381
G1 X137.45 Y136.84 E73.68792
G1 X137.45 Y137.04 E73.69789
G1 X137.25 Y137.24 E73.71201
G1 X137.25 Y137.64 E73.73196
G1 X137.05 Y137.84 E73.74607
G1 X137.05 Y138.24 E73.76603
G1 X136.85 Y138.44 E73.78014
G1 X136.85 Y138.84 E73.80010
G1 X136.65 Y139.04 E73.81421
G1 X136.65 Y139.24 E73.82419
G1 X136.45 Y139.44 E73.83830
G1 X136.45 Y139.84 E73.85825
G1 X136.25 Y140.04 E73.87236
G1 X136.25 Y140.44 E73.89232
G1 X136.05 Y140.64 E73.90643
G1 X136.05 Y141.04 E73.92639
G1 X135.85 Y141.24 E73.94050
G1 X135.85 Y141.44 E73.95048
G1 X135.65 Y141.64 E73.96459
G1 X135.65 Y142.44 E74.00450
G1 X135.45 Y142.64 E74.01861
G1 X135.45 Y143.44 E74.05852
G1 X135.25 Y143.64 E74.07263
G1 X135.25 Y144.44 E74.11255
G1 X135.05 Y144.64 E74.12666
G1 X135.05 Y145.44 E74.16657
G1 X134.85 Y145.64 E74.18068
G1 X134.85 Y146.24 E74.21061
G1 X134.65 Y146.44 E74.22473
G1 X134.65 Y148.04 E74.30455
G1 X134.45 Y148.24 E74.31866
G1 X134.45 Y149.64 E74.38851
G0 F12000 X134.05 Y149.47
G1 F2700 X133.85 Y149.67 E74.40262
G1 X133.85 Y151.07 E74.47246
G1 X133.65 Y151.27 E74.48658
G1 X133.65 Y155.35 E74.69033
G1 X133.85 Y155.55 E74.70444
G1 X133.85 Y156.95 E74.77428
G1 X134.05 Y157.15 E74.78840
G1 X134.05 Y158.55 E74.85824
G1 X134.25 Y158.75 E74.87235
G1 X134.25 Y160.15 E74.94220
G1 X134.45 Y160.35 E74.95631
G1 X134.45 Y160.95 E74.98624
G1 X134.65 Y161.15 E75.00036
G1 X134.65 Y161.95 E75.04027
G1 X134.85 Y162.15 E75.05438
G1 X134.85 Y162.95 E75.09429
G1 X135.05 Y163.15 E75.10840
G1 X135.05 Y163.95 E75.14831
G1 X135.25 Y164.15 E75.16243
G1 X135.25 Y164.95 E75.20234
G1 X135.45 Y165.15 E75.21645
G1 X135.45 Y165.35 E75.22643
G1 X135.65 Y165.55 E75.24054
G1 X135.65 Y165.95 E75.26049
G1 X135.85 Y166.15 E75.27460
G1 X135.85 Y166.55 E75.29456
G1 X136.05 Y166.75 E75.30867
G1 X136.05 Y167.15 E75.32863
G1 X136.25 Y167.35 E75.34274
G1 X136.25 Y167.75 E75.36269
G1 X136.45 Y167.95 E75.37681
G1 X136.45 Y168.15 E75.38678
G1 X136.65 Y168.35 E75.40090
G1 X136.65 Y168.75 E75.42085
G1 X136.85 Y168.95 E75.43496
G1 X136.85 Y169.35 E75.45492
G1 X137.05 Y169.55 E75.46903
G1 X137.05 Y169.75 E75.47901
G1 X137.25 Y169.95 E75.49312
G1 X137.25 Y170.15 E75.50310
G1 X137.45 Y170.35 E75.51721
G1 X137.45 Y170.75 E75.53716
G1 X137.65 Y170.95 E75.55127
G1 X137.65 Y171.15 E75.56125
G1 X137.85 Y171.35 E75.57536
G1 X137.85 Y171.55 E75.58534
G1 X138.05 Y171.75 E75.59945
G1 X138.05 Y172.15 E75.61941
G1 X138.25 Y172.35 E75.63352
G1 X138.25 Y172.55 E75.64350
G1 X138.45 Y172.75 E75.65761
G1 X138.45 Y172.95 E75.66759
G1 X138.65 Y173.15 E75.68170
G1 X138.65 Y173.55 E75.70165
G1 X139.05 Y173.95 E75.72988
G1 X139.05 Y174.15 E75.73985
G1 X139.25 Y174.35 E75.75397
G1 X139.25 Y174.55 E75.76394
G1 X139.65 Y174.95 E75.79217
G1 X139.65 Y175.15 E75.80214
G1 X139.85 Y175.35 E75.81626
G1 X139.85 Y175.55 E75.82623
G1 X140.05 Y175.75 E75.84034
G1 X140.05 Y175.95 E75.85032
G1 X140.45 Y176.35 E75.87854
G1 X140.45 Y176.55 E75.88852
G1 X140.65 Y176.75 E75.90263
G1 X140.65 Y176.95 E75.91261
G1 X140.85 Y177.15 E75.92672
G1 X140.85 Y177.35 E75.93670
G1 X141.85 Y178.35 E76.00726
G1 X141.85 Y178.55 E76.01723
G1 X142.65 Y179.35 E76.07368
G1 X142.65 Y179.55 E76.08366
G1 X143.45 Y180.35 E76.14010
G1 X143.45 Y180.55 E76.14978
G1 X143.84 Y180.74 E76.17142
G1 X144.04 Y180.94 E76.18553
G1 X144.44 Y181.14 E76.20784
G1 X144.84 Y181.54 E76.23607
G1 X145.24 Y181.74 E76.25838
G1 X145.64 Y182.14 E76.28660
G1 X146.04 Y182.34 E76.30891
G1 X146.44 Y182.74 E76.33706
G1 X147.96 Y183.50 E76.42196
G1 X148.28 Y183.58 E76.43867
G1 X148.88 Y183.78 E76.46991
G1 X149.68 Y183.98 E76.51114
G1 X150.48 Y184.25 E76.55338
G1 X151.47 Y184.37 E76.60286
G1 X153.08 Y184.60 E76.68430
G1 X154.58 Y184.42 E76.75977
G1 X154.71 Y184.38 E76.76641
G1 X156.41 Y183.82 E76.85544
G1 X158.56 Y182.74 E76.97570
G1 X158.76 Y182.54 E76.98981
G1 X159.16 Y182.34 E77.01212
G1 X159.56 Y181.94 E77.04034
G1 X159.96 Y181.74 E77.06265
G1 X160.36 Y181.34 E77.09087
G1 X160.76 Y181.14 E77.11319
G1 X162.15 Y179.75 E77.21112
G1 X162.15 Y179.55 E77.22109
G1 X162.95 Y178.75 E77.27754
G1 X162.95 Y178.55 E77.28752
G1 X163.75 Y177.75 E77.34396
G1 X163.75 Y177.55 E77.35394
G1 X164.15 Y177.15 E77.38216
G1 X164.15 Y176.95 E77.39214
G1 X164.35 Y176.75 E77.40625
G1 X164.35 Y176.55 E77.41623
G1 X164.75 Y176.15 E77.44445
G1 X164.75 Y175.95 E77.45443
G1 X164.95 Y175.75 E77.46854
G1 X164.95 Y175.55 E77.47852
G1 X165.15 Y175.35 E77.49263
G1 X165.15 Y175.15 E77.50261
G1 X165.55 Y174.75 E77.53083
G1 X165.55 Y174.55 E77.54081
G1 X165.75 Y174.35 E77.55492
G1 X165.75 Y174.15 E77.56490
G1 X165.95 Y173.95 E77.57901
G1 X165.95 Y173.75 E77.58899
G1 X166.15 Y173.55 E77.60310
G1 X166.15 Y173.35 E77.61307
G1 X166.35 Y173.15 E77.62719
G1 X166.35 Y172.95 E77.63716
G1 X166.55 Y172.75 E77.65127
G1 X166.55 Y172.55 E77.66125
G1 X166.75 Y172.35 E77.67536
G1 X166.75 Y172.15 E77.68534
G1 X166.95 Y171.95 E77.69945
G1 X166.95 Y171.75 E77.70943
G1 X167.15 Y171.55 E77.72354
G1 X167.15 Y171.35 E77.73352
G1 X167.35 Y171.15 E77.74763
G1 X167.35 Y170.95 E77.75761
G1 X167.55 Y170.75 E77.77172
G1 X167.55 Y170.55 E77.78170
G1 X167.75 Y170.35 E77.79581
G1 X167.75 Y170.15 E77.80579
G1 X167.95 Y169.95 E77.81990
G1 X167.95 Y169.55 E77.83985
G1 X168.15 Y169.35 E77.85397
G1 X168.15 Y168.75 E77.88390
G1 X168.35 Y168.55 E77.89801
G1 X168.35 Y167.95 E77.92795
G1 X168.55 Y167.75 E77.94206
G1 X168.55 Y167.55 E77.95203
G1 X168.75 Y167.35 E77.96615
G1 X168.75 Y166.95 E77.98610
G1 X168.95 Y166.75 E78.00021
G1 X168.95 Y166.35 E78.02017
G1 X169.15 Y166.15 E78.03428
G1 X169.15 Y165.75 E78.05424
G1 X169.35 Y165.55 E78.06835
G1 X169.35 Y165.15 E78.08830
G1 X169.55 Y164.95 E78.10241
G1 X169.55 Y164.35 E78.13235
G1 X169.75 Y164.15 E78.14646
G1 X169.75 Y163.55 E78.17639
G1 X169.95 Y163.35 E78.19050
G1 X169.95 Y162.75 E78.22044
G1 X170.15 Y162.55 E78.23455
G1 X170.15 Y161.95 E78.26448
G1 X170.35 Y161.75 E78.27859
G1 X170.35 Y161.15 E78.30853
G1 X170.55 Y160.95 E78.32264
G1 X170.55 Y160.35 E78.35257
G1 X170.75 Y160.15 E78.36669
G1 X170.75 Y158.75 E78.43653
G1 X170.95 Y158.55 E78.45064
G1 X170.95 Y157.15 E78.52049
G1 X171.15 Y156.95 E78.53460
G1 X171.15 Y155.55 E78.60445
G1 X171.35 Y155.35 E78.61856
G1 X171.35 Y151.27 E78.82231
G1 X171.15 Y151.07 E78.83642
G1 X171.15 Y149.47 E78.91624
G1 X170.95 Y149.27 E78.93036
G1 X170.95 Y147.87 E79.00020
G1 X170.75 Y147.67 E79.01431
G1 X170.75 Y146.27 E79.08416
G1 X170.55 Y146.07 E79.09827
G1 X170.55 Y145.47 E79.12820
G1 X170.35 Y145.27 E79.14232
G1 X170.35 Y144.67 E79.17225
G1 X170.15 Y144.47 E79.18636
G1 X170.15 Y143.87 E79.21629
G1 X169.95 Y143.67 E79.23041
G1 X169.95 Y143.07 E79.26034
G1 X169.75 Y142.87 E79.27445
G1 X169.75 Y142.27 E79.30438
G1 X169.55 Y142.07 E79.31850
G1 X169.55 Y141.47 E79.34843
G1 X169.35 Y141.27 E79.36254
G1 X169.35 Y140.67 E79.39248
G1 X169.15 Y140.47 E79.40659
G1 X169.15 Y140.07 E79.42654
G1 X168.95 Y139.87 E79.44065
G1 X168.95 Y139.47 E79.46061
G1 X168.75 Y139.27 E79.47472
G1 X168.75 Y138.87 E79.49468
G1 X168.55 Y138.67 E79.50879
G1 X168.55 Y138.27 E79.52874
G1 X168.35 Y138.07 E79.54286
G1 X168.35 Y137.67 E79.56281
G1 X168.15 Y137.47 E79.57692
G1 X168.15 Y137.07 E79.59688
G1 X167.95 Y136.87 E79.61099
G1 X167.95 Y136.47 E79.63095
G1 X167.75 Y136.27 E79.64506
G1 X167.75 Y136.07 E79.65503
G1 X167.55 Y135.87 E79.66915
G1 X167.55 Y135.67 E79.67912
G1 X167.35 Y135.47 E79.69323
G1 X167.35 Y135.27 E79.70321
G1 X167.15 Y135.07 E79.71732
G1 X167.15 Y134.87 E79.72730
G1 X166.95 Y134.67 E79.74141
G1 X166.95 Y134.47 E79.75139
G1 X166.75 Y134.27 E79.76550
G1 X166.75 Y134.07 E79.77548
G1 X166.55 Y133.87 E79.78959
G1 X166.55 Y133.67 E79.79957
G1 X166.35 Y133.47 E79.81368
G1 X166.35 Y133.27 E79.82366
G1 X166.15 Y133.07 E79.83777
G1 X166.15 Y132.87 E79.84775
G1 X165.95 Y132.67 E79.86186
G1 X165.95 Y132.47 E79.87184
G1 X165.75 Y132.27 E79.88595
G1 X165.75 Y132.07 E79.89593
G1 X165.55 Y131.87 E79.91004
G1 X165.55 Y131.67 E79.92001
G1 X165.15 Y131.27 E79.94824
G1 X165.15 Y131.07 E79.95822
G1 X164.95 Y130.87 E79.97233
G1 X164.95 Y130.67 E79.98230
G1 X164.75 Y130.47 E79.99642
G1 X164.75 Y130.27 E80.00639
G1 X164.35 Y129.87 E80.03462
G1 X164.35 Y129.67 E80.04459
G1 X164.15 Y129.47 E80.05870
G1 X164.15 Y129.27 E80.06868
G1 X163.75 Y128.87 E80.09690
G1 X163.75 Y128.67 E80.10688
G1 X162.95 Y127.87 E80.16333
G1 X162.95 Y127.67 E80.17331
G1 X162.15 Y126.87 E80.22975
G1 X162.15 Y126.67 E80.23973
G1 X160.76 Y125.28 E80.33766
G1 X160.36 Y125.08 E80.35997
G1 X159.96 Y124.68 E80.38819
G1 X159.56 Y124.48 E80.41050
G1 X159.16 Y124.08 E80.43873
G1 X158.76 Y123.88 E80.46104
G1 X158.56 Y123.68 E80.47515
G1 X156.41 Y122.60 E80.59541
G1 X154.71 Y122.04 E80.68444
G1 X154.59 Y122.01 E80.69102
G1 X153.74 Y121.90 E80.73341
G1 X152.81 Y121.91 E80.77991
G1 X151.56 Y122.06 E80.84285
G1 X150.44 Y122.19 E80.89907
G1 X149.68 Y122.44 E80.93889
G1 X148.88 Y122.64 E80.98008
G1 X148.28 Y122.84 E81.01143
G1 X147.96 Y122.92 E81.02814
G1 X146.44 Y123.68 E81.11303
G1 X146.04 Y124.08 E81.14118
G1 X145.64 Y124.28 E81.16350
G1 X145.24 Y124.68 E81.19172
G1 X144.84 Y124.88 E81.21403
G1 X144.44 Y125.28 E81.24225
G1 X144.04 Y125.48 E81.26456
G1 X143.84 Y125.68 E81.27867
G1 X143.45 Y125.88 E81.30032
G1 X143.45 Y126.07 E81.31000
G1 X142.65 Y126.87 E81.36644
G1 X142.65 Y127.07 E81.37642
G1 X141.85 Y127.87 E81.43286
G1 X141.85 Y128.07 E81.44284
G1 X140.85 Y129.07 E81.51340
G1 X140.85 Y129.27 E81.52337
G1 X140.65 Y129.47 E81.53749
G1 X140.65 Y129.67 E81.54746
G1 X140.45 Y129.87 E81.56157
G1 X140.45 Y130.07 E81.57155
G1 X140.05 Y130.47 E81.59977
G1 X140.05 Y130.67 E81.60975
G1 X139.85 Y130.87 E81.62386
G1 X139.85 Y131.07 E81.63384
G1 X139.65 Y131.27 E81.64795
G1 X139.65 Y131.47 E81.65793
G1 X139.25 Y131.87 E81.68615
G1 X139.25 Y132.07 E81.69613
G1 X139.05 Y132.27 E81.71024
G1 X139.05 Y132.47 E81.72022
G1 X138.65 Y132.87 E81.74844
G1 X138.65 Y133.27 E81.76840
G1 X138.45 Y133.47 E81.78251
G1 X138.45 Y133.67 E81.79249
G1 X138.25 Y133.87 E81.80660
G1 X138.25 Y134.07 E81.81658
G1 X138.05 Y134.27 E81.83069
G1 X138.05 Y134.67 E81.85064
G1 X137.85 Y134.87 E81.86475
G1 X137.85 Y135.07 E81.87473
G1 X137.65 Y135.27 E81.88884
G1 X137.65 Y135.47 E81.89882
G1 X137.45 Y135.67 E81.91293
G1 X137.45 Y136.07 E81.93289
G1 X137.25 Y136.27 E81.94700
G1 X137.25 Y136.47 E81.95698
G1 X137.05 Y136.67 E81.97109
G1 X137.05 Y136.87 E81.98107
G1 X136.85 Y137.07 E81.99518
G1 X136.85 Y137.47 E82.01513
G1 X136.65 Y137.67 E82.02925
G1 X136.65 Y138.07 E82.04920
G1 X136.45 Y138.27 E82.06331
G1 X136.45 Y138.67 E82.08327
G1 X136.25 Y138.87 E82.09738
G1 X136.25 Y139.07 E82.10736
G1 X136.05 Y139.27 E82.12147
G1 X136.05 Y139.67 E82.14143
G1 X135.85 Y139.87 E82.15554
G1 X135.85 Y140.27 E82.17549
G1 X135.65 Y140.47 E82.18960
G1 X135.65 Y140.87 E82.20956
G1 X135.45 Y141.07 E82.22367
G1 X135.45 Y141.27 E82.23365
G1 X135.25 Y141.47 E82.24776
G1 X135.25 Y142.27 E82.28767
G1 X135.05 Y142.47 E82.30178
G1 X135.05 Y143.27 E82.34170
G1 X134.85 Y143.47 E82.35581
G1 X134.85 Y144.27 E82.39572
G1 X134.65 Y144.47 E82.40983
G1 X134.65 Y145.27 E82.44974
G1 X134.45 Y145.47 E82.46385
G1 X134.45 Y146.07 E82.49379
G1 X134.25 Y146.27 E82.50790
G1 X134.25 Y147.87 E82.58772
G1 X134.05 Y148.07 E82.60183
G1 X134.05 Y149.47 E82.67168
G0 F12000 X133.65 Y149.30
G1 F2700 X133.45 Y149.50 E82.68579
G1 X133.45 Y150.90 E82.75564
G1 X133.25 Y151.10 E82.76975
G1 X133.25 Y155.52 E82.99006
G1 X133.45 Y155.72 E83.00417
G1 X133.45 Y157.12 E83.07402
G1 X133.65 Y157.32 E83.08813
G1 X133.65 Y158.72 E83.15798
G1 X133.85 Y158.92 E83.17209
G1 X133.85 Y160.32 E83.24194
G1 X134.05 Y160.52 E83.25605
G1 X134.05 Y161.12 E83.28598
G1 X134.25 Y161.32 E83.30009
G1 X134.25 Y162.12 E83.34000
G1 X134.45 Y162.32 E83.35411
G1 X134.45 Y163.12 E83.39403
G1 X134.65 Y163.32 E83.40814
G1 X134.65 Y164.12 E83.44805
G1 X134.85 Y164.32 E83.46216
G1 X134.85 Y165.12 E83.50207
G1 X135.05 Y165.32 E83.51618
G1 X135.05 Y165.52 E83.52616
G1 X135.25 Y165.72 E83.54027
G1 X135.25 Y166.12 E83.56023
G1 X135.45 Y166.32 E83.57434
G1 X135.45 Y166.72 E83.59430
G1 X135.65 Y166.92 E83.60841
G1 X135.65 Y167.32 E83.62836
G1 X135.85 Y167.52 E83.64247
G1 X135.85 Y167.92 E83.66243
G1 X136.05 Y168.12 E83.67654
G1 X136.05 Y168.32 E83.68652
G1 X136.25 Y168.52 E83.70063
G1 X136.25 Y168.92 E83.72059
G1 X136.45 Y169.12 E83.73470
G1 X136.45 Y169.52 E83.75465
G1 X136.65 Y169.72 E83.76877
G1 X136.65 Y169.92 E83.77874
G1 X136.85 Y170.12 E83.79285
G1 X136.85 Y170.32 E83.80283
G1 X137.05 Y170.52 E83.81694
G1 X137.05 Y170.92 E83.83690
G1 X137.25 Y171.12 E83.85101
G1 X137.25 Y171.32 E83.86099
G1 X137.45 Y171.52 E83.87510
G1 X137.45 Y171.72 E83.88508
G1 X137.65 Y171.92 E83.89919
G1 X137.65 Y172.32 E83.91915
G1 X137.85 Y172.52 E83.93326
G1 X137.85 Y172.72 E83.94323
G1 X138.05 Y172.92 E83.95735
G1 X138.05 Y173.12 E83.96732
G1 X138.25 Y173.32 E83.98143
G1 X138.25 Y173.72 E84.00139
G1 X138.65 Y174.12 E84.02961
G1 X138.65 Y174.32 E84.03959
G1 X138.85 Y174.52 E84.05370
G1 X138.85 Y174.72 E84.06368
G1 X139.25 Y175.12 E84.09190
G1 X139.25 Y175.32 E84.10188
G1 X139.45 Y175.52 E84.11599
G1 X139.45 Y175.72 E84.12597
G1 X139.65 Y175.92 E84.14008
G1 X139.65 Y176.12 E84.15006
G1 X140.05 Y176.52 E84.17828
G1 X140.05 Y176.72 E84.18826
G1 X140.25 Y176.92 E84.20237
G1 X140.25 Y177.12 E84.21235
G1 X140.45 Y177.32 E84.22646
G1 X140.45 Y177.52 E84.23644
G1 X141.45 Y178.52 E84.30699
G1 X141.45 Y178.72 E84.31697
G1 X142.25 Y179.52 E84.37341
G1 X142.25 Y179.72 E84.38339
G1 X143.05 Y180.52 E84.43984
G1 X143.05 Y180.72 E84.44982
G1 X143.20 Y180.87 E84.46033
G1 X143.60 Y181.07 E84.48275
G1 X143.80 Y181.27 E84.49686
G1 X144.20 Y181.47 E84.51917
G1 X144.60 Y181.87 E84.54736
G1 X145.00 Y182.07 E84.56972
G1 X145.40 Y182.47 E84.59790
G1 X145.80 Y182.67 E84.62026
G1 X146.20 Y183.07 E84.64848
G1 X147.82 Y183.88 E84.73862
G1 X148.17 Y183.97 E84.75688
G1 X148.77 Y184.17 E84.78839
G1 X149.57 Y184.37 E84.82937
G1 X150.39 Y184.64 E84.87280
G1 X151.41 Y184.77 E84.92409
G1 X153.08 Y185.01 E85.00810
G1 X154.66 Y184.81 E85.08733
G1 X154.83 Y184.77 E85.09644
G1 X156.55 Y184.19 E85.18673
G1 X158.80 Y183.07 E85.31212
G1 X159.00 Y182.87 E85.32624
G1 X159.40 Y182.67 E85.34859
G1 X159.80 Y182.27 E85.37678
G1 X160.20 Y182.07 E85.39914
G1 X160.60 Y181.67 E85.42732
G1 X161.00 Y181.47 E85.44975
G1 X162.55 Y179.92 E85.55904
G1 X162.55 Y179.72 E85.56901
G1 X163.35 Y178.92 E85.62546
G1 X163.35 Y178.72 E85.63544
G1 X164.15 Y177.92 E85.69188
G1 X164.15 Y177.72 E85.70186
G1 X164.55 Y177.32 E85.73008
G1 X164.55 Y177.12 E85.74006
G1 X164.75 Y176.92 E85.75417
G1 X164.75 Y176.72 E85.76415
G1 X165.15 Y176.32 E85.79237
G1 X165.15 Y176.12 E85.80235
G1 X165.35 Y175.92 E85.81646
G1 X165.35 Y175.72 E85.82644
G1 X165.55 Y175.52 E85.84055
G1 X165.55 Y175.32 E85.85053
G1 X165.95 Y174.92 E85.87875
G1 X165.95 Y174.72 E85.88873
G1 X166.15 Y174.52 E85.90284
G1 X166.15 Y174.32 E85.91282
G1 X166.35 Y174.12 E85.92693
G1 X166.35 Y173.92 E85.93690
G1 X166.55 Y173.72 E85.95102
G1 X166.55 Y173.52 E85.96099
G1 X166.75 Y173.32 E85.97510
G1 X166.75 Y173.12 E85.98508
G1 X166.95 Y172.92 E85.99919
G1 X166.95 Y172.72 E86.00917
G1 X167.15 Y172.52 E86.02328
G1 X167.15 Y172.32 E86.03326
G1 X167.35 Y172.12 E86.04737
G1 X167.35 Y171.92 E86.05735
G1 X167.55 Y171.72 E86.07146
G1 X167.55 Y171.52 E86.08144
G1 X167.75 Y171.32 E86.09555
G1 X167.75 Y171.12 E86.10553
G1 X167.95 Y170.92 E86.11964
G1 X167.95 Y170.72 E86.12962
G1 X168.15 Y170.52 E86.14373
G1 X168.15 Y170.32 E86.15371
G1 X168.35 Y170.12 E86.16782
G1 X168.35 Y169.72 E86.18777
G1 X168.55 Y169.52 E86.20188
G1 X168.55 Y168.92 E86.23182
G1 X168.75 Y168.72 E86.24593
G1 X168.75 Y168.12 E86.27586
G1 X168.95 Y167.92 E86.28998
G1 X168.95 Y167.72 E86.29995
G1 X169.15 Y167.52 E86.31406
G1 X169.15 Y167.12 E86.33402
G1 X169.35 Y166.92 E86.34813
G1 X169.35 Y166.52 E86.36809
G1 X169.55 Y166.32 E86.38220
G1 X169.55 Y165.92 E86.40215
G1 X169.75 Y165.72 E86.41627
G1 X169.75 Y165.32 E86.43622
G1 X169.95 Y165.12 E86.45033
G1 X169.95 Y164.52 E86.48027
G1 X170.15 Y164.32 E86.49438
G1 X170.15 Y163.72 E86.52431
G1 X170.35 Y163.52 E86.53842
G1 X170.35 Y162.92 E86.56836
G1 X170.55 Y162.72 E86.58247
G1 X170.55 Y162.12 E86.61240
G1 X170.75 Y161.92 E86.62651
G1 X170.75 Y161.32 E86.65645
G1 X170.95 Y161.12 E86.67056
G1 X170.95 Y160.52 E86.70049
G1 X171.15 Y160.32 E86.71460
G1 X171.15 Y158.92 E86.78445
G1 X171.35 Y158.72 E86.79856
G1 X171.35 Y157.32 E86.86841
G1 X171.55 Y157.12 E86.88252
G1 X171.55 Y155.72 E86.95237
G1 X171.75 Y155.52 E86.96648
G1 X171.75 Y151.10 E87.18679
G1 X171.55 Y150.90 E87.20090
G1 X171.55 Y149.30 E87.28073
G1 X171.35 Y149.10 E87.29484
G1 X171.35 Y147.70 E87.36468
G1 X171.15 Y147.50 E87.37880
G1 X171.15 Y146.10 E87.44864
G1 X170.95 Y145.90 E87.46275
G1 X170.95 Y145.30 E87.49269
G1 X170.75 Y145.10 E87.50680
G1 X170.75 Y144.50 E87.53673
G1 X170.55 Y144.30 E87.55084
G1 X170.55 Y143.70 E87.58078
G1 X170.35 Y143.50 E87.59489
G1 X170.35 Y142.90 E87.62482
G1 X170.15 Y142.70 E87.63893
G1 X170.15 Y142.10 E87.66887
G1 X169.95 Y141.90 E87.68298
G1 X169.95 Y141.30 E87.71291
G1 X169.75 Y141.10 E87.72702
G1 X169.75 Y140.50 E87.75696
G1 X169.55 Y140.30 E87.77107
G1 X169.55 Y139.90 E87.79103
G1 X169.35 Y139.70 E87.80514
G1 X169.35 Y139.30 E87.82509
G1 X169.15 Y139.10 E87.83920
G1 X169.15 Y138.70 E87.85916
G1 X168.95 Y138.50 E87.87327
G1 X168.95 Y138.10 E87.89323
G1 X168.75 Y137.90 E87.90734
G1 X168.75 Y137.50 E87.92729
G1 X168.55 Y137.30 E87.94140
G1 X168.55 Y136.90 E87.96136
G1 X168.35 Y136.70 E87.97547
G1 X168.35 Y136.30 E87.99543
G1 X168.15 Y136.10 E88.00954
G1 X168.15 Y135.90 E88.01952
G1 X167.95 Y135.70 E88.03363
G1 X167.95 Y135.50 E88.04361
G1 X167.75 Y135.30 E88.05772
G1 X167.75 Y135.10 E88.06770
G1 X167.55 Y134.90 E88.08181
G1 X167.55 Y134.70 E88.09178
G1 X167.35 Y134.50 E88.10590
G1 X167.35 Y134.30 E88.11587
G1 X167.15 Y134.10 E88.12998
G1 X167.15 Y133.90 E88.13996
G1 X166.95 Y133.70 E88.15407
G1 X166.95 Y133.50 E88.16405
G1 X166.75 Y133.30 E88.17816
G1 X166.75 Y133.10 E88.18814
G1 X166.55 Y132.90 E88.20225
G1 X166.55 Y132.70 E88.21223
G1 X166.35 Y132.50 E88.22634
G1 X166.35 Y132.30 E88.23632
G1 X166.15 Y132.10 E88.25043
G1 X166.15 Y131.90 E88.26041
G1 X165.95 Y131.70 E88.27452
G1 X165.95 Y131.50 E88.28450
G1 X165.55 Y131.10 E88.31272
G1 X165.55 Y130.90 E88.32270
G1 X165.35 Y130.70 E88.33681
G1 X165.35 Y130.50 E88.34679
G1 X165.15 Y130.30 E88.36090
G1 X165.15 Y130.10 E88.37088
G1 X164.75 Y129.70 E88.39910
G1 X164.75 Y129.50 E88.40908
G1 X164.55 Y129.30 E88.42319
G1 X164.55 Y129.10 E88.43317
G1 X164.15 Y128.70 E88.46139
G1 X164.15 Y128.50 E88.47137
G1 X163.35 Y127.70 E88.52781
G1 X163.35 Y127.50 E88.53779
G1 X162.55 Y126.70 E88.59423
G1 X162.55 Y126.50 E88.60421
G1 X161.00 Y124.95 E88.71350
G1 X160.60 Y124.75 E88.73592
G1 X160.20 Y124.35 E88.76411
G1 X159.80 Y124.15 E88.78647
G1 X159.40 Y123.75 E88.81465
G1 X159.00 Y123.55 E88.83701
G1 X158.80 Y123.35 E88.85112
G1 X156.55 Y122.23 E88.97651
G1 X154.83 Y121.66 E89.06680
G1 X154.66 Y121.61 E89.07585
G1 X153.76 Y121.50 E89.12075
G1 X152.78 Y121.51 E89.16980
G1 X151.51 Y121.67 E89.23370
G1 X150.35 Y121.80 E89.29183
G1 X149.57 Y122.06 E89.33307
G1 X148.77 Y122.26 E89.37410
G1 X148.17 Y122.46 E89.40560
G1 X147.82 Y122.55 E89.42386
G1 X146.20 Y123.35 E89.51400
G1 X145.80 Y123.75 E89.54222
G1 X145.40 Y123.95 E89.56458
G1 X145.00 Y124.35 E89.59277
G1 X144.60 Y124.55 E89.61512
G1 X144.20 Y124.95 E89.64331
G1 X143.80 Y125.15 E89.66562
G1 X143.60 Y125.35 E89.67973
G1 X143.20 Y125.56 E89.70216
G1 X143.05 Y125.70 E89.71267
G1 X143.05 Y125.90 E89.72265
G1 X142.25 Y126.70 E89.77909
G1 X142.25 Y126.90 E89.78907
G1 X141.45 Y127.70 E89.84551
G1 X141.45 Y127.90 E89.85549
G1 X140.45 Y128.90 E89.92605
G1 X140.45 Y129.10 E89.93602
G1 X140.25 Y129.30 E89.95014
G1 X140.25 Y129.50 E89.96011
G1 X140.05 Y129.70 E89.97423
G1 X140.05 Y129.90 E89.98420
G1 X139.65 Y130.30 E90.01243
G1 X139.65 Y130.50 E90.02240
G1 X139.45 Y130.70 E90.03651
G1 X139.45 Y130.90 E90.04649
G1 X139.25 Y131.10 E90.06060
G1 X139.25 Y131.30 E90.07058
G1 X138.85 Y131.70 E90.09880
G1 X138.85 Y131.90 E90.10878
G1 X138.65 Y132.10 E90.12289
G1 X138.65 Y132.30 E90.13287
G1 X138.25 Y132.70 E90.16109
G1 X138.25 Y133.10 E90.18105
G1 X138.05 Y133.30 E90.19516
G1 X138.05 Y133.50 E90.20514
G1 X137.85 Y133.70 E90.21925
G1 X137.85 Y133.90 E90.22923
G1 X137.65 Y134.10 E90.24334
G1 X137.65 Y134.50 E90.26329
G1 X137.45 Y134.70 E90.27741
G1 X137.45 Y134.90 E90.28738
G1 X137.25 Y135.10 E90.30149
G1 X137.25 Y135.30 E90.31147
G1 X137.05 Y135.50 E90.32558
G1 X137.05 Y135.90 E90.34554
G1 X136.85 Y136.10 E90.35965
G1 X136.85 Y136.30 E90.36963
G1 X136.65 Y136.50 E90.38374
G1 X136.65 Y136.70 E90.39372
G1 X136.45 Y136.90 E90.40783
G1 X136.45 Y137.30 E90.42779
G1 X136.25 Y137.50 E90.44190
G1 X136.25 Y137.90 E90.46185
G1 X136.05 Y138.10 E90.47596
G1 X136.05 Y138.50 E90.49592
G1 X135.85 Y138.70 E90.51003
G1 X135.85 Y138.90 E90.52001
G1 X135.65 Y139.10 E90.53412
G1 X135.65 Y139.50 E90.55408
G1 X135.45 Y139.70 E90.56819
G1 X135.45 Y140.10 E90.58814
G1 X135.25 Y140.30 E90.60225
G1 X135.25 Y140.70 E90.62221
G1 X135.05 Y140.90 E90.63632
G1 X135.05 Y141.10 E90.64630
G1 X134.85 Y141.30 E90.66041
G1 X134.85 Y142.10 E90.70032
G1 X134.65 Y142.30 E90.71443
G1 X134.65 Y143.10 E90.75435
G1 X134.45 Y143.30 E90.76846
G1 X134.45 Y144.10 E90.80837
G1 X134.25 Y144.30 E90.82248
G1 X134.25 Y145.10 E90.86239
G1 X134.05 Y145.30 E90.87650
G1 X134.05 Y145.90 E90.90644
G1 X133.85 Y146.10 E90.92055
G1 X133.85 Y147.70 E91.00037
G1 X133.65 Y147.90 E91.01448
G1 X133.65 Y149.30 E91.08433
G0 F12000 X133.25 Y149.14
G1 F2700 X133.05 Y149.34 E91.09844
G1 X133.05 Y150.74 E91.16829
G1 X132.85 Y150.94 E91.18240
G1 X132.85 Y155.69 E91.41918
G1 X133.05 Y155.88 E91.43329
G1 X133.05 Y157.28 E91.50314
G1 X133.25 Y157.49 E91.51725
G1 X133.25 Y158.88 E91.58709
G1 X133.45 Y159.09 E91.60120
G1 X133.45 Y160.49 E91.67105
G1 X133.65 Y160.69 E91.68516
G1 X133.65 Y161.28 E91.71509
G1 X133.85 Y161.49 E91.72921
G1 X133.85 Y162.28 E91.76912
G1 X134.05 Y162.49 E91.78323
G1 X134.05 Y163.28 E91.82314
G1 X134.25 Y163.49 E91.83725
G1 X134.25 Y164.28 E91.87716
G1 X134.45 Y164.49 E91.89128
G1 X134.45 Y165.28 E91.93119
G1 X134.65 Y165.49 E91.94530
G1 X134.65 Y165.69 E91.95528
G1 X134.85 Y165.88 E91.96939
G1 X134.85 Y166.28 E91.98934
G1 X135.05 Y166.49 E92.00346
G1 X135.05 Y166.88 E92.02341
G1 X135.25 Y167.09 E92.03752
G1 X135.25 Y167.49 E92.05748
G1 X135.45 Y167.69 E92.07159
G1 X135.45 Y168.09 E92.09155
G1 X135.65 Y168.28 E92.10566
G1 X135.65 Y168.49 E92.11563
G1 X135.85 Y168.69 E92.12975
G1 X135.85 Y169.09 E92.14970
G1 X136.05 Y169.28 E92.16381
G1 X136.05 Y169.69 E92.18377
G1 X136.25 Y169.88 E92.19788
G1 X136.25 Y170.09 E92.20786
G1 X136.45 Y170.28 E92.22197
G1 X136.45 Y170.49 E92.23195
G1 X136.65 Y170.69 E92.24606
G1 X136.65 Y171.09 E92.26601
G1 X136.85 Y171.28 E92.28013
G1 X136.85 Y171.49 E92.29010
G1 X137.05 Y171.69 E92.30421
G1 X137.05 Y171.88 E92.31419
G1 X137.25 Y172.09 E92.32830
G1 X137.25 Y172.49 E92.34826
G1 X137.45 Y172.69 E92.36237
G1 X137.45 Y172.88 E92.37235
G1 X137.65 Y173.09 E92.38646
G1 X137.65 Y173.28 E92.39644
G1 X137.85 Y173.49 E92.41055
G1 X137.85 Y173.88 E92.43051
G1 X138.25 Y174.28 E92.45873
G1 X138.25 Y174.49 E92.46871
G1 X138.45 Y174.69 E92.48282
G1 X138.45 Y174.88 E92.49279
G1 X138.85 Y175.28 E92.52102
G1 X138.85 Y175.49 E92.53099
G1 X139.05 Y175.69 E92.54511
G1 X139.05 Y175.88 E92.55508
G1 X139.25 Y176.09 E92.56920
G1 X139.25 Y176.28 E92.57917
G1 X139.65 Y176.69 E92.60740
G1 X139.65 Y176.88 E92.61737
G1 X139.85 Y177.09 E92.63148
G1 X139.85 Y177.28 E92.64146
G1 X140.05 Y177.49 E92.65557
G1 X140.05 Y177.69 E92.66555
G1 X141.05 Y178.69 E92.73611
G1 X141.05 Y178.88 E92.74608
G1 X141.85 Y179.69 E92.80253
G1 X141.85 Y179.88 E92.81251
G1 X142.65 Y180.69 E92.86895
G1 X142.65 Y180.89 E92.87898
G1 X142.96 Y181.20 E92.90099
G1 X143.36 Y181.40 E92.92342
G1 X143.56 Y181.60 E92.93753
G1 X143.96 Y181.80 E92.95984
G1 X144.36 Y182.20 E92.98803
G1 X144.76 Y182.40 E93.01038
G1 X145.16 Y182.80 E93.03857
G1 X145.56 Y183.00 E93.06092
G1 X145.96 Y183.40 E93.08915
G1 X147.68 Y184.25 E93.18464
G1 X148.06 Y184.35 E93.20439
G1 X148.65 Y184.55 E93.23548
G1 X149.46 Y184.75 E93.27688
G1 X150.30 Y185.03 E93.32148
G1 X151.36 Y185.17 E93.37463
G1 X153.08 Y185.41 E93.46111
G1 X154.73 Y185.21 E93.54426
G1 X154.94 Y185.15 E93.55482
G1 X156.71 Y184.56 E93.64810
G1 X159.04 Y183.40 E93.77785
G1 X159.24 Y183.20 E93.79196
G1 X159.64 Y183.00 E93.81431
G1 X160.04 Y182.60 E93.84250
G1 X160.44 Y182.40 E93.86486
G1 X160.84 Y182.00 E93.89304
G1 X161.24 Y181.80 E93.91547
G1 X162.95 Y180.09 E94.03626
G1 X162.95 Y179.88 E94.04628
G1 X163.75 Y179.09 E94.10273
G1 X163.75 Y178.88 E94.11271
G1 X164.55 Y178.09 E94.16915
G1 X164.55 Y177.88 E94.17913
G1 X164.95 Y177.49 E94.20735
G1 X164.95 Y177.28 E94.21733
G1 X165.15 Y177.09 E94.23144
G1 X165.15 Y176.88 E94.24142
G1 X165.55 Y176.49 E94.26964
G1 X165.55 Y176.28 E94.27962
G1 X165.75 Y176.09 E94.29373
G1 X165.75 Y175.88 E94.30371
G1 X165.95 Y175.69 E94.31782
G1 X165.95 Y175.49 E94.32780
G1 X166.35 Y175.09 E94.35602
G1 X166.35 Y174.88 E94.36600
G1 X166.55 Y174.69 E94.38011
G1 X166.55 Y174.49 E94.39009
G1 X166.75 Y174.28 E94.40420
G1 X166.75 Y174.09 E94.41418
G1 X166.95 Y173.88 E94.42829
G1 X166.95 Y173.69 E94.43826
G1 X167.15 Y173.49 E94.45238
G1 X167.15 Y173.28 E94.46235
G1 X167.35 Y173.09 E94.47646
G1 X167.35 Y172.88 E94.48644
G1 X167.55 Y172.69 E94.50055
G1 X167.55 Y172.49 E94.51053
G1 X167.75 Y172.28 E94.52464
G1 X167.75 Y172.09 E94.53462
G1 X167.95 Y171.88 E94.54873
G1 X167.95 Y171.69 E94.55871
G1 X168.15 Y171.49 E94.57282
G1 X168.15 Y171.28 E94.58280
G1 X168.35 Y171.09 E94.59691
G1 X168.35 Y170.88 E94.60689
G1 X168.55 Y170.69 E94.62100
G1 X168.55 Y170.49 E94.63098
G1 X168.75 Y170.28 E94.64509
G1 X168.75 Y169.88 E94.66504
G1 X168.95 Y169.69 E94.67916
G1 X168.95 Y169.09 E94.70909
G1 X169.15 Y168.88 E94.72320
G1 X169.15 Y168.28 E94.75314
G1 X169.35 Y168.09 E94.76725
G1 X169.35 Y167.88 E94.77722
G1 X169.55 Y167.69 E94.79134
G1 X169.55 Y167.28 E94.81129
G1 X169.75 Y167.09 E94.82540
G1 X169.75 Y166.69 E94.84536
G1 X169.95 Y166.49 E94.85947
G1 X169.95 Y166.09 E94.87943
G1 X170.15 Y165.88 E94.89354
G1 X170.15 Y165.49 E94.91349
G1 X170.35 Y165.28 E94.92760
G1 X170.35 Y164.69 E94.95754
G1 X170.55 Y164.49 E94.97165
G1 X170.55 Y163.88 E95.00158
G1 X170.75 Y163.69 E95.01569
G1 X170.75 Y163.09 E95.04563
G1 X170.95 Y162.88 E95.05974
G1 X170.95 Y162.28 E95.08967
G1 X171.15 Y162.09 E95.10378
G1 X171.15 Y161.49 E95.13372
G1 X171.35 Y161.28 E95.14783
G1 X171.35 Y160.69 E95.17776
G1 X171.55 Y160.49 E95.19188
G1 X171.55 Y159.09 E95.26172
G1 X171.75 Y158.88 E95.27583
G1 X171.75 Y157.49 E95.34568
G1 X171.95 Y157.28 E95.35979
G1 X171.95 Y155.88 E95.42964
G1 X172.15 Y155.69 E95.44375
G1 X172.15 Y150.94 E95.68053
G1 X171.95 Y150.74 E95.69464
G1 X171.95 Y149.14 E95.77446
G1 X171.75 Y148.94 E95.78857
G1 X171.75 Y147.54 E95.85842
G1 X171.55 Y147.34 E95.87253
G1 X171.55 Y145.94 E95.94238
G1 X171.35 Y145.74 E95.95649
G1 X171.35 Y145.14 E95.98642
G1 X171.15 Y144.94 E96.00053
G1 X171.15 Y144.34 E96.03047
G1 X170.95 Y144.14 E96.04458
G1 X170.95 Y143.54 E96.07451
G1 X170.75 Y143.34 E96.08862
G1 X170.75 Y142.74 E96.11856
G1 X170.55 Y142.54 E96.13267
G1 X170.55 Y141.94 E96.16260
G1 X170.35 Y141.74 E96.17671
G1 X170.35 Y141.14 E96.20665
G1 X170.15 Y140.94 E96.22076
G1 X170.15 Y140.34 E96.25069
G1 X169.95 Y140.14 E96.26480
G1 X169.95 Y139.74 E96.28476
G1 X169.75 Y139.54 E96.29887
G1 X169.75 Y139.14 E96.31883
G1 X169.55 Y138.94 E96.33294
G1 X169.55 Y138.54 E96.35289
G1 X169.35 Y138.34 E96.36701
G1 X169.35 Y137.94 E96.38696
G1 X169.15 Y137.74 E96.40107
G1 X169.15 Y137.34 E96.42103
G1 X168.95 Y137.14 E96.43514
G1 X168.95 Y136.74 E96.45510
G1 X168.75 Y136.54 E96.46921
G1 X168.75 Y136.14 E96.48916
G1 X168.55 Y135.94 E96.50327
G1 X168.55 Y135.74 E96.51325
G1 X168.35 Y135.54 E96.52736
G1 X168.35 Y135.34 E96.53734
G1 X168.15 Y135.14 E96.55145
G1 X168.15 Y134.94 E96.56143
G1 X167.95 Y134.74 E96.57554
G1 X167.95 Y134.54 E96.58552
G1 X167.75 Y134.34 E96.59963
G1 X167.75 Y134.14 E96.60961
G1 X167.55 Y133.94 E96.62372
G1 X167.55 Y133.74 E96.63370
G1 X167.35 Y133.54 E96.64781
G1 X167.35 Y133.34 E96.65779
G1 X167.15 Y133.14 E96.67190
G1 X167.15 Y132.94 E96.68188
G1 X166.95 Y132.74 E96.69599
G1 X166.95 Y132.54 E96.70596
G1 X166.75 Y132.34 E96.72008
G1 X166.75 Y132.14 E96.73005
G1 X166.55 Y131.94 E96.74417
G1 X166.55 Y131.74 E96.75414
G1 X166.35 Y131.54 E96.76825
G1 X166.35 Y131.34 E96.77823
G1 X165.95 Y130.94 E96.80645
G1 X165.95 Y130.74 E96.81643
G1 X165.75 Y130.54 E96.83054
G1 X165.75 Y130.34 E96.84052
G1 X165.55 Y130.14 E96.85463
G1 X165.55 Y129.94 E96.86461
G1 X165.15 Y129.54 E96.89283
G1 X165.15 Y129.34 E96.90281
G1 X164.95 Y129.14 E96.91692
G1 X164.95 Y128.94 E96.92690
G1 X164.55 Y128.54 E96.95512
G1 X164.55 Y128.34 E96.96510
G1 X163.75 Y127.54 E97.02154
G1 X163.75 Y127.34 E97.03152
G1 X162.95 Y126.54 E97.08797
G1 X162.95 Y126.34 E97.09799
G1 X161.24 Y124.63 E97.21879
G1 X160.84 Y124.42 E97.24121
G1 X160.44 Y124.03 E97.26940
G1 X160.04 Y123.83 E97.29175
G1 X159.64 Y123.42 E97.31994
G1 X159.24 Y123.22 E97.34230
G1 X159.04 Y123.03 E97.35641
G1 X156.71 Y121.86 E97.48615
G1 X154.94 Y121.27 E97.57944
G1 X154.73 Y121.22 E97.58993
G1 X153.79 Y121.10 E97.63734
G1 X152.75 Y121.11 E97.68893
G1 X151.46 Y121.27 E97.75383
G1 X150.27 Y121.40 E97.81397
G1 X149.46 Y121.67 E97.85652
G1 X148.65 Y121.88 E97.89801
G1 X148.06 Y122.07 E97.92906
G1 X147.68 Y122.17 E97.94881
G1 X145.96 Y123.03 E98.04430
G1 X145.56 Y123.42 E98.07252
G1 X145.16 Y123.62 E98.09488
G1 X144.76 Y124.03 E98.12307
G1 X144.36 Y124.22 E98.14542
G1 X143.96 Y124.62 E98.17361
G1 X143.56 Y124.83 E98.19592
G1 X143.36 Y125.03 E98.21003
G1 X142.96 Y125.23 E98.23245
G1 X142.65 Y125.54 E98.25447
G1 X142.65 Y125.74 E98.26450
G1 X141.85 Y126.54 E98.32094
G1 X141.85 Y126.74 E98.33092
G1 X141.05 Y127.54 E98.38736
G1 X141.05 Y127.74 E98.39734
G1 X140.05 Y128.74 E98.46790
G1 X140.05 Y128.94 E98.47787
G1 X139.85 Y129.14 E98.49199
G1 X139.85 Y129.34 E98.50196
G1 X139.65 Y129.54 E98.51607
G1 X139.65 Y129.74 E98.52605
G1 X139.25 Y130.14 E98.55427
G1 X139.25 Y130.34 E98.56425
G1 X139.05 Y130.54 E98.57836
G1 X139.05 Y130.74 E98.58834
G1 X138.85 Y130.94 E98.60245
G1 X138.85 Y131.14 E98.61243
G1 X138.45 Y131.54 E98.64065
G1 X138.45 Y131.74 E98.65063
G1 X138.25 Y131.94 E98.66474
G1 X138.25 Y132.14 E98.67472
G1 X137.85 Y132.54 E98.70294
G1 X137.85 Y132.94 E98.72290
G1 X137.65 Y133.14 E98.73701
G1 X137.65 Y133.34 E98.74699
G1 X137.45 Y133.54 E98.76110
G1 X137.45 Y133.74 E98.77108
G1 X137.25 Y133.94 E98.78519
G1 X137.25 Y134.34 E98.80514
G1 X137.05 Y134.54 E98.81925
G1 X137.05 Y134.74 E98.82923
G1 X136.85 Y134.94 E98.84334
G1 X136.85 Y135.14 E98.85332
G1 X136.65 Y135.34 E98.86743
G1 X136.65 Y135.74 E98.88739
G1 X136.45 Y135.94 E98.90150
G1 X136.45 Y136.14 E98.91148
G1 X136.25 Y136.34 E98.92559
G1 X136.25 Y136.54 E98.93557
G1 X136.05 Y136.74 E98.94968
G1 X136.05 Y137.14 E98.96963
G1 X135.85 Y137.34 E98.98375
G1 X135.85 Y137.74 E99.00370
G1 X135.65 Y137.94 E99.01781
G1 X135.65 Y138.34 E99.03777
G1 X135.45 Y138.54 E99.05188
G1 X135.45 Y138.74 E99.06186
G1 X135.25 Y138.94 E99.07597
G1 X135.25 Y139.34 E99.09593
G1 X135.05 Y139.54 E99.11004
G1 X135.05 Y139.94 E99.12999
G1 X134.85 Y140.14 E99.14410
G1 X134.85 Y140.54 E99.16406
G1 X134.65 Y140.74 E99.17817
G1 X134.65 Y140.94 E99.18815
G1 X134.45 Y141.14 E99.20226
G1 X134.45 Y141.94 E99.24217
G1 X134.25 Y142.14 E99.25628
G1 X134.25 Y142.94 E99.29620
G1 X134.05 Y143.14 E99.31031
G1 X134.05 Y143.94 E99.35022
G1 X133.85 Y144.14 E99.36433
G1 X133.85 Y144.94 E99.40424
G1 X133.65 Y145.14 E99.41835
G1 X133.65 Y145.74 E99.44829
G1 X133.45 Y145.94 E99.46240
G1 X133.45 Y147.54 E99.54222
G1 X133.25 Y147.74 E99.55633
G1 X133.25 Y149.14 E99.62618
G0 F12000 X132.85 Y148.97
G1 F2700 X132.65 Y149.17 E99.64029
G1 X132.65 Y150.57 E99.71014
G1 X132.45 Y150.77 E99.72425
G1 X132.45 Y155.85 E99.97759
G1 X132.65 Y156.05 E99.99170
G1 X132.65 Y157.45 E100.06155
G1 X132.85 Y157.65 E100.07566
G1 X132.85 Y159.05 E100.14551
G1 X133.05 Y159.25 E100.15962
G1 X133.05 Y160.65 E100.22946
G1 X133.25 Y160.85 E100.24357
G1 X133.25 Y161.45 E100.27351
G1 X133.45 Y161.65 E100.28762
G1 X133.45 Y162.45 E100.32753
G1 X133.65 Y162.65 E100.34164
G1 X133.65 Y163.45 E100.38155
G1 X133.85 Y163.65 E100.39567
G1 X133.85 Y164.45 E100.43558
G1 X134.05 Y164.65 E100.44969
G1 X134.05 Y165.45 E100.48960
G1 X134.25 Y165.65 E100.50371
G1 X134.25 Y165.85 E100.51369
G1 X134.45 Y166.05 E100.52780
G1 X134.45 Y166.45 E100.54776
G1 X134.65 Y166.65 E100.56187
G1 X134.65 Y167.05 E100.58182
G1 X134.85 Y167.25 E100.59594
G1 X134.85 Y167.65 E100.61589
G1 X135.05 Y167.85 E100.63000
G1 X135.05 Y168.25 E100.64996
G1 X135.25 Y168.45 E100.66407
G1 X135.25 Y168.65 E100.67405
G1 X135.45 Y168.85 E100.68816
G1 X135.45 Y169.25 E100.70811
G1 X135.65 Y169.45 E100.72223
G1 X135.65 Y169.85 E100.74218
G1 X135.85 Y170.05 E100.75629
G1 X135.85 Y170.25 E100.76627
G1 X136.05 Y170.45 E100.78038
G1 X136.05 Y170.65 E100.79036
G1 X136.25 Y170.85 E100.80447
G1 X136.25 Y171.25 E100.82443
G1 X136.45 Y171.45 E100.83854
G1 X136.45 Y171.65 E100.84852
G1 X136.65 Y171.85 E100.86263
G1 X136.65 Y172.05 E100.87261
G1 X136.85 Y172.25 E100.88672
G1 X136.85 Y172.65 E100.90667
G1 X137.05 Y172.85 E100.92078
G1 X137.05 Y173.05 E100.93076
G1 X137.25 Y173.25 E100.94487
G1 X137.25 Y173.45 E100.95485
G1 X137.45 Y173.65 E100.96896
G1 X137.45 Y174.05 E100.98892
G1 X137.85 Y174.45 E101.01714
G1 X137.85 Y174.65 E101.02712
G1 X138.05 Y174.85 E101.04123
G1 X138.05 Y175.05 E101.05121
G1 X138.45 Y175.45 E101.07943
G1 X138.45 Y175.65 E101.08941
G1 X138.65 Y175.85 E101.10352
G1 X138.65 Y176.05 E101.11350
G1 X138.85 Y176.25 E101.12761
G1 X138.85 Y176.45 E101.13759
G1 X139.25 Y176.85 E101.16581
G1 X139.25 Y177.05 E101.17579
G1 X139.45 Y177.25 E101.18990
G1 X139.45 Y177.45 E101.19988
G1 X139.65 Y177.65 E101.21399
G1 X139.65 Y177.85 E101.22396
G1 X140.65 Y178.85 E101.29452
G1 X140.65 Y179.05 E101.30450
G1 X141.45 Y179.85 E101.36094
G1 X141.45 Y180.05 E101.37092
G1 X142.25 Y180.85 E101.42736
G1 X142.25 Y181.05 E101.43729
G1 X142.73 Y181.53 E101.47109
G1 X143.13 Y181.73 E101.49329
G1 X143.33 Y181.93 E101.50743
G1 X143.73 Y182.13 E101.52970
G1 X144.13 Y182.53 E101.55796
G1 X144.53 Y182.73 E101.58023
G1 X144.93 Y183.13 E101.60848
G1 X145.33 Y183.33 E101.63075
G1 X145.73 Y183.73 E101.65908
G1 X147.53 Y184.63 E101.75982
G1 X147.95 Y184.74 E101.78100
G1 X148.55 Y184.94 E101.81282
G1 X149.34 Y185.13 E101.85355
G1 X150.22 Y185.43 E101.89935
G1 X151.31 Y185.56 E101.95431
G1 X153.07 Y185.81 E102.04332
G1 X154.80 Y185.60 E102.13030
G1 X155.06 Y185.53 E102.14332
G1 X156.86 Y184.93 E102.23818
G1 X159.27 Y183.73 E102.37267
G1 X159.47 Y183.53 E102.38682
G1 X159.87 Y183.33 E102.40909
G1 X160.27 Y182.93 E102.43735
G1 X160.67 Y182.73 E102.45961
G1 X161.07 Y182.33 E102.48787
G1 X161.47 Y182.13 E102.51007
G1 X163.35 Y180.25 E102.64264
G1 X163.35 Y180.05 E102.65257
G1 X164.15 Y179.25 E102.70902
G1 X164.15 Y179.05 E102.71899
G1 X164.95 Y178.25 E102.77544
G1 X164.95 Y178.05 E102.78542
G1 X165.35 Y177.65 E102.81364
G1 X165.35 Y177.45 E102.82362
G1 X165.55 Y177.25 E102.83773
G1 X165.55 Y177.05 E102.84771
G1 X165.95 Y176.65 E102.87593
G1 X165.95 Y176.45 E102.88591
G1 X166.15 Y176.25 E102.90002
G1 X166.15 Y176.05 E102.91000
G1 X166.35 Y175.85 E102.92411
G1 X166.35 Y175.65 E102.93408
G1 X166.75 Y175.25 E102.96231
G1 X166.75 Y175.05 E102.97228
G1 X166.95 Y174.85 E102.98640
G1 X166.95 Y174.65 E102.99637
G1 X167.15 Y174.45 E103.01048
G1 X167.15 Y174.25 E103.02046
G1 X167.35 Y174.05 E103.03457
G1 X167.35 Y173.85 E103.04455
G1 X167.55 Y173.65 E103.05866
G1 X167.55 Y173.45 E103.06864
G1 X167.75 Y173.25 E103.08275
G1 X167.75 Y173.05 E103.09273
G1 X167.95 Y172.85 E103.10684
G1 X167.95 Y172.65 E103.11682
G1 X168.15 Y172.45 E103.13093
G1 X168.15 Y172.25 E103.14091
G1 X168.35 Y172.05 E103.15502
G1 X168.35 Y171.85 E103.16500
G1 X168.55 Y171.65 E103.17911
G1 X168.55 Y171.45 E103.18909
G1 X168.75 Y171.25 E103.20320
G1 X168.75 Y171.05 E103.21318
G1 X168.95 Y170.85 E103.22729
G1 X168.95 Y170.65 E103.23726
G1 X169.15 Y170.45 E103.25138
G1 X169.15 Y170.05 E103.27133
G1 X169.35 Y169.85 E103.28544
G1 X169.35 Y169.25 E103.31538
G1 X169.55 Y169.05 E103.32949
G1 X169.55 Y168.45 E103.35942
G1 X169.75 Y168.25 E103.37353
G1 X169.75 Y168.05 E103.38351
G1 X169.95 Y167.85 E103.39762
G1 X169.95 Y167.45 E103.41758
G1 X170.15 Y167.25 E103.43169
G1 X170.15 Y166.85 E103.45165
G1 X170.35 Y166.65 E103.46576
G1 X170.35 Y166.25 E103.48571
G1 X170.55 Y166.05 E103.49982
G1 X170.55 Y165.65 E103.51978
G1 X170.75 Y165.45 E103.53389
G1 X170.75 Y164.85 E103.56383
G1 X170.95 Y164.65 E103.57794
G1 X170.95 Y164.05 E103.60787
G1 X171.15 Y163.85 E103.62198
G1 X171.15 Y163.25 E103.65192
G1 X171.35 Y163.05 E103.66603
G1 X171.35 Y162.45 E103.69596
G1 X171.55 Y162.25 E103.71007
G1 X171.55 Y161.65 E103.74001
G1 X171.75 Y161.45 E103.75412
G1 X171.75 Y160.85 E103.78405
G1 X171.95 Y160.65 E103.79816
G1 X171.95 Y159.25 E103.86801
G1 X172.15 Y159.05 E103.88212
G1 X172.15 Y157.65 E103.95197
G1 X172.35 Y157.45 E103.96608
G1 X172.35 Y156.05 E104.03592
G1 X172.55 Y155.85 E104.05003
G1 X172.55 Y150.77 E104.30338
G1 X172.35 Y150.57 E104.31749
G1 X172.35 Y148.97 E104.39731
G1 X172.15 Y148.77 E104.41142
G1 X172.15 Y147.37 E104.48127
G1 X171.95 Y147.17 E104.49538
G1 X171.95 Y145.77 E104.56523
G1 X171.75 Y145.57 E104.57934
G1 X171.75 Y144.97 E104.60927
G1 X171.55 Y144.77 E104.62338
G1 X171.55 Y144.17 E104.65332
G1 X171.35 Y143.97 E104.66743
G1 X171.35 Y143.37 E104.69736
G1 X171.15 Y143.17 E104.71147
G1 X171.15 Y142.57 E104.74141
G1 X170.95 Y142.37 E104.75552
G1 X170.95 Y141.77 E104.78545
G1 X170.75 Y141.57 E104.79956
G1 X170.75 Y140.97 E104.82950
G1 X170.55 Y140.77 E104.84361
G1 X170.55 Y140.17 E104.87354
G1 X170.35 Y139.97 E104.88765
G1 X170.35 Y139.57 E104.90761
G1 X170.15 Y139.37 E104.92172
G1 X170.15 Y138.97 E104.94168
G1 X169.95 Y138.77 E104.95579
G1 X169.95 Y138.37 E104.97575
G1 X169.75 Y138.17 E104.98986
G1 X169.75 Y137.77 E105.00981
G1 X169.55 Y137.57 E105.02392
G1 X169.55 Y137.17 E105.04388
G1 X169.35 Y136.97 E105.05799
G1 X169.35 Y136.57 E105.07795
G1 X169.15 Y136.37 E105.09206
G1 X169.15 Y135.97 E105.11201
G1 X168.95 Y135.77 E105.12612
G1 X168.95 Y135.57 E105.13610
G1 X168.75 Y135.37 E105.15021
G1 X168.75 Y135.17 E105.16019
G1 X168.55 Y134.97 E105.17430
G1 X168.55 Y134.77 E105.18428
G1 X168.35 Y134.57 E105.19839
G1 X168.35 Y134.37 E105.20837
G1 X168.15 Y134.17 E105.22248
G1 X168.15 Y133.97 E105.23246
G1 X167.95 Y133.77 E105.24657
G1 X167.95 Y133.57 E105.25655
G1 X167.75 Y133.37 E105.27066
G1 X167.75 Y133.17 E105.28064
G1 X167.55 Y132.97 E105.29475
G1 X167.55 Y132.77 E105.30473
G1 X167.35 Y132.57 E105.31884
G1 X167.35 Y132.37 E105.32882
G1 X167.15 Y132.17 E105.34293
G1 X167.15 Y131.97 E105.35290
G1 X166.95 Y131.77 E105.36702
G1 X166.95 Y131.57 E105.37699
G1 X166.75 Y131.37 E105.39111
G1 X166.75 Y131.17 E105.40108
G1 X166.35 Y130.77 E105.42931
G1 X166.35 Y130.57 E105.43928
G1 X166.15 Y130.37 E105.45339
G1 X166.15 Y130.17 E105.46337
G1 X165.95 Y129.97 E105.47748
G1 X165.95 Y129.77 E105.48746
G1 X165.55 Y129.37 E105.51568
G1 X165.55 Y129.17 E105.52566
G1 X165.35 Y128.97 E105.53977
G1 X165.35 Y128.77 E105.54975
G1 X164.95 Y128.37 E105.57797
G1 X164.95 Y128.17 E105.58795
G1 X164.15 Y127.37 E105.64440
G1 X164.15 Y127.17 E105.65437
G1 X163.35 Y126.37 E105.71082
G1 X163.35 Y126.17 E105.72075
G1 X161.47 Y124.30 E105.85332
G1 X161.07 Y124.10 E105.87552
G1 X160.67 Y123.70 E105.90378
G1 X160.27 Y123.50 E105.92604
G1 X159.87 Y123.10 E105.95430
G1 X159.47 Y122.90 E105.97657
G1 X159.27 Y122.70 E105.99071
G1 X156.86 Y121.49 E106.12521
G1 X155.06 Y120.89 E106.22007
G1 X154.81 Y120.83 E106.23303
G1 X153.81 Y120.70 E106.28292
G1 X152.73 Y120.71 E106.33700
G1 X151.42 Y120.87 E106.40296
G1 X150.18 Y121.01 E106.46500
G1 X149.34 Y121.29 E106.50897
G1 X148.55 Y121.49 E106.54980
G1 X147.95 Y121.69 E106.58157
G1 X147.53 Y121.79 E106.60276
G1 X145.73 Y122.69 E106.70349
G1 X145.33 Y123.10 E106.73182
G1 X144.93 Y123.30 E106.75409
G1 X144.53 Y123.70 E106.78235
G1 X144.13 Y123.90 E106.80461
G1 X143.73 Y124.30 E106.83287
G1 X143.33 Y124.50 E106.85514
G1 X143.13 Y124.70 E106.86928
G1 X142.73 Y124.89 E106.89148
G1 X142.25 Y125.37 E106.92528
G1 X142.25 Y125.57 E106.93521
G1 X141.45 Y126.37 E106.99165
G1 X141.45 Y126.57 E107.00163
G1 X140.65 Y127.37 E107.05807
G1 X140.65 Y127.57 E107.06805
G1 X139.65 Y128.57 E107.13861
G1 X139.65 Y128.77 E107.14859
G1 X139.45 Y128.97 E107.16270
G1 X139.45 Y129.17 E107.17268
G1 X139.25 Y129.37 E107.18679
G1 X139.25 Y129.57 E107.19676
G1 X138.85 Y129.97 E107.22499
G1 X138.85 Y130.17 E107.23496
G1 X138.65 Y130.37 E107.24908
G1 X138.65 Y130.57 E107.25905
G1 X138.45 Y130.77 E107.27316
G1 X138.45 Y130.97 E107.28314
G1 X138.05 Y131.37 E107.31137
G1 X138.05 Y131.57 E107.32134
G1 X137.85 Y131.77 E107.33545
G1 X137.85 Y131.97 E107.34543
G1 X137.45 Y132.37 E107.37365
G1 X137.45 Y132.77 E107.39361
G1 X137.25 Y132.97 E107.40772
G1 X137.25 Y133.17 E107.41770
G1 X137.05 Y133.37 E107.43181
G1 X137.05 Y133.57 E107.44179
G1 X136.85 Y133.77 E107.45590
G1 X136.85 Y134.17 E107.47586
G1 X136.65 Y134.37 E107.48997
G1 X136.65 Y134.57 E107.49995
G1 X136.45 Y134.77 E107.51406
G1 X136.45 Y134.97 E107.52403
G1 X136.25 Y135.17 E107.53815
G1 X136.25 Y135.57 E107.55810
G1 X136.05 Y135.77 E107.57221
G1 X136.05 Y135.97 E107.58219
G1 X135.85 Y136.17 E107.59630
G1 X135.85 Y136.37 E107.60628
G1 X135.65 Y136.57 E107.62039
G1 X135.65 Y136.97 E107.64035
G1 X135.45 Y137.17 E107.65446
G1 X135.45 Y137.57 E107.67441
G1 X135.25 Y137.77 E107.68852
G1 X135.25 Y138.17 E107.70848
G1 X135.05 Y138.37 E107.72259
G1 X135.05 Y138.57 E107.73257
G1 X134.85 Y138.77 E107.74668
G1 X134.85 Y139.17 E107.76664
G1 X134.65 Y139.37 E107.78075
G1 X134.65 Y139.77 E107.80070
G1 X134.45 Y139.97 E107.81482
G1 X134.45 Y140.37 E107.83477
G1 X134.25 Y140.57 E107.84888
G1 X134.25 Y140.77 E107.85886
G1 X134.05 Y140.97 E107.87297
G1 X134.05 Y141.77 E107.91288
G1 X133.85 Y141.97 E107.92700
G1 X133.85 Y142.77 E107.96691
G1 X133.65 Y142.97 E107.98102
G1 X133.65 Y143.77 E108.02093
G1 X133.45 Y143.97 E108.03504
G1 X133.45 Y144.77 E108.07495
G1 X133.25 Y144.97 E108.08906
G1 X133.25 Y145.57 E108.11900
G1 X133.05 Y145.77 E108.13311
G1 X133.05 Y147.37 E108.21293
G1 X132.85 Y147.57 E108.22705
G1 X132.85 Y148.97 E108.29689
G0 F12000 X132.45 Y148.81
G1 F2700 X132.25 Y149.01 E108.31100
G1 X132.25 Y150.41 E108.38085
G1 X132.05 Y150.61 E108.39496
G1 X132.05 Y156.02 E108.66487
G1 X132.25 Y156.22 E108.67898
G1 X132.25 Y157.62 E108.74882
G1 X132.45 Y157.82 E108.76293
G1 X132.45 Y159.22 E108.83278
G1 X132.65 Y159.42 E108.84689
G1 X132.65 Y160.82 E108.91674
G1 X132.85 Y161.02 E108.93085
G1 X132.85 Y161.62 E108.96078
G1 X133.05 Y161.82 E108.97489
G1 X133.05 Y162.62 E109.01481
G1 X133.25 Y162.82 E109.02892
G1 X133.25 Y163.62 E109.06883
G1 X133.45 Y163.82 E109.08294
G1 X133.45 Y164.62 E109.12285
G1 X133.65 Y164.82 E109.13696
G1 X133.65 Y165.62 E109.17688
G1 X133.85 Y165.82 E109.19099
G1 X133.85 Y166.02 E109.20097
G1 X134.05 Y166.22 E109.21508
G1 X134.05 Y166.62 E109.23503
G1 X134.25 Y166.82 E109.24914
G1 X134.25 Y167.22 E109.26910
G1 X134.45 Y167.42 E109.28321
G1 X134.45 Y167.82 E109.30317
G1 X134.65 Y168.02 E109.31728
G1 X134.65 Y168.42 E109.33723
G1 X134.85 Y168.62 E109.35135
G1 X134.85 Y168.82 E109.36132
G1 X135.05 Y169.02 E109.37543
G1 X135.05 Y169.42 E109.39539
G1 X135.25 Y169.62 E109.40950
G1 X135.25 Y170.02 E109.42946
G1 X135.45 Y170.22 E109.44357
G1 X135.45 Y170.42 E109.45355
G1 X135.65 Y170.62 E109.46766
G1 X135.65 Y170.82 E109.47764
G1 X135.85 Y171.02 E109.49175
G1 X135.85 Y171.42 E109.51170
G1 X136.05 Y171.62 E109.52581
G1 X136.05 Y171.82 E109.53579
G1 X136.25 Y172.02 E109.54990
G1 X136.25 Y172.22 E109.55988
G1 X136.45 Y172.42 E109.57399
G1 X136.45 Y172.82 E109.59395
G1 X136.65 Y173.02 E109.60806
G1 X136.65 Y173.22 E109.61804
G1 X136.85 Y173.42 E109.63215
G1 X136.85 Y173.62 E109.64213
G1 X137.05 Y173.82 E109.65624
G1 X137.05 Y174.22 E109.67619
G1 X137.45 Y174.62 E109.70442
G1 X137.45 Y174.82 E109.71439
G1 X137.65 Y175.02 E109.72851
G1 X137.65 Y175.22 E109.73848
G1 X138.05 Y175.62 E109.76671
G1 X138.05 Y175.82 E109.77668
G1 X138.25 Y176.02 E109.79079
G1 X138.25 Y176.22 E109.80077
G1 X138.45 Y176.42 E109.81488
G1 X138.45 Y176.62 E109.82486
G1 X138.85 Y177.02 E109.85308
G1 X138.85 Y177.22 E109.86306
G1 X139.05 Y177.42 E109.87717
G1 X139.05 Y177.62 E109.88715
G1 X139.25 Y177.82 E109.90126
G1 X139.25 Y178.02 E109.91124
G1 X140.25 Y179.02 E109.98180
G1 X140.25 Y179.22 E109.99177
G1 X141.05 Y180.02 E110.04822
G1 X141.05 Y180.22 E110.05820
G1 X141.85 Y181.02 E110.11464
G1 X141.85 Y181.22 E110.12457
G1 X142.49 Y181.86 E110.16979
G1 X142.89 Y182.06 E110.19204
G1 X143.09 Y182.26 E110.20622
G1 X143.49 Y182.46 E110.22847
G1 X143.89 Y182.86 E110.25676
