;-- START GCODE --
;Sliced for Type A Machines Series 1
;Sliced at: Sat 03-12-2016 18:23:49
;Basic settings: Layer height: 0.2 Walls: 3 Fill: 20
;Print Speed: 100 Support: 0
;Retraction Speed: 40 Retraction Distance: 1.2
;Print time: #P_TIME#
;Filament used: #F_AMNT#m #F_WGHT#g
;Filament cost: #F_COST#
M106 S255	 ;start with the fan on
G21        ;metric values
G90        ;absolute positioning
M106 S255    ;start with the fan on
G28     ;move to endstops
G29		;allows for auto-levelling
G1 X150 Y5  Z15.0 F6000 ;center and move the platform down 15mm
M109 S220 ;Heat To temp
G92 E0                  ;zero the extruded length
G1 F200 E30              ;extrude 30mm of feed stock
G92 E0                  ;zero the extruded length again
G1 X175 Y25  Z0 F6000 ;remove bugger
G1 X220 F6000 ;remove bugger
G1 X150 Y150  Z15 F6000 ;recenter and begin
G1 F6000

;Layer count: 35
;LAYER:0
M106 S255
G0 F6000 X172.19 Y129.23 Z0.30
;TYPE:SKIRT
G1 F2700 X171.71 Y129.94 E0.04583
G1 X171.38 Y130.66 E0.08812
G1 X171.19 Y131.41 E0.12943
G1 X171.11 Y132.26 E0.17542
G1 X171.18 Y133.06 E0.21785
G1 X171.37 Y133.80 E0.25900
G1 X171.72 Y134.59 E0.30495
G1 X172.17 Y135.25 E0.34728
G1 X172.73 Y135.83 E0.39055
G1 X173.38 Y136.31 E0.43395
G1 X174.10 Y136.68 E0.47694
G1 X174.88 Y136.92 E0.52044
G1 X175.68 Y137.02 E0.56355
G1 X176.48 Y136.98 E0.60640
G1 X177.28 Y136.81 E0.64964
G1 X178.00 Y136.53 E0.69101
G1 X178.70 Y136.10 E0.73482
G1 X179.34 Y135.54 E0.78027
G1 X179.83 Y134.93 E0.82240
G1 X180.23 Y134.22 E0.86575
G1 X180.50 Y133.46 E0.90884
G1 X180.63 Y132.69 E0.95022
G1 X180.63 Y131.83 E0.99613
G1 X180.51 Y131.09 E1.03652
G1 X180.22 Y130.28 E1.08226
G1 X179.83 Y129.58 E1.12506
G1 X179.33 Y128.95 E1.16815
G1 X178.72 Y128.41 E1.21123
G1 X178.06 Y128.01 E1.25243
G1 X177.30 Y127.70 E1.29623
G1 X176.47 Y127.52 E1.34187
G1 X175.68 Y127.48 E1.38429
G1 X174.88 Y127.58 E1.42713
G1 X174.10 Y127.83 E1.47079
G1 X173.45 Y128.13 E1.50888
G1 X172.73 Y128.67 E1.55697
G1 X172.19 Y129.23 E1.59824
G0 F6000 X171.86 Y128.96
G1 F2700 X171.34 Y129.72 E1.64790
G1 X170.98 Y130.51 E1.69418
G1 X170.77 Y131.33 E1.73925
G1 X170.68 Y132.27 E1.78942
G1 X170.75 Y133.13 E1.83539
G1 X170.97 Y133.94 E1.88056
G1 X171.35 Y134.80 E1.93031
G1 X171.84 Y135.52 E1.97683
G1 X172.45 Y136.16 E2.02395
G1 X173.16 Y136.68 E2.07102
G1 X173.94 Y137.08 E2.11814
G1 X174.79 Y137.34 E2.16532
G1 X175.66 Y137.45 E2.21225
G1 X176.54 Y137.41 E2.25921
G1 X177.40 Y137.22 E2.30639
G1 X178.19 Y136.91 E2.35138
G1 X178.95 Y136.44 E2.39927
G1 X179.65 Y135.84 E2.44846
G1 X180.19 Y135.16 E2.49488
G1 X180.62 Y134.39 E2.54180
G1 X180.91 Y133.56 E2.58884
G1 X181.06 Y132.73 E2.63395
G1 X181.06 Y131.79 E2.68387
G1 X180.92 Y130.98 E2.72796
G1 X180.62 Y130.10 E2.77798
G1 X180.19 Y129.34 E2.82446
G1 X179.64 Y128.65 E2.87124
G1 X178.97 Y128.07 E2.91848
G1 X178.26 Y127.63 E2.96359
G1 X177.43 Y127.29 E3.01119
G1 X176.53 Y127.09 E3.06050
G1 X175.66 Y127.05 E3.10709
G1 X174.79 Y127.17 E3.15386
G1 X173.94 Y127.42 E3.20104
G1 X173.23 Y127.77 E3.24309
G1 X172.45 Y128.34 E3.29515
G1 X171.86 Y128.96 E3.34041
G0 F6000 X171.53 Y128.68
G1 F2700 X170.96 Y129.52 E3.39446
G1 X170.57 Y130.37 E3.44456
G1 X170.34 Y131.26 E3.49371
G1 X170.25 Y132.26 E3.54736
G1 X170.33 Y133.20 E3.59751
G1 X170.56 Y134.09 E3.64632
G1 X170.97 Y135.01 E3.70018
G1 X171.50 Y135.79 E3.75067
G1 X172.16 Y136.48 E3.80164
G1 X172.93 Y137.04 E3.85248
G1 X173.78 Y137.48 E3.90355
G1 X174.70 Y137.75 E3.95451
G1 X175.64 Y137.88 E4.00548
G1 X176.59 Y137.84 E4.05629
G1 X177.52 Y137.64 E4.10702
G1 X178.38 Y137.29 E4.15632
G1 X179.21 Y136.79 E4.20790
G1 X179.96 Y136.14 E4.26099
G1 X180.55 Y135.40 E4.31133
G1 X181.01 Y134.57 E4.36209
G1 X181.33 Y133.67 E4.41326
G1 X181.49 Y132.77 E4.46195
G1 X181.49 Y131.76 E4.51587
G1 X181.34 Y130.88 E4.56369
G1 X181.01 Y129.92 E4.61773
G1 X180.54 Y129.09 E4.66821
G1 X179.95 Y128.35 E4.71900
G1 X179.23 Y127.72 E4.76999
G1 X178.45 Y127.24 E4.81876
G1 X177.56 Y126.88 E4.87029
G1 X176.58 Y126.67 E4.92359
G1 X175.64 Y126.62 E4.97408
G1 X174.69 Y126.75 E5.02494
G1 X173.78 Y127.03 E5.07570
G1 X173.01 Y127.40 E5.12159
G1 X172.16 Y128.02 E5.17785
G1 X171.53 Y128.68 E5.22648
G0 F6000 X171.19 Y128.41
G1 F2700 X170.59 Y129.30 E5.28390
G1 X170.17 Y130.23 E5.33814
G1 X169.92 Y131.19 E5.39111
G1 X169.82 Y132.27 E5.44899
G1 X169.91 Y133.27 E5.50261
G1 X170.16 Y134.23 E5.55553
G1 X170.60 Y135.22 E5.61339
G1 X171.17 Y136.06 E5.66755
G1 X171.88 Y136.80 E5.72241
G1 X172.70 Y137.41 E5.77718
G1 X173.62 Y137.87 E5.83214
G1 X174.61 Y138.18 E5.88712
G1 X175.62 Y138.31 E5.94174
G1 X176.65 Y138.26 E5.99662
G1 X177.65 Y138.05 E6.05139
G1 X178.57 Y137.68 E6.10420
G1 X179.46 Y137.13 E6.15986
G1 X180.26 Y136.44 E6.21673
G1 X180.90 Y135.65 E6.27090
G1 X181.41 Y134.75 E6.32589
G1 X181.75 Y133.78 E6.38075
G1 X181.91 Y132.81 E6.43328
G1 X181.92 Y131.72 E6.49115
G1 X181.75 Y130.76 E6.54309
G1 X181.40 Y129.75 E6.60040
G1 X180.90 Y128.85 E6.65525
G1 X180.26 Y128.06 E6.70988
G1 X179.49 Y127.38 E6.76476
G1 X178.65 Y126.86 E6.81725
G1 X177.69 Y126.47 E6.87280
G1 X176.64 Y126.24 E6.93004
G1 X175.62 Y126.20 E6.98443
G1 X174.61 Y126.33 E7.03889
G1 X173.63 Y126.63 E7.09367
G1 X172.79 Y127.03 E7.14323
G1 X171.88 Y127.70 E7.20381
G1 X171.19 Y128.41 E7.25645
G0 F6000 X170.86 Y128.14
G1 F2700 X170.21 Y129.10 E7.31813
G1 X169.76 Y130.08 E7.37595
G1 X169.50 Y131.12 E7.43288
G1 X169.39 Y132.26 E7.49425
G1 X169.49 Y133.34 E7.55227
G1 X169.75 Y134.37 E7.60909
G1 X170.22 Y135.42 E7.67047
G1 X170.83 Y136.33 E7.72880
G1 X171.60 Y137.12 E7.78758
G1 X172.48 Y137.78 E7.84618
G1 X173.46 Y138.27 E7.90507
G1 X174.51 Y138.59 E7.96377
G1 X175.60 Y138.74 E8.02243
G1 X176.71 Y138.69 E8.08126
G1 X177.78 Y138.46 E8.13985
G1 X178.76 Y138.06 E8.19652
G1 X179.71 Y137.49 E8.25560
G1 X180.58 Y136.73 E8.31701
G1 X181.26 Y135.88 E8.37506
G1 X181.79 Y134.93 E8.43356
G1 X182.16 Y133.88 E8.49272
G1 X182.34 Y132.84 E8.54889
G1 X182.35 Y131.69 E8.61076
G1 X182.17 Y130.66 E8.66643
G1 X181.79 Y129.57 E8.72787
G1 X181.26 Y128.61 E8.78654
G1 X180.57 Y127.76 E8.84473
G1 X179.74 Y127.03 E8.90382
G1 X178.84 Y126.48 E8.96050
G1 X177.82 Y126.06 E9.01930
G1 X176.69 Y125.81 E9.08058
G1 X175.60 Y125.77 E9.13893
G1 X174.52 Y125.91 E9.19742
G1 X173.47 Y126.23 E9.25593
G1 X172.57 Y126.66 E9.30930
G1 X171.59 Y127.38 E9.37381
G1 X170.86 Y128.14 E9.43029
G0 F6000 X170.53 Y127.87
G1 F2700 X169.84 Y128.88 E9.49559
G1 X169.36 Y129.94 E9.55780
G1 X169.07 Y131.03 E9.61793
G1 X168.96 Y132.26 E9.68381
G1 X169.06 Y133.42 E9.74563
G1 X169.35 Y134.51 E9.80588
G1 X169.85 Y135.63 E9.87140
G1 X170.50 Y136.60 E9.93387
G1 X171.31 Y137.44 E9.99617
G1 X172.26 Y138.14 E10.05910
G1 X173.30 Y138.67 E10.12134
G1 X174.43 Y139.02 E10.18455
G1 X175.59 Y139.16 E10.24697
G1 X176.76 Y139.12 E10.30927
G1 X177.91 Y138.87 E10.37213
G1 X178.96 Y138.45 E10.43242
G1 X179.97 Y137.83 E10.49557
G1 X180.88 Y137.03 E10.56065
G1 X181.62 Y136.12 E10.62291
G1 X182.19 Y135.10 E10.68512
G1 X182.58 Y134.00 E10.74784
G1 X182.77 Y132.88 E10.80851
G1 X182.78 Y131.66 E10.87363
G1 X182.59 Y130.55 E10.93364
G1 X182.18 Y129.39 E10.99908
G1 X181.61 Y128.38 E11.06124
G1 X180.88 Y127.46 E11.12392
G1 X180.00 Y126.69 E11.18652
G1 X179.04 Y126.10 E11.24666
G1 X177.94 Y125.65 E11.30989
G1 X176.75 Y125.39 E11.37499
G1 X175.58 Y125.34 E11.43724
G1 X174.43 Y125.48 E11.49940
G1 X173.31 Y125.83 E11.56161
G1 X172.35 Y126.29 E11.61898
G1 X171.31 Y127.06 E11.68773
G1 X170.53 Y127.87 E11.74806
G0 F6000 X170.19 Y127.60
G1 F2700 X169.46 Y128.67 E11.81724
G1 X168.95 Y129.80 E11.88344
G1 X168.65 Y130.97 E11.94760
G1 X168.53 Y132.26 E12.01706
G1 X168.64 Y133.49 E12.08290
G1 X168.94 Y134.65 E12.14706
G1 X169.47 Y135.84 E12.21638
G1 X170.16 Y136.87 E12.28259
G1 X171.03 Y137.77 E12.34912
G1 X172.03 Y138.51 E12.41579
G1 X173.14 Y139.07 E12.48216
G1 X174.33 Y139.43 E12.54876
G1 X175.57 Y139.59 E12.61534
G1 X176.81 Y139.54 E12.68165
G1 X178.03 Y139.28 E12.74832
G1 X179.15 Y138.83 E12.81269
G1 X180.22 Y138.18 E12.87926
G1 X181.19 Y137.33 E12.94843
G1 X181.97 Y136.37 E13.01429
G1 X182.58 Y135.27 E13.08118
G1 X182.99 Y134.11 E13.14727
G1 X183.20 Y132.92 E13.21177
G1 X183.20 Y131.62 E13.28096
G1 X183.00 Y130.44 E13.34465
G1 X182.58 Y129.22 E13.41389
G1 X181.97 Y128.13 E13.48030
G1 X181.19 Y127.17 E13.54673
G1 X180.25 Y126.34 E13.61308
G1 X179.23 Y125.71 E13.67724
G1 X178.06 Y125.24 E13.74443
G1 X176.81 Y124.96 E13.81331
G1 X175.57 Y124.91 E13.87946
G1 X174.33 Y125.07 E13.94597
G1 X173.16 Y125.42 E14.01124
G1 X172.13 Y125.92 E14.07258
G1 X171.03 Y126.74 E14.14567
G1 X170.19 Y127.60 E14.20970
G0 F6000 X169.87 Y127.33
G1 F2700 X169.09 Y128.46 E14.28329
G1 X168.55 Y129.66 E14.35327
G1 X168.23 Y130.89 E14.42103
G1 X168.10 Y132.26 E14.49451
G1 X168.22 Y133.57 E14.56464
G1 X168.54 Y134.80 E14.63256
G1 X169.09 Y136.05 E14.70561
G1 X169.83 Y137.14 E14.77593
G1 X170.74 Y138.09 E14.84630
G1 X171.80 Y138.87 E14.91665
G1 X172.98 Y139.47 E14.98703
G1 X174.25 Y139.85 E15.05765
G1 X175.55 Y140.02 E15.12794
G1 X176.87 Y139.97 E15.19820
G1 X178.16 Y139.69 E15.26853
G1 X179.34 Y139.21 E15.33670
G1 X180.47 Y138.52 E15.40759
G1 X181.50 Y137.63 E15.48039
G1 X182.33 Y136.61 E15.55039
G1 X182.97 Y135.46 E15.62069
G1 X183.41 Y134.21 E15.69128
G1 X183.62 Y132.95 E15.75931
G1 X183.63 Y131.58 E15.83244
G1 X183.42 Y130.34 E15.89998
G1 X182.97 Y129.04 E15.97329
G1 X182.32 Y127.89 E16.04350
G1 X181.50 Y126.87 E16.11381
G1 X180.51 Y126.00 E16.18401
G1 X179.42 Y125.33 E16.25230
G1 X178.20 Y124.83 E16.32284
G1 X176.86 Y124.53 E16.39598
G1 X175.55 Y124.48 E16.46597
G1 X174.24 Y124.65 E16.53626
G1 X173.00 Y125.03 E16.60538
G1 X171.90 Y125.56 E16.67082
G1 X171.90 Y125.56 E16.67090
G1 X170.74 Y126.41 E16.74762
G1 X169.87 Y127.33 E16.81528
G0 F6000 X169.53 Y127.06
G1 F2700 X168.72 Y128.25 E16.89214
G1 X168.14 Y129.51 E16.96630
G1 X167.80 Y130.82 E17.03813
G1 X167.67 Y132.26 E17.11526
G1 X167.79 Y133.63 E17.18914
G1 X168.13 Y134.94 E17.26120
G1 X168.72 Y136.25 E17.33800
G1 X169.50 Y137.41 E17.41250
G1 X170.46 Y138.41 E17.48654
G1 X171.58 Y139.24 E17.56066
G1 X172.82 Y139.87 E17.63515
G1 X174.16 Y140.28 E17.70968
G1 X175.54 Y140.45 E17.78406
G1 X176.92 Y140.39 E17.85769
G1 X178.28 Y140.10 E17.93217
G1 X179.54 Y139.59 E18.00447
G1 X180.73 Y138.87 E18.07873
G1 X181.81 Y137.93 E18.15562
G1 X182.68 Y136.85 E18.22964
G1 X183.36 Y135.63 E18.30406
G1 X183.82 Y134.32 E18.37812
G1 X184.05 Y132.99 E18.45009
G1 X184.06 Y131.55 E18.52712
G1 X183.83 Y130.23 E18.59866
G1 X183.36 Y128.87 E18.67555
G1 X182.68 Y127.65 E18.74975
G1 X181.81 Y126.57 E18.82407
G1 X180.76 Y125.65 E18.89832
G1 X179.62 Y124.95 E18.97010
G1 X178.32 Y124.42 E19.04486
G1 X176.91 Y124.11 E19.12177
G1 X175.53 Y124.05 E19.19604
G1 X174.16 Y124.22 E19.26960
G1 X172.85 Y124.63 E19.34281
G1 X171.70 Y125.18 E19.41078
G1 X171.66 Y125.20 E19.41301
G1 X170.46 Y126.09 E19.49301
G1 X169.53 Y127.06 E19.56474
G0 F6000 X169.20 Y126.79
G1 F2700 X168.34 Y128.04 E19.64594
G1 X167.74 Y129.37 E19.72369
G1 X167.38 Y130.74 E19.79942
G1 X167.25 Y132.25 E19.88020
G1 X167.37 Y133.71 E19.95841
G1 X167.73 Y135.08 E20.03404
G1 X168.34 Y136.47 E20.11505
G1 X169.16 Y137.68 E20.19302
G1 X170.18 Y138.74 E20.27151
G1 X171.35 Y139.60 E20.34942
G1 X172.66 Y140.26 E20.42751
G1 X174.06 Y140.69 E20.50585
G1 X175.51 Y140.88 E20.58395
G1 X176.98 Y140.82 E20.66217
G1 X178.41 Y140.51 E20.74036
G1 X179.72 Y139.98 E20.81594
G1 X180.98 Y139.22 E20.89459
G1 X182.12 Y138.22 E20.97522
G1 X183.04 Y137.09 E21.05335
G1 X183.75 Y135.81 E21.13118
G1 X184.24 Y134.42 E21.20976
G1 X184.48 Y133.03 E21.28526
G1 X184.49 Y131.51 E21.36624
G1 X184.25 Y130.12 E21.44158
G1 X183.75 Y128.69 E21.52253
G1 X183.04 Y127.41 E21.60061
G1 X182.12 Y126.28 E21.67854
G1 X181.02 Y125.31 E21.75710
G1 X179.81 Y124.56 E21.83267
G1 X178.45 Y124.01 E21.91105
G1 X176.97 Y123.68 E21.99179
G1 X175.51 Y123.62 E22.06985
G1 X174.07 Y123.81 E22.14772
G1 X172.69 Y124.23 E22.22461
G1 X171.50 Y124.80 E22.29507
G1 X171.42 Y124.84 E22.29978
G1 X170.18 Y125.77 E22.38257
G1 X169.20 Y126.79 E22.45808
G0 F6000 X168.86 Y126.52
G1 F2700 X167.97 Y127.83 E22.54258
G1 X167.34 Y129.23 E22.62453
G1 X166.96 Y130.67 E22.70437
G1 X166.81 Y132.26 E22.78916
G1 X166.94 Y133.78 E22.87075
G1 X167.32 Y135.22 E22.95047
G1 X167.97 Y136.68 E23.03547
G1 X168.83 Y137.95 E23.11739
G1 X169.89 Y139.06 E23.19932
G1 X171.13 Y139.97 E23.28135
G1 X172.50 Y140.66 E23.36364
G1 X173.98 Y141.12 E23.44586
G1 X175.50 Y141.31 E23.52783
G1 X177.03 Y141.25 E23.60947
G1 X178.54 Y140.92 E23.69181
G1 X179.92 Y140.37 E23.77121
G1 X181.23 Y139.56 E23.85355
G1 X182.43 Y138.52 E23.93831
G1 X183.40 Y137.32 E24.02046
G1 X184.14 Y135.99 E24.10213
G1 X184.66 Y134.53 E24.18444
G1 X184.91 Y133.07 E24.26373
G1 X184.92 Y131.48 E24.34882
G1 X184.67 Y130.02 E24.42784
G1 X184.14 Y128.51 E24.51296
G1 X183.40 Y127.18 E24.59460
G1 X182.43 Y125.97 E24.67698
G1 X181.28 Y124.96 E24.75872
G1 X180.00 Y124.18 E24.83863
G1 X178.58 Y123.60 E24.92069
G1 X177.02 Y123.26 E25.00568
G1 X175.49 Y123.19 E25.08770
G1 X173.97 Y123.39 E25.16934
G1 X172.53 Y123.83 E25.24957
G1 X171.30 Y124.42 E25.32270
G1 X171.19 Y124.49 E25.32967
G1 X169.89 Y125.44 E25.41577
G1 X168.86 Y126.52 E25.49533
G0 F6000 X168.53 Y126.25
G1 F2700 X167.59 Y127.62 E25.58402
G1 X166.93 Y129.08 E25.66977
G1 X166.53 Y130.60 E25.75334
G1 X166.39 Y132.25 E25.84184
G1 X166.52 Y133.85 E25.92771
G1 X166.92 Y135.37 E26.01135
G1 X167.59 Y136.88 E26.09980
G1 X168.50 Y138.22 E26.18595
G1 X169.61 Y139.38 E26.27184
G1 X170.90 Y140.33 E26.35745
G1 X172.34 Y141.06 E26.44390
G1 X173.88 Y141.53 E26.52988
G1 X175.47 Y141.74 E26.61545
G1 X177.09 Y141.67 E26.70169
G1 X178.66 Y141.33 E26.78737
G1 X180.11 Y140.75 E26.87083
G1 X181.49 Y139.91 E26.95698
G1 X182.74 Y138.82 E27.04567
G1 X183.75 Y137.57 E27.13146
G1 X184.53 Y136.16 E27.21737
G1 X185.07 Y134.64 E27.30375
G1 X185.34 Y133.11 E27.38662
G1 X185.34 Y131.44 E27.47566
G1 X185.08 Y129.91 E27.55848
G1 X184.53 Y128.34 E27.64735
G1 X183.75 Y126.93 E27.73324
G1 X182.74 Y125.68 E27.81941
G1 X181.53 Y124.61 E27.90531
G1 X180.20 Y123.80 E27.98869
G1 X178.71 Y123.19 E28.07462
G1 X177.09 Y122.83 E28.16334
G1 X175.48 Y122.76 E28.24932
G1 X173.88 Y122.97 E28.33516
G1 X172.38 Y123.43 E28.41914
G1 X171.10 Y124.04 E28.49485
G1 X170.95 Y124.13 E28.50426
G1 X169.61 Y125.12 E28.59312
G1 X168.53 Y126.25 E28.67645
G0 F6000 X168.20 Y125.97
G1 F2700 X167.22 Y127.41 E28.76952
G1 X166.52 Y128.95 E28.85938
G1 X166.11 Y130.52 E28.94617
G1 X165.96 Y132.26 E29.03932
G1 X166.10 Y133.93 E29.12879
G1 X166.51 Y135.51 E29.21589
G1 X167.22 Y137.09 E29.30878
G1 X168.16 Y138.49 E29.39858
G1 X169.32 Y139.70 E29.48836
G1 X170.68 Y140.70 E29.57813
G1 X172.18 Y141.46 E29.66799
G1 X173.79 Y141.96 E29.75816
G1 X175.46 Y142.17 E29.84787
G1 X177.14 Y142.10 E29.93748
G1 X178.78 Y141.74 E30.02730
G1 X180.30 Y141.13 E30.11463
G1 X181.74 Y140.25 E30.20471
G1 X183.05 Y139.12 E30.29715
G1 X184.11 Y137.81 E30.38704
G1 X184.93 Y136.34 E30.47680
G1 X185.49 Y134.75 E30.56659
G1 X185.76 Y133.14 E30.65400
G1 X185.77 Y131.41 E30.74635
G1 X185.50 Y129.80 E30.83350
G1 X184.93 Y128.16 E30.92632
G1 X184.11 Y126.69 E31.01594
G1 X183.05 Y125.38 E31.10594
G1 X181.78 Y124.27 E31.19578
G1 X180.39 Y123.41 E31.28295
G1 X178.84 Y122.78 E31.37279
G1 X177.14 Y122.41 E31.46545
G1 X175.45 Y122.33 E31.55559
G1 X173.79 Y122.55 E31.64492
G1 X172.23 Y123.03 E31.73241
G1 X170.89 Y123.67 E31.81163
G1 X170.71 Y123.78 E31.82303
G1 X169.32 Y124.80 E31.91471
G1 X168.20 Y125.97 E32.00147
G0 F6000 X167.86 Y125.70
G1 F2700 X166.84 Y127.20 E32.09792
G1 X166.12 Y128.80 E32.19182
G1 X166.12 Y128.80 E32.19194
G1 X165.69 Y130.45 E32.28286
G1 X165.53 Y132.25 E32.37928
G1 X165.68 Y134.00 E32.47320
G1 X166.10 Y135.65 E32.56405
G1 X166.84 Y137.30 E32.66052
G1 X167.83 Y138.76 E32.75452
G1 X167.83 Y138.76 E32.75464
G1 X169.04 Y140.03 E32.84831
G1 X170.45 Y141.07 E32.94198
G1 X172.02 Y141.86 E33.03549
G1 X173.70 Y142.37 E33.12941
G1 X175.44 Y142.60 E33.22332
G1 X175.45 Y142.60 E33.22348
G1 X177.19 Y142.52 E33.31651
G1 X177.19 Y142.52 E33.31661
G1 X178.91 Y142.15 E33.41058
G1 X180.50 Y141.52 E33.50177
G1 X182.00 Y140.60 E33.59542
G1 X183.36 Y139.42 E33.69194
G1 X184.46 Y138.05 E33.78590
G1 X185.32 Y136.52 E33.87942
G1 X185.32 Y136.52 E33.87947
G1 X185.32 Y136.51 E33.87967
G1 X185.90 Y134.86 E33.97318
G1 X186.19 Y133.18 E34.06433
G1 X186.20 Y131.37 E34.16080
G1 X185.91 Y129.69 E34.25189
G1 X185.32 Y127.98 E34.34833
G1 X184.46 Y126.45 E34.44203
G1 X183.35 Y125.08 E34.53610
G1 X182.04 Y123.93 E34.62942
G1 X180.59 Y123.03 E34.72062
G1 X178.96 Y122.37 E34.81443
G1 X177.19 Y121.98 E34.91107
G1 X177.19 Y121.98 E34.91124
G1 X175.44 Y121.90 E35.00464
G1 X173.70 Y122.13 E35.09828
G1 X172.07 Y122.63 E35.18952
G1 X170.69 Y123.29 E35.27122
G1 X170.47 Y123.42 E35.28473
G1 X169.04 Y124.48 E35.37965
G1 X167.86 Y125.70 E35.47049
G0 F6000 X167.53 Y125.43
G1 F2700 X166.49 Y126.96 E35.56940
G1 X166.47 Y126.99 E35.57128
G1 X165.71 Y128.66 E35.66893
G1 X165.27 Y130.37 E35.76354
G1 X165.10 Y132.25 E35.86414
G1 X165.25 Y134.04 E35.95982
G1 X165.25 Y134.07 E35.96180
G1 X165.70 Y135.79 E36.05675
G1 X166.47 Y137.51 E36.15702
G1 X167.47 Y139.00 E36.25290
G1 X167.49 Y139.03 E36.25494
G1 X168.73 Y140.32 E36.35054
G1 X168.76 Y140.35 E36.35243
G1 X170.23 Y141.43 E36.45007
G1 X171.86 Y142.26 E36.54747
G1 X173.58 Y142.78 E36.64352
G1 X173.61 Y142.79 E36.64541
G1 X175.42 Y143.03 E36.74282
G1 X177.21 Y142.95 E36.83857
G1 X177.25 Y142.95 E36.84076
G1 X179.00 Y142.57 E36.93627
G1 X179.04 Y142.56 E36.93814
G1 X180.69 Y141.90 E37.03321
G1 X182.25 Y140.95 E37.13074
G1 X183.67 Y139.71 E37.23120
G1 X184.82 Y138.29 E37.32888
G1 X185.71 Y136.69 E37.42648
G1 X186.32 Y134.97 E37.52413
G1 X186.62 Y133.22 E37.61897
G1 X186.63 Y131.37 E37.71751
G1 X186.63 Y131.34 E37.71938
G1 X186.33 Y129.58 E37.81427
G1 X185.71 Y127.81 E37.91460
G1 X184.82 Y126.21 E38.01228
G1 X183.67 Y124.79 E38.10999
G1 X182.29 Y123.58 E38.20773
G1 X180.78 Y122.65 E38.30240
G1 X179.09 Y121.96 E38.40005
G1 X177.28 Y121.56 E38.49871
G1 X177.25 Y121.55 E38.50062
G1 X175.46 Y121.48 E38.59632
G1 X175.42 Y121.47 E38.59846
G1 X173.62 Y121.71 E38.69554
G1 X171.91 Y122.23 E38.79080
G1 X170.49 Y122.91 E38.87511
G1 X170.23 Y123.07 E38.89105
G1 X168.76 Y124.16 E38.98884
G1 X167.53 Y125.43 E39.08331
G0 F6000 X164.69 Y123.67
G1 F2700 X165.97 Y122.25 E39.18508
G1 X167.15 Y121.20 E39.26952
G1 X168.26 Y120.43 E39.34175
G1 X168.44 Y120.29 E39.35396
G1 X169.63 Y119.65 E39.42622
G1 X169.83 Y119.54 E39.43836
G1 X171.29 Y118.94 E39.52287
G1 X172.60 Y118.57 E39.59501
G1 X172.82 Y118.51 E39.60723
G1 X174.03 Y118.30 E39.67310
G1 X174.39 Y118.24 E39.69229
G1 X174.56 Y118.45 E39.70695
G1 X174.57 Y118.46 E39.70764
G1 X174.80 Y118.67 E39.72396
G1 X174.97 Y118.79 E39.73538
G1 X175.01 Y118.81 E39.73757
G1 X175.30 Y118.94 E39.75454
G1 X175.44 Y118.98 E39.76227
G1 X175.58 Y119.01 E39.77014
G1 X175.89 Y119.03 E39.78633
G1 X176.18 Y119.01 E39.80208
G1 X176.47 Y118.94 E39.81795
G1 X176.74 Y118.82 E39.83372
G1 X176.98 Y118.66 E39.84911
G1 X177.21 Y118.44 E39.86588
G1 X177.39 Y118.21 E39.88161
G1 X177.53 Y117.95 E39.89753
G1 X177.62 Y117.67 E39.91320
G1 X177.70 Y117.13 E39.94225
G1 X179.82 Y117.56 E40.05762
G1 X181.87 Y118.25 E40.17307
G1 X181.67 Y118.75 E40.20196
G1 X181.61 Y119.04 E40.21762
G1 X181.60 Y119.34 E40.23381
G1 X181.64 Y119.63 E40.24953
G1 X181.72 Y119.92 E40.26569
G1 X181.85 Y120.18 E40.28128
G1 X182.03 Y120.43 E40.29722
G1 X182.25 Y120.64 E40.31330
G1 X182.49 Y120.81 E40.32912
G1 X182.76 Y120.93 E40.34511
G1 X183.04 Y121.01 E40.36092
G1 X183.34 Y121.05 E40.37686
G1 X183.64 Y121.03 E40.39280
G1 X183.93 Y120.96 E40.40891
G1 X184.20 Y120.84 E40.42454
G1 X184.46 Y120.69 E40.44056
G1 X184.68 Y120.49 E40.45633
G1 X185.02 Y120.06 E40.48531
G1 X186.60 Y121.45 E40.59772
G1 X188.07 Y123.12 E40.71616
G1 X187.65 Y123.45 E40.74492
G1 X187.45 Y123.67 E40.76088
G1 X187.29 Y123.93 E40.77695
G1 X187.18 Y124.20 E40.79257
G1 X187.11 Y124.49 E40.80868
G1 X187.09 Y124.79 E40.82468
G1 X187.12 Y125.09 E40.84051
G1 X187.20 Y125.37 E40.85643
G1 X187.33 Y125.64 E40.87236
G1 X187.49 Y125.88 E40.88774
G1 X187.70 Y126.10 E40.90398
G1 X187.94 Y126.28 E40.91998
G1 X188.21 Y126.41 E40.93595
G1 X188.50 Y126.50 E40.95196
G1 X188.79 Y126.53 E40.96763
G1 X189.09 Y126.52 E40.98349
G1 X189.39 Y126.46 E40.99980
G1 X189.89 Y126.26 E41.02841
G1 X190.56 Y128.26 E41.14083
G1 X191.00 Y130.43 E41.25928
G1 X190.47 Y130.51 E41.28838
G1 X190.19 Y130.61 E41.30405
G1 X189.92 Y130.75 E41.31997
G1 X189.68 Y130.93 E41.33604
G1 X189.48 Y131.14 E41.35168
G1 X189.32 Y131.39 E41.36765
G1 X189.19 Y131.67 E41.38388
G1 X189.12 Y131.95 E41.39952
G1 X189.10 Y132.25 E41.41543
G1 X189.12 Y132.55 E41.43140
G1 X189.19 Y132.83 E41.44704
G1 X189.32 Y133.11 E41.46326
G1 X189.48 Y133.36 E41.47924
G1 X189.68 Y133.57 E41.49488
G1 X189.92 Y133.76 E41.51095
G1 X190.19 Y133.90 E41.52687
G1 X190.47 Y133.99 E41.54254
G1 X191.00 Y134.07 E41.57159
G1 X190.58 Y136.19 E41.68701
G1 X189.89 Y138.24 E41.80246
G1 X189.39 Y138.04 E41.83108
G1 X189.09 Y137.98 E41.84738
G1 X188.79 Y137.97 E41.86325
G1 X188.50 Y138.00 E41.87892
G1 X188.21 Y138.09 E41.89493
G1 X187.94 Y138.22 E41.91090
G1 X187.71 Y138.40 E41.92671
G1 X187.50 Y138.61 E41.94268
G1 X187.32 Y138.86 E41.95880
G1 X187.20 Y139.13 E41.97447
G1 X187.12 Y139.41 E41.99018
G1 X187.09 Y139.67 E42.00421
G1 X187.11 Y140.01 E42.02244
G1 X187.26 Y140.56 E42.05295
G1 X186.25 Y141.78 E42.13718
G1 X185.28 Y142.72 E42.20924
G1 X185.12 Y142.88 E42.22147
G1 X183.87 Y143.85 E42.30602
G1 X182.52 Y144.67 E42.39039
G1 X181.08 Y145.34 E42.47482
G1 X179.80 Y145.76 E42.54697
G1 X179.58 Y145.84 E42.55921
G1 X178.26 Y146.12 E42.63157
G1 X175.74 Y146.61 E42.76853
G1 X173.51 Y147.22 E42.89205
G1 X171.30 Y148.00 E43.01692
G1 X169.47 Y148.82 E43.12378
G1 X169.47 Y148.81 E43.12383
G1 X168.63 Y149.22 E43.17374
G1 X167.66 Y149.76 E43.23317
G1 X167.66 Y149.76 E43.23322
G1 X167.52 Y149.85 E43.24193
G1 X166.72 Y150.46 E43.29585
G1 X166.59 Y150.56 E43.30465
G1 X165.87 Y151.27 E43.35856
G1 X165.76 Y151.39 E43.36720
G1 X165.04 Y152.32 E43.42986
G1 X164.54 Y153.19 E43.48366
G1 X164.46 Y153.33 E43.49214
G1 X164.07 Y154.26 E43.54628
G1 X164.01 Y154.41 E43.55471
G1 X163.71 Y155.55 E43.61763
G1 X163.57 Y156.55 E43.67147
G1 X163.56 Y156.71 E43.67980
G1 X163.56 Y157.72 E43.73409
G1 X163.56 Y157.88 E43.74263
G1 X163.60 Y158.48 E43.77479
G1 X163.82 Y160.58 E43.88739
G1 X163.85 Y160.91 E43.90528
G1 X164.27 Y163.19 E44.02891
G1 X164.87 Y165.46 E44.15381
G1 X165.52 Y167.35 E44.26078
G1 X166.12 Y169.16 E44.36253
G1 X166.39 Y170.49 E44.43477
G1 X166.38 Y170.49 E44.43483
G1 X166.43 Y170.71 E44.44700
G1 X166.57 Y172.28 E44.53147
G1 X166.54 Y173.64 E44.60371
G1 X166.54 Y173.87 E44.61594
G1 X166.32 Y175.44 E44.70043
G1 X165.94 Y176.97 E44.78478
G1 X165.38 Y178.46 E44.86971
G1 X165.11 Y178.51 E44.88441
G1 X165.11 Y178.51 E44.88447
G1 X165.10 Y178.51 E44.88513
G1 X164.81 Y178.60 E44.90139
G1 X164.56 Y178.73 E44.91593
G1 X164.32 Y178.90 E44.93175
G1 X164.21 Y179.01 E44.94029
G1 X164.12 Y179.12 E44.94783
G1 X164.02 Y179.23 E44.95577
G1 X163.95 Y179.35 E44.96319
G1 X163.82 Y179.63 E44.97969
G1 X163.74 Y179.91 E44.99539
G1 X163.71 Y180.21 E45.01112
G1 X163.72 Y180.51 E45.02728
G1 X163.79 Y180.80 E45.04338
G1 X163.91 Y181.07 E45.05901
G1 X164.06 Y181.32 E45.07503
G1 X164.26 Y181.55 E45.09106
G1 X164.69 Y181.88 E45.11979
G1 X163.29 Y183.47 E45.23220
G1 X161.63 Y184.94 E45.35068
G1 X161.30 Y184.51 E45.37947
G1 X161.07 Y184.31 E45.39546
G1 X160.82 Y184.16 E45.41149
G1 X160.55 Y184.04 E45.42711
G1 X160.26 Y183.97 E45.44322
G1 X159.96 Y183.96 E45.45916
G1 X159.66 Y183.99 E45.47511
G1 X159.38 Y184.07 E45.49086
G1 X159.11 Y184.19 E45.50691
G1 X158.86 Y184.36 E45.52268
G1 X158.65 Y184.57 E45.53872
G1 X158.47 Y184.81 E45.55465
G1 X158.34 Y185.08 E45.57031
G1 X158.25 Y185.37 E45.58647
G1 X158.22 Y185.66 E45.60214
G1 X158.23 Y185.96 E45.61838
G1 X158.29 Y186.25 E45.63403
G1 X158.49 Y186.75 E45.66294
G1 X156.49 Y187.43 E45.77535
G1 X154.32 Y187.87 E45.89380
G1 X154.24 Y187.33 E45.92290
G1 X154.14 Y187.05 E45.93857
G1 X154.00 Y186.79 E45.95450
G1 X153.82 Y186.55 E45.97057
G1 X153.61 Y186.35 E45.98609
G1 X153.36 Y186.19 E46.00186
G1 X153.08 Y186.06 E46.01827
G1 X152.80 Y185.99 E46.03403
G1 X152.50 Y185.96 E46.04994
G1 X152.20 Y185.99 E46.06585
G1 X151.91 Y186.06 E46.08177
G1 X151.65 Y186.18 E46.09731
G1 X151.40 Y186.34 E46.11303
G1 X151.18 Y186.55 E46.12957
G1 X151.00 Y186.79 E46.14538
G1 X150.86 Y187.05 E46.16130
G1 X150.76 Y187.33 E46.17697
G1 X150.68 Y187.87 E46.20602
G1 X148.56 Y187.44 E46.32144
G1 X146.51 Y186.75 E46.43689
G1 X146.71 Y186.25 E46.46580
G1 X146.77 Y185.96 E46.48145
G1 X146.78 Y185.66 E46.49769
G1 X146.75 Y185.37 E46.51336
G1 X146.66 Y185.08 E46.52952
G1 X146.53 Y184.81 E46.54518
G1 X146.35 Y184.57 E46.56111
G1 X146.14 Y184.36 E46.57716
G1 X145.89 Y184.19 E46.59293
G1 X145.62 Y184.07 E46.60897
G1 X145.34 Y183.99 E46.62473
G1 X145.04 Y183.96 E46.64067
G1 X144.74 Y183.97 E46.65661
G1 X144.45 Y184.04 E46.67272
G1 X144.18 Y184.16 E46.68835
G1 X143.93 Y184.31 E46.70437
G1 X143.70 Y184.51 E46.72040
G1 X143.37 Y184.94 E46.74912
G1 X141.78 Y183.54 E46.86154
G1 X140.31 Y181.88 E46.98001
G1 X140.74 Y181.55 E47.00881
G1 X140.94 Y181.32 E47.02480
G1 X141.09 Y181.07 E47.04082
G1 X141.21 Y180.80 E47.05645
G1 X141.28 Y180.51 E47.07256
G1 X141.29 Y180.21 E47.08871
G1 X141.26 Y179.91 E47.10444
G1 X141.18 Y179.63 E47.12014
G1 X141.05 Y179.35 E47.13648
G1 X140.89 Y179.12 E47.15140
G1 X140.68 Y178.90 E47.16783
G1 X140.44 Y178.73 E47.18390
G1 X140.18 Y178.59 E47.19925
G1 X139.90 Y178.51 E47.21512
G1 X139.62 Y178.46 E47.23032
G1 X139.07 Y176.97 E47.31513
G1 X138.68 Y175.44 E47.39939
G1 X138.50 Y174.09 E47.47164
G1 X138.46 Y173.87 E47.48384
G1 X138.43 Y172.51 E47.55608
G1 X138.43 Y172.28 E47.56836
G1 X138.55 Y170.94 E47.64050
G1 X138.57 Y170.71 E47.65272
G1 X138.88 Y169.16 E47.73722
G1 X139.30 Y167.87 E47.80951
G1 X140.13 Y165.46 E47.94573
G1 X140.73 Y163.19 E48.07085
G1 X141.15 Y160.91 E48.19448
G1 X141.36 Y158.92 E48.30175
G1 X141.44 Y157.99 E48.35119
G1 X141.44 Y156.87 E48.41119
G1 X141.44 Y156.71 E48.41979
G1 X141.29 Y155.55 E48.48207
G1 X141.03 Y154.57 E48.53630
G1 X141.03 Y154.57 E48.53635
G1 X140.99 Y154.42 E48.54460
G1 X140.61 Y153.48 E48.59894
G1 X140.54 Y153.33 E48.60755
G1 X139.96 Y152.32 E48.66995
G1 X139.34 Y151.51 E48.72409
G1 X139.24 Y151.38 E48.73288
G1 X138.42 Y150.56 E48.79509
G1 X137.48 Y149.85 E48.85789
G1 X136.45 Y149.26 E48.92121
G1 X135.92 Y148.99 E48.95303
G1 X133.70 Y148.01 E49.08239
G1 X131.49 Y147.22 E49.20768
G1 X129.26 Y146.61 E49.33120
G1 X127.28 Y146.23 E49.43858
G1 X125.42 Y145.84 E49.54046
G1 X123.92 Y145.34 E49.62490
G1 X122.48 Y144.67 E49.70933
G1 X121.33 Y143.97 E49.78149
G1 X121.13 Y143.85 E49.79370
G1 X120.06 Y143.02 E49.86595
G1 X119.88 Y142.88 E49.87817
G1 X118.75 Y141.78 E49.96262
G1 X117.96 Y140.82 E50.02850
G1 X117.73 Y140.55 E50.04774
G1 X117.83 Y140.28 E50.06322
G1 X117.90 Y139.98 E50.07934
G1 X117.91 Y139.77 E50.09074
G1 X117.88 Y139.41 E50.11015
G1 X117.84 Y139.26 E50.11813
G1 X117.80 Y139.13 E50.12575
G1 X117.67 Y138.86 E50.14163
G1 X117.50 Y138.61 E50.15748
G1 X117.29 Y138.40 E50.17345
G1 X117.06 Y138.22 E50.18926
G1 X116.79 Y138.09 E50.20523
G1 X116.50 Y138.00 E50.22124
G1 X116.21 Y137.97 E50.23691
G1 X115.91 Y137.98 E50.25277
G1 X115.61 Y138.04 E50.26907
G1 X115.11 Y138.24 E50.29769
G1 X114.44 Y136.24 E50.41011
G1 X114.00 Y134.07 E50.52855
G1 X114.53 Y133.99 E50.55766
G1 X114.81 Y133.90 E50.57332
G1 X115.08 Y133.76 E50.58925
G1 X115.32 Y133.57 E50.60532
G1 X115.52 Y133.36 E50.62096
G1 X115.68 Y133.11 E50.63693
G1 X115.81 Y132.83 E50.65316
G1 X115.88 Y132.55 E50.66880
G1 X115.90 Y132.25 E50.68476
G1 X115.88 Y131.95 E50.70068
G1 X115.81 Y131.67 E50.71632
G1 X115.68 Y131.39 E50.73254
G1 X115.52 Y131.14 E50.74852
G1 X115.32 Y130.93 E50.76416
G1 X115.08 Y130.75 E50.78022
G1 X114.81 Y130.61 E50.79615
G1 X114.53 Y130.51 E50.81182
G1 X114.00 Y130.43 E50.84087
G1 X114.42 Y128.31 E50.95629
G1 X115.11 Y126.26 E51.07174
G1 X115.61 Y126.46 E51.10036
G1 X115.91 Y126.52 E51.11666
G1 X116.21 Y126.53 E51.13253
G1 X116.50 Y126.50 E51.14820
G1 X116.79 Y126.41 E51.16420
G1 X117.06 Y126.28 E51.18018
G1 X117.29 Y126.10 E51.19599
G1 X117.51 Y125.89 E51.21215
G1 X117.67 Y125.65 E51.22712
G1 X117.80 Y125.37 E51.24388
G1 X117.88 Y125.09 E51.25963
G1 X117.91 Y124.79 E51.27546
G1 X117.89 Y124.49 E51.29146
G1 X117.83 Y124.20 E51.30756
G1 X117.71 Y123.93 E51.32319
G1 X117.55 Y123.67 E51.33926
G1 X117.35 Y123.45 E51.35521
G1 X116.93 Y123.12 E51.38393
G1 X118.32 Y121.53 E51.49631
G1 X119.98 Y120.06 E51.61471
G1 X120.32 Y120.49 E51.64373
G1 X120.54 Y120.69 E51.65949
G1 X120.80 Y120.84 E51.67552
G1 X121.07 Y120.96 E51.69114
G1 X121.36 Y121.03 E51.70725
G1 X121.66 Y121.05 E51.72319
G1 X121.95 Y121.01 E51.73914
G1 X122.24 Y120.93 E51.75494
G1 X122.51 Y120.81 E51.77094
G1 X122.75 Y120.64 E51.78675
G1 X122.97 Y120.43 E51.80283
G1 X123.14 Y120.18 E51.81878
G1 X123.28 Y119.92 E51.83436
G1 X123.36 Y119.63 E51.85053
G1 X123.40 Y119.34 E51.86625
G1 X123.39 Y119.04 E51.88243
G1 X123.33 Y118.75 E51.89810
G1 X123.13 Y118.25 E51.92698
G1 X125.13 Y117.57 E52.03939
G1 X127.30 Y117.13 E52.15779
G1 X127.38 Y117.67 E52.18690
G1 X127.47 Y117.95 E52.20256
G1 X127.61 Y118.21 E52.21849
G1 X127.80 Y118.45 E52.23456
G1 X128.01 Y118.65 E52.25027
G1 X128.25 Y118.81 E52.26573
G1 X128.53 Y118.94 E52.28231
G1 X128.82 Y119.01 E52.29801
G1 X129.12 Y119.03 E52.31387
G1 X129.41 Y119.01 E52.32973
G1 X129.70 Y118.94 E52.34568
G1 X129.94 Y118.83 E52.35950
G1 X130.22 Y118.65 E52.37742
G1 X130.38 Y118.51 E52.38906
G1 X130.44 Y118.44 E52.39363
G1 X130.62 Y118.24 E52.40807
G1 X132.18 Y118.51 E52.49290
G1 X133.71 Y118.94 E52.57730
G1 X135.17 Y119.54 E52.66176
G1 X136.36 Y120.18 E52.73395
G1 X136.56 Y120.29 E52.74616
G1 X137.85 Y121.20 E52.83064
G1 X138.86 Y122.10 E52.90271
G1 X139.03 Y122.25 E52.91505
G1 X139.94 Y123.26 E52.98728
G1 X141.40 Y124.93 E53.10564
G1 X143.04 Y126.60 E53.23070
G1 X143.27 Y126.82 E53.24780
G1 X145.05 Y128.34 E53.37277
G1 X146.66 Y129.51 E53.47926
G1 X147.44 Y130.05 E53.52947
G1 X148.40 Y130.61 E53.58881
G1 X148.54 Y130.70 E53.59778
G1 X149.61 Y131.14 E53.65956
G1 X150.76 Y131.45 E53.72299
G1 X151.75 Y131.59 E53.77674
G1 X151.91 Y131.60 E53.78513
G1 X152.92 Y131.61 E53.83920
G1 X153.09 Y131.60 E53.84785
G1 X154.09 Y131.47 E53.90174
G1 X154.25 Y131.45 E53.91031
G1 X155.23 Y131.19 E53.96448
G1 X155.38 Y131.15 E53.97278
G1 X156.31 Y130.76 E54.02701
G1 X156.47 Y130.69 E54.03576
G1 X157.33 Y130.19 E54.08920
G1 X157.98 Y129.77 E54.13040
G1 X159.95 Y128.34 E54.26037
G1 X161.72 Y126.83 E54.38492
G1 X163.38 Y125.19 E54.50942
G1 X164.69 Y123.67 E54.61632
G0 F6000 X164.37 Y123.39
G1 F2700 X165.66 Y121.95 E54.71957
G1 X166.69 Y121.03 E54.79316
G1 X166.88 Y120.87 E54.80662
G1 X168.01 Y120.08 E54.88015
G1 X168.22 Y119.93 E54.89359
G1 X169.43 Y119.27 E54.96721
G1 X169.65 Y119.15 E54.98057
G1 X170.92 Y118.63 E55.05414
G1 X171.16 Y118.53 E55.06767
G1 X172.48 Y118.16 E55.14098
G1 X172.72 Y118.09 E55.15453
G1 X173.96 Y117.88 E55.22181
G1 X174.56 Y117.78 E55.25401
G1 X174.88 Y118.17 E55.28096
G1 X175.06 Y118.33 E55.29408
G1 X175.19 Y118.42 E55.30238
G1 X175.46 Y118.54 E55.31801
G1 X175.54 Y118.56 E55.32282
G1 X175.64 Y118.58 E55.32809
G1 X175.89 Y118.61 E55.34122
G1 X176.11 Y118.59 E55.35311
G1 X176.33 Y118.53 E55.36535
G1 X176.53 Y118.44 E55.37708
G1 X176.72 Y118.32 E55.38903
G1 X176.89 Y118.16 E55.40150
G1 X177.03 Y117.98 E55.41357
G1 X177.13 Y117.78 E55.42558
G1 X177.20 Y117.57 E55.43760
G1 X177.34 Y116.62 E55.48857
G1 X179.84 Y117.12 E55.62430
G1 X179.93 Y117.14 E55.62942
G1 X181.74 Y117.75 E55.73135
G1 X182.43 Y117.99 E55.77015
G1 X182.08 Y118.87 E55.82090
G1 X182.04 Y119.09 E55.83285
G1 X182.03 Y119.32 E55.84513
G1 X182.06 Y119.55 E55.85746
G1 X182.12 Y119.76 E55.86923
G1 X182.22 Y119.96 E55.88117
G1 X182.36 Y120.15 E55.89351
G1 X182.52 Y120.30 E55.90541
G1 X182.71 Y120.44 E55.91768
G1 X182.91 Y120.53 E55.92972
G1 X183.13 Y120.59 E55.94180
G1 X183.35 Y120.62 E55.95367
G1 X183.58 Y120.60 E55.96587
G1 X183.80 Y120.55 E55.97813
G1 X184.01 Y120.46 E55.99012
G1 X184.20 Y120.34 E56.00223
G1 X184.37 Y120.19 E56.01429
G1 X184.96 Y119.45 E56.06514
G1 X186.90 Y121.15 E56.20290
G1 X188.20 Y122.62 E56.30777
G1 X188.69 Y123.17 E56.34684
G1 X187.94 Y123.77 E56.39782
G1 X187.79 Y123.93 E56.40977
G1 X187.67 Y124.12 E56.42188
G1 X187.58 Y124.33 E56.43387
G1 X187.53 Y124.56 E56.44613
G1 X187.52 Y124.79 E56.45844
G1 X187.54 Y125.00 E56.47014
G1 X187.60 Y125.22 E56.48222
G1 X187.70 Y125.43 E56.49433
G1 X187.83 Y125.61 E56.50634
G1 X187.98 Y125.77 E56.51838
G1 X188.17 Y125.91 E56.53061
G1 X188.37 Y126.01 E56.54290
G1 X188.58 Y126.08 E56.55456
G1 X188.82 Y126.11 E56.56715
G1 X189.03 Y126.10 E56.57864
G1 X189.26 Y126.05 E56.59117
G1 X190.15 Y125.70 E56.64198
G1 X190.97 Y128.15 E56.77980
G1 X191.51 Y130.79 E56.92374
G1 X190.57 Y130.93 E56.97482
G1 X190.35 Y131.00 E56.98684
G1 X190.15 Y131.11 E56.99885
G1 X189.97 Y131.25 E57.01115
G1 X189.82 Y131.41 E57.02308
G1 X189.69 Y131.60 E57.03513
G1 X189.60 Y131.81 E57.04720
G1 X189.55 Y132.02 E57.05927
G1 X189.53 Y132.25 E57.07138
G1 X189.55 Y132.48 E57.08354
G1 X189.60 Y132.70 E57.09560
G1 X189.69 Y132.90 E57.10768
G1 X189.82 Y133.09 E57.11973
G1 X189.97 Y133.25 E57.13166
G1 X190.15 Y133.39 E57.14396
G1 X190.35 Y133.50 E57.15597
G1 X190.57 Y133.57 E57.16799
G1 X191.51 Y133.71 E57.21896
G1 X191.01 Y136.21 E57.35474
G1 X190.99 Y136.30 E57.35986
G1 X190.38 Y138.11 E57.46179
G1 X190.15 Y138.80 E57.50069
G1 X189.26 Y138.45 E57.55143
G1 X189.03 Y138.41 E57.56396
G1 X188.82 Y138.40 E57.57545
G1 X188.58 Y138.43 E57.58805
G1 X188.37 Y138.49 E57.59970
G1 X188.17 Y138.59 E57.61199
G1 X187.99 Y138.72 E57.62403
G1 X187.83 Y138.89 E57.63614
G1 X187.70 Y139.07 E57.64823
G1 X187.60 Y139.28 E57.66029
G1 X187.54 Y139.50 E57.67244
G1 X187.52 Y139.69 E57.68260
G1 X187.53 Y139.94 E57.69617
G1 X187.73 Y140.67 E57.73637
G1 X186.57 Y142.07 E57.83372
G1 X185.58 Y143.03 E57.90699
G1 X185.40 Y143.20 E57.92047
G1 X184.31 Y144.05 E57.99406
G1 X184.11 Y144.20 E58.00756
G1 X182.72 Y145.05 E58.09458
G1 X181.47 Y145.63 E58.16807
G1 X181.24 Y145.73 E58.18154
G1 X179.94 Y146.17 E58.25487
G1 X179.70 Y146.25 E58.26846
G1 X178.34 Y146.54 E58.34240
G1 X176.15 Y146.97 E58.46157
G1 X175.84 Y147.03 E58.47855
G1 X173.93 Y147.55 E58.58422
G1 X173.93 Y147.55 E58.58427
G1 X173.63 Y147.63 E58.60099
G1 X171.76 Y148.30 E58.70701
G1 X171.46 Y148.41 E58.72396
G1 X169.65 Y149.21 E58.82969
G1 X168.83 Y149.59 E58.87783
G1 X167.87 Y150.14 E58.93695
G1 X167.76 Y150.20 E58.94370
G1 X166.97 Y150.80 E58.99638
G1 X166.87 Y150.88 E59.00353
G1 X166.17 Y151.57 E59.05596
G1 X166.08 Y151.67 E59.06302
G1 X165.48 Y152.45 E59.11548
G1 X165.40 Y152.55 E59.12241
G1 X164.91 Y153.41 E59.17507
G1 X164.91 Y153.41 E59.17513
G1 X164.84 Y153.52 E59.18206
G1 X164.46 Y154.43 E59.23471
G1 X164.41 Y154.56 E59.24197
G1 X164.16 Y155.50 E59.29418
G1 X164.16 Y155.50 E59.29423
G1 X164.13 Y155.63 E59.30140
G1 X164.00 Y156.60 E59.35390
G1 X164.00 Y156.60 E59.35395
G1 X163.98 Y156.73 E59.36073
G1 X163.99 Y157.72 E59.41325
G1 X163.99 Y157.86 E59.42121
G1 X164.03 Y158.44 E59.45192
G1 X164.24 Y160.54 E59.56463
G1 X164.24 Y160.54 E59.56468
G1 X164.28 Y160.85 E59.58144
G1 X164.64 Y162.80 E59.68728
G1 X164.69 Y163.10 E59.70367
G1 X165.20 Y165.03 E59.80986
G1 X165.28 Y165.34 E59.82693
G1 X165.93 Y167.21 E59.93291
G1 X166.53 Y169.05 E60.03621
G1 X166.80 Y170.40 E60.10952
G1 X166.86 Y170.65 E60.12317
G1 X166.98 Y172.02 E60.19675
G1 X166.98 Y172.02 E60.19680
G1 X167.00 Y172.27 E60.21026
G1 X166.97 Y173.65 E60.28384
G1 X166.97 Y173.90 E60.29730
G1 X166.78 Y175.27 E60.37091
G1 X166.74 Y175.52 E60.38437
G1 X166.41 Y176.85 E60.45782
G1 X166.34 Y177.09 E60.47131
G1 X165.70 Y178.84 E60.57048
G1 X165.20 Y178.93 E60.59733
G1 X164.97 Y179.00 E60.61025
G1 X164.79 Y179.09 E60.62099
G1 X164.59 Y179.24 E60.63422
G1 X164.52 Y179.30 E60.63944
G1 X164.44 Y179.39 E60.64565
G1 X164.38 Y179.47 E60.65134
G1 X164.32 Y179.56 E60.65694
G1 X164.22 Y179.78 E60.66967
G1 X164.16 Y180.00 E60.68170
G1 X164.13 Y180.22 E60.69357
G1 X164.15 Y180.44 E60.70577
G1 X164.20 Y180.67 E60.71803
G1 X164.29 Y180.88 E60.73002
G1 X164.41 Y181.07 E60.74213
G1 X164.56 Y181.23 E60.75408
G1 X165.30 Y181.83 E60.80506
G1 X163.60 Y183.77 E60.94289
G1 X162.13 Y185.07 E61.04780
G1 X161.58 Y185.56 E61.08687
G1 X160.98 Y184.81 E61.13789
G1 X160.82 Y184.66 E61.14984
G1 X160.62 Y184.54 E61.16195
G1 X160.42 Y184.45 E61.17394
G1 X160.19 Y184.40 E61.18620
G1 X159.97 Y184.38 E61.19840
G1 X159.75 Y184.41 E61.21027
G1 X159.53 Y184.47 E61.22247
G1 X159.32 Y184.56 E61.23426
G1 X159.13 Y184.70 E61.24666
G1 X158.97 Y184.85 E61.25859
G1 X158.84 Y185.04 E61.27089
G1 X158.74 Y185.24 E61.28282
G1 X158.68 Y185.45 E61.29459
G1 X158.65 Y185.68 E61.30719
G1 X158.65 Y185.91 E61.31905
G1 X158.70 Y186.12 E61.33088
G1 X159.05 Y187.01 E61.38203
G1 X156.60 Y187.84 E61.51985
G1 X153.96 Y188.38 E61.66379
G1 X153.82 Y187.43 E61.71486
G1 X153.75 Y187.22 E61.72688
G1 X153.64 Y187.02 E61.73889
G1 X153.50 Y186.84 E61.75119
G1 X153.34 Y186.69 E61.76305
G1 X153.16 Y186.57 E61.77462
G1 X152.94 Y186.47 E61.78745
G1 X152.73 Y186.41 E61.79929
G1 X152.50 Y186.39 E61.81140
G1 X152.27 Y186.41 E61.82351
G1 X152.05 Y186.47 E61.83568
G1 X151.85 Y186.56 E61.84755
G1 X151.67 Y186.68 E61.85926
G1 X151.50 Y186.84 E61.87169
G1 X151.36 Y187.02 E61.88392
G1 X151.25 Y187.22 E61.89593
G1 X151.18 Y187.43 E61.90795
G1 X151.04 Y188.38 E61.95892
G1 X148.54 Y187.88 E62.09470
G1 X148.45 Y187.86 E62.09982
G1 X146.64 Y187.25 E62.20175
G1 X145.95 Y187.01 E62.24064
G1 X146.30 Y186.12 E62.29168
G1 X146.35 Y185.91 E62.30356
G1 X146.35 Y185.68 E62.31542
G1 X146.32 Y185.45 E62.32801
G1 X146.26 Y185.24 E62.33978
G1 X146.16 Y185.04 E62.35172
G1 X146.03 Y184.85 E62.36402
G1 X145.87 Y184.70 E62.37595
G1 X145.68 Y184.56 E62.38834
G1 X145.47 Y184.47 E62.40014
G1 X145.25 Y184.41 E62.41234
G1 X145.03 Y184.38 E62.42421
G1 X144.81 Y184.40 E62.43641
G1 X144.58 Y184.45 E62.44867
G1 X144.38 Y184.54 E62.46066
G1 X144.18 Y184.66 E62.47277
G1 X144.02 Y184.81 E62.48472
G1 X143.42 Y185.55 E62.53570
G1 X141.48 Y183.85 E62.67353
G1 X140.18 Y182.38 E62.77844
G1 X139.69 Y181.83 E62.81751
G1 X140.44 Y181.23 E62.86853
G1 X140.59 Y181.07 E62.88048
G1 X140.71 Y180.88 E62.89259
G1 X140.80 Y180.67 E62.90458
G1 X140.85 Y180.44 E62.91684
G1 X140.87 Y180.22 E62.92904
G1 X140.84 Y180.00 E62.94091
G1 X140.78 Y179.78 E62.95294
G1 X140.68 Y179.57 E62.96540
G1 X140.56 Y179.39 E62.97658
G1 X140.40 Y179.23 E62.98904
G1 X140.22 Y179.09 E63.00117
G1 X140.01 Y178.99 E63.01330
G1 X139.80 Y178.92 E63.02542
G1 X139.30 Y178.83 E63.05245
G1 X138.66 Y177.09 E63.15149
G1 X138.32 Y175.76 E63.22463
G1 X138.26 Y175.52 E63.23818
G1 X138.07 Y174.15 E63.31178
G1 X138.03 Y173.90 E63.32521
G1 X138.00 Y172.52 E63.39884
G1 X138.00 Y172.27 E63.41229
G1 X138.12 Y170.91 E63.48557
G1 X138.12 Y170.91 E63.48562
G1 X138.14 Y170.65 E63.49928
G1 X138.42 Y169.30 E63.57290
G1 X138.47 Y169.05 E63.58635
G1 X138.90 Y167.74 E63.66016
G1 X139.62 Y165.62 E63.77941
G1 X139.72 Y165.32 E63.79629
G1 X140.23 Y163.41 E63.90214
G1 X140.31 Y163.10 E63.91931
G1 X140.67 Y161.15 E64.02473
G1 X140.67 Y161.15 E64.02478
G1 X140.72 Y160.84 E64.04204
G1 X140.93 Y158.89 E64.14667
G1 X141.01 Y157.97 E64.19589
G1 X141.02 Y156.87 E64.25478
G1 X141.02 Y156.74 E64.26145
G1 X140.89 Y155.76 E64.31414
G1 X140.89 Y155.76 E64.31420
G1 X140.87 Y155.64 E64.32082
G1 X140.62 Y154.68 E64.37378
G1 X140.62 Y154.68 E64.37384
G1 X140.59 Y154.56 E64.38048
G1 X140.21 Y153.64 E64.43343
G1 X140.21 Y153.64 E64.43348
G1 X140.16 Y153.52 E64.44044
G1 X139.67 Y152.67 E64.49301
G1 X139.60 Y152.56 E64.49980
G1 X139.00 Y151.77 E64.55261
G1 X138.92 Y151.67 E64.55961
G1 X138.22 Y150.97 E64.61227
G1 X138.13 Y150.88 E64.61926
G1 X137.35 Y150.28 E64.67166
G1 X137.24 Y150.20 E64.67905
G1 X136.25 Y149.64 E64.73971
G1 X135.73 Y149.38 E64.77106
G1 X133.82 Y148.53 E64.88242
G1 X133.54 Y148.40 E64.89901
G1 X131.66 Y147.74 E65.00517
G1 X131.36 Y147.63 E65.02230
G1 X129.46 Y147.11 E65.12772
G1 X129.46 Y147.11 E65.12778
G1 X129.15 Y147.03 E65.14492
G1 X127.20 Y146.65 E65.25079
G1 X125.55 Y146.30 E65.34056
G1 X125.30 Y146.25 E65.35419
G1 X123.76 Y145.73 E65.44123
G1 X122.28 Y145.05 E65.52819
G1 X121.11 Y144.33 E65.60167
G1 X120.89 Y144.20 E65.61512
G1 X119.80 Y143.36 E65.68871
G1 X119.80 Y143.36 E65.68876
G1 X119.60 Y143.21 E65.70209
G1 X118.61 Y142.24 E65.77571
G1 X118.43 Y142.07 E65.78915
G1 X117.63 Y141.10 E65.85635
G1 X117.63 Y141.10 E65.85640
G1 X117.24 Y140.63 E65.88886
G1 X117.42 Y140.15 E65.91629
G1 X117.47 Y139.92 E65.92875
G1 X117.48 Y139.78 E65.93667
G1 X117.45 Y139.47 E65.95281
G1 X117.43 Y139.38 E65.95800
G1 X117.40 Y139.30 E65.96268
G1 X117.30 Y139.07 E65.97609
G1 X117.17 Y138.88 E65.98805
G1 X117.01 Y138.72 E66.00002
G1 X116.83 Y138.59 E66.01205
G1 X116.63 Y138.49 E66.02435
G1 X116.42 Y138.43 E66.03600
G1 X116.18 Y138.40 E66.04859
G1 X115.97 Y138.41 E66.06008
G1 X115.74 Y138.45 E66.07261
G1 X114.85 Y138.80 E66.12343
G1 X114.03 Y136.35 E66.26124
G1 X113.49 Y133.71 E66.40519
G1 X114.43 Y133.57 E66.45626
G1 X114.65 Y133.50 E66.46828
G1 X114.85 Y133.39 E66.48029
G1 X115.03 Y133.25 E66.49259
G1 X115.18 Y133.09 E66.50452
G1 X115.31 Y132.90 E66.51658
G1 X115.40 Y132.70 E66.52865
G1 X115.45 Y132.48 E66.54071
G1 X115.47 Y132.25 E66.55287
G1 X115.45 Y132.02 E66.56498
G1 X115.40 Y131.81 E66.57705
G1 X115.31 Y131.60 E66.58912
G1 X115.18 Y131.41 E66.60117
G1 X115.03 Y131.25 E66.61310
G1 X114.85 Y131.11 E66.62540
G1 X114.65 Y131.00 E66.63741
G1 X114.43 Y130.93 E66.64943
G1 X113.49 Y130.79 E66.70040
G1 X113.99 Y128.29 E66.83619
G1 X114.01 Y128.20 E66.84131
G1 X114.62 Y126.39 E66.94324
G1 X114.85 Y125.70 E66.98213
G1 X115.74 Y126.05 E67.03288
G1 X115.97 Y126.10 E67.04541
G1 X116.18 Y126.11 E67.05689
G1 X116.42 Y126.08 E67.06949
G1 X116.63 Y126.01 E67.08114
G1 X116.83 Y125.91 E67.09344
G1 X117.01 Y125.78 E67.10547
G1 X117.17 Y125.61 E67.11747
G1 X117.30 Y125.44 E67.12910
G1 X117.40 Y125.22 E67.14201
G1 X117.46 Y125.00 E67.15388
G1 X117.48 Y124.79 E67.16558
G1 X117.47 Y124.56 E67.17788
G1 X117.42 Y124.33 E67.19015
G1 X117.33 Y124.12 E67.20214
G1 X117.21 Y123.93 E67.21425
G1 X117.06 Y123.77 E67.22620
G1 X116.31 Y123.17 E67.27714
G1 X118.02 Y121.23 E67.41494
G1 X119.49 Y119.93 E67.51984
G1 X120.04 Y119.45 E67.55883
G1 X120.63 Y120.19 E67.60973
G1 X120.80 Y120.34 E67.62179
G1 X120.99 Y120.46 E67.63390
G1 X121.20 Y120.55 E67.64589
G1 X121.42 Y120.60 E67.65815
G1 X121.65 Y120.62 E67.67035
G1 X121.87 Y120.59 E67.68222
G1 X122.09 Y120.53 E67.69430
G1 X122.29 Y120.44 E67.70634
G1 X122.48 Y120.30 E67.71861
G1 X122.64 Y120.15 E67.73050
G1 X122.78 Y119.96 E67.74285
G1 X122.88 Y119.76 E67.75478
G1 X122.94 Y119.55 E67.76655
G1 X122.97 Y119.32 E67.77888
G1 X122.96 Y119.09 E67.79117
G1 X122.92 Y118.87 E67.80312
G1 X122.57 Y117.98 E67.85394
G1 X125.02 Y117.16 E67.99166
G1 X127.66 Y116.62 E68.13555
G1 X127.80 Y117.57 E68.18662
G1 X127.87 Y117.78 E68.19864
G1 X127.97 Y117.98 E68.21065
G1 X128.11 Y118.16 E68.22273
G1 X128.28 Y118.31 E68.23470
G1 X128.46 Y118.43 E68.24646
G1 X128.68 Y118.53 E68.25919
G1 X128.89 Y118.59 E68.27109
G1 X129.12 Y118.61 E68.28319
G1 X129.34 Y118.58 E68.29531
G1 X129.56 Y118.53 E68.30735
G1 X129.74 Y118.45 E68.31768
G1 X129.96 Y118.31 E68.33166
G1 X130.08 Y118.20 E68.34047
G1 X130.12 Y118.16 E68.34372
G1 X130.45 Y117.78 E68.37047
G1 X132.28 Y118.09 E68.46959
G1 X133.84 Y118.53 E68.55644
G1 X135.12 Y119.05 E68.62982
G1 X135.35 Y119.15 E68.64347
G1 X136.56 Y119.81 E68.71679
G1 X136.78 Y119.93 E68.73038
G1 X138.12 Y120.87 E68.81754
G1 X139.14 Y121.78 E68.89082
G1 X139.34 Y121.95 E68.90444
G1 X140.26 Y122.97 E68.97822
G1 X141.71 Y124.64 E69.09594
G1 X143.34 Y126.29 E69.22009
G1 X143.57 Y126.51 E69.23682
G1 X145.08 Y127.80 E69.34277
G1 X145.32 Y128.00 E69.35947
G1 X146.91 Y129.16 E69.46470
G1 X147.67 Y129.69 E69.51419
G1 X148.61 Y130.24 E69.57232
G1 X148.73 Y130.31 E69.57971
G1 X149.63 Y130.69 E69.63199
G1 X149.75 Y130.74 E69.63893
G1 X150.71 Y131.00 E69.69178
G1 X150.84 Y131.03 E69.69898
G1 X151.81 Y131.16 E69.75122
G1 X151.94 Y131.18 E69.75810
G1 X152.92 Y131.18 E69.81068
G1 X153.05 Y131.18 E69.81762
G1 X154.03 Y131.05 E69.87044
G1 X154.16 Y131.03 E69.87749
G1 X155.11 Y130.78 E69.92972
G1 X155.11 Y130.78 E69.92977
G1 X155.24 Y130.74 E69.93719
G1 X156.14 Y130.37 E69.98929
G1 X156.28 Y130.31 E69.99694
G1 X157.11 Y129.83 E70.04815
G1 X157.74 Y129.41 E70.08881
G1 X159.43 Y128.19 E70.20018
G1 X159.68 Y128.00 E70.21672
G1 X161.20 Y126.71 E70.32295
G1 X161.43 Y126.51 E70.33938
G1 X163.06 Y124.90 E70.46210
G1 X164.37 Y123.39 E70.56854
G0 F6000 X164.05 Y123.11
G1 F2700 X165.36 Y121.64 E70.67330
G1 X166.41 Y120.72 E70.74810
G1 X166.62 Y120.53 E70.76293
G1 X167.76 Y119.73 E70.83742
G1 X167.76 Y119.73 E70.83750
G1 X167.99 Y119.57 E70.85254
G1 X169.22 Y118.90 E70.92715
G1 X169.46 Y118.76 E70.94208
G1 X170.76 Y118.23 E71.01700
G1 X170.76 Y118.23 E71.01705
G1 X171.01 Y118.13 E71.03184
G1 X172.37 Y117.75 E71.10671
G1 X172.63 Y117.67 E71.12120
G1 X173.88 Y117.46 E71.18930
G1 X174.73 Y117.31 E71.23505
G1 X175.19 Y117.87 E71.27368
G1 X175.33 Y118.00 E71.28377
G1 X175.40 Y118.04 E71.28823
G1 X175.61 Y118.14 E71.30039
G1 X175.65 Y118.15 E71.30258
G1 X175.70 Y118.16 E71.30551
G1 X175.89 Y118.18 E71.31554
G1 X176.04 Y118.16 E71.32384
G1 X176.18 Y118.13 E71.33161
G1 X176.33 Y118.06 E71.34021
G1 X176.45 Y117.98 E71.34785
G1 X176.57 Y117.87 E71.35654
G1 X176.66 Y117.75 E71.36473
G1 X176.74 Y117.61 E71.37306
G1 X176.78 Y117.46 E71.38144
G1 X176.99 Y116.11 E71.45427
G1 X179.92 Y116.70 E71.61401
G1 X180.04 Y116.73 E71.62060
G1 X181.88 Y117.35 E71.72395
G1 X182.99 Y117.72 E71.78663
G1 X182.50 Y118.99 E71.85931
G1 X182.46 Y119.15 E71.86788
G1 X182.46 Y119.30 E71.87589
G1 X182.48 Y119.45 E71.88424
G1 X182.52 Y119.60 E71.89238
G1 X182.59 Y119.74 E71.90066
G1 X182.68 Y119.86 E71.90891
G1 X182.79 Y119.98 E71.91744
G1 X182.92 Y120.06 E71.92554
G1 X183.05 Y120.13 E71.93340
G1 X183.21 Y120.17 E71.94216
G1 X183.36 Y120.19 E71.95031
G1 X183.51 Y120.18 E71.95839
G1 X183.67 Y120.14 E71.96694
G1 X183.81 Y120.08 E71.97488
G1 X183.94 Y120.00 E71.98339
G1 X184.05 Y119.90 E71.99144
G1 X184.91 Y118.83 E72.06448
G1 X187.20 Y120.85 E72.22765
G1 X188.52 Y122.34 E72.33395
G1 X189.31 Y123.22 E72.39700
G1 X188.24 Y124.08 E72.46998
G1 X188.13 Y124.19 E72.47811
G1 X188.05 Y124.33 E72.48662
G1 X187.99 Y124.46 E72.49449
G1 X187.96 Y124.62 E72.50311
G1 X187.95 Y124.77 E72.51139
G1 X187.96 Y124.93 E72.51955
G1 X188.00 Y125.07 E72.52758
G1 X188.07 Y125.22 E72.53608
G1 X188.16 Y125.33 E72.54390
G1 X188.27 Y125.45 E72.55262
G1 X188.39 Y125.54 E72.56069
G1 X188.53 Y125.61 E72.56909
G1 X188.68 Y125.66 E72.57728
G1 X188.83 Y125.68 E72.58552
G1 X188.98 Y125.67 E72.59358
G1 X189.14 Y125.64 E72.60220
G1 X190.41 Y125.14 E72.67497
G1 X191.39 Y128.04 E72.83821
G1 X192.02 Y131.14 E73.00755
G1 X190.67 Y131.35 E73.08061
G1 X190.52 Y131.40 E73.08898
G1 X190.38 Y131.47 E73.09731
G1 X190.26 Y131.56 E73.10538
G1 X190.16 Y131.68 E73.11381
G1 X190.07 Y131.81 E73.12223
G1 X190.01 Y131.94 E73.12986
G1 X189.97 Y132.10 E73.13879
G1 X189.96 Y132.25 E73.14672
G1 X189.97 Y132.40 E73.15475
G1 X190.01 Y132.56 E73.16363
G1 X190.07 Y132.69 E73.17126
G1 X190.16 Y132.82 E73.17968
G1 X190.26 Y132.94 E73.18811
G1 X190.38 Y133.03 E73.19618
G1 X190.52 Y133.10 E73.20451
G1 X190.67 Y133.15 E73.21288
G1 X192.02 Y133.36 E73.28566
G1 X191.43 Y136.29 E73.44544
G1 X191.41 Y136.41 E73.45204
G1 X190.79 Y138.25 E73.55539
G1 X190.41 Y139.36 E73.61823
G1 X189.14 Y138.86 E73.69094
G1 X188.98 Y138.83 E73.69955
G1 X188.83 Y138.82 E73.70762
G1 X188.68 Y138.84 E73.71586
G1 X188.53 Y138.89 E73.72405
G1 X188.39 Y138.96 E73.73245
G1 X188.27 Y139.05 E73.74040
G1 X188.16 Y139.16 E73.74912
G1 X188.07 Y139.29 E73.75710
G1 X188.00 Y139.43 E73.76553
G1 X187.96 Y139.58 E73.77374
G1 X187.95 Y139.69 E73.78003
G1 X187.96 Y139.87 E73.78949
G1 X188.20 Y140.77 E73.83909
G1 X186.88 Y142.36 E73.94955
G1 X185.89 Y143.33 E74.02365
G1 X185.69 Y143.53 E74.03871
G1 X184.57 Y144.38 E74.11368
G1 X184.36 Y144.55 E74.12844
G1 X183.16 Y145.28 E74.20330
G1 X182.92 Y145.43 E74.21806
G1 X181.65 Y146.02 E74.29284
G1 X181.40 Y146.13 E74.30757
G1 X180.08 Y146.57 E74.38200
G1 X180.08 Y146.57 E74.38206
G1 X179.81 Y146.66 E74.39705
G1 X178.43 Y146.96 E74.47258
G1 X176.24 Y147.39 E74.59185
G1 X175.94 Y147.44 E74.60817
G1 X174.04 Y147.96 E74.71286
G1 X174.04 Y147.96 E74.71292
G1 X173.75 Y148.04 E74.72898
G1 X171.90 Y148.70 E74.83391
G1 X171.61 Y148.80 E74.85029
G1 X169.84 Y149.59 E74.95346
G1 X169.02 Y149.97 E75.00194
G1 X168.08 Y150.51 E75.05991
G1 X168.00 Y150.56 E75.06479
G1 X167.23 Y151.14 E75.11621
G1 X167.15 Y151.21 E75.12188
G1 X166.48 Y151.87 E75.17246
G1 X166.40 Y151.96 E75.17854
G1 X165.82 Y152.71 E75.22932
G1 X165.75 Y152.79 E75.23495
G1 X165.28 Y153.62 E75.28566
G1 X165.28 Y153.62 E75.28571
G1 X165.22 Y153.71 E75.29179
G1 X164.86 Y154.59 E75.34224
G1 X164.82 Y154.69 E75.34806
G1 X164.57 Y155.61 E75.39905
G1 X164.55 Y155.71 E75.40453
G1 X164.42 Y156.66 E75.45572
G1 X164.41 Y156.76 E75.46089
G1 X164.41 Y157.71 E75.51176
G1 X164.41 Y157.85 E75.51907
G1 X164.45 Y158.43 E75.55032
G1 X164.67 Y160.49 E75.66067
G1 X164.70 Y160.78 E75.67651
G1 X165.06 Y162.72 E75.78180
G1 X165.11 Y163.01 E75.79760
G1 X165.61 Y164.92 E75.90263
G1 X165.68 Y165.19 E75.91781
G1 X166.33 Y167.08 E76.02424
G1 X166.86 Y168.68 E76.11410
G1 X166.86 Y168.68 E76.11415
G1 X166.94 Y168.94 E76.12905
G1 X167.22 Y170.31 E76.20352
G1 X167.28 Y170.58 E76.21853
G1 X167.41 Y171.98 E76.29355
G1 X167.40 Y171.98 E76.29361
G1 X167.43 Y172.25 E76.30825
G1 X167.40 Y173.66 E76.38316
G1 X167.39 Y173.93 E76.39784
G1 X167.20 Y175.32 E76.47280
G1 X167.20 Y175.32 E76.47286
G1 X167.16 Y175.60 E76.48756
G1 X166.82 Y176.96 E76.56238
G1 X166.75 Y177.22 E76.57709
G1 X166.29 Y178.45 E76.64715
G1 X166.01 Y179.22 E76.69052
G1 X165.31 Y179.34 E76.72881
G1 X165.13 Y179.39 E76.73847
G1 X165.02 Y179.46 E76.74542
G1 X164.86 Y179.57 E76.75577
G1 X164.82 Y179.60 E76.75857
G1 X164.79 Y179.65 E76.76149
G1 X164.72 Y179.73 E76.76742
G1 X164.70 Y179.77 E76.76953
G1 X164.62 Y179.93 E76.77897
G1 X164.58 Y180.07 E76.78717
G1 X164.56 Y180.23 E76.79554
G1 X164.57 Y180.38 E76.80362
G1 X164.61 Y180.54 E76.81216
G1 X164.67 Y180.67 E76.82011
G1 X164.75 Y180.81 E76.82862
G1 X164.85 Y180.92 E76.83664
G1 X165.92 Y181.77 E76.90969
G1 X163.90 Y184.07 E77.07298
G1 X162.41 Y185.39 E77.17931
G1 X161.53 Y186.17 E77.24236
G1 X160.67 Y185.10 E77.31549
G1 X160.56 Y185.00 E77.32350
G1 X160.42 Y184.92 E77.33202
G1 X160.29 Y184.86 E77.33996
G1 X160.13 Y184.82 E77.34851
G1 X159.98 Y184.81 E77.35658
G1 X159.82 Y184.83 E77.36496
G1 X159.68 Y184.87 E77.37305
G1 X159.53 Y184.94 E77.38153
G1 X159.41 Y185.03 E77.38959
G1 X159.30 Y185.13 E77.39782
G1 X159.21 Y185.26 E77.40615
G1 X159.14 Y185.40 E77.41450
G1 X159.09 Y185.54 E77.42264
G1 X159.07 Y185.70 E77.43088
G1 X159.08 Y185.85 E77.43927
G1 X159.11 Y186.00 E77.44723
G1 X159.61 Y187.28 E77.52034
G1 X156.71 Y188.25 E77.68358
G1 X153.61 Y188.89 E77.85292
G1 X153.40 Y187.54 E77.92597
G1 X153.35 Y187.39 E77.93435
G1 X153.28 Y187.25 E77.94268
G1 X153.19 Y187.13 E77.95075
G1 X153.07 Y187.02 E77.95925
G1 X152.95 Y186.94 E77.96699
G1 X152.81 Y186.88 E77.97550
G1 X152.65 Y186.84 E77.98415
G1 X152.50 Y186.82 E77.99207
G1 X152.35 Y186.84 E78.00000
G1 X152.19 Y186.88 E78.00877
G1 X152.05 Y186.94 E78.01689
G1 X151.93 Y187.02 E78.02463
G1 X151.81 Y187.13 E78.03328
G1 X151.72 Y187.25 E78.04147
G1 X151.65 Y187.39 E78.04981
G1 X151.60 Y187.54 E78.05818
G1 X151.40 Y188.88 E78.13096
G1 X148.46 Y188.30 E78.29074
G1 X148.34 Y188.27 E78.29734
G1 X146.50 Y187.65 E78.40068
G1 X145.39 Y187.28 E78.46353
G1 X145.89 Y186.00 E78.53657
G1 X145.92 Y185.85 E78.54454
G1 X145.93 Y185.70 E78.55293
G1 X145.91 Y185.54 E78.56116
G1 X145.86 Y185.40 E78.56930
G1 X145.79 Y185.26 E78.57766
G1 X145.70 Y185.13 E78.58599
G1 X145.59 Y185.03 E78.59422
G1 X145.47 Y184.94 E78.60227
G1 X145.32 Y184.87 E78.61075
G1 X145.18 Y184.83 E78.61885
G1 X145.02 Y184.81 E78.62722
G1 X144.87 Y184.82 E78.63530
G1 X144.71 Y184.86 E78.64384
G1 X144.58 Y184.92 E78.65179
G1 X144.44 Y185.00 E78.66030
G1 X144.33 Y185.10 E78.66832
G1 X143.48 Y186.17 E78.74137
G1 X141.18 Y184.15 E78.90466
G1 X139.86 Y182.66 E79.01099
G1 X139.08 Y181.78 E79.07404
G1 X140.15 Y180.92 E79.14717
G1 X140.25 Y180.81 E79.15518
G1 X140.33 Y180.67 E79.16370
G1 X140.39 Y180.54 E79.17164
G1 X140.43 Y180.38 E79.18019
G1 X140.44 Y180.23 E79.18826
G1 X140.42 Y180.07 E79.19664
G1 X140.38 Y179.93 E79.20473
G1 X140.31 Y179.78 E79.21328
G1 X140.23 Y179.67 E79.22088
G1 X140.12 Y179.55 E79.22922
G1 X139.98 Y179.46 E79.23814
G1 X139.85 Y179.39 E79.24607
G1 X139.70 Y179.34 E79.25466
G1 X138.98 Y179.21 E79.29358
G1 X138.25 Y177.22 E79.40684
G1 X137.91 Y175.87 E79.48130
G1 X137.84 Y175.60 E79.49602
G1 X137.65 Y174.21 E79.57096
G1 X137.61 Y173.94 E79.58557
G1 X137.58 Y172.53 E79.66059
G1 X137.57 Y172.26 E79.67523
G1 X137.69 Y170.86 E79.75010
G1 X137.70 Y170.86 E79.75015
G1 X137.72 Y170.59 E79.76477
G1 X138.00 Y169.21 E79.83975
G1 X138.05 Y168.94 E79.85445
G1 X138.49 Y167.60 E79.92978
G1 X139.22 Y165.48 E80.04925
G1 X139.31 Y165.21 E80.06497
G1 X139.81 Y163.30 E80.17026
G1 X139.89 Y163.01 E80.18606
G1 X140.25 Y161.07 E80.29120
G1 X140.30 Y160.78 E80.30698
G1 X140.51 Y158.82 E80.41216
G1 X140.58 Y157.96 E80.45870
G1 X140.59 Y156.86 E80.51710
G1 X140.59 Y156.77 E80.52223
G1 X140.47 Y155.82 E80.57314
G1 X140.47 Y155.82 E80.57319
G1 X140.45 Y155.71 E80.57912
G1 X140.21 Y154.79 E80.63003
G1 X140.18 Y154.69 E80.63529
G1 X139.82 Y153.81 E80.68623
G1 X139.78 Y153.71 E80.69197
G1 X139.30 Y152.88 E80.74305
G1 X139.30 Y152.88 E80.74310
G1 X139.25 Y152.79 E80.74856
G1 X138.66 Y152.03 E80.79974
G1 X138.60 Y151.95 E80.80514
G1 X137.92 Y151.28 E80.85621
G1 X137.92 Y151.28 E80.85626
G1 X137.85 Y151.20 E80.86212
G1 X137.09 Y150.62 E80.91299
G1 X137.00 Y150.56 E80.91860
G1 X136.18 Y150.09 E80.96951
G1 X136.18 Y150.09 E80.96956
G1 X136.04 Y150.01 E80.97774
G1 X135.55 Y149.77 E81.00717
G1 X133.65 Y148.92 E81.11839
G1 X133.38 Y148.80 E81.13374
G1 X131.52 Y148.14 E81.23930
G1 X131.24 Y148.04 E81.25546
G1 X129.34 Y147.52 E81.36009
G1 X129.06 Y147.44 E81.37580
G1 X127.12 Y147.07 E81.48156
G1 X125.47 Y146.72 E81.57155
G1 X125.19 Y146.66 E81.58650
G1 X123.60 Y146.13 E81.67610
G1 X122.33 Y145.54 E81.75084
G1 X122.08 Y145.43 E81.76565
G1 X120.89 Y144.70 E81.84016
G1 X120.89 Y144.70 E81.84021
G1 X120.65 Y144.56 E81.85518
G1 X119.55 Y143.70 E81.92964
G1 X119.32 Y143.53 E81.94468
G1 X118.31 Y142.55 E82.01969
G1 X118.12 Y142.36 E82.03434
G1 X117.30 Y141.37 E82.10284
G1 X116.75 Y140.72 E82.14841
G1 X117.01 Y140.03 E82.18737
G1 X117.05 Y139.86 E82.19676
G1 X117.05 Y139.78 E82.20099
G1 X117.03 Y139.54 E82.21396
G1 X117.02 Y139.50 E82.21642
G1 X117.01 Y139.46 E82.21854
G1 X116.93 Y139.28 E82.22890
G1 X116.84 Y139.16 E82.23662
G1 X116.73 Y139.05 E82.24530
G1 X116.61 Y138.96 E82.25325
G1 X116.47 Y138.89 E82.26165
G1 X116.32 Y138.84 E82.26984
G1 X116.17 Y138.82 E82.27808
G1 X116.02 Y138.83 E82.28614
G1 X115.86 Y138.86 E82.29476
G1 X114.59 Y139.36 E82.36753
G1 X113.61 Y136.47 E82.53077
G1 X112.98 Y133.36 E82.70011
G1 X114.33 Y133.15 E82.77316
G1 X114.48 Y133.10 E82.78154
G1 X114.62 Y133.03 E82.78987
G1 X114.74 Y132.94 E82.79794
G1 X114.84 Y132.82 E82.80637
G1 X114.93 Y132.69 E82.81479
G1 X114.99 Y132.56 E82.82242
G1 X115.03 Y132.40 E82.83130
G1 X115.04 Y132.25 E82.83933
G1 X115.03 Y132.10 E82.84726
G1 X114.99 Y131.94 E82.85619
G1 X114.93 Y131.81 E82.86382
G1 X114.84 Y131.68 E82.87224
G1 X114.74 Y131.56 E82.88066
G1 X114.62 Y131.47 E82.88874
G1 X114.48 Y131.40 E82.89707
G1 X114.33 Y131.35 E82.90544
G1 X112.98 Y131.15 E82.97822
G1 X113.57 Y128.21 E83.13800
G1 X113.59 Y128.09 E83.14460
G1 X114.21 Y126.25 E83.24795
G1 X114.59 Y125.14 E83.31079
G1 X115.86 Y125.64 E83.38350
G1 X116.02 Y125.67 E83.39211
G1 X116.17 Y125.68 E83.40018
G1 X116.32 Y125.66 E83.40842
G1 X116.47 Y125.61 E83.41661
G1 X116.61 Y125.54 E83.42501
G1 X116.73 Y125.45 E83.43296
G1 X116.84 Y125.34 E83.44156
G1 X116.92 Y125.22 E83.44932
G1 X117.00 Y125.07 E83.45820
G1 X117.04 Y124.93 E83.46613
G1 X117.05 Y124.77 E83.47429
G1 X117.04 Y124.62 E83.48258
G1 X117.01 Y124.46 E83.49119
G1 X116.95 Y124.33 E83.49906
G1 X116.86 Y124.19 E83.50758
G1 X116.76 Y124.08 E83.51571
G1 X115.70 Y123.23 E83.58861
G1 X117.71 Y120.93 E83.75182
G1 X119.21 Y119.61 E83.85820
G1 X120.09 Y118.83 E83.92110
G1 X120.94 Y119.90 E83.99413
G1 X121.06 Y120.00 E84.00222
G1 X121.19 Y120.08 E84.01074
G1 X121.33 Y120.14 E84.01868
G1 X121.49 Y120.18 E84.02723
G1 X121.64 Y120.19 E84.03530
G1 X121.79 Y120.17 E84.04346
G1 X121.95 Y120.13 E84.05222
G1 X122.08 Y120.06 E84.06007
G1 X122.20 Y119.98 E84.06817
G1 X122.32 Y119.86 E84.07670
G1 X122.41 Y119.74 E84.08496
G1 X122.48 Y119.60 E84.09324
G1 X122.52 Y119.45 E84.10138
G1 X122.54 Y119.30 E84.10973
G1 X122.54 Y119.15 E84.11774
G1 X122.50 Y118.99 E84.12631
G1 X122.01 Y117.72 E84.19906
G1 X124.90 Y116.75 E84.36213
G1 X128.01 Y116.11 E84.53142
G1 X128.22 Y117.46 E84.60447
G1 X128.26 Y117.61 E84.61284
G1 X128.34 Y117.75 E84.62117
G1 X128.43 Y117.87 E84.62925
G1 X128.55 Y117.98 E84.63774
G1 X128.67 Y118.06 E84.64541
G1 X128.82 Y118.13 E84.65437
G1 X128.96 Y118.16 E84.66204
G1 X129.11 Y118.18 E84.67034
G1 X129.27 Y118.16 E84.67897
G1 X129.43 Y118.12 E84.68744
G1 X129.54 Y118.08 E84.69388
G1 X129.70 Y117.97 E84.70406
G1 X129.79 Y117.89 E84.71041
G1 X129.79 Y117.89 E84.71091
G1 X130.28 Y117.31 E84.75106
G1 X132.37 Y117.67 E84.86444
G1 X133.98 Y118.13 E84.95384
G1 X135.28 Y118.66 E85.02866
G1 X135.28 Y118.66 E85.02871
G1 X135.54 Y118.76 E85.04339
G1 X136.76 Y119.43 E85.11790
G1 X137.01 Y119.56 E85.13288
G1 X138.16 Y120.37 E85.20777
G1 X138.38 Y120.53 E85.22264
G1 X139.43 Y121.46 E85.29710
G1 X139.64 Y121.64 E85.31208
G1 X140.58 Y122.69 E85.38741
G1 X142.03 Y124.35 E85.50482
G1 X143.64 Y125.99 E85.62777
G1 X143.85 Y126.19 E85.64317
G1 X145.36 Y127.47 E85.74882
G1 X145.58 Y127.66 E85.76439
G1 X147.17 Y128.82 E85.86946
G1 X147.90 Y129.33 E85.91664
G1 X148.82 Y129.87 E85.97405
G1 X148.92 Y129.93 E85.98026
G1 X149.80 Y130.29 E86.03083
G1 X149.80 Y130.29 E86.03088
G1 X149.90 Y130.34 E86.03672
G1 X150.82 Y130.58 E86.08774
G1 X150.92 Y130.61 E86.09311
G1 X151.87 Y130.74 E86.14433
G1 X151.87 Y130.74 E86.14438
G1 X151.96 Y130.75 E86.14944
G1 X152.92 Y130.75 E86.20052
G1 X153.03 Y130.75 E86.20618
G1 X153.98 Y130.62 E86.25738
G1 X154.08 Y130.61 E86.26298
G1 X154.99 Y130.37 E86.31344
G1 X154.99 Y130.37 E86.31350
G1 X155.10 Y130.33 E86.31960
G1 X155.99 Y129.97 E86.37057
G1 X156.07 Y129.93 E86.37574
G1 X156.88 Y129.47 E86.42523
G1 X157.50 Y129.06 E86.46463
G1 X159.18 Y127.84 E86.57588
G1 X159.42 Y127.67 E86.59159
G1 X160.92 Y126.39 E86.69679
G1 X161.14 Y126.20 E86.71224
G1 X162.75 Y124.61 E86.83311
G1 X164.05 Y123.11 E86.93910
G0 F6000 X163.73 Y122.83
G1 F2700 X165.06 Y121.34 E87.04537
G1 X166.13 Y120.39 E87.12161
G1 X166.35 Y120.20 E87.13757
G1 X167.52 Y119.38 E87.21373
G1 X167.76 Y119.20 E87.22966
G1 X169.02 Y118.52 E87.30600
G1 X169.28 Y118.38 E87.32175
G1 X170.60 Y117.83 E87.39798
G1 X170.88 Y117.72 E87.41402
G1 X172.25 Y117.33 E87.49022
G1 X172.53 Y117.25 E87.50589
G1 X173.81 Y117.04 E87.57506
G1 X174.90 Y116.85 E87.63410
G1 X175.50 Y117.57 E87.68445
G1 X175.59 Y117.66 E87.69114
G1 X175.61 Y117.67 E87.69210
G1 X175.76 Y117.73 E87.70082
G1 X175.89 Y117.75 E87.70817
G1 X175.97 Y117.74 E87.71197
G1 X176.04 Y117.72 E87.71637
G1 X176.12 Y117.68 E87.72105
G1 X176.19 Y117.64 E87.72495
G1 X176.25 Y117.58 E87.72993
G1 X176.30 Y117.52 E87.73409
G1 X176.34 Y117.44 E87.73850
G1 X176.37 Y117.37 E87.74289
G1 X176.63 Y115.61 E87.83791
G1 X180.01 Y116.28 E88.02166
G1 X180.16 Y116.31 E88.02972
G1 X182.01 Y116.94 E88.13452
G1 X183.55 Y117.46 E88.22107
G1 X182.91 Y119.11 E88.31570
G1 X182.89 Y119.20 E88.32044
G1 X182.89 Y119.28 E88.32456
G1 X182.90 Y119.36 E88.32913
G1 X182.92 Y119.45 E88.33371
G1 X182.96 Y119.52 E88.33813
G1 X183.01 Y119.59 E88.34248
G1 X183.06 Y119.64 E88.34667
G1 X183.13 Y119.69 E88.35123
G1 X183.21 Y119.72 E88.35565
G1 X183.29 Y119.75 E88.36037
G1 X183.37 Y119.76 E88.36450
G1 X183.45 Y119.75 E88.36883
G1 X183.53 Y119.73 E88.37343
G1 X183.61 Y119.70 E88.37790
G1 X183.68 Y119.66 E88.38217
G1 X183.75 Y119.60 E88.38685
G1 X184.85 Y118.21 E88.48169
G1 X187.51 Y120.54 E88.67021
G1 X188.84 Y122.06 E88.77794
G1 X189.92 Y123.28 E88.86505
G1 X188.53 Y124.39 E88.96002
G1 X188.48 Y124.45 E88.96429
G1 X188.43 Y124.52 E88.96882
G1 X188.40 Y124.60 E88.97334
G1 X188.38 Y124.68 E88.97789
G1 X188.38 Y124.76 E88.98222
G1 X188.38 Y124.85 E88.98689
G1 X188.41 Y124.92 E88.99078
G1 X188.44 Y125.00 E88.99567
G1 X188.49 Y125.06 E88.99962
G1 X188.55 Y125.13 E89.00442
G1 X188.61 Y125.17 E89.00873
G1 X188.69 Y125.21 E89.01303
G1 X188.77 Y125.24 E89.01766
G1 X188.85 Y125.25 E89.02202
G1 X188.93 Y125.24 E89.02635
G1 X189.01 Y125.23 E89.03092
G1 X190.67 Y124.58 E89.12589
G1 X191.80 Y127.92 E89.31454
G1 X192.53 Y131.50 E89.50937
G1 X190.77 Y131.77 E89.60472
G1 X190.69 Y131.79 E89.60911
G1 X190.62 Y131.83 E89.61352
G1 X190.55 Y131.88 E89.61765
G1 X190.49 Y131.95 E89.62259
G1 X190.45 Y132.01 E89.62683
G1 X190.41 Y132.09 E89.63120
G1 X190.39 Y132.17 E89.63555
G1 X190.39 Y132.25 E89.64005
G1 X190.39 Y132.33 E89.64444
G1 X190.41 Y132.41 E89.64896
G1 X190.45 Y132.49 E89.65333
G1 X190.49 Y132.56 E89.65757
G1 X190.55 Y132.62 E89.66252
G1 X190.62 Y132.67 E89.66664
G1 X190.69 Y132.71 E89.67106
G1 X190.77 Y132.73 E89.67545
G1 X192.53 Y133.00 E89.77047
G1 X191.85 Y136.38 E89.95426
G1 X191.82 Y136.52 E89.96232
G1 X191.19 Y138.38 E90.06712
G1 X190.67 Y139.92 E90.15394
G1 X189.01 Y139.28 E90.24879
G1 X188.93 Y139.26 E90.25337
G1 X188.85 Y139.25 E90.25770
G1 X188.77 Y139.26 E90.26206
G1 X188.69 Y139.29 E90.26669
G1 X188.61 Y139.33 E90.27098
G1 X188.55 Y139.37 E90.27534
G1 X188.49 Y139.43 E90.27961
G1 X188.44 Y139.50 E90.28426
G1 X188.41 Y139.58 E90.28874
G1 X188.38 Y139.66 E90.29346
G1 X188.38 Y139.71 E90.29593
G1 X188.38 Y139.81 E90.30101
G1 X188.68 Y140.87 E90.35992
G1 X187.19 Y142.65 E90.48357
G1 X186.18 Y143.64 E90.55926
G1 X186.18 Y143.64 E90.55934
G1 X185.97 Y143.85 E90.57523
G1 X184.84 Y144.72 E90.65156
G1 X184.60 Y144.91 E90.66754
G1 X183.38 Y145.65 E90.74372
G1 X183.38 Y145.65 E90.74377
G1 X183.12 Y145.81 E90.75985
G1 X181.84 Y146.40 E90.83568
G1 X181.56 Y146.53 E90.85190
G1 X180.22 Y146.98 E90.92752
G1 X179.93 Y147.08 E90.94388
G1 X178.51 Y147.38 E91.02093
G1 X176.32 Y147.81 E91.14036
G1 X176.32 Y147.81 E91.14042
G1 X176.03 Y147.86 E91.15587
G1 X174.15 Y148.38 E91.25995
G1 X173.88 Y148.45 E91.27484
G1 X172.04 Y149.10 E91.37904
G1 X172.04 Y149.10 E91.37909
G1 X171.78 Y149.20 E91.39395
G1 X169.99 Y149.99 E91.49839
G1 X169.23 Y150.35 E91.54369
G1 X168.29 Y150.88 E91.60115
G1 X168.29 Y150.88 E91.60121
G1 X168.24 Y150.91 E91.60460
G1 X167.50 Y151.48 E91.65404
G1 X167.43 Y151.53 E91.65849
G1 X166.78 Y152.18 E91.70749
G1 X166.73 Y152.23 E91.71183
G1 X166.16 Y152.97 E91.76147
G1 X166.11 Y153.03 E91.76565
G1 X165.65 Y153.83 E91.81511
G1 X165.61 Y153.89 E91.81875
G1 X165.25 Y154.76 E91.86867
G1 X165.25 Y154.76 E91.86873
G1 X165.23 Y154.81 E91.87206
G1 X164.99 Y155.72 E91.92217
G1 X164.99 Y155.72 E91.92222
G1 X164.97 Y155.80 E91.92637
G1 X164.85 Y156.70 E91.97503
G1 X164.85 Y156.72 E91.97584
G1 X164.84 Y156.78 E91.97944
G1 X164.84 Y157.71 E92.02866
G1 X164.84 Y157.83 E92.03539
G1 X164.88 Y158.39 E92.06514
G1 X165.09 Y160.44 E92.17533
G1 X165.13 Y160.73 E92.19080
G1 X165.48 Y162.64 E92.29478
G1 X165.48 Y162.64 E92.29483
G1 X165.53 Y162.92 E92.30982
G1 X166.02 Y164.81 E92.41396
G1 X166.10 Y165.08 E92.42915
G1 X166.74 Y166.94 E92.53402
G1 X167.26 Y168.54 E92.62391
G1 X167.26 Y168.54 E92.62396
G1 X167.36 Y168.83 E92.64030
G1 X167.64 Y170.23 E92.71662
G1 X167.71 Y170.52 E92.73234
G1 X167.83 Y171.94 E92.80838
G1 X167.83 Y171.94 E92.80844
G1 X167.86 Y172.24 E92.82463
G1 X167.83 Y173.67 E92.90088
G1 X167.82 Y173.97 E92.91679
G1 X167.62 Y175.38 E92.99309
G1 X167.59 Y175.68 E93.00904
G1 X167.24 Y177.06 E93.08518
G1 X167.16 Y177.35 E93.10116
G1 X166.70 Y178.60 E93.17242
G1 X166.33 Y179.59 E93.22883
G1 X165.40 Y179.76 E93.27921
G1 X165.30 Y179.79 E93.28475
G1 X165.25 Y179.82 E93.28802
G1 X165.13 Y179.90 E93.29544
G1 X165.11 Y179.93 E93.29730
G1 X165.07 Y179.98 E93.30068
G1 X165.02 Y180.08 E93.30682
G1 X165.00 Y180.16 E93.31108
G1 X164.99 Y180.24 E93.31537
G1 X165.00 Y180.32 E93.31971
G1 X165.02 Y180.40 E93.32430
G1 X165.05 Y180.48 E93.32878
G1 X165.09 Y180.55 E93.33331
G1 X165.15 Y180.61 E93.33754
G1 X166.54 Y181.72 E93.43258
G1 X164.21 Y184.37 E93.62121
G1 X162.69 Y185.71 E93.72902
G1 X161.47 Y186.79 E93.81613
G1 X160.36 Y185.40 E93.91121
G1 X160.30 Y185.34 E93.91545
G1 X160.23 Y185.30 E93.91998
G1 X160.15 Y185.27 E93.92445
G1 X160.07 Y185.25 E93.92905
G1 X159.99 Y185.24 E93.93338
G1 X159.91 Y185.25 E93.93768
G1 X159.83 Y185.27 E93.94211
G1 X159.75 Y185.31 E93.94658
G1 X159.68 Y185.36 E93.95109
G1 X159.63 Y185.41 E93.95528
G1 X159.57 Y185.48 E93.95986
G1 X159.54 Y185.55 E93.96416
G1 X159.51 Y185.64 E93.96874
G1 X159.50 Y185.72 E93.97315
G1 X159.51 Y185.80 E93.97775
G1 X159.52 Y185.88 E93.98173
G1 X160.17 Y187.54 E94.07698
G1 X156.83 Y188.67 E94.26563
G1 X153.25 Y189.40 E94.46046
G1 X152.98 Y187.63 E94.55581
G1 X152.96 Y187.56 E94.56020
G1 X152.92 Y187.48 E94.56462
G1 X152.87 Y187.42 E94.56874
G1 X152.81 Y187.36 E94.57334
G1 X152.74 Y187.32 E94.57779
G1 X152.66 Y187.28 E94.58261
G1 X152.58 Y187.26 E94.58662
G1 X152.50 Y187.25 E94.59112
G1 X152.42 Y187.26 E94.59562
G1 X152.34 Y187.28 E94.59992
G1 X152.26 Y187.31 E94.60418
G1 X152.19 Y187.36 E94.60868
G1 X152.13 Y187.42 E94.61348
G1 X152.08 Y187.48 E94.61763
G1 X152.04 Y187.56 E94.62205
G1 X152.02 Y187.63 E94.62644
G1 X151.75 Y189.39 E94.72146
G1 X148.38 Y188.72 E94.90525
G1 X148.23 Y188.69 E94.91331
G1 X146.37 Y188.06 E95.01811
G1 X144.83 Y187.54 E95.10493
G1 X145.48 Y185.88 E95.20007
G1 X145.49 Y185.80 E95.20405
G1 X145.50 Y185.72 E95.20864
G1 X145.49 Y185.64 E95.21306
G1 X145.46 Y185.55 E95.21764
G1 X145.43 Y185.48 E95.22193
G1 X145.37 Y185.41 E95.22651
G1 X145.32 Y185.36 E95.23070
G1 X145.25 Y185.31 E95.23522
G1 X145.17 Y185.27 E95.23969
G1 X145.09 Y185.25 E95.24412
G1 X145.01 Y185.24 E95.24842
G1 X144.93 Y185.25 E95.25275
G1 X144.85 Y185.27 E95.25734
G1 X144.77 Y185.30 E95.26182
G1 X144.70 Y185.34 E95.26635
G1 X144.64 Y185.40 E95.27058
G1 X143.53 Y186.79 E95.36562
G1 X140.88 Y184.46 E95.55425
G1 X139.54 Y182.94 E95.66206
G1 X138.46 Y181.72 E95.74917
G1 X139.85 Y180.61 E95.84426
G1 X139.91 Y180.55 E95.84849
G1 X139.95 Y180.48 E95.85302
G1 X139.98 Y180.40 E95.85749
G1 X140.00 Y180.32 E95.86209
G1 X140.01 Y180.24 E95.86642
G1 X140.00 Y180.16 E95.87072
G1 X139.98 Y180.08 E95.87510
G1 X139.94 Y180.00 E95.87980
G1 X139.90 Y179.94 E95.88357
G1 X139.84 Y179.88 E95.88806
G1 X139.76 Y179.82 E95.89338
G1 X139.69 Y179.79 E95.89746
G1 X139.60 Y179.76 E95.90254
G1 X138.66 Y179.59 E95.95341
G1 X137.84 Y177.35 E96.08084
G1 X137.49 Y175.97 E96.15650
G1 X137.41 Y175.68 E96.17244
G1 X137.22 Y174.28 E96.24807
G1 X137.22 Y174.28 E96.24812
G1 X137.18 Y173.97 E96.26457
G1 X137.15 Y172.54 E96.34103
G1 X137.15 Y172.54 E96.34109
G1 X137.14 Y172.25 E96.35695
G1 X137.27 Y170.82 E96.43311
G1 X137.29 Y170.53 E96.44897
G1 X137.58 Y169.13 E96.52530
G1 X137.58 Y169.13 E96.52536
G1 X137.64 Y168.83 E96.54131
G1 X138.08 Y167.47 E96.61809
G1 X138.81 Y165.34 E96.73780
G1 X138.91 Y165.07 E96.75343
G1 X139.40 Y163.19 E96.85712
G1 X139.47 Y162.92 E96.87220
G1 X139.82 Y161.00 E96.97631
G1 X139.88 Y160.72 E96.99155
G1 X140.08 Y158.82 E97.09356
G1 X140.15 Y157.93 E97.14101
G1 X140.16 Y156.86 E97.19829
G1 X140.16 Y156.80 E97.20150
G1 X140.04 Y155.87 E97.25145
G1 X140.03 Y155.80 E97.25532
G1 X139.79 Y154.90 E97.30503
G1 X139.79 Y154.90 E97.30508
G1 X139.78 Y154.83 E97.30863
G1 X139.42 Y153.97 E97.35864
G1 X139.39 Y153.90 E97.36251
G1 X138.93 Y153.10 E97.41207
G1 X138.89 Y153.03 E97.41589
G1 X138.32 Y152.29 E97.46573
G1 X138.28 Y152.24 E97.46939
G1 X137.62 Y151.58 E97.51933
G1 X137.57 Y151.53 E97.52333
G1 X136.83 Y150.96 E97.57284
G1 X136.77 Y150.92 E97.57680
G1 X135.97 Y150.46 E97.62627
G1 X135.85 Y150.39 E97.63320
G1 X135.37 Y150.15 E97.66207
G1 X133.47 Y149.31 E97.77269
G1 X133.47 Y149.31 E97.77274
G1 X133.21 Y149.19 E97.78821
G1 X131.38 Y148.54 E97.89206
G1 X131.11 Y148.45 E97.90714
G1 X129.23 Y147.94 E98.01112
G1 X128.96 Y147.86 E98.02611
G1 X127.03 Y147.49 E98.13105
G1 X125.38 Y147.14 E98.22120
G1 X125.08 Y147.08 E98.23751
G1 X123.44 Y146.53 E98.32967
G1 X122.15 Y145.93 E98.40569
G1 X121.88 Y145.81 E98.42179
G1 X120.66 Y145.06 E98.49790
G1 X120.40 Y144.91 E98.51378
G1 X119.28 Y144.03 E98.59010
G1 X119.04 Y143.85 E98.60582
G1 X118.02 Y142.86 E98.68219
G1 X117.80 Y142.65 E98.69809
G1 X116.97 Y141.64 E98.76786
G1 X116.26 Y140.80 E98.82658
G1 X116.60 Y139.91 E98.87752
G1 X116.62 Y139.80 E98.88320
G1 X116.62 Y139.79 E98.88401
G1 X116.61 Y139.62 E98.89323
G1 X116.55 Y139.49 E98.90044
G1 X116.51 Y139.43 E98.90454
G1 X116.45 Y139.37 E98.90881
G1 X116.39 Y139.33 E98.91317
G1 X116.31 Y139.29 E98.91746
G1 X116.23 Y139.26 E98.92209
G1 X116.15 Y139.25 E98.92646
G1 X116.07 Y139.26 E98.93078
G1 X115.98 Y139.28 E98.93536
G1 X114.33 Y139.93 E99.03033
G1 X113.20 Y136.58 E99.21897
G1 X112.47 Y133.00 E99.41381
G1 X114.23 Y132.73 E99.50915
G1 X114.31 Y132.71 E99.51354
G1 X114.39 Y132.67 E99.51796
G1 X114.45 Y132.62 E99.52208
G1 X114.51 Y132.56 E99.52703
G1 X114.55 Y132.49 E99.53126
G1 X114.59 Y132.41 E99.53564
G1 X114.61 Y132.33 E99.54016
G1 X114.61 Y132.25 E99.54454
G1 X114.61 Y132.17 E99.54904
G1 X114.59 Y132.09 E99.55339
G1 X114.55 Y132.01 E99.55777
G1 X114.51 Y131.95 E99.56200
G1 X114.45 Y131.88 E99.56695
G1 X114.39 Y131.83 E99.57107
G1 X114.31 Y131.79 E99.57549
G1 X114.23 Y131.77 E99.57988
G1 X112.47 Y131.50 E99.67490
G1 X113.15 Y128.12 E99.85870
G1 X113.18 Y127.98 E99.86676
G1 X113.81 Y126.12 E99.97156
G1 X114.33 Y124.58 E100.05838
G1 X115.98 Y125.23 E100.15323
G1 X116.07 Y125.24 E100.15780
G1 X116.15 Y125.25 E100.16213
G1 X116.23 Y125.24 E100.16649
G1 X116.31 Y125.21 E100.17112
G1 X116.39 Y125.17 E100.17542
G1 X116.45 Y125.13 E100.17989
G1 X116.51 Y125.07 E100.18412
G1 X116.55 Y125.01 E100.18822
G1 X116.60 Y124.92 E100.19360
G1 X116.61 Y124.85 E100.19726
G1 X116.62 Y124.76 E100.20193
G1 X116.62 Y124.68 E100.20626
G1 X116.60 Y124.60 E100.21081
G1 X116.57 Y124.52 E100.21533
G1 X116.52 Y124.45 E100.21986
G1 X116.47 Y124.39 E100.22413
G1 X115.08 Y123.28 E100.31902
G1 X117.41 Y120.63 E100.50766
G1 X118.92 Y119.29 E100.61547
G1 X120.14 Y118.21 E100.70239
G1 X121.25 Y119.60 E100.79729
G1 X121.32 Y119.66 E100.80198
G1 X121.39 Y119.70 E100.80625
G1 X121.47 Y119.73 E100.81072
G1 X121.55 Y119.75 E100.81532
G1 X121.63 Y119.76 E100.81965
G1 X121.71 Y119.75 E100.82378
G1 X121.79 Y119.72 E100.82850
G1 X121.87 Y119.69 E100.83291
G1 X121.94 Y119.64 E100.83748
G1 X121.99 Y119.59 E100.84167
G1 X122.04 Y119.52 E100.84602
G1 X122.08 Y119.45 E100.85044
G1 X122.10 Y119.36 E100.85502
G1 X122.11 Y119.28 E100.85959
G1 X122.11 Y119.20 E100.86370
G1 X122.09 Y119.11 E100.86845
G1 X121.45 Y117.46 E100.96325
G1 X124.79 Y116.33 E101.15161
G1 X128.37 Y115.60 E101.34639
G1 X128.63 Y117.37 E101.44173
G1 X128.66 Y117.44 E101.44612
G1 X128.70 Y117.52 E101.45054
G1 X128.75 Y117.58 E101.45466
G1 X128.81 Y117.64 E101.45946
G1 X128.87 Y117.68 E101.46343
G1 X128.96 Y117.72 E101.46852
G1 X129.03 Y117.74 E101.47265
G1 X129.11 Y117.75 E101.47667
G1 X129.20 Y117.74 E101.48144
G1 X129.30 Y117.71 E101.48683
G1 X129.33 Y117.70 E101.48891
G1 X129.44 Y117.63 E101.49590
G1 X129.49 Y117.59 E101.49896
G1 X130.11 Y116.85 E101.55072
G1 X132.47 Y117.25 E101.67839
G1 X133.83 Y117.64 E101.75409
G1 X134.12 Y117.72 E101.77029
G1 X135.44 Y118.26 E101.84609
G1 X135.72 Y118.37 E101.86233
G1 X136.96 Y119.05 E101.93801
G1 X137.23 Y119.20 E101.95440
G1 X138.40 Y120.02 E102.03071
G1 X138.65 Y120.19 E102.04677
G1 X139.71 Y121.14 E102.12236
G1 X139.94 Y121.34 E102.13870
G1 X140.90 Y122.41 E102.21558
G1 X142.34 Y124.06 E102.33273
G1 X143.94 Y125.68 E102.45439
G1 X144.15 Y125.89 E102.47002
G1 X145.63 Y127.15 E102.57359
G1 X145.63 Y127.15 E102.57366
G1 X145.85 Y127.33 E102.58885
G1 X147.41 Y128.47 E102.69190
G1 X148.12 Y128.96 E102.73847
G1 X149.04 Y129.50 E102.79535
G1 X149.11 Y129.54 E102.79930
G1 X149.96 Y129.90 E102.84869
G1 X150.03 Y129.93 E102.85295
G1 X150.93 Y130.17 E102.90260
G1 X151.00 Y130.19 E102.90659
G1 X151.93 Y130.31 E102.95619
G1 X151.99 Y130.32 E102.95963
G1 X152.92 Y130.32 E103.00912
G1 X153.00 Y130.32 E103.01355
G1 X153.91 Y130.20 E103.06260
G1 X153.99 Y130.19 E103.06697
G1 X154.89 Y129.95 E103.11677
G1 X154.96 Y129.93 E103.12047
G1 X155.82 Y129.57 E103.17025
G1 X155.89 Y129.54 E103.17403
G1 X156.66 Y129.10 E103.22160
G1 X157.26 Y128.71 E103.25980
G1 X158.93 Y127.50 E103.36999
G1 X158.93 Y127.49 E103.37004
G1 X159.16 Y127.33 E103.38520
G1 X160.64 Y126.06 E103.48938
G1 X160.86 Y125.88 E103.50446
G1 X162.24 Y124.51 E103.60856
G1 X162.45 Y124.30 E103.62385
G1 X163.73 Y122.83 E103.72844
G0 F6000 X163.41 Y122.54
G1 F2700 X164.75 Y121.04 E103.83619
G1 X166.09 Y119.86 E103.93103
G1 X167.27 Y119.03 E104.00848
G1 X167.53 Y118.84 E104.02558
G1 X168.80 Y118.15 E104.10265
G1 X168.80 Y118.15 E104.10270
G1 X169.09 Y117.99 E104.12031
G1 X170.44 Y117.44 E104.19793
G1 X170.73 Y117.32 E104.21514
G1 X172.12 Y116.92 E104.29207
G1 X172.44 Y116.83 E104.30955
G1 X173.75 Y116.61 E104.38079
G1 X175.07 Y116.38 E104.45218
G1 X175.81 Y117.28 E104.51416
G1 X175.84 Y117.30 E104.51619
G1 X175.87 Y117.31 E104.51784
G1 X175.89 Y117.32 E104.51929
G1 X175.90 Y117.32 E104.51961
G1 X175.91 Y117.31 E104.52049
G1 X175.92 Y117.31 E104.52088
G1 X175.93 Y117.29 E104.52175
G1 X175.94 Y117.28 E104.52235
G1 X175.94 Y117.28 E104.52295
G1 X175.95 Y117.27 E104.52346
G1 X176.28 Y115.10 E104.64046
G1 X180.09 Y115.86 E104.84815
G1 X180.27 Y115.90 E104.85769
G1 X182.15 Y116.54 E104.96396
G1 X184.11 Y117.20 E105.07440
G1 X183.32 Y119.24 E105.19130
G1 X183.32 Y119.25 E105.19168
G1 X183.31 Y119.26 E105.19222
G1 X183.32 Y119.28 E105.19308
G1 X183.32 Y119.28 E105.19357
G1 X183.32 Y119.30 E105.19424
G1 X183.33 Y119.31 E105.19508
G1 X183.34 Y119.31 E105.19531
G1 X183.35 Y119.32 E105.19589
G1 X183.36 Y119.32 E105.19665
G1 X183.37 Y119.33 E105.19726
G1 X183.38 Y119.33 E105.19801
G1 X183.39 Y119.33 E105.19828
G1 X183.41 Y119.32 E105.19926
G1 X183.41 Y119.32 E105.19967
G1 X183.42 Y119.32 E105.20003
G1 X183.43 Y119.31 E105.20086
G1 X184.80 Y117.59 E105.31786
G1 X187.81 Y120.24 E105.53169
G1 X189.17 Y121.77 E105.64094
G1 X190.54 Y123.33 E105.75206
G1 X188.83 Y124.70 E105.86891
G1 X188.82 Y124.71 E105.86993
G1 X188.81 Y124.72 E105.87036
G1 X188.81 Y124.73 E105.87077
G1 X188.81 Y124.74 E105.87176
G1 X188.81 Y124.75 E105.87234
G1 X188.81 Y124.76 E105.87283
G1 X188.81 Y124.77 E105.87305
G1 X188.81 Y124.78 E105.87405
G1 X188.82 Y124.79 E105.87459
G1 X188.83 Y124.80 E105.87526
G1 X188.84 Y124.81 E105.87576
G1 X188.85 Y124.81 E105.87640
G1 X188.86 Y124.82 E105.87696
G1 X188.87 Y124.82 E105.87777
G1 X188.90 Y124.81 E105.87896
G1 X190.93 Y124.01 E105.99584
G1 X192.22 Y127.81 E106.20984
G1 X193.04 Y131.86 E106.43016
G1 X190.87 Y132.19 E106.54754
G1 X190.86 Y132.19 E106.54805
G1 X190.85 Y132.19 E106.54864
G1 X190.84 Y132.20 E106.54944
G1 X190.83 Y132.21 E106.54997
G1 X190.82 Y132.22 E106.55051
G1 X190.82 Y132.23 E106.55101
G1 X190.82 Y132.24 E106.55174
G1 X190.81 Y132.25 E106.55233
G1 X190.81 Y132.26 E106.55275
G1 X190.82 Y132.28 E106.55370
G1 X190.82 Y132.28 E106.55421
G1 X190.83 Y132.29 E106.55462
G1 X190.84 Y132.30 E106.55519
G1 X190.85 Y132.31 E106.55607
G1 X190.86 Y132.31 E106.55666
G1 X190.87 Y132.32 E106.55717
G1 X193.03 Y132.64 E106.67417
G1 X192.27 Y136.46 E106.88192
G1 X192.23 Y136.63 E106.89146
G1 X191.60 Y138.52 E106.99772
G1 X190.93 Y140.49 E107.10850
G1 X188.90 Y139.69 E107.22520
G1 X188.88 Y139.68 E107.22629
G1 X188.87 Y139.68 E107.22656
G1 X188.86 Y139.69 E107.22721
G1 X188.85 Y139.69 E107.22777
G1 X188.84 Y139.69 E107.22841
G1 X188.83 Y139.70 E107.22914
G1 X188.83 Y139.70 E107.22919
G1 X188.81 Y139.72 E107.23018
G1 X188.81 Y139.73 E107.23083
G1 X188.81 Y139.74 E107.23122
G1 X189.15 Y140.97 E107.29965
G1 X187.51 Y142.94 E107.43642
G1 X186.49 Y143.94 E107.51260
G1 X186.25 Y144.17 E107.53041
G1 X185.10 Y145.06 E107.60777
G1 X184.84 Y145.26 E107.62535
G1 X183.61 Y146.01 E107.70266
G1 X183.61 Y146.01 E107.70271
G1 X183.33 Y146.18 E107.72015
G1 X182.01 Y146.79 E107.79763
G1 X181.72 Y146.93 E107.81483
G1 X180.35 Y147.38 E107.89159
G1 X180.04 Y147.49 E107.90929
G1 X178.60 Y147.80 E107.98792
G1 X176.40 Y148.23 E108.10769
G1 X176.15 Y148.28 E108.12134
G1 X174.27 Y148.79 E108.22510
G1 X174.01 Y148.86 E108.23933
G1 X172.19 Y149.51 E108.34268
G1 X171.93 Y149.60 E108.35725
G1 X170.19 Y150.37 E108.45878
G1 X169.41 Y150.74 E108.50491
G1 X168.52 Y151.24 E108.55956
G1 X168.48 Y151.27 E108.56241
G1 X167.75 Y151.82 E108.61093
G1 X167.72 Y151.85 E108.61319
G1 X167.08 Y152.49 E108.66150
G1 X167.05 Y152.51 E108.66343
G1 X166.50 Y153.23 E108.71197
G1 X166.47 Y153.27 E108.71444
G1 X166.02 Y154.05 E108.76257
G1 X166.00 Y154.09 E108.76508
G1 X165.66 Y154.91 E108.81251
G1 X165.63 Y154.96 E108.81551
G1 X165.40 Y155.83 E108.86357
G1 X165.39 Y155.88 E108.86611
G1 X165.27 Y156.77 E108.91424
G1 X165.27 Y156.81 E108.91629
G1 X165.27 Y157.70 E108.96380
G1 X165.27 Y157.82 E108.97004
G1 X165.31 Y158.34 E108.99792
G1 X165.52 Y160.41 E109.10886
G1 X165.52 Y160.41 E109.10892
G1 X165.55 Y160.66 E109.12272
G1 X165.90 Y162.57 E109.22606
G1 X165.90 Y162.57 E109.22611
G1 X165.95 Y162.83 E109.24028
G1 X166.44 Y164.70 E109.34348
G1 X166.51 Y164.96 E109.35779
G1 X167.14 Y166.80 E109.46202
G1 X167.67 Y168.41 E109.55210
G1 X167.77 Y168.72 E109.56981
G1 X168.06 Y170.13 E109.64656
G1 X168.13 Y170.46 E109.66435
G1 X168.26 Y171.90 E109.74168
G1 X168.29 Y172.22 E109.75921
G1 X168.25 Y173.67 E109.83626
G1 X168.25 Y173.67 E109.83631
G1 X168.25 Y174.00 E109.85404
G1 X168.05 Y175.44 E109.93169
G1 X168.01 Y175.76 E109.94882
G1 X167.65 Y177.17 E110.02634
G1 X167.57 Y177.48 E110.04353
G1 X167.10 Y178.75 E110.11605
G1 X166.65 Y179.97 E110.18545
G1 X165.51 Y180.18 E110.24717
G1 X165.47 Y180.19 E110.24928
G1 X165.44 Y180.21 E110.25153
G1 X165.43 Y180.23 E110.25265
G1 X165.42 Y180.24 E110.25294
G1 X165.42 Y180.25 E110.25380
G1 X165.42 Y180.25 E110.25401
G1 X165.43 Y180.27 E110.25505
G1 X165.43 Y180.28 E110.25534
G1 X165.43 Y180.29 E110.25584
G1 X165.45 Y180.30 E110.25678
G1 X167.16 Y181.66 E110.37367
G1 X164.51 Y184.68 E110.58772
G1 X162.98 Y186.03 E110.69697
G1 X161.42 Y187.41 E110.80813
G1 X160.05 Y185.69 E110.92517
G1 X160.04 Y185.68 E110.92615
G1 X160.03 Y185.68 E110.92647
G1 X160.02 Y185.68 E110.92687
G1 X160.01 Y185.67 E110.92786
G1 X160.00 Y185.67 E110.92812
G1 X159.99 Y185.67 E110.92898
G1 X159.98 Y185.68 E110.92944
G1 X159.96 Y185.68 E110.93020
G1 X159.96 Y185.69 E110.93070
G1 X159.95 Y185.69 E110.93093
G1 X159.94 Y185.71 E110.93196
G1 X159.94 Y185.72 E110.93255
G1 X159.93 Y185.72 E110.93304
G1 X159.93 Y185.74 E110.93369
G1 X159.93 Y185.75 E110.93428
G1 X159.93 Y185.76 E110.93477
G1 X160.74 Y187.80 E111.05194
G1 X156.94 Y189.08 E111.26594
G1 X152.89 Y189.91 E111.48626
G1 X152.56 Y187.73 E111.60364
G1 X152.56 Y187.72 E111.60415
G1 X152.56 Y187.72 E111.60474
G1 X152.55 Y187.70 E111.60562
G1 X152.54 Y187.70 E111.60584
G1 X152.54 Y187.69 E111.60630
G1 X152.51 Y187.68 E111.60759
G1 X152.51 Y187.68 E111.60803
G1 X152.49 Y187.68 E111.60878
G1 X152.48 Y187.69 E111.60966
G1 X152.47 Y187.69 E111.61019
G1 X152.46 Y187.69 E111.61053
G1 X152.45 Y187.71 E111.61144
G1 X152.44 Y187.72 E111.61209
G1 X152.44 Y187.72 E111.61269
G1 X152.44 Y187.73 E111.61319
G1 X152.11 Y189.90 E111.73019
G1 X148.29 Y189.14 E111.93794
G1 X148.12 Y189.10 E111.94748
G1 X146.23 Y188.46 E112.05375
G1 X144.26 Y187.80 E112.16452
G1 X145.07 Y185.75 E112.28178
G1 X145.07 Y185.75 E112.28200
G1 X145.07 Y185.74 E112.28259
G1 X145.07 Y185.72 E112.28324
G1 X145.06 Y185.72 E112.28373
G1 X145.06 Y185.71 E112.28433
G1 X145.05 Y185.69 E112.28535
G1 X145.04 Y185.69 E112.28558
G1 X145.04 Y185.68 E112.28608
G1 X145.02 Y185.68 E112.28685
G1 X145.01 Y185.67 E112.28730
G1 X145.00 Y185.67 E112.28816
G1 X144.99 Y185.67 E112.28843
G1 X144.98 Y185.68 E112.28941
G1 X144.97 Y185.68 E112.28982
G1 X144.96 Y185.68 E112.29013
G1 X144.95 Y185.70 E112.29115
G1 X143.59 Y187.41 E112.40803
G1 X140.57 Y184.76 E112.62208
G1 X139.22 Y183.23 E112.73133
G1 X137.84 Y181.67 E112.84249
G1 X139.56 Y180.30 E112.95954
G1 X139.57 Y180.29 E112.96044
G1 X139.57 Y180.28 E112.96095
G1 X139.57 Y180.27 E112.96124
G1 X139.58 Y180.25 E112.96227
G1 X139.58 Y180.25 E112.96249
G1 X139.58 Y180.24 E112.96334
G1 X139.57 Y180.23 E112.96358
G1 X139.56 Y180.21 E112.96475
G1 X139.56 Y180.20 E112.96528
G1 X139.54 Y180.19 E112.96620
G1 X139.53 Y180.19 E112.96722
G1 X139.49 Y180.18 E112.96912
G1 X138.35 Y179.96 E113.03138
G1 X137.43 Y177.47 E113.17303
G1 X137.07 Y176.08 E113.24991
G1 X137.00 Y175.76 E113.26711
G1 X136.80 Y174.32 E113.34469
G1 X136.75 Y174.01 E113.36173
G1 X136.72 Y172.55 E113.43953
G1 X136.72 Y172.55 E113.43958
G1 X136.71 Y172.23 E113.45667
G1 X136.84 Y170.78 E113.53423
G1 X136.87 Y170.47 E113.55126
G1 X137.16 Y169.04 E113.62896
G1 X137.22 Y168.72 E113.64618
G1 X137.68 Y167.33 E113.72447
G1 X138.41 Y165.21 E113.84435
G1 X138.49 Y164.96 E113.85841
G1 X138.99 Y163.08 E113.96201
G1 X139.05 Y162.82 E113.97620
G1 X139.40 Y160.92 E114.07949
G1 X139.45 Y160.66 E114.09343
G1 X139.65 Y158.78 E114.19468
G1 X139.72 Y157.90 E114.24187
G1 X139.73 Y156.85 E114.29750
G1 X139.73 Y156.82 E114.29915
G1 X139.62 Y155.93 E114.34749
G1 X139.61 Y155.89 E114.34959
G1 X139.38 Y155.01 E114.39808
G1 X139.38 Y155.01 E114.39813
G1 X139.37 Y154.97 E114.40013
G1 X139.02 Y154.13 E114.44869
G1 X139.01 Y154.09 E114.45087
G1 X138.56 Y153.31 E114.49909
G1 X138.53 Y153.28 E114.50132
G1 X137.98 Y152.56 E114.54975
G1 X137.96 Y152.52 E114.55203
G1 X137.32 Y151.88 E114.60031
G1 X137.29 Y151.85 E114.60239
G1 X136.58 Y151.31 E114.65034
G1 X136.53 Y151.28 E114.65335
G1 X135.75 Y150.83 E114.70122
G1 X135.64 Y150.76 E114.70811
G1 X135.19 Y150.54 E114.73518
G1 X133.30 Y149.70 E114.84527
G1 X133.30 Y149.70 E114.84533
G1 X133.06 Y149.60 E114.85928
G1 X131.23 Y148.95 E114.96297
G1 X130.98 Y148.86 E114.97719
G1 X129.12 Y148.35 E115.08023
G1 X128.86 Y148.28 E115.09456
G1 X126.95 Y147.91 E115.19863
G1 X125.29 Y147.56 E115.28899
G1 X124.97 Y147.49 E115.30661
G1 X123.28 Y146.93 E115.40142
G1 X121.97 Y146.32 E115.47868
G1 X121.67 Y146.18 E115.49602
G1 X120.44 Y145.43 E115.57293
G1 X120.16 Y145.26 E115.59058
G1 X119.01 Y144.37 E115.66823
G1 X118.76 Y144.18 E115.68518
G1 X117.72 Y143.16 E115.76291
G1 X117.49 Y142.94 E115.78001
G1 X116.64 Y141.91 E115.85108
G1 X115.77 Y140.88 E115.92302
G1 X116.19 Y139.78 E115.98578
G1 X116.19 Y139.77 E115.98655
G1 X116.19 Y139.73 E115.98869
G1 X116.18 Y139.70 E115.99020
G1 X116.17 Y139.70 E115.99043
G1 X116.16 Y139.69 E115.99115
G1 X116.15 Y139.69 E115.99180
G1 X116.14 Y139.69 E115.99236
G1 X116.13 Y139.68 E115.99316
G1 X116.11 Y139.69 E115.99436
G1 X114.07 Y140.49 E116.11123
G1 X112.78 Y136.69 E116.32524
G1 X111.96 Y132.65 E116.54556
G1 X114.13 Y132.32 E116.66294
G1 X114.14 Y132.31 E116.66344
G1 X114.15 Y132.31 E116.66404
G1 X114.17 Y132.30 E116.66491
G1 X114.17 Y132.29 E116.66548
G1 X114.18 Y132.28 E116.66590
G1 X114.18 Y132.28 E116.66641
G1 X114.19 Y132.26 E116.66735
G1 X114.19 Y132.25 E116.66778
G1 X114.18 Y132.24 E116.66837
G1 X114.18 Y132.23 E116.66909
G1 X114.18 Y132.22 E116.66960
G1 X114.17 Y132.21 E116.67013
G1 X114.16 Y132.20 E116.67066
G1 X114.15 Y132.19 E116.67146
G1 X114.14 Y132.19 E116.67206
G1 X114.13 Y132.19 E116.67257
G1 X111.97 Y131.86 E116.78956
G1 X112.73 Y128.04 E116.99731
G1 X112.77 Y127.87 E117.00685
G1 X113.40 Y125.98 E117.11312
G1 X114.07 Y124.02 E117.22389
G1 X116.11 Y124.81 E117.34060
G1 X116.13 Y124.82 E117.34179
G1 X116.14 Y124.82 E117.34260
G1 X116.15 Y124.81 E117.34316
G1 X116.16 Y124.81 E117.34380
G1 X116.17 Y124.80 E117.34453
G1 X116.18 Y124.80 E117.34480
G1 X116.18 Y124.79 E117.34538
G1 X116.19 Y124.76 E117.34674
G1 X116.19 Y124.75 E117.34722
G1 X116.19 Y124.74 E117.34781
G1 X116.19 Y124.73 E117.34879
G1 X116.19 Y124.72 E117.34920
G1 X116.18 Y124.71 E117.34963
G1 X116.17 Y124.70 E117.35065
G1 X114.46 Y123.34 E117.46735
G1 X117.11 Y120.32 E117.68141
G1 X118.64 Y118.97 E117.79066
G1 X120.20 Y117.59 E117.90159
G1 X121.57 Y119.31 E118.01872
G1 X121.58 Y119.32 E118.01955
G1 X121.59 Y119.32 E118.01990
G1 X121.59 Y119.32 E118.02031
G1 X121.61 Y119.33 E118.02129
G1 X121.62 Y119.33 E118.02156
G1 X121.63 Y119.33 E118.02231
G1 X121.64 Y119.32 E118.02292
G1 X121.65 Y119.32 E118.02368
G1 X121.66 Y119.31 E118.02426
G1 X121.67 Y119.31 E118.02449
G1 X121.67 Y119.30 E118.02533
G1 X121.68 Y119.28 E118.02600
G1 X121.68 Y119.28 E118.02649
G1 X121.69 Y119.26 E118.02735
G1 X121.68 Y119.25 E118.02789
G1 X121.68 Y119.24 E118.02827
G1 X120.89 Y117.20 E118.14536
G1 X124.68 Y115.92 E118.35908
G1 X128.72 Y115.09 E118.57936
G1 X129.05 Y117.27 E118.69679
G1 X129.06 Y117.28 E118.69730
G1 X129.06 Y117.28 E118.69789
G1 X129.07 Y117.30 E118.69877
G1 X129.07 Y117.30 E118.69892
G1 X129.08 Y117.31 E118.69942
G1 X129.10 Y117.32 E118.70083
G1 X129.11 Y117.32 E118.70121
G1 X129.13 Y117.31 E118.70228
G1 X129.15 Y117.31 E118.70305
G1 X129.18 Y117.29 E118.70509
G1 X129.94 Y116.39 E118.76836
G1 X132.56 Y116.84 E118.91028
G1 X133.95 Y117.23 E118.98719
G1 X134.26 Y117.31 E119.00471
G1 X135.60 Y117.86 E119.08173
G1 X135.90 Y117.99 E119.09931
G1 X137.18 Y118.68 E119.17676
G1 X137.46 Y118.83 E119.19386
G1 X138.65 Y119.67 E119.27155
G1 X138.91 Y119.86 E119.28887
G1 X139.99 Y120.81 E119.36571
G1 X140.24 Y121.03 E119.38337
G1 X141.22 Y122.12 E119.46173
G1 X142.65 Y123.76 E119.57786
G1 X144.26 Y125.39 E119.70027
G1 X144.43 Y125.56 E119.71284
G1 X145.91 Y126.82 E119.81649
G1 X146.10 Y126.99 E119.83020
G1 X147.67 Y128.13 E119.93351
G1 X148.36 Y128.61 E119.97847
G1 X149.25 Y129.13 E120.03346
G1 X149.30 Y129.16 E120.03678
G1 X150.12 Y129.50 E120.08438
G1 X150.17 Y129.52 E120.08708
G1 X151.04 Y129.76 E120.13536
G1 X151.09 Y129.77 E120.13796
G1 X151.97 Y129.89 E120.18552
G1 X152.02 Y129.89 E120.18783
G1 X152.92 Y129.89 E120.23582
G1 X152.97 Y129.89 E120.23849
G1 X153.87 Y129.78 E120.28695
G1 X153.91 Y129.77 E120.28926
G1 X154.76 Y129.54 E120.33657
G1 X154.76 Y129.54 E120.33662
G1 X154.82 Y129.53 E120.33966
G1 X155.66 Y129.18 E120.38805
G1 X155.70 Y129.16 E120.39037
G1 X156.43 Y128.73 E120.43572
G1 X157.01 Y128.36 E120.47272
G1 X158.68 Y127.15 E120.58264
G1 X158.88 Y127.00 E120.59627
G1 X160.37 Y125.74 E120.70004
G1 X160.56 Y125.56 E120.71405
G1 X161.94 Y124.20 E120.81755
G1 X162.13 Y124.01 E120.83174
G1 X163.41 Y122.54 E120.93581
G0 F6000 X163.09 Y122.26
G1 F2700 X164.22 Y121.00 E121.02616
G1 X164.45 Y120.73 E121.04507
G1 X165.56 Y119.75 E121.12392
G1 X165.82 Y119.52 E121.14248
G1 X167.03 Y118.67 E121.22118
G1 X167.31 Y118.47 E121.23960
G1 X168.61 Y117.77 E121.31866
G1 X168.91 Y117.60 E121.33685
G1 X170.27 Y117.05 E121.41533
G1 X170.59 Y116.91 E121.43429
G1 X172.02 Y116.51 E121.51319
G1 X172.34 Y116.42 E121.53119
G1 X173.68 Y116.19 E121.60372
G1 X175.24 Y115.92 E121.68818
G1 X175.65 Y116.41 E121.72211
G1 X175.92 Y114.59 E121.82010
G1 X180.18 Y115.44 E122.05181
G1 X180.38 Y115.48 E122.06282
G1 X182.29 Y116.13 E122.17049
G1 X184.67 Y116.94 E122.30484
G1 X184.57 Y117.19 E122.31940
G1 X184.75 Y116.98 E122.33425
G1 X188.11 Y119.94 E122.57345
G1 X189.49 Y121.49 E122.68414
G1 X191.16 Y123.39 E122.81932
G1 X190.97 Y123.54 E122.83228
G1 X191.19 Y123.45 E122.84517
G1 X192.63 Y127.70 E123.08453
G1 X193.55 Y132.21 E123.33031
G1 X193.29 Y132.25 E123.34429
G1 X193.54 Y132.29 E123.35779
G1 X192.69 Y136.54 E123.58955
G1 X192.65 Y136.75 E123.60056
G1 X192.00 Y138.66 E123.70823
G1 X191.19 Y141.05 E123.84297
G1 X189.42 Y140.35 E123.94441
G1 X189.62 Y141.07 E123.98422
G1 X187.82 Y143.23 E124.13414
G1 X186.78 Y144.25 E124.21221
G1 X186.53 Y144.49 E124.23052
G1 X185.37 Y145.40 E124.30921
G1 X185.09 Y145.61 E124.32808
G1 X183.83 Y146.38 E124.40690
G1 X183.53 Y146.56 E124.42546
G1 X182.20 Y147.18 E124.50383
G1 X181.88 Y147.33 E124.52267
G1 X180.49 Y147.79 E124.60054
G1 X180.49 Y147.79 E124.60060
G1 X180.15 Y147.90 E124.61971
G1 X178.69 Y148.22 E124.69987
G1 X176.48 Y148.65 E124.81985
G1 X176.24 Y148.69 E124.83280
G1 X174.38 Y149.20 E124.93589
G1 X174.15 Y149.26 E124.94840
G1 X172.33 Y149.91 E125.05141
G1 X172.09 Y150.00 E125.06541
G1 X170.39 Y150.75 E125.16425
G1 X169.62 Y151.12 E125.21008
G1 X168.71 Y151.63 E125.26570
G1 X168.01 Y152.16 E125.31263
G1 X168.00 Y152.17 E125.31331
G1 X167.38 Y152.79 E125.36016
G1 X167.37 Y152.80 E125.36076
G1 X166.84 Y153.49 E125.40762
G1 X166.83 Y153.50 E125.40838
G1 X166.39 Y154.26 E125.45526
G1 X166.38 Y154.27 E125.45581
G1 X166.05 Y155.08 E125.50274
G1 X166.04 Y155.09 E125.50322
G1 X165.82 Y155.94 E125.55017
G1 X165.81 Y155.96 E125.55139
G1 X165.70 Y156.83 E125.59790
G1 X165.70 Y156.84 E125.59833
G1 X165.70 Y157.69 E125.64419
G1 X165.70 Y157.80 E125.64985
G1 X165.73 Y158.32 E125.67767
G1 X165.94 Y160.34 E125.78630
G1 X165.94 Y160.34 E125.78635
G1 X165.97 Y160.60 E125.80032
G1 X166.32 Y162.49 E125.90251
G1 X166.32 Y162.49 E125.90257
G1 X166.37 Y162.74 E125.91614
G1 X166.85 Y164.59 E126.01818
G1 X166.91 Y164.83 E126.03149
G1 X167.55 Y166.67 E126.13528
G1 X168.08 Y168.27 E126.22546
G1 X168.19 Y168.61 E126.24452
G1 X168.48 Y170.04 E126.32242
G1 X168.55 Y170.39 E126.34162
G1 X168.68 Y171.86 E126.42024
G1 X168.72 Y172.21 E126.43906
G1 X168.68 Y173.68 E126.51734
G1 X168.68 Y173.68 E126.51739
G1 X168.68 Y174.03 E126.53646
G1 X168.47 Y175.50 E126.61545
G1 X168.43 Y175.84 E126.63382
G1 X168.06 Y177.27 E126.71267
G1 X167.98 Y177.61 E126.73112
G1 X167.50 Y178.90 E126.80483
G1 X166.96 Y180.35 E126.88726
G1 X166.34 Y180.46 E126.92126
G1 X167.78 Y181.61 E127.01968
G1 X164.81 Y184.98 E127.25919
G1 X163.26 Y186.35 E127.36988
G1 X161.36 Y188.03 E127.50510
G1 X161.21 Y187.84 E127.51798
G1 X161.30 Y188.06 E127.53075
G1 X157.05 Y189.50 E127.77011
G1 X152.54 Y190.42 E128.01589
G1 X152.50 Y190.16 E128.02971
G1 X152.46 Y190.41 E128.04305
G1 X148.21 Y189.56 E128.27481
G1 X148.00 Y189.51 E128.28582
G1 X146.09 Y188.87 E128.39348
G1 X143.70 Y188.06 E128.52823
G1 X143.79 Y187.84 E128.54067
G1 X143.64 Y188.03 E128.55336
G1 X140.27 Y185.06 E128.79287
G1 X138.90 Y183.51 E128.90355
G1 X137.22 Y181.61 E129.03877
G1 X138.67 Y180.46 E129.13754
G1 X138.03 Y180.34 E129.17233
G1 X137.02 Y177.60 E129.32820
G1 X136.66 Y176.19 E129.40585
G1 X136.57 Y175.85 E129.42475
G1 X136.38 Y174.40 E129.50265
G1 X136.33 Y174.04 E129.52191
G1 X136.29 Y172.56 E129.60109
G1 X136.28 Y172.22 E129.61935
G1 X136.42 Y170.75 E129.69825
G1 X136.44 Y170.41 E129.71652
G1 X136.74 Y168.96 E129.79553
G1 X136.81 Y168.62 E129.81399
G1 X137.27 Y167.19 E129.89385
G1 X138.00 Y165.07 E130.01395
G1 X138.09 Y164.82 E130.02762
G1 X138.57 Y162.97 E130.12989
G1 X138.64 Y162.73 E130.14330
G1 X138.98 Y160.84 E130.24562
G1 X139.03 Y160.60 E130.25853
G1 X139.23 Y158.69 E130.36145
G1 X139.30 Y157.90 E130.40392
G1 X139.31 Y156.86 E130.45934
G1 X139.19 Y155.98 E130.50654
G1 X139.19 Y155.98 E130.50659
G1 X139.19 Y155.97 E130.50740
G1 X138.97 Y155.12 E130.55423
G1 X138.96 Y155.11 E130.55467
G1 X138.63 Y154.29 E130.60168
G1 X138.62 Y154.28 E130.60240
G1 X138.19 Y153.53 E130.64911
G1 X138.18 Y153.51 E130.65009
G1 X137.64 Y152.81 E130.69677
G1 X137.64 Y152.81 E130.69745
G1 X137.01 Y152.19 E130.74430
G1 X137.00 Y152.18 E130.74505
G1 X136.31 Y151.64 E130.79182
G1 X136.30 Y151.63 E130.79269
G1 X135.54 Y151.20 E130.83927
G1 X135.45 Y151.15 E130.84463
G1 X135.01 Y150.93 E130.87070
G1 X133.12 Y150.09 E130.98113
G1 X132.91 Y150.00 E130.99363
G1 X131.09 Y149.35 E131.09681
G1 X130.86 Y149.27 E131.11001
G1 X129.00 Y148.76 E131.21250
G1 X128.76 Y148.69 E131.22589
G1 X126.86 Y148.33 E131.32914
G1 X125.20 Y147.98 E131.41972
G1 X124.85 Y147.91 E131.43872
G1 X123.45 Y147.44 E131.51747
G1 X123.12 Y147.33 E131.53609
G1 X121.79 Y146.71 E131.61442
G1 X121.47 Y146.56 E131.63324
G1 X120.22 Y145.80 E131.71127
G1 X119.92 Y145.62 E131.73029
G1 X118.75 Y144.71 E131.80927
G1 X118.48 Y144.50 E131.82748
G1 X117.42 Y143.47 E131.90656
G1 X117.17 Y143.23 E131.92488
G1 X116.31 Y142.18 E131.99727
G1 X115.28 Y140.97 E132.08231
G1 X115.50 Y140.38 E132.11567
G1 X113.81 Y141.05 E132.21308
G1 X112.37 Y136.80 E132.45244
G1 X111.45 Y132.29 E132.69822
G1 X111.71 Y132.25 E132.71220
G1 X111.46 Y132.21 E132.72570
G1 X112.31 Y127.96 E132.95746
G1 X112.35 Y127.75 E132.96847
G1 X113.00 Y125.84 E133.07614
G1 X113.81 Y123.45 E133.21088
G1 X114.03 Y123.54 E133.22356
G1 X113.84 Y123.39 E133.23640
G1 X116.80 Y120.02 E133.47579
G1 X118.36 Y118.65 E133.58652
G1 X120.25 Y116.98 E133.72139
G1 X120.43 Y117.20 E133.73643
G1 X120.33 Y116.94 E133.75132
G1 X124.57 Y115.50 E133.99034
G1 X126.60 Y115.09 E134.10095
G1 X129.08 Y114.58 E134.23606
G1 X129.36 Y116.42 E134.33497
G1 X129.77 Y115.92 E134.36945
G1 X132.66 Y116.42 E134.52567
G1 X134.06 Y116.81 E134.60380
G1 X134.40 Y116.91 E134.62256
G1 X135.76 Y117.47 E134.70085
G1 X136.09 Y117.60 E134.71974
G1 X137.37 Y118.30 E134.79774
G1 X137.69 Y118.47 E134.81685
G1 X138.90 Y119.32 E134.89589
G1 X138.90 Y119.32 E134.89597
G1 X139.18 Y119.52 E134.91452
G1 X140.27 Y120.49 E134.99253
G1 X140.54 Y120.73 E135.01156
G1 X141.54 Y121.84 E135.09151
G1 X142.97 Y123.48 E135.20748
G1 X144.55 Y125.07 E135.32722
G1 X144.73 Y125.25 E135.34073
G1 X146.18 Y126.49 E135.44294
G1 X146.37 Y126.65 E135.45623
G1 X147.91 Y127.77 E135.55741
G1 X148.59 Y128.25 E135.60203
G1 X149.48 Y128.77 E135.65688
G1 X149.48 Y128.77 E135.65726
G1 X150.29 Y129.11 E135.70376
G1 X150.31 Y129.12 E135.70498
G1 X151.16 Y129.34 E135.75180
G1 X151.18 Y129.35 E135.75297
G1 X152.01 Y129.46 E135.79778
G1 X152.04 Y129.47 E135.79960
G1 X152.91 Y129.47 E135.84605
G1 X152.94 Y129.47 E135.84754
G1 X153.79 Y129.35 E135.89347
G1 X153.82 Y129.35 E135.89487
G1 X154.67 Y129.12 E135.94190
G1 X154.68 Y129.12 E135.94246
G1 X155.49 Y128.78 E135.98939
G1 X155.50 Y128.78 E135.98992
G1 X156.22 Y128.36 E136.03410
G1 X156.76 Y128.01 E136.06870
G1 X158.42 Y126.80 E136.17827
G1 X158.63 Y126.65 E136.19195
G1 X160.09 Y125.41 E136.29428
G1 X160.27 Y125.25 E136.30730
G1 X161.64 Y123.90 E136.41005
G1 X161.82 Y123.72 E136.42352
G1 X163.09 Y122.26 E136.52675
G0 F6000 X162.77 Y121.98
G1 F2700 X163.90 Y120.71 E136.61726
G1 X164.15 Y120.43 E136.63752
G1 X165.28 Y119.43 E136.71773
G1 X165.55 Y119.19 E136.73747
G1 X166.78 Y118.33 E136.81752
G1 X167.08 Y118.11 E136.83716
G1 X168.39 Y117.40 E136.91668
G1 X168.72 Y117.22 E136.93699
G1 X170.11 Y116.65 E137.01725
G1 X170.45 Y116.50 E137.03702
G1 X171.90 Y116.10 E137.11726
G1 X172.25 Y116.00 E137.13642
G1 X173.59 Y115.77 E137.20895
G1 X175.35 Y115.46 E137.30484
G1 X175.56 Y114.08 E137.37930
G1 X180.26 Y115.02 E137.63502
G1 X180.49 Y115.07 E137.64750
G1 X182.43 Y115.72 E137.75664
G1 X184.61 Y116.47 E137.87965
G1 X184.69 Y116.36 E137.88690
G1 X184.94 Y116.58 E137.90468
G1 X185.23 Y116.68 E137.92097
G1 X185.19 Y116.79 E137.92761
G1 X188.41 Y119.63 E138.15705
G1 X189.81 Y121.20 E138.26914
G1 X191.33 Y122.94 E138.39237
G1 X191.46 Y122.89 E138.39942
G1 X191.56 Y123.19 E138.41655
G1 X191.78 Y123.44 E138.43433
G1 X191.67 Y123.53 E138.44162
G1 X193.04 Y127.59 E138.67045
G1 X193.46 Y129.65 E138.78247
G1 X193.93 Y131.91 E138.90603
G1 X194.05 Y131.93 E138.91267
G1 X193.99 Y132.23 E138.92878
G1 X194.06 Y132.57 E138.94725
G1 X193.92 Y132.59 E138.95486
G1 X193.11 Y136.63 E139.17491
G1 X193.06 Y136.86 E139.18739
G1 X192.41 Y138.80 E139.29653
G1 X191.45 Y141.61 E139.45518
G1 X190.06 Y141.06 E139.53488
G1 X190.09 Y141.18 E139.54097
G1 X188.14 Y143.52 E139.70400
G1 X187.07 Y144.56 E139.78332
G1 X186.81 Y144.82 E139.80283
G1 X185.63 Y145.73 E139.88283
G1 X185.63 Y145.73 E139.88290
G1 X185.33 Y145.97 E139.90311
G1 X184.05 Y146.75 E139.98317
G1 X183.73 Y146.94 E140.00305
G1 X182.37 Y147.57 E140.08314
G1 X182.04 Y147.73 E140.10281
G1 X180.63 Y148.19 E140.18187
G1 X180.27 Y148.32 E140.20235
G1 X178.77 Y148.63 E140.28408
G1 X176.57 Y149.06 E140.40390
G1 X176.34 Y149.11 E140.41626
G1 X174.49 Y149.61 E140.51856
G1 X174.27 Y149.68 E140.53080
G1 X172.48 Y150.31 E140.63233
G1 X172.48 Y150.31 E140.63238
G1 X172.26 Y150.39 E140.64486
G1 X170.54 Y151.15 E140.74509
G1 X169.81 Y151.50 E140.78839
G1 X168.96 Y151.98 E140.84069
G1 X168.28 Y152.50 E140.88613
G1 X167.70 Y153.07 E140.92977
G1 X167.18 Y153.75 E140.97503
G1 X166.77 Y154.47 E141.01937
G1 X166.45 Y155.23 E141.06376
G1 X166.23 Y156.05 E141.10867
G1 X166.12 Y156.85 E141.15223
G1 X166.12 Y156.86 E141.15260
G1 X166.12 Y157.69 E141.19680
G1 X166.13 Y157.78 E141.20188
G1 X166.16 Y158.27 E141.22804
G1 X166.37 Y160.30 E141.33667
G1 X166.40 Y160.54 E141.34951
G1 X166.74 Y162.41 E141.45116
G1 X166.78 Y162.63 E141.46321
G1 X167.26 Y164.48 E141.56503
G1 X167.33 Y164.71 E141.57768
G1 X167.96 Y166.53 E141.68063
G1 X168.48 Y168.14 E141.77098
G1 X168.60 Y168.50 E141.79132
G1 X168.90 Y169.95 E141.87041
G1 X168.98 Y170.33 E141.89099
G1 X169.11 Y171.82 E141.97095
G1 X169.14 Y172.20 E141.99110
G1 X169.11 Y173.68 E142.07056
G1 X169.11 Y173.68 E142.07061
G1 X169.10 Y174.07 E142.09101
G1 X168.90 Y175.56 E142.17140
G1 X168.85 Y175.92 E142.19101
G1 X168.48 Y177.38 E142.27118
G1 X168.39 Y177.74 E142.29085
G1 X167.90 Y179.05 E142.36552
G1 X167.30 Y180.68 E142.45849
G1 X168.40 Y181.56 E142.53351
G1 X165.12 Y185.28 E142.79840
G1 X163.54 Y186.68 E142.91060
G1 X161.81 Y188.20 E143.03382
G1 X161.86 Y188.32 E143.04082
G1 X161.56 Y188.43 E143.05784
G1 X161.31 Y188.65 E143.07577
G1 X161.22 Y188.54 E143.08313
G1 X157.16 Y189.91 E143.31191
G1 X155.10 Y190.33 E143.42393
G1 X152.84 Y190.79 E143.54744
G1 X152.82 Y190.92 E143.55408
G1 X152.52 Y190.86 E143.57019
G1 X152.18 Y190.93 E143.58871
G1 X152.16 Y190.78 E143.59637
G1 X148.12 Y189.98 E143.81636
G1 X147.89 Y189.93 E143.82884
G1 X145.96 Y189.28 E143.93798
G1 X143.78 Y188.54 E144.06054
G1 X143.69 Y188.65 E144.06791
G1 X143.44 Y188.42 E144.08606
G1 X143.14 Y188.32 E144.10291
G1 X143.19 Y188.20 E144.10979
G1 X139.97 Y185.37 E144.33863
G1 X138.57 Y183.79 E144.45083
G1 X136.60 Y181.56 E144.61006
G1 X137.70 Y180.68 E144.68486
G1 X136.61 Y177.73 E144.85308
G1 X136.25 Y176.29 E144.93233
G1 X136.25 Y176.29 E144.93238
G1 X136.15 Y175.93 E144.95212
G1 X135.95 Y174.44 E145.03240
G1 X135.90 Y174.08 E145.05187
G1 X135.87 Y172.57 E145.13244
G1 X135.86 Y172.21 E145.15193
G1 X135.99 Y170.71 E145.23211
G1 X135.99 Y170.71 E145.23217
G1 X136.02 Y170.34 E145.25166
G1 X136.32 Y168.88 E145.33167
G1 X136.32 Y168.88 E145.33172
G1 X136.40 Y168.51 E145.35182
G1 X136.87 Y167.06 E145.43314
G1 X137.60 Y164.93 E145.55347
G1 X137.67 Y164.71 E145.56568
G1 X138.16 Y162.86 E145.66772
G1 X138.22 Y162.64 E145.67993
G1 X138.56 Y160.76 E145.78176
G1 X138.60 Y160.54 E145.79375
G1 X138.80 Y158.70 E145.89291
G1 X138.87 Y157.86 E145.93752
G1 X138.88 Y156.88 E145.99016
G1 X138.77 Y156.05 E146.03484
G1 X138.56 Y155.25 E146.07918
G1 X138.24 Y154.47 E146.12394
G1 X137.82 Y153.75 E146.16814
G1 X137.31 Y153.09 E146.21276
G1 X136.72 Y152.50 E146.25760
G1 X136.06 Y151.99 E146.30208
G1 X135.33 Y151.57 E146.34714
G1 X135.25 Y151.53 E146.35156
G1 X134.83 Y151.32 E146.37672
G1 X132.96 Y150.49 E146.48636
G1 X132.96 Y150.49 E146.48641
G1 X132.74 Y150.39 E146.49920
G1 X130.94 Y149.75 E146.60068
G1 X130.73 Y149.68 E146.61280
G1 X128.89 Y149.17 E146.71463
G1 X128.66 Y149.11 E146.72714
G1 X126.78 Y148.75 E146.82974
G1 X125.11 Y148.40 E146.92048
G1 X124.74 Y148.32 E146.94078
G1 X123.32 Y147.84 E147.02088
G1 X122.97 Y147.73 E147.04075
G1 X121.61 Y147.10 E147.12059
G1 X121.27 Y146.94 E147.14049
G1 X119.99 Y146.16 E147.22058
G1 X119.68 Y145.97 E147.24009
G1 X118.49 Y145.05 E147.32041
G1 X118.20 Y144.83 E147.33976
G1 X117.12 Y143.78 E147.42024
G1 X116.86 Y143.52 E147.43980
G1 X116.00 Y142.48 E147.51151
G1 X114.84 Y141.10 E147.60791
G1 X113.54 Y141.61 E147.68205
G1 X111.96 Y136.91 E147.94689
G1 X111.54 Y134.86 E148.05891
G1 X111.07 Y132.59 E148.18247
G1 X110.95 Y132.57 E148.18911
G1 X111.01 Y132.27 E148.20522
G1 X110.94 Y131.93 E148.22369
G1 X111.08 Y131.91 E148.23130
G1 X111.89 Y127.87 E148.45135
G1 X111.94 Y127.64 E148.46383
G1 X112.59 Y125.70 E148.57297
G1 X113.33 Y123.53 E148.69559
G1 X113.22 Y123.44 E148.70289
G1 X113.44 Y123.19 E148.72078
G1 X113.55 Y122.89 E148.73781
G1 X113.67 Y122.94 E148.74476
G1 X116.50 Y119.72 E148.97361
G1 X118.07 Y118.33 E149.08581
G1 X119.81 Y116.79 E149.20952
G1 X119.77 Y116.67 E149.21633
G1 X120.06 Y116.58 E149.23290
G1 X120.31 Y116.36 E149.25041
G1 X120.39 Y116.46 E149.25758
G1 X124.46 Y115.09 E149.48680
G1 X126.51 Y114.67 E149.59877
G1 X129.43 Y114.07 E149.75795
G1 X129.65 Y115.47 E149.83306
G1 X132.75 Y116.00 E150.00130
G1 X134.18 Y116.40 E150.08060
G1 X134.54 Y116.50 E150.10069
G1 X135.92 Y117.07 E150.18017
G1 X136.27 Y117.21 E150.20034
G1 X137.57 Y117.92 E150.27956
G1 X137.91 Y118.11 E150.30000
G1 X139.14 Y118.97 E150.38026
G1 X139.14 Y118.97 E150.38031
G1 X139.45 Y119.19 E150.40035
G1 X140.56 Y120.17 E150.47953
G1 X140.56 Y120.17 E150.47961
G1 X140.84 Y120.42 E150.49996
G1 X141.86 Y121.56 E150.58141
G1 X143.29 Y123.19 E150.69716
