;-- START GCODE --
;Sliced for Type A Machines Series 1
;Sliced at: Sun 17-04-2016 09:54:25
;Basic settings: Layer height: 0.2 Walls: 1 Fill: 30
;Print Speed: 100 Support: 0
;Retraction Speed: 40 Retraction Distance: 1.2
;Print time: #P_TIME#
;Filament used: #F_AMNT#m #F_WGHT#g
;Filament cost: #F_COST#
M106 S255	 ;start with the fan on
G21        ;metric values
G90        ;absolute positioning
M106 S255    ;start with the fan on
G28     ;move to endstops
G29		;allows for auto-levelling
G1 X150 Y5  Z15.0 F6000 ;center and move the platform down 15mm
M109 S220 ;Heat To temp
G92 E0                  ;zero the extruded length
G1 F200 E30              ;extrude 30mm of feed stock
G92 E0                  ;zero the extruded length again
G1 X175 Y25  Z0 F6000 ;remove bugger
G1 X220 F6000 ;remove bugger
G1 X150 Y150  Z15 F6000 ;recenter and begin
G1 F6000

;Layer count: 99
;LAYER:0
M106 S255
G0 F6000 X142.45 Y142.45 Z0.30
;TYPE:SKIRT
G1 F2700 X144.60 Y140.68 E0.17370
G1 X147.06 Y139.37 E0.34743
G1 X149.73 Y138.56 E0.52142
G1 X152.50 Y138.29 E0.69506
G1 X155.27 Y138.56 E0.86870
G1 X157.94 Y139.37 E1.04269
G1 X160.40 Y140.68 E1.21642
G1 X162.55 Y142.45 E1.39012
G1 X164.32 Y144.60 E1.56382
G1 X165.63 Y147.06 E1.73755
G1 X166.44 Y149.73 E1.91154
G1 X166.71 Y152.50 E2.08518
G1 X166.44 Y155.27 E2.25882
G1 X165.63 Y157.94 E2.43281
G1 X164.32 Y160.40 E2.60654
G1 X162.55 Y162.55 E2.78024
G1 X160.40 Y164.32 E2.95394
G1 X157.94 Y165.63 E3.12767
G1 X155.27 Y166.44 E3.30166
G1 X152.50 Y166.71 E3.47530
G1 X149.73 Y166.44 E3.64894
G1 X147.06 Y165.63 E3.82293
G1 X144.60 Y164.32 E3.99666
G1 X142.45 Y162.55 E4.17036
G1 X140.68 Y160.40 E4.34406
G1 X139.37 Y157.94 E4.51779
G1 X138.56 Y155.27 E4.69178
G1 X138.29 Y152.50 E4.86542
G1 X138.56 Y149.73 E5.03906
G1 X139.37 Y147.06 E5.21305
G1 X140.68 Y144.60 E5.38678
G1 X142.45 Y142.45 E5.56048
G0 F6000 X142.81 Y142.81
G1 F2700 X144.88 Y141.10 E5.72807
G1 X147.25 Y139.83 E5.89567
G1 X149.83 Y139.05 E6.06346
G1 X152.50 Y138.79 E6.23096
G1 X155.17 Y139.05 E6.39847
G1 X157.75 Y139.83 E6.56626
G1 X160.12 Y141.10 E6.73386
G1 X162.19 Y142.81 E6.90145
G1 X163.90 Y144.88 E7.06904
G1 X165.17 Y147.25 E7.23664
G1 X165.95 Y149.83 E7.40443
G1 X166.21 Y152.50 E7.57193
G1 X165.95 Y155.17 E7.73944
G1 X165.17 Y157.75 E7.90723
G1 X163.90 Y160.12 E8.07483
G1 X162.19 Y162.19 E8.24242
G1 X160.12 Y163.90 E8.41000
G1 X157.75 Y165.17 E8.57760
G1 X155.17 Y165.95 E8.74539
G1 X152.50 Y166.21 E8.91290
G1 X149.83 Y165.95 E9.08041
G1 X147.25 Y165.17 E9.24820
G1 X144.88 Y163.90 E9.41579
G1 X142.81 Y162.19 E9.58338
G1 X141.10 Y160.12 E9.75097
G1 X139.83 Y157.75 E9.91857
G1 X139.05 Y155.17 E10.08636
G1 X138.79 Y152.50 E10.25387
G1 X139.05 Y149.83 E10.42137
G1 X139.83 Y147.25 E10.58916
G1 X141.10 Y144.88 E10.75676
G1 X142.81 Y142.81 E10.92435
G0 F6000 X143.16 Y143.16
G1 F2700 X145.16 Y141.52 E11.08582
G1 X147.44 Y140.30 E11.24725
G1 X149.93 Y139.54 E11.40893
G1 X152.50 Y139.29 E11.57028
G1 X155.07 Y139.54 E11.73164
G1 X157.56 Y140.30 E11.89331
G1 X159.84 Y141.52 E12.05475
G1 X161.84 Y143.16 E12.21622
G1 X163.48 Y145.16 E12.37769
G1 X164.70 Y147.44 E12.53912
G1 X165.46 Y149.93 E12.70080
G1 X165.71 Y152.50 E12.86215
G1 X165.46 Y155.07 E13.02351
G1 X164.70 Y157.56 E13.18518
G1 X163.48 Y159.84 E13.34661
G1 X161.84 Y161.84 E13.50809
G1 X159.84 Y163.48 E13.66956
G1 X157.56 Y164.70 E13.83099
G1 X155.07 Y165.46 E13.99266
G1 X152.50 Y165.71 E14.15402
G1 X149.93 Y165.46 E14.31538
G1 X147.44 Y164.70 E14.47705
G1 X145.16 Y163.48 E14.63848
G1 X143.16 Y161.84 E14.79996
G1 X141.52 Y159.84 E14.96143
G1 X140.30 Y157.56 E15.12286
G1 X139.54 Y155.07 E15.28453
G1 X139.29 Y152.50 E15.44589
G1 X139.54 Y149.93 E15.60725
G1 X140.30 Y147.44 E15.76892
G1 X141.52 Y145.16 E15.93035
G1 X143.16 Y143.16 E16.09182
G0 F6000 X143.51 Y143.51
G1 F2700 X145.44 Y141.94 E16.24714
G1 X147.64 Y140.76 E16.40244
G1 X150.02 Y140.04 E16.55797
G1 X152.50 Y139.79 E16.71319
G1 X154.98 Y140.04 E16.86841
G1 X157.36 Y140.76 E17.02395
G1 X159.56 Y141.94 E17.17925
G1 X161.49 Y143.51 E17.33456
G1 X163.06 Y145.44 E17.48988
G1 X164.24 Y147.64 E17.64517
G1 X164.96 Y150.02 E17.80071
G1 X165.21 Y152.50 E17.95593
G1 X164.96 Y154.98 E18.11115
G1 X164.24 Y157.36 E18.26669
G1 X163.06 Y159.56 E18.42199
G1 X161.49 Y161.49 E18.57730
G1 X159.56 Y163.06 E18.73262
G1 X157.36 Y164.24 E18.88791
G1 X154.98 Y164.96 E19.04345
G1 X152.50 Y165.21 E19.19867
G1 X150.02 Y164.96 E19.35389
G1 X147.64 Y164.24 E19.50943
G1 X145.44 Y163.06 E19.66472
G1 X143.51 Y161.49 E19.82004
G1 X141.94 Y159.56 E19.97536
G1 X140.76 Y157.36 E20.13065
G1 X140.04 Y154.98 E20.28619
G1 X139.79 Y152.50 E20.44141
G1 X140.04 Y150.02 E20.59663
G1 X140.76 Y147.64 E20.75217
G1 X141.94 Y145.44 E20.90746
G1 X143.51 Y143.51 E21.06278
G0 F6000 X143.87 Y143.87
G1 F2700 X145.72 Y142.35 E21.21193
G1 X147.83 Y141.22 E21.36114
G1 X150.12 Y140.53 E21.51049
G1 X152.50 Y140.30 E21.65956
G1 X154.88 Y140.53 E21.80864
G1 X157.17 Y141.22 E21.95798
G1 X159.28 Y142.35 E22.10720
G1 X161.13 Y143.87 E22.25635
G1 X162.65 Y145.72 E22.40550
G1 X163.78 Y147.83 E22.55471
G1 X164.47 Y150.12 E22.70406
G1 X164.70 Y152.50 E22.85313
G1 X164.47 Y154.88 E23.00221
G1 X163.78 Y157.17 E23.15155
G1 X162.65 Y159.28 E23.30077
G1 X161.13 Y161.13 E23.44992
G1 X159.28 Y162.65 E23.59907
G1 X157.17 Y163.78 E23.74828
G1 X154.88 Y164.47 E23.89762
G1 X152.50 Y164.70 E24.04670
G1 X150.12 Y164.47 E24.19578
G1 X147.83 Y163.78 E24.34512
G1 X145.72 Y162.65 E24.49433
G1 X143.87 Y161.13 E24.64349
G1 X142.35 Y159.28 E24.79264
G1 X141.22 Y157.17 E24.94185
G1 X140.53 Y154.88 E25.09119
G1 X140.30 Y152.50 E25.24027
G1 X140.53 Y150.12 E25.38935
G1 X141.22 Y147.83 E25.53869
G1 X142.35 Y145.72 E25.68790
G1 X143.87 Y143.87 E25.83706
G0 F6000 X144.23 Y144.23
G1 F2700 X146.00 Y142.77 E25.98009
G1 X148.02 Y141.69 E26.12311
G1 X150.22 Y141.02 E26.26633
G1 X152.50 Y140.80 E26.40927
G1 X154.78 Y141.02 E26.55221
G1 X156.98 Y141.69 E26.69544
G1 X159.00 Y142.77 E26.83846
G1 X160.77 Y144.23 E26.98149
G1 X162.23 Y146.00 E27.12453
G1 X163.31 Y148.02 E27.26754
G1 X163.98 Y150.22 E27.41077
G1 X164.20 Y152.50 E27.55371
G1 X163.98 Y154.78 E27.69665
G1 X163.31 Y156.98 E27.83988
G1 X162.23 Y159.00 E27.98289
G1 X160.77 Y160.77 E28.12593
G1 X159.00 Y162.23 E28.26896
G1 X156.98 Y163.31 E28.41198
G1 X154.78 Y163.98 E28.55521
G1 X152.50 Y164.20 E28.69815
G1 X150.22 Y163.98 E28.84109
G1 X148.02 Y163.31 E28.98431
G1 X146.00 Y162.23 E29.12733
G1 X144.23 Y160.77 E29.27036
G1 X142.77 Y159.00 E29.41340
G1 X141.69 Y156.98 E29.55642
G1 X141.02 Y154.78 E29.69964
G1 X140.80 Y152.50 E29.84258
G1 X141.02 Y150.22 E29.98552
G1 X141.69 Y148.02 E30.12875
G1 X142.77 Y146.00 E30.27177
G1 X144.23 Y144.23 E30.41480
G0 F6000 X144.58 Y144.58
G1 F2700 X146.28 Y143.19 E30.55173
G1 X148.21 Y142.15 E30.68861
G1 X150.32 Y141.51 E30.82560
G1 X152.50 Y141.30 E30.96246
G1 X154.68 Y141.51 E31.09932
G1 X156.79 Y142.15 E31.23631
G1 X158.72 Y143.19 E31.37319
G1 X160.42 Y144.58 E31.51011
G1 X161.81 Y146.28 E31.64704
G1 X162.85 Y148.21 E31.78392
G1 X163.49 Y150.32 E31.92091
G1 X163.70 Y152.50 E32.05777
G1 X163.49 Y154.68 E32.19463
G1 X162.85 Y156.79 E32.33162
G1 X161.81 Y158.72 E32.46850
G1 X160.42 Y160.42 E32.60543
G1 X158.72 Y161.81 E32.74235
G1 X156.79 Y162.85 E32.87923
G1 X154.68 Y163.49 E33.01622
G1 X152.50 Y163.70 E33.15308
G1 X150.32 Y163.49 E33.28994
G1 X148.21 Y162.85 E33.42693
G1 X146.28 Y161.81 E33.56381
G1 X144.58 Y160.42 E33.70074
G1 X143.19 Y158.72 E33.83766
G1 X142.15 Y156.79 E33.97454
G1 X141.51 Y154.68 E34.11153
G1 X141.30 Y152.50 E34.24839
G1 X141.51 Y150.32 E34.38525
G1 X142.15 Y148.21 E34.52224
G1 X143.19 Y146.28 E34.65912
G1 X144.58 Y144.58 E34.79605
G0 F6000 X144.94 Y144.94
G1 F2700 X146.56 Y143.61 E34.92682
G1 X148.41 Y142.62 E35.05756
G1 X150.41 Y142.01 E35.18842
G1 X152.50 Y141.80 E35.31913
G1 X154.59 Y142.01 E35.44985
G1 X156.59 Y142.62 E35.58071
G1 X158.44 Y143.61 E35.71145
G1 X160.06 Y144.94 E35.84222
G1 X161.39 Y146.56 E35.97299
G1 X162.38 Y148.41 E36.10373
G1 X162.99 Y150.41 E36.23459
G1 X163.20 Y152.50 E36.36530
G1 X162.99 Y154.59 E36.49602
G1 X162.38 Y156.59 E36.62688
G1 X161.39 Y158.44 E36.75762
G1 X160.06 Y160.06 E36.88839
G1 X158.44 Y161.39 E37.01916
G1 X156.59 Y162.38 E37.14990
G1 X154.59 Y162.99 E37.28076
G1 X152.50 Y163.20 E37.41147
G1 X150.41 Y162.99 E37.54219
G1 X148.41 Y162.38 E37.67305
G1 X146.56 Y161.39 E37.80379
G1 X144.94 Y160.06 E37.93456
G1 X143.61 Y158.44 E38.06533
G1 X142.62 Y156.59 E38.19607
G1 X142.01 Y154.59 E38.32693
G1 X141.80 Y152.50 E38.45764
G1 X142.01 Y150.41 E38.58836
G1 X142.62 Y148.41 E38.71921
G1 X143.61 Y146.56 E38.84996
G1 X144.94 Y144.94 E38.98073
G0 F6000 X145.29 Y145.29
G1 F2700 X146.84 Y144.02 E39.10537
G1 X148.60 Y143.08 E39.22995
G1 X150.51 Y142.50 E39.35467
G1 X152.50 Y142.31 E39.47925
G1 X154.49 Y142.50 E39.60383
G1 X156.40 Y143.08 E39.72855
G1 X158.16 Y144.02 E39.85312
G1 X159.71 Y145.29 E39.97777
G1 X160.98 Y146.84 E40.10241
G1 X161.92 Y148.60 E40.22699
G1 X162.50 Y150.51 E40.35171
G1 X162.69 Y152.50 E40.47629
G1 X162.50 Y154.49 E40.60087
G1 X161.92 Y156.40 E40.72559
G1 X160.98 Y158.16 E40.85017
G1 X159.71 Y159.71 E40.97481
G1 X158.16 Y160.98 E41.09946
G1 X156.40 Y161.92 E41.22403
G1 X154.49 Y162.50 E41.34875
G1 X152.50 Y162.69 E41.47333
G1 X150.51 Y162.50 E41.59791
G1 X148.60 Y161.92 E41.72263
G1 X146.84 Y160.98 E41.84721
G1 X145.29 Y159.71 E41.97185
G1 X144.02 Y158.16 E42.09650
G1 X143.08 Y156.40 E42.22107
G1 X142.50 Y154.49 E42.34580
G1 X142.31 Y152.50 E42.47037
G1 X142.50 Y150.51 E42.59495
G1 X143.08 Y148.60 E42.71967
G1 X144.02 Y146.84 E42.84425
G1 X145.29 Y145.29 E42.96890
G0 F6000 X145.65 Y145.65
G1 F2700 X147.12 Y144.44 E43.08738
G1 X148.79 Y143.54 E43.20588
G1 X150.61 Y142.99 E43.32441
G1 X152.50 Y142.81 E43.44284
G1 X154.39 Y142.99 E43.56128
G1 X156.21 Y143.54 E43.67980
G1 X157.88 Y144.44 E43.79830
G1 X159.35 Y145.65 E43.91679
G1 X160.56 Y147.12 E44.03527
G1 X161.46 Y148.79 E44.15377
G1 X162.01 Y150.61 E44.27230
G1 X162.19 Y152.50 E44.39073
G1 X162.01 Y154.39 E44.50917
G1 X161.46 Y156.21 E44.62769
G1 X160.56 Y157.88 E44.74619
G1 X159.35 Y159.35 E44.86468
G1 X157.88 Y160.56 E44.98316
G1 X156.21 Y161.46 E45.10166
G1 X154.39 Y162.01 E45.22019
G1 X152.50 Y162.19 E45.33862
G1 X150.61 Y162.01 E45.45706
G1 X148.79 Y161.46 E45.57558
G1 X147.12 Y160.56 E45.69408
G1 X145.65 Y159.35 E45.81257
G1 X144.44 Y157.88 E45.93105
G1 X143.54 Y156.21 E46.04955
G1 X142.99 Y154.39 E46.16808
G1 X142.81 Y152.50 E46.28651
G1 X142.99 Y150.61 E46.40495
G1 X143.54 Y148.79 E46.52347
G1 X144.44 Y147.12 E46.64197
G1 X145.65 Y145.65 E46.76046
G0 F6000 X146.00 Y146.00
G1 F2700 X147.40 Y144.86 E46.87284
G1 X148.98 Y144.01 E46.98514
G1 X150.71 Y143.49 E47.09753
G1 X152.50 Y143.31 E47.20983
G1 X154.29 Y143.49 E47.32213
G1 X156.02 Y144.01 E47.43452
G1 X157.60 Y144.86 E47.54682
G1 X159.00 Y146.00 E47.65920
G1 X160.14 Y147.40 E47.77158
G1 X160.99 Y148.98 E47.88388
G1 X161.51 Y150.71 E47.99628
G1 X161.69 Y152.50 E48.10858
G1 X161.51 Y154.29 E48.22087
G1 X160.99 Y156.02 E48.33327
G1 X160.14 Y157.60 E48.44557
G1 X159.00 Y159.00 E48.55795
G1 X157.60 Y160.14 E48.67033
G1 X156.02 Y160.99 E48.78263
G1 X154.29 Y161.51 E48.89502
G1 X152.50 Y161.69 E49.00732
G1 X150.71 Y161.51 E49.11962
G1 X148.98 Y160.99 E49.23201
G1 X147.40 Y160.14 E49.34431
G1 X146.00 Y159.00 E49.45669
G1 X144.86 Y157.60 E49.56908
G1 X144.01 Y156.02 E49.68138
G1 X143.49 Y154.29 E49.79377
G1 X143.31 Y152.50 E49.90607
G1 X143.49 Y150.71 E50.01837
G1 X144.01 Y148.98 E50.13076
G1 X144.86 Y147.40 E50.24306
G1 X146.00 Y146.00 E50.35544
G0 F6000 X146.36 Y146.36
G1 F2700 X147.68 Y145.28 E50.46170
G1 X149.18 Y144.47 E50.56789
G1 X150.81 Y143.98 E50.67410
G1 X152.50 Y143.81 E50.78025
G1 X154.19 Y143.98 E50.88640
G1 X155.82 Y144.47 E50.99262
G1 X157.32 Y145.28 E51.09881
G1 X158.64 Y146.36 E51.20506
G1 X159.72 Y147.68 E51.31132
G1 X160.53 Y149.18 E51.41751
G1 X161.02 Y150.81 E51.52372
G1 X161.19 Y152.50 E51.62987
G1 X161.02 Y154.19 E51.73602
G1 X160.53 Y155.82 E51.84224
G1 X159.72 Y157.32 E51.94843
G1 X158.64 Y158.64 E52.05468
G1 X157.32 Y159.72 E52.16094
G1 X155.82 Y160.53 E52.26713
G1 X154.19 Y161.02 E52.37335
G1 X152.50 Y161.19 E52.47949
G1 X150.81 Y161.02 E52.58564
G1 X149.18 Y160.53 E52.69186
G1 X147.68 Y159.72 E52.79805
G1 X146.36 Y158.64 E52.90430
G1 X145.28 Y157.32 E53.01056
G1 X144.47 Y155.82 E53.11675
G1 X143.98 Y154.19 E53.22297
G1 X143.81 Y152.50 E53.32912
G1 X143.98 Y150.81 E53.43526
G1 X144.47 Y149.18 E53.54148
G1 X145.28 Y147.68 E53.64767
G1 X146.36 Y146.36 E53.75393
G0 F6000 X146.71 Y146.71
G1 F2700 X147.95 Y145.69 E53.85403
G1 X149.37 Y144.94 E53.95405
G1 X150.90 Y144.47 E54.05415
G1 X152.50 Y144.31 E54.15416
G1 X154.10 Y144.47 E54.25417
G1 X155.63 Y144.94 E54.35427
G1 X157.05 Y145.69 E54.45429
G1 X158.29 Y146.71 E54.55439
G1 X159.31 Y147.95 E54.65449
G1 X160.06 Y149.37 E54.75452
G1 X160.53 Y150.90 E54.85462
G1 X160.69 Y152.50 E54.95463
G1 X160.53 Y154.10 E55.05464
G1 X160.06 Y155.63 E55.15474
G1 X159.31 Y157.05 E55.25476
G1 X158.29 Y158.29 E55.35486
G1 X157.05 Y159.31 E55.45496
G1 X155.63 Y160.06 E55.55498
G1 X154.10 Y160.53 E55.65509
G1 X152.50 Y160.69 E55.75510
G1 X150.90 Y160.53 E55.85511
G1 X149.37 Y160.06 E55.95521
G1 X147.95 Y159.31 E56.05523
G1 X146.71 Y158.29 E56.15533
G1 X145.69 Y157.05 E56.25543
G1 X144.94 Y155.63 E56.35545
G1 X144.47 Y154.10 E56.45555
G1 X144.31 Y152.50 E56.55557
G1 X144.47 Y150.90 E56.65558
G1 X144.94 Y149.37 E56.75568
G1 X145.69 Y147.95 E56.85570
G1 X146.71 Y146.71 E56.95580
G0 F6000 X147.07 Y147.07
G1 F2700 X148.23 Y146.11 E57.04974
G1 X149.56 Y145.40 E57.14363
G1 X151.00 Y144.97 E57.23759
G1 X152.50 Y144.82 E57.33147
G1 X154.00 Y144.97 E57.42534
G1 X155.44 Y145.40 E57.51931
G1 X156.77 Y146.11 E57.61319
G1 X157.93 Y147.07 E57.70714
G1 X158.89 Y148.23 E57.80108
G1 X159.60 Y149.56 E57.89497
G1 X160.03 Y151.00 E57.98893
G1 X160.18 Y152.50 E58.08281
G1 X160.03 Y154.00 E58.17668
G1 X159.60 Y155.44 E58.27065
G1 X158.89 Y156.77 E58.36453
G1 X157.93 Y157.93 E58.45848
G1 X156.77 Y158.89 E58.55242
G1 X155.44 Y159.60 E58.64630
G1 X154.00 Y160.03 E58.74027
G1 X152.50 Y160.18 E58.83414
G1 X151.00 Y160.03 E58.92802
G1 X149.56 Y159.60 E59.02198
G1 X148.23 Y158.89 E59.11587
G1 X147.07 Y157.93 E59.20981
G1 X146.11 Y156.77 E59.30376
G1 X145.40 Y155.44 E59.39764
G1 X144.97 Y154.00 E59.49161
G1 X144.82 Y152.50 E59.58548
G1 X144.97 Y151.00 E59.67936
G1 X145.40 Y149.56 E59.77332
G1 X146.11 Y148.23 E59.86721
G1 X147.07 Y147.07 E59.96115
G0 F6000 X147.42 Y147.42
G1 F2700 X148.51 Y146.53 E60.04898
G1 X149.75 Y145.87 E60.13675
G1 X151.10 Y145.46 E60.22452
G1 X152.50 Y145.32 E60.31225
G1 X153.90 Y145.46 E60.39999
G1 X155.25 Y145.87 E60.48776
G1 X156.49 Y146.53 E60.57553
G1 X157.58 Y147.42 E60.66336
G1 X158.47 Y148.51 E60.75118
G1 X159.13 Y149.75 E60.83896
G1 X159.54 Y151.10 E60.92673
G1 X159.68 Y152.50 E61.01446
G1 X159.54 Y153.90 E61.10219
G1 X159.13 Y155.25 E61.18996
G1 X158.47 Y156.49 E61.27774
G1 X157.58 Y157.58 E61.36556
G1 X156.49 Y158.47 E61.45339
G1 X155.25 Y159.13 E61.54116
G1 X153.90 Y159.54 E61.62894
G1 X152.50 Y159.68 E61.71667
G1 X151.10 Y159.54 E61.80440
G1 X149.75 Y159.13 E61.89217
G1 X148.51 Y158.47 E61.97994
G1 X147.42 Y157.58 E62.06777
G1 X146.53 Y156.49 E62.15560
G1 X145.87 Y155.25 E62.24337
G1 X145.46 Y153.90 E62.33114
G1 X145.32 Y152.50 E62.41887
G1 X145.46 Y151.10 E62.50660
G1 X145.87 Y149.75 E62.59438
G1 X146.53 Y148.51 E62.68215
G1 X147.42 Y147.42 E62.76998
G0 F6000 X149.19 Y149.19
G1 F2700 X148.61 Y149.90 E62.82731
G1 X148.18 Y150.71 E62.88431
G1 X147.91 Y151.59 E62.94138
G1 X147.82 Y152.50 E62.99866
G1 X147.91 Y153.41 E63.05594
G1 X148.18 Y154.29 E63.11302
G1 X148.61 Y155.10 E63.17002
G1 X149.19 Y155.81 E63.22735
G1 X149.90 Y156.39 E63.28468
G1 X150.71 Y156.82 E63.34168
G1 X151.59 Y157.09 E63.39876
G1 X152.50 Y157.18 E63.45604
G1 X153.41 Y157.09 E63.51332
G1 X154.29 Y156.82 E63.57039
G1 X155.10 Y156.39 E63.62739
G1 X155.81 Y155.81 E63.68473
G1 X156.39 Y155.10 E63.74206
G1 X156.82 Y154.29 E63.79906
G1 X157.09 Y153.41 E63.85613
G1 X157.18 Y152.50 E63.91341
G1 X157.09 Y151.59 E63.97069
G1 X156.82 Y150.71 E64.02777
G1 X156.39 Y149.90 E64.08477
G1 X155.81 Y149.19 E64.14210
G1 X155.10 Y148.61 E64.19943
G1 X154.29 Y148.18 E64.25643
G1 X153.41 Y147.91 E64.31351
G1 X152.50 Y147.82 E64.37079
G1 X151.59 Y147.91 E64.42807
G1 X150.71 Y148.18 E64.48514
G1 X149.90 Y148.61 E64.54214
G1 X149.19 Y149.19 E64.59947
G0 F6000 X149.55 Y149.55
G1 F2700 X149.03 Y150.18 E64.65051
G1 X148.64 Y150.90 E64.70143
G1 X148.41 Y151.69 E64.75277
G1 X148.32 Y152.50 E64.80359
G1 X148.41 Y153.31 E64.85442
G1 X148.64 Y154.10 E64.90576
G1 X149.03 Y154.82 E64.95667
G1 X149.55 Y155.45 E65.00771
G1 X150.18 Y155.97 E65.05875
G1 X150.90 Y156.36 E65.10967
G1 X151.69 Y156.59 E65.16100
G1 X152.50 Y156.68 E65.21183
G1 X153.31 Y156.59 E65.26266
G1 X154.10 Y156.36 E65.31399
G1 X154.82 Y155.97 E65.36491
G1 X155.45 Y155.45 E65.41595
G1 X155.97 Y154.82 E65.46699
G1 X156.36 Y154.10 E65.51791
G1 X156.59 Y153.31 E65.56924
G1 X156.68 Y152.50 E65.62007
G1 X156.59 Y151.69 E65.67090
G1 X156.36 Y150.90 E65.72223
G1 X155.97 Y150.18 E65.77315
G1 X155.45 Y149.55 E65.82419
G1 X154.82 Y149.03 E65.87523
G1 X154.10 Y148.64 E65.92614
G1 X153.31 Y148.41 E65.97748
G1 X152.50 Y148.32 E66.02831
G1 X151.69 Y148.41 E66.07913
G1 X150.90 Y148.64 E66.13047
G1 X150.18 Y149.03 E66.18139
G1 X149.55 Y149.55 E66.23243
G0 F6000 X149.90 Y149.90
G1 F2700 X149.44 Y150.47 E66.27767
G1 X149.11 Y151.09 E66.32217
G1 X148.90 Y151.78 E66.36699
G1 X148.83 Y152.50 E66.41199
G1 X148.90 Y153.22 E66.45698
G1 X149.11 Y153.91 E66.50181
G1 X149.44 Y154.53 E66.54631
G1 X149.90 Y155.10 E66.59155
G1 X150.47 Y155.56 E66.63679
G1 X151.09 Y155.89 E66.68130
G1 X151.78 Y156.10 E66.72612
G1 X152.50 Y156.17 E66.77111
G1 X153.22 Y156.10 E66.81611
G1 X153.91 Y155.89 E66.86093
G1 X154.53 Y155.56 E66.90543
G1 X155.10 Y155.10 E66.95068
G1 X155.56 Y154.53 E66.99592
G1 X155.89 Y153.91 E67.04042
G1 X156.10 Y153.22 E67.08524
G1 X156.17 Y152.50 E67.13024
G1 X156.10 Y151.78 E67.17523
G1 X155.89 Y151.09 E67.22006
G1 X155.56 Y150.47 E67.26456
G1 X155.10 Y149.90 E67.30980
G1 X154.53 Y149.44 E67.35505
G1 X153.91 Y149.11 E67.39955
G1 X153.22 Y148.90 E67.44437
G1 X152.50 Y148.83 E67.48936
G1 X151.78 Y148.90 E67.53436
G1 X151.09 Y149.11 E67.57918
G1 X150.47 Y149.44 E67.62368
G1 X149.90 Y149.90 E67.66893
G0 F6000 X150.26 Y150.26
G1 F2700 X149.86 Y150.74 E67.70783
G1 X149.57 Y151.28 E67.74627
G1 X149.39 Y151.89 E67.78544
G1 X149.33 Y152.50 E67.82391
G1 X149.39 Y153.11 E67.86239
G1 X149.57 Y153.72 E67.90156
G1 X149.86 Y154.26 E67.94000
G1 X150.26 Y154.74 E67.97890
G1 X150.74 Y155.14 E68.01780
G1 X151.28 Y155.43 E68.05625
G1 X151.89 Y155.61 E68.09541
G1 X152.50 Y155.67 E68.13389
G1 X153.11 Y155.61 E68.17237
G1 X153.72 Y155.43 E68.21153
G1 X154.26 Y155.14 E68.24997
G1 X154.74 Y154.74 E68.28888
G1 X155.14 Y154.26 E68.32778
G1 X155.43 Y153.72 E68.36622
G1 X155.61 Y153.11 E68.40539
G1 X155.67 Y152.50 E68.44386
G1 X155.61 Y151.89 E68.48234
G1 X155.43 Y151.28 E68.52150
G1 X155.14 Y150.74 E68.55995
G1 X154.74 Y150.26 E68.59885
G1 X154.26 Y149.86 E68.63775
G1 X153.72 Y149.57 E68.67620
G1 X153.11 Y149.39 E68.71536
G1 X152.50 Y149.33 E68.75384
G1 X151.89 Y149.39 E68.79232
G1 X151.28 Y149.57 E68.83148
G1 X150.74 Y149.86 E68.86992
G1 X150.26 Y150.26 E68.90883
G0 F6000 X148.48 Y148.48
;TYPE:WALL-INNER
G1 F2700 X147.78 Y149.34 E68.97830
G1 X147.25 Y150.33 E69.04775
G1 X146.93 Y151.39 E69.11727
G1 X146.82 Y152.50 E69.18665
G1 X146.93 Y153.61 E69.25602
G1 X147.25 Y154.67 E69.32554
G1 X147.78 Y155.66 E69.39499
G1 X148.48 Y156.52 E69.46446
G1 X149.34 Y157.22 E69.53394
G1 X150.33 Y157.75 E69.60338
G1 X151.39 Y158.07 E69.67291
G1 X152.50 Y158.18 E69.74228
G1 X153.61 Y158.07 E69.81166
G1 X154.67 Y157.75 E69.88118
G1 X155.66 Y157.22 E69.95062
G1 X156.52 Y156.52 E70.02010
G1 X157.22 Y155.66 E70.08958
G1 X157.75 Y154.67 E70.15902
G1 X158.07 Y153.61 E70.22854
G1 X158.18 Y152.50 E70.29792
G1 X158.07 Y151.39 E70.36729
G1 X157.75 Y150.33 E70.43682
G1 X157.22 Y149.34 E70.50626
G1 X156.52 Y148.48 E70.57574
G1 X155.66 Y147.78 E70.64521
G1 X154.67 Y147.25 E70.71466
G1 X153.61 Y146.93 E70.78418
G1 X152.50 Y146.82 E70.85356
G1 X151.39 Y146.93 E70.92293
G1 X150.33 Y147.25 E70.99245
G1 X149.34 Y147.78 E71.06190
G1 X148.48 Y148.48 E71.13137
G0 F6000 X148.13 Y148.13
G1 F2700 X149.07 Y147.36 E71.20710
G1 X150.13 Y146.79 E71.28224
G1 X151.30 Y146.44 E71.35816
G1 X152.50 Y146.32 E71.43335
G1 X153.70 Y146.44 E71.50855
G1 X154.87 Y146.79 E71.58446
G1 X155.93 Y147.36 E71.65960
G1 X156.87 Y148.13 E71.73533
G1 X157.64 Y149.07 E71.81106
G1 X158.21 Y150.13 E71.88619
G1 X158.56 Y151.30 E71.96211
G1 X158.68 Y152.50 E72.03730
G1 X158.56 Y153.70 E72.11250
G1 X158.21 Y154.87 E72.18842
G1 X157.64 Y155.93 E72.26355
G1 X156.87 Y156.87 E72.33928
G1 X155.93 Y157.64 E72.41501
G1 X154.87 Y158.21 E72.49015
G1 X153.70 Y158.56 E72.56606
G1 X152.50 Y158.68 E72.64126
G1 X151.30 Y158.56 E72.71645
G1 X150.13 Y158.21 E72.79237
G1 X149.07 Y157.64 E72.86750
G1 X148.13 Y156.87 E72.94323
G1 X147.36 Y155.93 E73.01896
G1 X146.79 Y154.87 E73.09410
G1 X146.44 Y153.70 E73.17001
G1 X146.32 Y152.50 E73.24521
G1 X146.44 Y151.30 E73.32041
G1 X146.79 Y150.13 E73.39632
G1 X147.36 Y149.07 E73.47146
G1 X148.13 Y148.13 E73.54719
G0 F6000 X147.78 Y147.78
;TYPE:WALL-OUTER
G1 F2700 X148.79 Y146.95 E73.62899
G1 X149.94 Y146.33 E73.71043
G1 X151.20 Y145.95 E73.79206
G1 X152.50 Y145.82 E73.87372
G1 X153.80 Y145.95 E73.95538
G1 X155.06 Y146.33 E74.03701
G1 X156.21 Y146.95 E74.11846
G1 X157.22 Y147.78 E74.20025
G1 X158.05 Y148.79 E74.28205
G1 X158.67 Y149.94 E74.36349
G1 X159.05 Y151.20 E74.44513
G1 X159.18 Y152.50 E74.52679
G1 X159.05 Y153.80 E74.60844
G1 X158.67 Y155.06 E74.69008
G1 X158.05 Y156.21 E74.77152
G1 X157.22 Y157.22 E74.85332
G1 X156.21 Y158.05 E74.93512
G1 X155.06 Y158.67 E75.01656
G1 X153.80 Y159.05 E75.09820
G1 X152.50 Y159.18 E75.17985
G1 X151.20 Y159.05 E75.26151
G1 X149.94 Y158.67 E75.34315
G1 X148.79 Y158.05 E75.42459
G1 X147.78 Y157.22 E75.50639
G1 X146.95 Y156.21 E75.58818
G1 X146.33 Y155.06 E75.66963
G1 X145.95 Y153.80 E75.75126
G1 X145.82 Y152.50 E75.83292
G1 X145.95 Y151.20 E75.91457
G1 X146.33 Y149.94 E75.99621
G1 X146.95 Y148.79 E76.07765
G1 X147.78 Y147.78 E76.15945
G0 F6000 X148.84 Y148.84
G1 F2700 X148.19 Y149.62 E76.22281
G1 X147.72 Y150.52 E76.28609
G1 X147.42 Y151.49 E76.34948
G1 X147.32 Y152.50 E76.41271
G1 X147.42 Y153.51 E76.47594
G1 X147.72 Y154.48 E76.53933
G1 X148.19 Y155.38 E76.60261
G1 X148.84 Y156.16 E76.66597
G1 X149.62 Y156.81 E76.72933
G1 X150.52 Y157.28 E76.79260
G1 X151.49 Y157.58 E76.85599
G1 X152.50 Y157.68 E76.91922
G1 X153.51 Y157.58 E76.98246
G1 X154.48 Y157.28 E77.04584
G1 X155.38 Y156.81 E77.10912
G1 X156.16 Y156.16 E77.17248
G1 X156.81 Y155.38 E77.23584
G1 X157.28 Y154.48 E77.29912
G1 X157.58 Y153.51 E77.36251
G1 X157.68 Y152.50 E77.42574
G1 X157.58 Y151.49 E77.48897
G1 X157.28 Y150.52 E77.55236
G1 X156.81 Y149.62 E77.61564
G1 X156.16 Y148.84 E77.67900
G1 X155.38 Y148.19 E77.74236
G1 X154.48 Y147.72 E77.80563
G1 X153.51 Y147.42 E77.86902
G1 X152.50 Y147.32 E77.93225
G1 X151.49 Y147.42 E77.99549
G1 X150.52 Y147.72 E78.05887
G1 X149.62 Y148.19 E78.12215
G1 X148.84 Y148.84 E78.18551
;LAYER:1
G0 F6000 X148.53 Y148.53 Z0.50
;TYPE:WALL-INNER
G1 F540 X147.83 Y149.38 E78.23135
G1 X147.31 Y150.35 E78.27711
G1 X146.99 Y151.41 E78.32294
G1 X146.88 Y152.50 E78.36869
G1 X146.99 Y153.59 E78.41444
G1 X147.31 Y154.65 E78.46027
G1 X147.83 Y155.62 E78.50603
G1 X148.53 Y156.47 E78.55187
G1 X149.38 Y157.17 E78.59771
G1 X150.35 Y157.69 E78.64347
G1 X151.41 Y158.01 E78.68930
G1 X152.50 Y158.12 E78.73505
G1 X153.59 Y158.01 E78.78079
G1 X154.65 Y157.69 E78.82663
G1 X155.62 Y157.17 E78.87238
G1 X156.47 Y156.47 E78.91823
G1 X157.17 Y155.62 E78.96407
G1 X157.69 Y154.65 E79.00983
G1 X158.01 Y153.59 E79.05566
G1 X158.12 Y152.50 E79.10141
G1 X158.01 Y151.41 E79.14715
G1 X157.69 Y150.35 E79.19299
G1 X157.17 Y149.38 E79.23874
G1 X156.47 Y148.53 E79.28459
G1 X155.62 Y147.83 E79.33043
G1 X154.65 Y147.31 E79.37619
G1 X153.59 Y146.99 E79.42202
G1 X152.50 Y146.88 E79.46777
G1 X151.41 Y146.99 E79.51351
G1 X150.35 Y147.31 E79.55935
G1 X149.38 Y147.83 E79.60510
G1 X148.53 Y148.53 E79.65095
G0 F6000 X148.18 Y148.18
G1 F540 X149.11 Y147.42 E79.70087
G1 X150.16 Y146.86 E79.75038
G1 X151.31 Y146.51 E79.80043
G1 X152.50 Y146.39 E79.84997
G1 X153.69 Y146.51 E79.89952
G1 X154.84 Y146.86 E79.94957
G1 X155.89 Y147.42 E79.99908
G1 X156.82 Y148.18 E80.04900
G1 X157.58 Y149.11 E80.09892
G1 X158.14 Y150.16 E80.14844
G1 X158.49 Y151.31 E80.19848
G1 X158.61 Y152.50 E80.24803
G1 X158.49 Y153.69 E80.29758
G1 X158.14 Y154.84 E80.34762
G1 X157.58 Y155.89 E80.39713
G1 X156.82 Y156.82 E80.44706
G1 X155.89 Y157.58 E80.49698
G1 X154.84 Y158.14 E80.54649
G1 X153.69 Y158.49 E80.59654
G1 X152.50 Y158.61 E80.64608
G1 X151.31 Y158.49 E80.69563
G1 X150.16 Y158.14 E80.74568
G1 X149.11 Y157.58 E80.79519
G1 X148.18 Y156.82 E80.84511
G1 X147.42 Y155.89 E80.89503
G1 X146.86 Y154.84 E80.94455
G1 X146.51 Y153.69 E80.99459
G1 X146.39 Y152.50 E81.04414
G1 X146.51 Y151.31 E81.09369
G1 X146.86 Y150.16 E81.14373
G1 X147.42 Y149.11 E81.19324
G1 X148.18 Y148.18 E81.24317
G0 F6000 X147.83 Y147.83
;TYPE:WALL-OUTER
G1 F540 X148.83 Y147.00 E81.29713
G1 X149.97 Y146.40 E81.35085
G1 X151.21 Y146.02 E81.40467
G1 X152.50 Y145.89 E81.45856
G1 X153.79 Y146.02 E81.51246
G1 X155.03 Y146.40 E81.56628
G1 X156.17 Y147.00 E81.62000
G1 X157.17 Y147.83 E81.67396
G1 X158.00 Y148.83 E81.72793
G1 X158.60 Y149.97 E81.78165
G1 X158.98 Y151.21 E81.83547
G1 X159.11 Y152.50 E81.88936
G1 X158.98 Y153.79 E81.94326
G1 X158.60 Y155.03 E81.99708
G1 X158.00 Y156.17 E82.05080
G1 X157.17 Y157.17 E82.10476
G1 X156.17 Y158.00 E82.15873
G1 X155.03 Y158.60 E82.21245
G1 X153.79 Y158.98 E82.26627
G1 X152.50 Y159.11 E82.32016
G1 X151.21 Y158.98 E82.37406
G1 X149.97 Y158.60 E82.42788
G1 X148.83 Y158.00 E82.48160
G1 X147.83 Y157.17 E82.53556
G1 X147.00 Y156.17 E82.58953
G1 X146.40 Y155.03 E82.64325
G1 X146.02 Y153.79 E82.69707
G1 X145.89 Y152.50 E82.75096
G1 X146.02 Y151.21 E82.80486
G1 X146.40 Y149.97 E82.85868
G1 X147.00 Y148.83 E82.91240
G1 X147.83 Y147.83 E82.96636
G0 F6000 X148.88 Y148.88
G1 F540 X148.25 Y149.66 E83.00810
G1 X147.77 Y150.54 E83.04977
G1 X147.48 Y151.50 E83.09151
G1 X147.38 Y152.50 E83.13316
G1 X147.48 Y153.50 E83.17481
G1 X147.77 Y154.46 E83.21656
G1 X148.25 Y155.34 E83.25822
G1 X148.88 Y156.12 E83.29996
G1 X149.66 Y156.75 E83.34170
G1 X150.54 Y157.23 E83.38336
G1 X151.50 Y157.52 E83.42511
G1 X152.50 Y157.62 E83.46676
G1 X153.50 Y157.52 E83.50841
G1 X154.46 Y157.23 E83.55015
G1 X155.34 Y156.75 E83.59182
G1 X156.12 Y156.12 E83.63356
G1 X156.75 Y155.34 E83.67530
G1 X157.23 Y154.46 E83.71696
G1 X157.52 Y153.50 E83.75871
G1 X157.62 Y152.50 E83.80036
G1 X157.52 Y151.50 E83.84201
G1 X157.23 Y150.54 E83.88375
G1 X156.75 Y149.66 E83.92542
G1 X156.12 Y148.88 E83.96716
G1 X155.34 Y148.25 E84.00890
G1 X154.46 Y147.77 E84.05056
G1 X153.50 Y147.48 E84.09230
G1 X152.50 Y147.38 E84.13395
G1 X151.50 Y147.48 E84.17560
G1 X150.54 Y147.77 E84.21735
G1 X149.66 Y148.25 E84.25901
G1 X148.88 Y148.88 E84.30075
;LAYER:2
G0 F6000 X148.57 Y148.57 Z0.70
;TYPE:WALL-INNER
G1 F540 X147.88 Y149.41 E84.34610
G1 X147.37 Y150.37 E84.39133
G1 X147.05 Y151.42 E84.43665
G1 X146.94 Y152.50 E84.48190
G1 X147.05 Y153.58 E84.52714
G1 X147.37 Y154.63 E84.57246
G1 X147.88 Y155.59 E84.61770
G1 X148.57 Y156.43 E84.66304
G1 X149.41 Y157.12 E84.70839
G1 X150.37 Y157.63 E84.75362
G1 X151.42 Y157.95 E84.79894
G1 X152.50 Y158.06 E84.84419
G1 X153.58 Y157.95 E84.88943
G1 X154.63 Y157.63 E84.93475
G1 X155.59 Y157.12 E84.97999
G1 X156.43 Y156.43 E85.02533
G1 X157.12 Y155.59 E85.07067
G1 X157.63 Y154.63 E85.11591
G1 X157.95 Y153.58 E85.16123
G1 X158.06 Y152.50 E85.20647
G1 X157.95 Y151.42 E85.25172
G1 X157.63 Y150.37 E85.29704
G1 X157.12 Y149.41 E85.34227
G1 X156.43 Y148.57 E85.38762
G1 X155.59 Y147.88 E85.43296
G1 X154.63 Y147.37 E85.47820
G1 X153.58 Y147.05 E85.52352
G1 X152.50 Y146.94 E85.56876
G1 X151.42 Y147.05 E85.61401
G1 X150.37 Y147.37 E85.65933
G1 X149.41 Y147.88 E85.70456
G1 X148.57 Y148.57 E85.74991
G0 F6000 X148.23 Y148.23
G1 F540 X149.15 Y147.48 E85.79924
G1 X150.19 Y146.93 E85.84823
G1 X151.33 Y146.58 E85.89758
G1 X152.50 Y146.46 E85.94663
G1 X153.67 Y146.58 E85.99568
G1 X154.81 Y146.93 E86.04503
G1 X155.85 Y147.48 E86.09402
G1 X156.77 Y148.23 E86.14335
G1 X157.52 Y149.15 E86.19268
G1 X158.07 Y150.19 E86.24167
G1 X158.42 Y151.33 E86.29102
G1 X158.54 Y152.50 E86.34007
G1 X158.42 Y153.67 E86.38912
G1 X158.07 Y154.81 E86.43847
G1 X157.52 Y155.85 E86.48746
G1 X156.77 Y156.77 E86.53680
G1 X155.85 Y157.52 E86.58613
G1 X154.81 Y158.07 E86.63512
G1 X153.67 Y158.42 E86.68447
G1 X152.50 Y158.54 E86.73352
G1 X151.33 Y158.42 E86.78257
G1 X150.19 Y158.07 E86.83192
G1 X149.15 Y157.52 E86.88091
G1 X148.23 Y156.77 E86.93024
G1 X147.48 Y155.85 E86.97957
G1 X146.93 Y154.81 E87.02856
G1 X146.58 Y153.67 E87.07791
G1 X146.46 Y152.50 E87.12696
G1 X146.58 Y151.33 E87.17601
G1 X146.93 Y150.19 E87.22536
G1 X147.48 Y149.15 E87.27435
G1 X148.23 Y148.23 E87.32368
G0 F6000 X147.88 Y147.88
;TYPE:WALL-OUTER
G1 F540 X148.87 Y147.06 E87.37706
G1 X150.00 Y146.46 E87.43026
G1 X151.22 Y146.09 E87.48343
G1 X152.50 Y145.96 E87.53678
G1 X153.78 Y146.09 E87.59014
G1 X155.00 Y146.46 E87.64331
G1 X156.13 Y147.06 E87.69651
G1 X157.12 Y147.88 E87.74989
G1 X157.94 Y148.87 E87.80326
G1 X158.54 Y150.00 E87.85646
G1 X158.91 Y151.22 E87.90963
G1 X159.04 Y152.50 E87.96299
G1 X158.91 Y153.78 E88.01634
G1 X158.54 Y155.00 E88.06951
G1 X157.94 Y156.13 E88.12271
G1 X157.12 Y157.12 E88.17609
G1 X156.13 Y157.94 E88.22946
G1 X155.00 Y158.54 E88.28266
G1 X153.78 Y158.91 E88.33583
G1 X152.50 Y159.04 E88.38919
G1 X151.22 Y158.91 E88.44254
G1 X150.00 Y158.54 E88.49572
G1 X148.87 Y157.94 E88.54891
G1 X147.88 Y157.12 E88.60229
G1 X147.06 Y156.13 E88.65567
G1 X146.46 Y155.00 E88.70886
G1 X146.09 Y153.78 E88.76204
G1 X145.96 Y152.50 E88.81539
G1 X146.09 Y151.22 E88.86874
G1 X146.46 Y150.00 E88.92192
G1 X147.06 Y148.87 E88.97511
G1 X147.88 Y147.88 E89.02849
G0 F6000 X148.93 Y148.93
G1 F540 X148.30 Y149.69 E89.06973
G1 X147.83 Y150.57 E89.11087
G1 X147.54 Y151.51 E89.15210
G1 X147.45 Y152.50 E89.19325
G1 X147.54 Y153.49 E89.23440
G1 X147.83 Y154.43 E89.27564
G1 X148.30 Y155.31 E89.31678
G1 X148.93 Y156.07 E89.35802
G1 X149.69 Y156.70 E89.39926
G1 X150.57 Y157.17 E89.44040
G1 X151.51 Y157.46 E89.48163
G1 X152.50 Y157.55 E89.52278
G1 X153.49 Y157.46 E89.56393
G1 X154.43 Y157.17 E89.60516
G1 X155.31 Y156.70 E89.64630
G1 X156.07 Y156.07 E89.68754
G1 X156.70 Y155.31 E89.72878
G1 X157.17 Y154.43 E89.76993
G1 X157.46 Y153.49 E89.81116
G1 X157.55 Y152.50 E89.85231
G1 X157.46 Y151.51 E89.89346
G1 X157.17 Y150.57 E89.93469
G1 X156.70 Y149.69 E89.97583
G1 X156.07 Y148.93 E90.01707
G1 X155.31 Y148.30 E90.05831
G1 X154.43 Y147.83 E90.09945
G1 X153.49 Y147.54 E90.14069
G1 X152.50 Y147.45 E90.18183
G1 X151.51 Y147.54 E90.22298
G1 X150.57 Y147.83 E90.26422
G1 X149.69 Y148.30 E90.30536
G1 X148.93 Y148.93 E90.34660
;LAYER:3
G0 F6000 X148.62 Y148.62 Z0.90
;TYPE:WALL-INNER
G1 F540 X147.93 Y149.45 E90.39141
G1 X147.42 Y150.40 E90.43618
G1 X147.11 Y151.43 E90.48096
G1 X147.01 Y152.50 E90.52571
G1 X147.11 Y153.57 E90.57045
G1 X147.42 Y154.60 E90.61524
G1 X147.93 Y155.55 E90.66000
G1 X148.62 Y156.38 E90.70482
G1 X149.45 Y157.07 E90.74963
G1 X150.40 Y157.58 E90.79440
G1 X151.43 Y157.89 E90.83918
G1 X152.50 Y157.99 E90.88392
G1 X153.57 Y157.89 E90.92867
G1 X154.60 Y157.58 E90.97345
G1 X155.55 Y157.07 E91.01822
G1 X156.38 Y156.38 E91.06303
G1 X157.07 Y155.55 E91.10785
G1 X157.58 Y154.60 E91.15261
G1 X157.89 Y153.57 E91.19740
G1 X157.99 Y152.50 E91.24214
G1 X157.89 Y151.43 E91.28689
G1 X157.58 Y150.40 E91.33167
G1 X157.07 Y149.45 E91.37644
G1 X156.38 Y148.62 E91.42125
G1 X155.55 Y147.93 E91.46606
G1 X154.60 Y147.42 E91.51083
G1 X153.57 Y147.11 E91.55562
G1 X152.50 Y147.01 E91.60036
G1 X151.43 Y147.11 E91.64510
G1 X150.40 Y147.42 E91.68989
G1 X149.45 Y147.93 E91.73466
G1 X148.62 Y148.62 E91.77947
G0 F6000 X148.28 Y148.28
G1 F540 X149.19 Y147.54 E91.82824
G1 X150.22 Y146.99 E91.87662
G1 X151.34 Y146.65 E91.92549
G1 X152.50 Y146.53 E91.97391
G1 X153.66 Y146.65 E92.02233
G1 X154.78 Y146.99 E92.07120
G1 X155.81 Y147.54 E92.11958
G1 X156.72 Y148.28 E92.16835
G1 X157.46 Y149.19 E92.21713
G1 X158.01 Y150.22 E92.26551
G1 X158.35 Y151.34 E92.31438
G1 X158.47 Y152.50 E92.36280
G1 X158.35 Y153.66 E92.41122
G1 X158.01 Y154.78 E92.46009
G1 X157.46 Y155.81 E92.50847
G1 X156.72 Y156.72 E92.55724
G1 X155.81 Y157.46 E92.60601
G1 X154.78 Y158.01 E92.65439
G1 X153.66 Y158.35 E92.70326
G1 X152.50 Y158.47 E92.75168
G1 X151.34 Y158.35 E92.80010
G1 X150.22 Y158.01 E92.84897
G1 X149.19 Y157.46 E92.89735
G1 X148.28 Y156.72 E92.94613
G1 X147.54 Y155.81 E92.99490
G1 X146.99 Y154.78 E93.04328
G1 X146.65 Y153.66 E93.09215
G1 X146.53 Y152.50 E93.14057
G1 X146.65 Y151.34 E93.18899
G1 X146.99 Y150.22 E93.23786
G1 X147.54 Y149.19 E93.28624
G1 X148.28 Y148.28 E93.33501
G0 F6000 X147.93 Y147.93
;TYPE:WALL-OUTER
G1 F540 X148.91 Y147.12 E93.38783
G1 X150.03 Y146.53 E93.44041
G1 X151.24 Y146.16 E93.49310
G1 X152.50 Y146.03 E93.54582
G1 X153.76 Y146.16 E93.59855
G1 X154.97 Y146.53 E93.65124
G1 X156.09 Y147.12 E93.70382
G1 X157.07 Y147.93 E93.75664
G1 X157.88 Y148.91 E93.80946
G1 X158.47 Y150.03 E93.86204
G1 X158.84 Y151.24 E93.91473
G1 X158.97 Y152.50 E93.96745
G1 X158.84 Y153.76 E94.02018
G1 X158.47 Y154.97 E94.07286
G1 X157.88 Y156.09 E94.12545
G1 X157.07 Y157.07 E94.17827
G1 X156.09 Y157.88 E94.23108
G1 X154.97 Y158.47 E94.28367
G1 X153.76 Y158.84 E94.33635
G1 X152.50 Y158.97 E94.38908
G1 X151.24 Y158.84 E94.44180
G1 X150.03 Y158.47 E94.49449
G1 X148.91 Y157.88 E94.54708
G1 X147.93 Y157.07 E94.59989
G1 X147.12 Y156.09 E94.65271
G1 X146.53 Y154.97 E94.70529
G1 X146.16 Y153.76 E94.75798
G1 X146.03 Y152.50 E94.81071
G1 X146.16 Y151.24 E94.86343
G1 X146.53 Y150.03 E94.91612
G1 X147.12 Y148.91 E94.96870
G1 X147.93 Y147.93 E95.02152
G0 F6000 X148.97 Y148.97
G1 F540 X148.35 Y149.73 E95.06223
G1 X147.89 Y150.59 E95.10291
G1 X147.60 Y151.53 E95.14360
G1 X147.51 Y152.50 E95.18425
G1 X147.60 Y153.47 E95.22490
G1 X147.89 Y154.41 E95.26559
G1 X148.35 Y155.27 E95.30627
G1 X148.97 Y156.03 E95.34698
G1 X149.73 Y156.65 E95.38768
G1 X150.59 Y157.11 E95.42836
G1 X151.53 Y157.40 E95.46906
G1 X152.50 Y157.49 E95.50970
G1 X153.47 Y157.40 E95.55035
G1 X154.41 Y157.11 E95.59105
G1 X155.27 Y156.65 E95.63172
G1 X156.03 Y156.03 E95.67243
G1 X156.65 Y155.27 E95.71314
G1 X157.11 Y154.41 E95.75382
G1 X157.40 Y153.47 E95.79451
G1 X157.49 Y152.50 E95.83516
G1 X157.40 Y151.53 E95.87581
G1 X157.11 Y150.59 E95.91650
G1 X156.65 Y149.73 E95.95718
G1 X156.03 Y148.97 E95.99789
G1 X155.27 Y148.35 E96.03860
G1 X154.41 Y147.89 E96.07927
G1 X153.47 Y147.60 E96.11997
G1 X152.50 Y147.51 E96.16062
G1 X151.53 Y147.60 E96.20127
G1 X150.59 Y147.89 E96.24196
G1 X149.73 Y148.35 E96.28264
G1 X148.97 Y148.97 E96.32334
;LAYER:4
G0 F6000 X148.66 Y148.66 Z1.10
;TYPE:WALL-INNER
G1 F600 X147.98 Y149.48 E96.36766
G1 X147.48 Y150.42 E96.41190
G1 X147.17 Y151.44 E96.45617
G1 X147.07 Y152.50 E96.50042
G1 X147.17 Y153.56 E96.54466
G1 X147.48 Y154.58 E96.58893
G1 X147.98 Y155.52 E96.63318
G1 X148.66 Y156.34 E96.67749
G1 X149.48 Y157.02 E96.72180
G1 X150.42 Y157.52 E96.76605
G1 X151.44 Y157.83 E96.81032
G1 X152.50 Y157.93 E96.85456
G1 X153.56 Y157.83 E96.89881
G1 X154.58 Y157.52 E96.94308
G1 X155.52 Y157.02 E96.98733
G1 X156.34 Y156.34 E97.03164
G1 X157.02 Y155.52 E97.07595
G1 X157.52 Y154.58 E97.12020
G1 X157.83 Y153.56 E97.16447
G1 X157.93 Y152.50 E97.20871
G1 X157.83 Y151.44 E97.25296
G1 X157.52 Y150.42 E97.29723
G1 X157.02 Y149.48 E97.34147
G1 X156.34 Y148.66 E97.38579
G1 X155.52 Y147.98 E97.43010
G1 X154.58 Y147.48 E97.47435
G1 X153.56 Y147.17 E97.51862
G1 X152.50 Y147.07 E97.56286
G1 X151.44 Y147.17 E97.60710
G1 X150.42 Y147.48 E97.65137
G1 X149.48 Y147.98 E97.69562
G1 X148.66 Y148.66 E97.73993
G0 F6000 X148.33 Y148.33
G1 F600 X149.23 Y147.60 E97.78811
G1 X150.24 Y147.06 E97.83594
G1 X151.35 Y146.72 E97.88424
G1 X152.50 Y146.60 E97.93208
G1 X153.65 Y146.72 E97.97991
G1 X154.76 Y147.06 E98.02822
G1 X155.77 Y147.60 E98.07604
G1 X156.67 Y148.33 E98.12422
G1 X157.40 Y149.23 E98.17240
G1 X157.94 Y150.24 E98.22023
G1 X158.28 Y151.35 E98.26853
G1 X158.40 Y152.50 E98.31637
G1 X158.28 Y153.65 E98.36420
G1 X157.94 Y154.76 E98.41251
G1 X157.40 Y155.77 E98.46033
G1 X156.67 Y156.67 E98.50851
G1 X155.77 Y157.40 E98.55670
G1 X154.76 Y157.94 E98.60452
G1 X153.65 Y158.28 E98.65282
G1 X152.50 Y158.40 E98.70066
G1 X151.35 Y158.28 E98.74849
G1 X150.24 Y157.94 E98.79680
G1 X149.23 Y157.40 E98.84462
G1 X148.33 Y156.67 E98.89281
G1 X147.60 Y155.77 E98.94099
G1 X147.06 Y154.76 E98.98881
G1 X146.72 Y153.65 E99.03712
G1 X146.60 Y152.50 E99.08495
G1 X146.72 Y151.35 E99.13279
G1 X147.06 Y150.24 E99.18109
G1 X147.60 Y149.23 E99.22891
G1 X148.33 Y148.33 E99.27710
G0 F6000 X147.98 Y147.98
;TYPE:WALL-OUTER
G1 F600 X148.95 Y147.18 E99.32932
G1 X150.05 Y146.59 E99.38135
G1 X151.25 Y146.23 E99.43343
G1 X152.50 Y146.10 E99.48561
G1 X153.75 Y146.23 E99.53780
G1 X154.95 Y146.59 E99.58988
G1 X156.05 Y147.18 E99.64191
G1 X157.02 Y147.98 E99.69413
G1 X157.82 Y148.95 E99.74636
G1 X158.41 Y150.05 E99.79838
G1 X158.77 Y151.25 E99.85047
G1 X158.90 Y152.50 E99.90265
G1 X158.77 Y153.75 E99.95483
G1 X158.41 Y154.95 E100.00692
G1 X157.82 Y156.05 E100.05894
G1 X157.02 Y157.02 E100.11117
G1 X156.05 Y157.82 E100.16339
G1 X154.95 Y158.41 E100.21542
G1 X153.75 Y158.77 E100.26750
G1 X152.50 Y158.90 E100.31969
G1 X151.25 Y158.77 E100.37187
G1 X150.05 Y158.41 E100.42395
G1 X148.95 Y157.82 E100.47598
G1 X147.98 Y157.02 E100.52820
G1 X147.18 Y156.05 E100.58043
G1 X146.59 Y154.95 E100.63246
G1 X146.23 Y153.75 E100.68454
G1 X146.10 Y152.50 E100.73672
G1 X146.23 Y151.25 E100.78890
G1 X146.59 Y150.05 E100.84099
G1 X147.18 Y148.95 E100.89301
G1 X147.98 Y147.98 E100.94524
G0 F6000 X149.01 Y149.01
G1 F600 X148.40 Y149.76 E100.98545
G1 X147.95 Y150.61 E101.02560
G1 X147.67 Y151.54 E101.06578
G1 X147.57 Y152.50 E101.10593
G1 X147.67 Y153.46 E101.14608
G1 X147.95 Y154.39 E101.18626
G1 X148.40 Y155.24 E101.22642
G1 X149.01 Y155.99 E101.26663
G1 X149.76 Y156.60 E101.30683
G1 X150.61 Y157.05 E101.34699
G1 X151.54 Y157.33 E101.38717
G1 X152.50 Y157.43 E101.42732
G1 X153.46 Y157.33 E101.46747
G1 X154.39 Y157.05 E101.50765
G1 X155.24 Y156.60 E101.54780
G1 X155.99 Y155.99 E101.58801
G1 X156.60 Y155.24 E101.62822
G1 X157.05 Y154.39 E101.66837
G1 X157.33 Y153.46 E101.70855
G1 X157.43 Y152.50 E101.74870
G1 X157.33 Y151.54 E101.78885
G1 X157.05 Y150.61 E101.82903
G1 X156.60 Y149.76 E101.86919
G1 X155.99 Y149.01 E101.90940
G1 X155.24 Y148.40 E101.94960
G1 X154.39 Y147.95 E101.98976
G1 X153.46 Y147.67 E102.02994
G1 X152.50 Y147.57 E102.07009
G1 X151.54 Y147.67 E102.11024
G1 X150.61 Y147.95 E102.15042
G1 X149.76 Y148.40 E102.19057
G1 X149.01 Y149.01 E102.23078
;LAYER:5
G0 F6000 X148.70 Y148.70 Z1.30
;TYPE:WALL-INNER
G1 F600 X148.03 Y149.52 E102.27459
G1 X147.54 Y150.45 E102.31831
G1 X147.23 Y151.45 E102.36211
G1 X147.13 Y152.50 E102.40581
G1 X147.23 Y153.55 E102.44951
G1 X147.54 Y154.55 E102.49330
G1 X148.03 Y155.48 E102.53703
G1 X148.70 Y156.30 E102.58083
G1 X149.52 Y156.97 E102.62464
G1 X150.45 Y157.46 E102.66837
G1 X151.45 Y157.77 E102.71216
G1 X152.50 Y157.87 E102.75586
G1 X153.55 Y157.77 E102.79956
G1 X154.55 Y157.46 E102.84336
G1 X155.48 Y156.97 E102.88708
G1 X156.30 Y156.30 E102.93089
G1 X156.97 Y155.48 E102.97469
G1 X157.46 Y154.55 E103.01842
G1 X157.77 Y153.55 E103.06222
G1 X157.87 Y152.50 E103.10591
G1 X157.77 Y151.45 E103.14961
G1 X157.46 Y150.45 E103.19341
G1 X156.97 Y149.52 E103.23714
G1 X156.30 Y148.70 E103.28094
G1 X155.48 Y148.03 E103.32475
G1 X154.55 Y147.54 E103.36847
G1 X153.55 Y147.23 E103.41227
G1 X152.50 Y147.13 E103.45597
G1 X151.45 Y147.23 E103.49967
G1 X150.45 Y147.54 E103.54346
G1 X149.52 Y148.03 E103.58719
G1 X148.70 Y148.70 E103.63100
G0 F6000 X148.38 Y148.38
G1 F600 X149.27 Y147.66 E103.67861
G1 X150.27 Y147.12 E103.72586
G1 X151.37 Y146.79 E103.77360
G1 X152.50 Y146.68 E103.82085
G1 X153.63 Y146.79 E103.86810
G1 X154.73 Y147.12 E103.91584
G1 X155.73 Y147.66 E103.96309
G1 X156.62 Y148.38 E104.01071
G1 X157.34 Y149.27 E104.05832
G1 X157.88 Y150.27 E104.10557
G1 X158.21 Y151.37 E104.15331
G1 X158.32 Y152.50 E104.20056
G1 X158.21 Y153.63 E104.24781
G1 X157.88 Y154.73 E104.29555
G1 X157.34 Y155.73 E104.34280
G1 X156.62 Y156.62 E104.39041
G1 X155.73 Y157.34 E104.43803
G1 X154.73 Y157.88 E104.48528
G1 X153.63 Y158.21 E104.53302
G1 X152.50 Y158.32 E104.58027
G1 X151.37 Y158.21 E104.62752
G1 X150.27 Y157.88 E104.67526
G1 X149.27 Y157.34 E104.72251
G1 X148.38 Y156.62 E104.77012
G1 X147.66 Y155.73 E104.81774
G1 X147.12 Y154.73 E104.86499
G1 X146.79 Y153.63 E104.91273
G1 X146.68 Y152.50 E104.95998
G1 X146.79 Y151.37 E105.00723
G1 X147.12 Y150.27 E105.05497
G1 X147.66 Y149.27 E105.10222
G1 X148.38 Y148.38 E105.14983
G0 F6000 X148.03 Y148.03
;TYPE:WALL-OUTER
G1 F600 X148.99 Y147.24 E105.20150
G1 X150.08 Y146.66 E105.25295
G1 X151.26 Y146.30 E105.30446
G1 X152.50 Y146.17 E105.35606
G1 X153.74 Y146.30 E105.40766
G1 X154.92 Y146.66 E105.45918
G1 X156.01 Y147.24 E105.51063
G1 X156.97 Y148.03 E105.56229
G1 X157.76 Y148.99 E105.61395
G1 X158.34 Y150.08 E105.66540
G1 X158.70 Y151.26 E105.71692
G1 X158.83 Y152.50 E105.76852
G1 X158.70 Y153.74 E105.82012
G1 X158.34 Y154.92 E105.87163
G1 X157.76 Y156.01 E105.92308
G1 X156.97 Y156.97 E105.97474
G1 X156.01 Y157.76 E106.02641
G1 X154.92 Y158.34 E106.07786
G1 X153.74 Y158.70 E106.12937
G1 X152.50 Y158.83 E106.18097
G1 X151.26 Y158.70 E106.23257
G1 X150.08 Y158.34 E106.28409
G1 X148.99 Y157.76 E106.33554
G1 X148.03 Y156.97 E106.38720
G1 X147.24 Y156.01 E106.43886
G1 X146.66 Y154.92 E106.49031
G1 X146.30 Y153.74 E106.54183
G1 X146.17 Y152.50 E106.59343
G1 X146.30 Y151.26 E106.64503
G1 X146.66 Y150.08 E106.69654
G1 X147.24 Y148.99 E106.74799
G1 X148.03 Y148.03 E106.79965
G0 F6000 X149.06 Y149.06
G1 F600 X148.45 Y149.80 E106.83936
G1 X148.00 Y150.64 E106.87899
G1 X147.73 Y151.55 E106.91870
G1 X147.63 Y152.50 E106.95830
G1 X147.73 Y153.45 E106.99790
G1 X148.00 Y154.36 E107.03761
G1 X148.45 Y155.20 E107.07725
G1 X149.06 Y155.94 E107.11695
G1 X149.80 Y156.55 E107.15665
G1 X150.64 Y157.00 E107.19628
G1 X151.55 Y157.27 E107.23599
G1 X152.50 Y157.37 E107.27559
G1 X153.45 Y157.27 E107.31519
G1 X154.36 Y157.00 E107.35490
G1 X155.20 Y156.55 E107.39454
G1 X155.94 Y155.94 E107.43424
G1 X156.55 Y155.20 E107.47394
G1 X157.00 Y154.36 E107.51358
G1 X157.27 Y153.45 E107.55328
G1 X157.37 Y152.50 E107.59288
G1 X157.27 Y151.55 E107.63249
G1 X157.00 Y150.64 E107.67219
G1 X156.55 Y149.80 E107.71183
G1 X155.94 Y149.06 E107.75153
G1 X155.20 Y148.45 E107.79123
G1 X154.36 Y148.00 E107.83087
G1 X153.45 Y147.73 E107.87057
G1 X152.50 Y147.63 E107.91018
G1 X151.55 Y147.73 E107.94978
G1 X150.64 Y148.00 E107.98948
G1 X149.80 Y148.45 E108.02912
G1 X149.06 Y149.06 E108.06882
;LAYER:6
G0 F6000 X148.75 Y148.75 Z1.50
;TYPE:WALL-INNER
G1 F600 X148.09 Y149.55 E108.11209
G1 X147.60 Y150.47 E108.15534
G1 X147.30 Y151.47 E108.19861
G1 X147.19 Y152.50 E108.24181
G1 X147.30 Y153.53 E108.28501
G1 X147.60 Y154.53 E108.32828
G1 X148.09 Y155.45 E108.37152
G1 X148.75 Y156.25 E108.41480
G1 X149.55 Y156.91 E108.45807
G1 X150.47 Y157.40 E108.50131
G1 X151.47 Y157.70 E108.54458
G1 X152.50 Y157.81 E108.58779
G1 X153.53 Y157.70 E108.63099
G1 X154.53 Y157.40 E108.67426
G1 X155.45 Y156.91 E108.71750
G1 X156.25 Y156.25 E108.76077
G1 X156.91 Y155.45 E108.80405
G1 X157.40 Y154.53 E108.84729
G1 X157.70 Y153.53 E108.89056
G1 X157.81 Y152.50 E108.93376
G1 X157.70 Y151.47 E108.97696
G1 X157.40 Y150.47 E109.02023
G1 X156.91 Y149.55 E109.06348
G1 X156.25 Y148.75 E109.10675
G1 X155.45 Y148.09 E109.15002
G1 X154.53 Y147.60 E109.19327
G1 X153.53 Y147.30 E109.23654
G1 X152.50 Y147.19 E109.27974
G1 X151.47 Y147.30 E109.32294
G1 X150.47 Y147.60 E109.36621
G1 X149.55 Y148.09 E109.40945
G1 X148.75 Y148.75 E109.45273
G0 F6000 X148.43 Y148.43
G1 F600 X149.30 Y147.72 E109.49961
G1 X150.30 Y147.19 E109.54644
G1 X151.38 Y146.86 E109.59358
G1 X152.50 Y146.75 E109.64029
G1 X153.62 Y146.86 E109.68700
G1 X154.70 Y147.19 E109.73414
G1 X155.70 Y147.72 E109.78097
G1 X156.57 Y148.43 E109.82786
G1 X157.28 Y149.30 E109.87474
G1 X157.81 Y150.30 E109.92157
G1 X158.14 Y151.38 E109.96871
G1 X158.25 Y152.50 E110.01542
G1 X158.14 Y153.62 E110.06213
G1 X157.81 Y154.70 E110.10927
G1 X157.28 Y155.70 E110.15610
G1 X156.57 Y156.57 E110.20299
G1 X155.70 Y157.28 E110.24987
G1 X154.70 Y157.81 E110.29670
G1 X153.62 Y158.14 E110.34384
G1 X152.50 Y158.25 E110.39055
G1 X151.38 Y158.14 E110.43726
G1 X150.30 Y157.81 E110.48440
G1 X149.30 Y157.28 E110.53123
G1 X148.43 Y156.57 E110.57812
G1 X147.72 Y155.70 E110.62500
G1 X147.19 Y154.70 E110.67183
G1 X146.86 Y153.62 E110.71897
G1 X146.75 Y152.50 E110.76568
G1 X146.86 Y151.38 E110.81239
G1 X147.19 Y150.30 E110.85953
G1 X147.72 Y149.30 E110.90636
G1 X148.43 Y148.43 E110.95325
G0 F6000 X148.08 Y148.08
;TYPE:WALL-OUTER
G1 F600 X149.02 Y147.30 E111.00421
G1 X150.11 Y146.72 E111.05523
G1 X151.28 Y146.37 E111.10614
G1 X152.50 Y146.24 E111.15720
G1 X153.72 Y146.37 E111.20825
G1 X154.89 Y146.72 E111.25917
G1 X155.98 Y147.30 E111.31019
G1 X156.92 Y148.08 E111.36115
G1 X157.70 Y149.02 E111.41211
G1 X158.28 Y150.11 E111.46313
G1 X158.63 Y151.28 E111.51404
G1 X158.76 Y152.50 E111.56510
G1 X158.63 Y153.72 E111.61615
G1 X158.28 Y154.89 E111.66707
G1 X157.70 Y155.98 E111.71809
G1 X156.92 Y156.92 E111.76905
G1 X155.98 Y157.70 E111.82001
G1 X154.89 Y158.28 E111.87103
G1 X153.72 Y158.63 E111.92194
G1 X152.50 Y158.76 E111.97300
G1 X151.28 Y158.63 E112.02405
G1 X150.11 Y158.28 E112.07497
G1 X149.02 Y157.70 E112.12599
G1 X148.08 Y156.92 E112.17695
G1 X147.30 Y155.98 E112.22791
G1 X146.72 Y154.89 E112.27893
G1 X146.37 Y153.72 E112.32984
G1 X146.24 Y152.50 E112.38090
G1 X146.37 Y151.28 E112.43195
G1 X146.72 Y150.11 E112.48287
G1 X147.30 Y149.02 E112.53389
G1 X148.08 Y148.08 E112.58485
G0 F6000 X149.10 Y149.10
G1 F600 X148.50 Y149.83 E112.62402
G1 X148.06 Y150.66 E112.66317
G1 X147.79 Y151.56 E112.70235
G1 X147.70 Y152.50 E112.74145
G1 X147.79 Y153.44 E112.78056
G1 X148.06 Y154.34 E112.81974
G1 X148.50 Y155.17 E112.85889
G1 X149.10 Y155.90 E112.89806
G1 X149.83 Y156.50 E112.93723
G1 X150.66 Y156.94 E112.97638
G1 X151.56 Y157.21 E113.01556
G1 X152.50 Y157.30 E113.05467
G1 X153.44 Y157.21 E113.09377
G1 X154.34 Y156.94 E113.13295
G1 X155.17 Y156.50 E113.17211
G1 X155.90 Y155.90 E113.21128
G1 X156.50 Y155.17 E113.25044
G1 X156.94 Y154.34 E113.28960
G1 X157.21 Y153.44 E113.32878
G1 X157.30 Y152.50 E113.36788
G1 X157.21 Y151.56 E113.40699
G1 X156.94 Y150.66 E113.44617
G1 X156.50 Y149.83 E113.48532
G1 X155.90 Y149.10 E113.52449
G1 X155.17 Y148.50 E113.56366
G1 X154.34 Y148.06 E113.60281
G1 X153.44 Y147.79 E113.64199
G1 X152.50 Y147.70 E113.68110
G1 X151.56 Y147.79 E113.72020
G1 X150.66 Y148.06 E113.75938
G1 X149.83 Y148.50 E113.79853
G1 X149.10 Y149.10 E113.83770
;LAYER:7
G0 F6000 X148.79 Y148.79 Z1.70
;TYPE:WALL-INNER
G1 F600 X148.14 Y149.59 E113.88048
G1 X147.66 Y150.49 E113.92322
G1 X147.36 Y151.48 E113.96596
G1 X147.26 Y152.50 E114.00866
G1 X147.36 Y153.52 E114.05136
G1 X147.66 Y154.51 E114.09410
G1 X148.14 Y155.41 E114.13684
G1 X148.79 Y156.21 E114.17962
G1 X149.59 Y156.86 E114.22239
G1 X150.49 Y157.34 E114.26513
G1 X151.48 Y157.64 E114.30787
G1 X152.50 Y157.74 E114.35057
G1 X153.52 Y157.64 E114.39327
G1 X154.51 Y157.34 E114.43601
G1 X155.41 Y156.86 E114.47875
G1 X156.21 Y156.21 E114.52153
G1 X156.86 Y155.41 E114.56430
G1 X157.34 Y154.51 E114.60704
G1 X157.64 Y153.52 E114.64979
G1 X157.74 Y152.50 E114.69248
G1 X157.64 Y151.48 E114.73518
G1 X157.34 Y150.49 E114.77793
G1 X156.86 Y149.59 E114.82067
G1 X156.21 Y148.79 E114.86344
G1 X155.41 Y148.14 E114.90621
G1 X154.51 Y147.66 E114.94895
G1 X153.52 Y147.36 E114.99170
G1 X152.50 Y147.26 E115.03440
G1 X151.48 Y147.36 E115.07709
G1 X150.49 Y147.66 E115.11984
G1 X149.59 Y148.14 E115.16258
G1 X148.79 Y148.79 E115.20535
G0 F6000 X148.48 Y148.48
G1 F600 X149.35 Y147.77 E115.25182
G1 X150.32 Y147.25 E115.29793
G1 X151.40 Y146.93 E115.34450
G1 X152.50 Y146.82 E115.39062
G1 X153.60 Y146.93 E115.43674
G1 X154.68 Y147.25 E115.48332
G1 X155.65 Y147.77 E115.52943
G1 X156.52 Y148.48 E115.57589
G1 X157.23 Y149.35 E115.62236
G1 X157.75 Y150.32 E115.66847
G1 X158.07 Y151.40 E115.71504
G1 X158.18 Y152.50 E115.76116
G1 X158.07 Y153.60 E115.80729
G1 X157.75 Y154.68 E115.85386
G1 X157.23 Y155.65 E115.89997
G1 X156.52 Y156.52 E115.94643
G1 X155.65 Y157.23 E115.99290
G1 X154.68 Y157.75 E116.03901
G1 X153.60 Y158.07 E116.08558
G1 X152.50 Y158.18 E116.13170
G1 X151.40 Y158.07 E116.17783
G1 X150.32 Y157.75 E116.22440
G1 X149.35 Y157.23 E116.27051
G1 X148.48 Y156.52 E116.31697
G1 X147.77 Y155.65 E116.36344
G1 X147.25 Y154.68 E116.40955
G1 X146.93 Y153.60 E116.45612
G1 X146.82 Y152.50 E116.50224
G1 X146.93 Y151.40 E116.54837
G1 X147.25 Y150.32 E116.59494
G1 X147.77 Y149.35 E116.64105
G1 X148.48 Y148.48 E116.68751
G0 F6000 X148.13 Y148.13
;TYPE:WALL-OUTER
G1 F600 X149.07 Y147.36 E116.73803
G1 X150.13 Y146.78 E116.78834
G1 X151.29 Y146.43 E116.83869
G1 X152.50 Y146.31 E116.88916
G1 X153.71 Y146.43 E116.93963
G1 X154.87 Y146.78 E116.98997
G1 X155.93 Y147.36 E117.04029
G1 X156.87 Y148.13 E117.09080
G1 X157.64 Y149.07 E117.14131
G1 X158.22 Y150.13 E117.19163
G1 X158.57 Y151.29 E117.24197
G1 X158.69 Y152.50 E117.29244
G1 X158.57 Y153.71 E117.34291
G1 X158.22 Y154.87 E117.39326
G1 X157.64 Y155.93 E117.44357
G1 X156.87 Y156.87 E117.49409
G1 X155.93 Y157.64 E117.54460
G1 X154.87 Y158.22 E117.59491
G1 X153.71 Y158.57 E117.64526
G1 X152.50 Y158.69 E117.69573
G1 X151.29 Y158.57 E117.74620
G1 X150.13 Y158.22 E117.79655
G1 X149.07 Y157.64 E117.84686
G1 X148.13 Y156.87 E117.89737
G1 X147.36 Y155.93 E117.94789
G1 X146.78 Y154.87 E117.99820
G1 X146.43 Y153.71 E118.04855
G1 X146.31 Y152.50 E118.09902
G1 X146.43 Y151.29 E118.14949
G1 X146.78 Y150.13 E118.19983
G1 X147.36 Y149.07 E118.25015
G1 X148.13 Y148.13 E118.30066
G0 F6000 X149.15 Y149.15
G1 F600 X148.56 Y149.87 E118.33933
G1 X148.12 Y150.69 E118.37798
G1 X147.85 Y151.58 E118.41663
G1 X147.76 Y152.50 E118.45523
G1 X147.85 Y153.42 E118.49384
G1 X148.12 Y154.31 E118.53249
G1 X148.56 Y155.13 E118.57114
G1 X149.15 Y155.85 E118.60981
G1 X149.87 Y156.44 E118.64848
G1 X150.69 Y156.88 E118.68713
G1 X151.58 Y157.15 E118.72578
G1 X152.50 Y157.24 E118.76438
G1 X153.42 Y157.15 E118.80299
G1 X154.31 Y156.88 E118.84164
G1 X155.13 Y156.44 E118.88029
G1 X155.85 Y155.85 E118.91896
G1 X156.44 Y155.13 E118.95763
G1 X156.88 Y154.31 E118.99628
G1 X157.15 Y153.42 E119.03493
G1 X157.24 Y152.50 E119.07353
G1 X157.15 Y151.58 E119.11214
G1 X156.88 Y150.69 E119.15079
G1 X156.44 Y149.87 E119.18944
G1 X155.85 Y149.15 E119.22811
G1 X155.13 Y148.56 E119.26678
G1 X154.31 Y148.12 E119.30543
G1 X153.42 Y147.85 E119.34408
G1 X152.50 Y147.76 E119.38268
G1 X151.58 Y147.85 E119.42129
G1 X150.69 Y148.12 E119.45994
G1 X149.87 Y148.56 E119.49859
G1 X149.15 Y149.15 E119.53726
;LAYER:8
G0 F6000 X148.84 Y148.84 Z1.90
;TYPE:WALL-INNER
G1 F600 X148.19 Y149.62 E119.57953
G1 X147.71 Y150.52 E119.62175
G1 X147.42 Y151.49 E119.66398
G1 X147.32 Y152.50 E119.70618
G1 X147.42 Y153.51 E119.74838
G1 X147.71 Y154.48 E119.79061
G1 X148.19 Y155.38 E119.83283
G1 X148.84 Y156.16 E119.87510
G1 X149.62 Y156.81 E119.91737
G1 X150.52 Y157.29 E119.95959
G1 X151.49 Y157.58 E120.00183
G1 X152.50 Y157.68 E120.04402
G1 X153.51 Y157.58 E120.08622
G1 X154.48 Y157.29 E120.12845
G1 X155.38 Y156.81 E120.17067
G1 X156.16 Y156.16 E120.21294
G1 X156.81 Y155.38 E120.25521
G1 X157.29 Y154.48 E120.29744
G1 X157.58 Y153.51 E120.33967
G1 X157.68 Y152.50 E120.38186
G1 X157.58 Y151.49 E120.42406
G1 X157.29 Y150.52 E120.46629
G1 X156.81 Y149.62 E120.50851
G1 X156.16 Y148.84 E120.55078
G1 X155.38 Y148.19 E120.59306
G1 X154.48 Y147.71 E120.63528
G1 X153.51 Y147.42 E120.67751
G1 X152.50 Y147.32 E120.71970
G1 X151.49 Y147.42 E120.76190
G1 X150.52 Y147.71 E120.80413
G1 X149.62 Y148.19 E120.84635
G1 X148.84 Y148.84 E120.88862
G0 F6000 X148.53 Y148.53
G1 F600 X149.38 Y147.83 E120.93429
G1 X150.35 Y147.31 E120.98014
G1 X151.41 Y146.99 E121.02606
G1 X152.50 Y146.89 E121.07160
G1 X153.59 Y146.99 E121.11714
G1 X154.65 Y147.31 E121.16307
G1 X155.62 Y147.83 E121.20891
G1 X156.47 Y148.53 E121.25458
G1 X157.17 Y149.38 E121.30024
G1 X157.69 Y150.35 E121.34609
G1 X158.01 Y151.41 E121.39201
G1 X158.11 Y152.50 E121.43755
G1 X158.01 Y153.59 E121.48309
G1 X157.69 Y154.65 E121.52902
G1 X157.17 Y155.62 E121.57487
G1 X156.47 Y156.47 E121.62053
G1 X155.62 Y157.17 E121.66619
G1 X154.65 Y157.69 E121.71204
G1 X153.59 Y158.01 E121.75797
G1 X152.50 Y158.11 E121.80351
G1 X151.41 Y158.01 E121.84904
G1 X150.35 Y157.69 E121.89497
G1 X149.38 Y157.17 E121.94082
G1 X148.53 Y156.47 E121.98648
G1 X147.83 Y155.62 E122.03214
G1 X147.31 Y154.65 E122.07799
G1 X146.99 Y153.59 E122.12392
G1 X146.89 Y152.50 E122.16946
G1 X146.99 Y151.41 E122.21500
G1 X147.31 Y150.35 E122.26092
G1 X147.83 Y149.38 E122.30677
G1 X148.53 Y148.53 E122.35243
G0 F6000 X148.18 Y148.18
;TYPE:WALL-OUTER
G1 F600 X149.10 Y147.42 E122.40223
G1 X150.16 Y146.85 E122.45228
G1 X151.31 Y146.50 E122.50189
G1 X152.50 Y146.38 E122.55178
G1 X153.69 Y146.50 E122.60167
G1 X154.84 Y146.85 E122.65128
G1 X155.90 Y147.42 E122.70133
G1 X156.82 Y148.18 E122.75113
G1 X157.58 Y149.10 E122.80093
G1 X158.15 Y150.16 E122.85098
G1 X158.50 Y151.31 E122.90059
G1 X158.62 Y152.50 E122.95048
G1 X158.50 Y153.69 E123.00036
G1 X158.15 Y154.84 E123.04997
G1 X157.58 Y155.90 E123.10002
G1 X156.82 Y156.82 E123.14982
G1 X155.90 Y157.58 E123.19962
G1 X154.84 Y158.15 E123.24967
G1 X153.69 Y158.50 E123.29928
G1 X152.50 Y158.62 E123.34917
G1 X151.31 Y158.50 E123.39906
G1 X150.16 Y158.15 E123.44867
G1 X149.10 Y157.58 E123.49872
G1 X148.18 Y156.82 E123.54852
G1 X147.42 Y155.90 E123.59832
G1 X146.85 Y154.84 E123.64837
G1 X146.50 Y153.69 E123.69798
G1 X146.38 Y152.50 E123.74787
G1 X146.50 Y151.31 E123.79775
G1 X146.85 Y150.16 E123.84736
G1 X147.42 Y149.10 E123.89741
G1 X148.18 Y148.18 E123.94721
G0 F6000 X149.19 Y149.19
G1 F600 X148.61 Y149.90 E123.98538
G1 X148.18 Y150.71 E124.02351
G1 X147.91 Y151.59 E124.06165
G1 X147.82 Y152.50 E124.09975
G1 X147.91 Y153.41 E124.13785
G1 X148.18 Y154.29 E124.17600
G1 X148.61 Y155.10 E124.21413
G1 X149.19 Y155.81 E124.25229
G1 X149.90 Y156.39 E124.29046
G1 X150.71 Y156.82 E124.32859
G1 X151.59 Y157.09 E124.36673
G1 X152.50 Y157.18 E124.40483
G1 X153.41 Y157.09 E124.44293
G1 X154.29 Y156.82 E124.48108
G1 X155.10 Y156.39 E124.51920
G1 X155.81 Y155.81 E124.55737
G1 X156.39 Y155.10 E124.59554
G1 X156.82 Y154.29 E124.63367
G1 X157.09 Y153.41 E124.67181
G1 X157.18 Y152.50 E124.70991
G1 X157.09 Y151.59 E124.74801
G1 X156.82 Y150.71 E124.78616
G1 X156.39 Y149.90 E124.82428
G1 X155.81 Y149.19 E124.86245
G1 X155.10 Y148.61 E124.90062
G1 X154.29 Y148.18 E124.93875
G1 X153.41 Y147.91 E124.97689
G1 X152.50 Y147.82 E125.01499
G1 X151.59 Y147.91 E125.05309
G1 X150.71 Y148.18 E125.09123
G1 X149.90 Y148.61 E125.12936
G1 X149.19 Y149.19 E125.16753
;LAYER:9
G0 F6000 X148.88 Y148.88 Z2.10
;TYPE:WALL-INNER
G1 F600 X148.24 Y149.66 E125.20934
G1 X147.77 Y150.54 E125.25096
G1 X147.48 Y151.50 E125.29272
G1 X147.38 Y152.50 E125.33441
G1 X147.48 Y153.50 E125.37610
G1 X147.77 Y154.46 E125.41786
G1 X148.24 Y155.34 E125.45949
G1 X148.88 Y156.12 E125.50129
G1 X149.66 Y156.76 E125.54310
G1 X150.54 Y157.23 E125.58472
G1 X151.50 Y157.52 E125.62648
G1 X152.50 Y157.62 E125.66817
G1 X153.50 Y157.52 E125.70986
G1 X154.46 Y157.23 E125.75162
G1 X155.34 Y156.76 E125.79325
G1 X156.12 Y156.12 E125.83505
G1 X156.76 Y155.34 E125.87686
G1 X157.23 Y154.46 E125.91848
G1 X157.52 Y153.50 E125.96024
G1 X157.62 Y152.50 E126.00193
G1 X157.52 Y151.50 E126.04362
G1 X157.23 Y150.54 E126.08538
G1 X156.76 Y149.66 E126.12701
G1 X156.12 Y148.88 E126.16881
G1 X155.34 Y148.24 E126.21062
G1 X154.46 Y147.77 E126.25224
G1 X153.50 Y147.48 E126.29400
G1 X152.50 Y147.38 E126.33569
G1 X151.50 Y147.48 E126.37738
G1 X150.54 Y147.77 E126.41914
G1 X149.66 Y148.24 E126.46077
G1 X148.88 Y148.88 E126.50257
G0 F6000 X148.58 Y148.58
G1 F600 X149.42 Y147.89 E126.54789
G1 X150.38 Y147.38 E126.59286
G1 X151.42 Y147.06 E126.63821
G1 X152.50 Y146.96 E126.68325
G1 X153.58 Y147.06 E126.72830
G1 X154.62 Y147.38 E126.77365
G1 X155.58 Y147.89 E126.81862
G1 X156.42 Y148.58 E126.86394
G1 X157.11 Y149.42 E126.90926
G1 X157.62 Y150.38 E126.95423
G1 X157.94 Y151.42 E126.99958
G1 X158.04 Y152.50 E127.04462
G1 X157.94 Y153.58 E127.08966
G1 X157.62 Y154.62 E127.13501
G1 X157.11 Y155.58 E127.17999
G1 X156.42 Y156.42 E127.22531
G1 X155.58 Y157.11 E127.27062
G1 X154.62 Y157.62 E127.31560
G1 X153.58 Y157.94 E127.36095
G1 X152.50 Y158.04 E127.40599
G1 X151.42 Y157.94 E127.45103
G1 X150.38 Y157.62 E127.49638
G1 X149.42 Y157.11 E127.54136
G1 X148.58 Y156.42 E127.58667
G1 X147.89 Y155.58 E127.63199
G1 X147.38 Y154.62 E127.67696
G1 X147.06 Y153.58 E127.72231
G1 X146.96 Y152.50 E127.76736
G1 X147.06 Y151.42 E127.81240
G1 X147.38 Y150.38 E127.85775
G1 X147.89 Y149.42 E127.90272
G1 X148.58 Y148.58 E127.94804
G0 F6000 X148.23 Y148.23
;TYPE:WALL-OUTER
G1 F600 X149.14 Y147.47 E127.99740
G1 X150.19 Y146.91 E128.04658
G1 X151.32 Y146.57 E128.09576
G1 X152.50 Y146.45 E128.14510
G1 X153.68 Y146.57 E128.19445
G1 X154.81 Y146.91 E128.24362
G1 X155.86 Y147.47 E128.29280
G1 X156.77 Y148.23 E128.34217
G1 X157.53 Y149.14 E128.39153
G1 X158.09 Y150.19 E128.44071
G1 X158.43 Y151.32 E128.48988
G1 X158.55 Y152.50 E128.53923
G1 X158.43 Y153.68 E128.58857
G1 X158.09 Y154.81 E128.63775
G1 X157.53 Y155.86 E128.68693
G1 X156.77 Y156.77 E128.73629
G1 X155.86 Y157.53 E128.78565
G1 X154.81 Y158.09 E128.83483
G1 X153.68 Y158.43 E128.88401
G1 X152.50 Y158.55 E128.93335
G1 X151.32 Y158.43 E128.98270
G1 X150.19 Y158.09 E129.03187
G1 X149.14 Y157.53 E129.08105
G1 X148.23 Y156.77 E129.13042
G1 X147.47 Y155.86 E129.17978
G1 X146.91 Y154.81 E129.22896
G1 X146.57 Y153.68 E129.27813
G1 X146.45 Y152.50 E129.32748
G1 X146.57 Y151.32 E129.37682
G1 X146.91 Y150.19 E129.42600
G1 X147.47 Y149.14 E129.47518
G1 X148.23 Y148.23 E129.52454
G0 F6000 X149.24 Y149.24
G1 F600 X148.66 Y149.94 E129.56224
G1 X148.24 Y150.73 E129.59981
G1 X147.97 Y151.60 E129.63744
G1 X147.88 Y152.50 E129.67504
G1 X147.97 Y153.40 E129.71263
G1 X148.24 Y154.27 E129.75026
G1 X148.66 Y155.06 E129.78783
G1 X149.24 Y155.76 E129.82553
G1 X149.94 Y156.34 E129.86323
G1 X150.73 Y156.76 E129.90080
G1 X151.60 Y157.03 E129.93843
G1 X152.50 Y157.12 E129.97603
G1 X153.40 Y157.03 E130.01362
G1 X154.27 Y156.76 E130.05125
G1 X155.06 Y156.34 E130.08882
G1 X155.76 Y155.76 E130.12652
G1 X156.34 Y155.06 E130.16422
G1 X156.76 Y154.27 E130.20180
G1 X157.03 Y153.40 E130.23942
G1 X157.12 Y152.50 E130.27702
G1 X157.03 Y151.60 E130.31462
G1 X156.76 Y150.73 E130.35224
G1 X156.34 Y149.94 E130.38982
G1 X155.76 Y149.24 E130.42752
G1 X155.06 Y148.66 E130.46522
G1 X154.27 Y148.24 E130.50279
G1 X153.40 Y147.97 E130.54042
G1 X152.50 Y147.88 E130.57801
G1 X151.60 Y147.97 E130.61561
G1 X150.73 Y148.24 E130.65324
G1 X149.94 Y148.66 E130.69081
G1 X149.24 Y149.24 E130.72851
;LAYER:10
G0 F6000 X148.93 Y148.93 Z2.30
;TYPE:WALL-INNER
G1 F600 X148.29 Y149.69 E130.76974
G1 X147.83 Y150.57 E130.81096
G1 X147.54 Y151.51 E130.85219
G1 X147.44 Y152.50 E130.89334
G1 X147.54 Y153.49 E130.93450
G1 X147.83 Y154.43 E130.97573
G1 X148.29 Y155.31 E131.01694
G1 X148.93 Y156.07 E131.05818
G1 X149.69 Y156.71 E131.09941
G1 X150.57 Y157.17 E131.14063
G1 X151.51 Y157.46 E131.18186
G1 X152.50 Y157.56 E131.22301
G1 X153.49 Y157.46 E131.26417
G1 X154.43 Y157.17 E131.30540
G1 X155.31 Y156.71 E131.34661
G1 X156.07 Y156.07 E131.38785
G1 X156.71 Y155.31 E131.42908
G1 X157.17 Y154.43 E131.47030
G1 X157.46 Y153.49 E131.51153
G1 X157.56 Y152.50 E131.55268
G1 X157.46 Y151.51 E131.59384
G1 X157.17 Y150.57 E131.63507
G1 X156.71 Y149.69 E131.67628
G1 X156.07 Y148.93 E131.71752
G1 X155.31 Y148.29 E131.75875
G1 X154.43 Y147.83 E131.79997
G1 X153.49 Y147.54 E131.84120
G1 X152.50 Y147.44 E131.88235
G1 X151.51 Y147.54 E131.92351
G1 X150.57 Y147.83 E131.96474
G1 X149.69 Y148.29 E132.00595
G1 X148.93 Y148.93 E132.04719
G0 F6000 X148.63 Y148.63
G1 F600 X149.47 Y147.95 E132.09203
G1 X150.40 Y147.45 E132.13617
G1 X151.44 Y147.13 E132.18118
G1 X152.50 Y147.03 E132.22559
G1 X153.56 Y147.13 E132.27000
G1 X154.60 Y147.45 E132.31500
G1 X155.53 Y147.95 E132.35914
G1 X156.37 Y148.63 E132.40398
G1 X157.05 Y149.47 E132.44883
G1 X157.55 Y150.40 E132.49297
G1 X157.87 Y151.44 E132.53797
G1 X157.97 Y152.50 E132.58238
G1 X157.87 Y153.56 E132.62679
G1 X157.55 Y154.60 E132.67180
G1 X157.05 Y155.53 E132.71594
G1 X156.37 Y156.37 E132.76078
G1 X155.53 Y157.05 E132.80562
G1 X154.60 Y157.55 E132.84976
G1 X153.56 Y157.87 E132.89477
G1 X152.50 Y157.97 E132.93918
G1 X151.44 Y157.87 E132.98359
G1 X150.40 Y157.55 E133.02860
G1 X149.47 Y157.05 E133.07273
G1 X148.63 Y156.37 E133.11758
G1 X147.95 Y155.53 E133.16242
G1 X147.45 Y154.60 E133.20656
G1 X147.13 Y153.56 E133.25157
G1 X147.03 Y152.50 E133.29597
G1 X147.13 Y151.44 E133.34038
G1 X147.45 Y150.40 E133.38539
G1 X147.95 Y149.47 E133.42953
G1 X148.63 Y148.63 E133.47437
G0 F6000 X148.28 Y148.28
;TYPE:WALL-OUTER
G1 F600 X149.18 Y147.53 E133.52317
G1 X150.21 Y146.98 E133.57174
G1 X151.33 Y146.64 E133.62039
G1 X152.50 Y146.53 E133.66914
G1 X153.67 Y146.64 E133.71790
G1 X154.79 Y146.98 E133.76655
G1 X155.82 Y147.53 E133.81512
G1 X156.72 Y148.28 E133.86392
G1 X157.47 Y149.18 E133.91271
G1 X158.02 Y150.21 E133.96128
G1 X158.36 Y151.33 E134.00993
G1 X158.47 Y152.50 E134.05869
G1 X158.36 Y153.67 E134.10744
G1 X158.02 Y154.79 E134.15609
G1 X157.47 Y155.82 E134.20466
G1 X156.72 Y156.72 E134.25346
G1 X155.82 Y157.47 E134.30226
G1 X154.79 Y158.02 E134.35082
G1 X153.67 Y158.36 E134.39947
G1 X152.50 Y158.47 E134.44823
G1 X151.33 Y158.36 E134.49699
G1 X150.21 Y158.02 E134.54564
G1 X149.18 Y157.47 E134.59420
G1 X148.28 Y156.72 E134.64300
G1 X147.53 Y155.82 E134.69180
G1 X146.98 Y154.79 E134.74036
G1 X146.64 Y153.67 E134.78901
G1 X146.53 Y152.50 E134.83777
G1 X146.64 Y151.33 E134.88653
G1 X146.98 Y150.21 E134.93518
G1 X147.53 Y149.18 E134.98374
G1 X148.28 Y148.28 E135.03254
G0 F6000 X149.28 Y149.28
G1 F600 X148.71 Y149.97 E135.06967
G1 X148.29 Y150.76 E135.10680
G1 X148.03 Y151.61 E135.14394
G1 X147.95 Y152.50 E135.18100
G1 X148.03 Y153.39 E135.21805
G1 X148.29 Y154.24 E135.25520
G1 X148.71 Y155.03 E135.29232
G1 X149.28 Y155.72 E135.32945
G1 X149.97 Y156.29 E135.36658
G1 X150.76 Y156.71 E135.40370
G1 X151.61 Y156.97 E135.44085
G1 X152.50 Y157.05 E135.47790
G1 X153.39 Y156.97 E135.51496
G1 X154.24 Y156.71 E135.55210
G1 X155.03 Y156.29 E135.58923
G1 X155.72 Y155.72 E135.62636
G1 X156.29 Y155.03 E135.66349
G1 X156.71 Y154.24 E135.70061
G1 X156.97 Y153.39 E135.73775
G1 X157.05 Y152.50 E135.77481
G1 X156.97 Y151.61 E135.81187
G1 X156.71 Y150.76 E135.84901
G1 X156.29 Y149.97 E135.88614
G1 X155.72 Y149.28 E135.92327
G1 X155.03 Y148.71 E135.96040
G1 X154.24 Y148.29 E135.99752
G1 X153.39 Y148.03 E136.03466
G1 X152.50 Y147.95 E136.07172
G1 X151.61 Y148.03 E136.10878
G1 X150.76 Y148.29 E136.14592
G1 X149.97 Y148.71 E136.18305
G1 X149.28 Y149.28 E136.22018
;LAYER:11
G0 F6000 X148.97 Y148.97 Z2.50
;TYPE:WALL-INNER
G1 F600 X148.35 Y149.73 E136.26091
G1 X147.89 Y150.59 E136.30162
G1 X147.60 Y151.53 E136.34233
G1 X147.51 Y152.50 E136.38298
G1 X147.60 Y153.47 E136.42363
G1 X147.89 Y154.41 E136.46433
G1 X148.35 Y155.27 E136.50505
G1 X148.97 Y156.03 E136.54578
G1 X149.73 Y156.65 E136.58652
G1 X150.59 Y157.11 E136.62723
G1 X151.53 Y157.40 E136.66794
G1 X152.50 Y157.49 E136.70858
G1 X153.47 Y157.40 E136.74923
G1 X154.41 Y157.11 E136.78994
G1 X155.27 Y156.65 E136.83065
G1 X156.03 Y156.03 E136.87139
G1 X156.65 Y155.27 E136.91212
G1 X157.11 Y154.41 E136.95284
G1 X157.40 Y153.47 E136.99354
G1 X157.49 Y152.50 E137.03419
G1 X157.40 Y151.53 E137.07484
G1 X157.11 Y150.59 E137.11555
G1 X156.65 Y149.73 E137.15626
G1 X156.03 Y148.97 E137.19699
G1 X155.27 Y148.35 E137.23773
G1 X154.41 Y147.89 E137.27844
G1 X153.47 Y147.60 E137.31915
G1 X152.50 Y147.51 E137.35980
G1 X151.53 Y147.60 E137.40045
G1 X150.59 Y147.89 E137.44115
G1 X149.73 Y148.35 E137.48187
G1 X148.97 Y148.97 E137.52260
G0 F6000 X148.68 Y148.68
G1 F600 X149.50 Y148.01 E137.56676
G1 X150.43 Y147.51 E137.61057
G1 X151.45 Y147.20 E137.65488
G1 X152.50 Y147.10 E137.69870
G1 X153.55 Y147.20 E137.74253
G1 X154.57 Y147.51 E137.78684
G1 X155.50 Y148.01 E137.83064
G1 X156.32 Y148.68 E137.87480
G1 X156.99 Y149.50 E137.91896
G1 X157.49 Y150.43 E137.96277
G1 X157.80 Y151.45 E138.00708
G1 X157.90 Y152.50 E138.05090
G1 X157.80 Y153.55 E138.09473
G1 X157.49 Y154.57 E138.13904
G1 X156.99 Y155.50 E138.18284
G1 X156.32 Y156.32 E138.22701
G1 X155.50 Y156.99 E138.27117
G1 X154.57 Y157.49 E138.31497
G1 X153.55 Y157.80 E138.35928
G1 X152.50 Y157.90 E138.40311
G1 X151.45 Y157.80 E138.44693
G1 X150.43 Y157.49 E138.49124
G1 X149.50 Y156.99 E138.53505
G1 X148.68 Y156.32 E138.57921
G1 X148.01 Y155.50 E138.62337
G1 X147.51 Y154.57 E138.66717
G1 X147.20 Y153.55 E138.71148
G1 X147.10 Y152.50 E138.75531
G1 X147.20 Y151.45 E138.79914
G1 X147.51 Y150.43 E138.84345
G1 X148.01 Y149.50 E138.88725
G1 X148.68 Y148.68 E138.93141
G0 F6000 X148.33 Y148.33
;TYPE:WALL-OUTER
G1 F600 X149.22 Y147.59 E138.97962
G1 X150.24 Y147.04 E139.02763
G1 X151.35 Y146.71 E139.07571
G1 X152.50 Y146.59 E139.12388
G1 X153.65 Y146.71 E139.17206
G1 X154.76 Y147.04 E139.22014
G1 X155.78 Y147.59 E139.26815
G1 X156.67 Y148.33 E139.31636
G1 X157.41 Y149.22 E139.36457
G1 X157.96 Y150.24 E139.41257
G1 X158.29 Y151.35 E139.46066
G1 X158.41 Y152.50 E139.50883
G1 X158.29 Y153.65 E139.55701
G1 X157.96 Y154.76 E139.60509
G1 X157.41 Y155.78 E139.65310
G1 X156.67 Y156.67 E139.70131
G1 X155.78 Y157.41 E139.74951
G1 X154.76 Y157.96 E139.79752
G1 X153.65 Y158.29 E139.84561
G1 X152.50 Y158.41 E139.89378
G1 X151.35 Y158.29 E139.94195
G1 X150.24 Y157.96 E139.99004
G1 X149.22 Y157.41 E140.03805
G1 X148.33 Y156.67 E140.08625
G1 X147.59 Y155.78 E140.13446
G1 X147.04 Y154.76 E140.18247
G1 X146.71 Y153.65 E140.23055
G1 X146.59 Y152.50 E140.27873
G1 X146.71 Y151.35 E140.32690
G1 X147.04 Y150.24 E140.37499
G1 X147.59 Y149.22 E140.42299
G1 X148.33 Y148.33 E140.47120
G0 F6000 X149.32 Y149.32
G1 F600 X148.76 Y150.00 E140.50783
G1 X148.35 Y150.78 E140.54445
G1 X148.09 Y151.62 E140.58107
G1 X148.01 Y152.50 E140.61762
G1 X148.09 Y153.38 E140.65418
G1 X148.35 Y154.22 E140.69079
G1 X148.76 Y155.00 E140.72742
G1 X149.32 Y155.68 E140.76405
G1 X150.00 Y156.24 E140.80067
G1 X150.78 Y156.65 E140.83730
G1 X151.62 Y156.91 E140.87391
G1 X152.50 Y156.99 E140.91047
G1 X153.38 Y156.91 E140.94702
G1 X154.22 Y156.65 E140.98364
G1 X155.00 Y156.24 E141.02026
G1 X155.68 Y155.68 E141.05689
G1 X156.24 Y155.00 E141.09352
G1 X156.65 Y154.22 E141.13014
G1 X156.91 Y153.38 E141.16676
G1 X156.99 Y152.50 E141.20331
G1 X156.91 Y151.62 E141.23987
G1 X156.65 Y150.78 E141.27648
G1 X156.24 Y150.00 E141.31310
G1 X155.68 Y149.32 E141.34973
G1 X155.00 Y148.76 E141.38636
G1 X154.22 Y148.35 E141.42299
G1 X153.38 Y148.09 E141.45960
G1 X152.50 Y148.01 E141.49616
G1 X151.62 Y148.09 E141.53271
G1 X150.78 Y148.35 E141.56933
G1 X150.00 Y148.76 E141.60595
G1 X149.32 Y149.32 E141.64258
;LAYER:12
G0 F6000 X149.01 Y149.01 Z2.70
;TYPE:WALL-INNER
G1 F600 X148.40 Y149.76 E141.68281
G1 X147.94 Y150.61 E141.72293
G1 X147.66 Y151.54 E141.76320
G1 X147.57 Y152.50 E141.80335
G1 X147.66 Y153.46 E141.84350
G1 X147.94 Y154.39 E141.88377
G1 X148.40 Y155.24 E141.92389
G1 X149.01 Y155.99 E141.96413
G1 X149.76 Y156.60 E142.00436
G1 X150.61 Y157.06 E142.04448
G1 X151.54 Y157.34 E142.08475
G1 X152.50 Y157.43 E142.12490
G1 X153.46 Y157.34 E142.16505
G1 X154.39 Y157.06 E142.20532
G1 X155.24 Y156.60 E142.24544
G1 X155.99 Y155.99 E142.28567
G1 X156.60 Y155.24 E142.32591
G1 X157.06 Y154.39 E142.36603
G1 X157.34 Y153.46 E142.40630
G1 X157.43 Y152.50 E142.44645
G1 X157.34 Y151.54 E142.48660
G1 X157.06 Y150.61 E142.52687
G1 X156.60 Y149.76 E142.56699
G1 X155.99 Y149.01 E142.60722
G1 X155.24 Y148.40 E142.64746
G1 X154.39 Y147.94 E142.68758
G1 X153.46 Y147.66 E142.72785
G1 X152.50 Y147.57 E142.76800
G1 X151.54 Y147.66 E142.80815
G1 X150.61 Y147.94 E142.84842
G1 X149.76 Y148.40 E142.88854
G1 X149.01 Y149.01 E142.92877
G0 F6000 X148.73 Y148.73
G1 F600 X149.54 Y148.07 E142.97226
G1 X150.46 Y147.57 E143.01573
G1 X151.46 Y147.27 E143.05925
G1 X152.50 Y147.17 E143.10258
G1 X153.54 Y147.27 E143.14591
G1 X154.54 Y147.57 E143.18943
G1 X155.46 Y148.07 E143.23290
G1 X156.27 Y148.73 E143.27638
G1 X156.93 Y149.54 E143.31987
G1 X157.43 Y150.46 E143.36334
G1 X157.73 Y151.46 E143.40686
G1 X157.83 Y152.50 E143.45019
G1 X157.73 Y153.54 E143.49352
G1 X157.43 Y154.54 E143.53704
G1 X156.93 Y155.46 E143.58051
G1 X156.27 Y156.27 E143.62399
G1 X155.46 Y156.93 E143.66748
G1 X154.54 Y157.43 E143.71095
G1 X153.54 Y157.73 E143.75447
G1 X152.50 Y157.83 E143.79780
G1 X151.46 Y157.73 E143.84113
G1 X150.46 Y157.43 E143.88465
G1 X149.54 Y156.93 E143.92812
G1 X148.73 Y156.27 E143.97160
G1 X148.07 Y155.46 E144.01509
G1 X147.57 Y154.54 E144.05856
G1 X147.27 Y153.54 E144.10208
G1 X147.17 Y152.50 E144.14541
G1 X147.27 Y151.46 E144.18874
G1 X147.57 Y150.46 E144.23226
G1 X148.07 Y149.54 E144.27573
G1 X148.73 Y148.73 E144.31921
G0 F6000 X148.38 Y148.38
;TYPE:WALL-OUTER
G1 F600 X149.26 Y147.65 E144.36671
G1 X150.27 Y147.11 E144.41452
G1 X151.36 Y146.78 E144.46177
G1 X152.50 Y146.66 E144.50940
G1 X153.64 Y146.78 E144.55704
G1 X154.73 Y147.11 E144.60429
G1 X155.74 Y147.65 E144.65210
G1 X156.62 Y148.38 E144.69959
G1 X157.35 Y149.26 E144.74709
G1 X157.89 Y150.27 E144.79490
G1 X158.22 Y151.36 E144.84215
G1 X158.34 Y152.50 E144.88979
G1 X158.22 Y153.64 E144.93742
G1 X157.89 Y154.73 E144.98467
G1 X157.35 Y155.74 E145.03248
G1 X156.62 Y156.62 E145.07998
G1 X155.74 Y157.35 E145.12747
G1 X154.73 Y157.89 E145.17528
G1 X153.64 Y158.22 E145.22253
G1 X152.50 Y158.34 E145.27017
G1 X151.36 Y158.22 E145.31780
G1 X150.27 Y157.89 E145.36505
G1 X149.26 Y157.35 E145.41286
G1 X148.38 Y156.62 E145.46036
G1 X147.65 Y155.74 E145.50786
G1 X147.11 Y154.73 E145.55566
G1 X146.78 Y153.64 E145.60291
G1 X146.66 Y152.50 E145.65055
G1 X146.78 Y151.36 E145.69818
G1 X147.11 Y150.27 E145.74543
G1 X147.65 Y149.26 E145.79324
G1 X148.38 Y148.38 E145.84074
G0 F6000 X149.37 Y149.37
G1 F600 X148.82 Y150.04 E145.87687
G1 X148.41 Y150.81 E145.91293
G1 X148.16 Y151.64 E145.94907
G1 X148.07 Y152.50 E145.98513
G1 X148.16 Y153.36 E146.02118
G1 X148.41 Y154.19 E146.05732
G1 X148.82 Y154.96 E146.09339
G1 X149.37 Y155.63 E146.12952
G1 X150.04 Y156.18 E146.16565
G1 X150.81 Y156.59 E146.20171
G1 X151.64 Y156.84 E146.23785
G1 X152.50 Y156.93 E146.27391
G1 X153.36 Y156.84 E146.30996
G1 X154.19 Y156.59 E146.34610
G1 X154.96 Y156.18 E146.38217
G1 X155.63 Y155.63 E146.41830
G1 X156.18 Y154.96 E146.45443
G1 X156.59 Y154.19 E146.49049
G1 X156.84 Y153.36 E146.52663
G1 X156.93 Y152.50 E146.56269
G1 X156.84 Y151.64 E146.59874
G1 X156.59 Y150.81 E146.63488
G1 X156.18 Y150.04 E146.67095
G1 X155.63 Y149.37 E146.70708
G1 X154.96 Y148.82 E146.74321
G1 X154.19 Y148.41 E146.77927
G1 X153.36 Y148.16 E146.81541
G1 X152.50 Y148.07 E146.85147
G1 X151.64 Y148.16 E146.88752
G1 X150.81 Y148.41 E146.92366
G1 X150.04 Y148.82 E146.95973
G1 X149.37 Y149.37 E146.99586
;LAYER:13
G0 F6000 X149.06 Y149.06 Z2.90
;TYPE:WALL-INNER
G1 F600 X148.45 Y149.79 E147.03556
G1 X148.00 Y150.64 E147.07523
G1 X147.72 Y151.55 E147.11494
G1 X147.63 Y152.50 E147.15458
G1 X147.72 Y153.45 E147.19423
G1 X148.00 Y154.36 E147.23394
G1 X148.45 Y155.21 E147.27361
G1 X149.06 Y155.94 E147.31331
G1 X149.79 Y156.55 E147.35301
G1 X150.64 Y157.00 E147.39269
G1 X151.55 Y157.28 E147.43239
G1 X152.50 Y157.37 E147.47204
G1 X153.45 Y157.28 E147.51169
G1 X154.36 Y157.00 E147.55139
G1 X155.21 Y156.55 E147.59107
G1 X155.94 Y155.94 E147.63077
G1 X156.55 Y155.21 E147.67047
G1 X157.00 Y154.36 E147.71014
G1 X157.28 Y153.45 E147.74985
G1 X157.37 Y152.50 E147.78950
G1 X157.28 Y151.55 E147.82914
G1 X157.00 Y150.64 E147.86885
G1 X156.55 Y149.79 E147.90852
G1 X155.94 Y149.06 E147.94822
G1 X155.21 Y148.45 E147.98793
G1 X154.36 Y148.00 E148.02760
G1 X153.45 Y147.72 E148.06730
G1 X152.50 Y147.63 E148.10695
G1 X151.55 Y147.72 E148.14660
G1 X150.64 Y148.00 E148.18631
G1 X149.79 Y148.45 E148.22598
G1 X149.06 Y149.06 E148.26568
G0 F6000 X148.78 Y148.78
G1 F600 X149.58 Y148.12 E148.30869
G1 X150.49 Y147.64 E148.35136
G1 X151.48 Y147.34 E148.39450
G1 X152.50 Y147.24 E148.43720
G1 X153.52 Y147.34 E148.47990
G1 X154.51 Y147.64 E148.52304
G1 X155.42 Y148.12 E148.56571
G1 X156.22 Y148.78 E148.60872
G1 X156.88 Y149.58 E148.65173
G1 X157.36 Y150.49 E148.69440
G1 X157.66 Y151.48 E148.73754
G1 X157.76 Y152.50 E148.78024
G1 X157.66 Y153.52 E148.82294
G1 X157.36 Y154.51 E148.86608
G1 X156.88 Y155.42 E148.90875
G1 X156.22 Y156.22 E148.95176
G1 X155.42 Y156.88 E148.99478
G1 X154.51 Y157.36 E149.03744
G1 X153.52 Y157.66 E149.08058
G1 X152.50 Y157.76 E149.12328
G1 X151.48 Y157.66 E149.16599
G1 X150.49 Y157.36 E149.20912
G1 X149.58 Y156.88 E149.25179
G1 X148.78 Y156.22 E149.29481
G1 X148.12 Y155.42 E149.33782
G1 X147.64 Y154.51 E149.38049
G1 X147.34 Y153.52 E149.42363
G1 X147.24 Y152.50 E149.46633
G1 X147.34 Y151.48 E149.50903
G1 X147.64 Y150.49 E149.55217
G1 X148.12 Y149.58 E149.59483
G1 X148.78 Y148.78 E149.63785
G0 F6000 X148.43 Y148.43
;TYPE:WALL-OUTER
G1 F600 X149.30 Y147.71 E149.68490
G1 X150.29 Y147.18 E149.73178
G1 X151.37 Y146.85 E149.77869
G1 X152.50 Y146.74 E149.82574
G1 X153.63 Y146.85 E149.87279
G1 X154.71 Y147.18 E149.91970
G1 X155.70 Y147.71 E149.96658
G1 X156.57 Y148.43 E150.01363
G1 X157.29 Y149.30 E150.06069
G1 X157.82 Y150.29 E150.10756
G1 X158.15 Y151.37 E150.15448
G1 X158.26 Y152.50 E150.20153
G1 X158.15 Y153.63 E150.24858
G1 X157.82 Y154.71 E150.29549
G1 X157.29 Y155.70 E150.34236
G1 X156.57 Y156.57 E150.38942
G1 X155.70 Y157.29 E150.43648
G1 X154.71 Y157.82 E150.48335
G1 X153.63 Y158.15 E150.53027
G1 X152.50 Y158.26 E150.57731
G1 X151.37 Y158.15 E150.62436
G1 X150.29 Y157.82 E150.67128
G1 X149.30 Y157.29 E150.71815
G1 X148.43 Y156.57 E150.76521
G1 X147.71 Y155.70 E150.81227
G1 X147.18 Y154.71 E150.85914
G1 X146.85 Y153.63 E150.90605
G1 X146.74 Y152.50 E150.95310
G1 X146.85 Y151.37 E151.00015
G1 X147.18 Y150.29 E151.04706
G1 X147.71 Y149.30 E151.09394
G1 X148.43 Y148.43 E151.14099
G0 F6000 X149.41 Y149.41
G1 F600 X148.87 Y150.07 E151.17659
G1 X148.47 Y150.83 E151.21217
G1 X148.22 Y151.65 E151.24779
G1 X148.13 Y152.50 E151.28334
G1 X148.22 Y153.35 E151.31889
G1 X148.47 Y154.17 E151.35451
G1 X148.87 Y154.93 E151.39009
G1 X149.41 Y155.59 E151.42569
G1 X150.07 Y156.13 E151.46129
G1 X150.83 Y156.53 E151.49687
G1 X151.65 Y156.78 E151.53248
G1 X152.50 Y156.87 E151.56804
G1 X153.35 Y156.78 E151.60359
G1 X154.17 Y156.53 E151.63920
G1 X154.93 Y156.13 E151.67479
G1 X155.59 Y155.59 E151.71038
G1 X156.13 Y154.93 E151.74598
G1 X156.53 Y154.17 E151.78156
G1 X156.78 Y153.35 E151.81718
G1 X156.87 Y152.50 E151.85273
G1 X156.78 Y151.65 E151.88828
G1 X156.53 Y150.83 E151.92390
G1 X156.13 Y150.07 E151.95948
G1 X155.59 Y149.41 E151.99508
G1 X154.93 Y148.87 E152.03067
G1 X154.17 Y148.47 E152.06625
G1 X153.35 Y148.22 E152.10187
G1 X152.50 Y148.13 E152.13742
G1 X151.65 Y148.22 E152.17298
G1 X150.83 Y148.47 E152.20859
G1 X150.07 Y148.87 E152.24417
G1 X149.41 Y149.41 E152.27977
;LAYER:14
G0 F6000 X149.10 Y149.10 Z3.10
;TYPE:WALL-INNER
G1 F600 X148.50 Y149.83 E152.31900
G1 X148.06 Y150.66 E152.35812
G1 X147.79 Y151.56 E152.39731
G1 X147.69 Y152.50 E152.43646
G1 X147.79 Y153.44 E152.47561
G1 X148.06 Y154.34 E152.51480
G1 X148.50 Y155.17 E152.55391
G1 X149.10 Y155.90 E152.59315
G1 X149.83 Y156.50 E152.63238
G1 X150.66 Y156.94 E152.67150
G1 X151.56 Y157.21 E152.71069
G1 X152.50 Y157.31 E152.74984
G1 X153.44 Y157.21 E152.78898
G1 X154.34 Y156.94 E152.82818
G1 X155.17 Y156.50 E152.86729
G1 X155.90 Y155.90 E152.90652
G1 X156.50 Y155.17 E152.94576
G1 X156.94 Y154.34 E152.98487
G1 X157.21 Y153.44 E153.02406
G1 X157.31 Y152.50 E153.06321
G1 X157.21 Y151.56 E153.10236
G1 X156.94 Y150.66 E153.14155
G1 X156.50 Y149.83 E153.18067
G1 X155.90 Y149.10 E153.21990
G1 X155.17 Y148.50 E153.25913
G1 X154.34 Y148.06 E153.29825
G1 X153.44 Y147.79 E153.33744
G1 X152.50 Y147.69 E153.37659
G1 X151.56 Y147.79 E153.41574
G1 X150.66 Y148.06 E153.45493
G1 X149.83 Y148.50 E153.49404
G1 X149.10 Y149.10 E153.53328
G0 F6000 X148.83 Y148.83
G1 F600 X149.62 Y148.18 E153.57572
G1 X150.51 Y147.70 E153.61783
G1 X151.49 Y147.41 E153.66041
G1 X152.50 Y147.31 E153.70252
G1 X153.51 Y147.41 E153.74463
G1 X154.49 Y147.70 E153.78720
G1 X155.38 Y148.18 E153.82931
G1 X156.17 Y148.83 E153.87176
G1 X156.82 Y149.62 E153.91421
G1 X157.30 Y150.51 E153.95632
G1 X157.59 Y151.49 E153.99889
G1 X157.69 Y152.50 E154.04100
G1 X157.59 Y153.51 E154.08311
G1 X157.30 Y154.49 E154.12568
G1 X156.82 Y155.38 E154.16780
G1 X156.17 Y156.17 E154.21024
G1 X155.38 Y156.82 E154.25269
G1 X154.49 Y157.30 E154.29480
G1 X153.51 Y157.59 E154.33738
G1 X152.50 Y157.69 E154.37949
G1 X151.49 Y157.59 E154.42159
G1 X150.51 Y157.30 E154.46417
G1 X149.62 Y156.82 E154.50628
G1 X148.83 Y156.17 E154.54873
G1 X148.18 Y155.38 E154.59117
G1 X147.70 Y154.49 E154.63329
G1 X147.41 Y153.51 E154.67586
G1 X147.31 Y152.50 E154.71797
G1 X147.41 Y151.49 E154.76008
G1 X147.70 Y150.51 E154.80265
G1 X148.18 Y149.62 E154.84476
G1 X148.83 Y148.83 E154.88721
G0 F6000 X148.47 Y148.47
;TYPE:WALL-OUTER
G1 F600 X149.34 Y147.76 E154.93370
G1 X150.32 Y147.24 E154.98002
G1 X151.39 Y146.92 E155.02641
G1 X152.50 Y146.81 E155.07282
G1 X153.61 Y146.92 E155.11924
G1 X154.68 Y147.24 E155.16563
G1 X155.66 Y147.76 E155.21194
G1 X156.53 Y148.47 E155.25844
G1 X157.24 Y149.34 E155.30493
G1 X157.76 Y150.32 E155.35124
G1 X158.08 Y151.39 E155.39763
G1 X158.19 Y152.50 E155.44405
G1 X158.08 Y153.61 E155.49046
G1 X157.76 Y154.68 E155.53685
G1 X157.24 Y155.66 E155.58317
G1 X156.53 Y156.53 E155.62966
G1 X155.66 Y157.24 E155.67615
G1 X154.68 Y157.76 E155.72247
G1 X153.61 Y158.08 E155.76886
G1 X152.50 Y158.19 E155.81527
G1 X151.39 Y158.08 E155.86169
G1 X150.32 Y157.76 E155.90808
G1 X149.34 Y157.24 E155.95439
G1 X148.47 Y156.53 E156.00089
G1 X147.76 Y155.66 E156.04738
G1 X147.24 Y154.68 E156.09370
G1 X146.92 Y153.61 E156.14008
G1 X146.81 Y152.50 E156.18650
G1 X146.92 Y151.39 E156.23292
G1 X147.24 Y150.32 E156.27930
G1 X147.76 Y149.34 E156.32562
G1 X148.47 Y148.47 E156.37211
G0 F6000 X149.46 Y149.46
G1 F600 X148.92 Y150.11 E156.40724
G1 X148.52 Y150.85 E156.44226
G1 X148.28 Y151.66 E156.47737
G1 X148.20 Y152.50 E156.51242
G1 X148.28 Y153.34 E156.54747
G1 X148.52 Y154.15 E156.58257
G1 X148.92 Y154.89 E156.61760
G1 X149.46 Y155.54 E156.65273
G1 X150.11 Y156.08 E156.68786
G1 X150.85 Y156.48 E156.72288
G1 X151.66 Y156.72 E156.75798
G1 X152.50 Y156.80 E156.79303
G1 X153.34 Y156.72 E156.82809
G1 X154.15 Y156.48 E156.86319
G1 X154.89 Y156.08 E156.89821
G1 X155.54 Y155.54 E156.93334
G1 X156.08 Y154.89 E156.96847
G1 X156.48 Y154.15 E157.00349
G1 X156.72 Y153.34 E157.03860
G1 X156.80 Y152.50 E157.07365
G1 X156.72 Y151.66 E157.10870
G1 X156.48 Y150.85 E157.14380
G1 X156.08 Y150.11 E157.17883
G1 X155.54 Y149.46 E157.21396
G1 X154.89 Y148.92 E157.24908
G1 X154.15 Y148.52 E157.28411
G1 X153.34 Y148.28 E157.31921
G1 X152.50 Y148.20 E157.35426
G1 X151.66 Y148.28 E157.38931
G1 X150.85 Y148.52 E157.42442
G1 X150.11 Y148.92 E157.45944
G1 X149.46 Y149.46 E157.49457
;LAYER:15
G0 F6000 X149.15 Y149.15 Z3.30
;TYPE:WALL-INNER
G1 F600 X148.56 Y149.87 E157.53324
G1 X148.12 Y150.68 E157.57187
G1 X147.85 Y151.57 E157.61058
G1 X147.76 Y152.50 E157.64922
G1 X147.85 Y153.43 E157.68786
G1 X148.12 Y154.32 E157.72657
G1 X148.56 Y155.13 E157.76520
G1 X149.15 Y155.85 E157.80387
G1 X149.87 Y156.44 E157.84254
G1 X150.68 Y156.88 E157.88117
G1 X151.57 Y157.15 E157.91988
G1 X152.50 Y157.24 E157.95852
G1 X153.43 Y157.15 E157.99717
G1 X154.32 Y156.88 E158.03587
G1 X155.13 Y156.44 E158.07451
G1 X155.85 Y155.85 E158.11318
G1 X156.44 Y155.13 E158.15184
G1 X156.88 Y154.32 E158.19048
G1 X157.15 Y153.43 E158.22918
G1 X157.24 Y152.50 E158.26783
G1 X157.15 Y151.57 E158.30647
G1 X156.88 Y150.68 E158.34518
G1 X156.44 Y149.87 E158.38381
G1 X155.85 Y149.15 E158.42248
G1 X155.13 Y148.56 E158.46115
G1 X154.32 Y148.12 E158.49978
G1 X153.43 Y147.85 E158.53849
G1 X152.50 Y147.76 E158.57713
G1 X151.57 Y147.85 E158.61577
G1 X150.68 Y148.12 E158.65448
G1 X149.87 Y148.56 E158.69311
G1 X149.15 Y149.15 E158.73178
G0 F6000 X148.88 Y148.88
G1 F600 X149.66 Y148.24 E158.77352
G1 X150.54 Y147.77 E158.81520
G1 X151.51 Y147.48 E158.85721
G1 X152.50 Y147.38 E158.89873
G1 X153.49 Y147.48 E158.94026
G1 X154.46 Y147.77 E158.98227
G1 X155.34 Y148.24 E159.02395
G1 X156.12 Y148.88 E159.06568
G1 X156.76 Y149.66 E159.10742
G1 X157.23 Y150.54 E159.14910
G1 X157.52 Y151.51 E159.19111
G1 X157.62 Y152.50 E159.23263
G1 X157.52 Y153.49 E159.27416
G1 X157.23 Y154.46 E159.31617
G1 X156.76 Y155.34 E159.35785
G1 X156.12 Y156.12 E159.39959
G1 X155.34 Y156.76 E159.44132
G1 X154.46 Y157.23 E159.48300
G1 X153.49 Y157.52 E159.52501
G1 X152.50 Y157.62 E159.56654
G1 X151.51 Y157.52 E159.60806
G1 X150.54 Y157.23 E159.65007
G1 X149.66 Y156.76 E159.69175
G1 X148.88 Y156.12 E159.73349
G1 X148.24 Y155.34 E159.77522
G1 X147.77 Y154.46 E159.81691
G1 X147.48 Y153.49 E159.85891
G1 X147.38 Y152.50 E159.90044
G1 X147.48 Y151.51 E159.94197
G1 X147.77 Y150.54 E159.98397
G1 X148.24 Y149.66 E160.02566
G1 X148.88 Y148.88 E160.06739
G0 F6000 X148.53 Y148.53
;TYPE:WALL-OUTER
G1 F600 X149.38 Y147.82 E160.11332
G1 X150.35 Y147.30 E160.15906
G1 X151.40 Y146.99 E160.20484
G1 X152.50 Y146.88 E160.25072
G1 X153.60 Y146.99 E160.29659
G1 X154.65 Y147.30 E160.34237
G1 X155.62 Y147.82 E160.38811
G1 X156.47 Y148.53 E160.43404
G1 X157.18 Y149.38 E160.47997
G1 X157.70 Y150.35 E160.52571
G1 X158.01 Y151.40 E160.57149
G1 X158.12 Y152.50 E160.61736
G1 X158.01 Y153.60 E160.66324
G1 X157.70 Y154.65 E160.70902
G1 X157.18 Y155.62 E160.75476
G1 X156.47 Y156.47 E160.80069
G1 X155.62 Y157.18 E160.84662
G1 X154.65 Y157.70 E160.89235
G1 X153.60 Y158.01 E160.93814
G1 X152.50 Y158.12 E160.98401
G1 X151.40 Y158.01 E161.02988
G1 X150.35 Y157.70 E161.07567
G1 X149.38 Y157.18 E161.12141
G1 X148.53 Y156.47 E161.16733
G1 X147.82 Y155.62 E161.21326
G1 X147.30 Y154.65 E161.25900
G1 X146.99 Y153.60 E161.30478
G1 X146.88 Y152.50 E161.35066
G1 X146.99 Y151.40 E161.39653
G1 X147.30 Y150.35 E161.44232
G1 X147.82 Y149.38 E161.48805
G1 X148.53 Y148.53 E161.53398
G0 F6000 X149.50 Y149.50
G1 F600 X148.97 Y150.14 E161.56857
G1 X148.58 Y150.88 E161.60313
G1 X148.34 Y151.67 E161.63771
G1 X148.26 Y152.50 E161.67226
G1 X148.34 Y153.33 E161.70680
G1 X148.58 Y154.12 E161.74138
G1 X148.97 Y154.86 E161.77594
G1 X149.50 Y155.50 E161.81053
G1 X150.14 Y156.03 E161.84512
G1 X150.88 Y156.42 E161.87968
G1 X151.67 Y156.66 E161.91426
G1 X152.50 Y156.74 E161.94880
G1 X153.33 Y156.66 E161.98335
G1 X154.12 Y156.42 E162.01793
G1 X154.86 Y156.03 E162.05249
G1 X155.50 Y155.50 E162.08708
G1 X156.03 Y154.86 E162.12167
G1 X156.42 Y154.12 E162.15623
G1 X156.66 Y153.33 E162.19081
G1 X156.74 Y152.50 E162.22535
G1 X156.66 Y151.67 E162.25990
G1 X156.42 Y150.88 E162.29448
G1 X156.03 Y150.14 E162.32904
G1 X155.50 Y149.50 E162.36363
G1 X154.86 Y148.97 E162.39822
G1 X154.12 Y148.58 E162.43278
G1 X153.33 Y148.34 E162.46735
G1 X152.50 Y148.26 E162.50190
G1 X151.67 Y148.34 E162.53645
G1 X150.88 Y148.58 E162.57103
G1 X150.14 Y148.97 E162.60558
G1 X149.50 Y149.50 E162.64017
;LAYER:16
G0 F6000 X149.19 Y149.19 Z3.50
;TYPE:WALL-INNER
G1 F600 X148.61 Y149.90 E162.67834
G1 X148.18 Y150.71 E162.71649
G1 X147.91 Y151.59 E162.75467
G1 X147.82 Y152.50 E162.79278
G1 X147.91 Y153.41 E162.83088
G1 X148.18 Y154.29 E162.86906
G1 X148.61 Y155.10 E162.90721
G1 X149.19 Y155.81 E162.94538
G1 X149.90 Y156.39 E162.98355
G1 X150.71 Y156.82 E163.02170
G1 X151.59 Y157.09 E163.05988
G1 X152.50 Y157.18 E163.09798
G1 X153.41 Y157.09 E163.13609
G1 X154.29 Y156.82 E163.17427
G1 X155.10 Y156.39 E163.21242
G1 X155.81 Y155.81 E163.25059
G1 X156.39 Y155.10 E163.28876
G1 X156.82 Y154.29 E163.32691
G1 X157.09 Y153.41 E163.36509
G1 X157.18 Y152.50 E163.40319
G1 X157.09 Y151.59 E163.44130
G1 X156.82 Y150.71 E163.47948
G1 X156.39 Y149.90 E163.51763
G1 X155.81 Y149.19 E163.55579
G1 X155.10 Y148.61 E163.59396
G1 X154.29 Y148.18 E163.63211
G1 X153.41 Y147.91 E163.67029
G1 X152.50 Y147.82 E163.70840
G1 X151.59 Y147.91 E163.74650
G1 X150.71 Y148.18 E163.78468
G1 X149.90 Y148.61 E163.82283
G1 X149.19 Y149.19 E163.86100
G0 F6000 X148.93 Y148.93
G1 F600 X149.70 Y148.30 E163.90230
G1 X150.57 Y147.83 E163.94328
G1 X151.52 Y147.54 E163.98468
G1 X152.50 Y147.45 E164.02566
G1 X153.48 Y147.54 E164.06665
G1 X154.43 Y147.83 E164.10805
G1 X155.30 Y148.30 E164.14903
G1 X156.07 Y148.93 E164.19032
G1 X156.70 Y149.70 E164.23162
G1 X157.17 Y150.57 E164.27260
G1 X157.46 Y151.52 E164.31400
G1 X157.55 Y152.50 E164.35499
G1 X157.46 Y153.48 E164.39597
G1 X157.17 Y154.43 E164.43737
G1 X156.70 Y155.30 E164.47835
G1 X156.07 Y156.07 E164.51965
G1 X155.30 Y156.70 E164.56094
G1 X154.43 Y157.17 E164.60192
G1 X153.48 Y157.46 E164.64332
G1 X152.50 Y157.55 E164.68431
G1 X151.52 Y157.46 E164.72529
G1 X150.57 Y157.17 E164.76669
G1 X149.70 Y156.70 E164.80767
G1 X148.93 Y156.07 E164.84897
G1 X148.30 Y155.30 E164.89027
G1 X147.83 Y154.43 E164.93124
G1 X147.54 Y153.48 E164.97265
G1 X147.45 Y152.50 E165.01363
G1 X147.54 Y151.52 E165.05461
G1 X147.83 Y150.57 E165.09602
G1 X148.30 Y149.70 E165.13699
G1 X148.93 Y148.93 E165.17829
G0 F6000 X148.57 Y148.57
;TYPE:WALL-OUTER
G1 F600 X149.42 Y147.88 E165.22364
G1 X150.38 Y147.37 E165.26882
G1 X151.41 Y147.05 E165.31399
G1 X152.50 Y146.95 E165.35933
G1 X153.59 Y147.05 E165.40466
G1 X154.62 Y147.37 E165.44984
G1 X155.58 Y147.88 E165.49502
G1 X156.43 Y148.57 E165.54036
G1 X157.12 Y149.42 E165.58570
G1 X157.63 Y150.38 E165.63088
G1 X157.95 Y151.41 E165.67606
G1 X158.05 Y152.50 E165.72139
G1 X157.95 Y153.59 E165.76673
G1 X157.63 Y154.62 E165.81190
G1 X157.12 Y155.58 E165.85708
G1 X156.43 Y156.43 E165.90243
G1 X155.58 Y157.12 E165.94777
G1 X154.62 Y157.63 E165.99295
G1 X153.59 Y157.95 E166.03813
G1 X152.50 Y158.05 E166.08346
G1 X151.41 Y157.95 E166.12879
G1 X150.38 Y157.63 E166.17397
G1 X149.42 Y157.12 E166.21915
G1 X148.57 Y156.43 E166.26450
G1 X147.88 Y155.58 E166.30984
G1 X147.37 Y154.62 E166.35502
G1 X147.05 Y153.59 E166.40020
G1 X146.95 Y152.50 E166.44553
G1 X147.05 Y151.41 E166.49086
G1 X147.37 Y150.38 E166.53604
G1 X147.88 Y149.42 E166.58122
G1 X148.57 Y148.57 E166.62656
G0 F6000 X149.54 Y149.54
G1 F600 X149.03 Y150.18 E166.66065
G1 X148.64 Y150.90 E166.69469
G1 X148.40 Y151.69 E166.72878
G1 X148.32 Y152.50 E166.76279
G1 X148.40 Y153.31 E166.79680
G1 X148.64 Y154.10 E166.83089
G1 X149.03 Y154.82 E166.86493
G1 X149.54 Y155.46 E166.89902
G1 X150.18 Y155.97 E166.93311
G1 X150.90 Y156.36 E166.96715
G1 X151.69 Y156.60 E167.00124
G1 X152.50 Y156.68 E167.03525
G1 X153.31 Y156.60 E167.06926
G1 X154.10 Y156.36 E167.10335
G1 X154.82 Y155.97 E167.13739
G1 X155.46 Y155.46 E167.17148
G1 X155.97 Y154.82 E167.20557
G1 X156.36 Y154.10 E167.23961
G1 X156.60 Y153.31 E167.27370
G1 X156.68 Y152.50 E167.30771
G1 X156.60 Y151.69 E167.34172
G1 X156.36 Y150.90 E167.37581
G1 X155.97 Y150.18 E167.40985
G1 X155.46 Y149.54 E167.44394
G1 X154.82 Y149.03 E167.47803
G1 X154.10 Y148.64 E167.51207
G1 X153.31 Y148.40 E167.54616
G1 X152.50 Y148.32 E167.58017
G1 X151.69 Y148.40 E167.61418
G1 X150.90 Y148.64 E167.64827
G1 X150.18 Y149.03 E167.68231
G1 X149.54 Y149.54 E167.71640
;LAYER:17
G0 F6000 X149.23 Y149.23 Z3.70
;TYPE:WALL-INNER
G1 F600 X148.66 Y149.93 E167.75406
G1 X148.23 Y150.73 E167.79170
G1 X147.97 Y151.60 E167.82937
G1 X147.88 Y152.50 E167.86697
G1 X147.97 Y153.40 E167.90457
G1 X148.23 Y154.27 E167.94224
G1 X148.66 Y155.07 E167.97988
G1 X149.23 Y155.77 E168.01755
G1 X149.93 Y156.34 E168.05521
G1 X150.73 Y156.77 E168.09285
G1 X151.60 Y157.03 E168.13052
G1 X152.50 Y157.12 E168.16812
G1 X153.40 Y157.03 E168.20572
G1 X154.27 Y156.77 E168.24339
G1 X155.07 Y156.34 E168.28103
G1 X155.77 Y155.77 E168.31870
G1 X156.34 Y155.07 E168.35636
G1 X156.77 Y154.27 E168.39400
G1 X157.03 Y153.40 E168.43167
G1 X157.12 Y152.50 E168.46927
G1 X157.03 Y151.60 E168.50687
G1 X156.77 Y150.73 E168.54454
G1 X156.34 Y149.93 E168.58218
G1 X155.77 Y149.23 E168.61985
G1 X155.07 Y148.66 E168.65751
G1 X154.27 Y148.23 E168.69515
G1 X153.40 Y147.97 E168.73282
G1 X152.50 Y147.88 E168.77042
G1 X151.60 Y147.97 E168.80802
G1 X150.73 Y148.23 E168.84569
G1 X149.93 Y148.66 E168.88334
G1 X149.23 Y149.23 E168.92100
G0 F6000 X148.98 Y148.98
G1 F600 X149.73 Y148.36 E168.96149
G1 X150.59 Y147.90 E169.00221
G1 X151.53 Y147.61 E169.04296
G1 X152.50 Y147.52 E169.08336
G1 X153.47 Y147.61 E169.12376
G1 X154.41 Y147.90 E169.16451
G1 X155.27 Y148.36 E169.20523
G1 X156.02 Y148.98 E169.24572
G1 X156.64 Y149.73 E169.28622
G1 X157.10 Y150.59 E169.32693
G1 X157.39 Y151.53 E169.36769
G1 X157.48 Y152.50 E169.40809
G1 X157.39 Y153.47 E169.44848
G1 X157.10 Y154.41 E169.48924
G1 X156.64 Y155.27 E169.52995
G1 X156.02 Y156.02 E169.57045
G1 X155.27 Y156.64 E169.61094
G1 X154.41 Y157.10 E169.65166
G1 X153.47 Y157.39 E169.69242
G1 X152.50 Y157.48 E169.73281
G1 X151.53 Y157.39 E169.77321
G1 X150.59 Y157.10 E169.81397
G1 X149.73 Y156.64 E169.85468
G1 X148.98 Y156.02 E169.89517
G1 X148.36 Y155.27 E169.93567
G1 X147.90 Y154.41 E169.97638
G1 X147.61 Y153.47 E170.01714
G1 X147.52 Y152.50 E170.05754
G1 X147.61 Y151.53 E170.09793
G1 X147.90 Y150.59 E170.13869
G1 X148.36 Y149.73 E170.17941
G1 X148.98 Y148.98 E170.21990
G0 F6000 X148.62 Y148.62
;TYPE:WALL-OUTER
G1 F600 X149.45 Y147.94 E170.26453
G1 X150.41 Y147.43 E170.30945
G1 X151.43 Y147.12 E170.35393
G1 X152.50 Y147.02 E170.39863
G1 X153.57 Y147.12 E170.44334
G1 X154.59 Y147.43 E170.48782
G1 X155.55 Y147.94 E170.53274
G1 X156.38 Y148.62 E170.57737
G1 X157.06 Y149.45 E170.62200
G1 X157.57 Y150.41 E170.66691
G1 X157.88 Y151.43 E170.71140
G1 X157.98 Y152.50 E170.75610
G1 X157.88 Y153.57 E170.80080
G1 X157.57 Y154.59 E170.84528
G1 X157.06 Y155.55 E170.89020
G1 X156.38 Y156.38 E170.93483
G1 X155.55 Y157.06 E170.97946
G1 X154.59 Y157.57 E171.02438
G1 X153.57 Y157.88 E171.06886
G1 X152.50 Y157.98 E171.11356
G1 X151.43 Y157.88 E171.15827
G1 X150.41 Y157.57 E171.20275
G1 X149.45 Y157.06 E171.24767
G1 X148.62 Y156.38 E171.29230
G1 X147.94 Y155.55 E171.33693
G1 X147.43 Y154.59 E171.38185
G1 X147.12 Y153.57 E171.42633
G1 X147.02 Y152.50 E171.47103
G1 X147.12 Y151.43 E171.51573
G1 X147.43 Y150.41 E171.56021
G1 X147.94 Y149.45 E171.60513
G1 X148.62 Y148.62 E171.64976
G0 F6000 X149.59 Y149.59
G1 F600 X149.08 Y150.21 E171.68332
G1 X148.70 Y150.93 E171.71687
G1 X148.46 Y151.70 E171.75045
G1 X148.38 Y152.50 E171.78396
G1 X148.46 Y153.30 E171.81746
G1 X148.70 Y154.07 E171.85104
G1 X149.08 Y154.79 E171.88459
G1 X149.59 Y155.41 E171.91815
G1 X150.21 Y155.92 E171.95171
G1 X150.93 Y156.30 E171.98526
G1 X151.70 Y156.54 E172.01884
G1 X152.50 Y156.62 E172.05235
G1 X153.30 Y156.54 E172.08585
G1 X154.07 Y156.30 E172.11943
G1 X154.79 Y155.92 E172.15298
G1 X155.41 Y155.41 E172.18654
G1 X155.92 Y154.79 E172.22010
G1 X156.30 Y154.07 E172.25365
G1 X156.54 Y153.30 E172.28723
G1 X156.62 Y152.50 E172.32073
G1 X156.54 Y151.70 E172.35424
G1 X156.30 Y150.93 E172.38782
G1 X155.92 Y150.21 E172.42137
G1 X155.41 Y149.59 E172.45493
G1 X154.79 Y149.08 E172.48849
G1 X154.07 Y148.70 E172.52204
G1 X153.30 Y148.46 E172.55562
G1 X152.50 Y148.38 E172.58912
G1 X151.70 Y148.46 E172.62263
G1 X150.93 Y148.70 E172.65621
G1 X150.21 Y149.08 E172.68976
G1 X149.59 Y149.59 E172.72332
;LAYER:18
G0 F6000 X149.28 Y149.28 Z3.90
;TYPE:WALL-INNER
G1 F600 X148.71 Y149.97 E172.76051
G1 X148.29 Y150.76 E172.79756
G1 X148.03 Y151.61 E172.83476
G1 X147.94 Y152.50 E172.87186
G1 X148.03 Y153.39 E172.90895
G1 X148.29 Y154.24 E172.94615
G1 X148.71 Y155.03 E172.98320
G1 X149.28 Y155.72 E173.02039
G1 X149.97 Y156.29 E173.05759
G1 X150.76 Y156.71 E173.09464
G1 X151.61 Y156.97 E173.13183
G1 X152.50 Y157.06 E173.16893
G1 X153.39 Y156.97 E173.20603
G1 X154.24 Y156.71 E173.24323
G1 X155.03 Y156.29 E173.28028
G1 X155.72 Y155.72 E173.31747
G1 X156.29 Y155.03 E173.35466
G1 X156.71 Y154.24 E173.39172
G1 X156.97 Y153.39 E173.42891
G1 X157.06 Y152.50 E173.46601
G1 X156.97 Y151.61 E173.50311
G1 X156.71 Y150.76 E173.54030
G1 X156.29 Y149.97 E173.57735
G1 X155.72 Y149.28 E173.61455
G1 X155.03 Y148.71 E173.65174
G1 X154.24 Y148.29 E173.68879
G1 X153.39 Y148.03 E173.72599
G1 X152.50 Y147.94 E173.76309
G1 X151.61 Y148.03 E173.80018
G1 X150.76 Y148.29 E173.83738
G1 X149.97 Y148.71 E173.87443
G1 X149.28 Y149.28 E173.91162
G0 F6000 X149.03 Y149.03
G1 F600 X149.77 Y148.42 E173.95162
G1 X150.62 Y147.96 E173.99161
G1 X151.54 Y147.68 E174.03179
G1 X152.50 Y147.59 E174.07169
G1 X153.46 Y147.68 E174.11159
G1 X154.38 Y147.96 E174.15177
G1 X155.23 Y148.42 E174.19176
G1 X155.97 Y149.03 E174.23175
G1 X156.58 Y149.77 E174.27175
G1 X157.04 Y150.62 E174.31174
G1 X157.32 Y151.54 E174.35192
G1 X157.41 Y152.50 E174.39182
G1 X157.32 Y153.46 E174.43172
G1 X157.04 Y154.38 E174.47190
G1 X156.58 Y155.23 E174.51189
G1 X155.97 Y155.97 E174.55188
G1 X155.23 Y156.58 E174.59188
G1 X154.38 Y157.04 E174.63187
G1 X153.46 Y157.32 E174.67205
G1 X152.50 Y157.41 E174.71195
G1 X151.54 Y157.32 E174.75185
G1 X150.62 Y157.04 E174.79203
G1 X149.77 Y156.58 E174.83202
G1 X149.03 Y155.97 E174.87201
G1 X148.42 Y155.23 E174.91201
G1 X147.96 Y154.38 E174.95200
G1 X147.68 Y153.46 E174.99218
G1 X147.59 Y152.50 E175.03208
G1 X147.68 Y151.54 E175.07198
G1 X147.96 Y150.62 E175.11216
G1 X148.42 Y149.77 E175.15215
G1 X149.03 Y149.03 E175.19214
G0 F6000 X148.67 Y148.67
;TYPE:WALL-OUTER
G1 F600 X149.50 Y148.00 E175.23633
G1 X150.43 Y147.50 E175.28038
G1 X151.44 Y147.19 E175.32438
G1 X152.50 Y147.09 E175.36859
G1 X153.56 Y147.19 E175.41279
G1 X154.57 Y147.50 E175.45679
G1 X155.50 Y148.00 E175.50084
G1 X156.33 Y148.67 E175.54503
G1 X157.00 Y149.50 E175.58922
G1 X157.50 Y150.43 E175.63326
G1 X157.81 Y151.44 E175.67727
G1 X157.91 Y152.50 E175.72147
G1 X157.81 Y153.56 E175.76567
G1 X157.50 Y154.57 E175.80968
G1 X157.00 Y155.50 E175.85373
G1 X156.33 Y156.33 E175.89792
G1 X155.50 Y157.00 E175.94210
G1 X154.57 Y157.50 E175.98615
G1 X153.56 Y157.81 E176.03016
G1 X152.50 Y157.91 E176.07436
G1 X151.44 Y157.81 E176.11856
G1 X150.43 Y157.50 E176.16257
G1 X149.50 Y157.00 E176.20661
G1 X148.67 Y156.33 E176.25080
G1 X148.00 Y155.50 E176.29499
G1 X147.50 Y154.57 E176.33904
G1 X147.19 Y153.56 E176.38304
G1 X147.09 Y152.50 E176.42725
G1 X147.19 Y151.44 E176.47145
G1 X147.50 Y150.43 E176.51546
G1 X148.00 Y149.50 E176.55950
G1 X148.67 Y148.67 E176.60369
G0 F6000 X149.63 Y149.63
G1 F600 X149.13 Y150.25 E176.63678
G1 X148.75 Y150.95 E176.66978
G1 X148.52 Y151.71 E176.70284
G1 X148.45 Y152.50 E176.73584
G1 X148.52 Y153.29 E176.76885
G1 X148.75 Y154.05 E176.80191
G1 X149.13 Y154.75 E176.83491
G1 X149.63 Y155.37 E176.86800
G1 X150.25 Y155.87 E176.90109
G1 X150.95 Y156.25 E176.93409
G1 X151.71 Y156.48 E176.96715
G1 X152.50 Y156.55 E177.00015
G1 X153.29 Y156.48 E177.03316
G1 X154.05 Y156.25 E177.06622
G1 X154.75 Y155.87 E177.09922
G1 X155.37 Y155.37 E177.13231
G1 X155.87 Y154.75 E177.16540
G1 X156.25 Y154.05 E177.19839
G1 X156.48 Y153.29 E177.23146
G1 X156.55 Y152.50 E177.26446
G1 X156.48 Y151.71 E177.29747
G1 X156.25 Y150.95 E177.33053
G1 X155.87 Y150.25 E177.36353
G1 X155.37 Y149.63 E177.39662
G1 X154.75 Y149.13 E177.42971
G1 X154.05 Y148.75 E177.46270
G1 X153.29 Y148.52 E177.49577
G1 X152.50 Y148.45 E177.52877
G1 X151.71 Y148.52 E177.56178
G1 X150.95 Y148.75 E177.59484
G1 X150.25 Y149.13 E177.62784
G1 X149.63 Y149.63 E177.66093
;LAYER:19
G0 F6000 X149.32 Y149.32 Z4.10
;TYPE:WALL-INNER
G1 F600 X148.76 Y150.00 E177.69759
G1 X148.35 Y150.78 E177.73417
G1 X148.09 Y151.62 E177.77084
G1 X148.01 Y152.50 E177.80744
G1 X148.09 Y153.38 E177.84403
G1 X148.35 Y154.22 E177.88070
G1 X148.76 Y155.00 E177.91729
G1 X149.32 Y155.68 E177.95395
G1 X150.00 Y156.24 E177.99061
G1 X150.78 Y156.65 E178.02720
G1 X151.62 Y156.91 E178.06386
G1 X152.50 Y156.99 E178.10046
G1 X153.38 Y156.91 E178.13705
G1 X154.22 Y156.65 E178.17372
G1 X155.00 Y156.24 E178.21031
G1 X155.68 Y155.68 E178.24697
G1 X156.24 Y155.00 E178.28363
G1 X156.65 Y154.22 E178.32022
G1 X156.91 Y153.38 E178.35689
G1 X156.99 Y152.50 E178.39348
G1 X156.91 Y151.62 E178.43008
G1 X156.65 Y150.78 E178.46674
G1 X156.24 Y150.00 E178.50333
G1 X155.68 Y149.32 E178.53999
G1 X155.00 Y148.76 E178.57665
G1 X154.22 Y148.35 E178.61324
G1 X153.38 Y148.09 E178.64991
G1 X152.50 Y148.01 E178.68650
G1 X151.62 Y148.09 E178.72310
G1 X150.78 Y148.35 E178.75977
G1 X150.00 Y148.76 E178.79635
G1 X149.32 Y149.32 E178.83301
G0 F6000 X149.08 Y149.08
G1 F600 X149.81 Y148.47 E178.87260
G1 X150.65 Y148.03 E178.91186
G1 X151.56 Y147.75 E178.95148
G1 X152.50 Y147.66 E178.99079
G1 X153.44 Y147.75 E179.03011
G1 X154.35 Y148.03 E179.06972
G1 X155.19 Y148.47 E179.10899
G1 X155.92 Y149.08 E179.14857
G1 X156.53 Y149.81 E179.18816
G1 X156.97 Y150.65 E179.22742
G1 X157.25 Y151.56 E179.26704
G1 X157.34 Y152.50 E179.30635
G1 X157.25 Y153.44 E179.34567
G1 X156.97 Y154.35 E179.38528
G1 X156.53 Y155.19 E179.42455
G1 X155.92 Y155.92 E179.46413
G1 X155.19 Y156.53 E179.50372
G1 X154.35 Y156.97 E179.54298
G1 X153.44 Y157.25 E179.58260
G1 X152.50 Y157.34 E179.62191
G1 X151.56 Y157.25 E179.66123
G1 X150.65 Y156.97 E179.70084
G1 X149.81 Y156.53 E179.74011
G1 X149.08 Y155.92 E179.77969
G1 X148.47 Y155.19 E179.81928
G1 X148.03 Y154.35 E179.85854
G1 X147.75 Y153.44 E179.89816
G1 X147.66 Y152.50 E179.93747
G1 X147.75 Y151.56 E179.97679
G1 X148.03 Y150.65 E180.01640
G1 X148.47 Y149.81 E180.05567
G1 X149.08 Y149.08 E180.09525
G0 F6000 X148.72 Y148.72
;TYPE:WALL-OUTER
G1 F600 X149.53 Y148.06 E180.13888
G1 X150.46 Y147.56 E180.18235
G1 X151.46 Y147.26 E180.22579
G1 X152.50 Y147.16 E180.26941
G1 X153.54 Y147.26 E180.31303
G1 X154.54 Y147.56 E180.35647
G1 X155.47 Y148.06 E180.39994
G1 X156.28 Y148.72 E180.44357
G1 X156.94 Y149.53 E180.48720
G1 X157.44 Y150.46 E180.53067
G1 X157.74 Y151.46 E180.57411
G1 X157.84 Y152.50 E180.61773
G1 X157.74 Y153.54 E180.66135
G1 X157.44 Y154.54 E180.70479
G1 X156.94 Y155.47 E180.74826
G1 X156.28 Y156.28 E180.79189
G1 X155.47 Y156.94 E180.83552
G1 X154.54 Y157.44 E180.87899
G1 X153.54 Y157.74 E180.92243
G1 X152.50 Y157.84 E180.96605
G1 X151.46 Y157.74 E181.00967
G1 X150.46 Y157.44 E181.05311
G1 X149.53 Y156.94 E181.09658
G1 X148.72 Y156.28 E181.14021
G1 X148.06 Y155.47 E181.18384
G1 X147.56 Y154.54 E181.22730
G1 X147.26 Y153.54 E181.27075
G1 X147.16 Y152.50 E181.31436
G1 X147.26 Y151.46 E181.35798
G1 X147.56 Y150.46 E181.40143
G1 X148.06 Y149.53 E181.44489
G1 X148.72 Y148.72 E181.48852
G0 F6000 X149.68 Y149.68
G1 F600 X149.18 Y150.28 E181.52108
G1 X148.81 Y150.97 E181.55361
G1 X148.59 Y151.72 E181.58615
G1 X148.51 Y152.50 E181.61865
G1 X148.59 Y153.28 E181.65115
G1 X148.81 Y154.03 E181.68369
G1 X149.18 Y154.72 E181.71622
G1 X149.68 Y155.32 E181.74878
G1 X150.28 Y155.82 E181.78134
G1 X150.97 Y156.19 E181.81387
G1 X151.72 Y156.41 E181.84641
G1 X152.50 Y156.49 E181.87890
G1 X153.28 Y156.41 E181.91140
G1 X154.03 Y156.19 E181.94394
G1 X154.72 Y155.82 E181.97647
G1 X155.32 Y155.32 E182.00903
G1 X155.82 Y154.72 E182.04159
G1 X156.19 Y154.03 E182.07412
G1 X156.41 Y153.28 E182.10666
G1 X156.49 Y152.50 E182.13916
G1 X156.41 Y151.72 E182.17166
G1 X156.19 Y150.97 E182.20420
G1 X155.82 Y150.28 E182.23673
G1 X155.32 Y149.68 E182.26929
G1 X154.72 Y149.18 E182.30184
G1 X154.03 Y148.81 E182.33437
G1 X153.28 Y148.59 E182.36691
G1 X152.50 Y148.51 E182.39941
G1 X151.72 Y148.59 E182.43191
G1 X150.97 Y148.81 E182.46445
G1 X150.28 Y149.18 E182.49698
G1 X149.68 Y149.68 E182.52954
;LAYER:20
G0 F6000 X149.37 Y149.37 Z4.30
;TYPE:WALL-INNER
G1 F600 X148.82 Y150.04 E182.56564
G1 X148.41 Y150.81 E182.60180
G1 X148.15 Y151.64 E182.63790
G1 X148.07 Y152.50 E182.67400
G1 X148.15 Y153.36 E182.71009
G1 X148.41 Y154.19 E182.74620
G1 X148.82 Y154.96 E182.78236
G1 X149.37 Y155.63 E182.81845
G1 X150.04 Y156.18 E182.85455
G1 X150.81 Y156.59 E182.89071
G1 X151.64 Y156.85 E182.92681
G1 X152.50 Y156.93 E182.96291
G1 X153.36 Y156.85 E182.99901
G1 X154.19 Y156.59 E183.03511
G1 X154.96 Y156.18 E183.07127
G1 X155.63 Y155.63 E183.10737
G1 X156.18 Y154.96 E183.14346
G1 X156.59 Y154.19 E183.17962
G1 X156.85 Y153.36 E183.21572
G1 X156.93 Y152.50 E183.25182
G1 X156.85 Y151.64 E183.28792
G1 X156.59 Y150.81 E183.32402
G1 X156.18 Y150.04 E183.36018
G1 X155.63 Y149.37 E183.39628
G1 X154.96 Y148.82 E183.43238
G1 X154.19 Y148.41 E183.46853
G1 X153.36 Y148.15 E183.50464
G1 X152.50 Y148.07 E183.54074
G1 X151.64 Y148.15 E183.57683
G1 X150.81 Y148.41 E183.61294
G1 X150.04 Y148.82 E183.64909
G1 X149.37 Y149.37 E183.68519
G0 F6000 X149.13 Y149.13
G1 F600 X149.85 Y148.53 E183.72418
G1 X150.67 Y148.09 E183.76285
G1 X151.57 Y147.82 E183.80200
G1 X152.50 Y147.73 E183.84068
G1 X153.43 Y147.82 E183.87937
G1 X154.33 Y148.09 E183.91851
G1 X155.15 Y148.53 E183.95718
G1 X155.87 Y149.13 E183.99618
G1 X156.47 Y149.85 E184.03517
