;-- START GCODE --
;Sliced for Type A Machines Series 1
;Sliced at: Mon 01-08-2016 22:45:25
;Basic settings: Layer height: 0.2 Walls: 1.4 Fill: 50
;Print Speed: 40 Support: 0
;Retraction Speed: 40 Retraction Distance: 1.2
;Print time: #P_TIME#
;Filament used: #F_AMNT#m #F_WGHT#g
;Filament cost: #F_COST#
M106 S255	 ;start with the fan on
G21        ;metric values
G90        ;absolute positioning
M106 S255    ;start with the fan on
G28     ;move to endstops
G29		;allows for auto-levelling
G1 X150 Y5  Z15.0 F12000 ;center and move the platform down 15mm
M109 S220 ;Heat To temp
G92 E0                  ;zero the extruded length
G1 F200 E30              ;extrude 30mm of feed stock
G92 E0                  ;zero the extruded length again
G1 X175 Y25  Z0 F12000 ;remove bugger
G1 X220 F12000 ;remove bugger
G1 X150 Y150  Z15 F12000 ;recenter and begin
G1 F12000

;Layer count: 7
;LAYER:0
M106 S255
G0 F12000 X14.74 Y28.27 Z0.30
;TYPE:SKIRT
G1 F2400 X28.66 Y24.77 E0.83444
G1 X31.12 Y24.15 E0.98195
G1 X72.13 Y13.84 E3.43951
G1 X72.13 Y50.54 E5.57253
G1 X65.77 Y50.54 E5.94213
G1 X65.77 Y54.37 E6.16479
G1 X14.74 Y54.37 E9.13076
G1 X14.74 Y28.27 E10.64729
G0 F12000 X15.21 Y28.64
G1 F2400 X28.77 Y25.23 E11.46028
G1 X31.24 Y24.61 E11.60815
G1 X71.66 Y14.43 E14.03096
G1 X71.66 Y50.07 E16.10220
G1 X65.30 Y50.07 E16.47179
G1 X65.30 Y53.90 E16.69446
G1 X15.21 Y53.90 E19.60626
G1 X15.21 Y28.64 E21.07454
G0 F12000 X15.67 Y29.00
G1 F2400 X28.88 Y25.68 E21.86644
G1 X31.35 Y25.06 E22.01424
G1 X71.20 Y15.03 E24.40235
G1 X71.20 Y49.60 E26.41174
G1 X64.84 Y49.60 E26.78134
G1 X64.84 Y53.44 E27.00401
G1 X15.67 Y53.44 E29.86164
G1 X15.67 Y29.00 E31.28174
G0 F12000 X16.14 Y29.36
G1 F2400 X29.00 Y26.13 E32.05253
G1 X31.46 Y25.51 E32.20033
G1 X70.73 Y15.63 E34.55368
G1 X70.73 Y49.14 E36.50123
G1 X64.37 Y49.14 E36.87083
G1 X64.37 Y52.97 E37.09350
G1 X16.14 Y52.97 E39.89696
G1 X16.14 Y29.36 E41.26887
G0 F12000 X16.60 Y29.73
G1 F2400 X29.11 Y26.58 E42.01856
G1 X31.58 Y25.96 E42.16636
G1 X70.26 Y16.23 E44.48495
G1 X70.26 Y48.67 E46.37066
G1 X63.91 Y48.67 E46.74026
G1 X63.91 Y52.50 E46.96292
G1 X16.60 Y52.50 E49.71221
G1 X16.60 Y29.73 E51.03594
G0 F12000 X17.07 Y30.09
G1 F2400 X29.23 Y27.03 E51.76478
G1 X31.69 Y26.41 E51.91236
G1 X69.80 Y16.82 E54.19618
G1 X69.80 Y48.21 E56.02011
G1 X63.44 Y48.21 E56.38971
G1 X63.44 Y52.04 E56.61238
G1 X17.07 Y52.04 E59.30750
G1 X17.07 Y30.09 E60.58299
G0 F12000 X17.54 Y30.45
G1 F2400 X29.34 Y27.49 E61.29043
G1 X31.81 Y26.86 E61.43830
G1 X69.33 Y17.42 E63.68736
G1 X69.33 Y47.74 E65.44945
G1 X62.97 Y47.74 E65.81905
G1 X62.97 Y51.57 E66.04171
G1 X17.54 Y51.57 E68.68266
G1 X17.54 Y30.45 E69.90997
G0 F12000 X18.00 Y30.82
G1 F2400 X29.45 Y27.94 E70.59631
G1 X31.92 Y27.32 E70.74413
G1 X68.87 Y18.02 E72.95848
G1 X68.87 Y47.27 E74.65872
G1 X62.51 Y47.27 E75.02832
G1 X62.51 Y51.10 E75.25099
G1 X18.00 Y51.10 E77.83777
G1 X18.00 Y30.82 E79.01689
G0 F12000 X18.47 Y31.18
G1 F2400 X29.57 Y28.39 E79.68238
G1 X32.03 Y27.77 E79.82996
G1 X68.40 Y18.62 E82.00955
G1 X68.40 Y46.81 E83.64795
G1 X62.04 Y46.81 E84.01755
G1 X62.04 Y50.64 E84.24022
G1 X18.47 Y50.64 E86.77283
G1 X18.47 Y31.18 E87.90371
G0 F12000 X18.93 Y31.55
G1 F2400 X29.68 Y28.84 E88.54811
G1 X32.15 Y28.22 E88.69567
G1 X67.93 Y19.22 E90.84051
G1 X67.93 Y46.34 E92.41713
G1 X61.58 Y46.34 E92.78673
G1 X61.58 Y50.17 E93.00940
G1 X18.93 Y50.17 E95.48784
G1 X18.93 Y31.55 E96.57054
G0 F12000 X19.40 Y31.91
G1 F2400 X29.80 Y29.29 E97.19384
G1 X32.26 Y28.67 E97.34140
G1 X67.47 Y19.81 E99.45148
G1 X67.47 Y45.88 E100.96626
G1 X61.11 Y45.88 E101.33586
G1 X61.11 Y49.71 E101.55852
G1 X19.40 Y49.71 E103.98279
G1 X19.40 Y31.91 E105.01731
G0 F12000 X19.86 Y32.27
G1 F2400 X29.91 Y29.74 E105.61946
G1 X32.37 Y29.12 E105.76703
G1 X67.00 Y20.41 E107.84240
G1 X67.00 Y45.41 E109.29533
G1 X60.64 Y45.41 E109.66493
G1 X60.64 Y49.24 E109.88760
G1 X19.86 Y49.24 E112.25770
G1 X19.86 Y32.27 E113.24397
G0 F12000 X20.33 Y32.63
G1 F2400 X30.03 Y30.20 E113.82503
G1 X32.49 Y29.58 E113.97259
G1 X66.54 Y21.01 E116.01320
G1 X66.54 Y44.94 E117.40429
G1 X60.18 Y44.94 E117.77389
G1 X60.18 Y48.77 E117.99656
G1 X20.33 Y48.77 E120.31249
G1 X20.33 Y32.63 E121.25058
G0 F12000 X20.80 Y33.00
G1 F2400 X30.14 Y30.65 E121.81053
G1 X32.60 Y30.03 E121.95809
G1 X66.07 Y21.61 E123.96395
G1 X66.07 Y44.48 E125.29326
G1 X59.71 Y44.48 E125.66286
G1 X59.71 Y48.31 E125.88553
G1 X20.80 Y48.31 E128.14729
G1 X20.80 Y33.00 E129.03720
G0 F12000 X21.26 Y33.36
G1 F2400 X30.25 Y31.10 E129.57599
G1 X32.72 Y30.48 E129.72362
G1 X65.60 Y22.20 E131.69471
G1 X65.60 Y44.01 E132.96218
G1 X59.24 Y44.01 E133.33177
G1 X59.24 Y47.84 E133.55444
G1 X21.26 Y47.84 E135.76203
G1 X21.26 Y33.36 E136.60376
G0 F12000 X21.73 Y33.73
G1 F2400 X30.37 Y31.55 E137.12146
G1 X32.83 Y30.93 E137.26909
G1 X65.14 Y22.80 E139.20541
G1 X65.14 Y43.55 E140.41104
G1 X58.78 Y43.55 E140.78064
G1 X58.78 Y47.38 E141.00330
G1 X21.73 Y47.38 E143.15673
G1 X21.73 Y33.73 E143.95021
G0 F12000 X22.20 Y34.09
G1 F2400 X30.48 Y32.01 E144.44663
G1 X30.48 Y32.00 E144.44668
G1 X32.94 Y31.38 E144.59443
G1 X64.67 Y23.40 E146.49605
G1 X64.67 Y43.08 E147.63983
G1 X58.31 Y43.08 E148.00943
G1 X58.31 Y46.91 E148.23210
G1 X22.20 Y46.91 E150.33135
G1 X22.20 Y34.09 E151.07665
G0 F12000 X22.66 Y34.45
G1 F2400 X30.59 Y32.46 E151.55197
G1 X33.06 Y31.84 E151.69972
G1 X64.21 Y24.00 E153.56658
G1 X64.21 Y42.61 E154.64852
G1 X57.85 Y42.61 E155.01812
G1 X57.85 Y46.45 E155.24078
G1 X22.66 Y46.45 E157.28587
G1 X22.66 Y34.45 E157.98298
G0 F12000 X23.13 Y34.81
G1 F2400 X30.71 Y32.91 E158.43722
G1 X33.17 Y32.29 E158.58497
G1 X63.74 Y24.60 E160.41707
G1 X63.74 Y42.15 E161.43723
G1 X57.38 Y42.15 E161.80683
G1 X57.38 Y45.98 E162.02949
G1 X23.13 Y45.98 E164.02041
G1 X23.13 Y34.81 E164.66928
G0 F12000 X23.59 Y35.18
G1 F2400 X30.82 Y33.36 E165.10242
G1 X33.28 Y32.74 E165.25017
G1 X63.27 Y25.19 E167.04751
G1 X63.27 Y41.68 E168.00583
G1 X56.91 Y41.68 E168.37542
G1 X56.91 Y45.51 E168.59809
G1 X23.59 Y45.51 E170.53483
G1 X23.59 Y35.18 E171.13553
G0 F12000 X24.06 Y35.54
G1 F2400 X30.93 Y33.81 E171.54756
G1 X33.40 Y33.19 E171.69531
G1 X62.81 Y25.79 E173.45789
G1 X62.81 Y41.22 E174.35436
G1 X56.45 Y41.22 E174.72396
G1 X56.45 Y45.05 E174.94662
G1 X24.06 Y45.05 E176.82920
G1 X24.06 Y35.54 E177.38171
G0 F12000 X24.52 Y35.91
G1 F2400 X31.05 Y34.26 E177.77265
G1 X33.51 Y33.64 E177.92034
G1 X62.34 Y26.39 E179.64822
G1 X62.34 Y40.75 E180.48285
G1 X55.98 Y40.75 E180.85245
G1 X55.98 Y44.58 E181.07511
G1 X24.52 Y44.58 E182.90352
G1 X24.52 Y35.91 E183.40778
G0 F12000 X24.99 Y36.27
G1 F2400 X31.16 Y34.72 E183.77770
G1 X31.16 Y34.72 E183.77775
G1 X33.63 Y34.09 E183.92539
G1 X61.88 Y26.99 E185.61851
G1 X61.88 Y40.28 E186.39136
G1 X55.52 Y40.28 E186.76096
G1 X55.52 Y44.12 E186.98363
G1 X24.99 Y44.12 E188.75786
G1 X24.99 Y36.27 E189.21395
G0 F12000 X25.46 Y36.63
G1 F2400 X61.41 Y27.59 E191.36874
G1 X61.41 Y39.82 E192.07975
G1 X55.05 Y39.82 E192.44934
G1 X55.05 Y43.65 E192.67201
G1 X25.46 Y43.65 E194.39208
G1 X25.46 Y36.63 E194.79998
G0 F12000 X25.92 Y36.99
G1 F2400 X60.94 Y28.18 E196.89890
G1 X60.94 Y39.35 E197.54807
G1 X54.59 Y39.35 E197.91767
G1 X54.59 Y43.18 E198.14033
G1 X25.92 Y43.18 E199.80623
G1 X25.92 Y36.99 E200.16595
G0 F12000 X26.39 Y37.36
G1 F2400 X60.48 Y28.78 E202.20902
G1 X60.48 Y38.89 E202.79635
G1 X54.12 Y38.89 E203.16594
G1 X54.12 Y42.72 E203.38861
G1 X26.39 Y42.72 E205.00033
G1 X26.39 Y37.36 E205.31181
G0 F12000 X26.86 Y37.72
G1 F2400 X60.01 Y29.38 E207.29904
G1 X60.01 Y38.42 E207.82458
G1 X53.65 Y38.42 E208.19417
G1 X53.65 Y42.25 E208.41684
G1 X26.86 Y42.25 E209.97440
G1 X26.86 Y37.72 E210.23769
G0 F12000 X27.32 Y38.08
G1 F2400 X59.55 Y29.98 E212.16905
G1 X59.55 Y37.95 E212.63275
G1 X53.19 Y37.95 E213.00234
G1 X53.19 Y41.78 E213.22501
G1 X27.32 Y41.78 E214.72840
G1 X27.32 Y38.08 E214.94351
G0 F12000 X28.05 Y38.72
G0 X28.72 Y39.17
;TYPE:WALL-INNER
G1 F2400 X55.85 Y32.35 E216.56963
G1 X55.85 Y32.36 E216.57051
G1 X55.97 Y32.73 E216.59317
G1 X56.21 Y33.08 E216.61726
G1 X56.09 Y33.22 E216.62792
G1 X55.93 Y33.53 E216.64837
G1 X55.84 Y33.83 E216.66630
G1 X55.81 Y34.18 E216.68686
G1 X55.85 Y34.54 E216.70817
G1 X55.96 Y34.87 E216.72815
G1 X56.13 Y35.17 E216.74804
G1 X56.21 Y35.26 E216.75492
G1 X56.09 Y35.40 E216.76529
G1 X55.93 Y35.71 E216.78595
G1 X55.84 Y36.01 E216.80388
G1 X55.81 Y36.36 E216.82444
G1 X55.83 Y36.56 E216.83592
G1 X51.79 Y36.56 E217.07096
G1 X51.79 Y40.39 E217.29363
G1 X28.72 Y40.39 E218.63450
G1 X28.72 Y39.17 E218.70501
G0 F12000 X28.25 Y38.81
G1 F2400 X56.30 Y31.75 E220.38602
G1 X56.28 Y31.99 E220.39998
G1 X56.31 Y32.26 E220.41567
G1 X56.40 Y32.53 E220.43186
G1 X56.62 Y32.86 E220.45544
G1 X56.85 Y33.05 E220.47229
G1 X56.91 Y33.08 E220.47639
G1 X56.82 Y33.13 E220.48274
G1 X56.63 Y33.29 E220.49668
G1 X56.48 Y33.47 E220.51044
G1 X56.37 Y33.70 E220.52559
G1 X56.30 Y33.92 E220.53859
G1 X56.28 Y34.17 E220.55348
G1 X56.31 Y34.44 E220.56917
G1 X56.39 Y34.68 E220.58371
G1 X56.51 Y34.90 E220.59823
G1 X56.67 Y35.08 E220.61217
G1 X56.85 Y35.23 E220.62593
G1 X56.91 Y35.26 E220.62991
G1 X56.82 Y35.31 E220.63592
G1 X56.65 Y35.45 E220.64896
G1 X56.49 Y35.65 E220.66387
G1 X56.37 Y35.89 E220.67915
G1 X56.30 Y36.10 E220.69215
G1 X56.28 Y36.35 E220.70704
G1 X56.31 Y36.62 E220.72273
G1 X56.39 Y36.86 E220.73727
G1 X56.48 Y37.02 E220.74805
G1 X52.26 Y37.02 E220.99356
G1 X52.26 Y40.85 E221.21622
G1 X28.25 Y40.85 E222.61127
G1 X28.25 Y38.81 E222.72995
G1 F2400 E221.52995
G0 F12000 X58.18 Y35.26
G1 F2400 E222.72995
G1 X58.42 Y35.09 E222.74714
G1 X58.61 Y34.85 E222.76499
G1 X58.61 Y35.68 E222.81312
G1 X58.58 Y35.61 E222.81734
G1 X58.42 Y35.44 E222.83093
G1 X58.25 Y35.29 E222.84442
G1 X58.18 Y35.26 E222.84889
G1 F2400 E221.64889
G0 F12000 X58.61 Y33.49
G1 F2400 E222.84889
G1 X58.58 Y33.44 E222.85238
G1 X58.44 Y33.27 E222.86543
G1 X58.24 Y33.11 E222.88033
G1 X58.18 Y33.08 E222.88444
G1 X58.28 Y33.02 E222.89113
G1 X58.46 Y32.86 E222.90472
G1 X58.60 Y32.69 E222.91821
G1 X58.61 Y32.67 E222.91938
G1 X58.61 Y33.49 E222.96745
G0 F12000 X58.61 Y31.31
G1 F2400 X58.58 Y31.26 E222.97094
G1 X58.53 Y31.19 E222.97606
G1 X58.61 Y31.17 E222.98122
G1 X58.61 Y31.31 E222.98947
G0 F12000 X58.20 Y31.53
;TYPE:WALL-OUTER
G1 F2400 X58.11 Y31.42 E222.99761
G1 X57.99 Y31.32 E223.00681
G1 X57.84 Y31.24 E223.01674
G1 X57.70 Y31.20 E223.02483
G1 X57.54 Y31.19 E223.03406
G1 X57.37 Y31.21 E223.04412
G1 X57.22 Y31.26 E223.05329
G1 X57.09 Y31.33 E223.06240
G1 X56.97 Y31.43 E223.07135
G1 X56.88 Y31.55 E223.07966
G1 X56.80 Y31.70 E223.08953
G1 X56.76 Y31.83 E223.09762
G1 X56.75 Y31.99 E223.10685
G1 X56.77 Y32.16 E223.11691
G1 X56.82 Y32.32 E223.12663
G1 X56.97 Y32.54 E223.14245
G1 X57.10 Y32.65 E223.15240
G1 X57.26 Y32.73 E223.16233
G1 X57.39 Y32.77 E223.17042
G1 X57.55 Y32.78 E223.17964
G1 X57.72 Y32.77 E223.18971
G1 X57.87 Y32.72 E223.19888
G1 X58.01 Y32.64 E223.20807
G1 X58.12 Y32.54 E223.21688
G1 X58.21 Y32.43 E223.22509
G1 X58.29 Y32.27 E223.23510
G1 X58.33 Y32.14 E223.24319
G1 X58.34 Y31.98 E223.25241
G1 X58.33 Y31.81 E223.26248
G1 X58.28 Y31.66 E223.27165
G1 X58.20 Y31.53 E223.28063
G0 F12000 X59.08 Y30.57
G1 F2400 X59.08 Y37.49 E223.68249
G1 X52.72 Y37.49 E224.05209
G1 X52.72 Y41.32 E224.27475
G1 X27.79 Y41.32 E225.72397
G1 X27.79 Y38.45 E225.89084
G1 X59.08 Y30.57 E227.76635
G1 F2400 E226.56635
G0 F12000 X57.84 Y33.42
G1 F2400 E227.76635
G1 X57.70 Y33.38 E227.77443
G1 X57.54 Y33.37 E227.78366
G1 X57.37 Y33.39 E227.79372
G1 X57.22 Y33.44 E227.80290
G1 X57.09 Y33.52 E227.81201
G1 X56.97 Y33.62 E227.82095
G1 X56.88 Y33.73 E227.82926
G1 X56.80 Y33.88 E227.83914
G1 X56.76 Y34.01 E227.84723
G1 X56.75 Y34.17 E227.85645
G1 X56.77 Y34.34 E227.86651
G1 X56.82 Y34.49 E227.87569
G1 X56.89 Y34.63 E227.88480
G1 X56.99 Y34.74 E227.89374
G1 X57.10 Y34.83 E227.90205
G1 X57.26 Y34.91 E227.91193
G1 X57.39 Y34.95 E227.92002
G1 X57.55 Y34.97 E227.92924
G1 X57.72 Y34.95 E227.93931
G1 X57.88 Y34.89 E227.94903
G1 X58.10 Y34.74 E227.96484
G1 X58.21 Y34.61 E227.97479
G1 X58.29 Y34.46 E227.98472
G1 X58.33 Y34.32 E227.99281
G1 X58.34 Y34.16 E228.00204
G1 X58.33 Y33.99 E228.01210
G1 X58.28 Y33.84 E228.02127
G1 X58.20 Y33.71 E228.03025
G1 X58.11 Y33.60 E228.03839
G1 X57.99 Y33.50 E228.04759
G1 X57.84 Y33.42 E228.05752
G0 F12000 X57.93 Y33.11
G0 X58.67 Y33.67
G0 X58.58 Y34.85
G0 X58.07 Y35.28
G0 X57.80 Y35.25
G0 X57.70 Y35.56
G1 F2400 X57.54 Y35.55 E228.06675
G1 X57.37 Y35.57 E228.07681
G1 X57.22 Y35.62 E228.08598
G1 X57.09 Y35.70 E228.09497
G1 X56.98 Y35.78 E228.10310
G1 X56.88 Y35.91 E228.11231
G1 X56.80 Y36.06 E228.12224
G1 X56.76 Y36.19 E228.13032
G1 X56.75 Y36.35 E228.13955
G1 X56.77 Y36.52 E228.14961
G1 X56.82 Y36.67 E228.15879
G1 X56.89 Y36.81 E228.16790
G1 X56.99 Y36.92 E228.17684
G1 X57.10 Y37.02 E228.18515
G1 X57.26 Y37.09 E228.19503
G1 X57.39 Y37.13 E228.20312
G1 X57.55 Y37.15 E228.21234
G1 X57.72 Y37.13 E228.22240
G1 X57.88 Y37.08 E228.23213
G1 X58.10 Y36.92 E228.24794
G1 X58.21 Y36.79 E228.25789
G1 X58.29 Y36.64 E228.26782
G1 X58.33 Y36.50 E228.27591
G1 X58.34 Y36.35 E228.28514
G1 X58.33 Y36.17 E228.29520
G1 X58.28 Y36.02 E228.30437
G1 X58.20 Y35.89 E228.31356
G1 X58.10 Y35.77 E228.32238
G1 X57.99 Y35.68 E228.33059
G1 X57.84 Y35.60 E228.34059
G1 X57.70 Y35.56 E228.34868
G0 F12000 X57.80 Y35.25
G0 X55.96 Y35.20
;TYPE:FILL
G1 F2400 X53.79 Y33.03 E228.52647
G0 F12000 X54.32 Y32.90
G1 F2400 X55.65 Y34.23 E228.63588
G0 F12000 X55.73 Y33.65
G1 F2400 X54.85 Y32.77 E228.70825
G0 F12000 X55.37 Y32.64
G1 F2400 X55.92 Y33.19 E228.75346
G0 F12000 X55.77 Y35.67
G1 F2400 X53.27 Y33.17 E228.95957
G0 F12000 X52.74 Y33.30
G1 F2400 X55.66 Y36.22 E229.19942
G0 F12000 X55.17 Y36.39
G1 F2400 X52.21 Y33.43 E229.44277
G0 F12000 X51.69 Y33.56
G1 F2400 X54.52 Y36.39 E229.67518
G0 F12000 X53.86 Y36.39
G1 F2400 X51.16 Y33.70 E229.89674
G0 F12000 X50.63 Y33.83
G1 F2400 X53.20 Y36.39 E230.10745
G0 F12000 X52.54 Y36.39
G1 F2400 X50.11 Y33.96 E230.30723
G0 F12000 X49.58 Y34.09
G1 F2400 X51.88 Y36.39 E230.49616
G0 F12000 X51.62 Y36.80
G1 F2400 X49.05 Y34.23 E230.70741
G0 F12000 X48.53 Y34.36
G1 F2400 X51.62 Y37.45 E230.96189
G0 F12000 X51.62 Y38.11
G1 F2400 X48.00 Y34.49 E231.25969
G0 F12000 X47.48 Y34.62
G1 F2400 X51.62 Y38.77 E231.60073
G0 F12000 X51.62 Y39.43
G1 F2400 X46.95 Y34.76 E231.98508
G0 F12000 X46.42 Y34.89
G1 F2400 X51.62 Y40.09 E232.41275
G0 F12000 X51.10 Y40.22
G1 F2400 X45.90 Y35.02 E232.84026
G0 F12000 X45.37 Y35.15
G1 F2400 X50.44 Y40.22 E233.25691
G0 F12000 X49.78 Y40.22
G1 F2400 X44.84 Y35.29 E233.66264
G0 F12000 X44.31 Y35.42
G1 F2400 X49.12 Y40.22 E234.05751
G0 F12000 X48.46 Y40.22
G1 F2400 X43.79 Y35.55 E234.44146
G0 F12000 X43.26 Y35.68
G1 F2400 X47.80 Y40.22 E234.81451
G0 F12000 X47.14 Y40.22
G1 F2400 X42.74 Y35.82 E235.17667
G0 F12000 X42.21 Y35.95
G1 F2400 X46.48 Y40.22 E235.52798
G0 F12000 X45.82 Y40.22
G1 F2400 X41.68 Y36.08 E235.86836
G0 F12000 X41.16 Y36.21
G1 F2400 X45.16 Y40.22 E236.19788
G0 F12000 X44.51 Y40.22
G1 F2400 X40.63 Y36.34 E236.51656
G0 F12000 X40.10 Y36.48
G1 F2400 X43.85 Y40.22 E236.82427
G0 F12000 X43.19 Y40.22
G1 F2400 X39.58 Y36.61 E237.12108
G0 F12000 X39.05 Y36.74
G1 F2400 X42.53 Y40.22 E237.40696
G0 F12000 X41.87 Y40.22
G1 F2400 X38.52 Y36.88 E237.68199
G0 F12000 X38.00 Y37.01
G1 F2400 X41.21 Y40.22 E237.94613
G0 F12000 X40.55 Y40.22
G1 F2400 X37.47 Y37.14 E238.19934
G0 F12000 X36.94 Y37.27
G1 F2400 X39.89 Y40.22 E238.44170
G0 F12000 X39.23 Y40.22
G1 F2400 X36.42 Y37.41 E238.67321
G0 F12000 X35.89 Y37.54
G1 F2400 X38.57 Y40.22 E238.89378
G0 F12000 X37.91 Y40.22
G1 F2400 X35.36 Y37.67 E239.10347
G0 F12000 X34.84 Y37.80
G1 F2400 X37.26 Y40.22 E239.30222
G0 F12000 X36.60 Y40.22
G1 F2400 X34.31 Y37.94 E239.49012
G0 F12000 X33.78 Y38.07
G1 F2400 X35.94 Y40.22 E239.66717
G0 F12000 X35.28 Y40.22
G1 F2400 X33.26 Y38.20 E239.83329
G0 F12000 X32.73 Y38.33
G1 F2400 X34.62 Y40.22 E239.98856
G0 F12000 X33.96 Y40.22
G1 F2400 X32.20 Y38.47 E240.13294
G0 F12000 X31.68 Y38.60
G1 F2400 X33.30 Y40.22 E240.26639
G0 F12000 X32.64 Y40.22
G1 F2400 X31.15 Y38.73 E240.38895
G0 F12000 X30.62 Y38.86
G1 F2400 X31.98 Y40.22 E240.50065
G0 F12000 X31.32 Y40.22
G1 F2400 X30.10 Y39.00 E240.60143
G0 F12000 X29.57 Y39.13
G1 F2400 X30.67 Y40.22 E240.69135
G0 F12000 X30.01 Y40.22
G1 F2400 X29.05 Y39.26 E240.77034
G0 F12000 X28.88 Y39.76
G1 F2400 X29.35 Y40.22 E240.80856
;LAYER:1
G0 F12000 X28.72 Y40.39 Z0.50
;TYPE:WALL-INNER
G1 F1920 X28.72 Y39.17 E240.85556
G1 X36.31 Y37.27 E241.15874
G1 X55.85 Y32.35 E241.93964
G1 X55.96 Y32.70 E241.95405
G1 X56.21 Y33.08 E241.97132
G1 X56.10 Y33.21 E241.97785
G1 X55.94 Y33.51 E241.99095
G1 X55.84 Y33.83 E242.00407
G1 X55.81 Y34.17 E242.01723
G1 X55.84 Y34.51 E242.03040
G1 X55.96 Y34.88 E242.04573
G1 X56.21 Y35.26 E242.06312
G1 X56.10 Y35.38 E242.06945
G1 X55.94 Y35.69 E242.08269
G1 X55.84 Y36.01 E242.09581
G1 X55.81 Y36.35 E242.10897
G1 X55.83 Y36.56 E242.11707
G1 X51.79 Y36.56 E242.27369
G1 X51.79 Y40.39 E242.42214
G1 X28.72 Y40.39 E243.31605
G0 F12000 X28.25 Y40.85
G1 F1920 X28.25 Y38.81 E243.39518
G1 X56.30 Y31.75 E244.51590
G1 X56.28 Y31.99 E244.52498
G1 X56.30 Y32.23 E244.53459
G1 X56.38 Y32.50 E244.54552
G1 X56.62 Y32.86 E244.56206
G1 X56.84 Y33.04 E244.57313
G1 X56.92 Y33.08 E244.57642
G1 X56.67 Y33.24 E244.58786
G1 X56.49 Y33.47 E244.59893
G1 X56.38 Y33.68 E244.60853
G1 X56.30 Y33.92 E244.61809
G1 X56.28 Y34.17 E244.62771
G1 X56.30 Y34.41 E244.63733
G1 X56.38 Y34.68 E244.64826
G1 X56.62 Y35.04 E244.66490
G1 X56.84 Y35.22 E244.67597
G1 X56.91 Y35.26 E244.67904
G1 X56.81 Y35.32 E244.68380
G1 X56.65 Y35.45 E244.69180
G1 X56.49 Y35.64 E244.70138
G1 X56.38 Y35.87 E244.71107
G1 X56.30 Y36.10 E244.72063
G1 X56.28 Y36.35 E244.73025
G1 X56.30 Y36.59 E244.73987
G1 X56.38 Y36.87 E244.75080
G1 X56.49 Y37.02 E244.75810
G1 X52.26 Y37.02 E244.92216
G1 X52.26 Y40.85 E245.07060
G1 X28.25 Y40.85 E246.00063
G1 F2400 E244.80063
G0 F12000 X58.17 Y35.25
G1 F2400 E246.00063
G1 F1920 X58.42 Y35.09 E246.01200
G1 X58.61 Y34.84 E246.02419
G1 X58.61 Y35.68 E246.05658
G1 X58.56 Y35.59 E246.06052
G1 X58.41 Y35.42 E246.06946
G1 X58.25 Y35.30 E246.07721
G1 X58.17 Y35.25 E246.08066
G0 F12000 X58.78 Y34.17
G0 X58.61 Y33.50
G1 F1920 X58.44 Y33.27 E246.09182
G1 X58.25 Y33.11 E246.10140
G1 X58.18 Y33.08 E246.10455
G1 X58.30 Y33.00 E246.11007
G1 X58.47 Y32.85 E246.11901
G1 X58.61 Y32.66 E246.12797
G1 X58.61 Y33.50 E246.16033
G0 F12000 X58.61 Y31.32
G1 F1920 X58.57 Y31.25 E246.16350
G1 X58.53 Y31.19 E246.16626
G1 X58.61 Y31.17 E246.16969
G1 X58.61 Y31.32 E246.17538
G0 F12000 X58.19 Y31.52
;TYPE:WALL-OUTER
G1 F1920 X58.11 Y31.42 E246.18023
G1 X57.99 Y31.32 E246.18625
G1 X57.85 Y31.25 E246.19234
G1 X57.70 Y31.20 E246.19838
G1 X57.55 Y31.19 E246.20445
G1 X57.39 Y31.20 E246.21053
G1 X57.23 Y31.25 E246.21701
G1 X56.99 Y31.41 E246.22825
G1 X56.88 Y31.54 E246.23483
G1 X56.81 Y31.68 E246.24088
G1 X56.76 Y31.83 E246.24693
G1 X56.75 Y31.99 E246.25300
G1 X56.76 Y32.14 E246.25907
G1 X56.81 Y32.30 E246.26556
G1 X56.97 Y32.54 E246.27676
G1 X57.10 Y32.65 E246.28334
G1 X57.24 Y32.72 E246.28943
G1 X57.39 Y32.77 E246.29547
G1 X57.55 Y32.78 E246.30154
G1 X57.70 Y32.77 E246.30761
G1 X57.86 Y32.72 E246.31385
G1 X58.02 Y32.63 E246.32130
G1 X58.13 Y32.52 E246.32712
G1 X58.21 Y32.43 E246.33182
G1 X58.28 Y32.29 E246.33795
G1 X58.33 Y32.14 E246.34400
G1 X58.34 Y31.99 E246.35007
G1 X58.33 Y31.83 E246.35614
G1 X58.28 Y31.68 E246.36238
G1 X58.19 Y31.52 E246.36955
G0 F12000 X59.08 Y30.57
G1 F1920 X59.08 Y37.49 E246.63746
G1 X52.72 Y37.49 E246.88385
G1 X52.72 Y41.32 E247.03230
G1 X27.79 Y41.32 E247.99844
G1 X27.79 Y38.45 E248.10969
G1 X59.08 Y30.57 E249.36003
G1 F2400 E248.16003
G0 F12000 X57.85 Y33.43
G1 F2400 E249.36003
G1 F1920 X57.70 Y33.38 E249.36607
G1 X57.55 Y33.37 E249.37214
G1 X57.39 Y33.38 E249.37821
G1 X57.23 Y33.43 E249.38470
G1 X56.99 Y33.59 E249.39594
G1 X56.88 Y33.72 E249.40252
G1 X56.81 Y33.86 E249.40857
G1 X56.76 Y34.01 E249.41462
G1 X56.75 Y34.17 E249.42069
G1 X56.76 Y34.32 E249.42676
G1 X56.81 Y34.48 E249.43324
G1 X56.97 Y34.73 E249.44449
G1 X57.10 Y34.83 E249.45107
G1 X57.24 Y34.91 E249.45712
G1 X57.39 Y34.95 E249.46316
G1 X57.55 Y34.97 E249.46923
G1 X57.70 Y34.95 E249.47531
G1 X57.86 Y34.90 E249.48179
G1 X58.10 Y34.74 E249.49300
G1 X58.21 Y34.61 E249.49958
G1 X58.28 Y34.47 E249.50566
G1 X58.33 Y34.32 E249.51170
G1 X58.34 Y34.17 E249.51778
G1 X58.33 Y34.01 E249.52385
G1 X58.28 Y33.86 E249.53009
G1 X58.19 Y33.70 E249.53726
G1 X58.11 Y33.60 E249.54210
G1 X57.99 Y33.50 E249.54813
G1 X57.85 Y33.43 E249.55421
G0 F12000 X58.01 Y33.13
G0 X58.76 Y33.93
G0 X58.40 Y35.06
G0 X58.05 Y35.30
G0 X57.80 Y35.25
G0 X57.70 Y35.56
G1 F1920 X57.55 Y35.55 E249.56029
G1 X57.39 Y35.56 E249.56636
G1 X57.24 Y35.61 E249.57260
G1 X57.08 Y35.70 E249.57977
G1 X56.98 Y35.78 E249.58461
G1 X56.88 Y35.90 E249.59064
G1 X56.81 Y36.04 E249.59672
G1 X56.76 Y36.19 E249.60276
G1 X56.75 Y36.35 E249.60884
G1 X56.76 Y36.50 E249.61491
G1 X56.81 Y36.66 E249.62139
G1 X56.97 Y36.91 E249.63263
G1 X57.10 Y37.01 E249.63922
G1 X57.24 Y37.09 E249.64527
G1 X57.39 Y37.13 E249.65131
G1 X57.55 Y37.15 E249.65738
G1 X57.70 Y37.13 E249.66345
G1 X57.86 Y37.08 E249.66994
G1 X58.10 Y36.92 E249.68115
G1 X58.21 Y36.79 E249.68773
G1 X58.28 Y36.65 E249.69381
G1 X58.33 Y36.50 E249.69985
G1 X58.34 Y36.35 E249.70592
G1 X58.33 Y36.19 E249.71200
G1 X58.28 Y36.04 E249.71824
G1 X58.19 Y35.87 E249.72569
G1 X58.08 Y35.76 E249.73150
G1 X57.99 Y35.68 E249.73620
G1 X57.85 Y35.61 E249.74234
G1 X57.70 Y35.56 E249.74838
G0 F12000 X57.80 Y35.25
G0 X55.94 Y35.33
;TYPE:FILL
G1 F1920 X54.88 Y36.39 E249.80649
G0 F12000 X54.22 Y36.39
G1 F1920 X55.77 Y34.84 E249.89140
G0 F12000 X55.66 Y34.30
G1 F1920 X53.56 Y36.39 E250.00610
G0 F12000 X52.91 Y36.39
G1 F1920 X55.76 Y33.54 E250.16243
G0 F12000 X55.83 Y32.81
G1 F1920 X52.25 Y36.39 E250.35875
G0 F12000 X51.62 Y37.01
G1 F1920 X48.41 Y40.22 E250.53459
G0 F12000 X49.07 Y40.22
G1 F1920 X51.62 Y37.67 E250.67433
G0 F12000 X51.62 Y38.33
G1 F1920 X49.73 Y40.22 E250.77795
G0 F12000 X50.39 Y40.22
G1 F1920 X51.62 Y38.99 E250.84546
G0 F12000 X51.62 Y39.65
G1 F1920 X51.05 Y40.22 E250.87686
G0 F12000 X47.76 Y40.22
G1 F1920 X55.33 Y32.65 E251.29201
G0 F12000 X54.45 Y32.87
G1 F1920 X47.10 Y40.22 E251.69505
G0 F12000 X46.44 Y40.22
G1 F1920 X53.57 Y33.09 E252.08593
G0 F12000 X52.69 Y33.31
G1 F1920 X45.78 Y40.22 E252.46466
G0 F12000 X45.12 Y40.22
G1 F1920 X51.81 Y33.53 E252.83126
G0 F12000 X50.93 Y33.76
G1 F1920 X44.46 Y40.22 E253.18570
G0 F12000 X43.80 Y40.22
G1 F1920 X50.05 Y33.98 E253.52802
G0 F12000 X49.17 Y34.20
G1 F1920 X43.14 Y40.22 E253.85820
G0 F12000 X42.48 Y40.22
G1 F1920 X48.29 Y34.42 E254.17625
G0 F12000 X47.41 Y34.64
G1 F1920 X41.83 Y40.22 E254.48214
G0 F12000 X41.17 Y40.22
G1 F1920 X46.53 Y34.86 E254.77588
G0 F12000 X45.65 Y35.08
G1 F1920 X40.51 Y40.22 E255.05751
G0 F12000 X39.85 Y40.22
G1 F1920 X44.77 Y35.30 E255.32698
G0 F12000 X43.88 Y35.53
G1 F1920 X39.19 Y40.22 E255.58432
G0 F12000 X38.53 Y40.22
G1 F1920 X43.00 Y35.75 E255.82951
G0 F12000 X42.12 Y35.97
G1 F1920 X37.87 Y40.22 E256.06254
G0 F12000 X37.21 Y40.22
G1 F1920 X41.24 Y36.19 E256.28346
G0 F12000 X40.36 Y36.41
G1 F1920 X36.55 Y40.22 E256.49224
G0 F12000 X35.89 Y40.22
G1 F1920 X39.48 Y36.63 E256.68888
G0 F12000 X38.60 Y36.86
G1 F1920 X35.23 Y40.22 E256.87336
G0 F12000 X34.58 Y40.22
G1 F1920 X37.72 Y37.08 E257.04572
G0 F12000 X36.84 Y37.30
G1 F1920 X33.92 Y40.22 E257.20593
G0 F12000 X33.26 Y40.22
G1 F1920 X35.96 Y37.52 E257.35396
G0 F12000 X35.08 Y37.74
G1 F1920 X32.60 Y40.22 E257.48989
G0 F12000 X31.94 Y40.22
G1 F1920 X34.20 Y37.96 E257.61371
G0 F12000 X33.32 Y38.19
G1 F1920 X31.28 Y40.22 E257.72538
G0 F12000 X30.62 Y40.22
G1 F1920 X32.44 Y38.41 E257.82490
G0 F12000 X31.56 Y38.63
G1 F1920 X29.96 Y40.22 E257.91230
G0 F12000 X29.30 Y40.22
G1 F1920 X30.68 Y38.85 E257.98759
G0 F12000 X29.80 Y39.07
G1 F1920 X28.88 Y39.98 E258.03762
G0 F12000 X55.54 Y36.39
G1 F1920 X55.65 Y36.28 E258.04357
;LAYER:2
G0 F12000 X55.81 Y36.38 Z0.70
;TYPE:WALL-INNER
G1 F1920 X55.83 Y36.56 E258.05054
G1 X51.79 Y36.56 E258.20728
G1 X51.79 Y40.39 E258.35572
G1 X28.72 Y40.39 E259.24964
G1 X28.72 Y39.17 E259.29664
G1 X55.86 Y32.35 E260.38096
G1 X55.87 Y32.44 E260.38464
G1 X55.98 Y32.73 E260.39679
G1 X56.10 Y32.95 E260.40657
G1 X56.21 Y33.08 E260.41276
G1 X56.07 Y33.27 E260.42203
G1 X55.94 Y33.50 E260.43212
G1 X55.84 Y33.83 E260.44543
G1 X55.81 Y34.20 E260.45976
G1 X55.87 Y34.62 E260.47638
G1 X55.98 Y34.91 E260.48853
G1 X56.10 Y35.13 E260.49818
G1 X56.21 Y35.26 E260.50446
G1 X56.08 Y35.41 E260.51214
G1 X55.92 Y35.76 E260.52685
G1 X55.84 Y36.00 E260.53691
G1 X55.81 Y36.38 E260.55148
G0 F12000 X56.28 Y36.37
G1 F1920 X56.32 Y36.68 E260.56382
G1 X56.41 Y36.90 E260.57280
G1 X56.48 Y37.02 E260.57831
G1 X52.26 Y37.02 E260.74187
G1 X52.26 Y40.85 E260.89031
G1 X28.25 Y40.85 E261.82034
G1 X28.25 Y38.81 E261.89947
G1 X56.30 Y31.75 E263.02018
G1 X56.28 Y32.00 E263.02992
G1 X56.32 Y32.32 E263.04226
G1 X56.41 Y32.53 E263.05124
G1 X56.49 Y32.69 E263.05817
G1 X56.66 Y32.90 E263.06850
G1 X56.91 Y33.08 E263.08033
G1 X56.84 Y33.11 E263.08341
G1 X56.63 Y33.28 E263.09380
G1 X56.46 Y33.52 E263.10510
G1 X56.38 Y33.68 E263.11221
G1 X56.30 Y33.92 E263.12188
G1 X56.28 Y34.19 E263.13220
G1 X56.32 Y34.50 E263.14454
G1 X56.41 Y34.72 E263.15352
G1 X56.49 Y34.87 E263.16040
G1 X56.66 Y35.08 E263.17079
G1 X56.91 Y35.26 E263.18262
G1 X56.84 Y35.30 E263.18580
G1 X56.65 Y35.45 E263.19535
G1 X56.48 Y35.66 E263.20575
G1 X56.36 Y35.92 E263.21695
G1 X56.30 Y36.10 E263.22405
G1 X56.28 Y36.37 E263.23449
G1 F2400 E262.03449
G0 F12000 X58.18 Y35.26
G1 F2400 E263.23449
G1 F1920 X58.25 Y35.22 E263.23762
G1 X58.46 Y35.05 E263.24795
G1 X58.61 Y34.84 E263.25824
G1 X58.61 Y35.67 E263.29060
G1 X58.60 Y35.64 E263.29197
G1 X58.43 Y35.44 E263.30223
G1 X58.20 Y35.27 E263.31334
G1 X58.18 Y35.26 E263.31400
G0 F12000 X58.78 Y34.15
G0 X58.61 Y33.49
G1 F1920 X58.60 Y33.46 E263.31528
G1 X58.44 Y33.27 E263.32483
G1 X58.23 Y33.10 E263.33524
G1 X58.18 Y33.08 E263.33740
G1 X58.26 Y33.04 E263.34058
G1 X58.46 Y32.87 E263.35084
G1 X58.61 Y32.66 E263.36104
G1 X58.61 Y33.49 E263.39335
G0 F12000 X58.61 Y31.31
G1 F1920 X58.60 Y31.28 E263.39463
G1 X58.53 Y31.19 E263.39893
G1 X58.61 Y31.17 E263.40240
G1 X58.61 Y31.31 E263.40767
G0 F12000 X58.21 Y31.54
;TYPE:WALL-OUTER
G1 F1920 X58.11 Y31.42 E263.41376
G1 X57.98 Y31.32 E263.42003
G1 X57.80 Y31.23 E263.42775
G1 X57.70 Y31.20 E263.43184
G1 X57.54 Y31.19 E263.43819
G1 X57.33 Y31.22 E263.44626
G1 X57.10 Y31.32 E263.45613
G1 X56.98 Y31.43 E263.46247
G1 X56.81 Y31.68 E263.47428
G1 X56.76 Y31.83 E263.48036
G1 X56.75 Y31.99 E263.48666
G1 X56.78 Y32.20 E263.49474
G1 X56.88 Y32.43 E263.50464
G1 X56.98 Y32.56 E263.51091
G1 X57.24 Y32.72 E263.52275
G1 X57.39 Y32.77 E263.52883
G1 X57.55 Y32.79 E263.53513
G1 X57.76 Y32.76 E263.54321
G1 X57.99 Y32.65 E263.55314
G1 X58.12 Y32.55 E263.55942
G1 X58.28 Y32.29 E263.57122
G1 X58.33 Y32.14 E263.57729
G1 X58.35 Y31.98 E263.58360
G1 X58.31 Y31.77 E263.59167
G1 X58.21 Y31.54 E263.60158
G0 F12000 X59.08 Y30.57
G1 F1920 X59.08 Y37.49 E263.86948
G1 X52.72 Y37.49 E264.11588
G1 X52.72 Y41.32 E264.26432
G1 X27.79 Y41.32 E265.23047
G1 X27.79 Y38.45 E265.34171
G1 X59.08 Y30.57 E266.59205
G1 F2400 E265.39205
G0 F12000 X57.80 Y33.41
G1 F2400 E266.59205
G1 F1920 X57.70 Y33.38 E266.59615
G1 X57.54 Y33.37 E266.60250
G1 X57.33 Y33.40 E266.61057
G1 X57.10 Y33.50 E266.62044
G1 X56.98 Y33.61 E266.62677
G1 X56.81 Y33.86 E266.63858
G1 X56.76 Y34.01 E266.64466
G1 X56.75 Y34.17 E266.65097
G1 X56.78 Y34.38 E266.65904
G1 X56.88 Y34.61 E266.66891
G1 X56.98 Y34.74 E266.67525
G1 X57.24 Y34.91 E266.68706
G1 X57.39 Y34.95 E266.69314
G1 X57.55 Y34.97 E266.69944
G1 X57.76 Y34.94 E266.70752
G1 X57.99 Y34.83 E266.71742
G1 X58.12 Y34.73 E266.72369
G1 X58.28 Y34.47 E266.73553
G1 X58.33 Y34.32 E266.74161
G1 X58.35 Y34.16 E266.74791
G1 X58.31 Y33.95 E266.75599
G1 X58.21 Y33.72 E266.76589
G1 X58.11 Y33.60 E266.77197
G1 X57.98 Y33.50 E266.77825
G1 X57.80 Y33.41 E266.78596
G0 F12000 X57.91 Y33.10
G0 X58.73 Y33.84
G0 X58.43 Y35.03
G0 X57.87 Y35.35
G0 X57.57 Y35.22
G0 X57.54 Y35.55
G1 F1920 X57.33 Y35.58 E266.79403
G1 X57.10 Y35.68 E266.80394
G1 X56.98 Y35.78 E266.81002
G1 X56.88 Y35.91 E266.81630
G1 X56.79 Y36.09 E266.82401
G1 X56.76 Y36.19 E266.82811
G1 X56.75 Y36.35 E266.83446
G1 X56.78 Y36.56 E266.84253
G1 X56.88 Y36.79 E266.85239
G1 X56.98 Y36.92 E266.85873
G1 X57.24 Y37.09 E266.87054
G1 X57.39 Y37.13 E266.87662
G1 X57.55 Y37.15 E266.88293
G1 X57.76 Y37.12 E266.89100
G1 X57.99 Y37.01 E266.90090
G1 X58.12 Y36.91 E266.90718
G1 X58.28 Y36.65 E266.91901
G1 X58.33 Y36.50 E266.92509
G1 X58.35 Y36.34 E266.93140
G1 X58.31 Y36.14 E266.93947
G1 X58.21 Y35.90 E266.94941
G1 X58.11 Y35.78 E266.95568
G1 X57.85 Y35.61 E266.96748
G1 X57.70 Y35.56 E266.97356
G1 X57.54 Y35.55 E266.97987
G0 F12000 X57.57 Y35.22
G0 X55.95 Y35.19
;TYPE:FILL
G1 F1920 X53.79 Y33.03 E267.09785
G0 F12000 X53.27 Y33.17
G1 F1920 X55.78 Y35.68 E267.23542
G0 F12000 X55.66 Y36.22
G1 F1920 X52.74 Y33.30 E267.39526
G0 F12000 X52.21 Y33.43
G1 F1920 X55.17 Y36.39 E267.55744
G0 F12000 X54.52 Y36.39
G1 F1920 X51.69 Y33.56 E267.71238
G0 F12000 X51.16 Y33.70
G1 F1920 X53.86 Y36.39 E267.86009
G0 F12000 X53.20 Y36.39
G1 F1920 X50.63 Y33.83 E268.00051
G0 F12000 X50.11 Y33.96
G1 F1920 X52.54 Y36.39 E268.13369
G0 F12000 X51.88 Y36.39
G1 F1920 X49.58 Y34.09 E268.25959
G0 F12000 X49.05 Y34.23
G1 F1920 X51.62 Y36.80 E268.40042
G0 F12000 X51.62 Y37.45
G1 F1920 X48.53 Y34.36 E268.57008
G0 F12000 X48.00 Y34.49
G1 F1920 X51.62 Y38.11 E268.76861
G0 F12000 X51.62 Y38.77
G1 F1920 X47.48 Y34.62 E268.99597
G0 F12000 X46.95 Y34.76
G1 F1920 X51.62 Y39.43 E269.25220
G0 F12000 X51.62 Y40.09
G1 F1920 X46.42 Y34.89 E269.53726
G0 F12000 X45.90 Y35.02
G1 F1920 X51.10 Y40.22 E269.82227
G0 F12000 X50.44 Y40.22
G1 F1920 X45.37 Y35.15 E270.10004
G0 F12000 X44.84 Y35.29
G1 F1920 X49.78 Y40.22 E270.37052
G0 F12000 X49.12 Y40.22
G1 F1920 X44.31 Y35.42 E270.63377
G0 F12000 X43.79 Y35.55
G1 F1920 X48.46 Y40.22 E270.88973
G0 F12000 X47.80 Y40.22
G1 F1920 X43.26 Y35.68 E271.13843
G0 F12000 X42.74 Y35.82
G1 F1920 X47.14 Y40.22 E271.37987
G0 F12000 X46.48 Y40.22
G1 F1920 X42.21 Y35.95 E271.61403
G0 F12000 X41.68 Y36.08
G1 F1920 X45.82 Y40.22 E271.84095
G0 F12000 X45.16 Y40.22
G1 F1920 X41.16 Y36.21 E272.06063
G0 F12000 X40.63 Y36.35
G1 F1920 X44.51 Y40.22 E272.27303
G0 F12000 X43.85 Y40.22
G1 F1920 X40.10 Y36.48 E272.47816
G0 F12000 X39.58 Y36.61
G1 F1920 X43.19 Y40.22 E272.67604
G0 F12000 X42.53 Y40.22
G1 F1920 X39.05 Y36.74 E272.86663
G0 F12000 X38.52 Y36.88
G1 F1920 X41.87 Y40.22 E273.04998
G0 F12000 X41.21 Y40.22
G1 F1920 X38.00 Y37.01 E273.22608
G0 F12000 X37.47 Y37.14
G1 F1920 X40.55 Y40.22 E273.39488
G0 F12000 X39.89 Y40.22
G1 F1920 X36.94 Y37.27 E273.55645
G0 F12000 X36.42 Y37.41
G1 F1920 X39.23 Y40.22 E273.71074
G0 F12000 X38.57 Y40.22
G1 F1920 X35.89 Y37.54 E273.85779
G0 F12000 X35.36 Y37.67
G1 F1920 X37.91 Y40.22 E273.99758
G0 F12000 X37.26 Y40.22
G1 F1920 X34.84 Y37.80 E274.13008
G0 F12000 X34.31 Y37.94
G1 F1920 X36.60 Y40.22 E274.25535
G0 F12000 X35.94 Y40.22
G1 F1920 X33.78 Y38.07 E274.37338
G0 F12000 X33.26 Y38.20
G1 F1920 X35.28 Y40.22 E274.48413
G0 F12000 X34.62 Y40.22
G1 F1920 X32.73 Y38.33 E274.58764
G0 F12000 X32.20 Y38.47
G1 F1920 X33.96 Y40.22 E274.68389
G0 F12000 X33.30 Y40.22
G1 F1920 X31.68 Y38.60 E274.77286
G0 F12000 X31.15 Y38.73
G1 F1920 X32.64 Y40.22 E274.85456
G0 F12000 X31.98 Y40.22
G1 F1920 X30.63 Y38.86 E274.92898
G0 F12000 X30.10 Y39.00
G1 F1920 X31.32 Y40.22 E274.99616
G0 F12000 X30.67 Y40.22
G1 F1920 X29.57 Y39.13 E275.05611
G0 F12000 X29.05 Y39.26
G1 F1920 X30.01 Y40.22 E275.10877
G0 F12000 X29.35 Y40.22
G1 F1920 X28.88 Y39.76 E275.13425
G0 F12000 X54.32 Y32.90
G1 F1920 X55.65 Y34.23 E275.20689
G0 F12000 X55.73 Y33.65
G1 F1920 X54.85 Y32.77 E275.25511
G0 F12000 X55.37 Y32.64
G1 F1920 X55.92 Y33.19 E275.28533
;LAYER:3
G0 F12000 X56.10 Y33.21 Z0.90
;TYPE:WALL-INNER
G1 F1920 X55.94 Y33.51 E275.29843
G1 X55.84 Y33.83 E275.31155
G1 X55.81 Y34.17 E275.32471
G1 X55.84 Y34.51 E275.33788
G1 X55.94 Y34.83 E275.35099
G1 X56.10 Y35.13 E275.36410
G1 X56.21 Y35.26 E275.37060
G1 X56.10 Y35.38 E275.37693
G1 X55.94 Y35.69 E275.39017
G1 X55.84 Y36.01 E275.40328
G1 X55.81 Y36.35 E275.41645
G1 X55.83 Y36.56 E275.42455
G1 X51.79 Y36.56 E275.58117
G1 X51.79 Y40.39 E275.72961
G1 X28.72 Y40.39 E276.62353
G1 X28.72 Y39.17 E276.67053
G1 X44.78 Y35.13 E277.31209
G1 X55.85 Y32.35 E277.75460
G1 X55.94 Y32.65 E277.76675
G1 X56.10 Y32.95 E277.77999
G1 X56.21 Y33.08 E277.78632
G1 X56.10 Y33.21 E277.79282
G0 F12000 X56.49 Y33.47
G1 F1920 X56.38 Y33.68 E277.80243
G1 X56.30 Y33.92 E277.81199
G1 X56.28 Y34.17 E277.82160
G1 X56.30 Y34.41 E277.83122
G1 X56.38 Y34.65 E277.84078
G1 X56.49 Y34.87 E277.85038
G1 X56.65 Y35.06 E277.86011
G1 X56.84 Y35.22 E277.86983
G1 X56.91 Y35.26 E277.87276
G1 X56.84 Y35.29 E277.87580
G1 X56.65 Y35.45 E277.88548
G1 X56.49 Y35.64 E277.89506
G1 X56.38 Y35.87 E277.90475
G1 X56.30 Y36.10 E277.91431
G1 X56.28 Y36.35 E277.92393
G1 X56.30 Y36.59 E277.93355
G1 X56.38 Y36.83 E277.94311
G1 X56.48 Y37.02 E277.95148
G1 X52.26 Y37.02 E278.11503
G1 X52.26 Y40.85 E278.26348
G1 X28.25 Y40.85 E279.19351
G1 X28.25 Y38.81 E279.27263
G1 X56.30 Y31.75 E280.39336
G1 X56.28 Y31.99 E280.40243
G1 X56.30 Y32.23 E280.41205
G1 X56.38 Y32.47 E280.42161
G1 X56.49 Y32.69 E280.43130
G1 X56.65 Y32.88 E280.44088
G1 X56.84 Y33.04 E280.45056
G1 X56.91 Y33.08 E280.45360
G1 X56.84 Y33.11 E280.45653
G1 X56.65 Y33.27 E280.46625
G1 X56.49 Y33.47 E280.47598
G1 F2400 E279.27598
G0 F12000 X58.18 Y33.08
G1 F2400 E280.47598
G1 F1920 X58.25 Y33.04 E280.47910
G1 X58.44 Y32.88 E280.48864
G1 X58.61 Y32.66 E280.49940
G1 X58.61 Y33.49 E280.53136
G1 X58.60 Y33.46 E280.53251
G1 X58.44 Y33.27 E280.54220
G1 X58.25 Y33.11 E280.55178
G1 X58.18 Y33.08 E280.55479
G0 F12000 X58.78 Y31.99
G0 X58.61 Y31.31
G1 F1920 X58.53 Y31.19 E280.56035
G1 X58.61 Y31.17 E280.56383
G1 X58.61 Y31.31 E280.56910
G0 F12000 X58.61 Y34.84
G1 F1920 X58.61 Y35.67 E280.60106
G1 X58.44 Y35.45 E280.61182
G1 X58.25 Y35.30 E280.62136
G1 X58.18 Y35.26 E280.62448
G1 X58.25 Y35.22 E280.62750
G1 X58.44 Y35.06 E280.63708
G1 X58.60 Y34.87 E280.64677
G1 X58.61 Y34.84 E280.64791
G0 F12000 X58.21 Y34.61
;TYPE:WALL-OUTER
G1 F1920 X58.28 Y34.47 E280.65400
G1 X58.33 Y34.32 E280.66004
G1 X58.34 Y34.17 E280.66611
G1 X58.33 Y34.01 E280.67218
G1 X58.28 Y33.86 E280.67823
G1 X58.21 Y33.72 E280.68431
G1 X58.11 Y33.60 E280.69045
G1 X57.99 Y33.50 E280.69647
G1 X57.85 Y33.43 E280.70256
G1 X57.70 Y33.38 E280.70860
G1 X57.55 Y33.37 E280.71467
G1 X57.39 Y33.38 E280.72075
G1 X57.24 Y33.43 E280.72679
G1 X57.10 Y33.50 E280.73284
G1 X56.98 Y33.60 E280.73895
G1 X56.88 Y33.72 E280.74507
G1 X56.81 Y33.86 E280.75112
G1 X56.76 Y34.01 E280.75716
G1 X56.75 Y34.17 E280.76324
G1 X56.76 Y34.32 E280.76931
G1 X56.81 Y34.47 E280.77535
G1 X56.88 Y34.61 E280.78140
G1 X56.98 Y34.73 E280.78752
G1 X57.10 Y34.83 E280.79364
G1 X57.24 Y34.91 E280.79969
G1 X57.39 Y34.95 E280.80573
G1 X57.55 Y34.97 E280.81180
G1 X57.70 Y34.95 E280.81787
G1 X57.85 Y34.91 E280.82392
G1 X57.99 Y34.83 E280.83000
G1 X58.11 Y34.73 E280.83603
G1 X58.21 Y34.61 E280.84217
G0 F12000 X57.85 Y35.61
G1 F1920 X57.70 Y35.56 E280.84821
G1 X57.55 Y35.55 E280.85428
G1 X57.39 Y35.56 E280.86035
G1 X57.24 Y35.61 E280.86639
G1 X57.10 Y35.68 E280.87248
G1 X56.98 Y35.78 E280.87862
G1 X56.88 Y35.90 E280.88464
G1 X56.81 Y36.04 E280.89073
G1 X56.76 Y36.19 E280.89677
G1 X56.75 Y36.35 E280.90284
G1 X56.76 Y36.50 E280.90891
G1 X56.81 Y36.65 E280.91496
G1 X56.88 Y36.79 E280.92101
G1 X56.98 Y36.91 E280.92712
G1 X57.10 Y37.01 E280.93324
G1 X57.24 Y37.09 E280.93929
G1 X57.39 Y37.13 E280.94533
G1 X57.55 Y37.15 E280.95141
G1 X57.70 Y37.13 E280.95748
G1 X57.85 Y37.09 E280.96352
G1 X57.99 Y37.01 E280.96960
G1 X58.11 Y36.91 E280.97563
G1 X58.21 Y36.79 E280.98177
G1 X58.28 Y36.65 E280.98785
G1 X58.33 Y36.50 E280.99390
G1 X58.34 Y36.35 E280.99997
G1 X58.33 Y36.19 E281.00604
G1 X58.28 Y36.04 E281.01208
G1 X58.21 Y35.90 E281.01822
G1 X58.11 Y35.78 E281.02424
G1 X57.99 Y35.68 E281.03026
G1 X57.85 Y35.61 E281.03640
G0 F12000 X58.01 Y35.32
G0 X58.76 Y36.11
G0 X58.75 Y37.24
G0 X59.08 Y37.49
G1 F1920 X52.72 Y37.49 E281.28280
G1 X52.72 Y41.32 E281.43124
G1 X27.79 Y41.32 E282.39739
G1 X27.79 Y38.45 E282.50863
G1 X59.08 Y30.57 E283.75897
G1 X59.08 Y37.49 E284.02688
G0 F12000 X58.75 Y37.24
G0 X58.69 Y35.88
G0 X58.57 Y33.48
G0 X58.02 Y33.03
G0 X57.80 Y33.09
G0 X57.70 Y32.77
G1 F1920 X57.85 Y32.72 E284.03292
G1 X57.99 Y32.65 E284.03905
G1 X58.11 Y32.55 E284.04508
G1 X58.21 Y32.43 E284.05110
G1 X58.28 Y32.29 E284.05724
G1 X58.33 Y32.14 E284.06328
G1 X58.34 Y31.99 E284.06935
G1 X58.33 Y31.83 E284.07542
G1 X58.28 Y31.68 E284.08147
G1 X58.21 Y31.54 E284.08755
G1 X58.11 Y31.42 E284.09369
G1 X57.99 Y31.32 E284.09971
G1 X57.85 Y31.25 E284.10580
G1 X57.70 Y31.20 E284.11184
G1 X57.55 Y31.19 E284.11791
G1 X57.39 Y31.20 E284.12399
G1 X57.24 Y31.25 E284.13003
G1 X57.10 Y31.32 E284.13608
G1 X56.98 Y31.42 E284.14220
G1 X56.88 Y31.54 E284.14831
G1 X56.81 Y31.68 E284.15436
G1 X56.76 Y31.83 E284.16040
G1 X56.75 Y31.99 E284.16648
G1 X56.76 Y32.14 E284.17255
G1 X56.81 Y32.29 E284.17859
G1 X56.88 Y32.43 E284.18468
G1 X56.98 Y32.55 E284.19070
G1 X57.10 Y32.65 E284.19684
G1 X57.24 Y32.72 E284.20292
G1 X57.39 Y32.77 E284.20897
G1 X57.55 Y32.78 E284.21504
G1 X57.70 Y32.77 E284.22111
G0 F12000 X57.80 Y33.09
G0 X55.84 Y32.80
;TYPE:FILL
G1 F1920 X52.25 Y36.39 E284.41784
G0 F12000 X52.91 Y36.39
G1 F1920 X55.76 Y33.54 E284.57418
G0 F12000 X55.66 Y34.30
G1 F1920 X53.56 Y36.39 E284.68887
G0 F12000 X54.22 Y36.39
G1 F1920 X55.77 Y34.84 E284.77378
G0 F12000 X55.94 Y35.33
G1 F1920 X54.88 Y36.39 E284.83184
G0 F12000 X55.54 Y36.39
G1 F1920 X55.65 Y36.28 E284.83778
G0 F12000 X54.45 Y32.87
G1 F1920 X47.10 Y40.22 E285.24085
G0 F12000 X47.76 Y40.22
G1 F1920 X55.33 Y32.65 E285.65605
G0 F12000 X53.57 Y33.09
G1 F1920 X46.44 Y40.22 E286.04695
G0 F12000 X45.78 Y40.22
G1 F1920 X52.69 Y33.31 E286.42572
G0 F12000 X51.81 Y33.53
G1 F1920 X45.12 Y40.22 E286.79237
G0 F12000 X44.46 Y40.22
G1 F1920 X50.93 Y33.75 E287.14686
G0 F12000 X50.05 Y33.98
G1 F1920 X43.80 Y40.22 E287.48921
G0 F12000 X43.14 Y40.22
G1 F1920 X49.17 Y34.20 E287.81942
G0 F12000 X48.29 Y34.42
G1 F1920 X42.48 Y40.22 E288.13747
G0 F12000 X41.83 Y40.22
G1 F1920 X47.41 Y34.64 E288.44338
G0 F12000 X46.53 Y34.86
G1 F1920 X41.17 Y40.22 E288.73718
G0 F12000 X40.51 Y40.22
G1 F1920 X45.65 Y35.08 E289.01882
G0 F12000 X44.77 Y35.30
G1 F1920 X39.85 Y40.22 E289.28831
G0 F12000 X39.19 Y40.22
G1 F1920 X43.88 Y35.53 E289.54567
G0 F12000 X43.00 Y35.75
G1 F1920 X38.53 Y40.22 E289.79087
G0 F12000 X37.87 Y40.22
G1 F1920 X42.12 Y35.97 E290.02395
G0 F12000 X41.24 Y36.19
G1 F1920 X37.21 Y40.22 E290.24489
G0 F12000 X36.55 Y40.22
G1 F1920 X40.36 Y36.41 E290.45368
G0 F12000 X39.48 Y36.63
G1 F1920 X35.89 Y40.22 E290.65032
G0 F12000 X35.23 Y40.22
G1 F1920 X38.60 Y36.85 E290.83485
G0 F12000 X37.72 Y37.08
G1 F1920 X34.58 Y40.22 E291.00722
G0 F12000 X33.92 Y40.22
G1 F1920 X36.84 Y37.30 E291.16742
G0 F12000 X35.96 Y37.52
G1 F1920 X33.26 Y40.22 E291.31551
G0 F12000 X32.60 Y40.22
G1 F1920 X35.08 Y37.74 E291.45144
G0 F12000 X34.20 Y37.96
G1 F1920 X31.94 Y40.22 E291.57525
G0 F12000 X31.28 Y40.22
G1 F1920 X33.32 Y38.19 E291.68693
G0 F12000 X32.44 Y38.41
G1 F1920 X30.62 Y40.22 E291.78645
G0 F12000 X29.96 Y40.22
G1 F1920 X31.56 Y38.63 E291.87385
G0 F12000 X30.68 Y38.85
G1 F1920 X29.30 Y40.22 E291.94914
G0 F12000 X28.88 Y39.98
G1 F1920 X29.80 Y39.07 E291.99917
G0 F12000 X48.41 Y40.22
G1 F1920 X51.62 Y37.01 E292.17502
G0 F12000 X51.62 Y37.67
G1 F1920 X49.07 Y40.22 E292.31475
G0 F12000 X49.73 Y40.22
G1 F1920 X51.62 Y38.33 E292.41838
G0 F12000 X51.62 Y38.99
G1 F1920 X50.39 Y40.22 E292.48589
G0 F12000 X51.05 Y40.22
G1 F1920 X51.62 Y39.65 E292.51729
;LAYER:4
G0 F12000 X51.79 Y40.39 Z1.10
;TYPE:WALL-INNER
G1 F1920 X28.72 Y40.39 E293.41120
G1 X28.72 Y39.17 E293.45821
G1 X55.85 Y32.35 E294.54228
G1 X55.94 Y32.65 E294.55443
G1 X56.10 Y32.95 E294.56767
G1 X56.21 Y33.08 E294.57400
G1 X56.10 Y33.21 E294.58050
G1 X55.94 Y33.51 E294.59360
G1 X55.84 Y33.83 E294.60672
G1 X55.81 Y34.17 E294.61988
G1 X55.84 Y34.51 E294.63305
G1 X55.94 Y34.83 E294.64616
G1 X56.10 Y35.13 E294.65927
G1 X56.21 Y35.26 E294.66576
G1 X56.10 Y35.38 E294.67210
G1 X55.94 Y35.69 E294.68534
G1 X55.84 Y36.01 E294.69845
G1 X55.81 Y36.35 E294.71162
G1 X55.83 Y36.56 E294.71972
G1 X51.79 Y36.56 E294.87634
G1 X51.79 Y40.39 E295.02478
G0 F12000 X52.26 Y40.85
G1 F1920 X28.25 Y40.85 E295.95481
G1 X28.25 Y38.81 E296.03394
G1 X56.30 Y31.75 E297.15466
G1 X56.28 Y31.99 E297.16373
G1 X56.30 Y32.23 E297.17335
G1 X56.38 Y32.47 E297.18291
G1 X56.49 Y32.69 E297.19260
G1 X56.65 Y32.88 E297.20218
G1 X56.84 Y33.04 E297.21187
G1 X56.91 Y33.08 E297.21490
G1 X56.84 Y33.11 E297.21783
G1 X56.65 Y33.27 E297.22756
G1 X56.49 Y33.47 E297.23728
G1 X56.38 Y33.68 E297.24688
G1 X56.30 Y33.92 E297.25644
G1 X56.28 Y34.17 E297.26606
G1 X56.30 Y34.41 E297.27568
G1 X56.38 Y34.65 E297.28524
G1 X56.49 Y34.87 E297.29484
G1 X56.65 Y35.06 E297.30456
G1 X56.84 Y35.22 E297.31429
G1 X56.91 Y35.26 E297.31722
G1 X56.84 Y35.29 E297.32025
G1 X56.65 Y35.45 E297.32994
G1 X56.49 Y35.64 E297.33952
G1 X56.38 Y35.87 E297.34921
G1 X56.30 Y36.10 E297.35877
G1 X56.28 Y36.35 E297.36839
G1 X56.30 Y36.59 E297.37800
G1 X56.38 Y36.83 E297.38756
G1 X56.48 Y37.02 E297.39593
G1 X52.26 Y37.02 E297.55949
G1 X52.26 Y40.85 E297.70793
G1 F2400 E296.50793
G0 F12000 X58.18 Y35.26
G1 F2400 E297.70793
G1 F1920 X58.25 Y35.22 E297.71095
G1 X58.44 Y35.06 E297.72053
G1 X58.60 Y34.87 E297.73022
G1 X58.61 Y34.84 E297.73136
G1 X58.61 Y35.67 E297.76333
G1 X58.44 Y35.45 E297.77408
G1 X58.25 Y35.30 E297.78363
G1 X58.18 Y35.26 E297.78675
G0 F12000 X58.78 Y34.17
G0 X58.61 Y33.49
G1 F1920 X58.60 Y33.46 E297.78789
G1 X58.44 Y33.27 E297.79758
G1 X58.25 Y33.11 E297.80716
G1 X58.18 Y33.08 E297.81018
G1 X58.25 Y33.04 E297.81330
G1 X58.44 Y32.88 E297.82284
G1 X58.61 Y32.66 E297.83360
G1 X58.61 Y33.49 E297.86557
G0 F12000 X58.61 Y31.31
G1 F1920 X58.53 Y31.19 E297.87112
G1 X58.61 Y31.17 E297.87460
G1 X58.61 Y31.31 E297.87987
G0 F12000 X58.21 Y31.54
;TYPE:WALL-OUTER
G1 F1920 X58.11 Y31.42 E297.88601
G1 X57.99 Y31.32 E297.89203
G1 X57.85 Y31.25 E297.89812
G1 X57.70 Y31.20 E297.90416
G1 X57.55 Y31.19 E297.91023
G1 X57.39 Y31.20 E297.91631
G1 X57.24 Y31.25 E297.92235
G1 X57.10 Y31.32 E297.92840
G1 X56.98 Y31.42 E297.93451
G1 X56.88 Y31.54 E297.94063
G1 X56.81 Y31.68 E297.94668
G1 X56.76 Y31.83 E297.95272
G1 X56.75 Y31.99 E297.95880
G1 X56.76 Y32.14 E297.96487
G1 X56.81 Y32.29 E297.97091
G1 X56.88 Y32.43 E297.97700
G1 X56.98 Y32.55 E297.98302
G1 X57.10 Y32.65 E297.98916
G1 X57.24 Y32.72 E297.99524
G1 X57.39 Y32.77 E298.00129
G1 X57.55 Y32.78 E298.00736
G1 X57.70 Y32.77 E298.01343
G1 X57.85 Y32.72 E298.01947
G1 X57.99 Y32.65 E298.02561
G1 X58.11 Y32.55 E298.03163
G1 X58.21 Y32.43 E298.03766
G1 X58.28 Y32.29 E298.04379
G1 X58.33 Y32.14 E298.04983
G1 X58.34 Y31.99 E298.05591
G1 X58.33 Y31.83 E298.06198
G1 X58.28 Y31.68 E298.06802
G1 X58.21 Y31.54 E298.07410
G0 F12000 X59.08 Y30.57
G1 F1920 X59.08 Y37.49 E298.34201
G1 X52.72 Y37.49 E298.58841
G1 X52.72 Y41.32 E298.73685
G1 X27.79 Y41.32 E299.70300
G1 X27.79 Y38.45 E299.81424
G1 X59.08 Y30.57 E301.06458
G1 F2400 E299.86458
G0 F12000 X57.85 Y33.43
G1 F2400 E301.06458
G1 F1920 X57.70 Y33.38 E301.07062
G1 X57.55 Y33.37 E301.07670
G1 X57.39 Y33.38 E301.08277
G1 X57.24 Y33.43 E301.08881
G1 X57.10 Y33.50 E301.09486
G1 X56.98 Y33.60 E301.10098
G1 X56.88 Y33.72 E301.10710
G1 X56.81 Y33.86 E301.11314
G1 X56.76 Y34.01 E301.11919
G1 X56.75 Y34.17 E301.12526
G1 X56.76 Y34.32 E301.13133
G1 X56.81 Y34.47 E301.13737
G1 X56.88 Y34.61 E301.14342
G1 X56.98 Y34.73 E301.14954
G1 X57.10 Y34.83 E301.15566
G1 X57.24 Y34.91 E301.16171
G1 X57.39 Y34.95 E301.16775
G1 X57.55 Y34.97 E301.17382
G1 X57.70 Y34.95 E301.17990
G1 X57.85 Y34.91 E301.18594
G1 X57.99 Y34.83 E301.19202
G1 X58.11 Y34.73 E301.19805
G1 X58.21 Y34.61 E301.20419
G1 X58.28 Y34.47 E301.21027
G1 X58.33 Y34.32 E301.21631
G1 X58.34 Y34.17 E301.22239
G1 X58.33 Y34.01 E301.22846
G1 X58.28 Y33.86 E301.23450
G1 X58.21 Y33.72 E301.24058
G1 X58.11 Y33.60 E301.24672
G1 X57.99 Y33.50 E301.25275
G1 X57.85 Y33.43 E301.25883
G0 F12000 X58.01 Y33.13
G0 X58.76 Y33.93
G0 X58.42 Y35.04
G0 X58.02 Y35.31
G0 X57.80 Y35.25
G0 X57.70 Y35.56
G1 F1920 X57.55 Y35.55 E301.26491
G1 X57.39 Y35.56 E301.27098
G1 X57.24 Y35.61 E301.27702
G1 X57.10 Y35.68 E301.28310
G1 X56.98 Y35.78 E301.28924
G1 X56.88 Y35.90 E301.29527
G1 X56.81 Y36.04 E301.30135
G1 X56.76 Y36.19 E301.30739
G1 X56.75 Y36.35 E301.31347
G1 X56.76 Y36.50 E301.31954
G1 X56.81 Y36.65 E301.32558
G1 X56.88 Y36.79 E301.33163
G1 X56.98 Y36.91 E301.33775
G1 X57.10 Y37.01 E301.34387
G1 X57.24 Y37.09 E301.34992
G1 X57.39 Y37.13 E301.35596
G1 X57.55 Y37.15 E301.36203
G1 X57.70 Y37.13 E301.36810
G1 X57.85 Y37.09 E301.37415
G1 X57.99 Y37.01 E301.38023
G1 X58.11 Y36.91 E301.38626
G1 X58.21 Y36.79 E301.39240
G1 X58.28 Y36.65 E301.39848
G1 X58.33 Y36.50 E301.40452
G1 X58.34 Y36.35 E301.41059
G1 X58.33 Y36.19 E301.41667
G1 X58.28 Y36.04 E301.42271
G1 X58.21 Y35.90 E301.42884
G1 X58.11 Y35.78 E301.43487
G1 X57.99 Y35.68 E301.44089
G1 X57.85 Y35.61 E301.44703
G1 X57.70 Y35.56 E301.45307
G0 F12000 X57.80 Y35.25
G0 X55.94 Y35.18
;TYPE:FILL
G1 F1920 X53.79 Y33.03 E301.57091
G0 F12000 X53.27 Y33.17
G1 F1920 X55.77 Y35.67 E301.70832
G0 F12000 X55.66 Y36.22
G1 F1920 X52.74 Y33.30 E301.86816
G0 F12000 X52.21 Y33.43
G1 F1920 X55.17 Y36.39 E302.03034
G0 F12000 X54.52 Y36.39
G1 F1920 X51.69 Y33.56 E302.18528
G0 F12000 X51.16 Y33.70
G1 F1920 X53.86 Y36.39 E302.33293
G0 F12000 X53.20 Y36.39
G1 F1920 X50.63 Y33.83 E302.47335
G0 F12000 X50.11 Y33.96
G1 F1920 X52.54 Y36.39 E302.60654
G0 F12000 X51.88 Y36.39
G1 F1920 X49.58 Y34.09 E302.73244
G0 F12000 X49.05 Y34.23
G1 F1920 X51.62 Y36.80 E302.87327
G0 F12000 X51.62 Y37.45
G1 F1920 X48.53 Y34.36 E303.04292
G0 F12000 X48.00 Y34.49
G1 F1920 X51.62 Y38.11 E303.24146
G0 F12000 X51.62 Y38.77
G1 F1920 X47.48 Y34.62 E303.46881
G0 F12000 X46.95 Y34.76
G1 F1920 X51.62 Y39.43 E303.72505
G0 F12000 X51.62 Y40.09
G1 F1920 X46.42 Y34.89 E304.01011
G0 F12000 X45.90 Y35.02
G1 F1920 X51.10 Y40.22 E304.29511
G0 F12000 X50.44 Y40.22
G1 F1920 X45.37 Y35.15 E304.57283
G0 F12000 X44.84 Y35.29
G1 F1920 X49.78 Y40.22 E304.84331
G0 F12000 X49.12 Y40.22
G1 F1920 X44.31 Y35.42 E305.10656
G0 F12000 X43.79 Y35.55
G1 F1920 X48.46 Y40.22 E305.36252
G0 F12000 X47.80 Y40.22
G1 F1920 X43.26 Y35.68 E305.61123
G0 F12000 X42.74 Y35.82
G1 F1920 X47.14 Y40.22 E305.85267
G0 F12000 X46.48 Y40.22
G1 F1920 X42.21 Y35.95 E306.08682
G0 F12000 X41.68 Y36.08
G1 F1920 X45.82 Y40.22 E306.31374
G0 F12000 X45.16 Y40.22
G1 F1920 X41.16 Y36.21 E306.53342
G0 F12000 X40.63 Y36.35
G1 F1920 X44.51 Y40.22 E306.74582
G0 F12000 X43.85 Y40.22
G1 F1920 X40.10 Y36.48 E306.95096
G0 F12000 X39.58 Y36.61
G1 F1920 X43.19 Y40.22 E307.14883
G0 F12000 X42.53 Y40.22
G1 F1920 X39.05 Y36.74 E307.33942
G0 F12000 X38.52 Y36.88
G1 F1920 X41.87 Y40.22 E307.52277
G0 F12000 X41.21 Y40.22
G1 F1920 X38.00 Y37.01 E307.69884
G0 F12000 X37.47 Y37.14
G1 F1920 X40.55 Y40.22 E307.86764
G0 F12000 X39.89 Y40.22
G1 F1920 X36.94 Y37.27 E308.02922
G0 F12000 X36.42 Y37.41
G1 F1920 X39.23 Y40.22 E308.18350
G0 F12000 X38.57 Y40.22
G1 F1920 X35.89 Y37.54 E308.33055
G0 F12000 X35.36 Y37.67
G1 F1920 X37.91 Y40.22 E308.47034
G0 F12000 X37.26 Y40.22
G1 F1920 X34.84 Y37.80 E308.60284
G0 F12000 X34.31 Y37.94
G1 F1920 X36.60 Y40.22 E308.72811
G0 F12000 X35.94 Y40.22
G1 F1920 X33.78 Y38.07 E308.84614
G0 F12000 X33.26 Y38.20
G1 F1920 X35.28 Y40.22 E308.95689
G0 F12000 X34.62 Y40.22
G1 F1920 X32.73 Y38.33 E309.06041
G0 F12000 X32.20 Y38.47
G1 F1920 X33.96 Y40.22 E309.15666
G0 F12000 X33.30 Y40.22
G1 F1920 X31.68 Y38.60 E309.24562
G0 F12000 X31.15 Y38.73
G1 F1920 X32.64 Y40.22 E309.32733
G0 F12000 X31.98 Y40.22
G1 F1920 X30.63 Y38.86 E309.40174
G0 F12000 X30.10 Y39.00
G1 F1920 X31.32 Y40.22 E309.46892
G0 F12000 X30.67 Y40.22
G1 F1920 X29.57 Y39.13 E309.52887
G0 F12000 X29.05 Y39.26
G1 F1920 X30.01 Y40.22 E309.58153
G0 F12000 X29.35 Y40.22
G1 F1920 X28.88 Y39.76 E309.60702
G0 F12000 X54.32 Y32.90
G1 F1920 X55.65 Y34.23 E309.68003
G0 F12000 X55.73 Y33.65
G1 F1920 X54.85 Y32.77 E309.72826
G0 F12000 X55.37 Y32.64
G1 F1920 X55.92 Y33.19 E309.75840
;LAYER:5
G0 F12000 X56.10 Y33.21 Z1.30
;TYPE:WALL-INNER
G1 F1920 X55.94 Y33.51 E309.77150
G1 X55.84 Y33.83 E309.78461
G1 X55.81 Y34.17 E309.79778
G1 X55.84 Y34.51 E309.81094
G1 X55.94 Y34.83 E309.82406
G1 X56.10 Y35.13 E309.83716
G1 X56.21 Y35.26 E309.84366
G1 X56.10 Y35.38 E309.84999
G1 X55.94 Y35.69 E309.86323
G1 X55.84 Y36.01 E309.87635
G1 X55.81 Y36.35 E309.88951
G1 X55.83 Y36.56 E309.89761
G1 X51.79 Y36.56 E310.05423
G1 X51.79 Y40.39 E310.20268
G1 X28.72 Y40.39 E311.09659
G1 X28.72 Y39.17 E311.14360
G1 X53.25 Y33.00 E312.12358
G1 X53.81 Y32.86 E312.14628
G1 X55.85 Y32.35 E312.22768
G1 X55.94 Y32.65 E312.23986
G1 X56.10 Y32.95 E312.25311
G1 X56.21 Y33.08 E312.25944
G1 X56.10 Y33.21 E312.26594
G0 F12000 X56.49 Y33.47
G1 F1920 X56.38 Y33.68 E312.27554
G1 X56.30 Y33.92 E312.28510
G1 X56.28 Y34.17 E312.29471
G1 X56.30 Y34.41 E312.30433
G1 X56.38 Y34.65 E312.31389
G1 X56.49 Y34.87 E312.32349
G1 X56.65 Y35.06 E312.33322
G1 X56.84 Y35.22 E312.34294
G1 X56.91 Y35.26 E312.34587
G1 X56.84 Y35.29 E312.34891
G1 X56.65 Y35.45 E312.35860
G1 X56.49 Y35.64 E312.36818
G1 X56.38 Y35.87 E312.37787
G1 X56.30 Y36.10 E312.38743
G1 X56.28 Y36.35 E312.39704
G1 X56.30 Y36.59 E312.40666
G1 X56.38 Y36.83 E312.41622
G1 X56.48 Y37.02 E312.42459
G1 X52.26 Y37.02 E312.58815
G1 X52.26 Y40.85 E312.73659
G1 X28.25 Y40.85 E313.66662
G1 X28.25 Y38.81 E313.74574
G1 X56.30 Y31.75 E314.86646
G1 X56.28 Y31.99 E314.87549
G1 X56.30 Y32.23 E314.88511
G1 X56.38 Y32.47 E314.89467
G1 X56.49 Y32.69 E314.90436
G1 X56.65 Y32.88 E314.91394
G1 X56.84 Y33.04 E314.92363
G1 X56.91 Y33.08 E314.92666
G1 X56.84 Y33.11 E314.92959
G1 X56.65 Y33.27 E314.93932
G1 X56.49 Y33.47 E314.94904
G1 F2400 E313.74904
G0 F12000 X58.18 Y33.08
G1 F2400 E314.94904
G1 F1920 X58.25 Y33.04 E314.95216
G1 X58.44 Y32.88 E314.96171
G1 X58.61 Y32.66 E314.97246
G1 X58.61 Y33.49 E315.00443
G1 X58.60 Y33.46 E315.00557
G1 X58.44 Y33.27 E315.01526
G1 X58.25 Y33.11 E315.02484
G1 X58.18 Y33.08 E315.02786
G0 F12000 X58.78 Y31.99
G0 X58.61 Y31.31
G1 F1920 X58.53 Y31.19 E315.03341
G1 X58.61 Y31.17 E315.03689
G1 X58.61 Y31.31 E315.04216
G0 F12000 X58.61 Y34.84
G1 F1920 X58.61 Y35.67 E315.07413
G1 X58.44 Y35.45 E315.08488
G1 X58.25 Y35.30 E315.09443
G1 X58.18 Y35.26 E315.09755
G1 X58.25 Y35.22 E315.10056
G1 X58.44 Y35.06 E315.11014
G1 X58.60 Y34.87 E315.11983
G1 X58.61 Y34.84 E315.12098
G0 F12000 X58.21 Y34.61
;TYPE:WALL-OUTER
G1 F1920 X58.28 Y34.47 E315.12706
G1 X58.33 Y34.32 E315.13310
G1 X58.34 Y34.17 E315.13917
G1 X58.33 Y34.01 E315.14525
G1 X58.28 Y33.86 E315.15129
G1 X58.21 Y33.72 E315.15737
G1 X58.11 Y33.60 E315.16351
G1 X57.99 Y33.50 E315.16954
G1 X57.85 Y33.43 E315.17562
G1 X57.70 Y33.38 E315.18166
G1 X57.55 Y33.37 E315.18774
G1 X57.39 Y33.38 E315.19381
G1 X57.24 Y33.43 E315.19985
G1 X57.10 Y33.50 E315.20590
G1 X56.98 Y33.60 E315.21202
G1 X56.88 Y33.72 E315.21814
G1 X56.81 Y33.86 E315.22419
G1 X56.76 Y34.01 E315.23023
G1 X56.75 Y34.17 E315.23630
G1 X56.76 Y34.32 E315.24237
G1 X56.81 Y34.47 E315.24842
G1 X56.88 Y34.61 E315.25446
G1 X56.98 Y34.73 E315.26058
G1 X57.10 Y34.83 E315.26670
G1 X57.24 Y34.91 E315.27275
G1 X57.39 Y34.95 E315.27879
G1 X57.55 Y34.97 E315.28486
G1 X57.70 Y34.95 E315.29094
G1 X57.85 Y34.91 E315.29698
G1 X57.99 Y34.83 E315.30306
G1 X58.11 Y34.73 E315.30909
G1 X58.21 Y34.61 E315.31523
G0 F12000 X57.85 Y35.61
G1 F1920 X57.70 Y35.56 E315.32127
G1 X57.55 Y35.55 E315.32734
G1 X57.39 Y35.56 E315.33342
G1 X57.24 Y35.61 E315.33946
G1 X57.10 Y35.68 E315.34554
G1 X56.98 Y35.78 E315.35168
G1 X56.88 Y35.90 E315.35771
G1 X56.81 Y36.04 E315.36379
G1 X56.76 Y36.19 E315.36983
G1 X56.75 Y36.35 E315.37591
G1 X56.76 Y36.50 E315.38198
G1 X56.81 Y36.65 E315.38802
G1 X56.88 Y36.79 E315.39407
G1 X56.98 Y36.91 E315.40019
G1 X57.10 Y37.01 E315.40631
G1 X57.24 Y37.09 E315.41235
G1 X57.39 Y37.13 E315.41840
G1 X57.55 Y37.15 E315.42447
G1 X57.70 Y37.13 E315.43054
G1 X57.85 Y37.09 E315.43658
G1 X57.99 Y37.01 E315.44267
G1 X58.11 Y36.91 E315.44870
G1 X58.21 Y36.79 E315.45483
G1 X58.28 Y36.65 E315.46092
G1 X58.33 Y36.50 E315.46696
G1 X58.34 Y36.35 E315.47303
G1 X58.33 Y36.19 E315.47910
G1 X58.28 Y36.04 E315.48515
G1 X58.21 Y35.90 E315.49128
G1 X58.11 Y35.78 E315.49731
G1 X57.99 Y35.68 E315.50333
G1 X57.85 Y35.61 E315.50946
G0 F12000 X58.01 Y35.32
G0 X58.76 Y36.11
G0 X58.75 Y37.24
G0 X59.08 Y37.49
G1 F1920 X52.72 Y37.49 E315.75586
G1 X52.72 Y41.32 E315.90431
G1 X27.79 Y41.32 E316.87045
G1 X27.79 Y38.45 E316.98170
G1 X59.08 Y30.57 E318.23204
G1 X59.08 Y37.49 E318.49994
G0 F12000 X58.75 Y37.24
G0 X58.69 Y35.88
G0 X58.57 Y33.48
G0 X58.02 Y33.03
G0 X57.80 Y33.09
G0 X57.70 Y32.77
G1 F1920 X57.85 Y32.72 E318.50598
G1 X57.99 Y32.65 E318.51212
G1 X58.11 Y32.55 E318.51814
G1 X58.21 Y32.43 E318.52416
G1 X58.28 Y32.29 E318.53030
G1 X58.33 Y32.14 E318.53634
G1 X58.34 Y31.99 E318.54241
G1 X58.33 Y31.83 E318.54849
G1 X58.28 Y31.68 E318.55453
G1 X58.21 Y31.54 E318.56061
G1 X58.11 Y31.42 E318.56675
G1 X57.99 Y31.32 E318.57278
G1 X57.85 Y31.25 E318.57886
G1 X57.70 Y31.20 E318.58490
G1 X57.55 Y31.19 E318.59098
G1 X57.39 Y31.20 E318.59705
G1 X57.24 Y31.25 E318.60309
G1 X57.10 Y31.32 E318.60914
G1 X56.98 Y31.42 E318.61526
G1 X56.88 Y31.54 E318.62138
G1 X56.81 Y31.68 E318.62743
G1 X56.76 Y31.83 E318.63347
G1 X56.75 Y31.99 E318.63954
G1 X56.76 Y32.14 E318.64561
G1 X56.81 Y32.29 E318.65166
G1 X56.88 Y32.43 E318.65774
G1 X56.98 Y32.55 E318.66377
G1 X57.10 Y32.65 E318.66990
G1 X57.24 Y32.72 E318.67599
G1 X57.39 Y32.77 E318.68203
G1 X57.55 Y32.78 E318.68810
G1 X57.70 Y32.77 E318.69418
G0 F12000 X57.80 Y33.09
G0 X55.84 Y32.80
;TYPE:FILL
G1 F1920 X52.25 Y36.39 E318.89090
G0 F12000 X52.91 Y36.39
G1 F1920 X55.76 Y33.54 E319.04724
G0 F12000 X55.66 Y34.30
G1 F1920 X53.56 Y36.39 E319.16193
G0 F12000 X54.22 Y36.39
G1 F1920 X55.77 Y34.84 E319.24684
G0 F12000 X55.94 Y35.33
G1 F1920 X54.88 Y36.39 E319.30490
G0 F12000 X55.54 Y36.39
G1 F1920 X55.65 Y36.28 E319.31085
G0 F12000 X54.45 Y32.87
G1 F1920 X47.10 Y40.22 E319.71394
G0 F12000 X47.76 Y40.22
G1 F1920 X55.33 Y32.65 E320.12917
G0 F12000 X53.57 Y33.09
G1 F1920 X46.44 Y40.22 E320.52010
G0 F12000 X45.78 Y40.22
G1 F1920 X52.69 Y33.31 E320.89892
G0 F12000 X51.81 Y33.53
G1 F1920 X45.12 Y40.22 E321.26557
G0 F12000 X44.46 Y40.22
G1 F1920 X50.93 Y33.75 E321.62009
G0 F12000 X50.05 Y33.98
G1 F1920 X43.80 Y40.22 E321.96247
G0 F12000 X43.14 Y40.22
G1 F1920 X49.17 Y34.20 E322.29268
G0 F12000 X48.29 Y34.42
G1 F1920 X42.48 Y40.22 E322.61078
G0 F12000 X41.83 Y40.22
G1 F1920 X47.41 Y34.64 E322.91675
G0 F12000 X46.53 Y34.86
G1 F1920 X41.17 Y40.22 E323.21055
G0 F12000 X40.51 Y40.22
G1 F1920 X45.65 Y35.08 E323.49221
G0 F12000 X44.77 Y35.30
G1 F1920 X39.85 Y40.22 E323.76173
G0 F12000 X39.19 Y40.22
G1 F1920 X43.88 Y35.53 E324.01909
G0 F12000 X43.01 Y35.75
G1 F1920 X38.53 Y40.22 E324.26434
G0 F12000 X37.87 Y40.22
G1 F1920 X42.12 Y35.97 E324.49742
G0 F12000 X41.24 Y36.19
G1 F1920 X37.21 Y40.22 E324.71837
G0 F12000 X36.55 Y40.22
G1 F1920 X40.36 Y36.41 E324.92718
G0 F12000 X39.48 Y36.63
G1 F1920 X35.89 Y40.22 E325.12382
G0 F12000 X35.23 Y40.22
G1 F1920 X38.60 Y36.85 E325.30835
G0 F12000 X37.72 Y37.08
G1 F1920 X34.58 Y40.22 E325.48075
G0 F12000 X33.92 Y40.22
G1 F1920 X36.84 Y37.30 E325.64095
G0 F12000 X35.96 Y37.52
G1 F1920 X33.26 Y40.22 E325.78904
G0 F12000 X32.60 Y40.22
G1 F1920 X35.08 Y37.74 E325.92497
G0 F12000 X34.20 Y37.96
G1 F1920 X31.94 Y40.22 E326.04878
G0 F12000 X31.28 Y40.22
G1 F1920 X33.32 Y38.19 E326.16046
G0 F12000 X32.44 Y38.41
G1 F1920 X30.62 Y40.22 E326.25997
G0 F12000 X29.96 Y40.22
G1 F1920 X31.56 Y38.63 E326.34738
G0 F12000 X30.68 Y38.85
G1 F1920 X29.30 Y40.22 E326.42267
G0 F12000 X28.88 Y39.98
G1 F1920 X29.80 Y39.07 E326.47270
G0 F12000 X48.41 Y40.22
G1 F1920 X51.62 Y37.01 E326.64855
G0 F12000 X51.62 Y37.67
G1 F1920 X49.07 Y40.22 E326.78828
G0 F12000 X49.73 Y40.22
G1 F1920 X51.62 Y38.33 E326.89191
G0 F12000 X51.62 Y38.99
G1 F1920 X50.39 Y40.22 E326.95942
G0 F12000 X51.05 Y40.22
G1 F1920 X51.62 Y39.65 E326.99082
;LAYER:6
G0 F12000 X51.79 Y40.39 Z1.50
;TYPE:WALL-INNER
G1 F1920 X28.72 Y40.39 E327.88473
G1 X28.72 Y39.17 E327.93174
G1 X55.85 Y32.35 E329.01581
G1 X55.94 Y32.65 E329.02796
G1 X56.10 Y32.95 E329.04120
G1 X56.21 Y33.08 E329.04753
G1 X56.10 Y33.21 E329.05403
G1 X55.94 Y33.51 E329.06713
G1 X55.84 Y33.83 E329.08025
G1 X55.81 Y34.17 E329.09341
G1 X55.84 Y34.51 E329.10657
G1 X55.94 Y34.83 E329.11969
G1 X56.10 Y35.13 E329.13279
G1 X56.21 Y35.26 E329.13929
G1 X56.10 Y35.38 E329.14562
G1 X55.94 Y35.69 E329.15887
G1 X55.84 Y36.01 E329.17198
G1 X55.81 Y36.35 E329.18515
G1 X55.83 Y36.56 E329.19325
G1 X51.79 Y36.56 E329.34987
G1 X51.79 Y40.39 E329.49831
G0 F12000 X52.26 Y40.85
G1 F1920 X28.25 Y40.85 E330.42834
G1 X28.25 Y38.81 E330.50746
G1 X56.30 Y31.75 E331.62819
G1 X56.28 Y31.99 E331.63726
G1 X56.30 Y32.23 E331.64688
G1 X56.38 Y32.47 E331.65644
G1 X56.49 Y32.69 E331.66613
G1 X56.65 Y32.88 E331.67571
G1 X56.84 Y33.04 E331.68540
G1 X56.91 Y33.08 E331.68843
G1 X56.84 Y33.11 E331.69136
G1 X56.65 Y33.27 E331.70108
G1 X56.49 Y33.47 E331.71081
G1 X56.38 Y33.68 E331.72041
G1 X56.30 Y33.92 E331.72997
G1 X56.28 Y34.17 E331.73959
G1 X56.30 Y34.41 E331.74920
G1 X56.38 Y34.65 E331.75877
G1 X56.49 Y34.87 E331.76837
G1 X56.65 Y35.06 E331.77809
G1 X56.84 Y35.22 E331.78782
G1 X56.91 Y35.26 E331.79075
G1 X56.84 Y35.29 E331.79378
G1 X56.65 Y35.45 E331.80347
G1 X56.49 Y35.64 E331.81305
G1 X56.38 Y35.87 E331.82274
G1 X56.30 Y36.10 E331.83230
G1 X56.28 Y36.35 E331.84192
G1 X56.30 Y36.59 E331.85153
G1 X56.38 Y36.83 E331.86109
G1 X56.48 Y37.02 E331.86946
G1 X52.26 Y37.02 E332.03302
G1 X52.26 Y40.85 E332.18146
G1 F2400 E330.98146
G0 F12000 X58.18 Y35.26
G1 F2400 E332.18146
G1 F1920 X58.25 Y35.22 E332.18448
G1 X58.44 Y35.06 E332.19406
G1 X58.60 Y34.87 E332.20375
G1 X58.61 Y34.84 E332.20489
G1 X58.61 Y35.67 E332.23686
G1 X58.44 Y35.45 E332.24761
G1 X58.25 Y35.30 E332.25716
G1 X58.18 Y35.26 E332.26028
G0 F12000 X58.78 Y34.17
G0 X58.61 Y33.49
G1 F1920 X58.60 Y33.46 E332.26142
G1 X58.44 Y33.27 E332.27111
G1 X58.25 Y33.11 E332.28069
G1 X58.18 Y33.08 E332.28371
G1 X58.25 Y33.04 E332.28683
G1 X58.44 Y32.88 E332.29637
G1 X58.61 Y32.66 E332.30713
G1 X58.61 Y33.49 E332.33909
G0 F12000 X58.61 Y31.31
G1 F1920 X58.53 Y31.19 E332.34465
G1 X58.61 Y31.17 E332.34813
G1 X58.61 Y31.31 E332.35340
G0 F12000 X58.21 Y31.54
;TYPE:WALL-OUTER
G1 F1920 X58.11 Y31.42 E332.35954
G1 X57.99 Y31.32 E332.36556
G1 X57.85 Y31.25 E332.37165
G1 X57.70 Y31.20 E332.37769
G1 X57.55 Y31.19 E332.38376
G1 X57.39 Y31.20 E332.38983
G1 X57.24 Y31.25 E332.39588
G1 X57.10 Y31.32 E332.40193
G1 X56.98 Y31.42 E332.40804
G1 X56.88 Y31.54 E332.41416
G1 X56.81 Y31.68 E332.42021
G1 X56.76 Y31.83 E332.42625
G1 X56.75 Y31.99 E332.43233
G1 X56.76 Y32.14 E332.43840
G1 X56.81 Y32.29 E332.44444
G1 X56.88 Y32.43 E332.45052
G1 X56.98 Y32.55 E332.45655
G1 X57.10 Y32.65 E332.46269
G1 X57.24 Y32.72 E332.46877
G1 X57.39 Y32.77 E332.47482
G1 X57.55 Y32.78 E332.48089
G1 X57.70 Y32.77 E332.48696
G1 X57.85 Y32.72 E332.49300
G1 X57.99 Y32.65 E332.49914
G1 X58.11 Y32.55 E332.50516
G1 X58.21 Y32.43 E332.51118
G1 X58.28 Y32.29 E332.51732
G1 X58.33 Y32.14 E332.52336
G1 X58.34 Y31.99 E332.52944
G1 X58.33 Y31.83 E332.53551
G1 X58.28 Y31.68 E332.54155
G1 X58.21 Y31.54 E332.54763
G0 F12000 X59.08 Y30.57
G1 F1920 X59.08 Y37.49 E332.81554
G1 X52.72 Y37.49 E333.06194
G1 X52.72 Y41.32 E333.21038
G1 X27.79 Y41.32 E334.17652
G1 X27.79 Y38.45 E334.28777
G1 X59.08 Y30.57 E335.53811
G1 F2400 E334.33811
G0 F12000 X57.85 Y33.43
G1 F2400 E335.53811
G1 F1920 X57.70 Y33.38 E335.54415
G1 X57.55 Y33.37 E335.55022
G1 X57.39 Y33.38 E335.55630
G1 X57.24 Y33.43 E335.56234
G1 X57.10 Y33.50 E335.56839
G1 X56.98 Y33.60 E335.57451
G1 X56.88 Y33.72 E335.58062
G1 X56.81 Y33.86 E335.58667
G1 X56.76 Y34.01 E335.59272
G1 X56.75 Y34.17 E335.59879
G1 X56.76 Y34.32 E335.60486
G1 X56.81 Y34.47 E335.61090
G1 X56.88 Y34.61 E335.61695
G1 X56.98 Y34.73 E335.62307
G1 X57.10 Y34.83 E335.62919
G1 X57.24 Y34.91 E335.63524
G1 X57.39 Y34.95 E335.64128
G1 X57.55 Y34.97 E335.64735
G1 X57.70 Y34.95 E335.65343
G1 X57.85 Y34.91 E335.65947
G1 X57.99 Y34.83 E335.66555
G1 X58.11 Y34.73 E335.67158
G1 X58.21 Y34.61 E335.67772
G1 X58.28 Y34.47 E335.68380
G1 X58.33 Y34.32 E335.68984
G1 X58.34 Y34.17 E335.69592
G1 X58.33 Y34.01 E335.70199
G1 X58.28 Y33.86 E335.70803
G1 X58.21 Y33.72 E335.71411
G1 X58.11 Y33.60 E335.72025
G1 X57.99 Y33.50 E335.72628
G1 X57.85 Y33.43 E335.73236
G0 F12000 X58.01 Y33.13
G0 X58.76 Y33.93
G0 X58.42 Y35.04
G0 X58.02 Y35.31
G0 X57.80 Y35.25
G0 X57.70 Y35.56
G1 F1920 X57.55 Y35.55 E335.73843
G1 X57.39 Y35.56 E335.74451
G1 X57.24 Y35.61 E335.75055
G1 X57.10 Y35.68 E335.75663
G1 X56.98 Y35.78 E335.76277
G1 X56.88 Y35.90 E335.76880
G1 X56.81 Y36.04 E335.77488
G1 X56.76 Y36.19 E335.78092
G1 X56.75 Y36.35 E335.78700
G1 X56.76 Y36.50 E335.79307
G1 X56.81 Y36.65 E335.79911
G1 X56.88 Y36.79 E335.80516
G1 X56.98 Y36.91 E335.81128
G1 X57.10 Y37.01 E335.81740
G1 X57.24 Y37.09 E335.82345
G1 X57.39 Y37.13 E335.82949
G1 X57.55 Y37.15 E335.83556
G1 X57.70 Y37.13 E335.84163
G1 X57.85 Y37.09 E335.84768
G1 X57.99 Y37.01 E335.85376
G1 X58.11 Y36.91 E335.85979
G1 X58.21 Y36.79 E335.86592
G1 X58.28 Y36.65 E335.87201
G1 X58.33 Y36.50 E335.87805
G1 X58.34 Y36.35 E335.88412
G1 X58.33 Y36.19 E335.89020
G1 X58.28 Y36.04 E335.89624
G1 X58.21 Y35.90 E335.90237
G1 X58.11 Y35.78 E335.90840
G1 X57.99 Y35.68 E335.91442
G1 X57.85 Y35.61 E335.92056
G1 X57.70 Y35.56 E335.92660
G0 F12000 X57.80 Y35.25
G0 X55.94 Y35.18
;TYPE:FILL
G1 F1920 X53.79 Y33.03 E336.04444
G0 F12000 X53.27 Y33.17
G1 F1920 X55.77 Y35.67 E336.18185
G0 F12000 X55.66 Y36.22
G1 F1920 X52.74 Y33.30 E336.34169
G0 F12000 X52.21 Y33.43
G1 F1920 X55.17 Y36.39 E336.50387
G0 F12000 X54.52 Y36.39
G1 F1920 X51.69 Y33.56 E336.65881
G0 F12000 X51.16 Y33.70
G1 F1920 X53.86 Y36.39 E336.80646
G0 F12000 X53.20 Y36.39
G1 F1920 X50.63 Y33.83 E336.94688
G0 F12000 X50.11 Y33.96
G1 F1920 X52.54 Y36.39 E337.08007
G0 F12000 X51.88 Y36.39
G1 F1920 X49.58 Y34.09 E337.20597
G0 F12000 X49.05 Y34.23
G1 F1920 X51.62 Y36.80 E337.34680
G0 F12000 X51.62 Y37.45
G1 F1920 X48.53 Y34.36 E337.51645
G0 F12000 X48.00 Y34.49
G1 F1920 X51.62 Y38.11 E337.71499
G0 F12000 X51.62 Y38.77
G1 F1920 X47.48 Y34.62 E337.94234
G0 F12000 X46.95 Y34.76
G1 F1920 X51.62 Y39.43 E338.19858
G0 F12000 X51.62 Y40.09
G1 F1920 X46.42 Y34.89 E338.48364
G0 F12000 X45.90 Y35.02
G1 F1920 X51.10 Y40.22 E338.76864
G0 F12000 X50.44 Y40.22
G1 F1920 X45.37 Y35.15 E339.04636
G0 F12000 X44.84 Y35.29
G1 F1920 X49.78 Y40.22 E339.31684
G0 F12000 X49.12 Y40.22
G1 F1920 X44.31 Y35.42 E339.58009
G0 F12000 X43.79 Y35.55
G1 F1920 X48.46 Y40.22 E339.83605
G0 F12000 X47.80 Y40.22
G1 F1920 X43.26 Y35.68 E340.08475
G0 F12000 X42.74 Y35.82
G1 F1920 X47.14 Y40.22 E340.32619
G0 F12000 X46.48 Y40.22
G1 F1920 X42.21 Y35.95 E340.56035
G0 F12000 X41.68 Y36.08
G1 F1920 X45.82 Y40.22 E340.78727
G0 F12000 X45.16 Y40.22
G1 F1920 X41.16 Y36.21 E341.00695
G0 F12000 X40.63 Y36.35
G1 F1920 X44.51 Y40.22 E341.21935
G0 F12000 X43.85 Y40.22
G1 F1920 X40.10 Y36.48 E341.42448
G0 F12000 X39.58 Y36.61
G1 F1920 X43.19 Y40.22 E341.62236
G0 F12000 X42.53 Y40.22
G1 F1920 X39.05 Y36.74 E341.81295
G0 F12000 X38.52 Y36.88
G1 F1920 X41.87 Y40.22 E341.99630
G0 F12000 X41.21 Y40.22
G1 F1920 X38.00 Y37.01 E342.17237
G0 F12000 X37.47 Y37.14
G1 F1920 X40.55 Y40.22 E342.34117
G0 F12000 X39.89 Y40.22
G1 F1920 X36.94 Y37.27 E342.50274
G0 F12000 X36.42 Y37.41
G1 F1920 X39.23 Y40.22 E342.65703
G0 F12000 X38.57 Y40.22
G1 F1920 X35.89 Y37.54 E342.80408
G0 F12000 X35.36 Y37.67
G1 F1920 X37.91 Y40.22 E342.94387
G0 F12000 X37.26 Y40.22
G1 F1920 X34.84 Y37.80 E343.07637
G0 F12000 X34.31 Y37.94
G1 F1920 X36.60 Y40.22 E343.20164
G0 F12000 X35.94 Y40.22
G1 F1920 X33.78 Y38.07 E343.31967
G0 F12000 X33.26 Y38.20
G1 F1920 X35.28 Y40.22 E343.43042
G0 F12000 X34.62 Y40.22
G1 F1920 X32.73 Y38.33 E343.53393
G0 F12000 X32.20 Y38.47
G1 F1920 X33.96 Y40.22 E343.63019
G0 F12000 X33.30 Y40.22
G1 F1920 X31.68 Y38.60 E343.71915
G0 F12000 X31.15 Y38.73
G1 F1920 X32.64 Y40.22 E343.80086
G0 F12000 X31.98 Y40.22
G1 F1920 X30.63 Y38.86 E343.87527
G0 F12000 X30.10 Y39.00
G1 F1920 X31.32 Y40.22 E343.94245
G0 F12000 X30.67 Y40.22
G1 F1920 X29.57 Y39.13 E344.00240
G0 F12000 X29.05 Y39.26
G1 F1920 X30.01 Y40.22 E344.05506
G0 F12000 X29.35 Y40.22
G1 F1920 X28.88 Y39.76 E344.08054
G0 F12000 X54.32 Y32.90
G1 F1920 X55.65 Y34.23 E344.15356
G0 F12000 X55.73 Y33.65
G1 F1920 X54.85 Y32.77 E344.20179
G0 F12000 X55.37 Y32.64
G1 F1920 X55.92 Y33.19 E344.23192
M107
G1 F2400 E343.03192
G0 F12000 X55.92 Y33.19 Z6.50
;-- END GCODE --
M104 S0     ;extruder heater off
M140 S0     ;heated bed heater off (if you have it)
G91         ;relative positioning
G1 E-1 F300   ;retract the filament a bit before lifting the nozzle, to release some of the pressure
G1 Z+0.5 E-5 X-20 Y-20 F12000 ;move Z up a bit and retract filament even more
G28 X0 Y0     ;move X/Y to min endstops, so the head is out of the way
M84           ;steppers off
G90           ;absolute positioning
;CURA_PROFILE_STRING:eNrtWk1v20gSvTLG/og+JthIS1LSOBmBh0lie7BIZhcjLSbxhWiRLak3JJtoNi3Lhv77vGp+iJLljDMxspOsdLDDYlV1VfWrV2VECV8LHS6FXCxN4PZ9Z8WTJDRLGX3MRFEEXn/oaGE0j4xUWSgyPktEMNWlcAqVyDhMrIOtgdt/4cwlfMQiK6RZByPXydTNTSLCQt4IvB86uZaZCYtciDgYuvWjEWkuNDelFoHvH5D6wQHh4JBw2ApnIt5xfOo6RZnnSptgqspoKbMFm5UyifOEG+HQz7nSacjjpSiQcPBKy7QxCeOSJ6G4Nrqs3imzdFYyF6FRK6GDc54UoiMIr1RSpiLwRo5SN8h/KUUS12qoEU8FQowlfhuYe/3T0V0xZX1HODgkHHaF80StAs91+273+pqS70p5qsrM4Hy/K7XJNq9+6I+671KZhXi4Egmsdt5EKp2hqBVCdi1kulM9BLFz3lLlJHNmyhiV7iBq4FiUueFKxmYZzmGhNGXnqNl/RQQoyeyjNVZXQic8t8FDgMpXYdaZ+27nhAq5dUlGjswsbKtnUpNZIYy7L7juCCKlEluLugkkXfbQmfOmUeK6Uz5KoCeRmUB9bD1r0YLnwQCOqqemRonIFmYJ2NAZ5GxeIrC2RytZFQXVoH0KU35tJW1cc0iBfERVC5eCo2Xl3NQorHrYoPSdlq7qU0lsTeqqEpCbVjDrXARvkVHRini2ADUM2g4Lra09frQVXq8B2MLwLCIuOG3lN10xHZRLzRNijDpSmebgkFTFjWSG1uwW1X/haD5HGbleyCwYEcjp2aoUOY8Il14jnfFC7IFsKycTizUbopWDTYQG8naN/P2XXcv6JZea7hnPtaAoa11CTRH4KPI14K+1BGTCMrM9SSyMGoe8uYf7VWYtpXR1kIbKRRbOpCkOKaATiaGvUBsjjaXCWi1PShQQVUVHLIKmxyJBSYbXQc/bE61JFJVaE/EAKra9/4bL1Ka/iOjCxr0em0x/+nXKLl7/680Z6/VOxpNERiJmoFs2RRbsJ/aOUxSiYBOhJX55rRI3P7LbmK839NMI/KJe25yMX/FCRgxtaRB+8SN7SyVlVavAJOlMtw37DRWDzu3uiNuwc+AU4u7Ugut/0wBhE2osvOyMrA2bVJiFuEYv1H9tmay12SfeDesovanRvqtX8W17OmXZHl6nfF5TPMMNx1XYFeXXtmlHtKoyX3SsIlWYrhU9b07eee4PbOKPRk/Y2F4cW0mzZGYpGOiFqezkwvdY/Rlj3GiU/YonpShOLl667Rs+A4WURrBcoYzICNeydW5V7nP/ovYNsmFGMZHFBXgJ7v2XT56McWVqVVi08NKoXiLA6gl5v/DYe1Al+wD3lx66np3fdkl/w8YVThnPYla5x7nNqGexWmXMG6UpxfmSTW7vrBPw8LPghk0VIykS9tlZm/P2M74RWlnndsrFAG5F5RTjOWYPOxvsmY1rTTZw05SpOSPGZkg8+vj5xzC+4DKrCnI6Yh98qsiBcmhhqzArFwuhrTr2rYeo2TLTDyr0IYNOoWdiUcWyp+bgYjuscPbLmy0n4AKGbOLuVIa6mZNTNZ9DYei2ClZOB8UdFfZUztlalWyJM5k0z1BGb1s6LXDt4LwdfCLIsx4CHbhupWPbsUJn0zacgUdxFiAjGA1Q2hxJo9ptnxNk4VxgerBCpYLu0sJMg2KAITrk8u9uf4SjRux9DwX/0DtUdVvzS1bm9ZFUyyaiNhqAPwOUyS365j18uZ3uef+PDxQOFoC2i54jKBsPLQBMFkyVpglxxdcn714MuwgrjMiB/sIWvdPf97b4GF2jEB4NE7TPYuPYNvebm/4jHq/fv1qz16XmB4cCJnfffdDYYL7rDdmFzyoS/ZlSfvrPMlnbF8++wtT4arw9fufhdhrO2vtrB2j6T4aF3NoDEDyOqTXQJ2A8apuOLqPFhdxRBx6kwPtdHXTzkk29Q578P+XK/fKgvmyAnW5b4+74oibZ9uG9TWiVLrudenlXxbtviH1qck09dvAznqxotaNTyNIHlzS0+iVTzHMPDzHvUYdYdVbv9vDfpJuTqfugpOdSF+ZbSnv34kEpoGqLfRo5KbiHLzBeMvb29RtWRFqIDAD1Tiu2g06/36ch23LvGW794jX+Wc3XaTtB7wR3eOSSjfeZNsP7D/kTY/sTn4dM9E8Zf7Oj/v6kHmcH2HP6iY1gT/Nz9oPBQ/eD48Q+Tuzva2L7/48T+7imHNeUvTVl8L9cU8jGP642x9Xm8Veb4XG1+UutNv7jrTbHLemrbUmDB83OIYL+jhaGh62Gg+8r6eNqeFwN91bD4be2GpLN4LhOHtfJx10n62/IdL9Q0Qq3/5tafcFnR8lKOhpaYMZGoh8VV4GDS6ho5qzGZbuwVuQzE2aFzrRJ11/uaDnIXoC9aEha6XO2WsKg7XS7TKRlYmSetHShi/7JeLpEUek0Ki7WG4tyiyJyOn2aPXNQE/NXio/PqQGb8H4HRfYM3g==
;CURA_PROFILE_STRING:eNrtWk1v20gSvTLG/og+JthIS1LSOBmBh0lie7BIZhcjLSbxhWiRLak3JJtoNi3Lhv77vGp+iJLljDMxspOsdLDDYlV1VfWrV2VECV8LHS6FXCxN4PZ9Z8WTJDRLGX3MRFEEXn/oaGE0j4xUWSgyPktEMNWlcAqVyDhMrIOtgdt/4cwlfMQiK6RZByPXydTNTSLCQt4IvB86uZaZCYtciDgYuvWjEWkuNDelFoHvH5D6wQHh4JBw2ApnIt5xfOo6RZnnSptgqspoKbMFm5UyifOEG+HQz7nSacjjpSiQcPBKy7QxCeOSJ6G4Nrqs3imzdFYyF6FRK6GDc54UoiMIr1RSpiLwRo5SN8h/KUUS12qoEU8FQowlfhuYe/3T0V0xZX1HODgkHHaF80StAs91+273+pqS70p5qsrM4Hy/K7XJNq9+6I+671KZhXi4Egmsdt5EKp2hqBVCdi1kulM9BLFz3lLlJHNmyhiV7iBq4FiUueFKxmYZzmGhNGXnqNl/RQQoyeyjNVZXQic8t8FDgMpXYdaZ+27nhAq5dUlGjswsbKtnUpNZIYy7L7juCCKlEluLugkkXfbQmfOmUeK6Uz5KoCeRmUB9bD1r0YLnwQCOqqemRonIFmYJ2NAZ5GxeIrC2RytZFQXVoH0KU35tJW1cc0iBfERVC5eCo2Xl3NQorHrYoPSdlq7qU0lsTeqqEpCbVjDrXARvkVHRini2ADUM2g4Lra09frQVXq8B2MLwLCIuOG3lN10xHZRLzRNijDpSmebgkFTFjWSG1uwW1X/haD5HGbleyCwYEcjp2aoUOY8Il14jnfFC7IFsKycTizUbopWDTYQG8naN/P2XXcv6JZea7hnPtaAoa11CTRH4KPI14K+1BGTCMrM9SSyMGoe8uYf7VWYtpXR1kIbKRRbOpCkOKaATiaGvUBsjjaXCWi1PShQQVUVHLIKmxyJBSYbXQc/bE61JFJVaE/EAKra9/4bL1Ka/iOjCxr0em0x/+nXKLl7/680Z6/VOxpNERiJmoFs2RRbsJ/aOUxSiYBOhJX55rRI3P7LbmK839NMI/KJe25yMX/FCRgxtaRB+8SN7SyVlVavAJOlMtw37DRWDzu3uiNuwc+AU4u7Ugut/0wBhE2osvOyMrA2bVJiFuEYv1H9tmay12SfeDesovanRvqtX8W17OmXZHl6nfF5TPMMNx1XYFeXXtmlHtKoyX3SsIlWYrhU9b07eee4PbOKPRk/Y2F4cW0mzZGYpGOiFqezkwvdY/Rlj3GiU/YonpShOLl667Rs+A4WURrBcoYzICNeydW5V7nP/ovYNsmFGMZHFBXgJ7v2XT56McWVqVVi08NKoXiLA6gl5v/DYe1Al+wD3lx66np3fdkl/w8YVThnPYla5x7nNqGexWmXMG6UpxfmSTW7vrBPw8LPghk0VIykS9tlZm/P2M74RWlnndsrFAG5F5RTjOWYPOxvsmY1rTTZw05SpOSPGZkg8+vj5xzC+4DKrCnI6Yh98qsiBcmhhqzArFwuhrTr2rYeo2TLTDyr0IYNOoWdiUcWyp+bgYjuscPbLmy0n4AKGbOLuVIa6mZNTNZ9DYei2ClZOB8UdFfZUztlalWyJM5k0z1BGb1s6LXDt4LwdfCLIsx4CHbhupWPbsUJn0zacgUdxFiAjGA1Q2hxJo9ptnxNk4VxgerBCpYLu0sJMg2KAITrk8u9uf4SjRux9DwX/0DtUdVvzS1bm9ZFUyyaiNhqAPwOUyS365j18uZ3uef+PDxQOFoC2i54jKBsPLQBMFkyVpglxxdcn714MuwgrjMiB/sIWvdPf97b4GF2jEB4NE7TPYuPYNvebm/4jHq/fv1qz16XmB4cCJnfffdDYYL7rDdmFzyoS/ZlSfvrPMlnbF8++wtT4arw9fufhdhrO2vtrB2j6T4aF3NoDEDyOqTXQJ2A8apuOLqPFhdxRBx6kwPtdHXTzkk29Q578P+XK/fKgvmyAnW5b4+74oibZ9uG9TWiVLrudenlXxbtviH1qck09dvAznqxotaNTyNIHlzS0+iVTzHMPDzHvUYdYdVbv9vDfpJuTqfugpOdSF+ZbSnv34kEpoGqLfRo5KbiHLzBeMvb29RtWRFqIDAD1Tiu2g06/36ch23LvGW794jX+Wc3XaTtB7wR3eOSSjfeZNsP7D/kTY/sTn4dM9E8Zf7Oj/v6kHmcH2HP6iY1gT/Nz9oPBQ/eD48Q+Tuzva2L7/48T+7imHNeUvTVl8L9cU8jGP642x9Xm8Veb4XG1+UutNv7jrTbHLemrbUmDB83OIYL+jhaGh62Gg+8r6eNqeFwN91bD4be2GpLN4LhOHtfJx10n62/IdL9Q0Qq3/5tafcFnR8lKOhpaYMZGoh8VV4GDS6ho5qzGZbuwVuQzE2aFzrRJ11/uaDnIXoC9aEha6XO2WsKg7XS7TKRlYmSetHShi/7JeLpEUek0Ki7WG4tyiyJyOn2aPXNQE/NXio/PqQGb8H4HRfYM3g==

