;-- START GCODE --
;Sliced for Type A Machines Series 1
;Sliced at: Fri 18-11-2016 21:23:11
;Basic settings: Layer height: 0.2 Walls: 1.2 Fill: 3
;Print Speed: 40 Support: 0
;Retraction Speed: 40 Retraction Distance: 1.2
;Print time: #P_TIME#
;Filament used: #F_AMNT#m #F_WGHT#g
;Filament cost: #F_COST#
M106 S255	 ;start with the fan on
G21        ;metric values
G90        ;absolute positioning
M106 S255    ;start with the fan on
G28     ;move to endstops
G29		;allows for auto-levelling
G1 X150 Y5  Z15.0 F12000 ;center and move the platform down 15mm
M109 S220 ;Heat To temp
G92 E0                  ;zero the extruded length
G1 F200 E30              ;extrude 30mm of feed stock
G92 E0                  ;zero the extruded length again
G1 X175 Y25  Z0 F12000 ;remove bugger
G1 X220 F12000 ;remove bugger
G1 X150 Y150  Z15 F12000 ;recenter and begin
G1 F12000

;Layer count: 153
;LAYER:0
M106 S255
G0 F12000 X42.04 Y121.38 Z0.30
;TYPE:SKIRT
G1 F2400 X82.68 Y121.38 E2.02749
G1 X82.68 Y126.39 E2.27789
G1 X103.08 Y126.39 E3.29565
G1 X103.08 Y121.38 E3.54605
G1 X143.92 Y121.38 E5.58366
G1 X143.92 Y170.79 E8.04879
G1 X136.76 Y170.79 E8.40590
G1 X136.76 Y186.54 E9.19177
G1 X96.93 Y186.54 E11.17910
G1 X96.93 Y182.26 E11.39268
G1 X94.13 Y182.16 E11.53260
G1 X94.13 Y170.79 E12.10015
G1 X91.64 Y170.79 E12.22453
G1 X91.64 Y182.72 E12.82007
G1 X88.83 Y182.73 E12.95996
G1 X88.83 Y182.90 E12.96859
G1 X67.16 Y182.90 E14.04971
G1 X49.00 Y182.95 E14.95587
G1 X49.00 Y170.79 E15.56293
G1 X42.04 Y170.79 E15.90997
G1 X42.04 Y121.38 E18.37510
G0 F12000 X42.44 Y121.78
G1 F2400 X82.28 Y121.78 E20.36267
G1 X82.28 Y126.79 E20.61307
G1 X103.48 Y126.79 E21.67074
G1 X103.48 Y121.78 E21.92114
G1 X143.52 Y121.78 E23.91885
G1 X143.52 Y170.39 E26.34406
G1 X136.37 Y170.39 E26.70117
G1 X136.37 Y186.14 E27.48704
G1 X97.33 Y186.14 E29.43446
G1 X97.33 Y181.87 E29.64734
G1 X94.53 Y181.78 E29.78726
G1 X94.53 Y170.39 E30.35546
G1 X91.23 Y170.39 E30.51975
G1 X91.23 Y182.32 E31.11534
G1 X88.43 Y182.33 E31.25523
G1 X88.43 Y182.50 E31.26376
G1 X67.16 Y182.50 E32.32493
G1 X49.40 Y182.55 E33.21113
G1 X49.40 Y170.39 E33.81815
G1 X42.44 Y170.39 E34.16518
G1 X42.44 Y121.78 E36.59040
G0 F12000 X42.84 Y122.17
G1 F2400 X81.88 Y122.17 E38.53806
G1 X81.88 Y127.19 E38.78846
G1 X103.88 Y127.19 E39.88604
G1 X103.88 Y122.17 E40.13644
G1 X143.12 Y122.17 E42.09423
G1 X143.12 Y169.99 E44.47953
G1 X135.97 Y169.99 E44.83665
G1 X135.97 Y185.74 E45.62252
G1 X97.73 Y185.74 E47.53002
G1 X97.73 Y181.48 E47.74225
G1 X94.93 Y181.39 E47.88218
G1 X94.93 Y169.99 E48.45102
G1 X90.83 Y169.99 E48.65523
G1 X90.83 Y181.92 E49.25081
G1 X88.03 Y181.93 E49.39071
G1 X88.03 Y182.10 E49.39924
G1 X67.16 Y182.10 E50.44050
G1 X49.80 Y182.15 E51.30669
G1 X49.80 Y169.99 E51.91366
G1 X42.84 Y169.99 E52.26070
G1 X42.84 Y122.17 E54.64600
G0 F12000 X43.24 Y122.58
G1 F2400 X81.48 Y122.58 E56.55375
G1 X81.48 Y127.59 E56.80415
G1 X104.28 Y127.59 E57.94164
G1 X104.28 Y122.58 E58.19204
G1 X142.72 Y122.58 E60.10992
G1 X142.72 Y169.59 E62.45531
G1 X135.56 Y169.59 E62.81242
G1 X135.56 Y185.34 E63.59829
G1 X98.13 Y185.34 E65.46588
G1 X98.13 Y181.10 E65.67747
G1 X95.33 Y181.00 E65.81739
G1 X95.33 Y169.59 E66.38694
G1 X90.44 Y169.59 E66.63105
G1 X90.44 Y181.53 E67.22669
G1 X87.63 Y181.53 E67.36658
G1 X87.63 Y181.70 E67.37506
G1 X67.16 Y181.70 E68.39646
G1 X50.20 Y181.75 E69.24261
G1 X50.20 Y169.59 E69.84947
G1 X43.24 Y169.59 E70.19651
G1 X43.24 Y122.58 E72.54190
G0 F12000 X43.64 Y122.97
G1 F2400 X81.08 Y122.97 E74.40974
G1 X81.08 Y127.99 E74.66013
G1 X104.68 Y127.99 E75.83754
G1 X104.68 Y122.97 E76.08794
G1 X142.32 Y122.97 E77.96591
G1 X142.32 Y169.19 E80.27138
G1 X135.16 Y169.19 E80.62850
G1 X135.16 Y184.94 E81.41437
G1 X98.53 Y184.94 E83.24205
G1 X98.53 Y180.71 E83.45293
G1 X95.73 Y180.62 E83.59286
G1 X95.73 Y169.19 E84.16305
G1 X90.03 Y169.19 E84.44708
G1 X90.03 Y181.13 E85.04277
G1 X87.23 Y181.13 E85.18266
G1 X87.23 Y181.30 E85.19109
G1 X67.16 Y181.30 E86.19259
G1 X50.60 Y181.35 E87.01872
G1 X50.60 Y169.19 E87.62554
G1 X43.64 Y169.19 E87.97257
G1 X43.64 Y122.97 E90.27805
G0 F12000 X44.04 Y123.38
G1 F2400 X80.68 Y123.38 E92.10598
G1 X80.68 Y128.39 E92.35638
G1 X105.08 Y128.39 E93.57370
G1 X105.08 Y123.38 E93.82410
G1 X141.92 Y123.38 E95.66215
G1 X141.92 Y168.79 E97.92771
G1 X134.76 Y168.79 E98.28483
G1 X134.76 Y184.54 E99.07070
G1 X98.93 Y184.54 E100.85846
G1 X98.93 Y180.32 E101.06870
G1 X96.13 Y180.23 E101.20862
G1 X96.13 Y168.79 E101.77952
G1 X89.64 Y168.79 E102.10345
G1 X89.64 Y180.73 E102.69919
G1 X86.83 Y180.73 E102.83909
G1 X86.83 Y180.90 E102.84747
G1 X67.16 Y180.90 E103.82906
G1 X51.00 Y180.95 E104.63519
G1 X51.00 Y168.79 E105.24195
G1 X44.04 Y168.79 E105.58899
G1 X44.04 Y123.38 E107.85455
G0 F12000 X44.44 Y123.78
G1 F2400 X80.28 Y123.78 E109.64257
G1 X80.28 Y128.79 E109.89297
G1 X105.48 Y128.79 E111.15020
G1 X105.48 Y123.78 E111.40060
G1 X141.52 Y123.78 E113.19874
G1 X141.52 Y168.39 E115.42439
G1 X134.37 Y168.39 E115.78151
G1 X134.37 Y184.14 E116.56738
G1 X99.33 Y184.14 E118.31523
G1 X99.33 Y179.94 E118.52477
G1 X96.53 Y179.84 E118.66469
G1 X96.53 Y168.39 E119.23624
G1 X89.23 Y168.39 E119.60009
G1 X89.23 Y180.33 E120.19587
G1 X86.43 Y180.33 E120.33577
G1 X86.43 Y180.50 E120.34410
G1 X67.16 Y180.50 E121.30578
G1 X51.40 Y180.55 E122.09191
G1 X51.40 Y168.39 E122.69862
G1 X44.44 Y168.39 E123.04566
G1 X44.44 Y123.78 E125.27131
G0 F12000 X44.84 Y124.17
G1 F2400 X79.88 Y124.17 E127.01941
G1 X79.88 Y129.19 E127.26981
G1 X105.88 Y129.19 E128.56696
G1 X105.88 Y124.17 E128.81735
G1 X141.12 Y124.17 E130.57558
G1 X141.12 Y167.99 E132.76132
G1 X133.97 Y167.99 E133.11844
G1 X133.97 Y183.74 E133.90431
G1 X99.73 Y183.74 E135.61225
G1 X99.73 Y179.55 E135.82114
G1 X96.93 Y179.46 E135.96106
G1 X96.93 Y167.99 E136.53326
G1 X88.83 Y167.99 E136.93702
G1 X88.83 Y179.93 E137.53286
G1 X86.03 Y179.94 E137.67275
G1 X86.03 Y180.10 E137.68103
G1 X67.15 Y180.10 E138.62286
G1 X51.80 Y180.15 E139.38893
G1 X51.80 Y167.99 E139.99554
G1 X44.84 Y167.99 E140.34258
G1 X44.84 Y124.17 E142.52832
G0 F12000 X45.24 Y124.58
G1 F2400 X79.48 Y124.58 E144.23651
G1 X79.48 Y129.59 E144.48691
G1 X106.28 Y129.59 E145.82396
G1 X106.28 Y124.58 E146.07436
G1 X140.72 Y124.58 E147.79268
G1 X140.72 Y167.59 E149.93851
G1 X133.56 Y167.59 E150.29562
G1 X133.56 Y183.34 E151.08149
G1 X100.13 Y183.34 E152.74952
G1 X100.13 Y179.16 E152.95771
G1 X97.33 Y179.07 E153.09764
G1 X97.33 Y167.59 E153.67053
G1 X88.44 Y167.59 E154.11420
G1 X88.44 Y179.53 E154.71004
G1 X85.63 Y179.53 E154.84993
G1 X85.63 Y179.70 E154.85821
G1 X67.15 Y179.70 E155.78013
G1 X52.20 Y179.74 E156.52620
G1 X52.20 Y167.59 E157.13276
G1 X45.24 Y167.59 E157.47980
G1 X45.24 Y124.58 E159.62562
G0 F12000 X45.64 Y124.97
G1 F2400 X79.08 Y124.97 E161.29390
G1 X79.08 Y129.99 E161.54430
G1 X106.68 Y129.99 E162.92127
G1 X106.68 Y124.97 E163.17167
G1 X140.32 Y124.97 E164.85008
G1 X140.32 Y167.19 E166.95599
G1 X133.16 Y167.19 E167.31311
G1 X133.16 Y182.94 E168.09898
G1 X100.53 Y182.94 E169.72709
G1 X100.53 Y178.78 E169.93464
G1 X97.73 Y178.68 E170.07456
G1 X97.73 Y167.19 E170.64810
G1 X88.03 Y167.19 E171.13168
G1 X88.03 Y179.13 E171.72757
G1 X85.23 Y179.14 E171.86747
G1 X85.23 Y179.30 E171.87570
G1 X67.15 Y179.30 E172.77771
G1 X52.60 Y179.34 E173.50377
G1 X52.60 Y167.19 E174.11028
G1 X45.64 Y167.19 E174.45732
G1 X45.64 Y124.97 E176.56324
G0 F12000 X46.04 Y125.38
G1 F2400 X78.68 Y125.38 E178.19160
G1 X78.68 Y130.39 E178.44200
G1 X107.08 Y130.39 E179.85888
G1 X107.08 Y125.38 E180.10928
G1 X139.92 Y125.38 E181.74778
G1 X139.92 Y166.79 E183.81378
G1 X132.76 Y166.79 E184.17089
G1 X132.76 Y182.54 E184.95676
G1 X100.93 Y182.54 E186.54497
G1 X100.93 Y178.39 E186.75186
G1 X98.13 Y178.30 E186.89178
G1 X98.13 Y166.79 E187.46602
G1 X87.64 Y166.79 E187.98952
G1 X87.64 Y178.73 E188.58546
G1 X84.83 Y178.74 E188.72535
G1 X84.83 Y178.90 E188.73353
G1 X67.15 Y178.90 E189.61569
G1 X53.00 Y178.94 E190.32169
G1 X53.00 Y166.79 E190.92811
G1 X46.04 Y166.79 E191.27514
G1 X46.04 Y125.38 E193.34115
G0 F12000 X46.44 Y125.78
G1 F2400 X78.28 Y125.78 E194.92960
G1 X78.28 Y130.79 E195.18000
G1 X107.48 Y130.79 E196.63679
G1 X107.48 Y125.78 E196.88719
G1 X139.52 Y125.78 E198.48577
G1 X139.52 Y166.39 E200.51186
G1 X132.37 Y166.39 E200.86898
G1 X132.37 Y182.14 E201.65485
G1 X101.33 Y182.14 E203.20314
G1 X101.33 Y178.00 E203.40934
G1 X98.53 Y177.91 E203.54926
G1 X98.53 Y166.39 E204.12415
G1 X87.23 Y166.39 E204.68756
G1 X87.23 Y178.33 E205.28354
G1 X84.43 Y178.34 E205.42344
G1 X84.43 Y178.50 E205.43152
G1 X67.15 Y178.50 E206.29372
G1 X53.40 Y178.54 E206.97977
G1 X53.40 Y166.39 E207.58613
G1 X46.44 Y166.39 E207.93317
G1 X46.44 Y125.78 E209.95926
G0 F12000 X46.84 Y126.17
G1 F2400 X77.88 Y126.17 E211.50780
G1 X77.88 Y131.19 E211.75820
G1 X107.88 Y131.19 E213.25491
G1 X107.88 Y126.17 E213.50530
G1 X139.12 Y126.17 E215.06397
G1 X139.12 Y165.99 E217.05015
G1 X131.97 Y165.99 E217.40727
G1 X131.97 Y181.74 E218.19314
G1 X101.73 Y181.74 E219.70152
G1 X101.73 Y177.62 E219.90707
G1 X98.93 Y177.52 E220.04699
G1 X98.93 Y165.99 E220.62252
G1 X86.83 Y165.99 E221.22585
G1 X86.83 Y177.93 E221.82188
G1 X84.03 Y177.94 E221.96178
G1 X84.03 Y178.10 E221.96981
G1 X67.15 Y178.10 E222.81210
G1 X53.80 Y178.14 E223.47814
G1 X53.80 Y165.99 E224.08446
G1 X46.84 Y165.99 E224.43149
G1 X46.84 Y126.17 E226.41767
G0 F12000 X47.24 Y126.58
G1 F2400 X77.48 Y126.58 E227.92630
G1 X77.48 Y131.59 E228.17670
G1 X108.28 Y131.59 E229.71332
G1 X108.28 Y126.58 E229.96372
G1 X138.72 Y126.58 E231.48248
G1 X138.72 Y165.59 E233.42874
G1 X131.56 Y165.59 E233.78586
G1 X131.56 Y181.34 E234.57173
G1 X102.13 Y181.34 E236.04020
G1 X102.13 Y177.23 E236.24505
G1 X99.33 Y177.14 E236.38497
G1 X99.33 Y165.59 E236.96120
G1 X86.44 Y165.59 E237.60444
G1 X86.44 Y177.53 E238.20052
G1 X83.63 Y177.54 E238.34042
G1 X83.63 Y177.70 E238.34840
G1 X67.15 Y177.70 E239.17079
G1 X54.20 Y177.74 E239.81682
G1 X54.20 Y165.59 E240.42309
G1 X47.24 Y165.59 E240.77012
G1 X47.24 Y126.58 E242.71639
G0 F12000 X47.64 Y126.97
G1 F2400 X77.08 Y126.97 E244.18511
G1 X77.08 Y131.99 E244.43551
G1 X108.68 Y131.99 E246.01204
G1 X108.68 Y126.97 E246.26243
G1 X138.32 Y126.97 E247.74128
G1 X138.32 Y165.19 E249.64763
G1 X131.16 Y165.19 E250.00475
G1 X131.16 Y180.94 E250.79062
G1 X102.53 Y180.94 E252.21918
G1 X102.53 Y176.84 E252.42343
G1 X99.73 Y176.75 E252.56335
G1 X99.73 Y165.19 E253.14023
G1 X86.03 Y165.19 E253.82338
G1 X86.03 Y177.13 E254.41946
G1 X83.23 Y177.14 E254.55936
G1 X83.23 Y177.30 E254.56734
G1 X67.14 Y177.30 E255.36987
G1 X54.60 Y177.34 E255.99585
G1 X54.60 Y165.19 E256.60201
G1 X47.64 Y165.19 E256.94905
G1 X47.64 Y126.97 E258.85540
G0 F12000 X48.04 Y127.38
G1 F2400 X76.68 Y127.38 E260.28421
G1 X76.68 Y132.39 E260.53461
G1 X109.08 Y132.39 E262.15105
G1 X109.08 Y127.38 E262.40145
G1 X137.92 Y127.38 E263.84038
G1 X137.92 Y164.79 E265.70683
G1 X130.76 Y164.79 E266.06394
G1 X130.76 Y180.54 E266.84981
G1 X102.93 Y180.54 E268.23845
G1 X102.93 Y176.46 E268.44201
G1 X100.13 Y176.36 E268.58193
G1 X100.13 Y164.79 E269.15951
G1 X85.64 Y164.79 E269.88257
G1 X85.64 Y176.74 E270.47870
G1 X82.83 Y176.74 E270.61860
G1 X82.83 Y176.90 E270.62653
G1 X67.14 Y176.90 E271.40916
G1 X55.00 Y176.94 E272.01513
G1 X55.00 Y164.79 E272.62124
G1 X48.04 Y164.79 E272.96828
G1 X48.04 Y127.38 E274.83472
G0 F12000 X48.44 Y127.78
G1 F2400 X76.28 Y127.78 E276.22361
G1 X76.28 Y132.79 E276.47401
G1 X109.48 Y132.79 E278.13037
G1 X109.48 Y127.78 E278.38077
G1 X137.52 Y127.78 E279.77979
G1 X137.52 Y164.39 E281.60632
G1 X130.37 Y164.39 E281.96343
G1 X130.37 Y180.14 E282.74930
G1 X103.33 Y180.14 E284.09803
G1 X103.33 Y176.07 E284.30089
G1 X100.53 Y175.98 E284.44081
G1 X100.53 Y164.39 E285.01904
G1 X85.23 Y164.39 E285.78201
G1 X85.23 Y176.34 E286.37820
G1 X82.43 Y176.34 E286.51809
G1 X82.43 Y176.50 E286.52597
G1 X67.14 Y176.50 E287.28870
G1 X55.40 Y176.53 E287.87466
G1 X55.40 Y164.39 E288.48073
G1 X48.44 Y164.39 E288.82776
G1 X48.44 Y127.78 E290.65429
G0 F12000 X48.84 Y128.18
G1 F2400 X75.88 Y128.18 E292.00327
G1 X75.88 Y133.19 E292.25367
G1 X109.88 Y133.19 E293.94994
G1 X109.88 Y128.18 E294.20034
G1 X137.12 Y128.18 E295.55945
G1 X137.12 Y163.99 E297.34606
G1 X129.97 Y163.99 E297.70318
G1 X129.97 Y179.74 E298.48905
G1 X103.73 Y179.74 E299.79787
G1 X103.73 Y175.69 E300.00007
G1 X100.93 Y175.59 E300.14000
G1 X100.93 Y163.99 E300.71887
G1 X84.83 Y163.99 E301.52176
G1 X84.83 Y175.94 E302.11799
G1 X82.03 Y175.94 E302.25789
G1 X82.03 Y176.10 E302.26572
G1 X67.14 Y176.10 E303.00859
G1 X55.80 Y176.13 E303.57449
G1 X55.80 Y163.99 E304.18046
G1 X48.84 Y163.99 E304.52750
G1 X48.84 Y128.18 E306.31411
G0 F12000 X49.24 Y128.57
G1 F2400 X75.48 Y128.57 E307.62318
G1 X75.48 Y133.59 E307.87358
G1 X110.28 Y133.59 E309.60976
G1 X110.28 Y128.57 E309.86016
G1 X136.72 Y128.57 E311.17936
G1 X136.72 Y163.59 E312.92606
G1 X129.56 Y163.59 E313.28318
G1 X129.56 Y179.34 E314.06905
G1 X104.13 Y179.34 E315.33795
G1 X104.13 Y175.30 E315.53946
G1 X101.33 Y175.20 E315.67938
G1 X101.33 Y163.59 E316.25896
G1 X84.44 Y163.59 E317.10175
G1 X84.44 Y175.54 E317.69804
G1 X81.63 Y175.54 E317.83793
G1 X81.63 Y175.70 E317.84572
G1 X67.14 Y175.70 E318.56868
G1 X56.20 Y175.73 E319.11458
G1 X56.20 Y163.59 E319.72049
G1 X49.24 Y163.59 E320.06753
G1 X49.24 Y128.57 E321.81424
G0 F12000 X49.64 Y128.97
G1 F2400 X75.08 Y128.97 E323.08339
G1 X75.08 Y133.99 E323.33379
G1 X110.68 Y133.99 E325.10988
G1 X110.68 Y128.97 E325.36028
G1 X136.32 Y128.97 E326.63957
G1 X136.32 Y163.19 E328.34636
G1 X129.16 Y163.19 E328.70347
G1 X129.16 Y178.94 E329.48934
G1 X104.53 Y178.94 E330.71834
G1 X104.53 Y174.91 E330.91920
G1 X101.73 Y174.82 E331.05912
G1 X101.73 Y163.19 E331.63935
G1 X84.03 Y163.19 E332.52205
G1 X84.03 Y175.14 E333.11839
G1 X81.23 Y175.15 E333.25828
G1 X81.23 Y175.30 E333.26602
G1 X67.14 Y175.30 E333.96907
G1 X56.60 Y175.33 E334.49496
G1 X56.60 Y163.19 E335.10083
G1 X49.64 Y163.19 E335.44787
G1 X49.64 Y128.97 E337.15466
G0 F12000 X50.04 Y129.38
G1 F2400 X74.68 Y129.38 E338.38391
G1 X74.68 Y134.39 E338.63430
G1 X111.08 Y134.39 E340.45031
G1 X111.08 Y129.38 E340.70071
G1 X135.92 Y129.38 E341.94008
G1 X135.92 Y162.79 E343.60696
G1 X128.76 Y162.79 E343.96407
G1 X128.76 Y178.54 E344.74994
G1 X104.93 Y178.54 E345.93903
G1 X104.93 Y174.53 E346.13924
G1 X102.13 Y174.43 E346.27916
G1 X102.13 Y162.79 E346.86008
G1 X93.51 Y162.79 E347.28989
G1 X93.13 Y161.19 E347.37184
G1 X92.87 Y162.79 E347.45257
G1 X83.64 Y162.79 E347.91320
G1 X83.64 Y174.74 E348.50954
G1 X80.83 Y174.75 E348.64943
G1 X80.83 Y174.90 E348.65712
G1 X67.14 Y174.90 E349.34021
G1 X57.00 Y174.93 E349.84615
G1 X57.00 Y162.79 E350.45197
G1 X50.04 Y162.79 E350.79900
G1 X50.04 Y129.38 E352.46589
G0 F12000 X50.44 Y129.78
G1 F2400 X74.28 Y129.78 E353.65522
G1 X74.28 Y134.79 E353.90562
G1 X111.48 Y134.79 E355.76153
G1 X111.48 Y129.78 E356.01193
G1 X135.52 Y129.78 E357.21139
G1 X135.52 Y162.39 E358.83836
G1 X128.37 Y162.39 E359.19548
G1 X128.37 Y178.14 E359.98135
G1 X105.33 Y178.14 E361.13052
G1 X105.33 Y174.14 E361.33008
G1 X102.53 Y174.04 E361.47000
G1 X102.53 Y162.39 E362.05157
G1 X93.83 Y162.39 E362.48562
G1 X93.05 Y159.17 E362.65087
G1 X92.53 Y162.39 E362.81362
G1 X83.23 Y162.39 E363.27725
G1 X83.23 Y174.34 E363.87364
G1 X80.43 Y174.35 E364.01353
G1 X80.43 Y174.50 E364.02117
G1 X67.14 Y174.50 E364.68441
G1 X57.40 Y174.53 E365.17029
G1 X57.40 Y162.39 E365.77601
G1 X50.44 Y162.39 E366.12304
G1 X50.44 Y129.78 E367.75001
G0 F12000 X50.84 Y130.18
G1 F2400 X73.88 Y130.18 E368.89943
G1 X73.88 Y135.19 E369.14983
G1 X111.88 Y135.19 E371.04566
G1 X111.88 Y130.18 E371.29606
G1 X135.12 Y130.18 E372.45561
G1 X135.12 Y161.99 E374.04266
G1 X127.97 Y161.99 E374.39978
G1 X127.97 Y177.74 E375.18565
G1 X105.73 Y177.74 E376.29491
G1 X105.73 Y173.75 E376.49377
G1 X102.93 Y173.66 E376.63369
G1 X102.93 Y161.99 E377.21591
G1 X94.14 Y161.99 E377.65420
G1 X93.22 Y158.18 E377.84978
G1 X92.81 Y158.18 E377.87058
G1 X92.19 Y161.99 E378.06321
G1 X82.83 Y161.99 E378.52983
G1 X82.83 Y173.94 E379.12627
G1 X80.03 Y173.95 E379.26616
G1 X80.03 Y174.10 E379.27374
G1 X67.14 Y174.10 E379.91708
G1 X57.80 Y174.13 E380.38296
G1 X57.80 Y161.99 E380.98862
G1 X50.84 Y161.99 E381.33566
G1 X50.84 Y130.18 E382.92272
G0 F12000 X51.24 Y130.57
G1 F2400 X73.48 Y130.57 E384.03222
G1 X73.48 Y135.59 E384.28262
G1 X112.28 Y135.59 E386.21836
G1 X112.28 Y130.57 E386.46876
G1 X134.72 Y130.57 E387.58840
G1 X134.72 Y161.59 E389.13554
G1 X127.56 Y161.59 E389.49266
G1 X127.56 Y177.34 E390.27853
G1 X106.13 Y177.34 E391.34787
G1 X106.13 Y173.37 E391.54604
G1 X103.33 Y173.27 E391.68596
G1 X103.33 Y161.59 E392.26888
G1 X94.46 Y161.59 E392.71140
G1 X93.54 Y157.78 E392.90699
G1 X92.47 Y157.78 E392.96052
G1 X91.85 Y161.59 E393.15314
G1 X82.44 Y161.59 E393.62271
G1 X82.44 Y173.54 E394.21920
G1 X79.63 Y173.55 E394.35909
G1 X79.63 Y173.70 E394.36662
G1 X67.14 Y173.70 E394.99005
G1 X58.20 Y173.72 E395.43592
G1 X58.20 Y161.59 E396.04154
G1 X51.24 Y161.59 E396.38857
G1 X51.24 Y130.57 E397.93572
G0 F12000 X51.64 Y130.97
G1 F2400 X73.08 Y130.97 E399.00532
G1 X73.08 Y135.99 E399.25571
G1 X112.68 Y135.99 E401.23137
G1 X112.68 Y130.97 E401.48177
G1 X134.32 Y130.97 E402.56149
G1 X134.32 Y161.19 E404.06872
G1 X127.17 Y161.19 E404.42584
G1 X127.17 Y176.94 E405.21171
G1 X106.53 Y176.94 E406.24114
G1 X106.53 Y172.98 E406.43866
G1 X103.73 Y172.88 E406.57858
G1 X103.73 Y161.19 E407.16215
G1 X94.77 Y161.19 E407.60891
G1 X93.85 Y157.38 E407.80449
G1 X92.13 Y157.38 E407.89070
G1 X91.51 Y161.19 E408.08333
G1 X82.03 Y161.19 E408.55589
G1 X82.03 Y173.14 E409.15243
G1 X79.23 Y173.15 E409.29232
G1 X79.23 Y173.30 E409.29980
G1 X67.13 Y173.30 E409.90337
G1 X58.60 Y173.32 E410.32919
G1 X58.60 Y161.19 E410.93471
G1 X51.64 Y161.19 E411.28174
G1 X51.64 Y130.97 E412.78897
G0 F12000 X52.04 Y131.38
G1 F2400 X72.68 Y131.38 E413.81866
G1 X72.68 Y136.39 E414.06906
G1 X113.08 Y136.39 E416.08462
G1 X113.08 Y131.38 E416.33502
G1 X133.92 Y131.38 E417.37483
G1 X133.92 Y160.79 E418.84215
G1 X126.77 Y160.79 E419.19927
G1 X126.77 Y176.54 E419.98514
G1 X106.93 Y176.54 E420.97466
G1 X106.93 Y172.59 E421.17153
G1 X104.13 Y172.50 E421.31145
G1 X104.13 Y160.79 E421.89571
G1 X95.09 Y160.79 E422.34672
G1 X94.17 Y156.97 E422.54230
G1 X91.79 Y156.97 E422.66119
G1 X91.17 Y160.79 E422.85381
G1 X81.64 Y160.79 E423.32937
G1 X81.64 Y172.74 E423.92595
G1 X78.83 Y172.75 E424.06585
G1 X78.83 Y172.90 E424.07328
G1 X67.13 Y172.90 E424.65695
G1 X59.00 Y172.92 E425.06275
G1 X59.00 Y160.79 E425.66822
G1 X52.04 Y160.79 E426.01526
G1 X52.04 Y131.38 E427.48258
G0 F12000 X52.44 Y131.78
G1 F2400 X72.28 Y131.78 E428.47235
G1 X72.28 Y136.79 E428.72275
G1 X113.48 Y136.79 E430.77823
G1 X113.48 Y131.78 E431.02862
G1 X133.52 Y131.78 E432.02852
G1 X133.52 Y160.39 E433.45593
G1 X126.36 Y160.39 E433.81305
G1 X126.36 Y176.14 E434.59892
G1 X107.33 Y176.14 E435.54853
G1 X107.33 Y172.21 E435.74475
G1 X104.53 Y172.11 E435.88467
G1 X104.53 Y160.39 E436.46958
G1 X95.40 Y160.39 E436.92483
G1 X94.48 Y156.57 E437.12041
G1 X91.45 Y156.57 E437.27198
G1 X90.83 Y160.39 E437.46460
G1 X81.23 Y160.39 E437.94315
G1 X81.23 Y172.34 E438.53978
G1 X78.43 Y172.35 E438.67968
G1 X78.43 Y172.50 E438.68706
G1 X67.13 Y172.50 E439.25082
G1 X59.40 Y172.52 E439.63662
G1 X59.40 Y160.39 E440.24204
G1 X52.44 Y160.39 E440.58908
G1 X52.44 Y131.78 E442.01648
G0 F12000 X52.84 Y132.18
G1 F2400 X71.88 Y132.18 E442.96634
G1 X71.88 Y137.19 E443.21674
G1 X113.88 Y137.19 E445.31213
G1 X113.88 Y132.18 E445.56253
G1 X133.12 Y132.18 E446.52252
G1 X133.12 Y159.99 E447.91001
G1 X125.97 Y159.99 E448.26713
G1 X125.97 Y175.74 E449.05300
G1 X107.73 Y175.74 E449.96270
G1 X107.73 Y171.82 E450.15822
G1 X104.93 Y171.72 E450.29814
G1 X104.93 Y159.99 E450.88370
G1 X95.72 Y159.99 E451.34319
G1 X94.80 Y156.18 E451.53877
G1 X91.11 Y156.18 E451.72307
G1 X90.49 Y159.99 E451.91569
G1 X80.83 Y159.99 E452.39718
G1 X80.83 Y171.94 E452.99382
G1 X78.03 Y171.95 E453.13371
G1 X78.03 Y172.10 E453.14109
G1 X67.13 Y172.10 E453.68495
G1 X59.80 Y172.12 E454.05074
G1 X59.80 Y159.99 E454.65611
G1 X52.84 Y159.99 E455.00315
G1 X52.84 Y132.18 E456.39064
G0 F12000 X53.24 Y132.57
G1 F2400 X71.48 Y132.57 E457.30059
G1 X71.48 Y137.59 E457.55099
G1 X114.28 Y137.59 E459.68629
G1 X114.28 Y132.57 E459.93669
G1 X132.72 Y132.57 E460.85677
G1 X132.72 Y159.59 E462.20435
G1 X125.56 Y159.59 E462.56146
G1 X125.56 Y175.34 E463.34733
G1 X108.13 Y175.34 E464.21712
G1 X108.13 Y171.43 E464.41194
G1 X105.33 Y171.34 E464.55187
G1 X105.33 Y159.59 E465.13813
G1 X96.03 Y159.59 E465.60185
G1 X95.11 Y155.78 E465.79745
G1 X90.77 Y155.78 E466.01437
G1 X90.15 Y159.59 E466.20699
G1 X80.44 Y159.59 E466.69148
G1 X80.44 Y171.55 E467.28816
G1 X77.63 Y171.55 E467.42806
G1 X77.63 Y171.70 E467.43539
G1 X67.13 Y171.70 E467.95939
G1 X60.20 Y171.72 E468.30513
G1 X60.20 Y159.59 E468.91040
G1 X53.24 Y159.59 E469.25743
G1 X53.24 Y132.57 E470.60502
G0 F12000 X53.64 Y132.97
G1 F2400 X71.08 Y132.97 E471.47505
G1 X71.08 Y137.99 E471.72545
G1 X114.68 Y137.99 E473.90066
G1 X114.68 Y132.97 E474.15106
G1 X132.32 Y132.97 E475.03123
G1 X132.32 Y159.19 E476.33890
G1 X125.17 Y159.19 E476.69601
G1 X125.17 Y174.94 E477.48188
G1 X108.53 Y174.94 E478.31176
G1 X108.53 Y171.05 E478.50593
G1 X105.73 Y170.95 E478.64585
G1 X105.73 Y159.19 E479.23276
G1 X96.35 Y159.19 E479.70073
G1 X95.43 Y155.38 E479.89632
G1 X90.42 Y155.38 E480.14593
G1 X89.81 Y159.19 E480.33855
G1 X80.03 Y159.19 E480.82603
G1 X80.03 Y171.15 E481.42276
G1 X77.23 Y171.15 E481.56265
G1 X77.23 Y171.30 E481.56994
G1 X67.13 Y171.30 E482.07403
G1 X60.60 Y171.32 E482.39976
G1 X60.60 Y159.19 E483.00498
G1 X53.64 Y159.19 E483.35202
G1 X53.64 Y132.97 E484.65969
G0 F12000 X54.04 Y133.38
G1 F2400 X70.68 Y133.38 E485.48981
G1 X70.68 Y138.39 E485.74021
G1 X115.08 Y138.39 E487.95534
G1 X115.08 Y133.38 E488.20574
G1 X131.92 Y133.38 E489.04599
G1 X131.92 Y158.79 E490.31375
G1 X124.77 Y158.79 E490.67086
G1 X124.77 Y174.54 E491.45673
G1 X108.93 Y174.54 E492.24669
G1 X108.93 Y170.66 E492.44017
G1 X106.13 Y170.56 E492.58009
G1 X106.13 Y158.79 E493.16770
G1 X96.66 Y158.79 E493.63991
G1 X95.74 Y154.97 E493.83550
G1 X90.08 Y154.97 E494.11778
G1 X89.47 Y158.79 E494.31040
G1 X79.64 Y158.79 E494.80088
G1 X79.64 Y170.75 E495.39766
G1 X76.83 Y170.75 E495.53755
G1 X76.83 Y170.90 E495.54474
G1 X67.13 Y170.90 E496.02887
G1 X61.00 Y170.92 E496.33465
G1 X61.00 Y158.79 E496.93982
G1 X54.04 Y158.79 E497.28686
G1 X54.04 Y133.38 E498.55462
G0 F12000 X54.44 Y133.78
G1 F2400 X70.28 Y133.78 E499.34483
G1 X70.28 Y138.79 E499.59523
G1 X115.48 Y138.79 E501.85026
G1 X115.48 Y133.78 E502.10066
G1 X131.52 Y133.78 E502.90100
G1 X131.52 Y158.39 E504.12885
G1 X124.36 Y158.39 E504.48596
G1 X124.36 Y174.14 E505.27183
G1 X109.33 Y174.14 E506.02188
G1 X109.33 Y170.27 E506.21476
G1 X106.53 Y170.18 E506.35468
G1 X106.53 Y158.39 E506.94294
G1 X96.98 Y158.39 E507.41939
G1 X96.06 Y154.57 E507.61497
G1 X89.75 Y154.57 E507.92998
G1 X89.12 Y158.39 E508.12261
G1 X79.23 Y158.39 E508.61602
G1 X79.23 Y170.35 E509.21286
G1 X76.43 Y170.35 E509.35275
G1 X76.43 Y170.50 E509.35988
G1 X67.12 Y170.50 E509.82416
G1 X61.40 Y170.51 E510.10988
G1 X61.40 Y158.39 E510.71495
G1 X54.44 Y158.39 E511.06199
G1 X54.44 Y133.78 E512.28984
G0 F12000 X54.84 Y134.18
G1 F2400 X69.88 Y134.18 E513.04014
G1 X69.88 Y139.19 E513.29053
G1 X115.88 Y139.19 E515.58548
G1 X115.88 Y134.18 E515.83588
G1 X131.12 Y134.18 E516.59631
G1 X131.12 Y157.99 E517.78425
G1 X123.97 Y157.99 E518.14136
G1 X123.97 Y173.74 E518.92723
G1 X109.73 Y173.74 E519.63737
G1 X109.73 Y169.89 E519.82954
G1 X106.93 Y169.79 E519.96947
G1 X106.93 Y157.99 E520.55837
G1 X97.29 Y157.99 E521.03906
G1 X96.37 Y154.18 E521.23465
G1 X89.40 Y154.18 E521.58238
G1 X88.78 Y157.99 E521.77500
G1 X78.83 Y157.99 E522.27141
G1 X78.83 Y169.95 E522.86830
G1 X76.03 Y169.96 E523.00819
G1 X76.03 Y170.10 E523.01527
G1 X67.12 Y170.10 E523.45965
G1 X61.80 Y170.11 E523.72536
G1 X61.80 Y157.99 E524.33038
G1 X54.84 Y157.99 E524.67742
G1 X54.84 Y134.18 E525.86535
G0 F12000 X55.24 Y134.57
G1 F2400 X69.48 Y134.57 E526.57574
G1 X69.48 Y139.59 E526.82614
G1 X116.28 Y139.59 E529.16100
G1 X116.28 Y134.57 E529.41140
G1 X130.72 Y134.57 E530.13191
G1 X130.72 Y157.59 E531.27994
G1 X123.56 Y157.59 E531.63705
G1 X123.56 Y173.34 E532.42292
G1 X110.13 Y173.34 E533.09315
G1 X110.13 Y169.50 E533.28467
G1 X107.33 Y169.40 E533.42460
G1 X107.33 Y157.59 E534.01420
G1 X97.61 Y157.59 E534.49913
G1 X96.69 Y153.78 E534.69473
G1 X89.07 Y153.78 E535.07484
G1 X89.05 Y153.84 E535.07802
G1 X88.44 Y157.59 E535.26751
G1 X78.44 Y157.59 E535.76691
G1 X78.44 Y169.55 E536.36380
G1 X75.63 Y169.56 E536.50369
G1 X75.63 Y169.70 E536.51078
G1 X67.12 Y169.70 E536.93524
G1 X62.20 Y169.71 E537.18095
G1 X62.20 Y157.59 E537.78592
G1 X55.24 Y157.59 E538.13296
G1 X55.24 Y134.57 E539.28098
G0 F12000 X55.64 Y134.97
G1 F2400 X69.08 Y134.97 E539.95146
G1 X69.08 Y139.99 E540.20185
G1 X116.68 Y139.99 E542.57663
G1 X116.68 Y134.97 E542.82703
G1 X130.32 Y134.97 E543.50763
G1 X130.32 Y157.19 E544.61574
G1 X123.17 Y157.19 E544.97285
G1 X123.17 Y172.94 E545.75872
G1 X110.53 Y172.94 E546.38904
G1 X110.53 Y169.11 E546.57987
G1 X107.73 Y169.02 E546.71979
G1 X107.73 Y157.19 E547.31004
G1 X97.92 Y157.19 E547.79922
G1 X97.00 Y153.38 E547.99480
G1 X88.76 Y153.38 E548.40624
G1 X88.66 Y153.75 E548.42542
G1 X88.11 Y157.19 E548.59920
G1 X78.03 Y157.19 E549.10159
G1 X78.03 Y169.15 E549.69853
G1 X75.23 Y169.16 E549.83842
G1 X75.23 Y169.30 E549.84545
G1 X67.12 Y169.30 E550.25001
G1 X62.60 Y169.31 E550.47572
G1 X62.60 Y157.19 E551.08064
G1 X55.64 Y157.19 E551.42767
G1 X55.64 Y134.97 E552.53578
G0 F12000 X56.04 Y135.38
G1 F2400 X68.68 Y135.38 E553.16635
G1 X68.68 Y140.39 E553.41675
G1 X117.08 Y140.39 E555.83143
G1 X117.08 Y135.38 E556.08183
G1 X129.92 Y135.38 E556.72252
G1 X129.92 Y156.79 E557.79072
G1 X122.77 Y156.79 E558.14783
G1 X122.77 Y172.54 E558.93370
G1 X110.93 Y172.54 E559.52410
G1 X110.93 Y168.73 E559.71424
G1 X108.13 Y168.63 E559.85416
G1 X108.13 Y156.79 E560.44511
G1 X98.24 Y156.79 E560.93852
G1 X97.38 Y153.22 E561.12169
G1 X97.29 Y152.97 E561.13450
G1 X88.47 Y152.97 E561.57463
G1 X88.39 Y153.20 E561.58650
G1 X88.27 Y153.67 E561.61088
G1 X87.76 Y156.79 E561.76823
G1 X77.64 Y156.79 E562.27357
G1 X77.64 Y168.75 E562.87055
G1 X74.83 Y168.76 E563.01045
G1 X74.83 Y168.90 E563.01743
G1 X67.12 Y168.90 E563.40213
G1 X63.00 Y168.91 E563.60778
G1 X63.00 Y156.79 E564.21260
G1 X56.04 Y156.79 E564.55964
G1 X56.04 Y135.38 E565.62784
G0 F12000 X56.44 Y135.78
G1 F2400 X68.28 Y135.78 E566.21849
G1 X68.28 Y140.79 E566.46889
G1 X117.48 Y140.79 E568.92348
G1 X117.48 Y135.78 E569.17388
G1 X129.52 Y135.78 E569.77466
G1 X129.52 Y156.39 E570.80295
G1 X122.36 Y156.39 E571.16006
G1 X122.36 Y172.14 E571.94593
G1 X111.33 Y172.14 E572.49642
G1 X111.33 Y168.34 E572.68590
G1 X108.53 Y168.24 E572.82583
G1 X108.53 Y156.39 E573.41743
G1 X98.55 Y156.39 E573.91508
G1 X97.76 Y153.10 E574.08382
G1 X97.59 Y152.60 E574.10991
G1 X97.57 Y152.57 E574.11156
G1 X88.19 Y152.57 E574.57958
G1 X88.17 Y152.61 E574.58168
G1 X88.01 Y153.08 E574.60631
G1 X87.88 Y153.60 E574.63295
G1 X87.42 Y156.39 E574.77397
G1 X77.23 Y156.39 E575.28230
G1 X77.23 Y168.35 E575.87934
G1 X74.43 Y168.36 E576.01923
G1 X74.43 Y168.50 E576.02616
G1 X67.12 Y168.50 E576.39096
G1 X63.40 Y168.51 E576.57660
G1 X63.40 Y156.39 E577.18137
G1 X56.44 Y156.39 E577.52841
G1 X56.44 Y135.78 E578.55670
G0 F12000 X56.84 Y136.18
G1 F2400 X67.88 Y136.18 E579.10743
G1 X67.88 Y141.19 E579.35783
G1 X117.88 Y141.19 E581.85234
G1 X117.88 Y136.18 E582.10274
G1 X129.12 Y136.18 E582.66361
G1 X129.12 Y155.99 E583.65198
G1 X121.97 Y155.99 E584.00910
G1 X121.97 Y171.74 E584.79497
G1 X111.73 Y171.74 E585.30554
G1 X111.73 Y167.95 E585.49438
G1 X108.93 Y167.86 E585.63430
G1 X108.93 Y155.99 E586.22655
G1 X98.87 Y155.99 E586.72844
G1 X98.14 Y152.99 E586.88241
G1 X97.95 Y152.45 E586.91092
G1 X97.83 Y152.18 E586.92592
G1 X87.94 Y152.18 E587.41929
G1 X87.80 Y152.46 E587.43491
G1 X87.62 Y152.96 E587.46154
G1 X87.48 Y153.52 E587.49018
G1 X87.08 Y155.99 E587.61493
G1 X76.83 Y155.99 E588.12625
G1 X76.83 Y167.95 E588.72334
G1 X74.03 Y167.96 E588.86323
G1 X74.03 Y168.10 E588.87012
G1 X67.12 Y168.10 E589.21501
G1 X63.80 Y168.11 E589.38064
G1 X63.80 Y155.99 E589.98536
G1 X56.84 Y155.99 E590.33240
G1 X56.84 Y136.18 E591.32077
G0 F12000 X57.24 Y136.57
G1 F2400 X67.48 Y136.57 E591.83160
G1 X67.48 Y141.59 E592.08200
G1 X118.28 Y141.59 E594.61642
G1 X118.28 Y136.57 E594.86682
G1 X128.72 Y136.57 E595.38777
G1 X128.72 Y155.59 E596.33624
G1 X121.56 Y155.59 E596.69335
G1 X121.56 Y171.34 E597.47922
G1 X112.13 Y171.34 E597.94988
G1 X112.13 Y167.56 E598.13837
G1 X112.08 Y167.56 E598.14076
G1 X112.01 Y167.56 E598.14461
G1 X109.33 Y167.47 E598.27829
G1 X109.33 Y155.59 E598.87124
G1 X99.18 Y155.59 E599.37737
G1 X98.53 Y152.87 E599.51688
G1 X98.33 Y152.30 E599.54681
G1 X98.08 Y151.78 E599.57582
G1 X98.08 Y151.78 E599.57589
G1 X87.69 Y151.78 E600.09440
G1 X87.68 Y151.78 E600.09487
G1 X87.44 Y152.30 E600.12324
G1 X87.24 Y152.85 E600.15250
G1 X87.09 Y153.44 E600.18283
G1 X86.74 Y155.59 E600.29134
G1 X76.44 Y155.59 E600.80566
G1 X76.44 Y167.56 E601.40280
G1 X73.63 Y167.56 E601.54269
G1 X73.63 Y167.70 E601.54957
G1 X67.12 Y167.70 E601.87461
G1 X64.20 Y167.71 E602.02019
G1 X64.20 Y155.59 E602.62481
G1 X57.24 Y155.59 E602.97184
G1 X57.24 Y136.57 E603.92031
G0 F12000 X57.64 Y136.97
G1 F2400 X67.08 Y136.97 E604.39122
G1 X67.08 Y141.99 E604.64162
G1 X118.68 Y141.99 E607.21595
G1 X118.68 Y136.97 E607.46635
G1 X128.32 Y136.97 E607.94739
G1 X128.32 Y155.19 E608.85595
G1 X121.17 Y155.19 E609.21306
G1 X121.17 Y170.94 E609.99893
G1 X112.53 Y170.94 E610.42968
G1 X112.53 Y167.16 E610.61817
G1 X112.08 Y167.16 E610.64082
G1 X112.01 Y167.16 E610.64431
G1 X109.73 Y167.08 E610.75808
G1 X109.73 Y155.19 E611.35167
G1 X99.50 Y155.19 E611.86205
G1 X98.91 Y152.76 E611.98667
G1 X98.69 Y152.14 E612.01914
G1 X98.44 Y151.59 E612.04943
G1 X98.30 Y151.38 E612.06223
G1 X87.46 Y151.38 E612.60334
G1 X87.33 Y151.59 E612.61603
G1 X87.06 Y152.15 E612.64676
G1 X86.85 Y152.74 E612.67806
G1 X86.70 Y153.34 E612.70881
G1 X86.40 Y155.19 E612.80217
G1 X76.03 Y155.19 E613.31944
G1 X76.03 Y167.16 E613.91657
G1 X73.36 Y167.16 E614.05003
G1 X73.23 Y167.16 E614.05646
G1 X73.23 Y167.30 E614.06330
G1 X67.11 Y167.30 E614.36843
G1 X64.60 Y167.30 E614.49400
G1 X64.60 Y155.19 E615.09857
G1 X57.64 Y155.19 E615.44561
G1 X57.64 Y136.97 E616.35416
G0 F12000 X58.04 Y137.38
G1 F2400 X66.68 Y137.38 E616.78516
G1 X66.68 Y142.39 E617.03556
G1 X119.08 Y142.39 E619.64980
G1 X119.08 Y137.38 E619.90020
G1 X127.92 Y137.38 E620.34133
G1 X127.92 Y154.79 E621.20997
G1 X120.77 Y154.79 E621.56709
G1 X120.77 Y170.54 E622.35296
G1 X112.93 Y170.54 E622.74380
G1 X112.93 Y166.76 E622.93228
G1 X112.07 Y166.76 E622.97524
G1 X112.01 Y166.76 E622.97828
G1 X110.13 Y166.70 E623.07218
G1 X110.13 Y154.79 E623.66647
G1 X99.81 Y154.79 E624.18109
G1 X99.29 Y152.64 E624.29129
G1 X99.07 Y152.00 E624.32513
G1 X98.79 Y151.41 E624.35792
G1 X98.53 Y150.97 E624.38291
G1 X87.23 Y150.97 E624.94662
G1 X86.97 Y151.41 E624.97175
G1 X86.69 Y152.00 E625.00431
G1 X86.47 Y152.62 E625.03732
G1 X86.31 Y153.26 E625.07028
G1 X86.06 Y154.79 E625.14736
G1 X75.64 Y154.79 E625.66762
G1 X75.64 Y166.76 E626.26480
G1 X73.36 Y166.76 E626.37836
G1 X72.83 Y166.76 E626.40470
G1 X72.83 Y166.90 E626.41148
G1 X67.11 Y166.90 E626.69665
G1 X65.00 Y166.90 E626.80227
G1 X65.00 Y154.79 E627.40679
G1 X58.04 Y154.79 E627.75383
G1 X58.04 Y137.38 E628.62247
G0 F12000 X58.44 Y137.78
G1 F2400 X66.28 Y137.78 E629.01356
G1 X66.28 Y142.79 E629.26396
G1 X119.48 Y142.79 E631.91811
G1 X119.48 Y137.78 E632.16851
G1 X127.52 Y137.78 E632.56973
G1 X127.52 Y154.39 E633.39846
G1 X120.36 Y154.39 E633.75557
G1 X120.36 Y170.14 E634.54144
G1 X113.33 Y170.14 E634.89237
G1 X113.33 Y166.36 E635.08085
G1 X112.09 Y166.36 E635.14272
G1 X112.01 Y166.36 E635.14671
G1 X110.53 Y166.31 E635.22074
G1 X110.53 Y154.39 E635.81568
G1 X100.13 Y154.39 E636.33454
G1 X99.68 Y152.53 E636.42984
G1 X99.44 Y151.84 E636.46625
G1 X99.14 Y151.22 E636.50077
G1 X98.78 Y150.62 E636.53565
G1 X98.75 Y150.57 E636.53815
G1 X87.01 Y150.57 E637.12401
G1 X86.98 Y150.61 E637.12636
G1 X86.62 Y151.22 E637.16147
G1 X86.32 Y151.85 E637.19646
G1 X86.09 Y152.50 E637.23096
G1 X85.92 Y153.18 E637.26592
G1 X85.72 Y154.39 E637.32678
G1 X75.23 Y154.39 E637.85002
G1 X75.23 Y166.36 E638.44726
G1 X73.36 Y166.36 E638.54085
G1 X72.43 Y166.36 E638.58715
G1 X72.43 Y166.50 E638.59394
G1 X67.11 Y166.50 E638.85920
G1 X65.40 Y166.50 E638.94482
G1 X65.40 Y154.39 E639.54928
G1 X58.44 Y154.39 E639.89632
G1 X58.44 Y137.78 E640.72505
G0 F12000 X58.84 Y138.18
G1 F2400 X65.88 Y138.18 E641.07622
G1 X65.88 Y143.19 E641.32662
G1 X119.88 Y143.19 E644.02069
G1 X119.88 Y138.18 E644.27109
G1 X127.12 Y138.18 E644.63240
G1 X127.12 Y153.99 E645.42121
G1 X119.97 Y153.99 E645.77833
G1 X119.97 Y169.74 E646.56420
G1 X113.73 Y169.74 E646.87521
G1 X113.73 Y165.96 E647.06370
G1 X112.08 Y165.96 E647.14607
G1 X112.01 Y165.96 E647.14946
G1 X110.93 Y165.92 E647.20357
G1 X110.93 Y153.99 E647.79916
G1 X100.44 Y153.99 E648.32226
G1 X100.06 Y152.42 E648.40268
G1 X99.81 Y151.68 E648.44158
G1 X99.50 Y151.03 E648.47769
G1 X99.12 Y150.40 E648.51445
G1 X98.95 Y150.18 E648.52825
G1 X86.81 Y150.18 E649.13407
G1 X86.65 Y150.40 E649.14773
G1 X86.27 Y151.03 E649.18472
G1 X85.95 Y151.69 E649.22105
G1 X85.70 Y152.39 E649.25823
G1 X85.53 Y153.11 E649.29499
G1 X85.38 Y153.99 E649.33946
G1 X74.83 Y153.99 E649.86571
G1 X74.83 Y165.96 E650.46299
G1 X73.36 Y165.96 E650.53663
G1 X72.03 Y165.96 E650.60288
G1 X72.03 Y166.10 E650.60972
G1 X67.11 Y166.10 E650.85513
G1 X65.80 Y166.10 E650.92069
G1 X65.80 Y153.99 E651.52506
G1 X58.84 Y153.99 E651.87209
G1 X58.84 Y138.18 E652.66091
G0 F12000 X59.24 Y138.57
G1 F2400 X65.48 Y138.57 E652.97217
G1 X65.48 Y143.59 E653.22257
G1 X120.28 Y143.59 E655.95655
G1 X120.28 Y138.57 E656.20695
G1 X126.72 Y138.57 E656.52834
G1 X126.72 Y153.59 E657.27725
G1 X119.56 Y153.59 E657.63436
G1 X119.56 Y169.34 E658.42023
G1 X114.13 Y169.34 E658.69133
G1 X114.13 Y165.56 E658.87982
G1 X112.07 Y165.56 E658.98264
G1 X112.01 Y165.56 E658.98544
G1 X111.33 Y165.54 E659.01968
G1 X111.33 Y153.59 E659.61597
G1 X100.76 Y153.59 E660.14331
G1 X100.45 Y152.31 E660.20895
G1 X100.18 Y151.54 E660.24958
G1 X99.85 Y150.84 E660.28835
G1 X99.45 Y150.17 E660.32713
G1 X99.16 Y149.78 E660.35159
G1 X86.61 Y149.78 E660.97762
G1 X86.31 Y150.17 E661.00215
G1 X85.91 Y150.84 E661.04136
G1 X85.58 Y151.53 E661.07943
G1 X85.32 Y152.27 E661.11858
G1 X85.13 Y153.03 E661.15740
G1 X85.04 Y153.59 E661.18560
G1 X74.44 Y153.59 E661.71479
G1 X74.44 Y165.56 E662.31212
G1 X73.36 Y165.56 E662.36586
G1 X71.63 Y165.56 E662.45202
G1 X71.63 Y165.70 E662.45885
G1 X67.11 Y165.70 E662.68436
G1 X66.20 Y165.70 E662.72991
G1 X66.20 Y153.59 E663.33423
G1 X59.24 Y153.59 E663.68126
G1 X59.24 Y138.57 E664.43016
G0 F12000 X59.64 Y138.97
G1 F2400 X65.08 Y138.97 E664.70152
G1 X65.08 Y143.99 E664.95192
G1 X120.68 Y143.99 E667.72581
G1 X120.68 Y138.97 E667.97621
G1 X126.32 Y138.97 E668.25769
G1 X126.32 Y153.19 E668.96668
G1 X119.17 Y153.19 E669.32379
G1 X119.17 Y168.94 E670.10966
G1 X114.53 Y168.94 E670.34086
G1 X114.53 Y165.16 E670.52929
G1 X112.06 Y165.16 E670.65262
G1 X112.02 Y165.16 E670.65481
G1 X111.73 Y165.15 E670.66914
G1 X111.73 Y153.19 E671.26608
G1 X101.07 Y153.19 E671.79766
G1 X100.83 Y152.20 E671.84831
G1 X100.55 Y151.38 E671.89180
G1 X100.20 Y150.65 E671.93168
G1 X99.78 Y149.95 E671.97278
G1 X99.36 Y149.38 E672.00834
G1 X86.41 Y149.38 E672.65441
G1 X85.98 Y149.95 E672.68998
G1 X85.56 Y150.66 E672.73126
G1 X85.21 Y151.39 E672.77165
G1 X84.94 Y152.15 E672.81202
G1 X84.74 Y152.95 E672.85326
G1 X84.70 Y153.19 E672.86498
G1 X74.03 Y153.19 E673.39716
G1 X74.03 Y165.16 E673.99454
G1 X71.49 Y165.16 E674.12141
G1 X71.46 Y165.16 E674.12316
G1 X71.23 Y165.16 E674.13443
G1 X71.23 Y165.30 E674.14127
G1 X66.60 Y165.30 E674.37241
G1 X66.60 Y153.19 E674.97663
G1 X59.64 Y153.19 E675.32367
G1 X59.64 Y138.97 E676.03266
G0 F12000 X60.34 Y139.59
G0 X60.84 Y140.18
;TYPE:WALL-INNER
G1 F2400 X63.88 Y140.18 E676.18427
G1 X63.88 Y145.19 E676.43467
G1 X91.32 Y145.19 E677.80341
G1 X91.03 Y145.24 E677.81799
G1 X90.12 Y145.46 E677.86449
G1 X89.25 Y145.78 E677.91101
G1 X88.40 Y146.18 E677.95760
G1 X87.60 Y146.66 E678.00411
G1 X86.85 Y147.22 E678.05068
G1 X86.18 Y147.82 E678.09578
G1 X85.54 Y148.53 E678.14363
G1 X84.98 Y149.28 E678.19028
G1 X84.50 Y150.08 E678.23680
G1 X84.10 Y150.93 E678.28337
G1 X83.79 Y151.81 E678.32999
G1 X83.74 Y151.99 E678.33919
G1 X72.83 Y151.99 E678.88345
G1 X72.83 Y163.96 E679.48088
G1 X71.47 Y163.96 E679.54893
G1 X71.43 Y163.96 E679.55118
G1 X70.03 Y163.96 E679.62078
G1 X70.03 Y164.10 E679.62771
G1 X67.80 Y164.10 E679.73911
G1 X67.80 Y151.99 E680.34329
G1 X60.84 Y151.99 E680.69032
G1 X60.84 Y140.18 E681.27957
G0 F12000 X64.34 Y144.74
G0 X94.45 Y145.19
G1 F2400 X121.88 Y145.19 E682.64826
G1 X121.88 Y140.18 E682.89866
G1 X125.12 Y140.18 E683.06041
G1 X125.12 Y151.99 E683.64966
G1 X117.97 Y151.99 E684.00677
G1 X117.97 Y167.74 E684.79264
G1 X115.73 Y167.74 E684.90410
G1 X115.73 Y163.95 E685.09293
G1 X114.59 Y163.96 E685.14981
G1 X114.05 Y163.96 E685.17675
G1 X112.93 Y163.96 E685.23278
G1 X112.93 Y151.99 E685.83016
G1 X102.02 Y151.99 E686.37451
G1 X101.66 Y150.93 E686.43017
G1 X101.26 Y150.08 E686.47679
G1 X100.78 Y149.28 E686.52340
G1 X100.23 Y148.53 E686.56994
G1 X99.60 Y147.84 E686.61642
G1 X98.91 Y147.22 E686.66297
G1 X98.16 Y146.66 E686.70954
G1 X97.36 Y146.18 E686.75609
G1 X96.54 Y145.79 E686.80132
G1 X95.64 Y145.46 E686.84911
G1 X94.74 Y145.24 E686.89566
G1 X94.45 Y145.19 E686.91023
G0 F12000 X94.66 Y145.63
G1 F2400 X93.76 Y145.50 E686.95558
G1 X93.70 Y145.50 E686.95842
G1 X92.88 Y145.45 E686.99939
G1 X91.99 Y145.50 E687.04394
G1 X91.11 Y145.63 E687.08853
G1 X90.24 Y145.85 E687.13308
G1 X89.40 Y146.15 E687.17759
G1 X88.59 Y146.53 E687.22225
G1 X87.83 Y146.99 E687.26678
G1 X87.11 Y147.52 E687.31139
G1 X86.47 Y148.11 E687.35455
G1 X85.85 Y148.79 E687.40046
G1 X85.31 Y149.50 E687.44512
G1 X84.86 Y150.27 E687.48971
G1 X84.47 Y151.08 E687.53430
G1 X84.17 Y151.92 E687.57896
G1 X84.06 Y152.39 E687.60276
G1 X73.23 Y152.39 E688.14267
G1 X73.23 Y164.36 E688.74010
G1 X71.48 Y164.36 E688.82781
G1 X71.44 Y164.36 E688.82981
G1 X70.43 Y164.36 E688.88000
G1 X70.43 Y164.50 E688.88688
G1 X67.40 Y164.50 E689.03820
G1 X67.40 Y152.39 E689.64237
G1 X60.44 Y152.39 E689.98941
G1 X60.44 Y139.78 E690.61857
G1 X64.28 Y139.78 E690.81010
G1 X64.28 Y144.79 E691.06050
G1 X121.48 Y144.79 E693.91422
G1 X121.48 Y139.78 E694.16462
G1 X125.52 Y139.78 E694.36627
G1 X125.52 Y152.39 E694.99544
G1 X118.36 Y152.39 E695.35255
G1 X118.36 Y168.14 E696.13842
G1 X115.33 Y168.14 E696.28979
G1 X115.33 Y164.36 E696.47848
G1 X114.59 Y164.36 E696.51529
G1 X114.05 Y164.36 E696.54234
G1 X112.53 Y164.36 E696.61832
G1 X112.53 Y152.39 E697.21570
G1 X101.70 Y152.39 E697.75581
G1 X101.60 Y151.96 E697.77762
G1 X101.29 Y151.08 E697.82412
G1 X100.91 Y150.27 E697.86880
G1 X100.45 Y149.50 E697.91344
G1 X99.92 Y148.79 E697.95798
G1 X99.32 Y148.12 E698.00255
G1 X98.66 Y147.52 E698.04713
G1 X97.94 Y146.99 E698.09174
G1 X97.17 Y146.53 E698.13632
G1 X96.39 Y146.16 E698.17963
G1 X95.52 Y145.85 E698.22544
G1 X94.66 Y145.63 E698.27003
G0 F12000 X94.58 Y146.02
;TYPE:WALL-OUTER
G1 F2400 X93.73 Y145.90 E698.31291
G1 X93.70 Y145.90 E698.31431
G1 X92.88 Y145.85 E698.35527
G1 X92.03 Y145.90 E698.39788
G1 X91.18 Y146.02 E698.44045
G1 X90.36 Y146.23 E698.48303
G1 X89.55 Y146.52 E698.52564
G1 X88.78 Y146.88 E698.56831
G1 X88.05 Y147.32 E698.61087
G1 X87.36 Y147.83 E698.65349
G1 X86.75 Y148.39 E698.69474
G1 X86.16 Y149.04 E698.73875
G1 X85.65 Y149.73 E698.78140
G1 X85.21 Y150.46 E698.82403
G1 X84.84 Y151.23 E698.86663
G1 X84.56 Y152.04 E698.90933
G1 X84.37 Y152.79 E698.94774
G1 X73.64 Y152.79 E699.48326
G1 X73.64 Y164.76 E700.08065
G1 X71.48 Y164.76 E700.18801
G1 X71.45 Y164.76 E700.18976
G1 X70.83 Y164.76 E700.22054
G1 X70.83 Y164.90 E700.22737
G1 X67.00 Y164.90 E700.41860
G1 X67.00 Y152.79 E701.02282
G1 X60.04 Y152.79 E701.36986
G1 X60.04 Y139.38 E702.03894
G1 X64.68 Y139.38 E702.27038
G1 X64.68 Y144.39 E702.52078
G1 X121.08 Y144.39 E705.33458
G1 X121.08 Y139.38 E705.58498
G1 X125.92 Y139.38 E705.82655
G1 X125.92 Y152.79 E706.49563
G1 X118.77 Y152.79 E706.85274
G1 X118.77 Y168.54 E707.63861
G1 X114.93 Y168.54 E707.82989
G1 X114.93 Y164.76 E708.01843
G1 X114.59 Y164.76 E708.03519
G1 X112.13 Y164.76 E708.15827
G1 X112.13 Y152.79 E708.75566
G1 X101.39 Y152.79 E709.29153
G1 X101.22 Y152.07 E709.32801
G1 X100.92 Y151.23 E709.37251
G1 X100.56 Y150.46 E709.41513
G1 X100.12 Y149.73 E709.45780
G1 X99.61 Y149.04 E709.50042
G1 X99.03 Y148.41 E709.54302
G1 X98.40 Y147.83 E709.58568
G1 X97.72 Y147.32 E709.62830
G1 X96.98 Y146.88 E709.67091
G1 X96.23 Y146.53 E709.71228
G1 X95.41 Y146.23 E709.75614
G1 X94.58 Y146.02 E709.79872
G0 F12000 X94.65 Y145.73
G0 X96.40 Y145.33
;TYPE:FILL
G1 F2400 X96.84 Y145.78 E709.83004
G0 F12000 X96.97 Y145.33
G1 F2400 X98.08 Y146.44 E709.90854
G0 F12000 X98.10 Y145.33
G1 F2400 X104.61 Y151.84 E710.36796
G0 F12000 X105.17 Y151.84
G1 F2400 X98.66 Y145.33 E710.82735
G0 F12000 X99.23 Y145.33
G1 F2400 X105.74 Y151.84 E711.28677
G0 F12000 X106.31 Y151.84
G1 F2400 X99.80 Y145.33 E711.74619
G0 F12000 X100.36 Y145.33
G1 F2400 X106.87 Y151.84 E712.20557
G0 F12000 X107.44 Y151.84
G1 F2400 X100.93 Y145.33 E712.66500
G0 F12000 X101.49 Y145.33
G1 F2400 X108.00 Y151.84 E713.12442
G0 F12000 X108.57 Y151.84
G1 F2400 X102.06 Y145.33 E713.58380
G0 F12000 X102.62 Y145.33
G1 F2400 X109.14 Y151.84 E714.04323
G0 F12000 X109.70 Y151.84
G1 F2400 X103.19 Y145.33 E714.50265
G0 F12000 X103.75 Y145.33
G1 F2400 X110.27 Y151.84 E714.96203
G0 F12000 X110.83 Y151.84
G1 F2400 X104.32 Y145.33 E715.42145
G0 F12000 X104.89 Y145.33
G1 F2400 X111.40 Y151.84 E715.88088
G0 F12000 X111.96 Y151.84
G1 F2400 X105.45 Y145.33 E716.34026
G0 F12000 X106.02 Y145.33
G1 F2400 X112.53 Y151.84 E716.79968
G0 F12000 X113.07 Y152.38
G1 F2400 X117.83 Y157.14 E717.13539
G0 F12000 X117.83 Y157.71
G1 F2400 X113.07 Y152.95 E717.47109
G0 F12000 X113.07 Y153.51
G1 F2400 X117.83 Y158.27 E717.80676
G0 F12000 X117.83 Y158.84
G1 F2400 X113.07 Y154.08 E718.14246
G0 F12000 X113.07 Y154.65
G1 F2400 X117.83 Y159.40 E718.47816
G0 F12000 X117.83 Y159.97
G1 F2400 X113.07 Y155.21 E718.81383
G0 F12000 X113.07 Y155.78
G1 F2400 X117.83 Y160.53 E719.14950
G0 F12000 X117.83 Y161.10
G1 F2400 X113.07 Y156.34 E719.48520
G0 F12000 X113.07 Y156.91
G1 F2400 X117.83 Y161.66 E719.82087
G0 F12000 X117.83 Y162.23
G1 F2400 X113.07 Y157.47 E720.15653
G0 F12000 X113.07 Y158.04
G1 F2400 X117.83 Y162.80 E720.49224
G0 F12000 X117.83 Y163.36
G1 F2400 X113.07 Y158.60 E720.82790
G0 F12000 X113.07 Y159.17
G1 F2400 X117.83 Y163.93 E721.16357
G0 F12000 X117.83 Y164.49
G1 F2400 X113.07 Y159.74 E721.49927
G0 F12000 X113.07 Y160.30
G1 F2400 X117.83 Y165.06 E721.83494
G0 F12000 X117.83 Y165.62
G1 F2400 X113.07 Y160.87 E722.17061
G0 F12000 X113.07 Y161.43
G1 F2400 X115.44 Y163.81 E722.33839
G0 F12000 X114.88 Y163.81
G1 F2400 X113.07 Y162.00 E722.46645
G0 F12000 X113.07 Y162.56
G1 F2400 X114.32 Y163.81 E722.55464
G0 F12000 X113.75 Y163.82
G1 F2400 X113.07 Y163.13 E722.60311
G0 F12000 X113.07 Y163.70
G1 F2400 X113.19 Y163.82 E722.61176
G0 F12000 X115.87 Y164.24
G1 F2400 X117.83 Y166.19 E722.74969
G0 F12000 X117.83 Y166.76
G1 F2400 X115.87 Y164.80 E722.88759
G0 F12000 X115.87 Y165.37
G1 F2400 X117.83 Y167.32 E723.02549
G0 F12000 X117.53 Y167.60
G1 F2400 X115.87 Y165.93 E723.14286
G0 F12000 X115.87 Y166.50
G1 F2400 X116.97 Y167.60 E723.22033
G0 F12000 X116.40 Y167.60
G1 F2400 X115.87 Y167.06 E723.25787
G0 F12000 X117.83 Y156.57
G1 F2400 X106.58 Y145.33 E724.05101
G0 F12000 X107.15 Y145.33
G1 F2400 X117.83 Y156.01 E724.80423
G0 F12000 X117.83 Y155.44
G1 F2400 X107.71 Y145.33 E725.51758
G0 F12000 X108.28 Y145.33
G1 F2400 X117.83 Y154.88 E726.19100
G0 F12000 X117.83 Y154.31
G1 F2400 X108.85 Y145.33 E726.82448
G0 F12000 X109.41 Y145.33
G1 F2400 X117.83 Y153.75 E727.41806
G0 F12000 X117.83 Y153.18
G1 F2400 X109.98 Y145.33 E727.97174
G0 F12000 X110.54 Y145.33
G1 F2400 X117.83 Y152.61 E728.48549
G0 F12000 X117.83 Y152.05
G1 F2400 X111.11 Y145.33 E728.95934
G0 F12000 X111.67 Y145.33
G1 F2400 X118.19 Y151.84 E729.41883
G0 F12000 X118.75 Y151.84
G1 F2400 X112.24 Y145.33 E729.87829
G0 F12000 X112.81 Y145.33
G1 F2400 X119.32 Y151.84 E730.33775
G0 F12000 X119.88 Y151.84
G1 F2400 X113.37 Y145.33 E730.79724
G0 F12000 X113.94 Y145.33
G1 F2400 X120.45 Y151.84 E731.25670
G0 F12000 X121.02 Y151.84
G1 F2400 X114.50 Y145.33 E731.71615
G0 F12000 X115.07 Y145.33
G1 F2400 X121.58 Y151.84 E732.17565
G0 F12000 X122.15 Y151.84
G1 F2400 X115.63 Y145.33 E732.63514
G0 F12000 X116.20 Y145.33
G1 F2400 X122.71 Y151.84 E733.09459
G0 F12000 X123.28 Y151.84
G1 F2400 X116.77 Y145.33 E733.55409
G0 F12000 X117.33 Y145.33
G1 F2400 X123.84 Y151.84 E734.01358
G0 F12000 X124.41 Y151.84
G1 F2400 X117.90 Y145.33 E734.47304
G0 F12000 X118.46 Y145.33
G1 F2400 X124.97 Y151.84 E734.93249
G0 F12000 X124.98 Y151.29
G1 F2400 X119.03 Y145.33 E735.35261
G0 F12000 X119.59 Y145.33
G1 F2400 X124.98 Y150.72 E735.73280
G0 F12000 X124.98 Y150.16
G1 F2400 X120.16 Y145.33 E736.07309
G0 F12000 X120.72 Y145.33
G1 F2400 X124.98 Y149.59 E736.37348
G0 F12000 X124.98 Y149.02
G1 F2400 X121.29 Y145.33 E736.63394
G0 F12000 X121.86 Y145.33
G1 F2400 X124.98 Y148.46 E736.85449
G0 F12000 X124.98 Y147.89
G1 F2400 X122.02 Y144.93 E737.06348
G0 F12000 X122.02 Y144.37
G1 F2400 X124.98 Y147.33 E737.27246
G0 F12000 X124.98 Y146.76
G1 F2400 X122.02 Y143.80 E737.48145
G0 F12000 X122.02 Y143.23
G1 F2400 X124.98 Y146.20 E737.69043
G0 F12000 X124.98 Y145.63
G1 F2400 X122.02 Y142.67 E737.89942
G0 F12000 X122.02 Y142.10
G1 F2400 X124.98 Y145.06 E738.10840
G0 F12000 X124.98 Y144.50
G1 F2400 X122.02 Y141.54 E738.31739
G0 F12000 X122.02 Y140.97
G1 F2400 X124.98 Y143.93 E738.52637
G0 F12000 X124.98 Y143.37
G1 F2400 X122.02 Y140.41 E738.73539
G0 F12000 X122.50 Y140.31
G1 F2400 X124.98 Y142.80 E738.91093
G0 F12000 X124.98 Y142.24
G1 F2400 X123.06 Y140.31 E739.04654
G0 F12000 X123.63 Y140.31
G1 F2400 X124.98 Y141.67 E739.14222
G0 F12000 X124.98 Y141.10
G1 F2400 X124.19 Y140.31 E739.19802
G0 F12000 X124.76 Y140.31
G1 F2400 X124.98 Y140.54 E739.21390
G0 F12000 X121.42 Y144.74
G0 X104.04 Y151.84
G1 F2400 X97.53 Y145.33 E739.67332
G0 F12000 X100.99 Y149.35
G1 F2400 X103.48 Y151.84 E739.84900
G0 F12000 X102.91 Y151.84
G1 F2400 X101.65 Y150.58 E739.93794
G0 F12000 X102.00 Y151.50
G1 F2400 X102.35 Y151.84 E739.96249
G0 F12000 X98.66 Y147.53
G0 X95.52 Y145.85
G0 X91.99 Y145.50
G0 X89.73 Y145.45
G1 F2400 X89.46 Y145.47 E739.97093
G1 X88.98 Y145.55 E739.98984
G1 X88.48 Y145.33 E740.01723
G0 F12000 X87.92 Y145.33
G1 F2400 X88.54 Y145.96 E740.06115
G0 F12000 X88.17 Y146.15
G1 F2400 X87.35 Y145.33 E740.11890
G0 F12000 X86.78 Y145.33
G1 F2400 X87.82 Y146.36 E740.19168
G0 F12000 X87.47 Y146.58
G1 F2400 X86.22 Y145.33 E740.27984
G0 F12000 X85.65 Y145.33
G1 F2400 X87.14 Y146.82 E740.38497
G0 F12000 X86.82 Y147.06
G1 F2400 X85.09 Y145.33 E740.50713
G0 F12000 X84.52 Y145.33
G1 F2400 X86.52 Y147.33 E740.64800
G0 F12000 X86.22 Y147.60
G1 F2400 X83.96 Y145.33 E740.80777
G0 F12000 X83.39 Y145.33
G1 F2400 X85.94 Y147.88 E740.98761
G0 F12000 X85.67 Y148.18
G1 F2400 X82.82 Y145.33 E741.18838
G0 F12000 X82.26 Y145.33
G1 F2400 X85.40 Y148.48 E741.41021
G0 F12000 X85.16 Y148.80
G1 F2400 X81.69 Y145.33 E741.65500
G0 F12000 X81.13 Y145.33
G1 F2400 X84.92 Y149.13 E741.92272
G0 F12000 X84.70 Y149.47
G1 F2400 X80.56 Y145.33 E742.21482
G0 F12000 X80.00 Y145.33
G1 F2400 X84.49 Y149.83 E742.53197
G0 F12000 X84.29 Y150.19
G1 F2400 X79.43 Y145.33 E742.87504
G0 F12000 X78.86 Y145.33
G1 F2400 X84.11 Y150.58 E743.24525
G0 F12000 X83.94 Y150.97
G1 F2400 X78.30 Y145.33 E743.64311
G0 F12000 X77.73 Y145.33
G1 F2400 X83.79 Y151.39 E744.07043
G0 F12000 X83.64 Y151.81
G1 F2400 X77.17 Y145.33 E744.52738
G0 F12000 X76.60 Y145.33
G1 F2400 X83.11 Y151.84 E744.98684
G0 F12000 X82.55 Y151.84
G1 F2400 X76.04 Y145.33 E745.44633
G0 F12000 X75.47 Y145.33
G1 F2400 X81.98 Y151.84 E745.90582
G0 F12000 X81.42 Y151.84
G1 F2400 X74.91 Y145.33 E746.36528
G0 F12000 X74.34 Y145.33
G1 F2400 X80.85 Y151.84 E746.82477
G0 F12000 X80.29 Y151.84
G1 F2400 X73.77 Y145.33 E747.28426
G0 F12000 X73.21 Y145.33
G1 F2400 X79.72 Y151.84 E747.74372
G0 F12000 X79.15 Y151.84
G1 F2400 X72.64 Y145.33 E748.20317
G0 F12000 X72.08 Y145.33
G1 F2400 X78.59 Y151.84 E748.66267
G0 F12000 X78.02 Y151.84
G1 F2400 X71.51 Y145.33 E749.12212
G0 F12000 X70.94 Y145.33
G1 F2400 X77.46 Y151.84 E749.58158
G0 F12000 X76.89 Y151.84
G1 F2400 X70.38 Y145.33 E750.04107
G0 F12000 X69.81 Y145.33
G1 F2400 X76.33 Y151.84 E750.50053
G0 F12000 X75.76 Y151.84
G1 F2400 X69.25 Y145.33 E750.95999
G0 F12000 X68.68 Y145.33
G1 F2400 X75.19 Y151.84 E751.41948
G0 F12000 X74.63 Y151.84
G1 F2400 X68.12 Y145.33 E751.87893
G0 F12000 X67.55 Y145.33
G1 F2400 X74.06 Y151.84 E752.33839
G0 F12000 X73.50 Y151.84
G1 F2400 X66.98 Y145.33 E752.79788
G0 F12000 X66.42 Y145.33
G1 F2400 X72.93 Y151.84 E753.25738
G0 F12000 X72.69 Y152.17
G1 F2400 X65.85 Y145.33 E753.74004
G0 F12000 X65.29 Y145.33
G1 F2400 X72.69 Y152.74 E754.26265
G0 F12000 X72.69 Y153.31
G1 F2400 X64.72 Y145.33 E754.82515
G0 F12000 X64.16 Y145.33
G1 F2400 X72.69 Y153.87 E755.42755
G0 F12000 X72.69 Y154.44
G1 F2400 X60.98 Y142.72 E756.25400
G0 F12000 X60.98 Y142.16
G1 F2400 X63.74 Y144.92 E756.44867
G0 F12000 X63.74 Y144.35
G1 F2400 X60.98 Y141.59 E756.64333
G0 F12000 X60.98 Y141.03
G1 F2400 X63.74 Y143.78 E756.83799
G0 F12000 X63.74 Y143.22
G1 F2400 X60.98 Y140.46 E757.03265
G0 F12000 X61.40 Y140.31
G1 F2400 X63.74 Y142.65 E757.19779
G0 F12000 X63.74 Y142.09
G1 F2400 X61.97 Y140.31 E757.32299
G0 F12000 X62.53 Y140.31
G1 F2400 X63.74 Y141.52 E757.40829
G0 F12000 X63.74 Y140.96
G1 F2400 X63.10 Y140.31 E757.45369
G0 F12000 X63.66 Y140.31
G1 F2400 X63.74 Y140.39 E757.45916
G0 F12000 X60.98 Y143.29
G1 F2400 X72.69 Y155.00 E758.28558
G0 F12000 X72.69 Y155.57
G1 F2400 X60.98 Y143.85 E759.11199
G0 F12000 X60.98 Y144.42
G1 F2400 X72.69 Y156.13 E759.93844
G0 F12000 X72.69 Y156.70
G1 F2400 X67.94 Y151.94 E760.27407
G0 F12000 X67.84 Y151.84
G1 F2400 X60.98 Y144.99 E760.75794
G0 F12000 X60.98 Y145.55
G1 F2400 X67.27 Y151.84 E761.20188
G0 F12000 X66.71 Y151.84
G1 F2400 X60.98 Y146.12 E761.60595
G0 F12000 X60.98 Y146.68
G1 F2400 X66.14 Y151.84 E761.97009
G0 F12000 X65.58 Y151.84
G1 F2400 X60.98 Y147.25 E762.29429
G0 F12000 X60.98 Y147.81
G1 F2400 X65.01 Y151.84 E762.57859
G0 F12000 X64.45 Y151.84
G1 F2400 X60.98 Y148.38 E762.82299
G0 F12000 X60.98 Y148.95
G1 F2400 X63.88 Y151.84 E763.02746
G0 F12000 X63.31 Y151.84
G1 F2400 X60.98 Y149.51 E763.19203
G0 F12000 X60.98 Y150.08
G1 F2400 X62.75 Y151.84 E763.31671
G0 F12000 X62.18 Y151.84
G1 F2400 X60.98 Y150.64 E763.40144
G0 F12000 X60.98 Y151.21
G1 F2400 X61.62 Y151.84 E763.44625
G0 F12000 X61.05 Y151.84
G1 F2400 X60.98 Y151.77 E763.45118
G0 F12000 X67.94 Y152.51
G1 F2400 X72.69 Y157.26 E763.78682
G0 F12000 X72.69 Y157.83
G1 F2400 X67.94 Y153.07 E764.12248
G0 F12000 X67.94 Y153.64
G1 F2400 X72.69 Y158.40 E764.45812
G0 F12000 X72.69 Y158.96
G1 F2400 X67.94 Y154.21 E764.79375
G0 F12000 X67.94 Y154.77
G1 F2400 X72.69 Y159.53 E765.12942
G0 F12000 X72.69 Y160.09
G1 F2400 X67.94 Y155.34 E765.46505
G0 F12000 X67.94 Y155.90
G1 F2400 X72.69 Y160.66 E765.80068
G0 F12000 X72.69 Y161.22
G1 F2400 X67.94 Y156.47 E766.13635
G0 F12000 X67.94 Y157.03
G1 F2400 X72.69 Y161.79 E766.47198
G0 F12000 X72.69 Y162.36
G1 F2400 X67.94 Y157.60 E766.80761
G0 F12000 X67.94 Y158.16
G1 F2400 X72.69 Y162.92 E767.14328
G0 F12000 X72.69 Y163.49
G1 F2400 X67.94 Y158.73 E767.47895
G0 F12000 X67.94 Y159.30
G1 F2400 X72.46 Y163.82 E767.79807
G0 F12000 X71.89 Y163.82
G1 F2400 X67.94 Y159.86 E768.07729
G0 F12000 X67.94 Y160.43
G1 F2400 X71.33 Y163.82 E768.31661
G0 F12000 X70.76 Y163.82
G1 F2400 X67.94 Y160.99 E768.51593
G0 F12000 X67.94 Y161.56
G1 F2400 X70.20 Y163.82 E768.67525
G0 F12000 X69.77 Y163.96
G1 F2400 X67.94 Y162.12 E768.80440
G0 F12000 X67.94 Y162.69
G1 F2400 X69.20 Y163.96 E768.89365
G0 F12000 X68.64 Y163.95
G1 F2400 X67.94 Y163.26 E768.94290
G0 F12000 X67.94 Y163.82
G1 F2400 X68.07 Y163.95 E768.95228
G1 F2400 E767.75228
G0 F12000 X91.60 Y149.23
;TYPE:SUPPORT
G1 F2400 E768.95228
G1 X91.60 Y146.76 E769.07576
G0 F12000 X92.40 Y146.72
G1 F2400 X92.40 Y149.23 E769.20114
G0 F12000 X93.20 Y149.23
G1 F2400 X93.20 Y146.71 E769.32686
G0 F12000 X94.00 Y146.75
G1 F2400 X94.00 Y149.23 E769.45059
;LAYER:1
G1 F2400 E768.25059
G0 F12000 X94.48 Y145.19 Z0.50
;TYPE:WALL-INNER
G1 F2400 E769.45059
G1 X121.88 Y145.19 E770.35960
G1 X121.88 Y140.17 E770.52612
G1 X125.13 Y140.17 E770.63388
G1 X125.13 Y151.99 E771.02593
G1 X117.97 Y151.99 E771.26341
G1 X117.97 Y167.74 E771.78601
G1 X115.73 Y167.74 E771.86033
G1 X115.73 Y163.34 E772.00621
G1 X114.69 Y163.41 E772.04083
G1 X114.64 Y163.41 E772.04242
G1 X114.54 Y163.41 E772.04584
G1 X114.02 Y163.41 E772.06302
G1 X112.92 Y163.41 E772.09928
G1 X112.92 Y151.99 E772.47830
G1 X102.02 Y151.99 E772.84013
G1 X101.66 Y150.92 E772.87753
G1 X101.26 Y150.07 E772.90859
G1 X100.78 Y149.27 E772.93957
G1 X100.22 Y148.52 E772.97050
G1 X99.60 Y147.83 E773.00143
G1 X98.91 Y147.21 E773.03237
G1 X98.16 Y146.65 E773.06331
G1 X97.36 Y146.17 E773.09428
G1 X96.58 Y145.80 E773.12288
G1 X95.64 Y145.46 E773.15612
G1 X94.73 Y145.23 E773.18704
G1 X94.48 Y145.19 E773.19563
G0 F12000 X91.28 Y145.19
G1 F2400 X91.03 Y145.23 E773.20422
G1 X90.12 Y145.46 E773.23514
G1 X89.25 Y145.77 E773.26608
G1 X88.40 Y146.17 E773.29703
G1 X87.60 Y146.65 E773.32794
G1 X86.86 Y147.21 E773.35891
G1 X86.21 Y147.80 E773.38801
G1 X85.54 Y148.52 E773.42067
G1 X84.98 Y149.27 E773.45172
G1 X84.50 Y150.07 E773.48265
G1 X84.11 Y150.92 E773.51360
G1 X83.79 Y151.80 E773.54460
G1 X83.74 Y151.99 E773.55116
G1 X72.84 Y151.99 E773.91299
G1 X72.84 Y163.41 E774.29207
G1 X71.50 Y163.41 E774.33649
G1 X70.03 Y163.41 E774.38510
G1 X70.03 Y163.55 E774.38971
G1 X67.80 Y163.55 E774.46399
G1 X67.80 Y151.99 E774.84752
G1 X60.84 Y151.99 E775.07830
G1 X60.84 Y140.17 E775.47035
G1 X63.88 Y140.17 E775.57137
G1 X63.88 Y145.19 E775.73789
G1 X91.28 Y145.19 E776.64694
G0 F12000 X91.11 Y145.62
G1 F2400 X90.24 Y145.84 E776.67656
G1 X89.40 Y146.14 E776.70616
G1 X88.59 Y146.52 E776.73586
G1 X87.83 Y146.98 E776.76546
G1 X87.11 Y147.51 E776.79512
G1 X86.49 Y148.08 E776.82295
G1 X85.85 Y148.78 E776.85432
G1 X85.32 Y149.50 E776.88404
G1 X84.86 Y150.26 E776.91367
G1 X84.47 Y151.07 E776.94332
G1 X84.17 Y151.91 E776.97302
G1 X84.06 Y152.39 E776.98926
G1 X73.24 Y152.39 E777.34817
G1 X73.24 Y163.81 E777.72725
G1 X70.43 Y163.81 E777.82028
G1 X70.43 Y163.95 E777.82483
G1 X67.42 Y163.95 E777.92482
G1 X67.40 Y163.95 E777.92558
G1 X67.40 Y152.39 E778.30911
G1 X60.44 Y152.39 E778.53989
G1 X60.44 Y139.77 E778.95842
G1 X64.28 Y139.77 E779.08592
G1 X64.28 Y144.79 E779.25243
G1 X121.48 Y144.79 E781.15002
G1 X121.48 Y139.77 E781.31654
G1 X125.53 Y139.77 E781.45077
G1 X125.53 Y152.39 E781.86930
G1 X118.37 Y152.39 E782.10678
G1 X118.37 Y168.14 E782.62938
G1 X115.33 Y168.14 E782.73018
G1 X115.33 Y163.77 E782.87513
G1 X114.70 Y163.81 E782.89617
G1 X114.64 Y163.81 E782.89807
G1 X114.54 Y163.81 E782.90135
G1 X114.02 Y163.81 E782.91867
G1 X112.53 Y163.81 E782.96817
G1 X112.53 Y152.39 E783.34718
G1 X101.71 Y152.39 E783.70609
G1 X101.61 Y151.99 E783.71987
G1 X101.29 Y151.07 E783.75196
G1 X100.91 Y150.26 E783.78167
G1 X100.45 Y149.50 E783.81133
G1 X99.92 Y148.78 E783.84098
G1 X99.32 Y148.12 E783.87060
G1 X98.65 Y147.51 E783.90024
G1 X97.94 Y146.98 E783.92990
G1 X97.17 Y146.52 E783.95954
G1 X96.42 Y146.16 E783.98714
G1 X95.52 Y145.84 E784.01879
G1 X94.66 Y145.62 E784.04841
G1 X93.77 Y145.49 E784.07833
G1 X93.68 Y145.49 E784.08112
G1 X92.88 Y145.44 E784.10769
G1 X91.99 Y145.49 E784.13732
G1 X91.11 Y145.62 E784.16694
G0 F12000 X91.18 Y146.01
;TYPE:WALL-OUTER
G1 F2400 X90.36 Y146.22 E784.19526
G1 X89.55 Y146.51 E784.22356
G1 X88.78 Y146.87 E784.25194
G1 X88.05 Y147.31 E784.28026
G1 X87.36 Y147.82 E784.30862
G1 X86.77 Y148.36 E784.33520
G1 X86.16 Y149.03 E784.36526
G1 X85.65 Y149.72 E784.39363
G1 X85.21 Y150.45 E784.42197
G1 X84.84 Y151.22 E784.45033
G1 X84.56 Y152.03 E784.47870
G1 X84.37 Y152.79 E784.50465
G1 X73.64 Y152.79 E784.86067
G1 X73.64 Y164.21 E785.23969
G1 X71.50 Y164.21 E785.31065
G1 X70.83 Y164.21 E785.33271
G1 X70.83 Y164.35 E785.33726
G1 X67.00 Y164.35 E785.46449
G1 X67.00 Y152.79 E785.84805
G1 X60.04 Y152.79 E786.07883
G1 X60.04 Y139.37 E786.52383
G1 X64.68 Y139.37 E786.67781
G1 X64.68 Y144.39 E786.84432
G1 X121.08 Y144.39 E788.71544
G1 X121.08 Y139.37 E788.88196
G1 X125.92 Y139.37 E789.04266
G1 X125.92 Y152.79 E789.48767
G1 X118.77 Y152.79 E789.72515
G1 X118.77 Y168.54 E790.24775
G1 X114.93 Y168.54 E790.37502
G1 X114.93 Y164.20 E790.51907
G1 X114.71 Y164.21 E790.52652
G1 X114.64 Y164.21 E790.52878
G1 X114.54 Y164.21 E790.53193
G1 X112.13 Y164.21 E790.61209
G1 X112.13 Y152.79 E790.99110
G1 X101.40 Y152.79 E791.34712
G1 X101.22 Y152.10 E791.37065
G1 X100.92 Y151.22 E791.40140
G1 X100.55 Y150.45 E791.42978
G1 X100.11 Y149.72 E791.45816
G1 X99.61 Y149.03 E791.48647
G1 X99.03 Y148.40 E791.51482
G1 X98.40 Y147.82 E791.54315
G1 X97.72 Y147.31 E791.57151
G1 X96.98 Y146.87 E791.59987
G1 X96.26 Y146.53 E791.62641
G1 X95.41 Y146.22 E791.65650
G1 X94.58 Y146.01 E791.68481
G1 X93.73 Y145.89 E791.71326
G1 X93.68 Y145.88 E791.71502
G1 X92.88 Y145.84 E791.74149
G1 X92.03 Y145.89 E791.76983
G1 X91.18 Y146.01 E791.79814
G0 F12000 X91.11 Y145.72
G0 X89.69 Y145.33
;TYPE:FILL
G1 F2400 X89.48 Y145.54 E791.80781
G0 F12000 X89.12 Y145.33
G1 F2400 X88.48 Y145.98 E791.83826
G0 F12000 X88.56 Y145.33
G1 F2400 X86.88 Y147.01 E791.91722
G0 F12000 X86.87 Y145.33
G1 F2400 X80.35 Y151.85 E792.22307
G0 F12000 X79.78 Y151.85
G1 F2400 X86.30 Y145.33 E792.52889
G0 F12000 X85.74 Y145.33
G1 F2400 X79.22 Y151.85 E792.83471
G0 F12000 X78.66 Y151.85
G1 F2400 X85.17 Y145.33 E793.14053
G0 F12000 X84.61 Y145.33
G1 F2400 X78.09 Y151.85 E793.44635
G0 F12000 X77.53 Y151.85
G1 F2400 X84.05 Y145.33 E793.75217
G0 F12000 X83.48 Y145.33
G1 F2400 X76.96 Y151.85 E794.05799
G0 F12000 X76.40 Y151.85
G1 F2400 X82.92 Y145.33 E794.36381
G0 F12000 X82.35 Y145.33
G1 F2400 X75.83 Y151.85 E794.66963
G0 F12000 X75.27 Y151.85
G1 F2400 X81.79 Y145.33 E794.97545
G0 F12000 X81.22 Y145.33
G1 F2400 X74.71 Y151.85 E795.28127
G0 F12000 X74.14 Y151.85
G1 F2400 X80.66 Y145.33 E795.58711
G0 F12000 X80.10 Y145.33
G1 F2400 X73.58 Y151.85 E795.89293
G0 F12000 X73.01 Y151.85
G1 F2400 X79.53 Y145.33 E796.19875
G0 F12000 X78.97 Y145.33
G1 F2400 X67.93 Y156.36 E796.71644
G0 F12000 X67.93 Y155.80
G1 F2400 X78.40 Y145.33 E797.20764
G0 F12000 X77.84 Y145.33
G1 F2400 X67.93 Y155.24 E797.67237
G0 F12000 X67.93 Y154.67
G1 F2400 X77.28 Y145.33 E798.11065
G0 F12000 X76.71 Y145.33
G1 F2400 X67.93 Y154.11 E798.52243
G0 F12000 X67.93 Y153.54
G1 F2400 X76.15 Y145.33 E798.90773
G0 F12000 X75.58 Y145.33
G1 F2400 X67.93 Y152.98 E799.26657
G0 F12000 X67.93 Y152.41
G1 F2400 X75.02 Y145.33 E799.59895
G0 F12000 X74.45 Y145.33
G1 F2400 X67.93 Y151.85 E799.90484
G0 F12000 X67.37 Y151.85
G1 F2400 X73.89 Y145.33 E800.21066
G0 F12000 X73.33 Y145.33
G1 F2400 X66.81 Y151.85 E800.51648
G0 F12000 X66.24 Y151.85
G1 F2400 X72.76 Y145.33 E800.82230
G0 F12000 X72.20 Y145.33
G1 F2400 X65.68 Y151.85 E801.12815
G0 F12000 X65.11 Y151.85
G1 F2400 X71.63 Y145.33 E801.43397
G0 F12000 X71.07 Y145.33
G1 F2400 X64.55 Y151.85 E801.73979
G0 F12000 X63.99 Y151.85
G1 F2400 X70.50 Y145.33 E802.04561
G0 F12000 X69.94 Y145.33
G1 F2400 X63.42 Y151.85 E802.35143
G0 F12000 X62.86 Y151.85
G1 F2400 X69.38 Y145.33 E802.65725
G0 F12000 X68.81 Y145.33
G1 F2400 X62.29 Y151.85 E802.96307
G0 F12000 X61.73 Y151.85
G1 F2400 X68.25 Y145.33 E803.26889
G0 F12000 X67.68 Y145.33
G1 F2400 X61.16 Y151.85 E803.57471
G0 F12000 X60.98 Y151.47
G1 F2400 X67.12 Y145.33 E803.86275
G0 F12000 X66.55 Y145.33
G1 F2400 X60.98 Y150.91 E804.12432
G0 F12000 X60.98 Y150.34
G1 F2400 X65.99 Y145.33 E804.35941
G0 F12000 X65.42 Y145.33
G1 F2400 X60.98 Y149.78 E804.56801
G0 F12000 X60.98 Y149.21
G1 F2400 X64.86 Y145.33 E804.75015
G0 F12000 X64.30 Y145.33
G1 F2400 X60.98 Y148.65 E804.90581
G0 F12000 X60.98 Y148.08
G1 F2400 X63.74 Y145.32 E805.03554
G0 F12000 X63.74 Y144.75
G1 F2400 X60.98 Y147.52 E805.16527
G0 F12000 X60.98 Y146.96
G1 F2400 X63.74 Y144.19 E805.29501
G0 F12000 X63.74 Y143.63
G1 F2400 X60.98 Y146.39 E805.42471
G0 F12000 X60.98 Y145.83
G1 F2400 X63.74 Y143.06 E805.55445
G0 F12000 X63.74 Y142.50
G1 F2400 X60.98 Y145.26 E805.68418
G0 F12000 X60.98 Y144.70
G1 F2400 X63.74 Y141.93 E805.81391
G0 F12000 X63.74 Y141.37
G1 F2400 X60.98 Y144.13 E805.94362
G0 F12000 X60.98 Y143.57
G1 F2400 X63.74 Y140.80 E806.07335
G0 F12000 X63.67 Y140.31
G1 F2400 X60.98 Y143.00 E806.19975
G0 F12000 X60.98 Y142.44
G1 F2400 X63.11 Y140.31 E806.29969
G0 F12000 X62.55 Y140.31
G1 F2400 X60.98 Y141.88 E806.37314
G0 F12000 X60.98 Y141.31
G1 F2400 X61.98 Y140.31 E806.42011
G0 F12000 X61.42 Y140.31
G1 F2400 X60.98 Y140.75 E806.44061
G0 F12000 X64.34 Y144.73
G0 X72.70 Y152.16
G1 F2400 X67.93 Y156.93 E806.66409
G0 F12000 X67.93 Y157.49
G1 F2400 X72.70 Y152.73 E806.88756
G0 F12000 X72.70 Y153.29
G1 F2400 X67.93 Y158.06 E807.11104
G0 F12000 X67.93 Y158.62
G1 F2400 X72.70 Y153.86 E807.33454
G0 F12000 X72.70 Y154.42
G1 F2400 X67.93 Y159.19 E807.55802
G0 F12000 X67.93 Y159.75
G1 F2400 X72.70 Y154.99 E807.78150
G0 F12000 X72.70 Y155.55
G1 F2400 X67.93 Y160.31 E808.00497
G0 F12000 X67.93 Y160.88
G1 F2400 X72.70 Y156.12 E808.22845
G0 F12000 X72.70 Y156.68
G1 F2400 X67.93 Y161.44 E808.45193
G0 F12000 X67.93 Y162.01
G1 F2400 X72.70 Y157.24 E808.67540
G0 F12000 X72.70 Y157.81
G1 F2400 X67.93 Y162.57 E808.89888
G0 F12000 X67.93 Y163.13
G1 F2400 X72.70 Y158.37 E809.12236
G0 F12000 X72.70 Y158.94
G1 F2400 X68.22 Y163.41 E809.33218
G0 F12000 X68.79 Y163.41
G1 F2400 X72.70 Y159.50 E809.51554
G0 F12000 X72.70 Y160.06
G1 F2400 X69.35 Y163.41 E809.67244
G0 F12000 X70.06 Y163.27
G1 F2400 X72.70 Y160.63 E809.79638
G0 F12000 X72.70 Y161.19
G1 F2400 X70.62 Y163.27 E809.89387
G0 F12000 X71.18 Y163.27
G1 F2400 X72.70 Y161.76 E809.96493
G0 F12000 X72.70 Y162.32
G1 F2400 X71.75 Y163.27 E810.00955
G0 F12000 X72.31 Y163.27
G1 F2400 X72.70 Y162.89 E810.02776
G0 F12000 X73.30 Y152.45
G0 X80.91 Y151.85
G1 F2400 X87.43 Y145.33 E810.33358
G0 F12000 X88.00 Y145.33
G1 F2400 X81.48 Y151.85 E810.63940
G0 F12000 X82.04 Y151.85
G1 F2400 X85.36 Y148.53 E810.79494
G0 F12000 X84.32 Y150.13
G1 F2400 X82.61 Y151.85 E810.87529
G0 F12000 X83.17 Y151.85
G1 F2400 X83.88 Y151.14 E810.90841
G0 F12000 X87.11 Y147.51
G0 X90.24 Y145.84
G0 X93.77 Y145.49
G0 X96.26 Y145.53
G1 F2400 X96.56 Y145.51 E810.91788
G1 X97.04 Y145.60 E810.93458
G1 X97.59 Y145.33 E810.95493
G0 F12000 X98.15 Y145.33
G1 F2400 X97.43 Y146.05 E810.98874
G0 F12000 X97.78 Y146.26
G1 F2400 X98.72 Y145.33 E811.03247
G0 F12000 X99.28 Y145.33
G1 F2400 X98.14 Y146.47 E811.08612
G0 F12000 X98.47 Y146.71
G1 F2400 X99.85 Y145.33 E811.15068
G0 F12000 X100.41 Y145.33
G1 F2400 X98.79 Y146.95 E811.22650
G0 F12000 X99.11 Y147.20
G1 F2400 X100.97 Y145.33 E811.31410
G0 F12000 X101.54 Y145.33
G1 F2400 X99.40 Y147.47 E811.41434
G0 F12000 X99.70 Y147.74
G1 F2400 X102.10 Y145.33 E811.52719
G0 F12000 X102.67 Y145.33
G1 F2400 X99.97 Y148.03 E811.65387
G0 F12000 X100.23 Y148.33
G1 F2400 X103.23 Y145.33 E811.79444
G0 F12000 X103.80 Y145.33
G1 F2400 X100.48 Y148.64 E811.94976
G0 F12000 X100.73 Y148.96
G1 F2400 X104.36 Y145.33 E812.12027
G0 F12000 X104.92 Y145.33
G1 F2400 X100.96 Y149.30 E812.30640
G0 F12000 X101.17 Y149.65
G1 F2400 X105.49 Y145.33 E812.50907
G0 F12000 X106.05 Y145.33
G1 F2400 X101.38 Y150.00 E812.72830
G0 F12000 X101.56 Y150.39
G1 F2400 X106.62 Y145.33 E812.96552
G0 F12000 X107.18 Y145.33
G1 F2400 X101.74 Y150.77 E813.22072
G0 F12000 X101.89 Y151.18
G1 F2400 X107.75 Y145.33 E813.49526
G0 F12000 X108.31 Y145.33
G1 F2400 X102.04 Y151.60 E813.78957
G0 F12000 X102.36 Y151.85
G1 F2400 X108.87 Y145.33 E814.09539
G0 F12000 X109.44 Y145.33
G1 F2400 X102.92 Y151.85 E814.40121
G0 F12000 X103.48 Y151.85
G1 F2400 X110.00 Y145.33 E814.70703
G0 F12000 X110.57 Y145.33
G1 F2400 X104.05 Y151.85 E815.01285
G0 F12000 X104.61 Y151.85
G1 F2400 X111.13 Y145.33 E815.31867
G0 F12000 X111.70 Y145.33
G1 F2400 X105.18 Y151.85 E815.62451
G0 F12000 X105.74 Y151.85
G1 F2400 X112.26 Y145.33 E815.93033
G0 F12000 X112.82 Y145.33
G1 F2400 X106.31 Y151.85 E816.23615
G0 F12000 X106.87 Y151.85
G1 F2400 X113.39 Y145.33 E816.54197
G0 F12000 X113.95 Y145.33
G1 F2400 X107.43 Y151.85 E816.84782
G0 F12000 X108.00 Y151.85
G1 F2400 X114.52 Y145.33 E817.15364
G0 F12000 X115.08 Y145.33
G1 F2400 X108.56 Y151.85 E817.45946
G0 F12000 X109.13 Y151.85
G1 F2400 X115.64 Y145.33 E817.76528
G0 F12000 X116.21 Y145.33
G1 F2400 X109.69 Y151.85 E818.07110
G0 F12000 X110.26 Y151.85
G1 F2400 X116.77 Y145.33 E818.37692
G0 F12000 X117.34 Y145.33
G1 F2400 X110.82 Y151.85 E818.68274
G0 F12000 X111.38 Y151.85
G1 F2400 X117.90 Y145.33 E818.98856
G0 F12000 X118.47 Y145.33
G1 F2400 X111.95 Y151.85 E819.29438
G0 F12000 X112.51 Y151.85
G1 F2400 X119.03 Y145.33 E819.60020
G0 F12000 X119.59 Y145.33
G1 F2400 X113.06 Y151.86 E819.90663
G0 F12000 X113.06 Y152.43
G1 F2400 X120.16 Y145.33 E820.23954
G0 F12000 X120.72 Y145.33
G1 F2400 X113.06 Y152.99 E820.59892
G0 F12000 X113.06 Y153.55
G1 F2400 X121.29 Y145.33 E820.98476
G0 F12000 X121.85 Y145.33
G1 F2400 X113.06 Y154.12 E821.39709
G0 F12000 X113.06 Y154.68
G1 F2400 X124.98 Y142.76 E821.95639
G0 F12000 X124.98 Y143.33
G1 F2400 X113.06 Y155.25 E822.51569
G0 F12000 X113.06 Y155.81
G1 F2400 X124.98 Y143.89 E823.07500
G0 F12000 X124.98 Y144.45
G1 F2400 X113.06 Y156.38 E823.63432
G0 F12000 X113.06 Y156.94
G1 F2400 X117.83 Y152.18 E823.85782
G0 F12000 X118.16 Y151.85
G1 F2400 X124.98 Y145.02 E824.17823
G0 F12000 X124.98 Y145.58
G1 F2400 X118.72 Y151.85 E824.47218
G0 F12000 X119.28 Y151.85
G1 F2400 X124.98 Y146.15 E824.73967
G0 F12000 X124.98 Y146.71
G1 F2400 X119.85 Y151.85 E824.98070
G0 F12000 X120.41 Y151.85
G1 F2400 X124.98 Y147.28 E825.19521
G0 F12000 X124.98 Y147.84
G1 F2400 X120.98 Y151.85 E825.38326
G0 F12000 X121.54 Y151.85
G1 F2400 X124.98 Y148.40 E825.54485
G0 F12000 X124.98 Y148.97
G1 F2400 X122.11 Y151.85 E825.67994
G0 F12000 X122.67 Y151.85
G1 F2400 X124.98 Y149.53 E825.78855
G0 F12000 X124.98 Y150.10
G1 F2400 X123.23 Y151.85 E825.87071
G0 F12000 X123.80 Y151.85
G1 F2400 X124.98 Y150.66 E825.92640
G0 F12000 X124.98 Y151.23
G1 F2400 X124.36 Y151.85 E825.95559
G0 F12000 X124.93 Y151.85
G1 F2400 X124.98 Y151.79 E825.95831
G0 F12000 X118.42 Y152.45
G0 X117.83 Y152.74
G1 F2400 X113.06 Y157.50 E826.18181
G0 F12000 X113.06 Y158.07
G1 F2400 X117.83 Y153.30 E826.40533
G0 F12000 X117.83 Y153.87
G1 F2400 X113.06 Y158.63 E826.62883
G0 F12000 X113.06 Y159.20
G1 F2400 X117.83 Y154.43 E826.85233
G0 F12000 X117.83 Y155.00
G1 F2400 X113.06 Y159.76 E827.07583
G0 F12000 X113.06 Y160.32
G1 F2400 X117.83 Y155.56 E827.29933
G0 F12000 X117.83 Y156.13
G1 F2400 X113.06 Y160.89 E827.52283
G0 F12000 X113.06 Y161.45
G1 F2400 X117.83 Y156.69 E827.74633
G0 F12000 X117.83 Y157.25
G1 F2400 X113.06 Y162.02 E827.96983
G0 F12000 X113.06 Y162.58
G1 F2400 X117.83 Y157.82 E828.19333
G0 F12000 X117.83 Y158.38
G1 F2400 X113.06 Y163.15 E828.41683
G0 F12000 X113.50 Y163.27
G1 F2400 X117.83 Y158.95 E828.61983
G0 F12000 X117.83 Y159.51
G1 F2400 X114.07 Y163.27 E828.79634
G0 F12000 X114.63 Y163.27
G1 F2400 X117.83 Y160.08 E828.94634
G0 F12000 X117.83 Y160.64
G1 F2400 X115.23 Y163.24 E829.06815
G0 F12000 X115.84 Y163.19
G1 F2400 X117.83 Y161.20 E829.16156
G0 F12000 X117.83 Y161.77
G1 F2400 X115.87 Y163.73 E829.25355
G0 F12000 X115.87 Y164.29
G1 F2400 X117.83 Y162.33 E829.34553
G0 F12000 X117.83 Y162.90
G1 F2400 X115.87 Y164.86 E829.43752
G0 F12000 X115.87 Y165.42
G1 F2400 X117.83 Y163.46 E829.52950
G0 F12000 X117.83 Y164.03
G1 F2400 X115.87 Y165.99 E829.62149
G0 F12000 X115.87 Y166.55
G1 F2400 X117.83 Y164.59 E829.71347
G0 F12000 X117.83 Y165.15
G1 F2400 X115.87 Y167.11 E829.80546
G0 F12000 X115.95 Y167.60
G1 F2400 X117.83 Y165.72 E829.89371
G0 F12000 X117.83 Y166.28
G1 F2400 X116.51 Y167.60 E829.95548
G0 F12000 X117.08 Y167.60
G1 F2400 X117.83 Y166.85 E829.99079
G0 F12000 X117.83 Y167.41
G1 F2400 X117.64 Y167.60 E829.99964
G0 F12000 X118.42 Y152.45
G0 X122.02 Y145.16
G1 F2400 X124.98 Y142.20 E830.13884
G0 F12000 X124.98 Y141.63
G1 F2400 X122.02 Y144.60 E830.27805
G0 F12000 X122.02 Y144.04
G1 F2400 X124.98 Y141.07 E830.41726
G0 F12000 X124.98 Y140.50
G1 F2400 X122.02 Y143.47 E830.55647
G0 F12000 X122.02 Y142.91
G1 F2400 X124.61 Y140.31 E830.67828
G0 F12000 X124.05 Y140.31
G1 F2400 X122.02 Y142.34 E830.77362
G0 F12000 X122.02 Y141.78
G1 F2400 X123.49 Y140.31 E830.84249
G0 F12000 X122.92 Y140.31
G1 F2400 X122.02 Y141.21 E830.88489
G0 F12000 X122.02 Y140.65
G1 F2400 X122.36 Y140.31 E830.90079
G1 F2400 E829.70079
G0 F12000 X94.80 Y146.79
;TYPE:SUPPORT
G1 F2400 E830.90079
G1 X94.80 Y148.20 E830.94777
G0 F12000 X94.00 Y149.23
G1 F2400 X94.00 Y146.74 E831.03038
G0 F12000 X93.20 Y146.70
G1 F2400 X93.20 Y149.23 E831.11438
G0 F12000 X92.40 Y149.23
G1 F2400 X92.40 Y146.71 E831.19819
G0 F12000 X91.60 Y146.81
G1 F2400 X91.60 Y149.23 E831.27874
;LAYER:2
G1 F2400 E830.07874
G0 F12000 X91.21 Y145.19 Z0.70
;TYPE:WALL-INNER
G1 F2400 E831.27874
G1 X90.12 Y145.44 E831.31575
G1 X89.25 Y145.76 E831.34668
G1 X88.40 Y146.16 E831.37764
G1 X87.60 Y146.64 E831.40855
G1 X86.86 Y147.19 E831.43951
G1 X86.23 Y147.77 E831.46772
G1 X85.54 Y148.51 E831.50123
G1 X84.98 Y149.26 E831.53232
G1 X84.50 Y150.06 E831.56326
G1 X84.11 Y150.91 E831.59420
G1 X83.79 Y151.79 E831.62520
G1 X83.74 Y151.99 E831.63214
G1 X72.84 Y151.99 E831.99387
G1 X72.84 Y162.87 E832.35470
G1 X71.50 Y162.86 E832.39899
G1 X71.41 Y162.87 E832.40225
G1 X70.03 Y162.86 E832.44773
G1 X70.03 Y163.00 E832.45238
G1 X67.80 Y163.00 E832.52666
G1 X67.80 Y151.99 E832.89197
G1 X60.84 Y151.99 E833.12275
G1 X60.84 Y140.17 E833.51480
G1 X63.88 Y140.17 E833.61583
G1 X63.88 Y145.19 E833.78234
G1 X91.21 Y145.19 E834.68894
G0 F12000 X94.55 Y145.19
G1 F2400 X121.88 Y145.19 E835.59550
G1 X121.88 Y140.17 E835.76201
G1 X125.13 Y140.17 E835.86977
G1 X125.13 Y151.99 E836.26182
G1 X117.97 Y151.99 E836.49931
G1 X117.97 Y167.74 E837.02191
G1 X115.73 Y167.74 E837.09623
G1 X115.73 Y162.82 E837.25949
G1 X114.69 Y162.87 E837.29379
G1 X114.64 Y162.86 E837.29572
G1 X114.49 Y162.87 E837.30063
G1 X113.98 Y162.86 E837.31735
G1 X112.92 Y162.86 E837.35252
G1 X112.92 Y151.99 E837.71332
G1 X102.02 Y151.99 E838.07505
G1 X101.66 Y150.91 E838.11275
G1 X101.26 Y150.06 E838.14389
G1 X100.78 Y149.26 E838.17487
G1 X100.22 Y148.51 E838.20580
G1 X99.60 Y147.82 E838.23673
G1 X98.91 Y147.19 E838.26766
G1 X98.16 Y146.64 E838.29861
G1 X97.36 Y146.16 E838.32958
G1 X96.59 Y145.79 E838.35791
G1 X95.64 Y145.45 E838.39128
G1 X94.73 Y145.22 E838.42234
G1 X94.55 Y145.19 E838.42844
G0 F12000 X94.66 Y145.61
G1 F2400 X93.77 Y145.48 E838.45810
G1 X92.88 Y145.43 E838.48773
G1 X91.99 Y145.48 E838.51736
G1 X91.11 Y145.61 E838.54698
G1 X90.24 Y145.83 E838.57660
G1 X89.40 Y146.13 E838.60620
G1 X88.59 Y146.51 E838.63590
G1 X87.83 Y146.97 E838.66550
G1 X87.11 Y147.50 E838.69516
G1 X86.51 Y148.05 E838.72212
G1 X85.85 Y148.76 E838.75433
G1 X85.32 Y149.49 E838.78408
G1 X84.86 Y150.25 E838.81371
G1 X84.47 Y151.06 E838.84336
G1 X84.17 Y151.90 E838.87306
G1 X84.05 Y152.39 E838.88968
G1 X73.24 Y152.39 E839.24849
G1 X73.24 Y163.26 E839.60932
G1 X71.50 Y163.26 E839.66679
G1 X71.41 Y163.26 E839.67000
G1 X70.43 Y163.26 E839.70235
G1 X70.43 Y163.40 E839.70696
G1 X67.40 Y163.40 E839.80772
G1 X67.40 Y152.39 E840.17307
G1 X60.44 Y152.39 E840.40385
G1 X60.44 Y139.77 E840.82237
G1 X64.28 Y139.77 E840.94987
G1 X64.28 Y144.79 E841.11639
G1 X121.48 Y144.79 E843.01398
G1 X121.48 Y139.77 E843.18049
G1 X125.53 Y139.77 E843.31473
G1 X125.53 Y152.39 E843.73326
G1 X118.37 Y152.39 E843.97074
G1 X118.37 Y168.14 E844.49334
G1 X115.33 Y168.14 E844.59413
G1 X115.33 Y163.24 E844.75683
G1 X114.71 Y163.26 E844.77749
G1 X114.64 Y163.26 E844.77985
G1 X114.49 Y163.26 E844.78466
G1 X113.98 Y163.26 E844.80144
G1 X112.53 Y163.26 E844.84985
G1 X112.53 Y152.39 E845.21065
G1 X101.71 Y152.39 E845.56949
G1 X101.62 Y152.01 E845.58241
G1 X101.29 Y151.06 E845.61568
G1 X100.91 Y150.25 E845.64544
G1 X100.45 Y149.48 E845.67510
G1 X99.92 Y148.77 E845.70474
G1 X99.32 Y148.10 E845.73436
G1 X98.65 Y147.50 E845.76400
G1 X97.94 Y146.97 E845.79367
G1 X97.17 Y146.51 E845.82334
G1 X96.43 Y146.16 E845.85042
G1 X95.53 Y145.83 E845.88248
G1 X94.66 Y145.61 E845.91217
G0 F12000 X94.58 Y146.00
;TYPE:WALL-OUTER
G1 F2400 X93.73 Y145.88 E845.94051
G1 X92.88 Y145.83 E845.96885
G1 X92.03 Y145.88 E845.99718
G1 X91.18 Y146.00 E846.02549
G1 X90.36 Y146.21 E846.05381
G1 X89.55 Y146.50 E846.08211
G1 X88.78 Y146.86 E846.11049
G1 X88.05 Y147.30 E846.13881
G1 X87.36 Y147.81 E846.16717
G1 X86.79 Y148.33 E846.19288
G1 X86.16 Y149.02 E846.22380
G1 X85.65 Y149.71 E846.25217
G1 X85.21 Y150.44 E846.28052
G1 X84.84 Y151.21 E846.30888
G1 X84.56 Y152.02 E846.33724
G1 X84.36 Y152.79 E846.36357
G1 X73.64 Y152.79 E846.71949
G1 X73.64 Y163.66 E847.08029
G1 X71.51 Y163.66 E847.15093
G1 X71.41 Y163.66 E847.15411
G1 X70.83 Y163.66 E847.17332
G1 X70.83 Y163.80 E847.17790
G1 X67.00 Y163.80 E847.30514
G1 X67.00 Y152.79 E847.67048
G1 X60.04 Y152.79 E847.90126
G1 X60.04 Y139.37 E848.34626
G1 X64.68 Y139.37 E848.50024
G1 X64.68 Y144.39 E848.66675
G1 X121.08 Y144.39 E850.53787
G1 X121.08 Y139.37 E850.70438
G1 X125.92 Y139.37 E850.86509
G1 X125.92 Y152.79 E851.31009
G1 X118.77 Y152.79 E851.54758
G1 X118.77 Y168.54 E852.07018
G1 X114.93 Y168.54 E852.19745
G1 X114.93 Y163.65 E852.35955
G1 X114.70 Y163.66 E852.36712
G1 X114.64 Y163.66 E852.36934
G1 X114.49 Y163.66 E852.37406
G1 X112.13 Y163.66 E852.45255
G1 X112.13 Y152.79 E852.81335
G1 X101.40 Y152.79 E853.16927
G1 X101.23 Y152.12 E853.19198
G1 X100.92 Y151.21 E853.22392
G1 X100.55 Y150.44 E853.25231
G1 X100.11 Y149.71 E853.28069
G1 X99.61 Y149.02 E853.30900
G1 X99.03 Y148.39 E853.33735
G1 X98.40 Y147.81 E853.36568
G1 X97.72 Y147.30 E853.39404
G1 X96.98 Y146.86 E853.42240
G1 X96.28 Y146.53 E853.44824
G1 X95.41 Y146.21 E853.47898
G1 X94.58 Y146.00 E853.50734
G0 F12000 X94.65 Y145.71
G0 X96.01 Y145.38
;TYPE:FILL
G1 F2400 X96.30 Y145.39 E853.51077
G1 X97.04 Y145.85 E853.53965
G0 F12000 X97.08 Y145.33
G1 F2400 X98.38 Y146.63 E853.60060
G0 F12000 X98.21 Y145.33
G1 F2400 X104.73 Y151.85 E853.90642
G0 F12000 X104.17 Y151.85
G1 F2400 X97.65 Y145.33 E854.21224
G0 F12000 X98.78 Y145.33
G1 F2400 X105.30 Y151.85 E854.51806
G0 F12000 X105.86 Y151.85
G1 F2400 X99.34 Y145.33 E854.82388
G0 F12000 X99.91 Y145.33
G1 F2400 X106.42 Y151.85 E855.12970
G0 F12000 X106.99 Y151.85
G1 F2400 X100.47 Y145.33 E855.43554
G0 F12000 X101.03 Y145.33
G1 F2400 X107.55 Y151.85 E855.74136
G0 F12000 X108.12 Y151.85
G1 F2400 X101.60 Y145.33 E856.04718
G0 F12000 X102.16 Y145.33
G1 F2400 X108.68 Y151.85 E856.35300
G0 F12000 X109.25 Y151.85
G1 F2400 X102.73 Y145.33 E856.65882
G0 F12000 X103.29 Y145.33
G1 F2400 X109.81 Y151.85 E856.96464
G0 F12000 X110.37 Y151.85
G1 F2400 X103.86 Y145.33 E857.27046
G0 F12000 X104.42 Y145.33
G1 F2400 X110.94 Y151.85 E857.57628
G0 F12000 X111.50 Y151.85
G1 F2400 X104.98 Y145.33 E857.88210
G0 F12000 X105.55 Y145.33
G1 F2400 X112.07 Y151.85 E858.18792
G0 F12000 X112.63 Y151.85
G1 F2400 X106.11 Y145.33 E858.49374
G0 F12000 X106.68 Y145.33
G1 F2400 X117.83 Y156.48 E859.01696
G0 F12000 X117.83 Y157.04
G1 F2400 X113.06 Y152.28 E859.24046
G0 F12000 X113.06 Y152.85
G1 F2400 X117.83 Y157.61 E859.46397
G0 F12000 X117.83 Y158.17
G1 F2400 X113.06 Y153.41 E859.68747
G0 F12000 X113.06 Y153.97
G1 F2400 X117.83 Y158.74 E859.91097
G0 F12000 X117.83 Y159.30
G1 F2400 X113.06 Y154.54 E860.13447
G0 F12000 X113.06 Y155.10
G1 F2400 X117.83 Y159.87 E860.35797
G0 F12000 X117.83 Y160.43
G1 F2400 X113.06 Y155.67 E860.58147
G0 F12000 X113.06 Y156.23
G1 F2400 X117.83 Y161.00 E860.80497
G0 F12000 X117.83 Y161.56
G1 F2400 X113.06 Y156.80 E861.02847
G0 F12000 X113.06 Y157.36
G1 F2400 X117.83 Y162.12 E861.25199
G0 F12000 X117.83 Y162.69
G1 F2400 X113.06 Y157.93 E861.47549
G0 F12000 X113.06 Y158.49
G1 F2400 X117.83 Y163.25 E861.69899
G0 F12000 X117.83 Y163.82
G1 F2400 X113.06 Y159.05 E861.92249
G0 F12000 X113.06 Y159.62
G1 F2400 X117.83 Y164.38 E862.14599
G0 F12000 X117.83 Y164.94
G1 F2400 X115.87 Y162.99 E862.23798
G0 F12000 X115.57 Y162.69
G1 F2400 X113.06 Y160.18 E862.35544
G0 F12000 X113.06 Y160.75
G1 F2400 X115.03 Y162.71 E862.44754
G0 F12000 X114.48 Y162.72
G1 F2400 X113.06 Y161.31 E862.51382
G0 F12000 X113.06 Y161.88
G1 F2400 X113.91 Y162.72 E862.55358
G0 F12000 X113.35 Y162.72
G1 F2400 X113.06 Y162.44 E862.56688
G0 F12000 X115.87 Y163.55
G1 F2400 X117.83 Y165.51 E862.65887
G0 F12000 X117.83 Y166.07
G1 F2400 X115.87 Y164.11 E862.75085
G0 F12000 X115.87 Y164.68
G1 F2400 X117.83 Y166.64 E862.84284
G0 F12000 X117.83 Y167.20
G1 F2400 X115.87 Y165.24 E862.93482
G0 F12000 X115.87 Y165.81
G1 F2400 X117.66 Y167.60 E863.01897
G0 F12000 X117.10 Y167.60
G1 F2400 X115.87 Y166.37 E863.07664
G0 F12000 X115.87 Y166.94
G1 F2400 X116.53 Y167.60 E863.10782
G0 F12000 X115.97 Y167.60
G1 F2400 X115.87 Y167.50 E863.11253
G0 F12000 X117.83 Y155.92
G1 F2400 X107.24 Y145.33 E863.60927
G0 F12000 X107.81 Y145.33
G1 F2400 X117.83 Y155.35 E864.07951
G0 F12000 X117.83 Y154.79
G1 F2400 X108.37 Y145.33 E864.52330
G0 F12000 X108.93 Y145.33
G1 F2400 X117.83 Y154.22 E864.94060
G0 F12000 X117.83 Y153.66
G1 F2400 X109.50 Y145.33 E865.33142
G0 F12000 X110.06 Y145.33
G1 F2400 X117.83 Y153.09 E865.69577
G0 F12000 X117.83 Y152.53
G1 F2400 X110.63 Y145.33 E866.03366
G0 F12000 X111.19 Y145.33
G1 F2400 X117.83 Y151.97 E866.34506
G0 F12000 X118.27 Y151.85
G1 F2400 X111.75 Y145.33 E866.65088
G0 F12000 X112.32 Y145.33
G1 F2400 X118.84 Y151.85 E866.95670
G0 F12000 X119.40 Y151.85
G1 F2400 X112.88 Y145.33 E867.26255
G0 F12000 X113.45 Y145.33
G1 F2400 X119.97 Y151.85 E867.56837
G0 F12000 X120.53 Y151.85
G1 F2400 X114.01 Y145.33 E867.87419
G0 F12000 X114.58 Y145.33
G1 F2400 X121.09 Y151.85 E868.18001
G0 F12000 X121.66 Y151.85
G1 F2400 X115.14 Y145.33 E868.48583
G0 F12000 X115.70 Y145.33
G1 F2400 X122.22 Y151.85 E868.79165
G0 F12000 X122.79 Y151.85
G1 F2400 X116.27 Y145.33 E869.09747
G0 F12000 X116.83 Y145.33
G1 F2400 X123.35 Y151.85 E869.40329
G0 F12000 X123.92 Y151.85
G1 F2400 X117.40 Y145.33 E869.70911
G0 F12000 X117.96 Y145.33
G1 F2400 X124.48 Y151.85 E870.01493
G0 F12000 X124.99 Y151.79
G1 F2400 X118.53 Y145.33 E870.31800
G0 F12000 X119.09 Y145.33
G1 F2400 X124.99 Y151.22 E870.59462
G0 F12000 X124.99 Y150.66
G1 F2400 X119.66 Y145.33 E870.84474
G0 F12000 X120.22 Y145.33
G1 F2400 X124.99 Y150.10 E871.06839
G0 F12000 X124.99 Y149.53
G1 F2400 X120.78 Y145.33 E871.26556
G0 F12000 X121.35 Y145.33
G1 F2400 X124.99 Y148.97 E871.43626
G0 F12000 X124.99 Y148.40
G1 F2400 X121.91 Y145.33 E871.58049
G0 F12000 X122.02 Y144.87
G1 F2400 X124.99 Y147.84 E871.71972
G0 F12000 X124.99 Y147.28
G1 F2400 X122.02 Y144.31 E871.85898
G0 F12000 X122.02 Y143.74
G1 F2400 X124.99 Y146.71 E871.99823
G0 F12000 X124.99 Y146.15
G1 F2400 X122.02 Y143.18 E872.13747
G0 F12000 X122.02 Y142.61
G1 F2400 X124.99 Y145.58 E872.27672
G0 F12000 X124.99 Y145.02
G1 F2400 X122.02 Y142.05 E872.41598
G0 F12000 X122.02 Y141.49
G1 F2400 X124.99 Y144.45 E872.55524
G0 F12000 X124.99 Y143.89
G1 F2400 X122.02 Y140.92 E872.69447
G0 F12000 X122.02 Y140.36
G1 F2400 X124.99 Y143.32 E872.83373
G0 F12000 X124.99 Y142.76
G1 F2400 X122.54 Y140.31 E872.94868
G0 F12000 X123.10 Y140.31
G1 F2400 X124.99 Y142.20 E873.03717
G0 F12000 X124.99 Y141.63
G1 F2400 X123.67 Y140.31 E873.09915
G0 F12000 X124.23 Y140.31
G1 F2400 X124.99 Y141.07 E873.13467
G0 F12000 X124.99 Y140.50
G1 F2400 X124.79 Y140.31 E873.14372
G0 F12000 X121.42 Y144.73
G0 X103.60 Y151.85
G1 F2400 X100.78 Y149.02 E873.27636
G0 F12000 X101.56 Y150.37
G1 F2400 X103.04 Y151.85 E873.34580
G0 F12000 X102.47 Y151.85
G1 F2400 X101.94 Y151.32 E873.37067
G0 F12000 X98.65 Y147.50
G0 X95.53 Y145.83
G0 X91.99 Y145.48
G0 X89.41 Y145.55
G1 F2400 X89.09 Y145.52 E873.38107
G1 X88.62 Y145.33 E873.39804
G0 F12000 X88.06 Y145.33
G1 F2400 X88.62 Y145.90 E873.42464
G0 F12000 X88.25 Y146.09
G1 F2400 X87.49 Y145.33 E873.46013
G0 F12000 X86.93 Y145.33
G1 F2400 X87.89 Y146.30 E873.50555
G0 F12000 X87.54 Y146.51
G1 F2400 X86.36 Y145.33 E873.56087
G0 F12000 X85.80 Y145.33
G1 F2400 X87.22 Y146.75 E873.62747
G0 F12000 X86.89 Y146.99
G1 F2400 X85.23 Y145.33 E873.70533
G0 F12000 X84.67 Y145.33
G1 F2400 X86.59 Y147.25 E873.79530
G0 F12000 X86.29 Y147.52
G1 F2400 X84.11 Y145.33 E873.89787
G0 F12000 X83.54 Y145.33
G1 F2400 X86.01 Y147.80 E874.01359
G0 F12000 X85.74 Y148.09
G1 F2400 X82.98 Y145.33 E874.14309
G0 F12000 X82.41 Y145.33
G1 F2400 X85.47 Y148.38 E874.28634
G0 F12000 X85.22 Y148.70
G1 F2400 X81.85 Y145.33 E874.44460
G0 F12000 X81.28 Y145.33
G1 F2400 X84.98 Y149.03 E874.61810
G0 F12000 X84.76 Y149.37
G1 F2400 X80.72 Y145.33 E874.80754
G0 F12000 X80.16 Y145.33
G1 F2400 X84.55 Y149.72 E875.01352
G0 F12000 X84.34 Y150.08
G1 F2400 X79.59 Y145.33 E875.23636
G0 F12000 X79.03 Y145.33
G1 F2400 X84.16 Y150.46 E875.47715
G0 F12000 X83.98 Y150.84
G1 F2400 X78.46 Y145.33 E875.73591
G0 F12000 X77.90 Y145.33
G1 F2400 X83.83 Y151.26 E876.01424
G0 F12000 X83.68 Y151.68
G1 F2400 X77.33 Y145.33 E876.31206
G0 F12000 X76.77 Y145.33
G1 F2400 X83.29 Y151.85 E876.61788
G0 F12000 X82.72 Y151.85
G1 F2400 X76.21 Y145.33 E876.92370
G0 F12000 X75.64 Y145.33
G1 F2400 X82.16 Y151.85 E877.22952
G0 F12000 X81.59 Y151.85
G1 F2400 X75.08 Y145.33 E877.53534
G0 F12000 X74.51 Y145.33
G1 F2400 X81.03 Y151.85 E877.84116
G0 F12000 X80.47 Y151.85
G1 F2400 X73.95 Y145.33 E878.14698
G0 F12000 X73.38 Y145.33
G1 F2400 X79.90 Y151.85 E878.45282
G0 F12000 X79.34 Y151.85
G1 F2400 X72.82 Y145.33 E878.75864
G0 F12000 X72.26 Y145.33
G1 F2400 X78.77 Y151.85 E879.06446
G0 F12000 X78.21 Y151.85
G1 F2400 X71.69 Y145.33 E879.37028
G0 F12000 X71.13 Y145.33
G1 F2400 X77.64 Y151.85 E879.67610
G0 F12000 X77.08 Y151.85
G1 F2400 X70.56 Y145.33 E879.98192
G0 F12000 X70.00 Y145.33
G1 F2400 X76.52 Y151.85 E880.28774
G0 F12000 X75.95 Y151.85
G1 F2400 X69.44 Y145.33 E880.59356
G0 F12000 X68.87 Y145.33
G1 F2400 X75.39 Y151.85 E880.89938
G0 F12000 X74.82 Y151.85
G1 F2400 X68.31 Y145.33 E881.20520
G0 F12000 X67.74 Y145.33
G1 F2400 X74.26 Y151.85 E881.51102
G0 F12000 X73.70 Y151.85
G1 F2400 X67.18 Y145.33 E881.81687
G0 F12000 X66.61 Y145.33
G1 F2400 X73.13 Y151.85 E882.12269
G0 F12000 X72.70 Y151.98
G1 F2400 X66.05 Y145.33 E882.43465
G0 F12000 X65.48 Y145.33
G1 F2400 X72.70 Y152.54 E882.77308
G0 F12000 X72.70 Y153.11
G1 F2400 X64.92 Y145.33 E883.13800
G0 F12000 X64.36 Y145.33
G1 F2400 X72.70 Y153.67 E883.52938
G0 F12000 X72.70 Y154.24
G1 F2400 X63.79 Y145.33 E883.94724
G0 F12000 X63.74 Y145.28
G1 F2400 X60.98 Y142.52 E884.07697
G0 F12000 X60.98 Y143.08
G1 F2400 X72.70 Y154.80 E884.62682
G0 F12000 X72.70 Y155.36
G1 F2400 X60.98 Y143.65 E885.17667
G0 F12000 X60.98 Y144.21
G1 F2400 X72.70 Y155.93 E885.72652
G0 F12000 X72.70 Y156.49
G1 F2400 X60.98 Y144.77 E886.27636
G0 F12000 X60.98 Y145.34
G1 F2400 X67.49 Y151.85 E886.58181
G0 F12000 X66.92 Y151.85
G1 F2400 X60.98 Y145.90 E886.86077
G0 F12000 X60.98 Y146.47
G1 F2400 X66.36 Y151.85 E887.11324
G0 F12000 X65.80 Y151.85
G1 F2400 X60.98 Y147.03 E887.33925
G0 F12000 X60.98 Y147.59
G1 F2400 X65.23 Y151.85 E887.53880
G0 F12000 X64.67 Y151.85
G1 F2400 X60.98 Y148.16 E887.71184
G0 F12000 X60.98 Y148.72
G1 F2400 X64.10 Y151.85 E887.85841
G0 F12000 X63.54 Y151.85
G1 F2400 X60.98 Y149.29 E887.97853
G0 F12000 X60.98 Y149.85
G1 F2400 X62.97 Y151.85 E888.07215
G0 F12000 X62.41 Y151.85
G1 F2400 X60.98 Y150.42 E888.13930
G0 F12000 X60.98 Y150.98
G1 F2400 X61.85 Y151.85 E888.17998
G0 F12000 X61.28 Y151.85
G1 F2400 X60.98 Y151.54 E888.19419
G0 F12000 X67.93 Y152.29
G1 F2400 X72.70 Y157.06 E888.41772
G0 F12000 X72.70 Y157.62
G1 F2400 X67.93 Y152.86 E888.64122
G0 F12000 X67.93 Y153.42
G1 F2400 X72.70 Y158.19 E888.86474
G0 F12000 X72.70 Y158.75
G1 F2400 X67.93 Y153.99 E889.08826
G0 F12000 X67.93 Y154.55
G1 F2400 X72.70 Y159.31 E889.31179
G0 F12000 X72.70 Y159.88
G1 F2400 X67.93 Y155.12 E889.53529
G0 F12000 X67.93 Y155.68
G1 F2400 X72.70 Y160.44 E889.75881
G0 F12000 X72.70 Y161.01
G1 F2400 X67.93 Y156.24 E889.98233
G0 F12000 X67.93 Y156.81
G1 F2400 X72.70 Y161.57 E890.20586
G0 F12000 X72.70 Y162.14
G1 F2400 X67.93 Y157.37 E890.42938
G0 F12000 X67.93 Y157.94
G1 F2400 X72.70 Y162.70 E890.65291
G0 F12000 X72.16 Y162.72
G1 F2400 X67.93 Y158.50 E890.85100
G0 F12000 X67.93 Y159.06
G1 F2400 X71.59 Y162.72 E891.02256
G0 F12000 X71.03 Y162.72
G1 F2400 X67.93 Y159.63 E891.16761
G0 F12000 X67.93 Y160.19
G1 F2400 X70.46 Y162.72 E891.28613
G0 F12000 X69.89 Y162.72
G1 F2400 X67.93 Y160.76 E891.37814
G0 F12000 X67.93 Y161.32
G1 F2400 X69.47 Y162.86 E891.45025
G0 F12000 X68.91 Y162.86
G1 F2400 X67.93 Y161.89 E891.49591
G0 F12000 X67.93 Y162.45
G1 F2400 X68.34 Y162.86 E891.51510
G0 F12000 X67.34 Y152.45
G0 X63.74 Y144.72
G1 F2400 X60.98 Y141.95 E891.64480
G0 F12000 X60.98 Y141.39
G1 F2400 X63.74 Y144.15 E891.77454
G0 F12000 X63.74 Y143.59
G1 F2400 X60.98 Y140.82 E891.90427
G0 F12000 X61.03 Y140.31
G1 F2400 X63.74 Y143.03 E892.03161
G0 F12000 X63.74 Y142.46
G1 F2400 X61.59 Y140.31 E892.13246
G0 F12000 X62.16 Y140.31
G1 F2400 X63.74 Y141.90 E892.20685
G0 F12000 X63.74 Y141.33
G1 F2400 X62.72 Y140.31 E892.25476
G0 F12000 X63.29 Y140.31
G1 F2400 X63.74 Y140.77 E892.27617
G1 F2400 E891.07617
G0 F12000 X91.60 Y146.79
;TYPE:SUPPORT
G1 F2400 E892.27617
G1 X91.60 Y149.23 E892.35729
G0 F12000 X92.40 Y149.23
G1 F2400 X92.40 Y146.70 E892.44143
G0 F12000 X93.20 Y146.69
G1 F2400 X93.20 Y149.23 E892.52580
G0 F12000 X94.00 Y149.23
G1 F2400 X94.00 Y146.76 E892.60771
G0 F12000 X94.80 Y146.89
G1 F2400 X94.80 Y149.12 E892.68163
;LAYER:3
G1 F2400 E891.48163
G0 F12000 X95.64 Y145.44 Z0.90
;TYPE:WALL-INNER
G1 F2400 E892.68163
G1 X94.73 Y145.21 E892.71272
G1 X94.63 Y145.19 E892.71638
G1 X121.88 Y145.19 E893.62052
G1 X121.88 Y140.17 E893.78703
G1 X125.13 Y140.17 E893.89479
G1 X125.13 Y151.99 E894.28684
G1 X117.97 Y151.99 E894.52432
G1 X117.97 Y167.74 E895.04693
G1 X115.73 Y167.74 E895.12124
G1 X115.73 Y162.28 E895.30242
G1 X114.70 Y162.31 E895.33648
G1 X114.63 Y162.31 E895.33877
G1 X114.44 Y162.31 E895.34524
G1 X112.92 Y162.31 E895.39544
G1 X112.92 Y151.99 E895.73799
G1 X102.02 Y151.99 E896.09965
G1 X101.97 Y151.78 E896.10698
G1 X101.66 Y150.90 E896.13790
G1 X101.26 Y150.05 E896.16889
G1 X100.78 Y149.25 E896.19984
G1 X100.22 Y148.50 E896.23080
G1 X99.60 Y147.81 E896.26173
G1 X98.91 Y147.18 E896.29266
G1 X98.16 Y146.63 E896.32361
G1 X97.36 Y146.15 E896.35458
G1 X96.61 Y145.79 E896.38208
G1 X95.64 Y145.44 E896.41625
G0 F12000 X91.14 Y145.19
G1 F2400 X91.03 Y145.21 E896.41987
G1 X90.12 Y145.43 E896.45082
G1 X89.25 Y145.75 E896.48174
G1 X88.40 Y146.15 E896.51268
G1 X87.60 Y146.63 E896.54359
G1 X86.86 Y147.18 E896.57456
G1 X86.17 Y147.81 E896.60551
G1 X85.54 Y148.50 E896.63642
G1 X84.98 Y149.25 E896.66738
G1 X84.50 Y150.05 E896.69833
G1 X84.11 Y150.90 E896.72929
G1 X83.79 Y151.78 E896.76026
G1 X83.74 Y151.99 E896.76758
G1 X72.84 Y151.99 E897.12921
G1 X72.84 Y162.32 E897.47183
G1 X71.52 Y162.31 E897.51552
G1 X70.03 Y162.31 E897.56485
G1 X70.03 Y162.45 E897.56947
G1 X68.04 Y162.45 E897.63565
G1 X67.80 Y162.45 E897.64375
G1 X67.80 Y151.99 E897.99081
G1 X60.84 Y151.99 E898.22159
G1 X60.84 Y140.17 E898.61364
G1 X63.88 Y140.17 E898.71467
G1 X63.88 Y145.19 E898.88118
G1 X91.14 Y145.19 E899.78532
G0 F12000 X91.11 Y145.60
G1 F2400 X90.24 Y145.82 E899.81494
G1 X89.40 Y146.12 E899.84456
G1 X88.59 Y146.50 E899.87421
G1 X87.83 Y146.96 E899.90384
G1 X87.11 Y147.49 E899.93350
G1 X86.45 Y148.09 E899.96316
G1 X85.85 Y148.75 E899.99276
G1 X85.32 Y149.47 E900.02243
G1 X84.86 Y150.24 E900.05206
G1 X84.47 Y151.05 E900.08174
G1 X84.17 Y151.89 E900.11137
G1 X84.05 Y152.39 E900.12840
G1 X73.24 Y152.39 E900.48714
G1 X73.24 Y162.72 E900.82976
G1 X70.43 Y162.71 E900.92279
G1 X70.43 Y162.85 E900.92734
G1 X67.40 Y162.85 E901.02809
G1 X67.40 Y152.39 E901.37519
G1 X60.44 Y152.39 E901.60597
G1 X60.44 Y139.77 E902.02450
G1 X64.28 Y139.77 E902.15200
G1 X64.28 Y144.79 E902.31851
G1 X121.48 Y144.79 E904.21610
G1 X121.48 Y139.77 E904.38262
G1 X125.53 Y139.77 E904.51685
G1 X125.53 Y152.39 E904.93538
G1 X118.37 Y152.39 E905.17286
G1 X118.37 Y168.14 E905.69547
G1 X115.33 Y168.14 E905.79626
G1 X115.33 Y162.69 E905.97697
G1 X114.69 Y162.71 E905.99822
G1 X114.63 Y162.71 E906.00011
G1 X114.44 Y162.71 E906.00648
G1 X112.53 Y162.71 E906.06998
G1 X112.53 Y152.39 E906.41253
G1 X101.71 Y152.39 E906.77127
G1 X101.59 Y151.89 E906.78828
G1 X101.29 Y151.05 E906.81791
G1 X100.91 Y150.24 E906.84761
G1 X100.45 Y149.47 E906.87724
G1 X99.92 Y148.76 E906.90688
G1 X99.32 Y148.09 E906.93653
G1 X98.65 Y147.49 E906.96617
G1 X97.94 Y146.96 E906.99583
G1 X97.17 Y146.50 E907.02547
G1 X96.45 Y146.16 E907.05176
G1 X95.53 Y145.82 E907.08461
G1 X94.66 Y145.60 E907.11434
G1 X93.77 Y145.47 E907.14398
G1 X92.88 Y145.42 E907.17362
G1 X91.99 Y145.47 E907.20325
G1 X91.11 Y145.60 E907.23286
G0 F12000 X91.18 Y145.99
;TYPE:WALL-OUTER
G1 F2400 X90.36 Y146.20 E907.26118
G1 X89.55 Y146.49 E907.28949
G1 X88.78 Y146.85 E907.31785
G1 X88.05 Y147.29 E907.34617
G1 X87.36 Y147.80 E907.37453
G1 X86.73 Y148.38 E907.40288
G1 X86.16 Y149.01 E907.43121
G1 X85.65 Y149.69 E907.45955
G1 X85.21 Y150.43 E907.48789
G1 X84.84 Y151.20 E907.51629
G1 X84.56 Y152.01 E907.54462
G1 X84.36 Y152.79 E907.57133
G1 X73.64 Y152.79 E907.92715
G1 X73.64 Y163.11 E908.26970
G1 X71.52 Y163.11 E908.33994
G1 X70.83 Y163.11 E908.36273
G1 X70.83 Y163.25 E908.36727
G1 X67.00 Y163.25 E908.49451
G1 X67.00 Y152.79 E908.84161
G1 X60.04 Y152.79 E909.07239
G1 X60.04 Y139.37 E909.51739
G1 X64.68 Y139.37 E909.67136
G1 X64.68 Y144.39 E909.83788
G1 X121.08 Y144.39 E911.70899
G1 X121.08 Y139.37 E911.87551
G1 X125.92 Y139.37 E912.03622
G1 X125.92 Y152.79 E912.48122
G1 X118.77 Y152.79 E912.71870
G1 X118.77 Y168.54 E913.24131
G1 X114.93 Y168.54 E913.36857
G1 X114.93 Y163.10 E913.54886
G1 X114.70 Y163.11 E913.55659
G1 X114.63 Y163.11 E913.55881
G1 X114.44 Y163.11 E913.56505
G1 X112.16 Y163.11 E913.64089
G1 X112.13 Y163.11 E913.64186
G1 X112.13 Y152.79 E913.98441
G1 X101.40 Y152.79 E914.34027
G1 X101.21 Y152.01 E914.36694
G1 X100.92 Y151.20 E914.39530
G1 X100.55 Y150.43 E914.42368
G1 X100.11 Y149.69 E914.45203
G1 X99.61 Y149.01 E914.48037
G1 X99.03 Y148.38 E914.50872
G1 X98.40 Y147.80 E914.53705
G1 X97.72 Y147.29 E914.56541
G1 X96.98 Y146.85 E914.59377
G1 X96.30 Y146.53 E914.61881
G1 X95.41 Y146.20 E914.65035
G1 X94.58 Y145.99 E914.67870
G1 X93.73 Y145.87 E914.70704
G1 X92.88 Y145.82 E914.73538
G1 X92.03 Y145.87 E914.76372
G1 X91.18 Y145.99 E914.79202
G0 F12000 X91.11 Y145.70
G0 X89.69 Y145.33
;TYPE:FILL
G1 F2400 X89.52 Y145.50 E914.80012
G0 F12000 X89.12 Y145.33
G1 F2400 X88.52 Y145.94 E914.82857
G0 F12000 X88.56 Y145.33
G1 F2400 X86.96 Y146.93 E914.90357
G0 F12000 X86.87 Y145.33
G1 F2400 X80.35 Y151.85 E915.20942
G0 F12000 X79.78 Y151.85
G1 F2400 X86.30 Y145.33 E915.51524
G0 F12000 X85.74 Y145.33
G1 F2400 X79.22 Y151.85 E915.82106
G0 F12000 X78.66 Y151.85
G1 F2400 X85.17 Y145.33 E916.12688
G0 F12000 X84.61 Y145.33
G1 F2400 X78.09 Y151.85 E916.43270
G0 F12000 X77.53 Y151.85
G1 F2400 X84.05 Y145.33 E916.73852
G0 F12000 X83.48 Y145.33
G1 F2400 X76.96 Y151.85 E917.04434
G0 F12000 X76.40 Y151.85
G1 F2400 X82.92 Y145.33 E917.35016
G0 F12000 X82.35 Y145.33
G1 F2400 X75.83 Y151.85 E917.65598
G0 F12000 X75.27 Y151.85
G1 F2400 X81.79 Y145.33 E917.96180
G0 F12000 X81.22 Y145.33
G1 F2400 X74.71 Y151.85 E918.26762
G0 F12000 X74.14 Y151.85
G1 F2400 X80.66 Y145.33 E918.57346
G0 F12000 X80.10 Y145.33
G1 F2400 X73.58 Y151.85 E918.87928
G0 F12000 X73.01 Y151.85
G1 F2400 X79.53 Y145.33 E919.18510
G0 F12000 X78.97 Y145.33
G1 F2400 X67.93 Y156.36 E919.70279
G0 F12000 X67.93 Y155.80
G1 F2400 X78.40 Y145.33 E920.19399
G0 F12000 X77.84 Y145.33
G1 F2400 X67.93 Y155.24 E920.65872
G0 F12000 X67.93 Y154.67
G1 F2400 X77.28 Y145.33 E921.09700
G0 F12000 X76.71 Y145.33
G1 F2400 X67.93 Y154.11 E921.50878
G0 F12000 X67.93 Y153.54
G1 F2400 X76.15 Y145.33 E921.89409
G0 F12000 X75.58 Y145.33
G1 F2400 X67.93 Y152.98 E922.25293
G0 F12000 X67.93 Y152.41
G1 F2400 X75.02 Y145.33 E922.58530
G0 F12000 X74.45 Y145.33
G1 F2400 X67.93 Y151.85 E922.89119
G0 F12000 X67.37 Y151.85
G1 F2400 X73.89 Y145.33 E923.19701
G0 F12000 X73.33 Y145.33
G1 F2400 X66.81 Y151.85 E923.50283
G0 F12000 X66.24 Y151.85
G1 F2400 X72.76 Y145.33 E923.80865
G0 F12000 X72.20 Y145.33
G1 F2400 X65.68 Y151.85 E924.11450
G0 F12000 X65.11 Y151.85
G1 F2400 X71.63 Y145.33 E924.42032
G0 F12000 X71.07 Y145.33
G1 F2400 X64.55 Y151.85 E924.72614
G0 F12000 X63.99 Y151.85
G1 F2400 X70.50 Y145.33 E925.03196
G0 F12000 X69.94 Y145.33
G1 F2400 X63.42 Y151.85 E925.33778
G0 F12000 X62.86 Y151.85
G1 F2400 X69.38 Y145.33 E925.64360
G0 F12000 X68.81 Y145.33
G1 F2400 X62.29 Y151.85 E925.94942
G0 F12000 X61.73 Y151.85
G1 F2400 X68.25 Y145.33 E926.25524
G0 F12000 X67.68 Y145.33
G1 F2400 X61.16 Y151.85 E926.56106
G0 F12000 X60.98 Y151.47
G1 F2400 X67.12 Y145.33 E926.84910
G0 F12000 X66.55 Y145.33
G1 F2400 X60.98 Y150.91 E927.11067
G0 F12000 X60.98 Y150.34
G1 F2400 X65.99 Y145.33 E927.34576
G0 F12000 X65.42 Y145.33
G1 F2400 X60.98 Y149.78 E927.55436
G0 F12000 X60.98 Y149.21
G1 F2400 X64.86 Y145.33 E927.73651
G0 F12000 X64.30 Y145.33
G1 F2400 X60.98 Y148.65 E927.89216
G0 F12000 X60.98 Y148.08
G1 F2400 X63.74 Y145.32 E928.02189
G0 F12000 X63.74 Y144.75
G1 F2400 X60.98 Y147.52 E928.15162
G0 F12000 X60.98 Y146.96
G1 F2400 X63.74 Y144.19 E928.28136
G0 F12000 X63.74 Y143.63
G1 F2400 X60.98 Y146.39 E928.41107
G0 F12000 X60.98 Y145.83
G1 F2400 X63.74 Y143.06 E928.54080
G0 F12000 X63.74 Y142.50
G1 F2400 X60.98 Y145.26 E928.67053
G0 F12000 X60.98 Y144.70
G1 F2400 X63.74 Y141.93 E928.80026
G0 F12000 X63.74 Y141.37
G1 F2400 X60.98 Y144.13 E928.92997
G0 F12000 X60.98 Y143.57
G1 F2400 X63.74 Y140.80 E929.05970
G0 F12000 X63.67 Y140.31
G1 F2400 X60.98 Y143.00 E929.18610
G0 F12000 X60.98 Y142.44
G1 F2400 X63.11 Y140.31 E929.28604
G0 F12000 X62.55 Y140.31
G1 F2400 X60.98 Y141.88 E929.35949
G0 F12000 X60.98 Y141.31
G1 F2400 X61.98 Y140.31 E929.40646
G0 F12000 X61.42 Y140.31
G1 F2400 X60.98 Y140.75 E929.42696
G0 F12000 X64.34 Y144.73
G0 X72.70 Y152.16
G1 F2400 X67.93 Y156.93 E929.65044
G0 F12000 X67.93 Y157.49
G1 F2400 X72.70 Y152.73 E929.87392
G0 F12000 X72.70 Y153.29
G1 F2400 X67.93 Y158.06 E930.09739
G0 F12000 X67.93 Y158.62
G1 F2400 X72.70 Y153.86 E930.32089
G0 F12000 X72.70 Y154.42
G1 F2400 X67.93 Y159.19 E930.54437
G0 F12000 X67.93 Y159.75
G1 F2400 X72.70 Y154.99 E930.76785
G0 F12000 X72.70 Y155.55
G1 F2400 X67.93 Y160.31 E930.99132
G0 F12000 X67.93 Y160.88
G1 F2400 X72.70 Y156.12 E931.21480
G0 F12000 X72.70 Y156.68
G1 F2400 X67.93 Y161.44 E931.43828
G0 F12000 X67.93 Y162.01
G1 F2400 X72.70 Y157.24 E931.66175
G0 F12000 X72.70 Y157.81
G1 F2400 X68.19 Y162.31 E931.87299
G0 F12000 X68.76 Y162.31
G1 F2400 X72.70 Y158.37 E932.05773
G0 F12000 X72.70 Y158.94
G1 F2400 X69.32 Y162.31 E932.21599
G0 F12000 X70.03 Y162.17
G1 F2400 X72.70 Y159.50 E932.34133
G0 F12000 X72.70 Y160.06
G1 F2400 X70.59 Y162.17 E932.44024
G0 F12000 X71.15 Y162.17
G1 F2400 X72.70 Y160.63 E932.51268
G0 F12000 X72.70 Y161.19
G1 F2400 X71.72 Y162.17 E932.55871
G0 F12000 X72.28 Y162.17
G1 F2400 X72.70 Y161.76 E932.57828
G0 F12000 X73.30 Y152.45
G0 X80.91 Y151.85
G1 F2400 X87.43 Y145.33 E932.88410
G0 F12000 X88.00 Y145.33
G1 F2400 X81.48 Y151.85 E933.18992
G0 F12000 X82.04 Y151.85
G1 F2400 X85.29 Y148.60 E933.34250
G0 F12000 X84.30 Y150.16
G1 F2400 X82.61 Y151.85 E933.42189
G0 F12000 X83.17 Y151.85
G1 F2400 X83.86 Y151.15 E933.45443
G0 F12000 X87.11 Y147.49
G0 X90.24 Y145.82
G0 X93.77 Y145.47
G0 X96.27 Y145.52
G1 F2400 X96.57 Y145.50 E933.46319
G1 X97.05 Y145.59 E933.47917
G1 X97.59 Y145.33 E933.49919
G0 F12000 X98.15 Y145.33
G1 F2400 X97.45 Y146.04 E933.53231
G0 F12000 X97.80 Y146.25
G1 F2400 X98.72 Y145.33 E933.57539
G0 F12000 X99.28 Y145.33
G1 F2400 X98.15 Y146.46 E933.62841
G0 F12000 X98.48 Y146.69
G1 F2400 X99.85 Y145.33 E933.69236
G0 F12000 X100.41 Y145.33
G1 F2400 X98.81 Y146.93 E933.76759
G0 F12000 X99.12 Y147.19
G1 F2400 X100.97 Y145.33 E933.85467
G0 F12000 X101.54 Y145.33
G1 F2400 X99.41 Y147.46 E933.95438
G0 F12000 X99.71 Y147.72
G1 F2400 X102.10 Y145.33 E934.06670
G0 F12000 X102.67 Y145.33
G1 F2400 X99.98 Y148.02 E934.19292
G0 F12000 X100.25 Y148.32
G1 F2400 X103.23 Y145.33 E934.33304
G0 F12000 X103.80 Y145.33
G1 F2400 X100.49 Y148.63 E934.48794
G0 F12000 X100.73 Y148.96
G1 F2400 X104.36 Y145.33 E934.65803
G0 F12000 X104.92 Y145.33
G1 F2400 X100.97 Y149.29 E934.84373
G0 F12000 X101.18 Y149.64
G1 F2400 X105.49 Y145.33 E935.04605
G0 F12000 X106.05 Y145.33
G1 F2400 X101.39 Y150.00 E935.26495
G0 F12000 X101.57 Y150.38
G1 F2400 X106.62 Y145.33 E935.50182
G0 F12000 X107.18 Y145.33
G1 F2400 X101.75 Y150.76 E935.75669
G0 F12000 X101.90 Y151.17
G1 F2400 X107.75 Y145.33 E936.03082
G0 F12000 X108.31 Y145.33
G1 F2400 X102.05 Y151.59 E936.32444
G0 F12000 X102.36 Y151.85
G1 F2400 X108.87 Y145.33 E936.63026
G0 F12000 X109.44 Y145.33
G1 F2400 X102.92 Y151.85 E936.93608
G0 F12000 X103.48 Y151.85
G1 F2400 X110.00 Y145.33 E937.24190
G0 F12000 X110.57 Y145.33
G1 F2400 X104.05 Y151.85 E937.54772
G0 F12000 X104.61 Y151.85
G1 F2400 X111.13 Y145.33 E937.85354
G0 F12000 X111.70 Y145.33
G1 F2400 X105.18 Y151.85 E938.15938
G0 F12000 X105.74 Y151.85
G1 F2400 X112.26 Y145.33 E938.46520
G0 F12000 X112.82 Y145.33
G1 F2400 X106.31 Y151.85 E938.77102
G0 F12000 X106.87 Y151.85
G1 F2400 X113.39 Y145.33 E939.07684
G0 F12000 X113.95 Y145.33
G1 F2400 X107.43 Y151.85 E939.38269
G0 F12000 X108.00 Y151.85
G1 F2400 X114.52 Y145.33 E939.68851
G0 F12000 X115.08 Y145.33
G1 F2400 X108.56 Y151.85 E939.99433
G0 F12000 X109.13 Y151.85
G1 F2400 X115.64 Y145.33 E940.30015
G0 F12000 X116.21 Y145.33
G1 F2400 X109.69 Y151.85 E940.60597
G0 F12000 X110.26 Y151.85
G1 F2400 X116.77 Y145.33 E940.91179
G0 F12000 X117.34 Y145.33
G1 F2400 X110.82 Y151.85 E941.21761
G0 F12000 X111.38 Y151.85
G1 F2400 X117.90 Y145.33 E941.52343
G0 F12000 X118.47 Y145.33
G1 F2400 X111.95 Y151.85 E941.82925
G0 F12000 X112.51 Y151.85
G1 F2400 X119.03 Y145.33 E942.13507
G0 F12000 X119.59 Y145.33
G1 F2400 X113.06 Y151.86 E942.44150
G0 F12000 X113.06 Y152.43
G1 F2400 X120.16 Y145.33 E942.77442
G0 F12000 X120.72 Y145.33
G1 F2400 X113.06 Y152.99 E943.13379
G0 F12000 X113.06 Y153.55
G1 F2400 X121.29 Y145.33 E943.51964
G0 F12000 X121.85 Y145.33
G1 F2400 X113.06 Y154.12 E943.93196
G0 F12000 X113.06 Y154.68
G1 F2400 X124.98 Y142.76 E944.49127
G0 F12000 X124.98 Y143.33
G1 F2400 X113.06 Y155.25 E945.05057
G0 F12000 X113.06 Y155.81
G1 F2400 X124.98 Y143.89 E945.60987
G0 F12000 X124.98 Y144.45
G1 F2400 X113.06 Y156.38 E946.16919
G0 F12000 X113.06 Y156.94
G1 F2400 X117.83 Y152.18 E946.39269
G0 F12000 X118.16 Y151.85
G1 F2400 X124.98 Y145.02 E946.71311
G0 F12000 X124.98 Y145.58
G1 F2400 X118.72 Y151.85 E947.00706
G0 F12000 X119.28 Y151.85
G1 F2400 X124.98 Y146.15 E947.27454
G0 F12000 X124.98 Y146.71
G1 F2400 X119.85 Y151.85 E947.51557
G0 F12000 X120.41 Y151.85
G1 F2400 X124.98 Y147.28 E947.73008
G0 F12000 X124.98 Y147.84
G1 F2400 X120.98 Y151.85 E947.91814
G0 F12000 X121.54 Y151.85
G1 F2400 X124.98 Y148.40 E948.07973
G0 F12000 X124.98 Y148.97
G1 F2400 X122.11 Y151.85 E948.21481
G0 F12000 X122.67 Y151.85
G1 F2400 X124.98 Y149.53 E948.32343
G0 F12000 X124.98 Y150.10
G1 F2400 X123.23 Y151.85 E948.40558
G0 F12000 X123.80 Y151.85
G1 F2400 X124.98 Y150.66 E948.46127
G0 F12000 X124.98 Y151.23
G1 F2400 X124.36 Y151.85 E948.49046
G0 F12000 X124.93 Y151.85
G1 F2400 X124.98 Y151.79 E948.49318
G0 F12000 X118.42 Y152.45
G0 X117.83 Y152.74
G1 F2400 X113.06 Y157.50 E948.71668
G0 F12000 X113.06 Y158.07
G1 F2400 X117.83 Y153.30 E948.94020
G0 F12000 X117.83 Y153.87
G1 F2400 X113.06 Y158.63 E949.16370
G0 F12000 X113.06 Y159.20
G1 F2400 X117.83 Y154.43 E949.38720
G0 F12000 X117.83 Y155.00
G1 F2400 X113.06 Y159.76 E949.61070
G0 F12000 X113.06 Y160.32
G1 F2400 X117.83 Y155.56 E949.83421
G0 F12000 X117.83 Y156.13
G1 F2400 X113.06 Y160.89 E950.05771
G0 F12000 X113.06 Y161.45
G1 F2400 X117.83 Y156.69 E950.28121
G0 F12000 X117.83 Y157.25
G1 F2400 X113.06 Y162.02 E950.50471
G0 F12000 X113.47 Y162.17
G1 F2400 X117.83 Y157.82 E950.70902
G0 F12000 X117.83 Y158.38
G1 F2400 X114.04 Y162.17 E950.88686
G0 F12000 X114.60 Y162.17
G1 F2400 X117.83 Y158.95 E951.03823
G0 F12000 X117.83 Y159.51
G1 F2400 X115.18 Y162.16 E951.16237
G0 F12000 X115.77 Y162.14
G1 F2400 X117.83 Y160.08 E951.25910
G0 F12000 X117.83 Y160.64
G1 F2400 X115.87 Y162.60 E951.35108
G0 F12000 X115.87 Y163.16
G1 F2400 X117.83 Y161.20 E951.44307
G0 F12000 X117.83 Y161.77
G1 F2400 X115.87 Y163.73 E951.53505
G0 F12000 X115.87 Y164.29
G1 F2400 X117.83 Y162.33 E951.62704
G0 F12000 X117.83 Y162.90
G1 F2400 X115.87 Y164.86 E951.71903
G0 F12000 X115.87 Y165.42
G1 F2400 X117.83 Y163.46 E951.81101
G0 F12000 X117.83 Y164.03
G1 F2400 X115.87 Y165.99 E951.90300
G0 F12000 X115.87 Y166.55
G1 F2400 X117.83 Y164.59 E951.99498
