;-- START GCODE --
;Sliced for Type A Machines Series 1
;Sliced at: Thu 17-11-2016 23:56:01
;Basic settings: Layer height: 0.2 Walls: 1.2 Fill: 3
;Print Speed: 40 Support: 0
;Retraction Speed: 40 Retraction Distance: 1.2
;Print time: #P_TIME#
;Filament used: #F_AMNT#m #F_WGHT#g
;Filament cost: #F_COST#
M106 S255	 ;start with the fan on
G21        ;metric values
G90        ;absolute positioning
M106 S255    ;start with the fan on
G28     ;move to endstops
G29		;allows for auto-levelling
G1 X150 Y5  Z15.0 F12000 ;center and move the platform down 15mm
M109 S220 ;Heat To temp
G92 E0                  ;zero the extruded length
G1 F200 E30              ;extrude 30mm of feed stock
G92 E0                  ;zero the extruded length again
G1 X175 Y25  Z0 F12000 ;remove bugger
G1 X220 F12000 ;remove bugger
G1 X150 Y150  Z15 F12000 ;recenter and begin
G1 F12000

;Layer count: 153
;LAYER:0
M106 S255
G0 F12000 X101.56 Y119.92 Z0.30
;TYPE:SKIRT
G1 F2400 X142.20 Y119.92 E2.02749
G1 X142.20 Y124.94 E2.27789
G1 X162.60 Y124.94 E3.29560
G1 X162.60 Y119.92 E3.54600
G1 X203.44 Y119.92 E5.58361
G1 X203.44 Y169.33 E8.04879
G1 X196.28 Y169.33 E8.40590
G1 X196.28 Y185.08 E9.19167
G1 X156.45 Y185.08 E11.17900
G1 X156.45 Y180.80 E11.39258
G1 X153.65 Y180.71 E11.53250
G1 X153.65 Y169.33 E12.09995
G1 X151.15 Y169.33 E12.22428
G1 X151.15 Y181.27 E12.81972
G1 X148.35 Y181.27 E12.95961
G1 X148.35 Y181.45 E12.96829
G1 X126.68 Y181.44 E14.04941
G1 X108.52 Y181.50 E14.95557
G1 X108.52 Y169.33 E15.56259
G1 X101.56 Y169.33 E15.90962
G1 X101.56 Y119.92 E18.37480
G0 F12000 X101.96 Y120.32
G1 F2400 X141.80 Y120.32 E20.36237
G1 X141.80 Y125.34 E20.61277
G1 X163.00 Y125.34 E21.67039
G1 X163.00 Y120.32 E21.92079
G1 X203.04 Y120.32 E23.91850
G1 X203.04 Y168.93 E26.34376
G1 X195.88 Y168.93 E26.70087
G1 X195.88 Y184.68 E27.48664
G1 X156.85 Y184.68 E29.43406
G1 X156.85 Y180.41 E29.64694
G1 X154.04 Y180.32 E29.78686
G1 X154.04 Y168.93 E30.35496
G1 X150.75 Y168.93 E30.51920
G1 X150.75 Y180.87 E31.11469
G1 X147.95 Y180.87 E31.25458
G1 X147.95 Y181.04 E31.26316
G1 X126.68 Y181.04 E32.32433
G1 X108.92 Y181.10 E33.21053
G1 X108.92 Y168.93 E33.81750
G1 X101.96 Y168.93 E34.16453
G1 X101.96 Y120.32 E36.58980
G0 F12000 X102.36 Y120.72
G1 F2400 X141.40 Y120.72 E38.53746
G1 X141.40 Y125.74 E38.78786
G1 X163.40 Y125.74 E39.88539
G1 X163.40 Y120.72 E40.13579
G1 X202.64 Y120.72 E42.09358
G1 X202.64 Y168.53 E44.47893
G1 X195.48 Y168.53 E44.83605
G1 X195.48 Y184.28 E45.62182
G1 X157.25 Y184.28 E47.52932
G1 X157.25 Y180.03 E47.74155
G1 X154.44 Y179.93 E47.88148
G1 X154.44 Y168.53 E48.45023
G1 X150.35 Y168.53 E48.65438
G1 X150.35 Y180.47 E49.24987
G1 X147.55 Y180.47 E49.38976
G1 X147.55 Y180.65 E49.39834
G1 X126.68 Y180.64 E50.43960
G1 X109.32 Y180.70 E51.30580
G1 X109.32 Y168.53 E51.91271
G1 X102.36 Y168.53 E52.25975
G1 X102.36 Y120.72 E54.64510
G0 F12000 X102.76 Y121.12
G1 F2400 X141.00 Y121.12 E56.55285
G1 X141.00 Y126.14 E56.80325
G1 X163.80 Y126.14 E57.94069
G1 X163.80 Y121.12 E58.19109
G1 X202.24 Y121.12 E60.10897
G1 X202.24 Y168.13 E62.45441
G1 X195.08 Y168.13 E62.81153
G1 X195.08 Y183.88 E63.59730
G1 X157.65 Y183.88 E65.46489
G1 X157.65 Y179.64 E65.67647
G1 X154.84 Y179.54 E65.81639
G1 X154.84 Y168.13 E66.38584
G1 X149.95 Y168.13 E66.62990
G1 X149.95 Y180.07 E67.22544
G1 X147.15 Y180.07 E67.36533
G1 X147.15 Y180.25 E67.37387
G1 X126.68 Y180.24 E68.39527
G1 X109.72 Y180.29 E69.24141
G1 X109.72 Y168.13 E69.84822
G1 X102.76 Y168.13 E70.19526
G1 X102.76 Y121.12 E72.54070
G0 F12000 X103.16 Y121.52
G1 F2400 X140.60 Y121.52 E74.40854
G1 X140.60 Y126.54 E74.65894
G1 X164.20 Y126.54 E75.83630
G1 X164.20 Y121.52 E76.08669
G1 X201.84 Y121.52 E77.96466
G1 X201.84 Y167.73 E80.27019
G1 X194.68 Y167.73 E80.62730
G1 X194.68 Y183.48 E81.41307
G1 X158.05 Y183.48 E83.24075
G1 X158.05 Y179.25 E83.45164
G1 X155.25 Y179.16 E83.59156
G1 X155.25 Y167.73 E84.16166
G1 X149.55 Y167.73 E84.44563
G1 X149.55 Y179.67 E85.04122
G1 X146.75 Y179.68 E85.18111
G1 X146.75 Y179.84 E85.18959
G1 X126.67 Y179.84 E86.19109
G1 X110.12 Y179.89 E87.01723
G1 X110.12 Y167.73 E87.62399
G1 X103.16 Y167.73 E87.97103
G1 X103.16 Y121.52 E90.27655
G0 F12000 X103.56 Y121.92
G1 F2400 X140.20 Y121.92 E92.10448
G1 X140.20 Y126.94 E92.35488
G1 X164.60 Y126.94 E93.57215
G1 X164.60 Y121.92 E93.82255
G1 X201.44 Y121.92 E95.66060
G1 X201.44 Y167.33 E97.92622
G1 X194.28 Y167.33 E98.28333
G1 X194.28 Y183.08 E99.06910
G1 X158.45 Y183.08 E100.85687
G1 X158.45 Y178.87 E101.06710
G1 X155.65 Y178.77 E101.20703
G1 X155.65 Y167.33 E101.77782
G1 X149.15 Y167.33 E102.10171
G1 X149.15 Y179.27 E102.69735
G1 X146.35 Y179.28 E102.83724
G1 X146.35 Y179.44 E102.84567
G1 X126.67 Y179.44 E103.82726
G1 X110.52 Y179.49 E104.63339
G1 X110.52 Y167.33 E105.24011
G1 X103.56 Y167.33 E105.58714
G1 X103.56 Y121.92 E107.85276
G0 F12000 X103.96 Y122.32
G1 F2400 X139.80 Y122.32 E109.64077
G1 X139.80 Y127.34 E109.89117
G1 X165.00 Y127.34 E111.14835
G1 X165.00 Y122.32 E111.39875
G1 X201.04 Y122.32 E113.19689
G1 X201.04 Y166.93 E115.42260
G1 X193.88 Y166.93 E115.77971
G1 X193.88 Y182.68 E116.56548
G1 X158.85 Y182.68 E118.31333
G1 X158.85 Y178.48 E118.52287
G1 X156.04 Y178.38 E118.66280
G1 X156.04 Y166.93 E119.23424
G1 X148.75 Y166.93 E119.59804
G1 X148.75 Y178.87 E120.19373
G1 X145.95 Y178.88 E120.33362
G1 X145.95 Y179.04 E120.34200
G1 X126.67 Y179.04 E121.30369
G1 X110.92 Y179.09 E122.08981
G1 X110.92 Y166.93 E122.69648
G1 X103.96 Y166.93 E123.04351
G1 X103.96 Y122.32 E125.26921
G0 F12000 X104.36 Y122.72
G1 F2400 X139.40 Y122.72 E127.01732
G1 X139.40 Y127.74 E127.26771
G1 X165.40 Y127.74 E128.56481
G1 X165.40 Y122.72 E128.81521
G1 X200.64 Y122.72 E130.57344
G1 X200.64 Y166.53 E132.75923
G1 X193.48 Y166.53 E133.11634
G1 X193.48 Y182.28 E133.90211
G1 X159.25 Y182.28 E135.61006
G1 X159.25 Y178.09 E135.81895
G1 X156.44 Y178.00 E135.95887
G1 X156.44 Y166.53 E136.53096
G1 X148.35 Y166.53 E136.93467
G1 X148.35 Y178.47 E137.53041
G1 X145.55 Y178.48 E137.67030
G1 X145.55 Y178.65 E137.67864
G1 X126.67 Y178.64 E138.62046
G1 X111.32 Y178.69 E139.38653
G1 X111.32 Y166.53 E139.99310
G1 X104.36 Y166.53 E140.34013
G1 X104.36 Y122.72 E142.52592
G0 F12000 X104.76 Y123.12
G1 F2400 X139.00 Y123.12 E144.23411
G1 X139.00 Y128.14 E144.48451
G1 X165.80 Y128.14 E145.82152
G1 X165.80 Y123.12 E146.07192
G1 X200.24 Y123.12 E147.79024
G1 X200.24 Y166.13 E149.93611
G1 X193.08 Y166.13 E150.29323
G1 X193.08 Y181.88 E151.07900
G1 X159.65 Y181.88 E152.74703
G1 X159.65 Y177.71 E152.95522
G1 X156.84 Y177.61 E153.09514
G1 X156.84 Y166.13 E153.66793
G1 X147.95 Y166.13 E154.11156
G1 X147.95 Y178.07 E154.70729
G1 X145.15 Y178.08 E154.84719
G1 X145.15 Y178.25 E154.85552
G1 X126.67 Y178.24 E155.77744
G1 X111.72 Y178.29 E156.52350
G1 X111.72 Y166.13 E157.13002
G1 X104.76 Y166.13 E157.47705
G1 X104.76 Y123.12 E159.62293
G0 F12000 X105.16 Y123.52
G1 F2400 X138.60 Y123.52 E161.29121
G1 X138.60 Y128.54 E161.54161
G1 X166.20 Y128.54 E162.91853
G1 X166.20 Y123.52 E163.16893
G1 X199.84 Y123.52 E164.84733
G1 X199.84 Y165.73 E166.95330
G1 X192.68 Y165.73 E167.31041
G1 X192.68 Y181.48 E168.09618
G1 X160.05 Y181.48 E169.72430
G1 X160.05 Y177.32 E169.93184
G1 X157.25 Y177.22 E170.07177
G1 X157.25 Y165.73 E170.64521
G1 X147.55 Y165.73 E171.12874
G1 X147.55 Y177.67 E171.72453
G1 X144.75 Y177.68 E171.86442
G1 X144.75 Y177.84 E171.87270
G1 X126.67 Y177.84 E172.77472
G1 X112.12 Y177.89 E173.50078
G1 X112.12 Y165.73 E174.10724
G1 X105.16 Y165.73 E174.45428
G1 X105.16 Y123.52 E176.56024
G0 F12000 X105.56 Y123.92
G1 F2400 X138.20 Y123.92 E178.18861
G1 X138.20 Y128.94 E178.43901
G1 X166.60 Y128.94 E179.85584
G1 X166.60 Y123.92 E180.10624
G1 X199.44 Y123.92 E181.74473
G1 X199.44 Y165.33 E183.81078
G1 X192.28 Y165.33 E184.16790
G1 X192.28 Y181.08 E184.95367
G1 X160.45 Y181.08 E186.54187
G1 X160.45 Y176.93 E186.74877
G1 X157.65 Y176.84 E186.88869
G1 X157.65 Y165.33 E187.46283
G1 X147.15 Y165.33 E187.98628
G1 X147.15 Y177.27 E188.58211
G1 X144.35 Y177.28 E188.72201
G1 X144.35 Y177.44 E188.73024
G1 X126.67 Y177.44 E189.61240
G1 X112.52 Y177.49 E190.31840
G1 X112.52 Y165.33 E190.92476
G1 X105.56 Y165.33 E191.27180
G1 X105.56 Y123.92 E193.33785
G0 F12000 X105.96 Y124.32
G1 F2400 X137.80 Y124.32 E194.92631
G1 X137.80 Y129.34 E195.17671
G1 X167.00 Y129.34 E196.63345
G1 X167.00 Y124.32 E196.88385
G1 X199.04 Y124.32 E198.48243
G1 X199.04 Y164.93 E200.50857
G1 X191.88 Y164.93 E200.86569
G1 X191.88 Y180.68 E201.65146
G1 X160.85 Y180.68 E203.19975
G1 X160.85 Y176.55 E203.40594
G1 X158.04 Y176.45 E203.54587
G1 X158.04 Y164.93 E204.12065
G1 X146.75 Y164.93 E204.68401
G1 X146.75 Y176.88 E205.27990
G1 X143.95 Y176.88 E205.41980
G1 X143.95 Y177.04 E205.42793
G1 X126.67 Y177.04 E206.29013
G1 X112.92 Y177.08 E206.97617
G1 X112.92 Y164.93 E207.58249
G1 X105.96 Y164.93 E207.92953
G1 X105.96 Y124.32 E209.95567
G0 F12000 X106.36 Y124.72
G1 F2400 X137.40 Y124.72 E211.50421
G1 X137.40 Y129.74 E211.75461
G1 X167.40 Y129.74 E213.25126
G1 X167.40 Y124.72 E213.50166
G1 X198.64 Y124.72 E215.06033
G1 X198.64 Y164.53 E217.04656
G1 X191.48 Y164.53 E217.40367
G1 X191.48 Y180.28 E218.18945
G1 X161.25 Y180.28 E219.69783
G1 X161.25 Y176.16 E219.90337
G1 X158.44 Y176.06 E220.04330
G1 X158.44 Y164.53 E220.61873
G1 X146.35 Y164.53 E221.22200
G1 X146.35 Y176.48 E221.81794
G1 X143.55 Y176.48 E221.95783
G1 X143.55 Y176.64 E221.96592
G1 X126.67 Y176.64 E222.80821
G1 X113.32 Y176.68 E223.47425
G1 X113.32 Y164.53 E224.08052
G1 X106.36 Y164.53 E224.42755
G1 X106.36 Y124.72 E226.41378
G0 F12000 X106.76 Y125.12
G1 F2400 X137.00 Y125.12 E227.92241
G1 X137.00 Y130.14 E228.17281
G1 X167.80 Y130.14 E229.70938
G1 X167.80 Y125.12 E229.95978
G1 X198.24 Y125.12 E231.47854
G1 X198.24 Y164.13 E233.42485
G1 X191.08 Y164.13 E233.78197
G1 X191.08 Y179.88 E234.56774
G1 X161.65 Y179.88 E236.03620
G1 X161.65 Y175.78 E236.24105
G1 X158.84 Y175.68 E236.38098
G1 X158.84 Y164.13 E236.95711
G1 X145.95 Y164.13 E237.60029
G1 X145.95 Y176.08 E238.19628
G1 X143.15 Y176.08 E238.33618
G1 X143.15 Y176.24 E238.34421
G1 X126.67 Y176.24 E239.16660
G1 X113.72 Y176.28 E239.81263
G1 X113.72 Y164.13 E240.41885
G1 X106.76 Y164.13 E240.76588
G1 X106.76 Y125.12 E242.71220
G0 F12000 X107.16 Y125.52
G1 F2400 X136.60 Y125.52 E244.18092
G1 X136.60 Y130.54 E244.43131
G1 X168.20 Y130.54 E246.00780
G1 X168.20 Y125.52 E246.25819
G1 X197.84 Y125.52 E247.73704
G1 X197.84 Y163.73 E249.64344
G1 X190.68 Y163.73 E250.00056
G1 X190.68 Y179.48 E250.78633
G1 X162.05 Y179.48 E252.21488
G1 X162.05 Y175.39 E252.41914
G1 X159.25 Y175.29 E252.55906
G1 X159.25 Y163.73 E253.13584
G1 X145.55 Y163.73 E253.81894
G1 X145.55 Y175.68 E254.41492
G1 X142.75 Y175.68 E254.55482
G1 X142.75 Y175.84 E254.56285
G1 X126.66 Y175.84 E255.36538
G1 X114.12 Y175.88 E255.99136
G1 X114.12 Y163.73 E256.59747
G1 X107.16 Y163.73 E256.94451
G1 X107.16 Y125.52 E258.85091
G0 F12000 X107.56 Y125.92
G1 F2400 X136.20 Y125.92 E260.27972
G1 X136.20 Y130.94 E260.53012
G1 X168.60 Y130.94 E262.14651
G1 X168.60 Y125.92 E262.39691
G1 X197.44 Y125.92 E263.83584
G1 X197.44 Y163.33 E265.70234
G1 X190.28 Y163.33 E266.05945
G1 X190.28 Y179.08 E266.84522
G1 X162.45 Y179.08 E268.23386
G1 X162.45 Y175.00 E268.43742
G1 X159.65 Y174.91 E268.57734
G1 X159.65 Y163.33 E269.15482
G1 X145.15 Y163.33 E269.87783
G1 X145.15 Y175.28 E270.47387
G1 X142.35 Y175.28 E270.61376
G1 X142.35 Y175.44 E270.62174
G1 X126.66 Y175.44 E271.40437
G1 X114.52 Y175.48 E272.01034
G1 X114.52 Y163.33 E272.61640
G1 X107.56 Y163.33 E272.96344
G1 X107.56 Y125.92 E274.82993
G0 F12000 X107.96 Y126.32
G1 F2400 X135.80 Y126.32 E276.21883
G1 X135.80 Y131.34 E276.46922
G1 X169.00 Y131.34 E278.12553
G1 X169.00 Y126.32 E278.37593
G1 X197.04 Y126.32 E279.77495
G1 X197.04 Y162.93 E281.60153
G1 X189.88 Y162.93 E281.95864
G1 X189.88 Y178.68 E282.74441
G1 X162.85 Y178.68 E284.09315
G1 X162.85 Y174.62 E284.29600
G1 X160.04 Y174.52 E284.43592
G1 X160.04 Y162.93 E285.01405
G1 X144.75 Y162.93 E285.77697
G1 X144.75 Y174.88 E286.37306
G1 X141.95 Y174.88 E286.51295
G1 X141.95 Y175.04 E286.52089
G1 X126.66 Y175.04 E287.28361
G1 X114.92 Y175.08 E287.86957
G1 X114.92 Y162.93 E288.47559
G1 X107.96 Y162.93 E288.82262
G1 X107.96 Y126.32 E290.64920
G0 F12000 X108.36 Y126.72
G1 F2400 X135.40 Y126.72 E291.99818
G1 X135.40 Y131.74 E292.24858
G1 X169.40 Y131.74 E293.94480
G1 X169.40 Y126.72 E294.19520
G1 X196.64 Y126.72 E295.55431
G1 X196.64 Y162.53 E297.34098
G1 X189.48 Y162.53 E297.69809
G1 X189.48 Y178.28 E298.48386
G1 X163.25 Y178.28 E299.79268
G1 X163.25 Y174.23 E299.99489
G1 X160.44 Y174.13 E300.13481
G1 X160.44 Y162.53 E300.71359
G1 X144.35 Y162.53 E301.51642
G1 X144.35 Y174.48 E302.11256
G1 X141.55 Y174.49 E302.25245
G1 X141.55 Y174.64 E302.26033
G1 X126.66 Y174.64 E303.00320
G1 X115.32 Y174.68 E303.56910
G1 X115.32 Y162.53 E304.17502
G1 X108.36 Y162.53 E304.52206
G1 X108.36 Y126.72 E306.30873
G0 F12000 X108.76 Y127.12
G1 F2400 X135.00 Y127.12 E307.61779
G1 X135.00 Y132.14 E307.86819
G1 X169.80 Y132.14 E309.60432
G1 X169.80 Y127.12 E309.85472
G1 X196.24 Y127.12 E311.17392
G1 X196.24 Y162.13 E312.92067
G1 X189.08 Y162.13 E313.27779
G1 X189.08 Y177.88 E314.06356
G1 X163.65 Y177.88 E315.33247
G1 X163.65 Y173.84 E315.53397
G1 X160.84 Y173.75 E315.67390
G1 X160.84 Y162.13 E316.25337
G1 X143.95 Y162.13 E317.09612
G1 X143.95 Y174.08 E317.69230
G1 X141.15 Y174.09 E317.83220
G1 X141.15 Y174.24 E317.84003
G1 X126.66 Y174.24 E318.56299
G1 X115.72 Y174.28 E319.10889
G1 X115.72 Y162.13 E319.71476
G1 X108.76 Y162.13 E320.06179
G1 X108.76 Y127.12 E321.80855
G0 F12000 X109.16 Y127.52
G1 F2400 X134.60 Y127.52 E323.07771
G1 X134.60 Y132.54 E323.32810
G1 X170.20 Y132.54 E325.10415
G1 X170.20 Y127.52 E325.35454
G1 X195.84 Y127.52 E326.63383
G1 X195.84 Y161.73 E328.34067
G1 X188.68 Y161.73 E328.69779
G1 X188.68 Y177.48 E329.48356
G1 X164.05 Y177.48 E330.71255
G1 X164.05 Y173.46 E330.91341
G1 X161.25 Y173.36 E331.05334
G1 X161.25 Y161.73 E331.63346
G1 X143.55 Y161.73 E332.51612
G1 X143.55 Y173.68 E333.11235
G1 X140.75 Y173.69 E333.25225
G1 X140.75 Y173.84 E333.26003
G1 X126.66 Y173.84 E333.96308
G1 X116.12 Y173.87 E334.48898
G1 X116.12 Y161.73 E335.09479
G1 X109.16 Y161.73 E335.44183
G1 X109.16 Y127.52 E337.14867
G0 F12000 X109.56 Y127.92
G1 F2400 X134.20 Y127.92 E338.37792
G1 X134.20 Y132.94 E338.62832
G1 X170.60 Y132.94 E340.44427
G1 X170.60 Y127.92 E340.69467
G1 X195.44 Y127.92 E341.93404
G1 X195.44 Y161.33 E343.60097
G1 X188.28 Y161.33 E343.95809
G1 X188.28 Y177.08 E344.74386
G1 X164.45 Y177.08 E345.93294
G1 X164.45 Y173.07 E346.13315
G1 X161.65 Y172.97 E346.27307
G1 X161.65 Y161.33 E346.85390
G1 X153.03 Y161.33 E347.28390
G1 X152.64 Y159.74 E347.36534
G1 X152.39 Y161.33 E347.44555
G1 X143.15 Y161.33 E347.90619
G1 X143.15 Y173.28 E348.50243
G1 X140.35 Y173.29 E348.64232
G1 X140.35 Y173.44 E348.65005
G1 X126.66 Y173.44 E349.33315
G1 X116.52 Y173.47 E349.83909
G1 X116.52 Y161.33 E350.44485
G1 X109.56 Y161.33 E350.79189
G1 X109.56 Y127.92 E352.45882
G0 F12000 X109.96 Y128.32
G1 F2400 X133.80 Y128.32 E353.64815
G1 X133.80 Y133.34 E353.89855
G1 X171.00 Y133.34 E355.75442
G1 X171.00 Y128.32 E356.00482
G1 X195.04 Y128.32 E357.20428
G1 X195.04 Y160.93 E358.83130
G1 X187.88 Y160.93 E359.18841
G1 X187.88 Y176.68 E359.97418
G1 X164.85 Y176.68 E361.12335
G1 X164.85 Y172.68 E361.32291
G1 X162.04 Y172.59 E361.46284
G1 X162.04 Y160.93 E362.04431
G1 X153.34 Y160.93 E362.47855
G1 X152.57 Y157.72 E362.64342
G1 X152.05 Y160.93 E362.80582
G1 X142.75 Y160.93 E363.26945
G1 X142.75 Y172.88 E363.86574
G1 X139.95 Y172.89 E364.00563
G1 X139.95 Y173.04 E364.01331
G1 X126.66 Y173.04 E364.67655
G1 X116.92 Y173.07 E365.16244
G1 X116.92 Y160.93 E365.76810
G1 X109.96 Y160.93 E366.11514
G1 X109.96 Y128.32 E367.74216
G0 F12000 X110.36 Y128.72
G1 F2400 X133.40 Y128.72 E368.89158
G1 X133.40 Y133.74 E369.14198
G1 X171.40 Y133.74 E371.03776
G1 X171.40 Y128.72 E371.28816
G1 X194.64 Y128.72 E372.44770
G1 X194.64 Y160.53 E374.03481
G1 X187.48 Y160.53 E374.39192
G1 X187.48 Y176.28 E375.17770
G1 X165.25 Y176.28 E376.28695
G1 X165.25 Y172.29 E376.48582
G1 X162.44 Y172.20 E376.62574
G1 X162.44 Y160.53 E377.20786
G1 X153.66 Y160.53 E377.64634
G1 X152.49 Y155.69 E377.89460
G1 X151.71 Y160.53 E378.13913
G1 X142.35 Y160.53 E378.60576
G1 X142.35 Y172.48 E379.20210
G1 X139.55 Y172.49 E379.34199
G1 X139.55 Y172.64 E379.34962
G1 X126.65 Y172.64 E379.99295
G1 X117.32 Y172.67 E380.45883
G1 X117.32 Y160.53 E381.06445
G1 X110.36 Y160.53 E381.41149
G1 X110.36 Y128.72 E382.99859
G0 F12000 X110.76 Y129.12
G1 F2400 X133.00 Y129.12 E384.10810
G1 X133.00 Y134.14 E384.35850
G1 X171.80 Y134.14 E386.29419
G1 X171.80 Y129.12 E386.54459
G1 X194.24 Y129.12 E387.66422
G1 X194.24 Y160.13 E389.21142
G1 X187.08 Y160.13 E389.56853
G1 X187.08 Y175.88 E390.35430
G1 X165.65 Y175.88 E391.42365
G1 X165.65 Y171.91 E391.62181
G1 X162.84 Y171.81 E391.76174
G1 X162.84 Y160.13 E392.34456
G1 X153.97 Y160.13 E392.78728
G1 X152.42 Y153.67 E393.11897
G1 X151.37 Y160.13 E393.44570
G1 X141.95 Y160.13 E393.91526
G1 X141.95 Y172.09 E394.51165
G1 X139.15 Y172.09 E394.65154
G1 X139.15 Y172.24 E394.65913
G1 X126.65 Y172.24 E395.28256
G1 X117.72 Y172.27 E395.72843
G1 X117.72 Y160.13 E396.33399
G1 X110.76 Y160.13 E396.68103
G1 X110.76 Y129.12 E398.22822
G0 F12000 X111.16 Y129.52
G1 F2400 X132.60 Y129.52 E399.29782
G1 X132.60 Y134.54 E399.54822
G1 X172.20 Y134.54 E401.52382
G1 X172.20 Y129.52 E401.77422
G1 X193.84 Y129.52 E402.85394
G1 X193.84 Y159.73 E404.36123
G1 X186.68 Y159.73 E404.71834
G1 X186.68 Y175.48 E405.50411
G1 X166.05 Y175.48 E406.53355
G1 X166.05 Y171.52 E406.73106
G1 X163.25 Y171.43 E406.87099
G1 X163.25 Y159.73 E407.45445
G1 X154.29 Y159.73 E407.90142
G1 X152.67 Y153.01 E408.24630
G1 X152.66 Y152.97 E408.24814
G1 X152.65 Y152.96 E408.24877
G1 X152.63 Y152.94 E408.25038
G1 X152.62 Y152.91 E408.25170
G1 X152.60 Y152.90 E408.25283
G1 X152.57 Y152.87 E408.25487
G1 X152.56 Y152.86 E408.25570
G1 X152.52 Y152.84 E408.25781
G1 X152.52 Y152.84 E408.25799
G1 X152.47 Y152.82 E408.26085
G1 X152.46 Y152.82 E408.26121
G1 X152.42 Y152.81 E408.26313
G1 X152.40 Y152.81 E408.26448
G1 X152.37 Y152.81 E408.26567
G1 X152.35 Y152.81 E408.26689
G1 X152.31 Y152.82 E408.26858
G1 X152.29 Y152.83 E408.26980
G1 X152.27 Y152.84 E408.27096
G1 X152.24 Y152.86 E408.27248
G1 X152.22 Y152.88 E408.27405
G1 X152.21 Y152.88 E408.27458
G1 X152.17 Y152.93 E408.27754
G1 X152.16 Y152.94 E408.27818
G1 X152.14 Y152.97 E408.28004
G1 X152.13 Y153.00 E408.28169
G1 X152.12 Y153.01 E408.28239
G1 X152.10 Y153.10 E408.28712
G1 X151.03 Y159.73 E408.62213
G1 X141.55 Y159.73 E409.09469
G1 X141.55 Y171.69 E409.69112
G1 X138.75 Y171.69 E409.83102
G1 X138.75 Y171.84 E409.83855
G1 X126.65 Y171.84 E410.44212
G1 X118.12 Y171.87 E410.86794
G1 X118.12 Y159.73 E411.47340
G1 X111.16 Y159.73 E411.82044
G1 X111.16 Y129.52 E413.32772
G0 F12000 X111.56 Y129.92
G1 F2400 X132.20 Y129.92 E414.35741
G1 X132.20 Y134.94 E414.60781
G1 X172.60 Y134.94 E416.62332
G1 X172.60 Y129.92 E416.87372
G1 X193.44 Y129.92 E417.91353
G1 X193.44 Y159.33 E419.38090
G1 X186.28 Y159.33 E419.73802
G1 X186.28 Y175.08 E420.52379
G1 X166.45 Y175.08 E421.51331
G1 X166.45 Y171.13 E421.71018
G1 X163.65 Y171.04 E421.85010
G1 X163.65 Y159.33 E422.43426
G1 X154.60 Y159.33 E422.88547
G1 X153.05 Y152.90 E423.21547
G1 X153.03 Y152.82 E423.21958
G1 X153.00 Y152.77 E423.22246
G1 X152.97 Y152.72 E423.22548
G1 X152.92 Y152.65 E423.22947
G1 X152.88 Y152.61 E423.23244
G1 X152.84 Y152.57 E423.23555
G1 X152.78 Y152.53 E423.23915
G1 X152.71 Y152.48 E423.24311
G1 X152.68 Y152.47 E423.24483
G1 X152.58 Y152.43 E423.25007
G1 X152.54 Y152.42 E423.25238
G1 X152.47 Y152.41 E423.25581
G1 X152.40 Y152.41 E423.25936
G1 X152.33 Y152.41 E423.26255
G1 X152.26 Y152.42 E423.26619
G1 X152.21 Y152.44 E423.26891
G1 X152.13 Y152.46 E423.27278
G1 X152.07 Y152.49 E423.27610
G1 X152.03 Y152.52 E423.27901
G1 X151.96 Y152.57 E423.28293
G1 X151.92 Y152.60 E423.28554
G1 X151.87 Y152.66 E423.28964
G1 X151.83 Y152.72 E423.29302
G1 X151.79 Y152.78 E423.29658
G1 X151.76 Y152.83 E423.29960
G1 X151.74 Y152.90 E423.30321
G1 X151.71 Y153.02 E423.30948
G1 X150.69 Y159.33 E423.62827
G1 X141.15 Y159.33 E424.10382
G1 X141.15 Y171.29 E424.70031
G1 X138.35 Y171.29 E424.84020
G1 X138.35 Y171.44 E424.84768
G1 X126.65 Y171.44 E425.43135
G1 X118.52 Y171.47 E425.83716
G1 X118.52 Y159.33 E426.44258
G1 X111.56 Y159.33 E426.78961
G1 X111.56 Y129.92 E428.25698
G0 F12000 X111.96 Y130.32
G1 F2400 X131.80 Y130.32 E429.24675
G1 X131.80 Y135.34 E429.49715
G1 X173.00 Y135.34 E431.55258
G1 X173.00 Y130.32 E431.80298
G1 X193.04 Y130.32 E432.80288
G1 X193.04 Y158.93 E434.23034
G1 X185.88 Y158.93 E434.58745
G1 X185.88 Y174.68 E435.37322
G1 X166.85 Y174.68 E436.32283
G1 X166.85 Y170.75 E436.51905
G1 X164.04 Y170.65 E436.65897
G1 X164.04 Y158.93 E437.24378
G1 X154.92 Y158.93 E437.69918
G1 X153.44 Y152.78 E438.01473
G1 X153.40 Y152.66 E438.02096
G1 X153.36 Y152.58 E438.02538
G1 X153.30 Y152.49 E438.03080
G1 X153.25 Y152.42 E438.03537
G1 X153.16 Y152.32 E438.04176
G1 X153.09 Y152.25 E438.04674
G1 X153.00 Y152.19 E438.05188
G1 X152.90 Y152.13 E438.05783
G1 X152.82 Y152.10 E438.06208
G1 X152.71 Y152.05 E438.06839
G1 X152.61 Y152.03 E438.07332
G1 X152.51 Y152.01 E438.07816
G1 X152.39 Y152.01 E438.08436
G1 X152.29 Y152.01 E438.08916
G1 X152.19 Y152.03 E438.09455
G1 X152.09 Y152.05 E438.09970
G1 X151.98 Y152.09 E438.10520
G1 X151.90 Y152.13 E438.11000
G1 X151.79 Y152.19 E438.11603
G1 X151.71 Y152.25 E438.12110
G1 X151.65 Y152.31 E438.12548
G1 X151.55 Y152.42 E438.13282
G1 X151.50 Y152.49 E438.13703
G1 X151.44 Y152.59 E438.14252
G1 X151.39 Y152.69 E438.14830
G1 X151.36 Y152.78 E438.15302
G1 X151.32 Y152.95 E438.16175
G1 X150.34 Y158.93 E438.46411
G1 X140.75 Y158.93 E438.94266
G1 X140.75 Y170.89 E439.53919
G1 X137.95 Y170.89 E439.67909
G1 X137.95 Y171.04 E439.68652
G1 X126.65 Y171.04 E440.25028
G1 X118.92 Y171.06 E440.63608
G1 X118.92 Y158.93 E441.24145
G1 X111.96 Y158.93 E441.58849
G1 X111.96 Y130.32 E443.01594
G0 F12000 X112.36 Y130.72
G1 F2400 X131.40 Y130.72 E443.96580
G1 X131.40 Y135.74 E444.21620
G1 X173.40 Y135.74 E446.31154
G1 X173.40 Y130.72 E446.56194
G1 X192.64 Y130.72 E447.52193
G1 X192.64 Y158.53 E448.90947
G1 X185.48 Y158.53 E449.26659
G1 X185.48 Y174.28 E450.05236
G1 X167.25 Y174.28 E450.96206
G1 X167.25 Y170.36 E451.15758
G1 X164.44 Y170.27 E451.29750
G1 X164.44 Y158.53 E451.88296
G1 X155.23 Y158.53 E452.34260
G1 X153.82 Y152.66 E452.64398
G1 X153.77 Y152.52 E452.65138
G1 X153.71 Y152.40 E452.65778
G1 X153.63 Y152.27 E452.66553
G1 X153.55 Y152.15 E452.67273
G1 X153.45 Y152.04 E452.68004
G1 X153.34 Y151.94 E452.68746
G1 X153.23 Y151.86 E452.69442
G1 X153.10 Y151.78 E452.70202
G1 X152.98 Y151.73 E452.70860
G1 X152.83 Y151.67 E452.71661
G1 X152.68 Y151.64 E452.72396
G1 X152.54 Y151.62 E452.73098
G1 X152.40 Y151.61 E452.73827
G1 X152.25 Y151.62 E452.74591
G1 X152.12 Y151.63 E452.75212
G1 X151.96 Y151.68 E452.76071
G1 X151.84 Y151.72 E452.76691
G1 X151.70 Y151.78 E452.77452
G1 X151.57 Y151.86 E452.78220
G1 X151.46 Y151.94 E452.78911
G1 X151.36 Y152.03 E452.79550
G1 X151.24 Y152.17 E452.80462
G1 X151.16 Y152.27 E452.81100
G1 X151.08 Y152.40 E452.81881
G1 X151.02 Y152.54 E452.82620
G1 X150.97 Y152.67 E452.83314
G1 X150.93 Y152.86 E452.84301
G1 X150.00 Y158.53 E453.12965
G1 X140.35 Y158.53 E453.61114
G1 X140.35 Y170.49 E454.20768
G1 X137.55 Y170.49 E454.34757
G1 X137.55 Y170.64 E454.35500
G1 X126.65 Y170.64 E454.89886
G1 X119.32 Y170.66 E455.26465
G1 X119.32 Y158.53 E455.86997
G1 X112.36 Y158.53 E456.21701
G1 X112.36 Y130.72 E457.60455
G0 F12000 X112.76 Y131.12
G1 F2400 X131.00 Y131.12 E458.51450
G1 X131.00 Y136.14 E458.76490
G1 X173.80 Y136.14 E460.90015
G1 X173.80 Y131.12 E461.15055
G1 X192.24 Y131.12 E462.07062
G1 X192.24 Y158.13 E463.41826
G1 X185.08 Y158.13 E463.77537
G1 X185.08 Y173.88 E464.56114
G1 X167.65 Y173.88 E465.43093
G1 X167.65 Y169.98 E465.62575
G1 X164.84 Y169.88 E465.76567
G1 X164.84 Y158.13 E466.35183
G1 X155.55 Y158.13 E466.81571
G1 X154.20 Y152.55 E467.10221
G1 X154.14 Y152.37 E467.11147
G1 X154.06 Y152.21 E467.12051
G1 X153.97 Y152.05 E467.12993
G1 X153.86 Y151.90 E467.13924
G1 X153.73 Y151.76 E467.14832
G1 X153.60 Y151.64 E467.15754
G1 X153.45 Y151.53 E467.16692
G1 X153.28 Y151.43 E467.17658
G1 X153.14 Y151.36 E467.18426
G1 X152.94 Y151.29 E467.19487
G1 X152.76 Y151.24 E467.20412
G1 X152.59 Y151.22 E467.21270
G1 X152.39 Y151.21 E467.22269
G1 X152.22 Y151.22 E467.23133
G1 X152.04 Y151.24 E467.24051
G1 X151.85 Y151.29 E467.25009
G1 X151.67 Y151.35 E467.25962
G1 X151.51 Y151.43 E467.26828
G1 X151.35 Y151.52 E467.27747
G1 X151.20 Y151.64 E467.28706
G1 X151.07 Y151.75 E467.29554
G1 X150.94 Y151.90 E467.30575
G1 X150.83 Y152.05 E467.31467
G1 X150.73 Y152.21 E467.32438
G1 X150.65 Y152.38 E467.33359
G1 X150.59 Y152.56 E467.34303
G1 X150.54 Y152.77 E467.35387
G1 X149.66 Y158.13 E467.62485
G1 X139.95 Y158.13 E468.10933
G1 X139.95 Y170.09 E468.70592
G1 X137.15 Y170.09 E468.84581
G1 X137.15 Y170.24 E468.85320
G1 X126.65 Y170.24 E469.37719
G1 X119.72 Y170.26 E469.72293
G1 X119.72 Y158.13 E470.32815
G1 X112.76 Y158.13 E470.67519
G1 X112.76 Y131.12 E472.02282
G0 F12000 X113.16 Y131.52
G1 F2400 X130.60 Y131.52 E472.89286
G1 X130.60 Y136.54 E473.14326
G1 X174.20 Y136.54 E475.31842
G1 X174.20 Y131.52 E475.56882
G1 X191.84 Y131.52 E476.44898
G1 X191.84 Y157.73 E477.75670
G1 X184.68 Y157.73 E478.11382
G1 X184.68 Y173.48 E478.89959
G1 X168.05 Y173.48 E479.72946
G1 X168.05 Y169.59 E479.92363
G1 X165.25 Y169.49 E480.06356
G1 X165.25 Y157.73 E480.65037
G1 X155.86 Y157.73 E481.11849
G1 X154.59 Y152.44 E481.39019
G1 X154.51 Y152.22 E481.40189
G1 X154.41 Y152.01 E481.41293
G1 X154.30 Y151.83 E481.42374
G1 X154.17 Y151.65 E481.43505
G1 X154.02 Y151.48 E481.44635
G1 X153.85 Y151.33 E481.45733
G1 X153.66 Y151.19 E481.46914
G1 X153.47 Y151.08 E481.48015
G1 X153.29 Y150.99 E481.49057
G1 X153.06 Y150.91 E481.50245
G1 X152.84 Y150.85 E481.51413
G1 X152.63 Y150.82 E481.52437
G1 X152.40 Y150.81 E481.53596
G1 X152.17 Y150.82 E481.54750
G1 X151.96 Y150.85 E481.55794
G1 X151.73 Y150.91 E481.56998
G1 X151.53 Y150.98 E481.58068
G1 X151.32 Y151.08 E481.59217
G1 X151.14 Y151.19 E481.60271
G1 X150.94 Y151.33 E481.61469
G1 X150.79 Y151.47 E481.62494
G1 X150.62 Y151.65 E481.63730
G1 X150.49 Y151.83 E481.64828
G1 X150.38 Y152.02 E481.65934
G1 X150.28 Y152.23 E481.67092
G1 X150.21 Y152.44 E481.68200
G1 X150.14 Y152.69 E481.69515
G1 X149.32 Y157.73 E481.94975
G1 X139.55 Y157.73 E482.43723
G1 X139.55 Y169.69 E483.03386
G1 X136.75 Y169.70 E483.17376
G1 X136.75 Y169.84 E483.18109
G1 X126.64 Y169.84 E483.68518
G1 X120.12 Y169.86 E484.01091
G1 X120.12 Y157.73 E484.61608
G1 X113.16 Y157.73 E484.96312
G1 X113.16 Y131.52 E486.27084
G0 F12000 X113.56 Y131.92
G1 F2400 X130.20 Y131.92 E487.10096
G1 X130.20 Y136.94 E487.35136
G1 X174.60 Y136.94 E489.56644
G1 X174.60 Y131.92 E489.81684
G1 X191.44 Y131.92 E490.65709
G1 X191.44 Y157.33 E491.92490
G1 X184.28 Y157.33 E492.28201
G1 X184.28 Y173.08 E493.06778
G1 X168.45 Y173.08 E493.85774
G1 X168.45 Y169.20 E494.05122
G1 X165.65 Y169.11 E494.19114
G1 X165.65 Y157.33 E494.77865
G1 X156.18 Y157.33 E495.25101
G1 X154.97 Y152.33 E495.50783
G1 X154.88 Y152.06 E495.52186
G1 X154.77 Y151.83 E495.53460
G1 X154.64 Y151.61 E495.54763
G1 X154.47 Y151.39 E495.56129
G1 X154.29 Y151.19 E495.57457
G1 X154.11 Y151.02 E495.58721
G1 X153.90 Y150.86 E495.60033
G1 X153.67 Y150.72 E495.61365
G1 X153.44 Y150.62 E495.62614
G1 X153.18 Y150.52 E495.64003
G1 X152.92 Y150.46 E495.65335
G1 X152.67 Y150.42 E495.66607
G1 X152.39 Y150.41 E495.67980
G1 X152.14 Y150.42 E495.69234
G1 X151.88 Y150.46 E495.70561
G1 X151.61 Y150.53 E495.71934
G1 X151.37 Y150.61 E495.73211
G1 X151.13 Y150.72 E495.74530
G1 X150.91 Y150.86 E495.75841
G1 X150.70 Y151.01 E495.77133
G1 X150.51 Y151.18 E495.78365
G1 X150.31 Y151.40 E495.79856
G1 X150.16 Y151.61 E495.81129
G1 X150.03 Y151.83 E495.82456
G1 X149.91 Y152.07 E495.83775
G1 X149.82 Y152.32 E495.85078
G1 X149.75 Y152.62 E495.86616
G1 X148.98 Y157.33 E496.10437
G1 X139.15 Y157.33 E496.59484
G1 X139.15 Y169.29 E497.19153
G1 X136.35 Y169.30 E497.33142
G1 X136.35 Y169.44 E497.33866
G1 X126.64 Y169.44 E497.82279
G1 X120.52 Y169.46 E498.12857
G1 X120.52 Y157.33 E498.73369
G1 X113.56 Y157.33 E499.08072
G1 X113.56 Y131.92 E500.34853
G0 F12000 X113.96 Y132.32
G1 F2400 X129.80 Y132.32 E501.13874
G1 X129.80 Y137.34 E501.38914
G1 X175.00 Y137.34 E503.64413
G1 X175.00 Y132.32 E503.89453
G1 X191.04 Y132.32 E504.69487
G1 X191.04 Y156.93 E505.92277
G1 X183.88 Y156.93 E506.27988
G1 X183.88 Y172.68 E507.06565
G1 X168.85 Y172.68 E507.81570
G1 X168.85 Y168.81 E508.00858
G1 X166.04 Y168.72 E508.14850
G1 X166.04 Y156.93 E508.73665
G1 X156.49 Y156.93 E509.21325
G1 X155.36 Y152.22 E509.45520
G1 X155.25 Y151.90 E509.47170
G1 X155.13 Y151.65 E509.48583
G1 X154.97 Y151.38 E509.50158
G1 X154.79 Y151.14 E509.51638
G1 X154.59 Y150.91 E509.53149
G1 X154.36 Y150.71 E509.54679
G1 X154.11 Y150.53 E509.56201
G1 X153.85 Y150.37 E509.57714
G1 X153.60 Y150.25 E509.59100
G1 X153.29 Y150.14 E509.60765
G1 X153.00 Y150.06 E509.62273
G1 X152.71 Y150.02 E509.63715
G1 X152.39 Y150.00 E509.65304
G1 X152.10 Y150.02 E509.66742
G1 X151.80 Y150.06 E509.68261
G1 X151.50 Y150.14 E509.69808
G1 X151.22 Y150.24 E509.71307
G1 X150.94 Y150.37 E509.72820
G1 X150.68 Y150.53 E509.74355
G1 X150.44 Y150.71 E509.75842
G1 X150.23 Y150.90 E509.77251
G1 X150.00 Y151.15 E509.78961
G1 X149.83 Y151.38 E509.80370
G1 X149.67 Y151.65 E509.81945
G1 X149.54 Y151.92 E509.83451
G1 X149.44 Y152.21 E509.84966
G1 X149.36 Y152.54 E509.86683
G1 X148.64 Y156.93 E510.08873
G1 X138.75 Y156.93 E510.58214
G1 X138.75 Y168.89 E511.17888
G1 X135.95 Y168.90 E511.31877
G1 X135.95 Y169.04 E511.32595
G1 X126.64 Y169.04 E511.79023
G1 X120.92 Y169.06 E512.07595
G1 X120.92 Y156.93 E512.68097
G1 X113.96 Y156.93 E513.02801
G1 X113.96 Y132.32 E514.25591
G0 F12000 X114.36 Y132.72
G1 F2400 X129.40 Y132.72 E515.00621
G1 X129.40 Y137.74 E515.25660
G1 X175.40 Y137.74 E517.55150
G1 X175.40 Y132.72 E517.80190
G1 X190.64 Y132.72 E518.56233
G1 X190.64 Y156.53 E519.75031
G1 X183.48 Y156.53 E520.10743
G1 X183.48 Y172.28 E520.89320
G1 X169.25 Y172.28 E521.60334
G1 X169.25 Y168.43 E521.79551
G1 X166.44 Y168.33 E521.93544
G1 X166.44 Y156.53 E522.52424
G1 X156.81 Y156.53 E523.00503
G1 X155.74 Y152.10 E523.23236
G1 X155.62 Y151.75 E523.25099
G1 X155.48 Y151.46 E523.26682
G1 X155.30 Y151.16 E523.28442
G1 X155.09 Y150.88 E523.30165
G1 X154.87 Y150.63 E523.31853
G1 X154.62 Y150.40 E523.33559
G1 X154.33 Y150.19 E523.35317
G1 X154.04 Y150.02 E523.36989
G1 X153.75 Y149.88 E523.38629
G1 X153.41 Y149.76 E523.40404
G1 X153.07 Y149.67 E523.42175
G1 X152.75 Y149.62 E523.43763
G1 X152.39 Y149.60 E523.45566
G1 X152.05 Y149.62 E523.47260
G1 X151.73 Y149.67 E523.48905
G1 X151.38 Y149.76 E523.50694
G1 X151.06 Y149.87 E523.52364
G1 X150.76 Y150.02 E523.54062
G1 X150.46 Y150.19 E523.55781
G1 X150.18 Y150.40 E523.57507
G1 X149.94 Y150.62 E523.59125
G1 X149.70 Y150.89 E523.60947
G1 X149.50 Y151.16 E523.62630
G1 X149.32 Y151.46 E523.64387
G1 X149.17 Y151.77 E523.66081
G1 X149.06 Y152.09 E523.67765
G1 X148.96 Y152.46 E523.69698
G1 X148.30 Y156.53 E523.90265
G1 X138.35 Y156.53 E524.39905
G1 X138.35 Y168.49 E524.99584
G1 X135.55 Y168.50 E525.13573
G1 X135.55 Y168.64 E525.14287
G1 X126.64 Y168.64 E525.58724
G1 X121.32 Y168.66 E525.85296
G1 X121.32 Y156.53 E526.45792
G1 X114.36 Y156.53 E526.80496
G1 X114.36 Y132.72 E527.99295
G0 F12000 X114.76 Y133.12
G1 F2400 X129.00 Y133.12 E528.70333
G1 X129.00 Y138.14 E528.95373
G1 X175.80 Y138.14 E531.28854
G1 X175.80 Y133.12 E531.53894
G1 X190.24 Y133.12 E532.25946
G1 X190.24 Y156.13 E533.40753
G1 X183.08 Y156.13 E533.76464
G1 X183.08 Y171.88 E534.55041
G1 X169.65 Y171.88 E535.22064
G1 X169.65 Y168.04 E535.41217
G1 X166.84 Y167.95 E535.55209
G1 X166.84 Y156.13 E536.14159
G1 X157.12 Y156.13 E536.62663
G1 X156.12 Y151.98 E536.83948
G1 X155.99 Y151.61 E536.85911
G1 X155.83 Y151.26 E536.87848
G1 X155.63 Y150.94 E536.89729
G1 X155.41 Y150.63 E536.91630
G1 X155.15 Y150.35 E536.93534
G1 X154.87 Y150.09 E536.95420
G1 X154.55 Y149.85 E536.97420
G1 X154.24 Y149.67 E536.99224
G1 X153.90 Y149.51 E537.01096
G1 X153.53 Y149.37 E537.03090
G1 X153.15 Y149.28 E537.04998
G1 X152.78 Y149.22 E537.06865
G1 X152.39 Y149.20 E537.08823
G1 X152.03 Y149.22 E537.10651
G1 X151.64 Y149.28 E537.12578
G1 X151.27 Y149.37 E537.14497
G1 X150.91 Y149.50 E537.16437
G1 X150.57 Y149.66 E537.18307
G1 X150.24 Y149.86 E537.20182
G1 X149.93 Y150.09 E537.22151
G1 X149.66 Y150.34 E537.23945
G1 X149.39 Y150.64 E537.25983
G1 X149.16 Y150.94 E537.27848
G1 X148.97 Y151.26 E537.29747
G1 X148.80 Y151.61 E537.31673
G1 X148.67 Y151.97 E537.33592
G1 X148.57 Y152.39 E537.35710
G1 X147.96 Y156.13 E537.54633
G1 X137.95 Y156.13 E538.04573
G1 X137.95 Y168.09 E538.64252
G1 X135.15 Y168.10 E538.78241
G1 X135.15 Y168.24 E538.78955
G1 X126.64 Y168.24 E539.21401
G1 X121.72 Y168.26 E539.45972
G1 X121.72 Y156.13 E540.06464
G1 X114.76 Y156.13 E540.41168
G1 X114.76 Y133.12 E541.55975
G0 F12000 X115.16 Y133.52
G1 F2400 X128.60 Y133.52 E542.23023
G1 X128.60 Y138.54 E542.48062
G1 X176.20 Y138.54 E544.85535
G1 X176.20 Y133.52 E545.10575
G1 X189.84 Y133.52 E545.78635
G1 X189.84 Y155.73 E546.89451
G1 X182.68 Y155.73 E547.25162
G1 X182.68 Y171.48 E548.03740
G1 X170.05 Y171.48 E548.66771
G1 X170.05 Y167.66 E548.85854
G1 X167.25 Y167.56 E548.99846
G1 X167.25 Y155.73 E549.58861
G1 X157.44 Y155.73 E550.07789
G1 X156.51 Y151.87 E550.27596
G1 X156.36 Y151.45 E550.29818
G1 X156.18 Y151.07 E550.31898
G1 X155.97 Y150.72 E550.33963
G1 X155.72 Y150.38 E550.36068
G1 X155.43 Y150.06 E550.38215
G1 X155.12 Y149.78 E550.40320
G1 X154.79 Y149.53 E550.42371
G1 X154.41 Y149.31 E550.44541
G1 X154.06 Y149.14 E550.46478
G1 X153.64 Y148.99 E550.48734
G1 X153.23 Y148.89 E550.50832
G1 X152.83 Y148.83 E550.52860
G1 X152.39 Y148.80 E550.55038
G1 X151.98 Y148.82 E550.57111
G1 X151.57 Y148.89 E550.59184
G1 X151.15 Y148.99 E550.61318
G1 X150.75 Y149.13 E550.63433
G1 X150.38 Y149.31 E550.65497
G1 X150.01 Y149.53 E550.67627
G1 X149.67 Y149.78 E550.69732
G1 X149.39 Y150.04 E550.71656
G1 X149.07 Y150.39 E550.73984
G1 X148.83 Y150.72 E550.76052
G1 X148.61 Y151.08 E550.78136
G1 X148.43 Y151.46 E550.80249
G1 X148.29 Y151.86 E550.82389
G1 X148.18 Y152.29 E550.84558
G1 X147.62 Y155.73 E551.01971
G1 X137.55 Y155.73 E551.52211
G1 X137.55 Y167.69 E552.11894
G1 X134.75 Y167.70 E552.25884
G1 X134.75 Y167.84 E552.26592
G1 X126.64 Y167.84 E552.67048
G1 X122.12 Y167.85 E552.89618
G1 X122.12 Y155.73 E553.50105
G1 X115.16 Y155.73 E553.84809
G1 X115.16 Y133.52 E554.95625
G0 F12000 X115.56 Y133.92
G1 F2400 X128.20 Y133.92 E555.58681
G1 X128.20 Y138.94 E555.83721
G1 X176.60 Y138.94 E558.25185
G1 X176.60 Y133.92 E558.50225
G1 X189.44 Y133.92 E559.14294
G1 X189.44 Y155.33 E560.21119
G1 X182.28 Y155.33 E560.56830
G1 X182.28 Y171.08 E561.35407
G1 X170.45 Y171.08 E561.94447
G1 X170.45 Y167.27 E562.13460
G1 X167.65 Y167.17 E562.27453
G1 X167.65 Y155.33 E562.86538
G1 X157.75 Y155.33 E563.35889
G1 X156.89 Y151.75 E563.54255
G1 X156.73 Y151.30 E563.56641
G1 X156.54 Y150.89 E563.58913
G1 X156.30 Y150.50 E563.61193
G1 X156.02 Y150.12 E563.63551
G1 X155.72 Y149.78 E563.65801
G1 X155.38 Y149.47 E563.68121
G1 X155.01 Y149.20 E563.70414
G1 X154.61 Y148.96 E563.72717
G1 X154.21 Y148.77 E563.74937
G1 X153.76 Y148.61 E563.77312
G1 X153.31 Y148.50 E563.79602
G1 X152.86 Y148.43 E563.81897
G1 X152.39 Y148.40 E563.84230
G1 X151.94 Y148.43 E563.86498
G1 X151.49 Y148.49 E563.88747
G1 X151.03 Y148.61 E563.91123
G1 X150.60 Y148.76 E563.93407
G1 X150.19 Y148.96 E563.95688
G1 X149.80 Y149.19 E563.97948
G1 X149.42 Y149.47 E564.00281
G1 X149.10 Y149.77 E564.02485
G1 X148.77 Y150.12 E564.04886
G1 X148.50 Y150.50 E564.07208
G1 X148.26 Y150.90 E564.09529
G1 X148.06 Y151.31 E564.11801
G1 X147.91 Y151.74 E564.14106
G1 X147.79 Y152.21 E564.16497
G1 X147.28 Y155.33 E564.32283
G1 X137.15 Y155.33 E564.82817
G1 X137.15 Y167.29 E565.42505
G1 X134.35 Y167.30 E565.56494
G1 X134.35 Y167.44 E565.57198
G1 X126.64 Y167.44 E565.95668
G1 X122.52 Y167.45 E566.16233
G1 X122.52 Y155.33 E566.76710
G1 X115.56 Y155.33 E567.11414
G1 X115.56 Y133.92 E568.18239
G0 F12000 X115.96 Y134.32
G1 F2400 X127.80 Y134.32 E568.77304
G1 X127.80 Y139.34 E569.02343
G1 X177.00 Y139.34 E571.47798
G1 X177.00 Y134.32 E571.72838
G1 X189.04 Y134.32 E572.32916
G1 X189.04 Y154.93 E573.35750
G1 X181.88 Y154.93 E573.71461
G1 X181.88 Y170.68 E574.50038
G1 X170.85 Y170.68 E575.05087
G1 X170.85 Y166.88 E575.24035
G1 X168.04 Y166.79 E575.38028
G1 X168.04 Y154.93 E575.97177
G1 X158.07 Y154.93 E576.46953
G1 X157.28 Y151.64 E576.63856
G1 X157.10 Y151.15 E576.66453
G1 X156.90 Y150.71 E576.68870
G1 X156.63 Y150.27 E576.71428
G1 X156.33 Y149.87 E576.73924
G1 X156.00 Y149.50 E576.76422
G1 X155.64 Y149.17 E576.78848
G1 X155.22 Y148.86 E576.81419
G1 X154.80 Y148.61 E576.83881
G1 X154.36 Y148.40 E576.86300
G1 X153.87 Y148.22 E576.88893
G1 X153.39 Y148.10 E576.91378
G1 X152.91 Y148.03 E576.93829
G1 X152.40 Y148.00 E576.96377
G1 X151.90 Y148.03 E576.98845
G1 X151.41 Y148.10 E577.01336
G1 X150.93 Y148.22 E577.03815
G1 X150.44 Y148.39 E577.06364
G1 X150.00 Y148.60 E577.08814
G1 X149.57 Y148.86 E577.11301
G1 X149.17 Y149.16 E577.13829
G1 X148.81 Y149.48 E577.16210
G1 X148.46 Y149.87 E577.18830
G1 X148.17 Y150.27 E577.21288
G1 X147.90 Y150.71 E577.23834
G1 X147.69 Y151.15 E577.26295
G1 X147.52 Y151.63 E577.28838
G1 X147.40 Y152.13 E577.31425
G1 X146.94 Y154.93 E577.45557
G1 X136.75 Y154.93 E577.96390
G1 X136.75 Y166.90 E578.56083
G1 X133.95 Y166.90 E578.70073
G1 X133.95 Y167.04 E578.70771
G1 X126.64 Y167.04 E579.07251
G1 X122.92 Y167.05 E579.25815
G1 X122.92 Y154.93 E579.86287
G1 X115.96 Y154.93 E580.20991
G1 X115.96 Y134.32 E581.23824
G0 F12000 X116.36 Y134.72
G1 F2400 X127.40 Y134.72 E581.78898
G1 X127.40 Y139.74 E582.03938
G1 X177.40 Y139.74 E584.53384
G1 X177.40 Y134.72 E584.78424
G1 X188.64 Y134.72 E585.34510
G1 X188.64 Y154.53 E586.33353
G1 X181.48 Y154.53 E586.69064
G1 X181.48 Y170.28 E587.47641
G1 X171.25 Y170.28 E587.98699
G1 X171.25 Y166.50 E588.17582
G1 X168.44 Y166.40 E588.31575
G1 X168.44 Y154.53 E588.90790
G1 X158.38 Y154.53 E589.40989
G1 X157.66 Y151.53 E589.56404
G1 X157.47 Y150.99 E589.59255
G1 X157.25 Y150.51 E589.61875
G1 X156.97 Y150.06 E589.64527
G1 X156.65 Y149.62 E589.67273
G1 X156.28 Y149.21 E589.70017
G1 X155.88 Y148.85 E589.72659
G1 X155.46 Y148.54 E589.75299
G1 X154.98 Y148.25 E589.78087
G1 X154.53 Y148.03 E589.80577
G1 X153.99 Y147.84 E589.83458
G1 X153.47 Y147.71 E589.86137
G1 X152.95 Y147.63 E589.88744
G1 X152.39 Y147.60 E589.91512
G1 X151.86 Y147.63 E589.94165
G1 X151.33 Y147.71 E589.96838
G1 X150.80 Y147.84 E589.99558
G1 X150.29 Y148.02 E590.02272
G1 X149.81 Y148.25 E590.04915
G1 X149.34 Y148.53 E590.07656
G1 X148.92 Y148.85 E590.10284
G1 X148.53 Y149.20 E590.12908
G1 X148.15 Y149.62 E590.15702
G1 X147.82 Y150.06 E590.18448
G1 X147.55 Y150.51 E590.21088
G1 X147.32 Y151.00 E590.23780
G1 X147.14 Y151.51 E590.26497
G1 X147.00 Y152.06 E590.29295
G1 X146.60 Y154.53 E590.41804
G1 X136.35 Y154.53 E590.92937
G1 X136.35 Y166.50 E591.52636
G1 X133.55 Y166.50 E591.66625
G1 X133.55 Y166.64 E591.67318
G1 X126.64 Y166.64 E592.01807
G1 X123.32 Y166.65 E592.18371
G1 X123.32 Y154.53 E592.78838
G1 X116.36 Y154.53 E593.13542
G1 X116.36 Y134.72 E594.12384
G0 F12000 X116.76 Y135.12
G1 F2400 X127.00 Y135.12 E594.63467
G1 X127.00 Y140.14 E594.88506
G1 X177.80 Y140.14 E597.41944
G1 X177.80 Y135.12 E597.66984
G1 X188.24 Y135.12 E598.19079
G1 X188.24 Y154.13 E599.13930
G1 X181.08 Y154.13 E599.49642
G1 X181.08 Y169.88 E600.28219
G1 X171.65 Y169.88 E600.75285
G1 X171.65 Y166.10 E600.94134
G1 X171.60 Y166.10 E600.94373
G1 X171.52 Y166.10 E600.94757
G1 X168.84 Y166.01 E601.08126
G1 X168.84 Y154.13 E601.67410
G1 X158.70 Y154.13 E602.18034
G1 X158.04 Y151.42 E602.31960
G1 X157.84 Y150.84 E602.34996
G1 X157.60 Y150.32 E602.37882
G1 X157.30 Y149.83 E602.40744
G1 X156.95 Y149.36 E602.43655
G1 X156.57 Y148.93 E602.46512
G1 X156.14 Y148.54 E602.49437
G1 X155.68 Y148.20 E602.52286
G1 X155.18 Y147.90 E602.55209
G1 X154.67 Y147.66 E602.57996
G1 X154.11 Y147.46 E602.60962
G1 X153.55 Y147.32 E602.63853
G1 X152.98 Y147.23 E602.66712
G1 X152.40 Y147.20 E602.69640
G1 X151.82 Y147.23 E602.72497
G1 X151.25 Y147.32 E602.75397
G1 X150.68 Y147.46 E602.78314
G1 X150.15 Y147.65 E602.81144
G1 X149.62 Y147.90 E602.84067
G1 X149.12 Y148.20 E602.86945
G1 X148.66 Y148.54 E602.89813
G1 X148.24 Y148.92 E602.92646
G1 X147.84 Y149.36 E602.95595
G1 X147.50 Y149.83 E602.98505
G1 X147.20 Y150.33 E603.01425
G1 X146.95 Y150.85 E603.04278
G1 X146.76 Y151.39 E603.07161
G1 X146.61 Y151.98 E603.10178
G1 X146.26 Y154.13 E603.21060
G1 X135.95 Y154.13 E603.72492
G1 X135.95 Y166.10 E604.32195
G1 X133.15 Y166.10 E604.46185
G1 X133.15 Y166.24 E604.46878
G1 X126.63 Y166.24 E604.79382
G1 X123.72 Y166.25 E604.93940
G1 X123.72 Y154.13 E605.54397
G1 X116.76 Y154.13 E605.89100
G1 X116.76 Y135.12 E606.83952
G0 F12000 X117.16 Y135.52
G1 F2400 X126.60 Y135.52 E607.31043
G1 X126.60 Y140.54 E607.56083
G1 X178.20 Y140.54 E610.13511
G1 X178.20 Y135.52 E610.38551
G1 X187.84 Y135.52 E610.86655
G1 X187.84 Y153.73 E611.77515
G1 X180.68 Y153.73 E612.13227
G1 X180.68 Y169.48 E612.91804
G1 X172.05 Y169.48 E613.34879
G1 X172.05 Y165.70 E613.53727
G1 X171.59 Y165.70 E613.55992
G1 X171.52 Y165.71 E613.56342
G1 X169.25 Y165.63 E613.67719
G1 X169.25 Y153.73 E614.27068
G1 X159.01 Y153.73 E614.78111
G1 X158.43 Y151.30 E614.90601
G1 X158.22 Y150.69 E614.93791
G1 X157.95 Y150.14 E614.96853
G1 X157.63 Y149.60 E614.99986
G1 X157.26 Y149.11 E615.03053
G1 X156.85 Y148.65 E615.06108
G1 X156.39 Y148.23 E615.09216
G1 X155.90 Y147.87 E615.12302
G1 X155.36 Y147.54 E615.15432
G1 X154.83 Y147.29 E615.18333
G1 X154.22 Y147.07 E615.21557
G1 X153.63 Y146.92 E615.24638
G1 X153.03 Y146.83 E615.27669
G1 X152.40 Y146.80 E615.30812
G1 X151.79 Y146.83 E615.33859
G1 X151.17 Y146.92 E615.36956
G1 X150.58 Y147.07 E615.40022
G1 X149.98 Y147.29 E615.43184
G1 X149.44 Y147.54 E615.46188
G1 X148.91 Y147.86 E615.49268
G1 X148.41 Y148.23 E615.52374
G1 X147.96 Y148.63 E615.55351
G1 X147.53 Y149.11 E615.58576
G1 X147.17 Y149.60 E615.61607
G1 X146.84 Y150.14 E615.64746
G1 X146.58 Y150.69 E615.67786
G1 X146.37 Y151.28 E615.70907
G1 X146.22 Y151.89 E615.74053
G1 X145.92 Y153.73 E615.83349
G1 X135.55 Y153.73 E616.35076
G1 X135.55 Y165.70 E616.94779
G1 X132.88 Y165.70 E617.08125
G1 X132.75 Y165.70 E617.08768
G1 X132.75 Y165.84 E617.09457
G1 X126.63 Y165.84 E617.39970
G1 X124.12 Y165.85 E617.52527
G1 X124.12 Y153.73 E618.12979
G1 X117.16 Y153.73 E618.47683
G1 X117.16 Y135.52 E619.38543
G0 F12000 X117.56 Y135.92
G1 F2400 X126.20 Y135.92 E619.81643
G1 X126.20 Y140.94 E620.06683
G1 X178.60 Y140.94 E622.68103
G1 X178.60 Y135.92 E622.93142
G1 X187.44 Y135.92 E623.37255
G1 X187.44 Y153.33 E624.24124
G1 X180.28 Y153.33 E624.59836
G1 X180.28 Y169.08 E625.38413
G1 X172.45 Y169.08 E625.77497
G1 X172.45 Y165.30 E625.96345
G1 X171.59 Y165.30 E626.00641
G1 X171.53 Y165.31 E626.00945
G1 X169.65 Y165.24 E626.10335
G1 X169.65 Y153.33 E626.69754
G1 X159.33 Y153.33 E627.21221
G1 X158.81 Y151.19 E627.32223
G1 X158.59 Y150.54 E627.35645
G1 X158.31 Y149.95 E627.38908
G1 X157.96 Y149.38 E627.42241
G1 X157.58 Y148.86 E627.45436
G1 X157.13 Y148.36 E627.48778
G1 X156.65 Y147.92 E627.52059
G1 X156.12 Y147.53 E627.55326
G1 X155.55 Y147.19 E627.58620
G1 X154.99 Y146.92 E627.61751
G1 X154.34 Y146.69 E627.65193
G1 X153.70 Y146.53 E627.68470
G1 X153.07 Y146.44 E627.71653
G1 X152.40 Y146.40 E627.75014
G1 X151.74 Y146.43 E627.78301
G1 X151.10 Y146.53 E627.81529
G1 X150.46 Y146.69 E627.84837
G1 X149.84 Y146.91 E627.88121
G1 X149.25 Y147.19 E627.91362
G1 X148.68 Y147.53 E627.94699
G1 X148.15 Y147.92 E627.97940
G1 X147.68 Y148.35 E628.01116
G1 X147.22 Y148.86 E628.04562
G1 X146.84 Y149.38 E628.07757
G1 X146.49 Y149.95 E628.11120
G1 X146.21 Y150.54 E628.14349
G1 X145.99 Y151.16 E628.17635
G1 X145.83 Y151.81 E628.21002
G1 X145.58 Y153.33 E628.28670
G1 X135.15 Y153.33 E628.80696
G1 X135.15 Y165.30 E629.40404
G1 X132.88 Y165.30 E629.51759
G1 X132.35 Y165.30 E629.54394
G1 X132.35 Y165.44 E629.55077
G1 X126.63 Y165.44 E629.83594
G1 X124.52 Y165.45 E629.94156
G1 X124.52 Y153.33 E630.54603
G1 X117.56 Y153.33 E630.89307
G1 X117.56 Y135.92 E631.76176
G0 F12000 X117.96 Y136.32
G1 F2400 X125.80 Y136.32 E632.15284
G1 X125.80 Y141.34 E632.40324
G1 X179.00 Y141.34 E635.05735
G1 X179.00 Y136.32 E635.30775
G1 X187.04 Y136.32 E635.70897
G1 X187.04 Y152.93 E636.53774
G1 X179.88 Y152.93 E636.89486
G1 X179.88 Y168.68 E637.68063
G1 X172.85 Y168.68 E638.03156
G1 X172.85 Y164.90 E638.22004
G1 X171.61 Y164.90 E638.28191
G1 X171.53 Y164.91 E638.28590
G1 X170.04 Y164.85 E638.35993
G1 X170.04 Y152.93 E638.95477
G1 X159.64 Y152.93 E639.47368
G1 X159.20 Y151.07 E639.56907
G1 X158.95 Y150.39 E639.60538
G1 X158.66 Y149.76 E639.63995
G1 X158.30 Y149.16 E639.67479
G1 X157.88 Y148.60 E639.70967
G1 X157.42 Y148.09 E639.74407
G1 X156.90 Y147.61 E639.77946
G1 X156.34 Y147.20 E639.81370
G1 X155.74 Y146.84 E639.84867
G1 X155.13 Y146.55 E639.88248
G1 X154.46 Y146.31 E639.91801
G1 X153.78 Y146.14 E639.95288
G1 X153.10 Y146.04 E639.98733
G1 X152.40 Y146.00 E640.02250
G1 X151.71 Y146.03 E640.05686
G1 X151.01 Y146.14 E640.09187
G1 X150.33 Y146.31 E640.12690
G1 X149.68 Y146.54 E640.16140
G1 X149.06 Y146.84 E640.19572
G1 X148.45 Y147.20 E640.23135
G1 X147.90 Y147.61 E640.26569
G1 X147.40 Y148.06 E640.29886
G1 X146.91 Y148.60 E640.33548
G1 X146.50 Y149.16 E640.37001
G1 X146.14 Y149.76 E640.40467
G1 X145.84 Y150.40 E640.43993
G1 X145.61 Y151.05 E640.47452
G1 X145.44 Y151.72 E640.50928
G1 X145.24 Y152.93 E640.57029
G1 X134.75 Y152.93 E641.09354
G1 X134.75 Y164.90 E641.69067
G1 X132.88 Y164.90 E641.78427
G1 X131.95 Y164.90 E641.83056
G1 X131.95 Y165.04 E641.83740
G1 X126.63 Y165.04 E642.10267
G1 X124.92 Y165.05 E642.18828
G1 X124.92 Y152.93 E642.79270
G1 X117.96 Y152.93 E643.13973
G1 X117.96 Y136.32 E643.96851
G0 F12000 X118.36 Y136.72
G1 F2400 X125.40 Y136.72 E644.31969
G1 X125.40 Y141.74 E644.57009
G1 X179.40 Y141.74 E647.26411
G1 X179.40 Y136.72 E647.51451
G1 X186.64 Y136.72 E647.87581
G1 X186.64 Y152.53 E648.66467
G1 X179.48 Y152.53 E649.02179
G1 X179.48 Y168.28 E649.80756
G1 X173.25 Y168.28 E650.11858
G1 X173.25 Y164.50 E650.30706
G1 X171.60 Y164.50 E650.38943
G1 X171.53 Y164.50 E650.39282
G1 X170.44 Y164.47 E650.44693
G1 X170.44 Y152.53 E651.04242
G1 X159.96 Y152.53 E651.56557
G1 X159.58 Y150.96 E651.64608
G1 X159.32 Y150.23 E651.68493
G1 X159.01 Y149.57 E651.72104
G1 X158.64 Y148.94 E651.75774
G1 X158.20 Y148.35 E651.79465
G1 X157.69 Y147.79 E651.83188
G1 X157.16 Y147.31 E651.86801
G1 X156.56 Y146.87 E651.90503
G1 X155.93 Y146.49 E651.94180
G1 X155.29 Y146.18 E651.97699
G1 X154.57 Y145.92 E652.01527
G1 X153.86 Y145.75 E652.05189
G1 X153.15 Y145.64 E652.08796
G1 X152.40 Y145.60 E652.12532
G1 X151.66 Y145.64 E652.16209
G1 X150.94 Y145.75 E652.19856
G1 X150.23 Y145.92 E652.23508
G1 X149.53 Y146.17 E652.27221
G1 X148.86 Y146.49 E652.30892
G1 X148.24 Y146.87 E652.34542
G1 X147.64 Y147.31 E652.38244
G1 X147.12 Y147.78 E652.41772
G1 X146.61 Y148.34 E652.45540
G1 X146.16 Y148.94 E652.49271
G1 X145.79 Y149.57 E652.52919
G1 X145.47 Y150.23 E652.56570
G1 X145.22 Y150.94 E652.60311
G1 X145.04 Y151.65 E652.63976
G1 X144.90 Y152.53 E652.68429
G1 X134.35 Y152.53 E653.21053
G1 X134.35 Y164.50 E653.80772
G1 X132.88 Y164.50 E653.88136
G1 X131.55 Y164.50 E653.94761
G1 X131.55 Y164.64 E653.95450
G1 X126.63 Y164.64 E654.19991
G1 X125.32 Y164.64 E654.26546
G1 X125.32 Y152.53 E654.86978
G1 X118.36 Y152.53 E655.21682
G1 X118.36 Y136.72 E656.00568
G0 F12000 X118.76 Y137.12
G1 F2400 X125.00 Y137.12 E656.31695
G1 X125.00 Y142.14 E656.56735
G1 X179.80 Y142.14 E659.30128
G1 X179.80 Y137.12 E659.55168
G1 X186.24 Y137.12 E659.87307
G1 X186.24 Y152.13 E660.62202
G1 X179.08 Y152.13 E660.97914
G1 X179.08 Y167.88 E661.76491
G1 X173.65 Y167.88 E662.03601
G1 X173.65 Y164.10 E662.22450
G1 X171.59 Y164.10 E662.32732
G1 X171.53 Y164.10 E662.33012
G1 X170.84 Y164.08 E662.36436
G1 X170.84 Y152.13 E662.96055
G1 X160.27 Y152.13 E663.48794
G1 X159.97 Y150.85 E663.55356
G1 X159.69 Y150.08 E663.59425
G1 X159.36 Y149.38 E663.63302
G1 X158.97 Y148.71 E663.67180
G1 X158.51 Y148.10 E663.71010
G1 X157.98 Y147.51 E663.74945
G1 X157.41 Y147.00 E663.78770
G1 X156.78 Y146.53 E663.82665
G1 X156.12 Y146.13 E663.86516
G1 X155.45 Y145.81 E663.90238
G1 X154.69 Y145.54 E663.94269
G1 X153.93 Y145.35 E663.98147
G1 X153.19 Y145.24 E664.01910
G1 X152.40 Y145.20 E664.05856
G1 X151.62 Y145.24 E664.09728
G1 X150.86 Y145.35 E664.13556
G1 X150.11 Y145.54 E664.17455
G1 X149.37 Y145.80 E664.21334
G1 X148.68 Y146.13 E664.25192
G1 X148.01 Y146.53 E664.29039
G1 X147.39 Y147.00 E664.32933
G1 X146.84 Y147.49 E664.36631
G1 X146.29 Y148.10 E664.40693
G1 X145.83 Y148.71 E664.44523
G1 X145.43 Y149.39 E664.48446
G1 X145.10 Y150.08 E664.52255
G1 X144.84 Y150.81 E664.56159
G1 X144.65 Y151.57 E664.60056
G1 X144.56 Y152.13 E664.62877
G1 X133.95 Y152.13 E665.15796
G1 X133.95 Y164.10 E665.75519
G1 X132.88 Y164.10 E665.80892
G1 X131.15 Y164.10 E665.89508
G1 X131.15 Y164.24 E665.90197
G1 X126.63 Y164.24 E666.12747
G1 X125.72 Y164.24 E666.17302
G1 X125.72 Y152.13 E666.77729
G1 X118.76 Y152.13 E667.12433
G1 X118.76 Y137.12 E667.87328
G0 F12000 X119.16 Y137.52
G1 F2400 X124.60 Y137.52 E668.14463
G1 X124.60 Y142.54 E668.39503
G1 X180.20 Y142.54 E671.16888
G1 X180.20 Y137.52 E671.41928
G1 X185.84 Y137.52 E671.70076
G1 X185.84 Y151.73 E672.40980
G1 X178.68 Y151.73 E672.76691
G1 X178.68 Y167.48 E673.55268
G1 X174.05 Y167.48 E673.78387
G1 X174.05 Y163.70 E673.97231
G1 X171.58 Y163.70 E674.09564
G1 X171.53 Y163.70 E674.09783
G1 X171.25 Y163.69 E674.11216
G1 X171.25 Y151.73 E674.70900
G1 X160.59 Y151.73 E675.24063
G1 X160.35 Y150.74 E675.29136
G1 X160.06 Y149.92 E675.33480
G1 X159.72 Y149.20 E675.37469
G1 X159.30 Y148.49 E675.41579
G1 X158.81 Y147.83 E675.45663
G1 X158.27 Y147.23 E675.49700
G1 X157.67 Y146.69 E675.53741
G1 X157.00 Y146.20 E675.57860
G1 X156.32 Y145.78 E675.61852
G1 X155.59 Y145.44 E675.65862
G1 X154.81 Y145.16 E675.70019
G1 X154.02 Y144.96 E675.74087
G1 X153.22 Y144.84 E675.78138
G1 X153.20 Y144.84 E675.78198
G1 X152.40 Y144.80 E675.82214
G1 X151.58 Y144.84 E675.86285
G1 X150.78 Y144.96 E675.90341
G1 X149.99 Y145.16 E675.94430
G1 X149.23 Y145.43 E675.98430
G1 X148.48 Y145.78 E676.02581
G1 X147.79 Y146.20 E676.06569
G1 X147.13 Y146.69 E676.10688
G1 X146.56 Y147.21 E676.14548
G1 X145.98 Y147.84 E676.18800
G1 X145.50 Y148.49 E676.22848
G1 X145.07 Y149.20 E676.26981
G1 X144.73 Y149.93 E676.31020
G1 X144.46 Y150.69 E676.35052
G1 X144.26 Y151.50 E676.39186
G1 X144.22 Y151.73 E676.40358
G1 X133.55 Y151.73 E676.93576
G1 X133.55 Y163.70 E677.53304
G1 X131.01 Y163.70 E677.65991
G1 X130.97 Y163.70 E677.66166
G1 X130.75 Y163.70 E677.67293
G1 X130.75 Y163.84 E677.67982
G1 X126.12 Y163.84 E677.91096
G1 X126.12 Y151.73 E678.51513
G1 X119.16 Y151.73 E678.86217
G1 X119.16 Y137.52 E679.57121
G0 F12000 X119.86 Y138.13
G0 X120.36 Y138.72
;TYPE:WALL-INNER
G1 F2400 X123.40 Y138.72 E679.72282
G1 X123.40 Y143.74 E679.97322
G1 X150.83 Y143.74 E681.34196
G1 X150.54 Y143.78 E681.35654
G1 X149.64 Y144.01 E681.40304
G1 X148.76 Y144.32 E681.44956
G1 X147.92 Y144.72 E681.49613
G1 X147.12 Y145.20 E681.54266
G1 X146.37 Y145.76 E681.58917
G1 X145.70 Y146.37 E681.63430
G1 X145.06 Y147.07 E681.68216
G1 X144.50 Y147.83 E681.72881
G1 X144.02 Y148.63 E681.77537
G1 X143.62 Y149.47 E681.82194
G1 X143.31 Y150.35 E681.86851
G1 X143.26 Y150.53 E681.87782
G1 X132.35 Y150.53 E682.42207
G1 X132.35 Y162.50 E683.01940
G1 X130.99 Y162.50 E683.08745
G1 X130.94 Y162.50 E683.08970
G1 X129.55 Y162.50 E683.15930
G1 X129.55 Y162.64 E683.16628
G1 X127.32 Y162.64 E683.27769
G1 X127.32 Y150.53 E683.88181
G1 X120.36 Y150.53 E684.22884
G1 X120.36 Y138.72 E684.81815
G0 F12000 X123.86 Y143.28
G0 X153.96 Y143.74
G1 F2400 X181.40 Y143.74 E686.18683
G1 X181.40 Y138.72 E686.43723
G1 X184.64 Y138.72 E686.59898
G1 X184.64 Y150.53 E687.18828
G1 X177.48 Y150.53 E687.54539
G1 X177.48 Y166.28 E688.33116
G1 X175.25 Y166.28 E688.44262
G1 X175.25 Y162.50 E688.63145
G1 X174.11 Y162.50 E688.68833
G1 X173.57 Y162.50 E688.71527
G1 X172.44 Y162.50 E688.77130
G1 X172.44 Y150.53 E689.36858
G1 X161.53 Y150.53 E689.91288
G1 X161.50 Y150.39 E689.92007
G1 X161.18 Y149.47 E689.96864
G1 X160.78 Y148.63 E690.01526
G1 X160.30 Y147.83 E690.06187
G1 X159.74 Y147.08 E690.10844
G1 X159.12 Y146.38 E690.15493
G1 X158.43 Y145.76 E690.20151
G1 X157.68 Y145.20 E690.24802
G1 X156.88 Y144.72 E690.29457
G1 X156.06 Y144.33 E690.33980
G1 X155.16 Y144.01 E690.38759
G1 X154.25 Y143.78 E690.43414
G1 X153.96 Y143.74 E690.44871
G0 F12000 X154.17 Y144.17
G1 F2400 X153.28 Y144.04 E690.49406
G1 X153.22 Y144.04 E690.49690
G1 X152.40 Y144.00 E690.53782
G1 X151.51 Y144.04 E690.58237
G1 X150.62 Y144.17 E690.62697
G1 X149.76 Y144.39 E690.67146
G1 X148.92 Y144.69 E690.71607
G1 X148.11 Y145.07 E690.76066
G1 X147.34 Y145.53 E690.80522
G1 X146.63 Y146.07 E690.84976
G1 X145.99 Y146.65 E690.89296
G1 X145.37 Y147.33 E690.93887
G1 X144.83 Y148.05 E690.98356
G1 X144.37 Y148.82 E691.02815
G1 X143.99 Y149.62 E691.07274
G1 X143.69 Y150.47 E691.11735
G1 X143.57 Y150.93 E691.14126
G1 X132.75 Y150.93 E691.68112
G1 X132.75 Y162.90 E692.27846
G1 X131.00 Y162.90 E692.36617
G1 X130.96 Y162.90 E692.36816
G1 X129.95 Y162.90 E692.41835
G1 X129.95 Y163.04 E692.42529
G1 X126.92 Y163.04 E692.57660
G1 X126.92 Y150.93 E693.18073
G1 X119.96 Y150.93 E693.52776
G1 X119.96 Y138.32 E694.15698
G1 X123.80 Y138.32 E694.34851
G1 X123.80 Y143.34 E694.59890
G1 X181.00 Y143.34 E697.45257
G1 X181.00 Y138.32 E697.70297
G1 X185.04 Y138.32 E697.90463
G1 X185.04 Y150.93 E698.53384
G1 X177.88 Y150.93 E698.89096
G1 X177.88 Y166.68 E699.67673
G1 X174.85 Y166.68 E699.82810
G1 X174.85 Y162.90 E700.01678
G1 X174.11 Y162.90 E700.05360
G1 X173.57 Y162.90 E700.08064
G1 X172.04 Y162.90 E700.15662
G1 X172.04 Y150.93 E700.75391
G1 X161.22 Y150.93 E701.29397
G1 X161.12 Y150.50 E701.31588
G1 X160.81 Y149.63 E701.36234
G1 X160.43 Y148.82 E701.40702
G1 X159.97 Y148.05 E701.45161
G1 X159.43 Y147.33 E701.49624
G1 X158.83 Y146.67 E701.54081
G1 X158.17 Y146.07 E701.58542
G1 X157.46 Y145.53 E701.62996
G1 X156.69 Y145.07 E701.67454
G1 X155.91 Y144.70 E701.71785
G1 X155.04 Y144.39 E701.76366
G1 X154.17 Y144.17 E701.80825
G0 F12000 X154.10 Y144.57
;TYPE:WALL-OUTER
G1 F2400 X153.25 Y144.44 E701.85113
G1 X153.22 Y144.44 E701.85253
G1 X152.40 Y144.40 E701.89344
G1 X151.55 Y144.44 E701.93605
G1 X150.70 Y144.57 E701.97862
G1 X149.87 Y144.77 E702.02120
G1 X149.07 Y145.06 E702.06386
G1 X148.30 Y145.43 E702.10646
G1 X147.57 Y145.87 E702.14905
G1 X146.88 Y146.38 E702.19164
G1 X146.27 Y146.93 E702.23289
G1 X145.67 Y147.58 E702.27689
G1 X145.16 Y148.27 E702.31955
G1 X144.73 Y149.00 E702.36222
G1 X144.36 Y149.78 E702.40482
G1 X144.07 Y150.58 E702.44748
G1 X143.89 Y151.33 E702.48598
G1 X133.15 Y151.33 E703.02150
G1 X133.15 Y163.30 E703.61879
G1 X131.00 Y163.30 E703.72615
G1 X130.97 Y163.30 E703.72790
G1 X130.35 Y163.30 E703.75868
G1 X130.35 Y163.44 E703.76556
G1 X126.52 Y163.44 E703.95679
G1 X126.52 Y151.33 E704.56096
G1 X119.56 Y151.33 E704.90800
G1 X119.56 Y137.92 E705.57713
G1 X124.20 Y137.92 E705.80857
G1 X124.20 Y142.94 E706.05897
G1 X180.60 Y142.94 E708.87273
G1 X180.60 Y137.92 E709.12312
G1 X185.44 Y137.92 E709.36469
G1 X185.44 Y151.33 E710.03382
G1 X178.28 Y151.33 E710.39093
G1 X178.28 Y167.08 E711.17670
G1 X174.45 Y167.08 E711.36798
G1 X174.45 Y163.30 E711.55652
G1 X174.11 Y163.30 E711.57328
G1 X171.65 Y163.30 E711.69636
G1 X171.65 Y151.33 E712.29365
G1 X160.90 Y151.33 E712.82952
G1 X160.73 Y150.62 E712.86610
G1 X160.44 Y149.78 E712.91055
G1 X160.07 Y149.00 E712.95317
G1 X159.63 Y148.27 E712.99584
G1 X159.12 Y147.58 E713.03850
G1 X158.55 Y146.95 E713.08110
G1 X157.92 Y146.38 E713.12376
G1 X157.23 Y145.87 E713.16635
G1 X156.50 Y145.43 E713.20896
G1 X155.75 Y145.07 E713.25033
G1 X154.92 Y144.77 E713.29419
G1 X154.10 Y144.57 E713.33677
G0 F12000 X154.17 Y144.28
G0 X155.50 Y143.90
;TYPE:FILL
G1 F2400 X155.83 Y143.95 E713.34551
G1 X156.59 Y144.43 E713.39050
G0 F12000 X156.61 Y143.88
G1 F2400 X157.98 Y145.25 E713.48745
G0 F12000 X157.74 Y143.88
G1 F2400 X164.25 Y150.39 E713.94698
G0 F12000 X164.81 Y150.39
G1 F2400 X158.30 Y143.88 E714.40647
G0 F12000 X158.87 Y143.88
G1 F2400 X165.38 Y150.39 E714.86596
G0 F12000 X165.95 Y150.39
G1 F2400 X159.43 Y143.88 E715.32549
G0 F12000 X160.00 Y143.88
G1 F2400 X166.51 Y150.39 E715.78501
G0 F12000 X167.08 Y150.39
G1 F2400 X160.57 Y143.88 E716.24451
G0 F12000 X161.13 Y143.88
G1 F2400 X167.64 Y150.39 E716.70403
G0 F12000 X168.21 Y150.39
G1 F2400 X161.70 Y143.88 E717.16356
G0 F12000 X162.26 Y143.88
G1 F2400 X168.78 Y150.39 E717.62305
G0 F12000 X169.34 Y150.39
G1 F2400 X162.83 Y143.88 E718.08254
G0 F12000 X163.39 Y143.88
G1 F2400 X169.91 Y150.39 E718.54207
G0 F12000 X170.47 Y150.39
G1 F2400 X163.96 Y143.88 E719.00156
G0 F12000 X164.53 Y143.88
G1 F2400 X171.04 Y150.39 E719.46106
G0 F12000 X171.60 Y150.39
G1 F2400 X165.09 Y143.88 E719.92058
G0 F12000 X165.66 Y143.88
G1 F2400 X172.17 Y150.39 E720.38008
G0 F12000 X172.58 Y150.81
G1 F2400 X177.34 Y155.56 E720.71571
G0 F12000 X177.34 Y155.00
G1 F2400 X166.22 Y143.88 E721.50018
G0 F12000 X166.79 Y143.88
G1 F2400 X177.34 Y154.43 E722.24475
G0 F12000 X177.34 Y153.87
G1 F2400 X167.35 Y143.88 E722.94939
G0 F12000 X167.92 Y143.88
G1 F2400 X177.34 Y153.30 E723.61412
G0 F12000 X177.34 Y152.73
G1 F2400 X168.49 Y143.88 E724.23896
G0 F12000 X169.05 Y143.88
G1 F2400 X177.34 Y152.17 E724.82387
G0 F12000 X177.34 Y151.60
G1 F2400 X169.62 Y143.88 E725.36884
G0 F12000 X170.18 Y143.88
G1 F2400 X177.34 Y151.04 E725.87394
G0 F12000 X177.34 Y150.47
G1 F2400 X170.75 Y143.88 E726.33911
G0 F12000 X171.31 Y143.88
G1 F2400 X177.83 Y150.39 E726.79861
G0 F12000 X178.39 Y150.39
G1 F2400 X171.88 Y143.88 E727.25813
G0 F12000 X172.44 Y143.88
G1 F2400 X178.96 Y150.39 E727.71766
G0 F12000 X179.52 Y150.39
G1 F2400 X173.01 Y143.88 E728.17715
G0 F12000 X173.58 Y143.88
G1 F2400 X180.09 Y150.39 E728.63665
G0 F12000 X180.66 Y150.39
G1 F2400 X174.14 Y143.88 E729.09617
G0 F12000 X174.71 Y143.88
G1 F2400 X181.22 Y150.39 E729.55566
G0 F12000 X181.79 Y150.39
G1 F2400 X175.27 Y143.88 E730.01516
G0 F12000 X175.84 Y143.88
G1 F2400 X182.35 Y150.39 E730.47468
G0 F12000 X182.92 Y150.39
G1 F2400 X176.41 Y143.88 E730.93418
G0 F12000 X176.97 Y143.88
G1 F2400 X183.48 Y150.39 E731.39367
G0 F12000 X184.05 Y150.39
G1 F2400 X177.54 Y143.88 E731.85320
G0 F12000 X178.10 Y143.88
G1 F2400 X184.50 Y150.28 E732.30454
G0 F12000 X184.50 Y149.71
G1 F2400 X178.67 Y143.88 E732.71598
G0 F12000 X179.23 Y143.88
G1 F2400 X184.50 Y149.14 E733.08753
G0 F12000 X184.50 Y148.58
G1 F2400 X179.80 Y143.88 E733.41914
G0 F12000 X180.37 Y143.88
G1 F2400 X184.50 Y148.01 E733.71085
G0 F12000 X184.50 Y147.45
G1 F2400 X180.93 Y143.88 E733.96266
G0 F12000 X181.50 Y143.88
G1 F2400 X184.50 Y146.88 E734.17454
G0 F12000 X184.50 Y146.31
G1 F2400 X181.54 Y143.35 E734.38356
G0 F12000 X181.54 Y142.79
G1 F2400 X184.50 Y145.75 E734.59261
G0 F12000 X184.50 Y145.18
G1 F2400 X181.54 Y142.22 E734.80167
G0 F12000 X181.54 Y141.66
G1 F2400 X184.50 Y144.62 E735.01069
G0 F12000 X184.50 Y144.05
G1 F2400 X181.54 Y141.09 E735.21975
G0 F12000 X181.54 Y140.52
G1 F2400 X184.50 Y143.49 E735.42880
G0 F12000 X184.50 Y142.92
G1 F2400 X181.54 Y139.96 E735.63782
G0 F12000 X181.54 Y139.39
G1 F2400 X184.50 Y142.36 E735.84688
G0 F12000 X184.50 Y141.79
G1 F2400 X181.57 Y138.86 E736.05371
G0 F12000 X182.13 Y138.86
G1 F2400 X184.50 Y141.22 E736.22065
G0 F12000 X184.50 Y140.66
G1 F2400 X182.70 Y138.86 E736.34768
G0 F12000 X183.26 Y138.86
G1 F2400 X184.50 Y140.09 E736.43478
G0 F12000 X184.50 Y139.53
G1 F2400 X183.83 Y138.86 E736.48198
G0 F12000 X184.40 Y138.86
G1 F2400 X184.50 Y138.96 E736.48928
G0 F12000 X180.94 Y143.28
G0 X172.58 Y151.37
G1 F2400 X177.34 Y156.13 E736.82492
G0 F12000 X177.34 Y156.69
G1 F2400 X172.58 Y151.94 E737.16058
G0 F12000 X172.58 Y152.50
G1 F2400 X177.34 Y157.26 E737.49622
G0 F12000 X177.34 Y157.82
G1 F2400 X172.58 Y153.07 E737.83185
G0 F12000 X172.58 Y153.63
G1 F2400 X177.34 Y158.39 E738.16752
G0 F12000 X177.34 Y158.96
G1 F2400 X172.58 Y154.20 E738.50315
G0 F12000 X172.58 Y154.76
G1 F2400 X177.34 Y159.52 E738.83878
G0 F12000 X177.34 Y160.09
G1 F2400 X172.58 Y155.33 E739.17445
G0 F12000 X172.58 Y155.90
G1 F2400 X177.34 Y160.65 E739.51008
G0 F12000 X177.34 Y161.22
G1 F2400 X172.58 Y156.46 E739.84571
G0 F12000 X172.58 Y157.03
G1 F2400 X177.34 Y161.78 E740.18138
G0 F12000 X177.34 Y162.35
G1 F2400 X172.58 Y157.59 E740.51705
G0 F12000 X172.58 Y158.16
G1 F2400 X177.34 Y162.92 E740.85268
G0 F12000 X177.34 Y163.48
G1 F2400 X172.58 Y158.72 E741.18835
G0 F12000 X172.58 Y159.29
G1 F2400 X177.34 Y164.05 E741.52401
G0 F12000 X177.34 Y164.61
G1 F2400 X175.39 Y162.66 E741.66188
G0 F12000 X175.08 Y162.35
G1 F2400 X172.58 Y159.86 E741.83820
G0 F12000 X172.58 Y160.42
G1 F2400 X174.52 Y162.36 E741.97472
G0 F12000 X173.96 Y162.36
G1 F2400 X172.58 Y160.99 E742.07145
G0 F12000 X172.58 Y161.55
G1 F2400 X173.39 Y162.36 E742.12839
G0 F12000 X172.83 Y162.36
G1 F2400 X172.58 Y162.12 E742.14554
G0 F12000 X175.39 Y163.22
G1 F2400 X177.34 Y165.18 E742.28344
G0 F12000 X177.34 Y165.75
G1 F2400 X175.39 Y163.79 E742.42134
G0 F12000 X175.39 Y164.36
G1 F2400 X177.17 Y166.14 E742.54724
G0 F12000 X176.61 Y166.14
G1 F2400 X175.39 Y164.92 E742.63325
G0 F12000 X175.39 Y165.49
G1 F2400 X176.04 Y166.14 E742.67936
G0 F12000 X175.47 Y166.14
G1 F2400 X175.39 Y166.05 E742.68553
G0 F12000 X174.79 Y162.96
G0 X171.99 Y150.99
G0 X163.68 Y150.39
G1 F2400 X157.17 Y143.88 E743.14502
G0 F12000 X160.24 Y147.51
G1 F2400 X163.12 Y150.39 E743.34826
G0 F12000 X162.55 Y150.39
G1 F2400 X161.06 Y148.90 E743.45374
G0 F12000 X161.46 Y149.87
G1 F2400 X161.99 Y150.39 E743.49071
G0 F12000 X158.17 Y146.07
G0 X155.04 Y144.39
G0 X151.51 Y144.04
G0 X148.92 Y144.11
G1 F2400 X148.60 Y144.08 E743.50741
G1 X148.12 Y143.88 E743.53355
G0 F12000 X147.55 Y143.88
G1 F2400 X148.14 Y144.46 E743.57476
G0 F12000 X147.76 Y144.65
G1 F2400 X146.99 Y143.88 E743.62926
G0 F12000 X146.42 Y143.88
G1 F2400 X147.41 Y144.86 E743.69883
G0 F12000 X147.06 Y145.08
G1 F2400 X145.86 Y143.88 E743.78342
G0 F12000 X145.29 Y143.88
G1 F2400 X146.73 Y145.32 E743.88492
G0 F12000 X146.41 Y145.56
G1 F2400 X144.73 Y143.88 E744.00338
G0 F12000 X144.16 Y143.88
G1 F2400 X146.10 Y145.81 E744.14005
G0 F12000 X145.80 Y146.08
G1 F2400 X143.59 Y143.88 E744.29573
G0 F12000 X143.03 Y143.88
G1 F2400 X145.51 Y146.36 E744.47106
G0 F12000 X145.24 Y146.66
G1 F2400 X142.46 Y143.88 E744.66727
G0 F12000 X141.90 Y143.88
G1 F2400 X144.97 Y146.96 E744.88444
G0 F12000 X144.73 Y147.28
G1 F2400 X141.33 Y143.88 E745.12426
G0 F12000 X140.77 Y143.88
G1 F2400 X144.49 Y147.60 E745.38701
G0 F12000 X144.26 Y147.94
G1 F2400 X140.20 Y143.88 E745.67382
G0 F12000 X139.63 Y143.88
G1 F2400 X144.05 Y148.30 E745.98556
G0 F12000 X143.85 Y148.66
G1 F2400 X139.07 Y143.88 E746.32289
G0 F12000 X138.50 Y143.88
G1 F2400 X143.67 Y149.04 E746.68731
G0 F12000 X143.49 Y149.43
G1 F2400 X137.94 Y143.88 E747.07886
G0 F12000 X137.37 Y143.88
G1 F2400 X143.34 Y149.84 E747.49979
G0 F12000 X143.19 Y150.26
G1 F2400 X136.81 Y143.88 E747.95014
G0 F12000 X136.24 Y143.88
G1 F2400 X142.75 Y150.39 E748.40964
G0 F12000 X142.19 Y150.39
G1 F2400 X135.68 Y143.88 E748.86913
G0 F12000 X135.11 Y143.88
G1 F2400 X141.62 Y150.39 E749.32866
G0 F12000 X141.06 Y150.39
G1 F2400 X134.54 Y143.88 E749.78815
G0 F12000 X133.98 Y143.88
G1 F2400 X140.49 Y150.39 E750.24764
G0 F12000 X139.93 Y150.39
G1 F2400 X133.41 Y143.88 E750.70717
G0 F12000 X132.85 Y143.88
G1 F2400 X139.36 Y150.39 E751.16669
G0 F12000 X138.79 Y150.39
G1 F2400 X132.28 Y143.88 E751.62619
G0 F12000 X131.72 Y143.88
G1 F2400 X138.23 Y150.39 E752.08571
G0 F12000 X137.66 Y150.39
G1 F2400 X131.15 Y143.88 E752.54524
G0 F12000 X130.58 Y143.88
G1 F2400 X137.10 Y150.39 E753.00473
G0 F12000 X136.53 Y150.39
G1 F2400 X130.02 Y143.88 E753.46426
G0 F12000 X129.45 Y143.88
G1 F2400 X135.97 Y150.39 E753.92379
G0 F12000 X135.40 Y150.39
G1 F2400 X128.89 Y143.88 E754.38328
G0 F12000 X128.32 Y143.88
G1 F2400 X134.83 Y150.39 E754.84277
G0 F12000 X134.27 Y150.39
G1 F2400 X127.75 Y143.88 E755.30230
G0 F12000 X127.19 Y143.88
G1 F2400 X133.70 Y150.39 E755.76179
G0 F12000 X133.14 Y150.39
G1 F2400 X126.62 Y143.88 E756.22128
G0 F12000 X126.06 Y143.88
G1 F2400 X132.57 Y150.39 E756.68081
G0 F12000 X132.21 Y150.60
G1 F2400 X125.49 Y143.88 E757.15498
G0 F12000 X124.93 Y143.88
G1 F2400 X132.21 Y151.16 E757.66904
G0 F12000 X132.21 Y151.73
G1 F2400 X124.36 Y143.88 E758.22305
G0 F12000 X123.80 Y143.88
G1 F2400 X132.21 Y152.29 E758.81695
G0 F12000 X132.21 Y152.86
G1 F2400 X120.50 Y141.15 E759.64343
G0 F12000 X120.50 Y140.58
G1 F2400 X123.26 Y143.34 E759.83816
G0 F12000 X123.26 Y142.78
G1 F2400 X120.50 Y140.01 E760.03290
G0 F12000 X120.50 Y139.45
G1 F2400 X123.26 Y142.21 E760.22763
G0 F12000 X123.26 Y141.64
G1 F2400 X120.50 Y138.88 E760.42236
G0 F12000 X121.04 Y138.86
G1 F2400 X123.26 Y141.08 E760.57900
G0 F12000 X123.26 Y140.51
G1 F2400 X121.60 Y138.86 E760.69573
G0 F12000 X122.17 Y138.86
G1 F2400 X123.26 Y139.95 E760.77257
G0 F12000 X123.26 Y139.38
G1 F2400 X122.74 Y138.86 E760.80947
G0 F12000 X120.50 Y141.71
G1 F2400 X132.21 Y153.43 E761.63595
G0 F12000 X132.21 Y153.99
G1 F2400 X120.50 Y142.28 E762.46244
G0 F12000 X120.50 Y142.84
G1 F2400 X132.21 Y154.56 E763.28889
G0 F12000 X132.21 Y155.12
G1 F2400 X120.50 Y143.41 E764.11537
G0 F12000 X120.50 Y143.97
G1 F2400 X126.91 Y150.39 E764.56799
G0 F12000 X126.35 Y150.39
G1 F2400 X120.50 Y144.54 E764.98067
G0 F12000 X120.50 Y145.11
G1 F2400 X125.78 Y150.39 E765.35345
G0 F12000 X125.22 Y150.39
G1 F2400 X120.50 Y145.67 E765.68633
G0 F12000 X120.50 Y146.24
G1 F2400 X124.65 Y150.39 E765.97927
G0 F12000 X124.08 Y150.39
G1 F2400 X120.50 Y146.80 E766.23232
G0 F12000 X120.50 Y147.37
G1 F2400 X123.52 Y150.39 E766.44547
G0 F12000 X122.95 Y150.39
G1 F2400 X120.50 Y147.94 E766.61868
G0 F12000 X120.50 Y148.50
G1 F2400 X122.39 Y150.39 E766.75199
G0 F12000 X121.82 Y150.39
G1 F2400 X120.50 Y149.07 E766.84541
G0 F12000 X120.50 Y149.63
G1 F2400 X121.26 Y150.39 E766.89889
G0 F12000 X120.69 Y150.39
G1 F2400 X120.50 Y150.20 E766.91247
G0 F12000 X127.45 Y150.93
G1 F2400 X132.21 Y155.69 E767.24818
G0 F12000 X132.21 Y156.25
G1 F2400 X127.45 Y151.50 E767.58388
G0 F12000 X127.45 Y152.06
G1 F2400 X132.21 Y156.82 E767.91955
G0 F12000 X132.21 Y157.39
G1 F2400 X127.45 Y152.63 E768.25525
G0 F12000 X127.45 Y153.19
G1 F2400 X132.21 Y157.95 E768.59095
G0 F12000 X132.21 Y158.52
G1 F2400 X127.45 Y153.76 E768.92662
G0 F12000 X127.45 Y154.33
G1 F2400 X132.21 Y159.08 E769.26228
G0 F12000 X132.21 Y159.65
G1 F2400 X127.45 Y154.89 E769.59799
G0 F12000 X127.45 Y155.46
G1 F2400 X132.21 Y160.21 E769.93365
G0 F12000 X132.21 Y160.78
G1 F2400 X127.45 Y156.02 E770.26932
G0 F12000 X127.45 Y156.59
G1 F2400 X132.21 Y161.35 E770.60502
G0 F12000 X132.21 Y161.91
G1 F2400 X127.45 Y157.15 E770.94069
G0 F12000 X127.45 Y157.72
G1 F2400 X132.10 Y162.36 E771.26825
G0 F12000 X131.53 Y162.36
G1 F2400 X127.45 Y158.28 E771.55590
G0 F12000 X127.45 Y158.85
G1 F2400 X130.97 Y162.36 E771.80362
G0 F12000 X130.40 Y162.36
G1 F2400 X127.45 Y159.42 E772.01137
G0 F12000 X127.45 Y159.98
G1 F2400 X129.83 Y162.36 E772.17915
G0 F12000 X129.41 Y162.50
G1 F2400 X127.45 Y160.55 E772.31680
G0 F12000 X127.45 Y161.11
G1 F2400 X128.84 Y162.50 E772.41456
G0 F12000 X128.27 Y162.50
G1 F2400 X127.45 Y161.68 E772.47234
G0 F12000 X127.45 Y162.25
G1 F2400 X127.71 Y162.50 E772.49023
;LAYER:1
G0 F12000 X127.31 Y162.09 Z0.50
;TYPE:WALL-INNER
G1 F2400 X127.31 Y150.53 E772.87372
G1 X120.36 Y150.53 E773.10450
G1 X120.36 Y138.72 E773.49659
G1 X123.40 Y138.72 E773.59761
G1 X123.40 Y143.74 E773.76413
G1 X150.80 Y143.74 E774.67318
G1 X150.55 Y143.77 E774.68176
G1 X149.64 Y144.00 E774.71269
G1 X148.76 Y144.31 E774.74362
G1 X147.92 Y144.71 E774.77456
G1 X147.12 Y145.19 E774.80549
G1 X146.37 Y145.75 E774.83644
G1 X145.72 Y146.34 E774.86554
G1 X145.06 Y147.06 E774.89820
G1 X144.50 Y147.82 E774.92925
G1 X144.02 Y148.62 E774.96023
G1 X143.62 Y149.46 E774.99116
G1 X143.31 Y150.34 E775.02212
G1 X143.26 Y150.53 E775.02875
G1 X132.36 Y150.53 E775.39058
G1 X132.36 Y161.96 E775.76960
G1 X131.01 Y161.96 E775.81435
G1 X130.94 Y161.96 E775.81667
G1 X129.55 Y161.96 E775.86263
G1 X129.55 Y162.09 E775.86724
G1 X127.31 Y162.09 E775.94152
G0 F12000 X132.81 Y150.99
G0 X150.62 Y144.16
G0 X154.00 Y143.74
G1 F2400 X181.40 Y143.74 E776.85054
G1 X181.40 Y138.72 E777.01705
G1 X184.64 Y138.72 E777.12481
G1 X184.64 Y150.53 E777.51690
G1 X177.49 Y150.53 E777.75438
G1 X177.49 Y166.28 E778.27691
G1 X175.25 Y166.28 E778.35123
G1 X175.25 Y161.89 E778.49708
G1 X174.20 Y161.96 E778.53186
G1 X173.53 Y161.96 E778.55389
G1 X172.44 Y161.96 E778.59015
G1 X172.44 Y150.53 E778.96910
G1 X161.54 Y150.53 E779.33093
G1 X161.18 Y149.47 E779.36836
G1 X160.78 Y148.62 E779.39942
G1 X160.30 Y147.82 E779.43040
G1 X159.74 Y147.07 E779.46136
G1 X159.12 Y146.38 E779.49229
G1 X158.43 Y145.75 E779.52322
G1 X157.68 Y145.19 E779.55417
G1 X156.88 Y144.71 E779.58512
G1 X156.10 Y144.34 E779.61372
G1 X155.16 Y144.00 E779.64696
G1 X154.25 Y143.77 E779.67789
G1 X154.00 Y143.74 E779.68647
G0 F12000 X154.17 Y144.16
G1 F2400 X153.28 Y144.03 E779.71639
G1 X153.20 Y144.03 E779.71918
G1 X152.40 Y143.99 E779.74572
G1 X151.51 Y144.03 E779.77535
G1 X150.62 Y144.16 E779.80497
G1 X149.76 Y144.38 E779.83459
G1 X148.92 Y144.68 E779.86423
G1 X148.11 Y145.06 E779.89388
G1 X147.34 Y145.53 E779.92350
G1 X146.63 Y146.06 E779.95312
G1 X146.01 Y146.62 E779.98097
G1 X145.37 Y147.32 E780.01234
G1 X144.83 Y148.04 E780.04206
G1 X144.38 Y148.81 E780.07172
G1 X143.99 Y149.61 E780.10137
G1 X143.69 Y150.46 E780.13104
G1 X143.57 Y150.93 E780.14735
G1 X132.75 Y150.93 E780.50626
G1 X132.75 Y162.36 E780.88527
G1 X131.01 Y162.36 E780.94316
G1 X130.94 Y162.36 E780.94539
G1 X129.95 Y162.35 E780.97830
G1 X129.95 Y162.49 E780.98288
G1 X126.94 Y162.49 E781.08287
G1 X126.91 Y162.49 E781.08364
G1 X126.91 Y150.93 E781.46713
G1 X119.96 Y150.93 E781.69791
G1 X119.96 Y138.32 E782.11647
G1 X123.80 Y138.32 E782.24397
G1 X123.80 Y143.34 E782.41048
G1 X181.00 Y143.34 E784.30804
G1 X181.00 Y138.32 E784.47456
G1 X185.04 Y138.32 E784.60879
G1 X185.04 Y150.93 E785.02735
G1 X177.88 Y150.93 E785.26483
G1 X177.88 Y166.68 E785.78737
G1 X174.85 Y166.68 E785.88816
G1 X174.85 Y162.31 E786.03308
G1 X174.21 Y162.36 E786.05426
G1 X173.53 Y162.35 E786.07662
G1 X172.04 Y162.35 E786.12612
G1 X172.04 Y150.93 E786.50507
G1 X161.22 Y150.93 E786.86397
G1 X161.12 Y150.53 E786.87782
G1 X160.81 Y149.62 E786.90988
G1 X160.42 Y148.81 E786.93959
G1 X159.96 Y148.04 E786.96924
G1 X159.43 Y147.32 E786.99889
G1 X158.83 Y146.66 E787.02854
G1 X158.17 Y146.06 E787.05820
G1 X157.45 Y145.53 E787.08782
G1 X156.69 Y145.06 E787.11747
G1 X155.94 Y144.71 E787.14507
G1 X155.04 Y144.38 E787.17671
G1 X154.17 Y144.16 E787.20633
G0 F12000 X154.10 Y144.56
;TYPE:WALL-OUTER
G1 F2400 X153.25 Y144.43 E787.23478
G1 X153.19 Y144.43 E787.23654
G1 X152.40 Y144.39 E787.26298
G1 X151.55 Y144.43 E787.29132
G1 X150.70 Y144.56 E787.31963
G1 X149.87 Y144.76 E787.34794
G1 X149.07 Y145.05 E787.37628
G1 X148.30 Y145.42 E787.40461
G1 X147.57 Y145.86 E787.43294
G1 X146.88 Y146.37 E787.46126
G1 X146.29 Y146.91 E787.48787
G1 X145.68 Y147.57 E787.51793
G1 X145.17 Y148.26 E787.54629
G1 X144.73 Y148.99 E787.57467
G1 X144.36 Y149.77 E787.60303
G1 X144.07 Y150.57 E787.63136
G1 X143.88 Y151.33 E787.65738
G1 X133.15 Y151.33 E788.01340
G1 X133.15 Y162.75 E788.39238
G1 X131.01 Y162.75 E788.46341
G1 X130.95 Y162.76 E788.46557
G1 X130.35 Y162.75 E788.48541
G1 X130.35 Y162.89 E788.48995
G1 X126.52 Y162.89 E788.61719
G1 X126.52 Y151.33 E789.00071
G1 X119.56 Y151.33 E789.23149
G1 X119.56 Y137.92 E789.67653
G1 X124.20 Y137.92 E789.83050
G1 X124.20 Y142.94 E789.99702
G1 X180.60 Y142.94 E791.86810
G1 X180.60 Y137.92 E792.03462
G1 X185.44 Y137.92 E792.19533
G1 X185.44 Y151.33 E792.64036
G1 X178.28 Y151.33 E792.87784
G1 X178.28 Y167.08 E793.40038
G1 X174.45 Y167.08 E793.52765
G1 X174.45 Y162.74 E793.67167
G1 X174.22 Y162.76 E793.67922
G1 X171.64 Y162.75 E793.76468
G1 X171.64 Y151.33 E794.14363
G1 X160.91 Y151.33 E794.49965
G1 X160.74 Y150.64 E794.52324
G1 X160.44 Y149.77 E794.55396
G1 X160.07 Y148.99 E794.58234
G1 X159.63 Y148.26 E794.61072
G1 X159.12 Y147.57 E794.63906
G1 X158.55 Y146.94 E794.66741
G1 X157.92 Y146.37 E794.69576
G1 X157.23 Y145.86 E794.72407
G1 X156.50 Y145.42 E794.75244
G1 X155.78 Y145.07 E794.77897
G1 X154.92 Y144.76 E794.80906
G1 X154.10 Y144.56 E794.83738
G0 F12000 X154.17 Y144.27
G0 X155.82 Y144.09
;TYPE:FILL
G1 F2400 X156.13 Y144.06 E794.84754
G1 X156.60 Y144.15 E794.86508
G1 X157.16 Y143.88 E794.88586
G0 F12000 X157.73 Y143.88
G1 F2400 X156.99 Y144.62 E794.92065
G0 F12000 X157.34 Y144.83
G1 F2400 X158.29 Y143.88 E794.96536
G0 F12000 X158.86 Y143.88
G1 F2400 X157.69 Y145.04 E795.02000
G0 F12000 X158.02 Y145.28
G1 F2400 X159.42 Y143.88 E795.08569
G0 F12000 X159.99 Y143.88
G1 F2400 X158.34 Y145.52 E795.16268
G0 F12000 X158.65 Y145.77
G1 F2400 X160.55 Y143.88 E795.25162
G0 F12000 X161.11 Y143.88
G1 F2400 X158.95 Y146.04 E795.35313
G0 F12000 X159.24 Y146.31
G1 F2400 X161.68 Y143.88 E795.46738
G0 F12000 X162.24 Y143.88
G1 F2400 X159.51 Y146.61 E795.59551
G0 F12000 X159.78 Y146.90
G1 F2400 X162.81 Y143.88 E795.73756
G0 F12000 X163.37 Y143.88
G1 F2400 X160.03 Y147.22 E795.89444
G0 F12000 X160.27 Y147.54
G1 F2400 X163.94 Y143.88 E796.06651
G0 F12000 X164.50 Y143.88
G1 F2400 X160.50 Y147.88 E796.25433
G0 F12000 X160.71 Y148.23
G1 F2400 X165.06 Y143.88 E796.45873
G0 F12000 X165.63 Y143.88
G1 F2400 X160.92 Y148.59 E796.67982
G0 F12000 X161.10 Y148.97
G1 F2400 X166.19 Y143.88 E796.91892
G0 F12000 X166.76 Y143.88
G1 F2400 X161.28 Y149.35 E797.17599
G0 F12000 X161.43 Y149.77
G1 F2400 X167.32 Y143.88 E797.45258
G0 F12000 X167.88 Y143.88
G1 F2400 X161.57 Y150.19 E797.74895
G0 F12000 X161.93 Y150.39
G1 F2400 X168.45 Y143.88 E798.05479
G0 F12000 X169.01 Y143.88
G1 F2400 X162.50 Y150.39 E798.36063
G0 F12000 X163.06 Y150.39
G1 F2400 X169.58 Y143.88 E798.66648
G0 F12000 X170.14 Y143.88
G1 F2400 X163.62 Y150.39 E798.97232
G0 F12000 X164.19 Y150.39
G1 F2400 X170.71 Y143.88 E799.27814
G0 F12000 X171.27 Y143.88
G1 F2400 X164.75 Y150.39 E799.58398
G0 F12000 X165.32 Y150.39
G1 F2400 X171.84 Y143.88 E799.88983
G0 F12000 X172.40 Y143.88
G1 F2400 X165.88 Y150.39 E800.19567
G0 F12000 X166.44 Y150.39
G1 F2400 X172.96 Y143.88 E800.50149
G0 F12000 X173.53 Y143.88
G1 F2400 X167.01 Y150.39 E800.80734
G0 F12000 X167.57 Y150.39
G1 F2400 X174.09 Y143.88 E801.11318
G0 F12000 X174.66 Y143.88
G1 F2400 X168.14 Y150.39 E801.41902
G0 F12000 X168.70 Y150.39
G1 F2400 X175.22 Y143.88 E801.72487
G0 F12000 X175.78 Y143.88
G1 F2400 X169.27 Y150.39 E802.03071
G0 F12000 X169.83 Y150.39
G1 F2400 X176.35 Y143.88 E802.33655
G0 F12000 X176.91 Y143.88
G1 F2400 X170.40 Y150.39 E802.64237
G0 F12000 X170.96 Y150.39
G1 F2400 X177.48 Y143.88 E802.94822
G0 F12000 X178.04 Y143.88
G1 F2400 X171.52 Y150.39 E803.25406
G0 F12000 X172.09 Y150.39
G1 F2400 X178.61 Y143.88 E803.55991
G0 F12000 X179.17 Y143.88
G1 F2400 X172.58 Y150.46 E803.86906
G0 F12000 X172.58 Y151.03
G1 F2400 X179.74 Y143.88 E804.20470
G0 F12000 X180.30 Y143.88
G1 F2400 X172.58 Y151.59 E804.56682
G0 F12000 X172.58 Y152.16
G1 F2400 X180.86 Y143.88 E804.95540
G0 F12000 X181.43 Y143.88
G1 F2400 X172.58 Y152.72 E805.37048
G0 F12000 X172.58 Y153.28
G1 F2400 X184.50 Y141.37 E805.92976
G0 F12000 X184.50 Y141.93
G1 F2400 X172.58 Y153.85 E806.48906
G0 F12000 X172.58 Y154.41
G1 F2400 X184.50 Y142.49 E807.04834
G0 F12000 X184.50 Y143.06
G1 F2400 X172.58 Y154.98 E807.60761
G0 F12000 X172.58 Y155.54
G1 F2400 X177.34 Y150.78 E807.83109
G0 F12000 X177.73 Y150.39
G1 F2400 X184.50 Y143.62 E808.14878
G0 F12000 X184.50 Y144.19
G1 F2400 X178.29 Y150.39 E808.44001
G0 F12000 X178.86 Y150.39
G1 F2400 X184.50 Y144.75 E808.70473
G0 F12000 X184.50 Y145.31
G1 F2400 X179.42 Y150.39 E808.94299
G0 F12000 X179.99 Y150.39
G1 F2400 X184.50 Y145.88 E809.15478
G0 F12000 X184.50 Y146.44
G1 F2400 X180.55 Y150.39 E809.34011
G0 F12000 X181.12 Y150.39
G1 F2400 X184.50 Y147.01 E809.49893
G0 F12000 X184.50 Y147.57
G1 F2400 X181.68 Y150.39 E809.63129
G0 F12000 X182.24 Y150.39
G1 F2400 X184.50 Y148.14 E809.73719
G0 F12000 X184.50 Y148.70
G1 F2400 X182.81 Y150.39 E809.81658
G0 F12000 X183.37 Y150.39
G1 F2400 X184.50 Y149.26 E809.86950
G0 F12000 X184.50 Y149.83
G1 F2400 X183.94 Y150.39 E809.89596
G0 F12000 X177.94 Y150.99
G0 X177.34 Y151.34
G1 F2400 X172.58 Y156.11 E810.11944
G0 F12000 X172.58 Y156.67
G1 F2400 X177.34 Y151.91 E810.34292
G0 F12000 X177.34 Y152.47
G1 F2400 X172.58 Y157.24 E810.56639
G0 F12000 X172.58 Y157.80
G1 F2400 X177.34 Y153.04 E810.78990
G0 F12000 X177.34 Y153.60
G1 F2400 X172.58 Y158.36 E811.01337
G0 F12000 X172.58 Y158.93
G1 F2400 X177.34 Y154.16 E811.23685
G0 F12000 X177.34 Y154.73
G1 F2400 X172.58 Y159.49 E811.46033
G0 F12000 X172.58 Y160.06
G1 F2400 X177.34 Y155.29 E811.68380
G0 F12000 X177.34 Y155.86
G1 F2400 X172.58 Y160.62 E811.90728
G0 F12000 X172.58 Y161.19
G1 F2400 X177.34 Y156.42 E812.13076
G0 F12000 X177.34 Y156.99
G1 F2400 X172.58 Y161.75 E812.35423
G0 F12000 X173.08 Y161.82
G1 F2400 X177.34 Y157.55 E812.55439
G0 F12000 X177.34 Y158.12
G1 F2400 X173.64 Y161.82 E812.72809
G0 F12000 X174.21 Y161.82
G1 F2400 X177.34 Y158.68 E812.87532
G0 F12000 X177.34 Y159.24
G1 F2400 X174.81 Y161.78 E812.99417
G0 F12000 X175.38 Y161.77
G1 F2400 X177.34 Y159.81 E813.08613
G0 F12000 X177.34 Y160.37
G1 F2400 X175.38 Y162.33 E813.17809
G0 F12000 X175.38 Y162.90
G1 F2400 X177.34 Y160.94 E813.27005
G0 F12000 X177.34 Y161.50
G1 F2400 X175.38 Y163.46 E813.36201
G0 F12000 X175.38 Y164.03
G1 F2400 X177.34 Y162.06 E813.45398
G0 F12000 X177.34 Y162.63
G1 F2400 X175.38 Y164.59 E813.54594
G0 F12000 X175.38 Y165.15
G1 F2400 X177.34 Y163.19 E813.63790
G0 F12000 X177.34 Y163.76
G1 F2400 X175.38 Y165.72 E813.72986
G0 F12000 X175.52 Y166.14
G1 F2400 X177.34 Y164.32 E813.81532
G0 F12000 X177.34 Y164.89
G1 F2400 X176.09 Y166.14 E813.87430
G0 F12000 X176.65 Y166.14
G1 F2400 X177.34 Y165.45 E813.90682
G0 F12000 X177.34 Y166.01
G1 F2400 X177.22 Y166.14 E813.91285
G0 F12000 X177.94 Y150.99
G0 X181.53 Y143.77
G1 F2400 X184.50 Y140.80 E814.05206
G0 F12000 X184.50 Y140.24
G1 F2400 X181.53 Y143.20 E814.19129
G0 F12000 X181.53 Y142.64
G1 F2400 X184.50 Y139.67 E814.33052
G0 F12000 X184.50 Y139.11
G1 F2400 X181.53 Y142.08 E814.46976
G0 F12000 X181.53 Y141.51
G1 F2400 X184.19 Y138.85 E814.59437
G0 F12000 X183.62 Y138.85
G1 F2400 X181.53 Y140.95 E814.69251
G0 F12000 X181.53 Y140.38
G1 F2400 X183.06 Y138.85 E814.76417
G0 F12000 X182.50 Y138.85
G1 F2400 X181.53 Y139.82 E814.80938
G0 F12000 X181.53 Y139.25
G1 F2400 X181.93 Y138.85 E814.82808
G0 F12000 X180.94 Y143.28
G0 X149.26 Y143.87
G1 F2400 X149.09 Y144.05 E814.83624
G0 F12000 X148.70 Y143.87
G1 F2400 X148.10 Y144.47 E814.86418
G0 F12000 X148.14 Y143.87
G1 F2400 X146.62 Y145.39 E814.93527
G0 F12000 X146.44 Y143.87
G1 F2400 X139.93 Y150.39 E815.24111
G0 F12000 X140.49 Y150.39
G1 F2400 X147.01 Y143.87 E815.54698
G0 F12000 X147.57 Y143.87
G1 F2400 X141.05 Y150.39 E815.85284
G0 F12000 X141.62 Y150.39
G1 F2400 X144.71 Y147.31 E815.99773
G0 F12000 X143.78 Y148.79
G1 F2400 X142.18 Y150.39 E816.07294
G0 F12000 X142.75 Y150.39
G1 F2400 X143.36 Y149.78 E816.10184
G0 F12000 X139.36 Y150.39
G1 F2400 X145.88 Y143.87 E816.40771
G0 F12000 X145.31 Y143.87
G1 F2400 X138.80 Y150.39 E816.71358
G0 F12000 X138.23 Y150.39
G1 F2400 X144.75 Y143.87 E817.01945
G0 F12000 X144.19 Y143.87
G1 F2400 X137.67 Y150.39 E817.32529
G0 F12000 X137.10 Y150.39
G1 F2400 X143.62 Y143.87 E817.63116
G0 F12000 X143.06 Y143.87
G1 F2400 X136.54 Y150.39 E817.93702
G0 F12000 X135.97 Y150.39
G1 F2400 X142.49 Y143.87 E818.24289
G0 F12000 X141.93 Y143.87
G1 F2400 X135.41 Y150.39 E818.54876
G0 F12000 X134.85 Y150.39
G1 F2400 X141.37 Y143.87 E818.85463
G0 F12000 X140.80 Y143.87
G1 F2400 X134.28 Y150.39 E819.16049
G0 F12000 X133.72 Y150.39
G1 F2400 X140.24 Y143.87 E819.46634
G0 F12000 X139.67 Y143.87
G1 F2400 X133.15 Y150.39 E819.77220
G0 F12000 X132.59 Y150.39
G1 F2400 X139.11 Y143.87 E820.07807
G0 F12000 X138.54 Y143.87
G1 F2400 X127.45 Y154.97 E820.59845
G0 F12000 X127.45 Y155.53
G1 F2400 X132.22 Y150.77 E820.82193
G0 F12000 X132.22 Y151.33
G1 F2400 X127.45 Y156.09 E821.04541
G0 F12000 X127.45 Y156.66
G1 F2400 X132.22 Y151.90 E821.26888
G0 F12000 X132.22 Y152.46
G1 F2400 X127.45 Y157.22 E821.49236
G0 F12000 X127.45 Y157.79
G1 F2400 X132.22 Y153.02 E821.71584
G0 F12000 X132.22 Y153.59
G1 F2400 X127.45 Y158.35 E821.93931
G0 F12000 X127.45 Y158.91
G1 F2400 X132.22 Y154.15 E822.16279
G0 F12000 X132.22 Y154.72
G1 F2400 X127.45 Y159.48 E822.38627
G0 F12000 X127.45 Y160.04
G1 F2400 X132.22 Y155.28 E822.60975
G0 F12000 X132.22 Y155.84
G1 F2400 X127.45 Y160.61 E822.83322
G0 F12000 X127.45 Y161.17
G1 F2400 X132.22 Y156.41 E823.05670
G0 F12000 X132.22 Y156.97
G1 F2400 X127.45 Y161.74 E823.28018
G0 F12000 X127.80 Y161.95
G1 F2400 X132.22 Y157.54 E823.48732
G0 F12000 X132.22 Y158.10
G1 F2400 X128.37 Y161.95 E823.66799
G0 F12000 X128.93 Y161.95
G1 F2400 X132.22 Y158.67 E823.82219
G0 F12000 X132.22 Y159.23
G1 F2400 X129.63 Y161.81 E823.94347
G0 F12000 X130.19 Y161.81
G1 F2400 X132.22 Y159.79 E824.03830
G0 F12000 X132.22 Y160.36
G1 F2400 X130.76 Y161.81 E824.10664
G0 F12000 X131.32 Y161.82
G1 F2400 X132.22 Y160.92 E824.14854
G0 F12000 X132.22 Y161.49
G1 F2400 X131.89 Y161.82 E824.16402
G0 F12000 X127.45 Y154.40
G1 F2400 X137.98 Y143.87 E824.65792
G0 F12000 X137.41 Y143.87
G1 F2400 X127.45 Y153.84 E825.12533
G0 F12000 X127.45 Y153.27
G1 F2400 X136.85 Y143.87 E825.56627
G0 F12000 X136.29 Y143.87
G1 F2400 X127.45 Y152.71 E825.98076
G0 F12000 X127.45 Y152.14
G1 F2400 X135.72 Y143.87 E826.36874
G0 F12000 X135.16 Y143.87
G1 F2400 X127.45 Y151.58 E826.73025
G0 F12000 X127.45 Y151.01
G1 F2400 X134.59 Y143.87 E827.06530
G0 F12000 X134.03 Y143.87
G1 F2400 X127.45 Y150.45 E827.37386
G0 F12000 X126.95 Y150.39
G1 F2400 X133.47 Y143.87 E827.67973
G0 F12000 X132.90 Y143.87
G1 F2400 X126.38 Y150.39 E827.98560
G0 F12000 X125.82 Y150.39
G1 F2400 X132.34 Y143.87 E828.29147
G0 F12000 X131.77 Y143.87
G1 F2400 X125.25 Y150.39 E828.59731
G0 F12000 X124.69 Y150.39
G1 F2400 X131.21 Y143.87 E828.90318
G0 F12000 X130.64 Y143.87
G1 F2400 X124.12 Y150.39 E829.20904
G0 F12000 X123.56 Y150.39
G1 F2400 X130.08 Y143.87 E829.51491
G0 F12000 X129.51 Y143.87
G1 F2400 X123.00 Y150.39 E829.82078
G0 F12000 X122.43 Y150.39
G1 F2400 X128.95 Y143.87 E830.12665
G0 F12000 X128.39 Y143.87
G1 F2400 X121.87 Y150.39 E830.43251
G0 F12000 X121.30 Y150.39
G1 F2400 X127.82 Y143.87 E830.73836
G0 F12000 X127.26 Y143.87
G1 F2400 X120.74 Y150.39 E831.04422
G0 F12000 X120.50 Y150.07
G1 F2400 X126.69 Y143.87 E831.33498
G0 F12000 X126.13 Y143.87
G1 F2400 X120.50 Y149.51 E831.59928
G0 F12000 X120.50 Y148.94
G1 F2400 X125.56 Y143.87 E831.83707
G0 F12000 X125.00 Y143.87
G1 F2400 X120.50 Y148.38 E832.04839
G0 F12000 X120.50 Y147.81
G1 F2400 X124.44 Y143.87 E832.23325
G0 F12000 X123.87 Y143.87
G1 F2400 X120.50 Y147.25 E832.39165
G0 F12000 X120.50 Y146.69
G1 F2400 X123.31 Y143.87 E832.52354
G0 F12000 X123.26 Y143.36
G1 F2400 X120.50 Y146.12 E832.65328
G0 F12000 X120.50 Y145.56
G1 F2400 X123.26 Y142.79 E832.78301
G0 F12000 X123.26 Y142.23
G1 F2400 X120.50 Y144.99 E832.91272
G0 F12000 X120.50 Y144.43
G1 F2400 X123.26 Y141.66 E833.04245
G0 F12000 X123.26 Y141.10
G1 F2400 X120.50 Y143.86 E833.17218
G0 F12000 X120.50 Y143.30
G1 F2400 X123.26 Y140.53 E833.30191
G0 F12000 X123.26 Y139.97
G1 F2400 X120.50 Y142.74 E833.43162
G0 F12000 X120.50 Y142.17
G1 F2400 X123.26 Y139.41 E833.56135
G0 F12000 X123.25 Y138.85
G1 F2400 X120.50 Y141.61 E833.69048
G0 F12000 X120.50 Y141.04
G1 F2400 X122.69 Y138.85 E833.79313
G0 F12000 X122.12 Y138.85
G1 F2400 X120.50 Y140.48 E833.86928
G0 F12000 X120.50 Y139.91
G1 F2400 X121.56 Y138.85 E833.91897
G0 F12000 X120.99 Y138.85
G1 F2400 X120.50 Y139.35 E833.94220
;LAYER:2
G0 F12000 X120.36 Y138.72 Z0.70
;TYPE:WALL-INNER
G1 F2400 X123.40 Y138.72 E834.04322
G1 X123.40 Y143.74 E834.20974
G1 X150.73 Y143.74 E835.11633
G1 X149.64 Y143.99 E835.15333
G1 X148.76 Y144.30 E835.18427
G1 X147.92 Y144.70 E835.21521
G1 X147.12 Y145.18 E835.24614
G1 X146.37 Y145.74 E835.27708
G1 X145.74 Y146.31 E835.30529
G1 X145.06 Y147.05 E835.33880
G1 X144.50 Y147.81 E835.36989
G1 X144.02 Y148.61 E835.40087
G1 X143.62 Y149.45 E835.43180
G1 X143.31 Y150.33 E835.46277
G1 X143.26 Y150.53 E835.46978
G1 X132.36 Y150.53 E835.83150
G1 X132.36 Y161.41 E836.19227
G1 X131.02 Y161.41 E836.23656
G1 X130.92 Y161.41 E836.23981
G1 X129.55 Y161.40 E836.28530
G1 X129.55 Y161.54 E836.28998
G1 X127.31 Y161.54 E836.36426
G1 X127.31 Y150.53 E836.72954
G1 X120.36 Y150.53 E836.96032
G1 X120.36 Y138.72 E837.35240
G0 F12000 X123.86 Y143.28
G0 X154.07 Y143.74
G1 F2400 X181.40 Y143.74 E838.25897
G1 X181.40 Y138.72 E838.42548
G1 X184.64 Y138.72 E838.53324
G1 X184.64 Y150.53 E838.92533
G1 X177.49 Y150.53 E839.16281
G1 X177.49 Y166.28 E839.68534
G1 X175.25 Y166.28 E839.75966
G1 X175.25 Y161.36 E839.92292
G1 X174.21 Y161.41 E839.95723
G1 X174.15 Y161.41 E839.95915
G1 X174.01 Y161.41 E839.96406
G1 X173.50 Y161.41 E839.98078
G1 X172.44 Y161.41 E840.01595
G1 X172.44 Y150.53 E840.37669
G1 X161.54 Y150.53 E840.73838
G1 X161.18 Y149.46 E840.77616
G1 X160.78 Y148.61 E840.80727
G1 X160.30 Y147.81 E840.83825
G1 X159.74 Y147.06 E840.86920
G1 X159.12 Y146.37 E840.90014
G1 X158.43 Y145.74 E840.93107
G1 X157.68 Y145.18 E840.96202
G1 X156.88 Y144.70 E840.99297
G1 X156.10 Y144.34 E841.02130
G1 X155.16 Y143.99 E841.05467
G1 X154.25 Y143.76 E841.08573
G1 X154.07 Y143.74 E841.09183
G0 F12000 X154.17 Y144.15
G1 F2400 X153.29 Y144.02 E841.12149
G1 X152.40 Y143.98 E841.15108
G1 X151.51 Y144.02 E841.18071
G1 X150.62 Y144.15 E841.21033
G1 X149.76 Y144.37 E841.23995
G1 X148.92 Y144.67 E841.26959
G1 X148.11 Y145.05 E841.29924
G1 X147.34 Y145.51 E841.32886
G1 X146.63 Y146.05 E841.35848
G1 X146.03 Y146.59 E841.38546
G1 X145.37 Y147.31 E841.41768
G1 X144.83 Y148.03 E841.44742
G1 X144.38 Y148.79 E841.47708
G1 X143.99 Y149.60 E841.50673
G1 X143.69 Y150.44 E841.53640
G1 X143.57 Y150.93 E841.55309
G1 X132.75 Y150.93 E841.91189
G1 X132.75 Y161.81 E842.27266
G1 X131.02 Y161.81 E842.33012
G1 X130.93 Y161.81 E842.33334
G1 X129.95 Y161.80 E842.36569
G1 X129.95 Y161.94 E842.37033
G1 X126.91 Y161.94 E842.47109
G1 X126.91 Y150.93 E842.83641
G1 X119.96 Y150.93 E843.06718
G1 X119.96 Y138.32 E843.48575
G1 X123.80 Y138.32 E843.61324
G1 X123.80 Y143.34 E843.77976
G1 X181.00 Y143.34 E845.67732
G1 X181.00 Y138.32 E845.84383
G1 X185.04 Y138.32 E845.97807
G1 X185.04 Y150.93 E846.39663
G1 X177.88 Y150.93 E846.63411
G1 X177.88 Y166.68 E847.15665
G1 X174.85 Y166.68 E847.25744
G1 X174.85 Y161.78 E847.42014
G1 X174.22 Y161.81 E847.44079
G1 X174.15 Y161.81 E847.44315
G1 X174.01 Y161.81 E847.44796
G1 X173.50 Y161.81 E847.46475
G1 X172.04 Y161.81 E847.51315
G1 X172.04 Y150.93 E847.87389
G1 X161.23 Y150.93 E848.23273
G1 X161.13 Y150.55 E848.24572
G1 X160.81 Y149.61 E848.27896
G1 X160.42 Y148.79 E848.30871
G1 X159.96 Y148.03 E848.33837
G1 X159.43 Y147.31 E848.36801
G1 X158.83 Y146.65 E848.39766
G1 X158.17 Y146.05 E848.42732
G1 X157.45 Y145.51 E848.45694
G1 X156.69 Y145.05 E848.48662
G1 X155.95 Y144.71 E848.51370
G1 X155.04 Y144.37 E848.54576
G1 X154.17 Y144.15 E848.57545
G0 F12000 X154.10 Y144.55
;TYPE:WALL-OUTER
G1 F2400 X153.25 Y144.42 E848.60379
G1 X152.40 Y144.38 E848.63209
G1 X151.55 Y144.42 E848.66043
G1 X150.70 Y144.55 E848.68874
G1 X149.87 Y144.75 E848.71706
G1 X149.07 Y145.04 E848.74539
G1 X148.30 Y145.41 E848.77372
G1 X147.57 Y145.85 E848.80206
G1 X146.88 Y146.35 E848.83040
G1 X146.31 Y146.88 E848.85611
G1 X145.68 Y147.56 E848.88703
G1 X145.17 Y148.25 E848.91540
G1 X144.73 Y148.98 E848.94378
G1 X144.36 Y149.76 E848.97214
G1 X144.07 Y150.56 E849.00047
G1 X143.88 Y151.33 E849.02686
G1 X133.15 Y151.33 E849.38279
G1 X133.15 Y162.21 E849.74352
G1 X131.03 Y162.21 E849.81415
G1 X130.93 Y162.21 E849.81734
G1 X130.35 Y162.20 E849.83655
G1 X130.35 Y162.34 E849.84116
G1 X126.52 Y162.34 E849.96839
G1 X126.52 Y151.33 E850.33370
G1 X119.56 Y151.33 E850.56448
G1 X119.56 Y137.92 E851.00952
G1 X124.20 Y137.92 E851.16349
G1 X124.20 Y142.94 E851.33001
G1 X180.60 Y142.94 E853.20109
G1 X180.60 Y137.92 E853.36761
G1 X185.44 Y137.92 E853.52832
G1 X185.44 Y151.33 E853.97335
G1 X178.28 Y151.33 E854.21083
G1 X178.28 Y167.08 E854.73337
G1 X174.45 Y167.08 E854.86064
G1 X174.45 Y162.20 E855.02274
G1 X174.22 Y162.21 E855.03031
G1 X174.15 Y162.21 E855.03254
G1 X174.01 Y162.21 E855.03725
G1 X171.64 Y162.21 E855.11574
G1 X171.64 Y151.33 E855.47648
G1 X160.92 Y151.33 E855.83240
G1 X160.75 Y150.67 E855.85517
G1 X160.44 Y149.76 E855.88708
G1 X160.07 Y148.98 E855.91547
G1 X159.63 Y148.25 E855.94384
G1 X159.12 Y147.56 E855.97218
G1 X158.55 Y146.93 E856.00054
G1 X157.92 Y146.35 E856.02889
G1 X157.23 Y145.85 E856.05720
G1 X156.50 Y145.41 E856.08556
G1 X155.79 Y145.07 E856.11140
G1 X154.93 Y144.75 E856.14214
G1 X154.10 Y144.55 E856.17050
G0 F12000 X154.17 Y144.25
G0 X156.01 Y143.88
;TYPE:FILL
G1 F2400 X156.50 Y144.37 E856.19370
G0 F12000 X156.57 Y143.88
G1 F2400 X157.78 Y145.08 E856.25036
G0 F12000 X157.70 Y143.88
G1 F2400 X164.22 Y150.39 E856.55620
G0 F12000 X163.65 Y150.39
G1 F2400 X157.13 Y143.88 E856.86204
G0 F12000 X158.26 Y143.88
G1 F2400 X164.78 Y150.39 E857.16789
G0 F12000 X165.35 Y150.39
G1 F2400 X158.83 Y143.88 E857.47373
G0 F12000 X159.39 Y143.88
G1 F2400 X165.91 Y150.39 E857.77958
G0 F12000 X166.47 Y150.39
G1 F2400 X159.96 Y143.88 E858.08540
G0 F12000 X160.52 Y143.88
G1 F2400 X167.04 Y150.39 E858.39124
G0 F12000 X167.60 Y150.39
G1 F2400 X161.08 Y143.88 E858.69708
G0 F12000 X161.65 Y143.88
G1 F2400 X168.17 Y150.39 E859.00293
G0 F12000 X168.73 Y150.39
G1 F2400 X162.21 Y143.88 E859.30875
G0 F12000 X162.78 Y143.88
G1 F2400 X169.30 Y150.39 E859.61459
G0 F12000 X169.86 Y150.39
G1 F2400 X163.34 Y143.88 E859.92043
G0 F12000 X163.91 Y143.88
G1 F2400 X170.42 Y150.39 E860.22628
G0 F12000 X170.99 Y150.39
G1 F2400 X164.47 Y143.88 E860.53212
G0 F12000 X165.03 Y143.88
G1 F2400 X171.55 Y150.39 E860.83797
G0 F12000 X172.12 Y150.39
G1 F2400 X165.60 Y143.88 E861.14381
G0 F12000 X166.16 Y143.88
G1 F2400 X177.34 Y155.06 E861.66841
G0 F12000 X177.34 Y155.62
G1 F2400 X172.58 Y150.86 E861.89194
G0 F12000 X172.58 Y151.42
G1 F2400 X177.34 Y156.19 E862.11546
G0 F12000 X177.34 Y156.75
G1 F2400 X172.58 Y151.99 E862.33899
G0 F12000 X172.58 Y152.55
G1 F2400 X177.34 Y157.31 E862.56251
G0 F12000 X177.34 Y157.88
G1 F2400 X172.58 Y153.11 E862.78601
G0 F12000 X172.58 Y153.68
G1 F2400 X177.34 Y158.44 E863.00953
G0 F12000 X177.34 Y159.01
G1 F2400 X172.58 Y154.24 E863.23306
G0 F12000 X172.58 Y154.81
G1 F2400 X177.34 Y159.57 E863.45658
G0 F12000 X177.34 Y160.13
G1 F2400 X172.58 Y155.37 E863.68008
G0 F12000 X172.58 Y155.94
G1 F2400 X177.34 Y160.70 E863.90361
G0 F12000 X177.34 Y161.26
G1 F2400 X172.58 Y156.50 E864.12713
G0 F12000 X172.58 Y157.06
G1 F2400 X177.34 Y161.83 E864.35065
G0 F12000 X177.34 Y162.39
G1 F2400 X172.58 Y157.63 E864.57418
G0 F12000 X172.58 Y158.19
G1 F2400 X177.34 Y162.96 E864.79770
G0 F12000 X177.34 Y163.52
G1 F2400 X175.38 Y161.56 E864.88966
G0 F12000 X175.05 Y161.23
G1 F2400 X172.58 Y158.76 E865.00574
G0 F12000 X172.58 Y159.32
G1 F2400 X174.51 Y161.25 E865.09644
G0 F12000 X173.96 Y161.27
G1 F2400 X172.58 Y159.88 E865.16128
G0 F12000 X172.58 Y160.45
G1 F2400 X173.40 Y161.27 E865.19966
G0 F12000 X172.83 Y161.27
G1 F2400 X172.58 Y161.01 E865.21155
G0 F12000 X175.38 Y162.12
G1 F2400 X177.34 Y164.08 E865.30351
G0 F12000 X177.34 Y164.65
G1 F2400 X175.38 Y162.69 E865.39548
G0 F12000 X175.38 Y163.25
G1 F2400 X177.34 Y165.21 E865.48744
G0 F12000 X177.34 Y165.78
G1 F2400 X175.38 Y163.82 E865.57940
G0 F12000 X175.38 Y164.38
G1 F2400 X177.15 Y166.14 E865.66207
G0 F12000 X176.58 Y166.14
G1 F2400 X175.38 Y164.95 E865.71826
G0 F12000 X175.38 Y165.51
G1 F2400 X176.02 Y166.14 E865.74796
G0 F12000 X175.45 Y166.14
G1 F2400 X175.38 Y166.07 E865.75120
G0 F12000 X177.34 Y154.49
G1 F2400 X166.73 Y143.88 E866.24934
G0 F12000 X167.29 Y143.88
G1 F2400 X177.34 Y153.93 E866.72099
G0 F12000 X177.34 Y153.36
G1 F2400 X167.85 Y143.88 E867.16619
G0 F12000 X168.42 Y143.88
G1 F2400 X177.34 Y152.80 E867.58490
G0 F12000 X177.34 Y152.24
G1 F2400 X168.98 Y143.88 E867.97714
G0 F12000 X169.55 Y143.88
G1 F2400 X177.34 Y151.67 E868.34290
G0 F12000 X177.34 Y151.11
G1 F2400 X170.11 Y143.88 E868.68220
G0 F12000 X170.68 Y143.88
G1 F2400 X177.34 Y150.54 E868.99501
G0 F12000 X177.76 Y150.39
G1 F2400 X171.24 Y143.88 E869.30085
G0 F12000 X171.81 Y143.88
G1 F2400 X178.32 Y150.39 E869.60670
G0 F12000 X178.89 Y150.39
G1 F2400 X172.37 Y143.88 E869.91252
G0 F12000 X172.93 Y143.88
G1 F2400 X179.45 Y150.39 E870.21836
G0 F12000 X180.02 Y150.39
G1 F2400 X173.50 Y143.88 E870.52421
G0 F12000 X174.06 Y143.88
G1 F2400 X180.58 Y150.39 E870.83005
G0 F12000 X181.15 Y150.39
G1 F2400 X174.63 Y143.88 E871.13587
G0 F12000 X175.19 Y143.88
G1 F2400 X181.71 Y150.39 E871.44171
G0 F12000 X182.27 Y150.39
G1 F2400 X175.75 Y143.88 E871.74756
G0 F12000 X176.32 Y143.88
G1 F2400 X182.84 Y150.39 E872.05340
G0 F12000 X183.40 Y150.39
G1 F2400 X176.88 Y143.88 E872.35922
G0 F12000 X177.45 Y143.88
G1 F2400 X183.97 Y150.39 E872.66507
G0 F12000 X184.50 Y150.36
G1 F2400 X178.01 Y143.88 E872.96955
G0 F12000 X178.58 Y143.88
G1 F2400 X184.50 Y149.80 E873.24757
G0 F12000 X184.50 Y149.24
G1 F2400 X179.14 Y143.88 E873.49910
G0 F12000 X179.71 Y143.88
G1 F2400 X184.50 Y148.67 E873.72418
G0 F12000 X184.50 Y148.11
G1 F2400 X180.27 Y143.88 E873.92276
G0 F12000 X180.83 Y143.88
G1 F2400 X184.50 Y147.54 E874.09486
G0 F12000 X184.50 Y146.98
G1 F2400 X181.40 Y143.88 E874.24050
G0 F12000 X181.53 Y143.45
G1 F2400 X184.50 Y146.41 E874.37976
G0 F12000 X184.50 Y145.85
G1 F2400 X181.53 Y142.88 E874.51901
G0 F12000 X181.53 Y142.32
G1 F2400 X184.50 Y145.29 E874.65829
G0 F12000 X184.50 Y144.72
G1 F2400 X181.53 Y141.75 E874.79757
G0 F12000 X181.53 Y141.19
G1 F2400 X184.50 Y144.16 E874.93683
G0 F12000 X184.50 Y143.59
G1 F2400 X181.53 Y140.62 E875.07609
G0 F12000 X181.53 Y140.06
G1 F2400 X184.50 Y143.03 E875.21537
G0 F12000 X184.50 Y142.47
G1 F2400 X181.53 Y139.50 E875.35465
G0 F12000 X181.53 Y138.93
G1 F2400 X184.50 Y141.90 E875.49390
G0 F12000 X184.50 Y141.34
G1 F2400 X182.02 Y138.85 E875.61029
G0 F12000 X182.59 Y138.85
G1 F2400 X184.50 Y140.77 E875.70021
G0 F12000 X184.50 Y140.21
G1 F2400 X183.15 Y138.85 E875.76364
G0 F12000 X183.71 Y138.85
G1 F2400 X184.50 Y139.64 E875.80061
G0 F12000 X184.50 Y139.08
G1 F2400 X184.28 Y138.85 E875.81110
G0 F12000 X180.94 Y143.28
G0 X163.09 Y150.39
G1 F2400 X160.38 Y147.69 E875.93813
G0 F12000 X161.10 Y148.97
G1 F2400 X162.52 Y150.39 E876.00490
G0 F12000 X161.96 Y150.39
G1 F2400 X161.48 Y149.91 E876.02761
G0 F12000 X158.17 Y146.05
G0 X155.04 Y144.37
G0 X151.51 Y144.02
G0 X148.90 Y144.10
G1 F2400 X148.59 Y144.07 E876.03842
G1 X148.11 Y143.88 E876.05560
G0 F12000 X147.54 Y143.88
G1 F2400 X148.12 Y144.45 E876.08267
G0 F12000 X147.75 Y144.64
G1 F2400 X146.98 Y143.88 E876.11868
G0 F12000 X146.41 Y143.88
G1 F2400 X147.39 Y144.85 E876.16466
G0 F12000 X147.04 Y145.07
G1 F2400 X145.85 Y143.88 E876.22054
G0 F12000 X145.28 Y143.88
G1 F2400 X146.72 Y145.31 E876.28771
G0 F12000 X146.39 Y145.55
G1 F2400 X144.72 Y143.88 E876.36618
G0 F12000 X144.16 Y143.88
G1 F2400 X146.09 Y145.81 E876.45681
G0 F12000 X145.79 Y146.08
G1 F2400 X143.59 Y143.88 E876.56008
G0 F12000 X143.03 Y143.88
G1 F2400 X145.51 Y146.36 E876.67655
G0 F12000 X145.24 Y146.65
G1 F2400 X142.46 Y143.88 E876.80680
G0 F12000 X141.90 Y143.88
G1 F2400 X144.97 Y146.94 E876.95080
G0 F12000 X144.73 Y147.27
G1 F2400 X141.34 Y143.88 E877.10995
G0 F12000 X140.77 Y143.88
G1 F2400 X144.49 Y147.59 E877.28428
G0 F12000 X144.26 Y147.93
G1 F2400 X140.21 Y143.88 E877.47460
G0 F12000 X139.64 Y143.88
G1 F2400 X144.05 Y148.28 E877.68147
G0 F12000 X143.85 Y148.65
G1 F2400 X139.08 Y143.88 E877.90528
G0 F12000 X138.51 Y143.88
G1 F2400 X143.67 Y149.03 E878.14710
G0 F12000 X143.49 Y149.41
G1 F2400 X137.95 Y143.88 E878.40698
G0 F12000 X137.38 Y143.88
G1 F2400 X143.34 Y149.83 E878.68639
G0 F12000 X143.19 Y150.25
G1 F2400 X136.82 Y143.88 E878.98529
G0 F12000 X136.26 Y143.88
G1 F2400 X142.77 Y150.39 E879.29111
G0 F12000 X142.21 Y150.39
G1 F2400 X135.69 Y143.88 E879.59693
G0 F12000 X135.13 Y143.88
G1 F2400 X141.65 Y150.39 E879.90275
G0 F12000 X141.08 Y150.39
G1 F2400 X134.56 Y143.88 E880.20857
G0 F12000 X134.00 Y143.88
G1 F2400 X140.52 Y150.39 E880.51439
G0 F12000 X139.95 Y150.39
G1 F2400 X133.44 Y143.88 E880.82021
G0 F12000 X132.87 Y143.88
G1 F2400 X139.39 Y150.39 E881.12603
G0 F12000 X138.82 Y150.39
G1 F2400 X132.31 Y143.88 E881.43185
G0 F12000 X131.74 Y143.88
G1 F2400 X138.26 Y150.39 E881.73767
G0 F12000 X137.70 Y150.39
G1 F2400 X131.18 Y143.88 E882.04349
G0 F12000 X130.61 Y143.88
G1 F2400 X137.13 Y150.39 E882.34934
G0 F12000 X136.57 Y150.39
G1 F2400 X130.05 Y143.88 E882.65516
G0 F12000 X129.49 Y143.88
G1 F2400 X136.00 Y150.39 E882.96098
G0 F12000 X135.44 Y150.39
G1 F2400 X128.92 Y143.88 E883.26680
G0 F12000 X128.36 Y143.88
G1 F2400 X134.87 Y150.39 E883.57262
G0 F12000 X134.31 Y150.39
G1 F2400 X127.79 Y143.88 E883.87844
G0 F12000 X127.23 Y143.88
G1 F2400 X133.75 Y150.39 E884.18426
G0 F12000 X133.18 Y150.39
G1 F2400 X126.66 Y143.88 E884.49008
G0 F12000 X126.10 Y143.88
G1 F2400 X132.62 Y150.39 E884.79590
G0 F12000 X132.22 Y150.56
G1 F2400 X125.53 Y143.88 E885.10934
G0 F12000 X124.97 Y143.88
G1 F2400 X132.22 Y151.12 E885.44927
G0 F12000 X132.22 Y151.68
G1 F2400 X124.41 Y143.88 E885.81569
G0 F12000 X123.84 Y143.88
G1 F2400 X132.22 Y152.25 E886.20857
G0 F12000 X132.22 Y152.81
G1 F2400 X123.28 Y143.88 E886.62791
G0 F12000 X123.26 Y143.86
G1 F2400 X120.50 Y141.09 E886.75767
G0 F12000 X120.50 Y141.66
G1 F2400 X132.22 Y153.38 E887.30756
G0 F12000 X132.22 Y153.94
G1 F2400 X120.50 Y142.22 E887.85746
G0 F12000 X120.50 Y142.79
G1 F2400 X132.22 Y154.50 E888.40733
G0 F12000 X132.22 Y155.07
G1 F2400 X120.50 Y143.35 E888.95720
G0 F12000 X120.50 Y143.91
G1 F2400 X126.97 Y150.39 E889.26119
G0 F12000 X126.41 Y150.39
G1 F2400 X120.50 Y144.48 E889.53869
G0 F12000 X120.50 Y145.04
G1 F2400 X125.85 Y150.39 E889.78971
G0 F12000 X125.28 Y150.39
G1 F2400 X120.50 Y145.61 E890.01427
G0 F12000 X120.50 Y146.17
G1 F2400 X124.72 Y150.39 E890.21236
G0 F12000 X124.15 Y150.39
G1 F2400 X120.50 Y146.74 E890.38397
G0 F12000 X120.50 Y147.30
G1 F2400 X123.59 Y150.39 E890.52909
G0 F12000 X123.03 Y150.39
G1 F2400 X120.50 Y147.86 E890.64775
G0 F12000 X120.50 Y148.43
G1 F2400 X122.46 Y150.39 E890.73992
G0 F12000 X121.90 Y150.39
G1 F2400 X120.50 Y148.99 E890.80561
G0 F12000 X120.50 Y149.56
G1 F2400 X121.33 Y150.39 E890.84483
G0 F12000 X120.77 Y150.39
G1 F2400 X120.50 Y150.12 E890.85760
G0 F12000 X127.45 Y150.87
G1 F2400 X132.22 Y155.63 E891.08107
G0 F12000 X132.22 Y156.20
G1 F2400 X127.45 Y151.44 E891.30455
G0 F12000 X127.45 Y152.00
G1 F2400 X132.22 Y156.76 E891.52803
G0 F12000 X132.22 Y157.33
G1 F2400 X127.45 Y152.56 E891.75153
G0 F12000 X127.45 Y153.13
G1 F2400 X132.22 Y157.89 E891.97500
G0 F12000 X132.22 Y158.46
G1 F2400 X127.45 Y153.69 E892.19848
G0 F12000 X127.45 Y154.26
G1 F2400 X132.22 Y159.02 E892.42196
G0 F12000 X132.22 Y159.58
G1 F2400 X127.45 Y154.82 E892.64543
G0 F12000 X127.45 Y155.38
G1 F2400 X132.22 Y160.15 E892.86891
G0 F12000 X132.22 Y160.71
G1 F2400 X127.45 Y155.95 E893.09239
G0 F12000 X127.45 Y156.51
G1 F2400 X132.21 Y161.27 E893.31537
G0 F12000 X131.64 Y161.26
G1 F2400 X127.45 Y157.08 E893.51182
G0 F12000 X127.45 Y157.64
G1 F2400 X131.07 Y161.26 E893.68176
G0 F12000 X130.51 Y161.26
G1 F2400 X127.45 Y158.21 E893.82522
G0 F12000 X127.45 Y158.77
G1 F2400 X129.94 Y161.26 E893.94217
G0 F12000 X129.41 Y161.29
G1 F2400 X127.45 Y159.34 E894.03403
G0 F12000 X127.45 Y159.90
G1 F2400 X128.96 Y161.40 E894.10460
G0 F12000 X128.39 Y161.40
G1 F2400 X127.45 Y160.46 E894.14866
G0 F12000 X127.45 Y161.03
G1 F2400 X127.83 Y161.40 E894.16621
G0 F12000 X126.86 Y150.99
G0 X123.26 Y143.29
G1 F2400 X120.50 Y140.53 E894.29599
G0 F12000 X120.50 Y139.96
G1 F2400 X123.26 Y142.73 E894.42576
G0 F12000 X123.26 Y142.16
G1 F2400 X120.50 Y139.40 E894.55552
G0 F12000 X120.52 Y138.85
G1 F2400 X123.26 Y141.60 E894.68438
G0 F12000 X123.26 Y141.04
G1 F2400 X121.08 Y138.85 E894.78676
G0 F12000 X121.64 Y138.85
G1 F2400 X123.26 Y140.47 E894.86268
G0 F12000 X123.26 Y139.91
G1 F2400 X122.21 Y138.85 E894.91211
G0 F12000 X122.77 Y138.85
G1 F2400 X123.26 Y139.34 E894.93507
;LAYER:3
G0 F12000 X123.40 Y138.72 Z0.90
;TYPE:WALL-INNER
G1 F2400 X123.40 Y143.74 E895.10159
G1 X150.65 Y143.74 E896.00573
G1 X150.55 Y143.75 E896.00935
G1 X149.64 Y143.98 E896.04027
G1 X148.76 Y144.29 E896.07121
G1 X147.92 Y144.69 E896.10215
G1 X147.12 Y145.17 E896.13308
G1 X146.37 Y145.73 E896.16402
G1 X145.76 Y146.28 E896.19134
G1 X145.06 Y147.04 E896.22571
G1 X144.50 Y147.79 E896.25683
G1 X144.02 Y148.60 E896.28781
G1 X143.62 Y149.44 E896.31874
G1 X143.31 Y150.32 E896.34974
