;-- START GCODE --
;Sliced for Type A Machines Series 1
;Sliced at: Fri 07-10-2016 19:53:30
;Basic settings: Layer height: 0.2 Walls: 1.5 Fill: 100
;Print Speed: 100 Support: 0
;Retraction Speed: 40 Retraction Distance: 1.2
;Print time: #P_TIME#
;Filament used: #F_AMNT#m #F_WGHT#g
;Filament cost: #F_COST#
M106 S255	 ;start with the fan on
G21        ;metric values
G90        ;absolute positioning
M106 S255    ;start with the fan on
G28     ;move to endstops
G29		;allows for auto-levelling
G1 X150 Y5  Z15.0 F6000 ;center and move the platform down 15mm
M109 S220 ;Heat To temp
G92 E0                  ;zero the extruded length
G1 F200 E30              ;extrude 30mm of feed stock
G92 E0                  ;zero the extruded length again
G1 X175 Y25  Z0 F6000 ;remove bugger
G1 X220 F6000 ;remove bugger
G1 X150 Y150  Z15 F6000 ;recenter and begin
G1 F6000

;Layer count: 120
;LAYER:0
M106 S255
G0 F6000 X130.30 Y136.44 Z0.30
;TYPE:SKIRT
G1 F2700 X127.47 Y139.88 E0.27761
G1 X125.38 Y143.81 E0.55529
G1 X124.08 Y148.07 E0.83316
G1 X123.65 Y152.50 E1.11077
G1 X124.08 Y156.93 E1.38837
G1 X125.38 Y161.19 E1.66624
G1 X127.47 Y165.12 E1.94393
G1 X130.30 Y168.56 E2.22153
G1 X133.74 Y171.39 E2.49914
G1 X137.67 Y173.49 E2.77682
G1 X141.93 Y174.78 E3.05469
G1 X146.36 Y175.22 E3.33236
G1 X150.79 Y174.78 E3.60991
G1 X155.06 Y173.48 E3.88786
G1 X158.98 Y171.39 E4.16546
G1 X162.42 Y168.56 E4.44307
G1 X165.25 Y165.12 E4.72067
G1 X167.34 Y161.19 E4.99836
G1 X168.64 Y156.93 E5.27617
G1 X169.07 Y152.50 E5.55384
G1 X168.64 Y148.07 E5.83151
G1 X167.34 Y143.81 E6.10932
G1 X165.25 Y139.88 E6.38701
G1 X162.42 Y136.44 E6.66461
G1 X158.98 Y133.61 E6.94222
G1 X155.06 Y131.52 E7.21982
G1 X150.79 Y130.22 E7.49777
G1 X146.36 Y129.78 E7.77532
G1 X141.93 Y130.22 E8.05299
G1 X137.67 Y131.51 E8.33086
G1 X133.74 Y133.61 E8.60855
G1 X130.30 Y136.44 E8.88615
G0 F6000 X129.94 Y136.08
G1 F2700 X127.05 Y139.60 E9.17014
G1 X124.91 Y143.62 E9.45382
G1 X123.59 Y147.97 E9.73737
G1 X123.14 Y152.50 E10.02149
G1 X123.59 Y157.03 E10.30561
G1 X124.91 Y161.38 E10.58916
G1 X127.05 Y165.40 E10.87284
G1 X129.94 Y168.92 E11.15683
G1 X133.46 Y171.81 E11.44081
G1 X137.47 Y173.95 E11.72450
G1 X141.83 Y175.27 E12.00837
G1 X146.36 Y175.72 E12.29224
G1 X150.89 Y175.27 E12.57599
G1 X155.25 Y173.95 E12.85986
G1 X159.26 Y171.81 E13.14355
G1 X162.78 Y168.92 E13.42753
G1 X165.67 Y165.40 E13.71152
G1 X167.81 Y161.38 E13.99520
G1 X169.13 Y157.03 E14.27907
G1 X169.58 Y152.50 E14.56288
G1 X169.13 Y147.97 E14.84670
G1 X167.81 Y143.62 E15.13057
G1 X165.67 Y139.60 E15.41425
G1 X162.78 Y136.08 E15.69824
G1 X159.26 Y133.19 E15.98222
G1 X155.25 Y131.05 E16.26591
G1 X150.89 Y129.73 E16.54977
G1 X146.36 Y129.28 E16.83353
G1 X141.83 Y129.73 E17.11740
G1 X137.47 Y131.05 E17.40127
G1 X133.46 Y133.19 E17.68495
G1 X129.94 Y136.08 E17.96894
G0 F6000 X129.59 Y135.73
G1 F2700 X126.64 Y139.32 E18.25886
G1 X124.45 Y143.42 E18.54882
G1 X123.10 Y147.87 E18.83888
G1 X122.64 Y152.50 E19.12883
G1 X123.10 Y157.13 E19.41878
G1 X124.45 Y161.58 E19.70885
G1 X126.64 Y165.68 E19.99881
G1 X129.59 Y169.27 E20.28872
G1 X133.18 Y172.22 E20.57864
G1 X137.28 Y174.41 E20.86860
G1 X141.73 Y175.76 E21.15867
G1 X146.36 Y176.22 E21.44868
G1 X150.99 Y175.76 E21.73864
G1 X155.44 Y174.41 E22.02863
G1 X159.54 Y172.22 E22.31862
G1 X163.13 Y169.27 E22.60853
G1 X166.08 Y165.68 E22.89845
G1 X168.27 Y161.58 E23.18841
G1 X169.62 Y157.13 E23.47848
G1 X170.08 Y152.50 E23.76843
G1 X169.62 Y147.87 E24.05839
G1 X168.27 Y143.42 E24.34845
G1 X166.08 Y139.32 E24.63841
G1 X163.13 Y135.73 E24.92833
G1 X159.54 Y132.78 E25.21825
G1 X155.44 Y130.59 E25.50824
G1 X150.99 Y129.24 E25.79822
G1 X146.36 Y128.78 E26.08818
G1 X141.73 Y129.24 E26.37820
G1 X137.28 Y130.59 E26.66826
G1 X133.18 Y132.78 E26.95822
G1 X129.59 Y135.73 E27.24814
G0 F6000 X129.23 Y135.37
G1 F2700 X126.22 Y139.04 E27.54440
G1 X123.98 Y143.23 E27.84039
G1 X122.60 Y147.78 E28.13651
G1 X122.14 Y152.50 E28.43260
G1 X122.60 Y157.22 E28.72869
G1 X123.98 Y161.77 E29.02481
G1 X126.22 Y165.96 E29.32080
G1 X129.23 Y169.63 E29.61706
G1 X132.91 Y172.64 E29.91332
G1 X137.09 Y174.88 E30.20931
G1 X141.63 Y176.26 E30.50537
G1 X146.36 Y176.72 E30.80159
G1 X151.09 Y176.26 E31.09768
G1 X155.63 Y174.88 E31.39372
G1 X159.81 Y172.64 E31.68974
G1 X163.49 Y169.63 E31.98600
G1 X166.50 Y165.96 E32.28225
G1 X168.74 Y161.77 E32.57824
G1 X170.12 Y157.23 E32.87430
G1 X170.58 Y152.50 E33.17046
G1 X170.12 Y147.77 E33.46661
G1 X168.74 Y143.23 E33.76267
G1 X166.50 Y139.04 E34.05866
G1 X163.49 Y135.37 E34.35492
G1 X159.81 Y132.36 E34.65118
G1 X155.63 Y130.12 E34.94720
G1 X151.09 Y128.74 E35.24324
G1 X146.36 Y128.28 E35.53933
G1 X141.63 Y128.74 E35.83555
G1 X137.09 Y130.12 E36.13161
G1 X132.91 Y132.36 E36.42760
G1 X129.23 Y135.37 E36.72386
G0 F6000 X128.88 Y135.02
G1 F2700 X125.80 Y138.77 E37.02628
G1 X123.52 Y143.04 E37.32821
G1 X122.11 Y147.68 E37.63060
G1 X121.64 Y152.50 E37.93289
G1 X122.11 Y157.32 E38.23518
G1 X123.52 Y161.96 E38.53757
G1 X125.80 Y166.23 E38.83950
G1 X128.88 Y169.98 E39.14192
G1 X132.63 Y173.06 E39.44434
G1 X136.90 Y175.34 E39.74628
G1 X141.54 Y176.75 E40.04867
G1 X146.36 Y177.22 E40.35102
G1 X151.19 Y176.75 E40.65332
G1 X155.82 Y175.34 E40.95565
G1 X160.09 Y173.06 E41.25758
G1 X163.84 Y169.98 E41.56000
G1 X166.92 Y166.23 E41.86242
G1 X169.20 Y161.96 E42.16436
G1 X170.61 Y157.32 E42.46675
G1 X171.08 Y152.50 E42.76904
G1 X170.61 Y147.68 E43.07133
G1 X169.20 Y143.04 E43.37373
G1 X166.92 Y138.77 E43.67566
G1 X163.84 Y135.02 E43.97808
G1 X160.09 Y131.94 E44.28050
G1 X155.82 Y129.66 E44.58243
G1 X151.19 Y128.25 E44.88477
G1 X146.36 Y127.78 E45.18706
G1 X141.54 Y128.25 E45.48941
G1 X136.90 Y129.66 E45.79181
G1 X132.63 Y131.94 E46.09374
G1 X128.88 Y135.02 E46.39616
G0 F6000 X128.52 Y134.66
G1 F2700 X125.38 Y138.49 E46.70460
G1 X123.06 Y142.84 E47.01276
G1 X121.62 Y147.58 E47.32164
G1 X121.13 Y152.50 E47.62976
G1 X121.62 Y157.42 E47.93788
G1 X123.06 Y162.16 E48.24676
G1 X125.38 Y166.51 E48.55492
G1 X128.52 Y170.34 E48.86336
G1 X132.34 Y173.48 E49.17180
G1 X136.70 Y175.81 E49.47996
G1 X141.44 Y177.24 E49.78884
G1 X146.36 Y177.73 E50.09703
G1 X151.28 Y177.24 E50.40546
G1 X156.01 Y175.81 E50.71372
G1 X160.38 Y173.48 E51.02215
G1 X164.20 Y170.34 E51.33059
G1 X167.34 Y166.51 E51.63903
G1 X169.66 Y162.16 E51.94719
G1 X171.10 Y157.42 E52.25607
G1 X171.59 Y152.50 E52.56420
G1 X171.10 Y147.58 E52.87234
G1 X169.66 Y142.84 E53.18122
G1 X167.34 Y138.49 E53.48937
G1 X164.20 Y134.66 E53.79782
G1 X160.38 Y131.52 E54.10626
G1 X156.01 Y129.19 E54.41469
G1 X151.28 Y127.76 E54.72294
G1 X146.36 Y127.27 E55.03138
G1 X141.44 Y127.76 E55.33957
G1 X136.70 Y129.19 E55.64845
G1 X132.34 Y131.52 E55.95660
G1 X128.52 Y134.66 E56.26505
G0 F6000 X128.17 Y134.31
G1 F2700 X124.97 Y138.21 E56.57957
G1 X122.59 Y142.65 E56.89403
G1 X121.13 Y147.48 E57.20859
G1 X120.63 Y152.50 E57.52323
G1 X121.13 Y157.52 E57.83786
G1 X122.59 Y162.35 E58.15243
G1 X124.97 Y166.79 E58.46689
G1 X128.17 Y170.69 E58.78141
G1 X132.06 Y173.89 E59.09593
G1 X136.51 Y176.27 E59.41038
G1 X141.34 Y177.74 E59.72527
G1 X146.36 Y178.23 E60.03966
G1 X151.38 Y177.74 E60.35399
G1 X156.21 Y176.27 E60.66881
G1 X160.66 Y173.89 E60.98327
G1 X164.55 Y170.69 E61.29779
G1 X167.75 Y166.79 E61.61231
G1 X170.13 Y162.35 E61.92677
G1 X171.59 Y157.52 E62.24165
G1 X172.09 Y152.50 E62.55598
G1 X171.59 Y147.48 E62.87031
G1 X170.13 Y142.65 E63.18520
G1 X167.75 Y138.21 E63.49966
G1 X164.55 Y134.31 E63.81418
G1 X160.66 Y131.11 E64.12870
G1 X156.21 Y128.73 E64.44315
G1 X151.38 Y127.27 E64.75798
G1 X146.36 Y126.77 E65.07231
G1 X141.34 Y127.27 E65.38670
G1 X136.51 Y128.73 E65.70158
G1 X132.06 Y131.11 E66.01604
G1 X128.17 Y134.31 E66.33056
G0 F6000 X127.81 Y133.95
G1 F2700 X124.55 Y137.93 E66.65145
G1 X122.13 Y142.46 E66.97169
G1 X120.63 Y147.38 E67.29270
G1 X120.13 Y152.50 E67.61329
G1 X120.63 Y157.62 E67.93389
G1 X122.13 Y162.54 E68.25490
G1 X124.55 Y167.07 E68.57514
G1 X127.81 Y171.05 E68.89603
G1 X131.79 Y174.31 E69.21692
G1 X136.32 Y176.73 E69.53715
G1 X141.24 Y178.23 E69.85817
G1 X146.36 Y178.73 E70.17883
G1 X151.47 Y178.23 E70.49930
G1 X156.40 Y176.73 E70.82046
G1 X160.93 Y174.31 E71.14061
G1 X164.91 Y171.05 E71.46150
G1 X168.17 Y167.07 E71.78239
G1 X170.59 Y162.54 E72.10262
G1 X172.09 Y157.62 E72.42364
G1 X172.59 Y152.50 E72.74424
G1 X172.09 Y147.38 E73.06483
G1 X170.59 Y142.46 E73.38585
G1 X168.17 Y137.93 E73.70608
G1 X164.91 Y133.95 E74.02698
G1 X160.93 Y130.69 E74.34787
G1 X156.40 Y128.27 E74.66802
G1 X151.47 Y126.77 E74.98917
G1 X146.36 Y126.27 E75.30964
G1 X141.24 Y126.77 E75.63030
G1 X136.32 Y128.27 E75.95132
G1 X131.79 Y130.69 E76.27155
G1 X127.81 Y133.95 E76.59244
G0 F6000 X127.46 Y133.60
G1 F2700 X124.13 Y137.65 E76.91933
G1 X121.66 Y142.27 E77.24609
G1 X120.14 Y147.29 E77.57302
G1 X119.63 Y152.50 E77.89976
G1 X120.14 Y157.71 E78.22650
G1 X121.66 Y162.73 E78.55343
G1 X124.13 Y167.35 E78.88019
G1 X127.46 Y171.40 E79.20707
G1 X131.51 Y174.73 E79.53395
G1 X136.13 Y177.20 E79.86072
G1 X141.15 Y178.72 E80.18765
G1 X146.36 Y179.24 E80.51446
G1 X151.57 Y178.72 E80.84120
G1 X156.59 Y177.20 E81.16808
G1 X161.21 Y174.73 E81.49484
G1 X165.26 Y171.40 E81.82172
G1 X168.59 Y167.35 E82.14860
G1 X171.06 Y162.73 E82.47536
G1 X172.58 Y157.71 E82.80230
G1 X173.09 Y152.50 E83.12904
G1 X172.58 Y147.29 E83.45578
G1 X171.06 Y142.27 E83.78272
G1 X168.59 Y137.65 E84.10948
G1 X165.26 Y133.60 E84.43636
G1 X161.21 Y130.27 E84.76324
G1 X156.59 Y127.80 E85.09000
G1 X151.57 Y126.28 E85.41688
G1 X146.36 Y125.77 E85.74362
G1 X141.15 Y126.28 E86.07043
G1 X136.13 Y127.80 E86.39736
G1 X131.51 Y130.27 E86.72412
G1 X127.46 Y133.60 E87.05101
G0 F6000 X127.10 Y133.24
G1 F2700 X123.71 Y137.37 E87.38427
G1 X121.20 Y142.07 E87.71675
G1 X119.65 Y147.19 E88.05002
G1 X119.12 Y152.50 E88.38289
G1 X119.65 Y157.81 E88.71576
G1 X121.20 Y162.93 E89.04903
G1 X123.71 Y167.63 E89.38151
G1 X127.10 Y171.76 E89.71477
G1 X131.23 Y175.15 E90.04803
G1 X135.93 Y177.66 E90.38051
G1 X141.05 Y179.21 E90.71372
G1 X146.36 Y179.74 E91.04672
G1 X151.67 Y179.21 E91.37965
G1 X156.79 Y177.66 E91.71280
G1 X161.49 Y175.15 E92.04528
G1 X165.62 Y171.76 E92.37854
G1 X169.01 Y167.63 E92.71180
G1 X171.52 Y162.93 E93.04428
G1 X173.07 Y157.81 E93.37755
G1 X173.60 Y152.50 E93.71043
G1 X173.07 Y147.19 E94.04331
G1 X171.52 Y142.07 E94.37658
G1 X169.01 Y137.37 E94.70906
G1 X165.62 Y133.24 E95.04232
G1 X161.49 Y129.85 E95.37558
G1 X156.79 Y127.34 E95.70806
G1 X151.67 Y125.79 E96.04121
G1 X146.36 Y125.26 E96.37415
G1 X141.05 Y125.79 E96.70714
G1 X135.93 Y127.34 E97.04035
G1 X131.23 Y129.85 E97.37283
G1 X127.10 Y133.24 E97.70609
G0 F6000 X126.75 Y132.88
G1 F2700 X123.30 Y137.09 E98.04525
G1 X120.73 Y141.88 E98.38423
G1 X119.15 Y147.09 E98.72349
G1 X118.62 Y152.50 E99.06257
G1 X119.15 Y157.91 E99.40164
G1 X120.73 Y163.12 E99.74090
G1 X123.30 Y167.91 E100.07988
G1 X126.75 Y172.12 E100.41904
G1 X130.95 Y175.56 E100.75819
G1 X135.74 Y178.13 E101.09717
G1 X140.95 Y179.71 E101.43644
G1 X146.36 Y180.24 E101.77558
G1 X151.77 Y179.71 E102.11466
G1 X156.98 Y178.13 E102.45386
G1 X161.77 Y175.56 E102.79284
G1 X165.97 Y172.12 E103.13200
G1 X169.43 Y167.91 E103.47115
G1 X171.99 Y163.12 E103.81013
G1 X173.57 Y157.91 E104.14940
G1 X174.10 Y152.50 E104.48848
G1 X173.57 Y147.09 E104.82755
G1 X171.99 Y141.88 E105.16682
G1 X169.43 Y137.09 E105.50580
G1 X165.97 Y132.88 E105.84495
G1 X161.77 Y129.44 E106.18411
G1 X156.98 Y126.87 E106.52309
G1 X151.77 Y125.29 E106.86229
G1 X146.36 Y124.76 E107.20137
G1 X140.95 Y125.29 E107.54051
G1 X135.74 Y126.87 E107.87978
G1 X130.95 Y129.44 E108.21876
G1 X126.75 Y132.88 E108.55791
G0 F6000 X126.39 Y132.53
G1 F2700 X122.88 Y136.81 E108.90327
G1 X120.27 Y141.69 E109.24825
G1 X118.66 Y146.99 E109.59371
G1 X118.12 Y152.50 E109.93893
G1 X118.66 Y158.01 E110.28414
G1 X120.27 Y163.31 E110.62960
G1 X122.88 Y168.19 E110.97458
G1 X126.39 Y172.47 E111.31994
G1 X130.67 Y175.98 E111.66530
G1 X135.55 Y178.59 E112.01027
G1 X140.85 Y180.20 E112.35573
G1 X146.36 Y180.74 E112.70102
G1 X151.87 Y180.20 E113.04624
G1 X157.17 Y178.59 E113.39164
G1 X162.05 Y175.98 E113.73662
G1 X166.33 Y172.47 E114.08198
G1 X169.84 Y168.19 E114.42733
G1 X172.45 Y163.31 E114.77231
G1 X174.06 Y158.01 E115.11777
G1 X174.58 Y152.75 E115.44733
G1 X192.39 Y152.75 E116.55814
G1 X192.39 Y214.25 E120.39345
G1 X185.89 Y214.25 E120.79880
G1 X185.89 Y164.67 E123.89075
G1 X184.31 Y164.67 E123.98916
G1 X184.31 Y173.85 E124.56165
G1 X179.11 Y173.85 E124.88594
G1 X179.11 Y164.67 E125.45843
G1 X177.78 Y164.67 E125.54168
G1 X177.55 Y165.42 E125.59043
G1 X174.53 Y171.06 E125.98912
G1 X174.43 Y171.25 E126.00309
G1 X170.37 Y176.20 E126.40211
G1 X170.23 Y176.37 E126.41615
G1 X165.29 Y180.43 E126.81454
G1 X165.12 Y180.57 E126.82831
G1 X159.47 Y183.58 E127.22739
G1 X159.28 Y183.69 E127.24145
G1 X153.16 Y185.54 E127.63996
G1 X152.95 Y185.61 E127.65355
G1 X146.59 Y186.24 E128.05260
G1 X146.37 Y186.26 E128.06584
G1 X139.99 Y185.63 E128.46608
G1 X139.76 Y185.61 E128.48013
G1 X133.65 Y183.75 E128.87851
G1 X133.44 Y183.69 E128.89255
G1 X127.81 Y180.68 E129.29051
G1 X127.61 Y180.57 E129.30471
G1 X122.66 Y176.51 E129.70373
G1 X122.49 Y176.37 E129.71777
G1 X118.44 Y171.43 E130.11612
G1 X118.29 Y171.26 E130.12989
G1 X115.28 Y165.62 E130.52900
G1 X115.17 Y165.42 E130.54306
G1 X113.32 Y159.30 E130.94157
G1 X113.25 Y159.09 E130.95516
G1 X112.62 Y152.72 E131.35426
G1 X112.60 Y152.51 E131.36751
G1 X113.23 Y146.13 E131.76768
G1 X113.25 Y145.90 E131.78173
G1 X115.11 Y139.79 E132.18010
G1 X115.17 Y139.57 E132.19415
G1 X118.19 Y133.94 E132.59236
G1 X118.29 Y133.75 E132.60628
G1 X122.35 Y128.80 E133.00531
G1 X122.49 Y128.63 E133.01935
G1 X127.43 Y124.57 E133.41774
G1 X127.60 Y124.43 E133.43151
G1 X133.25 Y121.42 E133.83059
G1 X133.44 Y121.31 E133.84465
G1 X139.56 Y119.46 E134.24316
G1 X139.77 Y119.39 E134.25675
G1 X146.14 Y118.76 E134.65592
G1 X146.35 Y118.74 E134.66916
G1 X152.73 Y119.37 E135.06928
G1 X152.96 Y119.39 E135.08333
G1 X159.07 Y121.25 E135.48170
G1 X159.28 Y121.31 E135.49575
G1 X164.91 Y124.32 E135.89371
G1 X165.11 Y124.43 E135.90791
G1 X170.06 Y128.49 E136.30693
G1 X170.23 Y128.63 E136.32096
G1 X174.28 Y133.56 E136.71878
G1 X174.43 Y133.74 E136.73313
G1 X177.44 Y139.38 E137.13221
G1 X177.55 Y139.58 E137.14627
G1 X177.78 Y140.33 E137.19490
G1 X179.11 Y140.33 E137.27815
G1 X179.11 Y133.15 E137.72592
G1 X184.31 Y133.15 E138.05020
G1 X184.31 Y140.33 E138.49797
G1 X185.89 Y140.33 E138.59638
G1 X185.89 Y90.75 E141.68832
G1 X192.39 Y90.75 E142.09368
G1 X192.39 Y152.25 E145.92899
G1 X174.58 Y152.25 E147.03980
G1 X174.06 Y146.99 E147.36935
G1 X172.45 Y141.69 E147.71481
G1 X169.84 Y136.81 E148.05979
G1 X166.33 Y132.53 E148.40515
G1 X162.05 Y129.02 E148.75051
G1 X157.17 Y126.41 E149.09549
G1 X151.87 Y124.80 E149.44089
G1 X146.36 Y124.26 E149.78611
G1 X140.85 Y124.80 E150.13139
G1 X135.55 Y126.41 E150.47685
G1 X130.67 Y129.02 E150.82183
G1 X126.39 Y132.53 E151.16719
G0 F6000 X126.03 Y132.18
G1 F2700 X122.46 Y136.53 E151.51870
G1 X119.81 Y141.50 E151.86991
G1 X118.17 Y146.89 E152.22136
G1 X117.62 Y152.50 E152.57278
G1 X118.17 Y158.11 E152.92420
G1 X119.81 Y163.50 E153.27566
G1 X122.46 Y168.47 E153.62686
G1 X126.03 Y172.82 E153.97838
G1 X130.39 Y176.40 E154.32989
G1 X135.36 Y179.06 E154.68109
G1 X140.75 Y180.69 E155.03255
G1 X146.36 Y181.24 E155.38404
G1 X151.97 Y180.69 E155.73546
G1 X157.36 Y179.06 E156.08686
G1 X162.33 Y176.40 E156.43806
G1 X166.69 Y172.82 E156.78957
G1 X170.26 Y168.47 E157.14109
G1 X172.91 Y163.50 E157.49229
G1 X174.55 Y158.11 E157.84375
G1 X175.03 Y153.25 E158.14817
G1 X191.89 Y153.25 E159.19955
G1 X191.89 Y213.75 E162.97249
G1 X186.39 Y213.75 E163.31549
G1 X186.39 Y164.17 E166.40743
G1 X183.81 Y164.17 E166.56821
G1 X183.81 Y173.35 E167.14070
G1 X179.61 Y173.35 E167.40262
G1 X179.61 Y164.17 E167.97511
G1 X177.41 Y164.17 E168.11268
G1 X177.08 Y165.23 E168.18151
G1 X174.09 Y170.82 E168.57694
G1 X174.10 Y170.82 E168.57700
G1 X174.01 Y170.97 E168.58810
G1 X169.99 Y175.88 E168.98392
G1 X169.87 Y176.02 E168.99491
G1 X164.97 Y180.04 E169.39030
G1 X164.84 Y180.15 E169.40110
G1 X159.24 Y183.14 E169.79700
G1 X159.08 Y183.22 E169.80802
G1 X153.03 Y185.06 E170.20274
G1 X152.85 Y185.12 E170.21410
G1 X146.55 Y185.74 E170.60932
G1 X146.37 Y185.76 E170.62037
G1 X140.04 Y185.13 E171.01709
G1 X139.86 Y185.11 E171.02808
G1 X133.80 Y183.27 E171.42339
G1 X133.63 Y183.22 E171.43442
G1 X128.04 Y180.24 E171.82951
G1 X128.04 Y180.24 E171.82957
G1 X127.89 Y180.15 E171.84068
G1 X122.98 Y176.12 E172.23650
G1 X122.84 Y176.01 E172.24748
G1 X118.82 Y171.11 E172.64283
G1 X118.71 Y170.98 E172.65363
G1 X115.72 Y165.38 E173.04956
G1 X115.64 Y165.22 E173.06058
G1 X113.80 Y159.16 E173.45601
G1 X113.74 Y158.99 E173.46666
G1 X113.12 Y152.68 E173.86257
G1 X113.10 Y152.51 E173.87299
G1 X113.73 Y146.18 E174.26958
G1 X113.75 Y146.00 E174.28063
G1 X115.59 Y139.94 E174.67594
G1 X115.64 Y139.77 E174.68697
G1 X118.63 Y134.18 E175.08209
G1 X118.62 Y134.18 E175.08215
G1 X118.71 Y134.03 E175.09326
G1 X122.73 Y129.12 E175.48904
G1 X122.85 Y128.98 E175.50003
G1 X127.75 Y124.96 E175.89541
G1 X127.88 Y124.85 E175.90621
G1 X133.48 Y121.86 E176.30211
G1 X133.64 Y121.78 E176.31313
G1 X139.69 Y119.94 E176.70785
G1 X139.87 Y119.88 E176.71921
G1 X146.18 Y119.26 E177.11456
G1 X146.35 Y119.24 E177.12561
G1 X152.68 Y119.87 E177.52221
G1 X152.86 Y119.89 E177.53319
G1 X158.92 Y121.73 E177.92851
G1 X159.09 Y121.78 E177.93953
G1 X164.68 Y124.77 E178.33462
G1 X164.68 Y124.76 E178.33468
G1 X164.84 Y124.85 E178.34579
G1 X169.74 Y128.88 E178.74161
G1 X169.88 Y128.99 E178.75260
G1 X173.90 Y133.88 E179.14758
G1 X174.01 Y134.02 E179.15878
G1 X177.00 Y139.62 E179.55468
G1 X177.09 Y139.78 E179.56565
G1 X177.41 Y140.83 E179.63440
G1 X179.61 Y140.83 E179.77197
G1 X179.61 Y133.65 E180.21974
G1 X183.81 Y133.65 E180.48166
G1 X183.81 Y140.83 E180.92942
G1 X186.39 Y140.83 E181.09020
G1 X186.39 Y91.25 E184.18214
G1 X191.89 Y91.25 E184.52514
G1 X191.89 Y151.75 E188.29808
G1 X175.03 Y151.75 E189.34946
G1 X174.55 Y146.89 E189.65388
G1 X172.91 Y141.50 E190.00534
G1 X170.26 Y136.53 E190.35654
G1 X166.69 Y132.18 E190.70806
G1 X162.33 Y128.60 E191.05957
G1 X157.36 Y125.94 E191.41077
G1 X151.97 Y124.31 E191.76217
G1 X146.36 Y123.76 E192.11359
G1 X140.75 Y124.31 E192.46508
G1 X135.36 Y125.94 E192.81654
G1 X130.39 Y128.60 E193.16774
G1 X126.03 Y132.18 E193.51926
G0 F6000 X125.68 Y131.82
G1 F2700 X122.04 Y136.26 E193.87711
G1 X119.34 Y141.30 E194.23406
G1 X117.67 Y146.80 E194.59216
G1 X117.11 Y152.50 E194.94941
G1 X117.67 Y158.20 E195.30666
G1 X119.34 Y163.70 E195.66476
G1 X122.04 Y168.74 E196.02171
G1 X125.68 Y173.18 E196.37957
G1 X130.12 Y176.82 E196.73742
G1 X135.16 Y179.52 E197.09437
G1 X140.66 Y181.19 E197.45248
G1 X146.36 Y181.75 E197.80979
G1 X152.06 Y181.19 E198.16705
G1 X157.56 Y179.52 E198.52509
G1 X162.60 Y176.82 E198.88204
G1 X167.04 Y173.18 E199.23990
G1 X170.68 Y168.74 E199.59775
G1 X173.38 Y163.70 E199.95470
G1 X175.04 Y158.20 E200.31280
G1 X175.48 Y153.75 E200.59172
G1 X191.39 Y153.75 E201.58366
G1 X191.39 Y213.25 E205.29425
G1 X186.89 Y213.25 E205.57488
G1 X186.89 Y163.67 E208.66682
G1 X183.31 Y163.67 E208.88996
G1 X183.31 Y172.85 E209.46245
G1 X180.11 Y172.85 E209.66201
G1 X180.11 Y163.67 E210.23450
G1 X177.03 Y163.67 E210.42639
G1 X176.62 Y165.03 E210.51523
G1 X173.65 Y170.59 E210.90780
G1 X173.59 Y170.70 E210.91564
G1 X169.60 Y175.56 E211.30828
G1 X169.52 Y175.66 E211.31625
G1 X164.66 Y179.65 E211.70861
G1 X164.56 Y179.73 E211.71645
G1 X159.00 Y182.70 E212.10911
G1 X158.89 Y182.76 E212.11701
G1 X152.88 Y184.59 E212.50901
G1 X152.75 Y184.62 E212.51717
G1 X146.50 Y185.24 E212.90913
G1 X146.37 Y185.25 E212.91736
G1 X140.09 Y184.64 E213.31057
G1 X139.97 Y184.62 E213.31847
G1 X133.94 Y182.80 E213.71085
G1 X133.82 Y182.76 E213.71882
G1 X128.28 Y179.79 E214.11115
G1 X128.16 Y179.73 E214.11898
G1 X123.30 Y175.74 E214.51162
G1 X123.20 Y175.66 E214.51959
G1 X119.21 Y170.79 E214.91191
G1 X119.13 Y170.70 E214.91976
G1 X116.16 Y165.15 E215.31245
G1 X116.10 Y165.03 E215.32034
G1 X114.27 Y159.01 E215.71279
G1 X114.24 Y158.89 E215.72051
G1 X113.62 Y152.63 E216.11321
G1 X113.61 Y152.51 E216.12074
G1 X114.22 Y146.23 E216.51389
G1 X114.24 Y146.11 E216.52180
G1 X116.06 Y140.09 E216.91417
G1 X116.10 Y139.96 E216.92214
G1 X119.07 Y134.41 E217.31450
G1 X119.13 Y134.30 E217.32233
G1 X123.12 Y129.44 E217.71493
G1 X123.20 Y129.34 E217.72290
G1 X128.06 Y125.35 E218.11526
G1 X128.16 Y125.27 E218.12311
G1 X133.72 Y122.30 E218.51577
G1 X133.83 Y122.24 E218.52366
G1 X139.84 Y120.42 E218.91566
G1 X139.97 Y120.38 E218.92383
G1 X146.22 Y119.76 E219.31591
G1 X146.35 Y119.75 E219.32413
G1 X152.63 Y120.36 E219.71722
G1 X152.75 Y120.38 E219.72513
G1 X158.78 Y122.20 E220.11750
G1 X158.90 Y122.24 E220.12547
G1 X164.44 Y125.21 E220.51766
G1 X164.56 Y125.27 E220.52564
G1 X169.42 Y129.26 E220.91827
G1 X169.52 Y129.34 E220.92624
G1 X173.51 Y134.21 E221.31861
G1 X173.59 Y134.30 E221.32645
G1 X176.56 Y139.85 E221.71911
G1 X176.62 Y139.97 E221.72701
G1 X177.03 Y141.33 E221.81584
G1 X180.11 Y141.33 E222.00773
G1 X180.11 Y134.15 E222.45549
G1 X183.31 Y134.15 E222.65506
G1 X183.31 Y141.33 E223.10282
G1 X186.89 Y141.33 E223.32595
G1 X186.89 Y91.75 E226.41790
G1 X191.39 Y91.75 E226.69853
G1 X191.39 Y151.25 E230.40912
G1 X175.48 Y151.25 E231.40106
G1 X175.04 Y146.80 E231.67998
G1 X173.38 Y141.30 E232.03808
G1 X170.68 Y136.26 E232.39503
G1 X167.04 Y131.82 E232.75288
G1 X162.60 Y128.18 E233.11074
G1 X157.56 Y125.48 E233.46769
G1 X152.06 Y123.81 E233.82573
G1 X146.36 Y123.25 E234.18299
G1 X140.66 Y123.81 E234.54030
G1 X135.16 Y125.48 E234.89841
G1 X130.12 Y128.18 E235.25536
G1 X125.68 Y131.82 E235.61321
G0 F6000 X125.33 Y131.47
G1 F2700 X121.62 Y135.97 E235.97700
G1 X118.88 Y141.12 E236.34053
G1 X117.18 Y146.70 E236.70422
G1 X116.61 Y152.50 E237.06793
G1 X117.18 Y158.30 E237.43164
G1 X118.88 Y163.88 E237.79533
G1 X121.62 Y169.03 E238.15886
G1 X125.33 Y173.53 E238.52265
G1 X129.83 Y177.24 E238.88643
G1 X134.97 Y179.98 E239.24997
G1 X140.56 Y181.68 E239.61360
G1 X146.36 Y182.25 E239.97744
G1 X152.17 Y181.68 E240.34121
G1 X157.75 Y179.98 E240.70478
G1 X162.89 Y177.24 E241.06832
G1 X167.40 Y173.53 E241.43210
G1 X171.10 Y169.03 E241.79589
G1 X173.84 Y163.88 E242.15942
G1 X175.54 Y158.31 E242.52305
G1 X175.94 Y154.25 E242.77716
G1 X190.89 Y154.25 E243.70967
G1 X190.89 Y212.75 E247.35789
G1 X187.39 Y212.75 E247.57616
G1 X187.39 Y163.17 E250.66811
G1 X182.81 Y163.17 E250.95361
G1 X182.81 Y172.35 E251.52610
G1 X180.61 Y172.35 E251.66329
G1 X180.61 Y163.17 E252.23578
G1 X176.66 Y163.17 E252.48199
G1 X176.16 Y164.84 E252.59089
G1 X173.18 Y170.42 E252.98523
G1 X169.21 Y175.25 E253.37467
G1 X169.16 Y175.31 E253.37954
G1 X164.34 Y179.27 E253.76889
G1 X164.28 Y179.32 E253.77376
G1 X158.70 Y182.30 E254.16810
G1 X152.73 Y184.11 E254.55734
G1 X152.73 Y184.11 E254.55740
G1 X152.65 Y184.13 E254.56235
G1 X146.44 Y184.74 E254.95175
G1 X146.44 Y184.74 E254.95181
G1 X146.36 Y184.75 E254.95652
G1 X140.15 Y184.14 E255.34616
G1 X140.07 Y184.13 E255.35106
G1 X134.09 Y182.32 E255.74043
G1 X134.02 Y182.30 E255.74526
G1 X128.44 Y179.32 E256.13954
G1 X123.61 Y175.35 E256.52899
G1 X123.56 Y175.30 E256.53386
G1 X119.59 Y170.48 E256.92317
G1 X119.55 Y170.42 E256.92804
G1 X116.56 Y164.84 E257.32241
G1 X114.75 Y158.87 E257.71164
G1 X114.75 Y158.87 E257.71171
G1 X114.73 Y158.79 E257.71666
G1 X114.12 Y152.58 E258.10611
G1 X114.12 Y152.58 E258.10617
G1 X114.11 Y152.50 E258.11088
G1 X114.72 Y146.28 E258.50045
G1 X114.73 Y146.21 E258.50535
G1 X116.54 Y140.23 E258.89473
G1 X116.56 Y140.16 E258.89956
G1 X119.55 Y134.58 E259.29387
G1 X123.51 Y129.75 E259.68327
G1 X123.56 Y129.69 E259.68814
G1 X128.38 Y125.73 E260.07750
G1 X128.44 Y125.68 E260.08237
G1 X134.02 Y122.70 E260.47670
G1 X139.99 Y120.89 E260.86594
G1 X139.99 Y120.89 E260.86600
G1 X140.07 Y120.87 E260.87095
G1 X146.28 Y120.26 E261.26047
G1 X146.28 Y120.26 E261.26054
G1 X146.36 Y120.25 E261.26525
G1 X152.57 Y120.86 E261.65476
G1 X152.65 Y120.87 E261.65966
G1 X158.63 Y122.68 E262.04903
G1 X158.70 Y122.70 E262.05387
G1 X164.28 Y125.68 E262.44815
G1 X169.10 Y129.65 E262.83759
G1 X169.16 Y129.70 E262.84246
G1 X173.12 Y134.52 E263.23173
G1 X173.18 Y134.58 E263.23668
G1 X176.16 Y140.16 E263.63102
G1 X176.66 Y141.83 E263.73992
G1 X180.61 Y141.83 E263.98613
G1 X180.61 Y134.65 E264.43389
G1 X182.81 Y134.65 E264.57109
G1 X182.81 Y141.83 E265.01885
G1 X187.39 Y141.83 E265.30435
G1 X187.39 Y92.25 E268.39629
G1 X190.89 Y92.25 E268.61456
G1 X190.89 Y150.75 E272.26279
G1 X175.94 Y150.75 E273.19530
G1 X175.54 Y146.69 E273.44940
G1 X173.84 Y141.12 E273.81303
G1 X171.10 Y135.97 E274.17657
G1 X167.40 Y131.47 E274.54036
G1 X162.89 Y127.76 E274.90414
G1 X157.75 Y125.02 E275.26768
G1 X152.17 Y123.32 E275.63125
G1 X146.36 Y122.75 E275.99502
G1 X140.56 Y123.32 E276.35886
G1 X134.97 Y125.02 E276.72249
G1 X129.83 Y127.76 E277.08602
G1 X125.33 Y131.47 E277.44981
G0 F6000 X121.96 Y128.48
G1 F2700 X122.14 Y128.27 E277.46695
G1 X127.11 Y124.19 E277.86760
G1 X127.32 Y124.02 E277.88509
G1 X133.01 Y120.98 E278.28730
G1 X133.25 Y120.85 E278.30445
G1 X139.39 Y118.98 E278.70466
G1 X139.67 Y118.90 E278.72249
G1 X146.06 Y118.27 E279.12285
G1 X146.34 Y118.24 E279.14099
G1 X152.79 Y118.87 E279.54466
G1 X153.06 Y118.90 E279.56180
G1 X159.22 Y120.77 E279.96311
G1 X159.48 Y120.85 E279.98029
G1 X165.15 Y123.88 E280.38109
G1 X165.39 Y124.01 E280.39834
G1 X170.38 Y128.10 E280.80055
G1 X170.59 Y128.28 E280.81768
G1 X174.66 Y133.25 E281.21834
G1 X174.84 Y133.46 E281.23583
G1 X177.88 Y139.15 E281.63803
G1 X178.01 Y139.39 E281.65519
G1 X178.15 Y139.83 E281.68374
G1 X178.61 Y139.83 E281.71274
G1 X178.61 Y132.65 E282.16050
G1 X184.81 Y132.65 E282.54715
G1 X184.81 Y139.83 E282.99491
G1 X185.39 Y139.83 E283.03096
G1 X185.39 Y90.25 E286.12290
G1 X192.89 Y90.25 E286.59062
G1 X192.89 Y214.75 E294.35479
G1 X185.39 Y214.75 E294.82251
G1 X185.39 Y165.17 E297.91445
G1 X184.81 Y165.17 E297.95050
G1 X184.81 Y174.35 E298.52299
G1 X178.61 Y174.35 E298.90964
G1 X178.61 Y165.17 E299.48213
G1 X178.15 Y165.17 E299.51106
G1 X178.01 Y165.61 E299.53975
G1 X174.98 Y171.29 E299.94153
G1 X174.85 Y171.53 E299.95850
G1 X170.76 Y176.52 E300.36071
G1 X170.58 Y176.73 E300.37784
G1 X165.62 Y180.81 E300.77850
G1 X165.40 Y180.98 E300.79599
G1 X159.71 Y184.02 E301.19819
G1 X159.47 Y184.15 E301.21535
G1 X153.33 Y186.02 E301.61556
G1 X153.05 Y186.10 E301.63339
G1 X146.67 Y186.73 E302.03362
G1 X146.38 Y186.76 E302.05176
G1 X139.93 Y186.13 E302.45556
G1 X139.66 Y186.10 E302.47269
G1 X133.50 Y184.23 E302.87400
G1 X133.24 Y184.15 E302.89118
G1 X127.57 Y181.12 E303.29227
G1 X127.33 Y180.99 E303.30923
G1 X122.34 Y176.90 E303.71144
G1 X122.13 Y176.72 E303.72858
G1 X118.05 Y171.75 E304.12990
G1 X117.88 Y171.54 E304.14669
G1 X114.84 Y165.85 E304.54892
G1 X114.71 Y165.61 E304.56608
G1 X112.84 Y159.47 E304.96628
G1 X112.76 Y159.19 E304.98411
G1 X112.13 Y152.81 E305.38441
G1 X112.10 Y152.52 E305.40254
G1 X112.73 Y146.07 E305.80627
G1 X112.76 Y145.80 E305.82341
G1 X114.63 Y139.64 E306.22471
G1 X114.71 Y139.38 E306.24190
G1 X117.75 Y133.71 E306.64301
G1 X117.87 Y133.47 E306.65998
G1 X121.96 Y128.48 E307.06215
G0 F6000 X121.58 Y128.16
G1 F2700 X121.78 Y127.92 E307.08234
G1 X126.80 Y123.80 E307.48667
G1 X127.04 Y123.60 E307.50647
G1 X132.77 Y120.53 E307.91188
G1 X133.06 Y120.38 E307.93208
G1 X139.27 Y118.50 E308.33670
G1 X139.57 Y118.41 E308.35611
G1 X146.00 Y117.77 E308.75955
G1 X146.34 Y117.73 E308.78069
G1 X152.84 Y118.37 E309.18781
G1 X153.16 Y118.41 E309.20803
G1 X159.37 Y120.29 E309.61238
G1 X159.67 Y120.39 E309.63257
G1 X165.38 Y123.44 E310.03620
G1 X165.67 Y123.59 E310.05662
G1 X170.70 Y127.72 E310.46202
G1 X170.94 Y127.92 E310.48221
G1 X175.06 Y132.94 E310.88654
G1 X175.26 Y133.18 E310.90634
G1 X178.11 Y138.51 E311.28332
G1 X178.11 Y132.15 E311.68008
G1 X184.89 Y132.15 E312.10277
G1 X184.89 Y89.75 E314.74695
G1 X193.39 Y89.75 E315.27704
G1 X193.39 Y215.25 E323.10356
G1 X184.89 Y215.25 E323.63364
G1 X184.89 Y174.85 E326.15310
G1 X178.11 Y174.85 E326.57579
G1 X178.11 Y166.49 E327.09727
G1 X175.42 Y171.53 E327.45361
G1 X175.27 Y171.81 E327.47367
G1 X171.14 Y176.84 E327.87906
G1 X170.94 Y177.09 E327.89926
G1 X165.92 Y181.20 E328.30358
G1 X165.68 Y181.40 E328.32339
G1 X159.95 Y184.47 E328.72880
G1 X159.66 Y184.62 E328.74900
G1 X153.45 Y186.50 E329.15362
G1 X153.15 Y186.59 E329.17303
G1 X146.72 Y187.23 E329.57634
G1 X146.38 Y187.26 E329.59748
G1 X139.88 Y186.63 E330.00473
G1 X139.56 Y186.59 E330.02494
G1 X133.35 Y184.71 E330.42930
G1 X133.05 Y184.61 E330.44949
G1 X127.34 Y181.56 E330.85312
G1 X127.05 Y181.41 E330.87354
G1 X122.02 Y177.28 E331.27894
G1 X121.77 Y177.07 E331.29918
G1 X117.66 Y172.06 E331.70347
G1 X117.46 Y171.82 E331.72318
G1 X114.39 Y166.09 E332.12868
G1 X114.24 Y165.80 E332.14888
G1 X112.36 Y159.59 E332.55350
G1 X112.27 Y159.29 E332.57291
G1 X111.63 Y152.82 E332.97846
G1 X111.60 Y152.52 E332.99742
G1 X112.23 Y146.02 E333.40460
G1 X112.27 Y145.70 E333.42481
G1 X114.15 Y139.50 E333.82916
G1 X114.25 Y139.19 E333.84936
G1 X117.30 Y133.47 E334.25343
G1 X117.45 Y133.19 E334.27344
G1 X121.58 Y128.16 E334.67879
G0 F6000 X121.19 Y127.85
G1 F2700 X121.43 Y127.56 E334.70209
G1 X126.47 Y123.42 E335.10838
G1 X126.76 Y123.18 E335.13216
G1 X132.54 Y120.09 E335.54081
G1 X132.87 Y119.92 E335.56411
G1 X139.09 Y118.03 E335.96978
G1 X139.47 Y117.91 E335.99410
G1 X145.96 Y117.28 E336.40103
G1 X146.34 Y117.23 E336.42469
G1 X152.89 Y117.88 E336.83539
G1 X153.26 Y117.92 E336.85868
G1 X159.51 Y119.81 E337.26597
G1 X159.87 Y119.93 E337.28924
G1 X165.62 Y123.00 E337.69577
G1 X165.95 Y123.18 E337.71929
G1 X171.01 Y127.33 E338.12783
G1 X171.30 Y127.57 E338.15113
G1 X175.44 Y132.61 E338.55741
G1 X175.68 Y132.90 E338.58120
G1 X177.61 Y136.52 E338.83690
G1 X177.61 Y131.65 E339.14036
G1 X184.39 Y131.65 E339.56305
G1 X184.39 Y89.25 E342.20723
G1 X193.89 Y89.25 E342.79968
G1 X193.89 Y215.75 E350.68857
G1 X184.39 Y215.75 E351.28101
G1 X184.39 Y175.35 E353.80047
G1 X177.61 Y175.35 E354.22316
G1 X177.61 Y168.48 E354.65141
G1 X175.86 Y171.76 E354.88334
G1 X175.68 Y172.09 E354.90644
G1 X171.53 Y177.15 E355.31498
G1 X171.29 Y177.44 E355.33828
G1 X166.25 Y181.57 E355.74456
G1 X165.96 Y181.82 E355.76835
G1 X160.18 Y184.91 E356.17700
G1 X159.85 Y185.08 E356.20029
G1 X153.63 Y186.97 E356.60596
G1 X153.25 Y187.09 E356.63026
G1 X146.76 Y187.72 E357.03708
G1 X146.38 Y187.77 E357.06074
G1 X139.83 Y187.12 E357.47157
G1 X139.46 Y187.08 E357.49485
G1 X133.21 Y185.19 E357.90214
G1 X132.85 Y185.07 E357.92541
G1 X127.10 Y182.00 E358.33236
G1 X126.77 Y181.82 E358.35546
G1 X121.71 Y177.67 E358.76400
G1 X121.42 Y177.43 E358.78730
G1 X117.29 Y172.39 E359.19355
G1 X117.04 Y172.10 E359.21733
G1 X113.95 Y166.32 E359.62601
G1 X113.78 Y165.99 E359.64930
G1 X111.88 Y159.74 E360.05693
G1 X111.77 Y159.39 E360.07929
G1 X111.13 Y152.87 E360.48804
G1 X111.09 Y152.52 E360.50982
G1 X111.74 Y145.97 E360.92058
G1 X111.78 Y145.60 E360.94386
G1 X113.67 Y139.35 E361.35115
G1 X113.79 Y138.99 E361.37449
G1 X116.86 Y133.24 E361.78141
G1 X117.04 Y132.91 E361.80448
G1 X121.19 Y127.85 E362.21302
G0 F6000 X120.81 Y127.53
G1 F2700 X121.08 Y127.20 E362.23942
G1 X126.15 Y123.04 E362.64853
G1 X126.48 Y122.76 E362.67551
G1 X132.30 Y119.65 E363.08731
G1 X132.68 Y119.45 E363.11364
G1 X138.98 Y117.54 E363.52434
G1 X139.37 Y117.42 E363.54957
G1 X145.92 Y116.78 E363.96052
G1 X146.33 Y116.73 E363.98625
G1 X152.94 Y117.38 E364.40053
G1 X153.36 Y117.43 E364.42682
G1 X159.66 Y119.34 E364.83713
G1 X160.06 Y119.46 E364.86352
G1 X165.85 Y122.56 E365.27287
G1 X166.23 Y122.76 E365.29948
G1 X171.33 Y126.95 E365.71121
G1 X171.66 Y127.22 E365.73761
G1 X175.82 Y132.29 E366.14672
G1 X176.10 Y132.62 E366.17369
G1 X177.11 Y134.52 E366.30803
G1 X177.11 Y131.15 E366.51819
G1 X183.89 Y131.15 E366.94089
G1 X183.89 Y88.75 E369.58507
G1 X194.39 Y88.75 E370.23988
G1 X194.39 Y216.25 E378.19113
G1 X183.89 Y216.25 E378.84594
G1 X183.89 Y175.85 E381.36539
G1 X177.11 Y175.85 E381.78809
G1 X177.11 Y170.48 E382.12298
G1 X176.30 Y172.00 E382.23039
G1 X176.10 Y172.37 E382.25650
G1 X171.91 Y177.47 E382.66823
G1 X171.64 Y177.80 E382.69463
G1 X166.57 Y181.96 E383.10375
G1 X166.24 Y182.24 E383.13072
G1 X160.42 Y185.35 E383.54252
G1 X160.04 Y185.55 E383.56885
G1 X153.74 Y187.46 E383.97955
G1 X153.35 Y187.58 E384.00478
G1 X146.80 Y188.22 E384.41560
G1 X146.39 Y188.27 E384.44134
G1 X139.78 Y187.62 E384.85574
G1 X139.36 Y187.57 E384.88203
G1 X133.06 Y185.66 E385.29234
G1 X132.66 Y185.54 E385.31873
G1 X126.87 Y182.44 E385.72808
G1 X126.49 Y182.24 E385.75469
G1 X121.39 Y178.05 E386.16642
G1 X121.06 Y177.78 E386.19282
G1 X116.89 Y172.70 E386.60309
G1 X116.63 Y172.38 E386.62883
G1 X113.51 Y166.56 E387.04063
G1 X113.31 Y166.18 E387.06702
G1 X111.40 Y159.88 E387.47772
G1 X111.28 Y159.50 E387.50295
G1 X110.64 Y152.92 E387.91496
G1 X110.59 Y152.53 E387.93956
G1 X111.24 Y145.92 E388.35383
G1 X111.29 Y145.50 E388.38019
G1 X113.20 Y139.20 E388.79049
G1 X113.32 Y138.80 E388.81688
G1 X116.42 Y133.00 E389.22676
G1 X116.62 Y132.63 E389.25282
G1 X120.81 Y127.53 E389.66456
G0 F6000 X120.42 Y127.21
G1 F2700 X120.72 Y126.85 E389.69405
G1 X125.84 Y122.64 E390.10734
G1 X126.20 Y122.35 E390.13612
G1 X132.07 Y119.21 E390.55105
G1 X132.49 Y118.99 E390.58051
G1 X138.81 Y117.07 E390.99269
G1 X139.26 Y116.93 E391.02243
G1 X145.89 Y116.28 E391.43746
G1 X146.33 Y116.23 E391.46520
G1 X153.00 Y116.88 E391.88292
G1 X153.47 Y116.94 E391.91236
G1 X159.81 Y118.86 E392.32564
G1 X160.26 Y119.00 E392.35505
G1 X166.09 Y122.12 E392.76730
G1 X166.51 Y122.34 E392.79695
G1 X171.65 Y126.56 E393.21196
G1 X172.01 Y126.86 E393.24137
G1 X176.20 Y131.97 E393.65328
G1 X176.51 Y132.34 E393.68344
G1 X176.61 Y132.52 E393.69639
G1 X176.61 Y130.65 E393.81319
G1 X183.39 Y130.65 E394.23589
G1 X183.39 Y88.25 E396.88007
G1 X194.89 Y88.25 E397.59724
G1 X194.89 Y216.75 E405.61086
G1 X183.39 Y216.75 E406.32803
G1 X183.39 Y176.35 E408.84748
G1 X176.61 Y176.35 E409.27018
G1 X176.61 Y172.48 E409.51171
G1 X176.52 Y172.65 E409.52370
G1 X172.30 Y177.79 E409.93871
G1 X172.00 Y178.15 E409.96812
G1 X166.88 Y182.36 E410.38141
G1 X166.52 Y182.65 E410.41019
G1 X160.65 Y185.79 E410.82512
G1 X160.24 Y186.01 E410.85458
G1 X153.91 Y187.93 E411.26676
G1 X153.46 Y188.07 E411.29650
G1 X146.83 Y188.72 E411.71140
G1 X146.39 Y188.77 E411.73914
G1 X139.72 Y188.12 E412.15699
G1 X139.25 Y188.06 E412.18643
G1 X132.91 Y186.14 E412.59971
G1 X132.46 Y186.00 E412.62912
G1 X126.63 Y182.88 E413.04137
G1 X126.21 Y182.66 E413.07103
G1 X121.07 Y178.44 E413.48604
G1 X120.71 Y178.14 E413.51544
G1 X116.50 Y173.01 E413.92873
G1 X116.50 Y173.01 E413.92879
G1 X116.21 Y172.66 E413.95758
G1 X113.07 Y166.79 E414.37253
G1 X112.85 Y166.38 E414.40199
G1 X110.92 Y160.03 E414.81573
G1 X110.79 Y159.59 E414.84392
G1 X110.14 Y152.97 E415.25912
G1 X110.09 Y152.53 E415.28655
G1 X110.74 Y145.86 E415.70439
G1 X110.80 Y145.40 E415.73383
G1 X112.72 Y139.05 E416.14712
G1 X112.86 Y138.60 E416.17652
G1 X115.98 Y132.76 E416.58936
G1 X116.20 Y132.35 E416.61846
G1 X120.42 Y127.21 E417.03334
G0 F6000 X120.03 Y126.89
G1 F2700 X120.37 Y126.49 E417.06581
G1 X125.53 Y122.25 E417.48215
G1 X125.92 Y121.93 E417.51390
G1 X131.83 Y118.77 E417.93201
G1 X132.29 Y118.53 E417.96451
G1 X138.69 Y116.58 E418.38133
G1 X139.16 Y116.44 E418.41237
G1 X145.79 Y115.78 E418.82752
G1 X146.33 Y115.72 E418.86122
G1 X153.05 Y116.39 E419.28251
G1 X153.57 Y116.44 E419.31496
G1 X159.95 Y118.38 E419.73124
G1 X160.45 Y118.54 E419.76373
G1 X166.32 Y121.67 E420.17888
G1 X166.32 Y121.67 E420.17894
G1 X166.79 Y121.92 E420.21172
G1 X171.97 Y126.17 E420.62988
G1 X172.37 Y126.51 E420.66234
G1 X176.11 Y131.07 E421.03012
G1 X176.11 Y130.15 E421.08725
G1 X182.89 Y130.15 E421.50994
G1 X182.89 Y87.75 E424.15412
G1 X195.39 Y87.75 E424.93366
G1 X195.39 Y217.25 E433.00963
G1 X182.89 Y217.25 E433.78917
G1 X182.89 Y176.85 E436.30862
G1 X176.11 Y176.85 E436.73132
G1 X176.11 Y173.94 E436.91310
G1 X172.69 Y178.11 E437.24986
G1 X172.35 Y178.51 E437.28233
G1 X167.19 Y182.75 E437.69867
G1 X166.80 Y183.07 E437.73043
G1 X160.89 Y186.23 E438.14853
G1 X160.43 Y186.47 E438.18103
G1 X154.03 Y188.41 E438.59785
G1 X153.56 Y188.56 E438.62890
G1 X146.93 Y189.22 E439.04392
G1 X146.40 Y189.28 E439.07762
G1 X139.67 Y188.62 E439.49903
G1 X139.15 Y188.56 E439.53148
G1 X132.77 Y186.62 E439.94777
G1 X132.27 Y186.46 E439.98025
G1 X126.40 Y183.32 E440.39540
G1 X126.40 Y183.33 E440.39546
G1 X125.93 Y183.08 E440.42824
G1 X120.75 Y178.82 E440.84640
G1 X120.35 Y178.49 E440.87890
G1 X116.12 Y173.33 E441.29516
G1 X115.79 Y172.94 E441.32687
G1 X112.63 Y167.03 E441.74506
G1 X112.39 Y166.57 E441.77756
G1 X110.44 Y160.17 E442.19438
G1 X110.30 Y159.69 E442.22548
G1 X109.65 Y153.09 E442.63956
G1 X109.58 Y152.53 E442.67420
G1 X110.25 Y145.81 E443.09548
G1 X110.30 Y145.29 E443.12799
G1 X112.24 Y138.91 E443.54428
G1 X112.40 Y138.41 E443.57682
G1 X115.54 Y132.53 E443.99256
G1 X115.78 Y132.07 E444.02470
G1 X120.03 Y126.89 E444.44281
G0 F6000 X119.65 Y126.57
G1 F2700 X120.01 Y126.13 E444.47838
G1 X125.21 Y121.87 E444.89764
G1 X125.64 Y121.51 E444.93241
G1 X131.60 Y118.33 E445.35378
G1 X132.10 Y118.06 E445.38935
G1 X138.54 Y116.11 E445.80910
G1 X139.06 Y115.94 E445.84317
G1 X145.75 Y115.29 E446.26195
G1 X146.32 Y115.22 E446.29803
G1 X153.10 Y115.89 E446.72283
G1 X153.67 Y115.95 E446.75842
G1 X160.10 Y117.90 E447.17770
G1 X160.65 Y118.07 E447.21326
G1 X166.57 Y121.24 E447.63187
G1 X167.06 Y121.50 E447.66710
G1 X172.29 Y125.79 E448.08841
G1 X172.73 Y126.15 E448.12397
G1 X175.61 Y129.67 E448.40756
G1 X175.61 Y129.65 E448.40868
G1 X182.39 Y129.65 E448.83137
G1 X182.39 Y87.25 E451.47555
G1 X195.89 Y87.25 E452.31745
G1 X195.89 Y217.75 E460.45579
G1 X182.39 Y217.75 E461.29769
G1 X182.39 Y177.35 E463.81714
G1 X175.61 Y177.35 E464.23984
G1 X175.61 Y175.33 E464.36569
G1 X173.07 Y178.43 E464.61538
G1 X172.71 Y178.87 E464.65094
G1 X167.51 Y183.13 E465.07021
G1 X167.08 Y183.49 E465.10497
G1 X161.12 Y186.67 E465.52634
G1 X160.62 Y186.94 E465.56191
G1 X154.18 Y188.89 E465.98167
G1 X153.66 Y189.06 E466.01573
G1 X146.97 Y189.71 E466.43438
G1 X146.40 Y189.78 E466.47047
G1 X139.62 Y189.11 E466.89539
G1 X139.05 Y189.05 E466.93098
G1 X132.62 Y187.10 E467.35026
G1 X132.07 Y186.93 E467.38582
G1 X126.15 Y183.76 E467.80443
G1 X125.66 Y183.50 E467.83967
G1 X120.43 Y179.21 E468.26097
G1 X119.99 Y178.85 E468.29653
G1 X115.73 Y173.65 E468.71585
G1 X115.37 Y173.22 E468.75053
G1 X112.19 Y167.26 E469.17190
G1 X111.92 Y166.76 E469.20749
G1 X109.97 Y160.32 E469.62725
G1 X109.80 Y159.80 E469.66131
G1 X109.15 Y153.14 E470.07814
G1 X109.08 Y152.54 E470.11611
G1 X109.75 Y145.76 E470.54096
G1 X109.81 Y145.19 E470.57655
G1 X111.76 Y138.76 E470.99583
G1 X111.93 Y138.21 E471.03139
G1 X115.10 Y132.29 E471.45003
G1 X115.36 Y131.80 E471.48521
G1 X119.65 Y126.57 E471.90652
G0 F6000 X119.26 Y126.25
G1 F2700 X119.66 Y125.78 E471.94519
G1 X124.89 Y121.48 E472.36746
G1 X125.36 Y121.10 E472.40520
G1 X131.36 Y117.89 E472.82975
G1 X131.91 Y117.60 E472.86839
G1 X138.40 Y115.63 E473.29120
G1 X138.40 Y115.63 E473.29126
G1 X138.96 Y115.45 E473.32827
G1 X145.66 Y114.79 E473.74793
G1 X146.32 Y114.72 E473.78922
G1 X153.15 Y115.39 E474.21753
G1 X153.77 Y115.46 E474.25612
G1 X160.25 Y117.42 E474.67841
G1 X160.84 Y117.61 E474.71704
G1 X166.79 Y120.79 E475.13786
G1 X166.79 Y120.79 E475.13792
G1 X167.34 Y121.08 E475.17698
G1 X172.60 Y125.40 E475.60147
G1 X173.08 Y125.80 E475.64009
G1 X175.83 Y129.15 E475.91043
G1 X181.89 Y129.15 E476.28816
G1 X181.89 Y86.75 E478.93234
G1 X196.39 Y86.75 E479.83660
G1 X196.39 Y218.25 E488.03730
G1 X181.89 Y218.25 E488.94156
G1 X181.89 Y177.85 E491.46102
G1 X175.11 Y177.85 E491.88371
G1 X175.11 Y176.73 E491.95362
G1 X173.46 Y178.75 E492.11628
G1 X173.06 Y179.22 E492.15490
G1 X167.83 Y183.52 E492.57718
G1 X167.36 Y183.90 E492.61491
G1 X161.36 Y187.11 E493.03947
G1 X160.81 Y187.40 E493.07811
G1 X154.32 Y189.37 E493.50092
G1 X154.32 Y189.37 E493.50098
G1 X153.76 Y189.55 E493.53798
G1 X147.06 Y190.21 E493.95752
G1 X146.40 Y190.28 E493.99881
G1 X139.57 Y189.61 E494.42725
G1 X138.95 Y189.54 E494.46584
G1 X132.47 Y187.57 E494.88812
G1 X131.88 Y187.39 E494.92676
G1 X125.93 Y184.21 E495.34758
G1 X125.93 Y184.21 E495.34764
G1 X125.38 Y183.91 E495.38669
G1 X120.11 Y179.60 E495.81118
G1 X119.64 Y179.20 E495.84981
G1 X115.34 Y173.97 E496.27209
G1 X114.96 Y173.50 E496.30978
G1 X111.75 Y167.50 E496.73430
G1 X111.46 Y166.95 E496.77300
G1 X109.49 Y160.46 E497.19581
G1 X109.49 Y160.46 E497.19587
G1 X109.31 Y159.90 E497.23288
G1 X108.65 Y153.20 E497.65247
G1 X108.58 Y152.54 E497.69370
G1 X109.25 Y145.71 E498.12213
G1 X109.32 Y145.09 E498.16072
G1 X111.28 Y138.61 E498.58300
G1 X111.47 Y138.02 E498.62170
G1 X114.66 Y132.06 E499.04324
G1 X114.95 Y131.52 E499.08146
G1 X119.26 Y126.25 E499.50592
G0 F6000 X118.88 Y125.94
G1 F2700 X119.31 Y125.42 E499.54764
G1 X124.55 Y121.12 E499.97089
G1 X125.08 Y120.68 E500.01363
G1 X131.13 Y117.45 E500.44131
G1 X131.72 Y117.13 E500.48304
G1 X138.25 Y115.15 E500.90892
G1 X138.86 Y114.96 E500.94880
G1 X145.67 Y114.29 E501.37548
G1 X146.31 Y114.22 E501.41583
G1 X153.21 Y114.89 E501.84772
G1 X153.87 Y114.97 E501.88939
G1 X160.40 Y116.95 E502.31461
G1 X161.03 Y117.15 E502.35637
G1 X167.03 Y120.35 E502.78000
G1 X167.62 Y120.67 E502.82210
G1 X172.92 Y125.02 E503.24978
G1 X173.44 Y125.44 E503.29150
G1 X176.07 Y128.65 E503.55009
G1 X181.39 Y128.65 E503.88186
G1 X181.39 Y86.25 E506.52604
G1 X196.89 Y86.25 E507.49267
G1 X196.89 Y218.75 E515.75573
G1 X181.39 Y218.75 E516.72235
G1 X181.39 Y178.35 E519.24181
G1 X174.61 Y178.35 E519.66450
G1 X174.61 Y178.13 E519.67847
G1 X173.84 Y179.06 E519.75407
G1 X173.41 Y179.58 E519.79579
G1 X168.17 Y183.88 E520.21904
G1 X167.64 Y184.32 E520.26178
G1 X161.59 Y187.55 E520.68946
G1 X161.00 Y187.87 E520.73119
G1 X154.47 Y189.85 E521.15706
G1 X153.86 Y190.04 E521.19694
G1 X147.05 Y190.71 E521.62350
G1 X146.41 Y190.78 E521.66386
G1 X139.51 Y190.11 E522.09586
G1 X138.85 Y190.03 E522.13754
G1 X132.32 Y188.05 E522.56276
G1 X131.69 Y187.85 E522.60451
G1 X125.68 Y184.64 E523.02893
G1 X125.10 Y184.33 E523.07024
G1 X119.80 Y179.98 E523.49792
G1 X119.28 Y179.56 E523.53965
G1 X114.98 Y174.31 E523.96286
G1 X114.54 Y173.78 E524.00555
G1 X111.31 Y167.73 E524.43331
G1 X110.99 Y167.14 E524.47505
G1 X109.01 Y160.61 E524.90092
G1 X108.82 Y160.00 E524.94086
G1 X108.15 Y153.20 E525.36697
G1 X108.08 Y152.55 E525.40770
G1 X108.75 Y145.65 E525.83964
G1 X108.83 Y144.99 E525.88138
G1 X110.81 Y138.46 E526.30660
G1 X111.01 Y137.82 E526.34836
G1 X114.22 Y131.82 E526.77285
G1 X114.53 Y131.24 E526.81411
G1 X118.88 Y125.94 E527.24176
G0 F6000 X118.49 Y125.62
G1 F2700 X118.95 Y125.07 E527.28654
G1 X124.26 Y120.71 E527.71484
G1 X124.80 Y120.26 E527.75856
G1 X130.89 Y117.00 E528.18941
G1 X131.53 Y116.67 E528.23419
G1 X138.11 Y114.67 E528.66314
G1 X138.76 Y114.47 E528.70594
G1 X145.64 Y113.79 E529.13708
G1 X146.31 Y113.71 E529.17900
G1 X153.26 Y114.40 E529.61438
G1 X153.97 Y114.48 E529.65913
G1 X160.54 Y116.47 E530.08741
G1 X161.23 Y116.69 E530.13218
G1 X167.27 Y119.92 E530.55955
G1 X167.90 Y120.25 E530.60391
G1 X173.24 Y124.63 E531.03479
G1 X173.79 Y125.09 E531.07952
G1 X176.31 Y128.15 E531.32637
G1 X180.89 Y128.15 E531.61224
G1 X180.89 Y85.75 E534.25642
G1 X197.39 Y85.75 E535.28541
G1 X197.39 Y219.25 E543.61084
G1 X180.89 Y219.25 E544.63982
G1 X180.89 Y178.85 E547.15928
G1 X174.66 Y178.85 E547.54742
G1 X174.23 Y179.38 E547.59036
G1 X173.77 Y179.93 E547.63509
G1 X168.46 Y184.29 E548.06339
G1 X167.92 Y184.74 E548.10711
G1 X161.83 Y188.00 E548.53797
G1 X161.19 Y188.33 E548.58274
G1 X154.61 Y190.33 E549.01169
G1 X153.96 Y190.53 E549.05449
G1 X147.08 Y191.21 E549.48550
G1 X146.41 Y191.29 E549.52742
G1 X139.46 Y190.60 E549.96293
G1 X138.75 Y190.52 E550.00768
G1 X132.18 Y188.53 E550.43596
G1 X131.49 Y188.31 E550.48074
G1 X125.45 Y185.09 E550.90810
G1 X124.82 Y184.75 E550.95246
G1 X119.48 Y180.37 E551.38334
G1 X118.93 Y179.91 E551.42811
G1 X114.57 Y174.60 E551.85633
G1 X114.12 Y174.06 E551.90000
G1 X110.86 Y167.97 E552.33094
G1 X110.53 Y167.33 E552.37571
G1 X108.53 Y160.75 E552.80466
G1 X108.33 Y160.10 E552.84746
G1 X107.65 Y153.21 E553.27884
G1 X107.57 Y152.55 E553.32045
G1 X108.26 Y145.60 E553.75589
G1 X108.34 Y144.89 E553.80064
G1 X110.33 Y138.32 E554.22892
G1 X110.55 Y137.63 E554.27369
G1 X113.78 Y131.59 E554.70109
G1 X114.11 Y130.96 E554.74545
G1 X118.49 Y125.62 E555.17624
G0 F6000 X118.11 Y125.30
G1 F2700 X118.60 Y124.71 E555.22412
G1 X123.91 Y120.35 E555.65308
G1 X124.52 Y119.84 E555.70211
G1 X130.66 Y116.56 E556.13617
G1 X131.33 Y116.20 E556.18402
G1 X137.90 Y114.21 E556.61165
G1 X138.66 Y113.97 E556.66177
G1 X145.53 Y113.30 E557.09221
G1 X146.31 Y113.21 E557.14090
G1 X153.31 Y113.90 E557.57980
G1 X154.07 Y113.98 E557.62762
G1 X160.69 Y115.99 E558.05884
G1 X161.42 Y116.22 E558.10669
G1 X167.50 Y119.47 E558.53609
G1 X168.18 Y119.83 E558.58441
G1 X173.56 Y124.25 E559.01844
G1 X174.15 Y124.74 E559.06627
G1 X176.54 Y127.65 E559.30137
G1 X180.39 Y127.65 E559.54128
G1 X180.39 Y85.25 E562.18546
G1 X197.89 Y85.25 E563.27681
G1 X197.89 Y219.75 E571.66460
G1 X180.39 Y219.75 E572.75595
G1 X180.39 Y179.35 E575.27541
G1 X174.90 Y179.35 E575.61765
G1 X174.61 Y179.70 E575.64588
G1 X174.12 Y180.29 E575.69371
G1 X168.81 Y184.65 E576.12268
G1 X168.20 Y185.16 E576.17170
G1 X162.06 Y188.44 E576.60577
G1 X161.39 Y188.80 E576.65361
G1 X154.82 Y190.79 E577.08130
G1 X154.06 Y191.03 E577.13130
G1 X147.19 Y191.70 E577.56167
G1 X146.41 Y191.79 E577.61038
G1 X139.41 Y191.10 E578.04940
G1 X138.65 Y191.01 E578.09722
G1 X132.03 Y189.01 E578.52844
G1 X131.30 Y188.78 E578.57629
G1 X125.22 Y185.53 E579.00569
G1 X124.54 Y185.17 E579.05401
G1 X119.16 Y180.75 E579.48803
G1 X118.57 Y180.26 E579.53586
G1 X114.18 Y174.92 E579.96714
G1 X113.71 Y174.34 E580.01378
G1 X110.42 Y168.20 E580.44790
G1 X110.06 Y167.53 E580.49575
G1 X108.07 Y160.96 E580.92343
G1 X107.83 Y160.20 E580.97349
G1 X107.16 Y153.37 E581.40135
G1 X107.07 Y152.55 E581.45250
G1 X107.76 Y145.55 E581.89145
G1 X107.84 Y144.79 E581.93934
G1 X109.85 Y138.17 E582.37056
G1 X110.08 Y137.44 E582.41847
G1 X113.33 Y131.35 E582.84877
G1 X113.69 Y130.68 E582.89611
G1 X118.11 Y125.30 E583.33009
G0 F6000 X176.08 Y143.33
;TYPE:WALL-INNER
G1 F2700 X188.89 Y143.33 E584.12871
G1 X188.89 Y93.75 E587.22066
G1 X189.39 Y93.75 E587.25184
G1 X189.39 Y149.25 E590.71297
G1 X177.30 Y149.25 E591.46712
G1 X177.01 Y146.40 E591.64553
G1 X176.08 Y143.33 E591.84579
G0 F6000 X171.89 Y135.44
G0 X168.07 Y130.79
G0 X163.42 Y126.97
G0 X158.11 Y124.14
G0 X152.35 Y122.39
G0 X146.36 Y121.80
G0 X140.37 Y122.39
G0 X134.61 Y124.14
G0 X129.30 Y126.97
G0 X124.65 Y130.79
G0 X120.83 Y135.44
G0 X118.00 Y140.75
G0 X116.25 Y146.51
G0 X115.66 Y152.50
G0 X116.25 Y158.49
G0 X118.00 Y164.25
G0 X120.83 Y169.56
G0 X124.65 Y174.21
G0 X129.30 Y178.03
G0 X134.61 Y180.86
G0 X140.37 Y182.61
G0 X146.36 Y183.20
G0 X152.35 Y182.61
G0 X158.11 Y180.86
G0 X163.42 Y178.03
G0 X168.07 Y174.21
G0 X171.89 Y169.56
G0 X174.72 Y164.25
G0 X176.47 Y158.49
G0 X177.30 Y155.75
G1 F2700 X189.39 Y155.75 E592.59994
G1 X189.39 Y211.25 E596.06108
G1 X188.89 Y211.25 E596.09226
G1 X188.89 Y161.67 E599.18420
G1 X176.08 Y161.67 E599.98282
G1 X177.01 Y158.60 E600.18308
G1 X177.30 Y155.75 E600.36149
G0 F6000 X176.84 Y155.25
G1 F2700 X189.89 Y155.25 E601.17514
G1 X189.89 Y211.75 E604.69863
G1 X188.39 Y211.75 E604.79218
G1 X188.39 Y162.17 E607.88412
G1 X175.92 Y162.17 E608.66160
G1 X175.23 Y164.46 E608.81078
G1 X172.34 Y169.86 E609.19265
G1 X168.46 Y174.59 E609.57456
G1 X163.72 Y178.48 E609.95683
G1 X158.32 Y181.37 E610.33844
G1 X152.45 Y183.15 E610.72105
G1 X146.35 Y183.75 E611.10298
G1 X140.27 Y183.15 E611.48403
G1 X134.40 Y181.37 E611.86656
G1 X129.00 Y178.48 E612.24857
G1 X124.27 Y174.59 E612.63048
G1 X120.38 Y169.86 E613.01271
G1 X117.49 Y164.46 E613.39435
G1 X115.71 Y158.59 E613.77696
G1 X115.11 Y152.49 E614.15894
G1 X115.71 Y146.41 E614.53993
G1 X117.49 Y140.54 E614.92246
G1 X120.38 Y135.14 E615.30450
G1 X124.27 Y130.41 E615.68637
G1 X129.00 Y126.52 E616.06863
G1 X134.40 Y123.63 E616.45025
G1 X140.27 Y121.85 E616.83285
G1 X146.37 Y121.25 E617.21491
G1 X152.45 Y121.85 E617.59584
G1 X158.32 Y123.63 E617.97837
G1 X163.72 Y126.52 E618.36038
G1 X168.45 Y130.41 E618.74229
G1 X172.34 Y135.14 E619.12455
G1 X175.23 Y140.54 E619.50617
G1 X175.76 Y142.28 E619.61990
G1 X175.93 Y142.83 E619.65552
G1 X188.39 Y142.83 E620.43268
G1 X188.39 Y93.25 E623.52463
G1 X189.89 Y93.25 E623.61817
G1 X189.89 Y149.75 E627.14167
G1 X176.84 Y149.75 E627.95532
G1 X176.52 Y146.50 E628.15891
G1 X174.77 Y140.73 E628.53487
G1 X171.93 Y135.41 E628.91088
G1 X168.11 Y130.75 E629.28685
G1 X163.45 Y126.93 E629.66282
G1 X158.13 Y124.09 E630.03882
G1 X152.36 Y122.34 E630.41472
G1 X146.36 Y121.75 E630.79065
G1 X140.36 Y122.34 E631.16665
G1 X134.59 Y124.09 E631.54261
G1 X129.27 Y126.93 E631.91861
G1 X124.61 Y130.75 E632.29458
G1 X120.79 Y135.41 E632.67055
G1 X117.95 Y140.73 E633.04656
G1 X116.20 Y146.50 E633.42252
G1 X115.61 Y152.50 E633.79844
G1 X116.20 Y158.50 E634.17437
G1 X117.95 Y164.27 E634.55033
G1 X120.79 Y169.59 E634.92633
G1 X124.61 Y174.25 E635.30230
G1 X129.27 Y178.07 E635.67827
G1 X134.59 Y180.91 E636.05428
G1 X140.36 Y182.66 E636.43023
G1 X146.36 Y183.25 E636.80623
G1 X152.36 Y182.66 E637.18216
G1 X158.13 Y180.91 E637.55806
G1 X163.45 Y178.07 E637.93406
G1 X168.11 Y174.25 E638.31003
G1 X171.93 Y169.59 E638.68601
G1 X174.77 Y164.27 E639.06201
G1 X176.52 Y158.50 E639.43797
G1 X176.84 Y155.25 E639.64157
G0 F6000 X176.39 Y154.75
;TYPE:WALL-OUTER
G1 F2700 X190.39 Y154.75 E640.51458
G1 X190.39 Y212.25 E644.10044
G1 X187.89 Y212.25 E644.25635
G1 X187.89 Y162.67 E647.34829
G1 X176.29 Y162.67 E648.07145
G1 X175.69 Y164.65 E648.20049
G1 X172.76 Y170.14 E648.58849
G1 X168.83 Y174.93 E648.97484
G1 X168.81 Y174.95 E648.97665
G1 X164.02 Y178.88 E649.36312
G1 X164.00 Y178.90 E649.36502
G1 X158.51 Y181.83 E649.75300
G1 X152.58 Y183.63 E650.13949
G1 X152.55 Y183.64 E650.14133
G1 X146.39 Y184.25 E650.52752
G1 X146.36 Y184.25 E650.52929
G1 X140.19 Y183.64 E650.91561
G1 X140.17 Y183.64 E650.91718
G1 X134.24 Y181.84 E651.30355
G1 X128.72 Y178.90 E651.69355
G1 X123.93 Y174.97 E652.07999
G1 X119.98 Y170.16 E652.46812
G1 X119.96 Y170.14 E652.47002
G1 X117.03 Y164.65 E652.85802
G1 X115.23 Y158.72 E653.24452
G1 X115.22 Y158.69 E653.24635
G1 X114.62 Y152.53 E653.63260
G1 X114.61 Y152.50 E653.63437
G1 X115.22 Y146.34 E654.02062
G1 X115.22 Y146.31 E654.02219
G1 X117.02 Y140.38 E654.40856
G1 X119.96 Y134.86 E654.79860
G1 X123.89 Y130.07 E655.18490
G1 X123.91 Y130.05 E655.18671
G1 X128.70 Y126.12 E655.57318
G1 X128.72 Y126.10 E655.57509
G1 X134.21 Y123.17 E655.96306
G1 X140.14 Y121.37 E656.34955
G1 X140.17 Y121.36 E656.35139
G1 X146.33 Y120.75 E656.73771
G1 X146.36 Y120.75 E656.73947
G1 X152.53 Y121.36 E657.12567
G1 X152.55 Y121.36 E657.12724
G1 X158.48 Y123.16 E657.51361
G1 X164.00 Y126.10 E657.90362
G1 X168.79 Y130.03 E658.28996
G1 X168.81 Y130.05 E658.29177
G1 X172.74 Y134.84 E658.67824
G1 X172.76 Y134.86 E658.68015
G1 X175.69 Y140.35 E659.06812
G1 X176.23 Y142.14 E659.18463
G1 X176.29 Y142.33 E659.19718
G1 X187.89 Y142.33 E659.92028
G1 X187.89 Y92.75 E663.01222
G1 X190.39 Y92.75 E663.16813
G1 X190.39 Y150.25 E666.75399
G1 X176.39 Y150.25 E667.62700
G1 X176.03 Y146.60 E667.85580
G1 X174.31 Y140.92 E668.22562
G1 X171.51 Y135.69 E668.59549
G1 X167.75 Y131.11 E668.96530
G1 X163.17 Y127.35 E669.33512
G1 X157.94 Y124.55 E669.70499
G1 X152.26 Y122.83 E670.07475
G1 X146.36 Y122.25 E670.44454
G1 X140.46 Y122.83 E670.81439
G1 X134.78 Y124.55 E671.18421
G1 X129.55 Y127.35 E671.55408
G1 X124.97 Y131.11 E671.92390
G1 X121.21 Y135.69 E672.29371
G1 X118.41 Y140.92 E672.66358
G1 X116.69 Y146.60 E673.03340
G1 X116.11 Y152.50 E673.40318
G1 X116.69 Y158.40 E673.77297
G1 X118.41 Y164.08 E674.14279
G1 X121.21 Y169.31 E674.51266
G1 X124.97 Y173.89 E674.88247
G1 X129.55 Y177.65 E675.25229
G1 X134.78 Y180.45 E675.62215
G1 X140.46 Y182.17 E675.99198
G1 X146.36 Y182.75 E676.36183
G1 X152.26 Y182.17 E676.73162
G1 X157.94 Y180.45 E677.10138
G1 X163.17 Y177.65 E677.47125
G1 X167.75 Y173.89 E677.84106
G1 X171.51 Y169.31 E678.21088
G1 X174.31 Y164.08 E678.58074
G1 X176.03 Y158.40 E678.95057
G1 X176.39 Y154.75 E679.17937
G0 F6000 X176.63 Y155.10
G0 X177.49 Y155.93
;TYPE:FILL
G1 F2700 X183.06 Y161.49 E679.67052
G0 F6000 X182.35 Y161.49
G1 F2700 X177.39 Y156.53 E680.10801
G0 F6000 X177.33 Y157.18
G1 F2700 X181.65 Y161.49 E680.48874
G0 F6000 X180.94 Y161.49
G1 F2700 X177.27 Y157.82 E680.81272
G0 F6000 X177.20 Y158.46
G1 F2700 X180.23 Y161.49 E681.07995
G0 F6000 X179.53 Y161.49
G1 F2700 X177.06 Y159.03 E681.29700
G0 F6000 X176.90 Y159.57
G1 F2700 X178.82 Y161.49 E681.46624
G0 F6000 X178.11 Y161.49
G1 F2700 X176.74 Y160.12 E681.58760
G0 F6000 X176.57 Y160.66
G1 F2700 X177.40 Y161.49 E681.66111
G0 F6000 X176.70 Y161.49
G1 F2700 X176.41 Y161.20 E681.68677
G0 F6000 X178.20 Y155.93
G1 F2700 X183.77 Y161.49 E682.17793
G0 F6000 X184.47 Y161.49
G1 F2700 X178.91 Y155.93 E682.66908
G0 F6000 X179.61 Y155.93
G1 F2700 X185.18 Y161.49 E683.16023
G0 F6000 X185.89 Y161.49
G1 F2700 X180.32 Y155.93 E683.65139
G0 F6000 X181.03 Y155.93
G1 F2700 X186.60 Y161.49 E684.14254
G0 F6000 X187.30 Y161.49
G1 F2700 X181.73 Y155.93 E684.63374
G0 F6000 X182.44 Y155.93
G1 F2700 X188.01 Y161.49 E685.12489
G0 F6000 X188.72 Y161.49
G1 F2700 X183.15 Y155.93 E685.61605
G0 F6000 X183.86 Y155.93
G1 F2700 X189.21 Y161.28 E686.08850
G0 F6000 X189.21 Y160.57
G1 F2700 X184.56 Y155.93 E686.49861
G0 F6000 X185.27 Y155.93
G1 F2700 X189.21 Y159.87 E686.84636
G0 F6000 X189.21 Y159.16
G1 F2700 X185.98 Y155.93 E687.13175
G0 F6000 X186.68 Y155.93
G1 F2700 X189.21 Y158.45 E687.35480
G0 F6000 X189.21 Y157.75
G1 F2700 X187.39 Y155.93 E687.51549
G0 F6000 X188.10 Y155.93
G1 F2700 X189.21 Y157.04 E687.61378
G0 F6000 X189.21 Y156.33
G1 F2700 X188.81 Y155.93 E687.64972
G0 F6000 X176.47 Y158.49
G0 X174.72 Y164.25
G0 X171.89 Y169.56
G0 X168.07 Y174.21
G0 X163.42 Y178.03
G0 X158.11 Y180.86
G0 X152.35 Y182.61
G0 X146.36 Y183.20
G0 X140.37 Y182.61
G0 X134.61 Y180.86
G0 X129.30 Y178.03
G0 X124.65 Y174.21
G0 X120.83 Y169.56
G0 X118.00 Y164.25
G0 X116.25 Y158.49
G0 X115.66 Y152.50
G0 X116.25 Y146.51
G0 X118.00 Y140.75
G0 X120.83 Y135.44
G0 X124.65 Y130.79
G0 X129.30 Y126.97
G0 X134.61 Y124.14
G0 X140.37 Y122.39
G0 X146.36 Y121.80
G0 X152.35 Y122.39
G0 X158.11 Y124.14
G0 X163.42 Y126.97
G0 X168.07 Y130.79
G0 X171.89 Y135.44
G0 X174.72 Y140.75
G0 X176.47 Y146.51
G0 X189.03 Y149.07
G1 F2700 X183.46 Y143.50 E688.14100
G0 F6000 X184.16 Y143.50
G1 F2700 X189.21 Y148.55 E688.58639
G0 F6000 X189.21 Y147.85
G1 F2700 X184.87 Y143.50 E688.96941
G0 F6000 X185.58 Y143.50
G1 F2700 X189.21 Y147.14 E689.29009
G0 F6000 X189.21 Y146.43
G1 F2700 X186.28 Y143.50 E689.54841
G0 F6000 X186.99 Y143.50
G1 F2700 X189.21 Y145.73 E689.74438
G0 F6000 X189.21 Y145.02
G1 F2700 X187.70 Y143.50 E689.87799
G0 F6000 X188.41 Y143.50
G1 F2700 X189.21 Y144.31 E689.94925
G0 F6000 X189.21 Y143.60
G1 F2700 X189.11 Y143.50 E689.95811
G0 F6000 X188.32 Y149.07
G1 F2700 X182.75 Y143.50 E690.44945
G0 F6000 X182.04 Y143.50
G1 F2700 X187.61 Y149.07 E690.94078
G0 F6000 X186.91 Y149.07
G1 F2700 X181.33 Y143.50 E691.43211
G0 F6000 X180.63 Y143.50
G1 F2700 X186.20 Y149.07 E691.92344
G0 F6000 X185.49 Y149.07
G1 F2700 X179.92 Y143.50 E692.41477
G0 F6000 X179.21 Y143.50
G1 F2700 X184.78 Y149.07 E692.90605
G0 F6000 X184.08 Y149.07
G1 F2700 X178.51 Y143.50 E693.39734
G0 F6000 X177.80 Y143.50
G1 F2700 X183.37 Y149.07 E693.88862
G0 F6000 X182.66 Y149.07
G1 F2700 X177.09 Y143.50 E694.37991
G0 F6000 X176.38 Y143.50
G1 F2700 X181.96 Y149.07 E694.87124
G0 F6000 X181.25 Y149.07
G1 F2700 X176.60 Y144.42 E695.28152
G0 F6000 X176.90 Y145.44
G1 F2700 X180.54 Y149.07 E695.60237
G0 F6000 X179.83 Y149.07
G1 F2700 X177.19 Y146.43 E695.83538
G0 F6000 X177.27 Y147.22
G1 F2700 X179.13 Y149.07 E695.99924
G0 F6000 X178.42 Y149.07
G1 F2700 X177.35 Y148.00 E696.09388
G0 F6000 X177.43 Y148.79
G1 F2700 X177.71 Y149.07 E696.11923
;LAYER:1
G0 F6000 X177.30 Y149.25 Z0.50
;TYPE:WALL-INNER
G1 F3480 X177.01 Y146.40 E696.23817
G1 X176.08 Y143.33 E696.37168
G1 X188.89 Y143.33 E696.90409
G1 X188.89 Y93.75 E698.96539
G1 X189.39 Y93.75 E698.98618
G1 X189.39 Y149.25 E701.29360
G1 X177.30 Y149.25 E701.79637
G0 F6000 X174.72 Y140.75
G0 X171.89 Y135.44
G0 X168.07 Y130.79
G0 X163.42 Y126.97
G0 X158.11 Y124.14
G0 X152.35 Y122.39
G0 X146.36 Y121.80
G0 X140.37 Y122.39
G0 X134.61 Y124.14
G0 X129.30 Y126.97
G0 X124.65 Y130.79
G0 X120.83 Y135.44
G0 X118.00 Y140.75
G0 X116.25 Y146.51
G0 X115.66 Y152.50
G0 X116.25 Y158.49
G0 X118.00 Y164.25
G0 X120.83 Y169.56
G0 X124.65 Y174.21
G0 X129.30 Y178.03
G0 X134.61 Y180.86
G0 X140.37 Y182.61
G0 X146.36 Y183.20
G0 X152.35 Y182.61
G0 X158.11 Y180.86
G0 X163.42 Y178.03
G0 X168.07 Y174.21
G0 X171.89 Y169.56
G0 X174.72 Y164.25
G0 X176.47 Y158.49
G0 X177.30 Y155.75
G1 F3480 X189.39 Y155.75 E702.29913
G1 X189.39 Y211.25 E704.60656
G1 X188.89 Y211.25 E704.62734
G1 X188.89 Y161.67 E706.68864
G1 X176.08 Y161.67 E707.22105
G1 X177.01 Y158.60 E707.35456
G1 X177.30 Y155.75 E707.47350
G0 F6000 X176.84 Y155.25
G1 F3480 X189.89 Y155.25 E708.01593
G1 X189.89 Y211.75 E710.36493
G1 X188.39 Y211.75 E710.42729
G1 X188.39 Y162.17 E712.48859
G1 X175.92 Y162.17 E713.00691
G1 X175.23 Y164.46 E713.10645
G1 X172.36 Y169.83 E713.35954
G1 X172.34 Y169.86 E713.36088
G1 X168.48 Y174.57 E713.61419
G1 X168.46 Y174.59 E713.61549
G1 X163.74 Y178.46 E713.86903
G1 X158.34 Y181.35 E714.12363
G1 X158.32 Y181.37 E714.12486
G1 X152.48 Y183.14 E714.37833
G1 X152.45 Y183.15 E714.37968
G1 X146.39 Y183.74 E714.63297
G1 X146.36 Y183.75 E714.63435
G1 X140.30 Y183.15 E714.88734
G1 X140.27 Y183.15 E714.88868
G1 X134.43 Y181.38 E715.14218
G1 X134.40 Y181.37 E715.14362
G1 X129.03 Y178.50 E715.39680
G1 X129.00 Y178.48 E715.39814
G1 X124.29 Y174.61 E715.65157
G1 X124.27 Y174.60 E715.65275
G1 X120.40 Y169.88 E715.90627
G1 X120.38 Y169.86 E715.90762
G1 X117.51 Y164.48 E716.16092
G1 X117.49 Y164.46 E716.16214
G1 X115.72 Y158.62 E716.41561
G1 X115.71 Y158.59 E716.41695
G1 X115.12 Y152.53 E716.67028
G1 X115.11 Y152.50 E716.67166
G1 X115.71 Y146.44 E716.92461
G1 X115.71 Y146.41 E716.92594
G1 X117.48 Y140.58 E717.17936
G1 X117.49 Y140.54 E717.18075
G1 X120.36 Y135.17 E717.43410
G1 X124.24 Y130.43 E717.68868
G1 X124.26 Y130.41 E717.68998
G1 X128.98 Y126.54 E717.94352
G1 X134.38 Y123.65 E718.19812
G1 X134.40 Y123.63 E718.19935
G1 X140.24 Y121.86 E718.45282
G1 X140.27 Y121.85 E718.45417
G1 X146.33 Y121.26 E718.70754
G1 X146.37 Y121.25 E718.70892
G1 X152.42 Y121.85 E718.96183
G1 X152.45 Y121.85 E718.96317
G1 X158.29 Y123.62 E719.21668
G1 X158.32 Y123.63 E719.21811
G1 X163.69 Y126.50 E719.47129
G1 X163.72 Y126.52 E719.47263
G1 X168.43 Y130.38 E719.72594
G1 X168.45 Y130.40 E719.72724
G1 X172.32 Y135.12 E719.98078
G1 X175.21 Y140.52 E720.23538
G1 X175.23 Y140.54 E720.23661
G1 X175.75 Y142.27 E720.31182
G1 X175.93 Y142.83 E720.33615
G1 X188.39 Y142.83 E720.85405
G1 X188.39 Y93.25 E722.91535
G1 X189.89 Y93.25 E722.97771
G1 X189.89 Y149.75 E725.32671
G1 X176.84 Y149.75 E725.86914
G1 X176.52 Y146.50 E726.00487
G1 X174.77 Y140.73 E726.25551
G1 X171.93 Y135.41 E726.50618
G1 X168.11 Y130.75 E726.75683
G1 X163.45 Y126.93 E727.00748
G1 X158.13 Y124.09 E727.25815
G1 X152.36 Y122.34 E727.50875
G1 X146.36 Y121.75 E727.75937
G1 X140.36 Y122.34 E728.01003
G1 X134.59 Y124.09 E728.26067
G1 X129.27 Y126.93 E728.51134
G1 X124.61 Y130.75 E728.76199
G1 X120.79 Y135.41 E729.01263
G1 X117.95 Y140.73 E729.26330
G1 X116.20 Y146.50 E729.51394
G1 X115.61 Y152.50 E729.76456
G1 X116.20 Y158.50 E730.01517
G1 X117.95 Y164.27 E730.26581
G1 X120.79 Y169.59 E730.51648
G1 X124.61 Y174.25 E730.76713
G1 X129.27 Y178.07 E731.01778
G1 X134.59 Y180.91 E731.26845
G1 X140.36 Y182.66 E731.51909
G1 X146.36 Y183.25 E731.76975
G1 X152.36 Y182.66 E732.02037
G1 X158.13 Y180.91 E732.27097
G1 X163.45 Y178.07 E732.52164
G1 X168.11 Y174.25 E732.77229
G1 X171.93 Y169.59 E733.02293
G1 X174.77 Y164.27 E733.27360
G1 X176.52 Y158.50 E733.52424
G1 X176.84 Y155.25 E733.65997
G0 F6000 X176.39 Y154.75
;TYPE:WALL-OUTER
G1 F3480 X190.39 Y154.75 E734.24199
G1 X190.39 Y212.25 E736.63256
G1 X187.89 Y212.25 E736.73650
G1 X187.89 Y162.67 E738.79779
G1 X176.29 Y162.67 E739.27990
G1 X175.69 Y164.65 E739.36593
G1 X172.76 Y170.14 E739.62459
G1 X168.81 Y174.95 E739.88342
G1 X164.00 Y178.90 E740.14225
G1 X158.51 Y181.83 E740.40092
G1 X152.55 Y183.64 E740.65968
G1 X146.44 Y184.24 E740.91506
G1 X146.36 Y184.25 E740.91848
G1 X140.25 Y183.65 E741.17373
G1 X140.16 Y183.64 E741.17724
G1 X134.21 Y181.83 E741.43596
G1 X128.72 Y178.90 E741.69463
G1 X123.91 Y174.95 E741.95346
G1 X119.96 Y170.14 E742.21226
G1 X117.03 Y164.65 E742.47095
G1 X115.22 Y158.69 E742.72970
G1 X114.62 Y152.58 E742.98512
G1 X114.61 Y152.50 E742.98854
G1 X115.21 Y146.39 E743.24375
G1 X115.22 Y146.31 E743.24726
G1 X117.03 Y140.35 E743.50598
G1 X119.96 Y134.86 E743.76466
G1 X123.91 Y130.05 E744.02347
G1 X128.72 Y126.10 E744.28230
G1 X134.21 Y123.17 E744.54097
G1 X140.17 Y121.36 E744.79972
G1 X146.28 Y120.76 E745.05518
G1 X146.36 Y120.75 E745.05861
G1 X152.47 Y121.35 E745.31377
G1 X152.56 Y121.36 E745.31729
G1 X158.51 Y123.17 E745.57600
G1 X164.00 Y126.10 E745.83467
G1 X168.81 Y130.05 E746.09350
G1 X172.76 Y134.86 E746.35233
G1 X175.69 Y140.35 E746.61100
G1 X176.23 Y142.12 E746.68806
G1 X176.30 Y142.33 E746.69706
G1 X187.89 Y142.33 E747.17905
G1 X187.89 Y92.75 E749.24034
G1 X190.39 Y92.75 E749.34428
G1 X190.39 Y150.25 E751.73485
G1 X176.39 Y150.25 E752.31686
G1 X176.03 Y146.60 E752.46939
G1 X174.31 Y140.92 E752.71594
G1 X171.51 Y135.69 E752.96252
G1 X167.75 Y131.11 E753.20907
G1 X163.17 Y127.35 E753.45561
G1 X157.94 Y124.55 E753.70219
G1 X152.26 Y122.83 E753.94870
G1 X146.36 Y122.25 E754.19522
G1 X140.46 Y122.83 E754.44179
G1 X134.78 Y124.55 E754.68834
G1 X129.55 Y127.35 E754.93492
G1 X124.97 Y131.11 E755.18146
G1 X121.21 Y135.69 E755.42800
G1 X118.41 Y140.92 E755.67458
G1 X116.69 Y146.60 E755.92113
G1 X116.11 Y152.50 E756.16765
G1 X116.69 Y158.40 E756.41417
G1 X118.41 Y164.08 E756.66072
G1 X121.21 Y169.31 E756.90730
G1 X124.97 Y173.89 E757.15384
G1 X129.55 Y177.65 E757.40039
G1 X134.78 Y180.45 E757.64696
G1 X140.46 Y182.17 E757.89351
G1 X146.36 Y182.75 E758.14008
G1 X152.26 Y182.17 E758.38661
G1 X157.94 Y180.45 E758.63312
G1 X163.17 Y177.65 E758.87969
G1 X167.75 Y173.89 E759.12624
G1 X171.51 Y169.31 E759.37278
G1 X174.31 Y164.08 E759.61936
G1 X176.03 Y158.40 E759.86591
G1 X176.39 Y154.75 E760.01844
G0 F6000 X176.63 Y155.10
G0 X178.18 Y155.92
;TYPE:FILL
G1 F3480 X177.37 Y156.73 E760.06601
G0 F6000 X177.30 Y157.52
G1 F3480 X178.89 Y155.92 E760.15967
G0 F6000 X179.60 Y155.92
G1 F3480 X177.22 Y158.30 E760.29948
G0 F6000 X177.01 Y159.22
G1 F3480 X180.30 Y155.92 E760.49334
G0 F6000 X181.01 Y155.92
G1 F3480 X176.70 Y160.24 E760.74684
G0 F6000 X176.39 Y161.25
G1 F3480 X181.72 Y155.92 E761.05998
G0 F6000 X182.43 Y155.92
G1 F3480 X176.85 Y161.49 E761.38748
G0 F6000 X177.56 Y161.49
G1 F3480 X183.13 Y155.92 E761.71497
G0 F6000 X183.84 Y155.92
G1 F3480 X178.27 Y161.49 E762.04244
G0 F6000 X178.98 Y161.49
G1 F3480 X184.55 Y155.92 E762.36993
G0 F6000 X185.25 Y155.92
G1 F3480 X179.68 Y161.49 E762.69743
G0 F6000 X180.39 Y161.49
G1 F3480 X185.96 Y155.92 E763.02492
G0 F6000 X186.67 Y155.92
G1 F3480 X181.10 Y161.49 E763.35242
G0 F6000 X181.81 Y161.49
G1 F3480 X187.38 Y155.92 E763.67991
G0 F6000 X188.08 Y155.92
G1 F3480 X182.51 Y161.49 E764.00741
G0 F6000 X183.22 Y161.49
G1 F3480 X188.79 Y155.92 E764.33490
G0 F6000 X189.21 Y156.21
G1 F3480 X183.93 Y161.49 E764.64573
G0 F6000 X184.63 Y161.49
G1 F3480 X189.21 Y156.91 E764.91495
G0 F6000 X189.21 Y157.62
G1 F3480 X185.34 Y161.49 E765.14261
G0 F6000 X186.05 Y161.49
G1 F3480 X189.21 Y158.33 E765.32870
G0 F6000 X189.21 Y159.04
G1 F3480 X186.75 Y161.49 E765.47322
G0 F6000 X187.46 Y161.49
G1 F3480 X189.21 Y159.74 E765.57618
G0 F6000 X189.21 Y160.45
G1 F3480 X188.17 Y161.49 E765.63753
G0 F6000 X188.88 Y161.49
G1 F3480 X189.21 Y161.16 E765.65732
G0 F6000 X176.47 Y158.49
G0 X174.72 Y164.25
G0 X171.89 Y169.56
G0 X168.07 Y174.21
G0 X163.42 Y178.03
G0 X158.11 Y180.86
G0 X152.35 Y182.61
G0 X146.36 Y183.20
G0 X140.37 Y182.61
G0 X134.61 Y180.86
G0 X129.30 Y178.03
G0 X124.65 Y174.21
G0 X120.83 Y169.56
G0 X118.00 Y164.25
G0 X116.25 Y158.49
G0 X115.66 Y152.50
G0 X116.25 Y146.51
G0 X118.00 Y140.75
G0 X120.83 Y135.44
G0 X124.65 Y130.79
G0 X129.30 Y126.97
G0 X134.61 Y124.14
G0 X140.37 Y122.39
G0 X146.36 Y121.80
G0 X152.35 Y122.39
G0 X158.11 Y124.14
G0 X163.42 Y126.97
G0 X168.07 Y130.79
G0 X171.89 Y135.44
G0 X174.72 Y140.75
G0 X176.47 Y146.51
G0 X188.57 Y149.07
G1 F3480 X189.21 Y148.43 E765.69524
G0 F6000 X189.21 Y147.72
G1 F3480 X187.86 Y149.07 E765.77473
G0 F6000 X187.15 Y149.07
G1 F3480 X189.21 Y147.01 E765.89582
G0 F6000 X189.21 Y146.31
G1 F3480 X186.45 Y149.07 E766.05848
G0 F6000 X185.74 Y149.07
G1 F3480 X189.21 Y145.60 E766.26274
G0 F6000 X189.21 Y144.89
G1 F3480 X185.03 Y149.07 E766.50857
G0 F6000 X184.32 Y149.07
G1 F3480 X189.21 Y144.19 E766.79596
G0 F6000 X189.19 Y143.50
G1 F3480 X183.62 Y149.07 E767.12352
G0 F6000 X182.91 Y149.07
G1 F3480 X188.48 Y143.50 E767.45107
G0 F6000 X187.78 Y143.50
G1 F3480 X182.20 Y149.07 E767.77862
G0 F6000 X181.50 Y149.07
G1 F3480 X187.07 Y143.50 E768.10615
G0 F6000 X186.36 Y143.50
G1 F3480 X180.79 Y149.07 E768.43367
G0 F6000 X180.08 Y149.07
G1 F3480 X185.65 Y143.50 E768.76119
G0 F6000 X184.95 Y143.50
G1 F3480 X179.38 Y149.07 E769.08872
G0 F6000 X178.67 Y149.07
G1 F3480 X184.24 Y143.50 E769.41627
G0 F6000 X183.53 Y143.50
G1 F3480 X177.96 Y149.07 E769.74383
G0 F6000 X177.44 Y148.89
G1 F3480 X182.82 Y143.50 E770.06068
G0 F6000 X182.12 Y143.50
G1 F3480 X177.37 Y148.25 E770.33969
G0 F6000 X177.31 Y147.61
G1 F3480 X181.41 Y143.50 E770.58088
G0 F6000 X180.70 Y143.50
G1 F3480 X177.25 Y146.96 E770.78419
G0 F6000 X177.17 Y146.33
G1 F3480 X180.00 Y143.50 E770.95015
G0 F6000 X179.29 Y143.50
G1 F3480 X177.01 Y145.78 E771.08420
G0 F6000 X176.84 Y145.24
G1 F3480 X178.58 Y143.50 E771.18633
G0 F6000 X177.88 Y143.50
G1 F3480 X176.68 Y144.70 E771.25659
G0 F6000 X176.52 Y144.16
G1 F3480 X176.81 Y143.50 E771.29492
G1 X176.35 Y143.61 E771.31471
;LAYER:2
G0 F6000 X176.08 Y143.33 Z0.70
;TYPE:WALL-INNER
G1 F4320 X188.89 Y143.33 E771.84712
G1 X188.89 Y93.75 E773.90841
G1 X189.39 Y93.75 E773.92920
G1 X189.39 Y149.25 E776.23662
G1 X177.30 Y149.25 E776.73939
G1 X177.01 Y146.40 E776.85833
G1 X176.08 Y143.33 E776.99184
G0 F6000 X171.89 Y135.44
G0 X168.07 Y130.79
G0 X163.42 Y126.97
G0 X158.11 Y124.14
G0 X152.35 Y122.39
G0 X146.36 Y121.80
G0 X140.37 Y122.39
G0 X134.61 Y124.14
G0 X129.30 Y126.97
G0 X124.65 Y130.79
G0 X120.83 Y135.44
G0 X118.00 Y140.75
G0 X116.25 Y146.51
G0 X115.66 Y152.50
G0 X116.25 Y158.49
G0 X118.00 Y164.25
G0 X120.83 Y169.56
G0 X124.65 Y174.21
G0 X129.30 Y178.03
G0 X134.61 Y180.86
G0 X140.37 Y182.61
G0 X146.36 Y183.20
G0 X152.35 Y182.61
G0 X158.11 Y180.86
G0 X163.42 Y178.03
G0 X168.07 Y174.21
G0 X171.89 Y169.56
G0 X174.72 Y164.25
G0 X176.47 Y158.49
G0 X177.30 Y155.75
G1 F4320 X189.39 Y155.75 E777.49461
G1 X189.39 Y211.25 E779.80203
G1 X188.89 Y211.25 E779.82282
G1 X188.89 Y161.67 E781.88411
G1 X176.08 Y161.67 E782.41652
G1 X177.01 Y158.60 E782.55003
G1 X177.30 Y155.75 E782.66897
G0 F6000 X176.84 Y155.25
G1 F4320 X189.89 Y155.25 E783.21140
G1 X189.89 Y211.75 E785.56040
G1 X188.39 Y211.75 E785.62276
G1 X188.39 Y162.17 E787.68406
G1 X175.92 Y162.17 E788.20238
G1 X175.23 Y164.46 E788.30183
G1 X172.38 Y169.79 E788.55297
G1 X172.34 Y169.86 E788.55635
G1 X168.45 Y174.59 E788.81108
G1 X163.72 Y178.48 E789.06586
G1 X158.39 Y181.33 E789.31689
G1 X158.32 Y181.37 E789.32027
G1 X152.45 Y183.15 E789.57526
G1 X146.44 Y183.74 E789.82625
G1 X146.36 Y183.75 E789.82981
G1 X140.35 Y183.16 E790.08076
G1 X140.27 Y183.15 E790.08418
G1 X134.40 Y181.37 E790.33912
G1 X129.07 Y178.52 E790.59026
G1 X129.00 Y178.48 E790.59364
G1 X124.27 Y174.59 E790.84837
G1 X120.38 Y169.86 E791.10313
G1 X117.53 Y164.53 E791.35426
G1 X117.49 Y164.46 E791.35756
G1 X115.71 Y158.59 E791.61255
G1 X115.12 Y152.58 E791.86357
G1 X115.11 Y152.50 E791.86713
G1 X115.70 Y146.49 E792.11803
G1 X115.71 Y146.41 E792.12146
G1 X117.49 Y140.54 E792.37640
G1 X120.34 Y135.21 E792.62756
G1 X120.38 Y135.14 E792.63094
G1 X124.27 Y130.41 E792.88564
G1 X129.00 Y126.52 E793.14042
G1 X134.33 Y123.67 E793.39145
G1 X134.40 Y123.63 E793.39483
G1 X140.27 Y121.85 E793.64982
G1 X146.28 Y121.26 E793.90090
G1 X146.36 Y121.25 E793.90445
G1 X152.37 Y121.84 E794.15532
G1 X152.45 Y121.85 E794.15874
G1 X158.32 Y123.63 E794.41368
G1 X163.65 Y126.48 E794.66482
G1 X163.72 Y126.52 E794.66821
G1 X168.45 Y130.41 E794.92293
G1 X172.34 Y135.14 E795.17771
G1 X175.19 Y140.47 E795.42874
G1 X175.23 Y140.54 E795.43212
G1 X175.92 Y142.83 E795.53163
G1 X188.39 Y142.83 E796.04995
G1 X188.39 Y93.25 E798.11124
G1 X189.89 Y93.25 E798.17361
G1 X189.89 Y149.75 E800.52260
G1 X176.84 Y149.75 E801.06504
G1 X176.52 Y146.50 E801.20077
G1 X174.77 Y140.73 E801.45141
G1 X171.93 Y135.41 E801.70208
G1 X168.11 Y130.75 E801.95272
G1 X163.45 Y126.93 E802.20337
G1 X158.13 Y124.09 E802.45404
G1 X152.36 Y122.34 E802.70464
G1 X146.36 Y121.75 E802.95526
G1 X140.36 Y122.34 E803.20592
G1 X134.59 Y124.09 E803.45656
G1 X129.27 Y126.93 E803.70723
G1 X124.61 Y130.75 E803.95788
G1 X120.79 Y135.41 E804.20853
G1 X117.95 Y140.73 E804.45920
G1 X116.20 Y146.50 E804.70984
G1 X115.61 Y152.50 E804.96045
G1 X116.20 Y158.50 E805.21107
G1 X117.95 Y164.27 E805.46171
G1 X120.79 Y169.59 E805.71238
G1 X124.61 Y174.25 E805.96303
G1 X129.27 Y178.07 E806.21367
G1 X134.59 Y180.91 E806.46434
G1 X140.36 Y182.66 E806.71498
G1 X146.36 Y183.25 E806.96564
G1 X152.36 Y182.66 E807.21626
G1 X158.13 Y180.91 E807.46686
G1 X163.45 Y178.07 E807.71753
G1 X168.11 Y174.25 E807.96818
G1 X171.93 Y169.59 E808.21883
G1 X174.77 Y164.27 E808.46950
G1 X176.52 Y158.50 E808.72014
G1 X176.84 Y155.25 E808.85587
G0 F6000 X176.39 Y154.75
;TYPE:WALL-OUTER
G1 F4320 X190.39 Y154.75 E809.43788
G1 X190.39 Y212.25 E811.82845
G1 X187.89 Y212.25 E811.93239
G1 X187.89 Y162.67 E813.99369
G1 X176.29 Y162.67 E814.47579
G1 X175.69 Y164.65 E814.56182
G1 X172.76 Y170.14 E814.82049
G1 X168.81 Y174.95 E815.07932
G1 X164.00 Y178.90 E815.33815
G1 X158.51 Y181.83 E815.59682
G1 X152.55 Y183.64 E815.85557
G1 X146.36 Y184.25 E816.11430
G1 X140.17 Y183.64 E816.37310
G1 X134.21 Y181.83 E816.63186
G1 X128.72 Y178.90 E816.89053
G1 X123.91 Y174.95 E817.14936
G1 X119.96 Y170.14 E817.40816
G1 X117.03 Y164.65 E817.66685
G1 X115.22 Y158.69 E817.92560
G1 X114.61 Y152.50 E818.18437
G1 X115.22 Y146.31 E818.44313
G1 X117.03 Y140.35 E818.70188
G1 X119.96 Y134.86 E818.96057
G1 X123.91 Y130.05 E819.21937
G1 X128.72 Y126.10 E819.47820
G1 X134.21 Y123.17 E819.73687
G1 X140.17 Y121.36 E819.99563
G1 X146.36 Y120.75 E820.25444
G1 X152.55 Y121.36 E820.51316
G1 X158.51 Y123.17 E820.77192
G1 X164.00 Y126.10 E821.03058
G1 X168.81 Y130.05 E821.28941
G1 X172.76 Y134.86 E821.54824
G1 X175.69 Y140.35 E821.80691
G1 X176.29 Y142.33 E821.89294
G1 X187.89 Y142.33 E822.37505
G1 X187.89 Y92.75 E824.43634
G1 X190.39 Y92.75 E824.54028
G1 X190.39 Y150.25 E826.93085
G1 X176.39 Y150.25 E827.51286
G1 X176.03 Y146.60 E827.66539
G1 X174.31 Y140.92 E827.91194
G1 X171.51 Y135.69 E828.15852
G1 X167.75 Y131.11 E828.40506
G1 X163.17 Y127.35 E828.65161
G1 X157.94 Y124.55 E828.89819
G1 X152.26 Y122.83 E829.14470
G1 X146.36 Y122.25 E829.39122
G1 X140.46 Y122.83 E829.63779
G1 X134.78 Y124.55 E829.88434
G1 X129.55 Y127.35 E830.13092
G1 X124.97 Y131.11 E830.37746
G1 X121.21 Y135.69 E830.62400
G1 X118.41 Y140.92 E830.87058
G1 X116.69 Y146.60 E831.11713
G1 X116.11 Y152.50 E831.36365
G1 X116.69 Y158.40 E831.61017
G1 X118.41 Y164.08 E831.85672
G1 X121.21 Y169.31 E832.10330
G1 X124.97 Y173.89 E832.34984
G1 X129.55 Y177.65 E832.59639
G1 X134.78 Y180.45 E832.84296
G1 X140.46 Y182.17 E833.08951
G1 X146.36 Y182.75 E833.33608
G1 X152.26 Y182.17 E833.58261
G1 X157.94 Y180.45 E833.82912
G1 X163.17 Y177.65 E834.07569
G1 X167.75 Y173.89 E834.32224
G1 X171.51 Y169.31 E834.56878
G1 X174.31 Y164.08 E834.81536
G1 X176.03 Y158.40 E835.06191
G1 X176.39 Y154.75 E835.21444
G0 F6000 X176.63 Y155.10
G0 X177.49 Y155.93
;TYPE:FILL
G1 F4320 X183.06 Y161.49 E835.54188
G0 F6000 X182.35 Y161.49
G1 F4320 X177.39 Y156.53 E835.83353
G0 F6000 X177.33 Y157.18
G1 F4320 X181.65 Y161.49 E836.08736
G0 F6000 X180.94 Y161.49
G1 F4320 X177.27 Y157.82 E836.30334
G0 F6000 X177.20 Y158.46
G1 F4320 X180.23 Y161.49 E836.48150
G0 F6000 X179.53 Y161.49
G1 F4320 X177.06 Y159.03 E836.62619
G0 F6000 X176.90 Y159.57
G1 F4320 X178.82 Y161.49 E836.73902
G0 F6000 X178.11 Y161.49
G1 F4320 X176.74 Y160.12 E836.81993
G0 F6000 X176.57 Y160.66
G1 F4320 X177.40 Y161.49 E836.86893
G0 F6000 X176.70 Y161.49
G1 F4320 X176.41 Y161.20 E836.88604
G0 F6000 X178.20 Y155.93
G1 F4320 X183.77 Y161.49 E837.21348
G0 F6000 X184.47 Y161.49
G1 F4320 X178.91 Y155.93 E837.54092
G0 F6000 X179.61 Y155.93
G1 F4320 X185.18 Y161.49 E837.86835
G0 F6000 X185.89 Y161.49
G1 F4320 X180.32 Y155.93 E838.19579
G0 F6000 X181.03 Y155.93
G1 F4320 X186.60 Y161.49 E838.52322
G0 F6000 X187.30 Y161.49
G1 F4320 X181.73 Y155.93 E838.85069
G0 F6000 X182.44 Y155.93
G1 F4320 X188.01 Y161.49 E839.17812
G0 F6000 X188.72 Y161.49
G1 F4320 X183.15 Y155.93 E839.50556
G0 F6000 X183.86 Y155.93
G1 F4320 X189.21 Y161.28 E839.82053
G0 F6000 X189.21 Y160.57
G1 F4320 X184.56 Y155.93 E840.09393
G0 F6000 X185.27 Y155.93
G1 F4320 X189.21 Y159.87 E840.32577
G0 F6000 X189.21 Y159.16
G1 F4320 X185.98 Y155.93 E840.51603
G0 F6000 X186.68 Y155.93
G1 F4320 X189.21 Y158.45 E840.66473
G0 F6000 X189.21 Y157.75
G1 F4320 X187.39 Y155.93 E840.77185
G0 F6000 X188.10 Y155.93
G1 F4320 X189.21 Y157.04 E840.83738
G0 F6000 X189.21 Y156.33
G1 F4320 X188.81 Y155.93 E840.86134
G0 F6000 X176.47 Y158.49
G0 X174.72 Y164.25
G0 X171.89 Y169.56
G0 X168.07 Y174.21
G0 X163.42 Y178.03
G0 X158.11 Y180.86
G0 X152.35 Y182.61
G0 X146.36 Y183.20
G0 X140.37 Y182.61
G0 X134.61 Y180.86
G0 X129.30 Y178.03
G0 X124.65 Y174.21
G0 X120.83 Y169.56
G0 X118.00 Y164.25
G0 X116.25 Y158.49
G0 X115.66 Y152.50
G0 X116.25 Y146.51
G0 X118.00 Y140.75
G0 X120.83 Y135.44
G0 X124.65 Y130.79
G0 X129.30 Y126.97
G0 X134.61 Y124.14
G0 X140.37 Y122.39
G0 X146.36 Y121.80
G0 X152.35 Y122.39
G0 X158.11 Y124.14
G0 X163.42 Y126.97
G0 X168.07 Y130.79
G0 X171.89 Y135.44
G0 X174.72 Y140.75
G0 X176.47 Y146.51
G0 X189.03 Y149.07
G1 F4320 X183.46 Y143.50 E841.18886
G0 F6000 X184.16 Y143.50
G1 F4320 X189.21 Y148.55 E841.48579
G0 F6000 X189.21 Y147.85
G1 F4320 X184.87 Y143.50 E841.74114
G0 F6000 X185.58 Y143.50
G1 F4320 X189.21 Y147.14 E841.95492
G0 F6000 X189.21 Y146.43
G1 F4320 X186.28 Y143.50 E842.12713
G0 F6000 X186.99 Y143.50
G1 F4320 X189.21 Y145.73 E842.25778
G0 F6000 X189.21 Y145.02
G1 F4320 X187.70 Y143.50 E842.34686
G0 F6000 X188.41 Y143.50
G1 F4320 X189.21 Y144.31 E842.39436
G0 F6000 X189.21 Y143.60
G1 F4320 X189.11 Y143.50 E842.40027
G0 F6000 X188.32 Y149.07
G1 F4320 X182.75 Y143.50 E842.72783
G0 F6000 X182.04 Y143.50
G1 F4320 X187.61 Y149.07 E843.05538
G0 F6000 X186.91 Y149.07
G1 F4320 X181.33 Y143.50 E843.38293
G0 F6000 X180.63 Y143.50
G1 F4320 X186.20 Y149.07 E843.71049
G0 F6000 X185.49 Y149.07
G1 F4320 X179.92 Y143.50 E844.03804
G0 F6000 X179.21 Y143.50
G1 F4320 X184.78 Y149.07 E844.36556
G0 F6000 X184.08 Y149.07
G1 F4320 X178.51 Y143.50 E844.69309
G0 F6000 X177.80 Y143.50
G1 F4320 X183.37 Y149.07 E845.02061
G0 F6000 X182.66 Y149.07
G1 F4320 X177.09 Y143.50 E845.34814
G0 F6000 X176.38 Y143.50
G1 F4320 X181.96 Y149.07 E845.67569
G0 F6000 X181.25 Y149.07
G1 F4320 X176.60 Y144.42 E845.94921
G0 F6000 X176.90 Y145.44
G1 F4320 X180.54 Y149.07 E846.16311
G0 F6000 X179.83 Y149.07
G1 F4320 X177.19 Y146.43 E846.31845
G0 F6000 X177.27 Y147.22
G1 F4320 X179.13 Y149.07 E846.42769
G0 F6000 X178.42 Y149.07
G1 F4320 X177.35 Y148.00 E846.49078
G0 F6000 X177.43 Y148.79
G1 F4320 X177.71 Y149.07 E846.50768
;LAYER:3
G0 F6000 X177.30 Y149.25 Z0.90
;TYPE:WALL-INNER
G1 F5160 X177.01 Y146.40 E846.62662
G1 X176.08 Y143.33 E846.76013
G1 X188.89 Y143.33 E847.29254
G1 X188.89 Y93.75 E849.35384
G1 X189.39 Y93.75 E849.37463
G1 X189.39 Y149.25 E851.68205
G1 X177.30 Y149.25 E852.18482
G0 F6000 X174.72 Y140.75
G0 X171.89 Y135.44
G0 X168.07 Y130.79
G0 X163.42 Y126.97
G0 X158.11 Y124.14
G0 X152.35 Y122.39
G0 X146.36 Y121.80
G0 X140.37 Y122.39
G0 X134.61 Y124.14
G0 X129.30 Y126.97
G0 X124.65 Y130.79
G0 X120.83 Y135.44
G0 X118.00 Y140.75
G0 X116.25 Y146.51
G0 X115.66 Y152.50
G0 X116.25 Y158.49
G0 X118.00 Y164.25
G0 X120.83 Y169.56
G0 X124.65 Y174.21
G0 X129.30 Y178.03
G0 X134.61 Y180.86
G0 X140.37 Y182.61
G0 X146.36 Y183.20
G0 X152.35 Y182.61
G0 X158.11 Y180.86
G0 X163.42 Y178.03
G0 X168.07 Y174.21
G0 X171.89 Y169.56
G0 X174.72 Y164.25
G0 X176.47 Y158.49
G0 X177.30 Y155.75
G1 F5160 X189.39 Y155.75 E852.68759
G1 X189.39 Y211.25 E854.99501
G1 X188.89 Y211.25 E855.01580
G1 X188.89 Y161.67 E857.07709
G1 X176.08 Y161.67 E857.60950
G1 X177.01 Y158.60 E857.74301
G1 X177.30 Y155.75 E857.86195
G0 F6000 X176.84 Y155.25
G1 F5160 X189.89 Y155.25 E858.40438
G1 X189.89 Y211.75 E860.75338
G1 X188.39 Y211.75 E860.81574
G1 X188.39 Y162.17 E862.87704
G1 X175.92 Y162.17 E863.39536
G1 X175.23 Y164.46 E863.49490
G1 X172.34 Y169.85 E863.74918
G1 X168.45 Y174.59 E864.00406
G1 X163.72 Y178.48 E864.25893
G1 X158.32 Y181.37 E864.51321
G1 X152.45 Y183.15 E864.76824
G1 X146.50 Y183.73 E865.01702
G1 X146.36 Y183.75 E865.02274
G1 X140.40 Y183.16 E865.27161
G1 X140.27 Y183.15 E865.27716
G1 X134.40 Y181.37 E865.53219
G1 X129.00 Y178.48 E865.78647
G1 X124.27 Y174.59 E866.04135
G1 X120.38 Y169.86 E866.29610
G1 X117.49 Y164.46 E866.55059
G1 X115.71 Y158.59 E866.80553
G1 X115.13 Y152.63 E867.05434
G1 X115.11 Y152.50 E867.06007
G1 X115.70 Y146.54 E867.30888
G1 X115.71 Y146.41 E867.31444
G1 X117.49 Y140.54 E867.56938
G1 X120.38 Y135.14 E867.82387
G1 X124.27 Y130.41 E868.07862
G1 X129.00 Y126.52 E868.33350
G1 X134.40 Y123.63 E868.58778
G1 X140.27 Y121.85 E868.84281
G1 X146.23 Y121.27 E869.09167
G1 X146.36 Y121.25 E869.09735
G1 X152.32 Y121.84 E869.34617
G1 X152.45 Y121.85 E869.35173
G1 X158.32 Y123.63 E869.60676
G1 X163.72 Y126.52 E869.86104
G1 X168.45 Y130.41 E870.11591
G1 X172.34 Y135.15 E870.37079
G1 X175.23 Y140.54 E870.62507
G1 X175.74 Y142.24 E870.69893
G1 X175.93 Y142.83 E870.72466
G1 X188.39 Y142.83 E871.24281
G1 X188.39 Y93.25 E873.30411
G1 X189.89 Y93.25 E873.36647
G1 X189.89 Y149.75 E875.71547
G1 X176.84 Y149.75 E876.25790
G1 X176.52 Y146.50 E876.39363
G1 X174.77 Y140.73 E876.64427
G1 X171.93 Y135.41 E876.89494
G1 X168.11 Y130.75 E877.14559
G1 X163.45 Y126.93 E877.39624
G1 X158.13 Y124.09 E877.64691
G1 X152.36 Y122.34 E877.89751
G1 X146.36 Y121.75 E878.14813
G1 X140.36 Y122.34 E878.39879
G1 X134.59 Y124.09 E878.64943
G1 X129.27 Y126.93 E878.90010
G1 X124.61 Y130.75 E879.15075
G1 X120.79 Y135.41 E879.40139
G1 X117.95 Y140.73 E879.65206
G1 X116.20 Y146.50 E879.90270
G1 X115.61 Y152.50 E880.15332
G1 X116.20 Y158.50 E880.40394
G1 X117.95 Y164.27 E880.65457
G1 X120.79 Y169.59 E880.90524
G1 X124.61 Y174.25 E881.15589
G1 X129.27 Y178.07 E881.40654
G1 X134.59 Y180.91 E881.65721
G1 X140.36 Y182.66 E881.90785
G1 X146.36 Y183.25 E882.15851
G1 X152.36 Y182.66 E882.40913
G1 X158.13 Y180.91 E882.65973
G1 X163.45 Y178.07 E882.91040
G1 X168.11 Y174.25 E883.16105
G1 X171.93 Y169.59 E883.41169
G1 X174.77 Y164.27 E883.66236
G1 X176.52 Y158.50 E883.91300
G1 X176.84 Y155.25 E884.04873
G0 F6000 X176.39 Y154.75
;TYPE:WALL-OUTER
G1 F5160 X190.39 Y154.75 E884.63075
G1 X190.39 Y212.25 E887.02132
G1 X187.89 Y212.25 E887.12526
G1 X187.89 Y162.67 E889.18655
G1 X176.29 Y162.67 E889.66866
G1 X175.69 Y164.65 E889.75469
G1 X172.76 Y170.14 E890.01335
G1 X168.81 Y174.95 E890.27218
G1 X164.00 Y178.90 E890.53101
G1 X158.51 Y181.83 E890.78968
G1 X152.56 Y183.64 E891.04840
G1 X146.36 Y184.25 E891.30720
G1 X140.17 Y183.64 E891.56597
G1 X134.21 Y181.83 E891.82473
G1 X128.72 Y178.90 E892.08340
G1 X123.91 Y174.95 E892.34222
G1 X119.96 Y170.14 E892.60103
G1 X117.03 Y164.65 E892.85972
G1 X115.22 Y158.69 E893.11847
G1 X114.61 Y152.50 E893.37723
G1 X115.22 Y146.31 E893.63600
G1 X117.03 Y140.35 E893.89475
G1 X119.96 Y134.86 E894.15344
G1 X123.91 Y130.05 E894.41224
G1 X128.72 Y126.10 E894.67107
G1 X134.21 Y123.17 E894.92974
G1 X140.17 Y121.36 E895.18850
G1 X146.36 Y120.75 E895.44726
G1 X152.56 Y121.36 E895.70607
G1 X158.51 Y123.17 E895.96479
G1 X164.00 Y126.10 E896.22345
G1 X168.81 Y130.05 E896.48228
G1 X172.76 Y134.86 E896.74111
G1 X175.69 Y140.35 E896.99978
G1 X176.22 Y142.09 E897.07546
G1 X176.29 Y142.33 E897.08582
G1 X187.89 Y142.33 E897.56789
G1 X187.89 Y92.75 E899.62918
G1 X190.39 Y92.75 E899.73312
G1 X190.39 Y150.25 E902.12369
G1 X176.39 Y150.25 E902.70570
G1 X176.03 Y146.60 E902.85823
G1 X174.31 Y140.92 E903.10478
G1 X171.51 Y135.69 E903.35136
G1 X167.75 Y131.11 E903.59791
G1 X163.17 Y127.35 E903.84445
G1 X157.94 Y124.55 E904.09103
G1 X152.26 Y122.83 E904.33754
G1 X146.36 Y122.25 E904.58406
G1 X140.46 Y122.83 E904.83063
G1 X134.78 Y124.55 E905.07718
G1 X129.55 Y127.35 E905.32376
G1 X124.97 Y131.11 E905.57030
G1 X121.21 Y135.69 E905.81684
G1 X118.41 Y140.92 E906.06342
G1 X116.69 Y146.60 E906.30997
G1 X116.11 Y152.50 E906.55649
G1 X116.69 Y158.40 E906.80301
G1 X118.41 Y164.08 E907.04956
G1 X121.21 Y169.31 E907.29614
G1 X124.97 Y173.89 E907.54268
G1 X129.55 Y177.65 E907.78923
G1 X134.78 Y180.45 E908.03580
G1 X140.46 Y182.17 E908.28235
G1 X146.36 Y182.75 E908.52892
G1 X152.26 Y182.17 E908.77545
G1 X157.94 Y180.45 E909.02196
G1 X163.17 Y177.65 E909.26853
G1 X167.75 Y173.89 E909.51508
G1 X171.51 Y169.31 E909.76162
G1 X174.31 Y164.08 E910.00820
G1 X176.03 Y158.40 E910.25475
G1 X176.39 Y154.75 E910.40728
G0 F6000 X176.63 Y155.10
G0 X178.18 Y155.92
;TYPE:FILL
G1 F5160 X177.37 Y156.73 E910.45485
G0 F6000 X177.30 Y157.52
G1 F5160 X178.89 Y155.92 E910.54851
G0 F6000 X179.60 Y155.92
G1 F5160 X177.22 Y158.30 E910.68833
G0 F6000 X177.01 Y159.22
G1 F5160 X180.30 Y155.92 E910.88218
G0 F6000 X181.01 Y155.92
G1 F5160 X176.70 Y160.24 E911.13568
G0 F6000 X176.39 Y161.25
G1 F5160 X181.72 Y155.92 E911.44882
G0 F6000 X182.43 Y155.92
G1 F5160 X176.85 Y161.49 E911.77632
G0 F6000 X177.56 Y161.49
G1 F5160 X183.13 Y155.92 E912.10381
G0 F6000 X183.84 Y155.92
G1 F5160 X178.27 Y161.49 E912.43128
G0 F6000 X178.98 Y161.49
G1 F5160 X184.55 Y155.92 E912.75877
G0 F6000 X185.25 Y155.92
G1 F5160 X179.68 Y161.49 E913.08627
G0 F6000 X180.39 Y161.49
G1 F5160 X185.96 Y155.92 E913.41376
G0 F6000 X186.67 Y155.92
G1 F5160 X181.10 Y161.49 E913.74126
G0 F6000 X181.81 Y161.49
G1 F5160 X187.38 Y155.92 E914.06875
G0 F6000 X188.08 Y155.92
G1 F5160 X182.51 Y161.49 E914.39625
G0 F6000 X183.22 Y161.49
G1 F5160 X188.79 Y155.92 E914.72374
G0 F6000 X189.21 Y156.21
G1 F5160 X183.93 Y161.49 E915.03457
G0 F6000 X184.63 Y161.49
G1 F5160 X189.21 Y156.91 E915.30379
G0 F6000 X189.21 Y157.62
G1 F5160 X185.34 Y161.49 E915.53145
G0 F6000 X186.05 Y161.49
G1 F5160 X189.21 Y158.33 E915.71754
G0 F6000 X189.21 Y159.04
G1 F5160 X186.75 Y161.49 E915.86206
G0 F6000 X187.46 Y161.49
G1 F5160 X189.21 Y159.74 E915.96502
G0 F6000 X189.21 Y160.45
G1 F5160 X188.17 Y161.49 E916.02637
G0 F6000 X188.88 Y161.49
G1 F5160 X189.21 Y161.16 E916.04616
G0 F6000 X176.47 Y158.49
G0 X174.72 Y164.25
G0 X171.89 Y169.56
G0 X168.07 Y174.21
G0 X163.42 Y178.03
G0 X158.11 Y180.86
G0 X152.35 Y182.61
G0 X146.36 Y183.20
G0 X140.37 Y182.61
G0 X134.61 Y180.86
G0 X129.30 Y178.03
G0 X124.65 Y174.21
G0 X120.83 Y169.56
G0 X118.00 Y164.25
G0 X116.25 Y158.49
G0 X115.66 Y152.50
G0 X116.25 Y146.51
G0 X118.00 Y140.75
G0 X120.83 Y135.44
G0 X124.65 Y130.79
G0 X129.30 Y126.97
G0 X134.61 Y124.14
G0 X140.37 Y122.39
G0 X146.36 Y121.80
G0 X152.35 Y122.39
G0 X158.11 Y124.14
G0 X163.42 Y126.97
G0 X168.07 Y130.79
G0 X171.89 Y135.44
G0 X174.72 Y140.75
G0 X176.47 Y146.51
G0 X188.57 Y149.07
G1 F5160 X189.21 Y148.43 E916.08408
G0 F6000 X189.21 Y147.72
G1 F5160 X187.86 Y149.07 E916.16357
G0 F6000 X187.15 Y149.07
G1 F5160 X189.21 Y147.01 E916.28466
G0 F6000 X189.21 Y146.31
G1 F5160 X186.45 Y149.07 E916.44732
G0 F6000 X185.74 Y149.07
G1 F5160 X189.21 Y145.60 E916.65158
G0 F6000 X189.21 Y144.89
G1 F5160 X185.03 Y149.07 E916.89741
G0 F6000 X184.32 Y149.07
G1 F5160 X189.21 Y144.19 E917.18480
G0 F6000 X189.19 Y143.50
G1 F5160 X183.62 Y149.07 E917.51236
G0 F6000 X182.91 Y149.07
G1 F5160 X188.48 Y143.50 E917.83991
G0 F6000 X187.78 Y143.50
G1 F5160 X182.20 Y149.07 E918.16746
G0 F6000 X181.50 Y149.07
G1 F5160 X187.07 Y143.50 E918.49499
G0 F6000 X186.36 Y143.50
G1 F5160 X180.79 Y149.07 E918.82251
G0 F6000 X180.08 Y149.07
G1 F5160 X185.65 Y143.50 E919.15003
G0 F6000 X184.95 Y143.50
G1 F5160 X179.38 Y149.07 E919.47756
G0 F6000 X178.67 Y149.07
G1 F5160 X184.24 Y143.50 E919.80511
G0 F6000 X183.53 Y143.50
G1 F5160 X177.96 Y149.07 E920.13267
G0 F6000 X177.44 Y148.89
G1 F5160 X182.82 Y143.50 E920.44952
G0 F6000 X182.12 Y143.50
G1 F5160 X177.37 Y148.25 E920.72854
G0 F6000 X177.31 Y147.61
G1 F5160 X181.41 Y143.50 E920.96972
G0 F6000 X180.70 Y143.50
G1 F5160 X177.25 Y146.96 E921.17303
G0 F6000 X177.17 Y146.33
G1 F5160 X180.00 Y143.50 E921.33899
G0 F6000 X179.29 Y143.50
G1 F5160 X177.01 Y145.78 E921.47304
G0 F6000 X176.84 Y145.24
G1 F5160 X178.58 Y143.50 E921.57517
G0 F6000 X177.88 Y143.50
G1 F5160 X176.68 Y144.70 E921.64543
G0 F6000 X176.52 Y144.16
G1 F5160 X176.81 Y143.50 E921.68376
G1 X176.35 Y143.61 E921.70355
;LAYER:4
G0 F6000 X176.08 Y143.33 Z1.10
;TYPE:WALL-INNER
G1 X188.89 Y143.33 E922.23596
G1 X188.89 Y93.75 E924.29725
G1 X189.39 Y93.75 E924.31804
G1 X189.39 Y149.25 E926.62546
G1 X177.30 Y149.25 E927.12823
G1 X177.01 Y146.40 E927.24717
G1 X176.08 Y143.33 E927.38068
G0 X171.89 Y135.44
G0 X168.07 Y130.79
G0 X163.42 Y126.97
G0 X158.11 Y124.14
G0 X152.35 Y122.39
G0 X146.36 Y121.80
G0 X140.37 Y122.39
G0 X134.61 Y124.14
G0 X129.30 Y126.97
G0 X124.65 Y130.79
G0 X120.83 Y135.44
G0 X118.00 Y140.75
G0 X116.25 Y146.51
G0 X115.66 Y152.50
G0 X116.25 Y158.49
G0 X118.00 Y164.25
G0 X120.83 Y169.56
G0 X124.65 Y174.21
G0 X129.30 Y178.03
G0 X134.61 Y180.86
G0 X140.37 Y182.61
G0 X146.36 Y183.20
G0 X152.35 Y182.61
G0 X158.11 Y180.86
G0 X163.42 Y178.03
G0 X168.07 Y174.21
G0 X171.89 Y169.56
G0 X174.72 Y164.25
G0 X176.47 Y158.49
G0 X177.30 Y155.75
G1 X189.39 Y155.75 E927.88345
G1 X189.39 Y211.25 E930.19087
G1 X188.89 Y211.25 E930.21166
G1 X188.89 Y161.67 E932.27295
G1 X176.08 Y161.67 E932.80536
G1 X177.01 Y158.60 E932.93887
G1 X177.30 Y155.75 E933.05781
G0 X176.84 Y155.25
G1 X189.89 Y155.25 E933.60024
G1 X189.89 Y211.75 E935.94924
G1 X188.39 Y211.75 E936.01160
G1 X188.39 Y162.17 E938.07290
G1 X175.92 Y162.17 E938.59122
G1 X175.23 Y164.46 E938.69076
G1 X172.43 Y169.69 E938.93734
G1 X172.34 Y169.86 E938.94523
G1 X168.57 Y174.45 E939.19212
G1 X168.45 Y174.59 E939.19992
G1 X163.87 Y178.36 E939.44670
G1 X163.72 Y178.48 E939.45480
G1 X158.48 Y181.28 E939.70147
G1 X158.32 Y181.37 E939.70924
G1 X152.45 Y183.15 E939.96410
G1 X146.36 Y183.75 E940.21856
G1 X140.27 Y183.15 E940.47302
G1 X134.40 Y181.37 E940.72805
G1 X129.17 Y178.57 E940.97463
G1 X129.00 Y178.48 E940.98252
G1 X124.41 Y174.71 E941.22941
G1 X124.27 Y174.59 E941.23721
G1 X120.50 Y170.00 E941.48402
G1 X120.38 Y169.86 E941.49197
G1 X117.58 Y164.62 E941.73875
G1 X117.49 Y164.46 E941.74653
G1 X115.71 Y158.59 E942.00139
G1 X115.11 Y152.50 E942.25584
G1 X115.71 Y146.41 E942.51030
G1 X117.49 Y140.54 E942.76524
G1 X120.29 Y135.31 E943.01195
G1 X120.38 Y135.14 E943.01982
G1 X124.15 Y130.55 E943.26669
G1 X124.27 Y130.41 E943.27448
G1 X128.85 Y126.64 E943.52126
G1 X129.00 Y126.52 E943.52936
G1 X134.24 Y123.72 E943.77603
G1 X134.40 Y123.63 E943.78380
G1 X140.27 Y121.85 E944.03866
G1 X146.36 Y121.25 E944.29312
G1 X152.45 Y121.85 E944.54758
G1 X158.32 Y123.63 E944.80262
G1 X163.55 Y126.43 E945.04919
G1 X163.72 Y126.52 E945.05708
G1 X168.31 Y130.29 E945.30398
G1 X168.45 Y130.41 E945.31177
G1 X172.22 Y134.99 E945.55855
G1 X172.34 Y135.15 E945.56665
G1 X175.14 Y140.38 E945.81332
G1 X175.23 Y140.54 E945.82109
G1 X175.74 Y142.22 E945.89409
G1 X175.93 Y142.83 E945.92052
G1 X188.39 Y142.83 E946.43867
G1 X188.39 Y93.25 E948.49997
G1 X189.89 Y93.25 E948.56233
G1 X189.89 Y149.75 E950.91133
G1 X176.84 Y149.75 E951.45376
G1 X176.52 Y146.50 E951.58949
G1 X174.77 Y140.73 E951.84013
G1 X171.93 Y135.41 E952.09080
G1 X168.11 Y130.75 E952.34145
G1 X163.45 Y126.93 E952.59209
G1 X158.13 Y124.09 E952.84276
G1 X152.36 Y122.34 E953.09336
G1 X146.36 Y121.75 E953.34398
G1 X140.36 Y122.34 E953.59465
G1 X134.59 Y124.09 E953.84528
G1 X129.27 Y126.93 E954.09595
G1 X124.61 Y130.75 E954.34660
G1 X120.79 Y135.41 E954.59725
G1 X117.95 Y140.73 E954.84792
G1 X116.20 Y146.50 E955.09856
G1 X115.61 Y152.50 E955.34917
G1 X116.20 Y158.50 E955.59979
G1 X117.95 Y164.27 E955.85043
G1 X120.79 Y169.59 E956.10110
G1 X124.61 Y174.25 E956.35175
G1 X129.27 Y178.07 E956.60240
G1 X134.59 Y180.91 E956.85306
G1 X140.36 Y182.66 E957.10370
G1 X146.36 Y183.25 E957.35437
G1 X152.36 Y182.66 E957.60499
G1 X158.13 Y180.91 E957.85559
G1 X163.45 Y178.07 E958.10626
G1 X168.11 Y174.25 E958.35690
G1 X171.93 Y169.59 E958.60755
G1 X174.77 Y164.27 E958.85822
G1 X176.52 Y158.50 E959.10886
G1 X176.84 Y155.25 E959.24459
G0 X176.39 Y154.75
;TYPE:WALL-OUTER
G1 X190.39 Y154.75 E959.82660
G1 X190.39 Y212.25 E962.21717
G1 X187.89 Y212.25 E962.32111
G1 X187.89 Y162.67 E964.38241
G1 X176.29 Y162.67 E964.86451
G1 X175.69 Y164.65 E964.95054
G1 X172.76 Y170.14 E965.20921
G1 X168.81 Y174.95 E965.46804
G1 X164.00 Y178.90 E965.72687
G1 X158.51 Y181.83 E965.98554
G1 X152.56 Y183.64 E966.24425
G1 X146.36 Y184.25 E966.50306
G1 X140.17 Y183.64 E966.76183
G1 X134.21 Y181.83 E967.02058
G1 X128.72 Y178.90 E967.27925
G1 X123.91 Y174.95 E967.53808
G1 X119.96 Y170.14 E967.79688
G1 X117.03 Y164.65 E968.05557
G1 X115.22 Y158.69 E968.31433
G1 X114.61 Y152.50 E968.57309
G1 X115.22 Y146.31 E968.83185
G1 X117.03 Y140.35 E969.09061
G1 X119.96 Y134.86 E969.34930
G1 X123.91 Y130.05 E969.60810
G1 X128.72 Y126.10 E969.86693
G1 X134.21 Y123.17 E970.12560
G1 X140.17 Y121.36 E970.38435
G1 X146.36 Y120.75 E970.64312
G1 X152.56 Y121.36 E970.90193
G1 X158.51 Y123.17 E971.16064
G1 X164.00 Y126.10 E971.41931
G1 X168.81 Y130.05 E971.67814
G1 X172.76 Y134.86 E971.93697
G1 X175.69 Y140.35 E972.19564
G1 X176.22 Y142.08 E972.27062
G1 X176.29 Y142.33 E972.28168
G1 X187.89 Y142.33 E972.76374
G1 X187.89 Y92.75 E974.82504
G1 X190.39 Y92.75 E974.92898
G1 X190.39 Y150.25 E977.31955
G1 X176.39 Y150.25 E977.90156
G1 X176.03 Y146.60 E978.05409
G1 X174.31 Y140.92 E978.30064
G1 X171.51 Y135.69 E978.54722
G1 X167.75 Y131.11 E978.79376
G1 X163.17 Y127.35 E979.04031
G1 X157.94 Y124.55 E979.28688
G1 X152.26 Y122.83 E979.53339
G1 X146.36 Y122.25 E979.77992
G1 X140.46 Y122.83 E980.02648
G1 X134.78 Y124.55 E980.27303
G1 X129.55 Y127.35 E980.51961
G1 X124.97 Y131.11 E980.76616
G1 X121.21 Y135.69 E981.01270
G1 X118.41 Y140.92 E981.25928
G1 X116.69 Y146.60 E981.50583
G1 X116.11 Y152.50 E981.75235
G1 X116.69 Y158.40 E981.99887
G1 X118.41 Y164.08 E982.24542
G1 X121.21 Y169.31 E982.49200
G1 X124.97 Y173.89 E982.73854
G1 X129.55 Y177.65 E982.98508
G1 X134.78 Y180.45 E983.23166
G1 X140.46 Y182.17 E983.47821
G1 X146.36 Y182.75 E983.72478
G1 X152.26 Y182.17 E983.97130
G1 X157.94 Y180.45 E984.21781
G1 X163.17 Y177.65 E984.46439
G1 X167.75 Y173.89 E984.71093
G1 X171.51 Y169.31 E984.95748
G1 X174.31 Y164.08 E985.20405
G1 X176.03 Y158.40 E985.45060
G1 X176.39 Y154.75 E985.60314
G0 X176.63 Y155.10
G0 X177.49 Y155.93
;TYPE:FILL
G1 X183.06 Y161.49 E985.93057
G0 X182.35 Y161.49
G1 X177.39 Y156.53 E986.22223
G0 X177.33 Y157.18
G1 X181.65 Y161.49 E986.47605
G0 X180.94 Y161.49
G1 X177.27 Y157.82 E986.69204
G0 X177.20 Y158.46
G1 X180.23 Y161.49 E986.87019
G0 X179.53 Y161.49
G1 X177.06 Y159.03 E987.01489
G0 X176.90 Y159.57
G1 X178.82 Y161.49 E987.12772
G0 X178.11 Y161.49
G1 X176.74 Y160.12 E987.20862
G0 X176.57 Y160.66
G1 X177.40 Y161.49 E987.25763
G0 X176.70 Y161.49
G1 X176.41 Y161.20 E987.27474
G0 X178.20 Y155.93
G1 X183.77 Y161.49 E987.60218
G0 X184.47 Y161.49
G1 X178.91 Y155.93 E987.92961
G0 X179.61 Y155.93
G1 X185.18 Y161.49 E988.25705
G0 X185.89 Y161.49
G1 X180.32 Y155.93 E988.58448
G0 X181.03 Y155.93
G1 X186.60 Y161.49 E988.91192
G0 X187.30 Y161.49
G1 X181.73 Y155.93 E989.23938
G0 X182.44 Y155.93
G1 X188.01 Y161.49 E989.56682
G0 X188.72 Y161.49
G1 X183.15 Y155.93 E989.89426
G0 X183.86 Y155.93
G1 X189.21 Y161.28 E990.20923
G0 X189.21 Y160.57
G1 X184.56 Y155.93 E990.48263
G0 X185.27 Y155.93
G1 X189.21 Y159.87 E990.71446
G0 X189.21 Y159.16
G1 X185.98 Y155.93 E990.90473
G0 X186.68 Y155.93
G1 X189.21 Y158.45 E991.05342
G0 X189.21 Y157.75
G1 X187.39 Y155.93 E991.16055
G0 X188.10 Y155.93
G1 X189.21 Y157.04 E991.22608
G0 X189.21 Y156.33
G1 X188.81 Y155.93 E991.25004
G0 X176.47 Y158.49
G0 X174.72 Y164.25
G0 X171.89 Y169.56
G0 X168.07 Y174.21
G0 X163.42 Y178.03
G0 X158.11 Y180.86
G0 X152.35 Y182.61
G0 X146.36 Y183.20
G0 X140.37 Y182.61
G0 X134.61 Y180.86
G0 X129.30 Y178.03
G0 X124.65 Y174.21
G0 X120.83 Y169.56
G0 X118.00 Y164.25
G0 X116.25 Y158.49
G0 X115.66 Y152.50
G0 X116.25 Y146.51
G0 X118.00 Y140.75
G0 X120.83 Y135.44
G0 X124.65 Y130.79
G0 X129.30 Y126.97
G0 X134.61 Y124.14
G0 X140.37 Y122.39
G0 X146.36 Y121.80
G0 X152.35 Y122.39
G0 X158.11 Y124.14
G0 X163.42 Y126.97
G0 X168.07 Y130.79
G0 X171.89 Y135.44
G0 X174.72 Y140.75
G0 X176.47 Y146.51
G0 X189.03 Y149.07
G1 X183.46 Y143.50 E991.57756
G0 X184.16 Y143.50
G1 X189.21 Y148.55 E991.87448
G0 X189.21 Y147.85
G1 X184.87 Y143.50 E992.12983
G0 X185.58 Y143.50
G1 X189.21 Y147.14 E992.34362
G0 X189.21 Y146.43
G1 X186.28 Y143.50 E992.51583
G0 X186.99 Y143.50
G1 X189.21 Y145.73 E992.64648
G0 X189.21 Y145.02
G1 X187.70 Y143.50 E992.73555
G0 X188.41 Y143.50
G1 X189.21 Y144.31 E992.78306
G0 X189.21 Y143.60
G1 X189.11 Y143.50 E992.78897
G0 X188.32 Y149.07
G1 X182.75 Y143.50 E993.11652
G0 X182.04 Y143.50
G1 X187.61 Y149.07 E993.44408
G0 X186.91 Y149.07
G1 X181.33 Y143.50 E993.77163
G0 X180.63 Y143.50
G1 X186.20 Y149.07 E994.09918
G0 X185.49 Y149.07
G1 X179.92 Y143.50 E994.42674
G0 X179.21 Y143.50
G1 X184.78 Y149.07 E994.75426
G0 X184.08 Y149.07
G1 X178.51 Y143.50 E995.08178
G0 X177.80 Y143.50
G1 X183.37 Y149.07 E995.40931
G0 X182.66 Y149.07
G1 X177.09 Y143.50 E995.73683
G0 X176.38 Y143.50
G1 X181.96 Y149.07 E996.06439
G0 X181.25 Y149.07
G1 X176.60 Y144.42 E996.33790
G0 X176.90 Y145.44
G1 X180.54 Y149.07 E996.55181
G0 X179.83 Y149.07
G1 X177.19 Y146.43 E996.70714
G0 X177.27 Y147.22
G1 X179.13 Y149.07 E996.81639
G0 X178.42 Y149.07
G1 X177.35 Y148.00 E996.87948
G0 X177.43 Y148.79
G1 X177.71 Y149.07 E996.89638
;LAYER:5
G0 X177.30 Y149.25 Z1.30
;TYPE:WALL-INNER
G1 X177.01 Y146.40 E997.01532
G1 X176.08 Y143.33 E997.14883
G1 X188.89 Y143.33 E997.68124
G1 X188.89 Y93.75 E999.74254
G1 X189.39 Y93.75 E999.76332
G1 X189.39 Y149.25 E1002.07075
G1 X177.30 Y149.25 E1002.57351
G0 X174.72 Y140.75
G0 X171.89 Y135.44
G0 X168.07 Y130.79
G0 X163.42 Y126.97
G0 X158.11 Y124.14
G0 X152.35 Y122.39
G0 X146.36 Y121.80
G0 X140.37 Y122.39
G0 X134.61 Y124.14
G0 X129.30 Y126.97
G0 X124.65 Y130.79
G0 X120.83 Y135.44
G0 X118.00 Y140.75
G0 X116.25 Y146.51
G0 X115.66 Y152.50
G0 X116.25 Y158.49
G0 X118.00 Y164.25
G0 X120.83 Y169.56
G0 X124.65 Y174.21
G0 X129.30 Y178.03
G0 X134.61 Y180.86
G0 X140.37 Y182.61
G0 X146.36 Y183.20
G0 X152.35 Y182.61
G0 X158.11 Y180.86
G0 X163.42 Y178.03
G0 X168.07 Y174.21
G0 X171.89 Y169.56
G0 X174.72 Y164.25
G0 X176.47 Y158.49
G0 X177.30 Y155.75
G1 X189.39 Y155.75 E1003.07628
G1 X189.39 Y211.25 E1005.38370
G1 X188.89 Y211.25 E1005.40449
G1 X188.89 Y161.67 E1007.46579
G1 X176.08 Y161.67 E1007.99820
G1 X177.01 Y158.60 E1008.13171
G1 X177.30 Y155.75 E1008.25065
G0 X176.84 Y155.25
G1 X189.89 Y155.25 E1008.79308
G1 X189.89 Y211.75 E1011.14208
G1 X188.39 Y211.75 E1011.20444
G1 X188.39 Y162.17 E1013.26573
G1 X175.92 Y162.17 E1013.78405
G1 X175.23 Y164.46 E1013.88351
G1 X172.34 Y169.86 E1014.13797
G1 X168.45 Y174.59 E1014.39276
G1 X163.72 Y178.48 E1014.64754
G1 X158.32 Y181.37 E1014.90200
G1 X152.69 Y183.08 E1015.14678
G1 X152.45 Y183.15 E1015.15681
G1 X146.36 Y183.75 E1015.41136
G1 X140.27 Y183.15 E1015.66586
G1 X134.63 Y181.44 E1015.91068
G1 X134.41 Y181.37 E1015.92062
G1 X129.00 Y178.48 E1016.17527
G1 X124.27 Y174.59 E1016.43005
G1 X120.38 Y169.86 E1016.68481
G1 X117.49 Y164.46 E1016.93930
G1 X115.78 Y158.82 E1017.18407
G1 X115.71 Y158.59 E1017.19410
G1 X115.11 Y152.50 E1017.44869
G1 X115.71 Y146.41 E1017.70314
G1 X117.42 Y140.77 E1017.94796
G1 X117.49 Y140.54 E1017.95790
G1 X120.38 Y135.14 E1018.21257
G1 X124.27 Y130.41 E1018.46733
G1 X129.00 Y126.52 E1018.72211
G1 X134.40 Y123.63 E1018.97658
G1 X140.03 Y121.92 E1019.22135
G1 X140.27 Y121.85 E1019.23139
G1 X146.36 Y121.25 E1019.48602
G1 X152.45 Y121.85 E1019.74043
G1 X158.09 Y123.56 E1019.98525
G1 X158.31 Y123.63 E1019.99519
G1 X163.72 Y126.52 E1020.24984
G1 X168.45 Y130.41 E1020.50463
G1 X172.34 Y135.14 E1020.75941
G1 X175.23 Y140.54 E1021.01387
G1 X175.92 Y142.83 E1021.11333
G1 X188.39 Y142.83 E1021.63165
G1 X188.39 Y93.25 E1023.69294
G1 X189.89 Y93.25 E1023.75531
G1 X189.89 Y149.75 E1026.10430
G1 X176.84 Y149.75 E1026.64674
G1 X176.52 Y146.50 E1026.78247
G1 X174.77 Y140.73 E1027.03311
G1 X171.93 Y135.41 E1027.28377
G1 X168.11 Y130.75 E1027.53442
G1 X163.45 Y126.93 E1027.78507
G1 X158.13 Y124.09 E1028.03574
G1 X152.36 Y122.34 E1028.28634
G1 X146.36 Y121.75 E1028.53696
G1 X140.36 Y122.34 E1028.78762
G1 X134.59 Y124.09 E1029.03826
G1 X129.27 Y126.93 E1029.28893
G1 X124.61 Y130.75 E1029.53958
G1 X120.79 Y135.41 E1029.79023
G1 X117.95 Y140.73 E1030.04090
G1 X116.20 Y146.50 E1030.29153
G1 X115.61 Y152.50 E1030.54215
G1 X116.20 Y158.50 E1030.79277
G1 X117.95 Y164.27 E1031.04341
G1 X120.79 Y169.59 E1031.29408
G1 X124.61 Y174.25 E1031.54472
G1 X129.27 Y178.07 E1031.79537
G1 X134.59 Y180.91 E1032.04604
G1 X140.36 Y182.66 E1032.29668
G1 X146.36 Y183.25 E1032.54734
G1 X152.36 Y182.66 E1032.79796
G1 X158.13 Y180.91 E1033.04856
G1 X163.45 Y178.07 E1033.29923
G1 X168.11 Y174.25 E1033.54988
G1 X171.93 Y169.59 E1033.80053
G1 X174.77 Y164.27 E1034.05120
G1 X176.52 Y158.50 E1034.30184
G1 X176.84 Y155.25 E1034.43757
G0 X176.39 Y154.75
;TYPE:WALL-OUTER
G1 X190.39 Y154.75 E1035.01958
G1 X190.39 Y212.25 E1037.41015
G1 X187.89 Y212.25 E1037.51409
G1 X187.89 Y162.67 E1039.57539
G1 X176.29 Y162.67 E1040.05749
G1 X175.69 Y164.65 E1040.14352
G1 X172.76 Y170.14 E1040.40219
G1 X168.81 Y174.95 E1040.66102
G1 X164.00 Y178.90 E1040.91985
G1 X158.51 Y181.83 E1041.17851
G1 X152.56 Y183.64 E1041.43723
G1 X146.36 Y184.25 E1041.69600
G1 X140.16 Y183.64 E1041.95485
G1 X134.21 Y181.83 E1042.21356
G1 X128.72 Y178.90 E1042.47223
G1 X123.91 Y174.95 E1042.73106
G1 X119.96 Y170.14 E1042.98986
G1 X117.03 Y164.65 E1043.24855
G1 X115.22 Y158.69 E1043.50731
G1 X114.61 Y152.50 E1043.76607
G1 X115.22 Y146.31 E1044.02483
G1 X117.03 Y140.35 E1044.28359
G1 X119.96 Y134.86 E1044.54227
G1 X123.91 Y130.05 E1044.80108
G1 X128.72 Y126.10 E1045.05991
G1 X134.21 Y123.17 E1045.31858
G1 X140.16 Y121.36 E1045.57729
G1 X146.36 Y120.75 E1045.83614
G1 X152.56 Y121.36 E1046.09491
G1 X158.51 Y123.17 E1046.35362
G1 X164.00 Y126.10 E1046.61229
G1 X168.81 Y130.05 E1046.87112
G1 X172.76 Y134.86 E1047.12995
G1 X175.69 Y140.35 E1047.38862
G1 X176.29 Y142.33 E1047.47465
G1 X187.89 Y142.33 E1047.95675
G1 X187.89 Y92.75 E1050.01805
G1 X190.39 Y92.75 E1050.12199
G1 X190.39 Y150.25 E1052.51256
G1 X176.39 Y150.25 E1053.09457
G1 X176.03 Y146.60 E1053.24710
G1 X174.31 Y140.92 E1053.49365
G1 X171.51 Y135.69 E1053.74023
G1 X167.75 Y131.11 E1053.98677
G1 X163.17 Y127.35 E1054.23331
G1 X157.94 Y124.55 E1054.47989
G1 X152.26 Y122.83 E1054.72640
G1 X146.36 Y122.25 E1054.97293
G1 X140.46 Y122.83 E1055.21949
G1 X134.78 Y124.55 E1055.46604
G1 X129.55 Y127.35 E1055.71262
G1 X124.97 Y131.11 E1055.95916
G1 X121.21 Y135.69 E1056.20571
G1 X118.41 Y140.92 E1056.45229
G1 X116.69 Y146.60 E1056.69884
G1 X116.11 Y152.50 E1056.94536
G1 X116.69 Y158.40 E1057.19188
G1 X118.41 Y164.08 E1057.43843
G1 X121.21 Y169.31 E1057.68501
G1 X124.97 Y173.89 E1057.93155
G1 X129.55 Y177.65 E1058.17809
G1 X134.78 Y180.45 E1058.42467
G1 X140.46 Y182.17 E1058.67122
G1 X146.36 Y182.75 E1058.91779
G1 X152.26 Y182.17 E1059.16431
G1 X157.94 Y180.45 E1059.41082
G1 X163.17 Y177.65 E1059.65740
G1 X167.75 Y173.89 E1059.90394
G1 X171.51 Y169.31 E1060.15049
G1 X174.31 Y164.08 E1060.39706
G1 X176.03 Y158.40 E1060.64361
G1 X176.39 Y154.75 E1060.79615
G0 X176.63 Y155.10
G0 X178.18 Y155.92
;TYPE:FILL
G1 X177.37 Y156.73 E1060.84371
G0 X177.30 Y157.52
G1 X178.89 Y155.92 E1060.93737
G0 X179.60 Y155.92
G1 X177.22 Y158.30 E1061.07719
G0 X177.01 Y159.22
G1 X180.30 Y155.92 E1061.27104
G0 X181.01 Y155.92
G1 X176.70 Y160.24 E1061.52454
G0 X176.39 Y161.25
G1 X181.72 Y155.92 E1061.83769
G0 X182.43 Y155.92
G1 X176.85 Y161.49 E1062.16518
G0 X177.56 Y161.49
G1 X183.13 Y155.92 E1062.49268
G0 X183.84 Y155.92
G1 X178.27 Y161.49 E1062.82014
G0 X178.98 Y161.49
G1 X184.55 Y155.92 E1063.14764
G0 X185.25 Y155.92
G1 X179.68 Y161.49 E1063.47513
G0 X180.39 Y161.49
G1 X185.96 Y155.92 E1063.80263
G0 X186.67 Y155.92
G1 X181.10 Y161.49 E1064.13012
G0 X181.81 Y161.49
G1 X187.38 Y155.92 E1064.45762
G0 X188.08 Y155.92
G1 X182.51 Y161.49 E1064.78511
