;-- START GCODE --
;Sliced for Type A Machines Series 1
;Sliced at: Fri 11-11-2016 00:23:25
;Basic settings: Layer height: 0.2 Walls: 4.2 Fill: 100
;Print Speed: 40 Support: 0
;Retraction Speed: 40 Retraction Distance: 1.2
;Print time: #P_TIME#
;Filament used: #F_AMNT#m #F_WGHT#g
;Filament cost: #F_COST#
M106 S255	 ;start with the fan on
G21        ;metric values
G90        ;absolute positioning
M106 S255    ;start with the fan on
G28     ;move to endstops
G29		;allows for auto-levelling
G1 X150 Y5  Z15.0 F12000 ;center and move the platform down 15mm
M109 S220 ;Heat To temp
G92 E0                  ;zero the extruded length
G1 F200 E30              ;extrude 30mm of feed stock
G92 E0                  ;zero the extruded length again
G1 X175 Y25  Z0 F12000 ;remove bugger
G1 X220 F12000 ;remove bugger
G1 X150 Y150  Z15 F12000 ;recenter and begin
G1 F12000

;Layer count: 104
;LAYER:0
M106 S255
G0 F12000 X113.36 Y110.52 Z0.30
;TYPE:SKIRT
G1 F2400 X123.83 Y109.72 E0.54979
G1 X125.10 Y108.17 E0.65510
G1 X125.90 Y107.20 E0.72082
G1 X127.51 Y105.58 E0.84047
G1 X128.40 Y104.70 E0.90618
G1 X130.15 Y103.26 E1.02468
G1 X131.12 Y102.47 E1.09056
G1 X133.01 Y101.20 E1.20982
G1 X134.06 Y100.50 E1.27552
G1 X136.06 Y99.43 E1.39443
G1 X137.16 Y98.84 E1.46021
G1 X139.23 Y97.98 E1.57753
G1 X139.23 Y97.98 E1.57758
G1 X140.41 Y97.50 E1.64402
G1 X142.57 Y96.84 E1.76232
G1 X143.78 Y96.47 E1.82870
G1 X146.04 Y96.02 E1.94963
G1 X147.28 Y95.78 E2.01547
G1 X149.54 Y95.55 E2.13495
G1 X150.79 Y95.43 E2.20031
G1 X153.06 Y95.43 E2.31954
G1 X154.31 Y95.44 E2.38476
G1 X156.58 Y95.66 E2.50423
G1 X157.83 Y95.78 E2.57031
G1 X160.05 Y96.22 E2.68887
G1 X161.29 Y96.47 E2.75481
G1 X163.46 Y97.13 E2.87377
G1 X164.66 Y97.50 E2.93922
G1 X166.77 Y98.37 E3.05891
G1 X167.92 Y98.85 E3.12459
G1 X169.94 Y99.93 E3.24406
G1 X171.04 Y100.52 E3.30959
G1 X172.92 Y101.78 E3.42853
G1 X173.96 Y102.48 E3.49413
G1 X175.72 Y103.92 E3.61339
G1 X176.70 Y104.73 E3.67959
G1 X178.30 Y106.33 E3.79812
G1 X179.18 Y107.22 E3.86357
G1 X180.61 Y108.97 E3.98208
G1 X181.41 Y109.94 E4.04797
G1 X182.70 Y111.86 E4.16921
G1 X183.25 Y112.69 E4.22146
G1 X185.15 Y114.16 E4.34748
G1 X187.99 Y117.31 E4.56932
G1 X190.56 Y122.29 E4.86286
G1 X191.23 Y126.76 E5.09953
G1 X191.24 Y128.33 E5.18193
G1 X191.23 Y136.20 E5.59436
G1 X190.57 Y140.92 E5.84413
G1 X188.15 Y145.39 E6.11034
G1 X184.95 Y149.48 E6.38215
G1 X182.71 Y150.80 E6.51854
G1 X181.65 Y152.32 E6.61569
G1 X180.93 Y153.35 E6.68131
G1 X179.46 Y155.07 E6.80028
G1 X178.65 Y156.01 E6.86502
G1 X177.02 Y157.58 E6.98350
G1 X176.11 Y158.44 E7.04923
G1 X175.81 Y158.68 E7.06933
G1 X175.81 Y186.80 E8.54207
G1 X175.47 Y190.74 E8.74950
G1 X174.01 Y194.87 E8.97901
G1 X171.87 Y198.63 E9.20550
G1 X167.03 Y203.51 E9.56573
G1 X159.87 Y206.05 E9.96362
G1 X145.23 Y206.05 E10.73037
G1 X138.01 Y203.52 E11.13109
G1 X133.21 Y198.62 E11.49063
G1 X131.04 Y194.88 E11.71695
G1 X129.62 Y190.76 E11.94501
G1 X129.27 Y187.07 E12.13921
G1 X129.25 Y180.06 E12.50669
G1 X129.25 Y158.68 E13.62647
G1 X128.92 Y158.41 E13.64888
G1 X127.28 Y156.85 E13.76740
G1 X126.38 Y155.98 E13.83304
G1 X124.93 Y154.28 E13.95022
G1 X124.12 Y153.33 E14.01543
G1 X122.81 Y151.46 E14.13527
G1 X122.38 Y150.84 E14.17487
G1 X119.88 Y149.26 E14.32981
G1 X118.22 Y147.15 E14.47028
G1 X115.59 Y147.27 E14.60819
G1 X115.30 Y142.41 E14.86294
G1 X114.37 Y140.49 E14.97481
G1 X113.77 Y136.19 E15.20242
G1 X113.77 Y130.91 E15.47895
G1 X113.77 Y126.91 E15.68849
G1 X114.18 Y123.98 E15.84351
G1 X113.36 Y110.52 E16.54990
G0 F12000 X113.81 Y110.91
G1 F2400 X124.04 Y110.13 E17.08745
G1 X125.43 Y108.44 E17.20221
G1 X126.21 Y107.48 E17.26678
G1 X127.81 Y105.88 E17.38539
G1 X128.68 Y105.01 E17.44999
G1 X130.41 Y103.59 E17.56745
G1 X131.37 Y102.80 E17.63226
G1 X133.25 Y101.55 E17.75038
G1 X134.27 Y100.86 E17.81505
G1 X136.25 Y99.80 E17.93286
G1 X137.34 Y99.22 E17.99759
G1 X139.40 Y98.37 E18.11389
G1 X140.55 Y97.89 E18.17920
G1 X142.69 Y97.24 E18.29641
G1 X143.88 Y96.88 E18.36175
G1 X146.12 Y96.43 E18.48156
G1 X147.34 Y96.19 E18.54627
G1 X149.59 Y95.97 E18.66465
G1 X150.81 Y95.85 E18.72896
G1 X153.06 Y95.85 E18.84714
G1 X154.29 Y95.86 E18.91126
G1 X156.54 Y96.07 E19.02967
G1 X157.77 Y96.20 E19.09465
G1 X159.97 Y96.64 E19.21209
G1 X161.19 Y96.88 E19.27701
G1 X163.34 Y97.53 E19.39488
G1 X164.51 Y97.89 E19.45924
G1 X166.60 Y98.76 E19.57783
G1 X167.74 Y99.23 E19.64245
G1 X169.74 Y100.30 E19.76080
G1 X170.82 Y100.88 E19.82525
G1 X172.69 Y102.13 E19.94313
G1 X173.71 Y102.82 E20.00768
G1 X175.46 Y104.25 E20.12582
G1 X176.41 Y105.04 E20.19094
G1 X178.00 Y106.63 E20.30839
G1 X178.87 Y107.50 E20.37277
G1 X180.29 Y109.23 E20.49021
G1 X181.07 Y110.19 E20.55501
G1 X182.35 Y112.09 E20.67512
G1 X182.94 Y112.99 E20.73107
G1 X184.86 Y114.47 E20.85866
G1 X187.64 Y117.55 E21.07568
G1 X190.15 Y122.42 E21.36275
G1 X190.81 Y126.79 E21.59424
G1 X190.82 Y128.33 E21.67496
G1 X190.81 Y136.17 E22.08576
G1 X190.17 Y140.79 E22.33009
G1 X187.80 Y145.16 E22.59044
G1 X184.67 Y149.16 E22.85627
G1 X182.42 Y150.49 E22.99328
G1 X181.31 Y152.08 E23.09516
G1 X180.60 Y153.09 E23.15972
G1 X179.14 Y154.80 E23.27758
G1 X178.34 Y155.72 E23.34132
G1 X176.73 Y157.28 E23.45869
G1 X175.84 Y158.13 E23.52327
G1 X175.39 Y158.48 E23.55303
G1 X175.39 Y186.78 E25.03547
G1 X175.06 Y190.65 E25.23922
G1 X173.63 Y194.70 E25.46390
G1 X171.53 Y198.37 E25.68548
G1 X166.80 Y203.15 E26.03779
G1 X159.79 Y205.63 E26.42694
G1 X145.30 Y205.63 E27.18616
G1 X138.24 Y203.16 E27.57794
G1 X133.54 Y198.36 E27.92960
G1 X131.43 Y194.70 E28.15105
G1 X130.03 Y190.67 E28.37434
G1 X129.69 Y187.05 E28.56487
G1 X129.67 Y180.06 E28.93135
G1 X129.67 Y158.48 E30.06176
G1 X129.19 Y158.10 E30.09372
G1 X127.58 Y156.55 E30.21113
G1 X126.69 Y155.69 E30.27574
G1 X125.25 Y154.01 E30.39187
G1 X124.45 Y153.07 E30.45601
G1 X123.15 Y151.22 E30.57475
G1 X122.67 Y150.53 E30.61880
G1 X120.16 Y148.94 E30.77438
G1 X118.42 Y146.72 E30.92238
G1 X115.99 Y146.83 E31.04996
G1 X115.71 Y142.31 E31.28734
G1 X114.77 Y140.37 E31.40008
G1 X114.19 Y136.16 E31.62276
G1 X114.19 Y130.91 E31.89773
G1 X114.19 Y126.94 E32.10570
G1 X114.60 Y124.00 E32.26140
G1 X113.81 Y110.91 E32.94833
G0 F12000 X114.25 Y111.30
G1 F2400 X124.27 Y110.53 E33.47463
G1 X124.35 Y110.42 E33.48210
G1 X125.75 Y108.70 E33.59810
G1 X126.52 Y107.77 E33.66162
G1 X128.10 Y106.18 E33.77912
G1 X128.96 Y105.32 E33.84265
G1 X130.68 Y103.91 E33.95899
G1 X131.62 Y103.14 E34.02275
G1 X133.48 Y101.90 E34.13978
G1 X134.49 Y101.22 E34.20336
G1 X136.45 Y100.17 E34.32012
G1 X137.52 Y99.60 E34.38370
G1 X139.56 Y98.76 E34.49899
G1 X140.69 Y98.29 E34.56322
G1 X142.81 Y97.64 E34.67939
G1 X143.98 Y97.29 E34.74358
G1 X146.21 Y96.84 E34.86227
G1 X147.40 Y96.61 E34.92592
G1 X149.63 Y96.39 E35.04324
G1 X150.83 Y96.27 E35.10645
G1 X153.06 Y96.27 E35.22353
G1 X154.27 Y96.28 E35.28660
G1 X156.50 Y96.49 E35.40391
G1 X157.71 Y96.62 E35.46783
G1 X159.89 Y97.05 E35.58420
G1 X161.08 Y97.29 E35.64800
G1 X163.22 Y97.94 E35.76478
G1 X164.37 Y98.29 E35.82810
G1 X166.44 Y99.15 E35.94556
G1 X167.56 Y99.61 E36.00912
G1 X169.54 Y100.67 E36.12640
G1 X170.60 Y101.24 E36.18975
G1 X172.46 Y102.48 E36.30658
G1 X173.46 Y103.16 E36.37002
G1 X175.19 Y104.57 E36.48712
G1 X176.13 Y105.35 E36.55112
G1 X177.70 Y106.92 E36.66751
G1 X178.56 Y107.78 E36.73081
G1 X179.96 Y109.50 E36.84716
G1 X180.74 Y110.44 E36.91089
G1 X182.00 Y112.33 E37.02994
G1 X182.62 Y113.28 E37.08948
G1 X184.58 Y114.78 E37.21875
G1 X187.29 Y117.79 E37.43090
G1 X189.75 Y122.55 E37.71149
G1 X190.39 Y126.82 E37.93778
G1 X190.40 Y128.33 E38.01683
G1 X190.39 Y136.14 E38.42606
G1 X189.76 Y140.66 E38.66483
G1 X187.45 Y144.93 E38.91941
G1 X184.39 Y148.84 E39.17921
G1 X182.13 Y150.17 E39.31694
G1 X180.96 Y151.84 E39.42349
G1 X180.27 Y152.83 E39.48700
G1 X178.82 Y154.53 E39.60378
G1 X178.04 Y155.43 E39.66640
G1 X176.44 Y156.97 E39.78273
G1 X175.56 Y157.81 E39.84624
G1 X174.97 Y158.28 E39.88563
G1 X174.97 Y186.76 E41.37775
G1 X174.64 Y190.56 E41.57772
G1 X173.24 Y194.52 E41.79766
G1 X171.19 Y198.11 E42.01439
G1 X166.57 Y202.79 E42.35874
G1 X159.72 Y205.21 E42.73906
G1 X145.37 Y205.21 E43.49078
G1 X138.47 Y202.79 E43.87368
G1 X133.88 Y198.10 E44.21741
G1 X131.81 Y194.52 E44.43399
G1 X130.44 Y190.58 E44.65256
G1 X130.11 Y187.03 E44.83939
G1 X130.09 Y180.06 E45.20483
G1 X130.09 Y158.28 E46.34582
G1 X129.47 Y157.78 E46.38743
G1 X127.87 Y156.24 E46.50377
G1 X127.00 Y155.40 E46.56727
G1 X125.57 Y153.73 E46.68233
G1 X124.78 Y152.82 E46.74546
G1 X123.50 Y150.98 E46.86304
G1 X122.97 Y150.22 E46.91153
G1 X120.45 Y148.63 E47.06777
G1 X118.62 Y146.29 E47.22327
G1 X116.38 Y146.39 E47.34052
G1 X116.13 Y142.20 E47.56058
G1 X115.18 Y140.25 E47.67426
G1 X114.61 Y136.13 E47.89192
G1 X114.61 Y130.91 E48.16532
G1 X114.61 Y126.97 E48.37182
G1 X115.02 Y124.01 E48.52821
G1 X114.25 Y111.30 E49.19567
G0 F12000 X114.69 Y111.68
G1 F2400 X124.50 Y110.94 E49.71094
G1 X124.69 Y110.67 E49.72811
G1 X126.08 Y108.97 E49.84302
G1 X126.83 Y108.05 E49.90548
G1 X128.40 Y106.48 E50.02186
G1 X129.25 Y105.63 E50.08435
G1 X130.95 Y104.24 E50.19965
G1 X131.87 Y103.48 E50.26230
G1 X133.71 Y102.25 E50.37827
G1 X134.70 Y101.59 E50.44071
G1 X136.65 Y100.54 E50.55639
G1 X137.70 Y99.98 E50.61892
G1 X139.74 Y99.14 E50.73437
G1 X140.83 Y98.68 E50.79628
G1 X142.96 Y98.04 E50.91284
G1 X142.96 Y98.04 E50.91289
G1 X144.09 Y97.69 E50.97457
G1 X146.29 Y97.25 E51.09214
G1 X147.46 Y97.02 E51.15471
G1 X149.67 Y96.81 E51.27094
G1 X150.85 Y96.69 E51.33309
G1 X153.06 Y96.69 E51.44907
G1 X154.25 Y96.70 E51.51104
G1 X156.45 Y96.91 E51.62724
G1 X157.65 Y97.03 E51.69006
G1 X159.81 Y97.46 E51.80542
G1 X160.98 Y97.70 E51.86810
G1 X163.09 Y98.34 E51.98384
G1 X164.23 Y98.68 E52.04604
G1 X166.28 Y99.53 E52.16244
G1 X167.38 Y99.99 E52.22488
G1 X169.34 Y101.04 E52.34112
G1 X170.39 Y101.60 E52.40342
G1 X172.22 Y102.83 E52.51911
G1 X173.21 Y103.49 E52.58150
G1 X174.92 Y104.90 E52.69749
G1 X175.85 Y105.66 E52.76041
G1 X177.41 Y107.22 E52.87572
G1 X178.24 Y108.06 E52.93795
G1 X179.64 Y109.76 E53.05329
G1 X180.40 Y110.69 E53.11591
G1 X181.65 Y112.56 E53.23378
G1 X182.30 Y113.55 E53.29610
G1 X182.31 Y113.56 E53.29664
G1 X184.29 Y115.09 E53.42788
G1 X186.94 Y118.03 E53.63525
G1 X189.34 Y122.68 E53.90940
G1 X189.97 Y126.86 E54.13045
G1 X189.98 Y128.33 E54.20787
G1 X189.97 Y136.11 E54.61548
G1 X189.36 Y140.52 E54.84875
G1 X187.09 Y144.70 E55.09747
G1 X184.11 Y148.51 E55.35125
G1 X181.84 Y149.86 E55.48953
G1 X180.62 Y151.60 E55.60096
G1 X179.93 Y152.57 E55.66335
G1 X178.50 Y154.25 E55.77905
G1 X177.73 Y155.14 E55.84063
G1 X176.15 Y156.67 E55.95585
G1 X175.28 Y157.49 E56.01829
G1 X174.55 Y158.07 E56.06729
G1 X174.55 Y186.74 E57.56916
G1 X174.23 Y190.47 E57.76540
G1 X172.86 Y194.35 E57.98052
G1 X170.85 Y197.86 E58.19239
G1 X166.34 Y202.42 E58.52881
G1 X159.65 Y204.79 E58.90030
G1 X145.44 Y204.79 E59.64448
G1 X138.70 Y202.43 E60.01855
G1 X134.22 Y197.85 E60.35435
G1 X132.20 Y194.35 E60.56607
G1 X130.85 Y190.49 E60.77988
G1 X130.53 Y187.01 E60.96303
G1 X130.51 Y180.06 E61.32747
G1 X130.51 Y158.07 E62.47905
G1 X129.75 Y157.47 E62.53020
G1 X128.16 Y155.94 E62.64550
G1 X127.30 Y155.11 E62.70793
G1 X125.89 Y153.46 E62.82195
G1 X125.12 Y152.56 E62.88396
G1 X123.84 Y150.74 E63.00053
G1 X123.27 Y149.91 E63.05338
G1 X120.73 Y148.31 E63.21030
G1 X118.81 Y145.86 E63.37333
G1 X116.78 Y145.95 E63.48020
G1 X116.54 Y142.09 E63.68299
G1 X115.59 Y140.12 E63.79754
G1 X115.03 Y136.10 E64.01018
G1 X115.03 Y130.91 E64.28206
G1 X115.03 Y127.00 E64.48698
G1 X115.44 Y124.03 E64.64390
G1 X114.69 Y111.68 E65.29204
G0 F12000 X115.14 Y112.07
G1 F2400 X124.74 Y111.34 E65.79628
G1 X125.02 Y110.92 E65.82308
G1 X126.40 Y109.23 E65.93695
G1 X127.14 Y108.33 E65.99828
G1 X128.70 Y106.77 E66.11355
G1 X129.53 Y105.95 E66.17497
G1 X131.21 Y104.56 E66.28919
G1 X132.12 Y103.82 E66.35075
G1 X133.94 Y102.60 E66.46563
G1 X134.92 Y101.95 E66.52705
G1 X136.85 Y100.91 E66.64165
G1 X137.88 Y100.36 E66.70310
G1 X139.88 Y99.53 E66.81628
G1 X139.88 Y99.53 E66.81633
G1 X140.97 Y99.08 E66.87833
G1 X143.08 Y98.44 E66.99380
G1 X144.19 Y98.10 E67.05437
G1 X146.37 Y97.67 E67.17082
G1 X147.52 Y97.44 E67.23232
G1 X149.71 Y97.22 E67.34744
G1 X150.87 Y97.11 E67.40854
G1 X153.06 Y97.11 E67.52342
G1 X154.22 Y97.11 E67.58434
G1 X156.41 Y97.33 E67.69950
G1 X157.58 Y97.45 E67.76121
G1 X159.72 Y97.87 E67.87545
G1 X160.88 Y98.10 E67.93711
G1 X162.97 Y98.74 E68.05174
G1 X164.09 Y99.08 E68.11287
G1 X166.12 Y99.92 E68.22819
G1 X167.20 Y100.37 E68.28955
G1 X169.14 Y101.41 E68.40466
G1 X170.17 Y101.96 E68.46588
G1 X171.99 Y103.18 E68.58052
G1 X172.96 Y103.83 E68.64181
G1 X174.66 Y105.22 E68.75676
G1 X175.57 Y105.97 E68.81856
G1 X177.11 Y107.52 E68.93283
G1 X177.93 Y108.34 E68.99395
G1 X179.31 Y110.03 E69.10822
G1 X180.06 Y110.94 E69.16975
G1 X181.30 Y112.79 E69.28649
G1 X181.94 Y113.77 E69.34775
G1 X181.98 Y113.84 E69.35196
G1 X184.00 Y115.40 E69.48598
G1 X186.59 Y118.27 E69.68849
G1 X188.94 Y122.81 E69.95619
G1 X189.55 Y126.89 E70.17199
G1 X189.56 Y128.33 E70.24779
G1 X189.55 Y136.08 E70.65377
G1 X188.95 Y140.39 E70.88160
G1 X186.74 Y144.47 E71.12450
G1 X183.83 Y148.19 E71.37228
G1 X181.53 Y149.55 E71.51178
G1 X181.51 Y149.58 E71.51401
G1 X180.27 Y151.36 E71.62740
G1 X179.60 Y152.32 E71.68870
G1 X178.18 Y153.98 E71.80328
G1 X177.43 Y154.85 E71.86383
G1 X175.86 Y156.37 E71.97798
G1 X175.01 Y157.18 E72.03933
G1 X174.13 Y157.87 E72.09800
G1 X174.13 Y186.72 E73.60956
G1 X173.81 Y190.38 E73.80201
G1 X172.48 Y194.17 E74.01239
G1 X170.52 Y197.60 E74.21939
G1 X166.10 Y202.06 E74.54791
G1 X159.58 Y204.37 E74.91056
G1 X145.51 Y204.37 E75.64724
G1 X138.94 Y202.06 E76.01239
G1 X134.55 Y197.59 E76.34030
G1 X132.58 Y194.17 E76.54713
G1 X131.27 Y190.40 E76.75621
G1 X130.95 Y186.99 E76.93568
G1 X130.93 Y180.06 E77.29907
G1 X130.93 Y157.87 E78.46128
G1 X130.93 Y157.86 E78.46169
G1 X130.02 Y157.15 E78.52206
G1 X128.45 Y155.64 E78.63628
G1 X127.61 Y154.82 E78.69760
G1 X126.21 Y153.19 E78.81058
G1 X125.45 Y152.30 E78.87151
G1 X124.19 Y150.50 E78.98695
G1 X123.56 Y149.60 E79.04425
G1 X121.02 Y148.00 E79.20186
G1 X119.01 Y145.43 E79.37239
G1 X117.17 Y145.51 E79.46899
G1 X116.95 Y141.98 E79.65440
G1 X115.99 Y140.00 E79.76984
G1 X115.44 Y136.07 E79.97750
G1 X115.45 Y130.91 E80.24786
G1 X115.44 Y127.03 E80.45127
G1 X115.87 Y124.05 E80.60898
G1 X115.14 Y112.07 E81.23754
G0 F12000 X115.58 Y112.46
G1 F2400 X124.97 Y111.75 E81.73080
G1 X125.36 Y111.17 E81.76723
G1 X126.72 Y109.50 E81.88002
G1 X127.45 Y108.61 E81.94031
G1 X129.00 Y107.07 E82.05451
G1 X129.81 Y106.26 E82.11482
G1 X131.48 Y104.89 E82.22803
G1 X132.37 Y104.15 E82.28848
G1 X134.18 Y102.95 E82.40226
G1 X135.14 Y102.31 E82.46258
G1 X137.05 Y101.28 E82.57611
G1 X138.06 Y100.74 E82.63650
G1 X140.04 Y99.92 E82.74860
G1 X140.04 Y99.92 E82.74865
G1 X141.12 Y99.47 E82.80959
G1 X143.20 Y98.84 E82.92395
G1 X144.29 Y98.51 E82.98349
G1 X146.45 Y98.08 E83.09881
G1 X147.58 Y97.86 E83.15920
G1 X149.75 Y97.64 E83.27326
G1 X150.89 Y97.53 E83.33325
G1 X153.06 Y97.53 E83.44709
G1 X154.20 Y97.53 E83.50691
G1 X156.37 Y97.75 E83.62096
G1 X157.52 Y97.86 E83.68162
G1 X159.64 Y98.28 E83.79479
G1 X160.77 Y98.51 E83.85533
G1 X162.85 Y99.14 E83.96887
G1 X163.94 Y99.48 E84.02896
G1 X165.96 Y100.31 E84.14320
G1 X167.02 Y100.75 E84.20348
G1 X168.94 Y101.78 E84.31752
G1 X169.95 Y102.32 E84.37761
G1 X171.75 Y103.53 E84.49118
G1 X172.71 Y104.17 E84.55142
G1 X174.39 Y105.55 E84.66529
G1 X175.28 Y106.28 E84.72597
G1 X176.81 Y107.81 E84.83917
G1 X177.62 Y108.63 E84.89925
G1 X178.99 Y110.30 E85.01241
G1 X179.72 Y111.19 E85.07289
G1 X180.95 Y113.03 E85.18852
G1 X181.58 Y113.98 E85.24867
G1 X181.65 Y114.12 E85.25668
G1 X183.72 Y115.71 E85.39334
G1 X186.25 Y118.51 E85.59100
G1 X188.53 Y122.94 E85.85225
G1 X189.13 Y126.92 E86.06286
G1 X189.14 Y128.34 E86.13698
G1 X189.13 Y136.06 E86.54139
G1 X188.54 Y140.26 E86.76367
G1 X186.39 Y144.24 E87.00076
G1 X183.54 Y147.87 E87.24256
G1 X181.22 Y149.24 E87.38378
G1 X181.16 Y149.36 E87.39084
G1 X179.93 Y151.12 E87.50314
G1 X179.27 Y152.06 E87.56335
G1 X177.86 Y153.71 E87.67690
G1 X177.12 Y154.57 E87.73633
G1 X175.56 Y156.06 E87.84944
G1 X174.73 Y156.86 E87.90972
G1 X173.71 Y157.66 E87.97798
G1 X173.71 Y186.71 E89.49928
G1 X173.40 Y190.29 E89.68799
G1 X172.09 Y194.00 E89.89356
G1 X170.18 Y197.34 E90.09569
G1 X165.87 Y201.69 E90.41629
G1 X159.50 Y203.95 E90.77011
G1 X145.59 Y203.95 E91.49925
G1 X139.17 Y201.70 E91.85556
G1 X134.89 Y197.34 E92.17551
G1 X132.96 Y194.00 E92.37751
G1 X131.68 Y190.31 E92.58183
G1 X131.37 Y186.97 E92.75762
G1 X131.35 Y180.06 E93.11997
G1 X131.35 Y157.66 E94.29286
G1 X131.19 Y157.53 E94.30394
G1 X130.30 Y156.83 E94.36319
G1 X128.74 Y155.34 E94.47633
G1 X127.92 Y154.54 E94.53657
G1 X126.53 Y152.91 E94.64851
G1 X125.78 Y152.04 E94.70837
G1 X124.53 Y150.26 E94.82269
G1 X123.89 Y149.32 E94.88212
G1 X123.87 Y149.29 E94.88404
G1 X121.30 Y147.68 E95.04271
G1 X119.21 Y145.00 E95.22078
G1 X117.56 Y145.08 E95.30704
G1 X117.37 Y141.87 E95.47514
G1 X116.40 Y139.88 E95.59149
G1 X115.86 Y136.04 E95.79413
G1 X115.87 Y130.91 E96.06297
G1 X115.86 Y127.06 E96.26481
G1 X116.29 Y124.06 E96.42320
G1 X115.58 Y112.46 E97.03230
G0 F12000 X116.03 Y112.85
G1 F2400 X125.21 Y112.15 E97.51458
G1 X125.70 Y111.42 E97.56060
G1 X127.05 Y109.77 E97.67238
G1 X127.77 Y108.89 E97.73159
G1 X129.29 Y107.37 E97.84468
G1 X130.09 Y106.57 E97.90391
G1 X131.75 Y105.21 E98.01601
G1 X132.62 Y104.49 E98.07539
G1 X134.41 Y103.30 E98.18810
G1 X135.35 Y102.67 E98.24733
G1 X137.25 Y101.66 E98.35980
G1 X138.24 Y101.12 E98.41907
G1 X140.20 Y100.31 E98.53021
G1 X141.26 Y99.87 E98.59002
G1 X143.33 Y99.24 E98.70329
G1 X144.39 Y98.92 E98.76178
G1 X146.53 Y98.49 E98.87598
G1 X147.64 Y98.27 E98.93530
G1 X149.79 Y98.06 E99.04826
G1 X150.91 Y97.95 E99.10715
G1 X153.06 Y97.95 E99.21988
G1 X154.18 Y97.95 E99.27866
G1 X156.33 Y98.16 E99.39165
G1 X157.46 Y98.28 E99.45121
G1 X159.56 Y98.69 E99.56330
G1 X160.67 Y98.92 E99.62273
G1 X162.73 Y99.54 E99.73523
G1 X163.80 Y99.87 E99.79422
G1 X165.80 Y100.70 E99.90738
G1 X166.84 Y101.13 E99.96653
G1 X168.74 Y102.15 E100.07949
G1 X169.74 Y102.68 E100.13853
G1 X171.52 Y103.88 E100.25102
G1 X172.46 Y104.51 E100.31016
G1 X174.12 Y105.87 E100.42295
G1 X175.00 Y106.60 E100.48260
G1 X176.51 Y108.11 E100.59468
G1 X177.31 Y108.91 E100.65369
G1 X178.66 Y110.56 E100.76581
G1 X179.38 Y111.44 E100.82517
G1 X180.60 Y113.26 E100.93966
G1 X181.22 Y114.20 E100.99875
G1 X181.32 Y114.39 E101.01044
G1 X183.43 Y116.02 E101.14987
G1 X185.90 Y118.75 E101.34271
G1 X188.13 Y123.08 E101.59747
G1 X188.71 Y126.95 E101.80288
G1 X188.72 Y128.34 E101.87533
G1 X188.71 Y136.03 E102.27812
G1 X188.14 Y140.12 E102.49494
G1 X186.04 Y144.01 E102.72622
G1 X183.26 Y147.55 E102.96198
G1 X180.91 Y148.94 E103.10481
G1 X180.80 Y149.13 E103.11680
G1 X179.59 Y150.88 E103.22813
G1 X178.94 Y151.80 E103.28728
G1 X177.54 Y153.43 E103.39967
G1 X176.81 Y154.28 E103.45806
G1 X175.28 Y155.76 E103.57006
G1 X174.46 Y156.54 E103.62926
G1 X173.29 Y157.46 E103.70714
G1 X173.29 Y186.69 E105.23814
G1 X172.99 Y190.21 E105.42312
G1 X171.71 Y193.82 E105.62396
G1 X169.84 Y197.09 E105.82119
G1 X165.64 Y201.33 E106.13383
G1 X159.43 Y203.53 E106.47886
G1 X145.66 Y203.53 E107.20051
G1 X139.40 Y201.34 E107.54794
G1 X135.23 Y197.08 E107.85996
G1 X133.35 Y193.82 E108.05710
G1 X132.10 Y190.22 E108.25665
G1 X131.79 Y186.95 E108.42877
G1 X131.77 Y180.05 E108.79012
G1 X131.77 Y157.46 E109.97359
G1 X131.45 Y157.21 E109.99530
G1 X130.58 Y156.51 E110.05354
G1 X129.03 Y155.03 E110.16558
G1 X128.22 Y154.25 E110.22474
G1 X126.84 Y152.64 E110.33564
G1 X126.11 Y151.79 E110.39442
G1 X124.88 Y150.02 E110.50764
G1 X124.24 Y149.10 E110.56599
G1 X124.18 Y148.99 E110.57253
G1 X121.59 Y147.36 E110.73287
G1 X119.41 Y144.57 E110.91847
G1 X117.96 Y144.64 E110.99441
G1 X117.78 Y141.76 E111.14519
G1 X116.81 Y139.75 E111.26240
G1 X116.28 Y136.01 E111.46007
G1 X116.29 Y130.91 E111.72734
G1 X116.28 Y127.09 E111.92766
G1 X116.71 Y124.08 E112.08654
G1 X116.03 Y112.85 E112.67637
G0 F12000 X116.47 Y113.23
G1 F2400 X125.44 Y112.55 E113.14767
G1 X126.03 Y111.67 E113.20328
G1 X127.37 Y110.03 E113.31398
G1 X128.08 Y109.18 E113.37208
G1 X129.59 Y107.66 E113.48413
G1 X130.38 Y106.88 E113.54225
G1 X132.01 Y105.53 E113.65327
G1 X132.87 Y104.83 E113.71160
G1 X134.65 Y103.64 E113.82327
G1 X135.57 Y103.03 E113.88137
G1 X137.44 Y102.03 E113.99278
G1 X138.42 Y101.50 E114.05097
G1 X140.36 Y100.70 E114.16103
G1 X141.40 Y100.27 E114.21976
G1 X143.42 Y99.65 E114.33063
G1 X144.50 Y99.33 E114.38934
G1 X146.61 Y98.90 E114.50242
G1 X147.70 Y98.69 E114.56067
G1 X149.83 Y98.48 E114.67252
G1 X150.93 Y98.37 E114.73036
G1 X153.06 Y98.37 E114.84204
G1 X154.16 Y98.38 E114.89972
G1 X156.29 Y98.58 E115.01161
G1 X157.40 Y98.69 E115.07006
G1 X159.48 Y99.11 E115.18114
G1 X160.57 Y99.33 E115.23949
G1 X162.60 Y99.94 E115.35090
G1 X163.66 Y100.27 E115.40880
G1 X165.64 Y101.08 E115.52081
G1 X166.66 Y101.51 E115.57895
G1 X168.54 Y102.52 E115.69078
G1 X169.52 Y103.04 E115.74879
G1 X171.29 Y104.22 E115.86022
G1 X172.21 Y104.84 E115.91823
G1 X173.86 Y106.19 E116.02993
G1 X174.72 Y106.91 E116.08850
G1 X176.22 Y108.41 E116.19955
G1 X177.00 Y109.19 E116.25745
G1 X178.34 Y110.83 E116.36848
G1 X179.05 Y111.69 E116.42681
G1 X180.25 Y113.49 E116.54016
G1 X180.86 Y114.41 E116.59815
G1 X181.00 Y114.67 E116.61359
G1 X183.15 Y116.33 E116.75575
G1 X185.55 Y118.99 E116.94369
G1 X187.72 Y123.21 E117.19199
G1 X188.29 Y126.99 E117.39220
G1 X188.30 Y128.34 E117.46298
G1 X188.29 Y136.00 E117.86419
G1 X187.74 Y139.99 E118.07551
G1 X185.69 Y143.78 E118.30095
G1 X182.98 Y147.23 E118.53074
G1 X180.60 Y148.63 E118.67533
G1 X180.45 Y148.91 E118.69213
G1 X179.24 Y150.64 E118.80237
G1 X178.60 Y151.54 E118.86043
G1 X177.22 Y153.16 E118.97174
G1 X176.51 Y153.99 E119.02905
G1 X174.98 Y155.46 E119.14001
G1 X174.18 Y156.22 E119.19811
G1 X172.87 Y157.26 E119.28562
G1 X172.87 Y186.67 E120.82636
G1 X172.57 Y190.12 E121.00761
G1 X171.33 Y193.64 E121.20361
G1 X169.50 Y196.83 E121.39600
G1 X165.41 Y200.97 E121.70071
G1 X159.36 Y203.11 E122.03691
G1 X145.73 Y203.11 E122.75107
G1 X139.63 Y200.97 E123.08958
G1 X135.57 Y196.82 E123.39374
G1 X133.73 Y193.65 E123.58596
G1 X132.51 Y190.13 E123.78079
G1 X132.21 Y186.93 E123.94927
G1 X132.19 Y180.05 E124.30952
G1 X132.19 Y157.26 E125.50368
G1 X131.71 Y156.88 E125.53598
G1 X130.85 Y156.20 E125.59322
G1 X129.32 Y154.73 E125.70418
G1 X128.53 Y153.96 E125.76223
G1 X127.16 Y152.37 E125.87206
G1 X126.45 Y151.53 E125.92980
G1 X125.22 Y149.78 E126.04189
G1 X124.60 Y148.88 E126.09919
G1 X124.50 Y148.69 E126.11019
G1 X121.88 Y147.05 E126.27236
G1 X119.60 Y144.14 E126.46543
G1 X118.35 Y144.20 E126.53109
G1 X118.20 Y141.66 E126.66460
G1 X117.22 Y139.63 E126.78266
G1 X116.70 Y135.99 E126.97535
G1 X116.71 Y130.91 E127.24110
G1 X116.70 Y127.12 E127.43985
G1 X117.13 Y124.10 E127.59957
G1 X116.47 Y113.23 E128.16983
G0 F12000 X116.92 Y113.62
G1 F2400 X125.68 Y112.95 E128.63015
G1 X125.76 Y112.83 E128.63813
G1 X126.37 Y111.92 E128.69543
G1 X127.70 Y110.30 E128.80506
G1 X128.39 Y109.46 E128.86211
G1 X129.89 Y107.96 E128.97305
G1 X130.66 Y107.19 E129.03009
G1 X132.28 Y105.86 E129.14007
G1 X133.12 Y105.17 E129.19728
G1 X134.88 Y103.99 E129.30782
G1 X135.78 Y103.39 E129.36489
G1 X137.64 Y102.40 E129.47520
G1 X138.60 Y101.88 E129.53234
G1 X140.53 Y101.09 E129.64131
G1 X141.54 Y100.66 E129.69896
G1 X143.57 Y100.05 E129.81004
G1 X144.60 Y99.73 E129.86640
G1 X146.69 Y99.31 E129.97836
G1 X147.76 Y99.10 E130.03549
G1 X149.87 Y98.90 E130.14629
G1 X150.95 Y98.79 E130.20307
G1 X153.06 Y98.79 E130.31361
G1 X154.14 Y98.80 E130.37023
G1 X156.25 Y99.00 E130.48102
G1 X157.34 Y99.11 E130.53842
G1 X159.39 Y99.52 E130.64838
G1 X160.47 Y99.73 E130.70566
G1 X162.48 Y100.35 E130.81596
G1 X163.52 Y100.66 E130.87282
G1 X165.48 Y101.47 E130.98377
G1 X166.48 Y101.89 E131.04083
G1 X168.35 Y102.89 E131.15159
G1 X169.30 Y103.40 E131.20847
G1 X171.05 Y104.57 E131.31883
G1 X171.96 Y105.18 E131.37579
G1 X173.59 Y106.52 E131.48638
G1 X174.44 Y107.22 E131.54386
G1 X175.92 Y108.70 E131.65380
G1 X176.68 Y109.47 E131.71066
G1 X178.02 Y111.09 E131.82065
G1 X178.71 Y111.94 E131.87786
G1 X179.90 Y113.72 E131.99009
G1 X180.50 Y114.63 E132.04703
G1 X180.67 Y114.95 E132.06610
G1 X182.86 Y116.64 E132.21102
G1 X185.20 Y119.23 E132.39418
G1 X187.32 Y123.34 E132.63599
G1 X187.87 Y127.02 E132.83102
G1 X187.88 Y128.34 E132.90011
G1 X187.87 Y135.97 E133.29970
G1 X187.33 Y139.86 E133.50552
G1 X185.33 Y143.54 E133.72518
G1 X182.70 Y146.91 E133.94896
G1 X180.29 Y148.33 E134.09522
G1 X180.09 Y148.69 E134.11685
G1 X178.90 Y150.40 E134.22603
G1 X178.27 Y151.29 E134.28300
G1 X176.91 Y152.88 E134.39324
G1 X176.20 Y153.70 E134.44951
G1 X174.69 Y155.15 E134.55936
G1 X173.91 Y155.91 E134.61638
G1 X172.45 Y157.05 E134.71354
G1 X172.45 Y186.65 E136.26397
G1 X172.16 Y190.03 E136.44144
G1 X170.94 Y193.47 E136.63271
G1 X169.17 Y196.58 E136.82023
G1 X165.18 Y200.60 E137.11698
G1 X159.29 Y202.69 E137.44435
G1 X145.80 Y202.69 E138.15097
G1 X139.86 Y200.61 E138.48064
G1 X135.90 Y196.57 E138.77688
G1 X134.11 Y193.47 E138.96423
G1 X132.92 Y190.04 E139.15431
G1 X132.63 Y186.91 E139.31910
G1 X132.61 Y180.05 E139.67836
G1 X132.61 Y157.05 E140.88315
G1 X131.97 Y156.55 E140.92612
G1 X131.13 Y155.88 E140.98220
G1 X129.62 Y154.43 E141.09209
G1 X128.83 Y153.67 E141.14914
G1 X127.48 Y152.09 E141.25789
G1 X126.78 Y151.27 E141.31455
G1 X125.56 Y149.54 E141.42555
G1 X124.95 Y148.66 E141.48176
G1 X124.81 Y148.40 E141.49733
G1 X122.16 Y146.73 E141.66120
G1 X119.80 Y143.71 E141.86177
G1 X118.75 Y143.76 E141.91710
G1 X118.61 Y141.55 E142.03329
G1 X117.62 Y139.50 E142.15228
G1 X117.12 Y135.96 E142.33995
G1 X117.13 Y130.91 E142.60418
G1 X117.12 Y127.15 E142.80141
G1 X117.55 Y124.12 E142.96176
G1 X116.92 Y113.62 E143.51255
G0 F12000 X117.36 Y114.01
G1 F2400 X125.91 Y113.36 E143.96194
G1 X126.11 Y113.06 E143.98057
G1 X126.71 Y112.17 E144.03681
G1 X128.02 Y110.57 E144.14536
G1 X128.70 Y109.74 E144.20133
G1 X130.18 Y108.26 E144.31119
G1 X130.94 Y107.50 E144.36716
G1 X132.54 Y106.18 E144.47602
G1 X133.37 Y105.50 E144.53216
G1 X135.11 Y104.34 E144.64163
G1 X136.00 Y103.75 E144.69761
G1 X137.84 Y102.77 E144.80687
G1 X138.78 Y102.26 E144.86291
G1 X140.69 Y101.47 E144.97089
G1 X141.68 Y101.06 E145.02739
G1 X143.69 Y100.45 E145.13738
G1 X144.70 Y100.14 E145.19264
G1 X146.78 Y99.73 E145.30353
G1 X147.83 Y99.52 E145.35960
G1 X149.91 Y99.31 E145.46929
G1 X150.97 Y99.21 E145.52497
G1 X153.06 Y99.21 E145.63445
G1 X154.12 Y99.22 E145.68998
G1 X156.20 Y99.42 E145.79971
G1 X157.27 Y99.53 E145.85600
G1 X159.31 Y99.93 E145.96490
G1 X160.36 Y100.14 E146.02106
G1 X162.36 Y100.75 E146.13033
G1 X163.38 Y101.06 E146.18609
G1 X165.31 Y101.86 E146.29596
G1 X166.30 Y102.27 E146.35194
G1 X168.15 Y103.26 E146.46157
G1 X169.09 Y103.77 E146.51740
G1 X170.82 Y104.92 E146.62668
G1 X171.71 Y105.52 E146.68254
G1 X173.32 Y106.84 E146.79209
G1 X174.15 Y107.53 E146.84846
G1 X175.62 Y109.00 E146.95736
G1 X176.37 Y109.75 E147.01311
G1 X177.69 Y111.36 E147.12202
G1 X178.37 Y112.19 E147.17815
G1 X179.55 Y113.95 E147.28924
G1 X180.13 Y114.84 E147.34512
G1 X180.34 Y115.23 E147.36780
G1 X182.57 Y116.95 E147.51559
G1 X184.85 Y119.48 E147.69385
G1 X186.91 Y123.47 E147.92920
G1 X187.45 Y127.05 E148.11904
G1 X187.46 Y128.34 E148.18646
G1 X187.45 Y135.94 E148.58447
G1 X186.92 Y139.72 E148.78479
G1 X184.98 Y143.31 E148.99861
G1 X182.42 Y146.59 E149.21634
G1 X179.99 Y148.02 E149.36437
G1 X179.74 Y148.46 E149.39083
G1 X178.55 Y150.16 E149.49896
G1 X177.94 Y151.03 E149.55484
G1 X176.59 Y152.61 E149.66404
G1 X175.90 Y153.41 E149.71920
G1 X174.40 Y154.85 E149.82797
G1 X173.63 Y155.59 E149.88396
G1 X172.03 Y156.85 E149.99074
G1 X172.03 Y186.63 E151.55086
G1 X171.74 Y189.94 E151.72459
G1 X170.56 Y193.29 E151.91103
G1 X168.83 Y196.32 E152.09367
G1 X164.95 Y200.24 E152.38253
G1 X159.22 Y202.27 E152.70107
G1 X145.87 Y202.27 E153.40019
G1 X140.09 Y200.24 E153.72094
G1 X136.24 Y196.31 E154.00928
G1 X134.50 Y193.29 E154.19174
G1 X133.34 Y189.95 E154.37709
G1 X133.05 Y186.89 E154.53820
G1 X133.03 Y180.05 E154.89641
G1 X133.03 Y156.85 E156.11184
G1 X132.23 Y156.22 E156.16543
G1 X131.41 Y155.56 E156.22051
G1 X129.91 Y154.13 E156.32932
G1 X129.14 Y153.38 E156.38527
G1 X127.80 Y151.82 E156.49297
G1 X127.11 Y151.01 E156.54856
G1 X125.91 Y149.30 E156.65843
G1 X125.31 Y148.43 E156.71362
G1 X125.12 Y148.10 E156.73369
G1 X122.45 Y146.41 E156.89928
G1 X120.00 Y143.28 E157.10742
G1 X119.14 Y143.32 E157.15237
G1 X119.03 Y141.44 E157.25113
G1 X118.03 Y139.38 E157.37111
G1 X117.55 Y135.93 E157.55376
G1 X117.55 Y130.91 E157.81647
G1 X117.55 Y127.18 E158.01213
G1 X117.97 Y124.13 E158.17327
G1 X117.36 Y114.01 E158.70454
G0 F12000 X117.81 Y114.40
G1 F2400 X126.15 Y113.76 E159.14295
G1 X126.46 Y113.30 E159.17227
G1 X127.05 Y112.42 E159.22738
G1 X128.35 Y110.83 E159.33492
G1 X129.01 Y110.03 E159.38978
G1 X130.48 Y108.56 E159.49850
G1 X131.22 Y107.82 E159.55343
G1 X132.81 Y106.51 E159.66125
G1 X133.62 Y105.84 E159.71630
G1 X135.34 Y104.69 E159.82472
G1 X136.22 Y104.11 E159.87961
G1 X138.04 Y103.14 E159.98774
G1 X138.96 Y102.64 E160.04268
G1 X140.85 Y101.86 E160.14963
G1 X141.82 Y101.45 E160.20505
G1 X143.79 Y100.86 E160.31274
G1 X143.79 Y100.86 E160.31279
G1 X144.80 Y100.55 E160.36820
G1 X146.86 Y100.14 E160.47792
G1 X147.89 Y99.94 E160.53292
G1 X149.95 Y99.73 E160.64151
G1 X150.99 Y99.63 E160.69613
G1 X153.06 Y99.63 E160.80452
G1 X154.10 Y99.64 E160.85905
G1 X156.16 Y99.83 E160.96762
G1 X157.21 Y99.94 E161.02281
G1 X159.23 Y100.34 E161.13069
G1 X160.26 Y100.55 E161.18578
G1 X162.24 Y101.15 E161.29396
G1 X163.24 Y101.45 E161.34862
G1 X165.15 Y102.25 E161.45741
G1 X166.12 Y102.65 E161.51225
G1 X167.95 Y103.63 E161.62087
G1 X168.87 Y104.12 E161.67562
G1 X170.59 Y105.27 E161.78379
G1 X171.45 Y105.86 E161.83859
G1 X173.06 Y107.17 E161.94702
G1 X173.87 Y107.84 E162.00232
G1 X175.32 Y109.30 E162.11011
G1 X176.06 Y110.04 E162.16482
G1 X177.37 Y111.63 E162.27269
G1 X178.03 Y112.44 E162.32774
G1 X179.20 Y114.19 E162.43773
G1 X179.77 Y115.06 E162.49247
G1 X180.01 Y115.50 E162.51895
G1 X182.29 Y117.26 E162.66936
G1 X184.50 Y119.72 E162.84284
G1 X186.51 Y123.60 E163.07169
G1 X187.03 Y127.08 E163.25634
G1 X187.04 Y128.34 E163.32208
G1 X187.03 Y135.91 E163.71848
G1 X186.52 Y139.59 E163.91329
G1 X184.63 Y143.08 E164.12132
G1 X182.14 Y146.26 E164.33305
G1 X179.67 Y147.72 E164.48283
G1 X179.38 Y148.24 E164.51411
G1 X178.21 Y149.91 E164.62115
G1 X177.61 Y150.77 E164.67594
G1 X176.27 Y152.34 E164.78406
G1 X175.59 Y153.12 E164.83818
G1 X174.11 Y154.55 E164.94588
G1 X173.35 Y155.27 E165.00071
G1 X171.75 Y156.53 E165.10761
G1 X171.61 Y156.65 E165.11712
G1 X171.61 Y186.62 E166.68704
G1 X171.33 Y189.85 E166.85699
G1 X170.18 Y193.12 E167.03871
G1 X168.49 Y196.06 E167.21644
G1 X164.72 Y199.88 E167.49733
G1 X159.15 Y201.85 E167.80709
G1 X145.94 Y201.85 E168.49872
G1 X140.32 Y199.88 E168.81059
G1 X136.58 Y196.06 E169.09101
G1 X134.88 Y193.12 E169.26863
G1 X133.75 Y189.86 E169.44920
G1 X133.47 Y186.87 E169.60663
G1 X133.45 Y180.05 E169.96385
G1 X133.45 Y156.65 E171.18991
G1 X132.49 Y155.89 E171.25414
G1 X131.68 Y155.25 E171.30813
G1 X130.20 Y153.82 E171.41587
G1 X129.45 Y153.10 E171.47070
G1 X128.12 Y151.55 E171.57740
G1 X127.44 Y150.76 E171.63191
G1 X126.25 Y149.06 E171.74065
G1 X125.67 Y148.21 E171.79478
G1 X125.43 Y147.80 E171.81946
G1 X122.73 Y146.10 E171.98675
G1 X120.20 Y142.85 E172.20232
G1 X119.53 Y142.88 E172.23698
G1 X119.44 Y141.33 E172.31849
G1 X118.44 Y139.26 E172.43929
G1 X117.97 Y135.90 E172.61696
G1 X117.97 Y130.91 E172.87815
G1 X117.97 Y127.21 E173.07229
G1 X118.40 Y124.15 E173.23402
G1 X117.81 Y114.40 E173.74587
G0 F12000 X118.25 Y114.78
G1 F2400 X126.39 Y114.16 E174.17335
G1 X126.81 Y113.53 E174.21332
G1 X127.39 Y112.67 E174.26737
G1 X128.67 Y111.10 E174.37384
G1 X129.32 Y110.31 E174.42765
G1 X130.78 Y108.85 E174.53526
G1 X131.50 Y108.13 E174.58908
G1 X133.08 Y106.83 E174.69585
G1 X133.88 Y106.18 E174.74983
G1 X135.58 Y105.04 E174.85715
G1 X136.43 Y104.47 E174.91095
G1 X138.24 Y103.51 E175.01803
G1 X139.14 Y103.02 E175.07189
G1 X141.01 Y102.25 E175.17776
G1 X141.97 Y101.85 E175.23212
G1 X143.91 Y101.26 E175.33876
G1 X144.91 Y100.96 E175.39310
G1 X146.94 Y100.55 E175.50169
G1 X147.95 Y100.35 E175.55556
G1 X149.99 Y100.15 E175.66310
G1 X151.01 Y100.05 E175.71662
G1 X153.06 Y100.05 E175.82396
G1 X154.08 Y100.06 E175.87739
G1 X156.12 Y100.25 E175.98492
G1 X157.15 Y100.36 E176.03900
G1 X159.15 Y100.75 E176.14576
G1 X160.16 Y100.96 E176.19978
G1 X162.12 Y101.55 E176.30691
G1 X163.09 Y101.85 E176.36048
G1 X164.99 Y102.64 E176.46820
G1 X165.94 Y103.03 E176.52195
G1 X167.75 Y104.00 E176.62945
G1 X168.65 Y104.48 E176.68312
G1 X170.35 Y105.62 E176.79023
G1 X171.20 Y106.19 E176.84394
G1 X172.79 Y107.49 E176.95129
G1 X173.59 Y108.15 E177.00551
G1 X175.03 Y109.59 E177.11226
G1 X175.75 Y110.32 E177.16586
G1 X177.04 Y111.89 E177.27265
G1 X177.69 Y112.69 E177.32662
G1 X178.85 Y114.42 E177.43547
G1 X179.41 Y115.27 E177.48916
G1 X179.68 Y115.78 E177.51932
G1 X182.00 Y117.57 E177.67253
G1 X184.16 Y119.96 E177.84114
G1 X186.10 Y123.73 E178.06350
G1 X186.61 Y127.12 E178.24296
G1 X186.62 Y128.34 E178.30702
G1 X186.61 Y135.88 E178.70185
G1 X186.11 Y139.46 E178.89116
G1 X184.28 Y142.85 E179.09335
G1 X181.85 Y145.94 E179.29911
G1 X179.37 Y147.41 E179.45051
G1 X179.02 Y148.01 E179.48671
G1 X177.87 Y149.67 E179.59269
G1 X177.28 Y150.51 E179.64646
G1 X175.95 Y152.06 E179.75343
G1 X175.29 Y152.83 E179.80647
G1 X173.82 Y154.24 E179.91310
G1 X173.08 Y154.95 E179.96690
G1 X171.49 Y156.20 E180.07271
G1 X171.29 Y156.36 E180.08618
G1 X171.19 Y156.44 E180.09293
G1 X171.19 Y186.60 E181.67249
G1 X170.92 Y189.76 E181.83870
G1 X169.79 Y192.94 E182.01564
G1 X168.16 Y195.81 E182.18854
G1 X164.49 Y199.51 E182.46150
G1 X159.07 Y201.43 E182.76243
G1 X146.01 Y201.43 E183.44653
G1 X140.55 Y199.51 E183.74956
G1 X136.91 Y195.80 E184.02205
G1 X135.26 Y192.94 E184.19476
G1 X134.16 Y189.77 E184.37062
G1 X133.89 Y186.85 E184.52437
G1 X133.87 Y180.05 E184.88053
G1 X133.87 Y156.44 E186.11728
G1 X132.75 Y155.56 E186.19214
G1 X131.96 Y154.93 E186.24509
G1 X130.49 Y153.52 E186.35172
G1 X129.75 Y152.81 E186.40548
G1 X128.44 Y151.28 E186.51114
G1 X127.78 Y150.50 E186.56453
G1 X126.60 Y148.82 E186.67222
G1 X126.02 Y147.99 E186.72526
G1 X125.75 Y147.50 E186.75448
G1 X123.02 Y145.78 E186.92348
G1 X120.51 Y142.57 E187.13670
G1 X120.44 Y142.42 E187.14549
G1 X119.93 Y142.45 E187.17208
G1 X119.86 Y141.22 E187.23626
G1 X118.84 Y139.13 E187.35797
G1 X118.39 Y135.87 E187.53068
G1 X118.39 Y130.91 E187.79029
G1 X118.39 Y127.24 E187.98286
G1 X118.82 Y124.17 E188.14528
G1 X118.25 Y114.78 E188.63771
G0 F12000 X118.69 Y115.17
G1 F2400 X126.62 Y114.57 E189.05427
G1 X127.16 Y113.76 E189.10498
G1 X127.72 Y112.92 E189.15789
G1 X129.00 Y111.37 E189.26331
G1 X129.64 Y110.59 E189.31601
G1 X131.07 Y109.15 E189.42258
G1 X131.79 Y108.44 E189.47533
G1 X133.34 Y107.16 E189.58103
G1 X134.13 Y106.52 E189.63392
G1 X135.81 Y105.39 E189.74011
G1 X136.65 Y104.83 E189.79288
G1 X138.43 Y103.88 E189.89889
G1 X139.32 Y103.40 E189.95166
G1 X141.19 Y102.63 E190.05749
G1 X141.19 Y102.63 E190.05754
G1 X142.11 Y102.25 E190.10981
G1 X144.06 Y101.65 E190.21652
G1 X144.06 Y101.66 E190.21657
G1 X145.01 Y101.36 E190.26867
G1 X147.02 Y100.96 E190.37614
G1 X148.01 Y100.77 E190.42899
G1 X150.03 Y100.57 E190.53538
G1 X151.03 Y100.47 E190.58790
G1 X153.06 Y100.47 E190.69408
G1 X154.06 Y100.47 E190.74647
G1 X156.08 Y100.67 E190.85288
G1 X157.09 Y100.77 E190.90591
G1 X159.06 Y101.17 E191.01160
G1 X160.06 Y101.37 E191.06450
G1 X161.99 Y101.95 E191.17054
G1 X162.95 Y102.25 E191.22307
G1 X164.83 Y103.03 E191.32966
G1 X165.76 Y103.41 E191.38238
G1 X167.55 Y104.37 E191.48875
G1 X168.44 Y104.85 E191.54137
G1 X170.12 Y105.97 E191.64743
G1 X170.95 Y106.53 E191.70005
G1 X172.52 Y107.82 E191.80632
G1 X173.30 Y108.46 E191.85942
G1 X174.73 Y109.89 E191.96514
G1 X175.44 Y110.60 E192.01766
G1 X176.72 Y112.16 E192.12337
G1 X177.36 Y112.94 E192.17623
G1 X178.50 Y114.65 E192.28395
G1 X179.05 Y115.49 E192.33654
G1 X179.36 Y116.06 E192.37046
G1 X181.71 Y117.88 E192.52636
G1 X183.81 Y120.20 E192.69015
G1 X185.70 Y123.86 E192.90609
G1 X186.19 Y127.15 E193.08030
G1 X186.20 Y128.34 E193.14274
G1 X186.19 Y135.85 E193.53589
G1 X185.71 Y139.32 E193.71976
G1 X183.92 Y142.62 E193.91611
G1 X181.57 Y145.62 E194.11583
G1 X179.06 Y147.11 E194.26894
G1 X178.67 Y147.79 E194.31002
G1 X177.52 Y149.43 E194.41496
G1 X176.94 Y150.25 E194.46760
G1 X175.63 Y151.79 E194.57348
G1 X174.98 Y152.54 E194.62549
G1 X173.53 Y153.94 E194.73103
G1 X172.80 Y154.63 E194.78372
G1 X171.23 Y155.87 E194.88849
G1 X171.03 Y156.03 E194.90207
G1 X170.77 Y156.24 E194.91944
G1 X170.77 Y186.58 E196.50864
G1 X170.50 Y189.67 E196.67111
G1 X169.41 Y192.77 E196.84327
G1 X167.82 Y195.55 E197.01132
G1 X164.26 Y199.15 E197.27632
G1 X159.00 Y201.01 E197.56842
G1 X146.09 Y201.01 E198.24502
G1 X140.79 Y199.15 E198.53912
G1 X137.25 Y195.54 E198.80369
G1 X135.65 Y192.77 E198.97159
G1 X134.58 Y189.68 E199.14268
G1 X134.31 Y186.83 E199.29274
G1 X134.29 Y180.05 E199.64786
G1 X134.29 Y156.24 E200.89524
G1 X134.29 Y156.24 E200.89536
G1 X133.01 Y155.23 E200.98073
G1 X132.24 Y154.61 E201.03263
G1 X130.78 Y153.22 E201.13822
G1 X130.06 Y152.52 E201.19087
G1 X128.76 Y151.00 E201.29549
G1 X128.11 Y150.24 E201.34784
G1 X126.94 Y148.58 E201.45437
G1 X126.38 Y147.76 E201.50639
G1 X126.06 Y147.20 E201.54007
G1 X123.30 Y145.46 E201.71082
G1 X120.87 Y142.35 E201.91788
G1 X120.69 Y141.99 E201.93883
G1 X120.32 Y142.01 E201.95828
G1 X120.27 Y141.11 E202.00520
G1 X119.25 Y139.01 E202.12773
G1 X118.81 Y135.84 E202.29542
G1 X118.81 Y130.91 E202.55346
G1 X118.81 Y127.27 E202.74456
G1 X119.24 Y124.18 E202.90761
G1 X118.69 Y115.17 E203.38057
G0 F12000 X119.14 Y115.56
G1 F2400 X126.86 Y114.97 E203.78620
G1 X127.51 Y114.00 E203.84756
G1 X128.06 Y113.17 E203.89945
G1 X129.32 Y111.63 E204.00379
G1 X129.95 Y110.87 E204.05541
G1 X131.37 Y109.45 E204.16087
G1 X132.07 Y108.75 E204.21254
G1 X133.61 Y107.48 E204.31713
G1 X134.38 Y106.86 E204.36894
G1 X136.04 Y105.74 E204.47407
G1 X136.87 Y105.19 E204.52575
G1 X138.63 Y104.25 E204.63067
G1 X139.50 Y103.78 E204.68235
G1 X141.35 Y103.02 E204.78714
G1 X142.25 Y102.64 E204.83832
G1 X144.18 Y102.06 E204.94393
G1 X144.18 Y102.06 E204.94398
G1 X145.11 Y101.77 E204.99503
G1 X147.10 Y101.38 E205.10138
G1 X148.07 Y101.18 E205.15312
G1 X150.07 Y100.99 E205.25845
G1 X151.05 Y100.89 E205.30987
G1 X153.06 Y100.89 E205.41500
G1 X154.04 Y100.89 E205.46629
G1 X156.04 Y101.09 E205.57160
G1 X157.02 Y101.19 E205.62352
G1 X158.98 Y101.58 E205.72819
G1 X159.95 Y101.77 E205.78003
G1 X161.87 Y102.36 E205.88496
G1 X162.81 Y102.64 E205.93645
G1 X164.67 Y103.41 E206.04190
G1 X165.58 Y103.79 E206.09356
G1 X167.35 Y104.74 E206.19886
G1 X168.22 Y105.21 E206.25035
G1 X169.88 Y106.32 E206.35532
G1 X170.70 Y106.87 E206.40692
G1 X172.25 Y108.14 E206.51207
G1 X173.02 Y108.77 E206.56409
G1 X174.43 Y110.19 E206.66869
G1 X175.12 Y110.88 E206.72022
G1 X176.39 Y112.43 E206.82485
G1 X177.02 Y113.19 E206.87659
G1 X178.15 Y114.88 E206.98322
G1 X178.69 Y115.70 E207.03471
G1 X179.03 Y116.34 E207.07230
G1 X181.43 Y118.19 E207.23100
G1 X183.46 Y120.44 E207.38989
G1 X185.29 Y123.99 E207.59939
G1 X185.78 Y127.18 E207.76841
G1 X185.78 Y128.34 E207.82918
G1 X185.77 Y135.82 E208.22076
G1 X185.30 Y139.19 E208.39907
G1 X183.57 Y142.39 E208.58958
G1 X181.29 Y145.30 E208.78337
G1 X178.74 Y146.81 E208.93827
G1 X178.31 Y147.56 E208.98406
G1 X177.18 Y149.19 E209.08795
G1 X176.61 Y150.00 E209.13950
G1 X175.31 Y151.52 E209.24435
G1 X174.68 Y152.25 E209.29524
G1 X173.24 Y153.64 E209.39975
G1 X172.53 Y154.32 E209.45133
G1 X170.97 Y155.54 E209.55506
G1 X170.77 Y155.71 E209.56871
G1 X170.77 Y155.71 E209.56877
G1 X170.36 Y156.03 E209.59613
G1 X170.35 Y156.21 E209.60557
G1 X170.35 Y186.56 E211.19540
G1 X170.09 Y189.58 E211.35409
G1 X169.03 Y192.59 E211.52148
G1 X167.48 Y195.29 E211.68462
G1 X164.03 Y198.78 E211.94176
G1 X158.93 Y200.59 E212.22501
G1 X146.16 Y200.59 E212.89407
G1 X141.02 Y198.79 E213.17934
G1 X137.59 Y195.29 E213.43598
G1 X136.03 Y192.59 E213.59902
G1 X134.99 Y189.59 E213.76536
G1 X134.73 Y186.81 E213.91173
G1 X134.71 Y180.05 E214.26586
G1 X134.71 Y156.19 E215.51596
G1 X134.71 Y156.03 E215.52415
G1 X134.55 Y155.91 E215.53444
G1 X133.27 Y154.90 E215.61981
G1 X132.51 Y154.30 E215.67060
G1 X131.07 Y152.92 E215.77512
G1 X130.36 Y152.23 E215.82672
G1 X129.08 Y150.73 E215.93023
G1 X128.44 Y149.99 E215.98150
G1 X127.29 Y148.34 E216.08694
G1 X126.73 Y147.54 E216.13787
G1 X126.38 Y146.90 E216.17615
G1 X123.59 Y145.15 E216.34864
G1 X121.23 Y142.13 E216.54947
G1 X120.95 Y141.56 E216.58260
G1 X120.72 Y141.57 E216.59482
G1 X120.68 Y141.01 E216.62437
G1 X119.66 Y138.89 E216.74784
G1 X119.22 Y135.81 E216.91054
G1 X119.23 Y130.91 E217.16707
G1 X119.22 Y127.30 E217.35660
G1 X119.66 Y124.20 E217.52013
G1 X119.14 Y115.56 E217.97388
G0 F12000 X119.58 Y115.94
G1 F2400 X127.09 Y115.37 E218.36858
G1 X127.86 Y114.23 E218.44056
G1 X128.40 Y113.42 E218.49137
G1 X129.65 Y111.90 E218.59466
G1 X130.26 Y111.15 E218.64521
G1 X131.67 Y109.74 E218.74959
G1 X132.35 Y109.06 E218.80015
G1 X133.88 Y107.81 E218.90373
G1 X134.63 Y107.19 E218.95443
G1 X136.28 Y106.09 E219.05850
G1 X137.08 Y105.55 E219.10904
G1 X138.83 Y104.62 E219.21291
G1 X139.68 Y104.16 E219.26351
G1 X141.51 Y103.41 E219.36723
G1 X142.39 Y103.04 E219.41732
G1 X144.30 Y102.46 E219.52183
G1 X145.21 Y102.18 E219.57178
G1 X147.19 Y101.79 E219.67706
G1 X148.13 Y101.60 E219.72768
G1 X150.11 Y101.41 E219.83196
G1 X151.07 Y101.31 E219.88227
G1 X153.06 Y101.31 E219.98630
G1 X154.01 Y101.31 E220.03654
G1 X156.00 Y101.51 E220.14080
G1 X156.96 Y101.61 E220.19161
G1 X158.90 Y101.99 E220.29522
G1 X159.85 Y102.18 E220.34593
G1 X161.75 Y102.76 E220.44983
G1 X162.67 Y103.04 E220.50023
G1 X164.51 Y103.80 E220.60460
G1 X165.40 Y104.17 E220.65513
G1 X167.15 Y105.11 E220.75937
G1 X168.00 Y105.57 E220.80981
G1 X169.65 Y106.67 E220.91368
G1 X170.45 Y107.20 E220.96418
G1 X171.99 Y108.47 E221.06829
G1 X172.74 Y109.08 E221.11919
G1 X174.13 Y110.48 E221.22276
G1 X174.81 Y111.17 E221.27318
G1 X176.07 Y112.69 E221.37672
G1 X176.68 Y113.44 E221.42743
G1 X177.80 Y115.12 E221.53288
G1 X178.33 Y115.92 E221.58335
G1 X178.70 Y116.62 E221.62493
G1 X178.71 Y116.62 E221.62526
G1 X181.14 Y118.50 E221.78605
G1 X183.11 Y120.68 E221.94016
G1 X184.89 Y124.12 E222.14317
G1 X185.35 Y127.22 E222.30700
G1 X185.36 Y128.34 E222.36609
G1 X185.35 Y135.79 E222.75604
G1 X184.90 Y139.06 E222.92890
G1 X183.22 Y142.16 E223.11361
G1 X181.01 Y144.98 E223.30138
G1 X178.44 Y146.50 E223.45790
G1 X178.43 Y146.51 E223.45887
G1 X177.96 Y147.34 E223.50862
G1 X176.83 Y148.95 E223.61145
G1 X176.28 Y149.74 E223.66191
G1 X174.99 Y151.24 E223.76565
G1 X174.37 Y151.97 E223.81553
G1 X172.95 Y153.33 E223.91889
G1 X172.25 Y154.00 E223.96943
G1 X170.71 Y155.21 E224.07212
G1 X170.44 Y155.43 E224.09013
G1 X169.96 Y155.81 E224.12241
G1 X169.96 Y155.81 E224.12249
G1 X169.96 Y155.82 E224.12275
G1 X169.95 Y155.83 E224.12334
G1 X169.95 Y155.84 E224.12388
G1 X169.95 Y155.84 E224.12399
G1 X169.93 Y156.19 E224.14240
G1 X169.93 Y186.54 E225.73243
G1 X169.68 Y189.49 E225.88739
G1 X168.64 Y192.42 E226.04999
G1 X167.14 Y195.04 E226.20825
G1 X163.80 Y198.42 E226.45743
G1 X158.86 Y200.17 E226.73190
G1 X146.23 Y200.17 E227.39347
G1 X141.25 Y198.42 E227.66986
G1 X137.93 Y195.03 E227.91857
G1 X136.42 Y192.42 E228.07671
G1 X135.40 Y189.50 E228.23832
G1 X135.15 Y186.79 E228.38107
G1 X135.13 Y180.05 E228.73409
G1 X135.13 Y156.18 E229.98436
G1 X135.12 Y155.83 E230.00282
G1 X135.11 Y155.82 E230.00332
G1 X135.10 Y155.81 E230.00392
G1 X135.10 Y155.81 E230.00451
G1 X134.78 Y155.55 E230.02572
G1 X133.53 Y154.57 E230.10894
G1 X132.79 Y153.98 E230.15868
G1 X131.36 Y152.61 E230.26216
G1 X130.67 Y151.94 E230.31265
G1 X129.40 Y150.46 E230.41512
G1 X128.78 Y149.73 E230.46535
G1 X127.63 Y148.10 E230.56966
G1 X127.09 Y147.31 E230.61954
G1 X126.69 Y146.60 E230.66233
G1 X123.88 Y144.83 E230.83653
G1 X121.58 Y141.90 E231.03121
G1 X121.21 Y141.13 E231.07638
G1 X121.11 Y141.13 E231.08152
G1 X121.10 Y140.90 E231.09385
G1 X120.06 Y138.76 E231.21814
G1 X119.64 Y135.78 E231.37582
G1 X119.65 Y130.91 E231.63083
G1 X119.64 Y127.32 E231.81884
G1 X120.08 Y124.22 E231.98322
G1 X119.58 Y115.94 E232.41734
G0 F12000 X120.03 Y116.33
G1 F2400 X127.33 Y115.78 E232.80106
G1 X128.21 Y114.46 E232.88380
G1 X128.74 Y113.68 E232.93351
G1 X129.97 Y112.17 E233.03573
G1 X130.57 Y111.44 E233.08519
G1 X131.96 Y110.04 E233.18850
G1 X132.63 Y109.38 E233.23795
G1 X134.14 Y108.13 E233.34044
G1 X134.88 Y107.53 E233.39006
G1 X136.51 Y106.44 E233.49304
G1 X137.30 Y105.91 E233.54256
G1 X139.03 Y104.99 E233.64532
G1 X139.86 Y104.54 E233.69484
G1 X141.67 Y103.79 E233.79745
G1 X141.67 Y103.79 E233.79750
G1 X142.53 Y103.43 E233.84658
G1 X144.42 Y102.86 E233.95000
G1 X145.32 Y102.59 E233.99891
G1 X147.27 Y102.20 E234.10302
G1 X148.19 Y102.02 E234.15262
G1 X150.15 Y101.82 E234.25574
G1 X151.09 Y101.73 E234.30499
G1 X153.06 Y101.73 E234.40798
G1 X153.99 Y101.73 E234.45712
G1 X155.95 Y101.92 E234.56028
G1 X156.90 Y102.02 E234.61003
G1 X158.82 Y102.40 E234.71252
G1 X159.75 Y102.59 E234.76216
G1 X161.62 Y103.16 E234.86497
G1 X162.53 Y103.43 E234.91432
G1 X164.35 Y104.19 E235.01762
G1 X165.22 Y104.55 E235.06707
G1 X166.96 Y105.48 E235.17023
G1 X167.78 Y105.93 E235.21957
G1 X169.42 Y107.02 E235.32235
G1 X170.20 Y107.54 E235.37179
G1 X171.72 Y108.79 E235.47479
G1 X172.45 Y109.39 E235.52461
G1 X173.84 Y110.78 E235.62710
G1 X174.50 Y111.45 E235.67644
G1 X175.74 Y112.96 E235.77891
G1 X176.34 Y113.69 E235.82853
G1 X177.45 Y115.35 E235.93285
G1 X177.97 Y116.14 E235.98226
G1 X178.41 Y116.95 E236.03080
G1 X178.50 Y116.99 E236.03616
G1 X180.85 Y118.81 E236.19190
G1 X182.76 Y120.92 E236.34112
G1 X184.48 Y124.26 E236.53766
G1 X184.94 Y127.25 E236.69630
G1 X184.94 Y128.35 E236.75371
G1 X184.93 Y135.76 E237.14209
G1 X184.49 Y138.92 E237.30945
G1 X182.87 Y141.93 E237.48830
G1 X180.73 Y144.66 E237.67003
G1 X178.12 Y146.19 E237.82836
G1 X178.06 Y146.31 E237.83521
G1 X177.60 Y147.12 E237.88393
G1 X176.49 Y148.71 E237.98570
G1 X175.95 Y149.48 E238.03508
G1 X174.67 Y150.97 E238.13774
G1 X174.07 Y151.68 E238.18655
G1 X172.66 Y153.03 E238.28884
G1 X171.98 Y153.68 E238.33830
G1 X170.45 Y154.88 E238.43990
G1 X170.24 Y155.05 E238.45385
G1 X169.68 Y155.50 E238.49188
G1 X169.65 Y155.53 E238.49366
G1 X169.62 Y155.57 E238.49645
G1 X169.60 Y155.60 E238.49857
G1 X169.57 Y155.66 E238.50192
G1 X169.55 Y155.69 E238.50406
G1 X169.54 Y155.75 E238.50699
G1 X169.53 Y155.79 E238.50922
G1 X169.51 Y156.18 E238.52984
G1 X169.51 Y186.52 E240.11919
G1 X169.26 Y189.40 E240.27037
G1 X168.26 Y192.24 E240.42819
G1 X166.81 Y194.78 E240.58162
G1 X163.57 Y198.06 E240.82284
G1 X158.78 Y199.75 E241.08847
G1 X146.30 Y199.75 E241.74255
G1 X141.48 Y198.06 E242.01001
G1 X138.26 Y194.78 E242.25083
G1 X136.80 Y192.24 E242.40414
G1 X135.82 Y189.41 E242.56093
G1 X135.57 Y186.77 E242.70005
G1 X135.55 Y180.05 E243.05207
G1 X135.55 Y156.16 E244.30344
G1 X135.53 Y155.79 E244.32274
G1 X135.53 Y155.74 E244.32556
G1 X135.51 Y155.70 E244.32788
G1 X135.50 Y155.65 E244.33042
G1 X135.47 Y155.61 E244.33283
G1 X135.44 Y155.56 E244.33583
G1 X135.41 Y155.53 E244.33836
G1 X135.38 Y155.49 E244.34091
G1 X135.07 Y155.25 E244.36138
G1 X133.79 Y154.24 E244.44672
G1 X133.06 Y153.66 E244.49541
G1 X131.66 Y152.31 E244.59775
G1 X130.98 Y151.66 E244.64720
G1 X129.72 Y150.18 E244.74863
G1 X129.11 Y149.47 E244.79775
G1 X127.98 Y147.86 E244.90101
G1 X127.45 Y147.09 E244.94979
G1 X127.00 Y146.30 E244.99719
G1 X124.16 Y144.51 E245.17307
G1 X121.94 Y141.68 E245.36155
G1 X120.47 Y138.64 E245.53867
G1 X120.06 Y135.75 E245.69133
G1 X120.07 Y130.91 E245.94482
G1 X120.06 Y127.35 E246.13125
G1 X120.51 Y124.23 E246.29642
G1 X120.03 Y116.33 E246.71097
G0 F12000 X120.47 Y116.72
G1 F2400 X127.57 Y116.18 E247.08382
G1 X128.55 Y114.70 E247.17714
G1 X129.07 Y113.93 E247.22575
G1 X130.30 Y112.43 E247.32693
G1 X130.88 Y111.72 E247.37532
G1 X132.26 Y110.34 E247.47751
G1 X132.91 Y109.69 E247.52593
G1 X134.41 Y108.46 E247.62735
G1 X135.13 Y107.87 E247.67588
G1 X136.74 Y106.79 E247.77777
G1 X137.51 Y106.28 E247.82620
G1 X139.22 Y105.36 E247.92791
G1 X140.04 Y104.92 E247.97635
G1 X141.83 Y104.18 E248.07788
G1 X141.83 Y104.18 E248.07793
G1 X142.68 Y103.83 E248.12595
G1 X144.55 Y103.26 E248.22826
G1 X145.42 Y103.00 E248.27614
G1 X147.35 Y102.61 E248.37912
G1 X148.26 Y102.43 E248.42760
G1 X150.19 Y102.24 E248.52967
G1 X151.11 Y102.15 E248.57782
G1 X153.06 Y102.15 E248.67976
G1 X153.97 Y102.16 E248.72780
G1 X155.91 Y102.34 E248.82990
G1 X156.84 Y102.44 E248.87850
G1 X158.74 Y102.81 E248.97997
G1 X159.65 Y103.00 E249.02854
G1 X161.50 Y103.56 E249.13026
G1 X162.38 Y103.83 E249.17852
G1 X164.19 Y104.58 E249.28073
G1 X165.04 Y104.93 E249.32910
G1 X166.76 Y105.85 E249.43114
G1 X167.57 Y106.29 E249.47940
G1 X169.18 Y107.36 E249.58112
G1 X169.95 Y107.88 E249.62947
G1 X171.45 Y109.11 E249.73142
G1 X172.17 Y109.71 E249.78013
G1 X173.54 Y111.08 E249.88155
G1 X174.19 Y111.73 E249.92981
G1 X175.42 Y113.23 E250.03124
G1 X176.00 Y113.94 E250.07978
G1 X177.10 Y115.58 E250.18298
G1 X177.61 Y116.35 E250.23129
G1 X178.11 Y117.29 E250.28695
G1 X178.29 Y117.36 E250.29720
G1 X180.57 Y119.11 E250.44783
G1 X182.41 Y121.16 E250.59226
G1 X184.08 Y124.39 E250.78231
G1 X184.51 Y127.28 E250.93575
G1 X184.52 Y128.35 E250.99149
G1 X184.51 Y135.73 E251.37825
G1 X184.09 Y138.79 E251.54011
G1 X182.51 Y141.69 E251.71319
G1 X180.44 Y144.34 E251.88891
G1 X177.81 Y145.89 E252.04895
G1 X177.69 Y146.10 E252.06164
G1 X177.25 Y146.89 E252.10929
G1 X176.15 Y148.47 E252.21004
G1 X175.62 Y149.22 E252.25837
G1 X174.35 Y150.70 E252.35991
G1 X173.76 Y151.39 E252.40767
G1 X172.37 Y152.73 E252.50889
G1 X171.70 Y153.37 E252.55721
G1 X170.19 Y154.55 E252.65776
G1 X169.98 Y154.72 E252.67183
G1 X169.40 Y155.18 E252.71074
G1 X169.34 Y155.25 E252.71545
G1 X169.28 Y155.32 E252.72028
G1 X169.23 Y155.39 E252.72490
G1 X169.18 Y155.48 E252.73027
G1 X169.15 Y155.56 E252.73488
G1 X169.13 Y155.66 E252.73987
G1 X169.11 Y155.75 E252.74465
G1 X169.09 Y156.18 E252.76747
G1 X169.09 Y186.50 E254.35598
G1 X168.85 Y189.31 E254.50347
G1 X167.88 Y192.06 E254.65653
G1 X166.47 Y194.53 E254.80503
G1 X163.34 Y197.69 E255.03835
G1 X158.71 Y199.33 E255.29516
G1 X146.37 Y199.33 E255.94169
G1 X141.71 Y197.69 E256.20033
G1 X138.60 Y194.52 E256.43322
G1 X137.18 Y192.07 E256.58162
G1 X136.23 Y189.32 E256.73370
G1 X135.99 Y186.75 E256.86913
G1 X135.97 Y180.05 E257.22011
G1 X135.97 Y156.16 E258.47185
G1 X135.95 Y155.74 E258.49346
G1 X135.94 Y155.66 E258.49796
G1 X135.91 Y155.56 E258.50334
G1 X135.88 Y155.48 E258.50755
G1 X135.84 Y155.40 E258.51245
G1 X135.78 Y155.31 E258.51809
G1 X135.73 Y155.25 E258.52251
G1 X135.66 Y155.18 E258.52722
G1 X135.30 Y154.90 E258.55130
G1 X134.05 Y153.91 E258.63462
G1 X133.34 Y153.35 E258.68228
G1 X131.95 Y152.01 E258.78353
G1 X131.28 Y151.37 E258.83184
G1 X130.04 Y149.91 E258.93226
G1 X129.44 Y149.21 E258.98034
G1 X128.32 Y147.62 E259.08247
G1 X127.80 Y146.87 E259.13020
G1 X127.31 Y146.00 E259.18214
G1 X124.45 Y144.20 E259.35973
G1 X122.30 Y141.46 E259.54205
G1 X120.88 Y138.51 E259.71329
G1 X120.48 Y135.72 E259.86103
G1 X120.49 Y130.91 E260.11295
G1 X120.48 Y127.38 E260.29787
G1 X120.92 Y124.32 E260.46013
G1 X120.93 Y124.29 E260.46144
G1 X120.47 Y116.72 E260.85893
G0 F12000 X120.92 Y117.11
G1 F2400 X127.81 Y116.58 E261.22106
G1 X127.83 Y116.54 E261.22346
G1 X128.90 Y114.93 E261.32494
G1 X129.41 Y114.18 E261.37245
G1 X130.62 Y112.70 E261.47259
G1 X131.19 Y112.00 E261.51985
G1 X132.56 Y110.64 E261.62094
G1 X133.20 Y110.00 E261.66828
G1 X134.68 Y108.78 E261.76865
G1 X135.38 Y108.21 E261.81611
G1 X136.98 Y107.14 E261.91690
G1 X137.73 Y106.64 E261.96424
G1 X139.42 Y105.73 E262.06487
G1 X140.22 Y105.30 E262.11221
G1 X141.99 Y104.57 E262.21271
G1 X142.82 Y104.22 E262.25963
G1 X144.65 Y103.67 E262.35987
G1 X145.52 Y103.40 E262.40762
G1 X147.43 Y103.02 E262.50949
G1 X148.32 Y102.85 E262.55690
G1 X150.24 Y102.66 E262.65791
G1 X151.13 Y102.57 E262.70501
G1 X153.06 Y102.57 E262.80580
G1 X153.95 Y102.58 E262.85279
G1 X155.87 Y102.76 E262.95379
G1 X156.77 Y102.85 E263.00133
G1 X158.65 Y103.23 E263.10174
G1 X159.54 Y103.41 E263.14919
G1 X161.38 Y103.96 E263.24986
G1 X162.24 Y104.23 E263.29702
G1 X164.03 Y104.96 E263.39811
G1 X164.86 Y105.31 E263.44540
G1 X166.56 Y106.22 E263.54636
G1 X167.35 Y106.65 E263.59359
G1 X168.95 Y107.71 E263.69425
G1 X169.70 Y108.22 E263.74147
G1 X171.19 Y109.44 E263.84234
G1 X171.89 Y110.02 E263.88997
G1 X173.24 Y111.37 E263.99035
G1 X173.88 Y112.01 E264.03750
G1 X175.09 Y113.49 E264.13788
G1 X175.67 Y114.19 E264.18531
G1 X176.75 Y115.81 E264.28737
G1 X177.25 Y116.56 E264.33459
G1 X177.81 Y117.62 E264.39730
G1 X178.08 Y117.73 E264.41262
G1 X180.28 Y119.42 E264.55816
G1 X182.07 Y121.40 E264.69774
G1 X183.67 Y124.52 E264.88130
G1 X184.09 Y127.32 E265.02955
G1 X184.10 Y128.35 E265.08361
G1 X184.09 Y135.70 E265.46879
G1 X183.68 Y138.66 E265.62515
G1 X182.16 Y141.46 E265.79237
G1 X180.16 Y144.02 E265.96212
G1 X177.57 Y145.54 E266.11956
G1 X177.51 Y145.57 E266.12329
G1 X177.33 Y145.90 E266.14264
G1 X176.89 Y146.67 E266.18921
G1 X175.80 Y148.23 E266.28887
G1 X175.28 Y148.97 E266.33610
G1 X174.04 Y150.42 E266.43657
G1 X173.46 Y151.10 E266.48326
G1 X172.08 Y152.43 E266.58340
G1 X171.43 Y153.05 E266.63068
G1 X169.93 Y154.22 E266.73016
G1 X169.66 Y154.44 E266.74817
G1 X169.12 Y154.87 E266.78433
G1 X169.03 Y154.96 E266.79133
G1 X168.94 Y155.07 E266.79881
G1 X168.87 Y155.18 E266.80539
G1 X168.80 Y155.31 E266.81322
G1 X168.75 Y155.44 E266.82046
G1 X168.72 Y155.57 E266.82742
G1 X168.69 Y155.70 E266.83463
G1 X168.67 Y156.16 E266.85855
G1 X168.67 Y186.49 E268.44733
G1 X168.43 Y189.22 E268.59103
G1 X167.49 Y191.89 E268.73932
G1 X166.13 Y194.27 E268.88296
G1 X163.10 Y197.33 E269.10836
G1 X158.64 Y198.91 E269.35634
G1 X146.44 Y198.91 E269.99538
G1 X141.94 Y197.33 E270.24513
G1 X138.94 Y194.26 E270.47010
G1 X137.57 Y191.89 E270.61366
G1 X136.64 Y189.23 E270.76096
G1 X136.41 Y186.73 E270.89271
G1 X136.39 Y180.05 E271.24264
G1 X136.39 Y156.14 E272.49526
G1 X136.37 Y155.70 E272.51814
G1 X136.35 Y155.57 E272.52535
G1 X136.31 Y155.43 E272.53263
G1 X136.26 Y155.31 E272.53970
G1 X136.20 Y155.19 E272.54684
G1 X136.12 Y155.06 E272.55456
G1 X136.04 Y154.96 E272.56133
G1 X135.94 Y154.87 E272.56852
G1 X135.56 Y154.57 E272.59361
G1 X134.31 Y153.58 E272.67697
G1 X133.62 Y153.03 E272.72358
G1 X132.24 Y151.71 E272.82376
G1 X131.59 Y151.08 E272.87100
G1 X130.35 Y149.64 E272.97038
G1 X129.77 Y148.96 E273.01735
G1 X128.67 Y147.38 E273.11838
G1 X128.16 Y146.64 E273.16505
G1 X127.63 Y145.71 E273.22154
G1 X124.73 Y143.88 E273.40087
G1 X122.66 Y141.23 E273.57696
G1 X121.28 Y138.39 E273.74244
G1 X120.91 Y135.69 E273.88515
G1 X120.91 Y130.91 E274.13555
G1 X120.91 Y127.41 E274.31890
G1 X121.32 Y124.45 E274.47566
G1 X121.36 Y124.39 E274.47929
G1 X120.92 Y117.11 E274.86141
G0 F12000 X121.36 Y117.50
G1 F2400 X128.07 Y116.98 E275.21398
G1 X128.19 Y116.76 E275.22740
G1 X129.25 Y115.16 E275.32778
G1 X129.75 Y114.43 E275.37418
G1 X130.94 Y112.97 E275.47327
G1 X131.51 Y112.28 E275.51949
G1 X132.85 Y110.93 E275.61947
G1 X133.48 Y110.31 E275.66573
G1 X134.94 Y109.11 E275.76503
G1 X135.63 Y108.55 E275.81137
G1 X137.21 Y107.49 E275.91114
G1 X137.94 Y107.00 E275.95734
G1 X139.62 Y106.10 E276.05692
G1 X140.40 Y105.68 E276.10318
G1 X142.15 Y104.96 E276.20260
G1 X142.96 Y104.62 E276.24844
G1 X144.77 Y104.07 E276.34764
G1 X145.62 Y103.81 E276.39430
G1 X147.51 Y103.44 E276.49504
G1 X148.38 Y103.26 E276.54138
G1 X150.28 Y103.08 E276.64124
G1 X151.15 Y102.99 E276.68729
G1 X153.06 Y102.99 E276.78703
G1 X153.93 Y103.00 E276.83292
G1 X155.83 Y103.18 E276.93281
G1 X156.71 Y103.27 E276.97930
G1 X158.57 Y103.64 E277.07859
G1 X159.44 Y103.81 E277.12496
G1 X161.26 Y104.36 E277.22454
G1 X162.10 Y104.62 E277.27066
G1 X163.86 Y105.35 E277.37068
G1 X164.68 Y105.69 E277.41688
G1 X166.36 Y106.59 E277.51678
G1 X167.13 Y107.01 E277.56291
G1 X168.72 Y108.06 E277.66248
G1 X169.45 Y108.56 E277.70863
G1 X170.92 Y109.76 E277.80839
G1 X171.60 Y110.33 E277.85494
G1 X172.94 Y111.67 E277.95421
G1 X173.56 Y112.29 E278.00033
G1 X174.77 Y113.76 E278.09963
G1 X175.33 Y114.44 E278.14601
G1 X176.40 Y116.05 E278.24693
G1 X176.88 Y116.78 E278.29306
G1 X177.51 Y117.95 E278.36285
G1 X177.87 Y118.10 E278.38308
G1 X179.99 Y119.73 E278.52351
G1 X181.72 Y121.64 E278.65826
G1 X183.27 Y124.65 E278.83539
G1 X183.68 Y127.35 E278.97844
G1 X183.68 Y128.35 E279.03082
G1 X183.67 Y135.67 E279.41439
G1 X183.28 Y138.52 E279.56529
G1 X181.81 Y141.23 E279.72670
G1 X179.88 Y143.69 E279.89041
G1 X177.38 Y145.17 E280.04249
G1 X177.21 Y145.25 E280.05222
G1 X176.96 Y145.69 E280.07875
G1 X176.53 Y146.44 E280.12428
G1 X175.46 Y147.99 E280.22285
G1 X174.95 Y148.71 E280.26900
G1 X173.72 Y150.15 E280.36839
G1 X173.15 Y150.81 E280.41400
G1 X171.79 Y152.12 E280.51310
G1 X171.15 Y152.73 E280.55927
G1 X169.67 Y153.90 E280.65773
G1 X169.46 Y154.06 E280.67203
G1 X168.84 Y154.55 E280.71322
G1 X168.72 Y154.68 E280.72263
G1 X168.60 Y154.81 E280.73186
G1 X168.50 Y154.97 E280.74162
G1 X168.42 Y155.14 E280.75146
G1 X168.35 Y155.30 E280.76045
G1 X168.30 Y155.49 E280.77075
G1 X168.28 Y155.65 E280.77956
G1 X168.25 Y156.16 E280.80584
G1 X168.25 Y186.47 E282.39384
G1 X168.02 Y189.13 E282.53381
G1 X167.11 Y191.71 E282.67730
G1 X165.79 Y194.01 E282.81609
G1 X162.87 Y196.96 E283.03353
G1 X158.57 Y198.49 E283.27267
G1 X146.51 Y198.49 E283.90417
G1 X142.17 Y196.97 E284.14504
G1 X139.27 Y194.01 E284.36212
G1 X137.95 Y191.72 E284.50078
G1 X137.06 Y189.14 E284.64337
G1 X136.83 Y186.71 E284.77144
G1 X136.81 Y180.05 E285.12037
G1 X136.81 Y156.13 E286.37310
G1 X136.79 Y155.66 E286.39828
G1 X136.76 Y155.48 E286.40756
G1 X136.71 Y155.30 E286.41738
G1 X136.65 Y155.14 E286.42649
G1 X136.56 Y154.98 E286.43598
G1 X136.46 Y154.81 E286.44627
G1 X136.34 Y154.68 E286.45549
G1 X136.22 Y154.55 E286.46494
G1 X135.85 Y154.26 E286.48929
G1 X134.57 Y153.25 E286.57455
G1 X133.89 Y152.71 E286.62007
G1 X132.53 Y151.40 E286.71914
G1 X131.90 Y150.79 E286.76534
G1 X130.68 Y149.37 E286.86361
G1 X130.10 Y148.70 E286.90953
G1 X129.01 Y147.14 E287.00944
G1 X128.51 Y146.42 E287.05506
G1 X127.94 Y145.41 E287.11612
G1 X125.02 Y143.56 E287.29712
G1 X123.02 Y141.01 E287.46709
G1 X121.69 Y138.27 E287.62676
G1 X121.33 Y135.66 E287.76445
G1 X121.33 Y130.91 E288.01333
G1 X121.33 Y127.44 E288.19515
G1 X121.73 Y124.58 E288.34641
G1 X121.78 Y124.48 E288.35236
G1 X121.36 Y117.50 E288.71910
G0 F12000 X121.80 Y117.88
G1 F2400 X128.33 Y117.39 E289.06206
G1 X128.55 Y116.97 E289.08648
G1 X129.60 Y115.40 E289.18580
G1 X130.09 Y114.68 E289.23113
G1 X131.27 Y113.23 E289.32910
G1 X131.82 Y112.57 E289.37425
G1 X133.15 Y111.23 E289.47315
G1 X133.76 Y110.62 E289.51834
G1 X135.21 Y109.43 E289.61652
G1 X135.88 Y108.88 E289.66183
G1 X137.44 Y107.84 E289.76046
G1 X138.16 Y107.36 E289.80563
G1 X139.82 Y106.47 E289.90413
G1 X140.58 Y106.06 E289.94932
G1 X142.31 Y105.34 E290.04765
G1 X143.10 Y105.02 E290.09241
G1 X144.91 Y104.47 E290.19144
G1 X145.73 Y104.22 E290.23609
G1 X147.59 Y103.85 E290.33576
G1 X148.44 Y103.68 E290.38098
G1 X150.32 Y103.50 E290.47979
G1 X151.17 Y103.41 E290.52473
G1 X153.05 Y103.41 E290.62337
G1 X153.91 Y103.42 E290.66821
G1 X155.79 Y103.60 E290.76705
G1 X156.65 Y103.69 E290.81239
G1 X158.49 Y104.05 E290.91065
G1 X159.34 Y104.22 E290.95596
G1 X161.14 Y104.77 E291.05445
G1 X161.96 Y105.02 E291.09947
G1 X163.70 Y105.74 E291.19839
G1 X164.50 Y106.07 E291.24353
G1 X166.16 Y106.96 E291.34231
G1 X166.92 Y107.37 E291.38736
G1 X168.48 Y108.41 E291.48586
G1 X169.20 Y108.89 E291.53093
G1 X170.65 Y110.09 E291.62964
G1 X171.32 Y110.64 E291.67508
G1 X172.65 Y111.97 E291.77331
G1 X173.25 Y112.58 E291.81832
G1 X174.44 Y114.02 E291.91654
G1 X174.99 Y114.69 E291.96184
G1 X176.05 Y116.28 E292.06167
G1 X176.52 Y117.00 E292.10674
G1 X177.21 Y118.29 E292.18354
G1 X177.66 Y118.47 E292.20877
G1 X179.71 Y120.04 E292.34413
G1 X181.37 Y121.89 E292.47402
G1 X182.86 Y124.78 E292.64465
G1 X183.26 Y127.38 E292.78251
G1 X183.26 Y128.35 E292.83322
G1 X183.25 Y135.64 E293.21521
G1 X182.87 Y138.39 E293.36057
G1 X181.46 Y141.00 E293.51616
G1 X179.60 Y143.37 E293.67389
G1 X177.19 Y144.80 E293.82062
G1 X176.91 Y144.92 E293.83638
G1 X176.60 Y145.48 E293.87003
G1 X176.18 Y146.22 E293.91454
G1 X175.11 Y147.75 E294.01209
G1 X174.62 Y148.45 E294.05710
G1 X173.40 Y149.88 E294.15541
G1 X172.84 Y150.52 E294.19998
G1 X171.50 Y151.82 E294.29798
G1 X170.87 Y152.41 E294.34307
G1 X169.41 Y153.56 E294.44049
G1 X169.15 Y153.78 E294.45840
G1 X168.56 Y154.24 E294.49732
G1 X168.41 Y154.39 E294.50887
G1 X168.26 Y154.57 E294.52071
G1 X168.14 Y154.75 E294.53240
G1 X168.03 Y154.97 E294.54484
G1 X167.95 Y155.17 E294.55647
G1 X167.89 Y155.39 E294.56835
G1 X167.86 Y155.62 E294.58049
G1 X167.83 Y156.13 E294.60735
G1 X167.83 Y186.45 E296.19555
G1 X167.61 Y189.04 E296.33174
G1 X166.72 Y191.54 E296.47045
G1 X165.46 Y193.76 E296.60440
G1 X162.64 Y196.60 E296.81387
G1 X158.50 Y198.07 E297.04429
G1 X146.59 Y198.07 E297.66824
G1 X142.41 Y196.60 E297.90023
G1 X139.61 Y193.75 E298.10934
G1 X138.33 Y191.54 E298.24317
G1 X137.47 Y189.05 E298.38099
G1 X137.25 Y186.69 E298.50538
G1 X137.23 Y180.05 E298.85326
G1 X137.23 Y156.11 E300.10714
G1 X137.21 Y155.61 E300.13332
G1 X137.17 Y155.40 E300.14478
G1 X137.11 Y155.17 E300.15726
G1 X137.03 Y154.96 E300.16890
G1 X136.93 Y154.76 E300.18062
G1 X136.80 Y154.56 E300.19310
G1 X136.66 Y154.39 E300.20464
G1 X136.50 Y154.24 E300.21645
G1 X136.09 Y153.91 E300.24382
G1 X134.84 Y152.92 E300.32725
G1 X134.17 Y152.40 E300.37170
G1 X132.82 Y151.10 E300.46977
G1 X132.20 Y150.50 E300.51486
G1 X130.99 Y149.09 E300.61209
G1 X130.44 Y148.44 E300.65693
G1 X129.36 Y146.90 E300.75574
G1 X128.87 Y146.20 E300.80028
G1 X128.24 Y145.08 E300.86774
G1 X128.18 Y145.06 E300.87121
G1 X125.30 Y143.25 E301.04898
G1 X123.38 Y140.79 E301.21269
G1 X122.10 Y138.14 E301.36655
G1 X121.75 Y135.63 E301.49926
G1 X121.75 Y130.91 E301.74662
G1 X121.75 Y127.47 E301.92693
G1 X122.13 Y124.72 E302.07263
G1 X122.21 Y124.58 E302.08097
G1 X121.80 Y117.88 E302.43228
G0 F12000 X122.25 Y118.27
G1 F2400 X128.59 Y117.79 E302.76562
G1 X128.91 Y117.19 E302.80108
G1 X129.95 Y115.63 E302.89927
G1 X130.42 Y114.93 E302.94351
G1 X131.59 Y113.50 E303.04048
G1 X132.13 Y112.85 E303.08450
G1 X133.45 Y111.53 E303.18233
G1 X134.04 Y110.93 E303.22641
G1 X135.48 Y109.75 E303.32359
G1 X136.13 Y109.22 E303.36777
G1 X137.68 Y108.19 E303.46532
G1 X138.38 Y107.72 E303.50940
G1 X140.02 Y106.84 E303.60682
G1 X140.76 Y106.44 E303.65095
G1 X142.47 Y105.73 E303.74820
G1 X142.47 Y105.73 E303.74826
G1 X143.25 Y105.41 E303.79196
G1 X145.02 Y104.88 E303.88902
G1 X145.02 Y104.87 E303.88907
G1 X145.83 Y104.63 E303.93353
G1 X147.67 Y104.26 E304.03203
G1 X148.50 Y104.10 E304.07619
G1 X150.36 Y103.91 E304.17394
G1 X151.19 Y103.83 E304.21777
G1 X153.05 Y103.83 E304.31537
G1 X153.89 Y103.83 E304.35911
G1 X155.75 Y104.02 E304.45685
G1 X156.59 Y104.10 E304.50113
G1 X158.41 Y104.46 E304.59833
G1 X159.23 Y104.63 E304.64252
G1 X161.01 Y105.17 E304.73996
G1 X161.82 Y105.41 E304.78389
G1 X163.54 Y106.13 E304.88174
G1 X164.32 Y106.45 E304.92579
G1 X165.96 Y107.33 E305.02349
G1 X166.70 Y107.73 E305.06742
G1 X168.25 Y108.76 E305.16486
G1 X168.94 Y109.23 E305.20887
G1 X170.39 Y110.41 E305.30647
G1 X171.04 Y110.95 E305.35083
G1 X172.35 Y112.26 E305.44799
G1 X172.94 Y112.86 E305.49195
G1 X174.12 Y114.29 E305.58910
G1 X174.65 Y114.94 E305.63329
G1 X175.70 Y116.51 E305.73198
G1 X176.16 Y117.21 E305.77599
G1 X176.92 Y118.62 E305.85987
G1 X177.45 Y118.83 E305.89001
G1 X179.42 Y120.35 E306.02025
G1 X181.02 Y122.13 E306.14536
G1 X182.46 Y124.91 E306.30955
G1 X182.84 Y127.42 E306.44216
G1 X182.84 Y128.35 E306.49125
G1 X182.83 Y135.61 E306.87156
G1 X182.46 Y138.26 E307.01147
G1 X181.10 Y140.77 E307.16125
G1 X179.32 Y143.05 E307.31297
G1 X176.99 Y144.42 E307.45435
G1 X176.62 Y144.59 E307.47608
G1 X176.23 Y145.28 E307.51697
G1 X175.82 Y146.00 E307.56034
G1 X174.77 Y147.51 E307.65685
G1 X174.29 Y148.19 E307.70081
G1 X173.08 Y149.60 E307.79804
G1 X172.54 Y150.23 E307.84150
G1 X171.21 Y151.51 E307.93842
G1 X170.60 Y152.09 E307.98244
G1 X169.15 Y153.24 E308.07882
G1 X168.94 Y153.41 E308.09333
G1 X168.28 Y153.93 E308.13694
G1 X168.09 Y154.11 E308.15087
G1 X167.93 Y154.32 E308.16490
G1 X167.78 Y154.54 E308.17910
G1 X167.65 Y154.80 E308.19395
G1 X167.56 Y155.03 E308.20727
G1 X167.48 Y155.31 E308.22229
G1 X167.44 Y155.57 E308.23609
G1 X167.41 Y156.13 E308.26536
G1 X167.41 Y186.43 E309.85282
G1 X167.19 Y188.95 E309.98528
G1 X166.34 Y191.36 E310.11916
G1 X165.12 Y193.50 E310.24821
G1 X162.41 Y196.24 E310.44979
G1 X158.42 Y197.65 E310.67138
G1 X146.66 Y197.65 E311.28784
G1 X142.64 Y196.24 E311.51090
G1 X139.95 Y193.50 E311.71212
G1 X138.72 Y191.36 E311.84111
G1 X137.88 Y188.96 E311.97416
G1 X137.67 Y186.67 E312.09487
G1 X137.65 Y180.05 E312.44176
G1 X137.65 Y156.11 E313.69574
G1 X137.62 Y155.57 E313.72417
G1 X137.58 Y155.30 E313.73845
G1 X137.51 Y155.04 E313.75261
G1 X137.41 Y154.79 E313.76644
G1 X137.29 Y154.55 E313.78083
G1 X137.14 Y154.32 E313.79520
G1 X136.97 Y154.11 E313.80934
G1 X136.77 Y153.92 E313.82360
G1 X136.35 Y153.58 E313.85209
G1 X135.10 Y152.59 E313.93556
G1 X134.45 Y152.08 E313.97897
G1 X133.11 Y150.80 E314.07592
G1 X132.51 Y150.21 E314.11994
G1 X131.31 Y148.82 E314.21613
G1 X130.77 Y148.18 E314.25989
G1 X129.70 Y146.66 E314.35758
G1 X129.23 Y145.97 E314.40106
G1 X128.52 Y144.73 E314.47617
G1 X128.35 Y144.67 E314.48546
G1 X125.59 Y142.93 E314.65656
G1 X123.73 Y140.56 E314.81414
G1 X122.50 Y138.02 E314.96217
G1 X122.17 Y135.61 E315.08986
G1 X122.17 Y130.91 E315.33570
G1 X122.17 Y127.50 E315.51444
G1 X122.54 Y124.85 E315.65464
G1 X122.64 Y124.67 E315.66526
G1 X122.25 Y118.27 E316.00130
G0 F12000 X122.69 Y118.66
G1 F2400 X128.85 Y118.19 E316.32507
G1 X128.89 Y118.13 E316.32875
G1 X129.27 Y117.41 E316.37152
G1 X130.30 Y115.86 E316.46862
G1 X130.76 Y115.18 E316.51176
G1 X131.92 Y113.77 E316.60761
G1 X132.44 Y113.13 E316.65060
G1 X133.75 Y111.82 E316.74735
G1 X134.33 Y111.25 E316.79032
G1 X135.74 Y110.08 E316.88642
G1 X136.38 Y109.56 E316.92956
G1 X137.91 Y108.53 E317.02600
G1 X138.59 Y108.08 E317.06899
G1 X140.22 Y107.21 E317.16536
G1 X140.94 Y106.82 E317.20837
G1 X142.63 Y106.12 E317.30454
G1 X143.39 Y105.81 E317.34721
G1 X145.14 Y105.28 E317.44323
G1 X145.93 Y105.03 E317.48661
G1 X147.76 Y104.67 E317.58398
G1 X148.56 Y104.51 E317.62707
G1 X150.40 Y104.33 E317.72366
G1 X151.21 Y104.25 E317.76650
G1 X153.05 Y104.25 E317.86294
G1 X153.87 Y104.25 E317.90563
G1 X155.71 Y104.43 E318.00231
G1 X156.53 Y104.52 E318.04549
G1 X158.32 Y104.87 E318.14162
G1 X159.13 Y105.04 E318.18470
G1 X160.89 Y105.57 E318.28104
G1 X161.67 Y105.81 E318.32393
G1 X163.38 Y106.52 E318.42065
G1 X164.14 Y106.83 E318.46362
G1 X165.76 Y107.70 E318.56025
G1 X166.49 Y108.09 E318.60316
G1 X168.01 Y109.11 E318.69947
G1 X168.69 Y109.57 E318.74239
G1 X170.12 Y110.73 E318.83891
G1 X170.76 Y111.26 E318.88219
G1 X172.05 Y112.56 E318.97827
G1 X172.63 Y113.14 E319.02117
G1 X173.79 Y114.56 E319.11724
G1 X174.31 Y115.19 E319.16038
G1 X175.35 Y116.74 E319.25794
G1 X175.80 Y117.43 E319.30084
G1 X176.62 Y118.96 E319.39168
G1 X177.24 Y119.20 E319.42693
G1 X179.13 Y120.66 E319.55209
G1 X180.67 Y122.37 E319.67230
G1 X182.05 Y125.04 E319.83007
G1 X182.42 Y127.45 E319.95749
G1 X182.42 Y128.35 E320.00490
G1 X182.41 Y135.58 E320.38364
G1 X182.06 Y138.12 E320.51805
G1 X180.75 Y140.54 E320.66199
G1 X179.03 Y142.73 E320.80770
G1 X176.80 Y144.05 E320.94368
G1 X176.32 Y144.27 E320.97151
G1 X175.87 Y145.07 E321.01954
G1 X175.47 Y145.77 E321.06189
G1 X174.43 Y147.26 E321.15731
G1 X173.96 Y147.94 E321.20018
G1 X172.76 Y149.33 E321.29629
G1 X172.23 Y149.94 E321.33875
G1 X170.91 Y151.21 E321.43459
G1 X170.32 Y151.78 E321.47754
G1 X168.89 Y152.91 E321.57283
G1 X168.63 Y153.12 E321.59070
G1 X168.01 Y153.61 E321.63208
G1 X167.79 Y153.82 E321.64823
G1 X167.58 Y154.07 E321.66513
G1 X167.42 Y154.33 E321.68114
G1 X167.26 Y154.62 E321.69836
G1 X167.15 Y154.91 E321.71481
G1 X167.07 Y155.22 E321.73125
G1 X167.02 Y155.52 E321.74738
G1 X166.99 Y156.11 E321.77806
G1 X166.99 Y156.12 E321.77901
G1 X166.99 Y186.41 E323.36574
G1 X166.78 Y188.86 E323.49446
G1 X165.96 Y191.19 E323.62362
G1 X164.78 Y193.25 E323.74779
G1 X162.18 Y195.87 E323.94145
G1 X158.35 Y197.23 E324.15420
G1 X146.73 Y197.23 E324.76312
G1 X142.87 Y195.88 E324.97735
G1 X140.29 Y193.24 E325.17065
G1 X139.10 Y191.19 E325.29473
G1 X138.30 Y188.87 E325.42307
G1 X138.09 Y186.65 E325.54014
G1 X138.07 Y180.05 E325.88594
G1 X138.07 Y156.11 E327.14013
G1 X138.04 Y155.52 E327.17071
G1 X137.99 Y155.21 E327.18715
G1 X137.91 Y154.91 E327.20371
G1 X137.80 Y154.62 E327.22018
G1 X137.65 Y154.33 E327.23675
G1 X137.47 Y154.06 E327.25361
G1 X137.28 Y153.83 E327.26977
G1 X137.05 Y153.60 E327.28666
G1 X136.63 Y153.27 E327.31443
G1 X136.63 Y153.27 E327.31448
G1 X135.36 Y152.26 E327.39967
G1 X134.72 Y151.76 E327.44199
G1 X133.40 Y150.50 E327.53787
G1 X132.81 Y149.93 E327.58081
G1 X131.63 Y148.55 E327.67596
G1 X131.10 Y147.93 E327.71866
G1 X130.04 Y146.42 E327.81524
G1 X129.58 Y145.75 E327.85767
G1 X128.81 Y144.38 E327.94041
G1 X128.53 Y144.29 E327.95552
G1 X125.88 Y142.62 E328.11997
G1 X124.09 Y140.34 E328.27136
G1 X122.91 Y137.90 E328.41362
G1 X122.58 Y135.58 E328.53634
G1 X122.59 Y130.91 E328.78056
G1 X122.58 Y127.53 E328.95783
G1 X122.94 Y124.98 E329.09252
G1 X123.06 Y124.77 E329.10551
G1 X122.69 Y118.66 E329.42612
G0 F12000 X123.14 Y119.05
G1 F2400 X129.12 Y118.59 E329.74034
G1 X129.26 Y118.33 E329.75606
G1 X129.63 Y117.62 E329.79778
G1 X130.65 Y116.10 E329.89374
G1 X131.10 Y115.43 E329.93579
G1 X132.24 Y114.03 E330.03064
G1 X132.75 Y113.41 E330.07255
G1 X134.04 Y112.12 E330.16815
G1 X134.61 Y111.56 E330.21004
G1 X136.01 Y110.40 E330.30509
G1 X136.63 Y109.90 E330.34712
G1 X138.14 Y108.88 E330.44255
G1 X138.81 Y108.44 E330.48441
G1 X140.41 Y107.58 E330.57970
G1 X141.12 Y107.20 E330.62162
G1 X142.80 Y106.51 E330.71674
G1 X143.53 Y106.20 E330.75833
G1 X145.28 Y105.67 E330.85408
G1 X145.28 Y105.67 E330.85413
G1 X146.03 Y105.44 E330.89561
G1 X147.84 Y105.08 E330.99191
G1 X148.62 Y104.93 E331.03388
G1 X150.44 Y104.75 E331.12942
G1 X151.23 Y104.67 E331.17115
G1 X153.05 Y104.67 E331.26654
G1 X153.85 Y104.67 E331.30813
G1 X155.66 Y104.85 E331.40371
G1 X156.46 Y104.93 E331.44579
G1 X158.24 Y105.28 E331.54085
G1 X159.03 Y105.44 E331.58290
G1 X160.77 Y105.97 E331.67816
G1 X161.53 Y106.20 E331.71996
G1 X163.22 Y106.90 E331.81559
G1 X163.96 Y107.21 E331.85749
G1 X165.56 Y108.07 E331.95299
G1 X166.27 Y108.45 E331.99482
G1 X167.78 Y109.46 E332.09012
G1 X168.44 Y109.90 E332.13190
G1 X169.85 Y111.06 E332.22734
G1 X170.47 Y111.57 E332.26954
G1 X171.75 Y112.86 E332.36459
G1 X172.32 Y113.42 E332.40637
G1 X173.47 Y114.82 E332.50139
G1 X173.98 Y115.44 E332.54342
G1 X175.00 Y116.97 E332.63985
G1 X175.44 Y117.64 E332.68167
G1 X176.29 Y119.23 E332.77588
G1 X176.32 Y119.29 E332.77967
G1 X177.03 Y119.57 E332.81977
G1 X178.85 Y120.97 E332.93989
G1 X180.32 Y122.61 E333.05524
G1 X181.65 Y125.17 E333.20652
G1 X182.00 Y127.48 E333.32875
G1 X182.00 Y128.35 E333.37448
G1 X181.99 Y135.55 E333.75160
G1 X181.65 Y137.99 E333.88050
G1 X180.40 Y140.31 E334.01866
G1 X178.75 Y142.41 E334.15833
G1 X176.61 Y143.68 E334.28900
G1 X176.02 Y143.94 E334.32281
G1 X175.50 Y144.86 E334.37800
G1 X175.11 Y145.55 E334.41931
G1 X174.08 Y147.02 E334.51367
G1 X173.62 Y147.68 E334.55548
G1 X172.44 Y149.06 E334.65052
G1 X171.93 Y149.65 E334.69186
G1 X170.62 Y150.91 E334.78663
G1 X170.05 Y151.46 E334.82846
G1 X168.63 Y152.57 E334.92275
G1 X168.41 Y152.75 E334.93749
G1 X167.73 Y153.30 E334.98349
G1 X167.48 Y153.54 E335.00172
G1 X167.25 Y153.82 E335.02096
G1 X167.05 Y154.12 E335.03938
G1 X166.88 Y154.45 E335.05895
G1 X166.75 Y154.78 E335.07725
G1 X166.66 Y155.13 E335.09652
G1 X166.60 Y155.49 E335.11535
G1 X166.57 Y156.08 E335.14672
G1 X166.57 Y156.10 E335.14767
G1 X166.57 Y186.40 E336.73461
G1 X166.37 Y188.77 E336.85959
G1 X165.57 Y191.01 E336.98394
G1 X164.44 Y192.99 E337.10327
G1 X161.95 Y195.51 E337.28900
G1 X158.28 Y196.81 E337.49291
G1 X146.80 Y196.81 E338.09433
G1 X143.10 Y195.51 E338.29969
G1 X140.62 Y192.98 E338.48505
G1 X139.49 Y191.01 E338.60428
G1 X138.71 Y188.78 E338.72785
G1 X138.51 Y186.63 E338.84124
G1 X138.49 Y180.05 E339.18603
G1 X138.49 Y156.08 E340.44133
G1 X138.46 Y155.48 E340.47296
G1 X138.41 Y155.13 E340.49174
G1 X138.31 Y154.78 E340.51085
G1 X138.18 Y154.44 E340.52939
G1 X138.02 Y154.13 E340.54818
G1 X137.81 Y153.82 E340.56762
G1 X137.59 Y153.54 E340.58634
G1 X137.33 Y153.29 E340.60527
G1 X136.89 Y152.94 E340.63435
G1 X135.62 Y151.94 E340.71946
G1 X135.00 Y151.44 E340.76078
G1 X133.69 Y150.19 E340.85555
G1 X133.12 Y149.64 E340.89738
G1 X131.95 Y148.27 E340.99152
G1 X131.44 Y147.67 E341.03314
G1 X130.39 Y146.18 E341.12860
G1 X129.94 Y145.53 E341.16997
G1 X129.09 Y144.03 E341.26028
G1 X128.71 Y143.90 E341.28129
G1 X126.16 Y142.30 E341.43913
G1 X124.45 Y140.12 E341.58433
G1 X123.32 Y137.77 E341.72073
G1 X123.00 Y135.55 E341.83847
G1 X123.01 Y130.91 E342.08117
G1 X123.00 Y127.56 E342.25687
G1 X123.35 Y125.12 E342.38606
G1 X123.49 Y124.86 E342.40137
G1 X123.14 Y119.05 E342.70660
G0 F12000 X123.58 Y119.43
G1 F2400 X129.38 Y118.99 E343.01125
G1 X129.63 Y118.52 E343.03905
G1 X130.00 Y117.84 E343.07969
G1 X131.00 Y116.33 E343.17452
G1 X131.43 Y115.68 E343.21547
G1 X132.57 Y114.30 E343.30928
G1 X133.06 Y113.70 E343.35007
G1 X134.34 Y112.42 E343.44464
G1 X134.89 Y111.87 E343.48550
G1 X136.28 Y110.73 E343.57943
G1 X136.88 Y110.23 E343.62038
G1 X138.38 Y109.23 E343.71467
G1 X139.03 Y108.80 E343.75550
G1 X140.61 Y107.95 E343.84971
G1 X141.30 Y107.58 E343.89056
G1 X142.96 Y106.90 E343.98459
G1 X143.67 Y106.60 E344.02510
G1 X145.40 Y106.08 E344.11976
G1 X145.40 Y106.08 E344.11981
G1 X146.14 Y105.85 E344.16024
G1 X147.92 Y105.50 E344.25538
G1 X148.69 Y105.34 E344.29628
G1 X150.48 Y105.17 E344.39071
G1 X151.25 Y105.09 E344.43139
G1 X153.05 Y105.09 E344.52568
G1 X153.83 Y105.09 E344.56623
G1 X155.62 Y105.27 E344.66070
G1 X156.40 Y105.35 E344.70172
G1 X158.16 Y105.70 E344.79571
G1 X158.93 Y105.85 E344.83664
G1 X160.65 Y106.37 E344.93085
G1 X161.39 Y106.60 E344.97155
G1 X163.06 Y107.29 E345.06613
G1 X163.78 Y107.59 E345.10694
G1 X165.37 Y108.44 E345.20136
G1 X166.05 Y108.81 E345.24208
G1 X167.55 Y109.81 E345.33628
G1 X168.19 Y110.24 E345.37708
G1 X169.59 Y111.38 E345.47140
G1 X170.19 Y111.88 E345.51248
G1 X171.46 Y113.15 E345.60645
G1 X172.01 Y113.70 E345.64716
G1 X173.14 Y115.09 E345.74115
G1 X173.64 Y115.69 E345.78205
G1 X174.65 Y117.21 E345.87735
G1 X175.08 Y117.86 E345.91810
G1 X175.92 Y119.42 E346.01128
G1 X176.02 Y119.62 E346.02310
G1 X176.82 Y119.94 E346.06827
G1 X178.56 Y121.28 E346.18323
G1 X179.98 Y122.85 E346.29380
G1 X181.24 Y125.31 E346.43859
G1 X181.58 Y127.51 E346.55563
G1 X181.58 Y128.35 E346.59969
G1 X181.57 Y135.52 E346.97523
G1 X181.25 Y137.86 E347.09863
G1 X180.04 Y140.08 E347.23095
G1 X178.47 Y142.09 E347.36466
G1 X176.41 Y143.30 E347.48997
G1 X175.72 Y143.62 E347.52980
G1 X175.13 Y144.65 E347.59215
G1 X174.76 Y145.32 E347.63238
G1 X173.74 Y146.78 E347.72569
G1 X173.29 Y147.42 E347.76641
G1 X172.12 Y148.78 E347.86037
G1 X171.62 Y149.37 E347.90067
G1 X170.33 Y150.61 E347.99437
G1 X169.77 Y151.14 E348.03513
G1 X168.37 Y152.25 E348.12834
G1 X168.11 Y152.46 E348.14620
G1 X167.45 Y152.98 E348.19034
G1 X167.17 Y153.26 E348.21101
G1 X166.91 Y153.57 E348.23241
G1 X166.69 Y153.91 E348.25322
G1 X166.50 Y154.28 E348.27496
G1 X166.35 Y154.65 E348.29586
G1 X166.25 Y155.04 E348.31725
G1 X166.19 Y155.44 E348.33825
G1 X166.15 Y156.06 E348.37098
G1 X166.15 Y156.10 E348.37282
G1 X166.15 Y186.38 E349.95913
G1 X165.95 Y188.68 E350.08034
G1 X165.19 Y190.84 E350.19994
G1 X164.11 Y192.73 E350.31439
G1 X161.72 Y195.15 E350.49216
G1 X158.21 Y196.39 E350.68728
G1 X146.87 Y196.39 E351.28122
G1 X143.33 Y195.15 E351.47764
G1 X140.96 Y192.73 E351.65512
G1 X139.87 Y190.84 E351.76946
G1 X139.12 Y188.69 E351.88831
G1 X138.93 Y186.61 E351.99802
G1 X138.91 Y180.05 E352.34177
G1 X138.91 Y156.08 E353.59711
G1 X138.88 Y155.43 E353.63132
G1 X138.82 Y155.04 E353.65211
G1 X138.71 Y154.64 E353.67367
G1 X138.56 Y154.27 E353.69440
G1 X138.38 Y153.91 E353.71555
G1 X138.15 Y153.56 E353.73756
G1 X137.90 Y153.26 E353.75804
G1 X137.61 Y152.98 E353.77930
G1 X137.13 Y152.59 E353.81143
G1 X137.13 Y152.59 E353.81151
G1 X135.88 Y151.61 E353.89514
G1 X135.28 Y151.13 E353.93541
G1 X133.99 Y149.89 E354.02910
G1 X133.43 Y149.35 E354.06986
G1 X132.27 Y148.00 E354.16292
G1 X131.77 Y147.41 E354.20342
G1 X130.74 Y145.94 E354.29780
G1 X130.30 Y145.30 E354.33811
G1 X129.42 Y143.75 E354.43128
G1 X129.38 Y143.68 E354.43604
G1 X128.89 Y143.52 E354.46293
G1 X126.45 Y141.98 E354.61408
G1 X124.81 Y139.89 E354.75312
G1 X123.72 Y137.65 E354.88373
G1 X123.42 Y135.52 E354.99645
G1 X123.43 Y130.91 E355.23763
G1 X123.42 Y127.59 E355.41181
G1 X123.75 Y125.25 E355.53550
G1 X123.92 Y124.95 E355.55315
G1 X123.58 Y119.43 E355.84301
G0 F12000 X124.03 Y119.82
G1 F2400 X129.64 Y119.39 E356.13805
G1 X130.00 Y118.72 E356.17793
G1 X130.35 Y118.06 E356.21749
G1 X131.35 Y116.56 E356.31126
G1 X131.77 Y115.93 E356.35116
G1 X132.89 Y114.56 E356.44385
G1 X133.38 Y113.98 E356.48360
G1 X134.63 Y112.72 E356.57702
G1 X135.17 Y112.18 E356.61680
G1 X136.54 Y111.05 E356.70965
G1 X137.13 Y110.57 E356.74952
G1 X138.61 Y109.58 E356.84276
G1 X139.24 Y109.16 E356.88254
G1 X140.81 Y108.32 E356.97565
G1 X141.48 Y107.97 E357.01542
G1 X143.12 Y107.28 E357.10837
G1 X143.81 Y107.00 E357.14780
G1 X145.52 Y106.48 E357.24136
G1 X146.24 Y106.26 E357.28074
G1 X148.00 Y105.91 E357.37475
G1 X148.75 Y105.76 E357.41458
G1 X150.52 Y105.58 E357.50791
G1 X151.27 Y105.51 E357.54748
G1 X153.05 Y105.51 E357.64073
G1 X153.81 Y105.51 E357.68017
G1 X155.58 Y105.69 E357.77359
G1 X156.34 Y105.76 E357.81351
G1 X158.08 Y106.11 E357.90643
G1 X158.82 Y106.26 E357.94630
G1 X160.52 Y106.78 E358.03936
G1 X161.25 Y107.00 E358.07902
G1 X162.90 Y107.68 E358.17251
G1 X163.60 Y107.97 E358.21225
G1 X165.17 Y108.81 E358.30554
G1 X165.84 Y109.17 E358.34522
G1 X167.31 Y110.16 E358.43832
G1 X167.94 Y110.58 E358.47803
G1 X169.32 Y111.71 E358.57127
G1 X169.91 Y112.19 E358.61127
G1 X171.16 Y113.45 E358.70417
G1 X171.69 Y113.98 E358.74381
G1 X172.82 Y115.36 E358.83671
G1 X173.30 Y115.94 E358.87654
G1 X174.30 Y117.44 E358.97075
G1 X174.72 Y118.07 E359.01044
G1 X175.55 Y119.62 E359.10257
G1 X175.72 Y119.96 E359.12251
G1 X176.61 Y120.31 E359.17258
G1 X178.28 Y121.59 E359.28250
G1 X179.63 Y123.09 E359.38817
G1 X180.84 Y125.44 E359.52650
G1 X181.16 Y127.55 E359.63834
G1 X181.16 Y128.36 E359.68072
G1 X181.15 Y135.49 E360.05465
G1 X180.84 Y137.72 E360.17260
G1 X179.69 Y139.85 E360.29908
G1 X178.19 Y141.77 E360.42674
G1 X176.22 Y142.93 E360.54670
G1 X175.42 Y143.29 E360.59253
G1 X174.77 Y144.45 E360.66210
G1 X174.40 Y145.10 E360.70125
G1 X173.39 Y146.54 E360.79348
G1 X172.96 Y147.16 E360.83311
G1 X171.81 Y148.51 E360.92600
G1 X171.32 Y149.08 E360.96522
G1 X170.04 Y150.30 E361.05784
G1 X169.50 Y150.82 E361.09752
G1 X168.12 Y151.91 E361.18964
G1 X167.89 Y152.09 E361.20468
G1 X167.17 Y152.67 E361.25303
G1 X166.86 Y152.97 E361.27592
G1 X166.57 Y153.32 E361.29971
G1 X166.32 Y153.69 E361.32285
G1 X166.12 Y154.10 E361.34684
G1 X165.96 Y154.51 E361.37005
G1 X165.84 Y154.96 E361.39407
G1 X165.77 Y155.40 E361.41731
G1 X165.73 Y156.04 E361.45104
G1 X165.73 Y156.08 E361.45303
G1 X165.73 Y186.36 E363.03945
G1 X165.54 Y188.59 E363.15692
G1 X164.81 Y190.66 E363.27170
G1 X163.77 Y192.48 E363.38125
G1 X161.49 Y194.78 E363.55113
G1 X158.14 Y195.97 E363.73742
G1 X146.94 Y195.97 E364.32382
G1 X143.56 Y194.78 E364.51141
G1 X141.30 Y192.47 E364.68096
G1 X140.25 Y190.66 E364.79044
G1 X139.54 Y188.60 E364.90452
G1 X139.35 Y186.59 E365.01054
G1 X139.33 Y180.05 E365.35324
G1 X139.33 Y156.06 E366.60980
G1 X139.30 Y155.39 E366.64484
G1 X139.22 Y154.94 E366.66882
G1 X139.11 Y154.52 E366.69178
G1 X138.95 Y154.10 E366.71522
G1 X138.74 Y153.70 E366.73902
G1 X138.49 Y153.31 E366.76292
G1 X138.21 Y152.98 E366.78585
G1 X137.89 Y152.66 E366.80941
G1 X137.39 Y152.27 E366.84274
G1 X136.14 Y151.28 E366.92639
G1 X135.55 Y150.81 E366.96555
G1 X134.28 Y149.59 E367.05821
G1 X133.73 Y149.06 E367.09789
G1 X132.59 Y147.73 E367.18988
G1 X132.10 Y147.15 E367.22937
G1 X131.08 Y145.70 E367.32261
G1 X130.65 Y145.08 E367.36188
G1 X129.79 Y143.55 E367.45397
G1 X129.66 Y143.32 E367.46741
G1 X129.07 Y143.14 E367.50016
G1 X126.73 Y141.67 E367.64470
G1 X125.17 Y139.67 E367.77754
G1 X124.13 Y137.53 E367.90235
G1 X123.84 Y135.49 E368.01004
G1 X123.85 Y130.91 E368.24970
G1 X123.84 Y127.62 E368.42231
G1 X124.16 Y125.39 E368.54050
G1 X124.34 Y125.05 E368.56048
G1 X124.03 Y119.82 E368.83495
G0 F12000 X124.47 Y120.21
G1 F2400 X129.90 Y119.79 E369.12043
G1 X130.37 Y118.92 E369.17241
G1 X130.72 Y118.27 E369.21087
G1 X131.70 Y116.80 E369.30351
G1 X132.11 Y116.18 E369.34231
G1 X133.22 Y114.83 E369.43400
G1 X133.69 Y114.26 E369.47262
G1 X134.93 Y113.01 E369.56497
G1 X135.46 Y112.49 E369.60364
G1 X136.81 Y111.38 E369.69549
G1 X137.38 Y110.91 E369.73424
G1 X138.84 Y109.93 E369.82638
G1 X139.46 Y109.52 E369.86507
G1 X141.01 Y108.69 E369.95711
G1 X141.66 Y108.34 E369.99578
G1 X143.28 Y107.67 E370.08770
G1 X143.96 Y107.39 E370.12605
G1 X145.64 Y106.88 E370.21852
G1 X146.34 Y106.67 E370.25680
G1 X148.08 Y106.32 E370.34969
G1 X148.81 Y106.18 E370.38845
G1 X150.56 Y106.00 E370.48073
G1 X151.29 Y105.93 E370.51925
G1 X153.05 Y105.93 E370.61134
G1 X153.78 Y105.93 E370.64974
G1 X155.54 Y106.10 E370.74205
G1 X156.28 Y106.18 E370.78086
G1 X158.00 Y106.52 E370.87277
G1 X158.72 Y106.67 E370.91151
G1 X160.40 Y107.18 E371.00353
G1 X161.11 Y107.39 E371.04209
G1 X162.74 Y108.07 E371.13449
G1 X163.42 Y108.35 E371.17310
G1 X164.97 Y109.18 E371.26539
G1 X165.62 Y109.53 E371.30397
G1 X167.08 Y110.50 E371.39598
G1 X167.69 Y110.92 E371.43463
G1 X169.05 Y112.03 E371.52679
G1 X169.62 Y112.50 E371.56567
G1 X170.86 Y113.75 E371.65750
G1 X171.38 Y114.27 E371.69606
G1 X172.49 Y115.62 E371.78788
G1 X172.96 Y116.19 E371.82667
G1 X173.95 Y117.67 E371.91970
G1 X174.36 Y118.29 E371.95834
G1 X175.43 Y120.29 E372.07746
G1 X176.41 Y120.68 E372.13254
G1 X177.99 Y121.90 E372.23730
G1 X179.28 Y123.33 E372.33819
G1 X180.43 Y125.57 E372.47003
G1 X180.74 Y127.58 E372.57668
G1 X180.74 Y128.36 E372.61738
G1 X180.73 Y135.47 E372.98973
G1 X180.44 Y137.59 E373.10213
G1 X179.34 Y139.62 E373.22282
G1 X177.91 Y141.44 E373.34451
G1 X176.02 Y142.56 E373.45911
G1 X175.12 Y142.96 E373.51095
G1 X174.40 Y144.24 E373.58769
G1 X174.04 Y144.87 E373.62581
G1 X173.05 Y146.30 E373.71702
G1 X172.63 Y146.90 E373.75556
G1 X171.49 Y148.24 E373.84733
G1 X171.01 Y148.79 E373.88551
G1 X169.75 Y150.00 E373.97702
G1 X169.22 Y150.51 E374.01563
G1 X167.85 Y151.59 E374.10671
G1 X167.63 Y151.76 E374.12182
G1 X166.89 Y152.35 E374.17132
G1 X166.55 Y152.69 E374.19644
G1 X166.23 Y153.07 E374.22265
G1 X165.96 Y153.48 E374.24825
G1 X165.73 Y153.93 E374.27470
G1 X165.56 Y154.38 E374.29985
G1 X165.42 Y154.87 E374.32640
G1 X165.35 Y155.35 E374.35201
G1 X165.31 Y156.01 E374.38679
G1 X165.31 Y156.07 E374.38957
G1 X165.31 Y186.34 E375.97547
G1 X165.12 Y188.50 E376.08915
G1 X164.42 Y190.49 E376.19920
G1 X163.43 Y192.22 E376.30389
G1 X161.26 Y194.42 E376.46580
G1 X158.06 Y195.55 E376.64326
G1 X147.01 Y195.55 E377.22217
G1 X143.79 Y194.42 E377.40088
G1 X141.63 Y192.22 E377.56246
G1 X140.63 Y190.49 E377.66710
G1 X139.95 Y188.51 E377.77645
G1 X139.77 Y186.57 E377.87879
G1 X139.75 Y180.05 E378.22050
G1 X139.75 Y156.06 E379.47710
G1 X139.72 Y155.35 E379.51440
G1 X139.64 Y154.86 E379.54018
G1 X139.51 Y154.38 E379.56635
G1 X139.33 Y153.93 E379.59186
G1 X139.11 Y153.49 E379.61737
G1 X138.83 Y153.07 E379.64410
G1 X138.52 Y152.69 E379.66979
G1 X138.16 Y152.34 E379.69575
G1 X137.65 Y151.94 E379.72972
G1 X136.40 Y150.95 E379.81346
G1 X135.83 Y150.50 E379.85156
G1 X134.57 Y149.28 E379.94311
G1 X134.04 Y148.77 E379.98172
G1 X132.91 Y147.45 E380.07267
G1 X132.43 Y146.90 E380.11105
G1 X131.42 Y145.46 E380.20320
G1 X131.01 Y144.86 E380.24137
G1 X130.15 Y143.34 E380.33246
G1 X129.95 Y142.98 E380.35450
G1 X129.25 Y142.75 E380.39316
G1 X127.02 Y141.35 E380.53105
G1 X125.53 Y139.45 E380.65770
G1 X124.54 Y137.40 E380.77668
G1 X124.27 Y135.46 E380.87945
G1 X124.27 Y130.91 E381.11754
G1 X124.27 Y127.65 E381.28863
G1 X124.57 Y125.52 E381.40127
G1 X124.77 Y125.14 E381.42360
G1 X124.47 Y120.21 E381.68270
G0 F12000 X124.91 Y120.59
G1 F2400 X130.16 Y120.19 E381.95863
G1 X130.74 Y119.12 E382.02267
G1 X131.08 Y118.49 E382.06005
G1 X132.04 Y117.03 E382.15160
G1 X132.45 Y116.44 E382.18930
G1 X133.54 Y115.10 E382.27991
G1 X134.00 Y114.54 E382.31746
G1 X135.23 Y113.31 E382.40873
G1 X135.74 Y112.80 E382.44633
G1 X137.07 Y111.70 E382.53707
G1 X137.63 Y111.25 E382.57478
G1 X139.08 Y110.28 E382.66586
G1 X139.67 Y109.88 E382.70342
G1 X141.21 Y109.06 E382.79440
G1 X141.84 Y108.72 E382.83199
G1 X143.44 Y108.06 E382.92283
G1 X144.10 Y107.79 E382.96012
G1 X145.77 Y107.28 E383.05148
G1 X146.45 Y107.07 E383.08873
G1 X148.16 Y106.73 E383.18049
G1 X148.87 Y106.59 E383.21813
G1 X150.60 Y106.42 E383.30931
G1 X151.31 Y106.35 E383.34677
G1 X153.05 Y106.35 E383.43782
G1 X153.76 Y106.35 E383.47512
G1 X155.50 Y106.52 E383.56638
G1 X156.21 Y106.59 E383.60408
G1 X157.91 Y106.93 E383.69488
G1 X158.62 Y107.07 E383.73254
G1 X160.28 Y107.58 E383.82353
G1 X160.96 Y107.79 E383.86100
G1 X162.57 Y108.45 E383.95227
G1 X163.24 Y108.73 E383.98984
G1 X164.77 Y109.55 E384.08101
G1 X165.40 Y109.89 E384.11851
G1 X166.84 Y110.85 E384.20946
G1 X167.44 Y111.25 E384.24702
G1 X168.78 Y112.36 E384.33814
G1 X169.34 Y112.82 E384.37590
G1 X170.56 Y114.04 E384.46666
G1 X171.07 Y114.55 E384.50414
G1 X172.17 Y115.89 E384.59492
G1 X172.62 Y116.44 E384.63260
G1 X173.60 Y117.90 E384.72452
G1 X173.99 Y118.50 E384.76203
G1 X174.81 Y120.02 E384.85215
G1 X175.13 Y120.63 E384.88826
G1 X176.19 Y121.05 E384.94825
G1 X177.70 Y122.21 E385.04798
G1 X178.93 Y123.57 E385.14401
G1 X180.03 Y125.70 E385.26935
G1 X180.32 Y127.61 E385.37081
G1 X180.32 Y128.36 E385.40984
G1 X180.31 Y135.44 E385.78057
G1 X180.03 Y137.46 E385.88752
G1 X178.99 Y139.38 E386.00237
G1 X177.63 Y141.12 E386.11805
G1 X175.83 Y142.18 E386.22726
G1 X174.87 Y142.62 E386.28259
G1 X174.83 Y142.63 E386.28465
G1 X174.04 Y144.03 E386.36918
G1 X173.69 Y144.65 E386.40622
G1 X172.71 Y146.06 E386.49638
G1 X172.29 Y146.65 E386.53383
G1 X171.17 Y147.96 E386.62456
G1 X170.71 Y148.50 E386.66163
G1 X169.46 Y149.70 E386.75210
G1 X168.94 Y150.19 E386.78960
G1 X167.59 Y151.25 E386.87963
G1 X167.33 Y151.47 E386.89743
G1 X166.61 Y152.04 E386.94566
G1 X166.24 Y152.41 E386.97308
G1 X165.89 Y152.83 E387.00170
G1 X165.60 Y153.27 E387.02943
G1 X165.35 Y153.76 E387.05813
G1 X165.16 Y154.25 E387.08588
G1 X165.01 Y154.78 E387.11437
G1 X164.93 Y155.31 E387.14249
G1 X164.89 Y155.99 E387.17847
G1 X164.89 Y156.06 E387.18214
G1 X164.89 Y186.32 E388.76736
G1 X164.71 Y188.41 E388.87731
G1 X164.04 Y190.31 E388.98251
G1 X163.09 Y191.96 E389.08237
G1 X161.03 Y194.05 E389.23636
G1 X157.99 Y195.13 E389.40499
G1 X147.09 Y195.13 E389.97635
G1 X144.03 Y194.06 E390.14618
G1 X141.97 Y191.96 E390.29987
G1 X141.02 Y190.31 E390.39965
G1 X140.36 Y188.42 E390.50425
G1 X140.19 Y186.55 E390.60290
G1 X140.17 Y180.05 E390.94356
G1 X140.17 Y156.04 E392.20132
G1 X140.13 Y155.31 E392.23966
G1 X140.05 Y154.77 E392.26789
G1 X139.91 Y154.25 E392.29628
G1 X139.71 Y153.75 E392.32431
G1 X139.47 Y153.27 E392.35249
G1 X139.17 Y152.82 E392.38090
G1 X138.83 Y152.40 E392.40911
G1 X138.44 Y152.03 E392.43719
G1 X137.91 Y151.61 E392.47260
G1 X136.66 Y150.62 E392.55637
G1 X136.11 Y150.18 E392.59340
G1 X134.86 Y148.98 E392.68391
G1 X134.34 Y148.49 E392.72141
G1 X133.23 Y147.18 E392.81132
G1 X132.76 Y146.64 E392.84866
G1 X131.77 Y145.22 E392.93965
G1 X131.37 Y144.63 E392.97680
G1 X130.52 Y143.14 E393.06681
G1 X130.23 Y142.63 E393.09748
G1 X129.42 Y142.37 E393.14207
G1 X127.30 Y141.03 E393.27331
G1 X125.89 Y139.22 E393.39376
G1 X124.94 Y137.28 E393.50693
G1 X124.69 Y135.43 E393.60468
G1 X124.69 Y130.91 E393.84125
G1 X124.69 Y127.68 E394.01077
G1 X124.97 Y125.65 E394.11795
G1 X125.19 Y125.24 E394.14261
G1 X124.91 Y120.59 E394.38628
G0 F12000 X125.36 Y120.98
G1 F2400 X130.43 Y120.60 E394.65258
G1 X131.11 Y119.31 E394.72868
G1 X131.44 Y118.70 E394.76501
G1 X132.39 Y117.27 E394.85542
G1 X132.78 Y116.69 E394.89203
G1 X133.87 Y115.36 E394.98160
G1 X134.31 Y114.83 E395.01810
G1 X135.53 Y113.61 E395.10826
G1 X136.02 Y113.11 E395.14475
G1 X137.34 Y112.03 E395.23445
G1 X137.88 Y111.58 E395.27104
G1 X139.31 Y110.63 E395.36103
G1 X139.89 Y110.24 E395.39755
G1 X141.40 Y109.43 E395.48743
G1 X142.02 Y109.11 E395.52397
G1 X143.60 Y108.45 E395.61368
G1 X144.24 Y108.18 E395.64994
G1 X145.88 Y107.69 E395.73961
G1 X146.55 Y107.48 E395.77636
G1 X148.25 Y107.14 E395.86706
G1 X148.93 Y107.01 E395.90363
G1 X150.64 Y106.84 E395.99370
G1 X151.33 Y106.77 E396.03006
G1 X153.05 Y106.77 E396.12000
G1 X153.74 Y106.77 E396.15625
G1 X155.46 Y106.94 E396.24641
G1 X156.15 Y107.01 E396.28306
G1 X157.83 Y107.34 E396.37278
G1 X158.52 Y107.48 E396.40938
G1 X160.16 Y107.98 E396.49928
G1 X160.82 Y108.18 E396.53565
G1 X162.41 Y108.84 E396.62585
G1 X163.06 Y109.11 E396.66234
G1 X164.57 Y109.92 E396.75240
G1 X165.18 Y110.25 E396.78880
G1 X166.61 Y111.20 E396.87873
G1 X167.19 Y111.59 E396.91516
G1 X168.52 Y112.68 E397.00520
G1 X169.06 Y113.13 E397.04189
G1 X170.27 Y114.34 E397.13160
G1 X170.76 Y114.83 E397.16801
G1 X171.84 Y116.16 E397.25772
G1 X172.29 Y116.69 E397.29427
G1 X173.25 Y118.14 E397.38511
G1 X173.63 Y118.72 E397.42152
G1 X174.43 Y120.22 E397.51060
G1 X174.76 Y120.83 E397.54718
G1 X174.81 Y120.95 E397.55399
G1 X175.99 Y121.42 E397.62005
G1 X177.42 Y122.52 E397.71466
G1 X178.58 Y123.81 E397.80586
G1 X179.62 Y125.83 E397.92474
G1 X179.90 Y127.65 E398.02101
G1 X179.90 Y128.36 E398.05836
G1 X179.89 Y135.41 E398.42751
G1 X179.63 Y137.32 E398.52896
G1 X178.63 Y139.15 E398.63798
G1 X177.34 Y140.80 E398.74765
G1 X175.64 Y141.81 E398.85150
G1 X174.72 Y142.22 E398.90392
G1 X174.54 Y142.27 E398.91397
G1 X174.51 Y142.34 E398.91775
G1 X173.67 Y143.83 E399.00725
G1 X173.33 Y144.43 E399.04322
G1 X172.36 Y145.82 E399.13234
G1 X171.96 Y146.39 E399.16871
G1 X170.85 Y147.69 E399.25832
G1 X170.40 Y148.21 E399.29435
G1 X169.17 Y149.39 E399.38375
G1 X168.67 Y149.87 E399.42017
G1 X167.34 Y150.93 E399.50912
G1 X167.07 Y151.13 E399.52692
G1 X166.33 Y151.72 E399.57642
G1 X165.93 Y152.12 E399.60613
G1 X165.55 Y152.58 E399.63698
G1 X165.23 Y153.06 E399.66734
G1 X164.96 Y153.59 E399.69817
G1 X164.76 Y154.12 E399.72822
G1 X164.60 Y154.69 E399.75915
G1 X164.51 Y155.26 E399.78945
G1 X164.47 Y155.97 E399.82664
G1 X164.47 Y156.04 E399.83057
G1 X164.47 Y186.31 E401.41573
G1 X164.30 Y188.32 E401.52195
G1 X163.66 Y190.13 E401.62245
G1 X162.76 Y191.71 E401.71741
G1 X160.80 Y193.69 E401.86346
G1 X157.92 Y194.71 E402.02326
G1 X147.16 Y194.71 E402.58713
G1 X144.26 Y193.69 E402.74808
G1 X142.31 Y191.70 E402.89385
G1 X141.40 Y190.13 E402.98876
G1 X140.78 Y188.33 E403.08859
G1 X140.61 Y186.53 E403.18357
G1 X140.59 Y180.04 E403.52323
G1 X140.59 Y156.03 E404.78109
G1 X140.55 Y155.25 E404.82190
G1 X140.46 Y154.69 E404.85204
G1 X140.31 Y154.12 E404.88292
G1 X140.10 Y153.58 E404.91297
G1 X139.83 Y153.06 E404.94406
G1 X139.51 Y152.57 E404.97461
G1 X139.14 Y152.12 E405.00506
G1 X138.72 Y151.71 E405.03539
G1 X138.18 Y151.28 E405.07205
G1 X136.92 Y150.29 E405.15581
G1 X136.38 Y149.86 E405.19184
G1 X135.15 Y148.68 E405.28124
G1 X134.65 Y148.20 E405.31765
G1 X133.55 Y146.91 E405.40653
G1 X133.10 Y146.38 E405.44275
G1 X132.11 Y144.97 E405.53273
G1 X131.72 Y144.41 E405.56875
G1 X130.89 Y142.93 E405.65772
G1 X130.54 Y142.32 E405.69424
G1 X130.53 Y142.28 E405.69687
G1 X129.60 Y141.98 E405.74759
G1 X127.59 Y140.72 E405.87219
G1 X126.24 Y139.00 E405.98649
G1 X125.35 Y137.15 E406.09389
G1 X125.11 Y135.40 E406.18661
G1 X125.11 Y130.91 E406.42166
G1 X125.11 Y127.71 E406.58966
G1 X125.38 Y125.79 E406.69129
G1 X125.62 Y125.33 E406.71827
G1 X125.36 Y120.98 E406.94662
G0 F12000 X125.80 Y121.37
G1 F2400 X130.69 Y121.00 E407.20336
G1 X131.48 Y119.51 E407.29157
G1 X131.80 Y118.92 E407.32679
G1 X132.74 Y117.50 E407.41614
G1 X133.12 Y116.94 E407.45165
G1 X134.19 Y115.63 E407.54014
G1 X134.62 Y115.11 E407.57553
G1 X135.82 Y113.90 E407.66462
G1 X136.30 Y113.43 E407.70007
G1 X137.61 Y112.35 E407.78868
G1 X138.13 Y111.92 E407.82419
G1 X139.54 Y110.98 E407.91308
G1 X140.11 Y110.60 E407.94852
G1 X141.60 Y109.80 E408.03734
G1 X142.20 Y109.48 E408.07275
G1 X143.76 Y108.84 E408.16144
G1 X143.76 Y108.84 E408.16149
G1 X144.38 Y108.58 E408.19673
G1 X146.00 Y108.09 E408.28526
G1 X146.65 Y107.89 E408.32097
G1 X148.33 Y107.56 E408.41049
G1 X148.99 Y107.42 E408.44600
G1 X150.68 Y107.26 E408.53501
G1 X151.35 Y107.19 E408.57027
G1 X153.05 Y107.19 E408.65917
G1 X153.72 Y107.19 E408.69437
G1 X155.41 Y107.36 E408.78337
G1 X156.09 Y107.43 E408.81891
G1 X157.75 Y107.76 E408.90761
G1 X158.41 Y107.89 E408.94310
G1 X160.03 Y108.38 E409.03189
G1 X160.68 Y108.58 E409.06722
G1 X162.25 Y109.23 E409.15635
G1 X162.88 Y109.49 E409.19171
G1 X164.37 Y110.29 E409.28074
G1 X164.97 Y110.61 E409.31609
G1 X166.38 Y111.55 E409.40489
G1 X166.94 Y111.93 E409.44025
G1 X168.25 Y113.00 E409.52918
G1 X168.78 Y113.44 E409.56479
G1 X169.97 Y114.64 E409.65343
G1 X170.45 Y115.11 E409.68877
G1 X171.52 Y116.42 E409.77739
G1 X171.95 Y116.94 E409.81290
G1 X172.90 Y118.37 E409.90257
G1 X173.27 Y118.93 E409.93792
G1 X174.06 Y120.41 E410.02595
G1 X174.38 Y121.01 E410.06145
G1 X174.49 Y121.28 E410.07653
G1 X175.78 Y121.78 E410.14880
G1 X177.13 Y122.83 E410.23836
G1 X178.23 Y124.05 E410.32471
G1 X179.22 Y125.96 E410.43714
G1 X179.48 Y127.68 E410.52817
G1 X179.48 Y128.36 E410.56390
G1 X179.47 Y135.38 E410.93138
G1 X179.22 Y137.19 E411.02733
G1 X178.28 Y138.92 E411.13058
G1 X177.06 Y140.48 E411.23421
G1 X175.44 Y141.44 E411.33274
G1 X174.58 Y141.83 E411.38228
G1 X174.24 Y141.92 E411.40099
G1 X174.13 Y142.15 E411.41408
G1 X173.31 Y143.62 E411.50250
G1 X172.98 Y144.20 E411.53744
G1 X172.02 Y145.58 E411.62547
G1 X171.63 Y146.13 E411.66074
G1 X170.53 Y147.41 E411.74925
G1 X170.09 Y147.92 E411.78424
G1 X168.88 Y149.09 E411.87256
G1 X168.39 Y149.56 E411.90787
G1 X167.07 Y150.59 E411.99582
G1 X166.84 Y150.78 E412.01130
G1 X166.05 Y151.41 E412.06446
G1 X165.62 Y151.84 E412.09635
G1 X165.21 Y152.33 E412.12967
G1 X164.87 Y152.85 E412.16255
G1 X164.58 Y153.41 E412.19537
G1 X164.36 Y153.99 E412.22784
G1 X164.19 Y154.60 E412.26105
G1 X164.09 Y155.22 E412.29373
G1 X164.06 Y155.95 E412.33202
G1 X164.05 Y156.03 E412.33664
G1 X164.05 Y186.29 E413.92138
G1 X163.88 Y188.24 E414.02386
G1 X163.27 Y189.96 E414.11953
G1 X162.42 Y191.45 E414.20963
G1 X160.57 Y193.32 E414.34772
G1 X157.85 Y194.29 E414.49874
G1 X147.23 Y194.29 E415.05512
G1 X144.49 Y193.33 E415.20719
G1 X142.65 Y191.45 E415.34503
G1 X141.79 Y189.96 E415.43506
G1 X141.19 Y188.24 E415.53017
G1 X141.03 Y186.51 E415.62151
G1 X141.01 Y180.04 E415.96007
G1 X141.01 Y156.03 E417.21804
G1 X140.97 Y155.21 E417.26095
G1 X140.87 Y154.59 E417.29384
G1 X140.71 Y153.99 E417.32668
G1 X140.48 Y153.41 E417.35933
G1 X140.20 Y152.85 E417.39192
G1 X139.84 Y152.32 E417.42536
G1 X139.45 Y151.84 E417.45830
G1 X139.00 Y151.40 E417.49086
G1 X138.44 Y150.95 E417.52870
G1 X137.18 Y149.96 E417.61251
G1 X136.66 Y149.54 E417.64744
G1 X135.44 Y148.38 E417.73577
G1 X134.96 Y147.91 E417.77115
G1 X133.87 Y146.63 E417.85894
G1 X133.43 Y146.12 E417.89413
G1 X132.46 Y144.74 E417.98294
G1 X132.08 Y144.19 E418.01795
G1 X131.25 Y142.72 E418.10584
G1 X130.92 Y142.13 E418.14128
G1 X130.83 Y141.94 E418.15272
G1 X129.78 Y141.60 E418.21061
G1 X127.87 Y140.40 E418.32860
G1 X126.60 Y138.78 E418.43670
G1 X125.76 Y137.03 E418.53822
G1 X125.53 Y135.37 E418.62597
G1 X125.53 Y130.91 E418.85950
G1 X125.53 Y127.74 E419.02593
G1 X125.78 Y125.92 E419.12211
G1 X126.05 Y125.43 E419.15141
G1 X125.80 Y121.37 E419.36437
G0 F12000 X126.25 Y121.76
G1 F2400 X130.98 Y121.40 E419.61292
G1 X131.06 Y121.19 E419.62483
G1 X131.85 Y119.71 E419.71250
G1 X132.16 Y119.14 E419.74667
G1 X133.09 Y117.73 E419.83489
G1 X133.46 Y117.19 E419.86935
G1 X134.52 Y115.90 E419.95679
G1 X134.93 Y115.39 E419.99111
G1 X136.12 Y114.20 E420.07908
G1 X136.58 Y113.74 E420.11342
G1 X137.88 Y112.68 E420.20099
G1 X138.38 Y112.26 E420.23542
G1 X139.78 Y111.33 E420.32322
G1 X140.32 Y110.97 E420.35756
G1 X141.80 Y110.17 E420.44526
G1 X142.38 Y109.87 E420.47964
G1 X143.92 Y109.22 E420.56726
G1 X143.92 Y109.23 E420.56732
G1 X144.52 Y108.97 E420.60148
G1 X146.13 Y108.49 E420.68951
G1 X146.75 Y108.30 E420.72358
G1 X148.41 Y107.97 E420.81198
G1 X149.05 Y107.84 E420.84637
G1 X150.72 Y107.68 E420.93427
G1 X151.37 Y107.61 E420.96848
G1 X153.05 Y107.61 E421.05628
G1 X153.70 Y107.61 E421.09043
G1 X155.37 Y107.78 E421.17838
G1 X156.03 Y107.84 E421.21282
G1 X157.67 Y108.17 E421.30040
G1 X158.31 Y108.30 E421.33482
G1 X159.91 Y108.78 E421.42256
G1 X160.54 Y108.97 E421.45680
G1 X162.09 Y109.62 E421.54485
G1 X162.69 Y109.87 E421.57913
G1 X164.18 Y110.66 E421.66704
G1 X164.75 Y110.97 E421.70131
G1 X166.14 Y111.90 E421.78905
G1 X166.69 Y112.27 E421.82332
G1 X167.98 Y113.33 E421.91120
G1 X168.49 Y113.75 E421.94570
G1 X169.67 Y114.93 E422.03326
G1 X170.13 Y115.39 E422.06753
G1 X171.19 Y116.69 E422.15507
G1 X171.61 Y117.20 E422.18954
G1 X172.55 Y118.60 E422.27804
G1 X172.91 Y119.15 E422.31237
G1 X173.69 Y120.61 E422.39931
G1 X174.00 Y121.19 E422.43376
G1 X174.17 Y121.60 E422.45711
G1 X175.57 Y122.15 E422.53561
G1 X176.84 Y123.14 E422.62002
G1 X177.88 Y124.29 E422.70151
G1 X178.81 Y126.09 E422.80753
G1 X179.06 Y127.71 E422.89336
G1 X179.06 Y128.36 E422.92742
G1 X179.06 Y135.35 E423.29332
G1 X178.81 Y137.06 E423.38378
G1 X177.93 Y138.69 E423.48112
G1 X176.78 Y140.16 E423.57882
G1 X175.25 Y141.06 E423.67200
G1 X174.44 Y141.43 E423.71861
G1 X173.93 Y141.57 E423.74607
G1 X173.76 Y141.96 E423.76853
G1 X172.94 Y143.41 E423.85583
G1 X172.62 Y143.98 E423.88973
G1 X171.67 Y145.34 E423.97668
G1 X171.30 Y145.87 E424.01090
G1 X170.21 Y147.14 E424.09833
G1 X169.79 Y147.63 E424.13220
G1 X168.59 Y148.79 E424.21945
G1 X168.12 Y149.24 E424.25372
G1 X166.81 Y150.26 E424.34059
G1 X166.55 Y150.47 E424.35835
G1 X165.77 Y151.09 E424.41024
G1 X165.30 Y151.55 E424.44476
G1 X164.88 Y152.07 E424.48005
G1 X164.51 Y152.64 E424.51539
G1 X164.20 Y153.24 E424.55081
G1 X163.96 Y153.86 E424.58552
G1 X163.78 Y154.52 E424.62134
G1 X163.68 Y155.17 E424.65603
G1 X163.64 Y155.93 E424.69553
G1 X163.63 Y156.03 E424.70104
G1 X163.63 Y186.27 E426.28510
G1 X163.47 Y188.15 E426.38380
G1 X162.89 Y189.78 E426.47474
G1 X162.08 Y191.19 E426.55994
G1 X160.34 Y192.96 E426.69010
G1 X157.78 Y193.87 E426.83229
G1 X147.30 Y193.87 E427.38113
G1 X144.72 Y192.96 E427.52432
G1 X142.98 Y191.19 E427.65427
G1 X142.17 Y189.78 E427.73944
G1 X141.60 Y188.15 E427.82978
G1 X141.45 Y186.49 E427.91743
G1 X141.43 Y180.04 E428.25500
G1 X141.43 Y156.01 E429.51407
G1 X141.39 Y155.17 E429.55798
G1 X141.28 Y154.50 E429.59362
G1 X141.11 Y153.86 E429.62848
G1 X140.87 Y153.23 E429.66354
G1 X140.56 Y152.64 E429.69873
G1 X140.18 Y152.07 E429.73443
G1 X139.76 Y151.56 E429.76919
G1 X139.28 Y151.08 E429.80468
G1 X138.70 Y150.62 E429.84338
G1 X137.44 Y149.63 E429.92726
G1 X136.94 Y149.23 E429.96112
G1 X135.73 Y148.07 E430.04837
G1 X135.26 Y147.62 E430.08264
G1 X134.19 Y146.36 E430.16939
G1 X133.76 Y145.87 E430.20350
G1 X132.80 Y144.50 E430.29125
G1 X132.43 Y143.96 E430.32517
G1 X131.62 Y142.52 E430.41198
G1 X131.30 Y141.95 E430.44639
G1 X131.14 Y141.59 E430.46672
G1 X129.96 Y141.22 E430.53170
G1 X128.16 Y140.08 E430.64300
G1 X126.96 Y138.55 E430.74491
G1 X126.16 Y136.91 E430.84066
G1 X125.94 Y135.34 E430.92339
G1 X125.95 Y130.91 E431.15540
G1 X125.94 Y127.77 E431.32031
G1 X126.19 Y126.05 E431.41094
G1 X126.47 Y125.52 E431.44258
G1 X126.25 Y121.76 E431.64017
G0 F12000 X126.69 Y122.14
G1 F2400 X131.27 Y121.80 E431.88053
G1 X131.44 Y121.37 E431.90486
G1 X132.22 Y119.91 E431.99147
G1 X132.52 Y119.35 E432.02456
G1 X133.44 Y117.97 E432.11169
G1 X133.80 Y117.44 E432.14505
G1 X134.84 Y116.16 E432.23138
G1 X135.24 Y115.67 E432.26461
G1 X136.42 Y114.50 E432.35155
G1 X136.87 Y114.05 E432.38481
G1 X138.14 Y113.00 E432.47127
G1 X138.63 Y112.60 E432.50466
G1 X140.01 Y111.68 E432.59137
G1 X140.54 Y111.33 E432.62464
G1 X142.00 Y110.55 E432.71126
G1 X142.56 Y110.25 E432.74456
G1 X144.07 Y109.62 E432.83066
G1 X144.67 Y109.37 E432.86417
G1 X146.25 Y108.89 E432.95061
G1 X146.25 Y108.89 E432.95066
G1 X146.86 Y108.70 E432.98412
G1 X148.49 Y108.38 E433.07145
G1 X149.12 Y108.26 E433.10477
G1 X150.76 Y108.09 E433.19157
G1 X151.39 Y108.03 E433.22472
G1 X153.05 Y108.03 E433.31142
G1 X153.68 Y108.03 E433.34448
G1 X155.33 Y108.19 E433.43132
G1 X155.96 Y108.26 E433.46470
G1 X157.58 Y108.58 E433.55122
G1 X158.21 Y108.70 E433.58455
G1 X159.79 Y109.19 E433.67122
G1 X160.40 Y109.37 E433.70436
G1 X161.93 Y110.00 E433.79131
G1 X162.51 Y110.25 E433.82454
G1 X163.98 Y111.03 E433.91137
G1 X164.53 Y111.33 E433.94451
G1 X165.91 Y112.25 E434.03119
G1 X166.44 Y112.60 E434.06440
G1 X167.72 Y113.65 E434.15117
G1 X168.21 Y114.06 E434.18458
