;-- START GCODE --
;Sliced for Type A Machines Series 1
;Sliced at: Wed 09-03-2016 23:04:07
;Basic settings: Layer height: 0.2 Walls: 1 Fill: 40
;Print Speed: 100 Support: 0
;Retraction Speed: 40 Retraction Distance: 1.2
;Print time: #P_TIME#
;Filament used: #F_AMNT#m #F_WGHT#g
;Filament cost: #F_COST#
M106 S255	 ;start with the fan on
G21        ;metric values
G90        ;absolute positioning
M106 S255    ;start with the fan on
G28     ;move to endstops
G29		;allows for auto-levelling
G1 X150 Y5  Z15.0 F6000 ;center and move the platform down 15mm
M109 S220 ;Heat To temp
G92 E0                  ;zero the extruded length
G1 F200 E30              ;extrude 30mm of feed stock
G92 E0                  ;zero the extruded length again
G1 X175 Y25  Z0 F6000 ;remove bugger
G1 X220 F6000 ;remove bugger
G1 X150 Y150  Z15 F6000 ;recenter and begin
G1 F6000

;Layer count: 100
;LAYER:0
M106 S255
G0 F6000 X117.98 Y129.58 Z0.30
;TYPE:SKIRT
G1 F2700 X121.62 Y127.76 E0.25377
G1 X122.22 Y127.16 E0.30659
G1 X122.62 Y126.96 E0.33443
G1 X123.42 Y126.16 E0.40503
G1 X123.82 Y125.96 E0.43286
G1 X124.42 Y125.36 E0.48582
G1 X124.82 Y125.16 E0.51366
G1 X125.62 Y124.36 E0.58426
G1 X126.02 Y124.16 E0.61209
G1 X126.82 Y123.36 E0.68269
G1 X133.22 Y120.16 E1.12892
G1 X134.06 Y119.32 E1.20344
G1 X136.71 Y118.65 E1.37388
G1 X139.10 Y117.86 E1.53105
G1 X139.90 Y117.66 E1.58235
G1 X143.52 Y116.45 E1.81993
G1 X149.60 Y115.94 E2.20047
G1 X157.56 Y115.94 E2.69688
G1 X160.93 Y116.22 E2.90789
G1 X162.65 Y116.66 E3.01858
G1 X165.04 Y117.45 E3.17552
G1 X165.85 Y117.65 E3.22770
G1 X169.68 Y118.93 E3.47936
G1 X177.74 Y122.96 E4.04127
G1 X177.94 Y123.16 E4.05891
G1 X178.34 Y123.36 E4.08680
G1 X178.94 Y123.96 E4.13976
G1 X179.34 Y124.16 E4.16760
G1 X180.14 Y124.96 E4.23820
G1 X180.54 Y125.16 E4.26603
G1 X181.14 Y125.76 E4.31899
G1 X181.54 Y125.96 E4.34683
G1 X182.34 Y126.76 E4.41742
G1 X182.74 Y126.96 E4.44526
G1 X187.58 Y131.80 E4.87212
G1 X187.58 Y132.00 E4.88459
G1 X188.38 Y132.80 E4.95515
G1 X188.38 Y133.00 E4.96762
G1 X189.18 Y133.80 E5.03817
G1 X189.18 Y134.00 E5.05065
G1 X189.98 Y134.80 E5.12120
G1 X189.98 Y135.00 E5.13368
G1 X190.78 Y135.80 E5.20423
G1 X190.78 Y136.00 E5.21670
G1 X191.38 Y136.60 E5.26962
G1 X191.38 Y136.80 E5.28209
G1 X191.78 Y137.20 E5.31737
G1 X191.78 Y137.40 E5.32984
G1 X191.98 Y137.60 E5.34748
G1 X191.98 Y137.80 E5.35995
G1 X192.18 Y138.00 E5.37759
G1 X192.18 Y138.20 E5.39007
G1 X192.58 Y138.60 E5.42534
G1 X192.58 Y138.80 E5.43782
G1 X192.78 Y139.00 E5.45545
G1 X192.78 Y139.20 E5.46793
G1 X192.92 Y139.34 E5.48054
G1 X195.38 Y139.34 E5.63376
G1 X195.38 Y140.81 E5.72519
G1 X195.58 Y140.83 E5.73771
G1 X195.58 Y141.98 E5.80955
G1 X195.98 Y141.98 E5.83450
G1 X195.98 Y146.40 E6.11008
G1 X197.41 Y147.83 E6.23611
G1 X196.05 Y151.11 E6.45760
G1 X198.05 Y157.71 E6.88785
G1 X195.98 Y157.71 E7.01707
G1 X195.98 Y158.24 E7.05018
G1 X183.02 Y158.24 E7.85822
G1 X187.78 Y163.00 E8.27776
G1 X187.78 Y163.20 E8.29023
G1 X188.78 Y164.20 E8.37842
G1 X188.78 Y164.40 E8.39090
G1 X189.58 Y165.20 E8.46145
G1 X189.58 Y165.40 E8.47392
G1 X190.58 Y166.40 E8.56212
G1 X190.58 Y166.60 E8.57459
G1 X191.38 Y167.40 E8.64515
G1 X191.38 Y167.60 E8.65762
G1 X191.78 Y168.00 E8.69290
G1 X191.78 Y168.20 E8.70537
G1 X191.98 Y168.40 E8.72301
G1 X191.98 Y168.60 E8.73548
G1 X192.18 Y168.80 E8.75312
G1 X192.18 Y169.00 E8.76559
G1 X192.38 Y169.20 E8.78323
G1 X192.38 Y169.40 E8.79570
G1 X192.58 Y169.60 E8.81334
G1 X192.58 Y169.80 E8.82582
G1 X192.98 Y170.20 E8.86109
G1 X192.98 Y170.40 E8.87357
G1 X193.18 Y170.60 E8.89120
G1 X193.18 Y170.80 E8.90368
G1 X193.38 Y171.00 E8.92132
G1 X193.38 Y171.20 E8.93379
G1 X193.58 Y171.40 E8.95143
G1 X193.58 Y171.60 E8.96390
G1 X193.78 Y171.80 E8.98154
G1 X193.78 Y172.00 E8.99401
G1 X194.18 Y172.40 E9.02929
G1 X194.18 Y172.60 E9.04176
G1 X194.35 Y172.77 E9.05702
G1 X195.98 Y172.78 E9.15848
G1 X195.98 Y177.20 E9.43407
G1 X197.41 Y178.63 E9.56009
G1 X196.03 Y181.96 E9.78461
G1 X198.05 Y188.62 E10.21875
G1 X195.98 Y188.62 E10.34790
G1 X195.98 Y189.04 E10.37447
G1 X108.98 Y189.04 E15.80003
G1 X108.98 Y188.62 E15.82660
G1 X106.95 Y188.62 E15.95282
G1 X108.98 Y181.94 E16.38786
G1 X108.98 Y177.40 E16.67105
G1 X109.18 Y177.20 E16.68869
G1 X109.18 Y176.60 E16.72611
G1 X109.38 Y176.40 E16.74375
G1 X109.38 Y176.00 E16.76869
G1 X109.58 Y175.80 E16.78633
G1 X109.58 Y175.20 E16.82375
G1 X109.78 Y175.00 E16.84139
G1 X109.78 Y174.40 E16.87881
G1 X110.18 Y174.00 E16.91409
G1 X110.18 Y173.80 E16.92656
G1 X110.38 Y173.60 E16.94420
G1 X110.38 Y173.40 E16.95667
G1 X110.58 Y173.20 E16.97431
G1 X110.58 Y173.00 E16.98678
G1 X110.78 Y172.80 E17.00442
G1 X110.78 Y172.60 E17.01689
G1 X110.98 Y172.40 E17.03453
G1 X110.98 Y172.20 E17.04700
G1 X111.18 Y172.00 E17.06464
G1 X111.18 Y171.80 E17.07711
G1 X111.38 Y171.60 E17.09475
G1 X111.38 Y171.40 E17.10723
G1 X111.58 Y171.20 E17.12487
G1 X111.58 Y171.00 E17.13734
G1 X111.78 Y170.80 E17.15498
G1 X111.78 Y170.60 E17.16745
G1 X111.98 Y170.40 E17.18509
G1 X111.98 Y170.20 E17.19756
G1 X112.18 Y170.00 E17.21520
G1 X112.18 Y169.80 E17.22767
G1 X112.38 Y169.60 E17.24531
G1 X112.38 Y169.40 E17.25778
G1 X112.58 Y169.20 E17.27542
G1 X112.58 Y169.00 E17.28789
G1 X112.78 Y168.80 E17.30553
G1 X112.78 Y168.60 E17.31801
G1 X112.98 Y168.40 E17.33564
G1 X112.98 Y168.20 E17.34812
G1 X113.18 Y168.00 E17.36576
G1 X113.18 Y167.80 E17.37823
G1 X114.38 Y166.60 E17.48406
G1 X114.38 Y166.40 E17.49653
G1 X115.58 Y165.20 E17.60237
G1 X115.58 Y165.00 E17.61484
G1 X116.78 Y163.80 E17.72067
G1 X116.78 Y163.60 E17.73315
G1 X117.98 Y162.40 E17.83898
G1 X117.98 Y160.58 E17.95273
G1 X121.62 Y158.76 E18.20650
G1 X122.13 Y158.24 E18.25200
G1 X108.98 Y158.24 E19.07251
G1 X108.98 Y157.71 E19.10562
G1 X106.95 Y157.71 E19.23191
G1 X108.98 Y151.04 E19.66703
G1 X108.98 Y146.60 E19.94361
G1 X109.18 Y146.40 E19.96125
G1 X109.18 Y145.80 E19.99867
G1 X109.38 Y145.60 E20.01631
G1 X109.38 Y145.00 E20.05373
G1 X109.58 Y144.80 E20.07136
G1 X109.58 Y144.20 E20.10878
G1 X109.78 Y144.00 E20.12642
G1 X109.78 Y143.40 E20.16384
G1 X110.18 Y143.00 E20.19912
G1 X110.18 Y142.80 E20.21159
G1 X110.38 Y142.60 E20.22923
G1 X110.38 Y142.40 E20.24170
G1 X110.58 Y142.20 E20.25934
G1 X110.58 Y142.00 E20.27181
G1 X110.78 Y141.80 E20.28945
G1 X110.78 Y141.60 E20.30192
G1 X110.98 Y141.40 E20.31956
G1 X110.98 Y141.20 E20.33203
G1 X111.18 Y141.00 E20.34967
G1 X111.18 Y140.80 E20.36215
G1 X111.38 Y140.60 E20.37978
G1 X111.38 Y140.40 E20.39226
G1 X111.78 Y140.00 E20.42754
G1 X111.78 Y139.80 E20.44001
G1 X111.98 Y139.60 E20.45765
G1 X111.98 Y139.40 E20.47012
G1 X112.18 Y139.20 E20.48776
G1 X112.18 Y139.00 E20.50023
G1 X112.38 Y138.80 E20.51787
G1 X112.38 Y138.60 E20.53034
G1 X112.58 Y138.40 E20.54798
G1 X112.58 Y138.20 E20.56045
G1 X112.78 Y138.00 E20.57809
G1 X112.78 Y137.80 E20.59056
G1 X112.98 Y137.60 E20.60820
G1 X112.98 Y137.40 E20.62068
G1 X113.18 Y137.20 E20.63831
G1 X113.18 Y137.00 E20.65079
G1 X114.18 Y136.00 E20.73898
G1 X114.18 Y135.80 E20.75145
G1 X115.18 Y134.80 E20.83965
G1 X115.18 Y134.60 E20.85212
G1 X116.18 Y133.60 E20.94032
G1 X116.18 Y133.40 E20.95279
G1 X117.18 Y132.40 E21.04098
G1 X117.18 Y132.20 E21.05345
G1 X117.98 Y131.40 E21.12401
G1 X117.98 Y129.58 E21.23776
G0 F6000 X118.48 Y129.89
G1 F2700 X121.91 Y128.17 E21.47733
G1 X122.51 Y127.57 E21.53025
G1 X122.91 Y127.37 E21.55814
G1 X123.71 Y126.57 E21.62869
G1 X124.11 Y126.37 E21.65658
G1 X124.71 Y125.77 E21.70950
G1 X125.11 Y125.57 E21.73739
G1 X125.91 Y124.77 E21.80794
G1 X126.31 Y124.57 E21.83583
G1 X127.11 Y123.77 E21.90639
G1 X133.51 Y120.57 E22.35254
G1 X134.32 Y119.77 E22.42353
G1 X136.84 Y119.14 E22.58558
G1 X139.24 Y118.33 E22.74363
G1 X140.04 Y118.14 E22.79504
G1 X143.62 Y116.94 E23.03007
G1 X149.62 Y116.44 E23.40554
G1 X157.54 Y116.44 E23.89939
G1 X160.85 Y116.72 E24.10653
G1 X162.51 Y117.14 E24.21354
G1 X164.91 Y117.94 E24.37138
G1 X165.71 Y118.14 E24.42261
G1 X169.49 Y119.39 E24.67084
G1 X177.44 Y123.37 E25.22542
G1 X177.64 Y123.57 E25.24306
G1 X178.04 Y123.77 E25.27095
G1 X178.64 Y124.37 E25.32386
G1 X179.04 Y124.57 E25.35175
G1 X179.84 Y125.37 E25.42231
G1 X180.24 Y125.57 E25.45020
G1 X180.84 Y126.17 E25.50311
G1 X181.24 Y126.37 E25.53100
G1 X182.04 Y127.17 E25.60156
G1 X182.44 Y127.37 E25.62945
G1 X187.08 Y132.01 E26.03841
G1 X187.08 Y132.21 E26.05088
G1 X187.88 Y133.01 E26.12143
G1 X187.88 Y133.21 E26.13391
G1 X188.68 Y134.01 E26.20446
G1 X188.68 Y134.21 E26.21693
G1 X189.48 Y135.01 E26.28749
G1 X189.48 Y135.21 E26.29996
G1 X190.28 Y136.01 E26.37052
G1 X190.28 Y136.21 E26.38299
G1 X190.88 Y136.81 E26.43591
G1 X190.88 Y137.01 E26.44838
G1 X191.28 Y137.41 E26.48366
G1 X191.28 Y137.61 E26.49613
G1 X191.48 Y137.81 E26.51377
G1 X191.48 Y138.01 E26.52624
G1 X191.68 Y138.21 E26.54388
G1 X191.68 Y138.41 E26.55635
G1 X192.08 Y138.81 E26.59163
G1 X192.08 Y139.01 E26.60410
G1 X192.28 Y139.21 E26.62174
G1 X192.28 Y139.41 E26.63421
G1 X192.48 Y139.61 E26.65185
G1 X192.48 Y139.81 E26.66433
G1 X192.51 Y139.84 E26.66750
G1 X194.88 Y139.84 E26.81493
G1 X194.88 Y141.27 E26.90367
G1 X195.08 Y141.28 E26.91619
G1 X195.08 Y142.48 E26.99059
G1 X195.48 Y142.48 E27.01554
G1 X195.48 Y146.61 E27.27297
G1 X196.82 Y147.95 E27.39106
G1 X195.52 Y151.09 E27.60288
G1 X197.38 Y157.21 E28.00224
G1 X195.48 Y157.21 E28.12060
G1 X195.48 Y157.74 E28.15372
G1 X181.61 Y157.74 E29.01832
G1 X182.04 Y158.17 E29.05598
G1 X182.44 Y158.37 E29.08386
G1 X187.28 Y163.21 E29.51046
G1 X187.28 Y163.41 E29.52293
G1 X188.28 Y164.41 E29.61113
G1 X188.28 Y164.61 E29.62360
G1 X189.08 Y165.41 E29.69416
G1 X189.08 Y165.61 E29.70663
G1 X190.08 Y166.61 E29.79482
G1 X190.08 Y166.81 E29.80729
G1 X190.88 Y167.61 E29.87785
G1 X190.88 Y167.81 E29.89032
G1 X191.28 Y168.21 E29.92560
G1 X191.28 Y168.41 E29.93807
G1 X191.48 Y168.61 E29.95571
G1 X191.48 Y168.81 E29.96818
G1 X191.68 Y169.01 E29.98582
G1 X191.68 Y169.21 E29.99830
G1 X191.88 Y169.41 E30.01593
G1 X191.88 Y169.61 E30.02841
G1 X192.08 Y169.81 E30.04605
G1 X192.08 Y170.01 E30.05852
G1 X192.48 Y170.41 E30.09380
G1 X192.48 Y170.61 E30.10627
G1 X192.68 Y170.81 E30.12391
G1 X192.68 Y171.01 E30.13638
G1 X192.88 Y171.21 E30.15402
G1 X192.88 Y171.41 E30.16649
G1 X193.08 Y171.61 E30.18413
G1 X193.08 Y171.81 E30.19660
G1 X193.28 Y172.01 E30.21424
G1 X193.28 Y172.21 E30.22671
G1 X193.68 Y172.61 E30.26199
G1 X193.68 Y172.81 E30.27446
G1 X193.88 Y173.01 E30.29210
G1 X193.88 Y173.21 E30.30458
G1 X193.94 Y173.27 E30.31022
G1 X195.48 Y173.28 E30.40601
G1 X195.48 Y177.41 E30.66344
G1 X196.82 Y178.75 E30.78154
G1 X195.50 Y181.93 E30.99635
G1 X197.37 Y188.12 E31.39967
G1 X195.48 Y188.12 E31.51797
G1 X195.48 Y188.54 E31.54454
G1 X109.48 Y188.54 E36.90774
G1 X109.48 Y188.12 E36.93430
G1 X107.63 Y188.12 E37.04967
G1 X109.48 Y182.02 E37.44732
G1 X109.48 Y177.61 E37.72221
G1 X109.68 Y177.41 E37.73985
G1 X109.68 Y176.81 E37.77727
G1 X109.88 Y176.61 E37.79491
G1 X109.88 Y176.21 E37.81985
G1 X110.08 Y176.01 E37.83749
G1 X110.08 Y175.41 E37.87491
G1 X110.28 Y175.21 E37.89255
G1 X110.28 Y174.61 E37.92996
G1 X110.68 Y174.21 E37.96524
G1 X110.68 Y174.01 E37.97771
G1 X110.88 Y173.81 E37.99535
G1 X110.88 Y173.61 E38.00783
G1 X111.08 Y173.41 E38.02546
G1 X111.08 Y173.21 E38.03794
G1 X111.28 Y173.01 E38.05558
G1 X111.28 Y172.81 E38.06805
G1 X111.48 Y172.61 E38.08569
G1 X111.48 Y172.41 E38.09816
G1 X111.68 Y172.21 E38.11580
G1 X111.68 Y172.01 E38.12827
G1 X111.88 Y171.81 E38.14591
G1 X111.88 Y171.61 E38.15838
G1 X112.08 Y171.41 E38.17602
G1 X112.08 Y171.21 E38.18849
G1 X112.28 Y171.01 E38.20613
G1 X112.28 Y170.81 E38.21861
G1 X112.48 Y170.61 E38.23624
G1 X112.48 Y170.41 E38.24872
G1 X112.68 Y170.21 E38.26636
G1 X112.68 Y170.01 E38.27883
G1 X112.88 Y169.81 E38.29647
G1 X112.88 Y169.61 E38.30894
G1 X113.08 Y169.41 E38.32658
G1 X113.08 Y169.21 E38.33905
G1 X113.28 Y169.01 E38.35669
G1 X113.28 Y168.81 E38.36916
G1 X113.48 Y168.61 E38.38680
G1 X113.48 Y168.41 E38.39927
G1 X113.68 Y168.21 E38.41691
G1 X113.68 Y168.01 E38.42939
G1 X114.88 Y166.81 E38.53522
G1 X114.88 Y166.61 E38.54769
G1 X116.08 Y165.41 E38.65352
G1 X116.08 Y165.21 E38.66600
G1 X117.28 Y164.01 E38.77183
G1 X117.28 Y163.81 E38.78430
G1 X118.48 Y162.61 E38.89014
G1 X118.48 Y160.89 E38.99746
G1 X121.91 Y159.17 E39.23703
G1 X122.51 Y158.57 E39.28995
G1 X122.91 Y158.37 E39.31784
G1 X123.54 Y157.74 E39.37314
G1 X109.48 Y157.74 E40.25021
G1 X109.48 Y157.21 E40.28332
G1 X107.63 Y157.21 E40.39875
G1 X109.48 Y151.11 E40.79647
G1 X109.48 Y146.81 E41.06476
G1 X109.68 Y146.61 E41.08240
G1 X109.68 Y146.01 E41.11982
G1 X109.88 Y145.81 E41.13745
G1 X109.88 Y145.21 E41.17487
G1 X110.08 Y145.01 E41.19251
G1 X110.08 Y144.41 E41.22993
G1 X110.28 Y144.21 E41.24757
G1 X110.28 Y143.61 E41.28498
G1 X110.68 Y143.21 E41.32026
G1 X110.68 Y143.01 E41.33273
G1 X110.88 Y142.81 E41.35037
G1 X110.88 Y142.61 E41.36285
G1 X111.08 Y142.41 E41.38049
G1 X111.08 Y142.21 E41.39296
G1 X111.28 Y142.01 E41.41060
G1 X111.28 Y141.81 E41.42307
G1 X111.48 Y141.61 E41.44071
G1 X111.48 Y141.41 E41.45318
G1 X111.68 Y141.21 E41.47082
G1 X111.68 Y141.01 E41.48329
G1 X111.88 Y140.81 E41.50093
G1 X111.88 Y140.61 E41.51340
G1 X112.28 Y140.21 E41.54868
G1 X112.28 Y140.01 E41.56115
G1 X112.48 Y139.81 E41.57879
G1 X112.48 Y139.61 E41.59126
G1 X112.68 Y139.41 E41.60890
G1 X112.68 Y139.21 E41.62138
G1 X112.88 Y139.01 E41.63902
G1 X112.88 Y138.81 E41.65149
G1 X113.08 Y138.61 E41.66913
G1 X113.08 Y138.41 E41.68160
G1 X113.28 Y138.21 E41.69924
G1 X113.28 Y138.01 E41.71171
G1 X113.48 Y137.81 E41.72935
G1 X113.48 Y137.61 E41.74182
G1 X113.68 Y137.41 E41.75946
G1 X113.68 Y137.21 E41.77193
G1 X114.68 Y136.21 E41.86013
G1 X114.68 Y136.01 E41.87260
G1 X115.68 Y135.01 E41.96079
G1 X115.68 Y134.81 E41.97327
G1 X116.68 Y133.81 E42.06146
G1 X116.68 Y133.61 E42.07393
G1 X117.68 Y132.61 E42.16213
G1 X117.68 Y132.41 E42.17460
G1 X118.48 Y131.61 E42.24516
G1 X118.48 Y129.89 E42.35248
G0 F6000 X118.98 Y130.20
G1 F2700 X122.21 Y128.58 E42.57800
G1 X122.81 Y127.98 E42.63074
G1 X123.21 Y127.78 E42.65868
G1 X124.01 Y126.98 E42.72919
G1 X124.41 Y126.78 E42.75714
G1 X125.01 Y126.18 E42.81001
G1 X125.41 Y125.98 E42.83796
G1 X126.21 Y125.18 E42.90847
G1 X126.61 Y124.98 E42.93641
G1 X127.41 Y124.18 E43.00692
G1 X133.81 Y120.98 E43.45316
G1 X134.57 Y120.22 E43.52054
G1 X136.98 Y119.62 E43.67499
G1 X139.38 Y118.81 E43.83318
G1 X140.18 Y118.62 E43.88445
G1 X143.72 Y117.44 E44.11704
G1 X149.64 Y116.94 E44.48744
G1 X157.52 Y116.94 E44.97873
G1 X160.76 Y117.22 E45.18205
G1 X162.37 Y117.62 E45.28534
G1 X164.77 Y118.42 E45.44319
G1 X165.57 Y118.61 E45.49446
G1 X169.29 Y119.86 E45.73922
G1 X177.14 Y123.78 E46.28655
G1 X177.34 Y123.98 E46.30419
G1 X177.74 Y124.18 E46.33208
G1 X178.34 Y124.78 E46.38495
G1 X178.74 Y124.98 E46.41290
G1 X179.54 Y125.78 E46.48341
G1 X179.94 Y125.98 E46.51135
G1 X180.54 Y126.58 E46.56423
G1 X180.94 Y126.78 E46.59217
G1 X181.74 Y127.58 E46.66268
G1 X182.14 Y127.78 E46.69063
G1 X186.58 Y132.22 E47.08159
G1 X186.58 Y132.41 E47.09407
G1 X187.38 Y133.22 E47.16462
G1 X187.38 Y133.41 E47.17709
G1 X188.18 Y134.22 E47.24765
G1 X188.18 Y134.41 E47.26012
G1 X188.98 Y135.22 E47.33068
G1 X188.98 Y135.41 E47.34315
G1 X189.78 Y136.22 E47.41370
G1 X189.78 Y136.41 E47.42618
G1 X190.38 Y137.01 E47.47909
G1 X190.38 Y137.22 E47.49157
G1 X190.78 Y137.62 E47.52684
G1 X190.78 Y137.81 E47.53932
G1 X190.98 Y138.01 E47.55696
G1 X190.98 Y138.22 E47.56943
G1 X191.18 Y138.41 E47.58707
G1 X191.18 Y138.62 E47.59954
G1 X191.58 Y139.01 E47.63482
G1 X191.58 Y139.22 E47.64729
G1 X191.78 Y139.41 E47.66493
G1 X191.78 Y139.62 E47.67740
G1 X191.98 Y139.81 E47.69504
G1 X191.98 Y140.01 E47.70751
G1 X192.18 Y140.22 E47.72515
G1 X192.18 Y140.34 E47.73320
G1 X194.38 Y140.34 E47.87039
G1 X194.38 Y141.72 E47.95645
G1 X194.58 Y141.74 E47.96898
G1 X194.58 Y142.97 E48.04587
G1 X194.98 Y142.98 E48.07082
G1 X194.98 Y146.81 E48.31016
G1 X196.23 Y148.06 E48.42032
G1 X194.99 Y151.06 E48.62249
G1 X196.70 Y156.71 E48.99096
G1 X194.98 Y156.71 E49.09841
G1 X194.98 Y157.24 E49.13152
G1 X180.21 Y157.24 E50.05268
G1 X180.54 Y157.58 E50.08245
G1 X180.94 Y157.78 E50.11039
G1 X181.74 Y158.58 E50.18091
G1 X182.14 Y158.78 E50.20885
G1 X186.78 Y163.41 E50.61745
G1 X186.78 Y163.62 E50.62993
G1 X187.78 Y164.62 E50.71812
G1 X187.78 Y164.81 E50.73059
G1 X188.58 Y165.62 E50.80115
G1 X188.58 Y165.81 E50.81362
G1 X189.58 Y166.81 E50.90182
G1 X189.58 Y167.01 E50.91429
G1 X190.38 Y167.81 E50.98484
G1 X190.38 Y168.01 E50.99732
G1 X190.78 Y168.41 E51.03259
G1 X190.78 Y168.62 E51.04507
G1 X190.98 Y168.81 E51.06271
G1 X190.98 Y169.01 E51.07518
G1 X191.18 Y169.22 E51.09282
G1 X191.18 Y169.41 E51.10529
G1 X191.38 Y169.62 E51.12293
G1 X191.38 Y169.81 E51.13540
G1 X191.58 Y170.01 E51.15304
G1 X191.58 Y170.22 E51.16551
G1 X191.98 Y170.62 E51.20079
G1 X191.98 Y170.81 E51.21326
G1 X192.18 Y171.01 E51.23090
G1 X192.18 Y171.22 E51.24337
G1 X192.38 Y171.41 E51.26101
G1 X192.38 Y171.62 E51.27349
G1 X192.58 Y171.81 E51.29112
G1 X192.58 Y172.01 E51.30360
G1 X192.78 Y172.22 E51.32124
G1 X192.78 Y172.41 E51.33371
G1 X193.18 Y172.81 E51.36899
G1 X193.18 Y173.01 E51.38146
G1 X193.38 Y173.22 E51.39910
G1 X193.38 Y173.41 E51.41157
G1 X193.58 Y173.62 E51.42921
G1 X193.58 Y173.77 E51.43888
G1 X194.98 Y173.78 E51.52618
G1 X194.98 Y177.62 E51.76553
G1 X196.23 Y178.86 E51.87569
G1 X194.98 Y181.88 E52.07915
G1 X194.98 Y181.94 E52.08283
G1 X196.70 Y187.62 E52.45305
G1 X194.98 Y187.62 E52.56050
G1 X194.98 Y188.04 E52.58706
G1 X109.98 Y188.04 E57.88790
G1 X109.98 Y187.62 E57.91446
G1 X108.30 Y187.62 E58.01898
G1 X109.98 Y182.09 E58.37916
G1 X109.98 Y177.81 E58.64583
G1 X110.18 Y177.62 E58.66346
G1 X110.18 Y177.01 E58.70088
G1 X110.38 Y176.81 E58.71852
G1 X110.38 Y176.41 E58.74347
G1 X110.58 Y176.22 E58.76111
G1 X110.58 Y175.62 E58.79852
G1 X110.78 Y175.41 E58.81616
G1 X110.78 Y174.81 E58.85358
G1 X111.18 Y174.41 E58.88886
G1 X111.18 Y174.22 E58.90133
G1 X111.38 Y174.01 E58.91897
G1 X111.38 Y173.81 E58.93144
G1 X111.58 Y173.62 E58.94908
G1 X111.58 Y173.41 E58.96155
G1 X111.78 Y173.22 E58.97919
G1 X111.78 Y173.01 E58.99166
G1 X111.98 Y172.81 E59.00930
G1 X111.98 Y172.62 E59.02178
G1 X112.18 Y172.41 E59.03941
G1 X112.18 Y172.22 E59.05189
G1 X112.38 Y172.01 E59.06953
G1 X112.38 Y171.81 E59.08200
G1 X112.58 Y171.62 E59.09964
G1 X112.58 Y171.41 E59.11211
G1 X112.78 Y171.22 E59.12975
G1 X112.78 Y171.01 E59.14222
G1 X112.98 Y170.81 E59.15986
G1 X112.98 Y170.62 E59.17233
G1 X113.18 Y170.41 E59.18997
G1 X113.18 Y170.22 E59.20244
G1 X113.38 Y170.01 E59.22008
G1 X113.38 Y169.81 E59.23255
G1 X113.58 Y169.62 E59.25019
G1 X113.58 Y169.41 E59.26267
G1 X113.78 Y169.22 E59.28031
G1 X113.78 Y169.01 E59.29278
G1 X113.98 Y168.81 E59.31042
G1 X113.98 Y168.62 E59.32289
G1 X114.18 Y168.41 E59.34053
G1 X114.18 Y168.22 E59.35300
G1 X115.38 Y167.01 E59.45883
G1 X115.38 Y166.81 E59.47131
G1 X116.58 Y165.62 E59.57714
G1 X116.58 Y165.41 E59.58961
G1 X117.78 Y164.22 E59.69544
G1 X117.78 Y164.01 E59.70792
G1 X118.98 Y162.81 E59.81375
G1 X118.98 Y161.20 E59.91472
G1 X122.21 Y159.58 E60.14023
G1 X122.81 Y158.98 E60.19297
G1 X123.21 Y158.78 E60.22092
G1 X124.01 Y157.98 E60.29143
G1 X124.41 Y157.78 E60.31937
G1 X124.95 Y157.24 E60.36678
G1 X109.98 Y157.24 E61.30041
G1 X109.98 Y156.71 E61.33352
G1 X108.30 Y156.71 E61.43811
G1 X109.98 Y151.19 E61.79836
G1 X109.98 Y147.01 E62.05841
G1 X110.18 Y146.81 E62.07605
G1 X110.18 Y146.22 E62.11347
G1 X110.38 Y146.01 E62.13111
G1 X110.38 Y145.41 E62.16853
G1 X110.58 Y145.22 E62.18617
G1 X110.58 Y144.62 E62.22358
G1 X110.78 Y144.41 E62.24122
G1 X110.78 Y143.81 E62.27864
G1 X111.18 Y143.41 E62.31392
G1 X111.18 Y143.22 E62.32639
G1 X111.38 Y143.01 E62.34403
G1 X111.38 Y142.81 E62.35650
G1 X111.58 Y142.62 E62.37414
G1 X111.58 Y142.41 E62.38661
G1 X111.78 Y142.22 E62.40425
G1 X111.78 Y142.01 E62.41672
G1 X111.98 Y141.81 E62.43436
G1 X111.98 Y141.62 E62.44684
G1 X112.18 Y141.41 E62.46448
G1 X112.18 Y141.22 E62.47695
G1 X112.38 Y141.01 E62.49459
G1 X112.38 Y140.81 E62.50706
G1 X112.78 Y140.41 E62.54234
G1 X112.78 Y140.22 E62.55481
G1 X112.98 Y140.01 E62.57245
G1 X112.98 Y139.81 E62.58492
G1 X113.18 Y139.62 E62.60256
G1 X113.18 Y139.41 E62.61503
G1 X113.38 Y139.22 E62.63267
G1 X113.38 Y139.01 E62.64514
G1 X113.58 Y138.81 E62.66278
G1 X113.58 Y138.62 E62.67525
G1 X113.78 Y138.41 E62.69289
G1 X113.78 Y138.22 E62.70537
G1 X113.98 Y138.01 E62.72301
G1 X113.98 Y137.81 E62.73548
G1 X114.18 Y137.62 E62.75312
G1 X114.18 Y137.41 E62.76559
G1 X115.18 Y136.41 E62.85378
G1 X115.18 Y136.22 E62.86626
G1 X116.18 Y135.22 E62.95445
G1 X116.18 Y135.01 E62.96692
G1 X117.18 Y134.01 E63.05512
G1 X117.18 Y133.81 E63.06759
G1 X118.18 Y132.81 E63.15578
G1 X118.18 Y132.62 E63.16826
G1 X118.98 Y131.81 E63.23881
G1 X118.98 Y130.20 E63.33978
G0 F6000 X119.48 Y130.50
G1 F2700 X122.51 Y128.99 E63.55090
G1 X123.11 Y128.39 E63.60382
G1 X123.51 Y128.19 E63.63171
G1 X124.31 Y127.39 E63.70226
G1 X124.71 Y127.19 E63.73015
G1 X125.31 Y126.59 E63.78307
G1 X125.71 Y126.39 E63.81096
G1 X126.51 Y125.59 E63.88151
G1 X126.91 Y125.39 E63.90940
G1 X127.71 Y124.59 E63.97996
G1 X134.10 Y121.39 E64.42611
G1 X134.83 Y120.67 E64.48996
G1 X137.12 Y120.10 E64.63755
G1 X139.52 Y119.30 E64.79520
G1 X140.32 Y119.10 E64.84643
G1 X143.82 Y117.93 E65.07651
G1 X149.66 Y117.44 E65.44191
G1 X157.50 Y117.44 E65.93058
G1 X160.68 Y117.71 E66.13008
G1 X162.23 Y118.10 E66.22965
G1 X164.63 Y118.90 E66.38712
G1 X165.43 Y119.10 E66.43879
G1 X169.10 Y120.32 E66.68013
G1 X176.85 Y124.19 E67.22018
G1 X177.05 Y124.39 E67.23782
G1 X177.45 Y124.59 E67.26571
G1 X178.05 Y125.19 E67.31863
G1 X178.45 Y125.39 E67.34652
G1 X179.25 Y126.19 E67.41707
G1 X179.65 Y126.39 E67.44496
G1 X180.25 Y126.99 E67.49788
G1 X180.65 Y127.19 E67.52577
G1 X181.45 Y127.99 E67.59632
G1 X181.85 Y128.19 E67.62421
G1 X186.08 Y132.42 E67.99718
G1 X186.08 Y132.62 E68.00966
G1 X186.88 Y133.42 E68.08021
G1 X186.88 Y133.62 E68.09269
G1 X187.68 Y134.42 E68.16324
G1 X187.68 Y134.62 E68.17571
G1 X188.48 Y135.42 E68.24627
G1 X188.48 Y135.62 E68.25874
G1 X189.28 Y136.42 E68.32930
G1 X189.28 Y136.62 E68.34177
G1 X189.88 Y137.22 E68.39469
G1 X189.88 Y137.42 E68.40716
G1 X190.28 Y137.82 E68.44244
G1 X190.28 Y138.02 E68.45491
G1 X190.48 Y138.22 E68.47255
G1 X190.48 Y138.42 E68.48502
G1 X190.68 Y138.62 E68.50266
G1 X190.68 Y138.82 E68.51513
G1 X191.08 Y139.22 E68.55041
G1 X191.08 Y139.42 E68.56288
G1 X191.28 Y139.62 E68.58052
G1 X191.28 Y139.82 E68.59299
G1 X191.48 Y140.02 E68.61063
G1 X191.48 Y140.22 E68.62310
G1 X191.68 Y140.42 E68.64074
G1 X191.68 Y140.62 E68.65322
G1 X191.90 Y140.84 E68.67279
G1 X193.88 Y140.84 E68.79615
G1 X193.88 Y142.18 E68.87953
G1 X194.08 Y142.20 E68.89205
G1 X194.08 Y143.47 E68.97150
G1 X194.48 Y143.47 E68.99645
G1 X194.48 Y147.02 E69.21771
G1 X195.64 Y148.18 E69.31993
G1 X194.48 Y150.98 E69.50874
G1 X194.48 Y151.11 E69.51672
G1 X196.03 Y156.21 E69.84947
G1 X194.48 Y156.21 E69.94607
G1 X194.48 Y156.74 E69.97919
G1 X178.80 Y156.74 E70.95691
G1 X179.25 Y157.19 E70.99651
G1 X179.65 Y157.39 E71.02440
G1 X180.25 Y157.99 E71.07732
G1 X180.65 Y158.19 E71.10521
G1 X181.45 Y158.99 E71.17576
G1 X181.85 Y159.19 E71.20365
G1 X186.28 Y163.62 E71.59426
G1 X186.28 Y163.82 E71.60674
G1 X187.28 Y164.82 E71.69493
G1 X187.28 Y165.02 E71.70740
G1 X188.08 Y165.82 E71.77796
G1 X188.08 Y166.02 E71.79043
G1 X189.08 Y167.02 E71.87862
G1 X189.08 Y167.22 E71.89110
G1 X189.88 Y168.02 E71.96165
G1 X189.88 Y168.22 E71.97413
G1 X190.28 Y168.62 E72.00940
G1 X190.28 Y168.82 E72.02188
G1 X190.48 Y169.02 E72.03951
G1 X190.48 Y169.22 E72.05199
G1 X190.68 Y169.42 E72.06963
G1 X190.68 Y169.62 E72.08210
G1 X190.88 Y169.82 E72.09974
G1 X190.88 Y170.02 E72.11221
G1 X191.08 Y170.22 E72.12985
G1 X191.08 Y170.42 E72.14232
G1 X191.48 Y170.82 E72.17760
G1 X191.48 Y171.02 E72.19007
G1 X191.68 Y171.22 E72.20771
G1 X191.68 Y171.42 E72.22018
G1 X191.88 Y171.62 E72.23782
G1 X191.88 Y171.82 E72.25029
G1 X192.08 Y172.02 E72.26793
G1 X192.08 Y172.22 E72.28041
G1 X192.28 Y172.42 E72.29804
G1 X192.28 Y172.62 E72.31052
G1 X192.68 Y173.02 E72.34579
G1 X192.68 Y173.22 E72.35827
G1 X192.88 Y173.42 E72.37591
G1 X192.88 Y173.62 E72.38838
G1 X193.08 Y173.82 E72.40602
G1 X193.08 Y174.02 E72.41849
G1 X193.28 Y174.22 E72.43613
G1 X193.28 Y174.27 E72.43906
G1 X194.48 Y174.28 E72.51390
G1 X194.48 Y177.82 E72.73516
G1 X195.64 Y178.98 E72.83738
G1 X194.48 Y181.78 E73.02619
G1 X194.48 Y182.01 E73.04066
G1 X196.03 Y187.12 E73.37347
G1 X194.48 Y187.12 E73.47007
G1 X194.48 Y187.54 E73.49664
G1 X110.48 Y187.54 E78.73511
G1 X110.48 Y187.12 E78.76167
G1 X108.97 Y187.12 E78.85534
G1 X110.48 Y182.16 E79.17812
G1 X110.48 Y178.02 E79.43648
G1 X110.68 Y177.82 E79.45412
G1 X110.68 Y177.22 E79.49154
G1 X110.88 Y177.02 E79.50918
G1 X110.88 Y176.62 E79.53412
G1 X111.08 Y176.42 E79.55176
G1 X111.08 Y175.82 E79.58918
G1 X111.28 Y175.62 E79.60682
G1 X111.28 Y175.02 E79.64424
G1 X111.68 Y174.62 E79.67952
G1 X111.68 Y174.42 E79.69199
G1 X111.88 Y174.22 E79.70963
G1 X111.88 Y174.02 E79.72210
G1 X112.08 Y173.82 E79.73974
G1 X112.08 Y173.62 E79.75221
G1 X112.28 Y173.42 E79.76985
G1 X112.28 Y173.22 E79.78232
G1 X112.48 Y173.02 E79.79996
G1 X112.48 Y172.82 E79.81243
G1 X112.68 Y172.62 E79.83007
G1 X112.68 Y172.42 E79.84255
G1 X112.88 Y172.22 E79.86018
G1 X112.88 Y172.02 E79.87266
G1 X113.08 Y171.82 E79.89030
G1 X113.08 Y171.62 E79.90277
G1 X113.28 Y171.42 E79.92041
G1 X113.28 Y171.22 E79.93288
G1 X113.48 Y171.02 E79.95052
G1 X113.48 Y170.82 E79.96299
G1 X113.68 Y170.62 E79.98063
G1 X113.68 Y170.42 E79.99310
G1 X113.88 Y170.22 E80.01074
G1 X113.88 Y170.02 E80.02321
G1 X114.08 Y169.82 E80.04085
G1 X114.08 Y169.62 E80.05332
G1 X114.28 Y169.42 E80.07096
G1 X114.28 Y169.22 E80.08344
G1 X114.48 Y169.02 E80.10108
G1 X114.48 Y168.82 E80.11355
G1 X114.68 Y168.62 E80.13119
G1 X114.68 Y168.42 E80.14366
G1 X115.88 Y167.22 E80.24949
G1 X115.88 Y167.02 E80.26196
G1 X117.08 Y165.82 E80.36780
G1 X117.08 Y165.62 E80.38027
G1 X118.28 Y164.42 E80.48610
G1 X118.28 Y164.22 E80.49858
G1 X119.48 Y163.02 E80.60441
G1 X119.48 Y161.50 E80.69901
G1 X122.51 Y159.99 E80.91014
G1 X123.11 Y159.39 E80.96305
G1 X123.51 Y159.19 E80.99094
G1 X124.31 Y158.39 E81.06150
G1 X124.71 Y158.19 E81.08939
G1 X125.31 Y157.59 E81.14230
G1 X125.71 Y157.39 E81.17019
G1 X126.36 Y156.74 E81.22743
G1 X110.48 Y156.74 E82.21763
G1 X110.48 Y156.21 E82.25074
G1 X108.97 Y156.21 E82.34447
G1 X110.48 Y151.26 E82.66738
G1 X110.48 Y147.22 E82.91908
G1 X110.68 Y147.02 E82.93672
G1 X110.68 Y146.42 E82.97414
G1 X110.88 Y146.22 E82.99178
G1 X110.88 Y145.62 E83.02919
G1 X111.08 Y145.42 E83.04683
G1 X111.08 Y144.82 E83.08425
G1 X111.28 Y144.62 E83.10189
G1 X111.28 Y144.02 E83.13931
G1 X111.68 Y143.62 E83.17458
G1 X111.68 Y143.42 E83.18706
G1 X111.88 Y143.22 E83.20470
G1 X111.88 Y143.02 E83.21717
G1 X112.08 Y142.82 E83.23481
G1 X112.08 Y142.62 E83.24728
G1 X112.28 Y142.42 E83.26492
G1 X112.28 Y142.22 E83.27739
G1 X112.48 Y142.02 E83.29503
G1 X112.48 Y141.82 E83.30750
G1 X112.68 Y141.62 E83.32514
G1 X112.68 Y141.42 E83.33761
G1 X112.88 Y141.22 E83.35525
G1 X112.88 Y141.02 E83.36772
G1 X113.28 Y140.62 E83.40300
G1 X113.28 Y140.42 E83.41547
G1 X113.48 Y140.22 E83.43311
G1 X113.48 Y140.02 E83.44559
G1 X113.68 Y139.82 E83.46323
G1 X113.68 Y139.62 E83.47570
G1 X113.88 Y139.42 E83.49334
G1 X113.88 Y139.22 E83.50581
G1 X114.08 Y139.02 E83.52345
G1 X114.08 Y138.82 E83.53592
G1 X114.28 Y138.62 E83.55356
G1 X114.28 Y138.42 E83.56603
G1 X114.48 Y138.22 E83.58367
G1 X114.48 Y138.02 E83.59614
G1 X114.68 Y137.82 E83.61378
G1 X114.68 Y137.62 E83.62625
G1 X115.68 Y136.62 E83.71445
G1 X115.68 Y136.42 E83.72692
G1 X116.68 Y135.42 E83.81512
G1 X116.68 Y135.22 E83.82759
G1 X117.68 Y134.22 E83.91578
G1 X117.68 Y134.02 E83.92826
G1 X118.68 Y133.02 E84.01645
G1 X118.68 Y132.82 E84.02892
G1 X119.48 Y132.02 E84.09948
G1 X119.48 Y130.50 E84.19408
G0 F6000 X119.98 Y130.81
G1 F2700 X122.80 Y129.40 E84.39106
G1 X123.40 Y128.80 E84.44389
G1 X123.80 Y128.60 E84.47187
G1 X124.60 Y127.80 E84.54233
G1 X125.00 Y127.60 E84.57028
G1 X125.60 Y127.00 E84.62315
G1 X126.00 Y126.80 E84.65112
G1 X126.80 Y126.00 E84.72159
G1 X127.20 Y125.80 E84.74956
G1 X128.00 Y125.00 E84.82003
G1 X134.40 Y121.80 E85.26635
G1 X135.09 Y121.12 E85.32650
G1 X137.26 Y120.58 E85.46656
G1 X139.66 Y119.78 E85.62428
G1 X140.47 Y119.58 E85.67603
G1 X143.92 Y118.42 E85.90309
G1 X149.68 Y117.94 E86.26342
G1 X157.47 Y117.94 E86.74947
G1 X160.60 Y118.20 E86.94515
G1 X162.09 Y118.58 E87.04100
G1 X164.49 Y119.38 E87.19831
G1 X165.29 Y119.58 E87.25012
G1 X168.91 Y120.78 E87.48811
G1 X176.55 Y124.60 E88.02085
G1 X176.75 Y124.80 E88.03849
G1 X177.15 Y125.00 E88.06638
G1 X177.75 Y125.60 E88.11925
G1 X178.15 Y125.80 E88.14720
G1 X178.95 Y126.60 E88.21767
G1 X179.35 Y126.80 E88.24564
G1 X179.95 Y127.40 E88.29851
G1 X180.35 Y127.60 E88.32646
G1 X181.15 Y128.40 E88.39693
G1 X181.55 Y128.60 E88.42490
G1 X185.58 Y132.63 E88.77988
G1 X185.58 Y132.83 E88.79235
G1 X186.38 Y133.63 E88.86291
G1 X186.38 Y133.83 E88.87538
G1 X187.18 Y134.63 E88.94594
G1 X187.18 Y134.83 E88.95841
G1 X187.98 Y135.63 E89.02896
G1 X187.98 Y135.83 E89.04144
G1 X188.78 Y136.63 E89.11199
G1 X188.78 Y136.83 E89.12446
G1 X189.38 Y137.43 E89.17738
G1 X189.38 Y137.63 E89.18985
G1 X189.78 Y138.03 E89.22513
G1 X189.78 Y138.23 E89.23760
G1 X189.98 Y138.43 E89.25524
G1 X189.98 Y138.63 E89.26772
G1 X190.18 Y138.83 E89.28535
G1 X190.18 Y139.03 E89.29783
G1 X190.58 Y139.43 E89.33310
G1 X190.58 Y139.63 E89.34558
G1 X190.78 Y139.83 E89.36322
G1 X190.78 Y140.03 E89.37569
G1 X190.98 Y140.23 E89.39333
G1 X190.98 Y140.43 E89.40580
G1 X191.18 Y140.63 E89.42344
G1 X191.18 Y140.83 E89.43591
G1 X191.58 Y141.23 E89.47119
G1 X191.58 Y141.34 E89.47836
G1 X193.38 Y141.34 E89.59061
G1 X193.38 Y142.64 E89.67131
G1 X193.58 Y142.66 E89.68383
G1 X193.58 Y143.97 E89.76578
G1 X193.98 Y143.97 E89.79072
G1 X193.98 Y147.23 E89.99390
G1 X195.05 Y148.30 E90.08818
G1 X193.98 Y150.88 E90.26234
G1 X193.98 Y151.18 E90.28118
G1 X195.35 Y155.71 E90.57653
G1 X193.98 Y155.71 E90.66227
G1 X193.98 Y156.24 E90.69539
G1 X177.39 Y156.24 E91.72967
G1 X177.75 Y156.60 E91.76138
G1 X178.15 Y156.80 E91.78933
G1 X178.95 Y157.60 E91.85979
G1 X179.35 Y157.80 E91.88777
G1 X179.95 Y158.40 E91.94064
G1 X180.35 Y158.60 E91.96858
G1 X181.15 Y159.40 E92.03905
G1 X181.55 Y159.60 E92.06702
G1 X185.78 Y163.83 E92.43965
G1 X185.78 Y164.03 E92.45212
G1 X186.78 Y165.03 E92.54031
G1 X186.78 Y165.23 E92.55278
G1 X187.58 Y166.03 E92.62334
G1 X187.58 Y166.23 E92.63581
G1 X188.58 Y167.23 E92.72401
G1 X188.58 Y167.43 E92.73648
G1 X189.38 Y168.23 E92.80703
G1 X189.38 Y168.43 E92.81951
G1 X189.78 Y168.83 E92.85478
G1 X189.78 Y169.03 E92.86726
G1 X189.98 Y169.23 E92.88490
G1 X189.98 Y169.43 E92.89737
G1 X190.18 Y169.63 E92.91501
G1 X190.18 Y169.83 E92.92748
G1 X190.38 Y170.03 E92.94512
G1 X190.38 Y170.23 E92.95759
G1 X190.58 Y170.43 E92.97523
G1 X190.58 Y170.63 E92.98770
G1 X190.98 Y171.03 E93.02298
G1 X190.98 Y171.23 E93.03545
G1 X191.18 Y171.43 E93.05309
G1 X191.18 Y171.63 E93.06556
G1 X191.38 Y171.83 E93.08320
G1 X191.38 Y172.03 E93.09568
G1 X191.58 Y172.23 E93.11331
G1 X191.58 Y172.43 E93.12579
G1 X191.78 Y172.63 E93.14343
G1 X191.78 Y172.83 E93.15590
G1 X192.18 Y173.23 E93.19118
G1 X192.18 Y173.43 E93.20365
G1 X192.38 Y173.63 E93.22129
G1 X192.38 Y173.83 E93.23376
G1 X192.58 Y174.03 E93.25140
G1 X192.58 Y174.23 E93.26387
G1 X192.78 Y174.43 E93.28151
G1 X192.78 Y174.63 E93.29398
G1 X192.91 Y174.77 E93.30615
G1 X193.98 Y174.77 E93.37238
G1 X193.98 Y178.03 E93.57556
G1 X195.05 Y179.10 E93.66984
G1 X193.98 Y181.68 E93.84400
G1 X193.98 Y182.09 E93.86951
G1 X195.35 Y186.62 E94.16472
G1 X193.98 Y186.62 E94.25041
G1 X193.98 Y187.04 E94.27697
G1 X110.98 Y187.04 E99.45308
G1 X110.98 Y186.62 E99.47965
G1 X109.65 Y186.62 E99.56247
G1 X110.98 Y182.24 E99.84783
G1 X110.98 Y178.23 E100.09791
G1 X111.18 Y178.03 E100.11555
G1 X111.18 Y177.43 E100.15297
G1 X111.38 Y177.23 E100.17060
G1 X111.38 Y176.83 E100.19555
G1 X111.58 Y176.63 E100.21319
G1 X111.58 Y176.03 E100.25061
G1 X111.78 Y175.83 E100.26824
G1 X111.78 Y175.23 E100.30566
G1 X112.18 Y174.83 E100.34094
G1 X112.18 Y174.63 E100.35341
G1 X112.38 Y174.43 E100.37105
G1 X112.38 Y174.23 E100.38352
G1 X112.58 Y174.03 E100.40116
G1 X112.58 Y173.83 E100.41364
G1 X112.78 Y173.63 E100.43127
G1 X112.78 Y173.43 E100.44375
G1 X112.98 Y173.23 E100.46139
G1 X112.98 Y173.03 E100.47386
G1 X113.18 Y172.83 E100.49150
G1 X113.18 Y172.63 E100.50397
G1 X113.38 Y172.43 E100.52161
G1 X113.38 Y172.23 E100.53408
G1 X113.58 Y172.03 E100.55172
G1 X113.58 Y171.83 E100.56419
G1 X113.78 Y171.63 E100.58183
G1 X113.78 Y171.43 E100.59430
G1 X113.98 Y171.23 E100.61194
G1 X113.98 Y171.03 E100.62442
G1 X114.18 Y170.83 E100.64205
G1 X114.18 Y170.63 E100.65453
G1 X114.38 Y170.43 E100.67217
G1 X114.38 Y170.23 E100.68464
G1 X114.58 Y170.03 E100.70228
G1 X114.58 Y169.83 E100.71475
G1 X114.78 Y169.63 E100.73239
G1 X114.78 Y169.43 E100.74486
G1 X114.98 Y169.23 E100.76250
G1 X114.98 Y169.03 E100.77497
G1 X115.18 Y168.83 E100.79261
G1 X115.18 Y168.63 E100.80508
G1 X116.38 Y167.43 E100.91092
G1 X116.38 Y167.23 E100.92339
G1 X117.58 Y166.03 E101.02922
G1 X117.58 Y165.83 E101.04170
G1 X118.78 Y164.63 E101.14753
G1 X118.78 Y164.43 E101.16000
G1 X119.98 Y163.23 E101.26583
G1 X119.98 Y161.81 E101.35408
G1 X122.80 Y160.40 E101.55106
G1 X123.40 Y159.80 E101.60389
G1 X123.80 Y159.60 E101.63186
G1 X124.60 Y158.80 E101.70233
G1 X125.00 Y158.60 E101.73027
G1 X125.60 Y158.00 E101.78315
G1 X126.00 Y157.80 E101.81112
G1 X126.80 Y157.00 E101.88159
G1 X127.20 Y156.80 E101.90956
G1 X127.76 Y156.24 E101.95886
G1 X110.98 Y156.24 E103.00562
G1 X110.98 Y155.71 E103.03873
G1 X109.65 Y155.71 E103.12161
G1 X110.98 Y151.33 E103.40712
G1 X110.98 Y147.43 E103.65052
G1 X111.18 Y147.23 E103.66816
G1 X111.18 Y146.63 E103.70558
G1 X111.38 Y146.43 E103.72322
G1 X111.38 Y145.83 E103.76064
G1 X111.58 Y145.63 E103.77827
G1 X111.58 Y145.03 E103.81569
G1 X111.78 Y144.83 E103.83333
G1 X111.78 Y144.23 E103.87075
G1 X112.18 Y143.83 E103.90603
G1 X112.18 Y143.63 E103.91850
G1 X112.38 Y143.43 E103.93614
G1 X112.38 Y143.23 E103.94861
G1 X112.58 Y143.03 E103.96625
G1 X112.58 Y142.83 E103.97872
G1 X112.78 Y142.63 E103.99636
G1 X112.78 Y142.43 E104.00883
G1 X112.98 Y142.23 E104.02647
G1 X112.98 Y142.03 E104.03894
G1 X113.18 Y141.83 E104.05658
G1 X113.18 Y141.63 E104.06906
G1 X113.38 Y141.43 E104.08669
G1 X113.38 Y141.23 E104.09917
G1 X113.78 Y140.83 E104.13444
G1 X113.78 Y140.63 E104.14692
G1 X113.98 Y140.43 E104.16456
G1 X113.98 Y140.23 E104.17703
G1 X114.18 Y140.03 E104.19467
G1 X114.18 Y139.83 E104.20714
G1 X114.38 Y139.63 E104.22478
G1 X114.38 Y139.43 E104.23725
G1 X114.58 Y139.23 E104.25489
G1 X114.58 Y139.03 E104.26736
G1 X114.78 Y138.83 E104.28500
G1 X114.78 Y138.63 E104.29747
G1 X114.98 Y138.43 E104.31511
G1 X114.98 Y138.23 E104.32759
G1 X115.18 Y138.03 E104.34522
G1 X115.18 Y137.83 E104.35770
G1 X116.18 Y136.83 E104.44589
G1 X116.18 Y136.63 E104.45836
G1 X117.18 Y135.63 E104.54656
G1 X117.18 Y135.43 E104.55903
G1 X118.18 Y134.43 E104.64722
G1 X118.18 Y134.23 E104.65970
G1 X119.18 Y133.23 E104.74789
G1 X119.18 Y133.03 E104.76036
G1 X119.98 Y132.23 E104.83092
G1 X119.98 Y130.81 E104.91916
G0 F6000 X120.48 Y131.12
G1 F2700 X123.10 Y129.81 E105.10192
G1 X123.70 Y129.22 E105.15475
G1 X124.10 Y129.01 E105.18264
G1 X124.90 Y128.22 E105.25320
G1 X125.30 Y128.01 E105.28109
G1 X125.90 Y127.42 E105.33400
G1 X126.30 Y127.22 E105.36189
G1 X127.10 Y126.42 E105.43245
G1 X127.50 Y126.22 E105.46034
G1 X128.30 Y125.42 E105.53089
G1 X134.70 Y122.22 E105.97718
G1 X135.34 Y121.57 E106.03380
G1 X137.40 Y121.06 E106.16622
G1 X139.80 Y120.26 E106.32413
G1 X140.60 Y120.06 E106.37561
G1 X144.02 Y118.92 E106.60037
G1 X149.70 Y118.44 E106.95569
G1 X157.45 Y118.44 E107.43913
G1 X160.52 Y118.70 E107.63105
G1 X161.95 Y119.06 E107.72311
G1 X164.35 Y119.86 E107.88075
G1 X165.15 Y120.06 E107.93224
G1 X168.72 Y121.25 E108.16680
G1 X176.26 Y125.02 E108.69229
G1 X176.46 Y125.22 E108.70993
G1 X176.86 Y125.42 E108.73782
G1 X177.46 Y126.02 E108.79074
G1 X177.86 Y126.22 E108.81863
G1 X178.66 Y127.02 E108.88918
G1 X179.06 Y127.22 E108.91707
G1 X179.66 Y127.81 E108.96999
G1 X180.06 Y128.01 E108.99788
G1 X180.86 Y128.81 E109.06843
G1 X181.26 Y129.01 E109.09632
G1 X185.08 Y132.84 E109.43331
G1 X185.08 Y133.04 E109.44579
G1 X185.88 Y133.84 E109.51634
G1 X185.88 Y134.04 E109.52881
G1 X186.68 Y134.84 E109.59937
G1 X186.68 Y135.04 E109.61184
G1 X187.48 Y135.84 E109.68240
G1 X187.48 Y136.04 E109.69487
G1 X188.28 Y136.84 E109.76543
G1 X188.28 Y137.04 E109.77790
G1 X188.88 Y137.64 E109.83082
G1 X188.88 Y137.84 E109.84329
G1 X189.28 Y138.24 E109.87857
G1 X189.28 Y138.44 E109.89104
G1 X189.48 Y138.64 E109.90868
G1 X189.48 Y138.84 E109.92115
G1 X189.68 Y139.04 E109.93879
G1 X189.68 Y139.24 E109.95126
G1 X190.08 Y139.64 E109.98654
G1 X190.08 Y139.84 E109.99901
G1 X190.28 Y140.04 E110.01665
G1 X190.28 Y140.24 E110.02912
G1 X190.48 Y140.44 E110.04676
G1 X190.48 Y140.64 E110.05923
G1 X190.68 Y140.84 E110.07687
G1 X190.68 Y141.04 E110.08935
G1 X191.08 Y141.44 E110.12462
G1 X191.08 Y141.64 E110.13710
G1 X191.28 Y141.84 E110.15473
G1 X191.28 Y141.84 E110.15523
G1 X192.88 Y141.84 E110.25501
G1 X192.88 Y143.09 E110.33303
G1 X193.08 Y143.11 E110.34555
G1 X193.08 Y144.47 E110.43005
G1 X193.48 Y144.47 E110.45500
G1 X193.48 Y147.44 E110.63997
G1 X194.46 Y148.42 E110.72640
G1 X193.48 Y150.78 E110.88599
G1 X193.48 Y151.25 E110.91561
G1 X194.68 Y155.21 E111.17356
G1 X193.48 Y155.21 E111.24845
G1 X193.48 Y155.74 E111.28157
G1 X175.71 Y155.74 E112.38932
G1 X176.26 Y156.01 E112.42711
G1 X176.46 Y156.22 E112.44475
G1 X176.86 Y156.41 E112.47264
G1 X177.46 Y157.01 E112.52555
G1 X177.86 Y157.22 E112.55344
G1 X178.66 Y158.01 E112.62400
G1 X179.06 Y158.22 E112.65189
G1 X179.66 Y158.81 E112.70480
G1 X180.06 Y159.01 E112.73269
G1 X180.86 Y159.81 E112.80325
G1 X181.26 Y160.01 E112.83114
G1 X185.28 Y164.04 E113.18577
G1 X185.28 Y164.24 E113.19824
G1 X186.28 Y165.24 E113.28643
G1 X186.28 Y165.44 E113.29891
G1 X187.08 Y166.24 E113.36946
G1 X187.08 Y166.44 E113.38193
G1 X188.08 Y167.44 E113.47013
G1 X188.08 Y167.64 E113.48260
G1 X188.88 Y168.44 E113.55316
G1 X188.88 Y168.64 E113.56563
G1 X189.28 Y169.04 E113.60091
G1 X189.28 Y169.24 E113.61338
G1 X189.48 Y169.44 E113.63102
G1 X189.48 Y169.64 E113.64349
G1 X189.68 Y169.84 E113.66113
G1 X189.68 Y170.04 E113.67360
G1 X189.88 Y170.24 E113.69124
G1 X189.88 Y170.44 E113.70371
G1 X190.08 Y170.64 E113.72135
G1 X190.08 Y170.84 E113.73383
G1 X190.48 Y171.24 E113.76910
G1 X190.48 Y171.44 E113.78158
G1 X190.68 Y171.64 E113.79921
G1 X190.68 Y171.84 E113.81169
G1 X190.88 Y172.04 E113.82933
G1 X190.88 Y172.24 E113.84180
G1 X191.08 Y172.44 E113.85944
G1 X191.08 Y172.64 E113.87191
G1 X191.28 Y172.84 E113.88955
G1 X191.28 Y173.04 E113.90202
G1 X191.68 Y173.44 E113.93730
G1 X191.68 Y173.64 E113.94977
G1 X191.88 Y173.84 E113.96741
G1 X191.88 Y174.04 E113.97988
G1 X192.08 Y174.24 E113.99752
G1 X192.08 Y174.44 E114.00999
G1 X192.28 Y174.64 E114.02763
G1 X192.28 Y174.84 E114.04011
G1 X192.48 Y175.04 E114.05774
G1 X192.48 Y175.24 E114.07022
G1 X192.51 Y175.26 E114.07277
G1 X193.48 Y175.27 E114.13333
G1 X193.48 Y178.24 E114.31830
G1 X194.46 Y179.22 E114.40473
G1 X193.48 Y181.58 E114.56432
G1 X193.48 Y182.16 E114.60055
G1 X194.68 Y186.12 E114.85842
G1 X193.48 Y186.12 E114.93325
G1 X193.48 Y186.54 E114.95982
G1 X111.48 Y186.54 E120.07357
G1 X111.48 Y186.12 E120.10013
G1 X110.32 Y186.12 E120.17210
G1 X111.48 Y182.31 E120.42012
G1 X111.48 Y178.44 E120.66184
G1 X111.68 Y178.24 E120.67948
G1 X111.68 Y177.64 E120.71690
G1 X111.88 Y177.44 E120.73454
G1 X111.88 Y177.04 E120.75948
G1 X112.08 Y176.84 E120.77712
G1 X112.08 Y176.24 E120.81454
G1 X112.28 Y176.04 E120.83218
G1 X112.28 Y175.44 E120.86959
G1 X112.68 Y175.04 E120.90487
G1 X112.68 Y174.84 E120.91735
G1 X112.88 Y174.64 E120.93498
G1 X112.88 Y174.44 E120.94746
G1 X113.08 Y174.24 E120.96510
G1 X113.08 Y174.04 E120.97757
G1 X113.28 Y173.84 E120.99521
G1 X113.28 Y173.64 E121.00768
G1 X113.48 Y173.44 E121.02532
G1 X113.48 Y173.24 E121.03779
G1 X113.68 Y173.04 E121.05543
G1 X113.68 Y172.84 E121.06790
G1 X113.88 Y172.64 E121.08554
G1 X113.88 Y172.44 E121.09801
G1 X114.08 Y172.24 E121.11565
G1 X114.08 Y172.04 E121.12812
G1 X114.28 Y171.84 E121.14576
G1 X114.28 Y171.64 E121.15824
G1 X114.48 Y171.44 E121.17588
G1 X114.48 Y171.24 E121.18835
G1 X114.68 Y171.04 E121.20599
G1 X114.68 Y170.84 E121.21846
G1 X114.88 Y170.64 E121.23610
G1 X114.88 Y170.44 E121.24857
G1 X115.08 Y170.24 E121.26621
G1 X115.08 Y170.04 E121.27868
G1 X115.28 Y169.84 E121.29632
G1 X115.28 Y169.64 E121.30879
G1 X115.48 Y169.44 E121.32643
G1 X115.48 Y169.24 E121.33890
G1 X115.68 Y169.04 E121.35654
G1 X115.68 Y168.84 E121.36902
G1 X116.88 Y167.64 E121.47485
G1 X116.88 Y167.44 E121.48732
G1 X118.08 Y166.24 E121.59315
G1 X118.08 Y166.04 E121.60563
G1 X119.28 Y164.84 E121.71146
G1 X119.28 Y164.64 E121.72393
G1 X120.48 Y163.44 E121.82977
G1 X120.48 Y162.12 E121.91165
G1 X123.10 Y160.81 E122.09441
G1 X123.70 Y160.22 E122.14724
G1 X124.10 Y160.01 E122.17513
G1 X124.90 Y159.22 E122.24568
G1 X125.30 Y159.01 E122.27357
G1 X125.90 Y158.41 E122.32649
G1 X126.30 Y158.22 E122.35438
G1 X127.10 Y157.41 E122.42493
G1 X127.50 Y157.22 E122.45282
G1 X128.30 Y156.41 E122.52338
G1 X129.64 Y155.74 E122.61695
G1 X111.48 Y155.74 E123.74964
G1 X111.48 Y155.21 E123.78276
G1 X110.32 Y155.21 E123.85472
G1 X111.48 Y151.41 E124.10269
G1 X111.48 Y147.64 E124.33792
G1 X111.68 Y147.44 E124.35556
G1 X111.68 Y146.84 E124.39297
G1 X111.88 Y146.64 E124.41061
G1 X111.88 Y146.04 E124.44803
G1 X112.08 Y145.84 E124.46567
G1 X112.08 Y145.24 E124.50309
G1 X112.28 Y145.04 E124.52073
G1 X112.28 Y144.44 E124.55814
G1 X112.68 Y144.04 E124.59342
G1 X112.68 Y143.84 E124.60589
G1 X112.88 Y143.64 E124.62353
G1 X112.88 Y143.44 E124.63601
G1 X113.08 Y143.24 E124.65364
G1 X113.08 Y143.04 E124.66612
G1 X113.28 Y142.84 E124.68376
G1 X113.28 Y142.64 E124.69623
G1 X113.48 Y142.44 E124.71387
G1 X113.48 Y142.24 E124.72634
G1 X113.68 Y142.04 E124.74398
G1 X113.68 Y141.84 E124.75645
G1 X113.88 Y141.64 E124.77409
G1 X113.88 Y141.44 E124.78656
G1 X114.28 Y141.04 E124.82184
G1 X114.28 Y140.84 E124.83431
G1 X114.48 Y140.64 E124.85195
G1 X114.48 Y140.44 E124.86442
G1 X114.68 Y140.24 E124.88206
G1 X114.68 Y140.04 E124.89454
G1 X114.88 Y139.84 E124.91217
G1 X114.88 Y139.64 E124.92465
G1 X115.08 Y139.44 E124.94229
G1 X115.08 Y139.24 E124.95476
G1 X115.28 Y139.04 E124.97240
G1 X115.28 Y138.84 E124.98487
G1 X115.48 Y138.64 E125.00251
G1 X115.48 Y138.44 E125.01498
G1 X115.68 Y138.24 E125.03262
G1 X115.68 Y138.04 E125.04509
G1 X116.68 Y137.04 E125.13329
G1 X116.68 Y136.84 E125.14576
G1 X117.68 Y135.84 E125.23395
G1 X117.68 Y135.64 E125.24643
G1 X118.68 Y134.64 E125.33462
G1 X118.68 Y134.44 E125.34709
G1 X119.68 Y133.44 E125.43529
G1 X119.68 Y133.24 E125.44776
G1 X120.48 Y132.44 E125.51832
G1 X120.48 Y131.12 E125.60020
G0 F6000 X120.98 Y131.43
G1 F2700 X123.39 Y130.23 E125.76868
G1 X123.99 Y129.63 E125.82159
G1 X124.39 Y129.43 E125.84954
G1 X125.19 Y128.63 E125.92005
G1 X125.59 Y128.43 E125.94800
G1 X126.19 Y127.83 E126.00087
G1 X126.59 Y127.63 E126.02881
G1 X127.39 Y126.83 E126.09933
G1 X127.80 Y126.63 E126.12727
G1 X128.59 Y125.83 E126.19778
G1 X134.99 Y122.63 E126.64401
G1 X135.60 Y122.02 E126.69711
G1 X137.54 Y121.54 E126.82193
G1 X139.94 Y120.74 E126.98004
G1 X140.74 Y120.54 E127.03139
G1 X144.12 Y119.41 E127.25372
G1 X149.72 Y118.94 E127.60397
G1 X157.43 Y118.94 E128.08491
G1 X160.44 Y119.19 E128.27296
G1 X161.81 Y119.54 E128.36128
G1 X164.21 Y120.34 E128.51906
G1 X165.01 Y120.54 E128.57041
G1 X168.53 Y121.71 E128.80156
G1 X175.96 Y125.43 E129.31980
G1 X176.16 Y125.63 E129.33744
G1 X176.56 Y125.83 E129.36533
G1 X177.16 Y126.43 E129.41820
G1 X177.56 Y126.63 E129.44615
G1 X178.36 Y127.43 E129.51666
G1 X178.76 Y127.63 E129.54461
G1 X179.36 Y128.23 E129.59748
G1 X179.76 Y128.43 E129.62542
G1 X180.56 Y129.23 E129.69593
G1 X180.96 Y129.43 E129.72388
G1 X184.58 Y133.04 E130.04292
G1 X184.58 Y133.24 E130.05540
G1 X185.38 Y134.04 E130.12595
G1 X185.38 Y134.24 E130.13842
G1 X186.18 Y135.04 E130.20898
G1 X186.18 Y135.24 E130.22145
G1 X186.98 Y136.04 E130.29201
G1 X186.98 Y136.24 E130.30448
G1 X187.78 Y137.04 E130.37503
G1 X187.78 Y137.24 E130.38751
G1 X188.38 Y137.84 E130.44042
G1 X188.38 Y138.04 E130.45290
G1 X188.78 Y138.44 E130.48817
G1 X188.78 Y138.64 E130.50065
G1 X188.98 Y138.84 E130.51829
G1 X188.98 Y139.04 E130.53076
G1 X189.18 Y139.24 E130.54840
G1 X189.18 Y139.44 E130.56087
G1 X189.58 Y139.84 E130.59615
G1 X189.58 Y140.04 E130.60862
G1 X189.78 Y140.24 E130.62626
G1 X189.78 Y140.44 E130.63873
G1 X189.98 Y140.64 E130.65637
G1 X189.98 Y140.84 E130.66884
G1 X190.18 Y141.04 E130.68648
G1 X190.18 Y141.24 E130.69895
G1 X190.58 Y141.64 E130.73423
G1 X190.58 Y141.84 E130.74670
G1 X190.78 Y142.04 E130.76434
G1 X190.78 Y142.24 E130.77682
G1 X190.88 Y142.34 E130.78563
G1 X192.38 Y142.34 E130.87918
G1 X192.38 Y143.55 E130.95451
G1 X192.58 Y143.57 E130.96704
G1 X192.58 Y144.97 E131.05403
G1 X192.98 Y144.97 E131.07898
G1 X192.98 Y147.64 E131.24586
G1 X193.87 Y148.53 E131.32435
G1 X192.98 Y150.68 E131.46929
G1 X192.98 Y151.33 E131.50970
G1 X194.00 Y154.71 E131.73030
G1 X192.98 Y154.71 E131.79435
G1 X192.98 Y155.24 E131.82747
G1 X173.78 Y155.24 E133.02477
G1 X173.96 Y155.43 E133.04082
G1 X175.96 Y156.43 E133.18027
G1 X176.16 Y156.63 E133.19791
G1 X176.56 Y156.83 E133.22580
G1 X177.16 Y157.43 E133.27867
G1 X177.56 Y157.63 E133.30661
G1 X178.36 Y158.43 E133.37712
G1 X178.76 Y158.63 E133.40507
G1 X179.36 Y159.23 E133.45794
G1 X179.76 Y159.43 E133.48589
G1 X180.56 Y160.23 E133.55640
G1 X180.96 Y160.43 E133.58434
G1 X184.78 Y164.24 E133.92103
G1 X184.78 Y164.44 E133.93350
G1 X185.78 Y165.44 E134.02169
G1 X185.78 Y165.64 E134.03416
G1 X186.58 Y166.44 E134.10472
G1 X186.58 Y166.64 E134.11719
G1 X187.58 Y167.64 E134.20539
G1 X187.58 Y167.84 E134.21786
G1 X188.38 Y168.64 E134.28842
G1 X188.38 Y168.84 E134.30089
G1 X188.78 Y169.24 E134.33617
G1 X188.78 Y169.44 E134.34864
G1 X188.98 Y169.64 E134.36628
G1 X188.98 Y169.84 E134.37875
G1 X189.18 Y170.04 E134.39639
G1 X189.18 Y170.24 E134.40886
G1 X189.38 Y170.44 E134.42650
G1 X189.38 Y170.64 E134.43897
G1 X189.58 Y170.84 E134.45661
G1 X189.58 Y171.04 E134.46908
G1 X189.98 Y171.44 E134.50436
G1 X189.98 Y171.64 E134.51683
G1 X190.18 Y171.84 E134.53447
G1 X190.18 Y172.04 E134.54695
G1 X190.38 Y172.24 E134.56458
G1 X190.38 Y172.44 E134.57706
G1 X190.58 Y172.64 E134.59470
G1 X190.58 Y172.84 E134.60717
G1 X190.78 Y173.04 E134.62481
G1 X190.78 Y173.24 E134.63728
G1 X191.18 Y173.64 E134.67256
G1 X191.18 Y173.84 E134.68503
G1 X191.38 Y174.04 E134.70267
G1 X191.38 Y174.24 E134.71514
G1 X191.58 Y174.44 E134.73278
G1 X191.58 Y174.64 E134.74525
G1 X191.78 Y174.84 E134.76289
G1 X191.78 Y175.04 E134.77536
G1 X191.98 Y175.24 E134.79300
G1 X191.98 Y175.44 E134.80548
G1 X192.18 Y175.64 E134.82311
G1 X192.18 Y175.76 E134.83054
G1 X192.98 Y175.77 E134.88043
G1 X192.98 Y178.44 E135.04731
G1 X193.87 Y179.33 E135.12580
G1 X192.98 Y181.48 E135.27074
G1 X192.98 Y182.24 E135.31783
G1 X194.00 Y185.62 E135.53829
G1 X192.98 Y185.62 E135.60227
G1 X192.98 Y186.04 E135.62884
G1 X111.98 Y186.04 E140.68022
G1 X111.98 Y185.62 E140.70679
G1 X111.00 Y185.62 E140.76790
G1 X111.98 Y182.39 E140.97852
G1 X111.98 Y178.64 E141.21188
G1 X112.18 Y178.44 E141.22952
G1 X112.18 Y177.84 E141.26694
G1 X112.38 Y177.64 E141.28458
G1 X112.38 Y177.24 E141.30952
G1 X112.58 Y177.04 E141.32716
G1 X112.58 Y176.44 E141.36458
G1 X112.78 Y176.24 E141.38222
G1 X112.78 Y175.64 E141.41964
G1 X113.18 Y175.24 E141.45492
G1 X113.18 Y175.04 E141.46739
G1 X113.38 Y174.84 E141.48503
G1 X113.38 Y174.64 E141.49750
G1 X113.58 Y174.44 E141.51514
G1 X113.58 Y174.24 E141.52761
G1 X113.78 Y174.04 E141.54525
G1 X113.78 Y173.84 E141.55772
G1 X113.98 Y173.64 E141.57536
G1 X113.98 Y173.44 E141.58783
G1 X114.18 Y173.24 E141.60547
G1 X114.18 Y173.04 E141.61795
G1 X114.38 Y172.84 E141.63558
G1 X114.38 Y172.64 E141.64806
G1 X114.58 Y172.44 E141.66570
G1 X114.58 Y172.24 E141.67817
G1 X114.78 Y172.04 E141.69581
G1 X114.78 Y171.84 E141.70828
G1 X114.98 Y171.64 E141.72592
G1 X114.98 Y171.44 E141.73839
G1 X115.18 Y171.24 E141.75603
G1 X115.18 Y171.04 E141.76850
G1 X115.38 Y170.84 E141.78614
G1 X115.38 Y170.64 E141.79861
G1 X115.58 Y170.44 E141.81625
G1 X115.58 Y170.24 E141.82872
G1 X115.78 Y170.04 E141.84636
G1 X115.78 Y169.84 E141.85884
G1 X115.98 Y169.64 E141.87648
G1 X115.98 Y169.44 E141.88895
G1 X116.18 Y169.24 E141.90659
G1 X116.18 Y169.04 E141.91906
G1 X117.38 Y167.84 E142.02489
G1 X117.38 Y167.64 E142.03736
G1 X118.58 Y166.44 E142.14320
G1 X118.58 Y166.24 E142.15567
G1 X119.78 Y165.04 E142.26150
G1 X119.78 Y164.84 E142.27398
G1 X120.98 Y163.64 E142.37981
G1 X120.98 Y162.43 E142.45533
G1 X123.39 Y161.23 E142.62381
G1 X123.99 Y160.63 E142.67673
G1 X124.39 Y160.43 E142.70467
G1 X125.19 Y159.63 E142.77518
G1 X125.59 Y159.43 E142.80313
G1 X126.19 Y158.83 E142.85600
G1 X126.59 Y158.63 E142.88395
G1 X127.39 Y157.83 E142.95446
G1 X127.80 Y157.63 E142.98240
G1 X128.59 Y156.83 E143.05291
G1 X130.59 Y155.83 E143.19236
G1 X130.79 Y155.63 E143.21000
G1 X131.56 Y155.24 E143.26327
G1 X111.98 Y155.24 E144.48439
G1 X111.98 Y154.71 E144.51751
G1 X111.00 Y154.71 E144.57863
G1 X111.98 Y151.48 E144.78924
G1 X111.98 Y147.84 E145.01606
G1 X112.18 Y147.64 E145.03370
G1 X112.18 Y147.04 E145.07111
G1 X112.38 Y146.84 E145.08875
G1 X112.38 Y146.24 E145.12617
G1 X112.58 Y146.04 E145.14381
G1 X112.58 Y145.44 E145.18123
G1 X112.78 Y145.24 E145.19887
G1 X112.78 Y144.64 E145.23628
G1 X113.18 Y144.24 E145.27156
G1 X113.18 Y144.04 E145.28403
G1 X113.38 Y143.84 E145.30167
G1 X113.38 Y143.64 E145.31414
G1 X113.58 Y143.44 E145.33178
G1 X113.58 Y143.24 E145.34426
G1 X113.78 Y143.04 E145.36189
G1 X113.78 Y142.84 E145.37437
G1 X113.98 Y142.64 E145.39201
G1 X113.98 Y142.44 E145.40448
G1 X114.18 Y142.24 E145.42212
G1 X114.18 Y142.04 E145.43459
G1 X114.38 Y141.84 E145.45223
G1 X114.38 Y141.64 E145.46470
G1 X114.78 Y141.24 E145.49998
G1 X114.78 Y141.04 E145.51245
G1 X114.98 Y140.84 E145.53009
G1 X114.98 Y140.64 E145.54256
G1 X115.18 Y140.44 E145.56020
G1 X115.18 Y140.24 E145.57267
G1 X115.38 Y140.04 E145.59031
G1 X115.38 Y139.84 E145.60279
G1 X115.58 Y139.64 E145.62042
G1 X115.58 Y139.44 E145.63290
G1 X115.78 Y139.24 E145.65054
G1 X115.78 Y139.04 E145.66301
G1 X115.98 Y138.84 E145.68065
G1 X115.98 Y138.64 E145.69312
G1 X116.18 Y138.44 E145.71076
G1 X116.18 Y138.24 E145.72323
G1 X117.18 Y137.24 E145.81143
G1 X117.18 Y137.04 E145.82390
G1 X118.18 Y136.04 E145.91209
G1 X118.18 Y135.84 E145.92457
G1 X119.18 Y134.84 E146.01276
G1 X119.18 Y134.64 E146.02523
G1 X120.18 Y133.64 E146.11343
G1 X120.18 Y133.44 E146.12590
G1 X120.98 Y132.64 E146.19645
G1 X120.98 Y131.43 E146.27198
G0 F6000 X121.48 Y131.74
G1 F2700 X123.69 Y130.64 E146.42629
G1 X124.29 Y130.04 E146.47920
G1 X124.69 Y129.84 E146.50701
G1 X125.49 Y129.04 E146.57765
G1 X125.89 Y128.84 E146.60546
G1 X126.49 Y128.24 E146.65846
G1 X126.89 Y128.04 E146.68627
G1 X127.69 Y127.24 E146.75691
G1 X128.09 Y127.04 E146.78472
G1 X128.89 Y126.24 E146.85536
G1 X135.29 Y123.04 E147.30151
G1 X135.85 Y122.48 E147.35108
G1 X137.69 Y122.02 E147.46898
G1 X140.08 Y121.22 E147.62649
G1 X140.89 Y121.02 E147.67837
G1 X144.22 Y119.90 E147.89768
G1 X149.74 Y119.44 E148.24293
G1 X157.41 Y119.44 E148.72125
G1 X160.36 Y119.69 E148.90548
G1 X161.67 Y120.02 E148.99007
G1 X164.06 Y120.82 E149.14733
G1 X164.87 Y121.02 E149.19927
G1 X168.34 Y122.17 E149.42693
G1 X175.66 Y125.84 E149.93786
G1 X175.86 Y126.04 E149.95554
G1 X176.26 Y126.24 E149.98338
G1 X176.86 Y126.84 E150.03638
G1 X177.26 Y127.04 E150.06419
G1 X178.06 Y127.84 E150.13483
G1 X178.46 Y128.04 E150.16264
G1 X179.06 Y128.64 E150.21564
G1 X179.46 Y128.84 E150.24345
G1 X180.26 Y129.64 E150.31409
G1 X180.66 Y129.84 E150.34190
G1 X184.08 Y133.25 E150.64299
G1 X184.08 Y133.45 E150.65546
G1 X184.88 Y134.25 E150.72602
G1 X184.88 Y134.45 E150.73849
G1 X185.68 Y135.25 E150.80905
G1 X185.68 Y135.45 E150.82152
G1 X186.48 Y136.25 E150.89208
G1 X186.48 Y136.45 E150.90455
G1 X187.28 Y137.25 E150.97510
G1 X187.28 Y137.45 E150.98758
G1 X187.88 Y138.05 E151.04049
G1 X187.88 Y138.25 E151.05297
G1 X188.28 Y138.65 E151.08824
G1 X188.28 Y138.85 E151.10072
G1 X188.48 Y139.05 E151.11835
G1 X188.48 Y139.25 E151.13083
G1 X188.68 Y139.45 E151.14847
G1 X188.68 Y139.65 E151.16094
G1 X189.08 Y140.05 E151.19622
G1 X189.08 Y140.25 E151.20869
G1 X189.28 Y140.45 E151.22633
G1 X189.28 Y140.65 E151.23880
G1 X189.48 Y140.85 E151.25644
G1 X189.48 Y141.05 E151.26891
G1 X189.68 Y141.25 E151.28655
G1 X189.68 Y141.45 E151.29902
G1 X190.08 Y141.85 E151.33430
G1 X190.08 Y142.05 E151.34677
G1 X190.28 Y142.25 E151.36441
G1 X190.28 Y142.45 E151.37689
G1 X190.48 Y142.65 E151.39452
G1 X190.48 Y142.84 E151.40656
G1 X191.88 Y142.84 E151.49387
G1 X191.88 Y144.01 E151.56652
G1 X192.08 Y144.03 E151.57904
G1 X192.08 Y145.46 E151.66860
G1 X192.48 Y145.47 E151.69354
G1 X192.48 Y147.85 E151.84234
G1 X193.28 Y148.65 E151.91289
G1 X192.48 Y150.58 E152.04313
G1 X192.48 Y151.40 E152.09451
G1 X193.33 Y154.21 E152.27757
G1 X192.48 Y154.21 E152.33070
G1 X192.48 Y154.74 E152.36382
G1 X171.68 Y154.74 E153.66096
G1 X173.46 Y155.64 E153.78549
G1 X173.66 Y155.84 E153.80317
G1 X175.66 Y156.84 E153.94257
G1 X175.86 Y157.04 E153.96025
G1 X176.26 Y157.24 E153.98808
G1 X176.86 Y157.84 E154.04109
G1 X177.26 Y158.04 E154.06889
G1 X178.06 Y158.84 E154.13954
G1 X178.46 Y159.04 E154.16734
G1 X179.06 Y159.64 E154.22035
G1 X179.46 Y159.84 E154.24815
G1 X180.26 Y160.64 E154.31880
G1 X180.66 Y160.84 E154.34660
G1 X184.28 Y164.45 E154.66534
G1 X184.28 Y164.65 E154.67781
G1 X185.28 Y165.65 E154.76600
G1 X185.28 Y165.85 E154.77848
G1 X186.08 Y166.65 E154.84903
G1 X186.08 Y166.85 E154.86150
G1 X187.08 Y167.85 E154.94970
G1 X187.08 Y168.05 E154.96217
G1 X187.88 Y168.85 E155.03273
G1 X187.88 Y169.05 E155.04520
G1 X188.28 Y169.45 E155.08048
G1 X188.28 Y169.65 E155.09295
G1 X188.48 Y169.85 E155.11059
G1 X188.48 Y170.05 E155.12306
G1 X188.68 Y170.25 E155.14070
G1 X188.68 Y170.45 E155.15317
G1 X188.88 Y170.65 E155.17081
G1 X188.88 Y170.85 E155.18328
G1 X189.08 Y171.05 E155.20092
G1 X189.08 Y171.25 E155.21339
G1 X189.48 Y171.65 E155.24867
G1 X189.48 Y171.85 E155.26114
G1 X189.68 Y172.05 E155.27878
G1 X189.68 Y172.25 E155.29126
G1 X189.88 Y172.45 E155.30890
G1 X189.88 Y172.65 E155.32137
G1 X190.08 Y172.85 E155.33901
G1 X190.08 Y173.05 E155.35148
G1 X190.28 Y173.25 E155.36912
G1 X190.28 Y173.45 E155.38159
G1 X190.68 Y173.85 E155.41687
G1 X190.68 Y174.05 E155.42934
G1 X190.88 Y174.25 E155.44698
G1 X190.88 Y174.45 E155.45945
G1 X191.08 Y174.65 E155.47709
G1 X191.08 Y174.85 E155.48956
G1 X191.28 Y175.05 E155.50720
G1 X191.28 Y175.25 E155.51967
G1 X191.48 Y175.45 E155.53731
G1 X191.48 Y175.65 E155.54979
G1 X191.68 Y175.85 E155.56743
G1 X191.68 Y176.25 E155.59237
G1 X191.69 Y176.26 E155.59325
G1 X192.48 Y176.26 E155.64252
G1 X192.48 Y178.65 E155.79132
G1 X193.28 Y179.45 E155.86187
G1 X192.48 Y181.38 E155.99211
G1 X192.48 Y182.31 E156.05004
G1 X193.33 Y185.12 E156.23310
G1 X192.48 Y185.12 E156.28623
G1 X192.48 Y185.54 E156.31280
G1 X112.48 Y185.54 E161.30182
G1 X112.48 Y185.12 E161.32838
G1 X111.67 Y185.12 E161.37865
G1 X112.48 Y182.46 E161.55180
G1 X112.48 Y178.85 E161.77693
G1 X112.68 Y178.65 E161.79457
G1 X112.68 Y178.05 E161.83199
G1 X112.88 Y177.85 E161.84963
G1 X112.88 Y177.45 E161.87457
G1 X113.08 Y177.25 E161.89221
G1 X113.08 Y176.65 E161.92963
G1 X113.28 Y176.45 E161.94727
G1 X113.28 Y175.85 E161.98469
G1 X113.68 Y175.45 E162.01996
G1 X113.68 Y175.25 E162.03244
G1 X113.88 Y175.05 E162.05007
G1 X113.88 Y174.85 E162.06255
G1 X114.08 Y174.65 E162.08019
G1 X114.08 Y174.45 E162.09266
G1 X114.28 Y174.25 E162.11030
G1 X114.28 Y174.05 E162.12277
G1 X114.48 Y173.85 E162.14041
G1 X114.48 Y173.65 E162.15288
G1 X114.68 Y173.45 E162.17052
G1 X114.68 Y173.25 E162.18299
G1 X114.88 Y173.05 E162.20063
G1 X114.88 Y172.85 E162.21310
G1 X115.08 Y172.65 E162.23074
G1 X115.08 Y172.45 E162.24322
G1 X115.28 Y172.25 E162.26085
G1 X115.28 Y172.05 E162.27333
G1 X115.48 Y171.85 E162.29097
G1 X115.48 Y171.65 E162.30344
G1 X115.68 Y171.45 E162.32108
G1 X115.68 Y171.25 E162.33355
G1 X115.88 Y171.05 E162.35119
G1 X115.88 Y170.85 E162.36366
G1 X116.08 Y170.65 E162.38130
G1 X116.08 Y170.45 E162.39377
G1 X116.28 Y170.25 E162.41141
G1 X116.28 Y170.05 E162.42388
G1 X116.48 Y169.85 E162.44152
G1 X116.48 Y169.65 E162.45400
G1 X116.68 Y169.45 E162.47163
G1 X116.68 Y169.25 E162.48411
G1 X117.88 Y168.05 E162.58998
G1 X117.88 Y167.85 E162.60239
G1 X119.08 Y166.65 E162.70827
G1 X119.08 Y166.45 E162.72068
G1 X120.28 Y165.25 E162.82656
G1 X120.28 Y165.05 E162.83897
G1 X121.48 Y163.85 E162.94485
G1 X121.48 Y162.74 E163.01394
G1 X123.69 Y161.64 E163.16826
G1 X124.29 Y161.04 E163.22117
G1 X124.69 Y160.84 E163.24898
G1 X125.49 Y160.04 E163.31962
G1 X125.89 Y159.84 E163.34743
G1 X126.49 Y159.24 E163.40043
G1 X126.89 Y159.04 E163.42824
G1 X127.69 Y158.24 E163.49888
G1 X128.09 Y158.04 E163.52669
G1 X128.89 Y157.24 E163.59733
G1 X130.89 Y156.24 E163.73672
G1 X131.09 Y156.04 E163.75441
G1 X133.09 Y155.04 E163.89380
G1 X133.29 Y154.84 E163.91148
G1 X133.48 Y154.74 E163.92445
G1 X112.48 Y154.74 E165.23407
G1 X112.48 Y154.21 E165.26718
G1 X111.67 Y154.21 E165.31745
G1 X112.48 Y151.56 E165.49060
G1 X112.48 Y148.05 E165.70918
G1 X112.68 Y147.85 E165.72682
G1 X112.68 Y147.25 E165.76424
G1 X112.88 Y147.05 E165.78188
G1 X112.88 Y146.45 E165.81929
G1 X113.08 Y146.25 E165.83693
G1 X113.08 Y145.65 E165.87435
G1 X113.28 Y145.45 E165.89199
G1 X113.28 Y144.85 E165.92941
G1 X113.68 Y144.45 E165.96469
G1 X113.68 Y144.25 E165.97716
G1 X113.88 Y144.05 E165.99480
G1 X113.88 Y143.85 E166.00727
G1 X114.08 Y143.65 E166.02491
G1 X114.08 Y143.45 E166.03738
G1 X114.28 Y143.25 E166.05502
G1 X114.28 Y143.05 E166.06749
G1 X114.48 Y142.85 E166.08513
G1 X114.48 Y142.65 E166.09760
G1 X114.68 Y142.45 E166.11524
G1 X114.68 Y142.25 E166.12771
G1 X114.88 Y142.05 E166.14535
G1 X114.88 Y141.85 E166.15783
G1 X115.28 Y141.45 E166.19310
G1 X115.28 Y141.25 E166.20558
G1 X115.48 Y141.05 E166.22322
G1 X115.48 Y140.85 E166.23569
G1 X115.68 Y140.65 E166.25333
G1 X115.68 Y140.45 E166.26580
G1 X115.88 Y140.25 E166.28344
G1 X115.88 Y140.05 E166.29591
G1 X116.08 Y139.85 E166.31355
G1 X116.08 Y139.65 E166.32602
G1 X116.28 Y139.45 E166.34366
G1 X116.28 Y139.25 E166.35613
G1 X116.48 Y139.05 E166.37377
G1 X116.48 Y138.85 E166.38625
G1 X116.68 Y138.65 E166.40388
G1 X116.68 Y138.45 E166.41636
G1 X117.68 Y137.45 E166.50455
G1 X117.68 Y137.25 E166.51702
G1 X118.68 Y136.25 E166.60522
G1 X118.68 Y136.05 E166.61769
G1 X119.68 Y135.05 E166.70588
G1 X119.68 Y134.85 E166.71836
G1 X120.68 Y133.85 E166.80655
G1 X120.68 Y133.65 E166.81902
G1 X121.48 Y132.85 E166.88958
G1 X121.48 Y131.74 E166.95874
G0 F6000 X121.98 Y132.05
G1 F2700 X123.99 Y131.05 E167.09900
G1 X124.59 Y130.45 E167.15174
G1 X124.99 Y130.25 E167.17963
G1 X125.79 Y129.45 E167.25018
G1 X126.19 Y129.25 E167.27807
G1 X126.79 Y128.65 E167.33099
G1 X127.19 Y128.45 E167.35888
G1 X127.99 Y127.65 E167.42943
G1 X128.39 Y127.45 E167.45732
G1 X129.19 Y126.65 E167.52788
G1 X135.59 Y123.45 E167.97405
G1 X136.11 Y122.93 E168.02000
G1 X137.82 Y122.50 E168.13017
G1 X140.22 Y121.70 E168.28802
G1 X141.02 Y121.50 E168.33937
G1 X144.33 Y120.40 E168.55669
G1 X149.76 Y119.94 E168.89687
G1 X157.39 Y119.94 E169.37257
G1 X160.27 Y120.18 E169.55299
G1 X161.53 Y120.50 E169.63385
G1 X163.94 Y121.30 E169.79195
G1 X164.73 Y121.50 E169.84304
G1 X168.14 Y122.64 E170.06729
G1 X175.37 Y126.25 E170.57097
G1 X175.57 Y126.45 E170.58861
G1 X175.97 Y126.65 E170.61650
G1 X176.57 Y127.25 E170.66942
G1 X176.97 Y127.45 E170.69731
G1 X177.77 Y128.25 E170.76786
G1 X178.17 Y128.45 E170.79575
G1 X178.77 Y129.05 E170.84867
G1 X179.17 Y129.25 E170.87656
G1 X179.97 Y130.05 E170.94711
G1 X180.37 Y130.25 E170.97500
G1 X183.58 Y133.46 E171.25811
G1 X183.58 Y133.66 E171.27058
G1 X184.38 Y134.46 E171.34113
G1 X184.38 Y134.66 E171.35361
G1 X185.18 Y135.46 E171.42416
G1 X185.18 Y135.66 E171.43663
G1 X185.98 Y136.46 E171.50719
G1 X185.98 Y136.66 E171.51966
G1 X186.78 Y137.46 E171.59022
G1 X186.78 Y137.66 E171.60269
G1 X187.38 Y138.26 E171.65561
G1 X187.38 Y138.46 E171.66808
G1 X187.78 Y138.86 E171.70336
G1 X187.78 Y139.06 E171.71583
G1 X187.98 Y139.26 E171.73347
G1 X187.98 Y139.46 E171.74594
G1 X188.18 Y139.66 E171.76358
G1 X188.18 Y139.86 E171.77605
G1 X188.58 Y140.26 E171.81133
G1 X188.58 Y140.46 E171.82380
G1 X188.78 Y140.66 E171.84144
G1 X188.78 Y140.86 E171.85391
G1 X188.98 Y141.06 E171.87155
G1 X188.98 Y141.26 E171.88402
G1 X189.18 Y141.46 E171.90166
G1 X189.18 Y141.66 E171.91414
G1 X189.58 Y142.06 E171.94941
G1 X189.58 Y142.26 E171.96189
G1 X189.78 Y142.46 E171.97953
G1 X189.78 Y142.66 E171.99200
G1 X189.98 Y142.86 E172.00964
G1 X189.98 Y143.06 E172.02211
G1 X190.26 Y143.34 E172.04733
G1 X191.38 Y143.34 E172.11681
G1 X191.38 Y144.47 E172.18678
G1 X191.58 Y144.48 E172.19930
G1 X191.58 Y145.96 E172.29135
G1 X191.98 Y145.96 E172.31629
G1 X191.98 Y148.06 E172.44700
G1 X192.69 Y148.77 E172.50962
G1 X191.98 Y150.48 E172.62520
G1 X191.98 Y151.48 E172.68744
G1 X192.66 Y153.71 E172.83310
G1 X191.98 Y153.71 E172.87538
G1 X191.98 Y154.24 E172.90849
G1 X169.76 Y154.24 E174.29407
G1 X170.97 Y154.85 E174.37829
G1 X171.17 Y155.05 E174.39593
G1 X173.17 Y156.05 E174.53538
G1 X173.37 Y156.25 E174.55302
G1 X175.37 Y157.25 E174.69247
G1 X175.57 Y157.45 E174.71011
G1 X175.97 Y157.65 E174.73799
G1 X176.57 Y158.25 E174.79091
G1 X176.97 Y158.45 E174.81880
G1 X177.77 Y159.25 E174.88936
G1 X178.17 Y159.45 E174.91725
G1 X178.77 Y160.05 E174.97016
G1 X179.17 Y160.25 E174.99805
G1 X179.97 Y161.05 E175.06861
G1 X180.37 Y161.25 E175.09650
G1 X183.78 Y164.66 E175.39724
G1 X183.78 Y164.86 E175.40971
G1 X184.78 Y165.86 E175.49791
G1 X184.78 Y166.06 E175.51038
G1 X185.58 Y166.86 E175.58093
G1 X185.58 Y167.06 E175.59341
G1 X186.58 Y168.06 E175.68160
G1 X186.58 Y168.26 E175.69407
G1 X187.38 Y169.06 E175.76463
G1 X187.38 Y169.26 E175.77710
G1 X187.78 Y169.66 E175.81238
G1 X187.78 Y169.86 E175.82485
G1 X187.98 Y170.06 E175.84249
G1 X187.98 Y170.26 E175.85496
G1 X188.18 Y170.46 E175.87260
G1 X188.18 Y170.66 E175.88507
G1 X188.38 Y170.86 E175.90271
G1 X188.38 Y171.06 E175.91519
G1 X188.58 Y171.26 E175.93282
G1 X188.58 Y171.46 E175.94530
G1 X188.98 Y171.86 E175.98057
G1 X188.98 Y172.06 E175.99305
G1 X189.18 Y172.26 E176.01069
G1 X189.18 Y172.46 E176.02316
G1 X189.38 Y172.66 E176.04080
G1 X189.38 Y172.86 E176.05327
G1 X189.58 Y173.06 E176.07091
G1 X189.58 Y173.26 E176.08338
G1 X189.78 Y173.46 E176.10102
G1 X189.78 Y173.66 E176.11349
G1 X190.18 Y174.06 E176.14877
G1 X190.18 Y174.26 E176.16124
G1 X190.38 Y174.46 E176.17888
G1 X190.38 Y174.66 E176.19135
G1 X190.58 Y174.86 E176.20899
G1 X190.58 Y175.06 E176.22147
G1 X190.78 Y175.26 E176.23910
G1 X190.78 Y175.46 E176.25158
G1 X190.98 Y175.66 E176.26922
G1 X190.98 Y175.86 E176.28169
G1 X191.18 Y176.06 E176.29933
G1 X191.18 Y176.46 E176.32427
G1 X191.38 Y176.66 E176.34191
G1 X191.38 Y176.76 E176.34821
G1 X191.98 Y176.76 E176.38563
G1 X191.98 Y178.86 E176.51634
G1 X192.69 Y179.57 E176.57896
G1 X191.98 Y181.28 E176.69454
G1 X191.98 Y182.38 E176.76333
G1 X192.66 Y184.62 E176.90898
G1 X191.98 Y184.62 E176.95126
G1 X191.98 Y185.04 E176.97783
G1 X112.98 Y185.04 E181.90449
G1 X112.98 Y184.62 E181.93105
G1 X112.34 Y184.62 E181.97047
G1 X112.98 Y182.53 E182.10627
G1 X112.98 Y179.06 E182.32305
G1 X113.18 Y178.86 E182.34069
G1 X113.18 Y178.26 E182.37810
G1 X113.38 Y178.06 E182.39574
G1 X113.38 Y177.66 E182.42069
G1 X113.58 Y177.46 E182.43833
G1 X113.58 Y176.86 E182.47574
G1 X113.78 Y176.66 E182.49338
G1 X113.78 Y176.06 E182.53080
G1 X114.18 Y175.66 E182.56608
G1 X114.18 Y175.46 E182.57855
G1 X114.38 Y175.26 E182.59619
G1 X114.38 Y175.06 E182.60866
G1 X114.58 Y174.86 E182.62630
G1 X114.58 Y174.66 E182.63877
G1 X114.78 Y174.46 E182.65641
G1 X114.78 Y174.26 E182.66888
G1 X114.98 Y174.06 E182.68652
G1 X114.98 Y173.86 E182.69900
G1 X115.18 Y173.66 E182.71664
G1 X115.18 Y173.46 E182.72911
G1 X115.38 Y173.26 E182.74675
G1 X115.38 Y173.06 E182.75922
G1 X115.58 Y172.86 E182.77686
G1 X115.58 Y172.66 E182.78933
G1 X115.78 Y172.46 E182.80697
G1 X115.78 Y172.26 E182.81944
G1 X115.98 Y172.06 E182.83708
G1 X115.98 Y171.86 E182.84955
G1 X116.18 Y171.66 E182.86719
G1 X116.18 Y171.46 E182.87966
G1 X116.38 Y171.26 E182.89730
G1 X116.38 Y171.06 E182.90978
G1 X116.58 Y170.86 E182.92741
G1 X116.58 Y170.66 E182.93989
G1 X116.78 Y170.46 E182.95753
G1 X116.78 Y170.26 E182.97000
G1 X116.98 Y170.06 E182.98764
G1 X116.98 Y169.86 E183.00011
G1 X117.18 Y169.66 E183.01775
G1 X117.18 Y169.46 E183.03022
G1 X118.38 Y168.26 E183.13605
G1 X118.38 Y168.06 E183.14853
G1 X119.58 Y166.86 E183.25436
G1 X119.58 Y166.66 E183.26683
G1 X120.78 Y165.46 E183.37267
G1 X120.78 Y165.26 E183.38514
G1 X121.98 Y164.06 E183.49097
G1 X121.98 Y163.05 E183.55377
G1 X123.99 Y162.05 E183.69403
G1 X124.59 Y161.45 E183.74677
G1 X124.99 Y161.25 E183.77466
G1 X125.79 Y160.45 E183.84521
G1 X126.19 Y160.25 E183.87310
G1 X126.79 Y159.65 E183.92602
G1 X127.19 Y159.45 E183.95391
G1 X127.99 Y158.65 E184.02446
G1 X128.39 Y158.45 E184.05235
G1 X129.19 Y157.65 E184.12291
G1 X131.19 Y156.65 E184.26236
G1 X131.39 Y156.45 E184.27999
G1 X133.39 Y155.45 E184.41944
G1 X133.59 Y155.25 E184.43708
G1 X135.59 Y154.25 E184.57647
G1 X135.59 Y154.24 E184.57687
G1 X112.98 Y154.24 E185.98714
G1 X112.98 Y153.71 E186.02026
G1 X112.34 Y153.71 E186.05967
G1 X112.98 Y151.63 E186.19542
G1 X112.98 Y148.26 E186.40571
G1 X113.18 Y148.06 E186.42335
G1 X113.18 Y147.46 E186.46076
G1 X113.38 Y147.26 E186.47840
G1 X113.38 Y146.66 E186.51582
G1 X113.58 Y146.46 E186.53346
G1 X113.58 Y145.86 E186.57088
G1 X113.78 Y145.66 E186.58852
G1 X113.78 Y145.06 E186.62593
G1 X114.18 Y144.66 E186.66121
G1 X114.18 Y144.46 E186.67368
G1 X114.38 Y144.26 E186.69132
G1 X114.38 Y144.06 E186.70379
G1 X114.58 Y143.86 E186.72143
G1 X114.58 Y143.66 E186.73391
G1 X114.78 Y143.46 E186.75154
G1 X114.78 Y143.26 E186.76402
G1 X114.98 Y143.06 E186.78166
G1 X114.98 Y142.86 E186.79413
G1 X115.18 Y142.66 E186.81177
G1 X115.18 Y142.46 E186.82424
G1 X115.38 Y142.26 E186.84188
G1 X115.38 Y142.06 E186.85435
G1 X115.78 Y141.66 E186.88963
G1 X115.78 Y141.46 E186.90210
G1 X115.98 Y141.26 E186.91974
G1 X115.98 Y141.06 E186.93221
G1 X116.18 Y140.86 E186.94985
G1 X116.18 Y140.66 E186.96232
G1 X116.38 Y140.46 E186.97996
G1 X116.38 Y140.26 E186.99244
G1 X116.58 Y140.06 E187.01007
G1 X116.58 Y139.86 E187.02255
G1 X116.78 Y139.66 E187.04019
G1 X116.78 Y139.46 E187.05266
G1 X116.98 Y139.26 E187.07030
G1 X116.98 Y139.06 E187.08277
G1 X117.18 Y138.86 E187.10041
G1 X117.18 Y138.66 E187.11288
G1 X118.18 Y137.66 E187.20108
G1 X118.18 Y137.46 E187.21355
G1 X119.18 Y136.46 E187.30174
G1 X119.18 Y136.26 E187.31422
G1 X120.18 Y135.26 E187.40241
G1 X120.18 Y135.06 E187.41488
G1 X121.18 Y134.06 E187.50308
G1 X121.18 Y133.86 E187.51555
G1 X121.98 Y133.06 E187.58610
G1 X121.98 Y132.05 E187.64890
G0 F6000 X122.48 Y132.36
G1 F2700 X124.28 Y131.46 E187.77469
G1 X124.88 Y130.86 E187.82769
G1 X125.28 Y130.66 E187.85552
G1 X126.08 Y129.86 E187.92612
G1 X126.48 Y129.66 E187.95396
G1 X127.08 Y129.06 E188.00692
G1 X127.48 Y128.86 E188.03475
G1 X128.28 Y128.06 E188.10535
G1 X128.68 Y127.86 E188.13318
G1 X129.48 Y127.06 E188.20378
G1 X135.88 Y123.86 E188.65002
G1 X136.36 Y123.38 E188.69235
G1 X137.96 Y122.98 E188.79514
G1 X140.36 Y122.18 E188.95291
G1 X141.16 Y121.98 E189.00400
G1 X144.43 Y120.89 E189.21903
G1 X149.78 Y120.44 E189.55421
G1 X157.37 Y120.44 E190.02729
G1 X160.19 Y120.68 E190.20389
G1 X161.39 Y120.98 E190.28103
G1 X163.80 Y121.78 E190.43913
G1 X164.59 Y121.98 E190.49022
G1 X167.95 Y123.10 E190.71103
G1 X175.07 Y126.66 E191.20747
G1 X175.27 Y126.86 E191.22511
G1 X175.67 Y127.06 E191.25299
G1 X176.27 Y127.66 E191.30596
G1 X176.67 Y127.86 E191.33379
G1 X177.47 Y128.66 E191.40439
G1 X177.87 Y128.86 E191.43222
G1 X178.47 Y129.46 E191.48518
G1 X178.87 Y129.66 E191.51302
G1 X179.67 Y130.46 E191.58362
G1 X180.07 Y130.66 E191.61145
G1 X183.08 Y133.66 E191.87656
G1 X183.08 Y133.87 E191.88903
G1 X183.88 Y134.66 E191.95959
G1 X183.88 Y134.87 E191.97206
G1 X184.68 Y135.66 E192.04262
G1 X184.68 Y135.87 E192.05509
G1 X185.48 Y136.66 E192.12565
G1 X185.48 Y136.87 E192.13812
G1 X186.28 Y137.66 E192.20867
G1 X186.28 Y137.87 E192.22115
G1 X186.88 Y138.47 E192.27406
G1 X186.88 Y138.66 E192.28654
G1 X187.28 Y139.06 E192.32181
G1 X187.28 Y139.26 E192.33429
G1 X187.48 Y139.47 E192.35192
G1 X187.48 Y139.66 E192.36440
G1 X187.68 Y139.87 E192.38204
G1 X187.68 Y140.06 E192.39451
G1 X188.08 Y140.47 E192.42979
G1 X188.08 Y140.66 E192.44226
G1 X188.28 Y140.87 E192.45990
G1 X188.28 Y141.06 E192.47237
G1 X188.48 Y141.26 E192.49001
G1 X188.48 Y141.47 E192.50248
G1 X188.68 Y141.66 E192.52012
G1 X188.68 Y141.87 E192.53259
G1 X189.08 Y142.26 E192.56787
G1 X189.08 Y142.47 E192.58034
G1 X189.28 Y142.66 E192.59798
G1 X189.28 Y142.87 E192.61045
G1 X189.48 Y143.06 E192.62809
G1 X189.48 Y143.26 E192.64057
G1 X189.88 Y143.66 E192.67584
G1 X189.88 Y143.84 E192.68701
G1 X190.88 Y143.84 E192.74937
G1 X190.88 Y144.92 E192.81666
G1 X191.08 Y144.94 E192.82918
G1 X191.08 Y146.46 E192.92379
G1 X191.48 Y146.46 E192.94873
G1 X191.48 Y148.26 E193.06130
G1 X192.10 Y148.88 E193.11598
G1 X191.48 Y150.38 E193.21691
G1 X191.48 Y151.55 E193.29000
G1 X191.98 Y153.21 E193.39825
G1 X191.48 Y153.21 E193.42968
G1 X191.48 Y153.74 E193.46279
G1 X167.49 Y153.74 E194.95887
G1 X167.95 Y153.90 E194.98944
G1 X170.67 Y155.26 E195.17903
G1 X170.87 Y155.46 E195.19667
G1 X172.87 Y156.46 E195.33612
G1 X173.07 Y156.66 E195.35376
G1 X175.07 Y157.66 E195.49321
G1 X175.27 Y157.86 E195.51084
G1 X175.67 Y158.06 E195.53873
G1 X176.27 Y158.66 E195.59170
G1 X176.67 Y158.86 E195.61953
G1 X177.47 Y159.66 E195.69013
G1 X177.87 Y159.86 E195.71796
G1 X178.47 Y160.46 E195.77092
G1 X178.87 Y160.66 E195.79876
G1 X179.67 Y161.46 E195.86936
G1 X180.07 Y161.66 E195.89719
G1 X183.28 Y164.87 E196.17994
G1 X183.28 Y165.06 E196.19235
G1 X184.28 Y166.06 E196.28059
G1 X184.28 Y166.26 E196.29306
G1 X185.08 Y167.06 E196.36362
G1 X185.08 Y167.26 E196.37603
G1 X186.08 Y168.26 E196.46427
G1 X186.08 Y168.47 E196.47674
G1 X186.88 Y169.26 E196.54729
G1 X186.88 Y169.47 E196.55977
G1 X187.28 Y169.87 E196.59504
G1 X187.28 Y170.06 E196.60752
G1 X187.48 Y170.26 E196.62516
G1 X187.48 Y170.47 E196.63763
G1 X187.68 Y170.66 E196.65527
G1 X187.68 Y170.87 E196.66774
G1 X187.88 Y171.06 E196.68538
G1 X187.88 Y171.26 E196.69785
G1 X188.08 Y171.47 E196.71549
G1 X188.08 Y171.66 E196.72796
G1 X188.48 Y172.06 E196.76324
G1 X188.48 Y172.26 E196.77571
G1 X188.68 Y172.47 E196.79335
G1 X188.68 Y172.66 E196.80582
G1 X188.88 Y172.87 E196.82346
G1 X188.88 Y173.06 E196.83593
G1 X189.08 Y173.26 E196.85357
G1 X189.08 Y173.47 E196.86605
G1 X189.28 Y173.66 E196.88369
G1 X189.28 Y173.87 E196.89616
G1 X189.68 Y174.26 E196.93144
G1 X189.68 Y174.47 E196.94391
G1 X189.88 Y174.66 E196.96155
G1 X189.88 Y174.87 E196.97402
G1 X190.08 Y175.06 E196.99166
G1 X190.08 Y175.26 E197.00413
G1 X190.28 Y175.47 E197.02177
G1 X190.28 Y175.66 E197.03424
G1 X190.48 Y175.87 E197.05188
G1 X190.48 Y176.06 E197.06435
G1 X190.68 Y176.26 E197.08199
G1 X190.68 Y176.66 E197.10694
G1 X190.88 Y176.87 E197.12458
G1 X190.88 Y177.26 E197.14902
G1 X191.48 Y177.26 E197.18644
G1 X191.48 Y179.06 E197.29901
G1 X192.10 Y179.69 E197.35369
G1 X191.48 Y181.18 E197.45462
G1 X191.48 Y182.46 E197.53419
G1 X191.98 Y184.12 E197.64250
G1 X191.48 Y184.12 E197.67393
G1 X191.48 Y184.54 E197.70050
G1 X113.48 Y184.54 E202.56479
G1 X113.48 Y184.12 E202.59136
G1 X113.02 Y184.12 E202.61992
G1 X113.48 Y182.61 E202.71833
G1 X113.48 Y179.26 E202.92680
G1 X113.68 Y179.06 E202.94444
G1 X113.68 Y178.47 E202.98186
G1 X113.88 Y178.26 E202.99950
G1 X113.88 Y177.87 E203.02444
G1 X114.08 Y177.66 E203.04208
G1 X114.08 Y177.06 E203.07950
G1 X114.28 Y176.87 E203.09714
G1 X114.28 Y176.26 E203.13456
G1 X114.68 Y175.87 E203.16984
G1 X114.68 Y175.66 E203.18231
G1 X114.88 Y175.47 E203.19995
G1 X114.88 Y175.26 E203.21242
G1 X115.08 Y175.06 E203.23006
G1 X115.08 Y174.87 E203.24253
G1 X115.28 Y174.66 E203.26017
G1 X115.28 Y174.47 E203.27264
G1 X115.48 Y174.26 E203.29028
G1 X115.48 Y174.06 E203.30275
G1 X115.68 Y173.87 E203.32039
G1 X115.68 Y173.66 E203.33286
G1 X115.88 Y173.47 E203.35050
G1 X115.88 Y173.26 E203.36298
G1 X116.08 Y173.06 E203.38061
G1 X116.08 Y172.87 E203.39309
G1 X116.28 Y172.66 E203.41073
G1 X116.28 Y172.47 E203.42320
G1 X116.48 Y172.26 E203.44084
G1 X116.48 Y172.06 E203.45331
G1 X116.68 Y171.87 E203.47095
G1 X116.68 Y171.66 E203.48342
G1 X116.88 Y171.47 E203.50106
G1 X116.88 Y171.26 E203.51353
G1 X117.08 Y171.06 E203.53117
G1 X117.08 Y170.87 E203.54364
G1 X117.28 Y170.66 E203.56128
G1 X117.28 Y170.47 E203.57376
G1 X117.48 Y170.26 E203.59139
G1 X117.48 Y170.06 E203.60387
G1 X117.68 Y169.87 E203.62151
G1 X117.68 Y169.66 E203.63398
G1 X118.88 Y168.46 E203.73986
G1 X118.88 Y168.26 E203.75227
G1 X120.08 Y167.06 E203.85814
G1 X120.08 Y166.87 E203.87055
G1 X121.28 Y165.66 E203.97643
G1 X121.28 Y165.47 E203.98884
G1 X122.48 Y164.26 E204.09472
G1 X122.48 Y163.36 E204.15109
G1 X124.28 Y162.46 E204.27688
G1 X124.88 Y161.86 E204.32988
G1 X125.28 Y161.66 E204.35771
G1 X126.08 Y160.86 E204.42831
G1 X126.48 Y160.66 E204.45615
G1 X127.08 Y160.06 E204.50911
G1 X127.48 Y159.86 E204.53694
G1 X128.28 Y159.06 E204.60754
G1 X128.68 Y158.86 E204.63537
G1 X129.48 Y158.06 E204.70597
G1 X131.48 Y157.06 E204.84542
G1 X131.68 Y156.86 E204.86306
G1 X133.68 Y155.86 E205.00251
G1 X133.88 Y155.66 E205.02015
G1 X135.88 Y154.66 E205.15959
G1 X136.36 Y154.18 E205.20193
G1 X137.97 Y153.78 E205.30491
G1 X138.07 Y153.74 E205.31162
G1 X113.48 Y153.74 E206.84512
G1 X113.48 Y153.21 E206.87823
G1 X113.02 Y153.21 E206.90680
G1 X113.48 Y151.70 E207.00520
G1 X113.48 Y148.47 E207.20713
G1 X113.68 Y148.26 E207.22477
G1 X113.68 Y147.66 E207.26219
G1 X113.88 Y147.47 E207.27983
G1 X113.88 Y146.87 E207.31724
G1 X114.08 Y146.66 E207.33488
G1 X114.08 Y146.06 E207.37230
G1 X114.28 Y145.87 E207.38994
G1 X114.28 Y145.26 E207.42736
G1 X114.68 Y144.87 E207.46264
G1 X114.68 Y144.66 E207.47511
G1 X114.88 Y144.47 E207.49275
G1 X114.88 Y144.26 E207.50522
G1 X115.08 Y144.06 E207.52286
G1 X115.08 Y143.87 E207.53533
G1 X115.28 Y143.66 E207.55297
G1 X115.28 Y143.47 E207.56544
G1 X115.48 Y143.26 E207.58308
G1 X115.48 Y143.06 E207.59555
G1 X115.68 Y142.87 E207.61319
G1 X115.68 Y142.66 E207.62566
G1 X115.88 Y142.47 E207.64330
G1 X115.88 Y142.26 E207.65578
G1 X116.28 Y141.87 E207.69105
G1 X116.28 Y141.66 E207.70353
G1 X116.48 Y141.47 E207.72117
G1 X116.48 Y141.26 E207.73364
G1 X116.68 Y141.06 E207.75128
G1 X116.68 Y140.87 E207.76375
G1 X116.88 Y140.66 E207.78139
G1 X116.88 Y140.47 E207.79386
G1 X117.08 Y140.26 E207.81150
G1 X117.08 Y140.06 E207.82397
G1 X117.28 Y139.87 E207.84161
G1 X117.28 Y139.66 E207.85408
G1 X117.48 Y139.47 E207.87172
G1 X117.48 Y139.26 E207.88419
G1 X117.68 Y139.06 E207.90183
G1 X117.68 Y138.87 E207.91431
G1 X118.68 Y137.86 E208.00254
G1 X118.68 Y137.66 E208.01495
G1 X119.68 Y136.66 E208.10319
G1 X119.68 Y136.47 E208.11560
G1 X120.68 Y135.46 E208.20384
G1 X120.68 Y135.26 E208.21625
G1 X121.68 Y134.26 E208.30449
G1 X121.68 Y134.06 E208.31690
G1 X122.48 Y133.26 E208.38746
G1 X122.48 Y132.36 E208.44389
G0 F6000 X122.98 Y132.67
G1 F2700 X124.58 Y131.87 E208.55556
G1 X125.18 Y131.27 E208.60848
G1 X125.58 Y131.07 E208.63629
G1 X126.38 Y130.27 E208.70693
G1 X126.78 Y130.07 E208.73474
G1 X127.38 Y129.47 E208.78774
G1 X127.78 Y129.27 E208.81555
G1 X128.58 Y128.47 E208.88619
G1 X128.98 Y128.27 E208.91400
G1 X129.78 Y127.47 E208.98464
G1 X136.18 Y124.27 E209.43079
G1 X136.62 Y123.83 E209.46968
G1 X138.11 Y123.46 E209.56559
G1 X140.50 Y122.66 E209.72278
G1 X141.31 Y122.46 E209.77439
G1 X144.53 Y121.38 E209.98635
G1 X149.81 Y120.94 E210.31651
G1 X157.35 Y120.94 E210.78704
G1 X160.11 Y121.17 E210.95976
G1 X161.25 Y121.46 E211.03322
G1 X163.65 Y122.26 E211.19075
G1 X164.45 Y122.46 E211.24236
G1 X167.76 Y123.56 E211.45976
G1 X174.78 Y127.07 E211.94894
G1 X174.98 Y127.27 E211.96667
G1 X175.38 Y127.47 E211.99448
G1 X175.98 Y128.07 E212.04748
G1 X176.38 Y128.27 E212.07529
G1 X177.18 Y129.07 E212.14593
G1 X177.57 Y129.27 E212.17374
G1 X178.18 Y129.87 E212.22674
G1 X178.57 Y130.07 E212.25455
G1 X179.38 Y130.87 E212.32519
G1 X179.78 Y131.07 E212.35300
G1 X182.58 Y133.87 E212.60012
G1 X182.58 Y134.07 E212.61259
G1 X183.38 Y134.87 E212.68314
G1 X183.38 Y135.07 E212.69562
G1 X184.18 Y135.87 E212.76617
G1 X184.18 Y136.07 E212.77864
G1 X184.98 Y136.87 E212.84920
G1 X184.98 Y137.07 E212.86167
G1 X185.78 Y137.87 E212.93223
G1 X185.78 Y138.07 E212.94470
G1 X186.38 Y138.67 E212.99762
G1 X186.38 Y138.87 E213.01009
G1 X186.78 Y139.27 E213.04537
G1 X186.78 Y139.47 E213.05784
G1 X186.98 Y139.67 E213.07548
G1 X186.98 Y139.87 E213.08795
G1 X187.18 Y140.07 E213.10559
G1 X187.18 Y140.27 E213.11806
G1 X187.58 Y140.67 E213.15334
G1 X187.58 Y140.87 E213.16581
G1 X187.78 Y141.07 E213.18345
G1 X187.78 Y141.27 E213.19592
G1 X187.98 Y141.47 E213.21356
G1 X187.98 Y141.67 E213.22604
G1 X188.18 Y141.87 E213.24367
G1 X188.18 Y142.07 E213.25615
G1 X188.58 Y142.47 E213.29142
G1 X188.58 Y142.67 E213.30390
G1 X188.78 Y142.87 E213.32154
G1 X188.78 Y143.07 E213.33401
G1 X188.98 Y143.27 E213.35165
G1 X188.98 Y143.47 E213.36412
G1 X189.38 Y143.87 E213.39940
G1 X189.38 Y144.07 E213.41187
G1 X189.58 Y144.27 E213.42951
G1 X189.58 Y144.34 E213.43400
G1 X190.38 Y144.34 E213.48389
G1 X190.38 Y145.38 E213.54850
G1 X190.58 Y145.40 E213.56102
G1 X190.58 Y146.96 E213.65812
G1 X190.98 Y146.96 E213.68306
G1 X190.98 Y148.47 E213.77754
G1 X191.51 Y149.00 E213.82429
G1 X190.98 Y150.28 E213.91068
G1 X190.98 Y151.62 E213.99444
G1 X191.31 Y152.71 E214.06534
G1 X190.98 Y152.71 E214.08592
G1 X190.98 Y153.24 E214.11903
G1 X163.99 Y153.24 E215.80183
G1 X164.05 Y153.26 E215.80569
G1 X164.66 Y153.46 E215.84540
G1 X165.45 Y153.66 E215.89656
G1 X166.06 Y153.86 E215.93628
G1 X166.85 Y154.06 E215.98743
G1 X167.76 Y154.36 E216.04707
G1 X170.38 Y155.67 E216.22941
G1 X170.58 Y155.87 E216.24713
G1 X172.57 Y156.87 E216.38650
G1 X172.78 Y157.07 E216.40422
G1 X174.78 Y158.07 E216.54359
G1 X174.98 Y158.27 E216.56132
G1 X175.38 Y158.47 E216.58912
G1 X175.98 Y159.07 E216.64213
G1 X176.38 Y159.27 E216.66993
G1 X177.18 Y160.07 E216.74058
G1 X177.57 Y160.27 E216.76838
G1 X178.18 Y160.87 E216.82139
G1 X178.57 Y161.07 E216.84919
G1 X179.38 Y161.87 E216.91984
G1 X179.78 Y162.07 E216.94764
G1 X182.78 Y165.07 E217.21240
G1 X182.78 Y165.27 E217.22487
G1 X183.78 Y166.27 E217.31307
G1 X183.78 Y166.47 E217.32554
G1 X184.58 Y167.27 E217.39609
G1 X184.58 Y167.47 E217.40857
G1 X185.58 Y168.47 E217.49676
G1 X185.58 Y168.67 E217.50923
G1 X186.38 Y169.47 E217.57979
G1 X186.38 Y169.67 E217.59226
G1 X186.78 Y170.07 E217.62754
G1 X186.78 Y170.27 E217.64001
G1 X186.98 Y170.47 E217.65765
G1 X186.98 Y170.67 E217.67012
G1 X187.18 Y170.87 E217.68776
G1 X187.18 Y171.07 E217.70024
G1 X187.38 Y171.27 E217.71787
G1 X187.38 Y171.47 E217.73035
G1 X187.58 Y171.67 E217.74799
G1 X187.58 Y171.87 E217.76046
G1 X187.98 Y172.27 E217.79574
G1 X187.98 Y172.47 E217.80821
G1 X188.18 Y172.67 E217.82585
G1 X188.18 Y172.87 E217.83832
G1 X188.38 Y173.07 E217.85596
G1 X188.38 Y173.27 E217.86843
G1 X188.58 Y173.47 E217.88607
G1 X188.58 Y173.67 E217.89854
G1 X188.78 Y173.87 E217.91618
G1 X188.78 Y174.07 E217.92865
G1 X189.18 Y174.47 E217.96393
G1 X189.18 Y174.67 E217.97640
G1 X189.38 Y174.87 E217.99404
G1 X189.38 Y175.07 E218.00652
G1 X189.58 Y175.27 E218.02415
G1 X189.58 Y175.47 E218.03663
G1 X189.78 Y175.67 E218.05427
G1 X189.78 Y175.87 E218.06674
G1 X189.98 Y176.07 E218.08438
G1 X189.98 Y176.27 E218.09685
G1 X190.18 Y176.47 E218.11449
G1 X190.18 Y176.87 E218.13943
G1 X190.38 Y177.07 E218.15707
G1 X190.38 Y177.67 E218.19449
G1 X190.46 Y177.75 E218.20172
G1 X190.98 Y177.76 E218.23403
G1 X190.98 Y179.27 E218.32851
G1 X191.51 Y179.80 E218.37525
G1 X190.98 Y181.08 E218.46165
G1 X190.98 Y182.53 E218.55195
G1 X191.31 Y183.62 E218.62285
G1 X190.98 Y183.62 E218.64343
G1 X190.98 Y184.04 E218.67000
G1 X113.98 Y184.04 E223.47193
G1 X113.98 Y183.62 E223.49849
G1 X113.69 Y183.62 E223.51614
G1 X113.98 Y182.68 E223.57701
G1 X113.98 Y179.47 E223.77731
G1 X114.18 Y179.27 E223.79495
G1 X114.18 Y178.67 E223.83237
G1 X114.38 Y178.47 E223.85001
G1 X114.38 Y178.07 E223.87495
G1 X114.58 Y177.87 E223.89259
G1 X114.58 Y177.27 E223.93001
G1 X114.78 Y177.07 E223.94765
G1 X114.78 Y176.47 E223.98507
G1 X115.18 Y176.07 E224.02035
G1 X115.18 Y175.87 E224.03282
G1 X115.38 Y175.67 E224.05046
G1 X115.38 Y175.47 E224.06293
G1 X115.58 Y175.27 E224.08057
G1 X115.58 Y175.07 E224.09304
G1 X115.78 Y174.87 E224.11068
G1 X115.78 Y174.67 E224.12315
G1 X115.98 Y174.47 E224.14079
G1 X115.98 Y174.27 E224.15326
G1 X116.18 Y174.07 E224.17090
G1 X116.18 Y173.87 E224.18338
G1 X116.38 Y173.67 E224.20101
G1 X116.38 Y173.47 E224.21349
G1 X116.58 Y173.27 E224.23113
G1 X116.58 Y173.07 E224.24360
G1 X116.78 Y172.87 E224.26124
G1 X116.78 Y172.67 E224.27371
G1 X116.98 Y172.47 E224.29135
G1 X116.98 Y172.27 E224.30382
G1 X117.18 Y172.07 E224.32146
G1 X117.18 Y171.87 E224.33393
G1 X117.38 Y171.67 E224.35157
G1 X117.38 Y171.47 E224.36404
G1 X117.58 Y171.27 E224.38168
G1 X117.58 Y171.07 E224.39415
G1 X117.78 Y170.87 E224.41179
G1 X117.78 Y170.67 E224.42427
G1 X117.98 Y170.47 E224.44191
G1 X117.98 Y170.27 E224.45438
G1 X118.18 Y170.07 E224.47202
G1 X118.18 Y169.87 E224.48449
G1 X119.38 Y168.67 E224.59032
G1 X119.38 Y168.47 E224.60279
G1 X120.58 Y167.27 E224.70863
G1 X120.58 Y167.07 E224.72110
G1 X121.78 Y165.87 E224.82693
G1 X121.78 Y165.67 E224.83941
G1 X122.98 Y164.47 E224.94524
G1 X122.98 Y163.67 E224.99525
G1 X124.58 Y162.87 E225.10692
G1 X125.18 Y162.27 E225.15984
G1 X125.58 Y162.07 E225.18765
G1 X126.38 Y161.27 E225.25829
G1 X126.78 Y161.07 E225.28610
G1 X127.38 Y160.47 E225.33910
G1 X127.78 Y160.27 E225.36691
G1 X128.58 Y159.47 E225.43755
G1 X128.98 Y159.27 E225.46536
G1 X129.78 Y158.47 E225.53600
G1 X131.78 Y157.47 E225.67536
G1 X131.98 Y157.27 E225.69309
G1 X133.98 Y156.27 E225.83245
G1 X134.18 Y156.07 E225.85018
G1 X136.18 Y155.07 E225.98954
G1 X136.62 Y154.63 E226.02844
G1 X138.10 Y154.26 E226.12377
G1 X138.70 Y154.06 E226.16315
G1 X139.50 Y153.86 E226.21431
G1 X140.10 Y153.66 E226.25403
G1 X140.90 Y153.46 E226.30518
G1 X141.50 Y153.26 E226.34490
G1 X141.56 Y153.24 E226.34875
G1 X113.98 Y153.24 E228.06897
G1 X113.98 Y152.71 E228.10208
G1 X113.69 Y152.71 E228.11979
G1 X113.98 Y151.78 E228.18079
G1 X113.98 Y148.67 E228.37443
G1 X114.18 Y148.47 E228.39207
G1 X114.18 Y147.87 E228.42949
G1 X114.38 Y147.67 E228.44712
G1 X114.38 Y147.07 E228.48454
G1 X114.58 Y146.87 E228.50218
G1 X114.58 Y146.27 E228.53960
G1 X114.78 Y146.07 E228.55724
G1 X114.78 Y145.47 E228.59466
G1 X115.18 Y145.07 E228.62993
G1 X115.18 Y144.87 E228.64241
G1 X115.38 Y144.67 E228.66004
G1 X115.38 Y144.47 E228.67252
G1 X115.58 Y144.27 E228.69016
G1 X115.58 Y144.07 E228.70263
G1 X115.78 Y143.87 E228.72027
G1 X115.78 Y143.67 E228.73274
G1 X115.98 Y143.47 E228.75038
G1 X115.98 Y143.27 E228.76285
G1 X116.18 Y143.07 E228.78049
G1 X116.18 Y142.87 E228.79296
G1 X116.38 Y142.67 E228.81060
G1 X116.38 Y142.47 E228.82307
G1 X116.78 Y142.07 E228.85835
G1 X116.78 Y141.87 E228.87082
G1 X116.98 Y141.67 E228.88846
G1 X116.98 Y141.47 E228.90094
G1 X117.18 Y141.27 E228.91857
G1 X117.18 Y141.07 E228.93105
G1 X117.38 Y140.87 E228.94869
G1 X117.38 Y140.67 E228.96116
G1 X117.58 Y140.47 E228.97880
G1 X117.58 Y140.27 E228.99127
G1 X117.78 Y140.07 E229.00891
G1 X117.78 Y139.87 E229.02138
G1 X117.98 Y139.67 E229.03902
G1 X117.98 Y139.47 E229.05149
G1 X118.18 Y139.27 E229.06913
G1 X118.18 Y139.07 E229.08160
G1 X119.18 Y138.07 E229.16980
G1 X119.18 Y137.87 E229.18227
G1 X120.18 Y136.87 E229.27046
G1 X120.18 Y136.67 E229.28294
G1 X121.18 Y135.67 E229.37113
G1 X121.18 Y135.47 E229.38360
G1 X122.18 Y134.47 E229.47180
G1 X122.18 Y134.27 E229.48427
G1 X122.98 Y133.47 E229.55483
G1 X122.98 Y132.67 E229.60484
G0 F6000 X123.48 Y132.98
G1 F2700 X124.88 Y132.28 E229.70251
G1 X125.47 Y131.68 E229.75521
G1 X125.88 Y131.48 E229.78324
G1 X126.67 Y130.68 E229.85366
G1 X127.08 Y130.48 E229.88163
G1 X127.67 Y129.88 E229.93446
G1 X128.08 Y129.68 E229.96249
G1 X128.88 Y128.88 E230.03291
G1 X129.28 Y128.68 E230.06094
G1 X130.07 Y127.88 E230.13136
G1 X136.48 Y124.68 E230.57768
G1 X136.87 Y124.28 E230.61278
G1 X138.25 Y123.94 E230.70092
G1 X140.64 Y123.14 E230.85850
G1 X141.44 Y122.94 E230.90998
G1 X144.63 Y121.88 E231.11957
G1 X149.82 Y121.44 E231.44460
G1 X157.33 Y121.44 E231.91257
G1 X160.03 Y121.67 E232.08147
G1 X161.11 Y121.94 E232.15121
G1 X163.51 Y122.74 E232.30886
G1 X164.31 Y122.94 E232.36033
G1 X167.57 Y124.03 E232.57438
G1 X174.48 Y127.48 E233.05626
G1 X174.68 Y127.68 E233.07385
G1 X175.08 Y127.88 E233.10180
G1 X175.68 Y128.48 E233.15462
G1 X176.08 Y128.68 E233.18260
G1 X176.88 Y129.48 E233.25302
G1 X177.28 Y129.68 E233.28105
G1 X177.88 Y130.28 E233.33388
G1 X178.28 Y130.48 E233.36185
G1 X179.08 Y131.28 E233.43227
G1 X179.48 Y131.48 E233.46030
G1 X182.08 Y134.08 E233.68943
G1 X182.08 Y134.28 E233.70197
G1 X182.88 Y135.08 E233.77248
G1 X182.88 Y135.28 E233.78501
G1 X183.68 Y136.08 E233.85552
G1 X183.68 Y136.28 E233.86806
G1 X184.48 Y137.08 E233.93857
G1 X184.48 Y137.28 E233.95111
G1 X185.28 Y138.08 E234.02162
G1 X185.28 Y138.28 E234.03415
G1 X185.88 Y138.88 E234.08702
G1 X185.88 Y139.08 E234.09950
G1 X186.28 Y139.48 E234.13477
G1 X186.28 Y139.68 E234.14725
G1 X186.48 Y139.88 E234.16489
G1 X186.48 Y140.08 E234.17736
G1 X186.68 Y140.28 E234.19500
G1 X186.68 Y140.48 E234.20747
G1 X187.08 Y140.88 E234.24275
G1 X187.08 Y141.08 E234.25522
G1 X187.28 Y141.28 E234.27286
G1 X187.28 Y141.48 E234.28533
G1 X187.48 Y141.68 E234.30297
G1 X187.48 Y141.88 E234.31544
G1 X187.68 Y142.08 E234.33308
G1 X187.68 Y142.28 E234.34555
G1 X188.08 Y142.68 E234.38083
G1 X188.08 Y142.88 E234.39330
G1 X188.28 Y143.08 E234.41094
G1 X188.28 Y143.28 E234.42342
G1 X188.48 Y143.48 E234.44105
G1 X188.48 Y143.68 E234.45353
G1 X188.88 Y144.08 E234.48880
G1 X188.88 Y144.28 E234.50128
G1 X189.08 Y144.48 E234.51892
G1 X189.08 Y144.68 E234.53139
G1 X189.24 Y144.84 E234.54594
G1 X189.88 Y144.84 E234.58554
G1 X189.88 Y145.84 E234.64747
G1 X190.08 Y145.85 E234.65999
G1 X190.08 Y147.45 E234.75965
G1 X190.48 Y147.46 E234.78459
G1 X190.48 Y148.68 E234.86099
G1 X190.92 Y149.12 E234.89979
G1 X190.48 Y150.18 E234.97154
G1 X190.48 Y151.70 E235.06608
G1 X190.63 Y152.21 E235.09958
G1 X190.48 Y152.21 E235.10931
G1 X190.48 Y152.74 E235.14242
G1 X160.33 Y152.74 E237.02253
G1 X161.11 Y152.94 E237.07293
G1 X161.72 Y153.14 E237.11257
G1 X162.51 Y153.34 E237.16380
G1 X163.12 Y153.54 E237.20344
G1 X163.91 Y153.74 E237.25467
G1 X164.52 Y153.94 E237.29430
G1 X165.31 Y154.14 E237.34553
G1 X165.92 Y154.34 E237.38517
G1 X166.71 Y154.54 E237.43640
G1 X167.57 Y154.82 E237.49261
G1 X170.08 Y156.08 E237.66770
G1 X170.28 Y156.28 E237.68529
G1 X172.28 Y157.28 E237.82479
G1 X172.48 Y157.48 E237.84239
G1 X174.48 Y158.48 E237.98189
G1 X174.68 Y158.68 E237.99949
G1 X175.08 Y158.88 E238.02743
G1 X175.68 Y159.48 E238.08026
G1 X176.08 Y159.68 E238.10823
G1 X176.88 Y160.48 E238.17866
G1 X177.28 Y160.68 E238.20669
G1 X177.88 Y161.28 E238.25951
G1 X178.28 Y161.48 E238.28749
G1 X179.08 Y162.28 E238.35791
G1 X179.48 Y162.48 E238.38594
G1 X182.28 Y165.28 E238.63271
G1 X182.28 Y165.48 E238.64524
G1 X183.28 Y166.48 E238.73339
G1 X183.28 Y166.68 E238.74593
G1 X184.08 Y167.48 E238.81644
G1 X184.08 Y167.68 E238.82897
G1 X185.08 Y168.68 E238.91712
G1 X185.08 Y168.88 E238.92966
G1 X185.88 Y169.68 E239.00017
G1 X185.88 Y169.88 E239.01264
G1 X186.28 Y170.28 E239.04792
G1 X186.28 Y170.48 E239.06039
G1 X186.48 Y170.68 E239.07803
G1 X186.48 Y170.88 E239.09050
G1 X186.68 Y171.08 E239.10814
G1 X186.68 Y171.28 E239.12062
G1 X186.88 Y171.48 E239.13825
G1 X186.88 Y171.68 E239.15073
G1 X187.08 Y171.88 E239.16837
G1 X187.08 Y172.08 E239.18084
G1 X187.48 Y172.48 E239.21612
G1 X187.48 Y172.68 E239.22859
G1 X187.68 Y172.88 E239.24623
G1 X187.68 Y173.08 E239.25870
G1 X187.88 Y173.28 E239.27634
G1 X187.88 Y173.48 E239.28881
G1 X188.08 Y173.68 E239.30645
G1 X188.08 Y173.88 E239.31892
G1 X188.28 Y174.08 E239.33656
G1 X188.28 Y174.28 E239.34903
G1 X188.68 Y174.68 E239.38431
G1 X188.68 Y174.88 E239.39678
G1 X188.88 Y175.08 E239.41442
G1 X188.88 Y175.28 E239.42690
G1 X189.08 Y175.48 E239.44453
G1 X189.08 Y175.68 E239.45701
G1 X189.28 Y175.88 E239.47465
G1 X189.28 Y176.08 E239.48712
G1 X189.48 Y176.28 E239.50476
G1 X189.48 Y176.48 E239.51723
G1 X189.68 Y176.68 E239.53487
G1 X189.68 Y177.08 E239.55981
G1 X189.88 Y177.28 E239.57745
G1 X189.88 Y177.88 E239.61487
G1 X190.08 Y178.08 E239.63251
G1 X190.08 Y178.25 E239.64336
G1 X190.48 Y178.25 E239.66831
G1 X190.48 Y179.48 E239.74470
G1 X190.92 Y179.92 E239.78351
G1 X190.48 Y180.98 E239.85525
G1 X190.48 Y182.61 E239.95653
G1 X190.63 Y183.12 E239.98983
G1 X190.48 Y183.12 E239.99950
G1 X190.48 Y183.54 E240.02606
G1 X114.48 Y183.54 E244.76563
G1 X114.48 Y183.12 E244.79220
G1 X114.37 Y183.12 E244.79900
G1 X114.48 Y182.76 E244.82245
G1 X114.48 Y179.68 E245.01447
G1 X114.68 Y179.48 E245.03211
G1 X114.68 Y178.88 E245.06952
G1 X114.88 Y178.68 E245.08716
G1 X114.88 Y178.28 E245.11211
G1 X115.08 Y178.08 E245.12975
G1 X115.08 Y177.48 E245.16716
G1 X115.28 Y177.28 E245.18480
G1 X115.28 Y176.68 E245.22222
G1 X115.68 Y176.28 E245.25750
G1 X115.68 Y176.08 E245.26997
G1 X115.88 Y175.88 E245.28761
G1 X115.88 Y175.68 E245.30008
G1 X116.08 Y175.48 E245.31772
G1 X116.08 Y175.28 E245.33019
G1 X116.28 Y175.08 E245.34783
G1 X116.28 Y174.88 E245.36031
G1 X116.48 Y174.68 E245.37794
G1 X116.48 Y174.48 E245.39042
G1 X116.68 Y174.28 E245.40806
G1 X116.68 Y174.08 E245.42053
G1 X116.88 Y173.88 E245.43817
G1 X116.88 Y173.68 E245.45064
G1 X117.08 Y173.48 E245.46828
G1 X117.08 Y173.28 E245.48075
G1 X117.28 Y173.08 E245.49839
G1 X117.28 Y172.88 E245.51086
G1 X117.48 Y172.68 E245.52850
G1 X117.48 Y172.48 E245.54097
G1 X117.68 Y172.28 E245.55861
G1 X117.68 Y172.08 E245.57109
G1 X117.88 Y171.88 E245.58872
G1 X117.88 Y171.68 E245.60120
G1 X118.08 Y171.48 E245.61884
G1 X118.08 Y171.28 E245.63131
G1 X118.28 Y171.08 E245.64895
G1 X118.28 Y170.88 E245.66142
G1 X118.48 Y170.68 E245.67906
G1 X118.48 Y170.48 E245.69153
G1 X118.68 Y170.28 E245.70917
G1 X118.68 Y170.08 E245.72164
G1 X119.88 Y168.88 E245.82743
G1 X119.88 Y168.68 E245.83997
G1 X121.08 Y167.48 E245.94576
G1 X121.08 Y167.28 E245.95829
G1 X122.28 Y166.08 E246.06408
G1 X122.28 Y165.88 E246.07661
G1 X123.48 Y164.68 E246.18240
G1 X123.48 Y163.98 E246.22612
G1 X124.88 Y163.28 E246.32379
G1 X125.47 Y162.68 E246.37648
G1 X125.88 Y162.48 E246.40451
G1 X126.67 Y161.68 E246.47494
G1 X127.08 Y161.48 E246.50291
G1 X127.67 Y160.88 E246.55574
G1 X128.08 Y160.68 E246.58377
G1 X128.88 Y159.88 E246.65419
G1 X129.28 Y159.68 E246.68222
G1 X130.07 Y158.88 E246.75264
G1 X132.08 Y157.88 E246.89215
G1 X132.28 Y157.68 E246.90974
G1 X134.28 Y156.68 E247.04924
G1 X134.47 Y156.48 E247.06684
G1 X136.48 Y155.48 E247.20637
G1 X136.87 Y155.08 E247.24147
G1 X138.24 Y154.74 E247.32935
G1 X138.84 Y154.54 E247.36879
G1 X139.64 Y154.34 E247.42002
G1 X140.24 Y154.14 E247.45966
G1 X141.04 Y153.94 E247.51089
G1 X141.64 Y153.74 E247.55053
G1 X142.44 Y153.54 E247.60175
G1 X143.04 Y153.34 E247.64139
G1 X143.84 Y153.14 E247.69262
G1 X144.60 Y152.89 E247.74259
G1 X145.89 Y152.74 E247.82341
G1 X114.48 Y152.74 E249.78216
G1 X114.48 Y152.21 E249.81528
G1 X114.37 Y152.21 E249.82214
G1 X114.48 Y151.85 E249.84579
G1 X114.48 Y148.88 E250.03107
G1 X114.68 Y148.68 E250.04871
G1 X114.68 Y148.08 E250.08613
G1 X114.88 Y147.88 E250.10377
G1 X114.88 Y147.28 E250.14118
G1 X115.08 Y147.08 E250.15882
G1 X115.08 Y146.48 E250.19624
G1 X115.28 Y146.28 E250.21388
G1 X115.28 Y145.68 E250.25130
G1 X115.68 Y145.28 E250.28658
G1 X115.68 Y145.08 E250.29905
G1 X115.88 Y144.88 E250.31669
G1 X115.88 Y144.68 E250.32916
G1 X116.08 Y144.48 E250.34680
G1 X116.08 Y144.28 E250.35927
G1 X116.28 Y144.08 E250.37691
G1 X116.28 Y143.88 E250.38938
G1 X116.48 Y143.68 E250.40702
G1 X116.48 Y143.48 E250.41949
G1 X116.68 Y143.28 E250.43713
G1 X116.68 Y143.08 E250.44961
G1 X116.88 Y142.88 E250.46724
G1 X116.88 Y142.68 E250.47972
G1 X117.28 Y142.28 E250.51499
G1 X117.28 Y142.08 E250.52747
G1 X117.48 Y141.88 E250.54511
G1 X117.48 Y141.68 E250.55758
G1 X117.68 Y141.48 E250.57522
G1 X117.68 Y141.28 E250.58769
G1 X117.88 Y141.08 E250.60533
G1 X117.88 Y140.88 E250.61780
G1 X118.08 Y140.68 E250.63544
G1 X118.08 Y140.48 E250.64791
G1 X118.28 Y140.28 E250.66555
G1 X118.28 Y140.08 E250.67802
G1 X118.48 Y139.88 E250.69566
G1 X118.48 Y139.68 E250.70814
G1 X118.68 Y139.48 E250.72577
G1 X118.68 Y139.28 E250.73825
G1 X119.68 Y138.28 E250.82640
G1 X119.68 Y138.08 E250.83893
G1 X120.68 Y137.08 E250.92708
G1 X120.68 Y136.88 E250.93962
G1 X121.68 Y135.88 E251.02777
G1 X121.68 Y135.68 E251.04030
G1 X122.68 Y134.68 E251.12845
G1 X122.68 Y134.48 E251.14099
G1 X123.48 Y133.68 E251.21150
G1 X123.48 Y132.98 E251.25521
G0 F6000 X123.98 Y133.29
G1 F2700 X125.17 Y132.69 E251.33844
G1 X125.77 Y132.09 E251.39140
G1 X126.17 Y131.89 E251.41923
G1 X126.97 Y131.09 E251.48983
G1 X127.37 Y130.89 E251.51766
G1 X127.97 Y130.29 E251.57062
G1 X128.37 Y130.09 E251.59846
G1 X129.17 Y129.29 E251.66906
G1 X129.57 Y129.09 E251.69689
G1 X130.37 Y128.29 E251.76749
G1 X136.77 Y125.09 E252.21367
G1 X137.13 Y124.73 E252.24533
G1 X138.38 Y124.42 E252.32581
G1 X140.78 Y123.62 E252.48352
G1 X141.58 Y123.42 E252.53481
G1 X144.73 Y122.37 E252.74207
G1 X149.85 Y121.94 E253.06210
G1 X157.31 Y121.94 E253.52745
G1 X159.95 Y122.16 E253.69260
G1 X160.97 Y122.42 E253.75854
G1 X163.38 Y123.22 E253.91645
G1 X164.17 Y123.42 E253.96774
G1 X167.38 Y124.49 E254.17830
G1 X174.18 Y127.89 E254.65286
G1 X174.38 Y128.09 E254.67050
G1 X174.78 Y128.29 E254.69839
G1 X175.38 Y128.89 E254.75135
G1 X175.78 Y129.09 E254.77919
G1 X176.58 Y129.89 E254.84979
G1 X176.98 Y130.09 E254.87762
G1 X177.58 Y130.69 E254.93058
G1 X177.98 Y130.89 E254.95841
G1 X178.78 Y131.69 E255.02901
G1 X179.18 Y131.89 E255.05685
G1 X181.58 Y134.29 E255.26803
G1 X181.58 Y134.49 E255.28050
G1 X182.38 Y135.29 E255.35106
G1 X182.38 Y135.49 E255.36353
G1 X183.18 Y136.29 E255.43408
G1 X183.18 Y136.49 E255.44656
G1 X183.98 Y137.29 E255.51711
G1 X183.98 Y137.49 E255.52959
G1 X184.78 Y138.29 E255.60014
G1 X184.78 Y138.49 E255.61261
G1 X185.38 Y139.09 E255.66553
G1 X185.38 Y139.29 E255.67800
G1 X185.78 Y139.69 E255.71328
G1 X185.78 Y139.89 E255.72575
G1 X185.98 Y140.09 E255.74339
G1 X185.98 Y140.29 E255.75586
G1 X186.18 Y140.49 E255.77350
G1 X186.18 Y140.69 E255.78598
G1 X186.58 Y141.09 E255.82125
G1 X186.58 Y141.29 E255.83373
G1 X186.78 Y141.49 E255.85136
G1 X186.78 Y141.69 E255.86384
G1 X186.98 Y141.89 E255.88148
G1 X186.98 Y142.09 E255.89395
G1 X187.18 Y142.29 E255.91159
G1 X187.18 Y142.49 E255.92406
G1 X187.58 Y142.89 E255.95934
G1 X187.58 Y143.09 E255.97181
G1 X187.78 Y143.29 E255.98945
G1 X187.78 Y143.49 E256.00192
G1 X187.98 Y143.69 E256.01956
G1 X187.98 Y143.89 E256.03203
G1 X188.38 Y144.29 E256.06731
G1 X188.38 Y144.49 E256.07978
G1 X188.58 Y144.69 E256.09742
G1 X188.58 Y144.89 E256.10989
G1 X188.78 Y145.09 E256.12753
G1 X188.78 Y145.29 E256.14001
G1 X188.84 Y145.34 E256.14512
G1 X189.38 Y145.34 E256.17892
G1 X189.38 Y146.29 E256.23817
G1 X189.58 Y146.31 E256.25069
G1 X189.58 Y147.89 E256.34885
G1 X189.64 Y147.95 E256.35449
G1 X189.98 Y147.95 E256.37545
G1 X189.98 Y148.89 E256.43369
G1 X190.33 Y149.24 E256.46465
G1 X189.98 Y150.08 E256.52183
G1 X189.98 Y152.24 E256.65653
G1 X114.98 Y152.24 E261.33374
G1 X114.98 Y149.09 E261.53068
G1 X115.18 Y148.89 E261.54832
G1 X115.18 Y148.29 E261.58574
G1 X115.38 Y148.09 E261.60337
G1 X115.38 Y147.49 E261.64079
G1 X115.58 Y147.29 E261.65843
G1 X115.58 Y146.69 E261.69585
G1 X115.78 Y146.49 E261.71349
G1 X115.78 Y145.89 E261.75090
G1 X116.18 Y145.49 E261.78618
G1 X116.18 Y145.29 E261.79866
G1 X116.38 Y145.09 E261.81629
G1 X116.38 Y144.89 E261.82877
G1 X116.58 Y144.69 E261.84641
G1 X116.58 Y144.49 E261.85888
G1 X116.78 Y144.29 E261.87652
G1 X116.78 Y144.09 E261.88899
G1 X116.98 Y143.89 E261.90663
G1 X116.98 Y143.69 E261.91910
G1 X117.18 Y143.49 E261.93674
G1 X117.18 Y143.29 E261.94921
G1 X117.38 Y143.09 E261.96685
G1 X117.38 Y142.89 E261.97932
G1 X117.78 Y142.49 E262.01460
G1 X117.78 Y142.29 E262.02707
G1 X117.98 Y142.09 E262.04471
G1 X117.98 Y141.89 E262.05719
G1 X118.18 Y141.69 E262.07482
G1 X118.18 Y141.49 E262.08730
G1 X118.38 Y141.29 E262.10494
G1 X118.38 Y141.09 E262.11741
G1 X118.58 Y140.89 E262.13505
G1 X118.58 Y140.69 E262.14752
G1 X118.78 Y140.49 E262.16516
G1 X118.78 Y140.29 E262.17763
G1 X118.98 Y140.09 E262.19527
G1 X118.98 Y139.89 E262.20774
G1 X119.18 Y139.69 E262.22538
G1 X119.18 Y139.49 E262.23785
G1 X120.18 Y138.49 E262.32605
G1 X120.18 Y138.29 E262.33852
G1 X121.18 Y137.29 E262.42671
G1 X121.18 Y137.09 E262.43919
G1 X122.18 Y136.09 E262.52738
G1 X122.18 Y135.89 E262.53985
G1 X123.18 Y134.89 E262.62805
G1 X123.18 Y134.69 E262.64052
G1 X123.98 Y133.89 E262.71108
G1 X123.98 Y133.29 E262.74837
G0 F6000 X124.48 Y133.60
G1 F2700 X125.47 Y133.10 E262.81751
G1 X126.07 Y132.50 E262.87034
G1 X126.47 Y132.30 E262.89831
G1 X127.27 Y131.50 E262.96878
G1 X127.67 Y131.30 E262.99675
G1 X128.27 Y130.70 E263.04958
G1 X128.67 Y130.50 E263.07755
G1 X129.47 Y129.70 E263.14802
G1 X129.87 Y129.50 E263.17599
G1 X130.67 Y128.70 E263.24646
G1 X137.07 Y125.50 E263.69277
G1 X137.39 Y125.19 E263.72073
G1 X138.53 Y124.90 E263.79460
G1 X140.92 Y124.10 E263.95148
G1 X141.73 Y123.90 E264.00360
G1 X144.83 Y122.86 E264.20748
G1 X149.87 Y122.44 E264.52250
G1 X157.29 Y122.44 E264.98523
G1 X159.87 Y122.66 E265.14656
G1 X160.83 Y122.90 E265.20877
G1 X163.22 Y123.70 E265.36584
G1 X164.03 Y123.90 E265.41797
G1 X167.18 Y124.95 E265.62511
G1 X173.89 Y128.30 E266.09243
G1 X174.09 Y128.50 E266.10998
G1 X174.49 Y128.70 E266.13795
G1 X175.09 Y129.30 E266.19078
G1 X175.49 Y129.50 E266.21875
G1 X176.28 Y130.30 E266.28922
G1 X176.69 Y130.50 E266.31719
G1 X177.28 Y131.10 E266.37002
G1 X177.69 Y131.30 E266.39800
G1 X178.49 Y132.10 E266.46846
G1 X178.89 Y132.30 E266.49644
G1 X181.08 Y134.49 E266.68963
G1 X181.08 Y134.69 E266.70216
G1 X181.88 Y135.49 E266.77267
G1 X181.88 Y135.69 E266.78521
G1 X182.68 Y136.49 E266.85572
G1 X182.68 Y136.69 E266.86825
G1 X183.48 Y137.49 E266.93876
G1 X183.48 Y137.69 E266.95130
G1 X184.28 Y138.49 E267.02181
G1 X184.28 Y138.69 E267.03435
G1 X184.88 Y139.29 E267.08722
G1 X184.88 Y139.49 E267.09975
G1 X185.28 Y139.89 E267.13499
G1 X185.28 Y140.09 E267.14746
G1 X185.48 Y140.29 E267.16510
G1 X185.48 Y140.49 E267.17757
G1 X185.68 Y140.69 E267.19521
G1 X185.68 Y140.89 E267.20774
G1 X186.08 Y141.29 E267.24298
G1 X186.08 Y141.49 E267.25545
G1 X186.28 Y141.69 E267.27309
G1 X186.28 Y141.89 E267.28556
G1 X186.48 Y142.09 E267.30320
G1 X186.48 Y142.29 E267.31567
G1 X186.68 Y142.49 E267.33331
G1 X186.68 Y142.69 E267.34585
G1 X187.08 Y143.09 E267.38108
G1 X187.08 Y143.29 E267.39355
G1 X187.28 Y143.49 E267.41119
G1 X187.28 Y143.69 E267.42367
G1 X187.48 Y143.89 E267.44130
G1 X187.48 Y144.09 E267.45384
G1 X187.88 Y144.49 E267.48907
G1 X187.88 Y144.69 E267.50155
G1 X188.08 Y144.89 E267.51918
G1 X188.08 Y145.09 E267.53166
G1 X188.28 Y145.29 E267.54930
G1 X188.28 Y145.49 E267.56177
G1 X188.48 Y145.69 E267.57941
G1 X188.48 Y145.84 E267.58882
G1 X188.88 Y145.84 E267.61377
G1 X188.88 Y146.75 E267.67033
G1 X189.08 Y146.77 E267.68285
G1 X189.08 Y148.09 E267.76542
G1 X189.28 Y148.29 E267.78306
G1 X189.28 Y148.45 E267.79279
G1 X189.48 Y148.45 E267.80526
G1 X189.48 Y149.09 E267.84542
G1 X189.74 Y149.35 E267.86840
G1 X189.48 Y149.98 E267.91093
G1 X189.48 Y151.74 E268.02068
G1 X115.48 Y151.74 E272.63553
G1 X115.48 Y149.29 E272.78838
G1 X115.68 Y149.09 E272.80602
G1 X115.68 Y148.49 E272.84344
G1 X115.88 Y148.29 E272.86107
G1 X115.88 Y147.69 E272.89849
G1 X116.08 Y147.49 E272.91613
G1 X116.08 Y146.89 E272.95355
G1 X116.28 Y146.69 E272.97119
G1 X116.28 Y146.09 E273.00861
G1 X116.68 Y145.69 E273.04384
G1 X116.68 Y145.49 E273.05637
G1 X116.88 Y145.29 E273.07401
G1 X116.88 Y145.09 E273.08649
G1 X117.08 Y144.89 E273.10412
G1 X117.08 Y144.69 E273.11660
G1 X117.28 Y144.49 E273.13424
G1 X117.28 Y144.29 E273.14671
G1 X117.48 Y144.09 E273.16435
G1 X117.48 Y143.89 E273.17682
G1 X117.68 Y143.69 E273.19446
G1 X117.68 Y143.49 E273.20693
G1 X117.88 Y143.29 E273.22457
G1 X117.88 Y143.09 E273.23704
G1 X118.28 Y142.69 E273.27228
G1 X118.28 Y142.49 E273.28481
G1 X118.48 Y142.29 E273.30245
G1 X118.48 Y142.09 E273.31492
G1 X118.68 Y141.89 E273.33256
G1 X118.68 Y141.69 E273.34503
G1 X118.88 Y141.49 E273.36267
G1 X118.88 Y141.29 E273.37514
G1 X119.08 Y141.09 E273.39278
G1 X119.08 Y140.89 E273.40526
G1 X119.28 Y140.69 E273.42290
G1 X119.28 Y140.49 E273.43537
G1 X119.48 Y140.29 E273.45301
G1 X119.48 Y140.09 E273.46548
G1 X119.68 Y139.89 E273.48312
G1 X119.68 Y139.69 E273.49559
G1 X120.68 Y138.69 E273.58374
G1 X120.68 Y138.49 E273.59628
G1 X121.68 Y137.49 E273.68443
G1 X121.68 Y137.29 E273.69696
G1 X122.68 Y136.29 E273.78511
G1 X122.68 Y136.09 E273.79765
G1 X123.68 Y135.09 E273.88580
