;-- START GCODE --
;Sliced for Type A Machines Series 1
;Sliced at: Tue 26-07-2016 21:10:00
;Basic settings: Layer height: 0.2 Walls: 1.5 Fill: 40
;Print Speed: 100 Support: 0
;Retraction Speed: 40 Retraction Distance: 1.2
;Print time: #P_TIME#
;Filament used: #F_AMNT#m #F_WGHT#g
;Filament cost: #F_COST#
M106 S255	 ;start with the fan on
G21        ;metric values
G90        ;absolute positioning
M106 S255    ;start with the fan on
G28     ;move to endstops
G29		;allows for auto-levelling
G1 X150 Y5  Z15.0 F6000 ;center and move the platform down 15mm
M109 S220 ;Heat To temp
G92 E0                  ;zero the extruded length
G1 F200 E30              ;extrude 30mm of feed stock
G92 E0                  ;zero the extruded length again
G1 X175 Y25  Z0 F6000 ;remove bugger
G1 X220 F6000 ;remove bugger
G1 X150 Y150  Z15 F6000 ;recenter and begin
G1 F6000

;Layer count: 89
;LAYER:0
M106 S255
G0 F6000 X129.25 Y130.47 Z0.30
;TYPE:SKIRT
G1 F2700 X175.75 Y130.47 E2.89981
G1 X175.75 Y170.03 E5.36681
G1 X174.15 Y170.03 E5.46653
G1 X174.15 Y171.57 E5.56263
G1 X130.55 Y171.57 E8.28165
G1 X130.55 Y170.03 E8.37775
G1 X129.25 Y170.03 E8.45882
G1 X129.25 Y130.47 E10.92583
G0 F6000 X129.75 Y130.97
G1 F2700 X175.25 Y130.97 E13.76327
G1 X175.25 Y169.53 E16.16792
G1 X173.65 Y169.53 E16.26764
G1 X173.65 Y171.07 E16.36374
G1 X131.05 Y171.07 E19.02039
G1 X131.05 Y169.53 E19.11649
G1 X129.75 Y169.53 E19.19756
G1 X129.75 Y130.97 E21.60221
G0 F6000 X130.25 Y131.47
G1 F2700 X174.75 Y131.47 E24.37729
G1 X174.75 Y169.03 E26.71957
G1 X173.15 Y169.03 E26.81929
G1 X173.15 Y170.57 E26.91539
G1 X131.55 Y170.57 E29.50968
G1 X131.55 Y169.03 E29.60578
G1 X130.25 Y169.03 E29.68685
G1 X130.25 Y131.47 E32.02914
G0 F6000 X130.75 Y131.97
G1 F2700 X174.25 Y131.97 E34.74185
G1 X174.25 Y168.53 E37.02177
G1 X172.65 Y168.53 E37.12149
G1 X172.65 Y170.07 E37.21759
G1 X132.05 Y170.07 E39.74952
G1 X132.05 Y168.53 E39.84562
G1 X130.75 Y168.53 E39.92669
G1 X130.75 Y131.97 E42.20661
G0 F6000 X131.25 Y132.47
G1 F2700 X173.75 Y132.47 E44.85697
G1 X173.75 Y168.03 E47.07452
G1 X172.15 Y168.03 E47.17424
G1 X172.15 Y169.57 E47.27034
G1 X132.55 Y169.57 E49.73991
G1 X132.55 Y168.03 E49.83601
G1 X131.25 Y168.03 E49.91708
G1 X131.25 Y132.47 E52.13464
G0 F6000 X131.75 Y132.97
G1 F2700 X173.25 Y132.97 E54.72263
G1 X173.25 Y167.53 E56.87782
G1 X171.65 Y167.53 E56.97754
G1 X171.65 Y169.07 E57.07364
G1 X133.05 Y169.07 E59.48085
G1 X133.05 Y167.53 E59.57695
G1 X131.75 Y167.53 E59.65802
G1 X131.75 Y132.97 E61.81321
G0 F6000 X132.25 Y133.47
G1 F2700 X172.75 Y133.47 E64.33884
G1 X172.75 Y167.03 E66.43167
G1 X171.15 Y167.03 E66.53139
G1 X171.15 Y168.57 E66.62749
G1 X133.55 Y168.57 E68.97233
G1 X133.55 Y167.03 E69.06843
G1 X132.25 Y167.03 E69.14950
G1 X132.25 Y133.47 E71.24234
G0 F6000 X132.75 Y133.97
G1 F2700 X172.25 Y133.97 E73.70560
G1 X172.25 Y166.53 E75.73607
G1 X170.65 Y166.53 E75.83579
G1 X170.65 Y168.07 E75.93189
G1 X134.05 Y168.07 E78.21437
G1 X134.05 Y166.53 E78.31047
G1 X132.75 Y166.53 E78.39154
G1 X132.75 Y133.97 E80.42201
G0 F6000 X133.25 Y134.47
G1 F2700 X171.75 Y134.47 E82.82291
G1 X171.75 Y166.03 E84.79102
G1 X170.15 Y166.03 E84.89074
G1 X170.15 Y167.57 E84.98684
G1 X134.55 Y167.57 E87.20695
G1 X134.55 Y166.03 E87.30305
G1 X133.25 Y166.03 E87.38412
G1 X133.25 Y134.47 E89.35223
G0 F6000 X133.75 Y134.97
G1 F2700 X171.25 Y134.97 E91.69077
G1 X171.25 Y165.53 E93.59651
G1 X169.65 Y165.53 E93.69623
G1 X169.65 Y167.07 E93.79233
G1 X152.85 Y167.07 E94.84003
G1 X152.85 Y165.53 E94.93613
G1 X151.85 Y165.53 E94.99849
G1 X151.85 Y167.07 E95.09459
G1 X135.05 Y167.07 E96.14229
G1 X135.05 Y165.53 E96.23839
G1 X133.75 Y165.53 E96.31946
G1 X133.75 Y134.97 E98.22520
G0 F6000 X134.25 Y135.47
G1 F2700 X170.75 Y135.47 E100.50138
G1 X170.75 Y165.03 E102.34476
G1 X169.15 Y165.03 E102.44448
G1 X169.15 Y166.57 E102.54058
G1 X153.35 Y166.57 E103.52591
G1 X153.35 Y165.03 E103.62201
G1 X151.35 Y165.03 E103.74674
G1 X151.35 Y166.57 E103.84284
G1 X135.55 Y166.57 E104.82817
G1 X135.55 Y165.03 E104.92427
G1 X134.25 Y165.03 E105.00534
G1 X134.25 Y135.47 E106.84872
G0 F6000 X134.75 Y135.97
G1 F2700 X152.25 Y135.97 E107.94007
G1 X152.25 Y164.53 E109.72109
G1 X150.85 Y164.53 E109.80840
G1 X150.85 Y166.07 E109.90450
G1 X136.05 Y166.07 E110.82747
G1 X136.05 Y164.53 E110.92357
G1 X134.75 Y164.53 E111.00464
G1 X134.75 Y135.97 E112.78566
G0 F6000 X135.25 Y136.47
G1 F2700 X151.75 Y136.47 E113.81464
G1 X151.75 Y164.03 E115.53330
G1 X150.35 Y164.03 E115.62061
G1 X150.35 Y165.57 E115.71671
G1 X136.55 Y165.57 E116.57731
G1 X136.55 Y164.03 E116.67341
G1 X135.25 Y164.03 E116.75449
G1 X135.25 Y136.47 E118.47314
G0 F6000 X135.75 Y136.97
G1 F2700 X151.25 Y136.97 E119.43976
G1 X151.25 Y163.53 E121.09606
G1 X149.85 Y163.53 E121.18336
G1 X149.85 Y165.07 E121.27947
G1 X137.05 Y165.07 E122.07771
G1 X137.05 Y163.53 E122.17381
G1 X135.75 Y163.53 E122.25488
G1 X135.75 Y136.97 E123.91117
G0 F6000 X136.25 Y137.47
G1 F2700 X150.75 Y137.47 E124.81543
G1 X150.75 Y163.03 E126.40936
G1 X149.35 Y163.03 E126.49667
G1 X149.35 Y164.57 E126.59277
G1 X137.55 Y164.57 E127.32865
G1 X137.55 Y163.03 E127.42475
G1 X136.25 Y163.03 E127.50583
G1 X136.25 Y137.47 E129.09975
G0 F6000 X140.85 Y141.02
G1 F2700 X140.38 Y141.59 E129.14531
G1 X140.04 Y142.24 E129.19115
G1 X139.82 Y142.94 E129.23696
G1 X139.75 Y143.67 E129.28290
G1 X139.82 Y144.40 E129.32883
G1 X140.04 Y145.11 E129.37464
G1 X140.38 Y145.75 E129.42029
G1 X140.85 Y146.32 E129.46620
G1 X141.41 Y146.79 E129.51192
G1 X142.07 Y147.13 E129.55806
G1 X142.77 Y147.35 E129.60355
G1 X143.50 Y147.42 E129.64949
G1 X144.23 Y147.35 E129.69549
G1 X144.93 Y147.13 E129.74098
G1 X145.58 Y146.79 E129.78713
G1 X146.15 Y146.32 E129.83285
G1 X146.62 Y145.75 E129.87876
G1 X146.96 Y145.11 E129.92440
G1 X147.18 Y144.40 E129.97027
G1 X147.25 Y143.67 E130.01614
G1 X147.18 Y142.94 E130.06201
G1 X146.96 Y142.24 E130.10788
G1 X146.62 Y141.59 E130.15372
G1 X146.15 Y141.02 E130.19927
G1 X145.58 Y140.55 E130.24540
G1 X144.93 Y140.21 E130.29116
G1 X144.23 Y140.00 E130.33677
G1 X143.50 Y139.92 E130.38283
G1 X142.76 Y140.00 E130.42883
G1 X142.06 Y140.21 E130.47445
G1 X141.42 Y140.55 E130.52020
G1 X140.85 Y141.02 E130.56633
G0 F6000 X141.20 Y141.38
G1 F2700 X140.80 Y141.87 E130.60582
G1 X140.50 Y142.43 E130.64538
G1 X140.31 Y143.04 E130.68553
G1 X140.25 Y143.67 E130.72494
G1 X140.31 Y144.30 E130.76436
G1 X140.50 Y144.92 E130.80451
G1 X140.80 Y145.47 E130.84385
G1 X141.21 Y145.97 E130.88395
G1 X141.69 Y146.37 E130.92316
G1 X142.26 Y146.67 E130.96303
G1 X142.87 Y146.86 E131.00300
G1 X143.50 Y146.92 E131.04241
G1 X144.13 Y146.86 E131.08189
G1 X144.74 Y146.67 E131.12186
G1 X145.31 Y146.37 E131.16173
G1 X145.79 Y145.97 E131.20094
G1 X146.20 Y145.47 E131.24104
G1 X146.50 Y144.92 E131.28038
G1 X146.69 Y144.30 E131.32053
G1 X146.75 Y143.67 E131.35994
G1 X146.69 Y143.04 E131.39935
G1 X146.50 Y142.43 E131.43950
G1 X146.20 Y141.87 E131.47906
G1 X145.80 Y141.38 E131.51855
G1 X145.30 Y140.97 E131.55856
G1 X144.74 Y140.67 E131.59801
G1 X144.13 Y140.49 E131.63788
G1 X143.50 Y140.42 E131.67749
G1 X142.87 Y140.49 E131.71703
G1 X142.26 Y140.67 E131.75691
G1 X141.70 Y140.97 E131.79636
G1 X141.20 Y141.38 E131.83637
G0 F6000 X152.75 Y135.97
G1 F2700 X170.25 Y135.97 E132.92772
G1 X170.25 Y164.53 E134.70874
G1 X168.65 Y164.53 E134.80845
G1 X168.65 Y166.07 E134.90455
G1 X153.85 Y166.07 E135.82752
G1 X153.85 Y164.53 E135.92362
G1 X152.75 Y164.53 E135.99229
G1 X152.75 Y135.97 E137.77330
G0 F6000 X153.25 Y136.47
G1 F2700 X169.75 Y136.47 E138.80229
G1 X169.75 Y164.03 E140.52094
G1 X168.15 Y164.03 E140.62066
G1 X168.15 Y165.57 E140.71676
G1 X154.35 Y165.57 E141.57737
G1 X154.35 Y164.03 E141.67347
G1 X153.25 Y164.03 E141.74213
G1 X153.25 Y136.47 E143.46079
G0 F6000 X153.75 Y136.97
G1 F2700 X169.25 Y136.97 E144.42741
G1 X169.25 Y163.53 E146.08370
G1 X167.65 Y163.53 E146.18342
G1 X167.65 Y165.07 E146.27952
G1 X154.85 Y165.07 E147.07776
G1 X154.85 Y163.53 E147.17386
G1 X153.75 Y163.53 E147.24253
G1 X153.75 Y136.97 E148.89882
G0 F6000 X154.25 Y137.47
G1 F2700 X168.75 Y137.47 E149.80308
G1 X168.75 Y163.03 E151.39701
G1 X167.15 Y163.03 E151.49673
G1 X167.15 Y164.57 E151.59283
G1 X155.35 Y164.57 E152.32871
G1 X155.35 Y163.03 E152.42481
G1 X154.25 Y163.03 E152.49347
G1 X154.25 Y137.47 E154.08740
G0 F6000 X158.84 Y141.02
G1 F2700 X158.38 Y141.59 E154.13295
G1 X158.03 Y142.24 E154.17879
G1 X157.82 Y142.94 E154.22460
G1 X157.75 Y143.67 E154.27054
G1 X157.82 Y144.40 E154.31648
G1 X158.03 Y145.11 E154.36229
G1 X158.38 Y145.75 E154.40793
G1 X158.85 Y146.32 E154.45384
G1 X159.41 Y146.79 E154.49956
G1 X160.07 Y147.13 E154.54571
G1 X160.76 Y147.35 E154.59120
G1 X161.50 Y147.42 E154.63714
G1 X162.23 Y147.35 E154.68314
G1 X162.93 Y147.13 E154.72863
G1 X163.58 Y146.79 E154.77477
G1 X164.15 Y146.32 E154.82050
G1 X164.62 Y145.75 E154.86640
G1 X164.96 Y145.11 E154.91205
G1 X165.18 Y144.40 E154.95792
G1 X165.25 Y143.67 E155.00379
G1 X165.18 Y142.94 E155.04966
G1 X164.96 Y142.24 E155.09552
G1 X164.62 Y141.59 E155.14137
G1 X164.15 Y141.02 E155.18692
G1 X163.58 Y140.55 E155.23305
G1 X162.93 Y140.21 E155.27880
G1 X162.23 Y140.00 E155.32442
G1 X161.50 Y139.92 E155.37048
G1 X160.76 Y140.00 E155.41648
G1 X160.06 Y140.21 E155.46209
G1 X159.42 Y140.55 E155.50785
G1 X158.84 Y141.02 E155.55398
G0 F6000 X159.20 Y141.38
G1 F2700 X158.80 Y141.87 E155.59346
G1 X158.50 Y142.43 E155.63303
G1 X158.31 Y143.04 E155.67317
G1 X158.25 Y143.67 E155.71259
G1 X158.31 Y144.30 E155.75201
G1 X158.50 Y144.92 E155.79215
G1 X158.80 Y145.47 E155.83149
G1 X159.21 Y145.97 E155.87159
G1 X159.69 Y146.37 E155.91081
G1 X160.26 Y146.67 E155.95067
G1 X160.87 Y146.86 E155.99064
G1 X161.50 Y146.92 E156.03006
G1 X162.13 Y146.86 E156.06954
G1 X162.74 Y146.67 E156.10950
G1 X163.31 Y146.37 E156.14937
G1 X163.79 Y145.97 E156.18859
G1 X164.20 Y145.47 E156.22869
G1 X164.50 Y144.92 E156.26803
G1 X164.68 Y144.30 E156.30817
G1 X164.75 Y143.67 E156.34758
G1 X164.68 Y143.04 E156.38699
G1 X164.50 Y142.43 E156.42714
G1 X164.20 Y141.87 E156.46670
G1 X163.80 Y141.38 E156.50619
G1 X163.30 Y140.97 E156.54620
G1 X162.74 Y140.67 E156.58565
G1 X162.13 Y140.49 E156.62552
G1 X161.50 Y140.42 E156.66513
G1 X160.87 Y140.49 E156.70468
G1 X160.25 Y140.67 E156.74455
G1 X159.70 Y140.97 E156.78400
G1 X159.20 Y141.38 E156.82401
G0 F6000 X149.25 Y138.97
;TYPE:WALL-INNER
G1 F2700 X149.25 Y161.53 E158.23086
G1 X137.75 Y161.53 E158.94803
G1 X137.75 Y138.97 E160.35487
G1 X141.21 Y138.97 E160.57039
G1 X140.58 Y139.30 E160.61467
G1 X139.78 Y139.95 E160.67893
G1 X139.13 Y140.75 E160.74314
G1 X138.64 Y141.66 E160.80737
G1 X138.34 Y142.65 E160.87170
G1 X138.24 Y143.67 E160.93593
G1 X138.34 Y144.70 E161.00016
G1 X138.64 Y145.68 E161.06450
G1 X139.13 Y146.59 E161.12872
G1 X139.78 Y147.39 E161.19289
G1 X140.58 Y148.04 E161.25723
G1 X141.49 Y148.53 E161.32150
G1 X142.47 Y148.83 E161.38566
G1 X143.50 Y148.93 E161.44995
G1 X144.53 Y148.83 E161.51424
G1 X145.51 Y148.53 E161.57846
G1 X146.42 Y148.04 E161.64273
G1 X147.22 Y147.39 E161.70707
G1 X147.87 Y146.59 E161.77124
G1 X148.35 Y145.68 E161.83546
G1 X148.66 Y144.70 E161.89980
G1 X148.75 Y143.67 E161.96402
G1 X148.66 Y142.65 E162.02825
G1 X148.35 Y141.66 E162.09258
G1 X147.87 Y140.75 E162.15680
G1 X147.22 Y139.95 E162.22102
G1 X146.42 Y139.30 E162.28528
G1 X145.79 Y138.97 E162.32955
G1 X149.25 Y138.97 E162.54502
G0 F6000 X149.75 Y138.47
G1 F2700 X149.75 Y162.03 E164.01422
G1 X137.25 Y162.03 E164.79376
G1 X137.25 Y138.47 E166.26296
G1 X149.75 Y138.47 E167.04249
G0 F6000 X146.86 Y140.31
G1 F2700 X146.14 Y139.72 E167.10058
G1 X145.32 Y139.28 E167.15875
G1 X144.43 Y139.01 E167.21681
G1 X143.50 Y138.92 E167.27497
G1 X142.57 Y139.01 E167.33307
G1 X141.68 Y139.28 E167.39113
G1 X140.86 Y139.72 E167.44930
G1 X140.14 Y140.31 E167.50739
G1 X139.55 Y141.03 E167.56552
G1 X139.11 Y141.85 E167.62358
G1 X138.84 Y142.74 E167.68178
G1 X138.75 Y143.67 E167.73988
G1 X138.84 Y144.60 E167.79797
G1 X139.11 Y145.49 E167.85617
G1 X139.55 Y146.31 E167.91423
G1 X140.14 Y147.03 E167.97232
G1 X140.86 Y147.62 E168.03045
G1 X141.68 Y148.06 E168.08859
G1 X142.57 Y148.33 E168.14667
G1 X143.50 Y148.43 E168.20476
G1 X144.43 Y148.33 E168.26292
G1 X145.32 Y148.06 E168.32100
G1 X146.14 Y147.62 E168.37914
G1 X146.86 Y147.03 E168.43727
G1 X147.45 Y146.31 E168.49536
G1 X147.89 Y145.49 E168.55342
G1 X148.16 Y144.60 E168.61162
G1 X148.25 Y143.67 E168.66970
G1 X148.16 Y142.74 E168.72779
G1 X147.89 Y141.85 E168.78599
G1 X147.45 Y141.03 E168.84405
G1 X146.86 Y140.31 E168.90219
G0 F6000 X146.51 Y140.66
;TYPE:WALL-OUTER
G1 F2700 X145.86 Y140.14 E168.95412
G1 X145.13 Y139.74 E169.00616
G1 X144.33 Y139.50 E169.05808
G1 X143.50 Y139.42 E169.11009
G1 X142.67 Y139.50 E169.16205
G1 X141.87 Y139.74 E169.21397
G1 X141.14 Y140.14 E169.26600
G1 X140.49 Y140.66 E169.31794
G1 X139.97 Y141.31 E169.36992
G1 X139.57 Y142.04 E169.42190
G1 X139.33 Y142.84 E169.47390
G1 X139.25 Y143.67 E169.52585
G1 X139.33 Y144.50 E169.57780
G1 X139.57 Y145.30 E169.62981
G1 X139.97 Y146.03 E169.68178
G1 X140.49 Y146.68 E169.73372
G1 X141.14 Y147.21 E169.78569
G1 X141.87 Y147.60 E169.83770
G1 X142.67 Y147.84 E169.88964
G1 X143.50 Y147.92 E169.94159
G1 X144.33 Y147.84 E169.99360
G1 X145.13 Y147.60 E170.04555
G1 X145.86 Y147.21 E170.09755
G1 X146.51 Y146.68 E170.14953
G1 X147.03 Y146.03 E170.20146
G1 X147.43 Y145.30 E170.25344
G1 X147.67 Y144.50 E170.30544
G1 X147.75 Y143.67 E170.35739
G1 X147.67 Y142.84 E170.40933
G1 X147.43 Y142.04 E170.46133
G1 X147.03 Y141.31 E170.51331
G1 X146.51 Y140.66 E170.56529
G0 F6000 X146.78 Y140.44
G0 X149.90 Y138.23
G0 X150.25 Y137.97
G1 F2700 X150.25 Y162.53 E172.09686
G1 X136.75 Y162.53 E172.93876
G1 X136.75 Y137.97 E174.47032
G1 X150.25 Y137.97 E175.31222
G0 F6000 X149.90 Y138.23
G0 X149.07 Y139.53
;TYPE:FILL
G1 F2700 X148.69 Y139.14 E175.34635
G0 F6000 X147.98 Y139.14
G1 F2700 X149.07 Y140.23 E175.44284
G0 F6000 X149.07 Y140.94
G1 F2700 X147.27 Y139.14 E175.60168
G0 F6000 X146.86 Y139.44
G1 F2700 X146.63 Y139.21 E175.62187
G0 F6000 X147.73 Y140.31
G1 F2700 X149.07 Y141.65 E175.74027
G0 F6000 X148.61 Y141.89
G1 F2700 X148.96 Y142.60 E175.78144
G1 X149.02 Y143.37 E175.80126
G1 X148.97 Y144.02 E175.81030
G1 X148.93 Y144.68 E175.82815
G1 X148.84 Y145.31 E175.85414
G1 X148.74 Y145.91 E175.89471
G1 X149.07 Y146.60 E175.94201
G0 F6000 X149.07 Y147.31
G1 F2700 X148.17 Y146.40 E176.02183
G0 F6000 X147.89 Y146.83
G1 F2700 X149.07 Y148.01 E176.12581
G0 F6000 X149.07 Y148.72
G1 F2700 X147.58 Y147.22 E176.25788
G0 F6000 X147.24 Y147.59
G1 F2700 X149.07 Y149.43 E176.41959
G0 F6000 X149.07 Y150.13
G1 F2700 X146.85 Y147.91 E176.61555
G0 F6000 X146.45 Y148.22
G1 F2700 X149.07 Y150.84 E176.84662
G0 F6000 X149.07 Y151.55
G1 F2700 X145.99 Y148.47 E177.11835
G0 F6000 X145.52 Y148.70
G1 F2700 X149.07 Y152.25 E177.43153
G0 F6000 X149.07 Y152.96
G1 F2700 X144.98 Y148.87 E177.79251
G0 F6000 X144.41 Y149.01
G1 F2700 X149.07 Y153.67 E178.20327
G0 F6000 X149.07 Y154.38
G1 F2700 X143.77 Y149.07 E178.67083
G0 F6000 X143.05 Y149.06
G1 F2700 X149.07 Y155.08 E179.20238
G0 F6000 X149.07 Y155.79
G1 F2700 X142.21 Y148.93 E179.80774
G0 F6000 X141.08 Y148.51
G1 F2700 X149.07 Y156.50 E180.51246
G0 F6000 X149.07 Y157.21
G1 F2700 X137.92 Y146.06 E181.49578
G0 F6000 X137.92 Y146.76
G1 F2700 X149.07 Y157.91 E182.47910
G0 F6000 X149.07 Y158.62
G1 F2700 X137.92 Y147.47 E183.46243
G0 F6000 X137.92 Y148.18
G1 F2700 X149.07 Y159.33 E184.44570
G0 F6000 X149.07 Y160.03
G1 F2700 X137.92 Y148.88 E185.42898
G0 F6000 X137.92 Y149.59
G1 F2700 X149.07 Y160.74 E186.41226
G0 F6000 X148.97 Y161.35
G1 F2700 X137.92 Y150.30 E187.38685
G0 F6000 X137.92 Y151.00
G1 F2700 X148.27 Y161.35 E188.29909
G0 F6000 X147.56 Y161.35
G1 F2700 X137.92 Y151.71 E189.14897
G0 F6000 X137.92 Y152.42
G1 F2700 X146.85 Y161.35 E189.93650
G0 F6000 X146.15 Y161.35
G1 F2700 X137.92 Y153.13 E190.66168
G0 F6000 X137.92 Y153.83
G1 F2700 X145.44 Y161.35 E191.32450
G0 F6000 X144.73 Y161.35
G1 F2700 X137.92 Y154.54 E191.92493
G0 F6000 X137.92 Y155.25
G1 F2700 X144.02 Y161.35 E192.46296
G0 F6000 X143.32 Y161.35
G1 F2700 X137.92 Y155.96 E192.93863
G0 F6000 X137.92 Y156.66
G1 F2700 X142.61 Y161.35 E193.35196
G0 F6000 X141.90 Y161.35
G1 F2700 X137.92 Y157.37 E193.70293
G0 F6000 X137.92 Y158.08
G1 F2700 X141.20 Y161.35 E193.99154
G0 F6000 X140.49 Y161.35
G1 F2700 X137.92 Y158.78 E194.21780
G0 F6000 X137.92 Y159.49
G1 F2700 X139.78 Y161.35 E194.38171
G0 F6000 X139.07 Y161.35
G1 F2700 X137.92 Y160.20 E194.48327
G0 F6000 X137.92 Y160.90
G1 F2700 X138.37 Y161.35 E194.52247
G0 F6000 X138.66 Y146.09
G1 F2700 X137.92 Y145.35 E194.58751
G0 F6000 X138.24 Y144.96
G1 F2700 X138.02 Y144.38 E194.61550
G1 X138.01 Y143.67 E194.63200
G1 X138.04 Y142.99 E194.64703
G1 X138.11 Y142.35 E194.66762
G1 X138.19 Y141.73 E194.70072
G1 X137.92 Y141.10 E194.74312
G0 F6000 X137.92 Y140.40
G1 F2700 X138.70 Y141.18 E194.81187
G0 F6000 X138.95 Y140.72
G1 F2700 X137.92 Y139.69 E194.90235
G0 F6000 X138.08 Y139.14
G1 F2700 X139.26 Y140.32 E195.00620
G0 F6000 X139.57 Y139.93
G1 F2700 X138.79 Y139.14 E195.07570
G0 F6000 X139.49 Y139.14
G1 F2700 X140.14 Y139.43 E195.11544
G1 X140.20 Y139.14 E195.13405
G0 F6000 X155.75 Y138.97
;TYPE:WALL-INNER
G1 F2700 X159.20 Y138.97 E195.34958
G1 X158.58 Y139.30 E195.39386
G1 X157.78 Y139.95 E195.45811
G1 X157.13 Y140.75 E195.52233
G1 X156.64 Y141.66 E195.58656
G1 X156.34 Y142.65 E195.65089
G1 X156.24 Y143.67 E195.71512
G1 X156.34 Y144.70 E195.77935
G1 X156.64 Y145.68 E195.84368
G1 X157.13 Y146.59 E195.90791
G1 X157.78 Y147.39 E195.97208
G1 X158.58 Y148.04 E196.03641
G1 X159.49 Y148.53 E196.10069
G1 X160.47 Y148.83 E196.16484
G1 X161.50 Y148.93 E196.22914
G1 X162.52 Y148.83 E196.29343
G1 X163.51 Y148.53 E196.35764
G1 X164.42 Y148.04 E196.42192
G1 X165.22 Y147.39 E196.48626
G1 X165.87 Y146.59 E196.55042
G1 X166.35 Y145.68 E196.61465
G1 X166.65 Y144.70 E196.67898
G1 X166.75 Y143.67 E196.74321
G1 X166.65 Y142.65 E196.80743
G1 X166.35 Y141.66 E196.87177
G1 X165.87 Y140.75 E196.93599
G1 X165.22 Y139.95 E197.00021
G1 X164.42 Y139.30 E197.06446
G1 X163.79 Y138.97 E197.10874
G1 X167.25 Y138.97 E197.32420
G1 X167.25 Y161.53 E198.73105
G1 X155.75 Y161.53 E199.44822
G1 X155.75 Y138.97 E200.85506
G0 F6000 X155.25 Y138.47
G1 F2700 X167.75 Y138.47 E201.63459
G1 X167.75 Y162.03 E203.10380
G1 X155.25 Y162.03 E203.88333
G1 X155.25 Y138.47 E205.35254
G0 F6000 X158.14 Y140.31
G1 F2700 X157.55 Y141.03 E205.41067
G1 X157.11 Y141.85 E205.46873
G1 X156.84 Y142.74 E205.52693
G1 X156.74 Y143.67 E205.58503
G1 X156.84 Y144.60 E205.64312
G1 X157.11 Y145.49 E205.70132
G1 X157.55 Y146.31 E205.75938
G1 X158.14 Y147.03 E205.81747
G1 X158.86 Y147.62 E205.87560
G1 X159.68 Y148.06 E205.93374
G1 X160.57 Y148.33 E205.99182
G1 X161.50 Y148.43 E206.04991
G1 X162.43 Y148.33 E206.10807
G1 X163.32 Y148.06 E206.16615
G1 X164.14 Y147.62 E206.22429
G1 X164.86 Y147.03 E206.28242
G1 X165.45 Y146.31 E206.34051
G1 X165.89 Y145.49 E206.39857
G1 X166.16 Y144.60 E206.45677
G1 X166.25 Y143.67 E206.51485
G1 X166.16 Y142.74 E206.57294
G1 X165.89 Y141.85 E206.63114
G1 X165.45 Y141.03 E206.68920
G1 X164.86 Y140.31 E206.74734
G1 X164.14 Y139.72 E206.80543
G1 X163.32 Y139.28 E206.86360
G1 X162.43 Y139.01 E206.92166
G1 X161.50 Y138.92 E206.97981
G1 X160.57 Y139.01 E207.03791
G1 X159.68 Y139.28 E207.09597
G1 X158.86 Y139.72 E207.15414
G1 X158.14 Y140.31 E207.21223
G0 F6000 X158.49 Y140.66
;TYPE:WALL-OUTER
G1 F2700 X157.96 Y141.31 E207.26421
G1 X157.57 Y142.04 E207.31619
G1 X157.33 Y142.84 E207.36819
G1 X157.25 Y143.67 E207.42014
G1 X157.33 Y144.50 E207.47210
G1 X157.57 Y145.30 E207.52410
G1 X157.96 Y146.03 E207.57608
G1 X158.49 Y146.68 E207.62801
G1 X159.14 Y147.21 E207.67998
G1 X159.87 Y147.60 E207.73199
G1 X160.67 Y147.84 E207.78393
G1 X161.50 Y147.92 E207.83588
G1 X162.33 Y147.84 E207.88790
G1 X163.12 Y147.60 E207.93984
G1 X163.86 Y147.21 E207.99184
G1 X164.50 Y146.68 E208.04382
G1 X165.03 Y146.03 E208.09575
G1 X165.43 Y145.30 E208.14773
G1 X165.67 Y144.50 E208.19973
G1 X165.75 Y143.67 E208.25168
G1 X165.67 Y142.84 E208.30362
G1 X165.43 Y142.04 E208.35563
G1 X165.03 Y141.31 E208.40760
G1 X164.50 Y140.66 E208.45959
G1 X163.86 Y140.14 E208.51152
G1 X163.12 Y139.74 E208.56355
G1 X162.33 Y139.50 E208.61548
G1 X161.50 Y139.42 E208.66749
G1 X160.67 Y139.50 E208.71944
G1 X159.87 Y139.74 E208.77137
G1 X159.14 Y140.14 E208.82340
G1 X158.49 Y140.66 E208.87534
G0 F6000 X158.22 Y140.44
G0 X155.10 Y138.23
G0 X154.75 Y137.97
G1 F2700 X168.25 Y137.97 E209.71723
G1 X168.25 Y162.53 E211.24880
G1 X154.75 Y162.53 E212.09070
G1 X154.75 Y137.97 E213.62226
G0 F6000 X155.10 Y138.23
G0 X155.92 Y139.30
;TYPE:FILL
G1 F2700 X157.11 Y140.50 E213.72730
G0 F6000 X157.43 Y140.10
G1 F2700 X156.47 Y139.14 E213.81237
G0 F6000 X157.17 Y139.14
G1 F2700 X157.96 Y139.58 E213.86484
G1 X157.88 Y139.14 E213.89258
G0 F6000 X156.84 Y140.93
G1 F2700 X155.92 Y140.01 E213.97323
G0 F6000 X155.92 Y140.72
G1 F2700 X156.49 Y141.64 E214.03208
G1 X155.92 Y141.78 E214.07328
G1 X156.07 Y142.64 E214.09994
G1 X156.02 Y143.30 E214.11804
G1 X155.99 Y143.97 E214.12940
G1 X156.03 Y144.72 E214.14910
G1 X156.38 Y145.42 E214.19788
G0 F6000 X155.92 Y145.67
G1 F2700 X157.16 Y146.91 E214.30733
G0 F6000 X155.92 Y147.08
G1 F2700 X167.07 Y158.23 E215.29074
G0 F6000 X167.07 Y158.94
G1 F2700 X155.92 Y147.79 E216.27415
G0 F6000 X155.92 Y148.50
G1 F2700 X167.07 Y159.65 E217.25756
G0 F6000 X167.07 Y160.35
G1 F2700 X155.92 Y149.20 E218.24097
G0 F6000 X155.92 Y149.91
G1 F2700 X167.07 Y161.06 E219.22438
G0 F6000 X166.65 Y161.35
G1 F2700 X155.92 Y150.62 E220.17083
G0 F6000 X155.92 Y151.32
G1 F2700 X165.94 Y161.35 E221.05489
G0 F6000 X165.24 Y161.35
G1 F2700 X155.92 Y152.03 E221.87660
G0 F6000 X155.92 Y152.74
G1 F2700 X164.53 Y161.35 E222.63591
G0 F6000 X163.82 Y161.35
G1 F2700 X155.92 Y153.45 E223.33286
G0 F6000 X155.92 Y154.15
G1 F2700 X163.12 Y161.35 E223.96746
G0 F6000 X162.41 Y161.35
G1 F2700 X155.92 Y154.86 E224.53971
G0 F6000 X155.92 Y155.57
G1 F2700 X161.70 Y161.35 E225.04961
G0 F6000 X161.00 Y161.35
G1 F2700 X155.92 Y156.28 E225.49710
G0 F6000 X155.92 Y156.98
G1 F2700 X160.29 Y161.35 E225.88225
G0 F6000 X159.58 Y161.35
G1 F2700 X155.92 Y157.69 E226.20504
G0 F6000 X155.92 Y158.40
G1 F2700 X158.87 Y161.35 E226.46548
G0 F6000 X158.17 Y161.35
G1 F2700 X155.92 Y159.10 E226.66356
G0 F6000 X155.92 Y159.81
G1 F2700 X157.46 Y161.35 E226.79920
G0 F6000 X156.75 Y161.35
G1 F2700 X155.92 Y160.52 E226.87249
G0 F6000 X155.92 Y161.22
G1 F2700 X156.04 Y161.35 E226.88343
G0 F6000 X167.07 Y157.53
G1 F2700 X155.92 Y146.38 E227.86684
G0 F6000 X158.26 Y148.01
G1 F2700 X167.07 Y156.82 E228.64401
G0 F6000 X167.07 Y156.11
G1 F2700 X159.75 Y148.79 E229.28994
G0 F6000 X160.69 Y149.02
G1 F2700 X167.07 Y155.41 E229.85280
G0 F6000 X167.07 Y154.70
G1 F2700 X161.47 Y149.10 E230.34651
G0 F6000 X162.12 Y149.04
G1 F2700 X167.07 Y153.99 E230.78303
G0 F6000 X167.07 Y153.28
G1 F2700 X162.73 Y148.94 E231.16570
G0 F6000 X163.28 Y148.78
G1 F2700 X167.07 Y152.58 E231.50058
G0 F6000 X167.07 Y151.87
G1 F2700 X163.78 Y148.58 E231.79073
G0 F6000 X164.24 Y148.33
G1 F2700 X167.07 Y151.16 E232.04019
G0 F6000 X167.07 Y150.46
G1 F2700 X164.68 Y148.06 E232.25159
G0 F6000 X165.06 Y147.74
G1 F2700 X167.07 Y149.75 E232.42878
G0 F6000 X167.07 Y149.04
G1 F2700 X165.43 Y147.40 E232.57359
G0 F6000 X165.75 Y147.01
G1 F2700 X167.07 Y148.33 E232.69027
G0 F6000 X167.07 Y147.63
G1 F2700 X166.06 Y146.61 E232.77992
G0 F6000 X166.30 Y146.15
G1 F2700 X167.07 Y146.92 E232.84787
G0 F6000 X167.07 Y146.21
G1 F2700 X166.80 Y145.59 E232.89510
G1 X166.89 Y144.97 E232.92767
G1 X166.96 Y144.33 E232.94797
G1 X166.99 Y143.65 E232.96283
G1 X166.98 Y142.94 E232.97967
G1 X166.74 Y142.35 E233.01897
G0 F6000 X167.07 Y141.97
G1 F2700 X166.31 Y141.21 E233.08622
G0 F6000 X167.07 Y141.26
G1 F2700 X164.95 Y139.14 E233.27337
G0 F6000 X165.66 Y139.14
G1 F2700 X167.07 Y140.56 E233.39816
G0 F6000 X167.07 Y139.85
G1 F2700 X166.36 Y139.14 E233.46060
;LAYER:1
G0 F6000 X167.25 Y138.97 Z0.50
;TYPE:WALL-INNER
G1 F3480 X167.25 Y161.53 E234.39850
G1 X155.75 Y161.53 E234.87661
G1 X155.75 Y138.97 E235.81451
G1 X159.20 Y138.97 E235.95819
G1 X158.58 Y139.30 E235.98771
G1 X157.78 Y139.95 E236.03055
G1 X157.13 Y140.75 E236.07336
G1 X156.64 Y141.66 E236.11617
G1 X156.34 Y142.65 E236.15906
G1 X156.24 Y143.67 E236.20188
G1 X156.34 Y144.70 E236.24470
G1 X156.64 Y145.68 E236.28759
G1 X157.13 Y146.59 E236.33041
G1 X157.78 Y147.39 E236.37319
G1 X158.58 Y148.04 E236.41608
G1 X159.49 Y148.53 E236.45893
G1 X160.47 Y148.83 E236.50170
G1 X161.50 Y148.93 E236.54456
G1 X162.52 Y148.83 E236.58742
G1 X163.51 Y148.53 E236.63023
G1 X164.42 Y148.04 E236.67308
G1 X165.22 Y147.39 E236.71597
G1 X165.87 Y146.59 E236.75875
G1 X166.35 Y145.68 E236.80157
G1 X166.65 Y144.70 E236.84446
G1 X166.75 Y143.67 E236.88728
G1 X166.65 Y142.65 E236.93009
G1 X166.35 Y141.66 E236.97298
G1 X165.87 Y140.75 E237.01580
G1 X165.22 Y139.95 E237.05861
G1 X164.42 Y139.30 E237.10145
G1 X163.79 Y138.97 E237.13096
G1 X167.25 Y138.97 E237.27461
G0 F6000 X167.75 Y138.47
G1 F3480 X167.75 Y162.03 E238.25408
G1 X155.25 Y162.03 E238.77377
G1 X155.25 Y138.47 E239.75323
G1 X167.75 Y138.47 E240.27292
G0 F6000 X164.86 Y140.31
G1 F3480 X164.14 Y139.72 E240.31165
G1 X163.32 Y139.28 E240.35043
G1 X162.43 Y139.01 E240.38914
G1 X161.50 Y138.92 E240.42791
G1 X160.57 Y139.01 E240.46664
G1 X159.68 Y139.28 E240.50535
G1 X158.86 Y139.72 E240.54413
G1 X158.14 Y140.31 E240.58285
G1 X157.55 Y141.03 E240.62161
G1 X157.11 Y141.85 E240.66032
G1 X156.84 Y142.74 E240.69912
G1 X156.74 Y143.67 E240.73785
G1 X156.84 Y144.60 E240.77658
G1 X157.11 Y145.49 E240.81537
G1 X157.55 Y146.31 E240.85408
G1 X158.14 Y147.03 E240.89281
G1 X158.86 Y147.62 E240.93156
G1 X159.68 Y148.06 E240.97032
G1 X160.57 Y148.33 E241.00904
G1 X161.50 Y148.43 E241.04777
G1 X162.43 Y148.33 E241.08654
G1 X163.32 Y148.06 E241.12526
G1 X164.14 Y147.62 E241.16402
G1 X164.86 Y147.03 E241.20277
G1 X165.45 Y146.31 E241.24150
G1 X165.89 Y145.49 E241.28021
G1 X166.16 Y144.60 E241.31901
G1 X166.25 Y143.67 E241.35773
G1 X166.16 Y142.74 E241.39646
G1 X165.89 Y141.85 E241.43525
G1 X165.45 Y141.03 E241.47396
G1 X164.86 Y140.31 E241.51272
G0 F6000 X164.50 Y140.66
;TYPE:WALL-OUTER
G1 F3480 X163.86 Y140.14 E241.54734
G1 X163.12 Y139.74 E241.58203
G1 X162.33 Y139.50 E241.61665
G1 X161.50 Y139.42 E241.65132
G1 X160.67 Y139.50 E241.68596
G1 X159.87 Y139.74 E241.72058
G1 X159.14 Y140.14 E241.75526
G1 X158.49 Y140.66 E241.78989
G1 X157.96 Y141.31 E241.82454
G1 X157.57 Y142.04 E241.85919
G1 X157.33 Y142.84 E241.89386
G1 X157.25 Y143.67 E241.92850
G1 X157.33 Y144.50 E241.96313
G1 X157.57 Y145.30 E241.99780
G1 X157.96 Y146.03 E242.03245
G1 X158.49 Y146.68 E242.06707
G1 X159.14 Y147.21 E242.10172
G1 X159.87 Y147.60 E242.13639
G1 X160.67 Y147.84 E242.17102
G1 X161.50 Y147.92 E242.20566
G1 X162.33 Y147.84 E242.24033
G1 X163.12 Y147.60 E242.27496
G1 X163.86 Y147.21 E242.30963
G1 X164.50 Y146.68 E242.34428
G1 X165.03 Y146.03 E242.37890
G1 X165.43 Y145.30 E242.41355
G1 X165.67 Y144.50 E242.44822
G1 X165.75 Y143.67 E242.48285
G1 X165.67 Y142.84 E242.51748
G1 X165.43 Y142.04 E242.55215
G1 X165.03 Y141.31 E242.58680
G1 X164.50 Y140.66 E242.62146
G0 F6000 X164.78 Y140.44
G0 X167.90 Y138.23
G0 X168.25 Y137.97
G1 F3480 X168.25 Y162.53 E243.64250
G1 X154.75 Y162.53 E244.20377
G1 X154.75 Y137.97 E245.22481
G1 X168.25 Y137.97 E245.78608
G0 F6000 X167.90 Y138.23
G0 X167.07 Y139.46
;TYPE:FILL
G1 F3480 X165.95 Y140.58 E245.85187
G0 F6000 X165.63 Y140.19
G1 F3480 X166.68 Y139.14 E245.91349
G0 F6000 X165.97 Y139.14
G1 F3480 X165.12 Y139.65 E245.95253
G1 X165.27 Y139.14 E245.97450
G0 F6000 X167.07 Y140.17
G1 F3480 X166.21 Y141.03 E246.02500
G0 F6000 X166.46 Y141.49
G1 F3480 X167.07 Y141.23 E246.06098
G1 X166.86 Y142.15 E246.08617
G1 X166.94 Y142.77 E246.10168
G1 X166.98 Y143.44 E246.11283
G1 X166.99 Y144.13 E246.12234
G1 X166.95 Y144.88 E246.13629
G1 X166.55 Y145.64 E246.17200
G0 F6000 X167.07 Y145.82
G1 F3480 X155.92 Y156.97 E246.82758
G0 F6000 X155.92 Y157.68
G1 F3480 X167.07 Y146.53 E247.48316
G0 F6000 X167.07 Y147.24
G1 F3480 X155.92 Y158.39 E248.13873
G0 F6000 X155.92 Y159.09
G1 F3480 X167.07 Y147.94 E248.79431
G0 F6000 X167.07 Y148.65
G1 F3480 X155.92 Y159.80 E249.44989
G0 F6000 X155.92 Y160.51
G1 F3480 X167.07 Y149.36 E250.10547
G0 F6000 X167.07 Y150.06
G1 F3480 X155.92 Y161.21 E250.76101
G0 F6000 X156.49 Y161.35
G1 F3480 X167.07 Y150.77 E251.38293
G0 F6000 X167.07 Y151.48
G1 F3480 X157.20 Y161.35 E251.96328
G0 F6000 X157.91 Y161.35
G1 F3480 X167.07 Y152.19 E252.50206
G0 F6000 X167.07 Y152.89
G1 F3480 X158.62 Y161.35 E252.99924
G0 F6000 X159.32 Y161.35
G1 F3480 X167.07 Y153.60 E253.45485
G0 F6000 X167.07 Y154.31
G1 F3480 X160.03 Y161.35 E253.86889
G0 F6000 X160.74 Y161.35
G1 F3480 X167.07 Y155.01 E254.24137
G0 F6000 X167.07 Y155.72
G1 F3480 X161.44 Y161.35 E254.57227
G0 F6000 X162.15 Y161.35
G1 F3480 X167.07 Y156.43 E254.86167
G0 F6000 X167.07 Y157.14
G1 F3480 X162.86 Y161.35 E255.10943
G0 F6000 X163.56 Y161.35
G1 F3480 X167.07 Y157.84 E255.31563
G0 F6000 X167.07 Y158.55
G1 F3480 X164.27 Y161.35 E255.48026
G0 F6000 X164.98 Y161.35
G1 F3480 X167.07 Y159.26 E255.60332
G0 F6000 X167.07 Y159.96
G1 F3480 X165.69 Y161.35 E255.68481
G0 F6000 X166.39 Y161.35
G1 F3480 X167.07 Y160.67 E255.72473
G0 F6000 X155.92 Y156.26
G1 F3480 X163.47 Y148.72 E256.16829
G0 F6000 X162.47 Y149.00
G1 F3480 X155.92 Y155.56 E256.55352
G0 F6000 X155.92 Y154.85
G1 F3480 X161.69 Y149.08 E256.89266
G0 F6000 X161.01 Y149.05
G1 F3480 X155.92 Y154.14 E257.19193
G0 F6000 X155.92 Y153.44
G1 F3480 X160.38 Y148.98 E257.45399
G0 F6000 X159.84 Y148.81
G1 F3480 X155.92 Y152.73 E257.68418
G0 F6000 X155.92 Y152.02
G1 F3480 X159.31 Y148.63 E257.88355
G0 F6000 X158.85 Y148.38
G1 F3480 X155.92 Y151.31 E258.05583
G0 F6000 X155.92 Y150.61
G1 F3480 X158.41 Y148.12 E258.20182
G0 F6000 X158.02 Y147.81
G1 F3480 X155.92 Y149.90 E258.32497
G0 F6000 X155.92 Y149.19
G1 F3480 X157.63 Y147.48 E258.42554
G0 F6000 X157.31 Y147.09
G1 F3480 X155.92 Y148.49 E258.50735
G0 F6000 X155.92 Y147.78
G1 F3480 X157.00 Y146.71 E258.57044
G0 F6000 X156.75 Y146.25
G1 F3480 X155.92 Y147.07 E258.61883
G0 F6000 X155.92 Y146.37
G1 F3480 X156.41 Y145.52 E258.65271
G1 X155.92 Y145.30 E258.67658
G1 X156.04 Y144.47 E258.69095
G1 X156.01 Y143.80 E258.70163
G1 X156.01 Y143.10 E258.71180
G1 X156.05 Y142.35 E258.72710
G1 X156.51 Y141.53 E258.76584
G0 F6000 X155.92 Y141.42
G1 F3480 X158.20 Y139.14 E258.89966
G0 F6000 X157.49 Y139.14
G1 F3480 X155.92 Y140.71 E258.99192
G0 F6000 X155.92 Y140.00
G1 F3480 X156.78 Y139.14 E259.04260
G0 F6000 X156.08 Y139.14
G1 F3480 X155.92 Y139.29 E259.05171
G0 F6000 X149.25 Y138.97
;TYPE:WALL-INNER
G1 F3480 X149.25 Y161.53 E259.98961
G1 X137.75 Y161.53 E260.46772
G1 X137.75 Y138.97 E261.40561
G1 X141.21 Y138.97 E261.54930
G1 X140.58 Y139.30 E261.57882
G1 X139.78 Y139.95 E261.62165
G1 X139.13 Y140.75 E261.66446
G1 X138.64 Y141.66 E261.70728
G1 X138.34 Y142.65 E261.75017
G1 X138.24 Y143.67 E261.79299
G1 X138.34 Y144.70 E261.83581
G1 X138.64 Y145.68 E261.87870
G1 X139.13 Y146.59 E261.92152
G1 X139.78 Y147.39 E261.96430
G1 X140.58 Y148.04 E262.00719
G1 X141.49 Y148.53 E262.05004
G1 X142.47 Y148.83 E262.09281
G1 X143.50 Y148.93 E262.13567
G1 X144.53 Y148.83 E262.17853
G1 X145.51 Y148.53 E262.22134
G1 X146.42 Y148.04 E262.26419
G1 X147.22 Y147.39 E262.30708
G1 X147.87 Y146.59 E262.34986
G1 X148.35 Y145.68 E262.39268
G1 X148.66 Y144.70 E262.43557
G1 X148.75 Y143.67 E262.47838
G1 X148.66 Y142.65 E262.52120
G1 X148.35 Y141.66 E262.56409
G1 X147.87 Y140.75 E262.60691
G1 X147.22 Y139.95 E262.64972
G1 X146.42 Y139.30 E262.69255
G1 X145.79 Y138.97 E262.72207
G1 X149.25 Y138.97 E262.86571
G0 F6000 X149.75 Y138.47
G1 F3480 X149.75 Y162.03 E263.84518
G1 X137.25 Y162.03 E264.36487
G1 X137.25 Y138.47 E265.34434
G1 X149.75 Y138.47 E265.86403
G0 F6000 X146.86 Y140.31
G1 F3480 X146.14 Y139.72 E265.90276
G1 X145.32 Y139.28 E265.94154
G1 X144.43 Y139.01 E265.98025
G1 X143.50 Y138.92 E266.01902
G1 X142.57 Y139.01 E266.05775
G1 X141.68 Y139.28 E266.09645
G1 X140.86 Y139.72 E266.13523
G1 X140.14 Y140.31 E266.17396
G1 X139.55 Y141.03 E266.21272
G1 X139.11 Y141.85 E266.25143
G1 X138.84 Y142.74 E266.29022
G1 X138.75 Y143.67 E266.32895
G1 X138.84 Y144.60 E266.36768
G1 X139.11 Y145.49 E266.40648
G1 X139.55 Y146.31 E266.44519
G1 X140.14 Y147.03 E266.48392
G1 X140.86 Y147.62 E266.52267
G1 X141.68 Y148.06 E266.56143
G1 X142.57 Y148.33 E266.60015
G1 X143.50 Y148.43 E266.63888
G1 X144.43 Y148.33 E266.67765
G1 X145.32 Y148.06 E266.71637
G1 X146.14 Y147.62 E266.75513
G1 X146.86 Y147.03 E266.79388
G1 X147.45 Y146.31 E266.83261
G1 X147.89 Y145.49 E266.87131
G1 X148.16 Y144.60 E266.91011
G1 X148.25 Y143.67 E266.94884
G1 X148.16 Y142.74 E266.98756
G1 X147.89 Y141.85 E267.02636
G1 X147.45 Y141.03 E267.06507
G1 X146.86 Y140.31 E267.10383
G0 F6000 X146.51 Y140.66
;TYPE:WALL-OUTER
G1 F3480 X145.86 Y140.14 E267.13845
G1 X145.13 Y139.74 E267.17314
G1 X144.33 Y139.50 E267.20776
G1 X143.50 Y139.42 E267.24243
G1 X142.67 Y139.50 E267.27707
G1 X141.87 Y139.74 E267.31168
G1 X141.14 Y140.14 E267.34637
G1 X140.49 Y140.66 E267.38099
G1 X139.97 Y141.31 E267.41565
G1 X139.57 Y142.04 E267.45030
G1 X139.33 Y142.84 E267.48497
G1 X139.25 Y143.67 E267.51960
G1 X139.33 Y144.50 E267.55424
G1 X139.57 Y145.30 E267.58891
G1 X139.97 Y146.03 E267.62356
G1 X140.49 Y146.68 E267.65818
G1 X141.14 Y147.21 E267.69283
G1 X141.87 Y147.60 E267.72750
G1 X142.67 Y147.84 E267.76213
G1 X143.50 Y147.92 E267.79676
G1 X144.33 Y147.84 E267.83144
G1 X145.13 Y147.60 E267.86607
G1 X145.86 Y147.21 E267.90074
G1 X146.51 Y146.68 E267.93539
G1 X147.03 Y146.03 E267.97001
G1 X147.43 Y145.30 E268.00466
G1 X147.67 Y144.50 E268.03933
G1 X147.75 Y143.67 E268.07396
G1 X147.67 Y142.84 E268.10859
G1 X147.43 Y142.04 E268.14326
G1 X147.03 Y141.31 E268.17791
G1 X146.51 Y140.66 E268.21257
G0 F6000 X146.78 Y140.44
G0 X149.90 Y138.23
G0 X150.25 Y137.97
G1 F3480 X150.25 Y162.53 E269.23361
G1 X136.75 Y162.53 E269.79487
G1 X136.75 Y137.97 E270.81592
G1 X150.25 Y137.97 E271.37718
G0 F6000 X149.90 Y138.23
G0 X149.00 Y139.14
;TYPE:FILL
G1 F3480 X147.78 Y140.37 E271.44921
G0 F6000 X147.46 Y139.98
G1 F3480 X148.30 Y139.14 E271.49833
G0 F6000 X147.59 Y139.14
G1 F3480 X146.90 Y139.47 E271.52725
G1 X146.88 Y139.14 E271.54112
G0 F6000 X148.08 Y140.77
G1 F3480 X149.07 Y139.78 E271.59950
G0 F6000 X149.07 Y140.49
G1 F3480 X148.33 Y141.23 E271.64337
G0 F6000 X148.55 Y141.71
G1 F3480 X149.07 Y141.55 E271.67386
G1 X148.90 Y142.43 E271.69462
G1 X148.96 Y143.07 E271.70779
G1 X148.99 Y143.75 E271.71723
G1 X148.97 Y144.47 E271.72875
G1 X148.72 Y145.08 E271.75619
G0 F6000 X149.07 Y145.44
G1 F3480 X148.24 Y146.27 E271.80523
G0 F6000 X149.07 Y146.14
G1 F3480 X137.92 Y157.29 E272.46072
G0 F6000 X137.92 Y158.00
G1 F3480 X149.07 Y146.85 E273.11621
G0 F6000 X149.07 Y147.56
G1 F3480 X137.92 Y158.71 E273.77170
G0 F6000 X137.92 Y159.41
G1 F3480 X149.07 Y148.26 E274.42719
G0 F6000 X149.07 Y148.97
G1 F3480 X137.92 Y160.12 E275.08268
G0 F6000 X137.92 Y160.83
G1 F3480 X149.07 Y149.68 E275.73817
G0 F6000 X149.07 Y150.39
G1 F3480 X138.11 Y161.35 E276.38272
G0 F6000 X138.82 Y161.35
G1 F3480 X149.07 Y151.09 E276.98570
G0 F6000 X149.07 Y151.80
G1 F3480 X139.52 Y161.35 E277.54712
G0 F6000 X140.23 Y161.35
G1 F3480 X149.07 Y152.51 E278.06690
G0 F6000 X149.07 Y153.22
G1 F3480 X140.94 Y161.35 E278.54512
G0 F6000 X141.65 Y161.35
G1 F3480 X149.07 Y153.92 E278.98177
G0 F6000 X149.07 Y154.63
G1 F3480 X142.35 Y161.35 E279.37685
G0 F6000 X143.06 Y161.35
G1 F3480 X149.07 Y155.34 E279.73037
G0 F6000 X149.07 Y156.04
G1 F3480 X143.77 Y161.35 E280.04231
G0 F6000 X144.47 Y161.35
G1 F3480 X149.07 Y156.75 E280.31268
G0 F6000 X149.07 Y157.46
G1 F3480 X145.18 Y161.35 E280.54149
G0 F6000 X145.89 Y161.35
G1 F3480 X149.07 Y158.16 E280.72873
G0 F6000 X149.07 Y158.87
G1 F3480 X146.59 Y161.35 E280.87436
G0 F6000 X147.30 Y161.35
G1 F3480 X149.07 Y159.58 E280.97840
G0 F6000 X149.07 Y160.29
G1 F3480 X148.01 Y161.35 E281.04087
G0 F6000 X148.72 Y161.35
G1 F3480 X149.07 Y160.99 E281.06178
G0 F6000 X137.92 Y156.59
G1 F3480 X146.10 Y148.41 E281.54252
G0 F6000 X144.91 Y148.89
G1 F3480 X137.92 Y155.88 E281.95345
G0 F6000 X137.92 Y155.17
G1 F3480 X144.05 Y149.05 E282.31355
G0 F6000 X143.31 Y149.08
G1 F3480 X137.92 Y154.46 E282.62999
G0 F6000 X137.92 Y153.76
G1 F3480 X142.66 Y149.02 E282.90862
G0 F6000 X142.09 Y148.89
G1 F3480 X137.92 Y153.05 E283.15327
G0 F6000 X137.92 Y152.34
G1 F3480 X141.54 Y148.72 E283.36609
G0 F6000 X141.06 Y148.50
G1 F3480 X137.92 Y151.64 E283.55068
G0 F6000 X137.92 Y150.93
G1 F3480 X140.60 Y148.25 E283.70810
G0 F6000 X140.19 Y147.95
G1 F3480 X137.92 Y150.22 E283.84166
G0 F6000 X137.92 Y149.51
G1 F3480 X139.81 Y147.63 E283.95237
G0 F6000 X139.46 Y147.27
G1 F3480 X137.92 Y148.81 E284.04274
G0 F6000 X137.92 Y148.10
G1 F3480 X139.14 Y146.88 E284.11436
G0 F6000 X138.86 Y146.46
G1 F3480 X137.92 Y147.39 E284.16933
G0 F6000 X137.92 Y146.69
G1 F3480 X138.51 Y145.75 E284.20981
G1 X137.92 Y145.62 E284.23808
G1 X138.08 Y144.76 E284.25658
G1 X138.03 Y144.11 E284.26885
G1 X138.00 Y143.43 E284.27746
G1 X138.03 Y142.69 E284.29011
G1 X138.35 Y142.01 E284.32120
G0 F6000 X137.92 Y141.74
G1 F3480 X138.96 Y140.71 E284.38182
G0 F6000 X137.92 Y141.03
G1 F3480 X139.81 Y139.14 E284.49288
G0 F6000 X139.11 Y139.14
G1 F3480 X137.92 Y140.32 E284.56238
G0 F6000 X137.92 Y139.62
G1 F3480 X138.40 Y139.14 E284.59031
;LAYER:2
G0 F6000 X137.75 Y138.97 Z0.70
;TYPE:WALL-INNER
G1 F4320 X141.21 Y138.97 E284.73399
G1 X140.58 Y139.30 E284.76351
G1 X139.78 Y139.95 E284.80635
G1 X139.13 Y140.75 E284.84916
G1 X138.64 Y141.66 E284.89198
G1 X138.34 Y142.65 E284.93487
G1 X138.24 Y143.67 E284.97769
G1 X138.34 Y144.70 E285.02051
G1 X138.64 Y145.68 E285.06340
G1 X139.13 Y146.59 E285.10621
G1 X139.78 Y147.39 E285.14899
G1 X140.58 Y148.04 E285.19188
G1 X141.49 Y148.53 E285.23473
G1 X142.47 Y148.83 E285.27750
G1 X143.50 Y148.93 E285.32036
G1 X144.53 Y148.83 E285.36323
G1 X145.51 Y148.53 E285.40604
G1 X146.42 Y148.04 E285.44889
G1 X147.22 Y147.39 E285.49178
G1 X147.87 Y146.59 E285.53456
G1 X148.35 Y145.68 E285.57737
G1 X148.66 Y144.70 E285.62026
G1 X148.75 Y143.67 E285.66308
G1 X148.66 Y142.65 E285.70590
G1 X148.35 Y141.66 E285.74878
G1 X147.87 Y140.75 E285.79160
G1 X147.22 Y139.95 E285.83441
G1 X146.42 Y139.30 E285.87725
G1 X145.79 Y138.97 E285.90677
G1 X149.25 Y138.97 E286.05041
G1 X149.25 Y161.53 E286.98830
G1 X137.75 Y161.53 E287.46642
G1 X137.75 Y138.97 E288.40431
G0 F6000 X137.25 Y138.47
G1 F4320 X149.75 Y138.47 E288.92400
G1 X149.75 Y162.03 E289.90347
G1 X137.25 Y162.03 E290.42316
G1 X137.25 Y138.47 E291.40263
G0 F6000 X140.14 Y140.31
G1 F4320 X139.55 Y141.03 E291.44139
G1 X139.11 Y141.85 E291.48010
G1 X138.84 Y142.74 E291.51889
G1 X138.75 Y143.67 E291.55762
G1 X138.84 Y144.60 E291.59635
G1 X139.11 Y145.49 E291.63515
G1 X139.55 Y146.31 E291.67386
G1 X140.14 Y147.03 E291.71259
G1 X140.86 Y147.62 E291.75134
G1 X141.68 Y148.06 E291.79010
G1 X142.57 Y148.33 E291.82882
G1 X143.50 Y148.43 E291.86755
G1 X144.43 Y148.33 E291.90632
G1 X145.32 Y148.06 E291.94504
G1 X146.14 Y147.62 E291.98380
G1 X146.86 Y147.03 E292.02255
G1 X147.45 Y146.31 E292.06128
G1 X147.89 Y145.49 E292.09998
G1 X148.16 Y144.60 E292.13878
G1 X148.25 Y143.67 E292.17751
G1 X148.16 Y142.74 E292.21623
G1 X147.89 Y141.85 E292.25503
G1 X147.45 Y141.03 E292.29374
G1 X146.86 Y140.31 E292.33250
G1 X146.14 Y139.72 E292.37123
G1 X145.32 Y139.28 E292.41001
G1 X144.43 Y139.01 E292.44871
G1 X143.50 Y138.92 E292.48748
G1 X142.57 Y139.01 E292.52621
G1 X141.68 Y139.28 E292.56492
G1 X140.86 Y139.72 E292.60370
G1 X140.14 Y140.31 E292.64243
G0 F6000 X140.49 Y140.66
;TYPE:WALL-OUTER
G1 F4320 X139.97 Y141.31 E292.67708
G1 X139.57 Y142.04 E292.71173
G1 X139.33 Y142.84 E292.74640
G1 X139.25 Y143.67 E292.78104
G1 X139.33 Y144.50 E292.81567
G1 X139.57 Y145.30 E292.85034
G1 X139.97 Y146.03 E292.88499
G1 X140.49 Y146.68 E292.91961
G1 X141.14 Y147.21 E292.95426
G1 X141.87 Y147.60 E292.98893
G1 X142.67 Y147.84 E293.02356
G1 X143.50 Y147.92 E293.05820
G1 X144.33 Y147.84 E293.09287
G1 X145.13 Y147.60 E293.12750
G1 X145.86 Y147.21 E293.16217
G1 X146.51 Y146.68 E293.19682
G1 X147.03 Y146.03 E293.23144
G1 X147.43 Y145.30 E293.26609
G1 X147.67 Y144.50 E293.30076
G1 X147.75 Y143.67 E293.33539
G1 X147.67 Y142.84 E293.37002
G1 X147.43 Y142.04 E293.40469
G1 X147.03 Y141.31 E293.43934
G1 X146.51 Y140.66 E293.47400
G1 X145.86 Y140.14 E293.50862
G1 X145.13 Y139.74 E293.54331
G1 X144.33 Y139.50 E293.57793
G1 X143.50 Y139.42 E293.61260
G1 X142.67 Y139.50 E293.64723
G1 X141.87 Y139.74 E293.68185
G1 X141.14 Y140.14 E293.71654
G1 X140.49 Y140.66 E293.75116
G0 F6000 X140.22 Y140.44
G0 X137.10 Y138.23
G0 X136.75 Y137.97
G1 F4320 X150.25 Y137.97 E294.31243
G1 X150.25 Y162.53 E295.33347
G1 X136.75 Y162.53 E295.89474
G1 X136.75 Y137.97 E296.91578
G0 F6000 X137.10 Y138.23
G0 X138.08 Y139.14
;TYPE:FILL
G1 F4320 X139.26 Y140.32 E296.98501
G0 F6000 X139.57 Y139.93
G1 F4320 X138.79 Y139.14 E297.03135
G0 F6000 X139.49 Y139.14
G1 F4320 X140.14 Y139.43 E297.05784
G1 X140.20 Y139.14 E297.07025
G0 F6000 X138.95 Y140.72
G1 F4320 X137.92 Y139.69 E297.13057
G0 F6000 X137.92 Y140.40
G1 F4320 X138.70 Y141.18 E297.17641
G0 F6000 X138.46 Y141.65
G1 F4320 X137.92 Y141.46 E297.20819
G1 X138.11 Y142.35 E297.23025
G1 X138.04 Y142.99 E297.24398
G1 X138.01 Y143.67 E297.25399
G1 X138.02 Y144.38 E297.26499
G1 X138.24 Y144.96 E297.29076
G0 F6000 X137.92 Y145.35
G1 F4320 X138.66 Y146.09 E297.33413
G0 F6000 X137.92 Y146.06
G1 F4320 X149.07 Y157.21 E297.98967
G0 F6000 X149.07 Y157.91
G1 F4320 X137.92 Y146.76 E298.64522
G0 F6000 X137.92 Y147.47
G1 F4320 X149.07 Y158.62 E299.30077
G0 F6000 X149.07 Y159.33
G1 F4320 X137.92 Y148.18 E299.95629
G0 F6000 X137.92 Y148.88
G1 F4320 X149.07 Y160.03 E300.61181
G0 F6000 X149.07 Y160.74
G1 F4320 X137.92 Y149.59 E301.26733
G0 F6000 X137.92 Y150.30
G1 F4320 X148.97 Y161.35 E301.91705
G0 F6000 X148.27 Y161.35
G1 F4320 X137.92 Y151.00 E302.52521
G0 F6000 X137.92 Y151.71
G1 F4320 X147.56 Y161.35 E303.09180
G0 F6000 X146.85 Y161.35
G1 F4320 X137.92 Y152.42 E303.61682
G0 F6000 X137.92 Y153.13
G1 F4320 X146.15 Y161.35 E304.10027
G0 F6000 X145.44 Y161.35
G1 F4320 X137.92 Y153.83 E304.54215
G0 F6000 X137.92 Y154.54
G1 F4320 X144.73 Y161.35 E304.94244
G0 F6000 X144.02 Y161.35
G1 F4320 X137.92 Y155.25 E305.30112
G0 F6000 X137.92 Y155.96
G1 F4320 X143.32 Y161.35 E305.61824
G0 F6000 X142.61 Y161.35
G1 F4320 X137.92 Y156.66 E305.89379
G0 F6000 X137.92 Y157.37
G1 F4320 X141.90 Y161.35 E306.12777
G0 F6000 X141.20 Y161.35
G1 F4320 X137.92 Y158.08 E306.32018
G0 F6000 X137.92 Y158.78
G1 F4320 X140.49 Y161.35 E306.47102
G0 F6000 X139.78 Y161.35
G1 F4320 X137.92 Y159.49 E306.58029
G0 F6000 X137.92 Y160.20
G1 F4320 X139.07 Y161.35 E306.64800
G0 F6000 X138.37 Y161.35
G1 F4320 X137.92 Y160.90 E306.67413
G0 F6000 X149.07 Y156.50
G1 F4320 X141.08 Y148.51 E307.14394
G0 F6000 X142.21 Y148.93
G1 F4320 X149.07 Y155.79 E307.54752
G0 F6000 X149.07 Y155.08
G1 F4320 X143.05 Y149.06 E307.90188
G0 F6000 X143.77 Y149.07
G1 F4320 X149.07 Y154.38 E308.21359
G0 F6000 X149.07 Y153.67
G1 F4320 X144.41 Y149.01 E308.48744
G0 F6000 X144.98 Y148.87
G1 F4320 X149.07 Y152.96 E308.72809
G0 F6000 X149.07 Y152.25
G1 F4320 X145.52 Y148.70 E308.93687
G0 F6000 X145.99 Y148.47
G1 F4320 X149.07 Y151.55 E309.11802
G0 F6000 X149.07 Y150.84
G1 F4320 X146.45 Y148.22 E309.27207
G0 F6000 X146.85 Y147.91
G1 F4320 X149.07 Y150.13 E309.40272
G0 F6000 X149.07 Y149.43
G1 F4320 X147.24 Y147.59 E309.51052
G0 F6000 X147.58 Y147.22
G1 F4320 X149.07 Y148.72 E309.59857
G0 F6000 X149.07 Y148.01
G1 F4320 X147.89 Y146.83 E309.66789
G0 F6000 X148.17 Y146.40
G1 F4320 X149.07 Y147.31 E309.72110
G0 F6000 X149.07 Y146.60
G1 F4320 X148.51 Y145.68 E309.75978
G1 X149.07 Y145.54 E309.78688
G1 X148.93 Y144.68 E309.80418
G1 X148.97 Y144.02 E309.81608
G1 X149.02 Y143.37 E309.82211
G1 X148.96 Y142.60 E309.83532
G1 X148.61 Y141.89 E309.86823
G0 F6000 X149.07 Y141.65
G1 F4320 X147.73 Y140.31 E309.94716
G0 F6000 X147.98 Y139.14
G1 F4320 X149.07 Y140.23 E310.01149
G0 F6000 X149.07 Y140.94
G1 F4320 X147.27 Y139.14 E310.11738
G0 F6000 X146.86 Y139.44
G1 F4320 X146.63 Y139.21 E310.13084
G0 F6000 X148.69 Y139.14
G1 F4320 X149.07 Y139.53 E310.15360
G0 F6000 X155.75 Y138.97
;TYPE:WALL-INNER
G1 F4320 X159.20 Y138.97 E310.29728
G1 X158.58 Y139.30 E310.32680
G1 X157.78 Y139.95 E310.36964
G1 X157.13 Y140.75 E310.41245
G1 X156.64 Y141.66 E310.45526
G1 X156.34 Y142.65 E310.49815
G1 X156.24 Y143.67 E310.54097
G1 X156.34 Y144.70 E310.58379
G1 X156.64 Y145.68 E310.62668
G1 X157.13 Y146.59 E310.66950
G1 X157.78 Y147.39 E310.71228
G1 X158.58 Y148.04 E310.75517
G1 X159.49 Y148.53 E310.79802
G1 X160.47 Y148.83 E310.84079
G1 X161.50 Y148.93 E310.88365
G1 X162.52 Y148.83 E310.92651
G1 X163.51 Y148.53 E310.96932
G1 X164.42 Y148.04 E311.01217
G1 X165.22 Y147.39 E311.05506
G1 X165.87 Y146.59 E311.09784
G1 X166.35 Y145.68 E311.14066
G1 X166.65 Y144.70 E311.18355
G1 X166.75 Y143.67 E311.22637
G1 X166.65 Y142.65 E311.26918
G1 X166.35 Y141.66 E311.31207
G1 X165.87 Y140.75 E311.35489
G1 X165.22 Y139.95 E311.39770
G1 X164.42 Y139.30 E311.44054
G1 X163.79 Y138.97 E311.47005
G1 X167.25 Y138.97 E311.61370
G1 X167.25 Y161.53 E312.55159
G1 X155.75 Y161.53 E313.02971
G1 X155.75 Y138.97 E313.96760
G0 F6000 X155.25 Y138.47
G1 F4320 X167.75 Y138.47 E314.48729
G1 X167.75 Y162.03 E315.46676
G1 X155.25 Y162.03 E315.98645
G1 X155.25 Y138.47 E316.96592
G0 F6000 X158.14 Y140.31
G1 F4320 X157.55 Y141.03 E317.00468
G1 X157.11 Y141.85 E317.04338
G1 X156.84 Y142.74 E317.08218
G1 X156.74 Y143.67 E317.12091
G1 X156.84 Y144.60 E317.15964
G1 X157.11 Y145.49 E317.19844
G1 X157.55 Y146.31 E317.23715
G1 X158.14 Y147.03 E317.27587
G1 X158.86 Y147.62 E317.31463
G1 X159.68 Y148.06 E317.35339
G1 X160.57 Y148.33 E317.39211
G1 X161.50 Y148.43 E317.43083
G1 X162.43 Y148.33 E317.46961
G1 X163.32 Y148.06 E317.50832
G1 X164.14 Y147.62 E317.54709
G1 X164.86 Y147.03 E317.58584
G1 X165.45 Y146.31 E317.62457
G1 X165.89 Y145.49 E317.66327
G1 X166.16 Y144.60 E317.70207
G1 X166.25 Y143.67 E317.74080
G1 X166.16 Y142.74 E317.77952
G1 X165.89 Y141.85 E317.81832
G1 X165.45 Y141.03 E317.85703
G1 X164.86 Y140.31 E317.89579
G1 X164.14 Y139.72 E317.93451
G1 X163.32 Y139.28 E317.97329
G1 X162.43 Y139.01 E318.01200
G1 X161.50 Y138.92 E318.05077
G1 X160.57 Y139.01 E318.08950
G1 X159.68 Y139.28 E318.12821
G1 X158.86 Y139.72 E318.16699
G1 X158.14 Y140.31 E318.20571
G0 F6000 X158.49 Y140.66
;TYPE:WALL-OUTER
G1 F4320 X157.96 Y141.31 E318.24037
G1 X157.57 Y142.04 E318.27502
G1 X157.33 Y142.84 E318.30969
G1 X157.25 Y143.67 E318.34432
G1 X157.33 Y144.50 E318.37896
G1 X157.57 Y145.30 E318.41363
G1 X157.96 Y146.03 E318.44828
G1 X158.49 Y146.68 E318.48290
G1 X159.14 Y147.21 E318.51755
G1 X159.87 Y147.60 E318.55222
G1 X160.67 Y147.84 E318.58685
G1 X161.50 Y147.92 E318.62148
G1 X162.33 Y147.84 E318.65616
G1 X163.12 Y147.60 E318.69079
G1 X163.86 Y147.21 E318.72546
G1 X164.50 Y146.68 E318.76011
G1 X165.03 Y146.03 E318.79473
G1 X165.43 Y145.30 E318.82938
G1 X165.67 Y144.50 E318.86405
G1 X165.75 Y143.67 E318.89868
G1 X165.67 Y142.84 E318.93331
G1 X165.43 Y142.04 E318.96798
G1 X165.03 Y141.31 E319.00263
G1 X164.50 Y140.66 E319.03728
G1 X163.86 Y140.14 E319.07191
G1 X163.12 Y139.74 E319.10660
G1 X162.33 Y139.50 E319.14121
G1 X161.50 Y139.42 E319.17589
G1 X160.67 Y139.50 E319.21052
G1 X159.87 Y139.74 E319.24514
G1 X159.14 Y140.14 E319.27983
G1 X158.49 Y140.66 E319.31445
G0 F6000 X158.22 Y140.44
G0 X155.10 Y138.23
G0 X154.75 Y137.97
G1 F4320 X168.25 Y137.97 E319.87572
G1 X168.25 Y162.53 E320.89676
G1 X154.75 Y162.53 E321.45802
G1 X154.75 Y137.97 E322.47907
G0 F6000 X155.10 Y138.23
G0 X155.92 Y139.30
;TYPE:FILL
G1 F4320 X157.11 Y140.50 E322.54910
G0 F6000 X157.43 Y140.10
G1 F4320 X156.47 Y139.14 E322.60580
G0 F6000 X157.17 Y139.14
G1 F4320 X157.96 Y139.58 E322.64079
G1 X157.88 Y139.14 E322.65928
G0 F6000 X156.84 Y140.93
G1 F4320 X155.92 Y140.01 E322.71305
G0 F6000 X155.92 Y140.72
G1 F4320 X156.49 Y141.64 E322.75228
G1 X155.92 Y141.78 E322.77975
G1 X156.07 Y142.64 E322.79752
G1 X156.02 Y143.30 E322.80959
G1 X155.99 Y143.97 E322.81716
G1 X156.03 Y144.72 E322.83029
G1 X156.38 Y145.42 E322.86281
G0 F6000 X155.92 Y145.67
G1 F4320 X157.16 Y146.91 E322.93578
G0 F6000 X155.92 Y147.08
G1 F4320 X167.07 Y158.23 E323.59138
G0 F6000 X167.07 Y158.94
G1 F4320 X155.92 Y147.79 E324.24699
G0 F6000 X155.92 Y148.50
G1 F4320 X167.07 Y159.65 E324.90260
G0 F6000 X167.07 Y160.35
G1 F4320 X155.92 Y149.20 E325.55820
G0 F6000 X155.92 Y149.91
G1 F4320 X167.07 Y161.06 E326.21381
G0 F6000 X166.65 Y161.35
G1 F4320 X155.92 Y150.62 E326.84478
G0 F6000 X155.92 Y151.32
G1 F4320 X165.94 Y161.35 E327.43416
G0 F6000 X165.24 Y161.35
G1 F4320 X155.92 Y152.03 E327.98196
G0 F6000 X155.92 Y152.74
G1 F4320 X164.53 Y161.35 E328.48816
G0 F6000 X163.82 Y161.35
G1 F4320 X155.92 Y153.45 E328.95280
G0 F6000 X155.92 Y154.15
G1 F4320 X163.12 Y161.35 E329.37587
G0 F6000 X162.41 Y161.35
G1 F4320 X155.92 Y154.86 E329.75737
G0 F6000 X155.92 Y155.57
G1 F4320 X161.70 Y161.35 E330.09730
G0 F6000 X161.00 Y161.35
G1 F4320 X155.92 Y156.28 E330.39563
G0 F6000 X155.92 Y156.98
G1 F4320 X160.29 Y161.35 E330.65239
G0 F6000 X159.58 Y161.35
G1 F4320 X155.92 Y157.69 E330.86759
G0 F6000 X155.92 Y158.40
G1 F4320 X158.87 Y161.35 E331.04121
G0 F6000 X158.17 Y161.35
G1 F4320 X155.92 Y159.10 E331.17327
G0 F6000 X155.92 Y159.81
G1 F4320 X157.46 Y161.35 E331.26370
G0 F6000 X156.75 Y161.35
G1 F4320 X155.92 Y160.52 E331.31256
G0 F6000 X155.92 Y161.22
G1 F4320 X156.04 Y161.35 E331.31985
G0 F6000 X167.07 Y157.53
G1 F4320 X155.92 Y146.38 E331.97545
G0 F6000 X158.26 Y148.01
G1 F4320 X167.07 Y156.82 E332.49357
G0 F6000 X167.07 Y156.11
G1 F4320 X159.75 Y148.79 E332.92419
G0 F6000 X160.69 Y149.02
G1 F4320 X167.07 Y155.41 E333.29943
G0 F6000 X167.07 Y154.70
G1 F4320 X161.47 Y149.10 E333.62857
G0 F6000 X162.12 Y149.04
G1 F4320 X167.07 Y153.99 E333.91958
G0 F6000 X167.07 Y153.28
G1 F4320 X162.73 Y148.94 E334.17469
G0 F6000 X163.28 Y148.78
G1 F4320 X167.07 Y152.58 E334.39794
G0 F6000 X167.07 Y151.87
G1 F4320 X163.78 Y148.58 E334.59138
G0 F6000 X164.24 Y148.33
G1 F4320 X167.07 Y151.16 E334.75769
G0 F6000 X167.07 Y150.46
G1 F4320 X164.68 Y148.06 E334.89862
G0 F6000 X165.06 Y147.74
G1 F4320 X167.07 Y149.75 E335.01674
G0 F6000 X167.07 Y149.04
G1 F4320 X165.43 Y147.40 E335.11329
G0 F6000 X165.75 Y147.01
G1 F4320 X167.07 Y148.33 E335.19107
G0 F6000 X167.07 Y147.63
G1 F4320 X166.06 Y146.61 E335.25084
G0 F6000 X166.30 Y146.15
G1 F4320 X167.07 Y146.92 E335.29614
G0 F6000 X167.07 Y146.21
G1 F4320 X166.80 Y145.59 E335.32762
G1 X166.89 Y144.97 E335.34934
G1 X166.96 Y144.33 E335.36288
G1 X166.99 Y143.65 E335.37278
G1 X166.98 Y142.94 E335.38401
G1 X166.74 Y142.35 E335.41021
G0 F6000 X167.07 Y141.97
G1 F4320 X166.31 Y141.21 E335.45504
G0 F6000 X167.07 Y141.26
G1 F4320 X164.95 Y139.14 E335.57981
G0 F6000 X165.66 Y139.14
G1 F4320 X167.07 Y140.56 E335.66300
G0 F6000 X167.07 Y139.85
G1 F4320 X166.36 Y139.14 E335.70463
;LAYER:3
G0 F6000 X167.25 Y138.97 Z0.90
;TYPE:WALL-INNER
G1 F5160 X167.25 Y161.53 E336.64252
G1 X155.75 Y161.53 E337.12064
G1 X155.75 Y138.97 E338.05853
G1 X159.20 Y138.97 E338.20222
G1 X158.58 Y139.30 E338.23173
G1 X157.78 Y139.95 E338.27457
G1 X157.13 Y140.75 E338.31738
G1 X156.64 Y141.66 E338.36020
G1 X156.34 Y142.65 E338.40309
G1 X156.24 Y143.67 E338.44591
G1 X156.34 Y144.70 E338.48873
G1 X156.64 Y145.68 E338.53162
G1 X157.13 Y146.59 E338.57444
G1 X157.78 Y147.39 E338.61721
G1 X158.58 Y148.04 E338.66010
G1 X159.49 Y148.53 E338.70296
G1 X160.47 Y148.83 E338.74572
G1 X161.50 Y148.93 E338.78859
G1 X162.52 Y148.83 E338.83145
G1 X163.51 Y148.53 E338.87426
G1 X164.42 Y148.04 E338.91711
G1 X165.22 Y147.39 E338.96000
G1 X165.87 Y146.59 E339.00278
G1 X166.35 Y145.68 E339.04560
G1 X166.65 Y144.70 E339.08848
G1 X166.75 Y143.67 E339.13130
G1 X166.65 Y142.65 E339.17412
G1 X166.35 Y141.66 E339.21701
G1 X165.87 Y140.75 E339.25982
G1 X165.22 Y139.95 E339.30263
G1 X164.42 Y139.30 E339.34547
G1 X163.79 Y138.97 E339.37499
G1 X167.25 Y138.97 E339.51863
G0 F6000 X167.75 Y138.47
G1 F5160 X167.75 Y162.03 E340.49810
G1 X155.25 Y162.03 E341.01779
G1 X155.25 Y138.47 E341.99726
G1 X167.75 Y138.47 E342.51695
G0 F6000 X164.86 Y140.31
G1 F5160 X164.14 Y139.72 E342.55568
G1 X163.32 Y139.28 E342.59446
G1 X162.43 Y139.01 E342.63316
G1 X161.50 Y138.92 E342.67193
G1 X160.57 Y139.01 E342.71066
G1 X159.68 Y139.28 E342.74937
G1 X158.86 Y139.72 E342.78815
G1 X158.14 Y140.31 E342.82688
G1 X157.55 Y141.03 E342.86564
G1 X157.11 Y141.85 E342.90434
G1 X156.84 Y142.74 E342.94314
G1 X156.74 Y143.67 E342.98187
G1 X156.84 Y144.60 E343.02060
G1 X157.11 Y145.49 E343.05940
G1 X157.55 Y146.31 E343.09811
G1 X158.14 Y147.03 E343.13683
G1 X158.86 Y147.62 E343.17559
G1 X159.68 Y148.06 E343.21435
G1 X160.57 Y148.33 E343.25307
G1 X161.50 Y148.43 E343.29180
G1 X162.43 Y148.33 E343.33057
G1 X163.32 Y148.06 E343.36929
G1 X164.14 Y147.62 E343.40805
G1 X164.86 Y147.03 E343.44680
G1 X165.45 Y146.31 E343.48553
G1 X165.89 Y145.49 E343.52423
G1 X166.16 Y144.60 E343.56303
G1 X166.25 Y143.67 E343.60176
G1 X166.16 Y142.74 E343.64048
G1 X165.89 Y141.85 E343.67928
G1 X165.45 Y141.03 E343.71799
G1 X164.86 Y140.31 E343.75675
G0 F6000 X164.50 Y140.66
;TYPE:WALL-OUTER
G1 F5160 X163.86 Y140.14 E343.79137
G1 X163.12 Y139.74 E343.82606
G1 X162.33 Y139.50 E343.86067
G1 X161.50 Y139.42 E343.89535
G1 X160.67 Y139.50 E343.92998
G1 X159.87 Y139.74 E343.96460
G1 X159.14 Y140.14 E343.99929
G1 X158.49 Y140.66 E344.03391
G1 X157.96 Y141.31 E344.06857
G1 X157.57 Y142.04 E344.10322
G1 X157.33 Y142.84 E344.13789
G1 X157.25 Y143.67 E344.17252
G1 X157.33 Y144.50 E344.20716
G1 X157.57 Y145.30 E344.24183
G1 X157.96 Y146.03 E344.27648
G1 X158.49 Y146.68 E344.31110
G1 X159.14 Y147.21 E344.34575
G1 X159.87 Y147.60 E344.38042
G1 X160.67 Y147.84 E344.41505
G1 X161.50 Y147.92 E344.44968
G1 X162.33 Y147.84 E344.48436
G1 X163.12 Y147.60 E344.51899
G1 X163.86 Y147.21 E344.55365
G1 X164.50 Y146.68 E344.58830
G1 X165.03 Y146.03 E344.62293
G1 X165.43 Y145.30 E344.65758
G1 X165.67 Y144.50 E344.69225
G1 X165.75 Y143.67 E344.72688
G1 X165.67 Y142.84 E344.76151
G1 X165.43 Y142.04 E344.79618
G1 X165.03 Y141.31 E344.83083
G1 X164.50 Y140.66 E344.86548
G0 F6000 X164.78 Y140.44
G0 X167.90 Y138.23
G0 X168.25 Y137.97
G1 F5160 X168.25 Y162.53 E345.88653
G1 X154.75 Y162.53 E346.44779
G1 X154.75 Y137.97 E347.46884
G1 X168.25 Y137.97 E348.03010
G0 F6000 X167.90 Y138.23
G0 X167.07 Y139.46
;TYPE:FILL
G1 F5160 X165.95 Y140.58 E348.09589
G0 F6000 X165.63 Y140.19
G1 F5160 X166.68 Y139.14 E348.15751
G0 F6000 X165.97 Y139.14
G1 F5160 X165.12 Y139.65 E348.19656
G1 X165.27 Y139.14 E348.21852
G0 F6000 X167.07 Y140.17
G1 F5160 X166.21 Y141.03 E348.26903
G0 F6000 X166.46 Y141.49
G1 F5160 X167.07 Y141.23 E348.30500
G1 X166.86 Y142.15 E348.33019
G1 X166.94 Y142.77 E348.34571
G1 X166.98 Y143.44 E348.35685
G1 X166.99 Y144.13 E348.36636
G1 X166.95 Y144.88 E348.38032
G1 X166.55 Y145.64 E348.41603
G0 F6000 X167.07 Y145.82
G1 F5160 X155.92 Y156.97 E349.07161
G0 F6000 X155.92 Y157.68
G1 F5160 X167.07 Y146.53 E349.72718
G0 F6000 X167.07 Y147.24
G1 F5160 X155.92 Y158.39 E350.38276
G0 F6000 X155.92 Y159.09
G1 F5160 X167.07 Y147.94 E351.03834
G0 F6000 X167.07 Y148.65
G1 F5160 X155.92 Y159.80 E351.69392
G0 F6000 X155.92 Y160.51
G1 F5160 X167.07 Y149.36 E352.34949
G0 F6000 X167.07 Y150.06
G1 F5160 X155.92 Y161.21 E353.00504
G0 F6000 X156.49 Y161.35
G1 F5160 X167.07 Y150.77 E353.62696
G0 F6000 X167.07 Y151.48
G1 F5160 X157.20 Y161.35 E354.20730
G0 F6000 X157.91 Y161.35
G1 F5160 X167.07 Y152.19 E354.74608
G0 F6000 X167.07 Y152.89
G1 F5160 X158.62 Y161.35 E355.24326
G0 F6000 X159.32 Y161.35
G1 F5160 X167.07 Y153.60 E355.69888
G0 F6000 X167.07 Y154.31
G1 F5160 X160.03 Y161.35 E356.11292
G0 F6000 X160.74 Y161.35
G1 F5160 X167.07 Y155.01 E356.48539
G0 F6000 X167.07 Y155.72
G1 F5160 X161.44 Y161.35 E356.81630
G0 F6000 X162.15 Y161.35
G1 F5160 X167.07 Y156.43 E357.10569
G0 F6000 X167.07 Y157.14
G1 F5160 X162.86 Y161.35 E357.35346
G0 F6000 X163.56 Y161.35
G1 F5160 X167.07 Y157.84 E357.55966
G0 F6000 X167.07 Y158.55
G1 F5160 X164.27 Y161.35 E357.72429
G0 F6000 X164.98 Y161.35
G1 F5160 X167.07 Y159.26 E357.84735
G0 F6000 X167.07 Y159.96
G1 F5160 X165.69 Y161.35 E357.92884
G0 F6000 X166.39 Y161.35
G1 F5160 X167.07 Y160.67 E357.96876
G0 F6000 X155.92 Y156.26
G1 F5160 X163.47 Y148.72 E358.41232
G0 F6000 X162.47 Y149.00
G1 F5160 X155.92 Y155.56 E358.79755
G0 F6000 X155.92 Y154.85
G1 F5160 X161.69 Y149.08 E359.13669
G0 F6000 X161.01 Y149.05
G1 F5160 X155.92 Y154.14 E359.43596
G0 F6000 X155.92 Y153.44
G1 F5160 X160.38 Y148.98 E359.69801
G0 F6000 X159.84 Y148.81
G1 F5160 X155.92 Y152.73 E359.92820
G0 F6000 X155.92 Y152.02
G1 F5160 X159.31 Y148.63 E360.12758
G0 F6000 X158.85 Y148.38
G1 F5160 X155.92 Y151.31 E360.29985
G0 F6000 X155.92 Y150.61
G1 F5160 X158.41 Y148.12 E360.44584
G0 F6000 X158.02 Y147.81
G1 F5160 X155.92 Y149.90 E360.56899
G0 F6000 X155.92 Y149.19
G1 F5160 X157.63 Y147.48 E360.66956
G0 F6000 X157.31 Y147.09
G1 F5160 X155.92 Y148.49 E360.75138
G0 F6000 X155.92 Y147.78
G1 F5160 X157.00 Y146.71 E360.81446
G0 F6000 X156.75 Y146.25
G1 F5160 X155.92 Y147.07 E360.86285
G0 F6000 X155.92 Y146.37
G1 F5160 X156.41 Y145.52 E360.89674
G1 X155.92 Y145.30 E360.92060
G1 X156.04 Y144.47 E360.93498
G1 X156.01 Y143.80 E360.94565
G1 X156.01 Y143.10 E360.95582
G1 X156.05 Y142.35 E360.97113
G1 X156.51 Y141.53 E361.00987
G0 F6000 X155.92 Y141.42
G1 F5160 X158.20 Y139.14 E361.14369
G0 F6000 X157.49 Y139.14
G1 F5160 X155.92 Y140.71 E361.23594
G0 F6000 X155.92 Y140.00
G1 F5160 X156.78 Y139.14 E361.28662
G0 F6000 X156.08 Y139.14
G1 F5160 X155.92 Y139.29 E361.29574
G0 F6000 X149.25 Y138.97
;TYPE:WALL-INNER
G1 F5160 X149.25 Y161.53 E362.23363
G1 X137.75 Y161.53 E362.71175
G1 X137.75 Y138.97 E363.64964
G1 X141.21 Y138.97 E363.79332
G1 X140.58 Y139.30 E363.82284
G1 X139.78 Y139.95 E363.86568
G1 X139.13 Y140.75 E363.90849
G1 X138.64 Y141.66 E363.95131
G1 X138.34 Y142.65 E363.99420
G1 X138.24 Y143.67 E364.03702
G1 X138.34 Y144.70 E364.07984
G1 X138.64 Y145.68 E364.12273
G1 X139.13 Y146.59 E364.16554
G1 X139.78 Y147.39 E364.20832
G1 X140.58 Y148.04 E364.25121
G1 X141.49 Y148.53 E364.29406
G1 X142.47 Y148.83 E364.33683
G1 X143.50 Y148.93 E364.37970
G1 X144.53 Y148.83 E364.42256
G1 X145.51 Y148.53 E364.46537
G1 X146.42 Y148.04 E364.50822
G1 X147.22 Y147.39 E364.55111
G1 X147.87 Y146.59 E364.59389
G1 X148.35 Y145.68 E364.63670
G1 X148.66 Y144.70 E364.67959
G1 X148.75 Y143.67 E364.72241
G1 X148.66 Y142.65 E364.76523
G1 X148.35 Y141.66 E364.80811
G1 X147.87 Y140.75 E364.85093
G1 X147.22 Y139.95 E364.89374
G1 X146.42 Y139.30 E364.93658
G1 X145.79 Y138.97 E364.96610
G1 X149.25 Y138.97 E365.10974
G0 F6000 X149.75 Y138.47
G1 F5160 X149.75 Y162.03 E366.08921
G1 X137.25 Y162.03 E366.60890
G1 X137.25 Y138.47 E367.58837
G1 X149.75 Y138.47 E368.10806
G0 F6000 X146.86 Y140.31
G1 F5160 X146.14 Y139.72 E368.14678
G1 X145.32 Y139.28 E368.18556
G1 X144.43 Y139.01 E368.22427
G1 X143.50 Y138.92 E368.26304
G1 X142.57 Y139.01 E368.30177
G1 X141.68 Y139.28 E368.34048
G1 X140.86 Y139.72 E368.37926
G1 X140.14 Y140.31 E368.41799
G1 X139.55 Y141.03 E368.45674
G1 X139.11 Y141.85 E368.49545
G1 X138.84 Y142.74 E368.53425
G1 X138.75 Y143.67 E368.57298
G1 X138.84 Y144.60 E368.61171
G1 X139.11 Y145.49 E368.65051
G1 X139.55 Y146.31 E368.68921
G1 X140.14 Y147.03 E368.72794
G1 X140.86 Y147.62 E368.76669
G1 X141.68 Y148.06 E368.80545
G1 X142.57 Y148.33 E368.84417
G1 X143.50 Y148.43 E368.88290
G1 X144.43 Y148.33 E368.92167
G1 X145.32 Y148.06 E368.96039
G1 X146.14 Y147.62 E368.99915
G1 X146.86 Y147.03 E369.03791
G1 X147.45 Y146.31 E369.07663
G1 X147.89 Y145.49 E369.11534
G1 X148.16 Y144.60 E369.15414
G1 X148.25 Y143.67 E369.19286
G1 X148.16 Y142.74 E369.23159
G1 X147.89 Y141.85 E369.27039
G1 X147.45 Y141.03 E369.30909
G1 X146.86 Y140.31 E369.34785
G0 F6000 X146.51 Y140.66
;TYPE:WALL-OUTER
G1 F5160 X145.86 Y140.14 E369.38248
G1 X145.13 Y139.74 E369.41717
G1 X144.33 Y139.50 E369.45178
G1 X143.50 Y139.42 E369.48646
G1 X142.67 Y139.50 E369.52109
G1 X141.87 Y139.74 E369.55571
G1 X141.14 Y140.14 E369.59040
G1 X140.49 Y140.66 E369.62502
G1 X139.97 Y141.31 E369.65968
G1 X139.57 Y142.04 E369.69433
G1 X139.33 Y142.84 E369.72900
G1 X139.25 Y143.67 E369.76363
G1 X139.33 Y144.50 E369.79826
G1 X139.57 Y145.30 E369.83293
G1 X139.97 Y146.03 E369.86758
G1 X140.49 Y146.68 E369.90221
G1 X141.14 Y147.21 E369.93686
G1 X141.87 Y147.60 E369.97153
G1 X142.67 Y147.84 E370.00616
G1 X143.50 Y147.92 E370.04079
G1 X144.33 Y147.84 E370.07546
G1 X145.13 Y147.60 E370.11009
G1 X145.86 Y147.21 E370.14476
G1 X146.51 Y146.68 E370.17941
G1 X147.03 Y146.03 E370.21403
G1 X147.43 Y145.30 E370.24869
G1 X147.67 Y144.50 E370.28336
G1 X147.75 Y143.67 E370.31799
G1 X147.67 Y142.84 E370.35262
G1 X147.43 Y142.04 E370.38728
G1 X147.03 Y141.31 E370.42194
G1 X146.51 Y140.66 E370.45659
G0 F6000 X146.78 Y140.44
G0 X149.90 Y138.23
G0 X150.25 Y137.97
G1 F5160 X150.25 Y162.53 E371.47764
G1 X136.75 Y162.53 E372.03890
G1 X136.75 Y137.97 E373.05994
G1 X150.25 Y137.97 E373.62121
G0 F6000 X149.90 Y138.23
G0 X149.00 Y139.14
;TYPE:FILL
G1 F5160 X147.78 Y140.37 E373.69324
G0 F6000 X147.46 Y139.98
G1 F5160 X148.30 Y139.14 E373.74236
G0 F6000 X147.59 Y139.14
G1 F5160 X146.90 Y139.47 E373.77127
G1 X146.88 Y139.14 E373.78514
G0 F6000 X148.08 Y140.77
G1 F5160 X149.07 Y139.78 E373.84353
G0 F6000 X149.07 Y140.49
G1 F5160 X148.33 Y141.23 E373.88739
G0 F6000 X148.55 Y141.71
G1 F5160 X149.07 Y141.55 E373.91788
G1 X148.90 Y142.43 E373.93865
G1 X148.96 Y143.07 E373.95181
G1 X148.99 Y143.75 E373.96125
G1 X148.97 Y144.47 E373.97277
G1 X148.72 Y145.08 E374.00022
G0 F6000 X149.07 Y145.44
G1 F5160 X148.24 Y146.27 E374.04926
G0 F6000 X149.07 Y146.14
G1 F5160 X137.92 Y157.29 E374.70475
G0 F6000 X137.92 Y158.00
G1 F5160 X149.07 Y146.85 E375.36023
G0 F6000 X149.07 Y147.56
G1 F5160 X137.92 Y158.71 E376.01572
G0 F6000 X137.92 Y159.41
G1 F5160 X149.07 Y148.26 E376.67121
G0 F6000 X149.07 Y148.97
G1 F5160 X137.92 Y160.12 E377.32670
G0 F6000 X137.92 Y160.83
G1 F5160 X149.07 Y149.68 E377.98219
G0 F6000 X149.07 Y150.39
G1 F5160 X138.11 Y161.35 E378.62674
G0 F6000 X138.82 Y161.35
G1 F5160 X149.07 Y151.09 E379.22973
G0 F6000 X149.07 Y151.80
G1 F5160 X139.52 Y161.35 E379.79114
G0 F6000 X140.23 Y161.35
G1 F5160 X149.07 Y152.51 E380.31093
G0 F6000 X149.07 Y153.22
G1 F5160 X140.94 Y161.35 E380.78915
G0 F6000 X141.65 Y161.35
G1 F5160 X149.07 Y153.92 E381.22580
G0 F6000 X149.07 Y154.63
G1 F5160 X142.35 Y161.35 E381.62088
G0 F6000 X143.06 Y161.35
G1 F5160 X149.07 Y155.34 E381.97439
G0 F6000 X149.07 Y156.04
G1 F5160 X143.77 Y161.35 E382.28634
G0 F6000 X144.47 Y161.35
G1 F5160 X149.07 Y156.75 E382.55671
G0 F6000 X149.07 Y157.46
G1 F5160 X145.18 Y161.35 E382.78551
G0 F6000 X145.89 Y161.35
G1 F5160 X149.07 Y158.16 E382.97275
G0 F6000 X149.07 Y158.87
G1 F5160 X146.59 Y161.35 E383.11839
G0 F6000 X147.30 Y161.35
G1 F5160 X149.07 Y159.58 E383.22243
G0 F6000 X149.07 Y160.29
G1 F5160 X148.01 Y161.35 E383.28490
G0 F6000 X148.72 Y161.35
G1 F5160 X149.07 Y160.99 E383.30580
G0 F6000 X137.92 Y156.59
G1 F5160 X146.10 Y148.41 E383.78655
G0 F6000 X144.91 Y148.89
G1 F5160 X137.92 Y155.88 E384.19748
G0 F6000 X137.92 Y155.17
G1 F5160 X144.05 Y149.05 E384.55757
G0 F6000 X143.31 Y149.08
G1 F5160 X137.92 Y154.46 E384.87401
G0 F6000 X137.92 Y153.76
G1 F5160 X142.66 Y149.02 E385.15265
G0 F6000 X142.09 Y148.89
G1 F5160 X137.92 Y153.05 E385.39730
G0 F6000 X137.92 Y152.34
G1 F5160 X141.54 Y148.72 E385.61011
G0 F6000 X141.06 Y148.50
G1 F5160 X137.92 Y151.64 E385.79470
G0 F6000 X137.92 Y150.93
G1 F5160 X140.60 Y148.25 E385.95213
G0 F6000 X140.19 Y147.95
G1 F5160 X137.92 Y150.22 E386.08568
G0 F6000 X137.92 Y149.51
G1 F5160 X139.81 Y147.63 E386.19640
G0 F6000 X139.46 Y147.27
G1 F5160 X137.92 Y148.81 E386.28677
G0 F6000 X137.92 Y148.10
G1 F5160 X139.14 Y146.88 E386.35838
G0 F6000 X138.86 Y146.46
G1 F5160 X137.92 Y147.39 E386.41336
G0 F6000 X137.92 Y146.69
G1 F5160 X138.51 Y145.75 E386.45383
G1 X137.92 Y145.62 E386.48211
G1 X138.08 Y144.76 E386.50060
G1 X138.03 Y144.11 E386.51288
G1 X138.00 Y143.43 E386.52149
G1 X138.03 Y142.69 E386.53413
G1 X138.35 Y142.01 E386.56523
G0 F6000 X137.92 Y141.74
G1 F5160 X138.96 Y140.71 E386.62584
G0 F6000 X137.92 Y141.03
G1 F5160 X139.81 Y139.14 E386.73691
G0 F6000 X139.11 Y139.14
G1 F5160 X137.92 Y140.32 E386.80641
G0 F6000 X137.92 Y139.62
G1 F5160 X138.40 Y139.14 E386.83434
;LAYER:4
G0 F6000 X137.75 Y138.97 Z1.10
;TYPE:WALL-INNER
G1 F5400 X141.21 Y138.97 E386.97802
G1 X140.58 Y139.30 E387.00754
G1 X139.78 Y139.95 E387.05037
G1 X139.13 Y140.75 E387.09319
G1 X138.64 Y141.66 E387.13600
G1 X138.34 Y142.65 E387.17889
G1 X138.24 Y143.67 E387.22171
G1 X138.34 Y144.70 E387.26453
G1 X138.64 Y145.68 E387.30742
G1 X139.13 Y146.59 E387.35024
G1 X139.78 Y147.39 E387.39302
G1 X140.58 Y148.04 E387.43591
G1 X141.49 Y148.53 E387.47876
G1 X142.47 Y148.83 E387.52153
G1 X143.50 Y148.93 E387.56439
G1 X144.53 Y148.83 E387.60725
G1 X145.51 Y148.53 E387.65006
G1 X146.42 Y148.04 E387.69291
G1 X147.22 Y147.39 E387.73580
G1 X147.87 Y146.59 E387.77858
G1 X148.35 Y145.68 E387.82140
G1 X148.66 Y144.70 E387.86429
G1 X148.75 Y143.67 E387.90710
G1 X148.66 Y142.65 E387.94992
G1 X148.35 Y141.66 E387.99281
G1 X147.87 Y140.75 E388.03563
G1 X147.22 Y139.95 E388.07844
G1 X146.42 Y139.30 E388.12127
G1 X145.79 Y138.97 E388.15079
G1 X149.25 Y138.97 E388.29443
G1 X149.25 Y161.53 E389.23233
G1 X137.75 Y161.53 E389.71044
G1 X137.75 Y138.97 E390.64834
G0 F6000 X137.25 Y138.47
G1 F5400 X149.75 Y138.47 E391.16803
G1 X149.75 Y162.03 E392.14750
G1 X137.25 Y162.03 E392.66719
G1 X137.25 Y138.47 E393.64666
G0 F6000 X140.14 Y140.31
G1 F5400 X139.55 Y141.03 E393.68542
G1 X139.11 Y141.85 E393.72412
G1 X138.84 Y142.74 E393.76292
G1 X138.75 Y143.67 E393.80165
G1 X138.84 Y144.60 E393.84038
G1 X139.11 Y145.49 E393.87918
G1 X139.55 Y146.31 E393.91788
G1 X140.14 Y147.03 E393.95661
G1 X140.86 Y147.62 E393.99536
G1 X141.68 Y148.06 E394.03412
G1 X142.57 Y148.33 E394.07284
G1 X143.50 Y148.43 E394.11157
G1 X144.43 Y148.33 E394.15034
G1 X145.32 Y148.06 E394.18906
G1 X146.14 Y147.62 E394.22782
G1 X146.86 Y147.03 E394.26658
G1 X147.45 Y146.31 E394.30530
G1 X147.89 Y145.49 E394.34401
G1 X148.16 Y144.60 E394.38281
G1 X148.25 Y143.67 E394.42153
G1 X148.16 Y142.74 E394.46026
G1 X147.89 Y141.85 E394.49906
G1 X147.45 Y141.03 E394.53777
G1 X146.86 Y140.31 E394.57652
G1 X146.14 Y139.72 E394.61525
G1 X145.32 Y139.28 E394.65403
G1 X144.43 Y139.01 E394.69274
G1 X143.50 Y138.92 E394.73151
G1 X142.57 Y139.01 E394.77024
G1 X141.68 Y139.28 E394.80895
G1 X140.86 Y139.72 E394.84773
G1 X140.14 Y140.31 E394.88645
G0 F6000 X140.49 Y140.66
;TYPE:WALL-OUTER
G1 F5400 X139.97 Y141.31 E394.92111
G1 X139.57 Y142.04 E394.95576
G1 X139.33 Y142.84 E394.99043
G1 X139.25 Y143.67 E395.02506
G1 X139.33 Y144.50 E395.05970
G1 X139.57 Y145.30 E395.09437
G1 X139.97 Y146.03 E395.12902
G1 X140.49 Y146.68 E395.16364
G1 X141.14 Y147.21 E395.19829
G1 X141.87 Y147.60 E395.23296
G1 X142.67 Y147.84 E395.26759
G1 X143.50 Y147.92 E395.30222
G1 X144.33 Y147.84 E395.33690
G1 X145.13 Y147.60 E395.37153
G1 X145.86 Y147.21 E395.40619
G1 X146.51 Y146.68 E395.44084
G1 X147.03 Y146.03 E395.47547
G1 X147.43 Y145.30 E395.51012
G1 X147.67 Y144.50 E395.54479
G1 X147.75 Y143.67 E395.57942
G1 X147.67 Y142.84 E395.61405
G1 X147.43 Y142.04 E395.64872
G1 X147.03 Y141.31 E395.68337
G1 X146.51 Y140.66 E395.71802
G1 X145.86 Y140.14 E395.75265
G1 X145.13 Y139.74 E395.78733
G1 X144.33 Y139.50 E395.82195
G1 X143.50 Y139.42 E395.85663
G1 X142.67 Y139.50 E395.89126
G1 X141.87 Y139.74 E395.92588
G1 X141.14 Y140.14 E395.96057
G1 X140.49 Y140.66 E395.99519
G0 F6000 X140.22 Y140.44
G0 X137.10 Y138.23
G0 X136.75 Y137.97
G1 F5400 X150.25 Y137.97 E396.55645
G1 X150.25 Y162.53 E397.57750
G1 X136.75 Y162.53 E398.13876
G1 X136.75 Y137.97 E399.15981
G0 F6000 X137.10 Y138.23
G0 X138.08 Y139.14
;TYPE:FILL
G1 F5400 X139.26 Y140.32 E399.22904
G0 F6000 X139.57 Y139.93
G1 F5400 X138.79 Y139.14 E399.27537
G0 F6000 X139.49 Y139.14
G1 F5400 X140.14 Y139.43 E399.30186
G1 X140.20 Y139.14 E399.31427
G0 F6000 X138.95 Y140.72
G1 F5400 X137.92 Y139.69 E399.37460
G0 F6000 X137.92 Y140.40
G1 F5400 X138.70 Y141.18 E399.42043
G0 F6000 X138.46 Y141.65
G1 F5400 X137.92 Y141.46 E399.45222
G1 X138.11 Y142.35 E399.47427
G1 X138.04 Y142.99 E399.48800
G1 X138.01 Y143.67 E399.49802
G1 X138.02 Y144.38 E399.50902
G1 X138.24 Y144.96 E399.53479
G0 F6000 X137.92 Y145.35
G1 F5400 X138.66 Y146.09 E399.57815
G0 F6000 X137.92 Y146.06
G1 F5400 X149.07 Y157.21 E400.23370
G0 F6000 X149.07 Y157.91
G1 F5400 X137.92 Y146.76 E400.88925
G0 F6000 X137.92 Y147.47
G1 F5400 X149.07 Y158.62 E401.54480
G0 F6000 X149.07 Y159.33
G1 F5400 X137.92 Y148.18 E402.20031
G0 F6000 X137.92 Y148.88
G1 F5400 X149.07 Y160.03 E402.85583
G0 F6000 X149.07 Y160.74
G1 F5400 X137.92 Y149.59 E403.51135
G0 F6000 X137.92 Y150.30
G1 F5400 X148.97 Y161.35 E404.16108
G0 F6000 X148.27 Y161.35
G1 F5400 X137.92 Y151.00 E404.76924
G0 F6000 X137.92 Y151.71
G1 F5400 X147.56 Y161.35 E405.33583
G0 F6000 X146.85 Y161.35
G1 F5400 X137.92 Y152.42 E405.86085
G0 F6000 X137.92 Y153.13
G1 F5400 X146.15 Y161.35 E406.34430
G0 F6000 X145.44 Y161.35
G1 F5400 X137.92 Y153.83 E406.78618
G0 F6000 X137.92 Y154.54
G1 F5400 X144.73 Y161.35 E407.18646
G0 F6000 X144.02 Y161.35
G1 F5400 X137.92 Y155.25 E407.54515
G0 F6000 X137.92 Y155.96
G1 F5400 X143.32 Y161.35 E407.86227
G0 F6000 X142.61 Y161.35
G1 F5400 X137.92 Y156.66 E408.13782
G0 F6000 X137.92 Y157.37
G1 F5400 X141.90 Y161.35 E408.37179
G0 F6000 X141.20 Y161.35
G1 F5400 X137.92 Y158.08 E408.56421
G0 F6000 X137.92 Y158.78
G1 F5400 X140.49 Y161.35 E408.71505
G0 F6000 X139.78 Y161.35
G1 F5400 X137.92 Y159.49 E408.82432
G0 F6000 X137.92 Y160.20
G1 F5400 X139.07 Y161.35 E408.89202
G0 F6000 X138.37 Y161.35
G1 F5400 X137.92 Y160.90 E408.91816
G0 F6000 X149.07 Y156.50
G1 F5400 X141.08 Y148.51 E409.38797
G0 F6000 X142.21 Y148.93
G1 F5400 X149.07 Y155.79 E409.79155
G0 F6000 X149.07 Y155.08
G1 F5400 X143.05 Y149.06 E410.14591
G0 F6000 X143.77 Y149.07
G1 F5400 X149.07 Y154.38 E410.45762
G0 F6000 X149.07 Y153.67
G1 F5400 X144.41 Y149.01 E410.73146
G0 F6000 X144.98 Y148.87
G1 F5400 X149.07 Y152.96 E410.97211
G0 F6000 X149.07 Y152.25
G1 F5400 X145.52 Y148.70 E411.18090
G0 F6000 X145.99 Y148.47
G1 F5400 X149.07 Y151.55 E411.36205
G0 F6000 X149.07 Y150.84
G1 F5400 X146.45 Y148.22 E411.51610
G0 F6000 X146.85 Y147.91
G1 F5400 X149.07 Y150.13 E411.64674
G0 F6000 X149.07 Y149.43
G1 F5400 X147.24 Y147.59 E411.75454
G0 F6000 X147.58 Y147.22
G1 F5400 X149.07 Y148.72 E411.84259
G0 F6000 X149.07 Y148.01
G1 F5400 X147.89 Y146.83 E411.91191
G0 F6000 X148.17 Y146.40
G1 F5400 X149.07 Y147.31 E411.96512
G0 F6000 X149.07 Y146.60
G1 F5400 X148.51 Y145.68 E412.00381
G1 X149.07 Y145.54 E412.03091
G1 X148.93 Y144.68 E412.04821
G1 X148.97 Y144.02 E412.06011
G1 X149.02 Y143.37 E412.06613
G1 X148.96 Y142.60 E412.07935
G1 X148.61 Y141.89 E412.11226
G0 F6000 X149.07 Y141.65
G1 F5400 X147.73 Y140.31 E412.19119
G0 F6000 X147.98 Y139.14
G1 F5400 X149.07 Y140.23 E412.25551
G0 F6000 X149.07 Y140.94
G1 F5400 X147.27 Y139.14 E412.36140
G0 F6000 X146.86 Y139.44
G1 F5400 X146.63 Y139.21 E412.37487
G0 F6000 X148.69 Y139.14
G1 F5400 X149.07 Y139.53 E412.39762
G0 F6000 X155.75 Y138.97
;TYPE:WALL-INNER
G1 F5400 X159.20 Y138.97 E412.54131
G1 X158.58 Y139.30 E412.57083
G1 X157.78 Y139.95 E412.61366
G1 X157.13 Y140.75 E412.65647
G1 X156.64 Y141.66 E412.69929
G1 X156.34 Y142.65 E412.74218
G1 X156.24 Y143.67 E412.78500
G1 X156.34 Y144.70 E412.82782
G1 X156.64 Y145.68 E412.87071
G1 X157.13 Y146.59 E412.91353
G1 X157.78 Y147.39 E412.95630
G1 X158.58 Y148.04 E412.99919
G1 X159.49 Y148.53 E413.04205
G1 X160.47 Y148.83 E413.08482
G1 X161.50 Y148.93 E413.12768
G1 X162.52 Y148.83 E413.17054
G1 X163.51 Y148.53 E413.21335
G1 X164.42 Y148.04 E413.25620
G1 X165.22 Y147.39 E413.29909
G1 X165.87 Y146.59 E413.34187
G1 X166.35 Y145.68 E413.38469
G1 X166.65 Y144.70 E413.42757
G1 X166.75 Y143.67 E413.47039
G1 X166.65 Y142.65 E413.51321
G1 X166.35 Y141.66 E413.55610
G1 X165.87 Y140.75 E413.59891
G1 X165.22 Y139.95 E413.64172
G1 X164.42 Y139.30 E413.68456
G1 X163.79 Y138.97 E413.71408
G1 X167.25 Y138.97 E413.85772
G1 X167.25 Y161.53 E414.79562
G1 X155.75 Y161.53 E415.27373
G1 X155.75 Y138.97 E416.21163
G0 F6000 X155.25 Y138.47
G1 F5400 X167.75 Y138.47 E416.73131
G1 X167.75 Y162.03 E417.71078
G1 X155.25 Y162.03 E418.23047
G1 X155.25 Y138.47 E419.20994
G0 F6000 X158.14 Y140.31
G1 F5400 X157.55 Y141.03 E419.24870
G1 X157.11 Y141.85 E419.28741
G1 X156.84 Y142.74 E419.32621
G1 X156.74 Y143.67 E419.36494
G1 X156.84 Y144.60 E419.40367
G1 X157.11 Y145.49 E419.44247
G1 X157.55 Y146.31 E419.48117
G1 X158.14 Y147.03 E419.51990
G1 X158.86 Y147.62 E419.55865
G1 X159.68 Y148.06 E419.59741
G1 X160.57 Y148.33 E419.63613
G1 X161.50 Y148.43 E419.67486
G1 X162.43 Y148.33 E419.71363
G1 X163.32 Y148.06 E419.75235
G1 X164.14 Y147.62 E419.79111
G1 X164.86 Y147.03 E419.82986
G1 X165.45 Y146.31 E419.86859
G1 X165.89 Y145.49 E419.90730
G1 X166.16 Y144.60 E419.94610
G1 X166.25 Y143.67 E419.98482
G1 X166.16 Y142.74 E420.02355
G1 X165.89 Y141.85 E420.06235
G1 X165.45 Y141.03 E420.10105
G1 X164.86 Y140.31 E420.13981
G1 X164.14 Y139.72 E420.17854
G1 X163.32 Y139.28 E420.21732
G1 X162.43 Y139.01 E420.25603
G1 X161.50 Y138.92 E420.29480
G1 X160.57 Y139.01 E420.33353
G1 X159.68 Y139.28 E420.37223
G1 X158.86 Y139.72 E420.41101
G1 X158.14 Y140.31 E420.44974
G0 F6000 X158.49 Y140.66
;TYPE:WALL-OUTER
G1 F5400 X157.96 Y141.31 E420.48439
G1 X157.57 Y142.04 E420.51905
G1 X157.33 Y142.84 E420.55372
G1 X157.25 Y143.67 E420.58835
G1 X157.33 Y144.50 E420.62298
G1 X157.57 Y145.30 E420.65765
G1 X157.96 Y146.03 E420.69230
G1 X158.49 Y146.68 E420.72693
G1 X159.14 Y147.21 E420.76158
G1 X159.87 Y147.60 E420.79625
G1 X160.67 Y147.84 E420.83087
G1 X161.50 Y147.92 E420.86551
G1 X162.33 Y147.84 E420.90018
G1 X163.12 Y147.60 E420.93481
G1 X163.86 Y147.21 E420.96948
G1 X164.50 Y146.68 E421.00413
G1 X165.03 Y146.03 E421.03875
G1 X165.43 Y145.30 E421.07341
G1 X165.67 Y144.50 E421.10807
G1 X165.75 Y143.67 E421.14270
G1 X165.67 Y142.84 E421.17733
G1 X165.43 Y142.04 E421.21200
G1 X165.03 Y141.31 E421.24666
G1 X164.50 Y140.66 E421.28131
G1 X163.86 Y140.14 E421.31593
G1 X163.12 Y139.74 E421.35062
G1 X162.33 Y139.50 E421.38524
G1 X161.50 Y139.42 E421.41991
G1 X160.67 Y139.50 E421.45455
G1 X159.87 Y139.74 E421.48917
G1 X159.14 Y140.14 E421.52385
G1 X158.49 Y140.66 E421.55848
G0 F6000 X158.22 Y140.44
G0 X155.10 Y138.23
G0 X154.75 Y137.97
G1 F5400 X168.25 Y137.97 E422.11974
G1 X168.25 Y162.53 E423.14079
G1 X154.75 Y162.53 E423.70205
G1 X154.75 Y137.97 E424.72310
G0 F6000 X155.10 Y138.23
G0 X155.92 Y139.30
;TYPE:FILL
G1 F5400 X157.11 Y140.50 E424.79312
G0 F6000 X157.43 Y140.10
G1 F5400 X156.47 Y139.14 E424.84983
G0 F6000 X157.17 Y139.14
G1 F5400 X157.96 Y139.58 E424.88481
G1 X157.88 Y139.14 E424.90331
G0 F6000 X156.84 Y140.93
G1 F5400 X155.92 Y140.01 E424.95707
G0 F6000 X155.92 Y140.72
G1 F5400 X156.49 Y141.64 E424.99630
G1 X155.92 Y141.78 E425.02378
G1 X156.07 Y142.64 E425.04154
G1 X156.02 Y143.30 E425.05361
G1 X155.99 Y143.97 E425.06119
G1 X156.03 Y144.72 E425.07432
G1 X156.38 Y145.42 E425.10684
G0 F6000 X155.92 Y145.67
G1 F5400 X157.16 Y146.91 E425.17980
G0 F6000 X155.92 Y147.08
G1 F5400 X167.07 Y158.23 E425.83541
G0 F6000 X167.07 Y158.94
G1 F5400 X155.92 Y147.79 E426.49102
G0 F6000 X155.92 Y148.50
G1 F5400 X167.07 Y159.65 E427.14662
G0 F6000 X167.07 Y160.35
G1 F5400 X155.92 Y149.20 E427.80223
G0 F6000 X155.92 Y149.91
G1 F5400 X167.07 Y161.06 E428.45784
G0 F6000 X166.65 Y161.35
G1 F5400 X155.92 Y150.62 E429.08881
G0 F6000 X155.92 Y151.32
G1 F5400 X165.94 Y161.35 E429.67818
G0 F6000 X165.24 Y161.35
G1 F5400 X155.92 Y152.03 E430.22598
G0 F6000 X155.92 Y152.74
G1 F5400 X164.53 Y161.35 E430.73219
G0 F6000 X163.82 Y161.35
G1 F5400 X155.92 Y153.45 E431.19683
G0 F6000 X155.92 Y154.15
G1 F5400 X163.12 Y161.35 E431.61990
G0 F6000 X162.41 Y161.35
G1 F5400 X155.92 Y154.86 E432.00139
G0 F6000 X155.92 Y155.57
G1 F5400 X161.70 Y161.35 E432.34132
G0 F6000 X161.00 Y161.35
G1 F5400 X155.92 Y156.28 E432.63966
G0 F6000 X155.92 Y156.98
G1 F5400 X160.29 Y161.35 E432.89642
G0 F6000 X159.58 Y161.35
G1 F5400 X155.92 Y157.69 E433.11161
G0 F6000 X155.92 Y158.40
G1 F5400 X158.87 Y161.35 E433.28524
G0 F6000 X158.17 Y161.35
G1 F5400 X155.92 Y159.10 E433.41729
G0 F6000 X155.92 Y159.81
G1 F5400 X157.46 Y161.35 E433.50772
G0 F6000 X156.75 Y161.35
G1 F5400 X155.92 Y160.52 E433.55658
G0 F6000 X155.92 Y161.22
G1 F5400 X156.04 Y161.35 E433.56387
G0 F6000 X167.07 Y157.53
G1 F5400 X155.92 Y146.38 E434.21948
G0 F6000 X158.26 Y148.01
G1 F5400 X167.07 Y156.82 E434.73759
G0 F6000 X167.07 Y156.11
G1 F5400 X159.75 Y148.79 E435.16821
G0 F6000 X160.69 Y149.02
G1 F5400 X167.07 Y155.41 E435.54345
G0 F6000 X167.07 Y154.70
G1 F5400 X161.47 Y149.10 E435.87259
G0 F6000 X162.12 Y149.04
G1 F5400 X167.07 Y153.99 E436.16360
G0 F6000 X167.07 Y153.28
G1 F5400 X162.73 Y148.94 E436.41872
G0 F6000 X163.28 Y148.78
G1 F5400 X167.07 Y152.58 E436.64197
G0 F6000 X167.07 Y151.87
G1 F5400 X163.78 Y148.58 E436.83541
G0 F6000 X164.24 Y148.33
G1 F5400 X167.07 Y151.16 E437.00171
G0 F6000 X167.07 Y150.46
G1 F5400 X164.68 Y148.06 E437.14265
G0 F6000 X165.06 Y147.74
G1 F5400 X167.07 Y149.75 E437.26077
G0 F6000 X167.07 Y149.04
G1 F5400 X165.43 Y147.40 E437.35731
G0 F6000 X165.75 Y147.01
G1 F5400 X167.07 Y148.33 E437.43510
G0 F6000 X167.07 Y147.63
G1 F5400 X166.06 Y146.61 E437.49487
G0 F6000 X166.30 Y146.15
G1 F5400 X167.07 Y146.92 E437.54017
G0 F6000 X167.07 Y146.21
G1 F5400 X166.80 Y145.59 E437.57165
G1 X166.89 Y144.97 E437.59337
G1 X166.96 Y144.33 E437.60690
G1 X166.99 Y143.65 E437.61681
G1 X166.98 Y142.94 E437.62803
G1 X166.74 Y142.35 E437.65423
G0 F6000 X167.07 Y141.97
G1 F5400 X166.31 Y141.21 E437.69907
G0 F6000 X167.07 Y141.26
G1 F5400 X164.95 Y139.14 E437.82383
G0 F6000 X165.66 Y139.14
G1 F5400 X167.07 Y140.56 E437.90703
G0 F6000 X167.07 Y139.85
G1 F5400 X166.36 Y139.14 E437.94866
;LAYER:5
G0 F6000 X167.25 Y138.97 Z1.30
;TYPE:WALL-INNER
G1 F5340 X167.25 Y161.53 E438.88655
G1 X155.75 Y161.53 E439.36466
G1 X155.75 Y138.97 E440.30256
G1 X159.20 Y138.97 E440.44624
G1 X158.58 Y139.30 E440.47576
G1 X157.78 Y139.95 E440.51860
G1 X157.13 Y140.75 E440.56141
G1 X156.64 Y141.66 E440.60423
G1 X156.34 Y142.65 E440.64711
G1 X156.24 Y143.67 E440.68994
G1 X156.34 Y144.70 E440.73276
G1 X156.64 Y145.68 E440.77564
G1 X157.13 Y146.59 E440.81846
G1 X157.78 Y147.39 E440.86124
G1 X158.58 Y148.04 E440.90413
G1 X159.49 Y148.53 E440.94698
G1 X160.47 Y148.83 E440.98975
G1 X161.50 Y148.93 E441.03261
G1 X162.52 Y148.83 E441.07548
G1 X163.51 Y148.53 E441.11828
G1 X164.42 Y148.04 E441.16114
G1 X165.22 Y147.39 E441.20403
G1 X165.87 Y146.59 E441.24680
G1 X166.35 Y145.68 E441.28962
G1 X166.65 Y144.70 E441.33251
G1 X166.75 Y143.67 E441.37533
G1 X166.65 Y142.65 E441.41814
G1 X166.35 Y141.66 E441.46103
G1 X165.87 Y140.75 E441.50385
G1 X165.22 Y139.95 E441.54666
G1 X164.42 Y139.30 E441.58950
G1 X163.79 Y138.97 E441.61902
G1 X167.25 Y138.97 E441.76266
G0 F6000 X167.75 Y138.47
G1 F5340 X167.75 Y162.03 E442.74213
G1 X155.25 Y162.03 E443.26182
G1 X155.25 Y138.47 E444.24129
G1 X167.75 Y138.47 E444.76098
G0 F6000 X164.86 Y140.31
G1 F5340 X164.14 Y139.72 E444.79970
G1 X163.32 Y139.28 E444.83848
G1 X162.43 Y139.01 E444.87719
G1 X161.50 Y138.92 E444.91596
G1 X160.57 Y139.01 E444.95469
G1 X159.68 Y139.28 E444.99340
G1 X158.86 Y139.72 E445.03218
G1 X158.14 Y140.31 E445.07090
G1 X157.55 Y141.03 E445.10966
G1 X157.11 Y141.85 E445.14837
G1 X156.84 Y142.74 E445.18717
G1 X156.74 Y143.67 E445.22590
G1 X156.84 Y144.60 E445.26463
G1 X157.11 Y145.49 E445.30343
G1 X157.55 Y146.31 E445.34213
G1 X158.14 Y147.03 E445.38086
G1 X158.86 Y147.62 E445.41961
G1 X159.68 Y148.06 E445.45837
G1 X160.57 Y148.33 E445.49709
G1 X161.50 Y148.43 E445.53582
G1 X162.43 Y148.33 E445.57459
G1 X163.32 Y148.06 E445.61331
G1 X164.14 Y147.62 E445.65207
G1 X164.86 Y147.03 E445.69083
G1 X165.45 Y146.31 E445.72955
G1 X165.89 Y145.49 E445.76826
G1 X166.16 Y144.60 E445.80706
G1 X166.25 Y143.67 E445.84578
G1 X166.16 Y142.74 E445.88451
G1 X165.89 Y141.85 E445.92331
G1 X165.45 Y141.03 E445.96201
G1 X164.86 Y140.31 E446.00077
G0 F6000 X164.50 Y140.66
;TYPE:WALL-OUTER
G1 F5340 X163.86 Y140.14 E446.03540
G1 X163.12 Y139.74 E446.07008
G1 X162.33 Y139.50 E446.10470
G1 X161.50 Y139.42 E446.13938
G1 X160.67 Y139.50 E446.17401
G1 X159.87 Y139.74 E446.20863
G1 X159.14 Y140.14 E446.24332
G1 X158.49 Y140.66 E446.27794
G1 X157.96 Y141.31 E446.31259
G1 X157.57 Y142.04 E446.34725
G1 X157.33 Y142.84 E446.38191
G1 X157.25 Y143.67 E446.41655
G1 X157.33 Y144.50 E446.45118
G1 X157.57 Y145.30 E446.48585
G1 X157.96 Y146.03 E446.52050
G1 X158.49 Y146.68 E446.55513
G1 X159.14 Y147.21 E446.58978
G1 X159.87 Y147.60 E446.62444
G1 X160.67 Y147.84 E446.65907
G1 X161.50 Y147.92 E446.69371
G1 X162.33 Y147.84 E446.72838
G1 X163.12 Y147.60 E446.76301
G1 X163.86 Y147.21 E446.79768
G1 X164.50 Y146.68 E446.83233
G1 X165.03 Y146.03 E446.86695
G1 X165.43 Y145.30 E446.90160
G1 X165.67 Y144.50 E446.93627
G1 X165.75 Y143.67 E446.97090
G1 X165.67 Y142.84 E447.00553
G1 X165.43 Y142.04 E447.04020
G1 X165.03 Y141.31 E447.07485
G1 X164.50 Y140.66 E447.10951
G0 F6000 X164.78 Y140.44
G0 X167.90 Y138.23
G0 X168.25 Y137.97
G1 F5340 X168.25 Y162.53 E448.13055
G1 X154.75 Y162.53 E448.69182
G1 X154.75 Y137.97 E449.71286
G1 X168.25 Y137.97 E450.27413
G0 F6000 X167.90 Y138.23
G0 X167.07 Y139.46
;TYPE:FILL
G1 F5340 X165.95 Y140.58 E450.33992
G0 F6000 X165.63 Y140.19
G1 F5340 X166.68 Y139.14 E450.40154
G0 F6000 X165.97 Y139.14
G1 F5340 X165.12 Y139.65 E450.44058
G1 X165.27 Y139.14 E450.46255
G0 F6000 X167.07 Y140.17
G1 F5340 X166.21 Y141.03 E450.51306
G0 F6000 X166.46 Y141.49
G1 F5340 X167.07 Y141.23 E450.54903
G1 X166.86 Y142.15 E450.57422
G1 X166.94 Y142.77 E450.58974
G1 X166.98 Y143.44 E450.60088
G1 X166.99 Y144.13 E450.61039
G1 X166.95 Y144.88 E450.62434
G1 X166.55 Y145.64 E450.66005
G0 F6000 X167.07 Y145.82
G1 F5340 X155.92 Y156.97 E451.31563
G0 F6000 X155.92 Y157.68
G1 F5340 X167.07 Y146.53 E451.97121
G0 F6000 X167.07 Y147.24
G1 F5340 X155.92 Y158.39 E452.62679
G0 F6000 X155.92 Y159.09
G1 F5340 X167.07 Y147.94 E453.28236
G0 F6000 X167.07 Y148.65
G1 F5340 X155.92 Y159.80 E453.93794
G0 F6000 X155.92 Y160.51
G1 F5340 X167.07 Y149.36 E454.59352
G0 F6000 X167.07 Y150.06
G1 F5340 X155.92 Y161.21 E455.24907
G0 F6000 X156.49 Y161.35
G1 F5340 X167.07 Y150.77 E455.87098
G0 F6000 X167.07 Y151.48
G1 F5340 X157.20 Y161.35 E456.45133
G0 F6000 X157.91 Y161.35
G1 F5340 X167.07 Y152.19 E456.99011
G0 F6000 X167.07 Y152.89
G1 F5340 X158.62 Y161.35 E457.48729
G0 F6000 X159.32 Y161.35
G1 F5340 X167.07 Y153.60 E457.94290
G0 F6000 X167.07 Y154.31
G1 F5340 X160.03 Y161.35 E458.35694
G0 F6000 X160.74 Y161.35
G1 F5340 X167.07 Y155.01 E458.72942
G0 F6000 X167.07 Y155.72
G1 F5340 X161.44 Y161.35 E459.06032
G0 F6000 X162.15 Y161.35
G1 F5340 X167.07 Y156.43 E459.34972
G0 F6000 X167.07 Y157.14
G1 F5340 X162.86 Y161.35 E459.59748
G0 F6000 X163.56 Y161.35
G1 F5340 X167.07 Y157.84 E459.80368
G0 F6000 X167.07 Y158.55
G1 F5340 X164.27 Y161.35 E459.96831
G0 F6000 X164.98 Y161.35
G1 F5340 X167.07 Y159.26 E460.09137
G0 F6000 X167.07 Y159.96
G1 F5340 X165.69 Y161.35 E460.17286
G0 F6000 X166.39 Y161.35
G1 F5340 X167.07 Y160.67 E460.21279
G0 F6000 X155.92 Y156.26
G1 F5340 X163.47 Y148.72 E460.65634
G0 F6000 X162.47 Y149.00
G1 F5340 X155.92 Y155.56 E461.04158
G0 F6000 X155.92 Y154.85
G1 F5340 X161.69 Y149.08 E461.38071
G0 F6000 X161.01 Y149.05
G1 F5340 X155.92 Y154.14 E461.67999
G0 F6000 X155.92 Y153.44
G1 F5340 X160.38 Y148.98 E461.94204
G0 F6000 X159.84 Y148.81
G1 F5340 X155.92 Y152.73 E462.17223
G0 F6000 X155.92 Y152.02
G1 F5340 X159.31 Y148.63 E462.37160
G0 F6000 X158.85 Y148.38
G1 F5340 X155.92 Y151.31 E462.54388
G0 F6000 X155.92 Y150.61
G1 F5340 X158.41 Y148.12 E462.68987
G0 F6000 X158.02 Y147.81
G1 F5340 X155.92 Y149.90 E462.81302
G0 F6000 X155.92 Y149.19
G1 F5340 X157.63 Y147.48 E462.91359
G0 F6000 X157.31 Y147.09
G1 F5340 X155.92 Y148.49 E462.99540
G0 F6000 X155.92 Y147.78
G1 F5340 X157.00 Y146.71 E463.05849
G0 F6000 X156.75 Y146.25
G1 F5340 X155.92 Y147.07 E463.10688
G0 F6000 X155.92 Y146.37
G1 F5340 X156.41 Y145.52 E463.14077
G1 X155.92 Y145.30 E463.16463
G1 X156.04 Y144.47 E463.17900
G1 X156.01 Y143.80 E463.18968
G1 X156.01 Y143.10 E463.19985
G1 X156.05 Y142.35 E463.21515
G1 X156.51 Y141.53 E463.25390
G0 F6000 X155.92 Y141.42
G1 F5340 X158.20 Y139.14 E463.38772
G0 F6000 X157.49 Y139.14
G1 F5340 X155.92 Y140.71 E463.47997
G0 F6000 X155.92 Y140.00
G1 F5340 X156.78 Y139.14 E463.53065
G0 F6000 X156.08 Y139.14
G1 F5340 X155.92 Y139.29 E463.53976
G0 F6000 X149.25 Y138.97
;TYPE:WALL-INNER
G1 F5340 X149.25 Y161.53 E464.47766
G1 X137.75 Y161.53 E464.95577
G1 X137.75 Y138.97 E465.89367
G1 X141.21 Y138.97 E466.03735
G1 X140.58 Y139.30 E466.06687
G1 X139.78 Y139.95 E466.10971
G1 X139.13 Y140.75 E466.15252
G1 X138.64 Y141.66 E466.19533
G1 X138.34 Y142.65 E466.23822
G1 X138.24 Y143.67 E466.28104
G1 X138.34 Y144.70 E466.32386
G1 X138.64 Y145.68 E466.36675
G1 X139.13 Y146.59 E466.40957
G1 X139.78 Y147.39 E466.45235
G1 X140.58 Y148.04 E466.49524
G1 X141.49 Y148.53 E466.53809
G1 X142.47 Y148.83 E466.58086
G1 X143.50 Y148.93 E466.62372
G1 X144.53 Y148.83 E466.66658
G1 X145.51 Y148.53 E466.70939
G1 X146.42 Y148.04 E466.75224
G1 X147.22 Y147.39 E466.79513
G1 X147.87 Y146.59 E466.83791
G1 X148.35 Y145.68 E466.88073
G1 X148.66 Y144.70 E466.92362
G1 X148.75 Y143.67 E466.96643
G1 X148.66 Y142.65 E467.00925
G1 X148.35 Y141.66 E467.05214
G1 X147.87 Y140.75 E467.09496
G1 X147.22 Y139.95 E467.13777
G1 X146.42 Y139.30 E467.18060
G1 X145.79 Y138.97 E467.21012
G1 X149.25 Y138.97 E467.35377
G0 F6000 X149.75 Y138.47
G1 F5340 X149.75 Y162.03 E468.33323
G1 X137.25 Y162.03 E468.85292
G1 X137.25 Y138.47 E469.83239
G1 X149.75 Y138.47 E470.35208
G0 F6000 X146.86 Y140.31
G1 F5340 X146.14 Y139.72 E470.39081
G1 X145.32 Y139.28 E470.42959
G1 X144.43 Y139.01 E470.46830
G1 X143.50 Y138.92 E470.50707
G1 X142.57 Y139.01 E470.54580
G1 X141.68 Y139.28 E470.58450
G1 X140.86 Y139.72 E470.62328
G1 X140.14 Y140.31 E470.66201
G1 X139.55 Y141.03 E470.70077
G1 X139.11 Y141.85 E470.73948
G1 X138.84 Y142.74 E470.77828
G1 X138.75 Y143.67 E470.81701
G1 X138.84 Y144.60 E470.85573
G1 X139.11 Y145.49 E470.89453
G1 X139.55 Y146.31 E470.93324
G1 X140.14 Y147.03 E470.97197
G1 X140.86 Y147.62 E471.01072
G1 X141.68 Y148.06 E471.04948
G1 X142.57 Y148.33 E471.08820
G1 X143.50 Y148.43 E471.12693
G1 X144.43 Y148.33 E471.16570
G1 X145.32 Y148.06 E471.20442
G1 X146.14 Y147.62 E471.24318
G1 X146.86 Y147.03 E471.28193
G1 X147.45 Y146.31 E471.32066
G1 X147.89 Y145.49 E471.35937
G1 X148.16 Y144.60 E471.39816
G1 X148.25 Y143.67 E471.43689
G1 X148.16 Y142.74 E471.47562
G1 X147.89 Y141.85 E471.51441
G1 X147.45 Y141.03 E471.55312
G1 X146.86 Y140.31 E471.59188
G0 F6000 X146.51 Y140.66
;TYPE:WALL-OUTER
G1 F5340 X145.86 Y140.14 E471.62650
G1 X145.13 Y139.74 E471.66119
G1 X144.33 Y139.50 E471.69581
G1 X143.50 Y139.42 E471.73048
G1 X142.67 Y139.50 E471.76512
G1 X141.87 Y139.74 E471.79973
G1 X141.14 Y140.14 E471.83442
G1 X140.49 Y140.66 E471.86905
G1 X139.97 Y141.31 E471.90370
G1 X139.57 Y142.04 E471.93835
G1 X139.33 Y142.84 E471.97302
G1 X139.25 Y143.67 E472.00766
G1 X139.33 Y144.50 E472.04229
G1 X139.57 Y145.30 E472.07696
G1 X139.97 Y146.03 E472.11161
G1 X140.49 Y146.68 E472.14623
G1 X141.14 Y147.21 E472.18088
G1 X141.87 Y147.60 E472.21555
G1 X142.67 Y147.84 E472.25018
G1 X143.50 Y147.92 E472.28481
G1 X144.33 Y147.84 E472.31949
G1 X145.13 Y147.60 E472.35412
G1 X145.86 Y147.21 E472.38879
G1 X146.51 Y146.68 E472.42344
G1 X147.03 Y146.03 E472.45806
G1 X147.43 Y145.30 E472.49271
G1 X147.67 Y144.50 E472.52738
G1 X147.75 Y143.67 E472.56201
G1 X147.67 Y142.84 E472.59664
G1 X147.43 Y142.04 E472.63131
G1 X147.03 Y141.31 E472.66596
G1 X146.51 Y140.66 E472.70062
G0 F6000 X146.78 Y140.44
G0 X149.90 Y138.23
G0 X150.25 Y137.97
G1 F5340 X150.25 Y162.53 E473.72166
G1 X136.75 Y162.53 E474.28293
G1 X136.75 Y137.97 E475.30397
G1 X150.25 Y137.97 E475.86524
G0 F6000 X149.90 Y138.23
G0 X149.00 Y139.14
;TYPE:FILL
G1 F5340 X147.78 Y140.37 E475.93726
G0 F6000 X147.46 Y139.98
G1 F5340 X148.30 Y139.14 E475.98639
G0 F6000 X147.59 Y139.14
G1 F5340 X146.90 Y139.47 E476.01530
G1 X146.88 Y139.14 E476.02917
G0 F6000 X148.08 Y140.77
G1 F5340 X149.07 Y139.78 E476.08756
G0 F6000 X149.07 Y140.49
G1 F5340 X148.33 Y141.23 E476.13142
G0 F6000 X148.55 Y141.71
G1 F5340 X149.07 Y141.55 E476.16191
G1 X148.90 Y142.43 E476.18267
G1 X148.96 Y143.07 E476.19584
G1 X148.99 Y143.75 E476.20528
G1 X148.97 Y144.47 E476.21680
G1 X148.72 Y145.08 E476.24425
G0 F6000 X149.07 Y145.44
G1 F5340 X148.24 Y146.27 E476.29328
G0 F6000 X149.07 Y146.14
G1 F5340 X137.92 Y157.29 E476.94877
G0 F6000 X137.92 Y158.00
G1 F5340 X149.07 Y146.85 E477.60426
G0 F6000 X149.07 Y147.56
G1 F5340 X137.92 Y158.71 E478.25975
G0 F6000 X137.92 Y159.41
G1 F5340 X149.07 Y148.26 E478.91524
G0 F6000 X149.07 Y148.97
G1 F5340 X137.92 Y160.12 E479.57073
G0 F6000 X137.92 Y160.83
G1 F5340 X149.07 Y149.68 E480.22622
G0 F6000 X149.07 Y150.39
G1 F5340 X138.11 Y161.35 E480.87077
G0 F6000 X138.82 Y161.35
G1 F5340 X149.07 Y151.09 E481.47375
G0 F6000 X149.07 Y151.80
G1 F5340 X139.52 Y161.35 E482.03517
G0 F6000 X140.23 Y161.35
G1 F5340 X149.07 Y152.51 E482.55496
G0 F6000 X149.07 Y153.22
G1 F5340 X140.94 Y161.35 E483.03318
G0 F6000 X141.65 Y161.35
G1 F5340 X149.07 Y153.92 E483.46983
G0 F6000 X149.07 Y154.63
G1 F5340 X142.35 Y161.35 E483.86491
G0 F6000 X143.06 Y161.35
G1 F5340 X149.07 Y155.34 E484.21842
G0 F6000 X149.07 Y156.04
G1 F5340 X143.77 Y161.35 E484.53036
G0 F6000 X144.47 Y161.35
G1 F5340 X149.07 Y156.75 E484.80074
G0 F6000 X149.07 Y157.46
G1 F5340 X145.18 Y161.35 E485.02954
G0 F6000 X145.89 Y161.35
G1 F5340 X149.07 Y158.16 E485.21678
G0 F6000 X149.07 Y158.87
G1 F5340 X146.59 Y161.35 E485.36241
G0 F6000 X147.30 Y161.35
G1 F5340 X149.07 Y159.58 E485.46645
G0 F6000 X149.07 Y160.29
G1 F5340 X148.01 Y161.35 E485.52893
G0 F6000 X148.72 Y161.35
G1 F5340 X149.07 Y160.99 E485.54983
G0 F6000 X137.92 Y156.59
G1 F5340 X146.10 Y148.41 E486.03057
G0 F6000 X144.91 Y148.89
G1 F5340 X137.92 Y155.88 E486.44150
G0 F6000 X137.92 Y155.17
G1 F5340 X144.05 Y149.05 E486.80160
G0 F6000 X143.31 Y149.08
G1 F5340 X137.92 Y154.46 E487.11804
G0 F6000 X137.92 Y153.76
G1 F5340 X142.66 Y149.02 E487.39667
G0 F6000 X142.09 Y148.89
G1 F5340 X137.92 Y153.05 E487.64133
G0 F6000 X137.92 Y152.34
G1 F5340 X141.54 Y148.72 E487.85414
G0 F6000 X141.06 Y148.50
G1 F5340 X137.92 Y151.64 E488.03873
G0 F6000 X137.92 Y150.93
G1 F5340 X140.60 Y148.25 E488.19616
G0 F6000 X140.19 Y147.95
G1 F5340 X137.92 Y150.22 E488.32971
G0 F6000 X137.92 Y149.51
G1 F5340 X139.81 Y147.63 E488.44042
G0 F6000 X139.46 Y147.27
G1 F5340 X137.92 Y148.81 E488.53079
G0 F6000 X137.92 Y148.10
G1 F5340 X139.14 Y146.88 E488.60241
G0 F6000 X138.86 Y146.46
G1 F5340 X137.92 Y147.39 E488.65738
G0 F6000 X137.92 Y146.69
G1 F5340 X138.51 Y145.75 E488.69786
G1 X137.92 Y145.62 E488.72613
G1 X138.08 Y144.76 E488.74463
G1 X138.03 Y144.11 E488.75690
G1 X138.00 Y143.43 E488.76551
G1 X138.03 Y142.69 E488.77816
G1 X138.35 Y142.01 E488.80925
G0 F6000 X137.92 Y141.74
G1 F5340 X138.96 Y140.71 E488.86987
G0 F6000 X137.92 Y141.03
G1 F5340 X139.81 Y139.14 E488.98094
G0 F6000 X139.11 Y139.14
G1 F5340 X137.92 Y140.32 E489.05043
G0 F6000 X137.92 Y139.62
G1 F5340 X138.40 Y139.14 E489.07836
;LAYER:6
G0 F6000 X137.75 Y138.97 Z1.50
;TYPE:WALL-INNER
G1 F3660 X141.21 Y138.97 E489.22205
G1 X140.58 Y139.30 E489.25156
G1 X139.78 Y139.95 E489.29440
G1 X139.13 Y140.75 E489.33721
G1 X138.64 Y141.66 E489.38003
G1 X138.34 Y142.65 E489.42292
G1 X138.24 Y143.67 E489.46574
G1 X138.34 Y144.70 E489.50856
G1 X138.64 Y145.68 E489.55145
G1 X139.13 Y146.59 E489.59426
G1 X139.78 Y147.39 E489.63704
G1 X140.58 Y148.04 E489.67993
G1 X141.49 Y148.53 E489.72278
G1 X142.47 Y148.83 E489.76555
G1 X143.50 Y148.93 E489.80842
G1 X144.53 Y148.83 E489.85128
G1 X145.51 Y148.53 E489.89409
G1 X146.42 Y148.04 E489.93694
G1 X147.22 Y147.39 E489.97983
G1 X147.87 Y146.59 E490.02261
G1 X148.35 Y145.68 E490.06542
G1 X148.66 Y144.70 E490.10831
G1 X148.75 Y143.67 E490.15113
G1 X148.66 Y142.65 E490.19395
G1 X148.35 Y141.66 E490.23684
G1 X147.87 Y140.75 E490.27965
G1 X147.22 Y139.95 E490.32246
G1 X146.42 Y139.30 E490.36530
G1 X145.79 Y138.97 E490.39482
G1 X149.25 Y138.97 E490.53846
G1 X149.25 Y161.53 E491.47636
G1 X137.75 Y161.53 E491.95447
G1 X137.75 Y138.97 E492.89236
G0 F6000 X137.25 Y138.47
G1 F3660 X149.75 Y138.47 E493.41205
G1 X149.75 Y162.03 E494.39152
G1 X137.25 Y162.03 E494.91121
G1 X137.25 Y138.47 E495.89068
G0 F6000 X140.14 Y140.31
G1 F3660 X139.55 Y141.03 E495.92944
G1 X139.11 Y141.85 E495.96815
G1 X138.84 Y142.74 E496.00695
G1 X138.75 Y143.67 E496.04568
G1 X138.84 Y144.60 E496.08441
G1 X139.11 Y145.49 E496.12320
G1 X139.55 Y146.31 E496.16191
G1 X140.14 Y147.03 E496.20064
G1 X140.86 Y147.62 E496.23939
G1 X141.68 Y148.06 E496.27815
G1 X142.57 Y148.33 E496.31687
G1 X143.50 Y148.43 E496.35560
G1 X144.43 Y148.33 E496.39437
G1 X145.32 Y148.06 E496.43309
G1 X146.14 Y147.62 E496.47185
G1 X146.86 Y147.03 E496.51060
G1 X147.45 Y146.31 E496.54933
G1 X147.89 Y145.49 E496.58804
G1 X148.16 Y144.60 E496.62684
G1 X148.25 Y143.67 E496.66556
G1 X148.16 Y142.74 E496.70429
G1 X147.89 Y141.85 E496.74308
G1 X147.45 Y141.03 E496.78179
G1 X146.86 Y140.31 E496.82055
G1 X146.14 Y139.72 E496.85928
G1 X145.32 Y139.28 E496.89806
G1 X144.43 Y139.01 E496.93676
G1 X143.50 Y138.92 E496.97553
G1 X142.57 Y139.01 E497.01426
G1 X141.68 Y139.28 E497.05297
G1 X140.86 Y139.72 E497.09175
G1 X140.14 Y140.31 E497.13048
G0 F6000 X140.49 Y140.66
;TYPE:WALL-OUTER
G1 F3660 X139.97 Y141.31 E497.16513
G1 X139.57 Y142.04 E497.19978
G1 X139.33 Y142.84 E497.23445
G1 X139.25 Y143.67 E497.26909
G1 X139.33 Y144.50 E497.30372
G1 X139.57 Y145.30 E497.33839
G1 X139.97 Y146.03 E497.37304
G1 X140.49 Y146.68 E497.40767
G1 X141.14 Y147.21 E497.44231
G1 X141.87 Y147.60 E497.47698
G1 X142.67 Y147.84 E497.51161
G1 X143.50 Y147.92 E497.54625
G1 X144.33 Y147.84 E497.58092
G1 X145.13 Y147.60 E497.61555
G1 X145.86 Y147.21 E497.65022
G1 X146.51 Y146.68 E497.68487
G1 X147.03 Y146.03 E497.71949
G1 X147.43 Y145.30 E497.75414
G1 X147.67 Y144.50 E497.78881
G1 X147.75 Y143.67 E497.82344
G1 X147.67 Y142.84 E497.85807
G1 X147.43 Y142.04 E497.89274
G1 X147.03 Y141.31 E497.92739
G1 X146.51 Y140.66 E497.96205
G1 X145.86 Y140.14 E497.99667
G1 X145.13 Y139.74 E498.03136
G1 X144.33 Y139.50 E498.06598
G1 X143.50 Y139.42 E498.10065
G1 X142.67 Y139.50 E498.13529
G1 X141.87 Y139.74 E498.16990
G1 X141.14 Y140.14 E498.20459
G1 X140.49 Y140.66 E498.23922
G0 F6000 X140.22 Y140.44
G0 X137.10 Y138.23
G0 X136.75 Y137.97
G1 F3660 X150.25 Y137.97 E498.80048
G1 X150.25 Y162.53 E499.82152
G1 X136.75 Y162.53 E500.38279
G1 X136.75 Y137.97 E501.40383
G0 F6000 X137.10 Y138.23
G0 X138.26 Y139.14
;TYPE:FILL
G1 F3660 X139.34 Y140.22 E501.46730
G0 F6000 X140.24 Y139.35
G1 F3660 X140.02 Y139.14 E501.47983
G0 F6000 X137.92 Y140.57
G1 F3660 X138.64 Y141.29 E501.52201
G0 F6000 X137.92 Y142.34
G1 F3660 X138.18 Y142.60 E501.53689
G0 F6000 X137.92 Y144.11
G1 F3660 X138.13 Y144.32 E501.54909
G0 F6000 X137.92 Y145.88
G1 F3660 X149.07 Y157.03 E502.20464
G0 F6000 X149.07 Y158.80
G1 F3660 X137.92 Y147.65 E502.86019
G0 F6000 X137.92 Y149.41
G1 F3660 X149.07 Y160.56 E503.51573
G0 F6000 X148.09 Y161.35
G1 F3660 X137.92 Y151.18 E504.11348
G0 F6000 X137.92 Y152.95
G1 F3660 X146.32 Y161.35 E504.60731
G0 F6000 X144.56 Y161.35
G1 F3660 X137.92 Y154.72 E504.99722
G0 F6000 X137.92 Y156.49
G1 F3660 X142.79 Y161.35 E505.28318
G0 F6000 X141.02 Y161.35
G1 F3660 X137.92 Y158.25 E505.46518
G0 F6000 X137.92 Y160.02
G1 F3660 X139.25 Y161.35 E505.54323
G0 F6000 X149.07 Y155.26
G1 F3660 X142.85 Y149.04 E505.90912
G0 F6000 X144.57 Y148.99
G1 F3660 X149.07 Y153.49 E506.17370
G0 F6000 X149.07 Y151.72
G1 F3660 X145.88 Y148.53 E506.36161
G0 F6000 X146.95 Y147.83
G1 F3660 X149.07 Y149.96 E506.48656
G0 F6000 X149.07 Y148.19
G1 F3660 X147.81 Y146.93 E506.56052
G0 F6000 X148.48 Y145.82
G1 F3660 X149.07 Y146.42 E506.59565
G0 F6000 X149.07 Y144.65
G1 F3660 X148.85 Y144.44 E506.60850
G0 F6000 X149.07 Y142.89
G1 F3660 X148.83 Y142.64 E506.62288
G0 F6000 X149.07 Y141.12
G1 F3660 X147.09 Y139.14 E506.73917
G0 F6000 X148.86 Y139.14
G1 F3660 X149.07 Y139.35 E506.75152
G0 F6000 X155.75 Y138.97
;TYPE:WALL-INNER
G1 F3660 X159.20 Y138.97 E506.89521
G1 X158.58 Y139.30 E506.92472
G1 X157.78 Y139.95 E506.96756
G1 X157.13 Y140.75 E507.01037
G1 X156.64 Y141.66 E507.05319
G1 X156.34 Y142.65 E507.09608
G1 X156.24 Y143.67 E507.13890
G1 X156.34 Y144.70 E507.18172
G1 X156.64 Y145.68 E507.22461
G1 X157.13 Y146.59 E507.26743
G1 X157.78 Y147.39 E507.31020
G1 X158.58 Y148.04 E507.35309
G1 X159.49 Y148.53 E507.39595
G1 X160.47 Y148.83 E507.43871
G1 X161.50 Y148.93 E507.48158
G1 X162.52 Y148.83 E507.52444
G1 X163.51 Y148.53 E507.56725
G1 X164.42 Y148.04 E507.61010
G1 X165.22 Y147.39 E507.65299
G1 X165.87 Y146.59 E507.69577
G1 X166.35 Y145.68 E507.73858
G1 X166.65 Y144.70 E507.78147
G1 X166.75 Y143.67 E507.82429
G1 X166.65 Y142.65 E507.86711
G1 X166.35 Y141.66 E507.91000
G1 X165.87 Y140.75 E507.95281
G1 X165.22 Y139.95 E507.99562
G1 X164.42 Y139.30 E508.03846
G1 X163.79 Y138.97 E508.06798
G1 X167.25 Y138.97 E508.21162
G1 X167.25 Y161.53 E509.14952
G1 X155.75 Y161.53 E509.62763
G1 X155.75 Y138.97 E510.56552
G0 F6000 X155.25 Y138.47
G1 F3660 X167.75 Y138.47 E511.08521
G1 X167.75 Y162.03 E512.06468
G1 X155.25 Y162.03 E512.58437
G1 X155.25 Y138.47 E513.56384
G0 F6000 X158.14 Y140.31
G1 F3660 X157.55 Y141.03 E513.60260
G1 X157.11 Y141.85 E513.64131
G1 X156.84 Y142.74 E513.68011
G1 X156.74 Y143.67 E513.71884
G1 X156.84 Y144.60 E513.75757
G1 X157.11 Y145.49 E513.79636
G1 X157.55 Y146.31 E513.83507
G1 X158.14 Y147.03 E513.87380
G1 X158.86 Y147.62 E513.91255
G1 X159.68 Y148.06 E513.95131
G1 X160.57 Y148.33 E513.99003
G1 X161.50 Y148.43 E514.02876
G1 X162.43 Y148.33 E514.06753
G1 X163.32 Y148.06 E514.10625
G1 X164.14 Y147.62 E514.14501
G1 X164.86 Y147.03 E514.18376
G1 X165.45 Y146.31 E514.22249
G1 X165.89 Y145.49 E514.26120
G1 X166.16 Y144.60 E514.30000
G1 X166.25 Y143.67 E514.33872
G1 X166.16 Y142.74 E514.37745
G1 X165.89 Y141.85 E514.41624
G1 X165.45 Y141.03 E514.45495
G1 X164.86 Y140.31 E514.49371
G1 X164.14 Y139.72 E514.53244
G1 X163.32 Y139.28 E514.57122
G1 X162.43 Y139.01 E514.60992
G1 X161.50 Y138.92 E514.64870
G1 X160.57 Y139.01 E514.68742
G1 X159.68 Y139.28 E514.72613
G1 X158.86 Y139.72 E514.76491
G1 X158.14 Y140.31 E514.80364
G0 F6000 X158.49 Y140.66
;TYPE:WALL-OUTER
G1 F3660 X157.96 Y141.31 E514.83829
G1 X157.57 Y142.04 E514.87295
G1 X157.33 Y142.84 E514.90761
G1 X157.25 Y143.67 E514.94225
G1 X157.33 Y144.50 E514.97688
G1 X157.57 Y145.30 E515.01155
G1 X157.96 Y146.03 E515.04620
G1 X158.49 Y146.68 E515.08083
G1 X159.14 Y147.21 E515.11548
G1 X159.87 Y147.60 E515.15014
G1 X160.67 Y147.84 E515.18477
G1 X161.50 Y147.92 E515.21941
G1 X162.33 Y147.84 E515.25408
G1 X163.12 Y147.60 E515.28871
G1 X163.86 Y147.21 E515.32338
G1 X164.50 Y146.68 E515.35803
G1 X165.03 Y146.03 E515.39265
G1 X165.43 Y145.30 E515.42730
G1 X165.67 Y144.50 E515.46197
G1 X165.75 Y143.67 E515.49660
G1 X165.67 Y142.84 E515.53123
G1 X165.43 Y142.04 E515.56590
G1 X165.03 Y141.31 E515.60055
G1 X164.50 Y140.66 E515.63521
G1 X163.86 Y140.14 E515.66983
G1 X163.12 Y139.74 E515.70452
G1 X162.33 Y139.50 E515.73914
G1 X161.50 Y139.42 E515.77381
G1 X160.67 Y139.50 E515.80845
G1 X159.87 Y139.74 E515.84306
G1 X159.14 Y140.14 E515.87775
G1 X158.49 Y140.66 E515.91238
G0 F6000 X158.22 Y140.44
G0 X155.10 Y138.23
G0 X154.75 Y137.97
G1 F3660 X168.25 Y137.97 E516.47364
G1 X168.25 Y162.53 E517.49468
G1 X154.75 Y162.53 E518.05595
G1 X154.75 Y137.97 E519.07699
G0 F6000 X155.10 Y138.23
G0 X155.93 Y139.14
;TYPE:FILL
G1 F3660 X157.19 Y140.40 E519.15090
G0 F6000 X158.06 Y139.50
G1 F3660 X157.70 Y139.14 E519.17192
G0 F6000 X155.92 Y140.90
G1 F3660 X156.53 Y141.50 E519.20761
G0 F6000 X155.92 Y142.66
G1 F3660 X156.14 Y142.88 E519.22069
G0 F6000 X155.92 Y144.43
G1 F3660 X156.16 Y144.68 E519.23504
G0 F6000 X155.92 Y146.20
G1 F3660 X167.07 Y157.35 E519.89064
G0 F6000 X167.07 Y159.12
G1 F3660 X155.92 Y147.97 E520.54625
G0 F6000 X155.92 Y149.73
G1 F3660 X167.07 Y160.88 E521.20189
G0 F6000 X165.77 Y161.35
G1 F3660 X155.92 Y151.50 E521.78088
G0 F6000 X155.92 Y153.27
G1 F3660 X164.00 Y161.35 E522.25593
G0 F6000 X162.23 Y161.35
G1 F3660 X155.92 Y155.04 E522.62702
G0 F6000 X155.92 Y156.81
G1 F3660 X160.47 Y161.35 E522.89419
G0 F6000 X158.70 Y161.35
G1 F3660 X155.92 Y158.57 E523.05741
G0 F6000 X155.92 Y160.34
G1 F3660 X156.93 Y161.35 E523.11667
G0 F6000 X167.07 Y155.58
G1 F3660 X160.49 Y149.00 E523.50343
G0 F6000 X162.28 Y149.03
G1 F3660 X167.07 Y153.81 E523.78501
G0 F6000 X167.07 Y152.05
G1 F3660 X163.67 Y148.64 E523.98527
G0 F6000 X164.77 Y147.98
G1 F3660 X167.07 Y150.28 E524.12050
G0 F6000 X167.07 Y148.51
G1 F3660 X165.67 Y147.11 E524.20299
G0 F6000 X166.36 Y146.03
