;-- START GCODE --
;Sliced for Type A Machines Series 1
;Sliced at: Mon 26-09-2016 21:16:42
;Basic settings: Layer height: 0.2 Walls: 1.4 Fill: 100
;Print Speed: 10 Support: 0
;Retraction Speed: 40 Retraction Distance: 1.2
;Print time: #P_TIME#
;Filament used: #F_AMNT#m #F_WGHT#g
;Filament cost: #F_COST#
M106 S255	 ;start with the fan on
G21        ;metric values
G90        ;absolute positioning
M106 S255    ;start with the fan on
G28     ;move to endstops
G29		;allows for auto-levelling
G1 X150 Y5  Z15.0 F12000 ;center and move the platform down 15mm
M109 S220 ;Heat To temp
G92 E0                  ;zero the extruded length
G1 F200 E30              ;extrude 30mm of feed stock
G92 E0                  ;zero the extruded length again
G1 X175 Y25  Z0 F12000 ;remove bugger
G1 X220 F12000 ;remove bugger
G1 X150 Y150  Z15 F12000 ;recenter and begin
G1 F12000

;Layer count: 277
;LAYER:0
M106 S255
G0 F12000 X120.19 Y118.19 Z0.30
;TYPE:SKIRT
G1 F600 X184.81 Y118.19 E3.75643
G1 X184.81 Y186.81 E7.74535
G1 X120.19 Y186.81 E11.50178
G1 X120.19 Y118.19 E15.49070
G0 F12000 X120.65 Y118.65
G1 F600 X184.35 Y118.65 E19.19296
G1 X184.35 Y186.35 E23.12771
G1 X120.65 Y186.35 E26.82997
G1 X120.65 Y118.65 E30.76472
G0 F12000 X121.12 Y119.12
G1 F600 X183.88 Y119.12 E34.41281
G1 X183.88 Y185.88 E38.29339
G1 X121.12 Y185.88 E41.94148
G1 X121.12 Y119.12 E45.82206
G0 F12000 X121.58 Y119.58
G1 F600 X183.42 Y119.58 E49.41598
G1 X183.42 Y185.42 E53.24239
G1 X121.58 Y185.42 E56.83631
G1 X121.58 Y119.58 E60.66272
G0 F12000 X122.05 Y120.05
G1 F600 X182.95 Y120.05 E64.20247
G1 X182.95 Y184.95 E67.97471
G1 X122.05 Y184.95 E71.51446
G1 X122.05 Y120.05 E75.28670
G0 F12000 X122.52 Y120.52
G1 F600 X182.49 Y120.52 E78.77228
G1 X182.49 Y184.49 E82.49035
G1 X122.52 Y184.49 E85.97593
G1 X122.52 Y120.52 E89.69400
G0 F12000 X122.98 Y120.98
G1 F600 X182.02 Y120.98 E93.12541
G1 X182.02 Y184.02 E96.78931
G1 X122.98 Y184.02 E100.22073
G1 X122.98 Y120.98 E103.88463
G0 F12000 X123.45 Y121.45
G1 F600 X181.55 Y121.45 E107.26187
G1 X181.55 Y183.55 E110.87160
G1 X123.45 Y183.55 E114.24884
G1 X123.45 Y121.45 E117.85857
G0 F12000 X123.91 Y121.91
G1 F600 X181.09 Y121.91 E121.18164
G1 X181.09 Y183.09 E124.73720
G1 X123.91 Y183.09 E128.06028
G1 X123.91 Y121.91 E131.61584
G0 F12000 X124.38 Y122.38
G1 F600 X180.62 Y122.38 E134.88474
G1 X180.62 Y182.62 E138.38613
G1 X124.38 Y182.62 E141.65503
G1 X124.38 Y122.38 E145.15642
G0 F12000 X124.84 Y122.84
G1 F600 X180.16 Y122.84 E148.37116
G1 X180.16 Y182.16 E151.81838
G1 X124.84 Y182.16 E155.03311
G1 X124.84 Y122.84 E158.48033
G0 F12000 X125.31 Y123.31
G1 F600 X179.69 Y123.31 E161.64089
G1 X179.69 Y181.69 E165.03394
G1 X125.31 Y181.69 E168.19451
G1 X125.31 Y123.31 E171.58756
G0 F12000 X125.78 Y123.78
G1 F600 X179.22 Y123.78 E174.69395
G1 X179.22 Y181.22 E178.03283
G1 X125.78 Y181.22 E181.13922
G1 X125.78 Y123.78 E184.47811
G0 F12000 X126.24 Y124.24
G1 F600 X178.76 Y124.24 E187.53033
G1 X178.76 Y180.76 E190.81504
G1 X126.24 Y180.76 E193.86726
G1 X126.24 Y124.24 E197.15198
G0 F12000 X126.71 Y124.71
G1 F600 X178.29 Y124.71 E200.15003
G1 X178.29 Y180.29 E203.38057
G1 X126.71 Y180.29 E206.37862
G1 X126.71 Y124.71 E209.60917
G0 F12000 X127.17 Y125.17
G1 F600 X177.82 Y125.17 E212.55305
G1 X177.82 Y179.82 E215.72942
G1 X127.17 Y179.82 E218.67331
G1 X127.17 Y125.17 E221.84968
G0 F12000 X127.64 Y125.64
G1 F600 X177.36 Y125.64 E224.73939
G1 X177.36 Y179.36 E227.86159
G1 X127.64 Y179.36 E230.75131
G1 X127.64 Y125.64 E233.87351
G0 F12000 X128.11 Y126.11
G1 F600 X176.89 Y126.11 E236.70905
G1 X176.89 Y178.89 E239.77709
G1 X128.11 Y178.89 E242.61263
G1 X128.11 Y126.11 E245.68066
G0 F12000 X128.57 Y126.57
G1 F600 X176.43 Y126.57 E248.46204
G1 X176.43 Y178.43 E251.47590
G1 X128.57 Y178.43 E254.25727
G1 X128.57 Y126.57 E257.27114
G0 F12000 X129.04 Y127.04
G1 F600 X175.96 Y127.04 E259.99834
G1 X175.96 Y177.96 E262.95803
G1 X129.04 Y177.96 E265.68524
G1 X129.04 Y127.04 E268.64493
G0 F12000 X129.50 Y127.50
G1 F600 X175.50 Y127.50 E271.31797
G1 X175.50 Y177.50 E274.22349
G1 X129.50 Y177.50 E276.89652
G1 X129.50 Y127.50 E279.80205
G0 F12000 X129.97 Y127.97
G1 F600 X175.03 Y127.97 E282.42091
G1 X175.03 Y177.03 E285.27227
G1 X129.97 Y177.03 E287.89113
G1 X129.97 Y127.97 E290.74248
G0 F12000 X130.44 Y128.44
G1 F600 X174.56 Y128.44 E293.30718
G1 X174.56 Y176.56 E296.10436
G1 X130.44 Y176.56 E298.66906
G1 X130.44 Y128.44 E301.46624
G0 F12000 X130.90 Y128.90
G1 F600 X174.10 Y128.90 E303.97677
G1 X174.10 Y176.10 E306.71978
G1 X130.90 Y176.10 E309.23031
G1 X130.90 Y128.90 E311.97332
G0 F12000 X131.37 Y129.37
G1 F600 X173.63 Y129.37 E314.42967
G1 X173.63 Y175.63 E317.11852
G1 X131.37 Y175.63 E319.57487
G1 X131.37 Y129.37 E322.26372
G0 F12000 X131.84 Y129.84
G1 F600 X173.16 Y129.84 E324.66590
G1 X173.16 Y175.16 E327.30058
G1 X131.84 Y175.16 E329.70276
G1 X131.84 Y129.84 E332.33744
G0 F12000 X132.30 Y130.30
G1 F600 X172.70 Y130.30 E334.68545
G1 X172.70 Y174.70 E337.26596
G1 X132.30 Y174.70 E339.61397
G1 X132.30 Y130.30 E342.19448
G0 F12000 X132.77 Y130.77
G1 F600 X172.23 Y130.77 E344.48832
G1 X172.23 Y174.23 E347.01466
G1 X132.77 Y174.23 E349.30851
G1 X132.77 Y130.77 E351.83484
G0 F12000 X136.73 Y138.60
G1 F600 X136.04 Y139.17 E351.88695
G1 X135.47 Y139.86 E351.93877
G1 X135.31 Y140.17 E351.95907
G1 X135.63 Y140.17 E351.97814
G1 X135.63 Y144.43 E352.22609
G1 X135.20 Y144.43 E352.25102
G1 X135.47 Y144.93 E352.28384
G1 X136.04 Y145.62 E352.33566
G1 X136.73 Y146.19 E352.38776
G1 X137.51 Y146.61 E352.43943
G1 X138.37 Y146.87 E352.49154
G1 X139.26 Y146.96 E352.54352
G1 X140.15 Y146.87 E352.59544
G1 X141.01 Y146.61 E352.64761
G1 X141.79 Y146.19 E352.69927
G1 X142.49 Y145.62 E352.75134
G1 X143.05 Y144.93 E352.80346
G1 X143.47 Y144.14 E352.85529
G1 X143.73 Y143.29 E352.90719
G1 X143.82 Y142.40 E352.95924
G1 X143.73 Y141.50 E353.01128
G1 X143.47 Y140.65 E353.06319
G1 X143.05 Y139.86 E353.11501
G1 X142.49 Y139.17 E353.16713
G1 X141.79 Y138.60 E353.21920
G1 X141.01 Y138.18 E353.27087
G1 X140.15 Y137.92 E353.32303
G1 X139.26 Y137.83 E353.37495
G1 X138.37 Y137.92 E353.42694
G1 X137.51 Y138.18 E353.47904
G1 X136.73 Y138.60 E353.53071
G0 F12000 X136.99 Y138.99
G1 F600 X136.37 Y139.50 E353.57754
G1 X136.10 Y139.83 E353.60210
G1 X136.10 Y144.90 E353.89684
G1 X136.05 Y144.90 E353.89986
G1 X136.37 Y145.29 E353.92917
G1 X136.99 Y145.80 E353.97600
G1 X137.69 Y146.18 E354.02221
G1 X138.46 Y146.41 E354.06898
G1 X139.26 Y146.49 E354.11570
G1 X140.06 Y146.41 E354.16236
G1 X140.83 Y146.18 E354.20919
G1 X141.53 Y145.80 E354.25540
G1 X142.15 Y145.29 E354.30218
G1 X142.66 Y144.67 E354.34893
G1 X143.04 Y143.96 E354.39548
G1 X143.27 Y143.20 E354.44193
G1 X143.35 Y142.40 E354.48871
G1 X143.27 Y141.59 E354.53568
G1 X143.04 Y140.83 E354.58195
G1 X142.66 Y140.12 E354.62850
G1 X142.15 Y139.50 E354.67525
G1 X141.53 Y138.99 E354.72204
G1 X140.83 Y138.62 E354.76825
G1 X140.06 Y138.38 E354.81508
G1 X139.26 Y138.30 E354.86174
G1 X138.46 Y138.38 E354.90845
G1 X137.69 Y138.62 E354.95523
G1 X136.99 Y138.99 E355.00144
G0 F12000 X137.25 Y139.38
G1 F600 X136.70 Y139.83 E355.04293
G1 X136.56 Y140.00 E355.05520
G1 X136.56 Y144.79 E355.33407
G1 X136.70 Y144.96 E355.34633
G1 X137.25 Y145.41 E355.38783
G1 X137.87 Y145.74 E355.42868
G1 X138.56 Y145.95 E355.47041
G1 X139.26 Y146.02 E355.51153
G1 X139.97 Y145.95 E355.55265
G1 X140.65 Y145.74 E355.59431
G1 X141.27 Y145.41 E355.63521
G1 X141.82 Y144.96 E355.67687
G1 X142.27 Y144.41 E355.71788
G1 X142.61 Y143.78 E355.75935
G1 X142.81 Y143.10 E355.80063
G1 X142.89 Y142.40 E355.84187
G1 X142.81 Y141.69 E355.88311
G1 X142.61 Y141.01 E355.92439
G1 X142.27 Y140.38 E355.96587
G1 X141.82 Y139.84 E356.00687
G1 X141.27 Y139.38 E356.04853
G1 X140.65 Y139.05 E356.08944
G1 X139.97 Y138.84 E356.13110
G1 X139.26 Y138.77 E356.17222
G1 X138.56 Y138.84 E356.21333
G1 X137.87 Y139.05 E356.25507
G1 X137.25 Y139.38 E356.29592
G0 F12000 X137.51 Y139.77
G1 F600 X137.03 Y140.16 E356.33197
G1 X137.03 Y144.63 E356.59143
G1 X137.51 Y145.02 E356.62747
G1 X138.05 Y145.31 E356.66307
G1 X138.65 Y145.49 E356.69933
G1 X139.26 Y145.55 E356.73519
G1 X139.88 Y145.49 E356.77104
G1 X140.47 Y145.31 E356.80725
G1 X141.01 Y145.02 E356.84290
G1 X141.49 Y144.63 E356.87895
G1 X141.88 Y144.15 E356.91504
G1 X142.18 Y143.60 E356.95103
G1 X142.36 Y143.01 E356.98686
G1 X142.42 Y142.40 E357.02284
G1 X142.36 Y141.78 E357.05882
G1 X142.18 Y141.19 E357.09465
G1 X141.88 Y140.64 E357.13064
G1 X141.49 Y140.16 E357.16674
G1 X141.01 Y139.77 E357.20278
G1 X140.47 Y139.48 E357.23843
G1 X139.88 Y139.30 E357.27464
G1 X139.26 Y139.24 E357.31049
G1 X138.65 Y139.30 E357.34635
G1 X138.05 Y139.48 E357.38261
G1 X137.51 Y139.77 E357.41821
G0 F12000 X150.54 Y150.54
G1 F600 X150.20 Y150.97 E357.44988
G1 X149.95 Y151.44 E357.48106
G1 X149.79 Y151.96 E357.51276
G1 X149.73 Y152.50 E357.54424
G1 X149.79 Y153.04 E357.57573
G1 X149.95 Y153.56 E357.60743
G1 X150.20 Y154.03 E357.63860
G1 X150.54 Y154.46 E357.67028
G1 X150.97 Y154.80 E357.70195
G1 X151.44 Y155.05 E357.73313
G1 X151.96 Y155.21 E357.76482
G1 X152.50 Y155.27 E357.79631
G1 X153.04 Y155.21 E357.82779
G1 X153.56 Y155.05 E357.85949
G1 X154.03 Y154.80 E357.89067
G1 X154.46 Y154.46 E357.92234
G1 X154.80 Y154.03 E357.95402
G1 X155.05 Y153.56 E357.98519
G1 X155.21 Y153.04 E358.01689
G1 X155.27 Y152.50 E358.04838
G1 X155.21 Y151.96 E358.07986
G1 X155.05 Y151.44 E358.11156
G1 X154.80 Y150.97 E358.14274
G1 X154.46 Y150.54 E358.17441
G1 X154.03 Y150.20 E358.20608
G1 X153.56 Y149.95 E358.23726
G1 X153.04 Y149.79 E358.26896
G1 X152.50 Y149.74 E358.30044
G1 X151.96 Y149.79 E358.33192
G1 X151.44 Y149.95 E358.36362
G1 X150.97 Y150.20 E358.39480
G1 X150.54 Y150.54 E358.42647
G0 F12000 X149.55 Y149.55
;TYPE:WALL-INNER
G1 F600 X149.03 Y150.18 E358.47401
G1 X148.65 Y150.90 E358.52146
G1 X148.41 Y151.69 E358.56897
G1 X148.33 Y152.50 E358.61652
G1 X148.41 Y153.31 E358.66406
G1 X148.65 Y154.10 E358.71157
G1 X149.03 Y154.82 E358.75903
G1 X149.55 Y155.45 E358.80657
G1 X150.18 Y155.97 E358.85411
G1 X150.90 Y156.35 E358.90156
G1 X151.69 Y156.59 E358.94907
G1 X152.50 Y156.67 E358.99662
G1 X153.31 Y156.59 E359.04416
G1 X154.10 Y156.35 E359.09167
G1 X154.82 Y155.97 E359.13913
G1 X155.45 Y155.45 E359.18667
G1 X155.97 Y154.82 E359.23421
G1 X156.35 Y154.10 E359.28166
G1 X156.59 Y153.31 E359.32917
G1 X156.67 Y152.50 E359.37672
G1 X156.59 Y151.69 E359.42426
G1 X156.35 Y150.90 E359.47177
G1 X155.97 Y150.18 E359.51923
G1 X155.45 Y149.55 E359.56677
G1 X154.82 Y149.03 E359.61431
G1 X154.10 Y148.65 E359.66176
G1 X153.31 Y148.41 E359.70933
G1 X152.50 Y148.33 E359.75681
G1 X151.69 Y148.41 E359.80429
G1 X150.90 Y148.65 E359.85186
G1 X150.18 Y149.03 E359.89931
G1 X149.55 Y149.55 E359.94685
G0 F12000 X151.27 Y147.77
G1 F600 X151.53 Y147.98 E359.96638
G1 X151.82 Y148.14 E359.98549
G1 X152.16 Y148.24 E360.00590
G1 X152.52 Y148.27 E360.02739
G1 X152.88 Y148.23 E360.04794
G1 X153.20 Y148.12 E360.06790
G1 X153.51 Y147.96 E360.08817
G1 X153.77 Y147.73 E360.10833
G1 X153.98 Y147.47 E360.12769
G1 X154.13 Y147.18 E360.14681
G1 X154.24 Y146.84 E360.16722
G1 X154.27 Y146.48 E360.18864
G1 X154.23 Y146.12 E360.20931
G1 X154.13 Y145.80 E360.22896
G1 X153.97 Y145.51 E360.24855
G1 X153.73 Y145.23 E360.26954
G1 X153.47 Y145.02 E360.28906
G1 X153.18 Y144.87 E360.30818
G1 X152.84 Y144.76 E360.32888
G1 X152.48 Y144.73 E360.35001
G1 X152.13 Y144.77 E360.37036
G1 X151.80 Y144.88 E360.39058
G1 X151.49 Y145.04 E360.41085
G1 X151.23 Y145.27 E360.43101
G1 X151.02 Y145.53 E360.45037
G1 X150.87 Y145.82 E360.46948
G1 X150.76 Y146.16 E360.48995
G1 X150.73 Y146.53 E360.51143
G1 X150.77 Y146.88 E360.53199
G1 X150.87 Y147.20 E360.55164
G1 X151.03 Y147.49 E360.57122
G1 X151.27 Y147.77 E360.59222
G0 F12000 X145.96 Y151.49
G1 F600 X145.73 Y151.23 E360.61238
G1 X145.47 Y151.02 E360.63174
G1 X145.18 Y150.87 E360.65085
G1 X144.84 Y150.76 E360.67156
G1 X144.48 Y150.73 E360.69280
G1 X144.13 Y150.77 E360.71309
G1 X143.80 Y150.88 E360.73331
G1 X143.49 Y151.04 E360.75358
G1 X143.23 Y151.27 E360.77374
G1 X143.02 Y151.53 E360.79310
G1 X142.87 Y151.82 E360.81222
G1 X142.76 Y152.16 E360.83262
G1 X142.73 Y152.52 E360.85411
G1 X142.77 Y152.88 E360.87466
G1 X142.88 Y153.20 E360.89462
G1 X143.04 Y153.51 E360.91489
G1 X143.27 Y153.77 E360.93505
G1 X143.53 Y153.98 E360.95441
G1 X143.82 Y154.13 E360.97353
G1 X144.16 Y154.24 E360.99394
G1 X144.52 Y154.27 E361.01537
G1 X144.88 Y154.23 E361.03604
G1 X145.20 Y154.12 E361.05600
G1 X145.51 Y153.96 E361.07626
G1 X145.77 Y153.73 E361.09642
G1 X145.98 Y153.47 E361.11579
G1 X146.14 Y153.18 E361.13490
G1 X146.24 Y152.84 E361.15561
G1 X146.27 Y152.48 E361.17673
G1 X146.23 Y152.13 E361.19708
G1 X146.12 Y151.80 E361.21730
G1 X145.96 Y151.49 E361.23757
G0 F12000 X142.58 Y147.35
G1 F600 X143.48 Y146.61 E361.30553
G1 X144.22 Y145.71 E361.37338
G1 X144.77 Y144.68 E361.44143
G1 X145.11 Y143.56 E361.50943
G1 X145.23 Y142.40 E361.57736
G1 X145.11 Y141.23 E361.64529
G1 X144.77 Y140.11 E361.71329
G1 X144.22 Y139.08 E361.78134
G1 X143.48 Y138.18 E361.84919
G1 X142.58 Y137.44 E361.91716
G1 X141.54 Y136.88 E361.98518
G1 X140.42 Y136.54 E362.05319
G1 X139.26 Y136.43 E362.12112
G1 X138.10 Y136.54 E362.18910
G1 X136.98 Y136.88 E362.25708
G1 X135.95 Y137.44 E362.32507
G1 X135.04 Y138.18 E362.39300
G1 X134.30 Y139.08 E362.46093
G1 X134.16 Y139.33 E362.47768
G1 X134.16 Y132.16 E362.89435
G1 X170.84 Y132.16 E365.02569
G1 X170.84 Y172.84 E367.38952
G1 X134.16 Y172.84 E369.52085
G1 X134.16 Y145.46 E371.11218
G1 X134.30 Y145.71 E371.12900
G1 X135.04 Y146.61 E371.19685
G1 X135.95 Y147.35 E371.26478
G1 X136.98 Y147.91 E371.33278
G1 X138.10 Y148.25 E371.40075
G1 X139.26 Y148.36 E371.46874
G1 X140.42 Y148.25 E371.53666
G1 X141.54 Y147.91 E371.60467
G1 X142.58 Y147.35 E371.67270
G0 F12000 X151.23 Y157.27
G1 F600 X151.02 Y157.53 E371.69222
G1 X150.87 Y157.82 E371.71134
G1 X150.76 Y158.16 E371.73180
G1 X150.73 Y158.52 E371.75329
G1 X150.77 Y158.88 E371.77384
G1 X150.88 Y159.20 E371.79380
G1 X151.04 Y159.51 E371.81407
G1 X151.27 Y159.77 E371.83423
G1 X151.53 Y159.98 E371.85359
G1 X151.82 Y160.13 E371.87271
G1 X152.16 Y160.24 E371.89312
G1 X152.52 Y160.27 E371.91460
G1 X152.88 Y160.23 E371.93516
G1 X153.20 Y160.12 E371.95512
G1 X153.50 Y159.96 E371.97471
G1 X153.76 Y159.75 E371.99420
G1 X153.98 Y159.47 E372.01487
G1 X154.14 Y159.16 E372.03499
G1 X154.24 Y158.85 E372.05431
G1 X154.27 Y158.48 E372.07586
G1 X154.23 Y158.12 E372.09653
G1 X154.12 Y157.80 E372.11649
G1 X153.96 Y157.49 E372.13676
G1 X153.73 Y157.23 E372.15692
G1 X153.47 Y157.02 E372.17628
G1 X153.18 Y156.86 E372.19540
G1 X152.84 Y156.76 E372.21610
G1 X152.48 Y156.73 E372.23722
G1 X152.13 Y156.77 E372.25758
G1 X151.80 Y156.87 E372.27748
G1 X151.51 Y157.03 E372.29707
G1 X151.23 Y157.27 E372.31806
G0 F12000 X158.88 Y153.20
G1 F600 X159.04 Y153.51 E372.33833
G1 X159.27 Y153.77 E372.35849
G1 X159.53 Y153.98 E372.37785
G1 X159.82 Y154.13 E372.39697
G1 X160.16 Y154.24 E372.41743
G1 X160.52 Y154.27 E372.43892
G1 X160.88 Y154.23 E372.45947
G1 X161.20 Y154.12 E372.47943
G1 X161.51 Y153.96 E372.49970
G1 X161.77 Y153.73 E372.51986
G1 X161.98 Y153.47 E372.53922
G1 X162.13 Y153.18 E372.55834
G1 X162.24 Y152.84 E372.57875
G1 X162.27 Y152.48 E372.60023
G1 X162.23 Y152.12 E372.62078
G1 X162.12 Y151.80 E372.64075
G1 X161.96 Y151.49 E372.66101
G1 X161.73 Y151.23 E372.68117
G1 X161.47 Y151.02 E372.70054
G1 X161.18 Y150.87 E372.71965
G1 X160.84 Y150.76 E372.74036
G1 X160.48 Y150.73 E372.76148
G1 X160.13 Y150.77 E372.78183
G1 X159.80 Y150.88 E372.80210
G1 X159.49 Y151.04 E372.82237
G1 X159.23 Y151.27 E372.84253
G1 X159.02 Y151.53 E372.86189
G1 X158.86 Y151.82 E372.88101
G1 X158.76 Y152.16 E372.90171
G1 X158.73 Y152.52 E372.92284
G1 X158.77 Y152.87 E372.94319
G1 X158.88 Y153.20 E372.96341
G0 F12000 X163.59 Y163.96
G1 F600 X162.96 Y164.30 E373.00522
G1 X162.40 Y164.76 E373.04706
G1 X161.95 Y165.32 E373.08890
G1 X161.61 Y165.95 E373.13071
G1 X161.40 Y166.64 E373.17255
G1 X161.33 Y167.36 E373.21436
G1 X161.40 Y168.07 E373.25618
G1 X161.61 Y168.76 E373.29802
G1 X161.95 Y169.40 E373.33983
G1 X162.40 Y169.95 E373.38167
G1 X162.96 Y170.41 E373.42351
G1 X163.59 Y170.75 E373.46532
G1 X164.28 Y170.96 E373.50715
G1 X165.00 Y171.03 E373.54897
G1 X165.72 Y170.96 E373.59073
G1 X166.40 Y170.75 E373.63257
G1 X167.04 Y170.41 E373.67438
G1 X167.59 Y169.95 E373.71622
G1 X168.05 Y169.40 E373.75806
G1 X168.39 Y168.76 E373.79987
G1 X168.60 Y168.07 E373.84165
G1 X168.67 Y167.36 E373.88353
G1 X168.60 Y166.64 E373.92541
G1 X168.39 Y165.95 E373.96719
G1 X168.05 Y165.32 E374.00900
G1 X167.59 Y164.76 E374.05084
G1 X167.04 Y164.30 E374.09268
G1 X166.40 Y163.96 E374.13449
G1 X165.72 Y163.76 E374.17633
G1 X165.00 Y163.69 E374.21815
G1 X164.28 Y163.76 E374.25991
G1 X163.59 Y163.96 E374.30174
G0 F12000 X143.60 Y166.64
G1 F600 X143.39 Y165.95 E374.34357
G1 X143.05 Y165.32 E374.38538
G1 X142.60 Y164.76 E374.42722
G1 X142.04 Y164.30 E374.46906
G1 X141.41 Y163.96 E374.51088
G1 X140.72 Y163.76 E374.55271
G1 X140.00 Y163.69 E374.59453
G1 X139.28 Y163.76 E374.63629
G1 X138.60 Y163.96 E374.67812
G1 X137.96 Y164.30 E374.71993
G1 X137.41 Y164.76 E374.76177
G1 X136.95 Y165.32 E374.80361
G1 X136.61 Y165.95 E374.84542
G1 X136.40 Y166.64 E374.88720
G1 X136.33 Y167.36 E374.92908
G1 X136.40 Y168.07 E374.97097
G1 X136.61 Y168.76 E375.01274
G1 X136.95 Y169.40 E375.05456
G1 X137.41 Y169.95 E375.09640
G1 X137.96 Y170.41 E375.13823
G1 X138.60 Y170.75 E375.18005
G1 X139.28 Y170.96 E375.22188
G1 X140.00 Y171.03 E375.26364
G1 X140.72 Y170.96 E375.30546
G1 X141.41 Y170.75 E375.34729
G1 X142.04 Y170.41 E375.38911
G1 X142.60 Y169.95 E375.43094
G1 X143.05 Y169.40 E375.47278
G1 X143.39 Y168.76 E375.51460
G1 X143.60 Y168.07 E375.55643
G1 X143.67 Y167.36 E375.59825
G1 X143.60 Y166.64 E375.64007
G0 F12000 X143.14 Y166.73
G1 F600 X142.96 Y166.13 E375.67657
G1 X142.66 Y165.58 E375.71302
G1 X142.26 Y165.09 E375.74953
G1 X141.78 Y164.69 E375.78604
G1 X141.23 Y164.40 E375.82250
G1 X140.62 Y164.22 E375.85900
G1 X140.00 Y164.15 E375.89550
G1 X139.38 Y164.22 E375.93194
G1 X138.78 Y164.40 E375.96844
G1 X138.22 Y164.69 E376.00489
G1 X137.74 Y165.09 E376.04140
G1 X137.34 Y165.58 E376.07791
G1 X137.04 Y166.13 E376.11437
G1 X136.86 Y166.73 E376.15087
G1 X136.80 Y167.36 E376.18738
G1 X136.86 Y167.98 E376.22389
G1 X137.04 Y168.58 E376.26039
G1 X137.34 Y169.13 E376.29684
G1 X137.74 Y169.62 E376.33335
G1 X138.22 Y170.02 E376.36986
G1 X138.78 Y170.31 E376.40632
G1 X139.38 Y170.50 E376.44282
G1 X140.00 Y170.56 E376.47926
G1 X140.62 Y170.50 E376.51576
G1 X141.23 Y170.31 E376.55226
G1 X141.78 Y170.02 E376.58871
G1 X142.26 Y169.62 E376.62522
G1 X142.66 Y169.13 E376.66173
G1 X142.96 Y168.58 E376.69819
G1 X143.14 Y167.98 E376.73469
G1 X143.20 Y167.36 E376.77119
G1 X143.14 Y166.73 E376.80769
G0 F12000 X151.59 Y159.43
G1 F600 X151.79 Y159.59 E376.82204
G1 X152.00 Y159.70 E376.83603
G1 X152.25 Y159.78 E376.85103
G1 X152.52 Y159.80 E376.86685
G1 X152.78 Y159.77 E376.88190
G1 X153.02 Y159.69 E376.89660
G1 X153.23 Y159.57 E376.91110
G1 X153.42 Y159.42 E376.92530
G1 X153.59 Y159.22 E376.94052
G1 X153.71 Y158.99 E376.95546
G1 X153.78 Y158.75 E376.96962
G1 X153.80 Y158.48 E376.98544
G1 X153.77 Y158.22 E377.00061
G1 X153.69 Y157.98 E377.01531
G1 X153.57 Y157.76 E377.03022
G1 X153.41 Y157.56 E377.04502
G1 X153.21 Y157.41 E377.05937
G1 X153.00 Y157.30 E377.07336
G1 X152.75 Y157.22 E377.08855
G1 X152.48 Y157.20 E377.10419
G1 X152.23 Y157.23 E377.11904
G1 X151.99 Y157.30 E377.13374
G1 X151.77 Y157.42 E377.14805
G1 X151.57 Y157.59 E377.16356
G1 X151.41 Y157.79 E377.17799
G1 X151.30 Y158.00 E377.19198
G1 X151.22 Y158.25 E377.20698
G1 X151.20 Y158.52 E377.22286
G1 X151.23 Y158.78 E377.23791
G1 X151.31 Y159.02 E377.25262
G1 X151.43 Y159.24 E377.26752
G1 X151.59 Y159.43 E377.28233
G0 F12000 X151.26 Y158.25
G0 X151.78 Y156.13
G1 F600 X152.50 Y156.20 E377.32449
G1 X153.22 Y156.13 E377.36666
G1 X153.92 Y155.92 E377.40888
G1 X154.56 Y155.58 E377.45100
G1 X155.12 Y155.12 E377.49321
G1 X155.58 Y154.56 E377.53542
G1 X155.92 Y153.92 E377.57755
G1 X156.13 Y153.22 E377.61976
G1 X156.20 Y152.50 E377.66193
G1 X156.13 Y151.78 E377.70410
G1 X155.92 Y151.08 E377.74631
G1 X155.58 Y150.44 E377.78844
G1 X155.12 Y149.88 E377.83065
G1 X154.56 Y149.42 E377.87286
G1 X153.92 Y149.08 E377.91498
G1 X153.22 Y148.87 E377.95720
G1 X152.50 Y148.80 E377.99936
G1 X151.78 Y148.87 E378.04152
G1 X151.08 Y149.08 E378.08374
G1 X150.44 Y149.42 E378.12586
G1 X149.88 Y149.88 E378.16807
G1 X149.42 Y150.44 E378.21029
G1 X149.08 Y151.08 E378.25241
G1 X148.87 Y151.78 E378.29463
G1 X148.80 Y152.50 E378.33679
G1 X148.87 Y153.22 E378.37896
G1 X149.08 Y153.92 E378.42117
G1 X149.42 Y154.56 E378.46330
G1 X149.88 Y155.12 E378.50551
G1 X150.44 Y155.58 E378.54772
G1 X151.08 Y155.92 E378.58985
G1 X151.78 Y156.13 E378.63206
G0 F12000 X145.70 Y153.00
G1 F600 X145.78 Y152.75 E378.64725
G1 X145.80 Y152.48 E378.66288
G1 X145.77 Y152.23 E378.67774
G1 X145.70 Y151.98 E378.69262
G1 X145.57 Y151.76 E378.70753
G1 X145.41 Y151.57 E378.72234
G1 X145.21 Y151.41 E378.73669
G1 X145.00 Y151.30 E378.75068
G1 X144.75 Y151.22 E378.76586
G1 X144.48 Y151.20 E378.78156
G1 X144.23 Y151.23 E378.79641
G1 X143.98 Y151.31 E378.81130
G1 X143.76 Y151.43 E378.82621
G1 X143.57 Y151.59 E378.84101
G1 X143.41 Y151.79 E378.85536
G1 X143.30 Y152.00 E378.86935
G1 X143.22 Y152.25 E378.88435
G1 X143.20 Y152.52 E378.90018
G1 X143.23 Y152.78 E378.91522
G1 X143.31 Y153.02 E378.92993
G1 X143.43 Y153.24 E378.94484
G1 X143.59 Y153.43 E378.95964
G1 X143.79 Y153.59 E378.97399
G1 X144.00 Y153.70 E378.98798
G1 X144.25 Y153.78 E379.00298
G1 X144.52 Y153.80 E379.01875
G1 X144.78 Y153.77 E379.03391
G1 X145.02 Y153.69 E379.04862
G1 X145.24 Y153.57 E379.06353
G1 X145.44 Y153.41 E379.07833
G1 X145.59 Y153.21 E379.09268
G1 X145.70 Y153.00 E379.10667
G0 F12000 X145.54 Y151.78
G0 X142.31 Y146.97
G1 F600 X143.15 Y146.28 E379.16935
G1 X143.83 Y145.45 E379.23192
G1 X144.34 Y144.50 E379.29456
G1 X144.65 Y143.47 E379.35722
G1 X144.76 Y142.40 E379.41983
G1 X144.65 Y141.32 E379.48244
G1 X144.34 Y140.29 E379.54511
G1 X143.83 Y139.34 E379.60775
G1 X143.15 Y138.51 E379.67031
G1 X142.31 Y137.82 E379.73300
G1 X141.37 Y137.32 E379.79561
G1 X140.33 Y137.00 E379.85829
G1 X139.26 Y136.90 E379.92090
G1 X138.19 Y137.00 E379.98356
G1 X137.16 Y137.32 E380.04618
G1 X136.21 Y137.82 E380.10880
G1 X135.37 Y138.51 E380.17145
G1 X134.69 Y139.34 E380.23409
G1 X134.25 Y140.16 E380.28794
G1 X134.18 Y140.29 E380.29653
G1 X133.91 Y141.18 E380.35064
G1 X133.87 Y141.32 E380.35928
G1 X133.78 Y142.25 E380.41359
G1 X133.76 Y142.39 E380.42183
G1 X133.85 Y143.32 E380.47632
G1 X133.87 Y143.47 E380.48474
G1 X134.14 Y144.36 E380.53879
G1 X134.18 Y144.50 E380.54723
G1 X134.62 Y145.32 E380.60153
G1 X134.69 Y145.45 E380.60998
G1 X135.37 Y146.28 E380.67254
G1 X136.21 Y146.97 E380.73519
G1 X137.16 Y147.47 E380.79780
G1 X138.19 Y147.79 E380.86043
G1 X139.26 Y147.89 E380.92309
G1 X140.33 Y147.79 E380.98570
G1 X141.37 Y147.47 E381.04838
G1 X142.31 Y146.97 E381.11099
G0 F12000 X151.20 Y146.52
G1 F600 X151.23 Y146.78 E381.12604
G1 X151.30 Y147.01 E381.14056
G1 X151.42 Y147.23 E381.15486
G1 X151.59 Y147.43 E381.17037
G1 X151.79 Y147.59 E381.18481
G1 X152.00 Y147.70 E381.19880
G1 X152.25 Y147.78 E381.21380
G1 X152.52 Y147.80 E381.22962
G1 X152.78 Y147.77 E381.24467
G1 X153.02 Y147.70 E381.25937
G1 X153.24 Y147.57 E381.27428
G1 X153.43 Y147.41 E381.28908
G1 X153.59 Y147.21 E381.30344
G1 X153.70 Y147.00 E381.31743
G1 X153.78 Y146.75 E381.33243
G1 X153.80 Y146.48 E381.34820
G1 X153.77 Y146.22 E381.36336
G1 X153.70 Y145.99 E381.37788
G1 X153.58 Y145.77 E381.39218
G1 X153.41 Y145.57 E381.40769
G1 X153.21 Y145.41 E381.42212
G1 X153.00 Y145.30 E381.43612
G1 X152.75 Y145.22 E381.45130
G1 X152.48 Y145.20 E381.46694
G1 X152.23 Y145.23 E381.48179
G1 X151.98 Y145.31 E381.49668
G1 X151.76 Y145.43 E381.51159
G1 X151.57 Y145.59 E381.52639
G1 X151.41 Y145.79 E381.54074
G1 X151.30 Y146.00 E381.55473
G1 X151.22 Y146.25 E381.56973
G1 X151.20 Y146.52 E381.58562
G0 F12000 X152.01 Y147.67
G0 X159.41 Y151.79
G1 F600 X159.30 Y152.00 E381.59961
G1 X159.22 Y152.25 E381.61479
G1 X159.20 Y152.52 E381.63043
G1 X159.23 Y152.77 E381.64528
G1 X159.30 Y153.02 E381.66017
G1 X159.43 Y153.24 E381.67508
G1 X159.59 Y153.43 E381.68988
G1 X159.79 Y153.59 E381.70423
G1 X160.00 Y153.70 E381.71822
G1 X160.25 Y153.78 E381.73322
G1 X160.52 Y153.80 E381.74911
G1 X160.78 Y153.77 E381.76415
G1 X161.02 Y153.69 E381.77886
G1 X161.24 Y153.57 E381.79377
G1 X161.43 Y153.41 E381.80857
G1 X161.59 Y153.21 E381.82292
G1 X161.70 Y153.00 E381.83691
G1 X161.78 Y152.75 E381.85191
G1 X161.80 Y152.48 E381.86774
G1 X161.77 Y152.22 E381.88278
G1 X161.69 Y151.98 E381.89749
G1 X161.57 Y151.76 E381.91240
G1 X161.41 Y151.57 E381.92720
G1 X161.21 Y151.41 E381.94155
G1 X161.00 Y151.30 E381.95554
G1 X160.75 Y151.22 E381.97073
G1 X160.48 Y151.20 E381.98630
G1 X160.23 Y151.23 E382.00127
G1 X159.98 Y151.31 E382.01616
G1 X159.76 Y151.43 E382.03107
G1 X159.56 Y151.59 E382.04587
G1 X159.41 Y151.79 E382.06022
G0 F12000 X159.34 Y153.00
G0 X163.77 Y164.40
G1 F600 X163.22 Y164.69 E382.09668
G1 X162.74 Y165.09 E382.13319
G1 X162.34 Y165.58 E382.16970
G1 X162.04 Y166.13 E382.20616
G1 X161.86 Y166.73 E382.24265
G1 X161.80 Y167.36 E382.27915
G1 X161.86 Y167.98 E382.31565
G1 X162.04 Y168.58 E382.35215
G1 X162.34 Y169.13 E382.38861
G1 X162.74 Y169.62 E382.42512
G1 X163.22 Y170.02 E382.46163
G1 X163.77 Y170.31 E382.49808
G1 X164.38 Y170.50 E382.53458
G1 X165.00 Y170.56 E382.57108
G1 X165.62 Y170.50 E382.60752
G1 X166.22 Y170.31 E382.64402
G1 X166.78 Y170.02 E382.68048
G1 X167.26 Y169.62 E382.71699
G1 X167.66 Y169.13 E382.75350
G1 X167.96 Y168.58 E382.78995
G1 X168.14 Y167.98 E382.82645
G1 X168.20 Y167.36 E382.86296
G1 X168.14 Y166.73 E382.89947
G1 X167.96 Y166.13 E382.93597
G1 X167.66 Y165.58 E382.97243
G1 X167.26 Y165.09 E383.00894
G1 X166.78 Y164.69 E383.04545
G1 X166.22 Y164.40 E383.08190
G1 X165.62 Y164.22 E383.11840
G1 X165.00 Y164.15 E383.15490
G1 X164.38 Y164.22 E383.19134
G1 X163.77 Y164.40 E383.22784
G0 F12000 X165.62 Y164.25
G0 X167.24 Y165.12
G0 X168.11 Y166.74
G0 X167.93 Y168.57
G0 X171.30 Y173.30
G1 F600 X133.70 Y173.30 E385.41335
G1 X133.70 Y131.70 E387.83134
G1 X171.30 Y131.70 E390.01685
G1 X171.30 Y173.30 E392.43484
G0 F12000 X171.77 Y173.77
;TYPE:WALL-OUTER
G1 F600 X133.23 Y173.77 E394.67452
G1 X133.23 Y131.23 E397.14668
G1 X171.77 Y131.23 E399.38636
G1 X171.77 Y173.77 E401.85853
G0 F12000 X171.43 Y173.52
G0 X167.14 Y169.55
G0 X166.93 Y169.29
G1 F600 X167.27 Y168.88 E401.88971
G1 X167.53 Y168.40 E401.92081
G1 X167.68 Y167.89 E401.95197
G1 X167.73 Y167.36 E401.98316
G1 X167.68 Y166.82 E402.01435
G1 X167.53 Y166.31 E402.04552
G1 X167.27 Y165.84 E402.07661
G1 X166.93 Y165.42 E402.10780
G1 X166.52 Y165.08 E402.13898
G1 X166.05 Y164.83 E402.17008
G1 X165.53 Y164.67 E402.20124
G1 X165.00 Y164.62 E402.23243
G1 X164.47 Y164.67 E402.26355
G1 X163.95 Y164.83 E402.29472
G1 X163.48 Y165.08 E402.32582
G1 X163.07 Y165.42 E402.35700
G1 X162.73 Y165.84 E402.38818
G1 X162.47 Y166.31 E402.41928
G1 X162.32 Y166.82 E402.45044
G1 X162.27 Y167.36 E402.48163
G1 X162.32 Y167.89 E402.51281
G1 X162.47 Y168.40 E402.54398
G1 X162.73 Y168.88 E402.57508
G1 X163.07 Y169.29 E402.60626
G1 X163.48 Y169.63 E402.63744
G1 X163.95 Y169.88 E402.66854
G1 X164.47 Y170.04 E402.69970
G1 X165.00 Y170.09 E402.73089
G1 X165.53 Y170.04 E402.76201
G1 X166.05 Y169.88 E402.79318
G1 X166.52 Y169.63 E402.82428
G1 X166.93 Y169.29 E402.85546
G0 F12000 X167.14 Y169.55
G0 X168.11 Y167.97
G0 X167.93 Y166.14
G0 X166.76 Y164.72
G0 X160.93 Y153.58
G0 X160.83 Y153.26
G1 F600 X160.97 Y153.19 E402.86498
G1 X161.10 Y153.08 E402.87443
G1 X161.20 Y152.95 E402.88378
G1 X161.27 Y152.82 E402.89270
G1 X161.32 Y152.66 E402.90224
G1 X161.33 Y152.49 E402.91239
G1 X161.31 Y152.32 E402.92193
G1 X161.26 Y152.17 E402.93140
G1 X161.19 Y152.03 E402.94092
G1 X161.08 Y151.90 E402.95037
G1 X160.95 Y151.80 E402.95972
G1 X160.82 Y151.73 E402.96864
G1 X160.66 Y151.68 E402.97823
G1 X160.49 Y151.67 E402.98833
G1 X160.32 Y151.69 E402.99786
G1 X160.17 Y151.74 E403.00738
G1 X160.03 Y151.81 E403.01690
G1 X159.90 Y151.92 E403.02635
G1 X159.80 Y152.05 E403.03570
G1 X159.73 Y152.18 E403.04462
G1 X159.68 Y152.34 E403.05421
G1 X159.67 Y152.51 E403.06431
G1 X159.68 Y152.67 E403.07378
G1 X159.73 Y152.83 E403.08330
G1 X159.81 Y152.97 E403.09283
G1 X159.92 Y153.10 E403.10227
G1 X160.04 Y153.20 E403.11162
G1 X160.18 Y153.27 E403.12054
G1 X160.34 Y153.32 E403.13008
G1 X160.51 Y153.33 E403.14030
G1 X160.68 Y153.31 E403.14983
G1 X160.83 Y153.26 E403.15930
G0 F12000 X160.93 Y153.58
G0 X159.81 Y153.56
G0 X156.06 Y152.53
G0 X155.73 Y152.50
G1 F600 X155.67 Y151.87 E403.19615
G1 X155.49 Y151.26 E403.23303
G1 X155.19 Y150.70 E403.26980
G1 X154.79 Y150.21 E403.30668
G1 X154.30 Y149.81 E403.34357
G1 X153.74 Y149.51 E403.38033
G1 X153.13 Y149.33 E403.41722
G1 X152.50 Y149.27 E403.45406
G1 X151.87 Y149.33 E403.49091
G1 X151.26 Y149.51 E403.52779
G1 X150.70 Y149.81 E403.56456
G1 X150.21 Y150.21 E403.60144
G1 X149.81 Y150.70 E403.63832
G1 X149.51 Y151.26 E403.67509
G1 X149.33 Y151.87 E403.71197
G1 X149.27 Y152.50 E403.74882
G1 X149.33 Y153.13 E403.78568
G1 X149.51 Y153.74 E403.82256
G1 X149.81 Y154.30 E403.85933
G1 X150.21 Y154.79 E403.89621
G1 X150.70 Y155.19 E403.93309
G1 X151.26 Y155.49 E403.96986
G1 X151.87 Y155.67 E404.00674
G1 X152.50 Y155.73 E404.04359
G1 X153.13 Y155.67 E404.08044
G1 X153.74 Y155.49 E404.11733
G1 X154.30 Y155.19 E404.15409
G1 X154.79 Y154.79 E404.19098
G1 X155.19 Y154.30 E404.22786
G1 X155.49 Y153.74 E404.26463
G1 X155.67 Y153.13 E404.30151
G1 X155.73 Y152.50 E404.33836
G0 F12000 X156.06 Y152.53
G0 X155.89 Y153.90
G0 X154.54 Y155.55
G0 X153.11 Y157.51
G0 X152.95 Y157.80
G1 F600 X152.82 Y157.73 E404.34728
G1 X152.66 Y157.68 E404.35688
G1 X152.49 Y157.67 E404.36697
G1 X152.33 Y157.68 E404.37645
G1 X152.17 Y157.73 E404.38591
G1 X152.03 Y157.81 E404.39491
G1 X151.90 Y157.92 E404.40493
G1 X151.80 Y158.04 E404.41428
G1 X151.73 Y158.18 E404.42320
G1 X151.68 Y158.34 E404.43275
G1 X151.67 Y158.51 E404.44296
G1 X151.69 Y158.68 E404.45250
G1 X151.74 Y158.83 E404.46196
G1 X151.81 Y158.97 E404.47149
G1 X151.92 Y159.10 E404.48093
G1 X152.05 Y159.20 E404.49028
G1 X152.18 Y159.27 E404.49920
G1 X152.34 Y159.32 E404.50874
G1 X152.51 Y159.33 E404.51890
G1 X152.68 Y159.31 E404.52844
G1 X152.83 Y159.26 E404.53790
G1 X152.97 Y159.19 E404.54727
G1 X153.09 Y159.09 E404.55623
G1 X153.19 Y158.96 E404.56594
G1 X153.27 Y158.81 E404.57572
G1 X153.32 Y158.66 E404.58465
G1 X153.33 Y158.49 E404.59487
G1 X153.31 Y158.32 E404.60446
G1 X153.26 Y158.17 E404.61393
G1 X153.19 Y158.03 E404.62345
G1 X153.08 Y157.90 E404.63290
G1 X152.95 Y157.80 E404.64224
G0 F12000 X153.11 Y157.51
G0 X145.49 Y153.11
G0 X145.20 Y152.95
G1 F600 X145.27 Y152.82 E404.65117
G1 X145.32 Y152.66 E404.66076
G1 X145.33 Y152.49 E404.67086
G1 X145.32 Y152.33 E404.68033
G1 X145.27 Y152.17 E404.68985
G1 X145.19 Y152.03 E404.69937
G1 X145.08 Y151.90 E404.70882
G1 X144.96 Y151.80 E404.71817
G1 X144.82 Y151.73 E404.72709
G1 X144.66 Y151.68 E404.73669
G1 X144.49 Y151.67 E404.74684
G1 X144.33 Y151.69 E404.75631
G1 X144.17 Y151.74 E404.76583
G1 X144.03 Y151.81 E404.77536
G1 X143.90 Y151.92 E404.78480
G1 X143.80 Y152.05 E404.79415
G1 X143.73 Y152.18 E404.80307
G1 X143.68 Y152.34 E404.81261
G1 X143.67 Y152.51 E404.82277
G1 X143.69 Y152.68 E404.83231
G1 X143.74 Y152.83 E404.84177
G1 X143.81 Y152.97 E404.85129
G1 X143.92 Y153.10 E404.86074
G1 X144.05 Y153.20 E404.87009
G1 X144.18 Y153.27 E404.87901
G1 X144.34 Y153.32 E404.88855
G1 X144.51 Y153.33 E404.89871
G1 X144.68 Y153.31 E404.90830
G1 X144.83 Y153.26 E404.91777
G1 X144.97 Y153.19 E404.92729
G1 X145.10 Y153.08 E404.93674
G1 X145.20 Y152.95 E404.94609
G0 F12000 X145.49 Y153.11
G0 X145.66 Y152.00
G0 X144.74 Y151.26
G0 X142.21 Y146.87
G0 X142.06 Y146.58
G1 F600 X142.82 Y145.95 E405.00344
G1 X143.44 Y145.19 E405.06068
G1 X143.91 Y144.32 E405.11796
G1 X144.19 Y143.38 E405.17529
G1 X144.29 Y142.40 E405.23259
G1 X144.19 Y141.41 E405.28988
G1 X143.91 Y140.47 E405.34721
G1 X143.44 Y139.60 E405.40450
G1 X142.82 Y138.84 E405.46173
G1 X142.06 Y138.21 E405.51909
G1 X141.19 Y137.75 E405.57635
G1 X140.24 Y137.46 E405.63369
G1 X139.26 Y137.37 E405.69098
G1 X138.28 Y137.46 E405.74833
G1 X137.34 Y137.75 E405.80562
G1 X136.47 Y138.21 E405.86288
G1 X135.71 Y138.84 E405.92020
G1 X135.08 Y139.60 E405.97751
G1 X134.66 Y140.38 E406.02892
G1 X134.62 Y140.47 E406.03472
G1 X134.36 Y141.32 E406.08620
G1 X134.33 Y141.41 E406.09212
G1 X134.24 Y142.29 E406.14357
G1 X134.23 Y142.39 E406.14936
G1 X134.32 Y143.28 E406.20098
G1 X134.33 Y143.38 E406.20671
G1 X134.62 Y144.32 E406.26404
G1 X135.08 Y145.19 E406.32130
G1 X135.71 Y145.95 E406.37862
G1 X136.47 Y146.58 E406.43593
G1 X137.34 Y147.04 E406.49319
G1 X138.28 Y147.33 E406.55048
G1 X139.26 Y147.42 E406.60783
G1 X140.24 Y147.33 E406.66512
G1 X141.19 Y147.04 E406.72247
G1 X142.06 Y146.58 E406.77972
G0 F12000 X142.21 Y146.87
G0 X151.33 Y146.48
G0 X151.67 Y146.51
G1 F600 X151.69 Y146.68 E406.78926
G1 X151.74 Y146.83 E406.79867
G1 X151.81 Y146.97 E406.80767
G1 X151.92 Y147.10 E406.81770
G1 X152.05 Y147.20 E406.82705
G1 X152.18 Y147.27 E406.83597
G1 X152.34 Y147.32 E406.84551
G1 X152.51 Y147.34 E406.85566
G1 X152.68 Y147.32 E406.86520
G1 X152.83 Y147.27 E406.87467
G1 X152.97 Y147.19 E406.88419
G1 X153.10 Y147.08 E406.89364
G1 X153.20 Y146.96 E406.90298
G1 X153.27 Y146.82 E406.91190
G1 X153.32 Y146.66 E406.92145
G1 X153.33 Y146.49 E406.93160
G1 X153.31 Y146.32 E406.94120
G1 X153.26 Y146.17 E406.95061
G1 X153.19 Y146.03 E406.95961
G1 X153.08 Y145.90 E406.96963
G1 X152.95 Y145.80 E406.97898
G1 X152.82 Y145.73 E406.98790
G1 X152.66 Y145.68 E406.99750
G1 X152.49 Y145.67 E407.00759
G1 X152.33 Y145.69 E407.01707
G1 X152.17 Y145.74 E407.02659
G1 X152.03 Y145.81 E407.03611
G1 X151.90 Y145.92 E407.04556
G1 X151.80 Y146.05 E407.05490
G1 X151.73 Y146.18 E407.06383
G1 X151.68 Y146.34 E407.07337
G1 X151.67 Y146.51 E407.08358
G0 F12000 X151.33 Y146.48
G0 X141.68 Y164.79
G0 X141.52 Y165.08
G1 F600 X141.05 Y164.83 E407.11468
G1 X140.53 Y164.67 E407.14584
G1 X140.00 Y164.62 E407.17703
G1 X139.47 Y164.67 E407.20815
G1 X138.95 Y164.83 E407.23932
G1 X138.48 Y165.08 E407.27042
G1 X138.07 Y165.42 E407.30160
G1 X137.73 Y165.84 E407.33278
G1 X137.47 Y166.31 E407.36388
G1 X137.32 Y166.82 E407.39505
G1 X137.27 Y167.36 E407.42624
G1 X137.32 Y167.89 E407.45743
G1 X137.47 Y168.40 E407.48859
G1 X137.73 Y168.88 E407.51969
G1 X138.07 Y169.29 E407.55087
G1 X138.48 Y169.63 E407.58205
G1 X138.95 Y169.88 E407.61315
G1 X139.47 Y170.04 E407.64432
G1 X140.00 Y170.09 E407.67544
G1 X140.53 Y170.04 E407.70663
G1 X141.05 Y169.88 E407.73779
G1 X141.52 Y169.63 E407.76889
G1 X141.93 Y169.29 E407.80007
G1 X142.27 Y168.88 E407.83125
G1 X142.53 Y168.40 E407.86235
G1 X142.68 Y167.89 E407.89352
G1 X142.73 Y167.36 E407.92470
G1 X142.68 Y166.82 E407.95589
G1 X142.53 Y166.31 E407.98705
G1 X142.27 Y165.84 E408.01815
G1 X141.93 Y165.42 E408.04933
G1 X141.52 Y165.08 E408.08051
G0 F12000 X142.04 Y164.12
;TYPE:FILL
G1 F600 X134.33 Y156.41 E408.71434
G0 F12000 X134.33 Y157.06
G1 F600 X140.90 Y163.64 E409.25474
G0 F12000 X140.14 Y163.53
G1 F600 X134.33 Y157.72 E409.73218
G0 F12000 X134.33 Y158.38
G1 F600 X139.51 Y163.57 E410.15829
G0 F12000 X138.97 Y163.68
G1 F600 X134.33 Y159.04 E410.53944
G0 F12000 X134.33 Y159.70
G1 F600 X138.47 Y163.84 E410.87990
G0 F12000 X138.04 Y164.07
G1 F600 X134.33 Y160.36 E411.18510
G0 F12000 X134.33 Y161.02
G1 F600 X137.65 Y164.34 E411.45832
G0 F12000 X137.29 Y164.64
G1 F600 X134.33 Y161.68 E411.70170
G0 F12000 X134.33 Y162.34
G1 F600 X136.99 Y165.00 E411.92076
G0 F12000 X136.72 Y165.39
G1 F600 X134.33 Y163.00 E412.11754
G0 F12000 X134.33 Y163.66
G1 F600 X136.49 Y165.82 E412.29545
G0 F12000 X136.33 Y166.31
G1 F600 X134.33 Y164.31 E412.45977
G0 F12000 X134.33 Y164.97
G1 F600 X136.21 Y166.86 E412.61475
G0 F12000 X136.18 Y167.48
G1 F600 X134.33 Y165.63 E412.76669
G0 F12000 X134.33 Y166.29
G1 F600 X136.28 Y168.24 E412.92718
G0 F12000 X136.75 Y169.37
G1 F600 X134.33 Y166.95 E413.12643
G0 F12000 X134.33 Y167.61
G1 F600 X139.39 Y172.67 E413.54234
G0 F12000 X138.73 Y172.67
G1 F600 X134.33 Y168.27 E413.90409
G0 F12000 X134.33 Y168.93
G1 F600 X138.07 Y172.67 E414.21167
G0 F12000 X137.41 Y172.67
G1 F600 X134.33 Y169.59 E414.46509
G0 F12000 X134.33 Y170.25
G1 F600 X136.75 Y172.67 E414.66433
G0 F12000 X136.09 Y172.67
G1 F600 X134.33 Y170.90 E414.80941
G0 F12000 X134.33 Y171.56
G1 F600 X135.43 Y172.67 E414.90028
G0 F12000 X134.78 Y172.67
G1 F600 X134.33 Y172.22 E414.93698
G0 F12000 X137.98 Y170.60
G1 F600 X140.05 Y172.67 E415.10684
G0 F12000 X140.71 Y172.67
G1 F600 X139.11 Y171.07 E415.23799
G0 F12000 X139.87 Y171.18
G1 F600 X141.37 Y172.67 E415.36058
G0 F12000 X142.03 Y172.67
G1 F600 X140.50 Y171.14 E415.48618
G0 F12000 X141.04 Y171.03
G1 F600 X142.68 Y172.67 E415.62106
G0 F12000 X143.34 Y172.67
G1 F600 X141.54 Y170.86 E415.76955
G0 F12000 X141.97 Y170.63
G1 F600 X144.00 Y172.67 E415.93695
G0 F12000 X144.66 Y172.67
G1 F600 X142.35 Y170.36 E416.12658
G0 F12000 X142.72 Y170.06
G1 F600 X145.32 Y172.67 E416.34070
G0 F12000 X145.98 Y172.67
G1 F600 X143.01 Y169.70 E416.58462
G0 F12000 X143.28 Y169.31
G1 F600 X146.64 Y172.67 E416.86056
G0 F12000 X147.30 Y172.67
G1 F600 X143.51 Y168.88 E417.17175
G0 F12000 X143.67 Y168.39
G1 F600 X147.96 Y172.67 E417.52368
G0 F12000 X148.62 Y172.67
G1 F600 X143.79 Y167.84 E417.92061
G0 F12000 X143.82 Y167.22
G1 F600 X149.27 Y172.67 E418.36883
G0 F12000 X149.93 Y172.67
G1 F600 X143.71 Y166.45 E418.88001
G0 F12000 X143.24 Y165.31
G1 F600 X150.59 Y172.67 E419.48457
G0 F12000 X151.25 Y172.67
G1 F600 X134.33 Y155.75 E420.87551
G0 F12000 X134.33 Y155.09
G1 F600 X151.91 Y172.67 E422.32062
G0 F12000 X152.57 Y172.67
G1 F600 X134.33 Y154.43 E423.81989
G0 F12000 X134.33 Y153.77
G1 F600 X153.23 Y172.67 E425.37333
G0 F12000 X153.89 Y172.67
G1 F600 X134.33 Y153.11 E426.98094
G0 F12000 X134.33 Y152.45
G1 F600 X154.55 Y172.67 E428.64272
G0 F12000 X155.21 Y172.67
G1 F600 X134.33 Y151.79 E430.35867
G0 F12000 X134.33 Y151.13
G1 F600 X155.86 Y172.67 E432.12878
G0 F12000 X156.52 Y172.67
G1 F600 X134.33 Y150.47 E433.95306
G0 F12000 X134.33 Y149.82
G1 F600 X157.18 Y172.67 E435.83151
G0 F12000 X157.84 Y172.67
G1 F600 X134.33 Y149.16 E437.76413
G0 F12000 X134.33 Y148.50
G1 F600 X158.50 Y172.67 E439.75091
G0 F12000 X159.16 Y172.67
G1 F600 X134.33 Y147.84 E441.79186
G0 F12000 X134.33 Y147.18
G1 F600 X159.82 Y172.67 E443.88698
G0 F12000 X160.48 Y172.67
G1 F600 X134.33 Y146.52 E446.03627
G0 F12000 X136.08 Y147.61
G1 F600 X161.14 Y172.67 E448.09597
G0 F12000 X161.79 Y172.67
G1 F600 X137.30 Y148.17 E450.10934
G0 F12000 X138.21 Y148.42
G1 F600 X142.60 Y152.81 E450.47043
G0 F12000 X142.60 Y152.15
G1 F600 X138.94 Y148.49 E450.77136
G0 F12000 X139.59 Y148.49
G1 F600 X142.76 Y151.66 E451.03192
G0 F12000 X143.03 Y151.26
G1 F600 X140.19 Y148.43 E451.26458
G0 F12000 X140.74 Y148.32
G1 F600 X143.36 Y150.94 E451.48002
G0 F12000 X143.78 Y150.71
G1 F600 X141.25 Y148.17 E451.68859
G0 F12000 X141.73 Y147.99
G1 F600 X144.32 Y150.58 E451.90144
G0 F12000 X145.05 Y150.65
G1 F600 X142.16 Y147.76 E452.13907
G0 F12000 X142.59 Y147.53
G1 F600 X148.23 Y153.17 E452.60283
G0 F12000 X148.17 Y152.45
G1 F600 X142.96 Y147.25 E453.03071
G0 F12000 X143.33 Y146.95
G1 F600 X148.23 Y151.85 E453.43376
G0 F12000 X148.35 Y151.32
G1 F600 X143.67 Y146.64 E453.81848
G0 F12000 X143.97 Y146.27
G1 F600 X148.51 Y150.81 E454.19178
G0 F12000 X148.74 Y150.39
G1 F600 X144.26 Y145.91 E454.55957
G0 F12000 X144.51 Y145.50
G1 F600 X148.99 Y149.98 E454.92732
G0 F12000 X149.28 Y149.62
G1 F600 X144.75 Y145.07 E455.30054
G0 F12000 X144.96 Y144.63
G1 F600 X149.61 Y149.28 E455.68329
G0 F12000 X149.98 Y148.99
G1 F600 X145.11 Y144.12 E456.08326
G0 F12000 X145.26 Y143.62
G1 F600 X150.39 Y148.74 E456.50435
G0 F12000 X150.81 Y148.51
G1 F600 X145.33 Y143.02 E456.95545
G0 F12000 X145.39 Y142.42
G1 F600 X151.31 Y148.35 E457.44276
G0 F12000 X150.64 Y147.02
G1 F600 X145.32 Y141.69 E457.88037
G0 F12000 X145.18 Y140.90
G1 F600 X150.58 Y146.30 E458.32469
G0 F12000 X150.71 Y145.77
G1 F600 X144.85 Y139.90 E458.80661
G0 F12000 X141.75 Y136.81
G1 F600 X137.27 Y132.33 E459.17473
G0 F12000 X136.61 Y132.33
G1 F600 X140.76 Y136.47 E459.51535
G0 F12000 X139.96 Y136.33
G1 F600 X135.95 Y132.33 E459.84447
G0 F12000 X135.29 Y132.33
G1 F600 X139.23 Y136.27 E460.16816
G0 F12000 X138.63 Y136.33
G1 F600 X134.63 Y132.33 E460.49675
G0 F12000 X134.33 Y132.68
G1 F600 X138.04 Y136.39 E460.80166
G0 F12000 X137.53 Y136.54
G1 F600 X134.33 Y133.34 E461.06501
G0 F12000 X134.33 Y134.00
G1 F600 X137.03 Y136.70 E461.28682
G0 F12000 X136.58 Y136.91
G1 F600 X134.33 Y134.66 E461.47189
G0 F12000 X134.33 Y135.32
G1 F600 X136.15 Y137.14 E461.62161
G0 F12000 X135.74 Y137.39
G1 F600 X134.33 Y135.97 E461.73776
G0 F12000 X134.33 Y136.63
G1 F600 X135.38 Y137.69 E461.82419
G0 F12000 X135.02 Y137.98
G1 F600 X134.33 Y137.29 E461.88086
G0 F12000 X134.33 Y137.95
G1 F600 X134.70 Y138.33 E461.91181
G0 F12000 X137.93 Y132.33
G1 F600 X150.95 Y145.35 E462.98226
G0 F12000 X151.28 Y145.01
G1 F600 X138.59 Y132.33 E464.02493
G0 F12000 X139.25 Y132.33
G1 F600 X151.68 Y144.75 E465.04631
G0 F12000 X152.18 Y144.60
G1 F600 X139.91 Y132.33 E466.05479
G0 F12000 X140.57 Y132.33
G1 F600 X152.83 Y144.60 E467.06310
G0 F12000 X154.40 Y146.16
G1 F600 X159.26 Y151.03 E467.46307
G0 F12000 X158.94 Y151.36
G1 F600 X154.40 Y146.82 E467.83624
G0 F12000 X154.24 Y147.32
G1 F600 X158.70 Y151.78 E468.20292
G0 F12000 X158.58 Y152.32
G1 F600 X153.98 Y147.72 E468.58087
G0 F12000 X153.65 Y148.05
G1 F600 X154.07 Y148.47 E468.61531
G0 F12000 X156.53 Y150.93
G1 F600 X158.65 Y153.05 E468.78985
G0 F12000 X159.95 Y154.35
G1 F600 X170.67 Y165.07 E469.67121
G0 F12000 X170.67 Y165.73
G1 F600 X156.77 Y151.82 E470.81408
G0 F12000 X156.83 Y152.54
G1 F600 X170.67 Y166.39 E471.95181
G0 F12000 X170.67 Y167.05
G1 F600 X156.77 Y153.15 E473.09439
G0 F12000 X156.65 Y153.68
G1 F600 X167.15 Y164.18 E473.95721
G0 F12000 X165.97 Y163.66
G1 F600 X156.49 Y154.18 E474.73623
G0 F12000 X156.26 Y154.61
G1 F600 X165.19 Y163.54 E475.46996
G0 F12000 X164.55 Y163.56
G1 F600 X156.01 Y155.02 E476.17217
G0 F12000 X155.71 Y155.38
G1 F600 X164.00 Y163.67 E476.85326
G0 F12000 X163.50 Y163.83
G1 F600 X155.38 Y155.71 E477.52021
G0 F12000 X155.02 Y156.01
G1 F600 X163.07 Y164.06 E478.18177
G0 F12000 X162.68 Y164.32
G1 F600 X154.61 Y156.26 E478.84452
G0 F12000 X154.18 Y156.49
G1 F600 X162.31 Y164.62 E479.51278
G0 F12000 X162.01 Y164.98
G1 F600 X153.68 Y156.65 E480.19749
G0 F12000 X154.35 Y157.98
G1 F600 X161.74 Y165.36 E480.80431
G0 F12000 X161.51 Y165.79
G1 F600 X154.41 Y158.70 E481.38737
G0 F12000 X154.29 Y159.23
G1 F600 X161.34 Y166.28 E481.96678
G0 F12000 X161.22 Y166.82
G1 F600 X154.05 Y159.65 E482.55629
G0 F12000 X153.72 Y159.99
G1 F600 X161.17 Y167.43 E483.16846
G0 F12000 X161.26 Y168.18
G1 F600 X153.32 Y160.24 E483.82098
G0 F12000 X152.82 Y160.40
G1 F600 X161.70 Y169.28 E484.55085
G0 F12000 X163.07 Y170.65
G1 F600 X165.09 Y172.67 E484.71652
G0 F12000 X164.43 Y172.67
G1 F600 X152.16 Y160.40 E485.72483
G0 F12000 X150.60 Y158.84
G1 F600 X145.74 Y153.97 E486.12476
G0 F12000 X146.06 Y153.63
G1 F600 X150.60 Y158.18 E486.49801
G0 F12000 X150.76 Y157.68
G1 F600 X146.30 Y153.22 E486.86465
G0 F12000 X146.42 Y152.68
G1 F600 X151.01 Y157.28 E487.24255
G0 F12000 X151.35 Y156.95
G1 F600 X150.93 Y156.53 E487.27708
G0 F12000 X148.47 Y154.07
G1 F600 X146.34 Y151.95 E487.45166
G0 F12000 X145.34 Y154.24
G1 F600 X163.77 Y172.67 E488.96684
G0 F12000 X163.11 Y172.67
G1 F600 X144.84 Y154.40 E490.46875
G0 F12000 X144.19 Y154.40
G1 F600 X162.45 Y172.67 E491.97008
G0 F12000 X164.17 Y171.09
G1 F600 X165.75 Y172.67 E492.09966
G0 F12000 X166.41 Y172.67
G1 F600 X164.92 Y171.18 E492.22189
G0 F12000 X165.53 Y171.14
G1 F600 X167.07 Y172.67 E492.34785
G0 F12000 X167.73 Y172.67
G1 F600 X166.08 Y171.02 E492.48356
G0 F12000 X166.56 Y170.85
G1 F600 X168.39 Y172.67 E492.63328
G0 F12000 X169.04 Y172.67
G1 F600 X166.99 Y170.62 E492.80195
G0 F12000 X167.38 Y170.34
G1 F600 X169.70 Y172.67 E492.99322
G0 F12000 X170.36 Y172.67
G1 F600 X167.73 Y170.04 E493.20932
G0 F12000 X168.03 Y169.68
G1 F600 X170.67 Y172.32 E493.42632
G0 F12000 X170.67 Y171.66
G1 F600 X168.29 Y169.28 E493.62154
G0 F12000 X168.53 Y168.85
G1 F600 X170.67 Y171.00 E493.79789
G0 F12000 X170.67 Y170.34
G1 F600 X168.68 Y168.35 E493.96122
G0 F12000 X168.79 Y167.80
G1 F600 X170.67 Y169.68 E494.11587
G0 F12000 X170.67 Y169.02
G1 F600 X168.81 Y167.17 E494.26843
G0 F12000 X168.69 Y166.38
G1 F600 X170.67 Y168.36 E494.43105
G0 F12000 X170.67 Y167.71
G1 F600 X168.17 Y165.21 E494.63626
G0 F12000 X170.67 Y164.41
G1 F600 X160.68 Y154.42 E495.45761
G0 F12000 X161.21 Y154.29
G1 F600 X170.67 Y163.75 E496.23499
G0 F12000 X170.67 Y163.09
G1 F600 X161.64 Y154.06 E496.97756
G0 F12000 X161.97 Y153.74
G1 F600 X170.67 Y162.43 E497.69239
G0 F12000 X170.67 Y161.77
G1 F600 X162.23 Y153.34 E498.38584
G0 F12000 X162.40 Y152.84
G1 F600 X170.67 Y161.11 E499.06553
G0 F12000 X170.67 Y160.46
G1 F600 X162.40 Y152.19 E499.74530
G0 F12000 X160.81 Y150.59
G1 F600 X142.54 Y132.33 E501.24663
G0 F12000 X141.88 Y132.33
G1 F600 X160.16 Y150.60 E502.74849
G0 F12000 X159.66 Y150.76
G1 F600 X141.23 Y132.33 E504.26363
G0 F12000 X143.20 Y132.33
G1 F600 X170.67 Y159.80 E506.52134
G0 F12000 X170.67 Y159.14
G1 F600 X143.86 Y132.33 E508.72487
G0 F12000 X144.52 Y132.33
G1 F600 X170.67 Y158.48 E510.87424
G0 F12000 X170.67 Y157.82
G1 F600 X145.18 Y132.33 E512.96945
G0 F12000 X145.84 Y132.33
G1 F600 X170.67 Y157.16 E515.01048
G0 F12000 X170.67 Y156.50
G1 F600 X146.50 Y132.33 E516.99735
G0 F12000 X147.16 Y132.33
G1 F600 X170.67 Y155.84 E518.93005
G0 F12000 X170.67 Y155.18
G1 F600 X147.82 Y132.33 E520.80858
G0 F12000 X148.47 Y132.33
G1 F600 X170.67 Y154.52 E522.63294
G0 F12000 X170.67 Y153.87
G1 F600 X149.13 Y132.33 E524.40314
G0 F12000 X149.79 Y132.33
G1 F600 X170.67 Y153.21 E526.11917
G0 F12000 X170.67 Y152.55
G1 F600 X150.45 Y132.33 E527.78103
G0 F12000 X151.11 Y132.33
G1 F600 X170.67 Y151.89 E529.38872
G0 F12000 X170.67 Y151.23
G1 F600 X151.77 Y132.33 E530.94224
G0 F12000 X152.43 Y132.33
G1 F600 X170.67 Y150.57 E532.44160
G0 F12000 X170.67 Y149.91
G1 F600 X153.09 Y132.33 E533.88679
G0 F12000 X153.75 Y132.33
G1 F600 X170.67 Y149.25 E535.27781
G0 F12000 X170.67 Y148.59
G1 F600 X154.41 Y132.33 E536.61466
G0 F12000 X155.06 Y132.33
G1 F600 X170.67 Y147.93 E537.89734
G0 F12000 X170.67 Y147.28
G1 F600 X155.72 Y132.33 E539.12586
G0 F12000 X156.38 Y132.33
G1 F600 X170.67 Y146.62 E540.30021
G0 F12000 X170.67 Y145.96
G1 F600 X157.04 Y132.33 E541.42039
G0 F12000 X157.70 Y132.33
G1 F600 X170.67 Y145.30 E542.48640
G0 F12000 X170.67 Y144.64
G1 F600 X158.36 Y132.33 E543.49825
G0 F12000 X159.02 Y132.33
G1 F600 X170.67 Y143.98 E544.45593
G0 F12000 X170.67 Y143.32
G1 F600 X159.68 Y132.33 E545.35944
G0 F12000 X160.34 Y132.33
G1 F600 X170.67 Y142.66 E546.20878
G0 F12000 X170.67 Y142.00
G1 F600 X161.00 Y132.33 E547.00395
G0 F12000 X161.66 Y132.33
G1 F600 X170.67 Y141.34 E547.74496
G0 F12000 X170.67 Y140.69
G1 F600 X162.31 Y132.33 E548.43180
G0 F12000 X162.97 Y132.33
G1 F600 X170.67 Y140.03 E549.06447
G0 F12000 X170.67 Y139.37
G1 F600 X163.63 Y132.33 E549.64297
G0 F12000 X164.29 Y132.33
G1 F600 X170.67 Y138.71 E550.16727
G0 F12000 X170.67 Y138.05
G1 F600 X164.95 Y132.33 E550.63739
G0 F12000 X165.61 Y132.33
G1 F600 X170.67 Y137.39 E551.05335
G0 F12000 X170.67 Y136.73
G1 F600 X166.27 Y132.33 E551.41514
G0 F12000 X166.93 Y132.33
G1 F600 X170.67 Y136.07 E551.72276
G0 F12000 X170.67 Y135.41
G1 F600 X167.59 Y132.33 E551.97622
G0 F12000 X168.25 Y132.33
G1 F600 X170.67 Y134.75 E552.17550
G0 F12000 X170.67 Y134.09
G1 F600 X168.91 Y132.33 E552.32062
G0 F12000 X169.56 Y132.33
G1 F600 X170.67 Y133.44 E552.41153
G0 F12000 X170.67 Y132.78
G1 F600 X170.22 Y132.33 E552.44828
;LAYER:1
G0 F12000 X170.84 Y132.16 Z0.50
;TYPE:WALL-INNER
G1 F600 X170.84 Y172.84 E554.02416
G1 X134.16 Y172.84 E555.44505
G1 X134.16 Y145.46 E556.50593
G1 X134.30 Y145.71 E556.51715
G1 X135.04 Y146.61 E556.56238
G1 X135.95 Y147.35 E556.60767
G1 X136.98 Y147.91 E556.65300
G1 X138.10 Y148.25 E556.69832
G1 X139.26 Y148.36 E556.74364
G1 X140.42 Y148.25 E556.78892
G1 X141.54 Y147.91 E556.83426
G1 X142.58 Y147.35 E556.87961
G1 X143.48 Y146.61 E556.92492
G1 X144.22 Y145.71 E556.97016
G1 X144.77 Y144.68 E557.01552
G1 X145.11 Y143.56 E557.06085
G1 X145.23 Y142.40 E557.10614
G1 X145.11 Y141.23 E557.15143
G1 X144.77 Y140.11 E557.19676
G1 X144.22 Y139.08 E557.24213
G1 X143.48 Y138.18 E557.28736
G1 X142.58 Y137.44 E557.33267
G1 X141.54 Y136.88 E557.37802
G1 X140.42 Y136.54 E557.42336
G1 X139.26 Y136.43 E557.46865
G1 X138.10 Y136.54 E557.51397
G1 X136.98 Y136.88 E557.55929
G1 X135.95 Y137.44 E557.60462
G1 X135.04 Y138.18 E557.64990
G1 X134.30 Y139.08 E557.69519
G1 X134.16 Y139.33 E557.70635
G1 X134.16 Y132.16 E557.98414
G1 X170.84 Y132.16 E559.40503
G0 F12000 X161.44 Y151.00
G1 F600 X161.15 Y150.86 E559.41763
G1 X160.84 Y150.76 E559.42995
G1 X160.49 Y150.73 E559.44388
G1 X160.11 Y150.77 E559.45855
G1 X159.77 Y150.89 E559.47231
G1 X159.47 Y151.06 E559.48586
G1 X159.21 Y151.29 E559.49932
G1 X159.00 Y151.56 E559.51256
G1 X158.85 Y151.85 E559.52516
G1 X158.76 Y152.16 E559.53748
G1 X158.73 Y152.51 E559.55145
G1 X158.77 Y152.89 E559.56609
G1 X158.88 Y153.23 E559.57981
G1 X159.06 Y153.53 E559.59337
G1 X159.29 Y153.79 E559.60682
G1 X159.56 Y154.00 E559.62007
G1 X159.85 Y154.14 E559.63266
G1 X160.15 Y154.24 E559.64481
G1 X160.51 Y154.27 E559.65899
G1 X160.89 Y154.22 E559.67379
G1 X161.23 Y154.11 E559.68734
G1 X161.53 Y153.94 E559.70090
G1 X161.79 Y153.71 E559.71436
G1 X162.00 Y153.44 E559.72760
G1 X162.14 Y153.15 E559.74020
G1 X162.24 Y152.85 E559.75231
G1 X162.27 Y152.49 E559.76645
G1 X162.22 Y152.11 E559.78130
G1 X162.11 Y151.77 E559.79485
G1 X161.94 Y151.47 E559.80841
G1 X161.71 Y151.21 E559.82186
G1 X161.44 Y151.00 E559.83511
G0 F12000 X156.59 Y151.69
G1 F600 X156.35 Y150.90 E559.86678
G1 X155.97 Y150.18 E559.89842
G1 X155.45 Y149.55 E559.93011
G1 X154.82 Y149.03 E559.96180
G1 X154.10 Y148.65 E559.99344
G1 X153.31 Y148.41 E560.02515
G1 X152.50 Y148.33 E560.05680
G1 X151.69 Y148.41 E560.08846
G1 X150.90 Y148.65 E560.12017
G1 X150.18 Y149.03 E560.15181
G1 X149.55 Y149.55 E560.18350
G1 X149.03 Y150.18 E560.21519
G1 X148.65 Y150.90 E560.24683
G1 X148.41 Y151.69 E560.27850
G1 X148.33 Y152.50 E560.31020
G1 X148.41 Y153.31 E560.34190
G1 X148.65 Y154.10 E560.37357
G1 X149.03 Y154.82 E560.40521
G1 X149.55 Y155.45 E560.43690
G1 X150.18 Y155.97 E560.46859
G1 X150.90 Y156.35 E560.50023
G1 X151.69 Y156.59 E560.53190
G1 X152.50 Y156.67 E560.56360
G1 X153.31 Y156.59 E560.59530
G1 X154.10 Y156.35 E560.62697
G1 X154.82 Y155.97 E560.65861
G1 X155.45 Y155.45 E560.69030
G1 X155.97 Y154.82 E560.72199
G1 X156.35 Y154.10 E560.75363
G1 X156.59 Y153.31 E560.78530
G1 X156.67 Y152.50 E560.81700
G1 X156.59 Y151.69 E560.84870
G0 F12000 X153.53 Y147.94
G1 F600 X153.79 Y147.71 E560.86215
G1 X154.00 Y147.44 E560.87539
G1 X154.14 Y147.15 E560.88799
G1 X154.24 Y146.85 E560.90010
G1 X154.27 Y146.49 E560.91424
G1 X154.22 Y146.11 E560.92908
G1 X154.11 Y145.76 E560.94334
G1 X153.87 Y145.38 E560.96063
G1 X153.48 Y145.02 E560.98113
G1 X153.15 Y144.86 E560.99558
G1 X152.84 Y144.76 E561.00790
G1 X152.49 Y144.73 E561.02187
G1 X152.11 Y144.77 E561.03650
G1 X151.77 Y144.89 E561.05023
G1 X151.47 Y145.06 E561.06379
G1 X151.21 Y145.29 E561.07724
G1 X151.00 Y145.56 E561.09049
G1 X150.86 Y145.85 E561.10308
G1 X150.76 Y146.15 E561.11523
G1 X150.73 Y146.52 E561.12941
G1 X150.78 Y146.90 E561.14421
G1 X150.88 Y147.21 E561.15720
G1 X151.04 Y147.50 E561.16991
G1 X151.29 Y147.79 E561.18464
G1 X151.56 Y148.00 E561.19802
G1 X151.85 Y148.15 E561.21062
G1 X152.15 Y148.24 E561.22273
G1 X152.51 Y148.27 E561.23687
G1 X152.89 Y148.22 E561.25172
G1 X153.23 Y148.12 E561.26527
G1 X153.53 Y147.94 E561.27883
G0 F12000 X146.12 Y151.77
G1 F600 X145.94 Y151.47 E561.29238
G1 X145.71 Y151.21 E561.30584
G1 X145.44 Y151.00 E561.31908
G1 X145.15 Y150.86 E561.33168
G1 X144.84 Y150.76 E561.34404
G1 X144.49 Y150.73 E561.35801
G1 X144.11 Y150.77 E561.37264
G1 X143.77 Y150.89 E561.38636
G1 X143.47 Y151.06 E561.39992
G1 X143.21 Y151.29 E561.41337
G1 X143.00 Y151.56 E561.42662
G1 X142.86 Y151.85 E561.43921
G1 X142.76 Y152.15 E561.45133
G1 X142.73 Y152.51 E561.46547
G1 X142.78 Y152.89 E561.48031
G1 X142.89 Y153.23 E561.49387
G1 X143.06 Y153.53 E561.50742
G1 X143.29 Y153.79 E561.52088
G1 X143.56 Y154.00 E561.53412
G1 X143.85 Y154.14 E561.54672
G1 X144.15 Y154.24 E561.55883
G1 X144.51 Y154.27 E561.57297
G1 X144.89 Y154.22 E561.58781
G1 X145.23 Y154.11 E561.60141
G1 X145.53 Y153.94 E561.61496
G1 X145.79 Y153.71 E561.62842
G1 X146.00 Y153.44 E561.64166
G1 X146.15 Y153.15 E561.65426
G1 X146.24 Y152.84 E561.66658
G1 X146.27 Y152.49 E561.68055
G1 X146.23 Y152.11 E561.69519
G1 X146.12 Y151.77 E561.70891
G0 F12000 X151.21 Y157.29
G1 F600 X151.00 Y157.56 E561.72229
G1 X150.86 Y157.85 E561.73489
G1 X150.76 Y158.15 E561.74704
G1 X150.73 Y158.51 E561.76122
G1 X150.78 Y158.89 E561.77602
G1 X150.89 Y159.23 E561.78957
G1 X151.06 Y159.53 E561.80313
G1 X151.29 Y159.79 E561.81658
G1 X151.56 Y160.00 E561.82983
G1 X151.85 Y160.14 E561.84243
G1 X152.15 Y160.24 E561.85454
G1 X152.51 Y160.27 E561.86868
G1 X152.89 Y160.22 E561.88353
G1 X153.23 Y160.11 E561.89708
G1 X153.53 Y159.94 E561.91066
G1 X153.78 Y159.72 E561.92362
G1 X153.99 Y159.46 E561.93627
G1 X154.15 Y159.15 E561.95004
G1 X154.24 Y158.85 E561.96207
G1 X154.27 Y158.49 E561.97621
G1 X154.22 Y158.11 E561.99104
G1 X154.11 Y157.77 E562.00464
G1 X153.94 Y157.47 E562.01820
G1 X153.71 Y157.21 E562.03165
G1 X153.44 Y157.00 E562.04490
G1 X153.15 Y156.85 E562.05750
G1 X152.84 Y156.76 E562.06982
G1 X152.49 Y156.73 E562.08379
G1 X152.11 Y156.77 E562.09842
G1 X151.79 Y156.88 E562.11158
G1 X151.50 Y157.04 E562.12429
G1 X151.21 Y157.29 E562.13902
G0 F12000 X142.60 Y164.76
G1 F600 X142.04 Y164.30 E562.16691
G1 X141.41 Y163.96 E562.19479
G1 X140.72 Y163.76 E562.22268
G1 X140.00 Y163.69 E562.25056
G1 X139.28 Y163.76 E562.27840
G1 X138.60 Y163.96 E562.30628
G1 X137.96 Y164.30 E562.33416
G1 X137.41 Y164.76 E562.36205
G1 X136.95 Y165.32 E562.38995
G1 X136.61 Y165.95 E562.41782
G1 X136.40 Y166.64 E562.44567
G1 X136.33 Y167.36 E562.47359
G1 X136.40 Y168.07 E562.50152
G1 X136.61 Y168.76 E562.52937
G1 X136.95 Y169.40 E562.55724
G1 X137.41 Y169.95 E562.58514
G1 X137.96 Y170.41 E562.61303
G1 X138.60 Y170.75 E562.64090
G1 X139.28 Y170.96 E562.66879
G1 X140.00 Y171.03 E562.69663
G1 X140.72 Y170.96 E562.72451
G1 X141.41 Y170.75 E562.75240
G1 X142.04 Y170.41 E562.78028
G1 X142.60 Y169.95 E562.80817
G1 X143.05 Y169.40 E562.83606
G1 X143.39 Y168.76 E562.86394
G1 X143.60 Y168.07 E562.89182
G1 X143.67 Y167.36 E562.91970
G1 X143.60 Y166.64 E562.94758
G1 X143.39 Y165.95 E562.97547
G1 X143.05 Y165.32 E563.00335
G1 X142.60 Y164.76 E563.03124
G0 F12000 X161.40 Y166.64
G1 F600 X161.33 Y167.36 E563.05912
G1 X161.40 Y168.07 E563.08700
G1 X161.61 Y168.76 E563.11489
G1 X161.95 Y169.40 E563.14276
G1 X162.40 Y169.95 E563.17066
G1 X162.96 Y170.41 E563.19855
G1 X163.59 Y170.75 E563.22642
G1 X164.28 Y170.96 E563.25431
G1 X165.00 Y171.03 E563.28219
G1 X165.72 Y170.96 E563.31003
G1 X166.40 Y170.75 E563.33792
G1 X167.04 Y170.41 E563.36580
G1 X167.59 Y169.95 E563.39369
G1 X168.05 Y169.40 E563.42158
G1 X168.39 Y168.76 E563.44946
G1 X168.60 Y168.07 E563.47731
G1 X168.67 Y167.36 E563.50523
G1 X168.60 Y166.64 E563.53315
G1 X168.39 Y165.95 E563.56100
G1 X168.05 Y165.32 E563.58888
G1 X167.59 Y164.76 E563.61677
G1 X167.04 Y164.30 E563.64466
G1 X166.40 Y163.96 E563.67254
G1 X165.72 Y163.76 E563.70043
G1 X165.00 Y163.69 E563.72831
G1 X164.28 Y163.76 E563.75615
G1 X163.59 Y163.96 E563.78403
G1 X162.96 Y164.30 E563.81191
G1 X162.40 Y164.76 E563.83980
G1 X161.95 Y165.32 E563.86770
G1 X161.61 Y165.95 E563.89557
G1 X161.40 Y166.64 E563.92346
G0 F12000 X161.86 Y166.73
G1 F600 X161.80 Y167.36 E563.94779
G1 X161.86 Y167.98 E563.97212
G1 X162.04 Y168.58 E563.99646
G1 X162.34 Y169.13 E564.02076
G1 X162.74 Y169.62 E564.04510
G1 X163.22 Y170.02 E564.06944
G1 X163.77 Y170.31 E564.09375
G1 X164.38 Y170.50 E564.11808
G1 X165.00 Y170.56 E564.14241
G1 X165.62 Y170.50 E564.16670
G1 X166.22 Y170.31 E564.19104
G1 X166.78 Y170.02 E564.21534
G1 X167.26 Y169.62 E564.23968
G1 X167.66 Y169.13 E564.26402
G1 X167.96 Y168.58 E564.28833
G1 X168.14 Y167.98 E564.31266
G1 X168.20 Y167.36 E564.33700
G1 X168.14 Y166.73 E564.36134
G1 X167.96 Y166.13 E564.38567
G1 X167.66 Y165.58 E564.40997
G1 X167.26 Y165.09 E564.43432
G1 X166.78 Y164.69 E564.45866
G1 X166.22 Y164.40 E564.48296
G1 X165.62 Y164.22 E564.50729
G1 X165.00 Y164.15 E564.53162
G1 X164.38 Y164.22 E564.55592
G1 X163.77 Y164.40 E564.58025
G1 X163.22 Y164.69 E564.60455
G1 X162.74 Y165.09 E564.62889
G1 X162.34 Y165.58 E564.65324
G1 X162.04 Y166.13 E564.67754
G1 X161.86 Y166.73 E564.70187
G0 F12000 X153.44 Y159.39
G1 F600 X153.59 Y159.21 E564.71102
G1 X153.71 Y158.97 E564.72133
G1 X153.78 Y158.76 E564.73008
G1 X153.80 Y158.49 E564.74037
G1 X153.77 Y158.21 E564.75142
G1 X153.69 Y157.97 E564.76134
G1 X153.56 Y157.74 E564.77132
G1 X153.39 Y157.55 E564.78121
G1 X153.19 Y157.40 E564.79097
G1 X152.97 Y157.29 E564.80038
G1 X152.75 Y157.22 E564.80929
G1 X152.49 Y157.20 E564.81948
G1 X152.21 Y157.23 E564.83037
G1 X151.97 Y157.31 E564.84006
G1 X151.77 Y157.42 E564.84923
G1 X151.55 Y157.61 E564.86017
G1 X151.40 Y157.81 E564.87001
G1 X151.29 Y158.03 E564.87942
G1 X151.22 Y158.24 E564.88821
G1 X151.20 Y158.51 E564.89857
G1 X151.23 Y158.79 E564.90954
G1 X151.31 Y159.03 E564.91947
G1 X151.44 Y159.26 E564.92945
G1 X151.61 Y159.45 E564.93934
G1 X151.81 Y159.60 E564.94909
G1 X152.03 Y159.71 E564.95850
G1 X152.24 Y159.78 E564.96729
G1 X152.51 Y159.80 E564.97758
G1 X152.79 Y159.77 E564.98859
G1 X153.03 Y159.69 E564.99852
G1 X153.26 Y159.56 E565.00850
G1 X153.44 Y159.39 E565.01814
G0 F12000 X153.74 Y158.22
G0 X153.22 Y156.13
G1 F600 X153.92 Y155.92 E565.04628
G1 X154.56 Y155.58 E565.07437
G1 X155.12 Y155.12 E565.10251
G1 X155.58 Y154.56 E565.13065
G1 X155.92 Y153.92 E565.15873
G1 X156.13 Y153.22 E565.18688
G1 X156.20 Y152.50 E565.21499
G1 X156.13 Y151.78 E565.24310
G1 X155.92 Y151.08 E565.27124
G1 X155.58 Y150.44 E565.29932
G1 X155.12 Y149.88 E565.32746
G1 X154.56 Y149.42 E565.35561
G1 X153.92 Y149.08 E565.38369
G1 X153.22 Y148.87 E565.41183
G1 X152.50 Y148.80 E565.43994
G1 X151.78 Y148.87 E565.46805
G1 X151.08 Y149.08 E565.49619
G1 X150.44 Y149.42 E565.52427
G1 X149.88 Y149.88 E565.55242
G1 X149.42 Y150.44 E565.58056
G1 X149.08 Y151.08 E565.60864
G1 X148.87 Y151.78 E565.63678
G1 X148.80 Y152.50 E565.66489
G1 X148.87 Y153.22 E565.69300
G1 X149.08 Y153.92 E565.72115
G1 X149.42 Y154.56 E565.74923
G1 X149.88 Y155.12 E565.77737
G1 X150.44 Y155.58 E565.80551
G1 X151.08 Y155.92 E565.83360
G1 X151.78 Y156.13 E565.86174
G1 X152.50 Y156.20 E565.88985
G1 X153.22 Y156.13 E565.91796
G0 F12000 X159.31 Y153.03
G1 F600 X159.44 Y153.26 E565.92795
G1 X159.61 Y153.45 E565.93783
G1 X159.81 Y153.60 E565.94759
G1 X160.03 Y153.71 E565.95700
G1 X160.24 Y153.78 E565.96579
G1 X160.51 Y153.80 E565.97615
G1 X160.79 Y153.77 E565.98712
G1 X161.03 Y153.69 E565.99704
G1 X161.26 Y153.56 E566.00703
G1 X161.45 Y153.39 E566.01691
G1 X161.60 Y153.19 E566.02667
G1 X161.71 Y152.97 E566.03608
G1 X161.78 Y152.76 E566.04487
G1 X161.80 Y152.49 E566.05515
G1 X161.77 Y152.21 E566.06617
G1 X161.69 Y151.97 E566.07609
G1 X161.56 Y151.74 E566.08608
G1 X161.39 Y151.55 E566.09596
G1 X161.19 Y151.40 E566.10572
G1 X160.97 Y151.29 E566.11513
G1 X160.75 Y151.22 E566.12404
G1 X160.49 Y151.20 E566.13424
G1 X160.21 Y151.23 E566.14512
G1 X159.97 Y151.31 E566.15517
G1 X159.74 Y151.44 E566.16515
G1 X159.55 Y151.61 E566.17504
G1 X159.40 Y151.81 E566.18480
G1 X159.29 Y152.03 E566.19421
G1 X159.22 Y152.25 E566.20312
G1 X159.20 Y152.51 E566.21332
G1 X159.23 Y152.79 E566.22420
G1 X159.31 Y153.03 E566.23421
G0 F12000 X153.45 Y147.39
G1 F600 X153.60 Y147.19 E566.24397
G1 X153.71 Y146.97 E566.25338
G1 X153.78 Y146.76 E566.26217
G1 X153.80 Y146.49 E566.27245
G1 X153.77 Y146.21 E566.28350
G1 X153.68 Y145.96 E566.29384
G1 X153.51 Y145.68 E566.30646
G1 X153.22 Y145.41 E566.32193
G1 X152.97 Y145.29 E566.33246
G1 X152.75 Y145.22 E566.34137
G1 X152.49 Y145.20 E566.35157
G1 X152.21 Y145.23 E566.36246
G1 X151.97 Y145.31 E566.37247
G1 X151.74 Y145.44 E566.38245
G1 X151.55 Y145.61 E566.39234
G1 X151.40 Y145.81 E566.40209
G1 X151.29 Y146.03 E566.41150
G1 X151.22 Y146.24 E566.42029
G1 X151.20 Y146.51 E566.43065
G1 X151.23 Y146.79 E566.44163
G1 X151.31 Y147.03 E566.45123
G1 X151.42 Y147.23 E566.46040
G1 X151.61 Y147.45 E566.47134
G1 X151.81 Y147.60 E566.48118
G1 X152.03 Y147.71 E566.49059
G1 X152.24 Y147.78 E566.49938
G1 X152.51 Y147.81 E566.50967
G1 X152.79 Y147.77 E566.52068
G1 X153.03 Y147.69 E566.53061
G1 X153.26 Y147.56 E566.54059
G1 X153.45 Y147.39 E566.55048
G0 F12000 X145.69 Y151.97
G1 F600 X145.56 Y151.74 E566.56046
G1 X145.39 Y151.55 E566.57034
G1 X145.19 Y151.40 E566.58010
G1 X144.97 Y151.29 E566.58951
G1 X144.75 Y151.22 E566.59842
G1 X144.49 Y151.20 E566.60866
G1 X144.21 Y151.23 E566.61954
G1 X143.97 Y151.31 E566.62955
G1 X143.74 Y151.44 E566.63954
G1 X143.55 Y151.61 E566.64942
G1 X143.40 Y151.81 E566.65918
G1 X143.29 Y152.03 E566.66859
G1 X143.22 Y152.24 E566.67738
G1 X143.20 Y152.51 E566.68766
G1 X143.23 Y152.79 E566.69868
G1 X143.31 Y153.03 E566.70861
G1 X143.44 Y153.26 E566.71859
G1 X143.61 Y153.45 E566.72847
G1 X143.81 Y153.60 E566.73823
G1 X144.03 Y153.71 E566.74764
G1 X144.24 Y153.78 E566.75643
G1 X144.51 Y153.80 E566.76671
G1 X144.79 Y153.77 E566.77776
G1 X145.03 Y153.69 E566.78769
G1 X145.26 Y153.56 E566.79767
G1 X145.45 Y153.39 E566.80755
G1 X145.60 Y153.19 E566.81731
G1 X145.71 Y152.97 E566.82672
G1 X145.78 Y152.75 E566.83563
G1 X145.80 Y152.49 E566.84583
G1 X145.77 Y152.21 E566.85672
G1 X145.69 Y151.97 E566.86673
G0 F12000 X142.31 Y146.97
G1 F600 X143.15 Y146.28 E566.90852
G1 X143.83 Y145.45 E566.95023
G1 X144.34 Y144.50 E566.99199
G1 X144.65 Y143.47 E567.03376
G1 X144.76 Y142.40 E567.07550
G1 X144.65 Y141.32 E567.11724
G1 X144.34 Y140.29 E567.15902
G1 X143.83 Y139.34 E567.20078
G1 X143.15 Y138.51 E567.24249
G1 X142.31 Y137.82 E567.28428
G1 X141.37 Y137.32 E567.32602
G1 X140.33 Y137.00 E567.36781
G1 X139.26 Y136.90 E567.40955
G1 X138.19 Y137.00 E567.45132
G1 X137.16 Y137.32 E567.49307
G1 X136.21 Y137.82 E567.53481
G1 X135.37 Y138.51 E567.57658
G1 X134.69 Y139.34 E567.61831
G1 X134.18 Y140.29 E567.66000
G1 X133.94 Y141.11 E567.69316
G1 X133.87 Y141.32 E567.70184
G1 X133.76 Y142.40 E567.74361
G1 X133.87 Y143.47 E567.78535
G1 X134.12 Y144.29 E567.81852
G1 X134.18 Y144.50 E567.82710
G1 X134.59 Y145.25 E567.86035
G1 X134.69 Y145.45 E567.86893
G1 X135.37 Y146.28 E567.91064
G1 X136.21 Y146.97 E567.95240
G1 X137.16 Y147.47 E567.99415
G1 X138.19 Y147.79 E568.03590
G1 X139.26 Y147.89 E568.07767
G1 X140.33 Y147.79 E568.11941
G1 X141.37 Y147.47 E568.16120
G1 X142.31 Y146.97 E568.20294
G0 F12000 X140.62 Y164.22
G1 F600 X140.00 Y164.15 E568.22727
G1 X139.38 Y164.22 E568.25156
G1 X138.78 Y164.40 E568.27590
G1 X138.22 Y164.69 E568.30020
G1 X137.74 Y165.09 E568.32454
G1 X137.34 Y165.58 E568.34888
G1 X137.04 Y166.13 E568.37319
G1 X136.86 Y166.73 E568.39752
G1 X136.80 Y167.36 E568.42186
G1 X136.86 Y167.98 E568.44620
G1 X137.04 Y168.58 E568.47053
G1 X137.34 Y169.13 E568.49483
G1 X137.74 Y169.62 E568.51917
G1 X138.22 Y170.02 E568.54352
G1 X138.78 Y170.31 E568.56782
G1 X139.38 Y170.50 E568.59215
G1 X140.00 Y170.56 E568.61645
G1 X140.62 Y170.50 E568.64078
G1 X141.23 Y170.31 E568.66511
G1 X141.78 Y170.02 E568.68941
G1 X142.26 Y169.62 E568.71375
G1 X142.66 Y169.13 E568.73810
G1 X142.96 Y168.58 E568.76240
G1 X143.14 Y167.98 E568.78673
G1 X143.20 Y167.36 E568.81106
G1 X143.14 Y166.73 E568.83540
G1 X142.96 Y166.13 E568.85973
G1 X142.66 Y165.58 E568.88403
G1 X142.26 Y165.09 E568.90837
G1 X141.78 Y164.69 E568.93271
G1 X141.23 Y164.40 E568.95702
G1 X140.62 Y164.22 E568.98135
G0 F12000 X138.79 Y164.43
G0 X137.37 Y165.60
G0 X136.83 Y167.36
G0 X133.70 Y173.30
G1 F600 X133.70 Y131.70 E570.59335
G1 X171.30 Y131.70 E572.05035
G1 X171.30 Y173.30 E573.66235
G1 X133.70 Y173.30 E575.11935
G0 F12000 X133.23 Y173.77
;TYPE:WALL-OUTER
G1 F600 X133.23 Y131.23 E576.76746
G1 X171.77 Y131.23 E578.26058
G1 X171.77 Y173.77 E579.90869
G1 X133.23 Y173.77 E581.40181
G0 F12000 X133.48 Y173.43
G0 X137.81 Y169.50
G0 X138.07 Y169.29
G1 F600 X138.48 Y169.63 E581.42260
G1 X138.95 Y169.88 E581.44333
G1 X139.47 Y170.04 E581.46410
G1 X140.00 Y170.09 E581.48485
G1 X140.53 Y170.04 E581.50564
G1 X141.05 Y169.88 E581.52642
G1 X141.52 Y169.63 E581.54715
G1 X141.93 Y169.29 E581.56794
G1 X142.27 Y168.88 E581.58873
G1 X142.53 Y168.40 E581.60946
G1 X142.68 Y167.89 E581.63024
G1 X142.73 Y167.36 E581.65103
G1 X142.68 Y166.82 E581.67182
G1 X142.53 Y166.31 E581.69259
G1 X142.27 Y165.84 E581.71333
G1 X141.93 Y165.42 E581.73411
G1 X141.52 Y165.08 E581.75490
G1 X141.05 Y164.83 E581.77563
G1 X140.53 Y164.67 E581.79641
G1 X140.00 Y164.62 E581.81720
G1 X139.47 Y164.67 E581.83795
G1 X138.95 Y164.83 E581.85873
G1 X138.48 Y165.08 E581.87946
G1 X138.07 Y165.42 E581.90025
G1 X137.73 Y165.84 E581.92104
G1 X137.47 Y166.31 E581.94177
G1 X137.32 Y166.82 E581.96255
G1 X137.27 Y167.36 E581.98334
G1 X137.32 Y167.89 E582.00413
G1 X137.47 Y168.40 E582.02491
G1 X137.73 Y168.88 E582.04564
G1 X138.07 Y169.29 E582.06643
G0 F12000 X137.81 Y169.50
G0 X136.89 Y167.97
G0 X137.07 Y166.14
G0 X138.24 Y164.72
G0 X144.10 Y153.59
G0 X144.20 Y153.28
G1 F600 X144.34 Y153.32 E582.07193
G1 X144.50 Y153.33 E582.07840
G1 X144.69 Y153.31 E582.08558
G1 X144.84 Y153.26 E582.09191
G1 X144.98 Y153.18 E582.09828
G1 X145.11 Y153.07 E582.10460
G1 X145.21 Y152.94 E582.11087
G1 X145.28 Y152.80 E582.11704
G1 X145.32 Y152.66 E582.12260
G1 X145.33 Y152.50 E582.12902
G1 X145.31 Y152.31 E582.13611
G1 X145.26 Y152.16 E582.14249
G1 X145.18 Y152.02 E582.14886
G1 X145.07 Y151.89 E582.15518
G1 X144.94 Y151.80 E582.16145
G1 X144.80 Y151.72 E582.16762
G1 X144.66 Y151.68 E582.17317
G1 X144.50 Y151.67 E582.17963
G1 X144.31 Y151.69 E582.18673
G1 X144.16 Y151.74 E582.19310
G1 X144.02 Y151.82 E582.19948
G1 X143.89 Y151.93 E582.20579
G1 X143.80 Y152.06 E582.21207
G1 X143.72 Y152.20 E582.21824
G1 X143.68 Y152.34 E582.22374
G1 X143.66 Y152.50 E582.23021
G1 X143.69 Y152.69 E582.23737
G1 X143.74 Y152.84 E582.24369
G1 X143.82 Y152.98 E582.25006
G1 X143.93 Y153.11 E582.25638
G1 X144.06 Y153.20 E582.26266
G1 X144.20 Y153.28 E582.26883
G0 F12000 X144.10 Y153.59
G0 X145.24 Y153.53
G0 X148.94 Y152.47
G0 X149.27 Y152.50
G1 F600 X149.33 Y153.13 E582.29339
G1 X149.51 Y153.74 E582.31798
G1 X149.81 Y154.30 E582.34249
G1 X150.21 Y154.79 E582.36708
G1 X150.70 Y155.19 E582.39167
G1 X151.26 Y155.49 E582.41618
G1 X151.87 Y155.67 E582.44077
G1 X152.50 Y155.73 E582.46534
G1 X153.13 Y155.67 E582.48991
G1 X153.74 Y155.49 E582.51449
G1 X154.30 Y155.19 E582.53900
G1 X154.79 Y154.79 E582.56359
G1 X155.19 Y154.30 E582.58818
G1 X155.49 Y153.74 E582.61269
G1 X155.67 Y153.13 E582.63728
G1 X155.73 Y152.50 E582.66185
G1 X155.67 Y151.87 E582.68642
G1 X155.49 Y151.26 E582.71101
G1 X155.19 Y150.70 E582.73552
G1 X154.79 Y150.21 E582.76011
G1 X154.30 Y149.81 E582.78469
G1 X153.74 Y149.51 E582.80921
G1 X153.13 Y149.33 E582.83379
G1 X152.50 Y149.27 E582.85836
G1 X151.87 Y149.33 E582.88292
G1 X151.26 Y149.51 E582.90751
G1 X150.70 Y149.81 E582.93202
G1 X150.21 Y150.21 E582.95661
G1 X149.81 Y150.70 E582.98120
G1 X149.51 Y151.26 E583.00571
G1 X149.33 Y151.87 E583.03030
G1 X149.27 Y152.50 E583.05487
G0 F12000 X148.94 Y152.47
G0 X149.11 Y153.90
G0 X150.46 Y155.55
G0 X152.00 Y157.45
G0 X152.16 Y157.74
G1 F600 X152.03 Y157.81 E583.06050
G1 X151.89 Y157.93 E583.06765
G1 X151.80 Y158.06 E583.07395
G1 X151.72 Y158.20 E583.08012
G1 X151.68 Y158.34 E583.08563
G1 X151.67 Y158.50 E583.09213
G1 X151.69 Y158.69 E583.09928
G1 X151.74 Y158.84 E583.10560
G1 X151.82 Y158.98 E583.11197
G1 X151.93 Y159.11 E583.11829
G1 X152.06 Y159.20 E583.12457
G1 X152.20 Y159.28 E583.13074
G1 X152.34 Y159.32 E583.13624
G1 X152.50 Y159.34 E583.14271
G1 X152.69 Y159.31 E583.14986
G1 X152.84 Y159.26 E583.15619
G1 X152.98 Y159.18 E583.16256
G1 X153.11 Y159.07 E583.16888
G1 X153.20 Y158.96 E583.17450
G1 X153.28 Y158.80 E583.18134
G1 X153.32 Y158.66 E583.18685
G1 X153.33 Y158.50 E583.19331
G1 X153.31 Y158.31 E583.20050
G1 X153.26 Y158.16 E583.20682
G1 X153.18 Y158.02 E583.21319
G1 X153.07 Y157.89 E583.21951
G1 X152.94 Y157.79 E583.22579
G1 X152.80 Y157.72 E583.23196
G1 X152.66 Y157.68 E583.23751
G1 X152.50 Y157.67 E583.24393
G1 X152.31 Y157.69 E583.25103
G1 X152.16 Y157.74 E583.25729
G0 F12000 X152.00 Y157.45
G0 X159.53 Y153.15
G0 X159.82 Y152.98
G1 F600 X159.93 Y153.11 E583.26361
G1 X160.06 Y153.20 E583.26988
G1 X160.20 Y153.28 E583.27605
G1 X160.34 Y153.32 E583.28156
G1 X160.50 Y153.33 E583.28806
G1 X160.69 Y153.31 E583.29521
G1 X160.84 Y153.26 E583.30153
G1 X160.98 Y153.18 E583.30790
G1 X161.11 Y153.07 E583.31422
G1 X161.20 Y152.94 E583.32050
G1 X161.28 Y152.80 E583.32667
G1 X161.32 Y152.66 E583.33217
G1 X161.34 Y152.50 E583.33864
G1 X161.31 Y152.31 E583.34579
G1 X161.26 Y152.16 E583.35211
G1 X161.18 Y152.02 E583.35849
G1 X161.07 Y151.89 E583.36481
G1 X160.94 Y151.80 E583.37108
G1 X160.80 Y151.72 E583.37725
G1 X160.66 Y151.68 E583.38280
G1 X160.50 Y151.67 E583.38922
G1 X160.31 Y151.69 E583.39636
G1 X160.16 Y151.74 E583.40273
G1 X160.02 Y151.82 E583.40911
G1 X159.89 Y151.93 E583.41542
G1 X159.79 Y152.06 E583.42170
G1 X159.72 Y152.20 E583.42787
G1 X159.68 Y152.34 E583.43342
G1 X159.67 Y152.50 E583.43984
G1 X159.69 Y152.69 E583.44694
G1 X159.74 Y152.84 E583.45331
G1 X159.82 Y152.98 E583.45969
G0 F12000 X159.53 Y153.15
G0 X153.32 Y147.32
G0 X153.11 Y147.07
G1 F600 X153.20 Y146.94 E583.46596
G1 X153.28 Y146.80 E583.47213
G1 X153.32 Y146.66 E583.47764
G1 X153.33 Y146.50 E583.48410
G1 X153.31 Y146.31 E583.49129
G1 X153.26 Y146.16 E583.49774
G1 X153.15 Y145.98 E583.50569
G1 X152.95 Y145.80 E583.51617
G1 X152.80 Y145.72 E583.52272
G1 X152.66 Y145.68 E583.52828
G1 X152.50 Y145.67 E583.53470
G1 X152.31 Y145.69 E583.54179
G1 X152.16 Y145.74 E583.54817
G1 X152.02 Y145.82 E583.55454
G1 X151.89 Y145.93 E583.56086
G1 X151.80 Y146.06 E583.56713
G1 X151.72 Y146.20 E583.57330
G1 X151.68 Y146.34 E583.57881
G1 X151.67 Y146.50 E583.58531
G1 X151.69 Y146.69 E583.59246
G1 X151.74 Y146.84 E583.59867
G1 X151.81 Y146.97 E583.60430
G1 X151.93 Y147.11 E583.61145
G1 X152.06 Y147.21 E583.61776
G1 X152.20 Y147.28 E583.62393
G1 X152.34 Y147.32 E583.62943
G1 X152.50 Y147.34 E583.63590
G1 X152.69 Y147.31 E583.64305
G1 X152.84 Y147.26 E583.64937
G1 X152.98 Y147.18 E583.65575
G1 X153.11 Y147.07 E583.66206
G0 F12000 X153.32 Y147.32
G0 X152.25 Y147.74
G0 X151.34 Y147.01
G0 X144.22 Y144.42
G0 X143.91 Y144.32
G1 F600 X144.19 Y143.38 E583.70028
G1 X144.29 Y142.40 E583.73848
G1 X144.19 Y141.41 E583.77668
G1 X143.91 Y140.47 E583.81490
G1 X143.44 Y139.60 E583.85309
G1 X142.82 Y138.84 E583.89125
G1 X142.06 Y138.21 E583.92948
G1 X141.19 Y137.75 E583.96765
G1 X140.24 Y137.46 E584.00589
G1 X139.26 Y137.37 E584.04408
G1 X138.28 Y137.46 E584.08231
G1 X137.34 Y137.75 E584.12051
G1 X136.47 Y138.21 E584.15868
G1 X135.71 Y138.84 E584.19689
G1 X135.08 Y139.60 E584.23510
G1 X134.62 Y140.47 E584.27319
G1 X134.33 Y141.41 E584.31150
G1 X134.23 Y142.40 E584.34970
G1 X134.33 Y143.38 E584.38789
G1 X134.62 Y144.32 E584.42612
G1 X135.08 Y145.19 E584.46429
G1 X135.71 Y145.95 E584.50250
G1 X136.47 Y146.58 E584.54072
G1 X137.34 Y147.04 E584.57889
G1 X138.28 Y147.33 E584.61708
G1 X139.26 Y147.42 E584.65531
G1 X140.24 Y147.33 E584.69351
G1 X141.19 Y147.04 E584.73174
G1 X142.06 Y146.58 E584.76991
G1 X142.82 Y145.95 E584.80815
G1 X143.44 Y145.19 E584.84630
G1 X143.91 Y144.32 E584.88449
G0 F12000 X144.22 Y144.42
G0 X149.91 Y155.09
G0 X151.78 Y156.10
G0 X153.90 Y155.89
G0 X162.86 Y165.17
G0 X163.07 Y165.42
G1 F600 X162.73 Y165.84 E584.90528
G1 X162.47 Y166.31 E584.92601
G1 X162.32 Y166.82 E584.94679
G1 X162.27 Y167.36 E584.96758
G1 X162.32 Y167.89 E584.98837
G1 X162.47 Y168.40 E585.00915
G1 X162.73 Y168.88 E585.02988
G1 X163.07 Y169.29 E585.05067
G1 X163.48 Y169.63 E585.07145
G1 X163.95 Y169.88 E585.09219
G1 X164.47 Y170.04 E585.11296
G1 X165.00 Y170.09 E585.13375
G1 X165.53 Y170.04 E585.15450
G1 X166.05 Y169.88 E585.17528
G1 X166.52 Y169.63 E585.19601
G1 X166.93 Y169.29 E585.21680
G1 X167.27 Y168.88 E585.23759
G1 X167.53 Y168.40 E585.25832
G1 X167.68 Y167.89 E585.27910
G1 X167.73 Y167.36 E585.29989
G1 X167.68 Y166.82 E585.32068
G1 X167.53 Y166.31 E585.34146
G1 X167.27 Y165.84 E585.36219
G1 X166.93 Y165.42 E585.38298
G1 X166.52 Y165.08 E585.40377
G1 X166.05 Y164.83 E585.42450
G1 X165.53 Y164.67 E585.44528
G1 X165.00 Y164.62 E585.46607
G1 X164.47 Y164.67 E585.48682
G1 X163.95 Y164.83 E585.50759
G1 X163.48 Y165.08 E585.52833
G1 X163.07 Y165.42 E585.54911
G0 F12000 X161.62 Y165.59
;TYPE:FILL
G1 F600 X154.53 Y172.67 E585.93714
G0 F12000 X155.19 Y172.67
G1 F600 X161.24 Y166.63 E586.26823
G0 F12000 X161.16 Y167.36
G1 F600 X155.85 Y172.67 E586.55934
G0 F12000 X156.51 Y172.67
G1 F600 X161.22 Y167.96 E586.81761
G0 F12000 X161.35 Y168.49
G1 F600 X157.17 Y172.67 E587.04683
G0 F12000 X157.83 Y172.67
G1 F600 X161.53 Y168.97 E587.24974
G0 F12000 X161.76 Y169.40
G1 F600 X158.49 Y172.67 E587.42915
G0 F12000 X159.15 Y172.67
G1 F600 X162.04 Y169.77 E587.58796
G0 F12000 X162.35 Y170.12
G1 F600 X159.81 Y172.67 E587.72758
G0 F12000 X160.47 Y172.67
G1 F600 X162.72 Y170.42 E587.85096
G0 F12000 X163.12 Y170.68
G1 F600 X161.12 Y172.67 E587.96023
G0 F12000 X161.78 Y172.67
G1 F600 X163.55 Y170.90 E588.05703
G0 F12000 X164.06 Y171.06
G1 F600 X162.44 Y172.67 E588.14542
G0 F12000 X163.10 Y172.67
G1 F600 X164.62 Y171.15 E588.22863
G0 F12000 X165.27 Y171.16
G1 F600 X163.76 Y172.67 E588.31126
G0 F12000 X164.42 Y172.67
G1 F600 X166.07 Y171.02 E588.40174
G0 F12000 X167.54 Y170.21
G1 F600 X165.08 Y172.67 E588.53668
G0 F12000 X165.74 Y172.67
G1 F600 X170.67 Y167.74 E588.80694
G0 F12000 X170.67 Y168.40
G1 F600 X166.40 Y172.67 E589.04109
G0 F12000 X167.06 Y172.67
G1 F600 X170.67 Y169.06 E589.23913
G0 F12000 X170.67 Y169.72
G1 F600 X167.72 Y172.67 E589.40106
G0 F12000 X168.37 Y172.67
G1 F600 X170.67 Y170.37 E589.52688
G0 F12000 X170.67 Y171.03
G1 F600 X169.03 Y172.67 E589.61658
G0 F12000 X169.69 Y172.67
G1 F600 X170.67 Y171.69 E589.67017
G0 F12000 X170.67 Y172.35
G1 F600 X170.35 Y172.67 E589.68765
G0 F12000 X167.85 Y169.90
G1 F600 X170.67 Y167.08 E589.84207
G0 F12000 X170.67 Y166.42
G1 F600 X168.66 Y168.43 E589.95208
G0 F12000 X168.81 Y167.62
G1 F600 X170.67 Y165.76 E590.05414
G0 F12000 X170.67 Y165.10
G1 F600 X168.80 Y166.98 E590.15683
G0 F12000 X168.70 Y166.41
G1 F600 X170.67 Y164.44 E590.26470
G0 F12000 X170.67 Y163.78
G1 F600 X168.55 Y165.91 E590.38096
G0 F12000 X168.32 Y165.47
G1 F600 X170.67 Y163.12 E590.50968
G0 F12000 X170.67 Y162.47
G1 F600 X168.06 Y165.07 E590.65251
G0 F12000 X167.77 Y164.71
G1 F600 X170.67 Y161.81 E590.81156
G0 F12000 X170.67 Y161.15
G1 F600 X167.42 Y164.40 E590.98987
G0 F12000 X167.04 Y164.12
G1 F600 X170.67 Y160.49 E591.18882
G0 F12000 X170.67 Y159.83
G1 F600 X166.61 Y163.89 E591.41127
G0 F12000 X166.13 Y163.71
G1 F600 X170.67 Y159.17 E591.66003
G0 F12000 X170.67 Y158.51
G1 F600 X165.60 Y163.58 E591.93777
G0 F12000 X165.00 Y163.52
G1 F600 X170.67 Y157.85 E592.24839
G0 F12000 X170.67 Y157.19
G1 F600 X164.27 Y163.59 E592.59902
G0 F12000 X163.23 Y163.97
G1 F600 X170.67 Y156.53 E593.00652
G0 F12000 X170.67 Y155.88
G1 F600 X153.88 Y172.67 E593.92683
G0 F12000 X153.22 Y172.67
G1 F600 X170.67 Y155.22 E594.88325
G0 F12000 X170.67 Y154.56
G1 F600 X152.56 Y172.67 E595.87580
G0 F12000 X151.90 Y172.67
G1 F600 X170.67 Y153.90 E596.90447
G0 F12000 X170.67 Y153.24
G1 F600 X151.24 Y172.67 E597.96925
G0 F12000 X150.58 Y172.67
G1 F600 X170.67 Y152.58 E599.07014
G0 F12000 X170.67 Y151.92
G1 F600 X149.92 Y172.67 E600.20715
G0 F12000 X149.26 Y172.67
G1 F600 X170.67 Y151.26 E601.38027
G0 F12000 X170.67 Y150.60
G1 F600 X148.60 Y172.67 E602.58949
G0 F12000 X147.94 Y172.67
G1 F600 X170.67 Y149.94 E603.83483
G0 F12000 X170.67 Y149.28
G1 F600 X147.28 Y172.67 E605.11629
G0 F12000 X146.63 Y172.67
G1 F600 X170.67 Y148.63 E606.43385
G0 F12000 X170.67 Y147.97
G1 F600 X145.97 Y172.67 E607.78752
G0 F12000 X145.31 Y172.67
G1 F600 X170.67 Y147.31 E609.17731
G0 F12000 X170.67 Y146.65
G1 F600 X144.65 Y172.67 E610.60321
G0 F12000 X143.99 Y172.67
G1 F600 X170.67 Y145.99 E612.06522
G0 F12000 X170.67 Y145.33
G1 F600 X143.33 Y172.67 E613.56335
G0 F12000 X142.67 Y172.67
G1 F600 X160.97 Y154.37 E614.56626
G0 F12000 X160.27 Y154.41
G1 F600 X142.01 Y172.67 E615.56682
G0 F12000 X141.35 Y172.67
G1 F600 X159.75 Y154.28 E616.57483
G0 F12000 X159.33 Y154.03
G1 F600 X154.36 Y159.01 E616.84750
G0 F12000 X154.41 Y158.29
G1 F600 X159.00 Y153.71 E617.09870
G0 F12000 X158.74 Y153.31
G1 F600 X154.28 Y157.76 E617.34293
G0 F12000 X154.05 Y157.34
G1 F600 X158.59 Y152.79 E617.59221
G0 F12000 X158.60 Y152.13
G1 F600 X156.43 Y154.30 E617.71120
G0 F12000 X156.75 Y153.32
G1 F600 X170.67 Y139.40 E618.47377
G0 F12000 X170.67 Y140.06
G1 F600 X160.12 Y150.61 E619.05183
G0 F12000 X160.79 Y150.59
G1 F600 X170.67 Y140.72 E619.59299
G0 F12000 X170.67 Y141.38
G1 F600 X161.30 Y150.75 E620.10656
G0 F12000 X161.71 Y151.00
G1 F600 X170.67 Y142.04 E620.59782
G0 F12000 X170.67 Y142.69
G1 F600 X162.03 Y151.33 E621.07111
G0 F12000 X162.28 Y151.75
G1 F600 X170.67 Y143.35 E621.53103
G0 F12000 X170.67 Y144.01
G1 F600 X162.41 Y152.27 E621.98358
G0 F12000 X162.37 Y152.97
G1 F600 X170.67 Y144.67 E622.43857
G0 F12000 X170.67 Y138.74
G1 F600 X156.83 Y152.59 E623.19720
G0 F12000 X156.78 Y151.97
G1 F600 X170.67 Y138.08 E623.95826
G0 F12000 X170.67 Y137.42
G1 F600 X156.68 Y151.41 E624.72496
G0 F12000 X156.53 Y150.91
G1 F600 X170.67 Y136.76 E625.50008
G0 F12000 X170.67 Y136.10
G1 F600 X156.31 Y150.47 E626.28723
G0 F12000 X156.07 Y150.05
G1 F600 X170.67 Y135.45 E627.08739
G0 F12000 X170.67 Y134.79
G1 F600 X155.77 Y149.69 E627.90383
G0 F12000 X155.45 Y149.34
G1 F600 X170.67 Y134.13 E628.73766
G0 F12000 X170.67 Y133.47
G1 F600 X155.09 Y149.05 E629.59133
G0 F12000 X154.70 Y148.78
G1 F600 X170.67 Y132.81 E630.46665
G0 F12000 X170.49 Y132.33
G1 F600 X154.27 Y148.55 E631.35575
G0 F12000 X153.78 Y148.38
G1 F600 X169.83 Y132.33 E632.23542
G0 F12000 X169.17 Y132.33
G1 F600 X154.30 Y147.21 E633.05068
G0 F12000 X154.43 Y146.41
G1 F600 X168.51 Y132.33 E633.82262
G0 F12000 X167.86 Y132.33
G1 F600 X154.32 Y145.87 E634.56453
G0 F12000 X154.10 Y145.43
G1 F600 X167.20 Y132.33 E635.28238
G0 F12000 X166.54 Y132.33
G1 F600 X153.79 Y145.08 E635.98111
G0 F12000 X153.40 Y144.80
G1 F600 X165.88 Y132.33 E636.66472
G0 F12000 X165.22 Y132.33
G1 F600 X152.93 Y144.62 E637.33818
G0 F12000 X152.30 Y144.59
G1 F600 X164.56 Y132.33 E638.00990
G0 F12000 X163.90 Y132.33
G1 F600 X145.42 Y150.81 E639.02267
G0 F12000 X145.81 Y151.08
G1 F600 X150.58 Y146.31 E639.28428
G0 F12000 X150.62 Y146.93
G1 F600 X146.11 Y151.44 E639.53115
G0 F12000 X146.32 Y151.88
G1 F600 X150.80 Y147.41 E639.77639
G0 F12000 X151.07 Y147.79
G1 F600 X146.43 Y152.44 E640.03077
G0 F12000 X146.28 Y153.25
G1 F600 X148.41 Y151.11 E640.14779
G0 F12000 X148.22 Y151.97
G1 F600 X134.33 Y165.86 E640.90885
G0 F12000 X134.33 Y166.51
G1 F600 X148.18 Y152.66 E641.66788
G0 F12000 X148.24 Y153.26
G1 F600 X134.33 Y167.17 E642.43021
G0 F12000 X134.33 Y167.83
G1 F600 X136.67 Y165.50 E642.55830
G0 F12000 X136.25 Y166.57
G1 F600 X134.33 Y168.49 E642.66348
G0 F12000 X134.33 Y169.15
G1 F600 X136.17 Y167.31 E642.76428
G0 F12000 X136.22 Y167.92
G1 F600 X134.33 Y169.81 E642.86793
G0 F12000 X134.33 Y170.47
G1 F600 X136.34 Y168.45 E642.97835
G0 F12000 X136.52 Y168.94
G1 F600 X134.33 Y171.13 E643.09831
G0 F12000 X134.33 Y171.79
G1 F600 X136.75 Y169.37 E643.23089
G0 F12000 X137.03 Y169.75
G1 F600 X134.33 Y172.45 E643.37871
G0 F12000 X134.76 Y172.67
G1 F600 X137.33 Y170.10 E643.51940
G0 F12000 X137.69 Y170.40
G1 F600 X135.42 Y172.67 E643.64387
G0 F12000 X136.08 Y172.67
G1 F600 X138.09 Y170.66 E643.75396
G0 F12000 X138.52 Y170.89
G1 F600 X136.74 Y172.67 E643.85145
G0 F12000 X137.40 Y172.67
G1 F600 X139.02 Y171.05 E643.94039
G0 F12000 X139.58 Y171.15
G1 F600 X138.06 Y172.67 E644.02376
G0 F12000 X138.72 Y172.67
G1 F600 X140.22 Y171.17 E644.10604
G0 F12000 X141.01 Y171.04
G1 F600 X139.38 Y172.67 E644.19550
G0 F12000 X140.04 Y172.67
G1 F600 X142.30 Y170.40 E644.31973
G0 F12000 X143.05 Y169.66
G1 F600 X152.29 Y160.41 E644.82622
G0 F12000 X151.76 Y160.28
G1 F600 X143.68 Y168.36 E645.26910
G0 F12000 X143.81 Y167.57
G1 F600 X151.35 Y160.04 E645.68200
G0 F12000 X151.01 Y159.72
G1 F600 X143.79 Y166.94 E646.07743
G0 F12000 X143.69 Y166.38
G1 F600 X150.75 Y159.32 E646.46416
G0 F12000 X150.60 Y158.81
G1 F600 X143.54 Y165.87 E646.85115
G0 F12000 X143.31 Y165.44
G1 F600 X150.60 Y158.15 E647.25074
G0 F12000 X150.91 Y156.52
G1 F600 X142.75 Y164.69 E647.69794
G0 F12000 X143.04 Y165.05
G1 F600 X151.41 Y156.68 E648.15655
G0 F12000 X150.47 Y156.31
G1 F600 X142.39 Y164.38 E648.59912
G0 F12000 X142.01 Y164.10
G1 F600 X150.05 Y156.07 E649.03945
G0 F12000 X149.69 Y155.77
G1 F600 X141.58 Y163.87 E649.48348
G0 F12000 X141.10 Y163.70
G1 F600 X149.34 Y155.45 E649.93529
G0 F12000 X149.05 Y155.09
G1 F600 X140.56 Y163.57 E650.40014
G0 F12000 X139.96 Y163.52
G1 F600 X148.78 Y154.70 E650.88387
G0 F12000 X148.55 Y154.27
G1 F600 X139.22 Y163.60 E651.39549
G0 F12000 X138.14 Y164.02
G1 F600 X148.38 Y153.78 E651.95663
G0 F12000 X145.25 Y154.28
G1 F600 X134.33 Y165.20 E652.55486
G0 F12000 X134.33 Y164.54
G1 F600 X144.44 Y154.43 E653.10889
G0 F12000 X143.88 Y154.32
G1 F600 X134.33 Y163.88 E653.63251
G0 F12000 X134.33 Y163.22
G1 F600 X143.44 Y154.11 E654.13181
G0 F12000 X143.09 Y153.80
G1 F600 X134.33 Y162.56 E654.61165
G0 F12000 X134.33 Y161.90
G1 F600 X142.81 Y153.42 E655.07639
G0 F12000 X142.62 Y152.95
G1 F600 X134.33 Y161.24 E655.53080
G0 F12000 X134.33 Y160.58
G1 F600 X142.58 Y152.33 E655.98297
G0 F12000 X144.33 Y150.58
G1 F600 X162.58 Y132.33 E656.98330
G0 F12000 X163.24 Y132.33
G1 F600 X144.95 Y150.62 E657.98578
G0 F12000 X143.46 Y146.84
G1 F600 X134.33 Y155.97 E658.48614
G0 F12000 X134.33 Y156.63
G1 F600 X158.63 Y132.33 E659.81779
G0 F12000 X159.29 Y132.33
G1 F600 X134.33 Y157.29 E661.18555
G0 F12000 X134.33 Y157.95
G1 F600 X159.95 Y132.33 E662.58942
G0 F12000 X160.61 Y132.33
G1 F600 X134.33 Y158.61 E664.02940
G0 F12000 X134.33 Y159.26
G1 F600 X161.27 Y132.33 E665.50549
G0 F12000 X161.93 Y132.33
G1 F600 X134.33 Y159.92 E667.01770
G0 F12000 X134.33 Y155.31
G1 F600 X141.57 Y148.07 E667.41457
G0 F12000 X140.63 Y148.35
G1 F600 X134.33 Y154.65 E667.75969
G0 F12000 X134.33 Y153.99
G1 F600 X139.86 Y148.46 E668.06264
G0 F12000 X139.15 Y148.51
G1 F600 X134.33 Y153.33 E668.32685
G0 F12000 X134.33 Y152.68
G1 F600 X138.55 Y148.45 E668.55821
G0 F12000 X137.97 Y148.38
G1 F600 X134.33 Y152.02 E668.75762
G0 F12000 X134.33 Y151.36
G1 F600 X137.46 Y148.22 E668.92933
G0 F12000 X136.96 Y148.07
G1 F600 X134.33 Y150.70 E669.07339
G0 F12000 X134.33 Y150.04
G1 F600 X136.52 Y147.85 E669.19354
G0 F12000 X136.09 Y147.62
G1 F600 X134.33 Y149.38 E669.29012
G0 F12000 X134.33 Y148.72
G1 F600 X135.69 Y147.36 E669.36481
G0 F12000 X135.33 Y147.06
G1 F600 X134.33 Y148.06 E669.41972
G0 F12000 X134.33 Y147.40
G1 F600 X134.82 Y146.59 E669.45475
G1 X134.33 Y146.74 E669.47459
G0 F12000 X133.90 Y141.33
G0 X134.33 Y138.18
G1 F600 X140.18 Y132.33 E669.79508
G0 F12000 X140.84 Y132.33
G1 F600 X135.88 Y137.28 E670.06649
G0 F12000 X137.17 Y136.65
G1 F600 X141.50 Y132.33 E670.30352
G0 F12000 X142.15 Y132.33
G1 F600 X138.10 Y136.38 E670.52551
G0 F12000 X138.83 Y136.31
G1 F600 X142.81 Y132.33 E670.74355
G0 F12000 X143.47 Y132.33
G1 F600 X139.51 Y136.29 E670.96066
G0 F12000 X140.11 Y136.35
G1 F600 X144.13 Y132.33 E671.18097
G0 F12000 X144.79 Y132.33
G1 F600 X140.67 Y136.45 E671.40671
G0 F12000 X141.18 Y136.60
G1 F600 X145.45 Y132.33 E671.64084
G0 F12000 X146.11 Y132.33
G1 F600 X141.67 Y136.77 E671.88403
G0 F12000 X142.10 Y137.00
G1 F600 X146.77 Y132.33 E672.13977
G0 F12000 X147.43 Y132.33
G1 F600 X142.53 Y137.22 E672.40809
G0 F12000 X142.91 Y137.50
G1 F600 X148.09 Y132.33 E672.69154
G0 F12000 X148.74 Y132.33
G1 F600 X143.27 Y137.80 E672.99128
G0 F12000 X143.63 Y138.10
G1 F600 X149.40 Y132.33 E673.30769
G0 F12000 X150.06 Y132.33
G1 F600 X143.93 Y138.46 E673.64390
G0 F12000 X144.22 Y138.83
G1 F600 X150.72 Y132.33 E673.99995
G0 F12000 X151.38 Y132.33
G1 F600 X144.48 Y139.22 E674.37789
G0 F12000 X144.71 Y139.66
G1 F600 X152.04 Y132.33 E674.77937
G0 F12000 X152.70 Y132.33
G1 F600 X144.94 Y140.09 E675.20468
G0 F12000 X145.09 Y140.60
G1 F600 X153.36 Y132.33 E675.65778
G0 F12000 X154.02 Y132.33
G1 F600 X145.24 Y141.10 E676.13863
G0 F12000 X145.32 Y141.69
G1 F600 X154.68 Y132.33 E676.65138
G0 F12000 X155.34 Y132.33
G1 F600 X145.38 Y142.28 E677.19695
G0 F12000 X145.33 Y142.99
G1 F600 X155.99 Y132.33 E677.78129
G0 F12000 X156.65 Y132.33
G1 F600 X145.22 Y143.76 E678.40782
G0 F12000 X144.94 Y144.71
G1 F600 X157.31 Y132.33 E679.08606
G0 F12000 X157.97 Y132.33
G1 F600 X143.71 Y146.59 E679.86769
G0 F12000 X151.11 Y148.41
G1 F600 X151.43 Y148.10 E679.88485
G0 F12000 X155.09 Y149.91
G0 X156.10 Y151.78
G0 X155.89 Y153.90
G0 X154.54 Y155.55
G0 X154.30 Y156.43
G1 F600 X153.72 Y157.01 E679.91685
G0 F12000 X153.56 Y159.19
G0 X153.01 Y160.36
G1 F600 X140.69 Y172.67 E680.59160
G0 F12000 X137.07 Y168.57
G0 X136.89 Y166.74
G0 X137.76 Y165.12
G0 X133.80 Y142.40
G0 X134.22 Y140.30
G0 X134.33 Y137.52
G1 F600 X139.52 Y132.33 E680.87598
G0 F12000 X138.86 Y132.33
G1 F600 X134.33 Y136.86 E681.12424
G0 F12000 X134.33 Y136.20
G1 F600 X138.20 Y132.33 E681.33639
G0 F12000 X137.54 Y132.33
G1 F600 X134.33 Y135.54 E681.51243
G0 F12000 X134.33 Y134.88
G1 F600 X136.88 Y132.33 E681.65236
G0 F12000 X136.22 Y132.33
G1 F600 X134.33 Y134.22 E681.75617
G0 F12000 X134.33 Y133.56
G1 F600 X135.56 Y132.33 E681.82385
G0 F12000 X134.91 Y132.33
G1 F600 X134.33 Y132.90 E681.85541
;LAYER:2
G0 F12000 X134.16 Y132.16 Z0.70
;TYPE:WALL-INNER
G1 F600 X170.84 Y132.16 E683.27630
G1 X170.84 Y172.84 E684.85219
G1 X134.16 Y172.84 E686.27308
G1 X134.16 Y145.46 E687.33396
G1 X134.30 Y145.71 E687.34518
G1 X135.04 Y146.61 E687.39041
G1 X135.95 Y147.35 E687.43569
G1 X136.98 Y147.91 E687.48103
G1 X138.10 Y148.25 E687.52634
G1 X139.26 Y148.36 E687.57166
G1 X140.42 Y148.25 E687.61695
G1 X141.54 Y147.91 E687.66229
G1 X142.58 Y147.35 E687.70764
G1 X143.48 Y146.61 E687.75295
G1 X144.22 Y145.71 E687.79818
G1 X144.77 Y144.68 E687.84355
G1 X145.11 Y143.56 E687.88888
G1 X145.23 Y142.40 E687.93417
G1 X145.11 Y141.23 E687.97946
G1 X144.77 Y140.11 E688.02479
G1 X144.22 Y139.08 E688.07015
G1 X143.48 Y138.18 E688.11539
G1 X142.58 Y137.44 E688.16070
G1 X141.54 Y136.88 E688.20605
G1 X140.42 Y136.54 E688.25139
G1 X139.26 Y136.43 E688.29667
G1 X138.10 Y136.54 E688.34200
G1 X136.98 Y136.88 E688.38731
G1 X135.95 Y137.44 E688.43264
G1 X135.04 Y138.18 E688.47793
G1 X134.30 Y139.08 E688.52325
G1 X134.16 Y139.34 E688.53444
G1 X134.16 Y132.16 E688.81231
G0 F12000 X143.12 Y138.53
G0 X144.31 Y140.31
G0 X144.72 Y142.40
G0 X144.31 Y144.49
G0 X143.12 Y146.26
G0 X143.82 Y150.87
G1 F600 X143.52 Y151.03 E688.82566
G1 X143.25 Y151.25 E688.83913
G1 X143.03 Y151.52 E688.85260
G1 X142.87 Y151.82 E688.86595
G1 X142.76 Y152.15 E688.87935
G1 X142.73 Y152.50 E688.89290
G1 X142.76 Y152.85 E688.90646
G1 X142.87 Y153.18 E688.91986
G1 X143.03 Y153.48 E688.93321
G1 X143.25 Y153.75 E688.94668
G1 X143.52 Y153.97 E688.96015
G1 X143.82 Y154.13 E688.97350
G1 X144.15 Y154.24 E688.98690
G1 X144.50 Y154.27 E689.00041
G1 X144.85 Y154.24 E689.01401
G1 X145.18 Y154.13 E689.02745
G1 X145.48 Y153.97 E689.04080
G1 X145.75 Y153.75 E689.05427
G1 X145.97 Y153.48 E689.06774
G1 X146.14 Y153.18 E689.08109
G1 X146.24 Y152.84 E689.09470
G1 X146.27 Y152.50 E689.10805
G1 X146.24 Y152.16 E689.12140
G1 X146.14 Y151.82 E689.13500
G1 X145.97 Y151.52 E689.14835
G1 X145.75 Y151.25 E689.16182
G1 X145.48 Y151.03 E689.17529
G1 X145.18 Y150.87 E689.18864
G1 X144.84 Y150.76 E689.20225
G1 X144.50 Y150.73 E689.21564
G1 X144.16 Y150.76 E689.22899
G1 X143.82 Y150.87 E689.24259
G0 F12000 X148.41 Y151.69
G1 F600 X148.33 Y152.50 E689.27429
G1 X148.41 Y153.31 E689.30598
G1 X148.65 Y154.10 E689.33766
G1 X149.03 Y154.82 E689.36929
G1 X149.55 Y155.45 E689.40099
G1 X150.18 Y155.97 E689.43268
G1 X150.90 Y156.35 E689.46432
G1 X151.69 Y156.59 E689.49599
G1 X152.50 Y156.67 E689.52769
G1 X153.31 Y156.59 E689.55938
G1 X154.10 Y156.35 E689.59106
G1 X154.82 Y155.97 E689.62269
G1 X155.45 Y155.45 E689.65439
G1 X155.97 Y154.82 E689.68608
G1 X156.35 Y154.10 E689.71772
G1 X156.59 Y153.31 E689.74939
G1 X156.67 Y152.50 E689.78109
G1 X156.59 Y151.69 E689.81278
G1 X156.35 Y150.90 E689.84446
G1 X155.97 Y150.18 E689.87609
G1 X155.45 Y149.55 E689.90779
G1 X154.82 Y149.03 E689.93948
G1 X154.10 Y148.65 E689.97112
G1 X153.31 Y148.41 E690.00283
G1 X152.50 Y148.33 E690.03448
G1 X151.69 Y148.41 E690.06614
G1 X150.90 Y148.65 E690.09785
G1 X150.18 Y149.03 E690.12948
G1 X149.55 Y149.55 E690.16118
G1 X149.03 Y150.18 E690.19287
G1 X148.65 Y150.90 E690.22451
G1 X148.41 Y151.69 E690.25618
G0 F12000 X151.52 Y147.97
G1 F600 X151.82 Y148.14 E690.26953
G1 X152.15 Y148.24 E690.28293
G1 X152.50 Y148.27 E690.29648
G1 X152.85 Y148.24 E690.31004
G1 X153.18 Y148.14 E690.32344
G1 X153.48 Y147.97 E690.33679
G1 X153.75 Y147.75 E690.35026
G1 X153.97 Y147.48 E690.36373
G1 X154.13 Y147.18 E690.37708
G1 X154.24 Y146.85 E690.39048
G1 X154.27 Y146.50 E690.40400
G1 X154.24 Y146.15 E690.41759
G1 X154.13 Y145.79 E690.43209
G1 X153.93 Y145.46 E690.44703
G1 X153.75 Y145.25 E690.45791
G1 X153.48 Y145.03 E690.47132
G1 X153.18 Y144.87 E690.48467
G1 X152.84 Y144.76 E690.49828
G1 X152.50 Y144.73 E690.51163
G1 X152.16 Y144.76 E690.52498
G1 X151.82 Y144.87 E690.53858
G1 X151.52 Y145.03 E690.55193
G1 X151.25 Y145.25 E690.56540
G1 X151.03 Y145.52 E690.57887
G1 X150.87 Y145.82 E690.59222
G1 X150.76 Y146.15 E690.60567
G1 X150.73 Y146.50 E690.61926
G1 X150.76 Y146.85 E690.63278
G1 X150.87 Y147.18 E690.64618
G1 X151.03 Y147.48 E690.65953
G1 X151.25 Y147.75 E690.67300
G1 X151.52 Y147.97 E690.68647
G0 F12000 X158.86 Y151.82
G1 F600 X158.76 Y152.16 E690.70008
G1 X158.73 Y152.50 E690.71342
G1 X158.76 Y152.84 E690.72677
G1 X158.86 Y153.18 E690.74038
G1 X159.03 Y153.48 E690.75373
G1 X159.25 Y153.75 E690.76720
G1 X159.52 Y153.97 E690.78067
G1 X159.82 Y154.13 E690.79402
G1 X160.15 Y154.24 E690.80747
G1 X160.50 Y154.27 E690.82106
G1 X160.85 Y154.24 E690.83458
G1 X161.18 Y154.13 E690.84797
G1 X161.48 Y153.97 E690.86132
G1 X161.75 Y153.75 E690.87479
G1 X161.97 Y153.48 E690.88827
G1 X162.13 Y153.18 E690.90162
G1 X162.24 Y152.85 E690.91501
G1 X162.27 Y152.50 E690.92857
G1 X162.24 Y152.15 E690.94213
G1 X162.13 Y151.82 E690.95552
G1 X161.97 Y151.52 E690.96887
G1 X161.75 Y151.25 E690.98235
G1 X161.48 Y151.03 E690.99582
G1 X161.18 Y150.87 E691.00917
G1 X160.84 Y150.76 E691.02277
G1 X160.50 Y150.73 E691.03612
G1 X160.16 Y150.76 E691.04951
G1 X159.82 Y150.87 E691.06311
G1 X159.52 Y151.03 E691.07646
G1 X159.25 Y151.25 E691.08993
G1 X159.03 Y151.52 E691.10340
G1 X158.86 Y151.82 E691.11676
G0 F12000 X153.75 Y157.25
G1 F600 X153.48 Y157.03 E691.13023
G1 X153.18 Y156.86 E691.14358
G1 X152.84 Y156.76 E691.15718
G1 X152.50 Y156.73 E691.17053
G1 X152.16 Y156.76 E691.18388
G1 X151.82 Y156.86 E691.19748
G1 X151.52 Y157.03 E691.21083
G1 X151.25 Y157.25 E691.22431
G1 X151.03 Y157.52 E691.23778
G1 X150.87 Y157.82 E691.25113
G1 X150.76 Y158.15 E691.26457
G1 X150.73 Y158.50 E691.27816
G1 X150.76 Y158.85 E691.29168
G1 X150.87 Y159.18 E691.30508
G1 X151.03 Y159.48 E691.31843
G1 X151.25 Y159.75 E691.33190
G1 X151.52 Y159.97 E691.34537
G1 X151.82 Y160.13 E691.35872
G1 X152.15 Y160.24 E691.37212
G1 X152.50 Y160.27 E691.38568
G1 X152.85 Y160.24 E691.39923
G1 X153.18 Y160.13 E691.41263
G1 X153.48 Y159.97 E691.42598
G1 X153.76 Y159.75 E691.43964
G1 X153.97 Y159.47 E691.45324
G1 X154.13 Y159.18 E691.46627
G1 X154.24 Y158.85 E691.47967
G1 X154.27 Y158.50 E691.49319
G1 X154.24 Y158.15 E691.50678
G1 X154.13 Y157.82 E691.52023
G1 X153.97 Y157.52 E691.53358
G1 X153.75 Y157.25 E691.54705
G0 F12000 X162.40 Y164.76
G1 F600 X161.95 Y165.32 E691.57494
G1 X161.61 Y165.95 E691.60282
G1 X161.40 Y166.64 E691.63070
G1 X161.33 Y167.36 E691.65858
G1 X161.40 Y168.07 E691.68646
G1 X161.61 Y168.76 E691.71435
G1 X161.95 Y169.40 E691.74223
G1 X162.40 Y169.95 E691.77012
G1 X162.96 Y170.41 E691.79801
G1 X163.59 Y170.75 E691.82589
G1 X164.28 Y170.96 E691.85378
G1 X165.00 Y171.03 E691.88166
G1 X165.72 Y170.96 E691.90950
G1 X166.40 Y170.75 E691.93738
G1 X167.04 Y170.41 E691.96526
G1 X167.59 Y169.95 E691.99315
G1 X168.05 Y169.40 E692.02105
G1 X168.39 Y168.76 E692.04892
G1 X168.60 Y168.07 E692.07677
G1 X168.67 Y167.36 E692.10469
G1 X168.60 Y166.64 E692.13262
G1 X168.39 Y165.95 E692.16047
G1 X168.05 Y165.32 E692.18834
G1 X167.59 Y164.76 E692.21624
G1 X167.04 Y164.30 E692.24413
G1 X166.40 Y163.96 E692.27200
G1 X165.72 Y163.76 E692.29989
G1 X165.00 Y163.69 E692.32777
G1 X164.28 Y163.76 E692.35561
G1 X163.59 Y163.96 E692.38350
G1 X162.96 Y164.30 E692.41138
G1 X162.40 Y164.76 E692.43927
G0 F12000 X143.60 Y166.64
G1 F600 X143.39 Y165.95 E692.46716
G1 X143.05 Y165.32 E692.49503
G1 X142.60 Y164.76 E692.52292
G1 X142.04 Y164.30 E692.55082
G1 X141.41 Y163.96 E692.57869
G1 X140.72 Y163.76 E692.60658
G1 X140.00 Y163.69 E692.63446
G1 X139.28 Y163.76 E692.66230
G1 X138.60 Y163.96 E692.69019
G1 X137.96 Y164.30 E692.71806
G1 X137.41 Y164.76 E692.74596
G1 X136.95 Y165.32 E692.77385
G1 X136.61 Y165.95 E692.80173
G1 X136.40 Y166.64 E692.82958
G1 X136.33 Y167.36 E692.85750
G1 X136.40 Y168.07 E692.88542
G1 X136.61 Y168.76 E692.91327
G1 X136.95 Y169.40 E692.94115
G1 X137.41 Y169.95 E692.96904
G1 X137.96 Y170.41 E692.99693
G1 X138.60 Y170.75 E693.02481
G1 X139.28 Y170.96 E693.05270
G1 X140.00 Y171.03 E693.08054
G1 X140.72 Y170.96 E693.10842
G1 X141.41 Y170.75 E693.13630
G1 X142.04 Y170.41 E693.16418
G1 X142.60 Y169.95 E693.19207
G1 X143.05 Y169.40 E693.21997
G1 X143.39 Y168.76 E693.24784
G1 X143.60 Y168.07 E693.27573
G1 X143.67 Y167.36 E693.30361
G1 X143.60 Y166.64 E693.33149
G0 F12000 X143.14 Y166.73
G1 F600 X142.96 Y166.13 E693.35582
G1 X142.66 Y165.58 E693.38012
G1 X142.26 Y165.09 E693.40446
G1 X141.78 Y164.69 E693.42881
G1 X141.23 Y164.40 E693.45311
G1 X140.62 Y164.22 E693.47744
G1 X140.00 Y164.15 E693.50177
G1 X139.38 Y164.22 E693.52607
G1 X138.78 Y164.40 E693.55040
G1 X138.22 Y164.69 E693.57470
G1 X137.74 Y165.09 E693.59904
G1 X137.34 Y165.58 E693.62338
G1 X137.04 Y166.13 E693.64769
G1 X136.86 Y166.73 E693.67202
G1 X136.80 Y167.36 E693.69636
G1 X136.86 Y167.98 E693.72070
G1 X137.04 Y168.58 E693.74503
G1 X137.34 Y169.13 E693.76934
G1 X137.74 Y169.62 E693.79368
G1 X138.22 Y170.02 E693.81802
G1 X138.78 Y170.31 E693.84232
G1 X139.38 Y170.50 E693.86665
G1 X140.00 Y170.56 E693.89095
G1 X140.62 Y170.50 E693.91528
G1 X141.23 Y170.31 E693.93961
G1 X141.78 Y170.02 E693.96392
G1 X142.26 Y169.62 E693.98826
G1 X142.66 Y169.13 E694.01260
G1 X142.96 Y168.58 E694.03690
G1 X143.14 Y167.98 E694.06123
G1 X143.20 Y167.36 E694.08557
G1 X143.14 Y166.73 E694.10990
G0 F12000 X151.58 Y159.42
G1 F600 X151.78 Y159.58 E694.11979
G1 X152.00 Y159.70 E694.12965
G1 X152.25 Y159.78 E694.13952
G1 X152.50 Y159.80 E694.14946
G1 X152.75 Y159.78 E694.15939
G1 X153.00 Y159.70 E694.16926
G1 X153.22 Y159.58 E694.17913
G1 X153.42 Y159.42 E694.18912
G1 X153.59 Y159.22 E694.19916
G1 X153.70 Y159.00 E694.20874
G1 X153.78 Y158.75 E694.21862
G1 X153.80 Y158.50 E694.22856
G1 X153.78 Y158.24 E694.23853
G1 X153.70 Y158.00 E694.24841
G1 X153.58 Y157.78 E694.25828
G1 X153.42 Y157.58 E694.26816
G1 X153.22 Y157.42 E694.27805
G1 X153.00 Y157.30 E694.28792
G1 X152.75 Y157.22 E694.29787
G1 X152.50 Y157.20 E694.30772
G1 X152.25 Y157.22 E694.31757
G1 X152.00 Y157.30 E694.32752
G1 X151.78 Y157.42 E694.33738
G1 X151.58 Y157.58 E694.34727
G1 X151.42 Y157.78 E694.35716
G1 X151.30 Y158.00 E694.36703
G1 X151.22 Y158.24 E694.37691
G1 X151.20 Y158.50 E694.38688
G1 X151.22 Y158.75 E694.39681
G1 X151.30 Y159.00 E694.40668
G1 X151.42 Y159.22 E694.41655
G1 X151.58 Y159.42 E694.42643
G0 F12000 X151.33 Y158.01
G0 X151.78 Y156.13
G1 F600 X152.50 Y156.20 E694.45455
G1 X153.22 Y156.13 E694.48266
G1 X153.92 Y155.92 E694.51080
G1 X154.56 Y155.58 E694.53888
G1 X155.12 Y155.12 E694.56702
G1 X155.58 Y154.56 E694.59517
G1 X155.92 Y153.92 E694.62325
G1 X156.13 Y153.22 E694.65139
G1 X156.20 Y152.50 E694.67950
G1 X156.13 Y151.78 E694.70761
G1 X155.92 Y151.08 E694.73576
G1 X155.58 Y150.44 E694.76384
G1 X155.12 Y149.88 E694.79198
G1 X154.56 Y149.42 E694.82012
G1 X153.92 Y149.08 E694.84821
G1 X153.22 Y148.87 E694.87635
G1 X152.50 Y148.80 E694.90446
G1 X151.78 Y148.87 E694.93256
G1 X151.08 Y149.08 E694.96071
G1 X150.44 Y149.42 E694.98879
G1 X149.88 Y149.88 E695.01693
G1 X149.42 Y150.44 E695.04507
G1 X149.08 Y151.08 E695.07316
G1 X148.87 Y151.78 E695.10130
G1 X148.80 Y152.50 E695.12941
G1 X148.87 Y153.22 E695.15752
G1 X149.08 Y153.92 E695.18567
G1 X149.42 Y154.56 E695.21375
G1 X149.88 Y155.12 E695.24189
G1 X150.44 Y155.58 E695.27003
G1 X151.08 Y155.92 E695.29811
G1 X151.78 Y156.13 E695.32626
G0 F12000 X145.70 Y153.00
G1 F600 X145.78 Y152.75 E695.33621
G1 X145.80 Y152.50 E695.34606
G1 X145.78 Y152.25 E695.35591
G1 X145.70 Y152.00 E695.36586
G1 X145.58 Y151.78 E695.37572
G1 X145.42 Y151.58 E695.38561
G1 X145.22 Y151.42 E695.39550
G1 X145.00 Y151.30 E695.40537
G1 X144.75 Y151.22 E695.41536
G1 X144.50 Y151.20 E695.42520
G1 X144.25 Y151.22 E695.43505
G1 X144.00 Y151.30 E695.44501
G1 X143.78 Y151.42 E695.45487
G1 X143.58 Y151.58 E695.46476
G1 X143.42 Y151.78 E695.47465
G1 X143.30 Y152.00 E695.48451
G1 X143.22 Y152.25 E695.49438
G1 X143.20 Y152.50 E695.50432
G1 X143.22 Y152.75 E695.51425
G1 X143.30 Y153.00 E695.52412
G1 X143.42 Y153.22 E695.53399
G1 X143.58 Y153.42 E695.54388
G1 X143.78 Y153.58 E695.55376
G1 X144.00 Y153.70 E695.56363
G1 X144.25 Y153.78 E695.57350
G1 X144.50 Y153.80 E695.58343
G1 X144.76 Y153.78 E695.59340
G1 X145.00 Y153.70 E695.60328
G1 X145.22 Y153.58 E695.61315
G1 X145.42 Y153.42 E695.62304
G1 X145.58 Y153.22 E695.63292
G1 X145.70 Y153.00 E695.64279
G0 F12000 X145.40 Y151.60
G0 X142.31 Y146.97
G1 F600 X143.15 Y146.28 E695.68458
G1 X143.83 Y145.45 E695.72629
G1 X144.34 Y144.50 E695.76805
G1 X144.65 Y143.47 E695.80983
G1 X144.76 Y142.40 E695.85157
G1 X144.65 Y141.32 E695.89331
G1 X144.34 Y140.29 E695.93508
G1 X143.83 Y139.34 E695.97684
G1 X143.15 Y138.51 E696.01855
G1 X142.31 Y137.82 E696.06034
G1 X141.37 Y137.32 E696.10209
G1 X140.33 Y137.00 E696.14387
G1 X139.26 Y136.90 E696.18561
G1 X138.19 Y137.00 E696.22738
G1 X137.16 Y137.32 E696.26913
G1 X136.21 Y137.82 E696.31088
G1 X135.37 Y138.51 E696.35264
G1 X134.69 Y139.34 E696.39441
G1 X134.32 Y140.03 E696.42459
G1 X134.18 Y140.29 E696.43599
G1 X133.96 Y141.03 E696.46622
G1 X133.87 Y141.32 E696.47787
G1 X133.79 Y142.10 E696.50819
G1 X133.76 Y142.39 E696.51964
G1 X133.84 Y143.17 E696.54993
G1 X133.87 Y143.47 E696.56145
G1 X134.18 Y144.50 E696.60320
G1 X134.55 Y145.19 E696.63347
G1 X134.69 Y145.45 E696.64500
G1 X135.37 Y146.28 E696.68671
G1 X136.21 Y146.97 E696.72847
G1 X137.16 Y147.47 E696.77022
G1 X138.19 Y147.79 E696.81197
G1 X139.26 Y147.89 E696.85374
G1 X140.33 Y147.79 E696.89548
G1 X141.37 Y147.47 E696.93727
G1 X142.31 Y146.97 E696.97901
G0 F12000 X151.20 Y146.50
G1 F600 X151.22 Y146.76 E696.98894
G1 X151.30 Y147.00 E696.99881
G1 X151.42 Y147.22 E697.00868
G1 X151.58 Y147.42 E697.01857
G1 X151.78 Y147.58 E697.02845
G1 X152.00 Y147.70 E697.03832
G1 X152.25 Y147.78 E697.04819
G1 X152.50 Y147.80 E697.05812
G1 X152.75 Y147.78 E697.06806
G1 X153.00 Y147.70 E697.07793
G1 X153.22 Y147.58 E697.08779
G1 X153.42 Y147.42 E697.09768
G1 X153.58 Y147.22 E697.10757
G1 X153.70 Y147.00 E697.11744
G1 X153.78 Y146.76 E697.12730
G1 X153.80 Y146.50 E697.13724
G1 X153.78 Y146.25 E697.14721
G1 X153.70 Y145.99 E697.15774
G1 X153.55 Y145.73 E697.16914
G1 X153.42 Y145.58 E697.17685
G1 X153.22 Y145.42 E697.18671
G1 X153.00 Y145.30 E697.19658
G1 X152.75 Y145.22 E697.20653
G1 X152.50 Y145.20 E697.21638
G1 X152.25 Y145.22 E697.22623
G1 X152.00 Y145.30 E697.23618
G1 X151.78 Y145.42 E697.24604
G1 X151.58 Y145.58 E697.25593
G1 X151.42 Y145.78 E697.26582
G1 X151.30 Y146.00 E697.27569
G1 X151.22 Y146.25 E697.28557
G1 X151.20 Y146.50 E697.29554
G0 F12000 X152.01 Y147.67
G0 X159.42 Y151.78
G1 F600 X159.30 Y152.00 E697.30540
G1 X159.22 Y152.25 E697.31535
G1 X159.20 Y152.50 E697.32520
G1 X159.22 Y152.75 E697.33505
G1 X159.30 Y153.00 E697.34500
G1 X159.42 Y153.22 E697.35487
G1 X159.58 Y153.42 E697.36476
G1 X159.78 Y153.58 E697.37464
G1 X160.00 Y153.70 E697.38451
G1 X160.24 Y153.78 E697.39439
G1 X160.50 Y153.80 E697.40436
G1 X160.75 Y153.78 E697.41430
G1 X161.00 Y153.70 E697.42416
G1 X161.22 Y153.58 E697.43403
G1 X161.42 Y153.42 E697.44392
G1 X161.58 Y153.22 E697.45381
G1 X161.70 Y153.00 E697.46367
G1 X161.78 Y152.75 E697.47354
G1 X161.80 Y152.50 E697.48348
G1 X161.78 Y152.25 E697.49341
G1 X161.70 Y152.00 E697.50328
G1 X161.58 Y151.78 E697.51315
G1 X161.42 Y151.58 E697.52303
