;-- START GCODE --
;Sliced for Type A Machines Series 1
;Sliced at: Mon 25-07-2016 23:15:42
;Basic settings: Layer height: 0.2 Walls: 1.4 Fill: 50
;Print Speed: 40 Support: 0
;Retraction Speed: 40 Retraction Distance: 1.2
;Print time: #P_TIME#
;Filament used: #F_AMNT#m #F_WGHT#g
;Filament cost: #F_COST#
M106 S255	 ;start with the fan on
G21        ;metric values
G90        ;absolute positioning
M106 S255    ;start with the fan on
G28     ;move to endstops
G29		;allows for auto-levelling
G1 X150 Y5  Z15.0 F12000 ;center and move the platform down 15mm
M109 S220 ;Heat To temp
G92 E0                  ;zero the extruded length
G1 F200 E30              ;extrude 30mm of feed stock
G92 E0                  ;zero the extruded length again
G1 X175 Y25  Z0 F12000 ;remove bugger
G1 X220 F12000 ;remove bugger
G1 X150 Y150  Z15 F12000 ;recenter and begin
G1 F12000

;Layer count: 7
;LAYER:0
M106 S255
G0 F12000 X6.12 Y8.83 Z0.30
;TYPE:SKIRT
G1 F2400 X81.75 Y8.83 E4.39577
G1 X81.75 Y79.46 E8.50094
G1 X6.12 Y79.46 E12.89671
G1 X6.12 Y8.83 E17.00187
G0 F12000 X6.58 Y9.30
G1 F2400 X81.28 Y9.30 E21.34348
G1 X81.28 Y78.99 E25.39447
G1 X6.58 Y78.99 E29.73607
G1 X6.58 Y9.30 E33.78707
G0 F12000 X7.05 Y9.76
G1 F2400 X80.81 Y9.76 E38.07450
G1 X80.81 Y78.53 E42.07132
G1 X7.05 Y78.53 E46.35876
G1 X7.05 Y9.76 E50.35558
G0 F12000 X7.51 Y10.23
G1 F2400 X80.35 Y10.23 E54.58884
G1 X80.35 Y78.06 E58.53150
G1 X7.51 Y78.06 E62.76476
G1 X7.51 Y10.23 E66.70742
G0 F12000 X7.98 Y10.69
G1 F2400 X79.88 Y10.69 E70.88651
G1 X79.88 Y77.60 E74.77499
G1 X7.98 Y77.60 E78.95409
G1 X7.98 Y10.69 E82.84257
G0 F12000 X8.45 Y11.16
G1 F2400 X79.42 Y11.16 E86.96750
G1 X79.42 Y77.13 E90.80181
G1 X8.45 Y77.13 E94.92673
G1 X8.45 Y11.16 E98.76105
G0 F12000 X8.91 Y11.63
G1 F2400 X78.95 Y11.63 E102.83180
G1 X78.95 Y76.66 E106.61195
G1 X8.91 Y76.66 E110.68270
G1 X8.91 Y11.63 E114.46285
G0 F12000 X9.38 Y12.09
G1 F2400 X78.48 Y12.09 E118.47943
G1 X78.48 Y76.20 E122.20541
G1 X9.38 Y76.20 E126.22199
G1 X9.38 Y12.09 E129.94796
G0 F12000 X9.85 Y12.56
G1 F2400 X78.02 Y12.56 E133.91038
G1 X78.02 Y75.73 E137.58218
G1 X9.85 Y75.73 E141.54460
G1 X9.85 Y12.56 E145.21640
G0 F12000 X10.31 Y13.02
G1 F2400 X77.55 Y13.02 E149.12465
G1 X77.55 Y75.27 E152.74228
G1 X10.31 Y75.27 E156.65053
G1 X10.31 Y13.02 E160.26816
G0 F12000 X10.78 Y13.49
G1 F2400 X77.09 Y13.49 E164.12224
G1 X77.09 Y74.80 E167.68571
G1 X10.78 Y74.80 E171.53978
G1 X10.78 Y13.49 E175.10325
G0 F12000 X11.24 Y13.96
G1 F2400 X76.62 Y13.96 E178.90315
G1 X76.62 Y74.33 E182.41245
G1 X11.24 Y74.33 E186.21235
G1 X11.24 Y13.96 E189.72165
G0 F12000 X11.71 Y14.42
G1 F2400 X76.16 Y14.42 E193.46738
G1 X76.16 Y73.87 E196.92251
G1 X11.71 Y73.87 E200.66825
G1 X11.71 Y14.42 E204.12337
G0 F12000 X12.18 Y14.89
G1 F2400 X75.69 Y14.89 E207.81494
G1 X75.69 Y73.40 E211.21589
G1 X12.18 Y73.40 E214.90746
G1 X12.18 Y14.89 E218.30841
G0 F12000 X12.64 Y15.35
G1 F2400 X75.22 Y15.35 E221.94581
G1 X75.22 Y72.94 E225.29260
G1 X12.64 Y72.94 E228.92999
G1 X12.64 Y15.35 E232.27678
G0 F12000 X13.11 Y15.82
G1 F2400 X74.76 Y15.82 E235.86001
G1 X74.76 Y72.47 E239.15262
G1 X13.11 Y72.47 E242.73585
G1 X13.11 Y15.82 E246.02847
G0 F12000 X13.57 Y16.29
G1 F2400 X74.29 Y16.29 E249.55752
G1 X74.29 Y72.00 E252.79597
G1 X13.57 Y72.00 E256.32503
G1 X13.57 Y16.29 E259.56347
G0 F12000 X14.04 Y16.75
G1 F2400 X73.83 Y16.75 E263.03836
G1 X73.83 Y71.54 E266.22264
G1 X14.04 Y71.54 E269.69752
G1 X14.04 Y16.75 E272.88180
G0 F12000 X14.51 Y17.22
G1 F2400 X73.36 Y17.22 E276.30252
G1 X73.36 Y71.07 E279.43262
G1 X14.51 Y71.07 E282.85334
G1 X14.51 Y17.22 E285.98345
G0 F12000 X14.97 Y17.68
G1 F2400 X72.89 Y17.68 E289.34999
G1 X72.89 Y70.61 E292.42593
G1 X14.97 Y70.61 E295.79248
G1 X14.97 Y17.68 E298.86842
G0 F12000 X15.44 Y18.15
G1 F2400 X72.43 Y18.15 E302.18079
G1 X72.43 Y70.14 E305.20256
G1 X15.44 Y70.14 E308.51494
G1 X15.44 Y18.15 E311.53671
G0 F12000 X15.90 Y18.62
G1 F2400 X71.96 Y18.62 E314.79491
G1 X71.96 Y69.67 E317.76251
G1 X15.90 Y69.67 E321.02072
G1 X15.90 Y18.62 E323.98832
G0 F12000 X16.37 Y19.08
G1 F2400 X71.50 Y19.08 E327.19235
G1 X71.50 Y69.21 E330.10578
G1 X16.37 Y69.21 E333.30982
G1 X16.37 Y19.08 E336.22325
G0 F12000 X16.84 Y19.55
G1 F2400 X71.03 Y19.55 E339.37312
G1 X71.03 Y68.74 E342.23237
G1 X16.84 Y68.74 E345.38224
G1 X16.84 Y19.55 E348.24150
G0 F12000 X17.30 Y20.01
G1 F2400 X70.56 Y20.01 E351.33720
G1 X70.56 Y68.28 E354.14229
G1 X17.30 Y68.28 E357.23799
G1 X17.30 Y20.01 E360.04307
G0 F12000 X17.77 Y20.48
G1 F2400 X70.10 Y20.48 E363.08460
G1 X70.10 Y67.81 E365.83552
G1 X17.77 Y67.81 E368.87705
G1 X17.77 Y20.48 E371.62797
G0 F12000 X18.23 Y20.95
G1 F2400 X69.63 Y20.95 E374.61533
G1 X69.63 Y67.34 E377.31208
G1 X18.23 Y67.34 E380.29943
G1 X18.23 Y20.95 E382.99618
G0 F12000 X18.70 Y21.41
G1 F2400 X69.17 Y21.41 E385.92937
G1 X69.17 Y66.88 E388.57195
G1 X18.70 Y66.88 E391.50514
G1 X18.70 Y21.41 E394.14772
G0 F12000 X27.47 Y30.82
G1 F2400 X26.90 Y31.51 E394.19984
G1 X26.48 Y32.29 E394.25150
G1 X26.22 Y33.15 E394.30361
G1 X26.13 Y34.04 E394.35553
G1 X26.22 Y34.93 E394.40751
G1 X26.48 Y35.79 E394.45962
G1 X26.90 Y36.57 E394.51129
G1 X27.47 Y37.26 E394.56341
G1 X28.16 Y37.83 E394.61540
G1 X28.94 Y38.25 E394.66714
G1 X29.80 Y38.51 E394.71930
G1 X30.69 Y38.60 E394.77123
G1 X31.58 Y38.51 E394.82321
G1 X32.44 Y38.25 E394.87532
G1 X33.23 Y37.83 E394.92706
G1 X33.92 Y37.26 E394.97910
G1 X34.49 Y36.57 E395.03121
G1 X34.91 Y35.79 E395.08288
G1 X35.16 Y34.93 E395.13499
G1 X35.25 Y34.04 E395.18697
G1 X35.16 Y33.15 E395.23889
G1 X34.91 Y32.29 E395.29100
G1 X34.49 Y31.51 E395.34267
G1 X33.92 Y30.82 E395.39478
G1 X33.22 Y30.25 E395.44690
G1 X32.44 Y29.83 E395.49857
G1 X31.58 Y29.57 E395.55067
G1 X30.69 Y29.48 E395.60266
G1 X29.80 Y29.57 E395.65458
G1 X28.94 Y29.83 E395.70674
G1 X28.16 Y30.25 E395.75841
G1 X27.47 Y30.82 E395.81048
G0 F12000 X27.80 Y31.14
G1 F2400 X27.29 Y31.77 E395.85744
G1 X26.91 Y32.47 E395.90357
G1 X26.68 Y33.24 E395.95034
G1 X26.60 Y34.04 E395.99700
G1 X26.68 Y34.84 E396.04372
G1 X26.91 Y35.61 E396.09050
G1 X27.29 Y36.31 E396.13663
G1 X27.80 Y36.93 E396.18358
G1 X28.42 Y37.44 E396.23034
G1 X29.12 Y37.82 E396.27654
G1 X29.89 Y38.05 E396.32337
G1 X30.69 Y38.13 E396.37003
G1 X31.49 Y38.05 E396.41675
G1 X32.26 Y37.82 E396.46353
G1 X32.96 Y37.45 E396.50965
G1 X33.59 Y36.93 E396.55657
G1 X34.10 Y36.31 E396.60348
G1 X34.47 Y35.61 E396.64961
G1 X34.71 Y34.84 E396.69639
G1 X34.78 Y34.04 E396.74310
G1 X34.71 Y33.24 E396.78977
G1 X34.47 Y32.47 E396.83654
G1 X34.10 Y31.77 E396.88267
G1 X33.59 Y31.15 E396.92958
G1 X32.96 Y30.63 E396.97650
G1 X32.26 Y30.26 E397.02263
G1 X31.49 Y30.03 E397.06940
G1 X30.69 Y29.95 E397.11612
G1 X29.89 Y30.03 E397.16278
G1 X29.12 Y30.26 E397.20961
G1 X28.42 Y30.64 E397.25582
G1 X27.80 Y31.14 E397.30257
G0 F12000 X28.13 Y31.47
G1 F2400 X27.68 Y32.03 E397.34432
G1 X27.35 Y32.65 E397.38517
G1 X27.14 Y33.34 E397.42690
G1 X27.07 Y34.04 E397.46796
G1 X27.14 Y34.74 E397.50902
G1 X27.35 Y35.43 E397.55081
G1 X27.68 Y36.05 E397.59166
G1 X28.13 Y36.60 E397.63341
G1 X28.68 Y37.05 E397.67441
G1 X29.30 Y37.39 E397.71552
G1 X29.99 Y37.59 E397.75719
G1 X30.69 Y37.66 E397.79831
G1 X31.40 Y37.59 E397.83942
G1 X32.08 Y37.39 E397.88116
G1 X32.70 Y37.05 E397.92201
G1 X33.26 Y36.60 E397.96351
G1 X33.71 Y36.05 E398.00501
G1 X34.04 Y35.43 E398.04586
G1 X34.25 Y34.74 E398.08760
G1 X34.32 Y34.04 E398.12871
G1 X34.25 Y33.34 E398.16971
G1 X34.04 Y32.65 E398.21150
G1 X33.71 Y32.03 E398.25235
G1 X33.26 Y31.48 E398.29386
G1 X32.70 Y31.02 E398.33536
G1 X32.08 Y30.69 E398.37621
G1 X31.40 Y30.48 E398.41795
G1 X30.69 Y30.41 E398.45906
G1 X29.99 Y30.48 E398.50018
G1 X29.30 Y30.69 E398.54185
G1 X28.68 Y31.03 E398.58296
G1 X28.13 Y31.47 E398.62396
G0 F12000 X28.46 Y31.81
G1 F2400 X28.07 Y32.29 E398.65973
G1 X27.78 Y32.83 E398.69553
G1 X27.60 Y33.43 E398.73179
G1 X27.54 Y34.04 E398.76759
G1 X27.60 Y34.65 E398.80345
G1 X27.78 Y35.25 E398.83971
G1 X28.07 Y35.79 E398.87551
G1 X28.46 Y36.27 E398.91128
G1 X28.94 Y36.66 E398.94754
G1 X29.48 Y36.95 E398.98319
G1 X30.08 Y37.13 E399.01939
G1 X30.69 Y37.20 E399.05525
G1 X31.31 Y37.13 E399.09110
G1 X31.90 Y36.95 E399.12736
G1 X32.45 Y36.66 E399.16317
G1 X32.92 Y36.27 E399.19910
G1 X33.32 Y35.79 E399.23503
G1 X33.61 Y35.25 E399.27084
G1 X33.79 Y34.65 E399.30709
G1 X33.85 Y34.04 E399.34295
G1 X33.79 Y33.43 E399.37875
G1 X33.61 Y32.83 E399.41501
G1 X33.32 Y32.29 E399.45082
G1 X32.92 Y31.81 E399.48675
G1 X32.45 Y31.42 E399.52268
G1 X31.90 Y31.12 E399.55848
G1 X31.31 Y30.94 E399.59474
G1 X30.69 Y30.88 E399.63060
G1 X30.08 Y30.94 E399.66645
G1 X29.48 Y31.12 E399.70266
G1 X28.94 Y31.41 E399.73831
G1 X28.46 Y31.81 E399.77456
G0 F12000 X28.79 Y32.14
G1 F2400 X28.46 Y32.55 E399.80521
G1 X28.21 Y33.01 E399.83548
G1 X28.06 Y33.52 E399.86644
G1 X28.00 Y34.04 E399.89693
G1 X28.06 Y34.56 E399.92748
G1 X28.21 Y35.07 E399.95844
G1 X28.46 Y35.53 E399.98871
G1 X28.79 Y35.94 E400.01936
G1 X29.20 Y36.28 E400.05033
G1 X29.66 Y36.52 E400.08036
G1 X30.17 Y36.67 E400.11140
G1 X30.69 Y36.73 E400.14189
G1 X31.21 Y36.67 E400.17244
G1 X31.73 Y36.52 E400.20340
G1 X32.18 Y36.27 E400.23367
G1 X32.59 Y35.94 E400.26440
G1 X32.93 Y35.53 E400.29513
G1 X33.17 Y35.07 E400.32540
G1 X33.33 Y34.56 E400.35636
G1 X33.38 Y34.04 E400.38691
G1 X33.33 Y33.52 E400.41740
G1 X33.17 Y33.01 E400.44836
G1 X32.93 Y32.55 E400.47863
G1 X32.59 Y32.14 E400.50936
G1 X32.18 Y31.80 E400.54009
G1 X31.73 Y31.56 E400.57035
G1 X31.21 Y31.40 E400.60132
G1 X30.69 Y31.35 E400.63187
G1 X30.17 Y31.40 E400.66236
G1 X29.66 Y31.56 E400.69339
G1 X29.20 Y31.80 E400.72342
G1 X28.79 Y32.14 E400.75440
G0 F12000 X41.63 Y42.61
G1 F2400 X41.38 Y43.09 E400.78628
G1 X41.22 Y43.60 E400.81748
G1 X41.17 Y44.15 E400.84908
G1 X41.22 Y44.69 E400.88068
G1 X41.38 Y45.20 E400.91188
G1 X41.63 Y45.68 E400.94376
G1 X41.98 Y46.10 E400.97510
G1 X42.40 Y46.45 E401.00677
G1 X42.87 Y46.70 E401.03816
G1 X43.39 Y46.86 E401.06960
G1 X43.93 Y46.91 E401.10120
G1 X44.47 Y46.86 E401.13280
G1 X44.99 Y46.70 E401.16424
G1 X45.47 Y46.45 E401.19563
G1 X45.89 Y46.10 E401.22726
G1 X46.23 Y45.68 E401.25889
G1 X46.49 Y45.20 E401.29027
G1 X46.64 Y44.69 E401.32172
G1 X46.70 Y44.15 E401.35332
G1 X46.64 Y43.60 E401.38492
G1 X46.49 Y43.09 E401.41636
G1 X46.23 Y42.61 E401.44775
G1 X45.89 Y42.19 E401.47937
G1 X45.47 Y41.84 E401.51100
G1 X44.99 Y41.59 E401.54239
G1 X44.47 Y41.43 E401.57383
G1 X43.93 Y41.38 E401.60543
G1 X43.39 Y41.43 E401.63703
G1 X42.87 Y41.59 E401.66847
G1 X42.40 Y41.84 E401.69986
G1 X41.98 Y42.19 E401.73153
G1 X41.63 Y42.61 E401.76287
G0 F12000 X40.46 Y41.83
;TYPE:WALL-INNER
G1 F2400 X40.08 Y42.55 E401.81051
G1 X39.84 Y43.33 E401.85798
G1 X39.78 Y43.95 E401.89396
G1 X39.76 Y44.14 E401.90535
G1 X39.84 Y44.96 E401.95296
G1 X40.08 Y45.74 E402.00043
G1 X40.46 Y46.46 E402.04807
G1 X40.98 Y47.09 E402.09559
G1 X41.61 Y47.61 E402.14300
G1 X42.34 Y48.00 E402.19061
G1 X43.12 Y48.23 E402.23814
G1 X43.93 Y48.32 E402.28563
G1 X44.74 Y48.23 E402.33312
G1 X45.53 Y48.00 E402.38065
G1 X46.25 Y47.61 E402.42826
G1 X46.88 Y47.09 E402.47571
G1 X47.40 Y46.46 E402.52316
G1 X47.79 Y45.74 E402.57077
G1 X48.02 Y44.96 E402.61831
G1 X48.10 Y44.15 E402.66579
G1 X48.02 Y43.33 E402.71328
G1 X47.79 Y42.55 E402.76081
G1 X47.40 Y41.83 E402.80842
G1 X46.88 Y41.20 E402.85587
G1 X46.25 Y40.68 E402.90332
G1 X45.53 Y40.29 E402.95094
G1 X44.74 Y40.05 E402.99847
G1 X43.93 Y39.97 E403.04596
G1 X43.12 Y40.05 E403.09344
G1 X42.34 Y40.29 E403.14097
G1 X41.61 Y40.68 E403.18859
G1 X40.98 Y41.20 E403.23599
G1 X40.46 Y41.83 E403.28352
G0 F12000 X42.71 Y39.43
G1 F2400 X42.99 Y39.64 E403.30380
G1 X43.28 Y39.79 E403.32307
G1 X43.58 Y39.88 E403.34118
G1 X43.94 Y39.92 E403.36221
G1 X44.32 Y39.87 E403.38428
G1 X44.65 Y39.76 E403.40437
G1 X44.95 Y39.59 E403.42457
G1 X45.21 Y39.36 E403.44480
G1 X45.43 Y39.09 E403.46509
G1 X45.58 Y38.79 E403.48435
G1 X45.67 Y38.49 E403.50246
G1 X45.70 Y38.13 E403.52349
G1 X45.66 Y37.76 E403.54562
G1 X45.55 Y37.42 E403.56590
G1 X45.38 Y37.12 E403.58602
G1 X45.15 Y36.86 E403.60608
G1 X44.88 Y36.65 E403.62637
G1 X44.58 Y36.50 E403.64563
G1 X44.28 Y36.41 E403.66374
G1 X43.92 Y36.37 E403.68478
G1 X43.54 Y36.42 E403.70691
G1 X43.21 Y36.53 E403.72718
G1 X42.91 Y36.70 E403.74730
G1 X42.65 Y36.93 E403.76737
G1 X42.44 Y37.20 E403.78766
G1 X42.29 Y37.49 E403.80661
G1 X42.20 Y37.80 E403.82501
G1 X42.16 Y38.16 E403.84608
G1 X42.20 Y38.53 E403.86820
G1 X42.32 Y38.87 E403.88876
G1 X42.49 Y39.17 E403.90862
G1 X42.71 Y39.43 E403.92869
G0 F12000 X37.38 Y43.12
G1 F2400 X37.15 Y42.86 E403.94876
G1 X36.88 Y42.65 E403.96905
G1 X36.58 Y42.50 E403.98831
G1 X36.28 Y42.41 E404.00642
G1 X35.92 Y42.37 E404.02745
G1 X35.54 Y42.42 E404.04958
G1 X35.21 Y42.53 E404.06986
G1 X34.91 Y42.70 E404.08998
G1 X34.65 Y42.93 E404.11004
G1 X34.44 Y43.20 E404.13033
G1 X34.29 Y43.49 E404.14928
G1 X34.20 Y43.80 E404.16768
G1 X34.16 Y44.16 E404.18876
G1 X34.20 Y44.53 E404.21087
G1 X34.32 Y44.87 E404.23144
G1 X34.49 Y45.17 E404.25130
G1 X34.71 Y45.43 E404.27136
G1 X34.99 Y45.64 E404.29165
G1 X35.28 Y45.79 E404.31091
G1 X35.58 Y45.88 E404.32902
G1 X35.94 Y45.92 E404.35006
G1 X36.32 Y45.87 E404.37213
G1 X36.65 Y45.76 E404.39222
G1 X36.95 Y45.59 E404.41241
G1 X37.21 Y45.36 E404.43265
G1 X37.43 Y45.09 E404.45293
G1 X37.58 Y44.79 E404.47220
G1 X37.67 Y44.49 E404.49031
G1 X37.70 Y44.13 E404.51134
G1 X37.66 Y43.76 E404.53347
G1 X37.55 Y43.42 E404.55374
G1 X37.38 Y43.12 E404.57387
G0 F12000 X34.01 Y39.00
G1 F2400 X34.91 Y38.26 E404.64189
G1 X35.65 Y37.35 E404.70991
G1 X36.20 Y36.32 E404.77782
G1 X36.54 Y35.20 E404.84580
G1 X36.66 Y34.04 E404.91378
G1 X36.54 Y32.88 E404.98176
G1 X36.20 Y31.76 E405.04968
G1 X35.65 Y30.73 E405.11760
G1 X34.91 Y29.82 E405.18562
G1 X34.01 Y29.08 E405.25364
G1 X32.98 Y28.53 E405.32156
G1 X31.86 Y28.19 E405.38953
G1 X30.69 Y28.07 E405.45752
G1 X29.53 Y28.19 E405.52544
G1 X28.41 Y28.53 E405.59345
G1 X27.38 Y29.08 E405.66143
G1 X26.47 Y29.82 E405.72937
G1 X25.73 Y30.73 E405.79738
G1 X25.18 Y31.76 E405.86530
G1 X24.84 Y32.88 E405.93328
G1 X24.73 Y34.04 E406.00126
G1 X24.84 Y35.20 E406.06924
G1 X25.18 Y36.32 E406.13716
G1 X25.73 Y37.35 E406.20508
G1 X26.47 Y38.26 E406.27310
G1 X27.38 Y39.00 E406.34104
G1 X28.41 Y39.55 E406.40901
G1 X29.53 Y39.89 E406.47702
G1 X30.69 Y40.01 E406.54495
G1 X31.86 Y39.89 E406.61293
G1 X32.98 Y39.55 E406.68091
G1 X34.01 Y39.00 E406.74882
G0 F12000 X42.65 Y48.93
G1 F2400 X42.44 Y49.20 E406.76911
G1 X42.29 Y49.49 E406.78806
G1 X42.20 Y49.80 E406.80646
G1 X42.16 Y50.16 E406.82754
G1 X42.20 Y50.53 E406.84965
G1 X42.32 Y50.87 E406.87022
G1 X42.49 Y51.17 E406.89008
G1 X42.71 Y51.43 E406.91015
G1 X42.99 Y51.64 E406.93043
G1 X43.28 Y51.79 E406.94969
G1 X43.58 Y51.88 E406.96780
G1 X43.94 Y51.92 E406.98884
G1 X44.32 Y51.87 E407.01091
G1 X44.65 Y51.76 E407.03100
G1 X44.95 Y51.59 E407.05120
G1 X45.21 Y51.36 E407.07143
G1 X45.43 Y51.09 E407.09172
G1 X45.58 Y50.79 E407.11098
G1 X45.67 Y50.49 E407.12909
G1 X45.70 Y50.13 E407.15012
G1 X45.66 Y49.76 E407.17225
G1 X45.55 Y49.42 E407.19253
G1 X45.38 Y49.12 E407.21265
G1 X45.15 Y48.86 E407.23271
G1 X44.88 Y48.65 E407.25300
G1 X44.58 Y48.50 E407.27226
G1 X44.28 Y48.41 E407.29037
G1 X43.92 Y48.37 E407.31141
G1 X43.54 Y48.42 E407.33354
G1 X43.21 Y48.53 E407.35381
G1 X42.91 Y48.70 E407.37393
G1 X42.65 Y48.93 E407.39400
G0 F12000 X50.32 Y44.87
G1 F2400 X50.49 Y45.17 E407.41386
G1 X50.71 Y45.43 E407.43393
G1 X50.99 Y45.64 E407.45422
G1 X51.28 Y45.79 E407.47348
G1 X51.58 Y45.88 E407.49159
G1 X51.94 Y45.92 E407.51262
G1 X52.32 Y45.87 E407.53470
G1 X52.65 Y45.76 E407.55478
G1 X52.95 Y45.59 E407.57498
G1 X53.21 Y45.36 E407.59521
G1 X53.43 Y45.09 E407.61550
G1 X53.58 Y44.79 E407.63476
G1 X53.67 Y44.49 E407.65287
G1 X53.70 Y44.13 E407.67390
G1 X53.66 Y43.76 E407.69603
G1 X53.55 Y43.42 E407.71631
G1 X53.38 Y43.12 E407.73643
G1 X53.15 Y42.86 E407.75650
G1 X52.88 Y42.65 E407.77678
G1 X52.58 Y42.50 E407.79604
G1 X52.28 Y42.41 E407.81415
G1 X51.92 Y42.37 E407.83519
G1 X51.54 Y42.42 E407.85732
G1 X51.21 Y42.53 E407.87759
G1 X50.91 Y42.70 E407.89772
G1 X50.65 Y42.93 E407.91778
G1 X50.44 Y43.20 E407.93807
G1 X50.29 Y43.49 E407.95702
G1 X50.20 Y43.80 E407.97542
G1 X50.16 Y44.16 E407.99650
G1 X50.20 Y44.53 E408.01861
G1 X50.32 Y44.87 E408.03917
G0 F12000 X55.03 Y55.61
G1 F2400 X54.39 Y55.95 E408.08109
G1 X53.84 Y56.41 E408.12293
G1 X53.38 Y56.96 E408.16477
G1 X53.04 Y57.60 E408.20658
G1 X52.83 Y58.29 E408.24841
G1 X52.76 Y59.00 E408.29023
G1 X52.83 Y59.72 E408.33200
G1 X53.04 Y60.41 E408.37383
G1 X53.38 Y61.04 E408.41564
G1 X53.84 Y61.60 E408.45748
G1 X54.39 Y62.05 E408.49932
G1 X55.03 Y62.39 E408.54105
G1 X55.72 Y62.60 E408.58292
G1 X56.43 Y62.67 E408.62480
G1 X57.15 Y62.60 E408.66667
G1 X57.84 Y62.39 E408.70854
G1 X58.47 Y62.05 E408.75027
G1 X59.03 Y61.60 E408.79211
G1 X59.49 Y61.04 E408.83415
G1 X59.83 Y60.39 E408.87697
G1 X60.03 Y59.72 E408.91759
G1 X60.10 Y59.00 E408.95935
G1 X60.03 Y58.29 E409.00117
G1 X59.82 Y57.60 E409.04300
G1 X59.48 Y56.96 E409.08482
G1 X59.03 Y56.41 E409.12665
G1 X58.47 Y55.95 E409.16849
G1 X57.84 Y55.61 E409.21031
G1 X57.15 Y55.40 E409.25214
G1 X56.43 Y55.33 E409.29402
G1 X55.72 Y55.40 E409.33543
G1 X55.03 Y55.61 E409.37748
G0 F12000 X35.03 Y58.29
G1 F2400 X34.82 Y57.60 E409.41932
G1 X34.48 Y56.96 E409.46113
G1 X34.03 Y56.41 E409.50297
G1 X33.47 Y55.95 E409.54481
G1 X32.84 Y55.61 E409.58662
G1 X32.15 Y55.40 E409.62845
G1 X31.43 Y55.33 E409.67027
G1 X30.72 Y55.40 E409.71209
G1 X30.03 Y55.61 E409.75392
G1 X29.39 Y55.95 E409.79574
G1 X28.84 Y56.41 E409.83758
G1 X28.38 Y56.96 E409.87942
G1 X28.04 Y57.60 E409.92123
G1 X27.83 Y58.29 E409.96306
G1 X27.76 Y59.00 E410.00488
G1 X27.83 Y59.72 E410.04664
G1 X28.04 Y60.41 E410.08847
G1 X28.38 Y61.04 E410.13029
G1 X28.84 Y61.60 E410.17213
G1 X29.39 Y62.05 E410.21397
G1 X30.03 Y62.39 E410.25570
G1 X30.71 Y62.60 E410.29757
G1 X31.43 Y62.67 E410.33944
G1 X32.15 Y62.60 E410.38132
G1 X32.84 Y62.39 E410.42318
G1 X33.47 Y62.05 E410.46492
G1 X34.03 Y61.60 E410.50676
G1 X34.48 Y61.04 E410.54860
G1 X34.82 Y60.41 E410.59041
G1 X35.03 Y59.72 E410.63224
G1 X35.10 Y59.00 E410.67401
G1 X35.03 Y58.29 E410.71582
G0 F12000 X33.67 Y61.24
G0 X32.05 Y62.11
G0 X30.22 Y61.93
G0 X20.10 Y65.48
G1 F2400 X20.10 Y22.81 E413.19589
G1 X67.77 Y22.81 E415.96657
G1 X67.77 Y65.48 E418.44664
G1 X20.10 Y65.48 E421.21732
G0 F12000 X19.63 Y65.95
G1 F2400 X19.63 Y22.34 E423.75156
G1 X68.23 Y22.34 E426.57641
G1 X68.23 Y65.95 E429.11065
G1 X19.63 Y65.95 E431.93550
G0 F12000 X28.77 Y60.78
G1 F2400 X29.17 Y61.27 E431.97201
G1 X29.65 Y61.66 E432.00852
G1 X30.21 Y61.96 E432.04498
G1 X30.81 Y62.14 E432.08149
G1 X31.43 Y62.20 E432.11799
G1 X32.06 Y62.14 E432.15449
G1 X32.66 Y61.96 E432.19101
G1 X33.21 Y61.66 E432.22746
G1 X33.70 Y61.27 E432.26397
G1 X34.09 Y60.78 E432.30048
G1 X34.39 Y60.23 E432.33694
G1 X34.57 Y59.63 E432.37344
G1 X34.63 Y59.00 E432.40988
G1 X34.57 Y58.38 E432.44638
G1 X34.39 Y57.78 E432.48288
G1 X34.09 Y57.22 E432.51933
G1 X33.70 Y56.74 E432.55584
G1 X33.21 Y56.34 E432.59235
G1 X32.66 Y56.04 E432.62881
G1 X32.06 Y55.86 E432.66531
G1 X31.43 Y55.80 E432.70181
G1 X30.81 Y55.86 E432.73831
G1 X30.21 Y56.04 E432.77480
G1 X29.65 Y56.34 E432.81126
G1 X29.17 Y56.74 E432.84777
G1 X28.77 Y57.22 E432.88428
G1 X28.47 Y57.78 E432.92074
G1 X28.29 Y58.38 E432.95723
G1 X28.23 Y59.00 E432.99373
G1 X28.29 Y59.63 E433.03017
G1 X28.47 Y60.23 E433.06667
G1 X28.77 Y60.78 E433.10313
G0 F12000 X28.26 Y59.00
G0 X28.80 Y57.24
G0 X30.22 Y56.08
G0 X35.46 Y45.35
G1 F2400 X35.68 Y45.42 E433.11637
G1 X35.94 Y45.45 E433.13173
G1 X36.22 Y45.41 E433.14801
G1 X36.46 Y45.33 E433.16283
G1 X36.68 Y45.21 E433.17763
G1 X36.88 Y45.04 E433.19255
G1 X37.03 Y44.84 E433.20746
G1 X37.14 Y44.62 E433.22173
G1 X37.21 Y44.40 E433.23496
G1 X37.23 Y44.14 E433.25027
G1 X37.20 Y43.86 E433.26667
G1 X37.12 Y43.62 E433.28155
G1 X36.99 Y43.40 E433.29631
G1 X36.83 Y43.20 E433.31115
G1 X36.63 Y43.04 E433.32605
G1 X36.41 Y42.94 E433.34032
G1 X36.19 Y42.87 E433.35356
G1 X35.93 Y42.84 E433.36887
G1 X35.65 Y42.88 E433.38526
G1 X35.40 Y42.96 E433.40015
G1 X35.18 Y43.08 E433.41491
G1 X34.99 Y43.25 E433.42974
G1 X34.83 Y43.45 E433.44465
G1 X34.72 Y43.67 E433.45871
G1 X34.65 Y43.89 E433.47213
G1 X34.63 Y44.15 E433.48754
G1 X34.66 Y44.43 E433.50386
G1 X34.74 Y44.68 E433.51892
G1 X34.87 Y44.90 E433.53354
G1 X35.04 Y45.09 E433.54838
G1 X35.24 Y45.25 E433.56328
G1 X35.46 Y45.35 E433.57755
G0 F12000 X40.30 Y44.87
G1 F2400 X40.51 Y45.56 E433.61970
G1 X40.85 Y46.20 E433.66198
G1 X41.31 Y46.76 E433.70417
G1 X41.87 Y47.22 E433.74625
G1 X42.52 Y47.57 E433.78850
G1 X43.21 Y47.78 E433.83070
G1 X43.93 Y47.85 E433.87287
G1 X44.65 Y47.78 E433.91503
G1 X45.35 Y47.57 E433.95723
G1 X45.99 Y47.22 E433.99949
G1 X46.55 Y46.76 E434.04161
G1 X47.01 Y46.20 E434.08373
G1 X47.35 Y45.56 E434.12599
G1 X47.56 Y44.87 E434.16818
G1 X47.63 Y44.15 E434.21035
G1 X47.56 Y43.42 E434.25252
G1 X47.35 Y42.73 E434.29472
G1 X47.01 Y42.09 E434.33697
G1 X46.55 Y41.53 E434.37909
G1 X45.99 Y41.07 E434.42121
G1 X45.35 Y40.72 E434.46347
G1 X44.65 Y40.51 E434.50567
G1 X43.93 Y40.44 E434.54783
G1 X43.21 Y40.51 E434.59000
G1 X42.52 Y40.72 E434.63220
G1 X41.87 Y41.07 E434.67445
G1 X41.31 Y41.53 E434.71653
G1 X40.85 Y42.09 E434.75873
G1 X40.51 Y42.73 E434.80100
G1 X40.30 Y43.42 E434.84315
G1 X40.24 Y44.00 E434.87673
G1 X40.23 Y44.14 E434.88526
G1 X40.30 Y44.87 E434.92749
G0 F12000 X41.34 Y46.74
G0 X43.18 Y49.08
G1 F2400 X42.99 Y49.25 E434.94233
G1 X42.83 Y49.45 E434.95723
G1 X42.72 Y49.67 E434.97129
G1 X42.65 Y49.89 E434.98471
G1 X42.63 Y50.15 E435.00013
G1 X42.66 Y50.43 E435.01645
G1 X42.74 Y50.68 E435.03150
G1 X42.87 Y50.90 E435.04613
G1 X43.04 Y51.09 E435.06096
G1 X43.24 Y51.25 E435.07587
G1 X43.46 Y51.35 E435.09014
G1 X43.68 Y51.42 E435.10338
G1 X43.94 Y51.45 E435.11874
G1 X44.22 Y51.41 E435.13502
G1 X44.46 Y51.33 E435.14984
G1 X44.68 Y51.21 E435.16464
G1 X44.88 Y51.04 E435.17956
G1 X45.03 Y50.84 E435.19447
G1 X45.14 Y50.62 E435.20874
G1 X45.21 Y50.40 E435.22197
G1 X45.23 Y50.14 E435.23728
G1 X45.20 Y49.86 E435.25368
G1 X45.12 Y49.62 E435.26856
G1 X44.99 Y49.40 E435.28332
G1 X44.83 Y49.20 E435.29816
G1 X44.63 Y49.04 E435.31306
G1 X44.41 Y48.94 E435.32733
G1 X44.19 Y48.87 E435.34057
G1 X43.93 Y48.84 E435.35588
G1 X43.65 Y48.88 E435.37227
G1 X43.40 Y48.96 E435.38716
G1 X43.18 Y49.08 E435.40192
G0 F12000 X50.74 Y44.68
G1 F2400 X50.87 Y44.90 E435.41655
G1 X51.04 Y45.09 E435.43138
G1 X51.24 Y45.25 E435.44628
G1 X51.46 Y45.35 E435.46055
G1 X51.68 Y45.42 E435.47379
G1 X51.94 Y45.45 E435.48916
G1 X52.22 Y45.41 E435.50544
G1 X52.46 Y45.33 E435.52025
G1 X52.68 Y45.21 E435.53506
G1 X52.88 Y45.04 E435.54998
G1 X53.03 Y44.84 E435.56488
G1 X53.14 Y44.62 E435.57915
G1 X53.21 Y44.40 E435.59239
G1 X53.23 Y44.14 E435.60770
G1 X53.20 Y43.86 E435.62409
G1 X53.12 Y43.62 E435.63898
G1 X52.99 Y43.40 E435.65374
G1 X52.83 Y43.20 E435.66857
G1 X52.63 Y43.04 E435.68348
G1 X52.41 Y42.94 E435.69775
G1 X52.19 Y42.87 E435.71099
G1 X51.93 Y42.84 E435.72629
G1 X51.65 Y42.88 E435.74269
G1 X51.40 Y42.96 E435.75758
G1 X51.18 Y43.08 E435.77233
G1 X50.99 Y43.25 E435.78717
G1 X50.83 Y43.45 E435.80207
G1 X50.72 Y43.67 E435.81614
G1 X50.65 Y43.89 E435.82955
G1 X50.63 Y44.15 E435.84497
G1 X50.66 Y44.43 E435.86129
G1 X50.74 Y44.68 E435.87634
G0 F12000 X44.88 Y39.04
G1 F2400 X45.03 Y38.84 E435.89125
G1 X45.14 Y38.62 E435.90552
G1 X45.21 Y38.40 E435.91876
G1 X45.23 Y38.14 E435.93407
G1 X45.20 Y37.86 E435.95046
G1 X45.12 Y37.62 E435.96535
G1 X44.99 Y37.40 E435.98010
G1 X44.83 Y37.20 E435.99494
G1 X44.63 Y37.04 E436.00984
G1 X44.41 Y36.94 E436.02411
G1 X44.19 Y36.87 E436.03735
G1 X43.93 Y36.84 E436.05266
G1 X43.65 Y36.88 E436.06906
G1 X43.40 Y36.96 E436.08394
G1 X43.18 Y37.08 E436.09870
G1 X42.99 Y37.25 E436.11353
G1 X42.83 Y37.45 E436.12844
G1 X42.72 Y37.67 E436.14250
G1 X42.65 Y37.89 E436.15592
G1 X42.63 Y38.15 E436.17133
G1 X42.66 Y38.43 E436.18766
G1 X42.74 Y38.68 E436.20271
G1 X42.87 Y38.90 E436.21734
G1 X43.04 Y39.09 E436.23217
G1 X43.24 Y39.25 E436.24708
G1 X43.46 Y39.35 E436.26135
G1 X43.68 Y39.42 E436.27459
G1 X43.94 Y39.45 E436.28995
G1 X44.22 Y39.41 E436.30623
G1 X44.46 Y39.33 E436.32104
G1 X44.68 Y39.21 E436.33585
G1 X44.88 Y39.04 E436.35077
G0 F12000 X43.68 Y39.39
G0 X42.78 Y38.66
G0 X35.77 Y36.14
G1 F2400 X36.08 Y35.11 E436.41339
G1 X36.19 Y34.04 E436.47606
G1 X36.08 Y32.97 E436.53866
G1 X35.77 Y31.94 E436.60129
G1 X35.26 Y30.99 E436.66390
G1 X34.58 Y30.15 E436.72655
G1 X33.75 Y29.47 E436.78921
G1 X32.80 Y28.96 E436.85182
G1 X31.77 Y28.65 E436.91445
G1 X30.69 Y28.54 E436.97711
G1 X29.62 Y28.65 E437.03972
G1 X28.59 Y28.96 E437.10240
G1 X27.64 Y29.47 E437.16501
G1 X26.80 Y30.15 E437.22762
G1 X26.12 Y30.99 E437.29028
G1 X25.61 Y31.94 E437.35289
G1 X25.30 Y32.97 E437.41551
G1 X25.20 Y34.04 E437.47818
G1 X25.30 Y35.11 E437.54078
G1 X25.61 Y36.14 E437.60341
G1 X26.12 Y37.09 E437.66602
G1 X26.80 Y37.93 E437.72868
G1 X27.64 Y38.61 E437.79129
G1 X28.59 Y39.12 E437.85390
G1 X29.62 Y39.43 E437.91658
G1 X30.69 Y39.54 E437.97919
G1 X31.77 Y39.43 E438.04185
G1 X32.80 Y39.12 E438.10447
G1 X33.75 Y38.61 E438.16709
G1 X34.58 Y37.93 E438.22974
G1 X35.26 Y37.09 E438.29240
G1 X35.77 Y36.14 E438.35501
G0 F12000 X41.34 Y46.74
G0 X43.22 Y47.74
G0 X45.34 Y47.53
G0 X54.17 Y56.74
G1 F2400 X53.77 Y57.22 E438.39152
G1 X53.47 Y57.78 E438.42798
G1 X53.29 Y58.38 E438.46448
G1 X53.23 Y59.00 E438.50097
G1 X53.29 Y59.63 E438.53742
G1 X53.47 Y60.23 E438.57391
G1 X53.77 Y60.78 E438.61037
G1 X54.17 Y61.27 E438.64688
G1 X54.65 Y61.66 E438.68339
G1 X55.21 Y61.96 E438.71985
G1 X55.81 Y62.14 E438.75636
G1 X56.43 Y62.20 E438.79286
G1 X57.06 Y62.14 E438.82936
G1 X57.66 Y61.96 E438.86588
G1 X58.21 Y61.66 E438.90233
G1 X58.70 Y61.27 E438.93884
G1 X59.10 Y60.78 E438.97543
G1 X59.40 Y60.21 E439.01295
G1 X59.57 Y59.63 E439.04829
G1 X59.63 Y59.00 E439.08473
G1 X59.57 Y58.38 E439.12123
G1 X59.39 Y57.78 E439.15773
G1 X59.09 Y57.22 E439.19419
G1 X58.70 Y56.74 E439.23070
G1 X58.21 Y56.34 E439.26721
G1 X57.66 Y56.04 E439.30366
G1 X57.06 Y55.86 E439.34016
G1 X56.43 Y55.80 E439.37666
G1 X55.81 Y55.86 E439.41281
G1 X55.21 Y56.04 E439.44959
G1 X54.65 Y56.34 E439.48610
G1 X54.17 Y56.74 E439.52261
G0 F12000 X54.50 Y57.07
;TYPE:WALL-OUTER
G1 F2400 X54.16 Y57.48 E439.55379
G1 X53.91 Y57.95 E439.58489
G1 X53.75 Y58.47 E439.61605
G1 X53.70 Y59.00 E439.64724
G1 X53.75 Y59.53 E439.67836
G1 X53.91 Y60.05 E439.70953
G1 X54.16 Y60.52 E439.74063
G1 X54.50 Y60.94 E439.77181
G1 X54.91 Y61.27 E439.80299
G1 X55.38 Y61.53 E439.83409
G1 X55.90 Y61.68 E439.86527
G1 X56.43 Y61.74 E439.89645
G1 X56.97 Y61.68 E439.92764
G1 X57.48 Y61.53 E439.95882
G1 X57.95 Y61.27 E439.98992
G1 X58.37 Y60.94 E440.02110
G1 X58.71 Y60.52 E440.05228
G1 X58.96 Y60.03 E440.08442
G1 X59.11 Y59.53 E440.11454
G1 X59.17 Y59.00 E440.14566
G1 X59.11 Y58.47 E440.17685
G1 X58.96 Y57.95 E440.20801
G1 X58.71 Y57.48 E440.23911
G1 X58.37 Y57.07 E440.27029
G1 X57.95 Y56.73 E440.30147
G1 X57.48 Y56.48 E440.33257
G1 X56.97 Y56.32 E440.36374
G1 X56.43 Y56.27 E440.39492
G1 X55.90 Y56.32 E440.42576
G1 X55.39 Y56.48 E440.45720
G1 X54.91 Y56.73 E440.48835
G1 X54.50 Y57.07 E440.51953
G0 F12000 X54.29 Y56.81
G0 X44.93 Y50.74
G0 X44.64 Y50.59
G1 F2400 X44.71 Y50.45 E440.52886
G1 X44.75 Y50.31 E440.53725
G1 X44.77 Y50.14 E440.54689
G1 X44.74 Y49.96 E440.55749
G1 X44.69 Y49.81 E440.56697
G1 X44.61 Y49.66 E440.57647
G1 X44.51 Y49.54 E440.58599
G1 X44.38 Y49.44 E440.59543
G1 X44.23 Y49.37 E440.60476
G1 X44.09 Y49.33 E440.61315
G1 X43.93 Y49.31 E440.62279
G1 X43.75 Y49.33 E440.63339
G1 X43.59 Y49.38 E440.64287
G1 X43.45 Y49.47 E440.65237
G1 X43.33 Y49.57 E440.66189
G1 X43.23 Y49.70 E440.67133
G1 X43.16 Y49.84 E440.68061
G1 X43.11 Y49.98 E440.68903
G1 X43.10 Y50.15 E440.69872
G1 X43.12 Y50.33 E440.70930
G1 X43.17 Y50.48 E440.71890
G1 X43.25 Y50.62 E440.72832
G1 X43.36 Y50.75 E440.73784
G1 X43.49 Y50.85 E440.74728
G1 X43.63 Y50.92 E440.75661
G1 X43.77 Y50.96 E440.76500
G1 X43.93 Y50.98 E440.77464
G1 X44.11 Y50.96 E440.78518
G1 X44.27 Y50.91 E440.79466
G1 X44.41 Y50.83 E440.80418
G1 X44.54 Y50.72 E440.81374
G1 X44.64 Y50.59 E440.82318
G0 F12000 X44.93 Y50.74
G0 X45.09 Y49.63
G0 X44.66 Y47.63
G0 X44.56 Y47.32
G1 F2400 X45.17 Y47.13 E440.86005
G1 X45.73 Y46.83 E440.89689
G1 X46.22 Y46.43 E440.93373
G1 X46.62 Y45.94 E440.97057
G1 X46.92 Y45.38 E441.00742
G1 X47.10 Y44.78 E441.04428
G1 X47.17 Y44.15 E441.08113
G1 X47.10 Y43.51 E441.11798
G1 X46.92 Y42.91 E441.15485
G1 X46.62 Y42.35 E441.19170
G1 X46.22 Y41.86 E441.22853
G1 X45.73 Y41.46 E441.26537
G1 X45.17 Y41.16 E441.30222
G1 X44.56 Y40.97 E441.33908
G1 X43.93 Y40.91 E441.37594
G1 X43.30 Y40.97 E441.41279
G1 X42.69 Y41.16 E441.44965
G1 X42.13 Y41.46 E441.48650
G1 X41.65 Y41.86 E441.52329
G1 X41.24 Y42.35 E441.56020
G1 X40.94 Y42.91 E441.59707
G1 X40.76 Y43.51 E441.63388
G1 X40.70 Y44.15 E441.67073
G1 X40.76 Y44.78 E441.70759
G1 X40.94 Y45.38 E441.74440
G1 X41.24 Y45.94 E441.78127
G1 X41.65 Y46.43 E441.81818
G1 X42.13 Y46.83 E441.85497
G1 X42.69 Y47.13 E441.89182
G1 X43.30 Y47.32 E441.92868
G1 X43.93 Y47.38 E441.96553
G1 X44.56 Y47.32 E442.00238
G0 F12000 X44.66 Y47.63
G0 X45.34 Y47.53
G0 X50.88 Y44.65
G0 X51.17 Y44.48
G1 F2400 X51.25 Y44.62 E442.01181
G1 X51.36 Y44.75 E442.02133
G1 X51.49 Y44.85 E442.03077
G1 X51.63 Y44.92 E442.04010
G1 X51.77 Y44.96 E442.04848
G1 X51.93 Y44.98 E442.05812
G1 X52.11 Y44.96 E442.06866
G1 X52.27 Y44.91 E442.07815
G1 X52.41 Y44.83 E442.08767
G1 X52.54 Y44.72 E442.09723
G1 X52.64 Y44.59 E442.10667
G1 X52.71 Y44.45 E442.11600
G1 X52.75 Y44.31 E442.12439
G1 X52.77 Y44.14 E442.13403
G1 X52.74 Y43.96 E442.14462
G1 X52.69 Y43.81 E442.15411
G1 X52.61 Y43.66 E442.16361
G1 X52.51 Y43.54 E442.17313
G1 X52.38 Y43.44 E442.18257
G1 X52.23 Y43.37 E442.19190
G1 X52.09 Y43.33 E442.20029
G1 X51.93 Y43.31 E442.20993
G1 X51.75 Y43.33 E442.22052
G1 X51.59 Y43.38 E442.23001
G1 X51.45 Y43.47 E442.23951
G1 X51.33 Y43.57 E442.24903
G1 X51.23 Y43.70 E442.25847
G1 X51.16 Y43.84 E442.26775
G1 X51.11 Y43.98 E442.27617
G1 X51.10 Y44.15 E442.28586
G1 X51.12 Y44.33 E442.29644
G1 X51.17 Y44.48 E442.30604
G0 F12000 X50.88 Y44.65
G0 X44.80 Y38.92
G0 X44.54 Y38.72
G1 F2400 X44.64 Y38.59 E442.31548
G1 X44.71 Y38.45 E442.32481
G1 X44.75 Y38.31 E442.33319
G1 X44.77 Y38.14 E442.34283
G1 X44.74 Y37.96 E442.35343
G1 X44.69 Y37.81 E442.36291
G1 X44.61 Y37.66 E442.37242
G1 X44.51 Y37.54 E442.38194
G1 X44.38 Y37.44 E442.39138
G1 X44.23 Y37.37 E442.40071
G1 X44.09 Y37.33 E442.40909
G1 X43.93 Y37.31 E442.41873
G1 X43.75 Y37.33 E442.42933
G1 X43.59 Y37.38 E442.43881
G1 X43.45 Y37.47 E442.44832
G1 X43.33 Y37.57 E442.45784
G1 X43.23 Y37.70 E442.46728
G1 X43.16 Y37.84 E442.47656
G1 X43.11 Y37.98 E442.48497
G1 X43.10 Y38.15 E442.49466
G1 X43.12 Y38.33 E442.50525
G1 X43.17 Y38.48 E442.51484
G1 X43.25 Y38.62 E442.52426
G1 X43.36 Y38.75 E442.53378
G1 X43.49 Y38.85 E442.54322
G1 X43.63 Y38.92 E442.55256
G1 X43.77 Y38.96 E442.56094
G1 X43.93 Y38.98 E442.57058
G1 X44.11 Y38.96 E442.58112
G1 X44.27 Y38.91 E442.59060
G1 X44.41 Y38.83 E442.60013
G1 X44.54 Y38.72 E442.60969
G0 F12000 X44.80 Y38.92
G0 X36.86 Y43.45
G0 X36.61 Y43.66
G1 F2400 X36.51 Y43.54 E442.61921
G1 X36.38 Y43.44 E442.62865
G1 X36.23 Y43.37 E442.63798
G1 X36.09 Y43.33 E442.64636
G1 X35.93 Y43.31 E442.65600
G1 X35.75 Y43.33 E442.66660
G1 X35.59 Y43.38 E442.67608
G1 X35.45 Y43.47 E442.68559
G1 X35.33 Y43.57 E442.69511
G1 X35.23 Y43.70 E442.70455
G1 X35.16 Y43.84 E442.71383
G1 X35.11 Y43.98 E442.72224
G1 X35.10 Y44.15 E442.73193
G1 X35.12 Y44.33 E442.74252
G1 X35.17 Y44.48 E442.75211
G1 X35.25 Y44.62 E442.76153
G1 X35.36 Y44.75 E442.77105
G1 X35.49 Y44.85 E442.78049
G1 X35.63 Y44.92 E442.78983
G1 X35.77 Y44.96 E442.79821
G1 X35.93 Y44.98 E442.80785
G1 X36.11 Y44.96 E442.81839
G1 X36.27 Y44.91 E442.82787
G1 X36.41 Y44.83 E442.83740
G1 X36.54 Y44.72 E442.84696
G1 X36.64 Y44.59 E442.85640
G1 X36.71 Y44.45 E442.86573
G1 X36.75 Y44.31 E442.87411
G1 X36.77 Y44.14 E442.88375
G1 X36.74 Y43.96 E442.89435
G1 X36.69 Y43.81 E442.90383
G1 X36.61 Y43.66 E442.91334
G0 F12000 X36.86 Y43.45
G0 X33.64 Y38.51
G0 X33.49 Y38.22
G1 F2400 X34.25 Y37.60 E442.97066
G1 X34.87 Y36.83 E443.02799
G1 X35.34 Y35.96 E443.08525
G1 X35.62 Y35.02 E443.14254
G1 X35.72 Y34.04 E443.19988
G1 X35.62 Y33.06 E443.25717
G1 X35.34 Y32.12 E443.31447
G1 X34.87 Y31.25 E443.37172
G1 X34.25 Y30.48 E443.42905
G1 X33.49 Y29.86 E443.48638
G1 X32.62 Y29.39 E443.54363
G1 X31.67 Y29.11 E443.60092
G1 X30.69 Y29.01 E443.65827
G1 X29.71 Y29.11 E443.71556
G1 X28.77 Y29.39 E443.77291
G1 X27.90 Y29.86 E443.83017
G1 X27.14 Y30.48 E443.88745
G1 X26.51 Y31.25 E443.94477
G1 X26.05 Y32.12 E444.00203
G1 X25.76 Y33.06 E444.05932
G1 X25.66 Y34.04 E444.11667
G1 X25.76 Y35.02 E444.17396
G1 X26.05 Y35.96 E444.23125
G1 X26.51 Y36.83 E444.28851
G1 X27.14 Y37.60 E444.34583
G1 X27.90 Y38.22 E444.40311
G1 X28.77 Y38.69 E444.46037
G1 X29.71 Y38.97 E444.51772
G1 X30.69 Y39.07 E444.57501
G1 X31.67 Y38.97 E444.63236
G1 X32.62 Y38.69 E444.68965
G1 X33.49 Y38.22 E444.74691
G0 F12000 X33.64 Y38.51
G0 X32.06 Y56.00
G0 X31.97 Y56.32
G1 F2400 X31.43 Y56.27 E444.77809
G1 X30.90 Y56.32 E444.80927
G1 X30.39 Y56.48 E444.84044
G1 X29.91 Y56.73 E444.87154
G1 X29.50 Y57.07 E444.90272
G1 X29.16 Y57.48 E444.93390
G1 X28.91 Y57.95 E444.96500
G1 X28.75 Y58.47 E444.99616
G1 X28.70 Y59.00 E445.02735
G1 X28.75 Y59.53 E445.05847
G1 X28.91 Y60.05 E445.08964
G1 X29.16 Y60.52 E445.12074
G1 X29.50 Y60.94 E445.15192
G1 X29.91 Y61.27 E445.18310
G1 X30.39 Y61.53 E445.21420
G1 X30.90 Y61.68 E445.24538
G1 X31.43 Y61.74 E445.27657
G1 X31.97 Y61.68 E445.30775
G1 X32.48 Y61.53 E445.33893
G1 X32.95 Y61.27 E445.37003
G1 X33.37 Y60.94 E445.40121
G1 X33.71 Y60.52 E445.43240
G1 X33.96 Y60.05 E445.46349
G1 X34.11 Y59.53 E445.49466
G1 X34.17 Y59.00 E445.52579
G1 X34.11 Y58.47 E445.55697
G1 X33.96 Y57.95 E445.58813
G1 X33.71 Y57.48 E445.61923
G1 X33.37 Y57.07 E445.65041
G1 X32.95 Y56.73 E445.68160
G1 X32.48 Y56.48 E445.71270
G1 X31.97 Y56.32 E445.74386
G0 F12000 X32.06 Y56.00
G0 X30.22 Y56.08
G0 X28.80 Y57.24
G0 X19.41 Y66.08
G0 X19.16 Y66.41
G1 F2400 X19.16 Y21.88 E448.33227
G1 X68.70 Y21.88 E451.21129
G1 X68.70 Y66.41 E453.79970
G1 X19.16 Y66.41 E456.67872
G0 F12000 X19.41 Y66.08
G0 X20.83 Y65.31
;TYPE:FILL
G1 F2400 X20.26 Y64.74 E456.72565
G0 F12000 X20.26 Y64.08
G1 F2400 X21.49 Y65.31 E456.82675
G0 F12000 X22.15 Y65.31
G1 F2400 X20.26 Y63.43 E456.98202
G0 F12000 X20.26 Y62.77
G1 F2400 X22.81 Y65.31 E457.19146
G0 F12000 X23.47 Y65.31
G1 F2400 X20.26 Y62.11 E457.45507
G0 F12000 X20.26 Y61.45
G1 F2400 X24.13 Y65.31 E457.77284
G0 F12000 X24.79 Y65.31
G1 F2400 X20.26 Y60.79 E458.14478
G0 F12000 X20.26 Y60.13
G1 F2400 X25.44 Y65.31 E458.57089
G0 F12000 X26.10 Y65.31
G1 F2400 X20.26 Y59.47 E459.05117
G0 F12000 X20.26 Y58.81
G1 F2400 X26.76 Y65.31 E459.58562
G0 F12000 X27.42 Y65.31
G1 F2400 X20.26 Y58.15 E460.17423
G0 F12000 X20.26 Y57.49
G1 F2400 X28.08 Y65.31 E460.81701
G0 F12000 X28.74 Y65.31
G1 F2400 X20.26 Y56.84 E461.51396
G0 F12000 X20.26 Y56.18
G1 F2400 X29.40 Y65.31 E462.26507
G0 F12000 X30.06 Y65.31
G1 F2400 X20.26 Y55.52 E463.07036
G0 F12000 X20.26 Y54.86
G1 F2400 X30.72 Y65.31 E463.92981
G0 F12000 X31.38 Y65.31
G1 F2400 X20.26 Y54.20 E464.84343
G0 F12000 X20.26 Y53.54
G1 F2400 X32.03 Y65.31 E465.81122
G0 F12000 X32.69 Y65.31
G1 F2400 X29.87 Y62.50 E466.04293
G0 F12000 X30.81 Y62.77
G1 F2400 X33.35 Y65.31 E466.25171
G0 F12000 X34.01 Y65.31
G1 F2400 X31.52 Y62.83 E466.45618
G0 F12000 X32.12 Y62.77
G1 F2400 X34.67 Y65.31 E466.66553
G0 F12000 X35.33 Y65.31
G1 F2400 X32.64 Y62.62 E466.88673
G0 F12000 X33.11 Y62.43
G1 F2400 X35.99 Y65.31 E467.12362
G0 F12000 X36.65 Y65.31
G1 F2400 X33.53 Y62.20 E467.37942
G0 F12000 X33.90 Y61.91
G1 F2400 X37.31 Y65.31 E467.65921
G0 F12000 X37.97 Y65.31
G1 F2400 X34.24 Y61.59 E467.96519
G0 F12000 X34.54 Y61.23
G1 F2400 X38.62 Y65.31 E468.30105
G0 F12000 X39.28 Y65.31
G1 F2400 X34.79 Y60.82 E468.67069
G0 F12000 X35.00 Y60.38
G1 F2400 X39.94 Y65.31 E469.07670
G0 F12000 X40.60 Y65.31
G1 F2400 X35.16 Y59.87 E469.52431
G0 F12000 X35.24 Y59.29
G1 F2400 X41.26 Y65.31 E470.01942
G0 F12000 X41.92 Y65.31
G1 F2400 X35.23 Y58.62 E470.56940
G0 F12000 X35.05 Y57.79
G1 F2400 X42.58 Y65.31 E471.18793
G0 F12000 X43.24 Y65.31
G1 F2400 X20.26 Y42.34 E473.07662
G0 F12000 X20.26 Y43.00
G1 F2400 X32.64 Y55.38 E474.09434
G0 F12000 X31.81 Y55.20
G1 F2400 X20.26 Y43.66 E475.04347
G0 F12000 X20.26 Y44.31
G1 F2400 X31.14 Y55.19 E475.93773
G0 F12000 X30.56 Y55.27
G1 F2400 X20.26 Y44.97 E476.78448
G0 F12000 X20.26 Y45.63
G1 F2400 X30.06 Y55.43 E477.58964
G0 F12000 X29.61 Y55.64
G1 F2400 X20.26 Y46.29 E478.35835
G0 F12000 X20.26 Y46.95
G1 F2400 X29.20 Y55.89 E479.09332
G0 F12000 X28.84 Y56.19
G1 F2400 X20.26 Y47.61 E479.79844
G0 F12000 X20.26 Y48.27
G1 F2400 X28.52 Y56.53 E480.47747
G0 F12000 X28.23 Y56.90
G1 F2400 X20.26 Y48.93 E481.13250
G0 F12000 X20.26 Y49.59
G1 F2400 X28.00 Y57.33 E481.76858
G0 F12000 X27.81 Y57.79
G1 F2400 X20.26 Y50.25 E482.38905
G0 F12000 X20.26 Y50.91
G1 F2400 X27.66 Y58.31 E482.99763
G0 F12000 X27.61 Y58.91
G1 F2400 X20.26 Y51.56 E483.60141
G0 F12000 X20.26 Y52.22
G1 F2400 X27.66 Y59.62 E484.20951
G0 F12000 X27.93 Y60.56
G1 F2400 X20.26 Y52.88 E484.84029
G0 F12000 X20.26 Y41.68
G1 F2400 X43.90 Y65.31 E486.78318
G0 F12000 X44.56 Y65.31
G1 F2400 X20.26 Y41.02 E488.78024
G0 F12000 X20.26 Y40.36
G1 F2400 X45.22 Y65.31 E490.83147
G0 F12000 X45.87 Y65.31
G1 F2400 X20.26 Y39.70 E492.93686
G0 F12000 X20.26 Y39.04
G1 F2400 X46.53 Y65.31 E495.09642
G0 F12000 X47.19 Y65.31
G1 F2400 X20.26 Y38.38 E497.31015
G0 F12000 X20.26 Y37.72
G1 F2400 X47.85 Y65.31 E499.57805
G0 F12000 X48.51 Y65.31
G1 F2400 X20.26 Y37.06 E501.90012
G0 F12000 X20.26 Y36.41
G1 F2400 X49.17 Y65.31 E504.27635
G0 F12000 X49.83 Y65.31
G1 F2400 X20.26 Y35.75 E506.70676
G0 F12000 X20.26 Y35.09
G1 F2400 X50.49 Y65.31 E509.19133
G0 F12000 X51.15 Y65.31
G1 F2400 X20.26 Y34.43 E511.73006
G0 F12000 X20.26 Y33.77
G1 F2400 X51.80 Y65.31 E514.32297
G0 F12000 X52.46 Y65.31
G1 F2400 X20.26 Y33.11 E516.97004
G0 F12000 X20.26 Y32.45
G1 F2400 X53.12 Y65.31 E519.67128
G0 F12000 X53.78 Y65.31
G1 F2400 X27.97 Y39.50 E521.79332
G0 F12000 X29.04 Y39.91
G1 F2400 X34.31 Y45.18 E522.22650
G0 F12000 X34.91 Y45.79
G1 F2400 X54.44 Y65.31 E523.83173
G0 F12000 X55.10 Y65.31
G1 F2400 X35.86 Y46.07 E525.41353
G0 F12000 X36.44 Y46.00
G1 F2400 X55.76 Y65.31 E527.00116
G0 F12000 X56.42 Y65.31
G1 F2400 X42.83 Y51.73 E528.11806
G0 F12000 X42.34 Y51.23
G1 F2400 X36.91 Y45.80 E528.56443
G0 F12000 X37.28 Y45.52
G1 F2400 X42.01 Y50.24 E528.95273
G0 F12000 X42.07 Y49.65
G1 F2400 X37.58 Y45.16 E529.32200
G0 F12000 X37.77 Y44.69
G1 F2400 X42.26 Y49.18 E529.69077
G0 F12000 X42.54 Y48.80
G1 F2400 X41.33 Y47.59 E529.79040
G0 F12000 X40.48 Y46.75
G1 F2400 X37.87 Y44.13 E530.00551
G0 F12000 X37.62 Y43.23
G1 F2400 X39.81 Y45.41 E530.18498
G0 F12000 X39.64 Y44.58
G1 F2400 X34.15 Y39.09 E530.63629
G0 F12000 X34.51 Y38.80
G1 F2400 X39.62 Y43.90 E531.05615
G0 F12000 X39.68 Y43.30
G1 F2400 X34.88 Y38.50 E531.45115
G0 F12000 X35.20 Y38.16
G1 F2400 X39.83 Y42.80 E531.83201
G0 F12000 X40.01 Y42.32
G1 F2400 X35.49 Y37.80 E532.20350
G0 F12000 X35.79 Y37.44
G1 F2400 X40.24 Y41.89 E532.56944
G0 F12000 X40.52 Y41.51
G1 F2400 X36.02 Y37.01 E532.93900
G0 F12000 X36.25 Y36.58
G1 F2400 X40.81 Y41.14 E533.31414
G0 F12000 X41.16 Y40.83
G1 F2400 X36.44 Y36.11 E533.70257
G0 F12000 X36.59 Y35.60
G1 F2400 X41.53 Y40.54 E534.10825
G0 F12000 X41.95 Y40.31
G1 F2400 X36.72 Y35.07 E534.53867
G0 F12000 X36.78 Y34.47
G1 F2400 X42.40 Y40.10 E535.00111
G0 F12000 X42.91 Y39.95
G1 F2400 X36.80 Y33.84 E535.50334
G0 F12000 X36.73 Y33.10
G1 F2400 X42.02 Y38.40 E535.93857
G0 F12000 X42.04 Y37.75
G1 F2400 X36.52 Y32.23 E536.39213
G0 F12000 X36.03 Y31.09
G1 F2400 X42.22 Y37.27 E536.90048
G0 F12000 X42.48 Y36.88
G1 F2400 X28.57 Y22.97 E538.04331
G0 F12000 X27.92 Y22.97
G1 F2400 X33.64 Y28.70 E538.51397
G0 F12000 X32.49 Y28.21
G1 F2400 X27.26 Y22.97 E538.94456
G0 F12000 X26.60 Y22.97
G1 F2400 X31.63 Y28.00 E539.35789
G0 F12000 X30.89 Y27.93
G1 F2400 X25.94 Y22.97 E539.76521
G0 F12000 X25.28 Y22.97
G1 F2400 X30.26 Y27.95 E540.17439
G0 F12000 X29.66 Y28.01
G1 F2400 X24.62 Y22.97 E540.58846
G0 F12000 X23.96 Y22.97
G1 F2400 X29.13 Y28.14 E541.01292
G0 F12000 X28.62 Y28.29
G1 F2400 X23.30 Y22.97 E541.45001
G0 F12000 X22.64 Y22.97
G1 F2400 X28.15 Y28.48 E541.90254
G0 F12000 X27.72 Y28.71
G1 F2400 X21.98 Y22.97 E542.37398
G0 F12000 X21.33 Y22.97
G1 F2400 X27.29 Y28.94 E542.86433
G0 F12000 X26.93 Y29.23
G1 F2400 X20.67 Y22.97 E543.37897
G0 F12000 X20.26 Y23.23
G1 F2400 X26.57 Y29.53 E543.89726
G0 F12000 X26.23 Y29.86
G1 F2400 X20.26 Y23.89 E544.38810
G0 F12000 X20.26 Y24.54
G1 F2400 X25.93 Y30.22 E544.85453
G0 F12000 X25.64 Y30.58
G1 F2400 X20.26 Y25.20 E545.29654
G0 F12000 X20.26 Y25.86
G1 F2400 X25.40 Y31.00 E545.71891
G0 F12000 X25.17 Y31.43
G1 F2400 X20.26 Y26.52 E546.12246
G0 F12000 X20.26 Y27.18
G1 F2400 X24.97 Y31.89 E546.50960
G0 F12000 X24.82 Y32.40
G1 F2400 X20.26 Y27.84 E546.88409
G0 F12000 X20.26 Y28.50
G1 F2400 X24.67 Y32.91 E547.24691
G0 F12000 X24.61 Y33.51
G1 F2400 X20.26 Y29.16 E547.60484
G0 F12000 X20.26 Y29.82
G1 F2400 X24.57 Y34.13 E547.95919
G0 F12000 X24.64 Y34.86
G1 F2400 X20.26 Y30.48 E548.31954
G0 F12000 X20.26 Y31.13
G1 F2400 X24.82 Y35.69 E548.69436
G0 F12000 X25.23 Y36.77
G1 F2400 X20.26 Y31.79 E549.10313
G0 F12000 X29.23 Y22.97
G1 F2400 X42.82 Y36.56 E550.21994
G0 F12000 X43.26 Y36.34
G1 F2400 X29.89 Y22.97 E551.31867
G0 F12000 X30.55 Y22.97
G1 F2400 X43.80 Y36.22 E552.40761
G0 F12000 X44.56 Y36.33
G1 F2400 X31.21 Y22.97 E553.50511
G0 F12000 X31.87 Y22.97
G1 F2400 X51.24 Y42.35 E555.09751
G0 F12000 X50.81 Y42.57
G1 F2400 X45.75 Y37.51 E555.51355
G0 F12000 X45.85 Y38.27
G1 F2400 X50.47 Y42.89 E555.89297
G0 F12000 X50.21 Y43.29
G1 F2400 X45.74 Y38.82 E556.26043
G0 F12000 X45.51 Y39.25
G1 F2400 X50.03 Y43.77 E556.63209
G0 F12000 X50.03 Y44.42
G1 F2400 X47.76 Y42.16 E556.81818
G0 F12000 X48.16 Y43.21
G1 F2400 X67.60 Y62.66 E558.41654
G0 F12000 X67.60 Y63.32
G1 F2400 X48.25 Y43.96 E560.00739
G0 F12000 X48.22 Y44.60
G1 F2400 X67.60 Y63.98 E561.60045
G0 F12000 X67.60 Y64.64
G1 F2400 X48.13 Y45.16 E563.20103
G0 F12000 X47.98 Y45.67
G1 F2400 X57.70 Y55.40 E564.00064
G0 F12000 X56.86 Y55.21
G1 F2400 X47.77 Y46.12 E564.74769
G0 F12000 X47.54 Y46.55
G1 F2400 X56.18 Y55.19 E565.45808
G0 F12000 X55.60 Y55.27
G1 F2400 X47.24 Y46.91 E566.14483
G0 F12000 X46.93 Y47.26
G1 F2400 X55.09 Y55.42 E566.81523
G0 F12000 X54.64 Y55.63
G1 F2400 X46.57 Y47.56 E567.47856
G0 F12000 X46.19 Y47.83
G1 F2400 X54.23 Y55.87 E568.13947
G0 F12000 X53.86 Y56.17
G1 F2400 X45.76 Y48.06 E568.80584
G0 F12000 X45.28 Y48.24
G1 F2400 X53.54 Y56.51 E569.48495
G0 F12000 X53.24 Y56.87
G1 F2400 X45.65 Y49.28 E570.10891
G0 F12000 X45.87 Y50.15
G1 F2400 X53.01 Y57.30 E570.69654
G0 F12000 X52.82 Y57.76
G1 F2400 X45.77 Y50.71 E571.27603
G0 F12000 X45.57 Y51.17
G1 F2400 X52.67 Y58.27 E571.85962
G0 F12000 X52.61 Y58.87
G1 F2400 X45.27 Y51.53 E572.46287
G0 F12000 X44.89 Y51.81
G1 F2400 X52.65 Y59.57 E573.10072
G0 F12000 X52.89 Y60.47
G1 F2400 X44.43 Y52.01 E573.79606
G0 F12000 X43.83 Y52.07
G1 F2400 X57.08 Y65.31 E574.88485
G0 F12000 X57.74 Y65.31
G1 F2400 X54.97 Y62.54 E575.11261
G0 F12000 X55.86 Y62.78
G1 F2400 X58.40 Y65.31 E575.32098
G0 F12000 X59.05 Y65.31
G1 F2400 X56.56 Y62.82 E575.52582
G0 F12000 X57.16 Y62.76
G1 F2400 X59.71 Y65.31 E575.73550
G0 F12000 X60.37 Y65.31
G1 F2400 X57.67 Y62.61 E575.95760
G0 F12000 X58.13 Y62.42
G1 F2400 X61.03 Y65.31 E576.19572
G0 F12000 X61.69 Y65.31
G1 F2400 X58.56 Y62.19 E576.45275
G0 F12000 X58.93 Y61.89
G1 F2400 X62.35 Y65.31 E576.73411
G0 F12000 X63.01 Y65.31
G1 F2400 X59.26 Y61.57 E577.04211
G0 F12000 X59.56 Y61.21
G1 F2400 X63.67 Y65.31 E577.37985
G0 F12000 X64.33 Y65.31
G1 F2400 X59.80 Y60.79 E577.75176
G0 F12000 X60.01 Y60.34
G1 F2400 X64.98 Y65.31 E578.16040
G0 F12000 X65.64 Y65.31
G1 F2400 X60.17 Y59.84 E578.61071
G0 F12000 X60.24 Y59.25
G1 F2400 X66.30 Y65.31 E579.10903
G0 F12000 X66.96 Y65.31
G1 F2400 X60.22 Y58.58 E579.66296
G0 F12000 X60.03 Y57.73
G1 F2400 X67.60 Y65.30 E580.28503
G0 F12000 X67.60 Y62.00
G1 F2400 X51.65 Y46.05 E581.59603
G0 F12000 X52.30 Y46.04
G1 F2400 X67.60 Y61.34 E582.85381
G0 F12000 X67.60 Y60.68
G1 F2400 X52.79 Y45.87 E584.07131
G0 F12000 X53.19 Y45.61
G1 F2400 X67.60 Y60.02 E585.25635
G0 F12000 X67.60 Y59.36
G1 F2400 X53.50 Y45.26 E586.41549
G0 F12000 X53.73 Y44.84
G1 F2400 X67.60 Y58.70 E587.55556
G0 F12000 X67.60 Y58.05
G1 F2400 X53.85 Y44.30 E588.68585
G0 F12000 X53.76 Y43.54
G1 F2400 X67.60 Y57.39 E589.82387
G0 F12000 X67.60 Y56.73
G1 F2400 X33.85 Y22.97 E592.59843
G0 F12000 X33.19 Y22.97
G1 F2400 X52.53 Y42.31 E594.18829
G0 F12000 X51.78 Y42.22
G1 F2400 X32.53 Y22.97 E595.77066
G0 F12000 X34.51 Y22.97
G1 F2400 X67.60 Y56.07 E598.49106
G0 F12000 X67.60 Y55.41
G1 F2400 X35.16 Y22.97 E601.15728
G0 F12000 X35.82 Y22.97
G1 F2400 X67.60 Y54.75 E603.76934
G0 F12000 X67.60 Y54.09
G1 F2400 X36.48 Y22.97 E606.32723
G0 F12000 X37.14 Y22.97
G1 F2400 X67.60 Y53.43 E608.83095
G0 F12000 X67.60 Y52.77
G1 F2400 X37.80 Y22.97 E611.28050
G0 F12000 X38.46 Y22.97
G1 F2400 X67.60 Y52.12 E613.67589
G0 F12000 X67.60 Y51.46
G1 F2400 X39.12 Y22.97 E616.01711
G0 F12000 X39.78 Y22.97
G1 F2400 X67.60 Y50.80 E618.30416
G0 F12000 X67.60 Y50.14
G1 F2400 X40.44 Y22.97 E620.53700
G0 F12000 X41.10 Y22.97
G1 F2400 X67.60 Y49.48 E622.71567
G0 F12000 X67.60 Y48.82
G1 F2400 X41.76 Y22.97 E624.84018
G0 F12000 X42.41 Y22.97
G1 F2400 X67.60 Y48.16 E626.91052
G0 F12000 X67.60 Y47.50
G1 F2400 X43.07 Y22.97 E628.92669
G0 F12000 X43.73 Y22.97
G1 F2400 X67.60 Y46.84 E630.88865
G0 F12000 X67.60 Y46.18
G1 F2400 X44.39 Y22.97 E632.79644
G0 F12000 X45.05 Y22.97
G1 F2400 X67.60 Y45.52 E634.65007
G0 F12000 X67.60 Y44.87
G1 F2400 X45.71 Y22.97 E636.44953
G0 F12000 X46.37 Y22.97
G1 F2400 X67.60 Y44.21 E638.19482
G0 F12000 X67.60 Y43.55
G1 F2400 X47.03 Y22.97 E639.88594
G0 F12000 X47.69 Y22.97
G1 F2400 X67.60 Y42.89 E641.52289
G0 F12000 X67.60 Y42.23
G1 F2400 X48.35 Y22.97 E643.10568
G0 F12000 X49.01 Y22.97
G1 F2400 X67.60 Y41.57 E644.63430
G0 F12000 X67.60 Y40.91
G1 F2400 X49.66 Y22.97 E646.10875
G0 F12000 X50.32 Y22.97
G1 F2400 X67.60 Y40.25 E647.52903
G0 F12000 X67.60 Y39.59
G1 F2400 X50.98 Y22.97 E648.89514
G0 F12000 X51.64 Y22.97
G1 F2400 X67.60 Y38.93 E650.20709
G0 F12000 X67.60 Y38.27
G1 F2400 X52.30 Y22.97 E651.46487
G0 F12000 X52.96 Y22.97
G1 F2400 X67.60 Y37.62 E652.66848
G0 F12000 X67.60 Y36.96
G1 F2400 X53.62 Y22.97 E653.81793
G0 F12000 X54.28 Y22.97
G1 F2400 X67.60 Y36.30 E654.91320
G0 F12000 X67.60 Y35.64
G1 F2400 X54.94 Y22.97 E655.95431
G0 F12000 X55.59 Y22.97
G1 F2400 X67.60 Y34.98 E656.94125
G0 F12000 X67.60 Y34.32
G1 F2400 X56.25 Y22.97 E657.87402
G0 F12000 X56.91 Y22.97
G1 F2400 X67.60 Y33.66 E658.75262
G0 F12000 X67.60 Y33.00
G1 F2400 X57.57 Y22.97 E659.57706
G0 F12000 X58.23 Y22.97
G1 F2400 X67.60 Y32.34 E660.34733
G0 F12000 X67.60 Y31.68
G1 F2400 X58.89 Y22.97 E661.06343
G0 F12000 X59.55 Y22.97
G1 F2400 X67.60 Y31.03 E661.72536
G0 F12000 X67.60 Y30.37
G1 F2400 X60.21 Y22.97 E662.33313
G0 F12000 X60.87 Y22.97
G1 F2400 X67.60 Y29.71 E662.88673
G0 F12000 X67.60 Y29.05
G1 F2400 X61.53 Y22.97 E663.38615
G0 F12000 X62.19 Y22.97
G1 F2400 X67.60 Y28.39 E663.83142
G0 F12000 X67.60 Y27.73
G1 F2400 X62.84 Y22.97 E664.22251
G0 F12000 X63.50 Y22.97
G1 F2400 X67.60 Y27.07 E664.55943
G0 F12000 X67.60 Y26.41
G1 F2400 X64.16 Y22.97 E664.84219
G0 F12000 X64.82 Y22.97
G1 F2400 X67.60 Y25.75 E665.07078
G0 F12000 X67.60 Y25.09
G1 F2400 X65.48 Y22.97 E665.24520
G0 F12000 X66.14 Y22.97
G1 F2400 X67.60 Y24.44 E665.36546
G0 F12000 X67.60 Y23.78
G1 F2400 X66.80 Y22.97 E665.43155
G0 F12000 X67.46 Y22.97
G1 F2400 X67.60 Y23.12 E665.44346
G0 F12000 X45.91 Y40.31
G1 F2400 X45.20 Y39.59 E665.50232
G0 F12000 X36.85 Y42.45
G1 F2400 X33.73 Y39.33 E665.75873
G0 F12000 X33.30 Y39.56
G1 F2400 X35.95 Y42.21 E665.97651
G0 F12000 X35.38 Y42.30
G1 F2400 X32.84 Y39.76 E666.18517
G0 F12000 X32.34 Y39.91
G1 F2400 X34.92 Y42.50 E666.39794
G0 F12000 X34.55 Y42.79
G1 F2400 X31.82 Y40.06 E666.62270
G0 F12000 X31.22 Y40.12
G1 F2400 X34.27 Y43.17 E666.87336
G0 F12000 X34.07 Y43.63
G1 F2400 X30.60 Y40.16 E667.15859
G0 F12000 X29.87 Y40.09
G1 F2400 X34.00 Y44.22 E667.49814
G0 F12000 X35.94 Y45.41
G0 X42.67 Y48.27
G1 F2400 X42.91 Y48.51 E667.51799
;LAYER:1
G0 F12000 X42.95 Y48.67 Z0.50
;TYPE:WALL-INNER
G1 F2400 X42.68 Y48.89 E667.53143
G1 X42.46 Y49.16 E667.54486
G1 X42.30 Y49.46 E667.55818
G1 X42.19 Y49.80 E667.57177
G1 X42.16 Y50.15 E667.58523
G1 X42.20 Y50.51 E667.59955
G1 X42.32 Y50.87 E667.61438
G1 X42.46 Y51.13 E667.62570
G1 X42.68 Y51.40 E667.63903
G1 X42.95 Y51.62 E667.65247
G1 X43.26 Y51.78 E667.66595
G1 X43.59 Y51.88 E667.67935
G1 X43.93 Y51.92 E667.69283
G1 X44.28 Y51.88 E667.70638
G1 X44.61 Y51.78 E667.71962
G1 X44.91 Y51.62 E667.73309
G1 X45.18 Y51.40 E667.74661
G1 X45.40 Y51.13 E667.76004
G1 X45.57 Y50.82 E667.77353
G1 X45.67 Y50.49 E667.78693
G1 X45.70 Y50.15 E667.80040
G1 X45.67 Y49.80 E667.81388
G1 X45.57 Y49.47 E667.82728
G1 X45.40 Y49.16 E667.84076
G1 X45.18 Y48.89 E667.85420
G1 X44.90 Y48.66 E667.86860
G1 X44.55 Y48.49 E667.88329
G1 X44.28 Y48.41 E667.89447
G1 X43.93 Y48.37 E667.90799
G1 X43.59 Y48.41 E667.92146
G1 X43.26 Y48.51 E667.93486
G1 X42.95 Y48.67 E667.94835
G0 F12000 X43.12 Y48.23
G1 F2400 X43.93 Y48.32 E667.98000
G1 X44.74 Y48.23 E668.01166
G1 X45.53 Y48.00 E668.04335
G1 X46.25 Y47.61 E668.07509
G1 X46.88 Y47.09 E668.10672
G1 X47.40 Y46.46 E668.13836
G1 X47.79 Y45.74 E668.17010
G1 X48.02 Y44.96 E668.20179
G1 X48.10 Y44.15 E668.23345
G1 X48.02 Y43.33 E668.26510
G1 X47.79 Y42.55 E668.29679
G1 X47.40 Y41.83 E668.32853
G1 X46.88 Y41.20 E668.36017
G1 X46.25 Y40.68 E668.39180
G1 X45.53 Y40.29 E668.42354
G1 X44.74 Y40.05 E668.45523
G1 X43.93 Y39.97 E668.48689
G1 X43.12 Y40.05 E668.51855
G1 X42.34 Y40.29 E668.55023
G1 X41.61 Y40.68 E668.58198
G1 X40.98 Y41.20 E668.61358
G1 X40.46 Y41.83 E668.64526
G1 X40.08 Y42.55 E668.67702
G1 X39.84 Y43.33 E668.70867
G1 X39.76 Y44.15 E668.74033
G1 X39.84 Y44.96 E668.77199
G1 X40.08 Y45.74 E668.80364
G1 X40.46 Y46.46 E668.83539
G1 X40.98 Y47.09 E668.86708
G1 X41.61 Y47.61 E668.89868
G1 X42.34 Y48.00 E668.93042
G1 X43.12 Y48.23 E668.96211
G0 F12000 X37.40 Y45.13
G1 F2400 X37.57 Y44.82 E668.97560
G1 X37.67 Y44.49 E668.98899
G1 X37.70 Y44.15 E669.00247
G1 X37.67 Y43.80 E669.01594
G1 X37.57 Y43.47 E669.02934
G1 X37.40 Y43.16 E669.04283
G1 X37.18 Y42.89 E669.05626
G1 X36.90 Y42.66 E669.07066
G1 X36.55 Y42.49 E669.08536
G1 X36.28 Y42.41 E669.09654
G1 X35.93 Y42.37 E669.11005
G1 X35.59 Y42.41 E669.12353
G1 X35.26 Y42.51 E669.13692
G1 X34.95 Y42.67 E669.15041
G1 X34.68 Y42.89 E669.16385
G1 X34.46 Y43.16 E669.17728
G1 X34.30 Y43.46 E669.19060
G1 X34.19 Y43.80 E669.20419
G1 X34.16 Y44.15 E669.21765
G1 X34.20 Y44.51 E669.23197
G1 X34.32 Y44.87 E669.24680
G1 X34.46 Y45.13 E669.25812
G1 X34.68 Y45.40 E669.27145
G1 X34.95 Y45.62 E669.28488
G1 X35.26 Y45.78 E669.29837
G1 X35.59 Y45.88 E669.31177
G1 X35.93 Y45.92 E669.32524
G1 X36.28 Y45.88 E669.33880
G1 X36.61 Y45.78 E669.35204
G1 X36.91 Y45.62 E669.36551
G1 X37.18 Y45.40 E669.37903
G1 X37.40 Y45.13 E669.39246
G0 F12000 X36.83 Y43.25
G0 X34.01 Y39.00
G1 F2400 X34.91 Y38.26 E669.43781
G1 X35.65 Y37.35 E669.48315
G1 X36.20 Y36.32 E669.52843
G1 X36.54 Y35.20 E669.57375
G1 X36.66 Y34.04 E669.61907
G1 X36.54 Y32.88 E669.66439
G1 X36.20 Y31.76 E669.70967
G1 X35.65 Y30.73 E669.75495
G1 X34.91 Y29.82 E669.80030
G1 X34.01 Y29.08 E669.84564
G1 X32.98 Y28.53 E669.89092
G1 X31.86 Y28.19 E669.93624
G1 X30.69 Y28.07 E669.98156
G1 X29.53 Y28.19 E670.02684
G1 X28.41 Y28.53 E670.07219
G1 X27.38 Y29.08 E670.11750
G1 X26.47 Y29.82 E670.16279
G1 X25.73 Y30.73 E670.20814
G1 X25.18 Y31.76 E670.25342
G1 X24.84 Y32.88 E670.29873
G1 X24.73 Y34.04 E670.34406
G1 X24.84 Y35.20 E670.38938
G1 X25.18 Y36.32 E670.43466
G1 X25.73 Y37.35 E670.47994
G1 X26.47 Y38.26 E670.52528
G1 X27.38 Y39.00 E670.57058
G1 X28.41 Y39.55 E670.61589
G1 X29.53 Y39.89 E670.66123
G1 X30.69 Y40.01 E670.70652
G1 X31.86 Y39.89 E670.75184
G1 X32.98 Y39.55 E670.79716
G1 X34.01 Y39.00 E670.84243
G0 F12000 X42.16 Y38.15
G1 F2400 X42.20 Y38.51 E670.85675
G1 X42.32 Y38.87 E670.87158
G1 X42.46 Y39.13 E670.88290
G1 X42.68 Y39.40 E670.89623
G1 X42.95 Y39.62 E670.90966
G1 X43.26 Y39.78 E670.92315
G1 X43.59 Y39.88 E670.93655
G1 X43.93 Y39.92 E670.95002
G1 X44.28 Y39.88 E670.96358
G1 X44.61 Y39.78 E670.97682
G1 X44.91 Y39.62 E670.99029
G1 X45.18 Y39.40 E671.00381
G1 X45.40 Y39.13 E671.01724
G1 X45.57 Y38.82 E671.03073
G1 X45.67 Y38.49 E671.04413
G1 X45.70 Y38.15 E671.05760
G1 X45.67 Y37.80 E671.07108
G1 X45.57 Y37.47 E671.08448
G1 X45.40 Y37.16 E671.09796
G1 X45.18 Y36.89 E671.11140
G1 X44.90 Y36.66 E671.12580
G1 X44.55 Y36.49 E671.14049
G1 X44.28 Y36.41 E671.15167
G1 X43.93 Y36.37 E671.16519
G1 X43.59 Y36.41 E671.17866
G1 X43.26 Y36.51 E671.19206
G1 X42.95 Y36.67 E671.20555
G1 X42.68 Y36.89 E671.21898
G1 X42.46 Y37.16 E671.23242
G1 X42.30 Y37.46 E671.24573
G1 X42.19 Y37.80 E671.25932
G1 X42.16 Y38.15 E671.27278
G0 F12000 X43.69 Y39.39
G0 X50.46 Y43.16
G1 F2400 X50.30 Y43.46 E671.28610
G1 X50.19 Y43.80 E671.29969
G1 X50.16 Y44.15 E671.31315
G1 X50.20 Y44.51 E671.32747
G1 X50.32 Y44.87 E671.34230
G1 X50.46 Y45.13 E671.35362
G1 X50.68 Y45.40 E671.36695
G1 X50.95 Y45.62 E671.38039
G1 X51.26 Y45.78 E671.39387
G1 X51.59 Y45.88 E671.40727
G1 X51.93 Y45.92 E671.42075
G1 X52.28 Y45.88 E671.43430
G1 X52.61 Y45.78 E671.44754
G1 X52.91 Y45.62 E671.46101
G1 X53.18 Y45.40 E671.47453
G1 X53.40 Y45.13 E671.48796
G1 X53.57 Y44.82 E671.50145
G1 X53.67 Y44.49 E671.51485
G1 X53.70 Y44.15 E671.52832
G1 X53.67 Y43.80 E671.54180
G1 X53.57 Y43.47 E671.55520
G1 X53.40 Y43.16 E671.56868
G1 X53.18 Y42.89 E671.58212
G1 X52.90 Y42.66 E671.59652
G1 X52.55 Y42.49 E671.61121
G1 X52.28 Y42.41 E671.62239
G1 X51.93 Y42.37 E671.63591
G1 X51.59 Y42.41 E671.64938
G1 X51.26 Y42.51 E671.66278
G1 X50.95 Y42.67 E671.67627
G1 X50.68 Y42.89 E671.68970
G1 X50.46 Y43.16 E671.70314
G0 F12000 X50.78 Y44.67
G0 X55.03 Y55.61
G1 F2400 X54.39 Y55.95 E671.73101
G1 X53.84 Y56.41 E671.75890
G1 X53.38 Y56.96 E671.78680
G1 X53.04 Y57.60 E671.81467
G1 X52.83 Y58.29 E671.84256
G1 X52.76 Y59.00 E671.87044
G1 X52.83 Y59.72 E671.89828
G1 X53.04 Y60.41 E671.92617
G1 X53.38 Y61.04 E671.95405
G1 X53.84 Y61.60 E671.98194
G1 X54.39 Y62.05 E672.00983
G1 X55.03 Y62.39 E672.03765
G1 X55.72 Y62.60 E672.06556
G1 X56.43 Y62.67 E672.09348
G1 X57.15 Y62.60 E672.12140
G1 X57.84 Y62.39 E672.14931
G1 X58.47 Y62.05 E672.17713
G1 X59.03 Y61.60 E672.20503
G1 X59.48 Y61.04 E672.23292
G1 X59.82 Y60.41 E672.26080
G1 X60.03 Y59.72 E672.28868
G1 X60.10 Y59.00 E672.31652
G1 X60.03 Y58.29 E672.34440
G1 X59.82 Y57.60 E672.37229
G1 X59.48 Y56.96 E672.40017
G1 X59.03 Y56.41 E672.42806
G1 X58.47 Y55.95 E672.45595
G1 X57.84 Y55.61 E672.48383
G1 X57.15 Y55.40 E672.51172
G1 X56.43 Y55.33 E672.53960
G1 X55.72 Y55.40 E672.56748
G1 X55.03 Y55.61 E672.59536
G0 F12000 X35.03 Y58.29
G1 F2400 X34.82 Y57.60 E672.62325
G1 X34.48 Y56.96 E672.65113
G1 X34.03 Y56.41 E672.67902
G1 X33.47 Y55.95 E672.70691
G1 X32.84 Y55.61 E672.73479
G1 X32.15 Y55.40 E672.76268
G1 X31.43 Y55.33 E672.79055
G1 X30.72 Y55.40 E672.81843
G1 X30.03 Y55.61 E672.84632
G1 X29.39 Y55.95 E672.87420
G1 X28.84 Y56.41 E672.90209
G1 X28.38 Y56.96 E672.92998
G1 X28.04 Y57.60 E672.95786
G1 X27.83 Y58.29 E672.98575
G1 X27.76 Y59.00 E673.01363
G1 X27.83 Y59.72 E673.04147
G1 X28.04 Y60.41 E673.06935
G1 X28.38 Y61.04 E673.09723
G1 X28.84 Y61.60 E673.12512
G1 X29.39 Y62.05 E673.15302
G1 X30.03 Y62.39 E673.18084
G1 X30.71 Y62.60 E673.20875
G1 X31.43 Y62.67 E673.23667
G1 X32.15 Y62.60 E673.26459
G1 X32.84 Y62.39 E673.29250
G1 X33.47 Y62.05 E673.32032
G1 X34.03 Y61.60 E673.34821
G1 X34.48 Y61.04 E673.37611
G1 X34.82 Y60.41 E673.40398
G1 X35.03 Y59.72 E673.43187
G1 X35.10 Y59.00 E673.45971
G1 X35.03 Y58.29 E673.48759
G0 F12000 X33.67 Y61.24
G0 X32.05 Y62.11
G0 X30.22 Y61.93
G0 X20.10 Y65.48
G1 F2400 X20.10 Y22.81 E675.14097
G1 X67.77 Y22.81 E676.98809
G1 X67.77 Y65.48 E678.64147
G1 X20.10 Y65.48 E680.48859
G0 F12000 X19.63 Y65.95
G1 F2400 X19.63 Y22.34 E682.17808
G1 X68.23 Y22.34 E684.06131
G1 X68.23 Y65.95 E685.75081
G1 X19.63 Y65.95 E687.63404
G0 F12000 X28.77 Y60.78
G1 F2400 X29.17 Y61.27 E687.65838
G1 X29.65 Y61.66 E687.68272
G1 X30.21 Y61.96 E687.70703
G1 X30.81 Y62.14 E687.73137
G1 X31.43 Y62.20 E687.75570
G1 X32.06 Y62.14 E687.78003
G1 X32.66 Y61.96 E687.80438
G1 X33.21 Y61.66 E687.82868
G1 X33.70 Y61.27 E687.85302
G1 X34.09 Y60.78 E687.87736
G1 X34.39 Y60.23 E687.90167
G1 X34.57 Y59.63 E687.92600
G1 X34.63 Y59.00 E687.95029
G1 X34.57 Y58.38 E687.97462
G1 X34.39 Y57.78 E687.99896
G1 X34.09 Y57.22 E688.02326
G1 X33.70 Y56.74 E688.04760
G1 X33.21 Y56.34 E688.07194
G1 X32.66 Y56.04 E688.09625
G1 X32.06 Y55.86 E688.12058
G1 X31.43 Y55.80 E688.14491
G1 X30.81 Y55.86 E688.16924
G1 X30.21 Y56.04 E688.19358
G1 X29.65 Y56.34 E688.21788
G1 X29.17 Y56.74 E688.24222
G1 X28.77 Y57.22 E688.26656
G1 X28.47 Y57.78 E688.29086
G1 X28.29 Y58.38 E688.31520
G1 X28.23 Y59.00 E688.33953
G1 X28.29 Y59.63 E688.36382
G1 X28.47 Y60.23 E688.38815
G1 X28.77 Y60.78 E688.41246
G0 F12000 X28.26 Y59.00
G0 X28.80 Y57.24
G0 X30.22 Y56.08
G0 X35.43 Y45.35
G1 F2400 X35.68 Y45.42 E688.42230
G1 X35.93 Y45.45 E688.43223
G1 X36.19 Y45.42 E688.44217
G1 X36.43 Y45.35 E688.45193
G1 X36.66 Y45.23 E688.46186
G1 X36.85 Y45.07 E688.47180
G1 X37.02 Y44.87 E688.48168
G1 X37.13 Y44.64 E688.49159
G1 X37.21 Y44.40 E688.50144
G1 X37.23 Y44.15 E688.51137
G1 X37.21 Y43.89 E688.52130
G1 X37.13 Y43.65 E688.53114
G1 X37.02 Y43.42 E688.54106
G1 X36.85 Y43.22 E688.55094
G1 X36.64 Y43.05 E688.56140
G1 X36.39 Y42.93 E688.57251
G1 X36.19 Y42.87 E688.58057
G1 X35.93 Y42.84 E688.59050
G1 X35.68 Y42.87 E688.60043
G1 X35.43 Y42.94 E688.61027
G1 X35.21 Y43.06 E688.62019
G1 X35.01 Y43.22 E688.63007
G1 X34.85 Y43.42 E688.63995
G1 X34.73 Y43.65 E688.64978
G1 X34.65 Y43.89 E688.65972
G1 X34.63 Y44.15 E688.66965
G1 X34.66 Y44.41 E688.68004
G1 X34.75 Y44.69 E688.69125
G1 X34.85 Y44.87 E688.69938
G1 X35.01 Y45.07 E688.70921
G1 X35.21 Y45.23 E688.71909
G1 X35.43 Y45.35 E688.72901
G0 F12000 X40.30 Y44.87
G1 F2400 X40.51 Y45.56 E688.75710
G1 X40.85 Y46.20 E688.78529
G1 X41.31 Y46.76 E688.81342
G1 X41.87 Y47.22 E688.84147
G1 X42.52 Y47.57 E688.86964
G1 X43.21 Y47.78 E688.89777
G1 X43.93 Y47.85 E688.92588
G1 X44.65 Y47.78 E688.95399
G1 X45.35 Y47.57 E688.98213
G1 X45.99 Y47.22 E689.01030
G1 X46.55 Y46.76 E689.03838
G1 X47.01 Y46.20 E689.06646
G1 X47.35 Y45.56 E689.09463
G1 X47.56 Y44.87 E689.12276
G1 X47.63 Y44.15 E689.15087
G1 X47.56 Y43.42 E689.17898
G1 X47.35 Y42.73 E689.20711
G1 X47.01 Y42.09 E689.23528
G1 X46.55 Y41.53 E689.26337
G1 X45.99 Y41.07 E689.29145
G1 X45.35 Y40.72 E689.31962
G1 X44.65 Y40.51 E689.34775
G1 X43.93 Y40.44 E689.37586
G1 X43.21 Y40.51 E689.40397
G1 X42.52 Y40.72 E689.43210
G1 X41.87 Y41.07 E689.46027
G1 X41.31 Y41.53 E689.48832
G1 X40.85 Y42.09 E689.51645
G1 X40.51 Y42.73 E689.54464
G1 X40.30 Y43.42 E689.57274
G1 X40.23 Y44.15 E689.60085
G1 X40.30 Y44.87 E689.62896
G0 F12000 X41.34 Y46.74
G0 X43.21 Y49.06
G1 F2400 X43.01 Y49.22 E689.63884
G1 X42.85 Y49.42 E689.64872
G1 X42.73 Y49.65 E689.65855
G1 X42.65 Y49.89 E689.66849
G1 X42.63 Y50.15 E689.67842
G1 X42.66 Y50.41 E689.68881
G1 X42.75 Y50.69 E689.70002
G1 X42.85 Y50.87 E689.70815
G1 X43.01 Y51.07 E689.71798
G1 X43.21 Y51.23 E689.72786
G1 X43.43 Y51.35 E689.73778
G1 X43.68 Y51.42 E689.74762
G1 X43.93 Y51.45 E689.75755
G1 X44.19 Y51.42 E689.76749
G1 X44.43 Y51.35 E689.77724
G1 X44.66 Y51.23 E689.78718
G1 X44.85 Y51.07 E689.79711
G1 X45.02 Y50.87 E689.80700
G1 X45.13 Y50.64 E689.81691
G1 X45.21 Y50.40 E689.82675
G1 X45.23 Y50.15 E689.83669
G1 X45.21 Y49.89 E689.84662
G1 X45.13 Y49.65 E689.85646
G1 X45.02 Y49.42 E689.86637
G1 X44.85 Y49.22 E689.87626
G1 X44.64 Y49.05 E689.88672
G1 X44.39 Y48.93 E689.89783
G1 X44.19 Y48.87 E689.90588
G1 X43.93 Y48.84 E689.91582
G1 X43.68 Y48.87 E689.92575
G1 X43.43 Y48.94 E689.93559
G1 X43.21 Y49.06 E689.94550
G0 F12000 X50.85 Y44.87
G1 F2400 X51.01 Y45.07 E689.95533
G1 X51.21 Y45.23 E689.96522
G1 X51.43 Y45.35 E689.97513
G1 X51.68 Y45.42 E689.98497
G1 X51.93 Y45.45 E689.99491
G1 X52.19 Y45.42 E690.00484
G1 X52.43 Y45.35 E690.01460
G1 X52.66 Y45.23 E690.02453
G1 X52.85 Y45.07 E690.03447
G1 X53.02 Y44.87 E690.04435
G1 X53.13 Y44.64 E690.05427
G1 X53.21 Y44.40 E690.06411
G1 X53.23 Y44.15 E690.07404
G1 X53.21 Y43.89 E690.08397
G1 X53.13 Y43.65 E690.09381
G1 X53.02 Y43.42 E690.10373
G1 X52.85 Y43.22 E690.11361
G1 X52.64 Y43.05 E690.12408
G1 X52.39 Y42.93 E690.13518
G1 X52.19 Y42.87 E690.14324
G1 X51.93 Y42.84 E690.15317
G1 X51.68 Y42.87 E690.16310
G1 X51.43 Y42.94 E690.17295
G1 X51.21 Y43.06 E690.18286
G1 X51.01 Y43.22 E690.19274
G1 X50.85 Y43.42 E690.20263
G1 X50.73 Y43.65 E690.21245
G1 X50.65 Y43.89 E690.22239
G1 X50.63 Y44.15 E690.23232
G1 X50.66 Y44.41 E690.24271
G1 X50.75 Y44.69 E690.25392
G1 X50.85 Y44.87 E690.26205
G0 F12000 X44.85 Y39.07
G1 F2400 X45.02 Y38.87 E690.27194
G1 X45.13 Y38.64 E690.28185
G1 X45.21 Y38.40 E690.29169
G1 X45.23 Y38.15 E690.30163
G1 X45.21 Y37.89 E690.31156
G1 X45.13 Y37.65 E690.32140
G1 X45.02 Y37.42 E690.33131
G1 X44.85 Y37.22 E690.34120
G1 X44.64 Y37.05 E690.35166
G1 X44.39 Y36.93 E690.36277
G1 X44.19 Y36.87 E690.37082
G1 X43.93 Y36.84 E690.38076
G1 X43.68 Y36.87 E690.39069
G1 X43.43 Y36.94 E690.40053
G1 X43.21 Y37.06 E690.41045
G1 X43.01 Y37.22 E690.42033
G1 X42.85 Y37.42 E690.43021
G1 X42.73 Y37.65 E690.44004
G1 X42.65 Y37.89 E690.44998
G1 X42.63 Y38.15 E690.45990
G1 X42.66 Y38.41 E690.47029
G1 X42.75 Y38.69 E690.48151
G1 X42.85 Y38.87 E690.48964
G1 X43.01 Y39.07 E690.49947
G1 X43.21 Y39.23 E690.50935
G1 X43.43 Y39.35 E690.51926
G1 X43.68 Y39.42 E690.52911
G1 X43.93 Y39.45 E690.53904
G1 X44.19 Y39.42 E690.54897
G1 X44.43 Y39.35 E690.55873
G1 X44.66 Y39.23 E690.56866
G1 X44.85 Y39.07 E690.57860
G0 F12000 X43.45 Y39.32
G0 X35.77 Y36.14
G1 F2400 X36.08 Y35.11 E690.62035
G1 X36.19 Y34.04 E690.66213
G1 X36.08 Y32.97 E690.70386
G1 X35.77 Y31.94 E690.74561
G1 X35.26 Y30.99 E690.78735
G1 X34.58 Y30.15 E690.82912
G1 X33.75 Y29.47 E690.87089
G1 X32.80 Y28.96 E690.91264
G1 X31.77 Y28.65 E690.95439
G1 X30.69 Y28.54 E690.99616
G1 X29.62 Y28.65 E691.03790
G1 X28.59 Y28.96 E691.07969
G1 X27.64 Y29.47 E691.12143
G1 X26.80 Y30.15 E691.16317
G1 X26.12 Y30.99 E691.20494
G1 X25.61 Y31.94 E691.24668
G1 X25.30 Y32.97 E691.28843
G1 X25.20 Y34.04 E691.33021
G1 X25.30 Y35.11 E691.37194
G1 X25.61 Y36.14 E691.41369
G1 X26.12 Y37.09 E691.45544
G1 X26.80 Y37.93 E691.49721
G1 X27.64 Y38.61 E691.53894
G1 X28.59 Y39.12 E691.58069
G1 X29.62 Y39.43 E691.62247
G1 X30.69 Y39.54 E691.66421
G1 X31.77 Y39.43 E691.70599
G1 X32.80 Y39.12 E691.74774
G1 X33.75 Y38.61 E691.78948
G1 X34.58 Y37.93 E691.83125
G1 X35.26 Y37.09 E691.87302
G1 X35.77 Y36.14 E691.91476
G0 F12000 X41.34 Y46.74
G0 X43.22 Y47.74
G0 X45.34 Y47.53
G0 X54.17 Y56.74
G1 F2400 X53.77 Y57.22 E691.93910
G1 X53.47 Y57.78 E691.96341
G1 X53.29 Y58.38 E691.98774
G1 X53.23 Y59.00 E692.01207
G1 X53.29 Y59.63 E692.03637
G1 X53.47 Y60.23 E692.06070
G1 X53.77 Y60.78 E692.08500
G1 X54.17 Y61.27 E692.10934
G1 X54.65 Y61.66 E692.13368
G1 X55.21 Y61.96 E692.15799
G1 X55.81 Y62.14 E692.18233
G1 X56.43 Y62.20 E692.20666
G1 X57.06 Y62.14 E692.23099
G1 X57.66 Y61.96 E692.25534
G1 X58.21 Y61.66 E692.27964
G1 X58.70 Y61.27 E692.30398
G1 X59.09 Y60.78 E692.32832
G1 X59.39 Y60.23 E692.35263
G1 X59.57 Y59.63 E692.37696
G1 X59.63 Y59.00 E692.40125
G1 X59.57 Y58.38 E692.42559
G1 X59.39 Y57.78 E692.44992
G1 X59.09 Y57.22 E692.47422
G1 X58.70 Y56.74 E692.49856
G1 X58.21 Y56.34 E692.52290
G1 X57.66 Y56.04 E692.54721
G1 X57.06 Y55.86 E692.57154
G1 X56.43 Y55.80 E692.59587
G1 X55.81 Y55.86 E692.62020
G1 X55.21 Y56.04 E692.64454
G1 X54.65 Y56.34 E692.66884
G1 X54.17 Y56.74 E692.69318
G0 F12000 X54.50 Y57.07
;TYPE:WALL-OUTER
G1 F2400 X54.16 Y57.48 E692.71397
G1 X53.91 Y57.95 E692.73470
G1 X53.75 Y58.47 E692.75548
G1 X53.70 Y59.00 E692.77627
G1 X53.75 Y59.53 E692.79702
G1 X53.91 Y60.05 E692.81779
G1 X54.16 Y60.52 E692.83853
G1 X54.50 Y60.94 E692.85932
G1 X54.91 Y61.27 E692.88010
G1 X55.38 Y61.53 E692.90084
G1 X55.90 Y61.68 E692.92162
G1 X56.43 Y61.74 E692.94241
G1 X56.97 Y61.68 E692.96320
G1 X57.48 Y61.53 E692.98399
G1 X57.95 Y61.27 E693.00472
G1 X58.37 Y60.94 E693.02551
G1 X58.71 Y60.52 E693.04630
G1 X58.96 Y60.05 E693.06703
G1 X59.11 Y59.53 E693.08781
G1 X59.17 Y59.00 E693.10856
G1 X59.11 Y58.47 E693.12935
G1 X58.96 Y57.95 E693.15012
G1 X58.71 Y57.48 E693.17086
G1 X58.37 Y57.07 E693.19164
G1 X57.95 Y56.73 E693.21243
G1 X57.48 Y56.48 E693.23317
G1 X56.97 Y56.32 E693.25394
G1 X56.43 Y56.27 E693.27473
G1 X55.90 Y56.32 E693.29552
G1 X55.38 Y56.48 E693.31630
G1 X54.91 Y56.73 E693.33703
G1 X54.50 Y57.07 E693.35782
G0 F12000 X54.29 Y56.81
G0 X44.92 Y50.77
G0 X44.63 Y50.61
G1 F2400 X44.70 Y50.46 E693.36413
G1 X44.75 Y50.31 E693.37045
G1 X44.77 Y50.15 E693.37680
G1 X44.75 Y49.98 E693.38314
G1 X44.70 Y49.83 E693.38947
G1 X44.63 Y49.68 E693.39578
G1 X44.52 Y49.55 E693.40214
G1 X44.39 Y49.45 E693.40869
G1 X44.22 Y49.36 E693.41618
G1 X44.09 Y49.33 E693.42112
G1 X43.93 Y49.31 E693.42746
G1 X43.77 Y49.33 E693.43381
G1 X43.61 Y49.38 E693.44014
G1 X43.47 Y49.45 E693.44644
G1 X43.34 Y49.55 E693.45280
G1 X43.24 Y49.68 E693.45917
G1 X43.16 Y49.83 E693.46544
G1 X43.11 Y49.98 E693.47181
G1 X43.10 Y50.15 E693.47816
G1 X43.11 Y50.31 E693.48466
G1 X43.18 Y50.50 E693.49220
G1 X43.24 Y50.61 E693.49718
G1 X43.34 Y50.73 E693.50349
G1 X43.47 Y50.84 E693.50985
G1 X43.61 Y50.91 E693.51616
G1 X43.77 Y50.96 E693.52248
G1 X43.93 Y50.98 E693.52883
G1 X44.09 Y50.96 E693.53518
G1 X44.25 Y50.91 E693.54145
G1 X44.40 Y50.84 E693.54780
G1 X44.52 Y50.73 E693.55416
G1 X44.63 Y50.61 E693.56052
G0 F12000 X44.92 Y50.77
G0 X45.10 Y49.66
G0 X44.66 Y47.63
G0 X44.56 Y47.32
G1 F2400 X45.17 Y47.13 E693.58509
G1 X45.73 Y46.83 E693.60966
G1 X46.22 Y46.43 E693.63422
G1 X46.62 Y45.94 E693.65878
G1 X46.92 Y45.38 E693.68334
G1 X47.10 Y44.78 E693.70792
G1 X47.17 Y44.15 E693.73248
G1 X47.10 Y43.51 E693.75705
G1 X46.92 Y42.91 E693.78163
G1 X46.62 Y42.35 E693.80619
G1 X46.22 Y41.86 E693.83075
G1 X45.73 Y41.46 E693.85531
G1 X45.17 Y41.16 E693.87987
G1 X44.56 Y40.97 E693.90445
G1 X43.93 Y40.91 E693.92902
G1 X43.30 Y40.97 E693.95359
G1 X42.69 Y41.16 E693.97816
G1 X42.13 Y41.46 E694.00273
G1 X41.65 Y41.86 E694.02726
G1 X41.24 Y42.35 E694.05186
G1 X40.94 Y42.91 E694.07644
G1 X40.76 Y43.51 E694.10098
G1 X40.70 Y44.15 E694.12555
G1 X40.76 Y44.78 E694.15012
G1 X40.94 Y45.38 E694.17466
G1 X41.24 Y45.94 E694.19924
G1 X41.65 Y46.43 E694.22385
G1 X42.13 Y46.83 E694.24838
G1 X42.69 Y47.13 E694.27294
G1 X43.30 Y47.32 E694.29752
G1 X43.93 Y47.38 E694.32208
G1 X44.56 Y47.32 E694.34665
G0 F12000 X44.66 Y47.63
G0 X45.34 Y47.53
G0 X50.88 Y44.65
G0 X51.18 Y44.50
G1 F2400 X51.24 Y44.61 E694.35163
G1 X51.34 Y44.73 E694.35793
G1 X51.47 Y44.84 E694.36429
G1 X51.61 Y44.91 E694.37060
G1 X51.77 Y44.96 E694.37693
G1 X51.93 Y44.98 E694.38327
G1 X52.09 Y44.96 E694.38962
G1 X52.25 Y44.91 E694.39590
G1 X52.40 Y44.84 E694.40224
G1 X52.52 Y44.73 E694.40860
G1 X52.63 Y44.61 E694.41496
G1 X52.70 Y44.46 E694.42127
G1 X52.75 Y44.31 E694.42760
G1 X52.77 Y44.15 E694.43394
G1 X52.75 Y43.98 E694.44029
G1 X52.70 Y43.83 E694.44661
G1 X52.63 Y43.68 E694.45292
G1 X52.52 Y43.55 E694.45928
G1 X52.39 Y43.45 E694.46584
G1 X52.22 Y43.36 E694.47333
G1 X52.09 Y43.33 E694.47827
G1 X51.93 Y43.31 E694.48461
G1 X51.77 Y43.33 E694.49096
G1 X51.61 Y43.38 E694.49728
G1 X51.47 Y43.45 E694.50359
G1 X51.34 Y43.55 E694.50995
G1 X51.24 Y43.68 E694.51631
G1 X51.16 Y43.83 E694.52259
G1 X51.11 Y43.98 E694.52896
G1 X51.10 Y44.15 E694.53530
G1 X51.11 Y44.31 E694.54180
G1 X51.18 Y44.50 E694.54935
G0 F12000 X50.88 Y44.65
G0 X44.78 Y38.95
G0 X44.52 Y38.73
G1 F2400 X44.63 Y38.61 E694.55571
G1 X44.70 Y38.46 E694.56202
G1 X44.75 Y38.31 E694.56835
G1 X44.77 Y38.15 E694.57469
G1 X44.75 Y37.98 E694.58104
G1 X44.70 Y37.83 E694.58736
G1 X44.63 Y37.68 E694.59367
G1 X44.52 Y37.55 E694.60003
G1 X44.39 Y37.45 E694.60659
G1 X44.22 Y37.36 E694.61407
G1 X44.09 Y37.33 E694.61901
G1 X43.93 Y37.31 E694.62536
G1 X43.77 Y37.33 E694.63171
G1 X43.61 Y37.38 E694.63803
G1 X43.47 Y37.45 E694.64434
G1 X43.34 Y37.55 E694.65070
G1 X43.24 Y37.68 E694.65706
G1 X43.16 Y37.83 E694.66333
G1 X43.11 Y37.98 E694.66971
G1 X43.10 Y38.15 E694.67605
G1 X43.11 Y38.31 E694.68255
G1 X43.18 Y38.50 E694.69010
G1 X43.24 Y38.61 E694.69508
G1 X43.34 Y38.73 E694.70138
G1 X43.47 Y38.84 E694.70774
G1 X43.61 Y38.91 E694.71405
G1 X43.77 Y38.96 E694.72038
G1 X43.93 Y38.98 E694.72672
G1 X44.09 Y38.96 E694.73307
G1 X44.25 Y38.91 E694.73935
G1 X44.40 Y38.84 E694.74569
G1 X44.52 Y38.73 E694.75205
G0 F12000 X44.78 Y38.95
G0 X36.92 Y43.52
G0 X36.63 Y43.68
G1 F2400 X36.52 Y43.55 E694.75841
G1 X36.39 Y43.45 E694.76497
G1 X36.22 Y43.36 E694.77245
G1 X36.09 Y43.33 E694.77739
G1 X35.93 Y43.31 E694.78374
G1 X35.77 Y43.33 E694.79009
G1 X35.61 Y43.38 E694.79641
G1 X35.47 Y43.45 E694.80272
G1 X35.34 Y43.55 E694.80908
G1 X35.24 Y43.68 E694.81544
G1 X35.16 Y43.83 E694.82171
G1 X35.11 Y43.98 E694.82809
G1 X35.10 Y44.15 E694.83443
G1 X35.11 Y44.31 E694.84093
G1 X35.18 Y44.50 E694.84848
G1 X35.24 Y44.61 E694.85345
G1 X35.34 Y44.73 E694.85976
G1 X35.47 Y44.84 E694.86612
G1 X35.61 Y44.91 E694.87243
G1 X35.77 Y44.96 E694.87875
G1 X35.93 Y44.98 E694.88510
G1 X36.09 Y44.96 E694.89145
G1 X36.25 Y44.91 E694.89773
G1 X36.40 Y44.84 E694.90407
G1 X36.52 Y44.73 E694.91043
G1 X36.63 Y44.61 E694.91679
G1 X36.70 Y44.46 E694.92310
G1 X36.75 Y44.31 E694.92943
G1 X36.77 Y44.15 E694.93577
G1 X36.75 Y43.98 E694.94212
G1 X36.70 Y43.83 E694.94844
G1 X36.63 Y43.68 E694.95475
G0 F12000 X36.92 Y43.52
G0 X33.64 Y38.51
G0 X33.49 Y38.22
G1 F2400 X34.25 Y37.60 E694.99297
G1 X34.87 Y36.83 E695.03119
G1 X35.34 Y35.96 E695.06936
G1 X35.62 Y35.02 E695.10755
G1 X35.72 Y34.04 E695.14578
G1 X35.62 Y33.06 E695.18398
G1 X35.34 Y32.12 E695.22217
G1 X34.87 Y31.25 E695.26034
G1 X34.25 Y30.48 E695.29856
G1 X33.49 Y29.86 E695.33678
G1 X32.62 Y29.39 E695.37495
G1 X31.67 Y29.11 E695.41314
G1 X30.69 Y29.01 E695.45137
G1 X29.71 Y29.11 E695.48957
G1 X28.77 Y29.39 E695.52780
G1 X27.90 Y29.86 E695.56597
G1 X27.14 Y30.48 E695.60416
G1 X26.51 Y31.25 E695.64238
G1 X26.05 Y32.12 E695.68055
G1 X25.76 Y33.06 E695.71874
G1 X25.66 Y34.04 E695.75697
G1 X25.76 Y35.02 E695.79517
G1 X26.05 Y35.96 E695.83336
G1 X26.51 Y36.83 E695.87153
G1 X27.14 Y37.60 E695.90975
G1 X27.90 Y38.22 E695.94794
G1 X28.77 Y38.69 E695.98611
G1 X29.71 Y38.97 E696.02434
G1 X30.69 Y39.07 E696.06253
G1 X31.67 Y38.97 E696.10077
G1 X32.62 Y38.69 E696.13896
G1 X33.49 Y38.22 E696.17713
G0 F12000 X33.64 Y38.51
G0 X32.06 Y56.00
G0 X31.97 Y56.32
G1 F2400 X31.43 Y56.27 E696.19792
G1 X30.90 Y56.32 E696.21871
G1 X30.39 Y56.48 E696.23949
G1 X29.91 Y56.73 E696.26022
G1 X29.50 Y57.07 E696.28101
G1 X29.16 Y57.48 E696.30179
G1 X28.91 Y57.95 E696.32253
G1 X28.75 Y58.47 E696.34330
G1 X28.70 Y59.00 E696.36409
G1 X28.75 Y59.53 E696.38484
G1 X28.91 Y60.05 E696.40562
G1 X29.16 Y60.52 E696.42635
G1 X29.50 Y60.94 E696.44714
G1 X29.91 Y61.27 E696.46793
G1 X30.39 Y61.53 E696.48866
G1 X30.90 Y61.68 E696.50945
G1 X31.43 Y61.74 E696.53024
G1 X31.97 Y61.68 E696.55103
G1 X32.48 Y61.53 E696.57182
G1 X32.95 Y61.27 E696.59255
G1 X33.37 Y60.94 E696.61334
G1 X33.71 Y60.52 E696.63412
G1 X33.96 Y60.05 E696.65486
G1 X34.11 Y59.53 E696.67563
G1 X34.17 Y59.00 E696.69638
G1 X34.11 Y58.47 E696.71717
G1 X33.96 Y57.95 E696.73795
G1 X33.71 Y57.48 E696.75868
G1 X33.37 Y57.07 E696.77947
G1 X32.95 Y56.73 E696.80026
G1 X32.48 Y56.48 E696.82099
G1 X31.97 Y56.32 E696.84177
G0 F12000 X32.06 Y56.00
G0 X30.22 Y56.08
G0 X28.80 Y57.24
G0 X19.41 Y66.08
G0 X19.16 Y66.41
G1 F2400 X19.16 Y21.88 E698.56737
G1 X68.70 Y21.88 E700.48672
G1 X68.70 Y66.41 E702.21233
G1 X19.16 Y66.41 E704.13167
G0 F12000 X19.41 Y66.08
G0 X20.26 Y65.08
;TYPE:FILL
G1 F2400 X27.98 Y57.37 E704.55447
G0 F12000 X27.66 Y58.34
G1 F2400 X20.69 Y65.31 E704.93663
G0 F12000 X21.35 Y65.31
G1 F2400 X27.60 Y59.06 E705.27947
G0 F12000 X27.66 Y59.66
G1 F2400 X22.00 Y65.31 E705.58946
G0 F12000 X22.66 Y65.31
G1 F2400 X27.80 Y60.18 E705.87088
G0 F12000 X27.98 Y60.65
G1 F2400 X23.32 Y65.31 E706.12638
G0 F12000 X23.98 Y65.31
G1 F2400 X28.21 Y61.08 E706.35834
G0 F12000 X28.50 Y61.45
G1 F2400 X24.64 Y65.31 E706.57005
G0 F12000 X25.30 Y65.31
G1 F2400 X28.82 Y61.80 E706.76294
G0 F12000 X29.18 Y62.09
G1 F2400 X25.96 Y65.31 E706.93961
G0 F12000 X26.62 Y65.31
G1 F2400 X29.59 Y62.34 E707.10247
G0 F12000 X30.03 Y62.56
G1 F2400 X27.28 Y65.31 E707.25327
G0 F12000 X27.94 Y65.31
G1 F2400 X30.53 Y62.72 E707.39563
G0 F12000 X31.11 Y62.80
G1 F2400 X28.59 Y65.31 E707.53329
G0 F12000 X29.25 Y65.31
G1 F2400 X31.77 Y62.80 E707.67094
G0 F12000 X32.59 Y62.64
G1 F2400 X29.91 Y65.31 E707.81769
G0 F12000 X30.57 Y65.31
G1 F2400 X43.82 Y52.07 E708.54365
G0 F12000 X43.27 Y51.96
G1 F2400 X35.07 Y60.16 E708.99316
G0 F12000 X35.23 Y59.34
G1 F2400 X42.84 Y51.73 E709.40968
G0 F12000 X42.49 Y51.42
G1 F2400 X35.23 Y58.67 E709.80713
G0 F12000 X35.15 Y58.10
G1 F2400 X42.22 Y51.03 E710.19469
G0 F12000 X42.04 Y50.56
G1 F2400 X35.00 Y57.60 E710.58047
G0 F12000 X34.77 Y57.16
G1 F2400 X42.02 Y49.91 E710.97737
G0 F12000 X42.42 Y48.19
G1 F2400 X34.23 Y56.39 E711.42636
G0 F12000 X33.88 Y56.07
G1 F2400 X41.97 Y47.99 E711.86951
G0 F12000 X41.54 Y47.76
G1 F2400 X33.51 Y55.78 E712.30946
G0 F12000 X33.08 Y55.55
G1 F2400 X41.17 Y47.46 E712.75288
G0 F12000 X40.82 Y47.16
G1 F2400 X32.61 Y55.37 E713.20294
G0 F12000 X32.09 Y55.23
G1 F2400 X40.52 Y46.80 E713.66524
G0 F12000 X40.25 Y46.41
G1 F2400 X31.49 Y55.17 E714.14538
G0 F12000 X30.77 Y55.23
G1 F2400 X40.02 Y45.98 E714.65224
G0 F12000 X39.84 Y45.51
G1 F2400 X29.80 Y55.55 E715.20238
G0 F12000 X32.05 Y55.90
G0 X34.52 Y56.75
G1 F2400 X42.93 Y48.35 E715.66288
G0 F12000 X45.21 Y48.70
G1 F2400 X45.96 Y47.95 E715.70381
G0 F12000 X45.52 Y49.05
G1 F2400 X50.03 Y44.54 E715.95089
G0 F12000 X50.21 Y45.02
G1 F2400 X45.74 Y49.48 E716.19573
G0 F12000 X45.85 Y50.03
G1 F2400 X50.48 Y45.41 E716.44901
G0 F12000 X50.82 Y45.73
G1 F2400 X45.74 Y50.80 E716.72716
G0 F12000 X44.59 Y51.95
G1 F2400 X31.23 Y65.31 E717.45926
G0 F12000 X31.89 Y65.31
G1 F2400 X51.25 Y45.95 E718.52037
G0 F12000 X51.80 Y46.07
G1 F2400 X32.55 Y65.31 E719.57518
G0 F12000 X33.21 Y65.31
G1 F2400 X52.56 Y45.97 E720.63547
G0 F12000 X53.75 Y44.77
G1 F2400 X67.60 Y30.92 E721.39431
G0 F12000 X67.60 Y31.58
G1 F2400 X33.87 Y65.31 E723.24292
G0 F12000 X34.53 Y65.31
G1 F2400 X67.60 Y32.24 E725.05542
G0 F12000 X67.60 Y32.90
G1 F2400 X35.19 Y65.31 E726.83181
G0 F12000 X35.84 Y65.31
G1 F2400 X67.60 Y33.56 E728.57209
G0 F12000 X67.60 Y34.22
G1 F2400 X36.50 Y65.31 E730.27625
G0 F12000 X37.16 Y65.31
G1 F2400 X67.60 Y34.88 E731.94430
G0 F12000 X67.60 Y35.53
G1 F2400 X37.82 Y65.31 E733.57624
G0 F12000 X38.48 Y65.31
G1 F2400 X67.60 Y36.19 E735.17207
G0 F12000 X67.60 Y36.85
G1 F2400 X39.14 Y65.31 E736.73179
G0 F12000 X39.80 Y65.31
G1 F2400 X67.60 Y37.51 E738.25536
G0 F12000 X67.60 Y38.17
G1 F2400 X40.46 Y65.31 E739.74283
G0 F12000 X41.12 Y65.31
G1 F2400 X67.60 Y38.83 E741.19418
G0 F12000 X67.60 Y39.49
G1 F2400 X41.77 Y65.31 E742.60942
G0 F12000 X42.43 Y65.31
G1 F2400 X67.60 Y40.15 E743.98855
G0 F12000 X67.60 Y40.81
G1 F2400 X43.09 Y65.31 E745.33157
G0 F12000 X43.75 Y65.31
G1 F2400 X67.60 Y41.47 E746.63848
G0 F12000 X67.60 Y42.12
G1 F2400 X44.41 Y65.31 E747.90927
G0 F12000 X45.07 Y65.31
G1 F2400 X52.93 Y57.46 E748.33982
G0 F12000 X52.66 Y58.39
G1 F2400 X45.73 Y65.31 E748.71938
G0 F12000 X46.39 Y65.31
G1 F2400 X52.60 Y59.10 E749.06003
G0 F12000 X52.66 Y59.70
G1 F2400 X47.05 Y65.31 E749.36783
G0 F12000 X47.71 Y65.31
G1 F2400 X52.81 Y60.21 E749.64746
G0 F12000 X53.00 Y60.68
G1 F2400 X48.37 Y65.31 E749.90145
G0 F12000 X49.02 Y65.31
G1 F2400 X53.23 Y61.11 E750.13190
G0 F12000 X53.52 Y61.48
G1 F2400 X49.68 Y65.31 E750.34230
G0 F12000 X50.34 Y65.31
G1 F2400 X53.84 Y61.81 E750.53415
G0 F12000 X54.21 Y62.11
G1 F2400 X51.00 Y65.31 E750.70972
G0 F12000 X51.66 Y65.31
G1 F2400 X54.62 Y62.36 E750.87176
G0 F12000 X55.06 Y62.57
G1 F2400 X52.32 Y65.31 E751.02202
G0 F12000 X52.98 Y65.31
G1 F2400 X55.57 Y62.73 E751.16383
G0 F12000 X56.15 Y62.81
G1 F2400 X53.64 Y65.31 E751.30121
G0 F12000 X54.30 Y65.31
G1 F2400 X56.81 Y62.80 E751.43914
G0 F12000 X57.65 Y62.62
G1 F2400 X54.96 Y65.31 E751.58693
G0 F12000 X55.62 Y65.31
G1 F2400 X67.60 Y53.33 E752.24379
G0 F12000 X67.60 Y53.99
G1 F2400 X56.27 Y65.31 E752.86455
G0 F12000 X56.93 Y65.31
G1 F2400 X67.60 Y54.65 E753.44919
G0 F12000 X67.60 Y55.30
G1 F2400 X57.59 Y65.31 E753.99771
G0 F12000 X58.25 Y65.31
G1 F2400 X67.60 Y55.96 E754.51013
G0 F12000 X67.60 Y56.62
G1 F2400 X58.91 Y65.31 E754.98643
G0 F12000 X59.57 Y65.31
G1 F2400 X67.60 Y57.28 E755.42663
G0 F12000 X67.60 Y57.94
G1 F2400 X60.23 Y65.31 E755.83071
G0 F12000 X60.89 Y65.31
G1 F2400 X67.60 Y58.60 E756.19868
G0 F12000 X67.60 Y59.26
G1 F2400 X61.55 Y65.31 E756.53053
G0 F12000 X62.20 Y65.31
G1 F2400 X67.60 Y59.92 E756.82628
G0 F12000 X67.60 Y60.58
G1 F2400 X62.86 Y65.31 E757.08591
G0 F12000 X63.52 Y65.31
G1 F2400 X67.60 Y61.24 E757.30943
G0 F12000 X67.60 Y61.90
G1 F2400 X64.18 Y65.31 E757.49684
G0 F12000 X64.84 Y65.31
G1 F2400 X67.60 Y62.55 E757.64814
G0 F12000 X67.60 Y63.21
G1 F2400 X65.50 Y65.31 E757.76332
G0 F12000 X66.16 Y65.31
G1 F2400 X67.60 Y63.87 E757.84240
G0 F12000 X67.60 Y64.53
G1 F2400 X66.82 Y65.31 E757.88536
G0 F12000 X67.48 Y65.31
G1 F2400 X67.60 Y65.19 E757.89218
G0 F12000 X60.05 Y60.22
G1 F2400 X67.60 Y52.67 E758.30596
G0 F12000 X67.60 Y52.01
G1 F2400 X60.23 Y59.38 E758.71004
G0 F12000 X60.24 Y58.72
G1 F2400 X67.60 Y51.35 E759.11358
G0 F12000 X67.60 Y50.69
G1 F2400 X60.16 Y58.14 E759.52152
G0 F12000 X60.01 Y57.63
G1 F2400 X67.60 Y50.03 E759.93782
G0 F12000 X67.60 Y49.37
G1 F2400 X59.79 Y57.19 E760.36596
G0 F12000 X59.54 Y56.77
G1 F2400 X67.60 Y48.72 E760.80763
G0 F12000 X67.60 Y48.06
G1 F2400 X59.25 Y56.41 E761.26552
G0 F12000 X58.91 Y56.09
G1 F2400 X67.60 Y47.40 E761.74210
G0 F12000 X67.60 Y46.74
G1 F2400 X58.54 Y55.80 E762.23873
G0 F12000 X58.11 Y55.57
G1 F2400 X67.60 Y46.08 E762.75888
G0 F12000 X67.60 Y45.42
G1 F2400 X57.64 Y55.38 E763.30469
G0 F12000 X57.13 Y55.24
G1 F2400 X67.60 Y44.76 E763.87870
G0 F12000 X67.60 Y44.10
G1 F2400 X56.53 Y55.18 E764.48556
G0 F12000 X55.82 Y55.23
G1 F2400 X67.60 Y43.44 E765.13133
G0 F12000 X67.60 Y42.78
G1 F2400 X54.89 Y55.50 E765.82798
G0 F12000 X53.85 Y44.01
G1 F2400 X67.60 Y30.26 E766.58140
G0 F12000 X67.60 Y29.60
G1 F2400 X53.74 Y43.47 E767.34112
G0 F12000 X53.51 Y43.03
G1 F2400 X67.60 Y28.94 E768.11322
G0 F12000 X67.60 Y28.29
G1 F2400 X53.20 Y42.69 E768.90264
G0 F12000 X52.80 Y42.43
G1 F2400 X67.60 Y27.63 E769.71382
G0 F12000 X67.60 Y26.97
G1 F2400 X52.32 Y42.25 E770.55129
G0 F12000 X51.67 Y42.24
G1 F2400 X67.60 Y26.31 E771.42412
G0 F12000 X67.60 Y25.65
G1 F2400 X48.15 Y45.10 E772.49010
G0 F12000 X48.25 Y44.35
G1 F2400 X67.60 Y24.99 E773.55077
G0 F12000 X67.60 Y24.33
G1 F2400 X48.22 Y43.71 E774.61270
G0 F12000 X48.13 Y43.14
G1 F2400 X67.60 Y23.67 E775.67948
G0 F12000 X67.60 Y23.01
G1 F2400 X47.98 Y42.63 E776.75459
G0 F12000 X47.77 Y42.18
G1 F2400 X66.98 Y22.97 E777.80718
G0 F12000 X66.32 Y22.97
G1 F2400 X47.54 Y41.75 E778.83629
G0 F12000 X47.25 Y41.39
G1 F2400 X65.67 Y22.97 E779.84537
G0 F12000 X65.01 Y22.97
G1 F2400 X46.94 Y41.03 E780.83513
G0 F12000 X46.58 Y40.74
G1 F2400 X64.35 Y22.97 E781.80867
G0 F12000 X63.69 Y22.97
G1 F2400 X46.20 Y40.46 E782.76717
G0 F12000 X45.77 Y40.23
G1 F2400 X63.03 Y22.97 E783.71304
G0 F12000 X62.37 Y22.97
G1 F2400 X45.29 Y40.05 E784.64877
G0 F12000 X45.63 Y39.06
G1 F2400 X61.71 Y22.97 E785.53014
G0 F12000 X61.05 Y22.97
G1 F2400 X45.87 Y38.16 E786.36236
G0 F12000 X45.77 Y37.59
G1 F2400 X60.39 Y22.97 E787.16337
G0 F12000 X59.73 Y22.97
G1 F2400 X45.57 Y37.13 E787.93931
G0 F12000 X45.28 Y36.76
G1 F2400 X59.08 Y22.97 E788.69500
G0 F12000 X58.42 Y22.97
G1 F2400 X44.91 Y36.48 E789.43521
G0 F12000 X44.44 Y36.29
G1 F2400 X57.76 Y22.97 E790.16485
G0 F12000 X57.10 Y22.97
G1 F2400 X43.85 Y36.22 E790.89065
G0 F12000 X42.90 Y36.51
G1 F2400 X56.44 Y22.97 E791.63256
G0 F12000 X55.78 Y22.97
G1 F2400 X36.46 Y42.29 E792.69123
G0 F12000 X36.92 Y42.49
G1 F2400 X42.30 Y37.11 E792.98566
G0 F12000 X42.00 Y38.07
G1 F2400 X37.30 Y42.77 E793.24357
G0 F12000 X37.58 Y43.15
G1 F2400 X42.07 Y38.66 E793.48950
G0 F12000 X42.27 Y39.12
G1 F2400 X37.78 Y43.61 E793.73541
G0 F12000 X37.86 Y44.18
G1 F2400 X40.39 Y41.66 E793.87369
G0 F12000 X39.80 Y42.91
G1 F2400 X37.60 Y45.10 E793.99400
G0 F12000 X36.89 Y45.81
G1 F2400 X20.26 Y62.45 E794.90546
G0 F12000 X20.26 Y63.10
G1 F2400 X39.64 Y43.73 E795.96728
G0 F12000 X39.62 Y44.40
G1 F2400 X20.26 Y63.76 E797.02825
G0 F12000 X20.26 Y64.42
G1 F2400 X39.68 Y45.00 E798.09256
G0 F12000 X35.97 Y46.07
G1 F2400 X20.26 Y61.79 E798.95358
G0 F12000 X20.26 Y61.13
G1 F2400 X35.40 Y45.99 E799.78289
G0 F12000 X34.94 Y45.80
G1 F2400 X20.26 Y60.47 E800.58697
G0 F12000 X20.26 Y59.81
G1 F2400 X34.56 Y45.51 E801.37055
G0 F12000 X34.28 Y45.13
G1 F2400 X20.26 Y59.15 E802.13860
G0 F12000 X20.26 Y58.49
G1 F2400 X34.08 Y44.67 E802.89572
G0 F12000 X34.00 Y44.09
G1 F2400 X20.26 Y57.83 E803.64865
G0 F12000 X20.26 Y57.17
G1 F2400 X34.27 Y43.16 E804.41642
G0 F12000 X34.95 Y42.48
G1 F2400 X54.46 Y22.97 E805.48567
G0 F12000 X55.12 Y22.97
G1 F2400 X35.88 Y42.21 E806.54006
G0 F12000 X33.21 Y39.61
G1 F2400 X20.26 Y52.56 E807.24986
G0 F12000 X20.26 Y53.22
G1 F2400 X50.51 Y22.97 E808.90728
G0 F12000 X51.17 Y22.97
G1 F2400 X20.26 Y53.88 E810.60082
G0 F12000 X20.26 Y54.54
G1 F2400 X51.83 Y22.97 E812.33046
G0 F12000 X52.48 Y22.97
G1 F2400 X20.26 Y55.20 E814.09625
G0 F12000 X20.26 Y55.85
G1 F2400 X53.14 Y22.97 E815.89814
G0 F12000 X53.80 Y22.97
G1 F2400 X20.26 Y56.51 E817.73615
G0 F12000 X20.26 Y51.90
G1 F2400 X32.21 Y39.95 E818.39093
G0 F12000 X31.41 Y40.10
G1 F2400 X20.26 Y51.24 E819.00166
G0 F12000 X20.26 Y50.58
G1 F2400 X30.68 Y40.17 E819.57243
G0 F12000 X30.08 Y40.11
G1 F2400 X20.26 Y49.92 E820.11038
G0 F12000 X20.26 Y49.27
G1 F2400 X29.48 Y40.05 E820.61562
G0 F12000 X28.98 Y39.89
G1 F2400 X20.26 Y48.61 E821.09313
G0 F12000 X20.26 Y47.95
G1 F2400 X28.47 Y39.74 E821.54286
G0 F12000 X28.02 Y39.53
G1 F2400 X20.26 Y47.29 E821.96812
G0 F12000 X20.26 Y46.63
G1 F2400 X27.59 Y39.30 E822.36984
G0 F12000 X27.18 Y39.05
G1 F2400 X20.26 Y45.97 E822.74910
G0 F12000 X20.26 Y45.31
G1 F2400 X26.82 Y38.75 E823.10849
G0 F12000 X26.46 Y38.46
G1 F2400 X20.26 Y44.65 E823.44802
G0 F12000 X20.26 Y43.99
G1 F2400 X26.14 Y38.11 E823.77023
G0 F12000 X25.84 Y37.75
G1 F2400 X20.26 Y43.33 E824.07617
G0 F12000 X20.26 Y42.67
G1 F2400 X25.56 Y37.38 E824.36649
G0 F12000 X25.33 Y36.95
G1 F2400 X20.26 Y42.02 E824.64424
G0 F12000 X20.26 Y41.36
G1 F2400 X25.10 Y36.52 E824.90943
G0 F12000 X24.92 Y36.04
G1 F2400 X20.26 Y40.70 E825.16490
G0 F12000 X20.26 Y40.04
G1 F2400 X24.77 Y35.53 E825.41196
G0 F12000 X24.66 Y34.98
G1 F2400 X20.26 Y39.38 E825.65279
G0 F12000 X20.26 Y38.72
G1 F2400 X24.60 Y34.38 E825.89037
G0 F12000 X24.59 Y33.73
G1 F2400 X20.26 Y38.06 E826.12770
G0 F12000 X20.26 Y37.40
G1 F2400 X24.66 Y33.00 E826.36900
G0 F12000 X24.91 Y32.10
G1 F2400 X20.26 Y36.74 E826.62354
G0 F12000 X20.26 Y36.09
G1 F2400 X25.46 Y30.89 E826.90835
G0 F12000 X27.54 Y28.81
G1 F2400 X33.37 Y22.97 E827.22802
G0 F12000 X34.03 Y22.97
G1 F2400 X28.75 Y28.25 E827.51724
G0 F12000 X29.65 Y28.01
G1 F2400 X34.69 Y22.97 E827.79337
G0 F12000 X35.35 Y22.97
G1 F2400 X30.38 Y27.94 E828.06552
G0 F12000 X31.04 Y27.94
G1 F2400 X36.01 Y22.97 E828.33792
G0 F12000 X36.67 Y22.97
G1 F2400 X31.64 Y28.00 E828.61356
G0 F12000 X32.18 Y28.12
G1 F2400 X37.33 Y22.97 E828.89549
G0 F12000 X37.99 Y22.97
G1 F2400 X32.69 Y28.27 E829.18581
G0 F12000 X33.17 Y28.45
G1 F2400 X38.65 Y22.97 E829.48583
G0 F12000 X39.30 Y22.97
G1 F2400 X33.60 Y28.68 E829.79840
G0 F12000 X34.03 Y28.91
G1 F2400 X39.96 Y22.97 E830.12357
G0 F12000 X40.62 Y22.97
G1 F2400 X34.40 Y29.19 E830.46439
G0 F12000 X34.76 Y29.49
G1 F2400 X41.28 Y22.97 E830.82148
G0 F12000 X41.94 Y22.97
G1 F2400 X35.11 Y29.80 E831.19578
G0 F12000 X35.41 Y30.17
G1 F2400 X42.60 Y22.97 E831.58994
G0 F12000 X43.26 Y22.97
G1 F2400 X35.70 Y30.53 E832.00394
G0 F12000 X35.95 Y30.94
G1 F2400 X43.92 Y22.97 E832.44041
G0 F12000 X44.58 Y22.97
G1 F2400 X36.18 Y31.37 E832.90044
G0 F12000 X36.39 Y31.82
G1 F2400 X45.23 Y22.97 E833.38501
G0 F12000 X45.89 Y22.97
G1 F2400 X36.55 Y32.32 E833.89727
G0 F12000 X36.70 Y32.83
G1 F2400 X46.55 Y22.97 E834.43725
G0 F12000 X47.21 Y22.97
G1 F2400 X36.76 Y33.42 E835.00994
G0 F12000 X36.82 Y34.02
G1 F2400 X47.87 Y22.97 E835.61551
G0 F12000 X48.53 Y22.97
G1 F2400 X36.75 Y34.75 E836.26098
G0 F12000 X36.61 Y35.56
G1 F2400 X49.19 Y22.97 E836.95050
G0 F12000 X49.85 Y22.97
G1 F2400 X36.26 Y36.56 E837.69504
G0 F12000 X41.44 Y40.61
G1 F2400 X42.55 Y39.50 E837.75581
G0 F12000 X42.92 Y39.79
G1 F2400 X42.70 Y40.01 E837.76801
G0 F12000 X45.97 Y41.10
G0 X47.32 Y42.74
G0 X47.53 Y44.86
G0 X47.74 Y46.17
G1 F2400 X50.02 Y43.89 E837.89284
G0 F12000 X44.83 Y37.25
G0 X32.71 Y22.97
G1 F2400 X20.26 Y35.43 E838.57524
G0 F12000 X20.26 Y34.77
G1 F2400 X32.05 Y22.97 E839.22152
G0 F12000 X31.40 Y22.97
G1 F2400 X20.26 Y34.11 E839.83170
G0 F12000 X20.26 Y33.45
G1 F2400 X30.74 Y22.97 E840.40574
G0 F12000 X30.08 Y22.97
G1 F2400 X20.26 Y32.79 E840.94366
G0 F12000 X20.26 Y32.13
G1 F2400 X29.42 Y22.97 E841.44548
G0 F12000 X28.76 Y22.97
G1 F2400 X20.26 Y31.47 E841.91118
G0 F12000 X20.26 Y30.81
G1 F2400 X28.10 Y22.97 E842.34077
G0 F12000 X27.44 Y22.97
G1 F2400 X20.26 Y30.15 E842.73424
G0 F12000 X20.26 Y29.49
G1 F2400 X26.78 Y22.97 E843.09161
G0 F12000 X26.12 Y22.97
G1 F2400 X20.26 Y28.84 E843.41286
G0 F12000 X20.26 Y28.18
G1 F2400 X25.46 Y22.97 E843.69800
G0 F12000 X24.81 Y22.97
G1 F2400 X20.26 Y27.52 E843.94703
G0 F12000 X20.26 Y26.86
G1 F2400 X24.15 Y22.97 E844.15992
G0 F12000 X23.49 Y22.97
G1 F2400 X20.26 Y26.20 E844.33670
G0 F12000 X20.26 Y25.54
G1 F2400 X22.83 Y22.97 E844.47737
G0 F12000 X22.17 Y22.97
G1 F2400 X20.26 Y24.88 E844.58192
G0 F12000 X20.26 Y24.22
G1 F2400 X21.51 Y22.97 E844.65037
G0 F12000 X20.85 Y22.97
G1 F2400 X20.26 Y23.56 E844.68270
;LAYER:2
G0 F12000 X20.10 Y22.81 Z0.70
;TYPE:WALL-INNER
G1 F2400 X67.77 Y22.81 E846.52982
G1 X67.77 Y65.48 E848.18320
G1 X20.10 Y65.48 E850.03032
G1 X20.10 Y22.81 E851.68370
G0 F12000 X26.47 Y29.82
G1 F2400 X25.73 Y30.73 E851.72904
G1 X25.18 Y31.76 E851.77432
G1 X24.84 Y32.88 E851.81964
G1 X24.73 Y34.04 E851.86496
G1 X24.84 Y35.20 E851.91028
G1 X25.18 Y36.32 E851.95556
G1 X25.73 Y37.35 E852.00084
G1 X26.47 Y38.26 E852.04619
G1 X27.38 Y39.00 E852.09148
G1 X28.41 Y39.55 E852.13679
G1 X29.53 Y39.89 E852.18213
G1 X30.69 Y40.01 E852.22742
G1 X31.86 Y39.89 E852.27274
G1 X32.98 Y39.55 E852.31806
G1 X34.01 Y39.00 E852.36334
G1 X34.91 Y38.26 E852.40868
G1 X35.65 Y37.35 E852.45403
G1 X36.20 Y36.32 E852.49931
G1 X36.54 Y35.20 E852.54462
G1 X36.66 Y34.04 E852.58995
G1 X36.54 Y32.88 E852.63527
G1 X36.20 Y31.76 E852.68055
G1 X35.65 Y30.73 E852.72583
G1 X34.91 Y29.82 E852.77117
G1 X34.01 Y29.08 E852.81652
G1 X32.98 Y28.53 E852.86180
G1 X31.86 Y28.19 E852.90711
G1 X30.69 Y28.07 E852.95244
G1 X29.53 Y28.19 E852.99772
G1 X28.41 Y28.53 E853.04306
G1 X27.38 Y29.08 E853.08838
G1 X26.47 Y29.82 E853.13367
G0 F12000 X25.34 Y32.98
G0 X25.34 Y35.10
G0 X26.15 Y37.07
G0 X27.66 Y38.58
G0 X29.63 Y39.40
G0 X34.85 Y42.75
G1 F2400 X34.62 Y42.96 E853.14581
G1 X34.46 Y43.16 E853.15581
G1 X34.30 Y43.46 E853.16903
G1 X34.19 Y43.80 E853.18263
G1 X34.16 Y44.15 E853.19609
G1 X34.19 Y44.49 E853.20955
G1 X34.31 Y44.86 E853.22448
G1 X34.53 Y45.23 E853.24125
G1 X34.75 Y45.45 E853.25339
G1 X34.98 Y45.64 E853.26474
G1 X35.33 Y45.80 E853.27980
G1 X35.58 Y45.88 E853.28998
G1 X35.96 Y45.92 E853.30482
G1 X36.36 Y45.86 E853.32026
G1 X36.64 Y45.77 E853.33186
G1 X37.01 Y45.54 E853.34869
G1 X37.24 Y45.33 E853.36092
G1 X37.43 Y45.10 E853.37226
G1 X37.59 Y44.75 E853.38733
G1 X37.67 Y44.50 E853.39750
G1 X37.71 Y44.12 E853.41234
G1 X37.65 Y43.72 E853.42779
G1 X37.56 Y43.43 E853.43951
G1 X37.33 Y43.06 E853.45631
G1 X37.11 Y42.84 E853.46845
G1 X36.89 Y42.65 E853.47980
G1 X36.53 Y42.49 E853.49486
G1 X36.28 Y42.41 E853.50504
G1 X35.90 Y42.37 E853.51988
G1 X35.51 Y42.43 E853.53532
G1 X35.22 Y42.52 E853.54704
G1 X34.85 Y42.75 E853.56384
G0 F12000 X39.84 Y43.33
G1 F2400 X39.76 Y44.15 E853.59550
G1 X39.84 Y44.96 E853.62716
G1 X40.08 Y45.74 E853.65881
G1 X40.46 Y46.46 E853.69057
G1 X40.98 Y47.09 E853.72225
G1 X41.61 Y47.61 E853.75385
G1 X42.34 Y48.00 E853.78559
G1 X43.12 Y48.23 E853.81728
G1 X43.93 Y48.32 E853.84894
G1 X44.74 Y48.23 E853.88060
G1 X45.53 Y48.00 E853.91228
G1 X46.25 Y47.61 E853.94403
G1 X46.88 Y47.09 E853.97566
G1 X47.40 Y46.46 E854.00729
G1 X47.79 Y45.74 E854.03903
G1 X48.02 Y44.96 E854.07072
G1 X48.10 Y44.15 E854.10238
G1 X48.02 Y43.33 E854.13404
G1 X47.79 Y42.55 E854.16573
G1 X47.40 Y41.83 E854.19747
G1 X46.88 Y41.20 E854.22910
G1 X46.25 Y40.68 E854.26073
G1 X45.53 Y40.29 E854.29248
G1 X44.74 Y40.05 E854.32416
G1 X43.93 Y39.97 E854.35582
G1 X43.12 Y40.05 E854.38748
G1 X42.34 Y40.29 E854.41917
G1 X41.61 Y40.68 E854.45091
G1 X40.98 Y41.20 E854.48251
G1 X40.46 Y41.83 E854.51420
G1 X40.08 Y42.55 E854.54595
G1 X39.84 Y43.33 E854.57760
G0 F12000 X42.98 Y39.64
G1 F2400 X43.33 Y39.80 E854.59267
G1 X43.58 Y39.88 E854.60284
G1 X43.96 Y39.92 E854.61768
G1 X44.36 Y39.86 E854.63313
G1 X44.64 Y39.77 E854.64473
G1 X45.01 Y39.54 E854.66156
G1 X45.24 Y39.33 E854.67378
G1 X45.43 Y39.10 E854.68513
G1 X45.59 Y38.75 E854.70020
G1 X45.67 Y38.50 E854.71037
G1 X45.71 Y38.12 E854.72521
G1 X45.65 Y37.72 E854.74066
G1 X45.56 Y37.43 E854.75238
G1 X45.33 Y37.06 E854.76918
G1 X45.11 Y36.84 E854.78132
G1 X44.89 Y36.65 E854.79266
G1 X44.53 Y36.49 E854.80773
G1 X44.28 Y36.41 E854.81790
G1 X43.90 Y36.37 E854.83274
G1 X43.51 Y36.43 E854.84819
G1 X43.22 Y36.52 E854.85991
G1 X42.85 Y36.75 E854.87671
G1 X42.62 Y36.96 E854.88885
G1 X42.46 Y37.16 E854.89885
G1 X42.30 Y37.46 E854.91207
G1 X42.19 Y37.80 E854.92567
G1 X42.16 Y38.15 E854.93913
G1 X42.19 Y38.49 E854.95259
G1 X42.31 Y38.86 E854.96752
G1 X42.53 Y39.23 E854.98429
G1 X42.75 Y39.45 E854.99643
G1 X42.98 Y39.64 E855.00778
G0 F12000 X50.30 Y43.46
G1 F2400 X50.19 Y43.80 E855.02137
G1 X50.16 Y44.15 E855.03483
G1 X50.19 Y44.49 E855.04830
G1 X50.31 Y44.86 E855.06322
G1 X50.53 Y45.23 E855.07999
G1 X50.75 Y45.45 E855.09213
G1 X50.98 Y45.64 E855.10348
G1 X51.33 Y45.80 E855.11855
G1 X51.58 Y45.88 E855.12872
G1 X51.96 Y45.92 E855.14356
G1 X52.36 Y45.86 E855.15901
G1 X52.64 Y45.77 E855.17060
G1 X53.01 Y45.54 E855.18743
G1 X53.24 Y45.33 E855.19966
G1 X53.43 Y45.10 E855.21101
G1 X53.59 Y44.75 E855.22607
G1 X53.67 Y44.50 E855.23624
G1 X53.71 Y44.12 E855.25109
G1 X53.65 Y43.72 E855.26653
G1 X53.56 Y43.43 E855.27825
G1 X53.33 Y43.06 E855.29505
G1 X53.11 Y42.84 E855.30719
G1 X52.89 Y42.65 E855.31854
G1 X52.53 Y42.49 E855.33360
G1 X52.28 Y42.41 E855.34378
G1 X51.90 Y42.37 E855.35862
G1 X51.51 Y42.43 E855.37407
G1 X51.22 Y42.52 E855.38578
G1 X50.85 Y42.75 E855.40258
G1 X50.62 Y42.96 E855.41473
G1 X50.46 Y43.16 E855.42472
G1 X50.30 Y43.46 E855.43795
G0 F12000 X45.11 Y48.84
G1 F2400 X44.89 Y48.65 E855.44930
G1 X44.53 Y48.49 E855.46436
G1 X44.28 Y48.41 E855.47454
G1 X43.90 Y48.37 E855.48938
G1 X43.51 Y48.43 E855.50482
G1 X43.22 Y48.52 E855.51654
G1 X42.85 Y48.75 E855.53334
G1 X42.62 Y48.96 E855.54548
G1 X42.46 Y49.16 E855.55548
G1 X42.30 Y49.46 E855.56871
G1 X42.19 Y49.80 E855.58230
G1 X42.16 Y50.15 E855.59576
G1 X42.19 Y50.49 E855.60923
G1 X42.31 Y50.86 E855.62415
G1 X42.53 Y51.23 E855.64092
G1 X42.75 Y51.45 E855.65306
G1 X42.98 Y51.64 E855.66441
G1 X43.33 Y51.80 E855.67947
G1 X43.58 Y51.88 E855.68965
G1 X43.96 Y51.92 E855.70449
G1 X44.36 Y51.86 E855.71994
G1 X44.64 Y51.77 E855.73153
G1 X45.01 Y51.54 E855.74836
G1 X45.24 Y51.33 E855.76059
G1 X45.43 Y51.10 E855.77194
G1 X45.59 Y50.75 E855.78700
G1 X45.67 Y50.50 E855.79717
G1 X45.71 Y50.12 E855.81201
G1 X45.65 Y49.72 E855.82746
G1 X45.56 Y49.43 E855.83918
G1 X45.33 Y49.06 E855.85598
G1 X45.11 Y48.84 E855.86812
G0 F12000 X53.84 Y56.41
G1 F2400 X53.38 Y56.96 E855.89601
G1 X53.04 Y57.60 E855.92389
G1 X52.83 Y58.29 E855.95178
G1 X52.76 Y59.00 E855.97966
G1 X52.83 Y59.72 E856.00750
G1 X53.04 Y60.41 E856.03539
G1 X53.38 Y61.04 E856.06326
G1 X53.84 Y61.60 E856.09115
G1 X54.39 Y62.05 E856.11905
G1 X55.03 Y62.39 E856.14687
G1 X55.72 Y62.60 E856.17478
G1 X56.43 Y62.67 E856.20270
G1 X57.15 Y62.60 E856.23062
G1 X57.84 Y62.39 E856.25853
G1 X58.47 Y62.05 E856.28635
G1 X59.03 Y61.60 E856.31424
G1 X59.48 Y61.04 E856.34214
G1 X59.82 Y60.41 E856.37001
G1 X60.03 Y59.72 E856.39790
G1 X60.10 Y59.00 E856.42574
G1 X60.03 Y58.29 E856.45362
G1 X59.82 Y57.60 E856.48151
G1 X59.48 Y56.96 E856.50938
G1 X59.03 Y56.41 E856.53728
G1 X58.47 Y55.95 E856.56517
G1 X57.84 Y55.61 E856.59305
G1 X57.15 Y55.40 E856.62093
G1 X56.43 Y55.33 E856.64881
G1 X55.72 Y55.40 E856.67669
G1 X55.03 Y55.61 E856.70458
G1 X54.39 Y55.95 E856.73246
G1 X53.84 Y56.41 E856.76035
G0 F12000 X35.03 Y58.29
G1 F2400 X34.82 Y57.60 E856.78824
G1 X34.48 Y56.96 E856.81611
G1 X34.03 Y56.41 E856.84400
G1 X33.47 Y55.95 E856.87190
G1 X32.84 Y55.61 E856.89977
G1 X32.15 Y55.40 E856.92766
G1 X31.43 Y55.33 E856.95554
G1 X30.72 Y55.40 E856.98342
G1 X30.03 Y55.61 E857.01131
G1 X29.39 Y55.95 E857.03918
G1 X28.84 Y56.41 E857.06708
G1 X28.38 Y56.96 E857.09497
G1 X28.04 Y57.60 E857.12284
G1 X27.83 Y58.29 E857.15073
G1 X27.76 Y59.00 E857.17861
G1 X27.83 Y59.72 E857.20645
G1 X28.04 Y60.41 E857.23434
G1 X28.38 Y61.04 E857.26222
G1 X28.84 Y61.60 E857.29011
G1 X29.39 Y62.05 E857.31800
G1 X30.03 Y62.39 E857.34583
G1 X30.71 Y62.60 E857.37374
G1 X31.43 Y62.67 E857.40165
G1 X32.15 Y62.60 E857.42957
G1 X32.84 Y62.39 E857.45748
G1 X33.47 Y62.05 E857.48531
G1 X34.03 Y61.60 E857.51320
G1 X34.48 Y61.04 E857.54109
G1 X34.82 Y60.41 E857.56897
G1 X35.03 Y59.72 E857.59685
G1 X35.10 Y59.00 E857.62470
G1 X35.03 Y58.29 E857.65257
G0 F12000 X34.57 Y58.38
G1 F2400 X34.39 Y57.78 E857.67691
G1 X34.09 Y57.22 E857.70121
G1 X33.70 Y56.74 E857.72555
G1 X33.21 Y56.34 E857.74989
G1 X32.66 Y56.04 E857.77420
G1 X32.06 Y55.86 E857.79853
G1 X31.43 Y55.80 E857.82286
G1 X30.81 Y55.86 E857.84719
G1 X30.21 Y56.04 E857.87153
G1 X29.65 Y56.34 E857.89583
G1 X29.17 Y56.74 E857.92017
G1 X28.77 Y57.22 E857.94451
G1 X28.47 Y57.78 E857.96881
G1 X28.29 Y58.38 E857.99315
G1 X28.23 Y59.00 E858.01748
G1 X28.29 Y59.63 E858.04177
G1 X28.47 Y60.23 E858.06610
G1 X28.77 Y60.78 E858.09041
G1 X29.17 Y61.27 E858.11475
G1 X29.65 Y61.66 E858.13909
G1 X30.21 Y61.96 E858.16339
G1 X30.81 Y62.14 E858.18774
G1 X31.43 Y62.20 E858.21207
G1 X32.06 Y62.14 E858.23640
G1 X32.66 Y61.96 E858.26075
G1 X33.21 Y61.66 E858.28505
G1 X33.70 Y61.27 E858.30939
G1 X34.09 Y60.78 E858.33373
G1 X34.39 Y60.23 E858.35804
G1 X34.57 Y59.63 E858.38237
G1 X34.63 Y59.00 E858.40666
G1 X34.57 Y58.38 E858.43099
G0 F12000 X42.91 Y50.94
G1 F2400 X43.07 Y51.11 E858.44012
G1 X43.23 Y51.24 E858.44802
G1 X43.50 Y51.37 E858.45957
G1 X43.67 Y51.42 E858.46679
G1 X43.95 Y51.45 E858.47751
G1 X44.25 Y51.40 E858.48931
G1 X44.45 Y51.34 E858.49739
G1 X44.73 Y51.17 E858.50999
G1 X45.03 Y50.85 E858.52704
G1 X45.15 Y50.58 E858.53859
G1 X45.21 Y50.40 E858.54581
G1 X45.24 Y50.13 E858.55653
G1 X45.19 Y49.83 E858.56833
G1 X45.13 Y49.62 E858.57648
G1 X44.96 Y49.35 E858.58907
G1 X44.80 Y49.18 E858.59820
G1 X44.64 Y49.05 E858.60610
G1 X44.37 Y48.92 E858.61765
G1 X44.19 Y48.87 E858.62487
G1 X43.91 Y48.84 E858.63559
G1 X43.61 Y48.89 E858.64739
G1 X43.41 Y48.95 E858.65554
G1 X43.13 Y49.12 E858.66813
G1 X42.96 Y49.28 E858.67726
G1 X42.85 Y49.42 E858.68431
G1 X42.73 Y49.65 E858.69411
G1 X42.65 Y49.89 E858.70405
G1 X42.63 Y50.15 E858.71397
G1 X42.65 Y50.40 E858.72389
G1 X42.74 Y50.66 E858.73464
G1 X42.91 Y50.94 E858.74724
G0 F12000 X42.76 Y49.66
G0 X43.21 Y47.78
G1 F2400 X43.93 Y47.85 E858.77535
G1 X44.65 Y47.78 E858.80346
G1 X45.35 Y47.57 E858.83159
G1 X45.99 Y47.22 E858.85976
G1 X46.55 Y46.76 E858.88784
G1 X47.01 Y46.20 E858.91592
G1 X47.35 Y45.56 E858.94409
G1 X47.56 Y44.87 E858.97222
G1 X47.63 Y44.15 E859.00034
G1 X47.56 Y43.42 E859.02845
G1 X47.35 Y42.73 E859.05658
G1 X47.01 Y42.09 E859.08475
G1 X46.55 Y41.53 E859.11283
G1 X45.99 Y41.07 E859.14091
G1 X45.35 Y40.72 E859.16908
G1 X44.65 Y40.51 E859.19721
G1 X43.93 Y40.44 E859.22532
G1 X43.21 Y40.51 E859.25344
G1 X42.52 Y40.72 E859.28157
G1 X41.87 Y41.07 E859.30974
G1 X41.31 Y41.53 E859.33779
G1 X40.85 Y42.09 E859.36592
G1 X40.51 Y42.73 E859.39410
G1 X40.30 Y43.42 E859.42220
G1 X40.23 Y44.15 E859.45031
G1 X40.30 Y44.87 E859.47842
G1 X40.51 Y45.56 E859.50652
G1 X40.85 Y46.20 E859.53470
G1 X41.31 Y46.76 E859.56283
G1 X41.87 Y47.22 E859.59088
G1 X42.52 Y47.57 E859.61905
G1 X43.21 Y47.78 E859.64719
G0 F12000 X37.03 Y44.85
G1 F2400 X37.15 Y44.58 E859.65873
G1 X37.21 Y44.40 E859.66595
G1 X37.24 Y44.13 E859.67667
G1 X37.19 Y43.83 E859.68847
G1 X37.13 Y43.62 E859.69662
G1 X36.96 Y43.35 E859.70922
G1 X36.80 Y43.18 E859.71834
G1 X36.64 Y43.05 E859.72625
G1 X36.37 Y42.92 E859.73780
G1 X36.19 Y42.87 E859.74501
G1 X35.91 Y42.84 E859.75573
G1 X35.61 Y42.89 E859.76753
G1 X35.41 Y42.95 E859.77568
G1 X35.13 Y43.12 E859.78828
G1 X34.96 Y43.28 E859.79740
G1 X34.85 Y43.42 E859.80445
G1 X34.73 Y43.65 E859.81425
G1 X34.65 Y43.89 E859.82419
G1 X34.63 Y44.15 E859.83411
G1 X34.65 Y44.40 E859.84404
G1 X34.74 Y44.66 E859.85479
G1 X34.91 Y44.94 E859.86738
G1 X35.07 Y45.11 E859.87651
G1 X35.23 Y45.24 E859.88441
G1 X35.50 Y45.37 E859.89596
G1 X35.67 Y45.42 E859.90318
G1 X35.95 Y45.45 E859.91389
G1 X36.25 Y45.40 E859.92570
G1 X36.45 Y45.34 E859.93377
G1 X36.73 Y45.17 E859.94638
G1 X37.03 Y44.85 E859.96343
G0 F12000 X37.10 Y43.64
G0 X36.18 Y42.90
G0 X33.75 Y38.61
G1 F2400 X34.58 Y37.93 E860.00520
G1 X35.26 Y37.09 E860.04697
G1 X35.77 Y36.14 E860.08871
G1 X36.08 Y35.11 E860.13046
G1 X36.19 Y34.04 E860.17224
G1 X36.08 Y32.97 E860.21397
G1 X35.77 Y31.94 E860.25572
G1 X35.26 Y30.99 E860.29747
G1 X34.58 Y30.15 E860.33924
G1 X33.75 Y29.47 E860.38101
G1 X32.80 Y28.96 E860.42275
G1 X31.77 Y28.65 E860.46450
G1 X30.69 Y28.54 E860.50627
G1 X29.62 Y28.65 E860.54801
G1 X28.59 Y28.96 E860.58980
G1 X27.64 Y29.47 E860.63154
G1 X26.80 Y30.15 E860.67328
G1 X26.12 Y30.99 E860.71505
G1 X25.61 Y31.94 E860.75679
G1 X25.30 Y32.97 E860.79854
G1 X25.20 Y34.04 E860.84032
G1 X25.30 Y35.11 E860.88205
G1 X25.61 Y36.14 E860.92380
G1 X26.12 Y37.09 E860.96555
G1 X26.80 Y37.93 E861.00732
G1 X27.64 Y38.61 E861.04906
G1 X28.59 Y39.12 E861.09080
G1 X29.62 Y39.43 E861.13259
G1 X30.69 Y39.54 E861.17432
G1 X31.77 Y39.43 E861.21610
G1 X32.80 Y39.12 E861.25785
G1 X33.75 Y38.61 E861.29959
G0 F12000 X42.63 Y38.15
G1 F2400 X42.65 Y38.40 E861.30952
G1 X42.74 Y38.66 E861.32026
G1 X42.91 Y38.94 E861.33286
G1 X43.07 Y39.11 E861.34198
G1 X43.23 Y39.24 E861.34989
G1 X43.50 Y39.37 E861.36144
G1 X43.67 Y39.42 E861.36865
G1 X43.95 Y39.45 E861.37937
G1 X44.25 Y39.40 E861.39117
G1 X44.45 Y39.34 E861.39925
G1 X44.73 Y39.17 E861.41186
G1 X45.03 Y38.85 E861.42891
G1 X45.15 Y38.58 E861.44046
G1 X45.21 Y38.40 E861.44767
G1 X45.24 Y38.13 E861.45839
G1 X45.19 Y37.83 E861.47019
G1 X45.13 Y37.62 E861.47834
G1 X44.96 Y37.35 E861.49094
G1 X44.80 Y37.18 E861.50006
G1 X44.64 Y37.05 E861.50797
G1 X44.37 Y36.92 E861.51952
G1 X44.19 Y36.87 E861.52673
G1 X43.91 Y36.84 E861.53745
G1 X43.61 Y36.89 E861.54925
G1 X43.41 Y36.95 E861.55740
G1 X43.13 Y37.12 E861.57000
G1 X42.96 Y37.28 E861.57913
G1 X42.85 Y37.42 E861.58618
G1 X42.73 Y37.65 E861.59597
G1 X42.65 Y37.89 E861.60591
G1 X42.63 Y38.15 E861.61583
G0 F12000 X43.24 Y39.21
G0 X50.85 Y43.42
G1 F2400 X50.73 Y43.65 E861.62563
G1 X50.65 Y43.89 E861.63557
G1 X50.63 Y44.15 E861.64549
G1 X50.65 Y44.40 E861.65542
G1 X50.74 Y44.66 E861.66616
G1 X50.91 Y44.94 E861.67876
G1 X51.07 Y45.11 E861.68789
G1 X51.23 Y45.24 E861.69579
G1 X51.50 Y45.37 E861.70734
G1 X51.67 Y45.42 E861.71456
G1 X51.95 Y45.45 E861.72527
G1 X52.25 Y45.40 E861.73707
G1 X52.45 Y45.34 E861.74515
G1 X52.73 Y45.17 E861.75776
G1 X53.03 Y44.85 E861.77481
G1 X53.15 Y44.58 E861.78636
G1 X53.21 Y44.40 E861.79358
G1 X53.24 Y44.13 E861.80429
G1 X53.19 Y43.83 E861.81609
G1 X53.13 Y43.62 E861.82424
G1 X52.96 Y43.35 E861.83684
G1 X52.80 Y43.18 E861.84597
G1 X52.64 Y43.05 E861.85387
G1 X52.37 Y42.92 E861.86542
G1 X52.19 Y42.87 E861.87264
G1 X51.91 Y42.84 E861.88335
G1 X51.61 Y42.89 E861.89515
G1 X51.41 Y42.95 E861.90331
G1 X51.13 Y43.12 E861.91590
G1 X50.96 Y43.28 E861.92503
G1 X50.85 Y43.42 E861.93208
G0 F12000 X50.77 Y44.65
G0 X55.21 Y56.04
G1 F2400 X54.65 Y56.34 E861.95638
G1 X54.17 Y56.74 E861.98072
G1 X53.77 Y57.22 E862.00506
G1 X53.47 Y57.78 E862.02937
G1 X53.29 Y58.38 E862.05370
G1 X53.23 Y59.00 E862.07803
G1 X53.29 Y59.63 E862.10232
G1 X53.47 Y60.23 E862.12666
G1 X53.77 Y60.78 E862.15096
G1 X54.17 Y61.27 E862.17530
G1 X54.65 Y61.66 E862.19964
G1 X55.21 Y61.96 E862.22395
G1 X55.81 Y62.14 E862.24829
G1 X56.43 Y62.20 E862.27262
G1 X57.06 Y62.14 E862.29695
G1 X57.66 Y61.96 E862.32130
G1 X58.21 Y61.66 E862.34560
G1 X58.70 Y61.27 E862.36994
G1 X59.09 Y60.78 E862.39428
G1 X59.39 Y60.23 E862.41859
G1 X59.57 Y59.63 E862.44292
G1 X59.63 Y59.00 E862.46721
G1 X59.57 Y58.38 E862.49154
G1 X59.39 Y57.78 E862.51588
G1 X59.09 Y57.22 E862.54018
G1 X58.70 Y56.74 E862.56452
G1 X58.21 Y56.34 E862.58886
G1 X57.66 Y56.04 E862.61317
