;-- START GCODE --
;Sliced for Type A Machines Series 1
;Sliced at: Wed 16-11-2016 21:09:02
;Basic settings: Layer height: 0.2 Walls: 1.2 Fill: 20
;Print Speed: 40 Support: 0
;Retraction Speed: 40 Retraction Distance: 1.2
;Print time: #P_TIME#
;Filament used: #F_AMNT#m #F_WGHT#g
;Filament cost: #F_COST#
M106 S255	 ;start with the fan on
G21        ;metric values
G90        ;absolute positioning
M106 S255    ;start with the fan on
G28     ;move to endstops
G29		;allows for auto-levelling
G1 X150 Y5  Z15.0 F12000 ;center and move the platform down 15mm
M109 S220 ;Heat To temp
G92 E0                  ;zero the extruded length
G1 F200 E30              ;extrude 30mm of feed stock
G92 E0                  ;zero the extruded length again
G1 X175 Y25  Z0 F12000 ;remove bugger
G1 X220 F12000 ;remove bugger
G1 X150 Y150  Z15 F12000 ;recenter and begin
G1 F12000

;Layer count: 128
;LAYER:0
M106 S255
G0 F12000 X120.46 Y117.80 Z0.30
;TYPE:SKIRT
G1 F2400 X124.85 Y114.21 E0.28291
G1 X130.80 Y112.07 E0.59813
G1 X141.88 Y112.06 E1.15096
G1 X144.34 Y112.30 E1.27446
G1 X147.43 Y113.14 E1.43404
G1 X151.06 Y114.89 E1.63530
G1 X152.30 Y115.95 E1.71665
G1 X157.08 Y113.26 E1.99011
G1 X161.59 Y112.07 E2.22278
G1 X171.92 Y112.06 E2.73855
G1 X175.24 Y112.41 E2.90470
G1 X180.38 Y114.35 E3.17925
G1 X184.64 Y117.93 E3.45681
G1 X186.99 Y121.31 E3.66217
G1 X188.29 Y124.20 E3.82048
G1 X189.27 Y127.85 E4.00896
G1 X189.30 Y131.14 E4.17286
G1 X189.30 Y167.96 E6.00992
G1 X188.64 Y171.67 E6.19814
G1 X187.25 Y174.96 E6.37634
G1 X185.55 Y177.64 E6.53429
G1 X183.29 Y180.09 E6.70104
G1 X180.55 Y182.13 E6.87135
G1 X177.55 Y183.60 E7.03810
G1 X174.49 Y184.47 E7.19680
G1 X171.96 Y184.74 E7.32364
G1 X170.31 Y184.74 E7.40571
G1 X168.66 Y184.74 E7.48823
G1 X167.34 Y184.67 E7.55391
G1 X167.22 Y184.66 E7.55991
G1 X137.75 Y184.66 E9.03037
G1 X137.19 Y184.69 E9.05847
G1 X136.69 Y184.74 E9.08351
G1 X136.54 Y184.74 E9.09109
G1 X136.06 Y184.77 E9.11510
G1 X135.48 Y184.74 E9.14403
G1 X135.09 Y184.74 E9.16323
G1 X134.36 Y184.74 E9.19990
G1 X130.32 Y184.69 E9.40157
G1 X124.04 Y182.12 E9.73988
G1 X119.83 Y178.24 E10.02593
G1 X117.69 Y174.87 E10.22473
G1 X116.55 Y172.08 E10.37529
G1 X115.74 Y168.74 E10.54671
G1 X115.70 Y166.10 E10.67843
G1 X115.70 Y130.00 E12.47937
G1 X115.87 Y126.68 E12.64531
G1 X117.66 Y121.78 E12.90568
G1 X120.46 Y117.80 E13.14829
G0 F12000 X120.76 Y118.08
G1 F2400 X125.05 Y114.56 E13.42507
G1 X130.87 Y112.47 E13.73339
G1 X141.86 Y112.46 E14.28174
G1 X144.27 Y112.70 E14.40257
G1 X147.28 Y113.52 E14.55864
G1 X150.84 Y115.23 E14.75552
G1 X152.32 Y116.50 E14.85286
G1 X152.49 Y116.30 E14.86577
G1 X157.23 Y113.64 E15.13696
G1 X161.64 Y112.47 E15.36446
G1 X171.90 Y112.46 E15.87659
G1 X175.14 Y112.80 E16.03912
G1 X180.18 Y114.70 E16.30772
G1 X184.34 Y118.20 E16.57920
G1 X186.64 Y121.51 E16.78004
G1 X187.91 Y124.34 E16.93491
G1 X188.87 Y127.91 E17.11926
G1 X188.90 Y131.14 E17.28051
G1 X188.90 Y167.92 E19.11572
G1 X188.26 Y171.56 E19.29994
G1 X186.89 Y174.78 E19.47423
G1 X185.24 Y177.39 E19.62875
G1 X183.02 Y179.79 E19.79182
G1 X180.34 Y181.79 E19.95844
G1 X177.40 Y183.22 E20.12154
G1 X174.41 Y184.07 E20.27677
G1 X171.94 Y184.34 E20.40085
G1 X170.31 Y184.34 E20.48187
G1 X168.67 Y184.34 E20.56384
G1 X167.38 Y184.28 E20.62812
G1 X167.25 Y184.26 E20.63478
G1 X137.74 Y184.26 E22.10704
G1 X137.18 Y184.29 E22.13529
G1 X136.67 Y184.34 E22.16047
G1 X136.52 Y184.34 E22.16801
G1 X136.05 Y184.37 E22.19136
G1 X135.50 Y184.34 E22.21919
G1 X135.09 Y184.34 E22.23935
G1 X134.36 Y184.34 E22.27587
G1 X130.40 Y184.29 E22.47365
G1 X124.26 Y181.78 E22.80457
G1 X120.14 Y177.98 E23.08437
G1 X118.05 Y174.68 E23.27883
G1 X116.93 Y171.95 E23.42611
G1 X116.14 Y168.69 E23.59377
G1 X116.10 Y166.09 E23.72310
G1 X116.10 Y130.01 E25.52339
G1 X116.26 Y126.76 E25.68579
G1 X118.02 Y121.96 E25.94052
G1 X120.76 Y118.08 E26.17776
G0 F12000 X121.05 Y118.35
G1 F2400 X125.25 Y114.91 E26.44840
G1 X130.94 Y112.87 E26.74979
G1 X141.84 Y112.86 E27.29364
G1 X144.19 Y113.09 E27.41182
G1 X147.15 Y113.90 E27.56441
G1 X150.62 Y115.57 E27.75687
G1 X152.37 Y117.06 E27.87148
G1 X152.75 Y116.62 E27.90081
G1 X157.38 Y114.01 E28.16587
G1 X161.69 Y112.87 E28.38832
G1 X171.88 Y112.86 E28.89680
G1 X175.05 Y113.19 E29.05568
G1 X179.97 Y115.05 E29.31826
G1 X184.05 Y118.47 E29.58372
G1 X186.29 Y121.70 E29.78008
G1 X187.54 Y124.47 E29.93144
G1 X188.47 Y127.96 E30.11166
G1 X188.50 Y131.14 E30.27032
G1 X188.50 Y167.89 E32.10368
G1 X187.87 Y171.45 E32.28390
G1 X186.54 Y174.59 E32.45430
G1 X184.92 Y177.15 E32.60535
G1 X182.75 Y179.50 E32.76478
G1 X180.13 Y181.45 E32.92766
G1 X177.26 Y182.85 E33.08710
G1 X174.33 Y183.68 E33.23885
G1 X171.91 Y183.94 E33.36017
G1 X170.31 Y183.94 E33.44015
G1 X168.68 Y183.94 E33.52162
G1 X167.42 Y183.88 E33.58450
G1 X167.28 Y183.86 E33.59151
G1 X137.73 Y183.86 E35.06591
G1 X137.13 Y183.90 E35.09571
G1 X136.66 Y183.94 E35.11960
G1 X136.50 Y183.94 E35.12709
G1 X136.05 Y183.97 E35.14974
G1 X135.51 Y183.94 E35.17702
G1 X135.09 Y183.94 E35.19762
G1 X134.36 Y183.94 E35.23404
G1 X130.48 Y183.89 E35.42788
G1 X124.47 Y181.44 E35.75142
G1 X120.44 Y177.72 E36.02497
G1 X118.41 Y174.50 E36.21509
G1 X117.31 Y171.83 E36.35910
G1 X116.54 Y168.63 E36.52303
G1 X116.50 Y166.09 E36.64996
G1 X116.50 Y130.02 E38.44960
G1 X116.66 Y126.84 E38.60850
G1 X118.38 Y122.15 E38.85755
G1 X121.05 Y118.35 E39.08943
G0 F12000 X121.35 Y118.63
G1 F2400 X125.45 Y115.27 E39.35390
G1 X131.01 Y113.27 E39.64841
G1 X141.82 Y113.26 E40.18777
G1 X144.12 Y113.49 E40.30329
G1 X147.00 Y114.27 E40.45243
G1 X150.40 Y115.91 E40.64041
G1 X152.41 Y117.62 E40.77232
G1 X153.01 Y116.93 E40.81799
G1 X157.53 Y114.38 E41.07707
G1 X161.74 Y113.27 E41.29436
G1 X171.86 Y113.26 E41.79920
G1 X174.96 Y113.58 E41.95447
G1 X179.77 Y115.40 E42.21107
G1 X183.75 Y118.75 E42.47047
G1 X185.94 Y121.90 E42.66232
G1 X187.16 Y124.61 E42.81024
G1 X188.07 Y128.01 E42.98627
G1 X188.10 Y131.14 E43.14229
G1 X188.10 Y167.85 E44.97381
G1 X187.48 Y171.33 E45.15002
G1 X186.18 Y174.40 E45.31651
G1 X184.60 Y176.90 E45.46412
G1 X182.48 Y179.20 E45.61992
G1 X179.92 Y181.10 E45.77908
G1 X177.12 Y182.47 E45.93487
G1 X174.26 Y183.28 E46.08319
G1 X171.89 Y183.54 E46.20170
G1 X170.31 Y183.54 E46.28063
G1 X168.69 Y183.54 E46.36165
G1 X167.46 Y183.48 E46.42304
G1 X167.31 Y183.46 E46.43045
G1 X137.72 Y183.46 E47.90700
G1 X137.10 Y183.50 E47.93790
G1 X136.64 Y183.54 E47.96098
G1 X136.50 Y183.54 E47.96782
G1 X136.05 Y183.57 E47.99032
G1 X135.52 Y183.54 E48.01695
G1 X135.09 Y183.54 E48.03806
G1 X134.37 Y183.54 E48.07438
G1 X130.56 Y183.49 E48.26437
G1 X124.69 Y181.09 E48.58048
G1 X120.75 Y177.46 E48.84782
G1 X118.76 Y174.31 E49.03352
G1 X117.69 Y171.71 E49.17426
G1 X116.94 Y168.59 E49.33444
G1 X116.90 Y166.09 E49.45903
G1 X116.90 Y130.03 E51.25802
G1 X117.06 Y126.92 E51.41337
G1 X118.73 Y122.34 E51.65679
G1 X121.35 Y118.63 E51.88329
G0 F12000 X121.64 Y118.90
G1 F2400 X125.65 Y115.62 E52.14160
G1 X131.08 Y113.67 E52.42920
G1 X141.80 Y113.66 E52.96413
G1 X144.05 Y113.88 E53.07694
G1 X146.86 Y114.65 E53.22256
G1 X150.18 Y116.24 E53.40616
G1 X152.45 Y118.19 E53.55531
G1 X153.26 Y117.25 E53.61739
G1 X157.69 Y114.76 E53.87044
G1 X161.79 Y113.67 E54.08257
G1 X171.84 Y113.66 E54.58377
G1 X174.86 Y113.97 E54.73542
G1 X179.56 Y115.75 E54.98605
G1 X183.45 Y119.02 E55.23940
G1 X185.59 Y122.10 E55.42670
G1 X186.78 Y124.74 E55.57118
G1 X187.67 Y128.07 E55.74313
G1 X187.70 Y131.14 E55.89650
G1 X187.70 Y167.82 E57.72617
G1 X187.10 Y171.22 E57.89839
G1 X185.83 Y174.22 E58.06099
G1 X184.28 Y176.66 E58.20510
G1 X182.21 Y178.90 E58.35729
G1 X179.71 Y180.76 E58.51271
G1 X176.97 Y182.10 E58.66489
G1 X174.18 Y182.89 E58.80969
G1 X171.87 Y183.14 E58.92544
G1 X170.31 Y183.14 E59.00337
G1 X168.70 Y183.14 E59.08384
G1 X167.50 Y183.08 E59.14383
G1 X167.34 Y183.06 E59.15189
G1 X137.70 Y183.06 E60.63064
G1 X137.69 Y183.06 E60.63099
G1 X137.05 Y183.10 E60.66289
G1 X136.62 Y183.14 E60.68452
G1 X136.49 Y183.14 E60.69126
G1 X136.05 Y183.17 E60.71311
G1 X135.53 Y183.14 E60.73914
G1 X135.09 Y183.14 E60.76075
G1 X134.37 Y183.14 E60.79692
G1 X130.64 Y183.09 E60.98302
G1 X124.91 Y180.75 E61.29174
G1 X121.06 Y177.20 E61.55283
G1 X119.12 Y174.13 E61.73420
G1 X118.07 Y171.58 E61.87166
G1 X117.34 Y168.53 E62.02809
G1 X117.30 Y166.09 E62.15029
G1 X117.30 Y130.04 E63.94863
G1 X117.45 Y127.00 E64.10044
G1 X119.09 Y122.53 E64.33820
G1 X121.64 Y118.90 E64.55936
G0 F12000 X121.94 Y119.18
G1 F2400 X125.85 Y115.97 E64.81150
G1 X131.15 Y114.07 E65.09222
G1 X141.78 Y114.06 E65.62266
G1 X143.97 Y114.28 E65.73281
G1 X146.72 Y115.03 E65.87496
G1 X149.96 Y116.58 E66.05410
G1 X152.49 Y118.75 E66.22051
G1 X153.52 Y117.56 E66.29900
G1 X157.84 Y115.13 E66.54604
G1 X161.85 Y114.07 E66.75306
G1 X171.82 Y114.06 E67.25057
G1 X174.77 Y114.37 E67.39861
G1 X179.36 Y116.10 E67.64325
G1 X183.15 Y119.29 E67.89055
G1 X185.25 Y122.30 E68.07336
G1 X186.40 Y124.88 E68.21438
G1 X187.27 Y128.12 E68.38215
G1 X187.30 Y131.15 E68.53292
G1 X187.30 Y167.78 E70.36075
G1 X186.71 Y171.10 E70.52896
G1 X185.47 Y174.03 E70.68765
G1 X183.96 Y176.41 E70.82831
G1 X181.94 Y178.60 E70.97680
G1 X179.50 Y180.42 E71.12855
G1 X176.83 Y181.72 E71.27706
G1 X174.10 Y182.50 E71.41839
G1 X171.85 Y182.74 E71.53143
G1 X170.31 Y182.74 E71.60826
G1 X168.71 Y182.74 E71.68829
G1 X167.53 Y182.68 E71.74683
G1 X167.37 Y182.66 E71.75524
G1 X137.66 Y182.66 E73.23728
G1 X137.65 Y182.66 E73.23799
G1 X137.07 Y182.70 E73.26679
G1 X136.60 Y182.74 E73.29027
G1 X136.47 Y182.74 E73.29716
G1 X136.05 Y182.77 E73.31811
G1 X135.54 Y182.74 E73.34354
G1 X135.09 Y182.74 E73.36564
G1 X134.37 Y182.74 E73.40166
G1 X130.72 Y182.69 E73.58388
G1 X125.13 Y180.41 E73.88517
G1 X121.38 Y176.94 E74.14004
G1 X119.48 Y173.95 E74.31707
G1 X118.45 Y171.46 E74.45126
G1 X117.74 Y168.48 E74.60390
G1 X117.70 Y166.08 E74.72375
G1 X117.70 Y130.05 E76.52144
G1 X117.85 Y127.08 E76.66975
G1 X119.45 Y122.71 E76.90180
G1 X121.94 Y119.18 E77.11763
G0 F12000 X122.24 Y119.45
G1 F2400 X126.05 Y116.33 E77.36364
G1 X131.22 Y114.47 E77.63747
G1 X141.76 Y114.46 E78.16341
G1 X143.90 Y114.67 E78.27091
G1 X146.58 Y115.40 E78.40956
G1 X149.74 Y116.92 E78.58430
G1 X152.54 Y119.31 E78.76798
G1 X153.78 Y117.87 E78.86285
G1 X157.99 Y115.50 E79.10386
G1 X161.90 Y114.47 E79.30572
G1 X171.80 Y114.46 E79.79964
G1 X174.68 Y114.76 E79.94401
G1 X179.15 Y116.45 E80.18269
G1 X182.85 Y119.56 E80.42393
G1 X184.90 Y122.50 E80.60223
G1 X186.03 Y125.01 E80.73977
G1 X186.88 Y128.18 E80.90346
G1 X186.90 Y131.15 E81.05154
G1 X186.90 Y167.75 E82.87757
G1 X186.33 Y170.99 E83.04173
G1 X185.12 Y173.84 E83.19652
G1 X183.64 Y176.17 E83.33377
G1 X181.67 Y178.30 E83.47862
G1 X179.30 Y180.08 E83.62663
G1 X176.69 Y181.35 E83.77148
G1 X174.03 Y182.10 E83.90938
G1 X171.83 Y182.34 E84.01961
G1 X170.31 Y182.34 E84.09539
G1 X168.72 Y182.34 E84.17492
G1 X167.57 Y182.28 E84.23206
G1 X167.39 Y182.26 E84.24113
G1 X137.63 Y182.26 E85.72582
G1 X137.61 Y182.26 E85.72723
G1 X137.03 Y182.30 E85.75623
G1 X136.59 Y182.34 E85.77831
G1 X136.45 Y182.34 E85.78510
G1 X136.04 Y182.37 E85.80540
G1 X135.56 Y182.34 E85.82978
G1 X135.09 Y182.34 E85.85273
G1 X134.38 Y182.34 E85.88865
G1 X130.80 Y182.29 E86.06697
G1 X125.35 Y180.07 E86.36088
G1 X121.69 Y176.69 E86.60954
G1 X119.83 Y173.76 E86.78219
G1 X118.84 Y171.33 E86.91311
G1 X118.14 Y168.43 E87.06200
G1 X118.10 Y166.08 E87.17945
G1 X118.10 Y130.06 E88.97650
G1 X118.25 Y127.16 E89.12127
G1 X119.81 Y122.90 E89.34766
G1 X122.24 Y119.45 E89.55812
G0 F12000 X122.53 Y119.73
G1 F2400 X126.25 Y116.68 E89.79796
G1 X131.29 Y114.87 E90.06489
G1 X141.74 Y114.86 E90.58639
G1 X143.83 Y115.07 E90.69118
G1 X146.44 Y115.78 E90.82636
G1 X149.52 Y117.26 E90.99667
G1 X152.58 Y119.88 E91.19768
G1 X154.04 Y118.19 E91.30896
G1 X158.14 Y115.88 E91.54387
G1 X161.95 Y114.87 E91.74063
G1 X171.78 Y114.86 E92.23090
G1 X174.59 Y115.15 E92.37166
G1 X178.95 Y116.80 E92.60437
G1 X182.56 Y119.83 E92.83956
G1 X184.55 Y122.69 E93.01334
G1 X185.65 Y125.14 E93.14744
G1 X186.47 Y128.23 E93.30694
G1 X186.50 Y131.15 E93.45243
G1 X186.50 Y167.71 E95.27661
G1 X185.94 Y170.87 E95.43677
G1 X184.76 Y173.66 E95.58765
G1 X183.32 Y175.92 E95.72145
G1 X181.40 Y178.00 E95.86264
G1 X179.09 Y179.73 E96.00693
G1 X176.54 Y180.97 E96.14817
G1 X173.95 Y181.71 E96.28255
G1 X171.81 Y181.94 E96.39002
G1 X170.31 Y181.94 E96.46480
G1 X168.73 Y181.94 E96.54378
G1 X167.61 Y181.88 E96.59947
G1 X167.43 Y181.86 E96.60885
G1 X137.61 Y181.86 E98.09652
G1 X137.56 Y181.86 E98.09864
G1 X136.99 Y181.90 E98.12729
G1 X136.57 Y181.94 E98.14852
G1 X136.44 Y181.94 E98.15471
G1 X136.04 Y181.97 E98.17486
G1 X135.56 Y181.94 E98.19905
G1 X135.09 Y181.94 E98.22210
G1 X134.38 Y181.94 E98.25792
G1 X130.88 Y181.89 E98.43230
G1 X125.56 Y179.72 E98.71882
G1 X122.00 Y176.43 E98.96123
G1 X120.19 Y173.58 E99.12951
G1 X119.22 Y171.21 E99.25714
G1 X118.53 Y168.38 E99.40234
G1 X118.50 Y166.07 E99.51745
G1 X118.50 Y130.07 E101.31379
G1 X118.64 Y127.24 E101.45501
G1 X120.17 Y123.09 E101.67579
G1 X122.53 Y119.73 E101.88088
G0 F12000 X122.83 Y120.00
G1 F2400 X126.45 Y117.03 E102.11451
G1 X131.36 Y115.27 E102.37455
G1 X141.72 Y115.26 E102.89156
G1 X143.76 Y115.46 E102.99370
G1 X146.30 Y116.16 E103.12540
G1 X149.30 Y117.59 E103.29124
G1 X152.32 Y120.19 E103.48992
G1 X152.56 Y120.52 E103.51018
G1 X154.29 Y118.50 E103.64301
G1 X158.29 Y116.25 E103.87191
G1 X162.00 Y115.27 E104.06355
G1 X171.76 Y115.26 E104.55013
G1 X174.49 Y115.55 E104.68728
G1 X178.74 Y117.15 E104.91396
G1 X182.26 Y120.11 E105.14312
G1 X184.20 Y122.89 E105.31243
G1 X185.27 Y125.28 E105.44306
G1 X186.08 Y128.29 E105.59839
G1 X186.10 Y131.15 E105.74128
G1 X186.10 Y167.68 E107.56362
G1 X185.55 Y170.76 E107.71978
G1 X184.41 Y173.47 E107.86677
G1 X183.01 Y175.68 E107.99706
G1 X181.13 Y177.70 E108.13465
G1 X178.88 Y179.39 E108.27520
G1 X176.40 Y180.60 E108.41278
G1 X173.87 Y181.31 E108.54372
G1 X171.79 Y181.54 E108.64843
G1 X170.31 Y181.54 E108.72212
G1 X168.74 Y181.54 E108.80065
G1 X167.65 Y181.49 E108.85489
G1 X167.46 Y181.46 E108.86462
G1 X137.58 Y181.46 E110.35524
G1 X137.52 Y181.47 E110.35806
G1 X136.95 Y181.50 E110.38671
G1 X136.55 Y181.54 E110.40670
G1 X136.43 Y181.54 E110.41278
G1 X136.04 Y181.56 E110.43228
G1 X135.57 Y181.54 E110.45592
G1 X135.09 Y181.54 E110.47941
G1 X134.38 Y181.54 E110.51509
G1 X130.96 Y181.50 E110.68557
G1 X125.78 Y179.38 E110.96472
G1 X122.30 Y176.17 E111.20091
G1 X120.55 Y173.39 E111.36482
G1 X119.60 Y171.09 E111.48919
G1 X118.93 Y168.33 E111.63060
G1 X118.90 Y166.07 E111.74336
G1 X118.90 Y130.08 E113.53906
G1 X119.04 Y127.32 E113.67678
G1 X120.52 Y123.27 E113.89186
G1 X122.83 Y120.00 E114.09165
G0 F12000 X123.12 Y120.28
G1 F2400 X126.65 Y117.39 E114.31915
G1 X131.43 Y115.67 E114.57224
G1 X141.70 Y115.66 E115.08482
G1 X143.68 Y115.86 E115.18429
G1 X146.16 Y116.53 E115.31250
G1 X149.08 Y117.93 E115.47394
G1 X152.03 Y120.45 E115.66742
G1 X152.52 Y121.17 E115.71089
G1 X154.55 Y118.82 E115.86604
G1 X158.44 Y116.63 E116.08891
G1 X162.06 Y115.67 E116.27539
G1 X171.74 Y115.66 E116.75833
G1 X174.40 Y115.94 E116.89187
G1 X178.54 Y117.50 E117.11258
G1 X181.96 Y120.38 E117.33569
G1 X183.85 Y123.09 E117.50048
G1 X184.89 Y125.41 E117.62763
G1 X185.68 Y128.34 E117.77887
G1 X185.70 Y131.15 E117.91911
G1 X185.70 Y167.64 E119.73961
G1 X185.17 Y170.65 E119.89171
G1 X184.05 Y173.29 E120.03479
G1 X182.69 Y175.43 E120.16168
G1 X180.87 Y177.41 E120.29559
G1 X178.67 Y179.05 E120.43243
G1 X176.26 Y180.22 E120.56633
G1 X173.80 Y180.92 E120.69381
G1 X171.77 Y181.14 E120.79576
G1 X170.31 Y181.14 E120.86840
G1 X168.75 Y181.14 E120.94643
G1 X167.69 Y181.09 E120.99928
G1 X167.48 Y181.06 E121.00961
G1 X167.39 Y181.06 E121.01439
G1 X137.55 Y181.06 E122.50292
G1 X137.48 Y181.07 E122.50645
G1 X136.94 Y181.10 E122.53375
G1 X136.53 Y181.14 E122.55388
G1 X136.41 Y181.14 E122.55986
G1 X136.04 Y181.16 E122.57866
G1 X135.59 Y181.14 E122.60125
G1 X135.10 Y181.14 E122.62565
G1 X134.38 Y181.14 E122.66122
G1 X131.04 Y181.10 E122.82781
G1 X126.00 Y179.04 E123.09957
G1 X122.61 Y175.91 E123.32952
G1 X120.90 Y173.21 E123.48909
G1 X119.98 Y170.96 E123.61019
G1 X119.33 Y168.28 E123.74784
G1 X119.30 Y166.07 E123.85821
G1 X119.30 Y130.09 E125.65326
G1 X119.44 Y127.40 E125.78743
G1 X120.88 Y123.46 E125.99690
G1 X123.12 Y120.28 E126.19129
G0 F12000 X123.42 Y120.55
G1 F2400 X126.85 Y117.74 E126.41265
G1 X131.50 Y116.07 E126.65880
G1 X141.68 Y116.06 E127.16693
G1 X143.61 Y116.25 E127.26370
G1 X146.02 Y116.91 E127.38843
G1 X148.86 Y118.27 E127.54542
G1 X151.72 Y120.72 E127.73369
G1 X152.48 Y121.83 E127.80037
G1 X154.81 Y119.13 E127.97787
G1 X158.60 Y117.00 E128.19473
G1 X162.11 Y116.07 E128.37605
G1 X171.72 Y116.06 E128.85539
G1 X174.31 Y116.33 E128.98528
G1 X178.33 Y117.85 E129.20000
G1 X181.66 Y120.65 E129.41705
G1 X183.50 Y123.29 E129.57736
G1 X184.51 Y125.55 E129.70105
G1 X185.28 Y128.40 E129.84812
G1 X185.30 Y131.15 E129.98572
G1 X185.30 Y167.61 E131.80437
G1 X184.78 Y170.53 E131.95252
G1 X183.69 Y173.10 E132.09170
G1 X182.37 Y175.19 E132.21509
G1 X180.60 Y177.11 E132.34537
G1 X178.46 Y178.70 E132.47855
G1 X176.11 Y179.85 E132.60879
G1 X173.72 Y180.53 E132.73274
G1 X171.75 Y180.74 E132.83194
G1 X170.31 Y180.74 E132.90358
G1 X168.75 Y180.74 E132.98111
G1 X167.73 Y180.69 E133.03251
G1 X167.51 Y180.66 E133.04314
G1 X167.39 Y180.66 E133.04943
G1 X137.52 Y180.66 E134.53940
G1 X137.44 Y180.67 E134.54363
G1 X136.87 Y180.71 E134.57218
G1 X136.52 Y180.74 E134.58986
G1 X136.41 Y180.74 E134.59520
G1 X136.03 Y180.76 E134.61390
G1 X135.59 Y180.74 E134.63628
G1 X135.10 Y180.74 E134.66078
G1 X134.39 Y180.74 E134.69620
G1 X131.12 Y180.70 E134.85891
G1 X126.22 Y178.69 E135.12328
G1 X122.92 Y175.65 E135.34701
G1 X121.26 Y173.02 E135.50217
G1 X120.36 Y170.84 E135.61998
G1 X119.73 Y168.23 E135.75389
G1 X119.70 Y166.07 E135.86191
G1 X119.70 Y130.10 E137.65631
G1 X119.83 Y127.48 E137.78694
G1 X121.24 Y123.65 E137.99071
G1 X123.42 Y120.55 E138.17980
G0 F12000 X123.71 Y120.83
G1 F2400 X127.05 Y118.09 E138.39500
G1 X131.56 Y116.47 E138.63427
G1 X141.66 Y116.46 E139.13791
G1 X143.54 Y116.64 E139.23197
G1 X145.88 Y117.28 E139.35323
G1 X148.64 Y118.61 E139.50584
G1 X151.43 Y121.00 E139.68888
G1 X152.45 Y122.48 E139.77883
G1 X155.06 Y119.45 E139.97866
G1 X158.75 Y117.37 E140.18946
G1 X162.16 Y116.47 E140.36572
G1 X171.70 Y116.46 E140.84137
G1 X174.21 Y116.72 E140.96764
G1 X178.13 Y118.20 E141.17642
G1 X181.36 Y120.92 E141.38738
G1 X183.15 Y123.48 E141.54318
G1 X184.13 Y125.68 E141.66336
G1 X184.88 Y128.45 E141.80635
G1 X184.90 Y131.16 E141.94131
G1 X184.90 Y167.57 E143.75811
G1 X184.40 Y170.42 E143.90226
G1 X183.34 Y172.91 E144.03753
G1 X182.05 Y174.94 E144.15745
G1 X180.33 Y176.81 E144.28409
G1 X178.25 Y178.36 E144.41355
G1 X175.97 Y179.47 E144.54013
G1 X173.65 Y180.13 E144.66066
G1 X171.72 Y180.34 E144.75705
G1 X170.31 Y180.34 E144.82764
G1 X168.76 Y180.34 E144.90467
G1 X167.76 Y180.29 E144.95467
G1 X167.55 Y180.26 E144.96566
G1 X167.39 Y180.26 E144.97339
G1 X137.50 Y180.26 E146.46491
G1 X137.40 Y180.27 E146.46980
G1 X136.86 Y180.31 E146.49675
G1 X136.50 Y180.34 E146.51478
G1 X136.39 Y180.34 E146.52011
G1 X136.03 Y180.36 E146.53811
G1 X135.61 Y180.34 E146.55940
G1 X135.10 Y180.34 E146.58485
G1 X134.39 Y180.34 E146.62012
G1 X131.21 Y180.30 E146.77898
G1 X126.44 Y178.35 E147.03588
G1 X123.23 Y175.39 E147.25340
G1 X121.62 Y172.84 E147.40425
G1 X120.74 Y170.72 E147.51877
G1 X120.13 Y168.18 E147.64893
G1 X120.10 Y166.06 E147.75456
G1 X120.10 Y130.11 E149.54831
G1 X120.23 Y127.56 E149.67544
G1 X121.59 Y123.84 E149.87352
G1 X123.71 Y120.83 E150.05724
G0 F12000 X124.01 Y121.10
G1 F2400 X127.25 Y118.45 E150.26627
G1 X131.63 Y116.87 E150.49865
G1 X141.64 Y116.86 E150.99780
G1 X143.46 Y117.04 E151.08921
G1 X145.74 Y117.66 E151.20700
G1 X148.42 Y118.95 E151.35517
G1 X151.13 Y121.27 E151.53301
G1 X152.41 Y123.13 E151.64613
G1 X155.32 Y119.76 E151.86824
G1 X158.90 Y117.75 E152.07301
G1 X162.21 Y116.87 E152.24411
G1 X171.68 Y116.86 E152.71613
G1 X174.12 Y117.11 E152.83878
G1 X177.92 Y118.55 E153.04158
G1 X181.07 Y121.19 E153.24648
G1 X182.80 Y123.68 E153.39773
G1 X183.76 Y125.82 E153.51452
G1 X184.48 Y128.50 E153.65332
G1 X184.50 Y131.16 E153.78568
G1 X184.50 Y167.54 E155.60064
G1 X184.01 Y170.30 E155.74073
G1 X182.98 Y172.73 E155.87212
G1 X181.73 Y174.70 E155.98864
G1 X180.06 Y176.51 E156.11161
G1 X178.04 Y178.02 E156.23733
G1 X175.83 Y179.10 E156.36026
G1 X173.57 Y179.74 E156.47731
G1 X171.70 Y179.94 E156.57098
G1 X170.31 Y179.94 E156.64048
G1 X168.77 Y179.94 E156.71706
G1 X167.80 Y179.89 E156.76556
G1 X167.57 Y179.86 E156.77720
G1 X167.39 Y179.86 E156.78613
G1 X137.47 Y179.86 E158.27910
G1 X137.36 Y179.87 E158.28469
G1 X136.81 Y179.91 E158.31194
G1 X136.48 Y179.94 E158.32852
G1 X136.38 Y179.94 E158.33371
G1 X136.03 Y179.96 E158.35106
G1 X135.62 Y179.94 E158.37179
G1 X135.10 Y179.94 E158.39764
G1 X134.39 Y179.94 E158.43286
G1 X131.29 Y179.90 E158.58778
G1 X126.66 Y178.01 E158.83730
G1 X123.54 Y175.14 E159.04857
G1 X121.97 Y172.66 E159.19505
G1 X121.13 Y170.59 E159.30633
G1 X120.53 Y168.13 E159.43273
G1 X120.50 Y166.06 E159.53596
G1 X120.50 Y130.12 E161.32907
G1 X120.62 Y127.64 E161.45265
G1 X121.95 Y124.02 E161.64512
G1 X124.01 Y121.10 E161.82346
G0 F12000 X124.31 Y121.38
G1 F2400 X127.45 Y118.80 E162.02632
G1 X131.71 Y117.27 E162.25180
G1 X141.62 Y117.26 E162.74646
G1 X143.39 Y117.43 E162.83521
G1 X145.60 Y118.04 E162.94954
G1 X148.20 Y119.28 E163.09325
G1 X150.83 Y121.53 E163.26589
G1 X152.44 Y123.87 E163.40760
G1 X152.54 Y123.60 E163.42234
G1 X155.58 Y120.07 E163.65439
G1 X159.05 Y118.12 E163.85311
G1 X162.27 Y117.27 E164.01905
G1 X171.65 Y117.26 E164.48742
G1 X174.03 Y117.51 E164.60646
G1 X177.72 Y118.90 E164.80324
G1 X180.77 Y121.47 E165.00213
G1 X182.45 Y123.88 E165.14889
G1 X183.38 Y125.95 E165.26218
G1 X184.08 Y128.56 E165.39685
G1 X184.10 Y131.16 E165.52657
G1 X184.10 Y167.50 E167.33973
G1 X183.62 Y170.19 E167.47582
G1 X182.63 Y172.54 E167.60329
G1 X181.41 Y174.46 E167.71634
G1 X179.79 Y176.21 E167.83567
G1 X177.83 Y177.68 E167.95769
G1 X175.68 Y178.72 E168.07699
G1 X173.49 Y179.34 E168.19057
G1 X171.68 Y179.54 E168.28144
G1 X170.31 Y179.54 E168.34994
G1 X168.78 Y179.54 E168.42597
G1 X167.84 Y179.49 E168.47307
G1 X167.60 Y179.46 E168.48502
G1 X167.40 Y179.46 E168.49539
G1 X137.44 Y179.46 E169.98990
G1 X137.31 Y179.47 E169.99620
G1 X136.80 Y179.51 E170.02195
G1 X136.46 Y179.54 E170.03878
G1 X136.36 Y179.54 E170.04392
G1 X136.03 Y179.56 E170.06057
G1 X135.62 Y179.54 E170.08070
G1 X135.10 Y179.54 E170.10705
G1 X134.39 Y179.54 E170.14212
G1 X131.37 Y179.50 E170.29315
G1 X126.87 Y177.66 E170.53528
G1 X123.85 Y174.88 E170.74033
G1 X122.33 Y172.47 E170.88240
G1 X121.51 Y170.47 E170.99039
G1 X120.93 Y168.08 E171.11305
G1 X120.90 Y166.06 E171.21394
G1 X120.90 Y130.13 E173.00640
G1 X121.02 Y127.73 E173.12643
G1 X122.31 Y124.21 E173.31325
G1 X124.31 Y121.38 E173.48625
G0 F12000 X124.60 Y121.65
G1 F2400 X127.65 Y119.15 E173.68298
G1 X131.78 Y117.67 E173.90156
G1 X141.60 Y117.66 E174.39178
G1 X143.32 Y117.83 E174.47782
G1 X145.46 Y118.41 E174.58864
G1 X147.98 Y119.62 E174.72797
G1 X150.53 Y121.81 E174.89537
G1 X152.13 Y124.12 E175.03596
G1 X152.48 Y124.92 E175.07929
G1 X152.89 Y123.80 E175.13866
G1 X155.84 Y120.39 E175.36360
G1 X159.20 Y118.49 E175.55629
G1 X162.32 Y117.67 E175.71711
G1 X171.63 Y117.66 E176.18179
G1 X173.93 Y117.90 E176.29717
G1 X177.51 Y119.25 E176.48803
G1 X180.47 Y121.74 E176.68086
G1 X182.10 Y124.08 E176.82311
G1 X183.00 Y126.09 E176.93296
G1 X183.68 Y128.61 E177.06349
G1 X183.70 Y131.16 E177.19056
G1 X183.70 Y167.47 E179.00188
G1 X183.24 Y170.07 E179.13397
G1 X182.27 Y172.35 E179.25755
G1 X181.10 Y174.21 E179.36713
G1 X179.52 Y175.91 E179.48282
G1 X177.62 Y177.33 E179.60109
G1 X175.54 Y178.35 E179.71674
G1 X173.42 Y178.95 E179.82685
G1 X171.66 Y179.14 E179.91495
G1 X170.31 Y179.14 E179.98240
G1 X168.79 Y179.14 E180.05793
G1 X167.88 Y179.09 E180.10364
G1 X167.63 Y179.06 E180.11619
G1 X167.40 Y179.06 E180.12776
G1 X137.41 Y179.06 E181.62407
G1 X137.27 Y179.08 E181.63077
G1 X136.76 Y179.11 E181.65617
G1 X136.45 Y179.14 E181.67215
G1 X136.35 Y179.14 E181.67679
G1 X136.03 Y179.16 E181.69314
G1 X135.64 Y179.14 E181.71263
G1 X135.10 Y179.14 E181.73952
G1 X134.40 Y179.14 E181.77444
G1 X131.45 Y179.10 E181.92158
G1 X127.09 Y177.32 E182.15631
G1 X124.16 Y174.62 E182.35512
G1 X122.69 Y172.29 E182.49287
G1 X121.89 Y170.34 E182.59758
G1 X121.33 Y168.03 E182.71649
G1 X121.30 Y166.05 E182.81498
G1 X121.30 Y130.14 E184.60679
G1 X121.42 Y127.81 E184.72333
G1 X122.67 Y124.40 E184.90448
G1 X124.60 Y121.65 E185.07209
G0 F12000 X124.90 Y121.92
G1 F2400 X127.85 Y119.50 E185.26264
G1 X131.84 Y118.07 E185.47433
G1 X141.58 Y118.06 E185.96006
G1 X143.24 Y118.22 E186.04344
G1 X145.32 Y118.79 E186.15079
G1 X147.76 Y119.96 E186.28568
G1 X150.23 Y122.08 E186.44788
G1 X151.78 Y124.32 E186.58396
G1 X152.51 Y125.98 E186.67455
G1 X153.24 Y124.01 E186.77942
G1 X156.09 Y120.70 E186.99724
G1 X159.35 Y118.87 E187.18395
G1 X162.37 Y118.07 E187.33961
G1 X171.61 Y118.06 E187.80070
G1 X173.84 Y118.29 E187.91242
G1 X177.31 Y119.60 E188.09729
G1 X180.17 Y122.01 E188.28407
G1 X181.75 Y124.28 E188.42180
G1 X182.62 Y126.22 E188.52816
G1 X183.28 Y128.67 E188.65457
G1 X183.30 Y131.16 E188.77905
G1 X183.30 Y167.43 E190.58852
G1 X182.85 Y169.96 E190.71656
G1 X181.92 Y172.17 E190.83623
G1 X180.78 Y173.97 E190.94237
G1 X179.25 Y175.61 E191.05440
G1 X177.41 Y176.99 E191.16897
G1 X175.40 Y177.97 E191.28097
G1 X173.34 Y178.56 E191.38761
G1 X171.64 Y178.74 E191.47295
G1 X170.31 Y178.74 E191.53935
G1 X168.80 Y178.74 E191.61444
G1 X167.92 Y178.69 E191.65869
G1 X167.66 Y178.66 E191.67155
G1 X167.40 Y178.66 E191.68462
G1 X137.38 Y178.66 E193.18232
G1 X137.23 Y178.68 E193.18978
G1 X136.75 Y178.71 E193.21388
G1 X136.43 Y178.74 E193.22996
G1 X136.34 Y178.74 E193.23460
G1 X136.02 Y178.76 E193.25025
G1 X135.65 Y178.74 E193.26913
G1 X135.10 Y178.74 E193.29642
G1 X134.40 Y178.74 E193.33125
G1 X131.53 Y178.70 E193.47449
G1 X127.31 Y176.98 E193.70184
G1 X124.47 Y174.36 E193.89440
G1 X123.04 Y172.10 E194.02778
G1 X122.27 Y170.22 E194.12924
G1 X121.73 Y167.98 E194.24436
G1 X121.70 Y166.05 E194.34051
G1 X121.70 Y130.15 E196.13162
G1 X121.81 Y127.89 E196.24467
G1 X123.02 Y124.58 E196.42016
G1 X124.90 Y121.92 E196.58243
G0 F12000 X125.19 Y122.20
G1 F2400 X128.05 Y119.86 E196.76681
G1 X131.91 Y118.47 E196.97160
G1 X141.56 Y118.46 E197.45284
G1 X143.17 Y118.62 E197.53357
G1 X145.18 Y119.17 E197.63741
G1 X147.54 Y120.30 E197.76786
G1 X149.93 Y122.34 E197.92489
G1 X151.43 Y124.52 E198.05655
G1 X152.25 Y126.38 E198.15832
G1 X152.31 Y126.61 E198.17020
G1 X152.71 Y126.61 E198.18971
G1 X153.59 Y124.22 E198.31717
G1 X156.35 Y121.02 E198.52793
G1 X159.51 Y119.24 E198.70856
G1 X162.42 Y118.47 E198.85911
G1 X171.59 Y118.46 E199.31656
G1 X173.75 Y118.68 E199.42466
G1 X177.10 Y119.95 E199.60357
G1 X179.87 Y122.28 E199.78429
G1 X181.40 Y124.47 E199.91754
G1 X182.24 Y126.36 E200.02044
G1 X182.88 Y128.72 E200.14271
G1 X182.90 Y131.16 E200.26450
G1 X182.90 Y167.40 E202.07217
G1 X182.47 Y169.84 E202.19620
G1 X181.56 Y171.98 E202.31199
G1 X180.46 Y173.72 E202.41463
G1 X178.99 Y175.32 E202.52305
G1 X177.21 Y176.65 E202.63388
G1 X175.25 Y177.60 E202.74227
G1 X173.26 Y178.16 E202.84542
G1 X171.62 Y178.34 E202.92800
G1 X170.31 Y178.34 E202.99336
G1 X168.81 Y178.34 E203.06790
G1 X167.96 Y178.30 E203.11070
G1 X167.69 Y178.26 E203.12390
G1 X167.40 Y178.26 E203.13847
G1 X137.35 Y178.26 E204.63767
G1 X137.19 Y178.28 E204.64584
G1 X136.71 Y178.31 E204.66989
G1 X136.41 Y178.34 E204.68476
G1 X136.32 Y178.34 E204.68930
G1 X136.02 Y178.36 E204.70430
G1 X135.66 Y178.34 E204.72214
G1 X135.10 Y178.34 E204.75038
G1 X134.40 Y178.34 E204.78505
G1 X131.61 Y178.30 E204.92440
G1 X127.53 Y176.64 E205.14437
G1 X124.78 Y174.10 E205.33071
G1 X123.40 Y171.92 E205.45972
G1 X122.65 Y170.10 E205.55789
G1 X122.13 Y167.93 E205.66926
G1 X122.10 Y166.05 E205.76302
G1 X122.10 Y130.16 E207.55348
G1 X122.21 Y127.97 E207.66297
G1 X123.38 Y124.77 E207.83279
G1 X125.19 Y122.20 E207.98975
G0 F12000 X125.49 Y122.47
G1 F2400 X128.25 Y120.21 E208.16800
G1 X131.99 Y118.87 E208.36591
G1 X141.54 Y118.86 E208.84271
G1 X143.10 Y119.01 E208.92073
G1 X145.04 Y119.54 E209.02110
G1 X147.32 Y120.64 E209.14713
G1 X149.63 Y122.61 E209.29896
G1 X151.07 Y124.71 E209.42612
G1 X151.87 Y126.52 E209.52450
G1 X152.01 Y127.01 E209.55012
G1 X152.98 Y127.01 E209.59882
G1 X153.94 Y124.42 E209.73661
G1 X156.61 Y121.33 E209.94025
G1 X159.66 Y119.61 E210.11487
G1 X162.48 Y118.87 E210.26031
G1 X171.57 Y118.86 E210.71406
G1 X173.65 Y119.08 E210.81856
G1 X176.90 Y120.30 E210.99147
G1 X179.58 Y122.55 E211.16614
G1 X181.05 Y124.67 E211.29488
G1 X181.87 Y126.49 E211.39434
G1 X182.48 Y128.78 E211.51244
G1 X182.50 Y131.17 E211.63163
G1 X182.50 Y167.36 E213.43740
G1 X182.08 Y169.73 E213.55749
G1 X181.21 Y171.80 E213.66936
G1 X180.14 Y173.48 E213.76859
G1 X178.72 Y175.02 E213.87334
G1 X177.00 Y176.30 E213.98043
G1 X175.11 Y177.22 E214.08516
G1 X173.19 Y177.77 E214.18483
G1 X171.60 Y177.94 E214.26466
G1 X170.31 Y177.94 E214.32897
G1 X168.82 Y177.94 E214.40306
G1 X167.99 Y177.90 E214.44441
G1 X167.72 Y177.86 E214.45822
G1 X167.40 Y177.86 E214.47399
G1 X137.32 Y177.86 E215.97468
G1 X137.15 Y177.88 E215.98355
G1 X136.69 Y177.91 E216.00630
G1 X136.39 Y177.94 E216.02128
G1 X136.31 Y177.94 E216.02572
G1 X136.02 Y177.96 E216.04002
G1 X135.67 Y177.94 E216.05725
G1 X135.10 Y177.94 E216.08599
G1 X134.41 Y177.94 E216.12057
G1 X131.69 Y177.90 E216.25598
G1 X127.75 Y176.29 E216.46851
G1 X125.09 Y173.84 E216.64864
G1 X123.76 Y171.73 E216.77330
G1 X123.03 Y169.97 E216.86818
G1 X122.53 Y167.88 E216.97586
G1 X122.50 Y166.04 E217.06721
G1 X122.50 Y130.17 E218.85703
G1 X122.61 Y128.05 E218.96303
G1 X123.74 Y124.96 E219.12716
G1 X125.49 Y122.47 E219.27873
G0 F12000 X125.78 Y122.75
G1 F2400 X128.45 Y120.56 E219.45084
G1 X132.06 Y119.27 E219.64181
G1 X141.52 Y119.26 E220.11412
G1 X143.03 Y119.41 E220.18948
G1 X144.90 Y119.92 E220.28639
G1 X147.09 Y120.97 E220.40794
G1 X149.33 Y122.89 E220.55457
G1 X150.72 Y124.91 E220.67726
G1 X151.50 Y126.65 E220.77226
G1 X151.70 Y127.41 E220.81161
G1 X153.26 Y127.41 E220.88954
G1 X154.29 Y124.63 E221.03759
G1 X156.87 Y121.64 E221.23420
G1 X159.81 Y119.99 E221.40274
G1 X162.53 Y119.27 E221.54302
G1 X171.55 Y119.26 E221.99313
G1 X173.56 Y119.47 E222.09401
G1 X176.69 Y120.65 E222.26092
G1 X179.28 Y122.83 E222.42957
G1 X180.70 Y124.87 E222.55379
G1 X181.49 Y126.62 E222.64977
G1 X182.08 Y128.83 E222.76372
G1 X182.10 Y131.17 E222.88032
G1 X182.10 Y167.33 E224.68425
G1 X181.69 Y169.62 E224.80028
G1 X180.85 Y171.61 E224.90826
G1 X179.82 Y173.23 E225.00404
G1 X178.45 Y174.72 E225.10515
G1 X176.79 Y175.96 E225.20853
G1 X174.97 Y176.85 E225.30958
G1 X173.11 Y177.37 E225.40579
G1 X171.57 Y177.54 E225.48286
G1 X170.31 Y177.54 E225.54612
G1 X168.83 Y177.54 E225.61970
G1 X168.03 Y177.50 E225.65966
G1 X167.75 Y177.46 E225.67378
G1 X167.41 Y177.46 E225.69104
G1 X137.30 Y177.46 E227.19318
G1 X137.11 Y177.48 E227.20276
G1 X136.63 Y177.52 E227.22671
G1 X136.38 Y177.54 E227.23928
G1 X136.30 Y177.54 E227.24307
G1 X136.02 Y177.56 E227.25727
G1 X135.68 Y177.54 E227.27431
G1 X135.10 Y177.54 E227.30310
G1 X134.41 Y177.54 E227.33757
G1 X131.77 Y177.50 E227.46909
G1 X127.97 Y175.95 E227.67424
G1 X125.40 Y173.59 E227.84812
G1 X124.11 Y171.55 E227.96841
G1 X123.42 Y169.85 E228.06005
G1 X122.93 Y167.83 E228.16393
G1 X122.90 Y166.04 E228.25294
G1 X122.90 Y130.18 E230.04211
G1 X123.00 Y128.13 E230.14456
G1 X124.10 Y125.15 E230.30306
G1 X125.78 Y122.75 E230.44928
G0 F12000 X126.08 Y123.03
G1 F2400 X128.65 Y120.92 E230.61527
G1 X132.12 Y119.67 E230.79934
G1 X141.50 Y119.66 E231.26716
G1 X142.95 Y119.80 E231.33986
G1 X144.76 Y120.30 E231.43326
G1 X146.88 Y121.31 E231.55043
G1 X149.03 Y123.16 E231.69182
G1 X150.37 Y125.11 E231.81008
G1 X151.12 Y126.78 E231.90159
G1 X151.39 Y127.81 E231.95474
G1 X153.54 Y127.81 E232.06185
G1 X154.64 Y124.83 E232.22022
G1 X157.12 Y121.96 E232.40968
G1 X159.96 Y120.36 E232.57222
G1 X162.58 Y119.67 E232.70734
G1 X171.53 Y119.66 E233.15386
G1 X173.47 Y119.86 E233.25108
G1 X176.49 Y121.00 E233.41201
G1 X178.98 Y123.10 E233.57461
G1 X180.35 Y125.07 E233.69431
G1 X181.11 Y126.76 E233.78688
G1 X181.68 Y128.89 E233.89670
G1 X181.70 Y131.17 E234.01065
G1 X181.70 Y167.29 E235.81274
G1 X181.31 Y169.50 E235.92477
G1 X180.50 Y171.42 E236.02883
G1 X179.50 Y172.99 E236.12117
G1 X178.18 Y174.42 E236.21864
G1 X176.58 Y175.62 E236.31831
G1 X174.82 Y176.47 E236.41571
G1 X173.03 Y176.98 E236.50844
G1 X171.55 Y177.14 E236.58275
G1 X170.31 Y177.14 E236.64496
G1 X168.84 Y177.14 E236.71800
G1 X168.07 Y177.10 E236.75656
G1 X167.78 Y177.06 E236.77128
G1 X167.41 Y177.06 E236.78974
G1 X137.27 Y177.06 E238.29343
G1 X137.06 Y177.09 E238.30366
G1 X136.62 Y177.12 E238.32611
G1 X136.36 Y177.14 E238.33893
G1 X136.28 Y177.14 E238.34267
G1 X136.01 Y177.16 E238.35617
G1 X135.69 Y177.14 E238.37221
G1 X135.10 Y177.14 E238.40190
G1 X134.41 Y177.14 E238.43622
G1 X131.85 Y177.10 E238.56385
G1 X128.18 Y175.61 E238.76161
G1 X125.71 Y173.33 E238.92928
G1 X124.47 Y171.36 E239.04522
G1 X123.80 Y169.73 E239.13358
G1 X123.33 Y167.78 E239.23370
G1 X123.30 Y166.04 E239.32032
G1 X123.30 Y130.19 E241.10884
G1 X123.40 Y128.21 E241.20775
G1 X124.45 Y125.33 E241.36061
G1 X126.08 Y123.03 E241.50143
G0 F12000 X126.38 Y123.30
G1 F2400 X128.85 Y121.27 E241.66122
G1 X132.19 Y120.07 E241.83841
G1 X141.48 Y120.06 E242.30179
G1 X142.88 Y120.20 E242.37178
G1 X144.62 Y120.67 E242.46171
G1 X146.66 Y121.65 E242.57446
G1 X148.73 Y123.42 E242.71065
G1 X150.02 Y125.30 E242.82442
G1 X150.74 Y126.92 E242.91254
G1 X151.09 Y128.21 E242.97943
G1 X153.82 Y128.21 E243.11573
G1 X154.99 Y125.04 E243.28437
G1 X157.38 Y122.27 E243.46676
G1 X160.11 Y120.73 E243.62324
G1 X162.63 Y120.07 E243.75331
G1 X171.51 Y120.06 E244.19613
G1 X173.38 Y120.25 E244.28975
G1 X176.28 Y121.35 E244.44470
G1 X178.68 Y123.37 E244.60124
G1 X180.00 Y125.27 E244.71643
G1 X180.73 Y126.89 E244.80550
G1 X181.28 Y128.94 E244.91119
G1 X181.30 Y131.17 E245.02250
G1 X181.30 Y167.26 E246.82279
G1 X180.92 Y169.39 E246.93081
G1 X180.14 Y171.24 E247.03099
G1 X179.19 Y172.74 E247.11982
G1 X177.91 Y174.12 E247.21363
G1 X176.37 Y175.27 E247.30962
G1 X174.68 Y176.10 E247.40336
G1 X172.96 Y176.59 E247.49262
G1 X171.53 Y176.74 E247.56417
G1 X170.31 Y176.74 E247.62533
G1 X168.85 Y176.74 E247.69792
G1 X168.11 Y176.70 E247.73503
G1 X167.81 Y176.66 E247.75010
G1 X167.41 Y176.66 E247.77001
G1 X137.24 Y176.66 E249.27520
G1 X137.02 Y176.69 E249.28613
G1 X136.57 Y176.72 E249.30859
G1 X136.34 Y176.74 E249.32020
G1 X136.27 Y176.74 E249.32384
G1 X136.01 Y176.75 E249.33669
G1 X135.70 Y176.74 E249.35208
G1 X135.10 Y176.74 E249.38227
G1 X134.41 Y176.74 E249.41644
G1 X131.93 Y176.71 E249.54023
G1 X128.40 Y175.26 E249.73056
G1 X126.02 Y173.07 E249.89202
G1 X124.83 Y171.18 E250.00356
G1 X124.18 Y169.60 E250.08862
G1 X123.73 Y167.72 E250.18500
G1 X123.70 Y166.04 E250.26928
G1 X123.70 Y130.20 E252.05714
G1 X123.80 Y128.29 E252.15255
G1 X124.81 Y125.52 E252.29973
G1 X126.38 Y123.30 E252.43521
G0 F12000 X126.67 Y123.57
G1 F2400 X129.05 Y121.62 E252.58880
G1 X132.26 Y120.47 E252.75909
G1 X141.46 Y120.46 E253.21798
G1 X142.81 Y120.59 E253.28532
G1 X144.48 Y121.05 E253.37173
G1 X146.43 Y121.99 E253.48005
G1 X148.43 Y123.69 E253.61104
G1 X149.67 Y125.50 E253.72033
G1 X150.36 Y127.05 E253.80502
G1 X150.78 Y128.61 E253.88571
G1 X154.17 Y128.61 E254.05498
G1 X154.18 Y128.38 E254.06657
G1 X155.34 Y125.25 E254.23309
G1 X157.64 Y122.59 E254.40840
G1 X160.26 Y121.11 E254.55885
G1 X162.69 Y120.47 E254.68376
G1 X171.49 Y120.46 E255.12294
G1 X173.28 Y120.65 E255.21294
G1 X176.08 Y121.70 E255.36194
G1 X178.38 Y123.64 E255.51239
G1 X179.65 Y125.46 E255.62307
G1 X180.35 Y127.03 E255.70871
G1 X180.88 Y129.00 E255.81026
G1 X180.90 Y131.17 E255.91892
G1 X180.90 Y167.22 E257.71736
G1 X180.54 Y169.27 E257.82133
G1 X179.78 Y171.05 E257.91766
G1 X178.87 Y172.50 E258.00301
G1 X177.64 Y173.82 E258.09322
G1 X176.16 Y174.93 E258.18548
G1 X174.53 Y175.72 E258.27560
G1 X172.88 Y176.19 E258.36138
G1 X171.51 Y176.34 E258.43012
G1 X170.31 Y176.34 E258.49024
G1 X168.86 Y176.34 E258.56233
G1 X168.15 Y176.30 E258.59799
G1 X167.84 Y176.26 E258.61337
G1 X167.41 Y176.26 E258.63482
G1 X137.21 Y176.26 E260.14145
G1 X136.98 Y176.29 E260.15310
G1 X136.56 Y176.32 E260.17435
G1 X136.32 Y176.34 E260.18596
G1 X136.25 Y176.34 E260.18956
G1 X136.01 Y176.35 E260.20170
G1 X135.71 Y176.34 E260.21649
G1 X135.10 Y176.34 E260.24718
G1 X134.42 Y176.34 E260.28125
G1 X132.01 Y176.31 E260.40110
G1 X128.62 Y174.92 E260.58405
G1 X126.33 Y172.81 E260.73925
G1 X125.18 Y171.00 E260.84646
G1 X124.56 Y169.48 E260.92823
G1 X124.12 Y167.67 E261.02088
G1 X124.10 Y166.03 E261.10275
G1 X124.10 Y130.21 E262.88997
G1 X124.19 Y128.37 E262.98183
G1 X125.17 Y125.71 E263.12340
G1 X126.67 Y123.57 E263.25355
G0 F12000 X126.97 Y123.85
G1 F2400 X129.25 Y121.98 E263.40100
G1 X132.34 Y120.87 E263.56439
G1 X141.44 Y120.86 E264.01880
G1 X142.73 Y120.99 E264.08347
G1 X144.34 Y121.42 E264.16643
G1 X146.21 Y122.33 E264.27032
G1 X148.13 Y123.97 E264.39608
G1 X149.32 Y125.69 E264.50095
G1 X149.98 Y127.18 E264.58221
G1 X150.47 Y129.01 E264.67662
G1 X154.56 Y129.01 E264.88028
G1 X154.58 Y128.46 E264.90784
G1 X155.69 Y125.45 E265.06765
G1 X157.89 Y122.90 E265.23586
G1 X160.42 Y121.48 E265.38029
G1 X162.74 Y120.87 E265.50004
G1 X171.47 Y120.86 E265.93558
G1 X173.19 Y121.04 E266.02197
G1 X175.87 Y122.05 E266.16498
G1 X178.09 Y123.91 E266.30938
G1 X179.30 Y125.66 E266.41557
G1 X179.98 Y127.16 E266.49771
G1 X180.48 Y129.05 E266.59513
G1 X180.50 Y131.18 E266.70120
G1 X180.50 Y167.19 E268.49779
G1 X180.15 Y169.16 E268.59776
G1 X179.43 Y170.86 E268.69015
G1 X178.55 Y172.25 E268.77207
G1 X177.37 Y173.53 E268.85861
G1 X175.95 Y174.59 E268.94715
G1 X174.39 Y175.35 E269.03361
G1 X172.81 Y175.80 E269.11593
G1 X171.49 Y175.94 E269.18190
G1 X170.31 Y175.94 E269.24102
G1 X168.87 Y175.94 E269.31261
G1 X168.19 Y175.91 E269.34683
G1 X167.87 Y175.86 E269.36281
G1 X167.41 Y175.86 E269.38541
G1 X137.18 Y175.86 E270.89364
G1 X136.94 Y175.89 E270.90594
G1 X136.50 Y175.92 E270.92804
G1 X136.31 Y175.94 E270.93755
G1 X136.25 Y175.94 E270.94050
G1 X136.01 Y175.95 E270.95255
G1 X135.72 Y175.94 E270.96674
G1 X135.10 Y175.94 E270.99787
G1 X134.42 Y175.94 E271.03185
G1 X132.09 Y175.91 E271.14780
G1 X128.84 Y174.58 E271.32336
G1 X126.64 Y172.55 E271.47232
G1 X125.54 Y170.81 E271.57516
G1 X124.94 Y169.35 E271.65371
G1 X124.52 Y167.62 E271.74260
G1 X124.50 Y166.03 E271.82208
G1 X124.50 Y130.22 E273.60865
G1 X124.59 Y128.45 E273.69697
G1 X125.53 Y125.89 E273.83283
G1 X126.97 Y123.85 E273.95765
G0 F12000 X127.26 Y124.12
G1 F2400 X129.45 Y122.33 E274.09893
G1 X132.41 Y121.27 E274.25543
G1 X141.42 Y121.26 E274.70534
G1 X142.66 Y121.38 E274.76736
G1 X144.20 Y121.80 E274.84684
G1 X145.99 Y122.66 E274.94628
G1 X147.83 Y124.23 E275.06687
G1 X148.97 Y125.89 E275.16723
G1 X149.60 Y127.32 E275.24509
G1 X150.08 Y129.10 E275.33704
G1 X150.09 Y129.41 E275.35271
G1 X154.94 Y129.41 E275.59482
G1 X154.98 Y128.54 E275.63837
G1 X156.04 Y125.66 E275.79142
G1 X158.15 Y123.22 E275.95255
G1 X160.57 Y121.86 E276.09094
G1 X162.79 Y121.27 E276.20557
G1 X171.45 Y121.26 E276.63747
G1 X173.10 Y121.43 E276.72020
G1 X175.67 Y122.40 E276.85724
G1 X177.79 Y124.19 E276.99559
G1 X178.95 Y125.86 E277.09727
G1 X179.60 Y127.30 E277.17596
G1 X180.08 Y129.10 E277.26919
G1 X180.10 Y131.18 E277.37262
G1 X180.10 Y167.15 E279.16742
G1 X179.76 Y169.04 E279.26338
G1 X179.07 Y170.68 E279.35186
G1 X178.23 Y172.01 E279.43035
G1 X177.10 Y173.23 E279.51325
G1 X175.74 Y174.24 E279.59805
G1 X174.25 Y174.97 E279.68086
G1 X172.73 Y175.40 E279.75969
G1 X171.47 Y175.54 E279.82296
G1 X170.31 Y175.54 E279.88098
G1 X168.88 Y175.54 E279.95207
G1 X168.22 Y175.51 E279.98489
G1 X167.90 Y175.46 E280.00117
G1 X167.42 Y175.46 E280.02527
G1 X137.15 Y175.46 E281.53514
G1 X136.90 Y175.49 E281.54799
G1 X136.51 Y175.52 E281.56749
G1 X136.29 Y175.54 E281.57841
G1 X136.23 Y175.54 E281.58145
G1 X136.01 Y175.55 E281.59260
G1 X135.73 Y175.54 E281.60619
G1 X135.10 Y175.54 E281.63782
G1 X134.42 Y175.54 E281.67165
G1 X132.18 Y175.51 E281.78371
G1 X129.06 Y174.24 E281.95185
G1 X126.95 Y172.29 E282.09462
G1 X125.90 Y170.63 E282.19305
G1 X125.32 Y169.23 E282.26830
G1 X124.92 Y167.57 E282.35344
G1 X124.90 Y166.03 E282.43058
G1 X124.90 Y130.23 E284.21650
G1 X124.98 Y128.53 E284.30127
G1 X125.88 Y126.08 E284.43150
G1 X127.26 Y124.12 E284.55098
G0 F12000 X127.56 Y124.40
G1 F2400 X129.65 Y122.68 E284.68609
G1 X132.47 Y121.67 E284.83569
G1 X141.40 Y121.66 E285.28116
G1 X142.59 Y121.78 E285.34048
G1 X144.06 Y122.18 E285.41644
G1 X145.77 Y123.00 E285.51147
G1 X147.53 Y124.50 E285.62686
G1 X148.62 Y126.09 E285.72276
G1 X149.23 Y127.45 E285.79719
G1 X149.68 Y129.15 E285.88505
G1 X149.69 Y129.81 E285.91798
G1 X155.32 Y129.81 E286.19891
G1 X155.37 Y128.62 E286.25839
G1 X156.39 Y125.87 E286.40479
G1 X158.41 Y123.53 E286.55881
G1 X160.72 Y122.23 E286.69116
G1 X162.84 Y121.67 E286.80064
G1 X171.43 Y121.66 E287.22890
G1 X173.00 Y121.82 E287.30801
G1 X175.46 Y122.75 E287.43903
G1 X177.49 Y124.46 E287.57131
G1 X178.60 Y126.06 E287.66854
G1 X179.22 Y127.43 E287.74377
G1 X179.68 Y129.16 E287.83288
G1 X179.70 Y131.18 E287.93366
G1 X179.70 Y167.12 E289.72657
G1 X179.38 Y168.93 E289.81857
G1 X178.72 Y170.49 E289.90316
G1 X177.91 Y171.76 E289.97818
G1 X176.83 Y172.93 E290.05740
G1 X175.53 Y173.90 E290.13850
G1 X174.10 Y174.60 E290.21768
G1 X172.65 Y175.01 E290.29303
G1 X171.45 Y175.14 E290.35349
G1 X170.31 Y175.14 E290.41047
G1 X168.89 Y175.14 E290.48111
G1 X168.26 Y175.11 E290.51248
G1 X167.92 Y175.06 E290.52946
G1 X167.42 Y175.06 E290.55466
G1 X137.12 Y175.06 E292.06603
G1 X136.86 Y175.09 E292.07954
G1 X136.47 Y175.12 E292.09909
G1 X136.27 Y175.14 E292.10875
G1 X136.21 Y175.14 E292.11175
G1 X136.00 Y175.15 E292.12225
G1 X135.75 Y175.14 E292.13474
G1 X135.10 Y175.14 E292.16732
G1 X134.43 Y175.14 E292.20099
G1 X132.26 Y175.11 E292.30916
G1 X129.27 Y173.89 E292.46991
G1 X127.26 Y172.04 E292.60644
G1 X126.25 Y170.44 E292.70056
G1 X125.71 Y169.11 E292.77251
G1 X125.32 Y167.52 E292.85391
G1 X125.30 Y166.02 E292.92865
G1 X125.30 Y130.24 E294.71393
G1 X125.38 Y128.61 E294.79520
G1 X126.24 Y126.27 E294.91975
G1 X127.56 Y124.40 E295.03386
G0 F12000 X127.85 Y124.67
G1 F2400 X129.85 Y123.04 E295.16287
G1 X132.54 Y122.07 E295.30553
G1 X141.38 Y122.06 E295.74651
G1 X142.51 Y122.17 E295.80317
G1 X143.92 Y122.55 E295.87566
G1 X145.55 Y123.34 E295.96626
G1 X147.23 Y124.78 E296.07641
G1 X148.27 Y126.28 E296.16787
G1 X148.85 Y127.58 E296.23887
G1 X149.28 Y129.21 E296.32265
G1 X149.29 Y130.21 E296.37280
G1 X155.70 Y130.21 E296.69259
G1 X155.77 Y128.70 E296.76805
G1 X156.74 Y126.08 E296.90770
G1 X158.67 Y123.84 E297.05464
G1 X160.87 Y122.60 E297.18094
G1 X162.89 Y122.07 E297.28531
G1 X171.41 Y122.06 E297.70992
G1 X172.91 Y122.22 E297.78542
G1 X175.25 Y123.10 E297.91047
G1 X177.19 Y124.73 E298.03670
G1 X178.25 Y126.25 E298.12941
G1 X178.84 Y127.57 E298.20116
G1 X179.28 Y129.21 E298.28613
G1 X179.30 Y131.18 E298.38432
G1 X179.30 Y167.08 E300.17537
G1 X178.99 Y168.82 E300.26333
G1 X178.36 Y170.31 E300.34401
G1 X177.59 Y171.52 E300.41559
G1 X176.57 Y172.63 E300.49118
G1 X175.32 Y173.56 E300.56857
G1 X173.96 Y174.22 E300.64410
G1 X172.58 Y174.61 E300.71597
G1 X171.43 Y174.74 E300.77368
G1 X170.30 Y174.74 E300.82965
G1 X168.90 Y174.74 E300.89975
G1 X168.30 Y174.71 E300.92967
G1 X167.96 Y174.66 E300.94700
G1 X167.42 Y174.66 E300.97369
G1 X137.10 Y174.66 E302.48661
G1 X136.81 Y174.70 E302.50078
G1 X136.45 Y174.72 E302.51892
G1 X136.25 Y174.74 E302.52879
G1 X136.20 Y174.74 E302.53168
G1 X136.00 Y174.75 E302.54148
G1 X135.76 Y174.74 E302.55338
G1 X135.10 Y174.74 E302.58640
G1 X134.43 Y174.74 E302.61998
G1 X132.34 Y174.71 E302.72426
G1 X129.49 Y173.55 E302.87762
G1 X127.57 Y171.78 E303.00790
G1 X126.61 Y170.26 E303.09765
G1 X126.09 Y168.98 E303.16637
G1 X125.72 Y167.47 E303.24397
G1 X125.70 Y166.02 E303.31637
G1 X125.70 Y130.25 E305.10100
G1 X125.78 Y128.69 E305.17872
G1 X126.60 Y126.46 E305.29764
G1 X127.85 Y124.67 E305.40638
G0 F12000 X128.15 Y124.95
G1 F2400 X130.05 Y123.39 E305.52922
G1 X132.62 Y122.47 E305.66498
G1 X141.36 Y122.46 E306.10147
G1 X142.44 Y122.56 E306.15547
G1 X143.78 Y122.93 E306.22445
G1 X145.33 Y123.68 E306.31063
G1 X146.93 Y125.05 E306.41565
G1 X147.92 Y126.48 E306.50258
G1 X148.47 Y127.72 E306.57017
G1 X148.88 Y129.26 E306.64988
G1 X148.90 Y130.61 E306.71723
G1 X156.10 Y130.61 E307.07659
G1 X156.10 Y130.28 E307.09311
G1 X156.17 Y128.78 E307.16802
G1 X157.09 Y126.28 E307.30091
G1 X158.92 Y124.16 E307.44078
G1 X161.02 Y122.98 E307.56105
G1 X162.95 Y122.47 E307.66030
G1 X171.38 Y122.46 E308.08123
G1 X172.82 Y122.61 E308.15311
G1 X175.05 Y123.45 E308.27219
G1 X176.89 Y125.00 E308.39237
G1 X177.90 Y126.45 E308.48053
G1 X178.46 Y127.70 E308.54888
G1 X178.88 Y129.27 E308.62972
G1 X178.90 Y131.18 E308.72527
G1 X178.90 Y167.04 E310.51448
G1 X178.61 Y168.70 E310.59843
G1 X178.01 Y170.12 E310.67522
G1 X177.28 Y171.27 E310.74330
G1 X176.30 Y172.33 E310.81525
G1 X175.11 Y173.22 E310.88893
G1 X173.82 Y173.85 E310.96080
G1 X172.50 Y174.22 E311.02925
G1 X171.41 Y174.34 E311.08414
G1 X170.30 Y174.34 E311.13907
G1 X168.91 Y174.34 E311.20866
G1 X168.34 Y174.31 E311.23719
G1 X167.99 Y174.26 E311.25483
G1 X167.42 Y174.26 E311.28301
G1 X137.07 Y174.26 E312.79743
G1 X136.77 Y174.30 E312.81230
G1 X136.39 Y174.32 E312.83150
G1 X136.24 Y174.34 E312.83906
G1 X136.19 Y174.34 E312.84130
G1 X136.00 Y174.35 E312.85101
G1 X135.76 Y174.34 E312.86275
G1 X135.10 Y174.34 E312.89582
G1 X134.43 Y174.34 E312.92930
G1 X132.42 Y174.31 E313.02964
G1 X129.71 Y173.21 E313.17562
G1 X127.88 Y171.52 E313.29965
G1 X126.97 Y170.07 E313.38506
G1 X126.47 Y168.86 E313.45050
G1 X126.12 Y167.42 E313.52436
G1 X126.10 Y166.02 E313.59442
G1 X126.10 Y130.26 E315.37834
G1 X126.17 Y128.78 E315.45252
G1 X126.96 Y126.64 E315.56580
G1 X128.15 Y124.95 E315.66917
G0 F12000 X128.44 Y125.22
G1 F2400 X130.25 Y123.74 E315.78588
G1 X132.69 Y122.87 E315.91474
G1 X141.34 Y122.86 E316.34679
G1 X142.37 Y122.96 E316.39808
G1 X143.63 Y123.31 E316.46360
G1 X145.11 Y124.02 E316.54536
G1 X146.63 Y125.32 E316.64514
G1 X147.57 Y126.68 E316.72759
G1 X148.09 Y127.85 E316.79176
G1 X148.48 Y129.32 E316.86738
G1 X148.50 Y130.94 E316.94866
G1 X148.50 Y131.01 E316.95200
G1 X156.50 Y131.01 E317.35112
G1 X156.50 Y130.29 E317.38714
G1 X156.56 Y128.86 E317.45846
G1 X157.44 Y126.49 E317.58469
G1 X159.18 Y124.47 E317.71741
G1 X161.18 Y123.35 E317.83170
G1 X163.00 Y122.87 E317.92578
G1 X171.36 Y122.86 E318.34307
G1 X172.72 Y123.00 E318.41134
G1 X174.84 Y123.80 E318.52443
G1 X176.59 Y125.27 E318.63855
G1 X177.55 Y126.65 E318.72223
G1 X178.09 Y127.84 E318.78708
G1 X178.48 Y129.32 E318.86378
G1 X178.50 Y131.18 E318.95668
G1 X178.50 Y167.01 E320.74410
G1 X178.22 Y168.59 E320.82405
G1 X177.65 Y169.93 E320.89692
G1 X176.96 Y171.03 E320.96156
G1 X176.03 Y172.03 E321.02988
G1 X174.90 Y172.87 E321.09985
G1 X173.68 Y173.47 E321.16804
G1 X172.42 Y173.83 E321.23298
G1 X171.38 Y173.94 E321.28516
G1 X170.30 Y173.94 E321.33899
G1 X168.92 Y173.94 E321.40814
G1 X168.38 Y173.91 E321.43521
G1 X168.01 Y173.86 E321.45346
G1 X167.43 Y173.86 E321.48284
G1 X137.04 Y173.86 E322.99876
G1 X136.73 Y173.90 E323.01428
G1 X136.37 Y173.93 E323.03228
G1 X136.22 Y173.94 E323.03984
G1 X136.18 Y173.94 E323.04204
G1 X136.00 Y173.95 E323.05104
G1 X135.78 Y173.94 E323.06173
G1 X135.10 Y173.94 E323.09575
G1 X134.43 Y173.94 E323.12908
G1 X132.50 Y173.91 E323.22553
G1 X129.93 Y172.86 E323.36412
G1 X128.19 Y171.26 E323.48194
G1 X127.32 Y169.89 E323.56296
G1 X126.85 Y168.74 E323.62511
G1 X126.52 Y167.37 E323.69526
G1 X126.50 Y166.01 E323.76292
G1 X126.50 Y130.27 E325.54619
G1 X126.57 Y128.85 E325.61688
G1 X127.31 Y126.83 E325.72447
G1 X128.44 Y125.22 E325.82247
G0 F12000 X128.74 Y125.50
G1 F2400 X130.45 Y124.10 E325.93298
G1 X132.75 Y123.27 E326.05498
G1 X141.32 Y123.26 E326.48254
G1 X142.29 Y123.36 E326.53118
G1 X143.50 Y123.68 E326.59323
G1 X144.89 Y124.35 E326.67050
G1 X146.33 Y125.59 E326.76508
G1 X147.22 Y126.87 E326.84312
G1 X147.71 Y127.99 E326.90385
G1 X148.08 Y129.37 E326.97538
G1 X148.10 Y130.95 E327.05402
G1 X148.10 Y131.41 E327.07721
G1 X156.90 Y131.41 E327.51625
G1 X156.90 Y130.30 E327.57178
G1 X156.96 Y128.94 E327.63955
G1 X157.79 Y126.69 E327.75902
G1 X159.44 Y124.79 E327.88467
G1 X161.33 Y123.72 E327.99292
G1 X163.05 Y123.27 E328.08185
G1 X171.34 Y123.26 E328.49554
G1 X172.63 Y123.39 E328.56015
G1 X174.64 Y124.15 E328.66728
G1 X176.30 Y125.55 E328.77534
G1 X177.20 Y126.85 E328.85451
G1 X177.71 Y127.97 E328.91592
G1 X178.09 Y129.38 E328.98845
G1 X178.10 Y131.19 E329.07875
G1 X178.10 Y166.97 E330.86432
G1 X177.84 Y168.47 E330.94022
G1 X177.29 Y169.75 E331.00920
G1 X176.64 Y170.78 E331.07042
G1 X175.76 Y171.73 E331.13507
G1 X174.69 Y172.53 E331.20133
G1 X173.53 Y173.09 E331.26586
G1 X172.35 Y173.43 E331.32732
G1 X171.36 Y173.54 E331.37674
G1 X170.30 Y173.54 E331.42958
G1 X168.93 Y173.54 E331.49818
G1 X168.41 Y173.51 E331.52385
G1 X168.05 Y173.46 E331.54240
G1 X167.43 Y173.46 E331.57328
G1 X137.01 Y173.46 E333.09074
G1 X136.69 Y173.50 E333.10692
G1 X136.33 Y173.53 E333.12472
G1 X136.20 Y173.54 E333.13128
G1 X136.16 Y173.54 E333.13338
G1 X136.00 Y173.55 E333.14168
G1 X135.79 Y173.54 E333.15172
G1 X135.10 Y173.54 E333.18624
G1 X134.44 Y173.54 E333.21947
G1 X132.58 Y173.51 E333.31207
G1 X130.15 Y172.52 E333.44324
G1 X128.50 Y171.00 E333.55481
G1 X127.68 Y169.71 E333.63146
G1 X127.23 Y168.61 E333.69036
G1 X126.92 Y167.32 E333.75672
G1 X126.90 Y166.01 E333.82204
G1 X126.90 Y130.28 E335.60466
G1 X126.97 Y128.94 E335.67180
G1 X127.67 Y127.02 E335.77372
G1 X128.74 Y125.50 E335.86638
G0 F12000 X129.04 Y125.77
G1 F2400 X130.65 Y124.45 E335.97072
G1 X132.82 Y123.67 E336.08583
G1 X141.31 Y123.66 E336.50890
G1 X142.22 Y123.75 E336.55487
G1 X143.35 Y124.06 E336.61341
G1 X144.67 Y124.69 E336.68631
G1 X146.03 Y125.86 E336.77569
G1 X146.87 Y127.07 E336.84922
G1 X147.34 Y128.12 E336.90658
G1 X147.69 Y129.43 E336.97403
G1 X147.70 Y130.95 E337.05002
G1 X147.70 Y131.81 E337.09307
G1 X157.30 Y131.81 E337.57197
G1 X157.30 Y130.98 E337.61363
G1 X157.30 Y130.31 E337.64700
G1 X157.36 Y129.02 E337.71123
G1 X158.14 Y126.90 E337.82398
G1 X159.69 Y125.10 E337.94256
G1 X161.48 Y124.10 E338.04471
G1 X163.10 Y123.67 E338.12857
G1 X171.32 Y123.66 E338.53857
G1 X172.54 Y123.79 E338.59952
G1 X174.43 Y124.50 E338.70066
G1 X176.00 Y125.82 E338.80271
G1 X176.85 Y127.05 E338.87736
G1 X177.33 Y128.10 E338.93529
G1 X177.69 Y129.43 E339.00372
G1 X177.70 Y131.19 E339.09138
G1 X177.70 Y166.94 E340.87511
G1 X177.45 Y168.36 E340.94700
G1 X176.94 Y169.56 E341.01208
G1 X176.32 Y170.54 E341.06985
G1 X175.49 Y171.44 E341.13086
G1 X174.49 Y172.19 E341.19338
G1 X173.39 Y172.72 E341.25425
G1 X172.27 Y173.04 E341.31229
G1 X171.34 Y173.14 E341.35890
G1 X170.30 Y173.14 E341.41068
G1 X168.94 Y173.14 E341.47883
G1 X168.45 Y173.11 E341.50306
G1 X168.08 Y173.06 E341.52196
G1 X167.43 Y173.06 E341.55429
G1 X136.98 Y173.06 E343.07325
G1 X136.65 Y173.10 E343.09008
G1 X136.32 Y173.13 E343.10663
G1 X136.19 Y173.14 E343.11324
G1 X136.15 Y173.14 E343.11529
G1 X135.99 Y173.15 E343.12294
G1 X135.81 Y173.14 E343.13193
G1 X135.10 Y173.14 E343.16735
G1 X134.44 Y173.14 E343.20043
G1 X132.66 Y173.12 E343.28914
G1 X130.36 Y172.18 E343.41293
G1 X128.81 Y170.75 E343.51828
G1 X128.04 Y169.52 E343.59057
G1 X127.61 Y168.49 E343.64619
G1 X127.32 Y167.27 E343.70881
G1 X127.30 Y166.01 E343.77173
G1 X127.30 Y130.29 E345.55371
G1 X127.36 Y129.02 E345.61730
G1 X128.03 Y127.20 E345.71358
G1 X129.04 Y125.77 E345.80090
G0 F12000 X129.33 Y126.05
G1 F2400 X130.85 Y124.80 E345.89911
G1 X132.90 Y124.07 E346.00732
G1 X141.29 Y124.06 E346.42594
G1 X142.15 Y124.14 E346.46921
G1 X143.21 Y124.43 E346.52428
G1 X144.45 Y125.03 E346.59276
G1 X145.73 Y126.13 E346.67690
G1 X146.52 Y127.27 E346.74597
G1 X146.96 Y128.25 E346.79987
G1 X147.28 Y129.48 E346.86325
G1 X147.30 Y130.95 E346.93664
G1 X147.30 Y132.21 E346.99955
G1 X157.70 Y132.21 E347.51836
G1 X157.70 Y130.98 E347.57998
G1 X157.70 Y130.31 E347.61295
G1 X157.75 Y129.10 E347.67353
G1 X158.49 Y127.11 E347.77962
G1 X159.95 Y125.42 E347.89109
G1 X161.63 Y124.47 E347.98721
G1 X163.16 Y124.07 E348.06592
G1 X171.30 Y124.06 E348.47227
G1 X172.44 Y124.18 E348.52961
G1 X174.23 Y124.85 E348.62480
G1 X175.70 Y126.09 E348.72076
G1 X176.50 Y127.24 E348.79093
G1 X176.95 Y128.24 E348.84539
G1 X177.28 Y129.48 E348.90964
G1 X177.30 Y131.19 E348.99466
G1 X177.30 Y166.91 E350.77659
G1 X177.06 Y168.25 E350.84448
G1 X176.59 Y169.37 E350.90564
G1 X176.00 Y170.29 E350.95994
G1 X175.22 Y171.14 E351.01728
G1 X174.28 Y171.84 E351.07610
G1 X173.25 Y172.34 E351.13337
G1 X172.19 Y172.64 E351.18789
G1 X171.32 Y172.74 E351.23179
G1 X170.30 Y172.74 E351.28248
G1 X168.95 Y172.74 E351.35013
G1 X168.49 Y172.72 E351.37290
G1 X168.10 Y172.66 E351.39236
G1 X167.43 Y172.66 E351.42598
G1 X136.95 Y172.66 E352.94649
G1 X136.61 Y172.71 E352.96398
G1 X136.26 Y172.73 E352.98148
G1 X136.17 Y172.74 E352.98589
G1 X136.14 Y172.74 E352.98733
G1 X135.99 Y172.75 E352.99483
G1 X135.81 Y172.74 E353.00368
G1 X135.10 Y172.74 E353.03915
G1 X134.44 Y172.74 E353.07208
G1 X132.74 Y172.72 E353.15690
G1 X130.58 Y171.83 E353.27325
G1 X129.12 Y170.49 E353.37243
G1 X128.39 Y169.34 E353.44033
G1 X128.00 Y168.37 E353.49266
G1 X127.72 Y167.22 E353.55151
G1 X127.70 Y166.00 E353.61209
G1 X127.70 Y130.30 E355.39342
G1 X127.76 Y129.10 E355.45351
G1 X128.38 Y127.39 E355.54411
G1 X129.33 Y126.05 E355.62607
G0 F12000 X129.63 Y126.32
G1 F2400 X131.05 Y125.16 E355.71810
G1 X132.97 Y124.47 E355.81941
G1 X141.27 Y124.46 E356.23355
G1 X142.08 Y124.54 E356.27416
G1 X143.07 Y124.81 E356.32572
G1 X144.23 Y125.37 E356.38976
G1 X145.43 Y126.40 E356.46870
G1 X146.17 Y127.46 E356.53333
G1 X146.58 Y128.39 E356.58381
G1 X146.89 Y129.53 E356.64311
G1 X146.90 Y130.95 E356.71386
G1 X146.90 Y132.61 E356.79663
G1 X158.10 Y132.61 E357.35535
G1 X158.10 Y130.98 E357.43687
G1 X158.10 Y130.32 E357.46944
G1 X158.15 Y129.18 E357.52648
G1 X158.84 Y127.31 E357.62581
G1 X160.21 Y125.73 E357.73017
G1 X161.78 Y124.84 E357.82028
G1 X163.21 Y124.47 E357.89383
G1 X171.28 Y124.46 E358.29655
G1 X172.35 Y124.57 E358.35027
G1 X174.02 Y125.20 E358.43949
G1 X175.40 Y126.36 E358.52940
G1 X176.16 Y127.44 E358.59505
G1 X176.57 Y128.37 E358.64603
G1 X176.89 Y129.54 E358.70620
G1 X176.90 Y131.19 E358.78857
G1 X176.90 Y166.87 E360.56861
G1 X176.68 Y168.13 E360.63249
G1 X176.23 Y169.19 E360.68977
G1 X175.68 Y170.05 E360.74061
G1 X174.95 Y170.84 E360.79434
G1 X174.07 Y171.50 E360.84942
G1 X173.10 Y171.97 E360.90304
G1 X172.12 Y172.25 E360.95413
G1 X171.30 Y172.34 E360.99522
G1 X170.30 Y172.34 E361.04491
G1 X168.96 Y172.34 E361.11201
G1 X168.53 Y172.32 E361.13339
G1 X168.14 Y172.26 E361.15319
G1 X167.43 Y172.26 E361.18822
G1 X136.92 Y172.26 E362.71067
G1 X136.89 Y172.26 E362.71209
G1 X136.56 Y172.31 E362.72847
G1 X136.24 Y172.33 E362.74477
G1 X136.15 Y172.34 E362.74917
G1 X136.12 Y172.34 E362.75047
G1 X135.99 Y172.35 E362.75732
G1 X135.82 Y172.34 E362.76557
G1 X135.10 Y172.34 E362.80149
G1 X134.44 Y172.34 E362.83436
G1 X132.82 Y172.32 E362.91524
G1 X130.80 Y171.49 E363.02421
G1 X129.43 Y170.23 E363.11714
G1 X128.75 Y169.15 E363.18071
G1 X128.38 Y168.24 E363.22975
G1 X128.12 Y167.17 E363.28487
G1 X128.10 Y166.00 E363.34305
G1 X128.10 Y130.31 E365.12373
G1 X128.16 Y129.18 E365.18028
G1 X128.74 Y127.58 E365.26524
G1 X129.63 Y126.32 E365.34182
G0 F12000 X129.92 Y126.60
G1 F2400 X131.25 Y125.51 E365.42768
G1 X133.03 Y124.87 E365.52210
G1 X141.25 Y124.86 E365.93175
G1 X142.00 Y124.93 E365.96970
G1 X142.93 Y125.19 E366.01780
G1 X144.01 Y125.70 E366.07740
G1 X145.13 Y126.67 E366.15117
G1 X145.82 Y127.66 E366.21129
G1 X146.20 Y128.52 E366.25840
G1 X146.49 Y129.59 E366.31360
G1 X146.50 Y130.96 E366.38171
G1 X146.50 Y133.01 E366.48433
G1 X158.50 Y133.01 E367.08291
G1 X158.50 Y130.98 E367.18439
G1 X158.50 Y130.33 E367.21652
G1 X158.55 Y129.26 E367.27001
G1 X159.19 Y127.52 E367.36263
G1 X160.47 Y126.05 E367.45988
G1 X161.94 Y125.22 E367.54398
G1 X163.26 Y124.87 E367.61241
G1 X171.26 Y124.86 E368.01149
G1 X172.26 Y124.96 E368.06155
G1 X173.82 Y125.55 E368.14479
G1 X175.10 Y126.63 E368.22864
G1 X175.81 Y127.64 E368.28978
G1 X176.20 Y128.51 E368.33732
G1 X176.49 Y129.59 E368.39330
G1 X176.50 Y131.19 E368.47308
G1 X176.50 Y166.83 E370.25127
G1 X176.29 Y168.02 E370.31115
G1 X175.87 Y169.00 E370.36452
G1 X175.37 Y169.80 E370.41191
G1 X174.68 Y170.54 E370.46197
G1 X173.86 Y171.16 E370.51334
G1 X172.96 Y171.59 E370.56330
G1 X172.04 Y171.86 E370.61091
G1 X171.28 Y171.94 E370.64924
G1 X170.30 Y171.94 E370.69788
G1 X168.97 Y171.94 E370.76454
G1 X168.57 Y171.92 E370.78446
G1 X168.16 Y171.86 E370.80483
G1 X167.44 Y171.86 E370.84110
G1 X136.88 Y171.86 E372.36549
G1 X136.83 Y171.87 E372.36823
G1 X136.52 Y171.91 E372.38350
G1 X136.22 Y171.93 E372.39845
G1 X136.13 Y171.94 E372.40301
G1 X136.11 Y171.94 E372.40441
G1 X135.99 Y171.95 E372.41041
G1 X135.84 Y171.94 E372.41760
G1 X135.10 Y171.94 E372.45447
G1 X134.45 Y171.94 E372.48720
G1 X132.90 Y171.92 E372.56418
G1 X131.02 Y171.15 E372.66577
G1 X129.74 Y169.97 E372.75245
G1 X129.11 Y168.97 E372.81165
G1 X128.76 Y168.12 E372.85744
G1 X128.52 Y167.12 E372.90882
G1 X128.50 Y166.00 E372.96461
G1 X128.50 Y130.32 E374.74464
G1 X128.55 Y129.26 E374.79764
G1 X129.10 Y127.77 E374.87696
G1 X129.92 Y126.60 E374.94821
G0 F12000 X130.22 Y126.87
G1 F2400 X131.46 Y125.86 E375.02794
G1 X133.10 Y125.27 E375.11537
G1 X141.23 Y125.26 E375.52063
G1 X141.93 Y125.33 E375.55588
G1 X142.79 Y125.56 E375.60050
G1 X143.79 Y126.04 E375.65564
G1 X144.83 Y126.94 E375.72421
G1 X145.47 Y127.85 E375.77987
G1 X145.82 Y128.65 E375.82352
G1 X146.09 Y129.64 E375.87466
G1 X146.10 Y130.96 E375.94017
G1 X146.10 Y133.41 E376.06265
G1 X158.90 Y133.41 E376.70114
G1 X158.90 Y130.98 E376.82258
G1 X158.90 Y130.34 E376.85426
G1 X158.94 Y129.34 E376.90420
G1 X159.54 Y127.73 E376.99007
G1 X160.72 Y126.36 E377.08024
G1 X162.09 Y125.59 E377.15831
G1 X163.31 Y125.27 E377.22159
G1 X171.24 Y125.26 E377.61702
G1 X172.16 Y125.36 E377.66347
G1 X173.61 Y125.90 E377.74074
G1 X174.81 Y126.91 E377.81853
G1 X175.46 Y127.84 E377.87519
G1 X175.82 Y128.64 E377.91927
G1 X176.09 Y129.65 E377.97108
G1 X176.10 Y131.19 E378.04821
G1 X176.10 Y166.80 E379.82460
G1 X175.91 Y167.90 E379.88049
G1 X175.52 Y168.81 E379.92996
G1 X175.05 Y169.56 E379.97385
G1 X174.41 Y170.24 E380.02031
G1 X173.65 Y170.81 E380.06793
G1 X172.81 Y171.22 E380.11428
G1 X171.97 Y171.46 E380.15836
G1 X171.26 Y171.54 E380.19393
G1 X170.30 Y171.54 E380.24153
G1 X168.98 Y171.54 E380.30768
G1 X168.60 Y171.52 E380.32621
G1 X168.19 Y171.46 E380.34688
G1 X167.44 Y171.46 E380.38464
G1 X136.92 Y171.46 E381.90704
G1 X136.84 Y171.46 E381.91099
G1 X136.76 Y171.47 E381.91509
G1 X136.48 Y171.51 E381.92925
G1 X136.18 Y171.53 E381.94445
G1 X136.12 Y171.54 E381.94750
G1 X136.10 Y171.54 E381.94830
G1 X135.98 Y171.55 E381.95415
G1 X135.84 Y171.54 E381.96120
G1 X135.10 Y171.54 E381.99812
G1 X134.45 Y171.54 E382.03070
G1 X132.99 Y171.52 E382.10379
G1 X131.24 Y170.81 E382.19799
G1 X130.05 Y169.71 E382.27846
G1 X129.46 Y168.78 E382.33326
G1 X129.14 Y168.00 E382.37577
G1 X128.92 Y167.07 E382.42340
G1 X128.90 Y166.00 E382.47684
G1 X128.90 Y130.33 E384.25622
G1 X128.95 Y129.34 E384.30573
G1 X129.46 Y127.95 E384.37932
G1 X130.22 Y126.87 E384.44525
G0 F12000 X130.51 Y127.15
G1 F2400 X131.66 Y126.21 E384.51882
G1 X133.17 Y125.67 E384.59935
G1 X141.21 Y125.66 E385.00011
G1 X141.86 Y125.72 E385.03270
G1 X142.65 Y125.94 E385.07382
G1 X143.57 Y126.38 E385.12456
G1 X144.53 Y127.21 E385.18790
G1 X145.12 Y128.05 E385.23911
G1 X145.44 Y128.79 E385.27934
G1 X145.69 Y129.70 E385.32640
G1 X145.70 Y130.96 E385.38927
G1 X145.70 Y133.81 E385.53161
G1 X159.30 Y133.81 E386.21001
G1 X159.30 Y130.98 E386.35135
G1 X159.30 Y130.35 E386.38263
G1 X159.34 Y129.42 E386.42898
G1 X159.89 Y127.94 E386.50816
G1 X160.98 Y126.67 E386.59129
G1 X162.24 Y125.97 E386.66326
G1 X163.37 Y125.67 E386.72142
G1 X171.22 Y125.66 E387.11321
G1 X172.07 Y125.75 E387.15605
G1 X173.41 Y126.25 E387.22729
G1 X174.51 Y127.18 E387.29906
G1 X175.11 Y128.03 E387.35117
G1 X175.44 Y128.78 E387.39179
G1 X175.69 Y129.70 E387.43952
G1 X175.70 Y131.19 E387.51401
G1 X175.70 Y166.76 E389.28855
G1 X175.52 Y167.79 E389.34038
G1 X175.16 Y168.63 E389.38595
G1 X174.73 Y169.31 E389.42647
G1 X174.15 Y169.94 E389.46923
G1 X173.44 Y170.47 E389.51314
G1 X172.67 Y170.84 E389.55582
G1 X171.89 Y171.07 E389.59647
G1 X171.23 Y171.14 E389.62929
G1 X170.30 Y171.14 E389.67584
G1 X168.99 Y171.14 E389.74149
G1 X168.64 Y171.12 E389.75853
G1 X168.23 Y171.06 E389.77959
G1 X167.44 Y171.06 E389.81881
G1 X136.92 Y171.06 E391.34146
G1 X136.81 Y171.06 E391.34709
G1 X136.70 Y171.08 E391.35257
G1 X136.44 Y171.11 E391.36562
G1 X136.15 Y171.13 E391.38027
G1 X136.10 Y171.14 E391.38267
G1 X136.09 Y171.14 E391.38337
G1 X135.98 Y171.15 E391.38857
G1 X135.85 Y171.14 E391.39497
G1 X135.10 Y171.14 E391.43234
G1 X134.45 Y171.14 E391.46481
G1 X133.07 Y171.12 E391.53402
G1 X131.46 Y170.46 E391.62084
G1 X130.36 Y169.45 E391.69505
G1 X129.82 Y168.60 E391.74553
G1 X129.52 Y167.87 E391.78474
G1 X129.32 Y167.02 E391.82862
G1 X129.30 Y165.99 E391.87967
G1 X129.30 Y130.34 E393.65840
G1 X129.35 Y129.42 E393.70436
G1 X129.81 Y128.14 E393.77232
G1 X130.51 Y127.15 E393.83291
G0 F12000 X130.81 Y127.42
G1 F2400 X131.85 Y126.57 E393.90030
G1 X133.24 Y126.07 E393.97393
G1 X141.19 Y126.06 E394.37021
G1 X141.78 Y126.12 E394.40014
G1 X142.51 Y126.32 E394.43779
G1 X143.35 Y126.72 E394.48412
G1 X144.23 Y127.48 E394.54225
G1 X144.77 Y128.25 E394.58899
G1 X145.06 Y128.92 E394.62577
G1 X145.29 Y129.75 E394.66879
G1 X145.30 Y130.96 E394.72901
G1 X145.30 Y134.21 E394.89121
G1 X145.37 Y134.21 E394.89485
G1 X159.70 Y134.21 E395.60948
G1 X159.70 Y130.98 E395.77077
G1 X159.70 Y130.36 E395.80160
G1 X159.74 Y129.50 E395.84440
G1 X160.24 Y128.14 E395.91687
G1 X161.24 Y126.99 E395.99285
G1 X162.39 Y126.34 E396.05882
G1 X163.42 Y126.07 E396.11187
G1 X171.20 Y126.06 E396.49997
G1 X171.98 Y126.14 E396.53920
G1 X173.20 Y126.60 E396.60447
G1 X174.21 Y127.45 E396.67019
G1 X174.76 Y128.23 E396.71781
G1 X175.06 Y128.91 E396.75497
G1 X175.29 Y129.76 E396.79853
G1 X175.30 Y131.20 E396.87042
G1 X175.30 Y166.73 E398.64312
G1 X175.13 Y167.67 E398.69095
G1 X174.81 Y168.44 E398.73262
G1 X174.41 Y169.07 E398.76964
G1 X173.88 Y169.65 E398.80876
G1 X173.23 Y170.13 E398.84897
G1 X172.53 Y170.47 E398.88800
G1 X171.81 Y170.67 E398.92517
G1 X171.21 Y170.74 E398.95523
G1 X170.30 Y170.74 E399.00073
G1 X169.00 Y170.74 E399.06588
G1 X168.68 Y170.72 E399.08152
G1 X168.25 Y170.66 E399.10309
G1 X167.44 Y170.66 E399.14361
G1 X136.92 Y170.66 E400.66645
G1 X136.77 Y170.66 E400.67384
G1 X136.64 Y170.68 E400.68063
G1 X136.40 Y170.72 E400.69257
G1 X136.13 Y170.73 E400.70612
G1 X136.08 Y170.74 E400.70843
G1 X136.07 Y170.74 E400.70908
G1 X135.98 Y170.74 E400.71358
G1 X135.87 Y170.74 E400.71892
G1 X135.10 Y170.74 E400.75724
G1 X134.46 Y170.74 E400.78957
G1 X133.15 Y170.72 E400.85488
G1 X131.67 Y170.12 E400.93431
G1 X130.67 Y169.19 E401.00228
G1 X130.18 Y168.41 E401.04838
G1 X129.90 Y167.75 E401.08436
G1 X129.72 Y166.97 E401.12445
G1 X129.70 Y165.99 E401.17315
G1 X129.70 Y130.35 E402.95118
G1 X129.74 Y129.50 E402.99364
G1 X130.17 Y128.33 E403.05596
G1 X130.81 Y127.42 E403.11120
G0 F12000 X131.10 Y127.70
G1 F2400 X132.06 Y126.92 E403.17246
G1 X133.31 Y126.47 E403.23920
G1 X141.17 Y126.46 E403.63098
G1 X141.71 Y126.51 E403.65826
G1 X142.37 Y126.69 E403.69239
G1 X143.13 Y127.06 E403.73429
G1 X143.93 Y127.75 E403.78723
G1 X144.41 Y128.44 E403.82948
G1 X144.69 Y129.06 E403.86287
G1 X144.89 Y129.81 E403.90178
G1 X144.90 Y130.96 E403.95940
G1 X144.90 Y134.61 E404.14140
G1 X145.37 Y134.61 E404.16500
G1 X160.10 Y134.61 E404.89959
G1 X160.10 Y130.98 E405.08084
G1 X160.10 Y130.37 E405.11122
G1 X160.13 Y129.58 E405.15047
G1 X160.59 Y128.35 E405.21619
G1 X161.50 Y127.30 E405.28510
G1 X162.54 Y126.71 E405.34503
G1 X163.47 Y126.47 E405.39293
G1 X171.18 Y126.46 E405.77743
G1 X171.89 Y126.53 E405.81299
G1 X173.00 Y126.95 E405.87230
G1 X173.91 Y127.72 E405.93196
G1 X174.41 Y128.43 E405.97507
G1 X174.68 Y129.05 E406.00875
G1 X174.89 Y129.81 E406.04821
G1 X174.90 Y131.20 E406.11746
G1 X174.90 Y166.69 E407.88832
G1 X174.75 Y167.56 E407.93214
G1 X174.45 Y168.26 E407.96990
G1 X174.09 Y168.82 E408.00348
G1 X173.61 Y169.35 E408.03892
G1 X173.02 Y169.78 E408.07546
G1 X172.38 Y170.09 E408.11081
G1 X171.74 Y170.28 E408.14452
G1 X171.19 Y170.34 E408.17177
G1 X170.30 Y170.34 E408.21622
G1 X169.00 Y170.34 E408.28088
G1 X168.72 Y170.32 E408.29511
G1 X168.28 Y170.26 E408.31704
G1 X167.44 Y170.26 E408.35900
G1 X136.91 Y170.26 E409.88210
G1 X136.73 Y170.26 E409.89128
G1 X136.57 Y170.29 E409.89934
G1 X136.36 Y170.32 E409.91018
G1 X136.10 Y170.34 E409.92303
G1 X136.06 Y170.34 E409.92478
G1 X136.05 Y170.34 E409.92538
G1 X135.98 Y170.34 E409.92918
G1 X135.88 Y170.34 E409.93388
G1 X135.10 Y170.34 E409.97274
G1 X134.46 Y170.34 E410.00497
G1 X133.23 Y170.32 E410.06634
G1 X131.89 Y169.78 E410.13834
G1 X130.98 Y168.94 E410.20010
G1 X130.53 Y168.23 E410.24190
G1 X130.28 Y167.62 E410.27458
G1 X130.11 Y166.91 E410.31092
G1 X130.10 Y165.99 E410.35722
G1 X130.10 Y130.36 E412.13461
G1 X130.14 Y129.58 E412.17357
G1 X130.53 Y128.51 E412.23022
G1 X131.10 Y127.70 E412.28006
G0 F12000 X131.40 Y127.97
G1 F2400 X132.25 Y127.27 E412.33512
G1 X133.38 Y126.87 E412.39498
G1 X141.15 Y126.86 E412.78233
G1 X141.64 Y126.91 E412.80690
G1 X142.23 Y127.07 E412.83757
G1 X142.91 Y127.39 E412.87503
G1 X143.63 Y128.02 E412.92273
G1 X144.06 Y128.64 E412.96056
G1 X144.31 Y129.19 E412.99052
G1 X144.49 Y129.86 E413.02533
G1 X144.50 Y130.97 E413.08031
G1 X144.50 Y135.01 E413.28217
G1 X145.37 Y135.01 E413.32567
G1 X160.50 Y135.01 E414.08026
G1 X160.50 Y130.98 E414.28142
G1 X160.50 Y130.38 E414.31141
G1 X160.53 Y129.66 E414.34706
G1 X160.94 Y128.55 E414.40612
G1 X161.75 Y127.62 E414.46791
G1 X162.69 Y127.09 E414.52184
G1 X163.52 Y126.87 E414.56458
G1 X171.16 Y126.86 E414.94544
G1 X171.79 Y126.92 E414.97740
G1 X172.79 Y127.30 E415.03072
G1 X173.62 Y127.99 E415.08432
G1 X174.06 Y128.63 E415.12292
G1 X174.31 Y129.18 E415.15316
G1 X174.49 Y129.87 E415.18845
G1 X174.50 Y131.20 E415.25505
G1 X174.50 Y166.66 E417.02411
G1 X174.36 Y167.44 E417.06388
G1 X174.10 Y168.07 E417.09775
G1 X173.77 Y168.58 E417.12787
G1 X173.34 Y169.05 E417.15972
G1 X172.81 Y169.44 E417.19251
G1 X172.24 Y169.72 E417.22420
G1 X171.66 Y169.88 E417.25444
G1 X171.17 Y169.94 E417.27892
G1 X170.30 Y169.94 E417.32238
G1 X169.01 Y169.94 E417.38654
G1 X168.76 Y169.93 E417.39932
G1 X168.31 Y169.86 E417.42170
G1 X167.45 Y169.86 E417.46501
G1 X136.91 Y169.86 E418.98836
G1 X136.70 Y169.86 E418.99908
G1 X136.51 Y169.89 E419.00866
G1 X136.31 Y169.92 E419.01839
G1 X135.97 Y169.94 E419.03539
G1 X135.89 Y169.94 E419.03959
G1 X135.10 Y169.94 E419.07881
G1 X134.46 Y169.94 E419.11094
G1 X133.31 Y169.92 E419.16846
G1 X132.11 Y169.43 E419.23304
G1 X131.29 Y168.68 E419.28857
G1 X130.89 Y168.04 E419.32596
G1 X130.67 Y167.50 E419.35536
G1 X130.51 Y166.86 E419.38800
G1 X130.50 Y165.98 E419.43191
G1 X130.50 Y130.37 E421.20865
G1 X130.54 Y129.66 E421.24407
G1 X130.89 Y128.70 E421.29506
G1 X131.40 Y127.97 E421.33957
G0 F12000 X131.70 Y128.25
G1 F2400 X132.46 Y127.63 E421.38849
G1 X133.45 Y127.27 E421.44145
G1 X141.13 Y127.26 E421.82431
G1 X141.56 Y127.30 E421.84622
G1 X142.09 Y127.44 E421.87342
G1 X142.69 Y127.73 E421.90646
G1 X143.34 Y128.29 E421.94896
G1 X143.71 Y128.84 E421.98228
G1 X143.93 Y129.32 E422.00882
G1 X144.09 Y129.92 E422.03960
G1 X144.10 Y130.97 E422.09194
G1 X144.10 Y135.41 E422.31360
G1 X145.37 Y135.41 E422.37701
G1 X160.90 Y135.41 E423.15156
G1 X160.90 Y130.98 E423.37267
G1 X160.90 Y130.39 E423.40221
G1 X160.93 Y129.74 E423.43432
G1 X161.29 Y128.76 E423.48662
G1 X162.01 Y127.93 E423.54134
G1 X162.84 Y127.46 E423.58919
G1 X163.57 Y127.27 E423.62687
G1 X171.13 Y127.26 E424.00404
G1 X171.70 Y127.32 E424.03238
G1 X172.59 Y127.65 E424.07973
G1 X173.32 Y128.27 E424.12729
G1 X173.71 Y128.83 E424.16140
G1 X173.93 Y129.32 E424.18813
G1 X174.09 Y129.92 E424.21928
G1 X174.10 Y131.20 E424.28329
G1 X174.10 Y166.62 E426.05046
G1 X173.97 Y167.33 E426.08627
G1 X173.74 Y167.88 E426.11623
G1 X173.46 Y168.33 E426.14288
G1 X173.07 Y168.75 E426.17108
G1 X172.60 Y169.10 E426.20017
G1 X172.10 Y169.34 E426.22819
G1 X171.58 Y169.49 E426.25496
G1 X171.15 Y169.54 E426.27674
G1 X170.30 Y169.54 E426.31909
G1 X169.02 Y169.54 E426.38275
G1 X168.80 Y169.53 E426.39409
G1 X168.34 Y169.46 E426.41717
G1 X167.45 Y169.46 E426.46162
G1 X136.91 Y169.46 E427.98517
G1 X136.66 Y169.46 E427.99764
G1 X136.44 Y169.50 E428.00854
G1 X136.27 Y169.52 E428.01716
G1 X135.97 Y169.54 E428.03226
G1 X135.90 Y169.54 E428.03576
G1 X135.10 Y169.54 E428.07552
G1 X134.46 Y169.54 E428.10750
G1 X133.39 Y169.52 E428.16113
G1 X132.33 Y169.09 E428.21832
G1 X131.60 Y168.42 E428.26761
G1 X131.25 Y167.86 E428.30062
G1 X131.05 Y167.38 E428.32679
G1 X130.91 Y166.81 E428.35563
G1 X130.90 Y165.98 E428.39719
G1 X130.90 Y130.38 E430.17329
G1 X130.93 Y129.74 E430.20516
G1 X131.25 Y128.89 E430.25053
G1 X131.70 Y128.25 E430.28964
G0 F12000 X131.99 Y128.52
G1 F2400 X132.66 Y127.98 E430.33239
G1 X133.52 Y127.67 E430.37847
G1 X141.11 Y127.66 E430.75684
G1 X141.49 Y127.70 E430.77609
G1 X141.95 Y127.82 E430.79978
G1 X142.47 Y128.07 E430.82840
G1 X143.03 Y128.56 E430.86570
G1 X143.36 Y129.03 E430.89457
G1 X143.55 Y129.46 E430.91771
G1 X143.69 Y129.97 E430.94436
G1 X143.70 Y130.97 E430.99410
G1 X143.70 Y135.81 E431.23557
G1 X145.37 Y135.81 E431.31893
G1 X161.30 Y135.81 E432.11344
G1 X161.30 Y130.98 E432.35450
G1 X161.30 Y130.40 E432.38359
G1 X161.33 Y129.82 E432.41216
G1 X161.64 Y128.97 E432.45770
G1 X162.27 Y128.25 E432.50531
G1 X163.00 Y127.83 E432.54718
G1 X163.63 Y127.67 E432.57969
G1 X171.11 Y127.66 E432.95322
G1 X171.61 Y127.71 E432.97795
G1 X172.38 Y128.00 E433.01932
G1 X173.02 Y128.54 E433.06081
G1 X173.36 Y129.03 E433.09042
G1 X173.55 Y129.45 E433.11371
G1 X173.69 Y129.97 E433.14073
G1 X173.70 Y131.20 E433.20210
G1 X173.70 Y166.59 E434.96741
G1 X173.59 Y167.22 E434.99923
G1 X173.38 Y167.70 E435.02530
G1 X173.14 Y168.09 E435.04851
G1 X172.80 Y168.45 E435.07305
G1 X172.40 Y168.75 E435.09839
G1 X171.96 Y168.97 E435.12280
G1 X171.51 Y169.10 E435.14609
G1 X171.13 Y169.14 E435.16506
G1 X170.30 Y169.14 E435.20637
G1 X169.03 Y169.14 E435.26958
G1 X168.84 Y169.13 E435.27947
G1 X168.37 Y169.06 E435.30300
G1 X167.45 Y169.06 E435.34880
G1 X136.91 Y169.06 E436.87259
G1 X136.63 Y169.06 E436.88656
G1 X136.58 Y169.07 E436.88884
G1 X136.38 Y169.10 E436.89902
G1 X136.23 Y169.12 E436.90654
G1 X135.97 Y169.14 E436.91964
G1 X135.91 Y169.14 E436.92248
G1 X135.10 Y169.14 E436.96280
G1 X134.47 Y169.14 E436.99463
G1 X133.47 Y169.12 E437.04437
G1 X132.55 Y168.75 E437.09418
G1 X131.91 Y168.16 E437.13721
G1 X131.60 Y167.68 E437.16592
G1 X131.43 Y167.25 E437.18879
G1 X131.31 Y166.76 E437.21388
G1 X131.30 Y165.98 E437.25305
G1 X131.30 Y130.39 E439.02849
G1 X131.33 Y129.82 E439.05687
G1 X131.60 Y129.08 E439.09650
G1 X131.99 Y128.52 E439.13030
G0 F12000 X132.29 Y128.80
G1 F2400 X132.85 Y128.33 E439.16688
G1 X133.59 Y128.07 E439.20607
G1 X141.09 Y128.06 E439.58000
G1 X141.42 Y128.09 E439.59654
G1 X141.81 Y128.20 E439.61677
G1 X142.25 Y128.41 E439.64096
G1 X142.74 Y128.83 E439.67301
G1 X143.01 Y129.23 E439.69744
G1 X143.17 Y129.59 E439.71714
G1 X143.29 Y130.03 E439.73972
G1 X143.30 Y130.97 E439.78682
G1 X143.30 Y136.21 E440.04809
G1 X145.37 Y136.21 E440.15137
G1 X161.70 Y136.21 E440.96587
G1 X161.70 Y130.98 E441.22685
G1 X161.70 Y130.41 E441.25554
G1 X161.72 Y129.91 E441.28051
G1 X161.99 Y129.17 E441.31940
G1 X162.52 Y128.56 E441.35994
G1 X163.15 Y128.21 E441.39572
G1 X163.68 Y128.07 E441.42309
G1 X171.09 Y128.06 E441.79297
G1 X171.51 Y128.10 E441.81409
G1 X172.18 Y128.35 E441.84946
G1 X172.72 Y128.81 E441.88490
G1 X173.01 Y129.22 E441.91000
G1 X173.17 Y129.59 E441.92980
G1 X173.29 Y130.03 E441.95269
G1 X173.30 Y131.21 E442.01141
G1 X173.30 Y166.55 E443.77493
G1 X173.20 Y167.10 E443.80269
G1 X173.03 Y167.51 E443.82485
G1 X172.82 Y167.84 E443.84463
G1 X172.53 Y168.15 E443.86549
G1 X172.19 Y168.41 E443.88717
G1 X171.81 Y168.59 E443.90792
G1 X171.43 Y168.70 E443.92774
G1 X171.11 Y168.74 E443.94394
G1 X170.30 Y168.74 E443.98425
G1 X169.04 Y168.74 E444.04691
G1 X168.87 Y168.73 E444.05540
G1 X168.42 Y168.66 E444.07828
G1 X168.41 Y168.66 E444.07881
G1 X167.45 Y168.66 E444.12650
G1 X136.90 Y168.66 E445.65060
G1 X136.60 Y168.66 E445.66591
G1 X136.53 Y168.67 E445.66955
G1 X136.32 Y168.71 E445.68009
G1 X136.19 Y168.73 E445.68649
G1 X135.97 Y168.74 E445.69759
G1 X135.93 Y168.74 E445.69944
G1 X135.11 Y168.74 E445.74060
G1 X134.47 Y168.74 E445.77238
G1 X133.55 Y168.73 E445.81818
G1 X132.76 Y168.40 E445.86060
G1 X132.22 Y167.90 E445.89746
G1 X131.96 Y167.49 E445.92173
G1 X131.81 Y167.13 E445.94130
G1 X131.71 Y166.71 E445.96266
G1 X131.70 Y165.97 E445.99948
G1 X131.70 Y130.40 E447.77428
G1 X131.72 Y129.90 E447.79911
G1 X131.96 Y129.26 E447.83312
G1 X132.29 Y128.80 E447.86155
G0 F12000 X132.58 Y129.07
G1 F2400 X133.06 Y128.69 E447.89204
G1 X133.66 Y128.47 E447.92428
G1 X141.07 Y128.46 E448.29372
G1 X141.35 Y128.49 E448.30761
G1 X141.67 Y128.57 E448.32431
G1 X142.03 Y128.75 E448.34406
G1 X142.44 Y129.10 E448.37099
G1 X142.66 Y129.43 E448.39093
G1 X142.79 Y129.72 E448.40719
G1 X142.89 Y130.08 E448.42573
G1 X142.90 Y130.97 E448.47018
G1 X142.90 Y136.61 E448.75131
G1 X145.37 Y136.61 E448.87449
G1 X162.09 Y136.61 E449.70896
G1 X162.10 Y130.98 E449.98989
G1 X162.10 Y130.41 E450.01813
G1 X162.12 Y129.99 E450.03955
G1 X162.34 Y129.38 E450.07169
G1 X162.78 Y128.87 E450.10515
G1 X163.30 Y128.58 E450.13493
G1 X163.73 Y128.47 E450.15717
G1 X171.07 Y128.46 E450.52342
G1 X171.42 Y128.50 E450.54088
G1 X171.97 Y128.70 E450.57026
G1 X172.42 Y129.08 E450.59965
G1 X172.66 Y129.42 E450.62022
G1 X172.79 Y129.72 E450.63661
G1 X172.89 Y130.08 E450.65535
G1 X172.90 Y131.21 E450.71143
G1 X172.90 Y166.52 E452.47311
G1 X172.82 Y166.99 E452.49687
G1 X172.67 Y167.32 E452.51513
G1 X172.50 Y167.60 E452.53144
G1 X172.26 Y167.85 E452.54867
G1 X171.98 Y168.07 E452.56660
G1 X171.67 Y168.22 E452.58369
G1 X171.35 Y168.31 E452.60007
G1 X171.09 Y168.34 E452.61352
G1 X170.30 Y168.34 E452.65273
G1 X169.05 Y168.34 E452.71494
G1 X168.91 Y168.33 E452.72199
G1 X168.50 Y168.27 E452.74250
G1 X168.47 Y168.26 E452.74437
G1 X167.46 Y168.26 E452.79491
G1 X136.90 Y168.26 E454.31926
G1 X136.56 Y168.26 E454.33632
G1 X136.48 Y168.27 E454.34011
G1 X136.25 Y168.31 E454.35177
G1 X136.15 Y168.33 E454.35706
G1 X135.97 Y168.34 E454.36621
G1 X135.93 Y168.34 E454.36796
G1 X135.11 Y168.34 E454.40912
G1 X134.47 Y168.34 E454.44075
G1 X133.63 Y168.33 E454.48266
G1 X132.98 Y168.06 E454.51770
G1 X132.53 Y167.65 E454.54831
G1 X132.32 Y167.31 E454.56824
G1 X132.19 Y167.00 E454.58455
G1 X132.11 Y166.66 E454.60214
G1 X132.10 Y165.97 E454.63657
G1 X132.10 Y130.41 E456.41072
G1 X132.12 Y129.99 E456.43200
G1 X132.32 Y129.45 E456.46038
G1 X132.58 Y129.07 E456.48344
G0 F12000 X132.88 Y129.35
G1 F2400 X133.26 Y129.04 E456.50776
G1 X133.73 Y128.87 E456.53310
G1 X141.05 Y128.86 E456.89805
G1 X141.27 Y128.88 E456.90928
G1 X141.53 Y128.95 E456.92252
G1 X141.81 Y129.08 E456.93785
G1 X142.14 Y129.37 E456.95954
G1 X142.31 Y129.62 E456.97499
G1 X142.42 Y129.86 E456.98788
G1 X142.49 Y130.14 E457.00229
G1 X142.50 Y130.97 E457.04415
G1 X142.50 Y136.85 E457.33731
G1 X142.50 Y136.87 E457.33806
G1 X142.53 Y136.99 E457.34421
G1 X142.53 Y137.00 E457.34485
G1 X142.54 Y137.01 E457.34542
G1 X145.37 Y137.01 E457.48651
G1 X162.46 Y137.01 E458.33899
G1 X162.46 Y137.01 E458.33934
G1 X162.47 Y136.98 E458.34068
G1 X162.50 Y136.88 E458.34584
G1 X162.50 Y130.42 E458.66808
G1 X162.52 Y130.06 E458.68591
G1 X162.69 Y129.59 E458.71133
G1 X163.04 Y129.19 E458.73769
G1 X163.45 Y128.95 E458.76143
G1 X163.78 Y128.87 E458.77852
G1 X171.05 Y128.86 E459.14112
G1 X171.33 Y128.89 E459.15497
G1 X171.77 Y129.05 E459.17838
G1 X172.12 Y129.35 E459.20172
G1 X172.31 Y129.62 E459.21777
G1 X172.41 Y129.85 E459.23073
G1 X172.49 Y130.14 E459.24530
G1 X172.50 Y131.21 E459.29878
G1 X172.50 Y166.48 E461.05861
G1 X172.43 Y166.87 E461.07837
G1 X172.32 Y167.14 E461.09272
G1 X172.18 Y167.35 E461.10555
G1 X172.00 Y167.56 E461.11914
G1 X171.77 Y167.73 E461.13336
G1 X171.53 Y167.84 E461.14684
G1 X171.28 Y167.91 E461.15969
G1 X171.06 Y167.94 E461.17038
G1 X169.06 Y167.94 E461.27026
G1 X168.95 Y167.93 E461.27591
G1 X168.59 Y167.88 E461.29405
G1 X168.53 Y167.86 E461.29702
G1 X168.53 Y167.86 E461.29707
G1 X168.52 Y167.86 E461.29757
G1 X167.46 Y167.86 E461.35066
G1 X136.90 Y167.86 E462.87520
G1 X136.53 Y167.86 E462.89366
G1 X136.40 Y167.88 E462.90037
G1 X136.19 Y167.92 E462.91081
G1 X136.11 Y167.93 E462.91500
G1 X135.96 Y167.94 E462.92215
G1 X135.95 Y167.94 E462.92295
G1 X135.11 Y167.94 E462.96496
G1 X134.47 Y167.94 E462.99644
G1 X133.71 Y167.93 E463.03445
G1 X133.20 Y167.72 E463.06206
G1 X132.84 Y167.39 E463.08646
G1 X132.67 Y167.12 E463.10205
G1 X132.57 Y166.88 E463.11509
G1 X132.51 Y166.61 E463.12895
G1 X132.50 Y165.97 E463.16098
G1 X132.50 Y130.42 E464.93448
G1 X132.52 Y130.06 E464.95226
G1 X132.67 Y129.64 E464.97494
G1 X132.88 Y129.35 E464.99266
G0 F12000 X133.18 Y129.62
G1 F2400 X133.46 Y129.39 E465.01081
G1 X133.80 Y129.27 E465.02926
G1 X141.03 Y129.26 E465.38976
G1 X141.20 Y129.28 E465.39829
G1 X141.39 Y129.33 E465.40807
G1 X141.59 Y129.42 E465.41896
G1 X141.84 Y129.64 E465.43541
G1 X141.96 Y129.82 E465.44645
G1 X142.04 Y129.99 E465.45588
G1 X142.09 Y130.19 E465.46621
G1 X142.10 Y130.98 E465.50543
G1 X142.10 Y136.88 E465.79983
G1 X142.10 Y136.92 E465.80198
G1 X142.15 Y137.12 E465.81218
G1 X142.19 Y137.21 E465.81693
G1 X142.25 Y137.28 E465.82164
G1 X142.31 Y137.34 E465.82584
G1 X142.37 Y137.38 E465.82967
G1 X142.46 Y137.41 E465.83399
G1 X142.47 Y137.41 E465.83444
G1 X145.37 Y137.41 E465.97927
G1 X162.49 Y137.41 E466.83354
G1 X162.51 Y137.41 E466.83459
G1 X162.60 Y137.39 E466.83906
G1 X162.66 Y137.36 E466.84272
G1 X162.72 Y137.31 E466.84649
G1 X162.80 Y137.23 E466.85186
G1 X162.80 Y137.23 E466.85209
G1 X162.85 Y137.12 E466.85824
G1 X162.90 Y136.92 E466.86806
G1 X162.90 Y130.43 E467.19195
G1 X162.91 Y130.15 E467.20618
G1 X163.04 Y129.79 E467.22490
G1 X163.29 Y129.50 E467.24415
G1 X163.60 Y129.33 E467.26184
G1 X163.84 Y129.27 E467.27382
G1 X171.03 Y129.26 E467.63278
G1 X171.24 Y129.28 E467.64301
G1 X171.56 Y129.40 E467.66046
G1 X171.83 Y129.63 E467.67774
G1 X171.96 Y129.82 E467.68928
G1 X172.04 Y129.99 E467.69875
G1 X172.09 Y130.19 E467.70918
G1 X172.10 Y131.21 E467.76002
G1 X172.10 Y166.45 E469.51805
G1 X172.04 Y166.76 E469.53376
G1 X171.96 Y166.95 E469.54422
G1 X171.86 Y167.11 E469.55359
G1 X171.73 Y167.26 E469.56358
G1 X171.56 Y167.38 E469.57406
G1 X171.38 Y167.47 E469.58388
G1 X171.20 Y167.52 E469.59326
G1 X171.04 Y167.54 E469.60119
G1 X169.07 Y167.54 E469.69957
G1 X168.99 Y167.53 E469.70371
G1 X168.67 Y167.49 E469.71954
G1 X168.64 Y167.48 E469.72142
G1 X168.59 Y167.47 E469.72396
G1 X168.55 Y167.46 E469.72578
G1 X167.46 Y167.46 E469.78031
G1 X136.90 Y167.46 E471.30510
G1 X136.50 Y167.46 E471.32496
G1 X136.34 Y167.48 E471.33278
G1 X136.13 Y167.52 E471.34377
G1 X136.06 Y167.53 E471.34685
G1 X135.96 Y167.54 E471.35205
G1 X135.95 Y167.54 E471.35260
G1 X135.94 Y167.54 E471.35295
G1 X134.48 Y167.54 E471.42604
G1 X133.79 Y167.53 E471.46017
G1 X133.42 Y167.38 E471.48040
G1 X133.15 Y167.13 E471.49858
G1 X133.03 Y166.94 E471.50975
G1 X132.96 Y166.76 E471.51950
G1 X132.91 Y166.56 E471.52962
G1 X132.90 Y165.97 E471.55931
G1 X132.90 Y130.43 E473.33216
G1 X132.91 Y130.15 E473.34639
G1 X133.03 Y129.82 E473.36345
G1 X133.18 Y129.62 E473.37580
G0 F12000 X133.47 Y129.90
G1 F2400 X133.66 Y129.75 E473.38782
G1 X133.87 Y129.67 E473.39937
G1 X141.01 Y129.66 E473.75539
G1 X141.13 Y129.67 E473.76125
G1 X141.25 Y129.70 E473.76751
G1 X141.37 Y129.76 E473.77398
G1 X141.54 Y129.91 E473.78527
G1 X141.61 Y130.01 E473.79180
G1 X141.66 Y130.12 E473.79781
G1 X141.69 Y130.25 E473.80411
G1 X141.70 Y130.98 E473.84069
G1 X141.70 Y136.88 E474.13499
G1 X141.71 Y136.98 E474.13993
G1 X141.77 Y137.26 E474.15429
G1 X141.84 Y137.41 E474.16268
G1 X141.95 Y137.55 E474.17170
G1 X142.07 Y137.66 E474.17960
G1 X142.21 Y137.74 E474.18763
G1 X142.36 Y137.79 E474.19560
G1 X142.43 Y137.81 E474.19949
G1 X162.49 Y137.81 E475.20008
G1 X162.57 Y137.81 E475.20433
G1 X162.73 Y137.77 E475.21250
G1 X162.87 Y137.70 E475.22013
G1 X163.00 Y137.60 E475.22838
G1 X163.12 Y137.47 E475.23683
G1 X163.15 Y137.42 E475.24015
G1 X163.23 Y137.25 E475.24961
G1 X163.29 Y136.97 E475.26382
G1 X163.30 Y130.44 E475.58955
G1 X163.31 Y130.23 E475.60024
G1 X163.39 Y130.00 E475.61221
G1 X163.55 Y129.82 E475.62438
G1 X163.76 Y129.70 E475.63606
G1 X163.89 Y129.67 E475.64292
G1 X171.01 Y129.66 E475.99819
G1 X171.14 Y129.67 E476.00481
G1 X171.36 Y129.75 E476.01628
G1 X171.53 Y129.90 E476.02750
G1 X171.61 Y130.01 E476.03456
G1 X171.66 Y130.12 E476.04057
G1 X171.69 Y130.25 E476.04687
G1 X171.70 Y131.21 E476.09507
G1 X171.70 Y166.41 E477.85125
G1 X171.66 Y166.64 E477.86296
G1 X171.61 Y166.76 E477.86951
G1 X171.54 Y166.87 E477.87543
G1 X171.46 Y166.96 E477.88175
G1 X171.35 Y167.04 E477.88852
G1 X171.24 Y167.09 E477.89467
G1 X171.12 Y167.13 E477.90063
G1 X171.02 Y167.14 E477.90575
G1 X169.08 Y167.14 E478.00258
G1 X169.03 Y167.13 E478.00533
G1 X168.76 Y167.10 E478.01879
G1 X168.73 Y167.09 E478.02019
G1 X168.66 Y167.07 E478.02396
G1 X168.58 Y167.06 E478.02774
G1 X167.46 Y167.06 E478.08372
G1 X136.89 Y167.06 E479.60876
G1 X136.47 Y167.06 E479.62997
G1 X136.27 Y167.09 E479.64006
G1 X136.06 Y167.13 E479.65045
G1 X136.02 Y167.13 E479.65242
G1 X135.96 Y167.14 E479.65566
G1 X135.94 Y167.14 E479.65651
G1 X135.93 Y167.14 E479.65732
G1 X134.48 Y167.14 E479.72941
G1 X133.88 Y167.13 E479.75965
G1 X133.64 Y167.03 E479.77249
G1 X133.46 Y166.87 E479.78442
G1 X133.39 Y166.75 E479.79126
G1 X133.34 Y166.63 E479.79774
G1 X133.31 Y166.51 E479.80411
G1 X133.30 Y165.96 E479.83140
G1 X133.30 Y130.44 E481.60360
G1 X133.31 Y130.23 E481.61429
G1 X133.39 Y130.01 E481.62570
G1 X133.47 Y129.90 E481.63268
G0 F12000 X141.70 Y139.31
G1 F2400 X141.70 Y161.66 E482.74748
G1 X163.30 Y161.66 E483.82511
G1 X163.30 Y139.31 E484.93990
G1 X141.70 Y139.31 E486.01753
G0 F12000 X142.10 Y139.71
G1 F2400 X142.10 Y161.26 E487.09241
G1 X162.90 Y161.26 E488.13013
G1 X162.90 Y139.71 E489.20502
G1 X142.10 Y139.71 E490.24273
G0 F12000 X142.50 Y140.11
G1 F2400 X142.50 Y160.86 E491.27770
G1 X162.50 Y160.86 E492.27551
G1 X162.50 Y140.11 E493.31048
G1 X142.50 Y140.11 E494.30828
G0 F12000 X142.90 Y140.51
G1 F2400 X142.90 Y160.46 E495.30334
G1 X162.10 Y160.46 E496.26124
G1 X162.10 Y140.51 E497.25630
G1 X142.90 Y140.51 E498.21419
G0 F12000 X143.30 Y140.91
G1 F2400 X143.30 Y160.06 E499.16934
G1 X161.70 Y160.06 E500.08732
G1 X161.70 Y140.91 E501.04246
G1 X143.30 Y140.91 E501.96044
G0 F12000 X143.70 Y141.31
G1 F2400 X143.70 Y159.66 E502.87568
G1 X161.30 Y159.66 E503.75375
G1 X161.30 Y141.31 E504.66898
G1 X143.70 Y141.31 E505.54705
G0 F12000 X144.10 Y141.71
G1 F2400 X144.10 Y159.26 E506.42237
G1 X160.90 Y159.26 E507.26053
G1 X160.90 Y141.71 E508.13585
G1 X144.10 Y141.71 E508.97401
G0 F12000 X144.50 Y142.11
G1 F2400 X144.50 Y158.86 E509.80942
G1 X160.50 Y158.86 E510.60766
G1 X160.50 Y142.11 E511.44307
G1 X144.50 Y142.11 E512.24132
G0 F12000 X144.90 Y142.51
G1 F2400 X144.90 Y158.46 E513.03682
G1 X160.10 Y158.46 E513.79515
G1 X160.10 Y142.51 E514.59065
G1 X144.90 Y142.51 E515.34898
G0 F12000 X145.30 Y142.91
G1 F2400 X145.30 Y158.06 E516.10456
G1 X159.70 Y158.06 E516.82298
G1 X159.70 Y142.91 E517.57857
G1 X145.30 Y142.91 E518.29699
G0 F12000 X145.70 Y143.31
G1 F2400 X145.70 Y157.66 E519.01266
G1 X159.30 Y157.66 E519.69117
G1 X159.30 Y143.31 E520.40685
G1 X145.70 Y143.31 E521.08535
G0 F12000 X146.10 Y143.71
G1 F2400 X146.10 Y157.26 E521.76112
G1 X158.90 Y157.26 E522.39971
G1 X158.90 Y143.71 E523.07547
G1 X146.10 Y143.71 E523.71407
G0 F12000 X146.50 Y144.11
G1 F2400 X146.50 Y156.86 E524.34992
G1 X158.50 Y156.86 E524.94860
G1 X158.50 Y144.11 E525.58445
G1 X146.50 Y144.11 E526.18313
G0 F12000 X146.90 Y144.51
G1 F2400 X146.90 Y156.46 E526.77907
G1 X158.10 Y156.46 E527.33784
G1 X158.10 Y144.51 E527.93378
G1 X146.90 Y144.51 E528.49255
G0 F12000 X147.30 Y144.91
G1 F2400 X147.30 Y156.06 E529.04858
G1 X157.70 Y156.06 E529.56744
G1 X157.70 Y144.91 E530.12346
G1 X147.30 Y144.91 E530.64232
G0 F12000 X147.70 Y145.31
G1 F2400 X147.70 Y155.66 E531.15843
G1 X157.30 Y155.66 E531.63738
G1 X157.30 Y145.31 E532.15349
G1 X147.70 Y145.31 E532.63244
G0 F12000 X148.10 Y145.71
G1 F2400 X148.10 Y155.26 E533.10864
G1 X156.90 Y155.26 E533.54768
G1 X156.90 Y145.71 E534.02388
G1 X148.10 Y145.71 E534.46291
G0 F12000 X148.50 Y146.11
G1 F2400 X148.50 Y154.86 E534.89920
G1 X156.50 Y154.86 E535.29832
G1 X156.50 Y146.11 E535.73461
G1 X148.50 Y146.11 E536.13374
G0 F12000 X148.90 Y146.51
G1 F2400 X148.90 Y154.46 E536.53011
G1 X156.10 Y154.46 E536.88932
G1 X156.10 Y146.51 E537.28570
G1 X148.90 Y146.51 E537.64491
G0 F12000 X149.30 Y146.91
G1 F2400 X149.30 Y154.06 E538.00137
G1 X155.70 Y154.06 E538.32067
G1 X155.70 Y146.91 E538.67714
G1 X149.30 Y146.91 E538.99643
G0 F12000 X149.70 Y147.31
G1 F2400 X149.70 Y153.66 E539.31299
G1 X155.30 Y153.66 E539.59237
G1 X155.30 Y147.31 E539.90893
G1 X149.70 Y147.31 E540.18831
G0 F12000 X150.10 Y147.71
G1 F2400 X150.10 Y153.26 E540.46495
G1 X154.90 Y153.26 E540.70443
G1 X154.90 Y147.71 E540.98107
G1 X150.10 Y147.71 E541.22054
G0 F12000 X150.50 Y148.11
G1 F2400 X150.50 Y152.86 E541.45727
G1 X154.50 Y152.86 E541.65683
G1 X154.50 Y148.11 E541.89356
G1 X150.50 Y148.11 E542.09312
G1 F2400 E540.89312
G0 F12000 X140.87 Y138.11
;TYPE:WALL-INNER
G1 F2400 E542.09312
G1 X140.50 Y138.11 E542.11158
G1 X140.50 Y162.86 E543.34611
G1 X164.50 Y162.86 E544.54348
G1 X164.50 Y138.11 E545.77801
G1 X164.13 Y138.11 E545.79642
G1 X164.20 Y138.00 E545.80281
G1 X164.37 Y137.65 E545.82272
G1 X164.50 Y137.10 E545.85057
G1 X164.50 Y130.87 E546.16163
G1 X166.24 Y130.86 E546.24819
G1 X165.96 Y131.11 E546.26642
G1 X165.75 Y131.35 E546.28258
G1 X165.56 Y131.65 E546.30054
G1 X165.34 Y132.18 E546.32885
G1 X165.27 Y132.53 E546.34697
G1 X165.25 Y132.88 E546.36416
G1 X165.27 Y133.21 E546.38061
G1 X165.34 Y133.53 E546.39719
G1 X165.45 Y133.84 E546.41333
G1 X165.59 Y134.13 E546.42942
G1 X165.78 Y134.40 E546.44609
G1 X166.00 Y134.64 E546.46234
G1 X166.27 Y134.88 E546.48019
G1 X166.78 Y135.16 E546.50937
G1 X167.10 Y135.27 E546.52623
G1 X167.43 Y135.34 E546.54287
G1 X167.77 Y135.36 E546.56012
G1 X168.10 Y135.34 E546.57652
G1 X168.42 Y135.27 E546.59304
G1 X168.76 Y135.15 E546.61087
G1 X169.27 Y134.85 E546.64036
G1 X169.53 Y134.61 E546.65823
G1 X169.75 Y134.36 E546.67443
G1 X169.94 Y134.06 E546.69246
G1 X170.16 Y133.54 E546.72061
G1 X170.23 Y133.19 E546.73863
G1 X170.25 Y132.84 E546.75602
G1 X170.23 Y132.51 E546.77259
G1 X170.16 Y132.19 E546.78896
G1 X170.04 Y131.85 E546.80679
G1 X169.74 Y131.34 E546.83628
G1 X169.50 Y131.07 E546.85415
G1 X169.26 Y130.86 E546.87031
G1 X170.50 Y130.86 E546.93222
G1 X170.50 Y165.94 E548.68227
G1 X169.13 Y165.94 E548.75057
G1 X168.67 Y165.86 E548.77368
G1 X167.77 Y165.86 E548.81888
G1 X168.09 Y165.84 E548.83493
G1 X168.41 Y165.77 E548.85134
G1 X168.72 Y165.66 E548.86748
G1 X169.01 Y165.52 E548.88390
G1 X169.29 Y165.33 E548.90049
G1 X169.53 Y165.12 E548.91671
G1 X169.74 Y164.87 E548.93290
G1 X169.92 Y164.59 E548.94936
G1 X170.06 Y164.30 E548.96562
G1 X170.17 Y163.99 E548.98178
G1 X170.23 Y163.68 E548.99800
G1 X170.25 Y163.35 E549.01445
G1 X170.23 Y163.02 E549.03095
G1 X170.16 Y162.66 E549.04889
G1 X169.93 Y162.12 E549.07825
G1 X169.72 Y161.82 E549.09631
G1 X169.51 Y161.58 E549.11253
G1 X169.26 Y161.36 E549.12887
G1 X168.99 Y161.18 E549.14532
G1 X168.66 Y161.03 E549.16315
G1 X168.11 Y160.88 E549.19170
G1 X167.74 Y160.85 E549.21035
G1 X167.41 Y160.88 E549.22695
G1 X167.06 Y160.95 E549.24489
G1 X166.51 Y161.18 E549.27410
G1 X166.19 Y161.40 E549.29372
G1 X165.77 Y161.82 E549.32314
G1 X165.57 Y162.12 E549.34121
G1 X165.42 Y162.44 E549.35913
G1 X165.27 Y163.00 E549.38774
G1 X165.25 Y163.37 E549.40629
G1 X165.27 Y163.70 E549.42269
G1 X165.34 Y164.05 E549.44082
G1 X165.57 Y164.59 E549.47004
G1 X165.77 Y164.89 E549.48822
G1 X165.99 Y165.13 E549.50430
G1 X166.22 Y165.34 E549.51996
G1 X166.54 Y165.55 E549.53865
G1 X167.07 Y165.77 E549.56731
G1 X167.44 Y165.84 E549.58597
G1 X167.75 Y165.86 E549.60181
G1 X137.29 Y165.86 E551.12156
G1 X137.59 Y165.84 E551.13657
G1 X137.91 Y165.77 E551.15297
G1 X138.22 Y165.66 E551.16918
G1 X138.51 Y165.52 E551.18544
G1 X138.79 Y165.33 E551.20205
G1 X139.03 Y165.12 E551.21833
G1 X139.24 Y164.87 E551.23453
G1 X139.43 Y164.59 E551.25098
G1 X139.57 Y164.30 E551.26725
G1 X139.67 Y163.99 E551.28341
G1 X139.73 Y163.67 E551.29973
G1 X139.75 Y163.35 E551.31607
G1 X139.73 Y163.02 E551.33242
G1 X139.66 Y162.66 E551.35050
G1 X139.43 Y162.12 E551.37987
G1 X139.23 Y161.82 E551.39792
G1 X139.01 Y161.58 E551.41414
G1 X138.76 Y161.36 E551.43055
G1 X138.49 Y161.18 E551.44702
G1 X138.17 Y161.03 E551.46471
G1 X137.61 Y160.88 E551.49331
G1 X137.24 Y160.85 E551.51201
G1 X136.91 Y160.88 E551.52856
G1 X136.56 Y160.95 E551.54651
G1 X136.01 Y161.18 E551.57580
G1 X135.69 Y161.40 E551.59541
G1 X135.28 Y161.82 E551.62476
G1 X135.07 Y162.12 E551.64284
G1 X134.92 Y162.44 E551.66075
G1 X134.77 Y163.00 E551.68925
G1 X134.75 Y163.37 E551.70790
G1 X134.77 Y163.70 E551.72446
G1 X134.84 Y164.05 E551.74244
G1 X135.07 Y164.59 E551.77167
G1 X135.28 Y164.89 E551.78985
G1 X135.49 Y165.13 E551.80592
G1 X135.72 Y165.34 E551.82151
G1 X136.04 Y165.55 E551.84016
G1 X136.57 Y165.77 E551.86898
G1 X136.94 Y165.84 E551.88759
G1 X137.23 Y165.86 E551.90218
G1 X136.37 Y165.86 E551.94509
G1 X135.88 Y165.94 E551.96988
G1 X135.11 Y165.94 E552.00820
G1 X134.50 Y165.94 E552.03858
G1 X134.50 Y130.87 E553.78828
G1 X135.73 Y130.87 E553.84985
G1 X135.47 Y131.11 E553.86793
G1 X135.25 Y131.35 E553.88409
G1 X135.06 Y131.65 E553.90205
G1 X134.84 Y132.18 E553.93036
G1 X134.77 Y132.53 E553.94833
G1 X134.75 Y132.88 E553.96567
G1 X134.77 Y133.21 E553.98228
G1 X134.84 Y133.53 E553.99870
G1 X134.95 Y133.84 E554.01485
G1 X135.09 Y134.13 E554.03093
G1 X135.28 Y134.40 E554.04761
G1 X135.50 Y134.64 E554.06385
G1 X135.74 Y134.86 E554.08001
G1 X136.05 Y135.05 E554.09797
G1 X136.57 Y135.27 E554.12628
G1 X136.93 Y135.34 E554.14440
G1 X137.27 Y135.36 E554.16159
G1 X137.60 Y135.34 E554.17804
G1 X137.92 Y135.27 E554.19457
G1 X138.26 Y135.15 E554.21240
G1 X138.77 Y134.85 E554.24189
G1 X139.04 Y134.61 E554.25976
G1 X139.25 Y134.36 E554.27596
G1 X139.45 Y134.06 E554.29399
G1 X139.66 Y133.54 E554.32214
G1 X139.73 Y133.18 E554.34031
G1 X139.75 Y132.84 E554.35755
G1 X139.73 Y132.51 E554.37396
G1 X139.66 Y132.19 E554.39047
G1 X139.54 Y131.85 E554.40830
G1 X139.24 Y131.34 E554.43780
G1 X139.00 Y131.07 E554.45567
G1 X138.76 Y130.86 E554.47179
G1 X140.50 Y130.86 E554.55870
G1 X140.50 Y136.90 E554.86019
G1 X140.51 Y137.14 E554.87223
G1 X140.63 Y137.66 E554.89846
G1 X140.81 Y138.03 E554.91948
G1 X140.87 Y138.11 E554.92426
G0 F12000 X140.90 Y138.51
G1 F2400 X140.90 Y162.46 E556.11888
G1 X164.10 Y162.46 E557.27634
G1 X164.10 Y138.51 E558.47096
G1 X163.03 Y138.51 E558.52424
G1 X163.29 Y138.39 E558.53879
G1 X163.55 Y138.19 E558.55483
G1 X163.76 Y137.95 E558.57050
G1 X163.85 Y137.81 E558.57909
G1 X163.99 Y137.51 E558.59549
G1 X164.09 Y137.06 E558.61885
G1 X164.10 Y130.47 E558.94763
G1 X170.89 Y130.46 E559.28658
G1 X170.90 Y131.21 E559.32425
G1 X170.90 Y166.34 E561.07659
G1 X169.10 Y166.34 E561.16630
G1 X168.64 Y166.26 E561.18945
G1 X167.46 Y166.26 E561.24832
G1 X136.89 Y166.26 E562.77366
G1 X136.40 Y166.26 E562.79806
G1 X135.94 Y166.34 E562.82117
G1 X135.93 Y166.34 E562.82182
G1 X135.89 Y166.34 E562.82378
G1 X134.49 Y166.34 E562.89377
G1 X134.11 Y166.33 E562.91288
G1 X134.10 Y130.47 E564.70219
G1 X140.90 Y130.46 E565.04120
G1 X140.90 Y130.98 E565.06724
G1 X140.90 Y136.89 E565.36219
G1 X140.91 Y137.09 E565.37193
G1 X141.01 Y137.52 E565.39417
G1 X141.16 Y137.83 E565.41116
G1 X141.35 Y138.09 E565.42735
G1 X141.59 Y138.31 E565.44349
G1 X141.87 Y138.47 E565.45966
G1 X141.98 Y138.51 E565.46567
G1 X140.90 Y138.51 E565.51965
G0 F12000 X138.53 Y134.53
G1 F2400 X138.75 Y134.33 E565.53431
G1 X138.93 Y134.12 E565.54792
G1 X139.09 Y133.88 E565.56263
G1 X139.28 Y133.42 E565.58706
G1 X139.34 Y133.13 E565.60188
G1 X139.35 Y132.84 E565.61642
G1 X139.33 Y132.56 E565.63017
G1 X139.27 Y132.29 E565.64399
G1 X139.18 Y132.02 E565.65863
G1 X138.92 Y131.58 E565.68415
G1 X138.72 Y131.36 E565.69880
G1 X138.50 Y131.17 E565.71341
G1 X138.06 Y130.92 E565.73869
G1 X137.80 Y130.83 E565.75245
G1 X137.52 Y130.78 E565.76629
G1 X137.23 Y130.76 E565.78089
G1 X136.96 Y130.78 E565.79475
G1 X136.69 Y130.84 E565.80847
G1 X136.41 Y130.93 E565.82311
G1 X135.97 Y131.19 E565.84863
G1 X135.75 Y131.39 E565.86328
G1 X135.57 Y131.59 E565.87686
G1 X135.41 Y131.84 E565.89157
G1 X135.22 Y132.29 E565.91605
G1 X135.17 Y132.59 E565.93080
G1 X135.15 Y132.88 E565.94535
G1 X135.17 Y133.15 E565.95925
G1 X135.23 Y133.42 E565.97302
G1 X135.32 Y133.68 E565.98662
G1 X135.44 Y133.92 E566.00019
G1 X135.60 Y134.16 E566.01410
G1 X135.78 Y134.36 E566.02780
G1 X135.99 Y134.54 E566.04138
G1 X136.23 Y134.70 E566.05609
G1 X136.69 Y134.88 E566.08056
G1 X136.98 Y134.94 E566.09538
G1 X137.27 Y134.96 E566.10987
G1 X137.54 Y134.94 E566.12367
G1 X137.81 Y134.88 E566.13750
G1 X138.09 Y134.78 E566.15214
G1 X138.53 Y134.53 E566.17765
G0 F12000 X137.24 Y161.26
G1 F2400 X136.96 Y161.28 E566.19151
G1 X136.68 Y161.34 E566.20618
G1 X136.21 Y161.53 E566.23156
G1 X135.95 Y161.71 E566.24722
G1 X135.59 Y162.07 E566.27270
G1 X135.42 Y162.32 E566.28742
G1 X135.30 Y162.58 E566.30208
G1 X135.17 Y163.06 E566.32682
G1 X135.15 Y163.37 E566.34211
G1 X135.17 Y163.64 E566.35597
G1 X135.23 Y163.93 E566.37069
G1 X135.43 Y164.40 E566.39602
G1 X135.59 Y164.65 E566.41083
G1 X135.77 Y164.85 E566.42436
G1 X135.97 Y165.02 E566.43748
G1 X136.22 Y165.19 E566.45274
G1 X136.69 Y165.38 E566.47761
G1 X136.99 Y165.44 E566.49297
G1 X137.26 Y165.46 E566.50656
G1 X137.53 Y165.44 E566.52036
G1 X137.81 Y165.38 E566.53412
G1 X138.06 Y165.29 E566.54778
G1 X138.31 Y165.17 E566.56148
G1 X138.54 Y165.02 E566.57535
G1 X138.74 Y164.83 E566.58902
G1 X138.92 Y164.63 E566.60267
G1 X139.08 Y164.40 E566.61646
G1 X139.19 Y164.15 E566.63014
G1 X139.28 Y163.89 E566.64376
G1 X139.33 Y163.62 E566.65743
G1 X139.35 Y163.35 E566.67118
G1 X139.33 Y163.07 E566.68488
G1 X139.27 Y162.78 E566.69965
G1 X139.08 Y162.31 E566.72508
G1 X138.91 Y162.07 E566.73984
G1 X138.73 Y161.86 E566.75348
G1 X138.52 Y161.68 E566.76724
G1 X138.29 Y161.53 E566.78103
G1 X138.03 Y161.40 E566.79556
G1 X137.55 Y161.28 E566.82035
G1 X137.24 Y161.26 E566.83569
G0 F12000 X140.96 Y162.40
G0 X165.67 Y163.06
G1 F2400 X165.65 Y163.37 E566.85094
G1 X165.67 Y163.64 E566.86469
G1 X165.73 Y163.93 E566.87951
G1 X165.92 Y164.40 E566.90485
G1 X166.09 Y164.65 E566.91965
G1 X166.27 Y164.85 E566.93318
G1 X166.47 Y165.02 E566.94633
G1 X166.72 Y165.19 E566.96167
G1 X167.18 Y165.38 E566.98644
G1 X167.49 Y165.44 E567.00179
G1 X167.76 Y165.46 E567.01549
G1 X168.03 Y165.44 E567.02924
G1 X168.30 Y165.38 E567.04294
G1 X168.56 Y165.29 E567.05656
G1 X168.81 Y165.17 E567.07035
G1 X169.04 Y165.02 E567.08421
G1 X169.24 Y164.83 E567.09785
G1 X169.42 Y164.63 E567.11150
G1 X169.57 Y164.40 E567.12529
G1 X169.69 Y164.15 E567.13897
G1 X169.78 Y163.89 E567.15259
G1 X169.83 Y163.62 E567.16622
G1 X169.85 Y163.35 E567.18002
G1 X169.83 Y163.07 E567.19382
G1 X169.77 Y162.78 E567.20850
G1 X169.57 Y162.31 E567.23392
G1 X169.41 Y162.07 E567.24868
G1 X169.23 Y161.86 E567.26232
G1 X169.02 Y161.68 E567.27604
G1 X168.79 Y161.53 E567.28984
G1 X168.53 Y161.40 E567.30441
G1 X168.05 Y161.28 E567.32919
G1 X167.74 Y161.26 E567.34449
G1 X167.46 Y161.28 E567.35839
G1 X167.17 Y161.34 E567.37307
G1 X166.71 Y161.53 E567.39840
G1 X166.44 Y161.71 E567.41411
G1 X166.09 Y162.07 E567.43958
G1 X165.92 Y162.32 E567.45430
G1 X165.80 Y162.58 E567.46896
G1 X165.67 Y163.06 E567.49375
G0 F12000 X167.48 Y134.94
G1 F2400 X167.77 Y134.96 E567.50829
G1 X168.04 Y134.94 E567.52204
G1 X168.31 Y134.88 E567.53586
G1 X168.59 Y134.78 E567.55050
G1 X169.03 Y134.53 E567.57602
G1 X169.25 Y134.33 E567.59067
G1 X169.43 Y134.12 E567.60429
G1 X169.59 Y133.88 E567.61900
G1 X169.78 Y133.42 E567.64343
G1 X169.83 Y133.13 E567.65818
G1 X169.85 Y132.84 E567.67278
G1 X169.83 Y132.56 E567.68664
G1 X169.77 Y132.29 E567.70036
G1 X169.68 Y132.02 E567.71500
G1 X169.42 Y131.58 E567.74052
G1 X169.22 Y131.36 E567.75517
G1 X169.01 Y131.18 E567.76875
G1 X168.77 Y131.02 E567.78346
G1 X168.31 Y130.83 E567.80794
G1 X168.02 Y130.78 E567.82269
G1 X167.73 Y130.76 E567.83724
G1 X167.45 Y130.78 E567.85114
G1 X167.19 Y130.84 E567.86486
G1 X166.91 Y130.93 E567.87951
G1 X166.47 Y131.19 E567.90502
G1 X166.25 Y131.39 E567.91968
G1 X166.07 Y131.59 E567.93325
G1 X165.91 Y131.84 E567.94796
G1 X165.72 Y132.29 E567.97244
G1 X165.66 Y132.59 E567.98725
G1 X165.65 Y132.88 E568.00174
G1 X165.67 Y133.15 E568.01555
G1 X165.73 Y133.42 E568.02942
G1 X165.82 Y133.68 E568.04302
G1 X165.94 Y133.92 E568.05659
G1 X166.09 Y134.16 E568.07050
G1 X166.28 Y134.36 E568.08420
G1 X166.50 Y134.55 E568.09880
G1 X166.94 Y134.80 E568.12409
G1 X167.20 Y134.89 E568.13785
G1 X167.48 Y134.94 E568.15175
G0 F12000 X167.53 Y134.54
;TYPE:WALL-OUTER
G1 F2400 X167.76 Y134.56 E568.16359
G1 X167.99 Y134.54 E568.17470
G1 X168.21 Y134.50 E568.18586
G1 X168.42 Y134.42 E568.19729
G1 X168.79 Y134.20 E568.21875
G1 X169.11 Y133.88 E568.24119
G1 X169.23 Y133.69 E568.25266
G1 X169.39 Y133.31 E568.27331
G1 X169.44 Y133.08 E568.28477
G1 X169.45 Y132.84 E568.29662
G1 X169.43 Y132.62 E568.30777
G1 X169.39 Y132.40 E568.31889
G1 X169.31 Y132.19 E568.33031
G1 X169.09 Y131.81 E568.35178
G1 X168.77 Y131.50 E568.37422
G1 X168.58 Y131.38 E568.38565
G1 X168.20 Y131.22 E568.40635
G1 X167.97 Y131.17 E568.41780
G1 X167.74 Y131.16 E568.42960
G1 X167.51 Y131.18 E568.44081
G1 X167.29 Y131.22 E568.45192
G1 X167.08 Y131.30 E568.46335
G1 X166.71 Y131.51 E568.48481
G1 X166.39 Y131.84 E568.50725
G1 X166.27 Y132.03 E568.51868
G1 X166.11 Y132.41 E568.53938
G1 X166.06 Y132.64 E568.55084
G1 X166.05 Y132.87 E568.56263
G1 X166.06 Y133.10 E568.57378
G1 X166.11 Y133.31 E568.58495
G1 X166.19 Y133.52 E568.59601
G1 X166.28 Y133.72 E568.60701
G1 X166.41 Y133.91 E568.61819
G1 X166.56 Y134.07 E568.62928
G1 X166.73 Y134.22 E568.64067
G1 X167.11 Y134.43 E568.66211
G1 X167.31 Y134.50 E568.67276
G1 X167.53 Y134.54 E568.68392
G0 F12000 X167.51 Y134.84
G0 X163.99 Y137.08
G0 X163.69 Y137.01
G1 F2400 X163.70 Y130.45 E569.01110
G1 X163.71 Y130.31 E569.01849
G1 X163.74 Y130.21 E569.02381
G1 X163.81 Y130.13 E569.02883
G1 X163.94 Y130.07 E569.03606
G1 X170.99 Y130.06 E569.38773
G1 X171.05 Y130.06 E569.39074
G1 X171.15 Y130.10 E569.39619
G1 X171.23 Y130.17 E569.40147
G1 X171.26 Y130.21 E569.40397
G1 X171.28 Y130.26 E569.40643
G1 X171.29 Y130.30 E569.40864
G1 X171.30 Y131.21 E569.45419
G1 X171.30 Y166.38 E571.20853
G1 X171.27 Y166.53 E571.21633
G1 X171.25 Y166.58 E571.21888
G1 X171.23 Y166.62 E571.22133
G1 X171.19 Y166.66 E571.22409
G1 X171.09 Y166.72 E571.22978
G1 X171.00 Y166.74 E571.23449
G1 X169.10 Y166.74 E571.32944
G1 X169.06 Y166.74 E571.33118
G1 X168.61 Y166.66 E571.35378
G1 X167.46 Y166.66 E571.41120
G1 X136.89 Y166.66 E572.93645
G1 X136.43 Y166.66 E572.95930
G1 X135.99 Y166.73 E572.98180
G1 X135.91 Y166.74 E572.98560
G1 X134.48 Y166.74 E573.05684
G1 X133.96 Y166.73 E573.08324
G1 X133.86 Y166.69 E573.08857
G1 X133.77 Y166.61 E573.09439
G1 X133.72 Y166.51 E573.10013
G1 X133.71 Y166.46 E573.10249
G1 X133.70 Y165.96 E573.12748
G1 X133.70 Y130.46 E574.89884
G1 X133.71 Y130.31 E574.90628
G1 X133.75 Y130.20 E574.91198
G1 X133.77 Y130.17 E574.91362
G1 X133.86 Y130.10 E574.91951
G1 X133.94 Y130.07 E574.92411
G1 X140.99 Y130.06 E575.27564
G1 X141.05 Y130.06 E575.27880
G1 X141.15 Y130.10 E575.28367
G1 X141.23 Y130.17 E575.28951
G1 X141.26 Y130.21 E575.29191
G1 X141.29 Y130.30 E575.29656
G1 X141.30 Y130.98 E575.33049
G1 X141.30 Y136.88 E575.62499
G1 X141.31 Y137.03 E575.63243
G1 X141.39 Y137.39 E575.65067
G1 X141.50 Y137.62 E575.66357
G1 X141.65 Y137.82 E575.67594
G1 X141.83 Y137.99 E575.68809
G1 X142.04 Y138.11 E575.70010
G1 X142.27 Y138.19 E575.71222
G1 X142.40 Y138.21 E575.71898
G1 X162.50 Y138.21 E576.72203
G1 X162.63 Y138.21 E576.72832
G1 X162.87 Y138.15 E576.74060
G1 X163.08 Y138.04 E576.75245
G1 X163.28 Y137.90 E576.76444
G1 X163.44 Y137.71 E576.77664
G1 X163.61 Y137.38 E576.79546
G1 X163.69 Y137.01 E576.81427
G0 F12000 X163.99 Y137.08
G0 X163.70 Y138.61
G0 X163.70 Y138.91
G1 F2400 X141.30 Y138.91 E577.93181
G1 X141.30 Y162.06 E579.08652
G1 X163.70 Y162.06 E580.20406
G1 X163.70 Y138.91 E581.35877
G0 F12000 X163.70 Y138.61
G0 X164.04 Y138.57
G0 X167.50 Y161.37
G0 X167.52 Y161.67
G1 F2400 X167.29 Y161.72 E581.37018
G1 X166.90 Y161.88 E581.39161
G1 X166.70 Y162.02 E581.40335
G1 X166.40 Y162.32 E581.42491
G1 X166.27 Y162.51 E581.43632
G1 X166.17 Y162.72 E581.44773
G1 X166.06 Y163.13 E581.46869
