;-- START GCODE --
;Sliced for Type A Machines Series 1
;Sliced at: Sat 03-12-2016 16:46:36
;Basic settings: Layer height: 0.2 Walls: 3 Fill: 20
;Print Speed: 100 Support: 0
;Retraction Speed: 40 Retraction Distance: 1.2
;Print time: #P_TIME#
;Filament used: #F_AMNT#m #F_WGHT#g
;Filament cost: #F_COST#
M106 S255	 ;start with the fan on
G21        ;metric values
G90        ;absolute positioning
M106 S255    ;start with the fan on
G28     ;move to endstops
G29		;allows for auto-levelling
G1 X150 Y5  Z15.0 F6000 ;center and move the platform down 15mm
M109 S220 ;Heat To temp
G92 E0                  ;zero the extruded length
G1 F200 E30              ;extrude 30mm of feed stock
G92 E0                  ;zero the extruded length again
G1 X175 Y25  Z0 F6000 ;remove bugger
G1 X220 F6000 ;remove bugger
G1 X150 Y150  Z15 F6000 ;recenter and begin
G1 F6000

;Layer count: 34
;LAYER:0
M106 S255
G0 F6000 X125.31 Y120.12 Z0.30
;TYPE:SKIRT
G1 F2700 X125.00 Y120.49 E0.02568
G1 X124.72 Y120.90 E0.05216
G1 X124.48 Y121.32 E0.07775
G1 X124.30 Y121.75 E0.10312
G1 X124.14 Y122.23 E0.12971
G1 X124.04 Y122.70 E0.15537
G1 X123.99 Y123.17 E0.18089
G1 X123.98 Y123.67 E0.20721
G1 X124.02 Y124.14 E0.23250
G1 X124.11 Y124.63 E0.25898
G1 X124.24 Y125.09 E0.28483
G1 X124.41 Y125.53 E0.31004
G1 X124.64 Y125.97 E0.33668
G1 X124.90 Y126.37 E0.36195
G1 X125.20 Y126.75 E0.38786
G1 X125.54 Y127.11 E0.41402
G1 X125.91 Y127.42 E0.43966
G1 X126.30 Y127.69 E0.46548
G1 X126.74 Y127.93 E0.49186
G1 X127.17 Y128.12 E0.51730
G1 X127.63 Y128.27 E0.54303
G1 X128.11 Y128.37 E0.56913
G1 X128.59 Y128.43 E0.59477
G1 X129.08 Y128.43 E0.62098
G1 X129.55 Y128.40 E0.64620
G1 X130.04 Y128.31 E0.67275
G1 X130.50 Y128.17 E0.69845
G1 X130.94 Y128.00 E0.72364
G1 X131.39 Y127.77 E0.75040
G1 X131.79 Y127.51 E0.77581
G1 X132.16 Y127.21 E0.80157
G1 X132.52 Y126.87 E0.82804
G1 X132.83 Y126.51 E0.85333
G1 X133.11 Y126.10 E0.87962
G1 X133.34 Y125.68 E0.90521
G1 X133.53 Y125.24 E0.93082
G1 X133.68 Y124.78 E0.95688
G1 X133.78 Y124.30 E0.98298
G1 X133.84 Y123.83 E1.00851
G1 X133.85 Y123.33 E1.03478
G1 X133.81 Y122.86 E1.06006
G1 X133.72 Y122.38 E1.08648
G1 X133.59 Y121.92 E1.11179
G1 X133.41 Y121.46 E1.13810
G1 X133.19 Y121.03 E1.16396
G1 X132.93 Y120.63 E1.18956
G1 X132.62 Y120.24 E1.21578
G1 X132.28 Y119.89 E1.24156
G1 X131.92 Y119.58 E1.26732
G1 X131.53 Y119.31 E1.29268
G1 X131.09 Y119.07 E1.31945
G1 X130.65 Y118.88 E1.34470
G1 X130.19 Y118.73 E1.37056
G1 X129.71 Y118.63 E1.39677
G1 X129.24 Y118.57 E1.42229
G1 X128.75 Y118.57 E1.44813
G1 X128.27 Y118.61 E1.47395
G1 X127.79 Y118.69 E1.50026
G1 X127.32 Y118.83 E1.52624
G1 X126.88 Y119.00 E1.55151
G1 X126.45 Y119.22 E1.57730
G1 X126.03 Y119.49 E1.60360
G1 X125.65 Y119.79 E1.62958
G1 X125.31 Y120.12 E1.65510
G0 F6000 X125.00 Y119.83
G1 F2700 X124.66 Y120.23 E1.68302
G1 X124.35 Y120.67 E1.71191
G1 X124.10 Y121.12 E1.73927
G1 X123.89 Y121.61 E1.76791
G1 X123.73 Y122.11 E1.79567
G1 X123.62 Y122.63 E1.82396
G1 X123.56 Y123.15 E1.85189
G1 X123.55 Y123.68 E1.88051
G1 X123.59 Y124.20 E1.90815
G1 X123.69 Y124.72 E1.93620
G1 X123.83 Y125.22 E1.96440
G1 X124.03 Y125.71 E1.99247
G1 X124.26 Y126.18 E2.02043
G1 X124.56 Y126.63 E2.04908
G1 X124.88 Y127.04 E2.07666
G1 X125.24 Y127.41 E2.10468
G1 X125.65 Y127.76 E2.13323
G1 X126.08 Y128.06 E2.16132
G1 X126.53 Y128.31 E2.18880
G1 X127.03 Y128.52 E2.21749
G1 X127.52 Y128.68 E2.24542
G1 X128.04 Y128.79 E2.27366
G1 X128.56 Y128.85 E2.30171
G1 X129.09 Y128.86 E2.32963
G1 X129.62 Y128.82 E2.35828
G1 X130.13 Y128.73 E2.38590
G1 X130.63 Y128.58 E2.41399
G1 X131.12 Y128.39 E2.44202
G1 X131.59 Y128.15 E2.47021
G1 X132.04 Y127.86 E2.49833
G1 X132.45 Y127.53 E2.52676
G1 X132.83 Y127.17 E2.55458
G1 X133.17 Y126.77 E2.58253
G1 X133.47 Y126.33 E2.61096
G1 X133.72 Y125.88 E2.63882
G1 X133.94 Y125.38 E2.66756
G1 X134.09 Y124.89 E2.69486
G1 X134.21 Y124.37 E2.72348
G1 X134.27 Y123.85 E2.75137
G1 X134.27 Y123.33 E2.77934
G1 X134.23 Y122.80 E2.80746
G1 X134.13 Y122.27 E2.83616
G1 X134.00 Y121.78 E2.86325
G1 X133.80 Y121.28 E2.89208
G1 X133.56 Y120.81 E2.92022
G1 X133.28 Y120.38 E2.94757
G1 X132.94 Y119.96 E2.97649
G1 X132.58 Y119.58 E3.00442
G1 X132.18 Y119.24 E3.03245
G1 X131.75 Y118.95 E3.06020
G1 X131.28 Y118.69 E3.08873
G1 X130.80 Y118.48 E3.11673
G1 X130.30 Y118.32 E3.14482
G1 X129.78 Y118.21 E3.17316
G1 X129.26 Y118.15 E3.20105
G1 X128.74 Y118.14 E3.22924
G1 X128.22 Y118.18 E3.25666
G1 X127.69 Y118.28 E3.28586
G1 X127.19 Y118.42 E3.31355
G1 X126.70 Y118.61 E3.34140
G1 X126.23 Y118.85 E3.36955
G1 X125.78 Y119.14 E3.39805
G1 X125.38 Y119.47 E3.42575
G1 X125.00 Y119.83 E3.45387
G0 F6000 X124.69 Y119.54
G1 F2700 X124.32 Y119.97 E3.48436
G1 X123.99 Y120.45 E3.51502
G1 X123.72 Y120.94 E3.54497
G1 X123.49 Y121.46 E3.57533
G1 X123.32 Y122.00 E3.60567
G1 X123.19 Y122.56 E3.63637
G1 X123.13 Y123.12 E3.66656
G1 X123.12 Y123.69 E3.69689
G1 X123.17 Y124.26 E3.72737
G1 X123.27 Y124.81 E3.75731
G1 X123.43 Y125.36 E3.78801
G1 X123.64 Y125.90 E3.81850
G1 X123.89 Y126.39 E3.84832
G1 X124.20 Y126.88 E3.87906
G1 X124.56 Y127.32 E3.90919
G1 X124.95 Y127.72 E3.93935
G1 X125.39 Y128.10 E3.97048
G1 X125.85 Y128.42 E4.00006
G1 X126.35 Y128.70 E4.03086
G1 X126.87 Y128.92 E4.06114
G1 X127.40 Y129.09 E4.09086
G1 X127.97 Y129.22 E4.12198
G1 X128.54 Y129.28 E4.15223
G1 X129.10 Y129.29 E4.18251
G1 X129.67 Y129.24 E4.21288
G1 X130.22 Y129.14 E4.24293
G1 X130.78 Y128.99 E4.27375
G1 X131.30 Y128.78 E4.30382
G1 X131.81 Y128.52 E4.33403
G1 X132.29 Y128.21 E4.36454
G1 X132.73 Y127.86 E4.39482
G1 X133.14 Y127.46 E4.42522
G1 X133.51 Y127.03 E4.45567
G1 X133.83 Y126.56 E4.48593
G1 X134.11 Y126.06 E4.51657
G1 X134.33 Y125.55 E4.54638
G1 X134.51 Y125.00 E4.57726
G1 X134.63 Y124.45 E4.60719
G1 X134.69 Y123.88 E4.63782
G1 X134.70 Y123.31 E4.66814
G1 X134.66 Y122.75 E4.69803
G1 X134.55 Y122.18 E4.72923
G1 X134.40 Y121.64 E4.75892
G1 X134.19 Y121.11 E4.78931
G1 X133.93 Y120.60 E4.81996
G1 X133.62 Y120.13 E4.85015
G1 X133.27 Y119.68 E4.88048
G1 X132.87 Y119.27 E4.91090
G1 X132.44 Y118.90 E4.94120
G1 X131.97 Y118.58 E4.97137
G1 X131.47 Y118.30 E5.00212
G1 X130.95 Y118.08 E5.03242
G1 X130.41 Y117.90 E5.06259
G1 X129.86 Y117.78 E5.09280
G1 X129.29 Y117.72 E5.12342
G1 X128.73 Y117.71 E5.15337
G1 X128.16 Y117.76 E5.18374
G1 X127.59 Y117.86 E5.21468
G1 X127.05 Y118.02 E5.24492
G1 X126.53 Y118.22 E5.27473
G1 X126.01 Y118.48 E5.30567
G1 X125.54 Y118.79 E5.33574
G1 X125.09 Y119.14 E5.36603
G1 X124.69 Y119.54 E5.39631
G0 F6000 X124.37 Y119.24
G1 F2700 X123.98 Y119.71 E5.42892
G1 X123.63 Y120.22 E5.46176
G1 X123.33 Y120.75 E5.49426
G1 X123.09 Y121.31 E5.52697
G1 X122.90 Y121.89 E5.55938
G1 X122.77 Y122.48 E5.59193
G1 X122.70 Y123.10 E5.62487
G1 X122.69 Y123.71 E5.65749
G1 X122.74 Y124.31 E5.68979
G1 X122.85 Y124.91 E5.72246
G1 X123.02 Y125.50 E5.75493
G1 X123.24 Y126.07 E5.78753
G1 X123.53 Y126.61 E5.82031
G1 X123.86 Y127.13 E5.85294
G1 X124.23 Y127.60 E5.88536
G1 X124.66 Y128.04 E5.91813
G1 X125.12 Y128.43 E5.95017
G1 X125.63 Y128.79 E5.98350
G1 X126.16 Y129.08 E6.01559
G1 X126.72 Y129.32 E6.04849
G1 X127.31 Y129.51 E6.08117
G1 X127.90 Y129.64 E6.11344
G1 X128.51 Y129.71 E6.14649
G1 X129.11 Y129.72 E6.17852
G1 X129.73 Y129.67 E6.21173
G1 X130.32 Y129.56 E6.24396
G1 X130.91 Y129.39 E6.27654
G1 X131.47 Y129.17 E6.30875
G1 X132.03 Y128.88 E6.34224
G1 X132.53 Y128.56 E6.37407
G1 X133.01 Y128.18 E6.40697
G1 X133.46 Y127.75 E6.43985
G1 X133.85 Y127.29 E6.47208
G1 X134.19 Y126.79 E6.50450
G1 X134.49 Y126.25 E6.53721
G1 X134.74 Y125.69 E6.57027
G1 X134.92 Y125.11 E6.60228
G1 X135.05 Y124.52 E6.63505
G1 X135.12 Y123.90 E6.66799
G1 X135.13 Y123.30 E6.70002
G1 X135.08 Y122.68 E6.73339
G1 X134.97 Y122.09 E6.76540
G1 X134.81 Y121.50 E6.79788
G1 X134.58 Y120.94 E6.83044
G1 X134.30 Y120.38 E6.86363
G1 X133.97 Y119.88 E6.89561
G1 X133.59 Y119.39 E6.92889
G1 X133.16 Y118.95 E6.96144
G1 X132.70 Y118.56 E6.99356
G1 X132.20 Y118.22 E7.02613
G1 X131.66 Y117.92 E7.05894
G1 X131.11 Y117.68 E7.09129
G1 X130.52 Y117.49 E7.12404
G1 X129.93 Y117.36 E7.15660
G1 X129.31 Y117.29 E7.18953
G1 X128.71 Y117.28 E7.22178
G1 X128.10 Y117.33 E7.25445
G1 X127.50 Y117.44 E7.28695
G1 X126.91 Y117.61 E7.31982
G1 X126.35 Y117.83 E7.35179
G1 X125.80 Y118.11 E7.38478
G1 X125.29 Y118.44 E7.41759
G1 X124.81 Y118.83 E7.45035
G1 X124.37 Y119.24 E7.48244
G0 F6000 X124.06 Y118.96
G1 F2700 X123.64 Y119.45 E7.51694
G1 X123.27 Y119.99 E7.55193
G1 X122.95 Y120.56 E7.58656
G1 X122.69 Y121.16 E7.62187
G1 X122.49 Y121.78 E7.65653
G1 X122.35 Y122.41 E7.69116
G1 X122.28 Y123.07 E7.72652
G1 X122.27 Y123.72 E7.76090
G1 X122.32 Y124.37 E7.79582
G1 X122.44 Y125.01 E7.83044
G1 X122.61 Y125.64 E7.86552
G1 X122.86 Y126.25 E7.90058
G1 X123.15 Y126.83 E7.93515
G1 X123.51 Y127.38 E7.97029
G1 X123.91 Y127.88 E8.00441
G1 X124.37 Y128.35 E8.03979
G1 X124.86 Y128.77 E8.07441
G1 X125.40 Y129.15 E8.10950
G1 X125.97 Y129.47 E8.14437
G1 X126.57 Y129.72 E8.17911
G1 X127.19 Y129.92 E8.21370
G1 X127.83 Y130.06 E8.24860
G1 X128.49 Y130.14 E8.28401
G1 X129.13 Y130.15 E8.31834
G1 X129.78 Y130.09 E8.35342
G1 X130.42 Y129.98 E8.38788
G1 X131.06 Y129.80 E8.42329
G1 X131.65 Y129.56 E8.45751
G1 X132.24 Y129.26 E8.49268
G1 X132.79 Y128.91 E8.52760
G1 X133.29 Y128.50 E8.56194
G1 X133.77 Y128.04 E8.59747
G1 X134.19 Y127.55 E8.63186
G1 X134.56 Y127.01 E8.66673
G1 X134.88 Y126.44 E8.70190
G1 X135.13 Y125.85 E8.73617
G1 X135.34 Y125.22 E8.77138
G1 X135.47 Y124.58 E8.80617
G1 X135.55 Y123.93 E8.84142
G1 X135.56 Y123.28 E8.87580
G1 X135.51 Y122.63 E8.91088
G1 X135.39 Y121.99 E8.94534
G1 X135.21 Y121.36 E8.98054
G1 X134.97 Y120.75 E9.01540
G1 X134.67 Y120.18 E9.05002
G1 X134.31 Y119.62 E9.08539
G1 X133.92 Y119.12 E9.11943
G1 X133.45 Y118.64 E9.15500
G1 X132.96 Y118.22 E9.18931
G1 X132.42 Y117.85 E9.22427
G1 X131.86 Y117.54 E9.25885
G1 X131.25 Y117.27 E9.29445
G1 X130.64 Y117.08 E9.32838
G1 X130.00 Y116.94 E9.36360
G1 X129.34 Y116.86 E9.39886
G1 X128.70 Y116.85 E9.43292
G1 X128.04 Y116.91 E9.46838
G1 X127.41 Y117.02 E9.50278
G1 X126.77 Y117.20 E9.53813
G1 X126.17 Y117.44 E9.57259
G1 X125.59 Y117.74 E9.60738
G1 X125.03 Y118.10 E9.64266
G1 X124.53 Y118.50 E9.67678
G1 X124.06 Y118.96 E9.71220
G0 F6000 X123.75 Y118.66
G1 F2700 X123.30 Y119.19 E9.74947
G1 X122.90 Y119.76 E9.78630
G1 X122.56 Y120.37 E9.82391
G1 X122.29 Y121.00 E9.86039
G1 X122.07 Y121.68 E9.89836
G1 X121.93 Y122.35 E9.93484
G1 X121.85 Y123.04 E9.97191
G1 X121.84 Y123.74 E10.00961
G1 X121.89 Y124.42 E10.04603
G1 X122.02 Y125.11 E10.08326
G1 X122.21 Y125.78 E10.12028
G1 X122.47 Y126.43 E10.15775
G1 X122.78 Y127.03 E10.19389
G1 X123.16 Y127.63 E10.23201
G1 X123.59 Y128.17 E10.26864
G1 X124.07 Y128.66 E10.30545
G1 X124.60 Y129.12 E10.34290
G1 X125.18 Y129.51 E10.38004
G1 X125.77 Y129.84 E10.41656
G1 X126.42 Y130.13 E10.45428
G1 X127.09 Y130.34 E10.49151
G1 X127.76 Y130.49 E10.52820
G1 X128.45 Y130.56 E10.56544
G1 X129.13 Y130.58 E10.60196
G1 X129.84 Y130.52 E10.63988
G1 X130.52 Y130.39 E10.67662
G1 X131.18 Y130.21 E10.71325
G1 X131.84 Y129.94 E10.75131
G1 X132.45 Y129.63 E10.78781
G1 X133.03 Y129.26 E10.82475
G1 X133.58 Y128.82 E10.86213
G1 X134.08 Y128.34 E10.89897
G1 X134.53 Y127.81 E10.93636
G1 X134.93 Y127.24 E10.97345
G1 X135.26 Y126.64 E11.00972
G1 X135.54 Y125.99 E11.04779
G1 X135.75 Y125.33 E11.08461
G1 X135.90 Y124.65 E11.12164
G1 X135.98 Y123.96 E11.15877
G1 X135.99 Y123.28 E11.19534
G1 X135.93 Y122.57 E11.23332
G1 X135.81 Y121.89 E11.26994
G1 X135.62 Y121.23 E11.30691
G1 X135.36 Y120.58 E11.34413
G1 X135.04 Y119.96 E11.38128
G1 X134.67 Y119.38 E11.41821
G1 X134.23 Y118.83 E11.45551
G1 X133.75 Y118.33 E11.49244
G1 X133.22 Y117.89 E11.52940
G1 X132.65 Y117.49 E11.56678
G1 X132.04 Y117.15 E11.60379
G1 X131.41 Y116.88 E11.64075
G1 X130.74 Y116.66 E11.67804
G1 X130.06 Y116.52 E11.71502
G1 X129.37 Y116.44 E11.75214
G1 X128.68 Y116.42 E11.78898
G1 X127.99 Y116.48 E11.82627
G1 X127.31 Y116.61 E11.86332
G1 X126.64 Y116.80 E11.90046
G1 X125.99 Y117.05 E11.93749
G1 X125.37 Y117.37 E11.97456
G1 X124.79 Y117.75 E12.01172
G1 X124.24 Y118.18 E12.04880
G1 X123.75 Y118.66 E12.08568
G0 F6000 X123.44 Y118.36
G1 F2700 X122.96 Y118.93 E12.12523
G1 X122.54 Y119.53 E12.16444
G1 X122.18 Y120.19 E12.20425
G1 X121.89 Y120.86 E12.24322
G1 X121.66 Y121.56 E12.28242
G1 X121.50 Y122.28 E12.32191
G1 X121.42 Y123.00 E12.36082
G1 X121.41 Y123.75 E12.40081
G1 X121.47 Y124.48 E12.44002
G1 X121.60 Y125.20 E12.47886
G1 X121.81 Y125.92 E12.51877
G1 X122.07 Y126.60 E12.55779
G1 X122.41 Y127.25 E12.59723
G1 X122.81 Y127.88 E12.63667
G1 X123.26 Y128.45 E12.67553
G1 X123.78 Y128.98 E12.71521
G1 X124.35 Y129.46 E12.75483
G1 X124.95 Y129.88 E12.79373
G1 X125.59 Y130.23 E12.83306
G1 X126.27 Y130.53 E12.87263
G1 X126.97 Y130.75 E12.91164
G1 X127.69 Y130.91 E12.95119
G1 X128.41 Y130.99 E12.99015
G1 X129.16 Y131.00 E13.03008
G1 X129.90 Y130.94 E13.06929
G1 X130.61 Y130.81 E13.10814
G1 X131.33 Y130.61 E13.14783
G1 X132.01 Y130.34 E13.18710
G1 X132.67 Y130.00 E13.22671
G1 X133.29 Y129.60 E13.26595
G1 X133.85 Y129.15 E13.30452
G1 X134.40 Y128.62 E13.34506
G1 X134.87 Y128.07 E13.38347
G1 X135.29 Y127.46 E13.42341
G1 X135.64 Y126.83 E13.46212
G1 X135.94 Y126.14 E13.50205
G1 X136.16 Y125.45 E13.54077
G1 X136.32 Y124.72 E13.58049
G1 X136.40 Y124.00 E13.61939
G1 X136.41 Y123.25 E13.65938
G1 X136.35 Y122.52 E13.69864
G1 X136.22 Y121.80 E13.73733
G1 X136.02 Y121.08 E13.77739
G1 X135.75 Y120.40 E13.81655
G1 X135.41 Y119.75 E13.85568
G1 X135.02 Y119.13 E13.89500
G1 X134.56 Y118.55 E13.93425
G1 X134.04 Y118.02 E13.97407
G1 X133.49 Y117.55 E14.01274
G1 X132.88 Y117.13 E14.05231
G1 X132.23 Y116.77 E14.09190
G1 X131.56 Y116.47 E14.13116
G1 X130.86 Y116.25 E14.17015
G1 X130.13 Y116.09 E14.20980
G1 X129.41 Y116.01 E14.24870
G1 X128.66 Y116.00 E14.28847
G1 X127.93 Y116.06 E14.32795
G1 X127.22 Y116.19 E14.36664
G1 X126.49 Y116.39 E14.40693
G1 X125.81 Y116.66 E14.44579
G1 X125.16 Y117.00 E14.48481
G1 X124.54 Y117.40 E14.52427
G1 X123.96 Y117.86 E14.56379
G1 X123.44 Y118.36 E14.60282
G0 F6000 X123.12 Y118.08
G1 F2700 X122.62 Y118.67 E14.64414
G1 X122.18 Y119.31 E14.68554
G1 X121.79 Y120.00 E14.72794
G1 X121.49 Y120.70 E14.76865
G1 X121.25 Y121.45 E14.81061
G1 X121.08 Y122.21 E14.85221
G1 X120.99 Y122.98 E14.89348
G1 X120.98 Y123.77 E14.93571
G1 X121.04 Y124.53 E14.97679
G1 X121.18 Y125.30 E15.01841
G1 X121.40 Y126.05 E15.05983
G1 X121.69 Y126.78 E15.10184
G1 X122.04 Y127.47 E15.14312
G1 X122.46 Y128.12 E15.18460
G1 X122.95 Y128.73 E15.22639
G1 X123.49 Y129.29 E15.26792
G1 X124.08 Y129.80 E15.30965
G1 X124.72 Y130.24 E15.35077
G1 X125.40 Y130.62 E15.39264
G1 X126.11 Y130.93 E15.43383
G1 X126.86 Y131.17 E15.47589
G1 X127.62 Y131.33 E15.51739
G1 X128.39 Y131.42 E15.55866
G1 X129.18 Y131.43 E15.60095
G1 X129.95 Y131.37 E15.64192
G1 X130.71 Y131.23 E15.68360
G1 X131.46 Y131.02 E15.72484
G1 X132.19 Y130.73 E15.76709
G1 X132.88 Y130.37 E15.80851
G1 X133.53 Y129.95 E15.84981
G1 X134.14 Y129.47 E15.89137
G1 X134.71 Y128.92 E15.93324
G1 X135.21 Y128.33 E15.97460
G1 X135.65 Y127.69 E16.01603
G1 X136.03 Y127.01 E16.05792
G1 X136.34 Y126.30 E16.09912
G1 X136.58 Y125.56 E16.14078
G1 X136.74 Y124.79 E16.18266
G1 X136.83 Y124.02 E16.22388
G1 X136.84 Y123.23 E16.26617
G1 X136.78 Y122.47 E16.30709
G1 X136.64 Y121.70 E16.34882
G1 X136.43 Y120.95 E16.39033
G1 X136.14 Y120.23 E16.43169
G1 X135.78 Y119.53 E16.47369
G1 X135.36 Y118.88 E16.51521
G1 X134.88 Y118.27 E16.55658
G1 X134.33 Y117.70 E16.59856
G1 X133.75 Y117.21 E16.63947
G1 X133.10 Y116.76 E16.68144
G1 X132.42 Y116.38 E16.72329
G1 X131.71 Y116.07 E16.76436
G1 X130.97 Y115.84 E16.80586
G1 X130.20 Y115.67 E16.84786
G1 X129.44 Y115.58 E16.88902
G1 X128.65 Y115.57 E16.93115
G1 X127.88 Y115.63 E16.97233
G1 X127.11 Y115.77 E17.01401
G1 X126.36 Y115.99 E17.05569
G1 X125.64 Y116.27 E17.09684
G1 X124.94 Y116.63 E17.13910
G1 X124.30 Y117.05 E17.17993
G1 X123.68 Y117.53 E17.22199
G1 X123.12 Y118.08 E17.26359
G0 F6000 X122.81 Y117.78
G1 F2700 X122.28 Y118.41 E17.30714
G1 X121.81 Y119.08 E17.35092
G1 X121.41 Y119.80 E17.39508
G1 X121.08 Y120.56 E17.43910
G1 X120.83 Y121.34 E17.48262
G1 X120.66 Y122.13 E17.52609
G1 X120.57 Y122.95 E17.57015
G1 X120.55 Y123.78 E17.61409
G1 X120.62 Y124.59 E17.65801
G1 X120.77 Y125.40 E17.70153
G1 X120.99 Y126.18 E17.74509
G1 X121.30 Y126.96 E17.78964
G1 X121.67 Y127.69 E17.83326
G1 X122.11 Y128.37 E17.87697
G1 X122.62 Y129.01 E17.92052
G1 X123.19 Y129.61 E17.96465
G1 X123.82 Y130.13 E18.00813
G1 X124.50 Y130.60 E18.05229
G1 X125.22 Y131.00 E18.09623
G1 X125.97 Y131.33 E18.14000
G1 X126.75 Y131.58 E18.18385
G1 X127.54 Y131.75 E18.22720
G1 X128.36 Y131.85 E18.27126
G1 X129.19 Y131.86 E18.31526
G1 X130.01 Y131.79 E18.35907
G1 X130.82 Y131.65 E18.40303
G1 X131.59 Y131.42 E18.44627
G1 X132.37 Y131.12 E18.49065
G1 X133.10 Y130.74 E18.53458
G1 X133.78 Y130.30 E18.57768
G1 X134.43 Y129.79 E18.62179
G1 X135.02 Y129.22 E18.66585
G1 X135.55 Y128.59 E18.70975
G1 X136.01 Y127.92 E18.75298
G1 X136.41 Y127.20 E18.79714
G1 X136.74 Y126.44 E18.84121
G1 X136.99 Y125.67 E18.88470
G1 X137.16 Y124.87 E18.92839
G1 X137.26 Y124.05 E18.97234
G1 X137.27 Y123.22 E19.01639
G1 X137.21 Y122.41 E19.06020
G1 X137.06 Y121.60 E19.10404
G1 X136.83 Y120.81 E19.14767
G1 X136.53 Y120.06 E19.19114
G1 X136.16 Y119.32 E19.23536
G1 X135.71 Y118.63 E19.27931
G1 X135.20 Y117.99 E19.32296
G1 X134.63 Y117.39 E19.36705
G1 X134.01 Y116.87 E19.41027
G1 X133.33 Y116.40 E19.45463
G1 X132.61 Y116.00 E19.49819
G1 X131.85 Y115.67 E19.54259
G1 X131.08 Y115.42 E19.58571
G1 X130.28 Y115.25 E19.62951
G1 X129.46 Y115.15 E19.67346
G1 X128.64 Y115.14 E19.71735
G1 X127.82 Y115.21 E19.76143
G1 X127.01 Y115.36 E19.80517
G1 X126.22 Y115.58 E19.84874
G1 X125.46 Y115.88 E19.89243
G1 X124.73 Y116.26 E19.93653
G1 X124.04 Y116.70 E19.98055
G1 X123.40 Y117.21 E20.02383
G1 X122.81 Y117.78 E20.06803
G0 F6000 X122.49 Y117.49
G1 F2700 X121.94 Y118.14 E20.11371
G1 X121.44 Y118.86 E20.16014
G1 X121.03 Y119.61 E20.20595
G1 X120.68 Y120.40 E20.25219
G1 X120.42 Y121.22 E20.29829
G1 X120.24 Y122.06 E20.34411
G1 X120.14 Y122.93 E20.39043
G1 X120.12 Y123.79 E20.43666
G1 X120.19 Y124.65 E20.48241
G1 X120.35 Y125.50 E20.52848
G1 X120.59 Y126.33 E20.57499
G1 X120.90 Y127.12 E20.62039
G1 X121.30 Y127.90 E20.66680
G1 X121.77 Y128.62 E20.71303
G1 X122.30 Y129.30 E20.75904
G1 X122.90 Y129.92 E20.80499
G1 X123.55 Y130.47 E20.85040
G1 X124.27 Y130.97 E20.89743
G1 X125.02 Y131.38 E20.94297
G1 X125.82 Y131.73 E20.98952
G1 X126.63 Y131.99 E21.03494
G1 X127.48 Y132.18 E21.08114
G1 X128.34 Y132.27 E21.12746
G1 X129.21 Y132.29 E21.17380
G1 X130.06 Y132.22 E21.21938
G1 X130.91 Y132.06 E21.26550
G1 X131.74 Y131.83 E21.31180
G1 X132.54 Y131.51 E21.35762
G1 X133.31 Y131.12 E21.40377
G1 X134.04 Y130.64 E21.45028
G1 X134.71 Y130.11 E21.49598
G1 X135.33 Y129.51 E21.54174
G1 X135.88 Y128.86 E21.58784
G1 X136.38 Y128.14 E21.63433
G1 X136.80 Y127.39 E21.68026
G1 X137.14 Y126.60 E21.72595
G1 X137.41 Y125.77 E21.77248
G1 X137.59 Y124.94 E21.81814
G1 X137.69 Y124.08 E21.86446
G1 X137.70 Y123.21 E21.91080
G1 X137.63 Y122.35 E21.95654
G1 X137.48 Y121.51 E22.00245
G1 X137.24 Y120.67 E22.04912
G1 X136.92 Y119.88 E22.09455
G1 X136.53 Y119.11 E22.14070
G1 X136.06 Y118.38 E22.18710
G1 X135.52 Y117.70 E22.23299
G1 X134.93 Y117.08 E22.27882
G1 X134.27 Y116.53 E22.32499
G1 X133.56 Y116.03 E22.37111
G1 X132.80 Y115.61 E22.41731
G1 X132.01 Y115.27 E22.46343
G1 X131.19 Y115.01 E22.50925
G1 X130.35 Y114.83 E22.55518
G1 X129.49 Y114.73 E22.60150
G1 X128.62 Y114.71 E22.64768
G1 X127.77 Y114.78 E22.69359
G1 X126.92 Y114.94 E22.73949
G1 X126.08 Y115.18 E22.78611
G1 X125.28 Y115.49 E22.83174
G1 X124.52 Y115.89 E22.87784
G1 X123.79 Y116.35 E22.92388
G1 X123.11 Y116.89 E22.97016
G1 X122.49 Y117.49 E23.01618
G0 F6000 X122.18 Y117.20
G1 F2700 X121.60 Y117.89 E23.06439
G1 X121.08 Y118.63 E23.11289
G1 X120.64 Y119.42 E23.16094
G1 X120.28 Y120.25 E23.20948
G1 X120.01 Y121.11 E23.25725
G1 X119.81 Y122.00 E23.30630
G1 X119.71 Y122.89 E23.35390
G1 X119.70 Y123.81 E23.40297
G1 X119.77 Y124.70 E23.45048
G1 X119.93 Y125.60 E23.49936
G1 X120.18 Y126.47 E23.54766
G1 X120.51 Y127.30 E23.59559
G1 X120.92 Y128.11 E23.64400
G1 X121.42 Y128.87 E23.69228
G1 X121.98 Y129.58 E23.74053
G1 X122.61 Y130.23 E23.78904
G1 X123.30 Y130.82 E23.83752
G1 X124.05 Y131.33 E23.88578
G1 X124.83 Y131.77 E23.93360
G1 X125.67 Y132.13 E23.98247
G1 X126.52 Y132.41 E24.03035
G1 X127.42 Y132.60 E24.07923
G1 X128.30 Y132.70 E24.12678
G1 X129.21 Y132.72 E24.17542
G1 X130.12 Y132.64 E24.22395
G1 X131.01 Y132.48 E24.27229
G1 X131.87 Y132.23 E24.32014
G1 X132.72 Y131.90 E24.36889
G1 X133.52 Y131.49 E24.41683
G1 X134.29 Y131.00 E24.46546
G1 X134.99 Y130.44 E24.51333
G1 X135.65 Y129.80 E24.56244
G1 X136.22 Y129.12 E24.60986
G1 X136.74 Y128.37 E24.65859
G1 X137.18 Y127.58 E24.70679
G1 X137.54 Y126.75 E24.75532
G1 X137.82 Y125.89 E24.80315
G1 X138.01 Y124.99 E24.85225
G1 X138.11 Y124.11 E24.89969
G1 X138.13 Y123.20 E24.94838
G1 X138.05 Y122.29 E24.99685
G1 X137.89 Y121.40 E25.04525
G1 X137.65 Y120.54 E25.09287
G1 X137.31 Y119.69 E25.14204
G1 X136.90 Y118.89 E25.18998
G1 X136.41 Y118.13 E25.23817
G1 X135.85 Y117.42 E25.28628
G1 X135.21 Y116.76 E25.33547
G1 X134.53 Y116.19 E25.38308
G1 X133.79 Y115.67 E25.43116
G1 X132.99 Y115.23 E25.48003
G1 X132.16 Y114.87 E25.52792
G1 X131.30 Y114.59 E25.57632
G1 X130.41 Y114.40 E25.62519
G1 X129.52 Y114.30 E25.67264
G1 X128.60 Y114.28 E25.72175
G1 X127.72 Y114.36 E25.76927
G1 X126.81 Y114.52 E25.81821
G1 X125.95 Y114.77 E25.86628
G1 X125.11 Y115.10 E25.91462
G1 X124.30 Y115.52 E25.96304
G1 X123.55 Y116.00 E26.01088
G1 X122.83 Y116.56 E26.05933
G1 X122.18 Y117.20 E26.10795
G0 F6000 X121.87 Y116.90
G1 F2700 X121.25 Y117.63 E26.15912
G1 X120.72 Y118.41 E26.20942
G1 X120.26 Y119.22 E26.25951
G1 X119.88 Y120.11 E26.31082
G1 X119.59 Y121.01 E26.36123
G1 X119.39 Y121.93 E26.41153
G1 X119.28 Y122.86 E26.46193
G1 X119.27 Y123.82 E26.51276
G1 X119.34 Y124.76 E26.56322
G1 X119.51 Y125.69 E26.61362
G1 X119.78 Y126.61 E26.66480
G1 X120.12 Y127.48 E26.71485
G1 X120.55 Y128.32 E26.76527
G1 X121.07 Y129.13 E26.81635
G1 X121.65 Y129.86 E26.86640
G1 X122.31 Y130.54 E26.91676
G1 X123.05 Y131.16 E26.96816
G1 X123.81 Y131.69 E27.01792
G1 X124.64 Y132.16 E27.06884
G1 X125.52 Y132.53 E27.11960
G1 X126.41 Y132.82 E27.16989
G1 X127.34 Y133.02 E27.22040
G1 X128.28 Y133.13 E27.27080
G1 X129.23 Y133.15 E27.32173
G1 X130.17 Y133.07 E27.37203
G1 X131.10 Y132.90 E27.42249
G1 X132.02 Y132.64 E27.47345
G1 X132.90 Y132.29 E27.52387
G1 X133.73 Y131.86 E27.57403
G1 X134.53 Y131.34 E27.62501
G1 X135.28 Y130.75 E27.67558
G1 X135.96 Y130.10 E27.72609
G1 X136.56 Y129.38 E27.77613
G1 X137.11 Y128.59 E27.82723
G1 X137.57 Y127.77 E27.87772
G1 X137.94 Y126.90 E27.92807
G1 X138.24 Y125.99 E27.97909
G1 X138.43 Y125.07 E28.02927
G1 X138.54 Y124.14 E28.07962
G1 X138.56 Y123.18 E28.13061
G1 X138.48 Y122.24 E28.18091
G1 X138.31 Y121.31 E28.23142
G1 X138.05 Y120.40 E28.28211
G1 X137.70 Y119.52 E28.33269
G1 X137.27 Y118.67 E28.38357
G1 X136.76 Y117.88 E28.43343
G1 X136.16 Y117.14 E28.48445
G1 X135.51 Y116.45 E28.53500
G1 X134.79 Y115.84 E28.58529
G1 X134.01 Y115.31 E28.63602
G1 X133.19 Y114.85 E28.68611
G1 X132.30 Y114.47 E28.73754
G1 X131.41 Y114.18 E28.78768
G1 X130.49 Y113.98 E28.83814
G1 X129.55 Y113.87 E28.88849
G1 X128.59 Y113.86 E28.93937
G1 X127.65 Y113.93 E28.98977
G1 X126.72 Y114.10 E29.04028
G1 X125.81 Y114.36 E29.09119
G1 X124.93 Y114.71 E29.14135
G1 X124.09 Y115.14 E29.19214
G1 X123.29 Y115.66 E29.24288
G1 X122.55 Y116.24 E29.29299
G1 X121.87 Y116.90 E29.34339
G0 F6000 X121.56 Y116.61
G1 F2700 X120.92 Y117.36 E29.39600
G1 X120.35 Y118.18 E29.44906
G1 X119.87 Y119.04 E29.50166
G1 X119.48 Y119.95 E29.55431
G1 X119.18 Y120.89 E29.60752
G1 X118.97 Y121.86 E29.66022
G1 X118.86 Y122.84 E29.71282
G1 X118.84 Y123.84 E29.76648
G1 X118.92 Y124.81 E29.81811
G1 X119.10 Y125.79 E29.87157
G1 X119.37 Y126.74 E29.92418
G1 X119.73 Y127.66 E29.97669
G1 X120.19 Y128.54 E30.02993
G1 X120.72 Y129.37 E30.08258
G1 X121.33 Y130.14 E30.13520
G1 X122.02 Y130.86 E30.18816
G1 X122.78 Y131.50 E30.24127
G1 X123.58 Y132.06 E30.29324
G1 X124.46 Y132.54 E30.34696
G1 X125.36 Y132.93 E30.39899
G1 X126.30 Y133.24 E30.45213
G1 X127.27 Y133.44 E30.50499
G1 X128.25 Y133.56 E30.55760
G1 X129.25 Y133.57 E30.61083
G1 X130.22 Y133.49 E30.66289
G1 X131.21 Y133.31 E30.71634
G1 X132.15 Y133.04 E30.76874
G1 X133.07 Y132.68 E30.82166
G1 X133.95 Y132.23 E30.87457
G1 X134.78 Y131.69 E30.92718
G1 X135.56 Y131.07 E30.98029
G1 X136.27 Y130.39 E31.03296
G1 X136.91 Y129.64 E31.08556
G1 X137.47 Y128.82 E31.13866
G1 X137.95 Y127.95 E31.19147
G1 X138.34 Y127.06 E31.24373
G1 X138.65 Y126.11 E31.29688
G1 X138.86 Y125.14 E31.34974
G1 X138.97 Y124.16 E31.40235
G1 X138.99 Y123.16 E31.45564
G1 X138.91 Y122.19 E31.50764
G1 X138.73 Y121.21 E31.56115
G1 X138.46 Y120.26 E31.61355
G1 X138.09 Y119.34 E31.66641
G1 X137.64 Y118.46 E31.71937
G1 X137.11 Y117.63 E31.77190
G1 X136.49 Y116.85 E31.82509
G1 X135.80 Y116.14 E31.87776
G1 X135.05 Y115.50 E31.93063
G1 X134.24 Y114.94 E31.98312
G1 X133.37 Y114.46 E32.03603
G1 X132.46 Y114.07 E32.08880
G1 X131.52 Y113.77 E32.14172
G1 X130.55 Y113.56 E32.19454
G1 X129.57 Y113.44 E32.24714
G1 X128.58 Y113.43 E32.30037
G1 X127.61 Y113.51 E32.35244
G1 X126.62 Y113.69 E32.40594
G1 X125.67 Y113.96 E32.45856
G1 X124.76 Y114.32 E32.51102
G1 X123.87 Y114.77 E32.56431
G1 X123.04 Y115.31 E32.61690
G1 X122.27 Y115.92 E32.66953
G1 X121.56 Y116.61 E32.72253
G0 F6000 X121.24 Y116.32
G1 F2700 X120.58 Y117.11 E32.77768
G1 X119.99 Y117.95 E32.83254
G1 X119.49 Y118.85 E32.88769
G1 X119.08 Y119.80 E32.94261
G1 X118.76 Y120.78 E32.99751
G1 X118.55 Y121.79 E33.05289
G1 X118.43 Y122.81 E33.10786
G1 X118.41 Y123.85 E33.16323
G1 X118.50 Y124.87 E33.21781
G1 X118.68 Y125.89 E33.27338
G1 X118.96 Y126.87 E33.32777
G1 X119.34 Y127.84 E33.38311
G1 X119.81 Y128.75 E33.43771
G1 X120.37 Y129.62 E33.49335
G1 X121.01 Y130.43 E33.54810
G1 X121.73 Y131.17 E33.60318
G1 X122.51 Y131.83 E33.65810
G1 X123.37 Y132.43 E33.71384
G1 X124.26 Y132.92 E33.76792
G1 X125.22 Y133.34 E33.82372
G1 X126.19 Y133.65 E33.87804
G1 X127.20 Y133.87 E33.93359
G1 X128.23 Y133.99 E33.98856
G1 X129.26 Y134.00 E34.04355
G1 X130.28 Y133.92 E34.09845
G1 X131.31 Y133.73 E34.15407
G1 X132.29 Y133.45 E34.20846
G1 X133.25 Y133.07 E34.26382
G1 X134.16 Y132.60 E34.31873
G1 X135.03 Y132.04 E34.37372
G1 X135.84 Y131.40 E34.42882
G1 X136.59 Y130.68 E34.48431
G1 X137.25 Y129.90 E34.53866
G1 X137.84 Y129.05 E34.59398
G1 X138.33 Y128.15 E34.64887
G1 X138.75 Y127.20 E34.70438
G1 X139.06 Y126.23 E34.75861
G1 X139.28 Y125.21 E34.81436
G1 X139.40 Y124.19 E34.86923
G1 X139.41 Y123.16 E34.92427
G1 X139.33 Y122.13 E34.97912
G1 X139.14 Y121.11 E35.03479
G1 X138.87 Y120.13 E35.08896
G1 X138.48 Y119.16 E35.14472
G1 X138.01 Y118.25 E35.19916
G1 X137.45 Y117.38 E35.25470
G1 X136.81 Y116.57 E35.30945
G1 X136.09 Y115.83 E35.36506
G1 X135.31 Y115.17 E35.41937
G1 X134.46 Y114.58 E35.47466
G1 X133.56 Y114.08 E35.52977
G1 X132.61 Y113.67 E35.58486
G1 X131.64 Y113.35 E35.63937
G1 X130.62 Y113.13 E35.69507
G1 X129.60 Y113.02 E35.74994
G1 X128.57 Y113.00 E35.80493
G1 X127.54 Y113.08 E35.85988
G1 X126.52 Y113.27 E35.91550
G1 X125.54 Y113.55 E35.96990
G1 X124.58 Y113.93 E36.02518
G1 X123.66 Y114.40 E36.08031
G1 X122.80 Y114.96 E36.13498
G1 X121.99 Y115.60 E36.19018
G1 X121.24 Y116.32 E36.24534
G0 F6000 X120.92 Y116.03
G1 F2700 X120.24 Y116.84 E36.30181
G1 X119.62 Y117.73 E36.35944
G1 X119.10 Y118.67 E36.41687
G1 X118.68 Y119.64 E36.47341
G1 X118.35 Y120.68 E36.53179
G1 X118.12 Y121.71 E36.58821
G1 X118.00 Y122.79 E36.64597
G1 X117.98 Y123.85 E36.70267
G1 X117.98 Y123.86 E36.70341
G1 X118.07 Y124.92 E36.75987
G1 X118.26 Y125.98 E36.81771
G1 X118.56 Y127.02 E36.87506
G1 X118.95 Y128.02 E36.93244
G1 X119.44 Y128.97 E36.98935
G1 X120.02 Y129.87 E37.04678
G1 X120.69 Y130.71 E37.10408
G1 X121.44 Y131.49 E37.16180
G1 X122.25 Y132.17 E37.21842
G1 X123.14 Y132.79 E37.27609
G1 X124.08 Y133.31 E37.33348
G1 X125.06 Y133.73 E37.39034
G1 X126.08 Y134.06 E37.44797
G1 X127.12 Y134.29 E37.50483
G1 X128.20 Y134.41 E37.56259
G1 X129.27 Y134.43 E37.61993
G1 X130.33 Y134.34 E37.67665
G1 X131.40 Y134.15 E37.73433
G1 X132.43 Y133.85 E37.79167
G1 X133.43 Y133.46 E37.84907
G1 X134.38 Y132.97 E37.90599
G1 X135.28 Y132.39 E37.96338
G1 X136.12 Y131.72 E38.02072
G1 X136.90 Y130.97 E38.07859
G1 X137.59 Y130.16 E38.13502
G1 X138.20 Y129.27 E38.19273
G1 X138.72 Y128.33 E38.25008
G1 X139.15 Y127.36 E38.30693
G1 X139.48 Y126.33 E38.36467
G1 X139.70 Y125.29 E38.42142
G1 X139.82 Y124.21 E38.47918
G1 X139.84 Y123.14 E38.53673
G1 X139.76 Y122.08 E38.59308
G1 X139.56 Y121.02 E38.65097
G1 X139.27 Y119.98 E38.70832
G1 X138.87 Y118.98 E38.76567
G1 X138.38 Y118.03 E38.82263
G1 X137.80 Y117.13 E38.87998
G1 X137.13 Y116.29 E38.93732
G1 X136.38 Y115.51 E38.99523
G1 X135.57 Y114.83 E39.05166
G1 X134.69 Y114.21 E39.10934
G1 X133.75 Y113.69 E39.16671
G1 X132.77 Y113.27 E39.22355
G1 X131.74 Y112.94 E39.28130
G1 X130.70 Y112.71 E39.33805
G1 X129.62 Y112.59 E39.39581
G1 X128.55 Y112.57 E39.45315
G1 X127.49 Y112.66 E39.50993
G1 X126.43 Y112.85 E39.56761
G1 X125.39 Y113.15 E39.62495
G1 X124.40 Y113.54 E39.68228
G1 X123.45 Y114.03 E39.73925
G1 X122.54 Y114.61 E39.79662
G1 X121.70 Y115.28 E39.85397
G1 X120.92 Y116.03 E39.91184
G0 F6000 X118.87 Y114.12
G1 F2700 X119.83 Y113.19 E39.98319
G1 X119.85 Y113.17 E39.98493
G1 X120.89 Y112.34 E40.05552
G1 X122.02 Y111.61 E40.12741
G1 X123.22 Y110.99 E40.19923
G1 X124.47 Y110.50 E40.27107
G1 X125.75 Y110.13 E40.34234
G1 X125.78 Y110.12 E40.34411
G1 X127.08 Y109.88 E40.41475
G1 X128.45 Y109.77 E40.48788
G1 X129.76 Y109.79 E40.55803
G1 X129.80 Y109.79 E40.55990
G1 X131.11 Y109.94 E40.63029
G1 X132.42 Y110.22 E40.70214
G1 X133.71 Y110.63 E40.77390
G1 X134.94 Y111.17 E40.84578
G1 X136.12 Y111.82 E40.91765
G1 X137.07 Y112.47 E40.97933
G1 X140.31 Y110.60 E41.17936
G1 X140.75 Y111.35 E41.22591
G1 X140.63 Y111.94 E41.25773
G1 X140.45 Y113.69 E41.35148
G1 X140.43 Y115.56 E41.45163
G1 X140.48 Y116.16 E41.48352
G1 X140.78 Y116.62 E41.51283
G1 X141.38 Y117.79 E41.58338
G1 X141.88 Y119.05 E41.65524
G1 X142.24 Y120.33 E41.72633
G1 X142.25 Y120.36 E41.72828
G1 X142.49 Y121.66 E41.79891
G1 X142.60 Y123.03 E41.87199
G1 X142.58 Y124.35 E41.94257
G1 X142.47 Y125.36 E41.99684
G1 X142.70 Y126.03 E42.03475
G1 X143.60 Y128.21 E42.16059
G1 X144.63 Y130.37 E42.28817
G1 X145.78 Y132.49 E42.41714
G1 X147.03 Y134.53 E42.54514
G1 X148.39 Y136.50 E42.67269
G1 X149.82 Y138.37 E42.79852
G1 X151.34 Y140.12 E42.92239
G1 X151.46 Y140.25 E42.93149
G1 X152.09 Y140.40 E42.96583
G1 X152.92 Y140.68 E43.01299
G1 X153.17 Y140.93 E43.03168
G1 X153.57 Y141.13 E43.05560
G1 X154.23 Y141.78 E43.10497
G1 X155.80 Y142.09 E43.19053
G1 X158.14 Y142.40 E43.31661
G1 X160.51 Y142.59 E43.44374
G1 X162.93 Y142.65 E43.57249
G1 X165.34 Y142.59 E43.70124
G1 X167.71 Y142.40 E43.82836
G1 X170.05 Y142.09 E43.95423
G1 X170.32 Y142.03 E43.96925
G1 X170.47 Y141.90 E43.97979
G1 X171.53 Y141.11 E44.05038
G1 X172.68 Y140.42 E44.12215
G1 X173.90 Y139.84 E44.19402
G1 X175.16 Y139.38 E44.26581
G1 X176.47 Y139.06 E44.33770
G1 X177.80 Y138.86 E44.40954
G1 X179.19 Y138.79 E44.48368
G1 X180.20 Y138.84 E44.53782
G1 X181.87 Y137.86 E44.64112
G1 X183.29 Y136.84 E44.73470
G1 X184.04 Y136.17 E44.78774
G1 X184.61 Y136.17 E44.81854
G1 X184.61 Y139.92 E45.01868
G1 X185.63 Y140.41 E45.07902
G1 X186.77 Y141.09 E45.14953
G1 X187.85 Y141.88 E45.22145
G1 X188.84 Y142.78 E45.29269
G1 X188.87 Y142.80 E45.29451
G1 X189.75 Y143.78 E45.36457
G1 X189.77 Y143.80 E45.36642
G1 X190.56 Y144.86 E45.43694
G1 X191.25 Y146.01 E45.50876
G1 X191.83 Y147.23 E45.58058
G1 X192.29 Y148.50 E45.65241
G1 X192.62 Y149.80 E45.72431
G1 X192.81 Y151.13 E45.79610
G1 X192.88 Y152.47 E45.86735
G1 X192.88 Y152.50 E45.86901
G1 X192.82 Y153.82 E45.93977
G1 X192.62 Y155.15 E46.01153
G1 X192.30 Y156.46 E46.08342
G1 X191.85 Y157.72 E46.15527
G1 X191.28 Y158.94 E46.22707
G1 X190.59 Y160.10 E46.29894
G1 X189.79 Y161.18 E46.37082
G1 X188.89 Y162.17 E46.44206
G1 X188.87 Y162.20 E46.44387
G1 X187.89 Y163.08 E46.51443
G1 X186.81 Y163.89 E46.58635
G1 X185.66 Y164.58 E46.65811
G1 X184.61 Y165.08 E46.71977
G1 X184.61 Y168.83 E46.91990
G1 X183.74 Y168.83 E46.96645
G1 X183.29 Y168.43 E46.99836
G1 X181.87 Y167.40 E47.09220
G1 X180.27 Y166.45 E47.19147
G1 X179.72 Y166.19 E47.22411
G1 X179.17 Y166.21 E47.25340
G1 X177.85 Y166.15 E47.32395
G1 X176.52 Y165.95 E47.39576
G1 X175.21 Y165.63 E47.46765
G1 X173.94 Y165.18 E47.53945
G1 X172.73 Y164.60 E47.61130
G1 X171.57 Y163.91 E47.68312
G1 X170.75 Y163.31 E47.73733
G1 X170.05 Y163.18 E47.77554
G1 X167.71 Y162.86 E47.90163
G1 X165.34 Y162.68 E48.02876
G1 X162.93 Y162.61 E48.15751
G1 X160.51 Y162.68 E48.28626
G1 X158.14 Y162.86 E48.41339
G1 X155.80 Y163.18 E48.53947
G1 X153.53 Y163.61 E48.66269
G1 X153.08 Y163.73 E48.68769
G1 X152.30 Y164.51 E48.74669
G1 X151.35 Y164.75 E48.79892
G1 X150.98 Y164.93 E48.82081
G1 X150.94 Y164.94 E48.82284
G1 X149.60 Y166.50 E48.93286
G1 X148.16 Y168.37 E49.05865
G1 X146.80 Y170.33 E49.18624
G1 X145.55 Y172.38 E49.31408
G1 X144.40 Y174.50 E49.44321
G1 X143.37 Y176.66 E49.57079
G1 X142.47 Y178.84 E49.69658
G1 X142.39 Y179.09 E49.71098
G1 X142.43 Y179.29 E49.72173
G1 X142.58 Y180.60 E49.79229
G1 X142.60 Y181.93 E49.86330
G1 X142.60 Y181.97 E49.86528
G1 X142.49 Y183.31 E49.93727
G1 X142.26 Y184.62 E50.00779
G1 X141.89 Y185.90 E50.07917
G1 X141.88 Y185.94 E50.08106
G1 X141.40 Y187.16 E50.15149
G1 X140.79 Y188.36 E50.22335
G1 X140.21 Y189.25 E50.28007
G1 X140.21 Y189.37 E50.28643
G1 X140.22 Y191.18 E50.38305
G1 X140.40 Y192.94 E50.47712
G1 X140.60 Y193.90 E50.52980
G1 X140.31 Y194.40 E50.56053
G1 X137.07 Y192.53 E50.76059
G1 X136.14 Y193.17 E50.82090
G1 X134.99 Y193.81 E50.89145
G1 X133.75 Y194.35 E50.96329
G1 X132.47 Y194.76 E51.03510
G1 X131.16 Y195.05 E51.10700
G1 X129.82 Y195.21 E51.17881
G1 X128.49 Y195.23 E51.24982
G1 X128.45 Y195.23 E51.25179
G1 X127.11 Y195.12 E51.32378
G1 X125.81 Y194.89 E51.39431
G1 X124.52 Y194.52 E51.46573
G1 X124.49 Y194.51 E51.46763
G1 X123.26 Y194.03 E51.53804
G1 X122.06 Y193.41 E51.60988
G1 X120.93 Y192.69 E51.68172
G1 X119.88 Y191.85 E51.75351
G1 X118.91 Y190.92 E51.82491
G1 X118.89 Y190.90 E51.82679
G1 X118.04 Y189.90 E51.89641
G1 X118.02 Y189.88 E51.89841
G1 X117.27 Y188.79 E51.96905
G1 X116.61 Y187.61 E52.04088
G1 X116.07 Y186.38 E52.11273
G1 X115.66 Y185.10 E52.18454
G1 X115.37 Y183.78 E52.25644
G1 X115.22 Y182.45 E52.32825
G1 X115.19 Y181.11 E52.39952
G1 X115.19 Y181.08 E52.40123
G1 X115.28 Y179.95 E52.46181
G1 X112.04 Y178.07 E52.66187
G1 X112.47 Y177.32 E52.70838
G1 X113.04 Y177.13 E52.74007
G1 X114.64 Y176.41 E52.83414
G1 X116.27 Y175.50 E52.93353
G1 X116.77 Y175.16 E52.96608
G1 X117.02 Y174.67 E52.99533
G1 X117.74 Y173.56 E53.06596
G1 X118.57 Y172.50 E53.13774
G1 X119.50 Y171.54 E53.20910
G1 X119.52 Y171.51 E53.21099
G1 X120.52 Y170.67 E53.28064
G1 X120.55 Y170.65 E53.28265
G1 X121.64 Y169.89 E53.35328
G1 X122.81 Y169.24 E53.42512
G1 X123.74 Y168.83 E53.47936
G1 X124.21 Y168.28 E53.51789
G1 X125.65 Y166.42 E53.64375
G1 X127.01 Y164.45 E53.77127
G1 X128.26 Y162.40 E53.89973
G1 X129.41 Y160.28 E54.02827
G1 X130.44 Y158.12 E54.15585
G1 X131.34 Y155.94 E54.28167
G1 X132.09 Y153.77 E54.40442
G1 X132.22 Y153.33 E54.42872
G1 X132.22 Y153.06 E54.44329
G1 X132.02 Y152.86 E54.45835
G1 X132.02 Y152.46 E54.47976
G1 X131.82 Y152.26 E54.49482
G1 X131.82 Y151.30 E54.54596
G1 X132.02 Y151.10 E54.56102
G1 X132.02 Y150.70 E54.58243
G1 X132.14 Y150.58 E54.59179
G1 X131.56 Y148.93 E54.68527
G1 X130.66 Y146.74 E54.81168
G1 X129.64 Y144.58 E54.93922
G1 X128.49 Y142.46 E55.06775
G1 X127.23 Y140.41 E55.19619
G1 X125.88 Y138.45 E55.32318
G1 X124.44 Y136.59 E55.44900
G1 X124.26 Y136.37 E55.46400
G1 X124.07 Y136.31 E55.47475
G1 X122.85 Y135.78 E55.54533
G1 X121.68 Y135.13 E55.61716
G1 X120.57 Y134.37 E55.68896
G1 X119.54 Y133.50 E55.76082
G1 X118.61 Y132.54 E55.83213
G1 X118.59 Y132.52 E55.83387
G1 X117.77 Y131.48 E55.90450
G1 X117.03 Y130.35 E55.97639
G1 X116.55 Y129.41 E56.03276
G1 X114.87 Y128.45 E56.13617
G1 X113.27 Y127.73 E56.22991
G1 X112.33 Y127.42 E56.28273
G1 X112.04 Y126.92 E56.31355
G1 X115.28 Y125.05 E56.51358
G1 X115.19 Y123.92 E56.57400
G1 X115.21 Y122.61 E56.64416
G1 X115.21 Y122.58 E56.64603
G1 X115.36 Y121.27 E56.71642
G1 X115.65 Y119.95 E56.78826
G1 X116.05 Y118.67 E56.86003
G1 X116.59 Y117.43 E56.93191
G1 X117.24 Y116.25 E57.00378
G1 X118.00 Y115.15 E57.07558
G1 X118.87 Y114.12 E57.14740
G0 F6000 X118.56 Y113.83
G1 F2700 X119.53 Y112.88 E57.21985
G1 X119.57 Y112.84 E57.22257
G1 X120.64 Y112.00 E57.29556
G1 X121.81 Y111.24 E57.36968
G1 X123.04 Y110.60 E57.44377
G1 X124.33 Y110.09 E57.51784
G1 X125.63 Y109.72 E57.59022
G1 X125.68 Y109.70 E57.59295
G1 X127.03 Y109.46 E57.66598
G1 X128.43 Y109.34 E57.74135
G1 X129.78 Y109.36 E57.81300
G1 X129.83 Y109.36 E57.81594
G1 X131.18 Y109.52 E57.88826
G1 X132.53 Y109.81 E57.96235
G1 X133.85 Y110.23 E58.03636
G1 X135.13 Y110.78 E58.11049
G1 X136.34 Y111.45 E58.18464
G1 X137.09 Y111.97 E58.23295
G1 X139.82 Y110.39 E58.40142
G1 X140.47 Y110.01 E58.44141
G1 X141.20 Y111.28 E58.51957
G1 X141.06 Y112.00 E58.55881
G1 X140.88 Y113.71 E58.65057
G1 X140.86 Y115.54 E58.74842
G1 X140.90 Y116.02 E58.77379
G1 X141.15 Y116.40 E58.79834
G1 X141.77 Y117.62 E58.87111
G1 X142.28 Y118.91 E58.94515
G1 X142.65 Y120.20 E59.01702
G1 X142.67 Y120.26 E59.02032
G1 X142.91 Y121.61 E59.09334
G1 X143.03 Y122.95 E59.16567
G1 X143.03 Y123.01 E59.16866
G1 X143.01 Y124.38 E59.24154
G1 X142.91 Y125.31 E59.29161
G1 X143.11 Y125.89 E59.32421
G1 X143.99 Y128.04 E59.44849
G1 X145.02 Y130.19 E59.57567
G1 X146.15 Y132.28 E59.70251
G1 X147.38 Y134.29 E59.82864
G1 X148.74 Y136.26 E59.95638
G1 X150.15 Y138.09 E60.07951
G1 X151.66 Y139.84 E60.20323
G1 X151.68 Y139.86 E60.20463
G1 X152.21 Y139.99 E60.23340
G1 X153.16 Y140.31 E60.28681
G1 X153.43 Y140.58 E60.30727
G1 X153.82 Y140.78 E60.33107
G1 X154.43 Y141.39 E60.37705
G1 X155.88 Y141.67 E60.45591
G1 X158.18 Y141.97 E60.57931
G1 X160.54 Y142.16 E60.70584
G1 X162.93 Y142.22 E60.83331
G1 X165.31 Y142.16 E60.96078
G1 X167.68 Y141.97 E61.08732
G1 X169.98 Y141.66 E61.21125
G1 X170.12 Y141.64 E61.21919
G1 X170.20 Y141.57 E61.22455
G1 X171.29 Y140.76 E61.29744
G1 X172.48 Y140.04 E61.37139
G1 X173.74 Y139.45 E61.44550
G1 X175.04 Y138.97 E61.51957
G1 X176.39 Y138.64 E61.59371
G1 X177.76 Y138.43 E61.66778
G1 X179.12 Y138.36 E61.74025
G1 X179.19 Y138.36 E61.74426
G1 X180.10 Y138.40 E61.79269
G1 X181.63 Y137.51 E61.88769
G1 X183.03 Y136.50 E61.97962
G1 X183.87 Y135.75 E62.03996
G1 X185.04 Y135.75 E62.10231
G1 X185.04 Y139.65 E62.31082
G1 X185.84 Y140.03 E62.35782
G1 X187.00 Y140.73 E62.43051
G1 X188.12 Y141.55 E62.50468
G1 X189.12 Y142.46 E62.57679
G1 X189.17 Y142.50 E62.57989
G1 X190.07 Y143.49 E62.65135
G1 X190.10 Y143.53 E62.65434
G1 X190.91 Y144.62 E62.72696
G1 X191.63 Y145.81 E62.80095
G1 X192.22 Y147.06 E62.87502
G1 X192.70 Y148.37 E62.94914
G1 X193.03 Y149.72 E63.02328
G1 X193.24 Y151.09 E63.09729
G1 X193.31 Y152.42 E63.16860
G1 X193.31 Y152.49 E63.17213
G1 X193.25 Y153.86 E63.24545
G1 X193.05 Y155.23 E63.31948
G1 X192.71 Y156.58 E63.39364
G1 X192.25 Y157.89 E63.46769
G1 X191.65 Y159.14 E63.54175
G1 X190.94 Y160.34 E63.61584
G1 X190.12 Y161.45 E63.69000
G1 X189.21 Y162.46 E63.76238
G1 X189.17 Y162.50 E63.76517
G1 X188.16 Y163.41 E63.83811
G1 X187.05 Y164.24 E63.91224
G1 X185.86 Y164.96 E63.98623
G1 X185.04 Y165.35 E64.03461
G1 X185.04 Y169.25 E64.24312
G1 X183.58 Y169.25 E64.32122
G1 X183.03 Y168.76 E64.36042
G1 X181.64 Y167.76 E64.45209
G1 X180.06 Y166.83 E64.54995
G1 X179.63 Y166.62 E64.57552
G1 X179.17 Y166.64 E64.60000
G1 X177.81 Y166.58 E64.67274
G1 X176.44 Y166.38 E64.74682
G1 X175.09 Y166.04 E64.82098
G1 X173.78 Y165.57 E64.89498
G1 X172.53 Y164.98 E64.96908
G1 X171.34 Y164.27 E65.04313
G1 X170.58 Y163.72 E65.09322
G1 X169.97 Y163.60 E65.12653
G1 X167.68 Y163.29 E65.24993
G1 X165.31 Y163.10 E65.37647
G1 X162.93 Y163.04 E65.50394
G1 X160.54 Y163.10 E65.63141
G1 X158.18 Y163.29 E65.75794
G1 X155.88 Y163.60 E65.88134
G1 X153.62 Y164.03 E66.00472
G1 X153.30 Y164.11 E66.02223
G1 X152.52 Y164.89 E66.08120
G1 X151.50 Y165.15 E66.13722
G1 X151.20 Y165.30 E66.15481
G1 X149.92 Y166.78 E66.25946
G1 X148.51 Y168.60 E66.38255
G1 X147.16 Y170.58 E66.51034
G1 X145.92 Y172.59 E66.63642
G1 X144.79 Y174.68 E66.76307
G1 X143.76 Y176.83 E66.89048
G1 X142.87 Y178.99 E67.01536
G1 X142.83 Y179.12 E67.02249
G1 X142.85 Y179.22 E67.02801
G1 X143.01 Y180.57 E67.10076
G1 X143.03 Y181.93 E67.17316
G1 X143.03 Y181.98 E67.17578
G1 X142.92 Y183.37 E67.25029
G1 X142.68 Y184.71 E67.32304
G1 X142.30 Y186.02 E67.39574
G1 X142.29 Y186.08 E67.39874
G1 X141.79 Y187.34 E67.47124
G1 X141.16 Y188.57 E67.54530
G1 X140.63 Y189.39 E67.59699
G1 X140.65 Y191.16 E67.69143
G1 X140.83 Y192.87 E67.78350
G1 X141.06 Y193.98 E67.84361
G1 X140.47 Y194.99 E67.90590
G1 X137.09 Y193.03 E68.11428
G1 X136.37 Y193.53 E68.16123
G1 X135.18 Y194.20 E68.23402
G1 X133.90 Y194.75 E68.30813
G1 X132.58 Y195.18 E68.38214
G1 X131.23 Y195.47 E68.45629
G1 X129.85 Y195.63 E68.53034
G1 X128.49 Y195.66 E68.60274
G1 X128.44 Y195.66 E68.60536
G1 X127.05 Y195.55 E68.67987
G1 X125.71 Y195.30 E68.75262
G1 X124.40 Y194.93 E68.82536
G1 X124.35 Y194.91 E68.82837
G1 X123.08 Y194.42 E68.90085
G1 X121.85 Y193.78 E68.97493
G1 X120.68 Y193.03 E69.04898
G1 X119.59 Y192.17 E69.12302
G1 X118.61 Y191.23 E69.19577
G1 X118.57 Y191.19 E69.19879
G1 X117.72 Y190.19 E69.26878
G1 X117.68 Y190.14 E69.27218
G1 X116.90 Y189.01 E69.34527
G1 X116.23 Y187.80 E69.41938
G1 X115.67 Y186.53 E69.49350
G1 X115.25 Y185.21 E69.56750
G1 X114.95 Y183.85 E69.64165
G1 X114.79 Y182.47 E69.71570
G1 X114.76 Y181.12 E69.78810
G1 X114.76 Y181.07 E69.79072
G1 X114.83 Y180.18 E69.83818
G1 X112.10 Y178.61 E70.00666
G1 X111.45 Y178.23 E70.04661
G1 X112.18 Y176.97 E70.12462
G1 X112.88 Y176.74 E70.16391
G1 X114.45 Y176.03 E70.25587
G1 X116.03 Y175.14 E70.35278
G1 X116.44 Y174.86 E70.37888
G1 X116.65 Y174.45 E70.40335
G1 X117.39 Y173.31 E70.47619
G1 X118.25 Y172.22 E70.55021
G1 X119.19 Y171.24 E70.62293
G1 X119.23 Y171.20 E70.62595
G1 X120.23 Y170.35 E70.69598
G1 X120.28 Y170.31 E70.69938
G1 X121.41 Y169.53 E70.77248
G1 X122.62 Y168.85 E70.84654
G1 X123.48 Y168.48 E70.89667
G1 X123.89 Y168.00 E70.93009
G1 X125.30 Y166.18 E71.05326
G1 X126.65 Y164.22 E71.18024
G1 X127.89 Y162.18 E71.30768
G1 X129.02 Y160.10 E71.43397
G1 X130.05 Y157.95 E71.56114
G1 X130.94 Y155.79 E71.68605
G1 X131.68 Y153.65 E71.80693
G1 X131.79 Y153.27 E71.82790
G1 X131.79 Y153.24 E71.82966
G1 X131.59 Y153.04 E71.84476
G1 X131.59 Y152.64 E71.86611
G1 X131.39 Y152.44 E71.88121
G1 X131.39 Y151.13 E71.95125
G1 X131.59 Y150.93 E71.96635
G1 X131.59 Y150.53 E71.98770
G1 X131.65 Y150.47 E71.99223
G1 X131.17 Y149.08 E72.07056
G1 X130.28 Y146.92 E72.19542
G1 X129.25 Y144.76 E72.32284
G1 X128.12 Y142.69 E72.44894
G1 X126.88 Y140.65 E72.57632
G1 X125.53 Y138.69 E72.70335
G1 X124.12 Y136.86 E72.82655
G1 X124.01 Y136.74 E72.83507
G1 X123.92 Y136.71 E72.84051
G1 X122.67 Y136.17 E72.91329
G1 X121.45 Y135.50 E72.98738
G1 X120.31 Y134.71 E73.06138
G1 X119.25 Y133.81 E73.13555
G1 X118.30 Y132.84 E73.20796
G1 X118.27 Y132.80 E73.21068
G1 X117.42 Y131.73 E73.28370
G1 X116.66 Y130.57 E73.35782
G1 X116.23 Y129.72 E73.40851
G1 X114.67 Y128.84 E73.50403
G1 X113.11 Y128.13 E73.59550
G1 X112.04 Y127.78 E73.65591
G1 X111.45 Y126.77 E73.71828
G1 X114.83 Y124.82 E73.92666
G1 X114.76 Y123.94 E73.97369
G1 X114.78 Y122.60 E74.04528
G1 X114.79 Y122.54 E74.04822
G1 X114.94 Y121.20 E74.12054
G1 X115.23 Y119.84 E74.19463
G1 X115.65 Y118.52 E74.26864
G1 X116.20 Y117.24 E74.34277
G1 X116.88 Y116.03 E74.41691
G1 X117.66 Y114.89 E74.49091
G1 X118.56 Y113.83 E74.56504
G0 F6000 X118.25 Y113.53
G1 F2700 X119.22 Y112.58 E74.63775
G1 X119.28 Y112.53 E74.64232
G1 X120.39 Y111.65 E74.71770
G1 X121.59 Y110.87 E74.79406
G1 X122.86 Y110.21 E74.87037
G1 X124.19 Y109.69 E74.94669
G1 X125.50 Y109.31 E75.01927
G1 X125.50 Y109.31 E75.01933
G1 X125.58 Y109.29 E75.02395
G1 X126.97 Y109.03 E75.09942
G1 X128.34 Y108.92 E75.17287
G1 X128.42 Y108.91 E75.17705
G1 X129.79 Y108.93 E75.25008
G1 X129.86 Y108.94 E75.25415
G1 X131.25 Y109.09 E75.32845
G1 X132.64 Y109.39 E75.40473
G1 X134.00 Y109.83 E75.48099
G1 X135.32 Y110.39 E75.55736
G1 X136.57 Y111.09 E75.63378
G1 X137.11 Y111.46 E75.66874
G1 X139.61 Y110.02 E75.82279
G1 X139.61 Y110.02 E75.82284
G1 X140.63 Y109.43 E75.88570
G1 X141.66 Y111.21 E75.99548
G1 X141.48 Y112.06 E76.04208
G1 X141.31 Y113.74 E76.13185
G1 X141.29 Y115.53 E76.22762
G1 X141.31 Y115.88 E76.24614
G1 X141.52 Y116.19 E76.26603
G1 X142.16 Y117.44 E76.34107
G1 X142.69 Y118.77 E76.41736
G1 X143.06 Y120.08 E76.48994
G1 X143.06 Y120.08 E76.49000
G1 X143.09 Y120.16 E76.49462
G1 X143.34 Y121.55 E76.57009
G1 X143.46 Y122.92 E76.64348
G1 X143.46 Y123.00 E76.64766
G1 X143.44 Y124.40 E76.72273
G1 X143.34 Y125.26 E76.76872
G1 X143.51 Y125.74 E76.79583
G1 X144.38 Y127.86 E76.91822
G1 X145.39 Y129.98 E77.04384
G1 X146.52 Y132.06 E77.17013
G1 X147.75 Y134.07 E77.29576
G1 X149.09 Y136.01 E77.42146
G1 X150.49 Y137.83 E77.54410
G1 X151.91 Y139.48 E77.66056
G1 X152.32 Y139.58 E77.68311
G1 X153.39 Y139.94 E77.74282
G1 X153.68 Y140.23 E77.76498
G1 X154.08 Y140.43 E77.78880
G1 X154.64 Y140.99 E77.83146
G1 X155.94 Y141.24 E77.90162
G1 X158.23 Y141.55 E78.02523
G1 X160.57 Y141.73 E78.15032
G1 X162.93 Y141.79 E78.27635
G1 X165.29 Y141.73 E78.40238
G1 X167.62 Y141.55 E78.52747
G1 X169.92 Y141.24 E78.65134
G1 X169.92 Y141.24 E78.65139
G1 X169.93 Y141.24 E78.65155
G1 X171.06 Y140.40 E78.72665
G1 X172.28 Y139.66 E78.80284
G1 X173.57 Y139.05 E78.87920
G1 X174.91 Y138.56 E78.95553
G1 X176.30 Y138.22 E79.03193
G1 X177.72 Y138.00 E79.10826
G1 X179.09 Y137.93 E79.18186
G1 X179.19 Y137.93 E79.18704
G1 X179.99 Y137.97 E79.22975
G1 X181.41 Y137.14 E79.31726
G1 X182.76 Y136.16 E79.40646
G1 X183.71 Y135.32 E79.47437
G1 X185.47 Y135.32 E79.56827
G1 X185.47 Y139.38 E79.78511
G1 X186.04 Y139.65 E79.81877
G1 X187.24 Y140.37 E79.89372
G1 X188.39 Y141.22 E79.97010
G1 X189.41 Y142.14 E80.04312
G1 X189.47 Y142.19 E80.04747
G1 X190.39 Y143.20 E80.12026
G1 X190.44 Y143.26 E80.12438
G1 X191.27 Y144.38 E80.19910
G1 X192.01 Y145.61 E80.27534
G1 X192.62 Y146.90 E80.35165
G1 X193.11 Y148.25 E80.42803
G1 X193.46 Y149.63 E80.50438
G1 X193.67 Y151.05 E80.58065
G1 X193.74 Y152.42 E80.65420
G1 X193.74 Y152.48 E80.65736
G1 X193.67 Y153.90 E80.73336
G1 X193.47 Y155.32 E80.80960
G1 X193.12 Y156.70 E80.88594
G1 X192.64 Y158.05 E80.96228
G1 X192.03 Y159.34 E81.03855
G1 X191.30 Y160.57 E81.11494
G1 X190.45 Y161.72 E81.19136
G1 X189.53 Y162.75 E81.26483
G1 X189.48 Y162.80 E81.26869
G1 X188.43 Y163.75 E81.34397
G1 X187.28 Y164.60 E81.42035
G1 X186.06 Y165.34 E81.49655
G1 X185.47 Y165.62 E81.53160
G1 X185.47 Y169.68 E81.74855
G1 X183.41 Y169.68 E81.85820
G1 X182.76 Y169.10 E81.90497
G1 X181.40 Y168.12 E81.99463
G1 X179.87 Y167.21 E82.08974
G1 X179.54 Y167.05 E82.10900
G1 X179.17 Y167.07 E82.12873
G1 X177.77 Y167.00 E82.20376
G1 X176.35 Y166.79 E82.28005
G1 X174.97 Y166.45 E82.35640
G1 X173.62 Y165.97 E82.43269
G1 X172.32 Y165.36 E82.50901
G1 X171.10 Y164.63 E82.58531
G1 X170.40 Y164.12 E82.63138
G1 X169.90 Y164.02 E82.65860
G1 X167.64 Y163.72 E82.78049
G1 X165.29 Y163.53 E82.90655
G1 X162.93 Y163.47 E83.03257
G1 X160.57 Y163.53 E83.15860
G1 X158.21 Y163.72 E83.28466
G1 X155.95 Y164.02 E83.40655
G1 X153.72 Y164.45 E83.52786
G1 X153.52 Y164.50 E83.53893
G1 X152.74 Y165.28 E83.59789
G1 X151.65 Y165.55 E83.65777
G1 X151.47 Y165.64 E83.66837
G1 X150.26 Y167.04 E83.76700
G1 X148.86 Y168.86 E83.88967
G1 X147.52 Y170.80 E84.01542
G1 X146.29 Y172.81 E84.14150
G1 X145.17 Y174.88 E84.26686
G1 X144.15 Y177.01 E84.39296
G1 X143.28 Y179.12 E84.51480
G1 X143.27 Y179.15 E84.51644
G1 X143.27 Y179.15 E84.51660
G1 X143.44 Y180.55 E84.59157
G1 X143.46 Y181.92 E84.66477
G1 X143.46 Y181.99 E84.66856
G1 X143.34 Y183.43 E84.74559
G1 X143.09 Y184.81 E84.82056
G1 X142.72 Y186.14 E84.89459
G1 X142.69 Y186.22 E84.89873
G1 X142.18 Y187.51 E84.97323
G1 X141.53 Y188.79 E85.04953
G1 X141.06 Y189.51 E85.09547
G1 X141.08 Y191.14 E85.18259
G1 X141.25 Y192.80 E85.27139
G1 X141.51 Y194.05 E85.33956
G1 X140.63 Y195.57 E85.43337
G1 X137.11 Y193.54 E85.65008
G1 X136.59 Y193.90 E85.68372
G1 X135.37 Y194.58 E85.75871
G1 X134.05 Y195.15 E85.83504
G1 X132.69 Y195.59 E85.91133
G1 X131.30 Y195.90 E85.98773
G1 X129.88 Y196.06 E86.06399
G1 X128.50 Y196.09 E86.13724
G1 X128.43 Y196.09 E86.14103
G1 X127.00 Y195.97 E86.21806
G1 X125.61 Y195.72 E86.29303
G1 X124.28 Y195.34 E86.36711
G1 X124.20 Y195.32 E86.37125
G1 X122.91 Y194.81 E86.44574
G1 X121.64 Y194.16 E86.52201
G1 X120.43 Y193.38 E86.59835
G1 X119.31 Y192.50 E86.67462
G1 X118.31 Y191.53 E86.74873
G1 X118.26 Y191.48 E86.75289
G1 X117.40 Y190.47 E86.82329
G1 X117.34 Y190.41 E86.82806
G1 X116.54 Y189.24 E86.90364
G1 X115.84 Y187.99 E86.97995
G1 X115.27 Y186.68 E87.05633
G1 X114.83 Y185.32 E87.13262
G1 X114.53 Y183.92 E87.20902
G1 X114.36 Y182.50 E87.28528
G1 X114.34 Y181.13 E87.35885
G1 X114.33 Y181.06 E87.36232
G1 X114.39 Y180.42 E87.39671
G1 X111.89 Y178.98 E87.55073
G1 X110.87 Y178.39 E87.61352
G1 X111.89 Y176.61 E87.72303
G1 X112.72 Y176.34 E87.76967
G1 X114.25 Y175.65 E87.85916
G1 X115.82 Y174.77 E87.95508
G1 X116.11 Y174.57 E87.97377
G1 X116.28 Y174.24 E87.99356
G1 X117.04 Y173.06 E88.06863
G1 X117.93 Y171.94 E88.14487
G1 X118.89 Y170.94 E88.21890
G1 X118.94 Y170.88 E88.22309
G1 X119.97 Y170.01 E88.29490
G1 X120.02 Y169.97 E88.29831
G1 X121.18 Y169.17 E88.37389
G1 X122.43 Y168.47 E88.45019
G1 X123.22 Y168.12 E88.49633
G1 X123.54 Y167.75 E88.52259
G1 X124.97 Y165.91 E88.64683
G1 X126.29 Y163.98 E88.77150
G1 X127.52 Y161.98 E88.89716
G1 X128.65 Y159.90 E89.02345
G1 X129.65 Y157.79 E89.14814
G1 X130.53 Y155.64 E89.27212
G1 X131.28 Y153.51 E89.39278
G1 X131.31 Y153.37 E89.40032
G1 X131.16 Y153.22 E89.41202
G1 X131.16 Y152.81 E89.43337
G1 X130.96 Y152.62 E89.44847
G1 X130.96 Y150.95 E89.53740
G1 X131.16 Y150.75 E89.55250
G1 X131.16 Y150.37 E89.57279
G1 X130.76 Y149.23 E89.63733
G1 X129.88 Y147.08 E89.76126
G1 X128.87 Y144.96 E89.88690
G1 X127.75 Y142.90 E90.01178
G1 X126.52 Y140.89 E90.13766
G1 X125.19 Y138.95 E90.26327
G1 X123.77 Y137.12 E90.38688
G1 X123.77 Y137.11 E90.38711
G1 X123.77 Y137.11 E90.38728
G1 X122.48 Y136.55 E90.46228
G1 X121.23 Y135.86 E90.53855
G1 X120.05 Y135.05 E90.61484
G1 X118.96 Y134.13 E90.69125
G1 X118.01 Y133.15 E90.76392
G1 X117.95 Y133.09 E90.76849
G1 X117.07 Y131.98 E90.84391
G1 X116.29 Y130.78 E90.92027
G1 X115.90 Y130.03 E90.96544
G1 X114.48 Y129.22 E91.05283
G1 X112.96 Y128.53 E91.14207
G1 X111.75 Y128.13 E91.21013
G1 X110.87 Y126.61 E91.30399
G1 X114.39 Y124.58 E91.52065
G1 X114.33 Y123.95 E91.55434
G1 X114.36 Y122.58 E91.62732
G1 X114.36 Y122.51 E91.63139
G1 X114.52 Y121.13 E91.70569
G1 X114.82 Y119.73 E91.78197
G1 X115.25 Y118.37 E91.85823
G1 X115.82 Y117.05 E91.93460
G1 X116.51 Y115.80 E92.01095
G1 X117.32 Y114.63 E92.08728
G1 X118.25 Y113.53 E92.16361
G0 F6000 X117.93 Y113.24
G1 F2700 X118.94 Y112.27 E92.23832
G1 X119.00 Y112.20 E92.24296
G1 X120.14 Y111.30 E92.32078
G1 X121.38 Y110.50 E92.39934
G1 X122.68 Y109.82 E92.47794
G1 X124.05 Y109.28 E92.55649
G1 X125.39 Y108.89 E92.63110
G1 X125.48 Y108.87 E92.63578
G1 X126.92 Y108.61 E92.71369
G1 X128.31 Y108.49 E92.78822
G1 X128.41 Y108.48 E92.79357
G1 X129.80 Y108.51 E92.86800
G1 X129.90 Y108.51 E92.87323
G1 X131.32 Y108.67 E92.94942
G1 X132.75 Y108.98 E93.02799
G1 X134.16 Y109.43 E93.10643
G1 X135.51 Y110.01 E93.18509
G1 X136.80 Y110.72 E93.26368
G1 X137.13 Y110.95 E93.28541
G1 X139.40 Y109.65 E93.42496
G1 X140.78 Y108.84 E93.51071
G1 X142.11 Y111.14 E93.65208
G1 X141.90 Y112.13 E93.70648
G1 X141.74 Y113.75 E93.79335
G1 X141.72 Y115.52 E93.88752
G1 X141.73 Y115.74 E93.89935
G1 X141.89 Y115.97 E93.91448
G1 X142.55 Y117.26 E93.99176
G1 X143.09 Y118.63 E94.07021
G1 X143.48 Y119.97 E94.14487
G1 X143.50 Y120.06 E94.14955
G1 X143.76 Y121.49 E94.22746
G1 X143.88 Y122.88 E94.30193
G1 X143.89 Y122.98 E94.30729
G1 X143.87 Y124.43 E94.38460
G1 X143.78 Y125.21 E94.42656
G1 X143.91 Y125.58 E94.44734
G1 X144.77 Y127.68 E94.56863
G1 X145.78 Y129.80 E94.69404
G1 X146.89 Y131.85 E94.81844
G1 X148.10 Y133.82 E94.94201
G1 X149.43 Y135.76 E95.06737
G1 X150.82 Y137.56 E95.18868
G1 X152.15 Y139.10 E95.29729
G1 X152.44 Y139.17 E95.31346
G1 X153.62 Y139.56 E95.37942
G1 X153.93 Y139.88 E95.40312
G1 X154.33 Y140.08 E95.42707
G1 X154.85 Y140.60 E95.46648
G1 X156.00 Y140.82 E95.52871
G1 X158.28 Y141.12 E95.65178
G1 X160.59 Y141.31 E95.77537
G1 X162.93 Y141.37 E95.90001
G1 X165.26 Y141.31 E96.02465
G1 X167.57 Y141.12 E96.14824
G1 X169.75 Y140.83 E96.26603
G1 X170.82 Y140.04 E96.33656
G1 X172.08 Y139.29 E96.41498
G1 X173.41 Y138.66 E96.49354
G1 X174.79 Y138.16 E96.57213
G1 X176.22 Y137.79 E96.65076
G1 X177.67 Y137.58 E96.72934
G1 X179.07 Y137.51 E96.80412
G1 X179.19 Y137.50 E96.81043
G1 X179.88 Y137.54 E96.84747
G1 X181.18 Y136.78 E96.92728
G1 X182.49 Y135.83 E97.01396
G1 X183.55 Y134.89 E97.08943
G1 X185.90 Y134.89 E97.21493
G1 X185.90 Y139.11 E97.44015
G1 X186.24 Y139.27 E97.46047
G1 X187.48 Y140.01 E97.53764
G1 X188.67 Y140.89 E97.61627
G1 X189.69 Y141.82 E97.69020
G1 X189.77 Y141.89 E97.69579
G1 X190.70 Y142.92 E97.76990
G1 X190.77 Y142.99 E97.77516
G1 X191.63 Y144.15 E97.85205
G1 X192.38 Y145.41 E97.93049
G1 X193.02 Y146.74 E98.00900
G1 X193.51 Y148.12 E98.08764
G1 X193.88 Y149.55 E98.16627
G1 X194.09 Y151.00 E98.24480
G1 X194.16 Y152.37 E98.31781
G1 X194.17 Y152.47 E98.32338
G1 X194.10 Y153.94 E98.40195
G1 X193.89 Y155.40 E98.48045
G1 X193.53 Y156.83 E98.55906
G1 X193.04 Y158.21 E98.63759
G1 X192.41 Y159.54 E98.71613
G1 X191.66 Y160.81 E98.79474
G1 X190.78 Y162.00 E98.87341
G1 X189.84 Y163.03 E98.94805
G1 X189.78 Y163.10 E98.95293
G1 X188.71 Y164.08 E99.03051
G1 X187.52 Y164.96 E99.10915
G1 X186.26 Y165.71 E99.18761
G1 X185.90 Y165.89 E99.20932
G1 X185.90 Y170.11 E99.43470
G1 X183.25 Y170.11 E99.57590
G1 X182.49 Y169.43 E99.63061
G1 X181.17 Y168.48 E99.71710
G1 X179.65 Y167.58 E99.81139
G1 X179.45 Y167.49 E99.82319
G1 X179.17 Y167.50 E99.83826
G1 X177.72 Y167.43 E99.91554
G1 X176.27 Y167.22 E99.99405
G1 X174.84 Y166.86 E100.07265
G1 X173.46 Y166.37 E100.15113
G1 X172.12 Y165.74 E100.22977
G1 X170.86 Y164.99 E100.30829
G1 X170.23 Y164.52 E100.35036
G1 X169.86 Y164.45 E100.37047
G1 X167.57 Y164.14 E100.49370
G1 X165.26 Y163.96 E100.61730
G1 X162.93 Y163.90 E100.74194
G1 X160.59 Y163.96 E100.86657
G1 X158.28 Y164.14 E100.99017
G1 X156.00 Y164.45 E101.11340
G1 X153.82 Y164.86 E101.23178
G1 X153.74 Y164.88 E101.23635
G1 X152.95 Y165.67 E101.29531
G1 X151.80 Y165.96 E101.35893
G1 X151.74 Y165.99 E101.36256
G1 X150.59 Y167.31 E101.45582
G1 X149.20 Y169.12 E101.57784
G1 X147.88 Y171.03 E101.70163
G1 X146.67 Y173.01 E101.82590
G1 X145.54 Y175.08 E101.95157
G1 X144.54 Y177.19 E102.07609
G1 X143.71 Y179.21 E102.19259
G1 X143.86 Y180.52 E102.26309
G1 X143.89 Y181.90 E102.33661
G1 X143.89 Y182.00 E102.34211
G1 X143.78 Y183.39 E102.41652
G1 X143.77 Y183.48 E102.42166
G1 X143.51 Y184.91 E102.49886
G1 X143.12 Y186.26 E102.57423
G1 X143.10 Y186.36 E102.57948
G1 X142.57 Y187.69 E102.65598
G1 X141.90 Y189.00 E102.73452
G1 X141.49 Y189.64 E102.77479
G1 X141.51 Y191.12 E102.85385
G1 X141.67 Y192.74 E102.94078
G1 X141.96 Y194.12 E103.01631
G1 X140.78 Y196.15 E103.14172
G1 X137.13 Y194.05 E103.36682
G1 X136.82 Y194.26 E103.38708
G1 X135.55 Y194.97 E103.46436
G1 X134.21 Y195.55 E103.54285
G1 X132.81 Y196.00 E103.62138
G1 X131.37 Y196.32 E103.70001
G1 X129.91 Y196.49 E103.77858
G1 X128.53 Y196.51 E103.85210
G1 X128.43 Y196.52 E103.85760
G1 X127.04 Y196.40 E103.93200
G1 X126.94 Y196.40 E103.93715
G1 X125.52 Y196.14 E104.01435
G1 X124.16 Y195.75 E104.08976
G1 X124.06 Y195.72 E104.09500
G1 X122.73 Y195.20 E104.17155
G1 X121.42 Y194.53 E104.25007
G1 X120.18 Y193.73 E104.32861
G1 X119.03 Y192.82 E104.40717
G1 X118.01 Y191.84 E104.48256
G1 X117.94 Y191.77 E104.48784
G1 X117.06 Y190.73 E104.56056
G1 X117.01 Y190.67 E104.56484
G1 X116.17 Y189.47 E104.64295
G1 X115.46 Y188.18 E104.72145
G1 X114.87 Y186.83 E104.80006
G1 X114.42 Y185.43 E104.87859
G1 X114.10 Y183.99 E104.95722
G1 X113.93 Y182.53 E105.03579
G1 X113.91 Y181.17 E105.10856
G1 X113.90 Y181.05 E105.11476
G1 X113.94 Y180.65 E105.13613
G1 X111.67 Y179.35 E105.27568
G1 X110.29 Y178.54 E105.36129
G1 X111.61 Y176.25 E105.50230
G1 X112.58 Y175.93 E105.55700
G1 X114.06 Y175.27 E105.64337
G1 X115.60 Y174.40 E105.73789
G1 X115.78 Y174.28 E105.74957
G1 X115.91 Y174.03 E105.76463
G1 X116.69 Y172.81 E105.84196
G1 X117.60 Y171.66 E105.92043
G1 X118.58 Y170.64 E105.99575
G1 X118.65 Y170.57 E106.00111
G1 X119.67 Y169.71 E106.07220
G1 X119.75 Y169.63 E106.07810
G1 X120.96 Y168.80 E106.15621
G1 X122.24 Y168.09 E106.23467
G1 X122.96 Y167.77 E106.27677
G1 X123.22 Y167.47 E106.29755
G1 X124.61 Y165.66 E106.41965
G1 X125.93 Y163.75 E106.54336
G1 X127.15 Y161.75 E106.66859
G1 X128.26 Y159.71 E106.79280
G1 X129.27 Y157.59 E106.91783
G1 X130.13 Y155.50 E107.03881
G1 X130.83 Y153.49 E107.15236
G1 X130.73 Y153.39 E107.15976
G1 X130.73 Y152.99 E107.18111
G1 X130.53 Y152.79 E107.19621
G1 X130.53 Y150.77 E107.30404
G1 X130.73 Y150.57 E107.31914
G1 X130.73 Y150.44 E107.32608
G1 X130.36 Y149.37 E107.38672
G1 X129.50 Y147.27 E107.50764
G1 X128.50 Y145.17 E107.63216
G1 X127.37 Y143.10 E107.75783
G1 X126.16 Y141.11 E107.88212
G1 X124.84 Y139.20 E108.00588
G1 X123.50 Y137.46 E108.12322
G1 X122.29 Y136.94 E108.19368
G1 X121.00 Y136.23 E108.27222
G1 X119.79 Y135.39 E108.35074
G1 X118.66 Y134.44 E108.42938
G1 X117.69 Y133.44 E108.50409
G1 X117.63 Y133.38 E108.50870
G1 X116.72 Y132.23 E108.58655
G1 X115.92 Y131.00 E108.66514
G1 X115.58 Y130.34 E108.70456
G1 X114.29 Y129.60 E108.78411
G1 X112.80 Y128.93 E108.87125
G1 X111.46 Y128.49 E108.94674
G1 X110.29 Y126.45 E109.07212
G1 X113.94 Y124.35 E109.29710
G1 X113.91 Y123.97 E109.31745
G1 X113.93 Y122.57 E109.39182
G1 X113.93 Y122.47 E109.39706
G1 X114.09 Y121.06 E109.47325
G1 X114.40 Y119.62 E109.55181
G1 X114.85 Y118.22 E109.63025
G1 X115.43 Y116.86 E109.70892
G1 X116.15 Y115.58 E109.78751
G1 X116.98 Y114.37 E109.86606
G1 X117.93 Y113.24 E109.94462
G0 F6000 X117.62 Y112.95
G1 F2700 X118.62 Y111.98 E110.01892
G1 X118.71 Y111.89 E110.02609
G1 X119.89 Y110.95 E110.10638
G1 X121.16 Y110.13 E110.18710
G1 X122.51 Y109.43 E110.26792
G1 X123.91 Y108.88 E110.34877
G1 X125.25 Y108.49 E110.42288
G1 X125.38 Y108.45 E110.43012
G1 X126.86 Y108.19 E110.51041
G1 X128.27 Y108.06 E110.58611
G1 X128.39 Y108.06 E110.59254
G1 X129.81 Y108.08 E110.66846
G1 X129.93 Y108.08 E110.67477
G1 X131.38 Y108.25 E110.75289
G1 X132.87 Y108.57 E110.83370
G1 X134.31 Y109.03 E110.91443
G1 X135.70 Y109.63 E110.99530
G1 X137.02 Y110.36 E111.07616
G1 X137.15 Y110.45 E111.08453
G1 X139.18 Y109.28 E111.20942
G1 X140.94 Y108.26 E111.31823
G1 X142.56 Y111.06 E111.49116
G1 X142.32 Y112.20 E111.55297
G1 X142.16 Y113.78 E111.63781
G1 X142.15 Y115.50 E111.72995
G1 X142.15 Y115.60 E111.73504
G1 X142.26 Y115.76 E111.74539
G1 X142.94 Y117.09 E111.82489
G1 X143.50 Y118.49 E111.90559
G1 X143.88 Y119.83 E111.97975
G1 X143.92 Y119.96 E111.98699
G1 X144.19 Y121.44 E112.06728
G1 X144.31 Y122.85 E112.14293
G1 X144.32 Y122.97 E112.14936
G1 X144.29 Y124.46 E112.22896
G1 X144.21 Y125.16 E112.26679
G1 X144.31 Y125.43 E112.28205
G1 X145.17 Y127.52 E112.40241
G1 X146.15 Y129.59 E112.52492
G1 X147.26 Y131.64 E112.64933
G1 X148.47 Y133.61 E112.77263
G1 X149.77 Y135.50 E112.89503
G1 X151.15 Y137.28 E113.01558
G1 X152.38 Y138.71 E113.11636
G1 X152.56 Y138.76 E113.12626
G1 X153.85 Y139.19 E113.19853
G1 X154.19 Y139.52 E113.22397
G1 X154.59 Y139.72 E113.24785
G1 X155.06 Y140.20 E113.28393
G1 X156.09 Y140.40 E113.33948
G1 X158.32 Y140.70 E113.45969
G1 X160.62 Y140.88 E113.58281
G1 X162.93 Y140.94 E113.70611
G1 X165.24 Y140.88 E113.82941
G1 X167.53 Y140.70 E113.95253
G1 X169.59 Y140.42 E114.06321
G1 X170.58 Y139.69 E114.12896
G1 X171.87 Y138.91 E114.20959
G1 X173.24 Y138.26 E114.29040
G1 X174.66 Y137.75 E114.37125
G1 X176.13 Y137.38 E114.45213
G1 X177.63 Y137.15 E114.53293
G1 X179.05 Y137.08 E114.60894
G1 X179.19 Y137.07 E114.61636
G1 X179.78 Y137.10 E114.64774
G1 X180.94 Y136.43 E114.71920
G1 X182.23 Y135.50 E114.80424
G1 X183.38 Y134.46 E114.88700
G1 X186.32 Y134.46 E115.04405
G1 X186.32 Y138.84 E115.27765
G1 X186.44 Y138.89 E115.28462
G1 X187.72 Y139.66 E115.36400
G1 X188.94 Y140.56 E115.44485
G1 X189.98 Y141.50 E115.51976
G1 X190.07 Y141.58 E115.52657
G1 X191.02 Y142.63 E115.60204
G1 X191.10 Y142.72 E115.60839
G1 X191.98 Y143.91 E115.68742
G1 X192.76 Y145.20 E115.76807
G1 X193.41 Y146.57 E115.84882
G1 X193.93 Y148.00 E115.92972
G1 X194.30 Y149.47 E116.01060
G1 X194.52 Y150.96 E116.09135
G1 X194.59 Y152.37 E116.16651
G1 X194.60 Y152.47 E116.17187
G1 X194.53 Y153.99 E116.25305
G1 X194.31 Y155.48 E116.33376
G1 X193.94 Y156.95 E116.41463
G1 X193.43 Y158.38 E116.49542
G1 X192.79 Y159.75 E116.57621
G1 X192.01 Y161.05 E116.65703
G1 X191.11 Y162.27 E116.73795
G1 X190.16 Y163.32 E116.81369
G1 X190.09 Y163.40 E116.81963
G1 X188.98 Y164.41 E116.89956
G1 X187.76 Y165.31 E116.98044
G1 X186.47 Y166.09 E117.06112
G1 X186.32 Y166.16 E117.06952
G1 X186.32 Y170.54 E117.30328
G1 X183.09 Y170.54 E117.47608
G1 X182.22 Y169.76 E117.53805
G1 X180.93 Y168.84 E117.62287
G1 X179.45 Y167.96 E117.71465
G1 X179.37 Y167.92 E117.71988
G1 X179.17 Y167.93 E117.73025
G1 X177.68 Y167.85 E117.80972
G1 X176.19 Y167.64 E117.89049
G1 X174.72 Y167.27 E117.97135
G1 X173.29 Y166.76 E118.05210
G1 X171.92 Y166.12 E118.13293
G1 X170.62 Y165.34 E118.21370
G1 X170.05 Y164.92 E118.25158
G1 X169.77 Y164.87 E118.26680
G1 X167.53 Y164.57 E118.38750
G1 X165.24 Y164.38 E118.51045
G1 X162.93 Y164.32 E118.63375
G1 X160.62 Y164.38 E118.75706
G1 X158.32 Y164.57 E118.88001
G1 X156.08 Y164.87 E119.00071
G1 X153.95 Y165.27 E119.11637
G1 X153.17 Y166.05 E119.17518
G1 X151.99 Y166.35 E119.24034
G1 X150.92 Y167.58 E119.32742
G1 X149.55 Y169.36 E119.44713
G1 X148.24 Y171.28 E119.57123
G1 X147.04 Y173.23 E119.69339
G1 X145.93 Y175.28 E119.81808
G1 X144.94 Y177.35 E119.94060
G1 X144.15 Y179.27 E120.05121
G1 X144.29 Y180.49 E120.11693
G1 X144.32 Y181.91 E120.19264
G1 X144.32 Y182.01 E120.19787
G1 X144.20 Y183.42 E120.27372
G1 X144.19 Y183.54 E120.27998
G1 X143.93 Y185.00 E120.35942
G1 X143.54 Y186.38 E120.43610
G1 X143.50 Y186.50 E120.44247
G1 X142.96 Y187.87 E120.52105
G1 X142.27 Y189.22 E120.60179
G1 X141.92 Y189.76 E120.63637
G1 X141.94 Y191.09 E120.70748
G1 X142.10 Y192.67 E120.79231
G1 X142.41 Y194.19 E120.87531
G1 X140.94 Y196.74 E121.03227
G1 X137.15 Y194.55 E121.26565
G1 X137.05 Y194.63 E121.27255
G1 X135.74 Y195.35 E121.35208
G1 X134.36 Y195.95 E121.43283
G1 X132.92 Y196.42 E121.51356
G1 X131.44 Y196.74 E121.59443
G1 X129.93 Y196.92 E121.67526
G1 X128.51 Y196.94 E121.75102
G1 X128.42 Y196.95 E121.75626
G1 X127.00 Y196.83 E121.83210
G1 X126.88 Y196.82 E121.83837
G1 X125.42 Y196.56 E121.91780
G1 X124.04 Y196.16 E121.99448
G1 X123.92 Y196.13 E122.00090
G1 X122.55 Y195.59 E122.07946
G1 X121.21 Y194.90 E122.16025
G1 X119.93 Y194.08 E122.24103
G1 X118.75 Y193.14 E122.32179
G1 X117.71 Y192.14 E122.39854
G1 X117.63 Y192.06 E122.40496
G1 X116.76 Y191.04 E122.47620
G1 X116.67 Y190.94 E122.48373
G1 X115.81 Y189.69 E122.56430
G1 X115.07 Y188.37 E122.64508
G1 X114.47 Y186.98 E122.72595
G1 X114.00 Y185.54 E122.80668
G1 X113.68 Y184.06 E122.88755
G1 X113.51 Y182.56 E122.96838
G1 X113.48 Y181.14 E123.04414
G1 X113.48 Y181.04 E123.04938
G1 X113.49 Y180.89 E123.05763
G1 X111.46 Y179.72 E123.18280
G1 X109.70 Y178.70 E123.29121
G1 X111.32 Y175.90 E123.46372
G1 X112.41 Y175.54 E123.52515
G1 X113.87 Y174.88 E123.61049
G1 X115.37 Y174.04 E123.70235
G1 X115.45 Y173.98 E123.70750
G1 X115.53 Y173.81 E123.71782
G1 X116.34 Y172.56 E123.79741
G1 X117.28 Y171.37 E123.87809
G1 X118.28 Y170.34 E123.95473
G1 X118.36 Y170.25 E123.96122
G1 X119.39 Y169.38 E124.03334
G1 X119.49 Y169.30 E124.04003
G1 X120.73 Y168.44 E124.12060
G1 X122.05 Y167.70 E124.20130
G1 X122.70 Y167.42 E124.23924
G1 X122.89 Y167.20 E124.25468
G1 X124.26 Y165.42 E124.37442
G1 X125.57 Y163.52 E124.49787
G1 X126.78 Y161.55 E124.62123
G1 X127.89 Y159.50 E124.74563
G1 X128.87 Y157.43 E124.86789
G1 X129.74 Y155.34 E124.98880
G1 X130.34 Y153.60 E125.08670
G1 X130.30 Y153.57 E125.08927
G1 X130.30 Y153.17 E125.11062
G1 X130.10 Y152.97 E125.12572
G1 X130.10 Y150.59 E125.25256
G1 X130.27 Y150.43 E125.26532
G1 X129.96 Y149.53 E125.31578
G1 X129.10 Y147.44 E125.43669
G1 X128.12 Y145.37 E125.55921
G1 X127.01 Y143.32 E125.68335
G1 X125.79 Y141.34 E125.80721
G1 X124.50 Y139.46 E125.92901
G1 X123.23 Y137.81 E126.04034
G1 X122.10 Y137.32 E126.10602
G1 X120.77 Y136.59 E126.18676
G1 X119.53 Y135.73 E126.26750
G1 X118.37 Y134.75 E126.34838
G1 X117.38 Y133.73 E126.42422
G1 X117.31 Y133.66 E126.42981
G1 X116.37 Y132.48 E126.51006
G1 X115.55 Y131.21 E126.59086
G1 X115.26 Y130.65 E126.62462
G1 X114.09 Y129.98 E126.69673
G1 X112.64 Y129.33 E126.78122
G1 X111.17 Y128.84 E126.86424
G1 X109.70 Y126.30 E127.02121
G1 X113.49 Y124.11 E127.25453
G1 X113.48 Y123.98 E127.26149
G1 X113.50 Y122.56 E127.33736
G1 X113.51 Y122.44 E127.34366
G1 X113.67 Y120.99 E127.42179
G1 X113.99 Y119.51 E127.50260
G1 X114.45 Y118.07 E127.58333
G1 X115.05 Y116.68 E127.66420
G1 X115.78 Y115.35 E127.74506
G1 X116.64 Y114.11 E127.82580
G1 X117.62 Y112.95 E127.90664
G0 F6000 X117.31 Y112.66
G1 F2700 X118.32 Y111.68 E127.98173
G1 X118.31 Y111.68 E127.98180
G1 X118.43 Y111.56 E127.99030
G1 X119.64 Y110.60 E128.07298
G1 X120.95 Y109.76 E128.15594
G1 X122.33 Y109.04 E128.23903
G1 X123.78 Y108.47 E128.32208
G1 X125.12 Y108.08 E128.39699
G1 X125.28 Y108.04 E128.40559
G1 X126.80 Y107.76 E128.48827
G1 X128.24 Y107.64 E128.56504
G1 X128.38 Y107.63 E128.57265
G1 X129.82 Y107.65 E128.64996
G1 X129.96 Y107.66 E128.65738
G1 X131.46 Y107.83 E128.73749
G1 X132.97 Y108.15 E128.82048
G1 X134.46 Y108.62 E128.90347
G1 X135.89 Y109.24 E128.98661
G1 X137.16 Y109.95 E129.06446
G1 X138.97 Y108.91 E129.17572
G1 X141.10 Y107.67 E129.30713
G1 X143.01 Y110.99 E129.51171
G1 X142.75 Y112.26 E129.58090
G1 X142.59 Y113.80 E129.66380
G1 X142.57 Y115.46 E129.75231
G1 X142.63 Y115.55 E129.75771
G1 X143.33 Y116.91 E129.83949
G1 X143.90 Y118.35 E129.92237
G1 X144.29 Y119.70 E129.99735
G1 X144.34 Y119.86 E130.00595
G1 X144.61 Y121.38 E130.08862
G1 X144.74 Y122.81 E130.16535
G1 X144.75 Y122.95 E130.17295
G1 X144.72 Y124.49 E130.25475
G1 X144.65 Y125.11 E130.28854
G1 X144.71 Y125.28 E130.29757
G1 X145.56 Y127.36 E130.41764
G1 X146.53 Y129.39 E130.53815
G1 X147.63 Y131.42 E130.66126
G1 X148.83 Y133.37 E130.78328
G1 X150.13 Y135.25 E130.90553
G1 X151.49 Y137.02 E131.02440
G1 X152.62 Y138.33 E131.11701
G1 X152.68 Y138.35 E131.12053
G1 X154.08 Y138.81 E131.19909
G1 X154.44 Y139.17 E131.22631
G1 X154.84 Y139.37 E131.25006
G1 X155.27 Y139.81 E131.28283
G1 X156.15 Y139.97 E131.33049
G1 X158.35 Y140.27 E131.44915
G1 X160.64 Y140.45 E131.57183
G1 X162.93 Y140.51 E131.69369
G1 X165.21 Y140.45 E131.81555
G1 X167.50 Y140.27 E131.93824
G1 X169.42 Y140.01 E132.04186
G1 X170.34 Y139.33 E132.10283
G1 X171.67 Y138.53 E132.18568
G1 X173.08 Y137.86 E132.26878
G1 X174.54 Y137.34 E132.35184
G1 X176.05 Y136.96 E132.43498
G1 X177.59 Y136.72 E132.51804
G1 X179.03 Y136.65 E132.59517
G1 X179.19 Y136.64 E132.60378
G1 X179.67 Y136.67 E132.62943
G1 X180.71 Y136.06 E132.69343
G1 X181.95 Y135.17 E132.77535
G1 X183.22 Y134.03 E132.86600
G1 X186.75 Y134.03 E133.05466
G1 X186.75 Y138.58 E133.29739
G1 X187.96 Y139.30 E133.37226
G1 X189.21 Y140.23 E133.45536
G1 X190.28 Y141.19 E133.53227
G1 X190.37 Y141.28 E133.53919
G1 X191.34 Y142.34 E133.61602
G1 X191.44 Y142.45 E133.62354
G1 X192.34 Y143.67 E133.70468
G1 X193.14 Y145.00 E133.78758
G1 X193.81 Y146.41 E133.87053
G1 X194.34 Y147.87 E133.95369
G1 X194.72 Y149.38 E134.03682
G1 X194.95 Y150.92 E134.11984
G1 X195.02 Y152.31 E134.19446
G1 X195.03 Y152.46 E134.20217
G1 X194.95 Y154.03 E134.28597
G1 X194.73 Y155.56 E134.36896
G1 X194.35 Y157.07 E134.45202
G1 X193.83 Y158.54 E134.53508
G1 X193.17 Y159.95 E134.61809
G1 X192.37 Y161.28 E134.70120
G1 X191.44 Y162.54 E134.78438
G1 X190.48 Y163.61 E134.86125
G1 X190.39 Y163.70 E134.86817
G1 X189.25 Y164.74 E134.95048
G1 X188.00 Y165.67 E135.03358
G1 X186.75 Y166.42 E135.11130
G1 X186.75 Y170.97 E135.35409
G1 X182.93 Y170.97 E135.55844
G1 X181.95 Y170.10 E135.62800
G1 X180.70 Y169.20 E135.71033
G1 X179.27 Y168.35 E135.79893
G1 X179.17 Y168.36 E135.80433
G1 X177.64 Y168.28 E135.88610
G1 X176.10 Y168.06 E135.96908
G1 X174.59 Y167.68 E136.05220
G1 X173.13 Y167.16 E136.13516
G1 X171.72 Y166.50 E136.21821
G1 X170.38 Y165.70 E136.30129
G1 X169.88 Y165.32 E136.33514
G1 X169.71 Y165.29 E136.34422
G1 X167.50 Y164.99 E136.46335
G1 X165.21 Y164.81 E136.58588
G1 X162.93 Y164.75 E136.70774
G1 X160.64 Y164.81 E136.82960
G1 X158.36 Y164.99 E136.95213
G1 X156.14 Y165.29 E137.07126
G1 X154.16 Y165.67 E137.17898
G1 X153.39 Y166.44 E137.23711
G1 X152.22 Y166.73 E137.30133
G1 X151.26 Y167.84 E137.37982
G1 X149.89 Y169.62 E137.49975
G1 X148.60 Y171.50 E137.62144
G1 X147.41 Y173.44 E137.74278
G1 X146.31 Y175.48 E137.86656
G1 X145.34 Y177.51 E137.98660
G1 X144.59 Y179.33 E138.09185
G1 X144.72 Y180.46 E138.15268
G1 X144.74 Y181.87 E138.22764
G1 X144.75 Y182.01 E138.23566
G1 X144.63 Y183.46 E138.31295
G1 X144.62 Y183.59 E138.32029
G1 X144.35 Y185.10 E138.40193
G1 X143.95 Y186.50 E138.47991
G1 X143.91 Y186.64 E138.48745
G1 X143.35 Y188.04 E138.56802
G1 X142.64 Y189.43 E138.65101
G1 X142.35 Y189.88 E138.67987
G1 X142.36 Y191.07 E138.74308
G1 X142.52 Y192.61 E138.82576
G1 X142.87 Y194.27 E138.91629
G1 X141.09 Y197.32 E139.10481
G1 X137.16 Y195.05 E139.34722
G1 X135.93 Y195.73 E139.42216
G1 X134.51 Y196.35 E139.50512
G1 X133.03 Y196.83 E139.58809
G1 X131.51 Y197.16 E139.67126
G1 X129.96 Y197.34 E139.75429
G1 X128.53 Y197.37 E139.83059
G1 X128.41 Y197.38 E139.83732
G1 X126.97 Y197.26 E139.91462
G1 X126.83 Y197.25 E139.92196
G1 X125.32 Y196.97 E140.00360
G1 X123.92 Y196.57 E140.08163
G1 X123.78 Y196.53 E140.08915
G1 X122.38 Y195.98 E140.16977
G1 X120.99 Y195.27 E140.25274
G1 X119.69 Y194.43 E140.33579
G1 X118.47 Y193.47 E140.41880
G1 X117.41 Y192.45 E140.49683
G1 X117.31 Y192.35 E140.50446
G1 X116.41 Y191.28 E140.57907
G1 X116.33 Y191.20 E140.58501
G1 X115.45 Y189.92 E140.66806
G1 X114.69 Y188.56 E140.75109
G1 X114.07 Y187.14 E140.83416
G1 X113.59 Y185.66 E140.91714
G1 X113.26 Y184.13 E141.00031
G1 X113.08 Y182.59 E141.08334
G1 X113.05 Y181.15 E141.16023
G1 X113.05 Y181.13 E141.16124
G1 X111.24 Y180.09 E141.27262
G1 X109.12 Y178.85 E141.40384
G1 X111.03 Y175.54 E141.60789
G1 X112.26 Y175.14 E141.67714
G1 X113.68 Y174.50 E141.76036
G1 X115.12 Y173.69 E141.84835
G1 X115.16 Y173.60 E141.85379
G1 X115.99 Y172.31 E141.93563
G1 X116.96 Y171.09 E142.01851
G1 X117.97 Y170.04 E142.09651
G1 X118.07 Y169.94 E142.10413
G1 X119.11 Y169.06 E142.17686
G1 X119.22 Y168.96 E142.18472
G1 X120.50 Y168.07 E142.26778
G1 X121.86 Y167.32 E142.35073
G1 X122.44 Y167.06 E142.38458
G1 X122.55 Y166.94 E142.39336
G1 X123.93 Y165.15 E142.51394
G1 X125.21 Y163.29 E142.63435
G1 X126.41 Y161.33 E142.75702
G1 X127.51 Y159.31 E142.88013
G1 X128.48 Y157.26 E143.00097
G1 X129.34 Y155.19 E143.12093
G1 X129.88 Y153.63 E143.20887
G1 X129.88 Y153.35 E143.22392
G1 X129.68 Y153.15 E143.23902
G1 X129.68 Y150.42 E143.38475
G1 X129.78 Y150.31 E143.39276
G1 X129.56 Y149.69 E143.42792
G1 X128.71 Y147.60 E143.54852
G1 X127.73 Y145.56 E143.66901
G1 X126.64 Y143.54 E143.79162
G1 X125.44 Y141.58 E143.91443
G1 X124.15 Y139.71 E144.03604
G1 X122.95 Y138.16 E144.14013
G1 X121.91 Y137.71 E144.20103
G1 X120.55 Y136.95 E144.28404
G1 X119.27 Y136.07 E144.36698
G1 X118.08 Y135.07 E144.45013
G1 X117.10 Y134.06 E144.52518
G1 X116.99 Y133.95 E144.53360
G1 X116.03 Y132.73 E144.61631
G1 X115.18 Y131.43 E144.69935
G1 X114.94 Y130.96 E144.72759
G1 X113.89 Y130.36 E144.79162
G1 X112.50 Y129.74 E144.87333
G1 X110.88 Y129.20 E144.96449
G1 X109.12 Y126.14 E145.15299
G1 X113.05 Y123.87 E145.39529
G1 X113.07 Y122.55 E145.46582
G1 X113.08 Y122.41 E145.47324
G1 X113.25 Y120.92 E145.55335
G1 X113.58 Y119.40 E145.63634
G1 X114.05 Y117.92 E145.71933
G1 X114.67 Y116.49 E145.80247
G1 X115.42 Y115.12 E145.88558
G1 X116.30 Y113.85 E145.96855
G1 X117.31 Y112.66 E146.05162
G0 F6000 X116.99 Y112.36
G1 F2700 X118.04 Y111.35 E146.12965
G1 X118.14 Y111.25 E146.13728
G1 X119.39 Y110.25 E146.22235
G1 X120.73 Y109.39 E146.30752
G1 X122.15 Y108.65 E146.39285
G1 X123.64 Y108.06 E146.47818
G1 X125.04 Y107.66 E146.55612
G1 X125.18 Y107.62 E146.56377
G1 X126.75 Y107.33 E146.64889
G1 X128.20 Y107.21 E146.72673
G1 X128.36 Y107.20 E146.73551
G1 X129.84 Y107.22 E146.81421
G1 X130.00 Y107.23 E146.82276
G1 X131.52 Y107.40 E146.90480
G1 X133.09 Y107.74 E146.99003
G1 X134.61 Y108.22 E147.07525
G1 X136.07 Y108.86 E147.16066
G1 X137.16 Y109.46 E147.22676
G1 X138.75 Y108.54 E147.32472
G1 X141.25 Y107.08 E147.47934
G1 X143.46 Y110.92 E147.71549
G1 X143.17 Y112.32 E147.79203
G1 X143.02 Y113.83 E147.87300
G1 X143.00 Y115.34 E147.95361
G1 X143.72 Y116.73 E148.03719
G1 X144.31 Y118.21 E148.12233
G1 X144.71 Y119.62 E148.20032
G1 X144.75 Y119.75 E148.20797
G1 X145.04 Y121.32 E148.29303
G1 X145.16 Y122.78 E148.37087
G1 X145.18 Y122.94 E148.37966
G1 X145.15 Y124.51 E148.46370
G1 X145.09 Y125.07 E148.49335
G1 X145.10 Y125.11 E148.49600
G1 X145.95 Y127.18 E148.61511
G1 X146.92 Y129.20 E148.73496
G1 X148.01 Y131.22 E148.85716
G1 X149.19 Y133.14 E148.97743
G1 X150.47 Y135.00 E149.09830
G1 X151.81 Y136.74 E149.21572
G1 X152.86 Y137.96 E149.30125
G1 X154.31 Y138.44 E149.38286
G1 X154.69 Y138.82 E149.41169
G1 X155.09 Y139.02 E149.43557
G1 X155.48 Y139.41 E149.46501
G1 X156.22 Y139.55 E149.50491
G1 X158.41 Y139.84 E149.62286
G1 X160.65 Y140.02 E149.74303
G1 X162.93 Y140.08 E149.86451
G1 X165.20 Y140.02 E149.98600
G1 X167.44 Y139.84 E150.10617
G1 X169.26 Y139.60 E150.20371
G1 X170.10 Y138.97 E150.25992
G1 X171.47 Y138.15 E150.34500
G1 X172.91 Y137.47 E150.43029
G1 X174.41 Y136.93 E150.51558
G1 X175.97 Y136.53 E150.60102
G1 X177.55 Y136.30 E150.68631
G1 X179.01 Y136.22 E150.76461
G1 X179.19 Y136.22 E150.77434
G1 X179.57 Y136.23 E150.79433
G1 X180.47 Y135.71 E150.85038
G1 X181.68 Y134.83 E150.93003
G1 X183.06 Y133.61 E151.02825
G1 X187.18 Y133.61 E151.24845
G1 X187.18 Y138.34 E151.50111
G1 X188.19 Y138.94 E151.56413
G1 X189.48 Y139.90 E151.64948
G1 X190.55 Y140.86 E151.72624
G1 X190.68 Y140.97 E151.73550
G1 X191.66 Y142.06 E151.81365
G1 X191.77 Y142.18 E151.82228
G1 X192.70 Y143.43 E151.90550
G1 X193.52 Y144.80 E151.99062
G1 X194.20 Y146.24 E152.07587
G1 X194.75 Y147.75 E152.16126
G1 X195.14 Y149.30 E152.24665
G1 X195.37 Y150.88 E152.33188
G1 X195.44 Y152.29 E152.40725
G1 X195.46 Y152.45 E152.41614
G1 X195.38 Y154.07 E152.50256
G1 X195.15 Y155.65 E152.58775
G1 X194.76 Y157.20 E152.67307
G1 X194.23 Y158.70 E152.75836
G1 X193.55 Y160.15 E152.84361
G1 X192.73 Y161.52 E152.92895
G1 X191.78 Y162.81 E153.01438
G1 X190.79 Y163.89 E153.09242
G1 X190.70 Y164.00 E153.10040
G1 X189.52 Y165.07 E153.18502
G1 X188.24 Y166.02 E153.27037
G1 X187.18 Y166.66 E153.33629
G1 X187.18 Y171.39 E153.58895
G1 X182.76 Y171.39 E153.82485
G1 X181.68 Y170.43 E153.90198
G1 X180.47 Y169.56 E153.98201
G1 X179.16 Y168.78 E154.06285
G1 X177.60 Y168.71 E154.14644
G1 X176.02 Y168.48 E154.23163
G1 X174.47 Y168.09 E154.31695
G1 X172.97 Y167.56 E154.40219
G1 X171.52 Y166.88 E154.48749
G1 X170.15 Y166.06 E154.57279
G1 X169.70 Y165.72 E154.60260
G1 X169.64 Y165.71 E154.60580
G1 X167.44 Y165.42 E154.72419
G1 X165.20 Y165.24 E154.84419
G1 X162.93 Y165.18 E154.96568
G1 X160.65 Y165.24 E155.08717
G1 X158.41 Y165.42 E155.20717
G1 X156.21 Y165.71 E155.32556
G1 X154.37 Y166.06 E155.42557
G1 X153.61 Y166.83 E155.48302
G1 X152.46 Y167.12 E155.54637
G1 X151.59 Y168.12 E155.61725
G1 X150.24 Y169.87 E155.73543
G1 X148.96 Y171.73 E155.85577
G1 X147.77 Y173.67 E155.97728
G1 X146.69 Y175.66 E156.09798
G1 X145.72 Y177.71 E156.21923
G1 X145.02 Y179.39 E156.31630
G1 X145.15 Y180.43 E156.37240
G1 X145.17 Y181.86 E156.44870
G1 X145.18 Y182.02 E156.45735
G1 X145.06 Y183.49 E156.53604
G1 X145.04 Y183.65 E156.54450
G1 X144.76 Y185.20 E156.62838
G1 X144.36 Y186.63 E156.70768
G1 X144.31 Y186.78 E156.71638
G1 X143.74 Y188.22 E156.79898
G1 X143.01 Y189.64 E156.88416
G1 X142.78 Y190.01 E156.90731
G1 X142.79 Y191.04 E156.96246
G1 X142.94 Y192.54 E157.04321
G1 X143.32 Y194.34 E157.14115
G1 X141.25 Y197.91 E157.36119
G1 X137.16 Y195.54 E157.61346
G1 X136.12 Y196.12 E157.67654
G1 X134.66 Y196.75 E157.76177
G1 X133.14 Y197.25 E157.84699
G1 X131.58 Y197.59 E157.93234
G1 X129.99 Y197.77 E158.01768
G1 X128.56 Y197.80 E158.09403
G1 X128.40 Y197.81 E158.10269
G1 X126.93 Y197.68 E158.18138
G1 X126.77 Y197.67 E158.18984
G1 X125.23 Y197.39 E158.27366
G1 X123.80 Y196.98 E158.35307
G1 X123.64 Y196.94 E158.36171
G1 X122.20 Y196.37 E158.44435
G1 X120.78 Y195.64 E158.52958
G1 X119.44 Y194.78 E158.61484
G1 X118.18 Y193.79 E158.70012
G1 X117.11 Y192.75 E158.77948
G1 X117.00 Y192.64 E158.78824
G1 X116.09 Y191.57 E158.86277
G1 X116.00 Y191.47 E158.87056
G1 X115.08 Y190.15 E158.95615
G1 X114.31 Y188.75 E159.04137
G1 X113.67 Y187.29 E159.12672
G1 X113.18 Y185.77 E159.21194
G1 X112.84 Y184.21 E159.29729
G1 X112.65 Y182.62 E159.38263
G1 X112.63 Y181.38 E159.44863
G1 X111.03 Y180.46 E159.54718
G1 X108.53 Y179.01 E159.70125
G1 X110.74 Y175.19 E159.93683
G1 X112.11 Y174.74 E160.01365
G1 X113.48 Y174.12 E160.09425
G1 X114.80 Y173.38 E160.17478
G1 X115.65 Y172.06 E160.25847
G1 X116.64 Y170.81 E160.34359
G1 X117.67 Y169.74 E160.42287
G1 X117.78 Y169.62 E160.43170
G1 X118.86 Y168.71 E160.50731
G1 X118.96 Y168.62 E160.51404
G1 X120.28 Y167.71 E160.59963
G1 X121.67 Y166.93 E160.68473
G1 X122.18 Y166.71 E160.71454
G1 X122.22 Y166.66 E160.71791
G1 X123.57 Y164.91 E160.83609
G1 X124.85 Y163.05 E160.95635
G1 X126.04 Y161.12 E161.07751
G1 X127.12 Y159.12 E161.19912
G1 X128.09 Y157.09 E161.31927
G1 X128.93 Y155.04 E161.43741
G1 X129.45 Y153.56 E161.52123
G1 X129.45 Y153.52 E161.52288
G1 X129.25 Y153.32 E161.53798
G1 X129.25 Y150.24 E161.70261
G1 X129.29 Y150.20 E161.70563
G1 X129.16 Y149.83 E161.72653
G1 X128.32 Y147.78 E161.84457
G1 X127.35 Y145.74 E161.96530
G1 X126.27 Y143.76 E162.08597
G1 X125.07 Y141.81 E162.20816
G1 X123.81 Y139.96 E162.32743
G1 X122.68 Y138.51 E162.42551
G1 X121.72 Y138.09 E162.48160
G1 X120.32 Y137.32 E162.56681
G1 X119.01 Y136.41 E162.65201
G1 X117.79 Y135.38 E162.73743
G1 X116.80 Y134.36 E162.81324
G1 X116.67 Y134.23 E162.82298
G1 X115.68 Y132.98 E162.90808
G1 X114.81 Y131.64 E162.99336
G1 X114.61 Y131.27 E163.01589
G1 X113.71 Y130.75 E163.07173
G1 X112.33 Y130.13 E163.15213
G1 X110.59 Y129.56 E163.25026
G1 X108.54 Y125.98 E163.47028
G1 X112.63 Y123.62 E163.72243
G1 X112.64 Y122.54 E163.78030
G1 X112.65 Y122.38 E163.78885
G1 X112.83 Y120.85 E163.87089
G1 X113.16 Y119.29 E163.95612
G1 X113.65 Y117.77 E164.04134
G1 X114.28 Y116.30 E164.12675
G1 X115.06 Y114.90 E164.21208
G1 X115.96 Y113.58 E164.29733
G1 X116.99 Y112.36 E164.38267
G0 F6000 X116.68 Y112.07
G1 F2700 X117.71 Y111.07 E164.45942
G1 X117.86 Y110.92 E164.47044
G1 X119.14 Y109.91 E164.55795
G1 X120.52 Y109.02 E164.64535
G1 X121.97 Y108.26 E164.73295
G1 X123.50 Y107.66 E164.82053
G1 X124.89 Y107.26 E164.89768
G1 X125.08 Y107.20 E164.90817
G1 X126.69 Y106.91 E164.99568
G1 X128.16 Y106.78 E165.07465
G1 X128.35 Y106.77 E165.08456
G1 X129.85 Y106.79 E165.16475
G1 X130.03 Y106.80 E165.17442
G1 X131.59 Y106.98 E165.25840
G1 X133.19 Y107.32 E165.34581
G1 X134.76 Y107.82 E165.43328
G1 X136.26 Y108.47 E165.52094
G1 X137.15 Y108.97 E165.57520
G1 X138.54 Y108.17 E165.66063
G1 X141.41 Y106.50 E165.83774
G1 X143.92 Y110.84 E166.10550
G1 X143.60 Y112.39 E166.18989
G1 X143.45 Y113.86 E166.26844
G1 X143.43 Y115.24 E166.34227
G1 X144.11 Y116.56 E166.42127
G1 X144.71 Y118.08 E166.50859
G1 X145.11 Y119.45 E166.58507
G1 X145.17 Y119.65 E166.59634
G1 X145.46 Y121.27 E166.68385
G1 X145.59 Y122.74 E166.76277
G1 X145.60 Y122.92 E166.77268
G1 X145.58 Y124.54 E166.85901
G1 X145.52 Y125.01 E166.88431
G1 X146.34 Y127.00 E166.99892
G1 X147.30 Y129.01 E167.11764
G1 X148.38 Y130.99 E167.23827
G1 X149.55 Y132.91 E167.35815
G1 X150.81 Y134.74 E167.47707
G1 X152.15 Y136.47 E167.59388
G1 X153.11 Y137.59 E167.67237
G1 X154.54 Y138.06 E167.75302
G1 X154.95 Y138.47 E167.78355
G1 X155.35 Y138.67 E167.80738
G1 X155.69 Y139.01 E167.83350
G1 X156.29 Y139.13 E167.86584
G1 X158.46 Y139.42 E167.98282
G1 X160.68 Y139.59 E168.10159
G1 X162.93 Y139.66 E168.22169
G1 X165.18 Y139.59 E168.34179
G1 X167.39 Y139.42 E168.46057
G1 X169.09 Y139.19 E168.55201
G1 X169.86 Y138.62 E168.60338
G1 X171.26 Y137.78 E168.69066
G1 X172.75 Y137.07 E168.77820
G1 X174.29 Y136.52 E168.86576
G1 X175.88 Y136.12 E168.95345
G1 X177.50 Y135.87 E169.04100
G1 X178.99 Y135.80 E169.12043
G1 X179.19 Y135.79 E169.13133
G1 X179.46 Y135.80 E169.14560
G1 X180.23 Y135.35 E169.19337
G1 X181.42 Y134.49 E169.27142
G1 X182.89 Y133.18 E169.37687
G1 X187.61 Y133.18 E169.62862
G1 X187.61 Y138.10 E169.89121
G1 X188.43 Y138.59 E169.94235
G1 X189.75 Y139.56 E170.02992
G1 X190.83 Y140.54 E170.10766
G1 X190.98 Y140.67 E170.11810
G1 X191.98 Y141.77 E170.19761
G1 X192.10 Y141.91 E170.20740
G1 X193.05 Y143.19 E170.29273
G1 X193.90 Y144.60 E170.38006
G1 X194.60 Y146.08 E170.46755
G1 X195.16 Y147.62 E170.55520
G1 X195.56 Y149.21 E170.64279
G1 X195.80 Y150.83 E170.73029
G1 X195.87 Y152.26 E170.80683
G1 X195.89 Y152.44 E170.81642
G1 X195.81 Y154.11 E170.90546
G1 X195.57 Y155.73 E170.99292
G1 X195.17 Y157.32 E171.08049
G1 X194.62 Y158.87 E171.16804
G1 X193.92 Y160.35 E171.25554
G1 X193.08 Y161.76 E171.34313
G1 X192.11 Y163.08 E171.43081
G1 X191.11 Y164.18 E171.50991
G1 X191.00 Y164.31 E171.51891
G1 X189.79 Y165.40 E171.60591
G1 X188.48 Y166.38 E171.69347
G1 X187.61 Y166.90 E171.74758
G1 X187.61 Y171.82 E172.01022
G1 X182.60 Y171.82 E172.27767
G1 X181.42 Y170.77 E172.36202
G1 X180.23 Y169.91 E172.44041
G1 X179.04 Y169.21 E172.51431
G1 X177.56 Y169.13 E172.59331
G1 X175.94 Y168.90 E172.68077
G1 X174.35 Y168.50 E172.76834
G1 X172.80 Y167.95 E172.85579
G1 X171.32 Y167.25 E172.94338
G1 X169.91 Y166.41 E173.03086
G1 X169.53 Y166.13 E173.05635
G1 X167.41 Y165.84 E173.17059
G1 X165.18 Y165.67 E173.29006
G1 X162.93 Y165.61 E173.41016
G1 X160.68 Y165.67 E173.53026
G1 X158.45 Y165.84 E173.64973
G1 X156.29 Y166.13 E173.76569
G1 X154.58 Y166.46 E173.85873
G1 X153.83 Y167.21 E173.91543
G1 X152.69 Y167.50 E173.97795
G1 X151.93 Y168.38 E174.04063
G1 X150.58 Y170.13 E174.15800
G1 X149.32 Y171.96 E174.27696
G1 X148.14 Y173.88 E174.39723
G1 X147.07 Y175.85 E174.51695
G1 X146.11 Y177.87 E174.63620
G1 X145.46 Y179.45 E174.72730
G1 X145.57 Y180.41 E174.77867
G1 X145.60 Y181.83 E174.85491
G1 X145.61 Y182.03 E174.86555
G1 X145.48 Y183.53 E174.94568
G1 X145.47 Y183.71 E174.95532
G1 X145.18 Y185.29 E175.04136
G1 X144.77 Y186.75 E175.12200
G1 X144.71 Y186.92 E175.13183
G1 X144.13 Y188.40 E175.21643
G1 X143.39 Y189.85 E175.30383
G1 X143.21 Y190.13 E175.32133
G1 X143.22 Y191.03 E175.36911
G1 X143.37 Y192.47 E175.44665
G1 X143.77 Y194.41 E175.55260
G1 X141.41 Y198.49 E175.80416
G1 X137.15 Y196.04 E176.06623
G1 X136.31 Y196.50 E176.11751
G1 X134.81 Y197.16 E176.20497
G1 X133.25 Y197.66 E176.29243
G1 X131.65 Y198.01 E176.38007
G1 X130.02 Y198.20 E176.46762
G1 X128.59 Y198.22 E176.54397
G1 X128.39 Y198.23 E176.55460
G1 X126.89 Y198.11 E176.63474
G1 X126.72 Y198.09 E176.64438
G1 X125.13 Y197.81 E176.73037
G1 X123.67 Y197.40 E176.81111
G1 X123.50 Y197.34 E176.82088
G1 X122.02 Y196.76 E176.90556
G1 X120.57 Y196.01 E176.99301
G1 X119.19 Y195.13 E177.08051
G1 X117.90 Y194.11 E177.16803
G1 X116.81 Y193.06 E177.24875
G1 X116.68 Y192.93 E177.25864
G1 X115.77 Y191.85 E177.33385
G1 X115.66 Y191.73 E177.34278
G1 X114.72 Y190.37 E177.43080
G1 X113.92 Y188.94 E177.51824
G1 X113.27 Y187.44 E177.60586
G1 X112.76 Y185.88 E177.69332
G1 X112.41 Y184.28 E177.78097
G1 X112.22 Y182.65 E177.86851
G1 X112.20 Y181.63 E177.92276
G1 X110.81 Y180.83 E178.00843
G1 X107.95 Y179.16 E178.18534
G1 X110.45 Y174.83 E178.45241
G1 X111.95 Y174.34 E178.53660
G1 X113.29 Y173.74 E178.61526
G1 X114.50 Y173.06 E178.68900
G1 X115.30 Y171.81 E178.76805
G1 X116.31 Y170.53 E178.85542
G1 X117.36 Y169.44 E178.93606
G1 X117.49 Y169.31 E178.94603
G1 X118.57 Y168.39 E179.02151
G1 X118.69 Y168.29 E179.03017
G1 X120.05 Y167.35 E179.11819
G1 X121.48 Y166.55 E179.20556
G1 X121.91 Y166.36 E179.23097
G1 X123.23 Y164.65 E179.34641
G1 X124.48 Y162.83 E179.46418
G1 X125.67 Y160.90 E179.58517
G1 X126.74 Y158.92 E179.70525
G1 X127.69 Y156.92 E179.82340
G1 X128.53 Y154.88 E179.94120
G1 X128.96 Y153.65 E180.01104
G1 X128.82 Y153.50 E180.02184
G1 X128.82 Y150.15 E180.20056
G1 X128.76 Y149.99 E180.21000
G1 X127.92 Y147.95 E180.32770
G1 X126.97 Y145.94 E180.44642
G1 X125.89 Y143.96 E180.56643
G1 X124.72 Y142.06 E180.68586
G1 X123.45 Y140.21 E180.80583
G1 X122.41 Y138.86 E180.89667
G1 X121.53 Y138.48 E180.94798
G1 X120.10 Y137.68 E181.03541
G1 X118.75 Y136.75 E181.12283
G1 X117.49 Y135.69 E181.21049
G1 X116.50 Y134.66 E181.28713
G1 X116.35 Y134.52 E181.29819
G1 X115.33 Y133.23 E181.38569
G1 X114.44 Y131.86 E181.47317
G1 X114.29 Y131.58 E181.49005
G1 X113.51 Y131.13 E181.53849
G1 X112.19 Y130.53 E181.61571
G1 X110.30 Y129.91 E181.72185
G1 X107.95 Y125.82 E181.97346
G1 X112.20 Y123.37 E182.23548
G1 X112.22 Y122.52 E182.28065
G1 X112.22 Y122.34 E182.29032
G1 X112.40 Y120.78 E182.37430
G1 X112.75 Y119.18 E182.46171
G1 X113.25 Y117.62 E182.54918
G1 X113.89 Y116.11 E182.63684
G1 X114.69 Y114.67 E182.72441
G1 X115.62 Y113.33 E182.81191
G1 X116.68 Y112.07 E182.89945
G0 F6000 X116.37 Y111.78
G1 F2700 X117.45 Y110.73 E182.97983
G1 X117.57 Y110.61 E182.98934
G1 X118.89 Y109.56 E183.07924
G1 X120.30 Y108.65 E183.16888
G1 X121.80 Y107.87 E183.25870
G1 X123.36 Y107.25 E183.34851
G1 X124.78 Y106.85 E183.42711
G1 X124.97 Y106.79 E183.43827
G1 X126.63 Y106.49 E183.52821
G1 X128.13 Y106.36 E183.60826
G1 X128.33 Y106.34 E183.61934
G1 X129.86 Y106.37 E183.70092
G1 X130.06 Y106.38 E183.71172
G1 X131.66 Y106.56 E183.79763
G1 X133.31 Y106.91 E183.88728
G1 X134.91 Y107.42 E183.97697
G1 X136.45 Y108.09 E184.06693
G1 X137.15 Y108.47 E184.10939
G1 X138.32 Y107.79 E184.18188
G1 X141.56 Y105.91 E184.38187
G1 X144.37 Y110.77 E184.68123
G1 X144.02 Y112.46 E184.77345
G1 X143.88 Y113.87 E184.84895
G1 X143.86 Y115.14 E184.91659
G1 X144.50 Y116.38 E184.99111
G1 X145.12 Y117.94 E185.08065
G1 X145.52 Y119.33 E185.15790
G1 X145.59 Y119.55 E185.17046
G1 X145.89 Y121.21 E185.26041
G1 X146.01 Y122.70 E185.34040
G1 X146.03 Y122.91 E185.35148
G1 X146.00 Y124.57 E185.44000
G1 X145.96 Y124.95 E185.46058
G1 X146.73 Y126.82 E185.56842
G1 X147.69 Y128.82 E185.68692
G1 X148.75 Y130.78 E185.80571
G1 X149.91 Y132.67 E185.92430
G1 X151.16 Y134.49 E186.04187
G1 X152.47 Y136.20 E186.15713
G1 X153.35 Y137.22 E186.22903
G1 X154.77 Y137.69 E186.30890
G1 X155.20 Y138.12 E186.34098
G1 X155.60 Y138.32 E186.36493
G1 X155.90 Y138.62 E186.38780
G1 X156.35 Y138.71 E186.41216
G1 X158.49 Y138.99 E186.52757
G1 X160.70 Y139.17 E186.64592
G1 X162.93 Y139.23 E186.76457
G1 X165.15 Y139.17 E186.88323
G1 X167.36 Y138.99 E187.00158
G1 X168.92 Y138.78 E187.08592
G1 X169.62 Y138.26 E187.13251
G1 X171.06 Y137.40 E187.22202
G1 X172.58 Y136.68 E187.31180
G1 X174.16 Y136.11 E187.40163
G1 X175.80 Y135.69 E187.49153
G1 X177.46 Y135.45 E187.58134
G1 X178.97 Y135.37 E187.66195
G1 X179.19 Y135.36 E187.67403
G1 X179.35 Y135.37 E187.68258
G1 X180.00 Y134.99 E187.72265
G1 X181.15 Y134.16 E187.79814
G1 X182.73 Y132.75 E187.91118
G1 X188.04 Y132.75 E188.19453
G1 X188.04 Y137.85 E188.46700
G1 X188.67 Y138.23 E188.50631
G1 X190.02 Y139.23 E188.59612
G1 X191.12 Y140.22 E188.67477
G1 X191.28 Y140.37 E188.68650
G1 X192.30 Y141.49 E188.76733
G1 X192.43 Y141.64 E188.77818
G1 X193.41 Y142.96 E188.86569
G1 X194.27 Y144.39 E188.95524
G1 X194.99 Y145.91 E189.04493
G1 X195.56 Y147.50 E189.13481
G1 X195.98 Y149.13 E189.22471
G1 X196.22 Y150.79 E189.31447
G1 X196.30 Y152.23 E189.39144
G1 X196.31 Y152.44 E189.40247
G1 X196.23 Y154.15 E189.49413
G1 X195.99 Y155.81 E189.58380
G1 X195.58 Y157.45 E189.67359
G1 X195.02 Y159.03 E189.76338
G1 X194.30 Y160.55 E189.85312
G1 X193.44 Y162.00 E189.94297
G1 X192.44 Y163.35 E190.03290
G1 X191.45 Y164.44 E190.11151
G1 X191.31 Y164.61 E190.12323
G1 X190.07 Y165.73 E190.21253
G1 X188.72 Y166.74 E190.30230
G1 X188.04 Y167.15 E190.34466
G1 X188.04 Y172.25 E190.61718
G1 X182.44 Y172.25 E190.91617
G1 X181.15 Y171.10 E191.00809
G1 X179.99 Y170.27 E191.08445
G1 X178.91 Y169.63 E191.15129
G1 X177.52 Y169.56 E191.22590
G1 X175.85 Y169.32 E191.31557
G1 X174.22 Y168.91 E191.40541
G1 X172.64 Y168.35 E191.49510
G1 X171.12 Y167.63 E191.58489
G1 X169.67 Y166.77 E191.67469
G1 X169.36 Y166.54 E191.69526
G1 X167.35 Y166.27 E191.80358
G1 X165.15 Y166.09 E191.92160
G1 X162.93 Y166.04 E192.04026
G1 X160.70 Y166.09 E192.15892
G1 X158.50 Y166.27 E192.27694
G1 X156.34 Y166.56 E192.39312
G1 X154.79 Y166.86 E192.47753
G1 X154.05 Y167.60 E192.53347
G1 X152.93 Y167.88 E192.59506
G1 X152.26 Y168.65 E192.64971
G1 X150.93 Y170.37 E192.76572
G1 X149.68 Y172.20 E192.88406
G1 X148.51 Y174.10 E193.00281
G1 X147.46 Y176.04 E193.12108
G1 X146.50 Y178.05 E193.23968
G1 X145.90 Y179.51 E193.32403
G1 X146.00 Y180.38 E193.37052
G1 X146.03 Y181.79 E193.44612
G1 X146.03 Y182.04 E193.45942
G1 X145.91 Y183.56 E193.54100
G1 X145.89 Y183.76 E193.55171
G1 X145.60 Y185.39 E193.63998
G1 X145.18 Y186.87 E193.72195
G1 X145.12 Y187.06 E193.73288
G1 X144.52 Y188.57 E193.81956
G1 X143.76 Y190.07 E193.90918
G1 X143.64 Y190.25 E193.92092
G1 X143.65 Y191.00 E193.96075
G1 X143.79 Y192.41 E194.03625
G1 X144.22 Y194.49 E194.14968
G1 X141.56 Y199.07 E194.43279
G1 X137.15 Y196.53 E194.70476
G1 X136.50 Y196.89 E194.74414
G1 X134.96 Y197.56 E194.83387
G1 X133.37 Y198.07 E194.92351
G1 X131.72 Y198.43 E195.01340
G1 X130.05 Y198.63 E195.10320
G1 X128.61 Y198.65 E195.18003
G1 X128.38 Y198.66 E195.19221
G1 X126.86 Y198.54 E195.27379
G1 X126.66 Y198.52 E195.28450
G1 X125.03 Y198.22 E195.37272
G1 X123.55 Y197.81 E195.45479
G1 X123.36 Y197.75 E195.46567
G1 X121.85 Y197.15 E195.55238
G1 X120.35 Y196.38 E195.64210
G1 X118.94 Y195.47 E195.73183
G1 X117.62 Y194.43 E195.82157
G1 X116.51 Y193.37 E195.90360
G1 X116.37 Y193.22 E195.91462
G1 X115.45 Y192.14 E195.99037
G1 X115.32 Y192.00 E196.00058
G1 X114.36 Y190.60 E196.09109
G1 X113.54 Y189.13 E196.18078
G1 X112.87 Y187.59 E196.27067
G1 X112.35 Y185.99 E196.36031
G1 X111.99 Y184.35 E196.45020
G1 X111.80 Y182.68 E196.54000
G1 X111.78 Y181.88 E196.58245
G1 X110.60 Y181.20 E196.65523
G1 X107.36 Y179.32 E196.85498
G1 X110.16 Y174.48 E197.15355
G1 X111.79 Y173.94 E197.24532
G1 X113.09 Y173.35 E197.32137
G1 X114.19 Y172.74 E197.38870
G1 X114.95 Y171.56 E197.46332
G1 X115.99 Y170.25 E197.55288
G1 X117.06 Y169.14 E197.63481
G1 X117.20 Y168.99 E197.64594
G1 X118.27 Y168.09 E197.72064
G1 X118.43 Y167.95 E197.73187
G1 X119.82 Y166.98 E197.82237
G1 X121.29 Y166.17 E197.91194
G1 X121.64 Y166.01 E197.93267
G1 X122.89 Y164.40 E198.04145
G1 X124.13 Y162.59 E198.15841
G1 X125.30 Y160.68 E198.27789
G1 X126.36 Y158.74 E198.39608
G1 X127.31 Y156.74 E198.51404
G1 X128.14 Y154.72 E198.63064
G1 X128.47 Y153.76 E198.68517
G1 X128.39 Y153.68 E198.69114
G1 X128.39 Y150.23 E198.87541
G1 X128.36 Y150.13 E198.88095
G1 X127.54 Y148.14 E198.99569
G1 X126.58 Y146.13 E199.11472
G1 X125.52 Y144.18 E199.23315
G1 X124.36 Y142.29 E199.35165
G1 X123.11 Y140.47 E199.46965
G1 X122.14 Y139.21 E199.55445
G1 X121.34 Y138.86 E199.60093
G1 X119.87 Y138.05 E199.69063
G1 X118.49 Y137.09 E199.78027
G1 X117.20 Y136.01 E199.87017
G1 X116.15 Y134.93 E199.95061
G1 X116.03 Y134.80 E199.95994
G1 X114.98 Y133.48 E200.04987
G1 X114.07 Y132.07 E200.13959
G1 X113.97 Y131.88 E200.15083
G1 X113.31 Y131.51 E200.19129
G1 X112.02 Y130.93 E200.26672
G1 X110.01 Y130.27 E200.38003
G1 X107.37 Y125.67 E200.66313
G1 X111.78 Y123.12 E200.93496
G1 X111.79 Y122.51 E200.96747
G1 X111.80 Y122.31 E200.97827
G1 X111.98 Y120.71 E201.06418
G1 X112.33 Y119.07 E201.15383
G1 X112.84 Y117.47 E201.24353
G1 X113.51 Y115.92 E201.33348
G1 X114.33 Y114.45 E201.42330
G1 X115.28 Y113.06 E201.51299
G1 X116.37 Y111.78 E201.60280
G0 F6000 X116.05 Y111.49
G1 F2700 X117.15 Y110.42 E201.68427
G1 X117.29 Y110.28 E201.69476
G1 X118.64 Y109.21 E201.78705
G1 X120.09 Y108.28 E201.87893
G1 X121.62 Y107.48 E201.97102
G1 X123.22 Y106.85 E202.06308
G1 X124.67 Y106.43 E202.14335
G1 X124.87 Y106.37 E202.15490
G1 X126.58 Y106.06 E202.24723
G1 X128.09 Y105.93 E202.32840
G1 X128.32 Y105.91 E202.34067
G1 X129.87 Y105.94 E202.42363
G1 X130.10 Y105.95 E202.43555
G1 X131.73 Y106.14 E202.52340
G1 X133.41 Y106.50 E202.61529
G1 X135.06 Y107.02 E202.70723
G1 X136.64 Y107.70 E202.79943
G1 X137.15 Y107.98 E202.83014
G1 X138.11 Y107.42 E202.88969
G1 X141.72 Y105.33 E203.11253
G1 X144.82 Y110.70 E203.44350
G1 X144.44 Y112.52 E203.54303
G1 X144.30 Y113.90 E203.61665
G1 X144.29 Y115.03 E203.67746
G1 X144.89 Y116.20 E203.74741
G1 X145.53 Y117.80 E203.83921
G1 X145.93 Y119.21 E203.91747
G1 X146.00 Y119.45 E203.93108
G1 X146.31 Y121.15 E204.02341
G1 X146.44 Y122.67 E204.10453
G1 X146.46 Y122.90 E204.11679
G1 X146.43 Y124.60 E204.20755
G1 X146.40 Y124.89 E204.22324
G1 X147.13 Y126.66 E204.32529
G1 X148.06 Y128.63 E204.44184
G1 X149.11 Y130.56 E204.55888
G1 X150.26 Y132.44 E204.67663
G1 X151.51 Y134.25 E204.79401
G1 X152.81 Y135.93 E204.90766
G1 X153.60 Y136.85 E204.97222
G1 X155.00 Y137.32 E205.05125
G1 X155.45 Y137.76 E205.08499
G1 X155.85 Y137.97 E205.10898
G1 X156.11 Y138.22 E205.12854
G1 X156.42 Y138.28 E205.14517
G1 X158.55 Y138.57 E205.25984
G1 X160.71 Y138.74 E205.37566
G1 X162.93 Y138.80 E205.49395
G1 X165.14 Y138.74 E205.61223
G1 X167.30 Y138.57 E205.72806
G1 X168.76 Y138.37 E205.80637
G1 X169.39 Y137.91 E205.84816
G1 X170.86 Y137.02 E205.93992
G1 X172.42 Y136.28 E206.03190
G1 X174.04 Y135.70 E206.12398
G1 X175.71 Y135.27 E206.21615
G1 X177.42 Y135.02 E206.30818
G1 X178.95 Y134.94 E206.39001
G1 X179.20 Y134.93 E206.40321
G1 X179.25 Y134.93 E206.40610
G1 X179.77 Y134.63 E206.43813
G1 X180.88 Y133.83 E206.51137
G1 X182.57 Y132.32 E206.63201
G1 X188.47 Y132.32 E206.94691
G1 X188.47 Y137.61 E207.22925
G1 X188.91 Y137.88 E207.25676
G1 X190.29 Y138.90 E207.34880
G1 X191.43 Y139.92 E207.43021
G1 X191.58 Y140.06 E207.44128
G1 X192.62 Y141.20 E207.52348
G1 X192.76 Y141.37 E207.53550
G1 X193.76 Y142.72 E207.62514
G1 X194.65 Y144.19 E207.71688
G1 X195.39 Y145.75 E207.80881
G1 X195.97 Y147.37 E207.90095
G1 X196.40 Y149.04 E207.99311
G1 X196.65 Y150.75 E208.08509
G1 X196.73 Y152.21 E208.16329
G1 X196.74 Y152.43 E208.17496
G1 X196.66 Y154.19 E208.26924
G1 X196.41 Y155.90 E208.36118
G1 X195.99 Y157.57 E208.45321
G1 X195.41 Y159.19 E208.54523
G1 X194.68 Y160.75 E208.63721
G1 X193.80 Y162.24 E208.72933
G1 X192.77 Y163.62 E208.82150
G1 X191.75 Y164.75 E208.90288
G1 X191.61 Y164.91 E208.91396
G1 X190.34 Y166.06 E209.00564
G1 X188.96 Y167.09 E209.09766
G1 X188.47 Y167.39 E209.12819
G1 X188.47 Y172.68 E209.41064
G1 X182.27 Y172.68 E209.74124
G1 X180.88 Y171.44 E209.84075
G1 X179.76 Y170.63 E209.91428
G1 X178.78 Y170.05 E209.97504
G1 X177.47 Y169.99 E210.04501
G1 X175.77 Y169.74 E210.13683
G1 X174.10 Y169.32 E210.22898
G1 X172.48 Y168.74 E210.32088
G1 X170.92 Y168.01 E210.41291
G1 X169.44 Y167.13 E210.50494
G1 X169.20 Y166.95 E210.52081
G1 X167.30 Y166.69 E210.62304
G1 X165.14 Y166.52 E210.73860
G1 X162.93 Y166.47 E210.85688
G1 X160.71 Y166.52 E210.97517
G1 X158.55 Y166.69 E211.09073
G1 X156.43 Y166.98 E211.20534
G1 X155.00 Y167.25 E211.28279
G1 X154.27 Y167.99 E211.33805
G1 X153.17 Y168.26 E211.39870
G1 X152.59 Y168.93 E211.44585
G1 X151.27 Y170.64 E211.56114
G1 X150.05 Y172.42 E211.67630
G1 X148.88 Y174.32 E211.79543
G1 X147.84 Y176.24 E211.91217
G1 X146.90 Y178.21 E212.02876
G1 X146.34 Y179.57 E212.10716
G1 X146.43 Y180.35 E212.14891
G1 X146.45 Y181.82 E212.22777
G1 X146.46 Y182.05 E212.23979
G1 X146.34 Y183.60 E212.32276
G1 X146.32 Y183.82 E212.33460
G1 X146.01 Y185.49 E212.42505
G1 X145.59 Y186.99 E212.50839
G1 X145.52 Y187.21 E212.52045
G1 X144.91 Y188.75 E212.60912
G1 X144.13 Y190.28 E212.70096
G1 X144.07 Y190.38 E212.70706
G1 X144.07 Y190.97 E212.73861
G1 X144.21 Y192.34 E212.81234
G1 X144.68 Y194.56 E212.93323
G1 X141.72 Y199.66 E213.24787
G1 X137.15 Y197.02 E213.52972
G1 X136.69 Y197.27 E213.55732
G1 X135.12 Y197.96 E213.64921
G1 X133.48 Y198.49 E213.74115
G1 X131.79 Y198.85 E213.83322
G1 X130.08 Y199.06 E213.92534
G1 X128.60 Y199.08 E214.00431
G1 X128.37 Y199.09 E214.01633
G1 X126.82 Y198.96 E214.09930
G1 X126.60 Y198.94 E214.11114
G1 X124.94 Y198.64 E214.20158
G1 X123.43 Y198.22 E214.28493
G1 X123.22 Y198.15 E214.29698
G1 X121.67 Y197.54 E214.38574
G1 X120.14 Y196.75 E214.47765
G1 X118.69 Y195.82 E214.56964
G1 X117.34 Y194.75 E214.66165
G1 X116.21 Y193.67 E214.74501
G1 X116.05 Y193.51 E214.75716
G1 X115.14 Y192.44 E214.83208
G1 X114.98 Y192.26 E214.84490
G1 X113.99 Y190.83 E214.93794
G1 X113.15 Y189.32 E215.02982
G1 X112.47 Y187.74 E215.12194
G1 X111.94 Y186.10 E215.21388
G1 X111.57 Y184.42 E215.30594
G1 X111.37 Y182.70 E215.39806
G1 X111.36 Y182.13 E215.42866
G1 X110.39 Y181.57 E215.48857
G1 X106.78 Y179.48 E215.71109
G1 X109.87 Y174.12 E216.04121
G1 X111.64 Y173.54 E216.14079
G1 X112.90 Y172.97 E216.21419
G1 X113.89 Y172.41 E216.27497
G1 X114.60 Y171.31 E216.34500
G1 X115.67 Y169.96 E216.43681
G1 X116.75 Y168.84 E216.52005
G1 X116.91 Y168.68 E216.53236
G1 X118.01 Y167.75 E216.60913
G1 X118.16 Y167.61 E216.62006
G1 X119.60 Y166.62 E216.71310
G1 X121.10 Y165.78 E216.80487
G1 X121.37 Y165.66 E216.82083
G1 X122.53 Y164.16 E216.92242
G1 X123.77 Y162.35 E217.03915
G1 X124.93 Y160.46 E217.15759
G1 X125.98 Y158.54 E217.27435
G1 X126.92 Y156.56 E217.39147
G1 X127.73 Y154.60 E217.50467
G1 X127.98 Y153.87 E217.54576
G1 X127.96 Y153.86 E217.54690
G1 X127.96 Y150.30 E217.73672
G1 X127.96 Y150.28 E217.73802
G1 X127.14 Y148.30 E217.85190
G1 X126.20 Y146.33 E217.96880
G1 X125.16 Y144.40 E218.08585
G1 X124.00 Y142.51 E218.20413
G1 X122.77 Y140.72 E218.32029
G1 X121.87 Y139.56 E218.39865
G1 X121.15 Y139.25 E218.44042
G1 X119.64 Y138.41 E218.53232
G1 X118.23 Y137.43 E218.62420
G1 X116.91 Y136.32 E218.71637
G1 X115.89 Y135.27 E218.79455
G1 X115.71 Y135.09 E218.80821
G1 X114.63 Y133.73 E218.90054
G1 X113.70 Y132.29 E218.99249
G1 X113.65 Y132.19 E218.99812
G1 X113.12 Y131.89 E219.03062
G1 X111.87 Y131.33 E219.10354
G1 X109.72 Y130.62 E219.22473
G1 X106.78 Y125.51 E219.53935
G1 X111.36 Y122.87 E219.82103
G1 X111.36 Y122.50 E219.84089
G1 X111.37 Y122.28 E219.85281
G1 X111.56 Y120.64 E219.94066
G1 X111.92 Y118.96 E220.03254
G1 X112.44 Y117.32 E220.12449
G1 X113.13 Y115.73 E220.21669
G1 X113.96 Y114.22 E220.30878
G1 X114.94 Y112.81 E220.40069
G1 X116.05 Y111.49 E220.49278
G0 F6000 X115.74 Y111.19
G1 F2700 X116.81 Y110.15 E220.57277
G1 X117.00 Y109.97 E220.58682
G1 X118.39 Y108.86 E220.68154
G1 X119.87 Y107.91 E220.77563
G1 X121.44 Y107.09 E220.86996
G1 X123.08 Y106.44 E220.96430
G1 X124.57 Y106.02 E221.04668
G1 X124.77 Y105.95 E221.05818
G1 X126.52 Y105.64 E221.15296
G1 X128.06 Y105.51 E221.23520
G1 X128.31 Y105.48 E221.24859
G1 X129.89 Y105.51 E221.33305
G1 X130.13 Y105.52 E221.34609
G1 X131.80 Y105.71 E221.43587
G1 X133.53 Y106.08 E221.53000
G1 X135.21 Y106.62 E221.62414
G1 X136.83 Y107.32 E221.71859
G1 X137.14 Y107.49 E221.73751
G1 X137.90 Y107.05 E221.78413
G1 X141.88 Y104.74 E222.02981
G1 X145.27 Y110.62 E222.39240
G1 X144.87 Y112.58 E222.49924
G1 X144.73 Y113.92 E222.57093
G1 X144.72 Y114.93 E222.62501
G1 X145.28 Y116.02 E222.69040
G1 X145.93 Y117.66 E222.78438
G1 X146.35 Y119.14 E222.86642
G1 X146.42 Y119.35 E222.87836
G1 X146.74 Y121.10 E222.97314
G1 X146.87 Y122.63 E223.05532
G1 X146.89 Y122.88 E223.06872
G1 X146.86 Y124.62 E223.16178
G1 X146.84 Y124.83 E223.17268
G1 X147.52 Y126.48 E223.26793
G1 X148.45 Y128.43 E223.38345
G1 X149.49 Y130.35 E223.50007
G1 X150.62 Y132.20 E223.61595
G1 X151.85 Y133.98 E223.73132
G1 X153.14 Y135.66 E223.84468
G1 X153.85 Y136.48 E223.90220
G1 X155.24 Y136.94 E223.98026
G1 X155.71 Y137.41 E224.01582
G1 X156.11 Y137.61 E224.03969
G1 X156.32 Y137.83 E224.05585
G1 X156.50 Y137.86 E224.06557
G1 X158.58 Y138.14 E224.17776
G1 X160.76 Y138.31 E224.29418
G1 X162.93 Y138.37 E224.41001
G1 X165.09 Y138.31 E224.52583
G1 X167.27 Y138.14 E224.64225
G1 X168.59 Y137.96 E224.71345
G1 X169.15 Y137.55 E224.75051
G1 X170.66 Y136.64 E224.84445
G1 X172.25 Y135.89 E224.93867
G1 X173.91 Y135.29 E225.03303
G1 X175.63 Y134.85 E225.12746
G1 X177.38 Y134.59 E225.22175
G1 X178.93 Y134.51 E225.30471
G1 X179.13 Y134.50 E225.31566
G1 X179.54 Y134.27 E225.34056
G1 X180.62 Y133.49 E225.41165
G1 X182.40 Y131.89 E225.53959
G1 X188.89 Y131.89 E225.88604
G1 X188.89 Y137.37 E226.17831
G1 X189.14 Y137.52 E226.19392
G1 X190.56 Y138.57 E226.28821
G1 X191.68 Y139.58 E226.36875
G1 X191.88 Y139.76 E226.38289
G1 X192.93 Y140.91 E226.46641
G1 X193.10 Y141.10 E226.47957
G1 X194.12 Y142.48 E226.57130
G1 X195.03 Y143.99 E226.66526
G1 X195.78 Y145.58 E226.75943
G1 X196.38 Y147.25 E226.85384
G1 X196.82 Y148.96 E226.94827
G1 X197.08 Y150.71 E227.04251
G1 X197.15 Y152.18 E227.12129
G1 X197.17 Y152.42 E227.13426
