;-- START GCODE --
;Sliced for Type A Machines Series 1
;Sliced at: Sat 03-12-2016 16:00:04
;Basic settings: Layer height: 0.2 Walls: 1.5 Fill: 20
;Print Speed: 100 Support: 0
;Retraction Speed: 40 Retraction Distance: 1.2
;Print time: #P_TIME#
;Filament used: #F_AMNT#m #F_WGHT#g
;Filament cost: #F_COST#
M106 S255	 ;start with the fan on
G21        ;metric values
G90        ;absolute positioning
M106 S255    ;start with the fan on
G28     ;move to endstops
G29		;allows for auto-levelling
G1 X150 Y5  Z15.0 F6000 ;center and move the platform down 15mm
M109 S220 ;Heat To temp
G92 E0                  ;zero the extruded length
G1 F200 E30              ;extrude 30mm of feed stock
G92 E0                  ;zero the extruded length again
G1 X175 Y25  Z0 F6000 ;remove bugger
G1 X220 F6000 ;remove bugger
G1 X150 Y150  Z15 F6000 ;recenter and begin
G1 F6000

;Layer count: 34
;LAYER:0
M106 S255
G0 F6000 X125.70 Y119.88 Z0.30
;TYPE:SKIRT
G1 F2700 X125.45 Y120.18 E0.02394
G1 X125.24 Y120.49 E0.04774
G1 X125.05 Y120.83 E0.07167
G1 X124.90 Y121.17 E0.09496
G1 X124.78 Y121.54 E0.11901
G1 X124.71 Y121.89 E0.14160
G1 X124.66 Y122.30 E0.16740
G1 X124.65 Y122.67 E0.19067
G1 X124.68 Y123.04 E0.21369
G1 X124.75 Y123.43 E0.23823
G1 X124.86 Y123.80 E0.26253
G1 X125.00 Y124.14 E0.28527
G1 X125.17 Y124.49 E0.30959
G1 X125.38 Y124.82 E0.33380
G1 X125.61 Y125.11 E0.35685
G1 X125.88 Y125.39 E0.38106
G1 X126.17 Y125.63 E0.40465
G1 X126.49 Y125.85 E0.42871
G1 X126.83 Y126.04 E0.45311
G1 X127.17 Y126.19 E0.47629
G1 X127.53 Y126.30 E0.49974
G1 X127.91 Y126.38 E0.52380
G1 X128.29 Y126.43 E0.54809
G1 X128.67 Y126.43 E0.57173
G1 X129.04 Y126.40 E0.59476
G1 X129.43 Y126.33 E0.61954
G1 X129.80 Y126.23 E0.64321
G1 X130.15 Y126.09 E0.66689
G1 X130.48 Y125.92 E0.69032
G1 X130.82 Y125.70 E0.71500
G1 X131.10 Y125.48 E0.73777
G1 X131.38 Y125.21 E0.76199
G1 X131.63 Y124.91 E0.78632
G1 X131.85 Y124.60 E0.80963
G1 X132.03 Y124.27 E0.83352
G1 X132.19 Y123.92 E0.85738
G1 X132.30 Y123.55 E0.88136
G1 X132.38 Y123.19 E0.90439
G1 X132.43 Y122.79 E0.92912
G1 X132.43 Y122.42 E0.95270
G1 X132.40 Y122.04 E0.97629
G1 X132.33 Y121.66 E1.00031
G1 X132.23 Y121.29 E1.02424
G1 X132.09 Y120.94 E1.04772
G1 X131.91 Y120.60 E1.07168
G1 X131.70 Y120.27 E1.09581
G1 X131.47 Y119.99 E1.11872
G1 X131.20 Y119.70 E1.14328
G1 X130.91 Y119.45 E1.16722
G1 X130.60 Y119.24 E1.19089
G1 X130.26 Y119.05 E1.21476
G1 X129.92 Y118.91 E1.23778
G1 X129.56 Y118.79 E1.26136
G1 X129.54 Y118.78 E1.26280
G1 X129.19 Y118.71 E1.28540
G1 X128.79 Y118.66 E1.31013
G1 X128.41 Y118.66 E1.33377
G1 X128.04 Y118.69 E1.35698
G1 X127.66 Y118.76 E1.38152
G1 X127.29 Y118.86 E1.40532
G1 X126.94 Y119.00 E1.42851
G1 X126.60 Y119.17 E1.45269
G1 X126.27 Y119.39 E1.47690
G1 X125.98 Y119.61 E1.49995
G1 X125.70 Y119.88 E1.52416
G0 F6000 X125.34 Y119.54
G1 F2700 X125.07 Y119.86 E1.55022
G1 X124.81 Y120.23 E1.57820
G1 X124.61 Y120.59 E1.60419
G1 X124.43 Y121.00 E1.63192
G1 X124.30 Y121.41 E1.65845
G1 X124.21 Y121.81 E1.68416
G1 X124.16 Y122.26 E1.71255
G1 X124.15 Y122.69 E1.73899
G1 X124.19 Y123.11 E1.76552
G1 X124.27 Y123.54 E1.79297
G1 X124.39 Y123.97 E1.82027
G1 X124.54 Y124.35 E1.84617
G1 X124.74 Y124.74 E1.87336
G1 X124.97 Y125.10 E1.90016
G1 X125.25 Y125.45 E1.92794
G1 X125.54 Y125.75 E1.95388
G1 X125.87 Y126.03 E1.98069
G1 X126.22 Y126.27 E2.00776
G1 X126.60 Y126.48 E2.03467
G1 X127.01 Y126.66 E2.06227
G1 X127.40 Y126.79 E2.08834
G1 X127.83 Y126.88 E2.11520
G1 X128.26 Y126.93 E2.14244
G1 X128.69 Y126.94 E2.16908
G1 X129.11 Y126.90 E2.19561
G1 X129.55 Y126.82 E2.22331
G1 X129.96 Y126.70 E2.24990
G1 X130.35 Y126.55 E2.27639
G1 X130.74 Y126.35 E2.30339
G1 X131.10 Y126.11 E2.33054
G1 X131.45 Y125.84 E2.35788
G1 X131.75 Y125.55 E2.38408
G1 X132.02 Y125.22 E2.41058
G1 X132.27 Y124.87 E2.43774
G1 X132.49 Y124.48 E2.46527
G1 X132.65 Y124.09 E2.49152
G1 X132.78 Y123.69 E2.51824
G1 X132.88 Y123.26 E2.54554
G1 X132.93 Y122.83 E2.57247
G1 X132.93 Y122.40 E2.59898
G1 X132.90 Y121.97 E2.62613
G1 X132.82 Y121.55 E2.65307
G1 X132.70 Y121.13 E2.67991
G1 X132.55 Y120.74 E2.70622
G1 X132.34 Y120.34 E2.73389
G1 X132.11 Y119.99 E2.76041
G1 X131.84 Y119.65 E2.78749
G1 X131.55 Y119.34 E2.81395
G1 X131.22 Y119.06 E2.84098
G1 X130.86 Y118.81 E2.86836
G1 X130.49 Y118.61 E2.89432
G1 X130.09 Y118.43 E2.92178
G1 X129.72 Y118.31 E2.94622
G1 X129.68 Y118.30 E2.94870
G1 X129.26 Y118.21 E2.97556
G1 X128.83 Y118.16 E3.00249
G1 X128.40 Y118.15 E3.02919
G1 X127.97 Y118.19 E3.05578
G1 X127.54 Y118.27 E3.08329
G1 X127.13 Y118.39 E3.11006
G1 X126.74 Y118.54 E3.13629
G1 X126.35 Y118.74 E3.16349
G1 X125.99 Y118.97 E3.19028
G1 X125.64 Y119.25 E3.21798
G1 X125.34 Y119.54 E3.24436
G0 F6000 X124.97 Y119.20
G1 F2700 X124.66 Y119.56 E3.27387
G1 X124.39 Y119.97 E3.30435
G1 X124.16 Y120.38 E3.33369
G1 X123.96 Y120.82 E3.36411
G1 X123.82 Y121.28 E3.39419
G1 X123.72 Y121.72 E3.42200
G1 X123.66 Y122.24 E3.45453
G1 X123.65 Y122.70 E3.48341
G1 X123.69 Y123.18 E3.51351
G1 X123.78 Y123.66 E3.54374
G1 X123.91 Y124.12 E3.57377
G1 X124.09 Y124.56 E3.60347
G1 X124.30 Y124.98 E3.63290
G1 X124.57 Y125.40 E3.66353
G1 X124.86 Y125.77 E3.69327
G1 X125.20 Y126.11 E3.72308
G1 X125.57 Y126.43 E3.75330
G1 X125.96 Y126.70 E3.78297
G1 X126.38 Y126.93 E3.81315
G1 X126.82 Y127.12 E3.84284
G1 X127.29 Y127.27 E3.87351
G1 X127.74 Y127.37 E3.90273
G1 X128.22 Y127.43 E3.93286
G1 X128.70 Y127.44 E3.96249
G1 X129.18 Y127.39 E3.99259
G1 X129.66 Y127.31 E4.02301
G1 X130.11 Y127.18 E4.05246
G1 X130.56 Y127.00 E4.08242
G1 X130.99 Y126.78 E4.11271
G1 X131.39 Y126.52 E4.14217
G1 X131.77 Y126.22 E4.17271
G1 X132.11 Y125.89 E4.20191
G1 X132.42 Y125.52 E4.23222
G1 X132.70 Y125.13 E4.26197
G1 X132.93 Y124.71 E4.29215
G1 X133.12 Y124.27 E4.32212
G1 X133.27 Y123.81 E4.35212
G1 X133.37 Y123.34 E4.38198
G1 X133.43 Y122.86 E4.41192
G1 X133.43 Y122.38 E4.44204
G1 X133.40 Y121.91 E4.47151
G1 X133.31 Y121.43 E4.50195
G1 X133.18 Y120.97 E4.53203
G1 X133.00 Y120.54 E4.56089
G1 X132.78 Y120.10 E4.59174
G1 X132.52 Y119.69 E4.62178
G1 X132.22 Y119.32 E4.65130
G1 X131.89 Y118.98 E4.68081
G1 X131.52 Y118.66 E4.71165
G1 X131.12 Y118.39 E4.74154
G1 X130.71 Y118.16 E4.77088
G1 X130.27 Y117.97 E4.80105
G1 X129.87 Y117.84 E4.82718
G1 X129.81 Y117.82 E4.83138
G1 X129.34 Y117.72 E4.86104
G1 X128.86 Y117.66 E4.89099
G1 X128.39 Y117.65 E4.92061
G1 X127.91 Y117.69 E4.95084
G1 X127.43 Y117.78 E4.98114
G1 X126.97 Y117.91 E5.01071
G1 X126.52 Y118.09 E5.04075
G1 X126.10 Y118.30 E5.07012
G1 X125.69 Y118.57 E5.10075
G1 X125.32 Y118.87 E5.13049
G1 X124.97 Y119.20 E5.16065
G0 F6000 X124.61 Y118.86
G1 F2700 X124.26 Y119.27 E5.19410
G1 X123.96 Y119.70 E5.22678
G1 X123.71 Y120.16 E5.25961
G1 X123.50 Y120.64 E5.29271
G1 X123.33 Y121.14 E5.32553
G1 X123.23 Y121.65 E5.35781
G1 X123.16 Y122.20 E5.39222
G1 X123.15 Y122.71 E5.42422
G1 X123.20 Y123.25 E5.45794
G1 X123.29 Y123.77 E5.49065
G1 X123.44 Y124.28 E5.52403
G1 X123.63 Y124.77 E5.55684
G1 X123.87 Y125.24 E5.58972
G1 X124.16 Y125.69 E5.62280
G1 X124.49 Y126.10 E5.65555
G1 X124.86 Y126.48 E5.68885
G1 X125.26 Y126.82 E5.72190
G1 X125.69 Y127.12 E5.75458
G1 X126.16 Y127.38 E5.78811
G1 X126.64 Y127.59 E5.82067
G1 X127.15 Y127.75 E5.85382
G1 X127.67 Y127.87 E5.88731
G1 X128.19 Y127.93 E5.91977
G1 X128.71 Y127.94 E5.95233
G1 X129.25 Y127.89 E5.98606
G1 X129.76 Y127.80 E6.01864
G1 X130.28 Y127.65 E6.05230
G1 X130.77 Y127.46 E6.08502
G1 X131.24 Y127.22 E6.11777
G1 X131.69 Y126.93 E6.15107
G1 X132.09 Y126.60 E6.18356
G1 X132.48 Y126.23 E6.21664
G1 X132.82 Y125.83 E6.24995
G1 X133.12 Y125.39 E6.28294
G1 X133.38 Y124.92 E6.31638
G1 X133.59 Y124.45 E6.34853
G1 X133.75 Y123.93 E6.38233
G1 X133.86 Y123.42 E6.41493
G1 X133.93 Y122.90 E6.44783
G1 X133.93 Y122.37 E6.48082
G1 X133.89 Y121.84 E6.51405
G1 X133.79 Y121.32 E6.54707
G1 X133.65 Y120.81 E6.57968
G1 X133.45 Y120.32 E6.61311
G1 X133.21 Y119.84 E6.64632
G1 X132.93 Y119.41 E6.67859
G1 X132.60 Y118.99 E6.71174
G1 X132.22 Y118.60 E6.74548
G1 X131.83 Y118.27 E6.77747
G1 X131.38 Y117.96 E6.81158
G1 X130.93 Y117.71 E6.84385
G1 X130.44 Y117.50 E6.87695
G1 X130.02 Y117.36 E6.90458
G1 X129.93 Y117.33 E6.91054
G1 X129.42 Y117.22 E6.94301
G1 X128.90 Y117.16 E6.97591
G1 X128.37 Y117.15 E7.00916
G1 X127.85 Y117.20 E7.04163
G1 X127.32 Y117.29 E7.07485
G1 X126.80 Y117.44 E7.10857
G1 X126.32 Y117.63 E7.14110
G1 X125.85 Y117.87 E7.17398
G1 X125.40 Y118.16 E7.20705
G1 X124.99 Y118.49 E7.23981
G1 X124.61 Y118.86 E7.27302
G0 F6000 X124.24 Y118.52
G1 F2700 X123.87 Y118.95 E7.30859
G1 X123.54 Y119.43 E7.34495
G1 X123.25 Y119.95 E7.38180
G1 X123.03 Y120.47 E7.41708
G1 X122.85 Y121.02 E7.45337
G1 X122.73 Y121.56 E7.48775
G1 X122.66 Y122.17 E7.52631
G1 X122.65 Y122.73 E7.56142
G1 X122.70 Y123.31 E7.59741
G1 X122.81 Y123.89 E7.63392
G1 X122.96 Y124.44 E7.66997
G1 X123.17 Y124.97 E7.70524
G1 X123.44 Y125.50 E7.74267
G1 X123.75 Y125.97 E7.77749
G1 X124.12 Y126.44 E7.81447
G1 X124.51 Y126.84 E7.84984
G1 X124.96 Y127.22 E7.88630
G1 X125.43 Y127.55 E7.92192
G1 X125.94 Y127.83 E7.95880
G1 X126.46 Y128.06 E7.99407
G1 X127.02 Y128.24 E8.03056
G1 X127.58 Y128.36 E8.06641
G1 X128.16 Y128.43 E8.10307
G1 X128.73 Y128.44 E8.13856
G1 X129.31 Y128.39 E8.17454
G1 X129.88 Y128.28 E8.21066
G1 X130.44 Y128.12 E8.24732
G1 X130.97 Y127.92 E8.28251
G1 X131.50 Y127.65 E8.31939
G1 X131.98 Y127.34 E8.35507
G1 X132.43 Y126.98 E8.39107
G1 X132.85 Y126.57 E8.42754
G1 X133.22 Y126.14 E8.46289
G1 X133.55 Y125.66 E8.49934
G1 X133.83 Y125.15 E8.53546
G1 X134.06 Y124.61 E8.57191
G1 X134.23 Y124.08 E8.60706
G1 X134.36 Y123.50 E8.64369
G1 X134.42 Y122.92 E8.68016
G1 X134.43 Y122.36 E8.71540
G1 X134.39 Y121.77 E8.75213
G1 X134.28 Y121.20 E8.78814
G1 X134.13 Y120.65 E8.82373
G1 X133.91 Y120.12 E8.85962
G1 X133.64 Y119.59 E8.89658
G1 X133.33 Y119.11 E8.93254
G1 X132.98 Y118.67 E8.96774
G1 X132.57 Y118.24 E9.00448
G1 X132.13 Y117.87 E9.04031
G1 X131.66 Y117.54 E9.07640
G1 X131.14 Y117.25 E9.11311
G1 X130.62 Y117.03 E9.14850
G1 X130.18 Y116.89 E9.17765
G1 X130.07 Y116.85 E9.18448
G1 X129.50 Y116.73 E9.22078
G1 X128.92 Y116.66 E9.25725
G1 X128.35 Y116.65 E9.29280
G1 X127.78 Y116.70 E9.32884
G1 X127.21 Y116.80 E9.36478
G1 X126.64 Y116.97 E9.40162
G1 X126.12 Y117.17 E9.43655
G1 X125.59 Y117.45 E9.47398
G1 X125.12 Y117.75 E9.50881
G1 X124.65 Y118.12 E9.54579
G1 X124.24 Y118.52 E9.58147
G0 F6000 X123.88 Y118.17
G1 F2700 X123.47 Y118.65 E9.62005
G1 X123.11 Y119.17 E9.65966
G1 X122.80 Y119.73 E9.69947
G1 X122.56 Y120.29 E9.73746
G1 X122.37 Y120.89 E9.77710
G1 X122.24 Y121.47 E9.81436
G1 X122.16 Y122.14 E9.85580
G1 X122.15 Y122.75 E9.89404
G1 X122.20 Y123.38 E9.93358
G1 X122.32 Y124.00 E9.97282
G1 X122.49 Y124.60 E10.01193
G1 X122.72 Y125.18 E10.05060
G1 X123.01 Y125.75 E10.09037
G1 X123.34 Y126.27 E10.12903
G1 X123.73 Y126.75 E10.16779
G1 X124.18 Y127.22 E10.20779
G1 X124.65 Y127.61 E10.24624
G1 X125.17 Y127.97 E10.28568
G1 X125.72 Y128.28 E10.32535
G1 X126.28 Y128.53 E10.36347
G1 X126.89 Y128.72 E10.40345
G1 X127.50 Y128.85 E10.44210
G1 X128.13 Y128.93 E10.48171
G1 X128.75 Y128.94 E10.52020
G1 X129.38 Y128.88 E10.55974
G1 X129.99 Y128.77 E10.59860
G1 X130.60 Y128.60 E10.63803
G1 X131.18 Y128.37 E10.67705
G1 X131.75 Y128.08 E10.71666
G1 X132.26 Y127.75 E10.75509
G1 X132.75 Y127.36 E10.79411
G1 X133.21 Y126.92 E10.83363
G1 X133.61 Y126.44 E10.87234
G1 X133.98 Y125.91 E10.91268
G1 X134.28 Y125.38 E10.95062
G1 X134.53 Y124.79 E10.99033
G1 X134.72 Y124.20 E11.02897
G1 X134.85 Y123.59 E11.06834
G1 X134.92 Y122.96 E11.10782
G1 X134.93 Y122.33 E11.14668
G1 X134.88 Y121.71 E11.18572
G1 X134.77 Y121.09 E11.22515
G1 X134.60 Y120.49 E11.26374
G1 X134.37 Y119.91 E11.30304
G1 X134.08 Y119.34 E11.34287
G1 X133.75 Y118.83 E11.38105
G1 X133.35 Y118.33 E11.42033
G1 X132.91 Y117.88 E11.45998
G1 X132.44 Y117.48 E11.49843
G1 X131.92 Y117.11 E11.53818
G1 X131.36 Y116.80 E11.57785
G1 X130.80 Y116.56 E11.61592
G1 X130.33 Y116.41 E11.64682
G1 X130.20 Y116.37 E11.65540
G1 X129.59 Y116.23 E11.69446
G1 X128.96 Y116.16 E11.73394
G1 X128.34 Y116.15 E11.77242
G1 X127.71 Y116.20 E11.81210
G1 X127.09 Y116.32 E11.85082
G1 X126.48 Y116.49 E11.89066
G1 X125.91 Y116.72 E11.92899
G1 X125.34 Y117.01 E11.96876
G1 X124.82 Y117.34 E12.00742
G1 X124.33 Y117.73 E12.04644
G1 X123.88 Y118.17 E12.08600
G0 F6000 X123.52 Y117.82
G1 F2700 X123.07 Y118.35 E12.12901
G1 X122.69 Y118.90 E12.17042
G1 X122.36 Y119.50 E12.21324
G1 X122.09 Y120.12 E12.25565
G1 X121.88 Y120.76 E12.29777
G1 X121.75 Y121.39 E12.33777
G1 X121.66 Y122.11 E12.38280
G1 X121.65 Y122.76 E12.42359
G1 X121.71 Y123.45 E12.46657
G1 X121.83 Y124.11 E12.50880
G1 X122.01 Y124.76 E12.55087
G1 X122.26 Y125.38 E12.59252
G1 X122.57 Y126.00 E12.63536
G1 X122.94 Y126.56 E12.67714
G1 X123.36 Y127.09 E12.71980
G1 X123.83 Y127.57 E12.76134
G1 X124.35 Y128.01 E12.80400
G1 X124.90 Y128.40 E12.84595
G1 X125.49 Y128.73 E12.88827
G1 X126.12 Y129.00 E12.93061
G1 X126.77 Y129.21 E12.97313
G1 X127.42 Y129.35 E13.01479
G1 X128.09 Y129.43 E13.05729
G1 X128.76 Y129.44 E13.09876
G1 X129.45 Y129.38 E13.14175
G1 X130.11 Y129.26 E13.18358
G1 X130.76 Y129.07 E13.22600
G1 X131.39 Y128.82 E13.26831
G1 X131.99 Y128.52 E13.31003
G1 X132.56 Y128.15 E13.35285
G1 X133.09 Y127.73 E13.39497
G1 X133.57 Y127.27 E13.43612
G1 X134.02 Y126.73 E13.47970
G1 X134.40 Y126.19 E13.52116
G1 X134.73 Y125.59 E13.56357
G1 X135.00 Y124.97 E13.60572
G1 X135.20 Y124.33 E13.64769
G1 X135.35 Y123.67 E13.69012
G1 X135.42 Y122.99 E13.73242
G1 X135.43 Y122.32 E13.77415
G1 X135.38 Y121.64 E13.81682
G1 X135.26 Y120.97 E13.85911
G1 X135.07 Y120.33 E13.90072
G1 X134.82 Y119.70 E13.94333
G1 X134.52 Y119.10 E13.98525
G1 X134.15 Y118.52 E14.02797
G1 X133.73 Y118.00 E14.06979
G1 X133.26 Y117.51 E14.11195
G1 X132.74 Y117.07 E14.15429
G1 X132.19 Y116.69 E14.19602
G1 X131.59 Y116.36 E14.23870
G1 X130.97 Y116.09 E14.28116
G1 X130.48 Y115.93 E14.31293
G1 X130.33 Y115.88 E14.32309
G1 X129.67 Y115.74 E14.36527
G1 X128.99 Y115.66 E14.40757
G1 X128.33 Y115.65 E14.44905
G1 X127.64 Y115.71 E14.49222
G1 X126.98 Y115.83 E14.53386
G1 X126.32 Y116.02 E14.57660
G1 X125.70 Y116.26 E14.61798
G1 X125.09 Y116.58 E14.66082
G1 X124.53 Y116.94 E14.70259
G1 X123.99 Y117.36 E14.74525
G1 X123.52 Y117.82 E14.78662
G0 F6000 X123.14 Y117.49
G1 F2700 X122.68 Y118.04 E14.83118
G1 X122.26 Y118.64 E14.87681
G1 X121.91 Y119.27 E14.92193
G1 X121.62 Y119.94 E14.96732
G1 X121.40 Y120.63 E15.01238
G1 X121.25 Y121.32 E15.05646
G1 X121.16 Y122.07 E15.10363
G1 X121.15 Y122.78 E15.14816
G1 X121.21 Y123.51 E15.19347
G1 X121.34 Y124.23 E15.23904
G1 X121.54 Y124.92 E15.28397
G1 X121.81 Y125.59 E15.32918
G1 X122.14 Y126.24 E15.37473
G1 X122.53 Y126.85 E15.41957
G1 X122.98 Y127.42 E15.46524
G1 X123.49 Y127.94 E15.51058
G1 X124.04 Y128.41 E15.55571
G1 X124.64 Y128.82 E15.60071
G1 X125.27 Y129.18 E15.64629
G1 X125.94 Y129.47 E15.69135
G1 X126.63 Y129.69 E15.73669
G1 X127.35 Y129.84 E15.78250
G1 X128.06 Y129.93 E15.82725
G1 X128.78 Y129.94 E15.87235
G1 X129.51 Y129.88 E15.91765
G1 X130.22 Y129.75 E15.96304
G1 X130.92 Y129.55 E16.00810
G1 X131.60 Y129.28 E16.05371
G1 X132.24 Y128.95 E16.09844
G1 X132.85 Y128.56 E16.14397
G1 X133.43 Y128.10 E16.18983
G1 X133.94 Y127.60 E16.23441
G1 X134.41 Y127.05 E16.27994
G1 X134.82 Y126.45 E16.32490
G1 X135.17 Y125.82 E16.37004
G1 X135.47 Y125.15 E16.41587
G1 X135.69 Y124.45 E16.46113
G1 X135.84 Y123.75 E16.50623
G1 X135.92 Y123.03 E16.55143
G1 X135.94 Y122.31 E16.59615
G1 X135.87 Y121.57 E16.64245
G1 X135.75 Y120.86 E16.68739
G1 X135.55 Y120.17 E16.73232
G1 X135.28 Y119.50 E16.77753
G1 X134.95 Y118.85 E16.82269
G1 X134.55 Y118.23 E16.86839
G1 X134.10 Y117.67 E16.91371
G1 X133.60 Y117.15 E16.95834
G1 X133.04 Y116.67 E17.00449
G1 X132.45 Y116.27 E17.04908
G1 X131.82 Y115.91 E17.09442
G1 X131.15 Y115.62 E17.13995
G1 X130.63 Y115.46 E17.17342
G1 X130.46 Y115.40 E17.18521
G1 X129.75 Y115.25 E17.23039
G1 X129.03 Y115.16 E17.27558
G1 X128.30 Y115.15 E17.32068
G1 X127.58 Y115.21 E17.36617
G1 X126.86 Y115.34 E17.41137
G1 X126.17 Y115.54 E17.45663
G1 X125.49 Y115.81 E17.50170
G1 X124.84 Y116.14 E17.54725
G1 X124.24 Y116.53 E17.59209
G1 X123.67 Y116.98 E17.63776
G1 X123.14 Y117.49 E17.68332
G0 F6000 X122.78 Y117.14
G1 F2700 X122.28 Y117.73 E17.73182
G1 X121.84 Y118.38 E17.78068
G1 X121.46 Y119.05 E17.82873
G1 X121.15 Y119.76 E17.87685
G1 X120.92 Y120.50 E17.92525
G1 X120.76 Y121.23 E17.97183
G1 X120.66 Y122.03 E18.02226
G1 X120.65 Y122.81 E18.07047
G1 X120.72 Y123.58 E18.11884
G1 X120.85 Y124.33 E18.16651
G1 X121.07 Y125.09 E18.21566
G1 X121.35 Y125.80 E18.26361
G1 X121.70 Y126.49 E18.31164
G1 X122.12 Y127.14 E18.36023
G1 X122.61 Y127.75 E18.40879
G1 X123.14 Y128.31 E18.45678
G1 X123.74 Y128.81 E18.50514
G1 X124.37 Y129.25 E18.55318
G1 X125.06 Y129.63 E18.60215
G1 X125.76 Y129.93 E18.64991
G1 X126.50 Y130.17 E18.69859
G1 X127.26 Y130.34 E18.74682
G1 X128.03 Y130.42 E18.79503
G1 X128.81 Y130.44 E18.84368
G1 X129.58 Y130.37 E18.89205
G1 X130.34 Y130.24 E18.94016
G1 X131.07 Y130.02 E18.98802
G1 X131.80 Y129.74 E19.03691
G1 X132.49 Y129.38 E19.08488
G1 X133.15 Y128.96 E19.13370
G1 X133.75 Y128.48 E19.18155
G1 X134.31 Y127.94 E19.23002
G1 X134.81 Y127.35 E19.27856
G1 X135.25 Y126.71 E19.32679
G1 X135.62 Y126.04 E19.37489
G1 X135.93 Y125.33 E19.42343
G1 X136.17 Y124.59 E19.47155
G1 X136.33 Y123.83 E19.51998
G1 X136.42 Y123.06 E19.56819
G1 X136.44 Y122.28 E19.61709
G1 X136.37 Y121.51 E19.66515
G1 X136.24 Y120.76 E19.71288
G1 X136.02 Y120.00 E19.76203
G1 X135.74 Y119.29 E19.80945
G1 X135.38 Y118.60 E19.85832
G1 X134.96 Y117.94 E19.90691
G1 X134.49 Y117.34 E19.95445
G1 X133.94 Y116.78 E20.00336
G1 X133.35 Y116.28 E20.05171
G1 X132.71 Y115.84 E20.09994
G1 X132.03 Y115.46 E20.14827
G1 X131.32 Y115.15 E20.19653
G1 X130.79 Y114.98 E20.23170
G1 X130.59 Y114.92 E20.24499
G1 X129.83 Y114.75 E20.29316
G1 X129.06 Y114.67 E20.34137
G1 X128.28 Y114.65 E20.39008
G1 X127.51 Y114.72 E20.43839
G1 X126.75 Y114.86 E20.48657
G1 X126.01 Y115.07 E20.53476
G1 X125.28 Y115.35 E20.58316
G1 X124.60 Y115.70 E20.63119
G1 X123.94 Y116.13 E20.67978
G1 X123.33 Y116.61 E20.72834
G1 X122.78 Y117.14 E20.77606
G0 F6000 X122.41 Y116.81
G1 F2700 X121.88 Y117.44 E20.82765
G1 X121.42 Y118.11 E20.87844
G1 X121.01 Y118.83 E20.93031
G1 X120.69 Y119.58 E20.98117
G1 X120.43 Y120.37 E21.03304
G1 X120.27 Y121.15 E21.08248
G1 X120.17 Y122.00 E21.13561
G1 X120.15 Y122.82 E21.18700
G1 X120.22 Y123.65 E21.23882
G1 X120.36 Y124.45 E21.28946
G1 X120.59 Y125.25 E21.34153
G1 X120.89 Y126.01 E21.39257
G1 X121.27 Y126.74 E21.44358
G1 X121.72 Y127.44 E21.49568
G1 X122.23 Y128.08 E21.54633
G1 X122.80 Y128.67 E21.59819
G1 X123.44 Y129.21 E21.64992
G1 X124.10 Y129.67 E21.70043
G1 X124.84 Y130.08 E21.75275
G1 X125.58 Y130.40 E21.80339
G1 X126.37 Y130.66 E21.85520
G1 X127.17 Y130.83 E21.90636
G1 X127.99 Y130.92 E21.95759
G1 X128.82 Y130.94 E22.00923
G1 X129.65 Y130.87 E22.06105
G1 X130.44 Y130.72 E22.11149
G1 X131.25 Y130.50 E22.16357
G1 X132.01 Y130.19 E22.21486
G1 X132.75 Y129.81 E22.26640
G1 X133.44 Y129.37 E22.31760
G1 X134.07 Y128.86 E22.36847
G1 X134.67 Y128.28 E22.42038
G1 X135.21 Y127.65 E22.47189
G1 X135.67 Y126.98 E22.52316
G1 X136.08 Y126.25 E22.57475
G1 X136.40 Y125.51 E22.62553
G1 X136.65 Y124.72 E22.67726
G1 X136.83 Y123.91 E22.72869
G1 X136.92 Y123.10 E22.77979
G1 X136.94 Y122.27 E22.83162
G1 X136.87 Y121.44 E22.88324
G1 X136.72 Y120.64 E22.93389
G1 X136.50 Y119.85 E22.98545
G1 X136.19 Y119.08 E23.03710
G1 X135.81 Y118.35 E23.08828
G1 X135.37 Y117.65 E23.13990
G1 X134.86 Y117.01 E23.19094
G1 X134.28 Y116.41 E23.24285
G1 X133.65 Y115.88 E23.29396
G1 X132.98 Y115.41 E23.34532
G1 X132.25 Y115.01 E23.39691
G1 X131.50 Y114.69 E23.44788
G1 X130.94 Y114.51 E23.48476
G1 X130.71 Y114.43 E23.49969
G1 X129.91 Y114.26 E23.55087
G1 X129.10 Y114.17 E23.60196
G1 X128.27 Y114.15 E23.65367
G1 X127.45 Y114.22 E23.70492
G1 X126.64 Y114.37 E23.75645
G1 X125.84 Y114.60 E23.80833
G1 X125.08 Y114.90 E23.85917
G1 X124.35 Y115.27 E23.91018
G1 X123.65 Y115.72 E23.96228
G1 X123.01 Y116.23 E24.01293
G1 X122.41 Y116.81 E24.06488
G0 F6000 X122.05 Y116.46
G1 F2700 X121.48 Y117.13 E24.11940
G1 X120.99 Y117.85 E24.17390
G1 X120.57 Y118.60 E24.22792
G1 X120.22 Y119.42 E24.28317
G1 X119.95 Y120.25 E24.33755
G1 X119.77 Y121.07 E24.39006
G1 X119.67 Y121.96 E24.44588
G1 X119.65 Y122.84 E24.50102
G1 X119.72 Y123.70 E24.55458
G1 X119.88 Y124.57 E24.60979
G1 X120.12 Y125.41 E24.66434
G1 X120.44 Y126.21 E24.71778
G1 X120.84 Y126.99 E24.77295
G1 X121.31 Y127.72 E24.82713
G1 X121.86 Y128.42 E24.88244
G1 X122.46 Y129.04 E24.93598
G1 X123.13 Y129.60 E24.99063
G1 X123.84 Y130.10 E25.04498
G1 X124.61 Y130.52 E25.09936
G1 X125.42 Y130.87 E25.15439
G1 X126.24 Y131.14 E25.20871
G1 X127.09 Y131.32 E25.26294
G1 X127.96 Y131.42 E25.31705
G1 X128.84 Y131.44 E25.37225
G1 X129.70 Y131.37 E25.42581
G1 X130.56 Y131.21 E25.48084
G1 X131.41 Y130.97 E25.53531
G1 X132.22 Y130.65 E25.58995
G1 X132.99 Y130.25 E25.64392
G1 X133.72 Y129.78 E25.69805
G1 X134.42 Y129.23 E25.75362
G1 X135.03 Y128.63 E25.80725
G1 X135.60 Y127.96 E25.86163
G1 X136.10 Y127.24 E25.91631
G1 X136.52 Y126.48 E25.97097
G1 X136.87 Y125.68 E26.02502
G1 X137.14 Y124.84 E26.08010
G1 X137.32 Y123.99 E26.13414
G1 X137.42 Y123.13 E26.18825
G1 X137.44 Y122.25 E26.24295
G1 X137.36 Y121.38 E26.29757
G1 X137.21 Y120.52 E26.35221
G1 X136.97 Y119.69 E26.40622
G1 X136.65 Y118.87 E26.46117
G1 X136.25 Y118.10 E26.51500
G1 X135.78 Y117.36 E26.56954
G1 X135.23 Y116.67 E26.62472
G1 X134.63 Y116.05 E26.67857
G1 X133.96 Y115.49 E26.73281
G1 X133.24 Y114.99 E26.78780
G1 X132.49 Y114.57 E26.84154
G1 X131.67 Y114.22 E26.89693
G1 X131.09 Y114.03 E26.93466
G1 X130.84 Y113.95 E26.95136
G1 X129.99 Y113.77 E27.00534
G1 X129.13 Y113.67 E27.05939
G1 X128.25 Y113.65 E27.11471
G1 X127.39 Y113.72 E27.16821
G1 X126.52 Y113.88 E27.22331
G1 X125.68 Y114.12 E27.27809
G1 X124.88 Y114.44 E27.33142
G1 X124.09 Y114.84 E27.38658
G1 X123.36 Y115.31 E27.44076
G1 X122.67 Y115.86 E27.49607
G1 X122.05 Y116.46 E27.54975
G0 F6000 X121.69 Y116.11
G1 F2700 X121.09 Y116.82 E27.60766
G1 X120.56 Y117.59 E27.66549
G1 X120.12 Y118.38 E27.72247
G1 X119.75 Y119.24 E27.78037
G1 X119.47 Y120.11 E27.83763
G1 X119.28 Y120.99 E27.89364
G1 X119.17 Y121.93 E27.95279
G1 X119.15 Y122.85 E28.01042
G1 X119.23 Y123.77 E28.06749
G1 X119.39 Y124.68 E28.12568
G1 X119.64 Y125.57 E28.18313
G1 X119.98 Y126.42 E28.23999
G1 X120.41 Y127.25 E28.29811
G1 X120.90 Y128.01 E28.35504
G1 X121.48 Y128.75 E28.41332
G1 X122.11 Y129.40 E28.46986
G1 X122.83 Y130.00 E28.52836
G1 X123.58 Y130.52 E28.58519
G1 X124.39 Y130.97 E28.64292
G1 X125.24 Y131.34 E28.70068
G1 X126.11 Y131.62 E28.75787
G1 X127.01 Y131.82 E28.81543
G1 X127.93 Y131.92 E28.87317
G1 X128.85 Y131.94 E28.93068
G1 X129.76 Y131.86 E28.98775
G1 X130.68 Y131.70 E29.04574
G1 X131.56 Y131.44 E29.10295
G1 X132.42 Y131.10 E29.16054
G1 X133.25 Y130.68 E29.21839
G1 X134.02 Y130.19 E29.27551
G1 X134.75 Y129.61 E29.33356
G1 X135.40 Y128.97 E29.39015
G1 X136.00 Y128.26 E29.44833
G1 X136.52 Y127.51 E29.50561
G1 X136.97 Y126.70 E29.56348
G1 X137.34 Y125.85 E29.62093
G1 X137.62 Y124.99 E29.67752
G1 X137.81 Y124.08 E29.73576
G1 X137.92 Y123.16 E29.79339
G1 X137.94 Y122.23 E29.85108
G1 X137.86 Y121.32 E29.90827
G1 X137.69 Y120.41 E29.96615
G1 X137.44 Y119.53 E30.02308
G1 X137.10 Y118.67 E30.08056
G1 X136.68 Y117.84 E30.13849
G1 X136.18 Y117.07 E30.19597
G1 X135.61 Y116.34 E30.25363
G1 X134.97 Y115.69 E30.31048
G1 X134.26 Y115.09 E30.36848
G1 X133.50 Y114.56 E30.42607
G1 X132.70 Y114.12 E30.48316
G1 X131.85 Y113.75 E30.54126
G1 X131.25 Y113.55 E30.58068
G1 X130.98 Y113.47 E30.59823
G1 X130.07 Y113.27 E30.65598
G1 X129.16 Y113.17 E30.71360
G1 X128.23 Y113.15 E30.77117
G1 X127.32 Y113.23 E30.82831
G1 X126.41 Y113.39 E30.88612
G1 X125.52 Y113.65 E30.94396
G1 X124.67 Y113.98 E31.00068
G1 X123.84 Y114.41 E31.05880
G1 X123.07 Y114.90 E31.11573
G1 X122.34 Y115.48 E31.17401
G1 X121.69 Y116.11 E31.23068
G0 F6000 X121.31 Y115.78
G1 F2700 X120.69 Y116.51 E31.29037
G1 X120.14 Y117.32 E31.35133
G1 X119.67 Y118.17 E31.41177
G1 X119.28 Y119.06 E31.47239
G1 X118.98 Y119.98 E31.53299
G1 X118.78 Y120.91 E31.59207
G1 X118.67 Y121.89 E31.65398
G1 X118.65 Y122.87 E31.71467
G1 X118.73 Y123.84 E31.77531
G1 X118.91 Y124.80 E31.83622
G1 X119.17 Y125.73 E31.89653
G1 X119.53 Y126.63 E31.95689
G1 X119.97 Y127.50 E32.01780
G1 X120.50 Y128.31 E32.07821
G1 X121.10 Y129.07 E32.13848
G1 X121.78 Y129.77 E32.19948
G1 X122.52 Y130.40 E32.26028
G1 X123.31 Y130.95 E32.32015
G1 X124.17 Y131.42 E32.38123
G1 X125.06 Y131.81 E32.44165
G1 X125.98 Y132.11 E32.50219
G1 X126.93 Y132.31 E32.56286
G1 X127.90 Y132.42 E32.62344
G1 X128.87 Y132.44 E32.68394
G1 X129.84 Y132.36 E32.74457
G1 X130.79 Y132.18 E32.80530
G1 X131.72 Y131.92 E32.86553
G1 X132.63 Y131.56 E32.92648
G1 X133.49 Y131.12 E32.98701
G1 X134.31 Y130.59 E33.04769
G1 X135.07 Y129.99 E33.10819
G1 X135.77 Y129.31 E33.16870
G1 X136.39 Y128.57 E33.22892
G1 X136.95 Y127.77 E33.28961
G1 X137.42 Y126.92 E33.35024
G1 X137.81 Y126.03 E33.41138
G1 X138.10 Y125.11 E33.47129
G1 X138.31 Y124.16 E33.53210
G1 X138.42 Y123.19 E33.59267
G1 X138.44 Y122.22 E33.65324
G1 X138.36 Y121.25 E33.71380
G1 X138.18 Y120.29 E33.77472
G1 X137.92 Y119.36 E33.83497
G1 X137.56 Y118.46 E33.89532
G1 X137.11 Y117.59 E33.95641
G1 X136.59 Y116.79 E34.01616
G1 X135.98 Y116.01 E34.07781
G1 X135.31 Y115.32 E34.13761
G1 X134.57 Y114.69 E34.19854
G1 X133.77 Y114.14 E34.25914
G1 X132.92 Y113.67 E34.31952
G1 X132.03 Y113.28 E34.38035
G1 X131.11 Y112.98 E34.44055
G1 X130.16 Y112.78 E34.50135
G1 X129.19 Y112.67 E34.56193
G1 X128.22 Y112.65 E34.62249
G1 X127.25 Y112.73 E34.68306
G1 X126.29 Y112.91 E34.74386
G1 X125.36 Y113.17 E34.80442
G1 X124.46 Y113.53 E34.86464
G1 X123.59 Y113.97 E34.92555
G1 X122.78 Y114.50 E34.98596
G1 X122.02 Y115.10 E35.04623
G1 X121.31 Y115.78 E35.10772
G0 F6000 X120.95 Y115.43
G1 F2700 X120.29 Y116.22 E35.17165
G1 X119.71 Y117.05 E35.23517
G1 X119.22 Y117.94 E35.29871
G1 X118.81 Y118.88 E35.36226
G1 X118.50 Y119.86 E35.42631
G1 X118.29 Y120.82 E35.48763
G1 X118.17 Y121.87 E35.55351
G1 X118.15 Y122.89 E35.61737
G1 X118.23 Y123.90 E35.68039
G1 X118.42 Y124.91 E35.74465
G1 X118.70 Y125.89 E35.80796
G1 X119.07 Y126.83 E35.87137
G1 X119.54 Y127.74 E35.93524
G1 X120.09 Y128.60 E35.99876
G1 X120.73 Y129.41 E36.06295
G1 X121.43 Y130.13 E36.12601
G1 X122.22 Y130.80 E36.19009
G1 X123.05 Y131.37 E36.25305
G1 X123.95 Y131.87 E36.31743
G1 X124.88 Y132.28 E36.38056
G1 X125.85 Y132.59 E36.44456
G1 X126.85 Y132.81 E36.50798
G1 X127.86 Y132.92 E36.57163
G1 X128.89 Y132.94 E36.63569
G1 X129.90 Y132.85 E36.69870
G1 X130.91 Y132.67 E36.76278
G1 X131.88 Y132.39 E36.82601
G1 X132.84 Y132.02 E36.89004
G1 X133.75 Y131.55 E36.95385
G1 X134.59 Y131.00 E37.01670
G1 X135.40 Y130.36 E37.08076
G1 X136.14 Y129.65 E37.14475
G1 X136.79 Y128.88 E37.20789
G1 X137.38 Y128.03 E37.27189
G1 X137.87 Y127.14 E37.33546
G1 X138.28 Y126.20 E37.39928
G1 X138.59 Y125.24 E37.46269
G1 X138.80 Y124.24 E37.52623
G1 X138.92 Y123.23 E37.58989
G1 X138.94 Y122.21 E37.65338
G1 X138.85 Y121.18 E37.71751
G1 X138.67 Y120.18 E37.78122
G1 X138.39 Y119.20 E37.84450
G1 X138.02 Y118.26 E37.90791
G1 X137.55 Y117.35 E37.97164
G1 X137.00 Y116.49 E38.03557
G1 X136.36 Y115.69 E38.09896
G1 X135.65 Y114.95 E38.16299
G1 X134.88 Y114.30 E38.22613
G1 X134.03 Y113.71 E38.29036
G1 X133.14 Y113.22 E38.35373
G1 X132.21 Y112.81 E38.41728
G1 X131.24 Y112.50 E38.48096
G1 X130.24 Y112.28 E38.54450
G1 X129.22 Y112.17 E38.60816
G1 X128.20 Y112.15 E38.67228
G1 X127.19 Y112.23 E38.73523
G1 X126.18 Y112.42 E38.79937
G1 X125.20 Y112.70 E38.86298
G1 X124.25 Y113.07 E38.92622
G1 X123.34 Y113.54 E38.99009
G1 X122.49 Y114.09 E39.05361
G1 X121.68 Y114.73 E39.11779
G1 X120.95 Y115.43 E39.18086
G0 F6000 X120.59 Y115.09
G1 F2700 X119.89 Y115.91 E39.24780
G1 X119.28 Y116.79 E39.31464
G1 X118.77 Y117.73 E39.38127
G1 X118.34 Y118.70 E39.44736
G1 X118.01 Y119.73 E39.51477
G1 X117.80 Y120.74 E39.57919
G1 X117.67 Y121.83 E39.64764
G1 X117.65 Y122.90 E39.71463
G1 X117.74 Y123.97 E39.78115
G1 X117.93 Y125.03 E39.84840
G1 X118.22 Y126.05 E39.91461
G1 X118.61 Y127.04 E39.98140
G1 X119.10 Y127.99 E40.04770
G1 X119.69 Y128.90 E40.11501
G1 X120.34 Y129.73 E40.18119
G1 X121.09 Y130.50 E40.24818
G1 X121.92 Y131.20 E40.31561
G1 X122.78 Y131.80 E40.38109
G1 X123.73 Y132.32 E40.44882
G1 X124.70 Y132.74 E40.51468
G1 X125.73 Y133.07 E40.58203
G1 X126.77 Y133.30 E40.64849
G1 X127.83 Y133.42 E40.71497
G1 X128.90 Y133.44 E40.78196
G1 X129.96 Y133.35 E40.84848
G1 X131.02 Y133.16 E40.91555
G1 X132.04 Y132.87 E40.98150
G1 X133.05 Y132.47 E41.04928
G1 X133.99 Y131.99 E41.11533
G1 X134.89 Y131.41 E41.18196
G1 X135.73 Y130.74 E41.24850
G1 X136.50 Y130.00 E41.31545
G1 X137.19 Y129.18 E41.38243
G1 X137.80 Y128.30 E41.44895
G1 X138.32 Y127.36 E41.51586
G1 X138.75 Y126.38 E41.58242
G1 X139.07 Y125.36 E41.64916
G1 X139.30 Y124.32 E41.71576
G1 X139.42 Y123.26 E41.78224
G1 X139.44 Y122.19 E41.84929
G1 X139.35 Y121.12 E41.91574
G1 X139.16 Y120.06 E41.98299
G1 X138.87 Y119.04 E42.04920
G1 X138.47 Y118.05 E42.11602
G1 X137.98 Y117.10 E42.18263
G1 X137.41 Y116.21 E42.24860
G1 X136.74 Y115.36 E42.31620
G1 X135.99 Y114.59 E42.38275
G1 X135.18 Y113.90 E42.44969
G1 X134.29 Y113.29 E42.51652
G1 X133.36 Y112.77 E42.58316
G1 X132.39 Y112.34 E42.64943
G1 X131.36 Y112.02 E42.71645
G1 X130.32 Y111.79 E42.78305
G1 X129.26 Y111.67 E42.84953
G1 X128.19 Y111.65 E42.91658
G1 X127.12 Y111.74 E42.98304
G1 X126.06 Y111.93 E43.05017
G1 X125.04 Y112.22 E43.11669
G1 X124.05 Y112.62 E43.18329
G1 X123.10 Y113.10 E43.24959
G1 X122.19 Y113.69 E43.31689
G1 X121.36 Y114.35 E43.38307
G1 X120.59 Y115.09 E43.45007
G0 F6000 X118.49 Y113.12
G1 F2700 X119.46 Y112.19 E43.53422
G1 X120.52 Y111.35 E43.61833
G1 X121.65 Y110.61 E43.70253
G1 X122.85 Y110.00 E43.78665
G1 X124.10 Y109.50 E43.87077
G1 X125.40 Y109.13 E43.95496
G1 X126.73 Y108.89 E44.03914
G1 X128.07 Y108.78 E44.12324
G1 X129.42 Y108.80 E44.20738
G1 X130.76 Y108.95 E44.29156
G1 X132.08 Y109.23 E44.37575
G1 X133.37 Y109.65 E44.45988
G1 X134.37 Y110.08 E44.52792
G1 X138.51 Y107.70 E44.82599
G1 X140.87 Y111.79 E45.12045
G1 X140.67 Y113.69 E45.23978
G1 X140.65 Y115.56 E45.35646
G1 X140.69 Y116.15 E45.39329
G1 X141.05 Y116.84 E45.44204
G1 X141.55 Y118.09 E45.52586
G1 X141.92 Y119.39 E45.60999
G1 X142.16 Y120.72 E45.69411
G1 X142.27 Y122.06 E45.77828
G1 X142.25 Y123.41 E45.86235
G1 X142.19 Y123.92 E45.89417
G1 X142.90 Y125.95 E46.02832
G1 X143.81 Y128.19 E46.17935
G1 X144.85 Y130.36 E46.32911
G1 X145.99 Y132.46 E46.47827
G1 X147.24 Y134.51 E46.62825
G1 X148.60 Y136.48 E46.77717
G1 X150.04 Y138.36 E46.92489
G1 X151.54 Y140.09 E47.06779
G1 X151.69 Y140.25 E47.08146
G1 X152.47 Y140.44 E47.13154
G1 X153.11 Y140.76 E47.17558
G1 X153.31 Y140.96 E47.19321
G1 X153.71 Y141.16 E47.22113
G1 X154.27 Y141.72 E47.27070
G1 X156.00 Y142.05 E47.38036
G1 X158.33 Y142.36 E47.52733
G1 X160.70 Y142.55 E47.67541
G1 X163.11 Y142.62 E47.82582
G1 X165.52 Y142.55 E47.97616
G1 X167.89 Y142.36 E48.12424
G1 X170.22 Y142.05 E48.27128
G1 X171.93 Y141.72 E48.37980
G1 X172.82 Y141.07 E48.44850
G1 X173.97 Y140.38 E48.53233
G1 X175.19 Y139.80 E48.61643
G1 X176.46 Y139.34 E48.70064
G1 X177.77 Y139.02 E48.78479
G1 X179.10 Y138.82 E48.86884
G1 X180.45 Y138.75 E48.95294
G1 X180.47 Y138.75 E48.95456
G1 X182.03 Y137.83 E49.06737
G1 X183.46 Y136.81 E49.17689
G1 X183.86 Y136.45 E49.21064
G1 X188.30 Y136.45 E49.48766
G1 X188.30 Y141.22 E49.78544
G1 X189.18 Y141.87 E49.85355
G1 X190.18 Y142.77 E49.93735
G1 X191.08 Y143.77 E50.02141
G1 X191.88 Y144.86 E50.10553
G1 X192.58 Y146.01 E50.18979
G1 X193.16 Y147.23 E50.27387
G1 X193.61 Y148.50 E50.35808
G1 X193.94 Y149.81 E50.44222
G1 X194.14 Y151.15 E50.52628
G1 X194.21 Y152.49 E50.61044
G1 X194.14 Y153.84 E50.69454
G1 X193.94 Y155.18 E50.77871
G1 X193.62 Y156.49 E50.86290
G1 X193.16 Y157.76 E50.94709
G1 X192.59 Y158.98 E51.03114
G1 X191.89 Y160.13 E51.11537
G1 X191.09 Y161.22 E51.19946
G1 X190.18 Y162.22 E51.28361
G1 X189.18 Y163.12 E51.36776
G1 X188.31 Y163.78 E51.43591
G1 X188.30 Y168.55 E51.73388
G1 X183.58 Y168.55 E52.02842
G1 X182.03 Y167.43 E52.14753
G1 X180.43 Y166.49 E52.26361
G1 X179.89 Y166.22 E52.30118
G1 X179.11 Y166.18 E52.35001
G1 X177.78 Y165.99 E52.43372
G1 X176.47 Y165.66 E52.51793
G1 X175.20 Y165.21 E52.60212
G1 X173.98 Y164.63 E52.68619
G1 X172.82 Y163.94 E52.77039
G1 X172.41 Y163.63 E52.80201
G1 X170.29 Y163.23 E52.93689
G1 X167.89 Y162.90 E53.08819
G1 X165.52 Y162.71 E53.23626
G1 X163.11 Y162.65 E53.38661
G1 X160.70 Y162.71 E53.53696
G1 X158.33 Y162.90 E53.68510
G1 X156.00 Y163.21 E53.83208
G1 X153.72 Y163.65 E53.97666
G1 X153.00 Y163.83 E54.02317
G1 X152.31 Y164.52 E54.08389
G1 X151.71 Y164.82 E54.12561
G1 X151.10 Y165.02 E54.16531
G1 X149.82 Y166.51 E54.28823
G1 X148.37 Y168.39 E54.43589
G1 X147.02 Y170.35 E54.58487
G1 X145.76 Y172.41 E54.73483
G1 X144.62 Y174.51 E54.88401
G1 X143.59 Y176.68 E55.03377
G1 X142.69 Y178.85 E55.18059
G1 X142.12 Y180.49 E55.28837
G1 X142.25 Y181.58 E55.35717
G1 X142.27 Y182.92 E55.44087
G1 X142.16 Y184.27 E55.52509
G1 X141.92 Y185.60 E55.60926
G1 X141.55 Y186.90 E55.69337
G1 X141.06 Y188.15 E55.77752
G1 X140.44 Y189.35 E55.86167
G1 X140.43 Y189.37 E55.86330
G1 X140.44 Y191.18 E55.97599
G1 X140.62 Y192.93 E56.08550
G1 X140.73 Y193.46 E56.11914
G1 X138.51 Y197.30 E56.39619
G1 X134.37 Y194.91 E56.69400
G1 X133.37 Y195.35 E56.76204
G1 X132.09 Y195.76 E56.84583
G1 X130.77 Y196.04 E56.92997
G1 X129.43 Y196.20 E57.01411
G1 X128.09 Y196.22 E57.09824
G1 X126.74 Y196.11 E57.18233
G1 X125.41 Y195.87 E57.26662
G1 X124.11 Y195.50 E57.35073
G1 X122.86 Y195.01 E57.43489
G1 X121.66 Y194.39 E57.51898
G1 X120.52 Y193.66 E57.60317
G1 X119.47 Y192.82 E57.68733
G1 X118.50 Y191.88 E57.77148
G1 X117.62 Y190.85 E57.85563
G1 X116.86 Y189.75 E57.93971
G1 X116.20 Y188.57 E58.02385
G1 X115.66 Y187.33 E58.10806
G1 X115.25 Y186.04 E58.19219
G1 X114.96 Y184.73 E58.27635
G1 X114.84 Y183.64 E58.34453
G1 X110.70 Y181.25 E58.64249
G1 X113.07 Y177.15 E58.93759
G1 X113.24 Y177.09 E58.94915
G1 X114.81 Y176.38 E59.05611
G1 X116.44 Y175.46 E59.17281
G1 X116.93 Y175.13 E59.20994
G1 X117.35 Y174.47 E59.25869
G1 X118.19 Y173.42 E59.34254
G1 X119.12 Y172.45 E59.42669
G1 X120.16 Y171.57 E59.51089
G1 X121.26 Y170.81 E59.59500
G1 X122.44 Y170.15 E59.67908
G1 X122.91 Y169.95 E59.71086
G1 X124.33 Y168.31 E59.84597
G1 X125.81 Y166.40 E59.99694
G1 X127.16 Y164.43 E60.14583
G1 X128.42 Y162.38 E60.29584
G1 X129.56 Y160.28 E60.44497
G1 X130.59 Y158.11 E60.59473
G1 X131.49 Y155.93 E60.74160
G1 X132.24 Y153.76 E60.88453
G1 X132.35 Y153.39 E60.90903
G1 X132.29 Y153.33 E60.91371
G1 X132.29 Y152.73 E60.95112
G1 X132.09 Y152.53 E60.96876
G1 X132.09 Y151.34 E61.04285
G1 X132.29 Y151.15 E61.06049
G1 X132.29 Y150.60 E61.09429
G1 X131.71 Y148.93 E61.20501
G1 X130.82 Y146.76 E61.35101
G1 X129.79 Y144.60 E61.49992
G1 X128.64 Y142.48 E61.65077
G1 X127.39 Y140.44 E61.79987
G1 X126.03 Y138.46 E61.94965
G1 X124.59 Y136.60 E62.09651
G1 X123.46 Y135.29 E62.20421
G1 X122.45 Y134.85 E62.27309
G1 X121.27 Y134.20 E62.35681
G1 X120.16 Y133.43 E62.44098
G1 X119.13 Y132.56 E62.52514
G1 X118.19 Y131.59 E62.60929
G1 X117.36 Y130.53 E62.69345
G1 X116.62 Y129.40 E62.77766
G1 X116.61 Y129.38 E62.77919
G1 X115.03 Y128.48 E62.89248
G1 X113.44 Y127.77 E63.00140
G1 X112.92 Y127.60 E63.03516
G1 X110.70 Y123.75 E63.31221
G1 X114.84 Y121.36 E63.61002
G1 X114.96 Y120.28 E63.67813
G1 X115.25 Y118.97 E63.76196
G1 X115.66 Y117.68 E63.84607
G1 X116.19 Y116.44 E63.93023
G1 X116.85 Y115.26 E64.01437
G1 X117.62 Y114.15 E64.09846
G1 X118.49 Y113.12 E64.18266
G0 F6000 X118.12 Y112.78
G1 F2700 X119.13 Y111.81 E64.26986
G1 X120.22 Y110.94 E64.35703
G1 X121.40 Y110.18 E64.44426
G1 X122.64 Y109.54 E64.53148
G1 X123.94 Y109.03 E64.61868
G1 X125.29 Y108.64 E64.70591
G1 X126.66 Y108.39 E64.79319
G1 X128.06 Y108.28 E64.88029
G1 X129.46 Y108.30 E64.96755
G1 X130.84 Y108.46 E65.05474
G1 X132.21 Y108.75 E65.14200
G1 X133.54 Y109.18 E65.22925
G1 X134.34 Y109.52 E65.28316
G1 X138.69 Y107.02 E65.59665
G1 X141.38 Y111.68 E65.93243
G1 X141.17 Y113.72 E66.06022
G1 X141.15 Y115.54 E66.17385
G1 X141.19 Y116.01 E66.20343
G1 X141.51 Y116.64 E66.24738
G1 X142.02 Y117.93 E66.33429
G1 X142.41 Y119.28 E66.42145
G1 X142.66 Y120.65 E66.50868
G1 X142.77 Y122.05 E66.59585
G1 X142.75 Y123.44 E66.68298
G1 X142.70 Y123.86 E66.70922
G1 X143.37 Y125.79 E66.83627
G1 X144.27 Y127.99 E66.98492
G1 X145.29 Y130.13 E67.13262
G1 X146.42 Y132.21 E67.28016
G1 X147.67 Y134.25 E67.42964
G1 X149.01 Y136.19 E67.57636
G1 X150.44 Y138.04 E67.72229
G1 X151.90 Y139.74 E67.86214
G1 X151.96 Y139.80 E67.86695
G1 X152.65 Y139.97 E67.91157
G1 X153.40 Y140.35 E67.96406
G1 X153.60 Y140.55 E67.98174
G1 X154.00 Y140.75 E68.00963
G1 X154.51 Y141.26 E68.05470
G1 X156.08 Y141.56 E68.15445
G1 X158.36 Y141.87 E68.29778
G1 X160.73 Y142.05 E68.44604
G1 X163.11 Y142.12 E68.59433
G1 X165.49 Y142.05 E68.74256
G1 X167.85 Y141.87 E68.89082
G1 X170.13 Y141.56 E69.03421
G1 X171.73 Y141.25 E69.13537
G1 X172.54 Y140.65 E69.19841
G1 X173.73 Y139.94 E69.28529
G1 X175.00 Y139.34 E69.37246
G1 X176.31 Y138.87 E69.45976
G1 X177.67 Y138.53 E69.54693
G1 X179.05 Y138.32 E69.63407
G1 X180.33 Y138.26 E69.71393
G1 X181.76 Y137.41 E69.81757
G1 X183.14 Y136.42 E69.92370
G1 X183.67 Y135.95 E69.96774
G1 X188.80 Y135.95 E70.28784
G1 X188.80 Y140.97 E70.60115
G1 X189.50 Y141.49 E70.65505
G1 X190.53 Y142.42 E70.74194
G1 X191.47 Y143.46 E70.82910
G1 X192.30 Y144.58 E70.91619
G1 X193.02 Y145.78 E71.00355
G1 X193.62 Y147.04 E71.09075
G1 X194.09 Y148.36 E71.17800
G1 X194.43 Y149.72 E71.26517
G1 X194.64 Y151.10 E71.35231
G1 X194.71 Y152.49 E71.43948
G1 X194.64 Y153.89 E71.52670
G1 X194.43 Y155.27 E71.61390
G1 X194.10 Y156.63 E71.70117
G1 X193.62 Y157.95 E71.78840
G1 X193.03 Y159.21 E71.87557
G1 X192.31 Y160.41 E71.96284
G1 X191.48 Y161.53 E72.04997
G1 X190.54 Y162.57 E72.13721
G1 X189.50 Y163.51 E72.22441
G1 X188.81 Y164.03 E72.27839
G1 X188.80 Y169.05 E72.59189
G1 X183.42 Y169.05 E72.92771
G1 X181.76 Y167.85 E73.05558
G1 X180.19 Y166.93 E73.16892
G1 X179.76 Y166.72 E73.19874
G1 X179.06 Y166.68 E73.24269
G1 X177.68 Y166.48 E73.32943
G1 X176.32 Y166.14 E73.41672
G1 X175.01 Y165.67 E73.50395
G1 X173.74 Y165.07 E73.59115
G1 X172.54 Y164.35 E73.67830
G1 X172.21 Y164.10 E73.70449
G1 X170.20 Y163.72 E73.83181
G1 X167.85 Y163.40 E73.97996
G1 X165.49 Y163.21 E74.12779
G1 X163.11 Y163.15 E74.27601
G1 X160.73 Y163.21 E74.42424
G1 X158.37 Y163.40 E74.57231
G1 X156.08 Y163.71 E74.71603
G1 X153.83 Y164.14 E74.85927
G1 X153.25 Y164.28 E74.89632
G1 X152.60 Y164.93 E74.95347
G1 X151.90 Y165.28 E75.00245
G1 X151.39 Y165.45 E75.03580
G1 X150.20 Y166.84 E75.14978
G1 X148.78 Y168.68 E75.29477
G1 X147.44 Y170.63 E75.44253
G1 X146.20 Y172.64 E75.59004
G1 X145.06 Y174.74 E75.73858
G1 X144.05 Y176.87 E75.88586
G1 X143.16 Y179.02 E76.03085
G1 X142.63 Y180.54 E76.13144
G1 X142.75 Y181.55 E76.19452
G1 X142.77 Y182.94 E76.28128
G1 X142.66 Y184.34 E76.36855
G1 X142.41 Y185.71 E76.45578
G1 X142.03 Y187.06 E76.54299
G1 X141.51 Y188.36 E76.63023
G1 X140.93 Y189.50 E76.71011
G1 X140.94 Y191.16 E76.81364
G1 X141.12 Y192.85 E76.91970
G1 X141.26 Y193.54 E76.96373
G1 X138.69 Y197.99 E77.28387
G1 X134.34 Y195.47 E77.59715
G1 X133.55 Y195.82 E77.65106
G1 X132.22 Y196.24 E77.73791
G1 X130.86 Y196.54 E77.82506
G1 X129.47 Y196.70 E77.91227
G1 X128.07 Y196.72 E77.99946
G1 X126.68 Y196.61 E78.08661
G1 X125.30 Y196.36 E78.17396
G1 X123.95 Y195.98 E78.26117
G1 X122.65 Y195.46 E78.34840
G1 X121.41 Y194.82 E78.43554
G1 X120.23 Y194.07 E78.52276
G1 X119.14 Y193.20 E78.60998
G1 X118.13 Y192.23 E78.69717
G1 X117.23 Y191.16 E78.78443
G1 X116.43 Y190.01 E78.87155
G1 X115.75 Y188.79 E78.95881
G1 X115.19 Y187.51 E79.04604
G1 X114.77 Y186.18 E79.13323
G1 X114.47 Y184.81 E79.22045
G1 X114.37 Y183.95 E79.27451
G1 X110.02 Y181.43 E79.58795
G1 X112.72 Y176.74 E79.92546
G1 X113.06 Y176.62 E79.94748
G1 X114.59 Y175.93 E80.05218
G1 X116.16 Y175.04 E80.16489
G1 X116.56 Y174.77 E80.19515
G1 X116.94 Y174.18 E80.23906
G1 X117.81 Y173.09 E80.32597
G1 X118.78 Y172.08 E80.41321
G1 X119.85 Y171.18 E80.50046
G1 X121.00 Y170.38 E80.58762
G1 X122.22 Y169.70 E80.67477
G1 X122.61 Y169.53 E80.70102
G1 X123.94 Y168.00 E80.82786
G1 X125.40 Y166.11 E80.97679
G1 X126.74 Y164.16 E81.12464
G1 X127.98 Y162.14 E81.27216
G1 X129.11 Y160.04 E81.42067
G1 X130.13 Y157.91 E81.56796
G1 X131.02 Y155.74 E81.71455
G1 X131.76 Y153.62 E81.85452
G1 X131.79 Y153.51 E81.86184
G1 X131.79 Y152.94 E81.89714
G1 X131.59 Y152.74 E81.91478
G1 X131.59 Y151.14 E82.01468
G1 X131.79 Y150.94 E82.03232
G1 X131.79 Y150.69 E82.04804
G1 X131.25 Y149.13 E82.15083
G1 X130.35 Y146.95 E82.29790
G1 X129.35 Y144.83 E82.44412
G1 X128.21 Y142.73 E82.59319
G1 X126.97 Y140.71 E82.74070
G1 X125.63 Y138.76 E82.88842
G1 X124.20 Y136.91 E83.03434
G1 X123.16 Y135.71 E83.13365
G1 X122.23 Y135.30 E83.19696
G1 X121.01 Y134.62 E83.28375
G1 X119.86 Y133.83 E83.37102
G1 X118.79 Y132.93 E83.45823
G1 X117.82 Y131.92 E83.54547
G1 X116.95 Y130.82 E83.63265
G1 X116.25 Y129.75 E83.71253
G1 X114.81 Y128.93 E83.81624
G1 X113.26 Y128.24 E83.92207
G1 X112.58 Y128.01 E83.96628
G1 X110.02 Y123.57 E84.28639
G1 X114.37 Y121.06 E84.59967
G1 X114.47 Y120.20 E84.65359
G1 X114.76 Y118.84 E84.74049
G1 X115.19 Y117.50 E84.82766
G1 X115.74 Y116.22 E84.91489
G1 X116.42 Y115.00 E85.00211
G1 X117.22 Y113.85 E85.08929
G1 X118.12 Y112.78 E85.17654
G0 F6000 X117.76 Y112.44
G1 F2700 X118.80 Y111.43 E85.26687
G1 X119.93 Y110.53 E85.35706
G1 X121.15 Y109.75 E85.44740
G1 X122.44 Y109.09 E85.53763
G1 X123.78 Y108.55 E85.62791
G1 X125.17 Y108.16 E85.71820
G1 X126.60 Y107.89 E85.80853
G1 X128.04 Y107.78 E85.89870
G1 X129.49 Y107.80 E85.98901
G1 X130.93 Y107.96 E86.07928
G1 X132.34 Y108.27 E86.16960
G1 X133.72 Y108.71 E86.25995
G1 X134.31 Y108.97 E86.29970
G1 X137.68 Y107.02 E86.54242
G1 X138.88 Y106.33 E86.62864
G1 X141.90 Y111.57 E87.00586
G1 X141.67 Y113.74 E87.14213
G1 X141.65 Y115.52 E87.25295
G1 X141.68 Y115.87 E87.27515
G1 X141.97 Y116.43 E87.31420
G1 X142.50 Y117.77 E87.40418
G1 X142.89 Y119.16 E87.49441
G1 X143.15 Y120.59 E87.58468
G1 X143.27 Y122.03 E87.67491
G1 X143.25 Y123.48 E87.76516
G1 X143.21 Y123.81 E87.78588
G1 X143.83 Y125.60 E87.90401
G1 X144.74 Y127.81 E88.05281
G1 X145.73 Y129.90 E88.19724
G1 X146.85 Y131.96 E88.34400
G1 X148.08 Y133.97 E88.49062
G1 X149.41 Y135.90 E88.63690
G1 X150.81 Y137.72 E88.77998
G1 X152.22 Y139.35 E88.91448
G1 X152.82 Y139.50 E88.95299
G1 X153.70 Y139.94 E89.01396
G1 X153.90 Y140.14 E89.03169
G1 X154.30 Y140.34 E89.05952
G1 X154.76 Y140.80 E89.10004
G1 X156.15 Y141.06 E89.18869
G1 X158.43 Y141.37 E89.33202
G1 X160.75 Y141.55 E89.47685
G1 X163.11 Y141.62 E89.62420
G1 X165.47 Y141.55 E89.77149
G1 X167.78 Y141.37 E89.91631
G1 X170.06 Y141.06 E90.05945
G1 X171.52 Y140.78 E90.15216
G1 X172.26 Y140.24 E90.20971
G1 X173.50 Y139.49 E90.29963
G1 X174.81 Y138.88 E90.38988
G1 X176.17 Y138.39 E90.48018
G1 X177.57 Y138.03 E90.57043
G1 X179.00 Y137.82 E90.66066
G1 X180.18 Y137.76 E90.73421
G1 X181.49 Y137.00 E90.82857
G1 X182.83 Y136.02 E90.93229
G1 X183.48 Y135.45 E90.98627
G1 X189.30 Y135.45 E91.34941
G1 X189.30 Y140.72 E91.67818
G1 X189.81 Y141.10 E91.71795
G1 X190.88 Y142.07 E91.80788
G1 X191.85 Y143.14 E91.89808
G1 X192.72 Y144.30 E91.98826
G1 X193.46 Y145.54 E92.07870
G1 X194.08 Y146.85 E92.16891
G1 X194.57 Y148.21 E92.25922
G1 X194.92 Y149.62 E92.34947
G1 X195.14 Y151.05 E92.43964
G1 X195.21 Y152.49 E92.52993
G1 X195.14 Y153.94 E92.62020
G1 X194.93 Y155.37 E92.71050
G1 X194.57 Y156.78 E92.80080
G1 X194.09 Y158.14 E92.89106
G1 X193.47 Y159.45 E92.98133
G1 X192.72 Y160.69 E93.07165
G1 X191.86 Y161.85 E93.16184
G1 X190.89 Y162.93 E93.25218
G1 X189.82 Y163.90 E93.34247
G1 X189.31 Y164.28 E93.38232
G1 X189.30 Y168.17 E93.62503
G1 X189.30 Y169.55 E93.71128
G1 X183.25 Y169.55 E94.08845
G1 X181.49 Y168.27 E94.22481
G1 X179.96 Y167.37 E94.33555
G1 X179.63 Y167.21 E94.35786
G1 X179.01 Y167.18 E94.39688
G1 X177.59 Y166.97 E94.48665
G1 X176.18 Y166.62 E94.57702
G1 X174.82 Y166.13 E94.66736
G1 X173.51 Y165.51 E94.75758
G1 X172.27 Y164.77 E94.84778
G1 X172.00 Y164.57 E94.86839
G1 X170.13 Y164.21 E94.98733
G1 X167.78 Y163.89 E95.13517
G1 X165.47 Y163.71 E95.27962
G1 X163.11 Y163.65 E95.42691
G1 X160.75 Y163.71 E95.57420
G1 X158.43 Y163.89 E95.71902
G1 X156.16 Y164.20 E95.86236
G1 X153.94 Y164.62 E96.00287
G1 X153.51 Y164.73 E96.03085
G1 X152.90 Y165.34 E96.08452
G1 X152.09 Y165.75 E96.14074
G1 X151.68 Y165.88 E96.16770
G1 X150.59 Y167.15 E96.27227
G1 X149.19 Y168.96 E96.41499
G1 X147.86 Y170.89 E96.56101
G1 X146.62 Y172.91 E96.70837
G1 X145.51 Y174.97 E96.85479
G1 X144.51 Y177.07 E96.99973
G1 X143.63 Y179.20 E97.14358
G1 X143.14 Y180.60 E97.23578
G1 X143.25 Y181.52 E97.29340
G1 X143.27 Y182.96 E97.38327
G1 X143.16 Y184.40 E97.47356
G1 X142.90 Y185.82 E97.56388
G1 X142.50 Y187.22 E97.65415
G1 X141.97 Y188.56 E97.74441
G1 X141.43 Y189.62 E97.81813
G1 X141.44 Y191.12 E97.91217
G1 X141.61 Y192.78 E98.01598
G1 X141.79 Y193.62 E98.06984
G1 X138.88 Y198.67 E98.43311
G1 X134.31 Y196.03 E98.76188
G1 X133.72 Y196.29 E98.80157
G1 X132.35 Y196.73 E98.89152
G1 X130.94 Y197.03 E98.98179
G1 X129.50 Y197.20 E99.07201
G1 X128.05 Y197.22 E99.16226
G1 X126.61 Y197.11 E99.25247
G1 X125.18 Y196.85 E99.34292
G1 X123.79 Y196.45 E99.43319
G1 X122.45 Y195.92 E99.52345
G1 X121.16 Y195.26 E99.61365
G1 X119.94 Y194.47 E99.70398
G1 X118.81 Y193.57 E99.79427
G1 X117.77 Y192.57 E99.88450
G1 X116.83 Y191.47 E99.97481
G1 X116.01 Y190.28 E100.06502
G1 X115.30 Y189.01 E100.15530
G1 X114.73 Y187.68 E100.24563
G1 X114.28 Y186.30 E100.33592
G1 X113.98 Y184.89 E100.42614
G1 X113.90 Y184.25 E100.46601
G1 X109.34 Y181.61 E100.79496
G1 X112.38 Y176.34 E101.17488
G1 X112.87 Y176.16 E101.20728
G1 X114.36 Y175.49 E101.30891
G1 X115.90 Y174.62 E101.41952
G1 X116.20 Y174.41 E101.44206
G1 X116.54 Y173.89 E101.48100
G1 X117.43 Y172.76 E101.57102
G1 X118.44 Y171.72 E101.66134
G1 X119.55 Y170.78 E101.75160
G1 X120.73 Y169.96 E101.84185
G1 X122.00 Y169.25 E101.93202
G1 X122.30 Y169.12 E101.95277
G1 X123.54 Y167.69 E102.07090
G1 X125.00 Y165.81 E102.21889
G1 X126.32 Y163.88 E102.36491
G1 X127.55 Y161.88 E102.51112
G1 X128.67 Y159.81 E102.65843
G1 X129.67 Y157.71 E102.80342
G1 X130.55 Y155.59 E102.94650
G1 X131.29 Y153.45 E103.08759
G1 X131.29 Y153.44 E103.08850
G1 X131.29 Y153.15 E103.10652
G1 X131.09 Y152.95 E103.12416
G1 X131.09 Y150.93 E103.24988
G1 X131.28 Y150.74 E103.26655
G1 X130.78 Y149.29 E103.36254
G1 X129.90 Y147.16 E103.50591
G1 X128.90 Y145.05 E103.65158
G1 X127.78 Y142.99 E103.79780
G1 X126.54 Y140.97 E103.94590
G1 X125.23 Y139.07 E104.08985
G1 X123.81 Y137.23 E104.23462
G1 X122.85 Y136.12 E104.32619
G1 X122.00 Y135.75 E104.38378
G1 X120.75 Y135.05 E104.47364
G1 X119.55 Y134.23 E104.56395
G1 X118.45 Y133.29 E104.65422
G1 X117.44 Y132.25 E104.74455
G1 X116.54 Y131.12 E104.83483
G1 X115.90 Y130.12 E104.90857
G1 X114.58 Y129.38 E105.00291
G1 X113.08 Y128.70 E105.10571
G1 X112.25 Y128.43 E105.16038
G1 X109.33 Y123.39 E105.52354
G1 X113.90 Y120.75 E105.85230
G1 X113.97 Y120.12 E105.89210
G1 X114.28 Y118.71 E105.98205
G1 X114.72 Y117.33 E106.07226
G1 X115.30 Y116.00 E106.16254
G1 X116.00 Y114.73 E106.25288
G1 X116.82 Y113.55 E106.34306
G1 X117.76 Y112.44 E106.43337
G0 F6000 X117.39 Y112.10
G1 F2700 X118.47 Y111.06 E106.52669
G1 X119.64 Y110.13 E106.61990
G1 X120.90 Y109.31 E106.71331
G1 X122.23 Y108.63 E106.80663
G1 X123.62 Y108.08 E106.89999
G1 X125.06 Y107.67 E106.99338
G1 X126.53 Y107.40 E107.08676
G1 X128.02 Y107.28 E107.17993
G1 X129.52 Y107.30 E107.27330
G1 X131.01 Y107.47 E107.36671
G1 X132.47 Y107.78 E107.46009
G1 X133.90 Y108.24 E107.55345
G1 X134.27 Y108.41 E107.57915
G1 X137.43 Y106.59 E107.80620
G1 X139.06 Y105.65 E107.92355
G1 X142.41 Y111.46 E108.34209
G1 X142.17 Y113.77 E108.48682
G1 X142.15 Y115.50 E108.59490
G1 X142.17 Y115.74 E108.60966
G1 X142.42 Y116.22 E108.64385
G1 X142.97 Y117.61 E108.73685
G1 X143.38 Y119.05 E108.83012
G1 X143.65 Y120.52 E108.92344
G1 X143.77 Y122.01 E109.01674
G1 X143.75 Y123.51 E109.11005
G1 X143.72 Y123.75 E109.12517
G1 X144.30 Y125.43 E109.23603
G1 X145.18 Y127.58 E109.38090
G1 X146.18 Y129.68 E109.52584
G1 X147.29 Y131.72 E109.67076
G1 X148.51 Y133.71 E109.81598
G1 X149.81 Y135.60 E109.95924
G1 X151.20 Y137.40 E110.10136
G1 X152.50 Y138.90 E110.22498
G1 X153.00 Y139.03 E110.25712
G1 X153.99 Y139.53 E110.32654
G1 X154.19 Y139.73 E110.34422
G1 X154.59 Y139.93 E110.37217
G1 X155.00 Y140.33 E110.40815
G1 X156.23 Y140.57 E110.48606
G1 X158.48 Y140.87 E110.62776
G1 X160.80 Y141.06 E110.77271
G1 X163.11 Y141.12 E110.91681
G1 X165.42 Y141.06 E111.06086
G1 X167.74 Y140.87 E111.20581
G1 X169.99 Y140.57 E111.34757
G1 X171.31 Y140.31 E111.43177
G1 X171.98 Y139.82 E111.48370
G1 X173.26 Y139.05 E111.57668
G1 X174.61 Y138.41 E111.66996
G1 X176.02 Y137.91 E111.76338
G1 X177.48 Y137.54 E111.85672
G1 X178.96 Y137.32 E111.94998
G1 X180.04 Y137.27 E112.01747
G1 X181.21 Y136.58 E112.10266
G1 X182.51 Y135.64 E112.20286
G1 X183.29 Y134.95 E112.26752
G1 X189.80 Y134.95 E112.67375
G1 X189.80 Y140.47 E113.01799
G1 X190.13 Y140.71 E113.04357
G1 X191.24 Y141.71 E113.13660
G1 X192.24 Y142.82 E113.22985
G1 X193.13 Y144.02 E113.32311
G1 X193.91 Y145.31 E113.41654
G1 X194.54 Y146.66 E113.50988
G1 X195.05 Y148.07 E113.60328
G1 X195.41 Y149.52 E113.69656
G1 X195.63 Y151.00 E113.78983
G1 X195.71 Y152.49 E113.88317
G1 X195.64 Y153.99 E113.97651
G1 X195.42 Y155.47 E114.06989
G1 X195.05 Y156.92 E114.16321
G1 X194.55 Y158.33 E114.25659
G1 X193.91 Y159.68 E114.34990
G1 X193.14 Y160.97 E114.44327
G1 X192.25 Y162.17 E114.53654
G1 X191.25 Y163.28 E114.62992
G1 X190.14 Y164.28 E114.72326
G1 X189.81 Y164.53 E114.74898
G1 X189.80 Y168.17 E114.97604
G1 X189.80 Y170.05 E115.09341
G1 X183.09 Y170.05 E115.51192
G1 X181.21 Y168.69 E115.65698
G1 X179.72 Y167.81 E115.76504
G1 X179.51 Y167.71 E115.77946
G1 X178.96 Y167.68 E115.81374
G1 X177.49 Y167.46 E115.90660
G1 X176.03 Y167.10 E116.00000
G1 X174.62 Y166.59 E116.09338
G1 X173.27 Y165.95 E116.18672
G1 X171.99 Y165.19 E116.27991
G1 X171.80 Y165.04 E116.29489
G1 X170.04 Y164.71 E116.40627
G1 X167.74 Y164.39 E116.55115
G1 X165.42 Y164.21 E116.69647
G1 X163.11 Y164.15 E116.84052
G1 X160.80 Y164.21 E116.98457
G1 X158.47 Y164.39 E117.13045
G1 X156.24 Y164.69 E117.27052
G1 X154.04 Y165.11 E117.41021
G1 X153.76 Y165.18 E117.42816
G1 X153.19 Y165.75 E117.47826
G1 X152.28 Y166.21 E117.54179
G1 X151.97 Y166.31 E117.56244
G1 X150.98 Y167.46 E117.65679
G1 X149.59 Y169.27 E117.79925
G1 X148.28 Y171.17 E117.94319
G1 X147.06 Y173.16 E118.08890
G1 X145.96 Y175.18 E118.23236
G1 X144.96 Y177.29 E118.37777
G1 X144.10 Y179.38 E118.51863
G1 X143.65 Y180.65 E118.60300
G1 X143.75 Y181.48 E118.65510
G1 X143.77 Y182.97 E118.74797
G1 X143.65 Y184.47 E118.84132
G1 X143.38 Y185.94 E118.93469
G1 X142.97 Y187.38 E119.02806
G1 X142.42 Y188.77 E119.12134
G1 X141.93 Y189.73 E119.18890
G1 X141.94 Y191.10 E119.27421
G1 X142.10 Y192.69 E119.37407
G1 X142.32 Y193.71 E119.43874
G1 X139.06 Y199.35 E119.84508
G1 X134.28 Y196.59 E120.18926
G1 X133.90 Y196.75 E120.21488
G1 X132.48 Y197.21 E120.30789
G1 X131.02 Y197.53 E120.40117
G1 X129.53 Y197.70 E120.49446
G1 X128.04 Y197.72 E120.58776
G1 X126.55 Y197.60 E120.68105
G1 X125.07 Y197.34 E120.77453
G1 X123.63 Y196.93 E120.86791
G1 X122.24 Y196.38 E120.96125
G1 X120.91 Y195.69 E121.05447
G1 X119.65 Y194.88 E121.14786
G1 X118.48 Y193.95 E121.24121
G1 X117.40 Y192.91 E121.33453
G1 X116.43 Y191.77 E121.42789
G1 X115.58 Y190.54 E121.52115
G1 X114.85 Y189.23 E121.61456
G1 X114.26 Y187.86 E121.70790
G1 X113.80 Y186.43 E121.80124
G1 X113.48 Y184.97 E121.89460
G1 X113.44 Y184.56 E121.92027
G1 X108.65 Y181.80 E122.26478
G1 X112.04 Y175.93 E122.68707
G1 X112.67 Y175.70 E122.72909
G1 X114.13 Y175.04 E122.82894
G1 X115.64 Y174.19 E122.93734
G1 X115.83 Y174.06 E122.95140
G1 X116.13 Y173.60 E122.98579
G1 X117.06 Y172.43 E123.07883
G1 X118.10 Y171.35 E123.17220
G1 X119.24 Y170.38 E123.26556
G1 X120.47 Y169.53 E123.35886
G1 X121.78 Y168.81 E123.45215
G1 X122.00 Y168.71 E123.46726
G1 X123.16 Y167.37 E123.57765
G1 X124.59 Y165.52 E123.72351
G1 X125.90 Y163.62 E123.86769
G1 X127.12 Y161.63 E124.01289
G1 X128.22 Y159.59 E124.15750
G1 X129.22 Y157.50 E124.30230
G1 X130.08 Y155.41 E124.44288
G1 X130.79 Y153.35 E124.57869
G1 X130.59 Y153.15 E124.59633
G1 X130.59 Y150.72 E124.74787
G1 X130.71 Y150.61 E124.75792
G1 X130.31 Y149.46 E124.83405
G1 X129.45 Y147.37 E124.97511
G1 X128.46 Y145.28 E125.11885
G1 X127.34 Y143.24 E125.26401
G1 X126.13 Y141.25 E125.40919
G1 X124.81 Y139.34 E125.55396
G1 X123.43 Y137.56 E125.69464
G1 X122.55 Y136.53 E125.77913
G1 X121.78 Y136.20 E125.83114
G1 X120.48 Y135.47 E125.92407
G1 X119.25 Y134.62 E126.01739
G1 X118.11 Y133.66 E126.11075
G1 X117.07 Y132.58 E126.20412
G1 X116.14 Y131.41 E126.29746
G1 X115.55 Y130.50 E126.36486
G1 X114.35 Y129.82 E126.45073
G1 X112.89 Y129.17 E126.55041
G1 X111.91 Y128.84 E126.61491
G1 X108.65 Y123.20 E127.02116
G1 X113.43 Y120.44 E127.36540
G1 X113.48 Y120.03 E127.39101
G1 X113.79 Y118.58 E127.48402
G1 X114.25 Y117.15 E127.57731
G1 X114.85 Y115.78 E127.67071
G1 X115.57 Y114.47 E127.76407
G1 X116.42 Y113.24 E127.85731
G1 X117.39 Y112.10 E127.95076
G0 F6000 X117.03 Y111.75
G1 F2700 X118.14 Y110.68 E128.04708
G1 X119.35 Y109.72 E128.14344
G1 X120.65 Y108.88 E128.23988
G1 X122.02 Y108.17 E128.33630
G1 X123.46 Y107.61 E128.43268
G1 X124.95 Y107.18 E128.52913
G1 X126.47 Y106.90 E128.62554
G1 X128.00 Y106.78 E128.72178
G1 X129.55 Y106.80 E128.81826
G1 X131.09 Y106.98 E128.91469
G1 X132.60 Y107.30 E129.01113
G1 X134.07 Y107.78 E129.10763
G1 X134.24 Y107.85 E129.11906
G1 X137.18 Y106.16 E129.33049
G1 X137.18 Y106.16 E129.33055
G1 X139.24 Y104.97 E129.47908
G1 X142.93 Y111.35 E129.93889
G1 X142.67 Y113.80 E130.09277
G1 X142.65 Y115.50 E130.19823
G1 X142.66 Y115.60 E130.20473
G1 X142.88 Y116.02 E130.23413
G1 X143.44 Y117.45 E130.33021
G1 X143.87 Y118.94 E130.42660
G1 X144.15 Y120.46 E130.52295
G1 X144.27 Y122.00 E130.61925
G1 X144.25 Y123.54 E130.71562
G1 X144.23 Y123.69 E130.72522
G1 X144.77 Y125.25 E130.82786
G1 X145.65 Y127.39 E130.97220
G1 X146.63 Y129.45 E131.11421
G1 X147.72 Y131.46 E131.25737
G1 X148.93 Y133.43 E131.40142
G1 X150.22 Y135.30 E131.54293
G1 X151.60 Y137.09 E131.68402
G1 X152.77 Y138.46 E131.79624
G1 X153.17 Y138.56 E131.82189
G1 X154.29 Y139.11 E131.89981
G1 X154.49 Y139.32 E131.91763
G1 X154.89 Y139.51 E131.94543
G1 X155.25 Y139.87 E131.97692
G1 X156.32 Y140.08 E132.04499
G1 X158.53 Y140.37 E132.18410
G1 X160.81 Y140.56 E132.32699
G1 X163.11 Y140.62 E132.47010
G1 X165.40 Y140.56 E132.61314
G1 X167.69 Y140.37 E132.75603
G1 X169.90 Y140.08 E132.89520
G1 X171.11 Y139.84 E132.97204
G1 X171.71 Y139.40 E133.01837
G1 X173.03 Y138.61 E133.11442
G1 X174.42 Y137.95 E133.21075
G1 X175.88 Y137.43 E133.30726
G1 X177.38 Y137.05 E133.40363
G1 X178.91 Y136.82 E133.49997
G1 X179.89 Y136.78 E133.56128
G1 X180.94 Y136.16 E133.63761
G1 X182.20 Y135.25 E133.73436
G1 X183.10 Y134.45 E133.80940
G1 X190.30 Y134.45 E134.25873
G1 X190.30 Y140.22 E134.61850
G1 X190.45 Y140.32 E134.62991
G1 X191.59 Y141.36 E134.72598
G1 X192.63 Y142.50 E134.82232
G1 X193.55 Y143.74 E134.91856
G1 X194.35 Y145.07 E135.01509
G1 X195.01 Y146.47 E135.11153
G1 X195.53 Y147.92 E135.20799
G1 X195.90 Y149.42 E135.30429
G1 X196.13 Y150.95 E135.40065
G1 X196.21 Y152.49 E135.49699
G1 X196.13 Y154.04 E135.59345
G1 X195.91 Y155.57 E135.68986
G1 X195.53 Y157.07 E135.78627
G1 X195.01 Y158.52 E135.88268
G1 X194.35 Y159.92 E135.97909
G1 X193.56 Y161.25 E136.07554
G1 X192.64 Y162.49 E136.17184
G1 X191.60 Y163.63 E136.26827
G1 X190.46 Y164.67 E136.36469
G1 X190.31 Y164.78 E136.37628
G1 X190.30 Y168.17 E136.58763
G1 X190.30 Y170.55 E136.73617
G1 X182.93 Y170.55 E137.19598
G1 X180.95 Y169.11 E137.34893
G1 X179.48 Y168.25 E137.45489
G1 X179.38 Y168.20 E137.46189
G1 X178.91 Y168.18 E137.49124
G1 X177.39 Y167.95 E137.58712
G1 X175.89 Y167.58 E137.68361
G1 X174.43 Y167.06 E137.78010
G1 X173.04 Y166.40 E137.87646
G1 X171.71 Y165.60 E137.97270
G1 X171.59 Y165.51 E137.98216
G1 X169.96 Y165.20 E138.08598
G1 X167.69 Y164.89 E138.22860
G1 X165.40 Y164.71 E138.37167
G1 X163.11 Y164.65 E138.51472
G1 X160.82 Y164.71 E138.65776
G1 X158.53 Y164.89 E138.80046
G1 X156.31 Y165.19 E138.94021
G1 X154.15 Y165.60 E139.07743
G1 X154.02 Y165.63 E139.08605
G1 X153.49 Y166.16 E139.13262
G1 X152.48 Y166.67 E139.20340
G1 X152.26 Y166.74 E139.21760
G1 X151.36 Y167.78 E139.30346
G1 X149.99 Y169.56 E139.44365
G1 X148.70 Y171.44 E139.58559
G1 X147.50 Y173.39 E139.72838
G1 X146.40 Y175.43 E139.87285
G1 X145.42 Y177.48 E140.01430
G1 X144.57 Y179.55 E140.15424
G1 X144.16 Y180.71 E140.23088
G1 X144.25 Y181.45 E140.27727
G1 X144.27 Y182.99 E140.37319
G1 X144.15 Y184.53 E140.46960
G1 X143.87 Y186.05 E140.56608
G1 X143.45 Y187.54 E140.66251
G1 X142.88 Y188.98 E140.75887
G1 X142.43 Y189.85 E140.82026
G1 X142.44 Y191.08 E140.89672
G1 X142.60 Y192.61 E140.99288
G1 X142.85 Y193.79 E141.06813
G1 X139.24 Y200.03 E141.51761
G1 X134.25 Y197.15 E141.87735
G1 X134.08 Y197.22 E141.88878
G1 X132.61 Y197.69 E141.98482
G1 X131.10 Y198.02 E142.08115
G1 X129.57 Y198.20 E142.17752
G1 X128.02 Y198.22 E142.27389
G1 X126.48 Y198.10 E142.37023
G1 X124.96 Y197.82 E142.46683
G1 X123.47 Y197.40 E142.56326
G1 X122.03 Y196.83 E142.65962
G1 X120.66 Y196.13 E142.75593
G1 X119.36 Y195.29 E142.85240
G1 X118.15 Y194.33 E142.94881
G1 X117.04 Y193.25 E143.04518
G1 X116.04 Y192.07 E143.14159
G1 X115.16 Y190.81 E143.23795
G1 X114.40 Y189.45 E143.33437
G1 X113.79 Y188.03 E143.43082
G1 X113.31 Y186.56 E143.52720
G1 X112.99 Y185.05 E143.62360
G1 X112.97 Y184.87 E143.63515
G1 X110.03 Y183.17 E143.84657
G1 X107.97 Y181.98 E143.99516
G1 X111.70 Y175.53 E144.45991
G1 X112.48 Y175.23 E144.51239
G1 X113.90 Y174.59 E144.60942
G1 X115.38 Y173.76 E144.71503
G1 X115.47 Y173.70 E144.72167
G1 X115.72 Y173.31 E144.75113
G1 X116.68 Y172.10 E144.84728
G1 X117.76 Y170.99 E144.94369
G1 X118.94 Y169.99 E145.04010
G1 X120.20 Y169.11 E145.13649
G1 X121.56 Y168.36 E145.23277
G1 X121.69 Y168.30 E145.24229
G1 X122.76 Y167.06 E145.34407
G1 X124.19 Y165.22 E145.48962
G1 X125.48 Y163.34 E145.63172
G1 X126.68 Y161.39 E145.77426
G1 X127.78 Y159.35 E145.91867
G1 X128.76 Y157.31 E146.06012
G1 X129.62 Y155.22 E146.20085
G1 X130.22 Y153.49 E146.31533
G1 X130.09 Y153.36 E146.32636
G1 X130.09 Y150.52 E146.50372
G1 X130.13 Y150.48 E146.50716
G1 X129.84 Y149.65 E146.56195
G1 X128.99 Y147.57 E146.70216
G1 X128.00 Y145.49 E146.84568
G1 X126.91 Y143.49 E146.98752
G1 X125.71 Y141.53 E147.13104
G1 X124.41 Y139.65 E147.27374
G1 X123.04 Y137.86 E147.41410
G1 X122.25 Y136.94 E147.48984
G1 X121.56 Y136.65 E147.53629
G1 X120.22 Y135.90 E147.63229
G1 X118.94 Y135.02 E147.72866
G1 X117.77 Y134.02 E147.82508
G1 X116.69 Y132.91 E147.92158
G1 X115.73 Y131.70 E148.01790
G1 X115.19 Y130.87 E148.07933
G1 X114.14 Y130.28 E148.15484
G1 X112.70 Y129.63 E148.25293
G1 X111.57 Y129.26 E148.32735
G1 X107.97 Y123.02 E148.77665
G1 X112.97 Y120.14 E149.13640
G1 X112.99 Y119.95 E149.14783
G1 X113.31 Y118.45 E149.24385
G1 X113.78 Y116.98 E149.34025
G1 X114.40 Y115.56 E149.43667
G1 X115.15 Y114.21 E149.53310
G1 X116.03 Y112.94 E149.62943
G1 X117.03 Y111.75 E149.72593
G0 F6000 X116.66 Y111.41
G1 F2700 X117.81 Y110.30 E149.82538
G1 X119.06 Y109.31 E149.92477
G1 X120.40 Y108.45 E150.02426
G1 X121.81 Y107.72 E150.12372
G1 X123.30 Y107.13 E150.22321
G1 X124.83 Y106.69 E150.32270
G1 X126.40 Y106.41 E150.42223
G1 X127.99 Y106.28 E150.52147
G1 X129.58 Y106.30 E150.62101
G1 X131.17 Y106.48 E150.72051
G1 X132.73 Y106.82 E150.82008
G1 X134.21 Y107.29 E150.91678
G1 X136.93 Y105.72 E151.11282
G1 X139.42 Y104.28 E151.29244
G1 X143.44 Y111.24 E151.79360
G1 X143.17 Y113.83 E151.95595
G1 X143.15 Y115.46 E152.05786
G1 X143.33 Y115.81 E152.08226
G1 X143.92 Y117.29 E152.18137
G1 X144.35 Y118.82 E152.28080
G1 X144.64 Y120.39 E152.38021
G1 X144.77 Y121.98 E152.47958
G1 X144.75 Y123.57 E152.57899
G1 X144.74 Y123.64 E152.58307
G1 X145.24 Y125.08 E152.67795
G1 X146.10 Y127.18 E152.81987
G1 X147.07 Y129.22 E152.96101
G1 X148.16 Y131.22 E153.10294
G1 X149.34 Y133.15 E153.24366
G1 X150.62 Y135.02 E153.38505
G1 X151.98 Y136.78 E153.52382
G1 X153.05 Y138.01 E153.62529
G1 X153.35 Y138.09 E153.64452
G1 X154.59 Y138.70 E153.73086
G1 X154.79 Y138.90 E153.74859
G1 X155.19 Y139.10 E153.77648
G1 X155.49 Y139.41 E153.80347
G1 X156.39 Y139.58 E153.86043
G1 X158.60 Y139.88 E153.99954
G1 X160.83 Y140.06 E154.13899
G1 X163.11 Y140.12 E154.28116
G1 X165.39 Y140.06 E154.42327
G1 X167.62 Y139.88 E154.56272
G1 X169.83 Y139.58 E154.70189
G1 X170.90 Y139.38 E154.77003
G1 X171.43 Y138.99 E154.81086
G1 X172.79 Y138.17 E154.90993
G1 X174.23 Y137.49 E155.00930
G1 X175.73 Y136.95 E155.10887
G1 X177.28 Y136.56 E155.20832
G1 X178.86 Y136.33 E155.30769
G1 X179.74 Y136.28 E155.36282
G1 X180.67 Y135.74 E155.43023
G1 X181.89 Y134.85 E155.52425
G1 X182.91 Y133.95 E155.60914
G1 X190.80 Y133.95 E156.10149
G1 X190.80 Y139.97 E156.47717
G1 X191.95 Y141.00 E156.57329
G1 X193.02 Y142.19 E156.67267
G1 X193.97 Y143.46 E156.77199
G1 X194.79 Y144.83 E156.87161
G1 X195.47 Y146.28 E156.97108
G1 X196.01 Y147.78 E157.07058
G1 X196.40 Y149.32 E157.16997
G1 X196.63 Y150.90 E157.26935
G1 X196.71 Y152.49 E157.36881
G1 X196.63 Y154.09 E157.46833
G1 X196.40 Y155.66 E157.56782
G1 X196.01 Y157.21 E157.66726
G1 X195.47 Y158.71 E157.76673
G1 X194.79 Y160.16 E157.86616
G1 X193.97 Y161.52 E157.96571
G1 X193.03 Y162.80 E158.06508
G1 X191.95 Y163.99 E158.16459
G1 X190.81 Y165.03 E158.26124
G1 X190.80 Y168.17 E158.45731
G1 X190.80 Y171.05 E158.63704
G1 X182.77 Y171.05 E159.13812
G1 X180.66 Y169.52 E159.30046
G1 X179.25 Y168.69 E159.40233
G1 X178.86 Y168.67 E159.42687
G1 X177.29 Y168.44 E159.52578
G1 X175.75 Y168.06 E159.62529
G1 X174.24 Y167.52 E159.72482
G1 X172.80 Y166.84 E159.82425
G1 X171.44 Y166.02 E159.92354
G1 X171.39 Y165.98 E159.92733
G1 X169.88 Y165.69 E160.02290
G1 X167.62 Y165.38 E160.16521
G1 X165.39 Y165.21 E160.30490
G1 X163.11 Y165.15 E160.44701
G1 X160.83 Y165.21 E160.58912
G1 X158.60 Y165.38 E160.72838
G1 X156.38 Y165.68 E160.86813
G1 X154.28 Y166.09 E161.00204
G1 X153.79 Y166.57 E161.04504
G1 X152.67 Y167.13 E161.12307
G1 X152.55 Y167.17 E161.13090
G1 X151.75 Y168.10 E161.20730
G1 X150.39 Y169.86 E161.34585
G1 X149.12 Y171.71 E161.48576
G1 X147.93 Y173.65 E161.62811
G1 X146.85 Y175.63 E161.76866
G1 X145.87 Y177.69 E161.91095
G1 X145.03 Y179.73 E162.04792
G1 X144.67 Y180.77 E162.11671
G1 X144.75 Y181.42 E162.15758
G1 X144.77 Y183.00 E162.25650
G1 X144.64 Y184.59 E162.35598
G1 X144.36 Y186.16 E162.45549
G1 X143.92 Y187.70 E162.55498
G1 X143.34 Y189.18 E162.65442
G1 X142.93 Y189.97 E162.70962
G1 X142.94 Y191.04 E162.77660
G1 X143.09 Y192.55 E162.87082
G1 X143.37 Y193.88 E162.95562
G1 X139.42 Y200.72 E163.44815
G1 X134.21 Y197.71 E163.82371
G1 X132.74 Y198.18 E163.91987
G1 X131.18 Y198.51 E164.01920
G1 X129.60 Y198.70 E164.11864
G1 X128.00 Y198.72 E164.21806
G1 X126.42 Y198.60 E164.31748
G1 X124.84 Y198.31 E164.41711
G1 X123.31 Y197.87 E164.51660
G1 X121.83 Y197.29 E164.61610
G1 X120.41 Y196.56 E164.71547
G1 X119.07 Y195.70 E164.81496
G1 X117.82 Y194.71 E164.91444
G1 X116.67 Y193.60 E165.01389
G1 X115.64 Y192.38 E165.11335
G1 X114.73 Y191.07 E165.21275
G1 X113.95 Y189.68 E165.31230
G1 X113.32 Y188.21 E165.41182
G1 X112.83 Y186.69 E165.51120
G1 X112.50 Y185.18 E165.60779
G1 X109.78 Y183.60 E165.80397
G1 X109.78 Y183.60 E165.80405
G1 X107.29 Y182.16 E165.98379
G1 X111.35 Y175.12 E166.49095
G1 X112.30 Y174.77 E166.55415
G1 X113.68 Y174.15 E166.64833
G1 X115.10 Y173.34 E166.75025
G1 X115.32 Y173.01 E166.77471
G1 X116.30 Y171.77 E166.87393
G1 X117.41 Y170.62 E166.97347
G1 X118.63 Y169.59 E167.07289
G1 X119.94 Y168.68 E167.17232
G1 X121.33 Y167.91 E167.27167
G1 X121.39 Y167.88 E167.27561
G1 X122.39 Y166.73 E167.37036
G1 X123.78 Y164.93 E167.51253
G1 X125.06 Y163.07 E167.65361
G1 X126.25 Y161.13 E167.79532
G1 X127.33 Y159.14 E167.93671
G1 X128.31 Y157.09 E168.07825
G1 X129.14 Y155.06 E168.21494
G1 X129.64 Y153.62 E168.31026
G1 X129.59 Y153.57 E168.31458
G1 X129.59 Y150.45 E168.50896
G1 X129.37 Y149.81 E168.55148
G1 X128.53 Y147.77 E168.68865
G1 X127.56 Y145.74 E168.82932
G1 X126.47 Y143.73 E168.97147
G1 X125.29 Y141.80 E169.11304
G1 X124.01 Y139.94 E169.25373
G1 X122.66 Y138.19 E169.39151
G1 X121.94 Y137.36 E169.46018
G1 X121.34 Y137.10 E169.50098
G1 X119.95 Y136.33 E169.59997
G1 X118.64 Y135.42 E169.69947
G1 X117.42 Y134.39 E169.79894
G1 X116.31 Y133.24 E169.89848
G1 X115.32 Y131.99 E169.99786
G1 X114.84 Y131.25 E170.05303
G1 X113.91 Y130.72 E170.11994
G1 X112.53 Y130.10 E170.21434
G1 X111.23 Y129.67 E170.29928
G1 X107.29 Y122.84 E170.79163
G1 X112.50 Y119.83 E171.16722
G1 X112.83 Y118.32 E171.26337
G1 X113.31 Y116.80 E171.36280
G1 X113.95 Y115.34 E171.46227
G1 X114.72 Y113.94 E171.56182
G1 X115.63 Y112.63 E171.66115
G1 X116.66 Y111.41 E171.76071
G0 F6000 X116.30 Y111.07
G1 F2700 X117.48 Y109.93 E171.86320
G1 X118.76 Y108.91 E171.96564
G1 X120.15 Y108.01 E172.06822
G1 X121.61 Y107.26 E172.17072
G1 X123.14 Y106.66 E172.27329
G1 X124.72 Y106.20 E172.37584
G1 X126.34 Y105.91 E172.47846
G1 X127.97 Y105.78 E172.58071
G1 X129.62 Y105.80 E172.68330
G1 X131.25 Y105.99 E172.78588
G1 X132.86 Y106.33 E172.88850
G1 X134.15 Y106.75 E172.97295
G1 X136.68 Y105.29 E173.15516
G1 X139.61 Y103.60 E173.36597
G1 X143.96 Y111.13 E173.90845
G1 X143.67 Y113.86 E174.07926
G1 X143.66 Y115.34 E174.17213
G1 X143.79 Y115.61 E174.19037
G1 X144.39 Y117.13 E174.29255
G1 X144.84 Y118.71 E174.39504
G1 X145.14 Y120.33 E174.49748
G1 X145.27 Y121.96 E174.59998
G1 X145.25 Y123.58 E174.70058
G1 X145.70 Y124.89 E174.78705
G1 X146.56 Y126.99 E174.92904
G1 X147.52 Y129.00 E175.06734
G1 X148.59 Y130.97 E175.20751
G1 X149.76 Y132.88 E175.34725
G1 X151.03 Y134.72 E175.48662
G1 X152.36 Y136.45 E175.62291
G1 X153.32 Y137.56 E175.71443
G1 X153.52 Y137.61 E175.72716
G1 X154.88 Y138.29 E175.82201
G1 X155.08 Y138.49 E175.83974
G1 X155.48 Y138.69 E175.86763
G1 X155.74 Y138.95 E175.89012
G1 X156.48 Y139.09 E175.93717
G1 X158.63 Y139.38 E176.07270
G1 X160.86 Y139.56 E176.21220
G1 X163.11 Y139.62 E176.35232
G1 X165.35 Y139.56 E176.49237
G1 X167.58 Y139.38 E176.63188
G1 X169.74 Y139.09 E176.76740
G1 X170.69 Y138.91 E176.82811
G1 X171.15 Y138.57 E176.86342
G1 X172.55 Y137.73 E176.96553
G1 X174.04 Y137.03 E177.06796
G1 X175.59 Y136.47 E177.17064
G1 X177.18 Y136.07 E177.27311
G1 X178.81 Y135.83 E177.37557
G1 X179.59 Y135.79 E177.42464
G1 X180.39 Y135.32 E177.48249
G1 X181.57 Y134.47 E177.57325
G1 X182.72 Y133.45 E177.66892
G1 X191.30 Y133.45 E178.20437
G1 X191.30 Y139.75 E178.59732
G1 X192.30 Y140.65 E178.68120
G1 X193.40 Y141.87 E178.78363
G1 X194.38 Y143.19 E178.88598
G1 X195.23 Y144.60 E178.98870
G1 X195.93 Y146.08 E179.09122
G1 X196.49 Y147.63 E179.19383
G1 X196.89 Y149.22 E179.29624
G1 X197.13 Y150.85 E179.39871
G1 X197.21 Y152.49 E179.50123
G1 X197.13 Y154.13 E179.60375
G1 X196.89 Y155.76 E179.70634
G1 X196.49 Y157.36 E179.80886
G1 X195.94 Y158.90 E179.91137
G1 X195.24 Y160.39 E180.01392
G1 X194.39 Y161.80 E180.11652
G1 X193.41 Y163.12 E180.21893
G1 X192.31 Y164.34 E180.32149
G1 X191.31 Y165.25 E180.40595
G1 X191.30 Y168.17 E180.58817
G1 X191.30 Y171.55 E180.79902
G1 X182.60 Y171.55 E181.34145
G1 X180.39 Y169.95 E181.51200
G1 X179.11 Y169.19 E181.60518
G1 X178.81 Y169.17 E181.62347
G1 X177.20 Y168.93 E181.72541
G1 X175.60 Y168.53 E181.82800
G1 X174.05 Y167.98 E181.93063
G1 X172.56 Y167.28 E182.03309
G1 X171.19 Y166.45 E182.13331
G1 X169.79 Y166.19 E182.22165
G1 X167.58 Y165.88 E182.36092
G1 X165.35 Y165.71 E182.50030
G1 X163.11 Y165.65 E182.64036
G1 X160.86 Y165.71 E182.78041
G1 X158.64 Y165.88 E182.91973
G1 X156.47 Y166.18 E183.05583
G1 X154.52 Y166.55 E183.17989
G1 X154.08 Y166.99 E183.21843
G1 X152.86 Y167.60 E183.30371
G1 X152.84 Y167.60 E183.30523
G1 X152.14 Y168.41 E183.37142
G1 X150.80 Y170.15 E183.50894
G1 X149.53 Y171.99 E183.64818
G1 X148.37 Y173.89 E183.78717
G1 X147.29 Y175.87 E183.92755
G1 X146.34 Y177.88 E184.06608
G1 X145.50 Y179.92 E184.20403
G1 X145.18 Y180.82 E184.26345
G1 X145.25 Y181.39 E184.29880
G1 X145.27 Y183.02 E184.40084
G1 X145.14 Y184.66 E184.50332
G1 X144.85 Y186.28 E184.60594
G1 X144.40 Y187.86 E184.70845
G1 X143.79 Y189.39 E184.81094
G1 X143.43 Y190.09 E184.85997
G1 X143.44 Y191.02 E184.91822
G1 X143.59 Y192.46 E185.00842
G1 X143.90 Y193.96 E185.10407
G1 X139.61 Y201.40 E185.63973
G1 X134.15 Y198.25 E186.03267
G1 X132.87 Y198.66 E186.11653
G1 X131.26 Y199.01 E186.21898
G1 X129.63 Y199.20 E186.32145
G1 X127.99 Y199.22 E186.42398
G1 X126.35 Y199.09 E186.52633
G1 X124.73 Y198.80 E186.62909
G1 X123.15 Y198.35 E186.73166
G1 X121.62 Y197.74 E186.83420
G1 X120.16 Y196.99 E186.93665
G1 X118.78 Y196.10 E187.03919
G1 X117.49 Y195.08 E187.14178
G1 X116.31 Y193.94 E187.24427
G1 X115.24 Y192.69 E187.34678
G1 X114.31 Y191.34 E187.44923
G1 X113.51 Y189.90 E187.55191
G1 X112.85 Y188.39 E187.65441
G1 X112.35 Y186.82 E187.75695
G1 X112.06 Y185.50 E187.84136
G1 X109.53 Y184.04 E188.02362
G1 X106.60 Y182.35 E188.23448
G1 X111.01 Y174.71 E188.78405
G1 X112.12 Y174.30 E188.85771
G1 X113.45 Y173.70 E188.94907
G1 X114.75 Y172.97 E189.04192
G1 X114.91 Y172.72 E189.06024
G1 X115.93 Y171.44 E189.16251
G1 X117.07 Y170.26 E189.26509
G1 X118.33 Y169.19 E189.36757
G1 X119.67 Y168.26 E189.47005
G1 X121.08 Y167.47 E189.57049
G1 X121.99 Y166.43 E189.65696
G1 X123.39 Y164.62 E189.79967
G1 X124.63 Y162.81 E189.93622
G1 X125.81 Y160.88 E190.07739
G1 X126.89 Y158.90 E190.21786
G1 X127.84 Y156.90 E190.35625
G1 X128.68 Y154.87 E190.49299
G1 X129.09 Y153.68 E190.57182
G1 X129.09 Y150.54 E190.76771
G1 X128.91 Y150.00 E190.80283
G1 X128.07 Y147.96 E190.94098
G1 X127.11 Y145.96 E191.07886
G1 X126.04 Y143.99 E191.21887
G1 X124.88 Y142.08 E191.35808
G1 X123.61 Y140.24 E191.49795
G1 X122.27 Y138.50 E191.63485
G1 X121.64 Y137.77 E191.69480
G1 X121.12 Y137.54 E191.72997
G1 X119.69 Y136.75 E191.83202
G1 X118.34 Y135.82 E191.93454
G1 X117.08 Y134.75 E192.03710
G1 X115.94 Y133.57 E192.13973
G1 X114.92 Y132.28 E192.24217
G1 X114.49 Y131.62 E192.29125
G1 X113.68 Y131.17 E192.34911
G1 X112.34 Y130.57 E192.44046
G1 X110.90 Y130.09 E192.53556
G1 X106.60 Y122.65 E193.07097
G1 X112.06 Y119.50 E193.46399
G1 X112.34 Y118.19 E193.54776
G1 X112.85 Y116.62 E193.65025
G1 X113.50 Y115.11 E193.75279
G1 X114.30 Y113.68 E193.85541
G1 X115.23 Y112.33 E193.95784
G1 X116.30 Y111.07 E194.06045
G0 F6000 X115.93 Y110.73
G1 F2700 X117.15 Y109.55 E194.16603
G1 X118.47 Y108.50 E194.27149
G1 X119.89 Y107.58 E194.37716
G1 X121.40 Y106.81 E194.48273
G1 X122.97 Y106.18 E194.58832
G1 X124.60 Y105.72 E194.69397
G1 X126.27 Y105.41 E194.79964
G1 X127.95 Y105.28 E194.90501
G1 X129.65 Y105.30 E195.01067
G1 X131.33 Y105.50 E195.11632
G1 X132.99 Y105.85 E195.22194
G1 X134.09 Y106.20 E195.29407
G1 X136.43 Y104.86 E195.46253
G1 X136.43 Y104.86 E195.46259
G1 X139.79 Y102.92 E195.70458
G1 X144.47 Y111.02 E196.28838
G1 X144.17 Y113.88 E196.46767
G1 X144.16 Y115.23 E196.55149
G1 X144.25 Y115.40 E196.56354
G1 X144.87 Y116.97 E196.66881
G1 X145.33 Y118.59 E196.77433
G1 X145.63 Y120.26 E196.87988
G1 X145.77 Y121.95 E196.98538
G1 X145.75 Y123.49 E197.08193
G1 X146.18 Y124.73 E197.16376
G1 X147.02 Y126.78 E197.30184
G1 X147.96 Y128.76 E197.43869
G1 X149.02 Y130.71 E197.57679
G1 X150.18 Y132.61 E197.71566
G1 X151.44 Y134.44 E197.85400
G1 X152.75 Y136.14 E197.98793
G1 X153.60 Y137.12 E198.06866
G1 X153.70 Y137.14 E198.07496
G1 X155.18 Y137.88 E198.17827
G1 X155.38 Y138.08 E198.19604
G1 X155.78 Y138.28 E198.22387
G1 X155.98 Y138.49 E198.24186
G1 X156.55 Y138.59 E198.27799
G1 X158.70 Y138.88 E198.41314
G1 X160.88 Y139.06 E198.54946
G1 X163.11 Y139.11 E198.68857
G1 X165.34 Y139.06 E198.82763
G1 X167.52 Y138.88 E198.96394
G1 X169.66 Y138.59 E199.09897
G1 X170.49 Y138.44 E199.15141
G1 X170.87 Y138.15 E199.18106
G1 X172.32 Y137.29 E199.28626
G1 X173.85 Y136.56 E199.39176
G1 X175.44 Y135.99 E199.49743
G1 X177.08 Y135.58 E199.60299
G1 X178.76 Y135.33 E199.70853
G1 X179.44 Y135.30 E199.75137
G1 X180.11 Y134.90 E199.79987
G1 X181.26 Y134.07 E199.88832
G1 X182.53 Y132.95 E199.99384
G1 X191.80 Y132.95 E200.57231
G1 X191.80 Y139.53 E200.98260
G1 X192.65 Y140.30 E201.05421
G1 X193.79 Y141.55 E201.15973
G1 X194.80 Y142.91 E201.26511
G1 X195.67 Y144.36 E201.37091
G1 X196.40 Y145.89 E201.47652
G1 X196.97 Y147.49 E201.58212
G1 X197.38 Y149.13 E201.68761
G1 X197.63 Y150.80 E201.79311
G1 X197.71 Y152.49 E201.89869
G1 X197.63 Y154.18 E202.00432
G1 X197.38 Y155.86 E202.11000
G1 X196.97 Y157.50 E202.21553
G1 X196.40 Y159.10 E202.32116
G1 X195.68 Y160.63 E202.42675
G1 X194.81 Y162.08 E202.53242
G1 X193.80 Y163.44 E202.63787
G1 X192.66 Y164.69 E202.74352
G1 X191.81 Y165.47 E202.81571
G1 X191.80 Y168.17 E202.98415
G1 X191.80 Y172.05 E203.22618
G1 X182.44 Y172.05 E203.80990
G1 X180.11 Y170.36 E203.98942
G1 X178.96 Y169.68 E204.07313
G1 X178.76 Y169.67 E204.08524
G1 X177.10 Y169.42 E204.19020
G1 X175.46 Y169.01 E204.29587
G1 X173.86 Y168.44 E204.40158
G1 X172.33 Y167.72 E204.50711
G1 X171.00 Y166.93 E204.60335
G1 X169.72 Y166.68 E204.68464
G1 X167.51 Y166.38 E204.82392
G1 X165.34 Y166.21 E204.95992
G1 X163.11 Y166.15 E205.09897
G1 X160.88 Y166.21 E205.23803
G1 X158.71 Y166.38 E205.37403
G1 X156.54 Y166.67 E205.51006
G1 X154.76 Y167.01 E205.62302
G1 X154.38 Y167.40 E205.65706
G1 X153.14 Y168.01 E205.74327
G1 X152.53 Y168.72 E205.80180
G1 X151.20 Y170.45 E205.93764
G1 X149.96 Y172.25 E206.07374
G1 X148.79 Y174.16 E206.21377
G1 X147.74 Y176.10 E206.35148
G1 X146.79 Y178.08 E206.48814
G1 X145.97 Y180.08 E206.62307
G1 X145.69 Y180.88 E206.67575
G1 X145.75 Y181.35 E206.70544
G1 X145.77 Y183.04 E206.81054
G1 X145.64 Y184.72 E206.91608
G1 X145.33 Y186.39 E207.02174
G1 X144.87 Y188.02 E207.12737
G1 X144.25 Y189.59 E207.23292
G1 X143.93 Y190.21 E207.27582
G1 X143.94 Y190.99 E207.32446
G1 X144.08 Y192.39 E207.41253
G1 X144.43 Y194.05 E207.51794
G1 X139.79 Y202.08 E208.09674
G1 X134.09 Y198.79 E208.50704
G1 X133.00 Y199.15 E208.57865
G1 X131.35 Y199.50 E208.68409
G1 X129.66 Y199.70 E208.78964
G1 X127.97 Y199.72 E208.89523
G1 X126.29 Y199.59 E209.00065
G1 X124.62 Y199.29 E209.10649
G1 X122.99 Y198.82 E209.21212
G1 X121.41 Y198.20 E209.31769
G1 X119.91 Y197.43 E209.42323
G1 X118.48 Y196.51 E209.52885
G1 X117.16 Y195.46 E209.63446
G1 X115.94 Y194.28 E209.74000
G1 X114.84 Y192.99 E209.84561
G1 X113.88 Y191.60 E209.95115
G1 X113.06 Y190.12 E210.05684
G1 X112.38 Y188.56 E210.16245
G1 X111.86 Y186.95 E210.26800
G1 X111.62 Y185.82 E210.34017
G1 X109.28 Y184.47 E210.50851
G1 X105.92 Y182.53 E210.75064
G1 X110.67 Y174.31 E211.34263
G1 X111.91 Y173.84 E211.42552
G1 X113.23 Y173.25 E211.51577
G1 X114.40 Y172.59 E211.59912
G1 X114.50 Y172.43 E211.61121
G1 X115.55 Y171.11 E211.71656
G1 X116.73 Y169.89 E211.82227
G1 X118.02 Y168.80 E211.92775
G1 X119.41 Y167.83 E212.03333
G1 X120.76 Y167.08 E212.12973
G1 X121.61 Y166.10 E212.21090
G1 X122.98 Y164.33 E212.34999
G1 X124.22 Y162.53 E212.48663
G1 X125.39 Y160.63 E212.62548
G1 X126.44 Y158.68 E212.76375
G1 X127.39 Y156.69 E212.90085
G1 X128.21 Y154.70 E213.03567
G1 X128.59 Y153.59 E213.10842
G1 X128.59 Y150.62 E213.29395
G1 X128.44 Y150.18 E213.32320
G1 X127.62 Y148.18 E213.45813
G1 X126.67 Y146.19 E213.59532
G1 X125.61 Y144.24 E213.73353
G1 X124.45 Y142.34 E213.87275
G1 X123.20 Y140.53 E214.00961
G1 X121.88 Y138.81 E214.14486
G1 X121.33 Y138.18 E214.19677
G1 X120.90 Y137.99 E214.22635
G1 X119.42 Y137.18 E214.33148
G1 X118.03 Y136.21 E214.43709
G1 X116.74 Y135.12 E214.54270
G1 X115.56 Y133.90 E214.64842
G1 X114.51 Y132.57 E214.75393
G1 X114.14 Y132.00 E214.79683
G1 X113.46 Y131.61 E214.84539
G1 X112.16 Y131.03 E214.93376
G1 X110.56 Y130.50 E215.03927
G1 X105.92 Y122.47 E215.61768
G1 X111.62 Y119.18 E216.02803
G1 X111.86 Y118.06 E216.09959
G1 X112.38 Y116.45 E216.20513
G1 X113.05 Y114.89 E216.31077
G1 X113.87 Y113.41 E216.41641
G1 X114.83 Y112.02 E216.52184
G1 X115.93 Y110.73 E216.62755
G0 F6000 X115.57 Y110.39
G1 F2700 X116.82 Y109.17 E216.73622
G1 X118.18 Y108.09 E216.84469
G1 X119.64 Y107.15 E216.95345
G1 X121.19 Y106.35 E217.06206
G1 X122.81 Y105.71 E217.17073
G1 X124.49 Y105.23 E217.27943
G1 X126.21 Y104.92 E217.38821
G1 X127.94 Y104.78 E217.49658
G1 X129.68 Y104.80 E217.60529
G1 X131.41 Y105.00 E217.71402
G1 X133.12 Y105.37 E217.82276
G1 X134.03 Y105.66 E217.88265
G1 X136.18 Y104.42 E218.03732
G1 X139.97 Y102.23 E218.31040
G1 X144.99 Y110.91 E218.93547
G1 X144.67 Y113.92 E219.12391
G1 X144.66 Y115.11 E219.19812
G1 X144.70 Y115.19 E219.20401
G1 X145.34 Y116.81 E219.31230
G1 X145.82 Y118.48 E219.42088
G1 X146.13 Y120.19 E219.52947
G1 X146.27 Y121.93 E219.63804
G1 X146.25 Y123.42 E219.73072
G1 X146.64 Y124.54 E219.80489
G1 X147.48 Y126.58 E219.94244
G1 X148.41 Y128.54 E220.07798
G1 X149.46 Y130.47 E220.21471
G1 X150.61 Y132.35 E220.35199
G1 X151.83 Y134.12 E220.48624
G1 X153.15 Y135.83 E220.62088
G1 X153.87 Y136.67 E220.69021
G1 X155.47 Y137.47 E220.80183
G1 X155.67 Y137.67 E220.81946
G1 X156.08 Y137.87 E220.84749
G1 X156.23 Y138.02 E220.86099
G1 X156.64 Y138.10 E220.88703
G1 X158.73 Y138.38 E221.01884
G1 X160.91 Y138.56 E221.15509
G1 X163.11 Y138.61 E221.29215
G1 X165.31 Y138.56 E221.42915
G1 X167.49 Y138.38 E221.56552
G1 X169.57 Y138.10 E221.69690
G1 X170.28 Y137.97 E221.74199
G1 X170.59 Y137.74 E221.76603
G1 X172.08 Y136.85 E221.87427
G1 X173.66 Y136.10 E221.98284
G1 X175.30 Y135.51 E222.09161
G1 X176.99 Y135.09 E222.20019
G1 X178.71 Y134.83 E222.30883
G1 X179.30 Y134.80 E222.34561
G1 X179.85 Y134.48 E222.38528
G1 X180.94 Y133.69 E222.46983
G1 X182.34 Y132.45 E222.58604
G1 X192.30 Y132.45 E223.20761
G1 X192.30 Y139.30 E223.63529
G1 X193.01 Y139.94 E223.69459
G1 X194.18 Y141.23 E223.80315
G1 X195.21 Y142.63 E223.91162
G1 X196.11 Y144.12 E224.02041
G1 X196.86 Y145.70 E224.12912
G1 X197.44 Y147.34 E224.23783
G1 X197.87 Y149.03 E224.34635
G1 X198.12 Y150.75 E224.45493
G1 X198.21 Y152.49 E224.56357
G1 X198.13 Y154.23 E224.67227
G1 X197.87 Y155.96 E224.78097
G1 X197.45 Y157.65 E224.88959
G1 X196.86 Y159.29 E224.99827
G1 X196.12 Y160.86 E225.10696
G1 X195.22 Y162.36 E225.21569
G1 X194.19 Y163.76 E225.32416
G1 X193.02 Y165.05 E225.43291
G1 X192.31 Y165.69 E225.49282
G1 X192.30 Y168.17 E225.64748
G1 X192.30 Y172.55 E225.92063
G1 X182.28 Y172.55 E226.54569
G1 X179.84 Y170.78 E226.73347
G1 X178.81 Y170.17 E226.80843
G1 X178.72 Y170.17 E226.81430
G1 X177.00 Y169.91 E226.92235
G1 X175.31 Y169.49 E227.03104
G1 X173.67 Y168.91 E227.13978
G1 X172.09 Y168.16 E227.24844
G1 X170.82 Y167.40 E227.34068
G1 X169.64 Y167.17 E227.41606
G1 X167.48 Y166.88 E227.55201
G1 X165.31 Y166.71 E227.68788
G1 X163.11 Y166.65 E227.82488
G1 X160.91 Y166.71 E227.96187
G1 X158.74 Y166.88 E228.09794
G1 X156.63 Y167.16 E228.23039
G1 X155.01 Y167.47 E228.33344
G1 X154.68 Y167.81 E228.36290
G1 X153.46 Y168.42 E228.44796
G1 X152.91 Y169.05 E228.50031
G1 X151.61 Y170.73 E228.63268
G1 X150.38 Y172.52 E228.76828
G1 X149.23 Y174.40 E228.90551
G1 X148.18 Y176.32 E229.04208
G1 X147.24 Y178.30 E229.17859
G1 X146.44 Y180.26 E229.31083
G1 X146.20 Y180.94 E229.35531
G1 X146.25 Y181.32 E229.37947
G1 X146.27 Y183.05 E229.48756
G1 X146.13 Y184.79 E229.59618
G1 X145.82 Y186.51 E229.70495
G1 X145.34 Y188.18 E229.81362
G1 X144.70 Y189.80 E229.92219
G1 X144.44 Y190.33 E229.95898
G1 X144.44 Y190.97 E229.99883
G1 X144.58 Y192.31 E230.08333
G1 X144.96 Y194.13 E230.19918
G1 X139.97 Y202.77 E230.82104
G1 X134.03 Y199.34 E231.24868
G1 X133.13 Y199.63 E231.30796
G1 X131.43 Y200.00 E231.41648
G1 X129.70 Y200.20 E231.52509
G1 X127.96 Y200.22 E231.63374
G1 X126.22 Y200.09 E231.74223
G1 X124.50 Y199.77 E231.85112
G1 X122.83 Y199.30 E231.95986
G1 X121.21 Y198.66 E232.06850
G1 X119.66 Y197.86 E232.17706
G1 X118.19 Y196.92 E232.28574
G1 X116.83 Y195.83 E232.39445
G1 X115.58 Y194.62 E232.50304
G1 X114.45 Y193.29 E232.61170
G1 X113.46 Y191.86 E232.72028
G1 X112.61 Y190.34 E232.82910
G1 X111.92 Y188.74 E232.93772
G1 X111.38 Y187.08 E233.04635
G1 X111.18 Y186.15 E233.10620
G1 X109.03 Y184.90 E233.26088
G1 X105.24 Y182.71 E233.53405
G1 X110.32 Y173.90 E234.16845
G1 X111.73 Y173.38 E234.26178
G1 X113.01 Y172.81 E234.34924
G1 X114.04 Y172.22 E234.42357
G1 X114.09 Y172.14 E234.42944
G1 X115.17 Y170.78 E234.53789
G1 X116.39 Y169.53 E234.64664
G1 X117.72 Y168.40 E234.75518
G1 X119.15 Y167.41 E234.86380
G1 X120.44 Y166.69 E234.95614
G1 X121.22 Y165.79 E235.03037
G1 X122.58 Y164.03 E235.16916
G1 X123.80 Y162.25 E235.30365
G1 X124.94 Y160.40 E235.43928
G1 X126.00 Y158.45 E235.57747
G1 X126.93 Y156.49 E235.71267
G1 X127.75 Y154.51 E235.84626
G1 X128.09 Y153.51 E235.91241
G1 X128.09 Y150.70 E236.08740
G1 X127.97 Y150.35 E236.11077
G1 X127.16 Y148.38 E236.24362
G1 X126.22 Y146.41 E236.37953
G1 X125.18 Y144.50 E236.51551
G1 X124.03 Y142.61 E236.65324
G1 X122.81 Y140.83 E236.78787
G1 X121.49 Y139.13 E236.92196
G1 X121.03 Y138.60 E236.96609
G1 X120.68 Y138.44 E236.99002
G1 X119.16 Y137.60 E237.09822
G1 X117.73 Y136.61 E237.20682
G1 X116.40 Y135.48 E237.31555
G1 X115.18 Y134.23 E237.42431
G1 X114.10 Y132.87 E237.53283
G1 X113.78 Y132.37 E237.56951
G1 X113.22 Y132.06 E237.60947
G1 X111.99 Y131.50 E237.69402
G1 X110.22 Y130.92 E237.81011
G1 X105.24 Y122.29 E238.43161
G1 X111.18 Y118.86 E238.85934
G1 X111.38 Y117.93 E238.91854
G1 X111.91 Y116.27 E239.02713
G1 X112.60 Y114.67 E239.13584
G1 X113.45 Y113.15 E239.24457
G1 X114.44 Y111.72 E239.35309
G1 X115.57 Y110.39 E239.46185
G0 F6000 X115.20 Y110.04
G1 F2700 X116.49 Y108.80 E239.57356
G1 X117.89 Y107.69 E239.68510
G1 X119.39 Y106.71 E239.79691
G1 X120.99 Y105.89 E239.90864
G1 X122.65 Y105.23 E240.02034
G1 X124.38 Y104.74 E240.13214
G1 X126.14 Y104.42 E240.24391
G1 X127.92 Y104.28 E240.35535
G1 X129.71 Y104.30 E240.46711
G1 X131.49 Y104.51 E240.57892
G1 X133.25 Y104.88 E240.69073
G1 X133.97 Y105.12 E240.73842
G1 X135.93 Y103.99 E240.87920
G1 X140.16 Y101.55 E241.18346
G1 X145.50 Y110.80 E241.84988
G1 X145.17 Y113.94 E242.04679
G1 X145.16 Y114.99 E242.11202
G1 X145.81 Y116.65 E242.22306
G1 X146.31 Y118.37 E242.33468
G1 X146.63 Y120.13 E242.44632
G1 X146.77 Y121.91 E242.55796
G1 X146.75 Y123.33 E242.64658
G1 X147.11 Y124.36 E242.71441
G1 X147.94 Y126.39 E242.85078
G1 X148.85 Y128.30 E242.98314
G1 X149.89 Y130.21 E243.11868
G1 X151.03 Y132.07 E243.25492
G1 X152.24 Y133.83 E243.38810
G1 X153.53 Y135.50 E243.51953
G1 X154.19 Y136.27 E243.58281
G1 X155.77 Y137.06 E243.69305
G1 X155.97 Y137.26 E243.71074
G1 X156.37 Y137.46 E243.73871
G1 X156.47 Y137.56 E243.74771
G1 X156.72 Y137.61 E243.76301
G1 X158.80 Y137.89 E243.89425
G1 X160.95 Y138.06 E244.02844
G1 X163.11 Y138.12 E244.16338
G1 X165.27 Y138.06 E244.29826
G1 X167.42 Y137.89 E244.43244
G1 X169.50 Y137.61 E244.56375
G1 X170.08 Y137.50 E244.60014
G1 X170.31 Y137.32 E244.61869
G1 X171.85 Y136.40 E244.72998
G1 X173.46 Y135.64 E244.84156
G1 X175.15 Y135.03 E244.95345
G1 X176.89 Y134.60 E245.06512
G1 X178.66 Y134.33 E245.17672
G1 X179.15 Y134.31 E245.20731
G1 X179.57 Y134.06 E245.23765
G1 X180.64 Y133.29 E245.31984
G1 X182.15 Y131.95 E245.44594
G1 X192.80 Y131.95 E246.11054
G1 X192.80 Y139.08 E246.55557
G1 X193.36 Y139.59 E246.60259
G1 X194.56 Y140.91 E246.71420
G1 X195.63 Y142.35 E246.82569
G1 X196.55 Y143.89 E246.93758
G1 X197.32 Y145.51 E247.04939
G1 X197.92 Y147.20 E247.16116
G1 X198.36 Y148.93 E247.27271
G1 X198.62 Y150.70 E247.38438
G1 X198.71 Y152.49 E247.49602
G1 X198.63 Y154.28 E247.60784
G1 X198.36 Y156.05 E247.71963
G1 X197.93 Y157.79 E247.83127
G1 X197.33 Y159.48 E247.94299
G1 X196.56 Y161.10 E248.05478
G1 X195.64 Y162.64 E248.16655
G1 X194.57 Y164.07 E248.27814
G1 X193.37 Y165.40 E248.38994
G1 X192.81 Y165.92 E248.43757
G1 X192.80 Y168.17 E248.57839
G1 X192.80 Y173.05 E248.88272
G1 X182.12 Y173.05 E249.54907
G1 X179.56 Y171.20 E249.74618
G1 X178.66 Y170.67 E249.81118
G1 X176.90 Y170.41 E249.92207
G1 X175.16 Y169.97 E250.03385
G1 X173.48 Y169.37 E250.14571
G1 X171.86 Y168.60 E250.25738
G1 X170.64 Y167.88 E250.34563
G1 X169.56 Y167.67 E250.41408
G1 X167.41 Y167.38 E250.55003
G1 X165.27 Y167.21 E250.68353
G1 X163.11 Y167.15 E250.81840
G1 X160.95 Y167.21 E250.95328
G1 X158.81 Y167.38 E251.08709
G1 X156.70 Y167.66 E251.21954
G1 X155.25 Y167.94 E251.31148
G1 X154.97 Y168.22 E251.33644
G1 X153.77 Y168.82 E251.42033
G1 X153.30 Y169.36 E251.46486
G1 X152.01 Y171.03 E251.59624
G1 X150.79 Y172.81 E251.73113
G1 X149.66 Y174.66 E251.86612
G1 X148.63 Y176.54 E251.99998
G1 X147.71 Y178.49 E252.13449
G1 X146.90 Y180.45 E252.26693
G1 X146.71 Y180.99 E252.30237
G1 X146.75 Y181.29 E252.32107
G1 X146.77 Y183.07 E252.43222
G1 X146.63 Y184.85 E252.54390
G1 X146.31 Y186.62 E252.65571
G1 X145.82 Y188.34 E252.76750
G1 X145.16 Y190.01 E252.87915
G1 X144.94 Y190.44 E252.90977
G1 X144.94 Y190.93 E252.94008
G1 X145.07 Y192.24 E253.02195
G1 X145.49 Y194.22 E253.14799
G1 X140.16 Y203.45 E253.81299
G1 X133.98 Y199.88 E254.25798
G1 X133.26 Y200.11 E254.30502
G1 X131.51 Y200.49 E254.41659
G1 X129.73 Y200.70 E254.52822
G1 X127.94 Y200.72 E254.63993
G1 X126.16 Y200.58 E254.75148
G1 X124.39 Y200.26 E254.86348
G1 X122.67 Y199.77 E254.97527
G1 X121.00 Y199.11 E255.08694
G1 X119.41 Y198.29 E255.19856
G1 X117.90 Y197.32 E255.31036
G1 X116.50 Y196.21 E255.42204
G1 X115.21 Y194.97 E255.53380
G1 X114.05 Y193.60 E255.64547
G1 X113.03 Y192.13 E255.75715
G1 X112.16 Y190.56 E255.86898
G1 X111.45 Y188.92 E255.98071
G1 X110.90 Y187.21 E256.09236
G1 X110.74 Y186.47 E256.13995
G1 X108.78 Y185.34 E256.28086
G1 X104.56 Y182.90 E256.58521
G1 X109.98 Y173.50 E257.26201
G1 X111.54 Y172.92 E257.36573
G1 X112.77 Y172.36 E257.45005
G1 X113.69 Y171.84 E257.51570
G1 X114.80 Y170.45 E257.62693
G1 X116.05 Y169.16 E257.73874
G1 X117.41 Y168.00 E257.85037
G1 X118.88 Y166.98 E257.96204
G1 X120.12 Y166.29 E258.05048
G1 X120.84 Y165.46 E258.11909
G1 X122.16 Y163.75 E258.25384
G1 X123.38 Y161.98 E258.38805
G1 X124.52 Y160.12 E258.52388
G1 X125.56 Y158.22 E258.65916
G1 X126.47 Y156.29 E258.79185
G1 X127.27 Y154.34 E258.92326
G1 X127.59 Y153.42 E258.98415
G1 X127.59 Y150.79 E259.14847
G1 X127.50 Y150.52 E259.16597
G1 X126.70 Y148.58 E259.29681
G1 X125.78 Y146.64 E259.43087
G1 X124.74 Y144.73 E259.56674
G1 X123.62 Y142.90 E259.70047
G1 X122.39 Y141.11 E259.83604
G1 X121.11 Y139.46 E259.96600
G1 X120.72 Y139.01 E260.00301
G1 X120.45 Y138.89 E260.02136
G1 X118.89 Y138.03 E260.13260
G1 X117.42 Y137.01 E260.24430
G1 X116.05 Y135.85 E260.35611
G1 X114.81 Y134.56 E260.46791
G1 X113.69 Y133.16 E260.57951
G1 X113.43 Y132.75 E260.61004
G1 X113.00 Y132.51 E260.64070
G1 X111.80 Y131.97 E260.72268
G1 X109.88 Y131.33 E260.84874
G1 X104.55 Y122.10 E261.51329
G1 X110.73 Y118.54 E261.95831
G1 X110.89 Y117.80 E262.00527
G1 X111.44 Y116.10 E262.11687
G1 X112.15 Y114.45 E262.22866
G1 X113.02 Y112.88 E262.34046
G1 X114.04 Y111.41 E262.45202
G1 X115.20 Y110.04 E262.56388
G0 F6000 X114.83 Y109.70
G1 F2700 X116.16 Y108.42 E262.67864
G1 X117.60 Y107.28 E262.79320
G1 X119.14 Y106.28 E262.90812
G1 X120.78 Y105.44 E263.02290
G1 X122.49 Y104.76 E263.13767
G1 X124.26 Y104.25 E263.25254
G1 X126.08 Y103.92 E263.36740
G1 X127.90 Y103.78 E263.48184
G1 X129.75 Y103.80 E263.59672
G1 X131.58 Y104.01 E263.71161
G1 X133.38 Y104.40 E263.82642
G1 X133.92 Y104.57 E263.86186
G1 X135.68 Y103.56 E263.98844
G1 X140.34 Y100.87 E264.32425
G1 X146.01 Y110.69 E265.03199
G1 X145.67 Y113.97 E265.23736
G1 X145.66 Y114.90 E265.29517
G1 X146.29 Y116.48 E265.40165
G1 X146.79 Y118.25 E265.51631
G1 X147.12 Y120.06 E265.63106
G1 X147.27 Y121.89 E265.74570
G1 X147.25 Y123.25 E265.83033
G1 X147.58 Y124.19 E265.89230
G1 X148.39 Y126.18 E266.02641
G1 X149.29 Y128.07 E266.15718
G1 X150.32 Y129.97 E266.29179
G1 X151.44 Y131.80 E266.42540
G1 X152.64 Y133.54 E266.55720
G1 X153.91 Y135.19 E266.68699
G1 X154.50 Y135.87 E266.74296
G1 X156.07 Y136.65 E266.85217
G1 X156.27 Y136.85 E266.86990
G1 X156.67 Y137.05 E266.89779
G1 X156.72 Y137.10 E266.90229
G1 X156.79 Y137.11 E266.90661
G1 X158.85 Y137.39 E267.03653
G1 X160.98 Y137.56 E267.16959
G1 X163.11 Y137.61 E267.30247
G1 X165.24 Y137.56 E267.43529
G1 X167.37 Y137.39 E267.56842
G1 X169.43 Y137.11 E267.69834
G1 X169.87 Y137.03 E267.72621
G1 X170.04 Y136.91 E267.73918
G1 X171.61 Y135.96 E267.85353
G1 X173.27 Y135.18 E267.96815
G1 X175.01 Y134.55 E268.08309
G1 X176.79 Y134.11 E268.19785
G1 X178.61 Y133.84 E268.31254
G1 X179.00 Y133.82 E268.33689
G1 X179.30 Y133.64 E268.35883
G1 X180.32 Y132.90 E268.43719
G1 X181.96 Y131.45 E268.57367
G1 X193.30 Y131.45 E269.28136
G1 X193.30 Y138.86 E269.74372
G1 X193.72 Y139.23 E269.77847
G1 X194.95 Y140.60 E269.89317
G1 X196.04 Y142.07 E270.00769
G1 X197.00 Y143.65 E270.12267
G1 X197.78 Y145.32 E270.23752
G1 X198.40 Y147.05 E270.35232
G1 X198.85 Y148.83 E270.46694
G1 X199.12 Y150.65 E270.58165
G1 X199.21 Y152.49 E270.69641
G1 X199.12 Y154.33 E270.81128
G1 X198.85 Y156.15 E270.92617
G1 X198.41 Y157.94 E271.04083
G1 X197.79 Y159.67 E271.15567
G1 X197.00 Y161.34 E271.27049
G1 X196.06 Y162.91 E271.38532
G1 X194.96 Y164.39 E271.49994
G1 X193.72 Y165.76 E271.61483
G1 X193.31 Y166.14 E271.65019
G1 X193.30 Y168.18 E271.77722
G1 X193.30 Y173.55 E272.11267
G1 X181.96 Y173.55 E272.82036
G1 X179.29 Y171.62 E273.02574
G1 X178.49 Y171.15 E273.08358
G1 X176.81 Y170.90 E273.18981
G1 X175.02 Y170.45 E273.30467
G1 X173.28 Y169.83 E273.41957
G1 X171.62 Y169.04 E273.53436
G1 X170.46 Y168.35 E273.61855
G1 X169.48 Y168.16 E273.68116
G1 X167.37 Y167.87 E273.81384
G1 X165.24 Y167.71 E273.94715
G1 X163.11 Y167.65 E274.07996
G1 X160.98 Y167.71 E274.21278
G1 X158.84 Y167.88 E274.34666
G1 X156.79 Y168.15 E274.47565
G1 X155.50 Y168.40 E274.55756
G1 X155.27 Y168.63 E274.57802
G1 X154.08 Y169.22 E274.66071
G1 X153.68 Y169.69 E274.69895
G1 X152.42 Y171.32 E274.82786
G1 X151.21 Y173.08 E274.96072
G1 X150.10 Y174.90 E275.09369
G1 X149.07 Y176.79 E275.22828
G1 X148.16 Y178.69 E275.35955
G1 X147.37 Y180.61 E275.48894
G1 X147.22 Y181.05 E275.51780
G1 X147.25 Y181.26 E275.53079
G1 X147.27 Y183.09 E275.64499
G1 X147.13 Y184.92 E275.75968
G1 X146.80 Y186.73 E275.87460
G1 X146.29 Y188.50 E275.98937
G1 X145.62 Y190.21 E276.10410
G1 X145.44 Y190.56 E276.12850
G1 X145.44 Y190.91 E276.15008
G1 X145.57 Y192.16 E276.22837
G1 X146.02 Y194.30 E276.36492
G1 X140.34 Y204.13 E277.07297
G1 X133.92 Y200.43 E277.53531
G1 X133.39 Y200.60 E277.57002
G1 X131.59 Y200.98 E277.68467
G1 X129.76 Y201.20 E277.79937
G1 X127.92 Y201.22 E277.91413
G1 X126.09 Y201.08 E278.02875
G1 X124.28 Y200.75 E278.14378
G1 X122.51 Y200.24 E278.25863
G1 X120.79 Y199.57 E278.37344
G1 X119.16 Y198.73 E278.48810
G1 X117.61 Y197.73 E278.60293
G1 X116.17 Y196.59 E278.71772
G1 X114.84 Y195.31 E278.83247
G1 X113.65 Y193.91 E278.94724
G1 X112.61 Y192.39 E279.06197
G1 X111.71 Y190.78 E279.17693
G1 X110.98 Y189.09 E279.29167
G1 X110.41 Y187.34 E279.40639
G1 X110.29 Y186.79 E279.44174
G1 X108.53 Y185.77 E279.56876
G1 X103.87 Y183.08 E279.90429
G1 X109.64 Y173.09 E280.62352
G1 X111.34 Y172.46 E280.73693
G1 X112.55 Y171.91 E280.81947
G1 X113.36 Y171.46 E280.87744
G1 X114.42 Y170.12 E280.98407
G1 X115.70 Y168.79 E281.09896
G1 X117.11 Y167.60 E281.21365
G1 X118.62 Y166.56 E281.32836
G1 X119.80 Y165.90 E281.41280
G1 X120.46 Y165.13 E281.47598
G1 X121.76 Y163.46 E281.60788
G1 X122.96 Y161.71 E281.74026
G1 X124.08 Y159.89 E281.87357
G1 X125.11 Y157.98 E282.00886
G1 X126.02 Y156.09 E282.13957
G1 X126.80 Y154.17 E282.26902
G1 X127.09 Y153.34 E282.32389
G1 X127.09 Y150.87 E282.47768
G1 X127.03 Y150.70 E282.48923
G1 X126.24 Y148.78 E282.61863
G1 X125.34 Y146.88 E282.74987
G1 X124.31 Y144.98 E282.88454
G1 X123.20 Y143.17 E283.01723
G1 X121.99 Y141.41 E283.15010
G1 X120.71 Y139.76 E283.28051
G1 X120.42 Y139.42 E283.30792
G1 X120.23 Y139.34 E283.32085
G1 X118.63 Y138.45 E283.43511
G1 X117.12 Y137.41 E283.54985
G1 X115.71 Y136.22 E283.66472
G1 X114.43 Y134.89 E283.77961
G1 X113.29 Y133.45 E283.89427
G1 X113.08 Y133.12 E283.91871
G1 X112.78 Y132.95 E283.94007
G1 X111.62 Y132.44 E284.01896
G1 X109.55 Y131.75 E284.15546
G1 X103.87 Y121.92 E284.86307
G1 X110.29 Y118.22 E285.32541
G1 X110.41 Y117.67 E285.36011
G1 X110.97 Y115.92 E285.47481
G1 X111.70 Y114.23 E285.58970
G1 X112.60 Y112.62 E285.70452
G1 X113.64 Y111.11 E285.81914
G1 X114.83 Y109.70 E285.93409
G0 F6000 X114.47 Y109.36
G1 F2700 X115.83 Y108.05 E286.05185
G1 X117.30 Y106.87 E286.16951
G1 X118.89 Y105.85 E286.28750
G1 X120.57 Y104.98 E286.40534
G1 X122.33 Y104.29 E286.52320
G1 X124.15 Y103.77 E286.64110
G1 X126.01 Y103.43 E286.75902
G1 X127.89 Y103.28 E286.87652
G1 X129.78 Y103.30 E286.99446
G1 X131.66 Y103.52 E287.11242
G1 X133.51 Y103.92 E287.23035
G1 X133.86 Y104.03 E287.25348
G1 X135.43 Y103.12 E287.36668
G1 X140.52 Y100.18 E287.73323
G1 X146.53 Y110.59 E288.48229
G1 X146.17 Y114.00 E288.69613
G1 X146.16 Y114.80 E288.74652
G1 X146.76 Y116.32 E288.84843
G1 X147.28 Y118.14 E288.96615
G1 X147.62 Y120.00 E289.08394
G1 X147.78 Y121.88 E289.20164
G1 X147.75 Y123.17 E289.28241
G1 X148.05 Y124.02 E289.33852
G1 X148.85 Y125.97 E289.46978
G1 X149.75 Y127.86 E289.60013
G1 X150.76 Y129.73 E289.73268
G1 X151.85 Y131.51 E289.86338
G1 X153.05 Y133.25 E289.99468
G1 X154.30 Y134.87 E290.12252
G1 X154.81 Y135.46 E290.17128
G1 X156.36 Y136.24 E290.27941
G1 X156.56 Y136.44 E290.29714
G1 X156.95 Y136.63 E290.32399
G1 X158.90 Y136.89 E290.44675
G1 X161.00 Y137.06 E290.57781
G1 X163.11 Y137.11 E290.70969
G1 X165.22 Y137.06 E290.84151
G1 X167.32 Y136.89 E290.97257
G1 X169.34 Y136.62 E291.09991
G1 X169.66 Y136.56 E291.12036
G1 X169.76 Y136.49 E291.12772
G1 X171.37 Y135.52 E291.24520
G1 X173.08 Y134.71 E291.36286
G1 X174.86 Y134.07 E291.48090
G1 X176.69 Y133.62 E291.59868
G1 X178.56 Y133.34 E291.71646
G1 X178.85 Y133.32 E291.73469
G1 X179.02 Y133.23 E291.74662
G1 X180.01 Y132.51 E291.82318
G1 X181.76 Y130.95 E291.96951
G1 X193.80 Y130.95 E292.72030
G1 X193.80 Y138.64 E293.20005
G1 X194.07 Y138.88 E293.22244
G1 X195.34 Y140.28 E293.34023
G1 X196.46 Y141.79 E293.45778
G1 X197.44 Y143.42 E293.57586
G1 X198.24 Y145.12 E293.69375
G1 X198.88 Y146.91 E293.81167
G1 X199.34 Y148.74 E293.92931
G1 X199.62 Y150.60 E294.04711
G1 X199.71 Y152.49 E294.16493
G1 X199.62 Y154.38 E294.28280
G1 X199.34 Y156.25 E294.40077
G1 X198.89 Y158.08 E294.51852
G1 X198.25 Y159.86 E294.63640
G1 X197.44 Y161.57 E294.75432
G1 X196.47 Y163.19 E294.87222
G1 X195.35 Y164.71 E294.98988
G1 X194.08 Y166.11 E295.10786
G1 X193.81 Y166.36 E295.13090
G1 X193.80 Y168.18 E295.24415
G1 X193.80 Y174.05 E295.61078
G1 X181.79 Y174.05 E296.35976
G1 X179.01 Y172.03 E296.57443
G1 X178.32 Y171.63 E296.62402
G1 X176.71 Y171.39 E296.72577
G1 X174.88 Y170.93 E296.84366
G1 X173.09 Y170.29 E296.96167
G1 X171.38 Y169.49 E297.07948
G1 X170.28 Y168.82 E297.15976
G1 X169.41 Y168.66 E297.21526
G1 X167.30 Y168.37 E297.34793
G1 X165.22 Y168.21 E297.47786
G1 X163.11 Y168.15 E297.60968
G1 X161.00 Y168.21 E297.74150
G1 X158.91 Y168.37 E297.87200
G1 X156.88 Y168.64 E297.99991
G1 X155.74 Y168.86 E298.07185
G1 X155.56 Y169.04 E298.08773
G1 X154.40 Y169.62 E298.16922
G1 X154.07 Y170.00 E298.20035
G1 X152.83 Y171.61 E298.32690
G1 X151.63 Y173.35 E298.45869
G1 X150.53 Y175.15 E298.59032
G1 X149.52 Y177.01 E298.72270
G1 X148.62 Y178.89 E298.85230
G1 X147.83 Y180.81 E298.98161
G1 X147.73 Y181.10 E299.00104
G1 X147.75 Y181.22 E299.00858
G1 X147.78 Y183.10 E299.12583
G1 X147.62 Y184.99 E299.24359
G1 X147.28 Y186.85 E299.36154
G1 X146.77 Y188.66 E299.47943
G1 X146.07 Y190.42 E299.59718
G1 X145.94 Y190.68 E299.61539
G1 X145.94 Y190.89 E299.62824
G1 X146.06 Y192.08 E299.70308
G1 X146.55 Y194.38 E299.84990
G1 X140.52 Y204.81 E300.60110
G1 X133.86 Y200.97 E301.08079
G1 X133.52 Y201.08 E301.10325
G1 X131.67 Y201.48 E301.22088
G1 X129.80 Y201.70 E301.33867
G1 X127.91 Y201.73 E301.45649
G1 X126.03 Y201.57 E301.57417
G1 X124.16 Y201.24 E301.69232
G1 X122.34 Y200.72 E301.81021
G1 X120.59 Y200.02 E301.92804
G1 X118.91 Y199.16 E302.04577
G1 X117.32 Y198.14 E302.16371
G1 X115.84 Y196.96 E302.28152
G1 X114.48 Y195.65 E302.39936
G1 X113.26 Y194.21 E302.51718
G1 X112.18 Y192.66 E302.63501
G1 X111.26 Y191.00 E302.75298
G1 X110.51 Y189.27 E302.87082
G1 X109.93 Y187.47 E302.98862
G1 X109.85 Y187.11 E303.01159
G1 X108.28 Y186.20 E303.12492
G1 X108.28 Y186.20 E303.12499
G1 X103.19 Y183.26 E303.49161
G1 X109.30 Y172.68 E304.25325
G1 X111.16 Y171.99 E304.37705
G1 X112.32 Y171.47 E304.45679
G1 X113.03 Y171.07 E304.50744
G1 X114.05 Y169.79 E304.60945
G1 X115.36 Y168.43 E304.72739
G1 X116.80 Y167.21 E304.84513
G1 X118.35 Y166.13 E304.96293
G1 X119.48 Y165.50 E305.04347
G1 X120.07 Y164.82 E305.09944
G1 X121.36 Y163.16 E305.23103
G1 X122.55 Y161.44 E305.36134
G1 X123.65 Y159.63 E305.49299
G1 X124.66 Y157.78 E305.62498
G1 X125.56 Y155.89 E305.75545
G1 X126.34 Y153.98 E305.88403
G1 X126.59 Y153.25 E305.93184
G1 X126.59 Y150.96 E306.07527
G1 X126.57 Y150.90 E306.07924
G1 X125.78 Y148.98 E306.20860
G1 X124.89 Y147.09 E306.33864
G1 X123.88 Y145.24 E306.47055
G1 X122.77 Y143.43 E306.60260
G1 X121.58 Y141.71 E306.73310
G1 X120.33 Y140.08 E306.86093
G1 X120.12 Y139.84 E306.88131
G1 X120.01 Y139.79 E306.88851
G1 X118.37 Y138.88 E307.00584
G1 X116.81 Y137.80 E307.12368
G1 X115.37 Y136.58 E307.24156
G1 X114.06 Y135.22 E307.35954
G1 X112.88 Y133.74 E307.47725
G1 X112.72 Y133.50 E307.49552
G1 X112.55 Y133.40 E307.50820
G1 X111.44 Y132.90 E307.58345
G1 X109.21 Y132.16 E307.73041
G1 X103.19 Y121.74 E308.48107
G1 X109.85 Y117.89 E308.96085
G1 X109.93 Y117.54 E308.98317
G1 X110.50 Y115.74 E309.10093
G1 X111.25 Y114.01 E309.21889
G1 X112.17 Y112.36 E309.33683
G1 X113.25 Y110.80 E309.45450
G1 X114.47 Y109.36 E309.57250
G0 F6000 X114.10 Y109.02
G1 F2700 X115.50 Y107.67 E309.69339
G1 X117.01 Y106.47 E309.81407
G1 X118.64 Y105.41 E309.93514
G1 X120.37 Y104.53 E310.05602
G1 X122.17 Y103.81 E310.17696
G1 X124.03 Y103.28 E310.29792
G1 X125.94 Y102.93 E310.41893
G1 X127.87 Y102.77 E310.53945
G1 X129.81 Y102.80 E310.66044
G1 X131.74 Y103.03 E310.78148
G1 X133.63 Y103.43 E310.90248
G1 X133.80 Y103.49 E310.91342
G1 X135.18 Y102.69 E311.01283
G1 X140.71 Y99.50 E311.41049
G1 X147.04 Y110.48 E312.20091
G1 X146.67 Y114.03 E312.42390
G1 X146.66 Y114.71 E312.46619
G1 X147.24 Y116.16 E312.56353
G1 X147.77 Y118.03 E312.68436
G1 X148.12 Y119.93 E312.80514
G1 X148.28 Y121.86 E312.92597
G1 X148.26 Y123.09 E313.00281
G1 X148.51 Y123.84 E313.05203
G1 X149.31 Y125.78 E313.18242
G1 X150.19 Y127.63 E313.31043
G1 X151.19 Y129.47 E313.44080
G1 X152.28 Y131.24 E313.57066
G1 X153.46 Y132.96 E313.70060
G1 X154.69 Y134.56 E313.82706
G1 X155.12 Y135.06 E313.86809
G1 X156.66 Y135.83 E313.97499
G1 X156.86 Y136.03 E313.99272
G1 X157.10 Y136.15 E314.00917
G1 X158.97 Y136.40 E314.12715
G1 X161.01 Y136.56 E314.25464
G1 X163.11 Y136.61 E314.38565
G1 X165.21 Y136.56 E314.51660
G1 X167.25 Y136.40 E314.64422
G1 X169.26 Y136.13 E314.77113
G1 X169.46 Y136.09 E314.78325
G1 X169.48 Y136.07 E314.78512
G1 X171.14 Y135.08 E314.90561
G1 X172.89 Y134.25 E315.02637
G1 X174.72 Y133.60 E315.14741
G1 X176.59 Y133.12 E315.26827
G1 X178.51 Y132.84 E315.38914
G1 X178.71 Y132.83 E315.40119
G1 X178.75 Y132.81 E315.40432
G1 X179.69 Y132.12 E315.47708
G1 X181.57 Y130.45 E315.63415
G1 X194.30 Y130.45 E316.42797
G1 X194.30 Y138.42 E316.92506
G1 X194.42 Y138.53 E316.93517
G1 X195.72 Y139.96 E317.05601
G1 X196.88 Y141.51 E317.17667
G1 X197.88 Y143.18 E317.29779
G1 X198.71 Y144.93 E317.41878
G1 X199.36 Y146.76 E317.53968
G1 X199.83 Y148.64 E317.66041
G1 X200.12 Y150.55 E317.78123
G1 X200.21 Y152.49 E317.90211
G1 X200.12 Y154.43 E318.02310
G1 X199.84 Y156.35 E318.14416
G1 X199.37 Y158.23 E318.26494
G1 X198.71 Y160.05 E318.38585
G1 X197.88 Y161.81 E318.50689
G1 X196.89 Y163.47 E318.62790
G1 X195.74 Y165.03 E318.74855
G1 X194.43 Y166.47 E318.86961
G1 X194.30 Y166.58 E318.88047
G1 X194.30 Y168.18 E318.97988
G1 X194.30 Y174.55 E319.37763
G1 X181.63 Y174.55 E320.16795
G1 X178.74 Y172.46 E320.39065
G1 X178.15 Y172.11 E320.43337
G1 X176.61 Y171.88 E320.53039
G1 X174.73 Y171.41 E320.65136
G1 X172.90 Y170.76 E320.77242
G1 X171.15 Y169.93 E320.89335
G1 X170.10 Y169.30 E320.96968
G1 X169.32 Y169.15 E321.01927
G1 X167.24 Y168.87 E321.14979
G1 X165.21 Y168.71 E321.27717
G1 X163.11 Y168.65 E321.40811
G1 X161.01 Y168.71 E321.53906
G1 X158.98 Y168.87 E321.66618
G1 X156.95 Y169.14 E321.79384
G1 X155.99 Y169.32 E321.85480
G1 X155.86 Y169.45 E321.86618
G1 X154.71 Y170.03 E321.94636
G1 X154.46 Y170.32 E321.97059
G1 X153.23 Y171.91 E322.09606
G1 X152.06 Y173.61 E322.22454
G1 X150.96 Y175.40 E322.35577
G1 X149.96 Y177.25 E322.48640
G1 X149.08 Y179.09 E322.61418
G1 X148.31 Y180.97 E322.74050
G1 X148.24 Y181.16 E322.75329
G1 X148.24 Y181.19 E322.75505
G1 X148.28 Y183.12 E322.87536
G1 X148.12 Y185.05 E322.99618
G1 X147.77 Y186.96 E323.11724
G1 X147.24 Y188.82 E323.23819
G1 X146.53 Y190.63 E323.35902
G1 X146.44 Y190.80 E323.37107
G1 X146.44 Y190.85 E323.37437
G1 X146.56 Y192.00 E323.44659
G1 X147.07 Y194.47 E323.60366
G1 X140.71 Y205.50 E324.39794
G1 X133.80 Y201.51 E324.89492
G1 X133.65 Y201.56 E324.90514
G1 X131.75 Y201.97 E325.02583
G1 X129.83 Y202.19 E325.14669
G1 X127.89 Y202.23 E325.26756
G1 X125.96 Y202.07 E325.38831
G1 X124.05 Y201.72 E325.50950
G1 X122.18 Y201.19 E325.63050
G1 X120.38 Y200.48 E325.75141
G1 X118.66 Y199.60 E325.87215
G1 X117.03 Y198.54 E325.99316
G1 X115.51 Y197.34 E326.11407
G1 X114.11 Y195.99 E326.23496
