;-- START GCODE --
;Sliced for Type A Machines Series 1
;Sliced at: Mon 15-02-2016 11:20:10
;Basic settings: Layer height: 0.2 Walls: 1 Fill: 20
;Print Speed: 120 Support: 0
;Retraction Speed: 40 Retraction Distance: 1.2
;Print time: #P_TIME#
;Filament used: #F_AMNT#m #F_WGHT#g
;Filament cost: #F_COST#
M106 S255	 ;start with the fan on
G21        ;metric values
G90        ;absolute positioning
M106 S255    ;start with the fan on
G28     ;move to endstops
G29		;allows for auto-levelling
G1 X150 Y5  Z15.0 F6000 ;center and move the platform down 15mm
M109 S220 ;Heat To temp
G92 E0                  ;zero the extruded length
G1 F200 E30              ;extrude 30mm of feed stock
G92 E0                  ;zero the extruded length again
G1 X175 Y25  Z0 F6000 ;remove bugger
G1 X220 F6000 ;remove bugger
G1 X150 Y150  Z15 F6000 ;recenter and begin
G1 F6000

;Layer count: 160
;LAYER:0
M106 S255
G0 F6000 X96.25 Y96.25 Z0.30
;TYPE:SKIRT
G1 F2700 X208.75 Y96.25 E7.01581
G1 X208.75 Y208.75 E14.03162
G1 X96.25 Y208.75 E21.04743
G1 X96.25 Y96.25 E28.06324
G0 F6000 X96.75 Y96.75
G1 F2700 X208.25 Y96.75 E35.01669
G1 X208.25 Y208.25 E41.97013
G1 X96.75 Y208.25 E48.92358
G1 X96.75 Y96.75 E55.87703
G0 F6000 X97.25 Y97.25
G1 F2700 X207.75 Y97.25 E62.76811
G1 X207.75 Y207.75 E69.65920
G1 X97.25 Y207.75 E76.55028
G1 X97.25 Y97.25 E83.44136
G0 F6000 X97.75 Y97.75
G1 F2700 X207.25 Y97.75 E90.27009
G1 X207.25 Y207.25 E97.09881
G1 X97.75 Y207.25 E103.92753
G1 X97.75 Y97.75 E110.75625
G0 F6000 X98.25 Y98.25
G1 F2700 X206.75 Y98.25 E117.52261
G1 X206.75 Y206.75 E124.28897
G1 X98.25 Y206.75 E131.05533
G1 X98.25 Y98.25 E137.82168
G0 F6000 X98.75 Y98.75
G1 F2700 X206.25 Y98.75 E144.52568
G1 X206.25 Y206.25 E151.22968
G1 X98.75 Y206.25 E157.93367
G1 X98.75 Y98.75 E164.63767
G0 F6000 X99.25 Y99.25
G1 F2700 X205.75 Y99.25 E171.27930
G1 X205.75 Y205.75 E177.92093
G1 X99.25 Y205.75 E184.56257
G1 X99.25 Y99.25 E191.20420
G0 F6000 X99.75 Y99.75
G1 F2700 X205.25 Y99.75 E197.78347
G1 X205.25 Y205.25 E204.36274
G1 X99.75 Y205.25 E210.94201
G1 X99.75 Y99.75 E217.52128
G0 F6000 X100.25 Y100.25
G1 F2700 X204.75 Y100.25 E224.03819
G1 X204.75 Y204.75 E230.55510
G1 X100.25 Y204.75 E237.07201
G1 X100.25 Y100.25 E243.58891
G0 F6000 X100.75 Y100.75
G1 F2700 X204.25 Y100.75 E250.04346
G1 X204.25 Y204.25 E256.49800
G1 X100.75 Y204.25 E262.95255
G1 X100.75 Y100.75 E269.40709
G0 F6000 X101.25 Y101.25
G1 F2700 X203.75 Y101.25 E275.79928
G1 X203.75 Y203.75 E282.19146
G1 X101.25 Y203.75 E288.58364
G1 X101.25 Y101.25 E294.97582
G0 F6000 X101.75 Y101.75
G1 F2700 X203.25 Y101.75 E301.30564
G1 X203.25 Y203.25 E307.63546
G1 X101.75 Y203.25 E313.96528
G1 X101.75 Y101.75 E320.29510
G0 F6000 X102.25 Y102.25
G1 F2700 X202.75 Y102.25 E326.56256
G1 X202.75 Y202.75 E332.83001
G1 X102.25 Y202.75 E339.09747
G1 X102.25 Y102.25 E345.36493
G0 F6000 X102.75 Y102.75
G1 F2700 X202.25 Y102.75 E351.57002
G1 X202.25 Y202.25 E357.77512
G1 X102.75 Y202.25 E363.98021
G1 X102.75 Y102.75 E370.18530
G0 F6000 X103.25 Y103.25
G1 F2700 X201.75 Y103.25 E376.32803
G1 X201.75 Y201.75 E382.47077
G1 X103.25 Y201.75 E388.61350
G1 X103.25 Y103.25 E394.75623
G0 F6000 X103.75 Y103.75
G1 F2700 X201.25 Y103.75 E400.83660
G1 X201.25 Y201.25 E406.91696
G1 X103.75 Y201.25 E412.99733
G1 X103.75 Y103.75 E419.07770
G0 F6000 X104.25 Y104.25
G1 F2700 X200.75 Y104.25 E425.09571
G1 X200.75 Y200.75 E431.11371
G1 X104.25 Y200.75 E437.13172
G1 X104.25 Y104.25 E443.14972
G0 F6000 X104.75 Y104.75
G1 F2700 X200.25 Y104.75 E449.10537
G1 X200.25 Y200.25 E455.06101
G1 X104.75 Y200.25 E461.01665
G1 X104.75 Y104.75 E466.97230
G0 F6000 X105.25 Y105.25
G1 F2700 X199.75 Y105.25 E472.86558
G1 X199.75 Y199.75 E478.75886
G1 X105.25 Y199.75 E484.65214
G1 X105.25 Y105.25 E490.54542
G0 F6000 X105.75 Y105.75
G1 F2700 X199.25 Y105.75 E496.37633
G1 X199.25 Y199.25 E502.20725
G1 X105.75 Y199.25 E508.03817
G1 X105.75 Y105.75 E513.86909
G0 F6000 X106.25 Y106.25
G1 F2700 X198.75 Y106.25 E519.63764
G1 X198.75 Y198.75 E525.40620
G1 X106.25 Y198.75 E531.17475
G1 X106.25 Y106.25 E536.94331
G0 F6000 X106.75 Y106.75
G1 F2700 X198.25 Y106.75 E542.64950
G1 X198.25 Y198.25 E548.35569
G1 X106.75 Y198.25 E554.06188
G1 X106.75 Y106.75 E559.76807
G0 F6000 X107.25 Y107.25
G1 F2700 X197.75 Y107.25 E565.41190
G1 X197.75 Y197.75 E571.05573
G1 X107.25 Y197.75 E576.69956
G1 X107.25 Y107.25 E582.34339
G0 F6000 X107.75 Y107.75
G1 F2700 X197.25 Y107.75 E587.92486
G1 X197.25 Y197.25 E593.50632
G1 X107.75 Y197.25 E599.08779
G1 X107.75 Y107.75 E604.66926
G0 F6000 X108.25 Y108.25
G1 F2700 X196.75 Y108.25 E610.18836
G1 X196.75 Y196.75 E615.70746
G1 X108.25 Y196.75 E621.22657
G1 X108.25 Y108.25 E626.74567
G0 F6000 X109.25 Y109.25
;TYPE:WALL-INNER
G1 F2700 X195.75 Y109.25 E632.14005
G1 X195.75 Y195.75 E637.53443
G1 X109.25 Y195.75 E642.92880
G1 X109.25 Y109.25 E648.32318
G0 F6000 X108.75 Y108.75
;TYPE:WALL-OUTER
G1 F2700 X196.25 Y108.75 E653.77992
G1 X196.25 Y196.25 E659.23666
G1 X108.75 Y196.25 E664.69341
G1 X108.75 Y108.75 E670.15015
G0 F6000 X109.42 Y109.78
;TYPE:FILL
G1 F2700 X195.22 Y195.57 E677.71686
G0 F6000 X195.57 Y195.22
G1 F2700 X109.78 Y109.42 E685.28357
G0 F6000 X110.48 Y109.42
G1 F2700 X195.57 Y194.51 E692.78793
G0 F6000 X195.57 Y193.81
G1 F2700 X111.19 Y109.42 E700.22994
G0 F6000 X111.90 Y109.42
G1 F2700 X195.57 Y193.10 E707.60960
G0 F6000 X195.57 Y192.39
G1 F2700 X112.61 Y109.42 E714.92690
G0 F6000 X113.31 Y109.42
G1 F2700 X195.57 Y191.69 E722.18184
G0 F6000 X195.57 Y190.98
G1 F2700 X114.02 Y109.42 E729.37444
G0 F6000 X114.73 Y109.42
G1 F2700 X195.57 Y190.27 E736.50463
G0 F6000 X195.57 Y189.56
G1 F2700 X115.44 Y109.42 E743.57248
G0 F6000 X116.14 Y109.42
G1 F2700 X195.57 Y188.86 E750.57792
G0 F6000 X195.57 Y188.15
G1 F2700 X116.85 Y109.42 E757.52102
G0 F6000 X117.56 Y109.42
G1 F2700 X195.57 Y187.44 E764.40175
G0 F6000 X195.57 Y186.74
G1 F2700 X118.26 Y109.42 E771.22014
G0 F6000 X118.97 Y109.42
G1 F2700 X195.57 Y186.03 E777.97617
G0 F6000 X195.57 Y185.32
G1 F2700 X119.68 Y109.42 E784.66985
G0 F6000 X120.38 Y109.42
G1 F2700 X195.57 Y184.61 E791.30118
G0 F6000 X195.57 Y183.91
G1 F2700 X121.09 Y109.42 E797.87011
G0 F6000 X121.80 Y109.42
G1 F2700 X195.57 Y183.20 E804.37668
G0 F6000 X195.57 Y182.49
G1 F2700 X122.51 Y109.42 E810.82086
G0 F6000 X123.21 Y109.42
G1 F2700 X195.57 Y181.78 E817.20268
G0 F6000 X195.57 Y181.08
G1 F2700 X123.92 Y109.42 E823.52215
G0 F6000 X124.63 Y109.42
G1 F2700 X195.57 Y180.37 E829.77927
G0 F6000 X195.57 Y179.66
G1 F2700 X125.33 Y109.42 E835.97404
G0 F6000 X126.04 Y109.42
G1 F2700 X195.57 Y178.96 E842.10645
G0 F6000 X195.57 Y178.25
G1 F2700 X126.75 Y109.42 E848.17650
G0 F6000 X127.45 Y109.42
G1 F2700 X195.57 Y177.54 E854.18421
G0 F6000 X195.57 Y176.84
G1 F2700 X128.16 Y109.42 E860.12952
G0 F6000 X128.87 Y109.42
G1 F2700 X195.57 Y176.13 E866.01242
G0 F6000 X195.57 Y175.42
G1 F2700 X129.58 Y109.42 E871.83298
G0 F6000 X130.28 Y109.42
G1 F2700 X195.57 Y174.71 E877.59118
G0 F6000 X195.57 Y174.01
G1 F2700 X130.99 Y109.42 E883.28703
G0 F6000 X131.70 Y109.42
G1 F2700 X195.57 Y173.30 E888.92053
G0 F6000 X195.57 Y172.59
G1 F2700 X132.41 Y109.42 E894.49167
G0 F6000 X133.11 Y109.42
G1 F2700 X195.57 Y171.89 E900.00046
G0 F6000 X195.57 Y171.18
G1 F2700 X133.82 Y109.42 E905.44690
G0 F6000 X134.53 Y109.42
G1 F2700 X195.57 Y170.47 E910.83094
G0 F6000 X195.57 Y169.76
G1 F2700 X135.23 Y109.42 E916.15262
G0 F6000 X135.94 Y109.42
G1 F2700 X195.57 Y169.06 E921.41191
G0 F6000 X195.57 Y168.35
G1 F2700 X136.65 Y109.42 E926.60884
G0 F6000 X137.35 Y109.42
G1 F2700 X195.57 Y167.64 E931.74342
G0 F6000 X195.57 Y166.94
G1 F2700 X138.06 Y109.42 E936.81565
G0 F6000 X138.77 Y109.42
G1 F2700 X195.57 Y166.23 E941.82553
G0 F6000 X195.57 Y165.52
G1 F2700 X139.48 Y109.42 E946.77305
G0 F6000 X140.18 Y109.42
G1 F2700 X195.57 Y164.81 E951.65821
G0 F6000 X195.57 Y164.11
G1 F2700 X140.89 Y109.42 E956.48099
G0 F6000 X141.60 Y109.42
G1 F2700 X195.57 Y163.40 E961.24140
G0 F6000 X195.57 Y162.69
G1 F2700 X142.31 Y109.42 E965.93942
G0 F6000 X143.01 Y109.42
G1 F2700 X195.57 Y161.99 E970.57509
G0 F6000 X195.57 Y161.28
G1 F2700 X143.72 Y109.42 E975.14840
G0 F6000 X144.43 Y109.42
G1 F2700 X195.57 Y160.57 E979.65936
G0 F6000 X195.57 Y159.87
G1 F2700 X145.13 Y109.42 E984.10797
G0 F6000 X145.84 Y109.42
G1 F2700 X195.57 Y159.16 E988.49422
G0 F6000 X195.57 Y158.45
G1 F2700 X146.55 Y109.42 E992.81812
G0 F6000 X147.25 Y109.42
G1 F2700 X195.57 Y157.74 E997.07967
G0 F6000 X195.57 Y157.04
G1 F2700 X147.96 Y109.42 E1001.27881
G0 F6000 X148.67 Y109.42
G1 F2700 X195.57 Y156.33 E1005.41557
G0 F6000 X195.57 Y155.62
G1 F2700 X149.38 Y109.42 E1009.48996
G0 F6000 X150.08 Y109.42
G1 F2700 X195.57 Y154.91 E1013.50201
G0 F6000 X195.57 Y154.21
G1 F2700 X150.79 Y109.42 E1017.45170
G0 F6000 X151.50 Y109.42
G1 F2700 X195.57 Y153.50 E1021.33904
G0 F6000 X195.57 Y152.79
G1 F2700 X152.20 Y109.42 E1025.16402
G0 F6000 X152.91 Y109.42
G1 F2700 X195.57 Y152.09 E1028.92665
G0 F6000 X195.57 Y151.38
G1 F2700 X153.62 Y109.42 E1032.62693
G0 F6000 X154.33 Y109.42
G1 F2700 X195.57 Y150.67 E1036.26481
G0 F6000 X195.57 Y149.97
G1 F2700 X155.03 Y109.42 E1039.84034
G0 F6000 X155.74 Y109.42
G1 F2700 X195.57 Y149.26 E1043.35347
G0 F6000 X195.57 Y148.55
G1 F2700 X156.45 Y109.42 E1046.80425
G0 F6000 X157.15 Y109.42
G1 F2700 X195.57 Y147.84 E1050.19267
G0 F6000 X195.57 Y147.14
G1 F2700 X157.86 Y109.42 E1053.51874
G0 F6000 X158.57 Y109.42
G1 F2700 X195.57 Y146.43 E1056.78246
G0 F6000 X195.57 Y145.72
G1 F2700 X159.28 Y109.42 E1059.98382
G0 F6000 X159.98 Y109.42
G1 F2700 X195.57 Y145.02 E1063.12283
G0 F6000 X195.57 Y144.31
G1 F2700 X160.69 Y109.42 E1066.19944
G0 F6000 X161.40 Y109.42
G1 F2700 X195.57 Y143.60 E1069.21370
G0 F6000 X195.57 Y142.89
G1 F2700 X162.10 Y109.42 E1072.16556
G0 F6000 X162.81 Y109.42
G1 F2700 X195.57 Y142.19 E1075.05507
G0 F6000 X195.57 Y141.48
G1 F2700 X163.52 Y109.42 E1077.88222
G0 F6000 X164.22 Y109.42
G1 F2700 X195.57 Y140.77 E1080.64703
G0 F6000 X195.57 Y140.07
G1 F2700 X164.93 Y109.42 E1083.34947
G0 F6000 X165.64 Y109.42
G1 F2700 X195.57 Y139.36 E1085.98957
G0 F6000 X195.57 Y138.65
G1 F2700 X166.35 Y109.42 E1088.56731
G0 F6000 X167.05 Y109.42
G1 F2700 X195.57 Y137.94 E1091.08270
G0 F6000 X195.57 Y137.24
G1 F2700 X167.76 Y109.42 E1093.53569
G0 F6000 X168.47 Y109.42
G1 F2700 X195.57 Y136.53 E1095.92633
G0 F6000 X195.57 Y135.82
G1 F2700 X169.18 Y109.42 E1098.25457
G0 F6000 X169.88 Y109.42
G1 F2700 X195.57 Y135.12 E1100.52045
G0 F6000 X195.57 Y134.41
G1 F2700 X170.59 Y109.42 E1102.72399
G0 F6000 X171.30 Y109.42
G1 F2700 X195.57 Y133.70 E1104.86517
G0 F6000 X195.57 Y133.00
G1 F2700 X172.00 Y109.42 E1106.94399
G0 F6000 X172.71 Y109.42
G1 F2700 X195.57 Y132.29 E1108.96047
G0 F6000 X195.57 Y131.58
G1 F2700 X173.42 Y109.42 E1110.91459
G0 F6000 X174.12 Y109.42
G1 F2700 X195.57 Y130.87 E1112.80631
G0 F6000 X195.57 Y130.17
G1 F2700 X174.83 Y109.42 E1114.63568
G0 F6000 X175.54 Y109.42
G1 F2700 X195.57 Y129.46 E1116.40265
G0 F6000 X195.57 Y128.75
G1 F2700 X176.25 Y109.42 E1118.10727
G0 F6000 X176.95 Y109.42
G1 F2700 X195.57 Y128.04 E1119.74953
G0 F6000 X195.57 Y127.34
G1 F2700 X177.66 Y109.42 E1121.32945
G0 F6000 X178.37 Y109.42
G1 F2700 X195.57 Y126.63 E1122.84701
G0 F6000 X195.57 Y125.92
G1 F2700 X179.07 Y109.42 E1124.30221
G0 F6000 X179.78 Y109.42
G1 F2700 X195.57 Y125.22 E1125.69506
G0 F6000 X195.57 Y124.51
G1 F2700 X180.49 Y109.42 E1127.02552
G0 F6000 X181.20 Y109.42
G1 F2700 X195.57 Y123.80 E1128.29362
G0 F6000 X195.57 Y123.09
G1 F2700 X181.90 Y109.42 E1129.49932
G0 F6000 X182.61 Y109.42
G1 F2700 X195.57 Y122.39 E1130.64267
G0 F6000 X195.57 Y121.68
G1 F2700 X183.32 Y109.42 E1131.72367
G0 F6000 X184.02 Y109.42
G1 F2700 X195.57 Y120.97 E1132.74231
G0 F6000 X195.57 Y120.27
G1 F2700 X184.73 Y109.42 E1133.69860
G0 F6000 X185.44 Y109.42
G1 F2700 X195.57 Y119.56 E1134.59254
G0 F6000 X195.57 Y118.85
G1 F2700 X186.15 Y109.42 E1135.42412
G0 F6000 X186.85 Y109.42
G1 F2700 X195.57 Y118.15 E1136.19335
G0 F6000 X195.57 Y117.44
G1 F2700 X187.56 Y109.42 E1136.90019
G0 F6000 X188.27 Y109.42
G1 F2700 X195.57 Y116.73 E1137.54467
G0 F6000 X195.57 Y116.02
G1 F2700 X188.97 Y109.42 E1138.12675
G0 F6000 X189.68 Y109.42
G1 F2700 X195.57 Y115.32 E1138.64648
G0 F6000 X195.57 Y114.61
G1 F2700 X190.39 Y109.42 E1139.10385
G0 F6000 X191.09 Y109.42
G1 F2700 X195.57 Y113.90 E1139.49887
G0 F6000 X195.57 Y113.20
G1 F2700 X191.80 Y109.42 E1139.83154
G0 F6000 X192.51 Y109.42
G1 F2700 X195.57 Y112.49 E1140.10186
G0 F6000 X195.57 Y111.78
G1 F2700 X193.22 Y109.42 E1140.30982
G0 F6000 X193.92 Y109.42
G1 F2700 X195.57 Y111.08 E1140.45538
G0 F6000 X195.57 Y110.37
G1 F2700 X194.63 Y109.42 E1140.53860
G0 F6000 X195.34 Y109.42
G1 F2700 X195.57 Y109.66 E1140.55941
G0 F6000 X194.51 Y195.57
G1 F2700 X109.42 Y110.48 E1148.06377
G0 F6000 X109.42 Y111.19
G1 F2700 X193.81 Y195.57 E1155.50578
G0 F6000 X193.10 Y195.57
G1 F2700 X109.42 Y111.90 E1162.88543
G0 F6000 X109.42 Y112.61
G1 F2700 X192.39 Y195.57 E1170.20273
G0 F6000 X191.69 Y195.57
G1 F2700 X109.42 Y113.31 E1177.45768
G0 F6000 X109.42 Y114.02
G1 F2700 X190.98 Y195.57 E1184.65027
G0 F6000 X190.27 Y195.57
G1 F2700 X109.42 Y114.73 E1191.78047
G0 F6000 X109.42 Y115.44
G1 F2700 X189.56 Y195.57 E1198.84831
G0 F6000 X188.86 Y195.57
G1 F2700 X109.42 Y116.14 E1205.85376
G0 F6000 X109.42 Y116.85
G1 F2700 X188.15 Y195.57 E1212.79685
G0 F6000 X187.44 Y195.57
G1 F2700 X109.42 Y117.56 E1219.67759
G0 F6000 X109.42 Y118.26
G1 F2700 X186.74 Y195.57 E1226.49598
G0 F6000 X186.03 Y195.57
G1 F2700 X109.42 Y118.97 E1233.25201
G0 F6000 X109.42 Y119.68
G1 F2700 X185.32 Y195.57 E1239.94569
G0 F6000 X184.61 Y195.57
G1 F2700 X109.42 Y120.38 E1246.57701
G0 F6000 X109.42 Y121.09
G1 F2700 X183.91 Y195.57 E1253.14594
G0 F6000 X183.20 Y195.57
G1 F2700 X109.42 Y121.80 E1259.65252
G0 F6000 X109.42 Y122.51
G1 F2700 X182.49 Y195.57 E1266.09669
G0 F6000 X181.78 Y195.57
G1 F2700 X109.42 Y123.21 E1272.47852
G0 F6000 X109.42 Y123.92
G1 F2700 X181.08 Y195.57 E1278.79799
G0 F6000 X180.37 Y195.57
G1 F2700 X109.42 Y124.63 E1285.05511
G0 F6000 X109.42 Y125.33
G1 F2700 X179.66 Y195.57 E1291.24987
G0 F6000 X178.96 Y195.57
G1 F2700 X109.42 Y126.04 E1297.38228
G0 F6000 X109.42 Y126.75
G1 F2700 X178.25 Y195.57 E1303.45234
G0 F6000 X177.54 Y195.57
G1 F2700 X109.42 Y127.45 E1309.46004
G0 F6000 X109.42 Y128.16
G1 F2700 X176.84 Y195.57 E1315.40535
G0 F6000 X176.13 Y195.57
G1 F2700 X109.42 Y128.87 E1321.28826
G0 F6000 X109.42 Y129.58
G1 F2700 X175.42 Y195.57 E1327.10882
G0 F6000 X174.71 Y195.57
G1 F2700 X109.42 Y130.28 E1332.86702
G0 F6000 X109.42 Y130.99
G1 F2700 X174.01 Y195.57 E1338.56287
G0 F6000 X173.30 Y195.57
G1 F2700 X109.42 Y131.70 E1344.19636
G0 F6000 X109.42 Y132.41
G1 F2700 X172.59 Y195.57 E1349.76751
G0 F6000 X171.89 Y195.57
G1 F2700 X109.42 Y133.11 E1355.27630
G0 F6000 X109.42 Y133.82
G1 F2700 X171.18 Y195.57 E1360.72273
G0 F6000 X170.47 Y195.57
G1 F2700 X109.42 Y134.53 E1366.10677
G0 F6000 X109.42 Y135.23
G1 F2700 X169.76 Y195.57 E1371.42846
G0 F6000 X169.06 Y195.57
G1 F2700 X109.42 Y135.94 E1376.68774
G0 F6000 X109.42 Y136.65
G1 F2700 X168.35 Y195.57 E1381.88468
G0 F6000 X167.64 Y195.57
G1 F2700 X109.42 Y137.35 E1387.01926
G0 F6000 X109.42 Y138.06
G1 F2700 X166.94 Y195.57 E1392.09149
G0 F6000 X166.23 Y195.57
G1 F2700 X109.42 Y138.77 E1397.10136
G0 F6000 X109.42 Y139.48
G1 F2700 X165.52 Y195.57 E1402.04888
G0 F6000 X164.81 Y195.57
G1 F2700 X109.42 Y140.18 E1406.93405
G0 F6000 X109.42 Y140.89
G1 F2700 X164.11 Y195.57 E1411.75682
G0 F6000 X163.40 Y195.57
G1 F2700 X109.42 Y141.60 E1416.51724
G0 F6000 X109.42 Y142.31
G1 F2700 X162.69 Y195.57 E1421.21526
G0 F6000 X161.99 Y195.57
G1 F2700 X109.42 Y143.01 E1425.85092
G0 F6000 X109.42 Y143.72
G1 F2700 X161.28 Y195.57 E1430.42424
G0 F6000 X160.57 Y195.57
G1 F2700 X109.42 Y144.43 E1434.93520
G0 F6000 X109.42 Y145.13
G1 F2700 X159.87 Y195.57 E1439.38380
G0 F6000 X159.16 Y195.57
G1 F2700 X109.42 Y145.84 E1443.77005
G0 F6000 X109.42 Y146.55
G1 F2700 X158.45 Y195.57 E1448.09395
G0 F6000 X157.74 Y195.57
G1 F2700 X109.42 Y147.25 E1452.35550
G0 F6000 X109.42 Y147.96
G1 F2700 X157.04 Y195.57 E1456.55465
G0 F6000 X156.33 Y195.57
G1 F2700 X109.42 Y148.67 E1460.69140
G0 F6000 X109.42 Y149.38
G1 F2700 X155.62 Y195.57 E1464.76580
G0 F6000 X154.91 Y195.57
G1 F2700 X109.42 Y150.08 E1468.77784
G0 F6000 X109.42 Y150.79
G1 F2700 X154.21 Y195.57 E1472.72753
G0 F6000 X153.50 Y195.57
G1 F2700 X109.42 Y151.50 E1476.61487
G0 F6000 X109.42 Y152.20
G1 F2700 X152.79 Y195.57 E1480.43986
G0 F6000 X152.09 Y195.57
G1 F2700 X109.42 Y152.91 E1484.20249
G0 F6000 X109.42 Y153.62
G1 F2700 X151.38 Y195.57 E1487.90277
G0 F6000 X150.67 Y195.57
G1 F2700 X109.42 Y154.33 E1491.54065
G0 F6000 X109.42 Y155.03
G1 F2700 X149.97 Y195.57 E1495.11617
G0 F6000 X149.26 Y195.57
G1 F2700 X109.42 Y155.74 E1498.62930
G0 F6000 X109.42 Y156.45
G1 F2700 X148.55 Y195.57 E1502.08008
G0 F6000 X147.84 Y195.57
G1 F2700 X109.42 Y157.15 E1505.46850
G0 F6000 X109.42 Y157.86
G1 F2700 X147.14 Y195.57 E1508.79457
G0 F6000 X146.43 Y195.57
G1 F2700 X109.42 Y158.57 E1512.05829
G0 F6000 X109.42 Y159.28
G1 F2700 X145.72 Y195.57 E1515.25965
G0 F6000 X145.02 Y195.57
G1 F2700 X109.42 Y159.98 E1518.39866
G0 F6000 X109.42 Y160.69
G1 F2700 X144.31 Y195.57 E1521.47528
G0 F6000 X143.60 Y195.57
G1 F2700 X109.42 Y161.40 E1524.48953
G0 F6000 X109.42 Y162.10
G1 F2700 X142.89 Y195.57 E1527.44140
G0 F6000 X142.19 Y195.57
G1 F2700 X109.42 Y162.81 E1530.33090
G0 F6000 X109.42 Y163.52
G1 F2700 X141.48 Y195.57 E1533.15806
G0 F6000 X140.77 Y195.57
G1 F2700 X109.42 Y164.22 E1535.92286
G0 F6000 X109.42 Y164.93
G1 F2700 X140.07 Y195.57 E1538.62531
G0 F6000 X139.36 Y195.57
G1 F2700 X109.42 Y165.64 E1541.26540
G0 F6000 X109.42 Y166.35
G1 F2700 X138.65 Y195.57 E1543.84315
G0 F6000 X137.94 Y195.57
G1 F2700 X109.42 Y167.05 E1546.35853
G0 F6000 X109.42 Y167.76
G1 F2700 X137.24 Y195.57 E1548.81152
G0 F6000 X136.53 Y195.57
G1 F2700 X109.42 Y168.47 E1551.20216
G0 F6000 X109.42 Y169.18
G1 F2700 X135.82 Y195.57 E1553.53040
G0 F6000 X135.12 Y195.57
G1 F2700 X109.42 Y169.88 E1555.79629
G0 F6000 X109.42 Y170.59
G1 F2700 X134.41 Y195.57 E1557.99982
G0 F6000 X133.70 Y195.57
G1 F2700 X109.42 Y171.30 E1560.14100
G0 F6000 X109.42 Y172.00
G1 F2700 X133.00 Y195.57 E1562.21983
G0 F6000 X132.29 Y195.57
G1 F2700 X109.42 Y172.71 E1564.23630
G0 F6000 X109.42 Y173.42
G1 F2700 X131.58 Y195.57 E1566.19042
G0 F6000 X130.87 Y195.57
G1 F2700 X109.42 Y174.12 E1568.08215
G0 F6000 X109.42 Y174.83
G1 F2700 X130.17 Y195.57 E1569.91151
G0 F6000 X129.46 Y195.57
G1 F2700 X109.42 Y175.54 E1571.67849
G0 F6000 X109.42 Y176.25
G1 F2700 X128.75 Y195.57 E1573.38310
G0 F6000 X128.04 Y195.57
G1 F2700 X109.42 Y176.95 E1575.02537
G0 F6000 X109.42 Y177.66
G1 F2700 X127.34 Y195.57 E1576.60528
G0 F6000 X126.63 Y195.57
G1 F2700 X109.42 Y178.37 E1578.12284
G0 F6000 X109.42 Y179.07
G1 F2700 X125.92 Y195.57 E1579.57805
G0 F6000 X125.22 Y195.57
G1 F2700 X109.42 Y179.78 E1580.97090
G0 F6000 X109.42 Y180.49
G1 F2700 X124.51 Y195.57 E1582.30135
G0 F6000 X123.80 Y195.57
G1 F2700 X109.42 Y181.20 E1583.56945
G0 F6000 X109.42 Y181.90
G1 F2700 X123.09 Y195.57 E1584.77516
G0 F6000 X122.39 Y195.57
G1 F2700 X109.42 Y182.61 E1585.91851
G0 F6000 X109.42 Y183.32
G1 F2700 X121.68 Y195.57 E1586.99950
G0 F6000 X120.97 Y195.57
G1 F2700 X109.42 Y184.02 E1588.01815
G0 F6000 X109.42 Y184.73
G1 F2700 X120.27 Y195.57 E1588.97444
G0 F6000 X119.56 Y195.57
G1 F2700 X109.42 Y185.44 E1589.86837
G0 F6000 X109.42 Y186.15
G1 F2700 X118.85 Y195.57 E1590.69996
G0 F6000 X118.15 Y195.57
G1 F2700 X109.42 Y186.85 E1591.46919
G0 F6000 X109.42 Y187.56
G1 F2700 X117.44 Y195.57 E1592.17602
G0 F6000 X116.73 Y195.57
G1 F2700 X109.42 Y188.27 E1592.82050
G0 F6000 X109.42 Y188.97
G1 F2700 X116.02 Y195.57 E1593.40258
G0 F6000 X115.32 Y195.57
G1 F2700 X109.42 Y189.68 E1593.92231
G0 F6000 X109.42 Y190.39
G1 F2700 X114.61 Y195.57 E1594.37969
G0 F6000 X113.90 Y195.57
G1 F2700 X109.42 Y191.09 E1594.77471
G0 F6000 X109.42 Y191.80
G1 F2700 X113.20 Y195.57 E1595.10738
G0 F6000 X112.49 Y195.57
G1 F2700 X109.42 Y192.51 E1595.37769
G0 F6000 X109.42 Y193.22
G1 F2700 X111.78 Y195.57 E1595.58565
G0 F6000 X111.08 Y195.57
G1 F2700 X109.42 Y193.92 E1595.73122
G0 F6000 X109.42 Y194.63
G1 F2700 X110.37 Y195.57 E1595.81443
G0 F6000 X109.66 Y195.57
G1 F2700 X109.42 Y195.34 E1595.83524
;LAYER:1
G0 F6000 X109.25 Y195.75 Z0.50
;TYPE:WALL-INNER
G1 F3780 X109.25 Y109.25 E1599.43150
G1 X195.75 Y109.25 E1603.02775
G1 X195.75 Y195.75 E1606.62400
G1 X109.25 Y195.75 E1610.22025
G0 F6000 X108.75 Y196.25
;TYPE:WALL-OUTER
G1 F3780 X108.75 Y108.75 E1613.85808
G1 X196.25 Y108.75 E1617.49591
G1 X196.25 Y196.25 E1621.13373
G1 X108.75 Y196.25 E1624.77156
G0 F6000 X109.54 Y195.57
;TYPE:FILL
G1 F3780 X195.57 Y109.54 E1629.82991
G0 F6000 X194.98 Y109.42
G1 F3780 X109.42 Y194.98 E1634.86051
G0 F6000 X109.42 Y194.28
G1 F3780 X194.28 Y109.42 E1639.84955
G0 F6000 X193.57 Y109.42
G1 F3780 X109.42 Y193.57 E1644.79701
G0 F6000 X109.42 Y192.86
G1 F3780 X192.86 Y109.42 E1649.70290
G0 F6000 X192.16 Y109.42
G1 F3780 X109.42 Y192.16 E1654.56723
G0 F6000 X109.42 Y191.45
G1 F3780 X191.45 Y109.42 E1659.38998
G0 F6000 X190.74 Y109.42
G1 F3780 X109.42 Y190.74 E1664.17117
G0 F6000 X109.42 Y190.03
G1 F3780 X190.03 Y109.42 E1668.91073
G0 F6000 X189.33 Y109.42
G1 F3780 X109.42 Y189.33 E1673.60872
G0 F6000 X109.42 Y188.62
G1 F3780 X188.62 Y109.42 E1678.26514
G0 F6000 X187.91 Y109.42
G1 F3780 X109.42 Y187.91 E1682.87999
G0 F6000 X109.42 Y187.21
G1 F3780 X187.21 Y109.42 E1687.45327
G0 F6000 X186.50 Y109.42
G1 F3780 X109.42 Y186.50 E1691.98499
G0 F6000 X109.42 Y185.79
G1 F3780 X185.79 Y109.42 E1696.47513
G0 F6000 X185.09 Y109.42
G1 F3780 X109.42 Y185.09 E1700.92371
G0 F6000 X109.42 Y184.38
G1 F3780 X184.38 Y109.42 E1705.33072
G0 F6000 X183.67 Y109.42
G1 F3780 X109.42 Y183.67 E1709.69610
G0 F6000 X109.42 Y182.96
G1 F3780 X182.96 Y109.42 E1714.01991
G0 F6000 X182.26 Y109.42
G1 F3780 X109.42 Y182.26 E1718.30215
G0 F6000 X109.42 Y181.55
G1 F3780 X181.55 Y109.42 E1722.54283
G0 F6000 X180.84 Y109.42
G1 F3780 X109.42 Y180.84 E1726.74193
G0 F6000 X109.42 Y180.13
G1 F3780 X180.13 Y109.42 E1730.89947
G0 F6000 X179.43 Y109.42
G1 F3780 X109.42 Y179.43 E1735.01543
G0 F6000 X109.42 Y178.72
G1 F3780 X178.72 Y109.42 E1739.08983
G0 F6000 X178.01 Y109.42
G1 F3780 X109.42 Y178.01 E1743.12266
G0 F6000 X109.42 Y177.31
G1 F3780 X177.31 Y109.42 E1747.11392
G0 F6000 X176.60 Y109.42
G1 F3780 X109.42 Y176.60 E1751.06355
G0 F6000 X109.42 Y175.89
G1 F3780 X175.89 Y109.42 E1754.97162
G0 F6000 X175.19 Y109.42
G1 F3780 X109.42 Y175.19 E1758.83811
G0 F6000 X109.42 Y174.48
G1 F3780 X174.48 Y109.42 E1762.66304
G0 F6000 X173.77 Y109.42
G1 F3780 X109.42 Y173.77 E1766.44640
G0 F6000 X109.42 Y173.06
G1 F3780 X173.06 Y109.42 E1770.18818
G0 F6000 X172.36 Y109.42
G1 F3780 X109.42 Y172.36 E1773.88840
G0 F6000 X109.42 Y171.65
G1 F3780 X171.65 Y109.42 E1777.54705
G0 F6000 X170.94 Y109.42
G1 F3780 X109.42 Y170.94 E1781.16414
G0 F6000 X109.42 Y170.24
G1 F3780 X170.24 Y109.42 E1784.73959
G0 F6000 X169.53 Y109.42
G1 F3780 X109.42 Y169.53 E1788.27347
G0 F6000 X109.42 Y168.82
G1 F3780 X168.82 Y109.42 E1791.76579
G0 F6000 X168.11 Y109.42
G1 F3780 X109.42 Y168.11 E1795.21654
G0 F6000 X109.42 Y167.41
G1 F3780 X167.41 Y109.42 E1798.62571
G0 F6000 X166.70 Y109.42
G1 F3780 X109.42 Y166.70 E1801.99332
G0 F6000 X109.42 Y165.99
G1 F3780 X165.99 Y109.42 E1805.31936
G0 F6000 X165.29 Y109.42
G1 F3780 X109.42 Y165.29 E1808.60384
G0 F6000 X109.42 Y164.58
G1 F3780 X164.58 Y109.42 E1811.84674
G0 F6000 X163.87 Y109.42
G1 F3780 X109.42 Y163.87 E1815.04801
G0 F6000 X109.42 Y163.16
G1 F3780 X163.16 Y109.42 E1818.20772
G0 F6000 X162.46 Y109.42
G1 F3780 X109.42 Y162.46 E1821.32586
G0 F6000 X109.42 Y161.75
G1 F3780 X161.75 Y109.42 E1824.40243
G0 F6000 X161.04 Y109.42
G1 F3780 X109.42 Y161.04 E1827.43742
G0 F6000 X109.42 Y160.34
G1 F3780 X160.34 Y109.42 E1830.43085
G0 F6000 X159.63 Y109.42
G1 F3780 X109.42 Y159.63 E1833.38272
G0 F6000 X109.42 Y158.92
G1 F3780 X158.92 Y109.42 E1836.29301
G0 F6000 X158.22 Y109.42
G1 F3780 X109.42 Y158.22 E1839.16173
G0 F6000 X109.42 Y157.51
G1 F3780 X157.51 Y109.42 E1841.98889
G0 F6000 X156.80 Y109.42
G1 F3780 X109.42 Y156.80 E1844.77442
G0 F6000 X109.42 Y156.09
G1 F3780 X156.09 Y109.42 E1847.51837
G0 F6000 X155.39 Y109.42
G1 F3780 X109.42 Y155.39 E1850.22076
G0 F6000 X109.42 Y154.68
G1 F3780 X154.68 Y109.42 E1852.88158
G0 F6000 X153.97 Y109.42
G1 F3780 X109.42 Y153.97 E1855.50084
G0 F6000 X109.42 Y153.26
G1 F3780 X153.26 Y109.42 E1858.07852
G0 F6000 X152.56 Y109.42
G1 F3780 X109.42 Y152.56 E1860.61463
G0 F6000 X109.42 Y151.85
G1 F3780 X151.85 Y109.42 E1863.10918
G0 F6000 X151.14 Y109.42
G1 F3780 X109.42 Y151.14 E1865.56215
G0 F6000 X109.42 Y150.44
G1 F3780 X150.44 Y109.42 E1867.97350
G0 F6000 X149.73 Y109.42
G1 F3780 X109.42 Y149.73 E1870.34328
G0 F6000 X109.42 Y149.02
G1 F3780 X149.02 Y109.42 E1872.67149
G0 F6000 X148.31 Y109.42
G1 F3780 X109.42 Y148.31 E1874.95813
G0 F6000 X109.42 Y147.61
G1 F3780 X147.61 Y109.42 E1877.20321
G0 F6000 X146.90 Y109.42
G1 F3780 X109.42 Y146.90 E1879.40671
G0 F6000 X109.42 Y146.19
G1 F3780 X146.19 Y109.42 E1881.56865
G0 F6000 X145.49 Y109.42
G1 F3780 X109.42 Y145.49 E1883.68901
G0 F6000 X109.42 Y144.78
G1 F3780 X144.78 Y109.42 E1885.76781
G0 F6000 X144.07 Y109.42
G1 F3780 X109.42 Y144.07 E1887.80504
G0 F6000 X109.42 Y143.37
G1 F3780 X143.37 Y109.42 E1889.80064
G0 F6000 X142.66 Y109.42
G1 F3780 X109.42 Y142.66 E1891.75467
G0 F6000 X109.42 Y141.95
G1 F3780 X141.95 Y109.42 E1893.66713
G0 F6000 X141.24 Y109.42
G1 F3780 X109.42 Y141.24 E1895.53803
G0 F6000 X109.42 Y140.54
G1 F3780 X140.54 Y109.42 E1897.36735
G0 F6000 X139.83 Y109.42
G1 F3780 X109.42 Y139.83 E1899.15511
G0 F6000 X109.42 Y139.12
G1 F3780 X139.12 Y109.42 E1900.90130
G0 F6000 X138.42 Y109.42
G1 F3780 X109.42 Y138.42 E1902.60591
G0 F6000 X109.42 Y137.71
G1 F3780 X137.71 Y109.42 E1904.26896
G0 F6000 X137.00 Y109.42
G1 F3780 X109.42 Y137.00 E1905.89039
G0 F6000 X109.42 Y136.29
G1 F3780 X136.29 Y109.42 E1907.47024
G0 F6000 X135.59 Y109.42
G1 F3780 X109.42 Y135.59 E1909.00852
G0 F6000 X109.42 Y134.88
G1 F3780 X134.88 Y109.42 E1910.50524
G0 F6000 X134.17 Y109.42
G1 F3780 X109.42 Y134.17 E1911.96038
G0 F6000 X109.42 Y133.47
G1 F3780 X133.47 Y109.42 E1913.37396
G0 F6000 X132.76 Y109.42
G1 F3780 X109.42 Y132.76 E1914.74597
G0 F6000 X109.42 Y132.05
G1 F3780 X132.05 Y109.42 E1916.07641
G0 F6000 X131.34 Y109.42
G1 F3780 X109.42 Y131.34 E1917.36528
G0 F6000 X109.42 Y130.64
G1 F3780 X130.64 Y109.42 E1918.61252
G0 F6000 X129.93 Y109.42
G1 F3780 X109.42 Y129.93 E1919.81820
G0 F6000 X109.42 Y129.22
G1 F3780 X129.22 Y109.42 E1920.98230
G0 F6000 X128.52 Y109.42
G1 F3780 X109.42 Y128.52 E1922.10484
G0 F6000 X109.42 Y127.81
G1 F3780 X127.81 Y109.42 E1923.18581
G0 F6000 X127.10 Y109.42
G1 F3780 X109.42 Y127.10 E1924.22521
G0 F6000 X109.42 Y126.39
G1 F3780 X126.39 Y109.42 E1925.22304
G0 F6000 X125.69 Y109.42
G1 F3780 X109.42 Y125.69 E1926.17930
G0 F6000 X109.42 Y124.98
G1 F3780 X124.98 Y109.42 E1927.09399
G0 F6000 X124.27 Y109.42
G1 F3780 X109.42 Y124.27 E1927.96711
G0 F6000 X109.42 Y123.57
G1 F3780 X123.57 Y109.42 E1928.79861
G0 F6000 X122.86 Y109.42
G1 F3780 X109.42 Y122.86 E1929.58853
G0 F6000 X109.42 Y122.15
G1 F3780 X122.15 Y109.42 E1930.33689
G0 F6000 X121.44 Y109.42
G1 F3780 X109.42 Y121.44 E1931.04368
G0 F6000 X109.42 Y120.74
G1 F3780 X120.74 Y109.42 E1931.70890
G0 F6000 X120.03 Y109.42
G1 F3780 X109.42 Y120.03 E1932.33255
G0 F6000 X109.42 Y119.32
G1 F3780 X119.32 Y109.42 E1932.91463
G0 F6000 X118.62 Y109.42
G1 F3780 X109.42 Y118.62 E1933.45515
G0 F6000 X109.42 Y117.91
G1 F3780 X117.91 Y109.42 E1933.95409
G0 F6000 X117.20 Y109.42
G1 F3780 X109.42 Y117.20 E1934.41141
G0 F6000 X109.42 Y116.50
G1 F3780 X116.50 Y109.42 E1934.82715
G0 F6000 X115.79 Y109.42
G1 F3780 X109.42 Y115.79 E1935.20133
G0 F6000 X109.42 Y115.08
G1 F3780 X115.08 Y109.42 E1935.53394
G0 F6000 X114.37 Y109.42
G1 F3780 X109.42 Y114.37 E1935.82498
G0 F6000 X109.42 Y113.67
G1 F3780 X113.67 Y109.42 E1936.07446
G0 F6000 X112.96 Y109.42
G1 F3780 X109.42 Y112.96 E1936.28236
G0 F6000 X109.42 Y112.25
G1 F3780 X112.25 Y109.42 E1936.44869
G0 F6000 X111.55 Y109.42
G1 F3780 X109.42 Y111.55 E1936.57346
G0 F6000 X109.42 Y110.84
G1 F3780 X110.84 Y109.42 E1936.65660
G0 F6000 X110.13 Y109.42
G1 F3780 X109.42 Y110.13 E1936.69817
G0 F6000 X110.25 Y195.57
G1 F3780 X195.57 Y110.25 E1941.71495
G0 F6000 X195.57 Y110.96
G1 F3780 X110.96 Y195.57 E1946.69016
G0 F6000 X111.66 Y195.57
G1 F3780 X195.57 Y111.66 E1951.62381
G0 F6000 X195.57 Y112.37
G1 F3780 X112.37 Y195.57 E1956.51588
G0 F6000 X113.08 Y195.57
G1 F3780 X195.57 Y113.08 E1961.36639
G0 F6000 X195.57 Y113.78
G1 F3780 X113.78 Y195.57 E1966.17533
G0 F6000 X114.49 Y195.57
G1 F3780 X195.57 Y114.49 E1970.94270
G0 F6000 X195.57 Y115.20
G1 F3780 X115.20 Y195.57 E1975.66844
G0 F6000 X115.91 Y195.57
G1 F3780 X195.57 Y115.91 E1980.35262
G0 F6000 X195.57 Y116.61
G1 F3780 X116.61 Y195.57 E1984.99522
G0 F6000 X117.32 Y195.57
G1 F3780 X195.57 Y117.32 E1989.59626
G0 F6000 X195.57 Y118.03
G1 F3780 X118.03 Y195.57 E1994.15572
G0 F6000 X118.73 Y195.57
G1 F3780 X195.57 Y118.73 E1998.67362
G0 F6000 X195.57 Y119.44
G1 F3780 X119.44 Y195.57 E2003.14995
G0 F6000 X120.15 Y195.57
G1 F3780 X195.57 Y120.15 E2007.58471
G0 F6000 X195.57 Y120.86
G1 F3780 X120.86 Y195.57 E2011.97790
G0 F6000 X121.56 Y195.57
G1 F3780 X195.57 Y121.56 E2016.32952
G0 F6000 X195.57 Y122.27
G1 F3780 X122.27 Y195.57 E2020.63951
G0 F6000 X122.98 Y195.57
G1 F3780 X195.57 Y122.98 E2024.90794
G0 F6000 X195.57 Y123.68
G1 F3780 X123.68 Y195.57 E2029.13480
G0 F6000 X124.39 Y195.57
G1 F3780 X195.57 Y124.39 E2033.32008
G0 F6000 X195.57 Y125.10
G1 F3780 X125.10 Y195.57 E2037.46380
G0 F6000 X125.81 Y195.57
G1 F3780 X195.57 Y125.81 E2041.56595
G0 F6000 X195.57 Y126.51
G1 F3780 X126.51 Y195.57 E2045.62653
G0 F6000 X127.22 Y195.57
G1 F3780 X195.57 Y127.22 E2049.64555
G0 F6000 X195.57 Y127.93
G1 F3780 X127.93 Y195.57 E2053.62299
G0 F6000 X128.63 Y195.57
G1 F3780 X195.57 Y128.63 E2057.55880
G0 F6000 X195.57 Y129.34
G1 F3780 X129.34 Y195.57 E2061.45305
G0 F6000 X130.05 Y195.57
G1 F3780 X195.57 Y130.05 E2065.30573
G0 F6000 X195.57 Y130.75
G1 F3780 X130.75 Y195.57 E2069.11684
G0 F6000 X131.46 Y195.57
G1 F3780 X195.57 Y131.46 E2072.88638
G0 F6000 X195.57 Y132.17
G1 F3780 X132.17 Y195.57 E2076.61435
G0 F6000 X132.88 Y195.57
G1 F3780 X195.57 Y132.88 E2080.30075
G0 F6000 X195.57 Y133.58
G1 F3780 X133.58 Y195.57 E2083.94558
G0 F6000 X134.29 Y195.57
G1 F3780 X195.57 Y134.29 E2087.54885
G0 F6000 X195.57 Y135.00
G1 F3780 X135.00 Y195.57 E2091.11054
G0 F6000 X135.71 Y195.57
G1 F3780 X195.57 Y135.71 E2094.63061
G0 F6000 X195.57 Y136.41
G1 F3780 X136.41 Y195.57 E2098.10911
G0 F6000 X137.12 Y195.57
G1 F3780 X195.57 Y137.12 E2101.54604
G0 F6000 X195.57 Y137.83
G1 F3780 X137.83 Y195.57 E2104.94140
G0 F6000 X138.53 Y195.57
G1 F3780 X195.57 Y138.53 E2108.29519
G0 F6000 X195.57 Y139.24
G1 F3780 X139.24 Y195.57 E2111.60742
G0 F6000 X139.95 Y195.57
G1 F3780 X195.57 Y139.95 E2114.87807
G0 F6000 X195.57 Y140.65
G1 F3780 X140.65 Y195.57 E2118.10716
G0 F6000 X141.36 Y195.57
G1 F3780 X195.57 Y141.36 E2121.29467
G0 F6000 X195.57 Y142.07
G1 F3780 X142.07 Y195.57 E2124.44056
G0 F6000 X142.78 Y195.57
G1 F3780 X195.57 Y142.78 E2127.54488
G0 F6000 X195.57 Y143.48
G1 F3780 X143.48 Y195.57 E2130.60763
G0 F6000 X144.19 Y195.57
G1 F3780 X195.57 Y144.19 E2133.62882
G0 F6000 X195.57 Y144.90
G1 F3780 X144.90 Y195.57 E2136.60843
G0 F6000 X145.60 Y195.57
G1 F3780 X195.57 Y145.60 E2139.54647
G0 F6000 X195.57 Y146.31
G1 F3780 X146.31 Y195.57 E2142.44295
G0 F6000 X147.02 Y195.57
G1 F3780 X195.57 Y147.02 E2145.29786
G0 F6000 X195.57 Y147.72
G1 F3780 X147.72 Y195.57 E2148.11119
G0 F6000 X148.43 Y195.57
G1 F3780 X195.57 Y148.43 E2150.88290
G0 F6000 X195.57 Y149.14
G1 F3780 X149.14 Y195.57 E2153.61304
G0 F6000 X149.85 Y195.57
G1 F3780 X195.57 Y149.85 E2156.30162
G0 F6000 X195.57 Y150.55
G1 F3780 X150.55 Y195.57 E2158.94862
G0 F6000 X151.26 Y195.57
G1 F3780 X195.57 Y151.26 E2161.55406
G0 F6000 X195.57 Y151.97
G1 F3780 X151.97 Y195.57 E2164.11792
G0 F6000 X152.68 Y195.57
G1 F3780 X195.57 Y152.68 E2166.64022
G0 F6000 X195.57 Y153.38
G1 F3780 X153.38 Y195.57 E2169.12095
G0 F6000 X154.09 Y195.57
G1 F3780 X195.57 Y154.09 E2171.56010
G0 F6000 X195.57 Y154.80
G1 F3780 X154.80 Y195.57 E2173.95769
G0 F6000 X155.50 Y195.57
G1 F3780 X195.57 Y155.50 E2176.31366
G0 F6000 X195.57 Y156.21
G1 F3780 X156.21 Y195.57 E2178.62805
G0 F6000 X156.92 Y195.57
G1 F3780 X195.57 Y156.92 E2180.90088
G0 F6000 X195.57 Y157.62
G1 F3780 X157.62 Y195.57 E2183.13213
G0 F6000 X158.33 Y195.57
G1 F3780 X195.57 Y158.33 E2185.32182
G0 F6000 X195.57 Y159.04
G1 F3780 X159.04 Y195.57 E2187.46994
G0 F6000 X159.75 Y195.57
G1 F3780 X195.57 Y159.75 E2189.57648
G0 F6000 X195.57 Y160.45
G1 F3780 X160.45 Y195.57 E2191.64147
G0 F6000 X161.16 Y195.57
G1 F3780 X195.57 Y161.16 E2193.66488
G0 F6000 X195.57 Y161.87
G1 F3780 X161.87 Y195.57 E2195.64666
G0 F6000 X162.57 Y195.57
G1 F3780 X195.57 Y162.57 E2197.58687
G0 F6000 X195.57 Y163.28
G1 F3780 X163.28 Y195.57 E2199.48552
G0 F6000 X163.99 Y195.57
G1 F3780 X195.57 Y163.99 E2201.34260
G0 F6000 X195.57 Y164.70
G1 F3780 X164.70 Y195.57 E2203.15811
G0 F6000 X165.40 Y195.57
G1 F3780 X195.57 Y165.40 E2204.93204
G0 F6000 X195.57 Y166.11
G1 F3780 X166.11 Y195.57 E2206.66442
G0 F6000 X166.82 Y195.57
G1 F3780 X195.57 Y166.82 E2208.35522
G0 F6000 X195.57 Y167.52
G1 F3780 X167.52 Y195.57 E2210.00445
G0 F6000 X168.23 Y195.57
G1 F3780 X195.57 Y168.23 E2211.61205
G0 F6000 X195.57 Y168.94
G1 F3780 X168.94 Y195.57 E2213.17809
G0 F6000 X169.65 Y195.57
G1 F3780 X195.57 Y169.65 E2214.70256
G0 F6000 X195.57 Y170.35
G1 F3780 X170.35 Y195.57 E2216.18545
G0 F6000 X171.06 Y195.57
G1 F3780 X195.57 Y171.06 E2217.62678
G0 F6000 X195.57 Y171.77
G1 F3780 X171.77 Y195.57 E2219.02654
G0 F6000 X172.47 Y195.57
G1 F3780 X195.57 Y172.47 E2220.38474
G0 F6000 X195.57 Y173.18
G1 F3780 X173.18 Y195.57 E2221.70136
G0 F6000 X173.89 Y195.57
G1 F3780 X195.57 Y173.89 E2222.97641
G0 F6000 X195.57 Y174.59
G1 F3780 X174.59 Y195.57 E2224.20990
G0 F6000 X175.30 Y195.57
G1 F3780 X195.57 Y175.30 E2225.40175
G0 F6000 X195.57 Y176.01
G1 F3780 X176.01 Y195.57 E2226.55204
G0 F6000 X176.72 Y195.57
G1 F3780 X195.57 Y176.72 E2227.66076
G0 F6000 X195.57 Y177.42
G1 F3780 X177.42 Y195.57 E2228.72791
G0 F6000 X178.13 Y195.57
G1 F3780 X195.57 Y178.13 E2229.75349
G0 F6000 X195.57 Y178.84
G1 F3780 X178.84 Y195.57 E2230.73751
G0 F6000 X179.54 Y195.57
G1 F3780 X195.57 Y179.54 E2231.67995
G0 F6000 X195.57 Y180.25
G1 F3780 X180.25 Y195.57 E2232.58083
G0 F6000 X180.96 Y195.57
G1 F3780 X195.57 Y180.96 E2233.44013
G0 F6000 X195.57 Y181.67
G1 F3780 X181.67 Y195.57 E2234.25781
G0 F6000 X182.37 Y195.57
G1 F3780 X195.57 Y182.37 E2235.03392
G0 F6000 X195.57 Y183.08
G1 F3780 X183.08 Y195.57 E2235.76846
G0 F6000 X183.79 Y195.57
G1 F3780 X195.57 Y183.79 E2236.46143
G0 F6000 X195.57 Y184.50
G1 F3780 X184.50 Y195.57 E2237.11283
G0 F6000 X185.20 Y195.57
G1 F3780 X195.57 Y185.20 E2237.72267
G0 F6000 X195.57 Y185.91
G1 F3780 X185.91 Y195.57 E2238.29093
G0 F6000 X186.62 Y195.57
G1 F3780 X195.57 Y186.62 E2238.81763
G0 F6000 X195.57 Y187.32
G1 F3780 X187.32 Y195.57 E2239.30276
G0 F6000 X188.03 Y195.57
G1 F3780 X195.57 Y188.03 E2239.74626
G0 F6000 X195.57 Y188.74
G1 F3780 X188.74 Y195.57 E2240.14819
G0 F6000 X189.44 Y195.57
G1 F3780 X195.57 Y189.44 E2240.50855
G0 F6000 X195.57 Y190.15
G1 F3780 X190.15 Y195.57 E2240.82734
G0 F6000 X190.86 Y195.57
G1 F3780 X195.57 Y190.86 E2241.10456
G0 F6000 X195.57 Y191.57
G1 F3780 X191.57 Y195.57 E2241.34022
G0 F6000 X192.27 Y195.57
G1 F3780 X195.57 Y192.27 E2241.53431
G0 F6000 X195.57 Y192.98
G1 F3780 X192.98 Y195.57 E2241.68682
G0 F6000 X193.69 Y195.57
G1 F3780 X195.57 Y193.69 E2241.79777
G0 F6000 X195.57 Y194.39
G1 F3780 X194.39 Y195.57 E2241.86715
G0 F6000 X195.10 Y195.57
G1 F3780 X195.57 Y195.10 E2241.89490
;LAYER:2
G0 F6000 X195.75 Y195.75 Z0.70
;TYPE:WALL-INNER
G1 F4920 X109.25 Y195.75 E2245.49115
G1 X109.25 Y109.25 E2249.08741
G1 X195.75 Y109.25 E2252.68366
G1 X195.75 Y195.75 E2256.27991
G0 F6000 X196.25 Y196.25
;TYPE:WALL-OUTER
G1 F4920 X108.75 Y196.25 E2259.91774
G1 X108.75 Y108.75 E2263.55557
G1 X196.25 Y108.75 E2267.19339
G1 X196.25 Y196.25 E2270.83122
G0 F6000 X195.22 Y195.57
;TYPE:FILL
G1 F4920 X109.42 Y109.78 E2275.87570
G0 F6000 X109.78 Y109.42
G1 F4920 X195.57 Y195.22 E2280.92017
G0 F6000 X195.57 Y194.51
G1 F4920 X110.48 Y109.42 E2285.92308
G0 F6000 X111.19 Y109.42
G1 F4920 X195.57 Y193.81 E2290.88442
G0 F6000 X195.57 Y193.10
G1 F4920 X111.90 Y109.42 E2295.80419
G0 F6000 X112.61 Y109.42
G1 F4920 X195.57 Y192.39 E2300.68239
G0 F6000 X195.57 Y191.69
G1 F4920 X113.31 Y109.42 E2305.51902
G0 F6000 X114.02 Y109.42
G1 F4920 X195.57 Y190.98 E2310.31408
G0 F6000 X195.57 Y190.27
G1 F4920 X114.73 Y109.42 E2315.06755
G0 F6000 X115.44 Y109.42
G1 F4920 X195.57 Y189.56 E2319.77944
G0 F6000 X195.57 Y188.86
G1 F4920 X116.14 Y109.42 E2324.44974
G0 F6000 X116.85 Y109.42
G1 F4920 X195.57 Y188.15 E2329.07847
G0 F6000 X195.57 Y187.44
G1 F4920 X117.56 Y109.42 E2333.66563
G0 F6000 X118.26 Y109.42
G1 F4920 X195.57 Y186.74 E2338.21122
G0 F6000 X195.57 Y186.03
G1 F4920 X118.97 Y109.42 E2342.71524
G0 F6000 X119.68 Y109.42
G1 F4920 X195.57 Y185.32 E2347.17769
G0 F6000 X195.57 Y184.61
G1 F4920 X120.38 Y109.42 E2351.59857
G0 F6000 X121.09 Y109.42
G1 F4920 X195.57 Y183.91 E2355.97786
G0 F6000 X195.57 Y183.20
G1 F4920 X121.80 Y109.42 E2360.31558
G0 F6000 X122.51 Y109.42
G1 F4920 X195.57 Y182.49 E2364.61170
G0 F6000 X195.57 Y181.78
G1 F4920 X123.21 Y109.42 E2368.86624
G0 F6000 X123.92 Y109.42
G1 F4920 X195.57 Y181.08 E2373.07923
G0 F6000 X195.57 Y180.37
G1 F4920 X124.63 Y109.42 E2377.25064
G0 F6000 X125.33 Y109.42
G1 F4920 X195.57 Y179.66 E2381.38048
G0 F6000 X195.57 Y178.96
G1 F4920 X126.04 Y109.42 E2385.46875
G0 F6000 X126.75 Y109.42
G1 F4920 X195.57 Y178.25 E2389.51546
G0 F6000 X195.57 Y177.54
G1 F4920 X127.45 Y109.42 E2393.52059
G0 F6000 X128.16 Y109.42
G1 F4920 X195.57 Y176.84 E2397.48413
G0 F6000 X195.57 Y176.13
G1 F4920 X128.87 Y109.42 E2401.40607
G0 F6000 X129.58 Y109.42
G1 F4920 X195.57 Y175.42 E2405.28644
G0 F6000 X195.57 Y174.71
G1 F4920 X130.28 Y109.42 E2409.12524
G0 F6000 X130.99 Y109.42
G1 F4920 X195.57 Y174.01 E2412.92248
G0 F6000 X195.57 Y173.30
G1 F4920 X131.70 Y109.42 E2416.67814
G0 F6000 X132.41 Y109.42
G1 F4920 X195.57 Y172.59 E2420.39224
G0 F6000 X195.57 Y171.89
G1 F4920 X133.11 Y109.42 E2424.06476
G0 F6000 X133.82 Y109.42
G1 F4920 X195.57 Y171.18 E2427.69572
G0 F6000 X195.57 Y170.47
G1 F4920 X134.53 Y109.42 E2431.28508
G0 F6000 X135.23 Y109.42
G1 F4920 X195.57 Y169.76 E2434.83287
G0 F6000 X195.57 Y169.06
G1 F4920 X135.94 Y109.42 E2438.33906
G0 F6000 X136.65 Y109.42
G1 F4920 X195.57 Y168.35 E2441.80368
G0 F6000 X195.57 Y167.64
G1 F4920 X137.35 Y109.42 E2445.22674
G0 F6000 X138.06 Y109.42
G1 F4920 X195.57 Y166.94 E2448.60822
G0 F6000 X195.57 Y166.23
G1 F4920 X138.77 Y109.42 E2451.94814
G0 F6000 X139.48 Y109.42
G1 F4920 X195.57 Y165.52 E2455.24649
G0 F6000 X195.57 Y164.81
G1 F4920 X140.18 Y109.42 E2458.50327
G0 F6000 X140.89 Y109.42
G1 F4920 X195.57 Y164.11 E2461.71845
G0 F6000 X195.57 Y163.40
G1 F4920 X141.60 Y109.42 E2464.89206
G0 F6000 X142.31 Y109.42
G1 F4920 X195.57 Y162.69 E2468.02407
G0 F6000 X195.57 Y161.99
G1 F4920 X143.01 Y109.42 E2471.11451
G0 F6000 X143.72 Y109.42
G1 F4920 X195.57 Y161.28 E2474.16339
G0 F6000 X195.57 Y160.57
G1 F4920 X144.43 Y109.42 E2477.17070
G0 F6000 X145.13 Y109.42
G1 F4920 X195.57 Y159.87 E2480.13643
G0 F6000 X195.57 Y159.16
G1 F4920 X145.84 Y109.42 E2483.06060
G0 F6000 X146.55 Y109.42
G1 F4920 X195.57 Y158.45 E2485.94320
G0 F6000 X195.57 Y157.74
G1 F4920 X147.25 Y109.42 E2488.78423
G0 F6000 X147.96 Y109.42
G1 F4920 X195.57 Y157.04 E2491.58367
G0 F6000 X195.57 Y156.33
G1 F4920 X148.67 Y109.42 E2494.34150
G0 F6000 X149.38 Y109.42
G1 F4920 X195.57 Y155.62 E2497.05776
G0 F6000 X195.57 Y154.91
G1 F4920 X150.08 Y109.42 E2499.73246
G0 F6000 X150.79 Y109.42
G1 F4920 X195.57 Y154.21 E2502.36559
G0 F6000 X195.57 Y153.50
G1 F4920 X151.50 Y109.42 E2504.95715
G0 F6000 X152.20 Y109.42
G1 F4920 X195.57 Y152.79 E2507.50714
G0 F6000 X195.57 Y152.09
G1 F4920 X152.91 Y109.42 E2510.01556
G0 F6000 X153.62 Y109.42
G1 F4920 X195.57 Y151.38 E2512.48241
G0 F6000 X195.57 Y150.67
G1 F4920 X154.33 Y109.42 E2514.90766
G0 F6000 X155.03 Y109.42
G1 F4920 X195.57 Y149.97 E2517.29135
G0 F6000 X195.57 Y149.26
G1 F4920 X155.74 Y109.42 E2519.63344
G0 F6000 X156.45 Y109.42
G1 F4920 X195.57 Y148.55 E2521.93395
G0 F6000 X195.57 Y147.84
G1 F4920 X157.15 Y109.42 E2524.19290
G0 F6000 X157.86 Y109.42
G1 F4920 X195.57 Y147.14 E2526.41028
G0 F6000 X195.57 Y146.43
G1 F4920 X158.57 Y109.42 E2528.58609
G0 F6000 X159.28 Y109.42
G1 F4920 X195.57 Y145.72 E2530.72033
G0 F6000 X195.57 Y145.02
G1 F4920 X159.98 Y109.42 E2532.81301
G0 F6000 X160.69 Y109.42
G1 F4920 X195.57 Y144.31 E2534.86408
G0 F6000 X195.57 Y143.60
G1 F4920 X161.40 Y109.42 E2536.87359
G0 F6000 X162.10 Y109.42
G1 F4920 X195.57 Y142.89 E2538.84150
G0 F6000 X195.57 Y142.19
G1 F4920 X162.81 Y109.42 E2540.76784
G0 F6000 X163.52 Y109.42
G1 F4920 X195.57 Y141.48 E2542.65261
G0 F6000 X195.57 Y140.77
G1 F4920 X164.22 Y109.42 E2544.49581
G0 F6000 X164.93 Y109.42
G1 F4920 X195.57 Y140.07 E2546.29744
G0 F6000 X195.57 Y139.36
G1 F4920 X165.64 Y109.42 E2548.05750
G0 F6000 X166.35 Y109.42
G1 F4920 X195.57 Y138.65 E2549.77600
G0 F6000 X195.57 Y137.94
G1 F4920 X167.05 Y109.42 E2551.45292
G0 F6000 X167.76 Y109.42
G1 F4920 X195.57 Y137.24 E2553.08825
G0 F6000 X195.57 Y136.53
G1 F4920 X168.47 Y109.42 E2554.68201
G0 F6000 X169.18 Y109.42
G1 F4920 X195.57 Y135.82 E2556.23417
G0 F6000 X195.57 Y135.12
G1 F4920 X169.88 Y109.42 E2557.74476
G0 F6000 X170.59 Y109.42
G1 F4920 X195.57 Y134.41 E2559.21378
G0 F6000 X195.57 Y133.70
G1 F4920 X171.30 Y109.42 E2560.64123
G0 F6000 X172.00 Y109.42
G1 F4920 X195.57 Y133.00 E2562.02712
G0 F6000 X195.57 Y132.29
G1 F4920 X172.71 Y109.42 E2563.37143
G0 F6000 X173.42 Y109.42
G1 F4920 X195.57 Y131.58 E2564.67418
G0 F6000 X195.57 Y130.87
G1 F4920 X174.12 Y109.42 E2565.93533
G0 F6000 X174.83 Y109.42
G1 F4920 X195.57 Y130.17 E2567.15491
G0 F6000 X195.57 Y129.46
G1 F4920 X175.54 Y109.42 E2568.33289
G0 F6000 X176.25 Y109.42
G1 F4920 X195.57 Y128.75 E2569.46930
G0 F6000 X195.57 Y128.04
G1 F4920 X176.95 Y109.42 E2570.56415
G0 F6000 X177.66 Y109.42
G1 F4920 X195.57 Y127.34 E2571.61742
G0 F6000 X195.57 Y126.63
G1 F4920 X178.37 Y109.42 E2572.62913
G0 F6000 X179.07 Y109.42
G1 F4920 X195.57 Y125.92 E2573.59926
G0 F6000 X195.57 Y125.22
G1 F4920 X179.78 Y109.42 E2574.52783
G0 F6000 X180.49 Y109.42
G1 F4920 X195.57 Y124.51 E2575.41480
G0 F6000 X195.57 Y123.80
G1 F4920 X181.20 Y109.42 E2576.26020
G0 F6000 X181.90 Y109.42
G1 F4920 X195.57 Y123.09 E2577.06400
G0 F6000 X195.57 Y122.39
G1 F4920 X182.61 Y109.42 E2577.82624
G0 F6000 X183.32 Y109.42
G1 F4920 X195.57 Y121.68 E2578.54690
G0 F6000 X195.57 Y120.97
G1 F4920 X184.02 Y109.42 E2579.22600
G0 F6000 X184.73 Y109.42
G1 F4920 X195.57 Y120.27 E2579.86352
G0 F6000 X195.57 Y119.56
G1 F4920 X185.44 Y109.42 E2580.45948
G0 F6000 X186.15 Y109.42
G1 F4920 X195.57 Y118.85 E2581.01387
G0 F6000 X195.57 Y118.15
G1 F4920 X186.85 Y109.42 E2581.52669
G0 F6000 X187.56 Y109.42
G1 F4920 X195.57 Y117.44 E2581.99791
G0 F6000 X195.57 Y116.73
G1 F4920 X188.27 Y109.42 E2582.42757
G0 F6000 X188.97 Y109.42
G1 F4920 X195.57 Y116.02 E2582.81562
G0 F6000 X195.57 Y115.32
G1 F4920 X189.68 Y109.42 E2583.16211
G0 F6000 X190.39 Y109.42
G1 F4920 X195.57 Y114.61 E2583.46702
G0 F6000 X195.57 Y113.90
G1 F4920 X191.09 Y109.42 E2583.73037
G0 F6000 X191.80 Y109.42
G1 F4920 X195.57 Y113.20 E2583.95215
G0 F6000 X195.57 Y112.49
G1 F4920 X192.51 Y109.42 E2584.13236
G0 F6000 X193.22 Y109.42
G1 F4920 X195.57 Y111.78 E2584.27100
G0 F6000 X195.57 Y111.08
G1 F4920 X193.92 Y109.42 E2584.36805
G0 F6000 X194.63 Y109.42
G1 F4920 X195.57 Y110.37 E2584.42352
G0 F6000 X195.57 Y109.66
G1 F4920 X195.34 Y109.42 E2584.43740
G0 F6000 X109.42 Y110.48
G1 F4920 X194.51 Y195.57 E2589.44030
G0 F6000 X193.81 Y195.57
G1 F4920 X109.42 Y111.19 E2594.40164
G0 F6000 X109.42 Y111.90
G1 F4920 X193.10 Y195.57 E2599.32141
G0 F6000 X192.39 Y195.57
G1 F4920 X109.42 Y112.61 E2604.19961
G0 F6000 X109.42 Y113.31
G1 F4920 X191.69 Y195.57 E2609.03624
G0 F6000 X190.98 Y195.57
G1 F4920 X109.42 Y114.02 E2613.83130
G0 F6000 X109.42 Y114.73
G1 F4920 X190.27 Y195.57 E2618.58477
G0 F6000 X189.56 Y195.57
G1 F4920 X109.42 Y115.44 E2623.29666
G0 F6000 X109.42 Y116.14
G1 F4920 X188.86 Y195.57 E2627.96696
G0 F6000 X188.15 Y195.57
G1 F4920 X109.42 Y116.85 E2632.59569
G0 F6000 X109.42 Y117.56
G1 F4920 X187.44 Y195.57 E2637.18285
G0 F6000 X186.74 Y195.57
G1 F4920 X109.42 Y118.26 E2641.72844
G0 F6000 X109.42 Y118.97
G1 F4920 X186.03 Y195.57 E2646.23246
G0 F6000 X185.32 Y195.57
G1 F4920 X109.42 Y119.68 E2650.69491
G0 F6000 X109.42 Y120.38
G1 F4920 X184.61 Y195.57 E2655.11580
G0 F6000 X183.91 Y195.57
G1 F4920 X109.42 Y121.09 E2659.49508
G0 F6000 X109.42 Y121.80
G1 F4920 X183.20 Y195.57 E2663.83280
G0 F6000 X182.49 Y195.57
G1 F4920 X109.42 Y122.51 E2668.12892
G0 F6000 X109.42 Y123.21
G1 F4920 X181.78 Y195.57 E2672.38347
G0 F6000 X181.08 Y195.57
G1 F4920 X109.42 Y123.92 E2676.59645
G0 F6000 X109.42 Y124.63
G1 F4920 X180.37 Y195.57 E2680.76786
G0 F6000 X179.66 Y195.57
G1 F4920 X109.42 Y125.33 E2684.89770
G0 F6000 X109.42 Y126.04
G1 F4920 X178.96 Y195.57 E2688.98598
G0 F6000 X178.25 Y195.57
G1 F4920 X109.42 Y126.75 E2693.03268
G0 F6000 X109.42 Y127.45
G1 F4920 X177.54 Y195.57 E2697.03782
G0 F6000 X176.84 Y195.57
G1 F4920 X109.42 Y128.16 E2701.00136
G0 F6000 X109.42 Y128.87
G1 F4920 X176.13 Y195.57 E2704.92330
G0 F6000 X175.42 Y195.57
G1 F4920 X109.42 Y129.58 E2708.80367
G0 F6000 X109.42 Y130.28
G1 F4920 X174.71 Y195.57 E2712.64247
G0 F6000 X174.01 Y195.57
G1 F4920 X109.42 Y130.99 E2716.43970
G0 F6000 X109.42 Y131.70
G1 F4920 X173.30 Y195.57 E2720.19537
G0 F6000 X172.59 Y195.57
G1 F4920 X109.42 Y132.41 E2723.90946
G0 F6000 X109.42 Y133.11
G1 F4920 X171.89 Y195.57 E2727.58199
G0 F6000 X171.18 Y195.57
G1 F4920 X109.42 Y133.82 E2731.21294
G0 F6000 X109.42 Y134.53
G1 F4920 X170.47 Y195.57 E2734.80230
G0 F6000 X169.76 Y195.57
G1 F4920 X109.42 Y135.23 E2738.35009
G0 F6000 X109.42 Y135.94
G1 F4920 X169.06 Y195.57 E2741.85628
G0 F6000 X168.35 Y195.57
G1 F4920 X109.42 Y136.65 E2745.32091
G0 F6000 X109.42 Y137.35
G1 F4920 X167.64 Y195.57 E2748.74396
G0 F6000 X166.94 Y195.57
G1 F4920 X109.42 Y138.06 E2752.12545
G0 F6000 X109.42 Y138.77
G1 F4920 X166.23 Y195.57 E2755.46536
G0 F6000 X165.52 Y195.57
G1 F4920 X109.42 Y139.48 E2758.76371
G0 F6000 X109.42 Y140.18
G1 F4920 X164.81 Y195.57 E2762.02049
G0 F6000 X164.11 Y195.57
G1 F4920 X109.42 Y140.89 E2765.23567
G0 F6000 X109.42 Y141.60
G1 F4920 X163.40 Y195.57 E2768.40928
G0 F6000 X162.69 Y195.57
G1 F4920 X109.42 Y142.31 E2771.54129
G0 F6000 X109.42 Y143.01
G1 F4920 X161.99 Y195.57 E2774.63174
G0 F6000 X161.28 Y195.57
G1 F4920 X109.42 Y143.72 E2777.68061
G0 F6000 X109.42 Y144.43
G1 F4920 X160.57 Y195.57 E2780.68792
G0 F6000 X159.87 Y195.57
G1 F4920 X109.42 Y145.13 E2783.65366
G0 F6000 X109.42 Y145.84
G1 F4920 X159.16 Y195.57 E2786.57783
G0 F6000 X158.45 Y195.57
G1 F4920 X109.42 Y146.55 E2789.46043
G0 F6000 X109.42 Y147.25
G1 F4920 X157.74 Y195.57 E2792.30146
G0 F6000 X157.04 Y195.57
G1 F4920 X109.42 Y147.96 E2795.10089
G0 F6000 X109.42 Y148.67
G1 F4920 X156.33 Y195.57 E2797.85872
G0 F6000 X155.62 Y195.57
G1 F4920 X109.42 Y149.38 E2800.57499
G0 F6000 X109.42 Y150.08
G1 F4920 X154.91 Y195.57 E2803.24968
G0 F6000 X154.21 Y195.57
G1 F4920 X109.42 Y150.79 E2805.88281
G0 F6000 X109.42 Y151.50
G1 F4920 X153.50 Y195.57 E2808.47437
G0 F6000 X152.79 Y195.57
G1 F4920 X109.42 Y152.20 E2811.02436
G0 F6000 X109.42 Y152.91
G1 F4920 X152.09 Y195.57 E2813.53278
G0 F6000 X151.38 Y195.57
G1 F4920 X109.42 Y153.62 E2815.99963
G0 F6000 X109.42 Y154.33
G1 F4920 X150.67 Y195.57 E2818.42489
G0 F6000 X149.97 Y195.57
G1 F4920 X109.42 Y155.03 E2820.80857
G0 F6000 X109.42 Y155.74
G1 F4920 X149.26 Y195.57 E2823.15066
G0 F6000 X148.55 Y195.57
G1 F4920 X109.42 Y156.45 E2825.45118
G0 F6000 X109.42 Y157.15
G1 F4920 X147.84 Y195.57 E2827.71013
G0 F6000 X147.14 Y195.57
G1 F4920 X109.42 Y157.86 E2829.92751
G0 F6000 X109.42 Y158.57
G1 F4920 X146.43 Y195.57 E2832.10332
G0 F6000 X145.72 Y195.57
G1 F4920 X109.42 Y159.28 E2834.23756
G0 F6000 X109.42 Y159.98
G1 F4920 X145.02 Y195.57 E2836.33023
G0 F6000 X144.31 Y195.57
G1 F4920 X109.42 Y160.69 E2838.38131
G0 F6000 X109.42 Y161.40
G1 F4920 X143.60 Y195.57 E2840.39081
G0 F6000 X142.89 Y195.57
G1 F4920 X109.42 Y162.10 E2842.35872
G0 F6000 X109.42 Y162.81
G1 F4920 X142.19 Y195.57 E2844.28506
G0 F6000 X141.48 Y195.57
G1 F4920 X109.42 Y163.52 E2846.16983
G0 F6000 X109.42 Y164.22
G1 F4920 X140.77 Y195.57 E2848.01303
G0 F6000 X140.07 Y195.57
G1 F4920 X109.42 Y164.93 E2849.81466
G0 F6000 X109.42 Y165.64
G1 F4920 X139.36 Y195.57 E2851.57473
G0 F6000 X138.65 Y195.57
G1 F4920 X109.42 Y166.35 E2853.29322
G0 F6000 X109.42 Y167.05
G1 F4920 X137.94 Y195.57 E2854.97015
G0 F6000 X137.24 Y195.57
G1 F4920 X109.42 Y167.76 E2856.60547
G0 F6000 X109.42 Y168.47
G1 F4920 X136.53 Y195.57 E2858.19923
G0 F6000 X135.82 Y195.57
G1 F4920 X109.42 Y169.18 E2859.75139
G0 F6000 X109.42 Y169.88
G1 F4920 X135.12 Y195.57 E2861.26198
G0 F6000 X134.41 Y195.57
G1 F4920 X109.42 Y170.59 E2862.73100
G0 F6000 X109.42 Y171.30
G1 F4920 X133.70 Y195.57 E2864.15846
G0 F6000 X133.00 Y195.57
G1 F4920 X109.42 Y172.00 E2865.54434
G0 F6000 X109.42 Y172.71
G1 F4920 X132.29 Y195.57 E2866.88866
G0 F6000 X131.58 Y195.57
G1 F4920 X109.42 Y173.42 E2868.19140
G0 F6000 X109.42 Y174.12
G1 F4920 X130.87 Y195.57 E2869.45255
G0 F6000 X130.17 Y195.57
G1 F4920 X109.42 Y174.83 E2870.67213
G0 F6000 X109.42 Y175.54
G1 F4920 X129.46 Y195.57 E2871.85011
G0 F6000 X128.75 Y195.57
G1 F4920 X109.42 Y176.25 E2872.98653
G0 F6000 X109.42 Y176.95
G1 F4920 X128.04 Y195.57 E2874.08137
G0 F6000 X127.34 Y195.57
G1 F4920 X109.42 Y177.66 E2875.13464
G0 F6000 X109.42 Y178.37
G1 F4920 X126.63 Y195.57 E2876.14635
G0 F6000 X125.92 Y195.57
G1 F4920 X109.42 Y179.07 E2877.11649
G0 F6000 X109.42 Y179.78
G1 F4920 X125.22 Y195.57 E2878.04505
G0 F6000 X124.51 Y195.57
G1 F4920 X109.42 Y180.49 E2878.93202
G0 F6000 X109.42 Y181.20
G1 F4920 X123.80 Y195.57 E2879.77742
G0 F6000 X123.09 Y195.57
G1 F4920 X109.42 Y181.90 E2880.58123
G0 F6000 X109.42 Y182.61
G1 F4920 X122.39 Y195.57 E2881.34346
G0 F6000 X121.68 Y195.57
G1 F4920 X109.42 Y183.32 E2882.06412
G0 F6000 X109.42 Y184.02
G1 F4920 X120.97 Y195.57 E2882.74322
G0 F6000 X120.27 Y195.57
G1 F4920 X109.42 Y184.73 E2883.38075
G0 F6000 X109.42 Y185.44
G1 F4920 X119.56 Y195.57 E2883.97671
G0 F6000 X118.85 Y195.57
G1 F4920 X109.42 Y186.15 E2884.53109
G0 F6000 X109.42 Y186.85
G1 F4920 X118.15 Y195.57 E2885.04391
G0 F6000 X117.44 Y195.57
G1 F4920 X109.42 Y187.56 E2885.51514
G0 F6000 X109.42 Y188.27
G1 F4920 X116.73 Y195.57 E2885.94479
G0 F6000 X116.02 Y195.57
G1 F4920 X109.42 Y188.97 E2886.33284
G0 F6000 X109.42 Y189.68
G1 F4920 X115.32 Y195.57 E2886.67933
G0 F6000 X114.61 Y195.57
G1 F4920 X109.42 Y190.39 E2886.98425
G0 F6000 X109.42 Y191.09
G1 F4920 X113.90 Y195.57 E2887.24760
G0 F6000 X113.20 Y195.57
G1 F4920 X109.42 Y191.80 E2887.46937
G0 F6000 X109.42 Y192.51
G1 F4920 X112.49 Y195.57 E2887.64958
G0 F6000 X111.78 Y195.57
G1 F4920 X109.42 Y193.22 E2887.78823
G0 F6000 X109.42 Y193.92
G1 F4920 X111.08 Y195.57 E2887.88527
G0 F6000 X110.37 Y195.57
G1 F4920 X109.42 Y194.63 E2887.94074
G0 F6000 X109.42 Y195.34
G1 F4920 X109.66 Y195.57 E2887.95462
;LAYER:3
G0 F6000 X109.25 Y195.75 Z0.90
;TYPE:WALL-INNER
G1 F6060 X109.25 Y109.25 E2891.55087
G1 X195.75 Y109.25 E2895.14712
G1 X195.75 Y195.75 E2898.74338
G1 X109.25 Y195.75 E2902.33963
G0 F6000 X108.75 Y196.25
;TYPE:WALL-OUTER
G1 F6060 X108.75 Y108.75 E2905.97745
G1 X196.25 Y108.75 E2909.61528
G1 X196.25 Y196.25 E2913.25311
G1 X108.75 Y196.25 E2916.89094
G0 F6000 X109.54 Y195.57
;TYPE:FILL
G1 F6060 X195.57 Y109.54 E2921.94929
G0 F6000 X194.98 Y109.42
G1 F6060 X109.42 Y194.98 E2926.97989
G0 F6000 X109.42 Y194.28
G1 F6060 X194.28 Y109.42 E2931.96892
G0 F6000 X193.57 Y109.42
G1 F6060 X109.42 Y193.57 E2936.91638
G0 F6000 X109.42 Y192.86
G1 F6060 X192.86 Y109.42 E2941.82228
G0 F6000 X192.16 Y109.42
G1 F6060 X109.42 Y192.16 E2946.68660
G0 F6000 X109.42 Y191.45
G1 F6060 X191.45 Y109.42 E2951.50936
G0 F6000 X190.74 Y109.42
G1 F6060 X109.42 Y190.74 E2956.29054
G0 F6000 X109.42 Y190.03
G1 F6060 X190.03 Y109.42 E2961.03010
G0 F6000 X189.33 Y109.42
G1 F6060 X109.42 Y189.33 E2965.72809
G0 F6000 X109.42 Y188.62
G1 F6060 X188.62 Y109.42 E2970.38451
G0 F6000 X187.91 Y109.42
G1 F6060 X109.42 Y187.91 E2974.99937
G0 F6000 X109.42 Y187.21
G1 F6060 X187.21 Y109.42 E2979.57265
G0 F6000 X186.50 Y109.42
G1 F6060 X109.42 Y186.50 E2984.10436
G0 F6000 X109.42 Y185.79
G1 F6060 X185.79 Y109.42 E2988.59451
G0 F6000 X185.09 Y109.42
G1 F6060 X109.42 Y185.09 E2993.04309
G0 F6000 X109.42 Y184.38
G1 F6060 X184.38 Y109.42 E2997.45009
G0 F6000 X183.67 Y109.42
G1 F6060 X109.42 Y183.67 E3001.81547
G0 F6000 X109.42 Y182.96
G1 F6060 X182.96 Y109.42 E3006.13929
G0 F6000 X182.26 Y109.42
G1 F6060 X109.42 Y182.26 E3010.42153
G0 F6000 X109.42 Y181.55
G1 F6060 X181.55 Y109.42 E3014.66220
G0 F6000 X180.84 Y109.42
G1 F6060 X109.42 Y180.84 E3018.86131
G0 F6000 X109.42 Y180.13
G1 F6060 X180.13 Y109.42 E3023.01884
G0 F6000 X179.43 Y109.42
G1 F6060 X109.42 Y179.43 E3027.13481
G0 F6000 X109.42 Y178.72
G1 F6060 X178.72 Y109.42 E3031.20921
G0 F6000 X178.01 Y109.42
G1 F6060 X109.42 Y178.01 E3035.24204
G0 F6000 X109.42 Y177.31
G1 F6060 X177.31 Y109.42 E3039.23330
G0 F6000 X176.60 Y109.42
G1 F6060 X109.42 Y176.60 E3043.18293
G0 F6000 X109.42 Y175.89
G1 F6060 X175.89 Y109.42 E3047.09099
G0 F6000 X175.19 Y109.42
G1 F6060 X109.42 Y175.19 E3050.95749
G0 F6000 X109.42 Y174.48
G1 F6060 X174.48 Y109.42 E3054.78241
G0 F6000 X173.77 Y109.42
G1 F6060 X109.42 Y173.77 E3058.56577
G0 F6000 X109.42 Y173.06
G1 F6060 X173.06 Y109.42 E3062.30756
G0 F6000 X172.36 Y109.42
G1 F6060 X109.42 Y172.36 E3066.00778
G0 F6000 X109.42 Y171.65
G1 F6060 X171.65 Y109.42 E3069.66643
G0 F6000 X170.94 Y109.42
G1 F6060 X109.42 Y170.94 E3073.28351
G0 F6000 X109.42 Y170.24
G1 F6060 X170.24 Y109.42 E3076.85896
G0 F6000 X169.53 Y109.42
G1 F6060 X109.42 Y169.53 E3080.39285
G0 F6000 X109.42 Y168.82
G1 F6060 X168.82 Y109.42 E3083.88516
G0 F6000 X168.11 Y109.42
G1 F6060 X109.42 Y168.11 E3087.33591
G0 F6000 X109.42 Y167.41
G1 F6060 X167.41 Y109.42 E3090.74509
G0 F6000 X166.70 Y109.42
G1 F6060 X109.42 Y166.70 E3094.11270
G0 F6000 X109.42 Y165.99
G1 F6060 X165.99 Y109.42 E3097.43874
G0 F6000 X165.29 Y109.42
G1 F6060 X109.42 Y165.29 E3100.72321
G0 F6000 X109.42 Y164.58
G1 F6060 X164.58 Y109.42 E3103.96611
G0 F6000 X163.87 Y109.42
G1 F6060 X109.42 Y163.87 E3107.16739
G0 F6000 X109.42 Y163.16
G1 F6060 X163.16 Y109.42 E3110.32709
G0 F6000 X162.46 Y109.42
G1 F6060 X109.42 Y162.46 E3113.44523
G0 F6000 X109.42 Y161.75
G1 F6060 X161.75 Y109.42 E3116.52180
G0 F6000 X161.04 Y109.42
G1 F6060 X109.42 Y161.04 E3119.55680
G0 F6000 X109.42 Y160.34
G1 F6060 X160.34 Y109.42 E3122.55023
G0 F6000 X159.63 Y109.42
G1 F6060 X109.42 Y159.63 E3125.50209
G0 F6000 X109.42 Y158.92
G1 F6060 X158.92 Y109.42 E3128.41238
G0 F6000 X158.22 Y109.42
G1 F6060 X109.42 Y158.22 E3131.28111
G0 F6000 X109.42 Y157.51
G1 F6060 X157.51 Y109.42 E3134.10826
G0 F6000 X156.80 Y109.42
G1 F6060 X109.42 Y156.80 E3136.89379
G0 F6000 X109.42 Y156.09
G1 F6060 X156.09 Y109.42 E3139.63775
G0 F6000 X155.39 Y109.42
G1 F6060 X109.42 Y155.39 E3142.34014
G0 F6000 X109.42 Y154.68
G1 F6060 X154.68 Y109.42 E3145.00096
G0 F6000 X153.97 Y109.42
G1 F6060 X109.42 Y153.97 E3147.62021
G0 F6000 X109.42 Y153.26
G1 F6060 X153.26 Y109.42 E3150.19789
G0 F6000 X152.56 Y109.42
G1 F6060 X109.42 Y152.56 E3152.73401
G0 F6000 X109.42 Y151.85
G1 F6060 X151.85 Y109.42 E3155.22855
G0 F6000 X151.14 Y109.42
G1 F6060 X109.42 Y151.14 E3157.68153
G0 F6000 X109.42 Y150.44
G1 F6060 X150.44 Y109.42 E3160.09288
G0 F6000 X149.73 Y109.42
G1 F6060 X109.42 Y149.73 E3162.46266
G0 F6000 X109.42 Y149.02
G1 F6060 X149.02 Y109.42 E3164.79087
G0 F6000 X148.31 Y109.42
G1 F6060 X109.42 Y148.31 E3167.07751
G0 F6000 X109.42 Y147.61
G1 F6060 X147.61 Y109.42 E3169.32258
G0 F6000 X146.90 Y109.42
G1 F6060 X109.42 Y146.90 E3171.52608
G0 F6000 X109.42 Y146.19
G1 F6060 X146.19 Y109.42 E3173.68802
G0 F6000 X145.49 Y109.42
G1 F6060 X109.42 Y145.49 E3175.80839
G0 F6000 X109.42 Y144.78
G1 F6060 X144.78 Y109.42 E3177.88718
G0 F6000 X144.07 Y109.42
G1 F6060 X109.42 Y144.07 E3179.92441
G0 F6000 X109.42 Y143.37
G1 F6060 X143.37 Y109.42 E3181.92001
G0 F6000 X142.66 Y109.42
G1 F6060 X109.42 Y142.66 E3183.87404
G0 F6000 X109.42 Y141.95
G1 F6060 X141.95 Y109.42 E3185.78651
G0 F6000 X141.24 Y109.42
G1 F6060 X109.42 Y141.24 E3187.65740
G0 F6000 X109.42 Y140.54
G1 F6060 X140.54 Y109.42 E3189.48673
G0 F6000 X139.83 Y109.42
G1 F6060 X109.42 Y139.83 E3191.27448
G0 F6000 X109.42 Y139.12
G1 F6060 X139.12 Y109.42 E3193.02067
G0 F6000 X138.42 Y109.42
G1 F6060 X109.42 Y138.42 E3194.72529
G0 F6000 X109.42 Y137.71
G1 F6060 X137.71 Y109.42 E3196.38834
G0 F6000 X137.00 Y109.42
G1 F6060 X109.42 Y137.00 E3198.00976
G0 F6000 X109.42 Y136.29
G1 F6060 X136.29 Y109.42 E3199.58961
G0 F6000 X135.59 Y109.42
G1 F6060 X109.42 Y135.59 E3201.12790
G0 F6000 X109.42 Y134.88
G1 F6060 X134.88 Y109.42 E3202.62461
G0 F6000 X134.17 Y109.42
G1 F6060 X109.42 Y134.17 E3204.07976
G0 F6000 X109.42 Y133.47
G1 F6060 X133.47 Y109.42 E3205.49334
G0 F6000 X132.76 Y109.42
G1 F6060 X109.42 Y132.76 E3206.86534
G0 F6000 X109.42 Y132.05
G1 F6060 X132.05 Y109.42 E3208.19578
G0 F6000 X131.34 Y109.42
G1 F6060 X109.42 Y131.34 E3209.48466
G0 F6000 X109.42 Y130.64
G1 F6060 X130.64 Y109.42 E3210.73190
G0 F6000 X129.93 Y109.42
G1 F6060 X109.42 Y129.93 E3211.93757
G0 F6000 X109.42 Y129.22
G1 F6060 X129.22 Y109.42 E3213.10168
G0 F6000 X128.52 Y109.42
G1 F6060 X109.42 Y128.52 E3214.22421
G0 F6000 X109.42 Y127.81
G1 F6060 X127.81 Y109.42 E3215.30518
G0 F6000 X127.10 Y109.42
G1 F6060 X109.42 Y127.10 E3216.34458
G0 F6000 X109.42 Y126.39
G1 F6060 X126.39 Y109.42 E3217.34241
G0 F6000 X125.69 Y109.42
G1 F6060 X109.42 Y125.69 E3218.29867
G0 F6000 X109.42 Y124.98
G1 F6060 X124.98 Y109.42 E3219.21336
G0 F6000 X124.27 Y109.42
G1 F6060 X109.42 Y124.27 E3220.08649
G0 F6000 X109.42 Y123.57
G1 F6060 X123.57 Y109.42 E3220.91798
G0 F6000 X122.86 Y109.42
G1 F6060 X109.42 Y122.86 E3221.70791
G0 F6000 X109.42 Y122.15
G1 F6060 X122.15 Y109.42 E3222.45627
G0 F6000 X121.44 Y109.42
G1 F6060 X109.42 Y121.44 E3223.16305
G0 F6000 X109.42 Y120.74
G1 F6060 X120.74 Y109.42 E3223.82827
G0 F6000 X120.03 Y109.42
G1 F6060 X109.42 Y120.03 E3224.45193
G0 F6000 X109.42 Y119.32
G1 F6060 X119.32 Y109.42 E3225.03401
G0 F6000 X118.62 Y109.42
G1 F6060 X109.42 Y118.62 E3225.57452
G0 F6000 X109.42 Y117.91
G1 F6060 X117.91 Y109.42 E3226.07346
G0 F6000 X117.20 Y109.42
G1 F6060 X109.42 Y117.20 E3226.53078
G0 F6000 X109.42 Y116.50
G1 F6060 X116.50 Y109.42 E3226.94653
G0 F6000 X115.79 Y109.42
G1 F6060 X109.42 Y115.79 E3227.32071
G0 F6000 X109.42 Y115.08
G1 F6060 X115.08 Y109.42 E3227.65332
G0 F6000 X114.37 Y109.42
G1 F6060 X109.42 Y114.37 E3227.94436
G0 F6000 X109.42 Y113.67
G1 F6060 X113.67 Y109.42 E3228.19383
G0 F6000 X112.96 Y109.42
G1 F6060 X109.42 Y112.96 E3228.40173
G0 F6000 X109.42 Y112.25
G1 F6060 X112.25 Y109.42 E3228.56807
G0 F6000 X111.55 Y109.42
G1 F6060 X109.42 Y111.55 E3228.69283
G0 F6000 X109.42 Y110.84
G1 F6060 X110.84 Y109.42 E3228.77597
G0 F6000 X110.13 Y109.42
G1 F6060 X109.42 Y110.13 E3228.81754
G0 F6000 X110.25 Y195.57
G1 F6060 X195.57 Y110.25 E3233.83432
G0 F6000 X195.57 Y110.96
G1 F6060 X110.96 Y195.57 E3238.80954
G0 F6000 X111.66 Y195.57
G1 F6060 X195.57 Y111.66 E3243.74318
G0 F6000 X195.57 Y112.37
G1 F6060 X112.37 Y195.57 E3248.63526
G0 F6000 X113.08 Y195.57
G1 F6060 X195.57 Y113.08 E3253.48577
G0 F6000 X195.57 Y113.78
G1 F6060 X113.78 Y195.57 E3258.29471
G0 F6000 X114.49 Y195.57
G1 F6060 X195.57 Y114.49 E3263.06207
G0 F6000 X195.57 Y115.20
G1 F6060 X115.20 Y195.57 E3267.78782
G0 F6000 X115.91 Y195.57
G1 F6060 X195.57 Y115.91 E3272.47199
G0 F6000 X195.57 Y116.61
G1 F6060 X116.61 Y195.57 E3277.11459
G0 F6000 X117.32 Y195.57
G1 F6060 X195.57 Y117.32 E3281.71563
G0 F6000 X195.57 Y118.03
G1 F6060 X118.03 Y195.57 E3286.27510
G0 F6000 X118.73 Y195.57
G1 F6060 X195.57 Y118.73 E3290.79299
G0 F6000 X195.57 Y119.44
G1 F6060 X119.44 Y195.57 E3295.26932
G0 F6000 X120.15 Y195.57
G1 F6060 X195.57 Y120.15 E3299.70408
G0 F6000 X195.57 Y120.86
G1 F6060 X120.86 Y195.57 E3304.09727
G0 F6000 X121.56 Y195.57
G1 F6060 X195.57 Y121.56 E3308.44889
G0 F6000 X195.57 Y122.27
G1 F6060 X122.27 Y195.57 E3312.75889
G0 F6000 X122.98 Y195.57
G1 F6060 X195.57 Y122.98 E3317.02731
G0 F6000 X195.57 Y123.68
G1 F6060 X123.68 Y195.57 E3321.25417
G0 F6000 X124.39 Y195.57
G1 F6060 X195.57 Y124.39 E3325.43946
G0 F6000 X195.57 Y125.10
G1 F6060 X125.10 Y195.57 E3329.58318
G0 F6000 X125.81 Y195.57
G1 F6060 X195.57 Y125.81 E3333.68533
G0 F6000 X195.57 Y126.51
G1 F6060 X126.51 Y195.57 E3337.74591
G0 F6000 X127.22 Y195.57
G1 F6060 X195.57 Y127.22 E3341.76492
G0 F6000 X195.57 Y127.93
G1 F6060 X127.93 Y195.57 E3345.74236
G0 F6000 X128.63 Y195.57
G1 F6060 X195.57 Y128.63 E3349.67818
G0 F6000 X195.57 Y129.34
G1 F6060 X129.34 Y195.57 E3353.57242
G0 F6000 X130.05 Y195.57
G1 F6060 X195.57 Y130.05 E3357.42510
G0 F6000 X195.57 Y130.75
G1 F6060 X130.75 Y195.57 E3361.23621
G0 F6000 X131.46 Y195.57
G1 F6060 X195.57 Y131.46 E3365.00575
G0 F6000 X195.57 Y132.17
G1 F6060 X132.17 Y195.57 E3368.73372
G0 F6000 X132.88 Y195.57
G1 F6060 X195.57 Y132.88 E3372.42012
G0 F6000 X195.57 Y133.58
G1 F6060 X133.58 Y195.57 E3376.06496
G0 F6000 X134.29 Y195.57
G1 F6060 X195.57 Y134.29 E3379.66822
G0 F6000 X195.57 Y135.00
G1 F6060 X135.00 Y195.57 E3383.22992
G0 F6000 X135.71 Y195.57
G1 F6060 X195.57 Y135.71 E3386.74999
G0 F6000 X195.57 Y136.41
G1 F6060 X136.41 Y195.57 E3390.22848
G0 F6000 X137.12 Y195.57
G1 F6060 X195.57 Y137.12 E3393.66541
G0 F6000 X195.57 Y137.83
G1 F6060 X137.83 Y195.57 E3397.06078
G0 F6000 X138.53 Y195.57
G1 F6060 X195.57 Y138.53 E3400.41457
G0 F6000 X195.57 Y139.24
G1 F6060 X139.24 Y195.57 E3403.72679
G0 F6000 X139.95 Y195.57
G1 F6060 X195.57 Y139.95 E3406.99745
G0 F6000 X195.57 Y140.65
G1 F6060 X140.65 Y195.57 E3410.22653
G0 F6000 X141.36 Y195.57
G1 F6060 X195.57 Y141.36 E3413.41405
G0 F6000 X195.57 Y142.07
G1 F6060 X142.07 Y195.57 E3416.55994
G0 F6000 X142.78 Y195.57
G1 F6060 X195.57 Y142.78 E3419.66426
G0 F6000 X195.57 Y143.48
G1 F6060 X143.48 Y195.57 E3422.72701
G0 F6000 X144.19 Y195.57
G1 F6060 X195.57 Y144.19 E3425.74819
G0 F6000 X195.57 Y144.90
G1 F6060 X144.90 Y195.57 E3428.72780
G0 F6000 X145.60 Y195.57
G1 F6060 X195.57 Y145.60 E3431.66585
G0 F6000 X195.57 Y146.31
G1 F6060 X146.31 Y195.57 E3434.56232
G0 F6000 X147.02 Y195.57
G1 F6060 X195.57 Y147.02 E3437.41723
G0 F6000 X195.57 Y147.72
G1 F6060 X147.72 Y195.57 E3440.23057
G0 F6000 X148.43 Y195.57
G1 F6060 X195.57 Y148.43 E3443.00228
G0 F6000 X195.57 Y149.14
G1 F6060 X149.14 Y195.57 E3445.73242
G0 F6000 X149.85 Y195.57
G1 F6060 X195.57 Y149.85 E3448.42099
G0 F6000 X195.57 Y150.55
G1 F6060 X150.55 Y195.57 E3451.06799
G0 F6000 X151.26 Y195.57
G1 F6060 X195.57 Y151.26 E3453.67343
G0 F6000 X195.57 Y151.97
G1 F6060 X151.97 Y195.57 E3456.23730
G0 F6000 X152.68 Y195.57
G1 F6060 X195.57 Y152.68 E3458.75959
G0 F6000 X195.57 Y153.38
G1 F6060 X153.38 Y195.57 E3461.24032
G0 F6000 X154.09 Y195.57
G1 F6060 X195.57 Y154.09 E3463.67948
G0 F6000 X195.57 Y154.80
G1 F6060 X154.80 Y195.57 E3466.07707
G0 F6000 X155.50 Y195.57
G1 F6060 X195.57 Y155.50 E3468.43303
G0 F6000 X195.57 Y156.21
G1 F6060 X156.21 Y195.57 E3470.74742
G0 F6000 X156.92 Y195.57
G1 F6060 X195.57 Y156.92 E3473.02025
G0 F6000 X195.57 Y157.62
G1 F6060 X157.62 Y195.57 E3475.25151
G0 F6000 X158.33 Y195.57
G1 F6060 X195.57 Y158.33 E3477.44119
G0 F6000 X195.57 Y159.04
G1 F6060 X159.04 Y195.57 E3479.58931
G0 F6000 X159.75 Y195.57
G1 F6060 X195.57 Y159.75 E3481.69586
G0 F6000 X195.57 Y160.45
G1 F6060 X160.45 Y195.57 E3483.76084
G0 F6000 X161.16 Y195.57
G1 F6060 X195.57 Y161.16 E3485.78425
G0 F6000 X195.57 Y161.87
G1 F6060 X161.87 Y195.57 E3487.76603
G0 F6000 X162.57 Y195.57
G1 F6060 X195.57 Y162.57 E3489.70625
G0 F6000 X195.57 Y163.28
G1 F6060 X163.28 Y195.57 E3491.60490
G0 F6000 X163.99 Y195.57
G1 F6060 X195.57 Y163.99 E3493.46197
G0 F6000 X195.57 Y164.70
G1 F6060 X164.70 Y195.57 E3495.27748
G0 F6000 X165.40 Y195.57
G1 F6060 X195.57 Y165.40 E3497.05142
G0 F6000 X195.57 Y166.11
G1 F6060 X166.11 Y195.57 E3498.78379
G0 F6000 X166.82 Y195.57
G1 F6060 X195.57 Y166.82 E3500.47459
G0 F6000 X195.57 Y167.52
G1 F6060 X167.52 Y195.57 E3502.12382
G0 F6000 X168.23 Y195.57
G1 F6060 X195.57 Y168.23 E3503.73143
G0 F6000 X195.57 Y168.94
G1 F6060 X168.94 Y195.57 E3505.29746
G0 F6000 X169.65 Y195.57
G1 F6060 X195.57 Y169.65 E3506.82193
G0 F6000 X195.57 Y170.35
G1 F6060 X170.35 Y195.57 E3508.30483
G0 F6000 X171.06 Y195.57
G1 F6060 X195.57 Y171.06 E3509.74616
G0 F6000 X195.57 Y171.77
G1 F6060 X171.77 Y195.57 E3511.14592
G0 F6000 X172.47 Y195.57
G1 F6060 X195.57 Y172.47 E3512.50411
G0 F6000 X195.57 Y173.18
G1 F6060 X173.18 Y195.57 E3513.82073
G0 F6000 X173.89 Y195.57
G1 F6060 X195.57 Y173.89 E3515.09579
G0 F6000 X195.57 Y174.59
G1 F6060 X174.59 Y195.57 E3516.32927
G0 F6000 X175.30 Y195.57
G1 F6060 X195.57 Y175.30 E3517.52113
G0 F6000 X195.57 Y176.01
G1 F6060 X176.01 Y195.57 E3518.67142
G0 F6000 X176.72 Y195.57
G1 F6060 X195.57 Y176.72 E3519.78014
G0 F6000 X195.57 Y177.42
G1 F6060 X177.42 Y195.57 E3520.84729
G0 F6000 X178.13 Y195.57
G1 F6060 X195.57 Y178.13 E3521.87287
G0 F6000 X195.57 Y178.84
G1 F6060 X178.84 Y195.57 E3522.85688
G0 F6000 X179.54 Y195.57
G1 F6060 X195.57 Y179.54 E3523.79932
G0 F6000 X195.57 Y180.25
G1 F6060 X180.25 Y195.57 E3524.70020
G0 F6000 X180.96 Y195.57
G1 F6060 X195.57 Y180.96 E3525.55951
G0 F6000 X195.57 Y181.67
G1 F6060 X181.67 Y195.57 E3526.37718
G0 F6000 X182.37 Y195.57
G1 F6060 X195.57 Y182.37 E3527.15329
G0 F6000 X195.57 Y183.08
G1 F6060 X183.08 Y195.57 E3527.88783
G0 F6000 X183.79 Y195.57
G1 F6060 X195.57 Y183.79 E3528.58081
G0 F6000 X195.57 Y184.50
G1 F6060 X184.50 Y195.57 E3529.23221
G0 F6000 X185.20 Y195.57
G1 F6060 X195.57 Y185.20 E3529.84204
G0 F6000 X195.57 Y185.91
G1 F6060 X185.91 Y195.57 E3530.41031
G0 F6000 X186.62 Y195.57
G1 F6060 X195.57 Y186.62 E3530.93700
G0 F6000 X195.57 Y187.32
G1 F6060 X187.32 Y195.57 E3531.42213
G0 F6000 X188.03 Y195.57
G1 F6060 X195.57 Y188.03 E3531.86563
G0 F6000 X195.57 Y188.74
G1 F6060 X188.74 Y195.57 E3532.26756
G0 F6000 X189.44 Y195.57
G1 F6060 X195.57 Y189.44 E3532.62792
G0 F6000 X195.57 Y190.15
G1 F6060 X190.15 Y195.57 E3532.94671
G0 F6000 X190.86 Y195.57
G1 F6060 X195.57 Y190.86 E3533.22394
G0 F6000 X195.57 Y191.57
G1 F6060 X191.57 Y195.57 E3533.45959
G0 F6000 X192.27 Y195.57
G1 F6060 X195.57 Y192.27 E3533.65368
G0 F6000 X195.57 Y192.98
G1 F6060 X192.98 Y195.57 E3533.80620
G0 F6000 X193.69 Y195.57
G1 F6060 X195.57 Y193.69 E3533.91715
G0 F6000 X195.57 Y194.39
G1 F6060 X194.39 Y195.57 E3533.98652
G0 F6000 X195.10 Y195.57
G1 F6060 X195.57 Y195.10 E3534.01428
;LAYER:4
G0 F6000 X195.75 Y195.75 Z1.10
;TYPE:WALL-INNER
G1 F7200 X109.25 Y195.75 E3537.61053
G1 X109.25 Y109.25 E3541.20678
G1 X195.75 Y109.25 E3544.80303
G1 X195.75 Y195.75 E3548.39929
G0 F6000 X196.25 Y196.25
;TYPE:WALL-OUTER
G1 F7200 X108.75 Y196.25 E3552.03711
G1 X108.75 Y108.75 E3555.67494
G1 X196.25 Y108.75 E3559.31277
G1 X196.25 Y196.25 E3562.95059
G0 F6000 X195.22 Y195.57
;TYPE:FILL
G1 F7200 X109.42 Y109.78 E3567.99507
G0 F6000 X109.78 Y109.42
G1 F7200 X195.57 Y195.22 E3573.03955
G0 F6000 X195.57 Y194.51
G1 F7200 X110.48 Y109.42 E3578.04245
G0 F6000 X111.19 Y109.42
G1 F7200 X195.57 Y193.81 E3583.00379
G0 F6000 X195.57 Y193.10
G1 F7200 X111.90 Y109.42 E3587.92356
G0 F6000 X112.61 Y109.42
G1 F7200 X195.57 Y192.39 E3592.80176
G0 F6000 X195.57 Y191.69
G1 F7200 X113.31 Y109.42 E3597.63839
G0 F6000 X114.02 Y109.42
G1 F7200 X195.57 Y190.98 E3602.43346
G0 F6000 X195.57 Y190.27
G1 F7200 X114.73 Y109.42 E3607.18692
G0 F6000 X115.44 Y109.42
G1 F7200 X195.57 Y189.56 E3611.89882
G0 F6000 X195.57 Y188.86
G1 F7200 X116.14 Y109.42 E3616.56911
G0 F6000 X116.85 Y109.42
G1 F7200 X195.57 Y188.15 E3621.19784
G0 F6000 X195.57 Y187.44
G1 F7200 X117.56 Y109.42 E3625.78500
G0 F6000 X118.26 Y109.42
G1 F7200 X195.57 Y186.74 E3630.33059
G0 F6000 X195.57 Y186.03
G1 F7200 X118.97 Y109.42 E3634.83461
G0 F6000 X119.68 Y109.42
G1 F7200 X195.57 Y185.32 E3639.29707
G0 F6000 X195.57 Y184.61
G1 F7200 X120.38 Y109.42 E3643.71795
G0 F6000 X121.09 Y109.42
G1 F7200 X195.57 Y183.91 E3648.09723
G0 F6000 X195.57 Y183.20
G1 F7200 X121.80 Y109.42 E3652.43495
G0 F6000 X122.51 Y109.42
G1 F7200 X195.57 Y182.49 E3656.73107
G0 F6000 X195.57 Y181.78
G1 F7200 X123.21 Y109.42 E3660.98562
G0 F6000 X123.92 Y109.42
G1 F7200 X195.57 Y181.08 E3665.19860
G0 F6000 X195.57 Y180.37
G1 F7200 X124.63 Y109.42 E3669.37001
G0 F6000 X125.33 Y109.42
G1 F7200 X195.57 Y179.66 E3673.49985
G0 F6000 X195.57 Y178.96
G1 F7200 X126.04 Y109.42 E3677.58813
G0 F6000 X126.75 Y109.42
G1 F7200 X195.57 Y178.25 E3681.63483
G0 F6000 X195.57 Y177.54
G1 F7200 X127.45 Y109.42 E3685.63997
G0 F6000 X128.16 Y109.42
G1 F7200 X195.57 Y176.84 E3689.60351
G0 F6000 X195.57 Y176.13
G1 F7200 X128.87 Y109.42 E3693.52545
G0 F6000 X129.58 Y109.42
G1 F7200 X195.57 Y175.42 E3697.40582
G0 F6000 X195.57 Y174.71
G1 F7200 X130.28 Y109.42 E3701.24462
G0 F6000 X130.99 Y109.42
G1 F7200 X195.57 Y174.01 E3705.04185
G0 F6000 X195.57 Y173.30
G1 F7200 X131.70 Y109.42 E3708.79752
G0 F6000 X132.41 Y109.42
G1 F7200 X195.57 Y172.59 E3712.51161
G0 F6000 X195.57 Y171.89
G1 F7200 X133.11 Y109.42 E3716.18414
G0 F6000 X133.82 Y109.42
G1 F7200 X195.57 Y171.18 E3719.81509
G0 F6000 X195.57 Y170.47
G1 F7200 X134.53 Y109.42 E3723.40445
G0 F6000 X135.23 Y109.42
G1 F7200 X195.57 Y169.76 E3726.95224
G0 F6000 X195.57 Y169.06
G1 F7200 X135.94 Y109.42 E3730.45844
G0 F6000 X136.65 Y109.42
G1 F7200 X195.57 Y168.35 E3733.92306
G0 F6000 X195.57 Y167.64
G1 F7200 X137.35 Y109.42 E3737.34611
G0 F6000 X138.06 Y109.42
G1 F7200 X195.57 Y166.94 E3740.72760
G0 F6000 X195.57 Y166.23
G1 F7200 X138.77 Y109.42 E3744.06751
G0 F6000 X139.48 Y109.42
G1 F7200 X195.57 Y165.52 E3747.36586
G0 F6000 X195.57 Y164.81
G1 F7200 X140.18 Y109.42 E3750.62264
G0 F6000 X140.89 Y109.42
G1 F7200 X195.57 Y164.11 E3753.83782
G0 F6000 X195.57 Y163.40
G1 F7200 X141.60 Y109.42 E3757.01143
G0 F6000 X142.31 Y109.42
G1 F7200 X195.57 Y162.69 E3760.14344
G0 F6000 X195.57 Y161.99
G1 F7200 X143.01 Y109.42 E3763.23389
G0 F6000 X143.72 Y109.42
G1 F7200 X195.57 Y161.28 E3766.28276
G0 F6000 X195.57 Y160.57
G1 F7200 X144.43 Y109.42 E3769.29007
G0 F6000 X145.13 Y109.42
G1 F7200 X195.57 Y159.87 E3772.25581
G0 F6000 X195.57 Y159.16
G1 F7200 X145.84 Y109.42 E3775.17998
G0 F6000 X146.55 Y109.42
G1 F7200 X195.57 Y158.45 E3778.06258
G0 F6000 X195.57 Y157.74
G1 F7200 X147.25 Y109.42 E3780.90361
G0 F6000 X147.96 Y109.42
G1 F7200 X195.57 Y157.04 E3783.70304
G0 F6000 X195.57 Y156.33
G1 F7200 X148.67 Y109.42 E3786.46087
G0 F6000 X149.38 Y109.42
G1 F7200 X195.57 Y155.62 E3789.17714
G0 F6000 X195.57 Y154.91
G1 F7200 X150.08 Y109.42 E3791.85184
G0 F6000 X150.79 Y109.42
G1 F7200 X195.57 Y154.21 E3794.48496
G0 F6000 X195.57 Y153.50
G1 F7200 X151.50 Y109.42 E3797.07652
G0 F6000 X152.20 Y109.42
G1 F7200 X195.57 Y152.79 E3799.62651
G0 F6000 X195.57 Y152.09
G1 F7200 X152.91 Y109.42 E3802.13493
G0 F6000 X153.62 Y109.42
G1 F7200 X195.57 Y151.38 E3804.60178
G0 F6000 X195.57 Y150.67
G1 F7200 X154.33 Y109.42 E3807.02704
G0 F6000 X155.03 Y109.42
G1 F7200 X195.57 Y149.97 E3809.41072
G0 F6000 X195.57 Y149.26
G1 F7200 X155.74 Y109.42 E3811.75281
G0 F6000 X156.45 Y109.42
G1 F7200 X195.57 Y148.55 E3814.05333
G0 F6000 X195.57 Y147.84
G1 F7200 X157.15 Y109.42 E3816.31228
G0 F6000 X157.86 Y109.42
G1 F7200 X195.57 Y147.14 E3818.52966
G0 F6000 X195.57 Y146.43
G1 F7200 X158.57 Y109.42 E3820.70547
G0 F6000 X159.28 Y109.42
G1 F7200 X195.57 Y145.72 E3822.83971
G0 F6000 X195.57 Y145.02
G1 F7200 X159.98 Y109.42 E3824.93238
G0 F6000 X160.69 Y109.42
G1 F7200 X195.57 Y144.31 E3826.98346
G0 F6000 X195.57 Y143.60
G1 F7200 X161.40 Y109.42 E3828.99296
G0 F6000 X162.10 Y109.42
G1 F7200 X195.57 Y142.89 E3830.96087
G0 F6000 X195.57 Y142.19
G1 F7200 X162.81 Y109.42 E3832.88721
G0 F6000 X163.52 Y109.42
G1 F7200 X195.57 Y141.48 E3834.77198
G0 F6000 X195.57 Y140.77
G1 F7200 X164.22 Y109.42 E3836.61518
G0 F6000 X164.93 Y109.42
G1 F7200 X195.57 Y140.07 E3838.41681
G0 F6000 X195.57 Y139.36
G1 F7200 X165.64 Y109.42 E3840.17688
G0 F6000 X166.35 Y109.42
G1 F7200 X195.57 Y138.65 E3841.89537
G0 F6000 X195.57 Y137.94
G1 F7200 X167.05 Y109.42 E3843.57230
G0 F6000 X167.76 Y109.42
G1 F7200 X195.57 Y137.24 E3845.20762
G0 F6000 X195.57 Y136.53
G1 F7200 X168.47 Y109.42 E3846.80138
G0 F6000 X169.18 Y109.42
G1 F7200 X195.57 Y135.82 E3848.35354
G0 F6000 X195.57 Y135.12
G1 F7200 X169.88 Y109.42 E3849.86413
G0 F6000 X170.59 Y109.42
G1 F7200 X195.57 Y134.41 E3851.33316
G0 F6000 X195.57 Y133.70
G1 F7200 X171.30 Y109.42 E3852.76061
G0 F6000 X172.00 Y109.42
G1 F7200 X195.57 Y133.00 E3854.14649
G0 F6000 X195.57 Y132.29
G1 F7200 X172.71 Y109.42 E3855.49081
G0 F6000 X173.42 Y109.42
G1 F7200 X195.57 Y131.58 E3856.79356
G0 F6000 X195.57 Y130.87
G1 F7200 X174.12 Y109.42 E3858.05470
G0 F6000 X174.83 Y109.42
G1 F7200 X195.57 Y130.17 E3859.27428
G0 F6000 X195.57 Y129.46
G1 F7200 X175.54 Y109.42 E3860.45226
G0 F6000 X176.25 Y109.42
G1 F7200 X195.57 Y128.75 E3861.58868
G0 F6000 X195.57 Y128.04
G1 F7200 X176.95 Y109.42 E3862.68352
G0 F6000 X177.66 Y109.42
G1 F7200 X195.57 Y127.34 E3863.73679
G0 F6000 X195.57 Y126.63
G1 F7200 X178.37 Y109.42 E3864.74850
G0 F6000 X179.07 Y109.42
G1 F7200 X195.57 Y125.92 E3865.71864
G0 F6000 X195.57 Y125.22
G1 F7200 X179.78 Y109.42 E3866.64720
G0 F6000 X180.49 Y109.42
G1 F7200 X195.57 Y124.51 E3867.53417
G0 F6000 X195.57 Y123.80
G1 F7200 X181.20 Y109.42 E3868.37958
G0 F6000 X181.90 Y109.42
G1 F7200 X195.57 Y123.09 E3869.18338
G0 F6000 X195.57 Y122.39
G1 F7200 X182.61 Y109.42 E3869.94561
G0 F6000 X183.32 Y109.42
G1 F7200 X195.57 Y121.68 E3870.66628
G0 F6000 X195.57 Y120.97
G1 F7200 X184.02 Y109.42 E3871.34537
G0 F6000 X184.73 Y109.42
G1 F7200 X195.57 Y120.27 E3871.98290
G0 F6000 X195.57 Y119.56
G1 F7200 X185.44 Y109.42 E3872.57886
G0 F6000 X186.15 Y109.42
G1 F7200 X195.57 Y118.85 E3873.13325
G0 F6000 X195.57 Y118.15
G1 F7200 X186.85 Y109.42 E3873.64607
G0 F6000 X187.56 Y109.42
G1 F7200 X195.57 Y117.44 E3874.11729
G0 F6000 X195.57 Y116.73
G1 F7200 X188.27 Y109.42 E3874.54694
G0 F6000 X188.97 Y109.42
G1 F7200 X195.57 Y116.02 E3874.93500
G0 F6000 X195.57 Y115.32
G1 F7200 X189.68 Y109.42 E3875.28148
G0 F6000 X190.39 Y109.42
G1 F7200 X195.57 Y114.61 E3875.58640
G0 F6000 X195.57 Y113.90
G1 F7200 X191.09 Y109.42 E3875.84975
G0 F6000 X191.80 Y109.42
G1 F7200 X195.57 Y113.20 E3876.07152
G0 F6000 X195.57 Y112.49
G1 F7200 X192.51 Y109.42 E3876.25174
G0 F6000 X193.22 Y109.42
G1 F7200 X195.57 Y111.78 E3876.39038
G0 F6000 X195.57 Y111.08
G1 F7200 X193.92 Y109.42 E3876.48742
G0 F6000 X194.63 Y109.42
G1 F7200 X195.57 Y110.37 E3876.54289
G0 F6000 X195.57 Y109.66
G1 F7200 X195.34 Y109.42 E3876.55677
G0 F6000 X109.42 Y110.48
G1 F7200 X194.51 Y195.57 E3881.55968
G0 F6000 X193.81 Y195.57
G1 F7200 X109.42 Y111.19 E3886.52102
G0 F6000 X109.42 Y111.90
G1 F7200 X193.10 Y195.57 E3891.44078
G0 F6000 X192.39 Y195.57
G1 F7200 X109.42 Y112.61 E3896.31898
G0 F6000 X109.42 Y113.31
G1 F7200 X191.69 Y195.57 E3901.15562
G0 F6000 X190.98 Y195.57
G1 F7200 X109.42 Y114.02 E3905.95068
G0 F6000 X109.42 Y114.73
G1 F7200 X190.27 Y195.57 E3910.70414
G0 F6000 X189.56 Y195.57
G1 F7200 X109.42 Y115.44 E3915.41604
G0 F6000 X109.42 Y116.14
G1 F7200 X188.86 Y195.57 E3920.08634
G0 F6000 X188.15 Y195.57
G1 F7200 X109.42 Y116.85 E3924.71506
G0 F6000 X109.42 Y117.56
G1 F7200 X187.44 Y195.57 E3929.30222
G0 F6000 X186.74 Y195.57
G1 F7200 X109.42 Y118.26 E3933.84781
G0 F6000 X109.42 Y118.97
G1 F7200 X186.03 Y195.57 E3938.35184
G0 F6000 X185.32 Y195.57
G1 F7200 X109.42 Y119.68 E3942.81429
G0 F6000 X109.42 Y120.38
G1 F7200 X184.61 Y195.57 E3947.23517
G0 F6000 X183.91 Y195.57
G1 F7200 X109.42 Y121.09 E3951.61446
G0 F6000 X109.42 Y121.80
G1 F7200 X183.20 Y195.57 E3955.95217
G0 F6000 X182.49 Y195.57
G1 F7200 X109.42 Y122.51 E3960.24829
G0 F6000 X109.42 Y123.21
G1 F7200 X181.78 Y195.57 E3964.50284
G0 F6000 X181.08 Y195.57
G1 F7200 X109.42 Y123.92 E3968.71582
G0 F6000 X109.42 Y124.63
G1 F7200 X180.37 Y195.57 E3972.88723
G0 F6000 X179.66 Y195.57
G1 F7200 X109.42 Y125.33 E3977.01708
G0 F6000 X109.42 Y126.04
G1 F7200 X178.96 Y195.57 E3981.10535
G0 F6000 X178.25 Y195.57
G1 F7200 X109.42 Y126.75 E3985.15206
G0 F6000 X109.42 Y127.45
G1 F7200 X177.54 Y195.57 E3989.15719
G0 F6000 X176.84 Y195.57
G1 F7200 X109.42 Y128.16 E3993.12073
G0 F6000 X109.42 Y128.87
G1 F7200 X176.13 Y195.57 E3997.04267
G0 F6000 X175.42 Y195.57
G1 F7200 X109.42 Y129.58 E4000.92304
G0 F6000 X109.42 Y130.28
G1 F7200 X174.71 Y195.57 E4004.76184
G0 F6000 X174.01 Y195.57
G1 F7200 X109.42 Y130.99 E4008.55908
G0 F6000 X109.42 Y131.70
G1 F7200 X173.30 Y195.57 E4012.31474
G0 F6000 X172.59 Y195.57
G1 F7200 X109.42 Y132.41 E4016.02883
G0 F6000 X109.42 Y133.11
G1 F7200 X171.89 Y195.57 E4019.70136
G0 F6000 X171.18 Y195.57
G1 F7200 X109.42 Y133.82 E4023.33232
G0 F6000 X109.42 Y134.53
G1 F7200 X170.47 Y195.57 E4026.92168
G0 F6000 X169.76 Y195.57
G1 F7200 X109.42 Y135.23 E4030.46947
G0 F6000 X109.42 Y135.94
G1 F7200 X169.06 Y195.57 E4033.97566
G0 F6000 X168.35 Y195.57
G1 F7200 X109.42 Y136.65 E4037.44028
G0 F6000 X109.42 Y137.35
G1 F7200 X167.64 Y195.57 E4040.86334
G0 F6000 X166.94 Y195.57
G1 F7200 X109.42 Y138.06 E4044.24482
G0 F6000 X109.42 Y138.77
G1 F7200 X166.23 Y195.57 E4047.58474
G0 F6000 X165.52 Y195.57
G1 F7200 X109.42 Y139.48 E4050.88309
G0 F6000 X109.42 Y140.18
G1 F7200 X164.81 Y195.57 E4054.13986
G0 F6000 X164.11 Y195.57
G1 F7200 X109.42 Y140.89 E4057.35504
G0 F6000 X109.42 Y141.60
G1 F7200 X163.40 Y195.57 E4060.52866
G0 F6000 X162.69 Y195.57
G1 F7200 X109.42 Y142.31 E4063.66067
G0 F6000 X109.42 Y143.01
G1 F7200 X161.99 Y195.57 E4066.75111
G0 F6000 X161.28 Y195.57
G1 F7200 X109.42 Y143.72 E4069.79999
G0 F6000 X109.42 Y144.43
G1 F7200 X160.57 Y195.57 E4072.80729
G0 F6000 X159.87 Y195.57
G1 F7200 X109.42 Y145.13 E4075.77303
G0 F6000 X109.42 Y145.84
G1 F7200 X159.16 Y195.57 E4078.69720
G0 F6000 X158.45 Y195.57
G1 F7200 X109.42 Y146.55 E4081.57980
G0 F6000 X109.42 Y147.25
G1 F7200 X157.74 Y195.57 E4084.42083
G0 F6000 X157.04 Y195.57
G1 F7200 X109.42 Y147.96 E4087.22026
G0 F6000 X109.42 Y148.67
G1 F7200 X156.33 Y195.57 E4089.97810
G0 F6000 X155.62 Y195.57
G1 F7200 X109.42 Y149.38 E4092.69436
G0 F6000 X109.42 Y150.08
G1 F7200 X154.91 Y195.57 E4095.36906
G0 F6000 X154.21 Y195.57
G1 F7200 X109.42 Y150.79 E4098.00219
G0 F6000 X109.42 Y151.50
G1 F7200 X153.50 Y195.57 E4100.59375
G0 F6000 X152.79 Y195.57
G1 F7200 X109.42 Y152.20 E4103.14374
G0 F6000 X109.42 Y152.91
G1 F7200 X152.09 Y195.57 E4105.65216
G0 F6000 X151.38 Y195.57
G1 F7200 X109.42 Y153.62 E4108.11901
G0 F6000 X109.42 Y154.33
G1 F7200 X150.67 Y195.57 E4110.54426
G0 F6000 X149.97 Y195.57
G1 F7200 X109.42 Y155.03 E4112.92795
G0 F6000 X109.42 Y155.74
G1 F7200 X149.26 Y195.57 E4115.27003
G0 F6000 X148.55 Y195.57
G1 F7200 X109.42 Y156.45 E4117.57055
G0 F6000 X109.42 Y157.15
G1 F7200 X147.84 Y195.57 E4119.82950
G0 F6000 X147.14 Y195.57
G1 F7200 X109.42 Y157.86 E4122.04688
G0 F6000 X109.42 Y158.57
G1 F7200 X146.43 Y195.57 E4124.22269
G0 F6000 X145.72 Y195.57
G1 F7200 X109.42 Y159.28 E4126.35693
G0 F6000 X109.42 Y159.98
G1 F7200 X145.02 Y195.57 E4128.44961
G0 F6000 X144.31 Y195.57
G1 F7200 X109.42 Y160.69 E4130.50068
G0 F6000 X109.42 Y161.40
G1 F7200 X143.60 Y195.57 E4132.51019
G0 F6000 X142.89 Y195.57
G1 F7200 X109.42 Y162.10 E4134.47809
G0 F6000 X109.42 Y162.81
G1 F7200 X142.19 Y195.57 E4136.40443
G0 F6000 X141.48 Y195.57
G1 F7200 X109.42 Y163.52 E4138.28920
G0 F6000 X109.42 Y164.22
G1 F7200 X140.77 Y195.57 E4140.13240
G0 F6000 X140.07 Y195.57
G1 F7200 X109.42 Y164.93 E4141.93404
G0 F6000 X109.42 Y165.64
G1 F7200 X139.36 Y195.57 E4143.69410
G0 F6000 X138.65 Y195.57
G1 F7200 X109.42 Y166.35 E4145.41259
G0 F6000 X109.42 Y167.05
G1 F7200 X137.94 Y195.57 E4147.08952
G0 F6000 X137.24 Y195.57
G1 F7200 X109.42 Y167.76 E4148.72485
G0 F6000 X109.42 Y168.47
G1 F7200 X136.53 Y195.57 E4150.31861
G0 F6000 X135.82 Y195.57
G1 F7200 X109.42 Y169.18 E4151.87077
G0 F6000 X109.42 Y169.88
G1 F7200 X135.12 Y195.57 E4153.38136
G0 F6000 X134.41 Y195.57
G1 F7200 X109.42 Y170.59 E4154.85038
G0 F6000 X109.42 Y171.30
G1 F7200 X133.70 Y195.57 E4156.27783
G0 F6000 X133.00 Y195.57
G1 F7200 X109.42 Y172.00 E4157.66372
G0 F6000 X109.42 Y172.71
G1 F7200 X132.29 Y195.57 E4159.00803
G0 F6000 X131.58 Y195.57
G1 F7200 X109.42 Y173.42 E4160.31078
G0 F6000 X109.42 Y174.12
G1 F7200 X130.87 Y195.57 E4161.57193
G0 F6000 X130.17 Y195.57
G1 F7200 X109.42 Y174.83 E4162.79151
G0 F6000 X109.42 Y175.54
G1 F7200 X129.46 Y195.57 E4163.96949
G0 F6000 X128.75 Y195.57
G1 F7200 X109.42 Y176.25 E4165.10590
G0 F6000 X109.42 Y176.95
G1 F7200 X128.04 Y195.57 E4166.20074
G0 F6000 X127.34 Y195.57
G1 F7200 X109.42 Y177.66 E4167.25402
G0 F6000 X109.42 Y178.37
G1 F7200 X126.63 Y195.57 E4168.26572
G0 F6000 X125.92 Y195.57
G1 F7200 X109.42 Y179.07 E4169.23586
G0 F6000 X109.42 Y179.78
G1 F7200 X125.22 Y195.57 E4170.16443
G0 F6000 X124.51 Y195.57
G1 F7200 X109.42 Y180.49 E4171.05140
G0 F6000 X109.42 Y181.20
G1 F7200 X123.80 Y195.57 E4171.89680
G0 F6000 X123.09 Y195.57
G1 F7200 X109.42 Y181.90 E4172.70060
G0 F6000 X109.42 Y182.61
G1 F7200 X122.39 Y195.57 E4173.46283
G0 F6000 X121.68 Y195.57
G1 F7200 X109.42 Y183.32 E4174.18350
G0 F6000 X109.42 Y184.02
G1 F7200 X120.97 Y195.57 E4174.86259
G0 F6000 X120.27 Y195.57
G1 F7200 X109.42 Y184.73 E4175.50012
G0 F6000 X109.42 Y185.44
G1 F7200 X119.56 Y195.57 E4176.09608
G0 F6000 X118.85 Y195.57
G1 F7200 X109.42 Y186.15 E4176.65047
G0 F6000 X109.42 Y186.85
G1 F7200 X118.15 Y195.57 E4177.16329
G0 F6000 X117.44 Y195.57
G1 F7200 X109.42 Y187.56 E4177.63451
G0 F6000 X109.42 Y188.27
G1 F7200 X116.73 Y195.57 E4178.06416
G0 F6000 X116.02 Y195.57
G1 F7200 X109.42 Y188.97 E4178.45222
G0 F6000 X109.42 Y189.68
G1 F7200 X115.32 Y195.57 E4178.79870
G0 F6000 X114.61 Y195.57
G1 F7200 X109.42 Y190.39 E4179.10362
G0 F6000 X109.42 Y191.09
G1 F7200 X113.90 Y195.57 E4179.36697
G0 F6000 X113.20 Y195.57
G1 F7200 X109.42 Y191.80 E4179.58875
G0 F6000 X109.42 Y192.51
G1 F7200 X112.49 Y195.57 E4179.76896
G0 F6000 X111.78 Y195.57
G1 F7200 X109.42 Y193.22 E4179.90760
G0 F6000 X109.42 Y193.92
G1 F7200 X111.08 Y195.57 E4180.00464
G0 F6000 X110.37 Y195.57
G1 F7200 X109.42 Y194.63 E4180.06012
G0 F6000 X109.42 Y195.34
G1 F7200 X109.66 Y195.57 E4180.07399
;LAYER:5
G0 F6000 X109.25 Y195.75 Z1.30
;TYPE:WALL-INNER
G1 F7200 X109.25 Y109.25 E4183.67025
G1 X195.75 Y109.25 E4187.26650
G1 X195.75 Y195.75 E4190.86275
G1 X109.25 Y195.75 E4194.45900
G0 F6000 X108.75 Y196.25
;TYPE:WALL-OUTER
G1 F7200 X108.75 Y108.75 E4198.09683
G1 X196.25 Y108.75 E4201.73466
G1 X196.25 Y196.25 E4205.37248
G1 X108.75 Y196.25 E4209.01031
G0 F6000 X109.54 Y195.57
;TYPE:FILL
G1 F7200 X195.57 Y109.54 E4214.06866
G0 F6000 X194.98 Y109.42
G1 F7200 X109.42 Y194.98 E4219.09926
G0 F6000 X109.42 Y194.28
G1 F7200 X194.28 Y109.42 E4224.08829
G0 F6000 X193.57 Y109.42
G1 F7200 X109.42 Y193.57 E4229.03576
G0 F6000 X109.42 Y192.86
G1 F7200 X192.86 Y109.42 E4233.94165
G0 F6000 X192.16 Y109.42
G1 F7200 X109.42 Y192.16 E4238.80597
G0 F6000 X109.42 Y191.45
G1 F7200 X191.45 Y109.42 E4243.62873
G0 F6000 X190.74 Y109.42
G1 F7200 X109.42 Y190.74 E4248.40992
G0 F6000 X109.42 Y190.03
G1 F7200 X190.03 Y109.42 E4253.14948
G0 F6000 X189.33 Y109.42
G1 F7200 X109.42 Y189.33 E4257.84747
G0 F6000 X109.42 Y188.62
G1 F7200 X188.62 Y109.42 E4262.50389
G0 F6000 X187.91 Y109.42
G1 F7200 X109.42 Y187.91 E4267.11874
G0 F6000 X109.42 Y187.21
G1 F7200 X187.21 Y109.42 E4271.69202
G0 F6000 X186.50 Y109.42
G1 F7200 X109.42 Y186.50 E4276.22374
G0 F6000 X109.42 Y185.79
G1 F7200 X185.79 Y109.42 E4280.71388
G0 F6000 X185.09 Y109.42
G1 F7200 X109.42 Y185.09 E4285.16246
G0 F6000 X109.42 Y184.38
G1 F7200 X184.38 Y109.42 E4289.56947
G0 F6000 X183.67 Y109.42
G1 F7200 X109.42 Y183.67 E4293.93485
G0 F6000 X109.42 Y182.96
G1 F7200 X182.96 Y109.42 E4298.25866
G0 F6000 X182.26 Y109.42
G1 F7200 X109.42 Y182.26 E4302.54090
G0 F6000 X109.42 Y181.55
G1 F7200 X181.55 Y109.42 E4306.78158
G0 F6000 X180.84 Y109.42
G1 F7200 X109.42 Y180.84 E4310.98068
G0 F6000 X109.42 Y180.13
G1 F7200 X180.13 Y109.42 E4315.13822
G0 F6000 X179.43 Y109.42
G1 F7200 X109.42 Y179.43 E4319.25418
G0 F6000 X109.42 Y178.72
G1 F7200 X178.72 Y109.42 E4323.32858
G0 F6000 X178.01 Y109.42
G1 F7200 X109.42 Y178.01 E4327.36141
G0 F6000 X109.42 Y177.31
G1 F7200 X177.31 Y109.42 E4331.35267
G0 F6000 X176.60 Y109.42
G1 F7200 X109.42 Y176.60 E4335.30230
G0 F6000 X109.42 Y175.89
G1 F7200 X175.89 Y109.42 E4339.21037
G0 F6000 X175.19 Y109.42
G1 F7200 X109.42 Y175.19 E4343.07686
G0 F6000 X109.42 Y174.48
G1 F7200 X174.48 Y109.42 E4346.90179
G0 F6000 X173.77 Y109.42
G1 F7200 X109.42 Y173.77 E4350.68514
G0 F6000 X109.42 Y173.06
G1 F7200 X173.06 Y109.42 E4354.42693
G0 F6000 X172.36 Y109.42
G1 F7200 X109.42 Y172.36 E4358.12715
G0 F6000 X109.42 Y171.65
G1 F7200 X171.65 Y109.42 E4361.78580
G0 F6000 X170.94 Y109.42
G1 F7200 X109.42 Y170.94 E4365.40288
G0 F6000 X109.42 Y170.24
G1 F7200 X170.24 Y109.42 E4368.97834
G0 F6000 X169.53 Y109.42
G1 F7200 X109.42 Y169.53 E4372.51222
G0 F6000 X109.42 Y168.82
G1 F7200 X168.82 Y109.42 E4376.00454
G0 F6000 X168.11 Y109.42
G1 F7200 X109.42 Y168.11 E4379.45529
G0 F6000 X109.42 Y167.41
G1 F7200 X167.41 Y109.42 E4382.86446
G0 F6000 X166.70 Y109.42
G1 F7200 X109.42 Y166.70 E4386.23207
G0 F6000 X109.42 Y165.99
G1 F7200 X165.99 Y109.42 E4389.55811
G0 F6000 X165.29 Y109.42
G1 F7200 X109.42 Y165.29 E4392.84258
G0 F6000 X109.42 Y164.58
G1 F7200 X164.58 Y109.42 E4396.08549
G0 F6000 X163.87 Y109.42
G1 F7200 X109.42 Y163.87 E4399.28676
G0 F6000 X109.42 Y163.16
G1 F7200 X163.16 Y109.42 E4402.44647
G0 F6000 X162.46 Y109.42
G1 F7200 X109.42 Y162.46 E4405.56461
G0 F6000 X109.42 Y161.75
G1 F7200 X161.75 Y109.42 E4408.64117
G0 F6000 X161.04 Y109.42
G1 F7200 X109.42 Y161.04 E4411.67617
G0 F6000 X109.42 Y160.34
G1 F7200 X160.34 Y109.42 E4414.66960
G0 F6000 X159.63 Y109.42
G1 F7200 X109.42 Y159.63 E4417.62147
G0 F6000 X109.42 Y158.92
G1 F7200 X158.92 Y109.42 E4420.53176
G0 F6000 X158.22 Y109.42
G1 F7200 X109.42 Y158.22 E4423.40048
G0 F6000 X109.42 Y157.51
G1 F7200 X157.51 Y109.42 E4426.22764
G0 F6000 X156.80 Y109.42
G1 F7200 X109.42 Y156.80 E4429.01316
G0 F6000 X109.42 Y156.09
G1 F7200 X156.09 Y109.42 E4431.75712
G0 F6000 X155.39 Y109.42
G1 F7200 X109.42 Y155.39 E4434.45951
G0 F6000 X109.42 Y154.68
G1 F7200 X154.68 Y109.42 E4437.12033
G0 F6000 X153.97 Y109.42
G1 F7200 X109.42 Y153.97 E4439.73958
G0 F6000 X109.42 Y153.26
G1 F7200 X153.26 Y109.42 E4442.31727
G0 F6000 X152.56 Y109.42
G1 F7200 X109.42 Y152.56 E4444.85338
G0 F6000 X109.42 Y151.85
G1 F7200 X151.85 Y109.42 E4447.34793
G0 F6000 X151.14 Y109.42
G1 F7200 X109.42 Y151.14 E4449.80090
G0 F6000 X109.42 Y150.44
G1 F7200 X150.44 Y109.42 E4452.21225
G0 F6000 X149.73 Y109.42
G1 F7200 X109.42 Y149.73 E4454.58203
G0 F6000 X109.42 Y149.02
G1 F7200 X149.02 Y109.42 E4456.91024
G0 F6000 X148.31 Y109.42
G1 F7200 X109.42 Y148.31 E4459.19688
G0 F6000 X109.42 Y147.61
G1 F7200 X147.61 Y109.42 E4461.44195
G0 F6000 X146.90 Y109.42
G1 F7200 X109.42 Y146.90 E4463.64546
G0 F6000 X109.42 Y146.19
G1 F7200 X146.19 Y109.42 E4465.80739
G0 F6000 X145.49 Y109.42
G1 F7200 X109.42 Y145.49 E4467.92776
G0 F6000 X109.42 Y144.78
G1 F7200 X144.78 Y109.42 E4470.00656
G0 F6000 X144.07 Y109.42
G1 F7200 X109.42 Y144.07 E4472.04379
G0 F6000 X109.42 Y143.37
G1 F7200 X143.37 Y109.42 E4474.03939
G0 F6000 X142.66 Y109.42
G1 F7200 X109.42 Y142.66 E4475.99342
G0 F6000 X109.42 Y141.95
G1 F7200 X141.95 Y109.42 E4477.90588
G0 F6000 X141.24 Y109.42
G1 F7200 X109.42 Y141.24 E4479.77678
G0 F6000 X109.42 Y140.54
G1 F7200 X140.54 Y109.42 E4481.60610
G0 F6000 X139.83 Y109.42
G1 F7200 X109.42 Y139.83 E4483.39386
G0 F6000 X109.42 Y139.12
G1 F7200 X139.12 Y109.42 E4485.14004
G0 F6000 X138.42 Y109.42
G1 F7200 X109.42 Y138.42 E4486.84466
G0 F6000 X109.42 Y137.71
G1 F7200 X137.71 Y109.42 E4488.50771
G0 F6000 X137.00 Y109.42
G1 F7200 X109.42 Y137.00 E4490.12913
G0 F6000 X109.42 Y136.29
G1 F7200 X136.29 Y109.42 E4491.70899
G0 F6000 X135.59 Y109.42
G1 F7200 X109.42 Y135.59 E4493.24727
G0 F6000 X109.42 Y134.88
G1 F7200 X134.88 Y109.42 E4494.74399
G0 F6000 X134.17 Y109.42
G1 F7200 X109.42 Y134.17 E4496.19913
G0 F6000 X109.42 Y133.47
G1 F7200 X133.47 Y109.42 E4497.61271
G0 F6000 X132.76 Y109.42
G1 F7200 X109.42 Y132.76 E4498.98472
G0 F6000 X109.42 Y132.05
G1 F7200 X132.05 Y109.42 E4500.31516
G0 F6000 X131.34 Y109.42
G1 F7200 X109.42 Y131.34 E4501.60403
G0 F6000 X109.42 Y130.64
G1 F7200 X130.64 Y109.42 E4502.85127
G0 F6000 X129.93 Y109.42
G1 F7200 X109.42 Y129.93 E4504.05695
G0 F6000 X109.42 Y129.22
G1 F7200 X129.22 Y109.42 E4505.22105
G0 F6000 X128.52 Y109.42
G1 F7200 X109.42 Y128.52 E4506.34359
G0 F6000 X109.42 Y127.81
G1 F7200 X127.81 Y109.42 E4507.42456
G0 F6000 X127.10 Y109.42
G1 F7200 X109.42 Y127.10 E4508.46395
G0 F6000 X109.42 Y126.39
G1 F7200 X126.39 Y109.42 E4509.46178
G0 F6000 X125.69 Y109.42
G1 F7200 X109.42 Y125.69 E4510.41805
G0 F6000 X109.42 Y124.98
G1 F7200 X124.98 Y109.42 E4511.33274
G0 F6000 X124.27 Y109.42
G1 F7200 X109.42 Y124.27 E4512.20586
G0 F6000 X109.42 Y123.57
G1 F7200 X123.57 Y109.42 E4513.03736
G0 F6000 X122.86 Y109.42
G1 F7200 X109.42 Y122.86 E4513.82728
G0 F6000 X109.42 Y122.15
G1 F7200 X122.15 Y109.42 E4514.57564
G0 F6000 X121.44 Y109.42
G1 F7200 X109.42 Y121.44 E4515.28243
G0 F6000 X109.42 Y120.74
G1 F7200 X120.74 Y109.42 E4515.94765
G0 F6000 X120.03 Y109.42
G1 F7200 X109.42 Y120.03 E4516.57130
G0 F6000 X109.42 Y119.32
G1 F7200 X119.32 Y109.42 E4517.15338
G0 F6000 X118.62 Y109.42
G1 F7200 X109.42 Y118.62 E4517.69389
G0 F6000 X109.42 Y117.91
G1 F7200 X117.91 Y109.42 E4518.19284
G0 F6000 X117.20 Y109.42
G1 F7200 X109.42 Y117.20 E4518.65016
G0 F6000 X109.42 Y116.50
G1 F7200 X116.50 Y109.42 E4519.06590
G0 F6000 X115.79 Y109.42
G1 F7200 X109.42 Y115.79 E4519.44008
G0 F6000 X109.42 Y115.08
G1 F7200 X115.08 Y109.42 E4519.77269
G0 F6000 X114.37 Y109.42
G1 F7200 X109.42 Y114.37 E4520.06373
G0 F6000 X109.42 Y113.67
G1 F7200 X113.67 Y109.42 E4520.31321
G0 F6000 X112.96 Y109.42
G1 F7200 X109.42 Y112.96 E4520.52111
G0 F6000 X109.42 Y112.25
G1 F7200 X112.25 Y109.42 E4520.68744
G0 F6000 X111.55 Y109.42
G1 F7200 X109.42 Y111.55 E4520.81221
G0 F6000 X109.42 Y110.84
G1 F7200 X110.84 Y109.42 E4520.89535
G0 F6000 X110.13 Y109.42
G1 F7200 X109.42 Y110.13 E4520.93692
G0 F6000 X110.25 Y195.57
G1 F7200 X195.57 Y110.25 E4525.95370
G0 F6000 X195.57 Y110.96
G1 F7200 X110.96 Y195.57 E4530.92891
G0 F6000 X111.66 Y195.57
G1 F7200 X195.57 Y111.66 E4535.86256
G0 F6000 X195.57 Y112.37
G1 F7200 X112.37 Y195.57 E4540.75463
G0 F6000 X113.08 Y195.57
G1 F7200 X195.57 Y113.08 E4545.60514
G0 F6000 X195.57 Y113.78
G1 F7200 X113.78 Y195.57 E4550.41408
G0 F6000 X114.49 Y195.57
G1 F7200 X195.57 Y114.49 E4555.18145
G0 F6000 X195.57 Y115.20
G1 F7200 X115.20 Y195.57 E4559.90719
G0 F6000 X115.91 Y195.57
G1 F7200 X195.57 Y115.91 E4564.59136
G0 F6000 X195.57 Y116.61
G1 F7200 X116.61 Y195.57 E4569.23397
G0 F6000 X117.32 Y195.57
G1 F7200 X195.57 Y117.32 E4573.83500
G0 F6000 X195.57 Y118.03
G1 F7200 X118.03 Y195.57 E4578.39447
G0 F6000 X118.73 Y195.57
G1 F7200 X195.57 Y118.73 E4582.91237
G0 F6000 X195.57 Y119.44
G1 F7200 X119.44 Y195.57 E4587.38870
G0 F6000 X120.15 Y195.57
G1 F7200 X195.57 Y120.15 E4591.82346
G0 F6000 X195.57 Y120.86
G1 F7200 X120.86 Y195.57 E4596.21665
G0 F6000 X121.56 Y195.57
G1 F7200 X195.57 Y121.56 E4600.56827
G0 F6000 X195.57 Y122.27
G1 F7200 X122.27 Y195.57 E4604.87826
G0 F6000 X122.98 Y195.57
G1 F7200 X195.57 Y122.98 E4609.14669
G0 F6000 X195.57 Y123.68
G1 F7200 X123.68 Y195.57 E4613.37355
G0 F6000 X124.39 Y195.57
G1 F7200 X195.57 Y124.39 E4617.55883
G0 F6000 X195.57 Y125.10
G1 F7200 X125.10 Y195.57 E4621.70255
G0 F6000 X125.81 Y195.57
G1 F7200 X195.57 Y125.81 E4625.80470
G0 F6000 X195.57 Y126.51
G1 F7200 X126.51 Y195.57 E4629.86528
G0 F6000 X127.22 Y195.57
G1 F7200 X195.57 Y127.22 E4633.88429
G0 F6000 X195.57 Y127.93
G1 F7200 X127.93 Y195.57 E4637.86174
G0 F6000 X128.63 Y195.57
G1 F7200 X195.57 Y128.63 E4641.79755
G0 F6000 X195.57 Y129.34
G1 F7200 X129.34 Y195.57 E4645.69180
G0 F6000 X130.05 Y195.57
G1 F7200 X195.57 Y130.05 E4649.54448
G0 F6000 X195.57 Y130.75
G1 F7200 X130.75 Y195.57 E4653.35559
G0 F6000 X131.46 Y195.57
G1 F7200 X195.57 Y131.46 E4657.12513
G0 F6000 X195.57 Y132.17
G1 F7200 X132.17 Y195.57 E4660.85310
G0 F6000 X132.88 Y195.57
G1 F7200 X195.57 Y132.88 E4664.53950
G0 F6000 X195.57 Y133.58
G1 F7200 X133.58 Y195.57 E4668.18433
G0 F6000 X134.29 Y195.57
G1 F7200 X195.57 Y134.29 E4671.78760
G0 F6000 X195.57 Y135.00
G1 F7200 X135.00 Y195.57 E4675.34929
G0 F6000 X135.71 Y195.57
G1 F7200 X195.57 Y135.71 E4678.86936
G0 F6000 X195.57 Y136.41
G1 F7200 X136.41 Y195.57 E4682.34786
G0 F6000 X137.12 Y195.57
G1 F7200 X195.57 Y137.12 E4685.78479
G0 F6000 X195.57 Y137.83
G1 F7200 X137.83 Y195.57 E4689.18015
G0 F6000 X138.53 Y195.57
G1 F7200 X195.57 Y138.53 E4692.53394
G0 F6000 X195.57 Y139.24
G1 F7200 X139.24 Y195.57 E4695.84616
G0 F6000 X139.95 Y195.57
G1 F7200 X195.57 Y139.95 E4699.11682
G0 F6000 X195.57 Y140.65
G1 F7200 X140.65 Y195.57 E4702.34590
G0 F6000 X141.36 Y195.57
G1 F7200 X195.57 Y141.36 E4705.53342
G0 F6000 X195.57 Y142.07
G1 F7200 X142.07 Y195.57 E4708.67931
G0 F6000 X142.78 Y195.57
G1 F7200 X195.57 Y142.78 E4711.78363
G0 F6000 X195.57 Y143.48
G1 F7200 X143.48 Y195.57 E4714.84638
G0 F6000 X144.19 Y195.57
G1 F7200 X195.57 Y144.19 E4717.86756
G0 F6000 X195.57 Y144.90
G1 F7200 X144.90 Y195.57 E4720.84718
G0 F6000 X145.60 Y195.57
G1 F7200 X195.57 Y145.60 E4723.78522
G0 F6000 X195.57 Y146.31
G1 F7200 X146.31 Y195.57 E4726.68170
G0 F6000 X147.02 Y195.57
G1 F7200 X195.57 Y147.02 E4729.53660
G0 F6000 X195.57 Y147.72
G1 F7200 X147.72 Y195.57 E4732.34994
G0 F6000 X148.43 Y195.57
G1 F7200 X195.57 Y148.43 E4735.12165
G0 F6000 X195.57 Y149.14
G1 F7200 X149.14 Y195.57 E4737.85179
G0 F6000 X149.85 Y195.57
G1 F7200 X195.57 Y149.85 E4740.54037
G0 F6000 X195.57 Y150.55
G1 F7200 X150.55 Y195.57 E4743.18737
G0 F6000 X151.26 Y195.57
G1 F7200 X195.57 Y151.26 E4745.79280
G0 F6000 X195.57 Y151.97
G1 F7200 X151.97 Y195.57 E4748.35667
G0 F6000 X152.68 Y195.57
G1 F7200 X195.57 Y152.68 E4750.87897
G0 F6000 X195.57 Y153.38
G1 F7200 X153.38 Y195.57 E4753.35969
G0 F6000 X154.09 Y195.57
G1 F7200 X195.57 Y154.09 E4755.79885
G0 F6000 X195.57 Y154.80
G1 F7200 X154.80 Y195.57 E4758.19644
G0 F6000 X155.50 Y195.57
G1 F7200 X195.57 Y155.50 E4760.55241
G0 F6000 X195.57 Y156.21
G1 F7200 X156.21 Y195.57 E4762.86680
G0 F6000 X156.92 Y195.57
G1 F7200 X195.57 Y156.92 E4765.13962
G0 F6000 X195.57 Y157.62
G1 F7200 X157.62 Y195.57 E4767.37088
G0 F6000 X158.33 Y195.57
G1 F7200 X195.57 Y158.33 E4769.56057
G0 F6000 X195.57 Y159.04
G1 F7200 X159.04 Y195.57 E4771.70868
G0 F6000 X159.75 Y195.57
G1 F7200 X195.57 Y159.75 E4773.81523
G0 F6000 X195.57 Y160.45
G1 F7200 X160.45 Y195.57 E4775.88021
G0 F6000 X161.16 Y195.57
G1 F7200 X195.57 Y161.16 E4777.90363
G0 F6000 X195.57 Y161.87
G1 F7200 X161.87 Y195.57 E4779.88541
G0 F6000 X162.57 Y195.57
G1 F7200 X195.57 Y162.57 E4781.82562
G0 F6000 X195.57 Y163.28
G1 F7200 X163.28 Y195.57 E4783.72427
G0 F6000 X163.99 Y195.57
G1 F7200 X195.57 Y163.99 E4785.58135
G0 F6000 X195.57 Y164.70
G1 F7200 X164.70 Y195.57 E4787.39685
G0 F6000 X165.40 Y195.57
G1 F7200 X195.57 Y165.40 E4789.17079
G0 F6000 X195.57 Y166.11
G1 F7200 X166.11 Y195.57 E4790.90316
G0 F6000 X166.82 Y195.57
G1 F7200 X195.57 Y166.82 E4792.59397
G0 F6000 X195.57 Y167.52
G1 F7200 X167.52 Y195.57 E4794.24320
G0 F6000 X168.23 Y195.57
G1 F7200 X195.57 Y168.23 E4795.85080
G0 F6000 X195.57 Y168.94
G1 F7200 X168.94 Y195.57 E4797.41684
G0 F6000 X169.65 Y195.57
G1 F7200 X195.57 Y169.65 E4798.94131
G0 F6000 X195.57 Y170.35
G1 F7200 X170.35 Y195.57 E4800.42420
G0 F6000 X171.06 Y195.57
G1 F7200 X195.57 Y171.06 E4801.86553
G0 F6000 X195.57 Y171.77
G1 F7200 X171.77 Y195.57 E4803.26529
G0 F6000 X172.47 Y195.57
G1 F7200 X195.57 Y172.47 E4804.62348
G0 F6000 X195.57 Y173.18
G1 F7200 X173.18 Y195.57 E4805.94011
G0 F6000 X173.89 Y195.57
G1 F7200 X195.57 Y173.89 E4807.21516
G0 F6000 X195.57 Y174.59
G1 F7200 X174.59 Y195.57 E4808.44865
G0 F6000 X175.30 Y195.57
G1 F7200 X195.57 Y175.30 E4809.64050
G0 F6000 X195.57 Y176.01
G1 F7200 X176.01 Y195.57 E4810.79079
G0 F6000 X176.72 Y195.57
G1 F7200 X195.57 Y176.72 E4811.89951
G0 F6000 X195.57 Y177.42
G1 F7200 X177.42 Y195.57 E4812.96666
G0 F6000 X178.13 Y195.57
G1 F7200 X195.57 Y178.13 E4813.99224
G0 F6000 X195.57 Y178.84
G1 F7200 X178.84 Y195.57 E4814.97626
G0 F6000 X179.54 Y195.57
G1 F7200 X195.57 Y179.54 E4815.91870
G0 F6000 X195.57 Y180.25
G1 F7200 X180.25 Y195.57 E4816.81957
G0 F6000 X180.96 Y195.57
G1 F7200 X195.57 Y180.96 E4817.67888
G0 F6000 X195.57 Y181.67
G1 F7200 X181.67 Y195.57 E4818.49656
G0 F6000 X182.37 Y195.57
G1 F7200 X195.57 Y182.37 E4819.27267
G0 F6000 X195.57 Y183.08
G1 F7200 X183.08 Y195.57 E4820.00721
G0 F6000 X183.79 Y195.57
G1 F7200 X195.57 Y183.79 E4820.70018
G0 F6000 X195.57 Y184.50
G1 F7200 X184.50 Y195.57 E4821.35158
G0 F6000 X185.20 Y195.57
G1 F7200 X195.57 Y185.20 E4821.96142
G0 F6000 X195.57 Y185.91
G1 F7200 X185.91 Y195.57 E4822.52968
G0 F6000 X186.62 Y195.57
G1 F7200 X195.57 Y186.62 E4823.05638
G0 F6000 X195.57 Y187.32
G1 F7200 X187.32 Y195.57 E4823.54150
G0 F6000 X188.03 Y195.57
G1 F7200 X195.57 Y188.03 E4823.98500
G0 F6000 X195.57 Y188.74
G1 F7200 X188.74 Y195.57 E4824.38693
G0 F6000 X189.44 Y195.57
G1 F7200 X195.57 Y189.44 E4824.74730
G0 F6000 X195.57 Y190.15
G1 F7200 X190.15 Y195.57 E4825.06609
G0 F6000 X190.86 Y195.57
G1 F7200 X195.57 Y190.86 E4825.34331
G0 F6000 X195.57 Y191.57
G1 F7200 X191.57 Y195.57 E4825.57897
G0 F6000 X192.27 Y195.57
G1 F7200 X195.57 Y192.27 E4825.77305
G0 F6000 X195.57 Y192.98
G1 F7200 X192.98 Y195.57 E4825.92557
G0 F6000 X193.69 Y195.57
G1 F7200 X195.57 Y193.69 E4826.03652
G0 F6000 X195.57 Y194.39
G1 F7200 X194.39 Y195.57 E4826.10590
G0 F6000 X195.10 Y195.57
G1 F7200 X195.57 Y195.10 E4826.13365
;LAYER:6
G0 F6000 X195.75 Y195.75 Z1.50
;TYPE:WALL-INNER
G1 F7200 X109.25 Y195.75 E4829.72990
G1 X109.25 Y109.25 E4833.32616
G1 X195.75 Y109.25 E4836.92241
G1 X195.75 Y195.75 E4840.51866
G0 F6000 X196.25 Y196.25
;TYPE:WALL-OUTER
G1 F7200 X108.75 Y196.25 E4844.15649
G1 X108.75 Y108.75 E4847.79431
G1 X196.25 Y108.75 E4851.43214
G1 X196.25 Y196.25 E4855.06997
G0 F6000 X195.90 Y195.99
G0 X192.04 Y195.57
;TYPE:FILL
G1 F7200 X189.14 Y192.67 E4855.24045
G0 F6000 X189.44 Y193.32
G1 F7200 X161.03 Y164.91 E4856.91085
G0 F6000 X161.14 Y164.32
G1 F7200 X141.67 Y144.86 E4858.05543
G0 F6000 X141.35 Y144.54
G1 F7200 X111.67 Y114.86 E4859.80050
G0 F6000 X111.67 Y115.56
G1 F7200 X141.35 Y145.24 E4861.54557
G0 F6000 X141.67 Y145.56
G1 F7200 X160.43 Y164.32 E4862.64859
G0 F6000 X160.32 Y164.91
G1 F7200 X188.73 Y193.32 E4864.31899
G0 F6000 X188.02 Y193.32
G1 F7200 X159.61 Y164.91 E4865.98939
G0 F6000 X159.73 Y164.32
G1 F7200 X141.67 Y146.27 E4867.05083
G0 F6000 X141.35 Y145.95
G1 F7200 X111.67 Y116.27 E4868.79593
G0 F6000 X111.67 Y116.98
G1 F7200 X141.35 Y146.66 E4870.54100
G0 F6000 X141.67 Y146.98
G1 F7200 X159.02 Y164.32 E4871.56088
G0 F6000 X158.90 Y164.91
G1 F7200 X187.31 Y193.32 E4873.23128
G0 F6000 X186.61 Y193.32
G1 F7200 X158.20 Y164.91 E4874.90165
G0 F6000 X158.31 Y164.32
G1 F7200 X141.67 Y147.68 E4875.87996
G0 F6000 X141.35 Y147.37
G1 F7200 X111.67 Y117.69 E4877.62503
G0 F6000 X112.32 Y117.48
G1 F7200 X109.42 Y120.38 E4877.79551
G0 F6000 X109.42 Y120.03
G1 F7200 X112.32 Y122.93 E4877.96602
G0 F6000 X111.67 Y122.63
G1 F7200 X141.35 Y152.31 E4879.71112
G0 F6000 X141.67 Y152.63
G1 F7200 X153.36 Y164.32 E4880.39839
G0 F6000 X153.25 Y164.91
G1 F7200 X181.66 Y193.32 E4882.06879
G0 F6000 X180.95 Y193.32
G1 F7200 X152.54 Y164.91 E4883.73919
G0 F6000 X152.66 Y164.32
G1 F7200 X141.67 Y153.34 E4884.38489
G0 F6000 X141.35 Y153.02
G1 F7200 X111.67 Y123.34 E4886.12996
G0 F6000 X111.67 Y124.05
G1 F7200 X141.35 Y153.73 E4887.87503
G0 F6000 X141.67 Y154.05
G1 F7200 X151.95 Y164.32 E4888.47916
G0 F6000 X151.83 Y164.91
G1 F7200 X180.24 Y193.32 E4890.14953
G0 F6000 X179.53 Y193.32
G1 F7200 X151.13 Y164.91 E4891.81990
G0 F6000 X151.24 Y164.32
G1 F7200 X141.67 Y154.75 E4892.38246
G0 F6000 X141.35 Y154.44
G1 F7200 X111.67 Y124.76 E4894.12753
G0 F6000 X112.32 Y124.56
G1 F7200 X109.42 Y127.45 E4894.29801
G0 F6000 X109.42 Y127.10
G1 F7200 X112.32 Y130.00 E4894.46852
G0 F6000 X111.67 Y129.71
G1 F7200 X141.35 Y159.39 E4896.21359
G0 F6000 X141.67 Y159.71
G1 F7200 X146.29 Y164.32 E4896.48511
G0 F6000 X146.18 Y164.91
G1 F7200 X174.59 Y193.32 E4898.15551
G0 F6000 X175.29 Y193.32
G1 F7200 X146.88 Y164.91 E4899.82591
G0 F6000 X147.00 Y164.32
