;-- START GCODE --
;Sliced for Type A Machines Series 1
;Sliced at: Mon 15-02-2016 11:48:41
;Basic settings: Layer height: 0.2 Walls: 1 Fill: 20
;Print Speed: 120 Support: 0
;Retraction Speed: 40 Retraction Distance: 1.2
;Print time: #P_TIME#
;Filament used: #F_AMNT#m #F_WGHT#g
;Filament cost: #F_COST#
M106 S255	 ;start with the fan on
G21        ;metric values
G90        ;absolute positioning
M106 S255    ;start with the fan on
G28     ;move to endstops
G29		;allows for auto-levelling
G1 X150 Y5  Z15.0 F6000 ;center and move the platform down 15mm
M109 S220 ;Heat To temp
G92 E0                  ;zero the extruded length
G1 F200 E30              ;extrude 30mm of feed stock
G92 E0                  ;zero the extruded length again
G1 X175 Y25  Z0 F6000 ;remove bugger
G1 X220 F6000 ;remove bugger
G1 X150 Y150  Z15 F6000 ;recenter and begin
G1 F6000

;Layer count: 120
;LAYER:0
M106 S255
G0 F6000 X93.25 Y93.25 Z0.30
;TYPE:SKIRT
G1 F2700 X211.75 Y93.25 E7.38986
G1 X211.75 Y211.75 E14.77972
G1 X93.25 Y211.75 E22.16958
G1 X93.25 Y93.25 E29.55945
G0 F6000 X93.75 Y93.75
G1 F2700 X211.25 Y93.75 E36.88694
G1 X211.25 Y211.25 E44.21444
G1 X93.75 Y211.25 E51.54194
G1 X93.75 Y93.75 E58.86944
G0 F6000 X94.25 Y94.25
G1 F2700 X210.75 Y94.25 E66.13458
G1 X210.75 Y210.75 E73.39971
G1 X94.25 Y210.75 E80.66485
G1 X94.25 Y94.25 E87.92999
G0 F6000 X94.75 Y94.75
G1 F2700 X210.25 Y94.75 E95.13276
G1 X210.25 Y210.25 E102.33553
G1 X94.75 Y210.25 E109.53831
G1 X94.75 Y94.75 E116.74108
G0 F6000 X95.25 Y95.25
G1 F2700 X209.75 Y95.25 E123.88149
G1 X209.75 Y209.75 E131.02190
G1 X95.25 Y209.75 E138.16231
G1 X95.25 Y95.25 E145.30272
G0 F6000 X95.75 Y95.75
G1 F2700 X209.25 Y95.75 E152.38077
G1 X209.25 Y209.25 E159.45882
G1 X95.75 Y209.25 E166.53686
G1 X95.75 Y95.75 E173.61491
G0 F6000 X96.25 Y96.25
G1 F2700 X208.75 Y96.25 E180.63060
G1 X208.75 Y208.75 E187.64628
G1 X96.25 Y208.75 E194.66197
G1 X96.25 Y96.25 E201.67765
G0 F6000 X96.75 Y96.75
G1 F2700 X208.25 Y96.75 E208.63097
G1 X208.25 Y208.25 E215.58430
G1 X96.75 Y208.25 E222.53762
G1 X96.75 Y96.75 E229.49094
G0 F6000 X97.25 Y97.25
G1 F2700 X207.75 Y97.25 E236.38190
G1 X207.75 Y207.75 E243.27286
G1 X97.25 Y207.75 E250.16382
G1 X97.25 Y97.25 E257.05478
G0 F6000 X97.75 Y97.75
G1 F2700 X207.25 Y97.75 E263.88338
G1 X207.25 Y207.25 E270.71197
G1 X97.75 Y207.25 E277.54057
G1 X97.75 Y97.75 E284.36917
G0 F6000 X98.25 Y98.25
G1 F2700 X206.75 Y98.25 E291.13540
G1 X206.75 Y206.75 E297.90163
G1 X98.25 Y206.75 E304.66787
G1 X98.25 Y98.25 E311.43410
G0 F6000 X98.75 Y98.75
G1 F2700 X206.25 Y98.75 E318.13797
G1 X206.25 Y206.25 E324.84184
G1 X98.75 Y206.25 E331.54572
G1 X98.75 Y98.75 E338.24959
G0 F6000 X99.25 Y99.25
G1 F2700 X205.75 Y99.25 E344.89110
G1 X205.75 Y205.75 E351.53260
G1 X99.25 Y205.75 E358.17411
G1 X99.25 Y99.25 E364.81562
G0 F6000 X99.75 Y99.75
G1 F2700 X205.25 Y99.75 E371.39477
G1 X205.25 Y205.25 E377.97391
G1 X99.75 Y205.25 E384.55306
G1 X99.75 Y99.75 E391.13220
G0 F6000 X100.25 Y100.25
G1 F2700 X204.75 Y100.25 E397.64899
G1 X204.75 Y204.75 E404.16577
G1 X100.25 Y204.75 E410.68255
G1 X100.25 Y100.25 E417.19934
G0 F6000 X100.75 Y100.75
G1 F2700 X204.25 Y100.75 E423.65376
G1 X204.25 Y204.25 E430.10818
G1 X100.75 Y204.25 E436.56260
G1 X100.75 Y100.75 E443.01702
G0 F6000 X101.25 Y101.25
G1 F2700 X203.75 Y101.25 E449.40907
G1 X203.75 Y203.75 E455.80113
G1 X101.25 Y203.75 E462.19319
G1 X101.25 Y101.25 E468.58525
G0 F6000 X101.75 Y101.75
G1 F2700 X203.25 Y101.75 E474.91494
G1 X203.25 Y203.25 E481.24464
G1 X101.75 Y203.25 E487.57433
G1 X101.75 Y101.75 E493.90403
G0 F6000 X102.25 Y102.25
G1 F2700 X202.75 Y102.25 E500.17136
G1 X202.75 Y202.75 E506.43869
G1 X102.25 Y202.75 E512.70602
G1 X102.25 Y102.25 E518.97335
G0 F6000 X102.75 Y102.75
G1 F2700 X202.25 Y102.75 E525.17832
G1 X202.25 Y202.25 E531.38329
G1 X102.75 Y202.25 E537.58826
G1 X102.75 Y102.75 E543.79323
G0 F6000 X103.25 Y103.25
G1 F2700 X201.75 Y103.25 E549.93584
G1 X201.75 Y201.75 E556.07844
G1 X103.25 Y201.75 E562.22105
G1 X103.25 Y103.25 E568.36366
G0 F6000 X103.75 Y103.75
G1 F2700 X201.25 Y103.75 E574.44390
G1 X201.25 Y201.25 E580.52414
G1 X103.75 Y201.25 E586.60439
G1 X103.75 Y103.75 E592.68463
G0 F6000 X104.25 Y104.25
G1 F2700 X200.75 Y104.25 E598.70251
G1 X200.75 Y200.75 E604.72039
G1 X104.25 Y200.75 E610.73827
G1 X104.25 Y104.25 E616.75615
G0 F6000 X104.75 Y104.75
G1 F2700 X200.25 Y104.75 E622.71167
G1 X200.25 Y200.25 E628.66719
G1 X104.75 Y200.25 E634.62271
G1 X104.75 Y104.75 E640.57823
G0 F6000 X105.25 Y105.25
G1 F2700 X199.75 Y105.25 E646.47138
G1 X199.75 Y199.75 E652.36454
G1 X105.25 Y199.75 E658.25769
G1 X105.25 Y105.25 E664.15085
G0 F6000 X106.25 Y106.25
;TYPE:WALL-INNER
G1 F2700 X198.75 Y106.25 E669.91928
G1 X198.75 Y198.75 E675.68771
G1 X106.25 Y198.75 E681.45614
G1 X106.25 Y106.25 E687.22457
G0 F6000 X105.75 Y105.75
;TYPE:WALL-OUTER
G1 F2700 X199.25 Y105.75 E693.05536
G1 X199.25 Y199.25 E698.88615
G1 X105.75 Y199.25 E704.71695
G1 X105.75 Y105.75 E710.54774
G0 F6000 X106.42 Y106.78
;TYPE:FILL
G1 F2700 X198.22 Y198.57 E718.64344
G0 F6000 X198.57 Y198.22
G1 F2700 X106.78 Y106.42 E726.73919
G0 F6000 X107.49 Y106.42
G1 F2700 X198.57 Y197.51 E734.77258
G0 F6000 X198.57 Y196.81
G1 F2700 X108.19 Y106.42 E742.74362
G0 F6000 X108.90 Y106.42
G1 F2700 X198.57 Y196.10 E750.65231
G0 F6000 X198.57 Y195.39
G1 F2700 X109.61 Y106.42 E758.49860
G0 F6000 X110.31 Y106.42
G1 F2700 X198.57 Y194.68 E766.28249
G0 F6000 X198.57 Y193.98
G1 F2700 X111.02 Y106.42 E774.00403
G0 F6000 X111.73 Y106.42
G1 F2700 X198.57 Y193.27 E781.66322
G0 F6000 X198.57 Y192.56
G1 F2700 X112.44 Y106.42 E789.26005
G0 F6000 X113.14 Y106.42
G1 F2700 X198.57 Y191.86 E796.79453
G0 F6000 X198.57 Y191.15
G1 F2700 X113.85 Y106.42 E804.26666
G0 F6000 X114.56 Y106.42
G1 F2700 X198.57 Y190.44 E811.67643
G0 F6000 X198.57 Y189.74
G1 F2700 X115.26 Y106.42 E819.02385
G0 F6000 X115.97 Y106.42
G1 F2700 X198.57 Y189.03 E826.30891
G0 F6000 X198.57 Y188.32
G1 F2700 X116.68 Y106.42 E833.53158
G0 F6000 X117.39 Y106.42
G1 F2700 X198.57 Y187.61 E840.69185
G0 F6000 X198.57 Y186.91
G1 F2700 X118.09 Y106.42 E847.78977
G0 F6000 X118.80 Y106.42
G1 F2700 X198.57 Y186.20 E854.82533
G0 F6000 X198.57 Y185.49
G1 F2700 X119.51 Y106.42 E861.79854
G0 F6000 X120.21 Y106.42
G1 F2700 X198.57 Y184.78 E868.70940
G0 F6000 X198.57 Y184.08
G1 F2700 X120.92 Y106.42 E875.55791
G0 F6000 X121.63 Y106.42
G1 F2700 X198.57 Y183.37 E882.34406
G0 F6000 X198.57 Y182.66
G1 F2700 X122.33 Y106.42 E889.06785
G0 F6000 X123.04 Y106.42
G1 F2700 X198.57 Y181.96 E895.72925
G0 F6000 X198.57 Y181.25
G1 F2700 X123.75 Y106.42 E902.32826
G0 F6000 X124.46 Y106.42
G1 F2700 X198.57 Y180.54 E908.86491
G0 F6000 X198.57 Y179.84
G1 F2700 X125.16 Y106.42 E915.33920
G0 F6000 X125.87 Y106.42
G1 F2700 X198.57 Y179.13 E921.75114
G0 F6000 X198.57 Y178.42
G1 F2700 X126.58 Y106.42 E928.10073
G0 F6000 X127.28 Y106.42
G1 F2700 X198.57 Y177.71 E934.38797
G0 F6000 X198.57 Y177.01
G1 F2700 X127.99 Y106.42 E940.61285
G0 F6000 X128.70 Y106.42
G1 F2700 X198.57 Y176.30 E946.77538
G0 F6000 X198.57 Y175.59
G1 F2700 X129.41 Y106.42 E952.87551
G0 F6000 X130.11 Y106.42
G1 F2700 X198.57 Y174.88 E958.91325
G0 F6000 X198.57 Y174.18
G1 F2700 X130.82 Y106.42 E964.88863
G0 F6000 X131.53 Y106.42
G1 F2700 X198.57 Y173.47 E970.80166
G0 F6000 X198.57 Y172.76
G1 F2700 X132.24 Y106.42 E976.65233
G0 F6000 X132.94 Y106.42
G1 F2700 X198.57 Y172.06 E982.44065
G0 F6000 X198.57 Y171.35
G1 F2700 X133.65 Y106.42 E988.16662
G0 F6000 X134.36 Y106.42
G1 F2700 X198.57 Y170.64 E993.83023
G0 F6000 X198.57 Y169.94
G1 F2700 X135.06 Y106.42 E999.43149
G0 F6000 X135.77 Y106.42
G1 F2700 X198.57 Y169.23 E1004.97040
G0 F6000 X198.57 Y168.52
G1 F2700 X136.48 Y106.42 E1010.44691
G0 F6000 X137.19 Y106.42
G1 F2700 X198.57 Y167.81 E1015.86102
G0 F6000 X198.57 Y167.11
G1 F2700 X137.89 Y106.42 E1021.21278
G0 F6000 X138.60 Y106.42
G1 F2700 X198.57 Y166.40 E1026.50219
G0 F6000 X198.57 Y165.69
G1 F2700 X139.31 Y106.42 E1031.72924
G0 F6000 X140.01 Y106.42
G1 F2700 X198.57 Y164.99 E1036.89394
G0 F6000 X198.57 Y164.28
G1 F2700 X140.72 Y106.42 E1041.99629
G0 F6000 X141.43 Y106.42
G1 F2700 X198.57 Y163.57 E1047.03628
G0 F6000 X198.57 Y162.87
G1 F2700 X142.13 Y106.42 E1052.01392
G0 F6000 X142.84 Y106.42
G1 F2700 X198.57 Y162.16 E1056.92916
G0 F6000 X198.57 Y161.45
G1 F2700 X143.55 Y106.42 E1061.78201
G0 F6000 X144.26 Y106.42
G1 F2700 X198.57 Y160.74 E1066.57250
G0 F6000 X198.57 Y160.04
G1 F2700 X144.96 Y106.42 E1071.30064
G0 F6000 X145.67 Y106.42
G1 F2700 X198.57 Y159.33 E1075.96642
G0 F6000 X198.57 Y158.62
G1 F2700 X146.38 Y106.42 E1080.56985
G0 F6000 X147.08 Y106.42
G1 F2700 X198.57 Y157.91 E1085.11093
G0 F6000 X198.57 Y157.21
G1 F2700 X147.79 Y106.42 E1089.58965
G0 F6000 X148.50 Y106.42
G1 F2700 X198.57 Y156.50 E1094.00603
G0 F6000 X198.57 Y155.79
G1 F2700 X149.21 Y106.42 E1098.36004
G0 F6000 X149.91 Y106.42
G1 F2700 X198.57 Y155.09 E1102.65162
G0 F6000 X198.57 Y154.38
G1 F2700 X150.62 Y106.42 E1106.88084
G0 F6000 X151.33 Y106.42
G1 F2700 X198.57 Y153.67 E1111.04771
G0 F6000 X198.57 Y152.97
G1 F2700 X152.03 Y106.42 E1115.15223
G0 F6000 X152.74 Y106.42
G1 F2700 X198.57 Y152.26 E1119.19439
G0 F6000 X198.57 Y151.55
G1 F2700 X153.45 Y106.42 E1123.17420
G0 F6000 X154.16 Y106.42
G1 F2700 X198.57 Y150.84 E1127.09166
G0 F6000 X198.57 Y150.14
G1 F2700 X154.86 Y106.42 E1130.94676
G0 F6000 X155.57 Y106.42
G1 F2700 X198.57 Y149.43 E1134.73951
G0 F6000 X198.57 Y148.72
G1 F2700 X156.28 Y106.42 E1138.46986
G0 F6000 X156.98 Y106.42
G1 F2700 X198.57 Y148.01 E1142.13782
G0 F6000 X198.57 Y147.31
G1 F2700 X157.69 Y106.42 E1145.74342
G0 F6000 X158.40 Y106.42
G1 F2700 X198.57 Y146.60 E1149.28667
G0 F6000 X198.57 Y145.89
G1 F2700 X159.10 Y106.42 E1152.76756
G0 F6000 X159.81 Y106.42
G1 F2700 X198.57 Y145.19 E1156.18610
G0 F6000 X198.57 Y144.48
G1 F2700 X160.52 Y106.42 E1159.54229
G0 F6000 X161.23 Y106.42
G1 F2700 X198.57 Y143.77 E1162.83613
G0 F6000 X198.57 Y143.07
G1 F2700 X161.93 Y106.42 E1166.06761
G0 F6000 X162.64 Y106.42
G1 F2700 X198.57 Y142.36 E1169.23669
G0 F6000 X198.57 Y141.65
G1 F2700 X163.35 Y106.42 E1172.34338
G0 F6000 X164.06 Y106.42
G1 F2700 X198.57 Y140.94 E1175.38771
G0 F6000 X198.57 Y140.24
G1 F2700 X164.76 Y106.42 E1178.36969
G0 F6000 X165.47 Y106.42
G1 F2700 X198.57 Y139.53 E1181.28932
G0 F6000 X198.57 Y138.82
G1 F2700 X166.18 Y106.42 E1184.14659
G0 F6000 X166.88 Y106.42
G1 F2700 X198.57 Y138.12 E1186.94151
G0 F6000 X198.57 Y137.41
G1 F2700 X167.59 Y106.42 E1189.67408
G0 F6000 X168.30 Y106.42
G1 F2700 X198.57 Y136.70 E1192.34429
G0 F6000 X198.57 Y136.00
G1 F2700 X169.00 Y106.42 E1194.95215
G0 F6000 X169.71 Y106.42
G1 F2700 X198.57 Y135.29 E1197.49761
G0 F6000 X198.57 Y134.58
G1 F2700 X170.42 Y106.42 E1199.98068
G0 F6000 X171.13 Y106.42
G1 F2700 X198.57 Y133.87 E1202.40139
G0 F6000 X198.57 Y133.17
G1 F2700 X171.83 Y106.42 E1204.75975
G0 F6000 X172.54 Y106.42
G1 F2700 X198.57 Y132.46 E1207.05575
G0 F6000 X198.57 Y131.75
G1 F2700 X173.25 Y106.42 E1209.28941
G0 F6000 X173.95 Y106.42
G1 F2700 X198.57 Y131.04 E1211.46070
G0 F6000 X198.57 Y130.34
G1 F2700 X174.66 Y106.42 E1213.56965
G0 F6000 X175.37 Y106.42
G1 F2700 X198.57 Y129.63 E1215.61624
G0 F6000 X198.57 Y128.92
G1 F2700 X176.07 Y106.42 E1217.60044
G0 F6000 X176.78 Y106.42
G1 F2700 X198.57 Y128.22 E1219.52223
G0 F6000 X198.57 Y127.51
G1 F2700 X177.49 Y106.42 E1221.38168
G0 F6000 X178.20 Y106.42
G1 F2700 X198.57 Y126.80 E1223.17877
G0 F6000 X198.57 Y126.09
G1 F2700 X178.90 Y106.42 E1224.91350
G0 F6000 X179.61 Y106.42
G1 F2700 X198.57 Y125.39 E1226.58589
G0 F6000 X198.57 Y124.68
G1 F2700 X180.32 Y106.42 E1228.19592
G0 F6000 X181.03 Y106.42
G1 F2700 X198.57 Y123.97 E1229.74359
G0 F6000 X198.57 Y123.27
G1 F2700 X181.73 Y106.42 E1231.22892
G0 F6000 X182.44 Y106.42
G1 F2700 X198.57 Y122.56 E1232.65184
G0 F6000 X198.57 Y121.85
G1 F2700 X183.15 Y106.42 E1234.01237
G0 F6000 X183.85 Y106.42
G1 F2700 X198.57 Y121.14 E1235.31055
G0 F6000 X198.57 Y120.44
G1 F2700 X184.56 Y106.42 E1236.54637
G0 F6000 X185.27 Y106.42
G1 F2700 X198.57 Y119.73 E1237.71984
G0 F6000 X198.57 Y119.02
G1 F2700 X185.97 Y106.42 E1238.83095
G0 F6000 X186.68 Y106.42
G1 F2700 X198.57 Y118.32 E1239.87971
G0 F6000 X198.57 Y117.61
G1 F2700 X187.39 Y106.42 E1240.86612
G0 F6000 X188.10 Y106.42
G1 F2700 X198.57 Y116.90 E1241.79018
G0 F6000 X198.57 Y116.20
G1 F2700 X188.80 Y106.42 E1242.65188
G0 F6000 X189.51 Y106.42
G1 F2700 X198.57 Y115.49 E1243.45118
G0 F6000 X198.57 Y114.78
G1 F2700 X190.22 Y106.42 E1244.18809
G0 F6000 X190.93 Y106.42
G1 F2700 X198.57 Y114.07 E1244.86265
G0 F6000 X198.57 Y113.37
G1 F2700 X191.63 Y106.42 E1245.47485
G0 F6000 X192.34 Y106.42
G1 F2700 X198.57 Y112.66 E1246.02469
G0 F6000 X198.57 Y111.95
G1 F2700 X193.05 Y106.42 E1246.51219
G0 F6000 X193.75 Y106.42
G1 F2700 X198.57 Y111.25 E1246.93733
G0 F6000 X198.57 Y110.54
G1 F2700 X194.46 Y106.42 E1247.30011
G0 F6000 X195.17 Y106.42
G1 F2700 X198.57 Y109.83 E1247.60055
G0 F6000 X198.57 Y109.12
G1 F2700 X195.87 Y106.42 E1247.83858
G0 F6000 X196.58 Y106.42
G1 F2700 X198.57 Y108.42 E1248.01422
G0 F6000 X198.57 Y107.71
G1 F2700 X197.29 Y106.42 E1248.12751
G0 F6000 X198.00 Y106.42
G1 F2700 X198.57 Y107.00 E1248.17844
G0 F6000 X197.51 Y198.57
G1 F2700 X106.42 Y107.49 E1256.21179
G0 F6000 X106.42 Y108.19
G1 F2700 X196.81 Y198.57 E1264.18279
G0 F6000 X196.10 Y198.57
G1 F2700 X106.42 Y108.90 E1272.09143
G0 F6000 X106.42 Y109.61
G1 F2700 X195.39 Y198.57 E1279.93772
G0 F6000 X194.68 Y198.57
G1 F2700 X106.42 Y110.31 E1287.72161
G0 F6000 X106.42 Y111.02
G1 F2700 X193.98 Y198.57 E1295.44315
G0 F6000 X193.27 Y198.57
G1 F2700 X106.42 Y111.73 E1303.10229
G0 F6000 X106.42 Y112.44
G1 F2700 X192.56 Y198.57 E1310.69908
G0 F6000 X191.85 Y198.57
G1 F2700 X106.42 Y113.14 E1318.23352
G0 F6000 X106.42 Y113.85
G1 F2700 X191.15 Y198.57 E1325.70560
G0 F6000 X190.44 Y198.57
G1 F2700 X106.42 Y114.56 E1333.11533
G0 F6000 X106.42 Y115.26
G1 F2700 X189.73 Y198.57 E1340.46270
G0 F6000 X189.03 Y198.57
G1 F2700 X106.42 Y115.97 E1347.74772
G0 F6000 X106.42 Y116.68
G1 F2700 X188.32 Y198.57 E1354.97039
G0 F6000 X187.61 Y198.57
G1 F2700 X106.42 Y117.39 E1362.13066
G0 F6000 X106.42 Y118.09
G1 F2700 X186.91 Y198.57 E1369.22853
G0 F6000 X186.20 Y198.57
G1 F2700 X106.42 Y118.80 E1376.26405
G0 F6000 X106.42 Y119.51
G1 F2700 X185.49 Y198.57 E1383.23722
G0 F6000 X184.78 Y198.57
G1 F2700 X106.42 Y120.21 E1390.14803
G0 F6000 X106.42 Y120.92
G1 F2700 X184.08 Y198.57 E1396.99649
G0 F6000 X183.37 Y198.57
G1 F2700 X106.42 Y121.63 E1403.78260
G0 F6000 X106.42 Y122.33
G1 F2700 X182.66 Y198.57 E1410.50635
G0 F6000 X181.96 Y198.57
G1 F2700 X106.42 Y123.04 E1417.16775
G0 F6000 X106.42 Y123.75
G1 F2700 X181.25 Y198.57 E1423.76676
G0 F6000 X180.54 Y198.57
G1 F2700 X106.42 Y124.46 E1430.30341
G0 F6000 X106.42 Y125.16
G1 F2700 X179.83 Y198.57 E1436.77766
G0 F6000 X179.13 Y198.57
G1 F2700 X106.42 Y125.87 E1443.18956
G0 F6000 X106.42 Y126.58
G1 F2700 X178.42 Y198.57 E1449.53910
G0 F6000 X177.71 Y198.57
G1 F2700 X106.42 Y127.28 E1455.82629
G0 F6000 X106.42 Y127.99
G1 F2700 X177.01 Y198.57 E1462.05113
G0 F6000 X176.30 Y198.57
G1 F2700 X106.42 Y128.70 E1468.21362
G0 F6000 X106.42 Y129.41
G1 F2700 X175.59 Y198.57 E1474.31375
G0 F6000 X174.88 Y198.57
G1 F2700 X106.42 Y130.11 E1480.35148
G0 F6000 X106.42 Y130.82
G1 F2700 X174.18 Y198.57 E1486.32686
G0 F6000 X173.47 Y198.57
G1 F2700 X106.42 Y131.53 E1492.23985
G0 F6000 X106.42 Y132.24
G1 F2700 X172.76 Y198.57 E1498.09048
G0 F6000 X172.06 Y198.57
G1 F2700 X106.42 Y132.94 E1503.87876
G0 F6000 X106.42 Y133.65
G1 F2700 X171.35 Y198.57 E1509.60468
G0 F6000 X170.64 Y198.57
G1 F2700 X106.42 Y134.36 E1515.26825
G0 F6000 X106.42 Y135.06
G1 F2700 X169.94 Y198.57 E1520.86947
G0 F6000 X169.23 Y198.57
G1 F2700 X106.42 Y135.77 E1526.40833
G0 F6000 X106.42 Y136.48
G1 F2700 X168.52 Y198.57 E1531.88484
G0 F6000 X167.81 Y198.57
G1 F2700 X106.42 Y137.19 E1537.29895
G0 F6000 X106.42 Y137.89
G1 F2700 X167.11 Y198.57 E1542.65071
G0 F6000 X166.40 Y198.57
G1 F2700 X106.42 Y138.60 E1547.94007
G0 F6000 X106.42 Y139.31
G1 F2700 X165.69 Y198.57 E1553.16708
G0 F6000 X164.99 Y198.57
G1 F2700 X106.42 Y140.01 E1558.33174
G0 F6000 X106.42 Y140.72
G1 F2700 X164.28 Y198.57 E1563.43404
G0 F6000 X163.57 Y198.57
G1 F2700 X106.42 Y141.43 E1568.47399
G0 F6000 X106.42 Y142.13
G1 F2700 X162.86 Y198.57 E1573.45158
G0 F6000 X162.16 Y198.57
G1 F2700 X106.42 Y142.84 E1578.36683
G0 F6000 X106.42 Y143.55
G1 F2700 X161.45 Y198.57 E1583.21967
G0 F6000 X160.74 Y198.57
G1 F2700 X106.42 Y144.26 E1588.01016
G0 F6000 X106.42 Y144.96
G1 F2700 X160.03 Y198.57 E1592.73826
G0 F6000 X159.33 Y198.57
G1 F2700 X106.42 Y145.67 E1597.40400
G0 F6000 X106.42 Y146.38
G1 F2700 X158.62 Y198.57 E1602.00738
G0 F6000 X157.91 Y198.57
G1 F2700 X106.42 Y147.08 E1606.54842
G0 F6000 X106.42 Y147.79
G1 F2700 X157.21 Y198.57 E1611.02710
G0 F6000 X156.50 Y198.57
G1 F2700 X106.42 Y148.50 E1615.44342
G0 F6000 X106.42 Y149.21
G1 F2700 X155.79 Y198.57 E1619.79740
G0 F6000 X155.09 Y198.57
G1 F2700 X106.42 Y149.91 E1624.08898
G0 F6000 X106.42 Y150.62
G1 F2700 X154.38 Y198.57 E1628.31820
G0 F6000 X153.67 Y198.57
G1 F2700 X106.42 Y151.33 E1632.48502
G0 F6000 X106.42 Y152.03
G1 F2700 X152.96 Y198.57 E1636.58950
G0 F6000 X152.26 Y198.57
G1 F2700 X106.42 Y152.74 E1640.63161
G0 F6000 X106.42 Y153.45
G1 F2700 X151.55 Y198.57 E1644.61138
G0 F6000 X150.84 Y198.57
G1 F2700 X106.42 Y154.16 E1648.52879
G0 F6000 X106.42 Y154.86
G1 F2700 X150.14 Y198.57 E1652.38385
G0 F6000 X149.43 Y198.57
G1 F2700 X106.42 Y155.57 E1656.17656
G0 F6000 X106.42 Y156.28
G1 F2700 X148.72 Y198.57 E1659.90691
G0 F6000 X148.01 Y198.57
G1 F2700 X106.42 Y156.98 E1663.57486
G0 F6000 X106.42 Y157.69
G1 F2700 X147.31 Y198.57 E1667.18047
G0 F6000 X146.60 Y198.57
G1 F2700 X106.42 Y158.40 E1670.72367
G0 F6000 X106.42 Y159.10
G1 F2700 X145.89 Y198.57 E1674.20452
G0 F6000 X145.19 Y198.57
G1 F2700 X106.42 Y159.81 E1677.62302
G0 F6000 X106.42 Y160.52
G1 F2700 X144.48 Y198.57 E1680.97916
G0 F6000 X143.77 Y198.57
G1 F2700 X106.42 Y161.23 E1684.27295
G0 F6000 X106.42 Y161.93
G1 F2700 X143.06 Y198.57 E1687.50439
G0 F6000 X142.36 Y198.57
G1 F2700 X106.42 Y162.64 E1690.67347
G0 F6000 X106.42 Y163.35
G1 F2700 X141.65 Y198.57 E1693.78016
G0 F6000 X140.94 Y198.57
G1 F2700 X106.42 Y164.06 E1696.82449
G0 F6000 X106.42 Y164.76
G1 F2700 X140.24 Y198.57 E1699.80643
G0 F6000 X139.53 Y198.57
G1 F2700 X106.42 Y165.47 E1702.72601
G0 F6000 X106.42 Y166.18
G1 F2700 X138.82 Y198.57 E1705.58324
G0 F6000 X138.12 Y198.57
G1 F2700 X106.42 Y166.88 E1708.37812
G0 F6000 X106.42 Y167.59
G1 F2700 X137.41 Y198.57 E1711.11064
G0 F6000 X136.70 Y198.57
G1 F2700 X106.42 Y168.30 E1713.78081
G0 F6000 X106.42 Y169.00
G1 F2700 X135.99 Y198.57 E1716.38862
G0 F6000 X135.29 Y198.57
G1 F2700 X106.42 Y169.71 E1718.93409
G0 F6000 X106.42 Y170.42
G1 F2700 X134.58 Y198.57 E1721.41715
G0 F6000 X133.87 Y198.57
G1 F2700 X106.42 Y171.13 E1723.83782
G0 F6000 X106.42 Y171.83
G1 F2700 X133.16 Y198.57 E1726.19613
G0 F6000 X132.46 Y198.57
G1 F2700 X106.42 Y172.54 E1728.49210
G0 F6000 X106.42 Y173.25
G1 F2700 X131.75 Y198.57 E1730.72570
G0 F6000 X131.04 Y198.57
G1 F2700 X106.42 Y173.95 E1732.89696
G0 F6000 X106.42 Y174.66
G1 F2700 X130.34 Y198.57 E1735.00586
G0 F6000 X129.63 Y198.57
G1 F2700 X106.42 Y175.37 E1737.05241
G0 F6000 X106.42 Y176.07
G1 F2700 X128.92 Y198.57 E1739.03660
G0 F6000 X128.22 Y198.57
G1 F2700 X106.42 Y176.78 E1740.95840
G0 F6000 X106.42 Y177.49
G1 F2700 X127.51 Y198.57 E1742.81784
G0 F6000 X126.80 Y198.57
G1 F2700 X106.42 Y178.20 E1744.61489
G0 F6000 X106.42 Y178.90
G1 F2700 X126.09 Y198.57 E1746.34958
G0 F6000 X125.39 Y198.57
G1 F2700 X106.42 Y179.61 E1748.02192
G0 F6000 X106.42 Y180.32
G1 F2700 X124.68 Y198.57 E1749.63190
G0 F6000 X123.97 Y198.57
G1 F2700 X106.42 Y181.03 E1751.17954
G0 F6000 X106.42 Y181.73
G1 F2700 X123.27 Y198.57 E1752.66482
G0 F6000 X122.56 Y198.57
G1 F2700 X106.42 Y182.44 E1754.08774
G0 F6000 X106.42 Y183.15
G1 F2700 X121.85 Y198.57 E1755.44827
G0 F6000 X121.14 Y198.57
G1 F2700 X106.42 Y183.85 E1756.74645
G0 F6000 X106.42 Y184.56
G1 F2700 X120.44 Y198.57 E1757.98222
G0 F6000 X119.73 Y198.57
G1 F2700 X106.42 Y185.27 E1759.15565
G0 F6000 X106.42 Y185.97
G1 F2700 X119.02 Y198.57 E1760.26672
G0 F6000 X118.32 Y198.57
G1 F2700 X106.42 Y186.68 E1761.31544
G0 F6000 X106.42 Y187.39
G1 F2700 X117.61 Y198.57 E1762.30180
G0 F6000 X116.90 Y198.57
G1 F2700 X106.42 Y188.10 E1763.22581
G0 F6000 X106.42 Y188.80
G1 F2700 X116.19 Y198.57 E1764.08747
G0 F6000 X115.49 Y198.57
G1 F2700 X106.42 Y189.51 E1764.88678
G0 F6000 X106.42 Y190.22
G1 F2700 X114.78 Y198.57 E1765.62368
G0 F6000 X114.07 Y198.57
G1 F2700 X106.42 Y190.93 E1766.29824
G0 F6000 X106.42 Y191.63
G1 F2700 X113.37 Y198.57 E1766.91039
G0 F6000 X112.66 Y198.57
G1 F2700 X106.42 Y192.34 E1767.46020
G0 F6000 X106.42 Y193.05
G1 F2700 X111.95 Y198.57 E1767.94765
G0 F6000 X111.25 Y198.57
G1 F2700 X106.42 Y193.75 E1768.37274
G0 F6000 X106.42 Y194.46
G1 F2700 X110.54 Y198.57 E1768.73548
G0 F6000 X109.83 Y198.57
G1 F2700 X106.42 Y195.17 E1769.03587
G0 F6000 X106.42 Y195.87
G1 F2700 X109.12 Y198.57 E1769.27391
G0 F6000 X108.42 Y198.57
G1 F2700 X106.42 Y196.58 E1769.44955
G0 F6000 X106.42 Y197.29
G1 F2700 X107.71 Y198.57 E1769.56284
G0 F6000 X107.00 Y198.57
G1 F2700 X106.42 Y198.00 E1769.61372
;LAYER:1
G0 F6000 X106.25 Y198.75 Z0.50
;TYPE:WALL-INNER
G1 F3780 X106.25 Y106.25 E1773.45934
G1 X198.75 Y106.25 E1777.30496
G1 X198.75 Y198.75 E1781.15058
G1 X106.25 Y198.75 E1784.99620
G0 F6000 X105.75 Y199.25
;TYPE:WALL-OUTER
G1 F3780 X105.75 Y105.75 E1788.88340
G1 X199.25 Y105.75 E1792.77059
G1 X199.25 Y199.25 E1796.65779
G1 X105.75 Y199.25 E1800.54498
G0 F6000 X106.54 Y198.57
;TYPE:FILL
G1 F3780 X198.57 Y106.54 E1805.95602
G0 F6000 X197.98 Y106.42
G1 F3780 X106.42 Y197.98 E1811.33928
G0 F6000 X106.42 Y197.28
G1 F3780 X197.28 Y106.42 E1816.68097
G0 F6000 X196.57 Y106.42
G1 F3780 X106.42 Y196.57 E1821.98110
G0 F6000 X106.42 Y195.86
G1 F3780 X195.86 Y106.42 E1827.23965
G0 F6000 X195.16 Y106.42
G1 F3780 X106.42 Y195.16 E1832.45663
G0 F6000 X106.42 Y194.45
G1 F3780 X194.45 Y106.42 E1837.63205
G0 F6000 X193.74 Y106.42
G1 F3780 X106.42 Y193.74 E1842.76584
G0 F6000 X106.42 Y193.03
G1 F3780 X193.03 Y106.42 E1847.85805
G0 F6000 X192.33 Y106.42
G1 F3780 X106.42 Y192.33 E1852.90870
G0 F6000 X106.42 Y191.62
G1 F3780 X191.62 Y106.42 E1857.91778
G0 F6000 X190.91 Y106.42
G1 F3780 X106.42 Y190.91 E1862.88530
G0 F6000 X106.42 Y190.21
G1 F3780 X190.21 Y106.42 E1867.81124
G0 F6000 X189.50 Y106.42
G1 F3780 X106.42 Y189.50 E1872.69561
G0 F6000 X106.42 Y188.79
G1 F3780 X188.79 Y106.42 E1877.53842
G0 F6000 X188.08 Y106.42
G1 F3780 X106.42 Y188.08 E1882.33965
G0 F6000 X106.42 Y187.38
G1 F3780 X187.38 Y106.42 E1887.09926
G0 F6000 X186.67 Y106.42
G1 F3780 X106.42 Y186.67 E1891.81730
G0 F6000 X106.42 Y185.96
G1 F3780 X185.96 Y106.42 E1896.49377
G0 F6000 X185.25 Y106.42
G1 F3780 X106.42 Y185.25 E1901.12868
G0 F6000 X106.42 Y184.55
G1 F3780 X184.55 Y106.42 E1905.72201
G0 F6000 X183.84 Y106.42
G1 F3780 X106.42 Y183.84 E1910.27377
G0 F6000 X106.42 Y183.13
G1 F3780 X183.13 Y106.42 E1914.78397
G0 F6000 X182.43 Y106.42
G1 F3780 X106.42 Y182.43 E1919.25259
G0 F6000 X106.42 Y181.72
G1 F3780 X181.72 Y106.42 E1923.67965
G0 F6000 X181.01 Y106.42
G1 F3780 X106.42 Y181.01 E1928.06508
G0 F6000 X106.42 Y180.31
G1 F3780 X180.31 Y106.42 E1932.40894
G0 F6000 X179.60 Y106.42
G1 F3780 X106.42 Y179.60 E1936.71123
G0 F6000 X106.42 Y178.89
G1 F3780 X178.89 Y106.42 E1940.97196
G0 F6000 X178.18 Y106.42
G1 F3780 X106.42 Y178.18 E1945.19111
G0 F6000 X106.42 Y177.48
G1 F3780 X177.48 Y106.42 E1949.36870
G0 F6000 X176.77 Y106.42
G1 F3780 X106.42 Y176.77 E1953.50471
G0 F6000 X106.42 Y176.06
G1 F3780 X176.06 Y106.42 E1957.59916
G0 F6000 X175.36 Y106.42
G1 F3780 X106.42 Y175.36 E1961.65204
G0 F6000 X106.42 Y174.65
G1 F3780 X174.65 Y106.42 E1965.66335
G0 F6000 X173.94 Y106.42
G1 F3780 X106.42 Y173.94 E1969.63303
G0 F6000 X106.42 Y173.23
G1 F3780 X173.23 Y106.42 E1973.56114
G0 F6000 X172.53 Y106.42
G1 F3780 X106.42 Y172.53 E1977.44769
G0 F6000 X106.42 Y171.82
G1 F3780 X171.82 Y106.42 E1981.29266
G0 F6000 X171.11 Y106.42
G1 F3780 X106.42 Y171.11 E1985.09607
G0 F6000 X106.42 Y170.41
G1 F3780 X170.41 Y106.42 E1988.85791
G0 F6000 X169.70 Y106.42
G1 F3780 X106.42 Y169.70 E1992.57818
G0 F6000 X106.42 Y168.99
G1 F3780 X168.99 Y106.42 E1996.25688
G0 F6000 X168.28 Y106.42
G1 F3780 X106.42 Y168.28 E1999.89401
G0 F6000 X106.42 Y167.58
G1 F3780 X167.58 Y106.42 E2003.48951
G0 F6000 X166.87 Y106.42
G1 F3780 X106.42 Y166.87 E2007.04344
G0 F6000 X106.42 Y166.16
G1 F3780 X166.16 Y106.42 E2010.55581
G0 F6000 X165.46 Y106.42
G1 F3780 X106.42 Y165.46 E2014.02661
G0 F6000 X106.42 Y164.75
G1 F3780 X164.75 Y106.42 E2017.45583
G0 F6000 X164.04 Y106.42
G1 F3780 X106.42 Y164.04 E2020.84349
G0 F6000 X106.42 Y163.34
G1 F3780 X163.34 Y106.42 E2024.18958
G0 F6000 X162.63 Y106.42
G1 F3780 X106.42 Y162.63 E2027.49410
G0 F6000 X106.42 Y161.92
G1 F3780 X161.92 Y106.42 E2030.75706
G0 F6000 X161.21 Y106.42
G1 F3780 X106.42 Y161.21 E2033.97838
G0 F6000 X106.42 Y160.51
G1 F3780 X160.51 Y106.42 E2037.15814
G0 F6000 X159.80 Y106.42
G1 F3780 X106.42 Y159.80 E2040.29632
G0 F6000 X106.42 Y159.09
G1 F3780 X159.09 Y106.42 E2043.39294
G0 F6000 X158.38 Y106.42
G1 F3780 X106.42 Y158.38 E2046.44799
G0 F6000 X106.42 Y157.68
G1 F3780 X157.68 Y106.42 E2049.46147
G0 F6000 X156.97 Y106.42
G1 F3780 X106.42 Y156.97 E2052.43338
G0 F6000 X106.42 Y156.26
G1 F3780 X156.26 Y106.42 E2055.36372
G0 F6000 X155.56 Y106.42
G1 F3780 X106.42 Y155.56 E2058.25250
G0 F6000 X106.42 Y154.85
G1 F3780 X154.85 Y106.42 E2061.09970
G0 F6000 X154.14 Y106.42
G1 F3780 X106.42 Y154.14 E2063.90528
G0 F6000 X106.42 Y153.44
G1 F3780 X153.44 Y106.42 E2066.66929
G0 F6000 X152.73 Y106.42
G1 F3780 X106.42 Y152.73 E2069.39172
G0 F6000 X106.42 Y152.02
G1 F3780 X152.02 Y106.42 E2072.07259
G0 F6000 X151.31 Y106.42
G1 F3780 X106.42 Y151.31 E2074.71190
G0 F6000 X106.42 Y150.61
G1 F3780 X150.61 Y106.42 E2077.30963
G0 F6000 X149.90 Y106.42
G1 F3780 X106.42 Y149.90 E2079.86579
G0 F6000 X106.42 Y149.19
G1 F3780 X149.19 Y106.42 E2082.38039
G0 F6000 X148.49 Y106.42
G1 F3780 X106.42 Y148.49 E2084.85341
G0 F6000 X106.42 Y147.78
G1 F3780 X147.78 Y106.42 E2087.28481
G0 F6000 X147.07 Y106.42
G1 F3780 X106.42 Y147.07 E2089.67464
G0 F6000 X106.42 Y146.36
G1 F3780 X146.36 Y106.42 E2092.02290
G0 F6000 X145.66 Y106.42
G1 F3780 X106.42 Y145.66 E2094.32959
G0 F6000 X106.42 Y144.95
G1 F3780 X144.95 Y106.42 E2096.59471
G0 F6000 X144.24 Y106.42
G1 F3780 X106.42 Y144.24 E2098.81827
G0 F6000 X106.42 Y143.54
G1 F3780 X143.54 Y106.42 E2101.00025
G0 F6000 X142.83 Y106.42
G1 F3780 X106.42 Y142.83 E2103.14067
G0 F6000 X106.42 Y142.12
G1 F3780 X142.12 Y106.42 E2105.23951
G0 F6000 X141.41 Y106.42
G1 F3780 X106.42 Y141.41 E2107.29673
G0 F6000 X106.42 Y140.71
G1 F3780 X140.71 Y106.42 E2109.31238
G0 F6000 X140.00 Y106.42
G1 F3780 X106.42 Y140.00 E2111.28646
G0 F6000 X106.42 Y139.29
G1 F3780 X139.29 Y106.42 E2113.21898
G0 F6000 X138.59 Y106.42
G1 F3780 X106.42 Y138.59 E2115.10992
G0 F6000 X106.42 Y137.88
G1 F3780 X137.88 Y106.42 E2116.95929
G0 F6000 X137.17 Y106.42
G1 F3780 X106.42 Y137.17 E2118.76710
G0 F6000 X106.42 Y136.47
G1 F3780 X136.47 Y106.42 E2120.53334
G0 F6000 X135.76 Y106.42
G1 F3780 X106.42 Y135.76 E2122.25800
G0 F6000 X106.42 Y135.05
G1 F3780 X135.05 Y106.42 E2123.94110
G0 F6000 X134.34 Y106.42
G1 F3780 X106.42 Y134.34 E2125.58257
G0 F6000 X106.42 Y133.64
G1 F3780 X133.64 Y106.42 E2127.18248
G0 F6000 X132.93 Y106.42
G1 F3780 X106.42 Y132.93 E2128.74081
G0 F6000 X106.42 Y132.22
G1 F3780 X132.22 Y106.42 E2130.25758
G0 F6000 X131.51 Y106.42
G1 F3780 X106.42 Y131.51 E2131.73277
G0 F6000 X106.42 Y130.81
G1 F3780 X130.81 Y106.42 E2133.16640
G0 F6000 X130.10 Y106.42
G1 F3780 X106.42 Y130.10 E2134.55846
G0 F6000 X106.42 Y129.39
G1 F3780 X129.39 Y106.42 E2135.90895
G0 F6000 X128.69 Y106.42
G1 F3780 X106.42 Y128.69 E2137.21787
G0 F6000 X106.42 Y127.98
G1 F3780 X127.98 Y106.42 E2138.48516
G0 F6000 X127.27 Y106.42
G1 F3780 X106.42 Y127.27 E2139.71088
G0 F6000 X106.42 Y126.56
G1 F3780 X126.56 Y106.42 E2140.89504
G0 F6000 X125.86 Y106.42
G1 F3780 X106.42 Y125.86 E2142.03762
G0 F6000 X106.42 Y125.15
G1 F3780 X125.15 Y106.42 E2143.13864
G0 F6000 X124.44 Y106.42
G1 F3780 X106.42 Y124.44 E2144.19809
G0 F6000 X106.42 Y123.74
G1 F3780 X123.74 Y106.42 E2145.21597
G0 F6000 X123.03 Y106.42
G1 F3780 X106.42 Y123.03 E2146.19228
G0 F6000 X106.42 Y122.32
G1 F3780 X122.32 Y106.42 E2147.12702
G0 F6000 X121.62 Y106.42
G1 F3780 X106.42 Y121.62 E2148.02019
G0 F6000 X106.42 Y120.91
G1 F3780 X120.91 Y106.42 E2148.87174
G0 F6000 X120.20 Y106.42
G1 F3780 X106.42 Y120.20 E2149.68171
G0 F6000 X106.42 Y119.49
G1 F3780 X119.49 Y106.42 E2150.45012
G0 F6000 X118.79 Y106.42
G1 F3780 X106.42 Y118.79 E2151.17696
G0 F6000 X106.42 Y118.08
G1 F3780 X118.08 Y106.42 E2151.86223
G0 F6000 X117.37 Y106.42
G1 F3780 X106.42 Y117.37 E2152.50593
G0 F6000 X106.42 Y116.67
G1 F3780 X116.67 Y106.42 E2153.10806
G0 F6000 X115.96 Y106.42
G1 F3780 X106.42 Y115.96 E2153.66862
G0 F6000 X106.42 Y115.25
G1 F3780 X115.25 Y106.42 E2154.18762
G0 F6000 X114.54 Y106.42
G1 F3780 X106.42 Y114.54 E2154.66498
G0 F6000 X106.42 Y113.84
G1 F3780 X113.84 Y106.42 E2155.10078
G0 F6000 X113.13 Y106.42
G1 F3780 X106.42 Y113.13 E2155.49501
G0 F6000 X106.42 Y112.42
G1 F3780 X112.42 Y106.42 E2155.84767
G0 F6000 X111.72 Y106.42
G1 F3780 X106.42 Y111.72 E2156.15876
G0 F6000 X106.42 Y111.01
G1 F3780 X111.01 Y106.42 E2156.42828
G0 F6000 X110.30 Y106.42
G1 F3780 X106.42 Y110.30 E2156.65623
G0 F6000 X106.42 Y109.59
G1 F3780 X109.59 Y106.42 E2156.84262
G0 F6000 X108.89 Y106.42
G1 F3780 X106.42 Y108.89 E2156.98743
G0 F6000 X106.42 Y108.18
G1 F3780 X108.18 Y106.42 E2157.09062
G0 F6000 X107.47 Y106.42
G1 F3780 X106.42 Y107.47 E2157.15224
G0 F6000 X106.42 Y106.77
G1 F3780 X106.77 Y106.42 E2157.17229
G0 F6000 X198.57 Y107.25
G1 F3780 X107.25 Y198.57 E2162.54176
G0 F6000 X107.96 Y198.57
G1 F3780 X198.57 Y107.96 E2167.86966
G0 F6000 X198.57 Y108.66
G1 F3780 X108.66 Y198.57 E2173.15599
G0 F6000 X109.37 Y198.57
G1 F3780 X198.57 Y109.37 E2178.40073
G0 F6000 X198.57 Y110.08
G1 F3780 X110.08 Y198.57 E2183.60390
G0 F6000 X110.78 Y198.57
G1 F3780 X198.57 Y110.78 E2188.76549
G0 F6000 X198.57 Y111.49
G1 F3780 X111.49 Y198.57 E2193.88549
G0 F6000 X112.20 Y198.57
G1 F3780 X198.57 Y112.20 E2198.96393
G0 F6000 X198.57 Y112.91
G1 F3780 X112.91 Y198.57 E2204.00079
G0 F6000 X113.61 Y198.57
G1 F3780 X198.57 Y113.61 E2208.99608
G0 F6000 X198.57 Y114.32
G1 F3780 X114.32 Y198.57 E2213.94980
G0 F6000 X115.03 Y198.57
G1 F3780 X198.57 Y115.03 E2218.86196
G0 F6000 X198.57 Y115.73
G1 F3780 X115.73 Y198.57 E2223.73255
G0 F6000 X116.44 Y198.57
G1 F3780 X198.57 Y116.44 E2228.56153
G0 F6000 X198.57 Y117.15
G1 F3780 X117.15 Y198.57 E2233.34895
G0 F6000 X117.86 Y198.57
G1 F3780 X198.57 Y117.86 E2238.09477
G0 F6000 X198.57 Y118.56
G1 F3780 X118.56 Y198.57 E2242.79903
G0 F6000 X119.27 Y198.57
G1 F3780 X198.57 Y119.27 E2247.46171
G0 F6000 X198.57 Y119.98
G1 F3780 X119.98 Y198.57 E2252.08282
G0 F6000 X120.68 Y198.57
G1 F3780 X198.57 Y120.69 E2256.66237
G0 F6000 X198.57 Y121.39
G1 F3780 X121.39 Y198.57 E2261.20034
G0 F6000 X122.10 Y198.57
G1 F3780 X198.57 Y122.10 E2265.69675
G0 F6000 X198.57 Y122.81
G1 F3780 X122.81 Y198.57 E2270.15156
G0 F6000 X123.51 Y198.57
G1 F3780 X198.57 Y123.51 E2274.56480
G0 F6000 X198.57 Y124.22
G1 F3780 X124.22 Y198.57 E2278.93647
G0 F6000 X124.93 Y198.57
G1 F3780 X198.57 Y124.93 E2283.26655
G0 F6000 X198.57 Y125.64
G1 F3780 X125.63 Y198.57 E2287.55505
G0 F6000 X126.34 Y198.57
G1 F3780 X198.57 Y126.34 E2291.80199
G0 F6000 X198.57 Y127.05
G1 F3780 X127.05 Y198.57 E2296.00735
G0 F6000 X127.75 Y198.57
G1 F3780 X198.57 Y127.76 E2300.17115
G0 F6000 X198.57 Y128.46
G1 F3780 X128.46 Y198.57 E2304.29338
G0 F6000 X129.17 Y198.57
G1 F3780 X198.57 Y129.17 E2308.37401
G0 F6000 X198.57 Y129.88
G1 F3780 X129.88 Y198.57 E2312.41307
G0 F6000 X130.58 Y198.57
G1 F3780 X198.57 Y130.58 E2316.41056
G0 F6000 X198.57 Y131.29
G1 F3780 X131.29 Y198.57 E2320.36646
G0 F6000 X132.00 Y198.57
G1 F3780 X198.57 Y132.00 E2324.28078
G0 F6000 X198.57 Y132.71
G1 F3780 X132.71 Y198.57 E2328.15354
G0 F6000 X133.41 Y198.57
G1 F3780 X198.57 Y133.41 E2331.98473
G0 F6000 X198.57 Y134.12
G1 F3780 X134.12 Y198.57 E2335.77435
G0 F6000 X134.83 Y198.57
G1 F3780 X198.57 Y134.83 E2339.52240
G0 F6000 X198.57 Y135.53
G1 F3780 X135.53 Y198.57 E2343.22888
G0 F6000 X136.24 Y198.57
G1 F3780 X198.57 Y136.24 E2346.89376
G0 F6000 X198.57 Y136.95
G1 F3780 X136.95 Y198.57 E2350.51707
G0 F6000 X137.66 Y198.57
G1 F3780 X198.57 Y137.66 E2354.09879
G0 F6000 X198.57 Y138.36
G1 F3780 X138.36 Y198.57 E2357.63894
G0 F6000 X139.07 Y198.57
G1 F3780 X198.57 Y139.07 E2361.13751
G0 F6000 X198.57 Y139.78
G1 F3780 X139.78 Y198.57 E2364.59452
G0 F6000 X140.48 Y198.57
G1 F3780 X198.57 Y140.48 E2368.00996
G0 F6000 X198.57 Y141.19
G1 F3780 X141.19 Y198.57 E2371.38383
G0 F6000 X141.90 Y198.57
G1 F3780 X198.57 Y141.90 E2374.71614
G0 F6000 X198.57 Y142.60
G1 F3780 X142.60 Y198.57 E2378.00684
G0 F6000 X143.31 Y198.57
G1 F3780 X198.57 Y143.31 E2381.25597
G0 F6000 X198.57 Y144.02
G1 F3780 X144.02 Y198.57 E2384.46354
G0 F6000 X144.73 Y198.57
G1 F3780 X198.57 Y144.73 E2387.62951
G0 F6000 X198.57 Y145.43
G1 F3780 X145.43 Y198.57 E2390.75391
G0 F6000 X146.14 Y198.57
G1 F3780 X198.57 Y146.14 E2393.83674
G0 F6000 X198.57 Y146.85
G1 F3780 X146.85 Y198.57 E2396.87800
G0 F6000 X147.55 Y198.57
G1 F3780 X198.57 Y147.56 E2399.87769
G0 F6000 X198.57 Y148.26
G1 F3780 X148.26 Y198.57 E2402.83581
G0 F6000 X148.97 Y198.57
G1 F3780 X198.57 Y148.97 E2405.75234
G0 F6000 X198.57 Y149.68
G1 F3780 X149.68 Y198.57 E2408.62730
G0 F6000 X150.38 Y198.57
G1 F3780 X198.57 Y150.38 E2411.46068
G0 F6000 X198.57 Y151.09
G1 F3780 X151.09 Y198.57 E2414.25247
G0 F6000 X151.80 Y198.57
G1 F3780 X198.57 Y151.80 E2417.00269
G0 F6000 X198.57 Y152.50
G1 F3780 X152.50 Y198.57 E2419.71134
G0 F6000 X153.21 Y198.57
G1 F3780 X198.57 Y153.21 E2422.37843
G0 F6000 X198.57 Y153.92
G1 F3780 X153.92 Y198.57 E2425.00394
G0 F6000 X154.62 Y198.57
G1 F3780 X198.57 Y154.63 E2427.58788
G0 F6000 X198.57 Y155.33
G1 F3780 X155.33 Y198.57 E2430.13026
G0 F6000 X156.04 Y198.57
G1 F3780 X198.57 Y156.04 E2432.63104
G0 F6000 X198.57 Y156.75
G1 F3780 X156.75 Y198.57 E2435.09025
G0 F6000 X157.45 Y198.57
G1 F3780 X198.57 Y157.46 E2437.50786
G0 F6000 X198.57 Y158.16
G1 F3780 X158.16 Y198.57 E2439.88390
G0 F6000 X158.87 Y198.57
G1 F3780 X198.57 Y158.87 E2442.21837
G0 F6000 X198.57 Y159.58
G1 F3780 X159.57 Y198.57 E2444.51127
G0 F6000 X160.28 Y198.57
G1 F3780 X198.57 Y160.28 E2446.76261
G0 F6000 X198.57 Y160.99
G1 F3780 X160.99 Y198.57 E2448.97237
G0 F6000 X161.70 Y198.57
G1 F3780 X198.57 Y161.70 E2451.14057
G0 F6000 X198.57 Y162.40
G1 F3780 X162.40 Y198.57 E2453.26717
G0 F6000 X163.11 Y198.57
G1 F3780 X198.57 Y163.11 E2455.35220
G0 F6000 X198.57 Y163.82
G1 F3780 X163.82 Y198.57 E2457.39566
G0 F6000 X164.53 Y198.57
G1 F3780 X198.57 Y164.53 E2459.39752
G0 F6000 X198.57 Y165.23
G1 F3780 X165.23 Y198.57 E2461.35782
G0 F6000 X165.94 Y198.57
G1 F3780 X198.57 Y165.94 E2463.27654
G0 F6000 X198.57 Y166.65
G1 F3780 X166.65 Y198.57 E2465.15370
G0 F6000 X167.35 Y198.57
G1 F3780 X198.57 Y167.35 E2466.98928
G0 F6000 X198.57 Y168.06
G1 F3780 X168.06 Y198.57 E2468.78330
G0 F6000 X168.77 Y198.57
G1 F3780 X198.57 Y168.77 E2470.53572
G0 F6000 X198.57 Y169.47
G1 F3780 X169.47 Y198.57 E2472.24657
G0 F6000 X170.18 Y198.57
G1 F3780 X198.57 Y170.18 E2473.91585
G0 F6000 X198.57 Y170.89
G1 F3780 X170.89 Y198.57 E2475.54354
G0 F6000 X171.60 Y198.57
G1 F3780 X198.57 Y171.60 E2477.12965
G0 F6000 X198.57 Y172.30
G1 F3780 X172.30 Y198.57 E2478.67420
G0 F6000 X173.01 Y198.57
G1 F3780 X198.57 Y173.01 E2480.17718
G0 F6000 X198.57 Y173.72
G1 F3780 X173.72 Y198.57 E2481.63858
G0 F6000 X174.42 Y198.57
G1 F3780 X198.57 Y174.43 E2483.05842
G0 F6000 X198.57 Y175.13
G1 F3780 X175.13 Y198.57 E2484.43669
G0 F6000 X175.84 Y198.57
G1 F3780 X198.57 Y175.84 E2485.77337
G0 F6000 X198.57 Y176.55
G1 F3780 X176.55 Y198.57 E2487.06847
G0 F6000 X177.25 Y198.57
G1 F3780 X198.57 Y177.25 E2488.32200
G0 F6000 X198.57 Y177.96
G1 F3780 X177.96 Y198.57 E2489.53394
G0 F6000 X178.67 Y198.57
G1 F3780 X198.57 Y178.67 E2490.70431
G0 F6000 X198.57 Y179.38
G1 F3780 X179.37 Y198.57 E2491.83310
G0 F6000 X180.08 Y198.57
G1 F3780 X198.57 Y180.08 E2492.92033
G0 F6000 X198.57 Y180.79
G1 F3780 X180.79 Y198.57 E2493.96599
G0 F6000 X181.50 Y198.57
G1 F3780 X198.57 Y181.50 E2494.97009
G0 F6000 X198.57 Y182.20
G1 F3780 X182.20 Y198.57 E2495.93258
G0 F6000 X182.91 Y198.57
G1 F3780 X198.57 Y182.91 E2496.85350
G0 F6000 X198.57 Y183.62
G1 F3780 X183.62 Y198.57 E2497.73286
G0 F6000 X184.32 Y198.57
G1 F3780 X198.57 Y184.32 E2498.57062
G0 F6000 X198.57 Y185.03
G1 F3780 X185.03 Y198.57 E2499.36680
G0 F6000 X185.74 Y198.57
G1 F3780 X198.57 Y185.74 E2500.12142
G0 F6000 X198.57 Y186.45
G1 F3780 X186.44 Y198.57 E2500.83447
G0 F6000 X187.15 Y198.57
G1 F3780 X198.57 Y187.15 E2501.50596
G0 F6000 X198.57 Y187.86
G1 F3780 X187.86 Y198.57 E2502.13587
G0 F6000 X188.57 Y198.57
G1 F3780 X198.57 Y188.57 E2502.72421
G0 F6000 X198.57 Y189.27
G1 F3780 X189.27 Y198.57 E2503.27096
G0 F6000 X189.98 Y198.57
G1 F3780 X198.57 Y189.98 E2503.77613
G0 F6000 X198.57 Y190.69
G1 F3780 X190.69 Y198.57 E2504.23971
G0 F6000 X191.40 Y198.57
G1 F3780 X198.57 Y191.40 E2504.66172
G0 F6000 X198.57 Y192.10
G1 F3780 X192.10 Y198.57 E2505.04216
G0 F6000 X192.81 Y198.57
G1 F3780 X198.57 Y192.81 E2505.38103
G0 F6000 X198.57 Y193.52
G1 F3780 X193.52 Y198.57 E2505.67834
G0 F6000 X194.22 Y198.57
G1 F3780 X198.57 Y194.22 E2505.93407
G0 F6000 X198.57 Y194.93
G1 F3780 X194.93 Y198.57 E2506.14824
G0 F6000 X195.64 Y198.57
G1 F3780 X198.57 Y195.64 E2506.32080
G0 F6000 X198.57 Y196.34
G1 F3780 X196.34 Y198.57 E2506.45180
G0 F6000 X197.05 Y198.57
G1 F3780 X198.57 Y197.05 E2506.54123
G0 F6000 X198.57 Y197.76
G1 F3780 X197.76 Y198.57 E2506.58906
G0 F6000 X198.47 Y198.57
G1 F3780 X198.57 Y198.47 E2506.59532
;LAYER:2
G0 F6000 X198.75 Y198.75 Z0.70
;TYPE:WALL-INNER
G1 F4920 X106.25 Y198.75 E2510.44094
G1 X106.25 Y106.25 E2514.28656
G1 X198.75 Y106.25 E2518.13218
G1 X198.75 Y198.75 E2521.97780
G0 F6000 X199.25 Y199.25
;TYPE:WALL-OUTER
G1 F4920 X105.75 Y199.25 E2525.86500
G1 X105.75 Y105.75 E2529.75219
G1 X199.25 Y105.75 E2533.63939
G1 X199.25 Y199.25 E2537.52658
G0 F6000 X198.57 Y198.22
;TYPE:FILL
G1 F4920 X106.78 Y106.42 E2542.92375
G0 F6000 X106.42 Y106.78
G1 F4920 X198.22 Y198.57 E2548.32088
G0 F6000 X197.51 Y198.57
G1 F4920 X106.42 Y107.49 E2553.67645
G0 F6000 X106.42 Y108.19
G1 F4920 X196.81 Y198.57 E2558.99045
G0 F6000 X196.10 Y198.57
G1 F4920 X106.42 Y108.90 E2564.26288
G0 F6000 X106.42 Y109.61
G1 F4920 X195.39 Y198.57 E2569.49374
G0 F6000 X194.68 Y198.57
G1 F4920 X106.42 Y110.31 E2574.68300
G0 F6000 X106.42 Y111.02
G1 F4920 X193.98 Y198.57 E2579.83069
G0 F6000 X193.27 Y198.57
G1 F4920 X106.42 Y111.73 E2584.93678
G0 F6000 X106.42 Y112.44
G1 F4920 X192.56 Y198.57 E2590.00131
G0 F6000 X191.85 Y198.57
G1 F4920 X106.42 Y113.14 E2595.02427
G0 F6000 X106.42 Y113.85
G1 F4920 X191.15 Y198.57 E2600.00565
G0 F6000 X190.44 Y198.57
G1 F4920 X106.42 Y114.56 E2604.94547
G0 F6000 X106.42 Y115.26
G1 F4920 X189.73 Y198.57 E2609.84372
G0 F6000 X189.03 Y198.57
G1 F4920 X106.42 Y115.97 E2614.70040
G0 F6000 X106.42 Y116.68
G1 F4920 X188.32 Y198.57 E2619.51552
G0 F6000 X187.61 Y198.57
G1 F4920 X106.42 Y117.39 E2624.28903
G0 F6000 X106.42 Y118.09
G1 F4920 X186.91 Y198.57 E2629.02095
G0 F6000 X186.20 Y198.57
G1 F4920 X106.42 Y118.80 E2633.71129
G0 F6000 X106.42 Y119.51
G1 F4920 X185.49 Y198.57 E2638.36007
G0 F6000 X184.78 Y198.57
G1 F4920 X106.42 Y120.21 E2642.96728
G0 F6000 X106.42 Y120.92
G1 F4920 X184.08 Y198.57 E2647.53292
G0 F6000 X183.37 Y198.57
G1 F4920 X106.42 Y121.63 E2652.05699
G0 F6000 X106.42 Y122.33
G1 F4920 X182.66 Y198.57 E2656.53949
G0 F6000 X181.96 Y198.57
G1 F4920 X106.42 Y123.04 E2660.98043
G0 F6000 X106.42 Y123.75
G1 F4920 X181.25 Y198.57 E2665.37976
G0 F6000 X180.54 Y198.57
G1 F4920 X106.42 Y124.46 E2669.73753
G0 F6000 X106.42 Y125.16
G1 F4920 X179.83 Y198.57 E2674.05369
G0 F6000 X179.13 Y198.57
G1 F4920 X106.42 Y125.87 E2678.32829
G0 F6000 X106.42 Y126.58
G1 F4920 X178.42 Y198.57 E2682.56132
G0 F6000 X177.71 Y198.57
G1 F4920 X106.42 Y127.28 E2686.75278
G0 F6000 X106.42 Y127.99
G1 F4920 X177.01 Y198.57 E2690.90268
G0 F6000 X176.30 Y198.57
G1 F4920 X106.42 Y128.70 E2695.01100
G0 F6000 X106.42 Y129.41
G1 F4920 X175.59 Y198.57 E2699.07776
G0 F6000 X174.88 Y198.57
G1 F4920 X106.42 Y130.11 E2703.10291
G0 F6000 X106.42 Y130.82
G1 F4920 X174.18 Y198.57 E2707.08650
G0 F6000 X173.47 Y198.57
G1 F4920 X106.42 Y131.53 E2711.02849
G0 F6000 X106.42 Y132.24
G1 F4920 X172.76 Y198.57 E2714.92891
G0 F6000 X172.06 Y198.57
G1 F4920 X106.42 Y132.94 E2718.78776
G0 F6000 X106.42 Y133.65
G1 F4920 X171.35 Y198.57 E2722.60504
G0 F6000 X170.64 Y198.57
G1 F4920 X106.42 Y134.36 E2726.38076
G0 F6000 X106.42 Y135.06
G1 F4920 X169.94 Y198.57 E2730.11490
G0 F6000 X169.23 Y198.57
G1 F4920 X106.42 Y135.77 E2733.80748
G0 F6000 X106.42 Y136.48
G1 F4920 X168.52 Y198.57 E2737.45848
G0 F6000 X167.81 Y198.57
G1 F4920 X106.42 Y137.19 E2741.06789
G0 F6000 X106.42 Y137.89
G1 F4920 X167.11 Y198.57 E2744.63573
G0 F6000 X166.40 Y198.57
G1 F4920 X106.42 Y138.60 E2748.16197
G0 F6000 X106.42 Y139.31
G1 F4920 X165.69 Y198.57 E2751.64664
G0 F6000 X164.99 Y198.57
G1 F4920 X106.42 Y140.01 E2755.08975
G0 F6000 X106.42 Y140.72
G1 F4920 X164.28 Y198.57 E2758.49128
G0 F6000 X163.57 Y198.57
G1 F4920 X106.42 Y141.43 E2761.85125
G0 F6000 X106.42 Y142.13
G1 F4920 X162.86 Y198.57 E2765.16965
G0 F6000 X162.16 Y198.57
G1 F4920 X106.42 Y142.84 E2768.44647
G0 F6000 X106.42 Y143.55
G1 F4920 X161.45 Y198.57 E2771.68170
G0 F6000 X160.74 Y198.57
G1 F4920 X106.42 Y144.26 E2774.87536
G0 F6000 X106.42 Y144.96
G1 F4920 X160.03 Y198.57 E2778.02743
G0 F6000 X159.33 Y198.57
G1 F4920 X106.42 Y145.67 E2781.13792
G0 F6000 X106.42 Y146.38
G1 F4920 X158.62 Y198.57 E2784.20684
G0 F6000 X157.91 Y198.57
G1 F4920 X106.42 Y147.08 E2787.23420
G0 F6000 X106.42 Y147.79
G1 F4920 X157.21 Y198.57 E2790.21999
G0 F6000 X156.50 Y198.57
G1 F4920 X106.42 Y148.50 E2793.16421
G0 F6000 X106.42 Y149.21
G1 F4920 X155.79 Y198.57 E2796.06685
G0 F6000 X155.09 Y198.57
G1 F4920 X106.42 Y149.91 E2798.92791
G0 F6000 X106.42 Y150.62
G1 F4920 X154.38 Y198.57 E2801.74739
G0 F6000 X153.67 Y198.57
G1 F4920 X106.42 Y151.33 E2804.52527
G0 F6000 X106.42 Y152.03
G1 F4920 X152.96 Y198.57 E2807.26159
G0 F6000 X152.26 Y198.57
G1 F4920 X106.42 Y152.74 E2809.95633
G0 F6000 X106.42 Y153.45
G1 F4920 X151.55 Y198.57 E2812.60951
G0 F6000 X150.84 Y198.57
G1 F4920 X106.42 Y154.16 E2815.22112
G0 F6000 X106.42 Y154.86
G1 F4920 X150.14 Y198.57 E2817.79116
G0 F6000 X149.43 Y198.57
G1 F4920 X106.42 Y155.57 E2820.31963
G0 F6000 X106.42 Y156.28
G1 F4920 X148.72 Y198.57 E2822.80653
G0 F6000 X148.01 Y198.57
G1 F4920 X106.42 Y156.98 E2825.25183
G0 F6000 X106.42 Y157.69
G1 F4920 X147.31 Y198.57 E2827.65557
G0 F6000 X146.60 Y198.57
G1 F4920 X106.42 Y158.40 E2830.01770
G0 F6000 X106.42 Y159.10
G1 F4920 X145.89 Y198.57 E2832.33827
G0 F6000 X145.19 Y198.57
G1 F4920 X106.42 Y159.81 E2834.61727
G0 F6000 X106.42 Y160.52
G1 F4920 X144.48 Y198.57 E2836.85470
G0 F6000 X143.77 Y198.57
G1 F4920 X106.42 Y161.23 E2839.05056
G0 F6000 X106.42 Y161.93
G1 F4920 X143.06 Y198.57 E2841.20485
G0 F6000 X142.36 Y198.57
G1 F4920 X106.42 Y162.64 E2843.31757
G0 F6000 X106.42 Y163.35
G1 F4920 X141.65 Y198.57 E2845.38870
G0 F6000 X140.94 Y198.57
G1 F4920 X106.42 Y164.06 E2847.41825
G0 F6000 X106.42 Y164.76
G1 F4920 X140.24 Y198.57 E2849.40621
G0 F6000 X139.53 Y198.57
G1 F4920 X106.42 Y165.47 E2851.35260
G0 F6000 X106.42 Y166.18
G1 F4920 X138.82 Y198.57 E2853.25742
G0 F6000 X138.12 Y198.57
G1 F4920 X106.42 Y166.88 E2855.12067
G0 F6000 X106.42 Y167.59
G1 F4920 X137.41 Y198.57 E2856.94235
G0 F6000 X136.70 Y198.57
G1 F4920 X106.42 Y168.30 E2858.72246
G0 F6000 X106.42 Y169.00
G1 F4920 X135.99 Y198.57 E2860.46101
G0 F6000 X135.29 Y198.57
G1 F4920 X106.42 Y169.71 E2862.15798
G0 F6000 X106.42 Y170.42
G1 F4920 X134.58 Y198.57 E2863.81336
G0 F6000 X133.87 Y198.57
G1 F4920 X106.42 Y171.13 E2865.42714
G0 F6000 X106.42 Y171.83
G1 F4920 X133.16 Y198.57 E2866.99935
G0 F6000 X132.46 Y198.57
G1 F4920 X106.42 Y172.54 E2868.52999
G0 F6000 X106.42 Y173.25
G1 F4920 X131.75 Y198.57 E2870.01906
G0 F6000 X131.04 Y198.57
G1 F4920 X106.42 Y173.95 E2871.46656
G0 F6000 X106.42 Y174.66
G1 F4920 X130.34 Y198.57 E2872.87249
G0 F6000 X129.63 Y198.57
G1 F4920 X106.42 Y175.37 E2874.23686
G0 F6000 X106.42 Y176.07
G1 F4920 X128.92 Y198.57 E2875.55966
G0 F6000 X128.22 Y198.57
G1 F4920 X106.42 Y176.78 E2876.84085
G0 F6000 X106.42 Y177.49
G1 F4920 X127.51 Y198.57 E2878.08048
G0 F6000 X126.80 Y198.57
G1 F4920 X106.42 Y178.20 E2879.27851
G0 F6000 X106.42 Y178.90
G1 F4920 X126.09 Y198.57 E2880.43498
G0 F6000 X125.39 Y198.57
G1 F4920 X106.42 Y179.61 E2881.54987
G0 F6000 X106.42 Y180.32
G1 F4920 X124.68 Y198.57 E2882.62319
G0 F6000 X123.97 Y198.57
G1 F4920 X106.42 Y181.03 E2883.65495
G0 F6000 X106.42 Y181.73
G1 F4920 X123.27 Y198.57 E2884.64513
G0 F6000 X122.56 Y198.57
G1 F4920 X106.42 Y182.44 E2885.59375
G0 F6000 X106.42 Y183.15
G1 F4920 X121.85 Y198.57 E2886.50077
G0 F6000 X121.14 Y198.57
G1 F4920 X106.42 Y183.85 E2887.36622
G0 F6000 X106.42 Y184.56
G1 F4920 X120.44 Y198.57 E2888.19007
G0 F6000 X119.73 Y198.57
G1 F4920 X106.42 Y185.27 E2888.97236
G0 F6000 X106.42 Y185.97
G1 F4920 X119.02 Y198.57 E2889.71307
G0 F6000 X118.32 Y198.57
G1 F4920 X106.42 Y186.68 E2890.41221
G0 F6000 X106.42 Y187.39
G1 F4920 X117.61 Y198.57 E2891.06979
G0 F6000 X116.90 Y198.57
G1 F4920 X106.42 Y188.10 E2891.68580
G0 F6000 X106.42 Y188.80
G1 F4920 X116.19 Y198.57 E2892.26024
G0 F6000 X115.49 Y198.57
G1 F4920 X106.42 Y189.51 E2892.79311
G0 F6000 X106.42 Y190.22
G1 F4920 X114.78 Y198.57 E2893.28438
G0 F6000 X114.07 Y198.57
G1 F4920 X106.42 Y190.93 E2893.73408
G0 F6000 X106.42 Y191.63
G1 F4920 X113.37 Y198.57 E2894.14218
G0 F6000 X112.66 Y198.57
G1 F4920 X106.42 Y192.34 E2894.50872
G0 F6000 X106.42 Y193.05
G1 F4920 X111.95 Y198.57 E2894.83369
G0 F6000 X111.25 Y198.57
G1 F4920 X106.42 Y193.75 E2895.11708
G0 F6000 X106.42 Y194.46
G1 F4920 X110.54 Y198.57 E2895.35891
G0 F6000 X109.83 Y198.57
G1 F4920 X106.42 Y195.17 E2895.55917
G0 F6000 X106.42 Y195.87
G1 F4920 X109.12 Y198.57 E2895.71786
G0 F6000 X108.42 Y198.57
G1 F4920 X106.42 Y196.58 E2895.83496
G0 F6000 X106.42 Y197.29
G1 F4920 X107.71 Y198.57 E2895.91048
G0 F6000 X107.00 Y198.57
G1 F4920 X106.42 Y198.00 E2895.94440
G0 F6000 X107.49 Y106.42
G1 F4920 X198.57 Y197.51 E2901.30000
G0 F6000 X198.57 Y196.81
G1 F4920 X108.19 Y106.42 E2906.61403
G0 F6000 X108.90 Y106.42
G1 F4920 X198.57 Y196.10 E2911.88649
G0 F6000 X198.57 Y195.39
G1 F4920 X109.61 Y106.42 E2917.11735
G0 F6000 X110.31 Y106.42
G1 F4920 X198.57 Y194.68 E2922.30661
G0 F6000 X198.57 Y193.98
G1 F4920 X111.02 Y106.42 E2927.45430
G0 F6000 X111.73 Y106.42
G1 F4920 X198.57 Y193.27 E2932.56042
G0 F6000 X198.57 Y192.56
G1 F4920 X112.44 Y106.42 E2937.62498
G0 F6000 X113.14 Y106.42
G1 F4920 X198.57 Y191.86 E2942.64796
G0 F6000 X198.57 Y191.15
G1 F4920 X113.85 Y106.42 E2947.62938
G0 F6000 X114.56 Y106.42
G1 F4920 X198.57 Y190.44 E2952.56923
G0 F6000 X198.57 Y189.74
G1 F4920 X115.26 Y106.42 E2957.46751
G0 F6000 X115.97 Y106.42
G1 F4920 X198.57 Y189.03 E2962.32422
G0 F6000 X198.57 Y188.32
G1 F4920 X116.68 Y106.42 E2967.13933
G0 F6000 X117.39 Y106.42
G1 F4920 X198.57 Y187.61 E2971.91285
G0 F6000 X198.57 Y186.91
G1 F4920 X118.09 Y106.42 E2976.64479
G0 F6000 X118.80 Y106.42
G1 F4920 X198.57 Y186.20 E2981.33517
G0 F6000 X198.57 Y185.49
G1 F4920 X119.51 Y106.42 E2985.98397
G0 F6000 X120.21 Y106.42
G1 F4920 X198.57 Y184.78 E2990.59121
G0 F6000 X198.57 Y184.08
G1 F4920 X120.92 Y106.42 E2995.15688
G0 F6000 X121.63 Y106.42
G1 F4920 X198.57 Y183.37 E2999.68098
G0 F6000 X198.57 Y182.66
G1 F4920 X122.33 Y106.42 E3004.16351
G0 F6000 X123.04 Y106.42
G1 F4920 X198.57 Y181.96 E3008.60445
G0 F6000 X198.57 Y181.25
G1 F4920 X123.75 Y106.42 E3013.00378
G0 F6000 X124.46 Y106.42
G1 F4920 X198.57 Y180.54 E3017.36155
G0 F6000 X198.57 Y179.84
G1 F4920 X125.16 Y106.42 E3021.67775
G0 F6000 X125.87 Y106.42
G1 F4920 X198.57 Y179.13 E3025.95237
G0 F6000 X198.57 Y178.42
G1 F4920 X126.58 Y106.42 E3030.18543
G0 F6000 X127.28 Y106.42
G1 F4920 X198.57 Y177.71 E3034.37692
G0 F6000 X198.57 Y177.01
G1 F4920 X127.99 Y106.42 E3038.52685
G0 F6000 X128.70 Y106.42
G1 F4920 X198.57 Y176.30 E3042.63520
G0 F6000 X198.57 Y175.59
G1 F4920 X129.41 Y106.42 E3046.70195
G0 F6000 X130.11 Y106.42
G1 F4920 X198.57 Y174.88 E3050.72711
G0 F6000 X198.57 Y174.18
G1 F4920 X130.82 Y106.42 E3054.71070
G0 F6000 X131.53 Y106.42
G1 F4920 X198.57 Y173.47 E3058.65271
G0 F6000 X198.57 Y172.76
G1 F4920 X132.24 Y106.42 E3062.55316
G0 F6000 X132.94 Y106.42
G1 F4920 X198.57 Y172.06 E3066.41205
G0 F6000 X198.57 Y171.35
G1 F4920 X133.65 Y106.42 E3070.22936
G0 F6000 X134.36 Y106.42
G1 F4920 X198.57 Y170.64 E3074.00510
G0 F6000 X198.57 Y169.94
G1 F4920 X135.06 Y106.42 E3077.73927
G0 F6000 X135.77 Y106.42
G1 F4920 X198.57 Y169.23 E3081.43188
G0 F6000 X198.57 Y168.52
G1 F4920 X136.48 Y106.42 E3085.08289
G0 F6000 X137.19 Y106.42
G1 F4920 X198.57 Y167.81 E3088.69229
G0 F6000 X198.57 Y167.11
G1 F4920 X137.89 Y106.42 E3092.26013
G0 F6000 X138.60 Y106.42
G1 F4920 X198.57 Y166.40 E3095.78640
G0 F6000 X198.57 Y165.69
G1 F4920 X139.31 Y106.42 E3099.27111
G0 F6000 X140.01 Y106.42
G1 F4920 X198.57 Y164.99 E3102.71424
G0 F6000 X198.57 Y164.28
G1 F4920 X140.72 Y106.42 E3106.11580
G0 F6000 X141.43 Y106.42
G1 F4920 X198.57 Y163.57 E3109.47580
G0 F6000 X198.57 Y162.87
G1 F4920 X142.13 Y106.42 E3112.79423
G0 F6000 X142.84 Y106.42
G1 F4920 X198.57 Y162.16 E3116.07105
G0 F6000 X198.57 Y161.45
G1 F4920 X143.55 Y106.42 E3119.30628
G0 F6000 X144.26 Y106.42
G1 F4920 X198.57 Y160.74 E3122.49994
G0 F6000 X198.57 Y160.04
G1 F4920 X144.96 Y106.42 E3125.65204
G0 F6000 X145.67 Y106.42
G1 F4920 X198.57 Y159.33 E3128.76256
G0 F6000 X198.57 Y158.62
G1 F4920 X146.38 Y106.42 E3131.83151
G0 F6000 X147.08 Y106.42
G1 F4920 X198.57 Y157.91 E3134.85890
G0 F6000 X198.57 Y157.21
G1 F4920 X147.79 Y106.42 E3137.84471
G0 F6000 X148.50 Y106.42
G1 F4920 X198.57 Y156.50 E3140.78896
G0 F6000 X198.57 Y155.79
G1 F4920 X149.21 Y106.42 E3143.69164
G0 F6000 X149.91 Y106.42
G1 F4920 X198.57 Y155.09 E3146.55269
G0 F6000 X198.57 Y154.38
G1 F4920 X150.62 Y106.42 E3149.37217
G0 F6000 X151.33 Y106.42
G1 F4920 X198.57 Y153.67 E3152.15009
G0 F6000 X198.57 Y152.97
G1 F4920 X152.03 Y106.42 E3154.88643
G0 F6000 X152.74 Y106.42
G1 F4920 X198.57 Y152.26 E3157.58121
G0 F6000 X198.57 Y151.55
G1 F4920 X153.45 Y106.42 E3160.23441
G0 F6000 X154.16 Y106.42
G1 F4920 X198.57 Y150.84 E3162.84605
G0 F6000 X198.57 Y150.14
G1 F4920 X154.86 Y106.42 E3165.41612
G0 F6000 X155.57 Y106.42
G1 F4920 X198.57 Y149.43 E3167.94462
G0 F6000 X198.57 Y148.72
G1 F4920 X156.28 Y106.42 E3170.43152
G0 F6000 X156.98 Y106.42
G1 F4920 X198.57 Y148.01 E3172.87682
G0 F6000 X198.57 Y147.31
G1 F4920 X157.69 Y106.42 E3175.28056
G0 F6000 X158.40 Y106.42
G1 F4920 X198.57 Y146.60 E3177.64272
G0 F6000 X198.57 Y145.89
G1 F4920 X159.10 Y106.42 E3179.96332
G0 F6000 X159.81 Y106.42
G1 F4920 X198.57 Y145.19 E3182.24235
G0 F6000 X198.57 Y144.48
G1 F4920 X160.52 Y106.42 E3184.47981
G0 F6000 X161.23 Y106.42
G1 F4920 X198.57 Y143.77 E3186.67570
G0 F6000 X198.57 Y143.07
G1 F4920 X161.93 Y106.42 E3188.83002
G0 F6000 X162.64 Y106.42
G1 F4920 X198.57 Y142.36 E3190.94274
G0 F6000 X198.57 Y141.65
G1 F4920 X163.35 Y106.42 E3193.01386
G0 F6000 X164.06 Y106.42
G1 F4920 X198.57 Y140.94 E3195.04342
G0 F6000 X198.57 Y140.24
G1 F4920 X164.76 Y106.42 E3197.03141
G0 F6000 X165.47 Y106.42
G1 F4920 X198.57 Y139.53 E3198.97782
G0 F6000 X198.57 Y138.82
G1 F4920 X166.18 Y106.42 E3200.88267
G0 F6000 X166.88 Y106.42
G1 F4920 X198.57 Y138.12 E3202.74595
G0 F6000 X198.57 Y137.41
G1 F4920 X167.59 Y106.42 E3204.56766
G0 F6000 X168.30 Y106.42
G1 F4920 X198.57 Y136.70 E3206.34781
G0 F6000 X198.57 Y136.00
G1 F4920 X169.00 Y106.42 E3208.08638
G0 F6000 X169.71 Y106.42
G1 F4920 X198.57 Y135.29 E3209.78335
G0 F6000 X198.57 Y134.58
G1 F4920 X170.42 Y106.42 E3211.43873
G0 F6000 X171.13 Y106.42
G1 F4920 X198.57 Y133.87 E3213.05254
G0 F6000 X198.57 Y133.17
G1 F4920 X171.83 Y106.42 E3214.62478
G0 F6000 X172.54 Y106.42
G1 F4920 X198.57 Y132.46 E3216.15545
G0 F6000 X198.57 Y131.75
G1 F4920 X173.25 Y106.42 E3217.64455
G0 F6000 X173.95 Y106.42
G1 F4920 X198.57 Y131.04 E3219.09208
G0 F6000 X198.57 Y130.34
G1 F4920 X174.66 Y106.42 E3220.49804
G0 F6000 X175.37 Y106.42
G1 F4920 X198.57 Y129.63 E3221.86244
G0 F6000 X198.57 Y128.92
G1 F4920 X176.07 Y106.42 E3223.18524
G0 F6000 X176.78 Y106.42
G1 F4920 X198.57 Y128.22 E3224.46643
G0 F6000 X198.57 Y127.51
G1 F4920 X177.49 Y106.42 E3225.70606
G0 F6000 X178.20 Y106.42
G1 F4920 X198.57 Y126.80 E3226.90412
G0 F6000 X198.57 Y126.09
G1 F4920 X178.90 Y106.42 E3228.06061
G0 F6000 X179.61 Y106.42
G1 F4920 X198.57 Y125.39 E3229.17554
G0 F6000 X198.57 Y124.68
G1 F4920 X180.32 Y106.42 E3230.24889
G0 F6000 X181.03 Y106.42
G1 F4920 X198.57 Y123.97 E3231.28067
G0 F6000 X198.57 Y123.27
G1 F4920 X181.73 Y106.42 E3232.27089
G0 F6000 X182.44 Y106.42
G1 F4920 X198.57 Y122.56 E3233.21951
G0 F6000 X198.57 Y121.85
G1 F4920 X183.15 Y106.42 E3234.12653
G0 F6000 X183.85 Y106.42
G1 F4920 X198.57 Y121.14 E3234.99198
G0 F6000 X198.57 Y120.44
G1 F4920 X184.56 Y106.42 E3235.81586
G0 F6000 X185.27 Y106.42
G1 F4920 X198.57 Y119.73 E3236.59817
G0 F6000 X198.57 Y119.02
G1 F4920 X185.97 Y106.42 E3237.33891
G0 F6000 X186.68 Y106.42
G1 F4920 X198.57 Y118.32 E3238.03809
G0 F6000 X198.57 Y117.61
G1 F4920 X187.39 Y106.42 E3238.69569
G0 F6000 X188.10 Y106.42
G1 F4920 X198.57 Y116.90 E3239.31173
G0 F6000 X198.57 Y116.20
G1 F4920 X188.80 Y106.42 E3239.88620
G0 F6000 X189.51 Y106.42
G1 F4920 X198.57 Y115.49 E3240.41907
G0 F6000 X198.57 Y114.78
G1 F4920 X190.22 Y106.42 E3240.91034
G0 F6000 X190.93 Y106.42
G1 F4920 X198.57 Y114.07 E3241.36004
G0 F6000 X198.57 Y113.37
G1 F4920 X191.63 Y106.42 E3241.76818
G0 F6000 X192.34 Y106.42
G1 F4920 X198.57 Y112.66 E3242.13474
G0 F6000 X198.57 Y111.95
G1 F4920 X193.05 Y106.42 E3242.45974
G0 F6000 X193.75 Y106.42
G1 F4920 X198.57 Y111.25 E3242.74316
G0 F6000 X198.57 Y110.54
G1 F4920 X194.46 Y106.42 E3242.98502
G0 F6000 X195.17 Y106.42
G1 F4920 X198.57 Y109.83 E3243.18531
G0 F6000 X198.57 Y109.12
G1 F4920 X195.87 Y106.42 E3243.34400
G0 F6000 X196.58 Y106.42
G1 F4920 X198.57 Y108.42 E3243.46109
G0 F6000 X198.57 Y107.71
G1 F4920 X197.29 Y106.42 E3243.53662
G0 F6000 X198.00 Y106.42
G1 F4920 X198.57 Y107.00 E3243.57057
;LAYER:3
G0 F6000 X198.75 Y106.25 Z0.90
;TYPE:WALL-INNER
G1 F6060 X198.75 Y198.75 E3247.41619
G1 X106.25 Y198.75 E3251.26181
G1 X106.25 Y106.25 E3255.10743
G1 X198.75 Y106.25 E3258.95305
G0 F6000 X199.25 Y105.75
;TYPE:WALL-OUTER
G1 F6060 X199.25 Y199.25 E3262.84025
G1 X105.75 Y199.25 E3266.72744
G1 X105.75 Y105.75 E3270.61464
G1 X199.25 Y105.75 E3274.50183
G0 F6000 X198.57 Y106.54
;TYPE:FILL
G1 F6060 X106.54 Y198.57 E3279.91287
G0 F6000 X106.42 Y197.98
G1 F6060 X197.98 Y106.42 E3285.29613
G0 F6000 X197.28 Y106.42
G1 F6060 X106.42 Y197.28 E3290.63782
G0 F6000 X106.42 Y196.57
G1 F6060 X196.57 Y106.42 E3295.93794
G0 F6000 X195.86 Y106.42
G1 F6060 X106.42 Y195.86 E3301.19650
G0 F6000 X106.42 Y195.16
G1 F6060 X195.16 Y106.42 E3306.41348
G0 F6000 X194.45 Y106.42
G1 F6060 X106.42 Y194.45 E3311.58890
G0 F6000 X106.42 Y193.74
G1 F6060 X193.74 Y106.42 E3316.72268
G0 F6000 X193.03 Y106.42
G1 F6060 X106.42 Y193.03 E3321.81490
G0 F6000 X106.42 Y192.33
G1 F6060 X192.33 Y106.42 E3326.86555
G0 F6000 X191.62 Y106.42
G1 F6060 X106.42 Y191.62 E3331.87463
G0 F6000 X106.42 Y190.91
G1 F6060 X190.91 Y106.42 E3336.84214
G0 F6000 X190.21 Y106.42
G1 F6060 X106.42 Y190.21 E3341.76809
G0 F6000 X106.42 Y189.50
G1 F6060 X189.50 Y106.42 E3346.65246
G0 F6000 X188.79 Y106.42
G1 F6060 X106.42 Y188.79 E3351.49527
G0 F6000 X106.42 Y188.08
G1 F6060 X188.08 Y106.42 E3356.29650
G0 F6000 X187.38 Y106.42
G1 F6060 X106.42 Y187.38 E3361.05611
G0 F6000 X106.42 Y186.67
G1 F6060 X186.67 Y106.42 E3365.77415
G0 F6000 X185.96 Y106.42
G1 F6060 X106.42 Y185.96 E3370.45062
G0 F6000 X106.42 Y185.25
G1 F6060 X185.25 Y106.42 E3375.08552
G0 F6000 X184.55 Y106.42
G1 F6060 X106.42 Y184.55 E3379.67886
G0 F6000 X106.42 Y183.84
G1 F6060 X183.84 Y106.42 E3384.23062
G0 F6000 X183.13 Y106.42
G1 F6060 X106.42 Y183.13 E3388.74082
G0 F6000 X106.42 Y182.43
G1 F6060 X182.43 Y106.42 E3393.20944
G0 F6000 X181.72 Y106.42
G1 F6060 X106.42 Y181.72 E3397.63650
G0 F6000 X106.42 Y181.01
G1 F6060 X181.01 Y106.42 E3402.02193
G0 F6000 X180.31 Y106.42
G1 F6060 X106.42 Y180.31 E3406.36579
G0 F6000 X106.42 Y179.60
G1 F6060 X179.60 Y106.42 E3410.66808
G0 F6000 X178.89 Y106.42
G1 F6060 X106.42 Y178.89 E3414.92881
G0 F6000 X106.42 Y178.18
G1 F6060 X178.18 Y106.42 E3419.14796
G0 F6000 X177.48 Y106.42
G1 F6060 X106.42 Y177.48 E3423.32555
G0 F6000 X106.42 Y176.77
G1 F6060 X176.77 Y106.42 E3427.46156
G0 F6000 X176.06 Y106.42
G1 F6060 X106.42 Y176.06 E3431.55601
G0 F6000 X106.42 Y175.36
G1 F6060 X175.36 Y106.42 E3435.60889
G0 F6000 X174.65 Y106.42
G1 F6060 X106.42 Y174.65 E3439.62020
G0 F6000 X106.42 Y173.94
G1 F6060 X173.94 Y106.42 E3443.58988
G0 F6000 X173.23 Y106.42
G1 F6060 X106.42 Y173.23 E3447.51799
G0 F6000 X106.42 Y172.53
G1 F6060 X172.53 Y106.42 E3451.40454
G0 F6000 X171.82 Y106.42
G1 F6060 X106.42 Y171.82 E3455.24951
G0 F6000 X106.42 Y171.11
G1 F6060 X171.11 Y106.42 E3459.05292
G0 F6000 X170.41 Y106.42
G1 F6060 X106.42 Y170.41 E3462.81476
G0 F6000 X106.42 Y169.70
G1 F6060 X169.70 Y106.42 E3466.53503
G0 F6000 X168.99 Y106.42
G1 F6060 X106.42 Y168.99 E3470.21372
G0 F6000 X106.42 Y168.28
G1 F6060 X168.28 Y106.42 E3473.85086
G0 F6000 X167.58 Y106.42
G1 F6060 X106.42 Y167.58 E3477.44636
G0 F6000 X106.42 Y166.87
G1 F6060 X166.87 Y106.42 E3481.00029
G0 F6000 X166.16 Y106.42
G1 F6060 X106.42 Y166.16 E3484.51266
G0 F6000 X106.42 Y165.46
G1 F6060 X165.46 Y106.42 E3487.98346
G0 F6000 X164.75 Y106.42
G1 F6060 X106.42 Y164.75 E3491.41268
G0 F6000 X106.42 Y164.04
G1 F6060 X164.04 Y106.42 E3494.80034
G0 F6000 X163.34 Y106.42
G1 F6060 X106.42 Y163.34 E3498.14643
G0 F6000 X106.42 Y162.63
G1 F6060 X162.63 Y106.42 E3501.45095
G0 F6000 X161.92 Y106.42
G1 F6060 X106.42 Y161.92 E3504.71390
G0 F6000 X106.42 Y161.21
G1 F6060 X161.21 Y106.42 E3507.93523
G0 F6000 X160.51 Y106.42
G1 F6060 X106.42 Y160.51 E3511.11498
G0 F6000 X106.42 Y159.80
G1 F6060 X159.80 Y106.42 E3514.25317
G0 F6000 X159.09 Y106.42
G1 F6060 X106.42 Y159.09 E3517.34979
G0 F6000 X106.42 Y158.38
G1 F6060 X158.38 Y106.42 E3520.40484
G0 F6000 X157.68 Y106.42
G1 F6060 X106.42 Y157.68 E3523.41832
G0 F6000 X106.42 Y156.97
G1 F6060 X156.97 Y106.42 E3526.39023
G0 F6000 X156.26 Y106.42
G1 F6060 X106.42 Y156.26 E3529.32057
G0 F6000 X106.42 Y155.56
G1 F6060 X155.56 Y106.42 E3532.20934
G0 F6000 X154.85 Y106.42
G1 F6060 X106.42 Y154.85 E3535.05655
G0 F6000 X106.42 Y154.14
G1 F6060 X154.14 Y106.42 E3537.86213
G0 F6000 X153.44 Y106.42
G1 F6060 X106.42 Y153.44 E3540.62613
G0 F6000 X106.42 Y152.73
G1 F6060 X152.73 Y106.42 E3543.34857
G0 F6000 X152.02 Y106.42
G1 F6060 X106.42 Y152.02 E3546.02944
G0 F6000 X106.42 Y151.31
G1 F6060 X151.31 Y106.42 E3548.66874
G0 F6000 X150.61 Y106.42
G1 F6060 X106.42 Y150.61 E3551.26648
G0 F6000 X106.42 Y149.90
G1 F6060 X149.90 Y106.42 E3553.82264
G0 F6000 X149.19 Y106.42
G1 F6060 X106.42 Y149.19 E3556.33723
G0 F6000 X106.42 Y148.49
G1 F6060 X148.49 Y106.42 E3558.81026
G0 F6000 X147.78 Y106.42
G1 F6060 X106.42 Y147.78 E3561.24166
G0 F6000 X106.42 Y147.07
G1 F6060 X147.07 Y106.42 E3563.63149
G0 F6000 X146.36 Y106.42
G1 F6060 X106.42 Y146.36 E3565.97975
G0 F6000 X106.42 Y145.66
G1 F6060 X145.66 Y106.42 E3568.28644
G0 F6000 X144.95 Y106.42
G1 F6060 X106.42 Y144.95 E3570.55156
G0 F6000 X106.42 Y144.24
G1 F6060 X144.24 Y106.42 E3572.77511
G0 F6000 X143.54 Y106.42
G1 F6060 X106.42 Y143.54 E3574.95710
G0 F6000 X106.42 Y142.83
G1 F6060 X142.83 Y106.42 E3577.09751
G0 F6000 X142.12 Y106.42
G1 F6060 X106.42 Y142.12 E3579.19636
G0 F6000 X106.42 Y141.41
G1 F6060 X141.41 Y106.42 E3581.25358
G0 F6000 X140.71 Y106.42
G1 F6060 X106.42 Y140.71 E3583.26923
G0 F6000 X106.42 Y140.00
G1 F6060 X140.00 Y106.42 E3585.24331
G0 F6000 X139.29 Y106.42
G1 F6060 X106.42 Y139.29 E3587.17582
G0 F6000 X106.42 Y138.59
G1 F6060 X138.59 Y106.42 E3589.06677
G0 F6000 X137.88 Y106.42
G1 F6060 X106.42 Y137.88 E3590.91614
G0 F6000 X106.42 Y137.17
G1 F6060 X137.17 Y106.42 E3592.72395
G0 F6000 X136.47 Y106.42
G1 F6060 X106.42 Y136.47 E3594.49018
G0 F6000 X106.42 Y135.76
G1 F6060 X135.76 Y106.42 E3596.21485
G0 F6000 X135.05 Y106.42
G1 F6060 X106.42 Y135.05 E3597.89795
G0 F6000 X106.42 Y134.34
G1 F6060 X134.34 Y106.42 E3599.53942
G0 F6000 X133.64 Y106.42
G1 F6060 X106.42 Y133.64 E3601.13933
G0 F6000 X106.42 Y132.93
G1 F6060 X132.93 Y106.42 E3602.69766
G0 F6000 X132.22 Y106.42
G1 F6060 X106.42 Y132.22 E3604.21442
G0 F6000 X106.42 Y131.51
G1 F6060 X131.51 Y106.42 E3605.68962
G0 F6000 X130.81 Y106.42
G1 F6060 X106.42 Y130.81 E3607.12325
G0 F6000 X106.42 Y130.10
G1 F6060 X130.10 Y106.42 E3608.51531
G0 F6000 X129.39 Y106.42
G1 F6060 X106.42 Y129.39 E3609.86579
G0 F6000 X106.42 Y128.69
G1 F6060 X128.69 Y106.42 E3611.17471
G0 F6000 X127.98 Y106.42
G1 F6060 X106.42 Y127.98 E3612.44201
G0 F6000 X106.42 Y127.27
G1 F6060 X127.27 Y106.42 E3613.66773
G0 F6000 X126.56 Y106.42
G1 F6060 X106.42 Y126.56 E3614.85189
G0 F6000 X106.42 Y125.86
G1 F6060 X125.86 Y106.42 E3615.99447
G0 F6000 X125.15 Y106.42
G1 F6060 X106.42 Y125.15 E3617.09549
G0 F6000 X106.42 Y124.44
G1 F6060 X124.44 Y106.42 E3618.15494
G0 F6000 X123.74 Y106.42
G1 F6060 X106.42 Y123.74 E3619.17282
G0 F6000 X106.42 Y123.03
G1 F6060 X123.03 Y106.42 E3620.14913
G0 F6000 X122.32 Y106.42
G1 F6060 X106.42 Y122.32 E3621.08387
G0 F6000 X106.42 Y121.62
G1 F6060 X121.62 Y106.42 E3621.97704
G0 F6000 X120.91 Y106.42
G1 F6060 X106.42 Y120.91 E3622.82859
G0 F6000 X106.42 Y120.20
G1 F6060 X120.20 Y106.42 E3623.63856
G0 F6000 X119.49 Y106.42
G1 F6060 X106.42 Y119.49 E3624.40697
G0 F6000 X106.42 Y118.79
G1 F6060 X118.79 Y106.42 E3625.13381
G0 F6000 X118.08 Y106.42
G1 F6060 X106.42 Y118.08 E3625.81908
G0 F6000 X106.42 Y117.37
G1 F6060 X117.37 Y106.42 E3626.46278
G0 F6000 X116.67 Y106.42
G1 F6060 X106.42 Y116.67 E3627.06491
G0 F6000 X106.42 Y115.96
G1 F6060 X115.96 Y106.42 E3627.62547
G0 F6000 X115.25 Y106.42
G1 F6060 X106.42 Y115.25 E3628.14446
G0 F6000 X106.42 Y114.54
G1 F6060 X114.54 Y106.42 E3628.62183
G0 F6000 X113.84 Y106.42
G1 F6060 X106.42 Y113.84 E3629.05763
G0 F6000 X106.42 Y113.13
G1 F6060 X113.13 Y106.42 E3629.45186
G0 F6000 X112.42 Y106.42
G1 F6060 X106.42 Y112.42 E3629.80452
G0 F6000 X106.42 Y111.72
G1 F6060 X111.72 Y106.42 E3630.11561
G0 F6000 X111.01 Y106.42
G1 F6060 X106.42 Y111.01 E3630.38513
G0 F6000 X106.42 Y110.30
G1 F6060 X110.30 Y106.42 E3630.61308
G0 F6000 X109.59 Y106.42
G1 F6060 X106.42 Y109.59 E3630.79946
G0 F6000 X106.42 Y108.89
G1 F6060 X108.89 Y106.42 E3630.94428
G0 F6000 X108.18 Y106.42
G1 F6060 X106.42 Y108.18 E3631.04747
G0 F6000 X106.42 Y107.47
G1 F6060 X107.47 Y106.42 E3631.10908
G0 F6000 X106.77 Y106.42
G1 F6060 X106.42 Y106.77 E3631.12913
G0 F6000 X107.25 Y198.57
G1 F6060 X198.57 Y107.25 E3636.49861
G0 F6000 X198.57 Y107.96
G1 F6060 X107.96 Y198.57 E3641.82651
G0 F6000 X108.66 Y198.57
G1 F6060 X198.57 Y108.66 E3647.11284
G0 F6000 X198.57 Y109.37
G1 F6060 X109.37 Y198.57 E3652.35758
G0 F6000 X110.08 Y198.57
G1 F6060 X198.57 Y110.08 E3657.56075
G0 F6000 X198.57 Y110.78
G1 F6060 X110.78 Y198.57 E3662.72234
G0 F6000 X111.49 Y198.57
G1 F6060 X198.57 Y111.49 E3667.84234
G0 F6000 X198.57 Y112.20
G1 F6060 X112.20 Y198.57 E3672.92077
G0 F6000 X112.91 Y198.57
G1 F6060 X198.57 Y112.91 E3677.95764
G0 F6000 X198.57 Y113.61
G1 F6060 X113.61 Y198.57 E3682.95293
G0 F6000 X114.32 Y198.57
G1 F6060 X198.57 Y114.32 E3687.90665
G0 F6000 X198.57 Y115.03
G1 F6060 X115.03 Y198.57 E3692.81881
G0 F6000 X115.73 Y198.57
G1 F6060 X198.57 Y115.73 E3697.68939
G0 F6000 X198.57 Y116.44
G1 F6060 X116.44 Y198.57 E3702.51838
G0 F6000 X117.15 Y198.57
G1 F6060 X198.57 Y117.15 E3707.30580
G0 F6000 X198.57 Y117.86
G1 F6060 X117.86 Y198.57 E3712.05162
G0 F6000 X118.56 Y198.57
G1 F6060 X198.57 Y118.56 E3716.75587
G0 F6000 X198.57 Y119.27
G1 F6060 X119.27 Y198.57 E3721.41856
G0 F6000 X119.98 Y198.57
G1 F6060 X198.57 Y119.98 E3726.03967
G0 F6000 X198.57 Y120.69
G1 F6060 X120.68 Y198.57 E3730.61922
G0 F6000 X121.39 Y198.57
G1 F6060 X198.57 Y121.39 E3735.15719
G0 F6000 X198.57 Y122.10
G1 F6060 X122.10 Y198.57 E3739.65360
G0 F6000 X122.81 Y198.57
G1 F6060 X198.57 Y122.81 E3744.10841
G0 F6000 X198.57 Y123.51
G1 F6060 X123.51 Y198.57 E3748.52165
G0 F6000 X124.22 Y198.57
G1 F6060 X198.57 Y124.22 E3752.89332
G0 F6000 X198.57 Y124.93
G1 F6060 X124.93 Y198.57 E3757.22340
G0 F6000 X125.63 Y198.57
G1 F6060 X198.57 Y125.64 E3761.51190
G0 F6000 X198.57 Y126.34
G1 F6060 X126.34 Y198.57 E3765.75883
G0 F6000 X127.05 Y198.57
G1 F6060 X198.57 Y127.05 E3769.96420
G0 F6000 X198.57 Y127.76
G1 F6060 X127.75 Y198.57 E3774.12800
G0 F6000 X128.46 Y198.57
G1 F6060 X198.57 Y128.46 E3778.25023
G0 F6000 X198.57 Y129.17
G1 F6060 X129.17 Y198.57 E3782.33086
G0 F6000 X129.88 Y198.57
G1 F6060 X198.57 Y129.88 E3786.36992
G0 F6000 X198.57 Y130.58
G1 F6060 X130.58 Y198.57 E3790.36741
G0 F6000 X131.29 Y198.57
G1 F6060 X198.57 Y131.29 E3794.32331
G0 F6000 X198.57 Y132.00
G1 F6060 X132.00 Y198.57 E3798.23763
G0 F6000 X132.71 Y198.57
G1 F6060 X198.57 Y132.71 E3802.11039
G0 F6000 X198.57 Y133.41
G1 F6060 X133.41 Y198.57 E3805.94158
G0 F6000 X134.12 Y198.57
G1 F6060 X198.57 Y134.12 E3809.73120
G0 F6000 X198.57 Y134.83
G1 F6060 X134.83 Y198.57 E3813.47925
G0 F6000 X135.53 Y198.57
G1 F6060 X198.57 Y135.53 E3817.18573
G0 F6000 X198.57 Y136.24
G1 F6060 X136.24 Y198.57 E3820.85061
G0 F6000 X136.95 Y198.57
G1 F6060 X198.57 Y136.95 E3824.47392
G0 F6000 X198.57 Y137.66
G1 F6060 X137.66 Y198.57 E3828.05564
G0 F6000 X138.36 Y198.57
G1 F6060 X198.57 Y138.36 E3831.59578
G0 F6000 X198.57 Y139.07
G1 F6060 X139.07 Y198.57 E3835.09436
G0 F6000 X139.78 Y198.57
G1 F6060 X198.57 Y139.78 E3838.55137
G0 F6000 X198.57 Y140.48
G1 F6060 X140.48 Y198.57 E3841.96681
G0 F6000 X141.19 Y198.57
G1 F6060 X198.57 Y141.19 E3845.34068
G0 F6000 X198.57 Y141.90
G1 F6060 X141.90 Y198.57 E3848.67298
G0 F6000 X142.60 Y198.57
G1 F6060 X198.57 Y142.60 E3851.96369
G0 F6000 X198.57 Y143.31
G1 F6060 X143.31 Y198.57 E3855.21282
G0 F6000 X144.02 Y198.57
G1 F6060 X198.57 Y144.02 E3858.42039
G0 F6000 X198.57 Y144.73
G1 F6060 X144.73 Y198.57 E3861.58636
G0 F6000 X145.43 Y198.57
G1 F6060 X198.57 Y145.43 E3864.71076
G0 F6000 X198.57 Y146.14
G1 F6060 X146.14 Y198.57 E3867.79359
G0 F6000 X146.85 Y198.57
G1 F6060 X198.57 Y146.85 E3870.83485
G0 F6000 X198.57 Y147.56
G1 F6060 X147.55 Y198.57 E3873.83454
G0 F6000 X148.26 Y198.57
G1 F6060 X198.57 Y148.26 E3876.79266
G0 F6000 X198.57 Y148.97
G1 F6060 X148.97 Y198.57 E3879.70919
G0 F6000 X149.68 Y198.57
G1 F6060 X198.57 Y149.68 E3882.58414
G0 F6000 X198.57 Y150.38
G1 F6060 X150.38 Y198.57 E3885.41753
G0 F6000 X151.09 Y198.57
G1 F6060 X198.57 Y151.09 E3888.20932
G0 F6000 X198.57 Y151.80
G1 F6060 X151.80 Y198.57 E3890.95954
G0 F6000 X152.50 Y198.57
G1 F6060 X198.57 Y152.50 E3893.66819
G0 F6000 X198.57 Y153.21
G1 F6060 X153.21 Y198.57 E3896.33527
G0 F6000 X153.92 Y198.57
G1 F6060 X198.57 Y153.92 E3898.96079
G0 F6000 X198.57 Y154.63
G1 F6060 X154.62 Y198.57 E3901.54473
G0 F6000 X155.33 Y198.57
G1 F6060 X198.57 Y155.33 E3904.08711
G0 F6000 X198.57 Y156.04
G1 F6060 X156.04 Y198.57 E3906.58789
G0 F6000 X156.75 Y198.57
G1 F6060 X198.57 Y156.75 E3909.04709
G0 F6000 X198.57 Y157.46
G1 F6060 X157.45 Y198.57 E3911.46470
G0 F6000 X158.16 Y198.57
G1 F6060 X198.57 Y158.16 E3913.84075
G0 F6000 X198.57 Y158.87
G1 F6060 X158.87 Y198.57 E3916.17522
G0 F6000 X159.57 Y198.57
G1 F6060 X198.57 Y159.58 E3918.46812
G0 F6000 X198.57 Y160.28
G1 F6060 X160.28 Y198.57 E3920.71946
G0 F6000 X160.99 Y198.57
G1 F6060 X198.57 Y160.99 E3922.92922
G0 F6000 X198.57 Y161.70
G1 F6060 X161.70 Y198.57 E3925.09742
G0 F6000 X162.40 Y198.57
G1 F6060 X198.57 Y162.40 E3927.22402
G0 F6000 X198.57 Y163.11
G1 F6060 X163.11 Y198.57 E3929.30905
G0 F6000 X163.82 Y198.57
G1 F6060 X198.57 Y163.82 E3931.35251
G0 F6000 X198.57 Y164.53
G1 F6060 X164.53 Y198.57 E3933.35437
G0 F6000 X165.23 Y198.57
G1 F6060 X198.57 Y165.23 E3935.31466
G0 F6000 X198.57 Y165.94
G1 F6060 X165.94 Y198.57 E3937.23339
G0 F6000 X166.65 Y198.57
G1 F6060 X198.57 Y166.65 E3939.11055
G0 F6000 X198.57 Y167.35
G1 F6060 X167.35 Y198.57 E3940.94613
G0 F6000 X168.06 Y198.57
G1 F6060 X198.57 Y168.06 E3942.74015
G0 F6000 X198.57 Y168.77
G1 F6060 X168.77 Y198.57 E3944.49257
G0 F6000 X169.47 Y198.57
G1 F6060 X198.57 Y169.47 E3946.20342
G0 F6000 X198.57 Y170.18
G1 F6060 X170.18 Y198.57 E3947.87270
G0 F6000 X170.89 Y198.57
G1 F6060 X198.57 Y170.89 E3949.50039
G0 F6000 X198.57 Y171.60
G1 F6060 X171.60 Y198.57 E3951.08650
G0 F6000 X172.30 Y198.57
G1 F6060 X198.57 Y172.30 E3952.63105
G0 F6000 X198.57 Y173.01
G1 F6060 X173.01 Y198.57 E3954.13402
G0 F6000 X173.72 Y198.57
G1 F6060 X198.57 Y173.72 E3955.59543
G0 F6000 X198.57 Y174.43
G1 F6060 X174.42 Y198.57 E3957.01527
G0 F6000 X175.13 Y198.57
G1 F6060 X198.57 Y175.13 E3958.39354
G0 F6000 X198.57 Y175.84
G1 F6060 X175.84 Y198.57 E3959.73021
G0 F6000 X176.55 Y198.57
G1 F6060 X198.57 Y176.55 E3961.02532
G0 F6000 X198.57 Y177.25
G1 F6060 X177.25 Y198.57 E3962.27885
G0 F6000 X177.96 Y198.57
G1 F6060 X198.57 Y177.96 E3963.49079
G0 F6000 X198.57 Y178.67
G1 F6060 X178.67 Y198.57 E3964.66115
G0 F6000 X179.37 Y198.57
G1 F6060 X198.57 Y179.38 E3965.78995
G0 F6000 X198.57 Y180.08
G1 F6060 X180.08 Y198.57 E3966.87718
G0 F6000 X180.79 Y198.57
G1 F6060 X198.57 Y180.79 E3967.92284
G0 F6000 X198.57 Y181.50
G1 F6060 X181.50 Y198.57 E3968.92693
G0 F6000 X182.20 Y198.57
G1 F6060 X198.57 Y182.20 E3969.88943
G0 F6000 X198.57 Y182.91
G1 F6060 X182.91 Y198.57 E3970.81035
G0 F6000 X183.62 Y198.57
G1 F6060 X198.57 Y183.62 E3971.68971
G0 F6000 X198.57 Y184.32
G1 F6060 X184.32 Y198.57 E3972.52746
G0 F6000 X185.03 Y198.57
G1 F6060 X198.57 Y185.03 E3973.32365
G0 F6000 X198.57 Y185.74
G1 F6060 X185.74 Y198.57 E3974.07827
G0 F6000 X186.44 Y198.57
G1 F6060 X198.57 Y186.45 E3974.79132
G0 F6000 X198.57 Y187.15
G1 F6060 X187.15 Y198.57 E3975.46280
G0 F6000 X187.86 Y198.57
G1 F6060 X198.57 Y187.86 E3976.09272
G0 F6000 X198.57 Y188.57
G1 F6060 X188.57 Y198.57 E3976.68106
G0 F6000 X189.27 Y198.57
G1 F6060 X198.57 Y189.27 E3977.22781
G0 F6000 X198.57 Y189.98
G1 F6060 X189.98 Y198.57 E3977.73298
G0 F6000 X190.69 Y198.57
G1 F6060 X198.57 Y190.69 E3978.19656
G0 F6000 X198.57 Y191.40
G1 F6060 X191.40 Y198.57 E3978.61857
G0 F6000 X192.10 Y198.57
G1 F6060 X198.57 Y192.10 E3978.99901
G0 F6000 X198.57 Y192.81
G1 F6060 X192.81 Y198.57 E3979.33788
G0 F6000 X193.52 Y198.57
G1 F6060 X198.57 Y193.52 E3979.63519
G0 F6000 X198.57 Y194.22
G1 F6060 X194.22 Y198.57 E3979.89092
G0 F6000 X194.93 Y198.57
G1 F6060 X198.57 Y194.93 E3980.10509
G0 F6000 X198.57 Y195.64
G1 F6060 X195.64 Y198.57 E3980.27765
G0 F6000 X196.34 Y198.57
G1 F6060 X198.57 Y196.34 E3980.40865
G0 F6000 X198.57 Y197.05
G1 F6060 X197.05 Y198.57 E3980.49808
G0 F6000 X197.76 Y198.57
G1 F6060 X198.57 Y197.76 E3980.54591
G0 F6000 X198.57 Y198.47
G1 F6060 X198.47 Y198.57 E3980.55217
;LAYER:4
G0 F6000 X198.75 Y198.75 Z1.10
;TYPE:WALL-INNER
G1 F7200 X106.25 Y198.75 E3984.39779
G1 X106.25 Y106.25 E3988.24341
G1 X198.75 Y106.25 E3992.08903
G1 X198.75 Y198.75 E3995.93465
G0 F6000 X199.25 Y199.25
;TYPE:WALL-OUTER
G1 F7200 X105.75 Y199.25 E3999.82185
G1 X105.75 Y105.75 E4003.70904
G1 X199.25 Y105.75 E4007.59624
G1 X199.25 Y199.25 E4011.48343
G0 F6000 X198.57 Y198.22
;TYPE:FILL
G1 F7200 X106.78 Y106.42 E4016.88060
G0 F6000 X106.42 Y106.78
G1 F7200 X198.22 Y198.57 E4022.27773
G0 F6000 X197.51 Y198.57
G1 F7200 X106.42 Y107.49 E4027.63330
G0 F6000 X106.42 Y108.19
G1 F7200 X196.81 Y198.57 E4032.94730
G0 F6000 X196.10 Y198.57
G1 F7200 X106.42 Y108.90 E4038.21972
G0 F6000 X106.42 Y109.61
G1 F7200 X195.39 Y198.57 E4043.45058
G0 F6000 X194.68 Y198.57
G1 F7200 X106.42 Y110.31 E4048.63985
G0 F6000 X106.42 Y111.02
G1 F7200 X193.98 Y198.57 E4053.78754
G0 F6000 X193.27 Y198.57
G1 F7200 X106.42 Y111.73 E4058.89363
G0 F6000 X106.42 Y112.44
G1 F7200 X192.56 Y198.57 E4063.95816
G0 F6000 X191.85 Y198.57
G1 F7200 X106.42 Y113.14 E4068.98112
G0 F6000 X106.42 Y113.85
G1 F7200 X191.15 Y198.57 E4073.96250
G0 F6000 X190.44 Y198.57
G1 F7200 X106.42 Y114.56 E4078.90232
G0 F6000 X106.42 Y115.26
G1 F7200 X189.73 Y198.57 E4083.80057
G0 F6000 X189.03 Y198.57
G1 F7200 X106.42 Y115.97 E4088.65725
G0 F6000 X106.42 Y116.68
G1 F7200 X188.32 Y198.57 E4093.47236
G0 F6000 X187.61 Y198.57
G1 F7200 X106.42 Y117.39 E4098.24588
G0 F6000 X106.42 Y118.09
G1 F7200 X186.91 Y198.57 E4102.97779
G0 F6000 X186.20 Y198.57
G1 F7200 X106.42 Y118.80 E4107.66814
G0 F6000 X106.42 Y119.51
G1 F7200 X185.49 Y198.57 E4112.31692
G0 F6000 X184.78 Y198.57
G1 F7200 X106.42 Y120.21 E4116.92413
G0 F6000 X106.42 Y120.92
G1 F7200 X184.08 Y198.57 E4121.48977
G0 F6000 X183.37 Y198.57
G1 F7200 X106.42 Y121.63 E4126.01384
G0 F6000 X106.42 Y122.33
G1 F7200 X182.66 Y198.57 E4130.49634
G0 F6000 X181.96 Y198.57
G1 F7200 X106.42 Y123.04 E4134.93727
G0 F6000 X106.42 Y123.75
G1 F7200 X181.25 Y198.57 E4139.33661
G0 F6000 X180.54 Y198.57
G1 F7200 X106.42 Y124.46 E4143.69438
G0 F6000 X106.42 Y125.16
G1 F7200 X179.83 Y198.57 E4148.01054
G0 F6000 X179.13 Y198.57
G1 F7200 X106.42 Y125.87 E4152.28514
G0 F6000 X106.42 Y126.58
G1 F7200 X178.42 Y198.57 E4156.51817
G0 F6000 X177.71 Y198.57
G1 F7200 X106.42 Y127.28 E4160.70963
G0 F6000 X106.42 Y127.99
G1 F7200 X177.01 Y198.57 E4164.85953
G0 F6000 X176.30 Y198.57
G1 F7200 X106.42 Y128.70 E4168.96785
G0 F6000 X106.42 Y129.41
G1 F7200 X175.59 Y198.57 E4173.03460
G0 F6000 X174.88 Y198.57
G1 F7200 X106.42 Y130.11 E4177.05976
G0 F6000 X106.42 Y130.82
G1 F7200 X174.18 Y198.57 E4181.04335
G0 F6000 X173.47 Y198.57
G1 F7200 X106.42 Y131.53 E4184.98534
G0 F6000 X106.42 Y132.24
G1 F7200 X172.76 Y198.57 E4188.88576
G0 F6000 X172.06 Y198.57
G1 F7200 X106.42 Y132.94 E4192.74461
G0 F6000 X106.42 Y133.65
G1 F7200 X171.35 Y198.57 E4196.56189
G0 F6000 X170.64 Y198.57
G1 F7200 X106.42 Y134.36 E4200.33760
G0 F6000 X106.42 Y135.06
G1 F7200 X169.94 Y198.57 E4204.07175
G0 F6000 X169.23 Y198.57
G1 F7200 X106.42 Y135.77 E4207.76432
G0 F6000 X106.42 Y136.48
G1 F7200 X168.52 Y198.57 E4211.41533
G0 F6000 X167.81 Y198.57
G1 F7200 X106.42 Y137.19 E4215.02474
G0 F6000 X106.42 Y137.89
G1 F7200 X167.11 Y198.57 E4218.59258
G0 F6000 X166.40 Y198.57
G1 F7200 X106.42 Y138.60 E4222.11882
G0 F6000 X106.42 Y139.31
G1 F7200 X165.69 Y198.57 E4225.60349
G0 F6000 X164.99 Y198.57
G1 F7200 X106.42 Y140.01 E4229.04660
G0 F6000 X106.42 Y140.72
G1 F7200 X164.28 Y198.57 E4232.44813
G0 F6000 X163.57 Y198.57
G1 F7200 X106.42 Y141.43 E4235.80810
G0 F6000 X106.42 Y142.13
G1 F7200 X162.86 Y198.57 E4239.12649
G0 F6000 X162.16 Y198.57
G1 F7200 X106.42 Y142.84 E4242.40332
G0 F6000 X106.42 Y143.55
G1 F7200 X161.45 Y198.57 E4245.63855
G0 F6000 X160.74 Y198.57
G1 F7200 X106.42 Y144.26 E4248.83221
G0 F6000 X106.42 Y144.96
G1 F7200 X160.03 Y198.57 E4251.98428
G0 F6000 X159.33 Y198.57
G1 F7200 X106.42 Y145.67 E4255.09477
G0 F6000 X106.42 Y146.38
G1 F7200 X158.62 Y198.57 E4258.16369
G0 F6000 X157.91 Y198.57
G1 F7200 X106.42 Y147.08 E4261.19105
G0 F6000 X106.42 Y147.79
G1 F7200 X157.21 Y198.57 E4264.17684
G0 F6000 X156.50 Y198.57
G1 F7200 X106.42 Y148.50 E4267.12105
G0 F6000 X106.42 Y149.21
G1 F7200 X155.79 Y198.57 E4270.02370
G0 F6000 X155.09 Y198.57
G1 F7200 X106.42 Y149.91 E4272.88475
G0 F6000 X106.42 Y150.62
G1 F7200 X154.38 Y198.57 E4275.70424
G0 F6000 X153.67 Y198.57
G1 F7200 X106.42 Y151.33 E4278.48212
G0 F6000 X106.42 Y152.03
G1 F7200 X152.96 Y198.57 E4281.21844
G0 F6000 X152.26 Y198.57
G1 F7200 X106.42 Y152.74 E4283.91318
G0 F6000 X106.42 Y153.45
G1 F7200 X151.55 Y198.57 E4286.56636
G0 F6000 X150.84 Y198.57
G1 F7200 X106.42 Y154.16 E4289.17797
G0 F6000 X106.42 Y154.86
G1 F7200 X150.14 Y198.57 E4291.74801
G0 F6000 X149.43 Y198.57
G1 F7200 X106.42 Y155.57 E4294.27648
G0 F6000 X106.42 Y156.28
G1 F7200 X148.72 Y198.57 E4296.76338
G0 F6000 X148.01 Y198.57
G1 F7200 X106.42 Y156.98 E4299.20868
G0 F6000 X106.42 Y157.69
G1 F7200 X147.31 Y198.57 E4301.61242
G0 F6000 X146.60 Y198.57
G1 F7200 X106.42 Y158.40 E4303.97455
G0 F6000 X106.42 Y159.10
G1 F7200 X145.89 Y198.57 E4306.29512
G0 F6000 X145.19 Y198.57
G1 F7200 X106.42 Y159.81 E4308.57412
G0 F6000 X106.42 Y160.52
G1 F7200 X144.48 Y198.57 E4310.81155
G0 F6000 X143.77 Y198.57
G1 F7200 X106.42 Y161.23 E4313.00741
G0 F6000 X106.42 Y161.93
G1 F7200 X143.06 Y198.57 E4315.16170
G0 F6000 X142.36 Y198.57
G1 F7200 X106.42 Y162.64 E4317.27442
G0 F6000 X106.42 Y163.35
G1 F7200 X141.65 Y198.57 E4319.34554
G0 F6000 X140.94 Y198.57
G1 F7200 X106.42 Y164.06 E4321.37510
G0 F6000 X106.42 Y164.76
G1 F7200 X140.24 Y198.57 E4323.36306
G0 F6000 X139.53 Y198.57
G1 F7200 X106.42 Y165.47 E4325.30945
G0 F6000 X106.42 Y166.18
G1 F7200 X138.82 Y198.57 E4327.21427
G0 F6000 X138.12 Y198.57
G1 F7200 X106.42 Y166.88 E4329.07752
G0 F6000 X106.42 Y167.59
G1 F7200 X137.41 Y198.57 E4330.89920
G0 F6000 X136.70 Y198.57
G1 F7200 X106.42 Y168.30 E4332.67931
G0 F6000 X106.42 Y169.00
G1 F7200 X135.99 Y198.57 E4334.41785
G0 F6000 X135.29 Y198.57
G1 F7200 X106.42 Y169.71 E4336.11483
G0 F6000 X106.42 Y170.42
G1 F7200 X134.58 Y198.57 E4337.77021
G0 F6000 X133.87 Y198.57
G1 F7200 X106.42 Y171.13 E4339.38398
G0 F6000 X106.42 Y171.83
G1 F7200 X133.16 Y198.57 E4340.95619
G0 F6000 X132.46 Y198.57
G1 F7200 X106.42 Y172.54 E4342.48683
G0 F6000 X106.42 Y173.25
G1 F7200 X131.75 Y198.57 E4343.97591
G0 F6000 X131.04 Y198.57
G1 F7200 X106.42 Y173.95 E4345.42341
G0 F6000 X106.42 Y174.66
G1 F7200 X130.34 Y198.57 E4346.82934
G0 F6000 X129.63 Y198.57
G1 F7200 X106.42 Y175.37 E4348.19371
G0 F6000 X106.42 Y176.07
G1 F7200 X128.92 Y198.57 E4349.51650
G0 F6000 X128.22 Y198.57
G1 F7200 X106.42 Y176.78 E4350.79770
G0 F6000 X106.42 Y177.49
G1 F7200 X127.51 Y198.57 E4352.03733
G0 F6000 X126.80 Y198.57
G1 F7200 X106.42 Y178.20 E4353.23536
G0 F6000 X106.42 Y178.90
G1 F7200 X126.09 Y198.57 E4354.39182
G0 F6000 X125.39 Y198.57
G1 F7200 X106.42 Y179.61 E4355.50672
G0 F6000 X106.42 Y180.32
G1 F7200 X124.68 Y198.57 E4356.58004
G0 F6000 X123.97 Y198.57
G1 F7200 X106.42 Y181.03 E4357.61180
G0 F6000 X106.42 Y181.73
G1 F7200 X123.27 Y198.57 E4358.60198
G0 F6000 X122.56 Y198.57
G1 F7200 X106.42 Y182.44 E4359.55060
G0 F6000 X106.42 Y183.15
G1 F7200 X121.85 Y198.57 E4360.45762
G0 F6000 X121.14 Y198.57
G1 F7200 X106.42 Y183.85 E4361.32307
G0 F6000 X106.42 Y184.56
G1 F7200 X120.44 Y198.57 E4362.14692
G0 F6000 X119.73 Y198.57
G1 F7200 X106.42 Y185.27 E4362.92920
G0 F6000 X106.42 Y185.97
G1 F7200 X119.02 Y198.57 E4363.66992
G0 F6000 X118.32 Y198.57
G1 F7200 X106.42 Y186.68 E4364.36906
G0 F6000 X106.42 Y187.39
G1 F7200 X117.61 Y198.57 E4365.02664
G0 F6000 X116.90 Y198.57
G1 F7200 X106.42 Y188.10 E4365.64265
G0 F6000 X106.42 Y188.80
G1 F7200 X116.19 Y198.57 E4366.21709
G0 F6000 X115.49 Y198.57
G1 F7200 X106.42 Y189.51 E4366.74996
G0 F6000 X106.42 Y190.22
G1 F7200 X114.78 Y198.57 E4367.24123
G0 F6000 X114.07 Y198.57
G1 F7200 X106.42 Y190.93 E4367.69093
G0 F6000 X106.42 Y191.63
G1 F7200 X113.37 Y198.57 E4368.09903
G0 F6000 X112.66 Y198.57
G1 F7200 X106.42 Y192.34 E4368.46557
G0 F6000 X106.42 Y193.05
G1 F7200 X111.95 Y198.57 E4368.79053
G0 F6000 X111.25 Y198.57
G1 F7200 X106.42 Y193.75 E4369.07393
G0 F6000 X106.42 Y194.46
G1 F7200 X110.54 Y198.57 E4369.31576
G0 F6000 X109.83 Y198.57
G1 F7200 X106.42 Y195.17 E4369.51602
G0 F6000 X106.42 Y195.87
G1 F7200 X109.12 Y198.57 E4369.67471
G0 F6000 X108.42 Y198.57
G1 F7200 X106.42 Y196.58 E4369.79180
G0 F6000 X106.42 Y197.29
G1 F7200 X107.71 Y198.57 E4369.86733
G0 F6000 X107.00 Y198.57
G1 F7200 X106.42 Y198.00 E4369.90125
G0 F6000 X107.49 Y106.42
G1 F7200 X198.57 Y197.51 E4375.25685
G0 F6000 X198.57 Y196.81
G1 F7200 X108.19 Y106.42 E4380.57088
G0 F6000 X108.90 Y106.42
G1 F7200 X198.57 Y196.10 E4385.84333
G0 F6000 X198.57 Y195.39
G1 F7200 X109.61 Y106.42 E4391.07419
G0 F6000 X110.31 Y106.42
G1 F7200 X198.57 Y194.68 E4396.26346
G0 F6000 X198.57 Y193.98
G1 F7200 X111.02 Y106.42 E4401.41115
G0 F6000 X111.73 Y106.42
G1 F7200 X198.57 Y193.27 E4406.51727
G0 F6000 X198.57 Y192.56
G1 F7200 X112.44 Y106.42 E4411.58183
G0 F6000 X113.14 Y106.42
G1 F7200 X198.57 Y191.86 E4416.60481
G0 F6000 X198.57 Y191.15
G1 F7200 X113.85 Y106.42 E4421.58623
G0 F6000 X114.56 Y106.42
G1 F7200 X198.57 Y190.44 E4426.52608
G0 F6000 X198.57 Y189.74
G1 F7200 X115.26 Y106.42 E4431.42436
G0 F6000 X115.97 Y106.42
G1 F7200 X198.57 Y189.03 E4436.28107
G0 F6000 X198.57 Y188.32
G1 F7200 X116.68 Y106.42 E4441.09618
G0 F6000 X117.39 Y106.42
G1 F7200 X198.57 Y187.61 E4445.86969
G0 F6000 X198.57 Y186.91
G1 F7200 X118.09 Y106.42 E4450.60164
G0 F6000 X118.80 Y106.42
G1 F7200 X198.57 Y186.20 E4455.29202
G0 F6000 X198.57 Y185.49
G1 F7200 X119.51 Y106.42 E4459.94082
G0 F6000 X120.21 Y106.42
G1 F7200 X198.57 Y184.78 E4464.54806
G0 F6000 X198.57 Y184.08
G1 F7200 X120.92 Y106.42 E4469.11373
G0 F6000 X121.63 Y106.42
G1 F7200 X198.57 Y183.37 E4473.63783
G0 F6000 X198.57 Y182.66
G1 F7200 X122.33 Y106.42 E4478.12036
G0 F6000 X123.04 Y106.42
G1 F7200 X198.57 Y181.96 E4482.56130
G0 F6000 X198.57 Y181.25
G1 F7200 X123.75 Y106.42 E4486.96063
G0 F6000 X124.46 Y106.42
G1 F7200 X198.57 Y180.54 E4491.31840
G0 F6000 X198.57 Y179.84
G1 F7200 X125.16 Y106.42 E4495.63459
G0 F6000 X125.87 Y106.42
G1 F7200 X198.57 Y179.13 E4499.90922
G0 F6000 X198.57 Y178.42
G1 F7200 X126.58 Y106.42 E4504.14228
G0 F6000 X127.28 Y106.42
G1 F7200 X198.57 Y177.71 E4508.33377
G0 F6000 X198.57 Y177.01
G1 F7200 X127.99 Y106.42 E4512.48369
G0 F6000 X128.70 Y106.42
G1 F7200 X198.57 Y176.30 E4516.59205
G0 F6000 X198.57 Y175.59
G1 F7200 X129.41 Y106.42 E4520.65880
G0 F6000 X130.11 Y106.42
G1 F7200 X198.57 Y174.88 E4524.68396
G0 F6000 X198.57 Y174.18
G1 F7200 X130.82 Y106.42 E4528.66755
G0 F6000 X131.53 Y106.42
G1 F7200 X198.57 Y173.47 E4532.60956
G0 F6000 X198.57 Y172.76
G1 F7200 X132.24 Y106.42 E4536.51001
G0 F6000 X132.94 Y106.42
G1 F7200 X198.57 Y172.06 E4540.36889
G0 F6000 X198.57 Y171.35
G1 F7200 X133.65 Y106.42 E4544.18621
G0 F6000 X134.36 Y106.42
G1 F7200 X198.57 Y170.64 E4547.96195
G0 F6000 X198.57 Y169.94
G1 F7200 X135.06 Y106.42 E4551.69612
G0 F6000 X135.77 Y106.42
G1 F7200 X198.57 Y169.23 E4555.38873
G0 F6000 X198.57 Y168.52
G1 F7200 X136.48 Y106.42 E4559.03973
G0 F6000 X137.19 Y106.42
G1 F7200 X198.57 Y167.81 E4562.64914
G0 F6000 X198.57 Y167.11
G1 F7200 X137.89 Y106.42 E4566.21698
G0 F6000 X138.60 Y106.42
G1 F7200 X198.57 Y166.40 E4569.74325
G0 F6000 X198.57 Y165.69
G1 F7200 X139.31 Y106.42 E4573.22796
G0 F6000 X140.01 Y106.42
G1 F7200 X198.57 Y164.99 E4576.67109
G0 F6000 X198.57 Y164.28
G1 F7200 X140.72 Y106.42 E4580.07265
G0 F6000 X141.43 Y106.42
G1 F7200 X198.57 Y163.57 E4583.43265
G0 F6000 X198.57 Y162.87
G1 F7200 X142.13 Y106.42 E4586.75107
G0 F6000 X142.84 Y106.42
G1 F7200 X198.57 Y162.16 E4590.02790
G0 F6000 X198.57 Y161.45
G1 F7200 X143.55 Y106.42 E4593.26313
G0 F6000 X144.26 Y106.42
G1 F7200 X198.57 Y160.74 E4596.45679
G0 F6000 X198.57 Y160.04
G1 F7200 X144.96 Y106.42 E4599.60888
G0 F6000 X145.67 Y106.42
G1 F7200 X198.57 Y159.33 E4602.71941
G0 F6000 X198.57 Y158.62
G1 F7200 X146.38 Y106.42 E4605.78836
G0 F6000 X147.08 Y106.42
G1 F7200 X198.57 Y157.91 E4608.81575
G0 F6000 X198.57 Y157.21
G1 F7200 X147.79 Y106.42 E4611.80156
G0 F6000 X148.50 Y106.42
G1 F7200 X198.57 Y156.50 E4614.74581
G0 F6000 X198.57 Y155.79
G1 F7200 X149.21 Y106.42 E4617.64849
G0 F6000 X149.91 Y106.42
G1 F7200 X198.57 Y155.09 E4620.50954
G0 F6000 X198.57 Y154.38
G1 F7200 X150.62 Y106.42 E4623.32902
G0 F6000 X151.33 Y106.42
G1 F7200 X198.57 Y153.67 E4626.10694
G0 F6000 X198.57 Y152.97
G1 F7200 X152.03 Y106.42 E4628.84328
G0 F6000 X152.74 Y106.42
G1 F7200 X198.57 Y152.26 E4631.53805
G0 F6000 X198.57 Y151.55
G1 F7200 X153.45 Y106.42 E4634.19126
G0 F6000 X154.16 Y106.42
G1 F7200 X198.57 Y150.84 E4636.80290
G0 F6000 X198.57 Y150.14
G1 F7200 X154.86 Y106.42 E4639.37297
G0 F6000 X155.57 Y106.42
G1 F7200 X198.57 Y149.43 E4641.90147
G0 F6000 X198.57 Y148.72
G1 F7200 X156.28 Y106.42 E4644.38837
G0 F6000 X156.98 Y106.42
G1 F7200 X198.57 Y148.01 E4646.83367
G0 F6000 X198.57 Y147.31
G1 F7200 X157.69 Y106.42 E4649.23741
G0 F6000 X158.40 Y106.42
G1 F7200 X198.57 Y146.60 E4651.59957
G0 F6000 X198.57 Y145.89
G1 F7200 X159.10 Y106.42 E4653.92017
G0 F6000 X159.81 Y106.42
G1 F7200 X198.57 Y145.19 E4656.19920
G0 F6000 X198.57 Y144.48
G1 F7200 X160.52 Y106.42 E4658.43665
G0 F6000 X161.23 Y106.42
G1 F7200 X198.57 Y143.77 E4660.63254
G0 F6000 X198.57 Y143.07
G1 F7200 X161.93 Y106.42 E4662.78687
G0 F6000 X162.64 Y106.42
G1 F7200 X198.57 Y142.36 E4664.89959
G0 F6000 X198.57 Y141.65
G1 F7200 X163.35 Y106.42 E4666.97071
G0 F6000 X164.06 Y106.42
G1 F7200 X198.57 Y140.94 E4669.00027
G0 F6000 X198.57 Y140.24
G1 F7200 X164.76 Y106.42 E4670.98825
G0 F6000 X165.47 Y106.42
G1 F7200 X198.57 Y139.53 E4672.93467
G0 F6000 X198.57 Y138.82
G1 F7200 X166.18 Y106.42 E4674.83952
G0 F6000 X166.88 Y106.42
G1 F7200 X198.57 Y138.12 E4676.70280
G0 F6000 X198.57 Y137.41
G1 F7200 X167.59 Y106.42 E4678.52451
G0 F6000 X168.30 Y106.42
G1 F7200 X198.57 Y136.70 E4680.30465
G0 F6000 X198.57 Y136.00
G1 F7200 X169.00 Y106.42 E4682.04323
G0 F6000 X169.71 Y106.42
G1 F7200 X198.57 Y135.29 E4683.74020
G0 F6000 X198.57 Y134.58
G1 F7200 X170.42 Y106.42 E4685.39558
G0 F6000 X171.13 Y106.42
G1 F7200 X198.57 Y133.87 E4687.00939
G0 F6000 X198.57 Y133.17
G1 F7200 X171.83 Y106.42 E4688.58163
G0 F6000 X172.54 Y106.42
G1 F7200 X198.57 Y132.46 E4690.11230
G0 F6000 X198.57 Y131.75
G1 F7200 X173.25 Y106.42 E4691.60140
G0 F6000 X173.95 Y106.42
G1 F7200 X198.57 Y131.04 E4693.04893
G0 F6000 X198.57 Y130.34
G1 F7200 X174.66 Y106.42 E4694.45489
G0 F6000 X175.37 Y106.42
G1 F7200 X198.57 Y129.63 E4695.81929
G0 F6000 X198.57 Y128.92
G1 F7200 X176.07 Y106.42 E4697.14208
G0 F6000 X176.78 Y106.42
G1 F7200 X198.57 Y128.22 E4698.42328
G0 F6000 X198.57 Y127.51
G1 F7200 X177.49 Y106.42 E4699.66291
G0 F6000 X178.20 Y106.42
G1 F7200 X198.57 Y126.80 E4700.86097
G0 F6000 X198.57 Y126.09
G1 F7200 X178.90 Y106.42 E4702.01746
G0 F6000 X179.61 Y106.42
G1 F7200 X198.57 Y125.39 E4703.13238
G0 F6000 X198.57 Y124.68
G1 F7200 X180.32 Y106.42 E4704.20574
G0 F6000 X181.03 Y106.42
G1 F7200 X198.57 Y123.97 E4705.23752
G0 F6000 X198.57 Y123.27
G1 F7200 X181.73 Y106.42 E4706.22774
G0 F6000 X182.44 Y106.42
G1 F7200 X198.57 Y122.56 E4707.17636
G0 F6000 X198.57 Y121.85
G1 F7200 X183.15 Y106.42 E4708.08337
G0 F6000 X183.85 Y106.42
G1 F7200 X198.57 Y121.14 E4708.94882
G0 F6000 X198.57 Y120.44
G1 F7200 X184.56 Y106.42 E4709.77271
G0 F6000 X185.27 Y106.42
G1 F7200 X198.57 Y119.73 E4710.55502
G0 F6000 X198.57 Y119.02
G1 F7200 X185.97 Y106.42 E4711.29576
G0 F6000 X186.68 Y106.42
G1 F7200 X198.57 Y118.32 E4711.99494
G0 F6000 X198.57 Y117.61
G1 F7200 X187.39 Y106.42 E4712.65254
G0 F6000 X188.10 Y106.42
G1 F7200 X198.57 Y116.90 E4713.26858
G0 F6000 X198.57 Y116.20
G1 F7200 X188.80 Y106.42 E4713.84305
G0 F6000 X189.51 Y106.42
G1 F7200 X198.57 Y115.49 E4714.37592
G0 F6000 X198.57 Y114.78
G1 F7200 X190.22 Y106.42 E4714.86719
G0 F6000 X190.93 Y106.42
G1 F7200 X198.57 Y114.07 E4715.31689
G0 F6000 X198.57 Y113.37
G1 F7200 X191.63 Y106.42 E4715.72502
G0 F6000 X192.34 Y106.42
G1 F7200 X198.57 Y112.66 E4716.09159
G0 F6000 X198.57 Y111.95
G1 F7200 X193.05 Y106.42 E4716.41658
G0 F6000 X193.75 Y106.42
G1 F7200 X198.57 Y111.25 E4716.70001
G0 F6000 X198.57 Y110.54
G1 F7200 X194.46 Y106.42 E4716.94187
G0 F6000 X195.17 Y106.42
G1 F7200 X198.57 Y109.83 E4717.14216
G0 F6000 X198.57 Y109.12
G1 F7200 X195.87 Y106.42 E4717.30085
G0 F6000 X196.58 Y106.42
G1 F7200 X198.57 Y108.42 E4717.41794
G0 F6000 X198.57 Y107.71
G1 F7200 X197.29 Y106.42 E4717.49347
G0 F6000 X198.00 Y106.42
G1 F7200 X198.57 Y107.00 E4717.52742
;LAYER:5
G0 F6000 X198.75 Y106.25 Z1.30
;TYPE:WALL-INNER
G1 F7200 X198.75 Y198.75 E4721.37304
G1 X106.25 Y198.75 E4725.21866
G1 X106.25 Y106.25 E4729.06428
G1 X198.75 Y106.25 E4732.90990
G0 F6000 X199.25 Y105.75
;TYPE:WALL-OUTER
G1 F7200 X199.25 Y199.25 E4736.79710
G1 X105.75 Y199.25 E4740.68429
G1 X105.75 Y105.75 E4744.57149
G1 X199.25 Y105.75 E4748.45868
G0 F6000 X198.57 Y106.54
;TYPE:FILL
G1 F7200 X106.54 Y198.57 E4753.86972
G0 F6000 X106.42 Y197.98
G1 F7200 X197.98 Y106.42 E4759.25298
G0 F6000 X197.28 Y106.42
G1 F7200 X106.42 Y197.28 E4764.59467
G0 F6000 X106.42 Y196.57
G1 F7200 X196.57 Y106.42 E4769.89479
G0 F6000 X195.86 Y106.42
G1 F7200 X106.42 Y195.86 E4775.15335
G0 F6000 X106.42 Y195.16
G1 F7200 X195.16 Y106.42 E4780.37033
G0 F6000 X194.45 Y106.42
G1 F7200 X106.42 Y194.45 E4785.54575
G0 F6000 X106.42 Y193.74
G1 F7200 X193.74 Y106.42 E4790.67953
G0 F6000 X193.03 Y106.42
G1 F7200 X106.42 Y193.03 E4795.77175
G0 F6000 X106.42 Y192.33
G1 F7200 X192.33 Y106.42 E4800.82240
G0 F6000 X191.62 Y106.42
G1 F7200 X106.42 Y191.62 E4805.83148
G0 F6000 X106.42 Y190.91
G1 F7200 X190.91 Y106.42 E4810.79899
G0 F6000 X190.21 Y106.42
G1 F7200 X106.42 Y190.21 E4815.72494
G0 F6000 X106.42 Y189.50
G1 F7200 X189.50 Y106.42 E4820.60931
G0 F6000 X188.79 Y106.42
G1 F7200 X106.42 Y188.79 E4825.45212
G0 F6000 X106.42 Y188.08
G1 F7200 X188.08 Y106.42 E4830.25335
G0 F6000 X187.38 Y106.42
G1 F7200 X106.42 Y187.38 E4835.01296
G0 F6000 X106.42 Y186.67
G1 F7200 X186.67 Y106.42 E4839.73100
G0 F6000 X185.96 Y106.42
G1 F7200 X106.42 Y185.96 E4844.40747
G0 F6000 X106.42 Y185.25
G1 F7200 X185.25 Y106.42 E4849.04237
G0 F6000 X184.55 Y106.42
G1 F7200 X106.42 Y184.55 E4853.63571
G0 F6000 X106.42 Y183.84
G1 F7200 X183.84 Y106.42 E4858.18747
G0 F6000 X183.13 Y106.42
G1 F7200 X106.42 Y183.13 E4862.69766
G0 F6000 X106.42 Y182.43
G1 F7200 X182.43 Y106.42 E4867.16629
G0 F6000 X181.72 Y106.42
G1 F7200 X106.42 Y181.72 E4871.59335
G0 F6000 X106.42 Y181.01
G1 F7200 X181.01 Y106.42 E4875.97878
G0 F6000 X180.31 Y106.42
G1 F7200 X106.42 Y180.31 E4880.32264
G0 F6000 X106.42 Y179.60
G1 F7200 X179.60 Y106.42 E4884.62493
G0 F6000 X178.89 Y106.42
G1 F7200 X106.42 Y178.89 E4888.88565
G0 F6000 X106.42 Y178.18
G1 F7200 X178.18 Y106.42 E4893.10481
G0 F6000 X177.48 Y106.42
G1 F7200 X106.42 Y177.48 E4897.28239
G0 F6000 X106.42 Y176.77
G1 F7200 X176.77 Y106.42 E4901.41841
G0 F6000 X176.06 Y106.42
G1 F7200 X106.42 Y176.06 E4905.51286
G0 F6000 X106.42 Y175.36
G1 F7200 X175.36 Y106.42 E4909.56574
G0 F6000 X174.65 Y106.42
G1 F7200 X106.42 Y174.65 E4913.57705
G0 F6000 X106.42 Y173.94
G1 F7200 X173.94 Y106.42 E4917.54673
G0 F6000 X173.23 Y106.42
G1 F7200 X106.42 Y173.23 E4921.47484
G0 F6000 X106.42 Y172.53
G1 F7200 X172.53 Y106.42 E4925.36139
G0 F6000 X171.82 Y106.42
G1 F7200 X106.42 Y171.82 E4929.20636
G0 F6000 X106.42 Y171.11
G1 F7200 X171.11 Y106.42 E4933.00977
G0 F6000 X170.41 Y106.42
G1 F7200 X106.42 Y170.41 E4936.77161
G0 F6000 X106.42 Y169.70
G1 F7200 X169.70 Y106.42 E4940.49187
G0 F6000 X168.99 Y106.42
G1 F7200 X106.42 Y168.99 E4944.17057
G0 F6000 X106.42 Y168.28
G1 F7200 X168.28 Y106.42 E4947.80770
G0 F6000 X167.58 Y106.42
G1 F7200 X106.42 Y167.58 E4951.40321
G0 F6000 X106.42 Y166.87
G1 F7200 X166.87 Y106.42 E4954.95714
G0 F6000 X166.16 Y106.42
G1 F7200 X106.42 Y166.16 E4958.46951
G0 F6000 X106.42 Y165.46
G1 F7200 X165.46 Y106.42 E4961.94030
G0 F6000 X164.75 Y106.42
G1 F7200 X106.42 Y164.75 E4965.36953
G0 F6000 X106.42 Y164.04
G1 F7200 X164.04 Y106.42 E4968.75719
G0 F6000 X163.34 Y106.42
G1 F7200 X106.42 Y163.34 E4972.10328
G0 F6000 X106.42 Y162.63
G1 F7200 X162.63 Y106.42 E4975.40780
G0 F6000 X161.92 Y106.42
G1 F7200 X106.42 Y161.92 E4978.67075
G0 F6000 X106.42 Y161.21
G1 F7200 X161.21 Y106.42 E4981.89208
G0 F6000 X160.51 Y106.42
G1 F7200 X106.42 Y160.51 E4985.07183
G0 F6000 X106.42 Y159.80
G1 F7200 X159.80 Y106.42 E4988.21002
G0 F6000 X159.09 Y106.42
G1 F7200 X106.42 Y159.09 E4991.30664
G0 F6000 X106.42 Y158.38
G1 F7200 X158.38 Y106.42 E4994.36169
G0 F6000 X157.68 Y106.42
G1 F7200 X106.42 Y157.68 E4997.37517
G0 F6000 X106.42 Y156.97
G1 F7200 X156.97 Y106.42 E5000.34708
G0 F6000 X156.26 Y106.42
G1 F7200 X106.42 Y156.26 E5003.27742
G0 F6000 X106.42 Y155.56
G1 F7200 X155.56 Y106.42 E5006.16619
G0 F6000 X154.85 Y106.42
G1 F7200 X106.42 Y154.85 E5009.01340
G0 F6000 X106.42 Y154.14
G1 F7200 X154.14 Y106.42 E5011.81897
G0 F6000 X153.44 Y106.42
G1 F7200 X106.42 Y153.44 E5014.58298
G0 F6000 X106.42 Y152.73
G1 F7200 X152.73 Y106.42 E5017.30542
G0 F6000 X152.02 Y106.42
G1 F7200 X106.42 Y152.02 E5019.98629
G0 F6000 X106.42 Y151.31
G1 F7200 X151.31 Y106.42 E5022.62559
G0 F6000 X150.61 Y106.42
G1 F7200 X106.42 Y150.61 E5025.22332
G0 F6000 X106.42 Y149.90
G1 F7200 X149.90 Y106.42 E5027.77949
G0 F6000 X149.19 Y106.42
G1 F7200 X106.42 Y149.19 E5030.29408
G0 F6000 X106.42 Y148.49
G1 F7200 X148.49 Y106.42 E5032.76711
G0 F6000 X147.78 Y106.42
G1 F7200 X106.42 Y147.78 E5035.19851
G0 F6000 X106.42 Y147.07
G1 F7200 X147.07 Y106.42 E5037.58834
G0 F6000 X146.36 Y106.42
G1 F7200 X106.42 Y146.36 E5039.93660
G0 F6000 X106.42 Y145.66
G1 F7200 X145.66 Y106.42 E5042.24329
G0 F6000 X144.95 Y106.42
G1 F7200 X106.42 Y144.95 E5044.50841
G0 F6000 X106.42 Y144.24
G1 F7200 X144.24 Y106.42 E5046.73196
G0 F6000 X143.54 Y106.42
G1 F7200 X106.42 Y143.54 E5048.91395
G0 F6000 X106.42 Y142.83
G1 F7200 X142.83 Y106.42 E5051.05436
G0 F6000 X142.12 Y106.42
G1 F7200 X106.42 Y142.12 E5053.15321
G0 F6000 X106.42 Y141.41
G1 F7200 X141.41 Y106.42 E5055.21043
G0 F6000 X140.71 Y106.42
G1 F7200 X106.42 Y140.71 E5057.22608
G0 F6000 X106.42 Y140.00
G1 F7200 X140.00 Y106.42 E5059.20016
G0 F6000 X139.29 Y106.42
G1 F7200 X106.42 Y139.29 E5061.13267
G0 F6000 X106.42 Y138.59
G1 F7200 X138.59 Y106.42 E5063.02362
G0 F6000 X137.88 Y106.42
G1 F7200 X106.42 Y137.88 E5064.87299
G0 F6000 X106.42 Y137.17
G1 F7200 X137.17 Y106.42 E5066.68080
G0 F6000 X136.47 Y106.42
G1 F7200 X106.42 Y136.47 E5068.44703
G0 F6000 X106.42 Y135.76
G1 F7200 X135.76 Y106.42 E5070.17170
G0 F6000 X135.05 Y106.42
G1 F7200 X106.42 Y135.05 E5071.85480
G0 F6000 X106.42 Y134.34
G1 F7200 X134.34 Y106.42 E5073.49627
G0 F6000 X133.64 Y106.42
G1 F7200 X106.42 Y133.64 E5075.09617
G0 F6000 X106.42 Y132.93
G1 F7200 X132.93 Y106.42 E5076.65451
G0 F6000 X132.22 Y106.42
G1 F7200 X106.42 Y132.22 E5078.17127
G0 F6000 X106.42 Y131.51
G1 F7200 X131.51 Y106.42 E5079.64647
G0 F6000 X130.81 Y106.42
G1 F7200 X106.42 Y130.81 E5081.08010
G0 F6000 X106.42 Y130.10
G1 F7200 X130.10 Y106.42 E5082.47215
G0 F6000 X129.39 Y106.42
G1 F7200 X106.42 Y129.39 E5083.82264
G0 F6000 X106.42 Y128.69
G1 F7200 X128.69 Y106.42 E5085.13156
G0 F6000 X127.98 Y106.42
G1 F7200 X106.42 Y127.98 E5086.39886
G0 F6000 X106.42 Y127.27
G1 F7200 X127.27 Y106.42 E5087.62458
G0 F6000 X126.56 Y106.42
G1 F7200 X106.42 Y126.56 E5088.80873
G0 F6000 X106.42 Y125.86
G1 F7200 X125.86 Y106.42 E5089.95132
G0 F6000 X125.15 Y106.42
G1 F7200 X106.42 Y125.15 E5091.05234
G0 F6000 X106.42 Y124.44
G1 F7200 X124.44 Y106.42 E5092.11179
G0 F6000 X123.74 Y106.42
G1 F7200 X106.42 Y123.74 E5093.12966
G0 F6000 X106.42 Y123.03
G1 F7200 X123.03 Y106.42 E5094.10598
G0 F6000 X122.32 Y106.42
G1 F7200 X106.42 Y122.32 E5095.04072
G0 F6000 X106.42 Y121.62
G1 F7200 X121.62 Y106.42 E5095.93389
G0 F6000 X120.91 Y106.42
G1 F7200 X106.42 Y120.91 E5096.78543
G0 F6000 X106.42 Y120.20
G1 F7200 X120.20 Y106.42 E5097.59541
G0 F6000 X119.49 Y106.42
G1 F7200 X106.42 Y119.49 E5098.36382
G0 F6000 X106.42 Y118.79
G1 F7200 X118.79 Y106.42 E5099.09066
G0 F6000 X118.08 Y106.42
G1 F7200 X106.42 Y118.08 E5099.77592
G0 F6000 X106.42 Y117.37
G1 F7200 X117.37 Y106.42 E5100.41963
G0 F6000 X116.67 Y106.42
G1 F7200 X106.42 Y116.67 E5101.02176
G0 F6000 X106.42 Y115.96
G1 F7200 X115.96 Y106.42 E5101.58232
G0 F6000 X115.25 Y106.42
G1 F7200 X106.42 Y115.25 E5102.10131
G0 F6000 X106.42 Y114.54
G1 F7200 X114.54 Y106.42 E5102.57868
G0 F6000 X113.84 Y106.42
G1 F7200 X106.42 Y113.84 E5103.01448
G0 F6000 X106.42 Y113.13
G1 F7200 X113.13 Y106.42 E5103.40870
G0 F6000 X112.42 Y106.42
G1 F7200 X106.42 Y112.42 E5103.76136
G0 F6000 X106.42 Y111.72
G1 F7200 X111.72 Y106.42 E5104.07245
G0 F6000 X111.01 Y106.42
G1 F7200 X106.42 Y111.01 E5104.34198
G0 F6000 X106.42 Y110.30
G1 F7200 X110.30 Y106.42 E5104.56993
G0 F6000 X109.59 Y106.42
G1 F7200 X106.42 Y109.59 E5104.75631
G0 F6000 X106.42 Y108.89
G1 F7200 X108.89 Y106.42 E5104.90113
G0 F6000 X108.18 Y106.42
G1 F7200 X106.42 Y108.18 E5105.00432
G0 F6000 X106.42 Y107.47
G1 F7200 X107.47 Y106.42 E5105.06593
G0 F6000 X106.77 Y106.42
G1 F7200 X106.42 Y106.77 E5105.08598
G0 F6000 X107.25 Y198.57
G1 F7200 X198.57 Y107.25 E5110.45545
G0 F6000 X198.57 Y107.96
G1 F7200 X107.96 Y198.57 E5115.78336
G0 F6000 X108.66 Y198.57
G1 F7200 X198.57 Y108.66 E5121.06969
G0 F6000 X198.57 Y109.37
G1 F7200 X109.37 Y198.57 E5126.31443
G0 F6000 X110.08 Y198.57
G1 F7200 X198.57 Y110.08 E5131.51759
G0 F6000 X198.57 Y110.78
G1 F7200 X110.78 Y198.57 E5136.67919
G0 F6000 X111.49 Y198.57
G1 F7200 X198.57 Y111.49 E5141.79919
G0 F6000 X198.57 Y112.20
G1 F7200 X112.20 Y198.57 E5146.87762
G0 F6000 X112.91 Y198.57
G1 F7200 X198.57 Y112.91 E5151.91448
G0 F6000 X198.57 Y113.61
G1 F7200 X113.61 Y198.57 E5156.90978
G0 F6000 X114.32 Y198.57
G1 F7200 X198.57 Y114.32 E5161.86350
G0 F6000 X198.57 Y115.03
G1 F7200 X115.03 Y198.57 E5166.77566
G0 F6000 X115.73 Y198.57
G1 F7200 X198.57 Y115.73 E5171.64624
G0 F6000 X198.57 Y116.44
G1 F7200 X116.44 Y198.57 E5176.47523
G0 F6000 X117.15 Y198.57
G1 F7200 X198.57 Y117.15 E5181.26265
G0 F6000 X198.57 Y117.86
G1 F7200 X117.86 Y198.57 E5186.00847
G0 F6000 X118.56 Y198.57
G1 F7200 X198.57 Y118.56 E5190.71272
G0 F6000 X198.57 Y119.27
G1 F7200 X119.27 Y198.57 E5195.37541
G0 F6000 X119.98 Y198.57
G1 F7200 X198.57 Y119.98 E5199.99652
G0 F6000 X198.57 Y120.69
G1 F7200 X120.68 Y198.57 E5204.57607
G0 F6000 X121.39 Y198.57
G1 F7200 X198.57 Y121.39 E5209.11404
G0 F6000 X198.57 Y122.10
G1 F7200 X122.10 Y198.57 E5213.61045
G0 F6000 X122.81 Y198.57
G1 F7200 X198.57 Y122.81 E5218.06526
G0 F6000 X198.57 Y123.51
G1 F7200 X123.51 Y198.57 E5222.47850
G0 F6000 X124.22 Y198.57
G1 F7200 X198.57 Y124.22 E5226.85017
G0 F6000 X198.57 Y124.93
G1 F7200 X124.93 Y198.57 E5231.18024
G0 F6000 X125.63 Y198.57
G1 F7200 X198.57 Y125.64 E5235.46875
G0 F6000 X198.57 Y126.34
G1 F7200 X126.34 Y198.57 E5239.71568
G0 F6000 X127.05 Y198.57
G1 F7200 X198.57 Y127.05 E5243.92105
G0 F6000 X198.57 Y127.76
G1 F7200 X127.75 Y198.57 E5248.08485
G0 F6000 X128.46 Y198.57
G1 F7200 X198.57 Y128.46 E5252.20708
G0 F6000 X198.57 Y129.17
G1 F7200 X129.17 Y198.57 E5256.28771
G0 F6000 X129.88 Y198.57
G1 F7200 X198.57 Y129.88 E5260.32677
G0 F6000 X198.57 Y130.58
G1 F7200 X130.58 Y198.57 E5264.32426
G0 F6000 X131.29 Y198.57
G1 F7200 X198.57 Y131.29 E5268.28016
G0 F6000 X198.57 Y132.00
G1 F7200 X132.00 Y198.57 E5272.19448
G0 F6000 X132.71 Y198.57
G1 F7200 X198.57 Y132.71 E5276.06724
G0 F6000 X198.57 Y133.41
G1 F7200 X133.41 Y198.57 E5279.89843
G0 F6000 X134.12 Y198.57
G1 F7200 X198.57 Y134.12 E5283.68804
G0 F6000 X198.57 Y134.83
G1 F7200 X134.83 Y198.57 E5287.43609
G0 F6000 X135.53 Y198.57
G1 F7200 X198.57 Y135.53 E5291.14257
G0 F6000 X198.57 Y136.24
G1 F7200 X136.24 Y198.57 E5294.80746
G0 F6000 X136.95 Y198.57
G1 F7200 X198.57 Y136.95 E5298.43077
G0 F6000 X198.57 Y137.66
G1 F7200 X137.66 Y198.57 E5302.01249
G0 F6000 X138.36 Y198.57
G1 F7200 X198.57 Y138.36 E5305.55263
G0 F6000 X198.57 Y139.07
G1 F7200 X139.07 Y198.57 E5309.05121
G0 F6000 X139.78 Y198.57
G1 F7200 X198.57 Y139.78 E5312.50822
G0 F6000 X198.57 Y140.48
G1 F7200 X140.48 Y198.57 E5315.92366
G0 F6000 X141.19 Y198.57
G1 F7200 X198.57 Y141.19 E5319.29753
G0 F6000 X198.57 Y141.90
G1 F7200 X141.90 Y198.57 E5322.62983
G0 F6000 X142.60 Y198.57
G1 F7200 X198.57 Y142.60 E5325.92054
G0 F6000 X198.57 Y143.31
G1 F7200 X143.31 Y198.57 E5329.16967
G0 F6000 X144.02 Y198.57
G1 F7200 X198.57 Y144.02 E5332.37724
G0 F6000 X198.57 Y144.73
G1 F7200 X144.73 Y198.57 E5335.54321
G0 F6000 X145.43 Y198.57
G1 F7200 X198.57 Y145.43 E5338.66761
G0 F6000 X198.57 Y146.14
G1 F7200 X146.14 Y198.57 E5341.75044
G0 F6000 X146.85 Y198.57
G1 F7200 X198.57 Y146.85 E5344.79170
G0 F6000 X198.57 Y147.56
G1 F7200 X147.55 Y198.57 E5347.79139
G0 F6000 X148.26 Y198.57
G1 F7200 X198.57 Y148.26 E5350.74951
G0 F6000 X198.57 Y148.97
G1 F7200 X148.97 Y198.57 E5353.66604
G0 F6000 X149.68 Y198.57
G1 F7200 X198.57 Y149.68 E5356.54099
G0 F6000 X198.57 Y150.38
G1 F7200 X150.38 Y198.57 E5359.37438
G0 F6000 X151.09 Y198.57
G1 F7200 X198.57 Y151.09 E5362.16617
G0 F6000 X198.57 Y151.80
G1 F7200 X151.80 Y198.57 E5364.91639
G0 F6000 X152.50 Y198.57
G1 F7200 X198.57 Y152.50 E5367.62504
G0 F6000 X198.57 Y153.21
G1 F7200 X153.21 Y198.57 E5370.29212
G0 F6000 X153.92 Y198.57
G1 F7200 X198.57 Y153.92 E5372.91764
G0 F6000 X198.57 Y154.63
G1 F7200 X154.62 Y198.57 E5375.50158
G0 F6000 X155.33 Y198.57
G1 F7200 X198.57 Y155.33 E5378.04396
G0 F6000 X198.57 Y156.04
G1 F7200 X156.04 Y198.57 E5380.54473
G0 F6000 X156.75 Y198.57
G1 F7200 X198.57 Y156.75 E5383.00394
