;-- START GCODE --
;Sliced for Type A Machines Series 1
;Sliced at: Tue 08-03-2016 19:06:50
;Basic settings: Layer height: 0.2 Walls: 1 Fill: 40
;Print Speed: 100 Support: 0
;Retraction Speed: 40 Retraction Distance: 1.2
;Print time: #P_TIME#
;Filament used: #F_AMNT#m #F_WGHT#g
;Filament cost: #F_COST#
M106 S255	 ;start with the fan on
G21        ;metric values
G90        ;absolute positioning
M106 S255    ;start with the fan on
G28     ;move to endstops
G29		;allows for auto-levelling
G1 X150 Y5  Z15.0 F6000 ;center and move the platform down 15mm
M109 S220 ;Heat To temp
G92 E0                  ;zero the extruded length
G1 F200 E30              ;extrude 30mm of feed stock
G92 E0                  ;zero the extruded length again
G1 X175 Y25  Z0 F6000 ;remove bugger
G1 X220 F6000 ;remove bugger
G1 X150 Y150  Z15 F6000 ;recenter and begin
G1 F6000

;Layer count: 96
;LAYER:0
M106 S255
G0 F6000 X138.10 Y121.05 Z0.30
;TYPE:SKIRT
G1 F2700 X176.08 Y121.05 E2.36885
G1 X172.49 Y118.10 E2.65878
G1 X167.69 Y115.54 E2.99787
G1 X162.50 Y113.96 E3.33660
G1 X157.09 Y113.43 E3.67543
G1 X151.68 Y113.96 E4.01420
G1 X146.48 Y115.54 E4.35294
G1 X141.69 Y118.10 E4.69181
G1 X138.10 Y121.05 E4.98186
G0 F6000 X137.14 Y121.19
G1 F2700 X136.84 Y121.55 E5.01084
G1 X177.34 Y121.55 E7.53616
G1 X177.04 Y121.19 E7.56505
G1 X172.76 Y117.68 E7.91013
G1 X167.89 Y115.08 E8.25497
G1 X162.59 Y113.47 E8.60037
G1 X157.09 Y112.93 E8.94503
G1 X151.59 Y113.47 E9.28962
G1 X146.29 Y115.08 E9.63502
G1 X141.41 Y117.69 E9.97989
G1 X137.14 Y121.19 E10.32480
G0 F6000 X136.78 Y120.84
G1 F2700 X135.78 Y122.05 E10.42277
G1 X178.39 Y122.05 E13.07992
G1 X177.40 Y120.84 E13.17785
G1 X173.05 Y117.27 E13.52888
G1 X168.08 Y114.61 E13.88025
G1 X162.69 Y112.98 E14.23123
G1 X157.09 Y112.43 E14.58235
G1 X151.49 Y112.98 E14.93340
G1 X146.10 Y114.61 E15.28439
G1 X141.13 Y117.27 E15.63576
G1 X136.78 Y120.84 E15.98669
G0 F6000 X136.43 Y120.48
G1 F2700 X134.73 Y122.55 E16.15369
G1 X179.45 Y122.55 E18.94280
G1 X177.75 Y120.49 E19.10955
G1 X173.32 Y116.85 E19.46714
G1 X168.27 Y114.15 E19.82425
G1 X162.78 Y112.48 E20.18183
G1 X157.09 Y111.92 E20.53883
G1 X151.39 Y112.48 E20.89576
G1 X145.91 Y114.15 E21.25334
G1 X140.85 Y116.85 E21.61068
G1 X136.43 Y120.48 E21.96774
G0 F6000 X136.07 Y120.13
G1 F2700 X133.67 Y123.05 E22.20373
G1 X180.51 Y123.05 E25.12468
G1 X178.11 Y120.13 E25.36067
G1 X173.60 Y116.43 E25.72411
G1 X168.46 Y113.68 E26.08759
G1 X162.89 Y111.99 E26.45069
G1 X157.09 Y111.42 E26.81427
G1 X151.29 Y111.99 E27.17779
G1 X145.72 Y113.68 E27.54089
G1 X140.57 Y116.43 E27.90437
G1 X136.07 Y120.13 E28.26776
G0 F6000 X135.72 Y119.77
G1 F2700 X132.61 Y123.55 E28.57274
G1 X181.56 Y123.55 E31.62552
G1 X178.46 Y119.77 E31.93042
G1 X173.88 Y116.01 E32.30010
G1 X168.66 Y113.22 E32.66944
G1 X162.98 Y111.50 E33.03926
G1 X157.09 Y110.92 E33.40867
G1 X151.19 Y111.50 E33.77802
G1 X145.52 Y113.22 E34.14784
G1 X140.30 Y116.01 E34.51718
G1 X135.72 Y119.77 E34.88672
G0 F6000 X135.36 Y119.42
G1 F2700 X131.56 Y124.05 E35.26070
G1 X182.62 Y124.05 E38.44532
G1 X178.81 Y119.42 E38.81947
G1 X174.16 Y115.60 E39.19486
G1 X168.85 Y112.75 E39.57079
G1 X163.09 Y111.01 E39.94615
G1 X157.08 Y110.42 E40.32233
G1 X151.09 Y111.01 E40.69756
G1 X145.33 Y112.75 E41.07319
G1 X140.02 Y115.59 E41.44889
G1 X135.36 Y119.42 E41.82464
G0 F6000 X135.01 Y119.06
G1 F2700 X131.12 Y123.80 E42.20654
G1 X130.72 Y124.55 E42.26008
G1 X183.46 Y124.55 E45.54953
G1 X183.06 Y123.80 E45.60304
G1 X179.17 Y119.06 E45.98490
G1 X174.44 Y115.18 E46.36690
G1 X169.04 Y112.29 E46.74849
G1 X163.18 Y110.52 E47.13049
G1 X157.09 Y109.91 E47.51225
G1 X151.00 Y110.52 E47.89394
G1 X145.13 Y112.29 E48.27594
G1 X139.74 Y115.18 E48.65753
G1 X135.01 Y119.06 E49.03943
G0 F6000 X134.65 Y118.71
G1 F2700 X130.70 Y123.52 E49.42741
G1 X129.88 Y125.05 E49.53611
G1 X184.30 Y125.05 E52.92964
G1 X183.47 Y123.52 E53.03834
G1 X179.53 Y118.71 E53.42632
G1 X174.72 Y114.76 E53.81435
G1 X169.23 Y111.83 E54.20224
G1 X163.28 Y110.02 E54.59030
G1 X157.09 Y109.41 E54.97820
G1 X150.90 Y110.02 E55.36604
G1 X144.94 Y111.83 E55.75409
G1 X139.46 Y114.76 E56.14199
G1 X134.65 Y118.71 E56.52997
G0 F6000 X134.29 Y118.35
G1 F2700 X130.28 Y123.24 E56.92415
G1 X129.05 Y125.55 E57.08787
G1 X185.13 Y125.55 E60.58542
G1 X183.90 Y123.24 E60.74897
G1 X179.88 Y118.35 E61.14333
G1 X175.00 Y114.34 E61.53757
G1 X169.43 Y111.36 E61.93146
G1 X163.38 Y109.53 E62.32566
G1 X157.09 Y108.91 E62.71976
G1 X150.80 Y109.53 E63.11379
G1 X144.75 Y111.36 E63.50800
G1 X139.18 Y114.34 E63.90189
G1 X134.29 Y118.35 E64.29608
G0 F6000 X133.94 Y118.00
G1 F2700 X129.87 Y122.96 E64.69642
G1 X128.21 Y126.05 E64.91521
G1 X185.97 Y126.05 E68.51678
G1 X184.31 Y122.96 E68.73563
G1 X180.24 Y117.99 E69.13614
G1 X175.28 Y113.93 E69.53610
G1 X169.62 Y110.90 E69.93643
G1 X163.47 Y109.04 E70.33670
G1 X157.09 Y108.41 E70.73693
G1 X150.70 Y109.04 E71.13711
G1 X144.56 Y110.90 E71.53737
G1 X138.90 Y113.92 E71.93749
G1 X133.94 Y118.00 E72.33783
G0 F6000 X133.58 Y117.64
G1 F2700 X129.45 Y122.68 E72.74433
G1 X127.38 Y126.55 E73.01823
G1 X186.80 Y126.55 E76.72389
G1 X184.73 Y122.68 E76.99780
G1 X180.59 Y117.64 E77.40421
G1 X175.56 Y113.51 E77.81076
G1 X169.81 Y110.44 E78.21687
G1 X163.57 Y108.54 E78.62339
G1 X157.09 Y107.91 E79.02983
G1 X150.60 Y108.54 E79.43621
G1 X144.37 Y110.44 E79.84273
G1 X138.62 Y113.51 E80.24879
G1 X133.58 Y117.64 E80.65529
G0 F6000 X133.23 Y117.29
G1 F2700 X129.03 Y122.40 E81.06791
G1 X126.54 Y127.05 E81.39693
G1 X187.63 Y127.05 E85.20667
G1 X185.15 Y122.40 E85.53569
G1 X180.95 Y117.29 E85.94831
G1 X175.83 Y113.09 E86.36097
G1 X170.00 Y109.97 E86.77330
G1 X163.67 Y108.05 E87.18588
G1 X157.09 Y107.40 E87.59846
G1 X150.50 Y108.05 E88.01099
G1 X144.17 Y109.97 E88.42356
G1 X138.34 Y113.09 E88.83589
G1 X133.23 Y117.29 E89.24851
G0 F6000 X132.87 Y116.93
G1 F2700 X128.61 Y122.12 E89.66733
G1 X125.77 Y127.45 E90.04395
G1 X125.81 Y127.55 E90.05102
G1 X188.21 Y127.55 E93.94221
G1 X188.21 Y127.06 E93.97277
G1 X185.56 Y122.12 E94.32213
G1 X181.30 Y116.93 E94.74095
G1 X176.11 Y112.67 E95.15981
G1 X170.20 Y109.51 E95.57817
G1 X163.76 Y107.56 E95.99726
G1 X157.09 Y106.90 E96.41567
G1 X150.41 Y107.56 E96.83402
G1 X143.98 Y109.51 E97.25311
G1 X138.06 Y112.67 E97.67147
G1 X132.87 Y116.93 E98.09029
G0 F6000 X132.52 Y116.58
G1 F2700 X128.20 Y121.84 E98.51517
G1 X125.21 Y127.42 E98.90971
G1 X125.47 Y128.05 E98.95237
G1 X188.71 Y128.05 E102.89557
G1 X188.71 Y127.36 E102.93847
G1 X188.93 Y127.36 E102.95276
G1 X185.98 Y121.84 E103.34330
G1 X181.66 Y116.58 E103.76818
G1 X176.39 Y112.25 E104.19312
G1 X170.39 Y109.04 E104.61778
G1 X163.87 Y107.07 E105.04253
G1 X157.09 Y106.40 E105.46747
G1 X150.31 Y107.07 E105.89234
G1 X143.79 Y109.04 E106.31709
G1 X137.78 Y112.25 E106.74175
G1 X132.52 Y116.58 E107.16664
G0 F6000 X130.33 Y114.53
G1 F2700 X130.40 Y114.45 E107.17297
G1 X136.04 Y109.82 E107.62808
G1 X136.12 Y109.76 E107.63442
G1 X142.64 Y106.27 E108.09599
G1 X149.63 Y104.15 E108.55112
G1 X149.72 Y104.12 E108.55739
G1 X156.99 Y103.41 E109.01253
G1 X157.09 Y103.39 E109.01886
G1 X164.35 Y104.11 E109.47417
G1 X164.45 Y104.12 E109.48051
G1 X171.44 Y106.24 E109.93576
G1 X171.54 Y106.27 E109.94205
G1 X178.06 Y109.76 E110.40348
G1 X183.71 Y114.39 E110.85873
G1 X183.78 Y114.45 E110.86506
G1 X188.41 Y120.09 E111.32004
G1 X188.48 Y120.17 E111.32646
G1 X191.97 Y126.70 E111.78806
G1 X192.17 Y127.36 E111.83141
G1 X192.91 Y127.36 E111.87737
G1 X192.91 Y129.80 E112.02903
G1 X194.08 Y133.68 E112.28221
G1 X194.11 Y133.78 E112.28862
G1 X194.21 Y134.75 E112.34921
G1 X191.21 Y134.75 E112.53649
G1 X191.19 Y134.55 E112.54864
G1 X122.99 Y134.55 E116.80160
G1 X122.97 Y134.75 E116.81376
G1 X119.97 Y134.75 E117.00097
G1 X120.06 Y133.78 E117.06151
G1 X121.11 Y130.35 E117.28529
G1 X121.11 Y127.36 E117.47125
G1 X122.01 Y127.36 E117.52763
G1 X122.18 Y126.80 E117.56478
G1 X122.21 Y126.70 E117.57107
G1 X125.70 Y120.17 E118.03256
G1 X130.33 Y114.53 E118.48776
G0 F6000 X129.95 Y114.21
G1 F2700 X130.04 Y114.10 E118.49715
G1 X135.72 Y109.44 E118.95527
G1 X135.83 Y109.34 E118.96452
G1 X142.32 Y105.88 E119.42288
G1 X142.32 Y105.88 E119.42295
G1 X142.45 Y105.81 E119.43235
G1 X149.48 Y103.67 E119.89061
G1 X149.48 Y103.67 E119.89068
G1 X149.62 Y103.63 E119.89985
G1 X156.93 Y102.91 E120.35799
G1 X157.09 Y102.89 E120.36752
G1 X164.40 Y103.61 E120.82616
G1 X164.55 Y103.63 E120.83550
G1 X171.59 Y105.76 E121.29393
G1 X171.73 Y105.81 E121.30330
G1 X178.21 Y109.27 E121.76136
G1 X178.34 Y109.34 E121.77070
G1 X184.02 Y114.00 E122.22910
G1 X184.14 Y114.10 E122.23849
G1 X188.80 Y119.78 E122.69657
G1 X188.89 Y119.89 E122.70582
G1 X192.36 Y126.37 E123.16424
G1 X192.43 Y126.51 E123.17365
G1 X192.54 Y126.86 E123.19698
G1 X193.41 Y126.86 E123.25099
G1 X193.41 Y129.72 E123.42910
G1 X194.56 Y133.54 E123.67791
G1 X194.56 Y133.54 E123.67797
G1 X194.61 Y133.68 E123.68714
G1 X194.76 Y135.25 E123.78539
G1 X190.75 Y135.25 E124.03540
G1 X190.73 Y135.05 E124.04756
G1 X123.44 Y135.05 E128.24395
G1 X123.42 Y135.25 E128.25611
G1 X119.42 Y135.25 E128.50594
G1 X119.57 Y133.68 E128.60395
G1 X120.61 Y130.27 E128.82623
G1 X120.61 Y126.86 E129.03870
G1 X121.64 Y126.86 E129.10312
G1 X121.70 Y126.65 E129.11732
G1 X121.75 Y126.50 E129.12669
G1 X125.21 Y120.03 E129.58481
G1 X125.28 Y119.89 E129.59415
G1 X129.95 Y114.21 E130.05250
G0 F6000 X129.56 Y113.89
G1 F2700 X129.69 Y113.74 E130.06494
G1 X135.40 Y109.05 E130.52554
G1 X135.40 Y109.05 E130.52560
G1 X135.55 Y108.92 E130.53832
G1 X142.08 Y105.44 E130.99975
G1 X142.26 Y105.34 E131.01228
G1 X149.34 Y103.19 E131.47366
G1 X149.52 Y103.14 E131.48569
G1 X154.30 Y102.67 E131.78523
G1 X116.31 Y102.67 E134.15476
G1 X116.31 Y102.32 E134.17653
G1 X114.28 Y102.32 E134.30312
G1 X114.49 Y100.15 E134.43861
G1 X115.50 Y96.80 E134.65692
G1 X115.50 Y92.97 E134.89633
G1 X116.67 Y92.97 E134.96905
G1 X116.70 Y92.88 E134.97473
G1 X120.18 Y86.36 E135.43574
G1 X120.28 Y86.18 E135.44822
G1 X124.97 Y80.46 E135.90967
G1 X125.10 Y80.31 E135.92216
G1 X130.81 Y75.62 E136.38277
G1 X130.81 Y75.62 E136.38283
G1 X130.97 Y75.49 E136.39554
G1 X137.49 Y72.00 E136.85692
G1 X137.67 Y71.91 E136.86945
G1 X144.75 Y69.76 E137.33089
G1 X144.93 Y69.70 E137.34292
G1 X152.30 Y68.98 E137.80464
G1 X152.50 Y68.96 E137.81686
G1 X159.87 Y69.68 E138.27869
G1 X160.06 Y69.70 E138.29111
G1 X167.15 Y71.85 E138.75263
G1 X167.34 Y71.91 E138.76512
G1 X173.86 Y75.40 E139.22608
G1 X174.03 Y75.49 E139.23852
G1 X179.75 Y80.19 E139.70006
G1 X179.91 Y80.31 E139.71250
G1 X184.59 Y86.02 E140.17310
G1 X184.59 Y86.02 E140.17317
G1 X184.72 Y86.18 E140.18588
G1 X188.21 Y92.71 E140.64731
G1 X188.31 Y92.88 E140.65984
G1 X188.33 Y92.97 E140.66518
G1 X189.31 Y92.97 E140.72599
G1 X189.31 Y96.18 E140.92655
G1 X190.45 Y99.95 E141.17216
G1 X190.51 Y100.15 E141.18504
G1 X190.72 Y102.32 E141.32097
G1 X188.50 Y102.32 E141.45941
G1 X188.50 Y102.67 E141.48118
G1 X159.88 Y102.67 E143.26631
G1 X164.46 Y103.11 E143.55300
G1 X164.65 Y103.14 E143.56542
G1 X171.74 Y105.28 E144.02694
G1 X171.93 Y105.34 E144.03942
G1 X178.44 Y108.83 E144.50038
G1 X178.62 Y108.92 E144.51283
G1 X184.34 Y113.62 E144.97436
G1 X184.50 Y113.75 E144.98685
G1 X189.18 Y119.45 E145.44738
G1 X189.18 Y119.45 E145.44744
G1 X189.31 Y119.61 E145.46015
G1 X192.80 Y126.14 E145.92161
G1 X192.89 Y126.31 E145.93414
G1 X192.91 Y126.36 E145.93746
G1 X193.91 Y126.36 E145.99957
G1 X193.91 Y129.65 E146.20431
G1 X195.04 Y133.38 E146.44758
G1 X195.10 Y133.58 E146.46051
G1 X195.31 Y135.75 E146.59636
G1 X190.30 Y135.75 E146.90911
G1 X190.28 Y135.55 E146.92126
G1 X123.89 Y135.55 E151.06115
G1 X123.88 Y135.75 E151.07331
G1 X118.86 Y135.75 E151.38581
G1 X119.08 Y133.59 E151.52129
G1 X120.11 Y130.20 E151.74195
G1 X120.11 Y126.36 E151.98105
G1 X121.27 Y126.36 E152.05364
G1 X121.29 Y126.31 E152.05731
G1 X124.77 Y119.79 E152.51833
G1 X124.87 Y119.61 E152.53080
G1 X129.56 Y113.89 E152.99225
G0 F6000 X129.17 Y113.58
G1 F2700 X129.33 Y113.38 E153.00783
G1 X135.09 Y108.66 E153.47190
G1 X135.27 Y108.51 E153.48713
G1 X141.84 Y105.00 E153.95169
G1 X142.06 Y104.88 E153.96726
G1 X147.71 Y103.17 E154.33507
G1 X115.81 Y103.17 E156.32463
G1 X115.81 Y102.82 E156.34639
G1 X113.72 Y102.82 E156.47623
G1 X114.00 Y100.06 E156.64919
G1 X115.00 Y96.73 E156.86601
G1 X115.00 Y92.47 E157.13192
G1 X116.35 Y92.47 E157.21592
G1 X119.74 Y86.12 E157.66447
G1 X119.86 Y85.90 E157.67993
G1 X124.58 Y80.14 E158.14452
G1 X124.75 Y79.95 E158.16011
G1 X130.50 Y75.23 E158.62422
G1 X130.69 Y75.08 E158.63945
G1 X137.25 Y71.56 E159.10396
G1 X137.47 Y71.45 E159.11953
G1 X144.60 Y69.28 E159.58410
G1 X144.83 Y69.21 E159.59908
G1 X152.25 Y68.48 E160.06398
G1 X152.25 Y68.48 E160.06405
G1 X152.49 Y68.46 E160.07923
G1 X159.92 Y69.19 E160.54432
G1 X160.16 Y69.21 E160.55987
G1 X167.29 Y71.38 E161.02451
G1 X167.53 Y71.45 E161.04001
G1 X174.09 Y74.96 E161.50401
G1 X174.31 Y75.07 E161.51944
G1 X180.07 Y79.80 E161.98409
G1 X180.26 Y79.96 E161.99968
G1 X184.98 Y85.70 E162.46307
G1 X185.14 Y85.90 E162.47897
G1 X188.65 Y92.47 E162.94317
G1 X189.81 Y92.47 E163.01532
G1 X189.81 Y96.11 E163.24238
G1 X190.93 Y99.82 E163.48429
G1 X191.00 Y100.05 E163.49920
G1 X191.28 Y102.82 E163.67279
G1 X189.00 Y102.82 E163.81448
G1 X189.00 Y103.17 E163.83624
G1 X166.47 Y103.17 E165.24152
G1 X171.88 Y104.81 E165.59421
G1 X172.12 Y104.88 E165.60971
G1 X178.68 Y108.39 E166.07371
G1 X178.90 Y108.50 E166.08914
G1 X184.66 Y113.23 E166.55378
G1 X184.85 Y113.39 E166.56937
G1 X189.56 Y119.14 E167.03273
G1 X189.73 Y119.33 E167.04858
G1 X193.22 Y125.86 E167.51068
G1 X194.41 Y125.86 E167.58452
G1 X194.41 Y129.57 E167.81576
G1 X195.52 Y133.25 E168.05532
G1 X195.59 Y133.48 E168.07029
G1 X195.86 Y136.25 E168.24379
G1 X189.84 Y136.25 E168.61928
G1 X189.82 Y136.05 E168.63143
G1 X159.95 Y136.05 E170.49414
G1 X160.16 Y136.07 E170.50731
G1 X167.29 Y138.24 E170.97195
G1 X167.53 Y138.31 E170.98745
G1 X174.09 Y141.82 E171.45145
G1 X174.31 Y141.94 E171.46688
G1 X180.07 Y146.66 E171.93153
G1 X180.26 Y146.82 E171.94707
G1 X184.98 Y152.56 E172.41047
G1 X185.14 Y152.76 E172.42637
G1 X188.62 Y159.26 E172.88627
G1 X189.81 Y159.26 E172.96042
G1 X189.81 Y162.97 E173.19129
G1 X190.93 Y166.68 E173.43319
G1 X191.00 Y166.91 E173.44810
G1 X191.28 Y169.68 E173.62169
G1 X185.26 Y169.68 E173.99680
G1 X185.24 Y169.48 E174.00896
G1 X159.98 Y169.48 E175.58424
G1 X160.16 Y169.50 E175.59559
G1 X167.29 Y171.66 E176.06023
G1 X167.53 Y171.74 E176.07573
G1 X174.09 Y175.25 E176.53973
G1 X174.31 Y175.36 E176.55516
G1 X180.07 Y180.09 E177.01981
G1 X180.26 Y180.25 E177.03539
G1 X184.98 Y185.99 E177.49879
G1 X185.14 Y186.19 E177.51469
G1 X188.60 Y192.66 E177.97261
G1 X189.81 Y192.66 E178.04770
G1 X189.81 Y196.39 E178.28025
G1 X190.93 Y200.11 E178.52221
G1 X191.00 Y200.34 E178.53712
G1 X191.28 Y203.10 E178.71071
G1 X189.00 Y203.10 E178.85240
G1 X189.00 Y203.37 E178.86861
G1 X115.81 Y203.37 E183.43357
G1 X115.81 Y203.10 E183.44978
G1 X113.72 Y203.10 E183.57962
G1 X114.00 Y200.34 E183.75258
G1 X115.00 Y197.02 E183.96939
G1 X115.00 Y192.66 E184.24086
G1 X116.40 Y192.66 E184.32779
G1 X119.74 Y186.41 E184.77009
G1 X119.86 Y186.19 E184.78552
G1 X124.58 Y180.43 E185.25011
G1 X124.75 Y180.24 E185.26570
G1 X130.50 Y175.52 E185.72981
G1 X130.69 Y175.36 E185.74505
G1 X137.25 Y171.85 E186.20955
G1 X137.47 Y171.74 E186.22512
G1 X144.60 Y169.57 E186.68970
G1 X144.83 Y169.50 E186.70467
G1 X145.02 Y169.48 E186.71613
G1 X119.76 Y169.48 E188.29136
G1 X119.74 Y169.68 E188.30351
G1 X113.72 Y169.68 E188.67862
G1 X114.00 Y166.92 E188.85158
G1 X115.00 Y163.59 E189.06840
G1 X115.00 Y159.26 E189.33812
G1 X116.39 Y159.26 E189.42418
G1 X119.74 Y152.98 E189.86839
G1 X119.86 Y152.76 E189.88391
G1 X124.59 Y147.01 E190.34845
G1 X124.75 Y146.81 E190.36399
G1 X130.50 Y142.09 E190.82810
G1 X130.69 Y141.94 E190.84334
G1 X137.25 Y138.43 E191.30784
G1 X137.47 Y138.31 E191.32341
G1 X144.60 Y136.15 E191.78799
G1 X144.83 Y136.07 E191.80296
G1 X145.05 Y136.05 E191.81631
G1 X124.35 Y136.05 E193.10722
G1 X124.33 Y136.25 E193.11937
G1 X118.31 Y136.25 E193.49449
G1 X118.58 Y133.49 E193.66745
G1 X119.61 Y130.12 E193.88661
G1 X119.61 Y125.86 E194.15221
G1 X120.96 Y125.86 E194.23659
G1 X124.33 Y119.55 E194.68292
G1 X124.45 Y119.33 E194.69838
G1 X129.17 Y113.58 E195.16298
G0 F6000 X128.79 Y113.26
G1 F2700 X128.98 Y113.03 E195.18158
G1 X134.76 Y108.28 E195.64783
G1 X134.76 Y108.28 E195.64792
G1 X134.99 Y108.09 E195.66696
G1 X141.61 Y104.56 E196.13458
G1 X141.61 Y104.56 E196.13465
G1 X141.87 Y104.41 E196.15340
G1 X144.34 Y103.67 E196.31410
G1 X115.31 Y103.67 E198.12468
G1 X115.31 Y103.32 E198.14644
G1 X113.17 Y103.32 E198.27953
G1 X113.50 Y99.96 E198.48997
G1 X114.50 Y96.66 E198.70514
G1 X114.50 Y91.97 E198.99769
G1 X116.05 Y91.97 E199.09416
G1 X119.30 Y85.89 E199.52407
G1 X119.44 Y85.62 E199.54262
G1 X124.20 Y79.83 E200.01032
G1 X124.39 Y79.60 E200.02892
G1 X130.17 Y74.85 E200.49521
G1 X130.17 Y74.85 E200.49530
G1 X130.41 Y74.66 E200.51435
G1 X137.02 Y71.12 E200.98222
G1 X137.28 Y70.98 E201.00069
G1 X144.44 Y68.81 E201.46697
G1 X144.73 Y68.72 E201.48618
G1 X152.19 Y67.98 E201.95341
G1 X152.49 Y67.95 E201.97247
G1 X159.97 Y68.69 E202.44090
G1 X160.26 Y68.72 E202.45946
G1 X167.44 Y70.90 E202.92727
G1 X167.73 Y70.99 E202.94585
G1 X174.33 Y74.52 E203.41276
G1 X174.59 Y74.66 E203.43131
G1 X180.39 Y79.42 E203.89905
G1 X180.62 Y79.61 E203.91766
G1 X185.36 Y85.39 E204.38390
G1 X185.36 Y85.38 E204.38399
G1 X185.56 Y85.62 E204.40303
G1 X188.95 Y91.97 E204.85171
G1 X190.31 Y91.97 E204.93640
G1 X190.31 Y96.03 E205.19009
G1 X191.40 Y99.65 E205.42581
G1 X191.50 Y99.94 E205.44510
G1 X191.83 Y103.32 E205.65635
G1 X189.50 Y103.32 E205.80128
G1 X189.50 Y103.67 E205.82305
G1 X169.84 Y103.67 E207.04922
G1 X172.03 Y104.33 E207.19180
G1 X172.31 Y104.42 E207.21038
G1 X178.92 Y107.95 E207.67728
G1 X179.18 Y108.09 E207.69583
G1 X184.98 Y112.85 E208.16358
G1 X185.21 Y113.04 E208.18218
G1 X189.95 Y118.82 E208.64839
G1 X189.95 Y118.81 E208.64847
G1 X190.15 Y119.05 E208.66752
G1 X193.52 Y125.36 E209.11405
G1 X194.91 Y125.36 E209.20043
G1 X194.91 Y129.50 E209.45830
G1 X195.99 Y133.08 E209.69166
G1 X196.09 Y133.38 E209.71109
G1 X196.41 Y136.75 E209.92218
G1 X189.39 Y136.75 E210.36034
G1 X189.37 Y136.55 E210.37249
G1 X163.46 Y136.55 E211.98806
G1 X167.44 Y137.76 E212.24735
G1 X167.73 Y137.85 E212.26593
G1 X174.33 Y141.38 E212.73283
G1 X174.59 Y141.52 E212.75139
G1 X180.39 Y146.28 E213.21913
G1 X180.62 Y146.47 E213.23773
G1 X185.36 Y152.25 E213.70392
G1 X185.56 Y152.48 E213.72296
G1 X188.91 Y158.76 E214.16732
G1 X190.31 Y158.76 E214.25407
G1 X190.31 Y162.89 E214.51156
G1 X191.40 Y166.51 E214.74727
G1 X191.50 Y166.81 E214.76656
G1 X191.83 Y170.18 E214.97782
G1 X184.81 Y170.18 E215.41554
G1 X184.79 Y169.98 E215.42770
G1 X163.47 Y169.98 E216.75709
G1 X167.44 Y171.19 E217.01573
G1 X167.73 Y171.28 E217.03431
G1 X174.33 Y174.81 E217.50121
G1 X174.59 Y174.95 E217.51977
G1 X180.39 Y179.70 E217.98751
G1 X180.62 Y179.89 E218.00611
G1 X185.36 Y185.67 E218.47236
G1 X185.36 Y185.67 E218.47244
G1 X185.56 Y185.91 E218.49149
G1 X188.90 Y192.16 E218.93392
G1 X190.31 Y192.16 E219.02148
G1 X190.31 Y196.32 E219.28066
G1 X191.40 Y199.94 E219.51643
G1 X191.50 Y200.23 E219.53572
G1 X191.83 Y203.60 E219.74697
G1 X189.50 Y203.60 E219.89191
G1 X189.50 Y203.87 E219.90812
G1 X115.31 Y203.87 E224.53544
G1 X115.31 Y203.60 E224.55165
G1 X113.17 Y203.60 E224.68473
G1 X113.50 Y200.25 E224.89517
G1 X114.50 Y196.94 E225.11041
G1 X114.50 Y192.16 E225.40844
G1 X116.10 Y192.16 E225.50785
G1 X119.30 Y186.17 E225.93148
G1 X119.44 Y185.91 E225.95003
G1 X124.20 Y180.12 E226.41773
G1 X124.39 Y179.88 E226.43633
G1 X130.17 Y175.14 E226.90262
G1 X130.17 Y175.14 E226.90271
G1 X130.41 Y174.95 E226.92175
G1 X137.02 Y171.41 E227.38963
G1 X137.28 Y171.27 E227.40810
G1 X141.53 Y169.98 E227.68487
G1 X120.21 Y169.98 E229.01444
G1 X120.19 Y170.18 E229.02661
G1 X113.17 Y170.18 E229.46433
G1 X113.50 Y166.82 E229.67477
G1 X114.50 Y163.52 E229.88995
G1 X114.50 Y158.76 E230.18630
G1 X116.08 Y158.76 E230.28483
G1 X119.30 Y152.75 E230.71041
G1 X119.44 Y152.48 E230.72897
G1 X124.20 Y146.69 E231.19666
G1 X124.39 Y146.46 E231.21522
G1 X130.17 Y141.72 E231.68151
G1 X130.17 Y141.72 E231.68160
G1 X130.41 Y141.52 E231.70064
G1 X137.02 Y137.98 E232.16852
G1 X137.28 Y137.84 E232.18699
G1 X141.54 Y136.55 E232.46441
G1 X124.80 Y136.55 E233.50842
G1 X124.78 Y136.75 E233.52058
G1 X117.76 Y136.75 E233.95831
G1 X118.09 Y133.39 E234.16875
G1 X119.11 Y130.05 E234.38627
G1 X119.11 Y125.36 E234.67850
G1 X120.66 Y125.36 E234.77535
G1 X123.89 Y119.32 E235.20306
G1 X124.03 Y119.05 E235.22161
G1 X128.79 Y113.26 E235.68931
G0 F6000 X128.40 Y112.94
G1 F2700 X128.62 Y112.67 E235.71096
G1 X134.45 Y107.89 E236.18100
G1 X134.71 Y107.67 E236.20222
G1 X141.28 Y104.17 E236.66633
G1 X114.81 Y104.17 E238.31720
G1 X114.81 Y103.82 E238.33896
G1 X112.62 Y103.82 E238.47529
G1 X113.01 Y99.86 E238.72326
G1 X114.00 Y96.58 E238.93682
G1 X114.00 Y91.47 E239.25593
G1 X115.75 Y91.47 E239.36488
G1 X118.86 Y85.65 E239.77612
G1 X119.02 Y85.34 E239.79777
G1 X123.81 Y79.51 E240.26861
G1 X124.04 Y79.24 E240.29027
G1 X129.85 Y74.47 E240.75938
G1 X130.12 Y74.24 E240.78157
G1 X136.79 Y70.68 E241.25263
G1 X137.09 Y70.52 E241.27409
G1 X144.31 Y68.33 E241.74486
G1 X144.63 Y68.23 E241.76559
G1 X152.15 Y67.49 E242.23702
G1 X152.49 Y67.45 E242.25815
G1 X160.02 Y68.19 E242.72982
G1 X160.36 Y68.23 E242.75145
G1 X167.59 Y70.42 E243.22236
G1 X167.92 Y70.52 E243.24400
G1 X174.56 Y74.08 E243.71386
G1 X174.87 Y74.24 E243.73545
G1 X180.71 Y79.03 E244.20639
G1 X180.97 Y79.25 E244.22805
G1 X185.75 Y85.06 E244.69711
G1 X185.97 Y85.34 E244.71930
G1 X189.25 Y91.47 E245.15245
G1 X190.81 Y91.47 E245.24961
G1 X190.81 Y95.96 E245.52980
G1 X191.89 Y99.53 E245.76246
G1 X191.99 Y99.84 E245.78319
G1 X192.38 Y103.82 E246.03204
G1 X190.00 Y103.82 E246.18021
G1 X190.00 Y104.17 E246.20198
G1 X172.90 Y104.17 E247.26857
G1 X179.15 Y107.51 E247.71064
G1 X179.46 Y107.67 E247.73223
G1 X185.30 Y112.46 E248.20317
G1 X185.56 Y112.68 E248.22483
G1 X190.34 Y118.50 E248.69386
G1 X190.56 Y118.77 E248.71604
G1 X193.82 Y124.86 E249.14704
G1 X195.41 Y124.86 E249.24589
G1 X195.41 Y129.43 E249.53026
G1 X196.48 Y132.96 E249.76057
G1 X196.58 Y133.28 E249.78136
G1 X196.96 Y137.25 E250.03011
G1 X188.93 Y137.25 E250.53101
G1 X188.91 Y137.05 E250.54316
G1 X166.83 Y137.05 E251.92013
G1 X167.59 Y137.28 E251.96933
G1 X167.92 Y137.39 E251.99097
G1 X174.56 Y140.94 E252.46083
G1 X174.87 Y141.10 E252.48242
G1 X180.71 Y145.89 E252.95336
G1 X180.97 Y146.11 E252.97501
G1 X185.75 Y151.93 E253.44403
G1 X185.97 Y152.20 E253.46622
G1 X189.22 Y158.26 E253.89507
G1 X190.81 Y158.26 E253.99423
G1 X190.81 Y162.82 E254.27823
G1 X191.89 Y166.39 E254.51088
G1 X191.99 Y166.71 E254.53161
G1 X192.38 Y170.68 E254.78046
G1 X184.36 Y170.68 E255.28080
G1 X184.34 Y170.48 E255.29296
G1 X166.84 Y170.48 E256.38393
G1 X167.59 Y170.71 E256.43249
G1 X167.92 Y170.81 E256.45412
G1 X174.56 Y174.36 E256.92398
G1 X174.87 Y174.53 E256.94558
G1 X180.71 Y179.32 E257.41652
G1 X180.97 Y179.54 E257.43817
G1 X185.75 Y185.35 E257.90724
G1 X185.97 Y185.63 E257.92943
G1 X189.20 Y191.66 E258.35629
G1 X190.81 Y191.66 E258.45639
G1 X190.81 Y196.25 E258.74207
G1 X191.89 Y199.82 E258.97478
G1 X191.99 Y200.13 E258.99551
G1 X192.38 Y204.10 E259.24437
G1 X190.00 Y204.10 E259.39254
G1 X190.00 Y204.37 E259.40875
G1 X114.81 Y204.37 E264.09843
G1 X114.81 Y204.10 E264.11465
G1 X112.62 Y204.10 E264.25097
G1 X113.01 Y200.15 E264.49895
G1 X114.00 Y196.87 E264.71251
G1 X114.00 Y191.66 E265.03717
G1 X115.80 Y191.66 E265.14911
G1 X118.86 Y185.94 E265.55404
G1 X119.02 Y185.63 E265.57569
G1 X123.81 Y179.80 E266.04654
G1 X124.04 Y179.53 E266.06819
G1 X129.85 Y174.76 E266.53731
G1 X130.12 Y174.53 E266.55950
G1 X136.79 Y170.97 E267.03056
G1 X137.09 Y170.81 E267.05201
G1 X138.16 Y170.48 E267.12161
G1 X120.66 Y170.48 E268.21271
G1 X120.64 Y170.68 E268.22487
G1 X112.62 Y170.68 E268.72521
G1 X113.01 Y166.72 E268.97319
G1 X114.00 Y163.44 E269.18675
G1 X114.00 Y158.26 E269.50966
G1 X115.78 Y158.26 E269.62067
G1 X118.86 Y152.51 E270.02758
G1 X119.02 Y152.20 E270.04923
G1 X123.81 Y146.37 E270.52003
G1 X124.04 Y146.10 E270.54168
G1 X129.85 Y141.33 E271.01080
G1 X130.12 Y141.10 E271.03299
G1 X136.79 Y137.54 E271.50405
G1 X137.09 Y137.38 E271.52550
G1 X138.17 Y137.05 E271.59575
G1 X125.25 Y137.05 E272.40129
G1 X125.23 Y137.25 E272.41346
G1 X117.21 Y137.25 E272.91379
G1 X117.60 Y133.29 E273.16177
G1 X118.61 Y129.98 E273.37767
G1 X118.61 Y124.86 E273.69647
G1 X120.36 Y124.86 E273.80580
G1 X123.45 Y119.08 E274.21483
G1 X123.61 Y118.77 E274.23648
G1 X128.40 Y112.94 E274.70732
G0 F6000 X128.02 Y112.62
G1 F2700 X128.27 Y112.31 E274.73204
G1 X134.13 Y107.50 E275.20505
G1 X134.43 Y107.25 E275.22923
G1 X139.28 Y104.67 E275.57200
G1 X114.31 Y104.67 E277.12951
G1 X114.31 Y104.32 E277.15128
G1 X112.07 Y104.32 E277.29078
G1 X112.52 Y99.76 E277.57623
G1 X113.50 Y96.51 E277.78829
G1 X113.50 Y90.97 E278.13390
G1 X115.45 Y90.97 E278.25532
G1 X118.42 Y85.41 E278.64790
G1 X118.61 Y85.06 E278.67262
G1 X123.43 Y79.19 E279.14661
G1 X123.68 Y78.88 E279.17132
G1 X129.55 Y74.07 E279.64438
G1 X129.84 Y73.82 E279.66856
G1 X136.55 Y70.24 E280.14280
G1 X136.90 Y70.05 E280.16730
G1 X144.13 Y67.86 E280.63898
G1 X144.53 Y67.73 E280.66479
G1 X152.08 Y66.99 E281.13816
G1 X152.49 Y66.95 E281.16356
G1 X160.07 Y67.69 E281.63850
G1 X160.46 Y67.74 E281.66320
G1 X167.74 Y69.94 E282.13729
G1 X168.12 Y70.06 E282.16200
G1 X174.80 Y73.63 E282.63477
G1 X175.15 Y73.82 E282.65949
G1 X181.03 Y78.64 E283.13352
G1 X181.33 Y78.90 E283.15824
G1 X186.14 Y84.76 E283.63125
G1 X186.39 Y85.06 E283.65543
G1 X189.55 Y90.97 E284.07308
G1 X191.31 Y90.97 E284.18272
G1 X191.31 Y95.88 E284.48948
G1 X192.36 Y99.35 E284.71529
G1 X192.48 Y99.74 E284.74111
G1 X192.93 Y104.32 E285.02762
G1 X190.50 Y104.32 E285.17897
G1 X190.50 Y104.67 E285.20074
G1 X174.90 Y104.67 E286.17397
G1 X179.39 Y107.06 E286.49153
G1 X179.74 Y107.25 E286.51625
G1 X185.62 Y112.08 E286.99028
G1 X185.92 Y112.33 E287.01500
G1 X190.73 Y118.19 E287.48797
G1 X190.98 Y118.49 E287.51215
G1 X194.12 Y124.36 E287.92766
G1 X195.91 Y124.36 E288.03898
G1 X195.91 Y129.35 E288.34992
G1 X196.94 Y132.78 E288.57338
G1 X197.07 Y133.18 E288.59933
G1 X197.51 Y137.75 E288.88568
G1 X188.48 Y137.75 E289.44932
G1 X188.46 Y137.55 E289.46147
G1 X169.29 Y137.55 E290.65665
G1 X174.80 Y140.50 E291.04604
G1 X175.15 Y140.68 E291.07077
G1 X181.03 Y145.51 E291.54480
G1 X181.33 Y145.76 E291.56951
G1 X186.14 Y151.62 E292.04248
G1 X186.39 Y151.92 E292.06666
G1 X189.51 Y157.76 E292.48002
G1 X191.31 Y157.76 E292.59165
G1 X191.31 Y162.75 E292.90221
G1 X192.36 Y166.21 E293.12802
G1 X192.48 Y166.60 E293.15384
G1 X192.93 Y171.18 E293.44035
G1 X183.91 Y171.18 E294.00330
G1 X183.88 Y170.98 E294.01547
G1 X169.30 Y170.98 E294.92503
G1 X174.80 Y173.92 E295.31400
G1 X175.15 Y174.11 E295.33873
G1 X181.03 Y178.93 E295.81276
G1 X181.33 Y179.19 E295.83747
G1 X186.14 Y185.05 E296.31049
G1 X186.39 Y185.35 E296.33466
G1 X189.50 Y191.16 E296.74605
G1 X191.31 Y191.16 E296.85861
G1 X191.31 Y196.17 E297.17086
G1 X192.36 Y199.64 E297.39673
G1 X192.48 Y200.03 E297.42255
G1 X192.93 Y204.60 E297.70906
G1 X190.50 Y204.60 E297.86041
G1 X190.50 Y204.87 E297.87663
G1 X114.31 Y204.87 E302.62867
G1 X114.31 Y204.60 E302.64489
G1 X112.07 Y204.60 E302.78439
G1 X112.52 Y200.05 E303.06984
G1 X113.50 Y196.79 E303.28195
G1 X113.50 Y191.16 E303.63306
G1 X115.50 Y191.16 E303.75747
G1 X118.42 Y185.70 E304.14374
G1 X118.61 Y185.35 E304.16846
G1 X123.43 Y179.48 E304.64245
G1 X123.68 Y179.17 E304.66716
G1 X129.55 Y174.36 E305.14022
G1 X129.84 Y174.11 E305.16440
G1 X135.70 Y170.98 E305.57854
G1 X121.11 Y170.98 E306.48817
G1 X121.09 Y171.18 E306.50033
G1 X112.07 Y171.18 E307.06328
G1 X112.52 Y166.62 E307.34872
G1 X113.50 Y163.37 E307.56078
G1 X113.50 Y157.76 E307.91020
G1 X115.48 Y157.76 E308.03368
G1 X118.42 Y152.27 E308.42193
G1 X118.61 Y151.93 E308.44665
G1 X123.43 Y146.05 E308.92059
G1 X123.68 Y145.75 E308.94530
G1 X129.55 Y140.93 E309.41837
G1 X129.84 Y140.69 E309.44254
G1 X135.71 Y137.55 E309.85711
G1 X125.70 Y137.55 E310.48092
G1 X125.68 Y137.75 E310.49308
G1 X116.66 Y137.75 E311.05603
G1 X117.11 Y133.19 E311.34148
G1 X118.11 Y129.90 E311.55588
G1 X118.11 Y124.36 E311.90118
G1 X120.06 Y124.36 E312.02298
G1 X123.01 Y118.84 E312.41335
G1 X123.20 Y118.50 E312.43807
G1 X128.02 Y112.62 E312.91206
G0 F6000 X127.63 Y112.30
G1 F2700 X127.92 Y111.96 E312.93987
G1 X133.82 Y107.12 E313.41589
G1 X134.15 Y106.84 E313.44304
G1 X137.28 Y105.17 E313.66443
G1 X113.81 Y105.17 E315.12858
G1 X113.81 Y104.82 E315.15034
G1 X111.52 Y104.82 E315.29309
G1 X112.03 Y99.66 E315.61601
G1 X113.00 Y96.43 E315.82657
G1 X113.00 Y90.47 E316.19869
G1 X115.15 Y90.47 E316.33264
G1 X117.98 Y85.18 E316.70656
G1 X118.19 Y84.78 E316.73437
G1 X123.04 Y78.87 E317.21142
G1 X123.33 Y78.53 E317.23928
G1 X129.23 Y73.69 E317.71531
G1 X129.56 Y73.41 E317.74246
G1 X136.31 Y69.80 E318.21982
G1 X136.70 Y69.59 E318.24736
G1 X144.00 Y67.38 E318.72283
G1 X144.43 Y67.24 E318.75094
G1 X152.06 Y66.49 E319.22881
G1 X152.49 Y66.45 E319.25584
G1 X160.12 Y67.20 E319.73409
G1 X160.56 Y67.24 E319.76187
G1 X167.88 Y69.46 E320.23908
G1 X168.31 Y69.60 E320.26687
G1 X175.04 Y73.19 E320.74256
G1 X175.43 Y73.40 E320.77035
G1 X181.34 Y78.26 E321.24748
G1 X181.69 Y78.54 E321.27529
G1 X186.52 Y84.43 E321.74994
G1 X186.81 Y84.78 E321.77846
G1 X189.85 Y90.47 E322.18058
G1 X191.81 Y90.47 E322.30269
G1 X191.81 Y95.81 E322.63602
G1 X192.83 Y99.20 E322.85687
G1 X192.97 Y99.64 E322.88589
G1 X193.48 Y104.82 E323.21007
G1 X191.00 Y104.82 E323.36466
G1 X191.00 Y105.17 E323.38643
G1 X176.90 Y105.17 E324.26637
G1 X179.63 Y106.62 E324.45949
G1 X180.02 Y106.83 E324.48728
G1 X185.93 Y111.69 E324.96441
G1 X186.28 Y111.97 E324.99227
G1 X191.10 Y117.86 E325.46684
G1 X191.40 Y118.21 E325.49536
G1 X194.42 Y123.86 E325.89531
G1 X196.41 Y123.86 E326.01916
G1 X196.41 Y129.28 E326.35667
G1 X197.42 Y132.63 E326.57517
G1 X197.56 Y133.08 E326.60439
G1 X198.07 Y138.25 E326.92833
G1 X188.02 Y138.25 E327.55470
G1 X188.00 Y138.05 E327.56685
G1 X171.29 Y138.05 E328.60918
G1 X175.04 Y140.06 E328.87415
G1 X175.43 Y140.27 E328.90194
G1 X181.34 Y145.12 E329.37907
G1 X181.69 Y145.41 E329.40688
G1 X186.51 Y151.29 E329.88144
G1 X186.52 Y151.29 E329.88150
G1 X186.81 Y151.64 E329.91003
G1 X189.81 Y157.26 E330.30782
G1 X191.81 Y157.26 E330.43198
G1 X191.81 Y162.67 E330.76912
G1 X192.83 Y166.06 E330.98997
G1 X192.97 Y166.50 E331.01899
G1 X193.48 Y171.68 E331.34317
G1 X183.45 Y171.68 E331.96873
G1 X183.43 Y171.48 E331.98088
G1 X171.30 Y171.48 E332.73784
G1 X175.04 Y173.48 E333.00239
G1 X175.43 Y173.69 E333.03018
G1 X181.34 Y178.55 E333.50731
G1 X181.69 Y178.83 E333.53512
G1 X186.52 Y184.72 E334.00977
G1 X186.81 Y185.07 E334.03829
G1 X189.80 Y190.66 E334.43413
G1 X191.81 Y190.66 E334.55917
G1 X191.81 Y196.10 E334.89799
G1 X192.83 Y199.49 E335.11890
G1 X192.97 Y199.93 E335.14792
G1 X193.48 Y205.10 E335.47210
G1 X191.00 Y205.10 E335.62670
G1 X191.00 Y205.37 E335.64291
G1 X113.81 Y205.37 E340.45731
G1 X113.81 Y205.10 E340.47353
G1 X111.52 Y205.10 E340.61628
G1 X112.03 Y199.95 E340.93920
G1 X113.00 Y196.72 E341.14981
G1 X113.00 Y190.66 E341.52742
G1 X115.20 Y190.66 E341.66431
G1 X117.98 Y185.47 E342.03194
G1 X118.19 Y185.07 E342.05976
G1 X123.04 Y179.16 E342.53681
G1 X123.33 Y178.82 E342.56466
G1 X129.23 Y173.97 E343.04070
G1 X129.56 Y173.70 E343.06784
G1 X133.71 Y171.48 E343.36065
G1 X121.57 Y171.48 E344.11767
G1 X121.55 Y171.68 E344.12983
G1 X111.52 Y171.68 E344.75539
G1 X112.03 Y166.52 E345.07831
G1 X113.00 Y163.29 E345.28887
G1 X113.00 Y157.26 E345.66479
G1 X115.19 Y157.26 E345.80074
G1 X117.98 Y152.04 E346.17036
G1 X118.19 Y151.65 E346.19818
G1 X123.04 Y145.73 E346.67522
G1 X123.33 Y145.39 E346.70303
G1 X129.23 Y140.55 E347.17906
G1 X129.56 Y140.27 E347.20621
G1 X133.71 Y138.05 E347.49938
G1 X126.16 Y138.05 E347.97053
G1 X126.14 Y138.25 E347.98269
G1 X116.11 Y138.25 E348.60825
G1 X116.61 Y133.09 E348.93117
G1 X117.61 Y129.83 E349.14414
G1 X117.61 Y123.86 E349.51588
G1 X119.76 Y123.86 E349.65015
G1 X122.57 Y118.61 E350.02188
G1 X122.78 Y118.22 E350.04970
G1 X127.63 Y112.30 E350.52675
G0 F6000 X127.25 Y111.98
G1 F2700 X127.56 Y111.60 E350.55762
G1 X133.50 Y106.73 E351.03657
G1 X133.87 Y106.42 E351.06673
G1 X135.29 Y105.67 E351.16678
G1 X113.31 Y105.67 E352.53763
G1 X113.31 Y105.32 E352.55940
G1 X110.96 Y105.32 E352.70539
G1 X111.53 Y99.56 E353.06579
G1 X112.50 Y96.36 E353.27465
G1 X112.50 Y89.97 E353.67346
G1 X114.85 Y89.97 E353.81989
G1 X117.54 Y84.94 E354.17514
G1 X117.77 Y84.50 E354.20600
G1 X122.66 Y78.55 E354.68628
G1 X122.97 Y78.17 E354.71714
G1 X128.91 Y73.30 E355.19615
G1 X129.28 Y72.99 E355.22626
G1 X136.07 Y69.36 E355.70622
G1 X136.07 Y69.36 E355.70628
G1 X136.51 Y69.13 E355.73742
G1 X143.84 Y66.91 E356.21470
G1 X144.33 Y66.75 E356.24699
G1 X152.01 Y65.99 E356.72813
G1 X152.49 Y65.94 E356.75816
G1 X160.17 Y66.70 E357.23968
G1 X160.66 Y66.75 E357.27053
G1 X168.03 Y68.99 E357.75082
G1 X168.50 Y69.14 E357.78166
G1 X175.27 Y72.75 E358.26031
G1 X175.71 Y72.99 E358.29117
G1 X181.66 Y77.87 E358.77150
G1 X182.04 Y78.19 E358.80237
G1 X186.90 Y84.11 E359.27977
G1 X187.22 Y84.50 E359.31148
G1 X190.15 Y89.97 E359.69803
G1 X192.31 Y89.97 E359.83267
G1 X192.31 Y95.73 E360.19250
G1 X193.31 Y99.05 E360.40847
G1 X193.47 Y99.54 E360.44070
G1 X194.04 Y105.32 E360.80254
G1 X191.50 Y105.32 E360.96038
G1 X191.50 Y105.67 E360.98214
G1 X178.89 Y105.67 E361.76879
G1 X179.86 Y106.18 E361.83745
G1 X180.30 Y106.42 E361.86831
G1 X186.25 Y111.30 E362.34863
G1 X186.63 Y111.62 E362.37950
G1 X191.49 Y117.54 E362.85687
G1 X191.81 Y117.93 E362.88853
G1 X194.72 Y123.36 E363.27296
G1 X196.91 Y123.36 E363.40934
G1 X196.91 Y129.20 E363.77342
G1 X197.90 Y132.48 E363.98697
G1 X198.06 Y132.98 E364.01940
G1 X198.62 Y138.75 E364.38100
G1 X187.57 Y138.75 E365.07004
G1 X187.55 Y138.55 E365.08219
G1 X173.29 Y138.55 E365.97174
G1 X175.27 Y139.62 E366.11224
G1 X175.71 Y139.85 E366.14310
G1 X181.66 Y144.74 E366.62343
G1 X182.04 Y145.05 E366.65425
G1 X186.92 Y150.99 E367.13314
G1 X186.91 Y150.99 E367.13323
G1 X187.22 Y151.36 E367.16343
G1 X190.11 Y156.76 E367.54569
G1 X192.31 Y156.76 E367.68232
G1 X192.31 Y162.60 E368.04596
G1 X193.31 Y165.91 E368.26192
G1 X193.47 Y166.40 E368.29415
G1 X194.04 Y172.18 E368.65599
G1 X183.00 Y172.18 E369.34416
G1 X182.98 Y171.98 E369.35633
G1 X173.29 Y171.98 E369.96056
G1 X175.27 Y173.04 E370.10064
G1 X175.71 Y173.28 E370.13150
G1 X181.66 Y178.16 E370.61183
G1 X182.04 Y178.48 E370.64270
G1 X186.90 Y184.40 E371.12010
G1 X187.22 Y184.79 E371.15176
G1 X190.10 Y190.16 E371.53209
G1 X192.31 Y190.16 E371.66966
G1 X192.31 Y196.02 E372.03505
G1 X193.31 Y199.34 E372.25101
G1 X193.47 Y199.83 E372.28324
G1 X194.04 Y205.60 E372.64508
G1 X191.50 Y205.60 E372.80292
G1 X191.50 Y205.87 E372.81913
G1 X113.31 Y205.87 E377.69590
G1 X113.31 Y205.60 E377.71212
G1 X110.96 Y205.60 E377.85811
G1 X111.53 Y199.85 E378.21851
G1 X112.50 Y196.65 E378.42737
G1 X112.50 Y190.16 E378.83173
G1 X114.90 Y190.16 E378.98109
G1 X117.54 Y185.23 E379.33006
G1 X117.77 Y184.79 E379.36092
G1 X122.66 Y178.84 E379.84120
G1 X122.97 Y178.46 E379.87207
G1 X128.91 Y173.59 E380.35107
G1 X129.28 Y173.28 E380.38118
G1 X131.71 Y171.98 E380.55265
G1 X122.02 Y171.98 E381.15688
G1 X122.00 Y172.18 E381.16905
G1 X110.96 Y172.18 E381.85722
G1 X111.53 Y166.43 E382.21762
G1 X112.50 Y163.22 E382.42648
G1 X112.50 Y156.76 E382.82909
G1 X114.89 Y156.76 E382.97758
G1 X117.54 Y151.80 E383.32850
G1 X117.77 Y151.37 E383.35936
G1 X122.66 Y145.41 E383.83959
G1 X122.97 Y145.03 E383.87046
G1 X128.91 Y140.16 E384.34946
G1 X129.28 Y139.85 E384.37957
G1 X131.71 Y138.55 E384.55146
G1 X126.61 Y138.55 E384.86989
G1 X126.59 Y138.75 E384.88205
G1 X115.55 Y138.75 E385.57022
G1 X116.12 Y133.00 E385.93062
G1 X117.11 Y129.75 E386.14183
G1 X117.11 Y123.36 E386.54033
G1 X119.46 Y123.36 E386.68713
G1 X122.13 Y118.37 E387.04018
G1 X122.36 Y117.94 E387.07103
G1 X127.25 Y111.98 E387.55131
G0 F6000 X126.86 Y111.67
G1 F2700 X127.21 Y111.25 E387.58528
G1 X133.18 Y106.34 E388.06724
G1 X133.40 Y106.17 E388.08460
G1 X112.81 Y106.17 E389.36878
G1 X112.81 Y105.82 E389.39054
G1 X110.41 Y105.82 E389.53978
G1 X111.04 Y99.47 E389.93765
G1 X112.00 Y96.28 E390.14501
G1 X112.00 Y89.47 E390.57033
G1 X114.55 Y89.47 E390.72923
G1 X117.10 Y84.70 E391.06581
G1 X117.36 Y84.22 E391.09979
G1 X122.27 Y78.23 E391.58313
G1 X122.62 Y77.81 E391.61710
G1 X128.59 Y72.91 E392.09911
G1 X129.00 Y72.57 E392.13219
G1 X135.84 Y68.92 E392.61592
G1 X136.32 Y68.66 E392.64954
G1 X143.73 Y66.41 E393.13276
G1 X144.23 Y66.26 E393.16507
G1 X151.93 Y65.50 E393.64752
G1 X152.48 Y65.44 E393.68245
G1 X160.22 Y66.20 E394.16722
G1 X160.76 Y66.26 E394.20115
G1 X168.18 Y68.51 E394.68463
G1 X168.70 Y68.67 E394.71855
G1 X175.51 Y72.31 E395.20016
G1 X175.99 Y72.57 E395.23409
G1 X181.98 Y77.49 E395.71747
G1 X182.40 Y77.83 E395.75144
G1 X187.28 Y83.79 E396.23163
G1 X187.64 Y84.22 E396.26648
G1 X190.45 Y89.47 E396.63755
G1 X192.81 Y89.47 E396.78466
G1 X192.81 Y95.66 E397.17106
G1 X193.80 Y98.95 E397.38527
G1 X193.96 Y99.44 E397.41750
G1 X194.59 Y105.82 E397.81700
G1 X192.00 Y105.82 E397.97809
G1 X192.00 Y106.17 E397.99985
G1 X180.78 Y106.17 E398.70000
G1 X186.57 Y110.92 E399.16725
G1 X186.99 Y111.27 E399.20122
G1 X191.87 Y117.22 E399.68137
G1 X192.23 Y117.65 E399.71623
G1 X195.02 Y122.86 E400.08512
G1 X197.41 Y122.86 E400.23398
G1 X197.41 Y129.13 E400.62462
G1 X198.39 Y132.38 E400.83642
G1 X198.39 Y132.38 E400.83648
G1 X198.55 Y132.88 E400.86898
G1 X199.17 Y139.25 E401.26818
G1 X187.11 Y139.25 E402.01996
G1 X187.09 Y139.05 E402.03211
G1 X175.28 Y139.05 E402.76868
G1 X175.51 Y139.17 E402.78467
G1 X175.99 Y139.43 E402.81860
G1 X181.98 Y144.35 E403.30198
G1 X182.40 Y144.70 E403.33595
G1 X187.28 Y150.65 E403.81609
G1 X187.64 Y151.08 E403.85095
G1 X190.41 Y156.26 E404.21772
G1 X192.81 Y156.26 E404.36683
G1 X192.81 Y162.52 E404.75703
G1 X193.80 Y165.81 E404.97124
G1 X193.96 Y166.30 E405.00347
G1 X194.59 Y172.68 E405.40297
G1 X182.55 Y172.68 E406.15376
G1 X182.53 Y172.48 E406.16592
G1 X175.29 Y172.48 E406.61743
G1 X175.51 Y172.60 E406.63305
G1 X175.99 Y172.86 E406.66698
G1 X181.98 Y177.78 E407.15036
G1 X182.40 Y178.12 E407.18433
G1 X187.28 Y184.08 E407.66452
G1 X187.64 Y184.51 E407.69938
G1 X190.40 Y189.66 E408.06416
G1 X192.81 Y189.66 E408.21421
G1 X192.81 Y195.95 E408.60616
G1 X193.80 Y199.24 E408.82037
G1 X193.96 Y199.73 E408.85260
G1 X194.59 Y206.10 E409.25210
G1 X192.00 Y206.10 E409.41318
G1 X192.00 Y206.37 E409.42940
G1 X112.81 Y206.37 E414.36853
G1 X112.81 Y206.10 E414.38474
G1 X110.41 Y206.10 E414.53398
G1 X111.04 Y199.76 E414.93185
G1 X112.00 Y196.57 E415.13921
G1 X112.00 Y189.66 E415.57008
G1 X114.60 Y189.66 E415.73191
G1 X117.10 Y184.99 E416.06227
G1 X117.36 Y184.51 E416.09620
G1 X122.27 Y178.52 E416.57954
G1 X122.62 Y178.10 E416.61350
G1 X128.59 Y173.20 E417.09552
G1 X129.00 Y172.86 E417.12860
G1 X129.71 Y172.48 E417.17873
G1 X122.47 Y172.48 E417.63030
G1 X122.45 Y172.68 E417.64246
G1 X110.41 Y172.68 E418.39325
G1 X111.04 Y166.33 E418.79112
G1 X112.00 Y163.15 E418.99849
G1 X112.00 Y156.26 E419.42760
G1 X114.59 Y156.26 E419.58856
G1 X117.10 Y151.57 E419.92082
G1 X117.36 Y151.09 E419.95480
G1 X122.27 Y145.10 E420.43809
G1 X122.62 Y144.68 E420.47206
G1 X128.59 Y139.77 E420.95407
G1 X129.00 Y139.44 E420.98715
G1 X129.72 Y139.05 E421.03771
G1 X127.06 Y139.05 E421.20347
G1 X127.04 Y139.25 E421.21563
G1 X115.00 Y139.25 E421.96642
G1 X115.63 Y132.90 E422.36429
G1 X116.61 Y129.68 E422.57400
G1 X116.61 Y122.86 E422.99900
G1 X119.16 Y122.86 E423.15828
G1 X121.69 Y118.14 E423.49265
G1 X121.94 Y117.66 E423.52664
G1 X126.86 Y111.67 E424.00998
G0 F6000 X126.47 Y111.35
G1 F2700 X126.86 Y110.89 E424.04704
G1 X132.00 Y106.67 E424.46236
G1 X112.31 Y106.67 E425.69078
G1 X112.31 Y106.32 E425.71255
G1 X109.86 Y106.32 E425.86503
G1 X110.55 Y99.37 E426.30037
G1 X111.50 Y96.21 E426.50624
G1 X111.50 Y88.97 E426.95805
G1 X114.25 Y88.97 E427.12943
G1 X116.66 Y84.47 E427.44740
G1 X116.94 Y83.95 E427.48437
G1 X121.89 Y77.92 E427.97085
G1 X122.27 Y77.46 E428.00792
G1 X128.25 Y72.55 E428.49099
G1 X128.72 Y72.16 E428.52899
G1 X135.60 Y68.48 E429.01515
G1 X136.13 Y68.20 E429.05251
G1 X143.56 Y65.94 E429.53709
G1 X144.13 Y65.77 E429.57409
G1 X151.91 Y65.00 E430.06169
G1 X152.48 Y64.94 E430.09762
G1 X160.27 Y65.70 E430.58571
G1 X160.86 Y65.77 E430.62271
G1 X168.33 Y68.03 E431.10930
G1 X168.89 Y68.21 E431.14631
G1 X175.75 Y71.87 E431.63084
G1 X176.27 Y72.15 E431.66778
G1 X182.30 Y77.10 E432.15431
G1 X182.76 Y77.48 E432.19138
G1 X187.67 Y83.47 E432.67441
G1 X188.06 Y83.94 E432.71241
G1 X190.75 Y88.97 E433.06793
G1 X193.31 Y88.97 E433.22752
G1 X193.31 Y95.59 E433.64048
G1 X194.28 Y98.80 E433.84968
G1 X194.45 Y99.34 E433.88518
G1 X195.14 Y106.32 E434.32235
G1 X192.50 Y106.32 E434.48667
G1 X192.50 Y106.67 E434.50844
G1 X182.18 Y106.67 E435.15265
G1 X186.89 Y110.53 E435.53283
G1 X187.34 Y110.91 E435.56990
G1 X192.26 Y116.90 E436.05289
G1 X192.65 Y117.37 E436.09084
G1 X195.32 Y122.36 E436.44427
G1 X197.91 Y122.36 E436.60554
G1 X197.91 Y129.06 E437.02275
G1 X198.87 Y132.23 E437.22966
G1 X199.04 Y132.78 E437.26530
G1 X199.72 Y139.75 E437.70215
G1 X186.66 Y139.75 E438.51667
G1 X186.64 Y139.55 E438.52882
G1 X176.93 Y139.55 E439.13467
G1 X182.30 Y143.96 E439.56821
G1 X182.76 Y144.34 E439.60523
G1 X187.67 Y150.33 E440.08826
G1 X188.06 Y150.80 E440.12626
G1 X190.71 Y155.76 E440.47746
G1 X193.31 Y155.76 E440.63911
G1 X193.31 Y162.45 E441.05588
G1 X194.28 Y165.66 E441.26507
G1 X194.45 Y166.20 E441.30057
G1 X195.14 Y173.18 E441.73774
G1 X182.10 Y173.18 E442.55120
G1 X182.08 Y172.98 E442.56336
G1 X176.93 Y172.98 E442.88441
G1 X182.30 Y177.39 E443.31768
G1 X182.76 Y177.77 E443.35474
G1 X187.67 Y183.76 E443.83777
G1 X188.06 Y184.23 E443.87577
G1 X190.70 Y189.16 E444.22502
G1 X193.31 Y189.16 E444.38754
G1 X193.31 Y195.88 E444.80611
G1 X194.26 Y199.04 E445.01204
G1 X194.45 Y199.63 E445.05075
G1 X195.14 Y206.60 E445.48792
G1 X192.50 Y206.60 E445.65225
G1 X192.50 Y206.87 E445.66846
G1 X112.31 Y206.87 E450.66995
G1 X112.31 Y206.60 E450.68617
G1 X109.86 Y206.60 E450.83864
G1 X110.55 Y199.66 E451.27399
G1 X111.50 Y196.50 E451.47986
G1 X111.50 Y189.16 E451.93722
G1 X114.30 Y189.16 E452.11159
G1 X116.66 Y184.76 E452.42329
G1 X116.94 Y184.24 E452.46023
G1 X121.89 Y178.21 E452.94671
G1 X122.27 Y177.75 E452.98378
G1 X128.07 Y172.98 E453.45218
G1 X122.92 Y172.98 E453.77323
G1 X122.90 Y173.18 E453.78539
G1 X109.86 Y173.18 E454.59885
G1 X110.55 Y166.23 E455.03419
G1 X111.50 Y163.07 E455.24006
G1 X111.50 Y155.76 E455.69568
G1 X114.29 Y155.76 E455.86911
G1 X116.66 Y151.33 E456.18276
G1 X116.94 Y150.81 E456.21978
G1 X121.89 Y144.78 E456.70626
G1 X122.27 Y144.32 E456.74324
G1 X128.08 Y139.55 E457.21195
G1 X127.51 Y139.55 E457.24706
G1 X127.49 Y139.75 E457.25923
G1 X114.45 Y139.75 E458.07269
G1 X115.14 Y132.80 E458.50803
G1 X116.11 Y129.60 E458.71624
G1 X116.11 Y122.36 E459.16775
G1 X118.86 Y122.36 E459.33950
G1 X121.25 Y117.90 E459.65527
G1 X121.53 Y117.38 E459.69224
G1 X126.47 Y111.35 E460.17872
G0 F6000 X126.09 Y111.03
G1 F2700 X126.50 Y110.53 E460.21880
G1 X130.60 Y107.17 E460.54992
G1 X111.81 Y107.17 E461.72234
G1 X111.81 Y106.82 E461.74411
G1 X109.31 Y106.82 E461.89983
G1 X110.06 Y99.27 E462.37266
G1 X111.00 Y96.14 E462.57688
G1 X111.00 Y88.47 E463.05533
G1 X113.95 Y88.47 E463.23924
G1 X116.22 Y84.23 E463.53855
G1 X116.52 Y83.67 E463.57861
G1 X121.50 Y77.60 E464.06824
G1 X121.91 Y77.10 E464.10832
G1 X127.96 Y72.14 E464.59626
G1 X128.44 Y71.74 E464.63532
G1 X135.36 Y68.04 E465.12457
G1 X135.93 Y67.73 E465.16506
G1 X143.44 Y65.46 E465.65453
G1 X144.03 Y65.27 E465.69266
G1 X151.86 Y64.50 E466.18351
G1 X152.48 Y64.44 E466.22245
G1 X160.32 Y65.21 E466.71381
G1 X160.96 Y65.28 E466.75382
G1 X168.47 Y67.55 E467.24353
G1 X169.09 Y67.75 E467.28363
G1 X175.98 Y71.43 E467.77109
G1 X176.55 Y71.73 E467.81116
G1 X182.62 Y76.72 E468.30084
G1 X183.11 Y77.13 E468.34091
G1 X188.08 Y83.17 E468.82881
G1 X188.48 Y83.66 E468.86787
G1 X191.05 Y88.47 E469.20791
G1 X193.81 Y88.47 E469.37997
G1 X193.81 Y95.51 E469.81944
G1 X194.76 Y98.66 E470.02440
G1 X194.94 Y99.24 E470.06250
G1 X195.69 Y106.82 E470.53727
G1 X193.00 Y106.82 E470.70484
G1 X193.00 Y107.17 E470.72661
G1 X183.57 Y107.17 E471.31481
G1 X187.21 Y110.15 E471.60797
G1 X187.70 Y110.56 E471.64805
G1 X192.64 Y116.58 E472.13378
G1 X193.06 Y117.09 E472.17496
G1 X195.62 Y121.86 E472.51283
G1 X198.41 Y121.86 E472.68664
G1 X198.41 Y128.98 E473.13035
G1 X199.35 Y132.09 E473.33290
G1 X199.53 Y132.68 E473.37128
G1 X200.27 Y140.25 E473.84573
G1 X186.20 Y140.25 E474.72305
G1 X186.19 Y140.05 E474.73520
G1 X178.32 Y140.05 E475.22555
G1 X182.62 Y143.58 E475.57211
G1 X183.11 Y143.99 E475.61214
G1 X188.05 Y150.01 E476.09792
G1 X188.48 Y150.52 E476.13910
G1 X191.01 Y155.26 E476.47482
G1 X193.81 Y155.26 E476.64894
G1 X193.81 Y162.37 E477.09221
G1 X194.76 Y165.52 E477.29717
G1 X194.94 Y166.10 E477.33527
G1 X195.69 Y173.68 E477.81004
G1 X181.64 Y173.68 E478.68611
G1 X181.62 Y173.48 E478.69827
G1 X178.33 Y173.48 E478.90401
G1 X182.62 Y177.00 E479.25025
G1 X183.11 Y177.42 E479.29033
G1 X188.08 Y183.46 E479.77822
G1 X188.48 Y183.94 E479.81728
G1 X191.00 Y188.66 E480.15105
G1 X193.81 Y188.66 E480.32604
G1 X193.81 Y195.80 E480.77106
G1 X194.76 Y198.95 E480.97607
G1 X194.94 Y199.53 E481.01412
G1 X195.69 Y207.10 E481.48889
G1 X193.00 Y207.10 E481.65646
G1 X193.00 Y207.37 E481.67267
G1 X111.81 Y207.37 E486.73653
G1 X111.81 Y207.10 E486.75274
G1 X109.31 Y207.10 E486.90846
G1 X110.06 Y199.56 E487.38129
G1 X111.00 Y196.43 E487.58552
G1 X111.00 Y188.66 E488.06952
G1 X114.00 Y188.66 E488.25642
G1 X116.22 Y184.52 E488.54942
G1 X116.52 Y183.96 E488.58949
G1 X121.50 Y177.89 E489.07912
G1 X121.91 Y177.39 E489.11919
G1 X126.67 Y173.48 E489.50345
G1 X123.38 Y173.48 E489.70925
G1 X123.36 Y173.68 E489.72140
G1 X109.31 Y173.68 E490.59748
G1 X110.06 Y166.13 E491.07030
G1 X111.00 Y163.00 E491.27453
G1 X111.00 Y155.26 E491.75678
G1 X113.99 Y155.26 E491.94275
G1 X116.22 Y151.09 E492.23773
G1 X116.52 Y150.53 E492.27780
G1 X121.50 Y144.46 E492.76738
G1 X121.91 Y143.97 E492.80745
G1 X126.44 Y140.25 E493.17292
G1 X113.90 Y140.25 E493.95527
G1 X114.64 Y132.70 E494.42809
G1 X115.61 Y129.53 E494.63467
G1 X115.61 Y121.86 E495.11280
G1 X118.56 Y121.86 E495.29708
G1 X120.81 Y117.66 E495.59419
G1 X121.11 Y117.10 E495.63425
G1 X126.09 Y111.03 E496.12388
G0 F6000 X124.93 Y110.07
G1 F2700 X125.44 Y109.47 E496.17317
G1 X126.41 Y108.67 E496.25183
G1 X110.31 Y108.67 E497.25636
G1 X110.31 Y108.32 E497.27813
G1 X107.65 Y108.32 E497.44358
G1 X108.58 Y98.98 E498.02889
G1 X109.50 Y95.91 E498.22850
G1 X109.50 Y86.97 E498.78652
G1 X113.06 Y86.97 E499.00791
G1 X114.89 Y83.52 E499.25122
G1 X115.27 Y82.83 E499.30055
G1 X120.34 Y76.64 E499.79953
G1 X120.85 Y76.03 E499.84882
G1 X127.01 Y70.98 E500.34577
G1 X127.60 Y70.49 E500.39373
G1 X134.67 Y66.71 E500.89330
G1 X135.35 Y66.34 E500.94208
G1 X142.96 Y64.04 E501.43741
G1 X143.72 Y63.80 E501.48769
G1 X151.71 Y63.01 E501.98825
G1 X152.48 Y62.93 E502.03610
G1 X160.47 Y63.72 E502.53728
G1 X161.26 Y63.80 E502.58651
G1 X168.92 Y66.12 E503.08561
G1 X169.67 Y66.36 E503.13492
G1 X176.69 Y70.11 E503.63118
G1 X177.39 Y70.48 E503.68045
G1 X183.57 Y75.56 E504.17953
G1 X184.18 Y76.06 E504.22882
G1 X189.24 Y82.22 E504.72562
G1 X189.73 Y82.81 E504.77372
G1 X191.94 Y86.97 E505.06714
G1 X195.31 Y86.97 E505.27668
G1 X195.31 Y95.29 E505.79597
G1 X196.17 Y98.15 E505.98203
G1 X196.42 Y98.94 E506.03368
G1 X197.35 Y108.32 E506.62144
G1 X194.50 Y108.32 E506.79874
G1 X194.50 Y108.67 E506.82050
G1 X187.77 Y108.67 E507.24076
G1 X188.16 Y108.99 E507.27271
G1 X188.77 Y109.50 E507.32200
G1 X193.82 Y115.65 E507.81886
G1 X194.31 Y116.25 E507.86682
G1 X196.52 Y120.36 E508.15810
G1 X199.91 Y120.36 E508.36938
G1 X199.91 Y128.76 E508.89285
G1 X200.76 Y131.58 E509.07656
G1 X201.01 Y132.37 E509.12853
G1 X201.92 Y141.75 E509.71590
G1 X184.84 Y141.75 E510.78136
G1 X184.82 Y141.55 E510.79351
G1 X182.51 Y141.55 E510.93732
G1 X183.57 Y142.42 E511.02266
G1 X184.18 Y142.93 E511.07195
G1 X189.24 Y149.08 E511.56871
G1 X189.73 Y149.68 E511.61681
G1 X191.91 Y153.76 E511.90593
G1 X195.31 Y153.76 E512.11747
G1 X195.31 Y162.15 E512.64056
G1 X196.17 Y165.01 E512.82662
G1 X196.42 Y165.80 E512.87828
G1 X197.35 Y175.18 E513.46603
G1 X182.75 Y175.18 E514.37609
G1 X183.57 Y175.85 E514.44207
G1 X184.18 Y176.35 E514.49136
G1 X189.24 Y182.51 E514.98817
G1 X189.73 Y183.10 E515.03622
G1 X191.90 Y187.16 E515.32337
G1 X195.31 Y187.16 E515.53590
G1 X195.31 Y195.58 E516.06068
G1 X196.17 Y198.44 E516.24680
G1 X196.42 Y199.23 E516.29845
G1 X197.35 Y208.60 E516.88621
G1 X194.50 Y208.60 E517.06351
G1 X194.50 Y208.87 E517.07972
G1 X110.31 Y208.87 E522.33066
G1 X110.31 Y208.60 E522.34688
G1 X107.65 Y208.60 E522.51233
G1 X108.58 Y199.27 E523.09758
G1 X109.50 Y196.20 E523.29725
G1 X109.50 Y187.16 E523.86082
G1 X113.10 Y187.16 E524.08514
G1 X114.89 Y183.81 E524.32217
G1 X115.27 Y183.12 E524.37150
G1 X120.34 Y176.93 E524.87048
G1 X120.85 Y176.32 E524.91977
G1 X122.25 Y175.18 E525.03246
G1 X107.65 Y175.18 E525.94258
G1 X108.58 Y165.84 E526.52789
G1 X109.50 Y162.77 E526.72750
G1 X109.50 Y153.76 E527.28933
G1 X113.09 Y153.76 E527.51277
G1 X114.89 Y150.38 E527.75176
G1 X115.27 Y149.69 E527.80109
G1 X120.34 Y143.50 E528.30002
G1 X120.85 Y142.90 E528.34931
G1 X122.25 Y141.75 E528.46226
G1 X112.24 Y141.75 E529.08639
G1 X113.17 Y132.41 E529.67170
G1 X114.11 Y129.31 E529.87365
G1 X114.11 Y120.36 E530.43136
G1 X117.66 Y120.36 E530.65313
G1 X119.48 Y116.95 E530.89424
G1 X119.86 Y116.26 E530.94356
G1 X124.93 Y110.07 E531.44254
G0 F6000 X125.32 Y110.39
G1 F2700 X125.79 Y109.82 E531.48878
G1 X127.81 Y108.17 E531.65158
G1 X110.81 Y108.17 E532.71206
G1 X110.81 Y107.82 E532.73382
G1 X108.20 Y107.82 E532.89603
G1 X109.07 Y99.08 E533.44381
G1 X110.00 Y95.99 E533.64497
G1 X110.00 Y87.47 E534.17649
G1 X113.36 Y87.47 E534.38541
G1 X115.33 Y83.76 E534.64736
G1 X115.69 Y83.11 E534.69359
G1 X120.73 Y76.96 E535.18946
G1 X121.20 Y76.39 E535.23570
G1 X127.30 Y71.39 E535.72715
G1 X127.88 Y70.91 E535.77463
G1 X134.90 Y67.15 E536.27102
G1 X135.55 Y66.81 E536.31681
G1 X143.15 Y64.50 E536.81242
G1 X143.82 Y64.29 E536.85636
G1 X151.72 Y63.51 E537.35091
G1 X152.48 Y63.43 E537.39857
G1 X160.42 Y64.21 E537.89650
G1 X161.16 Y64.29 E537.94271
G1 X168.77 Y66.60 E538.43870
G1 X169.48 Y66.82 E538.48493
G1 X176.45 Y70.55 E538.97820
G1 X177.11 Y70.90 E539.02443
G1 X183.25 Y75.94 E539.52035
G1 X183.82 Y76.42 E539.56659
G1 X188.82 Y82.51 E540.05800
G1 X189.31 Y83.09 E540.10547
G1 X191.65 Y87.47 E540.41446
G1 X194.81 Y87.47 E540.61153
G1 X194.81 Y95.36 E541.10413
G1 X195.72 Y98.37 E541.29984
G1 X195.93 Y99.04 E541.34370
G1 X196.80 Y107.82 E541.89380
G1 X194.00 Y107.82 E542.06785
G1 X194.00 Y108.17 E542.08962
G1 X186.37 Y108.17 E542.56594
G1 X187.84 Y109.38 E542.68501
G1 X188.41 Y109.85 E542.73125
G1 X193.41 Y115.94 E543.22261
G1 X193.90 Y116.53 E543.27009
G1 X196.22 Y120.86 E543.57690
G1 X199.41 Y120.86 E543.77571
G1 X199.41 Y128.83 E544.27256
G1 X200.31 Y131.80 E544.46585
G1 X200.52 Y132.47 E544.51005
G1 X201.37 Y141.25 E545.05975
G1 X185.29 Y141.25 E546.06248
G1 X185.28 Y141.05 E546.07463
G1 X181.12 Y141.05 E546.33400
G1 X183.25 Y142.81 E546.50641
G1 X183.82 Y143.28 E546.55260
G1 X188.82 Y149.37 E547.04400
G1 X189.31 Y149.96 E547.09148
G1 X191.61 Y154.26 E547.39617
G1 X194.81 Y154.26 E547.59523
G1 X194.81 Y162.22 E548.09164
G1 X195.72 Y165.23 E548.28734
G1 X195.93 Y165.90 E548.33121
G1 X196.80 Y174.68 E548.88130
G1 X181.36 Y174.68 E549.84412
G1 X183.25 Y176.23 E549.99717
G1 X183.82 Y176.71 E550.04341
G1 X188.82 Y182.80 E550.53481
G1 X189.31 Y183.38 E550.58229
G1 X191.60 Y187.66 E550.88500
G1 X194.81 Y187.66 E551.08500
G1 X194.81 Y195.65 E551.58315
G1 X195.72 Y198.66 E551.77886
G1 X195.93 Y199.33 E551.82272
G1 X196.80 Y208.10 E552.37282
G1 X194.00 Y208.10 E552.54687
G1 X194.00 Y208.37 E552.56309
G1 X110.81 Y208.37 E557.75167
G1 X110.81 Y208.10 E557.76788
G1 X108.20 Y208.10 E557.93009
G1 X109.07 Y199.36 E558.47786
G1 X110.00 Y196.28 E558.67903
G1 X110.00 Y187.66 E559.21610
G1 X113.40 Y187.66 E559.42794
G1 X115.33 Y184.05 E559.68362
G1 X115.69 Y183.40 E559.72985
G1 X120.73 Y177.25 E560.22572
G1 X121.20 Y176.68 E560.27196
G1 X123.64 Y174.68 E560.46879
G1 X108.20 Y174.68 E561.43161
G1 X109.07 Y165.94 E561.97939
G1 X110.00 Y162.85 E562.18056
G1 X110.00 Y154.26 E562.71588
G1 X113.39 Y154.26 E562.92679
G1 X115.33 Y150.62 E563.18444
G1 X115.69 Y149.97 E563.23068
G1 X120.73 Y143.82 E563.72655
G1 X121.20 Y143.25 E563.77274
G1 X123.65 Y141.25 E563.96983
G1 X112.79 Y141.25 E564.64666
G1 X113.66 Y132.51 E565.19443
G1 X114.61 Y129.38 E565.39795
G1 X114.61 Y120.86 E565.92915
G1 X117.96 Y120.86 E566.13838
G1 X119.92 Y117.19 E566.39815
G1 X120.27 Y116.54 E566.44439
G1 X125.32 Y110.39 E566.94026
G0 F6000 X125.70 Y110.71
G1 F2700 X126.15 Y110.18 E566.98339
G1 X129.21 Y107.67 E567.23043
G1 X111.31 Y107.67 E568.34691
G1 X111.31 Y107.32 E568.36867
G1 X108.76 Y107.32 E568.52763
G1 X109.56 Y99.17 E569.03793
G1 X110.50 Y96.06 E569.24060
G1 X110.50 Y87.97 E569.74562
G1 X113.65 Y87.97 E569.94200
G1 X115.78 Y84.00 E570.22264
G1 X116.10 Y83.39 E570.26583
G1 X121.11 Y77.28 E570.75852
G1 X121.56 Y76.75 E570.80174
G1 X127.64 Y71.75 E571.29266
G1 X128.16 Y71.32 E571.33469
G1 X135.12 Y67.60 E571.82706
G1 X135.74 Y67.27 E571.87059
G1 X143.28 Y64.98 E572.36222
G1 X143.93 Y64.78 E572.40419
G1 X151.77 Y64.01 E572.89573
G1 X152.48 Y63.93 E572.94019
G1 X160.37 Y64.71 E573.43479
G1 X161.06 Y64.78 E573.47794
G1 X168.62 Y67.08 E573.97079
G1 X169.28 Y67.28 E574.01395
G1 X176.22 Y70.99 E574.50431
G1 X176.83 Y71.32 E574.54742
G1 X182.94 Y76.33 E575.04024
G1 X183.47 Y76.77 E575.08338
G1 X188.44 Y82.83 E575.57203
G1 X188.89 Y83.38 E575.61636
G1 X191.35 Y87.97 E575.94087
G1 X194.31 Y87.97 E576.12540
G1 X194.31 Y95.44 E576.59150
G1 X195.23 Y98.50 E576.79071
G1 X195.44 Y99.14 E576.83276
G1 X196.24 Y107.32 E577.34519
G1 X193.50 Y107.32 E577.51600
G1 X193.50 Y107.67 E577.53777
G1 X184.97 Y107.67 E578.07004
G1 X187.53 Y109.76 E578.27613
G1 X188.06 Y110.20 E578.31935
G1 X193.05 Y116.29 E578.81018
G1 X193.48 Y116.81 E578.85221
G1 X195.92 Y121.36 E579.17454
G1 X198.91 Y121.36 E579.36081
G1 X198.91 Y128.91 E579.83109
G1 X199.82 Y131.93 E580.02810
G1 X200.03 Y132.57 E580.07026
G1 X200.82 Y140.75 E580.58237
G1 X185.75 Y140.75 E581.52243
G1 X185.73 Y140.55 E581.53458
G1 X179.72 Y140.55 E581.90938
G1 X182.94 Y143.19 E582.16882
G1 X183.47 Y143.63 E582.21195
G1 X188.46 Y149.72 E582.70277
G1 X188.89 Y150.24 E582.74489
G1 X191.31 Y154.76 E583.06507
G1 X194.31 Y154.76 E583.25166
G1 X194.31 Y162.30 E583.72156
G1 X195.23 Y165.36 E583.92078
G1 X195.44 Y166.00 E583.96283
G1 X196.24 Y174.18 E584.47526
G1 X181.19 Y174.18 E585.41394
G1 X181.17 Y173.98 E585.42610
G1 X179.72 Y173.98 E585.51640
G1 X182.94 Y176.62 E585.77553
G1 X183.47 Y177.06 E585.81867
G1 X188.44 Y183.12 E586.30732
G1 X188.89 Y183.66 E586.35165
G1 X191.30 Y188.16 E586.66985
G1 X194.31 Y188.16 E586.85737
G1 X194.31 Y195.73 E587.32902
G1 X195.23 Y198.78 E587.52824
G1 X195.44 Y199.43 E587.57029
G1 X196.24 Y207.60 E588.08272
G1 X193.50 Y207.60 E588.25353
G1 X193.50 Y207.87 E588.26975
G1 X111.31 Y207.87 E593.39596
G1 X111.31 Y207.60 E593.41218
G1 X108.76 Y207.60 E593.57114
G1 X109.56 Y199.46 E594.08144
G1 X110.50 Y196.35 E594.28411
G1 X110.50 Y188.16 E594.79467
G1 X113.70 Y188.16 E594.99405
G1 X115.78 Y184.28 E595.26839
G1 X116.10 Y183.68 E595.31158
G1 X121.11 Y177.57 E595.80427
G1 X121.56 Y177.03 E595.84749
G1 X125.28 Y173.98 E596.14751
G1 X123.83 Y173.98 E596.23788
G1 X123.81 Y174.18 E596.25004
G1 X108.76 Y174.18 E597.18872
G1 X109.56 Y166.03 E597.69903
G1 X110.50 Y162.92 E597.90169
G1 X110.50 Y154.76 E598.41051
G1 X113.69 Y154.76 E598.60895
G1 X115.78 Y150.86 E598.88527
G1 X116.10 Y150.25 E598.92846
G1 X121.12 Y144.14 E599.42114
G1 X121.56 Y143.61 E599.46432
G1 X125.04 Y140.75 E599.74556
G1 X113.34 Y140.75 E600.47514
G1 X114.15 Y132.60 E600.98544
G1 X115.11 Y129.46 E601.19046
G1 X115.11 Y121.36 E601.69516
G1 X118.26 Y121.36 E601.89191
G1 X120.36 Y117.43 E602.17035
G1 X120.69 Y116.82 E602.21354
G1 X125.70 Y110.71 E602.70623
G0 F6000 X117.31 Y101.67
G1 F2700 X117.31 Y101.32 E602.72800
G1 X115.38 Y101.32 E602.84811
G1 X115.47 Y100.35 E602.90865
G1 X116.50 Y96.95 E603.13002
G1 X116.50 Y93.97 E603.31636
G1 X117.41 Y93.97 E603.37286
G1 X117.59 Y93.36 E603.41202
G1 X117.62 Y93.27 E603.41831
G1 X121.11 Y86.74 E603.87980
G1 X125.74 Y81.10 E604.33500
G1 X125.81 Y81.02 E604.34133
G1 X131.45 Y76.39 E604.79649
G1 X131.53 Y76.33 E604.80282
G1 X138.05 Y72.84 E605.26434
G1 X145.04 Y70.72 E605.71952
G1 X145.13 Y70.69 E605.72580
G1 X152.40 Y69.97 E606.18093
G1 X152.50 Y69.96 E606.18726
G1 X159.76 Y70.68 E606.64252
G1 X159.87 Y70.69 E606.64885
G1 X166.85 Y72.81 E607.10410
G1 X166.95 Y72.84 E607.11039
G1 X173.47 Y76.33 E607.57183
G1 X179.12 Y80.96 E608.02707
G1 X179.19 Y81.02 E608.03340
G1 X183.82 Y86.66 E608.48843
G1 X183.89 Y86.74 E608.49485
G1 X187.38 Y93.27 E608.95642
G1 X187.59 Y93.97 E609.00177
G1 X188.31 Y93.97 E609.04649
G1 X188.31 Y96.33 E609.19398
G1 X189.49 Y100.25 E609.44950
G1 X189.53 Y100.35 E609.45591
G1 X189.62 Y101.32 E609.51651
G1 X187.50 Y101.32 E609.64847
G1 X187.50 Y101.67 E609.67023
G1 X117.31 Y101.67 E614.04810
G0 F6000 X116.81 Y101.82
G1 F2700 X114.83 Y101.82 E614.17145
G1 X114.98 Y100.25 E614.26946
G1 X116.00 Y96.88 E614.48939
G1 X116.00 Y93.47 E614.70218
G1 X117.04 Y93.47 E614.76672
G1 X117.11 Y93.22 E614.78294
G1 X117.16 Y93.07 E614.79231
G1 X120.62 Y86.59 E615.25042
G1 X120.69 Y86.46 E615.25977
G1 X125.36 Y80.78 E615.71811
G1 X125.45 Y80.67 E615.72750
G1 X131.13 Y76.00 E616.18567
G1 X131.25 Y75.91 E616.19492
G1 X137.73 Y72.44 E616.65326
G1 X137.86 Y72.37 E616.66266
G1 X144.89 Y70.24 E617.12099
G1 X144.89 Y70.24 E617.12105
G1 X145.03 Y70.20 E617.13022
G1 X152.34 Y69.48 E617.58836
G1 X152.50 Y69.46 E617.59789
G1 X159.81 Y70.18 E618.05647
G1 X159.96 Y70.20 E618.06582
G1 X167.00 Y72.33 E618.52424
G1 X167.14 Y72.38 E618.53361
G1 X173.62 Y75.84 E618.99167
G1 X173.75 Y75.91 E619.00102
G1 X179.43 Y80.57 E619.45941
G1 X179.55 Y80.67 E619.46880
G1 X184.21 Y86.35 E619.92692
G1 X184.31 Y86.46 E619.93618
G1 X187.77 Y92.94 E620.39454
G1 X187.77 Y92.94 E620.39460
G1 X187.84 Y93.08 E620.40400
G1 X187.96 Y93.47 E620.42935
G1 X188.81 Y93.47 E620.48211
G1 X188.81 Y96.25 E620.65604
G1 X189.97 Y100.11 E620.90720
G1 X189.97 Y100.11 E620.90726
G1 X190.02 Y100.25 E620.91643
G1 X190.17 Y101.82 E621.01470
G1 X188.00 Y101.82 E621.14990
G1 X188.00 Y102.17 E621.17166
G1 X116.81 Y102.17 E625.61189
G1 X116.81 Y101.82 E625.63366
G0 F6000 X137.49 Y138.87
G1 F2700 X137.67 Y138.77 E625.64618
G1 X144.75 Y136.62 E626.10763
G1 X144.93 Y136.57 E626.11966
G1 X152.30 Y135.84 E626.58137
G1 X152.50 Y135.82 E626.59360
G1 X159.87 Y136.55 E627.05543
G1 X160.06 Y136.57 E627.06784
G1 X167.15 Y138.72 E627.52937
G1 X167.34 Y138.78 E627.54185
G1 X173.86 Y142.26 E628.00281
G1 X174.03 Y142.35 E628.01525
G1 X179.75 Y147.05 E628.47679
G1 X179.91 Y147.18 E628.48923
G1 X184.59 Y152.88 E628.94979
G1 X184.59 Y152.88 E628.94985
G1 X184.72 Y153.04 E628.96256
G1 X188.21 Y159.57 E629.42400
G1 X188.31 Y159.74 E629.43652
G1 X188.31 Y159.76 E629.43789
G1 X189.31 Y159.76 E629.49987
G1 X189.31 Y163.04 E629.70424
G1 X190.45 Y166.81 E629.94985
G1 X190.51 Y167.01 E629.96273
G1 X190.72 Y169.18 E630.09866
G1 X185.71 Y169.18 E630.41116
G1 X185.69 Y168.98 E630.42332
G1 X119.31 Y168.98 E634.56358
G1 X119.29 Y169.18 E634.57574
G1 X114.28 Y169.18 E634.88824
G1 X114.49 Y167.01 E635.02372
G1 X115.50 Y163.66 E635.24203
G1 X115.50 Y159.76 E635.48525
G1 X116.69 Y159.76 E635.55915
G1 X116.70 Y159.74 E635.56085
G1 X120.18 Y153.22 E636.02186
G1 X120.28 Y153.04 E636.03433
G1 X124.97 Y147.32 E636.49574
G1 X125.10 Y147.17 E636.50822
G1 X130.81 Y142.49 E636.96884
G1 X130.81 Y142.48 E636.96890
G1 X130.97 Y142.35 E636.98161
G1 X137.49 Y138.87 E637.44299
G0 F6000 X137.73 Y139.31
G1 F2700 X137.86 Y139.24 E637.45239
G1 X144.89 Y137.10 E637.91072
G1 X144.89 Y137.10 E637.91078
G1 X145.03 Y137.06 E637.91995
G1 X152.34 Y136.34 E638.37809
G1 X152.50 Y136.32 E638.38762
G1 X159.81 Y137.04 E638.84620
G1 X159.96 Y137.06 E638.85555
G1 X167.00 Y139.19 E639.31397
G1 X167.14 Y139.24 E639.32334
G1 X173.62 Y142.70 E639.78140
G1 X173.75 Y142.77 E639.79075
G1 X179.43 Y147.43 E640.24914
G1 X179.55 Y147.53 E640.25853
G1 X184.21 Y153.21 E640.71660
G1 X184.31 Y153.32 E640.72585
G1 X187.77 Y159.80 E641.18422
G1 X187.77 Y159.80 E641.18428
G1 X187.84 Y159.94 E641.19368
G1 X187.94 Y160.26 E641.21505
G1 X188.81 Y160.26 E641.26899
G1 X188.81 Y163.12 E641.44673
G1 X189.97 Y166.97 E641.69788
G1 X189.97 Y166.97 E641.69795
G1 X190.02 Y167.11 E641.70712
G1 X190.17 Y168.68 E641.80538
G1 X186.17 Y168.68 E642.05520
G1 X186.15 Y168.48 E642.06737
G1 X118.85 Y168.48 E646.26401
G1 X118.83 Y168.68 E646.27617
G1 X114.83 Y168.68 E646.52599
G1 X114.98 Y167.11 E646.62401
G1 X116.00 Y163.74 E646.84394
G1 X116.00 Y160.26 E647.06052
G1 X117.06 Y160.26 E647.12619
G1 X117.11 Y160.08 E647.13844
G1 X117.16 Y159.93 E647.14781
G1 X120.62 Y153.46 E647.60592
G1 X120.69 Y153.32 E647.61527
G1 X125.36 Y147.64 E648.07362
G1 X125.45 Y147.53 E648.08296
G1 X131.13 Y142.87 E648.54113
G1 X131.25 Y142.77 E648.55038
G1 X137.73 Y139.31 E649.00872
G0 F6000 X138.05 Y139.70
G1 F2700 X145.04 Y137.58 E649.46391
G1 X145.13 Y137.55 E649.47018
G1 X152.40 Y136.84 E649.92532
G1 X152.50 Y136.83 E649.93164
G1 X159.76 Y137.54 E650.38690
G1 X159.87 Y137.55 E650.39323
G1 X166.85 Y139.67 E650.84848
G1 X166.95 Y139.70 E650.85477
G1 X173.47 Y143.19 E651.31621
G1 X179.12 Y147.82 E651.77145
G1 X179.19 Y147.88 E651.77779
G1 X183.82 Y153.52 E652.23276
G1 X183.89 Y153.60 E652.23918
G1 X187.38 Y160.13 E652.70075
G1 X187.57 Y160.76 E652.74214
G1 X188.31 Y160.76 E652.78798
G1 X188.31 Y163.19 E652.93927
G1 X189.49 Y167.11 E653.19479
G1 X189.53 Y167.21 E653.20120
G1 X189.62 Y168.18 E653.26180
G1 X186.62 Y168.18 E653.44901
G1 X186.60 Y167.98 E653.46118
G1 X118.40 Y167.98 E657.71419
G1 X118.38 Y168.18 E657.72635
G1 X115.38 Y168.18 E657.91357
G1 X115.47 Y167.21 E657.97411
G1 X116.50 Y163.81 E658.19548
G1 X116.50 Y160.76 E658.38562
G1 X117.43 Y160.76 E658.44324
G1 X117.59 Y160.22 E658.47844
G1 X117.62 Y160.13 E658.48473
G1 X121.11 Y153.60 E658.94622
G1 X125.74 Y147.96 E659.40137
G1 X125.81 Y147.88 E659.40770
G1 X131.45 Y143.25 E659.86286
G1 X131.53 Y143.19 E659.86919
G1 X138.05 Y139.70 E660.33071
G0 F6000 X139.20 Y142.47
G1 F2700 X133.20 Y145.68 E660.75537
G1 X127.93 Y150.01 E661.18031
G1 X123.61 Y155.27 E661.60515
G1 X120.62 Y160.85 E661.99960
G1 X120.89 Y161.48 E662.04232
G1 X184.10 Y161.48 E665.98477
G1 X184.10 Y160.76 E666.02954
G1 X184.33 Y160.76 E666.04351
G1 X181.39 Y155.27 E666.43193
G1 X177.07 Y150.01 E666.85682
G1 X171.80 Y145.68 E667.28172
G1 X165.80 Y142.47 E667.70638
G1 X159.28 Y140.50 E668.13107
G1 X152.50 Y139.83 E668.55601
G1 X145.72 Y140.50 E668.98094
G1 X139.20 Y142.47 E669.40563
G0 F6000 X139.39 Y142.94
G1 F2700 X133.48 Y146.10 E669.82399
G1 X128.28 Y150.36 E670.24286
G1 X124.02 Y155.55 E670.66163
G1 X121.18 Y160.88 E671.03822
G1 X121.22 Y160.98 E671.04532
G1 X183.60 Y160.98 E674.93569
G1 X183.60 Y160.47 E674.96756
G1 X180.98 Y155.55 E675.31544
G1 X176.72 Y150.36 E675.73426
G1 X171.52 Y146.10 E676.15309
G1 X165.61 Y142.94 E676.57145
G1 X159.18 Y140.99 E676.99047
G1 X152.50 Y140.33 E677.40889
G1 X145.82 Y140.99 E677.82730
G1 X139.39 Y142.94 E678.24633
G0 F6000 X139.59 Y143.40
G1 F2700 X133.75 Y146.52 E678.65866
G1 X128.64 Y150.72 E679.07132
G1 X124.44 Y155.83 E679.48389
G1 X121.95 Y160.48 E679.81291
G1 X183.04 Y160.48 E683.62265
G1 X180.56 Y155.83 E683.95167
G1 X176.36 Y150.72 E684.36429
G1 X171.25 Y146.52 E684.77691
G1 X165.41 Y143.40 E685.18924
G1 X159.08 Y141.48 E685.60176
G1 X152.50 Y140.83 E686.01434
G1 X145.92 Y141.48 E686.42693
G1 X139.59 Y143.40 E686.83945
G0 F6000 X139.78 Y143.87
G1 F2700 X134.03 Y146.94 E687.24556
G1 X129.00 Y151.07 E687.65210
G1 X124.86 Y156.11 E688.05851
G1 X122.79 Y159.98 E688.33238
G1 X182.21 Y159.98 E692.03797
G1 X180.14 Y156.11 E692.31189
G1 X176.00 Y151.07 E692.71830
G1 X170.97 Y146.94 E693.12481
G1 X165.22 Y143.87 E693.53092
G1 X158.99 Y141.97 E693.93738
G1 X152.50 Y141.34 E694.34382
G1 X146.01 Y141.97 E694.75026
G1 X139.78 Y143.87 E695.15672
G0 F6000 X139.97 Y144.33
G1 F2700 X134.31 Y147.36 E695.55706
G1 X129.35 Y151.43 E695.95701
G1 X125.28 Y156.39 E696.35752
G1 X123.62 Y159.48 E696.57631
G1 X181.38 Y159.48 E700.17789
G1 X179.72 Y156.39 E700.39673
G1 X175.65 Y151.42 E700.79725
G1 X170.69 Y147.36 E701.19711
G1 X165.03 Y144.33 E701.59751
G1 X158.89 Y142.47 E701.99771
G1 X152.50 Y141.84 E702.39795
G1 X146.11 Y142.47 E702.79819
G1 X139.97 Y144.33 E703.19839
G0 F6000 X140.16 Y144.79
G1 F2700 X134.59 Y147.77 E703.59228
G1 X129.70 Y151.79 E703.98678
G1 X125.70 Y156.67 E704.38060
G1 X124.46 Y158.98 E704.54438
G1 X180.54 Y158.98 E708.04193
G1 X179.31 Y156.67 E708.20548
G1 X175.29 Y151.78 E708.60001
G1 X170.41 Y147.77 E708.99385
G1 X164.84 Y144.79 E709.38793
G1 X158.79 Y142.96 E709.78208
G1 X152.50 Y142.34 E710.17618
G1 X146.21 Y142.96 E710.57027
G1 X140.16 Y144.79 E710.96442
G0 F6000 X140.36 Y145.26
G1 F2700 X134.87 Y148.19 E711.35231
G1 X130.06 Y152.14 E711.74034
G1 X126.11 Y156.95 E712.12827
G1 X125.29 Y158.48 E712.23697
G1 X179.71 Y158.48 E715.63050
G1 X178.89 Y156.95 E715.73920
G1 X174.94 Y152.14 E716.12718
G1 X170.13 Y148.19 E716.51517
G1 X164.64 Y145.26 E716.90306
G1 X158.69 Y143.45 E717.29106
G1 X152.50 Y142.84 E717.67896
G1 X146.31 Y143.45 E718.06686
G1 X140.36 Y145.26 E718.45486
G0 F6000 X140.55 Y145.72
G1 F2700 X135.15 Y148.61 E718.83644
G1 X130.42 Y152.49 E719.21845
G1 X126.53 Y157.22 E719.60017
G1 X126.13 Y157.98 E719.65377
G1 X178.87 Y157.98 E722.94315
G1 X178.47 Y157.23 E722.99667
G1 X174.58 Y152.49 E723.37853
G1 X169.85 Y148.61 E723.76044
G1 X164.45 Y145.72 E724.14208
G1 X158.59 Y143.95 E724.52402
G1 X152.50 Y143.34 E724.90578
G1 X146.41 Y143.95 E725.28754
G1 X140.55 Y145.72 E725.66948
G0 F6000 X140.74 Y146.19
G1 F2700 X135.43 Y149.03 E726.04540
G1 X130.77 Y152.85 E726.42080
G1 X126.97 Y157.48 E726.79490
G1 X178.03 Y157.48 E729.97952
G1 X174.23 Y152.85 E730.35340
G1 X169.57 Y149.03 E730.72925
G1 X164.26 Y146.19 E731.10495
G1 X158.50 Y144.44 E731.48025
G1 X152.50 Y143.85 E731.85612
G1 X146.50 Y144.44 E732.23198
G1 X140.74 Y146.19 E732.60729
G0 F6000 X140.93 Y146.65
G1 F2700 X135.71 Y149.44 E732.97657
G1 X131.13 Y153.21 E733.34625
G1 X128.02 Y156.98 E733.65110
G1 X176.98 Y156.98 E736.70388
G1 X173.87 Y153.20 E737.00878
G1 X169.29 Y149.44 E737.37842
G1 X164.07 Y146.65 E737.74770
G1 X158.39 Y144.93 E738.11759
G1 X152.50 Y144.35 E738.48693
G1 X146.61 Y144.93 E738.85628
G1 X140.93 Y146.65 E739.22617
G0 F6000 X141.13 Y147.12
G1 F2700 X135.99 Y149.86 E739.58956
G1 X131.48 Y153.56 E739.95304
G1 X129.08 Y156.48 E740.18890
G1 X175.92 Y156.48 E743.10978
G1 X173.52 Y153.56 E743.34569
G1 X169.01 Y149.86 E743.70922
G1 X163.87 Y147.12 E744.07256
G1 X158.30 Y145.42 E744.43581
G1 X152.50 Y144.85 E744.79927
G1 X146.70 Y145.42 E745.16272
G1 X141.13 Y147.12 E745.52597
G0 F6000 X141.32 Y147.58
G1 F2700 X136.27 Y150.28 E745.88309
G1 X131.84 Y153.92 E746.24050
G1 X130.14 Y155.98 E746.40732
G1 X174.86 Y155.98 E749.19637
G1 X173.16 Y153.91 E749.36329
G1 X168.74 Y150.28 E749.72048
G1 X163.68 Y147.58 E750.07779
G1 X158.20 Y145.92 E750.43530
G1 X152.50 Y145.35 E750.79230
G1 X146.80 Y145.92 E751.14930
G1 X141.32 Y147.58 E751.50682
G0 F6000 X141.51 Y148.04
G1 F2700 X136.54 Y150.70 E751.85819
G1 X132.19 Y154.27 E752.20899
G1 X131.20 Y155.48 E752.30704
G1 X173.80 Y155.48 E754.96413
G1 X172.81 Y154.27 E755.06201
G1 X168.46 Y150.70 E755.41304
G1 X163.49 Y148.04 E755.76441
G1 X158.10 Y146.41 E756.11534
G1 X152.50 Y145.86 E756.46645
G1 X146.90 Y146.41 E756.81757
G1 X141.51 Y148.04 E757.16849
G0 F6000 X141.71 Y148.51
G1 F2700 X136.82 Y151.12 E757.51364
G1 X132.55 Y154.63 E757.85873
G1 X132.25 Y154.98 E757.88753
G1 X172.75 Y154.98 E760.41278
G1 X172.45 Y154.62 E760.44167
G1 X168.18 Y151.12 E760.78668
G1 X163.29 Y148.51 E761.13186
G1 X158.00 Y146.90 E761.47659
G1 X152.50 Y146.36 E761.82156
G1 X147.00 Y146.90 E762.16654
G1 X141.71 Y148.51 E762.51127
G0 F6000 X141.90 Y148.97
G1 F2700 X137.10 Y151.53 E762.85036
G1 X133.51 Y154.48 E763.14015
G1 X171.49 Y154.48 E765.50881
G1 X167.90 Y151.53 E765.79883
G1 X163.10 Y148.97 E766.13770
G1 X157.91 Y147.40 E766.47643
G1 X152.50 Y146.86 E766.81520
G1 X147.09 Y147.40 E767.15397
G1 X141.90 Y148.97 E767.49270
G0 F6000 X144.93 Y169.99
G1 F2700 X152.30 Y169.27 E767.95442
G1 X152.50 Y169.25 E767.96664
G1 X159.87 Y169.97 E768.42847
G1 X160.06 Y169.99 E768.44089
G1 X167.15 Y172.14 E768.90241
G1 X167.34 Y172.20 E768.91490
G1 X173.86 Y175.69 E769.37586
G1 X174.03 Y175.78 E769.38830
G1 X179.75 Y180.47 E769.84984
G1 X179.91 Y180.60 E769.86228
G1 X184.59 Y186.31 E770.32288
G1 X184.59 Y186.31 E770.32294
G1 X184.72 Y186.47 E770.33566
G1 X188.21 Y192.99 E770.79703
G1 X188.30 Y193.16 E770.80914
G1 X189.31 Y193.16 E770.87169
G1 X189.31 Y196.47 E771.07774
G1 X190.45 Y200.24 E771.32342
G1 X190.51 Y200.44 E771.33629
G1 X190.72 Y202.60 E771.47222
G1 X188.50 Y202.60 E771.61067
G1 X188.50 Y202.87 E771.62688
G1 X116.31 Y202.87 E776.12947
G1 X116.31 Y202.60 E776.14569
G1 X114.28 Y202.60 E776.27228
G1 X114.49 Y200.44 E776.40777
G1 X115.50 Y197.09 E776.62608
G1 X115.50 Y193.16 E776.87104
G1 X116.70 Y193.16 E776.94550
G1 X120.18 Y186.65 E777.40638
G1 X120.28 Y186.47 E777.41885
G1 X124.97 Y180.75 E777.88030
G1 X125.10 Y180.60 E777.89279
G1 X130.81 Y175.91 E778.35340
G1 X130.81 Y175.91 E778.35347
G1 X130.97 Y175.78 E778.36618
G1 X137.49 Y172.29 E778.82756
G1 X137.67 Y172.20 E778.84008
G1 X144.75 Y170.05 E779.30153
G1 X144.93 Y169.99 E779.31356
G0 F6000 X145.03 Y170.49
G1 F2700 X152.34 Y169.77 E779.77170
G1 X152.50 Y169.75 E779.78123
G1 X159.81 Y170.47 E780.23981
G1 X159.96 Y170.49 E780.24916
G1 X167.00 Y172.62 E780.70758
G1 X167.14 Y172.66 E780.71695
G1 X173.62 Y176.13 E781.17501
G1 X173.75 Y176.20 E781.18436
G1 X179.43 Y180.86 E781.64275
G1 X179.55 Y180.96 E781.65214
G1 X184.21 Y186.63 E782.11026
G1 X184.31 Y186.75 E782.11951
G1 X187.77 Y193.23 E782.57785
G1 X187.84 Y193.36 E782.58725
G1 X187.93 Y193.66 E782.60686
G1 X188.81 Y193.66 E782.66131
G1 X188.81 Y196.54 E782.84079
G1 X189.97 Y200.40 E783.09194
G1 X189.97 Y200.40 E783.09201
G1 X190.02 Y200.54 E783.10118
G1 X190.17 Y202.10 E783.19944
G1 X188.00 Y202.10 E783.33464
G1 X188.00 Y202.37 E783.35086
G1 X116.81 Y202.37 E787.79108
G1 X116.81 Y202.10 E787.80730
G1 X114.83 Y202.10 E787.93065
G1 X114.98 Y200.54 E788.02866
G1 X116.00 Y197.17 E788.24860
G1 X116.00 Y193.66 E788.46693
G1 X117.07 Y193.66 E788.53309
G1 X117.11 Y193.50 E788.54359
G1 X117.16 Y193.36 E788.55296
G1 X120.62 Y186.88 E789.01102
G1 X120.69 Y186.75 E789.02036
G1 X125.36 Y181.07 E789.47871
G1 X125.45 Y180.95 E789.48810
G1 X131.13 Y176.29 E789.94627
G1 X131.25 Y176.20 E789.95552
G1 X137.73 Y172.73 E790.41386
G1 X137.86 Y172.66 E790.42326
G1 X144.89 Y170.53 E790.88158
G1 X144.89 Y170.53 E790.88165
G1 X145.03 Y170.49 E790.89082
G0 F6000 X145.13 Y170.98
G1 F2700 X152.40 Y170.26 E791.34595
G1 X152.50 Y170.25 E791.35228
G1 X159.76 Y170.97 E791.80754
G1 X159.87 Y170.98 E791.81387
G1 X166.85 Y173.10 E792.26912
G1 X166.95 Y173.13 E792.27541
G1 X173.47 Y176.62 E792.73685
G1 X179.12 Y181.25 E793.19209
G1 X179.19 Y181.31 E793.19842
G1 X183.82 Y186.95 E793.65345
G1 X183.89 Y187.03 E793.65987
G1 X187.38 Y193.56 E794.12138
G1 X187.56 Y194.16 E794.16100
G1 X188.31 Y194.16 E794.20740
G1 X188.31 Y196.62 E794.36037
G1 X189.49 Y200.54 E794.61595
G1 X189.53 Y200.64 E794.62236
G1 X189.62 Y201.60 E794.68296
G1 X187.50 Y201.60 E794.81492
G1 X187.50 Y201.87 E794.83114
G1 X117.31 Y201.87 E799.20900
G1 X117.31 Y201.60 E799.22522
G1 X115.38 Y201.60 E799.34533
G1 X115.47 Y200.64 E799.40587
G1 X116.50 Y197.24 E799.62730
G1 X116.50 Y194.16 E799.81912
G1 X117.44 Y194.16 E799.87725
G1 X117.59 Y193.65 E799.91069
G1 X117.62 Y193.56 E799.91698
G1 X121.11 Y187.03 E800.37841
G1 X125.74 Y181.39 E800.83361
G1 X125.81 Y181.31 E800.83994
G1 X131.45 Y176.68 E801.29510
G1 X131.53 Y176.62 E801.30143
G1 X138.05 Y173.13 E801.76295
G1 X145.04 Y171.01 E802.21814
G1 X145.13 Y170.98 E802.22441
G0 F6000 X116.53 Y100.32
;TYPE:WALL-INNER
G1 F2700 X118.55 Y93.66 E802.65843
G1 X121.94 Y87.30 E803.10761
G1 X126.52 Y81.73 E803.55692
G1 X132.09 Y77.16 E804.00631
G1 X138.44 Y73.77 E804.45547
G1 X145.33 Y71.68 E804.90492
G1 X152.50 Y70.97 E805.35398
G1 X159.66 Y71.67 E805.80266
G1 X166.56 Y73.77 E806.25222
G1 X172.91 Y77.16 E806.70138
G1 X178.48 Y81.73 E807.15070
G1 X183.05 Y87.30 E807.60004
G1 X186.45 Y93.65 E808.04926
G1 X188.47 Y100.32 E808.48353
G1 X116.53 Y100.32 E812.96985
G0 F6000 X115.97 Y100.45
;TYPE:WALL-OUTER
G1 F2700 X118.07 Y93.51 E813.42164
G1 X118.09 Y93.46 E813.42492
G1 X121.53 Y87.02 E813.88035
G1 X126.13 Y81.42 E814.33245
G1 X126.16 Y81.38 E814.33573
G1 X131.77 Y76.78 E814.78800
G1 X131.81 Y76.74 E814.79136
G1 X138.25 Y73.30 E815.24652
G1 X145.19 Y71.20 E815.69883
G1 X145.23 Y71.18 E815.70191
G1 X152.45 Y70.47 E816.15410
G1 X152.50 Y70.47 E816.15735
G1 X159.71 Y71.18 E816.60929
G1 X159.77 Y71.18 E816.61274
G1 X166.70 Y73.29 E817.06473
G1 X166.75 Y73.30 E817.06787
G1 X173.19 Y76.74 E817.52325
G1 X178.80 Y81.34 E817.97540
G1 X178.84 Y81.38 E817.97867
G1 X183.44 Y86.98 E818.43090
G1 X183.47 Y87.02 E818.43426
G1 X186.91 Y93.46 E818.88947
G1 X189.02 Y100.40 E819.34172
G1 X189.03 Y100.45 E819.34480
G1 X189.07 Y100.82 E819.36793
G1 X115.93 Y100.82 E823.92901
G1 X115.97 Y100.45 E823.95220
G0 F6000 X116.93 Y99.60
;TYPE:FILL
G1 F2700 X117.47 Y100.14 E823.99965
G0 F6000 X118.17 Y100.14
G1 F2700 X117.09 Y99.06 E824.09499
G0 F6000 X117.26 Y98.52
G1 F2700 X118.88 Y100.14 E824.23813
G0 F6000 X119.59 Y100.14
G1 F2700 X117.42 Y97.98 E824.42907
G0 F6000 X117.58 Y97.43
G1 F2700 X120.29 Y100.14 E824.66794
G0 F6000 X121.00 Y100.14
G1 F2700 X117.75 Y96.89 E824.95462
G0 F6000 X117.92 Y96.35
G1 F2700 X121.71 Y100.14 E825.28909
G0 F6000 X122.42 Y100.14
G1 F2700 X118.08 Y95.81 E825.67150
G0 F6000 X118.24 Y95.26
G1 F2700 X123.12 Y100.14 E826.10180
G0 F6000 X123.83 Y100.14
G1 F2700 X118.41 Y94.72 E826.57991
G0 F6000 X118.57 Y94.18
G1 F2700 X124.54 Y100.14 E827.10590
G0 F6000 X125.24 Y100.14
G1 F2700 X118.75 Y93.65 E827.67854
G0 F6000 X119.00 Y93.19
G1 F2700 X125.95 Y100.14 E828.29184
G0 F6000 X126.66 Y100.14
G1 F2700 X119.24 Y92.73 E828.94572
G0 F6000 X119.49 Y92.27
G1 F2700 X127.36 Y100.14 E829.64025
G0 F6000 X128.07 Y100.14
G1 F2700 X119.73 Y91.81 E830.37543
G0 F6000 X119.98 Y91.34
G1 F2700 X128.78 Y100.14 E831.15128
G0 F6000 X129.49 Y100.14
G1 F2700 X120.23 Y90.88 E831.96782
G0 F6000 X120.47 Y90.42
G1 F2700 X130.19 Y100.14 E832.82503
G0 F6000 X130.90 Y100.14
G1 F2700 X120.72 Y89.96 E833.72285
G0 F6000 X120.97 Y89.50
G1 F2700 X131.61 Y100.14 E834.66132
G0 F6000 X132.31 Y100.14
G1 F2700 X121.21 Y89.04 E835.64045
G0 F6000 X121.46 Y88.58
G1 F2700 X133.02 Y100.14 E836.66020
G0 F6000 X133.73 Y100.14
G1 F2700 X121.70 Y88.12 E837.72060
G0 F6000 X121.95 Y87.66
G1 F2700 X134.44 Y100.14 E838.82162
G0 F6000 X135.14 Y100.14
G1 F2700 X122.23 Y87.23 E839.96052
G0 F6000 X122.55 Y86.84
G1 F2700 X135.85 Y100.14 E841.13368
G0 F6000 X136.56 Y100.14
G1 F2700 X122.87 Y86.45 E842.34106
G0 F6000 X123.19 Y86.06
G1 F2700 X137.26 Y100.14 E843.58265
G0 F6000 X137.97 Y100.14
G1 F2700 X123.50 Y85.67 E844.85847
G0 F6000 X123.82 Y85.29
G1 F2700 X138.68 Y100.14 E846.16855
G0 F6000 X139.38 Y100.14
G1 F2700 X124.14 Y84.90 E847.51286
G0 F6000 X124.46 Y84.51
G1 F2700 X140.09 Y100.14 E848.89146
G0 F6000 X140.80 Y100.14
G1 F2700 X124.78 Y84.12 E850.30429
G0 F6000 X125.10 Y83.73
G1 F2700 X141.51 Y100.14 E851.75134
G0 F6000 X142.21 Y100.14
G1 F2700 X125.42 Y83.34 E853.23265
G0 F6000 X125.74 Y82.96
G1 F2700 X142.92 Y100.14 E854.74818
G0 F6000 X143.63 Y100.14
G1 F2700 X126.06 Y82.57 E856.29802
G0 F6000 X126.37 Y82.18
G1 F2700 X144.34 Y100.14 E857.88207
G0 F6000 X145.04 Y100.14
G1 F2700 X126.71 Y81.81 E859.49920
G0 F6000 X127.09 Y81.49
G1 F2700 X145.75 Y100.14 E861.14447
G0 F6000 X146.46 Y100.14
G1 F2700 X127.48 Y81.17 E862.81786
G0 F6000 X127.87 Y80.85
G1 F2700 X147.16 Y100.14 E864.51935
G0 F6000 X147.87 Y100.14
G1 F2700 X128.26 Y80.53 E866.24897
G0 F6000 X128.65 Y80.21
G1 F2700 X148.58 Y100.14 E868.00673
G0 F6000 X149.28 Y100.14
G1 F2700 X129.04 Y79.89 E869.79258
G0 F6000 X129.42 Y79.57
G1 F2700 X149.99 Y100.14 E871.60655
G0 F6000 X150.70 Y100.14
G1 F2700 X129.81 Y79.25 E873.44867
G0 F6000 X130.20 Y78.94
G1 F2700 X151.41 Y100.14 E875.31892
G0 F6000 X152.11 Y100.14
G1 F2700 X130.59 Y78.62 E877.21725
G0 F6000 X130.98 Y78.30
G1 F2700 X152.82 Y100.14 E879.14372
G0 F6000 X153.53 Y100.14
G1 F2700 X131.37 Y77.98 E881.09828
G0 F6000 X131.75 Y77.66
G1 F2700 X154.23 Y100.14 E883.08098
G0 F6000 X154.94 Y100.14
G1 F2700 X132.14 Y77.34 E885.09181
G0 F6000 X132.59 Y77.09
G1 F2700 X155.65 Y100.14 E887.12504
G0 F6000 X156.36 Y100.14
G1 F2700 X133.06 Y76.84 E889.17996
G0 F6000 X133.52 Y76.59
G1 F2700 X157.06 Y100.14 E891.25667
G0 F6000 X157.77 Y100.14
G1 F2700 X133.98 Y76.35 E893.35508
G0 F6000 X134.44 Y76.10
G1 F2700 X158.48 Y100.14 E895.47518
G0 F6000 X159.18 Y100.14
G1 F2700 X134.90 Y75.86 E897.61702
G0 F6000 X135.36 Y75.61
G1 F2700 X159.89 Y100.14 E899.78056
G0 F6000 X160.60 Y100.14
G1 F2700 X135.82 Y75.36 E901.96579
G0 F6000 X136.28 Y75.12
G1 F2700 X161.31 Y100.14 E904.17281
G0 F6000 X162.01 Y100.14
G1 F2700 X136.74 Y74.87 E906.40157
G0 F6000 X137.20 Y74.62
G1 F2700 X162.72 Y100.14 E908.65202
G0 F6000 X163.43 Y100.14
G1 F2700 X137.66 Y74.38 E910.92426
G0 F6000 X138.12 Y74.13
G1 F2700 X164.13 Y100.14 E913.21819
G0 F6000 X164.84 Y100.14
G1 F2700 X138.60 Y73.90 E915.53250
G0 F6000 X139.14 Y73.73
G1 F2700 X165.55 Y100.14 E917.86131
G0 F6000 X166.25 Y100.14
G1 F2700 X139.69 Y73.57 E920.20467
G0 F6000 X140.23 Y73.41
G1 F2700 X166.96 Y100.14 E922.56250
G0 F6000 X167.67 Y100.14
G1 F2700 X140.77 Y73.24 E924.93484
G0 F6000 X141.31 Y73.08
G1 F2700 X168.38 Y100.14 E927.32164
G0 F6000 X169.08 Y100.14
G1 F2700 X141.86 Y72.91 E929.72299
G0 F6000 X142.40 Y72.75
G1 F2700 X169.79 Y100.14 E932.13890
G0 F6000 X170.50 Y100.14
G1 F2700 X142.94 Y72.58 E934.56927
G0 F6000 X143.48 Y72.42
G1 F2700 X171.21 Y100.14 E937.01419
G0 F6000 X171.91 Y100.14
G1 F2700 X144.03 Y72.25 E939.47353
G0 F6000 X144.57 Y72.09
G1 F2700 X172.62 Y100.14 E941.94742
G0 F6000 X173.33 Y100.14
G1 F2700 X145.11 Y71.93 E944.43582
G0 F6000 X145.71 Y71.81
G1 F2700 X174.03 Y100.14 E946.93397
G0 F6000 X174.74 Y100.14
G1 F2700 X146.35 Y71.75 E949.43767
G0 F6000 X147.00 Y71.69
G1 F2700 X175.45 Y100.14 E951.94706
G0 F6000 X176.16 Y100.14
G1 F2700 X147.64 Y71.62 E954.46210
G0 F6000 X148.28 Y71.56
G1 F2700 X176.86 Y100.14 E956.98269
G0 F6000 X177.57 Y100.14
G1 F2700 X148.93 Y71.50 E959.50893
G0 F6000 X149.57 Y71.43
G1 F2700 X178.28 Y100.14 E962.04068
G0 F6000 X178.98 Y100.14
G1 F2700 X150.21 Y71.37 E964.57802
G0 F6000 X150.86 Y71.31
G1 F2700 X179.69 Y100.14 E967.12102
G0 F6000 X180.40 Y100.14
G1 F2700 X151.50 Y71.24 E969.66961
G0 F6000 X152.14 Y71.18
G1 F2700 X181.10 Y100.14 E972.22380
G0 F6000 X181.81 Y100.14
G1 F2700 X152.85 Y71.18 E974.77809
G0 F6000 X153.63 Y71.26
G1 F2700 X182.52 Y100.14 E977.32549
G0 F6000 X183.23 Y100.14
G1 F2700 X154.42 Y71.33 E979.86610
G0 F6000 X155.20 Y71.41
G1 F2700 X183.93 Y100.14 E982.39992
G0 F6000 X184.64 Y100.14
G1 F2700 X155.99 Y71.49 E984.92686
G0 F6000 X156.77 Y71.57
G1 F2700 X185.35 Y100.14 E987.44701
G0 F6000 X186.05 Y100.14
G1 F2700 X157.56 Y71.64 E989.96037
G0 F6000 X158.34 Y71.72
G1 F2700 X186.76 Y100.14 E992.46690
G0 F6000 X187.47 Y100.14
G1 F2700 X159.12 Y71.80 E994.96659
G0 F6000 X159.99 Y71.96
G1 F2700 X188.18 Y100.14 E997.45212
G0 F6000 X187.95 Y99.21
G1 F2700 X161.01 Y72.27 E999.82825
G0 F6000 X162.02 Y72.57
G1 F2700 X187.64 Y98.19 E1002.08779
G0 F6000 X187.33 Y97.18
G1 F2700 X163.04 Y72.88 E1004.23073
G0 F6000 X164.05 Y73.19
G1 F2700 X187.03 Y96.16 E1006.25713
G0 F6000 X186.72 Y95.15
G1 F2700 X165.06 Y73.49 E1008.16693
G0 F6000 X166.08 Y73.80
G1 F2700 X186.41 Y94.13 E1009.96018
G0 F6000 X185.81 Y92.82
G1 F2700 X167.39 Y74.41 E1011.58415
G0 F6000 X168.91 Y75.22
G1 F2700 X184.99 Y91.30 E1013.00253
G0 F6000 X184.18 Y89.78
G1 F2700 X170.43 Y76.03 E1014.21525
G0 F6000 X171.95 Y76.84
G1 F2700 X183.37 Y88.26 E1015.22234
G0 F6000 X181.51 Y85.70
G1 F2700 X174.52 Y78.71 E1015.83864
G0 F6000 X164.25 Y105.11
;TYPE:WALL-INNER
G1 F2700 X171.15 Y107.20 E1016.28821
G1 X177.50 Y110.59 E1016.73737
G1 X183.07 Y115.16 E1017.18668
G1 X187.64 Y120.73 E1017.63599
G1 X191.04 Y127.08 E1018.08523
G1 X193.06 Y133.75 E1018.51950
G1 X192.02 Y133.75 E1018.58442
G1 X191.95 Y133.55 E1018.59718
G1 X122.23 Y133.55 E1022.94549
G1 X122.16 Y133.75 E1022.95825
G1 X121.12 Y133.75 E1023.02323
G1 X123.14 Y127.09 E1023.45725
G1 X126.53 Y120.73 E1023.90643
G1 X131.10 Y115.17 E1024.35574
G1 X136.67 Y110.59 E1024.80509
G1 X143.03 Y107.20 E1025.25430
G1 X149.92 Y105.11 E1025.70369
G1 X157.09 Y104.40 E1026.15275
G1 X164.25 Y105.11 E1026.60149
G0 F6000 X164.06 Y106.08
G1 F2700 X157.09 Y105.39 E1027.03858
G1 X150.11 Y106.08 E1027.47561
G1 X143.41 Y108.11 E1027.91269
G1 X137.22 Y111.42 E1028.34982
G1 X131.81 Y115.86 E1028.78689
G1 X127.36 Y121.28 E1029.22396
G1 X124.06 Y127.46 E1029.66110
G1 X123.58 Y129.05 E1029.76465
G1 X190.60 Y129.05 E1033.94464
G1 X190.12 Y127.46 E1034.04819
G1 X186.82 Y121.28 E1034.48530
G1 X182.37 Y115.86 E1034.92237
G1 X176.95 Y111.42 E1035.35949
G1 X170.77 Y108.11 E1035.79662
G1 X164.06 Y106.08 E1036.23370
G0 F6000 X163.97 Y106.57
;TYPE:WALL-OUTER
G1 F2700 X157.09 Y105.89 E1036.66465
G1 X150.21 Y106.57 E1037.09553
G1 X143.60 Y108.58 E1037.52648
G1 X137.50 Y111.84 E1037.95747
G1 X132.16 Y116.22 E1038.38839
G1 X127.78 Y121.56 E1038.81931
G1 X124.52 Y127.66 E1039.25030
G1 X124.25 Y128.55 E1039.30876
G1 X189.93 Y128.55 E1043.40468
G1 X189.66 Y127.66 E1043.46313
G1 X186.40 Y121.56 E1043.89410
G1 X182.01 Y116.22 E1044.32502
G1 X176.67 Y111.84 E1044.75598
G1 X170.58 Y108.58 E1045.18698
G1 X163.97 Y106.57 E1045.61792
G0 F6000 X164.00 Y106.22
G0 X164.28 Y104.96
G0 X164.30 Y104.61
G1 F2700 X164.36 Y104.61 E1045.62137
G1 X171.29 Y106.72 E1046.07337
G1 X171.34 Y106.73 E1046.07650
G1 X177.78 Y110.17 E1046.53188
G1 X183.39 Y114.77 E1046.98403
G1 X183.43 Y114.81 E1046.98730
G1 X188.03 Y120.41 E1047.43949
G1 X188.06 Y120.45 E1047.44285
G1 X191.50 Y126.89 E1047.89810
G1 X193.61 Y133.83 E1048.35035
G1 X193.62 Y133.88 E1048.35342
G1 X193.66 Y134.25 E1048.37654
G1 X191.66 Y134.25 E1048.50133
G1 X191.59 Y134.05 E1048.51409
G1 X122.59 Y134.05 E1052.81737
G1 X122.52 Y134.25 E1052.83013
G1 X120.52 Y134.25 E1052.95498
G1 X120.56 Y133.88 E1052.97817
G1 X122.66 Y126.94 E1053.42996
G1 X122.67 Y126.89 E1053.43324
G1 X126.12 Y120.45 E1053.88867
G1 X130.72 Y114.85 E1054.34077
G1 X130.75 Y114.81 E1054.34405
G1 X136.35 Y110.21 E1054.79628
G1 X136.40 Y110.17 E1054.79964
G1 X142.83 Y106.73 E1055.25485
G1 X149.77 Y104.63 E1055.70710
G1 X149.82 Y104.61 E1055.71018
G1 X157.04 Y103.90 E1056.16236
G1 X157.09 Y103.90 E1056.16562
G1 X164.30 Y104.61 E1056.61762
G0 F6000 X164.37 Y105.32
;TYPE:FILL
G1 F2700 X165.32 Y106.28 E1056.70189
G0 F6000 X165.38 Y105.63
G1 F2700 X166.34 Y106.59 E1056.78620
G0 F6000 X166.40 Y105.94
G1 F2700 X167.35 Y106.90 E1056.87056
G0 F6000 X167.41 Y106.25
G1 F2700 X168.37 Y107.20 E1056.95496
G0 F6000 X168.43 Y106.55
G1 F2700 X169.38 Y107.51 E1057.03945
G0 F6000 X169.44 Y106.86
G1 F2700 X170.40 Y107.82 E1057.12403
G0 F6000 X170.45 Y107.17
G1 F2700 X171.70 Y108.41 E1057.23374
G0 F6000 X171.66 Y107.67
G1 F2700 X173.22 Y109.22 E1057.37080
G0 F6000 X173.18 Y108.48
G1 F2700 X174.73 Y110.03 E1057.50776
G0 F6000 X174.70 Y109.29
G1 F2700 X176.25 Y110.84 E1057.64469
G0 F6000 X176.22 Y110.10
G1 F2700 X178.93 Y112.81 E1057.88343
G0 F6000 X178.28 Y111.45
G1 F2700 X186.78 Y119.96 E1058.63361
G0 F6000 X185.42 Y119.31
G1 F2700 X188.13 Y122.01 E1058.87239
G0 F6000 X187.39 Y121.98
G1 F2700 X188.94 Y123.53 E1059.00940
G0 F6000 X188.20 Y123.50
G1 F2700 X189.75 Y125.05 E1059.14655
G0 F6000 X189.01 Y125.02
G1 F2700 X190.57 Y126.57 E1059.28386
G0 F6000 X189.82 Y126.53
G1 F2700 X191.06 Y127.78 E1059.39367
G0 F6000 X190.41 Y127.83
G1 F2700 X191.37 Y128.79 E1059.47829
G0 F6000 X190.72 Y128.85
G1 F2700 X191.68 Y129.81 E1059.56295
G0 F6000 X191.99 Y130.82
G1 F2700 X190.39 Y129.23 E1059.70367
G0 F6000 X189.69 Y129.23
G1 F2700 X192.30 Y131.84 E1059.93390
G0 F6000 X192.60 Y132.85
G1 F2700 X188.98 Y129.23 E1060.25360
G0 F6000 X188.27 Y129.23
G1 F2700 X192.62 Y133.57 E1060.63668
G0 F6000 X191.71 Y133.38
G1 F2700 X187.56 Y129.23 E1061.00259
G0 F6000 X186.86 Y129.23
G1 F2700 X191.01 Y133.38 E1061.36851
G0 F6000 X190.30 Y133.38
G1 F2700 X186.15 Y129.23 E1061.73443
G0 F6000 X185.44 Y129.23
G1 F2700 X189.59 Y133.38 E1062.10039
G0 F6000 X188.88 Y133.38
G1 F2700 X184.74 Y129.23 E1062.46635
G0 F6000 X184.03 Y129.23
G1 F2700 X188.18 Y133.38 E1062.83232
G0 F6000 X187.47 Y133.38
G1 F2700 X183.32 Y129.23 E1063.19823
G0 F6000 X182.61 Y129.23
G1 F2700 X186.76 Y133.38 E1063.56415
G0 F6000 X186.06 Y133.38
G1 F2700 X181.91 Y129.23 E1063.93007
G0 F6000 X181.20 Y129.23
G1 F2700 X185.35 Y133.38 E1064.29599
G0 F6000 X184.64 Y133.38
G1 F2700 X180.49 Y129.23 E1064.66191
G0 F6000 X179.79 Y129.23
G1 F2700 X183.94 Y133.38 E1065.02782
G0 F6000 X183.23 Y133.38
G1 F2700 X179.08 Y129.23 E1065.39374
G0 F6000 X178.37 Y129.23
G1 F2700 X182.52 Y133.38 E1065.75970
G0 F6000 X181.81 Y133.38
G1 F2700 X177.66 Y129.23 E1066.12567
G0 F6000 X176.96 Y129.23
G1 F2700 X181.11 Y133.38 E1066.49163
G0 F6000 X180.40 Y133.38
G1 F2700 X176.25 Y129.23 E1066.85755
G0 F6000 X175.54 Y129.23
G1 F2700 X179.69 Y133.38 E1067.22346
G0 F6000 X178.99 Y133.38
G1 F2700 X174.84 Y129.23 E1067.58938
G0 F6000 X174.13 Y129.23
G1 F2700 X178.28 Y133.38 E1067.95530
G0 F6000 X177.57 Y133.38
G1 F2700 X173.42 Y129.23 E1068.32122
G0 F6000 X172.72 Y129.23
G1 F2700 X176.86 Y133.38 E1068.68713
G0 F6000 X176.16 Y133.38
G1 F2700 X172.01 Y129.23 E1069.05310
G0 F6000 X171.30 Y129.23
G1 F2700 X175.45 Y133.38 E1069.41906
G0 F6000 X174.74 Y133.38
G1 F2700 X170.59 Y129.23 E1069.78502
G0 F6000 X169.89 Y129.23
G1 F2700 X174.03 Y133.38 E1070.15094
G0 F6000 X173.33 Y133.38
G1 F2700 X169.18 Y129.23 E1070.51686
G0 F6000 X168.47 Y129.23
G1 F2700 X172.62 Y133.38 E1070.88277
G0 F6000 X171.91 Y133.38
G1 F2700 X167.76 Y129.23 E1071.24869
G0 F6000 X167.06 Y129.23
G1 F2700 X171.21 Y133.38 E1071.61461
G0 F6000 X170.50 Y133.38
G1 F2700 X166.35 Y129.23 E1071.98053
G0 F6000 X165.64 Y129.23
G1 F2700 X169.79 Y133.38 E1072.34645
G0 F6000 X169.09 Y133.38
G1 F2700 X164.94 Y129.23 E1072.71241
G0 F6000 X164.23 Y129.23
G1 F2700 X168.38 Y133.38 E1073.07837
G0 F6000 X167.67 Y133.38
G1 F2700 X163.52 Y129.23 E1073.44429
G0 F6000 X162.81 Y129.23
G1 F2700 X166.96 Y133.38 E1073.81021
G0 F6000 X166.26 Y133.38
G1 F2700 X162.11 Y129.23 E1074.17612
G0 F6000 X161.40 Y129.23
G1 F2700 X165.55 Y133.38 E1074.54204
G0 F6000 X164.84 Y133.38
G1 F2700 X160.69 Y129.23 E1074.90796
G0 F6000 X159.99 Y129.23
G1 F2700 X164.14 Y133.38 E1075.27388
G0 F6000 X163.43 Y133.38
G1 F2700 X159.28 Y129.23 E1075.63980
G0 F6000 X158.57 Y129.23
G1 F2700 X162.72 Y133.38 E1076.00576
G0 F6000 X162.01 Y133.38
G1 F2700 X157.87 Y129.23 E1076.37172
G0 F6000 X157.16 Y129.23
G1 F2700 X161.31 Y133.38 E1076.73768
G0 F6000 X160.60 Y133.38
G1 F2700 X156.45 Y129.23 E1077.10360
G0 F6000 X155.74 Y129.23
G1 F2700 X159.89 Y133.38 E1077.46952
G0 F6000 X159.19 Y133.38
G1 F2700 X155.04 Y129.23 E1077.83544
G0 F6000 X154.33 Y129.23
G1 F2700 X158.48 Y133.38 E1078.20135
G0 F6000 X157.77 Y133.38
G1 F2700 X153.62 Y129.23 E1078.56727
G0 F6000 X152.92 Y129.23
G1 F2700 X157.06 Y133.38 E1078.93319
G0 F6000 X156.36 Y133.38
G1 F2700 X152.21 Y129.23 E1079.29915
G0 F6000 X151.50 Y129.23
G1 F2700 X155.65 Y133.38 E1079.66511
G0 F6000 X154.94 Y133.38
G1 F2700 X150.79 Y129.23 E1080.03108
G0 F6000 X150.09 Y129.23
G1 F2700 X154.24 Y133.38 E1080.39699
G0 F6000 X153.53 Y133.38
G1 F2700 X149.38 Y129.23 E1080.76291
G0 F6000 X148.67 Y129.23
G1 F2700 X152.82 Y133.38 E1081.12883
G0 F6000 X152.12 Y133.38
G1 F2700 X147.97 Y129.23 E1081.49475
G0 F6000 X147.26 Y129.23
G1 F2700 X151.41 Y133.38 E1081.86067
G0 F6000 X150.70 Y133.38
G1 F2700 X146.55 Y129.23 E1082.22658
G0 F6000 X145.84 Y129.23
G1 F2700 X149.99 Y133.38 E1082.59250
G0 F6000 X149.29 Y133.38
G1 F2700 X145.14 Y129.23 E1082.95846
G0 F6000 X144.43 Y129.23
G1 F2700 X148.58 Y133.38 E1083.32443
G0 F6000 X147.87 Y133.38
G1 F2700 X143.72 Y129.23 E1083.69034
G0 F6000 X143.02 Y129.23
G1 F2700 X147.16 Y133.38 E1084.05626
G0 F6000 X146.46 Y133.38
G1 F2700 X142.31 Y129.23 E1084.42218
G0 F6000 X141.60 Y129.23
G1 F2700 X145.75 Y133.38 E1084.78810
G0 F6000 X145.04 Y133.38
G1 F2700 X140.90 Y129.23 E1085.15402
G0 F6000 X140.19 Y129.23
G1 F2700 X144.34 Y133.38 E1085.51993
G0 F6000 X143.63 Y133.38
G1 F2700 X139.48 Y129.23 E1085.88585
G0 F6000 X138.77 Y129.23
G1 F2700 X142.92 Y133.38 E1086.25181
G0 F6000 X142.22 Y133.38
G1 F2700 X138.07 Y129.23 E1086.61778
G0 F6000 X137.36 Y129.23
G1 F2700 X141.51 Y133.38 E1086.98374
G0 F6000 X140.80 Y133.38
G1 F2700 X136.65 Y129.23 E1087.34966
G0 F6000 X135.94 Y129.23
G1 F2700 X140.09 Y133.38 E1087.71557
G0 F6000 X139.39 Y133.38
G1 F2700 X135.24 Y129.23 E1088.08149
G0 F6000 X134.53 Y129.23
G1 F2700 X138.68 Y133.38 E1088.44741
G0 F6000 X137.97 Y133.38
G1 F2700 X133.82 Y129.23 E1088.81333
G0 F6000 X133.12 Y129.23
G1 F2700 X137.27 Y133.38 E1089.17925
G0 F6000 X136.56 Y133.38
G1 F2700 X132.41 Y129.23 E1089.54521
G0 F6000 X131.70 Y129.23
G1 F2700 X135.85 Y133.38 E1089.91117
G0 F6000 X135.15 Y133.38
G1 F2700 X131.00 Y129.23 E1090.27713
G0 F6000 X130.29 Y129.23
G1 F2700 X134.44 Y133.38 E1090.64305
G0 F6000 X133.73 Y133.38
G1 F2700 X129.58 Y129.23 E1091.00897
G0 F6000 X128.87 Y129.23
G1 F2700 X133.02 Y133.38 E1091.37489
G0 F6000 X132.32 Y133.38
G1 F2700 X128.17 Y129.23 E1091.74080
G0 F6000 X127.46 Y129.23
G1 F2700 X131.61 Y133.38 E1092.10672
G0 F6000 X130.90 Y133.38
G1 F2700 X126.75 Y129.23 E1092.47264
G0 F6000 X126.05 Y129.23
G1 F2700 X130.19 Y133.38 E1092.83856
G0 F6000 X129.49 Y133.38
G1 F2700 X125.34 Y129.23 E1093.20452
G0 F6000 X124.63 Y129.23
G1 F2700 X128.78 Y133.38 E1093.57048
G0 F6000 X128.07 Y133.38
G1 F2700 X123.92 Y129.23 E1093.93644
G0 F6000 X123.47 Y128.78
G1 F2700 X122.96 Y128.27 E1093.98155
G0 F6000 X122.80 Y128.81
G1 F2700 X127.37 Y133.38 E1094.38447
G0 F6000 X126.66 Y133.38
G1 F2700 X122.63 Y129.35 E1094.73954
G0 F6000 X122.47 Y129.89
G1 F2700 X125.95 Y133.38 E1095.04672
G0 F6000 X125.25 Y133.38
G1 F2700 X122.30 Y130.44 E1095.30610
G0 F6000 X122.14 Y130.98
G1 F2700 X124.54 Y133.38 E1095.51768
G0 F6000 X123.83 Y133.38
G1 F2700 X121.97 Y131.52 E1095.68137
G0 F6000 X121.81 Y132.06
G1 F2700 X123.12 Y133.38 E1095.79717
G0 F6000 X122.42 Y133.38
G1 F2700 X121.65 Y132.61 E1095.86508
G0 F6000 X121.48 Y133.15
G1 F2700 X121.90 Y133.57 E1095.90225
G0 F6000 X123.64 Y128.24
G1 F2700 X123.21 Y127.45 E1095.94731
G1 X123.91 Y127.44 E1095.99245
G1 X123.66 Y126.48 E1096.03405
G1 X124.38 Y126.50 E1096.07551
G1 X124.15 Y125.56 E1096.11702
G1 X124.87 Y125.57 E1096.15858
G1 X124.64 Y124.64 E1096.20025
G1 X125.36 Y124.65 E1096.24177
G1 X125.13 Y123.72 E1096.28332
G1 X125.85 Y123.73 E1096.32488
G1 X125.63 Y122.80 E1096.36647
G1 X126.34 Y122.81 E1096.40808
G1 X126.12 Y121.88 E1096.44964
G1 X126.84 Y121.89 E1096.49117
G1 X126.62 Y120.96 E1096.53277
G1 X127.36 Y121.00 E1096.57293
G1 X127.23 Y120.16 E1096.61288
G1 X128.00 Y120.22 E1096.65293
G1 X127.87 Y119.38 E1096.69292
G1 X128.64 Y119.45 E1096.73298
G1 X128.50 Y118.61 E1096.77297
G1 X129.28 Y118.67 E1096.81288
G1 X129.14 Y117.83 E1096.85276
G1 X129.91 Y117.89 E1096.89277
G1 X129.78 Y117.05 E1096.93275
G1 X130.55 Y117.12 E1096.97266
G1 X130.42 Y116.28 E1097.01245
G1 X131.19 Y116.34 E1097.05225
G1 X131.06 Y115.50 E1097.09219
G1 X131.86 Y115.60 E1097.13214
G1 X131.79 Y114.82 E1097.17185
G1 X132.63 Y114.96 E1097.21163
G1 X132.57 Y114.19 E1097.25143
G1 X133.41 Y114.32 E1097.29115
G1 X133.35 Y113.55 E1097.33085
G1 X134.19 Y113.68 E1097.37058
G1 X134.12 Y112.91 E1097.41043
G1 X134.97 Y113.04 E1097.45026
G1 X134.90 Y112.27 E1097.49011
G1 X135.74 Y112.41 E1097.52989
G1 X135.68 Y111.64 E1097.56974
G1 X136.52 Y111.77 E1097.60968
G1 X136.45 Y111.00 E1097.64948
G1 X137.33 Y111.17 E1097.68922
G1 X137.32 Y110.45 E1097.73075
G1 X138.25 Y110.67 E1097.77207
G1 X138.24 Y109.95 E1097.81348
G1 X139.17 Y110.18 E1097.85494
G1 X139.16 Y109.46 E1097.89643
G1 X140.09 Y109.69 E1097.93776
G1 X140.08 Y108.97 E1097.97917
G1 X141.01 Y109.19 E1098.02062
G1 X141.00 Y108.48 E1098.06212
G1 X141.93 Y108.70 E1098.10360
G1 X141.92 Y107.98 E1098.14510
G1 X142.86 Y108.21 E1098.18660
G1 X142.85 Y107.49 E1098.22810
G1 X143.86 Y107.79 E1098.27281
G1 X143.89 Y107.12 E1098.31797
G1 X144.94 Y107.46 E1098.36294
G1 X144.97 Y106.79 E1098.40794
G1 X146.03 Y107.14 E1098.45287
G1 X146.06 Y106.46 E1098.49788
G1 X147.11 Y106.81 E1098.54282
G1 X147.14 Y106.13 E1098.58790
G1 X148.20 Y106.48 E1098.63287
G1 X148.23 Y105.80 E1098.67787
G1 X149.28 Y106.15 E1098.72280
G1 X149.31 Y105.47 E1098.76781
G1 X150.42 Y105.87 E1098.81303
G1 X150.48 Y105.23 E1098.86442
G1 X151.71 Y105.75 E1098.91573
G1 X151.77 Y105.10 E1098.96712
G1 X153.00 Y105.62 E1099.01843
G1 X153.06 Y104.97 E1099.06983
G1 X154.28 Y105.49 E1099.12113
G1 X154.34 Y104.85 E1099.17252
G1 X155.57 Y105.36 E1099.22383
G1 X155.63 Y104.72 E1099.27522
G1 X156.57 Y104.95 E1099.32646
G1 X157.20 Y105.23 E1099.36963
G0 F6000 X157.27 Y104.59
G1 F2700 X157.98 Y105.31 E1099.43233
G0 F6000 X158.06 Y104.67
G1 F2700 X158.77 Y105.38 E1099.49495
G0 F6000 X158.84 Y104.75
G1 F2700 X159.55 Y105.46 E1099.55761
G0 F6000 X159.63 Y104.83
G1 F2700 X160.34 Y105.54 E1099.62028
G0 F6000 X160.41 Y104.90
G1 F2700 X161.12 Y105.61 E1099.68298
G0 F6000 X161.20 Y104.98
G1 F2700 X161.91 Y105.69 E1099.74560
G0 F6000 X161.98 Y105.06
G1 F2700 X162.69 Y105.77 E1099.80831
G0 F6000 X162.76 Y105.14
G1 F2700 X163.48 Y105.85 E1099.87106
G0 F6000 X163.55 Y105.21
G1 F2700 X164.31 Y105.97 E1099.93800
G0 F6000 X170.75 Y108.16
G0 X176.92 Y111.46
G0 X182.22 Y114.69
G1 F2700 X183.54 Y116.01 E1100.05459
G0 F6000 X166.56 Y140.63
;TYPE:WALL-INNER
G1 F2700 X172.91 Y144.02 E1100.50375
G1 X178.48 Y148.59 E1100.95306
G1 X183.05 Y154.16 E1101.40241
G1 X186.45 Y160.51 E1101.85156
G1 X188.47 Y167.18 E1102.28584
G1 X187.43 Y167.18 E1102.35076
G1 X187.36 Y166.98 E1102.36352
G1 X117.64 Y166.98 E1106.71183
G1 X117.57 Y167.18 E1106.72458
G1 X116.53 Y167.18 E1106.78957
G1 X118.55 Y160.52 E1107.22359
G1 X121.94 Y154.16 E1107.67277
G1 X126.52 Y148.60 E1108.12203
G1 X132.09 Y144.02 E1108.57142
G1 X138.44 Y140.63 E1109.02058
G1 X145.33 Y138.54 E1109.47003
G1 X152.50 Y137.83 E1109.91909
G1 X159.66 Y138.54 E1110.36777
G1 X166.56 Y140.63 E1110.81733
G0 F6000 X166.18 Y141.54
G1 F2700 X159.47 Y139.51 E1111.25435
G1 X152.50 Y138.82 E1111.69144
G1 X145.53 Y139.51 E1112.12853
G1 X138.82 Y141.54 E1112.56555
G1 X132.64 Y144.85 E1113.00269
G1 X127.22 Y149.30 E1113.43981
G1 X122.77 Y154.71 E1113.87683
G1 X119.47 Y160.89 E1114.31394
G1 X118.99 Y162.48 E1114.41749
G1 X186.01 Y162.48 E1118.59741
G1 X185.53 Y160.89 E1118.70097
G1 X182.23 Y154.71 E1119.13807
G1 X177.78 Y149.29 E1119.57514
G1 X172.36 Y144.85 E1120.01222
G1 X166.18 Y141.54 E1120.44936
G0 F6000 X165.99 Y142.01
;TYPE:WALL-OUTER
G1 F2700 X159.38 Y140.00 E1120.88024
G1 X152.50 Y139.33 E1121.31119
G1 X145.62 Y140.00 E1121.74214
G1 X139.01 Y142.01 E1122.17302
G1 X132.92 Y145.27 E1122.60402
G1 X127.57 Y149.65 E1123.03498
G1 X123.19 Y154.99 E1123.46585
G1 X119.93 Y161.09 E1123.89682
G1 X119.66 Y161.98 E1123.95527
G1 X185.34 Y161.98 E1128.05113
G1 X185.07 Y161.09 E1128.10959
G1 X181.81 Y154.99 E1128.54055
G1 X177.43 Y149.65 E1128.97147
G1 X172.08 Y145.27 E1129.40239
G1 X165.99 Y142.01 E1129.83339
G0 F6000 X166.09 Y141.68
G0 X166.60 Y140.49
G0 X166.70 Y140.15
G1 F2700 X166.75 Y140.16 E1129.83653
G1 X173.19 Y143.60 E1130.29191
G1 X178.80 Y148.20 E1130.74406
G1 X178.84 Y148.24 E1130.74733
G1 X183.44 Y153.84 E1131.19951
G1 X183.47 Y153.88 E1131.20287
G1 X186.91 Y160.32 E1131.65808
G1 X189.02 Y167.26 E1132.11033
G1 X189.03 Y167.31 E1132.11341
G1 X189.07 Y167.68 E1132.13654
G1 X187.07 Y167.68 E1132.26139
G1 X187.00 Y167.48 E1132.27415
G1 X118.00 Y167.48 E1136.57743
G1 X117.93 Y167.68 E1136.59019
G1 X115.93 Y167.68 E1136.71504
G1 X115.97 Y167.31 E1136.73822
G1 X118.07 Y160.37 E1137.19002
G1 X118.09 Y160.32 E1137.19329
G1 X121.53 Y153.88 E1137.64873
G1 X126.13 Y148.28 E1138.10078
G1 X126.16 Y148.24 E1138.10406
G1 X131.77 Y143.64 E1138.55633
G1 X131.81 Y143.60 E1138.55969
G1 X138.25 Y140.16 E1139.01485
G1 X145.19 Y138.06 E1139.46716
G1 X145.23 Y138.04 E1139.47024
G1 X152.45 Y137.33 E1139.92243
G1 X152.50 Y137.33 E1139.92568
G1 X159.71 Y138.04 E1140.37762
G1 X159.77 Y138.04 E1140.38107
G1 X166.70 Y140.15 E1140.83306
G0 F6000 X166.72 Y140.91
;TYPE:FILL
G1 F2700 X168.28 Y142.47 E1140.97016
G0 F6000 X168.24 Y141.72
G1 F2700 X169.79 Y143.28 E1141.10726
G0 F6000 X169.76 Y142.53
G1 F2700 X171.31 Y144.09 E1141.24427
G0 F6000 X171.28 Y143.35
G1 F2700 X173.43 Y145.49 E1141.43362
G0 F6000 X172.80 Y144.16
G1 F2700 X177.36 Y148.72 E1141.83614
G0 F6000 X178.35 Y149.71
G1 F2700 X182.92 Y154.28 E1142.23892
G0 F6000 X181.59 Y153.66
G1 F2700 X183.73 Y155.80 E1142.42766
G0 F6000 X182.99 Y155.77
G1 F2700 X184.54 Y157.32 E1142.56458
G0 F6000 X183.80 Y157.28
G1 F2700 X185.35 Y158.84 E1142.70172
G0 F6000 X184.61 Y158.80
G1 F2700 X186.17 Y160.36 E1142.83900
G0 F6000 X185.42 Y160.32
G1 F2700 X186.55 Y161.44 E1142.93835
G0 F6000 X185.90 Y161.50
G1 F2700 X186.85 Y162.46 E1143.02292
G0 F6000 X186.21 Y162.52
G1 F2700 X187.16 Y163.47 E1143.10741
G0 F6000 X187.47 Y164.49
G1 F2700 X185.64 Y162.66 E1143.26903
G0 F6000 X184.93 Y162.66
G1 F2700 X187.78 Y165.50 E1143.52012
G0 F6000 X188.09 Y166.52
G1 F2700 X184.22 Y162.66 E1143.86073
G0 F6000 X183.52 Y162.66
G1 F2700 X187.86 Y167.00 E1144.24384
G0 F6000 X186.96 Y166.81
G1 F2700 X182.81 Y162.66 E1144.60980
G0 F6000 X182.10 Y162.66
G1 F2700 X186.25 Y166.81 E1144.97577
G0 F6000 X185.54 Y166.81
G1 F2700 X181.40 Y162.66 E1145.34173
G0 F6000 X180.69 Y162.66
G1 F2700 X184.84 Y166.81 E1145.70769
G0 F6000 X184.13 Y166.81
G1 F2700 X179.98 Y162.66 E1146.07365
G0 F6000 X179.27 Y162.66
G1 F2700 X183.42 Y166.81 E1146.43966
G0 F6000 X182.72 Y166.81
G1 F2700 X178.57 Y162.66 E1146.80566
G0 F6000 X177.86 Y162.66
G1 F2700 X182.01 Y166.81 E1147.17163
G0 F6000 X181.30 Y166.81
G1 F2700 X177.15 Y162.66 E1147.53759
G0 F6000 X176.45 Y162.66
G1 F2700 X180.59 Y166.81 E1147.90355
G0 F6000 X179.89 Y166.81
G1 F2700 X175.74 Y162.66 E1148.26951
G0 F6000 X175.03 Y162.66
G1 F2700 X179.18 Y166.81 E1148.63547
G0 F6000 X178.47 Y166.81
G1 F2700 X174.32 Y162.66 E1149.00144
G0 F6000 X173.62 Y162.66
G1 F2700 X177.77 Y166.81 E1149.36740
G0 F6000 X177.06 Y166.81
G1 F2700 X172.91 Y162.66 E1149.73340
G0 F6000 X172.20 Y162.66
G1 F2700 X176.35 Y166.81 E1150.09941
G0 F6000 X175.65 Y166.81
G1 F2700 X171.50 Y162.66 E1150.46542
G0 F6000 X170.79 Y162.66
G1 F2700 X174.94 Y166.81 E1150.83138
G0 F6000 X174.23 Y166.81
G1 F2700 X170.08 Y162.66 E1151.19734
G0 F6000 X169.38 Y162.66
G1 F2700 X173.52 Y166.81 E1151.56330
G0 F6000 X172.82 Y166.81
G1 F2700 X168.67 Y162.66 E1151.92927
G0 F6000 X167.96 Y162.66
G1 F2700 X172.11 Y166.81 E1152.29523
G0 F6000 X171.40 Y166.81
G1 F2700 X167.25 Y162.66 E1152.66119
G0 F6000 X166.55 Y162.66
G1 F2700 X170.70 Y166.81 E1153.02720
G0 F6000 X169.99 Y166.81
G1 F2700 X165.84 Y162.66 E1153.39320
G0 F6000 X165.13 Y162.66
G1 F2700 X169.28 Y166.81 E1153.75921
G0 F6000 X168.57 Y166.81
G1 F2700 X164.43 Y162.66 E1154.12517
G0 F6000 X163.72 Y162.66
G1 F2700 X167.87 Y166.81 E1154.49113
G0 F6000 X167.16 Y166.81
G1 F2700 X163.01 Y162.66 E1154.85709
G0 F6000 X162.30 Y162.66
G1 F2700 X166.45 Y166.81 E1155.22306
G0 F6000 X165.75 Y166.81
G1 F2700 X161.60 Y162.66 E1155.58902
G0 F6000 X160.89 Y162.66
G1 F2700 X165.04 Y166.81 E1155.95498
G0 F6000 X164.33 Y166.81
G1 F2700 X160.18 Y162.66 E1156.32094
G0 F6000 X159.47 Y162.66
G1 F2700 X163.62 Y166.81 E1156.68695
G0 F6000 X162.92 Y166.81
G1 F2700 X158.77 Y162.66 E1157.05295
G0 F6000 X158.06 Y162.66
G1 F2700 X162.21 Y166.81 E1157.41896
G0 F6000 X161.50 Y166.81
G1 F2700 X157.35 Y162.66 E1157.78492
G0 F6000 X156.65 Y162.66
G1 F2700 X160.80 Y166.81 E1158.15088
G0 F6000 X160.09 Y166.81
G1 F2700 X155.94 Y162.66 E1158.51685
G0 F6000 X155.23 Y162.66
G1 F2700 X159.38 Y166.81 E1158.88281
G0 F6000 X158.68 Y166.81
G1 F2700 X154.53 Y162.66 E1159.24877
G0 F6000 X153.82 Y162.66
G1 F2700 X157.97 Y166.81 E1159.61473
G0 F6000 X157.26 Y166.81
G1 F2700 X153.11 Y162.66 E1159.98074
G0 F6000 X152.40 Y162.66
G1 F2700 X156.55 Y166.81 E1160.34675
G0 F6000 X155.85 Y166.81
G1 F2700 X151.70 Y162.66 E1160.71275
G0 F6000 X150.99 Y162.66
G1 F2700 X155.14 Y166.81 E1161.07871
G0 F6000 X154.43 Y166.81
G1 F2700 X150.28 Y162.66 E1161.44468
G0 F6000 X149.58 Y162.66
G1 F2700 X153.72 Y166.81 E1161.81064
G0 F6000 X153.02 Y166.81
G1 F2700 X148.87 Y162.66 E1162.17660
G0 F6000 X148.16 Y162.66
G1 F2700 X152.31 Y166.81 E1162.54256
G0 F6000 X151.60 Y166.81
G1 F2700 X147.46 Y162.66 E1162.90852
G0 F6000 X146.75 Y162.66
G1 F2700 X150.90 Y166.81 E1163.27453
