;-- START GCODE --
;Sliced for Type A Machines Series 1
;Sliced at: Wed 10-08-2016 21:21:55
;Basic settings: Layer height: 0.2 Walls: 1.5 Fill: 60
;Print Speed: 100 Support: 0
;Retraction Speed: 40 Retraction Distance: 1.2
;Print time: #P_TIME#
;Filament used: #F_AMNT#m #F_WGHT#g
;Filament cost: #F_COST#
M106 S255	 ;start with the fan on
G21        ;metric values
G90        ;absolute positioning
M106 S255    ;start with the fan on
G28     ;move to endstops
G29		;allows for auto-levelling
G1 X150 Y5  Z15.0 F6000 ;center and move the platform down 15mm
M109 S220 ;Heat To temp
G92 E0                  ;zero the extruded length
G1 F200 E30              ;extrude 30mm of feed stock
G92 E0                  ;zero the extruded length again
G1 X175 Y25  Z0 F6000 ;remove bugger
G1 X220 F6000 ;remove bugger
G1 X150 Y150  Z15 F6000 ;recenter and begin
G1 F6000

;Layer count: 120
;LAYER:0
M106 S255
G0 F6000 X131.16 Y129.95 Z0.30
;TYPE:SKIRT
G1 F2700 X128.34 Y133.39 E0.27761
G1 X126.24 Y137.31 E0.55529
G1 X124.95 Y141.58 E0.83330
G1 X124.51 Y146.01 E1.11078
G1 X124.95 Y150.44 E1.38857
G1 X126.24 Y154.70 E1.66608
G1 X128.34 Y158.63 E1.94396
G1 X131.16 Y162.07 E2.22157
G1 X134.60 Y164.89 E2.49917
G1 X138.53 Y166.99 E2.77677
G1 X142.80 Y168.29 E3.05472
G1 X147.23 Y168.72 E3.33233
G1 X151.66 Y168.29 E3.60986
G1 X155.92 Y166.99 E3.88781
G1 X158.43 Y165.65 E4.06501
G1 X161.69 Y162.39 E4.35296
G1 X162.05 Y162.21 E4.37806
G1 X162.05 Y162.03 E4.38929
G1 X162.65 Y161.43 E4.44220
G1 X162.65 Y161.23 E4.45467
G1 X163.45 Y160.43 E4.52523
G1 X163.45 Y160.23 E4.53770
G1 X164.05 Y159.63 E4.59062
G1 X164.05 Y159.43 E4.60309
G1 X164.45 Y159.03 E4.63837
G1 X164.45 Y158.83 E4.65084
G1 X164.65 Y158.63 E4.66848
G1 X164.65 Y158.43 E4.68095
G1 X164.85 Y158.23 E4.69859
G1 X164.85 Y158.03 E4.71106
G1 X165.05 Y157.83 E4.72870
G1 X165.05 Y157.63 E4.74118
G1 X165.25 Y157.43 E4.75881
G1 X165.25 Y157.23 E4.77129
G1 X165.45 Y157.03 E4.78893
G1 X165.45 Y156.83 E4.80140
G1 X165.85 Y156.43 E4.83668
G1 X165.85 Y156.23 E4.84915
G1 X166.05 Y156.03 E4.86679
G1 X166.05 Y155.83 E4.87926
G1 X166.25 Y155.63 E4.89690
G1 X166.25 Y155.43 E4.90937
G1 X166.45 Y155.23 E4.92701
G1 X166.45 Y155.03 E4.93948
G1 X166.65 Y154.83 E4.95712
G1 X166.65 Y154.63 E4.96959
G1 X166.85 Y154.43 E4.98723
G1 X166.85 Y154.23 E4.99971
G1 X167.05 Y154.03 E5.01734
G1 X167.05 Y153.63 E5.04229
G1 X167.25 Y153.43 E5.05993
G1 X167.25 Y153.03 E5.08487
G1 X167.45 Y152.83 E5.10251
G1 X167.45 Y152.43 E5.12746
G1 X167.65 Y152.23 E5.14510
G1 X167.65 Y151.83 E5.17004
G1 X167.85 Y151.63 E5.18768
G1 X167.85 Y151.23 E5.21263
G1 X168.05 Y151.03 E5.23026
G1 X168.05 Y150.63 E5.25521
G1 X168.25 Y150.43 E5.27285
G1 X168.25 Y150.03 E5.29779
G1 X168.45 Y149.83 E5.31543
G1 X168.45 Y149.43 E5.34038
G1 X168.65 Y149.23 E5.35802
G1 X168.65 Y148.63 E5.39543
G1 X168.85 Y148.43 E5.41307
G1 X168.85 Y146.63 E5.52533
G1 X169.05 Y146.43 E5.54296
G1 X169.05 Y145.21 E5.61867
G1 X168.85 Y145.01 E5.63631
G1 X168.85 Y143.41 E5.73609
G1 X168.65 Y143.21 E5.75373
G1 X168.65 Y142.61 E5.79115
G1 X168.45 Y142.41 E5.80879
G1 X168.45 Y142.01 E5.83373
G1 X168.25 Y141.81 E5.85137
G1 X168.25 Y141.41 E5.87632
G1 X168.05 Y141.21 E5.89396
G1 X168.05 Y140.81 E5.91890
G1 X167.85 Y140.61 E5.93654
G1 X167.85 Y140.21 E5.96148
G1 X167.65 Y140.01 E5.97912
G1 X167.65 Y139.61 E6.00407
G1 X167.45 Y139.41 E6.02171
G1 X167.45 Y139.01 E6.04665
G1 X167.25 Y138.81 E6.06429
G1 X167.25 Y138.41 E6.08924
G1 X167.05 Y138.21 E6.10688
G1 X167.05 Y137.81 E6.13182
G1 X166.85 Y137.61 E6.14946
G1 X166.85 Y137.41 E6.16193
G1 X166.65 Y137.21 E6.17957
G1 X166.65 Y137.01 E6.19204
G1 X166.45 Y136.81 E6.20968
G1 X166.45 Y136.61 E6.22215
G1 X166.25 Y136.41 E6.23979
G1 X166.25 Y136.21 E6.25227
G1 X166.05 Y136.01 E6.26991
G1 X166.05 Y135.81 E6.28238
G1 X165.85 Y135.61 E6.30002
G1 X165.85 Y135.41 E6.31249
G1 X165.45 Y135.01 E6.34777
G1 X165.45 Y134.81 E6.36024
G1 X165.25 Y134.61 E6.37788
G1 X165.25 Y134.41 E6.39035
G1 X165.05 Y134.21 E6.40799
G1 X165.05 Y134.01 E6.42046
G1 X164.85 Y133.81 E6.43810
G1 X164.85 Y133.61 E6.45057
G1 X164.65 Y133.41 E6.46821
G1 X164.65 Y133.21 E6.48068
G1 X164.45 Y133.01 E6.49832
G1 X164.45 Y132.81 E6.51080
G1 X164.05 Y132.41 E6.54607
G1 X164.05 Y132.21 E6.55855
G1 X163.45 Y131.61 E6.61146
G1 X163.45 Y131.41 E6.62394
G1 X162.65 Y130.61 E6.69449
G1 X162.65 Y130.41 E6.70696
G1 X162.05 Y129.81 E6.75988
G1 X162.05 Y129.63 E6.77111
G1 X161.69 Y129.45 E6.79621
G1 X158.80 Y126.56 E7.05118
G1 X155.92 Y125.02 E7.25482
G1 X151.66 Y123.73 E7.53277
G1 X147.23 Y123.29 E7.81031
G1 X142.79 Y123.73 E8.08798
G1 X138.53 Y125.02 E8.36566
G1 X134.60 Y127.12 E8.64362
G1 X131.16 Y129.95 E8.92109
G0 F6000 X130.81 Y129.59
G1 F2700 X127.92 Y133.11 E9.20508
G1 X125.78 Y137.12 E9.48870
G1 X124.45 Y141.48 E9.77277
G1 X124.01 Y146.01 E10.05645
G1 X124.45 Y150.53 E10.34007
G1 X125.78 Y154.90 E10.62428
G1 X127.92 Y158.91 E10.90782
G1 X130.81 Y162.43 E11.19181
G1 X134.33 Y165.31 E11.47579
G1 X138.34 Y167.46 E11.75948
G1 X142.69 Y168.78 E12.04303
G1 X147.23 Y169.22 E12.32715
G1 X151.76 Y168.78 E12.61120
G1 X156.11 Y167.46 E12.89476
G1 X158.73 Y166.06 E13.07973
G1 X161.99 Y162.80 E13.36742
G1 X162.39 Y162.60 E13.39531
G1 X162.55 Y162.44 E13.40969
G1 X162.55 Y162.24 E13.42216
G1 X163.15 Y161.63 E13.47507
G1 X163.15 Y161.44 E13.48755
G1 X163.95 Y160.63 E13.55810
G1 X163.95 Y160.44 E13.57058
G1 X164.55 Y159.84 E13.62349
G1 X164.55 Y159.63 E13.63596
G1 X164.95 Y159.24 E13.67124
G1 X164.95 Y159.03 E13.68371
G1 X165.15 Y158.84 E13.70135
G1 X165.15 Y158.63 E13.71383
G1 X165.35 Y158.44 E13.73146
G1 X165.35 Y158.24 E13.74394
G1 X165.55 Y158.03 E13.76158
G1 X165.55 Y157.84 E13.77405
G1 X165.75 Y157.63 E13.79169
G1 X165.75 Y157.44 E13.80416
G1 X165.95 Y157.24 E13.82180
G1 X165.95 Y157.03 E13.83427
G1 X166.35 Y156.63 E13.86955
G1 X166.35 Y156.44 E13.88202
G1 X166.55 Y156.24 E13.89966
G1 X166.55 Y156.03 E13.91213
G1 X166.75 Y155.84 E13.92977
G1 X166.75 Y155.63 E13.94224
G1 X166.95 Y155.44 E13.95988
G1 X166.95 Y155.24 E13.97236
G1 X167.15 Y155.03 E13.98999
G1 X167.15 Y154.84 E14.00247
G1 X167.35 Y154.63 E14.02011
G1 X167.35 Y154.44 E14.03258
G1 X167.55 Y154.24 E14.05022
G1 X167.55 Y153.84 E14.07516
G1 X167.75 Y153.63 E14.09280
G1 X167.75 Y153.24 E14.11775
G1 X167.95 Y153.03 E14.13539
G1 X167.95 Y152.63 E14.16033
G1 X168.15 Y152.44 E14.17797
G1 X168.15 Y152.03 E14.20291
G1 X168.35 Y151.84 E14.22055
G1 X168.35 Y151.44 E14.24550
G1 X168.55 Y151.24 E14.26314
G1 X168.55 Y150.84 E14.28808
G1 X168.75 Y150.63 E14.30572
G1 X168.75 Y150.24 E14.33067
G1 X168.95 Y150.03 E14.34831
G1 X168.95 Y149.63 E14.37325
G1 X169.15 Y149.44 E14.39089
G1 X169.15 Y148.84 E14.42831
G1 X169.35 Y148.63 E14.44595
G1 X169.35 Y146.84 E14.55820
G1 X169.55 Y146.63 E14.57584
G1 X169.55 Y145.01 E14.67736
G1 X169.35 Y144.81 E14.69500
G1 X169.35 Y143.21 E14.79478
G1 X169.15 Y143.01 E14.81242
G1 X169.15 Y142.41 E14.84984
G1 X168.95 Y142.21 E14.86748
G1 X168.95 Y141.81 E14.89242
G1 X168.75 Y141.61 E14.91006
G1 X168.75 Y141.21 E14.93501
G1 X168.55 Y141.01 E14.95265
G1 X168.55 Y140.61 E14.97759
G1 X168.35 Y140.41 E14.99523
G1 X168.35 Y140.01 E15.02018
G1 X168.15 Y139.81 E15.03781
G1 X168.15 Y139.41 E15.06276
G1 X167.95 Y139.21 E15.08040
G1 X167.95 Y138.81 E15.10534
G1 X167.75 Y138.61 E15.12298
G1 X167.75 Y138.21 E15.14793
G1 X167.55 Y138.01 E15.16557
G1 X167.55 Y137.61 E15.19051
G1 X167.35 Y137.41 E15.20815
G1 X167.35 Y137.21 E15.22062
G1 X167.15 Y137.01 E15.23826
G1 X167.15 Y136.81 E15.25073
G1 X166.95 Y136.61 E15.26837
G1 X166.95 Y136.41 E15.28085
G1 X166.75 Y136.21 E15.29848
G1 X166.75 Y136.01 E15.31096
G1 X166.55 Y135.81 E15.32860
G1 X166.55 Y135.61 E15.34107
G1 X166.35 Y135.41 E15.35871
G1 X166.35 Y135.21 E15.37118
G1 X165.95 Y134.81 E15.40646
G1 X165.95 Y134.61 E15.41893
G1 X165.75 Y134.41 E15.43657
G1 X165.75 Y134.21 E15.44904
G1 X165.55 Y134.01 E15.46668
G1 X165.55 Y133.81 E15.47915
G1 X165.35 Y133.61 E15.49679
G1 X165.35 Y133.41 E15.50926
G1 X165.15 Y133.21 E15.52690
G1 X165.15 Y133.01 E15.53938
G1 X164.95 Y132.81 E15.55701
G1 X164.95 Y132.61 E15.56949
G1 X164.55 Y132.21 E15.60476
G1 X164.55 Y132.01 E15.61724
G1 X163.95 Y131.41 E15.67015
G1 X163.95 Y131.21 E15.68263
G1 X163.15 Y130.41 E15.75318
G1 X163.15 Y130.21 E15.76565
G1 X162.55 Y129.61 E15.81857
G1 X162.55 Y129.41 E15.83104
G1 X162.39 Y129.24 E15.84542
G1 X161.99 Y129.04 E15.87331
G1 X159.10 Y126.16 E16.12801
G1 X156.11 Y124.56 E16.33944
G1 X151.75 Y123.24 E16.62331
G1 X147.23 Y122.79 E16.90706
G1 X142.70 Y123.24 E17.19093
G1 X138.34 Y124.56 E17.47461
G1 X134.33 Y126.70 E17.75860
G1 X130.81 Y129.59 E18.04241
G0 F6000 X130.45 Y129.24
G1 F2700 X127.50 Y132.83 E18.33232
G1 X125.31 Y136.93 E18.62223
G1 X123.96 Y141.38 E18.91249
G1 X123.51 Y146.01 E19.20232
G1 X123.96 Y150.63 E19.49221
G1 X125.31 Y155.09 E19.78235
G1 X127.50 Y159.19 E20.07231
G1 X130.45 Y162.78 E20.36223
G1 X134.05 Y165.73 E20.65214
G1 X138.15 Y167.92 E20.94213
G1 X142.60 Y169.27 E21.23212
G1 X147.23 Y169.73 E21.52213
G1 X151.85 Y169.27 E21.81208
G1 X156.30 Y167.92 E22.10207
G1 X159.05 Y166.45 E22.29639
G1 X159.05 Y166.44 E22.29708
G1 X162.28 Y163.21 E22.58221
G1 X162.68 Y163.01 E22.61010
G1 X163.05 Y162.64 E22.64246
G1 X163.05 Y162.44 E22.65494
G1 X163.65 Y161.84 E22.70785
G1 X163.65 Y161.64 E22.72033
G1 X164.45 Y160.84 E22.79088
G1 X164.45 Y160.64 E22.80335
G1 X165.05 Y160.04 E22.85627
G1 X165.05 Y159.84 E22.86874
G1 X165.45 Y159.44 E22.90402
G1 X165.45 Y159.24 E22.91649
G1 X165.65 Y159.04 E22.93413
G1 X165.65 Y158.84 E22.94660
G1 X165.85 Y158.64 E22.96424
G1 X165.85 Y158.44 E22.97672
G1 X166.05 Y158.24 E22.99435
G1 X166.05 Y158.04 E23.00683
G1 X166.25 Y157.84 E23.02447
G1 X166.25 Y157.64 E23.03694
G1 X166.45 Y157.44 E23.05458
G1 X166.45 Y157.24 E23.06705
G1 X166.85 Y156.84 E23.10233
G1 X166.85 Y156.64 E23.11480
G1 X167.05 Y156.44 E23.13244
G1 X167.05 Y156.24 E23.14491
G1 X167.25 Y156.04 E23.16255
G1 X167.25 Y155.84 E23.17502
G1 X167.45 Y155.64 E23.19266
G1 X167.45 Y155.44 E23.20513
G1 X167.65 Y155.24 E23.22277
G1 X167.65 Y155.04 E23.23525
G1 X167.85 Y154.84 E23.25289
G1 X167.85 Y154.64 E23.26536
G1 X168.05 Y154.44 E23.28300
G1 X168.05 Y154.04 E23.30794
G1 X168.25 Y153.84 E23.32558
G1 X168.25 Y153.44 E23.35053
G1 X168.45 Y153.24 E23.36816
G1 X168.45 Y152.84 E23.39311
G1 X168.65 Y152.64 E23.41075
G1 X168.65 Y152.24 E23.43569
G1 X168.85 Y152.04 E23.45333
G1 X168.85 Y151.64 E23.47828
G1 X169.05 Y151.44 E23.49592
G1 X169.05 Y151.04 E23.52086
G1 X169.25 Y150.84 E23.53850
G1 X169.25 Y150.44 E23.56345
G1 X169.45 Y150.24 E23.58108
G1 X169.45 Y149.84 E23.60603
G1 X169.65 Y149.64 E23.62367
G1 X169.65 Y149.04 E23.66109
G1 X169.85 Y148.84 E23.67872
G1 X169.85 Y147.04 E23.79098
G1 X170.05 Y146.84 E23.80862
G1 X170.05 Y144.80 E23.93596
G1 X169.85 Y144.60 E23.95360
G1 X169.85 Y143.00 E24.05338
G1 X169.65 Y142.80 E24.07102
G1 X169.65 Y142.20 E24.10844
G1 X169.45 Y142.00 E24.12608
G1 X169.45 Y141.60 E24.15102
G1 X169.25 Y141.40 E24.16866
G1 X169.25 Y141.00 E24.19360
G1 X169.05 Y140.80 E24.21124
G1 X169.05 Y140.40 E24.23619
G1 X168.85 Y140.20 E24.25383
G1 X168.85 Y139.80 E24.27877
G1 X168.65 Y139.60 E24.29641
G1 X168.65 Y139.20 E24.32136
G1 X168.45 Y139.00 E24.33900
G1 X168.45 Y138.60 E24.36394
G1 X168.25 Y138.40 E24.38158
G1 X168.25 Y138.00 E24.40652
G1 X168.05 Y137.80 E24.42416
G1 X168.05 Y137.40 E24.44911
G1 X167.85 Y137.20 E24.46675
G1 X167.85 Y137.00 E24.47922
G1 X167.65 Y136.80 E24.49686
G1 X167.65 Y136.60 E24.50933
G1 X167.45 Y136.40 E24.52697
G1 X167.45 Y136.20 E24.53944
G1 X167.25 Y136.00 E24.55708
G1 X167.25 Y135.80 E24.56955
G1 X167.05 Y135.60 E24.58719
G1 X167.05 Y135.40 E24.59967
G1 X166.85 Y135.20 E24.61730
G1 X166.85 Y135.00 E24.62978
G1 X166.45 Y134.60 E24.66505
G1 X166.45 Y134.40 E24.67753
G1 X166.25 Y134.20 E24.69517
G1 X166.25 Y134.00 E24.70764
G1 X166.05 Y133.80 E24.72528
G1 X166.05 Y133.60 E24.73775
G1 X165.85 Y133.40 E24.75539
G1 X165.85 Y133.20 E24.76786
G1 X165.65 Y133.00 E24.78550
G1 X165.65 Y132.80 E24.79797
G1 X165.45 Y132.60 E24.81561
G1 X165.45 Y132.40 E24.82808
G1 X165.05 Y132.00 E24.86336
G1 X165.05 Y131.80 E24.87583
G1 X164.45 Y131.20 E24.92875
G1 X164.45 Y131.00 E24.94122
G1 X163.65 Y130.20 E25.01178
G1 X163.65 Y130.00 E25.02425
G1 X163.05 Y129.40 E25.07717
G1 X163.05 Y129.20 E25.08964
G1 X162.68 Y128.83 E25.12201
G1 X162.28 Y128.63 E25.14990
G1 X159.40 Y125.75 E25.40416
G1 X156.30 Y124.09 E25.62323
G1 X151.85 Y122.75 E25.91322
G1 X147.23 Y122.29 E26.20317
G1 X142.60 Y122.75 E26.49319
G1 X138.15 Y124.09 E26.78318
G1 X134.05 Y126.29 E27.07311
G1 X130.45 Y129.24 E27.36308
G0 F6000 X130.10 Y128.88
G1 F2700 X127.08 Y132.55 E27.65934
G1 X124.85 Y136.74 E27.95527
G1 X123.47 Y141.28 E28.25154
G1 X123.00 Y146.01 E28.54757
G1 X123.47 Y150.73 E28.84366
G1 X124.85 Y155.28 E29.13981
G1 X127.08 Y159.46 E29.43580
G1 X130.10 Y163.13 E29.73206
G1 X133.77 Y166.15 E30.02832
G1 X137.96 Y168.39 E30.32434
G1 X142.50 Y169.76 E30.62038
G1 X147.23 Y170.23 E30.91653
G1 X151.95 Y169.76 E31.21263
G1 X156.49 Y168.39 E31.50867
G1 X159.55 Y166.75 E31.72484
G1 X159.55 Y166.65 E31.73132
G1 X162.58 Y163.62 E31.99846
G1 X162.98 Y163.42 E32.02635
G1 X163.55 Y162.85 E32.07671
G1 X163.55 Y162.65 E32.08918
G1 X164.15 Y162.05 E32.14210
G1 X164.15 Y161.85 E32.15457
G1 X164.95 Y161.05 E32.22513
G1 X164.95 Y160.85 E32.23760
G1 X165.55 Y160.25 E32.29052
G1 X165.55 Y160.05 E32.30299
G1 X165.95 Y159.65 E32.33827
G1 X165.95 Y159.45 E32.35074
G1 X166.15 Y159.25 E32.36838
G1 X166.15 Y159.05 E32.38085
G1 X166.35 Y158.85 E32.39849
G1 X166.35 Y158.65 E32.41096
G1 X166.55 Y158.45 E32.42860
G1 X166.55 Y158.25 E32.44108
G1 X166.75 Y158.05 E32.45871
G1 X166.75 Y157.85 E32.47119
G1 X166.95 Y157.65 E32.48883
G1 X166.95 Y157.45 E32.50130
G1 X167.35 Y157.05 E32.53658
G1 X167.35 Y156.85 E32.54905
G1 X167.55 Y156.65 E32.56669
G1 X167.55 Y156.45 E32.57916
G1 X167.75 Y156.25 E32.59680
G1 X167.75 Y156.05 E32.60927
G1 X167.95 Y155.85 E32.62691
G1 X167.95 Y155.65 E32.63938
G1 X168.15 Y155.45 E32.65702
G1 X168.15 Y155.25 E32.66949
G1 X168.35 Y155.05 E32.68713
G1 X168.35 Y154.85 E32.69961
G1 X168.55 Y154.65 E32.71724
G1 X168.55 Y154.25 E32.74219
G1 X168.75 Y154.05 E32.75983
G1 X168.75 Y153.65 E32.78477
G1 X168.95 Y153.45 E32.80241
G1 X168.95 Y153.05 E32.82736
G1 X169.15 Y152.85 E32.84500
G1 X169.15 Y152.45 E32.86994
G1 X169.35 Y152.25 E32.88758
G1 X169.35 Y151.85 E32.91252
G1 X169.55 Y151.65 E32.93016
G1 X169.55 Y151.25 E32.95511
G1 X169.75 Y151.05 E32.97275
G1 X169.75 Y150.65 E32.99769
G1 X169.95 Y150.45 E33.01533
G1 X169.95 Y150.05 E33.04028
G1 X170.15 Y149.85 E33.05792
G1 X170.15 Y149.25 E33.09533
G1 X170.35 Y149.05 E33.11297
G1 X170.35 Y147.25 E33.22523
G1 X170.55 Y147.05 E33.24286
G1 X170.55 Y144.59 E33.39603
G1 X170.35 Y144.39 E33.41367
G1 X170.35 Y142.79 E33.51345
G1 X170.15 Y142.59 E33.53108
G1 X170.15 Y141.99 E33.56850
G1 X169.95 Y141.79 E33.58614
G1 X169.95 Y141.39 E33.61109
G1 X169.75 Y141.19 E33.62873
G1 X169.75 Y140.79 E33.65367
G1 X169.55 Y140.59 E33.67131
G1 X169.55 Y140.19 E33.69625
G1 X169.35 Y139.99 E33.71389
G1 X169.35 Y139.59 E33.73884
G1 X169.15 Y139.39 E33.75648
G1 X169.15 Y138.99 E33.78142
G1 X168.95 Y138.79 E33.79906
G1 X168.95 Y138.39 E33.82401
G1 X168.75 Y138.19 E33.84165
G1 X168.75 Y137.79 E33.86659
G1 X168.55 Y137.59 E33.88423
G1 X168.55 Y137.19 E33.90917
G1 X168.35 Y136.99 E33.92681
G1 X168.35 Y136.79 E33.93929
G1 X168.15 Y136.59 E33.95692
G1 X168.15 Y136.39 E33.96940
G1 X167.95 Y136.19 E33.98704
G1 X167.95 Y135.99 E33.99951
G1 X167.75 Y135.79 E34.01715
G1 X167.75 Y135.59 E34.02962
G1 X167.55 Y135.39 E34.04726
G1 X167.55 Y135.19 E34.05973
G1 X167.35 Y134.99 E34.07737
G1 X167.35 Y134.79 E34.08984
G1 X166.95 Y134.39 E34.12512
G1 X166.95 Y134.19 E34.13759
G1 X166.75 Y133.99 E34.15523
G1 X166.75 Y133.79 E34.16770
G1 X166.55 Y133.59 E34.18534
G1 X166.55 Y133.39 E34.19782
G1 X166.35 Y133.19 E34.21545
G1 X166.35 Y132.99 E34.22793
G1 X166.15 Y132.79 E34.24557
G1 X166.15 Y132.59 E34.25804
G1 X165.95 Y132.39 E34.27568
G1 X165.95 Y132.19 E34.28815
G1 X165.55 Y131.79 E34.32343
G1 X165.55 Y131.59 E34.33590
G1 X164.95 Y130.99 E34.38882
G1 X164.95 Y130.79 E34.40129
G1 X164.15 Y129.99 E34.47184
G1 X164.15 Y129.79 E34.48432
G1 X163.55 Y129.19 E34.53723
G1 X163.55 Y128.99 E34.54971
G1 X162.98 Y128.42 E34.60007
G1 X162.58 Y128.22 E34.62795
G1 X159.70 Y125.34 E34.88178
G1 X156.49 Y123.63 E35.10863
G1 X151.95 Y122.25 E35.40467
G1 X147.23 Y121.79 E35.70077
G1 X142.50 Y122.25 E35.99699
G1 X137.96 Y123.63 E36.29285
G1 X133.77 Y125.87 E36.58906
G1 X130.10 Y128.88 E36.88523
G0 F6000 X129.74 Y128.53
G1 F2700 X126.67 Y132.27 E37.18765
G1 X124.39 Y136.54 E37.48953
G1 X122.98 Y141.19 E37.79212
G1 X122.50 Y146.01 E38.09429
G1 X122.98 Y150.83 E38.39652
G1 X124.39 Y155.47 E38.69905
G1 X126.67 Y159.74 E39.00092
G1 X129.74 Y163.49 E39.30335
G1 X133.49 Y166.57 E39.60577
G1 X137.76 Y168.85 E39.90770
G1 X142.40 Y170.26 E40.21003
G1 X147.23 Y170.73 E40.51238
G1 X152.05 Y170.26 E40.81467
G1 X156.69 Y168.85 E41.11700
G1 X160.05 Y167.05 E41.35474
G1 X160.05 Y166.86 E41.36696
G1 X162.88 Y164.03 E41.61611
G1 X163.28 Y163.83 E41.64400
G1 X164.05 Y163.06 E41.71235
G1 X164.05 Y162.86 E41.72482
G1 X164.65 Y162.26 E41.77774
G1 X164.65 Y162.06 E41.79021
G1 X165.45 Y161.26 E41.86076
G1 X165.45 Y161.06 E41.87324
G1 X166.05 Y160.46 E41.92615
G1 X166.05 Y160.26 E41.93863
G1 X166.45 Y159.86 E41.97390
G1 X166.45 Y159.66 E41.98638
G1 X166.65 Y159.46 E42.00402
G1 X166.65 Y159.26 E42.01649
G1 X166.85 Y159.06 E42.03413
G1 X166.85 Y158.86 E42.04660
G1 X167.05 Y158.66 E42.06424
G1 X167.05 Y158.46 E42.07671
G1 X167.25 Y158.26 E42.09435
G1 X167.25 Y158.06 E42.10682
G1 X167.45 Y157.86 E42.12446
G1 X167.45 Y157.66 E42.13693
G1 X167.85 Y157.26 E42.17221
G1 X167.85 Y157.06 E42.18468
G1 X168.05 Y156.86 E42.20232
G1 X168.05 Y156.66 E42.21479
G1 X168.25 Y156.46 E42.23243
G1 X168.25 Y156.26 E42.24491
G1 X168.45 Y156.06 E42.26255
G1 X168.45 Y155.86 E42.27502
G1 X168.65 Y155.66 E42.29266
G1 X168.65 Y155.46 E42.30513
G1 X168.85 Y155.26 E42.32277
G1 X168.85 Y155.06 E42.33524
G1 X169.05 Y154.86 E42.35288
G1 X169.05 Y154.46 E42.37782
G1 X169.25 Y154.26 E42.39546
G1 X169.25 Y153.86 E42.42041
G1 X169.45 Y153.66 E42.43805
G1 X169.45 Y153.26 E42.46299
G1 X169.65 Y153.06 E42.48063
G1 X169.65 Y152.66 E42.50558
G1 X169.85 Y152.46 E42.52322
G1 X169.85 Y152.06 E42.54816
G1 X170.05 Y151.86 E42.56580
G1 X170.05 Y151.46 E42.59074
G1 X170.25 Y151.26 E42.60838
G1 X170.25 Y150.86 E42.63333
G1 X170.45 Y150.66 E42.65097
G1 X170.45 Y150.26 E42.67591
G1 X170.65 Y150.06 E42.69355
G1 X170.65 Y149.46 E42.73097
G1 X170.85 Y149.26 E42.74861
G1 X170.85 Y147.46 E42.86086
G1 X171.05 Y147.26 E42.87850
G1 X171.05 Y144.39 E43.05748
G1 X170.85 Y144.19 E43.07512
G1 X170.85 Y142.59 E43.17490
G1 X170.65 Y142.39 E43.19254
G1 X170.65 Y141.79 E43.22996
G1 X170.45 Y141.59 E43.24759
G1 X170.45 Y141.19 E43.27254
G1 X170.25 Y140.99 E43.29018
G1 X170.25 Y140.59 E43.31512
G1 X170.05 Y140.39 E43.33276
G1 X170.05 Y139.99 E43.35771
G1 X169.85 Y139.79 E43.37535
G1 X169.85 Y139.39 E43.40029
G1 X169.65 Y139.19 E43.41793
G1 X169.65 Y138.79 E43.44288
G1 X169.45 Y138.59 E43.46051
G1 X169.45 Y138.19 E43.48546
G1 X169.25 Y137.99 E43.50310
G1 X169.25 Y137.59 E43.52804
G1 X169.05 Y137.39 E43.54568
G1 X169.05 Y136.99 E43.57063
G1 X168.85 Y136.79 E43.58827
G1 X168.85 Y136.59 E43.60074
G1 X168.65 Y136.39 E43.61838
G1 X168.65 Y136.19 E43.63085
G1 X168.45 Y135.99 E43.64849
G1 X168.45 Y135.79 E43.66096
G1 X168.25 Y135.59 E43.67860
G1 X168.25 Y135.39 E43.69107
G1 X168.05 Y135.19 E43.70871
G1 X168.05 Y134.99 E43.72118
G1 X167.85 Y134.79 E43.73882
G1 X167.85 Y134.59 E43.75130
G1 X167.45 Y134.19 E43.78657
G1 X167.45 Y133.99 E43.79905
G1 X167.25 Y133.79 E43.81669
G1 X167.25 Y133.59 E43.82916
G1 X167.05 Y133.39 E43.84680
G1 X167.05 Y133.19 E43.85927
G1 X166.85 Y132.99 E43.87691
G1 X166.85 Y132.79 E43.88938
G1 X166.65 Y132.59 E43.90702
G1 X166.65 Y132.39 E43.91949
G1 X166.45 Y132.19 E43.93713
G1 X166.45 Y131.99 E43.94960
G1 X166.05 Y131.59 E43.98488
G1 X166.05 Y131.39 E43.99735
G1 X165.45 Y130.79 E44.05027
G1 X165.45 Y130.59 E44.06274
G1 X164.65 Y129.79 E44.13330
G1 X164.65 Y129.59 E44.14577
G1 X164.05 Y128.99 E44.19869
G1 X164.05 Y128.79 E44.21116
G1 X163.28 Y128.01 E44.27951
G1 X162.88 Y127.81 E44.30740
G1 X160.05 Y124.99 E44.55655
G1 X160.05 Y124.96 E44.55792
G1 X156.69 Y123.17 E44.79565
G1 X152.05 Y121.76 E45.09799
G1 X147.23 Y121.28 E45.40028
G1 X142.40 Y121.76 E45.70263
G1 X137.76 Y123.17 E46.00489
G1 X133.49 Y125.45 E46.30704
G1 X129.74 Y128.53 E46.60933
G0 F6000 X129.39 Y128.17
G1 F2700 X126.25 Y131.99 E46.91777
G1 X123.92 Y136.36 E47.22626
G1 X122.48 Y141.09 E47.53453
G1 X122.00 Y146.01 E47.84297
G1 X122.48 Y150.93 E48.15140
G1 X123.92 Y155.66 E48.45981
G1 X126.25 Y160.02 E48.76816
G1 X129.39 Y163.85 E49.07660
G1 X133.21 Y166.98 E49.38504
G1 X137.57 Y169.31 E49.69347
G1 X142.30 Y170.75 E50.00173
G1 X147.23 Y171.23 E50.31022
G1 X152.15 Y170.75 E50.61865
G1 X156.88 Y169.31 E50.92690
G1 X160.55 Y167.35 E51.18662
G1 X160.55 Y167.06 E51.20464
G1 X163.17 Y164.44 E51.43580
G1 X163.57 Y164.24 E51.46369
G1 X164.55 Y163.26 E51.55003
G1 X164.55 Y163.06 E51.56250
G1 X165.15 Y162.46 E51.61542
G1 X165.15 Y162.26 E51.62789
G1 X165.95 Y161.46 E51.69845
G1 X165.95 Y161.26 E51.71092
G1 X166.55 Y160.66 E51.76384
G1 X166.55 Y160.46 E51.77631
G1 X166.95 Y160.06 E51.81159
G1 X166.95 Y159.86 E51.82406
G1 X167.15 Y159.66 E51.84170
G1 X167.15 Y159.46 E51.85417
G1 X167.35 Y159.26 E51.87181
G1 X167.35 Y159.06 E51.88428
G1 X167.55 Y158.86 E51.90192
G1 X167.55 Y158.66 E51.91439
G1 X167.75 Y158.46 E51.93203
G1 X167.75 Y158.26 E51.94451
G1 X167.95 Y158.06 E51.96214
G1 X167.95 Y157.86 E51.97462
G1 X168.35 Y157.46 E52.00989
G1 X168.35 Y157.26 E52.02237
G1 X168.55 Y157.06 E52.04001
G1 X168.55 Y156.86 E52.05248
G1 X168.75 Y156.66 E52.07012
G1 X168.75 Y156.46 E52.08259
G1 X168.95 Y156.26 E52.10023
G1 X168.95 Y156.06 E52.11270
G1 X169.15 Y155.86 E52.13034
G1 X169.15 Y155.66 E52.14281
G1 X169.35 Y155.46 E52.16045
G1 X169.35 Y155.26 E52.17292
G1 X169.55 Y155.06 E52.19056
G1 X169.55 Y154.66 E52.21551
G1 X169.75 Y154.46 E52.23315
G1 X169.75 Y154.06 E52.25809
G1 X169.95 Y153.86 E52.27573
G1 X169.95 Y153.46 E52.30068
G1 X170.15 Y153.26 E52.31832
G1 X170.15 Y152.86 E52.34326
G1 X170.35 Y152.66 E52.36090
G1 X170.35 Y152.26 E52.38584
G1 X170.55 Y152.06 E52.40348
G1 X170.55 Y151.66 E52.42843
G1 X170.75 Y151.46 E52.44607
G1 X170.75 Y151.06 E52.47101
G1 X170.95 Y150.86 E52.48865
G1 X170.95 Y150.46 E52.51360
G1 X171.15 Y150.26 E52.53123
G1 X171.15 Y149.66 E52.56865
G1 X171.35 Y149.46 E52.58629
G1 X171.35 Y147.66 E52.69854
G1 X171.55 Y147.46 E52.71618
G1 X171.55 Y144.18 E52.92098
G1 X171.35 Y143.98 E52.93862
G1 X171.35 Y142.38 E53.03840
G1 X171.15 Y142.18 E53.05604
G1 X171.15 Y141.58 E53.09346
G1 X170.95 Y141.38 E53.11110
G1 X170.95 Y140.98 E53.13604
G1 X170.75 Y140.78 E53.15368
G1 X170.75 Y140.38 E53.17863
G1 X170.55 Y140.18 E53.19627
G1 X170.55 Y139.78 E53.22121
G1 X170.35 Y139.58 E53.23885
G1 X170.35 Y139.18 E53.26379
G1 X170.15 Y138.98 E53.28143
G1 X170.15 Y138.58 E53.30638
G1 X169.95 Y138.38 E53.32402
G1 X169.95 Y137.98 E53.34896
G1 X169.75 Y137.78 E53.36660
G1 X169.75 Y137.38 E53.39155
G1 X169.55 Y137.18 E53.40918
G1 X169.55 Y136.78 E53.43413
G1 X169.35 Y136.58 E53.45177
G1 X169.35 Y136.38 E53.46424
G1 X169.15 Y136.18 E53.48188
G1 X169.15 Y135.98 E53.49435
G1 X168.95 Y135.78 E53.51199
G1 X168.95 Y135.58 E53.52446
G1 X168.75 Y135.38 E53.54210
G1 X168.75 Y135.18 E53.55458
G1 X168.55 Y134.98 E53.57221
G1 X168.55 Y134.78 E53.58469
G1 X168.35 Y134.58 E53.60233
G1 X168.35 Y134.38 E53.61480
G1 X167.95 Y133.98 E53.65008
G1 X167.95 Y133.78 E53.66255
G1 X167.75 Y133.58 E53.68019
G1 X167.75 Y133.38 E53.69266
G1 X167.55 Y133.18 E53.71030
G1 X167.55 Y132.98 E53.72277
G1 X167.35 Y132.78 E53.74041
G1 X167.35 Y132.58 E53.75288
G1 X167.15 Y132.38 E53.77052
G1 X167.15 Y132.18 E53.78299
G1 X166.95 Y131.98 E53.80063
G1 X166.95 Y131.78 E53.81311
G1 X166.55 Y131.38 E53.84838
G1 X166.55 Y131.18 E53.86086
G1 X165.95 Y130.58 E53.91377
G1 X165.95 Y130.38 E53.92624
G1 X165.15 Y129.58 E53.99680
G1 X165.15 Y129.38 E54.00927
G1 X164.55 Y128.78 E54.06219
G1 X164.55 Y128.58 E54.07466
G1 X163.57 Y127.60 E54.16100
G1 X163.17 Y127.40 E54.18889
G1 X160.55 Y124.78 E54.42005
G1 X160.55 Y124.66 E54.42722
G1 X156.88 Y122.70 E54.68694
G1 X152.15 Y121.27 E54.99519
G1 X147.23 Y120.78 E55.30363
G1 X142.31 Y121.27 E55.61182
G1 X137.57 Y122.70 E55.92070
G1 X133.21 Y125.03 E56.22880
G1 X129.39 Y128.17 E56.53724
G0 F6000 X129.03 Y127.81
G1 F2700 X125.83 Y131.71 E56.85176
G1 X123.46 Y136.16 E57.16622
G1 X121.99 Y140.99 E57.48086
G1 X121.50 Y146.01 E57.79544
G1 X121.99 Y151.03 E58.11009
G1 X123.46 Y155.86 E58.42467
G1 X125.83 Y160.30 E58.73913
G1 X129.03 Y164.20 E59.05365
G1 X132.93 Y167.40 E59.36817
G1 X137.38 Y169.78 E59.68263
G1 X142.20 Y171.24 E59.99713
G1 X147.23 Y171.74 E60.31183
G1 X152.25 Y171.24 E60.62647
G1 X157.07 Y169.78 E60.94097
G1 X161.05 Y167.65 E61.22226
G1 X161.05 Y167.27 E61.24602
G1 X163.47 Y164.85 E61.45923
G1 X163.87 Y164.65 E61.48717
G1 X164.47 Y164.05 E61.54004
G1 X164.47 Y164.05 E61.54018
G1 X165.05 Y163.47 E61.59142
G1 X165.05 Y163.27 E61.60390
G1 X165.65 Y162.67 E61.65681
G1 X165.65 Y162.47 E61.66929
G1 X166.45 Y161.67 E61.73984
G1 X166.45 Y161.47 E61.75231
G1 X167.05 Y160.87 E61.80523
G1 X167.05 Y160.67 E61.81770
G1 X167.45 Y160.27 E61.85298
G1 X167.45 Y160.07 E61.86545
G1 X167.65 Y159.87 E61.88309
G1 X167.65 Y159.67 E61.89556
G1 X167.85 Y159.47 E61.91320
G1 X167.85 Y159.27 E61.92568
G1 X168.05 Y159.07 E61.94332
G1 X168.05 Y158.87 E61.95579
G1 X168.25 Y158.67 E61.97343
G1 X168.25 Y158.47 E61.98590
G1 X168.45 Y158.27 E62.00354
G1 X168.45 Y158.07 E62.01601
G1 X168.85 Y157.67 E62.05129
G1 X168.85 Y157.47 E62.06376
G1 X169.05 Y157.27 E62.08140
G1 X169.05 Y157.07 E62.09387
G1 X169.25 Y156.87 E62.11151
G1 X169.25 Y156.67 E62.12398
G1 X169.45 Y156.47 E62.14162
G1 X169.45 Y156.27 E62.15409
G1 X169.65 Y156.07 E62.17173
G1 X169.65 Y155.87 E62.18421
G1 X169.85 Y155.67 E62.20185
G1 X169.85 Y155.47 E62.21432
G1 X170.05 Y155.27 E62.23196
G1 X170.05 Y154.87 E62.25690
G1 X170.25 Y154.67 E62.27454
G1 X170.25 Y154.27 E62.29949
G1 X170.45 Y154.07 E62.31712
G1 X170.45 Y153.67 E62.34207
G1 X170.65 Y153.47 E62.35971
G1 X170.65 Y153.07 E62.38465
G1 X170.85 Y152.87 E62.40229
G1 X170.85 Y152.47 E62.42724
G1 X171.05 Y152.27 E62.44488
G1 X171.05 Y151.87 E62.46982
G1 X171.25 Y151.67 E62.48746
G1 X171.25 Y151.27 E62.51241
G1 X171.45 Y151.07 E62.53004
G1 X171.45 Y150.67 E62.55499
G1 X171.65 Y150.47 E62.57263
G1 X171.65 Y149.87 E62.61005
G1 X171.85 Y149.67 E62.62768
G1 X171.85 Y147.87 E62.73994
G1 X172.05 Y147.67 E62.75758
G1 X172.05 Y145.87 E62.86983
G1 X172.10 Y145.82 E62.87424
G1 X172.05 Y145.77 E62.87865
G1 X172.05 Y143.97 E62.99090
G1 X171.85 Y143.77 E63.00854
G1 X171.85 Y142.17 E63.10832
G1 X171.65 Y141.97 E63.12596
G1 X171.65 Y141.37 E63.16338
G1 X171.45 Y141.17 E63.18102
G1 X171.45 Y140.77 E63.20596
G1 X171.25 Y140.57 E63.22360
G1 X171.25 Y140.17 E63.24855
G1 X171.05 Y139.97 E63.26618
G1 X171.05 Y139.57 E63.29113
G1 X170.85 Y139.37 E63.30877
G1 X170.85 Y138.97 E63.33371
G1 X170.65 Y138.77 E63.35135
G1 X170.65 Y138.37 E63.37630
G1 X170.45 Y138.17 E63.39394
G1 X170.45 Y137.77 E63.41888
G1 X170.25 Y137.57 E63.43652
G1 X170.25 Y137.17 E63.46147
G1 X170.05 Y136.97 E63.47910
G1 X170.05 Y136.57 E63.50405
G1 X169.85 Y136.37 E63.52169
G1 X169.85 Y136.17 E63.53416
G1 X169.65 Y135.97 E63.55180
G1 X169.65 Y135.77 E63.56427
G1 X169.45 Y135.57 E63.58191
G1 X169.45 Y135.37 E63.59438
G1 X169.25 Y135.17 E63.61202
G1 X169.25 Y134.97 E63.62449
G1 X169.05 Y134.77 E63.64213
G1 X169.05 Y134.57 E63.65461
G1 X168.85 Y134.37 E63.67225
G1 X168.85 Y134.17 E63.68472
G1 X168.45 Y133.77 E63.72000
G1 X168.45 Y133.57 E63.73247
G1 X168.25 Y133.37 E63.75011
G1 X168.25 Y133.17 E63.76258
G1 X168.05 Y132.97 E63.78022
G1 X168.05 Y132.77 E63.79269
G1 X167.85 Y132.57 E63.81033
G1 X167.85 Y132.37 E63.82280
G1 X167.65 Y132.17 E63.84044
G1 X167.65 Y131.97 E63.85291
G1 X167.45 Y131.77 E63.87055
G1 X167.45 Y131.57 E63.88302
G1 X167.05 Y131.17 E63.91830
G1 X167.05 Y130.97 E63.93078
G1 X166.45 Y130.37 E63.98369
G1 X166.45 Y130.17 E63.99616
G1 X165.65 Y129.37 E64.06672
G1 X165.65 Y129.17 E64.07919
G1 X165.05 Y128.57 E64.13211
G1 X165.05 Y128.37 E64.14458
G1 X164.47 Y127.79 E64.19582
G1 X164.47 Y127.79 E64.19596
G1 X163.87 Y127.19 E64.24883
G1 X163.47 Y126.99 E64.27678
G1 X161.05 Y124.57 E64.48999
G1 X161.05 Y124.36 E64.50290
G1 X157.07 Y122.24 E64.78418
G1 X152.24 Y120.77 E65.09901
G1 X147.23 Y120.28 E65.41334
G1 X142.21 Y120.77 E65.72773
G1 X137.38 Y122.24 E66.04261
G1 X132.93 Y124.61 E66.35693
G1 X129.03 Y127.81 E66.67154
G0 F6000 X128.68 Y127.46
G1 F2700 X125.41 Y131.44 E66.99243
G1 X122.99 Y135.97 E67.31289
G1 X121.50 Y140.89 E67.63353
G1 X120.99 Y146.01 E67.95431
G1 X121.50 Y151.13 E68.27515
G1 X122.99 Y156.05 E68.59573
G1 X125.41 Y160.58 E68.91618
G1 X128.68 Y164.56 E69.23708
G1 X132.66 Y167.82 E69.55797
G1 X137.18 Y170.24 E69.87812
G1 X142.11 Y171.74 E70.19929
G1 X147.23 Y172.24 E70.51981
G1 X152.34 Y171.74 E70.84027
G1 X157.27 Y170.24 E71.16145
G1 X161.55 Y167.95 E71.46427
G1 X161.55 Y167.48 E71.49383
G1 X163.76 Y165.26 E71.68909
G1 X164.16 Y165.06 E71.71690
G1 X165.55 Y163.68 E71.83922
G1 X165.55 Y163.48 E71.85169
G1 X166.15 Y162.88 E71.90461
G1 X166.15 Y162.68 E71.91708
G1 X166.95 Y161.88 E71.98764
G1 X166.95 Y161.68 E72.00011
G1 X167.55 Y161.08 E72.05303
G1 X167.55 Y160.88 E72.06550
G1 X167.95 Y160.48 E72.10078
G1 X167.95 Y160.28 E72.11325
G1 X168.15 Y160.08 E72.13089
G1 X168.15 Y159.88 E72.14336
G1 X168.35 Y159.68 E72.16100
G1 X168.35 Y159.48 E72.17347
G1 X168.55 Y159.28 E72.19111
G1 X168.55 Y159.08 E72.20359
G1 X168.75 Y158.88 E72.22122
G1 X168.75 Y158.68 E72.23370
G1 X168.95 Y158.48 E72.25134
G1 X168.95 Y158.28 E72.26381
G1 X169.35 Y157.88 E72.29909
G1 X169.35 Y157.68 E72.31156
G1 X169.55 Y157.48 E72.32920
G1 X169.55 Y157.28 E72.34167
G1 X169.75 Y157.08 E72.35931
G1 X169.75 Y156.88 E72.37178
G1 X169.95 Y156.68 E72.38942
G1 X169.95 Y156.48 E72.40189
G1 X170.15 Y156.28 E72.41953
G1 X170.15 Y156.08 E72.43200
G1 X170.35 Y155.88 E72.44964
G1 X170.35 Y155.68 E72.46212
G1 X170.55 Y155.48 E72.47975
G1 X170.55 Y155.08 E72.50470
G1 X170.75 Y154.88 E72.52234
G1 X170.75 Y154.48 E72.54728
G1 X170.95 Y154.28 E72.56492
G1 X170.95 Y153.88 E72.58987
G1 X171.15 Y153.68 E72.60751
G1 X171.15 Y153.28 E72.63245
G1 X171.35 Y153.08 E72.65009
G1 X171.35 Y152.68 E72.67503
G1 X171.55 Y152.48 E72.69267
G1 X171.55 Y152.08 E72.71762
G1 X171.75 Y151.88 E72.73526
G1 X171.75 Y151.48 E72.76020
G1 X171.95 Y151.28 E72.77784
G1 X171.95 Y150.88 E72.80279
G1 X172.15 Y150.68 E72.82043
G1 X172.15 Y150.08 E72.85784
G1 X172.35 Y149.88 E72.87548
G1 X172.35 Y148.08 E72.98774
G1 X172.55 Y147.88 E73.00537
G1 X172.55 Y146.08 E73.11763
G1 X172.75 Y145.88 E73.13527
G1 X172.75 Y145.76 E73.14238
G1 X172.55 Y145.56 E73.16001
G1 X172.55 Y143.76 E73.27227
G1 X172.35 Y143.56 E73.28991
G1 X172.35 Y141.96 E73.38969
G1 X172.15 Y141.76 E73.40733
G1 X172.15 Y141.16 E73.44474
G1 X171.95 Y140.96 E73.46238
G1 X171.95 Y140.56 E73.48733
G1 X171.75 Y140.36 E73.50497
G1 X171.75 Y139.96 E73.52991
G1 X171.55 Y139.76 E73.54755
G1 X171.55 Y139.36 E73.57249
G1 X171.35 Y139.16 E73.59013
G1 X171.35 Y138.76 E73.61508
G1 X171.15 Y138.56 E73.63272
G1 X171.15 Y138.16 E73.65766
G1 X170.95 Y137.96 E73.67530
G1 X170.95 Y137.56 E73.70025
G1 X170.75 Y137.36 E73.71789
G1 X170.75 Y136.96 E73.74283
G1 X170.55 Y136.76 E73.76047
G1 X170.55 Y136.36 E73.78541
G1 X170.35 Y136.16 E73.80305
G1 X170.35 Y135.96 E73.81553
G1 X170.15 Y135.76 E73.83316
G1 X170.15 Y135.56 E73.84564
G1 X169.95 Y135.36 E73.86328
G1 X169.95 Y135.16 E73.87575
G1 X169.75 Y134.96 E73.89339
G1 X169.75 Y134.76 E73.90586
G1 X169.55 Y134.56 E73.92350
G1 X169.55 Y134.36 E73.93597
G1 X169.35 Y134.16 E73.95361
G1 X169.35 Y133.96 E73.96608
G1 X168.95 Y133.56 E74.00136
G1 X168.95 Y133.36 E74.01383
G1 X168.75 Y133.16 E74.03147
G1 X168.75 Y132.96 E74.04394
G1 X168.55 Y132.76 E74.06158
G1 X168.55 Y132.56 E74.07406
G1 X168.35 Y132.36 E74.09169
G1 X168.35 Y132.16 E74.10417
G1 X168.15 Y131.96 E74.12181
G1 X168.15 Y131.76 E74.13428
G1 X167.95 Y131.56 E74.15192
G1 X167.95 Y131.36 E74.16439
G1 X167.55 Y130.96 E74.19967
G1 X167.55 Y130.76 E74.21214
G1 X166.95 Y130.16 E74.26506
G1 X166.95 Y129.96 E74.27753
G1 X166.15 Y129.16 E74.34808
G1 X166.15 Y128.96 E74.36056
G1 X165.55 Y128.36 E74.41347
G1 X165.55 Y128.16 E74.42595
G1 X164.16 Y126.78 E74.54827
G1 X163.76 Y126.58 E74.57608
G1 X161.55 Y124.36 E74.77134
G1 X161.55 Y124.06 E74.79005
G1 X157.27 Y121.78 E75.09287
G1 X152.34 Y120.28 E75.41403
G1 X147.23 Y119.78 E75.73450
G1 X142.11 Y120.28 E76.05516
G1 X137.19 Y121.77 E76.37604
G1 X132.65 Y124.20 E76.69644
G1 X128.68 Y127.46 E77.01724
G0 F6000 X128.32 Y127.10
G1 F2700 X125.00 Y131.16 E77.34412
G1 X122.53 Y135.78 E77.67080
G1 X121.00 Y140.79 E77.99791
G1 X120.49 Y146.01 E78.32458
G1 X121.00 Y151.22 E78.65131
G1 X122.53 Y156.24 E78.97836
G1 X125.00 Y160.86 E79.30504
G1 X128.32 Y164.91 E79.63192
G1 X132.37 Y168.24 E79.95880
G1 X137.00 Y170.71 E80.28556
G1 X142.01 Y172.23 E80.61244
G1 X147.23 Y172.74 E80.93924
G1 X152.44 Y172.23 E81.26597
G1 X157.46 Y170.71 E81.59286
G1 X162.05 Y168.25 E81.91778
G1 X162.05 Y167.69 E81.95308
G1 X164.06 Y165.68 E82.13035
G1 X164.46 Y165.47 E82.15824
G1 X165.06 Y164.88 E82.21115
G1 X165.25 Y164.78 E82.22440
G1 X165.25 Y164.69 E82.23033
G1 X166.05 Y163.88 E82.30088
G1 X166.05 Y163.69 E82.31335
G1 X166.65 Y163.09 E82.36627
G1 X166.65 Y162.88 E82.37874
G1 X167.45 Y162.09 E82.44930
G1 X167.45 Y161.88 E82.46177
G1 X168.05 Y161.28 E82.51469
G1 X168.05 Y161.09 E82.52716
G1 X168.45 Y160.69 E82.56244
G1 X168.45 Y160.49 E82.57491
G1 X168.65 Y160.28 E82.59255
G1 X168.65 Y160.09 E82.60502
G1 X168.85 Y159.88 E82.62266
G1 X168.85 Y159.69 E82.63513
G1 X169.05 Y159.49 E82.65277
G1 X169.05 Y159.28 E82.66525
G1 X169.25 Y159.09 E82.68288
G1 X169.25 Y158.88 E82.69536
G1 X169.45 Y158.69 E82.71300
G1 X169.45 Y158.49 E82.72547
G1 X169.85 Y158.09 E82.76075
G1 X169.85 Y157.88 E82.77322
G1 X170.05 Y157.69 E82.79086
G1 X170.05 Y157.49 E82.80333
G1 X170.25 Y157.28 E82.82097
G1 X170.25 Y157.09 E82.83344
G1 X170.45 Y156.88 E82.85108
G1 X170.45 Y156.69 E82.86355
G1 X170.65 Y156.49 E82.88119
G1 X170.65 Y156.28 E82.89366
G1 X170.85 Y156.09 E82.91130
G1 X170.85 Y155.88 E82.92378
G1 X171.05 Y155.69 E82.94141
G1 X171.05 Y155.28 E82.96636
G1 X171.25 Y155.09 E82.98400
G1 X171.25 Y154.69 E83.00894
G1 X171.45 Y154.49 E83.02658
G1 X171.45 Y154.09 E83.05153
G1 X171.65 Y153.88 E83.06917
G1 X171.65 Y153.49 E83.09411
G1 X171.85 Y153.28 E83.11175
G1 X171.85 Y152.88 E83.13670
G1 X172.05 Y152.69 E83.15433
G1 X172.05 Y152.28 E83.17928
G1 X172.25 Y152.09 E83.19692
G1 X172.25 Y151.69 E83.22186
G1 X172.45 Y151.49 E83.23950
G1 X172.45 Y151.09 E83.26445
G1 X172.65 Y150.88 E83.28209
G1 X172.65 Y150.28 E83.31950
G1 X172.85 Y150.09 E83.33714
G1 X172.85 Y148.28 E83.44940
G1 X173.05 Y148.09 E83.46703
G1 X173.05 Y146.28 E83.57929
G1 X173.25 Y146.09 E83.59693
G1 X173.25 Y145.56 E83.62985
G1 X173.05 Y145.36 E83.64749
G1 X173.05 Y143.56 E83.75975
G1 X172.85 Y143.36 E83.77738
G1 X172.85 Y141.76 E83.87716
G1 X172.65 Y141.56 E83.89480
G1 X172.65 Y140.96 E83.93222
G1 X172.45 Y140.76 E83.94986
G1 X172.45 Y140.36 E83.97481
G1 X172.25 Y140.16 E83.99244
G1 X172.25 Y139.76 E84.01739
G1 X172.05 Y139.56 E84.03503
G1 X172.05 Y139.16 E84.05997
G1 X171.85 Y138.96 E84.07761
G1 X171.85 Y138.56 E84.10256
G1 X171.65 Y138.36 E84.12020
G1 X171.65 Y137.96 E84.14514
G1 X171.45 Y137.76 E84.16278
G1 X171.45 Y137.36 E84.18772
G1 X171.25 Y137.16 E84.20536
G1 X171.25 Y136.76 E84.23031
G1 X171.05 Y136.56 E84.24795
G1 X171.05 Y136.16 E84.27289
G1 X170.85 Y135.96 E84.29053
G1 X170.85 Y135.76 E84.30300
G1 X170.65 Y135.56 E84.32064
G1 X170.65 Y135.36 E84.33312
G1 X170.45 Y135.16 E84.35075
G1 X170.45 Y134.96 E84.36323
G1 X170.25 Y134.76 E84.38087
G1 X170.25 Y134.56 E84.39334
G1 X170.05 Y134.36 E84.41098
G1 X170.05 Y134.16 E84.42345
G1 X169.85 Y133.96 E84.44109
G1 X169.85 Y133.76 E84.45356
G1 X169.45 Y133.36 E84.48884
G1 X169.45 Y133.16 E84.50131
G1 X169.25 Y132.96 E84.51895
G1 X169.25 Y132.76 E84.53142
G1 X169.05 Y132.56 E84.54906
G1 X169.05 Y132.36 E84.56153
G1 X168.85 Y132.16 E84.57917
G1 X168.85 Y131.96 E84.59165
G1 X168.65 Y131.76 E84.60928
G1 X168.65 Y131.56 E84.62176
G1 X168.45 Y131.36 E84.63940
G1 X168.45 Y131.16 E84.65187
G1 X168.05 Y130.76 E84.68715
G1 X168.05 Y130.56 E84.69962
G1 X167.45 Y129.96 E84.75254
G1 X167.45 Y129.76 E84.76501
G1 X166.65 Y128.96 E84.83556
G1 X166.65 Y128.76 E84.84804
G1 X166.05 Y128.16 E84.90095
G1 X166.05 Y127.96 E84.91342
G1 X165.25 Y127.16 E84.98398
G1 X165.25 Y127.06 E84.98990
G1 X165.06 Y126.97 E85.00315
G1 X164.46 Y126.37 E85.05607
G1 X164.06 Y126.17 E85.08396
G1 X162.05 Y124.16 E85.26123
G1 X162.05 Y123.77 E85.28567
G1 X157.46 Y121.31 E85.61060
G1 X152.44 Y119.79 E85.93747
G1 X147.23 Y119.27 E86.26421
G1 X142.01 Y119.79 E86.59102
G1 X136.99 Y121.31 E86.91795
G1 X132.37 Y123.78 E87.24466
G1 X128.32 Y127.10 E87.57154
G0 F6000 X127.97 Y126.75
G1 F2700 X124.58 Y130.88 E87.90480
G1 X122.06 Y135.59 E88.23748
G1 X120.51 Y140.69 E88.57031
G1 X119.99 Y146.01 E88.90344
G1 X120.51 Y151.32 E89.23663
G1 X122.06 Y156.43 E89.56940
G1 X124.58 Y161.14 E89.90208
G1 X127.97 Y165.27 E90.23534
G1 X132.10 Y168.66 E90.56860
G1 X136.80 Y171.17 E90.90108
G1 X141.91 Y172.72 E91.23429
G1 X147.23 Y173.24 E91.56722
G1 X152.54 Y172.72 E91.90009
G1 X157.65 Y171.17 E92.23330
G1 X162.35 Y168.66 E92.56578
G1 X162.55 Y168.50 E92.58174
G1 X162.55 Y167.89 E92.61934
G1 X164.36 Y166.09 E92.77862
G1 X164.76 Y165.89 E92.80646
G1 X165.36 Y165.29 E92.85942
G1 X165.75 Y165.09 E92.88689
G1 X165.75 Y164.89 E92.89917
G1 X166.55 Y164.09 E92.96973
G1 X166.55 Y163.89 E92.98220
G1 X167.15 Y163.29 E93.03512
G1 X167.15 Y163.09 E93.04759
G1 X167.95 Y162.29 E93.11814
G1 X167.95 Y162.09 E93.13062
G1 X168.55 Y161.49 E93.18353
G1 X168.55 Y161.29 E93.19601
G1 X168.95 Y160.89 E93.23128
G1 X168.95 Y160.69 E93.24376
G1 X169.15 Y160.49 E93.26140
G1 X169.15 Y160.29 E93.27387
G1 X169.35 Y160.09 E93.29151
G1 X169.35 Y159.89 E93.30398
G1 X169.55 Y159.69 E93.32162
G1 X169.55 Y159.49 E93.33409
G1 X169.75 Y159.29 E93.35173
G1 X169.75 Y159.09 E93.36420
G1 X169.95 Y158.89 E93.38184
G1 X169.95 Y158.69 E93.39431
G1 X170.35 Y158.29 E93.42959
G1 X170.35 Y158.09 E93.44206
G1 X170.55 Y157.89 E93.45970
G1 X170.55 Y157.69 E93.47218
G1 X170.75 Y157.49 E93.48981
G1 X170.75 Y157.29 E93.50229
G1 X170.95 Y157.09 E93.51993
G1 X170.95 Y156.89 E93.53240
G1 X171.15 Y156.69 E93.55004
G1 X171.15 Y156.49 E93.56251
G1 X171.35 Y156.29 E93.58015
G1 X171.35 Y156.09 E93.59262
G1 X171.55 Y155.89 E93.61026
G1 X171.55 Y155.49 E93.63520
G1 X171.75 Y155.29 E93.65284
G1 X171.75 Y154.89 E93.67779
G1 X171.95 Y154.69 E93.69543
G1 X171.95 Y154.29 E93.72037
G1 X172.15 Y154.09 E93.73801
G1 X172.15 Y153.69 E93.76296
G1 X172.35 Y153.49 E93.78060
G1 X172.35 Y153.09 E93.80554
G1 X172.55 Y152.89 E93.82318
G1 X172.55 Y152.49 E93.84812
G1 X172.75 Y152.29 E93.86576
G1 X172.75 Y151.89 E93.89071
G1 X172.95 Y151.69 E93.90835
G1 X172.95 Y151.29 E93.93329
G1 X173.15 Y151.09 E93.95093
G1 X173.15 Y150.49 E93.98835
G1 X173.35 Y150.29 E94.00599
G1 X173.35 Y148.49 E94.11824
G1 X173.55 Y148.29 E94.13588
G1 X173.55 Y146.49 E94.24813
G1 X173.75 Y146.29 E94.26577
G1 X173.75 Y145.35 E94.32452
G1 X173.55 Y145.15 E94.34216
G1 X173.55 Y143.35 E94.45441
G1 X173.35 Y143.15 E94.47205
G1 X173.35 Y141.55 E94.57183
G1 X173.15 Y141.35 E94.58947
G1 X173.15 Y140.75 E94.62688
G1 X172.95 Y140.55 E94.64452
G1 X172.95 Y140.15 E94.66947
G1 X172.75 Y139.95 E94.68711
G1 X172.75 Y139.55 E94.71205
G1 X172.55 Y139.35 E94.72969
G1 X172.55 Y138.95 E94.75464
G1 X172.35 Y138.75 E94.77228
G1 X172.35 Y138.35 E94.79722
G1 X172.15 Y138.15 E94.81486
G1 X172.15 Y137.75 E94.83980
G1 X171.95 Y137.55 E94.85744
G1 X171.95 Y137.15 E94.88239
G1 X171.75 Y136.95 E94.90003
G1 X171.75 Y136.55 E94.92497
G1 X171.55 Y136.35 E94.94261
G1 X171.55 Y135.95 E94.96756
G1 X171.35 Y135.75 E94.98520
G1 X171.35 Y135.55 E94.99767
G1 X171.15 Y135.35 E95.01531
G1 X171.15 Y135.15 E95.02778
G1 X170.95 Y134.95 E95.04542
G1 X170.95 Y134.75 E95.05789
G1 X170.75 Y134.55 E95.07553
G1 X170.75 Y134.35 E95.08800
G1 X170.55 Y134.15 E95.10564
G1 X170.55 Y133.95 E95.11811
G1 X170.35 Y133.75 E95.13575
G1 X170.35 Y133.55 E95.14822
G1 X169.95 Y133.15 E95.18350
G1 X169.95 Y132.95 E95.19598
G1 X169.75 Y132.75 E95.21361
G1 X169.75 Y132.55 E95.22609
G1 X169.55 Y132.35 E95.24373
G1 X169.55 Y132.15 E95.25620
G1 X169.35 Y131.95 E95.27384
G1 X169.35 Y131.75 E95.28631
G1 X169.15 Y131.55 E95.30395
G1 X169.15 Y131.35 E95.31642
G1 X168.95 Y131.15 E95.33406
G1 X168.95 Y130.95 E95.34653
G1 X168.55 Y130.55 E95.38181
G1 X168.55 Y130.35 E95.39428
G1 X167.95 Y129.75 E95.44720
G1 X167.95 Y129.55 E95.45967
G1 X167.15 Y128.75 E95.53023
G1 X167.15 Y128.55 E95.54270
G1 X166.55 Y127.95 E95.59562
G1 X166.55 Y127.75 E95.60809
G1 X165.75 Y126.95 E95.67864
G1 X165.75 Y126.75 E95.69093
G1 X165.36 Y126.56 E95.71840
G1 X164.76 Y125.96 E95.77136
G1 X164.36 Y125.76 E95.79919
G1 X162.55 Y123.95 E95.95847
G1 X162.55 Y123.52 E95.98523
G1 X162.35 Y123.36 E96.00118
G1 X157.65 Y120.85 E96.33366
G1 X152.54 Y119.30 E96.66681
G1 X147.23 Y118.77 E96.99975
G1 X141.91 Y119.30 E97.33274
G1 X136.80 Y120.85 E97.66595
G1 X132.10 Y123.36 E97.99838
G1 X127.97 Y126.75 E98.33164
G0 F6000 X127.61 Y126.39
G1 F2700 X124.16 Y130.60 E98.67079
G1 X121.60 Y135.39 E99.00977
G1 X120.02 Y140.60 E99.34906
G1 X119.49 Y146.01 E99.68814
G1 X120.02 Y151.42 E100.02715
G1 X121.60 Y156.63 E100.36657
G1 X124.16 Y161.42 E100.70547
G1 X127.61 Y165.62 E101.04462
G1 X131.81 Y169.07 E101.38378
G1 X136.61 Y171.63 E101.72276
G1 X141.81 Y173.21 E102.06196
G1 X147.23 Y173.75 E102.40110
G1 X152.64 Y173.21 E102.74017
G1 X157.84 Y171.63 E103.07938
G1 X162.64 Y169.07 E103.41836
G1 X163.05 Y168.73 E103.45185
G1 X163.05 Y168.10 E103.49133
G1 X164.65 Y166.50 E103.63262
G1 X165.05 Y166.30 E103.66042
G1 X165.65 Y165.70 E103.71343
G1 X166.05 Y165.50 E103.74123
G1 X166.25 Y165.30 E103.75878
G1 X166.25 Y165.10 E103.77126
G1 X167.05 Y164.30 E103.84181
G1 X167.05 Y164.10 E103.85428
G1 X167.65 Y163.50 E103.90720
G1 X167.65 Y163.30 E103.91967
G1 X168.45 Y162.50 E103.99023
G1 X168.45 Y162.30 E104.00270
G1 X169.05 Y161.70 E104.05562
G1 X169.05 Y161.50 E104.06809
G1 X169.45 Y161.10 E104.10337
G1 X169.45 Y160.90 E104.11584
G1 X169.65 Y160.70 E104.13348
G1 X169.65 Y160.50 E104.14595
G1 X169.85 Y160.30 E104.16359
G1 X169.85 Y160.10 E104.17606
G1 X170.05 Y159.90 E104.19370
G1 X170.05 Y159.70 E104.20617
G1 X170.25 Y159.50 E104.22381
G1 X170.25 Y159.30 E104.23629
G1 X170.45 Y159.10 E104.25393
G1 X170.45 Y158.90 E104.26640
G1 X170.85 Y158.50 E104.30168
G1 X170.85 Y158.30 E104.31415
G1 X171.05 Y158.10 E104.33179
G1 X171.05 Y157.90 E104.34426
G1 X171.25 Y157.70 E104.36190
G1 X171.25 Y157.50 E104.37437
G1 X171.45 Y157.30 E104.39201
G1 X171.45 Y157.10 E104.40448
G1 X171.65 Y156.90 E104.42212
G1 X171.65 Y156.70 E104.43459
G1 X171.85 Y156.50 E104.45223
G1 X171.85 Y156.30 E104.46470
G1 X172.05 Y156.10 E104.48234
G1 X172.05 Y155.70 E104.50729
G1 X172.25 Y155.50 E104.52493
G1 X172.25 Y155.10 E104.54987
G1 X172.45 Y154.90 E104.56751
G1 X172.45 Y154.50 E104.59246
G1 X172.65 Y154.30 E104.61010
G1 X172.65 Y153.90 E104.63504
G1 X172.85 Y153.70 E104.65268
G1 X172.85 Y153.30 E104.67762
G1 X173.05 Y153.10 E104.69526
G1 X173.05 Y152.70 E104.72021
G1 X173.25 Y152.50 E104.73785
G1 X173.25 Y152.10 E104.76279
G1 X173.45 Y151.90 E104.78043
G1 X173.45 Y151.50 E104.80538
G1 X173.65 Y151.30 E104.82302
G1 X173.65 Y150.70 E104.86043
G1 X173.85 Y150.50 E104.87807
G1 X173.85 Y148.70 E104.99032
G1 X174.05 Y148.50 E105.00796
G1 X174.05 Y146.70 E105.12022
G1 X174.25 Y146.50 E105.13786
G1 X174.25 Y145.14 E105.22242
G1 X174.05 Y144.94 E105.24006
G1 X174.05 Y143.14 E105.35231
G1 X173.85 Y142.94 E105.36995
G1 X173.85 Y141.34 E105.46973
G1 X173.65 Y141.14 E105.48737
G1 X173.65 Y140.54 E105.52479
G1 X173.45 Y140.34 E105.54243
G1 X173.45 Y139.94 E105.56737
G1 X173.25 Y139.74 E105.58501
G1 X173.25 Y139.34 E105.60995
G1 X173.05 Y139.14 E105.62759
G1 X173.05 Y138.74 E105.65254
G1 X172.85 Y138.54 E105.67018
G1 X172.85 Y138.14 E105.69512
G1 X172.65 Y137.94 E105.71276
G1 X172.65 Y137.54 E105.73771
G1 X172.45 Y137.34 E105.75535
G1 X172.45 Y136.94 E105.78029
G1 X172.25 Y136.74 E105.79793
G1 X172.25 Y136.34 E105.82287
G1 X172.05 Y136.14 E105.84051
G1 X172.05 Y135.74 E105.86546
G1 X171.85 Y135.54 E105.88310
G1 X171.85 Y135.34 E105.89557
G1 X171.65 Y135.14 E105.91321
G1 X171.65 Y134.94 E105.92568
G1 X171.45 Y134.74 E105.94332
G1 X171.45 Y134.54 E105.95579
G1 X171.25 Y134.34 E105.97343
G1 X171.25 Y134.14 E105.98590
G1 X171.05 Y133.94 E106.00354
G1 X171.05 Y133.74 E106.01602
G1 X170.85 Y133.54 E106.03365
G1 X170.85 Y133.34 E106.04613
G1 X170.45 Y132.94 E106.08140
G1 X170.45 Y132.74 E106.09388
G1 X170.25 Y132.54 E106.11152
G1 X170.25 Y132.34 E106.12399
G1 X170.05 Y132.14 E106.14163
G1 X170.05 Y131.94 E106.15410
G1 X169.85 Y131.74 E106.17174
G1 X169.85 Y131.54 E106.18421
G1 X169.65 Y131.34 E106.20185
G1 X169.65 Y131.14 E106.21432
G1 X169.45 Y130.94 E106.23196
G1 X169.45 Y130.74 E106.24443
G1 X169.05 Y130.34 E106.27971
G1 X169.05 Y130.14 E106.29218
G1 X168.45 Y129.54 E106.34510
G1 X168.45 Y129.34 E106.35757
G1 X167.65 Y128.54 E106.42813
G1 X167.65 Y128.34 E106.44060
G1 X167.05 Y127.74 E106.49352
G1 X167.05 Y127.54 E106.50599
G1 X166.25 Y126.74 E106.57655
G1 X166.25 Y126.54 E106.58902
G1 X166.05 Y126.34 E106.60657
G1 X165.65 Y126.14 E106.63437
G1 X165.05 Y125.54 E106.68738
G1 X164.65 Y125.34 E106.71519
G1 X163.05 Y123.74 E106.85647
G1 X163.05 Y123.28 E106.88510
G1 X162.64 Y122.94 E106.91859
G1 X157.84 Y120.38 E107.25758
G1 X152.64 Y118.80 E107.59678
G1 X147.23 Y118.27 E107.93586
G1 X141.81 Y118.80 E108.27500
G1 X136.61 Y120.38 E108.61415
G1 X131.81 Y122.94 E108.95330
G1 X127.61 Y126.39 E109.29232
G0 F6000 X127.26 Y126.04
G1 F2700 X123.74 Y130.32 E109.63768
G1 X121.14 Y135.20 E109.98266
G1 X119.53 Y140.50 E110.32814
G1 X118.98 Y146.01 E110.67336
G1 X119.53 Y151.52 E111.01864
G1 X121.14 Y156.82 E111.36406
G1 X123.74 Y161.70 E111.70904
G1 X127.26 Y165.98 E112.05440
G1 X131.54 Y169.49 E112.39975
G1 X136.42 Y172.10 E112.74473
G1 X141.72 Y173.71 E113.09013
G1 X147.23 Y174.25 E113.43541
G1 X152.74 Y173.71 E113.78063
G1 X158.03 Y172.10 E114.12603
G1 X162.91 Y169.49 E114.47101
G1 X163.55 Y168.97 E114.52241
G1 X163.55 Y168.31 E114.56369
G1 X164.95 Y166.91 E114.68699
G1 X165.35 Y166.71 E114.71496
G1 X165.95 Y166.11 E114.76779
G1 X166.35 Y165.91 E114.79582
G1 X166.75 Y165.51 E114.83109
G1 X166.75 Y165.31 E114.84363
G1 X167.55 Y164.51 E114.91414
G1 X167.55 Y164.31 E114.92667
G1 X168.15 Y163.71 E114.97955
G1 X168.15 Y163.51 E114.99208
G1 X168.95 Y162.71 E115.06259
G1 X168.95 Y162.51 E115.07513
G1 X169.55 Y161.91 E115.12800
G1 X169.55 Y161.71 E115.14054
G1 X169.95 Y161.31 E115.17581
G1 X169.95 Y161.11 E115.18829
G1 X170.15 Y160.91 E115.20592
G1 X170.15 Y160.71 E115.21840
G1 X170.35 Y160.51 E115.23604
G1 X170.35 Y160.31 E115.24851
G1 X170.55 Y160.11 E115.26615
G1 X170.55 Y159.91 E115.27862
G1 X170.75 Y159.71 E115.29626
G1 X170.75 Y159.51 E115.30873
G1 X170.95 Y159.31 E115.32637
G1 X170.95 Y159.11 E115.33884
G1 X171.35 Y158.71 E115.37412
G1 X171.35 Y158.51 E115.38659
G1 X171.55 Y158.31 E115.40423
G1 X171.55 Y158.11 E115.41670
G1 X171.75 Y157.91 E115.43434
G1 X171.75 Y157.71 E115.44682
G1 X171.95 Y157.51 E115.46446
G1 X171.95 Y157.31 E115.47693
G1 X172.15 Y157.11 E115.49457
G1 X172.15 Y156.91 E115.50704
G1 X172.35 Y156.71 E115.52468
G1 X172.35 Y156.51 E115.53715
G1 X172.55 Y156.31 E115.55479
G1 X172.55 Y155.91 E115.57973
G1 X172.75 Y155.71 E115.59737
G1 X172.75 Y155.31 E115.62232
G1 X172.95 Y155.11 E115.63996
G1 X172.95 Y154.71 E115.66490
G1 X173.15 Y154.51 E115.68254
G1 X173.15 Y154.11 E115.70749
G1 X173.35 Y153.91 E115.72513
G1 X173.35 Y153.51 E115.75007
G1 X173.55 Y153.31 E115.76771
G1 X173.55 Y152.91 E115.79265
G1 X173.75 Y152.71 E115.81029
G1 X173.75 Y152.31 E115.83524
G1 X173.95 Y152.11 E115.85288
G1 X173.95 Y151.71 E115.87782
G1 X174.15 Y151.51 E115.89546
G1 X174.15 Y150.91 E115.93288
G1 X174.35 Y150.71 E115.95052
G1 X174.35 Y148.91 E116.06277
G1 X174.55 Y148.71 E116.08041
G1 X174.55 Y146.91 E116.19266
G1 X174.75 Y146.71 E116.21030
G1 X174.75 Y144.94 E116.32068
G1 X174.55 Y144.74 E116.33832
G1 X174.55 Y142.94 E116.45057
G1 X174.35 Y142.74 E116.46821
G1 X174.35 Y141.14 E116.56799
G1 X174.15 Y140.94 E116.58563
G1 X174.15 Y140.34 E116.62305
G1 X173.95 Y140.14 E116.64069
G1 X173.95 Y139.74 E116.66563
G1 X173.75 Y139.54 E116.68327
G1 X173.75 Y139.14 E116.70822
G1 X173.55 Y138.94 E116.72586
G1 X173.55 Y138.54 E116.75080
G1 X173.35 Y138.34 E116.76844
G1 X173.35 Y137.94 E116.79339
G1 X173.15 Y137.74 E116.81103
G1 X173.15 Y137.34 E116.83597
G1 X172.95 Y137.14 E116.85361
G1 X172.95 Y136.74 E116.87855
G1 X172.75 Y136.54 E116.89619
G1 X172.75 Y136.14 E116.92114
G1 X172.55 Y135.94 E116.93878
G1 X172.55 Y135.54 E116.96372
G1 X172.35 Y135.34 E116.98136
G1 X172.35 Y135.14 E116.99383
G1 X172.15 Y134.94 E117.01147
G1 X172.15 Y134.74 E117.02394
G1 X171.95 Y134.54 E117.04158
G1 X171.95 Y134.34 E117.05406
G1 X171.75 Y134.14 E117.07170
G1 X171.75 Y133.94 E117.08417
G1 X171.55 Y133.74 E117.10181
G1 X171.55 Y133.54 E117.11428
G1 X171.35 Y133.34 E117.13192
G1 X171.35 Y133.14 E117.14439
G1 X170.95 Y132.74 E117.17967
G1 X170.95 Y132.54 E117.19214
G1 X170.75 Y132.34 E117.20978
G1 X170.75 Y132.14 E117.22225
G1 X170.55 Y131.94 E117.23989
G1 X170.55 Y131.74 E117.25236
G1 X170.35 Y131.54 E117.27000
G1 X170.35 Y131.34 E117.28248
G1 X170.15 Y131.14 E117.30011
G1 X170.15 Y130.94 E117.31259
G1 X169.95 Y130.74 E117.33023
G1 X169.95 Y130.54 E117.34270
G1 X169.55 Y130.14 E117.37798
G1 X169.55 Y129.94 E117.39051
G1 X168.95 Y129.34 E117.44338
G1 X168.95 Y129.13 E117.45592
G1 X168.15 Y128.34 E117.52643
G1 X168.15 Y128.13 E117.53896
G1 X167.55 Y127.54 E117.59184
G1 X167.55 Y127.33 E117.60437
G1 X166.75 Y126.54 E117.67488
G1 X166.75 Y126.33 E117.68742
G1 X166.35 Y125.94 E117.72270
G1 X165.95 Y125.73 E117.75072
G1 X165.35 Y125.14 E117.80355
G1 X164.95 Y124.93 E117.83153
G1 X163.55 Y123.54 E117.95482
G1 X163.55 Y123.05 E117.98525
G1 X162.91 Y122.53 E118.03665
G1 X158.03 Y119.92 E118.38163
G1 X152.74 Y118.31 E118.72703
G1 X147.23 Y117.77 E119.07225
G1 X141.72 Y118.31 E119.41754
G1 X136.41 Y119.92 E119.76300
G1 X131.54 Y122.53 E120.10792
G1 X127.26 Y126.04 E120.45328
G0 F6000 X126.90 Y125.68
G1 F2700 X123.33 Y130.04 E120.80479
G1 X120.67 Y135.01 E121.15600
G1 X119.03 Y140.40 E121.50747
G1 X118.48 Y146.01 E121.85889
G1 X119.03 Y151.62 E122.21037
G1 X120.67 Y157.01 E122.56179
G1 X123.33 Y161.98 E122.91299
G1 X126.90 Y166.33 E123.26450
G1 X131.26 Y169.91 E123.61602
G1 X136.22 Y172.56 E123.96722
G1 X141.62 Y174.20 E124.31868
G1 X147.23 Y174.75 E124.67010
G1 X152.83 Y174.20 E125.02145
G1 X158.23 Y172.56 E125.37291
G1 X163.19 Y169.91 E125.72411
G1 X164.05 Y169.21 E125.79333
G1 X164.05 Y168.51 E125.83648
G1 X165.25 Y167.32 E125.94183
G1 X165.65 Y167.12 E125.96966
G1 X166.25 Y166.52 E126.02262
G1 X166.65 Y166.32 E126.05046
G1 X167.25 Y165.71 E126.10390
G1 X167.25 Y165.51 E126.11638
G1 X168.05 Y164.71 E126.18693
G1 X168.05 Y164.51 E126.19940
G1 X168.65 Y163.91 E126.25232
G1 X168.65 Y163.71 E126.26479
G1 X169.45 Y162.91 E126.33535
G1 X169.45 Y162.71 E126.34782
G1 X170.05 Y162.11 E126.40074
G1 X170.05 Y161.91 E126.41321
G1 X170.45 Y161.51 E126.44849
G1 X170.45 Y161.31 E126.46096
G1 X170.65 Y161.11 E126.47860
G1 X170.65 Y160.91 E126.49107
G1 X170.85 Y160.71 E126.50871
G1 X170.85 Y160.51 E126.52118
G1 X171.05 Y160.31 E126.53882
G1 X171.05 Y160.11 E126.55129
G1 X171.25 Y159.91 E126.56893
G1 X171.25 Y159.71 E126.58141
G1 X171.45 Y159.51 E126.59904
G1 X171.45 Y159.31 E126.61152
G1 X171.85 Y158.91 E126.64679
G1 X171.85 Y158.71 E126.65927
G1 X172.05 Y158.51 E126.67691
G1 X172.05 Y158.31 E126.68938
G1 X172.25 Y158.11 E126.70702
G1 X172.25 Y157.91 E126.71949
G1 X172.45 Y157.71 E126.73713
G1 X172.45 Y157.51 E126.74960
G1 X172.65 Y157.31 E126.76724
G1 X172.65 Y157.11 E126.77971
G1 X172.85 Y156.91 E126.79735
G1 X172.85 Y156.71 E126.80982
G1 X173.05 Y156.51 E126.82746
G1 X173.05 Y156.11 E126.85241
G1 X173.25 Y155.91 E126.87005
G1 X173.25 Y155.51 E126.89499
G1 X173.45 Y155.31 E126.91263
G1 X173.45 Y154.91 E126.93758
G1 X173.65 Y154.71 E126.95521
G1 X173.65 Y154.31 E126.98016
G1 X173.85 Y154.11 E126.99780
G1 X173.85 Y153.71 E127.02274
G1 X174.05 Y153.51 E127.04038
G1 X174.05 Y153.11 E127.06533
G1 X174.25 Y152.91 E127.08297
G1 X174.25 Y152.51 E127.10791
G1 X174.45 Y152.31 E127.12555
G1 X174.45 Y151.91 E127.15050
G1 X174.65 Y151.71 E127.16813
G1 X174.65 Y151.11 E127.20555
G1 X174.85 Y150.91 E127.22319
G1 X174.85 Y149.11 E127.33544
G1 X175.05 Y148.91 E127.35308
G1 X175.05 Y147.11 E127.46534
G1 X175.25 Y146.91 E127.48297
G1 X175.25 Y144.73 E127.61917
G1 X175.05 Y144.53 E127.63681
G1 X175.05 Y142.73 E127.74907
G1 X174.85 Y142.53 E127.76671
G1 X174.85 Y140.93 E127.86649
G1 X174.65 Y140.73 E127.88412
G1 X174.65 Y140.13 E127.92154
G1 X174.45 Y139.93 E127.93918
G1 X174.45 Y139.53 E127.96413
G1 X174.25 Y139.33 E127.98177
G1 X174.25 Y138.93 E128.00671
G1 X174.05 Y138.73 E128.02435
G1 X174.05 Y138.33 E128.04929
G1 X173.85 Y138.13 E128.06693
G1 X173.85 Y137.73 E128.09188
G1 X173.65 Y137.53 E128.10952
G1 X173.65 Y137.13 E128.13446
G1 X173.45 Y136.93 E128.15210
G1 X173.45 Y136.53 E128.17705
G1 X173.25 Y136.33 E128.19469
G1 X173.25 Y135.93 E128.21963
G1 X173.05 Y135.73 E128.23727
G1 X173.05 Y135.33 E128.26221
G1 X172.85 Y135.13 E128.27985
G1 X172.85 Y134.93 E128.29233
G1 X172.65 Y134.73 E128.30996
G1 X172.65 Y134.53 E128.32244
G1 X172.45 Y134.33 E128.34008
G1 X172.45 Y134.13 E128.35255
G1 X172.25 Y133.93 E128.37019
G1 X172.25 Y133.73 E128.38266
G1 X172.05 Y133.53 E128.40030
G1 X172.05 Y133.33 E128.41277
G1 X171.85 Y133.13 E128.43041
G1 X171.85 Y132.93 E128.44288
G1 X171.45 Y132.53 E128.47816
G1 X171.45 Y132.33 E128.49063
G1 X171.25 Y132.13 E128.50827
G1 X171.25 Y131.93 E128.52074
G1 X171.05 Y131.73 E128.53838
G1 X171.05 Y131.53 E128.55086
G1 X170.85 Y131.33 E128.56849
G1 X170.85 Y131.13 E128.58097
G1 X170.65 Y130.93 E128.59861
G1 X170.65 Y130.73 E128.61108
G1 X170.45 Y130.53 E128.62872
G1 X170.45 Y130.33 E128.64119
G1 X170.05 Y129.93 E128.67647
G1 X170.05 Y129.73 E128.68894
G1 X169.45 Y129.13 E128.74186
G1 X169.45 Y128.93 E128.75433
G1 X168.65 Y128.13 E128.82488
G1 X168.65 Y127.93 E128.83736
G1 X168.05 Y127.33 E128.89027
G1 X168.05 Y127.13 E128.90275
G1 X167.25 Y126.33 E128.97330
G1 X167.25 Y126.13 E128.98577
G1 X166.65 Y125.52 E129.03922
G1 X166.25 Y125.32 E129.06705
G1 X165.65 Y124.72 E129.12001
G1 X165.25 Y124.52 E129.14785
G1 X164.05 Y123.33 E129.25320
G1 X164.05 Y122.81 E129.28550
G1 X163.19 Y122.11 E129.35471
G1 X158.23 Y119.45 E129.70591
G1 X152.83 Y117.82 E130.05731
G1 X147.23 Y117.26 E130.40874
G1 X141.62 Y117.82 E130.76023
G1 X136.22 Y119.45 E131.11168
G1 X131.26 Y122.11 E131.46283
G1 X126.90 Y125.68 E131.81434
G0 F6000 X126.55 Y125.33
G1 F2700 X122.91 Y129.76 E132.17220
G1 X120.21 Y134.81 E132.52915
G1 X118.54 Y140.31 E132.88727
G1 X118.00 Y145.76 E133.22885
G1 X104.65 Y145.76 E134.06158
G1 X104.65 Y141.26 E134.34221
G1 X113.94 Y141.26 E134.92156
G1 X114.12 Y139.42 E135.03649
G1 X116.00 Y133.21 E135.44125
G1 X116.04 Y133.09 E135.44926
G1 X119.10 Y127.37 E135.85389
G1 X119.16 Y127.25 E135.86190
G1 X123.28 Y122.24 E136.26659
G1 X123.36 Y122.14 E136.27461
G1 X128.37 Y118.03 E136.67908
G1 X128.47 Y117.94 E136.68692
G1 X134.19 Y114.89 E137.09169
G1 X134.31 Y114.82 E137.09964
G1 X140.52 Y112.94 E137.50439
G1 X140.64 Y112.90 E137.51228
G1 X147.10 Y112.27 E137.91703
G1 X147.22 Y112.25 E137.92475
G1 X153.69 Y112.89 E138.32994
G1 X153.81 Y112.91 E138.33791
G1 X160.02 Y114.79 E138.74239
G1 X160.14 Y114.82 E138.75040
G1 X165.87 Y117.88 E139.15507
G1 X165.98 Y117.94 E139.16307
G1 X169.55 Y120.87 E139.45079
G1 X170.70 Y120.87 E139.52288
G1 X172.95 Y123.12 E139.72123
G1 X172.95 Y123.32 E139.73376
G1 X173.95 Y124.32 E139.82191
G1 X173.95 Y124.52 E139.83445
G1 X174.95 Y125.52 E139.92260
G1 X174.95 Y125.72 E139.93513
G1 X175.95 Y126.72 E140.02328
G1 X175.95 Y126.92 E140.03582
G1 X176.35 Y127.32 E140.07105
G1 X176.35 Y127.52 E140.08353
G1 X176.55 Y127.72 E140.10116
G1 X176.55 Y127.92 E140.11364
G1 X176.75 Y128.12 E140.13128
G1 X176.75 Y128.32 E140.14375
G1 X176.95 Y128.52 E140.16139
G1 X176.95 Y128.72 E140.17386
G1 X177.15 Y128.92 E140.19150
G1 X177.15 Y129.12 E140.20397
G1 X177.35 Y129.32 E140.22161
G1 X177.35 Y129.52 E140.23414
G1 X177.75 Y129.92 E140.26938
G1 X177.75 Y130.12 E140.28185
G1 X177.95 Y130.32 E140.29949
G1 X177.95 Y130.52 E140.31196
G1 X178.15 Y130.72 E140.32960
G1 X178.15 Y130.92 E140.34207
G1 X178.35 Y131.12 E140.35971
G1 X178.35 Y131.32 E140.37218
G1 X178.55 Y131.52 E140.38982
G1 X178.55 Y131.72 E140.40230
G1 X178.75 Y131.92 E140.41994
G1 X178.75 Y132.12 E140.43241
G1 X178.95 Y132.32 E140.45005
G1 X178.95 Y132.52 E140.46252
G1 X179.15 Y132.72 E140.48016
G1 X179.15 Y133.12 E140.50510
G1 X179.35 Y133.32 E140.52274
G1 X179.35 Y133.72 E140.54769
G1 X179.55 Y133.92 E140.56533
G1 X179.55 Y134.52 E140.60274
G1 X179.75 Y134.72 E140.62038
G1 X179.75 Y135.12 E140.64533
G1 X179.95 Y135.32 E140.66297
G1 X179.95 Y135.92 E140.70038
G1 X180.15 Y136.12 E140.71802
G1 X180.15 Y136.52 E140.74297
G1 X180.35 Y136.72 E140.76061
G1 X180.35 Y137.32 E140.79802
G1 X180.55 Y137.52 E140.81566
G1 X180.55 Y137.92 E140.84061
G1 X180.75 Y138.12 E140.85825
G1 X180.75 Y138.72 E140.89566
G1 X180.95 Y138.92 E140.91330
G1 X180.95 Y140.32 E141.00061
G1 X181.15 Y140.52 E141.01825
G1 X181.15 Y141.92 E141.10556
G1 X181.35 Y142.12 E141.12320
G1 X181.35 Y143.52 E141.21050
G1 X181.55 Y143.72 E141.22814
G1 X181.55 Y148.12 E141.50266
G1 X181.35 Y148.32 E141.52030
G1 X181.35 Y149.72 E141.60761
G1 X181.15 Y149.92 E141.62525
G1 X181.15 Y151.32 E141.71256
G1 X180.95 Y151.52 E141.73020
G1 X180.95 Y152.92 E141.81750
G1 X180.75 Y153.12 E141.83514
G1 X180.75 Y153.72 E141.87256
G1 X180.55 Y153.92 E141.89020
G1 X180.55 Y154.32 E141.91515
G1 X180.35 Y154.52 E141.93278
G1 X180.35 Y155.12 E141.97020
G1 X180.15 Y155.32 E141.98784
G1 X180.15 Y155.72 E142.01279
G1 X179.95 Y155.92 E142.03042
G1 X179.95 Y156.52 E142.06784
G1 X179.75 Y156.72 E142.08548
G1 X179.75 Y157.12 E142.11043
G1 X179.55 Y157.32 E142.12806
G1 X179.55 Y157.92 E142.16548
G1 X179.35 Y158.12 E142.18312
G1 X179.35 Y158.52 E142.20807
G1 X179.15 Y158.72 E142.22571
G1 X179.15 Y159.12 E142.25065
G1 X178.95 Y159.32 E142.26829
G1 X178.95 Y159.52 E142.28076
G1 X178.75 Y159.72 E142.29840
G1 X178.75 Y159.92 E142.31087
G1 X178.55 Y160.12 E142.32851
G1 X178.55 Y160.32 E142.34098
G1 X178.35 Y160.52 E142.35862
G1 X178.35 Y160.72 E142.37110
G1 X178.15 Y160.92 E142.38873
G1 X178.15 Y161.12 E142.40121
G1 X177.95 Y161.32 E142.41885
G1 X177.95 Y161.52 E142.43132
G1 X177.75 Y161.72 E142.44896
G1 X177.75 Y161.92 E142.46143
G1 X177.35 Y162.32 E142.49666
G1 X177.35 Y162.52 E142.50920
G1 X177.15 Y162.72 E142.52684
G1 X177.15 Y162.92 E142.53931
G1 X176.95 Y163.12 E142.55695
G1 X176.95 Y163.32 E142.56942
G1 X176.75 Y163.52 E142.58706
G1 X176.75 Y163.72 E142.59953
G1 X176.55 Y163.92 E142.61717
G1 X176.55 Y164.12 E142.62964
G1 X176.35 Y164.32 E142.64728
G1 X176.35 Y164.52 E142.65976
G1 X175.95 Y164.92 E142.69499
G1 X175.95 Y165.12 E142.70752
G1 X174.95 Y166.12 E142.79567
G1 X174.95 Y166.32 E142.80821
G1 X173.95 Y167.32 E142.89636
G1 X173.95 Y167.52 E142.90889
G1 X172.95 Y168.52 E142.99704
G1 X172.95 Y168.72 E143.00958
G1 X170.70 Y170.97 E143.20793
G1 X169.76 Y170.97 E143.26680
G1 X166.08 Y173.99 E143.56373
G1 X165.98 Y174.07 E143.57157
G1 X160.26 Y177.13 E143.97634
G1 X160.14 Y177.19 E143.98429
G1 X153.93 Y179.07 E144.38904
G1 X153.81 Y179.11 E144.39693
G1 X153.15 Y179.18 E144.43835
G1 X153.15 Y192.17 E145.24869
G1 X140.95 Y192.17 E146.00952
G1 X140.95 Y179.14 E146.82198
G1 X140.64 Y179.11 E146.84147
G1 X134.31 Y177.19 E147.25404
G1 X128.59 Y174.13 E147.65882
G1 X128.47 Y174.07 E147.66682
G1 X123.46 Y169.96 E148.07147
G1 X123.36 Y169.87 E148.07949
G1 X119.24 Y164.86 E148.48396
G1 X119.16 Y164.76 E148.49180
G1 X116.10 Y159.04 E148.89657
G1 X116.04 Y158.93 E148.90452
G1 X114.16 Y152.72 E149.30923
G1 X114.12 Y152.59 E149.31712
G1 X113.94 Y150.76 E149.43223
G1 X104.65 Y150.76 E150.01158
G1 X104.65 Y146.26 E150.29221
G1 X118.00 Y146.26 E151.12494
G1 X118.54 Y151.71 E151.46658
G1 X120.21 Y157.20 E151.82464
G1 X122.91 Y162.25 E152.18159
G1 X126.55 Y166.69 E152.53945
G1 X130.98 Y170.33 E152.89730
G1 X136.03 Y173.03 E153.25425
G1 X141.52 Y174.69 E153.61230
G1 X147.23 Y175.25 E153.96960
G1 X152.93 Y174.69 E154.32685
G1 X158.42 Y173.03 E154.68490
G1 X163.47 Y170.33 E155.04185
G1 X164.55 Y169.44 E155.12914
G1 X164.55 Y168.72 E155.17404
G1 X165.54 Y167.73 E155.26140
G1 X165.94 Y167.53 E155.28937
G1 X166.54 Y166.93 E155.34220
G1 X166.94 Y166.73 E155.37017
G1 X167.75 Y165.92 E155.44143
G1 X167.75 Y165.72 E155.45397
G1 X168.55 Y164.92 E155.52448
G1 X168.55 Y164.72 E155.53701
G1 X169.15 Y164.12 E155.58989
G1 X169.15 Y163.92 E155.60242
G1 X169.95 Y163.12 E155.67293
G1 X169.95 Y162.92 E155.68547
G1 X170.55 Y162.32 E155.73834
G1 X170.55 Y162.12 E155.75087
G1 X170.95 Y161.72 E155.78611
G1 X170.95 Y161.52 E155.79864
G1 X171.15 Y161.32 E155.81628
G1 X171.15 Y161.12 E155.82875
G1 X171.35 Y160.92 E155.84639
G1 X171.35 Y160.72 E155.85887
G1 X171.55 Y160.52 E155.87650
G1 X171.55 Y160.32 E155.88898
G1 X171.75 Y160.12 E155.90662
G1 X171.75 Y159.92 E155.91909
G1 X171.95 Y159.72 E155.93673
G1 X171.95 Y159.52 E155.94920
G1 X172.35 Y159.12 E155.98443
G1 X172.35 Y158.92 E155.99697
G1 X172.55 Y158.72 E156.01461
G1 X172.55 Y158.52 E156.02708
G1 X172.75 Y158.32 E156.04472
G1 X172.75 Y158.12 E156.05719
G1 X172.95 Y157.92 E156.07483
G1 X172.95 Y157.72 E156.08730
G1 X173.15 Y157.52 E156.10494
G1 X173.15 Y157.32 E156.11741
G1 X173.35 Y157.12 E156.13505
G1 X173.35 Y156.92 E156.14753
G1 X173.55 Y156.72 E156.16516
G1 X173.55 Y156.32 E156.19011
G1 X173.75 Y156.12 E156.20775
G1 X173.75 Y155.72 E156.23269
G1 X173.95 Y155.52 E156.25033
G1 X173.95 Y155.12 E156.27528
G1 X174.15 Y154.92 E156.29292
G1 X174.15 Y154.52 E156.31786
G1 X174.35 Y154.32 E156.33550
G1 X174.35 Y153.92 E156.36045
G1 X174.55 Y153.72 E156.37808
G1 X174.55 Y153.32 E156.40303
G1 X174.75 Y153.12 E156.42067
G1 X174.75 Y152.72 E156.44561
G1 X174.95 Y152.52 E156.46325
G1 X174.95 Y152.12 E156.48820
G1 X175.15 Y151.92 E156.50584
G1 X175.15 Y151.32 E156.54325
G1 X175.35 Y151.12 E156.56089
G1 X175.35 Y149.32 E156.67315
G1 X175.55 Y149.12 E156.69078
G1 X175.55 Y147.32 E156.80304
G1 X175.75 Y147.12 E156.82068
G1 X175.75 Y144.52 E156.98269
G1 X175.55 Y144.32 E157.00033
G1 X175.55 Y142.52 E157.11259
G1 X175.35 Y142.32 E157.13023
G1 X175.35 Y140.72 E157.23001
G1 X175.15 Y140.52 E157.24764
G1 X175.15 Y139.92 E157.28506
G1 X174.95 Y139.72 E157.30270
G1 X174.95 Y139.32 E157.32765
G1 X174.75 Y139.12 E157.34528
G1 X174.75 Y138.72 E157.37023
G1 X174.55 Y138.52 E157.38787
G1 X174.55 Y138.12 E157.41281
G1 X174.35 Y137.92 E157.43045
G1 X174.35 Y137.52 E157.45540
G1 X174.15 Y137.32 E157.47304
G1 X174.15 Y136.92 E157.49798
G1 X173.95 Y136.72 E157.51562
G1 X173.95 Y136.32 E157.54057
G1 X173.75 Y136.12 E157.55820
G1 X173.75 Y135.72 E157.58315
G1 X173.55 Y135.52 E157.60079
G1 X173.55 Y135.12 E157.62573
G1 X173.35 Y134.92 E157.64337
G1 X173.35 Y134.72 E157.65584
G1 X173.15 Y134.52 E157.67348
G1 X173.15 Y134.32 E157.68596
G1 X172.95 Y134.12 E157.70360
G1 X172.95 Y133.92 E157.71607
G1 X172.75 Y133.72 E157.73371
G1 X172.75 Y133.52 E157.74618
G1 X172.55 Y133.32 E157.76382
G1 X172.55 Y133.12 E157.77629
G1 X172.35 Y132.92 E157.79393
G1 X172.35 Y132.72 E157.80646
G1 X171.95 Y132.32 E157.84170
G1 X171.95 Y132.12 E157.85417
G1 X171.75 Y131.92 E157.87181
G1 X171.75 Y131.72 E157.88428
G1 X171.55 Y131.52 E157.90192
G1 X171.55 Y131.32 E157.91439
G1 X171.35 Y131.12 E157.93203
G1 X171.35 Y130.92 E157.94450
G1 X171.15 Y130.72 E157.96214
G1 X171.15 Y130.52 E157.97462
G1 X170.95 Y130.32 E157.99225
G1 X170.95 Y130.12 E158.00479
G1 X170.55 Y129.72 E158.04002
G1 X170.55 Y129.52 E158.05256
G1 X169.95 Y128.92 E158.10543
G1 X169.95 Y128.72 E158.11797
G1 X169.15 Y127.92 E158.18848
G1 X169.15 Y127.72 E158.20101
G1 X168.55 Y127.12 E158.25388
G1 X168.55 Y126.92 E158.26642
G1 X167.75 Y126.12 E158.33693
G1 X167.75 Y125.92 E158.34947
G1 X166.94 Y125.11 E158.42073
G1 X166.54 Y124.91 E158.44870
G1 X165.94 Y124.31 E158.50153
G1 X165.54 Y124.11 E158.52950
G1 X164.55 Y123.12 E158.61686
G1 X164.55 Y122.58 E158.65091
G1 X163.47 Y121.69 E158.73820
G1 X158.42 Y118.99 E159.09515
G1 X152.93 Y117.32 E159.45319
G1 X147.23 Y116.76 E159.81045
G1 X141.52 Y117.32 E160.16776
G1 X136.03 Y118.99 E160.52573
G1 X130.98 Y121.69 E160.88290
G1 X126.55 Y125.33 E161.24062
G0 F6000 X126.19 Y124.97
G1 F2700 X122.49 Y129.48 E161.60441
G1 X119.74 Y134.62 E161.96794
G1 X118.05 Y140.20 E162.33159
G1 X117.55 Y145.26 E162.64836
G1 X105.15 Y145.26 E163.42166
G1 X105.15 Y141.76 E163.63993
G1 X114.39 Y141.76 E164.21629
G1 X114.61 Y139.52 E164.35641
G1 X116.48 Y133.36 E164.75804
G1 X116.51 Y133.28 E164.76299
G1 X119.54 Y127.61 E165.16449
G1 X119.58 Y127.53 E165.16946
G1 X123.66 Y122.56 E165.57101
G1 X123.71 Y122.50 E165.57597
G1 X128.69 Y118.41 E165.97747
G1 X128.75 Y118.36 E165.98239
G1 X134.43 Y115.33 E166.38392
G1 X134.50 Y115.29 E166.38889
G1 X140.66 Y113.42 E166.79044
G1 X140.74 Y113.40 E166.79539
G1 X147.15 Y112.77 E167.19701
G1 X147.15 Y112.77 E167.19707
G1 X147.22 Y112.76 E167.20191
G1 X153.63 Y113.39 E167.60365
G1 X153.71 Y113.40 E167.60854
G1 X159.88 Y115.27 E168.01009
G1 X159.95 Y115.29 E168.01504
G1 X165.63 Y118.32 E168.41658
G1 X165.70 Y118.36 E168.42155
G1 X169.37 Y121.37 E168.71741
G1 X170.50 Y121.37 E168.78776
G1 X172.45 Y123.33 E168.96027
G1 X172.45 Y123.53 E168.97274
G1 X173.45 Y124.53 E169.06093
G1 X173.45 Y124.73 E169.07341
G1 X174.45 Y125.73 E169.16160
G1 X174.45 Y125.93 E169.17407
G1 X175.45 Y126.93 E169.26227
G1 X175.45 Y127.13 E169.27474
G1 X175.85 Y127.53 E169.31002
G1 X175.85 Y127.73 E169.32249
G1 X176.05 Y127.93 E169.34013
G1 X176.05 Y128.13 E169.35260
G1 X176.25 Y128.33 E169.37024
G1 X176.25 Y128.53 E169.38271
G1 X176.45 Y128.73 E169.40035
G1 X176.45 Y128.93 E169.41282
G1 X176.65 Y129.13 E169.43046
G1 X176.65 Y129.33 E169.44294
G1 X176.85 Y129.53 E169.46058
G1 X176.85 Y129.73 E169.47305
G1 X177.25 Y130.13 E169.50833
G1 X177.25 Y130.33 E169.52080
G1 X177.45 Y130.53 E169.53844
G1 X177.45 Y130.73 E169.55091
G1 X177.65 Y130.93 E169.56855
G1 X177.65 Y131.13 E169.58102
G1 X177.85 Y131.33 E169.59866
G1 X177.85 Y131.53 E169.61113
G1 X178.05 Y131.73 E169.62877
G1 X178.05 Y131.93 E169.64124
G1 X178.25 Y132.13 E169.65888
G1 X178.25 Y132.33 E169.67135
G1 X178.45 Y132.53 E169.68899
G1 X178.45 Y132.73 E169.70147
G1 X178.65 Y132.93 E169.71911
G1 X178.65 Y133.33 E169.74405
G1 X178.85 Y133.53 E169.76169
G1 X178.85 Y133.93 E169.78663
G1 X179.05 Y134.13 E169.80427
G1 X179.05 Y134.73 E169.84169
G1 X179.25 Y134.93 E169.85933
G1 X179.25 Y135.33 E169.88427
G1 X179.45 Y135.53 E169.90191
G1 X179.45 Y136.13 E169.93933
G1 X179.65 Y136.33 E169.95697
G1 X179.65 Y136.73 E169.98192
G1 X179.85 Y136.93 E169.99955
G1 X179.85 Y137.53 E170.03697
G1 X180.05 Y137.73 E170.05461
G1 X180.05 Y138.13 E170.07956
G1 X180.25 Y138.33 E170.09719
G1 X180.25 Y138.93 E170.13461
G1 X180.45 Y139.13 E170.15225
G1 X180.45 Y140.53 E170.23956
G1 X180.65 Y140.73 E170.25720
G1 X180.65 Y142.13 E170.34451
G1 X180.85 Y142.33 E170.36214
G1 X180.85 Y143.73 E170.44945
G1 X181.05 Y143.93 E170.46709
G1 X181.05 Y147.91 E170.71579
G1 X180.85 Y148.12 E170.73343
G1 X180.85 Y149.51 E170.82074
G1 X180.65 Y149.72 E170.83838
G1 X180.65 Y151.12 E170.92569
G1 X180.45 Y151.31 E170.94333
G1 X180.45 Y152.72 E171.03063
G1 X180.25 Y152.91 E171.04827
G1 X180.25 Y153.51 E171.08569
G1 X180.05 Y153.72 E171.10333
G1 X180.05 Y154.12 E171.12827
G1 X179.85 Y154.31 E171.14591
G1 X179.85 Y154.91 E171.18333
G1 X179.65 Y155.12 E171.20097
G1 X179.65 Y155.51 E171.22591
G1 X179.45 Y155.72 E171.24355
G1 X179.45 Y156.31 E171.28097
G1 X179.25 Y156.51 E171.29861
G1 X179.25 Y156.91 E171.32356
G1 X179.05 Y157.12 E171.34119
G1 X179.05 Y157.72 E171.37861
G1 X178.85 Y157.91 E171.39625
G1 X178.85 Y158.31 E171.42120
G1 X178.65 Y158.51 E171.43883
G1 X178.65 Y158.91 E171.46378
G1 X178.45 Y159.12 E171.48142
G1 X178.45 Y159.31 E171.49389
G1 X178.25 Y159.51 E171.51153
G1 X178.25 Y159.72 E171.52400
G1 X178.05 Y159.91 E171.54164
G1 X178.05 Y160.12 E171.55411
G1 X177.85 Y160.31 E171.57175
G1 X177.85 Y160.51 E171.58423
G1 X177.65 Y160.72 E171.60186
G1 X177.65 Y160.91 E171.61434
G1 X177.45 Y161.12 E171.63198
G1 X177.45 Y161.31 E171.64445
G1 X177.25 Y161.51 E171.66209
G1 X177.25 Y161.72 E171.67456
G1 X176.85 Y162.12 E171.70984
G1 X176.85 Y162.31 E171.72231
G1 X176.65 Y162.51 E171.73995
G1 X176.65 Y162.72 E171.75242
G1 X176.45 Y162.91 E171.77006
G1 X176.45 Y163.12 E171.78253
G1 X176.25 Y163.31 E171.80017
G1 X176.25 Y163.51 E171.81264
G1 X176.05 Y163.72 E171.83028
G1 X176.05 Y163.91 E171.84276
G1 X175.85 Y164.12 E171.86039
G1 X175.85 Y164.31 E171.87287
G1 X175.45 Y164.72 E171.90814
G1 X175.45 Y164.91 E171.92062
G1 X174.45 Y165.91 E172.00881
G1 X174.45 Y166.12 E172.02128
G1 X173.45 Y167.12 E172.10948
G1 X173.45 Y167.31 E172.12195
G1 X172.45 Y168.31 E172.21014
G1 X172.45 Y168.51 E172.22262
G1 X170.50 Y170.47 E172.39513
G1 X169.58 Y170.47 E172.45231
G1 X165.76 Y173.60 E172.76032
G1 X165.70 Y173.65 E172.76523
G1 X160.02 Y176.69 E173.16677
G1 X159.95 Y176.73 E173.17174
G1 X153.79 Y178.60 E173.57329
G1 X153.71 Y178.62 E173.57824
G1 X152.65 Y178.72 E173.64479
G1 X152.65 Y191.67 E174.45220
G1 X141.45 Y191.67 E175.15066
G1 X141.45 Y178.69 E175.96026
G1 X140.74 Y178.62 E176.00487
G1 X134.50 Y176.73 E176.41137
G1 X128.82 Y173.69 E176.81296
G1 X128.75 Y173.65 E176.81793
G1 X123.78 Y169.57 E177.21943
G1 X123.71 Y169.52 E177.22439
G1 X119.63 Y164.54 E177.62589
G1 X119.58 Y164.48 E177.63081
G1 X116.54 Y158.80 E178.03234
G1 X116.51 Y158.73 E178.03731
G1 X114.61 Y152.50 E178.44383
G1 X114.39 Y150.26 E178.58401
G1 X105.15 Y150.26 E179.16037
G1 X105.15 Y146.76 E179.37864
G1 X117.55 Y146.76 E180.15194
G1 X118.05 Y151.81 E180.46877
G1 X119.74 Y157.39 E180.83236
G1 X122.49 Y162.53 E181.19589
G1 X126.19 Y167.04 E181.55968
G1 X130.70 Y170.74 E181.92347
G1 X135.84 Y173.49 E182.28700
G1 X141.42 Y175.18 E182.65063
G1 X147.23 Y175.76 E183.01440
G1 X153.03 Y175.18 E183.37811
G1 X158.61 Y173.49 E183.74174
G1 X163.75 Y170.74 E184.10527
G1 X165.05 Y169.68 E184.21016
G1 X165.05 Y168.93 E184.25693
G1 X165.84 Y168.14 E184.32629
G1 X166.24 Y167.94 E184.35421
G1 X166.84 Y167.34 E184.40708
G1 X167.24 Y167.14 E184.43500
G1 X168.25 Y166.13 E184.52434
G1 X168.25 Y165.93 E184.53681
G1 X169.05 Y165.13 E184.60737
G1 X169.05 Y164.93 E184.61984
G1 X169.65 Y164.33 E184.67276
G1 X169.65 Y164.13 E184.68523
G1 X170.45 Y163.33 E184.75578
G1 X170.45 Y163.13 E184.76826
G1 X171.05 Y162.53 E184.82117
G1 X171.05 Y162.33 E184.83365
G1 X171.45 Y161.93 E184.86892
G1 X171.45 Y161.73 E184.88140
G1 X171.65 Y161.53 E184.89904
G1 X171.65 Y161.33 E184.91151
G1 X171.85 Y161.13 E184.92915
G1 X171.85 Y160.93 E184.94162
G1 X172.05 Y160.73 E184.95926
G1 X172.05 Y160.53 E184.97173
G1 X172.25 Y160.33 E184.98937
G1 X172.25 Y160.13 E185.00184
G1 X172.45 Y159.93 E185.01948
G1 X172.45 Y159.73 E185.03195
G1 X172.85 Y159.33 E185.06723
G1 X172.85 Y159.13 E185.07970
G1 X173.05 Y158.93 E185.09734
G1 X173.05 Y158.73 E185.10982
G1 X173.25 Y158.53 E185.12745
G1 X173.25 Y158.33 E185.13993
G1 X173.45 Y158.13 E185.15757
G1 X173.45 Y157.93 E185.17004
G1 X173.65 Y157.73 E185.18768
G1 X173.65 Y157.53 E185.20015
G1 X173.85 Y157.33 E185.21779
G1 X173.85 Y157.13 E185.23026
G1 X174.05 Y156.93 E185.24790
G1 X174.05 Y156.53 E185.27285
G1 X174.25 Y156.33 E185.29048
G1 X174.25 Y155.93 E185.31543
G1 X174.45 Y155.73 E185.33307
G1 X174.45 Y155.33 E185.35801
G1 X174.65 Y155.13 E185.37565
G1 X174.65 Y154.73 E185.40060
G1 X174.85 Y154.53 E185.41824
G1 X174.85 Y154.13 E185.44318
G1 X175.05 Y153.93 E185.46082
G1 X175.05 Y153.53 E185.48576
G1 X175.25 Y153.33 E185.50340
G1 X175.25 Y152.93 E185.52835
G1 X175.45 Y152.73 E185.54599
G1 X175.45 Y152.33 E185.57093
G1 X175.65 Y152.13 E185.58857
G1 X175.65 Y151.53 E185.62599
G1 X175.85 Y151.33 E185.64363
G1 X175.85 Y149.53 E185.75588
G1 X176.05 Y149.33 E185.77352
G1 X176.05 Y147.53 E185.88577
G1 X176.25 Y147.33 E185.90341
G1 X176.25 Y144.31 E186.09125
G1 X176.05 Y144.12 E186.10889
G1 X176.05 Y142.31 E186.22114
G1 X175.85 Y142.12 E186.23878
G1 X175.85 Y140.51 E186.33856
G1 X175.65 Y140.31 E186.35620
G1 X175.65 Y139.72 E186.39362
G1 X175.45 Y139.51 E186.41125
G1 X175.45 Y139.12 E186.43620
G1 X175.25 Y138.91 E186.45384
G1 X175.25 Y138.51 E186.47878
G1 X175.05 Y138.31 E186.49642
G1 X175.05 Y137.91 E186.52137
G1 X174.85 Y137.72 E186.53901
G1 X174.85 Y137.31 E186.56395
G1 X174.65 Y137.12 E186.58159
G1 X174.65 Y136.72 E186.60654
G1 X174.45 Y136.51 E186.62417
G1 X174.45 Y136.12 E186.64912
G1 X174.25 Y135.91 E186.66676
G1 X174.25 Y135.51 E186.69170
G1 X174.05 Y135.31 E186.70934
G1 X174.05 Y134.91 E186.73429
G1 X173.85 Y134.72 E186.75193
G1 X173.85 Y134.51 E186.76440
G1 X173.65 Y134.31 E186.78204
G1 X173.65 Y134.12 E186.79451
G1 X173.45 Y133.91 E186.81215
G1 X173.45 Y133.72 E186.82462
G1 X173.25 Y133.51 E186.84226
G1 X173.25 Y133.31 E186.85473
G1 X173.05 Y133.12 E186.87237
G1 X173.05 Y132.91 E186.88484
G1 X172.85 Y132.72 E186.90248
G1 X172.85 Y132.51 E186.91496
G1 X172.45 Y132.12 E186.95023
G1 X172.45 Y131.91 E186.96271
G1 X172.25 Y131.72 E186.98035
G1 X172.25 Y131.51 E186.99282
G1 X172.05 Y131.31 E187.01046
G1 X172.05 Y131.12 E187.02293
G1 X171.85 Y130.91 E187.04057
G1 X171.85 Y130.72 E187.05304
G1 X171.65 Y130.51 E187.07068
G1 X171.65 Y130.31 E187.08315
G1 X171.45 Y130.12 E187.10079
G1 X171.45 Y129.91 E187.11326
G1 X171.05 Y129.51 E187.14854
G1 X171.05 Y129.31 E187.16101
G1 X170.45 Y128.72 E187.21393
G1 X170.45 Y128.51 E187.22640
G1 X169.65 Y127.72 E187.29696
G1 X169.65 Y127.52 E187.30943
G1 X169.05 Y126.92 E187.36235
G1 X169.05 Y126.72 E187.37482
G1 X168.25 Y125.92 E187.44537
G1 X168.25 Y125.72 E187.45785
G1 X167.24 Y124.70 E187.54719
G1 X166.84 Y124.50 E187.57511
G1 X166.24 Y123.90 E187.62798
G1 X165.84 Y123.70 E187.65590
G1 X165.05 Y122.92 E187.72526
G1 X165.05 Y122.34 E187.76118
G1 X163.75 Y121.27 E187.86606
G1 X158.61 Y118.52 E188.22960
G1 X153.03 Y116.83 E188.59317
G1 X147.23 Y116.26 E188.95694
G1 X141.42 Y116.83 E189.32078
G1 X135.84 Y118.52 E189.68441
G1 X130.70 Y121.27 E190.04789
G1 X126.19 Y124.97 E190.41168
G0 F6000 X122.89 Y121.92
G1 F2700 X123.01 Y121.78 E190.42274
G1 X128.06 Y117.64 E190.83014
G1 X128.19 Y117.53 E190.84094
G1 X133.96 Y114.44 E191.24895
G1 X134.11 Y114.36 E191.25980
G1 X140.37 Y112.46 E191.66743
G1 X140.54 Y112.41 E191.67865
G1 X147.05 Y111.77 E192.08653
G1 X147.22 Y111.75 E192.09714
G1 X153.74 Y112.39 E192.50578
G1 X153.91 Y112.41 E192.51682
G1 X160.17 Y114.31 E192.92424
G1 X160.34 Y114.36 E192.93533
G1 X166.10 Y117.44 E193.34306
G1 X166.26 Y117.53 E193.35414
G1 X169.72 Y120.37 E193.63365
G1 X170.91 Y120.37 E193.70755
G1 X173.45 Y122.91 E193.93174
G1 X173.45 Y123.11 E193.94421
G1 X174.45 Y124.11 E194.03241
G1 X174.45 Y124.31 E194.04488
G1 X175.45 Y125.31 E194.13307
G1 X175.45 Y125.51 E194.14555
G1 X176.45 Y126.51 E194.23374
G1 X176.45 Y126.71 E194.24621
G1 X176.85 Y127.11 E194.28149
G1 X176.85 Y127.31 E194.29396
G1 X177.05 Y127.51 E194.31160
G1 X177.05 Y127.71 E194.32408
G1 X177.25 Y127.91 E194.34171
G1 X177.25 Y128.11 E194.35419
G1 X177.45 Y128.31 E194.37183
G1 X177.45 Y128.51 E194.38430
G1 X177.65 Y128.71 E194.40194
G1 X177.65 Y128.91 E194.41441
G1 X177.85 Y129.11 E194.43205
G1 X177.85 Y129.31 E194.44452
G1 X178.25 Y129.71 E194.47980
G1 X178.25 Y129.91 E194.49227
G1 X178.45 Y130.11 E194.50991
G1 X178.45 Y130.31 E194.52238
G1 X178.65 Y130.51 E194.54002
G1 X178.65 Y130.71 E194.55249
G1 X178.85 Y130.91 E194.57013
G1 X178.85 Y131.11 E194.58261
G1 X179.05 Y131.31 E194.60024
G1 X179.05 Y131.51 E194.61272
G1 X179.25 Y131.71 E194.63036
G1 X179.25 Y131.91 E194.64283
G1 X179.45 Y132.11 E194.66047
G1 X179.45 Y132.31 E194.67294
G1 X179.65 Y132.51 E194.69058
G1 X179.65 Y132.91 E194.71552
G1 X179.85 Y133.11 E194.73316
G1 X179.85 Y133.51 E194.75811
G1 X180.05 Y133.71 E194.77575
G1 X180.05 Y134.31 E194.81316
G1 X180.25 Y134.51 E194.83080
G1 X180.25 Y134.91 E194.85575
G1 X180.45 Y135.11 E194.87339
G1 X180.45 Y135.71 E194.91080
G1 X180.65 Y135.91 E194.92844
G1 X180.65 Y136.31 E194.95339
G1 X180.85 Y136.51 E194.97103
G1 X180.85 Y137.11 E195.00845
G1 X181.05 Y137.31 E195.02608
G1 X181.05 Y137.71 E195.05103
G1 X181.25 Y137.91 E195.06867
G1 X181.25 Y138.51 E195.10609
G1 X181.45 Y138.71 E195.12372
G1 X181.45 Y140.11 E195.21103
G1 X181.65 Y140.31 E195.22867
G1 X181.65 Y141.71 E195.31598
G1 X181.85 Y141.91 E195.33362
G1 X181.85 Y143.31 E195.42093
G1 X182.05 Y143.51 E195.43856
G1 X182.05 Y148.33 E195.73890
G1 X181.85 Y148.53 E195.75654
G1 X181.85 Y149.93 E195.84385
G1 X181.65 Y150.13 E195.86149
G1 X181.65 Y151.53 E195.94880
G1 X181.45 Y151.73 E195.96644
G1 X181.45 Y153.13 E196.05374
G1 X181.25 Y153.33 E196.07138
G1 X181.25 Y153.93 E196.10880
G1 X181.05 Y154.13 E196.12644
G1 X181.05 Y154.53 E196.15138
G1 X180.85 Y154.73 E196.16902
G1 X180.85 Y155.33 E196.20644
G1 X180.65 Y155.53 E196.22408
G1 X180.65 Y155.93 E196.24902
G1 X180.45 Y156.13 E196.26666
G1 X180.45 Y156.73 E196.30408
G1 X180.25 Y156.93 E196.32172
G1 X180.25 Y157.33 E196.34667
G1 X180.05 Y157.53 E196.36430
G1 X180.05 Y158.13 E196.40172
G1 X179.85 Y158.33 E196.41936
G1 X179.85 Y158.73 E196.44431
G1 X179.65 Y158.93 E196.46194
G1 X179.65 Y159.33 E196.48689
G1 X179.45 Y159.53 E196.50453
G1 X179.45 Y159.73 E196.51700
G1 X179.25 Y159.93 E196.53464
G1 X179.25 Y160.13 E196.54711
G1 X179.05 Y160.33 E196.56475
G1 X179.05 Y160.53 E196.57722
G1 X178.85 Y160.73 E196.59486
G1 X178.85 Y160.93 E196.60734
G1 X178.65 Y161.13 E196.62497
G1 X178.65 Y161.33 E196.63745
G1 X178.45 Y161.53 E196.65509
G1 X178.45 Y161.73 E196.66756
G1 X178.25 Y161.93 E196.68520
G1 X178.25 Y162.13 E196.69767
G1 X177.85 Y162.53 E196.73295
G1 X177.85 Y162.73 E196.74542
G1 X177.65 Y162.93 E196.76306
G1 X177.65 Y163.13 E196.77553
G1 X177.45 Y163.33 E196.79317
G1 X177.45 Y163.53 E196.80564
G1 X177.25 Y163.73 E196.82328
G1 X177.25 Y163.93 E196.83575
G1 X177.05 Y164.13 E196.85339
G1 X177.05 Y164.33 E196.86587
G1 X176.85 Y164.53 E196.88350
G1 X176.85 Y164.73 E196.89598
G1 X176.45 Y165.13 E196.93125
G1 X176.45 Y165.33 E196.94373
G1 X175.45 Y166.33 E197.03192
G1 X175.45 Y166.53 E197.04439
G1 X174.45 Y167.53 E197.13259
G1 X174.45 Y167.73 E197.14506
G1 X173.45 Y168.73 E197.23325
G1 X173.45 Y168.93 E197.24573
G1 X170.91 Y171.47 E197.46992
G1 X169.94 Y171.47 E197.53066
G1 X166.39 Y174.38 E197.81633
G1 X166.26 Y174.49 E197.82713
G1 X160.49 Y177.57 E198.23514
G1 X160.34 Y177.66 E198.24599
G1 X154.08 Y179.55 E198.65362
G1 X153.91 Y179.60 E198.66484
G1 X153.65 Y179.63 E198.68114
G1 X153.65 Y192.67 E199.49435
G1 X140.45 Y192.67 E200.31753
G1 X140.45 Y179.58 E201.13411
G1 X134.12 Y177.66 E201.54695
G1 X128.35 Y174.57 E201.95481
G1 X128.19 Y174.49 E201.96595
G1 X123.14 Y170.34 E202.37369
G1 X123.00 Y170.23 E202.38476
G1 X118.86 Y165.18 E202.79215
G1 X118.75 Y165.04 E202.80295
G1 X115.66 Y159.27 E203.21096
G1 X115.58 Y159.12 E203.22181
G1 X113.68 Y152.87 E203.62940
G1 X113.63 Y152.69 E203.64062
G1 X113.49 Y151.26 E203.73060
G1 X104.15 Y151.26 E204.31282
G1 X104.15 Y140.76 E204.96763
G1 X113.49 Y140.76 E205.54985
G1 X113.63 Y139.33 E205.63959
G1 X115.53 Y133.07 E206.04748
G1 X115.58 Y132.90 E206.05857
G1 X118.66 Y127.13 E206.46627
G1 X118.75 Y126.97 E206.47735
G1 X122.89 Y121.92 E206.88519
G0 F6000 X122.51 Y121.60
G1 F2700 X122.65 Y121.43 E206.89940
G1 X127.74 Y117.25 E207.30976
G1 X127.91 Y117.11 E207.32349
G1 X133.72 Y114.01 E207.73412
G1 X133.92 Y113.90 E207.74857
G1 X140.23 Y111.98 E208.15965
G1 X140.44 Y111.92 E208.17354
G1 X147.00 Y111.27 E208.58456
G1 X147.00 Y111.27 E208.58462
G1 X147.22 Y111.25 E208.59812
G1 X153.79 Y111.90 E209.01021
G1 X154.02 Y111.92 E209.02433
G1 X160.31 Y113.83 E209.43466
G1 X160.53 Y113.90 E209.44882
G1 X166.34 Y117.00 E209.85967
G1 X166.54 Y117.11 E209.87385
G1 X169.90 Y119.87 E210.14521
G1 X171.12 Y119.87 E210.22079
G1 X173.95 Y122.71 E210.47082
G1 X173.95 Y122.91 E210.48336
G1 X174.95 Y123.91 E210.57151
G1 X174.95 Y124.11 E210.58404
G1 X175.95 Y125.11 E210.67220
G1 X175.95 Y125.31 E210.68473
G1 X176.95 Y126.31 E210.77288
G1 X176.95 Y126.51 E210.78535
G1 X177.35 Y126.91 E210.82063
G1 X177.35 Y127.11 E210.83310
G1 X177.55 Y127.31 E210.85074
G1 X177.55 Y127.51 E210.86321
G1 X177.75 Y127.71 E210.88085
G1 X177.75 Y127.91 E210.89333
G1 X177.95 Y128.11 E210.91096
G1 X177.95 Y128.31 E210.92344
G1 X178.15 Y128.51 E210.94108
G1 X178.15 Y128.71 E210.95355
G1 X178.35 Y128.91 E210.97119
G1 X178.35 Y129.11 E210.98366
G1 X178.75 Y129.51 E211.01894
G1 X178.75 Y129.71 E211.03141
G1 X178.95 Y129.91 E211.04905
G1 X178.95 Y130.11 E211.06152
G1 X179.15 Y130.31 E211.07916
G1 X179.15 Y130.51 E211.09163
G1 X179.35 Y130.71 E211.10927
G1 X179.35 Y130.91 E211.12174
G1 X179.55 Y131.11 E211.13938
G1 X179.55 Y131.31 E211.15186
G1 X179.75 Y131.51 E211.16949
G1 X179.75 Y131.71 E211.18197
G1 X179.95 Y131.91 E211.19961
G1 X179.95 Y132.11 E211.21208
G1 X180.15 Y132.31 E211.22972
G1 X180.15 Y132.71 E211.25466
G1 X180.35 Y132.91 E211.27230
G1 X180.35 Y133.31 E211.29725
G1 X180.55 Y133.51 E211.31489
G1 X180.55 Y134.11 E211.35230
G1 X180.75 Y134.31 E211.36994
G1 X180.75 Y134.71 E211.39489
G1 X180.95 Y134.91 E211.41253
G1 X180.95 Y135.51 E211.44994
G1 X181.15 Y135.71 E211.46758
G1 X181.15 Y136.11 E211.49253
G1 X181.35 Y136.31 E211.51017
G1 X181.35 Y136.91 E211.54758
G1 X181.55 Y137.11 E211.56522
G1 X181.55 Y137.51 E211.59017
G1 X181.75 Y137.71 E211.60781
G1 X181.75 Y138.31 E211.64522
G1 X181.95 Y138.51 E211.66286
G1 X181.95 Y139.91 E211.75017
G1 X182.15 Y140.11 E211.76781
G1 X182.15 Y141.51 E211.85512
G1 X182.35 Y141.71 E211.87276
G1 X182.35 Y143.11 E211.96006
G1 X182.55 Y143.31 E211.97770
G1 X182.55 Y148.54 E212.30386
G1 X182.35 Y148.74 E212.32150
G1 X182.35 Y150.14 E212.40881
G1 X182.15 Y150.34 E212.42645
G1 X182.15 Y151.74 E212.51375
G1 X181.95 Y151.94 E212.53139
G1 X181.95 Y153.34 E212.61870
G1 X181.75 Y153.54 E212.63634
G1 X181.75 Y154.14 E212.67376
G1 X181.55 Y154.34 E212.69140
G1 X181.55 Y154.74 E212.71634
G1 X181.35 Y154.94 E212.73398
G1 X181.35 Y155.54 E212.77140
G1 X181.15 Y155.74 E212.78904
G1 X181.15 Y156.14 E212.81398
G1 X180.95 Y156.34 E212.83162
G1 X180.95 Y156.94 E212.86904
G1 X180.75 Y157.14 E212.88668
G1 X180.75 Y157.54 E212.91162
G1 X180.55 Y157.74 E212.92926
G1 X180.55 Y158.34 E212.96668
G1 X180.35 Y158.54 E212.98432
G1 X180.35 Y158.94 E213.00926
G1 X180.15 Y159.14 E213.02690
G1 X180.15 Y159.54 E213.05185
G1 X179.95 Y159.74 E213.06949
G1 X179.95 Y159.94 E213.08196
G1 X179.75 Y160.14 E213.09960
G1 X179.75 Y160.34 E213.11207
G1 X179.55 Y160.54 E213.12971
G1 X179.55 Y160.74 E213.14218
G1 X179.35 Y160.94 E213.15982
G1 X179.35 Y161.14 E213.17229
G1 X179.15 Y161.34 E213.18993
G1 X179.15 Y161.54 E213.20240
G1 X178.95 Y161.74 E213.22004
G1 X178.95 Y161.94 E213.23251
G1 X178.75 Y162.14 E213.25015
G1 X178.75 Y162.34 E213.26263
G1 X178.35 Y162.74 E213.29790
G1 X178.35 Y162.94 E213.31038
G1 X178.15 Y163.14 E213.32802
G1 X178.15 Y163.34 E213.34049
G1 X177.95 Y163.54 E213.35813
G1 X177.95 Y163.74 E213.37060
G1 X177.75 Y163.94 E213.38824
G1 X177.75 Y164.14 E213.40071
G1 X177.55 Y164.34 E213.41835
G1 X177.55 Y164.54 E213.43082
G1 X177.35 Y164.74 E213.44846
G1 X177.35 Y164.94 E213.46093
G1 X176.95 Y165.34 E213.49621
G1 X176.95 Y165.54 E213.50868
G1 X175.95 Y166.53 E213.59683
G1 X175.95 Y166.74 E213.60937
G1 X174.95 Y167.74 E213.69752
G1 X174.95 Y167.94 E213.71005
G1 X173.95 Y168.94 E213.79820
G1 X173.95 Y169.14 E213.81074
G1 X171.12 Y171.97 E214.06077
G1 X170.12 Y171.97 E214.12319
G1 X166.71 Y174.76 E214.39779
G1 X166.54 Y174.91 E214.41152
G1 X160.74 Y178.01 E214.82215
G1 X160.53 Y178.12 E214.83660
G1 X154.22 Y180.03 E215.24767
G1 X154.15 Y180.05 E215.25237
G1 X154.15 Y193.17 E216.07038
G1 X139.95 Y193.17 E216.95593
G1 X139.95 Y179.95 E217.78056
G1 X133.92 Y178.12 E218.17331
G1 X128.11 Y175.01 E218.58438
G1 X127.91 Y174.91 E218.59856
G1 X122.82 Y170.73 E219.00936
G1 X122.64 Y170.58 E219.02357
G1 X118.47 Y165.49 E219.43394
G1 X118.33 Y165.32 E219.44766
G1 X115.22 Y159.51 E219.85885
G1 X115.11 Y159.31 E219.87269
G1 X113.20 Y153.01 E220.28378
G1 X113.14 Y152.79 E220.29767
G1 X113.03 Y151.76 E220.36253
G1 X103.65 Y151.76 E220.94768
G1 X103.65 Y140.26 E221.66485
G1 X113.03 Y140.26 E222.25000
G1 X113.14 Y139.23 E222.31454
G1 X115.05 Y132.92 E222.72556
G1 X115.11 Y132.70 E222.73972
G1 X118.22 Y126.89 E223.15055
G1 X118.33 Y126.69 E223.16472
G1 X122.51 Y121.60 E223.57557
G0 F6000 X122.12 Y121.28
G1 F2700 X122.30 Y121.07 E223.59280
G1 X127.42 Y116.87 E224.00613
G1 X127.63 Y116.69 E224.02282
G1 X133.49 Y113.56 E224.43718
G1 X133.73 Y113.43 E224.45407
G1 X140.07 Y111.51 E224.86773
G1 X140.07 Y111.51 E224.86779
G1 X140.34 Y111.43 E224.88527
G1 X146.95 Y110.78 E225.29942
G1 X147.21 Y110.75 E225.31580
G1 X153.84 Y111.40 E225.73139
G1 X154.12 Y111.43 E225.74852
G1 X160.46 Y113.35 E226.16179
G1 X160.72 Y113.43 E226.17901
G1 X166.58 Y116.56 E226.59299
G1 X166.82 Y116.69 E226.61021
G1 X170.08 Y119.37 E226.87337
G1 X171.32 Y119.37 E226.95076
G1 X174.45 Y122.50 E227.22663
G1 X174.45 Y122.70 E227.23910
G1 X175.45 Y123.70 E227.32730
G1 X175.45 Y123.90 E227.33977
G1 X176.45 Y124.90 E227.42796
G1 X176.45 Y125.10 E227.44044
G1 X177.45 Y126.10 E227.52863
G1 X177.45 Y126.30 E227.54110
G1 X177.85 Y126.70 E227.57638
G1 X177.85 Y126.90 E227.58885
G1 X178.05 Y127.10 E227.60649
G1 X178.05 Y127.30 E227.61896
G1 X178.25 Y127.50 E227.63660
G1 X178.25 Y127.70 E227.64908
G1 X178.45 Y127.90 E227.66671
G1 X178.45 Y128.10 E227.67919
G1 X178.65 Y128.30 E227.69683
G1 X178.65 Y128.50 E227.70930
G1 X178.85 Y128.70 E227.72694
G1 X178.85 Y128.90 E227.73941
G1 X179.25 Y129.30 E227.77469
G1 X179.25 Y129.50 E227.78716
G1 X179.45 Y129.70 E227.80480
G1 X179.45 Y129.90 E227.81727
G1 X179.65 Y130.10 E227.83491
G1 X179.65 Y130.30 E227.84738
G1 X179.85 Y130.50 E227.86502
G1 X179.85 Y130.70 E227.87749
G1 X180.05 Y130.90 E227.89513
G1 X180.05 Y131.10 E227.90761
G1 X180.25 Y131.30 E227.92524
G1 X180.25 Y131.50 E227.93772
G1 X180.45 Y131.70 E227.95536
G1 X180.45 Y131.90 E227.96783
G1 X180.65 Y132.10 E227.98547
G1 X180.65 Y132.50 E228.01041
G1 X180.85 Y132.70 E228.02805
G1 X180.85 Y133.10 E228.05300
G1 X181.05 Y133.30 E228.07064
G1 X181.05 Y133.90 E228.10805
G1 X181.25 Y134.10 E228.12569
G1 X181.25 Y134.50 E228.15064
G1 X181.45 Y134.70 E228.16828
G1 X181.45 Y135.30 E228.20569
G1 X181.65 Y135.50 E228.22333
G1 X181.65 Y135.90 E228.24828
G1 X181.85 Y136.10 E228.26592
G1 X181.85 Y136.70 E228.30333
G1 X182.05 Y136.90 E228.32097
G1 X182.05 Y137.30 E228.34592
G1 X182.25 Y137.50 E228.36356
G1 X182.25 Y138.10 E228.40097
G1 X182.45 Y138.30 E228.41861
G1 X182.45 Y139.70 E228.50592
G1 X182.65 Y139.90 E228.52356
G1 X182.65 Y141.30 E228.61087
G1 X182.85 Y141.50 E228.62851
G1 X182.85 Y142.90 E228.71581
G1 X183.05 Y143.10 E228.73345
G1 X183.05 Y148.74 E229.08543
G1 X182.85 Y148.94 E229.10307
G1 X182.85 Y150.34 E229.19038
G1 X182.65 Y150.54 E229.20801
G1 X182.65 Y151.94 E229.29532
G1 X182.45 Y152.14 E229.31296
G1 X182.45 Y153.54 E229.40027
G1 X182.25 Y153.74 E229.41791
G1 X182.25 Y154.34 E229.45533
G1 X182.05 Y154.54 E229.47296
G1 X182.05 Y154.94 E229.49791
G1 X181.85 Y155.14 E229.51555
G1 X181.85 Y155.74 E229.55297
G1 X181.65 Y155.94 E229.57060
G1 X181.65 Y156.34 E229.59555
G1 X181.45 Y156.54 E229.61319
G1 X181.45 Y157.14 E229.65061
G1 X181.25 Y157.34 E229.66824
G1 X181.25 Y157.74 E229.69319
G1 X181.05 Y157.94 E229.71083
G1 X181.05 Y158.54 E229.74825
G1 X180.85 Y158.74 E229.76589
G1 X180.85 Y159.14 E229.79083
G1 X180.65 Y159.34 E229.80847
G1 X180.65 Y159.74 E229.83341
G1 X180.45 Y159.94 E229.85105
G1 X180.45 Y160.14 E229.86353
G1 X180.25 Y160.34 E229.88116
G1 X180.25 Y160.54 E229.89364
G1 X180.05 Y160.74 E229.91128
G1 X180.05 Y160.94 E229.92375
G1 X179.85 Y161.14 E229.94139
G1 X179.85 Y161.34 E229.95386
G1 X179.65 Y161.54 E229.97150
G1 X179.65 Y161.74 E229.98397
G1 X179.45 Y161.94 E230.00161
G1 X179.45 Y162.14 E230.01408
G1 X179.25 Y162.34 E230.03172
G1 X179.25 Y162.54 E230.04419
G1 X178.85 Y162.94 E230.07947
G1 X178.85 Y163.14 E230.09194
G1 X178.65 Y163.34 E230.10958
G1 X178.65 Y163.54 E230.12206
G1 X178.45 Y163.74 E230.13969
G1 X178.45 Y163.94 E230.15217
G1 X178.25 Y164.14 E230.16981
G1 X178.25 Y164.34 E230.18228
G1 X178.05 Y164.54 E230.19992
G1 X178.05 Y164.74 E230.21239
G1 X177.85 Y164.94 E230.23003
G1 X177.85 Y165.14 E230.24250
G1 X177.45 Y165.54 E230.27778
G1 X177.45 Y165.74 E230.29025
G1 X176.45 Y166.74 E230.37845
G1 X176.45 Y166.94 E230.39092
G1 X175.45 Y167.94 E230.47911
G1 X175.45 Y168.14 E230.49159
G1 X174.45 Y169.14 E230.57978
G1 X174.45 Y169.34 E230.59225
G1 X171.32 Y172.47 E230.86812
G1 X170.29 Y172.47 E230.93236
G1 X167.03 Y175.15 E231.19574
G1 X166.82 Y175.32 E231.21243
G1 X160.96 Y178.45 E231.62680
G1 X160.72 Y178.58 E231.64368
G1 X154.65 Y180.42 E232.03949
G1 X154.65 Y193.67 E232.86561
G1 X139.45 Y193.67 E233.81352
G1 X139.45 Y180.32 E234.64619
G1 X134.13 Y178.71 E234.99262
G1 X133.73 Y178.59 E235.01893
G1 X127.87 Y175.45 E235.43314
G1 X127.63 Y175.32 E235.45035
G1 X122.50 Y171.11 E235.86430
G1 X122.29 Y170.93 E235.88152
G1 X118.08 Y165.81 E236.29486
G1 X117.91 Y165.60 E236.31155
G1 X114.78 Y159.75 E236.72591
G1 X114.65 Y159.51 E236.74280
G1 X112.73 Y153.16 E237.15642
G1 X112.72 Y153.16 E237.15648
G1 X112.64 Y152.89 E237.17396
G1 X112.58 Y152.26 E237.21368
G1 X103.15 Y152.26 E237.80176
G1 X103.15 Y139.76 E238.58130
G1 X112.58 Y139.76 E239.16938
G1 X112.64 Y139.13 E239.20873
G1 X114.57 Y132.78 E239.62287
G1 X114.65 Y132.51 E239.64009
G1 X117.78 Y126.66 E240.05404
G1 X117.91 Y126.41 E240.07126
G1 X122.12 Y121.28 E240.48525
G0 F6000 X121.74 Y120.96
G1 F2700 X121.94 Y120.71 E240.50558
G1 X127.09 Y116.49 E240.92051
G1 X127.09 Y116.49 E240.92057
G1 X127.35 Y116.28 E240.94157
G1 X133.24 Y113.13 E241.35814
G1 X133.53 Y112.97 E241.37893
G1 X139.94 Y111.03 E241.79638
G1 X139.94 Y111.03 E241.79644
G1 X140.24 Y110.93 E241.81636
G1 X146.90 Y110.28 E242.23365
G1 X147.21 Y110.24 E242.25291
G1 X153.90 Y110.90 E242.67195
G1 X154.22 Y110.94 E242.69215
G1 X160.60 Y112.87 E243.10836
G1 X160.92 Y112.97 E243.12866
G1 X166.81 Y116.12 E243.54570
G1 X167.10 Y116.28 E243.56599
G1 X170.26 Y118.87 E243.82100
G1 X171.53 Y118.87 E243.90014
G1 X174.95 Y122.29 E244.20185
G1 X174.95 Y122.49 E244.21426
G1 X175.95 Y123.49 E244.30250
G1 X175.95 Y123.69 E244.31491
G1 X176.95 Y124.69 E244.40315
G1 X176.95 Y124.89 E244.41556
G1 X177.95 Y125.89 E244.50379
G1 X177.95 Y126.09 E244.51627
G1 X178.35 Y126.49 E244.55155
G1 X178.35 Y126.69 E244.56402
G1 X178.55 Y126.89 E244.58166
G1 X178.55 Y127.09 E244.59413
G1 X178.75 Y127.29 E244.61177
G1 X178.75 Y127.49 E244.62424
G1 X178.95 Y127.69 E244.64188
G1 X178.95 Y127.89 E244.65435
G1 X179.15 Y128.09 E244.67199
G1 X179.15 Y128.29 E244.68446
G1 X179.35 Y128.49 E244.70210
G1 X179.35 Y128.69 E244.71457
G1 X179.75 Y129.09 E244.74985
G1 X179.75 Y129.29 E244.76232
G1 X179.95 Y129.49 E244.77996
G1 X179.95 Y129.69 E244.79244
G1 X180.15 Y129.89 E244.81008
G1 X180.15 Y130.09 E244.82255
G1 X180.35 Y130.29 E244.84019
G1 X180.35 Y130.49 E244.85266
G1 X180.55 Y130.69 E244.87030
G1 X180.55 Y130.89 E244.88277
G1 X180.75 Y131.09 E244.90041
G1 X180.75 Y131.29 E244.91288
G1 X180.95 Y131.49 E244.93052
G1 X180.95 Y131.69 E244.94299
G1 X181.15 Y131.89 E244.96063
G1 X181.15 Y132.29 E244.98558
G1 X181.35 Y132.49 E245.00322
G1 X181.35 Y132.89 E245.02816
G1 X181.55 Y133.09 E245.04580
G1 X181.55 Y133.69 E245.08322
G1 X181.75 Y133.89 E245.10086
G1 X181.75 Y134.29 E245.12580
G1 X181.95 Y134.49 E245.14344
G1 X181.95 Y135.09 E245.18086
G1 X182.15 Y135.29 E245.19850
G1 X182.15 Y135.69 E245.22344
G1 X182.35 Y135.89 E245.24108
G1 X182.35 Y136.49 E245.27850
G1 X182.55 Y136.69 E245.29614
G1 X182.55 Y137.09 E245.32108
G1 X182.75 Y137.29 E245.33872
G1 X182.75 Y137.89 E245.37614
G1 X182.95 Y138.09 E245.39378
G1 X182.95 Y139.49 E245.48109
G1 X183.15 Y139.69 E245.49872
G1 X183.15 Y141.09 E245.58603
G1 X183.35 Y141.29 E245.60367
G1 X183.35 Y142.69 E245.69098
G1 X183.55 Y142.89 E245.70862
G1 X183.55 Y148.95 E246.08641
G1 X183.35 Y149.15 E246.10405
G1 X183.35 Y150.55 E246.19136
G1 X183.15 Y150.75 E246.20900
G1 X183.15 Y152.15 E246.29630
G1 X182.95 Y152.35 E246.31394
G1 X182.95 Y153.75 E246.40125
G1 X182.75 Y153.95 E246.41889
G1 X182.75 Y154.55 E246.45631
G1 X182.55 Y154.75 E246.47395
G1 X182.55 Y155.15 E246.49889
G1 X182.35 Y155.35 E246.51653
G1 X182.35 Y155.95 E246.55395
G1 X182.15 Y156.15 E246.57159
G1 X182.15 Y156.55 E246.59653
G1 X181.95 Y156.75 E246.61417
G1 X181.95 Y157.35 E246.65159
G1 X181.75 Y157.55 E246.66923
G1 X181.75 Y157.95 E246.69417
G1 X181.55 Y158.15 E246.71181
G1 X181.55 Y158.75 E246.74923
G1 X181.35 Y158.95 E246.76687
G1 X181.35 Y159.35 E246.79181
G1 X181.15 Y159.55 E246.80945
G1 X181.15 Y159.95 E246.83440
G1 X180.95 Y160.15 E246.85204
G1 X180.95 Y160.35 E246.86451
G1 X180.75 Y160.55 E246.88215
G1 X180.75 Y160.75 E246.89462
G1 X180.55 Y160.95 E246.91226
G1 X180.55 Y161.15 E246.92473
G1 X180.35 Y161.35 E246.94237
G1 X180.35 Y161.55 E246.95484
G1 X180.15 Y161.75 E246.97248
G1 X180.15 Y161.95 E246.98495
G1 X179.95 Y162.15 E247.00259
G1 X179.95 Y162.35 E247.01507
G1 X179.75 Y162.55 E247.03270
G1 X179.75 Y162.75 E247.04518
G1 X179.35 Y163.15 E247.08045
G1 X179.35 Y163.35 E247.09293
G1 X179.15 Y163.55 E247.11057
G1 X179.15 Y163.75 E247.12304
G1 X178.95 Y163.95 E247.14068
G1 X178.95 Y164.15 E247.15315
G1 X178.75 Y164.35 E247.17079
G1 X178.75 Y164.55 E247.18326
G1 X178.55 Y164.75 E247.20090
G1 X178.55 Y164.95 E247.21337
G1 X178.35 Y165.15 E247.23101
G1 X178.35 Y165.35 E247.24348
G1 X177.95 Y165.75 E247.27876
G1 X177.95 Y165.95 E247.29123
G1 X176.95 Y166.95 E247.37947
G1 X176.95 Y167.15 E247.39188
G1 X175.95 Y168.15 E247.48012
G1 X175.95 Y168.35 E247.49253
G1 X174.95 Y169.35 E247.58077
G1 X174.95 Y169.55 E247.59318
G1 X171.53 Y172.97 E247.89489
G1 X170.47 Y172.97 E247.96081
G1 X167.36 Y175.52 E248.21175
G1 X167.36 Y175.52 E248.21181
G1 X167.10 Y175.74 E248.23280
G1 X161.21 Y178.89 E248.64937
G1 X160.92 Y179.05 E248.67016
G1 X155.15 Y180.80 E249.04604
G1 X155.15 Y194.17 E249.88015
G1 X138.95 Y194.17 E250.89042
G1 X138.95 Y180.69 E251.73113
G1 X133.99 Y179.19 E252.05442
G1 X133.54 Y179.05 E252.08382
G1 X127.64 Y175.89 E252.50117
G1 X127.35 Y175.74 E252.52146
G1 X122.18 Y171.50 E252.93855
G1 X121.93 Y171.29 E252.95883
G1 X117.71 Y166.14 E253.37376
G1 X117.71 Y166.14 E253.37382
G1 X117.50 Y165.88 E253.39482
G1 X114.35 Y159.99 E253.81139
G1 X114.19 Y159.70 E253.83218
G1 X112.24 Y153.30 E254.24959
G1 X112.25 Y153.30 E254.24965
G1 X112.15 Y152.99 E254.26957
G1 X112.13 Y152.76 E254.28417
G1 X102.65 Y152.76 E254.87512
G1 X102.65 Y139.26 E255.71702
G1 X112.13 Y139.26 E256.30803
G1 X112.15 Y139.03 E256.32219
G1 X114.09 Y132.63 E256.73946
G1 X114.19 Y132.32 E256.75976
G1 X117.34 Y126.42 E257.17678
G1 X117.49 Y126.13 E257.19706
G1 X121.74 Y120.96 E257.61416
G0 F6000 X121.35 Y120.64
G1 F2700 X121.59 Y120.36 E257.63754
G1 X126.77 Y116.11 E258.05525
G1 X127.07 Y115.86 E258.07939
G1 X133.00 Y112.69 E258.49903
G1 X133.34 Y112.50 E258.52300
G1 X139.79 Y110.55 E258.94357
G1 X140.14 Y110.44 E258.96647
G1 X146.82 Y109.78 E259.38463
G1 X147.21 Y109.74 E259.40905
G1 X153.95 Y110.41 E259.83154
G1 X154.32 Y110.45 E259.85481
G1 X160.75 Y112.40 E260.27396
G1 X161.11 Y112.51 E260.29737
G1 X167.05 Y115.68 E260.71749
G1 X167.38 Y115.86 E260.74082
G1 X170.44 Y118.37 E260.98767
G1 X171.74 Y118.37 E261.06856
G1 X175.45 Y122.08 E261.39611
G1 X175.45 Y122.28 E261.40858
G1 X176.45 Y123.28 E261.49678
G1 X176.45 Y123.48 E261.50925
G1 X177.45 Y124.48 E261.59745
G1 X177.45 Y124.69 E261.60992
G1 X178.45 Y125.69 E261.69811
G1 X178.45 Y125.89 E261.71058
G1 X178.85 Y126.28 E261.74586
G1 X178.85 Y126.48 E261.75833
G1 X179.05 Y126.69 E261.77597
G1 X179.05 Y126.89 E261.78845
G1 X179.25 Y127.08 E261.80608
G1 X179.25 Y127.28 E261.81856
G1 X179.45 Y127.48 E261.83620
G1 X179.45 Y127.69 E261.84867
G1 X179.65 Y127.89 E261.86631
G1 X179.65 Y128.09 E261.87878
G1 X179.85 Y128.28 E261.89642
G1 X179.85 Y128.49 E261.90889
G1 X180.25 Y128.88 E261.94417
G1 X180.25 Y129.09 E261.95664
G1 X180.45 Y129.28 E261.97428
G1 X180.45 Y129.49 E261.98675
G1 X180.65 Y129.69 E262.00439
G1 X180.65 Y129.88 E262.01686
G1 X180.85 Y130.09 E262.03450
G1 X180.85 Y130.28 E262.04698
G1 X181.05 Y130.49 E262.06462
G1 X181.05 Y130.69 E262.07709
G1 X181.25 Y130.88 E262.09473
G1 X181.25 Y131.09 E262.10720
G1 X181.45 Y131.28 E262.12484
G1 X181.45 Y131.49 E262.13731
G1 X181.65 Y131.69 E262.15495
G1 X181.65 Y132.09 E262.17989
G1 X181.85 Y132.28 E262.19753
G1 X181.85 Y132.69 E262.22248
G1 X182.05 Y132.88 E262.24012
G1 X182.05 Y133.49 E262.27753
G1 X182.25 Y133.69 E262.29517
G1 X182.25 Y134.09 E262.32012
G1 X182.45 Y134.28 E262.33776
G1 X182.45 Y134.88 E262.37518
G1 X182.65 Y135.09 E262.39281
G1 X182.65 Y135.49 E262.41776
G1 X182.85 Y135.69 E262.43540
G1 X182.85 Y136.28 E262.47282
G1 X183.05 Y136.49 E262.49045
G1 X183.05 Y136.88 E262.51540
G1 X183.25 Y137.09 E262.53304
G1 X183.25 Y137.69 E262.57046
G1 X183.45 Y137.88 E262.58809
G1 X183.45 Y139.28 E262.67540
G1 X183.65 Y139.49 E262.69304
G1 X183.65 Y140.88 E262.78035
G1 X183.85 Y141.09 E262.79799
G1 X183.85 Y142.49 E262.88530
G1 X184.05 Y142.69 E262.90294
G1 X184.05 Y149.16 E263.30655
G1 X183.85 Y149.36 E263.32419
G1 X183.85 Y150.76 E263.41149
G1 X183.65 Y150.96 E263.42913
G1 X183.65 Y152.36 E263.51644
G1 X183.45 Y152.56 E263.53408
G1 X183.45 Y153.96 E263.62139
G1 X183.25 Y154.16 E263.63903
G1 X183.25 Y154.76 E263.67644
G1 X183.05 Y154.96 E263.69408
G1 X183.05 Y155.36 E263.71903
G1 X182.85 Y155.56 E263.73667
G1 X182.85 Y156.16 E263.77408
G1 X182.65 Y156.36 E263.79172
G1 X182.65 Y156.76 E263.81667
G1 X182.45 Y156.96 E263.83431
G1 X182.45 Y157.56 E263.87172
G1 X182.25 Y157.76 E263.88936
G1 X182.25 Y158.16 E263.91431
G1 X182.05 Y158.36 E263.93195
G1 X182.05 Y158.96 E263.96936
G1 X181.85 Y159.16 E263.98700
G1 X181.85 Y159.56 E264.01195
G1 X181.65 Y159.76 E264.02959
G1 X181.65 Y160.16 E264.05453
G1 X181.45 Y160.36 E264.07217
G1 X181.45 Y160.56 E264.08464
G1 X181.25 Y160.76 E264.10228
G1 X181.25 Y160.96 E264.11476
G1 X181.05 Y161.16 E264.13239
G1 X181.05 Y161.36 E264.14487
G1 X180.85 Y161.56 E264.16251
G1 X180.85 Y161.76 E264.17498
G1 X180.65 Y161.96 E264.19262
G1 X180.65 Y162.16 E264.20509
G1 X180.45 Y162.36 E264.22273
G1 X180.45 Y162.56 E264.23520
G1 X180.25 Y162.76 E264.25284
G1 X180.25 Y162.96 E264.26531
G1 X179.85 Y163.36 E264.30059
G1 X179.85 Y163.56 E264.31306
G1 X179.65 Y163.76 E264.33070
G1 X179.65 Y163.96 E264.34317
G1 X179.45 Y164.16 E264.36081
G1 X179.45 Y164.36 E264.37329
G1 X179.25 Y164.56 E264.39092
G1 X179.25 Y164.76 E264.40340
G1 X179.05 Y164.96 E264.42104
G1 X179.05 Y165.16 E264.43351
G1 X178.85 Y165.36 E264.45115
G1 X178.85 Y165.56 E264.46362
G1 X178.45 Y165.96 E264.49890
G1 X178.45 Y166.16 E264.51137
G1 X177.45 Y167.16 E264.59956
G1 X177.45 Y167.36 E264.61204
G1 X176.45 Y168.36 E264.70023
G1 X176.45 Y168.56 E264.71270
G1 X175.45 Y169.56 E264.80090
G1 X175.45 Y169.76 E264.81337
G1 X171.74 Y173.47 E265.14092
G1 X170.65 Y173.47 E265.20859
G1 X167.68 Y175.91 E265.44818
G1 X167.38 Y176.16 E265.47231
G1 X161.45 Y179.33 E265.89196
G1 X161.11 Y179.51 E265.91593
G1 X155.65 Y181.17 E266.27179
G1 X155.65 Y194.67 E267.11399
G1 X138.45 Y194.67 E268.18663
G1 X138.45 Y181.06 E269.03539
G1 X133.84 Y179.66 E269.33561
G1 X133.35 Y179.51 E269.36801
G1 X127.40 Y176.33 E269.78854
G1 X127.07 Y176.16 E269.81187
G1 X121.86 Y171.88 E270.23202
G1 X121.58 Y171.64 E270.25540
G1 X117.33 Y166.46 E270.67312
G1 X117.08 Y166.17 E270.69726
G1 X113.91 Y160.23 E271.11690
G1 X113.72 Y159.89 E271.14084
G1 X111.77 Y153.44 E271.56138
G1 X111.71 Y153.26 E271.57332
G1 X102.15 Y153.26 E272.16944
G1 X102.15 Y138.76 E273.07370
G1 X111.71 Y138.76 E273.66983
G1 X113.61 Y132.48 E274.07883
G1 X113.72 Y132.12 E274.10213
G1 X116.90 Y126.18 E274.52227
G1 X117.08 Y125.85 E274.54560
G1 X121.35 Y120.64 E274.96580
G0 F6000 X120.97 Y120.33
G1 F2700 X121.24 Y120.00 E274.99228
G1 X126.47 Y115.71 E275.41443
G1 X126.79 Y115.44 E275.43998
G1 X132.78 Y112.24 E275.86392
G1 X133.15 Y112.04 E275.88973
G1 X139.65 Y110.07 E276.31351
G1 X140.04 Y109.95 E276.33941
G1 X146.80 Y109.28 E276.76258
G1 X147.20 Y109.24 E276.78799
G1 X154.00 Y109.91 E277.21392
G1 X154.42 Y109.95 E277.24028
G1 X160.90 Y111.92 E277.66236
G1 X161.30 Y112.04 E277.68884
G1 X167.29 Y115.24 E278.11208
G1 X167.66 Y115.44 E278.13845
G1 X170.62 Y117.87 E278.37715
G1 X171.94 Y117.87 E278.45978
G1 X175.95 Y121.88 E278.81318
G1 X175.95 Y122.08 E278.82565
G1 X176.95 Y123.08 E278.91384
G1 X176.95 Y123.28 E278.92631
G1 X177.95 Y124.28 E279.01451
G1 X177.95 Y124.48 E279.02698
G1 X178.95 Y125.48 E279.11518
G1 X178.95 Y125.68 E279.12765
