;-- START GCODE --
;Sliced for Type A Machines Series 1
;Sliced at: Wed 09-11-2016 01:55:34
;Basic settings: Layer height: 0.2 Walls: 4.2 Fill: 100
;Print Speed: 30 Support: 0
;Retraction Speed: 40 Retraction Distance: 1.2
;Print time: #P_TIME#
;Filament used: #F_AMNT#m #F_WGHT#g
;Filament cost: #F_COST#
M106 S255	 ;start with the fan on
G21        ;metric values
G90        ;absolute positioning
M106 S255    ;start with the fan on
G28     ;move to endstops
G29		;allows for auto-levelling
G1 X150 Y5  Z15.0 F12000 ;center and move the platform down 15mm
M109 S220 ;Heat To temp
G92 E0                  ;zero the extruded length
G1 F200 E30              ;extrude 30mm of feed stock
G92 E0                  ;zero the extruded length again
G1 X175 Y25  Z0 F12000 ;remove bugger
G1 X220 F12000 ;remove bugger
G1 X150 Y150  Z15 F12000 ;recenter and begin
G1 F12000

;Layer count: 15
;LAYER:0
M106 S255
G0 F12000 X102.72 Y123.65 Z0.30
;TYPE:SKIRT
G1 F1800 X117.55 Y122.84 E0.77822
G1 X118.53 Y122.83 E0.82925
G1 X119.87 Y122.86 E0.89978
G1 X121.32 Y122.96 E0.97582
G1 X122.78 Y123.14 E1.05282
G1 X124.23 Y123.39 E1.12973
G1 X125.67 Y123.71 E1.20692
G1 X126.46 Y123.93 E1.25018
G1 X126.61 Y123.95 E1.25802
G1 X128.04 Y124.24 E1.33429
G1 X129.43 Y124.60 E1.40980
G1 X130.80 Y125.02 E1.48486
G1 X132.15 Y125.50 E1.56007
G1 X133.48 Y126.06 E1.63545
G1 X134.78 Y126.67 E1.71043
G1 X136.04 Y127.35 E1.78566
G1 X137.27 Y128.09 E1.86102
G1 X138.40 Y128.85 E1.93215
G1 X139.15 Y129.39 E1.98039
G1 X140.18 Y130.20 E2.04924
G1 X141.27 Y131.14 E2.12471
G1 X141.44 Y131.30 E2.13701
G1 X179.39 Y129.13 E4.12827
G1 X179.73 Y129.11 E4.14590
G1 X180.11 Y129.02 E4.16621
G1 X182.59 Y128.95 E4.29612
G1 X182.59 Y128.95 E4.29618
G1 X184.03 Y128.91 E4.37190
G1 X186.35 Y129.30 E4.49537
G1 X187.89 Y129.56 E4.57684
G1 X190.16 Y130.45 E4.70442
G1 X191.55 Y130.98 E4.78249
G1 X193.72 Y132.39 E4.91834
G1 X194.95 Y133.21 E4.99574
G1 X197.60 Y135.80 E5.18996
G1 X198.94 Y137.73 E5.31307
G1 X199.82 Y138.98 E5.39315
G1 X200.76 Y141.18 E5.51809
G1 X201.35 Y142.50 E5.59384
G1 X202.16 Y146.20 E5.79246
G1 X202.23 Y148.60 E5.91830
G1 X202.27 Y150.06 E5.99444
G1 X201.66 Y153.74 E6.19011
G1 X200.83 Y156.02 E6.31716
G1 X200.31 Y157.41 E6.39490
G1 X199.12 Y159.37 E6.51493
G1 X198.56 Y160.31 E6.57212
G1 X198.99 Y167.44 E6.94631
G1 X185.61 Y168.28 E7.64856
G1 X185.20 Y168.38 E7.67079
G1 X183.04 Y168.45 E7.78416
G1 X144.30 Y170.97 E9.81760
G1 X143.91 Y171.46 E9.84994
G1 X142.96 Y172.53 E9.92552
G1 X141.95 Y173.56 E10.00053
G1 X140.90 Y174.53 E10.07549
G1 X139.79 Y175.46 E10.15146
G1 X138.64 Y176.33 E10.22708
G1 X137.46 Y177.13 E10.30158
G1 X136.24 Y177.88 E10.37674
G1 X134.98 Y178.57 E10.45204
G1 X133.69 Y179.20 E10.52699
G1 X132.38 Y179.76 E10.60164
G1 X131.04 Y180.26 E10.67653
G1 X129.66 Y180.70 E10.75256
G1 X128.28 Y181.06 E10.82728
G1 X126.88 Y181.37 E10.90251
G1 X125.47 Y181.60 E10.97757
G1 X125.39 Y181.61 E10.98131
G1 X124.32 Y181.85 E11.03879
G1 X122.88 Y182.10 E11.11554
G1 X121.43 Y182.28 E11.19225
G1 X119.97 Y182.40 E11.26911
G1 X118.96 Y182.42 E11.32187
G1 X118.58 Y182.44 E11.34190
G1 X117.07 Y182.40 E11.42060
G1 X102.72 Y181.44 E12.17428
G1 X102.72 Y123.65 E15.20149
G0 F12000 X103.14 Y124.05
G1 F1800 X117.57 Y123.26 E15.95847
G1 X118.53 Y123.25 E16.00860
G1 X119.85 Y123.28 E16.07819
G1 X121.28 Y123.38 E16.15319
G1 X122.72 Y123.56 E16.22908
G1 X124.14 Y123.80 E16.30486
G1 X125.56 Y124.12 E16.38098
G1 X126.38 Y124.34 E16.42517
G1 X126.54 Y124.37 E16.43364
G1 X127.94 Y124.65 E16.50879
G1 X129.32 Y125.00 E16.58326
G1 X130.67 Y125.42 E16.65723
G1 X132.00 Y125.89 E16.73135
G1 X133.31 Y126.44 E16.80569
G1 X134.59 Y127.05 E16.87962
G1 X135.83 Y127.72 E16.95380
G1 X137.05 Y128.44 E17.02805
G1 X138.16 Y129.19 E17.09821
G1 X138.89 Y129.72 E17.14561
G1 X139.92 Y130.52 E17.21354
G1 X140.99 Y131.45 E17.28797
G1 X141.28 Y131.73 E17.30924
G1 X179.42 Y129.55 E19.31004
G1 X179.79 Y129.52 E19.32967
G1 X180.16 Y129.44 E19.34965
G1 X182.59 Y129.37 E19.47673
G1 X184.00 Y129.33 E19.55083
G1 X186.28 Y129.72 E19.67218
G1 X187.78 Y129.97 E19.75136
G1 X189.94 Y130.81 E19.87287
G1 X191.36 Y131.36 E19.95256
G1 X193.49 Y132.74 E20.08595
G1 X194.69 Y133.54 E20.16116
G1 X197.28 Y136.07 E20.35124
G1 X198.60 Y137.97 E20.47228
G1 X198.60 Y137.97 E20.47234
G1 X199.45 Y139.19 E20.55020
G1 X200.36 Y141.30 E20.67064
G1 X200.94 Y142.63 E20.74661
G1 X201.74 Y146.25 E20.94099
G1 X201.81 Y148.62 E21.06473
G1 X201.85 Y150.03 E21.13872
G1 X201.25 Y153.63 E21.33025
G1 X200.43 Y155.88 E21.45520
G1 X199.93 Y157.23 E21.53068
G1 X198.73 Y159.20 E21.65174
G1 X198.13 Y160.20 E21.71290
G1 X198.55 Y167.04 E22.07188
G1 X185.55 Y167.86 E22.75402
G1 X185.14 Y167.96 E22.77594
G1 X183.02 Y168.03 E22.88716
G1 X144.09 Y170.57 E24.93088
G1 X143.59 Y171.18 E24.97231
G1 X142.65 Y172.25 E25.04686
G1 X141.66 Y173.25 E25.12079
G1 X140.62 Y174.21 E25.19471
G1 X139.53 Y175.13 E25.26953
G1 X138.39 Y175.99 E25.34411
G1 X137.23 Y176.78 E25.41758
G1 X136.03 Y177.52 E25.49161
G1 X134.79 Y178.20 E25.56586
G1 X133.52 Y178.82 E25.63971
G1 X132.23 Y179.37 E25.71337
G1 X130.91 Y179.86 E25.78716
G1 X129.54 Y180.30 E25.86209
G1 X128.19 Y180.66 E25.93579
G1 X126.80 Y180.96 E26.00995
G1 X125.41 Y181.18 E26.08393
G1 X125.33 Y181.19 E26.08815
G1 X124.24 Y181.44 E26.14648
G1 X122.82 Y181.69 E26.22217
G1 X121.39 Y181.87 E26.29777
G1 X119.94 Y181.98 E26.37353
G1 X118.98 Y182.00 E26.42393
G1 X118.57 Y182.02 E26.44538
G1 X117.09 Y181.98 E26.52293
G1 X103.14 Y181.04 E27.25555
G1 X103.14 Y124.05 E30.24137
G0 F12000 X103.56 Y124.44
G1 F1800 X117.58 Y123.68 E30.97705
G1 X118.52 Y123.67 E31.02635
G1 X119.83 Y123.70 E31.09500
G1 X121.24 Y123.80 E31.16888
G1 X122.66 Y123.97 E31.24372
G1 X124.06 Y124.21 E31.31844
G1 X125.46 Y124.53 E31.39344
G1 X126.29 Y124.75 E31.43849
G1 X126.46 Y124.78 E31.44766
G1 X127.85 Y125.06 E31.52173
G1 X129.21 Y125.41 E31.59508
G1 X130.54 Y125.81 E31.66800
G1 X131.85 Y126.29 E31.74104
G1 X133.14 Y126.82 E31.81431
G1 X134.40 Y127.42 E31.88716
G1 X135.63 Y128.08 E31.96026
G1 X136.82 Y128.80 E32.03348
G1 X137.92 Y129.53 E32.10269
G1 X138.64 Y130.06 E32.14931
G1 X139.65 Y130.84 E32.21626
G1 X140.71 Y131.76 E32.28957
G1 X141.13 Y132.16 E32.31984
G1 X179.45 Y129.97 E34.33057
G1 X179.45 Y129.97 E34.33062
G1 X179.85 Y129.94 E34.35171
G1 X180.22 Y129.85 E34.37154
G1 X182.60 Y129.79 E34.49636
G1 X183.97 Y129.75 E34.56831
G1 X186.25 Y130.14 E34.68924
G1 X187.66 Y130.37 E34.76438
G1 X189.78 Y131.21 E34.88380
G1 X191.16 Y131.73 E34.96116
G1 X193.26 Y133.09 E35.09209
G1 X194.42 Y133.87 E35.16511
G1 X196.96 Y136.35 E35.35103
G1 X198.26 Y138.21 E35.47012
G1 X198.26 Y138.21 E35.47019
G1 X199.08 Y139.40 E35.54576
G1 X199.97 Y141.47 E35.66415
G1 X200.54 Y142.76 E35.73794
G1 X201.32 Y146.31 E35.92808
G1 X201.39 Y148.63 E36.04973
G1 X201.43 Y150.00 E36.12157
G1 X200.84 Y153.53 E36.30895
G1 X200.04 Y155.73 E36.43178
G1 X199.55 Y157.04 E36.50509
G1 X198.40 Y158.93 E36.62075
G1 X197.71 Y160.10 E36.69220
G1 X198.10 Y166.65 E37.03600
G1 X185.49 Y167.45 E37.69825
G1 X185.09 Y167.54 E37.71968
G1 X183.01 Y167.61 E37.82843
G1 X143.88 Y170.16 E39.88281
G1 X143.27 Y170.91 E39.93337
G1 X142.34 Y171.96 E40.00680
G1 X141.37 Y172.95 E40.07967
G1 X140.35 Y173.90 E40.15251
G1 X139.27 Y174.80 E40.22625
G1 X138.15 Y175.65 E40.29973
G1 X137.01 Y176.42 E40.37212
G1 X135.82 Y177.15 E40.44512
G1 X134.59 Y177.82 E40.51829
G1 X133.34 Y178.43 E40.59108
G1 X132.07 Y178.98 E40.66367
G1 X130.77 Y179.47 E40.73639
G1 X129.43 Y179.89 E40.81026
G1 X128.09 Y180.25 E40.88288
G1 X126.72 Y180.54 E40.95597
G1 X125.35 Y180.77 E41.02890
G1 X125.25 Y180.78 E41.03401
G1 X124.16 Y181.03 E41.09273
G1 X122.76 Y181.27 E41.16735
G1 X121.34 Y181.45 E41.24189
G1 X119.92 Y181.56 E41.31660
G1 X118.89 Y181.58 E41.37062
G1 X118.57 Y181.59 E41.38750
G1 X117.11 Y181.56 E41.46385
G1 X103.56 Y180.65 E42.17542
G1 X103.56 Y124.44 E45.11981
G0 F12000 X103.98 Y124.84
G1 F1800 X117.60 Y124.10 E45.83424
G1 X118.52 Y124.09 E45.88264
G1 X119.81 Y124.12 E45.95035
G1 X121.20 Y124.22 E46.02318
G1 X122.60 Y124.39 E46.09696
G1 X123.98 Y124.62 E46.17051
G1 X125.36 Y124.93 E46.24449
G1 X126.20 Y125.17 E46.29041
G1 X126.39 Y125.19 E46.30021
G1 X127.76 Y125.47 E46.37321
G1 X129.09 Y125.81 E46.44547
G1 X130.40 Y126.21 E46.51730
G1 X131.70 Y126.68 E46.58930
G1 X132.97 Y127.21 E46.66149
G1 X134.21 Y127.80 E46.73328
G1 X135.42 Y128.44 E46.80530
G1 X136.60 Y129.15 E46.87737
G1 X137.68 Y129.88 E46.94564
G1 X138.39 Y130.39 E46.99147
G1 X139.38 Y131.17 E47.05752
G1 X140.43 Y132.07 E47.12976
G1 X140.97 Y132.59 E47.16908
G1 X179.47 Y130.38 E49.18898
G1 X179.91 Y130.36 E49.21228
G1 X180.27 Y130.27 E49.23183
G1 X182.61 Y130.21 E49.35440
G1 X183.94 Y130.17 E49.42416
G1 X186.18 Y130.55 E49.54295
G1 X187.55 Y130.78 E49.61587
G1 X189.67 Y131.61 E49.73529
G1 X190.97 Y132.11 E49.80819
G1 X193.03 Y133.44 E49.93670
G1 X194.16 Y134.19 E50.00748
G1 X196.64 Y136.62 E50.18926
G1 X197.94 Y138.49 E50.30875
G1 X198.72 Y139.60 E50.37966
G1 X199.64 Y141.76 E50.50297
G1 X200.14 Y142.89 E50.56756
G1 X200.90 Y146.36 E50.75342
G1 X200.97 Y148.64 E50.87307
G1 X201.01 Y149.97 E50.94277
G1 X200.44 Y153.42 E51.12596
G1 X199.65 Y155.59 E51.24666
G1 X199.17 Y156.86 E51.31780
G1 X198.02 Y158.74 E51.43334
G1 X197.36 Y159.86 E51.50143
G1 X197.28 Y159.95 E51.50796
G1 X197.66 Y166.26 E51.83895
G1 X185.43 Y167.03 E52.48105
G1 X185.03 Y167.12 E52.50216
G1 X182.97 Y167.19 E52.61007
G1 X143.67 Y169.75 E54.67349
G1 X142.95 Y170.64 E54.73317
G1 X142.03 Y171.67 E54.80552
G1 X141.07 Y172.65 E54.87731
G1 X140.07 Y173.58 E54.94908
G1 X139.00 Y174.47 E55.02175
G1 X137.90 Y175.30 E55.09411
G1 X136.78 Y176.07 E55.16548
G1 X135.61 Y176.79 E55.23740
G1 X134.40 Y177.45 E55.30949
G1 X133.17 Y178.05 E55.38123
G1 X131.91 Y178.59 E55.45274
G1 X130.63 Y179.07 E55.52445
G1 X129.31 Y179.49 E55.59718
G1 X127.99 Y179.84 E55.66876
G1 X126.64 Y180.13 E55.74078
G1 X125.29 Y180.35 E55.81265
G1 X125.18 Y180.36 E55.81855
G1 X124.08 Y180.61 E55.87780
G1 X122.69 Y180.86 E55.95130
G1 X121.30 Y181.03 E56.02479
G1 X119.90 Y181.14 E56.09839
G1 X118.88 Y181.16 E56.15216
G1 X118.57 Y181.18 E56.16836
G1 X117.13 Y181.14 E56.24355
G1 X103.98 Y180.26 E56.93407
G1 X103.98 Y124.84 E59.83702
G0 F12000 X104.40 Y125.24
G1 F1800 X117.61 Y124.52 E60.53015
G1 X118.52 Y124.51 E60.57772
G1 X119.79 Y124.54 E60.64448
G1 X121.16 Y124.64 E60.71627
G1 X122.54 Y124.80 E60.78894
G1 X123.90 Y125.04 E60.86143
G1 X125.26 Y125.34 E60.93427
G1 X126.12 Y125.58 E60.98101
G1 X126.32 Y125.61 E60.99161
G1 X127.66 Y125.88 E61.06344
G1 X128.98 Y126.22 E61.13467
G1 X130.27 Y126.61 E61.20545
G1 X131.54 Y127.07 E61.27634
G1 X132.80 Y127.59 E61.34745
G1 X134.02 Y128.17 E61.41814
G1 X135.21 Y128.81 E61.48911
G1 X136.37 Y129.51 E61.56012
G1 X137.44 Y130.22 E61.62744
G1 X138.14 Y130.73 E61.67245
G1 X139.12 Y131.49 E61.73757
G1 X140.14 Y132.38 E61.80874
G1 X140.81 Y133.02 E61.85698
G1 X179.49 Y130.80 E63.88648
G1 X179.98 Y130.78 E63.91204
G1 X180.33 Y130.69 E63.93100
G1 X182.62 Y130.63 E64.05122
G1 X183.91 Y130.59 E64.11887
G1 X186.08 Y130.96 E64.23390
G1 X187.44 Y131.19 E64.30612
G1 X189.59 Y132.03 E64.42722
G1 X190.78 Y132.49 E64.49407
G1 X192.80 Y133.79 E64.62008
G1 X193.89 Y134.52 E64.68871
G1 X196.31 Y136.89 E64.86630
G1 X197.59 Y138.73 E64.98369
G1 X197.59 Y138.73 E64.98374
G1 X198.35 Y139.81 E65.05249
G1 X199.24 Y141.89 E65.17124
G1 X199.74 Y143.02 E65.23611
G1 X200.48 Y146.41 E65.41779
G1 X200.55 Y148.65 E65.53534
G1 X200.59 Y149.94 E65.60289
G1 X200.03 Y153.31 E65.78193
G1 X199.25 Y155.44 E65.90052
G1 X198.79 Y156.67 E65.96942
G1 X197.66 Y158.53 E66.08310
G1 X197.02 Y159.61 E66.14896
G1 X196.85 Y159.80 E66.16253
G1 X197.21 Y165.87 E66.48093
G1 X185.36 Y166.61 E67.10319
G1 X184.98 Y166.71 E67.12376
G1 X182.96 Y166.77 E67.22932
G1 X143.46 Y169.35 E69.30329
G1 X142.63 Y170.37 E69.37207
G1 X141.73 Y171.39 E69.44334
G1 X140.78 Y172.35 E69.51406
G1 X139.79 Y173.27 E69.58478
G1 X138.74 Y174.14 E69.65633
G1 X137.66 Y174.96 E69.72762
G1 X136.55 Y175.72 E69.79793
G1 X135.40 Y176.43 E69.86876
G1 X134.21 Y177.08 E69.93979
G1 X133.00 Y177.67 E70.01048
G1 X131.76 Y178.20 E70.08091
G1 X130.50 Y178.67 E70.15156
G1 X129.19 Y179.09 E70.22324
G1 X127.89 Y179.43 E70.29374
G1 X126.57 Y179.72 E70.36468
G1 X125.23 Y179.93 E70.43549
G1 X125.11 Y179.95 E70.44177
G1 X123.99 Y180.20 E70.50197
G1 X122.63 Y180.44 E70.57441
G1 X121.26 Y180.61 E70.64679
G1 X119.88 Y180.72 E70.71929
G1 X118.90 Y180.74 E70.77043
G1 X118.56 Y180.75 E70.78836
G1 X117.15 Y180.72 E70.86235
G1 X104.40 Y179.87 E71.53181
G1 X104.40 Y125.24 E74.39333
G0 F12000 X104.82 Y125.64
G1 F1800 X117.63 Y124.94 E75.06521
G1 X118.52 Y124.93 E75.11189
G1 X119.77 Y124.96 E75.17771
G1 X121.12 Y125.05 E75.24844
G1 X122.48 Y125.22 E75.32000
G1 X123.82 Y125.45 E75.39144
G1 X125.16 Y125.75 E75.46315
G1 X126.03 Y125.99 E75.51043
G1 X126.25 Y126.02 E75.52203
G1 X127.57 Y126.29 E75.59280
G1 X128.87 Y126.62 E75.66289
G1 X130.14 Y127.01 E75.73265
G1 X131.39 Y127.46 E75.80246
G1 X132.63 Y127.98 E75.87251
G1 X133.83 Y128.55 E75.94215
G1 X135.00 Y129.18 E76.01204
G1 X136.15 Y129.86 E76.08197
G1 X137.20 Y130.57 E76.14832
G1 X137.88 Y131.06 E76.19250
G1 X138.85 Y131.82 E76.25672
G1 X139.86 Y132.69 E76.32677
G1 X140.65 Y133.45 E76.38405
G1 X179.52 Y131.22 E78.42342
G1 X179.52 Y131.22 E78.42347
G1 X180.03 Y131.19 E78.45050
G1 X180.38 Y131.11 E78.46930
G1 X182.63 Y131.05 E78.58726
G1 X183.88 Y131.01 E78.65272
G1 X186.04 Y131.38 E78.76721
G1 X186.04 Y131.38 E78.76726
G1 X187.33 Y131.59 E78.83565
G1 X189.40 Y132.41 E78.95230
G1 X190.59 Y132.86 E79.01911
G1 X192.57 Y134.15 E79.14269
G1 X193.62 Y134.85 E79.20910
G1 X195.99 Y137.16 E79.38261
G1 X197.25 Y138.97 E79.49789
G1 X197.98 Y140.01 E79.56439
G1 X198.86 Y142.07 E79.68177
G1 X199.34 Y143.15 E79.74379
G1 X200.06 Y146.46 E79.92123
G1 X200.13 Y148.66 E80.03669
G1 X200.16 Y149.91 E80.10209
G1 X199.62 Y153.21 E80.27694
G1 X198.86 Y155.30 E80.39347
G1 X198.41 Y156.49 E80.46020
G1 X197.35 Y158.22 E80.56666
G1 X196.68 Y159.36 E80.63563
G1 X196.42 Y159.65 E80.65628
G1 X196.77 Y165.47 E80.96198
G1 X185.30 Y166.20 E81.56382
G1 X184.92 Y166.29 E81.58439
G1 X182.95 Y166.35 E81.68769
G1 X143.24 Y168.94 E83.77258
G1 X143.15 Y169.06 E83.78023
G1 X142.31 Y170.10 E83.85012
G1 X141.42 Y171.10 E83.92028
G1 X140.49 Y172.05 E83.99000
G1 X139.51 Y172.95 E84.05958
G1 X138.48 Y173.81 E84.13009
G1 X137.41 Y174.62 E84.20028
G1 X136.32 Y175.37 E84.26950
G1 X135.19 Y176.06 E84.33930
G1 X134.01 Y176.71 E84.40926
G1 X132.82 Y177.29 E84.47889
G1 X131.60 Y177.81 E84.54830
G1 X130.36 Y178.28 E84.61783
G1 X129.07 Y178.68 E84.68840
G1 X127.79 Y179.02 E84.75788
G1 X126.49 Y179.30 E84.82775
G1 X125.17 Y179.52 E84.89750
G1 X125.04 Y179.53 E84.90472
G1 X123.91 Y179.79 E84.96530
G1 X122.57 Y180.03 E85.03663
G1 X121.22 Y180.19 E85.10790
G1 X119.86 Y180.30 E85.17935
G1 X118.89 Y180.32 E85.23034
G1 X118.56 Y180.34 E85.24748
G1 X117.17 Y180.30 E85.32031
G1 X104.82 Y179.47 E85.96872
G1 X104.82 Y125.64 E88.78890
G0 F12000 X105.24 Y126.03
G1 F1800 X117.64 Y125.36 E89.43949
G1 X118.52 Y125.35 E89.48533
G1 X119.75 Y125.38 E89.55020
G1 X121.08 Y125.47 E89.61984
G1 X122.42 Y125.64 E89.69034
G1 X123.74 Y125.86 E89.76066
G1 X125.05 Y126.16 E89.83130
G1 X125.94 Y126.40 E89.87957
G1 X126.17 Y126.44 E89.89174
G1 X127.48 Y126.70 E89.96144
G1 X128.75 Y127.02 E90.03046
G1 X130.01 Y127.41 E90.09911
G1 X131.24 Y127.85 E90.16787
G1 X132.46 Y128.36 E90.23682
G1 X133.64 Y128.92 E90.30543
G1 X134.80 Y129.54 E90.37419
G1 X135.92 Y130.22 E90.44309
G1 X136.96 Y130.91 E90.50845
G1 X137.63 Y131.40 E90.55184
G1 X138.58 Y132.14 E90.61510
G1 X139.58 Y133.00 E90.68411
G1 X140.50 Y133.88 E90.75044
G1 X179.54 Y131.64 E92.79904
G1 X180.09 Y131.61 E92.82821
G1 X180.44 Y131.53 E92.84680
G1 X182.65 Y131.47 E92.96288
G1 X182.65 Y131.47 E92.96293
G1 X183.85 Y131.44 E93.02582
G1 X185.94 Y131.79 E93.13664
G1 X187.21 Y132.00 E93.20425
G1 X189.23 Y132.79 E93.31791
G1 X190.40 Y133.24 E93.38332
G1 X192.34 Y134.50 E93.50440
G1 X193.36 Y135.18 E93.56866
G1 X195.67 Y137.44 E93.73799
G1 X196.88 Y139.18 E93.84903
G1 X197.61 Y140.22 E93.91553
G1 X198.44 Y142.15 E94.02573
G1 X198.94 Y143.28 E94.09065
G1 X199.64 Y146.51 E94.26385
G1 X199.71 Y148.68 E94.37721
G1 X199.74 Y149.88 E94.44046
G1 X199.21 Y153.10 E94.61117
G1 X198.46 Y155.15 E94.72558
G1 X198.03 Y156.31 E94.79013
G1 X196.91 Y158.14 E94.90272
G1 X196.34 Y159.10 E94.96142
G1 X195.99 Y159.49 E94.98911
G1 X196.32 Y165.08 E95.28227
G1 X185.24 Y165.78 E95.86395
G1 X184.87 Y165.87 E95.88420
G1 X182.94 Y165.93 E95.98525
G1 X143.01 Y168.53 E98.08127
G1 X142.81 Y168.80 E98.09870
G1 X141.99 Y169.83 E98.16751
G1 X141.12 Y170.81 E98.23657
G1 X140.20 Y171.75 E98.30517
G1 X139.24 Y172.63 E98.37375
G1 X138.22 Y173.49 E98.44310
G1 X137.17 Y174.28 E98.51222
G1 X136.09 Y175.01 E98.58045
G1 X134.97 Y175.70 E98.64915
G1 X133.82 Y176.33 E98.71802
G1 X132.65 Y176.91 E98.78655
G1 X131.45 Y177.42 E98.85494
G1 X130.22 Y177.88 E98.92345
G1 X128.96 Y178.28 E98.99293
G1 X127.69 Y178.61 E99.06131
G1 X126.41 Y178.89 E99.13011
G1 X125.12 Y179.10 E99.19880
G1 X124.97 Y179.12 E99.20682
G1 X123.83 Y179.38 E99.26795
G1 X122.51 Y179.61 E99.33821
G1 X121.18 Y179.78 E99.40837
G1 X119.84 Y179.88 E99.47877
G1 X118.86 Y179.90 E99.52986
G1 X118.56 Y179.91 E99.54595
G1 X117.19 Y179.88 E99.61758
G1 X105.24 Y179.08 E100.24494
G1 X105.24 Y126.03 E103.02369
G0 F12000 X105.66 Y126.43
G1 F1800 X117.66 Y125.78 E103.65302
G1 X118.51 Y125.77 E103.69797
G1 X119.73 Y125.80 E103.76190
G1 X121.04 Y125.89 E103.83048
G1 X122.35 Y126.05 E103.89988
G1 X123.66 Y126.27 E103.96913
G1 X124.95 Y126.56 E104.03865
G1 X125.86 Y126.81 E104.08772
G1 X126.10 Y126.85 E104.10065
G1 X127.38 Y127.11 E104.16922
G1 X128.64 Y127.43 E104.23721
G1 X129.87 Y127.81 E104.30477
G1 X131.09 Y128.25 E104.37248
G1 X132.28 Y128.74 E104.44034
G1 X133.45 Y129.30 E104.50785
G1 X134.59 Y129.91 E104.57561
G1 X135.70 Y130.57 E104.64337
G1 X136.72 Y131.26 E104.70782
G1 X137.38 Y131.74 E104.75040
G1 X138.31 Y132.47 E104.81271
G1 X139.30 Y133.31 E104.88061
G1 X140.23 Y134.21 E104.94812
G1 X140.33 Y134.31 E104.95556
G1 X179.56 Y132.06 E107.01430
G1 X180.16 Y132.03 E107.04567
G1 X180.49 Y131.95 E107.06368
G1 X182.66 Y131.89 E107.17703
G1 X183.82 Y131.86 E107.23818
G1 X185.87 Y132.20 E107.34693
G1 X187.10 Y132.41 E107.41226
G1 X189.13 Y133.20 E107.52643
G1 X190.21 Y133.62 E107.58684
G1 X192.11 Y134.85 E107.70553
G1 X193.09 Y135.50 E107.76756
G1 X195.35 Y137.71 E107.93277
G1 X196.56 Y139.45 E108.04384
G1 X197.24 Y140.42 E108.10598
G1 X198.09 Y142.40 E108.21897
G1 X198.54 Y143.41 E108.27688
G1 X199.22 Y146.57 E108.44583
G1 X199.29 Y148.69 E108.55710
G1 X199.32 Y149.85 E108.61820
G1 X198.80 Y152.99 E108.78477
G1 X198.07 Y155.01 E108.89708
G1 X197.66 Y156.12 E108.95938
G1 X196.60 Y157.85 E109.06558
G1 X196.00 Y158.85 E109.12656
G1 X195.56 Y159.34 E109.16130
G1 X195.88 Y164.69 E109.44186
G1 X185.18 Y165.36 E110.00365
G1 X184.81 Y165.45 E110.02341
G1 X182.90 Y165.51 E110.12367
G1 X142.79 Y168.13 E112.22924
G1 X142.48 Y168.55 E112.25658
G1 X141.67 Y169.56 E112.32423
G1 X140.81 Y170.53 E112.39225
G1 X139.90 Y171.44 E112.45981
G1 X138.96 Y172.32 E112.52728
G1 X137.96 Y173.16 E112.59556
G1 X136.92 Y173.94 E112.66359
G1 X135.86 Y174.66 E112.73073
G1 X134.76 Y175.34 E112.79839
G1 X133.63 Y175.96 E112.86616
G1 X132.47 Y176.52 E112.93366
G1 X131.29 Y177.03 E113.00097
G1 X130.08 Y177.48 E113.06842
G1 X128.84 Y177.88 E113.13680
G1 X127.60 Y178.21 E113.20416
G1 X126.33 Y178.48 E113.27189
G1 X125.06 Y178.69 E113.33951
G1 X124.90 Y178.70 E113.34795
G1 X123.74 Y178.97 E113.40999
G1 X122.44 Y179.19 E113.47913
G1 X121.14 Y179.36 E113.54824
G1 X119.82 Y179.46 E113.61753
G1 X118.89 Y179.48 E113.66626
G1 X118.55 Y179.49 E113.68377
G1 X117.21 Y179.46 E113.75425
G1 X105.66 Y178.69 E114.36055
G1 X105.66 Y152.81 E115.71632
G1 X110.55 Y152.81 E115.97243
G1 X110.60 Y152.65 E115.98106
G1 X110.54 Y152.45 E115.99180
G1 X105.66 Y152.45 E116.24738
G1 X105.66 Y126.43 E117.61043
G0 F12000 X106.08 Y126.83
G1 F1800 X117.67 Y126.20 E118.21847
G1 X118.51 Y126.19 E118.26258
G1 X119.71 Y126.22 E118.32551
G1 X121.00 Y126.31 E118.39310
G1 X122.29 Y126.47 E118.46139
G1 X123.58 Y126.69 E118.52958
G1 X124.85 Y126.97 E118.59803
G1 X125.77 Y127.23 E118.64797
G1 X126.03 Y127.26 E118.66153
G1 X127.29 Y127.52 E118.72903
G1 X128.53 Y127.83 E118.79588
G1 X129.74 Y128.21 E118.86245
G1 X130.94 Y128.64 E118.92904
G1 X132.11 Y129.13 E118.99585
G1 X133.26 Y129.67 E119.06230
G1 X134.38 Y130.27 E119.12893
G1 X135.47 Y130.93 E119.19566
G1 X136.48 Y131.60 E119.25914
G1 X137.12 Y132.07 E119.30089
G1 X138.05 Y132.79 E119.36231
G1 X139.01 Y133.63 E119.42913
G1 X139.93 Y134.50 E119.49556
G1 X140.16 Y134.74 E119.51264
G1 X179.59 Y132.48 E121.58155
G1 X180.22 Y132.44 E121.61508
G1 X180.55 Y132.37 E121.63259
G1 X182.67 Y132.31 E121.74364
G1 X183.79 Y132.28 E121.80264
G1 X185.80 Y132.62 E121.90928
G1 X185.80 Y132.62 E121.90933
G1 X186.99 Y132.81 E121.97232
G1 X188.95 Y133.59 E122.08289
G1 X190.02 Y133.99 E122.14250
G1 X191.88 Y135.20 E122.25873
G1 X192.83 Y135.83 E122.31860
G1 X195.03 Y137.98 E122.47963
G1 X196.19 Y139.66 E122.58660
G1 X196.87 Y140.63 E122.64862
G1 X197.70 Y142.56 E122.75859
G1 X198.13 Y143.55 E122.81521
G1 X198.81 Y146.62 E122.97989
G1 X198.87 Y148.70 E123.08916
G1 X198.90 Y149.83 E123.14807
G1 X198.40 Y152.88 E123.31049
G1 X197.68 Y154.86 E123.42068
G1 X197.28 Y155.94 E123.48079
G1 X196.22 Y157.67 E123.58702
G1 X195.66 Y158.60 E123.64384
G1 X195.13 Y159.19 E123.68566
G1 X195.44 Y164.29 E123.95357
G1 X185.12 Y164.95 E124.49526
G1 X184.75 Y165.03 E124.51470
G1 X182.86 Y165.09 E124.61407
G1 X142.56 Y167.72 E126.72935
G1 X142.15 Y168.29 E126.76640
G1 X141.35 Y169.28 E126.83306
G1 X140.50 Y170.24 E126.89995
G1 X139.61 Y171.14 E126.96641
G1 X138.68 Y172.00 E127.03284
G1 X137.70 Y172.83 E127.10000
G1 X136.68 Y173.60 E127.16698
G1 X135.63 Y174.31 E127.23310
G1 X134.55 Y174.97 E127.29963
G1 X133.44 Y175.59 E127.36640
G1 X132.30 Y176.14 E127.43279
G1 X131.13 Y176.64 E127.49907
G1 X129.95 Y177.08 E127.56541
G1 X128.72 Y177.47 E127.63274
G1 X127.50 Y177.80 E127.69901
G1 X126.25 Y178.06 E127.76567
G1 X125.00 Y178.27 E127.83223
G1 X124.83 Y178.29 E127.84109
G1 X123.66 Y178.55 E127.90399
G1 X122.38 Y178.78 E127.97207
G1 X121.09 Y178.94 E128.04012
G1 X119.80 Y179.04 E128.10831
G1 X118.87 Y179.06 E128.15699
G1 X118.55 Y179.07 E128.17366
G1 X117.23 Y179.04 E128.24293
G1 X106.08 Y178.29 E128.82818
G1 X106.08 Y153.23 E130.14136
G1 X110.86 Y153.23 E130.39155
G1 X111.04 Y152.65 E130.42316
G1 X110.85 Y152.03 E130.45700
G1 X106.08 Y152.03 E130.70693
G1 X106.08 Y126.83 E132.02713
G0 F12000 X106.50 Y127.23
G1 F1800 X117.68 Y126.62 E132.61392
G1 X118.51 Y126.61 E132.65714
G1 X119.69 Y126.64 E132.71913
G1 X120.96 Y126.73 E132.78567
G1 X122.23 Y126.88 E132.85285
G1 X123.49 Y127.10 E132.91992
G1 X124.75 Y127.38 E132.98729
G1 X125.68 Y127.64 E133.03768
G1 X125.95 Y127.68 E133.05240
G1 X127.20 Y127.93 E133.11879
G1 X128.41 Y128.24 E133.18456
G1 X129.61 Y128.60 E133.25003
G1 X130.78 Y129.03 E133.31557
G1 X131.94 Y129.51 E133.38130
G1 X133.07 Y130.05 E133.44665
G1 X134.17 Y130.64 E133.51225
G1 X135.25 Y131.28 E133.57790
G1 X136.24 Y131.95 E133.64043
G1 X136.87 Y132.41 E133.68135
G1 X137.78 Y133.12 E133.74184
G1 X138.73 Y133.94 E133.80758
G1 X139.63 Y134.80 E133.87294
G1 X139.99 Y135.17 E133.89973
G1 X179.61 Y132.90 E135.97877
G1 X180.28 Y132.86 E136.01387
G1 X180.60 Y132.78 E136.03143
G1 X182.68 Y132.73 E136.14022
G1 X183.76 Y132.70 E136.19703
G1 X185.76 Y133.03 E136.30291
G1 X186.88 Y133.22 E136.36229
G1 X188.79 Y133.97 E136.46994
G1 X189.82 Y134.37 E136.52804
G1 X191.65 Y135.55 E136.64177
G1 X192.56 Y136.16 E136.69942
G1 X194.71 Y138.25 E136.85638
G1 X195.85 Y139.90 E136.96131
G1 X196.50 Y140.83 E137.02104
G1 X197.30 Y142.70 E137.12758
G1 X197.73 Y143.68 E137.18340
G1 X198.39 Y146.67 E137.34384
G1 X198.45 Y148.71 E137.45101
G1 X198.48 Y149.80 E137.50777
G1 X197.99 Y152.78 E137.66605
G1 X197.28 Y154.72 E137.77411
G1 X196.90 Y155.75 E137.83206
G1 X195.86 Y157.45 E137.93617
G1 X195.33 Y158.35 E137.99099
G1 X194.70 Y159.04 E138.03986
G1 X194.99 Y163.90 E138.29512
G1 X185.05 Y164.53 E138.81692
G1 X184.70 Y164.61 E138.83583
G1 X182.85 Y164.67 E138.93278
G1 X142.34 Y167.31 E141.05935
G1 X141.81 Y168.04 E141.10619
G1 X141.03 Y169.01 E141.17172
G1 X140.19 Y169.95 E141.23755
G1 X139.32 Y170.84 E141.30296
G1 X138.40 Y171.69 E141.36832
G1 X137.44 Y172.50 E141.43440
G1 X136.43 Y173.26 E141.50026
G1 X135.41 Y173.96 E141.56529
G1 X134.34 Y174.61 E141.63079
G1 X133.24 Y175.21 E141.69647
G1 X132.12 Y175.76 E141.76182
G1 X130.98 Y176.25 E141.82701
G1 X129.81 Y176.69 E141.89234
G1 X128.60 Y177.07 E141.95852
G1 X127.40 Y177.39 E142.02372
G1 X126.18 Y177.65 E142.08935
G1 X124.94 Y177.85 E142.15485
G1 X124.76 Y177.88 E142.16466
G1 X123.58 Y178.14 E142.22793
G1 X122.32 Y178.36 E142.29496
G1 X121.05 Y178.52 E142.36189
G1 X119.77 Y178.62 E142.42898
G1 X118.78 Y178.64 E142.48096
G1 X118.55 Y178.65 E142.49339
G1 X117.25 Y178.62 E142.56151
G1 X106.50 Y177.90 E143.12570
G1 X106.50 Y153.65 E144.39635
G1 X111.16 Y153.65 E144.64062
G1 X111.48 Y152.65 E144.69514
G1 X111.16 Y151.61 E144.75214
G1 X106.50 Y151.61 E144.99631
G1 X106.50 Y127.23 E146.27366
G0 F12000 X106.92 Y127.63
G1 F1800 X117.70 Y127.04 E146.83920
G1 X118.51 Y127.03 E146.88153
G1 X119.67 Y127.06 E146.94258
G1 X120.92 Y127.14 E147.00801
G1 X122.17 Y127.30 E147.07414
G1 X123.41 Y127.51 E147.14015
G1 X124.65 Y127.79 E147.20639
G1 X125.59 Y128.05 E147.25769
G1 X125.88 Y128.09 E147.27305
G1 X127.10 Y128.34 E147.33831
G1 X128.30 Y128.64 E147.40306
G1 X129.47 Y129.00 E147.46745
G1 X130.63 Y129.42 E147.53192
G1 X131.77 Y129.89 E147.59655
G1 X132.88 Y130.42 E147.66087
G1 X133.97 Y131.00 E147.72537
G1 X135.02 Y131.64 E147.78993
G1 X136.00 Y132.29 E147.85148
G1 X136.62 Y132.74 E147.89161
G1 X137.51 Y133.44 E147.95121
G1 X138.45 Y134.25 E148.01583
G1 X139.34 Y135.09 E148.08012
G1 X139.82 Y135.60 E148.11658
G1 X179.63 Y133.32 E150.20585
G1 X180.34 Y133.28 E150.24310
G1 X180.66 Y133.20 E150.26013
G1 X182.69 Y133.15 E150.36656
G1 X183.74 Y133.12 E150.42127
G1 X185.66 Y133.44 E150.52370
G1 X186.76 Y133.63 E150.58206
G1 X188.67 Y134.38 E150.68932
G1 X189.63 Y134.74 E150.74338
G1 X191.41 Y135.90 E150.85465
G1 X192.30 Y136.49 E150.91018
G1 X194.38 Y138.53 E151.06295
G1 X195.50 Y140.14 E151.16589
G1 X196.13 Y141.04 E151.22332
G1 X196.90 Y142.83 E151.32540
G1 X197.33 Y143.81 E151.38146
G1 X197.97 Y146.72 E151.53766
G1 X198.03 Y148.73 E151.64274
G1 X198.06 Y149.77 E151.69735
G1 X197.58 Y152.67 E151.85149
G1 X196.89 Y154.57 E151.95743
G1 X196.52 Y155.57 E152.01316
G1 X195.51 Y157.21 E152.11388
G1 X194.99 Y158.10 E152.16797
G1 X194.27 Y158.88 E152.22388
G1 X194.55 Y163.51 E152.46661
G1 X184.99 Y164.11 E152.96825
G1 X184.64 Y164.19 E152.98687
G1 X182.84 Y164.25 E153.08163
G1 X142.12 Y166.91 E155.21922
G1 X141.48 Y167.78 E155.27577
G1 X140.71 Y168.74 E155.34027
G1 X139.89 Y169.66 E155.40501
G1 X139.03 Y170.54 E155.46932
G1 X138.13 Y171.37 E155.53360
G1 X137.17 Y172.17 E155.59864
G1 X136.19 Y172.91 E155.66337
G1 X135.18 Y173.60 E155.72739
G1 X134.13 Y174.25 E155.79181
G1 X133.05 Y174.84 E155.85642
G1 X131.95 Y175.38 E155.92071
G1 X130.82 Y175.86 E155.98482
G1 X129.67 Y176.29 E156.04909
G1 X128.49 Y176.67 E156.11421
G1 X127.30 Y176.98 E156.17833
G1 X126.10 Y177.24 E156.24290
G1 X124.89 Y177.44 E156.30733
G1 X124.69 Y177.46 E156.31762
G1 X124.69 Y177.46 E156.31788
G1 X123.50 Y177.73 E156.38174
G1 X122.26 Y177.95 E156.44765
G1 X121.01 Y178.10 E156.51353
G1 X119.75 Y178.20 E156.57957
G1 X118.81 Y178.22 E156.62877
G1 X118.54 Y178.23 E156.64303
G1 X117.26 Y178.20 E156.70995
G1 X106.92 Y177.51 E157.25309
G1 X106.92 Y154.07 E158.48114
G1 X111.47 Y154.07 E158.71949
G1 X111.93 Y152.62 E158.79898
G1 X111.87 Y152.51 E158.80524
G1 X111.47 Y151.19 E158.87757
G1 X106.92 Y151.19 E159.11608
G1 X106.92 Y127.63 E160.35063
G0 F12000 X107.34 Y128.02
G1 F1800 X117.71 Y127.46 E160.89487
G1 X118.50 Y127.45 E160.93636
G1 X119.65 Y127.48 E160.99647
G1 X120.88 Y127.56 E161.06085
G1 X122.11 Y127.71 E161.12587
G1 X123.33 Y127.92 E161.19076
G1 X124.55 Y128.19 E161.25592
G1 X125.51 Y128.46 E161.30821
G1 X125.81 Y128.50 E161.32415
G1 X127.01 Y128.75 E161.38834
G1 X128.19 Y129.05 E161.45201
G1 X129.34 Y129.40 E161.51529
G1 X130.48 Y129.81 E161.57870
G1 X131.60 Y130.28 E161.64227
G1 X132.69 Y130.80 E161.70554
G1 X133.76 Y131.37 E161.76895
G1 X134.80 Y131.99 E161.83240
G1 X135.76 Y132.64 E161.89304
G1 X136.37 Y133.08 E161.93235
G1 X137.25 Y133.77 E161.99098
G1 X138.17 Y134.56 E162.05456
G1 X139.04 Y135.39 E162.11777
G1 X139.65 Y136.03 E162.16387
G1 X179.66 Y133.74 E164.26337
G1 X180.41 Y133.70 E164.30272
G1 X180.72 Y133.62 E164.31927
G1 X182.70 Y133.57 E164.42345
G1 X183.71 Y133.54 E164.47596
G1 X185.59 Y133.86 E164.57631
G1 X186.65 Y134.03 E164.63239
G1 X188.51 Y134.77 E164.73718
G1 X189.44 Y135.12 E164.78928
G1 X191.18 Y136.25 E164.89805
G1 X192.03 Y136.82 E164.95139
G1 X194.06 Y138.80 E165.10004
G1 X195.16 Y140.38 E165.20095
G1 X195.76 Y141.24 E165.25613
G1 X196.55 Y143.08 E165.36068
G1 X196.93 Y143.94 E165.40998
G1 X197.55 Y146.77 E165.56195
G1 X197.61 Y148.74 E165.66493
G1 X197.64 Y149.74 E165.71744
G1 X197.17 Y152.56 E165.86738
G1 X196.49 Y154.43 E165.97121
G1 X196.14 Y155.38 E166.02475
G1 X195.15 Y156.99 E166.12359
G1 X194.65 Y157.84 E166.17543
G1 X193.84 Y158.73 E166.23842
G1 X194.10 Y163.12 E166.46850
G1 X184.93 Y163.69 E166.94998
G1 X184.59 Y163.78 E166.96834
G1 X182.82 Y163.83 E167.06068
G1 X141.89 Y166.50 E169.20967
G1 X141.86 Y166.55 E169.21262
G1 X141.15 Y167.53 E169.27592
G1 X140.39 Y168.47 E169.33929
G1 X139.58 Y169.38 E169.40296
G1 X138.73 Y170.24 E169.46623
G1 X137.85 Y171.06 E169.52943
G1 X136.91 Y171.84 E169.59332
G1 X135.94 Y172.57 E169.65701
G1 X134.95 Y173.25 E169.71997
G1 X133.92 Y173.88 E169.78330
G1 X132.86 Y174.47 E169.84685
G1 X131.77 Y175.00 E169.91004
G1 X130.66 Y175.47 E169.97317
G1 X129.53 Y175.89 E170.03633
G1 X128.37 Y176.26 E170.10036
G1 X127.21 Y176.57 E170.16343
G1 X126.02 Y176.83 E170.22693
G1 X124.83 Y177.02 E170.29031
G1 X124.61 Y177.05 E170.30185
G1 X124.58 Y177.05 E170.30316
G1 X123.41 Y177.32 E170.36606
G1 X122.19 Y177.53 E170.43090
G1 X120.97 Y177.69 E170.49567
G1 X119.73 Y177.78 E170.56061
G1 X118.79 Y177.80 E170.60992
G1 X118.54 Y177.81 E170.62313
G1 X117.28 Y177.78 E170.68889
G1 X107.34 Y177.12 E171.21098
G1 X107.34 Y154.49 E172.39644
G1 X111.78 Y154.49 E172.62887
G1 X112.35 Y152.69 E172.72760
G1 X112.39 Y152.60 E172.73273
G1 X112.27 Y152.35 E172.74742
G1 X111.78 Y150.77 E172.83406
G1 X107.34 Y150.77 E173.06685
G1 X107.34 Y128.02 E174.25855
G0 F12000 X107.76 Y128.42
G1 F1800 X117.73 Y127.88 E174.78155
G1 X118.50 Y127.87 E174.82210
G1 X119.63 Y127.90 E174.88131
G1 X120.84 Y127.98 E174.94464
G1 X122.05 Y128.13 E175.00855
G1 X123.25 Y128.34 E175.07239
G1 X124.44 Y128.60 E175.13643
G1 X125.42 Y128.87 E175.18948
G1 X125.73 Y128.92 E175.20621
G1 X126.92 Y129.16 E175.26932
G1 X128.07 Y129.45 E175.33186
G1 X129.21 Y129.80 E175.39411
G1 X130.33 Y130.20 E175.45646
G1 X131.43 Y130.66 E175.51895
G1 X132.50 Y131.17 E175.58112
G1 X133.55 Y131.73 E175.64346
G1 X134.57 Y132.35 E175.70587
G1 X135.52 Y132.98 E175.76554
G1 X136.11 Y133.41 E175.80406
G1 X136.98 Y134.09 E175.86179
G1 X137.88 Y134.87 E175.92422
G1 X138.74 Y135.69 E175.98635
G1 X139.48 Y136.46 E176.04212
G1 X179.69 Y134.16 E178.15201
G1 X179.69 Y134.16 E178.15206
G1 X180.46 Y134.11 E178.19283
G1 X180.77 Y134.04 E178.20938
G1 X182.72 Y133.99 E178.31162
G1 X182.72 Y133.99 E178.31167
G1 X183.68 Y133.96 E178.36172
G1 X185.55 Y134.28 E178.46112
G1 X185.55 Y134.28 E178.46117
G1 X186.54 Y134.44 E178.51374
G1 X188.31 Y135.14 E178.61330
G1 X189.25 Y135.50 E178.66618
G1 X190.95 Y136.60 E178.77256
G1 X191.77 Y137.14 E178.82371
G1 X193.74 Y139.07 E178.96814
G1 X194.81 Y140.62 E179.06706
G1 X194.82 Y140.62 E179.06711
G1 X195.40 Y141.45 E179.11999
G1 X196.16 Y143.22 E179.22111
G1 X196.53 Y144.07 E179.26962
G1 X197.13 Y146.82 E179.41734
G1 X197.19 Y148.75 E179.51823
G1 X197.22 Y149.71 E179.56859
G1 X196.76 Y152.46 E179.71439
G1 X196.10 Y154.28 E179.81610
G1 X195.76 Y155.20 E179.86746
G1 X194.79 Y156.78 E179.96419
G1 X194.31 Y157.59 E180.01403
G1 X193.41 Y158.58 E180.08403
G1 X193.66 Y162.72 E180.30151
G1 X184.87 Y163.28 E180.76278
G1 X184.53 Y163.36 E180.78093
G1 X182.81 Y163.41 E180.87102
G1 X141.65 Y166.10 E183.03182
G1 X141.51 Y166.31 E183.04517
G1 X140.81 Y167.27 E183.10739
G1 X140.07 Y168.20 E183.16971
G1 X139.27 Y169.09 E183.23227
G1 X138.44 Y169.94 E183.29443
G1 X137.57 Y170.74 E183.35659
G1 X136.65 Y171.51 E183.41941
G1 X135.70 Y172.23 E183.48201
G1 X134.72 Y172.90 E183.54387
G1 X133.71 Y173.52 E183.60617
G1 X132.66 Y174.09 E183.66865
G1 X131.60 Y174.61 E183.73078
G1 X130.51 Y175.08 E183.79283
G1 X129.40 Y175.50 E183.85498
G1 X128.25 Y175.86 E183.91792
G1 X127.11 Y176.16 E183.97991
G1 X125.94 Y176.41 E184.04233
G1 X124.77 Y176.60 E184.10464
G1 X124.53 Y176.63 E184.11746
G1 X124.48 Y176.65 E184.11985
G1 X123.33 Y176.91 E184.18172
G1 X122.13 Y177.12 E184.24545
G1 X120.92 Y177.27 E184.30917
G1 X119.71 Y177.36 E184.37300
G1 X118.76 Y177.38 E184.42288
G1 X118.53 Y177.39 E184.43463
G1 X117.30 Y177.37 E184.49918
G1 X107.76 Y176.72 E185.00022
G1 X107.76 Y154.91 E186.14310
G1 X112.08 Y154.91 E186.36966
G1 X112.73 Y152.86 E186.48233
G1 X112.87 Y152.61 E186.49699
G1 X112.66 Y152.20 E186.52147
G1 X112.09 Y150.35 E186.62238
G1 X107.76 Y150.35 E186.84952
G1 X107.76 Y128.42 E187.99836
G0 F12000 X108.18 Y128.82
G1 F1800 X117.74 Y128.30 E188.50006
G1 X118.50 Y128.29 E188.53977
G1 X119.61 Y128.32 E188.59804
G1 X120.80 Y128.40 E188.66033
G1 X121.99 Y128.54 E188.72313
G1 X123.17 Y128.75 E188.78589
G1 X124.34 Y129.01 E188.84881
G1 X125.34 Y129.28 E188.90287
G1 X125.66 Y129.33 E188.92020
G1 X126.82 Y129.57 E188.98213
G1 X127.96 Y129.86 E189.04364
G1 X129.08 Y130.20 E189.10484
G1 X130.18 Y130.59 E189.16610
G1 X131.26 Y131.04 E189.22748
G1 X132.31 Y131.55 E189.28862
G1 X133.34 Y132.10 E189.34990
G1 X134.35 Y132.70 E189.41121
G1 X135.28 Y133.32 E189.46989
G1 X135.86 Y133.75 E189.50763
G1 X136.72 Y134.41 E189.56439
G1 X137.60 Y135.18 E189.62578
G1 X138.44 Y135.99 E189.68684
G1 X139.25 Y136.83 E189.74817
G1 X139.30 Y136.89 E189.75210
G1 X179.71 Y134.58 E191.87223
G1 X180.53 Y134.53 E191.91541
G1 X180.83 Y134.46 E191.93142
G1 X182.73 Y134.41 E192.03099
G1 X183.65 Y134.38 E192.07920
G1 X185.48 Y134.69 E192.17647
G1 X186.43 Y134.85 E192.22682
G1 X188.21 Y135.55 E192.32716
G1 X189.06 Y135.87 E192.37483
G1 X190.72 Y136.95 E192.47872
G1 X191.50 Y137.47 E192.52764
G1 X193.42 Y139.34 E192.66800
G1 X194.47 Y140.86 E192.76491
G1 X195.03 Y141.66 E192.81554
G1 X195.75 Y143.34 E192.91143
G1 X196.13 Y144.20 E192.96089
G1 X196.71 Y146.88 E193.10433
G1 X196.77 Y148.76 E193.20318
G1 X196.80 Y149.68 E193.25139
G1 X196.36 Y152.35 E193.39300
G1 X195.70 Y154.14 E193.49264
G1 X195.38 Y155.01 E193.54175
G1 X194.41 Y156.61 E193.63949
G1 X193.97 Y157.34 E193.68423
G1 X192.97 Y158.43 E193.76135
G1 X193.21 Y162.33 E193.96619
G1 X184.80 Y162.86 E194.40757
G1 X184.48 Y162.94 E194.42518
G1 X182.77 Y162.99 E194.51438
G1 X141.42 Y165.69 E196.68552
G1 X141.17 Y166.07 E196.70939
G1 X140.48 Y167.02 E196.77048
G1 X139.75 Y167.93 E196.83173
G1 X138.97 Y168.80 E196.89317
G1 X138.15 Y169.64 E196.95433
G1 X137.29 Y170.43 E197.01539
G1 X136.39 Y171.18 E197.07711
G1 X135.45 Y171.89 E197.13860
G1 X134.49 Y172.55 E197.19948
G1 X133.50 Y173.16 E197.26068
G1 X132.47 Y173.72 E197.32207
G1 X131.42 Y174.23 E197.38315
G1 X130.35 Y174.69 E197.44412
G1 X129.26 Y175.10 E197.50521
G1 X128.13 Y175.46 E197.56704
G1 X127.01 Y175.75 E197.62800
G1 X125.86 Y176.00 E197.68936
G1 X124.71 Y176.19 E197.75061
G1 X124.45 Y176.22 E197.76432
G1 X124.38 Y176.24 E197.76812
G1 X123.25 Y176.49 E197.82897
G1 X122.07 Y176.70 E197.89163
G1 X120.88 Y176.85 E197.95429
G1 X119.69 Y176.94 E198.01702
G1 X118.80 Y176.96 E198.06381
G1 X118.53 Y176.97 E198.07771
G1 X117.32 Y176.94 E198.14111
G1 X108.18 Y176.33 E198.62109
G1 X108.18 Y155.33 E199.72143
G1 X112.45 Y155.33 E199.94495
G1 X112.48 Y155.06 E199.95908
G1 X113.12 Y153.02 E200.07099
G1 X113.35 Y152.62 E200.09521
G1 X113.05 Y152.04 E200.12942
G1 X112.45 Y150.08 E200.23658
G1 X112.44 Y149.93 E200.24433
G1 X108.18 Y149.93 E200.46727
G1 X108.18 Y128.82 E201.57327
G0 F12000 X108.60 Y129.22
G1 F1800 X117.76 Y128.72 E202.05372
G1 X118.50 Y128.71 E202.09254
G1 X119.59 Y128.74 E202.14987
G1 X120.76 Y128.82 E202.21105
G1 X121.93 Y128.96 E202.27280
G1 X123.09 Y129.16 E202.33444
G1 X124.24 Y129.42 E202.39633
G1 X125.23 Y129.69 E202.45003
G1 X125.24 Y129.69 E202.45079
G1 X125.59 Y129.75 E202.46922
G1 X126.73 Y129.98 E202.53010
G1 X127.85 Y130.26 E202.59053
G1 X128.94 Y130.60 E202.65063
G1 X130.03 Y130.99 E202.71082
G1 X131.09 Y131.43 E202.77114
G1 X132.12 Y131.92 E202.83117
G1 X133.14 Y132.46 E202.89138
G1 X134.12 Y133.06 E202.95163
G1 X135.04 Y133.67 E203.00937
G1 X135.61 Y134.08 E203.04627
G1 X136.45 Y134.74 E203.10214
G1 X137.32 Y135.49 E203.16242
G1 X138.15 Y136.28 E203.22244
G1 X138.94 Y137.12 E203.28269
G1 X139.12 Y137.32 E203.29691
G1 X179.73 Y135.00 E205.42790
G1 X180.59 Y134.95 E205.47318
G1 X180.88 Y134.88 E205.48870
G1 X182.74 Y134.83 E205.58601
G1 X183.62 Y134.80 E205.63207
G1 X185.39 Y135.10 E205.72606
G1 X186.31 Y135.26 E205.77528
G1 X188.06 Y135.94 E205.87332
G1 X188.87 Y136.25 E205.91885
G1 X190.49 Y137.30 E206.02027
G1 X191.24 Y137.80 E206.06704
G1 X193.09 Y139.62 E206.20321
G1 X194.13 Y141.10 E206.29809
G1 X194.66 Y141.86 E206.34647
G1 X195.40 Y143.59 E206.44486
G1 X195.73 Y144.33 E206.48758
G1 X196.29 Y146.93 E206.62678
G1 X196.35 Y148.78 E206.72358
G1 X196.38 Y149.65 E206.76959
G1 X195.95 Y152.24 E206.90706
G1 X195.31 Y153.99 E207.00459
G1 X195.00 Y154.83 E207.05153
G1 X194.05 Y156.39 E207.14710
G1 X193.63 Y157.09 E207.18985
G1 X192.55 Y158.27 E207.27397
G1 X192.77 Y161.94 E207.46626
G1 X184.74 Y162.44 E207.88764
G1 X184.42 Y162.52 E207.90487
G1 X182.76 Y162.57 E207.99177
G1 X141.18 Y165.29 E210.17467
G1 X140.82 Y165.83 E210.20894
G1 X140.15 Y166.76 E210.26901
G1 X139.43 Y167.66 E210.32915
G1 X138.66 Y168.52 E210.38955
G1 X137.86 Y169.33 E210.44960
G1 X137.01 Y170.11 E210.50962
G1 X136.13 Y170.85 E210.57023
G1 X135.21 Y171.55 E210.63063
G1 X134.26 Y172.19 E210.69042
G1 X133.29 Y172.79 E210.75055
G1 X132.28 Y173.35 E210.81087
G1 X131.25 Y173.85 E210.87092
G1 X130.19 Y174.30 E210.93086
G1 X129.12 Y174.70 E210.99081
G1 X128.02 Y175.05 E211.05156
G1 X126.91 Y175.35 E211.11150
G1 X125.79 Y175.59 E211.17178
G1 X124.65 Y175.77 E211.23197
G1 X124.37 Y175.81 E211.24705
G1 X124.28 Y175.83 E211.25183
G1 X123.17 Y176.08 E211.31167
G1 X122.01 Y176.29 E211.37326
G1 X120.84 Y176.43 E211.43482
G1 X119.67 Y176.52 E211.49649
G1 X118.77 Y176.54 E211.54360
G1 X118.53 Y176.55 E211.55624
G1 X117.34 Y176.53 E211.61843
G1 X108.60 Y175.94 E212.07736
G1 X108.60 Y155.75 E213.13511
G1 X112.82 Y155.75 E213.35639
G1 X112.89 Y155.15 E213.38801
G1 X113.51 Y153.19 E213.49558
G1 X113.82 Y152.62 E213.52941
G1 X113.44 Y151.88 E213.57334
G1 X112.86 Y150.00 E213.67634
G1 X112.82 Y149.51 E213.70182
G1 X108.60 Y149.51 E213.92273
G1 X108.60 Y129.22 E214.98593
G0 F12000 X109.02 Y129.62
G1 F1800 X117.77 Y129.14 E215.44508
G1 X118.50 Y129.13 E215.48306
G1 X119.57 Y129.16 E215.53944
G1 X120.72 Y129.24 E215.59957
G1 X121.87 Y129.38 E215.66021
G1 X123.01 Y129.57 E215.72080
G1 X124.14 Y129.82 E215.78157
G1 X125.11 Y130.09 E215.83455
G1 X125.15 Y130.10 E215.83662
G1 X125.52 Y130.16 E215.85601
G1 X126.64 Y130.39 E215.91576
G1 X127.73 Y130.66 E215.97511
G1 X128.81 Y131.00 E216.03418
G1 X129.87 Y131.38 E216.09330
G1 X130.92 Y131.81 E216.15255
G1 X131.93 Y132.30 E216.21153
G1 X132.93 Y132.83 E216.27066
G1 X133.90 Y133.41 E216.32983
G1 X134.80 Y134.01 E216.38662
G1 X135.35 Y134.42 E216.42270
G1 X136.18 Y135.06 E216.47763
G1 X137.04 Y135.80 E216.53687
G1 X137.85 Y136.58 E216.59578
G1 X138.63 Y137.40 E216.65492
G1 X138.93 Y137.75 E216.67943
G1 X179.76 Y135.42 E218.82154
G1 X179.76 Y135.42 E218.82159
G1 X180.65 Y135.37 E218.86830
G1 X180.94 Y135.30 E218.88386
G1 X182.75 Y135.25 E218.97887
G1 X183.59 Y135.22 E219.02278
G1 X185.32 Y135.52 E219.11465
G1 X185.32 Y135.52 E219.11470
G1 X186.20 Y135.66 E219.16160
G1 X187.86 Y136.32 E219.25517
G1 X188.68 Y136.63 E219.30072
G1 X190.26 Y137.66 E219.39969
G1 X190.97 Y138.13 E219.44426
G1 X192.77 Y139.89 E219.57632
G1 X193.78 Y141.34 E219.66917
G1 X194.29 Y142.07 E219.71529
G1 X194.98 Y143.68 E219.80707
G1 X195.33 Y144.46 E219.85213
G1 X195.88 Y146.98 E219.98710
G1 X195.93 Y148.79 E220.08181
G1 X195.96 Y149.62 E220.12567
G1 X195.54 Y152.13 E220.25899
G1 X194.92 Y153.84 E220.35435
G1 X194.62 Y154.65 E220.39915
G1 X193.71 Y156.13 E220.49052
G1 X193.29 Y156.84 E220.53333
G1 X192.12 Y158.12 E220.62454
G1 X192.32 Y161.54 E220.80418
G1 X184.68 Y162.03 E221.20552
G1 X184.37 Y162.10 E221.22231
G1 X182.75 Y162.15 E221.30690
G1 X140.94 Y164.88 E223.50166
G1 X140.47 Y165.59 E223.54639
G1 X139.81 Y166.50 E223.60534
G1 X139.11 Y167.38 E223.66443
G1 X138.35 Y168.23 E223.72376
G1 X137.56 Y169.03 E223.78269
G1 X136.74 Y169.80 E223.84167
G1 X135.87 Y170.53 E223.90117
G1 X134.96 Y171.21 E223.96052
G1 X134.04 Y171.84 E224.01926
G1 X133.08 Y172.43 E224.07832
G1 X132.08 Y172.97 E224.13756
G1 X131.07 Y173.47 E224.19651
G1 X130.04 Y173.91 E224.25541
G1 X128.99 Y174.30 E224.31436
G1 X127.90 Y174.65 E224.37401
G1 X126.81 Y174.94 E224.43286
G1 X125.71 Y175.18 E224.49207
G1 X124.59 Y175.36 E224.55120
G1 X124.29 Y175.39 E224.56750
G1 X124.18 Y175.42 E224.57335
G1 X123.08 Y175.67 E224.63223
G1 X121.94 Y175.87 E224.69271
G1 X120.80 Y176.01 E224.75320
G1 X119.65 Y176.10 E224.81377
G1 X118.75 Y176.12 E224.86073
G1 X118.52 Y176.13 E224.87258
G1 X117.36 Y176.11 E224.93362
G1 X109.02 Y175.54 E225.37150
G1 X109.02 Y156.17 E226.38666
G1 X113.20 Y156.17 E226.60563
G1 X113.30 Y155.23 E226.65480
G1 X113.90 Y153.35 E226.75803
G1 X114.30 Y152.63 E226.80143
G1 X113.83 Y151.72 E226.85510
G1 X113.28 Y149.91 E226.95393
G1 X113.20 Y149.09 E226.99716
G1 X109.02 Y149.09 E227.21597
G1 X109.02 Y129.62 E228.23632
G0 F12000 X109.44 Y130.01
G1 F1800 X117.79 Y129.56 E228.67422
G1 X118.49 Y129.55 E228.71131
G1 X119.55 Y129.57 E228.76675
G1 X120.68 Y129.65 E228.82583
G1 X121.81 Y129.79 E228.88536
G1 X122.92 Y129.98 E228.94483
G1 X124.04 Y130.23 E229.00452
G1 X125.00 Y130.50 E229.05680
G1 X125.06 Y130.52 E229.06030
G1 X125.44 Y130.57 E229.08053
G1 X126.54 Y130.80 E229.13921
G1 X127.62 Y131.07 E229.19748
G1 X128.68 Y131.39 E229.25544
G1 X129.72 Y131.77 E229.31350
G1 X130.75 Y132.20 E229.37169
G1 X131.75 Y132.67 E229.42962
G1 X132.72 Y133.19 E229.48765
G1 X133.67 Y133.77 E229.54575
G1 X134.56 Y134.36 E229.60156
G1 X135.10 Y134.75 E229.63686
G1 X135.91 Y135.39 E229.69086
G1 X136.75 Y136.12 E229.74902
G1 X137.55 Y136.88 E229.80686
G1 X138.32 Y137.68 E229.86492
G1 X138.75 Y138.19 E229.89980
G1 X179.78 Y135.84 E232.05256
G1 X180.71 Y135.78 E232.10157
G1 X180.99 Y135.72 E232.11660
G1 X182.76 Y135.67 E232.20931
G1 X183.56 Y135.65 E232.25107
G1 X185.27 Y135.93 E232.34187
G1 X186.09 Y136.07 E232.38547
G1 X187.69 Y136.70 E232.47528
G1 X188.49 Y137.00 E232.52015
G1 X190.03 Y138.01 E232.61668
G1 X190.70 Y138.46 E232.65902
G1 X192.45 Y140.16 E232.78694
G1 X193.46 Y141.61 E232.87918
G1 X193.92 Y142.27 E232.92162
G1 X194.61 Y143.89 E233.01386
G1 X194.93 Y144.59 E233.05423
G1 X195.46 Y147.03 E233.18496
G1 X195.51 Y148.80 E233.27757
G1 X195.53 Y149.59 E233.31928
G1 X195.13 Y152.03 E233.44846
G1 X194.52 Y153.70 E233.54169
G1 X194.24 Y154.46 E233.58428
G1 X193.37 Y155.89 E233.67169
G1 X192.95 Y156.59 E233.71439
G1 X191.69 Y157.97 E233.81261
G1 X191.88 Y161.15 E233.97966
G1 X184.61 Y161.61 E234.36099
G1 X184.31 Y161.68 E234.37742
G1 X182.71 Y161.73 E234.46127
G1 X140.71 Y164.47 E236.66622
G1 X140.13 Y165.36 E236.72142
G1 X139.48 Y166.25 E236.77932
G1 X138.78 Y167.11 E236.83729
G1 X138.05 Y167.94 E236.89554
G1 X137.27 Y168.73 E236.95344
G1 X136.46 Y169.48 E237.01131
G1 X135.60 Y170.20 E237.06973
G1 X134.72 Y170.87 E237.12799
G1 X133.81 Y171.49 E237.18567
G1 X132.87 Y172.07 E237.24367
G1 X131.89 Y172.60 E237.30183
G1 X130.90 Y173.09 E237.35972
G1 X129.88 Y173.52 E237.41755
G1 X128.85 Y173.91 E237.47543
G1 X127.78 Y174.25 E237.53398
G1 X126.72 Y174.53 E237.59181
G1 X125.63 Y174.76 E237.64994
G1 X124.54 Y174.94 E237.70801
G1 X124.21 Y174.98 E237.72536
G1 X124.08 Y175.01 E237.73253
G1 X123.00 Y175.26 E237.79038
G1 X121.88 Y175.46 E237.84978
G1 X120.76 Y175.59 E237.90917
G1 X119.62 Y175.68 E237.96865
G1 X118.72 Y175.71 E238.01617
G1 X118.52 Y175.71 E238.02656
G1 X117.38 Y175.69 E238.08640
G1 X109.44 Y175.15 E238.50321
G1 X109.44 Y156.59 E239.47584
G1 X113.58 Y156.59 E239.69250
G1 X113.72 Y155.32 E239.75918
G1 X114.29 Y153.52 E239.85811
G1 X114.77 Y152.63 E239.91112
G1 X114.22 Y151.56 E239.97448
G1 X113.69 Y149.83 E240.06915
G1 X113.58 Y148.67 E240.13011
G1 X109.44 Y148.67 E240.34683
G1 X109.44 Y130.01 E241.32433
G0 F12000 X109.86 Y130.41
G1 F1800 X117.80 Y129.98 E241.74093
G1 X118.49 Y129.97 E241.77718
G1 X119.53 Y129.99 E241.83168
G1 X120.64 Y130.07 E241.88971
G1 X121.74 Y130.21 E241.94813
G1 X122.84 Y130.40 E242.00654
G1 X123.93 Y130.64 E242.06510
G1 X124.88 Y130.90 E242.11673
G1 X124.97 Y130.93 E242.12163
G1 X125.37 Y130.99 E242.14272
G1 X126.45 Y131.21 E242.20028
G1 X127.51 Y131.47 E242.25746
G1 X128.55 Y131.79 E242.31439
G1 X129.57 Y132.16 E242.37134
G1 X130.57 Y132.58 E242.42843
G1 X131.56 Y133.05 E242.48527
G1 X132.51 Y133.56 E242.54227
G1 X133.45 Y134.12 E242.59928
G1 X134.32 Y134.70 E242.65414
G1 X134.85 Y135.09 E242.68864
G1 X135.65 Y135.71 E242.74171
G1 X136.47 Y136.43 E242.79875
G1 X137.26 Y137.17 E242.85552
G1 X138.01 Y137.96 E242.91247
G1 X138.57 Y138.62 E242.95771
G1 X179.80 Y136.25 E245.12133
G1 X180.78 Y136.20 E245.17249
G1 X181.05 Y136.13 E245.18704
G1 X182.77 Y136.09 E245.27744
G1 X183.53 Y136.07 E245.31706
G1 X185.18 Y136.34 E245.40472
G1 X185.98 Y136.48 E245.44699
G1 X187.59 Y137.11 E245.53781
G1 X188.29 Y137.38 E245.57724
G1 X189.80 Y138.36 E245.67133
G1 X190.44 Y138.78 E245.71148
G1 X192.13 Y140.43 E245.83529
G1 X193.09 Y141.83 E245.92407
G1 X193.55 Y142.48 E245.96567
G1 X194.21 Y144.01 E246.05339
G1 X194.52 Y144.72 E246.09403
G1 X195.04 Y147.08 E246.22052
G1 X195.09 Y148.81 E246.31103
G1 X195.11 Y149.57 E246.35060
G1 X194.72 Y151.92 E246.47563
G1 X194.13 Y153.56 E246.56675
G1 X193.86 Y154.28 E246.60716
G1 X192.97 Y155.73 E246.69634
G1 X192.61 Y156.34 E246.73312
G1 X191.26 Y157.82 E246.83841
G1 X191.43 Y160.76 E246.99281
G1 X184.56 Y161.19 E247.35383
G1 X184.25 Y161.26 E247.37015
G1 X182.70 Y161.31 E247.45154
G1 X140.46 Y164.07 E249.66892
G1 X140.38 Y164.21 E249.67716
G1 X139.78 Y165.12 E249.73425
G1 X139.15 Y166.00 E249.79110
G1 X138.46 Y166.84 E249.84803
G1 X137.74 Y167.66 E249.90517
G1 X136.98 Y168.43 E249.96196
G1 X136.18 Y169.17 E250.01878
G1 X135.34 Y169.87 E250.07616
G1 X134.47 Y170.53 E250.13327
G1 X133.58 Y171.13 E250.18994
G1 X132.65 Y171.71 E250.24685
G1 X131.70 Y172.23 E250.30394
G1 X130.72 Y172.70 E250.36078
G1 X129.73 Y173.13 E250.41757
G1 X128.71 Y173.51 E250.47435
G1 X127.67 Y173.84 E250.53185
G1 X126.62 Y174.12 E250.58858
G1 X125.55 Y174.35 E250.64565
G1 X124.48 Y174.53 E250.70266
G1 X124.13 Y174.56 E250.72117
G1 X123.97 Y174.61 E250.72948
G1 X122.92 Y174.85 E250.78636
G1 X121.82 Y175.04 E250.84466
G1 X120.72 Y175.18 E250.90293
G1 X119.60 Y175.26 E250.96135
G1 X118.68 Y175.29 E251.00972
G1 X118.52 Y175.29 E251.01832
G1 X117.40 Y175.27 E251.07701
G1 X109.86 Y174.76 E251.47277
G1 X109.86 Y157.01 E252.40281
G1 X113.96 Y157.01 E252.61769
G1 X113.96 Y156.91 E252.62246
G1 X114.13 Y155.41 E252.70188
G1 X114.67 Y153.69 E252.79647
G1 X115.25 Y152.64 E252.85911
G1 X114.61 Y151.40 E252.93214
G1 X114.11 Y149.75 E253.02260
G1 X113.96 Y148.31 E253.09852
G1 X113.96 Y148.25 E253.10135
G1 X109.86 Y148.25 E253.31623
G1 X109.86 Y130.41 E254.25088
G0 F12000 X110.28 Y130.81
G1 F1800 X117.81 Y130.40 E254.64624
G1 X118.49 Y130.39 E254.68160
G1 X119.51 Y130.41 E254.73515
G1 X120.60 Y130.49 E254.79208
G1 X121.68 Y130.62 E254.84944
G1 X122.76 Y130.81 E254.90679
G1 X123.83 Y131.05 E254.96423
G1 X124.77 Y131.31 E255.01515
G1 X124.88 Y131.34 E255.02126
G1 X125.30 Y131.40 E255.04341
G1 X126.36 Y131.62 E255.09984
G1 X127.39 Y131.88 E255.15595
G1 X128.41 Y132.19 E255.21182
G1 X129.42 Y132.55 E255.26773
G1 X130.40 Y132.96 E255.32374
G1 X131.37 Y133.42 E255.37953
G1 X132.31 Y133.93 E255.43540
G1 X133.22 Y134.47 E255.49137
G1 X134.08 Y135.05 E255.54529
G1 X134.60 Y135.43 E255.57893
G1 X135.38 Y136.04 E255.63107
G1 X136.19 Y136.74 E255.68707
G1 X136.96 Y137.47 E255.74276
G1 X137.69 Y138.24 E255.79864
G1 X138.38 Y139.05 E255.85410
G1 X179.83 Y136.67 E258.02863
G1 X180.84 Y136.62 E258.08168
G1 X181.10 Y136.55 E258.09596
G1 X182.79 Y136.51 E258.18410
G1 X183.50 Y136.49 E258.22152
G1 X185.11 Y136.76 E258.30711
G1 X185.86 Y136.88 E258.34710
G1 X187.42 Y137.50 E258.43472
G1 X188.10 Y137.76 E258.47291
G1 X189.57 Y138.71 E258.56452
G1 X190.17 Y139.11 E258.60248
G1 X191.81 Y140.71 E258.72213
G1 X192.75 Y142.07 E258.80893
G1 X193.18 Y142.68 E258.84827
G1 X193.85 Y144.23 E258.93651
G1 X194.12 Y144.86 E258.97235
G1 X194.62 Y147.13 E259.09456
G1 X194.67 Y148.82 E259.18303
G1 X194.69 Y149.54 E259.22044
G1 X194.32 Y151.81 E259.34134
G1 X193.73 Y153.41 E259.43033
G1 X193.48 Y154.09 E259.46855
G1 X192.66 Y155.44 E259.55096
G1 X192.28 Y156.08 E259.59038
G1 X190.82 Y157.67 E259.70283
G1 X190.99 Y160.37 E259.84458
G1 X184.49 Y160.78 E260.18555
G1 X184.20 Y160.85 E260.20143
G1 X182.66 Y160.90 E260.28209
G1 X140.21 Y163.67 E262.51045
G1 X140.02 Y163.98 E262.52978
G1 X139.44 Y164.88 E262.58582
G1 X138.81 Y165.74 E262.64154
G1 X138.14 Y166.57 E262.69735
G1 X137.43 Y167.37 E262.75345
G1 X136.69 Y168.13 E262.80920
G1 X135.91 Y168.85 E262.86495
G1 X135.08 Y169.54 E262.92118
G1 X134.23 Y170.19 E262.97724
G1 X133.35 Y170.78 E263.03285
G1 X132.44 Y171.34 E263.08868
G1 X131.50 Y171.85 E263.14471
G1 X130.55 Y172.32 E263.20049
G1 X129.57 Y172.74 E263.25621
G1 X128.57 Y173.11 E263.31197
G1 X127.55 Y173.44 E263.36833
G1 X126.52 Y173.71 E263.42403
G1 X125.47 Y173.94 E263.48003
G1 X124.42 Y174.11 E263.53598
G1 X124.05 Y174.15 E263.55570
G1 X123.87 Y174.20 E263.56509
G1 X122.83 Y174.44 E263.62100
G1 X121.76 Y174.62 E263.67818
G1 X120.67 Y174.76 E263.73540
G1 X119.58 Y174.84 E263.79277
G1 X118.67 Y174.87 E263.84072
G1 X118.51 Y174.87 E263.84880
G1 X117.42 Y174.85 E263.90628
G1 X110.28 Y174.37 E264.28099
G1 X110.28 Y157.43 E265.16844
G1 X114.38 Y157.43 E265.38332
G1 X114.38 Y156.94 E265.40889
G1 X114.54 Y155.50 E265.48488
G1 X115.06 Y153.85 E265.57514
G1 X115.72 Y152.65 E265.64733
G1 X115.00 Y151.24 E265.73012
G1 X114.52 Y149.67 E265.81643
G1 X114.38 Y148.29 E265.88908
G1 X114.38 Y147.83 E265.91281
G1 X110.28 Y147.83 E266.12769
G1 X110.28 Y130.81 E267.01949
G0 F12000 X110.70 Y131.21
G1 F1800 X117.83 Y130.82 E267.39354
G1 X118.49 Y130.81 E267.42807
G1 X119.49 Y130.83 E267.48068
G1 X120.56 Y130.91 E267.53655
G1 X121.62 Y131.04 E267.59286
G1 X122.68 Y131.22 E267.64904
G1 X123.73 Y131.46 E267.70540
G1 X124.65 Y131.71 E267.75561
G1 X124.79 Y131.75 E267.76288
G1 X125.23 Y131.81 E267.78613
G1 X126.26 Y132.03 E267.84150
G1 X127.28 Y132.28 E267.89652
G1 X128.28 Y132.59 E267.95132
G1 X129.26 Y132.94 E268.00615
G1 X130.23 Y133.35 E268.06109
G1 X131.18 Y133.80 E268.11583
G1 X132.10 Y134.29 E268.17065
G1 X133.00 Y134.83 E268.22547
G1 X133.84 Y135.39 E268.27846
G1 X134.34 Y135.76 E268.31131
G1 X135.11 Y136.36 E268.36251
G1 X135.91 Y137.05 E268.41740
G1 X136.66 Y137.77 E268.47205
G1 X137.38 Y138.53 E268.52682
G1 X138.07 Y139.32 E268.58194
G1 X138.19 Y139.48 E268.59228
G1 X179.85 Y137.09 E270.77831
G1 X180.90 Y137.03 E270.83330
G1 X181.16 Y136.97 E270.84731
G1 X182.80 Y136.93 E270.93336
G1 X182.80 Y136.93 E270.93341
G1 X183.47 Y136.91 E270.96847
G1 X185.06 Y137.18 E271.05273
G1 X185.75 Y137.29 E271.08959
G1 X187.24 Y137.87 E271.17309
G1 X187.91 Y138.13 E271.21102
G1 X189.34 Y139.06 E271.30013
G1 X189.91 Y139.44 E271.33594
G1 X191.48 Y140.98 E271.45145
G1 X192.41 Y142.31 E271.53621
G1 X192.81 Y142.89 E271.57325
G1 X193.44 Y144.35 E271.65687
G1 X193.72 Y144.99 E271.69306
G1 X194.20 Y147.19 E271.81108
G1 X194.25 Y148.84 E271.89745
G1 X194.27 Y149.51 E271.93277
G1 X193.91 Y151.71 E272.04947
G1 X193.34 Y153.26 E272.13636
G1 X193.10 Y153.91 E272.17234
G1 X192.30 Y155.22 E272.25294
G1 X191.94 Y155.83 E272.29010
G1 X190.40 Y157.51 E272.40926
G1 X190.40 Y157.51 E272.40945
G1 X190.54 Y159.97 E272.53871
G1 X184.43 Y160.36 E272.85978
G1 X184.14 Y160.43 E272.87518
G1 X182.65 Y160.47 E272.95343
G1 X139.96 Y163.26 E275.19439
G1 X139.67 Y163.76 E275.22486
G1 X139.09 Y164.64 E275.27980
G1 X138.48 Y165.48 E275.33444
G1 X137.82 Y166.30 E275.38921
G1 X137.12 Y167.08 E275.44420
G1 X136.39 Y167.83 E275.49883
G1 X135.63 Y168.53 E275.55351
G1 X134.82 Y169.21 E275.60870
G1 X133.98 Y169.84 E275.66367
G1 X133.12 Y170.43 E275.71819
G1 X132.23 Y170.98 E275.77298
G1 X131.31 Y171.48 E275.82793
G1 X130.37 Y171.94 E275.88266
G1 X129.41 Y172.35 E275.93730
G1 X128.44 Y172.72 E275.99200
G1 X127.43 Y173.04 E276.04730
G1 X126.42 Y173.30 E276.10193
G1 X125.40 Y173.52 E276.15685
G1 X124.36 Y173.69 E276.21173
G1 X123.97 Y173.74 E276.23224
G1 X123.77 Y173.79 E276.24321
G1 X122.75 Y174.02 E276.29805
G1 X121.69 Y174.21 E276.35422
G1 X120.63 Y174.34 E276.41033
G1 X119.56 Y174.42 E276.46660
G1 X118.70 Y174.44 E276.51187
G1 X118.51 Y174.45 E276.52168
G1 X117.44 Y174.43 E276.57801
G1 X110.70 Y173.97 E276.93167
G1 X110.70 Y157.85 E277.77653
G1 X114.80 Y157.85 E277.99141
G1 X114.80 Y156.96 E278.03777
G1 X114.95 Y155.58 E278.11039
G1 X115.45 Y154.02 E278.19631
G1 X116.22 Y152.62 E278.27987
G1 X116.13 Y152.51 E278.28747
G1 X115.39 Y151.08 E278.37155
G1 X114.93 Y149.58 E278.45370
G1 X114.80 Y148.26 E278.52309
G1 X114.80 Y147.41 E278.56772
G1 X110.70 Y147.41 E278.78260
G1 X110.70 Y131.21 E279.63160
G0 F12000 X111.12 Y131.60
G1 F1800 X117.84 Y131.24 E279.98441
G1 X118.49 Y131.23 E280.01804
G1 X119.47 Y131.25 E280.06971
G1 X120.52 Y131.33 E280.12454
G1 X121.56 Y131.46 E280.17974
G1 X122.60 Y131.63 E280.23485
G1 X123.63 Y131.86 E280.29014
G1 X124.54 Y132.11 E280.33959
G1 X124.68 Y132.16 E280.34729
G1 X124.70 Y132.16 E280.34828
G1 X125.15 Y132.23 E280.37238
G1 X126.17 Y132.43 E280.42668
G1 X127.17 Y132.69 E280.48062
G1 X128.15 Y132.99 E280.53431
G1 X129.11 Y133.34 E280.58810
G1 X130.06 Y133.73 E280.64197
G1 X130.99 Y134.17 E280.69560
G1 X131.89 Y134.66 E280.74934
G1 X132.77 Y135.19 E280.80313
G1 X133.60 Y135.74 E280.85513
G1 X134.09 Y136.10 E280.88716
G1 X134.85 Y136.69 E280.93750
G1 X135.62 Y137.36 E280.99128
G1 X136.37 Y138.06 E281.04486
G1 X137.07 Y138.81 E281.09855
G1 X137.74 Y139.59 E281.15256
G1 X137.99 Y139.91 E281.17391
G1 X179.88 Y137.51 E283.37148
G1 X180.96 Y137.45 E283.42857
G1 X181.22 Y137.39 E283.44209
G1 X182.81 Y137.35 E283.52563
G1 X183.44 Y137.33 E283.55875
G1 X184.99 Y137.59 E283.64088
G1 X185.64 Y137.70 E283.67551
G1 X187.13 Y138.29 E283.75969
G1 X187.72 Y138.51 E283.79244
G1 X189.11 Y139.41 E283.87912
G1 X189.64 Y139.77 E283.91274
G1 X191.16 Y141.25 E284.02410
G1 X192.06 Y142.55 E284.10687
G1 X192.44 Y143.09 E284.14166
G1 X193.06 Y144.52 E284.22323
G1 X193.32 Y145.12 E284.25719
G1 X193.78 Y147.24 E284.37098
G1 X193.83 Y148.85 E284.45531
G1 X193.85 Y149.48 E284.48843
G1 X193.50 Y151.60 E284.60094
G1 X192.94 Y153.12 E284.68576
G1 X192.72 Y153.72 E284.71955
G1 X191.94 Y155.01 E284.79827
G1 X191.60 Y155.58 E284.83318
G1 X190.12 Y157.20 E284.94800
G1 X189.96 Y157.31 E284.95800
G1 X190.10 Y159.58 E285.07718
G1 X184.37 Y159.94 E285.37810
G1 X184.09 Y160.01 E285.39323
G1 X182.64 Y160.06 E285.46918
G1 X139.71 Y162.86 E287.72263
G1 X139.31 Y163.54 E287.76416
G1 X138.75 Y164.40 E287.81801
G1 X138.15 Y165.23 E287.87159
G1 X137.50 Y166.03 E287.92528
G1 X136.82 Y166.79 E287.97916
G1 X136.10 Y167.53 E288.03279
G1 X135.35 Y168.22 E288.08640
G1 X134.56 Y168.88 E288.14043
G1 X133.74 Y169.50 E288.19435
G1 X132.89 Y170.08 E288.24785
G1 X132.02 Y170.62 E288.30154
G1 X131.12 Y171.11 E288.35542
G1 X130.20 Y171.56 E288.40904
G1 X129.26 Y171.96 E288.46265
G1 X128.30 Y172.32 E288.51629
G1 X127.31 Y172.63 E288.57050
G1 X126.32 Y172.90 E288.62409
G1 X125.32 Y173.11 E288.67799
G1 X124.31 Y173.28 E288.73176
G1 X123.89 Y173.32 E288.75359
G1 X123.67 Y173.38 E288.76554
G1 X122.67 Y173.61 E288.81941
G1 X121.63 Y173.79 E288.87446
G1 X120.59 Y173.92 E288.92952
G1 X119.54 Y174.00 E288.98468
G1 X118.68 Y174.03 E289.02990
G1 X118.51 Y174.03 E289.03887
G1 X117.45 Y174.01 E289.09399
G1 X111.12 Y173.58 E289.42660
G1 X111.12 Y158.27 E290.22892
G1 X115.22 Y158.27 E290.44380
G1 X115.22 Y156.98 E290.51096
G1 X115.37 Y155.67 E290.58016
G1 X115.84 Y154.19 E290.66178
G1 X116.59 Y152.81 E290.74379
G1 X116.76 Y152.62 E290.75710
G1 X116.48 Y152.28 E290.78009
G1 X115.78 Y150.93 E290.85989
G1 X115.35 Y149.50 E290.93792
G1 X115.22 Y148.24 E291.00405
G1 X115.22 Y146.99 E291.06958
G1 X111.12 Y146.99 E291.28447
G1 X111.12 Y131.60 E292.09061
G0 F12000 X111.54 Y132.00
G1 F1800 X117.86 Y131.66 E292.42218
G1 X118.48 Y131.65 E292.45492
G1 X119.45 Y131.67 E292.50564
G1 X120.47 Y131.75 E292.55937
G1 X121.50 Y131.87 E292.61351
G1 X122.52 Y132.04 E292.66757
G1 X123.53 Y132.27 E292.72172
G1 X124.42 Y132.52 E292.77052
G1 X124.56 Y132.56 E292.77773
G1 X124.60 Y132.57 E292.78027
G1 X125.08 Y132.64 E292.80553
G1 X126.08 Y132.84 E292.85871
G1 X127.05 Y133.09 E292.91161
G1 X128.01 Y133.39 E292.96422
G1 X128.96 Y133.73 E293.01695
G1 X129.89 Y134.12 E293.06972
G1 X130.80 Y134.55 E293.12232
G1 X131.68 Y135.02 E293.17498
G1 X132.55 Y135.54 E293.22766
G1 X133.36 Y136.08 E293.27872
G1 X133.84 Y136.43 E293.31000
G1 X134.58 Y137.01 E293.35933
G1 X135.34 Y137.67 E293.41207
G1 X136.07 Y138.36 E293.46454
G1 X136.76 Y139.09 E293.51715
G1 X137.42 Y139.85 E293.57008
G1 X137.80 Y140.34 E293.60238
G1 X179.90 Y137.93 E295.81159
G1 X181.02 Y137.87 E295.87052
G1 X181.27 Y137.81 E295.88377
G1 X182.82 Y137.77 E295.96505
G1 X183.41 Y137.75 E295.99602
G1 X184.92 Y138.00 E296.07598
G1 X185.53 Y138.11 E296.10832
G1 X186.94 Y138.66 E296.18761
G1 X187.53 Y138.89 E296.22088
G1 X188.88 Y139.76 E296.30511
G1 X189.38 Y140.09 E296.33650
G1 X190.84 Y141.52 E296.44371
G1 X191.72 Y142.79 E296.52440
G1 X191.72 Y142.79 E296.52445
G1 X192.07 Y143.30 E296.55699
G1 X192.67 Y144.69 E296.63650
G1 X192.67 Y144.69 E296.63655
G1 X192.92 Y145.25 E296.66831
G1 X193.37 Y147.29 E296.77787
G1 X193.41 Y148.86 E296.86010
G1 X193.43 Y149.45 E296.89107
G1 X193.09 Y151.49 E296.99944
G1 X192.55 Y152.97 E297.08214
G1 X192.34 Y153.54 E297.11376
G1 X191.54 Y154.85 E297.19443
G1 X191.26 Y155.33 E297.22322
G1 X189.83 Y156.88 E297.33368
G1 X189.53 Y157.11 E297.35352
G1 X189.66 Y159.19 E297.46263
G1 X184.30 Y159.53 E297.74366
G1 X184.03 Y159.59 E297.75825
G1 X182.62 Y159.63 E297.83193
G1 X139.46 Y162.45 E300.09788
G1 X139.46 Y162.45 E300.09793
G1 X138.95 Y163.32 E300.15057
G1 X138.40 Y164.16 E300.20331
G1 X137.81 Y164.97 E300.25585
G1 X137.18 Y165.75 E300.30842
G1 X136.51 Y166.51 E300.36122
G1 X135.81 Y167.22 E300.41375
G1 X135.07 Y167.90 E300.46631
G1 X134.30 Y168.55 E300.51927
G1 X133.49 Y169.16 E300.57207
G1 X132.67 Y169.72 E300.62451
G1 X131.81 Y170.25 E300.67714
G1 X130.93 Y170.74 E300.72993
G1 X130.02 Y171.18 E300.78253
G1 X129.10 Y171.57 E300.83510
G1 X128.16 Y171.92 E300.88768
G1 X127.19 Y172.23 E300.94078
G1 X126.23 Y172.49 E300.99330
G1 X125.24 Y172.70 E301.04613
G1 X124.25 Y172.86 E301.09883
G1 X123.81 Y172.91 E301.12177
G1 X123.57 Y172.98 E301.13496
G1 X122.58 Y173.20 E301.18782
G1 X121.57 Y173.38 E301.24181
G1 X120.55 Y173.50 E301.29575
G1 X119.52 Y173.58 E301.34982
G1 X118.66 Y173.60 E301.39483
G1 X118.50 Y173.61 E301.40306
G1 X117.47 Y173.59 E301.45703
G1 X111.54 Y173.19 E301.76859
G1 X111.54 Y158.69 E302.52832
G1 X115.64 Y158.69 E302.74320
G1 X115.64 Y157.01 E302.83110
G1 X115.78 Y155.76 E302.89698
G1 X116.23 Y154.35 E302.97427
G1 X116.94 Y153.05 E303.05192
G1 X117.30 Y152.63 E303.08114
G1 X116.83 Y152.05 E303.12004
G1 X116.17 Y150.77 E303.19567
G1 X115.76 Y149.42 E303.26953
G1 X115.64 Y148.22 E303.33239
G1 X115.64 Y146.57 E303.41882
G1 X111.54 Y146.57 E303.63371
G1 X111.54 Y132.00 E304.39700
G0 F12000 X111.96 Y132.40
G1 F1800 X117.87 Y132.08 E304.70727
G1 X118.48 Y132.07 E304.73917
G1 X119.43 Y132.09 E304.78895
G1 X120.44 Y132.16 E304.84162
G1 X121.44 Y132.29 E304.89466
G1 X122.44 Y132.46 E304.94760
G1 X123.42 Y132.68 E305.00069
G1 X124.31 Y132.92 E305.04879
G1 X124.43 Y132.96 E305.05555
G1 X124.50 Y132.98 E305.05946
G1 X125.01 Y133.06 E305.08610
G1 X125.98 Y133.25 E305.13816
G1 X126.94 Y133.50 E305.18993
G1 X127.88 Y133.79 E305.24155
G1 X128.81 Y134.12 E305.29315
G1 X129.72 Y134.50 E305.34486
G1 X130.61 Y134.92 E305.39636
G1 X131.48 Y135.39 E305.44794
G1 X132.32 Y135.89 E305.49959
G1 X133.12 Y136.43 E305.54970
G1 X133.59 Y136.77 E305.58012
G1 X134.31 Y137.34 E305.62856
G1 X135.06 Y137.98 E305.68018
G1 X135.77 Y138.66 E305.73157
G1 X136.45 Y139.37 E305.78315
G1 X137.09 Y140.12 E305.83494
G1 X137.60 Y140.78 E305.87832
G1 X179.93 Y138.35 E308.09908
G1 X181.08 Y138.28 E308.15989
G1 X181.33 Y138.23 E308.17293
G1 X182.83 Y138.19 E308.25185
G1 X183.38 Y138.17 E308.28067
G1 X184.84 Y138.42 E308.35786
G1 X185.41 Y138.51 E308.38861
G1 X186.78 Y139.05 E308.46577
G1 X187.34 Y139.26 E308.49667
G1 X188.65 Y140.11 E308.57845
G1 X189.11 Y140.42 E308.60768
G1 X190.52 Y141.80 E308.71074
G1 X191.38 Y143.03 E308.78947
G1 X191.71 Y143.50 E308.81971
G1 X192.29 Y144.86 E308.89723
G1 X192.52 Y145.38 E308.92678
G1 X192.95 Y147.34 E309.03209
G1 X192.99 Y148.87 E309.11222
G1 X193.01 Y149.42 E309.14105
G1 X192.68 Y151.38 E309.24528
G1 X192.16 Y152.83 E309.32585
G1 X191.96 Y153.36 E309.35524
G1 X191.18 Y154.64 E309.43381
G1 X190.92 Y155.08 E309.46061
G1 X189.55 Y156.57 E309.56673
G1 X189.10 Y156.91 E309.59638
G1 X189.21 Y158.79 E309.69541
G1 X184.24 Y159.11 E309.95623
G1 X183.97 Y159.17 E309.97060
G1 X182.61 Y159.22 E310.04198
G1 X139.20 Y162.05 E312.32110
G1 X139.09 Y162.25 E312.33298
G1 X138.60 Y163.10 E312.38452
G1 X138.06 Y163.92 E312.43613
G1 X137.48 Y164.72 E312.48762
G1 X136.86 Y165.48 E312.53910
G1 X136.21 Y166.22 E312.59083
G1 X135.52 Y166.92 E312.64232
G1 X134.79 Y167.59 E312.69377
G1 X134.04 Y168.22 E312.74564
G1 X133.25 Y168.82 E312.79737
G1 X132.44 Y169.37 E312.84876
G1 X131.60 Y169.89 E312.90031
G1 X130.73 Y170.36 E312.95203
G1 X129.85 Y170.79 E313.00357
G1 X128.94 Y171.18 E313.05506
G1 X128.02 Y171.53 E313.10658
G1 X127.08 Y171.83 E313.15859
G1 X126.13 Y172.08 E313.21007
G1 X125.16 Y172.28 E313.26182
G1 X124.19 Y172.44 E313.31347
G1 X123.74 Y172.50 E313.33736
G1 X123.47 Y172.57 E313.35191
G1 X122.50 Y172.79 E313.40380
G1 X121.51 Y172.96 E313.45666
G1 X120.51 Y173.09 E313.50955
G1 X119.50 Y173.16 E313.56256
G1 X118.68 Y173.18 E313.60517
G1 X118.50 Y173.19 E313.61481
G1 X117.49 Y173.17 E313.66763
G1 X111.96 Y172.80 E313.95813
G1 X111.96 Y159.11 E314.67527
G1 X116.06 Y159.11 E314.89016
G1 X116.06 Y157.03 E314.99885
G1 X116.19 Y155.85 E315.06131
G1 X116.61 Y154.52 E315.13425
G1 X117.29 Y153.29 E315.20756
G1 X117.84 Y152.63 E315.25272
G1 X117.19 Y151.82 E315.30757
G1 X116.56 Y150.61 E315.37898
G1 X116.17 Y149.33 E315.44868
G1 X116.06 Y148.20 E315.50828
G1 X116.06 Y146.15 E315.61562
G1 X111.96 Y146.15 E315.83050
G1 X111.96 Y132.40 E316.55095
G0 F12000 X112.38 Y132.80
G1 F1800 X117.89 Y132.50 E316.83996
G1 X118.48 Y132.49 E316.87097
G1 X119.41 Y132.51 E316.91981
G1 X120.39 Y132.58 E316.97144
G1 X121.38 Y132.70 E317.02336
G1 X122.36 Y132.87 E317.07524
G1 X123.32 Y133.09 E317.12720
G1 X124.19 Y133.33 E317.17459
G1 X124.31 Y133.36 E317.18091
G1 X124.41 Y133.39 E317.18630
G1 X124.94 Y133.47 E317.21416
G1 X125.89 Y133.66 E317.26515
G1 X126.83 Y133.90 E317.31585
G1 X127.75 Y134.18 E317.36636
G1 X128.66 Y134.51 E317.41692
G1 X129.55 Y134.88 E317.46754
G1 X130.42 Y135.30 E317.51799
G1 X131.27 Y135.75 E317.56852
G1 X132.10 Y136.25 E317.61907
G1 X132.88 Y136.77 E317.66819
G1 X133.33 Y137.10 E317.69782
G1 X134.05 Y137.66 E317.74533
G1 X134.78 Y138.29 E317.79588
G1 X135.47 Y138.96 E317.84620
G1 X136.14 Y139.65 E317.89666
G1 X136.77 Y140.39 E317.94733
G1 X137.36 Y141.15 E317.99773
G1 X137.40 Y141.21 E318.00164
G1 X179.95 Y138.77 E320.23415
G1 X181.15 Y138.70 E320.29707
G1 X181.38 Y138.65 E320.30962
G1 X182.84 Y138.61 E320.38629
G1 X183.35 Y138.59 E320.41296
G1 X184.77 Y138.83 E320.48803
G1 X185.30 Y138.92 E320.51644
G1 X186.68 Y139.46 E320.59376
G1 X187.15 Y139.64 E320.62013
G1 X188.41 Y140.46 E320.69940
G1 X188.84 Y140.75 E320.72648
G1 X190.19 Y142.07 E320.82539
G1 X191.03 Y143.27 E320.90209
G1 X191.34 Y143.71 E320.93008
G1 X191.91 Y145.03 E321.00550
G1 X192.12 Y145.51 E321.03287
G1 X192.53 Y147.39 E321.13390
G1 X192.57 Y148.88 E321.21199
G1 X192.59 Y149.39 E321.23866
G1 X192.28 Y151.28 E321.33875
G1 X191.76 Y152.69 E321.41720
G1 X191.58 Y153.17 E321.44442
G1 X190.85 Y154.36 E321.51761
G1 X190.58 Y154.82 E321.54568
G1 X189.27 Y156.26 E321.64738
G1 X188.66 Y156.71 E321.68684
G1 X188.77 Y158.40 E321.77590
G1 X184.18 Y158.69 E322.01661
G1 X183.92 Y158.75 E322.03071
G1 X182.58 Y158.80 E322.10110
G1 X138.94 Y161.65 E324.39209
G1 X138.73 Y162.05 E324.41578
G1 X138.24 Y162.88 E324.46623
G1 X137.71 Y163.68 E324.51678
G1 X137.14 Y164.46 E324.56718
G1 X136.54 Y165.21 E324.61762
G1 X135.90 Y165.93 E324.66824
G1 X135.22 Y166.62 E324.71865
G1 X134.52 Y167.27 E324.76906
G1 X133.77 Y167.90 E324.81982
G1 X133.00 Y168.48 E324.87046
G1 X132.21 Y169.02 E324.92079
G1 X131.39 Y169.53 E324.97128
G1 X130.54 Y169.99 E325.02192
G1 X129.67 Y170.41 E325.07238
G1 X128.79 Y170.79 E325.12282
G1 X127.89 Y171.13 E325.17333
G1 X126.96 Y171.42 E325.22424
G1 X126.03 Y171.67 E325.27463
G1 X125.08 Y171.87 E325.32531
G1 X124.13 Y172.03 E325.37590
G1 X123.65 Y172.08 E325.40122
G1 X123.37 Y172.16 E325.41668
G1 X122.42 Y172.38 E325.46755
G1 X121.45 Y172.55 E325.51930
G1 X120.46 Y172.67 E325.57114
G1 X119.48 Y172.74 E325.62305
G1 X118.66 Y172.76 E325.66586
G1 X118.50 Y172.77 E325.67440
G1 X117.51 Y172.75 E325.72602
G1 X112.38 Y172.40 E325.99546
G1 X112.38 Y159.53 E326.67002
G1 X116.48 Y159.53 E326.88490
G1 X116.48 Y157.05 E327.01440
G1 X116.61 Y155.93 E327.07348
G1 X117.00 Y154.69 E327.14208
G1 X117.64 Y153.53 E327.21103
G1 X118.39 Y152.63 E327.27262
G1 X118.36 Y152.60 E327.27522
G1 X117.54 Y151.59 E327.34337
G1 X116.95 Y150.45 E327.41059
G1 X116.59 Y149.25 E327.47614
G1 X116.48 Y148.18 E327.53247
G1 X116.48 Y145.73 E327.66071
G1 X112.38 Y145.73 E327.87559
G1 X112.38 Y132.80 E328.55324
G0 F12000 X112.80 Y133.19
G1 F1800 X117.90 Y132.92 E328.82096
G1 X118.48 Y132.91 E328.85113
G1 X119.39 Y132.93 E328.89903
G1 X120.36 Y133.00 E328.94960
G1 X121.32 Y133.12 E329.00042
G1 X122.27 Y133.28 E329.05118
G1 X123.22 Y133.49 E329.10206
G1 X124.08 Y133.73 E329.14881
G1 X124.19 Y133.76 E329.15469
G1 X124.32 Y133.80 E329.16168
G1 X124.86 Y133.88 E329.19060
G1 X125.80 Y134.07 E329.24047
G1 X126.71 Y134.31 E329.29013
G1 X127.62 Y134.58 E329.33956
G1 X128.50 Y134.90 E329.38901
G1 X129.38 Y135.27 E329.43860
G1 X130.23 Y135.67 E329.48800
G1 X131.06 Y136.12 E329.53745
G1 X131.87 Y136.60 E329.58689
G1 X132.63 Y137.12 E329.63507
G1 X133.08 Y137.44 E329.66387
G1 X133.78 Y137.99 E329.71048
G1 X134.50 Y138.60 E329.75991
G1 X135.18 Y139.25 E329.80919
G1 X135.83 Y139.94 E329.85859
G1 X136.44 Y140.65 E329.90814
G1 X137.02 Y141.40 E329.95742
G1 X137.19 Y141.64 E329.97303
G1 X179.97 Y139.19 E332.21782
G1 X181.21 Y139.12 E332.28267
G1 X181.44 Y139.06 E332.29496
G1 X182.86 Y139.03 E332.36932
G1 X183.32 Y139.01 E332.39379
G1 X184.70 Y139.25 E332.46679
G1 X185.19 Y139.33 E332.49292
G1 X186.49 Y139.84 E332.56586
G1 X186.95 Y140.01 E332.59215
G1 X188.18 Y140.81 E332.66896
G1 X188.58 Y141.08 E332.69385
G1 X189.87 Y142.34 E332.78860
G1 X190.69 Y143.51 E332.86331
G1 X190.97 Y143.91 E332.88901
G1 X191.52 Y145.20 E332.96243
G1 X191.72 Y145.64 E332.98758
G1 X192.11 Y147.45 E333.08436
G1 X192.15 Y148.90 E333.16035
G1 X192.17 Y149.36 E333.18488
G1 X191.87 Y151.17 E333.28082
G1 X191.37 Y152.54 E333.35715
G1 X191.20 Y152.99 E333.38220
G1 X190.46 Y154.20 E333.45647
G1 X190.24 Y154.57 E333.47930
G1 X188.99 Y155.94 E333.57666
G1 X188.23 Y156.50 E333.62592
G1 X188.32 Y158.01 E333.70491
G1 X184.12 Y158.28 E333.92552
G1 X183.86 Y158.34 E333.93925
G1 X182.56 Y158.38 E334.00744
G1 X138.67 Y161.24 E336.31155
G1 X138.36 Y161.84 E336.34707
G1 X137.88 Y162.66 E336.39642
G1 X137.36 Y163.45 E336.44591
G1 X136.81 Y164.21 E336.49519
G1 X136.22 Y164.94 E336.54451
G1 X135.59 Y165.65 E336.59409
G1 X134.93 Y166.32 E336.64343
G1 X134.24 Y166.96 E336.69273
G1 X133.51 Y167.57 E336.74245
G1 X132.76 Y168.14 E336.79196
G1 X131.98 Y168.67 E336.84128
G1 X131.18 Y169.16 E336.89069
G1 X130.35 Y169.62 E336.94025
G1 X129.50 Y170.03 E336.98966
G1 X128.63 Y170.40 E337.03906
G1 X127.75 Y170.73 E337.08846
G1 X126.84 Y171.02 E337.13826
G1 X125.93 Y171.26 E337.18764
G1 X125.01 Y171.46 E337.23726
G1 X124.07 Y171.61 E337.28678
G1 X123.57 Y171.67 E337.31325
G1 X123.27 Y171.75 E337.32986
G1 X122.34 Y171.96 E337.37971
G1 X121.38 Y172.13 E337.43045
G1 X120.42 Y172.25 E337.48118
G1 X119.45 Y172.32 E337.53198
G1 X118.59 Y172.35 E337.57715
G1 X118.49 Y172.35 E337.58240
G1 X117.53 Y172.33 E337.63286
G1 X112.80 Y172.01 E337.88125
G1 X112.80 Y159.95 E338.51327
G1 X116.90 Y159.95 E338.72815
G1 X116.90 Y157.08 E338.87844
G1 X117.02 Y156.02 E338.93410
G1 X117.39 Y154.85 E338.99840
G1 X117.98 Y153.77 E339.06296
G1 X118.78 Y152.84 E339.12719
G1 X119.03 Y152.63 E339.14460
G1 X118.66 Y152.31 E339.17039
G1 X117.90 Y151.36 E339.23426
G1 X117.34 Y150.29 E339.29726
G1 X117.00 Y149.17 E339.35864
G1 X116.90 Y148.16 E339.41171
G1 X116.90 Y145.31 E339.56085
G1 X112.80 Y145.31 E339.77573
G1 X112.80 Y133.19 E340.41053
G0 F12000 X113.22 Y133.59
G1 F1800 X117.92 Y133.34 E340.65699
G1 X118.48 Y133.33 E340.68628
G1 X119.37 Y133.35 E340.73323
G1 X120.31 Y133.42 E340.78270
G1 X121.26 Y133.53 E340.83246
G1 X122.19 Y133.69 E340.88216
G1 X123.12 Y133.90 E340.93192
G1 X123.97 Y134.13 E340.97796
G1 X124.07 Y134.16 E340.98341
G1 X124.22 Y134.21 E340.99178
G1 X124.79 Y134.30 E341.02202
G1 X125.70 Y134.48 E341.07082
G1 X126.60 Y134.71 E341.11935
G1 X127.48 Y134.98 E341.16772
G1 X128.35 Y135.29 E341.21611
G1 X129.21 Y135.65 E341.26462
G1 X130.04 Y136.05 E341.31294
G1 X130.85 Y136.48 E341.36131
G1 X131.65 Y136.96 E341.40972
G1 X132.40 Y137.46 E341.45695
G1 X132.83 Y137.77 E341.48493
G1 X133.51 Y138.31 E341.53057
G1 X134.21 Y138.91 E341.57897
G1 X134.88 Y139.55 E341.62717
G1 X135.51 Y140.22 E341.67545
G1 X136.12 Y140.92 E341.72389
G1 X136.68 Y141.65 E341.77212
G1 X136.98 Y142.07 E341.79946
G1 X180.00 Y139.61 E344.05648
G1 X181.27 Y139.54 E344.12322
G1 X181.49 Y139.48 E344.13524
G1 X182.87 Y139.44 E344.20745
G1 X182.87 Y139.45 E344.20750
G1 X183.29 Y139.43 E344.22972
G1 X184.63 Y139.66 E344.30059
G1 X185.08 Y139.73 E344.32439
G1 X186.34 Y140.23 E344.39523
G1 X186.76 Y140.39 E344.41920
G1 X187.95 Y141.16 E344.49355
G1 X188.31 Y141.40 E344.51626
G1 X189.55 Y142.61 E344.60687
G1 X190.34 Y143.75 E344.67958
G1 X190.60 Y144.12 E344.70302
G1 X191.14 Y145.37 E344.77436
G1 X191.31 Y145.77 E344.79730
G1 X191.69 Y147.50 E344.88986
G1 X191.73 Y148.91 E344.96375
G1 X191.75 Y149.34 E344.98613
G1 X191.46 Y151.06 E345.07794
G1 X190.97 Y152.40 E345.15214
G1 X190.82 Y152.80 E345.17495
G1 X190.10 Y153.98 E345.24713
G1 X189.90 Y154.32 E345.26796
G1 X188.70 Y155.63 E345.36099
G1 X187.80 Y156.30 E345.42006
G1 X187.88 Y157.62 E345.48896
G1 X184.06 Y157.86 E345.68937
G1 X183.81 Y157.92 E345.70289
G1 X182.55 Y157.96 E345.76876
G1 X138.41 Y160.84 E348.08600
G1 X137.99 Y161.64 E348.13335
G1 X137.53 Y162.43 E348.18163
G1 X137.02 Y163.21 E348.23003
G1 X136.48 Y163.95 E348.27825
G1 X135.90 Y164.67 E348.32653
G1 X135.28 Y165.36 E348.37499
G1 X134.64 Y166.02 E348.42326
G1 X133.96 Y166.64 E348.47152
G1 X133.25 Y167.24 E348.52009
G1 X132.51 Y167.80 E348.56855
G1 X131.75 Y168.31 E348.61681
G1 X130.97 Y168.80 E348.66513
G1 X130.15 Y169.24 E348.71364
G1 X129.32 Y169.65 E348.76195
G1 X128.48 Y170.01 E348.81034
G1 X127.61 Y170.33 E348.85866
G1 X126.72 Y170.62 E348.90741
G1 X125.83 Y170.85 E348.95570
G1 X124.93 Y171.05 E349.00425
G1 X124.02 Y171.20 E349.05271
G1 X123.49 Y171.26 E349.08018
G1 X123.16 Y171.35 E349.09809
G1 X122.25 Y171.55 E349.14697
G1 X121.32 Y171.72 E349.19659
G1 X120.38 Y171.83 E349.24626
G1 X119.43 Y171.91 E349.29596
G1 X118.60 Y171.93 E349.33946
G1 X118.49 Y171.93 E349.34549
G1 X117.55 Y171.91 E349.39474
G1 X113.22 Y171.62 E349.62208
G1 X113.22 Y160.37 E350.21151
G1 X117.32 Y160.37 E350.42639
G1 X117.32 Y157.10 E350.59748
G1 X117.43 Y156.11 E350.64971
G1 X117.78 Y155.02 E350.70967
G1 X118.33 Y154.01 E350.76992
G1 X119.07 Y153.14 E350.82977
G1 X119.69 Y152.64 E350.87176
G1 X118.96 Y152.01 E350.92211
G1 X118.25 Y151.13 E350.98166
G1 X117.73 Y150.13 E351.04046
G1 X117.42 Y149.09 E351.09769
G1 X117.32 Y148.14 E351.14749
G1 X117.32 Y144.89 E351.31753
G1 X113.22 Y144.89 E351.53241
G1 X113.22 Y133.59 E352.12436
G0 F12000 X113.64 Y133.99
G1 F1800 X117.93 Y133.76 E352.34953
G1 X118.47 Y133.75 E352.37798
G1 X119.35 Y133.77 E352.42399
G1 X120.27 Y133.84 E352.47240
G1 X121.20 Y133.95 E352.52106
G1 X122.11 Y134.10 E352.56969
G1 X123.02 Y134.31 E352.61838
G1 X123.85 Y134.54 E352.66366
G1 X123.94 Y134.57 E352.66868
G1 X124.12 Y134.62 E352.67846
G1 X124.72 Y134.71 E352.71003
G1 X125.61 Y134.89 E352.75770
G1 X126.49 Y135.12 E352.80516
G1 X127.35 Y135.38 E352.85250
G1 X128.20 Y135.69 E352.89977
G1 X129.04 Y136.03 E352.94721
G1 X129.85 Y136.42 E352.99447
G1 X130.65 Y136.85 E353.04179
G1 X131.42 Y137.31 E353.08909
G1 X132.16 Y137.80 E353.13535
G1 X132.57 Y138.11 E353.16254
G1 X133.25 Y138.63 E353.20725
G1 X133.93 Y139.22 E353.25456
G1 X134.58 Y139.85 E353.30166
G1 X135.20 Y140.50 E353.34890
G1 X135.79 Y141.18 E353.39622
G1 X136.34 Y141.90 E353.44338
G1 X136.77 Y142.50 E353.48241
G1 X180.02 Y140.03 E355.75171
G1 X181.33 Y139.95 E355.82039
G1 X181.55 Y139.90 E355.83214
G1 X182.88 Y139.87 E355.90189
G1 X183.26 Y139.85 E355.92207
G1 X184.57 Y140.07 E355.99129
G1 X184.96 Y140.14 E356.01237
G1 X186.19 Y140.62 E356.08110
G1 X186.19 Y140.62 E356.08115
G1 X186.57 Y140.77 E356.10281
G1 X187.72 Y141.51 E356.17473
G1 X188.05 Y141.73 E356.19520
G1 X189.23 Y142.89 E356.28170
G1 X190.00 Y143.99 E356.35238
G1 X190.23 Y144.32 E356.37356
G1 X190.77 Y145.57 E356.44476
G1 X190.91 Y145.90 E356.46359
G1 X191.27 Y147.55 E356.55191
G1 X191.31 Y148.92 E356.62376
G1 X191.32 Y149.31 E356.64394
G1 X191.05 Y150.96 E356.73160
G1 X190.58 Y152.25 E356.80370
G1 X190.44 Y152.62 E356.82432
G1 X189.77 Y153.72 E356.89196
G1 X189.56 Y154.07 E356.91322
G1 X188.42 Y155.32 E357.00183
G1 X187.37 Y156.10 E357.07075
G1 X187.43 Y157.22 E357.12958
G1 X183.99 Y157.44 E357.31020
G1 X183.75 Y157.50 E357.32312
G1 X182.51 Y157.54 E357.38811
G1 X138.13 Y160.43 E359.71779
G1 X138.04 Y160.64 E359.72955
G1 X137.62 Y161.44 E359.77672
G1 X137.17 Y162.21 E359.82389
G1 X136.67 Y162.97 E359.87118
G1 X136.14 Y163.70 E359.91835
G1 X135.58 Y164.40 E359.96552
G1 X134.98 Y165.07 E360.01290
G1 X134.35 Y165.72 E360.06009
G1 X133.68 Y166.33 E360.10732
G1 X132.99 Y166.91 E360.15481
G1 X132.27 Y167.46 E360.20215
G1 X131.52 Y167.96 E360.24932
G1 X130.75 Y168.44 E360.29661
G1 X129.96 Y168.87 E360.34404
G1 X129.15 Y169.26 E360.39129
G1 X128.32 Y169.62 E360.43860
G1 X127.47 Y169.94 E360.48591
G1 X126.61 Y170.21 E360.53352
G1 X125.74 Y170.44 E360.58078
G1 X124.85 Y170.63 E360.62825
G1 X123.96 Y170.78 E360.67565
G1 X123.41 Y170.84 E360.70428
G1 X123.06 Y170.94 E360.72339
G1 X122.17 Y171.14 E360.77125
G1 X121.26 Y171.30 E360.81981
G1 X120.34 Y171.41 E360.86838
G1 X119.41 Y171.49 E360.91698
G1 X118.59 Y171.51 E360.96026
G1 X118.49 Y171.51 E360.96555
G1 X117.57 Y171.49 E361.01366
G1 X113.64 Y171.22 E361.21994
G1 X113.64 Y160.79 E361.76678
G1 X117.74 Y160.79 E361.98167
G1 X117.74 Y157.12 E362.17355
G1 X117.84 Y156.20 E362.22241
G1 X118.17 Y155.18 E362.27804
G1 X118.68 Y154.25 E362.33393
G1 X119.36 Y153.44 E362.38946
G1 X120.19 Y152.78 E362.44505
G1 X120.48 Y152.63 E362.46185
G1 X120.07 Y152.41 E362.48586
G1 X119.26 Y151.72 E362.54156
G1 X118.60 Y150.90 E362.59682
G1 X118.12 Y149.97 E362.65143
G1 X117.83 Y149.00 E362.70443
G1 X117.74 Y148.12 E362.75102
G1 X117.74 Y144.47 E362.94196
G1 X113.64 Y144.47 E363.15685
G1 X113.64 Y133.99 E363.70594
G0 F12000 X114.06 Y134.39
G1 F1800 X117.95 Y134.18 E363.90986
G1 X118.47 Y134.17 E363.93737
G1 X119.33 Y134.19 E363.98249
G1 X120.23 Y134.25 E364.02985
G1 X121.14 Y134.36 E364.07740
G1 X122.03 Y134.52 E364.12492
G1 X122.92 Y134.72 E364.17253
G1 X123.74 Y134.94 E364.21710
G1 X123.82 Y134.97 E364.22173
G1 X124.03 Y135.03 E364.23333
G1 X124.64 Y135.13 E364.26575
G1 X125.52 Y135.30 E364.31230
G1 X126.37 Y135.52 E364.35872
G1 X127.22 Y135.78 E364.40497
G1 X128.05 Y136.08 E364.45118
G1 X128.87 Y136.42 E364.49754
G1 X129.66 Y136.80 E364.54370
G1 X130.44 Y137.21 E364.58994
G1 X131.19 Y137.67 E364.63616
G1 X131.91 Y138.15 E364.68148
G1 X132.32 Y138.44 E364.70789
G1 X132.98 Y138.96 E364.75170
G1 X133.65 Y139.54 E364.79786
G1 X134.28 Y140.14 E364.84392
G1 X134.89 Y140.78 E364.89005
G1 X135.47 Y141.45 E364.93630
G1 X136.01 Y142.14 E364.98233
G1 X136.51 Y142.86 E365.02824
G1 X136.56 Y142.94 E365.03295
G1 X180.05 Y140.45 E367.31478
G1 X181.39 Y140.37 E367.38551
G1 X181.60 Y140.32 E367.39677
G1 X182.89 Y140.28 E367.46427
G1 X183.24 Y140.28 E367.48229
G1 X184.50 Y140.49 E367.54934
G1 X184.85 Y140.55 E367.56814
G1 X186.05 Y141.02 E367.63579
G1 X186.38 Y141.14 E367.65406
G1 X187.49 Y141.87 E367.72355
G1 X187.78 Y142.06 E367.74188
G1 X188.91 Y143.16 E367.82419
G1 X189.66 Y144.24 E367.89288
G1 X189.86 Y144.53 E367.91176
G1 X190.38 Y145.74 E367.98073
G1 X190.51 Y146.03 E367.99757
G1 X190.85 Y147.60 E368.08164
G1 X190.90 Y148.93 E368.15140
G1 X190.90 Y149.28 E368.16947
G1 X190.64 Y150.85 E368.25294
G1 X190.19 Y152.10 E368.32293
G1 X190.06 Y152.44 E368.34136
G1 X189.39 Y153.54 E368.40926
G1 X189.22 Y153.82 E368.42612
G1 X188.14 Y155.00 E368.51040
G1 X187.07 Y155.79 E368.57981
G1 X186.93 Y155.90 E368.58906
G1 X186.99 Y156.83 E368.63797
G1 X183.93 Y157.03 E368.79838
G1 X183.70 Y157.08 E368.81103
G1 X182.50 Y157.12 E368.87382
G1 X137.86 Y160.03 E371.21735
G1 X137.66 Y160.45 E371.24168
G1 X137.26 Y161.23 E371.28772
G1 X136.81 Y161.99 E371.33386
G1 X136.33 Y162.73 E371.38005
G1 X135.81 Y163.44 E371.42614
G1 X135.26 Y164.13 E371.47222
G1 X134.67 Y164.79 E371.51853
G1 X134.05 Y165.41 E371.56465
G1 X133.41 Y166.01 E371.61076
G1 X132.73 Y166.58 E371.65717
G1 X132.02 Y167.11 E371.70347
G1 X131.29 Y167.61 E371.74958
G1 X130.54 Y168.07 E371.79580
G1 X129.77 Y168.50 E371.84215
G1 X128.97 Y168.88 E371.88835
G1 X128.16 Y169.23 E371.93463
G1 X127.34 Y169.54 E371.98083
G1 X126.49 Y169.81 E372.02738
G1 X125.64 Y170.03 E372.07356
G1 X124.77 Y170.22 E372.11995
G1 X123.90 Y170.36 E372.16630
G1 X123.33 Y170.43 E372.19609
G1 X122.96 Y170.53 E372.21633
G1 X122.09 Y170.73 E372.26323
G1 X121.20 Y170.88 E372.31067
G1 X120.30 Y171.00 E372.35818
G1 X119.39 Y171.07 E372.40573
G1 X118.56 Y171.09 E372.44922
G1 X118.48 Y171.09 E372.45336
G1 X117.59 Y171.07 E372.50026
G1 X114.06 Y170.83 E372.68549
G1 X114.06 Y161.21 E373.18975
G1 X118.16 Y161.21 E373.40463
G1 X118.16 Y157.15 E373.61731
G1 X118.26 Y156.28 E373.66274
G1 X118.55 Y155.35 E373.71408
G1 X119.03 Y154.49 E373.76559
G1 X119.66 Y153.74 E373.81680
G1 X120.42 Y153.13 E373.86808
G1 X121.28 Y152.69 E373.91852
G1 X121.47 Y152.63 E373.92931
G1 X121.18 Y152.53 E373.94553
G1 X120.31 Y152.06 E373.99720
G1 X119.57 Y151.43 E374.04855
G1 X118.96 Y150.67 E374.09956
G1 X118.52 Y149.81 E374.14994
G1 X118.24 Y148.92 E374.19877
G1 X118.16 Y148.10 E374.24210
G1 X118.16 Y144.05 E374.45395
G1 X114.06 Y144.05 E374.66883
G1 X114.06 Y134.39 E375.17508
G0 F12000 X114.48 Y134.79
G1 F1800 X117.96 Y134.60 E375.35770
G1 X118.47 Y134.59 E375.38436
G1 X119.31 Y134.61 E375.42854
G1 X120.19 Y134.67 E375.47486
G1 X121.07 Y134.78 E375.52130
G1 X121.95 Y134.93 E375.56775
G1 X122.81 Y135.12 E375.61424
G1 X123.62 Y135.35 E375.65815
G1 X123.70 Y135.37 E375.66229
G1 X123.93 Y135.44 E375.67500
G1 X124.57 Y135.54 E375.70900
G1 X125.42 Y135.71 E375.75449
G1 X126.26 Y135.92 E375.79978
G1 X127.08 Y136.18 E375.84498
G1 X127.90 Y136.47 E375.89014
G1 X128.69 Y136.80 E375.93543
G1 X129.47 Y137.17 E375.98054
G1 X130.23 Y137.58 E376.02570
G1 X130.97 Y138.02 E376.07082
G1 X131.67 Y138.49 E376.11519
G1 X132.07 Y138.78 E376.14077
G1 X132.71 Y139.28 E376.18365
G1 X133.37 Y139.85 E376.22878
G1 X133.99 Y140.44 E376.27376
G1 X134.58 Y141.06 E376.31881
G1 X135.14 Y141.72 E376.36391
G1 X135.67 Y142.39 E376.40889
G1 X136.16 Y143.09 E376.45371
G1 X136.34 Y143.37 E376.47088
G1 X180.07 Y140.87 E378.76573
G1 X180.07 Y140.87 E378.76578
G1 X181.45 Y140.79 E378.83835
G1 X181.66 Y140.74 E378.84939
G1 X182.90 Y140.71 E378.91453
G1 X183.21 Y140.70 E378.93046
G1 X184.42 Y140.90 E378.99501
G1 X184.74 Y140.96 E379.01189
G1 X185.88 Y141.41 E379.07639
G1 X186.19 Y141.52 E379.09339
G1 X187.26 Y142.22 E379.16038
G1 X187.52 Y142.39 E379.17651
G1 X188.59 Y143.43 E379.25471
G1 X189.31 Y144.47 E379.32132
G1 X189.49 Y144.74 E379.33799
G1 X189.98 Y145.88 E379.40321
G1 X190.11 Y146.16 E379.41951
G1 X190.44 Y147.65 E379.49931
G1 X190.47 Y148.94 E379.56702
G1 X190.48 Y149.25 E379.58295
G1 X190.24 Y150.74 E379.66222
G1 X189.79 Y151.96 E379.73014
G1 X189.68 Y152.25 E379.74635
G1 X189.03 Y153.32 E379.81216
G1 X188.88 Y153.57 E379.82700
G1 X187.85 Y154.69 E379.90694
G1 X186.82 Y155.46 E379.97421
G1 X186.57 Y155.65 E379.99089
G1 X186.50 Y155.68 E379.99487
G1 X186.54 Y156.44 E380.03481
G1 X183.87 Y156.61 E380.17532
G1 X183.64 Y156.66 E380.18750
G1 X182.46 Y156.70 E380.24934
G1 X137.58 Y159.63 E382.60542
G1 X137.29 Y160.27 E382.64227
G1 X136.89 Y161.03 E382.68726
G1 X136.45 Y161.77 E382.73224
G1 X135.98 Y162.49 E382.77734
G1 X135.48 Y163.19 E382.82238
G1 X134.94 Y163.85 E382.86742
G1 X134.36 Y164.50 E382.91258
G1 X133.76 Y165.11 E382.95766
G1 X133.13 Y165.70 E383.00274
G1 X132.47 Y166.25 E383.04803
G1 X131.78 Y166.77 E383.09321
G1 X131.07 Y167.26 E383.13829
G1 X130.33 Y167.71 E383.18342
G1 X129.57 Y168.12 E383.22869
G1 X128.80 Y168.50 E383.27386
G1 X128.01 Y168.84 E383.31906
G1 X127.20 Y169.14 E383.36420
G1 X126.37 Y169.41 E383.40966
G1 X125.54 Y169.63 E383.45479
G1 X124.69 Y169.81 E383.50012
G1 X123.84 Y169.95 E383.54540
G1 X123.26 Y170.02 E383.57625
G1 X122.86 Y170.12 E383.59779
G1 X122.00 Y170.32 E383.64366
G1 X121.13 Y170.47 E383.68999
G1 X120.25 Y170.58 E383.73644
G1 X119.37 Y170.65 E383.78289
G1 X118.59 Y170.67 E383.82376
G1 X118.48 Y170.67 E383.82958
G1 X117.61 Y170.65 E383.87532
G1 X114.48 Y170.44 E384.03950
G1 X114.48 Y161.63 E384.50122
G1 X118.58 Y161.63 E384.71610
G1 X118.58 Y157.17 E384.94952
G1 X118.67 Y156.37 E384.99163
G1 X118.94 Y155.52 E385.03863
G1 X119.37 Y154.73 E385.08578
G1 X119.95 Y154.04 E385.13268
G1 X120.65 Y153.48 E385.17960
G1 X121.44 Y153.08 E385.22587
G1 X122.25 Y152.83 E385.27044
G1 X123.01 Y152.75 E385.31046
G1 X127.45 Y152.75 E385.54320
G1 X127.45 Y152.50 E385.55624
G1 X123.00 Y152.50 E385.78951
G1 X122.20 Y152.42 E385.83166
G1 X121.34 Y152.15 E385.87868
G1 X120.55 Y151.71 E385.92596
G1 X119.87 Y151.13 E385.97301
G1 X119.31 Y150.44 E386.01970
G1 X118.91 Y149.65 E386.06588
G1 X118.66 Y148.84 E386.11057
G1 X118.58 Y148.08 E386.15063
G1 X118.58 Y143.63 E386.38338
G1 X114.48 Y143.63 E386.59826
G1 X114.48 Y134.79 E387.06171
G0 F12000 X114.90 Y135.18
G1 F1800 X117.97 Y135.02 E387.22308
G1 X118.47 Y135.01 E387.24886
G1 X119.29 Y135.03 E387.29209
G1 X120.15 Y135.09 E387.33730
G1 X121.01 Y135.20 E387.38269
G1 X121.87 Y135.34 E387.42807
G1 X122.71 Y135.53 E387.47343
G1 X123.51 Y135.75 E387.51664
G1 X123.58 Y135.77 E387.52036
G1 X123.83 Y135.85 E387.53444
G1 X124.50 Y135.95 E387.56977
G1 X125.33 Y136.12 E387.61413
G1 X126.15 Y136.33 E387.65840
G1 X126.95 Y136.58 E387.70251
G1 X127.74 Y136.86 E387.74660
G1 X128.52 Y137.19 E387.79080
G1 X129.28 Y137.55 E387.83487
G1 X130.02 Y137.94 E387.87893
G1 X130.75 Y138.38 E387.92299
G1 X131.43 Y138.84 E387.96642
G1 X131.82 Y139.12 E387.99117
G1 X132.45 Y139.61 E388.03311
G1 X133.08 Y140.16 E388.07713
G1 X133.69 Y140.74 E388.12107
G1 X134.27 Y141.34 E388.16498
G1 X134.82 Y141.98 E388.20904
G1 X135.33 Y142.64 E388.25294
G1 X135.81 Y143.33 E388.29670
G1 X136.11 Y143.81 E388.32629
G1 X181.51 Y141.21 E390.70861
G1 X181.71 Y141.16 E390.71933
G1 X182.91 Y141.12 E390.78222
G1 X183.18 Y141.12 E390.79595
G1 X184.35 Y141.32 E390.85842
G1 X184.63 Y141.36 E390.87303
G1 X185.74 Y141.80 E390.93538
G1 X186.00 Y141.90 E390.95007
G1 X187.03 Y142.57 E391.01460
G1 X187.25 Y142.72 E391.02850
G1 X188.26 Y143.70 E391.10259
G1 X188.97 Y144.72 E391.16718
G1 X189.12 Y144.94 E391.18159
G1 X189.61 Y146.07 E391.24600
G1 X189.61 Y146.07 E391.24606
G1 X189.71 Y146.30 E391.25895
G1 X190.02 Y147.71 E391.33451
G1 X190.06 Y148.96 E391.40012
G1 X190.06 Y149.22 E391.41391
G1 X189.83 Y150.63 E391.48904
G1 X189.40 Y151.81 E391.55483
G1 X189.31 Y152.07 E391.56885
G1 X188.67 Y153.10 E391.63252
G1 X188.55 Y153.31 E391.64537
G1 X187.57 Y154.38 E391.72097
G1 X186.57 Y155.12 E391.78603
G1 X186.35 Y155.28 E391.80046
G1 X186.06 Y155.42 E391.81731
G1 X186.10 Y156.05 E391.85027
G1 X183.81 Y156.19 E391.97052
G1 X183.59 Y156.24 E391.98254
G1 X182.45 Y156.28 E392.04213
G1 X137.30 Y159.23 E394.41233
G1 X137.26 Y159.32 E394.41752
G1 X136.91 Y160.08 E394.46159
G1 X136.52 Y160.82 E394.50550
G1 X136.10 Y161.55 E394.54945
G1 X135.64 Y162.25 E394.59349
G1 X135.14 Y162.93 E394.63740
G1 X134.62 Y163.58 E394.68133
G1 X134.06 Y164.21 E394.72544
G1 X133.47 Y164.81 E394.76945
G1 X132.85 Y165.38 E394.81345
G1 X132.21 Y165.92 E394.85763
G1 X131.53 Y166.43 E394.90176
G1 X130.84 Y166.90 E394.94580
G1 X130.12 Y167.34 E394.98985
G1 X129.38 Y167.75 E395.03404
G1 X128.62 Y168.12 E395.07816
G1 X127.85 Y168.45 E395.12227
G1 X127.06 Y168.75 E395.16640
G1 X126.25 Y169.00 E395.21077
G1 X125.44 Y169.22 E395.25482
G1 X124.62 Y169.40 E395.29908
G1 X123.78 Y169.53 E395.34330
G1 X123.17 Y169.60 E395.37557
G1 X122.76 Y169.72 E395.39799
G1 X121.92 Y169.90 E395.44289
G1 X121.07 Y170.05 E395.48815
G1 X120.21 Y170.16 E395.53345
G1 X119.35 Y170.23 E395.57884
G1 X118.56 Y170.25 E395.62003
G1 X118.47 Y170.25 E395.62464
G1 X117.62 Y170.23 E395.66918
G1 X114.90 Y170.05 E395.81230
G1 X114.90 Y162.05 E396.23143
G1 X119.00 Y162.05 E396.44631
G1 X119.00 Y157.19 E396.70054
G1 X119.08 Y156.46 E396.73922
G1 X119.33 Y155.68 E396.78188
G1 X119.72 Y154.97 E396.82471
G1 X120.25 Y154.35 E396.86727
G1 X120.88 Y153.84 E396.90986
G1 X121.59 Y153.47 E396.95189
G1 X122.33 Y153.24 E396.99236
G1 X123.03 Y153.17 E397.02911
G1 X127.87 Y153.17 E397.28276
G1 X127.87 Y152.09 E397.33980
G1 X123.02 Y152.09 E397.59387
G1 X122.29 Y152.01 E397.63259
G1 X121.51 Y151.76 E397.67532
G1 X120.79 Y151.37 E397.71820
G1 X120.17 Y150.84 E397.76090
G1 X119.66 Y150.21 E397.80333
G1 X119.30 Y149.49 E397.84532
G1 X119.07 Y148.75 E397.88583
G1 X119.00 Y148.06 E397.92263
G1 X119.00 Y143.21 E398.17628
G1 X114.90 Y143.21 E398.39116
G1 X114.90 Y135.18 E398.81176
G0 F12000 X115.32 Y135.58
G1 F1800 X117.99 Y135.44 E398.95189
G1 X118.47 Y135.43 E398.97677
G1 X119.27 Y135.45 E399.01906
G1 X120.11 Y135.51 E399.06322
G1 X120.95 Y135.61 E399.10750
G1 X121.78 Y135.75 E399.15177
G1 X122.61 Y135.94 E399.19606
G1 X123.39 Y136.16 E399.23856
G1 X123.45 Y136.17 E399.24183
G1 X123.74 Y136.26 E399.25767
G1 X124.42 Y136.37 E399.29395
G1 X125.23 Y136.53 E399.33725
G1 X126.03 Y136.73 E399.38042
G1 X126.82 Y136.97 E399.42343
G1 X127.59 Y137.25 E399.46648
G1 X128.35 Y137.57 E399.50960
G1 X129.09 Y137.92 E399.55258
G1 X129.82 Y138.31 E399.59560
G1 X130.52 Y138.73 E399.63858
G1 X131.19 Y139.18 E399.68099
G1 X131.56 Y139.45 E399.70500
G1 X132.18 Y139.93 E399.74597
G1 X132.80 Y140.47 E399.78895
G1 X133.39 Y141.03 E399.83178
G1 X133.96 Y141.63 E399.87465
G1 X134.49 Y142.25 E399.91759
G1 X134.99 Y142.89 E399.96037
G1 X135.46 Y143.56 E400.00309
G1 X135.89 Y144.24 E400.04512
G1 X181.58 Y141.62 E402.44239
G1 X181.77 Y141.58 E402.45268
G1 X182.93 Y141.54 E402.51331
G1 X183.15 Y141.54 E402.52489
G1 X184.29 Y141.73 E402.58545
G1 X184.29 Y141.73 E402.58550
G1 X184.51 Y141.77 E402.59755
G1 X185.59 Y142.19 E402.65784
G1 X185.81 Y142.27 E402.67017
G1 X186.80 Y142.92 E402.73229
G1 X186.99 Y143.04 E402.74400
G1 X187.94 Y143.98 E402.81390
G1 X188.62 Y144.96 E402.87649
G1 X188.75 Y145.15 E402.88864
G1 X189.22 Y146.22 E402.94975
G1 X189.31 Y146.43 E402.96166
G1 X189.60 Y147.76 E403.03298
G1 X189.63 Y148.97 E403.09650
G1 X189.64 Y149.19 E403.10813
G1 X189.42 Y150.53 E403.17912
G1 X189.00 Y151.67 E403.24279
G1 X188.93 Y151.88 E403.25464
G1 X188.31 Y152.88 E403.31615
G1 X188.21 Y153.06 E403.32705
G1 X187.29 Y154.06 E403.39823
G1 X186.32 Y154.78 E403.46117
G1 X186.14 Y154.92 E403.47331
G1 X185.62 Y155.16 E403.50294
G1 X185.66 Y155.65 E403.52897
G1 X183.75 Y155.77 E403.62917
G1 X183.53 Y155.82 E403.64080
G1 X182.44 Y155.86 E403.69808
G1 X137.01 Y158.82 E406.08304
G1 X136.88 Y159.15 E406.10149
G1 X136.53 Y159.90 E406.14445
G1 X136.15 Y160.62 E406.18731
G1 X135.74 Y161.33 E406.23011
G1 X135.29 Y162.01 E406.27309
G1 X134.81 Y162.67 E406.31591
G1 X134.30 Y163.31 E406.35880
G1 X133.75 Y163.93 E406.40180
G1 X133.18 Y164.51 E406.44473
G1 X132.57 Y165.07 E406.48766
G1 X131.94 Y165.59 E406.53076
G1 X131.29 Y166.09 E406.57380
G1 X130.61 Y166.55 E406.61678
G1 X129.91 Y166.98 E406.65977
G1 X129.19 Y167.38 E406.70288
G1 X128.45 Y167.74 E406.74590
G1 X127.69 Y168.06 E406.78903
G1 X126.92 Y168.35 E406.83205
G1 X126.14 Y168.60 E406.87531
G1 X125.34 Y168.81 E406.91833
G1 X124.54 Y168.98 E406.96152
G1 X123.72 Y169.12 E407.00467
G1 X123.10 Y169.19 E407.03773
G1 X122.66 Y169.31 E407.06172
G1 X121.84 Y169.49 E407.10556
G1 X121.01 Y169.64 E407.14976
G1 X120.17 Y169.74 E407.19400
G1 X119.33 Y169.81 E407.23829
G1 X118.54 Y169.83 E407.27942
G1 X118.47 Y169.83 E407.28314
G1 X117.64 Y169.81 E407.32653
G1 X115.32 Y169.65 E407.44860
G1 X115.32 Y162.47 E407.82514
G1 X119.42 Y162.47 E408.04002
G1 X119.42 Y157.22 E408.31504
G1 X119.50 Y156.55 E408.35036
G1 X119.72 Y155.85 E408.38867
G1 X120.07 Y155.21 E408.42710
G1 X120.54 Y154.65 E408.46539
G1 X121.11 Y154.19 E408.50369
G1 X121.75 Y153.86 E408.54146
G1 X122.42 Y153.66 E408.57776
G1 X123.05 Y153.59 E408.61125
G1 X128.29 Y153.59 E408.88580
G1 X128.29 Y151.66 E408.98685
G1 X123.05 Y151.66 E409.26176
G1 X122.38 Y151.59 E409.29706
G1 X121.68 Y151.37 E409.33545
G1 X121.03 Y151.02 E409.37397
G1 X120.47 Y150.54 E409.41232
G1 X120.02 Y149.97 E409.45048
G1 X119.69 Y149.34 E409.48822
G1 X119.48 Y148.67 E409.52458
G1 X119.42 Y148.03 E409.55811
G1 X119.42 Y142.79 E409.83266
G1 X115.32 Y142.79 E410.04754
G1 X115.32 Y135.58 E410.42529
G0 F12000 X115.74 Y135.98
G1 F1800 X118.00 Y135.86 E410.54412
G1 X118.46 Y135.85 E410.56816
G1 X119.25 Y135.87 E410.60951
G1 X120.07 Y135.93 E410.65262
G1 X120.89 Y136.03 E410.69579
G1 X121.70 Y136.17 E410.73900
G1 X122.51 Y136.35 E410.78216
G1 X123.28 Y136.56 E410.82401
G1 X123.33 Y136.57 E410.82685
G1 X123.64 Y136.67 E410.84401
G1 X124.35 Y136.78 E410.88167
G1 X125.14 Y136.94 E410.92384
G1 X125.92 Y137.14 E410.96594
G1 X126.69 Y137.37 E411.00791
G1 X127.44 Y137.64 E411.04984
G1 X128.18 Y137.95 E411.09189
G1 X128.90 Y138.30 E411.13381
G1 X129.61 Y138.67 E411.17572
G1 X130.29 Y139.09 E411.21764
G1 X130.95 Y139.53 E411.25913
G1 X131.31 Y139.79 E411.28231
G1 X131.91 Y140.26 E411.32239
G1 X132.52 Y140.78 E411.36421
G1 X133.09 Y141.33 E411.40600
G1 X133.65 Y141.91 E411.44776
G1 X134.17 Y142.51 E411.48959
G1 X134.66 Y143.14 E411.53136
G1 X135.11 Y143.79 E411.57296
G1 X135.54 Y144.47 E411.61473
G1 X135.65 Y144.67 E411.62704
G1 X181.65 Y142.04 E414.04032
G1 X181.82 Y142.00 E414.05001
G1 X183.12 Y141.96 E414.11777
G1 X184.21 Y142.15 E414.17600
G1 X184.40 Y142.18 E414.18598
G1 X185.44 Y142.58 E414.24412
G1 X185.61 Y142.65 E414.25415
G1 X186.57 Y143.27 E414.31380
G1 X186.72 Y143.37 E414.32331
G1 X187.62 Y144.25 E414.38907
G1 X188.28 Y145.20 E414.44966
G1 X188.39 Y145.35 E414.45952
G1 X188.83 Y146.39 E414.51863
G1 X188.91 Y146.56 E414.52832
G1 X189.18 Y147.81 E414.59539
G1 X189.22 Y148.98 E414.65681
G1 X189.22 Y149.16 E414.66630
G1 X189.01 Y150.42 E414.73315
G1 X188.61 Y151.53 E414.79469
G1 X188.54 Y151.70 E414.80433
G1 X187.95 Y152.66 E414.86374
G1 X187.87 Y152.81 E414.87261
G1 X187.01 Y153.75 E414.93946
G1 X186.08 Y154.44 E415.00019
G1 X185.92 Y154.56 E415.01012
G1 X185.19 Y154.90 E415.05257
G1 X185.21 Y155.26 E415.07167
G1 X183.68 Y155.36 E415.15187
G1 X183.47 Y155.41 E415.16308
G1 X182.43 Y155.44 E415.21800
G1 X136.71 Y158.42 E417.61771
G1 X136.49 Y158.99 E417.64947
G1 X136.16 Y159.71 E417.69133
G1 X135.78 Y160.42 E417.73309
G1 X135.38 Y161.11 E417.77483
G1 X134.94 Y161.77 E417.81667
G1 X134.48 Y162.42 E417.85845
G1 X133.97 Y163.04 E417.90025
G1 X133.44 Y163.64 E417.94218
G1 X132.88 Y164.21 E417.98404
G1 X132.30 Y164.75 E418.02589
G1 X131.68 Y165.27 E418.06795
G1 X131.04 Y165.75 E418.10983
G1 X130.38 Y166.20 E418.15179
G1 X129.70 Y166.62 E418.19371
G1 X129.00 Y167.00 E418.23574
G1 X128.28 Y167.35 E418.27770
G1 X127.54 Y167.67 E418.31976
G1 X126.79 Y167.95 E418.36171
G1 X126.02 Y168.20 E418.40392
G1 X125.25 Y168.40 E418.44587
G1 X124.46 Y168.57 E418.48798
G1 X123.67 Y168.70 E418.53007
G1 X123.02 Y168.77 E418.56419
G1 X122.56 Y168.90 E418.58943
G1 X121.76 Y169.08 E418.63229
G1 X120.95 Y169.22 E418.67542
G1 X120.13 Y169.32 E418.71855
G1 X119.31 Y169.39 E418.76179
G1 X118.52 Y169.41 E418.80309
G1 X118.47 Y169.41 E418.80571
G1 X117.66 Y169.39 E418.84789
G1 X115.74 Y169.26 E418.94890
G1 X115.74 Y162.89 E419.28291
G1 X119.84 Y162.89 E419.49779
G1 X119.84 Y157.24 E419.79361
G1 X119.91 Y156.63 E419.82549
G1 X120.10 Y156.01 E419.85951
G1 X120.42 Y155.44 E419.89360
G1 X120.84 Y154.95 E419.92753
G1 X121.34 Y154.54 E419.96152
G1 X121.91 Y154.25 E419.99512
G1 X122.50 Y154.07 E420.02725
G1 X123.07 Y154.01 E420.05747
G1 X128.71 Y154.01 E420.35292
G1 X128.71 Y151.25 E420.49797
G1 X123.07 Y151.25 E420.79369
G1 X122.46 Y151.18 E420.82561
G1 X121.84 Y150.98 E420.85964
G1 X121.27 Y150.67 E420.89382
G1 X120.78 Y150.25 E420.92783
G1 X120.37 Y149.75 E420.96167
G1 X120.08 Y149.18 E420.99522
G1 X119.90 Y148.59 E421.02742
G1 X119.84 Y148.01 E421.05769
G1 X119.84 Y142.37 E421.35314
G1 X115.74 Y142.37 E421.56802
G1 X115.74 Y135.98 E421.90292
G0 F12000 X116.16 Y136.38
G1 F1800 X118.02 Y136.28 E422.00050
G1 X118.46 Y136.27 E422.02366
G1 X119.23 Y136.29 E422.06406
G1 X120.03 Y136.34 E422.10612
G1 X120.83 Y136.44 E422.14818
G1 X121.62 Y136.58 E422.19028
G1 X122.41 Y136.75 E422.23241
G1 X123.16 Y136.96 E422.27350
G1 X123.21 Y136.98 E422.27590
G1 X123.55 Y137.09 E422.29487
G1 X124.28 Y137.19 E422.33343
G1 X125.05 Y137.35 E422.37448
G1 X125.81 Y137.54 E422.41550
G1 X126.55 Y137.77 E422.45643
G1 X127.29 Y138.04 E422.49729
G1 X128.01 Y138.34 E422.53827
G1 X128.71 Y138.67 E422.57909
G1 X129.40 Y139.04 E422.61998
G1 X130.07 Y139.44 E422.66080
G1 X130.71 Y139.87 E422.70135
G1 X131.06 Y140.12 E422.72367
G1 X131.65 Y140.58 E422.76285
G1 X132.24 Y141.09 E422.80359
G1 X132.80 Y141.63 E422.84431
G1 X133.33 Y142.19 E422.88500
G1 X133.84 Y142.78 E422.92567
G1 X134.32 Y143.39 E422.96640
G1 X134.76 Y144.03 E423.00694
G1 X135.18 Y144.68 E423.04757
G1 X135.41 Y145.11 E423.07311
G1 X181.70 Y142.46 E425.50171
G1 X181.88 Y142.41 E425.51142
G1 X183.09 Y142.38 E425.57472
G1 X184.15 Y142.56 E425.63088
G1 X184.15 Y142.56 E425.63093
G1 X184.29 Y142.58 E425.63858
G1 X185.28 Y142.97 E425.69463
G1 X185.42 Y143.03 E425.70233
G1 X186.34 Y143.62 E425.75952
G1 X186.46 Y143.70 E425.76688
G1 X187.30 Y144.52 E425.82849
G1 X187.93 Y145.44 E425.88705
G1 X188.02 Y145.56 E425.89461
G1 X188.45 Y146.56 E425.95168
G1 X188.50 Y146.69 E425.95916
G1 X188.76 Y147.86 E426.02200
G1 X188.80 Y148.99 E426.08139
G1 X188.80 Y149.13 E426.08867
G1 X188.60 Y150.31 E426.15137
G1 X188.22 Y151.38 E426.21082
G1 X188.17 Y151.51 E426.21824
G1 X187.60 Y152.45 E426.27552
G1 X187.53 Y152.56 E426.28240
G1 X186.72 Y153.44 E426.34491
G1 X185.71 Y154.19 E426.41110
G1 X184.75 Y154.64 E426.46642
G1 X184.76 Y154.87 E426.47854
G1 X183.62 Y154.94 E426.53859
G1 X183.42 Y154.99 E426.54951
G1 X182.41 Y155.02 E426.60224
G1 X136.42 Y158.02 E429.01680
G1 X136.39 Y158.10 E429.02113
G1 X136.10 Y158.82 E429.06178
G1 X135.78 Y159.53 E429.10245
G1 X135.42 Y160.22 E429.14317
G1 X135.03 Y160.88 E429.18383
G1 X134.60 Y161.53 E429.22457
G1 X134.14 Y162.16 E429.26530
G1 X133.66 Y162.77 E429.30599
G1 X133.14 Y163.35 E429.34683
G1 X132.59 Y163.91 E429.38766
G1 X132.02 Y164.44 E429.42840
G1 X131.42 Y164.94 E429.46934
G1 X130.80 Y165.41 E429.51018
G1 X130.15 Y165.85 E429.55105
G1 X129.49 Y166.25 E429.59190
G1 X128.80 Y166.63 E429.63288
G1 X128.10 Y166.97 E429.67379
G1 X127.38 Y167.28 E429.71476
G1 X126.65 Y167.56 E429.75571
G1 X125.90 Y167.79 E429.79676
G1 X125.15 Y167.99 E429.83767
G1 X124.38 Y168.16 E429.87872
G1 X123.61 Y168.28 E429.91975
G1 X122.94 Y168.36 E429.95529
G1 X122.45 Y168.49 E429.98141
G1 X121.67 Y168.67 E430.02330
G1 X120.88 Y168.81 E430.06532
G1 X120.09 Y168.91 E430.10740
G1 X119.28 Y168.97 E430.14953
G1 X118.51 Y168.99 E430.19025
G1 X118.47 Y168.99 E430.19250
G1 X117.68 Y168.97 E430.23353
G1 X116.16 Y168.87 E430.31349
G1 X116.16 Y163.31 E430.60490
G1 X120.26 Y163.31 E430.81979
G1 X120.26 Y157.26 E431.13640
G1 X120.32 Y156.72 E431.16491
G1 X120.49 Y156.18 E431.19459
G1 X120.77 Y155.68 E431.22429
G1 X121.13 Y155.25 E431.25391
G1 X121.57 Y154.90 E431.28357
G1 X122.07 Y154.64 E431.31292
G1 X122.58 Y154.49 E431.34095
G1 X123.09 Y154.43 E431.36791
G1 X129.13 Y154.43 E431.68426
G1 X129.13 Y150.82 E431.87331
G1 X123.09 Y150.82 E432.18982
G1 X122.55 Y150.77 E432.21838
G1 X122.01 Y150.59 E432.24801
G1 X121.51 Y150.32 E432.27784
G1 X121.08 Y149.95 E432.30753
G1 X120.73 Y149.51 E432.33704
G1 X120.47 Y149.02 E432.36642
G1 X120.31 Y148.50 E432.39444
G1 X120.26 Y147.99 E432.42145
G1 X120.26 Y141.95 E432.73781
G1 X116.16 Y141.95 E432.95269
G1 X116.16 Y136.38 E433.24473
G0 F12000 X116.58 Y136.78
G1 F1800 X118.03 Y136.70 E433.32101
G1 X118.46 Y136.69 E433.34333
G1 X119.21 Y136.71 E433.38279
G1 X119.99 Y136.76 E433.42375
G1 X120.77 Y136.86 E433.46475
G1 X121.54 Y136.99 E433.50579
G1 X122.31 Y137.16 E433.54680
G1 X123.05 Y137.37 E433.58717
G1 X123.08 Y137.38 E433.58913
G1 X123.45 Y137.50 E433.60949
G1 X124.21 Y137.61 E433.64937
G1 X124.95 Y137.76 E433.68936
G1 X125.69 Y137.95 E433.72929
G1 X126.42 Y138.17 E433.76912
G1 X127.14 Y138.43 E433.80894
G1 X127.84 Y138.72 E433.84882
G1 X128.53 Y139.05 E433.88861
G1 X129.19 Y139.41 E433.92838
G1 X129.84 Y139.80 E433.96816
G1 X130.47 Y140.22 E434.00769
G1 X130.81 Y140.46 E434.02926
G1 X131.38 Y140.91 E434.06747
G1 X131.95 Y141.40 E434.10718
G1 X132.50 Y141.93 E434.14682
G1 X133.02 Y142.47 E434.18640
G1 X133.51 Y143.04 E434.22599
G1 X133.98 Y143.64 E434.26560
G1 X134.41 Y144.26 E434.30509
G1 X134.81 Y144.90 E434.34462
G1 X135.18 Y145.54 E434.38334
G1 X181.76 Y142.87 E436.82769
G1 X181.94 Y142.83 E436.83700
G1 X183.06 Y142.80 E436.89580
G1 X184.08 Y142.97 E436.94993
G1 X184.18 Y142.99 E436.95524
G1 X185.13 Y143.37 E437.00917
G1 X185.23 Y143.40 E437.01454
G1 X186.11 Y143.97 E437.06926
G1 X186.19 Y144.03 E437.07440
G1 X186.97 Y144.79 E437.13189
G1 X187.59 Y145.68 E437.18846
G1 X187.65 Y145.76 E437.19377
G1 X188.06 Y146.73 E437.24878
G1 X188.10 Y146.82 E437.25405
G1 X188.34 Y147.91 E437.31261
G1 X188.38 Y149.01 E437.36995
G1 X188.38 Y149.10 E437.37508
G1 X188.20 Y150.21 E437.43364
G1 X187.82 Y151.24 E437.49097
G1 X187.79 Y151.33 E437.49622
G1 X187.24 Y152.23 E437.55133
G1 X187.19 Y152.31 E437.55626
G1 X186.44 Y153.13 E437.61440
G1 X185.58 Y153.77 E437.67082
G1 X185.49 Y153.83 E437.67614
G1 X184.50 Y154.29 E437.73349
G1 X184.31 Y154.34 E437.74364
G1 X184.32 Y154.47 E437.75088
G1 X183.56 Y154.52 E437.79099
G1 X183.36 Y154.57 E437.80143
G1 X182.38 Y154.60 E437.85321
G1 X136.11 Y157.62 E440.28184
G1 X136.00 Y157.95 E440.30030
G1 X135.72 Y158.66 E440.33984
G1 X135.40 Y159.34 E440.37941
G1 X135.05 Y160.01 E440.41903
G1 X134.67 Y160.66 E440.45859
G1 X134.25 Y161.30 E440.49827
G1 X133.81 Y161.91 E440.53791
G1 X133.33 Y162.50 E440.57751
G1 X132.83 Y163.06 E440.61729
G1 X132.30 Y163.60 E440.65700
G1 X131.74 Y164.12 E440.69673
G1 X131.16 Y164.61 E440.73656
G1 X130.55 Y165.07 E440.77631
G1 X129.93 Y165.49 E440.81612
G1 X129.28 Y165.89 E440.85592
G1 X128.61 Y166.26 E440.89582
G1 X127.93 Y166.59 E440.93567
G1 X127.22 Y166.89 E440.97561
G1 X126.51 Y167.16 E441.01545
G1 X125.78 Y167.39 E441.05546
G1 X125.05 Y167.58 E441.09529
G1 X124.30 Y167.74 E441.13526
G1 X123.55 Y167.87 E441.17523
G1 X122.86 Y167.95 E441.21188
G1 X122.35 Y168.08 E441.23923
G1 X121.59 Y168.26 E441.28011
G1 X120.82 Y168.39 E441.32101
G1 X120.05 Y168.49 E441.36203
G1 X119.26 Y168.55 E441.40306
G1 X118.50 Y168.57 E441.44325
G1 X118.50 Y168.57 E441.44330
G1 X118.46 Y168.57 E441.44519
G1 X117.70 Y168.55 E441.48501
G1 X116.58 Y168.48 E441.54392
G1 X116.58 Y163.73 E441.79275
G1 X120.68 Y163.73 E442.00763
G1 X120.68 Y157.28 E442.34504
G1 X120.73 Y156.81 E442.37013
G1 X120.88 Y156.35 E442.39546
G1 X121.11 Y155.92 E442.42085
G1 X121.42 Y155.56 E442.44613
G1 X121.80 Y155.25 E442.47146
G1 X122.23 Y155.03 E442.49663
G1 X122.67 Y154.90 E442.52050
