;-- START GCODE --
;Sliced for Type A Machines Series 1
;Sliced at: Wed 09-11-2016 01:30:58
;Basic settings: Layer height: 0.2 Walls: 4.2 Fill: 100
;Print Speed: 30 Support: 0
;Retraction Speed: 40 Retraction Distance: 1.2
;Print time: #P_TIME#
;Filament used: #F_AMNT#m #F_WGHT#g
;Filament cost: #F_COST#
M106 S255	 ;start with the fan on
G21        ;metric values
G90        ;absolute positioning
M106 S255    ;start with the fan on
G28     ;move to endstops
G29		;allows for auto-levelling
G1 X150 Y5  Z15.0 F12000 ;center and move the platform down 15mm
M109 S220 ;Heat To temp
G92 E0                  ;zero the extruded length
G1 F200 E30              ;extrude 30mm of feed stock
G92 E0                  ;zero the extruded length again
G1 X175 Y25  Z0 F12000 ;remove bugger
G1 X220 F12000 ;remove bugger
G1 X150 Y150  Z15 F12000 ;recenter and begin
G1 F12000

;Layer count: 15
;LAYER:0
M106 S255
G0 F12000 X114.00 Y134.33 Z0.30
;TYPE:SKIRT
G1 F1800 X117.94 Y134.12 E0.20696
G1 X118.47 Y134.11 E0.23463
G1 X119.33 Y134.13 E0.27985
G1 X120.24 Y134.19 E0.32738
G1 X121.14 Y134.31 E0.37508
G1 X122.04 Y134.46 E0.42276
G1 X122.93 Y134.66 E0.47048
G1 X123.75 Y134.88 E0.51520
G1 X123.84 Y134.91 E0.51984
G1 X124.04 Y134.97 E0.53089
G1 X124.65 Y135.07 E0.56347
G1 X125.53 Y135.24 E0.61023
G1 X126.39 Y135.46 E0.65677
G1 X127.24 Y135.72 E0.70319
G1 X128.07 Y136.02 E0.74957
G1 X128.89 Y136.36 E0.79604
G1 X129.69 Y136.74 E0.84239
G1 X130.47 Y137.16 E0.88879
G1 X131.23 Y137.62 E0.93518
G1 X131.95 Y138.10 E0.98064
G1 X132.36 Y138.40 E1.00712
G1 X133.02 Y138.91 E1.05104
G1 X133.69 Y139.49 E1.09739
G1 X134.33 Y140.10 E1.14363
G1 X134.94 Y140.74 E1.18987
G1 X135.51 Y141.41 E1.23627
G1 X136.05 Y142.11 E1.28249
G1 X136.56 Y142.83 E1.32855
G1 X136.59 Y142.88 E1.33147
G1 X180.04 Y140.39 E3.61142
G1 X181.39 Y140.31 E3.68194
G1 X181.59 Y140.26 E3.69321
G1 X182.89 Y140.22 E3.76102
G1 X183.24 Y140.22 E3.77936
G1 X184.51 Y140.43 E3.84672
G1 X184.87 Y140.49 E3.86589
G1 X186.08 Y140.97 E3.93427
G1 X186.41 Y141.09 E3.95244
G1 X187.53 Y141.82 E4.02224
G1 X187.82 Y142.01 E4.04083
G1 X188.95 Y143.12 E4.12380
G1 X189.70 Y144.20 E4.19271
G1 X189.91 Y144.50 E4.21194
G1 X190.42 Y145.69 E4.27950
G1 X190.57 Y146.01 E4.29833
G1 X190.91 Y147.59 E4.38300
G1 X190.96 Y148.93 E4.45307
G1 X190.96 Y149.28 E4.47147
G1 X190.70 Y150.87 E4.55552
G1 X190.24 Y152.13 E4.62582
G1 X190.12 Y152.46 E4.64455
G1 X189.44 Y153.57 E4.71276
G1 X189.27 Y153.85 E4.72992
G1 X188.18 Y155.05 E4.81483
G1 X187.11 Y155.84 E4.88453
G1 X186.99 Y155.93 E4.89207
G1 X187.05 Y156.89 E4.94240
G1 X183.94 Y157.09 E5.10590
G1 X183.70 Y157.14 E5.11844
G1 X182.51 Y157.18 E5.18123
G1 X137.90 Y160.09 E7.52303
G1 X137.72 Y160.48 E7.54553
G1 X137.31 Y161.26 E7.59176
G1 X136.86 Y162.02 E7.63801
G1 X136.38 Y162.76 E7.68436
G1 X135.86 Y163.48 E7.73060
G1 X135.30 Y164.16 E7.77687
G1 X134.71 Y164.83 E7.82333
G1 X134.09 Y165.46 E7.86959
G1 X133.45 Y166.06 E7.91586
G1 X132.76 Y166.63 E7.96245
G1 X132.06 Y167.16 E8.00886
G1 X131.33 Y167.66 E8.05516
G1 X130.57 Y168.12 E8.10153
G1 X129.79 Y168.55 E8.14804
G1 X129.00 Y168.94 E8.19439
G1 X128.19 Y169.29 E8.24076
G1 X127.36 Y169.60 E8.28714
G1 X126.51 Y169.87 E8.33386
G1 X125.65 Y170.09 E8.38019
G1 X124.78 Y170.28 E8.42675
G1 X123.91 Y170.42 E8.47325
G1 X123.35 Y170.49 E8.50283
G1 X122.97 Y170.59 E8.52298
G1 X122.10 Y170.79 E8.56997
G1 X121.20 Y170.94 E8.61757
G1 X120.30 Y171.06 E8.66524
G1 X119.39 Y171.13 E8.71295
G1 X118.57 Y171.15 E8.75597
G1 X118.48 Y171.15 E8.76069
G1 X117.58 Y171.13 E8.80774
G1 X114.00 Y170.89 E8.99602
G1 X114.00 Y161.15 E9.50640
G1 X118.10 Y161.15 E9.72128
G1 X118.10 Y157.14 E9.93098
G1 X118.20 Y156.27 E9.97693
G1 X118.50 Y155.33 E10.02889
G1 X118.98 Y154.45 E10.08100
G1 X119.62 Y153.70 E10.13282
G1 X120.39 Y153.08 E10.18472
G1 X121.25 Y152.63 E10.23575
G1 X121.27 Y152.63 E10.23674
G1 X121.16 Y152.59 E10.24317
G1 X120.28 Y152.11 E10.29543
G1 X119.52 Y151.47 E10.34742
G1 X118.91 Y150.70 E10.39906
G1 X118.46 Y149.84 E10.45001
G1 X118.18 Y148.93 E10.49951
G1 X118.10 Y148.10 E10.54326
G1 X118.10 Y144.11 E10.75212
G1 X114.00 Y144.11 E10.96700
G1 X114.00 Y134.33 E11.47938
G1 F2400 E10.27938
G0 F12000 X125.30 Y142.68
;TYPE:WALL-INNER
G1 F2400 E11.47938
G1 F1800 X125.96 Y142.94 E11.51660
G1 X126.44 Y143.17 E11.54467
G1 X126.91 Y143.42 E11.57242
G1 X127.36 Y143.69 E11.59973
G1 X127.84 Y144.01 E11.63000
G1 X128.44 Y144.48 E11.67003
G1 X128.84 Y144.82 E11.69751
G1 X129.24 Y145.20 E11.72634
G1 X129.59 Y145.57 E11.75309
G1 X129.78 Y145.78 E11.76795
G1 X125.30 Y145.78 E12.00242
G1 X125.30 Y142.68 E12.16523
G0 F12000 X134.17 Y150.23
G1 F1800 X180.46 Y147.58 E14.59373
G1 X182.44 Y147.46 E14.69799
G1 X182.55 Y147.44 E14.70354
G1 X182.73 Y147.43 E14.71328
G1 X182.94 Y147.47 E14.72407
G1 X183.12 Y147.54 E14.73420
G1 X183.28 Y147.64 E14.74455
G1 X183.43 Y147.79 E14.75559
G1 X183.59 Y148.01 E14.76984
G1 X183.69 Y148.24 E14.78289
G1 X183.74 Y148.48 E14.79571
G1 X183.75 Y148.80 E14.81211
G1 X183.71 Y149.02 E14.82416
G1 X183.60 Y149.31 E14.84017
G1 X183.47 Y149.52 E14.85331
G1 X183.33 Y149.68 E14.86451
G1 X183.12 Y149.84 E14.87799
G1 X182.95 Y149.91 E14.88793
G1 X182.75 Y149.97 E14.89901
G1 X182.15 Y149.99 E14.93014
G1 X134.17 Y153.12 E17.44886
G1 X134.17 Y150.23 E17.60030
G0 F12000 X129.84 Y159.47
G1 F1800 X129.46 Y159.90 E17.63011
G1 X129.08 Y160.29 E17.65852
G1 X128.68 Y160.66 E17.68743
G1 X128.28 Y160.99 E17.71439
G1 X127.86 Y161.31 E17.74166
G1 X127.41 Y161.62 E17.77042
G1 X126.96 Y161.89 E17.79810
G1 X126.48 Y162.16 E17.82682
G1 X126.00 Y162.39 E17.85451
G1 X125.51 Y162.60 E17.88249
G1 X125.30 Y162.68 E17.89441
G1 X125.30 Y159.47 E18.06225
G1 X129.84 Y159.47 E18.29981
G0 F12000 X130.13 Y159.78
G1 F1800 X129.76 Y160.20 E18.32939
G1 X129.38 Y160.58 E18.35765
G1 X128.96 Y160.97 E18.38731
G1 X128.54 Y161.32 E18.41635
G1 X128.11 Y161.65 E18.44428
G1 X127.64 Y161.97 E18.47456
G1 X127.17 Y162.26 E18.50335
G1 X126.69 Y162.52 E18.53209
G1 X126.17 Y162.77 E18.56187
G1 X125.65 Y163.00 E18.59184
G1 X125.15 Y163.18 E18.61980
G1 X124.88 Y163.27 E18.63453
G1 X124.88 Y159.05 E18.85533
G1 X130.69 Y159.05 E19.15969
G1 X130.13 Y159.78 E19.20756
G0 F12000 X133.75 Y153.56
G1 F1800 X133.75 Y149.83 E19.40327
G1 X180.43 Y147.16 E21.85254
G1 X182.38 Y147.04 E21.95486
G1 X182.49 Y147.02 E21.96068
G1 X182.76 Y147.01 E21.97504
G1 X183.05 Y147.06 E21.99024
G1 X183.31 Y147.16 E22.00459
G1 X183.55 Y147.32 E22.01989
G1 X183.75 Y147.52 E22.03470
G1 X183.96 Y147.81 E22.05336
G1 X184.09 Y148.11 E22.07073
G1 X184.16 Y148.44 E22.08794
G1 X184.17 Y148.82 E22.10817
G1 X184.12 Y149.13 E22.12484
G1 X183.99 Y149.49 E22.14486
G1 X183.81 Y149.77 E22.16205
G1 X183.61 Y149.99 E22.17762
G1 X183.34 Y150.20 E22.19574
G1 X183.09 Y150.31 E22.20975
G1 X182.80 Y150.38 E22.22547
G1 X182.17 Y150.41 E22.25849
G1 X133.75 Y153.56 E24.80030
G0 F12000 X130.65 Y146.21
G1 F1800 X124.88 Y146.21 E25.10230
G1 X124.88 Y142.09 E25.31781
G1 X125.61 Y142.34 E25.35848
G1 X126.12 Y142.56 E25.38720
G1 X126.64 Y142.80 E25.41700
G1 X127.12 Y143.06 E25.44588
G1 X127.59 Y143.34 E25.47450
G1 X128.07 Y143.66 E25.50463
G1 X128.71 Y144.15 E25.54724
G1 X129.12 Y144.50 E25.57536
G1 X129.54 Y144.90 E25.60559
G1 X129.91 Y145.29 E25.63379
G1 X130.25 Y145.69 E25.66135
G1 X130.60 Y146.14 E25.69126
G1 X130.65 Y146.21 E25.69524
G0 F12000 X130.94 Y145.90
G1 F1800 X131.27 Y146.36 E25.72480
G1 X131.44 Y146.62 E25.74143
G1 X124.46 Y146.62 E26.10681
G1 X124.46 Y141.53 E26.37350
G1 X125.23 Y141.76 E26.41531
G1 X125.78 Y141.96 E26.44609
G1 X126.30 Y142.17 E26.47566
G1 X126.80 Y142.41 E26.50467
G1 X127.33 Y142.70 E26.53621
G1 X127.82 Y142.99 E26.56606
G1 X128.31 Y143.32 E26.59687
G1 X128.98 Y143.83 E26.64123
G1 X129.41 Y144.20 E26.67072
G1 X129.84 Y144.61 E26.70163
G1 X130.21 Y145.00 E26.72986
G1 X130.59 Y145.45 E26.76099
G1 X130.94 Y145.90 E26.79071
G0 F12000 X133.33 Y149.43
G1 F1800 X180.41 Y146.74 E29.26076
G1 X182.32 Y146.63 E29.36108
G1 X182.44 Y146.60 E29.36733
G1 X182.79 Y146.59 E29.38599
G1 X183.16 Y146.65 E29.40576
G1 X183.50 Y146.78 E29.42449
G1 X183.81 Y146.99 E29.44429
G1 X184.07 Y147.24 E29.46333
G1 X184.33 Y147.61 E29.48655
G1 X184.49 Y147.99 E29.50805
G1 X184.57 Y148.38 E29.52923
G1 X184.59 Y148.85 E29.55365
G1 X184.52 Y149.25 E29.57489
G1 X184.37 Y149.67 E29.59875
G1 X184.15 Y150.03 E29.62040
G1 X183.89 Y150.31 E29.64038
G1 X183.55 Y150.56 E29.66266
G1 X183.23 Y150.71 E29.68120
G1 X182.86 Y150.80 E29.70133
G1 X182.19 Y150.82 E29.73624
G1 X133.36 Y154.01 E32.29984
G1 X133.33 Y154.09 E32.30400
G1 X133.33 Y149.43 E32.54780
G0 F12000 X131.48 Y158.63
G1 F1800 X131.45 Y158.68 E32.55026
G1 X131.14 Y159.15 E32.57977
G1 X130.81 Y159.61 E32.60965
G1 X130.45 Y160.06 E32.63976
G1 X130.07 Y160.47 E32.66922
G1 X129.66 Y160.90 E32.70044
G1 X129.24 Y161.28 E32.72991
G1 X128.81 Y161.65 E32.75978
G1 X128.35 Y161.99 E32.78966
G1 X127.86 Y162.32 E32.82053
G1 X127.39 Y162.62 E32.85000
G1 X126.87 Y162.90 E32.88092
G1 X126.35 Y163.15 E32.91084
G1 X125.82 Y163.38 E32.94142
G1 X125.28 Y163.58 E32.97118
G1 X124.72 Y163.76 E33.00196
G1 X124.46 Y163.83 E33.01626
G1 X124.46 Y158.63 E33.28840
G1 X131.48 Y158.63 E33.65588
G0 F12000 X131.81 Y158.90
G1 F1800 X131.49 Y159.38 E33.68615
G1 X131.13 Y159.88 E33.71821
G1 X130.78 Y160.31 E33.74746
G1 X130.36 Y160.78 E33.78055
G1 X129.97 Y161.19 E33.81008
G1 X129.51 Y161.60 E33.84248
G1 X129.07 Y161.97 E33.87241
G1 X128.60 Y162.33 E33.90364
G1 X128.08 Y162.68 E33.93632
G1 X127.60 Y162.98 E33.96583
G1 X127.07 Y163.27 E33.99790
G1 X126.52 Y163.54 E34.02956
G1 X125.98 Y163.77 E34.06065
G1 X125.42 Y163.98 E34.09210
G1 X124.84 Y164.16 E34.12369
G1 X124.27 Y164.31 E34.15475
G1 X124.04 Y164.36 E34.16686
G1 X124.04 Y158.21 E34.48903
G1 X132.20 Y158.21 E34.91633
G1 X131.81 Y158.90 E34.95758
G0 F12000 X132.91 Y156.59
G1 F1800 X132.91 Y148.48 E35.38236
G1 X133.19 Y149.02 E35.41406
G1 X180.38 Y146.32 E37.89035
G1 X182.26 Y146.21 E37.98869
G1 X182.38 Y146.18 E37.99516
G1 X182.82 Y146.17 E38.01842
G1 X183.28 Y146.25 E38.04249
G1 X183.69 Y146.41 E38.06597
G1 X184.07 Y146.66 E38.08982
G1 X184.40 Y146.97 E38.11353
G1 X184.69 Y147.40 E38.14082
G1 X184.89 Y147.85 E38.16661
G1 X184.99 Y148.32 E38.19187
G1 X185.01 Y148.88 E38.22101
G1 X184.93 Y149.35 E38.24575
G1 X184.75 Y149.86 E38.27435
G1 X184.49 Y150.28 E38.30045
G1 X184.18 Y150.62 E38.32433
G1 X183.77 Y150.93 E38.35102
G1 X183.38 Y151.11 E38.37378
G1 X182.92 Y151.22 E38.39851
G1 X182.21 Y151.24 E38.43540
G1 X133.66 Y154.41 E40.98399
G1 X132.91 Y156.59 E41.10469
G0 F12000 X132.17 Y147.04
G1 F1800 X124.04 Y147.04 E41.53042
G1 X124.04 Y141.00 E41.84693
G1 X124.79 Y141.18 E41.88730
G1 X125.35 Y141.35 E41.91782
G1 X125.92 Y141.56 E41.94978
G1 X126.48 Y141.79 E41.98144
G1 X127.02 Y142.05 E42.01265
G1 X127.53 Y142.32 E42.04302
G1 X128.03 Y142.63 E42.07387
G1 X128.56 Y142.98 E42.10729
G1 X129.25 Y143.51 E42.15263
G1 X129.69 Y143.88 E42.18282
G1 X130.12 Y144.30 E42.21431
G1 X130.53 Y144.73 E42.24548
G1 X130.92 Y145.18 E42.27657
G1 X131.26 Y145.62 E42.30602
G1 X131.62 Y146.13 E42.33862
G1 X131.93 Y146.62 E42.36873
G1 X132.17 Y147.04 E42.39432
G0 F12000 X132.59 Y146.94
G1 F1800 X133.44 Y148.59 E42.49094
G1 X182.20 Y145.79 E45.04930
G1 X182.32 Y145.76 E45.05620
G1 X182.85 Y145.75 E45.08376
G1 X183.39 Y145.84 E45.11235
G1 X183.88 Y146.03 E45.14020
G1 X184.34 Y146.33 E45.16879
G1 X184.72 Y146.70 E45.19643
G1 X185.06 Y147.20 E45.22819
G1 X185.29 Y147.72 E45.25830
G1 X185.41 Y148.28 E45.28790
G1 X185.43 Y148.91 E45.32092
G1 X185.34 Y149.46 E45.35018
G1 X185.13 Y150.04 E45.38269
G1 X184.82 Y150.54 E45.41325
G1 X184.46 Y150.93 E45.44125
G1 X183.99 Y151.29 E45.47228
G1 X183.52 Y151.50 E45.49947
G1 X182.97 Y151.64 E45.52873
G1 X182.23 Y151.66 E45.56756
G1 X133.97 Y154.81 E48.10114
G1 X133.25 Y156.91 E48.21735
G1 X133.01 Y157.50 E48.25052
G1 X132.76 Y158.05 E48.28231
G1 X132.47 Y158.59 E48.31434
G1 X132.18 Y159.10 E48.34512
G1 X131.83 Y159.63 E48.37837
G1 X131.47 Y160.12 E48.41021
G1 X131.09 Y160.60 E48.44232
G1 X130.69 Y161.05 E48.47397
G1 X130.25 Y161.49 E48.50635
G1 X129.79 Y161.92 E48.53938
G1 X129.33 Y162.30 E48.57069
G1 X128.84 Y162.68 E48.60319
G1 X128.33 Y163.03 E48.63557
G1 X127.79 Y163.35 E48.66847
G1 X127.26 Y163.64 E48.69996
G1 X126.71 Y163.91 E48.73231
G1 X126.12 Y164.17 E48.76597
G1 X125.55 Y164.38 E48.79770
G1 X124.97 Y164.56 E48.82974
G1 X124.36 Y164.72 E48.86264
G1 X123.77 Y164.85 E48.89452
G1 X123.62 Y164.88 E48.90222
G1 X123.62 Y157.79 E49.27326
G1 X132.49 Y157.79 E49.73802
G1 X132.49 Y147.47 E50.27910
G1 X123.62 Y147.47 E50.74386
G1 X123.62 Y140.49 E51.10903
G1 X124.30 Y140.63 E51.14527
G1 X124.89 Y140.78 E51.17722
G1 X125.50 Y140.97 E51.21080
G1 X126.07 Y141.17 E51.24225
G1 X126.63 Y141.40 E51.27431
G1 X127.21 Y141.68 E51.30761
G1 X127.74 Y141.96 E51.33910
G1 X128.26 Y142.28 E51.37125
G1 X128.80 Y142.64 E51.40530
G1 X129.52 Y143.18 E51.45243
G1 X129.97 Y143.58 E51.48400
G1 X130.42 Y144.00 E51.51616
G1 X130.84 Y144.44 E51.54806
G1 X131.25 Y144.91 E51.58068
G1 X131.61 Y145.39 E51.61200
G1 X131.96 Y145.88 E51.64355
G1 X132.29 Y146.41 E51.67628
G1 X132.59 Y146.94 E51.70855
G0 F12000 X132.96 Y146.74
G1 F1800 X133.69 Y148.15 E51.79193
G1 X182.13 Y145.38 E54.33397
G1 X182.27 Y145.34 E54.34129
G1 X182.88 Y145.33 E54.37316
G1 X183.50 Y145.43 E54.40636
G1 X184.07 Y145.66 E54.43845
G1 X184.60 Y146.00 E54.47159
G1 X185.04 Y146.43 E54.50374
G1 X185.43 Y146.99 E54.53958
G1 X185.69 Y147.60 E54.57419
G1 X185.83 Y148.22 E54.60759
G1 X185.85 Y148.93 E54.64475
G1 X185.75 Y149.56 E54.67842
G1 X185.51 Y150.22 E54.71521
G1 X185.16 Y150.79 E54.74977
G1 X184.74 Y151.25 E54.78243
G1 X184.20 Y151.65 E54.81774
G1 X183.66 Y151.90 E54.84929
G1 X183.03 Y152.06 E54.88312
G1 X182.25 Y152.08 E54.92374
G1 X134.28 Y155.22 E57.44230
G1 X133.64 Y157.06 E57.54450
G1 X133.40 Y157.67 E57.57878
G1 X133.14 Y158.23 E57.61138
G1 X132.85 Y158.79 E57.64411
G1 X132.53 Y159.33 E57.67726
G1 X132.18 Y159.87 E57.71097
G1 X131.81 Y160.38 E57.74382
G1 X131.41 Y160.87 E57.77679
G1 X130.99 Y161.34 E57.80974
G1 X130.53 Y161.81 E57.84426
G1 X130.08 Y162.22 E57.87640
G1 X129.59 Y162.63 E57.90987
G1 X129.09 Y163.02 E57.94311
G1 X128.56 Y163.38 E57.97671
G1 X128.02 Y163.71 E58.00980
G1 X127.45 Y164.02 E58.04346
G1 X126.88 Y164.30 E58.07694
G1 X126.27 Y164.56 E58.11158
G1 X125.69 Y164.77 E58.14390
G1 X125.08 Y164.97 E58.17748
G1 X124.47 Y165.13 E58.21093
G1 X123.83 Y165.27 E58.24521
G1 X123.20 Y165.37 E58.27833
G1 X123.20 Y157.43 E58.69453
G1 X123.21 Y157.38 E58.69707
G1 X132.07 Y157.37 E59.16151
G1 X132.07 Y147.88 E59.65859
G1 X123.25 Y147.88 E60.12088
G1 X123.20 Y147.88 E60.12315
G1 X123.20 Y140.01 E60.53563
G1 X123.78 Y140.09 E60.56608
G1 X124.39 Y140.22 E60.59863
G1 X125.02 Y140.38 E60.63273
G1 X125.63 Y140.56 E60.66643
G1 X126.23 Y140.78 E60.69967
G1 X126.81 Y141.02 E60.73241
G1 X127.38 Y141.29 E60.76587
G1 X127.95 Y141.60 E60.79957
G1 X128.50 Y141.93 E60.83301
G1 X129.05 Y142.29 E60.86768
G1 X129.79 Y142.86 E60.91660
G1 X130.25 Y143.26 E60.94880
G1 X130.72 Y143.71 E60.98237
G1 X131.16 Y144.17 E61.01571
G1 X131.56 Y144.64 E61.04818
G1 X131.95 Y145.14 E61.08182
G1 X132.31 Y145.66 E61.11476
G1 X132.65 Y146.19 E61.14761
G1 X132.96 Y146.74 E61.18049
G0 F12000 X133.33 Y146.54
G1 F1800 X133.94 Y147.72 E61.24942
G1 X182.07 Y144.96 E63.77524
G1 X182.22 Y144.93 E63.78289
G1 X182.91 Y144.91 E63.81931
G1 X183.62 Y145.03 E63.85678
G1 X184.27 Y145.28 E63.89375
G1 X184.87 Y145.67 E63.93098
G1 X185.36 Y146.15 E63.96713
G1 X185.80 Y146.79 E64.00763
G1 X186.10 Y147.47 E64.04656
G1 X186.25 Y148.17 E64.08420
G1 X186.27 Y148.96 E64.12555
G1 X186.16 Y149.67 E64.16309
G1 X185.89 Y150.41 E64.20442
G1 X185.50 Y151.04 E64.24333
G1 X185.03 Y151.56 E64.28000
G1 X184.42 Y152.01 E64.31972
G1 X183.80 Y152.30 E64.35553
G1 X183.25 Y152.44 E64.38529
G1 X183.08 Y152.48 E64.39406
G1 X182.27 Y152.50 E64.43656
G1 X134.58 Y155.62 E66.94011
G1 X134.03 Y157.22 E67.02890
G1 X133.79 Y157.82 E67.06267
G1 X133.52 Y158.41 E67.09665
G1 X133.22 Y158.99 E67.13105
G1 X132.88 Y159.57 E67.16631
G1 X132.53 Y160.09 E67.19901
G1 X132.14 Y160.64 E67.23430
G1 X131.73 Y161.15 E67.26857
G1 X131.29 Y161.63 E67.30289
G1 X130.84 Y162.09 E67.33653
G1 X130.36 Y162.54 E67.37093
G1 X129.85 Y162.97 E67.40577
G1 X129.33 Y163.36 E67.43970
G1 X128.77 Y163.74 E67.47506
G1 X128.22 Y164.08 E67.50914
G1 X127.64 Y164.39 E67.54360
G1 X127.05 Y164.68 E67.57823
G1 X126.46 Y164.94 E67.61190
G1 X125.83 Y165.17 E67.64708
G1 X125.19 Y165.37 E67.68220
G1 X124.56 Y165.54 E67.71641
G1 X123.92 Y165.68 E67.75059
G1 X123.25 Y165.79 E67.78610
G1 X122.46 Y165.88 E67.82791
G1 X121.85 Y166.05 E67.86119
G1 X121.17 Y166.20 E67.89722
G1 X120.51 Y166.31 E67.93259
G1 X119.83 Y166.40 E67.96834
G1 X119.16 Y166.45 E68.00359
G1 X118.68 Y166.46 E68.02890
G1 X118.68 Y165.83 E68.06227
G1 X122.78 Y165.83 E68.27715
G1 X122.78 Y157.40 E68.71854
G1 X122.80 Y157.25 E68.72661
G1 X122.85 Y157.12 E68.73377
G1 X122.90 Y157.07 E68.73756
G1 X122.95 Y157.02 E68.74113
G1 X123.03 Y156.98 E68.74561
G1 X123.08 Y156.97 E68.74829
G1 X131.65 Y156.95 E69.19760
G1 X131.65 Y148.31 E69.65067
G1 X123.23 Y148.31 E70.09186
G1 X123.07 Y148.29 E70.10029
G1 X122.95 Y148.24 E70.10728
G1 X122.89 Y148.19 E70.11092
G1 X122.85 Y148.13 E70.11488
G1 X122.81 Y148.06 E70.11902
G1 X122.80 Y148.01 E70.12181
G1 X122.78 Y139.49 E70.56844
G1 X122.97 Y139.55 E70.57911
G1 X123.85 Y139.68 E70.62525
G1 X124.48 Y139.81 E70.65940
G1 X125.14 Y139.97 E70.69480
G1 X125.75 Y140.16 E70.72828
G1 X126.37 Y140.38 E70.76268
G1 X126.98 Y140.64 E70.79760
G1 X127.58 Y140.92 E70.83221
G1 X128.16 Y141.23 E70.86664
G1 X128.71 Y141.56 E70.90017
G1 X129.29 Y141.95 E70.93660
G1 X130.03 Y142.52 E70.98583
G1 X130.55 Y142.97 E71.02167
G1 X131.01 Y143.41 E71.05516
G1 X131.46 Y143.88 E71.08914
G1 X131.89 Y144.37 E71.12324
G1 X132.29 Y144.89 E71.15755
G1 X132.66 Y145.42 E71.19180
G1 X133.01 Y145.98 E71.22601
G1 X133.33 Y146.54 E71.26021
G0 F12000 X122.62 Y139.43
G1 F1800 X118.68 Y139.43 E71.46661
G1 X118.68 Y138.80 E71.49998
G1 X119.79 Y138.85 E71.55820
G1 X120.46 Y138.94 E71.59361
G1 X121.13 Y139.05 E71.62901
G1 X121.81 Y139.20 E71.66551
G1 X122.48 Y139.39 E71.70214
G1 X122.62 Y139.43 E71.70979
G0 F12000 X122.60 Y138.99
G1 F1800 X123.07 Y139.14 E71.73592
G1 X123.91 Y139.26 E71.78040
G1 X124.57 Y139.40 E71.81584
G1 X125.24 Y139.57 E71.85190
G1 X125.89 Y139.76 E71.88746
G1 X126.53 Y140.00 E71.92331
G1 X127.16 Y140.26 E71.95901
G1 X127.75 Y140.53 E71.99275
G1 X128.37 Y140.87 E72.02994
G1 X128.94 Y141.21 E72.06472
G1 X129.51 Y141.59 E72.10074
G1 X130.31 Y142.21 E72.15352
G1 X130.82 Y142.64 E72.18862
G1 X131.32 Y143.12 E72.22500
G1 X131.77 Y143.59 E72.25898
G1 X132.22 Y144.12 E72.29509
G1 X132.62 Y144.63 E72.32932
G1 X133.01 Y145.19 E72.36493
G1 X133.38 Y145.76 E72.40074
G1 X133.70 Y146.35 E72.43566
G1 X134.18 Y147.28 E72.49070
G1 X182.01 Y144.54 E75.00020
G1 X182.16 Y144.51 E75.00807
G1 X182.94 Y144.49 E75.04926
G1 X183.73 Y144.62 E75.09102
G1 X184.46 Y144.91 E75.13232
G1 X185.13 Y145.34 E75.17393
G1 X185.69 Y145.88 E75.21479
G1 X186.17 Y146.58 E75.25932
G1 X186.50 Y147.34 E75.30247
G1 X186.67 Y148.12 E75.34446
G1 X186.69 Y148.99 E75.38974
G1 X186.56 Y149.78 E75.43184
G1 X186.27 Y150.59 E75.47702
G1 X185.84 Y151.30 E75.52047
G1 X185.31 Y151.87 E75.56129
G1 X184.64 Y152.38 E75.60532
G1 X183.93 Y152.70 E75.64591
G1 X183.31 Y152.86 E75.67929
G1 X183.14 Y152.90 E75.68884
G1 X182.29 Y152.92 E75.73302
G1 X134.89 Y156.02 E78.22166
G1 X134.42 Y157.37 E78.29641
G1 X134.17 Y157.99 E78.33177
G1 X133.90 Y158.59 E78.36622
G1 X133.58 Y159.20 E78.40221
G1 X133.24 Y159.78 E78.43740
G1 X132.87 Y160.34 E78.47258
G1 X132.48 Y160.88 E78.50761
G1 X132.04 Y161.42 E78.54405
G1 X131.61 Y161.91 E78.57829
G1 X131.13 Y162.40 E78.61407
G1 X130.63 Y162.86 E78.64985
G1 X130.12 Y163.29 E78.68469
G1 X129.57 Y163.70 E78.72055
G1 X129.00 Y164.09 E78.75656
G1 X128.44 Y164.44 E78.79132
G1 X127.84 Y164.76 E78.82691
G1 X127.22 Y165.07 E78.86322
G1 X126.60 Y165.33 E78.89849
G1 X125.98 Y165.56 E78.93338
G1 X125.31 Y165.78 E78.97000
G1 X124.67 Y165.95 E79.00479
G1 X123.98 Y166.10 E79.04187
G1 X123.33 Y166.20 E79.07642
G1 X122.54 Y166.29 E79.11787
G1 X121.95 Y166.45 E79.14968
G1 X121.26 Y166.61 E79.18696
G1 X120.58 Y166.73 E79.22329
G1 X119.88 Y166.82 E79.26019
G1 X119.18 Y166.87 E79.29660
G1 X118.46 Y166.89 E79.33438
G1 X118.26 Y166.88 E79.34507
G1 X118.26 Y165.41 E79.42249
G1 X122.36 Y165.41 E79.63738
G1 X122.36 Y157.38 E80.05776
G1 X122.39 Y157.16 E80.06947
G1 X122.43 Y157.01 E80.07770
G1 X122.50 Y156.88 E80.08530
G1 X122.60 Y156.76 E80.09351
G1 X122.72 Y156.67 E80.10149
G1 X122.86 Y156.60 E80.10950
G1 X123.00 Y156.56 E80.11711
G1 X123.20 Y156.53 E80.12785
G1 X131.23 Y156.53 E80.54855
G1 X131.23 Y148.72 E80.95763
G1 X123.20 Y148.72 E81.37822
G1 X122.98 Y148.70 E81.38987
G1 X122.84 Y148.66 E81.39767
G1 X122.71 Y148.58 E81.40562
G1 X122.59 Y148.48 E81.41372
G1 X122.50 Y148.37 E81.42166
G1 X122.42 Y148.22 E81.42990
G1 X122.38 Y148.09 E81.43734
G1 X122.36 Y147.88 E81.44814
G1 X122.36 Y139.85 E81.86884
G1 X118.26 Y139.85 E82.08372
G1 X118.26 Y138.37 E82.16125
G1 X118.45 Y138.37 E82.17105
G1 X119.15 Y138.39 E82.20778
G1 X119.83 Y138.44 E82.24360
G1 X120.52 Y138.52 E82.28001
G1 X121.21 Y138.64 E82.31679
G1 X121.90 Y138.79 E82.35388
G1 X122.60 Y138.99 E82.39160
G0 F12000 X122.70 Y138.58
G1 F1800 X123.17 Y138.73 E82.41728
G1 X124.00 Y138.85 E82.46119
G1 X124.66 Y138.99 E82.49667
G1 X125.36 Y139.16 E82.53478
G1 X126.02 Y139.36 E82.57050
G1 X126.69 Y139.61 E82.60825
G1 X127.32 Y139.87 E82.64361
G1 X127.95 Y140.17 E82.68054
G1 X128.57 Y140.50 E82.71687
G1 X129.17 Y140.86 E82.75386
G1 X129.75 Y141.25 E82.79053
G1 X130.57 Y141.87 E82.84417
G1 X131.11 Y142.34 E82.88153
G1 X131.62 Y142.83 E82.91862
G1 X132.08 Y143.31 E82.95334
G1 X132.54 Y143.85 E82.99079
G1 X132.97 Y144.40 E83.02760
G1 X133.35 Y144.94 E83.06230
G1 X133.73 Y145.54 E83.09943
G1 X134.08 Y146.16 E83.13644
G1 X134.43 Y146.84 E83.17679
G1 X181.95 Y144.12 E85.67003
G1 X182.10 Y144.09 E85.67832
G1 X182.97 Y144.06 E85.72386
G1 X183.84 Y144.21 E85.76997
G1 X184.65 Y144.53 E85.81572
G1 X185.40 Y145.01 E85.86207
G1 X186.01 Y145.61 E85.90712
G1 X186.54 Y146.38 E85.95597
G1 X186.90 Y147.21 E86.00356
G1 X187.09 Y148.06 E86.04915
G1 X187.12 Y149.02 E86.09909
G1 X186.97 Y149.89 E86.14529
G1 X186.65 Y150.77 E86.19474
G1 X186.17 Y151.55 E86.24233
G1 X185.59 Y152.19 E86.28782
G1 X184.85 Y152.74 E86.33586
G1 X184.08 Y153.10 E86.38067
G1 X183.38 Y153.27 E86.41848
G1 X183.20 Y153.31 E86.42810
G1 X182.31 Y153.34 E86.47438
G1 X135.19 Y156.42 E88.94800
G1 X134.82 Y157.51 E89.00873
G1 X134.56 Y158.15 E89.04473
G1 X134.27 Y158.79 E89.08145
G1 X133.96 Y159.39 E89.11686
G1 X133.59 Y160.00 E89.15419
G1 X133.22 Y160.58 E89.19035
G1 X132.81 Y161.14 E89.22643
G1 X132.38 Y161.68 E89.26287
G1 X131.90 Y162.21 E89.30001
G1 X131.42 Y162.71 E89.33646
G1 X130.91 Y163.18 E89.37275
G1 X130.39 Y163.61 E89.40838
G1 X129.82 Y164.04 E89.44566
G1 X129.24 Y164.44 E89.48257
G1 X128.65 Y164.80 E89.51867
G1 X128.02 Y165.15 E89.55641
G1 X127.41 Y165.44 E89.59209
G1 X126.76 Y165.72 E89.62884
G1 X126.09 Y165.97 E89.66609
G1 X125.44 Y166.18 E89.70216
G1 X124.76 Y166.36 E89.73906
G1 X124.07 Y166.50 E89.77571
G1 X123.38 Y166.62 E89.81270
G1 X122.62 Y166.71 E89.85263
G1 X122.04 Y166.86 E89.88415
G1 X121.34 Y167.02 E89.92154
G1 X120.64 Y167.15 E89.95882
G1 X119.92 Y167.24 E89.99694
G1 X119.21 Y167.29 E90.03429
G1 X118.46 Y167.31 E90.07349
G1 X117.84 Y167.29 E90.10603
G1 X117.84 Y164.99 E90.22693
G1 X121.94 Y164.99 E90.44181
G1 X121.94 Y157.35 E90.84166
G1 X121.97 Y157.07 E90.85653
G1 X122.04 Y156.85 E90.86888
G1 X122.16 Y156.64 E90.88110
G1 X122.31 Y156.46 E90.89348
G1 X122.49 Y156.31 E90.90581
G1 X122.70 Y156.20 E90.91836
G1 X122.91 Y156.14 E90.92975
G1 X123.18 Y156.11 E90.94381
G1 X130.81 Y156.11 E91.34366
G1 X130.81 Y149.15 E91.70873
G1 X123.18 Y149.15 E92.10869
G1 X122.90 Y149.12 E92.12344
G1 X122.68 Y149.04 E92.13548
G1 X122.47 Y148.93 E92.14821
G1 X122.29 Y148.78 E92.16037
G1 X122.14 Y148.59 E92.17278
G1 X122.03 Y148.38 E92.18529
G1 X121.97 Y148.17 E92.19662
G1 X121.94 Y147.91 E92.21073
G1 X121.94 Y140.27 E92.61059
G1 X117.84 Y140.27 E92.82547
G1 X117.84 Y137.97 E92.94616
G1 X118.45 Y137.95 E92.97813
G1 X119.17 Y137.97 E93.01570
G1 X119.87 Y138.02 E93.05268
G1 X120.58 Y138.10 E93.09009
G1 X121.29 Y138.23 E93.12793
G1 X122.01 Y138.39 E93.16648
G1 X122.70 Y138.58 E93.20403
G0 F12000 X122.82 Y138.17
;TYPE:WALL-OUTER
G1 F1800 X123.26 Y138.32 E93.22850
G1 X124.06 Y138.44 E93.27093
G1 X124.76 Y138.58 E93.30835
G1 X125.47 Y138.76 E93.34666
G1 X126.16 Y138.97 E93.38415
G1 X126.84 Y139.21 E93.42206
G1 X127.50 Y139.49 E93.45947
G1 X128.15 Y139.80 E93.49745
G1 X128.78 Y140.13 E93.53452
G1 X129.39 Y140.50 E93.57212
G1 X130.00 Y140.91 E93.61026
G1 X130.84 Y141.55 E93.66607
G1 X131.38 Y142.02 E93.70358
G1 X131.90 Y142.51 E93.74108
G1 X132.40 Y143.04 E93.77906
G1 X132.86 Y143.57 E93.81587
G1 X133.30 Y144.14 E93.85336
G1 X133.71 Y144.72 E93.89069
G1 X134.10 Y145.33 E93.92855
G1 X134.44 Y145.95 E93.96552
G1 X134.68 Y146.41 E93.99281
G1 X181.89 Y143.71 E96.46978
G1 X182.05 Y143.67 E96.47831
G1 X183.00 Y143.64 E96.52830
G1 X183.95 Y143.81 E96.57893
G1 X184.83 Y144.15 E96.62851
G1 X184.85 Y144.16 E96.62941
G1 X185.65 Y144.67 E96.67906
G1 X186.33 Y145.34 E96.72914
G1 X186.91 Y146.17 E96.78229
G1 X187.29 Y147.07 E96.83323
G1 X187.50 Y148.01 E96.88417
G1 X187.54 Y149.05 E96.93836
G1 X187.38 Y149.99 E96.98848
G1 X187.03 Y150.94 E97.04152
G1 X187.03 Y150.96 E97.04241
G1 X186.52 Y151.79 E97.09336
G1 X185.87 Y152.50 E97.14379
G1 X185.08 Y153.09 E97.19564
G1 X184.22 Y153.49 E97.24530
G1 X183.44 Y153.69 E97.28727
G1 X183.25 Y153.73 E97.29743
G1 X182.33 Y153.76 E97.34560
G1 X135.50 Y156.82 E99.80421
G1 X135.21 Y157.66 E99.85059
G1 X134.95 Y158.32 E99.88793
G1 X134.64 Y158.97 E99.92583
G1 X134.32 Y159.60 E99.96275
G1 X133.96 Y160.22 E100.00016
G1 X133.56 Y160.81 E100.03761
G1 X133.14 Y161.39 E100.07511
G1 X132.69 Y161.96 E100.11304
G1 X132.21 Y162.49 E100.15070
G1 X131.72 Y163.00 E100.18778
G1 X131.19 Y163.49 E100.22533
G1 X130.64 Y163.95 E100.26297
G1 X130.06 Y164.39 E100.30111
G1 X129.47 Y164.79 E100.33870
G1 X128.85 Y165.17 E100.37640
G1 X128.23 Y165.51 E100.41368
G1 X127.57 Y165.83 E100.45180
G1 X126.92 Y166.11 E100.48923
G1 X126.23 Y166.37 E100.52749
G1 X125.55 Y166.58 E100.56493
G1 X124.85 Y166.77 E100.60302
G1 X124.15 Y166.92 E100.64047
G1 X123.44 Y167.03 E100.67816
G1 X122.70 Y167.12 E100.71729
G1 X122.14 Y167.27 E100.74735
G1 X121.43 Y167.43 E100.78592
G1 X120.69 Y167.56 E100.82496
G1 X119.96 Y167.65 E100.86355
G1 X119.23 Y167.71 E100.90211
G1 X118.47 Y167.73 E100.94157
G1 X118.45 Y167.73 E100.94267
G1 X117.74 Y167.71 E100.97982
G1 X117.42 Y167.69 E100.99689
G1 X117.42 Y164.57 E101.16054
G1 X121.52 Y164.57 E101.37542
G1 X121.52 Y157.33 E101.75427
G1 X121.56 Y156.98 E101.77282
G1 X121.66 Y156.68 E101.78942
G1 X121.81 Y156.40 E101.80604
G1 X122.01 Y156.16 E101.82255
G1 X122.26 Y155.96 E101.83947
G1 X122.55 Y155.81 E101.85615
G1 X122.83 Y155.73 E101.87164
G1 X123.16 Y155.69 E101.88891
G1 X130.39 Y155.69 E102.26792
G1 X130.39 Y149.56 E102.58898
G1 X123.16 Y149.56 E102.96783
G1 X122.81 Y149.53 E102.98637
G1 X122.51 Y149.43 E103.00292
G1 X122.23 Y149.28 E103.01959
G1 X121.99 Y149.07 E103.03613
G1 X121.79 Y148.82 E103.05305
G1 X121.64 Y148.54 E103.06969
G1 X121.55 Y148.26 E103.08518
G1 X121.52 Y147.93 E103.10250
G1 X121.52 Y140.69 E103.48151
G1 X117.42 Y140.69 E103.69639
G1 X117.42 Y137.57 E103.85993
G1 X118.07 Y137.54 E103.89388
G1 X118.45 Y137.53 E103.91420
G1 X119.18 Y137.55 E103.95209
G1 X119.91 Y137.60 E103.99074
G1 X120.64 Y137.69 E104.02926
G1 X121.38 Y137.81 E104.06816
G1 X122.11 Y137.98 E104.10741
G1 X122.82 Y138.17 E104.14604
G0 F12000 X122.73 Y138.47
G0 X125.45 Y142.97
;TYPE:FILL
G1 F1800 X128.12 Y145.64 E104.34370
G0 F12000 X128.71 Y145.64
G1 F1800 X126.37 Y143.30 E104.51665
G0 F12000 X125.45 Y143.56
G1 F1800 X127.52 Y145.64 E104.67029
G0 F12000 X126.93 Y145.64
G1 F1800 X125.45 Y144.16 E104.77994
G0 F12000 X125.45 Y144.75
G1 F1800 X126.33 Y145.64 E104.84558
G0 F12000 X125.74 Y145.64
G1 F1800 X125.45 Y145.34 E104.86721
G0 F12000 X127.94 Y144.28
G1 F1800 X129.30 Y145.64 E104.96778
G0 F12000 X134.32 Y150.65
G1 F1800 X136.48 Y152.82 E105.12798
G0 F12000 X135.92 Y152.85
G1 F1800 X134.32 Y151.25 E105.24685
G0 F12000 X134.32 Y151.84
G1 F1800 X135.37 Y152.89 E105.32449
G0 F12000 X134.81 Y152.93
G1 F1800 X134.32 Y152.44 E105.36079
G0 F12000 X134.61 Y150.35
G1 F1800 X137.04 Y152.78 E105.54088
G0 F12000 X137.60 Y152.74
G1 F1800 X135.17 Y150.32 E105.72061
G0 F12000 X135.73 Y150.28
G1 F1800 X138.16 Y152.71 E105.90011
G0 F12000 X138.71 Y152.67
G1 F1800 X136.29 Y150.25 E106.07921
G0 F12000 X136.86 Y150.22
G1 F1800 X139.27 Y152.63 E106.25804
G0 F12000 X139.83 Y152.60
G1 F1800 X137.42 Y150.19 E106.43651
G0 F12000 X137.98 Y150.16
G1 F1800 X140.38 Y152.56 E106.61472
G0 F12000 X140.94 Y152.53
G1 F1800 X138.54 Y150.12 E106.79256
G0 F12000 X139.10 Y150.09
G1 F1800 X141.50 Y152.49 E106.97013
G0 F12000 X142.06 Y152.45
G1 F1800 X139.66 Y150.06 E107.14738
G0 F12000 X140.23 Y150.03
G1 F1800 X142.62 Y152.42 E107.32432
G0 F12000 X143.17 Y152.38
G1 F1800 X140.79 Y150.00 E107.50098
G0 F12000 X141.35 Y149.96
G1 F1800 X143.73 Y152.34 E107.67729
G0 F12000 X144.29 Y152.31
G1 F1800 X141.91 Y149.93 E107.85335
G0 F12000 X142.47 Y149.90
G1 F1800 X144.84 Y152.27 E108.02904
G0 F12000 X145.40 Y152.23
G1 F1800 X143.03 Y149.87 E108.20447
G0 F12000 X143.60 Y149.83
G1 F1800 X145.96 Y152.20 E108.37960
G0 F12000 X146.52 Y152.16
G1 F1800 X144.16 Y149.80 E108.55440
G0 F12000 X144.72 Y149.77
G1 F1800 X147.08 Y152.12 E108.72887
G0 F12000 X147.63 Y152.09
G1 F1800 X145.28 Y149.74 E108.90304
G0 F12000 X145.84 Y149.71
G1 F1800 X148.19 Y152.05 E109.07687
G0 F12000 X148.75 Y152.01
G1 F1800 X146.41 Y149.67 E109.25041
G0 F12000 X146.97 Y149.64
G1 F1800 X149.31 Y151.98 E109.42366
G0 F12000 X149.86 Y151.94
G1 F1800 X147.53 Y149.61 E109.59660
G0 F12000 X148.09 Y149.58
G1 F1800 X150.42 Y151.91 E109.76922
G0 F12000 X150.98 Y151.87
G1 F1800 X148.65 Y149.54 E109.94157
G0 F12000 X149.22 Y149.51
G1 F1800 X151.54 Y151.83 E110.11359
G0 F12000 X152.09 Y151.80
G1 F1800 X149.78 Y149.48 E110.28532
G0 F12000 X150.34 Y149.45
G1 F1800 X152.65 Y151.76 E110.45667
G0 F12000 X153.21 Y151.72
G1 F1800 X150.90 Y149.41 E110.62780
G0 F12000 X151.46 Y149.38
G1 F1800 X153.77 Y151.69 E110.79853
G0 F12000 X154.32 Y151.65
G1 F1800 X152.02 Y149.35 E110.96899
G0 F12000 X152.59 Y149.32
G1 F1800 X154.88 Y151.62 E111.13916
G0 F12000 X155.44 Y151.58
G1 F1800 X153.15 Y149.29 E111.30896
G0 F12000 X153.71 Y149.25
G1 F1800 X156.00 Y151.54 E111.47846
G0 F12000 X156.56 Y151.51
G1 F1800 X154.27 Y149.22 E111.64767
G0 F12000 X154.83 Y149.19
G1 F1800 X157.11 Y151.47 E111.81654
G0 F12000 X157.67 Y151.43
G1 F1800 X155.40 Y149.16 E111.98508
G0 F12000 X155.96 Y149.13
G1 F1800 X158.23 Y151.40 E112.15332
G0 F12000 X158.78 Y151.36
G1 F1800 X156.52 Y149.09 E112.32127
G0 F12000 X157.08 Y149.06
G1 F1800 X159.34 Y151.32 E112.48892
G0 F12000 X159.90 Y151.29
G1 F1800 X157.64 Y149.03 E112.65631
G0 F12000 X158.20 Y149.00
G1 F1800 X160.46 Y151.25 E112.82330
G0 F12000 X161.02 Y151.22
G1 F1800 X158.76 Y148.97 E112.99006
G0 F12000 X159.33 Y148.93
G1 F1800 X161.57 Y151.18 E113.15641
G0 F12000 X162.13 Y151.14
G1 F1800 X159.89 Y148.90 E113.32251
G0 F12000 X160.45 Y148.87
G1 F1800 X162.69 Y151.11 E113.48827
G0 F12000 X163.25 Y151.07
G1 F1800 X161.01 Y148.84 E113.65373
G0 F12000 X161.57 Y148.80
G1 F1800 X163.80 Y151.03 E113.81886
G0 F12000 X164.36 Y151.00
G1 F1800 X162.14 Y148.77 E113.98373
G0 F12000 X162.70 Y148.74
G1 F1800 X164.92 Y150.96 E114.14827
G0 F12000 X165.48 Y150.92
G1 F1800 X163.26 Y148.71 E114.31248
G0 F12000 X163.82 Y148.68
G1 F1800 X166.03 Y150.89 E114.47639
G0 F12000 X166.59 Y150.85
G1 F1800 X164.38 Y148.64 E114.64004
G0 F12000 X164.95 Y148.61
G1 F1800 X167.15 Y150.81 E114.80332
G0 F12000 X167.71 Y150.78
G1 F1800 X165.51 Y148.58 E114.96630
G0 F12000 X166.07 Y148.55
G1 F1800 X168.26 Y150.74 E115.12899
G0 F12000 X168.82 Y150.71
G1 F1800 X166.63 Y148.51 E115.29138
G0 F12000 X167.19 Y148.48
G1 F1800 X169.38 Y150.67 E115.45340
G0 F12000 X169.94 Y150.63
G1 F1800 X167.75 Y148.45 E115.61519
G0 F12000 X168.32 Y148.42
G1 F1800 X170.50 Y150.60 E115.77662
G0 F12000 X171.05 Y150.56
G1 F1800 X168.88 Y148.39 E115.93775
G0 F12000 X169.44 Y148.35
G1 F1800 X171.61 Y150.52 E116.09851
G0 F12000 X172.17 Y150.49
G1 F1800 X170.00 Y148.32 E116.25901
G0 F12000 X170.56 Y148.29
G1 F1800 X172.72 Y150.45 E116.41911
G0 F12000 X173.28 Y150.41
G1 F1800 X171.12 Y148.26 E116.57898
G0 F12000 X171.69 Y148.22
G1 F1800 X173.84 Y150.38 E116.73855
G0 F12000 X174.40 Y150.34
G1 F1800 X172.25 Y148.19 E116.89776
G0 F12000 X172.81 Y148.16
G1 F1800 X174.96 Y150.31 E117.05667
G0 F12000 X175.51 Y150.27
G1 F1800 X173.37 Y148.13 E117.21532
G0 F12000 X173.93 Y148.10
G1 F1800 X176.07 Y150.23 E117.37363
G0 F12000 X176.63 Y150.20
G1 F1800 X174.50 Y148.06 E117.53161
G0 F12000 X175.06 Y148.03
G1 F1800 X177.19 Y150.16 E117.68930
G0 F12000 X177.74 Y150.12
G1 F1800 X175.62 Y148.00 E117.84673
G0 F12000 X176.18 Y147.97
G1 F1800 X178.30 Y150.09 E118.00375
G0 F12000 X178.86 Y150.05
G1 F1800 X176.74 Y147.94 E118.16054
G0 F12000 X177.31 Y147.90
G1 F1800 X179.42 Y150.01 E118.31697
G0 F12000 X179.97 Y149.98
G1 F1800 X177.87 Y147.87 E118.47310
G0 F12000 X178.43 Y147.84
G1 F1800 X180.53 Y149.94 E118.62890
G0 F12000 X181.09 Y149.91
G1 F1800 X178.99 Y147.81 E118.78444
G0 F12000 X179.55 Y147.77
G1 F1800 X181.65 Y149.87 E118.93964
G0 F12000 X182.21 Y149.84
G1 F1800 X180.11 Y147.74 E119.09470
G0 F12000 X180.68 Y147.71
G1 F1800 X182.77 Y149.81 E119.25005
G0 F12000 X183.17 Y149.61
G1 F1800 X181.24 Y147.68 E119.39344
G0 F12000 X181.80 Y147.65
G1 F1800 X183.44 Y149.29 E119.51530
G0 F12000 X183.59 Y148.84
G1 F1800 X182.36 Y147.61 E119.60635
G0 F12000 X182.99 Y147.64
G1 F1800 X183.48 Y148.14 E119.64291
G0 F12000 X135.23 Y156.46
G0 X129.28 Y159.87
G1 F1800 X129.01 Y159.90 E119.66150
G1 X128.44 Y159.62 E119.69475
G0 F12000 X127.84 Y159.62
G1 F1800 X128.68 Y160.46 E119.75672
G0 F12000 X128.36 Y160.73
G1 F1800 X127.25 Y159.62 E119.83907
G0 F12000 X126.65 Y159.62
G1 F1800 X128.03 Y161.00 E119.94100
G0 F12000 X127.69 Y161.25
G1 F1800 X126.06 Y159.62 E120.06157
G0 F12000 X125.47 Y159.62
G1 F1800 X127.33 Y161.49 E120.19992
G0 F12000 X126.97 Y161.71
G1 F1800 X125.45 Y160.19 E120.31249
G0 F12000 X125.45 Y160.79
G1 F1800 X126.59 Y161.93 E120.39688
G0 F12000 X126.19 Y162.13
G1 F1800 X125.45 Y161.38 E120.45222
G0 F12000 X125.45 Y161.98
G1 F1800 X125.79 Y162.32 E120.47755
;LAYER:1
G0 F12000 X125.78 Y162.49 Z0.50
;TYPE:WALL-INNER
G1 F1800 X125.30 Y162.68 E120.49539
G1 X125.30 Y159.47 E120.60735
G1 X129.83 Y159.47 E120.76566
G1 X129.28 Y160.09 E120.79454
G1 X128.90 Y160.46 E120.81296
G1 X128.49 Y160.82 E120.83206
G1 X128.09 Y161.14 E120.84993
G1 X127.62 Y161.48 E120.87034
G1 X126.73 Y162.02 E120.90654
G1 X126.26 Y162.27 E120.92519
G1 X125.78 Y162.49 E120.94386
G0 F12000 X134.17 Y153.12
G1 F1800 X134.17 Y150.23 E121.04483
G1 X182.44 Y147.46 E122.73333
G1 X182.54 Y147.44 E122.73699
G1 X182.74 Y147.43 E122.74363
G1 X182.93 Y147.47 E122.75064
G1 X183.11 Y147.53 E122.75732
G1 X183.28 Y147.65 E122.76457
G1 X183.45 Y147.81 E122.77250
G1 X183.58 Y148.00 E122.78086
G1 X183.68 Y148.24 E122.78982
G1 X183.74 Y148.51 E122.79936
G1 X183.75 Y148.78 E122.80893
G1 X183.70 Y149.05 E122.81860
G1 X183.61 Y149.30 E122.82780
G1 X183.48 Y149.52 E122.83681
G1 X183.32 Y149.69 E122.84504
G1 X183.13 Y149.83 E122.85329
G1 X182.94 Y149.92 E122.86035
G1 X182.75 Y149.97 E122.86743
G1 X182.15 Y149.99 E122.88821
G1 X134.17 Y153.12 E124.56736
G0 F12000 X129.78 Y145.78
G1 F1800 X125.30 Y145.78 E124.72378
G1 X125.30 Y142.68 E124.83232
G1 X125.95 Y142.94 E124.85695
G1 X126.43 Y143.16 E124.87515
G1 X126.89 Y143.41 E124.89337
G1 X127.36 Y143.69 E124.91265
G1 X127.79 Y143.98 E124.93083
G1 X128.22 Y144.30 E124.94946
G1 X128.65 Y144.65 E124.96856
G1 X129.03 Y145.00 E124.98691
G1 X129.39 Y145.36 E125.00464
G1 X129.76 Y145.76 E125.02345
G1 X129.78 Y145.78 E125.02477
G0 F12000 X130.08 Y145.48
G1 F1800 X130.43 Y145.91 E125.04415
G1 X130.65 Y146.21 E125.05685
G1 X124.88 Y146.21 E125.25815
G1 X124.88 Y142.09 E125.40179
G1 X125.59 Y142.34 E125.42815
G1 X126.11 Y142.55 E125.44752
G1 X126.62 Y142.79 E125.46745
G1 X127.11 Y143.06 E125.48681
G1 X127.58 Y143.34 E125.50589
G1 X128.03 Y143.64 E125.52490
G1 X128.48 Y143.97 E125.54432
G1 X128.91 Y144.32 E125.56356
G1 X129.33 Y144.69 E125.58326
G1 X129.70 Y145.06 E125.60154
G1 X130.08 Y145.48 E125.62129
G0 F12000 X133.75 Y149.83
G1 F1800 X182.38 Y147.04 E127.32232
G1 X182.49 Y147.02 E127.32619
G1 X182.77 Y147.01 E127.33591
G1 X183.05 Y147.06 E127.34579
G1 X183.30 Y147.16 E127.35539
G1 X183.55 Y147.32 E127.36564
G1 X183.77 Y147.54 E127.37663
G1 X183.95 Y147.80 E127.38773
G1 X184.09 Y148.11 E127.39951
G1 X184.16 Y148.46 E127.41184
G1 X184.17 Y148.81 E127.42417
G1 X184.11 Y149.16 E127.43660
G1 X183.99 Y149.49 E127.44882
G1 X183.81 Y149.77 E127.46048
G1 X183.60 Y150.01 E127.47168
G1 X183.34 Y150.20 E127.48280
G1 X183.08 Y150.32 E127.49288
G1 X182.80 Y150.38 E127.50282
G1 X182.17 Y150.41 E127.52487
G1 X133.75 Y153.56 E129.21941
G1 X133.75 Y149.83 E129.34988
G0 F12000 X130.69 Y159.05
G1 F1800 X130.32 Y159.55 E129.37170
G1 X129.95 Y159.98 E129.39138
G1 X129.58 Y160.38 E129.41028
G1 X129.19 Y160.77 E129.42964
G1 X128.77 Y161.14 E129.44916
G1 X128.34 Y161.47 E129.46807
G1 X127.85 Y161.83 E129.48939
G1 X126.93 Y162.39 E129.52712
G1 X126.45 Y162.64 E129.54592
G1 X125.94 Y162.88 E129.56564
G1 X125.43 Y163.08 E129.58464
G1 X124.89 Y163.27 E129.60462
G1 X124.88 Y163.27 E129.60502
G1 X124.88 Y159.05 E129.75232
G1 X130.69 Y159.05 E129.95529
G0 F12000 X130.97 Y159.39
G1 F1800 X130.64 Y159.82 E129.97420
G1 X130.28 Y160.25 E129.99418
G1 X129.88 Y160.68 E130.01454
G1 X129.47 Y161.07 E130.03429
G1 X129.04 Y161.45 E130.05426
G1 X128.59 Y161.82 E130.07461
G1 X128.10 Y162.17 E130.09563
G1 X127.64 Y162.46 E130.11465
G1 X127.15 Y162.75 E130.13439
G1 X126.61 Y163.03 E130.15563
G1 X126.12 Y163.25 E130.17451
G1 X125.55 Y163.49 E130.19610
G1 X125.03 Y163.66 E130.21516
G1 X124.47 Y163.83 E130.23568
G1 X124.46 Y158.63 E130.41714
G1 X131.47 Y158.63 E130.66202
G1 X130.97 Y159.39 E130.69359
G0 F12000 X133.33 Y154.08
G1 F1800 X133.33 Y149.43 E130.85605
G1 X182.32 Y146.63 E132.56959
G1 X182.44 Y146.60 E132.57376
G1 X182.79 Y146.59 E132.58634
G1 X183.16 Y146.65 E132.59927
G1 X183.50 Y146.78 E132.61191
G1 X183.81 Y146.99 E132.62499
G1 X184.09 Y147.26 E132.63882
G1 X184.32 Y147.60 E132.65293
G1 X184.49 Y147.98 E132.66748
G1 X184.58 Y148.41 E132.68271
G1 X184.59 Y148.84 E132.69790
G1 X184.52 Y149.27 E132.71291
G1 X184.37 Y149.67 E132.72796
G1 X184.15 Y150.03 E132.74269
G1 X183.88 Y150.32 E132.75656
G1 X183.56 Y150.56 E132.77058
G1 X183.22 Y150.72 E132.78375
G1 X183.00 Y150.77 E132.79158
G1 X182.86 Y150.80 E132.79657
G1 X182.19 Y150.82 E132.81984
G1 X133.36 Y154.01 E134.52894
G1 X133.33 Y154.08 E134.53160
G0 F12000 X131.44 Y146.62
G1 F1800 X124.46 Y146.62 E134.77526
G1 X124.46 Y141.53 E134.95305
G1 X125.20 Y141.75 E134.97998
G1 X125.76 Y141.95 E135.00071
G1 X126.28 Y142.16 E135.02030
G1 X126.81 Y142.42 E135.04096
G1 X127.31 Y142.68 E135.06049
G1 X127.80 Y142.98 E135.08067
G1 X128.29 Y143.30 E135.10108
G1 X128.74 Y143.63 E135.12049
G1 X129.19 Y144.01 E135.14108
G1 X129.61 Y144.38 E135.16069
G1 X130.00 Y144.77 E135.17990
G1 X130.39 Y145.21 E135.20055
G1 X130.76 Y145.65 E135.22045
G1 X131.09 Y146.11 E135.24032
G1 X131.41 Y146.58 E135.26026
G1 X131.44 Y146.62 E135.26202
G0 F12000 X131.76 Y146.35
G1 F1800 X132.07 Y146.86 E135.28302
G1 X132.17 Y147.04 E135.29025
G1 X124.04 Y147.04 E135.57401
G1 X124.04 Y141.00 E135.78501
G1 X124.77 Y141.18 E135.81117
G1 X125.34 Y141.35 E135.83216
G1 X125.90 Y141.55 E135.85279
G1 X126.45 Y141.78 E135.87351
G1 X127.00 Y142.04 E135.89464
G1 X127.51 Y142.31 E135.91491
G1 X128.05 Y142.64 E135.93685
G1 X128.50 Y142.94 E135.95612
G1 X129.01 Y143.31 E135.97787
G1 X129.45 Y143.68 E135.99807
G1 X129.91 Y144.09 E136.01951
G1 X130.31 Y144.49 E136.03926
G1 X130.71 Y144.94 E136.06028
G1 X131.07 Y145.38 E136.08018
G1 X131.45 Y145.88 E136.10204
G1 X131.76 Y146.35 E136.12166
G0 F12000 X132.91 Y148.45
G1 F1800 X133.22 Y149.02 E136.14412
G1 X182.26 Y146.21 E137.85966
G1 X182.38 Y146.18 E137.86409
G1 X182.82 Y146.17 E137.87953
G1 X183.27 Y146.25 E137.89547
G1 X183.69 Y146.41 E137.91111
G1 X184.08 Y146.66 E137.92722
G1 X184.41 Y146.99 E137.94372
G1 X184.69 Y147.40 E137.96095
G1 X184.89 Y147.85 E137.97832
G1 X185.00 Y148.36 E137.99629
G1 X185.01 Y148.87 E138.01418
G1 X184.93 Y149.38 E138.03223
G1 X184.75 Y149.85 E138.04993
G1 X184.49 Y150.28 E138.06736
G1 X184.16 Y150.64 E138.08439
G1 X183.77 Y150.92 E138.10121
G1 X183.36 Y151.12 E138.11720
G1 X182.92 Y151.22 E138.13303
G1 X182.21 Y151.24 E138.15759
G1 X133.66 Y154.41 E139.85668
G1 X132.91 Y156.59 E139.93711
G1 X132.91 Y148.45 E140.22135
G0 F12000 X132.20 Y158.21
G1 F1800 X131.98 Y158.61 E140.23717
G1 X131.66 Y159.13 E140.25848
G1 X131.32 Y159.62 E140.27940
G1 X130.97 Y160.08 E140.29944
G1 X130.60 Y160.53 E140.31983
G1 X130.18 Y160.97 E140.34108
G1 X129.76 Y161.38 E140.36175
G1 X129.31 Y161.78 E140.38271
G1 X128.84 Y162.15 E140.40341
G1 X128.33 Y162.52 E140.42562
G1 X127.86 Y162.82 E140.44507
G1 X127.36 Y163.12 E140.46548
G1 X126.82 Y163.40 E140.48654
G1 X126.27 Y163.65 E140.50779
G1 X125.72 Y163.87 E140.52830
G1 X125.15 Y164.07 E140.54942
G1 X124.56 Y164.24 E140.57092
G1 X124.04 Y164.37 E140.58957
G1 X124.04 Y158.21 E140.80441
G1 X132.20 Y158.21 E141.08939
G0 F12000 X132.49 Y157.79
G1 F1800 X132.49 Y147.47 E141.45011
G1 X123.62 Y147.47 E141.75995
G1 X123.62 Y140.49 E142.00343
G1 X124.28 Y140.62 E142.02699
G1 X124.89 Y140.78 E142.04896
G1 X125.46 Y140.95 E142.06956
G1 X126.06 Y141.17 E142.09208
G1 X126.63 Y141.40 E142.11333
G1 X127.18 Y141.66 E142.13457
G1 X127.73 Y141.95 E142.15635
G1 X128.25 Y142.27 E142.17776
G1 X128.76 Y142.61 E142.19907
G1 X129.26 Y142.98 E142.22072
G1 X129.73 Y143.36 E142.24184
G1 X130.20 Y143.79 E142.26414
G1 X130.61 Y144.20 E142.28439
G1 X131.02 Y144.65 E142.30585
G1 X131.43 Y145.15 E142.32816
G1 X131.78 Y145.61 E142.34853
G1 X132.11 Y146.12 E142.36965
G1 X132.43 Y146.65 E142.39147
G1 X133.46 Y148.58 E142.46785
G1 X182.20 Y145.79 E144.17265
G1 X182.32 Y145.76 E144.17725
G1 X182.85 Y145.75 E144.19566
G1 X183.39 Y145.84 E144.21462
G1 X183.88 Y146.03 E144.23318
G1 X184.34 Y146.33 E144.25230
G1 X184.74 Y146.72 E144.27193
G1 X185.06 Y147.19 E144.29170
G1 X185.29 Y147.72 E144.31193
G1 X185.42 Y148.31 E144.33283
G1 X185.43 Y148.90 E144.35341
G1 X185.33 Y149.49 E144.37440
G1 X185.13 Y150.04 E144.39474
G1 X184.83 Y150.53 E144.41512
G1 X184.44 Y150.96 E144.43507
G1 X183.99 Y151.29 E144.45465
G1 X183.49 Y151.52 E144.47378
G1 X182.97 Y151.64 E144.49240
G1 X182.23 Y151.66 E144.51826
G1 X133.97 Y154.81 E146.20734
G1 X133.25 Y156.91 E146.28466
G1 X133.02 Y157.48 E146.30631
G1 X132.77 Y158.03 E146.32717
G1 X132.34 Y158.83 E146.35908
G1 X132.01 Y159.36 E146.38080
G1 X131.65 Y159.89 E146.40310
G1 X131.30 Y160.34 E146.42323
G1 X130.91 Y160.81 E146.44439
G1 X130.49 Y161.25 E146.46574
G1 X130.04 Y161.69 E146.48765
G1 X129.57 Y162.11 E146.50959
G1 X129.11 Y162.48 E146.53022
G1 X128.56 Y162.87 E146.55391
G1 X128.09 Y163.18 E146.57356
G1 X127.56 Y163.49 E146.59499
G1 X126.99 Y163.78 E146.61711
G1 X126.44 Y164.03 E146.63828
G1 X125.86 Y164.27 E146.66022
G1 X125.27 Y164.47 E146.68190
G1 X124.68 Y164.64 E146.70336
G1 X124.08 Y164.79 E146.72500
G1 X123.62 Y164.88 E146.74138
G1 X123.62 Y157.79 E146.98871
G1 X132.49 Y157.79 E147.29854
G0 F12000 X132.07 Y157.37
G1 F1800 X132.07 Y147.88 E147.62993
G1 X123.26 Y147.88 E147.93764
G1 X123.20 Y147.88 E147.93964
G1 X123.20 Y140.00 E148.21459
G1 X123.75 Y140.09 E148.23380
G1 X124.36 Y140.21 E148.25578
G1 X125.00 Y140.37 E148.27866
G1 X125.62 Y140.56 E148.30140
G1 X126.20 Y140.77 E148.32307
G1 X126.78 Y141.01 E148.34481
G1 X127.37 Y141.29 E148.36779
G1 X127.94 Y141.59 E148.39004
G1 X128.47 Y141.91 E148.41191
G1 X129.01 Y142.27 E148.43465
G1 X129.51 Y142.64 E148.45612
G1 X130.00 Y143.04 E148.47821
G1 X130.49 Y143.49 E148.50142
G1 X130.91 Y143.90 E148.52212
G1 X131.35 Y144.39 E148.54504
G1 X131.75 Y144.87 E148.56677
G1 X132.12 Y145.37 E148.58859
G1 X132.48 Y145.92 E148.61153
G1 X132.79 Y146.44 E148.63253
G1 X133.70 Y148.15 E148.70032
G1 X182.13 Y145.38 E150.39442
G1 X182.27 Y145.34 E150.39930
G1 X182.88 Y145.33 E150.42058
G1 X183.50 Y145.43 E150.44250
G1 X184.08 Y145.66 E150.46425
G1 X184.60 Y146.00 E150.48607
G1 X185.06 Y146.45 E150.50849
G1 X185.43 Y146.99 E150.53132
G1 X185.69 Y147.60 E150.55451
G1 X185.84 Y148.26 E150.57817
G1 X185.85 Y148.93 E150.60157
G1 X185.74 Y149.59 E150.62501
G1 X185.51 Y150.23 E150.64867
G1 X185.16 Y150.79 E150.67161
G1 X184.73 Y151.27 E150.69428
G1 X184.20 Y151.65 E150.71705
G1 X183.63 Y151.91 E150.73887
G1 X183.03 Y152.06 E150.76074
G1 X182.25 Y152.08 E150.78771
G1 X134.28 Y155.22 E152.46678
G1 X133.64 Y157.07 E152.53517
G1 X133.41 Y157.63 E152.55644
G1 X133.15 Y158.21 E152.57880
G1 X132.69 Y159.06 E152.61226
G1 X132.38 Y159.57 E152.63311
G1 X131.99 Y160.13 E152.65713
G1 X131.63 Y160.60 E152.67790
G1 X131.21 Y161.10 E152.70053
G1 X130.78 Y161.56 E152.72259
G1 X130.34 Y161.99 E152.74410
G1 X129.85 Y162.43 E152.76699
G1 X129.35 Y162.82 E152.78905
G1 X128.81 Y163.21 E152.81247
G1 X128.31 Y163.53 E152.83321
G1 X127.74 Y163.86 E152.85612
G1 X127.18 Y164.16 E152.87813
G1 X126.61 Y164.42 E152.90007
G1 X126.02 Y164.66 E152.92254
G1 X125.40 Y164.87 E152.94536
G1 X124.79 Y165.05 E152.96733
G1 X124.18 Y165.20 E152.98950
G1 X123.53 Y165.32 E153.01250
G1 X123.20 Y165.37 E153.02411
G1 X123.20 Y157.43 E153.30115
G1 X123.21 Y157.38 E153.30312
G1 X132.07 Y157.37 E153.61272
G0 F12000 X131.65 Y156.95
G1 F1800 X131.65 Y148.31 E153.91477
G1 X123.24 Y148.31 E154.20868
G1 X123.01 Y148.27 E154.21662
G1 X122.95 Y148.24 E154.21907
G1 X122.89 Y148.19 E154.22165
G1 X122.86 Y148.15 E154.22354
G1 X122.80 Y148.01 E154.22893
G1 X122.78 Y139.49 E154.52658
G1 X122.98 Y139.55 E154.53376
G1 X123.83 Y139.68 E154.56388
G1 X124.47 Y139.80 E154.58654
G1 X125.10 Y139.96 E154.60944
G1 X125.73 Y140.16 E154.63245
G1 X126.35 Y140.38 E154.65541
G1 X126.97 Y140.64 E154.67897
G1 X127.55 Y140.91 E154.70114
G1 X128.15 Y141.23 E154.72506
G1 X128.70 Y141.56 E154.74747
G1 X129.24 Y141.92 E154.77010
G1 X129.77 Y142.31 E154.79308
G1 X130.28 Y142.73 E154.81625
G1 X130.77 Y143.17 E154.83930
G1 X131.22 Y143.62 E154.86143
G1 X131.66 Y144.10 E154.88425
G1 X132.07 Y144.61 E154.90702
G1 X132.48 Y145.15 E154.93074
G1 X132.83 Y145.67 E154.95252
G1 X133.16 Y146.23 E154.97531
G1 X133.95 Y147.71 E155.03390
G1 X182.07 Y144.96 E156.71729
G1 X182.22 Y144.93 E156.72239
G1 X182.91 Y144.91 E156.74653
G1 X183.61 Y145.03 E156.77161
G1 X184.27 Y145.28 E156.79621
G1 X184.87 Y145.67 E156.82101
G1 X185.39 Y146.18 E156.84660
G1 X185.80 Y146.78 E156.87194
G1 X186.09 Y147.47 E156.89811
G1 X186.25 Y148.20 E156.92438
G1 X186.27 Y148.96 E156.95086
G1 X186.15 Y149.70 E156.97706
G1 X185.89 Y150.41 E157.00328
G1 X185.50 Y151.04 E157.02934
G1 X185.01 Y151.58 E157.05481
G1 X184.41 Y152.01 E157.08047
G1 X183.77 Y152.31 E157.10523
G1 X183.08 Y152.48 E157.12997
G1 X182.27 Y152.50 E157.15827
G1 X134.58 Y155.62 E158.82733
G1 X134.03 Y157.21 E158.88608
G1 X133.79 Y157.81 E158.90862
G1 X133.53 Y158.38 E158.93083
G1 X133.06 Y159.25 E158.96532
G1 X132.72 Y159.81 E158.98816
G1 X132.34 Y160.37 E159.01189
G1 X131.96 Y160.87 E159.03369
G1 X131.52 Y161.38 E159.05723
G1 X131.08 Y161.85 E159.07972
G1 X130.62 Y162.30 E159.10214
G1 X130.12 Y162.74 E159.12548
G1 X129.60 Y163.16 E159.14854
G1 X129.05 Y163.56 E159.17248
G1 X128.54 Y163.89 E159.19382
G1 X127.95 Y164.23 E159.21746
G1 X127.37 Y164.53 E159.24024
G1 X126.76 Y164.81 E159.26391
G1 X126.17 Y165.05 E159.28615
G1 X125.53 Y165.27 E159.30953
G1 X124.91 Y165.45 E159.33223
G1 X124.25 Y165.61 E159.35584
G1 X123.60 Y165.74 E159.37895
G1 X122.96 Y165.83 E159.40166
G1 X122.44 Y165.89 E159.42005
G1 X121.87 Y166.04 E159.44043
G1 X121.19 Y166.19 E159.46468
G1 X120.53 Y166.31 E159.48826
G1 X119.86 Y166.40 E159.51202
G1 X119.18 Y166.45 E159.53570
G1 X118.68 Y166.46 E159.55317
G1 X118.68 Y165.83 E159.57542
G1 X122.78 Y165.83 E159.71867
G1 X122.78 Y157.41 E160.01265
G1 X122.82 Y157.18 E160.02064
G1 X122.85 Y157.12 E160.02297
G1 X122.89 Y157.07 E160.02552
G1 X122.94 Y157.03 E160.02738
G1 X123.08 Y156.97 E160.03289
G1 X131.65 Y156.95 E160.33232
G0 F12000 X130.74 Y149.21
G0 X122.61 Y139.43
G1 F1800 X118.68 Y139.43 E160.46977
G1 X118.68 Y138.80 E160.49202
G1 X119.77 Y138.85 E160.53010
G1 X120.44 Y138.93 E160.55371
G1 X121.12 Y139.05 E160.57769
G1 X121.76 Y139.19 E160.60069
G1 X122.44 Y139.38 E160.62553
G1 X122.61 Y139.43 E160.63176
G0 F12000 X122.56 Y138.97
G1 F1800 X123.07 Y139.14 E160.65055
G1 X123.91 Y139.26 E160.68018
G1 X124.55 Y139.39 E160.70308
G1 X125.23 Y139.56 E160.72728
G1 X125.85 Y139.75 E160.75014
G1 X126.51 Y139.99 E160.77448
G1 X127.14 Y140.25 E160.79853
G1 X127.75 Y140.54 E160.82175
G1 X128.35 Y140.86 E160.84554
G1 X128.92 Y141.20 E160.86905
G1 X129.50 Y141.58 E160.89307
G1 X130.02 Y141.97 E160.91595
G1 X130.56 Y142.41 E160.94004
G1 X131.06 Y142.87 E160.96398
G1 X131.52 Y143.33 E160.98664
G1 X131.98 Y143.83 E161.01040
G1 X132.41 Y144.36 E161.03410
G1 X132.81 Y144.90 E161.05769
G1 X133.18 Y145.44 E161.08050
G1 X133.53 Y146.04 E161.10477
G1 X134.19 Y147.28 E161.15385
G1 X182.01 Y144.54 E162.82651
G1 X182.16 Y144.51 E162.83175
G1 X182.94 Y144.49 E162.85904
G1 X183.72 Y144.62 E162.88680
G1 X184.46 Y144.91 E162.91448
G1 X185.13 Y145.34 E162.94237
G1 X185.71 Y145.90 E162.97053
G1 X186.17 Y146.58 E162.99916
G1 X186.50 Y147.34 E163.02796
G1 X186.67 Y148.15 E163.05692
G1 X186.69 Y148.98 E163.08595
G1 X186.56 Y149.81 E163.11547
G1 X186.27 Y150.58 E163.14415
G1 X185.84 Y151.29 E163.17295
G1 X185.29 Y151.89 E163.20146
G1 X184.63 Y152.38 E163.23001
G1 X183.91 Y152.71 E163.25793
G1 X183.31 Y152.86 E163.27952
G1 X183.14 Y152.90 E163.28565
G1 X182.29 Y152.92 E163.31510
G1 X134.89 Y156.02 E164.97419
G1 X134.43 Y157.35 E165.02330
G1 X134.18 Y157.98 E165.04716
G1 X133.91 Y158.57 E165.06971
G1 X133.43 Y159.47 E165.10531
G1 X133.07 Y160.04 E165.12893
G1 X132.69 Y160.60 E165.15269
G1 X132.28 Y161.13 E165.17591
G1 X131.84 Y161.65 E165.19975
G1 X131.38 Y162.14 E165.22313
G1 X130.90 Y162.62 E165.24701
G1 X130.40 Y163.06 E165.27027
G1 X129.86 Y163.49 E165.29419
G1 X129.29 Y163.90 E165.31869
G1 X129.27 Y163.91 E165.31956
G1 X128.75 Y164.25 E165.34113
G1 X128.16 Y164.59 E165.36506
G1 X127.55 Y164.91 E165.38926
G1 X126.95 Y165.19 E165.41217
G1 X126.29 Y165.45 E165.43708
G1 X125.67 Y165.67 E165.46001
G1 X125.02 Y165.86 E165.48363
G1 X124.33 Y166.03 E165.50845
G1 X123.70 Y166.14 E165.53084
G1 X122.98 Y166.25 E165.55628
G1 X122.52 Y166.30 E165.57252
G1 X121.97 Y166.45 E165.59206
G1 X121.28 Y166.60 E165.61696
G1 X120.60 Y166.73 E165.64118
G1 X119.90 Y166.81 E165.66575
G1 X119.20 Y166.87 E165.69010
G1 X118.48 Y166.89 E165.71549
G1 X118.46 Y166.89 E165.71612
G1 X118.26 Y166.88 E165.72311
G1 X118.26 Y165.41 E165.77473
G1 X122.36 Y165.41 E165.91798
G1 X122.36 Y157.38 E166.19824
G1 X122.39 Y157.14 E166.20682
G1 X122.43 Y157.02 E166.21112
G1 X122.50 Y156.89 E166.21628
G1 X122.59 Y156.77 E166.22174
G1 X122.70 Y156.68 E166.22665
G1 X122.88 Y156.59 E166.23354
G1 X123.00 Y156.56 E166.23777
G1 X123.20 Y156.53 E166.24500
G1 X131.23 Y156.53 E166.52547
G1 X131.23 Y148.72 E166.79819
G1 X123.21 Y148.72 E167.07831
G1 X122.96 Y148.69 E167.08710
G1 X122.85 Y148.66 E167.09126
G1 X122.71 Y148.59 E167.09661
G1 X122.60 Y148.49 E167.10184
G1 X122.51 Y148.38 E167.10681
G1 X122.42 Y148.20 E167.11382
G1 X122.38 Y148.09 E167.11794
G1 X122.36 Y147.88 E167.12521
G1 X122.36 Y139.85 E167.40567
G1 X118.26 Y139.85 E167.54893
G1 X118.26 Y138.37 E167.60058
G1 X118.45 Y138.37 E167.60718
G1 X119.13 Y138.39 E167.63087
G1 X119.81 Y138.43 E167.65474
G1 X120.50 Y138.52 E167.67901
G1 X121.19 Y138.64 E167.70367
G1 X121.86 Y138.78 E167.72763
G1 X122.56 Y138.97 E167.75281
G0 F12000 X122.69 Y138.57
G1 F1800 X123.17 Y138.73 E167.77043
G1 X123.96 Y138.84 E167.79840
G1 X124.66 Y138.99 E167.82326
G1 X125.33 Y139.15 E167.84731
G1 X126.02 Y139.36 E167.87251
G1 X126.65 Y139.59 E167.89600
G1 X127.31 Y139.86 E167.92083
G1 X127.94 Y140.16 E167.94518
G1 X128.56 Y140.49 E167.96976
G1 X129.16 Y140.85 E167.99430
G1 X129.73 Y141.23 E168.01815
G1 X130.28 Y141.64 E168.04230
G1 X130.83 Y142.09 E168.06696
G1 X131.36 Y142.57 E168.09174
G1 X131.82 Y143.04 E168.11490
G1 X132.30 Y143.56 E168.13955
G1 X132.75 Y144.11 E168.16446
G1 X133.15 Y144.65 E168.18786
G1 X133.55 Y145.24 E168.21284
G1 X133.89 Y145.82 E168.23636
G1 X134.44 Y146.84 E168.27686
G1 X181.95 Y144.12 E169.93881
G1 X182.10 Y144.09 E169.94434
G1 X182.93 Y144.07 E169.97309
G1 X182.97 Y144.06 E169.97470
G1 X183.80 Y144.20 E170.00391
G1 X183.84 Y144.21 E170.00530
G1 X184.62 Y144.52 E170.03451
G1 X184.66 Y144.53 E170.03601
G1 X185.36 Y144.99 E170.06529
G1 X185.40 Y145.01 E170.06683
G1 X186.00 Y145.60 E170.09639
G1 X186.03 Y145.63 E170.09795
G1 X186.54 Y146.38 E170.12932
G1 X186.90 Y147.21 E170.16098
G1 X187.08 Y148.06 E170.19130
G1 X187.09 Y148.10 E170.19291
G1 X187.11 Y148.97 E170.22316
G1 X187.12 Y149.02 E170.22501
G1 X186.97 Y149.92 E170.25669
G1 X186.65 Y150.78 E170.28874
G1 X186.20 Y151.51 E170.31867
G1 X186.18 Y151.55 E170.32035
G1 X185.60 Y152.18 E170.35006
G1 X185.57 Y152.21 E170.35186
G1 X184.88 Y152.71 E170.38137
G1 X184.85 Y152.74 E170.38300
G1 X184.09 Y153.09 E170.41225
G1 X184.05 Y153.11 E170.41368
G1 X183.21 Y153.31 E170.44402
G1 X182.31 Y153.34 E170.47515
G1 X135.19 Y156.42 E172.12423
G1 X134.82 Y157.50 E172.16439
G1 X134.57 Y158.12 E172.18754
G1 X134.27 Y158.78 E172.21282
G1 X133.78 Y159.69 E172.24885
G1 X133.42 Y160.27 E172.27288
G1 X133.03 Y160.85 E172.29724
G1 X132.61 Y161.39 E172.32119
G1 X132.16 Y161.92 E172.34542
G1 X131.68 Y162.44 E172.37025
G1 X131.18 Y162.93 E172.39453
G1 X130.66 Y163.39 E172.41873
G1 X130.12 Y163.82 E172.44306
G1 X129.54 Y164.24 E172.46793
G1 X128.96 Y164.61 E172.49204
G1 X128.36 Y164.96 E172.51620
G1 X127.73 Y165.29 E172.54088
G1 X127.12 Y165.57 E172.56466
G1 X126.44 Y165.84 E172.59002
G1 X125.80 Y166.07 E172.61388
G1 X125.10 Y166.27 E172.63913
G1 X124.45 Y166.43 E172.66273
G1 X123.75 Y166.56 E172.68752
G1 X123.03 Y166.66 E172.71270
G1 X122.59 Y166.71 E172.72820
G1 X122.07 Y166.86 E172.74731
G1 X121.36 Y167.02 E172.77246
G1 X120.66 Y167.14 E172.79732
G1 X119.94 Y167.23 E172.82273
G1 X119.23 Y167.29 E172.84767
G1 X118.49 Y167.31 E172.87356
G1 X118.46 Y167.31 E172.87464
G1 X117.84 Y167.29 E172.89623
G1 X117.84 Y164.99 E172.97687
G1 X121.94 Y164.99 E173.12012
G1 X121.94 Y157.35 E173.38662
G1 X121.98 Y157.05 E173.39735
G1 X122.04 Y156.86 E173.40429
G1 X122.15 Y156.65 E173.41248
G1 X122.30 Y156.47 E173.42076
G1 X122.47 Y156.32 E173.42880
G1 X122.72 Y156.20 E173.43847
G1 X122.91 Y156.14 E173.44544
G1 X123.18 Y156.11 E173.45481
G1 X130.81 Y156.11 E173.72138
G1 X130.81 Y149.15 E173.96476
G1 X123.19 Y149.15 E174.23105
G1 X122.87 Y149.11 E174.24217
G1 X122.69 Y149.05 E174.24888
G1 X122.48 Y148.94 E174.25715
G1 X122.30 Y148.79 E174.26536
G1 X122.15 Y148.61 E174.27340
G1 X122.03 Y148.36 E174.28319
G1 X121.97 Y148.17 E174.29005
G1 X121.94 Y147.91 E174.29946
G1 X121.94 Y140.27 E174.56602
G1 X117.84 Y140.27 E174.70928
G1 X117.84 Y137.97 E174.78978
G1 X118.45 Y137.95 E174.81116
G1 X119.14 Y137.97 E174.83533
G1 X119.85 Y138.02 E174.86008
G1 X120.55 Y138.10 E174.88481
G1 X121.28 Y138.22 E174.91046
G1 X121.96 Y138.38 E174.93503
G1 X122.69 Y138.57 E174.96118
G0 F12000 X122.80 Y138.17
;TYPE:WALL-OUTER
G1 F1800 X123.26 Y138.32 E174.97821
G1 X124.04 Y138.43 E175.00582
G1 X124.74 Y138.57 E175.03065
G1 X125.45 Y138.75 E175.05619
G1 X126.13 Y138.96 E175.08094
G1 X126.81 Y139.21 E175.10643
G1 X127.47 Y139.48 E175.13139
G1 X128.13 Y139.79 E175.15669
G1 X128.75 Y140.12 E175.18139
G1 X129.37 Y140.49 E175.20650
G1 X129.97 Y140.89 E175.23156
G1 X130.55 Y141.32 E175.25693
G1 X131.10 Y141.77 E175.28159
G1 X131.64 Y142.25 E175.30694
G1 X132.14 Y142.75 E175.33161
G1 X132.62 Y143.29 E175.35685
G1 X133.07 Y143.84 E175.38149
G1 X133.50 Y144.41 E175.40640
G1 X133.90 Y145.01 E175.43168
G1 X134.26 Y145.61 E175.45625
G1 X134.68 Y146.41 E175.48777
G1 X181.89 Y143.71 E177.13902
G1 X182.05 Y143.67 E177.14470
G1 X183.00 Y143.64 E177.17803
G1 X183.95 Y143.80 E177.21161
G1 X184.85 Y144.16 E177.24548
G1 X185.66 Y144.68 E177.27908
G1 X186.36 Y145.36 E177.31316
G1 X186.91 Y146.17 E177.34738
G1 X187.30 Y147.08 E177.38192
G1 X187.49 Y147.97 E177.41355
G1 X187.51 Y148.05 E177.41664
G1 X187.54 Y149.05 E177.45143
G1 X187.37 Y150.03 E177.48609
G1 X187.03 Y150.96 E177.52093
G1 X186.51 Y151.80 E177.55526
G1 X185.85 Y152.53 E177.58969
G1 X185.13 Y153.05 E177.62063
G1 X185.06 Y153.10 E177.62367
G1 X184.19 Y153.51 E177.65731
G1 X183.43 Y153.69 E177.68452
G1 X183.25 Y153.73 E177.69095
G1 X182.33 Y153.76 E177.72306
G1 X135.50 Y156.82 E179.36213
G1 X135.22 Y157.64 E179.39262
G1 X134.96 Y158.30 E179.41712
G1 X134.65 Y158.95 E179.44240
G1 X134.15 Y159.90 E179.47985
G1 X133.78 Y160.50 E179.50444
G1 X133.37 Y161.09 E179.52966
G1 X132.93 Y161.66 E179.55475
G1 X132.48 Y162.20 E179.57943
G1 X131.99 Y162.73 E179.60448
G1 X131.47 Y163.24 E179.62990
G1 X130.94 Y163.71 E179.65459
G1 X130.37 Y164.15 E179.67971
G1 X129.75 Y164.61 E179.70670
G1 X129.19 Y164.97 E179.72990
G1 X128.57 Y165.33 E179.75505
G1 X127.93 Y165.66 E179.78023
G1 X127.26 Y165.97 E179.80574
G1 X126.59 Y166.23 E179.83088
G1 X125.92 Y166.47 E179.85573
G1 X125.22 Y166.67 E179.88127
G1 X124.52 Y166.84 E179.90639
G1 X123.82 Y166.98 E179.93138
G1 X123.10 Y167.08 E179.95671
G1 X122.67 Y167.13 E179.97175
G1 X122.17 Y167.26 E179.98985
G1 X121.45 Y167.43 E180.01581
G1 X120.72 Y167.56 E180.04181
G1 X119.98 Y167.65 E180.06751
G1 X119.25 Y167.71 E180.09326
G1 X118.50 Y167.73 E180.11949
G1 X118.46 Y167.73 E180.12096
G1 X117.77 Y167.71 E180.14503
G1 X117.42 Y167.69 E180.15724
G1 X117.42 Y164.57 E180.26634
G1 X121.52 Y164.57 E180.40960
G1 X121.52 Y157.33 E180.66234
G1 X121.56 Y156.97 E180.67514
G1 X121.65 Y156.70 E180.68492
G1 X121.80 Y156.42 E180.69606
G1 X122.00 Y156.17 E180.70713
G1 X122.24 Y155.97 E180.71814
G1 X122.57 Y155.81 E180.73083
G1 X122.83 Y155.73 E180.74046
G1 X123.16 Y155.69 E180.75197
G1 X130.39 Y155.69 E181.00464
G1 X130.39 Y149.56 E181.21868
G1 X123.16 Y149.56 E181.47114
G1 X122.79 Y149.52 E181.48437
G1 X122.52 Y149.44 E181.49405
G1 X122.25 Y149.29 E181.50500
G1 X122.00 Y149.09 E181.51631
G1 X121.80 Y148.84 E181.52723
G1 X121.63 Y148.52 E181.53988
G1 X121.55 Y148.26 E181.54951
G1 X121.52 Y147.93 E181.56106
G1 X121.52 Y140.69 E181.81373
G1 X117.42 Y140.69 E181.95699
G1 X117.42 Y137.57 E182.06602
G1 X118.04 Y137.54 E182.08781
G1 X118.45 Y137.53 E182.10220
G1 X119.15 Y137.55 E182.12661
G1 X119.89 Y137.60 E182.15238
G1 X120.62 Y137.69 E182.17806
G1 X121.36 Y137.81 E182.20416
G1 X122.07 Y137.97 E182.22978
G1 X122.80 Y138.17 E182.25603
G0 F12000 X122.71 Y138.46
G0 X125.75 Y143.02
;TYPE:FILL
G1 F1800 X125.45 Y143.32 E182.27115
G0 F12000 X125.45 Y143.92
G1 F1800 X126.16 Y143.20 E182.30653
G0 F12000 X126.56 Y143.40
G1 F1800 X125.45 Y144.51 E182.36140
G0 F12000 X125.45 Y145.10
G1 F1800 X126.94 Y143.61 E182.43514
G0 F12000 X127.31 Y143.84
G1 F1800 X125.51 Y145.64 E182.52412
G0 F12000 X126.10 Y145.64
G1 F1800 X127.67 Y144.07 E182.60136
G0 F12000 X128.01 Y144.32
G1 F1800 X126.70 Y145.64 E182.66621
G0 F12000 X127.29 Y145.64
G1 F1800 X128.34 Y144.59 E182.71812
G0 F12000 X128.66 Y144.86
G1 F1800 X127.89 Y145.64 E182.75654
G0 F12000 X128.48 Y145.64
G1 F1800 X129.12 Y145.29 E182.78096
G1 X129.07 Y145.64 E182.79320
G0 F12000 X134.32 Y150.49
G1 F1800 X134.45 Y150.36 E182.79967
G0 F12000 X135.08 Y150.32
G1 F1800 X134.32 Y151.08 E182.83726
G0 F12000 X134.32 Y151.68
G1 F1800 X135.71 Y150.28 E182.90596
G0 F12000 X136.34 Y150.25
G1 F1800 X134.32 Y152.27 E183.00577
G0 F12000 X134.32 Y152.86
G1 F1800 X136.97 Y150.21 E183.13670
G0 F12000 X137.60 Y150.18
G1 F1800 X134.85 Y152.92 E183.27230
G0 F12000 X135.49 Y152.88
G1 F1800 X138.23 Y150.14 E183.40762
G0 F12000 X138.86 Y150.10
G1 F1800 X136.12 Y152.84 E183.54270
G0 F12000 X136.76 Y152.80
G1 F1800 X139.49 Y150.07 E183.67748
G0 F12000 X140.12 Y150.03
G1 F1800 X137.40 Y152.76 E183.81202
G0 F12000 X138.03 Y152.72
G1 F1800 X140.75 Y150.00 E183.94628
G0 F12000 X141.38 Y149.96
G1 F1800 X138.67 Y152.67 E184.08030
G0 F12000 X139.30 Y152.63
G1 F1800 X142.01 Y149.92 E184.21409
G0 F12000 X142.64 Y149.89
G1 F1800 X139.94 Y152.59 E184.34759
G0 F12000 X140.57 Y152.55
G1 F1800 X143.27 Y149.85 E184.48084
G0 F12000 X143.90 Y149.82
G1 F1800 X141.21 Y152.51 E184.61380
G0 F12000 X141.84 Y152.47
G1 F1800 X144.53 Y149.78 E184.74650
G0 F12000 X145.16 Y149.74
G1 F1800 X142.48 Y152.43 E184.87896
G0 F12000 X143.12 Y152.38
G1 F1800 X145.79 Y149.71 E185.01115
G0 F12000 X146.42 Y149.67
G1 F1800 X143.75 Y152.34 E185.14307
G0 F12000 X144.39 Y152.30
G1 F1800 X147.05 Y149.63 E185.27474
G0 F12000 X147.68 Y149.60
G1 F1800 X145.02 Y152.26 E185.40614
G0 F12000 X145.66 Y152.22
G1 F1800 X148.31 Y149.56 E185.53729
G0 F12000 X148.94 Y149.53
G1 F1800 X146.29 Y152.18 E185.66817
G0 F12000 X146.93 Y152.13
G1 F1800 X149.57 Y149.49 E185.79876
G0 F12000 X150.20 Y149.46
G1 F1800 X147.56 Y152.09 E185.92909
G0 F12000 X148.20 Y152.05
G1 F1800 X150.83 Y149.42 E186.05916
G0 F12000 X151.46 Y149.38
G1 F1800 X148.83 Y152.01 E186.18893
G0 F12000 X149.47 Y151.97
G1 F1800 X152.09 Y149.35 E186.31845
G0 F12000 X152.72 Y149.31
G1 F1800 X150.10 Y151.93 E186.44770
G0 F12000 X150.74 Y151.89
G1 F1800 X153.35 Y149.28 E186.57670
G0 F12000 X153.98 Y149.24
G1 F1800 X151.38 Y151.84 E186.70541
G0 F12000 X152.01 Y151.80
G1 F1800 X154.61 Y149.20 E186.83385
G0 F12000 X155.24 Y149.17
G1 F1800 X152.65 Y151.76 E186.96203
G0 F12000 X153.28 Y151.72
G1 F1800 X155.87 Y149.13 E187.08998
G0 F12000 X156.50 Y149.09
G1 F1800 X153.92 Y151.68 E187.21767
G0 F12000 X154.55 Y151.64
G1 F1800 X157.13 Y149.06 E187.34507
G0 F12000 X157.76 Y149.02
G1 F1800 X155.19 Y151.60 E187.47220
G0 F12000 X155.82 Y151.56
G1 F1800 X158.39 Y148.99 E187.59908
G0 F12000 X159.02 Y148.95
G1 F1800 X156.46 Y151.51 E187.72571
G0 F12000 X157.09 Y151.47
G1 F1800 X159.65 Y148.91 E187.85207
G0 F12000 X160.28 Y148.88
G1 F1800 X157.73 Y151.43 E187.97818
G0 F12000 X158.37 Y151.39
G1 F1800 X160.91 Y148.84 E188.10403
G0 F12000 X161.54 Y148.81
G1 F1800 X159.00 Y151.35 E188.22962
G0 F12000 X159.64 Y151.31
G1 F1800 X162.17 Y148.77 E188.35492
G0 F12000 X162.80 Y148.73
G1 F1800 X160.27 Y151.26 E188.47992
G0 F12000 X160.91 Y151.22
G1 F1800 X163.43 Y148.70 E188.60468
G0 F12000 X164.06 Y148.66
G1 F1800 X161.54 Y151.18 E188.72919
G0 F12000 X162.18 Y151.14
G1 F1800 X164.69 Y148.62 E188.85345
G0 F12000 X165.32 Y148.59
G1 F1800 X162.81 Y151.10 E188.97742
G0 F12000 X163.45 Y151.06
G1 F1800 X165.95 Y148.55 E189.10109
G0 F12000 X166.58 Y148.52
G1 F1800 X164.08 Y151.02 E189.22451
G0 F12000 X164.72 Y150.97
G1 F1800 X167.21 Y148.48 E189.34769
G0 F12000 X167.84 Y148.44
G1 F1800 X165.35 Y150.93 E189.47056
G0 F12000 X165.99 Y150.89
G1 F1800 X168.47 Y148.41 E189.59322
G0 F12000 X169.10 Y148.37
G1 F1800 X166.63 Y150.85 E189.71558
G0 F12000 X167.26 Y150.81
G1 F1800 X169.73 Y148.34 E189.83770
G0 F12000 X170.36 Y148.30
G1 F1800 X167.90 Y150.77 E189.95954
G0 F12000 X168.53 Y150.73
G1 F1800 X170.99 Y148.26 E190.08111
G0 F12000 X171.62 Y148.23
G1 F1800 X169.17 Y150.69 E190.20246
G0 F12000 X169.80 Y150.64
G1 F1800 X172.25 Y148.19 E190.32351
G0 F12000 X172.88 Y148.16
G1 F1800 X170.44 Y150.60 E190.44429
G0 F12000 X171.07 Y150.56
G1 F1800 X173.51 Y148.12 E190.56482
G0 F12000 X174.14 Y148.08
G1 F1800 X171.71 Y150.52 E190.68506
G0 F12000 X172.34 Y150.48
G1 F1800 X174.77 Y148.05 E190.80505
G0 F12000 X175.40 Y148.01
G1 F1800 X172.98 Y150.44 E190.92479
G0 F12000 X173.62 Y150.39
G1 F1800 X176.03 Y147.97 E191.04426
G0 F12000 X176.66 Y147.94
G1 F1800 X174.25 Y150.35 E191.16349
G0 F12000 X174.89 Y150.31
G1 F1800 X177.29 Y147.90 E191.28244
G0 F12000 X177.93 Y147.87
G1 F1800 X175.52 Y150.27 E191.40115
G0 F12000 X176.16 Y150.23
G1 F1800 X178.56 Y147.83 E191.51958
G0 F12000 X179.19 Y147.79
G1 F1800 X176.79 Y150.19 E191.63774
G0 F12000 X177.43 Y150.15
G1 F1800 X179.81 Y147.76 E191.75566
G0 F12000 X180.44 Y147.72
G1 F1800 X178.06 Y150.10 E191.87328
G0 F12000 X178.70 Y150.06
G1 F1800 X181.07 Y147.69 E191.99060
G0 F12000 X181.71 Y147.65
G1 F1800 X179.33 Y150.02 E192.10770
G0 F12000 X179.97 Y149.98
G1 F1800 X182.34 Y147.61 E192.22456
G0 F12000 X182.92 Y147.62
G1 F1800 X180.60 Y149.94 E192.33914
G0 F12000 X181.24 Y149.90
G1 F1800 X183.28 Y147.85 E192.44009
G0 F12000 X183.51 Y148.22
G1 F1800 X181.88 Y149.85 E192.52094
G0 F12000 X182.50 Y149.83
G1 F1800 X183.60 Y148.73 E192.57537
G0 F12000 X135.23 Y156.46
G0 X129.35 Y159.62
G1 F1800 X127.79 Y161.17 E192.65199
G0 F12000 X127.56 Y159.62
G1 F1800 X125.45 Y161.74 E192.75647
G0 F12000 X125.45 Y162.33
G1 F1800 X128.16 Y159.62 E192.89029
G0 F12000 X128.75 Y159.62
G1 F1800 X126.28 Y162.09 E193.01226
G0 F12000 X125.45 Y161.14
G1 F1800 X126.97 Y159.62 E193.08740
G0 F12000 X126.38 Y159.62
G1 F1800 X125.45 Y160.55 E193.13321
G0 F12000 X125.45 Y159.95
G1 F1800 X125.78 Y159.62 E193.14968
;LAYER:2
G0 F12000 X125.30 Y159.47 Z0.70
;TYPE:WALL-INNER
G1 F1800 X129.84 Y159.47 E193.30809
G1 X129.47 Y159.88 E193.32722
G1 X129.11 Y160.26 E193.34550
G1 X128.71 Y160.63 E193.36472
G1 X128.31 Y160.97 E193.38274
G1 X127.88 Y161.29 E193.40156
G1 X127.44 Y161.59 E193.42019
G1 X126.99 Y161.88 E193.43881
G1 X126.52 Y162.14 E193.45768
G1 X126.03 Y162.38 E193.47678
G1 X125.55 Y162.58 E193.49474
G1 X125.30 Y162.68 E193.50417
G1 X125.30 Y159.47 E193.61603
G0 F12000 X130.74 Y156.04
G0 X134.17 Y153.12
G1 F1800 X134.17 Y150.22 E193.71703
G1 X182.44 Y147.46 E195.40553
G1 X182.54 Y147.44 E195.40920
G1 X182.73 Y147.43 E195.41577
G1 X182.93 Y147.47 E195.42288
G1 X183.11 Y147.54 E195.42960
G1 X183.28 Y147.65 E195.43674
G1 X183.45 Y147.81 E195.44474
G1 X183.58 Y148.01 E195.45311
G1 X183.69 Y148.24 E195.46212
G1 X183.74 Y148.50 E195.47138
G1 X183.75 Y148.78 E195.48123
G1 X183.71 Y149.05 E195.49057
G1 X183.61 Y149.30 E195.50001
G1 X183.48 Y149.52 E195.50906
G1 X183.32 Y149.70 E195.51732
G1 X183.13 Y149.83 E195.52534
G1 X182.94 Y149.92 E195.53260
G1 X182.75 Y149.97 E195.53961
G1 X182.15 Y149.99 E195.56040
G1 X134.17 Y153.12 E197.23954
G0 F12000 X129.78 Y145.78
G1 F1800 X125.30 Y145.78 E197.39586
G1 X125.30 Y142.68 E197.50440
G1 X126.15 Y143.03 E197.53644
G1 X126.65 Y143.28 E197.55609
G1 X127.12 Y143.54 E197.57476
G1 X127.56 Y143.82 E197.59300
G1 X128.01 Y144.14 E197.61225
G1 X128.41 Y144.45 E197.63005
G1 X128.83 Y144.81 E197.64917
G1 X129.21 Y145.16 E197.66730
G1 X129.57 Y145.55 E197.68587
G1 X129.78 Y145.78 E197.69677
G0 F12000 X130.24 Y145.68
G1 F1800 X130.58 Y146.11 E197.71615
G1 X130.65 Y146.21 E197.72005
G1 X124.88 Y146.21 E197.92138
G1 X124.88 Y142.09 E198.06506
G1 X125.61 Y142.34 E198.09187
G1 X126.35 Y142.66 E198.12000
G1 X126.84 Y142.91 E198.13931
G1 X127.33 Y143.18 E198.15882
G1 X127.81 Y143.48 E198.17853
G1 X128.25 Y143.79 E198.19735
G1 X128.69 Y144.13 E198.21684
G1 X129.09 Y144.48 E198.23554
G1 X129.50 Y144.87 E198.25508
G1 X129.89 Y145.27 E198.27457
G1 X130.24 Y145.68 E198.29339
G0 F12000 X133.75 Y149.83
G1 F1800 X182.38 Y147.04 E199.99441
G1 X182.49 Y147.02 E199.99829
G1 X182.77 Y147.01 E200.00810
G1 X183.04 Y147.06 E200.01784
G1 X183.30 Y147.16 E200.02744
G1 X183.55 Y147.32 E200.03781
G1 X183.77 Y147.53 E200.04853
G1 X183.95 Y147.80 E200.05991
G1 X184.09 Y148.11 E200.07165
G1 X184.16 Y148.45 E200.08387
G1 X184.17 Y148.81 E200.09635
G1 X184.11 Y149.16 E200.10866
G1 X183.99 Y149.49 E200.12088
G1 X183.81 Y149.77 E200.13259
G1 X183.59 Y150.01 E200.14396
G1 X183.35 Y150.19 E200.15468
G1 X183.08 Y150.32 E200.16510
G1 X182.80 Y150.38 E200.17493
G1 X182.17 Y150.41 E200.19698
G1 X133.75 Y153.56 E201.89152
G1 X133.75 Y149.83 E202.02203
G0 F12000 X130.69 Y159.05
G1 F1800 X130.50 Y159.32 E202.03366
G1 X130.15 Y159.75 E202.05287
G1 X129.78 Y160.17 E202.07227
G1 X129.40 Y160.56 E202.09151
G1 X128.99 Y160.95 E202.11110
G1 X128.58 Y161.29 E202.12964
G1 X128.12 Y161.64 E202.14978
G1 X127.67 Y161.95 E202.16881
G1 X127.19 Y162.24 E202.18849
G1 X126.72 Y162.51 E202.20755
G1 X126.21 Y162.75 E202.22712
G1 X125.70 Y162.98 E202.24675
G1 X125.17 Y163.18 E202.26658
G1 X124.88 Y163.27 E202.27707
G1 X124.88 Y159.05 E202.42427
G1 X130.69 Y159.05 E202.62714
G0 F12000 X131.16 Y159.12
G1 F1800 X130.83 Y159.58 E202.64687
G1 X130.48 Y160.02 E202.66640
G1 X130.08 Y160.47 E202.68729
G1 X129.70 Y160.86 E202.70643
G1 X129.26 Y161.27 E202.72741
G1 X128.84 Y161.62 E202.74651
G1 X128.38 Y161.97 E202.76685
G1 X127.91 Y162.30 E202.78684
G1 X127.40 Y162.61 E202.80761
G1 X126.92 Y162.88 E202.82684
G1 X126.38 Y163.14 E202.84782
G1 X125.86 Y163.36 E202.86751
G1 X125.31 Y163.57 E202.88800
G1 X124.77 Y163.75 E202.90796
G1 X124.46 Y163.83 E202.91906
G1 X124.46 Y158.63 E203.10045
G1 X131.48 Y158.63 E203.34547
G1 X131.16 Y159.12 E203.36586
G0 F12000 X133.33 Y154.08
G1 F1800 X133.33 Y149.43 E203.52829
G1 X182.32 Y146.63 E205.24183
G1 X182.44 Y146.60 E205.24600
G1 X182.80 Y146.59 E205.25864
G1 X183.16 Y146.65 E205.27146
G1 X183.50 Y146.78 E205.28407
G1 X183.81 Y146.99 E205.29723
G1 X184.10 Y147.27 E205.31115
G1 X184.32 Y147.60 E205.32517
G1 X184.49 Y147.98 E205.33983
G1 X184.58 Y148.41 E205.35488
G1 X184.59 Y148.84 E205.37022
G1 X184.52 Y149.27 E205.38519
G1 X184.37 Y149.67 E205.40013
G1 X184.15 Y150.03 E205.41482
G1 X183.88 Y150.33 E205.42908
G1 X183.56 Y150.56 E205.44264
G1 X183.21 Y150.72 E205.45608
G1 X183.00 Y150.77 E205.46383
G1 X182.86 Y150.80 E205.46882
G1 X182.19 Y150.82 E205.49209
G1 X133.36 Y154.01 E207.20123
G1 X133.33 Y154.08 E207.20381
G0 F12000 X131.44 Y146.62
G1 F1800 X124.46 Y146.62 E207.44740
G1 X124.46 Y141.53 E207.62519
G1 X125.18 Y141.74 E207.65137
G1 X125.75 Y141.94 E207.67236
G1 X126.52 Y142.28 E207.70168
G1 X127.04 Y142.54 E207.72203
G1 X127.56 Y142.83 E207.74267
G1 X128.01 Y143.12 E207.76166
G1 X128.51 Y143.46 E207.78267
G1 X128.95 Y143.81 E207.80236
G1 X129.38 Y144.18 E207.82212
G1 X129.79 Y144.57 E207.84201
G1 X130.19 Y144.98 E207.86197
G1 X130.57 Y145.42 E207.88229
G1 X130.91 Y145.85 E207.90157
G1 X131.24 Y146.32 E207.92167
G1 X131.44 Y146.62 E207.93411
G0 F12000 X131.91 Y146.59
G1 F1800 X132.17 Y147.04 E207.95222
G1 X124.04 Y147.04 E208.23608
G1 X124.04 Y141.00 E208.44712
G1 X124.77 Y141.18 E208.47314
G1 X125.32 Y141.35 E208.49332
G1 X125.88 Y141.55 E208.51409
G1 X126.71 Y141.90 E208.54565
G1 X127.24 Y142.17 E208.56634
G1 X127.76 Y142.46 E208.58711
G1 X128.26 Y142.78 E208.60795
G1 X128.74 Y143.11 E208.62851
G1 X129.22 Y143.48 E208.64939
G1 X129.67 Y143.87 E208.67027
G1 X130.09 Y144.27 E208.69053
G1 X130.50 Y144.70 E208.71142
G1 X130.88 Y145.14 E208.73165
G1 X131.26 Y145.62 E208.75292
G1 X131.59 Y146.08 E208.77284
G1 X131.91 Y146.59 E208.79394
G0 F12000 X132.91 Y148.47
G1 F1800 X133.19 Y149.02 E208.81534
G1 X182.26 Y146.21 E210.53158
G1 X182.38 Y146.18 E210.53596
G1 X182.82 Y146.17 E210.55151
G1 X183.27 Y146.25 E210.56738
G1 X183.69 Y146.41 E210.58306
G1 X184.08 Y146.66 E210.59917
G1 X184.42 Y146.99 E210.61569
G1 X184.69 Y147.40 E210.63287
G1 X184.89 Y147.85 E210.65016
G1 X185.00 Y148.36 E210.66821
G1 X185.01 Y148.87 E210.68620
G1 X184.93 Y149.38 E210.70412
G1 X184.75 Y149.85 E210.72174
G1 X184.49 Y150.28 E210.73937
G1 X184.16 Y150.64 E210.75636
G1 X183.78 Y150.92 E210.77297
G1 X183.36 Y151.12 E210.78911
G1 X182.92 Y151.22 E210.80494
G1 X182.21 Y151.24 E210.82951
G1 X133.66 Y154.41 E212.52863
G1 X132.91 Y156.59 E212.60911
G1 X132.91 Y148.47 E212.89258
G0 F12000 X132.20 Y158.21
G1 F1800 X131.83 Y158.86 E212.91838
G1 X131.51 Y159.36 E212.93922
G1 X131.16 Y159.84 E212.95993
G1 X130.80 Y160.29 E212.98023
G1 X130.40 Y160.74 E213.00112
G1 X129.98 Y161.17 E213.02228
G1 X129.55 Y161.57 E213.04264
G1 X129.09 Y161.96 E213.06364
G1 X128.63 Y162.31 E213.08397
G1 X128.13 Y162.65 E213.10519
G1 X127.62 Y162.97 E213.12589
G1 X127.10 Y163.25 E213.14671
G1 X126.58 Y163.51 E213.16717
G1 X126.00 Y163.76 E213.18887
G1 X125.44 Y163.97 E213.20980
G1 X124.89 Y164.15 E213.23031
G1 X124.30 Y164.31 E213.25139
G1 X124.04 Y164.36 E213.26072
G1 X124.04 Y158.21 E213.47546
G1 X132.20 Y158.21 E213.76033
G0 F12000 X132.50 Y158.55
G1 F1800 X132.19 Y159.08 E213.78176
G1 X131.85 Y159.60 E213.80365
G1 X131.50 Y160.08 E213.82420
G1 X131.10 Y160.58 E213.84652
G1 X130.72 Y161.01 E213.86683
G1 X130.28 Y161.47 E213.88884
G1 X129.82 Y161.89 E213.91066
G1 X129.36 Y162.28 E213.93165
G1 X128.87 Y162.65 E213.95330
G1 X128.36 Y163.00 E213.97488
G1 X127.84 Y163.32 E213.99608
G1 X127.28 Y163.63 E214.01834
G1 X126.74 Y163.90 E214.03953
G1 X126.17 Y164.15 E214.06129
G1 X125.59 Y164.37 E214.08291
G1 X125.00 Y164.56 E214.10467
G1 X124.41 Y164.71 E214.12570
G1 X123.79 Y164.85 E214.14801
G1 X123.62 Y164.88 E214.15400
G1 X123.62 Y157.79 E214.40132
G1 X132.49 Y157.79 E214.71116
G1 X132.49 Y147.47 E215.07188
G1 X123.62 Y147.47 E215.38172
G1 X123.62 Y140.49 E215.62524
G1 X124.28 Y140.62 E215.64877
G1 X124.84 Y140.76 E215.66901
G1 X125.45 Y140.95 E215.69127
G1 X126.04 Y141.16 E215.71311
G1 X126.38 Y141.29 E215.72593
G1 X126.89 Y141.52 E215.74528
G1 X127.43 Y141.79 E215.76633
G1 X127.97 Y142.09 E215.78795
G1 X128.50 Y142.43 E215.80985
G1 X128.99 Y142.77 E215.83081
G1 X129.49 Y143.16 E215.85302
G1 X129.95 Y143.55 E215.87389
G1 X130.39 Y143.97 E215.89509
G1 X130.81 Y144.41 E215.91645
G1 X131.22 Y144.88 E215.93814
G1 X131.59 Y145.36 E215.95931
G1 X131.94 Y145.86 E215.98071
G1 X132.26 Y146.36 E216.00145
G1 X132.58 Y146.92 E216.02377
G1 X133.44 Y148.58 E216.08939
G1 X182.20 Y145.79 E217.79478
G1 X182.32 Y145.76 E217.79937
G1 X182.85 Y145.75 E217.81786
G1 X183.38 Y145.84 E217.83670
G1 X183.88 Y146.03 E217.85542
G1 X184.34 Y146.33 E217.87455
G1 X184.74 Y146.72 E217.89401
G1 X185.06 Y147.19 E217.91383
G1 X185.29 Y147.72 E217.93409
G1 X185.42 Y148.30 E217.95483
G1 X185.43 Y148.90 E217.97561
G1 X185.34 Y149.48 E217.99632
G1 X185.13 Y150.04 E218.01692
G1 X184.82 Y150.54 E218.03734
G1 X184.44 Y150.96 E218.05724
G1 X183.99 Y151.28 E218.07660
G1 X183.49 Y151.52 E218.09596
G1 X182.97 Y151.64 E218.11452
G1 X182.23 Y151.66 E218.14038
G1 X133.97 Y154.81 E219.82950
G1 X133.25 Y156.89 E219.90624
G1 X133.03 Y157.45 E219.92705
G1 X132.78 Y158.01 E219.94875
G1 X132.50 Y158.55 E219.96984
G0 F12000 X132.87 Y158.74
G1 F1800 X132.54 Y159.31 E219.99281
G1 X132.20 Y159.83 E220.01444
G1 X131.84 Y160.34 E220.03637
G1 X131.43 Y160.84 E220.05904
G1 X131.01 Y161.32 E220.08133
G1 X130.58 Y161.76 E220.10279
G1 X130.10 Y162.20 E220.12547
G1 X129.62 Y162.61 E220.14755
G1 X129.12 Y162.99 E220.16939
G1 X128.59 Y163.35 E220.19194
G1 X128.05 Y163.69 E220.21421
G1 X127.48 Y164.00 E220.23666
G1 X126.91 Y164.28 E220.25896
G1 X126.33 Y164.53 E220.28106
G1 X125.72 Y164.76 E220.30383
G1 X125.14 Y164.95 E220.32529
G1 X124.50 Y165.12 E220.34810
G1 X123.87 Y165.26 E220.37094
G1 X123.23 Y165.37 E220.39335
G1 X123.20 Y165.37 E220.39448
G1 X123.20 Y157.42 E220.67212
G1 X123.20 Y157.38 E220.67359
G1 X132.07 Y157.37 E220.98329
G1 X132.07 Y147.88 E221.31468
G1 X123.24 Y147.88 E221.62319
G1 X123.20 Y147.88 E221.62438
G1 X123.20 Y140.00 E221.89947
G1 X123.73 Y140.09 E221.91815
G1 X124.36 Y140.21 E221.94073
G1 X124.96 Y140.36 E221.96222
G1 X125.60 Y140.55 E221.98543
G1 X126.21 Y140.77 E222.00805
G1 X127.07 Y141.14 E222.04085
G1 X127.64 Y141.43 E222.06292
G1 X128.19 Y141.74 E222.08533
G1 X128.72 Y142.07 E222.10695
G1 X129.24 Y142.44 E222.12927
G1 X129.75 Y142.83 E222.15162
G1 X130.24 Y143.26 E222.17450
G1 X130.68 Y143.67 E222.19558
G1 X131.12 Y144.13 E222.21791
G1 X131.54 Y144.61 E222.24004
G1 X131.93 Y145.11 E222.26208
G1 X132.29 Y145.62 E222.28390
G1 X132.63 Y146.16 E222.30618
G1 X132.94 Y146.70 E222.32812
G1 X133.69 Y148.15 E222.38498
G1 X182.13 Y145.38 E224.07953
G1 X182.27 Y145.34 E224.08441
G1 X182.88 Y145.33 E224.10572
G1 X183.50 Y145.43 E224.12764
G1 X184.08 Y145.66 E224.14937
G1 X184.60 Y146.00 E224.17119
G1 X185.06 Y146.45 E224.19381
G1 X185.43 Y146.98 E224.21634
G1 X185.69 Y147.60 E224.23962
G1 X185.84 Y148.25 E224.26313
G1 X185.85 Y148.93 E224.28668
G1 X185.74 Y149.59 E224.31011
G1 X185.51 Y150.22 E224.33369
G1 X185.16 Y150.79 E224.35673
G1 X184.72 Y151.27 E224.37967
G1 X184.21 Y151.65 E224.40195
G1 X183.63 Y151.91 E224.42409
G1 X183.03 Y152.06 E224.44588
G1 X182.25 Y152.08 E224.47285
G1 X134.28 Y155.22 E226.15196
G1 X133.65 Y157.02 E226.21877
G1 X133.41 Y157.63 E226.24137
G1 X133.15 Y158.20 E226.26342
G1 X132.87 Y158.74 E226.28464
G0 F12000 X133.22 Y158.97
G1 F1800 X132.91 Y159.51 E226.30656
G1 X132.54 Y160.07 E226.32985
G1 X132.17 Y160.59 E226.35222
G1 X131.76 Y161.11 E226.37515
G1 X131.32 Y161.61 E226.39846
G1 X130.87 Y162.06 E226.42086
G1 X130.38 Y162.51 E226.44394
G1 X129.89 Y162.93 E226.46656
G1 X129.37 Y163.33 E226.48929
G1 X128.81 Y163.71 E226.51308
G1 X128.25 Y164.06 E226.53596
G1 X127.69 Y164.37 E226.55858
G1 X127.09 Y164.66 E226.58166
G1 X126.47 Y164.93 E226.60516
G1 X125.88 Y165.15 E226.62727
G1 X125.23 Y165.36 E226.65129
G1 X124.60 Y165.53 E226.67411
G1 X123.97 Y165.67 E226.69666
G1 X123.28 Y165.78 E226.72088
G1 X122.47 Y165.88 E226.74949
G1 X121.90 Y166.03 E226.77009
G1 X121.21 Y166.19 E226.79471
G1 X120.56 Y166.31 E226.81791
G1 X119.87 Y166.40 E226.84224
G1 X119.20 Y166.45 E226.86547
G1 X118.68 Y166.46 E226.88381
G1 X118.68 Y165.83 E226.90606
G1 X122.78 Y165.83 E227.04931
G1 X122.78 Y157.40 E227.34368
G1 X122.80 Y157.25 E227.34898
G1 X122.81 Y157.18 E227.35127
G1 X122.85 Y157.12 E227.35365
G1 X122.89 Y157.07 E227.35620
G1 X122.95 Y157.02 E227.35873
G1 X123.01 Y156.99 E227.36108
G1 X123.22 Y156.95 E227.36868
G1 X131.65 Y156.95 E227.66305
G1 X131.65 Y148.31 E227.96510
G1 X123.22 Y148.31 E228.25968
G1 X123.08 Y148.29 E228.26459
G1 X123.01 Y148.27 E228.26708
G1 X122.95 Y148.24 E228.26944
G1 X122.89 Y148.19 E228.27202
G1 X122.85 Y148.14 E228.27455
G1 X122.82 Y148.08 E228.27688
G1 X122.80 Y148.01 E228.27925
G1 X122.78 Y139.49 E228.57701
G1 X122.98 Y139.55 E228.58425
G1 X123.79 Y139.67 E228.61299
G1 X124.45 Y139.80 E228.63628
G1 X125.08 Y139.96 E228.65918
G1 X125.71 Y140.15 E228.68220
G1 X126.36 Y140.38 E228.70623
G1 X127.25 Y140.76 E228.74001
G1 X127.83 Y141.05 E228.76244
G1 X128.41 Y141.38 E228.78569
G1 X128.96 Y141.72 E228.80838
G1 X129.49 Y142.10 E228.83109
G1 X130.02 Y142.51 E228.85474
G1 X130.51 Y142.93 E228.87715
G1 X130.99 Y143.38 E228.90015
G1 X131.43 Y143.84 E228.92241
G1 X131.86 Y144.34 E228.94551
G1 X132.27 Y144.86 E228.96859
G1 X132.64 Y145.39 E228.99126
G1 X132.99 Y145.93 E229.01348
G1 X133.32 Y146.52 E229.03725
G1 X133.94 Y147.71 E229.08412
G1 X182.07 Y144.96 E230.76790
G1 X182.22 Y144.93 E230.77300
G1 X182.88 Y144.91 E230.79627
G1 X182.91 Y144.91 E230.79721
G1 X183.58 Y145.02 E230.82115
G1 X183.61 Y145.03 E230.82221
G1 X184.24 Y145.27 E230.84586
G1 X184.87 Y145.67 E230.87176
G1 X185.36 Y146.16 E230.89588
G1 X185.78 Y146.76 E230.92147
G1 X186.08 Y147.43 E230.94727
G1 X186.09 Y147.47 E230.94857
G1 X186.25 Y148.16 E230.97351
G1 X186.27 Y148.92 E230.99986
G1 X186.27 Y148.96 E231.00140
G1 X186.16 Y149.66 E231.02614
G1 X186.15 Y149.70 E231.02763
G1 X185.90 Y150.37 E231.05251
G1 X185.50 Y151.04 E231.07986
G1 X185.00 Y151.58 E231.10544
G1 X184.42 Y152.01 E231.13075
G1 X183.80 Y152.30 E231.15481
G1 X183.08 Y152.48 E231.18046
G1 X182.27 Y152.50 E231.20876
G1 X134.58 Y155.62 E232.87786
G1 X134.04 Y157.19 E232.93597
G1 X133.81 Y157.78 E232.95800
G1 X133.53 Y158.37 E232.98089
G1 X133.22 Y158.97 E233.00451
G0 F12000 X130.74 Y149.21
G0 X122.61 Y139.43
G1 F1800 X118.68 Y139.43 E233.14193
G1 X118.68 Y138.80 E233.16418
G1 X119.75 Y138.85 E233.20153
G1 X120.42 Y138.93 E233.22533
G1 X121.10 Y139.05 E233.24938
G1 X121.74 Y139.19 E233.27209
G1 X122.41 Y139.37 E233.29655
G1 X122.61 Y139.43 E233.30388
G0 F12000 X122.53 Y138.97
G1 F1800 X123.07 Y139.14 E233.32369
G1 X123.87 Y139.26 E233.35198
G1 X124.55 Y139.39 E233.37601
G1 X125.19 Y139.55 E233.39895
G1 X125.85 Y139.75 E233.42322
G1 X126.50 Y139.99 E233.44735
G1 X127.42 Y140.38 E233.48234
G1 X128.03 Y140.68 E233.50612
G1 X128.62 Y141.02 E233.52978
G1 X129.19 Y141.37 E233.55309
G1 X129.75 Y141.77 E233.57700
G1 X130.28 Y142.18 E233.60032
G1 X130.80 Y142.62 E233.62437
G1 X131.28 Y143.08 E233.64774
G1 X131.73 Y143.55 E233.67024
G1 X132.19 Y144.09 E233.69502
G1 X132.61 Y144.61 E233.71843
G1 X132.98 Y145.14 E233.74114
G1 X133.35 Y145.72 E233.76481
G1 X133.69 Y146.33 E233.78938
G1 X134.19 Y147.28 E233.82679
G1 X182.01 Y144.54 E235.49972
G1 X182.16 Y144.51 E235.50493
G1 X182.87 Y144.49 E235.52984
G1 X182.95 Y144.49 E235.53253
G1 X183.66 Y144.60 E235.55767
G1 X183.73 Y144.62 E235.56016
G1 X184.40 Y144.88 E235.58534
G1 X184.46 Y144.91 E235.58774
G1 X185.13 Y145.34 E235.61569
G1 X185.66 Y145.85 E235.64127
G1 X185.71 Y145.91 E235.64387
G1 X186.13 Y146.52 E235.66974
G1 X186.17 Y146.58 E235.67237
G1 X186.50 Y147.34 E235.70118
G1 X186.66 Y148.07 E235.72749
G1 X186.67 Y148.15 E235.73024
G1 X186.69 Y148.91 E235.75665
G1 X186.69 Y148.99 E235.75955
G1 X186.57 Y149.73 E235.78575
G1 X186.56 Y149.82 E235.78879
G1 X186.30 Y150.52 E235.81487
G1 X186.27 Y150.59 E235.81775
G1 X185.84 Y151.30 E235.84655
G1 X185.29 Y151.90 E235.87490
G1 X184.64 Y152.38 E235.90320
G1 X183.97 Y152.68 E235.92871
G1 X183.91 Y152.71 E235.93134
G1 X183.31 Y152.86 E235.95277
G1 X183.14 Y152.90 E235.95890
G1 X182.29 Y152.92 E235.98836
G1 X134.89 Y156.02 E237.64745
G1 X134.43 Y157.34 E237.69632
G1 X134.19 Y157.94 E237.71885
G1 X133.91 Y158.56 E237.74271
G1 X133.60 Y159.16 E237.76644
G1 X133.26 Y159.74 E237.78953
G1 X132.89 Y160.31 E237.81333
G1 X132.49 Y160.86 E237.83712
G1 X132.10 Y161.36 E237.85941
G1 X131.62 Y161.89 E237.88425
G1 X131.16 Y162.37 E237.90761
G1 X130.66 Y162.84 E237.93154
G1 X130.16 Y163.25 E237.95419
G1 X129.60 Y163.68 E237.97884
G1 X129.06 Y164.05 E238.00181
G1 X128.46 Y164.42 E238.02637
G1 X127.88 Y164.74 E238.04951
G1 X127.27 Y165.04 E238.07306
G1 X126.64 Y165.32 E238.09721
G1 X126.02 Y165.55 E238.12047
G1 X125.35 Y165.76 E238.14486
G1 X124.71 Y165.94 E238.16807
G1 X124.04 Y166.08 E238.19199
G1 X123.36 Y166.20 E238.21620
G1 X122.55 Y166.29 E238.24468
G1 X121.98 Y166.44 E238.26499
G1 X121.32 Y166.60 E238.28875
G1 X120.60 Y166.72 E238.31432
G1 X119.93 Y166.81 E238.33778
G1 X119.23 Y166.87 E238.36248
G1 X118.50 Y166.89 E238.38798
G1 X118.47 Y166.89 E238.38917
G1 X118.26 Y166.88 E238.39636
G1 X118.26 Y165.41 E238.44798
G1 X122.36 Y165.41 E238.59123
G1 X122.36 Y157.38 E238.87170
G1 X122.38 Y157.16 E238.87907
G1 X122.43 Y157.02 E238.88437
G1 X122.50 Y156.89 E238.88955
G1 X122.59 Y156.77 E238.89501
G1 X122.71 Y156.67 E238.90037
G1 X122.85 Y156.60 E238.90569
G1 X122.99 Y156.56 E238.91101
G1 X123.20 Y156.53 E238.91831
G1 X131.23 Y156.53 E239.19878
G1 X131.23 Y148.72 E239.47149
G1 X123.20 Y148.72 E239.75210
G1 X123.00 Y148.71 E239.75923
G1 X122.85 Y148.66 E239.76456
G1 X122.71 Y148.59 E239.76994
G1 X122.60 Y148.49 E239.77517
G1 X122.50 Y148.37 E239.78073
G1 X122.43 Y148.24 E239.78589
G1 X122.38 Y148.09 E239.79125
G1 X122.36 Y147.88 E239.79858
G1 X122.36 Y139.85 E240.07905
G1 X118.26 Y139.85 E240.22230
G1 X118.26 Y138.37 E240.27395
G1 X118.45 Y138.37 E240.28063
G1 X119.08 Y138.38 E240.30274
G1 X119.79 Y138.43 E240.32735
G1 X120.48 Y138.52 E240.35179
G1 X121.18 Y138.63 E240.37658
G1 X121.86 Y138.78 E240.40072
G1 X122.53 Y138.97 E240.42518
G0 F12000 X122.64 Y138.56
G1 F1800 X123.17 Y138.73 E240.44438
G1 X123.94 Y138.84 E240.47160
G1 X124.64 Y138.98 E240.49642
G1 X125.30 Y139.15 E240.52047
G1 X125.99 Y139.35 E240.54543
G1 X126.64 Y139.59 E240.56972
G1 X127.60 Y140.00 E240.60619
G1 X128.22 Y140.31 E240.63035
G1 X128.83 Y140.65 E240.65486
G1 X129.42 Y141.02 E240.67907
G1 X130.00 Y141.43 E240.70374
G1 X130.54 Y141.85 E240.72766
G1 X131.08 Y142.32 E240.75270
G1 X131.57 Y142.77 E240.77592
G1 X132.06 Y143.28 E240.80069
G1 X132.52 Y143.82 E240.82545
G1 X132.94 Y144.35 E240.84904
G1 X133.33 Y144.91 E240.87279
G1 X133.71 Y145.51 E240.89763
G1 X134.06 Y146.12 E240.92223
G1 X134.43 Y146.84 E240.95067
G1 X181.95 Y144.12 E242.61276
G1 X182.10 Y144.09 E242.61826
G1 X182.86 Y144.07 E242.64463
G1 X182.97 Y144.06 E242.64868
G1 X183.73 Y144.19 E242.67539
G1 X183.84 Y144.21 E242.67940
G1 X184.55 Y144.49 E242.70604
G1 X184.66 Y144.53 E242.71008
G1 X185.39 Y145.01 E242.74073
G1 X186.03 Y145.63 E242.77190
G1 X186.54 Y146.38 E242.80327
G1 X186.90 Y147.21 E242.83509
G1 X187.07 Y147.98 E242.86265
G1 X187.09 Y148.10 E242.86679
G1 X187.11 Y148.90 E242.89460
G1 X187.12 Y149.02 E242.89897
G1 X186.97 Y149.92 E242.93065
G1 X186.65 Y150.78 E242.96269
G1 X186.18 Y151.55 E242.99423
G1 X185.57 Y152.21 E243.02577
G1 X184.85 Y152.74 E243.05680
G1 X184.15 Y153.06 E243.08372
G1 X184.05 Y153.11 E243.08758
G1 X183.21 Y153.31 E243.11796
G1 X182.31 Y153.34 E243.14909
G1 X135.19 Y156.42 E244.79817
G1 X134.83 Y157.47 E244.83711
G1 X134.57 Y158.12 E244.86140
G1 X134.29 Y158.75 E244.88564
G1 X133.98 Y159.35 E244.90917
G1 X133.62 Y159.96 E244.93380
G1 X133.24 Y160.54 E244.95805
G1 X132.83 Y161.12 E244.98286
G1 X132.40 Y161.65 E245.00662
G1 X131.94 Y162.17 E245.03081
G1 X131.46 Y162.66 E245.05507
G1 X130.93 Y163.15 E245.08020
G1 X130.41 Y163.59 E245.10406
G1 X129.87 Y164.01 E245.12789
G1 X129.29 Y164.40 E245.15230
G1 X128.68 Y164.78 E245.17744
G1 X128.06 Y165.12 E245.20201
G1 X127.44 Y165.43 E245.22605
G1 X126.80 Y165.70 E245.25056
G1 X126.15 Y165.95 E245.27470
G1 X125.48 Y166.16 E245.29939
G1 X124.80 Y166.35 E245.32397
G1 X124.10 Y166.50 E245.34900
G1 X123.43 Y166.61 E245.37279
G1 X122.62 Y166.71 E245.40113
G1 X122.09 Y166.85 E245.42049
G1 X121.39 Y167.01 E245.44557
G1 X120.69 Y167.14 E245.47048
G1 X119.96 Y167.23 E245.49597
G1 X119.25 Y167.29 E245.52074
G1 X118.51 Y167.31 E245.54666
G1 X118.46 Y167.31 E245.54844
G1 X117.84 Y167.29 E245.57017
G1 X117.84 Y164.99 E245.65081
G1 X121.94 Y164.99 E245.79406
G1 X121.94 Y157.35 E246.06063
G1 X121.97 Y157.08 E246.07007
G1 X122.04 Y156.86 E246.07825
G1 X122.15 Y156.65 E246.08644
G1 X122.30 Y156.47 E246.09472
G1 X122.48 Y156.32 E246.10291
G1 X122.69 Y156.21 E246.11127
G1 X122.91 Y156.14 E246.11937
G1 X123.18 Y156.11 E246.12881
G1 X130.81 Y156.11 E246.39538
G1 X130.81 Y149.15 E246.63876
G1 X123.18 Y149.15 E246.90543
G1 X122.92 Y149.12 E246.91462
G1 X122.68 Y149.05 E246.92305
G1 X122.48 Y148.94 E246.93116
G1 X122.30 Y148.79 E246.93937
G1 X122.15 Y148.61 E246.94771
G1 X122.04 Y148.40 E246.95589
G1 X121.97 Y148.18 E246.96403
G1 X121.94 Y147.91 E246.97351
G1 X121.94 Y140.27 E247.24008
G1 X117.84 Y140.27 E247.38333
G1 X117.84 Y137.97 E247.46383
G1 X118.45 Y137.95 E247.48525
G1 X119.10 Y137.97 E247.50782
G1 X119.82 Y138.01 E247.53323
G1 X120.56 Y138.10 E247.55894
G1 X121.25 Y138.22 E247.58344
G1 X121.95 Y138.37 E247.60862
G1 X122.64 Y138.56 E247.63369
G0 F12000 X122.77 Y138.16
;TYPE:WALL-OUTER
G1 F1800 X123.26 Y138.32 E247.65160
G1 X124.02 Y138.43 E247.67833
G1 X124.72 Y138.57 E247.70318
G1 X125.43 Y138.75 E247.72871
G1 X126.11 Y138.95 E247.75349
G1 X126.79 Y139.20 E247.77896
G1 X127.78 Y139.62 E247.81661
G1 X128.43 Y139.94 E247.84180
G1 X129.04 Y140.29 E247.86649
G1 X129.66 Y140.68 E247.89191
G1 X130.25 Y141.09 E247.91693
G1 X130.81 Y141.53 E247.94197
G1 X131.36 Y142.00 E247.96698
G1 X131.87 Y142.48 E247.99161
G1 X132.36 Y143.00 E248.01661
G1 X132.84 Y143.55 E248.04189
G1 X133.27 Y144.10 E248.06649
G1 X133.69 Y144.68 E248.09142
G1 X134.07 Y145.28 E248.11629
G1 X134.42 Y145.91 E248.14158
G1 X134.68 Y146.41 E248.16105
G1 X181.89 Y143.71 E249.81237
G1 X182.05 Y143.67 E249.81805
G1 X183.00 Y143.64 E249.85138
G1 X183.95 Y143.81 E249.88513
G1 X184.85 Y144.16 E249.91866
G1 X185.66 Y144.68 E249.95244
G1 X186.36 Y145.36 E249.98652
G1 X186.91 Y146.17 E250.02073
G1 X187.30 Y147.08 E250.05531
G1 X187.51 Y148.05 E250.08991
G1 X187.54 Y149.05 E250.12478
G1 X187.37 Y150.03 E250.15944
G1 X187.03 Y150.96 E250.19428
G1 X186.51 Y151.80 E250.22861
G1 X185.85 Y152.53 E250.26304
G1 X185.07 Y153.10 E250.29684
G1 X184.19 Y153.51 E250.33082
G1 X183.43 Y153.69 E250.35786
G1 X183.25 Y153.73 E250.36429
G1 X182.33 Y153.76 E250.39640
G1 X135.50 Y156.82 E252.03547
G1 X135.22 Y157.62 E252.06514
G1 X134.97 Y158.28 E252.08969
G1 X134.67 Y158.92 E252.11457
G1 X134.34 Y159.56 E252.13956
G1 X133.98 Y160.18 E252.16447
G1 X133.59 Y160.78 E252.18981
G1 X133.17 Y161.36 E252.21445
G1 X132.72 Y161.92 E252.23975
G1 X132.25 Y162.45 E252.26446
G1 X131.75 Y162.97 E252.28953
G1 X131.22 Y163.46 E252.31493
G1 X130.68 Y163.92 E252.33967
G1 X130.10 Y164.35 E252.36476
G1 X129.51 Y164.76 E252.38988
G1 X128.89 Y165.14 E252.41535
G1 X128.26 Y165.49 E252.44044
G1 X127.62 Y165.81 E252.46527
G1 X126.95 Y166.09 E252.49083
G1 X126.29 Y166.35 E252.51562
G1 X125.60 Y166.57 E252.54097
G1 X124.90 Y166.76 E252.56631
G1 X124.19 Y166.91 E252.59137
G1 X123.48 Y167.03 E252.61683
G1 X122.70 Y167.12 E252.64415
G1 X122.20 Y167.26 E252.66236
G1 X121.47 Y167.42 E252.68830
G1 X120.74 Y167.55 E252.71430
G1 X120.01 Y167.65 E252.74011
G1 X119.28 Y167.71 E252.76572
G1 X118.52 Y167.73 E252.79196
G1 X118.46 Y167.73 E252.79426
G1 X117.79 Y167.71 E252.81749
G1 X117.42 Y167.69 E252.83058
G1 X117.42 Y164.57 E252.93968
G1 X121.52 Y164.57 E253.08294
G1 X121.52 Y157.33 E253.33560
G1 X121.55 Y157.00 E253.34712
G1 X121.65 Y156.70 E253.35828
G1 X121.80 Y156.42 E253.36942
G1 X122.00 Y156.17 E253.38048
G1 X122.24 Y155.97 E253.39155
G1 X122.53 Y155.82 E253.40272
G1 X122.83 Y155.73 E253.41385
G1 X123.16 Y155.69 E253.42536
G1 X130.39 Y155.69 E253.67803
G1 X130.39 Y149.56 E253.89207
G1 X123.16 Y149.56 E254.14478
G1 X122.83 Y149.53 E254.15622
G1 X122.53 Y149.44 E254.16739
G1 X122.25 Y149.29 E254.17842
G1 X122.00 Y149.09 E254.18973
G1 X121.80 Y148.84 E254.20070
G1 X121.65 Y148.56 E254.21184
G1 X121.55 Y148.26 E254.22296
G1 X121.52 Y147.93 E254.23451
G1 X121.52 Y140.69 E254.48718
G1 X117.42 Y140.69 E254.63043
G1 X117.42 Y137.57 E254.73946
G1 X118.02 Y137.54 E254.76042
G1 X118.45 Y137.53 E254.77568
G1 X119.12 Y137.55 E254.79888
G1 X119.86 Y137.60 E254.82492
G1 X120.61 Y137.69 E254.85101
G1 X121.33 Y137.81 E254.87675
G1 X122.05 Y137.97 E254.90240
G1 X122.77 Y138.16 E254.92864
G0 F12000 X122.69 Y138.46
G0 X125.45 Y142.97
;TYPE:FILL
G1 F1800 X128.12 Y145.64 E255.06041
G0 F12000 X128.71 Y145.64
G1 F1800 X126.38 Y143.31 E255.17521
G0 F12000 X125.45 Y143.56
G1 F1800 X127.52 Y145.64 E255.27764
G0 F12000 X126.93 Y145.64
G1 F1800 X125.45 Y144.16 E255.35074
G0 F12000 X125.45 Y144.75
G1 F1800 X126.33 Y145.64 E255.39450
G0 F12000 X125.74 Y145.64
G1 F1800 X125.45 Y145.34 E255.40892
G0 F12000 X127.92 Y144.26
G1 F1800 X129.30 Y145.64 E255.47712
G0 F12000 X134.61 Y150.35
G1 F1800 X137.04 Y152.78 E255.59729
G0 F12000 X137.60 Y152.74
G1 F1800 X135.17 Y150.32 E255.71718
G0 F12000 X135.73 Y150.28
G1 F1800 X138.16 Y152.71 E255.83690
G0 F12000 X138.71 Y152.67
G1 F1800 X136.29 Y150.25 E255.95637
G0 F12000 X136.85 Y150.22
G1 F1800 X139.27 Y152.63 E256.07567
G0 F12000 X139.83 Y152.60
G1 F1800 X137.42 Y150.19 E256.19469
G0 F12000 X137.98 Y150.15
G1 F1800 X140.38 Y152.56 E256.31357
G0 F12000 X140.94 Y152.53
G1 F1800 X138.54 Y150.12 E256.43220
G0 F12000 X139.10 Y150.09
G1 F1800 X141.50 Y152.49 E256.55064
G0 F12000 X142.06 Y152.45
G1 F1800 X139.66 Y150.06 E256.66888
G0 F12000 X140.22 Y150.03
G1 F1800 X142.62 Y152.42 E256.78691
G0 F12000 X143.17 Y152.38
G1 F1800 X140.79 Y149.99 E256.90476
G0 F12000 X141.35 Y149.96
G1 F1800 X143.73 Y152.34 E257.02238
G0 F12000 X144.29 Y152.31
G1 F1800 X141.91 Y149.93 E257.13980
G0 F12000 X142.47 Y149.90
G1 F1800 X144.84 Y152.27 E257.25700
G0 F12000 X145.40 Y152.23
G1 F1800 X143.03 Y149.87 E257.37400
G0 F12000 X143.60 Y149.83
G1 F1800 X145.96 Y152.20 E257.49080
G0 F12000 X146.52 Y152.16
G1 F1800 X144.16 Y149.80 E257.60736
G0 F12000 X144.72 Y149.77
G1 F1800 X147.08 Y152.12 E257.72375
G0 F12000 X147.63 Y152.09
G1 F1800 X145.28 Y149.74 E257.83988
G0 F12000 X145.84 Y149.71
G1 F1800 X148.19 Y152.05 E257.95580
G0 F12000 X148.75 Y152.01
G1 F1800 X146.41 Y149.67 E258.07154
G0 F12000 X146.97 Y149.64
G1 F1800 X149.31 Y151.98 E258.18709
G0 F12000 X149.86 Y151.94
G1 F1800 X147.53 Y149.61 E258.30241
G0 F12000 X148.09 Y149.58
G1 F1800 X150.42 Y151.91 E258.41753
G0 F12000 X150.98 Y151.87
G1 F1800 X148.65 Y149.54 E258.53249
G0 F12000 X149.22 Y149.51
G1 F1800 X151.54 Y151.83 E258.64717
G0 F12000 X152.09 Y151.80
G1 F1800 X149.78 Y149.48 E258.76170
G0 F12000 X150.34 Y149.45
G1 F1800 X152.65 Y151.76 E258.87599
G0 F12000 X153.21 Y151.72
G1 F1800 X150.90 Y149.41 E258.99007
G0 F12000 X151.46 Y149.38
G1 F1800 X153.77 Y151.69 E259.10392
G0 F12000 X154.32 Y151.65
G1 F1800 X152.02 Y149.35 E259.21761
G0 F12000 X152.59 Y149.32
G1 F1800 X154.88 Y151.62 E259.33108
G0 F12000 X155.44 Y151.58
G1 F1800 X153.15 Y149.29 E259.44433
G0 F12000 X153.71 Y149.25
G1 F1800 X156.00 Y151.54 E259.55738
G0 F12000 X156.56 Y151.51
G1 F1800 X154.27 Y149.22 E259.67021
G0 F12000 X154.83 Y149.19
G1 F1800 X157.11 Y151.47 E259.78281
G0 F12000 X157.67 Y151.43
G1 F1800 X155.39 Y149.16 E259.89522
G0 F12000 X155.96 Y149.12
G1 F1800 X158.23 Y151.40 E260.00743
G0 F12000 X158.78 Y151.36
G1 F1800 X156.52 Y149.09 E260.11942
G0 F12000 X157.08 Y149.06
G1 F1800 X159.34 Y151.32 E260.23121
G0 F12000 X159.90 Y151.29
G1 F1800 X157.64 Y149.03 E260.34283
G0 F12000 X158.20 Y149.00
G1 F1800 X160.46 Y151.25 E260.45420
G0 F12000 X161.02 Y151.22
G1 F1800 X158.76 Y148.96 E260.56540
G0 F12000 X159.33 Y148.93
G1 F1800 X161.57 Y151.18 E260.67636
G0 F12000 X162.13 Y151.14
G1 F1800 X159.89 Y148.90 E260.78713
G0 F12000 X160.45 Y148.87
G1 F1800 X162.69 Y151.11 E260.89767
G0 F12000 X163.25 Y151.07
G1 F1800 X161.01 Y148.84 E261.00800
G0 F12000 X161.57 Y148.80
G1 F1800 X163.80 Y151.03 E261.11811
G0 F12000 X164.36 Y151.00
G1 F1800 X162.14 Y148.77 E261.22805
G0 F12000 X162.70 Y148.74
G1 F1800 X164.92 Y150.96 E261.33777
G0 F12000 X165.48 Y150.92
G1 F1800 X163.26 Y148.71 E261.44729
G0 F12000 X163.82 Y148.68
G1 F1800 X166.03 Y150.89 E261.55661
G0 F12000 X166.59 Y150.85
G1 F1800 X164.38 Y148.64 E261.66571
G0 F12000 X164.94 Y148.61
G1 F1800 X167.15 Y150.81 E261.77459
G0 F12000 X167.71 Y150.78
G1 F1800 X165.51 Y148.58 E261.88324
G0 F12000 X166.07 Y148.55
G1 F1800 X168.26 Y150.74 E261.99175
G0 F12000 X168.82 Y150.71
G1 F1800 X166.63 Y148.51 E262.10001
G0 F12000 X167.19 Y148.48
G1 F1800 X169.38 Y150.67 E262.20807
G0 F12000 X169.94 Y150.63
G1 F1800 X167.75 Y148.45 E262.31594
G0 F12000 X168.32 Y148.42
G1 F1800 X170.50 Y150.60 E262.42356
G0 F12000 X171.05 Y150.56
G1 F1800 X168.88 Y148.39 E262.53098
G0 F12000 X169.44 Y148.35
G1 F1800 X171.61 Y150.52 E262.63820
G0 F12000 X172.17 Y150.49
G1 F1800 X170.00 Y148.32 E262.74520
G0 F12000 X170.56 Y148.29
G1 F1800 X172.72 Y150.45 E262.85198
G0 F12000 X173.28 Y150.41
G1 F1800 X171.12 Y148.26 E262.95856
G0 F12000 X171.69 Y148.22
G1 F1800 X173.84 Y150.38 E263.06497
G0 F12000 X174.40 Y150.34
G1 F1800 X172.25 Y148.19 E263.17111
G0 F12000 X172.81 Y148.16
G1 F1800 X174.96 Y150.31 E263.27709
G0 F12000 X175.51 Y150.27
G1 F1800 X173.37 Y148.13 E263.38286
G0 F12000 X173.93 Y148.10
G1 F1800 X176.07 Y150.23 E263.48843
G0 F12000 X176.63 Y150.20
G1 F1800 X174.50 Y148.06 E263.59375
G0 F12000 X175.06 Y148.03
G1 F1800 X177.19 Y150.16 E263.69890
G0 F12000 X177.74 Y150.12
G1 F1800 X175.62 Y148.00 E263.80385
G0 F12000 X176.18 Y147.97
G1 F1800 X178.30 Y150.09 E263.90858
G0 F12000 X178.86 Y150.05
G1 F1800 X176.74 Y147.94 E264.01311
G0 F12000 X177.30 Y147.90
G1 F1800 X179.42 Y150.01 E264.11744
G0 F12000 X179.97 Y149.98
G1 F1800 X177.87 Y147.87 E264.22153
G0 F12000 X178.43 Y147.84
G1 F1800 X180.53 Y149.94 E264.32542
G0 F12000 X181.09 Y149.91
G1 F1800 X178.99 Y147.81 E264.42911
G0 F12000 X179.55 Y147.77
G1 F1800 X181.65 Y149.87 E264.53258
G0 F12000 X182.21 Y149.84
G1 F1800 X180.11 Y147.74 E264.63595
G0 F12000 X180.68 Y147.71
G1 F1800 X182.77 Y149.81 E264.73962
G0 F12000 X183.18 Y149.62
G1 F1800 X181.24 Y147.68 E264.83534
G0 F12000 X181.80 Y147.65
G1 F1800 X183.44 Y149.29 E264.91656
G0 F12000 X183.59 Y148.84
G1 F1800 X182.36 Y147.61 E264.97720
G0 F12000 X182.99 Y147.65
G1 F1800 X183.48 Y148.14 E265.00145
G0 F12000 X136.48 Y152.82
G1 F1800 X134.32 Y150.65 E265.10826
G0 F12000 X134.32 Y151.25
G1 F1800 X135.92 Y152.85 E265.18750
G0 F12000 X135.37 Y152.89
G1 F1800 X134.32 Y151.84 E265.23926
G0 F12000 X134.32 Y152.44
G1 F1800 X134.81 Y152.93 E265.26346
G0 F12000 X129.03 Y159.62
G1 F1800 X129.13 Y160.02 E265.27594
G1 X128.44 Y159.62 E265.30408
G0 F12000 X127.84 Y159.62
G1 F1800 X128.68 Y160.46 E265.34540
G0 F12000 X128.36 Y160.73
G1 F1800 X127.25 Y159.62 E265.40029
G0 F12000 X126.65 Y159.62
G1 F1800 X128.03 Y161.00 E265.46823
G0 F12000 X127.69 Y161.25
G1 F1800 X126.06 Y159.62 E265.54861
G0 F12000 X125.47 Y159.62
G1 F1800 X127.33 Y161.49 E265.64089
G0 F12000 X126.97 Y161.72
G1 F1800 X125.45 Y160.19 E265.71598
G0 F12000 X125.45 Y160.79
G1 F1800 X126.59 Y161.93 E265.77224
G0 F12000 X126.19 Y162.13
G1 F1800 X125.45 Y161.38 E265.80908
G0 F12000 X125.45 Y161.98
G1 F1800 X125.79 Y162.32 E265.82597
;LAYER:3
G0 F12000 X125.79 Y162.48 Z0.90
;TYPE:WALL-INNER
G1 F1800 X125.30 Y162.68 E265.84454
G1 X125.30 Y159.47 E265.95654
G1 X129.83 Y159.47 E266.11485
G1 X129.30 Y160.06 E266.14254
G1 X128.92 Y160.44 E266.16131
G1 X128.53 Y160.79 E266.17949
G1 X128.11 Y161.12 E266.19830
G1 X127.67 Y161.44 E266.21742
G1 X127.25 Y161.72 E266.23508
G1 X126.75 Y162.01 E266.25496
G1 X126.30 Y162.25 E266.27271
G1 X125.79 Y162.48 E266.29233
G0 F12000 X134.17 Y153.12
G1 F1800 X134.17 Y150.22 E266.39333
G1 X182.44 Y147.46 E268.08183
G1 X182.54 Y147.44 E268.08550
G1 X182.73 Y147.43 E268.09210
G1 X182.94 Y147.47 E268.09922
G1 X183.11 Y147.53 E268.10579
G1 X183.29 Y147.65 E268.11314
G1 X183.45 Y147.81 E268.12095
G1 X183.58 Y148.00 E268.12929
G1 X183.68 Y148.24 E268.13836
G1 X183.74 Y148.50 E268.14773
G1 X183.75 Y148.79 E268.15765
G1 X183.71 Y149.05 E268.16693
G1 X183.61 Y149.30 E268.17632
G1 X183.48 Y149.52 E268.18524
G1 X183.31 Y149.70 E268.19381
G1 X183.13 Y149.83 E268.20153
G1 X182.94 Y149.92 E268.20895
G1 X182.75 Y149.97 E268.21593
G1 X182.15 Y149.99 E268.23671
G1 X134.17 Y153.12 E269.91586
G0 F12000 X129.78 Y145.78
G1 F1800 X125.30 Y145.78 E270.07221
G1 X125.30 Y142.68 E270.18071
G1 X125.44 Y142.72 E270.18567
G1 X125.91 Y142.92 E270.20357
G1 X126.39 Y143.15 E270.22206
G1 X126.87 Y143.40 E270.24099
G1 X127.32 Y143.67 E270.25926
G1 X127.77 Y143.97 E270.27841
G1 X128.19 Y144.27 E270.29635
G1 X128.62 Y144.63 E270.31591
G1 X129.00 Y144.96 E270.33352
G1 X129.38 Y145.34 E270.35221
G1 X129.74 Y145.74 E270.37085
G1 X129.78 Y145.78 E270.37311
G0 F12000 X130.06 Y145.47
G1 F1800 X130.39 Y145.87 E270.39102
G1 X130.65 Y146.21 E270.40584
G1 X124.88 Y146.21 E270.60714
G1 X124.88 Y142.09 E270.75081
G1 X125.56 Y142.32 E270.77606
G1 X126.08 Y142.54 E270.79566
G1 X126.58 Y142.77 E270.81461
G1 X127.07 Y143.03 E270.83433
G1 X127.56 Y143.32 E270.85403
G1 X128.00 Y143.61 E270.87245
G1 X128.46 Y143.95 E270.89243
G1 X128.88 Y144.30 E270.91147
G1 X129.29 Y144.66 E270.93044
G1 X129.68 Y145.05 E270.94963
G1 X130.06 Y145.47 E270.96968
G0 F12000 X133.75 Y149.83
G1 F1800 X182.38 Y147.04 E272.67070
G1 X182.49 Y147.02 E272.67458
G1 X182.77 Y147.01 E272.68426
G1 X183.05 Y147.06 E272.69432
G1 X183.31 Y147.16 E272.70391
G1 X183.55 Y147.32 E272.71399
G1 X183.77 Y147.53 E272.72468
G1 X183.95 Y147.80 E272.73616
G1 X184.09 Y148.12 E272.74805
G1 X184.16 Y148.45 E272.76003
G1 X184.17 Y148.81 E272.77275
G1 X184.11 Y149.16 E272.78499
G1 X183.99 Y149.48 E272.79695
G1 X183.81 Y149.78 E272.80899
G1 X183.60 Y150.01 E272.82014
G1 X183.34 Y150.20 E272.83108
G1 X183.08 Y150.32 E272.84133
G1 X182.80 Y150.38 E272.85124
G1 X182.17 Y150.41 E272.87328
G1 X133.75 Y153.56 E274.56782
G1 X133.75 Y149.83 E274.69830
G0 F12000 X130.69 Y159.05
G1 F1800 X130.34 Y159.52 E274.71858
G1 X129.98 Y159.95 E274.73831
G1 X129.61 Y160.35 E274.75741
G1 X129.21 Y160.75 E274.77707
G1 X128.80 Y161.11 E274.79627
G1 X128.37 Y161.46 E274.81539
G1 X127.92 Y161.78 E274.83490
G1 X127.44 Y162.09 E274.85460
G1 X126.97 Y162.37 E274.87368
G1 X126.49 Y162.62 E274.89283
G1 X125.97 Y162.86 E274.91269
G1 X125.45 Y163.07 E274.93251
G1 X124.94 Y163.25 E274.95143
G1 X124.88 Y163.27 E274.95340
G1 X124.88 Y159.05 E275.10067
G1 X130.69 Y159.05 E275.30361
G0 F12000 X131.01 Y159.34
G1 F1800 X130.66 Y159.79 E275.32345
G1 X130.29 Y160.23 E275.34360
G1 X129.91 Y160.64 E275.36308
G1 X129.49 Y161.05 E275.38367
G1 X129.07 Y161.43 E275.40329
G1 X128.61 Y161.80 E275.42388
G1 X128.15 Y162.13 E275.44384
G1 X127.67 Y162.44 E275.46377
G1 X127.18 Y162.74 E275.48387
G1 X126.66 Y163.01 E275.50418
G1 X126.15 Y163.24 E275.52380
G1 X125.59 Y163.47 E275.54497
G1 X125.06 Y163.66 E275.56460
G1 X124.51 Y163.82 E275.58455
G1 X124.46 Y163.83 E275.58642
G1 X124.46 Y158.63 E275.76788
G1 X131.47 Y158.63 E276.01273
G1 X131.01 Y159.34 E276.04214
G0 F12000 X133.33 Y154.08
G1 F1800 X133.33 Y149.43 E276.20432
G1 X182.32 Y146.63 E277.91787
G1 X182.44 Y146.60 E277.92204
G1 X182.79 Y146.59 E277.93461
G1 X183.16 Y146.65 E277.94761
G1 X183.50 Y146.78 E277.96014
G1 X183.81 Y146.99 E277.97325
G1 X184.09 Y147.26 E277.98695
G1 X184.32 Y147.60 E278.00122
G1 X184.49 Y147.98 E278.01579
G1 X184.58 Y148.40 E278.03084
G1 X184.59 Y148.84 E278.04617
G1 X184.52 Y149.27 E278.06125
