;-- START GCODE --
;Sliced for Type A Machines Series 1
;Sliced at: Wed 10-02-2016 18:51:15
;Basic settings: Layer height: 0.1 Walls: 1 Fill: 100
;Print Speed: 120 Support: 0
;Retraction Speed: 40 Retraction Distance: 1.2
;Print time: #P_TIME#
;Filament used: #F_AMNT#m #F_WGHT#g
;Filament cost: #F_COST#
M106 S255	 ;start with the fan on
G21        ;metric values
G90        ;absolute positioning
M106 S255    ;start with the fan on
G28     ;move to endstops
G29		;allows for auto-levelling
G1 X150 Y5  Z15.0 F6000 ;center and move the platform down 15mm
M109 S220 ;Heat To temp
G92 E0                  ;zero the extruded length
G1 F200 E30              ;extrude 30mm of feed stock
G92 E0                  ;zero the extruded length again
G1 X175 Y25  Z0 F6000 ;remove bugger
G1 X220 F6000 ;remove bugger
G1 X150 Y150  Z15 F6000 ;recenter and begin
G1 F6000

;Layer count: 30
;LAYER:0
M106 S255
G0 F6000 X133.43 Y133.25 Z0.30
;TYPE:SKIRT
G1 F2700 X176.25 Y133.25 E2.67012
G1 X176.25 Y157.68 E4.19333
G1 X176.22 Y166.91 E4.76907
G1 X163.08 Y171.06 E5.62806
G1 X155.66 Y173.41 E6.11370
G1 X153.47 Y171.25 E6.30552
G1 X146.66 Y173.41 E6.75106
G1 X136.14 Y163.03 E7.67276
G1 X136.16 Y162.94 E7.67888
G1 X127.14 Y154.03 E8.46973
G1 X130.67 Y142.34 E9.23160
G1 X133.43 Y133.25 E9.82394
G0 F6000 X133.81 Y133.75
G1 F2700 X175.75 Y133.75 E12.43975
G1 X175.75 Y157.67 E13.93172
G1 X175.72 Y166.54 E14.48463
G1 X162.93 Y170.58 E15.32086
G1 X155.80 Y172.84 E15.78766
G1 X153.61 Y170.68 E15.97949
G1 X146.80 Y172.84 E16.42503
G1 X136.70 Y162.89 E17.30915
G1 X136.73 Y162.79 E17.31535
G1 X127.70 Y153.89 E18.10620
G1 X131.15 Y142.48 E18.84925
G1 X133.81 Y133.75 E19.41847
G0 F6000 X134.18 Y134.25
G1 F2700 X175.25 Y134.25 E21.98002
G1 X175.25 Y157.67 E23.44074
G1 X175.22 Y166.17 E23.97083
G1 X162.79 Y170.10 E24.78353
G1 X155.93 Y172.28 E25.23232
G1 X153.74 Y170.12 E25.42406
G1 X146.93 Y172.28 E25.86964
G1 X137.27 Y162.74 E26.71611
G1 X137.30 Y162.65 E26.72230
G1 X128.27 Y153.74 E27.51316
G1 X131.63 Y142.63 E28.23738
G1 X134.18 Y134.25 E28.78345
G0 F6000 X134.55 Y134.75
G1 F2700 X174.75 Y134.75 E31.29068
G1 X174.75 Y157.67 E32.72016
G1 X174.72 Y165.81 E33.22742
G1 X162.64 Y169.62 E34.01741
G1 X156.07 Y171.71 E34.44743
G1 X153.88 Y169.55 E34.63917
G1 X153.64 Y169.62 E34.65473
G1 X147.07 Y171.71 E35.08475
G1 X137.83 Y162.60 E35.89356
G1 X137.86 Y162.50 E35.89975
G1 X128.83 Y153.60 E36.69061
G1 X132.10 Y142.77 E37.39600
G1 X134.55 Y134.75 E37.91894
G0 F6000 X134.92 Y135.25
G1 F2700 X174.25 Y135.25 E40.37191
G1 X174.25 Y157.67 E41.77015
G1 X174.22 Y165.44 E42.25465
G1 X162.48 Y169.15 E43.02259
G1 X156.21 Y171.14 E43.43307
G1 X154.01 Y168.98 E43.62485
G1 X153.48 Y169.15 E43.65990
G1 X147.21 Y171.14 E44.07037
G1 X138.40 Y162.46 E44.84160
G1 X138.53 Y162.04 E44.86883
G1 X138.21 Y162.14 E44.88984
G1 X129.40 Y153.46 E45.66107
G1 X132.58 Y142.92 E46.34763
G1 X134.92 Y135.25 E46.84741
G0 F6000 X135.29 Y135.75
G1 F2700 X173.75 Y135.75 E49.24607
G1 X173.75 Y157.67 E50.61306
G1 X173.72 Y165.07 E51.07474
G1 X162.33 Y168.67 E51.81986
G1 X156.34 Y170.57 E52.21162
G1 X154.15 Y168.41 E52.40336
G1 X153.33 Y168.67 E52.45718
G1 X147.34 Y170.57 E52.84894
G1 X138.97 Y162.31 E53.58251
G1 X139.28 Y161.27 E53.65012
G1 X138.34 Y161.57 E53.71150
G1 X129.97 Y153.31 E54.44508
G1 X133.06 Y143.06 E55.11280
G1 X135.29 Y135.75 E55.58946
G0 F6000 X135.66 Y136.25
G1 F2700 X173.25 Y136.25 E57.93386
G1 X173.25 Y157.67 E59.26961
G1 X173.22 Y164.71 E59.70846
G1 X162.18 Y168.20 E60.43088
G1 X156.48 Y170.00 E60.80386
G1 X154.29 Y167.84 E60.99560
G1 X153.18 Y168.20 E61.06820
G1 X147.48 Y170.00 E61.44118
G1 X139.53 Y162.17 E62.13714
G1 X140.03 Y160.51 E62.24502
G1 X138.48 Y161.00 E62.34675
G1 X130.53 Y153.17 E63.04271
G1 X133.54 Y143.21 E63.69155
G1 X135.66 Y136.25 E64.14505
G0 F6000 X136.03 Y136.75
G1 F2700 X172.75 Y136.75 E66.43513
G1 X172.75 Y157.67 E67.73964
G1 X172.72 Y164.34 E68.15566
G1 X162.04 Y167.72 E68.85473
G1 X162.04 Y167.72 E68.85480
G1 X156.61 Y169.44 E69.20951
G1 X154.43 Y167.28 E69.40125
G1 X153.04 Y167.72 E69.49210
G1 X153.04 Y167.72 E69.49216
G1 X147.61 Y169.44 E69.84688
G1 X140.10 Y162.02 E70.50522
G1 X140.78 Y159.75 E70.65342
G1 X138.61 Y160.44 E70.79545
G1 X131.10 Y153.02 E71.45379
G1 X134.02 Y143.35 E72.08379
G1 X136.03 Y136.75 E72.51417
G0 F6000 X136.40 Y137.25
G1 F2700 X172.25 Y137.25 E74.75000
G1 X172.25 Y157.67 E76.02326
G1 X172.23 Y163.97 E76.41646
G1 X161.88 Y167.24 E77.09332
G1 X156.75 Y168.87 E77.42873
G1 X154.56 Y166.71 E77.62038
G1 X152.88 Y167.24 E77.73059
G1 X147.75 Y168.87 E78.06600
G1 X140.66 Y161.88 E78.68673
G1 X141.54 Y158.98 E78.87532
G1 X138.75 Y159.87 E79.05766
G1 X131.66 Y152.88 E79.67838
G1 X134.50 Y143.50 E80.28958
G1 X136.40 Y137.25 E80.69680
G0 F6000 X136.77 Y137.75
G1 F2700 X171.75 Y137.75 E82.87831
G1 X171.75 Y157.67 E84.12033
G1 X171.73 Y163.61 E84.49076
G1 X161.73 Y166.77 E85.14491
G1 X156.89 Y168.30 E85.46156
G1 X154.70 Y166.14 E85.65321
G1 X152.73 Y166.77 E85.78218
G1 X147.89 Y168.30 E86.09883
G1 X141.23 Y161.74 E86.68194
G1 X142.29 Y158.22 E86.91085
G1 X138.89 Y159.30 E87.13357
G1 X132.23 Y152.74 E87.71668
G1 X134.97 Y143.64 E88.30903
G1 X136.77 Y137.75 E88.69313
G0 F6000 X137.14 Y138.25
G1 F2700 X171.25 Y138.25 E90.82039
G1 X171.25 Y157.67 E92.03122
G1 X171.23 Y163.24 E92.37877
G1 X161.58 Y166.29 E93.00964
G1 X157.02 Y167.73 E93.30797
G1 X154.84 Y165.57 E93.49962
G1 X152.58 Y166.29 E93.64691
G1 X148.02 Y167.73 E93.94524
G1 X141.79 Y161.59 E94.49074
G1 X143.04 Y157.46 E94.75998
G1 X139.02 Y158.73 E95.02298
G1 X132.79 Y152.59 E95.56848
G1 X135.45 Y143.79 E96.14201
G1 X137.14 Y138.25 E96.50295
G0 F6000 X137.51 Y138.75
G1 F2700 X170.75 Y138.75 E98.57589
G1 X170.75 Y157.66 E99.75548
G1 X170.73 Y162.87 E100.08021
G1 X161.43 Y165.81 E100.68837
G1 X157.16 Y167.16 E100.96793
G1 X154.97 Y165.01 E101.15949
G1 X152.43 Y165.81 E101.32560
G1 X148.16 Y167.16 E101.60515
G1 X142.36 Y161.45 E102.11303
G1 X143.80 Y156.69 E102.42253
G1 X143.42 Y156.81 E102.44693
G1 X139.16 Y158.16 E102.72589
G1 X133.36 Y152.45 E103.23377
G1 X135.93 Y143.93 E103.78835
G1 X137.51 Y138.75 E104.12622
G0 F6000 X137.88 Y139.25
G1 F2700 X170.25 Y139.25 E106.14491
G1 X170.25 Y157.66 E107.29325
G1 X170.23 Y162.50 E107.59515
G1 X161.27 Y165.34 E108.18103
G1 X157.29 Y166.60 E108.44134
G1 X155.11 Y164.44 E108.63290
G1 X152.27 Y165.34 E108.81826
G1 X148.29 Y166.60 E109.07856
G1 X142.93 Y161.30 E109.54878
G1 X144.55 Y155.93 E109.89849
G1 X143.28 Y156.33 E109.98147
G1 X139.29 Y157.60 E110.24217
G1 X133.93 Y152.30 E110.71239
G1 X136.41 Y144.08 E111.24814
G1 X137.88 Y139.25 E111.56286
G0 F6000 X138.25 Y139.75
G1 F2700 X169.75 Y139.75 E113.52722
G1 X169.75 Y157.66 E114.64433
G1 X169.73 Y162.14 E114.92340
G1 X161.12 Y164.86 E115.48652
G1 X157.43 Y166.03 E115.72801
G1 X155.25 Y163.87 E115.91962
G1 X152.12 Y164.86 E116.12381
G1 X148.43 Y166.03 E116.36530
G1 X143.49 Y161.16 E116.79794
G1 X145.30 Y155.17 E117.18790
G1 X143.13 Y155.86 E117.32993
G1 X139.43 Y157.03 E117.57181
G1 X134.49 Y152.16 E118.00446
G1 X136.89 Y144.22 E118.52138
G1 X138.25 Y139.75 E118.81297
G0 F6000 X138.62 Y140.25
G1 F2700 X169.25 Y140.25 E120.72308
G1 X169.25 Y148.66 E121.24774
G1 X169.25 Y149.25 E121.28434
G1 X169.25 Y149.25 E121.28447
G1 X169.25 Y157.66 E121.80906
G1 X169.24 Y161.77 E122.06538
G1 X160.97 Y164.38 E122.60572
G1 X157.57 Y165.46 E122.82849
G1 X155.38 Y163.31 E123.02000
G1 X151.97 Y164.38 E123.24296
G1 X148.57 Y165.46 E123.46573
G1 X144.06 Y161.01 E123.86071
G1 X146.05 Y154.41 E124.29100
G1 X142.98 Y155.38 E124.49216
G1 X139.57 Y156.46 E124.71526
G1 X135.06 Y152.01 E125.11025
G1 X137.37 Y144.37 E125.60834
G1 X138.62 Y140.25 E125.87678
G0 F6000 X138.99 Y140.75
G1 F2700 X168.75 Y140.75 E127.73257
G1 X168.75 Y148.66 E128.22598
G1 X168.75 Y149.75 E128.29383
G1 X168.75 Y149.75 E128.29408
G1 X168.75 Y157.66 E128.78744
G1 X168.74 Y161.41 E129.02092
G1 X160.83 Y163.90 E129.53817
G1 X160.83 Y163.90 E129.53823
G1 X157.71 Y164.89 E129.74248
G1 X155.52 Y162.74 E129.93404
G1 X151.83 Y163.90 E130.17544
G1 X151.83 Y163.90 E130.17550
G1 X148.71 Y164.89 E130.37975
G1 X144.62 Y160.87 E130.73717
G1 X146.72 Y153.94 E131.18894
G1 X146.52 Y153.74 E131.20640
G1 X142.82 Y154.91 E131.44825
G1 X139.71 Y155.89 E131.65210
G1 X135.62 Y151.87 E132.00952
G1 X137.85 Y144.51 E132.48879
G1 X138.99 Y140.75 E132.73410
G0 F6000 X139.36 Y141.25
G1 F2700 X168.25 Y141.25 E134.53564
G1 X168.25 Y148.66 E134.99781
G1 X168.24 Y150.25 E135.09690
G1 X168.25 Y150.25 E135.09728
G1 X168.25 Y157.66 E135.55939
G1 X168.24 Y161.04 E135.77005
G1 X160.67 Y163.43 E136.26489
G1 X157.84 Y164.33 E136.45003
G1 X155.66 Y162.17 E136.64150
G1 X151.67 Y163.43 E136.90206
G1 X148.84 Y164.33 E137.08720
G1 X145.19 Y160.73 E137.40696
G1 X147.28 Y153.79 E137.85875
G1 X146.66 Y153.17 E137.91387
G1 X142.67 Y154.43 E138.17448
G1 X139.84 Y155.33 E138.35956
G1 X136.19 Y151.73 E138.67931
G1 X138.32 Y144.66 E139.13976
G1 X139.36 Y141.25 E139.36192
G0 F6000 X139.73 Y141.75
G1 F2700 X167.75 Y141.75 E141.10920
G1 X167.75 Y148.66 E141.54012
G1 X167.74 Y150.75 E141.67046
G1 X167.75 Y150.75 E141.67096
G1 X167.75 Y157.66 E142.10183
G1 X167.74 Y160.67 E142.28966
G1 X160.53 Y162.95 E142.76148
G1 X157.98 Y163.76 E142.92816
G1 X155.79 Y161.60 E143.11955
G1 X151.53 Y162.95 E143.39861
G1 X148.98 Y163.76 E143.56529
G1 X145.76 Y160.58 E143.84743
G1 X147.80 Y153.80 E144.28898
G1 X147.85 Y153.65 E144.29914
G1 X146.79 Y152.60 E144.39184
G1 X142.53 Y153.95 E144.67088
G1 X142.53 Y153.95 E144.67095
G1 X139.98 Y154.76 E144.83763
G1 X136.76 Y151.58 E145.11977
G1 X138.80 Y144.80 E145.56132
G1 X139.73 Y141.75 E145.76033
G0 F6000 X140.10 Y142.25
G1 F2700 X167.25 Y142.25 E147.45329
G1 X167.25 Y148.66 E147.85297
G1 X167.24 Y151.25 E148.01456
G1 X167.25 Y151.25 E148.01518
G1 X167.25 Y157.66 E148.41480
G1 X167.24 Y160.30 E148.57982
G1 X160.37 Y162.47 E149.02913
G1 X158.11 Y163.19 E149.17674
G1 X155.93 Y161.03 E149.36821
G1 X151.37 Y162.47 E149.66631
G1 X149.11 Y163.19 E149.81391
G1 X146.32 Y160.44 E150.05848
G1 X148.28 Y153.95 E150.48121
G1 X148.42 Y153.50 E150.51015
G1 X146.93 Y152.04 E150.64051
G1 X142.37 Y153.47 E150.93845
G1 X140.11 Y154.19 E151.08625
G1 X137.32 Y151.44 E151.33082
G1 X139.28 Y144.95 E151.75355
G1 X140.10 Y142.25 E151.92942
G0 F6000 X140.47 Y142.75
G1 F2700 X148.75 Y142.75 E152.44560
G1 X148.75 Y145.13 E152.59377
G1 X148.76 Y145.09 E152.59592
G1 X149.47 Y142.75 E152.74865
G1 X157.75 Y142.75 E153.26483
G1 X157.75 Y145.13 E153.41307
G1 X158.47 Y142.75 E153.56792
G1 X166.75 Y142.75 E154.08441
G1 X166.75 Y148.66 E154.45284
G1 X166.74 Y150.94 E154.59510
G1 X164.17 Y151.75 E154.76310
G1 X166.75 Y151.75 E154.92387
G1 X166.75 Y157.66 E155.29225
G1 X166.74 Y159.94 E155.43443
G1 X160.22 Y162.00 E155.86093
G1 X158.25 Y162.62 E155.98982
G1 X156.06 Y160.47 E156.18129
G1 X151.22 Y162.00 E156.49811
G1 X149.25 Y162.62 E156.62700
G1 X146.89 Y160.29 E156.83391
G1 X148.76 Y154.09 E157.23780
G1 X148.98 Y153.36 E157.28558
G1 X147.07 Y151.47 E157.45355
G1 X142.22 Y153.00 E157.77052
G1 X140.25 Y153.62 E157.89935
G1 X137.89 Y151.29 E158.10626
G1 X139.76 Y145.09 E158.51015
G1 X140.47 Y142.75 E158.66288
G0 F6000 X140.84 Y143.25
G1 F2700 X148.25 Y143.25 E159.12474
G1 X148.25 Y148.51 E159.45295
G1 X149.24 Y145.24 E159.66630
G1 X149.84 Y143.25 E159.79589
G1 X157.25 Y143.25 E160.25775
G1 X157.25 Y148.51 E160.58596
G1 X158.84 Y143.25 E160.92881
G1 X166.25 Y143.25 E161.39098
G1 X166.25 Y148.66 E161.72818
G1 X166.24 Y150.57 E161.84760
G1 X160.93 Y152.25 E162.19513
G1 X166.25 Y152.25 E162.52696
G1 X166.25 Y157.66 E162.86409
G1 X166.24 Y159.57 E162.98352
G1 X160.07 Y161.52 E163.38716
G1 X160.07 Y161.52 E163.38722
G1 X158.39 Y162.06 E163.49745
G1 X156.45 Y160.15 E163.66670
G1 X156.56 Y159.78 E163.69041
G1 X151.07 Y161.52 E164.04965
G1 X151.07 Y161.52 E164.04972
G1 X149.39 Y162.06 E164.15995
G1 X147.45 Y160.15 E164.32920
G1 X149.24 Y154.24 E164.71426
G1 X149.62 Y152.98 E164.79627
G1 X149.39 Y153.06 E164.81172
G1 X147.45 Y151.15 E164.98096
G1 X147.56 Y150.79 E165.00454
G1 X142.07 Y152.52 E165.36390
G1 X140.39 Y153.06 E165.47393
G1 X138.45 Y151.15 E165.64318
G1 X140.24 Y145.24 E166.02825
G1 X140.84 Y143.25 E166.15784
G0 F6000 X141.21 Y143.75
G1 F2700 X147.75 Y143.75 E166.56544
G1 X147.75 Y150.20 E166.96793
G1 X141.92 Y152.04 E167.34932
G1 X140.52 Y152.49 E167.44058
G1 X139.02 Y151.00 E167.57222
G1 X140.72 Y145.38 E167.93844
G1 X141.21 Y143.75 E168.04489
G0 F6000 X141.59 Y144.25
G1 F2700 X147.25 Y144.25 E168.39818
G1 X147.25 Y149.84 E168.74660
G1 X141.77 Y151.57 E169.10503
G1 X141.77 Y151.57 E169.10509
G1 X140.66 Y151.92 E169.17770
G1 X139.59 Y150.86 E169.27176
G1 X141.20 Y145.53 E169.61912
G1 X141.59 Y144.25 E169.70243
G0 F6000 X141.96 Y144.75
G1 F2700 X146.75 Y144.75 E170.00146
G1 X146.75 Y149.47 E170.29588
G1 X140.79 Y151.35 E170.68531
G1 X140.15 Y150.72 E170.74171
G1 X141.67 Y145.67 E171.07024
G1 X141.96 Y144.75 E171.13041
G0 F6000 X142.32 Y145.25
G1 F2700 X146.25 Y145.25 E171.37518
G1 X146.25 Y149.10 E171.61553
G1 X140.93 Y150.78 E171.96333
G1 X140.72 Y150.57 E171.98216
G1 X142.32 Y145.25 E172.32887
G0 F6000 X149.72 Y145.38
G1 F2700 X150.21 Y143.75 E172.43532
G1 X156.75 Y143.75 E172.84292
G1 X156.75 Y148.66 E173.14888
G1 X156.74 Y150.21 E173.24548
G1 X150.92 Y152.04 E173.62649
G1 X149.52 Y152.49 E173.71775
G1 X148.02 Y151.00 E173.84938
G1 X149.72 Y145.38 E174.21561
G0 F6000 X150.20 Y145.53
G1 F2700 X150.59 Y144.25 E174.29892
G1 X156.25 Y144.25 E174.65221
G1 X156.25 Y148.66 E174.92691
G1 X156.25 Y149.84 E175.00069
G1 X150.77 Y151.57 E175.35887
G1 X150.77 Y151.57 E175.35893
G1 X149.66 Y151.92 E175.43153
G1 X148.59 Y150.86 E175.52559
G1 X150.20 Y145.53 E175.87295
G0 F6000 X150.67 Y145.67
G1 F2700 X150.96 Y144.75 E175.93312
G1 X155.75 Y144.75 E176.23215
G1 X155.75 Y148.65 E176.47562
G1 X155.75 Y149.47 E176.52657
G1 X149.79 Y151.35 E176.91583
G1 X149.15 Y150.72 E176.97223
G1 X150.67 Y145.67 E177.30075
G0 F6000 X151.32 Y145.25
G1 F2700 X155.25 Y145.25 E177.54553
G1 X155.25 Y149.10 E177.78587
G1 X149.93 Y150.78 E178.13361
G1 X149.72 Y150.57 E178.15244
G1 X151.32 Y145.25 E178.49916
G0 F6000 X150.21 Y152.75
G1 F2700 X156.75 Y152.75 E178.90676
G1 X156.75 Y157.66 E179.21265
G1 X156.74 Y159.20 E179.30925
G1 X150.92 Y161.04 E179.69028
G1 X149.52 Y161.49 E179.78154
G1 X148.02 Y160.00 E179.91317
G1 X149.72 Y154.38 E180.27940
G1 X150.21 Y152.75 E180.38585
G0 F6000 X150.59 Y153.25
G1 F2700 X156.25 Y153.25 E180.73914
G1 X156.25 Y157.65 E181.01378
G1 X156.25 Y158.84 E181.08756
G1 X150.77 Y160.57 E181.44577
G1 X149.66 Y160.92 E181.51837
G1 X148.59 Y159.86 E181.61244
G1 X150.20 Y154.53 E181.95980
G1 X150.59 Y153.25 E182.04311
G0 F6000 X150.96 Y153.75
G1 F2700 X155.75 Y153.75 E182.34214
G1 X155.75 Y157.65 E182.58554
G1 X155.75 Y158.47 E182.63649
G1 X149.79 Y160.35 E183.02577
G1 X149.15 Y159.72 E183.08217
G1 X150.67 Y154.67 E183.41069
G1 X150.96 Y153.75 E183.47086
G0 F6000 X151.32 Y154.25
G1 F2700 X155.25 Y154.25 E183.71564
G1 X155.25 Y158.10 E183.95592
G1 X149.93 Y159.78 E184.30368
G1 X149.72 Y159.57 E184.32251
G1 X151.32 Y154.25 E184.66922
G0 F6000 X159.21 Y152.75
G1 F2700 X165.75 Y152.75 E185.07708
G1 X165.75 Y157.66 E185.38297
G1 X165.74 Y159.20 E185.47957
G1 X159.92 Y161.04 E185.86060
G1 X158.52 Y161.49 E185.95186
G1 X157.02 Y160.00 E186.08349
G1 X159.21 Y152.75 E186.55610
G0 F6000 X159.58 Y153.25
G1 F2700 X165.25 Y153.25 E186.90957
G1 X165.25 Y157.65 E187.18422
G1 X165.25 Y158.84 E187.25799
G1 X159.77 Y160.57 E187.61620
G1 X158.66 Y160.92 E187.68881
G1 X157.59 Y159.86 E187.78287
G1 X159.58 Y153.25 E188.21349
G0 F6000 X159.95 Y153.75
G1 F2700 X164.75 Y153.75 E188.51264
G1 X164.75 Y157.65 E188.75604
G1 X164.75 Y158.47 E188.80699
G1 X158.79 Y160.35 E189.19627
G1 X158.15 Y159.72 E189.25267
G1 X159.95 Y153.75 E189.64133
G0 F6000 X160.32 Y154.25
G1 F2700 X164.25 Y154.25 E189.88617
G1 X164.25 Y158.10 E190.12645
G1 X158.93 Y159.78 E190.47421
G1 X158.72 Y159.57 E190.49304
G1 X160.32 Y154.25 E190.83973
G0 F6000 X158.93 Y150.78
G1 F2700 X158.72 Y150.57 E190.85856
G1 X160.32 Y145.25 E191.20526
G1 X164.25 Y145.25 E191.45010
G1 X164.25 Y149.10 E191.69044
G1 X158.93 Y150.78 E192.03818
G0 F6000 X158.79 Y151.35
G1 F2700 X158.15 Y150.72 E192.09458
G1 X159.95 Y144.75 E192.48324
G1 X164.75 Y144.75 E192.78240
G1 X164.75 Y148.65 E193.02586
G1 X164.75 Y149.47 E193.07681
G1 X158.79 Y151.35 E193.46607
G0 F6000 X158.66 Y151.92
G1 F2700 X157.59 Y150.86 E193.56013
G1 X159.58 Y144.25 E193.99075
G1 X165.25 Y144.25 E194.34422
G1 X165.25 Y148.66 E194.61893
G1 X165.25 Y149.84 E194.69271
G1 X159.77 Y151.57 E195.05088
G1 X159.77 Y151.57 E195.05095
G1 X158.66 Y151.92 E195.12355
G0 F6000 X158.52 Y152.49
G1 F2700 X157.02 Y151.00 E195.25518
G1 X159.21 Y143.75 E195.72778
G1 X165.75 Y143.75 E196.13564
G1 X165.75 Y148.66 E196.44159
G1 X165.74 Y150.21 E196.53819
G1 X159.92 Y152.04 E196.91920
G1 X158.52 Y152.49 E197.01046
G0 F6000 X145.25 Y148.37
;TYPE:WALL-INNER
G1 F2700 X142.13 Y149.36 E197.21458
G1 X143.07 Y146.25 E197.41698
G1 X145.25 Y146.25 E197.55312
G1 X145.25 Y148.37 E197.68539
G0 F6000 X145.75 Y148.74
;TYPE:WALL-OUTER
G1 F2700 X141.38 Y150.12 E197.97145
G1 X142.70 Y145.75 E198.25614
G1 X145.75 Y145.75 E198.44660
G1 X145.75 Y148.74 E198.63294
G0 F6000 X145.06 Y148.25
;TYPE:FILL
G1 F2700 X143.24 Y146.42 E198.79354
G0 F6000 X143.04 Y146.93
G1 F2700 X144.53 Y148.41 E198.92442
G0 F6000 X143.99 Y148.59
G1 F2700 X142.88 Y147.47 E199.02236
G0 F6000 X142.71 Y148.02
G1 F2700 X143.45 Y148.75 E199.08736
G0 F6000 X142.91 Y148.92
G1 F2700 X142.55 Y148.56 E199.11937
G0 F6000 X143.95 Y146.42
G1 F2700 X145.07 Y147.55 E199.21859
G0 F6000 X145.07 Y146.84
G1 F2700 X144.66 Y146.42 E199.25545
G0 F6000 X151.13 Y149.36
;TYPE:WALL-INNER
G1 F2700 X152.07 Y146.25 E199.45785
G1 X154.25 Y146.25 E199.59399
G1 X154.25 Y148.37 E199.72626
G1 X151.13 Y149.36 E199.93038
G0 F6000 X150.38 Y150.12
;TYPE:WALL-OUTER
G1 F2700 X151.70 Y145.75 E200.21507
G1 X154.75 Y145.75 E200.40552
G1 X154.75 Y148.74 E200.59186
G1 X150.38 Y150.12 E200.87787
G0 F6000 X151.52 Y149.05
;TYPE:FILL
G1 F2700 X151.51 Y148.68 E200.88595
G1 X152.06 Y148.88 E200.92223
G0 F6000 X152.60 Y148.71
G1 F2700 X151.76 Y147.87 E200.99622
G0 F6000 X151.92 Y147.33
G1 F2700 X153.13 Y148.54 E201.10320
G0 F6000 X153.67 Y148.37
G1 F2700 X152.09 Y146.78 E201.24316
G0 F6000 X152.44 Y146.42
G1 F2700 X154.07 Y148.06 E201.38772
G0 F6000 X154.07 Y147.36
G1 F2700 X153.14 Y146.42 E201.46991
G0 F6000 X153.85 Y146.42
G1 F2700 X154.07 Y146.65 E201.48976
G0 F6000 X160.13 Y149.36
;TYPE:WALL-INNER
G1 F2700 X161.07 Y146.25 E201.69215
G1 X163.25 Y146.25 E201.82829
G1 X163.25 Y148.37 E201.96056
G1 X160.13 Y149.36 E202.16468
G0 F6000 X159.38 Y150.12
;TYPE:WALL-OUTER
G1 F2700 X160.69 Y145.75 E202.44935
G1 X163.75 Y145.75 E202.63987
G1 X163.75 Y148.74 E202.82621
G1 X159.38 Y150.12 E203.11221
G0 F6000 X160.67 Y149.00
;TYPE:FILL
G1 F2700 X160.56 Y148.54 E203.12916
G1 X161.21 Y148.83 E203.17361
G0 F6000 X161.74 Y148.66
G1 F2700 X160.80 Y147.72 E203.25656
G0 F6000 X160.97 Y147.18
G1 F2700 X162.28 Y148.49 E203.37249
G0 F6000 X162.82 Y148.32
G1 F2700 X161.13 Y146.63 E203.52136
G0 F6000 X161.63 Y146.42
G1 F2700 X163.07 Y147.87 E203.64898
G0 F6000 X163.07 Y147.16
G1 F2700 X162.33 Y146.42 E203.71425
G0 F6000 X163.25 Y155.25
;TYPE:WALL-INNER
G1 F2700 X163.25 Y157.37 E203.84645
G1 X160.13 Y158.36 E204.05059
G1 X161.07 Y155.25 E204.25299
G1 X163.25 Y155.25 E204.38913
G0 F6000 X163.75 Y154.75
;TYPE:WALL-OUTER
G1 F2700 X163.75 Y157.74 E204.57540
G1 X159.38 Y159.12 E204.86143
G1 X160.69 Y154.75 E205.14610
G1 X163.75 Y154.75 E205.33662
G0 F6000 X163.07 Y155.65
;TYPE:FILL
G1 F2700 X162.85 Y155.42 E205.35646
G0 F6000 X162.14 Y155.42
G1 F2700 X163.07 Y156.36 E205.43866
G0 F6000 X163.07 Y157.06
G1 F2700 X161.44 Y155.42 E205.58321
G0 F6000 X161.09 Y155.78
G1 F2700 X162.67 Y157.37 E205.72304
G0 F6000 X162.13 Y157.54
G1 F2700 X160.92 Y156.33 E205.82993
G0 F6000 X160.76 Y156.87
G1 F2700 X161.60 Y157.71 E205.90392
G0 F6000 X161.06 Y157.88
G1 F2700 X160.51 Y157.68 E205.94490
G1 X160.52 Y158.05 E205.96761
G0 F6000 X154.25 Y157.37
;TYPE:WALL-INNER
G1 F2700 X151.13 Y158.36 E206.17174
G1 X152.07 Y155.25 E206.37414
G1 X154.25 Y155.25 E206.51028
G1 X154.25 Y157.37 E206.64249
G0 F6000 X154.75 Y157.74
;TYPE:WALL-OUTER
G1 F2700 X150.38 Y159.12 E206.92851
G1 X151.70 Y154.75 E207.21320
G1 X154.75 Y154.75 E207.40365
G1 X154.75 Y157.74 E207.58993
G0 F6000 X154.06 Y157.24
;TYPE:FILL
G1 F2700 X152.24 Y155.42 E207.75049
G0 F6000 X152.04 Y155.93
G1 F2700 X153.53 Y157.41 E207.88128
G0 F6000 X152.99 Y157.58
G1 F2700 X151.88 Y156.47 E207.97918
G0 F6000 X151.71 Y157.02
G1 F2700 X152.45 Y157.75 E208.04413
G0 F6000 X151.91 Y157.92
G1 F2700 X151.55 Y157.56 E208.07619
G0 F6000 X152.95 Y155.42
G1 F2700 X154.07 Y156.55 E208.17545
G0 F6000 X154.07 Y155.84
G1 F2700 X153.66 Y155.42 E208.21236
;LAYER:1
G0 F6000 X154.25 Y155.25 Z0.40
;TYPE:WALL-INNER
G1 F660 X154.25 Y157.37 E208.25643
G1 X151.13 Y158.36 E208.32448
G1 X152.07 Y155.25 E208.39195
G1 X154.25 Y155.25 E208.43731
G0 F6000 X154.75 Y154.75
;TYPE:WALL-OUTER
G1 F660 X154.75 Y157.74 E208.49940
G1 X150.38 Y159.12 E208.59474
G1 X151.70 Y154.75 E208.68964
G1 X154.75 Y154.75 E208.75312
G0 F6000 X153.94 Y155.42
;TYPE:FILL
G1 F660 X151.44 Y157.91 E208.82631
G0 F6000 X152.25 Y157.82
G1 F660 X154.07 Y155.99 E208.88005
G0 F6000 X154.07 Y156.70
G1 F660 X153.28 Y157.49 E208.90341
G0 F6000 X151.75 Y156.90
G1 F660 X153.23 Y155.42 E208.94680
G0 F6000 X152.52 Y155.42
G1 F660 X152.06 Y155.89 E208.96044
G0 F6000 X160.13 Y158.36
;TYPE:WALL-INNER
G1 F660 X161.06 Y155.26 E209.02758
G1 X161.07 Y155.25 E209.02790
G1 X163.25 Y155.25 E209.07328
G1 X163.25 Y157.37 E209.11735
G1 X160.13 Y158.36 E209.18540
G0 F6000 X159.38 Y159.12
;TYPE:WALL-OUTER
G1 F660 X160.69 Y154.75 E209.28029
G1 X163.75 Y154.75 E209.34379
G1 X163.75 Y157.74 E209.40589
G1 X159.38 Y159.12 E209.50123
G0 F6000 X160.49 Y158.06
;TYPE:FILL
G1 F660 X163.07 Y155.48 E209.57713
G0 F6000 X162.42 Y155.42
G1 F660 X160.67 Y157.18 E209.62865
G0 F6000 X161.53 Y157.73
G1 F660 X163.07 Y156.18 E209.67416
G0 F6000 X163.07 Y156.89
G1 F660 X162.56 Y157.40 E209.68924
G0 F6000 X160.97 Y156.16
G1 F660 X161.71 Y155.42 E209.71101
G0 F6000 X160.13 Y149.36
;TYPE:WALL-INNER
G1 F660 X161.06 Y146.26 E209.77816
G1 X161.07 Y146.25 E209.77849
G1 X163.25 Y146.25 E209.82386
G1 X163.25 Y148.37 E209.86796
G1 X160.13 Y149.36 E209.93601
G0 F6000 X159.38 Y150.12
;TYPE:WALL-OUTER
G1 F660 X160.69 Y145.75 E210.03090
G1 X163.75 Y145.75 E210.09441
G1 X163.75 Y148.74 E210.15652
G1 X159.38 Y150.12 E210.25186
G0 F6000 X160.44 Y148.91
;TYPE:FILL
G1 F660 X162.93 Y146.42 E210.32509
G0 F6000 X163.07 Y146.99
G1 F660 X161.24 Y148.82 E210.37889
G0 F6000 X160.75 Y147.90
G1 F660 X162.23 Y146.42 E210.42234
G0 F6000 X161.52 Y146.42
G1 F660 X161.05 Y146.89 E210.43604
G0 F6000 X162.28 Y148.50
G1 F660 X163.07 Y147.70 E210.45944
G0 F6000 X154.25 Y148.37
;TYPE:WALL-INNER
G1 F660 X151.13 Y149.36 E210.52748
G1 X152.07 Y146.25 E210.59495
G1 X154.25 Y146.25 E210.64031
G1 X154.25 Y148.37 E210.68440
G0 F6000 X154.75 Y148.74
;TYPE:WALL-OUTER
G1 F660 X150.38 Y150.12 E210.77973
G1 X151.70 Y145.75 E210.87463
G1 X154.75 Y145.75 E210.93811
G1 X154.75 Y148.74 E211.00023
G0 F6000 X154.07 Y147.51
;TYPE:FILL
G1 F660 X153.00 Y148.58 E211.03192
G0 F6000 X151.96 Y148.91
G1 F660 X154.07 Y146.80 E211.09401
G0 F6000 X153.74 Y146.42
G1 F660 X151.53 Y148.64 E211.15908
G0 F6000 X151.83 Y147.62
G1 F660 X153.03 Y146.42 E211.19437
G0 F6000 X152.33 Y146.42
G1 F660 X152.14 Y146.61 E211.19990
G0 F6000 X145.25 Y146.25
;TYPE:WALL-INNER
G1 F660 X145.25 Y148.37 E211.24399
G1 X142.13 Y149.36 E211.31203
G1 X143.07 Y146.25 E211.37950
G1 X145.25 Y146.25 E211.42486
G0 F6000 X145.75 Y145.75
;TYPE:WALL-OUTER
G1 F660 X145.75 Y148.74 E211.48697
G1 X141.38 Y150.12 E211.58233
G1 X142.70 Y145.75 E211.67722
G1 X145.75 Y145.75 E211.74071
G0 F6000 X145.07 Y146.61
;TYPE:FILL
G1 F660 X142.68 Y149.00 E211.81104
G0 F6000 X142.61 Y148.36
G1 F660 X144.55 Y146.42 E211.86802
G0 F6000 X143.84 Y146.42
G1 F660 X142.92 Y147.35 E211.89523
G0 F6000 X143.72 Y148.67
G1 F660 X145.07 Y147.31 E211.93518
G0 F6000 X145.07 Y148.02
G1 F660 X144.75 Y148.35 E211.94475
;LAYER:2
G0 F6000 X145.25 Y148.37 Z0.50
;TYPE:WALL-INNER
G1 F720 X142.13 Y149.36 E212.01279
G1 X143.07 Y146.25 E212.08026
G1 X145.25 Y146.25 E212.12562
G1 X145.25 Y148.37 E212.16971
G0 F6000 X145.75 Y148.74
;TYPE:WALL-OUTER
G1 F720 X141.38 Y150.12 E212.26506
G1 X142.70 Y145.75 E212.35996
G1 X145.75 Y145.75 E212.42344
G1 X145.75 Y148.74 E212.48556
G0 F6000 X145.06 Y148.25
;TYPE:FILL
G1 F720 X143.24 Y146.42 E212.53909
G0 F6000 X143.04 Y146.93
G1 F720 X144.53 Y148.41 E212.58272
G0 F6000 X143.99 Y148.59
G1 F720 X142.88 Y147.47 E212.61535
G0 F6000 X142.72 Y148.02
G1 F720 X143.45 Y148.75 E212.63701
G0 F6000 X142.91 Y148.93
G1 F720 X142.55 Y148.56 E212.64770
G0 F6000 X143.95 Y146.42
G1 F720 X145.07 Y147.55 E212.68077
G0 F6000 X145.07 Y146.84
G1 F720 X144.66 Y146.42 E212.69306
G0 F6000 X151.13 Y149.36
;TYPE:WALL-INNER
G1 F720 X152.07 Y146.25 E212.76053
G1 X154.25 Y146.25 E212.80589
G1 X154.25 Y148.37 E212.84998
G1 X151.13 Y149.36 E212.91802
G0 F6000 X150.38 Y150.12
;TYPE:WALL-OUTER
G1 F720 X151.70 Y145.75 E213.01292
G1 X154.75 Y145.75 E213.07640
G1 X154.75 Y148.74 E213.13852
G1 X150.38 Y150.12 E213.23385
G0 F6000 X151.52 Y149.05
;TYPE:FILL
G1 F720 X151.51 Y148.68 E213.23655
G1 X152.06 Y148.88 E213.24864
G0 F6000 X152.60 Y148.71
G1 F720 X151.76 Y147.87 E213.27330
G0 F6000 X151.92 Y147.33
G1 F720 X153.13 Y148.54 E213.30893
G0 F6000 X153.67 Y148.37
G1 F720 X152.09 Y146.78 E213.35556
G0 F6000 X152.44 Y146.42
G1 F720 X154.07 Y148.06 E213.40374
G0 F6000 X154.07 Y147.36
G1 F720 X153.14 Y146.42 E213.43114
G0 F6000 X153.85 Y146.42
G1 F720 X154.07 Y146.65 E213.43776
G0 F6000 X154.25 Y155.25
;TYPE:WALL-INNER
G1 F720 X154.25 Y157.37 E213.48183
G1 X151.13 Y158.36 E213.54987
G1 X152.07 Y155.25 E213.61734
G1 X154.25 Y155.25 E213.66270
G0 F6000 X154.75 Y154.75
;TYPE:WALL-OUTER
G1 F720 X154.75 Y157.74 E213.72479
G1 X150.38 Y159.12 E213.82014
G1 X151.70 Y154.75 E213.91503
G1 X154.75 Y154.75 E213.97852
G0 F6000 X154.07 Y155.84
;TYPE:FILL
G1 F720 X153.66 Y155.42 E213.99082
G0 F6000 X152.95 Y155.42
G1 F720 X154.07 Y156.55 E214.02391
G0 F6000 X154.06 Y157.24
G1 F720 X152.24 Y155.42 E214.07743
G0 F6000 X152.04 Y155.93
G1 F720 X153.53 Y157.41 E214.12102
G0 F6000 X152.99 Y157.58
G1 F720 X151.88 Y156.47 E214.15366
G0 F6000 X151.71 Y157.02
G1 F720 X152.45 Y157.75 E214.17529
G0 F6000 X151.91 Y157.92
G1 F720 X151.55 Y157.56 E214.18593
G0 F6000 X160.13 Y149.36
;TYPE:WALL-INNER
G1 F720 X161.07 Y146.25 E214.25340
G1 X163.25 Y146.25 E214.29878
G1 X163.25 Y148.37 E214.34287
G1 X160.13 Y149.36 E214.41091
G0 F6000 X159.38 Y150.12
;TYPE:WALL-OUTER
G1 F720 X160.69 Y145.75 E214.50580
G1 X163.75 Y145.75 E214.56930
G1 X163.75 Y148.74 E214.63142
G1 X159.38 Y150.12 E214.72675
G0 F6000 X160.67 Y149.00
;TYPE:FILL
G1 F720 X160.56 Y148.54 E214.73240
G1 X161.21 Y148.83 E214.74722
G0 F6000 X161.74 Y148.66
G1 F720 X160.80 Y147.72 E214.77487
G0 F6000 X160.97 Y147.18
G1 F720 X162.28 Y148.49 E214.81351
G0 F6000 X162.82 Y148.32
G1 F720 X161.13 Y146.63 E214.86314
G0 F6000 X161.63 Y146.42
G1 F720 X163.07 Y147.87 E214.90568
G0 F6000 X163.07 Y147.16
G1 F720 X162.33 Y146.42 E214.92743
G0 F6000 X163.25 Y155.25
;TYPE:WALL-INNER
G1 F720 X163.25 Y157.37 E214.97150
G1 X160.13 Y158.36 E215.03955
G1 X161.07 Y155.25 E215.10701
G1 X163.25 Y155.25 E215.15239
G0 F6000 X163.75 Y154.75
;TYPE:WALL-OUTER
G1 F720 X163.75 Y157.74 E215.21448
G1 X159.38 Y159.12 E215.30983
G1 X160.69 Y154.75 E215.40472
G1 X163.75 Y154.75 E215.46822
G0 F6000 X163.07 Y155.65
;TYPE:FILL
G1 F720 X162.85 Y155.42 E215.47484
G0 F6000 X162.14 Y155.42
G1 F720 X163.07 Y156.36 E215.50223
G0 F6000 X163.07 Y157.06
G1 F720 X161.44 Y155.42 E215.55042
G0 F6000 X161.09 Y155.78
G1 F720 X162.67 Y157.37 E215.59703
G0 F6000 X162.13 Y157.54
G1 F720 X160.92 Y156.33 E215.63266
G0 F6000 X160.76 Y156.87
G1 F720 X161.60 Y157.71 E215.65732
G0 F6000 X161.06 Y157.88
G1 F720 X160.51 Y157.68 E215.67098
G1 X160.52 Y158.05 E215.67855
;LAYER:3
G0 F6000 X160.13 Y158.36 Z0.60
;TYPE:WALL-INNER
G1 F720 X161.07 Y155.25 E215.74602
G1 X163.25 Y155.25 E215.79140
G1 X163.25 Y157.37 E215.83547
G1 X160.13 Y158.36 E215.90351
G0 F6000 X159.38 Y159.12
;TYPE:WALL-OUTER
G1 F720 X160.69 Y154.75 E215.99840
G1 X163.75 Y154.75 E216.06191
G1 X163.75 Y157.74 E216.12400
G1 X159.38 Y159.12 E216.21934
G0 F6000 X160.49 Y158.06
;TYPE:FILL
G1 F720 X163.07 Y155.48 E216.29523
G0 F6000 X162.42 Y155.42
G1 F720 X160.67 Y157.18 E216.34677
G0 F6000 X161.53 Y157.73
G1 F720 X163.07 Y156.18 E216.39225
G0 F6000 X163.07 Y156.89
G1 F720 X162.56 Y157.40 E216.40733
G0 F6000 X160.97 Y156.16
G1 F720 X161.71 Y155.42 E216.42910
G0 F6000 X154.25 Y155.25
;TYPE:WALL-INNER
G1 F720 X154.25 Y157.37 E216.47317
G1 X151.13 Y158.36 E216.54121
G1 X152.07 Y155.25 E216.60868
G1 X154.25 Y155.25 E216.65404
G0 F6000 X154.75 Y154.75
;TYPE:WALL-OUTER
G1 F720 X154.75 Y157.74 E216.71613
G1 X150.38 Y159.12 E216.81148
G1 X151.70 Y154.75 E216.90637
G1 X154.75 Y154.75 E216.96986
G0 F6000 X153.94 Y155.42
;TYPE:FILL
G1 F720 X151.44 Y157.91 E217.04304
G0 F6000 X152.25 Y157.82
G1 F720 X154.07 Y155.99 E217.09678
G0 F6000 X154.07 Y156.70
G1 F720 X153.28 Y157.49 E217.12014
G0 F6000 X151.75 Y156.90
G1 F720 X153.23 Y155.42 E217.16353
G0 F6000 X152.52 Y155.42
G1 F720 X152.06 Y155.89 E217.17717
G0 F6000 X160.13 Y149.36
;TYPE:WALL-INNER
G1 F720 X161.07 Y146.25 E217.24464
G1 X163.25 Y146.25 E217.29002
G1 X163.25 Y148.37 E217.33411
G1 X160.13 Y149.36 E217.40215
G0 F6000 X159.38 Y150.12
;TYPE:WALL-OUTER
G1 F720 X160.69 Y145.75 E217.49704
G1 X163.75 Y145.75 E217.56054
G1 X163.75 Y148.74 E217.62266
G1 X159.38 Y150.12 E217.71799
G0 F6000 X160.44 Y148.91
;TYPE:FILL
G1 F720 X162.93 Y146.42 E217.79116
G0 F6000 X163.07 Y146.99
G1 F720 X161.24 Y148.82 E217.84496
G0 F6000 X160.75 Y147.90
G1 F720 X162.23 Y146.42 E217.88838
G0 F6000 X161.52 Y146.42
G1 F720 X161.05 Y146.89 E217.90208
G0 F6000 X162.28 Y148.50
G1 F720 X163.07 Y147.70 E217.92548
G0 F6000 X154.25 Y148.37
;TYPE:WALL-INNER
G1 F720 X151.13 Y149.36 E217.99352
G1 X152.07 Y146.25 E218.06099
G1 X154.25 Y146.25 E218.10635
G1 X154.25 Y148.37 E218.15044
G0 F6000 X154.75 Y148.74
;TYPE:WALL-OUTER
G1 F720 X150.38 Y150.12 E218.24578
G1 X151.70 Y145.75 E218.34067
G1 X154.75 Y145.75 E218.40416
G1 X154.75 Y148.74 E218.46627
G0 F6000 X154.07 Y147.51
;TYPE:FILL
G1 F720 X153.00 Y148.58 E218.49796
G0 F6000 X151.96 Y148.91
G1 F720 X154.07 Y146.80 E218.56005
G0 F6000 X153.74 Y146.42
G1 F720 X151.53 Y148.64 E218.62513
G0 F6000 X151.83 Y147.62
G1 F720 X153.03 Y146.42 E218.66042
G0 F6000 X152.33 Y146.42
G1 F720 X152.14 Y146.61 E218.66594
G0 F6000 X145.25 Y146.25
;TYPE:WALL-INNER
G1 F720 X145.25 Y148.37 E218.71004
G1 X142.13 Y149.36 E218.77807
G1 X143.07 Y146.25 E218.84555
G1 X145.25 Y146.25 E218.89090
G0 F6000 X145.75 Y145.75
;TYPE:WALL-OUTER
G1 F720 X145.75 Y148.74 E218.95302
G1 X141.38 Y150.12 E219.04837
G1 X142.70 Y145.75 E219.14327
G1 X145.75 Y145.75 E219.20675
G0 F6000 X145.07 Y146.61
;TYPE:FILL
G1 F720 X142.68 Y149.00 E219.27709
G0 F6000 X142.61 Y148.36
G1 F720 X144.55 Y146.42 E219.33406
G0 F6000 X143.84 Y146.42
G1 F720 X142.92 Y147.35 E219.36127
G0 F6000 X143.72 Y148.67
G1 F720 X145.07 Y147.31 E219.40122
G0 F6000 X145.07 Y148.02
G1 F720 X144.75 Y148.35 E219.41079
;LAYER:4
G0 F6000 X145.25 Y148.37 Z0.70
;TYPE:WALL-INNER
G1 F720 X142.13 Y149.36 E219.47883
G1 X143.07 Y146.25 E219.54630
G1 X145.25 Y146.25 E219.59166
G1 X145.25 Y148.37 E219.63575
G0 F6000 X145.75 Y148.74
;TYPE:WALL-OUTER
G1 F720 X141.38 Y150.12 E219.73111
G1 X142.70 Y145.75 E219.82600
G1 X145.75 Y145.75 E219.88949
G1 X145.75 Y148.74 E219.95160
G0 F6000 X145.06 Y148.25
;TYPE:FILL
G1 F720 X143.24 Y146.42 E220.00513
G0 F6000 X143.04 Y146.93
G1 F720 X144.53 Y148.41 E220.04876
G0 F6000 X143.99 Y148.59
G1 F720 X142.88 Y147.47 E220.08139
G0 F6000 X142.72 Y148.02
G1 F720 X143.45 Y148.75 E220.10306
G0 F6000 X142.91 Y148.93
G1 F720 X142.55 Y148.56 E220.11375
G0 F6000 X143.95 Y146.42
G1 F720 X145.07 Y147.55 E220.14682
G0 F6000 X145.07 Y146.84
G1 F720 X144.66 Y146.42 E220.15911
G0 F6000 X151.13 Y149.36
;TYPE:WALL-INNER
G1 F720 X152.07 Y146.25 E220.22658
G1 X154.25 Y146.25 E220.27194
G1 X154.25 Y148.37 E220.31603
G1 X151.13 Y149.36 E220.38407
G0 F6000 X150.38 Y150.12
;TYPE:WALL-OUTER
G1 F720 X151.70 Y145.75 E220.47896
G1 X154.75 Y145.75 E220.54245
G1 X154.75 Y148.74 E220.60456
G1 X150.38 Y150.12 E220.69990
G0 F6000 X151.52 Y149.05
;TYPE:FILL
G1 F720 X151.51 Y148.68 E220.70259
G1 X152.06 Y148.88 E220.71468
G0 F6000 X152.60 Y148.71
G1 F720 X151.76 Y147.87 E220.73935
G0 F6000 X151.92 Y147.33
G1 F720 X153.13 Y148.54 E220.77498
G0 F6000 X153.67 Y148.37
G1 F720 X152.09 Y146.78 E220.82160
G0 F6000 X152.44 Y146.42
G1 F720 X154.07 Y148.06 E220.86979
G0 F6000 X154.07 Y147.36
G1 F720 X153.14 Y146.42 E220.89719
G0 F6000 X153.85 Y146.42
G1 F720 X154.07 Y146.65 E220.90380
G0 F6000 X154.25 Y155.25
;TYPE:WALL-INNER
G1 F720 X154.25 Y157.37 E220.94787
G1 X151.13 Y158.36 E221.01592
G1 X152.07 Y155.25 E221.08339
G1 X154.25 Y155.25 E221.12875
G0 F6000 X154.75 Y154.75
;TYPE:WALL-OUTER
G1 F720 X154.75 Y157.74 E221.19084
G1 X150.38 Y159.12 E221.28618
G1 X151.70 Y154.75 E221.38108
G1 X154.75 Y154.75 E221.44456
G0 F6000 X154.07 Y155.84
;TYPE:FILL
G1 F720 X153.66 Y155.42 E221.45686
G0 F6000 X152.95 Y155.42
G1 F720 X154.07 Y156.55 E221.48995
G0 F6000 X154.06 Y157.24
G1 F720 X152.24 Y155.42 E221.54347
G0 F6000 X152.04 Y155.93
G1 F720 X153.53 Y157.41 E221.58707
G0 F6000 X152.99 Y157.58
G1 F720 X151.88 Y156.47 E221.61970
G0 F6000 X151.71 Y157.02
G1 F720 X152.45 Y157.75 E221.64134
G0 F6000 X151.91 Y157.92
G1 F720 X151.55 Y157.56 E221.65198
G0 F6000 X160.13 Y149.36
;TYPE:WALL-INNER
G1 F720 X161.07 Y146.25 E221.71945
G1 X163.25 Y146.25 E221.76483
G1 X163.25 Y148.37 E221.80892
G1 X160.13 Y149.36 E221.87695
G0 F6000 X159.38 Y150.12
;TYPE:WALL-OUTER
G1 F720 X160.69 Y145.75 E221.97184
G1 X163.75 Y145.75 E222.03535
G1 X163.75 Y148.74 E222.09746
G1 X159.38 Y150.12 E222.19280
G0 F6000 X160.67 Y149.00
;TYPE:FILL
G1 F720 X160.56 Y148.54 E222.19845
G1 X161.21 Y148.83 E222.21327
G0 F6000 X161.74 Y148.66
G1 F720 X160.80 Y147.72 E222.24091
G0 F6000 X160.97 Y147.18
G1 F720 X162.28 Y148.49 E222.27956
G0 F6000 X162.82 Y148.32
G1 F720 X161.13 Y146.63 E222.32918
G0 F6000 X161.63 Y146.42
G1 F720 X163.07 Y147.87 E222.37172
G0 F6000 X163.07 Y147.16
G1 F720 X162.33 Y146.42 E222.39348
G0 F6000 X163.25 Y155.25
;TYPE:WALL-INNER
G1 F720 X163.25 Y157.37 E222.43755
G1 X160.13 Y158.36 E222.50559
G1 X161.07 Y155.25 E222.57306
G1 X163.25 Y155.25 E222.61844
G0 F6000 X163.75 Y154.75
;TYPE:WALL-OUTER
G1 F720 X163.75 Y157.74 E222.68053
G1 X159.38 Y159.12 E222.77587
G1 X160.69 Y154.75 E222.87076
G1 X163.75 Y154.75 E222.93427
G0 F6000 X163.07 Y155.65
;TYPE:FILL
G1 F720 X162.85 Y155.42 E222.94088
G0 F6000 X162.14 Y155.42
G1 F720 X163.07 Y156.36 E222.96828
G0 F6000 X163.07 Y157.06
G1 F720 X161.44 Y155.42 E223.01646
G0 F6000 X161.09 Y155.78
G1 F720 X162.67 Y157.37 E223.06307
G0 F6000 X162.13 Y157.54
G1 F720 X160.92 Y156.33 E223.09870
G0 F6000 X160.76 Y156.87
G1 F720 X161.60 Y157.71 E223.12337
G0 F6000 X161.06 Y157.88
G1 F720 X160.51 Y157.68 E223.13703
G1 X160.52 Y158.05 E223.14460
;LAYER:5
G0 F6000 X160.13 Y158.36 Z0.80
;TYPE:WALL-INNER
G1 F720 X161.07 Y155.25 E223.21206
G1 X163.25 Y155.25 E223.25744
G1 X163.25 Y157.37 E223.30153
G1 X160.13 Y158.36 E223.36955
G0 F6000 X159.38 Y159.12
;TYPE:WALL-OUTER
G1 F720 X160.69 Y154.75 E223.46444
G1 X163.75 Y154.75 E223.52795
G1 X163.75 Y157.74 E223.59004
G1 X159.38 Y159.12 E223.68538
G0 F6000 X160.49 Y158.06
;TYPE:FILL
G1 F720 X163.07 Y155.48 E223.76127
G0 F6000 X162.42 Y155.42
G1 F720 X160.67 Y157.18 E223.81279
G0 F6000 X161.53 Y157.73
G1 F720 X163.07 Y156.19 E223.85827
G0 F6000 X163.07 Y156.89
G1 F720 X162.56 Y157.41 E223.87335
G0 F6000 X160.97 Y156.16
G1 F720 X161.71 Y155.42 E223.89512
G0 F6000 X154.25 Y155.25
;TYPE:WALL-INNER
G1 F720 X154.25 Y157.37 E223.93921
G1 X151.13 Y158.36 E224.00723
G1 X152.07 Y155.25 E224.07470
G1 X154.25 Y155.25 E224.12006
G0 F6000 X154.75 Y154.75
;TYPE:WALL-OUTER
G1 F720 X154.75 Y157.74 E224.18215
G1 X150.38 Y159.12 E224.27750
G1 X151.70 Y154.75 E224.37239
G1 X154.75 Y154.75 E224.43588
G0 F6000 X153.94 Y155.42
;TYPE:FILL
G1 F720 X151.45 Y157.91 E224.50905
G0 F6000 X152.25 Y157.82
G1 F720 X154.07 Y155.99 E224.56282
G0 F6000 X154.07 Y156.70
G1 F720 X153.28 Y157.49 E224.58617
G0 F6000 X151.75 Y156.90
G1 F720 X153.23 Y155.42 E224.62957
G0 F6000 X152.52 Y155.42
G1 F720 X152.06 Y155.89 E224.64321
G0 F6000 X160.13 Y149.36
;TYPE:WALL-INNER
G1 F720 X161.07 Y146.25 E224.71067
G1 X163.25 Y146.25 E224.75605
G1 X163.25 Y148.37 E224.80014
G1 X160.13 Y149.36 E224.86816
G0 F6000 X159.38 Y150.12
;TYPE:WALL-OUTER
G1 F720 X160.69 Y145.75 E224.96305
G1 X163.75 Y145.75 E225.02656
G1 X163.75 Y148.74 E225.08867
G1 X159.38 Y150.12 E225.18401
G0 F6000 X160.44 Y148.91
;TYPE:FILL
G1 F720 X162.93 Y146.42 E225.25718
G0 F6000 X163.07 Y146.99
G1 F720 X161.25 Y148.82 E225.31093
G0 F6000 X160.75 Y147.90
G1 F720 X162.23 Y146.42 E225.35435
G0 F6000 X161.52 Y146.42
G1 F720 X161.05 Y146.89 E225.36805
G0 F6000 X162.28 Y148.49
G1 F720 X163.07 Y147.70 E225.39142
G0 F6000 X154.25 Y148.37
;TYPE:WALL-INNER
G1 F720 X151.13 Y149.36 E225.45944
G1 X152.07 Y146.25 E225.52692
G1 X154.25 Y146.25 E225.57227
G1 X154.25 Y148.37 E225.61636
G0 F6000 X154.75 Y148.74
;TYPE:WALL-OUTER
G1 F720 X150.38 Y150.12 E225.71170
G1 X151.70 Y145.75 E225.80660
G1 X154.75 Y145.75 E225.87008
G1 X154.75 Y148.74 E225.93219
G0 F6000 X154.07 Y147.51
;TYPE:FILL
G1 F720 X153.00 Y148.58 E225.96380
G0 F6000 X151.96 Y148.91
G1 F720 X154.07 Y146.80 E226.02583
G0 F6000 X153.74 Y146.42
G1 F720 X151.53 Y148.64 E226.09090
G0 F6000 X151.83 Y147.62
G1 F720 X153.03 Y146.42 E226.12619
G0 F6000 X152.33 Y146.42
G1 F720 X152.14 Y146.61 E226.13172
G0 F6000 X145.25 Y146.25
;TYPE:WALL-INNER
G1 F720 X145.25 Y148.37 E226.17581
G1 X142.13 Y149.36 E226.24385
G1 X143.07 Y146.25 E226.31132
G1 X145.25 Y146.25 E226.35668
G0 F6000 X145.75 Y145.75
;TYPE:WALL-OUTER
G1 F720 X145.75 Y148.74 E226.41879
G1 X141.38 Y150.12 E226.51415
G1 X142.70 Y145.75 E226.60904
G1 X145.75 Y145.75 E226.67253
G0 F6000 X145.07 Y146.61
;TYPE:FILL
G1 F720 X142.68 Y149.00 E226.74286
G0 F6000 X142.61 Y148.36
G1 F720 X144.55 Y146.42 E226.79984
G0 F6000 X143.84 Y146.42
G1 F720 X142.92 Y147.35 E226.82704
G0 F6000 X143.72 Y148.67
G1 F720 X145.07 Y147.31 E226.86700
G0 F6000 X145.07 Y148.02
G1 F720 X144.75 Y148.35 E226.87657
;LAYER:6
G0 F6000 X145.25 Y148.37 Z0.90
;TYPE:WALL-INNER
G1 F720 X142.13 Y149.36 E226.94460
G1 X143.07 Y146.25 E227.01208
G1 X145.25 Y146.25 E227.05744
G1 X145.25 Y148.37 E227.10153
G0 F6000 X145.75 Y148.74
;TYPE:WALL-OUTER
G1 F720 X141.38 Y150.12 E227.19688
G1 X142.70 Y145.75 E227.29178
G1 X145.75 Y145.75 E227.35526
G1 X145.75 Y148.74 E227.41738
G0 F6000 X145.06 Y148.25
;TYPE:FILL
G1 F720 X143.24 Y146.42 E227.47091
G0 F6000 X143.04 Y146.93
G1 F720 X144.53 Y148.41 E227.51454
G0 F6000 X143.99 Y148.59
G1 F720 X142.88 Y147.47 E227.54717
G0 F6000 X142.72 Y148.02
G1 F720 X143.45 Y148.75 E227.56883
G0 F6000 X142.91 Y148.93
G1 F720 X142.55 Y148.56 E227.57952
G0 F6000 X143.95 Y146.42
G1 F720 X145.07 Y147.55 E227.61259
G0 F6000 X145.07 Y146.84
G1 F720 X144.66 Y146.42 E227.62488
G0 F6000 X151.13 Y149.36
;TYPE:WALL-INNER
G1 F720 X152.07 Y146.25 E227.69235
G1 X154.25 Y146.25 E227.73771
G1 X154.25 Y148.37 E227.78180
G1 X151.13 Y149.36 E227.84982
G0 F6000 X150.38 Y150.12
;TYPE:WALL-OUTER
G1 F720 X151.70 Y145.75 E227.94472
G1 X154.75 Y145.75 E228.00820
G1 X154.75 Y148.74 E228.07032
G1 X150.38 Y150.12 E228.16565
G0 F6000 X151.52 Y149.05
;TYPE:FILL
G1 F720 X151.51 Y148.68 E228.16835
G1 X152.06 Y148.88 E228.18041
G0 F6000 X152.60 Y148.71
G1 F720 X151.76 Y147.87 E228.20505
G0 F6000 X151.92 Y147.33
G1 F720 X153.13 Y148.54 E228.24068
G0 F6000 X153.67 Y148.37
G1 F720 X152.09 Y146.78 E228.28727
G0 F6000 X152.44 Y146.42
G1 F720 X154.07 Y148.06 E228.33546
G0 F6000 X154.07 Y147.36
G1 F720 X153.14 Y146.42 E228.36286
G0 F6000 X153.85 Y146.42
G1 F720 X154.07 Y146.65 E228.36947
G0 F6000 X154.25 Y155.25
;TYPE:WALL-INNER
G1 F720 X154.25 Y157.37 E228.41356
G1 X151.13 Y158.36 E228.48158
G1 X152.07 Y155.25 E228.54905
G1 X154.25 Y155.25 E228.59441
G0 F6000 X154.75 Y154.75
;TYPE:WALL-OUTER
G1 F720 X154.75 Y157.74 E228.65650
G1 X150.38 Y159.12 E228.75184
G1 X151.70 Y154.75 E228.84674
G1 X154.75 Y154.75 E228.91023
G0 F6000 X154.07 Y155.84
;TYPE:FILL
G1 F720 X153.66 Y155.42 E228.92253
G0 F6000 X152.95 Y155.42
G1 F720 X154.07 Y156.55 E228.95562
G0 F6000 X154.06 Y157.24
G1 F720 X152.24 Y155.42 E229.00914
G0 F6000 X152.04 Y155.93
G1 F720 X153.53 Y157.41 E229.05276
G0 F6000 X152.99 Y157.59
G1 F720 X151.88 Y156.47 E229.08538
G0 F6000 X151.72 Y157.02
G1 F720 X152.45 Y157.75 E229.10702
G0 F6000 X151.91 Y157.92
G1 F720 X151.55 Y157.56 E229.11769
G0 F6000 X160.13 Y149.36
;TYPE:WALL-INNER
G1 F720 X161.07 Y146.25 E229.18515
G1 X163.25 Y146.25 E229.23053
G1 X163.25 Y148.37 E229.27462
G1 X160.13 Y149.36 E229.34264
G0 F6000 X159.38 Y150.12
;TYPE:WALL-OUTER
G1 F720 X160.69 Y145.75 E229.43753
G1 X163.75 Y145.75 E229.50104
G1 X163.75 Y148.74 E229.56315
G1 X159.38 Y150.12 E229.65849
G0 F6000 X160.67 Y149.00
;TYPE:FILL
G1 F720 X160.56 Y148.54 E229.66413
G1 X161.21 Y148.83 E229.67895
G0 F6000 X161.74 Y148.66
G1 F720 X160.80 Y147.72 E229.70660
G0 F6000 X160.97 Y147.18
G1 F720 X162.28 Y148.49 E229.74525
G0 F6000 X162.82 Y148.32
G1 F720 X161.13 Y146.63 E229.79484
G0 F6000 X161.63 Y146.42
G1 F720 X163.07 Y147.87 E229.83738
G0 F6000 X163.07 Y147.16
G1 F720 X162.33 Y146.42 E229.85913
G0 F6000 X163.25 Y155.25
;TYPE:WALL-INNER
G1 F720 X163.25 Y157.37 E229.90323
G1 X160.13 Y158.36 E229.97124
G1 X161.07 Y155.25 E230.03871
G1 X163.25 Y155.25 E230.08409
G0 F6000 X163.75 Y154.75
;TYPE:WALL-OUTER
G1 F720 X163.75 Y157.74 E230.14618
G1 X159.38 Y159.12 E230.24152
G1 X160.69 Y154.75 E230.33641
G1 X163.75 Y154.75 E230.39992
G0 F6000 X163.07 Y155.65
;TYPE:FILL
G1 F720 X162.85 Y155.42 E230.40653
G0 F6000 X162.14 Y155.42
G1 F720 X163.07 Y156.36 E230.43393
G0 F6000 X163.07 Y157.06
G1 F720 X161.44 Y155.42 E230.48212
G0 F6000 X161.09 Y155.78
G1 F720 X162.67 Y157.37 E230.52874
G0 F6000 X162.13 Y157.54
G1 F720 X160.92 Y156.33 E230.56440
G0 F6000 X160.76 Y156.87
G1 F720 X161.60 Y157.71 E230.58904
G0 F6000 X161.06 Y157.88
G1 F720 X160.51 Y157.69 E230.60269
G1 X160.52 Y158.05 E230.61024
;LAYER:7
G0 F6000 X160.13 Y158.36 Z1.00
;TYPE:WALL-INNER
G1 F720 X161.07 Y155.25 E230.67770
G1 X163.25 Y155.25 E230.72308
G1 X163.25 Y157.37 E230.76717
G1 X160.13 Y158.36 E230.83519
G0 F6000 X159.38 Y159.12
;TYPE:WALL-OUTER
G1 F720 X160.69 Y154.75 E230.93008
G1 X163.75 Y154.75 E230.99359
G1 X163.75 Y157.74 E231.05568
G1 X159.38 Y159.12 E231.15102
G0 F6000 X160.49 Y158.06
;TYPE:FILL
G1 F720 X163.07 Y155.48 E231.22691
G0 F6000 X162.42 Y155.42
G1 F720 X160.67 Y157.18 E231.27843
G0 F6000 X161.53 Y157.73
G1 F720 X163.07 Y156.19 E231.32391
G0 F6000 X163.07 Y156.89
G1 F720 X162.56 Y157.41 E231.33899
G0 F6000 X160.97 Y156.16
G1 F720 X161.71 Y155.42 E231.36076
G0 F6000 X154.25 Y155.25
;TYPE:WALL-INNER
G1 F720 X154.25 Y157.37 E231.40485
G1 X151.13 Y158.36 E231.47287
G1 X152.07 Y155.25 E231.54034
G1 X154.25 Y155.25 E231.58570
G0 F6000 X154.75 Y154.75
;TYPE:WALL-OUTER
G1 F720 X154.75 Y157.74 E231.64779
G1 X150.38 Y159.12 E231.74314
G1 X151.70 Y154.75 E231.83803
G1 X154.75 Y154.75 E231.90152
G0 F6000 X153.94 Y155.42
;TYPE:FILL
G1 F720 X151.45 Y157.91 E231.97469
G0 F6000 X152.25 Y157.82
G1 F720 X154.07 Y155.99 E232.02846
G0 F6000 X154.07 Y156.70
G1 F720 X153.28 Y157.49 E232.05181
G0 F6000 X151.75 Y156.90
G1 F720 X153.23 Y155.42 E232.09521
G0 F6000 X152.52 Y155.42
G1 F720 X152.06 Y155.89 E232.10885
G0 F6000 X160.13 Y149.36
;TYPE:WALL-INNER
G1 F720 X161.07 Y146.25 E232.17631
G1 X163.25 Y146.25 E232.22169
G1 X163.25 Y148.37 E232.26578
G1 X160.13 Y149.36 E232.33380
G0 F6000 X159.38 Y150.12
;TYPE:WALL-OUTER
G1 F720 X160.69 Y145.75 E232.42869
G1 X163.75 Y145.75 E232.49220
G1 X163.75 Y148.74 E232.55431
G1 X159.38 Y150.12 E232.64965
G0 F6000 X160.44 Y148.91
;TYPE:FILL
G1 F720 X162.93 Y146.42 E232.72282
G0 F6000 X163.07 Y146.99
G1 F720 X161.25 Y148.82 E232.77657
G0 F6000 X160.75 Y147.90
G1 F720 X162.23 Y146.42 E232.81999
G0 F6000 X161.52 Y146.42
G1 F720 X161.05 Y146.89 E232.83369
G0 F6000 X162.28 Y148.49
G1 F720 X163.07 Y147.70 E232.85706
G0 F6000 X154.25 Y148.37
;TYPE:WALL-INNER
G1 F720 X151.13 Y149.36 E232.92508
G1 X152.07 Y146.25 E232.99255
G1 X154.25 Y146.25 E233.03791
G1 X154.25 Y148.37 E233.08200
G0 F6000 X154.75 Y148.74
;TYPE:WALL-OUTER
G1 F720 X150.38 Y150.12 E233.17734
G1 X151.70 Y145.75 E233.27224
G1 X154.75 Y145.75 E233.33572
G1 X154.75 Y148.74 E233.39783
G0 F6000 X154.07 Y147.51
;TYPE:FILL
G1 F720 X153.00 Y148.58 E233.42944
G0 F6000 X151.96 Y148.91
G1 F720 X154.07 Y146.80 E233.49147
G0 F6000 X153.74 Y146.42
G1 F720 X151.53 Y148.64 E233.55654
G0 F6000 X151.83 Y147.62
G1 F720 X153.03 Y146.42 E233.59183
G0 F6000 X152.33 Y146.42
G1 F720 X152.14 Y146.61 E233.59736
G0 F6000 X145.25 Y146.25
;TYPE:WALL-INNER
G1 F720 X145.25 Y148.37 E233.64145
G1 X142.13 Y149.36 E233.70949
G1 X143.07 Y146.25 E233.77696
G1 X145.25 Y146.25 E233.82232
G0 F6000 X145.75 Y145.75
;TYPE:WALL-OUTER
G1 F720 X145.75 Y148.74 E233.88443
G1 X141.38 Y150.12 E233.97979
G1 X142.70 Y145.75 E234.07468
G1 X145.75 Y145.75 E234.13817
G0 F6000 X145.07 Y146.61
;TYPE:FILL
G1 F720 X142.68 Y149.00 E234.20850
G0 F6000 X142.61 Y148.36
G1 F720 X144.55 Y146.42 E234.26548
G0 F6000 X143.84 Y146.42
G1 F720 X142.92 Y147.35 E234.29268
G0 F6000 X143.72 Y148.67
G1 F720 X145.07 Y147.31 E234.33264
G0 F6000 X145.07 Y148.02
G1 F720 X144.75 Y148.35 E234.34221
;LAYER:8
G0 F6000 X145.25 Y148.37 Z1.10
;TYPE:WALL-INNER
G1 F720 X142.13 Y149.36 E234.41024
G1 X143.07 Y146.25 E234.47772
G1 X145.25 Y146.25 E234.52307
G1 X145.25 Y148.37 E234.56717
G0 F6000 X145.75 Y148.74
;TYPE:WALL-OUTER
G1 F720 X141.38 Y150.12 E234.66252
G1 X142.70 Y145.75 E234.75742
G1 X145.75 Y145.75 E234.82090
G1 X145.75 Y148.74 E234.88301
G0 F6000 X145.06 Y148.25
;TYPE:FILL
G1 F720 X143.24 Y146.42 E234.93655
G0 F6000 X143.04 Y146.93
G1 F720 X144.53 Y148.41 E234.98018
G0 F6000 X143.99 Y148.59
G1 F720 X142.88 Y147.47 E235.01281
G0 F6000 X142.72 Y148.02
G1 F720 X143.45 Y148.75 E235.03447
G0 F6000 X142.91 Y148.93
G1 F720 X142.55 Y148.56 E235.04516
G0 F6000 X143.95 Y146.42
G1 F720 X145.07 Y147.55 E235.07823
G0 F6000 X145.07 Y146.84
G1 F720 X144.66 Y146.42 E235.09052
G0 F6000 X151.13 Y149.36
;TYPE:WALL-INNER
G1 F720 X152.07 Y146.25 E235.15799
G1 X154.25 Y146.25 E235.20335
G1 X154.25 Y148.37 E235.24744
G1 X151.13 Y149.36 E235.31546
G0 F6000 X150.38 Y150.12
;TYPE:WALL-OUTER
G1 F720 X151.70 Y145.75 E235.41036
G1 X154.75 Y145.75 E235.47384
G1 X154.75 Y148.74 E235.53596
G1 X150.38 Y150.12 E235.63129
G0 F6000 X151.52 Y149.05
;TYPE:FILL
G1 F720 X151.51 Y148.68 E235.63399
G1 X152.06 Y148.88 E235.64605
G0 F6000 X152.60 Y148.71
G1 F720 X151.76 Y147.87 E235.67069
G0 F6000 X151.92 Y147.33
G1 F720 X153.13 Y148.54 E235.70632
G0 F6000 X153.67 Y148.37
G1 F720 X152.09 Y146.78 E235.75291
G0 F6000 X152.44 Y146.42
G1 F720 X154.07 Y148.06 E235.80110
G0 F6000 X154.07 Y147.36
G1 F720 X153.14 Y146.42 E235.82849
G0 F6000 X153.85 Y146.42
G1 F720 X154.07 Y146.65 E235.83511
G0 F6000 X154.25 Y155.25
;TYPE:WALL-INNER
G1 F720 X154.25 Y157.37 E235.87920
G1 X151.13 Y158.36 E235.94722
G1 X152.07 Y155.25 E236.01469
G1 X154.25 Y155.25 E236.06005
G0 F6000 X154.75 Y154.75
;TYPE:WALL-OUTER
G1 F720 X154.75 Y157.74 E236.12214
G1 X150.38 Y159.12 E236.21748
G1 X151.70 Y154.75 E236.31238
G1 X154.75 Y154.75 E236.37586
G0 F6000 X154.07 Y155.84
;TYPE:FILL
G1 F720 X153.66 Y155.42 E236.38817
G0 F6000 X152.95 Y155.42
G1 F720 X154.07 Y156.55 E236.42126
G0 F6000 X154.06 Y157.24
G1 F720 X152.24 Y155.42 E236.47477
G0 F6000 X152.04 Y155.93
G1 F720 X153.53 Y157.41 E236.51840
G0 F6000 X152.99 Y157.59
G1 F720 X151.88 Y156.47 E236.55102
G0 F6000 X151.72 Y157.02
G1 F720 X152.45 Y157.75 E236.57266
G0 F6000 X151.91 Y157.92
G1 F720 X151.55 Y157.56 E236.58333
G0 F6000 X160.13 Y149.36
;TYPE:WALL-INNER
G1 F720 X161.07 Y146.25 E236.65079
G1 X163.25 Y146.25 E236.69617
G1 X163.25 Y148.37 E236.74026
G1 X160.13 Y149.36 E236.80828
G0 F6000 X159.38 Y150.12
;TYPE:WALL-OUTER
G1 F720 X160.69 Y145.75 E236.90317
G1 X163.75 Y145.75 E236.96668
G1 X163.75 Y148.74 E237.02879
G1 X159.38 Y150.12 E237.12413
G0 F6000 X160.67 Y149.00
;TYPE:FILL
G1 F720 X160.56 Y148.54 E237.12977
G1 X161.21 Y148.83 E237.14459
G0 F6000 X161.74 Y148.66
G1 F720 X160.80 Y147.72 E237.17224
G0 F6000 X160.97 Y147.18
G1 F720 X162.28 Y148.49 E237.21089
G0 F6000 X162.82 Y148.32
G1 F720 X161.13 Y146.63 E237.26048
G0 F6000 X161.63 Y146.42
G1 F720 X163.07 Y147.87 E237.30302
G0 F6000 X163.07 Y147.16
G1 F720 X162.33 Y146.42 E237.32477
G0 F6000 X163.25 Y155.25
;TYPE:WALL-INNER
G1 F720 X163.25 Y157.37 E237.36886
G1 X160.13 Y158.36 E237.43688
G1 X161.07 Y155.25 E237.50435
G1 X163.25 Y155.25 E237.54973
G0 F6000 X163.75 Y154.75
;TYPE:WALL-OUTER
G1 F720 X163.75 Y157.74 E237.61182
G1 X159.38 Y159.12 E237.70716
G1 X160.69 Y154.75 E237.80205
G1 X163.75 Y154.75 E237.86556
G0 F6000 X163.07 Y155.65
;TYPE:FILL
G1 F720 X162.85 Y155.42 E237.87217
G0 F6000 X162.14 Y155.42
G1 F720 X163.07 Y156.36 E237.89957
G0 F6000 X163.07 Y157.06
G1 F720 X161.44 Y155.42 E237.94776
G0 F6000 X161.09 Y155.78
G1 F720 X162.67 Y157.37 E237.99438
G0 F6000 X162.13 Y157.54
G1 F720 X160.92 Y156.33 E238.03004
G0 F6000 X160.76 Y156.87
G1 F720 X161.60 Y157.71 E238.05468
G0 F6000 X161.06 Y157.88
G1 F720 X160.51 Y157.69 E238.06833
G1 X160.52 Y158.05 E238.07588
;LAYER:9
G0 F6000 X160.13 Y158.36 Z1.20
;TYPE:WALL-INNER
G1 F720 X161.07 Y155.25 E238.14334
G1 X163.25 Y155.25 E238.18872
G1 X163.25 Y157.37 E238.23281
G1 X160.13 Y158.36 E238.30083
G0 F6000 X159.38 Y159.12
;TYPE:WALL-OUTER
G1 F720 X160.69 Y154.75 E238.39572
G1 X163.75 Y154.75 E238.45923
G1 X163.75 Y157.74 E238.52132
G1 X159.38 Y159.12 E238.61666
G0 F6000 X160.49 Y158.06
;TYPE:FILL
G1 F720 X163.07 Y155.48 E238.69255
G0 F6000 X162.42 Y155.42
G1 F720 X160.67 Y157.18 E238.74407
G0 F6000 X161.53 Y157.73
G1 F720 X163.07 Y156.19 E238.78955
G0 F6000 X163.07 Y156.89
G1 F720 X162.56 Y157.41 E238.80463
G0 F6000 X160.97 Y156.16
G1 F720 X161.71 Y155.42 E238.82640
G0 F6000 X154.25 Y155.25
;TYPE:WALL-INNER
G1 F720 X154.25 Y157.37 E238.87049
G1 X151.13 Y158.36 E238.93851
G1 X152.07 Y155.25 E239.00598
G1 X154.25 Y155.25 E239.05134
G0 F6000 X154.75 Y154.75
;TYPE:WALL-OUTER
G1 F720 X154.75 Y157.74 E239.11343
G1 X150.38 Y159.12 E239.20878
G1 X151.70 Y154.75 E239.30367
G1 X154.75 Y154.75 E239.36716
G0 F6000 X153.94 Y155.42
;TYPE:FILL
G1 F720 X151.45 Y157.91 E239.44033
G0 F6000 X152.25 Y157.82
G1 F720 X154.07 Y155.99 E239.49410
G0 F6000 X154.07 Y156.70
G1 F720 X153.28 Y157.49 E239.51745
G0 F6000 X151.75 Y156.90
G1 F720 X153.23 Y155.42 E239.56085
G0 F6000 X152.52 Y155.42
G1 F720 X152.06 Y155.89 E239.57449
G0 F6000 X160.13 Y149.36
;TYPE:WALL-INNER
G1 F720 X161.07 Y146.25 E239.64195
G1 X163.25 Y146.25 E239.68733
G1 X163.25 Y148.37 E239.73142
G1 X160.13 Y149.36 E239.79944
G0 F6000 X159.38 Y150.12
;TYPE:WALL-OUTER
G1 F720 X160.69 Y145.75 E239.89433
G1 X163.75 Y145.75 E239.95784
G1 X163.75 Y148.74 E240.01995
G1 X159.38 Y150.12 E240.11529
G0 F6000 X160.44 Y148.91
;TYPE:FILL
G1 F720 X162.93 Y146.42 E240.18846
G0 F6000 X163.07 Y146.99
G1 F720 X161.25 Y148.82 E240.24221
G0 F6000 X160.75 Y147.90
G1 F720 X162.23 Y146.42 E240.28563
G0 F6000 X161.52 Y146.42
G1 F720 X161.05 Y146.89 E240.29933
G0 F6000 X162.28 Y148.49
G1 F720 X163.07 Y147.70 E240.32270
G0 F6000 X154.25 Y148.37
;TYPE:WALL-INNER
G1 F720 X151.13 Y149.36 E240.39072
G1 X152.07 Y146.25 E240.45819
G1 X154.25 Y146.25 E240.50355
G1 X154.25 Y148.37 E240.54764
G0 F6000 X154.75 Y148.74
;TYPE:WALL-OUTER
G1 F720 X150.38 Y150.12 E240.64298
G1 X151.70 Y145.75 E240.73787
G1 X154.75 Y145.75 E240.80136
G1 X154.75 Y148.74 E240.86347
G0 F6000 X154.07 Y147.51
;TYPE:FILL
G1 F720 X153.00 Y148.58 E240.89508
G0 F6000 X151.96 Y148.91
G1 F720 X154.07 Y146.80 E240.95711
G0 F6000 X153.74 Y146.42
G1 F720 X151.53 Y148.64 E241.02218
G0 F6000 X151.83 Y147.62
G1 F720 X153.03 Y146.42 E241.05747
G0 F6000 X152.33 Y146.42
G1 F720 X152.14 Y146.61 E241.06300
G0 F6000 X145.25 Y146.25
;TYPE:WALL-INNER
G1 F720 X145.25 Y148.37 E241.10709
G1 X142.13 Y149.36 E241.17513
G1 X143.07 Y146.25 E241.24260
G1 X145.25 Y146.25 E241.28796
G0 F6000 X145.75 Y145.75
;TYPE:WALL-OUTER
G1 F720 X145.75 Y148.74 E241.35007
G1 X141.38 Y150.12 E241.44543
G1 X142.70 Y145.75 E241.54032
G1 X145.75 Y145.75 E241.60381
G0 F6000 X145.07 Y146.61
;TYPE:FILL
G1 F720 X142.68 Y149.00 E241.67414
G0 F6000 X142.61 Y148.36
G1 F720 X144.55 Y146.42 E241.73112
G0 F6000 X143.84 Y146.42
G1 F720 X142.92 Y147.35 E241.75832
G0 F6000 X143.72 Y148.67
G1 F720 X145.07 Y147.31 E241.79828
G0 F6000 X145.07 Y148.02
G1 F720 X144.75 Y148.35 E241.80784
;LAYER:10
G0 F6000 X145.25 Y148.37 Z1.30
;TYPE:WALL-INNER
G1 F720 X142.13 Y149.36 E241.87588
G1 X143.07 Y146.25 E241.94336
G1 X145.25 Y146.25 E241.98871
G1 X145.25 Y148.37 E242.03280
G0 F6000 X145.75 Y148.74
;TYPE:WALL-OUTER
G1 F720 X141.38 Y150.12 E242.12816
G1 X142.70 Y145.75 E242.22306
G1 X145.75 Y145.75 E242.28654
G1 X145.75 Y148.74 E242.34865
G0 F6000 X145.06 Y148.25
;TYPE:FILL
G1 F720 X143.24 Y146.42 E242.40219
G0 F6000 X143.04 Y146.93
G1 F720 X144.53 Y148.41 E242.44581
G0 F6000 X143.99 Y148.59
G1 F720 X142.88 Y147.47 E242.47845
G0 F6000 X142.72 Y148.02
G1 F720 X143.45 Y148.75 E242.50011
G0 F6000 X142.91 Y148.93
G1 F720 X142.55 Y148.56 E242.51080
G0 F6000 X143.95 Y146.42
G1 F720 X145.07 Y147.55 E242.54387
G0 F6000 X145.07 Y146.84
G1 F720 X144.66 Y146.42 E242.55616
G0 F6000 X151.13 Y149.36
;TYPE:WALL-INNER
G1 F720 X152.07 Y146.25 E242.62363
G1 X154.25 Y146.25 E242.66899
G1 X154.25 Y148.37 E242.71308
G1 X151.13 Y149.36 E242.78110
G0 F6000 X150.38 Y150.12
;TYPE:WALL-OUTER
G1 F720 X151.70 Y145.75 E242.87600
G1 X154.75 Y145.75 E242.93948
G1 X154.75 Y148.74 E243.00159
G1 X150.38 Y150.12 E243.09693
G0 F6000 X151.52 Y149.05
;TYPE:FILL
G1 F720 X151.51 Y148.68 E243.09963
G1 X152.06 Y148.88 E243.11169
G0 F6000 X152.60 Y148.71
G1 F720 X151.76 Y147.87 E243.13633
G0 F6000 X151.92 Y147.33
G1 F720 X153.13 Y148.54 E243.17196
G0 F6000 X153.67 Y148.37
G1 F720 X152.09 Y146.78 E243.21855
G0 F6000 X152.44 Y146.42
G1 F720 X154.07 Y148.06 E243.26674
G0 F6000 X154.07 Y147.36
G1 F720 X153.14 Y146.42 E243.29413
G0 F6000 X153.85 Y146.42
G1 F720 X154.07 Y146.65 E243.30075
G0 F6000 X154.25 Y155.25
;TYPE:WALL-INNER
G1 F720 X154.25 Y157.37 E243.34484
G1 X151.13 Y158.36 E243.41286
G1 X152.07 Y155.25 E243.48033
G1 X154.25 Y155.25 E243.52569
G0 F6000 X154.75 Y154.75
;TYPE:WALL-OUTER
G1 F720 X154.75 Y157.74 E243.58778
G1 X150.38 Y159.12 E243.68312
G1 X151.70 Y154.75 E243.77802
G1 X154.75 Y154.75 E243.84150
G0 F6000 X154.07 Y155.84
;TYPE:FILL
G1 F720 X153.66 Y155.42 E243.85381
G0 F6000 X152.95 Y155.42
G1 F720 X154.07 Y156.55 E243.88689
G0 F6000 X154.06 Y157.24
G1 F720 X152.24 Y155.42 E243.94041
G0 F6000 X152.04 Y155.93
G1 F720 X153.53 Y157.41 E243.98404
G0 F6000 X152.99 Y157.59
G1 F720 X151.88 Y156.47 E244.01666
G0 F6000 X151.72 Y157.02
G1 F720 X152.45 Y157.75 E244.03830
G0 F6000 X151.91 Y157.92
G1 F720 X151.55 Y157.56 E244.04897
G0 F6000 X160.13 Y149.36
;TYPE:WALL-INNER
G1 F720 X161.07 Y146.25 E244.11643
G1 X163.25 Y146.25 E244.16181
G1 X163.25 Y148.37 E244.20590
G1 X160.13 Y149.36 E244.27392
G0 F6000 X159.38 Y150.12
;TYPE:WALL-OUTER
G1 F720 X160.69 Y145.75 E244.36881
G1 X163.75 Y145.75 E244.43232
G1 X163.75 Y148.74 E244.49443
G1 X159.38 Y150.12 E244.58977
G0 F6000 X160.67 Y149.00
;TYPE:FILL
G1 F720 X160.56 Y148.54 E244.59541
G1 X161.21 Y148.83 E244.61023
G0 F6000 X161.74 Y148.66
G1 F720 X160.80 Y147.72 E244.63788
G0 F6000 X160.97 Y147.18
G1 F720 X162.28 Y148.49 E244.67653
G0 F6000 X162.82 Y148.32
G1 F720 X161.13 Y146.63 E244.72612
G0 F6000 X161.63 Y146.42
G1 F720 X163.07 Y147.87 E244.76866
G0 F6000 X163.07 Y147.16
G1 F720 X162.33 Y146.42 E244.79041
G0 F6000 X163.25 Y155.25
;TYPE:WALL-INNER
G1 F720 X163.25 Y157.37 E244.83450
G1 X160.13 Y158.36 E244.90252
G1 X161.07 Y155.25 E244.96999
G1 X163.25 Y155.25 E245.01537
G0 F6000 X163.75 Y154.75
;TYPE:WALL-OUTER
G1 F720 X163.75 Y157.74 E245.07746
G1 X159.38 Y159.12 E245.17280
G1 X160.69 Y154.75 E245.26769
G1 X163.75 Y154.75 E245.33120
G0 F6000 X163.07 Y155.65
;TYPE:FILL
G1 F720 X162.85 Y155.42 E245.33781
G0 F6000 X162.14 Y155.42
G1 F720 X163.07 Y156.36 E245.36521
G0 F6000 X163.07 Y157.06
G1 F720 X161.44 Y155.42 E245.41340
G0 F6000 X161.09 Y155.78
G1 F720 X162.67 Y157.37 E245.46002
G0 F6000 X162.13 Y157.54
G1 F720 X160.92 Y156.33 E245.49568
G0 F6000 X160.76 Y156.87
G1 F720 X161.60 Y157.71 E245.52032
G0 F6000 X161.06 Y157.88
G1 F720 X160.51 Y157.69 E245.53397
G1 X160.52 Y158.05 E245.54151
;LAYER:11
G0 F6000 X160.13 Y158.36 Z1.40
;TYPE:WALL-INNER
G1 F720 X161.07 Y155.25 E245.60898
G1 X163.25 Y155.25 E245.65436
G1 X163.25 Y157.37 E245.69845
G1 X160.13 Y158.36 E245.76647
G0 F6000 X159.38 Y159.12
;TYPE:WALL-OUTER
G1 F720 X160.69 Y154.75 E245.86136
G1 X163.75 Y154.75 E245.92486
G1 X163.75 Y157.74 E245.98696
G1 X159.38 Y159.12 E246.08230
G0 F6000 X160.49 Y158.06
;TYPE:FILL
G1 F720 X163.07 Y155.48 E246.15819
G0 F6000 X162.42 Y155.42
G1 F720 X160.67 Y157.18 E246.20971
G0 F6000 X161.53 Y157.73
G1 F720 X163.07 Y156.19 E246.25519
G0 F6000 X163.07 Y156.89
G1 F720 X162.56 Y157.41 E246.27027
G0 F6000 X160.97 Y156.16
G1 F720 X161.71 Y155.42 E246.29204
G0 F6000 X154.25 Y155.25
;TYPE:WALL-INNER
G1 F720 X154.25 Y157.37 E246.33613
G1 X151.13 Y158.36 E246.40415
G1 X152.07 Y155.25 E246.47162
G1 X154.25 Y155.25 E246.51698
G0 F6000 X154.75 Y154.75
;TYPE:WALL-OUTER
G1 F720 X154.75 Y157.74 E246.57907
G1 X150.38 Y159.12 E246.67441
G1 X151.70 Y154.75 E246.76931
G1 X154.75 Y154.75 E246.83280
G0 F6000 X153.94 Y155.42
;TYPE:FILL
G1 F720 X151.45 Y157.91 E246.90597
G0 F6000 X152.25 Y157.82
G1 F720 X154.07 Y155.99 E246.95974
G0 F6000 X154.07 Y156.70
G1 F720 X153.28 Y157.49 E246.98309
G0 F6000 X151.75 Y156.90
G1 F720 X153.23 Y155.42 E247.02648
G0 F6000 X152.52 Y155.42
G1 F720 X152.06 Y155.89 E247.04013
G0 F6000 X160.13 Y149.36
;TYPE:WALL-INNER
G1 F720 X161.07 Y146.25 E247.10759
G1 X163.25 Y146.25 E247.15297
G1 X163.25 Y148.37 E247.19706
G1 X160.13 Y149.36 E247.26508
G0 F6000 X159.38 Y150.12
;TYPE:WALL-OUTER
G1 F720 X160.69 Y145.75 E247.35997
G1 X163.75 Y145.75 E247.42348
G1 X163.75 Y148.74 E247.48559
G1 X159.38 Y150.12 E247.58092
G0 F6000 X160.44 Y148.91
;TYPE:FILL
G1 F720 X162.93 Y146.42 E247.65410
G0 F6000 X163.07 Y146.99
G1 F720 X161.25 Y148.82 E247.70785
G0 F6000 X160.75 Y147.90
G1 F720 X162.23 Y146.42 E247.75127
G0 F6000 X161.52 Y146.42
G1 F720 X161.05 Y146.89 E247.76497
G0 F6000 X162.28 Y148.49
G1 F720 X163.07 Y147.70 E247.78834
G0 F6000 X154.25 Y148.37
;TYPE:WALL-INNER
G1 F720 X151.13 Y149.36 E247.85636
G1 X152.07 Y146.25 E247.92383
G1 X154.25 Y146.25 E247.96919
G1 X154.25 Y148.37 E248.01328
G0 F6000 X154.75 Y148.74
;TYPE:WALL-OUTER
G1 F720 X150.38 Y150.12 E248.10862
G1 X151.70 Y145.75 E248.20351
G1 X154.75 Y145.75 E248.26700
G1 X154.75 Y148.74 E248.32911
G0 F6000 X154.07 Y147.51
;TYPE:FILL
G1 F720 X153.00 Y148.58 E248.36072
G0 F6000 X151.96 Y148.91
G1 F720 X154.07 Y146.80 E248.42275
G0 F6000 X153.74 Y146.42
G1 F720 X151.53 Y148.64 E248.48782
G0 F6000 X151.83 Y147.62
G1 F720 X153.03 Y146.42 E248.52311
G0 F6000 X152.33 Y146.42
G1 F720 X152.14 Y146.61 E248.52864
G0 F6000 X145.25 Y146.25
;TYPE:WALL-INNER
G1 F720 X145.25 Y148.37 E248.57273
G1 X142.13 Y149.36 E248.64077
G1 X143.07 Y146.25 E248.70824
G1 X145.25 Y146.25 E248.75360
G0 F6000 X145.75 Y145.75
;TYPE:WALL-OUTER
G1 F720 X145.75 Y148.74 E248.81571
G1 X141.38 Y150.12 E248.91107
G1 X142.70 Y145.75 E249.00596
G1 X145.75 Y145.75 E249.06945
G0 F6000 X145.07 Y146.61
;TYPE:FILL
G1 F720 X142.68 Y149.00 E249.13978
G0 F6000 X142.61 Y148.36
G1 F720 X144.55 Y146.42 E249.19676
G0 F6000 X143.84 Y146.42
G1 F720 X142.92 Y147.35 E249.22396
G0 F6000 X143.72 Y148.67
G1 F720 X145.07 Y147.31 E249.26392
G0 F6000 X145.07 Y148.02
G1 F720 X144.75 Y148.35 E249.27348
;LAYER:12
G0 F6000 X145.25 Y148.37 Z1.50
;TYPE:WALL-INNER
G1 F720 X142.13 Y149.36 E249.34152
G1 X143.07 Y146.25 E249.40900
G1 X145.25 Y146.25 E249.45435
G1 X145.25 Y148.37 E249.49844
G0 F6000 X145.75 Y148.74
;TYPE:WALL-OUTER
G1 F720 X141.38 Y150.12 E249.59380
G1 X142.70 Y145.75 E249.68870
G1 X145.75 Y145.75 E249.75218
G1 X145.75 Y148.74 E249.81429
G0 F6000 X145.06 Y148.25
;TYPE:FILL
G1 F720 X143.24 Y146.42 E249.86783
G0 F6000 X143.04 Y146.93
G1 F720 X144.53 Y148.41 E249.91145
G0 F6000 X143.99 Y148.59
G1 F720 X142.88 Y147.47 E249.94409
G0 F6000 X142.72 Y148.02
G1 F720 X143.45 Y148.75 E249.96575
G0 F6000 X142.91 Y148.93
G1 F720 X142.55 Y148.56 E249.97644
G0 F6000 X143.95 Y146.42
G1 F720 X145.07 Y147.55 E250.00951
G0 F6000 X145.07 Y146.84
G1 F720 X144.66 Y146.42 E250.02180
G0 F6000 X151.13 Y149.36
;TYPE:WALL-INNER
G1 F720 X152.07 Y146.25 E250.08927
G1 X154.25 Y146.25 E250.13463
G1 X154.25 Y148.37 E250.17872
G1 X151.13 Y149.36 E250.24674
G0 F6000 X150.38 Y150.12
;TYPE:WALL-OUTER
G1 F720 X151.70 Y145.75 E250.34164
G1 X154.75 Y145.75 E250.40512
G1 X154.75 Y148.74 E250.46723
G1 X150.38 Y150.12 E250.56257
G0 F6000 X151.52 Y149.05
;TYPE:FILL
G1 F720 X151.51 Y148.68 E250.56526
G1 X152.06 Y148.88 E250.57733
G0 F6000 X152.60 Y148.71
G1 F720 X151.76 Y147.87 E250.60196
G0 F6000 X151.92 Y147.33
G1 F720 X153.13 Y148.54 E250.63760
G0 F6000 X153.67 Y148.37
G1 F720 X152.09 Y146.78 E250.68419
G0 F6000 X152.44 Y146.42
G1 F720 X154.07 Y148.06 E250.73237
G0 F6000 X154.07 Y147.36
G1 F720 X153.14 Y146.42 E250.75977
G0 F6000 X153.85 Y146.42
G1 F720 X154.07 Y146.65 E250.76639
G0 F6000 X154.25 Y155.25
;TYPE:WALL-INNER
G1 F720 X154.25 Y157.37 E250.81048
G1 X151.13 Y158.36 E250.87850
G1 X152.07 Y155.25 E250.94597
G1 X154.25 Y155.25 E250.99133
G0 F6000 X154.75 Y154.75
;TYPE:WALL-OUTER
G1 F720 X154.75 Y157.74 E251.05342
G1 X150.38 Y159.12 E251.14876
G1 X151.70 Y154.75 E251.24366
G1 X154.75 Y154.75 E251.30714
G0 F6000 X154.07 Y155.84
;TYPE:FILL
G1 F720 X153.66 Y155.42 E251.31945
G0 F6000 X152.95 Y155.42
G1 F720 X154.07 Y156.55 E251.35253
G0 F6000 X154.06 Y157.24
G1 F720 X152.24 Y155.42 E251.40605
G0 F6000 X152.04 Y155.93
G1 F720 X153.53 Y157.41 E251.44968
G0 F6000 X152.99 Y157.59
G1 F720 X151.88 Y156.47 E251.48230
G0 F6000 X151.72 Y157.02
G1 F720 X152.45 Y157.75 E251.50393
G0 F6000 X151.91 Y157.92
G1 F720 X151.55 Y157.56 E251.51461
G0 F6000 X160.13 Y149.36
;TYPE:WALL-INNER
G1 F720 X161.07 Y146.25 E251.58207
G1 X163.25 Y146.25 E251.62745
G1 X163.25 Y148.37 E251.67154
G1 X160.13 Y149.36 E251.73956
G0 F6000 X159.38 Y150.12
;TYPE:WALL-OUTER
G1 F720 X160.69 Y145.75 E251.83445
G1 X163.75 Y145.75 E251.89796
G1 X163.75 Y148.74 E251.96007
G1 X159.38 Y150.12 E252.05541
G0 F6000 X160.67 Y149.00
;TYPE:FILL
G1 F720 X160.56 Y148.54 E252.06105
G1 X161.21 Y148.83 E252.07587
G0 F6000 X161.74 Y148.66
G1 F720 X160.80 Y147.72 E252.10352
G0 F6000 X160.97 Y147.18
G1 F720 X162.28 Y148.49 E252.14216
G0 F6000 X162.82 Y148.32
G1 F720 X161.13 Y146.63 E252.19176
G0 F6000 X161.63 Y146.42
G1 F720 X163.07 Y147.87 E252.23430
G0 F6000 X163.07 Y147.16
G1 F720 X162.33 Y146.42 E252.25605
G0 F6000 X163.25 Y155.25
;TYPE:WALL-INNER
G1 F720 X163.25 Y157.37 E252.30014
G1 X160.13 Y158.36 E252.36816
G1 X161.07 Y155.25 E252.43563
G1 X163.25 Y155.25 E252.48101
G0 F6000 X163.75 Y154.75
;TYPE:WALL-OUTER
G1 F720 X163.75 Y157.74 E252.54310
G1 X159.38 Y159.12 E252.63844
G1 X160.69 Y154.75 E252.73333
G1 X163.75 Y154.75 E252.79684
G0 F6000 X163.07 Y155.65
;TYPE:FILL
G1 F720 X162.85 Y155.42 E252.80345
G0 F6000 X162.14 Y155.42
G1 F720 X163.07 Y156.36 E252.83085
G0 F6000 X163.07 Y157.06
G1 F720 X161.44 Y155.42 E252.87903
G0 F6000 X161.09 Y155.78
G1 F720 X162.67 Y157.37 E252.92566
G0 F6000 X162.13 Y157.54
G1 F720 X160.92 Y156.33 E252.96132
G0 F6000 X160.76 Y156.87
G1 F720 X161.60 Y157.71 E252.98596
G0 F6000 X161.06 Y157.88
G1 F720 X160.51 Y157.69 E252.99961
G1 X160.52 Y158.05 E253.00715
;LAYER:13
G0 F6000 X160.13 Y158.36 Z1.60
;TYPE:WALL-INNER
G1 F720 X161.07 Y155.25 E253.07462
G1 X163.25 Y155.25 E253.12000
G1 X163.25 Y157.37 E253.16409
G1 X160.13 Y158.36 E253.23211
G0 F6000 X159.38 Y159.12
;TYPE:WALL-OUTER
G1 F720 X160.69 Y154.75 E253.32700
G1 X163.75 Y154.75 E253.39050
G1 X163.75 Y157.74 E253.45260
G1 X159.38 Y159.12 E253.54794
G0 F6000 X160.49 Y158.06
;TYPE:FILL
G1 F720 X163.07 Y155.48 E253.62383
G0 F6000 X162.42 Y155.42
G1 F720 X160.67 Y157.18 E253.67535
G0 F6000 X161.53 Y157.73
G1 F720 X163.07 Y156.19 E253.72083
G0 F6000 X163.07 Y156.89
G1 F720 X162.56 Y157.41 E253.73591
G0 F6000 X160.97 Y156.16
G1 F720 X161.71 Y155.42 E253.75768
G0 F6000 X154.25 Y155.25
;TYPE:WALL-INNER
G1 F720 X154.25 Y157.37 E253.80177
G1 X151.13 Y158.36 E253.86979
G1 X152.07 Y155.25 E253.93726
G1 X154.25 Y155.25 E253.98262
G0 F6000 X154.75 Y154.75
;TYPE:WALL-OUTER
G1 F720 X154.75 Y157.74 E254.04471
G1 X150.38 Y159.12 E254.14005
G1 X151.70 Y154.75 E254.23495
G1 X154.75 Y154.75 E254.29843
G0 F6000 X153.94 Y155.42
;TYPE:FILL
G1 F720 X151.45 Y157.91 E254.37161
G0 F6000 X152.25 Y157.82
G1 F720 X154.07 Y155.99 E254.42538
G0 F6000 X154.07 Y156.70
G1 F720 X153.28 Y157.49 E254.44873
G0 F6000 X151.75 Y156.90
G1 F720 X153.23 Y155.42 E254.49212
G0 F6000 X152.52 Y155.42
G1 F720 X152.06 Y155.89 E254.50576
G0 F6000 X160.13 Y149.36
;TYPE:WALL-INNER
G1 F720 X161.07 Y146.25 E254.57323
G1 X163.25 Y146.25 E254.61861
G1 X163.25 Y148.37 E254.66270
G1 X160.13 Y149.36 E254.73072
G0 F6000 X159.38 Y150.12
;TYPE:WALL-OUTER
G1 F720 X160.69 Y145.75 E254.82561
G1 X163.75 Y145.75 E254.88912
G1 X163.75 Y148.74 E254.95123
G1 X159.38 Y150.12 E255.04656
G0 F6000 X160.44 Y148.91
;TYPE:FILL
G1 F720 X162.93 Y146.42 E255.11974
G0 F6000 X163.07 Y146.99
G1 F720 X161.25 Y148.82 E255.17349
G0 F6000 X160.75 Y147.90
G1 F720 X162.23 Y146.42 E255.21691
G0 F6000 X161.52 Y146.42
G1 F720 X161.05 Y146.89 E255.23061
G0 F6000 X162.28 Y148.49
G1 F720 X163.07 Y147.70 E255.25398
G0 F6000 X154.25 Y148.37
;TYPE:WALL-INNER
G1 F720 X151.13 Y149.36 E255.32200
G1 X152.07 Y146.25 E255.38947
G1 X154.25 Y146.25 E255.43483
G1 X154.25 Y148.37 E255.47892
G0 F6000 X154.75 Y148.74
;TYPE:WALL-OUTER
G1 F720 X150.38 Y150.12 E255.57426
G1 X151.70 Y145.75 E255.66915
G1 X154.75 Y145.75 E255.73264
G1 X154.75 Y148.74 E255.79475
G0 F6000 X154.07 Y147.51
;TYPE:FILL
G1 F720 X153.00 Y148.58 E255.82635
G0 F6000 X151.96 Y148.91
G1 F720 X154.07 Y146.80 E255.88838
G0 F6000 X153.74 Y146.42
G1 F720 X151.53 Y148.64 E255.95346
G0 F6000 X151.83 Y147.62
G1 F720 X153.03 Y146.42 E255.98875
G0 F6000 X152.33 Y146.42
G1 F720 X152.14 Y146.61 E255.99428
G0 F6000 X145.25 Y146.25
;TYPE:WALL-INNER
G1 F720 X145.25 Y148.37 E256.03837
G1 X142.13 Y149.36 E256.10641
G1 X143.07 Y146.25 E256.17388
G1 X145.25 Y146.25 E256.21924
G0 F6000 X145.75 Y145.75
;TYPE:WALL-OUTER
G1 F720 X145.75 Y148.74 E256.28135
G1 X141.38 Y150.12 E256.37671
G1 X142.70 Y145.75 E256.47160
G1 X145.75 Y145.75 E256.53509
G0 F6000 X145.07 Y146.61
;TYPE:FILL
G1 F720 X142.68 Y149.00 E256.60542
G0 F6000 X142.61 Y148.36
G1 F720 X144.55 Y146.42 E256.66239
G0 F6000 X143.84 Y146.42
G1 F720 X142.92 Y147.35 E256.68960
G0 F6000 X143.72 Y148.67
G1 F720 X145.07 Y147.31 E256.72955
G0 F6000 X145.07 Y148.02
G1 F720 X144.75 Y148.35 E256.73912
;LAYER:14
G0 F6000 X145.25 Y148.37 Z1.70
;TYPE:WALL-INNER
G1 F720 X142.13 Y149.36 E256.80716
G1 X143.07 Y146.25 E256.87463
G1 X145.25 Y146.25 E256.91999
G1 X145.25 Y148.37 E256.96408
G0 F6000 X145.75 Y148.74
;TYPE:WALL-OUTER
G1 F720 X141.38 Y150.12 E257.05944
G1 X142.70 Y145.75 E257.15433
G1 X145.75 Y145.75 E257.21782
G1 X145.75 Y148.74 E257.27993
G0 F6000 X145.06 Y148.25
;TYPE:FILL
G1 F720 X143.24 Y146.42 E257.33347
G0 F6000 X143.04 Y146.93
G1 F720 X144.53 Y148.41 E257.37709
G0 F6000 X143.99 Y148.59
G1 F720 X142.88 Y147.47 E257.40973
G0 F6000 X142.72 Y148.02
G1 F720 X143.45 Y148.75 E257.43139
G0 F6000 X142.91 Y148.93
G1 F720 X142.55 Y148.56 E257.44208
G0 F6000 X143.95 Y146.42
G1 F720 X145.07 Y147.55 E257.47515
G0 F6000 X145.07 Y146.84
G1 F720 X144.66 Y146.42 E257.48744
G0 F6000 X151.13 Y149.36
;TYPE:WALL-INNER
G1 F720 X152.07 Y146.25 E257.55491
G1 X154.25 Y146.25 E257.60027
G1 X154.25 Y148.37 E257.64436
G1 X151.13 Y149.36 E257.71238
G0 F6000 X150.38 Y150.12
;TYPE:WALL-OUTER
G1 F720 X151.70 Y145.75 E257.80728
G1 X154.75 Y145.75 E257.87076
G1 X154.75 Y148.74 E257.93287
G1 X150.38 Y150.12 E258.02821
G0 F6000 X151.52 Y149.05
;TYPE:FILL
G1 F720 X151.51 Y148.68 E258.03090
G1 X152.06 Y148.88 E258.04297
G0 F6000 X152.60 Y148.71
G1 F720 X151.76 Y147.87 E258.06760
G0 F6000 X151.92 Y147.33
G1 F720 X153.13 Y148.54 E258.10323
G0 F6000 X153.67 Y148.37
G1 F720 X152.09 Y146.78 E258.14983
G0 F6000 X152.44 Y146.42
G1 F720 X154.07 Y148.06 E258.19801
G0 F6000 X154.07 Y147.36
G1 F720 X153.14 Y146.42 E258.22541
G0 F6000 X153.85 Y146.42
G1 F720 X154.07 Y146.65 E258.23203
G0 F6000 X154.25 Y155.25
;TYPE:WALL-INNER
G1 F720 X154.25 Y157.37 E258.27612
G1 X151.13 Y158.36 E258.34414
G1 X152.07 Y155.25 E258.41161
G1 X154.25 Y155.25 E258.45697
G0 F6000 X154.75 Y154.75
;TYPE:WALL-OUTER
G1 F720 X154.75 Y157.74 E258.51906
G1 X150.38 Y159.12 E258.61440
G1 X151.70 Y154.75 E258.70930
G1 X154.75 Y154.75 E258.77278
G0 F6000 X154.07 Y155.84
;TYPE:FILL
G1 F720 X153.66 Y155.42 E258.78509
G0 F6000 X152.95 Y155.42
G1 F720 X154.07 Y156.55 E258.81817
G0 F6000 X154.06 Y157.24
G1 F720 X152.24 Y155.42 E258.87169
G0 F6000 X152.04 Y155.93
G1 F720 X153.53 Y157.41 E258.91532
G0 F6000 X152.99 Y157.59
G1 F720 X151.88 Y156.47 E258.94794
G0 F6000 X151.72 Y157.02
G1 F720 X152.45 Y157.75 E258.96957
G0 F6000 X151.91 Y157.92
G1 F720 X151.55 Y157.56 E258.98025
G0 F6000 X160.13 Y149.36
;TYPE:WALL-INNER
G1 F720 X161.07 Y146.25 E259.04771
G1 X163.25 Y146.25 E259.09309
G1 X163.25 Y148.37 E259.13718
G1 X160.13 Y149.36 E259.20520
G0 F6000 X159.38 Y150.12
;TYPE:WALL-OUTER
G1 F720 X160.69 Y145.75 E259.30009
G1 X163.75 Y145.75 E259.36360
G1 X163.75 Y148.74 E259.42571
G1 X159.38 Y150.12 E259.52104
G0 F6000 X160.67 Y149.00
;TYPE:FILL
G1 F720 X160.56 Y148.54 E259.52669
G1 X161.21 Y148.83 E259.54151
G0 F6000 X161.74 Y148.66
G1 F720 X160.80 Y147.72 E259.56916
G0 F6000 X160.97 Y147.18
G1 F720 X162.28 Y148.49 E259.60780
G0 F6000 X162.82 Y148.32
G1 F720 X161.13 Y146.63 E259.65740
G0 F6000 X161.63 Y146.42
G1 F720 X163.07 Y147.87 E259.69994
G0 F6000 X163.07 Y147.16
G1 F720 X162.33 Y146.42 E259.72169
G0 F6000 X163.25 Y155.25
;TYPE:WALL-INNER
G1 F720 X163.25 Y157.37 E259.76578
G1 X160.13 Y158.36 E259.83380
G1 X161.07 Y155.25 E259.90127
G1 X163.25 Y155.25 E259.94665
G0 F6000 X163.75 Y154.75
;TYPE:WALL-OUTER
G1 F720 X163.75 Y157.74 E260.00874
G1 X159.38 Y159.12 E260.10408
G1 X160.69 Y154.75 E260.19897
G1 X163.75 Y154.75 E260.26248
G0 F6000 X163.07 Y155.65
;TYPE:FILL
G1 F720 X162.85 Y155.42 E260.26909
G0 F6000 X162.14 Y155.42
G1 F720 X163.07 Y156.36 E260.29649
G0 F6000 X163.07 Y157.06
G1 F720 X161.44 Y155.42 E260.34467
G0 F6000 X161.09 Y155.78
G1 F720 X162.67 Y157.37 E260.39130
G0 F6000 X162.13 Y157.54
G1 F720 X160.92 Y156.33 E260.42696
G0 F6000 X160.76 Y156.87
G1 F720 X161.60 Y157.71 E260.45160
G0 F6000 X161.06 Y157.88
G1 F720 X160.51 Y157.69 E260.46524
G1 X160.52 Y158.05 E260.47279
;LAYER:15
G0 F6000 X160.13 Y158.36 Z1.80
;TYPE:WALL-INNER
G1 F720 X161.07 Y155.25 E260.54026
G1 X163.25 Y155.25 E260.58564
G1 X163.25 Y157.37 E260.62973
G1 X160.13 Y158.36 E260.69775
G0 F6000 X159.38 Y159.12
;TYPE:WALL-OUTER
G1 F720 X160.69 Y154.75 E260.79264
G1 X163.75 Y154.75 E260.85614
G1 X163.75 Y157.74 E260.91824
G1 X159.38 Y159.12 E261.01358
G0 F6000 X160.49 Y158.06
;TYPE:FILL
G1 F720 X163.07 Y155.48 E261.08947
G0 F6000 X162.42 Y155.42
G1 F720 X160.67 Y157.18 E261.14099
G0 F6000 X161.53 Y157.73
G1 F720 X163.07 Y156.19 E261.18647
G0 F6000 X163.07 Y156.89
G1 F720 X162.56 Y157.41 E261.20155
G0 F6000 X160.97 Y156.16
G1 F720 X161.71 Y155.42 E261.22332
G0 F6000 X154.25 Y155.25
;TYPE:WALL-INNER
G1 F720 X154.25 Y157.37 E261.26741
G1 X151.13 Y158.36 E261.33543
G1 X152.07 Y155.25 E261.40290
G1 X154.25 Y155.25 E261.44826
G0 F6000 X154.75 Y154.75
;TYPE:WALL-OUTER
G1 F720 X154.75 Y157.74 E261.51035
G1 X150.38 Y159.12 E261.60569
G1 X151.70 Y154.75 E261.70059
G1 X154.75 Y154.75 E261.76407
G0 F6000 X153.94 Y155.42
;TYPE:FILL
G1 F720 X151.45 Y157.91 E261.83725
G0 F6000 X152.25 Y157.82
G1 F720 X154.07 Y155.99 E261.89102
G0 F6000 X154.07 Y156.70
G1 F720 X153.28 Y157.49 E261.91437
G0 F6000 X151.75 Y156.90
G1 F720 X153.23 Y155.42 E261.95776
G0 F6000 X152.52 Y155.42
G1 F720 X152.06 Y155.89 E261.97140
G0 F6000 X160.13 Y149.36
;TYPE:WALL-INNER
G1 F720 X161.07 Y146.25 E262.03887
G1 X163.25 Y146.25 E262.08425
G1 X163.25 Y148.37 E262.12834
G1 X160.13 Y149.36 E262.19636
G0 F6000 X159.38 Y150.12
;TYPE:WALL-OUTER
G1 F720 X160.69 Y145.75 E262.29125
G1 X163.75 Y145.75 E262.35475
G1 X163.75 Y148.74 E262.41687
G1 X159.38 Y150.12 E262.51220
G0 F6000 X160.44 Y148.91
;TYPE:FILL
G1 F720 X162.93 Y146.42 E262.58538
G0 F6000 X163.07 Y146.99
G1 F720 X161.25 Y148.82 E262.63913
G0 F6000 X160.75 Y147.90
G1 F720 X162.23 Y146.42 E262.68255
G0 F6000 X161.52 Y146.42
G1 F720 X161.05 Y146.89 E262.69625
G0 F6000 X162.28 Y148.49
G1 F720 X163.07 Y147.70 E262.71962
G0 F6000 X154.25 Y148.37
;TYPE:WALL-INNER
G1 F720 X151.13 Y149.36 E262.78764
G1 X152.07 Y146.25 E262.85511
G1 X154.25 Y146.25 E262.90047
G1 X154.25 Y148.37 E262.94456
G0 F6000 X154.75 Y148.74
;TYPE:WALL-OUTER
G1 F720 X150.38 Y150.12 E263.03990
G1 X151.70 Y145.75 E263.13479
G1 X154.75 Y145.75 E263.19828
G1 X154.75 Y148.74 E263.26039
G0 F6000 X154.07 Y147.51
;TYPE:FILL
G1 F720 X153.00 Y148.58 E263.29199
G0 F6000 X151.96 Y148.91
G1 F720 X154.07 Y146.80 E263.35402
G0 F6000 X153.74 Y146.42
G1 F720 X151.53 Y148.64 E263.41910
G0 F6000 X151.83 Y147.62
G1 F720 X153.03 Y146.42 E263.45439
G0 F6000 X152.33 Y146.42
G1 F720 X152.14 Y146.61 E263.45992
G0 F6000 X145.25 Y146.25
;TYPE:WALL-INNER
G1 F720 X145.25 Y148.37 E263.50401
G1 X142.13 Y149.36 E263.57205
G1 X143.07 Y146.25 E263.63952
G1 X145.25 Y146.25 E263.68488
G0 F6000 X145.75 Y145.75
;TYPE:WALL-OUTER
G1 F720 X145.75 Y148.74 E263.74699
G1 X141.38 Y150.12 E263.84234
G1 X142.70 Y145.75 E263.93724
G1 X145.75 Y145.75 E264.00073
G0 F6000 X145.07 Y146.61
;TYPE:FILL
G1 F720 X142.68 Y149.00 E264.07106
G0 F6000 X142.61 Y148.36
G1 F720 X144.55 Y146.42 E264.12803
G0 F6000 X143.84 Y146.42
G1 F720 X142.92 Y147.35 E264.15524
G0 F6000 X143.72 Y148.67
G1 F720 X145.07 Y147.31 E264.19519
G0 F6000 X145.07 Y148.02
G1 F720 X144.75 Y148.35 E264.20476
;LAYER:16
G0 F6000 X145.25 Y148.37 Z1.90
;TYPE:WALL-INNER
G1 F720 X142.13 Y149.36 E264.27280
G1 X143.07 Y146.25 E264.34027
G1 X145.25 Y146.25 E264.38563
G1 X145.25 Y148.37 E264.42972
G0 F6000 X145.75 Y148.74
;TYPE:WALL-OUTER
G1 F720 X141.38 Y150.12 E264.52508
G1 X142.70 Y145.75 E264.61997
G1 X145.75 Y145.75 E264.68346
G1 X145.75 Y148.74 E264.74557
G0 F6000 X145.06 Y148.25
;TYPE:FILL
G1 F720 X143.24 Y146.42 E264.79911
G0 F6000 X143.04 Y146.93
G1 F720 X144.53 Y148.41 E264.84273
G0 F6000 X143.99 Y148.59
G1 F720 X142.88 Y147.47 E264.87537
G0 F6000 X142.72 Y148.02
G1 F720 X143.45 Y148.75 E264.89703
G0 F6000 X142.91 Y148.93
G1 F720 X142.55 Y148.56 E264.90772
G0 F6000 X143.95 Y146.42
G1 F720 X145.07 Y147.55 E264.94079
G0 F6000 X145.07 Y146.84
G1 F720 X144.66 Y146.42 E264.95308
G0 F6000 X151.13 Y149.36
;TYPE:WALL-INNER
G1 F720 X152.07 Y146.25 E265.02055
G1 X154.25 Y146.25 E265.06591
G1 X154.25 Y148.37 E265.11000
G1 X151.13 Y149.36 E265.17802
G0 F6000 X150.38 Y150.12
;TYPE:WALL-OUTER
G1 F720 X151.70 Y145.75 E265.27291
G1 X154.75 Y145.75 E265.33640
G1 X154.75 Y148.74 E265.39851
G1 X150.38 Y150.12 E265.49385
G0 F6000 X151.52 Y149.05
;TYPE:FILL
G1 F720 X151.51 Y148.68 E265.49654
G1 X152.06 Y148.88 E265.50861
G0 F6000 X152.60 Y148.71
G1 F720 X151.76 Y147.87 E265.53324
G0 F6000 X151.92 Y147.33
G1 F720 X153.13 Y148.54 E265.56887
G0 F6000 X153.67 Y148.37
G1 F720 X152.09 Y146.78 E265.61547
G0 F6000 X152.44 Y146.42
G1 F720 X154.07 Y148.06 E265.66365
G0 F6000 X154.07 Y147.36
G1 F720 X153.14 Y146.42 E265.69105
G0 F6000 X153.85 Y146.42
G1 F720 X154.07 Y146.65 E265.69767
G0 F6000 X154.25 Y155.25
;TYPE:WALL-INNER
G1 F720 X154.25 Y157.37 E265.74176
G1 X151.13 Y158.36 E265.80978
G1 X152.07 Y155.25 E265.87725
G1 X154.25 Y155.25 E265.92261
G0 F6000 X154.75 Y154.75
;TYPE:WALL-OUTER
G1 F720 X154.75 Y157.74 E265.98470
G1 X150.38 Y159.12 E266.08004
G1 X151.70 Y154.75 E266.17494
G1 X154.75 Y154.75 E266.23842
G0 F6000 X154.07 Y155.84
;TYPE:FILL
G1 F720 X153.66 Y155.42 E266.25073
G0 F6000 X152.95 Y155.42
G1 F720 X154.07 Y156.55 E266.28381
G0 F6000 X154.06 Y157.24
G1 F720 X152.24 Y155.42 E266.33733
G0 F6000 X152.04 Y155.93
G1 F720 X153.53 Y157.41 E266.38096
G0 F6000 X152.99 Y157.59
G1 F720 X151.88 Y156.47 E266.41358
G0 F6000 X151.72 Y157.02
G1 F720 X152.45 Y157.75 E266.43521
G0 F6000 X151.91 Y157.92
G1 F720 X151.55 Y157.56 E266.44588
G0 F6000 X160.13 Y149.36
;TYPE:WALL-INNER
G1 F720 X161.07 Y146.25 E266.51335
G1 X163.25 Y146.25 E266.55873
G1 X163.25 Y148.37 E266.60282
G1 X160.13 Y149.36 E266.67084
G0 F6000 X159.38 Y150.12
;TYPE:WALL-OUTER
G1 F720 X160.69 Y145.75 E266.76573
G1 X163.75 Y145.75 E266.82924
G1 X163.75 Y148.74 E266.89135
G1 X159.38 Y150.12 E266.98668
G0 F6000 X160.67 Y149.00
;TYPE:FILL
G1 F720 X160.56 Y148.54 E266.99233
G1 X161.21 Y148.83 E267.00715
G0 F6000 X161.74 Y148.66
G1 F720 X160.80 Y147.72 E267.03480
G0 F6000 X160.97 Y147.18
G1 F720 X162.28 Y148.49 E267.07344
G0 F6000 X162.82 Y148.32
G1 F720 X161.13 Y146.63 E267.12304
G0 F6000 X161.63 Y146.42
G1 F720 X163.07 Y147.87 E267.16558
G0 F6000 X163.07 Y147.16
G1 F720 X162.33 Y146.42 E267.18733
G0 F6000 X163.25 Y155.25
;TYPE:WALL-INNER
G1 F720 X163.25 Y157.37 E267.23142
G1 X160.13 Y158.36 E267.29944
G1 X161.07 Y155.25 E267.36691
G1 X163.25 Y155.25 E267.41229
G0 F6000 X163.75 Y154.75
;TYPE:WALL-OUTER
G1 F720 X163.75 Y157.74 E267.47438
G1 X159.38 Y159.12 E267.56972
G1 X160.69 Y154.75 E267.66461
G1 X163.75 Y154.75 E267.72812
G0 F6000 X163.07 Y155.65
;TYPE:FILL
G1 F720 X162.85 Y155.42 E267.73473
G0 F6000 X162.14 Y155.42
G1 F720 X163.07 Y156.36 E267.76213
G0 F6000 X163.07 Y157.06
G1 F720 X161.44 Y155.42 E267.81031
G0 F6000 X161.09 Y155.78
G1 F720 X162.67 Y157.37 E267.85694
G0 F6000 X162.13 Y157.54
G1 F720 X160.92 Y156.33 E267.89260
G0 F6000 X160.76 Y156.87
G1 F720 X161.60 Y157.71 E267.91723
G0 F6000 X161.06 Y157.88
G1 F720 X160.51 Y157.69 E267.93088
G1 X160.52 Y158.05 E267.93843
;LAYER:17
G0 F6000 X160.13 Y158.36 Z2.00
;TYPE:WALL-INNER
G1 F720 X161.07 Y155.25 E268.00590
G1 X163.25 Y155.25 E268.05128
G1 X163.25 Y157.37 E268.09537
G1 X160.13 Y158.36 E268.16339
G0 F6000 X159.38 Y159.12
;TYPE:WALL-OUTER
G1 F720 X160.69 Y154.75 E268.25828
G1 X163.75 Y154.75 E268.32178
G1 X163.75 Y157.74 E268.38388
G1 X159.38 Y159.12 E268.47922
G0 F6000 X160.49 Y158.06
;TYPE:FILL
G1 F720 X163.07 Y155.48 E268.55511
G0 F6000 X162.42 Y155.42
G1 F720 X160.67 Y157.18 E268.60663
G0 F6000 X161.53 Y157.73
G1 F720 X163.07 Y156.19 E268.65211
G0 F6000 X163.07 Y156.89
G1 F720 X162.56 Y157.41 E268.66719
G0 F6000 X160.97 Y156.16
G1 F720 X161.71 Y155.42 E268.68896
G0 F6000 X154.25 Y155.25
;TYPE:WALL-INNER
G1 F720 X154.25 Y157.37 E268.73305
G1 X151.13 Y158.36 E268.80107
G1 X152.07 Y155.25 E268.86854
G1 X154.25 Y155.25 E268.91390
G0 F6000 X154.75 Y154.75
;TYPE:WALL-OUTER
G1 F720 X154.75 Y157.74 E268.97599
G1 X150.38 Y159.12 E269.07133
G1 X151.70 Y154.75 E269.16623
G1 X154.75 Y154.75 E269.22971
G0 F6000 X153.94 Y155.42
;TYPE:FILL
G1 F720 X151.45 Y157.91 E269.30289
G0 F6000 X152.25 Y157.82
G1 F720 X154.07 Y155.99 E269.35665
G0 F6000 X154.07 Y156.70
G1 F720 X153.28 Y157.49 E269.38001
G0 F6000 X151.75 Y156.90
G1 F720 X153.23 Y155.42 E269.42340
G0 F6000 X152.52 Y155.42
G1 F720 X152.06 Y155.89 E269.43704
G0 F6000 X160.13 Y149.36
;TYPE:WALL-INNER
G1 F720 X161.07 Y146.25 E269.50451
G1 X163.25 Y146.25 E269.54989
G1 X163.25 Y148.37 E269.59398
G1 X160.13 Y149.36 E269.66200
G0 F6000 X159.38 Y150.12
;TYPE:WALL-OUTER
G1 F720 X160.69 Y145.75 E269.75689
G1 X163.75 Y145.75 E269.82039
G1 X163.75 Y148.74 E269.88251
G1 X159.38 Y150.12 E269.97784
G0 F6000 X160.44 Y148.91
;TYPE:FILL
G1 F720 X162.93 Y146.42 E270.05101
G0 F6000 X163.07 Y146.99
G1 F720 X161.25 Y148.82 E270.10477
G0 F6000 X160.75 Y147.90
G1 F720 X162.23 Y146.42 E270.14819
G0 F6000 X161.52 Y146.42
G1 F720 X161.05 Y146.89 E270.16189
G0 F6000 X162.28 Y148.49
G1 F720 X163.07 Y147.70 E270.18526
G0 F6000 X154.25 Y148.37
;TYPE:WALL-INNER
G1 F720 X151.13 Y149.36 E270.25328
G1 X152.07 Y146.25 E270.32075
G1 X154.25 Y146.25 E270.36611
G1 X154.25 Y148.37 E270.41020
G0 F6000 X154.75 Y148.74
;TYPE:WALL-OUTER
G1 F720 X150.38 Y150.12 E270.50554
G1 X151.70 Y145.75 E270.60043
G1 X154.75 Y145.75 E270.66392
G1 X154.75 Y148.74 E270.72603
G0 F6000 X154.07 Y147.51
;TYPE:FILL
G1 F720 X153.00 Y148.58 E270.75763
G0 F6000 X151.96 Y148.91
G1 F720 X154.07 Y146.80 E270.81966
G0 F6000 X153.74 Y146.42
G1 F720 X151.53 Y148.64 E270.88474
G0 F6000 X151.83 Y147.62
G1 F720 X153.03 Y146.42 E270.92003
G0 F6000 X152.33 Y146.42
G1 F720 X152.14 Y146.61 E270.92556
G0 F6000 X145.25 Y146.25
;TYPE:WALL-INNER
G1 F720 X145.25 Y148.37 E270.96965
G1 X142.13 Y149.36 E271.03768
G1 X143.07 Y146.25 E271.10516
G1 X145.25 Y146.25 E271.15052
G0 F6000 X145.75 Y145.75
;TYPE:WALL-OUTER
G1 F720 X145.75 Y148.74 E271.21263
G1 X141.38 Y150.12 E271.30798
G1 X142.70 Y145.75 E271.40288
G1 X145.75 Y145.75 E271.46637
G0 F6000 X145.07 Y146.61
;TYPE:FILL
G1 F720 X142.68 Y149.00 E271.53670
G0 F6000 X142.61 Y148.36
G1 F720 X144.55 Y146.42 E271.59367
G0 F6000 X143.84 Y146.42
G1 F720 X142.92 Y147.35 E271.62088
G0 F6000 X143.72 Y148.67
G1 F720 X145.07 Y147.31 E271.66083
G0 F6000 X145.07 Y148.02
G1 F720 X144.75 Y148.35 E271.67040
;LAYER:18
G0 F6000 X145.25 Y148.37 Z2.10
;TYPE:WALL-INNER
G1 F720 X142.13 Y149.36 E271.73844
G1 X143.07 Y146.25 E271.80591
G1 X145.25 Y146.25 E271.85127
G1 X145.25 Y148.37 E271.89536
G0 F6000 X145.75 Y148.74
;TYPE:WALL-OUTER
G1 F720 X141.38 Y150.12 E271.99072
G1 X142.70 Y145.75 E272.08561
G1 X145.75 Y145.75 E272.14910
G1 X145.75 Y148.74 E272.21121
G0 F6000 X145.06 Y148.25
;TYPE:FILL
G1 F720 X143.24 Y146.42 E272.26475
G0 F6000 X143.04 Y146.93
G1 F720 X144.53 Y148.41 E272.30837
G0 F6000 X143.99 Y148.59
G1 F720 X142.88 Y147.47 E272.34100
G0 F6000 X142.72 Y148.02
G1 F720 X143.45 Y148.75 E272.36267
G0 F6000 X142.91 Y148.93
G1 F720 X142.55 Y148.56 E272.37336
G0 F6000 X143.95 Y146.42
G1 F720 X145.07 Y147.55 E272.40643
G0 F6000 X145.07 Y146.84
G1 F720 X144.66 Y146.42 E272.41872
G0 F6000 X151.13 Y149.36
;TYPE:WALL-INNER
G1 F720 X152.07 Y146.25 E272.48619
G1 X154.25 Y146.25 E272.53155
G1 X154.25 Y148.37 E272.57564
G1 X151.13 Y149.36 E272.64366
G0 F6000 X150.38 Y150.12
;TYPE:WALL-OUTER
G1 F720 X151.70 Y145.75 E272.73855
G1 X154.75 Y145.75 E272.80204
G1 X154.75 Y148.74 E272.86415
G1 X150.38 Y150.12 E272.95949
G0 F6000 X151.52 Y149.05
;TYPE:FILL
G1 F720 X151.51 Y148.68 E272.96218
G1 X152.06 Y148.88 E272.97425
G0 F6000 X152.60 Y148.71
G1 F720 X151.76 Y147.87 E272.99888
G0 F6000 X151.92 Y147.33
G1 F720 X153.13 Y148.54 E273.03451
G0 F6000 X153.67 Y148.37
G1 F720 X152.09 Y146.78 E273.08111
G0 F6000 X152.44 Y146.42
G1 F720 X154.07 Y148.06 E273.12929
G0 F6000 X154.07 Y147.36
G1 F720 X153.14 Y146.42 E273.15669
G0 F6000 X153.85 Y146.42
G1 F720 X154.07 Y146.65 E273.16331
G0 F6000 X154.25 Y155.25
;TYPE:WALL-INNER
G1 F720 X154.25 Y157.37 E273.20740
G1 X151.13 Y158.36 E273.27542
G1 X152.07 Y155.25 E273.34289
G1 X154.25 Y155.25 E273.38825
G0 F6000 X154.75 Y154.75
;TYPE:WALL-OUTER
G1 F720 X154.75 Y157.74 E273.45034
G1 X150.38 Y159.12 E273.54568
G1 X151.70 Y154.75 E273.64058
G1 X154.75 Y154.75 E273.70406
G0 F6000 X154.07 Y155.84
;TYPE:FILL
G1 F720 X153.66 Y155.42 E273.71637
G0 F6000 X152.95 Y155.42
G1 F720 X154.07 Y156.55 E273.74945
G0 F6000 X154.06 Y157.24
G1 F720 X152.24 Y155.42 E273.80297
G0 F6000 X152.04 Y155.93
G1 F720 X153.53 Y157.41 E273.84660
G0 F6000 X152.99 Y157.59
G1 F720 X151.88 Y156.47 E273.87922
G0 F6000 X151.72 Y157.02
G1 F720 X152.45 Y157.75 E273.90085
G0 F6000 X151.91 Y157.92
G1 F720 X151.55 Y157.56 E273.91152
G0 F6000 X160.13 Y149.36
;TYPE:WALL-INNER
G1 F720 X161.07 Y146.25 E273.97899
G1 X163.25 Y146.25 E274.02437
G1 X163.25 Y148.37 E274.06846
G1 X160.13 Y149.36 E274.13648
G0 F6000 X159.38 Y150.12
;TYPE:WALL-OUTER
G1 F720 X160.69 Y145.75 E274.23137
G1 X163.75 Y145.75 E274.29487
G1 X163.75 Y148.74 E274.35699
G1 X159.38 Y150.12 E274.45232
G0 F6000 X160.67 Y149.00
;TYPE:FILL
G1 F720 X160.56 Y148.54 E274.45797
G1 X161.21 Y148.83 E274.47279
G0 F6000 X161.74 Y148.66
G1 F720 X160.80 Y147.72 E274.50044
G0 F6000 X160.97 Y147.18
G1 F720 X162.28 Y148.49 E274.53908
G0 F6000 X162.82 Y148.32
G1 F720 X161.13 Y146.63 E274.58868
G0 F6000 X161.63 Y146.42
G1 F720 X163.07 Y147.87 E274.63122
G0 F6000 X163.07 Y147.16
G1 F720 X162.33 Y146.42 E274.65297
G0 F6000 X163.25 Y155.25
;TYPE:WALL-INNER
G1 F720 X163.25 Y157.37 E274.69706
G1 X160.13 Y158.36 E274.76508
G1 X161.07 Y155.25 E274.83255
G1 X163.25 Y155.25 E274.87793
G0 F6000 X163.75 Y154.75
;TYPE:WALL-OUTER
G1 F720 X163.75 Y157.74 E274.94002
G1 X159.38 Y159.12 E275.03536
G1 X160.69 Y154.75 E275.13025
G1 X163.75 Y154.75 E275.19376
G0 F6000 X163.07 Y155.65
;TYPE:FILL
G1 F720 X162.85 Y155.42 E275.20037
G0 F6000 X162.14 Y155.42
G1 F720 X163.07 Y156.36 E275.22777
G0 F6000 X163.07 Y157.06
G1 F720 X161.44 Y155.42 E275.27595
G0 F6000 X161.09 Y155.78
G1 F720 X162.67 Y157.37 E275.32258
G0 F6000 X162.13 Y157.54
G1 F720 X160.92 Y156.33 E275.35824
G0 F6000 X160.76 Y156.87
G1 F720 X161.60 Y157.71 E275.38287
G0 F6000 X161.06 Y157.88
G1 F720 X160.51 Y157.69 E275.39652
G1 X160.52 Y158.05 E275.40407
;LAYER:19
G0 F6000 X160.13 Y158.36 Z2.20
;TYPE:WALL-INNER
G1 F720 X161.07 Y155.25 E275.47154
G1 X163.25 Y155.25 E275.51692
G1 X163.25 Y157.37 E275.56101
G1 X160.13 Y158.36 E275.62903
G0 F6000 X159.38 Y159.12
;TYPE:WALL-OUTER
G1 F720 X160.69 Y154.75 E275.72392
G1 X163.75 Y154.75 E275.78742
G1 X163.75 Y157.74 E275.84952
G1 X159.38 Y159.12 E275.94486
G0 F6000 X160.49 Y158.06
;TYPE:FILL
G1 F720 X163.07 Y155.48 E276.02075
G0 F6000 X162.42 Y155.42
G1 F720 X160.67 Y157.18 E276.07227
G0 F6000 X161.53 Y157.73
G1 F720 X163.07 Y156.19 E276.11775
G0 F6000 X163.07 Y156.89
G1 F720 X162.56 Y157.41 E276.13283
G0 F6000 X160.97 Y156.16
G1 F720 X161.71 Y155.42 E276.15460
G0 F6000 X154.25 Y155.25
;TYPE:WALL-INNER
G1 F720 X154.25 Y157.37 E276.19869
G1 X151.13 Y158.36 E276.26671
G1 X152.07 Y155.25 E276.33418
G1 X154.25 Y155.25 E276.37954
G0 F6000 X154.75 Y154.75
;TYPE:WALL-OUTER
G1 F720 X154.75 Y157.74 E276.44163
G1 X150.38 Y159.12 E276.53697
G1 X151.70 Y154.75 E276.63187
G1 X154.75 Y154.75 E276.69535
G0 F6000 X153.94 Y155.42
;TYPE:FILL
G1 F720 X151.45 Y157.91 E276.76852
G0 F6000 X152.25 Y157.82
G1 F720 X154.07 Y155.99 E276.82229
G0 F6000 X154.07 Y156.70
G1 F720 X153.28 Y157.49 E276.84565
G0 F6000 X151.75 Y156.90
G1 F720 X153.23 Y155.42 E276.88904
G0 F6000 X152.52 Y155.42
G1 F720 X152.06 Y155.89 E276.90268
G0 F6000 X160.13 Y149.36
;TYPE:WALL-INNER
G1 F720 X161.07 Y146.25 E276.97015
G1 X163.25 Y146.25 E277.01553
G1 X163.25 Y148.37 E277.05962
G1 X160.13 Y149.36 E277.12764
G0 F6000 X159.38 Y150.12
;TYPE:WALL-OUTER
G1 F720 X160.69 Y145.75 E277.22253
G1 X163.75 Y145.75 E277.28603
G1 X163.75 Y148.74 E277.34815
G1 X159.38 Y150.12 E277.44348
G0 F6000 X160.44 Y148.91
;TYPE:FILL
G1 F720 X162.93 Y146.42 E277.51665
G0 F6000 X163.07 Y146.99
G1 F720 X161.25 Y148.82 E277.57041
G0 F6000 X160.75 Y147.90
G1 F720 X162.23 Y146.42 E277.61383
G0 F6000 X161.52 Y146.42
G1 F720 X161.05 Y146.89 E277.62753
G0 F6000 X162.28 Y148.49
G1 F720 X163.07 Y147.70 E277.65090
G0 F6000 X154.25 Y148.37
;TYPE:WALL-INNER
G1 F720 X151.13 Y149.36 E277.71892
G1 X152.07 Y146.25 E277.78639
G1 X154.25 Y146.25 E277.83175
G1 X154.25 Y148.37 E277.87584
G0 F6000 X154.75 Y148.74
;TYPE:WALL-OUTER
G1 F720 X150.38 Y150.12 E277.97118
G1 X151.70 Y145.75 E278.06607
G1 X154.75 Y145.75 E278.12956
G1 X154.75 Y148.74 E278.19167
G0 F6000 X154.07 Y147.51
;TYPE:FILL
G1 F720 X153.00 Y148.58 E278.22327
G0 F6000 X151.96 Y148.91
G1 F720 X154.07 Y146.80 E278.28530
G0 F6000 X153.74 Y146.42
G1 F720 X151.53 Y148.64 E278.35038
G0 F6000 X151.83 Y147.62
G1 F720 X153.03 Y146.42 E278.38567
G0 F6000 X152.33 Y146.42
G1 F720 X152.14 Y146.61 E278.39120
G0 F6000 X145.25 Y146.25
;TYPE:WALL-INNER
G1 F720 X145.25 Y148.37 E278.43529
G1 X142.13 Y149.36 E278.50332
G1 X143.07 Y146.25 E278.57080
G1 X145.25 Y146.25 E278.61616
G0 F6000 X145.75 Y145.75
;TYPE:WALL-OUTER
G1 F720 X145.75 Y148.74 E278.67827
G1 X141.38 Y150.12 E278.77362
G1 X142.70 Y145.75 E278.86852
G1 X145.75 Y145.75 E278.93200
G0 F6000 X145.07 Y146.61
;TYPE:FILL
G1 F720 X142.68 Y149.00 E279.00234
G0 F6000 X142.61 Y148.36
G1 F720 X144.55 Y146.42 E279.05931
G0 F6000 X143.84 Y146.42
G1 F720 X142.92 Y147.35 E279.08652
G0 F6000 X143.72 Y148.67
G1 F720 X145.07 Y147.31 E279.12647
G0 F6000 X145.07 Y148.02
G1 F720 X144.75 Y148.35 E279.13604
;LAYER:20
G0 F6000 X145.25 Y148.37 Z2.30
;TYPE:WALL-INNER
G1 F720 X142.13 Y149.36 E279.20408
G1 X143.07 Y146.25 E279.27155
G1 X145.25 Y146.25 E279.31691
G1 X145.25 Y148.37 E279.36100
G0 F6000 X145.75 Y148.74
;TYPE:WALL-OUTER
G1 F720 X141.38 Y150.12 E279.45636
G1 X142.70 Y145.75 E279.55125
G1 X145.75 Y145.75 E279.61474
G1 X145.75 Y148.74 E279.67685
G0 F6000 X145.06 Y148.25
;TYPE:FILL
G1 F720 X143.24 Y146.42 E279.73039
G0 F6000 X143.04 Y146.93
G1 F720 X144.53 Y148.41 E279.77401
G0 F6000 X143.99 Y148.59
G1 F720 X142.88 Y147.47 E279.80664
G0 F6000 X142.72 Y148.02
G1 F720 X143.45 Y148.75 E279.82831
G0 F6000 X142.91 Y148.93
G1 F720 X142.55 Y148.56 E279.83900
G0 F6000 X143.95 Y146.42
G1 F720 X145.07 Y147.55 E279.87207
G0 F6000 X145.07 Y146.84
G1 F720 X144.66 Y146.42 E279.88436
G0 F6000 X151.13 Y149.36
;TYPE:WALL-INNER
G1 F720 X152.07 Y146.25 E279.95183
G1 X154.25 Y146.25 E279.99719
G1 X154.25 Y148.37 E280.04128
G1 X151.13 Y149.36 E280.10930
G0 F6000 X150.38 Y150.12
;TYPE:WALL-OUTER
G1 F720 X151.70 Y145.75 E280.20419
G1 X154.75 Y145.75 E280.26768
G1 X154.75 Y148.74 E280.32979
G1 X150.38 Y150.12 E280.42513
G0 F6000 X151.52 Y149.05
;TYPE:FILL
G1 F720 X151.51 Y148.68 E280.42782
G1 X152.06 Y148.88 E280.43989
G0 F6000 X152.60 Y148.71
G1 F720 X151.76 Y147.87 E280.46452
G0 F6000 X151.92 Y147.33
G1 F720 X153.13 Y148.54 E280.50015
G0 F6000 X153.67 Y148.37
G1 F720 X152.09 Y146.78 E280.54675
G0 F6000 X152.44 Y146.42
G1 F720 X154.07 Y148.06 E280.59493
G0 F6000 X154.07 Y147.36
G1 F720 X153.14 Y146.42 E280.62233
G0 F6000 X153.85 Y146.42
G1 F720 X154.07 Y146.65 E280.62895
G0 F6000 X154.25 Y155.25
;TYPE:WALL-INNER
G1 F720 X154.25 Y157.37 E280.67304
G1 X151.13 Y158.36 E280.74106
G1 X152.07 Y155.25 E280.80853
G1 X154.25 Y155.25 E280.85389
G0 F6000 X154.75 Y154.75
;TYPE:WALL-OUTER
G1 F720 X154.75 Y157.74 E280.91598
G1 X150.38 Y159.12 E281.01132
G1 X151.70 Y154.75 E281.10622
G1 X154.75 Y154.75 E281.16970
G0 F6000 X154.07 Y155.84
;TYPE:FILL
G1 F720 X153.66 Y155.42 E281.18200
G0 F6000 X152.95 Y155.42
G1 F720 X154.07 Y156.55 E281.21509
G0 F6000 X154.06 Y157.24
G1 F720 X152.24 Y155.42 E281.26861
G0 F6000 X152.04 Y155.93
G1 F720 X153.53 Y157.41 E281.31224
G0 F6000 X152.99 Y157.59
G1 F720 X151.88 Y156.47 E281.34486
G0 F6000 X151.72 Y157.02
G1 F720 X152.45 Y157.75 E281.36649
G0 F6000 X151.91 Y157.92
G1 F720 X151.55 Y157.56 E281.37716
G0 F6000 X160.13 Y149.36
;TYPE:WALL-INNER
G1 F720 X161.07 Y146.25 E281.44463
G1 X163.25 Y146.25 E281.49001
G1 X163.25 Y148.37 E281.53410
G1 X160.13 Y149.36 E281.60212
G0 F6000 X159.38 Y150.12
;TYPE:WALL-OUTER
G1 F720 X160.69 Y145.75 E281.69701
G1 X163.75 Y145.75 E281.76051
G1 X163.75 Y148.74 E281.82263
G1 X159.38 Y150.12 E281.91796
G0 F6000 X160.67 Y149.00
;TYPE:FILL
G1 F720 X160.56 Y148.54 E281.92361
G1 X161.21 Y148.83 E281.93843
G0 F6000 X161.74 Y148.66
G1 F720 X160.80 Y147.72 E281.96608
G0 F6000 X160.97 Y147.18
G1 F720 X162.28 Y148.49 E282.00472
G0 F6000 X162.82 Y148.32
G1 F720 X161.13 Y146.63 E282.05432
G0 F6000 X161.63 Y146.42
G1 F720 X163.07 Y147.87 E282.09686
G0 F6000 X163.07 Y147.16
G1 F720 X162.33 Y146.42 E282.11861
G0 F6000 X163.25 Y155.25
;TYPE:WALL-INNER
G1 F720 X163.25 Y157.37 E282.16270
G1 X160.13 Y158.36 E282.23072
G1 X161.07 Y155.25 E282.29819
G1 X163.25 Y155.25 E282.34357
G0 F6000 X163.75 Y154.75
;TYPE:WALL-OUTER
G1 F720 X163.75 Y157.74 E282.40566
G1 X159.38 Y159.12 E282.50100
G1 X160.69 Y154.75 E282.59589
G1 X163.75 Y154.75 E282.65940
G0 F6000 X163.07 Y155.65
;TYPE:FILL
G1 F720 X162.85 Y155.42 E282.66601
G0 F6000 X162.14 Y155.42
G1 F720 X163.07 Y156.36 E282.69341
G0 F6000 X163.07 Y157.06
G1 F720 X161.44 Y155.42 E282.74159
G0 F6000 X161.09 Y155.78
G1 F720 X162.67 Y157.37 E282.78822
G0 F6000 X162.13 Y157.54
G1 F720 X160.92 Y156.33 E282.82388
G0 F6000 X160.76 Y156.87
G1 F720 X161.60 Y157.71 E282.84851
G0 F6000 X161.06 Y157.88
G1 F720 X160.51 Y157.69 E282.86216
G1 X160.52 Y158.05 E282.86971
;LAYER:21
G0 F6000 X160.13 Y158.36 Z2.40
;TYPE:WALL-INNER
G1 F720 X161.07 Y155.25 E282.93718
G1 X163.25 Y155.25 E282.98256
G1 X163.25 Y157.37 E283.02665
G1 X160.13 Y158.36 E283.09467
G0 F6000 X159.38 Y159.12
;TYPE:WALL-OUTER
G1 F720 X160.69 Y154.75 E283.18956
G1 X163.75 Y154.75 E283.25306
G1 X163.75 Y157.74 E283.31515
G1 X159.38 Y159.12 E283.41050
G0 F6000 X160.49 Y158.06
;TYPE:FILL
G1 F720 X163.07 Y155.48 E283.48639
G0 F6000 X162.42 Y155.42
G1 F720 X160.67 Y157.18 E283.53791
G0 F6000 X161.53 Y157.73
G1 F720 X163.07 Y156.19 E283.58339
G0 F6000 X163.07 Y156.89
G1 F720 X162.56 Y157.41 E283.59847
G0 F6000 X160.97 Y156.16
G1 F720 X161.71 Y155.42 E283.62024
G0 F6000 X154.25 Y155.25
;TYPE:WALL-INNER
G1 F720 X154.25 Y157.37 E283.66433
G1 X151.13 Y158.36 E283.73235
G1 X152.07 Y155.25 E283.79982
G1 X154.25 Y155.25 E283.84518
G0 F6000 X154.75 Y154.75
;TYPE:WALL-OUTER
G1 F720 X154.75 Y157.74 E283.90727
G1 X150.38 Y159.12 E284.00261
G1 X151.70 Y154.75 E284.09751
G1 X154.75 Y154.75 E284.16099
G0 F6000 X153.94 Y155.42
;TYPE:FILL
G1 F720 X151.45 Y157.91 E284.23416
G0 F6000 X152.25 Y157.82
G1 F720 X154.07 Y155.99 E284.28793
G0 F6000 X154.07 Y156.70
G1 F720 X153.28 Y157.49 E284.31129
G0 F6000 X151.75 Y156.90
G1 F720 X153.23 Y155.42 E284.35468
G0 F6000 X152.52 Y155.42
G1 F720 X152.06 Y155.89 E284.36832
G0 F6000 X160.13 Y149.36
;TYPE:WALL-INNER
G1 F720 X161.07 Y146.25 E284.43579
G1 X163.25 Y146.25 E284.48117
G1 X163.25 Y148.37 E284.52526
G1 X160.13 Y149.36 E284.59328
G0 F6000 X159.38 Y150.12
;TYPE:WALL-OUTER
G1 F720 X160.69 Y145.75 E284.68817
G1 X163.75 Y145.75 E284.75167
G1 X163.75 Y148.74 E284.81379
G1 X159.38 Y150.12 E284.90912
G0 F6000 X160.44 Y148.91
;TYPE:FILL
G1 F720 X162.93 Y146.42 E284.98229
G0 F6000 X163.07 Y146.99
G1 F720 X161.25 Y148.82 E285.03605
G0 F6000 X160.75 Y147.90
G1 F720 X162.23 Y146.42 E285.07947
G0 F6000 X161.52 Y146.42
G1 F720 X161.05 Y146.89 E285.09317
G0 F6000 X162.28 Y148.49
G1 F720 X163.07 Y147.70 E285.11654
G0 F6000 X154.25 Y148.37
;TYPE:WALL-INNER
G1 F720 X151.13 Y149.36 E285.18456
G1 X152.07 Y146.25 E285.25203
G1 X154.25 Y146.25 E285.29739
G1 X154.25 Y148.37 E285.34148
G0 F6000 X154.75 Y148.74
;TYPE:WALL-OUTER
G1 F720 X150.38 Y150.12 E285.43682
G1 X151.70 Y145.75 E285.53171
G1 X154.75 Y145.75 E285.59520
G1 X154.75 Y148.74 E285.65731
G0 F6000 X154.07 Y147.51
;TYPE:FILL
G1 F720 X153.00 Y148.58 E285.68891
G0 F6000 X151.96 Y148.91
G1 F720 X154.07 Y146.80 E285.75094
G0 F6000 X153.74 Y146.42
G1 F720 X151.53 Y148.64 E285.81602
G0 F6000 X151.83 Y147.62
G1 F720 X153.03 Y146.42 E285.85131
G0 F6000 X152.33 Y146.42
G1 F720 X152.14 Y146.61 E285.85683
G0 F6000 X145.25 Y146.25
;TYPE:WALL-INNER
G1 F720 X145.25 Y148.37 E285.90093
G1 X142.13 Y149.36 E285.96896
G1 X143.07 Y146.25 E286.03644
G1 X145.25 Y146.25 E286.08179
G0 F6000 X145.75 Y145.75
;TYPE:WALL-OUTER
G1 F720 X145.75 Y148.74 E286.14391
G1 X141.38 Y150.12 E286.23926
G1 X142.70 Y145.75 E286.33416
G1 X145.75 Y145.75 E286.39764
G0 F6000 X145.07 Y146.61
;TYPE:FILL
G1 F720 X142.68 Y149.00 E286.46798
G0 F6000 X142.61 Y148.36
G1 F720 X144.55 Y146.42 E286.52495
G0 F6000 X143.84 Y146.42
G1 F720 X142.92 Y147.35 E286.55216
G0 F6000 X143.72 Y148.67
G1 F720 X145.07 Y147.31 E286.59211
G0 F6000 X145.07 Y148.02
G1 F720 X144.75 Y148.35 E286.60168
;LAYER:22
G0 F6000 X145.25 Y148.37 Z2.50
;TYPE:WALL-INNER
G1 F720 X142.13 Y149.36 E286.66972
G1 X143.07 Y146.25 E286.73719
G1 X145.25 Y146.25 E286.78255
G1 X145.25 Y148.37 E286.82664
G0 F6000 X145.75 Y148.74
;TYPE:WALL-OUTER
G1 F720 X141.38 Y150.12 E286.92200
G1 X142.70 Y145.75 E287.01689
G1 X145.75 Y145.75 E287.08038
G1 X145.75 Y148.74 E287.14249
G0 F6000 X145.06 Y148.25
;TYPE:FILL
G1 F720 X143.24 Y146.42 E287.19602
G0 F6000 X143.04 Y146.93
G1 F720 X144.53 Y148.41 E287.23965
G0 F6000 X143.99 Y148.59
G1 F720 X142.88 Y147.47 E287.27228
G0 F6000 X142.72 Y148.02
G1 F720 X143.45 Y148.75 E287.29395
G0 F6000 X142.91 Y148.93
G1 F720 X142.55 Y148.56 E287.30464
G0 F6000 X143.95 Y146.42
G1 F720 X145.07 Y147.55 E287.33771
G0 F6000 X145.07 Y146.84
G1 F720 X144.66 Y146.42 E287.35000
G0 F6000 X151.13 Y149.36
;TYPE:WALL-INNER
G1 F720 X152.07 Y146.25 E287.41747
G1 X154.25 Y146.25 E287.46283
G1 X154.25 Y148.37 E287.50692
G1 X151.13 Y149.36 E287.57494
G0 F6000 X150.38 Y150.12
;TYPE:WALL-OUTER
G1 F720 X151.70 Y145.75 E287.66983
G1 X154.75 Y145.75 E287.73332
G1 X154.75 Y148.74 E287.79543
G1 X150.38 Y150.12 E287.89077
G0 F6000 X151.52 Y149.05
;TYPE:FILL
G1 F720 X151.51 Y148.68 E287.89346
G1 X152.06 Y148.88 E287.90553
G0 F6000 X152.60 Y148.71
G1 F720 X151.76 Y147.87 E287.93016
G0 F6000 X151.92 Y147.33
G1 F720 X153.13 Y148.54 E287.96579
G0 F6000 X153.67 Y148.37
G1 F720 X152.09 Y146.78 E288.01239
G0 F6000 X152.44 Y146.42
G1 F720 X154.07 Y148.06 E288.06057
G0 F6000 X154.07 Y147.36
G1 F720 X153.14 Y146.42 E288.08797
G0 F6000 X153.85 Y146.42
G1 F720 X154.07 Y146.65 E288.09459
G0 F6000 X154.25 Y155.25
;TYPE:WALL-INNER
G1 F720 X154.25 Y157.37 E288.13868
G1 X151.13 Y158.36 E288.20670
G1 X152.07 Y155.25 E288.27417
G1 X154.25 Y155.25 E288.31953
G0 F6000 X154.75 Y154.75
;TYPE:WALL-OUTER
G1 F720 X154.75 Y157.74 E288.38162
G1 X150.38 Y159.12 E288.47696
G1 X151.70 Y154.75 E288.57186
G1 X154.75 Y154.75 E288.63534
G0 F6000 X154.07 Y155.84
;TYPE:FILL
G1 F720 X153.66 Y155.42 E288.64764
G0 F6000 X152.95 Y155.42
G1 F720 X154.07 Y156.55 E288.68073
G0 F6000 X154.06 Y157.24
G1 F720 X152.24 Y155.42 E288.73425
G0 F6000 X152.04 Y155.93
G1 F720 X153.53 Y157.41 E288.77788
G0 F6000 X152.99 Y157.59
G1 F720 X151.88 Y156.47 E288.81049
G0 F6000 X151.72 Y157.02
G1 F720 X152.45 Y157.75 E288.83213
G0 F6000 X151.91 Y157.92
G1 F720 X151.55 Y157.56 E288.84280
G0 F6000 X160.13 Y149.36
;TYPE:WALL-INNER
G1 F720 X161.07 Y146.25 E288.91028
G1 X163.25 Y146.25 E288.95565
G1 X163.25 Y148.37 E288.99975
G1 X160.13 Y149.36 E289.06778
G0 F6000 X159.38 Y150.12
;TYPE:WALL-OUTER
G1 F720 X160.69 Y145.75 E289.16267
G1 X163.75 Y145.75 E289.22618
G1 X163.75 Y148.74 E289.28829
G1 X159.38 Y150.12 E289.38363
G0 F6000 X160.67 Y149.00
;TYPE:FILL
G1 F720 X160.56 Y148.54 E289.38933
G1 X161.21 Y148.83 E289.40416
G0 F6000 X161.74 Y148.66
G1 F720 X160.80 Y147.72 E289.43182
G0 F6000 X160.97 Y147.18
G1 F720 X162.28 Y148.49 E289.47046
G0 F6000 X162.82 Y148.32
G1 F720 X161.13 Y146.63 E289.52006
G0 F6000 X161.63 Y146.42
G1 F720 X163.07 Y147.87 E289.56260
G0 F6000 X163.07 Y147.16
G1 F720 X162.33 Y146.42 E289.58435
G0 F6000 X163.25 Y155.25
;TYPE:WALL-INNER
G1 F720 X163.25 Y157.37 E289.62844
G1 X160.13 Y158.36 E289.69648
G1 X161.07 Y155.25 E289.76395
G1 X163.25 Y155.25 E289.80933
G0 F6000 X163.75 Y154.75
;TYPE:WALL-OUTER
G1 F720 X163.75 Y157.74 E289.87142
G1 X159.38 Y159.12 E289.96677
G1 X160.69 Y154.75 E290.06166
G1 X163.75 Y154.75 E290.12516
G0 F6000 X163.07 Y155.65
;TYPE:FILL
G1 F720 X162.85 Y155.42 E290.13178
G0 F6000 X162.14 Y155.42
G1 F720 X163.07 Y156.36 E290.15918
G0 F6000 X163.07 Y157.06
G1 F720 X161.44 Y155.42 E290.20736
G0 F6000 X161.09 Y155.78
G1 F720 X162.67 Y157.37 E290.25398
G0 F6000 X162.13 Y157.54
G1 F720 X160.92 Y156.33 E290.28964
G0 F6000 X160.76 Y156.87
G1 F720 X161.60 Y157.71 E290.31431
G0 F6000 X161.06 Y157.88
G1 F720 X160.51 Y157.68 E290.32804
G1 X160.52 Y158.05 E290.33561
;LAYER:23
G0 F6000 X160.13 Y158.36 Z2.60
;TYPE:WALL-INNER
G1 F720 X161.07 Y155.25 E290.40308
G1 X163.25 Y155.25 E290.44846
G1 X163.25 Y157.37 E290.49255
G1 X160.13 Y158.36 E290.56059
G0 F6000 X159.38 Y159.12
;TYPE:WALL-OUTER
G1 F720 X160.69 Y154.75 E290.65548
G1 X163.75 Y154.75 E290.71899
G1 X163.75 Y157.74 E290.78108
G1 X159.38 Y159.12 E290.87642
G0 F6000 X160.49 Y158.06
;TYPE:FILL
G1 F720 X163.07 Y155.48 E290.95231
G0 F6000 X162.42 Y155.42
G1 F720 X160.66 Y157.18 E291.00388
G0 F6000 X161.53 Y157.73
G1 F720 X163.07 Y156.19 E291.04936
G0 F6000 X163.07 Y156.89
G1 F720 X162.56 Y157.41 E291.06444
G0 F6000 X160.97 Y156.16
G1 F720 X161.71 Y155.42 E291.08622
G0 F6000 X154.25 Y155.25
;TYPE:WALL-INNER
G1 F720 X154.25 Y157.37 E291.13031
G1 X151.13 Y158.36 E291.19833
G1 X152.07 Y155.25 E291.26580
G1 X154.25 Y155.25 E291.31116
G0 F6000 X154.75 Y154.75
;TYPE:WALL-OUTER
G1 F720 X154.75 Y157.74 E291.37326
G1 X150.38 Y159.12 E291.46860
G1 X151.70 Y154.75 E291.56349
G1 X154.75 Y154.75 E291.62698
G0 F6000 X153.94 Y155.42
;TYPE:FILL
G1 F720 X151.45 Y157.91 E291.70015
G0 F6000 X152.25 Y157.82
G1 F720 X154.07 Y155.99 E291.75392
G0 F6000 X154.07 Y156.70
