;-- START GCODE --
;Sliced for Type A Machines Series 1
;Sliced at: Tue 15-12-2015 07:58:05
;Basic settings: Layer height: 0.2 Walls: 0.8 Fill: 14
;Print Speed: 60 Support: 0
;Retraction Speed: 40 Retraction Distance: 1.2
;Print time: #P_TIME#
;Filament used: #F_AMNT#m #F_WGHT#g
;Filament cost: #F_COST#
M106 S255	 ;start with the fan on
G21        ;metric values
G90        ;absolute positioning
M106 S255    ;start with the fan on
G28     ;move to endstops
G29		;allows for auto-levelling
G1 X150 Y5  Z15.0 F12000 ;center and move the platform down 15mm
M109 S220 ;Heat To temp
G92 E0                  ;zero the extruded length
G1 F200 E30              ;extrude 30mm of feed stock
G92 E0                  ;zero the extruded length again
G1 X175 Y25  Z0 F12000 ;remove bugger
G1 X220 F12000 ;remove bugger
G1 X150 Y150  Z15 F12000 ;recenter and begin
G1 F12000

;Layer count: 60
;LAYER:0
M106 S255
G0 F12000 X149.28 Y124.42 Z0.30
;TYPE:SKIRT
G1 F2700 X166.58 Y124.42 E0.86315
G1 X171.75 Y127.01 E1.15159
G1 X171.95 Y127.21 E1.16563
G1 X174.75 Y128.61 E1.32188
G1 X178.78 Y132.64 E1.60604
G1 X178.78 Y132.84 E1.61602
G1 X178.98 Y133.04 E1.63013
G1 X178.98 Y133.24 E1.64011
G1 X179.18 Y133.44 E1.65422
G1 X179.18 Y133.84 E1.67418
G1 X179.38 Y134.04 E1.68829
G1 X179.38 Y134.24 E1.69827
G1 X179.58 Y134.44 E1.71238
G1 X179.58 Y134.84 E1.73234
G1 X179.78 Y135.04 E1.74645
G1 X179.78 Y135.24 E1.75642
G1 X179.98 Y135.44 E1.77054
G1 X179.98 Y135.84 E1.79049
G1 X180.18 Y136.04 E1.80460
G1 X180.18 Y136.24 E1.81458
G1 X180.38 Y136.44 E1.82869
G1 X180.38 Y136.64 E1.83867
G1 X180.58 Y136.84 E1.85278
G1 X180.58 Y137.24 E1.87274
G1 X180.78 Y137.44 E1.88685
G1 X180.78 Y137.64 E1.89683
G1 X180.98 Y137.84 E1.91094
G1 X180.98 Y138.24 E1.93089
G1 X181.18 Y138.44 E1.94500
G1 X181.18 Y138.64 E1.95498
G1 X181.38 Y138.84 E1.96909
G1 X181.38 Y139.24 E1.98905
G1 X181.58 Y139.44 E2.00316
G1 X181.58 Y139.64 E2.01314
G1 X181.78 Y139.84 E2.02725
G1 X181.78 Y148.21 E2.44503
G1 X181.58 Y148.41 E2.45914
G1 X181.58 Y148.81 E2.47910
G1 X181.38 Y149.01 E2.49321
G1 X181.38 Y149.41 E2.51316
G1 X181.18 Y149.61 E2.52728
G1 X181.18 Y150.01 E2.54723
G1 X180.98 Y150.21 E2.56134
G1 X180.98 Y150.61 E2.58130
G1 X180.78 Y150.81 E2.59541
G1 X180.78 Y151.01 E2.60539
G1 X180.58 Y151.21 E2.61950
G1 X180.58 Y151.61 E2.63946
G1 X180.38 Y151.81 E2.65357
G1 X180.38 Y152.21 E2.67352
G1 X180.18 Y152.41 E2.68763
G1 X180.18 Y152.81 E2.70759
G1 X179.98 Y153.01 E2.72170
G1 X179.98 Y153.41 E2.74166
G1 X179.78 Y153.61 E2.75577
G1 X179.78 Y154.01 E2.77572
G1 X179.58 Y154.21 E2.78984
G1 X179.58 Y154.41 E2.79981
G1 X179.38 Y154.61 E2.81392
G1 X179.38 Y155.01 E2.83388
G1 X179.18 Y155.21 E2.84799
G1 X179.18 Y155.61 E2.86795
G1 X178.98 Y155.81 E2.88206
G1 X178.98 Y156.21 E2.90201
G1 X178.78 Y156.41 E2.91613
G1 X178.78 Y156.81 E2.93608
G1 X178.58 Y157.01 E2.95019
G1 X178.58 Y157.41 E2.97015
G1 X178.38 Y157.61 E2.98426
G1 X178.38 Y157.81 E2.99424
G1 X178.18 Y158.01 E3.00835
G1 X178.18 Y158.21 E3.01833
G1 X177.18 Y159.21 E3.08888
G1 X177.18 Y159.41 E3.09886
G1 X175.98 Y160.61 E3.18353
G1 X175.98 Y160.81 E3.19351
G1 X174.78 Y162.01 E3.27817
G1 X174.78 Y162.21 E3.28815
G1 X173.78 Y163.21 E3.35871
G1 X173.78 Y163.41 E3.36868
G1 X172.58 Y164.61 E3.45335
G1 X172.58 Y164.81 E3.46333
G1 X171.38 Y166.01 E3.54799
G1 X171.38 Y166.21 E3.55797
G1 X170.38 Y167.21 E3.62853
G1 X170.38 Y167.41 E3.63851
G1 X169.18 Y168.61 E3.72317
G1 X169.18 Y168.81 E3.73315
G1 X167.98 Y170.01 E3.81782
G1 X167.98 Y170.21 E3.82779
G1 X166.98 Y171.21 E3.89835
G1 X166.98 Y171.41 E3.90833
G1 X161.56 Y176.82 E4.29024
G1 X160.69 Y176.82 E4.33360
G1 X160.12 Y177.63 E4.38285
G1 X149.25 Y183.70 E5.00420
G1 X138.93 Y177.62 E5.60195
G1 X132.88 Y177.62 E5.90373
G1 X132.88 Y171.81 E6.19374
G1 X132.68 Y171.61 E6.20785
G1 X132.68 Y171.21 E6.22781
G1 X132.48 Y171.01 E6.24192
G1 X132.48 Y170.41 E6.27186
G1 X132.28 Y170.21 E6.28597
G1 X132.28 Y169.61 E6.31590
G1 X132.08 Y169.41 E6.33001
G1 X132.08 Y169.01 E6.34997
G1 X131.88 Y168.81 E6.36408
G1 X131.88 Y168.21 E6.39401
G1 X131.68 Y168.01 E6.40812
G1 X131.68 Y167.41 E6.43806
G1 X131.48 Y167.21 E6.45217
G1 X131.48 Y159.04 E6.85997
G1 X131.68 Y158.84 E6.87408
G1 X131.68 Y158.64 E6.88406
G1 X131.88 Y158.44 E6.89817
G1 X131.88 Y158.24 E6.90815
G1 X132.08 Y158.04 E6.92226
G1 X132.08 Y157.84 E6.93224
G1 X132.28 Y157.64 E6.94635
G1 X132.28 Y157.44 E6.95633
G1 X132.48 Y157.24 E6.97044
G1 X132.48 Y157.04 E6.98042
G1 X132.68 Y156.84 E6.99453
G1 X132.68 Y156.44 E7.01449
G1 X132.88 Y156.24 E7.02860
G1 X132.88 Y156.04 E7.03857
G1 X133.08 Y155.84 E7.05269
G1 X133.08 Y155.64 E7.06266
G1 X133.28 Y155.44 E7.07677
G1 X133.28 Y155.24 E7.08675
G1 X133.48 Y155.04 E7.10086
G1 X133.48 Y154.84 E7.11084
G1 X133.68 Y154.64 E7.12495
G1 X133.68 Y154.44 E7.13493
G1 X133.88 Y154.24 E7.14904
G1 X133.88 Y154.04 E7.15902
G1 X134.08 Y153.84 E7.17313
G1 X134.08 Y153.44 E7.19309
G1 X134.28 Y153.24 E7.20720
G1 X134.28 Y153.04 E7.21718
G1 X134.48 Y152.84 E7.23129
G1 X134.48 Y152.64 E7.24127
G1 X134.68 Y152.44 E7.25538
G1 X134.68 Y152.24 E7.26535
G1 X134.88 Y152.04 E7.27947
G1 X134.88 Y151.84 E7.28944
G1 X135.08 Y151.64 E7.30355
G1 X135.08 Y151.44 E7.31353
G1 X135.28 Y151.24 E7.32764
G1 X135.28 Y151.04 E7.33762
G1 X135.48 Y150.84 E7.35173
G1 X135.48 Y150.44 E7.37169
G1 X135.68 Y150.24 E7.38580
G1 X135.68 Y150.04 E7.39578
G1 X135.88 Y149.84 E7.40989
G1 X135.88 Y149.64 E7.41987
G1 X136.08 Y149.44 E7.43398
G1 X136.08 Y149.24 E7.44396
G1 X136.28 Y149.04 E7.45807
G1 X136.28 Y148.84 E7.46805
G1 X136.48 Y148.64 E7.48216
G1 X136.48 Y148.44 E7.49213
G1 X136.68 Y148.24 E7.50625
G1 X136.68 Y148.04 E7.51622
G1 X136.88 Y147.84 E7.53033
G1 X136.88 Y147.44 E7.55029
G1 X137.08 Y147.24 E7.56440
G1 X137.08 Y147.04 E7.57438
G1 X137.28 Y146.84 E7.58849
G1 X137.28 Y146.64 E7.59847
G1 X137.48 Y146.44 E7.61258
G1 X137.48 Y146.24 E7.62256
G1 X137.68 Y146.04 E7.63667
G1 X137.68 Y145.84 E7.64665
G1 X137.88 Y145.64 E7.66076
G1 X137.88 Y145.44 E7.67074
G1 X138.08 Y145.24 E7.68485
G1 X138.08 Y145.04 E7.69483
G1 X138.28 Y144.84 E7.70894
G1 X138.28 Y144.44 E7.72889
G1 X138.48 Y144.24 E7.74300
G1 X138.48 Y144.04 E7.75298
G1 X138.68 Y143.84 E7.76709
G1 X138.68 Y143.64 E7.77707
G1 X138.88 Y143.44 E7.79118
G1 X138.88 Y143.24 E7.80116
G1 X139.08 Y143.04 E7.81527
G1 X139.08 Y142.84 E7.82525
G1 X139.28 Y142.64 E7.83936
G1 X139.28 Y142.44 E7.84934
G1 X139.48 Y142.24 E7.86345
G1 X139.48 Y142.04 E7.87343
G1 X139.68 Y141.84 E7.88754
G1 X139.68 Y141.44 E7.90749
G1 X139.88 Y141.24 E7.92161
G1 X139.88 Y141.04 E7.93158
G1 X140.08 Y140.84 E7.94569
G1 X140.08 Y140.64 E7.95567
G1 X140.28 Y140.44 E7.96978
G1 X140.28 Y140.24 E7.97976
G1 X140.48 Y140.04 E7.99387
G1 X140.48 Y139.84 E8.00385
G1 X140.68 Y139.64 E8.01796
G1 X140.68 Y139.44 E8.02794
G1 X140.88 Y139.24 E8.04205
G1 X140.88 Y137.02 E8.15251
G1 X144.91 Y135.01 E8.37730
G1 X145.30 Y134.61 E8.40538
G1 X145.71 Y134.41 E8.42776
G1 X146.10 Y134.01 E8.45591
G1 X146.50 Y133.81 E8.47829
G1 X146.90 Y133.41 E8.50644
G1 X147.31 Y133.21 E8.52882
G1 X147.70 Y132.81 E8.55697
G1 X148.10 Y132.61 E8.57935
G1 X148.70 Y132.01 E8.62161
G1 X149.10 Y131.81 E8.64399
G1 X149.28 Y131.64 E8.65605
G1 X149.28 Y124.42 E9.01596
G0 F12000 X149.68 Y124.83
G1 F2700 X166.48 Y124.83 E9.85447
G1 X171.51 Y127.34 E10.13492
G1 X171.71 Y127.54 E10.14903
G1 X174.51 Y128.94 E10.30521
G1 X178.38 Y132.80 E10.57791
G1 X178.38 Y133.00 E10.58789
G1 X178.58 Y133.20 E10.60200
G1 X178.58 Y133.40 E10.61198
G1 X178.78 Y133.60 E10.62609
G1 X178.78 Y134.00 E10.64605
G1 X178.98 Y134.20 E10.66016
G1 X178.98 Y134.40 E10.67013
G1 X179.18 Y134.60 E10.68425
G1 X179.18 Y135.00 E10.70420
G1 X179.38 Y135.20 E10.71831
G1 X179.38 Y135.40 E10.72829
G1 X179.58 Y135.60 E10.74240
G1 X179.58 Y136.00 E10.76236
G1 X179.78 Y136.20 E10.77647
G1 X179.78 Y136.40 E10.78645
G1 X179.98 Y136.60 E10.80056
G1 X179.98 Y136.80 E10.81054
G1 X180.18 Y137.00 E10.82465
G1 X180.18 Y137.40 E10.84460
G1 X180.38 Y137.60 E10.85871
G1 X180.38 Y137.80 E10.86869
G1 X180.58 Y138.00 E10.88280
G1 X180.58 Y138.40 E10.90276
G1 X180.78 Y138.60 E10.91687
G1 X180.78 Y138.80 E10.92685
G1 X180.98 Y139.00 E10.94096
G1 X180.98 Y139.40 E10.96092
G1 X181.18 Y139.60 E10.97503
G1 X181.18 Y139.80 E10.98501
G1 X181.38 Y140.00 E10.99912
G1 X181.38 Y148.05 E11.40033
G1 X181.18 Y148.25 E11.41444
G1 X181.18 Y148.65 E11.43440
G1 X180.98 Y148.85 E11.44851
G1 X180.98 Y149.25 E11.46847
G1 X180.78 Y149.45 E11.48258
G1 X180.78 Y149.85 E11.50253
G1 X180.58 Y150.05 E11.51665
G1 X180.58 Y150.45 E11.53660
G1 X180.38 Y150.65 E11.55071
G1 X180.38 Y150.85 E11.56069
G1 X180.18 Y151.05 E11.57480
G1 X180.18 Y151.45 E11.59476
G1 X179.98 Y151.65 E11.60887
G1 X179.98 Y152.05 E11.62883
G1 X179.78 Y152.25 E11.64294
G1 X179.78 Y152.65 E11.66289
G1 X179.58 Y152.85 E11.67700
G1 X179.58 Y153.25 E11.69696
G1 X179.38 Y153.45 E11.71107
G1 X179.38 Y153.85 E11.73103
G1 X179.18 Y154.05 E11.74514
G1 X179.18 Y154.25 E11.75512
G1 X178.98 Y154.45 E11.76923
G1 X178.98 Y154.85 E11.78918
G1 X178.78 Y155.05 E11.80329
G1 X178.78 Y155.45 E11.82325
G1 X178.58 Y155.65 E11.83736
G1 X178.58 Y156.05 E11.85732
G1 X178.38 Y156.25 E11.87143
G1 X178.38 Y156.65 E11.89138
G1 X178.18 Y156.85 E11.90550
G1 X178.18 Y157.25 E11.92545
G1 X177.98 Y157.45 E11.93956
G1 X177.98 Y157.65 E11.94954
G1 X177.78 Y157.85 E11.96365
G1 X177.78 Y158.05 E11.97363
G1 X176.78 Y159.05 E12.04419
G1 X176.78 Y159.25 E12.05416
G1 X175.58 Y160.45 E12.13883
G1 X175.58 Y160.65 E12.14881
G1 X174.38 Y161.85 E12.23347
G1 X174.38 Y162.05 E12.24345
G1 X173.38 Y163.05 E12.31401
G1 X173.38 Y163.25 E12.32399
G1 X172.18 Y164.45 E12.40865
G1 X172.18 Y164.65 E12.41863
G1 X170.98 Y165.85 E12.50330
G1 X170.98 Y166.05 E12.51327
G1 X169.98 Y167.05 E12.58383
G1 X169.98 Y167.25 E12.59381
G1 X168.78 Y168.45 E12.67847
G1 X168.78 Y168.65 E12.68845
G1 X167.58 Y169.85 E12.77312
G1 X167.58 Y170.05 E12.78310
G1 X166.58 Y171.05 E12.85365
G1 X166.58 Y171.25 E12.86363
G1 X161.40 Y176.43 E13.22904
G1 X160.49 Y176.43 E13.27439
G1 X159.85 Y177.33 E13.32947
G1 X149.26 Y183.24 E13.93483
G1 X139.03 Y177.22 E14.52660
G1 X133.28 Y177.22 E14.81387
G1 X133.28 Y171.65 E15.09220
G1 X133.08 Y171.45 E15.10632
G1 X133.08 Y171.05 E15.12627
G1 X132.88 Y170.85 E15.14038
G1 X132.88 Y170.25 E15.17032
G1 X132.68 Y170.05 E15.18443
G1 X132.68 Y169.45 E15.21436
G1 X132.48 Y169.25 E15.22847
G1 X132.48 Y168.85 E15.24843
G1 X132.28 Y168.65 E15.26254
G1 X132.28 Y168.05 E15.29247
G1 X132.08 Y167.85 E15.30659
G1 X132.08 Y167.25 E15.33652
G1 X131.88 Y167.05 E15.35063
G1 X131.88 Y159.20 E15.74187
G1 X132.08 Y159.00 E15.75598
G1 X132.08 Y158.80 E15.76596
G1 X132.28 Y158.60 E15.78007
G1 X132.28 Y158.40 E15.79005
G1 X132.48 Y158.20 E15.80416
G1 X132.48 Y158.00 E15.81414
G1 X132.68 Y157.80 E15.82825
G1 X132.68 Y157.60 E15.83823
G1 X132.88 Y157.40 E15.85234
G1 X132.88 Y157.20 E15.86232
G1 X133.08 Y157.00 E15.87643
G1 X133.08 Y156.60 E15.89638
G1 X133.28 Y156.40 E15.91049
G1 X133.28 Y156.20 E15.92047
G1 X133.48 Y156.00 E15.93458
G1 X133.48 Y155.80 E15.94456
G1 X133.68 Y155.60 E15.95867
G1 X133.68 Y155.40 E15.96865
G1 X133.88 Y155.20 E15.98276
G1 X133.88 Y155.00 E15.99274
G1 X134.08 Y154.80 E16.00685
G1 X134.08 Y154.60 E16.01683
G1 X134.28 Y154.40 E16.03094
G1 X134.28 Y154.20 E16.04092
G1 X134.48 Y154.00 E16.05503
G1 X134.48 Y153.60 E16.07498
G1 X134.68 Y153.40 E16.08910
G1 X134.68 Y153.20 E16.09907
G1 X134.88 Y153.00 E16.11318
G1 X134.88 Y152.80 E16.12316
G1 X135.08 Y152.60 E16.13727
G1 X135.08 Y152.40 E16.14725
G1 X135.28 Y152.20 E16.16136
G1 X135.28 Y152.00 E16.17134
G1 X135.48 Y151.80 E16.18545
G1 X135.48 Y151.60 E16.19543
G1 X135.68 Y151.40 E16.20954
G1 X135.68 Y151.20 E16.21952
G1 X135.88 Y151.00 E16.23363
G1 X135.88 Y150.60 E16.25359
G1 X136.08 Y150.40 E16.26770
G1 X136.08 Y150.20 E16.27768
G1 X136.28 Y150.00 E16.29179
G1 X136.28 Y149.80 E16.30176
G1 X136.48 Y149.60 E16.31588
G1 X136.48 Y149.40 E16.32585
G1 X136.68 Y149.20 E16.33997
G1 X136.68 Y149.00 E16.34994
G1 X136.88 Y148.80 E16.36405
G1 X136.88 Y148.60 E16.37403
G1 X137.08 Y148.40 E16.38814
G1 X137.08 Y148.20 E16.39812
G1 X137.28 Y148.00 E16.41223
G1 X137.28 Y147.60 E16.43219
G1 X137.48 Y147.40 E16.44630
G1 X137.48 Y147.20 E16.45628
G1 X137.68 Y147.00 E16.47039
G1 X137.68 Y146.80 E16.48037
G1 X137.88 Y146.60 E16.49448
G1 X137.88 Y146.40 E16.50446
G1 X138.08 Y146.20 E16.51857
G1 X138.08 Y146.00 E16.52854
G1 X138.28 Y145.80 E16.54266
G1 X138.28 Y145.60 E16.55263
G1 X138.48 Y145.40 E16.56675
G1 X138.48 Y145.20 E16.57672
G1 X138.68 Y145.00 E16.59083
G1 X138.68 Y144.60 E16.61079
G1 X138.88 Y144.40 E16.62490
G1 X138.88 Y144.20 E16.63488
G1 X139.08 Y144.00 E16.64899
G1 X139.08 Y143.80 E16.65897
G1 X139.28 Y143.60 E16.67308
G1 X139.28 Y143.40 E16.68306
G1 X139.48 Y143.20 E16.69717
G1 X139.48 Y143.00 E16.70715
G1 X139.68 Y142.80 E16.72126
G1 X139.68 Y142.60 E16.73124
G1 X139.88 Y142.40 E16.74535
G1 X139.88 Y142.20 E16.75533
G1 X140.08 Y142.00 E16.76944
G1 X140.08 Y141.60 E16.78939
G1 X140.28 Y141.40 E16.80350
G1 X140.28 Y141.20 E16.81348
G1 X140.48 Y141.00 E16.82759
G1 X140.48 Y140.80 E16.83757
G1 X140.68 Y140.60 E16.85168
G1 X140.68 Y140.40 E16.86166
G1 X140.88 Y140.20 E16.87577
G1 X140.88 Y140.00 E16.88575
G1 X141.08 Y139.80 E16.89986
G1 X141.08 Y139.60 E16.90984
G1 X141.28 Y139.40 E16.92395
G1 X141.28 Y137.27 E17.03031
G1 X145.14 Y135.34 E17.24584
G1 X145.54 Y134.94 E17.27414
G1 X145.94 Y134.74 E17.29640
G1 X146.34 Y134.34 E17.32466
G1 X146.74 Y134.14 E17.34693
G1 X147.14 Y133.74 E17.37519
G1 X147.54 Y133.54 E17.39745
G1 X147.94 Y133.14 E17.42571
G1 X148.34 Y132.94 E17.44798
G1 X148.94 Y132.34 E17.49035
G1 X149.34 Y132.14 E17.51261
G1 X149.68 Y131.80 E17.53628
G1 X149.68 Y124.83 E17.88447
G0 F12000 X150.08 Y125.22
G1 F2700 X166.39 Y125.22 E18.69828
G1 X171.28 Y127.67 E18.97086
G1 X171.48 Y127.87 E18.98504
G1 X174.28 Y129.27 E19.14115
G1 X177.98 Y132.97 E19.40231
G1 X177.98 Y133.17 E19.41229
G1 X178.18 Y133.37 E19.42640
G1 X178.18 Y133.57 E19.43638
G1 X178.38 Y133.77 E19.45049
G1 X178.38 Y134.17 E19.47045
G1 X178.58 Y134.37 E19.48456
G1 X178.58 Y134.57 E19.49454
G1 X178.78 Y134.77 E19.50865
G1 X178.78 Y135.17 E19.52860
G1 X178.98 Y135.37 E19.54272
G1 X178.98 Y135.57 E19.55269
G1 X179.18 Y135.77 E19.56681
G1 X179.18 Y136.17 E19.58676
G1 X179.38 Y136.37 E19.60087
G1 X179.38 Y136.57 E19.61085
G1 X179.58 Y136.77 E19.62496
G1 X179.58 Y136.97 E19.63494
G1 X179.78 Y137.17 E19.64905
G1 X179.78 Y137.57 E19.66901
G1 X179.98 Y137.77 E19.68312
G1 X179.98 Y137.97 E19.69310
G1 X180.18 Y138.17 E19.70721
G1 X180.18 Y138.57 E19.72716
G1 X180.38 Y138.77 E19.74127
G1 X180.38 Y138.97 E19.75125
G1 X180.58 Y139.17 E19.76536
G1 X180.58 Y139.57 E19.78532
G1 X180.78 Y139.77 E19.79943
G1 X180.78 Y139.97 E19.80941
G1 X180.98 Y140.17 E19.82352
G1 X180.98 Y147.88 E20.20817
G1 X180.78 Y148.08 E20.22228
G1 X180.78 Y148.48 E20.24224
G1 X180.58 Y148.68 E20.25635
G1 X180.58 Y149.08 E20.27631
G1 X180.38 Y149.28 E20.29042
G1 X180.38 Y149.68 E20.31037
G1 X180.18 Y149.88 E20.32449
G1 X180.18 Y150.28 E20.34444
G1 X179.98 Y150.48 E20.35855
G1 X179.98 Y150.68 E20.36853
G1 X179.78 Y150.88 E20.38264
G1 X179.78 Y151.28 E20.40260
G1 X179.58 Y151.48 E20.41671
G1 X179.58 Y151.88 E20.43666
G1 X179.38 Y152.08 E20.45078
G1 X179.38 Y152.48 E20.47073
G1 X179.18 Y152.68 E20.48484
G1 X179.18 Y153.08 E20.50480
G1 X178.98 Y153.28 E20.51891
G1 X178.98 Y153.68 E20.53887
G1 X178.78 Y153.88 E20.55298
G1 X178.78 Y154.08 E20.56296
G1 X178.58 Y154.28 E20.57707
G1 X178.58 Y154.68 E20.59702
G1 X178.38 Y154.88 E20.61113
G1 X178.38 Y155.28 E20.63109
G1 X178.18 Y155.48 E20.64520
G1 X178.18 Y155.88 E20.66516
G1 X177.98 Y156.08 E20.67927
G1 X177.98 Y156.48 E20.69922
G1 X177.78 Y156.68 E20.71334
G1 X177.78 Y157.08 E20.73329
G1 X177.58 Y157.28 E20.74740
G1 X177.58 Y157.48 E20.75738
G1 X177.38 Y157.68 E20.77149
G1 X177.38 Y157.88 E20.78147
G1 X176.38 Y158.88 E20.85202
G1 X176.38 Y159.08 E20.86200
G1 X175.18 Y160.28 E20.94667
G1 X175.18 Y160.48 E20.95665
G1 X173.98 Y161.68 E21.04131
G1 X173.98 Y161.88 E21.05129
G1 X172.98 Y162.88 E21.12185
G1 X172.98 Y163.08 E21.13183
G1 X171.78 Y164.28 E21.21649
G1 X171.78 Y164.48 E21.22647
G1 X170.58 Y165.68 E21.31114
G1 X170.58 Y165.88 E21.32111
G1 X169.58 Y166.88 E21.39167
G1 X169.58 Y167.08 E21.40165
G1 X168.38 Y168.28 E21.48631
G1 X168.38 Y168.48 E21.49629
G1 X167.18 Y169.68 E21.58096
G1 X167.18 Y169.88 E21.59094
G1 X166.18 Y170.88 E21.66149
G1 X166.18 Y171.08 E21.67147
G1 X161.23 Y176.03 E22.02037
G1 X160.28 Y176.03 E22.06776
G1 X159.58 Y177.02 E22.12864
G1 X149.26 Y182.78 E22.71806
G1 X139.14 Y176.82 E23.30377
G1 X133.68 Y176.82 E23.57657
G1 X133.68 Y171.48 E23.84323
G1 X133.48 Y171.28 E23.85734
G1 X133.48 Y170.88 E23.87730
G1 X133.28 Y170.68 E23.89141
G1 X133.28 Y170.08 E23.92134
G1 X133.08 Y169.88 E23.93545
G1 X133.08 Y169.28 E23.96539
G1 X132.88 Y169.08 E23.97950
G1 X132.88 Y168.68 E23.99946
G1 X132.68 Y168.48 E24.01357
G1 X132.68 Y167.88 E24.04350
G1 X132.48 Y167.68 E24.05761
G1 X132.48 Y167.08 E24.08755
G1 X132.28 Y166.88 E24.10166
G1 X132.28 Y159.37 E24.47633
G1 X132.48 Y159.17 E24.49044
G1 X132.48 Y158.97 E24.50042
G1 X132.68 Y158.77 E24.51453
G1 X132.68 Y158.57 E24.52451
G1 X132.88 Y158.37 E24.53862
G1 X132.88 Y158.17 E24.54860
G1 X133.08 Y157.97 E24.56271
G1 X133.08 Y157.77 E24.57269
G1 X133.28 Y157.57 E24.58680
G1 X133.28 Y157.37 E24.59678
G1 X133.48 Y157.17 E24.61089
G1 X133.48 Y156.77 E24.63085
G1 X133.68 Y156.57 E24.64496
G1 X133.68 Y156.37 E24.65494
G1 X133.88 Y156.17 E24.66905
G1 X133.88 Y155.97 E24.67902
G1 X134.08 Y155.77 E24.69314
G1 X134.08 Y155.57 E24.70311
G1 X134.28 Y155.37 E24.71722
G1 X134.28 Y155.17 E24.72720
G1 X134.48 Y154.97 E24.74131
G1 X134.48 Y154.77 E24.75129
G1 X134.68 Y154.57 E24.76540
G1 X134.68 Y154.37 E24.77538
G1 X134.88 Y154.17 E24.78949
G1 X134.88 Y153.77 E24.80945
G1 X135.08 Y153.57 E24.82356
G1 X135.08 Y153.37 E24.83354
G1 X135.28 Y153.17 E24.84765
G1 X135.28 Y152.97 E24.85763
G1 X135.48 Y152.77 E24.87174
G1 X135.48 Y152.57 E24.88172
G1 X135.68 Y152.37 E24.89583
G1 X135.68 Y152.17 E24.90580
G1 X135.88 Y151.97 E24.91992
G1 X135.88 Y151.77 E24.92989
G1 X136.08 Y151.57 E24.94400
G1 X136.08 Y151.37 E24.95398
G1 X136.28 Y151.17 E24.96809
G1 X136.28 Y150.77 E24.98805
G1 X136.48 Y150.57 E25.00216
G1 X136.48 Y150.37 E25.01214
G1 X136.68 Y150.17 E25.02625
G1 X136.68 Y149.97 E25.03623
G1 X136.88 Y149.77 E25.05034
G1 X136.88 Y149.57 E25.06032
G1 X137.08 Y149.37 E25.07443
G1 X137.08 Y149.17 E25.08441
G1 X137.28 Y148.97 E25.09852
G1 X137.28 Y148.77 E25.10850
G1 X137.48 Y148.57 E25.12261
G1 X137.48 Y148.37 E25.13258
G1 X137.68 Y148.17 E25.14670
G1 X137.68 Y147.77 E25.16665
G1 X137.88 Y147.57 E25.18076
G1 X137.88 Y147.37 E25.19074
G1 X138.08 Y147.17 E25.20485
G1 X138.08 Y146.97 E25.21483
G1 X138.28 Y146.77 E25.22894
G1 X138.28 Y146.57 E25.23892
G1 X138.48 Y146.37 E25.25303
G1 X138.48 Y146.17 E25.26301
G1 X138.68 Y145.97 E25.27712
G1 X138.68 Y145.77 E25.28710
G1 X138.88 Y145.57 E25.30121
G1 X138.88 Y145.37 E25.31119
G1 X139.08 Y145.17 E25.32530
G1 X139.08 Y144.77 E25.34525
G1 X139.28 Y144.57 E25.35936
G1 X139.28 Y144.37 E25.36934
G1 X139.48 Y144.17 E25.38345
G1 X139.48 Y143.97 E25.39343
G1 X139.68 Y143.77 E25.40754
G1 X139.68 Y143.57 E25.41752
G1 X139.88 Y143.37 E25.43163
G1 X139.88 Y143.17 E25.44161
G1 X140.08 Y142.97 E25.45572
G1 X140.08 Y142.77 E25.46570
G1 X140.28 Y142.57 E25.47981
G1 X140.28 Y142.37 E25.48979
G1 X140.48 Y142.17 E25.50390
G1 X140.48 Y141.77 E25.52386
G1 X140.68 Y141.57 E25.53797
G1 X140.68 Y141.37 E25.54794
G1 X140.88 Y141.17 E25.56206
G1 X140.88 Y140.97 E25.57203
G1 X141.08 Y140.77 E25.58614
G1 X141.08 Y140.57 E25.59612
G1 X141.28 Y140.37 E25.61023
G1 X141.28 Y140.17 E25.62021
G1 X141.48 Y139.97 E25.63432
G1 X141.48 Y139.77 E25.64430
G1 X141.68 Y139.57 E25.65841
G1 X141.68 Y137.52 E25.76074
G1 X145.38 Y135.67 E25.96712
G1 X145.78 Y135.27 E25.99541
G1 X146.18 Y135.07 E26.01772
G1 X146.58 Y134.67 E26.04595
G1 X146.98 Y134.47 E26.06826
G1 X147.38 Y134.07 E26.09648
G1 X147.78 Y133.87 E26.11879
G1 X148.18 Y133.47 E26.14701
G1 X148.58 Y133.27 E26.16932
G1 X149.18 Y132.67 E26.21166
G1 X149.58 Y132.47 E26.23397
G1 X149.98 Y132.07 E26.26219
G1 X150.08 Y132.02 E26.26770
G1 X150.08 Y125.22 E26.60666
G0 F12000 X150.48 Y125.62
G1 F2700 X166.29 Y125.62 E27.39582
G1 X171.04 Y128.00 E27.66043
G1 X171.24 Y128.20 E27.67455
G1 X174.04 Y129.60 E27.83073
G1 X177.58 Y133.13 E28.08035
G1 X177.58 Y133.34 E28.09033
G1 X177.78 Y133.53 E28.10444
G1 X177.78 Y133.74 E28.11442
G1 X177.98 Y133.94 E28.12853
G1 X177.98 Y134.34 E28.14849
G1 X178.18 Y134.53 E28.16260
G1 X178.18 Y134.74 E28.17258
G1 X178.38 Y134.94 E28.18669
G1 X178.38 Y135.34 E28.20664
G1 X178.58 Y135.53 E28.22075
G1 X178.58 Y135.74 E28.23073
G1 X178.78 Y135.94 E28.24484
G1 X178.78 Y136.34 E28.26480
G1 X178.98 Y136.53 E28.27891
G1 X178.98 Y136.74 E28.28889
G1 X179.18 Y136.94 E28.30300
G1 X179.18 Y137.13 E28.31298
G1 X179.38 Y137.34 E28.32709
G1 X179.38 Y137.74 E28.34704
G1 X179.58 Y137.94 E28.36116
G1 X179.58 Y138.13 E28.37113
G1 X179.78 Y138.34 E28.38524
G1 X179.78 Y138.74 E28.40520
G1 X179.98 Y138.94 E28.41931
G1 X179.98 Y139.13 E28.42929
G1 X180.18 Y139.34 E28.44340
G1 X180.18 Y139.74 E28.46336
G1 X180.38 Y139.94 E28.47747
G1 X180.38 Y140.13 E28.48745
G1 X180.58 Y140.34 E28.50156
G1 X180.58 Y147.72 E28.86975
G1 X180.38 Y147.91 E28.88386
G1 X180.38 Y148.31 E28.90381
G1 X180.18 Y148.51 E28.91793
G1 X180.18 Y148.91 E28.93788
G1 X179.98 Y149.12 E28.95199
G1 X179.98 Y149.51 E28.97195
G1 X179.78 Y149.72 E28.98606
G1 X179.78 Y150.12 E29.00602
G1 X179.58 Y150.31 E29.02013
G1 X179.58 Y150.51 E29.03010
G1 X179.38 Y150.72 E29.04422
G1 X179.38 Y151.12 E29.06417
G1 X179.18 Y151.31 E29.07828
G1 X179.18 Y151.72 E29.09824
G1 X178.98 Y151.91 E29.11235
G1 X178.98 Y152.31 E29.13231
G1 X178.78 Y152.51 E29.14642
G1 X178.78 Y152.91 E29.16637
G1 X178.58 Y153.12 E29.18048
G1 X178.58 Y153.51 E29.20044
G1 X178.38 Y153.72 E29.21455
G1 X178.38 Y153.91 E29.22453
G1 X178.18 Y154.12 E29.23864
G1 X178.18 Y154.51 E29.25860
G1 X177.98 Y154.72 E29.27271
G1 X177.98 Y155.12 E29.29266
G1 X177.78 Y155.31 E29.30677
G1 X177.78 Y155.72 E29.32673
G1 X177.58 Y155.91 E29.34084
G1 X177.58 Y156.31 E29.36080
G1 X177.38 Y156.51 E29.37491
G1 X177.38 Y156.91 E29.39487
G1 X177.18 Y157.12 E29.40898
G1 X177.18 Y157.31 E29.41895
G1 X176.98 Y157.51 E29.43307
G1 X176.98 Y157.72 E29.44304
G1 X175.98 Y158.72 E29.51360
G1 X175.98 Y158.91 E29.52358
G1 X174.78 Y160.12 E29.60824
G1 X174.78 Y160.31 E29.61822
G1 X173.58 Y161.51 E29.70289
G1 X173.58 Y161.72 E29.71287
G1 X172.58 Y162.72 E29.78342
G1 X172.58 Y162.91 E29.79340
G1 X171.38 Y164.12 E29.87807
G1 X171.38 Y164.31 E29.88804
G1 X170.18 Y165.51 E29.97271
G1 X170.18 Y165.72 E29.98269
G1 X169.18 Y166.72 E30.05324
G1 X169.18 Y166.91 E30.06322
G1 X167.98 Y168.12 E30.14789
G1 X167.98 Y168.31 E30.15787
G1 X166.78 Y169.51 E30.24253
G1 X166.78 Y169.72 E30.25251
G1 X165.78 Y170.72 E30.32307
G1 X165.78 Y170.91 E30.33304
G1 X161.07 Y175.62 E30.66536
G1 X160.07 Y175.62 E30.71485
G1 X159.30 Y176.72 E30.78153
G1 X149.27 Y182.32 E31.35500
G1 X139.25 Y176.43 E31.93469
G1 X134.08 Y176.43 E32.19298
G1 X134.08 Y171.31 E32.44792
G1 X133.88 Y171.12 E32.46203
G1 X133.88 Y170.72 E32.48198
G1 X133.68 Y170.51 E32.49609
G1 X133.68 Y169.91 E32.52603
G1 X133.48 Y169.72 E32.54014
G1 X133.48 Y169.12 E32.57007
G1 X133.28 Y168.91 E32.58418
G1 X133.28 Y168.51 E32.60414
G1 X133.08 Y168.31 E32.61825
G1 X133.08 Y167.72 E32.64819
G1 X132.88 Y167.51 E32.66230
G1 X132.88 Y166.91 E32.69223
G1 X132.68 Y166.72 E32.70634
G1 X132.68 Y159.53 E33.06455
G1 X132.88 Y159.34 E33.07866
G1 X132.88 Y159.13 E33.08864
G1 X133.08 Y158.94 E33.10275
G1 X133.08 Y158.74 E33.11273
G1 X133.28 Y158.53 E33.12684
G1 X133.28 Y158.34 E33.13682
G1 X133.48 Y158.13 E33.15093
G1 X133.48 Y157.94 E33.16091
G1 X133.68 Y157.74 E33.17502
G1 X133.68 Y157.53 E33.18500
G1 X133.88 Y157.34 E33.19911
G1 X133.88 Y156.94 E33.21907
G1 X134.08 Y156.74 E33.23318
G1 X134.08 Y156.53 E33.24315
G1 X134.28 Y156.34 E33.25727
G1 X134.28 Y156.13 E33.26724
G1 X134.48 Y155.94 E33.28136
G1 X134.48 Y155.74 E33.29133
G1 X134.68 Y155.53 E33.30544
G1 X134.68 Y155.34 E33.31542
G1 X134.88 Y155.13 E33.32953
G1 X134.88 Y154.94 E33.33951
G1 X135.08 Y154.74 E33.35362
G1 X135.08 Y154.53 E33.36360
G1 X135.28 Y154.34 E33.37771
G1 X135.28 Y153.94 E33.39767
G1 X135.48 Y153.74 E33.41178
G1 X135.48 Y153.53 E33.42176
G1 X135.68 Y153.34 E33.43587
G1 X135.68 Y153.13 E33.44585
G1 X135.88 Y152.94 E33.45996
G1 X135.88 Y152.74 E33.46994
G1 X136.08 Y152.53 E33.48405
G1 X136.08 Y152.34 E33.49402
G1 X136.28 Y152.13 E33.50814
G1 X136.28 Y151.94 E33.51811
G1 X136.48 Y151.74 E33.53222
G1 X136.48 Y151.53 E33.54220
G1 X136.68 Y151.34 E33.55631
G1 X136.68 Y150.94 E33.57627
G1 X136.88 Y150.74 E33.59038
G1 X136.88 Y150.53 E33.60036
G1 X137.08 Y150.34 E33.61447
G1 X137.08 Y150.13 E33.62445
G1 X137.28 Y149.94 E33.63856
G1 X137.28 Y149.74 E33.64854
G1 X137.48 Y149.53 E33.66265
G1 X137.48 Y149.34 E33.67263
G1 X137.68 Y149.13 E33.68674
G1 X137.68 Y148.94 E33.69672
G1 X137.88 Y148.74 E33.71083
G1 X137.88 Y148.53 E33.72080
G1 X138.08 Y148.34 E33.73492
G1 X138.08 Y147.94 E33.75487
G1 X138.28 Y147.74 E33.76898
G1 X138.28 Y147.53 E33.77896
G1 X138.48 Y147.34 E33.79307
G1 X138.48 Y147.13 E33.80305
G1 X138.68 Y146.94 E33.81716
G1 X138.68 Y146.74 E33.82714
G1 X138.88 Y146.53 E33.84125
G1 X138.88 Y146.34 E33.85123
G1 X139.08 Y146.13 E33.86534
G1 X139.08 Y145.94 E33.87532
G1 X139.28 Y145.74 E33.88943
G1 X139.28 Y145.53 E33.89941
G1 X139.48 Y145.34 E33.91352
G1 X139.48 Y144.94 E33.93347
G1 X139.68 Y144.74 E33.94758
G1 X139.68 Y144.53 E33.95756
G1 X139.88 Y144.34 E33.97167
G1 X139.88 Y144.13 E33.98165
G1 X140.08 Y143.94 E33.99576
G1 X140.08 Y143.74 E34.00574
G1 X140.28 Y143.53 E34.01985
G1 X140.28 Y143.34 E34.02983
G1 X140.48 Y143.13 E34.04394
G1 X140.48 Y142.94 E34.05392
G1 X140.68 Y142.74 E34.06803
G1 X140.68 Y142.53 E34.07801
G1 X140.88 Y142.34 E34.09212
G1 X140.88 Y141.94 E34.11208
G1 X141.08 Y141.74 E34.12619
G1 X141.08 Y141.53 E34.13616
G1 X141.28 Y141.34 E34.15028
G1 X141.28 Y141.13 E34.16025
G1 X141.48 Y140.94 E34.17436
G1 X141.48 Y140.74 E34.18434
G1 X141.68 Y140.53 E34.19845
G1 X141.68 Y140.34 E34.20843
G1 X141.88 Y140.13 E34.22254
G1 X141.88 Y139.94 E34.23252
G1 X142.08 Y139.74 E34.24663
G1 X142.08 Y137.77 E34.34487
G1 X145.61 Y136.00 E34.54221
G1 X146.01 Y135.60 E34.57043
G1 X146.41 Y135.40 E34.59275
G1 X146.81 Y135.00 E34.62097
G1 X147.21 Y134.80 E34.64328
G1 X147.61 Y134.40 E34.67150
G1 X148.01 Y134.20 E34.69381
G1 X148.41 Y133.80 E34.72204
G1 X148.81 Y133.60 E34.74435
G1 X149.41 Y133.00 E34.78668
G1 X149.81 Y132.80 E34.80899
G1 X150.21 Y132.40 E34.83721
G1 X150.48 Y132.27 E34.85183
G1 X150.48 Y125.62 E35.18315
G0 F12000 X150.88 Y126.03
G1 F2700 X166.20 Y126.03 E35.94767
G1 X170.80 Y128.33 E36.20432
G1 X171.00 Y128.53 E36.21843
G1 X173.80 Y129.93 E36.37461
G1 X177.18 Y133.30 E36.61273
G1 X177.18 Y133.50 E36.62271
G1 X177.38 Y133.70 E36.63682
G1 X177.38 Y133.90 E36.64680
G1 X177.58 Y134.10 E36.66091
G1 X177.58 Y134.50 E36.68087
G1 X177.78 Y134.70 E36.69498
G1 X177.78 Y134.90 E36.70496
G1 X177.98 Y135.10 E36.71907
G1 X177.98 Y135.50 E36.73902
G1 X178.18 Y135.70 E36.75313
G1 X178.18 Y135.90 E36.76311
G1 X178.38 Y136.10 E36.77722
G1 X178.38 Y136.50 E36.79718
G1 X178.58 Y136.70 E36.81129
G1 X178.58 Y136.90 E36.82127
G1 X178.78 Y137.10 E36.83538
G1 X178.78 Y137.30 E36.84536
G1 X178.98 Y137.50 E36.85947
G1 X178.98 Y137.90 E36.87942
G1 X179.18 Y138.10 E36.89354
G1 X179.18 Y138.30 E36.90351
G1 X179.38 Y138.50 E36.91763
G1 X179.38 Y138.90 E36.93758
G1 X179.58 Y139.10 E36.95169
G1 X179.58 Y139.30 E36.96167
G1 X179.78 Y139.50 E36.97578
G1 X179.78 Y139.90 E36.99574
G1 X179.98 Y140.10 E37.00985
G1 X179.98 Y140.30 E37.01983
G1 X180.18 Y140.50 E37.03394
G1 X180.18 Y147.55 E37.38556
G1 X179.98 Y147.75 E37.39967
G1 X179.98 Y148.15 E37.41963
G1 X179.78 Y148.35 E37.43374
G1 X179.78 Y148.75 E37.45370
G1 X179.58 Y148.95 E37.46781
G1 X179.58 Y149.35 E37.48777
G1 X179.38 Y149.55 E37.50188
G1 X179.38 Y149.95 E37.52183
G1 X179.18 Y150.15 E37.53594
G1 X179.18 Y150.35 E37.54592
G1 X178.98 Y150.55 E37.56003
G1 X178.98 Y150.95 E37.57999
G1 X178.78 Y151.15 E37.59410
G1 X178.78 Y151.55 E37.61406
G1 X178.58 Y151.75 E37.62817
G1 X178.58 Y152.15 E37.64812
G1 X178.38 Y152.35 E37.66223
G1 X178.38 Y152.75 E37.68219
G1 X178.18 Y152.95 E37.69630
G1 X178.18 Y153.35 E37.71626
G1 X177.98 Y153.55 E37.73037
G1 X177.98 Y153.75 E37.74035
G1 X177.78 Y153.95 E37.75446
G1 X177.78 Y154.35 E37.77441
G1 X177.58 Y154.55 E37.78852
G1 X177.58 Y154.95 E37.80848
G1 X177.38 Y155.15 E37.82259
G1 X177.38 Y155.55 E37.84255
G1 X177.18 Y155.75 E37.85666
G1 X177.18 Y156.15 E37.87662
G1 X176.98 Y156.35 E37.89073
G1 X176.98 Y156.75 E37.91068
G1 X176.78 Y156.95 E37.92479
G1 X176.78 Y157.15 E37.93477
G1 X176.58 Y157.35 E37.94888
G1 X176.58 Y157.55 E37.95886
G1 X175.58 Y158.55 E38.02942
G1 X175.58 Y158.75 E38.03939
G1 X174.38 Y159.95 E38.12406
G1 X174.38 Y160.15 E38.13404
G1 X173.18 Y161.35 E38.21871
G1 X173.18 Y161.55 E38.22868
G1 X172.18 Y162.55 E38.29924
G1 X172.18 Y162.75 E38.30922
G1 X170.98 Y163.95 E38.39388
G1 X170.98 Y164.15 E38.40386
G1 X169.78 Y165.35 E38.48853
G1 X169.78 Y165.55 E38.49851
G1 X168.78 Y166.55 E38.56906
G1 X168.78 Y166.75 E38.57904
G1 X167.58 Y167.95 E38.66371
G1 X167.58 Y168.15 E38.67368
G1 X166.38 Y169.35 E38.75835
G1 X166.38 Y169.55 E38.76833
G1 X165.38 Y170.55 E38.83888
G1 X165.38 Y170.75 E38.84886
G1 X160.90 Y175.22 E39.16467
G1 X159.87 Y175.22 E39.21620
G1 X159.03 Y176.41 E39.28868
G1 X149.27 Y181.86 E39.84618
G1 X139.36 Y176.03 E40.41988
G1 X134.48 Y176.03 E40.66359
G1 X134.48 Y171.15 E40.90686
G1 X134.28 Y170.95 E40.92097
G1 X134.28 Y170.55 E40.94092
G1 X134.08 Y170.35 E40.95503
G1 X134.08 Y169.75 E40.98497
G1 X133.88 Y169.55 E40.99908
G1 X133.88 Y168.95 E41.02901
G1 X133.68 Y168.75 E41.04312
G1 X133.68 Y168.35 E41.06308
G1 X133.48 Y168.15 E41.07719
G1 X133.48 Y167.55 E41.10713
G1 X133.28 Y167.35 E41.12124
G1 X133.28 Y166.75 E41.15117
G1 X133.08 Y166.55 E41.16528
G1 X133.08 Y159.70 E41.50693
G1 X133.28 Y159.50 E41.52104
G1 X133.28 Y159.30 E41.53102
G1 X133.48 Y159.10 E41.54513
G1 X133.48 Y158.90 E41.55511
G1 X133.68 Y158.70 E41.56922
G1 X133.68 Y158.50 E41.57920
G1 X133.88 Y158.30 E41.59331
G1 X133.88 Y158.10 E41.60329
G1 X134.08 Y157.90 E41.61740
G1 X134.08 Y157.70 E41.62738
G1 X134.28 Y157.50 E41.64149
G1 X134.28 Y157.10 E41.66144
G1 X134.48 Y156.90 E41.67555
G1 X134.48 Y156.70 E41.68553
G1 X134.68 Y156.50 E41.69964
G1 X134.68 Y156.30 E41.70962
G1 X134.88 Y156.10 E41.72373
G1 X134.88 Y155.90 E41.73371
G1 X135.08 Y155.70 E41.74782
G1 X135.08 Y155.50 E41.75780
G1 X135.28 Y155.30 E41.77191
G1 X135.28 Y155.10 E41.78189
G1 X135.48 Y154.90 E41.79600
G1 X135.48 Y154.70 E41.80598
G1 X135.68 Y154.50 E41.82009
G1 X135.68 Y154.10 E41.84004
G1 X135.88 Y153.90 E41.85416
G1 X135.88 Y153.70 E41.86413
G1 X136.08 Y153.50 E41.87825
G1 X136.08 Y153.30 E41.88822
G1 X136.28 Y153.10 E41.90233
G1 X136.28 Y152.90 E41.91231
G1 X136.48 Y152.70 E41.92642
G1 X136.48 Y152.50 E41.93640
G1 X136.68 Y152.30 E41.95051
G1 X136.68 Y152.10 E41.96049
G1 X136.88 Y151.90 E41.97460
G1 X136.88 Y151.70 E41.98458
G1 X137.08 Y151.50 E41.99869
G1 X137.08 Y151.10 E42.01865
G1 X137.28 Y150.90 E42.03276
G1 X137.28 Y150.70 E42.04274
G1 X137.48 Y150.50 E42.05685
G1 X137.48 Y150.30 E42.06683
G1 X137.68 Y150.10 E42.08094
G1 X137.68 Y149.90 E42.09091
G1 X137.88 Y149.70 E42.10503
G1 X137.88 Y149.50 E42.11500
G1 X138.08 Y149.30 E42.12911
G1 X138.08 Y149.10 E42.13909
G1 X138.28 Y148.90 E42.15320
G1 X138.28 Y148.70 E42.16318
G1 X138.48 Y148.50 E42.17729
G1 X138.48 Y148.10 E42.19725
G1 X138.68 Y147.90 E42.21136
G1 X138.68 Y147.70 E42.22134
G1 X138.88 Y147.50 E42.23545
G1 X138.88 Y147.30 E42.24543
G1 X139.08 Y147.10 E42.25954
G1 X139.08 Y146.90 E42.26952
G1 X139.28 Y146.70 E42.28363
G1 X139.28 Y146.50 E42.29361
G1 X139.48 Y146.30 E42.30772
G1 X139.48 Y146.10 E42.31769
G1 X139.68 Y145.90 E42.33181
G1 X139.68 Y145.70 E42.34178
G1 X139.88 Y145.50 E42.35589
G1 X139.88 Y145.10 E42.37585
G1 X140.08 Y144.90 E42.38996
G1 X140.08 Y144.70 E42.39994
G1 X140.28 Y144.50 E42.41405
G1 X140.28 Y144.30 E42.42403
G1 X140.48 Y144.10 E42.43814
G1 X140.48 Y143.90 E42.44812
G1 X140.68 Y143.70 E42.46223
G1 X140.68 Y143.50 E42.47221
G1 X140.88 Y143.30 E42.48632
G1 X140.88 Y143.10 E42.49630
G1 X141.08 Y142.90 E42.51041
G1 X141.08 Y142.70 E42.52039
G1 X141.28 Y142.50 E42.53450
G1 X141.28 Y142.10 E42.55445
G1 X141.48 Y141.90 E42.56856
G1 X141.48 Y141.70 E42.57854
G1 X141.68 Y141.50 E42.59265
G1 X141.68 Y141.30 E42.60263
G1 X141.88 Y141.10 E42.61674
G1 X141.88 Y140.90 E42.62672
G1 X142.08 Y140.70 E42.64083
G1 X142.08 Y140.50 E42.65081
G1 X142.28 Y140.30 E42.66492
G1 X142.28 Y140.10 E42.67490
G1 X142.48 Y139.90 E42.68901
G1 X142.48 Y138.01 E42.78320
G1 X145.85 Y136.33 E42.97144
G1 X146.25 Y135.93 E42.99967
G1 X146.65 Y135.73 E43.02198
G1 X147.05 Y135.33 E43.05020
G1 X147.45 Y135.13 E43.07251
G1 X147.85 Y134.73 E43.10073
G1 X148.25 Y134.53 E43.12305
G1 X148.65 Y134.13 E43.15127
G1 X149.05 Y133.93 E43.17358
G1 X149.65 Y133.33 E43.21591
G1 X150.05 Y133.13 E43.23822
G1 X150.45 Y132.73 E43.26645
G1 X150.85 Y132.53 E43.28876
G1 X150.88 Y132.50 E43.29052
G1 X150.88 Y126.03 E43.61361
G0 F12000 X151.28 Y126.42
G1 F2700 X166.10 Y126.42 E44.35343
G1 X170.56 Y128.65 E44.60214
G1 X170.76 Y128.85 E44.61625
G1 X173.56 Y130.25 E44.77243
G1 X176.78 Y133.47 E44.99909
G1 X176.78 Y133.67 E45.00907
G1 X176.98 Y133.87 E45.02318
G1 X176.98 Y134.07 E45.03316
G1 X177.18 Y134.27 E45.04727
G1 X177.18 Y134.67 E45.06723
G1 X177.38 Y134.87 E45.08134
G1 X177.38 Y135.07 E45.09131
G1 X177.58 Y135.27 E45.10543
G1 X177.58 Y135.67 E45.12538
G1 X177.78 Y135.87 E45.13949
G1 X177.78 Y136.07 E45.14947
G1 X177.98 Y136.27 E45.16358
G1 X177.98 Y136.67 E45.18354
G1 X178.18 Y136.87 E45.19765
G1 X178.18 Y137.07 E45.20763
G1 X178.38 Y137.27 E45.22174
G1 X178.38 Y137.47 E45.23172
G1 X178.58 Y137.67 E45.24583
G1 X178.58 Y138.07 E45.26578
G1 X178.78 Y138.27 E45.27989
G1 X178.78 Y138.47 E45.28987
G1 X178.98 Y138.67 E45.30398
G1 X178.98 Y139.07 E45.32394
G1 X179.18 Y139.27 E45.33805
G1 X179.18 Y139.47 E45.34803
G1 X179.38 Y139.67 E45.36214
G1 X179.38 Y140.07 E45.38210
G1 X179.58 Y140.27 E45.39621
G1 X179.58 Y140.47 E45.40619
G1 X179.78 Y140.67 E45.42030
G1 X179.78 Y147.38 E45.75536
G1 X179.58 Y147.58 E45.76947
G1 X179.58 Y147.98 E45.78943
G1 X179.38 Y148.18 E45.80354
G1 X179.38 Y148.58 E45.82349
G1 X179.18 Y148.78 E45.83760
G1 X179.18 Y149.18 E45.85756
G1 X178.98 Y149.38 E45.87167
G1 X178.98 Y149.78 E45.89163
G1 X178.78 Y149.98 E45.90574
G1 X178.78 Y150.18 E45.91572
G1 X178.58 Y150.38 E45.92983
G1 X178.58 Y150.78 E45.94978
G1 X178.38 Y150.98 E45.96389
G1 X178.38 Y151.38 E45.98385
G1 X178.18 Y151.58 E45.99796
G1 X178.18 Y151.98 E46.01792
G1 X177.98 Y152.18 E46.03203
G1 X177.98 Y152.58 E46.05199
G1 X177.78 Y152.78 E46.06610
G1 X177.78 Y153.18 E46.08605
G1 X177.58 Y153.38 E46.10016
G1 X177.58 Y153.58 E46.11014
G1 X177.38 Y153.78 E46.12425
G1 X177.38 Y154.18 E46.14421
G1 X177.18 Y154.38 E46.15832
G1 X177.18 Y154.78 E46.17828
G1 X176.98 Y154.98 E46.19239
G1 X176.98 Y155.38 E46.21234
G1 X176.78 Y155.58 E46.22645
G1 X176.78 Y155.98 E46.24641
G1 X176.58 Y156.18 E46.26052
G1 X176.58 Y156.58 E46.28048
G1 X176.38 Y156.78 E46.29459
G1 X176.38 Y156.98 E46.30457
G1 X176.18 Y157.18 E46.31868
G1 X176.18 Y157.38 E46.32866
G1 X175.18 Y158.38 E46.39921
G1 X175.18 Y158.58 E46.40919
G1 X173.98 Y159.78 E46.49386
G1 X173.98 Y159.98 E46.50383
G1 X172.78 Y161.18 E46.58850
G1 X172.78 Y161.38 E46.59848
G1 X171.78 Y162.38 E46.66903
G1 X171.78 Y162.58 E46.67901
G1 X170.58 Y163.78 E46.76368
G1 X170.58 Y163.98 E46.77366
G1 X169.38 Y165.18 E46.85832
G1 X169.38 Y165.38 E46.86830
G1 X168.38 Y166.38 E46.93886
G1 X168.38 Y166.58 E46.94883
G1 X167.18 Y167.78 E47.03350
G1 X167.18 Y167.98 E47.04348
G1 X165.98 Y169.18 E47.12815
G1 X165.98 Y169.38 E47.13812
G1 X164.98 Y170.38 E47.20868
G1 X164.98 Y170.58 E47.21866
G1 X160.73 Y174.82 E47.51795
G1 X159.66 Y174.82 E47.57153
G1 X158.75 Y176.11 E47.64981
G1 X149.28 Y181.40 E48.19132
G1 X139.47 Y175.62 E48.75900
G1 X134.88 Y175.62 E48.98825
G1 X134.88 Y170.98 E49.21984
G1 X134.68 Y170.78 E49.23395
G1 X134.68 Y170.38 E49.25390
G1 X134.48 Y170.18 E49.26802
G1 X134.48 Y169.58 E49.29795
G1 X134.28 Y169.38 E49.31206
G1 X134.28 Y168.78 E49.34200
G1 X134.08 Y168.58 E49.35611
G1 X134.08 Y168.18 E49.37606
G1 X133.88 Y167.98 E49.39017
G1 X133.88 Y167.38 E49.42011
G1 X133.68 Y167.18 E49.43422
G1 X133.68 Y166.58 E49.46415
G1 X133.48 Y166.38 E49.47826
G1 X133.48 Y159.87 E49.80335
G1 X133.68 Y159.67 E49.81746
G1 X133.68 Y159.47 E49.82744
G1 X133.88 Y159.27 E49.84155
G1 X133.88 Y159.07 E49.85153
G1 X134.08 Y158.87 E49.86564
G1 X134.08 Y158.67 E49.87562
G1 X134.28 Y158.47 E49.88973
G1 X134.28 Y158.27 E49.89970
G1 X134.48 Y158.07 E49.91382
G1 X134.48 Y157.87 E49.92379
G1 X134.68 Y157.67 E49.93790
G1 X134.68 Y157.27 E49.95786
G1 X134.88 Y157.07 E49.97197
G1 X134.88 Y156.87 E49.98195
G1 X135.08 Y156.67 E49.99606
G1 X135.08 Y156.47 E50.00604
G1 X135.28 Y156.27 E50.02015
G1 X135.28 Y156.07 E50.03013
G1 X135.48 Y155.87 E50.04424
G1 X135.48 Y155.67 E50.05422
G1 X135.68 Y155.47 E50.06833
G1 X135.68 Y155.27 E50.07831
G1 X135.88 Y155.07 E50.09242
G1 X135.88 Y154.87 E50.10240
G1 X136.08 Y154.67 E50.11651
G1 X136.08 Y154.27 E50.13646
G1 X136.28 Y154.07 E50.15057
G1 X136.28 Y153.87 E50.16055
G1 X136.48 Y153.67 E50.17466
G1 X136.48 Y153.47 E50.18464
G1 X136.68 Y153.27 E50.19875
G1 X136.68 Y153.07 E50.20873
G1 X136.88 Y152.87 E50.22284
G1 X136.88 Y152.67 E50.23282
G1 X137.08 Y152.47 E50.24693
G1 X137.08 Y152.27 E50.25691
G1 X137.28 Y152.07 E50.27102
G1 X137.28 Y151.87 E50.28100
G1 X137.48 Y151.67 E50.29511
G1 X137.48 Y151.27 E50.31506
G1 X137.68 Y151.07 E50.32918
G1 X137.68 Y150.87 E50.33915
G1 X137.88 Y150.67 E50.35326
G1 X137.88 Y150.47 E50.36324
G1 X138.08 Y150.27 E50.37735
G1 X138.08 Y150.07 E50.38733
G1 X138.28 Y149.87 E50.40144
G1 X138.28 Y149.67 E50.41142
G1 X138.48 Y149.47 E50.42553
G1 X138.48 Y149.27 E50.43551
G1 X138.68 Y149.07 E50.44962
G1 X138.68 Y148.87 E50.45960
G1 X138.88 Y148.67 E50.47371
G1 X138.88 Y148.27 E50.49367
G1 X139.08 Y148.07 E50.50778
G1 X139.08 Y147.87 E50.51776
G1 X139.28 Y147.67 E50.53187
G1 X139.28 Y147.47 E50.54184
G1 X139.48 Y147.27 E50.55596
G1 X139.48 Y147.07 E50.56593
G1 X139.68 Y146.87 E50.58005
G1 X139.68 Y146.67 E50.59002
G1 X139.88 Y146.47 E50.60413
G1 X139.88 Y146.27 E50.61411
G1 X140.08 Y146.07 E50.62822
G1 X140.08 Y145.87 E50.63820
G1 X140.28 Y145.67 E50.65231
G1 X140.28 Y145.27 E50.67227
G1 X140.48 Y145.07 E50.68638
G1 X140.48 Y144.87 E50.69636
G1 X140.68 Y144.67 E50.71047
G1 X140.68 Y144.47 E50.72045
G1 X140.88 Y144.27 E50.73456
G1 X140.88 Y144.07 E50.74454
G1 X141.08 Y143.87 E50.75865
G1 X141.08 Y143.67 E50.76863
G1 X141.28 Y143.47 E50.78274
G1 X141.28 Y143.27 E50.79271
G1 X141.48 Y143.07 E50.80683
G1 X141.48 Y142.87 E50.81680
G1 X141.68 Y142.67 E50.83091
G1 X141.68 Y142.27 E50.85087
G1 X141.88 Y142.07 E50.86498
G1 X141.88 Y141.87 E50.87496
G1 X142.08 Y141.67 E50.88907
G1 X142.08 Y141.47 E50.89905
G1 X142.28 Y141.27 E50.91316
G1 X142.28 Y141.07 E50.92314
G1 X142.48 Y140.87 E50.93725
G1 X142.48 Y140.67 E50.94723
G1 X142.68 Y140.47 E50.96134
G1 X142.68 Y140.27 E50.97132
G1 X142.88 Y140.07 E50.98543
G1 X142.88 Y138.26 E51.07558
G1 X146.09 Y136.65 E51.25479
G1 X146.49 Y136.25 E51.28297
G1 X146.89 Y136.05 E51.30533
G1 X147.29 Y135.65 E51.33352
G1 X147.69 Y135.45 E51.35587
G1 X148.09 Y135.05 E51.38406
G1 X148.49 Y134.85 E51.40641
G1 X148.89 Y134.45 E51.43460
G1 X149.29 Y134.25 E51.45696
G1 X149.89 Y133.65 E51.49926
G1 X150.29 Y133.45 E51.52161
G1 X150.69 Y133.05 E51.54980
G1 X151.09 Y132.85 E51.57216
G1 X151.28 Y132.67 E51.58538
G1 X151.28 Y126.42 E51.89675
G0 F12000 X151.68 Y126.83
G1 F2700 X166.01 Y126.83 E52.61193
G1 X170.33 Y128.98 E52.85267
G1 X170.53 Y129.18 E52.86678
G1 X173.33 Y130.58 E53.02296
G1 X176.38 Y133.63 E53.23808
G1 X176.38 Y133.83 E53.24806
G1 X176.58 Y134.03 E53.26217
G1 X176.58 Y134.23 E53.27215
G1 X176.78 Y134.43 E53.28626
G1 X176.78 Y134.83 E53.30622
G1 X176.98 Y135.03 E53.32033
G1 X176.98 Y135.23 E53.33031
G1 X177.18 Y135.43 E53.34442
G1 X177.18 Y135.83 E53.36437
G1 X177.38 Y136.03 E53.37848
G1 X177.38 Y136.23 E53.38846
G1 X177.58 Y136.43 E53.40257
G1 X177.58 Y136.83 E53.42253
G1 X177.78 Y137.03 E53.43664
G1 X177.78 Y137.23 E53.44662
G1 X177.98 Y137.43 E53.46073
G1 X177.98 Y137.63 E53.47071
G1 X178.18 Y137.83 E53.48482
G1 X178.18 Y138.23 E53.50477
G1 X178.38 Y138.43 E53.51889
G1 X178.38 Y138.63 E53.52886
G1 X178.58 Y138.83 E53.54297
G1 X178.58 Y139.23 E53.56293
G1 X178.78 Y139.43 E53.57704
G1 X178.78 Y139.63 E53.58702
G1 X178.98 Y139.83 E53.60113
G1 X178.98 Y140.23 E53.62109
G1 X179.18 Y140.43 E53.63520
G1 X179.18 Y140.63 E53.64518
G1 X179.38 Y140.83 E53.65929
G1 X179.38 Y147.22 E53.97789
G1 X179.18 Y147.42 E53.99200
G1 X179.18 Y147.82 E54.01195
G1 X178.98 Y148.02 E54.02606
G1 X178.98 Y148.42 E54.04602
G1 X178.78 Y148.62 E54.06013
G1 X178.78 Y149.02 E54.08009
G1 X178.58 Y149.22 E54.09420
G1 X178.58 Y149.62 E54.11416
G1 X178.38 Y149.82 E54.12827
G1 X178.38 Y150.02 E54.13824
G1 X178.18 Y150.22 E54.15236
G1 X178.18 Y150.62 E54.17231
G1 X177.98 Y150.82 E54.18642
G1 X177.98 Y151.22 E54.20638
G1 X177.78 Y151.42 E54.22049
G1 X177.78 Y151.82 E54.24045
G1 X177.58 Y152.02 E54.25456
G1 X177.58 Y152.42 E54.27451
G1 X177.38 Y152.62 E54.28862
G1 X177.38 Y153.02 E54.30858
G1 X177.18 Y153.22 E54.32269
G1 X177.18 Y153.42 E54.33267
G1 X176.98 Y153.62 E54.34678
G1 X176.98 Y154.02 E54.36674
G1 X176.78 Y154.22 E54.38085
G1 X176.78 Y154.62 E54.40080
G1 X176.58 Y154.82 E54.41491
G1 X176.58 Y155.22 E54.43487
G1 X176.38 Y155.42 E54.44898
G1 X176.38 Y155.82 E54.46894
G1 X176.18 Y156.02 E54.48305
G1 X176.18 Y156.42 E54.50300
G1 X175.98 Y156.62 E54.51712
G1 X175.98 Y156.82 E54.52709
G1 X175.78 Y157.02 E54.54121
G1 X175.78 Y157.22 E54.55118
G1 X174.78 Y158.22 E54.62174
G1 X174.78 Y158.42 E54.63172
G1 X173.58 Y159.62 E54.71638
G1 X173.58 Y159.82 E54.72636
G1 X172.38 Y161.02 E54.81103
G1 X172.38 Y161.22 E54.82101
G1 X171.38 Y162.22 E54.89156
G1 X171.38 Y162.42 E54.90154
G1 X170.18 Y163.62 E54.98621
G1 X170.18 Y163.82 E54.99618
G1 X168.98 Y165.02 E55.08085
G1 X168.98 Y165.22 E55.09083
G1 X167.98 Y166.22 E55.16138
G1 X167.98 Y166.42 E55.17136
G1 X166.78 Y167.62 E55.25603
G1 X166.78 Y167.82 E55.26601
G1 X165.58 Y169.02 E55.35067
G1 X165.58 Y169.22 E55.36065
G1 X164.58 Y170.22 E55.43121
G1 X164.58 Y170.42 E55.44118
G1 X160.57 Y174.43 E55.72390
G1 X159.45 Y174.43 E55.77963
G1 X158.48 Y175.80 E55.86370
G1 X149.28 Y180.94 E56.38922
G1 X139.58 Y175.22 E56.95089
G1 X135.28 Y175.22 E57.16561
G1 X135.28 Y170.82 E57.38548
G1 X135.08 Y170.62 E57.39959
G1 X135.08 Y170.22 E57.41955
G1 X134.88 Y170.02 E57.43366
G1 X134.88 Y169.42 E57.46359
G1 X134.68 Y169.22 E57.47770
G1 X134.68 Y168.62 E57.50764
G1 X134.48 Y168.42 E57.52175
G1 X134.48 Y168.02 E57.54171
G1 X134.28 Y167.82 E57.55582
G1 X134.28 Y167.22 E57.58575
G1 X134.08 Y167.02 E57.59986
G1 X134.08 Y166.42 E57.62980
G1 X133.88 Y166.22 E57.64391
G1 X133.88 Y160.03 E57.95253
G1 X134.08 Y159.83 E57.96664
G1 X134.08 Y159.63 E57.97662
G1 X134.28 Y159.43 E57.99073
G1 X134.28 Y159.23 E58.00071
G1 X134.48 Y159.03 E58.01482
G1 X134.48 Y158.83 E58.02480
G1 X134.68 Y158.63 E58.03891
G1 X134.68 Y158.43 E58.04888
G1 X134.88 Y158.23 E58.06300
G1 X134.88 Y158.03 E58.07297
G1 X135.08 Y157.83 E58.08708
G1 X135.08 Y157.43 E58.10704
G1 X135.28 Y157.23 E58.12115
G1 X135.28 Y157.03 E58.13113
G1 X135.48 Y156.83 E58.14524
G1 X135.48 Y156.63 E58.15522
G1 X135.68 Y156.43 E58.16933
G1 X135.68 Y156.23 E58.17931
G1 X135.88 Y156.03 E58.19342
G1 X135.88 Y155.83 E58.20340
G1 X136.08 Y155.63 E58.21751
G1 X136.08 Y155.43 E58.22749
G1 X136.28 Y155.23 E58.24160
G1 X136.28 Y155.03 E58.25158
G1 X136.48 Y154.83 E58.26569
G1 X136.48 Y154.43 E58.28564
G1 X136.68 Y154.23 E58.29975
G1 X136.68 Y154.03 E58.30973
G1 X136.88 Y153.83 E58.32384
G1 X136.88 Y153.63 E58.33382
G1 X137.08 Y153.43 E58.34793
G1 X137.08 Y153.23 E58.35791
G1 X137.28 Y153.03 E58.37202
G1 X137.28 Y152.83 E58.38200
G1 X137.48 Y152.63 E58.39611
G1 X137.48 Y152.43 E58.40609
G1 X137.68 Y152.23 E58.42020
G1 X137.68 Y152.03 E58.43018
G1 X137.88 Y151.83 E58.44429
G1 X137.88 Y151.43 E58.46424
G1 X138.08 Y151.23 E58.47836
G1 X138.08 Y151.03 E58.48833
G1 X138.28 Y150.83 E58.50244
G1 X138.28 Y150.63 E58.51242
G1 X138.48 Y150.43 E58.52653
G1 X138.48 Y150.23 E58.53651
G1 X138.68 Y150.03 E58.55062
G1 X138.68 Y149.83 E58.56060
G1 X138.88 Y149.63 E58.57471
G1 X138.88 Y149.43 E58.58469
G1 X139.08 Y149.23 E58.59880
G1 X139.08 Y149.03 E58.60878
G1 X139.28 Y148.83 E58.62289
G1 X139.28 Y148.43 E58.64285
G1 X139.48 Y148.23 E58.65696
G1 X139.48 Y148.03 E58.66694
G1 X139.68 Y147.83 E58.68105
G1 X139.68 Y147.63 E58.69102
G1 X139.88 Y147.43 E58.70514
G1 X139.88 Y147.23 E58.71511
G1 X140.08 Y147.03 E58.72922
G1 X140.08 Y146.83 E58.73920
G1 X140.28 Y146.63 E58.75331
G1 X140.28 Y146.43 E58.76329
G1 X140.48 Y146.23 E58.77740
G1 X140.48 Y146.03 E58.78738
G1 X140.68 Y145.83 E58.80149
G1 X140.68 Y145.43 E58.82145
G1 X140.88 Y145.23 E58.83556
G1 X140.88 Y145.03 E58.84554
G1 X141.08 Y144.83 E58.85965
G1 X141.08 Y144.63 E58.86963
G1 X141.28 Y144.43 E58.88374
G1 X141.28 Y144.23 E58.89372
G1 X141.48 Y144.03 E58.90783
G1 X141.48 Y143.83 E58.91780
G1 X141.68 Y143.63 E58.93192
G1 X141.68 Y143.43 E58.94189
G1 X141.88 Y143.23 E58.95600
G1 X141.88 Y143.03 E58.96598
G1 X142.08 Y142.83 E58.98009
G1 X142.08 Y142.43 E59.00005
G1 X142.28 Y142.23 E59.01416
G1 X142.28 Y142.03 E59.02414
G1 X142.48 Y141.83 E59.03825
G1 X142.48 Y141.63 E59.04823
G1 X142.68 Y141.43 E59.06234
G1 X142.68 Y141.23 E59.07232
G1 X142.88 Y141.03 E59.08643
G1 X142.88 Y140.83 E59.09641
G1 X143.08 Y140.63 E59.11052
G1 X143.08 Y140.43 E59.12050
G1 X143.28 Y140.23 E59.13461
G1 X143.28 Y138.51 E59.22062
G1 X146.33 Y136.98 E59.39074
G1 X146.72 Y136.58 E59.41893
G1 X147.13 Y136.38 E59.44129
G1 X147.53 Y135.98 E59.46947
G1 X147.93 Y135.78 E59.49183
G1 X148.32 Y135.38 E59.52002
G1 X148.73 Y135.18 E59.54237
G1 X149.12 Y134.78 E59.57056
G1 X149.53 Y134.58 E59.59292
G1 X150.12 Y133.98 E59.63521
G1 X150.53 Y133.78 E59.65757
G1 X150.93 Y133.38 E59.68576
G1 X151.33 Y133.18 E59.70811
G1 X151.68 Y132.83 E59.73284
G1 X151.68 Y126.83 E60.03253
G0 F12000 X152.08 Y127.22
G1 F2700 X165.92 Y127.22 E60.72301
G1 X170.09 Y129.31 E60.95583
G1 X170.29 Y129.51 E60.96998
G1 X173.09 Y130.91 E61.12612
G1 X175.98 Y133.80 E61.32974
G1 X175.98 Y134.00 E61.33972
G1 X176.18 Y134.20 E61.35383
G1 X176.18 Y134.40 E61.36381
G1 X176.38 Y134.60 E61.37792
G1 X176.38 Y135.00 E61.39787
G1 X176.58 Y135.20 E61.41199
G1 X176.58 Y135.40 E61.42196
G1 X176.78 Y135.60 E61.43608
G1 X176.78 Y136.00 E61.45603
G1 X176.98 Y136.20 E61.47014
G1 X176.98 Y136.40 E61.48012
G1 X177.18 Y136.60 E61.49423
G1 X177.18 Y137.00 E61.51419
G1 X177.38 Y137.20 E61.52830
G1 X177.38 Y137.40 E61.53828
G1 X177.58 Y137.60 E61.55239
G1 X177.58 Y137.80 E61.56237
G1 X177.78 Y138.00 E61.57648
G1 X177.78 Y138.40 E61.59643
G1 X177.98 Y138.60 E61.61054
G1 X177.98 Y138.80 E61.62052
G1 X178.18 Y139.00 E61.63463
G1 X178.18 Y139.40 E61.65459
G1 X178.38 Y139.60 E61.66870
G1 X178.38 Y139.80 E61.67868
G1 X178.58 Y140.00 E61.69279
G1 X178.58 Y140.40 E61.71275
G1 X178.78 Y140.60 E61.72686
G1 X178.78 Y140.80 E61.73683
G1 X178.98 Y141.00 E61.75095
G1 X178.98 Y147.05 E62.05298
G1 X178.78 Y147.25 E62.06709
G1 X178.78 Y147.65 E62.08705
G1 X178.58 Y147.85 E62.10116
G1 X178.58 Y148.25 E62.12112
G1 X178.38 Y148.45 E62.13523
G1 X178.38 Y148.85 E62.15518
G1 X178.18 Y149.05 E62.16929
G1 X178.18 Y149.45 E62.18925
G1 X177.98 Y149.65 E62.20336
G1 X177.98 Y149.85 E62.21334
G1 X177.78 Y150.05 E62.22745
G1 X177.78 Y150.45 E62.24741
G1 X177.58 Y150.65 E62.26152
G1 X177.58 Y151.05 E62.28147
G1 X177.38 Y151.25 E62.29558
G1 X177.38 Y151.65 E62.31554
G1 X177.18 Y151.85 E62.32965
G1 X177.18 Y152.25 E62.34961
G1 X176.98 Y152.45 E62.36372
G1 X176.98 Y152.85 E62.38367
G1 X176.78 Y153.05 E62.39779
G1 X176.78 Y153.25 E62.40776
G1 X176.58 Y153.45 E62.42187
G1 X176.58 Y153.85 E62.44183
G1 X176.38 Y154.05 E62.45594
G1 X176.38 Y154.45 E62.47590
G1 X176.18 Y154.65 E62.49001
G1 X176.18 Y155.05 E62.50997
G1 X175.98 Y155.25 E62.52408
G1 X175.98 Y155.65 E62.54403
G1 X175.78 Y155.85 E62.55814
G1 X175.78 Y156.25 E62.57810
G1 X175.58 Y156.45 E62.59221
G1 X175.58 Y156.65 E62.60219
G1 X175.38 Y156.85 E62.61630
G1 X175.38 Y157.05 E62.62628
G1 X174.38 Y158.05 E62.69683
G1 X174.38 Y158.25 E62.70681
G1 X173.18 Y159.45 E62.79148
G1 X173.18 Y159.65 E62.80146
G1 X171.98 Y160.85 E62.88612
G1 X171.98 Y161.05 E62.89610
G1 X170.98 Y162.05 E62.96666
G1 X170.98 Y162.25 E62.97663
G1 X169.78 Y163.45 E63.06130
G1 X169.78 Y163.65 E63.07128
G1 X168.58 Y164.85 E63.15594
G1 X168.58 Y165.05 E63.16592
G1 X167.58 Y166.05 E63.23648
G1 X167.58 Y166.25 E63.24646
G1 X166.38 Y167.45 E63.33112
G1 X166.38 Y167.65 E63.34110
G1 X165.18 Y168.85 E63.42577
G1 X165.18 Y169.05 E63.43575
G1 X164.18 Y170.05 E63.50630
G1 X164.18 Y170.25 E63.51628
G1 X160.40 Y174.03 E63.78248
G1 X159.25 Y174.03 E63.84021
G1 X158.21 Y175.50 E63.93011
G1 X149.29 Y180.47 E64.43968
G1 X139.69 Y174.82 E64.99538
G1 X135.68 Y174.82 E65.19554
G1 X135.68 Y170.65 E65.40373
G1 X135.48 Y170.45 E65.41784
G1 X135.48 Y170.05 E65.43779
G1 X135.28 Y169.85 E65.45191
G1 X135.28 Y169.25 E65.48184
G1 X135.08 Y169.05 E65.49595
G1 X135.08 Y168.45 E65.52589
G1 X134.88 Y168.25 E65.54000
G1 X134.88 Y167.85 E65.55995
G1 X134.68 Y167.65 E65.57406
G1 X134.68 Y167.05 E65.60400
G1 X134.48 Y166.85 E65.61811
G1 X134.48 Y166.25 E65.64804
G1 X134.28 Y166.05 E65.66215
G1 X134.28 Y160.20 E65.95421
G1 X134.48 Y160.00 E65.96832
G1 X134.48 Y159.80 E65.97830
G1 X134.68 Y159.60 E65.99241
G1 X134.68 Y159.40 E66.00239
G1 X134.88 Y159.20 E66.01650
G1 X134.88 Y159.00 E66.02648
G1 X135.08 Y158.80 E66.04059
G1 X135.08 Y158.60 E66.05057
G1 X135.28 Y158.40 E66.06468
G1 X135.28 Y158.20 E66.07466
G1 X135.48 Y158.00 E66.08877
G1 X135.48 Y157.60 E66.10872
G1 X135.68 Y157.40 E66.12284
G1 X135.68 Y157.20 E66.13281
G1 X135.88 Y157.00 E66.14692
G1 X135.88 Y156.80 E66.15690
G1 X136.08 Y156.60 E66.17101
G1 X136.08 Y156.40 E66.18099
G1 X136.28 Y156.20 E66.19510
G1 X136.28 Y156.00 E66.20508
G1 X136.48 Y155.80 E66.21919
G1 X136.48 Y155.60 E66.22917
G1 X136.68 Y155.40 E66.24328
G1 X136.68 Y155.20 E66.25326
G1 X136.88 Y155.00 E66.26737
G1 X136.88 Y154.60 E66.28733
G1 X137.08 Y154.40 E66.30144
G1 X137.08 Y154.20 E66.31141
G1 X137.28 Y154.00 E66.32553
G1 X137.28 Y153.80 E66.33550
G1 X137.48 Y153.60 E66.34962
G1 X137.48 Y153.40 E66.35959
G1 X137.68 Y153.20 E66.37370
G1 X137.68 Y153.00 E66.38368
G1 X137.88 Y152.80 E66.39779
G1 X137.88 Y152.60 E66.40777
G1 X138.08 Y152.40 E66.42188
G1 X138.08 Y152.20 E66.43186
G1 X138.28 Y152.00 E66.44597
G1 X138.28 Y151.60 E66.46593
G1 X138.48 Y151.40 E66.48004
G1 X138.48 Y151.20 E66.49002
G1 X138.68 Y151.00 E66.50413
G1 X138.68 Y150.80 E66.51411
G1 X138.88 Y150.60 E66.52822
G1 X138.88 Y150.40 E66.53820
G1 X139.08 Y150.20 E66.55231
G1 X139.08 Y150.00 E66.56228
G1 X139.28 Y149.80 E66.57640
G1 X139.28 Y149.60 E66.58637
G1 X139.48 Y149.40 E66.60048
G1 X139.48 Y149.20 E66.61046
G1 X139.68 Y149.00 E66.62457
G1 X139.68 Y148.60 E66.64453
G1 X139.88 Y148.40 E66.65864
G1 X139.88 Y148.20 E66.66862
G1 X140.08 Y148.00 E66.68273
G1 X140.08 Y147.80 E66.69271
G1 X140.28 Y147.60 E66.70682
G1 X140.28 Y147.40 E66.71680
G1 X140.48 Y147.20 E66.73091
G1 X140.48 Y147.00 E66.74089
G1 X140.68 Y146.80 E66.75500
G1 X140.68 Y146.60 E66.76498
G1 X140.88 Y146.40 E66.77909
G1 X140.88 Y146.20 E66.78906
G1 X141.08 Y146.00 E66.80318
G1 X141.08 Y145.60 E66.82313
G1 X141.28 Y145.40 E66.83724
G1 X141.28 Y145.20 E66.84722
G1 X141.48 Y145.00 E66.86133
G1 X141.48 Y144.80 E66.87131
G1 X141.68 Y144.60 E66.88542
G1 X141.68 Y144.40 E66.89540
G1 X141.88 Y144.20 E66.90951
G1 X141.88 Y144.00 E66.91949
G1 X142.08 Y143.80 E66.93360
G1 X142.08 Y143.60 E66.94358
G1 X142.28 Y143.40 E66.95769
G1 X142.28 Y143.20 E66.96767
G1 X142.48 Y143.00 E66.98178
G1 X142.48 Y142.60 E67.00173
G1 X142.68 Y142.40 E67.01584
G1 X142.68 Y142.20 E67.02582
G1 X142.88 Y142.00 E67.03993
G1 X142.88 Y141.80 E67.04991
G1 X143.08 Y141.60 E67.06402
G1 X143.08 Y141.40 E67.07400
G1 X143.28 Y141.20 E67.08811
G1 X143.28 Y141.00 E67.09809
G1 X143.48 Y140.80 E67.11220
G1 X143.48 Y140.60 E67.12218
G1 X143.68 Y140.40 E67.13629
G1 X143.68 Y138.75 E67.21826
G1 X146.56 Y137.31 E67.37919
G1 X146.96 Y136.91 E67.40745
G1 X147.36 Y136.71 E67.42972
G1 X147.76 Y136.31 E67.45797
G1 X148.16 Y136.11 E67.48024
G1 X148.56 Y135.71 E67.50850
G1 X148.96 Y135.51 E67.53077
G1 X149.36 Y135.11 E67.55902
G1 X149.76 Y134.91 E67.58127
G1 X150.36 Y134.31 E67.62367
G1 X150.76 Y134.11 E67.64594
G1 X151.16 Y133.71 E67.67420
G1 X151.56 Y133.51 E67.69646
G1 X151.96 Y133.11 E67.72472
G1 X152.08 Y133.06 E67.73108
G1 X152.08 Y127.22 E68.02194
G0 F12000 X152.48 Y127.62
G1 F2700 X165.82 Y127.62 E68.68777
G1 X169.85 Y129.64 E68.91261
G1 X170.06 Y129.84 E68.92686
G1 X172.85 Y131.24 E69.08291
G1 X175.58 Y133.96 E69.27507
G1 X175.58 Y134.16 E69.28504
G1 X175.78 Y134.36 E69.29915
G1 X175.78 Y134.56 E69.30913
G1 X175.98 Y134.76 E69.32324
G1 X175.98 Y135.16 E69.34320
G1 X176.18 Y135.36 E69.35731
G1 X176.18 Y135.56 E69.36729
G1 X176.38 Y135.76 E69.38140
G1 X176.38 Y136.16 E69.40136
G1 X176.58 Y136.36 E69.41547
G1 X176.58 Y136.56 E69.42544
G1 X176.78 Y136.76 E69.43956
G1 X176.78 Y137.16 E69.45951
G1 X176.98 Y137.36 E69.47362
G1 X176.98 Y137.56 E69.48360
G1 X177.18 Y137.76 E69.49771
G1 X177.18 Y137.96 E69.50769
G1 X177.38 Y138.16 E69.52180
G1 X177.38 Y138.56 E69.54176
G1 X177.58 Y138.76 E69.55587
G1 X177.58 Y138.96 E69.56585
G1 X177.78 Y139.16 E69.57996
G1 X177.78 Y139.56 E69.59991
G1 X177.98 Y139.76 E69.61402
G1 X177.98 Y139.96 E69.62400
G1 X178.18 Y140.16 E69.63811
G1 X178.18 Y140.56 E69.65807
G1 X178.38 Y140.76 E69.67218
G1 X178.38 Y140.96 E69.68216
G1 X178.58 Y141.16 E69.69627
G1 X178.58 Y146.89 E69.98174
G1 X178.38 Y147.09 E69.99585
G1 X178.38 Y147.49 E70.01581
G1 X178.18 Y147.69 E70.02992
G1 X178.18 Y148.09 E70.04988
G1 X177.98 Y148.29 E70.06399
G1 X177.98 Y148.69 E70.08394
G1 X177.78 Y148.89 E70.09805
G1 X177.78 Y149.29 E70.11801
G1 X177.58 Y149.49 E70.13212
G1 X177.58 Y149.69 E70.14210
G1 X177.38 Y149.89 E70.15621
G1 X177.38 Y150.29 E70.17617
G1 X177.18 Y150.49 E70.19028
G1 X177.18 Y150.89 E70.21023
G1 X176.98 Y151.09 E70.22435
G1 X176.98 Y151.49 E70.24430
G1 X176.78 Y151.69 E70.25841
G1 X176.78 Y152.09 E70.27837
G1 X176.58 Y152.29 E70.29248
G1 X176.58 Y152.69 E70.31244
G1 X176.38 Y152.89 E70.32655
G1 X176.38 Y153.09 E70.33652
G1 X176.18 Y153.29 E70.35064
G1 X176.18 Y153.69 E70.37059
G1 X175.98 Y153.89 E70.38470
G1 X175.98 Y154.29 E70.40466
G1 X175.78 Y154.49 E70.41877
G1 X175.78 Y154.89 E70.43873
G1 X175.58 Y155.09 E70.45284
G1 X175.58 Y155.49 E70.47279
G1 X175.38 Y155.69 E70.48690
G1 X175.38 Y156.09 E70.50686
G1 X175.18 Y156.29 E70.52097
G1 X175.18 Y156.49 E70.53095
G1 X174.98 Y156.69 E70.54506
G1 X174.98 Y156.89 E70.55504
G1 X173.98 Y157.89 E70.62559
G1 X173.98 Y158.09 E70.63557
G1 X172.78 Y159.29 E70.72024
G1 X172.78 Y159.49 E70.73022
G1 X171.58 Y160.69 E70.81488
G1 X171.58 Y160.89 E70.82486
G1 X170.58 Y161.89 E70.89542
G1 X170.58 Y162.09 E70.90539
G1 X169.38 Y163.29 E70.99006
G1 X169.38 Y163.49 E71.00004
G1 X168.18 Y164.69 E71.08471
G1 X168.18 Y164.89 E71.09468
G1 X167.18 Y165.89 E71.16524
G1 X167.18 Y166.09 E71.17522
G1 X165.98 Y167.29 E71.25988
G1 X165.98 Y167.49 E71.26986
G1 X164.78 Y168.69 E71.35453
G1 X164.78 Y168.89 E71.36451
G1 X163.78 Y169.89 E71.43506
G1 X163.78 Y170.09 E71.44504
G1 X160.24 Y173.62 E71.69474
G1 X159.04 Y173.62 E71.75450
G1 X157.93 Y175.19 E71.85021
G1 X149.29 Y180.01 E72.34383
G1 X139.80 Y174.43 E72.89347
G1 X136.08 Y174.43 E73.07916
G1 X136.08 Y170.49 E73.27568
G1 X135.88 Y170.29 E73.28979
G1 X135.88 Y169.89 E73.30974
G1 X135.68 Y169.69 E73.32385
G1 X135.68 Y169.09 E73.35379
G1 X135.48 Y168.89 E73.36790
G1 X135.48 Y168.29 E73.39783
G1 X135.28 Y168.09 E73.41194
G1 X135.28 Y167.69 E73.43190
G1 X135.08 Y167.49 E73.44601
G1 X135.08 Y166.89 E73.47595
G1 X134.88 Y166.69 E73.49006
G1 X134.88 Y166.09 E73.51999
G1 X134.68 Y165.89 E73.53410
G1 X134.68 Y160.36 E73.80960
G1 X134.88 Y160.16 E73.82371
G1 X134.88 Y159.96 E73.83368
G1 X135.08 Y159.76 E73.84780
G1 X135.08 Y159.56 E73.85777
G1 X135.28 Y159.36 E73.87189
G1 X135.28 Y159.16 E73.88186
G1 X135.48 Y158.96 E73.89597
G1 X135.48 Y158.76 E73.90595
G1 X135.68 Y158.56 E73.92006
G1 X135.68 Y158.36 E73.93004
G1 X135.88 Y158.16 E73.94415
G1 X135.88 Y157.76 E73.96411
G1 X136.08 Y157.56 E73.97822
G1 X136.08 Y157.36 E73.98820
G1 X136.28 Y157.16 E74.00231
G1 X136.28 Y156.96 E74.01229
G1 X136.48 Y156.76 E74.02640
G1 X136.48 Y156.56 E74.03638
G1 X136.68 Y156.36 E74.05049
G1 X136.68 Y156.16 E74.06047
G1 X136.88 Y155.96 E74.07458
G1 X136.88 Y155.76 E74.08455
G1 X137.08 Y155.56 E74.09867
G1 X137.08 Y155.36 E74.10864
G1 X137.28 Y155.16 E74.12275
G1 X137.28 Y154.76 E74.14271
G1 X137.48 Y154.56 E74.15682
G1 X137.48 Y154.36 E74.16680
G1 X137.68 Y154.16 E74.18091
G1 X137.68 Y153.96 E74.19089
G1 X137.88 Y153.76 E74.20500
G1 X137.88 Y153.56 E74.21498
G1 X138.08 Y153.36 E74.22909
G1 X138.08 Y153.16 E74.23907
G1 X138.28 Y152.96 E74.25318
G1 X138.28 Y152.76 E74.26316
G1 X138.48 Y152.56 E74.27727
G1 X138.48 Y152.36 E74.28725
G1 X138.68 Y152.16 E74.30136
G1 X138.68 Y151.76 E74.32131
G1 X138.88 Y151.56 E74.33542
G1 X138.88 Y151.36 E74.34540
G1 X139.08 Y151.16 E74.35951
G1 X139.08 Y150.96 E74.36949
G1 X139.28 Y150.76 E74.38360
G1 X139.28 Y150.56 E74.39358
G1 X139.48 Y150.36 E74.40769
G1 X139.48 Y150.16 E74.41767
G1 X139.68 Y149.96 E74.43178
G1 X139.68 Y149.76 E74.44176
G1 X139.88 Y149.56 E74.45587
G1 X139.88 Y149.36 E74.46585
G1 X140.08 Y149.16 E74.47996
G1 X140.08 Y148.76 E74.49991
G1 X140.28 Y148.56 E74.51403
G1 X140.28 Y148.36 E74.52400
G1 X140.48 Y148.16 E74.53811
G1 X140.48 Y147.96 E74.54809
G1 X140.68 Y147.76 E74.56220
G1 X140.68 Y147.56 E74.57218
G1 X140.88 Y147.36 E74.58629
G1 X140.88 Y147.16 E74.59627
G1 X141.08 Y146.96 E74.61038
G1 X141.08 Y146.76 E74.62036
G1 X141.28 Y146.56 E74.63447
G1 X141.28 Y146.36 E74.64445
G1 X141.48 Y146.16 E74.65856
G1 X141.48 Y145.76 E74.67852
G1 X141.68 Y145.56 E74.69263
G1 X141.68 Y145.36 E74.70261
G1 X141.88 Y145.16 E74.71672
G1 X141.88 Y144.96 E74.72669
G1 X142.08 Y144.76 E74.74081
G1 X142.08 Y144.56 E74.75078
G1 X142.28 Y144.36 E74.76489
G1 X142.28 Y144.16 E74.77487
G1 X142.48 Y143.96 E74.78898
G1 X142.48 Y143.76 E74.79896
G1 X142.68 Y143.56 E74.81307
G1 X142.68 Y143.36 E74.82305
G1 X142.88 Y143.16 E74.83716
G1 X142.88 Y142.76 E74.85712
G1 X143.08 Y142.56 E74.87123
G1 X143.08 Y142.36 E74.88121
G1 X143.28 Y142.16 E74.89532
G1 X143.28 Y141.96 E74.90530
G1 X143.48 Y141.76 E74.91941
G1 X143.48 Y141.56 E74.92939
G1 X143.68 Y141.36 E74.94350
G1 X143.68 Y141.16 E74.95347
G1 X143.88 Y140.96 E74.96759
G1 X143.88 Y140.76 E74.97756
G1 X144.08 Y140.56 E74.99167
G1 X144.08 Y139.00 E75.06960
G1 X146.80 Y137.64 E75.22137
G1 X147.20 Y137.24 E75.24973
G1 X147.60 Y137.04 E75.27197
G1 X148.00 Y136.64 E75.30027
G1 X148.40 Y136.44 E75.32251
G1 X148.80 Y136.04 E75.35080
G1 X149.20 Y135.84 E75.37305
G1 X149.60 Y135.44 E75.40134
G1 X150.00 Y135.24 E75.42359
G1 X150.60 Y134.64 E75.46599
G1 X151.00 Y134.44 E75.48823
G1 X151.40 Y134.04 E75.51653
G1 X151.80 Y133.84 E75.53877
G1 X152.20 Y133.44 E75.56707
G1 X152.48 Y133.30 E75.58250
G1 X152.48 Y127.62 E75.86573
G0 F12000 X152.88 Y128.03
G1 F2700 X165.73 Y128.03 E76.50687
G1 X169.62 Y129.97 E76.72378
G1 X169.82 Y130.17 E76.73789
G1 X172.62 Y131.57 E76.89408
G1 X175.18 Y134.13 E77.07470
G1 X175.18 Y134.33 E77.08468
G1 X175.38 Y134.53 E77.09879
G1 X175.38 Y134.73 E77.10876
G1 X175.58 Y134.93 E77.12288
G1 X175.58 Y135.33 E77.14283
G1 X175.78 Y135.53 E77.15694
G1 X175.78 Y135.73 E77.16692
G1 X175.98 Y135.93 E77.18103
G1 X175.98 Y136.33 E77.20099
G1 X176.18 Y136.53 E77.21510
G1 X176.18 Y136.73 E77.22508
G1 X176.38 Y136.93 E77.23919
G1 X176.38 Y137.33 E77.25914
G1 X176.58 Y137.53 E77.27326
G1 X176.58 Y137.73 E77.28323
G1 X176.78 Y137.93 E77.29734
G1 X176.78 Y138.13 E77.30732
G1 X176.98 Y138.33 E77.32143
G1 X176.98 Y138.73 E77.34139
G1 X177.18 Y138.93 E77.35550
G1 X177.18 Y139.13 E77.36548
G1 X177.38 Y139.33 E77.37959
G1 X177.38 Y139.73 E77.39955
G1 X177.58 Y139.93 E77.41366
G1 X177.58 Y140.13 E77.42364
G1 X177.78 Y140.33 E77.43775
G1 X177.78 Y140.73 E77.45770
G1 X177.98 Y140.93 E77.47181
G1 X177.98 Y141.13 E77.48179
G1 X178.18 Y141.33 E77.49590
G1 X178.18 Y146.72 E77.76491
G1 X177.98 Y146.92 E77.77902
G1 X177.98 Y147.32 E77.79898
G1 X177.78 Y147.52 E77.81309
G1 X177.78 Y147.92 E77.83304
G1 X177.58 Y148.12 E77.84716
G1 X177.58 Y148.52 E77.86711
G1 X177.38 Y148.72 E77.88122
G1 X177.38 Y149.12 E77.90118
G1 X177.18 Y149.32 E77.91529
G1 X177.18 Y149.52 E77.92527
G1 X176.98 Y149.72 E77.93938
G1 X176.98 Y150.12 E77.95934
G1 X176.78 Y150.32 E77.97345
G1 X176.78 Y150.72 E77.99340
G1 X176.58 Y150.92 E78.00751
G1 X176.58 Y151.32 E78.02747
G1 X176.38 Y151.52 E78.04158
G1 X176.38 Y151.92 E78.06154
G1 X176.18 Y152.12 E78.07565
G1 X176.18 Y152.52 E78.09560
G1 X175.98 Y152.72 E78.10972
G1 X175.98 Y152.92 E78.11969
G1 X175.78 Y153.12 E78.13380
G1 X175.78 Y153.52 E78.15376
G1 X175.58 Y153.72 E78.16787
G1 X175.58 Y154.12 E78.18783
G1 X175.38 Y154.32 E78.20194
G1 X175.38 Y154.72 E78.22189
G1 X175.18 Y154.92 E78.23601
G1 X175.18 Y155.32 E78.25596
G1 X174.98 Y155.52 E78.27007
G1 X174.98 Y155.92 E78.29003
G1 X174.78 Y156.12 E78.30414
G1 X174.78 Y156.32 E78.31412
G1 X174.58 Y156.52 E78.32823
G1 X174.58 Y156.72 E78.33821
G1 X173.58 Y157.72 E78.40876
G1 X173.58 Y157.92 E78.41874
G1 X172.38 Y159.12 E78.50341
G1 X172.38 Y159.32 E78.51339
G1 X171.18 Y160.52 E78.59805
G1 X171.18 Y160.72 E78.60803
G1 X170.18 Y161.72 E78.67859
G1 X170.18 Y161.92 E78.68856
G1 X168.98 Y163.12 E78.77323
G1 X168.98 Y163.32 E78.78321
G1 X167.78 Y164.52 E78.86787
G1 X167.78 Y164.72 E78.87785
G1 X166.78 Y165.72 E78.94841
G1 X166.78 Y165.92 E78.95839
G1 X165.58 Y167.12 E79.04305
G1 X165.58 Y167.32 E79.05303
G1 X164.38 Y168.52 E79.13770
G1 X164.38 Y168.72 E79.14767
G1 X163.38 Y169.72 E79.21823
G1 X163.38 Y169.92 E79.22821
G1 X160.07 Y173.22 E79.46132
G1 X158.83 Y173.22 E79.52319
G1 X157.66 Y174.89 E79.62469
G1 X149.30 Y179.55 E80.10232
G1 X139.91 Y174.03 E80.64599
G1 X136.48 Y174.03 E80.81716
G1 X136.48 Y170.32 E81.00195
G1 X136.28 Y170.12 E81.01606
G1 X136.28 Y169.72 E81.03602
G1 X136.08 Y169.52 E81.05013
G1 X136.08 Y168.92 E81.08007
G1 X135.88 Y168.72 E81.09418
G1 X135.88 Y168.12 E81.12411
G1 X135.68 Y167.92 E81.13822
G1 X135.68 Y167.52 E81.15818
G1 X135.48 Y167.32 E81.17229
G1 X135.48 Y166.72 E81.20222
G1 X135.28 Y166.52 E81.21633
G1 X135.28 Y165.92 E81.24627
G1 X135.08 Y165.72 E81.26038
G1 X135.08 Y160.53 E81.51941
G1 X135.28 Y160.33 E81.53352
G1 X135.28 Y160.13 E81.54350
G1 X135.48 Y159.93 E81.55761
G1 X135.48 Y159.73 E81.56759
G1 X135.68 Y159.53 E81.58170
G1 X135.68 Y159.33 E81.59168
G1 X135.88 Y159.13 E81.60579
G1 X135.88 Y158.93 E81.61577
G1 X136.08 Y158.73 E81.62988
G1 X136.08 Y158.53 E81.63986
G1 X136.28 Y158.33 E81.65397
G1 X136.28 Y157.93 E81.67392
G1 X136.48 Y157.73 E81.68803
G1 X136.48 Y157.53 E81.69801
G1 X136.68 Y157.33 E81.71212
G1 X136.68 Y157.13 E81.72210
G1 X136.88 Y156.93 E81.73621
G1 X136.88 Y156.73 E81.74619
G1 X137.08 Y156.53 E81.76030
G1 X137.08 Y156.33 E81.77028
G1 X137.28 Y156.13 E81.78439
G1 X137.28 Y155.93 E81.79437
G1 X137.48 Y155.73 E81.80848
G1 X137.48 Y155.53 E81.81846
G1 X137.68 Y155.33 E81.83257
G1 X137.68 Y154.93 E81.85252
G1 X137.88 Y154.73 E81.86664
G1 X137.88 Y154.53 E81.87661
G1 X138.08 Y154.33 E81.89072
G1 X138.08 Y154.13 E81.90070
G1 X138.28 Y153.93 E81.91481
G1 X138.28 Y153.73 E81.92479
G1 X138.48 Y153.53 E81.93890
G1 X138.48 Y153.33 E81.94888
G1 X138.68 Y153.13 E81.96299
G1 X138.68 Y152.93 E81.97297
G1 X138.88 Y152.73 E81.98708
G1 X138.88 Y152.53 E81.99706
G1 X139.08 Y152.33 E82.01117
G1 X139.08 Y151.93 E82.03113
G1 X139.28 Y151.73 E82.04524
G1 X139.28 Y151.53 E82.05522
G1 X139.48 Y151.33 E82.06933
G1 X139.48 Y151.13 E82.07930
G1 X139.68 Y150.93 E82.09342
G1 X139.68 Y150.73 E82.10339
G1 X139.88 Y150.53 E82.11750
G1 X139.88 Y150.33 E82.12748
G1 X140.08 Y150.13 E82.14159
G1 X140.08 Y149.93 E82.15157
G1 X140.28 Y149.73 E82.16568
G1 X140.28 Y149.53 E82.17566
G1 X140.48 Y149.33 E82.18977
G1 X140.48 Y148.93 E82.20973
G1 X140.68 Y148.73 E82.22384
G1 X140.68 Y148.53 E82.23382
G1 X140.88 Y148.33 E82.24793
G1 X140.88 Y148.13 E82.25791
G1 X141.08 Y147.93 E82.27202
G1 X141.08 Y147.73 E82.28200
G1 X141.28 Y147.53 E82.29611
G1 X141.28 Y147.33 E82.30608
G1 X141.48 Y147.13 E82.32020
G1 X141.48 Y146.93 E82.33017
G1 X141.68 Y146.73 E82.34428
G1 X141.68 Y146.53 E82.35426
G1 X141.88 Y146.33 E82.36837
G1 X141.88 Y145.93 E82.38833
G1 X142.08 Y145.73 E82.40244
G1 X142.08 Y145.53 E82.41242
G1 X142.28 Y145.33 E82.42653
G1 X142.28 Y145.13 E82.43651
G1 X142.48 Y144.93 E82.45062
G1 X142.48 Y144.73 E82.46060
G1 X142.68 Y144.53 E82.47471
G1 X142.68 Y144.33 E82.48469
G1 X142.88 Y144.13 E82.49880
G1 X142.88 Y143.93 E82.50878
G1 X143.08 Y143.73 E82.52289
G1 X143.08 Y143.53 E82.53286
G1 X143.28 Y143.33 E82.54698
G1 X143.28 Y142.93 E82.56693
G1 X143.48 Y142.73 E82.58104
G1 X143.48 Y142.53 E82.59102
G1 X143.68 Y142.33 E82.60513
G1 X143.68 Y142.13 E82.61511
G1 X143.88 Y141.93 E82.62922
G1 X143.88 Y141.73 E82.63920
G1 X144.08 Y141.53 E82.65331
G1 X144.08 Y141.33 E82.66329
G1 X144.28 Y141.13 E82.67740
G1 X144.28 Y140.93 E82.68738
G1 X144.48 Y140.73 E82.70149
G1 X144.48 Y139.25 E82.77533
G1 X147.04 Y137.97 E82.91812
G1 X147.44 Y137.57 E82.94634
G1 X147.84 Y137.37 E82.96865
G1 X148.24 Y136.97 E82.99688
G1 X148.64 Y136.77 E83.01919
G1 X149.04 Y136.37 E83.04741
G1 X149.44 Y136.17 E83.06972
G1 X149.84 Y135.77 E83.09794
G1 X150.24 Y135.57 E83.12025
G1 X150.84 Y134.97 E83.16259
G1 X151.24 Y134.77 E83.18490
G1 X151.64 Y134.37 E83.21312
G1 X152.04 Y134.17 E83.23543
G1 X152.44 Y133.77 E83.26366
G1 X152.84 Y133.57 E83.28597
G1 X152.88 Y133.53 E83.28879
G1 X152.88 Y128.03 E83.56339
G0 F12000 X153.28 Y128.43
G1 F2700 X165.63 Y128.43 E84.17988
G1 X169.38 Y130.30 E84.38883
G1 X169.58 Y130.50 E84.40294
G1 X172.38 Y131.90 E84.55912
G1 X174.78 Y134.29 E84.72824
G1 X174.78 Y134.50 E84.73822
G1 X174.98 Y134.69 E84.75233
G1 X174.98 Y134.90 E84.76231
G1 X175.18 Y135.09 E84.77642
G1 X175.18 Y135.50 E84.79637
G1 X175.38 Y135.69 E84.81049
G1 X175.38 Y135.90 E84.82046
G1 X175.58 Y136.09 E84.83457
G1 X175.58 Y136.50 E84.85453
G1 X175.78 Y136.69 E84.86864
G1 X175.78 Y136.90 E84.87862
G1 X175.98 Y137.09 E84.89273
G1 X175.98 Y137.50 E84.91269
G1 X176.18 Y137.69 E84.92680
G1 X176.18 Y137.90 E84.93678
G1 X176.38 Y138.09 E84.95089
G1 X176.38 Y138.29 E84.96086
G1 X176.58 Y138.50 E84.97498
G1 X176.58 Y138.90 E84.99493
G1 X176.78 Y139.09 E85.00904
G1 X176.78 Y139.29 E85.01902
G1 X176.98 Y139.50 E85.03313
G1 X176.98 Y139.90 E85.05309
G1 X177.18 Y140.09 E85.06720
G1 X177.18 Y140.29 E85.07718
G1 X177.38 Y140.50 E85.09129
G1 X177.38 Y140.90 E85.11124
G1 X177.58 Y141.09 E85.12536
G1 X177.58 Y141.29 E85.13533
G1 X177.78 Y141.50 E85.14944
G1 X177.78 Y146.56 E85.40189
G1 X177.58 Y146.75 E85.41600
G1 X177.58 Y147.16 E85.43596
G1 X177.38 Y147.35 E85.45007
G1 X177.38 Y147.75 E85.47002
G1 X177.18 Y147.96 E85.48413
G1 X177.18 Y148.35 E85.50409
G1 X176.98 Y148.56 E85.51820
G1 X176.98 Y148.96 E85.53816
G1 X176.78 Y149.16 E85.55227
G1 X176.78 Y149.35 E85.56225
G1 X176.58 Y149.56 E85.57636
G1 X176.58 Y149.96 E85.59631
G1 X176.38 Y150.16 E85.61043
G1 X176.38 Y150.56 E85.63038
G1 X176.18 Y150.75 E85.64449
G1 X176.18 Y151.16 E85.66445
G1 X175.98 Y151.35 E85.67856
G1 X175.98 Y151.75 E85.69852
G1 X175.78 Y151.96 E85.71263
G1 X175.78 Y152.35 E85.73258
G1 X175.58 Y152.56 E85.74669
G1 X175.58 Y152.75 E85.75667
G1 X175.38 Y152.96 E85.77078
G1 X175.38 Y153.35 E85.79074
G1 X175.18 Y153.56 E85.80485
G1 X175.18 Y153.96 E85.82481
G1 X174.98 Y154.16 E85.83892
G1 X174.98 Y154.56 E85.85887
G1 X174.78 Y154.75 E85.87298
G1 X174.78 Y155.16 E85.89294
G1 X174.58 Y155.35 E85.90705
G1 X174.58 Y155.75 E85.92701
G1 X174.38 Y155.96 E85.94112
G1 X174.38 Y156.16 E85.95110
G1 X174.18 Y156.35 E85.96521
G1 X174.18 Y156.56 E85.97519
G1 X173.18 Y157.56 E86.04574
G1 X173.18 Y157.75 E86.05572
G1 X171.98 Y158.96 E86.14039
G1 X171.98 Y159.16 E86.15036
G1 X170.78 Y160.35 E86.23503
G1 X170.78 Y160.56 E86.24501
G1 X169.78 Y161.56 E86.31556
G1 X169.78 Y161.75 E86.32554
G1 X168.58 Y162.96 E86.41021
G1 X168.58 Y163.16 E86.42019
G1 X167.38 Y164.35 E86.50485
G1 X167.38 Y164.56 E86.51483
G1 X166.38 Y165.56 E86.58539
G1 X166.38 Y165.75 E86.59536
G1 X165.18 Y166.96 E86.68003
G1 X165.18 Y167.16 E86.69001
G1 X163.98 Y168.35 E86.77468
G1 X163.98 Y168.56 E86.78465
G1 X162.98 Y169.56 E86.85521
G1 X162.98 Y169.75 E86.86519
G1 X159.91 Y172.82 E87.08179
G1 X158.62 Y172.82 E87.14590
G1 X158.55 Y172.94 E87.15263
G1 X157.38 Y174.58 E87.25309
G1 X149.30 Y179.09 E87.71477
G1 X140.02 Y173.62 E88.25242
G1 X136.88 Y173.62 E88.40908
G1 X136.88 Y170.16 E88.58220
G1 X136.68 Y169.96 E88.59631
G1 X136.68 Y169.56 E88.61627
G1 X136.48 Y169.35 E88.63038
G1 X136.48 Y168.75 E88.66031
G1 X136.28 Y168.56 E88.67442
G1 X136.28 Y167.96 E88.70436
G1 X136.08 Y167.75 E88.71847
G1 X136.08 Y167.35 E88.73842
G1 X135.88 Y167.16 E88.75253
G1 X135.88 Y166.56 E88.78247
G1 X135.68 Y166.35 E88.79658
G1 X135.68 Y165.75 E88.82651
G1 X135.48 Y165.56 E88.84063
G1 X135.48 Y160.69 E89.08309
G1 X135.68 Y160.50 E89.09720
G1 X135.68 Y160.29 E89.10718
G1 X135.88 Y160.09 E89.12129
G1 X135.88 Y159.90 E89.13127
G1 X136.08 Y159.69 E89.14538
G1 X136.08 Y159.50 E89.15536
G1 X136.28 Y159.29 E89.16947
G1 X136.28 Y159.09 E89.17945
G1 X136.48 Y158.90 E89.19356
G1 X136.48 Y158.69 E89.20354
G1 X136.68 Y158.50 E89.21765
G1 X136.68 Y158.09 E89.23760
G1 X136.88 Y157.90 E89.25172
G1 X136.88 Y157.69 E89.26169
G1 X137.08 Y157.50 E89.27580
G1 X137.08 Y157.29 E89.28578
G1 X137.28 Y157.09 E89.29989
G1 X137.28 Y156.90 E89.30987
G1 X137.48 Y156.69 E89.32398
G1 X137.48 Y156.50 E89.33396
G1 X137.68 Y156.29 E89.34807
G1 X137.68 Y156.09 E89.35805
G1 X137.88 Y155.90 E89.37216
G1 X137.88 Y155.69 E89.38214
G1 X138.08 Y155.50 E89.39625
G1 X138.08 Y155.09 E89.41621
G1 X138.28 Y154.90 E89.43032
G1 X138.28 Y154.69 E89.44030
G1 X138.48 Y154.50 E89.45441
G1 X138.48 Y154.29 E89.46438
G1 X138.68 Y154.09 E89.47850
G1 X138.68 Y153.90 E89.48847
G1 X138.88 Y153.69 E89.50258
G1 X138.88 Y153.50 E89.51256
G1 X139.08 Y153.29 E89.52667
G1 X139.08 Y153.09 E89.53665
G1 X139.28 Y152.90 E89.55076
G1 X139.28 Y152.69 E89.56074
G1 X139.48 Y152.50 E89.57485
G1 X139.48 Y152.09 E89.59481
G1 X139.68 Y151.90 E89.60892
G1 X139.68 Y151.69 E89.61890
G1 X139.88 Y151.50 E89.63301
G1 X139.88 Y151.29 E89.64299
G1 X140.08 Y151.09 E89.65710
G1 X140.08 Y150.90 E89.66708
G1 X140.28 Y150.69 E89.68119
G1 X140.28 Y150.50 E89.69116
G1 X140.48 Y150.29 E89.70528
G1 X140.48 Y150.09 E89.71525
G1 X140.68 Y149.90 E89.72936
G1 X140.68 Y149.69 E89.73934
G1 X140.88 Y149.50 E89.75345
G1 X140.88 Y149.09 E89.77341
G1 X141.08 Y148.90 E89.78752
G1 X141.08 Y148.69 E89.79750
G1 X141.28 Y148.50 E89.81161
G1 X141.28 Y148.29 E89.82159
G1 X141.48 Y148.09 E89.83570
G1 X141.48 Y147.90 E89.84568
G1 X141.68 Y147.69 E89.85979
G1 X141.68 Y147.50 E89.86977
G1 X141.88 Y147.29 E89.88388
G1 X141.88 Y147.09 E89.89386
G1 X142.08 Y146.90 E89.90797
G1 X142.08 Y146.69 E89.91794
G1 X142.28 Y146.50 E89.93206
G1 X142.28 Y146.09 E89.95201
G1 X142.48 Y145.90 E89.96612
G1 X142.48 Y145.69 E89.97610
G1 X142.68 Y145.50 E89.99021
G1 X142.68 Y145.29 E90.00019
G1 X142.88 Y145.09 E90.01430
G1 X142.88 Y144.90 E90.02428
G1 X143.08 Y144.69 E90.03839
G1 X143.08 Y144.50 E90.04837
G1 X143.28 Y144.29 E90.06248
G1 X143.28 Y144.09 E90.07246
G1 X143.48 Y143.90 E90.08657
G1 X143.48 Y143.69 E90.09655
G1 X143.68 Y143.50 E90.11066
G1 X143.68 Y143.09 E90.13061
G1 X143.88 Y142.90 E90.14472
G1 X143.88 Y142.69 E90.15470
G1 X144.08 Y142.50 E90.16881
G1 X144.08 Y142.29 E90.17879
G1 X144.28 Y142.09 E90.19290
G1 X144.28 Y141.90 E90.20288
G1 X144.48 Y141.69 E90.21699
G1 X144.48 Y141.50 E90.22697
G1 X144.68 Y141.29 E90.24108
G1 X144.68 Y141.09 E90.25106
G1 X144.88 Y140.90 E90.26517
G1 X144.88 Y139.50 E90.33497
G1 X147.27 Y138.30 E90.46866
G1 X147.67 Y137.90 E90.49688
G1 X148.07 Y137.70 E90.51919
G1 X148.47 Y137.30 E90.54741
G1 X148.87 Y137.10 E90.56973
G1 X149.27 Y136.70 E90.59795
G1 X149.67 Y136.50 E90.62026
G1 X150.07 Y136.10 E90.64848
G1 X150.47 Y135.90 E90.67079
G1 X151.07 Y135.30 E90.71313
G1 X151.47 Y135.10 E90.73544
G1 X151.87 Y134.70 E90.76366
G1 X152.27 Y134.50 E90.78597
G1 X152.67 Y134.10 E90.81419
G1 X153.07 Y133.90 E90.83650
G1 X153.28 Y133.69 E90.85083
G1 X153.28 Y128.43 E91.11375
G0 F12000 X153.68 Y128.82
G1 F2700 X165.54 Y128.82 E91.70560
G1 X169.14 Y130.63 E91.90658
G1 X169.34 Y130.83 E91.92062
G1 X172.14 Y132.23 E92.07687
G1 X174.38 Y134.46 E92.23449
G1 X174.38 Y134.66 E92.24447
G1 X174.58 Y134.86 E92.25858
G1 X174.58 Y135.06 E92.26856
G1 X174.78 Y135.26 E92.28267
G1 X174.78 Y135.66 E92.30262
G1 X174.98 Y135.86 E92.31673
G1 X174.98 Y136.06 E92.32671
G1 X175.18 Y136.26 E92.34082
G1 X175.18 Y136.66 E92.36078
G1 X175.38 Y136.86 E92.37489
G1 X175.38 Y137.06 E92.38487
G1 X175.58 Y137.26 E92.39898
G1 X175.58 Y137.66 E92.41894
G1 X175.78 Y137.86 E92.43305
G1 X175.78 Y138.06 E92.44302
G1 X175.98 Y138.26 E92.45714
G1 X175.98 Y138.46 E92.46711
G1 X176.18 Y138.66 E92.48122
G1 X176.18 Y139.06 E92.50118
G1 X176.38 Y139.26 E92.51529
G1 X176.38 Y139.46 E92.52527
G1 X176.58 Y139.66 E92.53938
G1 X176.58 Y140.06 E92.55934
G1 X176.78 Y140.26 E92.57345
G1 X176.78 Y140.46 E92.58343
G1 X176.98 Y140.66 E92.59754
G1 X176.98 Y141.06 E92.61749
G1 X177.18 Y141.26 E92.63160
G1 X177.18 Y141.46 E92.64158
G1 X177.38 Y141.66 E92.65569
G1 X177.38 Y146.39 E92.89157
G1 X177.18 Y146.59 E92.90569
G1 X177.18 Y146.99 E92.92564
G1 X176.98 Y147.19 E92.93975
G1 X176.98 Y147.59 E92.95971
G1 X176.78 Y147.79 E92.97382
G1 X176.78 Y148.19 E92.99378
G1 X176.58 Y148.39 E93.00789
G1 X176.58 Y148.79 E93.02784
G1 X176.38 Y148.99 E93.04195
G1 X176.38 Y149.19 E93.05193
G1 X176.18 Y149.39 E93.06604
G1 X176.18 Y149.79 E93.08600
G1 X175.98 Y149.99 E93.10011
G1 X175.98 Y150.39 E93.12007
G1 X175.78 Y150.59 E93.13418
G1 X175.78 Y150.99 E93.15413
G1 X175.58 Y151.19 E93.16824
G1 X175.58 Y151.59 E93.18820
G1 X175.38 Y151.79 E93.20231
G1 X175.38 Y152.19 E93.22227
G1 X175.18 Y152.39 E93.23638
G1 X175.18 Y152.59 E93.24636
G1 X174.98 Y152.79 E93.26047
G1 X174.98 Y153.19 E93.28042
G1 X174.78 Y153.39 E93.29454
G1 X174.78 Y153.79 E93.31449
G1 X174.58 Y153.99 E93.32860
G1 X174.58 Y154.39 E93.34856
G1 X174.38 Y154.59 E93.36267
G1 X174.38 Y154.99 E93.38263
G1 X174.18 Y155.19 E93.39674
G1 X174.18 Y155.59 E93.41669
G1 X173.98 Y155.79 E93.43080
G1 X173.98 Y155.99 E93.44078
G1 X173.78 Y156.19 E93.45489
G1 X173.78 Y156.39 E93.46487
G1 X172.78 Y157.39 E93.53543
G1 X172.78 Y157.59 E93.54540
G1 X171.58 Y158.79 E93.63007
G1 X171.58 Y158.99 E93.64005
G1 X170.38 Y160.19 E93.72472
G1 X170.38 Y160.39 E93.73469
G1 X169.38 Y161.39 E93.80525
G1 X169.38 Y161.59 E93.81523
G1 X168.18 Y162.79 E93.89989
G1 X168.18 Y162.99 E93.90987
G1 X166.98 Y164.19 E93.99454
G1 X166.98 Y164.39 E94.00452
G1 X165.98 Y165.39 E94.07507
G1 X165.98 Y165.59 E94.08505
G1 X164.78 Y166.79 E94.16972
G1 X164.78 Y166.99 E94.17969
G1 X163.58 Y168.19 E94.26436
G1 X163.58 Y168.39 E94.27434
G1 X162.58 Y169.39 E94.34489
G1 X162.58 Y169.59 E94.35487
G1 X159.74 Y172.43 E94.55497
G1 X158.41 Y172.43 E94.62152
G1 X158.22 Y172.71 E94.63861
G1 X157.11 Y174.28 E94.73432
G1 X149.31 Y178.63 E95.18001
G1 X140.12 Y173.22 E95.71168
G1 X137.28 Y173.22 E95.85377
G1 X137.28 Y169.99 E96.01522
G1 X137.08 Y169.79 E96.02933
G1 X137.08 Y169.39 E96.04928
G1 X136.88 Y169.19 E96.06339
G1 X136.88 Y168.59 E96.09333
G1 X136.68 Y168.39 E96.10744
G1 X136.68 Y167.79 E96.13737
G1 X136.48 Y167.59 E96.15148
G1 X136.48 Y167.19 E96.17144
G1 X136.28 Y166.99 E96.18555
G1 X136.28 Y166.39 E96.21549
G1 X136.08 Y166.19 E96.22960
G1 X136.08 Y165.59 E96.25953
G1 X135.88 Y165.39 E96.27364
G1 X135.88 Y160.86 E96.49954
G1 X136.08 Y160.66 E96.51366
G1 X136.08 Y160.46 E96.52363
G1 X136.28 Y160.26 E96.53774
G1 X136.28 Y160.06 E96.54772
G1 X136.48 Y159.86 E96.56183
G1 X136.48 Y159.66 E96.57181
G1 X136.68 Y159.46 E96.58592
G1 X136.68 Y159.26 E96.59590
G1 X136.88 Y159.06 E96.61001
G1 X136.88 Y158.86 E96.61999
G1 X137.08 Y158.66 E96.63410
G1 X137.08 Y158.26 E96.65406
G1 X137.28 Y158.06 E96.66817
G1 X137.28 Y157.86 E96.67815
G1 X137.48 Y157.66 E96.69226
G1 X137.48 Y157.46 E96.70224
G1 X137.68 Y157.26 E96.71635
G1 X137.68 Y157.06 E96.72632
G1 X137.88 Y156.86 E96.74044
G1 X137.88 Y156.66 E96.75041
G1 X138.08 Y156.46 E96.76452
G1 X138.08 Y156.26 E96.77450
G1 X138.28 Y156.06 E96.78861
G1 X138.28 Y155.86 E96.79859
G1 X138.48 Y155.66 E96.81270
G1 X138.48 Y155.26 E96.83266
G1 X138.68 Y155.06 E96.84677
G1 X138.68 Y154.86 E96.85675
G1 X138.88 Y154.66 E96.87086
G1 X138.88 Y154.46 E96.88084
G1 X139.08 Y154.26 E96.89495
G1 X139.08 Y154.06 E96.90493
G1 X139.28 Y153.86 E96.91904
G1 X139.28 Y153.66 E96.92902
G1 X139.48 Y153.46 E96.94313
G1 X139.48 Y153.26 E96.95310
G1 X139.68 Y153.06 E96.96722
G1 X139.68 Y152.86 E96.97719
G1 X139.88 Y152.66 E96.99131
G1 X139.88 Y152.26 E97.01126
G1 X140.08 Y152.06 E97.02537
G1 X140.08 Y151.86 E97.03535
G1 X140.28 Y151.66 E97.04946
G1 X140.28 Y151.46 E97.05944
G1 X140.48 Y151.26 E97.07355
G1 X140.48 Y151.06 E97.08353
G1 X140.68 Y150.86 E97.09764
G1 X140.68 Y150.66 E97.10762
G1 X140.88 Y150.46 E97.12173
G1 X140.88 Y150.26 E97.13171
G1 X141.08 Y150.06 E97.14582
G1 X141.08 Y149.86 E97.15580
G1 X141.28 Y149.66 E97.16991
G1 X141.28 Y149.26 E97.18986
G1 X141.48 Y149.06 E97.20397
G1 X141.48 Y148.86 E97.21395
G1 X141.68 Y148.66 E97.22806
G1 X141.68 Y148.46 E97.23804
G1 X141.88 Y148.26 E97.25215
G1 X141.88 Y148.06 E97.26213
G1 X142.08 Y147.86 E97.27624
G1 X142.08 Y147.66 E97.28622
G1 X142.28 Y147.46 E97.30033
G1 X142.28 Y147.26 E97.31031
G1 X142.48 Y147.06 E97.32442
G1 X142.48 Y146.86 E97.33440
G1 X142.68 Y146.66 E97.34851
G1 X142.68 Y146.26 E97.36846
G1 X142.88 Y146.06 E97.38258
G1 X142.88 Y145.86 E97.39255
G1 X143.08 Y145.66 E97.40667
G1 X143.08 Y145.46 E97.41664
G1 X143.28 Y145.26 E97.43075
G1 X143.28 Y145.06 E97.44073
G1 X143.48 Y144.86 E97.45484
G1 X143.48 Y144.66 E97.46482
G1 X143.68 Y144.46 E97.47893
G1 X143.68 Y144.26 E97.48891
G1 X143.88 Y144.06 E97.50302
G1 X143.88 Y143.86 E97.51300
G1 X144.08 Y143.66 E97.52711
G1 X144.08 Y143.26 E97.54707
G1 X144.28 Y143.06 E97.56118
G1 X144.28 Y142.86 E97.57116
G1 X144.48 Y142.66 E97.58527
G1 X144.48 Y142.46 E97.59525
G1 X144.68 Y142.26 E97.60936
G1 X144.68 Y142.06 E97.61933
G1 X144.88 Y141.86 E97.63345
G1 X144.88 Y141.66 E97.64342
G1 X145.08 Y141.46 E97.65753
G1 X145.08 Y141.26 E97.66751
G1 X145.28 Y141.06 E97.68162
G1 X145.28 Y139.74 E97.74733
G1 X147.51 Y138.63 E97.87201
G1 X147.91 Y138.23 E97.90016
G1 X148.31 Y138.03 E97.92247
G1 X148.71 Y137.63 E97.95069
G1 X149.11 Y137.43 E97.97300
G1 X149.51 Y137.03 E98.00123
G1 X149.91 Y136.83 E98.02354
G1 X150.31 Y136.43 E98.05176
G1 X150.71 Y136.23 E98.07407
G1 X151.31 Y135.63 E98.11640
G1 X151.71 Y135.43 E98.13872
G1 X152.11 Y135.03 E98.16694
G1 X152.51 Y134.83 E98.18925
G1 X152.91 Y134.43 E98.21747
G1 X153.31 Y134.23 E98.23978
G1 X153.68 Y133.86 E98.26561
G1 X153.68 Y128.82 E98.51685
G0 F12000 X154.08 Y129.22
G1 F2700 X165.44 Y129.22 E99.08400
G1 X168.91 Y130.96 E99.27704
G1 X169.10 Y131.16 E99.29116
G1 X171.91 Y132.56 E99.44734
G1 X173.98 Y134.63 E99.59346
G1 X173.98 Y134.83 E99.60344
G1 X174.18 Y135.03 E99.61755
G1 X174.18 Y135.23 E99.62752
G1 X174.38 Y135.43 E99.64164
G1 X174.38 Y135.83 E99.66159
G1 X174.58 Y136.03 E99.67570
G1 X174.58 Y136.23 E99.68568
G1 X174.78 Y136.43 E99.69979
G1 X174.78 Y136.83 E99.71975
G1 X174.98 Y137.03 E99.73386
G1 X174.98 Y137.23 E99.74384
G1 X175.18 Y137.43 E99.75795
G1 X175.18 Y137.83 E99.77790
G1 X175.38 Y138.03 E99.79201
G1 X175.38 Y138.23 E99.80199
G1 X175.58 Y138.43 E99.81610
G1 X175.58 Y138.63 E99.82608
G1 X175.78 Y138.83 E99.84019
G1 X175.78 Y139.23 E99.86015
G1 X175.98 Y139.43 E99.87426
G1 X175.98 Y139.63 E99.88424
G1 X176.18 Y139.83 E99.89835
G1 X176.18 Y140.23 E99.91831
G1 X176.38 Y140.43 E99.93242
G1 X176.38 Y140.63 E99.94239
G1 X176.58 Y140.83 E99.95651
G1 X176.58 Y141.23 E99.97646
G1 X176.78 Y141.43 E99.99057
G1 X176.78 Y141.63 E100.00055
G1 X176.98 Y141.83 E100.01466
G1 X176.98 Y146.22 E100.23408
G1 X176.78 Y146.42 E100.24819
G1 X176.78 Y146.82 E100.26815
G1 X176.58 Y147.02 E100.28226
G1 X176.58 Y147.42 E100.30221
G1 X176.38 Y147.62 E100.31632
G1 X176.38 Y148.02 E100.33628
G1 X176.18 Y148.22 E100.35039
G1 X176.18 Y148.62 E100.37035
G1 X175.98 Y148.82 E100.38446
G1 X175.98 Y149.02 E100.39444
G1 X175.78 Y149.22 E100.40855
G1 X175.78 Y149.62 E100.42850
G1 X175.58 Y149.82 E100.44262
G1 X175.58 Y150.22 E100.46257
G1 X175.38 Y150.42 E100.47668
G1 X175.38 Y150.82 E100.49664
G1 X175.18 Y151.02 E100.51075
G1 X175.18 Y151.42 E100.53071
G1 X174.98 Y151.62 E100.54482
G1 X174.98 Y152.02 E100.56477
G1 X174.78 Y152.22 E100.57888
G1 X174.78 Y152.42 E100.58886
G1 X174.58 Y152.62 E100.60297
G1 X174.58 Y153.02 E100.62293
G1 X174.38 Y153.22 E100.63704
G1 X174.38 Y153.62 E100.65700
G1 X174.18 Y153.82 E100.67111
G1 X174.18 Y154.22 E100.69106
G1 X173.98 Y154.42 E100.70517
G1 X173.98 Y154.82 E100.72513
G1 X173.78 Y155.02 E100.73924
G1 X173.78 Y155.42 E100.75920
G1 X173.58 Y155.62 E100.77331
G1 X173.58 Y155.82 E100.78329
G1 X173.38 Y156.02 E100.79740
G1 X173.38 Y156.22 E100.80738
G1 X172.38 Y157.22 E100.87790
G1 X172.38 Y157.42 E100.88792
G1 X171.18 Y158.62 E100.97256
G1 X171.18 Y158.82 E100.98258
G1 X169.98 Y160.02 E101.06721
G1 X169.98 Y160.22 E101.07724
G1 X168.98 Y161.22 E101.14776
G1 X168.98 Y161.42 E101.15779
G1 X167.78 Y162.62 E101.24242
G1 X167.78 Y162.82 E101.25245
G1 X166.58 Y164.02 E101.33708
G1 X166.58 Y164.22 E101.34711
G1 X165.58 Y165.22 E101.41763
G1 X165.58 Y165.42 E101.42766
G1 X164.38 Y166.62 E101.51229
G1 X164.38 Y166.82 E101.52232
G1 X163.18 Y168.02 E101.60695
G1 X163.18 Y168.22 E101.61697
G1 X162.18 Y169.22 E101.68750
G1 X162.18 Y169.42 E101.69752
G1 X159.57 Y172.03 E101.88104
G1 X158.19 Y172.03 E101.94999
G1 X157.89 Y172.48 E101.97754
G1 X156.83 Y173.97 E102.06841
G1 X149.31 Y178.17 E102.49811
G1 X140.23 Y172.82 E103.02377
G1 X137.68 Y172.82 E103.15139
G1 X137.68 Y169.82 E103.30111
G1 X137.48 Y169.62 E103.31522
G1 X137.48 Y169.22 E103.33518
G1 X137.28 Y169.02 E103.34929
G1 X137.28 Y168.42 E103.37922
G1 X137.08 Y168.22 E103.39334
G1 X137.08 Y167.62 E103.42327
G1 X136.88 Y167.42 E103.43738
G1 X136.88 Y167.02 E103.45734
G1 X136.68 Y166.82 E103.47145
G1 X136.68 Y166.22 E103.50138
G1 X136.48 Y166.02 E103.51549
G1 X136.48 Y165.42 E103.54543
G1 X136.28 Y165.22 E103.55954
G1 X136.28 Y161.03 E103.76898
G1 X136.48 Y160.83 E103.78309
G1 X136.48 Y160.63 E103.79307
G1 X136.68 Y160.43 E103.80718
G1 X136.68 Y160.23 E103.81716
G1 X136.88 Y160.03 E103.83127
G1 X136.88 Y159.83 E103.84124
G1 X137.08 Y159.63 E103.85536
G1 X137.08 Y159.43 E103.86533
G1 X137.28 Y159.23 E103.87944
G1 X137.28 Y159.03 E103.88942
G1 X137.48 Y158.83 E103.90353
G1 X137.48 Y158.43 E103.92349
G1 X137.68 Y158.23 E103.93760
G1 X137.68 Y158.03 E103.94758
G1 X137.88 Y157.83 E103.96169
G1 X137.88 Y157.63 E103.97167
G1 X138.08 Y157.43 E103.98578
G1 X138.08 Y157.23 E103.99576
G1 X138.28 Y157.03 E104.00987
G1 X138.28 Y156.83 E104.01985
G1 X138.48 Y156.63 E104.03396
G1 X138.48 Y156.43 E104.04394
G1 X138.68 Y156.23 E104.05805
G1 X138.68 Y156.03 E104.06802
G1 X138.88 Y155.83 E104.08214
G1 X138.88 Y155.43 E104.10209
G1 X139.08 Y155.23 E104.11620
G1 X139.08 Y155.03 E104.12618
G1 X139.28 Y154.83 E104.14029
G1 X139.28 Y154.63 E104.15027
G1 X139.48 Y154.43 E104.16438
G1 X139.48 Y154.23 E104.17436
G1 X139.68 Y154.03 E104.18847
G1 X139.68 Y153.83 E104.19845
G1 X139.88 Y153.63 E104.21256
G1 X139.88 Y153.43 E104.22254
G1 X140.08 Y153.23 E104.23665
G1 X140.08 Y153.03 E104.24663
G1 X140.28 Y152.83 E104.26074
G1 X140.28 Y152.43 E104.28069
G1 X140.48 Y152.23 E104.29480
G1 X140.48 Y152.03 E104.30478
G1 X140.68 Y151.83 E104.31889
G1 X140.68 Y151.63 E104.32887
G1 X140.88 Y151.43 E104.34298
G1 X140.88 Y151.23 E104.35296
G1 X141.08 Y151.03 E104.36707
G1 X141.08 Y150.83 E104.37705
G1 X141.28 Y150.63 E104.39116
G1 X141.28 Y150.43 E104.40114
G1 X141.48 Y150.23 E104.41525
G1 X141.48 Y150.03 E104.42523
G1 X141.68 Y149.83 E104.43934
G1 X141.68 Y149.43 E104.45930
G1 X141.88 Y149.23 E104.47341
G1 X141.88 Y149.03 E104.48338
G1 X142.08 Y148.83 E104.49750
G1 X142.08 Y148.63 E104.50747
G1 X142.28 Y148.43 E104.52158
G1 X142.28 Y148.23 E104.53156
G1 X142.48 Y148.03 E104.54567
G1 X142.48 Y147.83 E104.55565
G1 X142.68 Y147.63 E104.56976
G1 X142.68 Y147.43 E104.57974
G1 X142.88 Y147.23 E104.59385
G1 X142.88 Y147.03 E104.60383
G1 X143.08 Y146.83 E104.61794
G1 X143.08 Y146.43 E104.63790
G1 X143.28 Y146.23 E104.65201
G1 X143.28 Y146.03 E104.66199
G1 X143.48 Y145.83 E104.67610
G1 X143.48 Y145.63 E104.68608
G1 X143.68 Y145.43 E104.70019
G1 X143.68 Y145.23 E104.71016
G1 X143.88 Y145.03 E104.72428
G1 X143.88 Y144.83 E104.73425
G1 X144.08 Y144.63 E104.74836
G1 X144.08 Y144.43 E104.75834
G1 X144.28 Y144.23 E104.77245
G1 X144.28 Y144.03 E104.78243
G1 X144.48 Y143.83 E104.79654
G1 X144.48 Y143.43 E104.81650
G1 X144.68 Y143.23 E104.83061
G1 X144.68 Y143.03 E104.84059
G1 X144.88 Y142.83 E104.85470
G1 X144.88 Y142.63 E104.86468
G1 X145.08 Y142.43 E104.87879
G1 X145.08 Y142.23 E104.88877
G1 X145.28 Y142.03 E104.90288
G1 X145.28 Y141.83 E104.91286
G1 X145.48 Y141.63 E104.92697
G1 X145.48 Y141.43 E104.93694
G1 X145.68 Y141.23 E104.95106
G1 X145.68 Y139.99 E105.01267
G1 X147.75 Y138.96 E105.12820
G1 X148.15 Y138.56 E105.15642
G1 X148.55 Y138.35 E105.17878
G1 X148.95 Y137.96 E105.20697
G1 X149.35 Y137.75 E105.22932
G1 X149.75 Y137.35 E105.25751
G1 X150.15 Y137.16 E105.27986
G1 X150.55 Y136.75 E105.30805
G1 X150.95 Y136.56 E105.33041
G1 X151.55 Y135.96 E105.37271
G1 X151.95 Y135.75 E105.39506
G1 X152.35 Y135.35 E105.42325
G1 X152.75 Y135.16 E105.44560
G1 X153.15 Y134.75 E105.47379
G1 X153.55 Y134.56 E105.49615
G1 X154.08 Y134.03 E105.53344
G1 X154.08 Y129.22 E105.77296
G0 F12000 X154.48 Y129.62
G1 F2700 X165.35 Y129.62 E106.31547
G1 X168.67 Y131.28 E106.50054
G1 X168.87 Y131.48 E106.51455
G1 X171.67 Y132.88 E106.67084
G1 X173.58 Y134.79 E106.80546
G1 X173.58 Y134.99 E106.81544
G1 X173.78 Y135.19 E106.82955
G1 X173.78 Y135.39 E106.83952
G1 X173.98 Y135.59 E106.85364
G1 X173.98 Y135.99 E106.87359
G1 X174.18 Y136.19 E106.88770
G1 X174.18 Y136.39 E106.89768
G1 X174.38 Y136.59 E106.91179
G1 X174.38 Y136.99 E106.93175
G1 X174.58 Y137.19 E106.94586
G1 X174.58 Y137.39 E106.95584
G1 X174.78 Y137.59 E106.96995
G1 X174.78 Y137.99 E106.98990
G1 X174.98 Y138.19 E107.00402
G1 X174.98 Y138.39 E107.01399
G1 X175.18 Y138.59 E107.02810
G1 X175.18 Y138.79 E107.03808
G1 X175.38 Y138.99 E107.05219
G1 X175.38 Y139.39 E107.07215
G1 X175.58 Y139.59 E107.08626
G1 X175.58 Y139.79 E107.09624
G1 X175.78 Y139.99 E107.11035
G1 X175.78 Y140.39 E107.13031
G1 X175.98 Y140.59 E107.14442
G1 X175.98 Y140.79 E107.15440
G1 X176.18 Y140.99 E107.16851
G1 X176.18 Y141.39 E107.18846
G1 X176.38 Y141.59 E107.20257
G1 X176.38 Y141.79 E107.21255
G1 X176.58 Y141.99 E107.22666
G1 X176.58 Y146.06 E107.42952
G1 X176.38 Y146.26 E107.44363
G1 X176.38 Y146.66 E107.46358
G1 X176.18 Y146.86 E107.47769
G1 X176.18 Y147.26 E107.49765
G1 X175.98 Y147.46 E107.51176
G1 X175.98 Y147.86 E107.53172
G1 X175.78 Y148.06 E107.54583
G1 X175.78 Y148.46 E107.56578
G1 X175.58 Y148.66 E107.57990
G1 X175.58 Y148.86 E107.58987
G1 X175.38 Y149.06 E107.60398
G1 X175.38 Y149.46 E107.62394
G1 X175.18 Y149.66 E107.63805
G1 X175.18 Y150.06 E107.65801
G1 X174.98 Y150.26 E107.67212
G1 X174.98 Y150.66 E107.69208
G1 X174.78 Y150.86 E107.70619
G1 X174.78 Y151.26 E107.72614
G1 X174.58 Y151.46 E107.74025
G1 X174.58 Y151.86 E107.76021
G1 X174.38 Y152.06 E107.77432
G1 X174.38 Y152.26 E107.78430
G1 X174.18 Y152.46 E107.79841
G1 X174.18 Y152.86 E107.81837
G1 X173.98 Y153.06 E107.83248
G1 X173.98 Y153.46 E107.85243
G1 X173.78 Y153.66 E107.86654
G1 X173.78 Y154.06 E107.88650
G1 X173.58 Y154.26 E107.90061
G1 X173.58 Y154.66 E107.92057
G1 X173.38 Y154.86 E107.93468
G1 X173.38 Y155.26 E107.95463
G1 X173.18 Y155.46 E107.96875
G1 X173.18 Y155.66 E107.97872
G1 X172.98 Y155.86 E107.99283
G1 X172.98 Y156.06 E108.00281
G1 X171.98 Y157.06 E108.07333
G1 X171.98 Y157.26 E108.08336
G1 X170.78 Y158.46 E108.16799
G1 X170.78 Y158.66 E108.17802
G1 X169.58 Y159.86 E108.26265
G1 X169.58 Y160.06 E108.27268
G1 X168.58 Y161.06 E108.34320
G1 X168.58 Y161.26 E108.35323
G1 X167.38 Y162.46 E108.43786
G1 X167.38 Y162.66 E108.44789
G1 X166.18 Y163.86 E108.53252
G1 X166.18 Y164.06 E108.54255
G1 X165.18 Y165.06 E108.61307
G1 X165.18 Y165.26 E108.62309
G1 X163.98 Y166.46 E108.70772
G1 X163.98 Y166.66 E108.71775
G1 X162.78 Y167.86 E108.80238
G1 X162.78 Y168.06 E108.81241
G1 X161.78 Y169.06 E108.88293
G1 X161.78 Y169.26 E108.89296
G1 X159.41 Y171.62 E109.05996
G1 X157.98 Y171.62 E109.13131
G1 X157.56 Y172.26 E109.16922
G1 X156.56 Y173.67 E109.25533
G1 X149.32 Y177.71 E109.66909
G1 X140.34 Y172.43 E110.18873
G1 X138.08 Y172.43 E110.30183
G1 X138.08 Y169.66 E110.43988
G1 X137.88 Y169.46 E110.45399
G1 X137.88 Y169.06 E110.47395
G1 X137.68 Y168.86 E110.48806
G1 X137.68 Y168.26 E110.51799
G1 X137.48 Y168.06 E110.53210
G1 X137.48 Y167.46 E110.56204
G1 X137.28 Y167.26 E110.57615
G1 X137.28 Y166.86 E110.59611
G1 X137.08 Y166.66 E110.61022
G1 X137.08 Y166.06 E110.64015
G1 X136.88 Y165.86 E110.65426
G1 X136.88 Y165.26 E110.68420
G1 X136.68 Y165.06 E110.69831
G1 X136.68 Y161.19 E110.89118
G1 X136.88 Y160.99 E110.90529
G1 X136.88 Y160.79 E110.91527
G1 X137.08 Y160.59 E110.92938
G1 X137.08 Y160.39 E110.93936
G1 X137.28 Y160.19 E110.95347
G1 X137.28 Y159.99 E110.96345
G1 X137.48 Y159.79 E110.97756
G1 X137.48 Y159.59 E110.98754
G1 X137.68 Y159.39 E111.00165
G1 X137.68 Y159.19 E111.01163
G1 X137.88 Y158.99 E111.02574
G1 X137.88 Y158.59 E111.04570
G1 X138.08 Y158.39 E111.05981
G1 X138.08 Y158.19 E111.06978
G1 X138.28 Y157.99 E111.08390
G1 X138.28 Y157.79 E111.09387
G1 X138.48 Y157.59 E111.10798
G1 X138.48 Y157.39 E111.11796
G1 X138.68 Y157.19 E111.13207
G1 X138.68 Y156.99 E111.14205
G1 X138.88 Y156.79 E111.15616
G1 X138.88 Y156.59 E111.16614
G1 X139.08 Y156.39 E111.18025
G1 X139.08 Y156.19 E111.19023
G1 X139.28 Y155.99 E111.20434
G1 X139.28 Y155.59 E111.22430
G1 X139.48 Y155.39 E111.23841
G1 X139.48 Y155.19 E111.24839
G1 X139.68 Y154.99 E111.26250
G1 X139.68 Y154.79 E111.27248
G1 X139.88 Y154.59 E111.28659
G1 X139.88 Y154.39 E111.29656
G1 X140.08 Y154.19 E111.31068
G1 X140.08 Y153.99 E111.32065
G1 X140.28 Y153.79 E111.33476
G1 X140.28 Y153.59 E111.34474
G1 X140.48 Y153.39 E111.35885
G1 X140.48 Y153.19 E111.36883
G1 X140.68 Y152.99 E111.38294
G1 X140.68 Y152.59 E111.40290
G1 X140.88 Y152.39 E111.41701
G1 X140.88 Y152.19 E111.42699
G1 X141.08 Y151.99 E111.44110
G1 X141.08 Y151.79 E111.45108
G1 X141.28 Y151.59 E111.46519
G1 X141.28 Y151.39 E111.47517
G1 X141.48 Y151.19 E111.48928
G1 X141.48 Y150.99 E111.49926
G1 X141.68 Y150.79 E111.51337
G1 X141.68 Y150.59 E111.52334
G1 X141.88 Y150.39 E111.53746
G1 X141.88 Y150.19 E111.54743
G1 X142.08 Y149.99 E111.56154
G1 X142.08 Y149.59 E111.58150
G1 X142.28 Y149.39 E111.59561
G1 X142.28 Y149.19 E111.60559
G1 X142.48 Y148.99 E111.61970
G1 X142.48 Y148.79 E111.62968
G1 X142.68 Y148.59 E111.64379
G1 X142.68 Y148.39 E111.65377
G1 X142.88 Y148.19 E111.66788
G1 X142.88 Y147.99 E111.67786
G1 X143.08 Y147.79 E111.69197
G1 X143.08 Y147.59 E111.70195
G1 X143.28 Y147.39 E111.71606
G1 X143.28 Y147.19 E111.72604
G1 X143.48 Y146.99 E111.74015
G1 X143.48 Y146.59 E111.76010
G1 X143.68 Y146.39 E111.77421
G1 X143.68 Y146.19 E111.78419
G1 X143.88 Y145.99 E111.79830
G1 X143.88 Y145.79 E111.80828
G1 X144.08 Y145.59 E111.82239
G1 X144.08 Y145.39 E111.83237
G1 X144.28 Y145.19 E111.84648
G1 X144.28 Y144.99 E111.85646
G1 X144.48 Y144.79 E111.87057
G1 X144.48 Y144.59 E111.88055
G1 X144.68 Y144.39 E111.89466
G1 X144.68 Y144.19 E111.90464
G1 X144.88 Y143.99 E111.91875
G1 X144.88 Y143.59 E111.93870
G1 X145.08 Y143.39 E111.95282
G1 X145.08 Y143.19 E111.96279
G1 X145.28 Y142.99 E111.97691
G1 X145.28 Y142.79 E111.98688
G1 X145.48 Y142.59 E112.00099
G1 X145.48 Y142.39 E112.01097
G1 X145.68 Y142.19 E112.02508
G1 X145.68 Y141.99 E112.03506
G1 X145.88 Y141.79 E112.04917
G1 X145.88 Y141.59 E112.05915
G1 X146.08 Y141.39 E112.07326
G1 X146.08 Y140.24 E112.13083
G1 X147.99 Y139.28 E112.23737
G1 X148.38 Y138.88 E112.26549
G1 X148.79 Y138.68 E112.28791
G1 X149.18 Y138.28 E112.31603
G1 X149.59 Y138.08 E112.33845
G1 X149.98 Y137.68 E112.36657
G1 X150.39 Y137.48 E112.38899
G1 X150.78 Y137.08 E112.41711
G1 X151.19 Y136.88 E112.43953
G1 X151.78 Y136.28 E112.48176
G1 X152.19 Y136.08 E112.50418
G1 X152.58 Y135.68 E112.53230
G1 X152.99 Y135.48 E112.55472
G1 X153.38 Y135.08 E112.58284
G1 X153.79 Y134.88 E112.60526
G1 X154.48 Y134.19 E112.65398
G1 X154.48 Y129.62 E112.88183
G0 F12000 X154.88 Y130.03
G1 F2700 X165.25 Y130.03 E113.39964
G1 X168.43 Y131.61 E113.57679
G1 X168.63 Y131.81 E113.59090
G1 X171.43 Y133.21 E113.74708
G1 X173.18 Y134.96 E113.87020
G1 X173.18 Y135.16 E113.88018
G1 X173.38 Y135.36 E113.89429
G1 X173.38 Y135.56 E113.90427
G1 X173.58 Y135.76 E113.91838
G1 X173.58 Y136.16 E113.93834
G1 X173.78 Y136.36 E113.95245
G1 X173.78 Y136.56 E113.96243
G1 X173.98 Y136.76 E113.97654
G1 X173.98 Y137.16 E113.99649
G1 X174.18 Y137.36 E114.01060
G1 X174.18 Y137.56 E114.02058
G1 X174.38 Y137.76 E114.03469
G1 X174.38 Y138.16 E114.05465
G1 X174.58 Y138.36 E114.06876
G1 X174.58 Y138.56 E114.07874
G1 X174.78 Y138.76 E114.09285
G1 X174.78 Y138.96 E114.10283
G1 X174.98 Y139.16 E114.11694
G1 X174.98 Y139.56 E114.13690
G1 X175.18 Y139.76 E114.15101
G1 X175.18 Y139.96 E114.16098
G1 X175.38 Y140.16 E114.17510
G1 X175.38 Y140.56 E114.19505
G1 X175.58 Y140.76 E114.20916
G1 X175.58 Y140.96 E114.21914
G1 X175.78 Y141.16 E114.23325
G1 X175.78 Y141.56 E114.25321
G1 X175.98 Y141.76 E114.26732
G1 X175.98 Y141.96 E114.27730
G1 X176.18 Y142.16 E114.29141
G1 X176.18 Y145.89 E114.47770
G1 X175.98 Y146.09 E114.49181
G1 X175.98 Y146.49 E114.51176
G1 X175.78 Y146.69 E114.52588
G1 X175.78 Y147.09 E114.54583
G1 X175.58 Y147.29 E114.55994
G1 X175.58 Y147.69 E114.57990
G1 X175.38 Y147.89 E114.59401
G1 X175.38 Y148.29 E114.61397
G1 X175.18 Y148.49 E114.62808
G1 X175.18 Y148.69 E114.63806
G1 X174.98 Y148.89 E114.65217
G1 X174.98 Y149.29 E114.67212
G1 X174.78 Y149.49 E114.68623
G1 X174.78 Y149.89 E114.70619
G1 X174.58 Y150.09 E114.72030
G1 X174.58 Y150.49 E114.74026
G1 X174.38 Y150.69 E114.75437
G1 X174.38 Y151.09 E114.77432
G1 X174.18 Y151.29 E114.78844
G1 X174.18 Y151.69 E114.80839
G1 X173.98 Y151.89 E114.82250
G1 X173.98 Y152.09 E114.83248
G1 X173.78 Y152.29 E114.84659
G1 X173.78 Y152.69 E114.86655
G1 X173.58 Y152.89 E114.88066
G1 X173.58 Y153.29 E114.90061
G1 X173.38 Y153.49 E114.91473
G1 X173.38 Y153.89 E114.93468
G1 X173.18 Y154.09 E114.94879
G1 X173.18 Y154.49 E114.96875
G1 X172.98 Y154.69 E114.98286
G1 X172.98 Y155.09 E115.00282
G1 X172.78 Y155.29 E115.01693
G1 X172.78 Y155.49 E115.02691
G1 X172.58 Y155.69 E115.04102
G1 X172.58 Y155.89 E115.05099
G1 X171.58 Y156.89 E115.12159
G1 X171.58 Y157.09 E115.13151
G1 X170.38 Y158.29 E115.21622
G1 X170.38 Y158.49 E115.22614
G1 X169.18 Y159.69 E115.31085
G1 X169.18 Y159.89 E115.32077
G1 X168.18 Y160.89 E115.39136
G1 X168.18 Y161.09 E115.40129
G1 X166.98 Y162.29 E115.48599
G1 X166.98 Y162.49 E115.49592
G1 X165.78 Y163.69 E115.58062
G1 X165.78 Y163.89 E115.59055
G1 X164.78 Y164.89 E115.66114
G1 X164.78 Y165.09 E115.67107
G1 X163.58 Y166.29 E115.75577
G1 X163.58 Y166.49 E115.76570
G1 X162.38 Y167.69 E115.85040
G1 X162.38 Y167.89 E115.86033
G1 X161.38 Y168.89 E115.93092
G1 X161.38 Y169.09 E115.94085
G1 X159.24 Y171.22 E116.09134
G1 X157.76 Y171.22 E116.16508
G1 X157.23 Y172.03 E116.21339
G1 X156.29 Y173.36 E116.29471
G1 X149.32 Y177.25 E116.69251
G1 X140.45 Y172.03 E117.20610
G1 X138.48 Y172.03 E117.30474
G1 X138.48 Y169.49 E117.43111
G1 X138.28 Y169.29 E117.44522
G1 X138.28 Y168.89 E117.46518
G1 X138.08 Y168.69 E117.47929
G1 X138.08 Y168.09 E117.50922
G1 X137.88 Y167.89 E117.52333
G1 X137.88 Y167.29 E117.55327
G1 X137.68 Y167.09 E117.56738
G1 X137.68 Y166.69 E117.58733
G1 X137.48 Y166.49 E117.60144
G1 X137.48 Y165.89 E117.63138
G1 X137.28 Y165.69 E117.64549
G1 X137.28 Y165.09 E117.67542
G1 X137.08 Y164.89 E117.68953
G1 X137.08 Y161.36 E117.86585
G1 X137.28 Y161.16 E117.87996
G1 X137.28 Y160.96 E117.88994
G1 X137.48 Y160.76 E117.90405
G1 X137.48 Y160.56 E117.91402
G1 X137.68 Y160.36 E117.92814
G1 X137.68 Y160.16 E117.93811
G1 X137.88 Y159.96 E117.95222
G1 X137.88 Y159.76 E117.96220
G1 X138.08 Y159.56 E117.97631
G1 X138.08 Y159.36 E117.98629
G1 X138.28 Y159.16 E118.00040
G1 X138.28 Y158.76 E118.02036
G1 X138.48 Y158.56 E118.03447
G1 X138.48 Y158.36 E118.04445
G1 X138.68 Y158.16 E118.05856
G1 X138.68 Y157.96 E118.06854
G1 X138.88 Y157.76 E118.08265
G1 X138.88 Y157.56 E118.09263
G1 X139.08 Y157.36 E118.10674
G1 X139.08 Y157.16 E118.11672
G1 X139.28 Y156.96 E118.13083
G1 X139.28 Y156.76 E118.14080
G1 X139.48 Y156.56 E118.15492
G1 X139.48 Y156.36 E118.16489
G1 X139.68 Y156.16 E118.17900
G1 X139.68 Y155.76 E118.19896
G1 X139.88 Y155.56 E118.21307
G1 X139.88 Y155.36 E118.22305
G1 X140.08 Y155.16 E118.23716
G1 X140.08 Y154.96 E118.24714
G1 X140.28 Y154.76 E118.26125
G1 X140.28 Y154.56 E118.27123
G1 X140.48 Y154.36 E118.28534
G1 X140.48 Y154.16 E118.29532
G1 X140.68 Y153.96 E118.30943
G1 X140.68 Y153.76 E118.31941
G1 X140.88 Y153.56 E118.33352
G1 X140.88 Y153.36 E118.34350
G1 X141.08 Y153.16 E118.35761
G1 X141.08 Y152.76 E118.37756
G1 X141.28 Y152.56 E118.39167
G1 X141.28 Y152.36 E118.40165
G1 X141.48 Y152.16 E118.41576
G1 X141.48 Y151.96 E118.42574
G1 X141.68 Y151.76 E118.43985
G1 X141.68 Y151.56 E118.44983
G1 X141.88 Y151.36 E118.46394
G1 X141.88 Y151.16 E118.47392
G1 X142.08 Y150.96 E118.48803
G1 X142.08 Y150.76 E118.49801
G1 X142.28 Y150.56 E118.51212
G1 X142.28 Y150.36 E118.52210
G1 X142.48 Y150.16 E118.53621
G1 X142.48 Y149.76 E118.55616
G1 X142.68 Y149.56 E118.57028
G1 X142.68 Y149.36 E118.58025
G1 X142.88 Y149.16 E118.59437
G1 X142.88 Y148.96 E118.60434
G1 X143.08 Y148.76 E118.61845
G1 X143.08 Y148.56 E118.62843
G1 X143.28 Y148.36 E118.64254
G1 X143.28 Y148.16 E118.65252
G1 X143.48 Y147.96 E118.66663
G1 X143.48 Y147.76 E118.67661
G1 X143.68 Y147.56 E118.69072
G1 X143.68 Y147.36 E118.70070
G1 X143.88 Y147.16 E118.71481
G1 X143.88 Y146.76 E118.73477
G1 X144.08 Y146.56 E118.74888
G1 X144.08 Y146.36 E118.75886
G1 X144.28 Y146.16 E118.77297
G1 X144.28 Y145.96 E118.78294
G1 X144.48 Y145.76 E118.79706
G1 X144.48 Y145.56 E118.80703
G1 X144.68 Y145.36 E118.82115
G1 X144.68 Y145.16 E118.83112
G1 X144.88 Y144.96 E118.84523
G1 X144.88 Y144.76 E118.85521
G1 X145.08 Y144.56 E118.86932
G1 X145.08 Y144.36 E118.87930
G1 X145.28 Y144.16 E118.89341
G1 X145.28 Y143.76 E118.91337
G1 X145.48 Y143.56 E118.92748
G1 X145.48 Y143.36 E118.93746
G1 X145.68 Y143.16 E118.95157
G1 X145.68 Y142.96 E118.96155
G1 X145.88 Y142.76 E118.97566
G1 X145.88 Y142.56 E118.98564
G1 X146.08 Y142.36 E118.99975
G1 X146.08 Y142.16 E119.00973
G1 X146.28 Y141.96 E119.02384
G1 X146.28 Y141.76 E119.03381
G1 X146.48 Y141.56 E119.04793
G1 X146.48 Y140.49 E119.10146
G1 X148.22 Y139.61 E119.19878
G1 X148.62 Y139.21 E119.22700
G1 X149.02 Y139.01 E119.24927
G1 X149.42 Y138.61 E119.27753
G1 X149.82 Y138.41 E119.29979
G1 X150.22 Y138.01 E119.32805
G1 X150.62 Y137.81 E119.35032
G1 X151.02 Y137.41 E119.37858
G1 X151.42 Y137.21 E119.40084
G1 X152.02 Y136.61 E119.44321
G1 X152.42 Y136.41 E119.46548
G1 X152.82 Y136.01 E119.49374
G1 X153.22 Y135.81 E119.51600
G1 X153.62 Y135.41 E119.54426
G1 X154.02 Y135.21 E119.56653
G1 X154.88 Y134.36 E119.62689
G1 X154.88 Y130.03 E119.84306
G0 F12000 X155.28 Y130.43
G1 F2700 X165.16 Y130.43 E120.33623
G1 X168.19 Y131.94 E120.50542
G1 X168.39 Y132.14 E120.51953
G1 X171.19 Y133.54 E120.67571
G1 X172.78 Y135.12 E120.78729
G1 X172.78 Y135.32 E120.79727
G1 X172.98 Y135.52 E120.81138
G1 X172.98 Y135.72 E120.82136
G1 X173.18 Y135.92 E120.83547
G1 X173.18 Y136.32 E120.85542
G1 X173.38 Y136.52 E120.86954
G1 X173.38 Y136.72 E120.87951
G1 X173.58 Y136.92 E120.89363
G1 X173.58 Y137.32 E120.91358
G1 X173.78 Y137.52 E120.92769
G1 X173.78 Y137.72 E120.93767
G1 X173.98 Y137.92 E120.95178
G1 X173.98 Y138.32 E120.97174
G1 X174.18 Y138.52 E120.98585
G1 X174.18 Y138.72 E120.99583
G1 X174.38 Y138.92 E121.00994
G1 X174.38 Y139.12 E121.01992
G1 X174.58 Y139.32 E121.03403
G1 X174.58 Y139.72 E121.05398
G1 X174.78 Y139.92 E121.06809
G1 X174.78 Y140.12 E121.07807
G1 X174.98 Y140.32 E121.09218
G1 X174.98 Y140.72 E121.11214
G1 X175.18 Y140.92 E121.12625
G1 X175.18 Y141.12 E121.13623
G1 X175.38 Y141.32 E121.15034
G1 X175.38 Y141.72 E121.17030
G1 X175.58 Y141.92 E121.18441
G1 X175.58 Y142.12 E121.19438
G1 X175.78 Y142.32 E121.20850
G1 X175.78 Y145.73 E121.37832
G1 X175.58 Y145.93 E121.39243
G1 X175.58 Y146.33 E121.41239
G1 X175.38 Y146.53 E121.42650
G1 X175.38 Y146.93 E121.44646
