;-- START GCODE --
;Sliced for Type A Machines Series 1
;Sliced at: Tue 15-12-2015 17:07:04
;Basic settings: Layer height: 0.2 Walls: 0.8 Fill: 14
;Print Speed: 60 Support: 0
;Retraction Speed: 40 Retraction Distance: 1.2
;Print time: #P_TIME#
;Filament used: #F_AMNT#m #F_WGHT#g
;Filament cost: #F_COST#
M106 S255	 ;start with the fan on
G21        ;metric values
G90        ;absolute positioning
M106 S255    ;start with the fan on
G28     ;move to endstops
G29		;allows for auto-levelling
G1 X150 Y5  Z15.0 F12000 ;center and move the platform down 15mm
M109 S220 ;Heat To temp
G92 E0                  ;zero the extruded length
G1 F200 E30              ;extrude 30mm of feed stock
G92 E0                  ;zero the extruded length again
G1 X175 Y25  Z0 F12000 ;remove bugger
G1 X220 F12000 ;remove bugger
G1 X150 Y150  Z15 F12000 ;recenter and begin
G1 F12000

;Layer count: 31
;LAYER:0
M106 S255
G0 F12000 X119.25 Y133.72 Z0.30
;TYPE:SKIRT
G1 F2700 X124.91 Y133.72 E0.28228
G1 X124.95 Y133.69 E0.28458
G1 X125.34 Y133.48 E0.30695
G1 X125.34 Y132.12 E0.37470
G1 X138.04 Y132.12 E1.00811
G1 X138.04 Y133.47 E1.07581
G1 X138.43 Y133.69 E1.09785
G1 X138.47 Y133.72 E1.10046
G1 X138.79 Y133.72 E1.11633
G1 X138.82 Y133.69 E1.11858
G1 X139.22 Y133.48 E1.14096
G1 X139.22 Y132.12 E1.20871
G1 X151.91 Y132.12 E1.84211
G1 X151.91 Y133.47 E1.90981
G1 X152.30 Y133.69 E1.93185
G1 X152.34 Y133.72 E1.93447
G1 X152.66 Y133.72 E1.95018
G1 X152.70 Y133.69 E1.95262
G1 X153.09 Y133.47 E1.97488
G1 X153.09 Y132.12 E2.04258
G1 X165.78 Y132.12 E2.67599
G1 X165.78 Y133.47 E2.74369
G1 X166.17 Y133.69 E2.76584
G1 X166.22 Y133.72 E2.76839
G1 X166.53 Y133.72 E2.78415
G1 X166.57 Y133.69 E2.78645
G1 X166.96 Y133.48 E2.80882
G1 X166.96 Y132.12 E2.87657
G1 X179.66 Y132.12 E3.50998
G1 X179.66 Y133.47 E3.57768
G1 X180.04 Y133.69 E3.59972
G1 X180.83 Y134.23 E3.64720
G1 X181.68 Y134.82 E3.69908
G1 X185.09 Y137.20 E3.90632
G1 X185.09 Y146.02 E4.34640
G1 X184.11 Y146.70 E4.40538
G1 X184.12 Y151.23 E4.63138
G1 X184.12 Y158.28 E4.98326
G1 X185.09 Y158.94 E5.04192
G1 X185.09 Y167.82 E5.48494
G1 X180.05 Y171.31 E5.79044
G1 X179.66 Y171.52 E5.81282
G1 X179.66 Y172.88 E5.88057
G1 X166.96 Y172.88 E6.51397
G1 X166.96 Y171.53 E6.58167
G1 X166.57 Y171.31 E6.60371
G1 X166.37 Y171.17 E6.61598
G1 X166.18 Y171.31 E6.62788
G1 X165.78 Y171.52 E6.65025
G1 X165.78 Y172.88 E6.71800
G1 X153.09 Y172.88 E7.35141
G1 X153.09 Y171.53 E7.41911
G1 X152.70 Y171.31 E7.44115
G1 X152.50 Y171.17 E7.45334
G1 X152.30 Y171.31 E7.46531
G1 X151.91 Y171.53 E7.48757
G1 X151.91 Y172.88 E7.55527
G1 X139.22 Y172.88 E8.18868
G1 X139.22 Y171.53 E8.25638
G1 X138.83 Y171.31 E8.27853
G1 X138.63 Y171.17 E8.29065
G1 X138.43 Y171.31 E8.30253
G1 X138.04 Y171.52 E8.32490
G1 X138.04 Y172.88 E8.39265
G1 X125.34 Y172.88 E9.02606
G1 X125.34 Y171.53 E9.09376
G1 X124.95 Y171.31 E9.11580
G1 X124.67 Y171.12 E9.13283
G1 X119.25 Y171.12 E9.40329
G1 X119.25 Y133.72 E11.26918
G0 F12000 X119.65 Y134.12
G1 F2700 X125.04 Y134.12 E11.53774
G1 X125.16 Y134.03 E11.54527
G1 X125.74 Y133.71 E11.57840
G1 X125.74 Y132.52 E11.63797
G1 X137.64 Y132.52 E12.23147
G1 X137.64 Y133.71 E12.29099
G1 X138.22 Y134.03 E12.32383
G1 X138.34 Y134.12 E12.33172
G1 X138.91 Y134.12 E12.35991
G1 X139.03 Y134.03 E12.36744
G1 X139.62 Y133.71 E12.40057
G1 X139.62 Y132.52 E12.46014
G1 X151.51 Y132.52 E13.05363
G1 X151.51 Y133.71 E13.11315
G1 X152.09 Y134.03 E13.14600
G1 X152.22 Y134.12 E13.15389
G1 X152.78 Y134.12 E13.18197
G1 X152.91 Y134.03 E13.18961
G1 X153.49 Y133.71 E13.22264
G1 X153.49 Y132.52 E13.28221
G1 X165.38 Y132.52 E13.87570
G1 X165.38 Y133.71 E13.93527
G1 X165.96 Y134.03 E13.96818
G1 X166.09 Y134.12 E13.97589
G1 X166.66 Y134.12 E14.00418
G1 X166.78 Y134.03 E14.01171
G1 X167.36 Y133.71 E14.04484
G1 X167.36 Y132.52 E14.10441
G1 X179.26 Y132.52 E14.69791
G1 X179.26 Y133.71 E14.75742
G1 X179.84 Y134.03 E14.79027
G1 X180.60 Y134.56 E14.83667
G1 X181.45 Y135.15 E14.88851
G1 X184.69 Y137.41 E15.08533
G1 X184.69 Y145.81 E15.50460
G1 X183.71 Y146.49 E15.56359
G1 X183.72 Y151.23 E15.80002
G1 X183.72 Y158.49 E16.16247
G1 X184.69 Y159.16 E16.22113
G1 X184.69 Y167.61 E16.64315
G1 X179.84 Y170.97 E16.93718
G1 X179.26 Y171.29 E16.97031
G1 X179.26 Y172.48 E17.02988
G1 X167.36 Y172.48 E17.62337
G1 X167.36 Y171.29 E17.68289
G1 X166.78 Y170.97 E17.71574
G1 X166.42 Y170.72 E17.73805
G1 X166.33 Y170.72 E17.74254
G1 X165.97 Y170.97 E17.76444
G1 X165.38 Y171.29 E17.79758
G1 X165.38 Y172.48 E17.85715
G1 X153.49 Y172.48 E18.45064
G1 X153.49 Y171.29 E18.51016
G1 X152.91 Y170.97 E18.54301
G1 X152.54 Y170.72 E18.56527
G1 X152.45 Y170.72 E18.56976
G1 X152.09 Y170.97 E18.59174
G1 X151.51 Y171.29 E18.62476
G1 X151.51 Y172.48 E18.68433
G1 X139.62 Y172.48 E19.27783
G1 X139.62 Y171.29 E19.33740
G1 X139.04 Y170.97 E19.37031
G1 X138.67 Y170.72 E19.39244
G1 X138.58 Y170.72 E19.39703
G1 X138.22 Y170.97 E19.41893
G1 X137.64 Y171.29 E19.45207
G1 X137.64 Y172.48 E19.51164
G1 X125.74 Y172.48 E20.10513
G1 X125.74 Y171.29 E20.16465
G1 X125.17 Y170.97 E20.19750
G1 X124.80 Y170.72 E20.21976
G1 X119.65 Y170.72 E20.47645
G1 X119.65 Y134.12 E22.30243
G0 F12000 X120.05 Y134.52
G1 F2700 X125.16 Y134.52 E22.55727
G1 X125.37 Y134.37 E22.56996
G1 X126.14 Y133.95 E22.61390
G1 X126.14 Y132.92 E22.66534
G1 X137.24 Y132.92 E23.21892
G1 X137.24 Y133.95 E23.27031
G1 X138.00 Y134.37 E23.31392
G1 X138.22 Y134.52 E23.32701
G1 X139.03 Y134.52 E23.36767
G1 X139.24 Y134.37 E23.38036
G1 X140.02 Y133.95 E23.42430
G1 X140.02 Y132.92 E23.47574
G1 X151.11 Y132.92 E24.02932
G1 X151.11 Y133.95 E24.08071
G1 X151.88 Y134.37 E24.12431
G1 X152.09 Y134.52 E24.13740
G1 X152.91 Y134.52 E24.17797
G1 X153.12 Y134.37 E24.19077
G1 X153.89 Y133.95 E24.23462
G1 X153.89 Y132.92 E24.28601
G1 X164.98 Y132.92 E24.83959
G1 X164.98 Y133.95 E24.89098
G1 X165.75 Y134.37 E24.93470
G1 X165.97 Y134.52 E24.94768
G1 X166.78 Y134.52 E24.98834
G1 X166.99 Y134.37 E25.00103
G1 X167.76 Y133.95 E25.04497
G1 X167.76 Y132.92 E25.09641
G1 X178.86 Y132.92 E25.64999
G1 X178.86 Y133.95 E25.70137
G1 X179.62 Y134.37 E25.74498
G1 X180.37 Y134.89 E25.79039
G1 X181.23 Y135.48 E25.84216
G1 X184.29 Y137.62 E26.02851
G1 X184.29 Y145.60 E26.42693
G1 X183.31 Y146.28 E26.48592
G1 X183.31 Y151.23 E26.73282
G1 X183.31 Y158.70 E27.10580
G1 X184.29 Y159.37 E27.16446
G1 X184.29 Y167.40 E27.56548
G1 X179.63 Y170.63 E27.84799
G1 X178.86 Y171.05 E27.89193
G1 X178.86 Y172.08 E27.94337
G1 X167.76 Y172.08 E28.49695
G1 X167.76 Y171.05 E28.54834
G1 X167.00 Y170.63 E28.59195
G1 X166.54 Y170.32 E28.61942
G1 X166.20 Y170.32 E28.63643
G1 X165.76 Y170.63 E28.66350
G1 X164.98 Y171.05 E28.70744
G1 X164.98 Y172.08 E28.75888
G1 X153.89 Y172.08 E29.31246
G1 X153.89 Y171.05 E29.36385
G1 X153.12 Y170.63 E29.40745
G1 X152.67 Y170.32 E29.43492
G1 X152.33 Y170.32 E29.45184
G1 X151.88 Y170.63 E29.47902
G1 X151.11 Y171.05 E29.52287
G1 X151.11 Y172.08 E29.57426
G1 X140.02 Y172.08 E30.12784
G1 X140.02 Y171.05 E30.17923
G1 X139.25 Y170.63 E30.22295
G1 X138.80 Y170.32 E30.25031
G1 X138.46 Y170.32 E30.26732
G1 X138.01 Y170.63 E30.29439
G1 X137.24 Y171.05 E30.33833
G1 X137.24 Y172.08 E30.38977
G1 X126.14 Y172.08 E30.94335
G1 X126.14 Y171.05 E30.99473
G1 X125.38 Y170.63 E31.03834
G1 X124.92 Y170.32 E31.06581
G1 X120.05 Y170.32 E31.30878
G1 X120.05 Y134.52 E33.09485
G0 F12000 X120.45 Y134.92
G1 F2700 X125.28 Y134.92 E33.33592
G1 X125.58 Y134.71 E33.35388
G1 X126.51 Y134.20 E33.40689
G1 X126.54 Y134.19 E33.40858
G1 X126.54 Y133.32 E33.45184
G1 X136.84 Y133.32 E33.96551
G1 X136.84 Y134.19 E34.00876
G1 X137.79 Y134.71 E34.06318
G1 X138.09 Y134.92 E34.08143
G1 X139.16 Y134.92 E34.13451
G1 X139.46 Y134.71 E34.15248
G1 X140.38 Y134.20 E34.20520
G1 X140.42 Y134.19 E34.20718
G1 X140.42 Y133.32 E34.25044
G1 X150.71 Y133.32 E34.76411
G1 X150.71 Y134.19 E34.80736
G1 X151.67 Y134.71 E34.86177
G1 X151.97 Y134.92 E34.88003
G1 X153.03 Y134.92 E34.93301
G1 X153.33 Y134.71 E34.95109
G1 X154.26 Y134.20 E35.00396
G1 X154.29 Y134.19 E35.00568
G1 X154.29 Y133.32 E35.04893
G1 X164.58 Y133.32 E35.56260
G1 X164.58 Y134.19 E35.60586
G1 X165.54 Y134.71 E35.66034
G1 X165.84 Y134.92 E35.67852
G1 X166.91 Y134.92 E35.73161
G1 X167.20 Y134.71 E35.74957
G1 X168.13 Y134.20 E35.80258
G1 X168.16 Y134.19 E35.80427
G1 X168.16 Y133.32 E35.84753
G1 X178.46 Y133.32 E36.36120
G1 X178.46 Y134.19 E36.40445
G1 X179.41 Y134.71 E36.45887
G1 X180.15 Y135.22 E36.50319
G1 X181.00 Y135.81 E36.55493
G1 X183.89 Y137.83 E36.73085
G1 X183.89 Y145.40 E37.10842
G1 X182.91 Y146.07 E37.16741
G1 X182.91 Y151.23 E37.42474
G1 X182.91 Y158.91 E37.80824
G1 X183.89 Y159.58 E37.86690
G1 X183.89 Y167.19 E38.24692
G1 X179.42 Y170.29 E38.51799
G1 X178.49 Y170.80 E38.57099
G1 X178.46 Y170.81 E38.57269
G1 X178.46 Y171.68 E38.61595
G1 X168.16 Y171.68 E39.12961
G1 X168.16 Y170.81 E39.17287
G1 X167.21 Y170.29 E39.22728
G1 X166.67 Y169.92 E39.25992
G1 X166.08 Y169.92 E39.28935
G1 X165.54 Y170.29 E39.32169
G1 X164.62 Y170.80 E39.37441
G1 X164.58 Y170.81 E39.37640
G1 X164.58 Y171.68 E39.41965
G1 X154.29 Y171.68 E39.93332
G1 X154.29 Y170.81 E39.97658
G1 X153.33 Y170.29 E40.03099
G1 X152.79 Y169.92 E40.06362
G1 X152.21 Y169.92 E40.09296
G1 X151.67 Y170.29 E40.12541
G1 X150.74 Y170.80 E40.17828
G1 X150.71 Y170.81 E40.18000
G1 X150.71 Y171.68 E40.22326
G1 X140.42 Y171.68 E40.73693
G1 X140.42 Y170.81 E40.78018
G1 X139.46 Y170.29 E40.83466
G1 X138.92 Y169.92 E40.86723
G1 X138.33 Y169.92 E40.89666
G1 X137.80 Y170.29 E40.92901
G1 X136.87 Y170.80 E40.98201
G1 X136.84 Y170.81 E40.98371
G1 X136.84 Y171.68 E41.02696
G1 X126.54 Y171.68 E41.54063
G1 X126.54 Y170.81 E41.58389
G1 X125.59 Y170.29 E41.63830
G1 X125.05 Y169.92 E41.67093
G1 X120.45 Y169.92 E41.90018
G1 X120.45 Y134.92 E43.64634
G0 F12000 X120.85 Y135.32
G1 F2700 X125.41 Y135.32 E43.87374
G1 X125.79 Y135.05 E43.89686
G1 X126.70 Y134.55 E43.94884
G1 X126.94 Y134.42 E43.96233
G1 X126.94 Y133.72 E43.99745
G1 X136.44 Y133.72 E44.47121
G1 X136.44 Y134.42 E44.50633
G1 X137.58 Y135.05 E44.57151
G1 X137.97 Y135.32 E44.59497
G1 X139.28 Y135.32 E44.66057
G1 X139.67 Y135.05 E44.68370
G1 X140.57 Y134.56 E44.73494
G1 X140.82 Y134.42 E44.74919
G1 X140.82 Y133.72 E44.78426
G1 X150.31 Y133.72 E45.25802
G1 X150.31 Y134.42 E45.29314
G1 X151.46 Y135.05 E45.35832
G1 X151.84 Y135.32 E45.38177
G1 X153.16 Y135.32 E45.44728
G1 X153.54 Y135.05 E45.47052
G1 X154.45 Y134.55 E45.52232
G1 X154.69 Y134.42 E45.53587
G1 X154.69 Y133.72 E45.57099
G1 X164.18 Y133.72 E46.04475
G1 X164.18 Y134.42 E46.07982
G1 X165.33 Y135.05 E46.14514
G1 X165.72 Y135.32 E46.16848
G1 X167.03 Y135.32 E46.23409
G1 X167.41 Y135.05 E46.25721
G1 X168.32 Y134.55 E46.30919
G1 X168.56 Y134.42 E46.32268
G1 X168.56 Y133.72 E46.35780
G1 X178.06 Y133.72 E46.83156
G1 X178.06 Y134.42 E46.86668
G1 X179.20 Y135.05 E46.93186
G1 X179.92 Y135.54 E46.97519
G1 X180.77 Y136.13 E47.02685
G1 X183.49 Y138.04 E47.19231
G1 X183.49 Y145.19 E47.54903
G1 X182.51 Y145.86 E47.60801
G1 X182.51 Y151.23 E47.87582
G1 X182.51 Y159.12 E48.26986
G1 X183.49 Y159.79 E48.32851
G1 X183.49 Y166.99 E48.68757
G1 X179.21 Y169.95 E48.94714
G1 X178.29 Y170.45 E48.99912
G1 X178.06 Y170.58 E49.01261
G1 X178.06 Y171.28 E49.04773
G1 X168.56 Y171.28 E49.52149
G1 X168.56 Y170.58 E49.55661
G1 X167.42 Y169.95 E49.62179
G1 X166.79 Y169.52 E49.65966
G1 X165.95 Y169.52 E49.70157
G1 X165.33 Y169.95 E49.73908
G1 X164.43 Y170.44 E49.79032
G1 X164.18 Y170.58 E49.80457
G1 X164.18 Y171.28 E49.83964
G1 X154.69 Y171.28 E50.31340
G1 X154.69 Y170.58 E50.34852
G1 X153.54 Y169.95 E50.41370
G1 X152.92 Y169.52 E50.45157
G1 X152.08 Y169.52 E50.49338
G1 X151.46 Y169.95 E50.53100
G1 X150.55 Y170.45 E50.58280
G1 X150.31 Y170.58 E50.59635
G1 X150.31 Y171.28 E50.63147
G1 X140.82 Y171.28 E51.10523
G1 X140.82 Y170.58 E51.14030
G1 X139.67 Y169.95 E51.20562
G1 X139.05 Y169.52 E51.24338
G1 X138.21 Y169.52 E51.28529
G1 X137.59 Y169.95 E51.32279
G1 X136.68 Y170.45 E51.37478
G1 X136.44 Y170.58 E51.38826
G1 X136.44 Y171.28 E51.42338
G1 X126.94 Y171.28 E51.89714
G1 X126.94 Y170.58 E51.93226
G1 X125.80 Y169.95 E51.99744
G1 X125.17 Y169.52 E52.03532
G1 X120.85 Y169.52 E52.25079
G1 X120.85 Y135.32 E53.95704
G0 F12000 X121.25 Y135.72
G1 F2700 X125.54 Y135.72 E54.17072
G1 X126.00 Y135.40 E54.19905
G1 X126.90 Y134.90 E54.24998
G1 X127.34 Y134.66 E54.27528
G1 X127.34 Y134.12 E54.30227
G1 X136.04 Y134.12 E54.73611
G1 X136.04 Y134.66 E54.76305
G1 X137.37 Y135.39 E54.83903
G1 X137.85 Y135.72 E54.86772
G1 X139.41 Y135.72 E54.94580
G1 X139.88 Y135.40 E54.97409
G1 X140.76 Y134.91 E55.02433
G1 X141.22 Y134.66 E55.05037
G1 X141.22 Y134.12 E55.07726
G1 X149.91 Y134.12 E55.51110
G1 X149.91 Y134.66 E55.53804
G1 X151.25 Y135.39 E55.61403
G1 X151.72 Y135.72 E55.64271
G1 X153.28 Y135.72 E55.72054
G1 X153.75 Y135.39 E55.74905
G1 X154.64 Y134.90 E55.79987
G1 X155.09 Y134.66 E55.82524
G1 X155.09 Y134.12 E55.85213
G1 X163.78 Y134.12 E56.28597
G1 X163.78 Y134.66 E56.31291
G1 X165.12 Y135.39 E56.38896
G1 X165.59 Y135.72 E56.41758
G1 X167.16 Y135.72 E56.49566
G1 X167.62 Y135.40 E56.52395
G1 X168.52 Y134.90 E56.57488
G1 X168.96 Y134.66 E56.60018
G1 X168.96 Y134.12 E56.62717
G1 X177.66 Y134.12 E57.06101
G1 X177.66 Y134.66 E57.08795
G1 X178.99 Y135.39 E57.16394
G1 X179.69 Y135.87 E57.20622
G1 X180.54 Y136.46 E57.25781
G1 X183.09 Y138.24 E57.41285
G1 X183.09 Y144.98 E57.74876
G1 X182.11 Y145.65 E57.80774
G1 X182.12 Y158.93 E58.47044
G1 X182.12 Y159.34 E58.49054
G1 X183.09 Y160.00 E58.54920
G1 X183.09 Y166.78 E58.88726
G1 X179.00 Y169.60 E59.13535
G1 X178.10 Y170.10 E59.18629
G1 X177.66 Y170.34 E59.21158
G1 X177.66 Y170.88 E59.23857
G1 X168.96 Y170.88 E59.67242
G1 X168.96 Y170.34 E59.69936
G1 X167.63 Y169.61 E59.77534
G1 X166.93 Y169.13 E59.81762
G1 X166.92 Y169.12 E59.81841
G1 X165.83 Y169.12 E59.87284
G1 X165.12 Y169.60 E59.91550
G1 X164.24 Y170.09 E59.96574
G1 X163.78 Y170.34 E59.99178
G1 X163.78 Y170.88 E60.01867
G1 X155.09 Y170.88 E60.45252
G1 X155.09 Y170.34 E60.47946
G1 X153.75 Y169.61 E60.55544
G1 X153.06 Y169.13 E60.59772
G1 X153.04 Y169.12 E60.59851
G1 X151.96 Y169.12 E60.65269
G1 X151.25 Y169.61 E60.69558
G1 X150.36 Y170.10 E60.74639
G1 X149.91 Y170.34 E60.77176
G1 X149.91 Y170.88 E60.79865
G1 X141.22 Y170.88 E61.23250
G1 X141.22 Y170.34 E61.25944
G1 X139.88 Y169.61 E61.33549
G1 X139.18 Y169.13 E61.37770
G1 X139.17 Y169.12 E61.37849
G1 X138.08 Y169.12 E61.43292
G1 X137.38 Y169.60 E61.47558
G1 X136.48 Y170.10 E61.52652
G1 X136.04 Y170.34 E61.55181
G1 X136.04 Y170.88 E61.57880
G1 X127.34 Y170.88 E62.01265
G1 X127.34 Y170.34 E62.03959
G1 X126.01 Y169.61 E62.11557
G1 X125.31 Y169.13 E62.15785
G1 X125.30 Y169.12 E62.15864
G1 X121.25 Y169.12 E62.36039
G1 X121.25 Y135.72 E64.02673
G0 F12000 X121.65 Y136.12
G1 F2700 X125.66 Y136.12 E64.22669
G1 X126.21 Y135.74 E64.26025
G1 X127.09 Y135.25 E64.31013
G1 X127.74 Y134.90 E64.34722
G1 X127.74 Y134.52 E64.36607
G1 X135.64 Y134.52 E64.76001
G1 X135.64 Y134.90 E64.77882
G1 X137.16 Y135.73 E64.86556
G1 X137.72 Y136.12 E64.89941
G1 X139.53 Y136.12 E64.98996
G1 X140.09 Y135.74 E65.02352
G1 X140.95 Y135.26 E65.07271
G1 X140.95 Y135.26 E65.07276
G1 X141.62 Y134.89 E65.11059
G1 X141.62 Y134.52 E65.12930
G1 X149.51 Y134.52 E65.52323
G1 X149.51 Y134.90 E65.54204
G1 X151.04 Y135.73 E65.62878
G1 X151.59 Y136.12 E65.66263
G1 X153.41 Y136.12 E65.75304
G1 X153.96 Y135.73 E65.78671
G1 X154.82 Y135.26 E65.83587
G1 X154.82 Y135.26 E65.83592
G1 X155.49 Y134.89 E65.87370
G1 X155.49 Y134.52 E65.89241
G1 X163.38 Y134.52 E66.28635
G1 X163.38 Y134.89 E66.30510
G1 X164.91 Y135.73 E66.39194
G1 X165.47 Y136.12 E66.42572
G1 X167.28 Y136.12 E66.51627
G1 X167.83 Y135.74 E66.54983
G1 X168.71 Y135.25 E66.59972
G1 X169.36 Y134.90 E66.63680
G1 X169.36 Y134.52 E66.65566
G1 X177.26 Y134.52 E67.04959
G1 X177.26 Y134.90 E67.06840
G1 X178.78 Y135.73 E67.15515
G1 X179.46 Y136.20 E67.19639
G1 X180.31 Y136.79 E67.24795
G1 X182.69 Y138.45 E67.39253
G1 X182.69 Y144.77 E67.70759
G1 X181.71 Y145.44 E67.76657
G1 X181.72 Y158.93 E68.43974
G1 X181.72 Y159.55 E68.47042
G1 X182.69 Y160.21 E68.52908
G1 X182.69 Y166.57 E68.84613
G1 X178.79 Y169.26 E69.08275
G1 X177.91 Y169.75 E69.13264
G1 X177.26 Y170.10 E69.16972
G1 X177.26 Y170.48 E69.18858
G1 X169.36 Y170.48 E69.58251
G1 X169.36 Y170.10 E69.60132
G1 X167.84 Y169.27 E69.68807
G1 X167.16 Y168.80 E69.72931
G1 X167.04 Y168.72 E69.73634
G1 X165.70 Y168.72 E69.80319
G1 X164.91 Y169.26 E69.85113
G1 X164.05 Y169.74 E69.90032
G1 X164.05 Y169.74 E69.90037
G1 X163.38 Y170.11 E69.93819
G1 X163.38 Y170.48 E69.95690
G1 X155.49 Y170.48 E70.35084
G1 X155.49 Y170.10 E70.36965
G1 X153.96 Y169.27 E70.45639
G1 X153.28 Y168.80 E70.49763
G1 X153.17 Y168.72 E70.50466
G1 X151.83 Y168.72 E70.57141
G1 X151.04 Y169.27 E70.61942
G1 X150.18 Y169.74 E70.66859
G1 X150.18 Y169.74 E70.66864
G1 X149.51 Y170.11 E70.70642
G1 X149.51 Y170.48 E70.72513
G1 X141.62 Y170.48 E71.11906
G1 X141.62 Y170.11 E71.13782
G1 X140.09 Y169.27 E71.22466
G1 X139.41 Y168.80 E71.26583
G1 X139.30 Y168.72 E71.27286
G1 X137.96 Y168.72 E71.33971
G1 X137.17 Y169.26 E71.38765
G1 X136.29 Y169.75 E71.43753
G1 X135.64 Y170.10 E71.47462
G1 X135.64 Y170.48 E71.49348
G1 X127.74 Y170.48 E71.88741
G1 X127.74 Y170.10 E71.90622
G1 X126.22 Y169.27 E71.99296
G1 X125.54 Y168.80 E72.03420
G1 X125.42 Y168.72 E72.04123
G1 X121.65 Y168.72 E72.22927
G1 X121.65 Y136.12 E73.85569
G0 F12000 X122.05 Y136.52
G1 F2700 X125.78 Y136.52 E74.04188
G1 X126.42 Y136.08 E74.08064
G1 X127.28 Y135.60 E74.12950
G1 X128.14 Y135.13 E74.17842
G1 X128.14 Y134.92 E74.18915
G1 X135.24 Y134.92 E74.54317
G1 X135.24 Y135.13 E74.55384
G1 X136.95 Y136.07 E74.65139
G1 X137.60 Y136.52 E74.69045
G1 X139.66 Y136.52 E74.79337
G1 X140.30 Y136.08 E74.83213
G1 X141.15 Y135.61 E74.88077
G1 X141.15 Y135.61 E74.88082
G1 X142.02 Y135.13 E74.93005
G1 X142.02 Y134.92 E74.94063
G1 X149.11 Y134.92 E75.29465
G1 X149.11 Y135.13 E75.30533
G1 X150.83 Y136.07 E75.40288
G1 X151.47 Y136.52 E75.44193
G1 X153.53 Y136.52 E75.54481
G1 X154.17 Y136.07 E75.58364
G1 X155.03 Y135.60 E75.63238
G1 X155.03 Y135.60 E75.63243
G1 X155.89 Y135.13 E75.68145
G1 X155.89 Y134.92 E75.69203
G1 X162.98 Y134.92 E76.04605
G1 X162.98 Y135.13 E76.05667
G1 X164.70 Y136.07 E76.15432
G1 X165.34 Y136.52 E76.19330
G1 X167.41 Y136.52 E76.29622
G1 X168.04 Y136.08 E76.33499
G1 X168.90 Y135.60 E76.38384
G1 X169.76 Y135.13 E76.43276
G1 X169.76 Y134.92 E76.44349
G1 X176.86 Y134.92 E76.79751
G1 X176.86 Y135.13 E76.80819
G1 X178.57 Y136.07 E76.90574
G1 X179.24 Y136.53 E76.94594
G1 X180.08 Y137.12 E76.99742
G1 X182.29 Y138.66 E77.13158
G1 X182.29 Y144.56 E77.42573
G1 X181.31 Y145.23 E77.48471
G1 X181.31 Y145.28 E77.48721
G1 X181.31 Y158.93 E78.16836
G1 X181.31 Y159.76 E78.20957
G1 X182.29 Y160.42 E78.26823
G1 X182.29 Y166.36 E78.56428
G1 X178.58 Y168.92 E78.78938
G1 X177.72 Y169.40 E78.83824
G1 X176.86 Y169.87 E78.88716
G1 X176.86 Y170.08 E78.89788
G1 X169.76 Y170.08 E79.25190
G1 X169.76 Y169.87 E79.26258
G1 X168.05 Y168.93 E79.36013
G1 X167.38 Y168.47 E79.40033
G1 X167.17 Y168.32 E79.41357
G1 X165.58 Y168.32 E79.49284
G1 X164.70 Y168.92 E79.54598
G1 X163.85 Y169.39 E79.59462
G1 X163.85 Y169.39 E79.59467
G1 X162.98 Y169.87 E79.64390
G1 X162.98 Y170.08 E79.65448
G1 X155.89 Y170.08 E80.00850
G1 X155.89 Y169.87 E80.01918
G1 X154.17 Y168.93 E80.11673
G1 X153.51 Y168.47 E80.15693
G1 X153.29 Y168.32 E80.17016
G1 X151.71 Y168.32 E80.24939
G1 X150.83 Y168.93 E80.30260
G1 X149.97 Y169.40 E80.35134
G1 X149.97 Y169.40 E80.35139
G1 X149.11 Y169.87 E80.40041
G1 X149.11 Y170.08 E80.41098
G1 X142.02 Y170.08 E80.76500
G1 X142.02 Y169.87 E80.77563
G1 X140.30 Y168.93 E80.87327
G1 X139.64 Y168.47 E80.91341
G1 X139.42 Y168.32 E80.92664
G1 X137.83 Y168.32 E81.00591
G1 X136.96 Y168.92 E81.05906
G1 X136.10 Y169.40 E81.10791
G1 X135.24 Y169.87 E81.15683
G1 X135.24 Y170.08 E81.16756
G1 X128.14 Y170.08 E81.52158
G1 X128.14 Y169.87 E81.53225
G1 X126.43 Y168.93 E81.62980
G1 X125.77 Y168.47 E81.67001
G1 X125.55 Y168.32 E81.68324
G1 X122.05 Y168.32 E81.85755
G1 X122.05 Y136.52 E83.44406
G0 F12000 X122.45 Y136.92
G1 F2700 X125.91 Y136.92 E83.61653
G1 X126.64 Y136.42 E83.66053
G1 X127.47 Y135.95 E83.70836
G1 X128.54 Y135.37 E83.76904
G1 X128.54 Y135.32 E83.77163
G1 X134.84 Y135.32 E84.08574
G1 X134.84 Y135.37 E84.08829
G1 X136.74 Y136.41 E84.19660
G1 X137.39 Y136.86 E84.23577
G1 X137.47 Y136.92 E84.24086
G1 X139.78 Y136.92 E84.35625
G1 X140.51 Y136.42 E84.40025
G1 X141.34 Y135.96 E84.44750
G1 X142.42 Y135.37 E84.50888
G1 X142.42 Y135.32 E84.51123
G1 X148.71 Y135.32 E84.82534
G1 X148.71 Y135.37 E84.82788
G1 X150.62 Y136.41 E84.93619
G1 X151.26 Y136.86 E84.97536
G1 X151.34 Y136.92 E84.98045
G1 X153.66 Y136.92 E85.09575
G1 X154.38 Y136.41 E85.13981
G1 X155.22 Y135.96 E85.18755
G1 X156.29 Y135.37 E85.24835
G1 X156.29 Y135.32 E85.25075
G1 X162.58 Y135.32 E85.56486
G1 X162.58 Y135.37 E85.56730
G1 X164.49 Y136.41 E85.67571
G1 X165.13 Y136.86 E85.71483
G1 X165.22 Y136.92 E85.71992
G1 X167.53 Y136.92 E85.83532
G1 X168.25 Y136.42 E85.87931
G1 X169.09 Y135.95 E85.92714
G1 X170.16 Y135.37 E85.98783
G1 X170.16 Y135.32 E85.99042
G1 X176.46 Y135.32 E86.30453
G1 X176.46 Y135.37 E86.30707
G1 X178.36 Y136.41 E86.41539
G1 X179.01 Y136.86 E86.45455
G1 X179.85 Y137.45 E86.50600
G1 X181.89 Y138.87 E86.62970
G1 X181.89 Y144.35 E86.90305
G1 X180.91 Y145.02 E86.96203
G1 X180.91 Y145.28 E86.97495
G1 X180.91 Y158.93 E87.65610
G1 X180.91 Y159.97 E87.70784
G1 X181.89 Y160.63 E87.76650
G1 X181.89 Y166.15 E88.04154
G1 X178.37 Y168.58 E88.25521
G1 X177.53 Y169.05 E88.30303
G1 X176.46 Y169.63 E88.36372
G1 X176.46 Y169.68 E88.36631
G1 X170.16 Y169.68 E88.68042
G1 X170.16 Y169.63 E88.68297
G1 X168.26 Y168.59 E88.79128
G1 X167.61 Y168.14 E88.83044
G1 X167.29 Y167.92 E88.84991
G1 X165.45 Y167.92 E88.94166
G1 X164.49 Y168.58 E89.00004
G1 X163.66 Y169.04 E89.04728
G1 X162.58 Y169.63 E89.10867
G1 X162.58 Y169.68 E89.11101
G1 X156.29 Y169.68 E89.42512
G1 X156.29 Y169.63 E89.42767
G1 X154.38 Y168.59 E89.53598
G1 X153.74 Y168.14 E89.57515
G1 X153.42 Y167.92 E89.59462
G1 X151.58 Y167.92 E89.68627
G1 X150.62 Y168.59 E89.74471
G1 X149.78 Y169.04 E89.79244
G1 X148.71 Y169.63 E89.85325
G1 X148.71 Y169.68 E89.85564
G1 X142.42 Y169.68 E90.16975
G1 X142.42 Y169.63 E90.17220
G1 X140.51 Y168.59 E90.28060
G1 X139.87 Y168.14 E90.31973
G1 X139.55 Y167.92 E90.33920
G1 X137.71 Y167.92 E90.43095
G1 X136.75 Y168.58 E90.48932
G1 X135.91 Y169.05 E90.53715
G1 X134.84 Y169.63 E90.59783
G1 X134.84 Y169.68 E90.60043
G1 X128.54 Y169.68 E90.91454
G1 X128.54 Y169.63 E90.91708
G1 X126.64 Y168.59 E91.02539
G1 X125.99 Y168.14 E91.06456
G1 X125.67 Y167.92 E91.08403
G1 X122.45 Y167.92 E91.24463
G1 X122.45 Y136.92 E92.79122
G0 F12000 X122.85 Y137.32
G1 F2700 X126.03 Y137.32 E92.94997
G1 X126.85 Y136.76 E92.99917
G1 X127.67 Y136.31 E93.04593
G1 X128.74 Y135.72 E93.10690
G1 X134.64 Y135.72 E93.40146
G1 X136.53 Y136.75 E93.50885
G1 X137.16 Y137.19 E93.54705
G1 X137.35 Y137.32 E93.55834
G1 X139.91 Y137.32 E93.68626
G1 X140.72 Y136.76 E93.73542
G1 X141.53 Y136.31 E93.78166
G1 X142.60 Y135.72 E93.84280
G1 X148.52 Y135.72 E94.13775
G1 X150.40 Y136.75 E94.24515
G1 X151.03 Y137.19 E94.28334
G1 X151.22 Y137.32 E94.29464
G1 X153.78 Y137.32 E94.42241
G1 X154.59 Y136.76 E94.47167
G1 X155.41 Y136.31 E94.51789
G1 X156.48 Y135.72 E94.57903
G1 X162.39 Y135.72 E94.87403
G1 X164.28 Y136.75 E94.98141
G1 X164.91 Y137.19 E95.01954
G1 X165.09 Y137.32 E95.03083
G1 X167.66 Y137.32 E95.15875
G1 X168.47 Y136.76 E95.20791
G1 X169.29 Y136.31 E95.25466
G1 X170.36 Y135.72 E95.31564
G1 X176.26 Y135.72 E95.61019
G1 X178.15 Y136.75 E95.71759
G1 X178.78 Y137.19 E95.75578
G1 X179.63 Y137.78 E95.80713
G1 X181.49 Y139.08 E95.92040
G1 X181.49 Y144.14 E96.17289
G1 X180.51 Y144.81 E96.23188
G1 X180.51 Y145.28 E96.25527
G1 X180.51 Y158.93 E96.93642
G1 X180.51 Y160.18 E96.99869
G1 X181.49 Y160.84 E97.05735
G1 X181.49 Y165.94 E97.31144
G1 X178.15 Y168.24 E97.51360
G1 X177.33 Y168.69 E97.56036
G1 X176.26 Y169.28 E97.62133
G1 X170.36 Y169.28 E97.91588
G1 X168.47 Y168.25 E98.02328
G1 X167.84 Y167.81 E98.06148
G1 X167.42 Y167.52 E98.08715
G1 X165.33 Y167.52 E98.19142
G1 X164.28 Y168.24 E98.25496
G1 X163.47 Y168.69 E98.30120
G1 X162.40 Y169.28 E98.36234
G1 X156.48 Y169.28 E98.65729
G1 X154.60 Y168.25 E98.76469
G1 X153.97 Y167.81 E98.80288
G1 X153.54 Y167.52 E98.82855
G1 X151.46 Y167.52 E98.93267
G1 X150.41 Y168.24 E98.99632
G1 X149.59 Y168.69 E99.04254
G1 X148.52 Y169.28 E99.10368
G1 X142.61 Y169.28 E99.39868
G1 X140.72 Y168.25 E99.50606
G1 X140.09 Y167.81 E99.54418
G1 X139.67 Y167.52 E99.56986
G1 X137.58 Y167.52 E99.67413
G1 X136.53 Y168.24 E99.73766
G1 X135.71 Y168.69 E99.78442
G1 X134.64 Y169.28 E99.84540
G1 X128.74 Y169.28 E100.13995
G1 X126.85 Y168.25 E100.24735
G1 X126.22 Y167.81 E100.28554
G1 X125.80 Y167.52 E100.31121
G1 X122.85 Y167.52 E100.45809
G1 X122.85 Y137.32 E101.96477
G0 F12000 X123.25 Y137.72
G1 F2700 X126.16 Y137.72 E102.10980
G1 X127.06 Y137.10 E102.16423
G1 X127.86 Y136.66 E102.20994
G1 X128.84 Y136.12 E102.26580
G1 X134.54 Y136.12 E102.55013
G1 X136.32 Y137.09 E102.65138
G1 X136.93 Y137.52 E102.68850
G1 X137.25 Y137.74 E102.70797
G1 X137.25 Y137.72 E102.70907
G1 X140.03 Y137.72 E102.84781
G1 X140.93 Y137.10 E102.90224
G1 X141.73 Y136.66 E102.94779
G1 X142.71 Y136.12 E103.00346
G1 X148.41 Y136.12 E103.28819
G1 X150.19 Y137.09 E103.38945
G1 X150.81 Y137.52 E103.42656
G1 X151.09 Y137.72 E103.44410
G1 X153.91 Y137.72 E103.58439
G1 X154.80 Y137.10 E103.63882
G1 X155.61 Y136.66 E103.68448
G1 X156.58 Y136.12 E103.74004
G1 X162.29 Y136.12 E104.02481
G1 X164.07 Y137.10 E104.12605
G1 X164.68 Y137.52 E104.16309
G1 X164.97 Y137.72 E104.18063
G1 X167.78 Y137.72 E104.32097
G1 X168.68 Y137.10 E104.37540
G1 X169.48 Y136.66 E104.42110
G1 X170.46 Y136.12 E104.47697
G1 X176.16 Y136.12 E104.76129
G1 X177.94 Y137.09 E104.86255
G1 X178.55 Y137.52 E104.89967
G1 X179.40 Y138.10 E104.95094
G1 X181.09 Y139.29 E105.05382
G1 X181.09 Y143.93 E105.28546
G1 X180.11 Y144.60 E105.34444
G1 X180.11 Y145.28 E105.37822
G1 X180.12 Y158.93 E106.05942
G1 X180.12 Y160.39 E106.13221
G1 X181.09 Y161.06 E106.19089
G1 X181.09 Y165.73 E106.42393
G1 X177.94 Y167.90 E106.61465
G1 X177.14 Y168.34 E106.66036
G1 X176.16 Y168.88 E106.71622
G1 X170.46 Y168.88 E107.00054
G1 X168.68 Y167.91 E107.10180
G1 X168.07 Y167.48 E107.13892
G1 X167.54 Y167.12 E107.17083
G1 X165.20 Y167.12 E107.28752
G1 X164.07 Y167.90 E107.35633
G1 X163.27 Y168.34 E107.40188
G1 X162.29 Y168.88 E107.45755
G1 X156.59 Y168.88 E107.74227
G1 X154.81 Y167.91 E107.84353
G1 X154.19 Y167.48 E107.88065
G1 X153.67 Y167.12 E107.91256
G1 X151.33 Y167.12 E108.02920
G1 X150.20 Y167.90 E108.09801
G1 X149.39 Y168.34 E108.14368
G1 X148.42 Y168.88 E108.19923
G1 X142.71 Y168.88 E108.48401
G1 X140.93 Y167.90 E108.58524
G1 X140.32 Y167.48 E108.62229
G1 X139.80 Y167.12 E108.65420
G1 X137.46 Y167.12 E108.77090
G1 X136.32 Y167.90 E108.83971
G1 X135.52 Y168.34 E108.88541
G1 X134.54 Y168.88 E108.94127
G1 X128.84 Y168.88 E109.22560
G1 X127.06 Y167.91 E109.32686
G1 X126.45 Y167.48 E109.36397
G1 X125.92 Y167.12 E109.39589
G1 X123.25 Y167.12 E109.52904
G1 X123.25 Y137.72 E110.99581
G0 F12000 X123.65 Y138.12
G1 F2700 X126.28 Y138.12 E111.12713
G1 X127.27 Y137.44 E111.18672
G1 X128.05 Y137.01 E111.23142
G1 X128.94 Y136.52 E111.28215
G1 X134.44 Y136.52 E111.55624
G1 X136.11 Y137.44 E111.65136
G1 X136.70 Y137.85 E111.68744
G1 X137.55 Y138.43 E111.73871
G1 X137.65 Y138.50 E111.74505
G1 X137.65 Y138.12 E111.76436
G1 X140.16 Y138.12 E111.88934
G1 X141.14 Y137.44 E111.94897
G1 X141.92 Y137.01 E111.99349
G1 X142.81 Y136.52 E112.04409
G1 X148.31 Y136.52 E112.31854
G1 X149.98 Y137.44 E112.41366
G1 X150.58 Y137.85 E112.44973
G1 X151.42 Y138.43 E112.50101
G1 X151.45 Y138.45 E112.50284
G1 X151.45 Y138.12 E112.51955
G1 X154.03 Y138.12 E112.64817
G1 X155.01 Y137.44 E112.70783
G1 X155.79 Y137.01 E112.75210
G1 X156.68 Y136.52 E112.80293
G1 X162.19 Y136.52 E113.07742
G1 X163.86 Y137.44 E113.17250
G1 X164.45 Y137.85 E113.20853
G1 X165.25 Y138.40 E113.25726
G1 X165.25 Y138.12 E113.27148
G1 X167.90 Y138.12 E113.40374
G1 X168.89 Y137.44 E113.46337
G1 X169.67 Y137.01 E113.50807
G1 X170.56 Y136.52 E113.55880
G1 X176.06 Y136.52 E113.83290
G1 X177.73 Y137.44 E113.92802
G1 X178.32 Y137.85 E113.96409
G1 X179.17 Y138.43 E114.01537
G1 X180.69 Y139.49 E114.10775
G1 X180.69 Y143.72 E114.31854
G1 X179.71 Y144.39 E114.37752
G1 X179.71 Y145.28 E114.42178
G1 X179.72 Y158.93 E115.10298
G1 X179.72 Y160.60 E115.18629
G1 X180.69 Y161.27 E115.24498
G1 X180.69 Y165.52 E115.45706
G1 X177.73 Y167.56 E115.63624
G1 X176.95 Y167.99 E115.68094
G1 X176.06 Y168.48 E115.73167
G1 X170.56 Y168.48 E116.00577
G1 X168.89 Y167.56 E116.10088
G1 X168.30 Y167.15 E116.13696
G1 X167.67 Y166.72 E116.17508
G1 X165.25 Y166.72 E116.29556
G1 X165.25 Y166.60 E116.30160
G1 X163.86 Y167.56 E116.38618
G1 X163.08 Y167.99 E116.43070
G1 X162.19 Y168.48 E116.48130
G1 X156.69 Y168.48 E116.75575
G1 X155.02 Y167.56 E116.85087
G1 X154.42 Y167.15 E116.88695
G1 X153.79 Y166.72 E116.92506
G1 X151.45 Y166.72 E117.04185
G1 X151.45 Y166.55 E117.05038
G1 X149.99 Y167.56 E117.13941
G1 X149.21 Y167.99 E117.18369
G1 X148.32 Y168.48 E117.23451
G1 X142.81 Y168.48 E117.50901
G1 X141.14 Y167.56 E117.60408
G1 X140.55 Y167.15 E117.64012
G1 X139.92 Y166.72 E117.67823
G1 X137.65 Y166.72 E117.79143
G1 X137.65 Y166.50 E117.80251
G1 X136.11 Y167.56 E117.89595
G1 X135.33 Y167.99 E117.94065
G1 X134.44 Y168.48 E117.99138
G1 X128.94 Y168.48 E118.26548
G1 X127.27 Y167.56 E118.36060
G1 X126.68 Y167.15 E118.39667
G1 X126.05 Y166.72 E118.43479
G1 X123.65 Y166.72 E118.55427
G1 X123.65 Y138.12 E119.98113
G0 F12000 X124.05 Y138.52
G1 F2700 X126.41 Y138.52 E120.09872
G1 X127.48 Y137.78 E120.16352
G1 X128.25 Y137.36 E120.20719
G1 X129.05 Y136.92 E120.25277
G1 X134.34 Y136.92 E120.51663
G1 X135.90 Y137.78 E120.60563
G1 X136.48 Y138.18 E120.64070
G1 X137.32 Y138.76 E120.69187
G1 X138.05 Y139.27 E120.73650
G1 X138.05 Y138.52 E120.77417
G1 X140.28 Y138.52 E120.88547
G1 X141.35 Y137.78 E120.95027
G1 X142.12 Y137.36 E120.99379
G1 X142.12 Y137.36 E120.99384
G1 X142.91 Y136.92 E121.03933
G1 X148.21 Y136.92 E121.30349
G1 X149.77 Y137.78 E121.39249
G1 X150.35 Y138.18 E121.42756
G1 X151.19 Y138.76 E121.47872
G1 X151.85 Y139.22 E121.51885
G1 X151.85 Y138.52 E121.55392
G1 X154.16 Y138.52 E121.66882
G1 X155.22 Y137.78 E121.73368
G1 X155.99 Y137.36 E121.77729
G1 X155.99 Y137.36 E121.77734
G1 X156.79 Y136.92 E121.82272
G1 X162.08 Y136.92 E122.08693
G1 X163.65 Y137.78 E122.17591
G1 X164.22 Y138.18 E122.21091
G1 X165.07 Y138.76 E122.26208
G1 X165.65 Y139.17 E122.29783
G1 X165.65 Y138.52 E122.33040
G1 X168.03 Y138.52 E122.44899
G1 X169.10 Y137.78 E122.51379
G1 X169.87 Y137.36 E122.55746
G1 X170.67 Y136.92 E122.60303
G1 X175.96 Y136.92 E122.86690
G1 X177.52 Y137.78 E122.95590
G1 X178.10 Y138.18 E122.99097
G1 X178.94 Y138.76 E123.04213
G1 X180.29 Y139.70 E123.12410
G1 X180.29 Y143.51 E123.31408
G1 X179.31 Y144.18 E123.37303
G1 X179.31 Y145.28 E123.42776
G1 X179.31 Y158.93 E124.10896
G1 X179.31 Y160.81 E124.20286
G1 X180.29 Y161.48 E124.26156
G1 X180.29 Y165.31 E124.45264
G1 X177.52 Y167.22 E124.62034
G1 X176.75 Y167.64 E124.66402
G1 X175.95 Y168.08 E124.70959
G1 X170.66 Y168.08 E124.97346
G1 X169.10 Y167.22 E125.06245
G1 X168.52 Y166.82 E125.09752
G1 X167.79 Y166.32 E125.14184
G1 X165.65 Y166.32 E125.24860
G1 X165.65 Y165.83 E125.27280
G1 X163.65 Y167.22 E125.39446
G1 X162.88 Y167.64 E125.43798
G1 X162.88 Y167.64 E125.43803
G1 X162.09 Y168.08 E125.48351
G1 X156.79 Y168.08 E125.74768
G1 X155.23 Y167.22 E125.83668
G1 X154.65 Y166.82 E125.87175
G1 X153.92 Y166.32 E125.91606
G1 X151.85 Y166.32 E126.01914
G1 X151.85 Y165.78 E126.04578
G1 X149.78 Y167.22 E126.17185
G1 X149.01 Y167.64 E126.21546
G1 X149.01 Y167.64 E126.21551
G1 X148.21 Y168.08 E126.26089
G1 X142.92 Y168.08 E126.52510
G1 X141.35 Y167.22 E126.61408
G1 X140.78 Y166.82 E126.64908
G1 X140.05 Y166.32 E126.69340
G1 X138.05 Y166.32 E126.79288
G1 X138.05 Y165.73 E126.82211
G1 X135.90 Y167.22 E126.95263
G1 X135.13 Y167.64 E126.99631
G1 X134.33 Y168.08 E127.04188
G1 X129.04 Y168.08 E127.30574
G1 X127.48 Y167.22 E127.39474
G1 X126.90 Y166.82 E127.42981
G1 X126.17 Y166.32 E127.47413
G1 X124.05 Y166.32 E127.57989
G1 X124.05 Y138.52 E128.96684
G0 F12000 X124.45 Y138.92
G1 F2700 X126.53 Y138.92 E129.07071
G1 X127.69 Y138.12 E129.14074
G1 X128.44 Y137.71 E129.18332
G1 X129.15 Y137.32 E129.22382
G1 X134.23 Y137.32 E129.47746
G1 X135.69 Y138.12 E129.56028
G1 X136.25 Y138.50 E129.59431
G1 X137.09 Y139.09 E129.64544
G1 X138.27 Y139.91 E129.71694
G1 X138.27 Y143.30 E129.88607
G1 X137.29 Y143.97 E129.94505
G1 X137.29 Y145.28 E130.01021
G1 X137.29 Y158.93 E130.69141
G1 X137.29 Y161.03 E130.79583
G1 X138.27 Y161.69 E130.85453
G1 X138.27 Y165.10 E131.02461
G1 X135.69 Y166.88 E131.18087
G1 X134.94 Y167.29 E131.22345
G1 X134.23 Y167.68 E131.26395
G1 X129.15 Y167.68 E131.51759
G1 X127.69 Y166.88 E131.60040
G1 X127.13 Y166.50 E131.63443
G1 X126.30 Y165.92 E131.68503
G1 X124.45 Y165.92 E131.77703
G1 X124.45 Y138.92 E133.12406
G0 F12000 X124.85 Y139.32
G1 F2700 X126.66 Y139.32 E133.21421
G1 X127.90 Y138.46 E133.28944
G1 X128.63 Y138.06 E133.33098
G1 X129.25 Y137.72 E133.36634
G1 X134.13 Y137.72 E133.60976
G1 X135.48 Y138.46 E133.68648
G1 X136.02 Y138.83 E133.71947
G1 X136.86 Y139.42 E133.77052
G1 X137.87 Y140.12 E133.83160
G1 X137.87 Y143.09 E133.97987
G1 X136.90 Y143.76 E134.03879
G1 X136.89 Y145.28 E134.11442
G1 X136.90 Y158.93 E134.79562
G1 X136.89 Y161.24 E134.91052
G1 X137.87 Y161.90 E134.96925
G1 X137.87 Y164.89 E135.11837
G1 X135.48 Y166.54 E135.26313
G1 X134.75 Y166.94 E135.30466
G1 X134.13 Y167.28 E135.34002
G1 X129.25 Y167.28 E135.58344
G1 X127.90 Y166.54 E135.66016
G1 X127.36 Y166.17 E135.69315
G1 X126.52 Y165.58 E135.74420
G1 X126.42 Y165.52 E135.74986
G1 X124.85 Y165.52 E135.82824
G1 X124.85 Y139.32 E137.13536
G0 F12000 X125.25 Y139.72
G1 F2700 X126.78 Y139.72 E137.21180
G1 X128.11 Y138.80 E137.29226
G1 X128.82 Y138.41 E137.33274
G1 X129.35 Y138.12 E137.36295
G1 X134.03 Y138.12 E137.59619
G1 X135.27 Y138.80 E137.66672
G1 X135.79 Y139.16 E137.69867
G1 X136.63 Y139.75 E137.74970
G1 X137.47 Y140.33 E137.80032
G1 X137.47 Y142.88 E137.92773
G1 X136.50 Y143.55 E137.98668
G1 X136.49 Y161.45 E138.87931
G1 X136.65 Y161.55 E138.88878
G1 X136.65 Y161.56 E138.88883
G1 X137.47 Y162.11 E138.93812
G1 X137.47 Y164.68 E139.06619
G1 X135.27 Y166.20 E139.19950
G1 X134.56 Y166.59 E139.23998
G1 X134.03 Y166.88 E139.27019
G1 X129.35 Y166.88 E139.50343
G1 X128.11 Y166.20 E139.57396
G1 X127.59 Y165.84 E139.60592
G1 X126.75 Y165.25 E139.65694
G1 X126.55 Y165.12 E139.66887
G1 X125.25 Y165.12 E139.73353
G1 X125.25 Y139.72 E141.00074
G0 F12000 X125.65 Y140.12
G1 F2700 X126.91 Y140.12 E141.06340
G1 X128.32 Y139.14 E141.14907
G1 X129.01 Y138.76 E141.18852
G1 X129.46 Y138.52 E141.21366
G1 X131.64 Y138.52 E141.32252
G1 X131.64 Y144.41 E141.61658
G1 X131.69 Y144.42 E141.61919
G1 X131.74 Y144.41 E141.62180
G1 X131.74 Y138.52 E141.91585
G1 X133.93 Y138.52 E142.02476
G1 X135.06 Y139.14 E142.08918
G1 X135.57 Y139.49 E142.12012
G1 X136.41 Y140.07 E142.17104
G1 X137.07 Y140.53 E142.21123
G1 X137.07 Y142.67 E142.31779
G1 X136.09 Y143.34 E142.37674
G1 X136.09 Y161.66 E143.29033
G1 X136.41 Y161.88 E143.30980
G1 X137.07 Y162.32 E143.34914
G1 X137.07 Y164.47 E143.45625
G1 X135.06 Y165.86 E143.57802
G1 X134.37 Y166.24 E143.61748
G1 X133.92 Y166.48 E143.64262
G1 X131.74 Y166.48 E143.75148
G1 X131.74 Y160.59 E144.04553
G1 X131.69 Y160.58 E144.04814
G1 X131.64 Y160.59 E144.05075
G1 X131.64 Y166.48 E144.34481
G1 X129.46 Y166.48 E144.45372
G1 X128.32 Y165.86 E144.51813
G1 X127.81 Y165.51 E144.54908
G1 X126.97 Y164.93 E144.59999
G1 X126.67 Y164.72 E144.61819
G1 X125.65 Y164.72 E144.66918
G1 X125.65 Y140.12 E145.89648
G0 F12000 X126.05 Y140.52
G1 F2700 X127.03 Y140.52 E145.94547
G1 X128.53 Y139.48 E146.03630
G1 X129.21 Y139.11 E146.07475
G1 X129.56 Y138.92 E146.09471
G1 X131.24 Y138.92 E146.17852
G1 X131.24 Y144.72 E146.46824
G1 X131.26 Y144.74 E146.46940
G1 X131.44 Y144.79 E146.47907
G1 X131.69 Y144.82 E146.49145
G1 X131.94 Y144.79 E146.50393
G1 X132.12 Y144.74 E146.51356
G1 X132.14 Y144.73 E146.51465
G1 X132.14 Y138.92 E146.80442
G1 X133.82 Y138.92 E146.88823
G1 X134.85 Y139.48 E146.94651
G1 X136.18 Y140.40 E147.02726
G1 X136.67 Y140.74 E147.05703
G1 X136.67 Y142.46 E147.14279
G1 X135.69 Y143.13 E147.20171
G1 X135.69 Y161.87 E148.13625
G1 X136.19 Y162.21 E148.16627
G1 X136.67 Y162.53 E148.19509
G1 X136.67 Y164.26 E148.28120
G1 X134.85 Y165.52 E148.39150
G1 X134.17 Y165.89 E148.42995
G1 X133.82 Y166.08 E148.44991
G1 X132.14 Y166.08 E148.53373
G1 X132.14 Y160.27 E148.82349
G1 X132.12 Y160.26 E148.82458
G1 X131.94 Y160.21 E148.83421
G1 X131.69 Y160.18 E148.84669
G1 X131.44 Y160.21 E148.85907
G1 X131.26 Y160.26 E148.86874
G1 X131.24 Y160.28 E148.86991
G1 X131.24 Y166.08 E149.15962
G1 X129.56 Y166.08 E149.24343
G1 X128.53 Y165.52 E149.30171
G1 X127.20 Y164.60 E149.38246
G1 X126.80 Y164.32 E149.40693
G1 X126.05 Y164.32 E149.44425
G1 X126.05 Y140.52 E150.63164
G0 F12000 X126.45 Y140.92
G1 F2700 X127.16 Y140.92 E150.66691
G1 X128.74 Y139.82 E150.76297
G1 X129.40 Y139.46 E150.80032
G1 X129.66 Y139.32 E150.81517
G1 X130.84 Y139.32 E150.87394
G1 X130.84 Y144.85 E151.15003
G1 X130.86 Y144.93 E151.15380
G1 X130.92 Y145.00 E151.15851
G1 X131.09 Y145.10 E151.16852
G1 X131.36 Y145.19 E151.18275
G1 X131.69 Y145.22 E151.19929
G1 X132.01 Y145.19 E151.21559
G1 X132.29 Y145.10 E151.23017
G1 X132.46 Y145.00 E151.24014
G1 X132.52 Y144.93 E151.24478
G1 X132.54 Y144.85 E151.24854
G1 X132.54 Y139.32 E151.52464
G1 X133.72 Y139.32 E151.58341
G1 X134.64 Y139.82 E151.63554
G1 X135.95 Y140.73 E151.71519
G1 X136.27 Y140.95 E151.73452
G1 X136.27 Y142.25 E151.79938
G1 X135.29 Y142.93 E151.85832
G1 X135.29 Y162.07 E152.81372
G1 X135.97 Y162.54 E152.85456
G1 X136.27 Y162.75 E152.87262
G1 X136.27 Y164.05 E152.93772
G1 X134.64 Y165.18 E153.03658
G1 X133.98 Y165.54 E153.07393
G1 X133.72 Y165.68 E153.08878
G1 X132.54 Y165.68 E153.14755
G1 X132.54 Y160.15 E153.42364
G1 X132.52 Y160.07 E153.42741
G1 X132.46 Y160.00 E153.43205
G1 X132.29 Y159.90 E153.44202
G1 X132.01 Y159.81 E153.45660
G1 X131.69 Y159.78 E153.47289
G1 X131.36 Y159.81 E153.48943
G1 X131.09 Y159.90 E153.50367
G1 X130.92 Y160.00 E153.51368
G1 X130.86 Y160.07 E153.51839
G1 X130.84 Y160.15 E153.52216
G1 X130.84 Y165.68 E153.79825
G1 X129.66 Y165.68 E153.85702
G1 X128.74 Y165.18 E153.90915
G1 X127.43 Y164.27 E153.98880
G1 X127.11 Y164.05 E154.00814
G1 X127.11 Y163.92 E154.01462
G1 X126.45 Y163.92 E154.04760
G1 X126.45 Y140.92 E155.19507
G0 F12000 X126.85 Y141.32
G1 F2700 X127.51 Y141.32 E155.22805
G1 X127.51 Y141.16 E155.23598
G1 X128.95 Y140.16 E155.32334
G1 X129.76 Y139.72 E155.36940
G1 X130.44 Y139.72 E155.40308
G1 X130.44 Y144.90 E155.66161
G1 X130.49 Y145.11 E155.67257
G1 X130.65 Y145.30 E155.68476
G1 X130.92 Y145.47 E155.70066
G1 X131.28 Y145.58 E155.71965
G1 X131.69 Y145.62 E155.74010
G1 X132.10 Y145.58 E155.76055
G1 X132.46 Y145.47 E155.77953
G1 X132.73 Y145.30 E155.79544
G1 X132.89 Y145.11 E155.80763
G1 X132.94 Y144.90 E155.81859
G1 X132.94 Y139.72 E156.07712
G1 X133.62 Y139.72 E156.11080
G1 X134.43 Y140.16 E156.15680
G1 X135.72 Y141.06 E156.23536
G1 X135.87 Y141.16 E156.24425
G1 X135.87 Y142.04 E156.28830
G1 X134.90 Y142.72 E156.34721
G1 X134.89 Y162.28 E157.32356
G1 X135.74 Y162.87 E157.37477
G1 X135.87 Y162.96 E157.38249
G1 X135.87 Y163.84 E157.42664
G1 X134.43 Y164.84 E157.51400
G1 X133.62 Y165.28 E157.56006
G1 X132.94 Y165.28 E157.59374
G1 X132.94 Y160.10 E157.85227
G1 X132.89 Y159.89 E157.86323
G1 X132.73 Y159.70 E157.87542
G1 X132.46 Y159.53 E157.89132
G1 X132.10 Y159.42 E157.91031
G1 X131.69 Y159.38 E157.93076
G1 X131.28 Y159.42 E157.95121
G1 X130.92 Y159.53 E157.97019
G1 X130.65 Y159.70 E157.98610
G1 X130.49 Y159.89 E157.99829
G1 X130.44 Y160.10 E158.00925
G1 X130.44 Y165.28 E158.26778
G1 X129.76 Y165.28 E158.30146
G1 X128.96 Y164.84 E158.34746
G1 X127.66 Y163.94 E158.42602
G1 X127.51 Y163.84 E158.43491
G1 X127.51 Y163.52 E158.45097
G1 X126.85 Y163.52 E158.48395
G1 X126.85 Y141.32 E159.59151
G0 F12000 X138.45 Y138.92
G1 F2700 X140.41 Y138.92 E159.68910
G1 X141.56 Y138.12 E159.75912
G1 X142.31 Y137.71 E159.80159
G1 X143.02 Y137.32 E159.84194
G1 X148.11 Y137.32 E160.09588
G1 X149.56 Y138.12 E160.17870
G1 X150.12 Y138.50 E160.21273
G1 X150.97 Y139.09 E160.26386
G1 X152.14 Y139.91 E160.33536
G1 X152.14 Y143.30 E160.50454
G1 X151.17 Y143.97 E160.56350
G1 X151.17 Y145.28 E160.62865
G1 X151.17 Y158.93 E161.30985
G1 X151.17 Y161.03 E161.41427
G1 X152.14 Y161.69 E161.47297
G1 X152.14 Y165.10 E161.64305
G1 X149.56 Y166.88 E161.79935
G1 X148.82 Y167.29 E161.84189
G1 X148.82 Y167.29 E161.84194
G1 X148.11 Y167.68 E161.88224
G1 X143.02 Y167.68 E162.13623
G1 X141.56 Y166.88 E162.21903
G1 X141.00 Y166.50 E162.25299
G1 X140.17 Y165.92 E162.30359
G1 X138.45 Y165.92 E162.38930
G1 X138.45 Y138.92 E163.73633
G0 F12000 X138.85 Y139.32
G1 F2700 X140.53 Y139.32 E163.82020
G1 X141.77 Y138.46 E163.89543
G1 X142.50 Y138.06 E163.93689
G1 X143.12 Y137.72 E163.97211
G1 X148.00 Y137.72 E164.21577
G1 X149.35 Y138.46 E164.29249
G1 X149.90 Y138.83 E164.32548
G1 X150.74 Y139.42 E164.37654
G1 X151.74 Y140.12 E164.43761
G1 X151.74 Y143.09 E164.58594
G1 X150.77 Y143.76 E164.64485
G1 X150.77 Y145.28 E164.72043
G1 X150.77 Y158.93 E165.40164
G1 X150.77 Y161.24 E165.51653
G1 X151.74 Y161.90 E165.57526
G1 X151.74 Y164.89 E165.72438
G1 X149.35 Y166.54 E165.86917
G1 X148.62 Y166.94 E165.91070
G1 X148.01 Y167.28 E165.94587
G1 X143.12 Y167.28 E166.18958
G1 X141.78 Y166.54 E166.26621
G1 X141.23 Y166.17 E166.29921
G1 X140.39 Y165.58 E166.35026
G1 X140.30 Y165.52 E166.35592
G1 X138.85 Y165.52 E166.42801
G1 X138.85 Y139.32 E167.73513
G0 F12000 X139.25 Y139.72
G1 F2700 X140.66 Y139.72 E167.80528
G1 X141.99 Y138.80 E167.88574
G1 X142.69 Y138.41 E167.92611
G1 X143.22 Y138.12 E167.95626
G1 X147.90 Y138.12 E168.18969
G1 X149.14 Y138.80 E168.26023
G1 X149.67 Y139.16 E168.29218
G1 X150.51 Y139.75 E168.34321
G1 X151.34 Y140.33 E168.39382
G1 X151.34 Y142.88 E168.52129
G1 X150.37 Y143.55 E168.58021
G1 X150.37 Y161.45 E169.47284
G1 X150.52 Y161.55 E169.48231
G1 X150.52 Y161.56 E169.48236
G1 X151.34 Y162.11 E169.53165
G1 X151.34 Y164.68 E169.65972
G1 X149.14 Y166.20 E169.79303
G1 X148.43 Y166.59 E169.83355
G1 X147.90 Y166.88 E169.86359
G1 X143.22 Y166.88 E170.09702
G1 X141.99 Y166.20 E170.16756
G1 X141.46 Y165.84 E170.19947
G1 X140.62 Y165.25 E170.25050
G1 X140.42 Y165.12 E170.26243
G1 X139.25 Y165.12 E170.32080
G1 X139.25 Y139.72 E171.58801
G0 F12000 X139.65 Y140.12
G1 F2700 X140.78 Y140.12 E171.64439
G1 X142.19 Y139.14 E171.73005
G1 X142.89 Y138.76 E171.76946
G1 X143.33 Y138.52 E171.79447
G1 X145.51 Y138.52 E171.90353
G1 X145.51 Y144.41 E172.19758
G1 X145.56 Y144.42 E172.20020
G1 X145.62 Y144.41 E172.20281
G1 X145.62 Y138.52 E172.49686
G1 X147.80 Y138.52 E172.60577
G1 X148.93 Y139.14 E172.67019
G1 X149.44 Y139.49 E172.70113
G1 X150.28 Y140.07 E172.75205
G1 X150.94 Y140.53 E172.79224
G1 X150.94 Y142.67 E172.89885
G1 X149.97 Y143.34 E172.95777
G1 X149.97 Y161.66 E173.87136
G1 X150.29 Y161.88 E173.89083
G1 X150.94 Y162.32 E173.93017
G1 X150.94 Y164.47 E174.03728
G1 X148.93 Y165.86 E174.15910
G1 X148.24 Y166.24 E174.19839
G1 X147.80 Y166.48 E174.22352
G1 X145.62 Y166.48 E174.33253
G1 X145.62 Y160.59 E174.62658
G1 X145.56 Y160.58 E174.62919
G1 X145.51 Y160.59 E174.63180
G1 X145.51 Y166.48 E174.92585
G1 X143.33 Y166.48 E175.03481
G1 X142.20 Y165.86 E175.09921
G1 X141.69 Y165.51 E175.13013
G1 X140.85 Y164.93 E175.18104
G1 X140.55 Y164.72 E175.19924
G1 X139.65 Y164.72 E175.24394
G1 X139.65 Y140.12 E176.47124
G0 F12000 X140.05 Y140.52
G1 F2700 X140.91 Y140.52 E176.51395
G1 X142.41 Y139.48 E176.60477
G1 X143.08 Y139.11 E176.64316
G1 X143.43 Y138.92 E176.66305
G1 X145.11 Y138.92 E176.74702
G1 X145.11 Y144.73 E177.03678
G1 X145.13 Y144.74 E177.03788
G1 X145.31 Y144.79 E177.04750
G1 X145.56 Y144.82 E177.05998
G1 X145.81 Y144.79 E177.07241
G1 X146.00 Y144.74 E177.08204
G1 X146.02 Y144.72 E177.08320
G1 X146.02 Y138.92 E177.37291
G1 X147.70 Y138.92 E177.45673
G1 X148.72 Y139.48 E177.51501
G1 X150.05 Y140.40 E177.59576
G1 X150.54 Y140.74 E177.62553
G1 X150.54 Y142.46 E177.71129
G1 X149.57 Y143.13 E177.77020
G1 X149.57 Y161.87 E178.70475
G1 X150.06 Y162.21 E178.73476
G1 X150.54 Y162.53 E178.76359
G1 X150.54 Y164.26 E178.84970
G1 X148.72 Y165.52 E178.96002
G1 X148.05 Y165.89 E178.99849
G1 X148.05 Y165.89 E178.99854
G1 X147.70 Y166.08 E179.01840
G1 X146.02 Y166.08 E179.10231
G1 X146.02 Y160.28 E179.39203
G1 X146.00 Y160.26 E179.39319
G1 X145.81 Y160.21 E179.40281
G1 X145.56 Y160.18 E179.41524
G1 X145.31 Y160.21 E179.42772
G1 X145.13 Y160.26 E179.43735
G1 X145.11 Y160.27 E179.43844
G1 X145.11 Y166.08 E179.72821
G1 X143.43 Y166.08 E179.81212
G1 X142.41 Y165.52 E179.87035
G1 X141.08 Y164.60 E179.95107
G1 X140.68 Y164.32 E179.97553
G1 X140.05 Y164.32 E180.00657
G1 X140.05 Y140.52 E181.19395
G0 F12000 X140.45 Y140.92
G1 F2700 X141.03 Y140.92 E181.22294
G1 X142.62 Y139.82 E181.31900
G1 X143.53 Y139.32 E181.37116
G1 X144.71 Y139.32 E181.42998
G1 X144.71 Y144.85 E181.70607
G1 X144.73 Y144.93 E181.70983
G1 X144.79 Y145.00 E181.71448
G1 X144.96 Y145.10 E181.72445
G1 X145.24 Y145.19 E181.73903
G1 X145.56 Y145.22 E181.75532
G1 X145.89 Y145.19 E181.77156
G1 X146.17 Y145.10 E181.78614
G1 X146.34 Y145.00 E181.79618
G1 X146.40 Y144.92 E181.80086
G1 X146.42 Y144.85 E181.80456
G1 X146.42 Y139.32 E182.08065
G1 X147.59 Y139.32 E182.13942
G1 X148.51 Y139.82 E182.19156
G1 X149.82 Y140.73 E182.27120
G1 X150.14 Y140.95 E182.29054
G1 X150.14 Y142.25 E182.35545
G1 X149.27 Y142.85 E182.40809
G1 X149.17 Y142.92 E182.41433
G1 X149.17 Y162.07 E183.36978
G1 X149.84 Y162.54 E183.41062
G1 X150.14 Y162.75 E183.42868
G1 X150.14 Y164.05 E183.49378
G1 X148.51 Y165.18 E183.59264
G1 X147.85 Y165.54 E183.63004
G1 X147.59 Y165.68 E183.64480
G1 X146.42 Y165.68 E183.70362
G1 X146.42 Y160.15 E183.97971
G1 X146.40 Y160.08 E183.98341
G1 X146.34 Y160.00 E183.98809
G1 X146.17 Y159.90 E183.99813
G1 X145.89 Y159.81 E184.01271
G1 X145.56 Y159.78 E184.02895
G1 X145.24 Y159.81 E184.04524
G1 X144.96 Y159.90 E184.05982
G1 X144.79 Y160.00 E184.06979
G1 X144.73 Y160.07 E184.07443
G1 X144.71 Y160.15 E184.07820
G1 X144.71 Y165.68 E184.35429
G1 X143.53 Y165.68 E184.41311
G1 X142.62 Y165.18 E184.46520
G1 X141.31 Y164.27 E184.54485
G1 X140.99 Y164.05 E184.56418
G1 X140.99 Y163.92 E184.57067
G1 X140.45 Y163.92 E184.59736
G1 X140.45 Y140.92 E185.74484
G0 F12000 X140.85 Y141.32
G1 F2700 X141.39 Y141.32 E185.77153
G1 X141.39 Y141.16 E185.77946
G1 X142.83 Y140.16 E185.86681
G1 X143.64 Y139.72 E185.91283
G1 X144.31 Y139.72 E185.94656
G1 X144.31 Y144.90 E186.20509
G1 X144.37 Y145.11 E186.21605
G1 X144.52 Y145.30 E186.22824
G1 X144.79 Y145.47 E186.24415
G1 X145.16 Y145.58 E186.26313
G1 X145.56 Y145.62 E186.28358
G1 X145.97 Y145.58 E186.30398
G1 X146.33 Y145.47 E186.32297
G1 X146.60 Y145.30 E186.33881
G1 X146.76 Y145.11 E186.35117
G1 X146.82 Y144.90 E186.36204
G1 X146.82 Y139.72 E186.62057
G1 X147.49 Y139.72 E186.65425
G1 X148.30 Y140.16 E186.70024
G1 X149.59 Y141.06 E186.77881
G1 X149.74 Y141.16 E186.78769
G1 X149.74 Y142.04 E186.83175
G1 X148.77 Y142.72 E186.89069
G1 X148.77 Y162.28 E187.86699
G1 X149.61 Y162.87 E187.91819
G1 X149.74 Y162.96 E187.92591
G1 X149.74 Y163.84 E187.97007
G1 X148.30 Y164.84 E188.05742
G1 X147.49 Y165.28 E188.10348
G1 X146.82 Y165.28 E188.13716
G1 X146.82 Y160.10 E188.39569
G1 X146.76 Y159.89 E188.40656
G1 X146.60 Y159.70 E188.41892
G1 X146.33 Y159.53 E188.43476
G1 X145.97 Y159.42 E188.45374
G1 X145.56 Y159.38 E188.47415
G1 X145.16 Y159.42 E188.49460
G1 X144.79 Y159.53 E188.51358
G1 X144.52 Y159.70 E188.52949
G1 X144.37 Y159.89 E188.54168
G1 X144.31 Y160.10 E188.55264
G1 X144.31 Y165.28 E188.81117
G1 X143.64 Y165.28 E188.84490
G1 X142.83 Y164.84 E188.89085
G1 X141.53 Y163.94 E188.96942
G1 X141.39 Y163.84 E188.97830
G1 X141.39 Y163.52 E188.99437
G1 X140.85 Y163.52 E189.02106
G1 X140.85 Y141.32 E190.12862
G0 F12000 X152.25 Y138.92
G1 F2700 X154.28 Y138.92 E190.22985
G1 X155.44 Y138.12 E190.29987
G1 X156.18 Y137.71 E190.34241
G1 X156.18 Y137.71 E190.34246
G1 X156.89 Y137.32 E190.38277
G1 X161.98 Y137.32 E190.63676
G1 X163.44 Y138.12 E190.71955
G1 X164.00 Y138.50 E190.75351
G1 X164.84 Y139.09 E190.80465
G1 X166.01 Y139.91 E190.87615
G1 X166.01 Y143.30 E191.04528
G1 X165.04 Y143.97 E191.10419
G1 X165.04 Y145.28 E191.16940
G1 X165.04 Y158.93 E191.85060
G1 X165.04 Y161.03 E191.95507
G1 X166.01 Y161.69 E192.01370
G1 X166.01 Y165.10 E192.18377
G1 X163.44 Y166.88 E192.34003
G1 X162.69 Y167.29 E192.38250
G1 X161.98 Y167.68 E192.42285
G1 X156.89 Y167.68 E192.67679
G1 X155.44 Y166.88 E192.75961
G1 X154.88 Y166.50 E192.79364
G1 X154.04 Y165.92 E192.84423
G1 X152.25 Y165.92 E192.93354
G1 X152.25 Y138.92 E194.28057
G0 F12000 X152.65 Y139.32
G1 F2700 X154.41 Y139.32 E194.36798
G1 X155.65 Y138.46 E194.44328
G1 X156.38 Y138.06 E194.48481
G1 X156.99 Y137.72 E194.51998
G1 X161.88 Y137.72 E194.76369
G1 X163.22 Y138.46 E194.84033
G1 X163.77 Y138.83 E194.87332
G1 X164.61 Y139.42 E194.92437
G1 X165.61 Y140.12 E194.98545
G1 X165.61 Y143.09 E195.13372
G1 X164.64 Y143.76 E195.19260
G1 X164.64 Y145.28 E195.26823
G1 X164.64 Y158.93 E195.94943
G1 X164.64 Y161.24 E196.06438
G1 X165.61 Y161.90 E196.12304
G1 X165.61 Y164.89 E196.27216
G1 X163.23 Y166.54 E196.41691
G1 X162.50 Y166.94 E196.45838
G1 X161.88 Y167.28 E196.49359
G1 X157.00 Y167.28 E196.73726
G1 X155.65 Y166.54 E196.81398
G1 X155.10 Y166.17 E196.84697
G1 X154.26 Y165.58 E196.89802
G1 X154.17 Y165.52 E196.90368
G1 X152.65 Y165.52 E196.97937
G1 X152.65 Y139.32 E198.28649
G0 F12000 X153.05 Y139.72
G1 F2700 X154.53 Y139.72 E198.36023
G1 X155.86 Y138.80 E198.44069
G1 X156.57 Y138.41 E198.48121
G1 X157.10 Y138.12 E198.51125
G1 X161.78 Y138.12 E198.74468
G1 X163.01 Y138.80 E198.81522
G1 X163.54 Y139.16 E198.84713
G1 X164.38 Y139.75 E198.89816
G1 X165.21 Y140.33 E198.94877
G1 X165.21 Y142.88 E199.07619
G1 X164.24 Y143.55 E199.13507
G1 X164.24 Y161.45 E200.02780
G1 X164.40 Y161.56 E200.03727
G1 X165.21 Y162.11 E200.08652
G1 X165.21 Y164.68 E200.21458
G1 X163.01 Y166.20 E200.34790
G1 X162.31 Y166.59 E200.38827
G1 X161.78 Y166.88 E200.41841
G1 X157.10 Y166.88 E200.65185
G1 X155.86 Y166.20 E200.72239
G1 X155.33 Y165.84 E200.75434
G1 X154.49 Y165.25 E200.80536
G1 X154.29 Y165.12 E200.81729
G1 X153.05 Y165.12 E200.87926
G1 X153.05 Y139.72 E202.14647
G0 F12000 X153.45 Y140.12
G1 F2700 X154.66 Y140.12 E202.20649
G1 X156.07 Y139.14 E202.29215
G1 X156.76 Y138.76 E202.33145
G1 X157.20 Y138.52 E202.35657
G1 X159.38 Y138.52 E202.46558
G1 X159.38 Y144.41 E202.75963
G1 X159.44 Y144.42 E202.76225
G1 X159.49 Y144.41 E202.76486
G1 X159.49 Y138.52 E203.05891
G1 X161.67 Y138.52 E203.16787
G1 X162.80 Y139.14 E203.23227
G1 X163.31 Y139.49 E203.26318
G1 X164.15 Y140.07 E203.31410
G1 X164.81 Y140.53 E203.35429
G1 X164.81 Y142.67 E203.46086
G1 X163.84 Y143.34 E203.51973
G1 X163.84 Y161.66 E204.43342
G1 X164.16 Y161.88 E204.45282
G1 X164.81 Y162.32 E204.49216
G1 X164.81 Y164.47 E204.59927
G1 X162.81 Y165.86 E204.72105
G1 X162.11 Y166.24 E204.76046
G1 X161.67 Y166.48 E204.78547
G1 X159.49 Y166.48 E204.89453
G1 X159.49 Y160.59 E205.18858
G1 X159.44 Y160.58 E205.19119
G1 X159.38 Y160.59 E205.19380
G1 X159.38 Y166.48 E205.48785
G1 X157.20 Y166.48 E205.59676
G1 X156.07 Y165.86 E205.66118
G1 X155.56 Y165.51 E205.69212
G1 X154.72 Y164.93 E205.74304
G1 X154.42 Y164.72 E205.76124
G1 X153.45 Y164.72 E205.80953
G1 X153.45 Y140.12 E207.03683
G0 F12000 X153.85 Y140.52
G1 F2700 X154.78 Y140.52 E207.08313
G1 X156.28 Y139.48 E207.17398
G1 X156.95 Y139.11 E207.21246
G1 X156.95 Y139.11 E207.21251
G1 X157.30 Y138.92 E207.23236
G1 X158.98 Y138.92 E207.31627
G1 X158.98 Y144.72 E207.60599
G1 X159.00 Y144.74 E207.60715
G1 X159.19 Y144.79 E207.61678
G1 X159.44 Y144.82 E207.62921
G1 X159.69 Y144.79 E207.64169
G1 X159.87 Y144.74 E207.65131
G1 X159.89 Y144.73 E207.65241
G1 X159.89 Y138.92 E207.94217
G1 X161.57 Y138.92 E208.02608
G1 X162.59 Y139.48 E208.08432
G1 X163.92 Y140.40 E208.16503
G1 X164.41 Y140.74 E208.19480
G1 X164.41 Y142.46 E208.28056
G1 X163.44 Y143.13 E208.33940
G1 X163.44 Y161.87 E209.27395
G1 X163.94 Y162.21 E209.30395
G1 X164.41 Y162.53 E209.33277
G1 X164.41 Y164.26 E209.41888
G1 X162.59 Y165.52 E209.52918
G1 X161.92 Y165.89 E209.56757
G1 X161.57 Y166.08 E209.58746
G1 X159.89 Y166.08 E209.67143
G1 X159.89 Y160.27 E209.96119
G1 X159.87 Y160.26 E209.96229
G1 X159.69 Y160.21 E209.97191
G1 X159.44 Y160.18 E209.98439
G1 X159.19 Y160.21 E209.99682
G1 X159.00 Y160.26 E210.00645
G1 X158.98 Y160.28 E210.00761
G1 X158.98 Y166.08 E210.29732
G1 X157.30 Y166.08 E210.38114
G1 X156.28 Y165.52 E210.43941
G1 X154.95 Y164.60 E210.52017
G1 X154.55 Y164.32 E210.54464
G1 X153.85 Y164.32 E210.57926
G1 X153.85 Y140.52 E211.76665
G0 F12000 X154.25 Y140.92
G1 F2700 X154.91 Y140.92 E211.79922
G1 X156.49 Y139.82 E211.89528
G1 X157.15 Y139.46 E211.93268
G1 X157.41 Y139.32 E211.94744
G1 X158.58 Y139.32 E212.00626
G1 X158.58 Y144.85 E212.28236
G1 X158.60 Y144.92 E212.28606
G1 X158.66 Y145.00 E212.29073
G1 X158.83 Y145.10 E212.30077
G1 X159.11 Y145.19 E212.31535
G1 X159.44 Y145.22 E212.33159
G1 X159.76 Y145.19 E212.34789
G1 X160.04 Y145.10 E212.36247
G1 X160.21 Y145.00 E212.37244
G1 X160.27 Y144.93 E212.37708
G1 X160.29 Y144.85 E212.38084
G1 X160.29 Y139.32 E212.65694
G1 X161.47 Y139.32 E212.71576
G1 X162.38 Y139.82 E212.76785
G1 X163.69 Y140.73 E212.84749
G1 X164.01 Y140.95 E212.86683
G1 X164.01 Y142.25 E212.93169
G1 X163.15 Y142.85 E212.98425
G1 X163.04 Y142.92 E212.99056
G1 X163.04 Y162.07 E213.94601
G1 X163.71 Y162.54 E213.98680
G1 X164.01 Y162.75 E214.00486
G1 X164.01 Y164.05 E214.06997
G1 X162.38 Y165.18 E214.16882
G1 X161.47 Y165.68 E214.22098
G1 X160.29 Y165.68 E214.27980
G1 X160.29 Y160.15 E214.55590
G1 X160.27 Y160.07 E214.55966
G1 X160.21 Y160.00 E214.56430
G1 X160.04 Y159.90 E214.57427
G1 X159.76 Y159.81 E214.58885
G1 X159.44 Y159.78 E214.60515
G1 X159.11 Y159.81 E214.62139
G1 X158.83 Y159.90 E214.63597
G1 X158.66 Y160.00 E214.64601
G1 X158.60 Y160.08 E214.65068
G1 X158.58 Y160.15 E214.65438
G1 X158.58 Y165.68 E214.93048
G1 X157.41 Y165.68 E214.98925
G1 X156.49 Y165.18 E215.04138
G1 X155.18 Y164.27 E215.12103
G1 X154.86 Y164.05 E215.14036
G1 X154.86 Y163.92 E215.14685
G1 X154.25 Y163.92 E215.17713
G1 X154.25 Y140.92 E216.32461
G0 F12000 X154.65 Y141.32
G1 F2700 X155.26 Y141.32 E216.35489
G1 X155.26 Y141.16 E216.36282
G1 X156.70 Y140.16 E216.45018
G1 X157.51 Y139.72 E216.49624
G1 X158.18 Y139.72 E216.52992
G1 X158.18 Y144.90 E216.78845
G1 X158.24 Y145.11 E216.79931
G1 X158.40 Y145.30 E216.81168
G1 X158.67 Y145.47 E216.82752
G1 X159.03 Y145.58 E216.84650
G1 X159.44 Y145.62 E216.86690
G1 X159.84 Y145.58 E216.88736
G1 X160.21 Y145.47 E216.90634
G1 X160.48 Y145.30 E216.92225
G1 X160.63 Y145.11 E216.93443
G1 X160.69 Y144.90 E216.94540
G1 X160.69 Y139.72 E217.20393
G1 X161.36 Y139.72 E217.23765
G1 X162.17 Y140.16 E217.28361
G1 X163.47 Y141.06 E217.36217
G1 X163.61 Y141.16 E217.37106
G1 X163.61 Y142.04 E217.41511
G1 X162.64 Y142.72 E217.47398
G1 X162.64 Y162.28 E218.45033
G1 X163.48 Y162.87 E218.50150
G1 X163.61 Y162.96 E218.50922
G1 X163.61 Y163.84 E218.55337
G1 X162.17 Y164.84 E218.64072
G1 X161.36 Y165.28 E218.68674
G1 X160.69 Y165.28 E218.72047
G1 X160.69 Y160.10 E218.97900
G1 X160.63 Y159.89 E218.98996
G1 X160.48 Y159.70 E219.00215
G1 X160.21 Y159.53 E219.01806
G1 X159.84 Y159.42 E219.03704
G1 X159.44 Y159.38 E219.05749
G1 X159.03 Y159.42 E219.07790
G1 X158.67 Y159.53 E219.09688
G1 X158.40 Y159.70 E219.11272
G1 X158.24 Y159.89 E219.12509
G1 X158.18 Y160.10 E219.13595
G1 X158.18 Y165.28 E219.39448
G1 X157.51 Y165.28 E219.42816
G1 X156.70 Y164.84 E219.47416
G1 X155.41 Y163.94 E219.55272
G1 X155.26 Y163.84 E219.56161
G1 X155.26 Y163.52 E219.57767
G1 X154.65 Y163.52 E219.60795
G1 X154.65 Y141.32 E220.71552
G0 F12000 X166.05 Y138.92
G1 F2700 X168.16 Y138.92 E220.82039
G1 X169.31 Y138.12 E220.89041
G1 X170.06 Y137.71 E220.93299
G1 X170.77 Y137.32 E220.97349
G1 X175.85 Y137.32 E221.22714
G1 X177.31 Y138.12 E221.30995
G1 X177.87 Y138.50 E221.34398
G1 X178.71 Y139.09 E221.39512
G1 X179.89 Y139.91 E221.46662
G1 X179.89 Y143.30 E221.63574
G1 X178.91 Y143.97 E221.69473
G1 X178.91 Y145.28 E221.75988
G1 X178.91 Y158.93 E222.44108
G1 X178.91 Y161.03 E222.54550
G1 X179.89 Y161.69 E222.60420
G1 X179.89 Y165.10 E222.77428
G1 X177.31 Y166.88 E222.93054
G1 X176.56 Y167.29 E222.97312
G1 X175.85 Y167.68 E223.01362
G1 X170.77 Y167.68 E223.26726
G1 X169.31 Y166.88 E223.35008
G1 X168.75 Y166.50 E223.38411
G1 X167.92 Y165.92 E223.43470
G1 X166.05 Y165.92 E223.52770
G1 X166.05 Y138.92 E224.87473
G0 F12000 X166.45 Y139.32
G1 F2700 X168.28 Y139.32 E224.96588
G1 X169.52 Y138.46 E225.04111
G1 X170.25 Y138.06 E225.08265
G1 X170.87 Y137.72 E225.11801
G1 X175.75 Y137.72 E225.36143
G1 X177.10 Y138.46 E225.43815
G1 X177.64 Y138.83 E225.47114
G1 X178.48 Y139.42 E225.52219
G1 X179.49 Y140.12 E225.58327
G1 X179.49 Y143.09 E225.73154
G1 X178.51 Y143.76 E225.79046
G1 X178.51 Y145.28 E225.86609
G1 X178.51 Y158.93 E226.54729
G1 X178.51 Y161.24 E226.66219
G1 X179.49 Y161.90 E226.72092
G1 X179.49 Y164.89 E226.87004
G1 X177.10 Y166.54 E227.01480
G1 X176.37 Y166.94 E227.05633
G1 X175.75 Y167.28 E227.09169
G1 X170.87 Y167.28 E227.33511
G1 X169.52 Y166.54 E227.41183
G1 X168.98 Y166.17 E227.44482
G1 X168.14 Y165.58 E227.49587
G1 X168.04 Y165.52 E227.50153
G1 X166.45 Y165.52 E227.58091
G1 X166.45 Y139.32 E228.88803
G0 F12000 X166.85 Y139.72
G1 F2700 X168.41 Y139.72 E228.96546
G1 X169.73 Y138.80 E229.04592
G1 X170.44 Y138.41 E229.08640
G1 X170.97 Y138.12 E229.11661
G1 X175.65 Y138.12 E229.34985
G1 X176.89 Y138.80 E229.42039
G1 X177.41 Y139.16 E229.45234
G1 X178.25 Y139.75 E229.50336
G1 X179.09 Y140.33 E229.55398
G1 X179.09 Y142.88 E229.68140
G1 X178.12 Y143.55 E229.74034
G1 X178.11 Y161.45 E230.63298
G1 X178.27 Y161.55 E230.64244
G1 X178.27 Y161.56 E230.64249
G1 X179.09 Y162.11 E230.69178
G1 X179.09 Y164.68 E230.81985
G1 X176.89 Y166.20 E230.95316
G1 X176.18 Y166.59 E230.99365
G1 X175.65 Y166.88 E231.02386
G1 X170.97 Y166.88 E231.25709
G1 X169.73 Y166.20 E231.32763
G1 X169.21 Y165.84 E231.35958
G1 X168.37 Y165.25 E231.41061
G1 X168.17 Y165.12 E231.42254
G1 X166.85 Y165.12 E231.48819
G1 X166.85 Y139.72 E232.75540
G0 F12000 X167.25 Y140.12
G1 F2700 X168.53 Y140.12 E232.81906
G1 X169.94 Y139.14 E232.90473
G1 X170.63 Y138.76 E232.94418
G1 X171.08 Y138.52 E232.96932
G1 X173.26 Y138.52 E233.07818
G1 X173.26 Y144.41 E233.37224
G1 X173.31 Y144.42 E233.37485
G1 X173.36 Y144.41 E233.37746
G1 X173.36 Y138.52 E233.67151
G1 X175.54 Y138.52 E233.78042
G1 X176.68 Y139.14 E233.84484
G1 X177.19 Y139.49 E233.87578
G1 X178.03 Y140.07 E233.92670
G1 X178.69 Y140.53 E233.96689
G1 X178.69 Y142.67 E234.07346
G1 X177.72 Y143.34 E234.13240
G1 X177.71 Y161.66 E235.04599
G1 X178.03 Y161.88 E235.06546
G1 X178.69 Y162.32 E235.10480
G1 X178.69 Y164.47 E235.21191
G1 X176.68 Y165.86 E235.33368
G1 X175.99 Y166.24 E235.37314
G1 X175.54 Y166.48 E235.39828
G1 X173.36 Y166.48 E235.50714
G1 X173.36 Y160.59 E235.80119
G1 X173.31 Y160.58 E235.80380
G1 X173.26 Y160.59 E235.80642
G1 X173.26 Y166.48 E236.10047
G1 X171.07 Y166.48 E236.20938
G1 X169.94 Y165.86 E236.27379
G1 X169.43 Y165.51 E236.30474
G1 X168.59 Y164.93 E236.35565
G1 X168.29 Y164.72 E236.37385
G1 X167.25 Y164.72 E236.42584
G1 X167.25 Y140.12 E237.65314
G0 F12000 X167.65 Y140.52
G1 F2700 X168.66 Y140.52 E237.70313
G1 X170.15 Y139.48 E237.79395
G1 X170.83 Y139.11 E237.83241
G1 X171.18 Y138.92 E237.85237
G1 X172.86 Y138.92 E237.93618
G1 X172.86 Y144.73 E238.22594
G1 X172.88 Y144.74 E238.22704
G1 X173.06 Y144.79 E238.23666
G1 X173.31 Y144.82 E238.24914
G1 X173.56 Y144.79 E238.26152
G1 X173.74 Y144.74 E238.27120
G1 X173.76 Y144.72 E238.27236
G1 X173.76 Y138.92 E238.56207
G1 X175.44 Y138.92 E238.64589
G1 X176.47 Y139.48 E238.70416
G1 X177.80 Y140.40 E238.78492
G1 X178.29 Y140.74 E238.81469
G1 X178.29 Y142.46 E238.90045
G1 X177.31 Y143.13 E238.95936
G1 X177.31 Y161.87 E239.89390
G1 X177.81 Y162.21 E239.92392
G1 X178.29 Y162.53 E239.95275
G1 X178.29 Y164.26 E240.03886
G1 X176.47 Y165.52 E240.14915
G1 X175.79 Y165.89 E240.18761
G1 X175.44 Y166.08 E240.20757
G1 X173.76 Y166.08 E240.29138
G1 X173.76 Y160.28 E240.58109
G1 X173.74 Y160.26 E240.58226
G1 X173.56 Y160.21 E240.59193
G1 X173.31 Y160.18 E240.60431
G1 X173.06 Y160.21 E240.61679
G1 X172.88 Y160.26 E240.62642
G1 X172.86 Y160.27 E240.62751
G1 X172.86 Y166.08 E240.91727
G1 X171.18 Y166.08 E241.00109
G1 X170.15 Y165.52 E241.05937
G1 X168.82 Y164.60 E241.14012
G1 X168.42 Y164.32 E241.16459
G1 X167.65 Y164.32 E241.20290
G1 X167.65 Y140.52 E242.39029
G0 F12000 X168.05 Y140.92
G1 F2700 X168.78 Y140.92 E242.42656
G1 X170.36 Y139.82 E242.52262
G1 X171.02 Y139.46 E242.55997
G1 X171.28 Y139.32 E242.57482
G1 X172.46 Y139.32 E242.63359
G1 X172.46 Y144.85 E242.90968
G1 X172.48 Y144.93 E242.91345
G1 X172.54 Y145.00 E242.91809
G1 X172.71 Y145.10 E242.92806
G1 X172.99 Y145.19 E242.94264
G1 X173.31 Y145.22 E242.95893
G1 X173.64 Y145.19 E242.97547
G1 X173.91 Y145.10 E242.98971
G1 X174.08 Y145.00 E242.99972
G1 X174.14 Y144.93 E243.00443
G1 X174.16 Y144.85 E243.00820
G1 X174.16 Y139.32 E243.28429
G1 X175.34 Y139.32 E243.34306
G1 X176.26 Y139.82 E243.39519
G1 X177.57 Y140.73 E243.47484
G1 X177.89 Y140.95 E243.49417
G1 X177.89 Y142.25 E243.55903
G1 X176.91 Y142.93 E243.61797
G1 X176.91 Y162.07 E244.57337
G1 X177.59 Y162.54 E244.61421
G1 X177.89 Y162.75 E244.63227
G1 X177.89 Y164.05 E244.69738
G1 X176.26 Y165.18 E244.79623
G1 X175.60 Y165.54 E244.83359
G1 X175.34 Y165.68 E244.84843
G1 X174.16 Y165.68 E244.90720
G1 X174.16 Y160.15 E245.18330
G1 X174.14 Y160.07 E245.18706
G1 X174.08 Y160.00 E245.19177
G1 X173.91 Y159.90 E245.20178
G1 X173.64 Y159.81 E245.21602
G1 X173.31 Y159.78 E245.23256
G1 X172.99 Y159.81 E245.24885
G1 X172.71 Y159.90 E245.26343
G1 X172.54 Y160.00 E245.27340
G1 X172.48 Y160.07 E245.27804
G1 X172.46 Y160.15 E245.28181
G1 X172.46 Y165.68 E245.55790
G1 X171.28 Y165.68 E245.61667
G1 X170.36 Y165.18 E245.66881
G1 X169.05 Y164.27 E245.74845
G1 X168.73 Y164.05 E245.76779
G1 X168.73 Y163.92 E245.77427
G1 X168.05 Y163.92 E245.80825
G1 X168.05 Y140.92 E246.95572
G0 F12000 X168.45 Y141.32
G1 F2700 X169.13 Y141.32 E246.98970
G1 X169.13 Y141.16 E246.99763
G1 X170.57 Y140.16 E247.08498
G1 X171.38 Y139.72 E247.13105
G1 X172.06 Y139.72 E247.16472
G1 X172.06 Y144.90 E247.42325
G1 X172.11 Y145.11 E247.43422
G1 X172.27 Y145.30 E247.44640
G1 X172.54 Y145.47 E247.46231
G1 X172.90 Y145.58 E247.48129
G1 X173.31 Y145.62 E247.50175
G1 X173.72 Y145.58 E247.52220
G1 X174.08 Y145.47 E247.54118
G1 X174.35 Y145.30 E247.55709
G1 X174.51 Y145.11 E247.56928
G1 X174.56 Y144.90 E247.58024
G1 X174.56 Y139.72 E247.83877
G1 X175.24 Y139.72 E247.87245
G1 X176.04 Y140.16 E247.91844
G1 X177.34 Y141.06 E247.99701
G1 X177.49 Y141.16 E248.00589
G1 X177.49 Y142.04 E248.04995
G1 X176.51 Y142.72 E248.10886
G1 X176.51 Y162.28 E249.08521
G1 X177.36 Y162.87 E249.13642
G1 X177.49 Y162.96 E249.14414
G1 X177.49 Y163.84 E249.18829
G1 X176.05 Y164.84 E249.27564
G1 X175.24 Y165.28 E249.32171
G1 X174.56 Y165.28 E249.35538
G1 X174.56 Y160.10 E249.61391
G1 X174.51 Y159.89 E249.62488
G1 X174.35 Y159.70 E249.63706
G1 X174.08 Y159.53 E249.65297
G1 X173.72 Y159.42 E249.67195
G1 X173.31 Y159.38 E249.69241
G1 X172.90 Y159.42 E249.71286
G1 X172.54 Y159.53 E249.73184
G1 X172.27 Y159.70 E249.74775
G1 X172.11 Y159.89 E249.75994
G1 X172.06 Y160.10 E249.77090
G1 X172.06 Y165.28 E250.02943
G1 X171.38 Y165.28 E250.06311
G1 X170.57 Y164.84 E250.10910
G1 X169.28 Y163.94 E250.18767
G1 X169.13 Y163.84 E250.19655
G1 X169.13 Y163.52 E250.21262
G1 X168.45 Y163.52 E250.24659
G1 X168.45 Y141.32 E251.35416
G1 F2400 E250.15416
G0 F12000 X135.07 Y141.58
;TYPE:WALL-INNER
G1 F2400 E251.35416
G1 F2700 X135.07 Y141.62 E251.35645
G1 X134.09 Y142.30 E251.41539
G1 X134.09 Y162.70 E252.43345
G1 X135.07 Y163.38 E252.49243
G1 X135.07 Y163.42 E252.49473
G1 X134.01 Y164.15 E252.55876
G1 X133.74 Y164.30 E252.57408
G1 X133.74 Y160.00 E252.78881
G1 X133.62 Y159.52 E252.81348
G1 X133.26 Y159.09 E252.84127
G1 X132.80 Y158.80 E252.86881
G1 X132.26 Y158.63 E252.89688
G1 X131.69 Y158.57 E252.92540
G1 X131.12 Y158.63 E252.95398
G1 X130.59 Y158.80 E252.98195
G1 X130.12 Y159.09 E253.00953
G1 X129.76 Y159.52 E253.03732
G1 X129.64 Y160.00 E253.06199
G1 X129.64 Y164.30 E253.27672
G1 X129.38 Y164.16 E253.29159
G1 X128.31 Y163.42 E253.35607
G1 X128.31 Y163.38 E253.35836
G1 X129.28 Y162.70 E253.41730
G1 X129.29 Y142.30 E254.43536
G1 X128.31 Y141.62 E254.49435
G1 X128.31 Y141.58 E254.49664
G1 X129.37 Y140.85 E254.56067
G1 X129.64 Y140.70 E254.57599
G1 X129.64 Y145.00 E254.79072
G1 X129.76 Y145.48 E254.81539
G1 X130.12 Y145.91 E254.84318
G1 X130.59 Y146.20 E254.87076
G1 X131.12 Y146.37 E254.89874
G1 X131.69 Y146.43 E254.92731
G1 X132.26 Y146.37 E254.95583
G1 X132.80 Y146.20 E254.98391
G1 X133.26 Y145.91 E255.01144
G1 X133.62 Y145.48 E255.03923
G1 X133.74 Y145.00 E255.06390
G1 X133.74 Y140.70 E255.27863
G1 X134.00 Y140.84 E255.29350
G1 X135.07 Y141.58 E255.35798
G0 F12000 X135.47 Y141.37
;TYPE:WALL-OUTER
G1 F2700 X135.47 Y141.83 E255.38118
G1 X134.50 Y142.51 E255.44009
G1 X134.49 Y162.49 E256.43730
G1 X135.47 Y163.17 E256.49628
G1 X135.47 Y163.63 E256.51948
G1 X134.22 Y164.50 E256.59538
G1 X133.51 Y164.88 E256.63522
G1 X133.34 Y164.88 E256.64385
G1 X133.34 Y160.05 E256.88502
G1 X133.25 Y159.70 E256.90278
G1 X133.00 Y159.39 E256.92284
G1 X132.63 Y159.16 E256.94455
G1 X132.18 Y159.02 E256.96803
G1 X131.69 Y158.97 E256.99254
G1 X131.20 Y159.02 E257.01705
G1 X130.75 Y159.16 E257.04049
G1 X130.38 Y159.39 E257.06224
G1 X130.13 Y159.70 E257.08229
G1 X130.04 Y160.05 E257.10006
G1 X130.04 Y164.88 E257.34123
G1 X129.86 Y164.88 E257.34991
G1 X129.17 Y164.50 E257.38925
G1 X127.91 Y163.63 E257.46563
G1 X127.91 Y163.17 E257.48883
G1 X128.88 Y162.49 E257.54774
G1 X128.89 Y142.51 E258.54495
G1 X127.91 Y141.83 E258.60393
G1 X127.91 Y141.37 E258.62713
G1 X129.16 Y140.50 E258.70304
G1 X129.87 Y140.12 E258.74287
G1 X130.04 Y140.12 E258.75150
G1 X130.04 Y144.95 E258.99267
G1 X130.13 Y145.30 E259.01043
G1 X130.38 Y145.61 E259.03049
G1 X130.75 Y145.84 E259.05224
G1 X131.20 Y145.98 E259.07567
G1 X131.69 Y146.03 E259.10019
G1 X132.18 Y145.98 E259.12470
G1 X132.63 Y145.84 E259.14818
G1 X133.00 Y145.61 E259.16989
G1 X133.25 Y145.30 E259.18995
G1 X133.34 Y144.95 E259.20771
G1 X133.34 Y140.12 E259.44888
G1 X133.52 Y140.12 E259.45756
G1 X134.21 Y140.50 E259.49684
G1 X135.47 Y141.37 E259.57328
G0 F12000 X134.66 Y141.73
;TYPE:FILL
G1 F2700 X133.92 Y140.99 E259.62578
G0 F12000 X133.88 Y141.52
G1 F2700 X134.16 Y142.08 E259.65719
G1 X133.88 Y142.08 E259.67111
G0 F12000 X133.79 Y145.38
G1 F2700 X133.77 Y145.65 E259.68290
G1 X133.96 Y146.12 E259.70807
G0 F12000 X133.96 Y146.68
G1 F2700 X133.32 Y146.04 E259.75312
G0 F12000 X132.97 Y146.26
G1 F2700 X133.96 Y147.25 E259.82283
G0 F12000 X133.96 Y147.81
G1 F2700 X132.56 Y146.42 E259.92104
G0 F12000 X132.10 Y146.53
G1 F2700 X133.96 Y148.38 E260.05181
G0 F12000 X133.96 Y148.94
G1 F2700 X131.56 Y146.55 E260.22055
G0 F12000 X130.89 Y146.44
G1 F2700 X133.96 Y149.51 E260.43694
G0 F12000 X133.96 Y150.08
G1 F2700 X129.43 Y145.55 E260.75656
G0 F12000 X129.43 Y146.11
G1 F2700 X133.96 Y150.64 E261.07614
G0 F12000 X133.96 Y151.21
G1 F2700 X129.43 Y146.68 E261.39575
G0 F12000 X129.43 Y147.24
G1 F2700 X133.96 Y151.77 E261.71537
G0 F12000 X133.96 Y152.34
G1 F2700 X129.43 Y147.81 E262.03495
G0 F12000 X129.43 Y148.38
G1 F2700 X133.96 Y152.91 E262.35457
G0 F12000 X133.96 Y153.47
G1 F2700 X129.43 Y148.94 E262.67418
G0 F12000 X129.43 Y149.51
G1 F2700 X133.96 Y154.04 E262.99376
G0 F12000 X133.96 Y154.60
G1 F2700 X129.43 Y150.07 E263.31338
G0 F12000 X129.43 Y150.64
G1 F2700 X133.96 Y155.17 E263.63299
G0 F12000 X133.96 Y155.73
G1 F2700 X129.43 Y151.20 E263.95258
G0 F12000 X129.43 Y151.77
G1 F2700 X133.96 Y156.30 E264.27219
G0 F12000 X133.96 Y156.87
G1 F2700 X129.43 Y152.34 E264.59181
G0 F12000 X129.42 Y152.90
G1 F2700 X133.96 Y157.43 E264.91146
G0 F12000 X133.96 Y158.00
G1 F2700 X129.42 Y153.47 E265.23111
G0 F12000 X129.42 Y154.03
G1 F2700 X133.96 Y158.56 E265.55080
G0 F12000 X133.96 Y159.13
G1 F2700 X129.42 Y154.60 E265.87048
G0 F12000 X129.42 Y155.16
G1 F2700 X133.05 Y158.79 E266.12639
G0 F12000 X132.18 Y158.48
G1 F2700 X129.42 Y155.73 E266.32052
G0 F12000 X129.42 Y156.29
G1 F2700 X131.57 Y158.44 E266.47214
G0 F12000 X131.06 Y158.50
G1 F2700 X129.42 Y156.86 E266.58778
G0 F12000 X129.42 Y157.43
G1 F2700 X130.63 Y158.63 E266.67298
G0 F12000 X130.26 Y158.83
G1 F2700 X129.42 Y157.99 E266.73218
G0 F12000 X129.42 Y158.56
G1 F2700 X129.81 Y159.23 E266.76865
G1 X129.42 Y159.41 E266.78710
G1 X129.54 Y159.81 E266.80796
G0 F12000 X129.24 Y162.90
G1 F2700 X129.50 Y163.16 E266.82588
G0 F12000 X129.50 Y163.72
G1 F2700 X128.91 Y163.13 E266.86743
G0 F12000 X128.57 Y163.36
G1 F2700 X128.79 Y163.58 E266.88264
G0 F12000 X129.64 Y163.58
G0 X129.77 Y159.52
G0 X131.12 Y158.63
G0 X132.79 Y158.80
G0 X133.61 Y159.52
G0 X133.88 Y163.58
G1 F2700 X134.17 Y163.87 E266.90310
G0 F12000 X134.50 Y163.64
G1 F2700 X133.88 Y163.01 E266.94709
G0 F12000 X133.96 Y159.69
G1 F2700 X133.76 Y159.50 E266.96096
G0 F12000 X129.64 Y145.00
G0 X129.48 Y142.20
G1 F2700 X128.73 Y141.46 E267.01352
G0 F12000 X128.87 Y141.84
G1 F2700 X129.50 Y141.21 E267.05783
G0 F12000 X129.50 Y141.09
G1 F2700 X129.24 Y141.10 E267.06480
G1 X129.50 Y141.64 E267.09362
G1 X129.06 Y141.23 E267.12344
G1 F2400 E265.92344
G0 F12000 X142.19 Y141.58
;TYPE:WALL-INNER
G1 F2400 E267.12344
G1 F2700 X143.24 Y140.85 E267.18748
G1 X143.51 Y140.70 E267.20279
G1 X143.51 Y145.00 E267.41752
G1 X143.63 Y145.48 E267.44219
G1 X143.99 Y145.91 E267.46998
G1 X144.46 Y146.20 E267.49752
G1 X145.00 Y146.37 E267.52559
G1 X145.56 Y146.43 E267.55411
G1 X146.13 Y146.37 E267.58259
G1 X146.67 Y146.20 E267.61066
G1 X147.14 Y145.91 E267.63820
G1 X147.49 Y145.48 E267.66598
G1 X147.62 Y145.00 E267.69070
G1 X147.62 Y140.70 E267.90543
G1 X147.88 Y140.84 E267.92030
G1 X148.94 Y141.58 E267.98477
G1 X148.94 Y141.62 E267.98702
G1 X147.97 Y142.30 E268.04602
G1 X147.97 Y162.70 E269.06403
G1 X148.94 Y163.38 E269.12301
G1 X148.94 Y163.42 E269.12530
G1 X147.88 Y164.15 E269.18934
G1 X147.62 Y164.30 E269.20463
G1 X147.62 Y160.00 E269.41931
G1 X147.49 Y159.52 E269.44403
G1 X147.14 Y159.09 E269.47181
G1 X146.67 Y158.80 E269.49935
G1 X146.13 Y158.63 E269.52742
G1 X145.56 Y158.57 E269.55589
G1 X145.00 Y158.63 E269.58442
G1 X144.46 Y158.80 E269.61249
G1 X143.99 Y159.09 E269.64003
G1 X143.63 Y159.52 E269.66781
G1 X143.51 Y160.00 E269.69249
G1 X143.51 Y164.30 E269.90722
G1 X143.25 Y164.16 E269.92209
G1 X142.19 Y163.42 E269.98656
G1 X142.19 Y163.38 E269.98886
G1 X143.16 Y162.70 E270.04779
G1 X143.16 Y142.30 E271.06580
G1 X142.19 Y141.62 E271.12474
G1 X142.19 Y141.58 E271.12703
G0 F12000 X141.79 Y141.37
;TYPE:WALL-OUTER
G1 F2700 X143.04 Y140.50 E271.20294
G1 X143.74 Y140.12 E271.24273
G1 X143.91 Y140.12 E271.25141
G1 X143.91 Y144.95 E271.49258
G1 X144.00 Y145.30 E271.51034
G1 X144.26 Y145.61 E271.53040
G1 X144.63 Y145.84 E271.55211
G1 X145.07 Y145.98 E271.57559
G1 X145.56 Y146.03 E271.60010
G1 X146.05 Y145.98 E271.62457
G1 X146.50 Y145.84 E271.64805
G1 X146.87 Y145.61 E271.66975
G1 X147.13 Y145.30 E271.68984
G1 X147.22 Y144.95 E271.70761
G1 X147.22 Y140.12 E271.94878
G1 X147.39 Y140.12 E271.95746
G1 X148.08 Y140.50 E271.99673
G1 X149.34 Y141.37 E272.07318
G1 X149.34 Y141.83 E272.09633
G1 X148.37 Y142.51 E272.15527
G1 X148.37 Y162.49 E273.15248
G1 X149.34 Y163.17 E273.21146
G1 X149.34 Y163.63 E273.23466
G1 X148.09 Y164.50 E273.31057
G1 X147.39 Y164.88 E273.35040
G1 X147.22 Y164.88 E273.35903
G1 X147.22 Y160.05 E273.60020
G1 X147.13 Y159.70 E273.61796
G1 X146.87 Y159.39 E273.63805
G1 X146.50 Y159.16 E273.65976
G1 X146.05 Y159.02 E273.68324
G1 X145.56 Y158.97 E273.70770
G1 X145.07 Y159.02 E273.73222
G1 X144.63 Y159.16 E273.75570
G1 X144.26 Y159.39 E273.77741
G1 X144.00 Y159.70 E273.79746
G1 X143.91 Y160.05 E273.81523
G1 X143.91 Y164.88 E274.05640
G1 X143.74 Y164.88 E274.06508
G1 X143.05 Y164.50 E274.10442
G1 X141.79 Y163.63 E274.18080
G1 X141.79 Y163.17 E274.20400
G1 X142.76 Y162.49 E274.26287
G1 X142.76 Y142.51 E275.26007
G1 X141.79 Y141.83 E275.31902
G1 X141.79 Y141.37 E275.34222
G0 F12000 X142.43 Y141.58
;TYPE:FILL
G1 F2700 X142.56 Y141.71 E275.35142
G0 F12000 X142.76 Y141.35
G1 F2700 X143.37 Y141.96 E275.39432
G0 F12000 X143.37 Y141.39
G1 F2700 X143.10 Y141.12 E275.41362
G0 F12000 X143.30 Y145.28
G1 F2700 X143.49 Y145.47 E275.42692
G0 F12000 X143.30 Y145.84
G1 F2700 X147.83 Y150.37 E275.74657
G0 F12000 X147.83 Y150.94
G1 F2700 X143.30 Y146.41 E276.06618
G0 F12000 X143.30 Y146.97
G1 F2700 X147.83 Y151.50 E276.38584
G0 F12000 X147.83 Y152.07
G1 F2700 X143.30 Y147.54 E276.70549
G0 F12000 X143.30 Y148.11
G1 F2700 X147.83 Y152.64 E277.02510
G0 F12000 X147.83 Y153.20
G1 F2700 X143.30 Y148.67 E277.34472
G0 F12000 X143.30 Y149.24
G1 F2700 X147.83 Y153.77 E277.66437
G0 F12000 X147.83 Y154.33
G1 F2700 X143.30 Y149.80 E277.98399
G0 F12000 X143.30 Y150.37
G1 F2700 X147.83 Y154.90 E278.30360
G0 F12000 X147.83 Y155.47
G1 F2700 X143.30 Y150.93 E278.62325
G0 F12000 X143.30 Y151.50
G1 F2700 X147.83 Y156.03 E278.94287
G0 F12000 X147.83 Y156.60
G1 F2700 X143.30 Y152.07 E279.26249
G0 F12000 X143.30 Y152.63
G1 F2700 X147.83 Y157.16 E279.58214
G0 F12000 X147.83 Y157.73
G1 F2700 X143.30 Y153.20 E279.90175
G0 F12000 X143.30 Y153.76
G1 F2700 X147.83 Y158.29 E280.22137
G0 F12000 X147.83 Y158.86
G1 F2700 X143.30 Y154.33 E280.54102
G0 F12000 X143.30 Y154.89
G1 F2700 X147.83 Y159.43 E280.86067
G0 F12000 X146.40 Y158.57
G1 F2700 X143.30 Y155.46 E281.07982
G0 F12000 X143.30 Y156.03
G1 F2700 X145.72 Y158.45 E281.25067
G0 F12000 X145.18 Y158.47
G1 F2700 X143.30 Y156.59 E281.38320
G0 F12000 X143.30 Y157.16
G1 F2700 X144.71 Y158.57 E281.48286
G0 F12000 X144.30 Y158.73
G1 F2700 X143.30 Y157.72 E281.55374
G0 F12000 X143.30 Y158.29
G1 F2700 X143.95 Y158.94 E281.59999
G0 F12000 X143.68 Y159.24
G1 F2700 X143.30 Y159.14 E281.62709
G1 X143.47 Y159.59 E281.65142
G0 F12000 X143.28 Y162.79
G1 F2700 X143.16 Y162.96 E281.65827
G1 X143.37 Y163.51 E281.68862
G1 X142.87 Y163.07 E281.72199
G0 F12000 X142.61 Y163.25
G1 F2700 X143.35 Y164.00 E281.77455
G0 F12000 X143.64 Y159.52
G0 X145.00 Y158.63
G0 X146.67 Y158.80
G0 X147.49 Y159.52
G0 X147.75 Y163.88
G1 F2700 X148.04 Y163.88 E281.78258
G1 X147.75 Y163.33 E281.81418
G1 X148.13 Y162.98 E281.83970
G0 F12000 X147.79 Y162.78
G1 F2700 X148.54 Y163.53 E281.89226
G0 F12000 X147.99 Y162.69
G0 X147.83 Y149.81
G1 F2700 X144.27 Y146.25 E282.14330
G0 F12000 X145.11 Y146.52
G1 F2700 X147.83 Y149.24 E282.33528
G0 F12000 X147.83 Y148.68
G1 F2700 X145.70 Y146.55 E282.48514
G0 F12000 X146.21 Y146.49
G1 F2700 X147.83 Y148.11 E282.59937
G0 F12000 X147.83 Y147.54
G1 F2700 X146.64 Y146.36 E282.68312
G0 F12000 X147.01 Y146.16
G1 F2700 X147.83 Y146.98 E282.74108
G0 F12000 X147.83 Y146.41
G1 F2700 X147.45 Y145.75 E282.77673
G1 X147.83 Y145.56 E282.79436
G1 X147.72 Y145.17 E282.81478
G0 F12000 X148.03 Y142.09
G1 F2700 X147.75 Y141.81 E282.83390
G0 F12000 X147.75 Y141.25
G1 F2700 X148.36 Y141.85 E282.87658
G0 F12000 X148.69 Y141.62
G1 F2700 X148.55 Y141.48 E282.88660
G1 F2400 E281.68660
G0 F12000 X156.06 Y141.58
;TYPE:WALL-INNER
G1 F2400 E282.88660
G1 F2700 X157.12 Y140.85 E282.95064
G1 X157.38 Y140.70 E282.96593
G1 X157.38 Y145.00 E283.18061
G1 X157.51 Y145.48 E283.20533
G1 X157.86 Y145.91 E283.23311
G1 X158.33 Y146.20 E283.26065
G1 X158.87 Y146.37 E283.28872
G1 X159.44 Y146.43 E283.31719
G1 X160.00 Y146.37 E283.34572
G1 X160.54 Y146.20 E283.37379
G1 X161.01 Y145.91 E283.40133
G1 X161.37 Y145.48 E283.42911
G1 X161.49 Y145.00 E283.45379
G1 X161.49 Y140.70 E283.66851
G1 X161.75 Y140.84 E283.68339
G1 X162.81 Y141.58 E283.74786
G1 X162.81 Y141.62 E283.75016
G1 X161.84 Y142.30 E283.80909
G1 X161.84 Y162.70 E284.82710
G1 X162.81 Y163.38 E284.88604
G1 X162.81 Y163.42 E284.88833
G1 X161.76 Y164.15 E284.95237
G1 X161.49 Y164.30 E284.96768
G1 X161.49 Y160.00 E285.18241
G1 X161.37 Y159.52 E285.20708
G1 X161.01 Y159.09 E285.23487
G1 X160.54 Y158.80 E285.26241
G1 X160.00 Y158.63 E285.29048
G1 X159.44 Y158.57 E285.31900
G1 X158.87 Y158.63 E285.34748
G1 X158.33 Y158.80 E285.37555
G1 X157.86 Y159.09 E285.40309
G1 X157.51 Y159.52 E285.43087
G1 X157.38 Y160.00 E285.45559
G1 X157.38 Y164.30 E285.67032
G1 X157.12 Y164.16 E285.68519
G1 X156.06 Y163.42 E285.74966
G1 X156.06 Y163.38 E285.75191
G1 X157.03 Y162.70 E285.81091
G1 X157.03 Y142.30 E286.82892
G1 X156.06 Y141.62 E286.88790
G1 X156.06 Y141.58 E286.89019
G0 F12000 X155.66 Y141.37
;TYPE:WALL-OUTER
G1 F2700 X156.91 Y140.50 E286.96610
G1 X157.61 Y140.12 E287.00594
G1 X157.78 Y140.12 E287.01457
G1 X157.78 Y144.95 E287.25574
G1 X157.87 Y145.30 E287.27350
G1 X158.13 Y145.61 E287.29359
G1 X158.50 Y145.84 E287.31530
G1 X158.95 Y145.98 E287.33878
G1 X159.44 Y146.03 E287.36324
G1 X159.93 Y145.98 E287.38775
G1 X160.37 Y145.84 E287.41123
G1 X160.74 Y145.61 E287.43294
G1 X161.00 Y145.30 E287.45300
G1 X161.09 Y144.95 E287.47076
G1 X161.09 Y140.12 E287.71193
G1 X161.26 Y140.12 E287.72061
G1 X161.95 Y140.50 E287.75989
G1 X163.21 Y141.37 E287.83634
G1 X163.21 Y141.83 E287.85954
G1 X162.24 Y142.51 E287.91841
G1 X162.24 Y162.49 E288.91561
G1 X163.21 Y163.17 E288.97455
G1 X163.21 Y163.63 E288.99775
G1 X161.96 Y164.50 E289.07366
G1 X161.26 Y164.88 E289.11345
G1 X161.09 Y164.88 E289.12213
G1 X161.09 Y160.05 E289.36330
G1 X161.00 Y159.70 E289.38106
G1 X160.74 Y159.39 E289.40112
G1 X160.37 Y159.16 E289.42283
G1 X159.93 Y159.02 E289.44631
G1 X159.44 Y158.97 E289.47082
G1 X158.95 Y159.02 E289.49529
G1 X158.50 Y159.16 E289.51877
G1 X158.13 Y159.39 E289.54048
G1 X157.87 Y159.70 E289.56056
G1 X157.78 Y160.05 E289.57833
G1 X157.78 Y164.88 E289.81950
G1 X157.61 Y164.88 E289.82818
G1 X156.92 Y164.50 E289.86752
G1 X155.66 Y163.63 E289.94390
G1 X155.66 Y163.17 E289.96705
G1 X156.63 Y162.49 E290.02599
G1 X156.63 Y142.51 E291.02320
G1 X155.66 Y141.83 E291.08218
G1 X155.66 Y141.37 E291.10538
G0 F12000 X156.46 Y141.47
;TYPE:FILL
G1 F2700 X157.21 Y142.21 E291.15791
G0 F12000 X157.24 Y141.69
G1 F2700 X156.96 Y141.12 E291.18947
G1 X157.24 Y141.12 E291.20349
G0 F12000 X157.51 Y145.48
G0 X158.87 Y146.37
G0 X160.54 Y146.20
G0 X161.36 Y145.48
G0 X161.63 Y141.40
G1 F2700 X161.91 Y141.12 E291.22331
G0 F12000 X161.65 Y141.00
G1 F2700 X162.39 Y141.74 E291.27591
G0 F12000 X162.13 Y141.93
G1 F2700 X161.63 Y141.48 E291.31128
G1 X161.89 Y142.09 E291.34172
G1 X161.63 Y142.11 E291.35498
G0 F12000 X161.53 Y145.41
G1 F2700 X161.51 Y145.67 E291.36726
G1 X161.70 Y146.14 E291.39284
G0 F12000 X161.70 Y146.71
G1 F2700 X161.04 Y146.06 E291.43908
G0 F12000 X160.70 Y146.27
G1 F2700 X161.70 Y147.28 E291.50999
G0 F12000 X161.70 Y147.84
G1 F2700 X160.29 Y146.43 E291.60965
G0 F12000 X159.82 Y146.53
G1 F2700 X161.70 Y148.41 E291.74223
G0 F12000 X161.70 Y148.97
G1 F2700 X159.28 Y146.55 E291.91304
G0 F12000 X158.59 Y146.43
G1 F2700 X161.70 Y149.54 E292.13222
G0 F12000 X161.70 Y150.10
G1 F2700 X157.17 Y145.57 E292.45187
G0 F12000 X157.17 Y146.14
G1 F2700 X161.70 Y150.67 E292.77156
G0 F12000 X161.70 Y151.24
G1 F2700 X157.17 Y146.71 E293.09121
G0 F12000 X157.17 Y147.27
G1 F2700 X161.70 Y151.80 E293.41086
G0 F12000 X161.70 Y152.37
G1 F2700 X157.17 Y147.84 E293.73055
G0 F12000 X157.17 Y148.40
G1 F2700 X161.70 Y152.93 E294.05023
G0 F12000 X161.70 Y153.50
G1 F2700 X157.17 Y148.97 E294.36989
G0 F12000 X157.17 Y149.53
G1 F2700 X161.70 Y154.06 E294.68957
G0 F12000 X161.70 Y154.63
G1 F2700 X157.17 Y150.10 E295.00926
G0 F12000 X157.17 Y150.66
G1 F2700 X161.70 Y155.19 E295.32891
G0 F12000 X161.70 Y155.76
G1 F2700 X157.17 Y151.23 E295.64856
G0 F12000 X157.17 Y151.80
G1 F2700 X161.70 Y156.33 E295.96825
G0 F12000 X161.70 Y156.89
G1 F2700 X157.17 Y152.36 E296.28790
G0 F12000 X157.17 Y152.93
G1 F2700 X161.70 Y157.46 E296.60755
G0 F12000 X161.70 Y158.02
G1 F2700 X157.17 Y153.49 E296.92724
G0 F12000 X157.17 Y154.06
G1 F2700 X161.70 Y158.59 E297.24689
G0 F12000 X161.70 Y159.16
G1 F2700 X157.17 Y154.62 E297.56654
G0 F12000 X157.17 Y155.19
G1 F2700 X160.73 Y158.75 E297.81757
G0 F12000 X159.89 Y158.48
G1 F2700 X157.17 Y155.76 E298.00956
G0 F12000 X157.17 Y156.32
G1 F2700 X159.29 Y158.45 E298.15942
G0 F12000 X158.79 Y158.51
G1 F2700 X157.17 Y156.89 E298.27365
G0 F12000 X157.17 Y157.45
G1 F2700 X158.36 Y158.64 E298.35739
G0 F12000 X157.99 Y158.84
G1 F2700 X157.17 Y158.02 E298.41543
G0 F12000 X157.17 Y158.58
G1 F2700 X157.55 Y159.25 E298.45116
G1 X157.17 Y159.43 E298.46878
G1 X157.28 Y159.83 E298.48927
G0 F12000 X156.97 Y162.91
G1 F2700 X157.24 Y163.18 E298.50835
G0 F12000 X157.24 Y163.75
G1 F2700 X156.64 Y163.15 E298.55100
G0 F12000 X156.31 Y163.38
G1 F2700 X156.45 Y163.52 E298.56102
G0 F12000 X157.38 Y163.53
G0 X157.51 Y159.52
G0 X158.87 Y158.63
G0 X160.54 Y158.80
G0 X161.36 Y159.52
G0 X161.63 Y163.61
G1 F2700 X161.90 Y163.88 E298.58035
G0 F12000 X162.24 Y163.65
G1 F2700 X161.63 Y163.04 E298.62325
G0 F12000 X162.44 Y163.29
G1 F2700 X162.57 Y163.42 E298.63249
G0 F12000 X161.86 Y162.69
G0 X161.70 Y159.72
G1 F2700 X161.51 Y159.53 E298.64576
G1 F2400 E297.44576
G0 F12000 X169.93 Y163.38
;TYPE:WALL-INNER
G1 F2400 E298.64576
G1 F2700 X170.91 Y162.70 E298.70470
G1 X170.91 Y142.30 E299.72276
G1 X169.93 Y141.62 E299.78174
G1 X169.93 Y141.58 E299.78404
G1 X170.99 Y140.85 E299.84807
G1 X171.26 Y140.70 E299.86339
G1 X171.26 Y145.00 E300.07812
G1 X171.38 Y145.48 E300.10279
G1 X171.74 Y145.91 E300.13058
G1 X172.20 Y146.20 E300.15811
G1 X172.74 Y146.37 E300.18618
G1 X173.31 Y146.43 E300.21471
G1 X173.88 Y146.37 E300.24328
G1 X174.41 Y146.20 E300.27126
G1 X174.88 Y145.91 E300.29884
G1 X175.24 Y145.48 E300.32663
G1 X175.36 Y145.00 E300.35130
G1 X175.36 Y140.70 E300.56603
G1 X175.62 Y140.84 E300.58090
G1 X176.69 Y141.58 E300.64537
G1 X176.69 Y141.62 E300.64767
G1 X175.72 Y142.30 E300.70661
G1 X175.71 Y162.70 E301.72467
G1 X176.69 Y163.38 E301.78365
G1 X176.69 Y163.42 E301.78595
G1 X175.63 Y164.15 E301.84998
G1 X175.36 Y164.30 E301.86530
G1 X175.36 Y160.00 E302.08003
G1 X175.24 Y159.52 E302.10470
G1 X174.88 Y159.09 E302.13249
G1 X174.41 Y158.80 E302.16007
G1 X173.88 Y158.63 E302.18804
G1 X173.31 Y158.57 E302.21662
G1 X172.74 Y158.63 E302.24514
G1 X172.20 Y158.80 E302.27321
G1 X171.74 Y159.09 E302.30075
G1 X171.38 Y159.52 E302.32854
G1 X171.26 Y160.00 E302.35321
G1 X171.26 Y164.30 E302.56794
G1 X171.00 Y164.16 E302.58281
G1 X169.93 Y163.42 E302.64729
G1 X169.93 Y163.38 E302.64958
G0 F12000 X169.53 Y163.17
;TYPE:WALL-OUTER
G1 F2700 X170.50 Y162.49 E302.70849
G1 X170.51 Y142.51 E303.70570
G1 X169.53 Y141.83 E303.76468
G1 X169.53 Y141.37 E303.78788
G1 X170.78 Y140.50 E303.86379
G1 X171.49 Y140.12 E303.90362
G1 X171.66 Y140.12 E303.91225
G1 X171.66 Y144.95 E304.15342
G1 X171.75 Y145.30 E304.17118
G1 X172.00 Y145.61 E304.19124
G1 X172.37 Y145.84 E304.21295
G1 X172.82 Y145.98 E304.23643
G1 X173.31 Y146.03 E304.26094
G1 X173.80 Y145.98 E304.28546
G1 X174.25 Y145.84 E304.30889
G1 X174.62 Y145.61 E304.33064
G1 X174.87 Y145.30 E304.35070
G1 X174.96 Y144.95 E304.36846
G1 X174.96 Y140.12 E304.60963
G1 X175.14 Y140.12 E304.61831
G1 X175.83 Y140.50 E304.65759
G1 X177.09 Y141.37 E304.73403
G1 X177.09 Y141.83 E304.75723
G1 X176.12 Y142.51 E304.81615
G1 X176.11 Y162.49 E305.81335
G1 X177.09 Y163.17 E305.87233
G1 X177.09 Y163.63 E305.89553
G1 X175.84 Y164.50 E305.97144
G1 X175.13 Y164.88 E306.01127
G1 X174.96 Y164.88 E306.01991
G1 X174.96 Y160.05 E306.26107
G1 X174.87 Y159.70 E306.27884
G1 X174.62 Y159.39 E306.29890
G1 X174.25 Y159.16 E306.32065
G1 X173.80 Y159.02 E306.34408
G1 X173.31 Y158.97 E306.36859
G1 X172.82 Y159.02 E306.39311
G1 X172.37 Y159.16 E306.41659
G1 X172.00 Y159.39 E306.43829
G1 X171.75 Y159.70 E306.45835
G1 X171.66 Y160.05 E306.47612
G1 X171.66 Y164.88 E306.71728
G1 X171.48 Y164.88 E306.72597
G1 X170.79 Y164.50 E306.76531
G1 X169.53 Y163.63 E306.84169
G1 X169.53 Y163.17 E306.86489
G0 F12000 X170.34 Y163.27
;TYPE:FILL
G1 F2700 X171.08 Y164.01 E306.91731
G0 F12000 X171.12 Y163.48
G1 F2700 X170.84 Y162.92 E306.94869
G1 X171.12 Y162.91 E306.96261
G0 F12000 X171.21 Y159.61
G1 F2700 X171.23 Y159.35 E306.97440
G1 X171.04 Y158.88 E306.99957
G0 F12000 X171.04 Y158.32
G1 F2700 X171.68 Y158.95 E307.04458
G0 F12000 X172.03 Y158.74
G1 F2700 X171.04 Y157.75 E307.11429
G0 F12000 X171.04 Y157.18
G1 F2700 X172.44 Y158.58 E307.21247
G0 F12000 X172.90 Y158.47
G1 F2700 X171.04 Y156.62 E307.34321
G0 F12000 X171.04 Y156.05
G1 F2700 X173.44 Y158.44 E307.51190
G0 F12000 X174.11 Y158.55
G1 F2700 X171.04 Y155.49 E307.72826
G0 F12000 X171.04 Y154.92
G1 F2700 X175.57 Y159.45 E308.04788
G0 F12000 X175.57 Y158.89
G1 F2700 X171.04 Y154.36 E308.36749
G0 F12000 X171.04 Y153.79
G1 F2700 X175.57 Y158.32 E308.68715
G0 F12000 X175.57 Y157.75
G1 F2700 X171.04 Y153.22 E309.00676
G0 F12000 X171.04 Y152.66
G1 F2700 X175.57 Y157.19 E309.32638
G0 F12000 X175.57 Y156.62
G1 F2700 X171.04 Y152.09 E309.64603
G0 F12000 X171.04 Y151.53
G1 F2700 X175.57 Y156.06 E309.96565
G0 F12000 X175.57 Y155.49
G1 F2700 X171.04 Y150.96 E310.28526
G0 F12000 X171.04 Y150.40
G1 F2700 X175.57 Y154.93 E310.60491
G0 F12000 X175.57 Y154.36
G1 F2700 X171.04 Y149.83 E310.92456
G0 F12000 X171.04 Y149.26
G1 F2700 X175.57 Y153.79 E311.24418
G0 F12000 X175.57 Y153.23
G1 F2700 X171.04 Y148.70 E311.56383
G0 F12000 X171.04 Y148.13
G1 F2700 X175.57 Y152.66 E311.88348
G0 F12000 X175.57 Y152.10
G1 F2700 X171.04 Y147.57 E312.20310
G0 F12000 X171.04 Y147.00
G1 F2700 X175.57 Y151.53 E312.52271
G0 F12000 X175.57 Y150.97
G1 F2700 X171.04 Y146.44 E312.84237
G0 F12000 X171.04 Y145.87
G1 F2700 X175.57 Y150.40 E313.16198
G0 F12000 X175.57 Y149.84
G1 F2700 X171.95 Y146.21 E313.41785
G0 F12000 X172.82 Y146.52
G1 F2700 X175.57 Y149.27 E313.61198
G0 F12000 X175.57 Y148.70
G1 F2700 X173.43 Y146.56 E313.76361
G0 F12000 X173.94 Y146.50
G1 F2700 X175.57 Y148.14 E313.87925
G0 F12000 X175.57 Y147.57
G1 F2700 X174.37 Y146.37 E313.96448
G0 F12000 X174.74 Y146.17
G1 F2700 X175.57 Y147.01 E314.02367
G0 F12000 X175.57 Y146.44
G1 F2700 X175.18 Y145.77 E314.06015
G1 X175.57 Y145.59 E314.07865
G1 X175.46 Y145.19 E314.09951
G0 F12000 X175.75 Y142.10
G1 F2700 X175.50 Y141.84 E314.11739
G0 F12000 X175.50 Y141.28
G1 F2700 X176.09 Y141.87 E314.15895
G0 F12000 X176.42 Y141.63
G1 F2700 X176.21 Y141.42 E314.17415
G0 F12000 X175.36 Y141.42
G0 X175.23 Y145.48
G0 X173.88 Y146.37
G0 X172.21 Y146.20
G0 X171.39 Y145.48
G0 X171.12 Y141.42
G1 F2700 X170.83 Y141.13 E314.19458
G0 F12000 X170.49 Y141.36
G1 F2700 X171.12 Y141.98 E314.23861
G0 F12000 X171.04 Y145.31
G1 F2700 X171.24 Y145.50 E314.25251
G0 F12000 X175.36 Y160.00
G0 X175.52 Y162.79
G1 F2700 X176.27 Y163.54 E314.30507
G0 F12000 X175.93 Y163.77
G1 F2700 X175.50 Y163.36 E314.33556
G1 X175.75 Y163.90 E314.36436
G1 X175.50 Y163.90 E314.37699
;LAYER:1
G0 F12000 X175.45 Y164.40 Z0.50
;TYPE:WALL-INNER
G1 F2880 X175.36 Y164.45 E314.38034
G1 X175.36 Y160.00 E314.52851
G1 X175.24 Y159.51 E314.54507
G1 X174.88 Y159.09 E314.56354
G1 X174.41 Y158.80 E314.58201
G1 X173.88 Y158.63 E314.60056
G1 X173.31 Y158.57 E314.61957
G1 X172.74 Y158.63 E314.63859
G1 X172.20 Y158.80 E314.65730
G1 X171.74 Y159.09 E314.67566
G1 X171.38 Y159.52 E314.69419
G1 X171.26 Y160.00 E314.71064
G1 X171.26 Y164.45 E314.85881
G1 X169.92 Y163.54 E314.91254
G1 X169.81 Y163.45 E314.91738
G1 X169.81 Y163.36 E314.92028
G1 X170.26 Y163.02 E314.93912
G1 X170.72 Y162.71 E314.95772
G1 X170.73 Y142.30 E315.63653
G1 X169.93 Y141.75 E315.66862
G1 X169.81 Y141.65 E315.67375
G1 X169.81 Y141.55 E315.67708
G1 X171.17 Y140.60 E315.73230
G1 X171.26 Y140.55 E315.73565
G1 X171.26 Y145.00 E315.88383
G1 X171.38 Y145.49 E315.90038
G1 X171.74 Y145.91 E315.91885
G1 X172.21 Y146.20 E315.93730
G1 X172.74 Y146.37 E315.95587
G1 X173.31 Y146.43 E315.97489
G1 X173.88 Y146.37 E315.99394
G1 X174.41 Y146.20 E316.01259
G1 X174.88 Y145.91 E316.03098
G1 X175.24 Y145.48 E316.04950
G1 X175.36 Y145.00 E316.06595
G1 X175.36 Y140.55 E316.21412
G1 X176.70 Y141.46 E316.26785
G1 X176.81 Y141.55 E316.27267
G1 X176.81 Y141.65 E316.27603
G1 X175.90 Y142.30 E316.31324
G1 X175.89 Y162.70 E316.99198
G1 X176.69 Y163.25 E317.02407
G1 X176.81 Y163.35 E317.02922
G1 X176.81 Y163.45 E317.03258
G1 X175.45 Y164.40 E317.08779
G0 F12000 X175.65 Y164.75
;TYPE:WALL-OUTER
G1 F2880 X175.41 Y164.88 E317.09700
G1 X174.96 Y164.88 E317.11194
G1 X174.96 Y160.05 E317.27272
G1 X174.87 Y159.70 E317.28463
G1 X174.62 Y159.39 E317.29793
G1 X174.24 Y159.16 E317.31253
G1 X173.80 Y159.02 E317.32805
G1 X173.31 Y158.97 E317.34439
G1 X172.82 Y159.02 E317.36074
G1 X172.37 Y159.16 E317.37639
G1 X172.00 Y159.39 E317.39086
G1 X171.75 Y159.70 E317.40423
G1 X171.66 Y160.05 E317.41607
G1 X171.66 Y164.88 E317.57685
G1 X171.21 Y164.88 E317.59179
G1 X170.97 Y164.75 E317.60100
G1 X169.68 Y163.86 E317.65287
G1 X169.41 Y163.64 E317.66451
G1 X169.41 Y163.16 E317.68044
G1 X170.04 Y162.69 E317.70647
G1 X170.32 Y162.49 E317.71810
G1 X170.33 Y142.51 E318.38290
G1 X169.69 Y142.07 E318.40858
G1 X169.41 Y141.84 E318.42050
G1 X169.41 Y141.36 E318.43653
G1 X169.69 Y141.14 E318.44840
G1 X170.97 Y140.25 E318.50008
G1 X171.21 Y140.12 E318.50929
G1 X171.66 Y140.12 E318.52423
G1 X171.66 Y144.95 E318.68501
G1 X171.75 Y145.30 E318.69692
G1 X172.00 Y145.61 E318.71022
G1 X172.38 Y145.84 E318.72480
G1 X172.82 Y145.98 E318.74034
G1 X173.31 Y146.03 E318.75669
G1 X173.80 Y145.98 E318.77303
G1 X174.25 Y145.84 E318.78865
G1 X174.62 Y145.61 E318.80315
G1 X174.87 Y145.30 E318.81652
G1 X174.96 Y144.95 E318.82837
G1 X174.96 Y140.12 E318.98915
G1 X175.41 Y140.12 E319.00408
G1 X175.65 Y140.25 E319.01329
G1 X176.93 Y141.14 E319.06500
G1 X177.21 Y141.36 E319.07680
G1 X177.21 Y141.84 E319.09286
G1 X176.29 Y142.51 E319.13044
G1 X176.29 Y162.49 E319.79524
G1 X176.93 Y162.93 E319.82092
G1 X177.21 Y163.16 E319.83284
G1 X177.21 Y163.64 E319.84887
G1 X175.65 Y164.75 E319.91239
G0 F12000 X175.55 Y164.14
;TYPE:FILL
G1 F2880 X176.44 Y163.25 E319.95421
G0 F12000 X176.11 Y163.02
G1 F2880 X175.50 Y163.63 E319.98264
G0 F12000 X175.50 Y163.06
G1 F2880 X175.64 Y162.64 E319.99535
G1 X175.63 Y162.09 E320.00719
G1 X175.63 Y161.52 E320.01900
G1 X175.63 Y160.96 E320.03080
G1 X175.63 Y160.39 E320.04261
G1 X175.59 Y159.85 E320.05444
G1 X175.51 Y159.37 E320.06922
G1 X175.75 Y158.85 E320.08845
G0 F12000 X175.75 Y158.28
G1 F2880 X175.01 Y159.02 E320.12328
G0 F12000 X174.68 Y158.79
G1 F2880 X175.75 Y157.72 E320.17396
G0 F12000 X175.75 Y157.15
G1 F2880 X174.29 Y158.61 E320.24268
G0 F12000 X173.85 Y158.49
G1 F2880 X175.75 Y156.59 E320.33210
G0 F12000 X175.75 Y156.02
G1 F2880 X173.34 Y158.44 E320.44572
G0 F12000 X172.72 Y158.49
G1 F2880 X175.75 Y155.46 E320.58850
G0 F12000 X175.75 Y154.89
G1 F2880 X171.69 Y158.95 E320.77937
G0 F12000 X171.54 Y159.10
G1 F2880 X170.86 Y159.78 E320.81112
G0 F12000 X171.12 Y160.09
G1 F2880 X170.99 Y160.50 E320.82298
G1 X170.99 Y161.07 E320.83484
G1 X170.99 Y161.63 E320.84668
G1 X170.99 Y162.20 E320.85854
G1 X170.86 Y162.61 E320.87277
G0 F12000 X171.12 Y162.92
G1 F2880 X170.36 Y163.67 E320.90822
G0 F12000 X170.03 Y163.44
G1 F2880 X170.31 Y163.16 E320.92162
G0 F12000 X170.70 Y163.90
G1 F2880 X171.12 Y163.77 E320.94127
G1 X171.04 Y164.13 E320.95367
G0 F12000 X170.86 Y159.21
G1 F2880 X175.75 Y154.32 E321.18364
G0 F12000 X175.75 Y153.76
G1 F2880 X170.86 Y158.65 E321.41360
G0 F12000 X170.86 Y158.08
G1 F2880 X175.75 Y153.19 E321.64357
G0 F12000 X175.75 Y152.63
G1 F2880 X170.86 Y157.51 E321.87353
G0 F12000 X170.86 Y156.95
G1 F2880 X175.75 Y152.06 E322.10349
G0 F12000 X175.75 Y151.50
G1 F2880 X170.86 Y156.38 E322.33346
G0 F12000 X170.86 Y155.82
G1 F2880 X175.75 Y150.93 E322.56342
G0 F12000 X175.75 Y150.36
G1 F2880 X170.86 Y155.25 E322.79338
G0 F12000 X170.86 Y154.69
G1 F2880 X175.75 Y149.80 E323.02335
G0 F12000 X175.75 Y149.23
G1 F2880 X170.86 Y154.12 E323.25331
G0 F12000 X170.86 Y153.56
G1 F2880 X175.75 Y148.67 E323.48327
G0 F12000 X175.75 Y148.10
G1 F2880 X170.86 Y152.99 E323.71324
G0 F12000 X170.87 Y152.42
G1 F2880 X175.75 Y147.53 E323.94315
G0 F12000 X175.75 Y146.97
G1 F2880 X170.87 Y151.86 E324.17307
G0 F12000 X170.87 Y151.29
G1 F2880 X175.75 Y146.40 E324.40299
G0 F12000 X175.75 Y145.84
G1 F2880 X170.87 Y150.73 E324.63290
G0 F12000 X170.87 Y150.16
G1 F2880 X175.75 Y145.27 E324.86284
G0 F12000 X175.50 Y144.96
G1 F2880 X175.63 Y144.55 E324.87469
G1 X175.63 Y143.98 E324.88655
G1 X175.63 Y143.42 E324.89841
G1 X175.63 Y142.85 E324.91025
G1 X175.75 Y142.44 E324.92449
G0 F12000 X175.50 Y142.13
G1 F2880 X176.28 Y141.35 E324.96134
G0 F12000 X175.95 Y141.12
G1 F2880 X175.50 Y141.28 E324.98236
G1 X175.61 Y140.89 E324.99598
G0 F12000 X176.50 Y141.70
G1 F2880 X176.62 Y141.58 E325.00181
G0 F12000 X175.36 Y141.54
G0 X175.23 Y145.48
G0 X173.88 Y146.37
G0 X172.21 Y146.20
G0 X171.39 Y145.48
G0 X171.12 Y141.42
G1 F2880 X170.54 Y142.00 E325.02886
G0 F12000 X170.87 Y142.24
G1 F2880 X171.12 Y142.27 E325.04072
G1 X170.99 Y142.96 E325.05254
G1 X170.99 Y143.53 E325.06433
G1 X170.99 Y144.09 E325.07614
G1 X170.99 Y144.66 E325.08795
G1 X171.03 Y145.19 E325.09979
G1 X171.12 Y145.66 E325.11510
G1 X170.87 Y146.20 E325.13481
G0 F12000 X170.87 Y146.77
G1 F2880 X171.63 Y146.00 E325.17070
G0 F12000 X171.97 Y146.22
G1 F2880 X170.87 Y147.33 E325.22284
G0 F12000 X170.87 Y147.90
G1 F2880 X172.36 Y146.40 E325.29335
G0 F12000 X172.81 Y146.52
G1 F2880 X170.87 Y148.46 E325.38491
G0 F12000 X170.87 Y149.03
G1 F2880 X173.33 Y146.56 E325.50085
G0 F12000 X173.97 Y146.49
G1 F2880 X170.87 Y149.59 E325.64704
G0 F12000 X170.70 Y142.31
G0 X170.21 Y141.77
G1 F2880 X171.10 Y140.87 E325.68905
G1 F2400 E324.48905
G0 F12000 X162.93 Y141.55
;TYPE:WALL-INNER
G1 F2400 E325.68905
G1 F2880 X162.94 Y141.65 E325.69241
G1 X162.02 Y142.30 E325.72959
G1 X162.02 Y162.70 E326.40829
G1 X162.82 Y163.26 E326.44059
G1 X162.94 Y163.35 E326.44553
G1 X162.94 Y163.45 E326.44889
G1 X161.58 Y164.40 E326.50410
G1 X161.49 Y164.45 E326.50745
G1 X161.49 Y160.00 E326.65562
G1 X161.36 Y159.51 E326.67217
G1 X161.01 Y159.09 E326.69065
G1 X160.54 Y158.80 E326.70909
G1 X160.00 Y158.63 E326.72767
G1 X159.44 Y158.57 E326.74668
G1 X158.87 Y158.63 E326.76567
G1 X158.33 Y158.80 E326.78438
G1 X157.86 Y159.09 E326.80274
G1 X157.51 Y159.52 E326.82126
G1 X157.38 Y160.00 E326.83774
G1 X157.38 Y164.45 E326.98592
G1 X157.30 Y164.41 E326.98895
G1 X156.05 Y163.54 E327.03966
G1 X155.94 Y163.45 E327.04450
G1 X155.94 Y163.35 E327.04780
G1 X156.85 Y162.70 E327.08504
G1 X156.85 Y142.30 E327.76378
G1 X156.06 Y141.75 E327.79587
G1 X155.94 Y141.65 E327.80100
G1 X155.94 Y141.55 E327.80433
G1 X156.05 Y141.46 E327.80906
G1 X156.74 Y140.98 E327.83717
G1 X157.30 Y140.59 E327.85990
G1 X157.38 Y140.55 E327.86292
G1 X157.38 Y145.00 E328.01109
G1 X157.51 Y145.49 E328.02769
G1 X157.86 Y145.91 E328.04613
G1 X158.34 Y146.20 E328.06458
G1 X158.87 Y146.37 E328.08315
G1 X159.44 Y146.43 E328.10214
G1 X160.00 Y146.37 E328.12115
G1 X160.54 Y146.20 E328.13987
G1 X161.01 Y145.91 E328.15823
G1 X161.37 Y145.48 E328.17675
G1 X161.49 Y145.00 E328.19320
G1 X161.49 Y140.55 E328.34137
G1 X162.82 Y141.46 E328.39510
G1 X162.93 Y141.55 E328.39992
G0 F12000 X163.06 Y141.14
;TYPE:WALL-OUTER
G1 F2880 X163.33 Y141.36 E328.41172
G1 X163.34 Y141.84 E328.42779
G1 X162.42 Y142.51 E328.46534
G1 X162.42 Y162.49 E329.13014
G1 X163.06 Y162.93 E329.15579
G1 X163.33 Y163.16 E329.16771
G1 X163.34 Y163.64 E329.18374
G1 X161.78 Y164.75 E329.24727
G1 X161.54 Y164.88 E329.25648
G1 X161.09 Y164.88 E329.27141
G1 X161.09 Y160.05 E329.43219
G1 X161.00 Y159.70 E329.44411
G1 X160.74 Y159.39 E329.45741
G1 X160.37 Y159.16 E329.47198
G1 X159.93 Y159.02 E329.48753
G1 X159.44 Y158.97 E329.50387
G1 X158.95 Y159.02 E329.52018
G1 X158.50 Y159.16 E329.53583
G1 X158.13 Y159.39 E329.55031
G1 X157.87 Y159.70 E329.56370
G1 X157.78 Y160.05 E329.57554
G1 X157.78 Y164.88 E329.73632
G1 X157.34 Y164.88 E329.75122
G1 X157.09 Y164.75 E329.76048
G1 X155.81 Y163.86 E329.81233
G1 X155.54 Y163.64 E329.82397
G1 X155.54 Y163.16 E329.84000
G1 X155.82 Y162.93 E329.85192
G1 X156.45 Y162.49 E329.87761
G1 X156.45 Y142.51 E330.54242
G1 X155.82 Y142.07 E330.56809
G1 X155.54 Y141.84 E330.58002
G1 X155.54 Y141.36 E330.59605
G1 X155.81 Y141.14 E330.60766
G1 X157.10 Y140.25 E330.65989
G1 X157.34 Y140.12 E330.66884
G1 X157.78 Y140.12 E330.68374
G1 X157.78 Y144.95 E330.84452
G1 X157.87 Y145.30 E330.85644
G1 X158.13 Y145.61 E330.86974
G1 X158.50 Y145.84 E330.88431
G1 X158.95 Y145.98 E330.89986
G1 X159.44 Y146.03 E330.91617
G1 X159.93 Y145.98 E330.93251
G1 X160.37 Y145.84 E330.94817
G1 X160.74 Y145.61 E330.96264
G1 X161.00 Y145.30 E330.97601
G1 X161.09 Y144.95 E330.98785
G1 X161.09 Y140.12 E331.14863
G1 X161.54 Y140.12 E331.16357
G1 X161.78 Y140.25 E331.17278
G1 X163.06 Y141.14 E331.22448
G0 F12000 X162.59 Y141.47
;TYPE:FILL
G1 F2880 X161.63 Y142.43 E331.26964
G0 F12000 X161.88 Y142.74
G1 F2880 X161.75 Y143.15 E331.28150
G1 X161.75 Y143.72 E331.29336
G1 X161.75 Y144.28 E331.30522
G1 X161.75 Y144.85 E331.31712
G1 X161.54 Y145.34 E331.33486
G0 F12000 X161.88 Y145.57
G1 F2880 X156.99 Y150.46 E331.56482
G0 F12000 X156.99 Y149.89
G1 F2880 X160.53 Y146.35 E331.73138
G0 F12000 X159.79 Y146.53
G1 F2880 X156.99 Y149.33 E331.86290
G0 F12000 X156.99 Y148.76
G1 F2880 X159.21 Y146.54 E331.96718
G0 F12000 X158.72 Y146.47
G1 F2880 X156.99 Y148.20 E332.04836
G0 F12000 X156.99 Y147.63
G1 F2880 X158.29 Y146.34 E332.10927
G0 F12000 X157.93 Y146.12
G1 F2880 X156.99 Y147.06 E332.15363
G0 F12000 X156.99 Y146.50
G1 F2880 X157.63 Y145.86 E332.18383
G0 F12000 X157.38 Y145.54
G1 F2880 X156.99 Y145.65 E332.20208
G1 X157.13 Y144.95 E332.21478
G1 X157.12 Y144.39 E332.22657
G1 X157.12 Y143.83 E332.23834
G1 X157.12 Y143.26 E332.25010
G1 X157.12 Y142.70 E332.26185
G1 X157.04 Y142.20 E332.27364
G1 X157.24 Y141.72 E332.29103
G0 F12000 X157.24 Y141.16
G1 F2880 X156.51 Y141.89 E332.32555
G0 F12000 X156.18 Y141.66
G1 F2880 X156.55 Y141.28 E332.34321
G0 F12000 X157.51 Y145.48
G0 X158.87 Y146.37
G0 X160.54 Y146.20
G0 X161.36 Y145.48
G0 X161.63 Y141.30
G1 F2880 X161.91 Y141.01 E332.35674
G0 F12000 X162.25 Y141.24
G1 F2880 X161.63 Y141.86 E332.38609
G0 F12000 X161.88 Y146.13
G1 F2880 X156.99 Y151.02 E332.61607
G0 F12000 X156.99 Y151.59
G1 F2880 X161.88 Y146.70 E332.84606
G0 F12000 X161.88 Y147.27
G1 F2880 X156.99 Y152.16 E333.07602
G0 F12000 X156.99 Y152.72
G1 F2880 X161.88 Y147.83 E333.30601
G0 F12000 X161.88 Y148.40
G1 F2880 X156.99 Y153.29 E333.53600
G0 F12000 X156.99 Y153.85
G1 F2880 X161.88 Y148.96 E333.76599
G0 F12000 X161.88 Y149.53
G1 F2880 X156.99 Y154.42 E333.99595
G0 F12000 X156.99 Y154.98
G1 F2880 X161.88 Y150.09 E334.22594
G0 F12000 X161.88 Y150.66
G1 F2880 X156.99 Y155.55 E334.45592
G0 F12000 X156.99 Y156.12
G1 F2880 X161.88 Y151.23 E334.68589
G0 F12000 X161.88 Y151.79
G1 F2880 X156.99 Y156.68 E334.91587
G0 F12000 X156.99 Y157.25
G1 F2880 X161.88 Y152.36 E335.14586
G0 F12000 X161.88 Y152.92
G1 F2880 X156.99 Y157.81 E335.37583
G0 F12000 X156.99 Y158.38
G1 F2880 X161.88 Y153.49 E335.60581
G0 F12000 X161.88 Y154.05
G1 F2880 X156.99 Y158.94 E335.83580
G0 F12000 X156.99 Y159.51
G1 F2880 X161.88 Y154.62 E336.06576
G0 F12000 X161.88 Y155.19
G1 F2880 X158.46 Y158.61 E336.22689
G0 F12000 X159.17 Y158.46
G1 F2880 X161.88 Y155.75 E336.35424
G0 F12000 X161.88 Y156.32
G1 F2880 X159.74 Y158.46 E336.45513
G0 F12000 X160.21 Y158.55
G1 F2880 X161.88 Y156.88 E336.53350
G0 F12000 X161.88 Y157.45
G1 F2880 X160.64 Y158.69 E336.59204
G0 F12000 X160.99 Y158.91
G1 F2880 X161.88 Y158.01 E336.63409
G0 F12000 X161.88 Y158.58
G1 F2880 X161.27 Y159.19 E336.66259
G0 F12000 X161.51 Y159.52
G1 F2880 X161.88 Y159.43 E336.68008
G1 X161.75 Y160.12 E336.69211
G1 X161.75 Y160.69 E336.70398
G1 X161.75 Y161.25 E336.71582
G1 X161.75 Y161.82 E336.72768
G1 X161.75 Y162.38 E336.73954
G1 X161.85 Y162.85 E336.75138
G1 X161.63 Y163.36 E336.76982
G0 F12000 X161.63 Y163.92
G1 F2880 X162.41 Y163.14 E336.80665
G0 F12000 X162.74 Y163.37
G1 F2880 X162.62 Y163.50 E336.81272
G0 F12000 X161.49 Y163.56
G0 X161.36 Y159.52
G0 X160.00 Y158.63
G0 X158.33 Y158.80
G0 X157.51 Y159.52
G0 X157.24 Y163.78
G1 F2880 X157.00 Y164.03 E336.82422
G0 F12000 X156.66 Y163.79
G1 F2880 X157.24 Y163.22 E336.85145
G0 F12000 X157.24 Y162.65
G1 F2880 X156.33 Y163.56 E336.89444
G0 F12000 X156.99 Y162.34
G1 F2880 X157.12 Y161.93 E336.90632
G1 X157.12 Y161.36 E336.91818
G1 X157.12 Y160.80 E336.93002
G1 X157.12 Y160.23 E336.94188
G1 X157.30 Y159.77 E336.95837
G1 F2400 E335.75837
G0 F12000 X149.06 Y163.35
;TYPE:WALL-INNER
G1 F2400 E336.95837
G1 F2880 X149.06 Y163.45 E336.96173
G1 X148.26 Y164.02 E336.99455
G1 X147.70 Y164.41 E337.01727
G1 X147.62 Y164.45 E337.02029
G1 X147.62 Y160.00 E337.16846
G1 X147.49 Y159.51 E337.18506
G1 X147.14 Y159.09 E337.20351
G1 X146.66 Y158.80 E337.22195
G1 X146.13 Y158.63 E337.24053
G1 X145.56 Y158.57 E337.25951
G1 X145.00 Y158.63 E337.27853
G1 X144.46 Y158.80 E337.29724
G1 X143.99 Y159.09 E337.31560
G1 X143.63 Y159.52 E337.33412
G1 X143.51 Y160.00 E337.35057
G1 X143.51 Y164.45 E337.49875
G1 X142.18 Y163.54 E337.55247
G1 X142.06 Y163.45 E337.55732
G1 X142.06 Y163.36 E337.56021
G1 X142.52 Y163.02 E337.57910
G1 X142.98 Y162.70 E337.59765
