;-- START GCODE --
;Sliced for Type A Machines Series 1
;Sliced at: Tue 02-08-2016 20:18:26
;Basic settings: Layer height: 0.2 Walls: 1.5 Fill: 40
;Print Speed: 100 Support: 0
;Retraction Speed: 40 Retraction Distance: 1.2
;Print time: #P_TIME#
;Filament used: #F_AMNT#m #F_WGHT#g
;Filament cost: #F_COST#
M106 S255	 ;start with the fan on
G21        ;metric values
G90        ;absolute positioning
M106 S255    ;start with the fan on
G28     ;move to endstops
G29		;allows for auto-levelling
G1 X150 Y5  Z15.0 F6000 ;center and move the platform down 15mm
M109 S220 ;Heat To temp
G92 E0                  ;zero the extruded length
G1 F200 E30              ;extrude 30mm of feed stock
G92 E0                  ;zero the extruded length again
G1 X175 Y25  Z0 F6000 ;remove bugger
G1 X220 F6000 ;remove bugger
G1 X150 Y150  Z15 F6000 ;recenter and begin
G1 F6000

;Layer count: 45
;LAYER:0
M106 S255
G0 F6000 X138.50 Y136.00 Z0.30
;TYPE:SKIRT
G1 F2700 X144.64 Y136.00 E0.38284
G1 X145.00 Y135.96 E0.40541
G1 X145.36 Y136.00 E0.42816
G1 X152.14 Y136.00 E0.85085
G1 X152.50 Y135.96 E0.87341
G1 X152.86 Y136.00 E0.89598
G1 X159.64 Y136.00 E1.31867
G1 X160.00 Y135.96 E1.34123
G1 X160.36 Y136.00 E1.36398
G1 X169.50 Y136.00 E1.93392
G1 X169.50 Y167.10 E3.87340
G1 X165.52 Y167.10 E4.12148
G1 X165.02 Y167.52 E4.16233
G1 X163.45 Y168.35 E4.27272
G1 X161.77 Y168.86 E4.38250
G1 X160.03 Y169.03 E4.49180
G1 X158.25 Y168.87 E4.60324
G1 X156.55 Y168.35 E4.71406
G1 X156.25 Y168.19 E4.73499
G1 X155.95 Y168.35 E4.75597
G1 X154.27 Y168.86 E4.86575
G1 X152.52 Y169.03 E4.97511
G1 X150.75 Y168.87 E5.08648
G1 X149.05 Y168.35 E5.19725
G1 X148.75 Y168.19 E5.21818
G1 X148.45 Y168.35 E5.23916
G1 X146.77 Y168.86 E5.34900
G1 X145.02 Y169.03 E5.45842
G1 X143.25 Y168.87 E5.56973
G1 X141.55 Y168.35 E5.68050
G1 X139.98 Y167.52 E5.79089
G1 X139.48 Y167.10 E5.83174
G1 X138.50 Y167.10 E5.89274
G1 X138.50 Y166.25 E5.94562
G1 X137.48 Y165.02 E6.04540
G1 X136.65 Y163.45 E6.15579
G1 X136.14 Y161.77 E6.26538
G1 X135.96 Y160.00 E6.37637
G1 X136.14 Y158.23 E6.48749
G1 X136.65 Y156.55 E6.59715
G1 X136.81 Y156.25 E6.61807
G1 X136.65 Y155.95 E6.63905
G1 X136.14 Y154.27 E6.74864
G1 X135.96 Y152.50 E6.85970
G1 X136.14 Y150.73 E6.97075
G1 X136.65 Y149.05 E7.08034
G1 X136.81 Y148.75 E7.10127
G1 X136.65 Y148.45 E7.12224
G1 X136.14 Y146.77 E7.23183
G1 X135.96 Y145.00 E7.34283
G1 X136.14 Y143.23 E7.45394
G1 X136.65 Y141.55 E7.56360
G1 X137.48 Y139.98 E7.67400
G1 X138.50 Y138.75 E7.77378
G1 X138.50 Y136.00 E7.94515
G0 F6000 X139.00 Y136.50
G1 F2700 X144.67 Y136.50 E8.29856
G1 X145.00 Y136.47 E8.31936
G1 X145.33 Y136.50 E8.34023
G1 X152.17 Y136.50 E8.76648
G1 X152.50 Y136.47 E8.78735
G1 X152.83 Y136.50 E8.80822
G1 X159.67 Y136.50 E9.23434
G1 X160.00 Y136.47 E9.25515
G1 X160.33 Y136.50 E9.27602
G1 X169.00 Y136.50 E9.81664
G1 X169.00 Y166.60 E11.69376
G1 X165.34 Y166.60 E11.92182
G1 X164.74 Y167.10 E11.97074
G1 X163.26 Y167.88 E12.07499
G1 X161.67 Y168.37 E12.17864
G1 X160.02 Y168.53 E12.28186
G1 X158.34 Y168.37 E12.38709
G1 X156.74 Y167.88 E12.49178
G1 X156.25 Y167.62 E12.52626
G1 X155.76 Y167.88 E12.56080
G1 X154.17 Y168.37 E12.66445
G1 X152.52 Y168.53 E12.76773
G1 X150.84 Y168.37 E12.87291
G1 X149.24 Y167.88 E12.97754
G1 X148.75 Y167.62 E13.01203
G1 X148.26 Y167.88 E13.04656
G1 X146.67 Y168.37 E13.15029
G1 X145.02 Y168.53 E13.25362
G1 X143.34 Y168.37 E13.35873
G1 X141.74 Y167.88 E13.46336
G1 X140.26 Y167.10 E13.56762
G1 X139.66 Y166.60 E13.61654
G1 X139.00 Y166.60 E13.65751
G1 X139.00 Y166.06 E13.69118
G1 X138.97 Y166.03 E13.69384
G1 X137.90 Y164.74 E13.79845
G1 X137.12 Y163.26 E13.90271
G1 X136.63 Y161.67 E14.00624
G1 X136.47 Y160.00 E14.11102
G1 X136.63 Y158.33 E14.21593
G1 X137.12 Y156.74 E14.31952
G1 X137.38 Y156.25 E14.35400
G1 X137.12 Y155.76 E14.38854
G1 X136.63 Y154.17 E14.49207
G1 X136.47 Y152.50 E14.59691
G1 X136.63 Y150.83 E14.70176
G1 X137.12 Y149.24 E14.80529
G1 X137.38 Y148.75 E14.83977
G1 X137.12 Y148.26 E14.87431
G1 X136.63 Y146.67 E14.97784
G1 X136.47 Y145.00 E15.08262
G1 X136.63 Y143.33 E15.18753
G1 X137.12 Y141.74 E15.29112
G1 X137.90 Y140.26 E15.39538
G1 X138.97 Y138.97 E15.49999
G1 X139.00 Y138.94 E15.50265
G1 X139.00 Y136.50 E15.65481
G0 F6000 X139.50 Y137.00
G1 F2700 X144.69 Y137.00 E15.97835
G1 X145.00 Y136.97 E15.99784
G1 X145.31 Y137.00 E16.01733
G1 X152.19 Y137.00 E16.44632
G1 X152.50 Y136.97 E16.46581
G1 X152.81 Y137.00 E16.48531
G1 X153.50 Y137.00 E16.52827
G1 X153.50 Y137.07 E16.53258
G1 X154.07 Y137.13 E16.56855
G1 X154.50 Y137.26 E16.59632
G1 X154.50 Y137.00 E16.61229
G1 X159.69 Y137.00 E16.93577
G1 X160.00 Y136.97 E16.95526
G1 X160.31 Y137.00 E16.97475
G1 X168.50 Y137.00 E17.48556
G1 X168.50 Y166.10 E19.30032
G1 X165.16 Y166.10 E19.50842
G1 X164.46 Y166.68 E19.56535
G1 X163.07 Y167.42 E19.66344
G1 X161.57 Y167.88 E19.76105
G1 X160.02 Y168.03 E19.85812
G1 X158.44 Y167.88 E19.95722
G1 X156.93 Y167.42 E20.05574
G1 X156.25 Y167.06 E20.10378
G1 X155.57 Y167.42 E20.15187
G1 X154.07 Y167.88 E20.24948
G1 X152.52 Y168.03 E20.34662
G1 X150.94 Y167.88 E20.44565
G1 X149.43 Y167.42 E20.54411
G1 X148.75 Y167.06 E20.59215
G1 X148.07 Y167.42 E20.64024
G1 X146.57 Y167.88 E20.73785
G1 X145.02 Y168.03 E20.83511
G1 X143.44 Y167.88 E20.93408
G1 X141.93 Y167.42 E21.03254
G1 X140.54 Y166.68 E21.13063
G1 X139.84 Y166.10 E21.18756
G1 X139.50 Y166.10 E21.20858
G1 X139.50 Y165.82 E21.22585
G1 X139.32 Y165.68 E21.24016
G1 X138.32 Y164.46 E21.33861
G1 X137.58 Y163.07 E21.43670
G1 X137.13 Y161.57 E21.53417
G1 X136.97 Y160.00 E21.63275
G1 X137.13 Y158.43 E21.73146
G1 X137.58 Y156.93 E21.82899
G1 X137.94 Y156.25 E21.87703
G1 X137.58 Y155.57 E21.92513
G1 X137.13 Y154.07 E22.02260
G1 X136.97 Y152.50 E22.12125
G1 X137.13 Y150.93 E22.21990
G1 X137.58 Y149.43 E22.31737
G1 X137.94 Y148.75 E22.36541
G1 X137.58 Y148.07 E22.41351
G1 X137.13 Y146.57 E22.51098
G1 X136.97 Y145.00 E22.60956
G1 X137.13 Y143.43 E22.70827
G1 X137.58 Y141.93 E22.80580
G1 X138.32 Y140.54 E22.90389
G1 X139.32 Y139.32 E23.00234
G1 X139.50 Y139.18 E23.01665
G1 X139.50 Y137.00 E23.15241
G0 F6000 X140.00 Y137.50
G1 F2700 X144.72 Y137.50 E23.44664
G1 X145.00 Y137.47 E23.46425
G1 X145.28 Y137.50 E23.48198
G1 X152.21 Y137.50 E23.91410
G1 X152.50 Y137.47 E23.93221
G1 X152.79 Y137.50 E23.95032
G1 X153.00 Y137.50 E23.96348
G1 X153.00 Y137.52 E23.96479
G1 X153.98 Y137.62 E24.02596
G1 X155.00 Y137.93 E24.09272
G1 X155.00 Y137.50 E24.11960
G1 X159.72 Y137.50 E24.41376
G1 X160.00 Y137.47 E24.43138
G1 X160.28 Y137.50 E24.44911
G1 X168.00 Y137.50 E24.93049
G1 X168.00 Y165.60 E26.68288
G1 X164.98 Y165.60 E26.87097
G1 X164.18 Y166.26 E26.93596
G1 X162.88 Y166.95 E27.02792
G1 X161.47 Y167.38 E27.11939
G1 X160.02 Y167.53 E27.21039
G1 X158.54 Y167.39 E27.30334
G1 X157.12 Y166.95 E27.39567
G1 X156.25 Y166.49 E27.45727
G1 X155.38 Y166.95 E27.51892
G1 X153.97 Y167.38 E27.61040
G1 X152.52 Y167.53 E27.70146
G1 X151.04 Y167.39 E27.79429
G1 X149.62 Y166.95 E27.88661
G1 X148.75 Y166.49 E27.94821
G1 X147.88 Y166.95 E28.00987
G1 X146.47 Y167.38 E28.10140
G1 X145.02 Y167.53 E28.19252
G1 X143.54 Y167.39 E28.28529
G1 X142.12 Y166.95 E28.37762
G1 X140.82 Y166.26 E28.46957
G1 X140.02 Y165.60 E28.53457
G1 X140.00 Y165.60 E28.53556
G1 X140.00 Y165.59 E28.53637
G1 X139.68 Y165.32 E28.56238
G1 X138.74 Y164.18 E28.65467
G1 X138.05 Y162.88 E28.74662
G1 X137.62 Y161.48 E28.83796
G1 X137.47 Y160.00 E28.93040
G1 X137.62 Y158.52 E29.02296
G1 X138.05 Y157.12 E29.11438
G1 X138.51 Y156.25 E29.17603
G1 X138.05 Y155.38 E29.23763
G1 X137.62 Y153.98 E29.32897
G1 X137.47 Y152.50 E29.42148
G1 X137.62 Y151.02 E29.51399
G1 X138.05 Y149.62 E29.60532
G1 X138.51 Y148.75 E29.66692
G1 X138.05 Y147.88 E29.72858
G1 X137.62 Y146.48 E29.81992
G1 X137.47 Y145.00 E29.91236
G1 X137.62 Y143.53 E30.00492
G1 X138.05 Y142.12 E30.09633
G1 X138.74 Y140.82 E30.18829
G1 X139.68 Y139.68 E30.28057
G1 X140.00 Y139.41 E30.30658
G1 X140.00 Y137.50 E30.42588
G0 F6000 X140.50 Y138.00
G1 F2700 X144.74 Y138.00 E30.69017
G1 X145.00 Y137.97 E30.70653
G1 X145.26 Y138.00 E30.72295
G1 X152.24 Y138.00 E31.15812
G1 X152.50 Y137.97 E31.17448
G1 X153.88 Y138.11 E31.26077
G1 X155.19 Y138.51 E31.34605
G1 X155.50 Y138.68 E31.36829
G1 X155.50 Y138.00 E31.41051
G1 X159.74 Y138.00 E31.67474
G1 X160.00 Y137.97 E31.69110
G1 X160.26 Y138.00 E31.70752
G1 X167.50 Y138.00 E32.15902
G1 X167.50 Y165.10 E33.84905
G1 X164.81 Y165.10 E34.01712
G1 X163.90 Y165.84 E34.09013
G1 X162.69 Y166.49 E34.17600
G1 X161.38 Y166.89 E34.26140
G1 X160.02 Y167.02 E34.34626
G1 X158.64 Y166.89 E34.43301
G1 X157.31 Y166.49 E34.51920
G1 X156.25 Y165.92 E34.59436
G1 X155.19 Y166.49 E34.66957
G1 X153.88 Y166.89 E34.75497
G1 X152.52 Y167.02 E34.83989
G1 X151.14 Y166.89 E34.92659
G1 X149.81 Y166.49 E35.01271
G1 X148.75 Y165.92 E35.08787
G1 X147.69 Y166.49 E35.16309
G1 X146.38 Y166.89 E35.24849
G1 X145.02 Y167.02 E35.33352
G1 X143.64 Y166.89 E35.42015
G1 X142.31 Y166.49 E35.50628
G1 X141.10 Y165.84 E35.59215
G1 X140.03 Y164.97 E35.67824
G1 X139.16 Y163.90 E35.76432
G1 X138.51 Y162.69 E35.85019
G1 X138.11 Y161.38 E35.93547
G1 X137.97 Y160.00 E36.02171
G1 X138.11 Y158.62 E36.10807
G1 X138.51 Y157.31 E36.19341
G1 X139.08 Y156.25 E36.26857
G1 X138.51 Y155.19 E36.34378
G1 X138.11 Y153.88 E36.42906
G1 X137.97 Y152.50 E36.51536
G1 X138.11 Y151.12 E36.60166
G1 X138.51 Y149.81 E36.68694
G1 X139.08 Y148.75 E36.76210
G1 X138.51 Y147.69 E36.83731
G1 X138.11 Y146.38 E36.92259
G1 X137.97 Y145.00 E37.00883
G1 X138.11 Y143.62 E37.09519
G1 X138.51 Y142.31 E37.18053
G1 X139.16 Y141.10 E37.26640
G1 X140.03 Y140.03 E37.35248
G1 X140.50 Y139.65 E37.39019
G1 X140.50 Y138.00 E37.49302
G0 F6000 X141.00 Y138.50
G1 F2700 X144.77 Y138.50 E37.72801
G1 X145.00 Y138.48 E37.74248
G1 X145.23 Y138.50 E37.75702
G1 X152.00 Y138.50 E38.17915
G1 X152.00 Y138.53 E38.18078
G1 X152.50 Y138.48 E38.21211
G1 X153.78 Y138.60 E38.29221
G1 X154.99 Y138.97 E38.37142
G1 X156.00 Y139.51 E38.44253
G1 X156.00 Y138.50 E38.50545
G1 X159.77 Y138.50 E38.74037
G1 X160.00 Y138.48 E38.75485
G1 X160.23 Y138.50 E38.76939
G1 X167.00 Y138.50 E39.19159
G1 X167.00 Y164.60 E40.81925
G1 X164.62 Y164.60 E40.96755
G1 X164.61 Y164.61 E40.96853
G1 X163.62 Y165.43 E41.04846
G1 X162.49 Y166.03 E41.12819
G1 X161.28 Y166.40 E41.20747
G1 X160.02 Y166.52 E41.28631
G1 X158.73 Y166.40 E41.36686
G1 X157.51 Y166.03 E41.44685
G1 X156.38 Y165.43 E41.52659
G1 X156.25 Y165.32 E41.53686
G1 X156.12 Y165.43 E41.54719
G1 X154.99 Y166.03 E41.62692
G1 X153.78 Y166.40 E41.70620
G1 X152.52 Y166.52 E41.78504
G1 X151.23 Y166.40 E41.86559
G1 X150.01 Y166.03 E41.94552
G1 X148.88 Y165.43 E42.02526
G1 X148.75 Y165.32 E42.03553
G1 X148.62 Y165.43 E42.04586
G1 X147.49 Y166.03 E42.12559
G1 X146.28 Y166.40 E42.20493
G1 X145.02 Y166.52 E42.28383
G1 X143.73 Y166.40 E42.36432
G1 X142.51 Y166.03 E42.44425
G1 X141.38 Y165.43 E42.52399
G1 X140.39 Y164.61 E42.60392
G1 X139.57 Y163.62 E42.68384
G1 X138.97 Y162.49 E42.76358
G1 X138.60 Y161.28 E42.84278
G1 X138.48 Y160.00 E42.92281
G1 X138.60 Y158.72 E43.00303
G1 X138.97 Y157.51 E43.08224
G1 X139.57 Y156.38 E43.16197
G1 X139.68 Y156.25 E43.17225
G1 X139.57 Y156.12 E43.18257
G1 X138.97 Y154.99 E43.26230
G1 X138.60 Y153.78 E43.34151
G1 X138.48 Y152.50 E43.42161
G1 X138.60 Y151.22 E43.50171
G1 X138.97 Y150.01 E43.58091
G1 X139.57 Y148.88 E43.66064
G1 X139.68 Y148.75 E43.67092
G1 X139.57 Y148.62 E43.68125
G1 X138.97 Y147.49 E43.76098
G1 X138.60 Y146.28 E43.84018
G1 X138.48 Y145.00 E43.92021
G1 X138.60 Y143.72 E44.00043
G1 X138.97 Y142.51 E44.07964
G1 X139.57 Y141.38 E44.15937
G1 X140.39 Y140.39 E44.23930
G1 X141.00 Y139.88 E44.28870
G1 X141.00 Y138.50 E44.37507
G0 F6000 X141.50 Y139.00
G1 F2700 X144.79 Y139.00 E44.58018
G1 X145.00 Y138.98 E44.59335
G1 X145.21 Y139.00 E44.60663
G1 X151.50 Y139.00 E44.99883
G1 X151.50 Y139.08 E45.00376
G1 X152.50 Y138.98 E45.06643
G1 X153.68 Y139.10 E45.14039
G1 X154.80 Y139.44 E45.21346
G1 X155.84 Y139.99 E45.28705
G1 X156.25 Y140.33 E45.31988
G1 X156.50 Y140.12 E45.34017
G1 X156.50 Y139.00 E45.41001
G1 X159.79 Y139.00 E45.61506
G1 X160.00 Y138.98 E45.62823
G1 X160.21 Y139.00 E45.64151
G1 X166.50 Y139.00 E46.03377
G1 X166.50 Y164.10 E47.59908
G1 X164.38 Y164.10 E47.73104
G1 X164.26 Y164.26 E47.74362
G1 X163.34 Y165.01 E47.81739
G1 X162.30 Y165.56 E47.89098
G1 X161.18 Y165.90 E47.96419
G1 X160.02 Y166.02 E48.03689
G1 X158.83 Y165.91 E48.11130
G1 X157.70 Y165.56 E48.18510
G1 X156.66 Y165.01 E48.25870
G1 X156.25 Y164.67 E48.29152
G1 X155.84 Y165.01 E48.32440
G1 X154.80 Y165.56 E48.39799
G1 X153.68 Y165.90 E48.47120
G1 X152.52 Y166.02 E48.54390
G1 X151.33 Y165.91 E48.61825
G1 X150.20 Y165.56 E48.69205
G1 X149.16 Y165.01 E48.76565
G1 X148.75 Y164.67 E48.79847
G1 X148.34 Y165.01 E48.83134
G1 X147.30 Y165.56 E48.90494
G1 X146.18 Y165.90 E48.97815
G1 X145.02 Y166.02 E49.05097
G1 X143.83 Y165.91 E49.12526
G1 X142.70 Y165.56 E49.19906
G1 X141.66 Y165.01 E49.27266
G1 X140.74 Y164.26 E49.34642
G1 X139.99 Y163.34 E49.42018
G1 X139.44 Y162.30 E49.49378
G1 X139.10 Y161.18 E49.56685
G1 X138.98 Y160.00 E49.64074
G1 X139.10 Y158.82 E49.71476
G1 X139.44 Y157.70 E49.78790
G1 X139.99 Y156.66 E49.86150
G1 X140.33 Y156.25 E49.89433
G1 X139.99 Y155.84 E49.92720
G1 X139.44 Y154.80 E50.00079
G1 X139.10 Y153.68 E50.07387
G1 X138.98 Y152.50 E50.14782
G1 X139.10 Y151.32 E50.22178
G1 X139.44 Y150.20 E50.29485
G1 X139.99 Y149.16 E50.36844
G1 X140.33 Y148.75 E50.40127
G1 X139.99 Y148.34 E50.43414
G1 X139.44 Y147.30 E50.50774
G1 X139.10 Y146.18 E50.58081
G1 X138.98 Y145.00 E50.65470
G1 X139.10 Y143.82 E50.72871
G1 X139.44 Y142.70 E50.80186
G1 X139.99 Y141.66 E50.87546
G1 X140.74 Y140.74 E50.94922
G1 X141.50 Y140.12 E51.01031
G1 X141.50 Y139.00 E51.08022
G0 F6000 X142.00 Y139.50
G1 F2700 X144.81 Y139.50 E51.25540
G1 X145.00 Y139.48 E51.26731
G1 X145.19 Y139.50 E51.27922
G1 X151.00 Y139.50 E51.64161
G1 X151.00 Y139.72 E51.65514
G1 X151.42 Y139.59 E51.68246
G1 X152.50 Y139.48 E51.75021
G1 X153.58 Y139.59 E51.81796
G1 X154.61 Y139.90 E51.88499
G1 X155.56 Y140.41 E51.95242
G1 X156.25 Y140.97 E52.00781
G1 X156.94 Y140.41 E52.06314
G1 X157.00 Y140.38 E52.06774
G1 X157.00 Y139.50 E52.12231
G1 X159.81 Y139.50 E52.29743
G1 X160.00 Y139.48 E52.30933
G1 X160.19 Y139.50 E52.32124
G1 X166.00 Y139.50 E52.68370
G1 X166.00 Y148.60 E53.25120
G1 X164.15 Y148.60 E53.36657
G1 X164.07 Y148.70 E53.37463
G1 X166.00 Y148.70 E53.49512
G1 X166.00 Y163.60 E54.42432
G1 X164.15 Y163.60 E54.53976
G1 X163.90 Y163.90 E54.56408
G1 X163.06 Y164.59 E54.63169
G1 X162.11 Y165.10 E54.69911
G1 X161.08 Y165.41 E54.76621
G1 X160.02 Y165.52 E54.83282
G1 X158.93 Y165.41 E54.90103
G1 X157.89 Y165.10 E54.96872
G1 X156.94 Y164.59 E55.03614
G1 X156.25 Y164.03 E55.09148
G1 X155.56 Y164.59 E55.14686
G1 X154.61 Y165.10 E55.21429
G1 X153.58 Y165.41 E55.28138
G1 X152.52 Y165.52 E55.34807
G1 X151.43 Y165.41 E55.41622
G1 X150.39 Y165.10 E55.48384
G1 X149.44 Y164.59 E55.55127
G1 X148.75 Y164.03 E55.60661
G1 X148.06 Y164.59 E55.66199
G1 X147.11 Y165.10 E55.72942
G1 X146.08 Y165.41 E55.79657
G1 X145.02 Y165.52 E55.86325
G1 X143.93 Y165.41 E55.93140
G1 X142.89 Y165.10 E55.99902
G1 X141.94 Y164.59 E56.06645
G1 X141.10 Y163.90 E56.13406
G1 X140.41 Y163.06 E56.20167
G1 X139.90 Y162.11 E56.26910
G1 X139.59 Y161.08 E56.33613
G1 X139.48 Y160.00 E56.40382
G1 X139.59 Y158.92 E56.47163
G1 X139.90 Y157.89 E56.53872
G1 X140.41 Y156.94 E56.60615
G1 X140.97 Y156.25 E56.66148
G1 X140.41 Y155.56 E56.71687
G1 X139.90 Y154.61 E56.78430
G1 X139.59 Y153.58 E56.85133
G1 X139.48 Y152.50 E56.91908
G1 X139.59 Y151.42 E56.98683
G1 X139.90 Y150.39 E57.05386
G1 X140.41 Y149.44 E57.12129
G1 X140.97 Y148.75 E57.17663
G1 X140.41 Y148.06 E57.23201
G1 X139.90 Y147.11 E57.29944
G1 X139.59 Y146.08 E57.36647
G1 X139.48 Y145.00 E57.43416
G1 X139.59 Y143.92 E57.50197
G1 X139.90 Y142.89 E57.56906
G1 X140.41 Y141.94 E57.63649
G1 X141.10 Y141.10 E57.70410
G1 X141.94 Y140.41 E57.77171
G1 X142.00 Y140.38 E57.77623
G1 X142.00 Y139.50 E57.83086
G0 F6000 X142.50 Y140.00
G1 F2700 X144.84 Y140.00 E57.97679
G1 X145.00 Y139.98 E57.98681
G1 X145.16 Y140.00 E57.99684
G1 X150.50 Y140.00 E58.32986
G1 X150.50 Y140.41 E58.35549
G1 X150.58 Y140.37 E58.36135
G1 X151.52 Y140.08 E58.42231
G1 X152.50 Y139.98 E58.48385
G1 X153.48 Y140.08 E58.54540
G1 X154.42 Y140.37 E58.60635
G1 X155.28 Y140.83 E58.66764
G1 X156.05 Y141.45 E58.72910
G1 X156.25 Y141.70 E58.74907
G1 X156.45 Y141.45 E58.76901
G1 X157.21 Y140.83 E58.83046
G1 X157.50 Y140.68 E58.85066
G1 X157.50 Y140.00 E58.89282
G1 X159.84 Y140.00 E59.03869
G1 X160.00 Y139.98 E59.04871
G1 X160.16 Y140.00 E59.05874
G1 X165.50 Y140.00 E59.39182
G1 X165.50 Y148.10 E59.89696
G1 X163.91 Y148.10 E59.99587
G1 X163.55 Y148.55 E60.03197
G1 X163.30 Y148.75 E60.05195
G1 X163.55 Y148.95 E60.07189
G1 X163.75 Y149.20 E60.09174
G1 X165.50 Y149.20 E60.20100
G1 X165.50 Y163.10 E61.06784
G1 X163.91 Y163.10 E61.16681
G1 X163.55 Y163.55 E61.20283
G1 X162.78 Y164.17 E61.26428
G1 X161.92 Y164.63 E61.32558
G1 X160.98 Y164.92 E61.38659
G1 X160.02 Y165.01 E61.44707
G1 X159.03 Y164.92 E61.50914
G1 X158.08 Y164.63 E61.57063
G1 X157.21 Y164.17 E61.63193
G1 X156.45 Y163.55 E61.69338
G1 X156.25 Y163.30 E61.71332
G1 X156.05 Y163.55 E61.73329
G1 X155.28 Y164.17 E61.79475
G1 X154.42 Y164.63 E61.85604
G1 X153.48 Y164.92 E61.91705
G1 X152.51 Y165.01 E61.97759
G1 X151.53 Y164.92 E62.03954
G1 X150.58 Y164.63 E62.10103
G1 X149.72 Y164.17 E62.16232
G1 X148.95 Y163.55 E62.22378
G1 X148.75 Y163.30 E62.24371
G1 X148.55 Y163.55 E62.26369
G1 X147.79 Y164.17 E62.32514
G1 X146.92 Y164.63 E62.38644
G1 X145.98 Y164.92 E62.44747
G1 X145.01 Y165.01 E62.50807
G1 X144.03 Y164.92 E62.57001
G1 X143.08 Y164.63 E62.63150
G1 X142.22 Y164.17 E62.69280
G1 X141.45 Y163.55 E62.75425
G1 X140.83 Y162.78 E62.81570
G1 X140.37 Y161.92 E62.87699
G1 X140.08 Y160.98 E62.93795
G1 X139.98 Y160.00 E62.99949
G1 X140.08 Y159.02 E63.06110
G1 X140.37 Y158.08 E63.12206
G1 X140.83 Y157.21 E63.18335
G1 X141.45 Y156.45 E63.24480
G1 X141.70 Y156.25 E63.26478
G1 X141.45 Y156.05 E63.28472
G1 X140.83 Y155.28 E63.34617
G1 X140.37 Y154.42 E63.40746
G1 X140.08 Y153.48 E63.46842
G1 X139.98 Y152.50 E63.52996
G1 X140.08 Y151.52 E63.59151
G1 X140.37 Y150.58 E63.65247
G1 X140.83 Y149.72 E63.71376
G1 X141.45 Y148.95 E63.77521
G1 X141.70 Y148.75 E63.79515
G1 X141.45 Y148.55 E63.81512
G1 X140.83 Y147.79 E63.87658
G1 X140.37 Y146.92 E63.93787
G1 X140.08 Y145.98 E63.99883
G1 X139.98 Y145.00 E64.06037
G1 X140.08 Y144.02 E64.12198
G1 X140.37 Y143.08 E64.18293
G1 X140.83 Y142.22 E64.24423
G1 X141.45 Y141.45 E64.30568
G1 X142.22 Y140.83 E64.36713
G1 X142.50 Y140.68 E64.38724
G1 X142.50 Y140.00 E64.42946
G0 F6000 X143.00 Y140.50
G1 F2700 X144.86 Y140.50 E64.54540
G1 X145.00 Y140.49 E64.55423
G1 X145.14 Y140.50 E64.56307
G1 X150.00 Y140.50 E64.86609
G1 X150.00 Y141.24 E64.91242
G1 X150.78 Y140.83 E64.96716
G1 X151.62 Y140.57 E65.02200
G1 X152.50 Y140.49 E65.07740
G1 X153.38 Y140.57 E65.13280
G1 X154.22 Y140.83 E65.18765
G1 X155.01 Y141.25 E65.24280
G1 X155.69 Y141.81 E65.29810
G1 X156.25 Y142.49 E65.35299
G1 X156.81 Y141.81 E65.40785
G1 X157.49 Y141.25 E65.46314
G1 X158.00 Y140.98 E65.49894
G1 X158.00 Y140.50 E65.52868
G1 X159.86 Y140.50 E65.64455
G1 X160.00 Y140.49 E65.65339
G1 X160.14 Y140.50 E65.66223
G1 X165.00 Y140.50 E65.96531
G1 X165.00 Y147.60 E66.40809
G1 X163.68 Y147.60 E66.49053
G1 X163.19 Y148.19 E66.53833
G1 X162.51 Y148.75 E66.59323
G1 X163.19 Y149.31 E66.64809
G1 X163.51 Y149.70 E66.67964
G1 X165.00 Y149.70 E66.77243
G1 X165.00 Y162.60 E67.57691
G1 X163.68 Y162.60 E67.65942
G1 X163.19 Y163.19 E67.70713
G1 X162.51 Y163.75 E67.76243
G1 X161.72 Y164.17 E67.81758
G1 X160.88 Y164.43 E67.87249
G1 X160.01 Y164.51 E67.92688
G1 X159.12 Y164.43 E67.98276
G1 X158.27 Y164.17 E68.03811
G1 X157.49 Y163.75 E68.09326
G1 X156.81 Y163.19 E68.14856
G1 X156.25 Y162.51 E68.20346
G1 X155.69 Y163.19 E68.25831
G1 X155.01 Y163.75 E68.31361
G1 X154.22 Y164.17 E68.36876
G1 X153.38 Y164.43 E68.42366
G1 X152.51 Y164.51 E68.47812
G1 X151.62 Y164.43 E68.53393
G1 X150.78 Y164.17 E68.58923
G1 X149.99 Y163.75 E68.64438
G1 X149.31 Y163.19 E68.69968
G1 X148.82 Y162.60 E68.74740
G1 X148.68 Y162.60 E68.75650
G1 X148.19 Y163.19 E68.80418
G1 X147.51 Y163.75 E68.85948
G1 X146.73 Y164.17 E68.91463
G1 X145.88 Y164.43 E68.96959
G1 X145.01 Y164.51 E69.02405
G1 X144.12 Y164.43 E69.07986
G1 X143.28 Y164.17 E69.13516
G1 X142.49 Y163.75 E69.19031
G1 X141.81 Y163.19 E69.24561
G1 X141.25 Y162.51 E69.30090
G1 X140.83 Y161.72 E69.35606
G1 X140.57 Y160.88 E69.41090
G1 X140.49 Y160.00 E69.46630
G1 X140.57 Y159.12 E69.52170
G1 X140.83 Y158.27 E69.57660
G1 X141.25 Y157.49 E69.63175
G1 X141.81 Y156.81 E69.68705
G1 X142.49 Y156.25 E69.74191
G1 X141.81 Y155.69 E69.79680
G1 X141.25 Y155.01 E69.85210
G1 X140.83 Y154.22 E69.90725
G1 X140.57 Y153.38 E69.96209
G1 X140.49 Y152.50 E70.01749
G1 X140.57 Y151.62 E70.07290
G1 X140.83 Y150.78 E70.12774
G1 X141.25 Y149.99 E70.18289
G1 X141.81 Y149.31 E70.23819
G1 X142.49 Y148.75 E70.29304
G1 X141.81 Y148.19 E70.34794
G1 X141.25 Y147.51 E70.40324
G1 X140.83 Y146.73 E70.45839
G1 X140.57 Y145.88 E70.51323
G1 X140.49 Y145.00 E70.56863
G1 X140.57 Y144.12 E70.62403
G1 X140.83 Y143.28 E70.67893
G1 X141.25 Y142.49 E70.73409
G1 X141.81 Y141.81 E70.78938
G1 X142.49 Y141.25 E70.84468
G1 X143.00 Y140.98 E70.88042
G1 X143.00 Y140.50 E70.91016
G0 F6000 X143.50 Y141.00
G1 F2700 X144.89 Y141.00 E70.99679
G1 X145.00 Y140.99 E71.00374
G1 X145.11 Y141.00 E71.01070
G1 X149.50 Y141.00 E71.28441
G1 X149.50 Y142.36 E71.36947
G1 X149.66 Y142.16 E71.38560
G1 X150.27 Y141.66 E71.43474
G1 X150.97 Y141.29 E71.48376
G1 X151.72 Y141.07 E71.53252
G1 X152.50 Y140.99 E71.58172
G1 X153.28 Y141.07 E71.63092
G1 X154.03 Y141.29 E71.67968
G1 X154.73 Y141.66 E71.72870
G1 X155.34 Y142.16 E71.77784
G1 X155.84 Y142.77 E71.82698
G1 X156.21 Y143.47 E71.87600
G1 X156.25 Y143.61 E71.88550
G1 X156.29 Y143.47 E71.89503
G1 X156.66 Y142.77 E71.94405
G1 X157.16 Y142.16 E71.99319
G1 X157.77 Y141.66 E72.04233
G1 X158.47 Y141.29 E72.09135
G1 X158.50 Y141.28 E72.09356
G1 X158.50 Y141.00 E72.11133
G1 X159.89 Y141.00 E72.19789
G1 X160.00 Y140.99 E72.20484
G1 X160.11 Y141.00 E72.21180
G1 X164.50 Y141.00 E72.48557
G1 X164.50 Y147.10 E72.86599
G1 X163.40 Y147.10 E72.93434
G1 X163.34 Y147.23 E72.94337
G1 X162.84 Y147.84 E72.99251
G1 X162.23 Y148.34 E73.04165
G1 X161.53 Y148.71 E73.09067
G1 X161.39 Y148.75 E73.10018
G1 X161.53 Y148.79 E73.10971
G1 X162.23 Y149.16 E73.15872
G1 X162.84 Y149.66 E73.20786
G1 X163.28 Y150.20 E73.25111
G1 X164.50 Y150.20 E73.32744
G1 X164.50 Y162.10 E74.06956
G1 X163.40 Y162.10 E74.13791
G1 X163.34 Y162.23 E74.14689
G1 X162.84 Y162.84 E74.19603
G1 X162.23 Y163.34 E74.24517
G1 X161.53 Y163.71 E74.29419
G1 X160.78 Y163.93 E74.34301
G1 X160.01 Y164.01 E74.39133
G1 X159.22 Y163.94 E74.44100
G1 X158.47 Y163.71 E74.49016
G1 X157.77 Y163.34 E74.53918
G1 X157.16 Y162.84 E74.58831
G1 X156.66 Y162.23 E74.63745
G1 X156.29 Y161.53 E74.68647
G1 X156.25 Y161.39 E74.69600
G1 X156.21 Y161.53 E74.70551
G1 X155.84 Y162.23 E74.75453
G1 X155.34 Y162.84 E74.80367
G1 X154.73 Y163.34 E74.85280
G1 X154.03 Y163.71 E74.90182
G1 X153.28 Y163.93 E74.95065
G1 X152.51 Y164.01 E74.99897
G1 X151.72 Y163.94 E75.04858
G1 X150.97 Y163.71 E75.09774
G1 X150.27 Y163.34 E75.14676
G1 X149.66 Y162.84 E75.19590
G1 X149.16 Y162.23 E75.24504
G1 X149.10 Y162.10 E75.25402
G1 X148.41 Y162.10 E75.29711
G1 X148.34 Y162.23 E75.30610
G1 X147.84 Y162.84 E75.35524
G1 X147.23 Y163.34 E75.40438
G1 X146.53 Y163.71 E75.45339
G1 X145.78 Y163.93 E75.50222
G1 X145.01 Y164.01 E75.55060
G1 X144.22 Y163.94 E75.60020
G1 X143.47 Y163.71 E75.64936
G1 X142.77 Y163.34 E75.69838
G1 X142.16 Y162.84 E75.74752
G1 X141.66 Y162.23 E75.79666
G1 X141.29 Y161.53 E75.84568
G1 X141.07 Y160.78 E75.89444
G1 X140.99 Y160.00 E75.94364
G1 X141.07 Y159.21 E75.99290
G1 X141.29 Y158.47 E76.04166
G1 X141.66 Y157.77 E76.09068
G1 X142.16 Y157.16 E76.13982
G1 X142.77 Y156.66 E76.18896
G1 X143.47 Y156.29 E76.23798
G1 X143.50 Y156.28 E76.24013
G1 X143.50 Y156.22 E76.24443
G1 X143.47 Y156.21 E76.24658
G1 X142.77 Y155.84 E76.29560
G1 X142.16 Y155.34 E76.34474
G1 X141.66 Y154.73 E76.39387
G1 X141.29 Y154.03 E76.44289
G1 X141.07 Y153.28 E76.49166
G1 X140.99 Y152.50 E76.54085
G1 X141.07 Y151.72 E76.59005
G1 X141.29 Y150.97 E76.63882
G1 X141.66 Y150.27 E76.68783
G1 X142.16 Y149.66 E76.73697
G1 X142.77 Y149.16 E76.78611
G1 X143.47 Y148.79 E76.83513
G1 X143.61 Y148.75 E76.84464
G1 X143.47 Y148.71 E76.85417
G1 X142.77 Y148.34 E76.90318
G1 X142.16 Y147.84 E76.95232
G1 X141.66 Y147.23 E77.00146
G1 X141.29 Y146.53 E77.05048
G1 X141.07 Y145.79 E77.09925
G1 X140.99 Y145.00 E77.14844
G1 X141.07 Y144.22 E77.19770
G1 X141.29 Y143.47 E77.24647
G1 X141.66 Y142.77 E77.29548
G1 X142.16 Y142.16 E77.34462
G1 X142.77 Y141.66 E77.39376
G1 X143.47 Y141.29 E77.44278
G1 X143.50 Y141.28 E77.44493
G1 X143.50 Y141.00 E77.46270
G0 F6000 X144.00 Y141.50
G1 F2700 X144.91 Y141.50 E77.51951
G1 X145.00 Y141.49 E77.52509
G1 X145.09 Y141.50 E77.53073
G1 X149.00 Y141.50 E77.77457
G1 X149.00 Y144.91 E77.98729
G1 X149.06 Y144.31 E78.02471
G1 X149.26 Y143.66 E78.06740
G1 X149.58 Y143.05 E78.11028
G1 X150.02 Y142.52 E78.15326
G1 X150.55 Y142.08 E78.19623
G1 X151.16 Y141.76 E78.23911
G1 X151.81 Y141.56 E78.28180
G1 X152.50 Y141.49 E78.32480
G1 X153.19 Y141.56 E78.36779
G1 X153.84 Y141.76 E78.41049
G1 X154.45 Y142.08 E78.45337
G1 X154.98 Y142.52 E78.49634
G1 X155.42 Y143.05 E78.53932
G1 X155.74 Y143.66 E78.58220
G1 X155.94 Y144.31 E78.62489
G1 X156.01 Y145.00 E78.66788
G1 X155.94 Y145.69 E78.71094
G1 X155.74 Y146.34 E78.75363
G1 X155.42 Y146.95 E78.79651
G1 X154.98 Y147.48 E78.83949
G1 X154.45 Y147.92 E78.88246
G1 X153.84 Y148.24 E78.92534
G1 X153.18 Y148.44 E78.96823
G1 X152.51 Y148.51 E79.01027
G1 X151.82 Y148.44 E79.05361
G1 X151.16 Y148.24 E79.09670
G1 X150.55 Y147.92 E79.13958
G1 X150.02 Y147.48 E79.18255
G1 X149.58 Y146.95 E79.22553
G1 X149.26 Y146.34 E79.26841
G1 X149.06 Y145.69 E79.31110
G1 X149.00 Y145.09 E79.34851
G1 X149.00 Y146.60 E79.44268
G1 X148.10 Y146.60 E79.49850
G1 X147.92 Y146.95 E79.52316
G1 X147.48 Y147.48 E79.56613
G1 X146.95 Y147.92 E79.60911
G1 X146.34 Y148.24 E79.65199
G1 X145.68 Y148.44 E79.69488
G1 X145.01 Y148.51 E79.73698
G1 X144.32 Y148.44 E79.78032
G1 X143.66 Y148.24 E79.82341
G1 X143.05 Y147.92 E79.86629
G1 X142.52 Y147.48 E79.90926
G1 X142.08 Y146.95 E79.95223
G1 X141.76 Y146.34 E79.99511
G1 X141.56 Y145.69 E80.03781
G1 X141.49 Y145.00 E80.08080
G1 X141.56 Y144.31 E80.12386
G1 X141.76 Y143.66 E80.16655
G1 X142.08 Y143.05 E80.20943
G1 X142.52 Y142.52 E80.25241
G1 X143.05 Y142.08 E80.29538
G1 X143.66 Y141.76 E80.33826
G1 X144.00 Y141.66 E80.36049
G1 X144.00 Y141.50 E80.37016
G0 F6000 X144.41 Y142.05
G1 F2700 X144.50 Y142.04 E80.37568
G1 X144.50 Y142.00 E80.37836
G1 X144.94 Y142.00 E80.40574
G1 X145.00 Y141.99 E80.40956
G1 X145.06 Y142.00 E80.41338
G1 X148.50 Y142.00 E80.62785
G1 X148.50 Y146.10 E80.88353
G1 X147.79 Y146.10 E80.92769
G1 X147.78 Y146.15 E80.93094
G1 X147.50 Y146.67 E80.96765
G1 X147.13 Y147.13 E81.00447
G1 X146.67 Y147.50 E81.04129
G1 X146.15 Y147.78 E81.07800
G1 X145.59 Y147.95 E81.11478
G1 X145.01 Y148.00 E81.15080
G1 X144.42 Y147.95 E81.18800
G1 X143.85 Y147.78 E81.22490
G1 X143.33 Y147.50 E81.26162
G1 X142.88 Y147.13 E81.29844
G1 X142.50 Y146.67 E81.33525
G1 X142.22 Y146.15 E81.37197
G1 X142.05 Y145.59 E81.40856
G1 X141.99 Y145.00 E81.44541
G1 X142.05 Y144.41 E81.48226
G1 X142.22 Y143.85 E81.51891
G1 X142.50 Y143.33 E81.55562
G1 X142.88 Y142.88 E81.59244
G1 X143.33 Y142.50 E81.62926
G1 X143.85 Y142.22 E81.66597
G1 X144.41 Y142.05 E81.70256
G0 F6000 X144.51 Y142.54
G1 F2700 X145.00 Y142.50 E81.73321
G1 X145.04 Y142.50 E81.73572
G1 X148.00 Y142.50 E81.92031
G1 X148.00 Y145.60 E82.11364
G1 X147.42 Y145.60 E82.14968
G1 X147.31 Y145.96 E82.17302
G1 X147.08 Y146.39 E82.20360
G1 X146.77 Y146.77 E82.23426
G1 X146.39 Y147.08 E82.26492
G1 X145.96 Y147.31 E82.29550
G1 X145.49 Y147.46 E82.32608
G1 X145.01 Y147.50 E82.35608
G1 X144.51 Y147.46 E82.38714
G1 X144.04 Y147.31 E82.41786
G1 X143.61 Y147.08 E82.44843
G1 X143.23 Y146.77 E82.47910
G1 X142.92 Y146.39 E82.50976
G1 X142.69 Y145.96 E82.54034
G1 X142.54 Y145.49 E82.57085
G1 X142.50 Y145.00 E82.60150
G1 X142.54 Y144.51 E82.63221
G1 X142.69 Y144.04 E82.66273
G1 X142.92 Y143.61 E82.69331
G1 X143.23 Y143.23 E82.72397
G1 X143.61 Y142.92 E82.75463
G1 X144.04 Y142.69 E82.78521
G1 X144.51 Y142.54 E82.81572
G0 F6000 X144.61 Y143.04
G1 F2700 X145.00 Y143.00 E82.84017
G1 X145.39 Y143.04 E82.86467
G1 X145.50 Y143.07 E82.87177
G1 X145.50 Y143.00 E82.87620
G1 X147.50 Y143.00 E83.00093
G1 X147.50 Y145.10 E83.13189
G1 X146.99 Y145.10 E83.16363
G1 X146.96 Y145.39 E83.18186
G1 X146.85 Y145.77 E83.20631
G1 X146.66 Y146.11 E83.23074
G1 X146.42 Y146.42 E83.25525
G1 X146.11 Y146.66 E83.27976
G1 X145.77 Y146.85 E83.30420
G1 X145.39 Y146.96 E83.32864
G1 X145.01 Y147.00 E83.35257
G1 X144.61 Y146.96 E83.37749
G1 X144.24 Y146.85 E83.40201
G1 X143.89 Y146.66 E83.42645
G1 X143.59 Y146.42 E83.45096
G1 X143.34 Y146.11 E83.47547
G1 X143.15 Y145.77 E83.49990
G1 X143.04 Y145.39 E83.52435
G1 X143.00 Y145.00 E83.54879
G1 X143.04 Y144.61 E83.57329
G1 X143.15 Y144.24 E83.59774
G1 X143.34 Y143.89 E83.62218
G1 X143.59 Y143.59 E83.64668
G1 X143.89 Y143.34 E83.67119
G1 X144.24 Y143.15 E83.69563
G1 X144.61 Y143.04 E83.72007
G0 F6000 X145.00 Y148.99
G1 F2700 X145.69 Y149.06 E83.76313
G1 X146.34 Y149.26 E83.80582
G1 X146.95 Y149.58 E83.84870
G1 X147.48 Y150.02 E83.89167
G1 X147.92 Y150.55 E83.93465
G1 X148.00 Y150.70 E83.94511
G1 X149.00 Y150.70 E84.00760
G1 X149.00 Y152.41 E84.11430
G1 X149.06 Y151.81 E84.15172
G1 X149.26 Y151.16 E84.19441
G1 X149.58 Y150.55 E84.23729
G1 X150.02 Y150.02 E84.28027
G1 X150.55 Y149.58 E84.32324
G1 X151.16 Y149.26 E84.36612
G1 X151.81 Y149.06 E84.40881
G1 X152.50 Y148.99 E84.45181
G1 X153.19 Y149.06 E84.49480
G1 X153.84 Y149.26 E84.53750
G1 X154.45 Y149.58 E84.58038
G1 X154.98 Y150.02 E84.62335
G1 X155.42 Y150.55 E84.66632
G1 X155.74 Y151.16 E84.70920
G1 X155.94 Y151.81 E84.75190
G1 X156.01 Y152.50 E84.79489
G1 X155.94 Y153.19 E84.83789
G1 X155.74 Y153.84 E84.88058
G1 X155.42 Y154.45 E84.92346
G1 X154.98 Y154.98 E84.96643
G1 X154.45 Y155.42 E85.00941
G1 X153.84 Y155.74 E85.05229
G1 X153.19 Y155.94 E85.09498
G1 X152.51 Y156.01 E85.13722
G1 X151.82 Y155.94 E85.18069
G1 X151.16 Y155.74 E85.22366
G1 X150.55 Y155.42 E85.26654
G1 X150.02 Y154.98 E85.30951
G1 X149.58 Y154.45 E85.35248
G1 X149.26 Y153.84 E85.39536
G1 X149.06 Y153.19 E85.43806
G1 X149.00 Y152.59 E85.47547
G1 X149.00 Y155.80 E85.67572
G1 X146.15 Y155.80 E85.85358
G1 X145.69 Y155.94 E85.88362
G1 X145.01 Y156.01 E85.92593
G1 X144.32 Y155.94 E85.96940
G1 X143.66 Y155.74 E86.01236
G1 X143.05 Y155.42 E86.05524
G1 X142.52 Y154.98 E86.09822
G1 X142.08 Y154.45 E86.14119
G1 X141.76 Y153.84 E86.18407
G1 X141.56 Y153.19 E86.22676
G1 X141.49 Y152.50 E86.26976
G1 X141.56 Y151.81 E86.31276
G1 X141.76 Y151.16 E86.35545
G1 X142.08 Y150.55 E86.39833
G1 X142.52 Y150.02 E86.44130
G1 X143.05 Y149.58 E86.48428
G1 X143.66 Y149.26 E86.52716
G1 X144.31 Y149.06 E86.56985
G1 X145.00 Y148.99 E86.61284
G0 F6000 X145.00 Y149.49
G1 F2700 X145.59 Y149.55 E86.64969
G1 X146.15 Y149.72 E86.68634
G1 X146.67 Y150.00 E86.72306
G1 X147.13 Y150.38 E86.75988
G1 X147.50 Y150.83 E86.79669
G1 X147.70 Y151.20 E86.82275
G1 X148.50 Y151.20 E86.87283
G1 X148.50 Y155.30 E87.12851
G1 X146.07 Y155.30 E87.27993
G1 X145.59 Y155.45 E87.31149
G1 X145.01 Y155.50 E87.34765
G1 X144.41 Y155.45 E87.38499
G1 X143.85 Y155.28 E87.42178
G1 X143.33 Y155.00 E87.45849
G1 X142.88 Y154.62 E87.49531
G1 X142.50 Y154.17 E87.53213
G1 X142.22 Y153.65 E87.56884
G1 X142.05 Y153.09 E87.60543
G1 X141.99 Y152.50 E87.64228
G1 X142.05 Y151.91 E87.67913
G1 X142.22 Y151.35 E87.71572
G1 X142.50 Y150.83 E87.75243
G1 X142.88 Y150.38 E87.78925
G1 X143.33 Y150.00 E87.82607
G1 X143.85 Y149.72 E87.86278
G1 X144.41 Y149.55 E87.89938
G1 X145.00 Y149.49 E87.93622
G0 F6000 X145.00 Y150.00
G1 F2700 X145.49 Y150.04 E87.96693
G1 X145.96 Y150.19 E87.99745
G1 X146.39 Y150.42 E88.02803
G1 X146.77 Y150.73 E88.05869
G1 X147.08 Y151.11 E88.08935
G1 X147.31 Y151.54 E88.11993
G1 X147.36 Y151.70 E88.13017
G1 X148.00 Y151.70 E88.17002
G1 X148.00 Y154.80 E88.36334
G1 X145.98 Y154.80 E88.48925
G1 X145.96 Y154.81 E88.49087
G1 X145.49 Y154.96 E88.52139
G1 X145.01 Y155.00 E88.55146
G1 X144.51 Y154.96 E88.58259
G1 X144.04 Y154.81 E88.61325
G1 X143.61 Y154.58 E88.64382
G1 X143.23 Y154.27 E88.67448
G1 X142.92 Y153.89 E88.70515
G1 X142.69 Y153.46 E88.73572
G1 X142.54 Y152.99 E88.76624
G1 X142.50 Y152.50 E88.79689
G1 X142.54 Y152.01 E88.82754
G1 X142.69 Y151.54 E88.85805
G1 X142.92 Y151.11 E88.88863
G1 X143.23 Y150.73 E88.91929
G1 X143.61 Y150.42 E88.94995
G1 X144.04 Y150.19 E88.98053
G1 X144.51 Y150.04 E89.01105
G1 X145.00 Y150.00 E89.04170
G0 F6000 X145.00 Y150.50
G1 F2700 X145.39 Y150.54 E89.06620
G1 X145.77 Y150.65 E89.09064
G1 X146.11 Y150.84 E89.11508
G1 X146.42 Y151.09 E89.13959
G1 X146.66 Y151.39 E89.16410
G1 X146.85 Y151.74 E89.18853
G1 X146.96 Y152.11 E89.21298
G1 X146.97 Y152.20 E89.21862
G1 X147.50 Y152.20 E89.25155
G1 X147.50 Y154.30 E89.38251
G1 X145.86 Y154.30 E89.48503
G1 X145.77 Y154.35 E89.49139
G1 X145.39 Y154.46 E89.51584
G1 X145.01 Y154.50 E89.53978
G1 X144.61 Y154.46 E89.56476
G1 X144.24 Y154.35 E89.58923
G1 X143.89 Y154.16 E89.61366
G1 X143.59 Y153.91 E89.63817
G1 X143.34 Y153.61 E89.66268
G1 X143.15 Y153.26 E89.68712
G1 X143.04 Y152.89 E89.71156
G1 X143.00 Y152.50 E89.73600
G1 X143.04 Y152.11 E89.76044
G1 X143.15 Y151.74 E89.78489
G1 X143.34 Y151.39 E89.80933
G1 X143.59 Y151.09 E89.83383
G1 X143.89 Y150.84 E89.85834
G1 X144.24 Y150.65 E89.88278
G1 X144.61 Y150.54 E89.90722
G1 X145.00 Y150.50 E89.93166
G0 F6000 X145.00 Y156.49
G1 F2700 X145.08 Y156.50 E89.93686
G1 X149.00 Y156.50 E90.18114
G1 X149.00 Y159.91 E90.39379
G1 X149.06 Y159.31 E90.43121
G1 X149.26 Y158.66 E90.47390
G1 X149.58 Y158.05 E90.51678
G1 X150.02 Y157.52 E90.55976
G1 X150.55 Y157.08 E90.60273
G1 X151.16 Y156.76 E90.64561
G1 X151.82 Y156.56 E90.68844
G1 X152.50 Y156.49 E90.73130
G1 X153.18 Y156.56 E90.77415
G1 X153.84 Y156.76 E90.81698
G1 X154.45 Y157.08 E90.85986
G1 X154.98 Y157.52 E90.90283
G1 X155.42 Y158.05 E90.94581
G1 X155.74 Y158.66 E90.98869
G1 X155.94 Y159.31 E91.03138
G1 X156.01 Y160.00 E91.07444
G1 X155.94 Y160.69 E91.11743
G1 X155.74 Y161.34 E91.16013
G1 X155.42 Y161.95 E91.20300
G1 X154.98 Y162.48 E91.24598
G1 X154.45 Y162.92 E91.28895
G1 X153.84 Y163.24 E91.33183
G1 X153.19 Y163.44 E91.37453
G1 X152.51 Y163.51 E91.41676
G1 X151.82 Y163.44 E91.46023
G1 X151.16 Y163.24 E91.50320
G1 X150.55 Y162.92 E91.54608
G1 X150.02 Y162.48 E91.58905
G1 X149.58 Y161.95 E91.63203
G1 X149.26 Y161.34 E91.67491
G1 X149.06 Y160.69 E91.71760
G1 X149.00 Y160.09 E91.75502
G1 X149.00 Y161.60 E91.84925
G1 X148.10 Y161.60 E91.90513
G1 X147.92 Y161.95 E91.92970
G1 X147.48 Y162.48 E91.97268
G1 X146.95 Y162.92 E92.01565
G1 X146.34 Y163.24 E92.05853
G1 X145.69 Y163.44 E92.10122
G1 X145.01 Y163.51 E92.14353
G1 X144.32 Y163.44 E92.18700
G1 X143.66 Y163.24 E92.22996
G1 X143.05 Y162.92 E92.27284
G1 X142.52 Y162.48 E92.31582
G1 X142.08 Y161.95 E92.35879
G1 X141.76 Y161.34 E92.40167
G1 X141.56 Y160.69 E92.44436
G1 X141.49 Y160.00 E92.48736
G1 X141.56 Y159.31 E92.53042
G1 X141.76 Y158.66 E92.57311
G1 X142.08 Y158.05 E92.61599
G1 X142.52 Y157.52 E92.65896
G1 X143.05 Y157.08 E92.70194
G1 X143.66 Y156.76 E92.74482
G1 X144.00 Y156.65 E92.76705
G1 X144.00 Y156.50 E92.77665
G1 X144.92 Y156.50 E92.83384
G1 X145.00 Y156.49 E92.83904
G0 F6000 X145.00 Y156.99
G1 F2700 X145.06 Y157.00 E92.84293
G1 X148.50 Y157.00 E93.05733
G1 X148.50 Y161.10 E93.31302
G1 X147.79 Y161.10 E93.35717
G1 X147.78 Y161.15 E93.36036
G1 X147.50 Y161.67 E93.39708
G1 X147.13 Y162.12 E93.43390
G1 X146.67 Y162.50 E93.47071
G1 X146.15 Y162.78 E93.50743
G1 X145.59 Y162.95 E93.54408
G1 X145.01 Y163.00 E93.58024
G1 X144.41 Y162.95 E93.61757
G1 X143.85 Y162.78 E93.65436
G1 X143.33 Y162.50 E93.69107
G1 X142.88 Y162.12 E93.72789
G1 X142.50 Y161.67 E93.76471
G1 X142.22 Y161.15 E93.80142
G1 X142.05 Y160.59 E93.83802
G1 X141.99 Y160.00 E93.87486
G1 X142.05 Y159.41 E93.91171
G1 X142.22 Y158.85 E93.94836
G1 X142.50 Y158.33 E93.98508
G1 X142.88 Y157.87 E94.02190
G1 X143.33 Y157.50 E94.05871
G1 X143.85 Y157.22 E94.09543
G1 X144.41 Y157.05 E94.13214
G1 X144.50 Y157.04 E94.13753
G1 X144.50 Y157.00 E94.14021
G1 X144.94 Y157.00 E94.16752
G1 X145.00 Y156.99 E94.17141
G0 F6000 X145.00 Y157.50
G1 F2700 X145.03 Y157.50 E94.17335
G1 X148.00 Y157.50 E94.35850
G1 X148.00 Y160.60 E94.55183
G1 X147.42 Y160.60 E94.58787
G1 X147.31 Y160.96 E94.61115
G1 X147.08 Y161.39 E94.64173
G1 X146.77 Y161.77 E94.67239
G1 X146.39 Y162.08 E94.70305
G1 X145.96 Y162.31 E94.73363
G1 X145.49 Y162.46 E94.76415
G1 X145.01 Y162.50 E94.79422
G1 X144.51 Y162.46 E94.82535
G1 X144.04 Y162.31 E94.85601
G1 X143.61 Y162.08 E94.88658
G1 X143.23 Y161.77 E94.91725
G1 X142.92 Y161.39 E94.94791
G1 X142.69 Y160.96 E94.97848
G1 X142.54 Y160.49 E95.00900
G1 X142.50 Y160.00 E95.03965
G1 X142.54 Y159.51 E95.07036
G1 X142.69 Y159.04 E95.10088
G1 X142.92 Y158.61 E95.13145
G1 X143.23 Y158.23 E95.16212
G1 X143.61 Y157.92 E95.19278
G1 X144.04 Y157.69 E95.22335
G1 X144.51 Y157.54 E95.25393
G1 X145.00 Y157.50 E95.28451
G0 F6000 X145.00 Y158.00
G1 F2700 X145.39 Y158.04 E95.30900
G1 X145.50 Y158.07 E95.31611
G1 X145.50 Y158.00 E95.32047
G1 X147.50 Y158.00 E95.44520
G1 X147.50 Y160.10 E95.57616
G1 X146.99 Y160.10 E95.60790
G1 X146.96 Y160.39 E95.62607
G1 X146.85 Y160.76 E95.65051
G1 X146.66 Y161.11 E95.67495
G1 X146.42 Y161.41 E95.69946
G1 X146.11 Y161.66 E95.72396
G1 X145.77 Y161.85 E95.74840
G1 X145.39 Y161.96 E95.77285
G1 X145.01 Y162.00 E95.79679
G1 X144.61 Y161.96 E95.82178
G1 X144.24 Y161.85 E95.84624
G1 X143.89 Y161.66 E95.87068
G1 X143.59 Y161.41 E95.89518
G1 X143.34 Y161.11 E95.91969
G1 X143.15 Y160.76 E95.94413
G1 X143.04 Y160.39 E95.96857
G1 X143.00 Y160.00 E95.99301
G1 X143.04 Y159.61 E96.01752
G1 X143.15 Y159.23 E96.04196
G1 X143.34 Y158.89 E96.06640
G1 X143.59 Y158.58 E96.09090
G1 X143.89 Y158.34 E96.11541
G1 X144.24 Y158.15 E96.13985
G1 X144.61 Y158.04 E96.16429
G1 X145.00 Y158.00 E96.18873
G0 F6000 X149.55 Y159.41
G1 F2700 X149.72 Y158.85 E96.22538
G1 X150.00 Y158.33 E96.26210
G1 X150.38 Y157.87 E96.29891
G1 X150.83 Y157.50 E96.33573
G1 X151.35 Y157.22 E96.37245
G1 X151.91 Y157.05 E96.40916
G1 X152.50 Y156.99 E96.44587
G1 X153.09 Y157.05 E96.48259
G1 X153.65 Y157.22 E96.51930
G1 X154.17 Y157.50 E96.55602
G1 X154.62 Y157.87 E96.59284
G1 X155.00 Y158.33 E96.62965
G1 X155.28 Y158.85 E96.66637
G1 X155.45 Y159.41 E96.70302
G1 X155.51 Y160.00 E96.73987
G1 X155.45 Y160.59 E96.77671
G1 X155.28 Y161.15 E96.81331
G1 X155.00 Y161.67 E96.85002
G1 X154.62 Y162.12 E96.88684
G1 X154.17 Y162.50 E96.92366
G1 X153.65 Y162.78 E96.96037
G1 X153.09 Y162.95 E96.99702
G1 X152.51 Y163.00 E97.03312
G1 X151.91 Y162.95 E97.07045
G1 X151.35 Y162.78 E97.10724
G1 X150.83 Y162.50 E97.14395
G1 X150.38 Y162.12 E97.18077
G1 X150.00 Y161.67 E97.21759
G1 X149.72 Y161.15 E97.25431
G1 X149.55 Y160.59 E97.29090
G1 X149.49 Y160.00 E97.32775
G1 X149.55 Y159.41 E97.36459
G0 F6000 X150.04 Y159.51
G1 F2700 X150.19 Y159.04 E97.39511
G1 X150.42 Y158.61 E97.42569
G1 X150.73 Y158.23 E97.45635
G1 X151.11 Y157.92 E97.48701
G1 X151.54 Y157.69 E97.51759
G1 X152.01 Y157.54 E97.54816
G1 X152.50 Y157.50 E97.57874
G1 X152.99 Y157.54 E97.60932
G1 X153.46 Y157.69 E97.63990
G1 X153.89 Y157.92 E97.67048
G1 X154.27 Y158.23 E97.70114
G1 X154.58 Y158.61 E97.73180
G1 X154.81 Y159.04 E97.76238
G1 X154.96 Y159.51 E97.79290
G1 X155.00 Y160.00 E97.82361
G1 X154.96 Y160.49 E97.85425
G1 X154.81 Y160.96 E97.88477
G1 X154.58 Y161.39 E97.91535
G1 X154.27 Y161.77 E97.94601
G1 X153.89 Y162.08 E97.97667
G1 X153.46 Y162.31 E98.00725
G1 X152.99 Y162.46 E98.03777
G1 X152.51 Y162.50 E98.06779
G1 X152.01 Y162.46 E98.09892
G1 X151.54 Y162.31 E98.12958
G1 X151.11 Y162.08 E98.16015
G1 X150.73 Y161.77 E98.19081
G1 X150.42 Y161.39 E98.22148
G1 X150.19 Y160.96 E98.25205
G1 X150.04 Y160.49 E98.28257
G1 X150.00 Y160.00 E98.31322
G1 X150.04 Y159.51 E98.34393
G0 F6000 X150.54 Y159.61
G1 F2700 X150.65 Y159.23 E98.36837
G1 X150.84 Y158.89 E98.39281
G1 X151.09 Y158.58 E98.41732
G1 X151.39 Y158.34 E98.44182
G1 X151.74 Y158.15 E98.46626
G1 X152.11 Y158.04 E98.49070
G1 X152.50 Y158.00 E98.51514
G1 X152.89 Y158.04 E98.53958
G1 X153.26 Y158.15 E98.56402
G1 X153.61 Y158.34 E98.58846
G1 X153.91 Y158.58 E98.61297
G1 X154.16 Y158.89 E98.63747
G1 X154.35 Y159.23 E98.66191
G1 X154.46 Y159.61 E98.68635
G1 X154.50 Y160.00 E98.71086
G1 X154.46 Y160.39 E98.73530
G1 X154.35 Y160.76 E98.75974
G1 X154.16 Y161.11 E98.78418
G1 X153.91 Y161.41 E98.80869
G1 X153.61 Y161.66 E98.83319
G1 X153.26 Y161.85 E98.85763
G1 X152.89 Y161.96 E98.88208
G1 X152.51 Y162.00 E98.90595
G1 X152.11 Y161.96 E98.93094
G1 X151.74 Y161.85 E98.95540
G1 X151.39 Y161.66 E98.97984
G1 X151.09 Y161.41 E99.00435
G1 X150.84 Y161.11 E99.02886
G1 X150.65 Y160.76 E99.05329
G1 X150.54 Y160.39 E99.07774
G1 X150.50 Y160.00 E99.10218
G1 X150.54 Y159.61 E99.12668
G0 F6000 X156.49 Y160.00
G1 F2700 X156.56 Y159.31 E99.16960
G1 X156.76 Y158.66 E99.21243
G1 X157.08 Y158.05 E99.25531
G1 X157.52 Y157.52 E99.29828
G1 X158.05 Y157.08 E99.34126
G1 X158.66 Y156.76 E99.38414
G1 X159.00 Y156.65 E99.40643
G1 X159.00 Y156.50 E99.41603
G1 X159.92 Y156.50 E99.47316
G1 X160.00 Y156.49 E99.47836
G1 X160.08 Y156.50 E99.48356
G1 X164.00 Y156.50 E99.72790
G1 X164.00 Y161.60 E100.04595
G1 X163.10 Y161.60 E100.10189
G1 X162.92 Y161.95 E100.12646
G1 X162.48 Y162.48 E100.16944
G1 X161.95 Y162.92 E100.21241
G1 X161.34 Y163.24 E100.25529
G1 X160.69 Y163.44 E100.29798
G1 X160.01 Y163.51 E100.34022
G1 X159.32 Y163.44 E100.38376
G1 X158.66 Y163.24 E100.42672
G1 X158.05 Y162.92 E100.46960
G1 X157.52 Y162.48 E100.51258
G1 X157.08 Y161.95 E100.55555
G1 X156.76 Y161.34 E100.59843
G1 X156.56 Y160.68 E100.64126
G1 X156.49 Y160.00 E100.68411
G0 F6000 X156.99 Y160.00
G1 F2700 X157.05 Y159.41 E100.72089
G1 X157.22 Y158.85 E100.75760
G1 X157.50 Y158.33 E100.79432
G1 X157.87 Y157.87 E100.83114
G1 X158.33 Y157.50 E100.86796
G1 X158.85 Y157.22 E100.90467
G1 X159.41 Y157.05 E100.94138
G1 X159.50 Y157.04 E100.94683
G1 X159.50 Y157.00 E100.94951
G1 X159.94 Y157.00 E100.97676
G1 X160.00 Y156.99 E100.98065
G1 X160.06 Y157.00 E100.98453
G1 X163.50 Y157.00 E101.19900
G1 X163.50 Y161.10 E101.45469
G1 X162.79 Y161.10 E101.49890
G1 X162.78 Y161.15 E101.50210
G1 X162.50 Y161.67 E101.53881
G1 X162.12 Y162.12 E101.57563
G1 X161.67 Y162.50 E101.61245
G1 X161.15 Y162.78 E101.64916
G1 X160.59 Y162.95 E101.68581
G1 X160.01 Y163.00 E101.72191
G1 X159.41 Y162.95 E101.75924
G1 X158.85 Y162.78 E101.79609
G1 X158.33 Y162.50 E101.83280
G1 X157.87 Y162.12 E101.86962
G1 X157.50 Y161.67 E101.90644
G1 X157.22 Y161.15 E101.94315
G1 X157.05 Y160.59 E101.97987
G1 X156.99 Y160.00 E102.01658
G0 F6000 X157.50 Y160.00
G1 F2700 X157.54 Y159.51 E102.04722
G1 X157.69 Y159.04 E102.07780
G1 X157.92 Y158.61 E102.10837
G1 X158.23 Y158.23 E102.13903
G1 X158.61 Y157.92 E102.16970
G1 X159.04 Y157.69 E102.20027
G1 X159.51 Y157.54 E102.23085
G1 X160.00 Y157.50 E102.26142
G1 X160.03 Y157.50 E102.26337
G1 X163.00 Y157.50 E102.44858
G1 X163.00 Y160.60 E102.64191
G1 X162.42 Y160.60 E102.67802
G1 X162.31 Y160.96 E102.70129
G1 X162.08 Y161.39 E102.73187
G1 X161.77 Y161.77 E102.76253
G1 X161.39 Y162.08 E102.79320
G1 X160.96 Y162.31 E102.82377
G1 X160.49 Y162.46 E102.85429
G1 X160.01 Y162.50 E102.88430
G1 X159.51 Y162.46 E102.91549
G1 X159.04 Y162.31 E102.94615
G1 X158.61 Y162.08 E102.97672
G1 X158.23 Y161.77 E103.00739
G1 X157.92 Y161.39 E103.03805
G1 X157.69 Y160.96 E103.06863
G1 X157.54 Y160.49 E103.09920
G1 X157.50 Y160.00 E103.12978
G0 F6000 X158.00 Y160.00
G1 F2700 X158.04 Y159.61 E103.15428
G1 X158.15 Y159.23 E103.17872
G1 X158.34 Y158.89 E103.20316
G1 X158.58 Y158.58 E103.22766
G1 X158.89 Y158.34 E103.25217
G1 X159.23 Y158.15 E103.27661
G1 X159.61 Y158.04 E103.30105
G1 X160.00 Y158.00 E103.32549
G1 X160.39 Y158.04 E103.34999
G1 X160.50 Y158.07 E103.35715
G1 X160.50 Y158.00 E103.36151
G1 X162.50 Y158.00 E103.48624
G1 X162.50 Y160.10 E103.61720
G1 X161.99 Y160.10 E103.64894
G1 X161.96 Y160.39 E103.66712
G1 X161.85 Y160.76 E103.69156
G1 X161.66 Y161.11 E103.71600
G1 X161.41 Y161.41 E103.74051
G1 X161.11 Y161.66 E103.76501
G1 X160.76 Y161.85 E103.78945
G1 X160.39 Y161.96 E103.81389
G1 X160.01 Y162.00 E103.83777
G1 X159.61 Y161.96 E103.86282
G1 X159.23 Y161.85 E103.88728
G1 X158.89 Y161.66 E103.91172
G1 X158.58 Y161.41 E103.93623
G1 X158.34 Y161.11 E103.96074
G1 X158.15 Y160.76 E103.98517
G1 X158.04 Y160.39 E104.00962
G1 X158.00 Y160.00 E104.03405
G0 F6000 X159.61 Y154.46
G1 F2700 X159.23 Y154.35 E104.05851
G1 X158.89 Y154.16 E104.08295
G1 X158.58 Y153.91 E104.10746
G1 X158.34 Y153.61 E104.13197
G1 X158.15 Y153.26 E104.15640
G1 X158.04 Y152.89 E104.18085
G1 X158.00 Y152.50 E104.20528
G1 X158.04 Y152.11 E104.22972
G1 X158.15 Y151.74 E104.25416
G1 X158.34 Y151.39 E104.27860
G1 X158.58 Y151.09 E104.30311
G1 X158.89 Y150.84 E104.32761
G1 X159.23 Y150.65 E104.35205
G1 X159.61 Y150.54 E104.37650
G1 X160.00 Y150.50 E104.40094
G1 X160.39 Y150.54 E104.42544
G1 X160.76 Y150.65 E104.44989
G1 X161.11 Y150.84 E104.47433
G1 X161.41 Y151.09 E104.49883
G1 X161.66 Y151.39 E104.52334
G1 X161.85 Y151.74 E104.54778
G1 X161.96 Y152.11 E104.57222
G1 X161.97 Y152.20 E104.57786
G1 X162.50 Y152.20 E104.61085
G1 X162.50 Y154.30 E104.74181
G1 X160.85 Y154.30 E104.84440
G1 X160.76 Y154.35 E104.85076
G1 X160.39 Y154.46 E104.87520
G1 X160.01 Y154.50 E104.89908
G1 X159.61 Y154.46 E104.92413
G0 F6000 X159.51 Y154.96
G1 F2700 X159.04 Y154.81 E104.95479
G1 X158.61 Y154.58 E104.98536
G1 X158.23 Y154.27 E105.01603
G1 X157.92 Y153.89 E105.04669
G1 X157.69 Y153.46 E105.07726
G1 X157.54 Y152.99 E105.10784
G1 X157.50 Y152.50 E105.13842
G1 X157.54 Y152.01 E105.16900
G1 X157.69 Y151.54 E105.19958
G1 X157.92 Y151.11 E105.23015
G1 X158.23 Y150.73 E105.26082
G1 X158.61 Y150.42 E105.29148
G1 X159.04 Y150.19 E105.32205
G1 X159.51 Y150.04 E105.35257
G1 X160.00 Y150.00 E105.38322
G1 X160.49 Y150.04 E105.41393
G1 X160.96 Y150.19 E105.44445
G1 X161.39 Y150.42 E105.47502
G1 X161.77 Y150.73 E105.50569
G1 X162.08 Y151.11 E105.53635
G1 X162.31 Y151.54 E105.56693
G1 X162.36 Y151.70 E105.57716
G1 X163.00 Y151.70 E105.61708
G1 X163.00 Y154.80 E105.81040
G1 X160.98 Y154.80 E105.93637
G1 X160.96 Y154.81 E105.93799
G1 X160.49 Y154.96 E105.96851
G1 X160.01 Y155.00 E105.99852
G1 X159.51 Y154.96 E106.02971
G0 F6000 X159.41 Y155.45
G1 F2700 X158.85 Y155.28 E106.06656
G1 X158.33 Y155.00 E106.10328
G1 X157.87 Y154.62 E106.14009
G1 X157.50 Y154.17 E106.17691
G1 X157.22 Y153.65 E106.21363
G1 X157.05 Y153.09 E106.25034
G1 X156.99 Y152.50 E106.28706
G1 X157.05 Y151.91 E106.32377
G1 X157.22 Y151.35 E106.36048
G1 X157.50 Y150.83 E106.39720
G1 X157.87 Y150.38 E106.43402
G1 X158.33 Y150.00 E106.47083
G1 X158.85 Y149.72 E106.50755
G1 X159.41 Y149.55 E106.54414
G1 X160.00 Y149.49 E106.58099
G1 X160.59 Y149.55 E106.61784
G1 X161.15 Y149.72 E106.65449
G1 X161.67 Y150.00 E106.69120
G1 X162.12 Y150.38 E106.72802
G1 X162.50 Y150.83 E106.76484
G1 X162.70 Y151.20 E106.79089
G1 X163.50 Y151.20 E106.84103
G1 X163.50 Y155.30 E107.09672
G1 X161.07 Y155.30 E107.24820
G1 X160.59 Y155.45 E107.27976
G1 X160.01 Y155.50 E107.31586
G1 X159.41 Y155.45 E107.35319
G0 F6000 X159.32 Y155.94
G1 F2700 X158.66 Y155.74 E107.39616
G1 X158.05 Y155.42 E107.43904
G1 X157.52 Y154.98 E107.48201
G1 X157.08 Y154.45 E107.52499
G1 X156.76 Y153.84 E107.56787
G1 X156.56 Y153.18 E107.61070
G1 X156.49 Y152.50 E107.65355
G1 X156.56 Y151.82 E107.69640
G1 X156.76 Y151.16 E107.73923
G1 X157.08 Y150.55 E107.78211
G1 X157.52 Y150.02 E107.82509
G1 X158.05 Y149.58 E107.86806
G1 X158.66 Y149.26 E107.91094
G1 X159.31 Y149.06 E107.95363
G1 X160.00 Y148.99 E107.99663
G1 X160.69 Y149.06 E108.03969
G1 X161.34 Y149.26 E108.08238
G1 X161.95 Y149.58 E108.12526
G1 X162.48 Y150.02 E108.16823
G1 X162.92 Y150.55 E108.21121
G1 X163.00 Y150.70 E108.22167
G1 X164.00 Y150.70 E108.28422
G1 X164.00 Y155.80 E108.60227
G1 X161.15 Y155.80 E108.78019
G1 X160.69 Y155.94 E108.81024
G1 X160.01 Y156.01 E108.85248
G1 X159.32 Y155.94 E108.89601
G0 F6000 X154.35 Y153.26
G1 F2700 X154.16 Y153.61 E108.92045
G1 X153.91 Y153.91 E108.94495
G1 X153.61 Y154.16 E108.96946
G1 X153.26 Y154.35 E108.99390
G1 X152.89 Y154.46 E109.01834
G1 X152.51 Y154.50 E109.04222
G1 X152.11 Y154.46 E109.06721
G1 X151.74 Y154.35 E109.09167
G1 X151.39 Y154.16 E109.11611
G1 X151.09 Y153.91 E109.14062
G1 X150.84 Y153.61 E109.16512
G1 X150.65 Y153.26 E109.18956
G1 X150.54 Y152.89 E109.21400
G1 X150.50 Y152.50 E109.23845
G1 X150.54 Y152.11 E109.26289
G1 X150.65 Y151.74 E109.28733
G1 X150.84 Y151.39 E109.31177
G1 X151.09 Y151.09 E109.33628
G1 X151.39 Y150.84 E109.36078
G1 X151.74 Y150.65 E109.38522
G1 X152.11 Y150.54 E109.40966
G1 X152.50 Y150.50 E109.43411
G1 X152.89 Y150.54 E109.45855
G1 X153.26 Y150.65 E109.48299
G1 X153.61 Y150.84 E109.50743
G1 X153.91 Y151.09 E109.53194
G1 X154.16 Y151.39 E109.55644
G1 X154.35 Y151.74 E109.58088
G1 X154.46 Y152.11 E109.60532
G1 X154.50 Y152.50 E109.62977
G1 X154.46 Y152.89 E109.65421
G1 X154.35 Y153.26 E109.67865
G0 F6000 X154.81 Y153.46
G1 F2700 X154.58 Y153.89 E109.70923
G1 X154.27 Y154.27 E109.73989
G1 X153.89 Y154.58 E109.77055
G1 X153.46 Y154.81 E109.80113
G1 X152.99 Y154.96 E109.83165
G1 X152.51 Y155.00 E109.86167
G1 X152.01 Y154.96 E109.89280
G1 X151.54 Y154.81 E109.92346
G1 X151.11 Y154.58 E109.95403
G1 X150.73 Y154.27 E109.98470
G1 X150.42 Y153.89 E110.01536
G1 X150.19 Y153.46 E110.04593
G1 X150.04 Y152.99 E110.07645
G1 X150.00 Y152.50 E110.10710
G1 X150.04 Y152.01 E110.13775
G1 X150.19 Y151.54 E110.16827
G1 X150.42 Y151.11 E110.19884
G1 X150.73 Y150.73 E110.22950
G1 X151.11 Y150.42 E110.26017
G1 X151.54 Y150.19 E110.29074
G1 X152.01 Y150.04 E110.32126
G1 X152.50 Y150.00 E110.35191
G1 X152.99 Y150.04 E110.38256
G1 X153.46 Y150.19 E110.41307
G1 X153.89 Y150.42 E110.44365
G1 X154.27 Y150.73 E110.47431
G1 X154.58 Y151.11 E110.50497
G1 X154.81 Y151.54 E110.53555
G1 X154.96 Y152.01 E110.56607
G1 X155.00 Y152.50 E110.59672
G1 X154.96 Y152.99 E110.62736
G1 X154.81 Y153.46 E110.65788
G0 F6000 X155.28 Y153.65
G1 F2700 X155.00 Y154.17 E110.69460
G1 X154.62 Y154.62 E110.73141
G1 X154.17 Y155.00 E110.76823
G1 X153.65 Y155.28 E110.80495
G1 X153.09 Y155.45 E110.84160
G1 X152.51 Y155.50 E110.87769
G1 X151.91 Y155.45 E110.91503
G1 X151.35 Y155.28 E110.95182
G1 X150.83 Y155.00 E110.98853
G1 X150.38 Y154.62 E111.02535
G1 X150.00 Y154.17 E111.06217
G1 X149.72 Y153.65 E111.09888
G1 X149.55 Y153.09 E111.13547
G1 X149.49 Y152.50 E111.17232
G1 X149.55 Y151.91 E111.20917
G1 X149.72 Y151.35 E111.24576
G1 X150.00 Y150.83 E111.28247
G1 X150.38 Y150.38 E111.31929
G1 X150.83 Y150.00 E111.35611
G1 X151.35 Y149.72 E111.39282
G1 X151.91 Y149.55 E111.42942
G1 X152.50 Y149.49 E111.46626
G1 X153.09 Y149.55 E111.50311
G1 X153.65 Y149.72 E111.53970
G1 X154.17 Y150.00 E111.57642
G1 X154.62 Y150.38 E111.61324
G1 X155.00 Y150.83 E111.65005
G1 X155.28 Y151.35 E111.68677
G1 X155.45 Y151.91 E111.72336
G1 X155.51 Y152.50 E111.76021
G1 X155.45 Y153.09 E111.79706
G1 X155.28 Y153.65 E111.83365
G0 F6000 X153.26 Y146.85
G1 F2700 X152.89 Y146.96 E111.85809
G1 X152.51 Y147.00 E111.88196
G1 X152.11 Y146.96 E111.90688
G1 X151.74 Y146.85 E111.93141
G1 X151.39 Y146.66 E111.95584
G1 X151.09 Y146.42 E111.98035
G1 X150.84 Y146.11 E112.00486
G1 X150.65 Y145.77 E112.02930
G1 X150.54 Y145.39 E112.05374
G1 X150.50 Y145.00 E112.07818
G1 X150.54 Y144.61 E112.10269
G1 X150.65 Y144.24 E112.12713
G1 X150.84 Y143.89 E112.15157
G1 X151.09 Y143.59 E112.17607
G1 X151.39 Y143.34 E112.20058
G1 X151.74 Y143.15 E112.22502
G1 X152.11 Y143.04 E112.24946
G1 X152.50 Y143.00 E112.27390
G1 X152.89 Y143.04 E112.29835
G1 X153.26 Y143.15 E112.32279
G1 X153.61 Y143.34 E112.34723
G1 X153.91 Y143.59 E112.37173
G1 X154.16 Y143.89 E112.39624
G1 X154.35 Y144.24 E112.42068
G1 X154.46 Y144.61 E112.44512
G1 X154.50 Y145.00 E112.46956
G1 X154.46 Y145.39 E112.49407
G1 X154.35 Y145.77 E112.51851
G1 X154.16 Y146.11 E112.54295
G1 X153.91 Y146.42 E112.56746
G1 X153.61 Y146.66 E112.59196
G1 X153.26 Y146.85 E112.61640
G0 F6000 X153.46 Y147.31
G1 F2700 X152.99 Y147.46 E112.64698
G1 X152.51 Y147.50 E112.67693
G1 X152.01 Y147.46 E112.70799
G1 X151.54 Y147.31 E112.73870
G1 X151.11 Y147.08 E112.76928
G1 X150.73 Y146.77 E112.79994
G1 X150.42 Y146.39 E112.83060
G1 X150.19 Y145.96 E112.86118
G1 X150.04 Y145.49 E112.89170
G1 X150.00 Y145.00 E112.92234
G1 X150.04 Y144.51 E112.95305
G1 X150.19 Y144.04 E112.98357
G1 X150.42 Y143.61 E113.01415
G1 X150.73 Y143.23 E113.04481
G1 X151.11 Y142.92 E113.07547
G1 X151.54 Y142.69 E113.10605
G1 X152.01 Y142.54 E113.13657
G1 X152.50 Y142.50 E113.16721
G1 X152.99 Y142.54 E113.19786
G1 X153.46 Y142.69 E113.22838
G1 X153.89 Y142.92 E113.25896
G1 X154.27 Y143.23 E113.28962
G1 X154.58 Y143.61 E113.32028
G1 X154.81 Y144.04 E113.35086
G1 X154.96 Y144.51 E113.38137
G1 X155.00 Y145.00 E113.41202
G1 X154.96 Y145.49 E113.44273
G1 X154.81 Y145.96 E113.47325
G1 X154.58 Y146.39 E113.50383
G1 X154.27 Y146.77 E113.53449
G1 X153.89 Y147.08 E113.56515
G1 X153.46 Y147.31 E113.59573
G0 F6000 X153.65 Y147.78
G1 F2700 X153.09 Y147.95 E113.63250
G1 X152.51 Y148.00 E113.66846
G1 X151.92 Y147.95 E113.70566
G1 X151.35 Y147.78 E113.74256
G1 X150.83 Y147.50 E113.77928
G1 X150.38 Y147.13 E113.81610
G1 X150.00 Y146.67 E113.85291
G1 X149.72 Y146.15 E113.88963
G1 X149.55 Y145.59 E113.92622
G1 X149.49 Y145.00 E113.96307
G1 X149.55 Y144.41 E113.99992
G1 X149.72 Y143.85 E114.03657
G1 X150.00 Y143.33 E114.07328
G1 X150.38 Y142.88 E114.11010
G1 X150.83 Y142.50 E114.14692
G1 X151.35 Y142.22 E114.18363
G1 X151.91 Y142.05 E114.22022
G1 X152.50 Y141.99 E114.25707
G1 X153.09 Y142.05 E114.29392
G1 X153.65 Y142.22 E114.33051
G1 X154.17 Y142.50 E114.36723
G1 X154.62 Y142.88 E114.40404
G1 X155.00 Y143.33 E114.44086
G1 X155.28 Y143.85 E114.47758
G1 X155.45 Y144.41 E114.51417
G1 X155.51 Y145.00 E114.55102
G1 X155.45 Y145.59 E114.58786
G1 X155.28 Y146.15 E114.62452
G1 X155.00 Y146.67 E114.66123
G1 X154.62 Y147.13 E114.69805
G1 X154.17 Y147.50 E114.73487
G1 X153.65 Y147.78 E114.77158
G0 F6000 X156.76 Y146.34
G1 F2700 X156.56 Y145.69 E114.81441
G1 X156.49 Y145.00 E114.85726
G1 X156.56 Y144.32 E114.90018
G1 X156.76 Y143.66 E114.94301
G1 X157.08 Y143.05 E114.98589
G1 X157.52 Y142.52 E115.02886
G1 X158.05 Y142.08 E115.07184
G1 X158.66 Y141.76 E115.11472
G1 X159.00 Y141.66 E115.13701
G1 X159.00 Y141.50 E115.14667
G1 X159.91 Y141.50 E115.20342
G1 X160.00 Y141.49 E115.20900
G1 X160.09 Y141.50 E115.21464
G1 X164.00 Y141.50 E115.45854
G1 X164.00 Y146.60 E115.77659
G1 X163.10 Y146.60 E115.83247
G1 X162.92 Y146.95 E115.85713
G1 X162.48 Y147.48 E115.90011
G1 X161.95 Y147.92 E115.94308
G1 X161.34 Y148.24 E115.98596
G1 X160.68 Y148.44 E116.02885
G1 X160.01 Y148.51 E116.07089
G1 X159.32 Y148.44 E116.11423
G1 X158.66 Y148.24 E116.15738
G1 X158.05 Y147.92 E116.20026
G1 X157.52 Y147.48 E116.24323
G1 X157.08 Y146.95 E116.28621
G1 X156.76 Y146.34 E116.32909
G0 F6000 X157.22 Y146.15
G1 F2700 X157.05 Y145.59 E116.36580
G1 X156.99 Y145.00 E116.40252
G1 X157.05 Y144.41 E116.43929
G1 X157.22 Y143.85 E116.47601
G1 X157.50 Y143.33 E116.51272
G1 X157.87 Y142.88 E116.54954
G1 X158.33 Y142.50 E116.58636
G1 X158.85 Y142.22 E116.62307
G1 X159.41 Y142.05 E116.65966
G1 X159.50 Y142.04 E116.66524
G1 X159.50 Y142.00 E116.66792
G1 X159.94 Y142.00 E116.69524
G1 X160.00 Y141.99 E116.69906
G1 X160.06 Y142.00 E116.70288
G1 X163.50 Y142.00 E116.91741
G1 X163.50 Y146.10 E117.17310
G1 X162.79 Y146.10 E117.21731
G1 X162.78 Y146.15 E117.22057
G1 X162.50 Y146.67 E117.25728
G1 X162.12 Y147.13 E117.29410
G1 X161.67 Y147.50 E117.33092
G1 X161.15 Y147.78 E117.36763
G1 X160.59 Y147.95 E117.40440
G1 X160.01 Y148.00 E117.44036
G1 X159.42 Y147.95 E117.47762
G1 X158.85 Y147.78 E117.51453
G1 X158.33 Y147.50 E117.55125
G1 X157.87 Y147.13 E117.58806
G1 X157.50 Y146.67 E117.62488
G1 X157.22 Y146.15 E117.66160
G0 F6000 X157.69 Y145.96
G1 F2700 X157.54 Y145.49 E117.69217
G1 X157.50 Y145.00 E117.72275
G1 X157.54 Y144.51 E117.75338
G1 X157.69 Y144.04 E117.78396
G1 X157.92 Y143.61 E117.81454
G1 X158.23 Y143.23 E117.84520
G1 X158.61 Y142.92 E117.87586
G1 X159.04 Y142.69 E117.90644
G1 X159.51 Y142.54 E117.93696
G1 X160.00 Y142.50 E117.96760
G1 X160.04 Y142.50 E117.97011
G1 X163.00 Y142.50 E118.15477
G1 X163.00 Y145.60 E118.34809
G1 X162.42 Y145.60 E118.38420
G1 X162.31 Y145.96 E118.40754
G1 X162.08 Y146.39 E118.43811
G1 X161.77 Y146.77 E118.46877
G1 X161.39 Y147.08 E118.49944
G1 X160.96 Y147.31 E118.53001
G1 X160.49 Y147.46 E118.56059
G1 X160.01 Y147.50 E118.59054
G1 X159.51 Y147.46 E118.62166
G1 X159.04 Y147.31 E118.65237
G1 X158.61 Y147.08 E118.68295
G1 X158.23 Y146.77 E118.71361
G1 X157.92 Y146.39 E118.74427
G1 X157.69 Y145.96 E118.77485
G0 F6000 X158.15 Y145.77
G1 F2700 X158.04 Y145.39 E118.79929
G1 X158.00 Y145.00 E118.82373
G1 X158.04 Y144.61 E118.84823
G1 X158.15 Y144.24 E118.87267
G1 X158.34 Y143.89 E118.89711
G1 X158.58 Y143.59 E118.92162
G1 X158.89 Y143.34 E118.94612
G1 X159.23 Y143.15 E118.97056
G1 X159.61 Y143.04 E118.99500
G1 X160.00 Y143.00 E119.01945
G1 X160.39 Y143.04 E119.04395
G1 X160.50 Y143.07 E119.05111
G1 X160.50 Y143.00 E119.05554
G1 X162.50 Y143.00 E119.18027
G1 X162.50 Y145.10 E119.31123
G1 X161.99 Y145.10 E119.34297
G1 X161.96 Y145.39 E119.36121
G1 X161.85 Y145.77 E119.38565
G1 X161.66 Y146.11 E119.41009
G1 X161.41 Y146.42 E119.43460
G1 X161.11 Y146.66 E119.45910
G1 X160.76 Y146.85 E119.48354
G1 X160.39 Y146.96 E119.50798
G1 X160.01 Y147.00 E119.53186
G1 X159.61 Y146.96 E119.55684
G1 X159.23 Y146.85 E119.58136
G1 X158.89 Y146.66 E119.60580
G1 X158.58 Y146.42 E119.63031
G1 X158.34 Y146.11 E119.65481
G1 X158.15 Y145.77 E119.67925
G0 F6000 X145.49 Y145.00
;TYPE:WALL-INNER
G1 F2700 X145.49 Y145.09 E119.68514
G1 X145.46 Y145.19 E119.69139
G1 X145.41 Y145.28 E119.69767
G1 X145.35 Y145.35 E119.70343
G1 X145.28 Y145.41 E119.70918
G1 X145.19 Y145.46 E119.71546
G1 X145.09 Y145.49 E119.72171
G1 X145.01 Y145.49 E119.72711
G1 X144.90 Y145.48 E119.73375
G1 X144.81 Y145.46 E119.73968
G1 X144.72 Y145.41 E119.74596
G1 X144.65 Y145.35 E119.75172
G1 X144.59 Y145.28 E119.75748
G1 X144.54 Y145.19 E119.76375
G1 X144.52 Y145.09 E119.77001
G1 X144.51 Y145.00 E119.77590
G1 X144.52 Y144.91 E119.78173
G1 X144.54 Y144.81 E119.78799
G1 X144.59 Y144.72 E119.79426
G1 X144.65 Y144.65 E119.80002
G1 X144.72 Y144.59 E119.80578
G1 X144.81 Y144.54 E119.81206
G1 X144.91 Y144.52 E119.81831
G1 X145.00 Y144.51 E119.82414
G1 X145.09 Y144.52 E119.83004
G1 X145.19 Y144.54 E119.83629
G1 X145.28 Y144.59 E119.84257
G1 X145.35 Y144.65 E119.84833
G1 X145.41 Y144.72 E119.85408
G1 X145.46 Y144.81 E119.86036
G1 X145.49 Y144.91 E119.86661
G1 X145.49 Y145.00 E119.87244
G0 F6000 X146.00 Y145.00
G1 F2700 X145.98 Y145.20 E119.88491
G1 X145.92 Y145.38 E119.89684
G1 X145.83 Y145.56 E119.90912
G1 X145.71 Y145.71 E119.92121
G1 X145.56 Y145.83 E119.93329
G1 X145.38 Y145.92 E119.94557
G1 X145.20 Y145.98 E119.95750
G1 X145.00 Y146.00 E119.96972
G1 X144.80 Y145.98 E119.98236
G1 X144.62 Y145.92 E119.99430
G1 X144.44 Y145.83 E120.00657
G1 X144.30 Y145.71 E120.01866
G1 X144.17 Y145.56 E120.03075
G1 X144.08 Y145.38 E120.04302
G1 X144.02 Y145.19 E120.05528
G1 X144.00 Y145.00 E120.06744
G1 X144.02 Y144.81 E120.07954
G1 X144.08 Y144.62 E120.09179
G1 X144.17 Y144.44 E120.10406
G1 X144.30 Y144.30 E120.11615
G1 X144.44 Y144.17 E120.12824
G1 X144.62 Y144.08 E120.14052
G1 X144.81 Y144.02 E120.15277
G1 X145.00 Y144.00 E120.16487
G1 X145.19 Y144.02 E120.17703
G1 X145.38 Y144.08 E120.18928
G1 X145.56 Y144.17 E120.20156
G1 X145.71 Y144.30 E120.21365
G1 X145.83 Y144.44 E120.22573
G1 X145.92 Y144.62 E120.23801
G1 X145.98 Y144.80 E120.24994
G1 X146.00 Y145.00 E120.26235
G0 F6000 X146.50 Y145.00
;TYPE:WALL-OUTER
G1 F2700 X146.47 Y145.29 E120.28077
G1 X146.38 Y145.57 E120.29896
G1 X146.25 Y145.83 E120.31737
G1 X146.06 Y146.06 E120.33567
G1 X145.83 Y146.25 E120.35396
G1 X145.57 Y146.38 E120.37237
G1 X145.29 Y146.47 E120.39056
G1 X145.01 Y146.50 E120.40854
G1 X144.71 Y146.47 E120.42733
G1 X144.43 Y146.38 E120.44552
G1 X144.17 Y146.25 E120.46393
G1 X143.94 Y146.06 E120.48223
G1 X143.75 Y145.83 E120.50052
G1 X143.62 Y145.57 E120.51893
G1 X143.53 Y145.29 E120.53712
G1 X143.50 Y145.00 E120.55549
G1 X143.53 Y144.71 E120.57392
G1 X143.62 Y144.43 E120.59211
G1 X143.75 Y144.17 E120.61052
G1 X143.94 Y143.94 E120.62881
G1 X144.17 Y143.75 E120.64710
G1 X144.43 Y143.62 E120.66552
G1 X144.71 Y143.53 E120.68371
G1 X145.00 Y143.50 E120.70207
G1 X145.29 Y143.53 E120.72050
G1 X145.57 Y143.62 E120.73869
G1 X145.83 Y143.75 E120.75710
G1 X146.06 Y143.94 E120.77540
G1 X146.25 Y144.17 E120.79369
G1 X146.38 Y144.43 E120.81210
G1 X146.47 Y144.71 E120.83029
G1 X146.50 Y145.00 E120.84865
G0 F6000 X145.23 Y144.92
G0 X145.00 Y152.01
;TYPE:WALL-INNER
G1 F2700 X145.09 Y152.02 E120.85455
G1 X145.19 Y152.04 E120.86080
G1 X145.28 Y152.09 E120.86708
G1 X145.35 Y152.15 E120.87283
G1 X145.41 Y152.22 E120.87859
G1 X145.46 Y152.31 E120.88487
G1 X145.49 Y152.41 E120.89112
G1 X145.49 Y152.50 E120.89695
G1 X145.49 Y152.59 E120.90278
G1 X145.46 Y152.69 E120.90903
G1 X145.41 Y152.78 E120.91531
G1 X145.35 Y152.85 E120.92106
G1 X145.28 Y152.91 E120.92682
G1 X145.19 Y152.96 E120.93310
G1 X145.09 Y152.98 E120.93935
G1 X145.00 Y152.99 E120.94505
G1 X144.91 Y152.98 E120.95107
G1 X144.81 Y152.96 E120.95732
G1 X144.72 Y152.91 E120.96360
G1 X144.65 Y152.85 E120.96935
G1 X144.59 Y152.78 E120.97511
G1 X144.54 Y152.69 E120.98139
G1 X144.52 Y152.59 E120.98764
G1 X144.51 Y152.50 E120.99348
G1 X144.52 Y152.41 E120.99931
G1 X144.54 Y152.31 E121.00556
G1 X144.59 Y152.22 E121.01184
G1 X144.65 Y152.15 E121.01760
G1 X144.72 Y152.09 E121.02335
G1 X144.81 Y152.04 E121.02963
G1 X144.91 Y152.02 E121.03588
G1 X145.00 Y152.01 E121.04172
G0 F6000 X145.00 Y151.50
G1 F2700 X145.19 Y151.52 E121.05388
G1 X145.38 Y151.58 E121.06613
G1 X145.56 Y151.67 E121.07841
G1 X145.71 Y151.80 E121.09049
G1 X145.83 Y151.94 E121.10258
G1 X145.92 Y152.12 E121.11486
G1 X145.98 Y152.30 E121.12679
G1 X146.00 Y152.50 E121.13920
G1 X145.98 Y152.70 E121.15160
G1 X145.92 Y152.88 E121.16354
G1 X145.83 Y153.06 E121.17581
G1 X145.71 Y153.20 E121.18790
G1 X145.56 Y153.33 E121.19999
G1 X145.38 Y153.42 E121.21226
G1 X145.19 Y153.48 E121.22451
G1 X145.01 Y153.50 E121.23604
G1 X144.80 Y153.48 E121.24907
G1 X144.62 Y153.42 E121.26100
G1 X144.44 Y153.33 E121.27328
G1 X144.30 Y153.20 E121.28537
G1 X144.17 Y153.06 E121.29746
G1 X144.08 Y152.88 E121.30973
G1 X144.02 Y152.69 E121.32198
G1 X144.00 Y152.50 E121.33408
G1 X144.02 Y152.31 E121.34618
G1 X144.08 Y152.12 E121.35843
G1 X144.17 Y151.94 E121.37071
G1 X144.30 Y151.80 E121.38280
G1 X144.44 Y151.67 E121.39489
G1 X144.62 Y151.58 E121.40716
G1 X144.81 Y151.52 E121.41941
G1 X145.00 Y151.50 E121.43151
G0 F6000 X145.00 Y151.00
;TYPE:WALL-OUTER
G1 F2700 X145.29 Y151.03 E121.44994
G1 X145.57 Y151.12 E121.46813
G1 X145.83 Y151.25 E121.48654
G1 X146.06 Y151.44 E121.50484
G1 X146.25 Y151.67 E121.52313
G1 X146.38 Y151.93 E121.54154
G1 X146.47 Y152.21 E121.55973
G1 X146.50 Y152.50 E121.57809
G1 X146.47 Y152.79 E121.59645
G1 X146.38 Y153.07 E121.61464
G1 X146.25 Y153.33 E121.63305
G1 X146.06 Y153.56 E121.65135
G1 X145.83 Y153.75 E121.66964
G1 X145.57 Y153.88 E121.68805
G1 X145.29 Y153.97 E121.70618
G1 X145.01 Y154.00 E121.72423
G1 X144.71 Y153.97 E121.74309
G1 X144.43 Y153.88 E121.76122
G1 X144.17 Y153.75 E121.77963
G1 X143.94 Y153.56 E121.79792
G1 X143.75 Y153.33 E121.81622
G1 X143.62 Y153.07 E121.83463
G1 X143.53 Y152.79 E121.85282
G1 X143.50 Y152.50 E121.87119
G1 X143.53 Y152.21 E121.88955
G1 X143.62 Y151.93 E121.90774
G1 X143.75 Y151.67 E121.92615
G1 X143.94 Y151.44 E121.94445
G1 X144.17 Y151.25 E121.96274
G1 X144.43 Y151.12 E121.98115
G1 X144.71 Y151.03 E121.99934
G1 X145.00 Y151.00 E122.01771
G0 F6000 X144.92 Y152.27
G0 X145.00 Y159.51
;TYPE:WALL-INNER
G1 F2700 X145.09 Y159.51 E122.02360
G1 X145.19 Y159.54 E122.02985
G1 X145.28 Y159.59 E122.03613
G1 X145.35 Y159.65 E122.04189
G1 X145.41 Y159.72 E122.04764
G1 X145.46 Y159.81 E122.05392
G1 X145.49 Y159.91 E122.06017
G1 X145.49 Y160.00 E122.06606
G1 X145.49 Y160.09 E122.07189
G1 X145.46 Y160.19 E122.07814
G1 X145.41 Y160.28 E122.08442
G1 X145.35 Y160.35 E122.09018
G1 X145.28 Y160.41 E122.09593
G1 X145.19 Y160.46 E122.10221
G1 X145.09 Y160.48 E122.10846
G1 X145.00 Y160.49 E122.11417
G1 X144.91 Y160.48 E122.12018
G1 X144.81 Y160.46 E122.12643
G1 X144.72 Y160.41 E122.13271
G1 X144.65 Y160.35 E122.13847
G1 X144.59 Y160.28 E122.14423
G1 X144.54 Y160.19 E122.15050
G1 X144.52 Y160.09 E122.15676
G1 X144.51 Y160.00 E122.16259
G1 X144.52 Y159.91 E122.16848
G1 X144.54 Y159.81 E122.17474
G1 X144.59 Y159.72 E122.18102
G1 X144.65 Y159.65 E122.18677
G1 X144.72 Y159.59 E122.19253
G1 X144.81 Y159.54 E122.19881
G1 X144.91 Y159.51 E122.20506
G1 X145.00 Y159.51 E122.21089
G0 F6000 X145.00 Y159.00
G1 F2700 X145.20 Y159.02 E122.22335
G1 X145.38 Y159.08 E122.23529
G1 X145.56 Y159.17 E122.24756
G1 X145.71 Y159.29 E122.25965
G1 X145.83 Y159.44 E122.27174
G1 X145.92 Y159.62 E122.28401
G1 X145.98 Y159.80 E122.29595
G1 X146.00 Y160.00 E122.30842
G1 X145.98 Y160.20 E122.32082
G1 X145.92 Y160.38 E122.33276
G1 X145.83 Y160.56 E122.34503
G1 X145.71 Y160.70 E122.35712
G1 X145.56 Y160.83 E122.36921
G1 X145.38 Y160.92 E122.38148
G1 X145.19 Y160.98 E122.39373
G1 X145.01 Y161.00 E122.40526
G1 X144.80 Y160.98 E122.41829
G1 X144.62 Y160.92 E122.43022
G1 X144.44 Y160.83 E122.44250
G1 X144.30 Y160.70 E122.45459
G1 X144.17 Y160.56 E122.46668
G1 X144.08 Y160.38 E122.47895
G1 X144.02 Y160.19 E122.49120
G1 X144.00 Y160.00 E122.50330
G1 X144.02 Y159.81 E122.51546
G1 X144.08 Y159.62 E122.52772
G1 X144.17 Y159.44 E122.53999
G1 X144.30 Y159.29 E122.55208
G1 X144.44 Y159.17 E122.56417
G1 X144.62 Y159.08 E122.57644
G1 X144.80 Y159.02 E122.58838
G1 X145.00 Y159.00 E122.60078
G0 F6000 X145.00 Y158.50
;TYPE:WALL-OUTER
G1 F2700 X145.29 Y158.53 E122.61921
G1 X145.57 Y158.62 E122.63739
G1 X145.83 Y158.75 E122.65581
G1 X146.06 Y158.94 E122.67410
G1 X146.25 Y159.17 E122.69239
G1 X146.38 Y159.43 E122.71080
G1 X146.47 Y159.71 E122.72899
G1 X146.50 Y160.00 E122.74742
G1 X146.47 Y160.29 E122.76578
G1 X146.38 Y160.57 E122.78397
G1 X146.25 Y160.83 E122.80238
G1 X146.06 Y161.06 E122.82067
G1 X145.83 Y161.25 E122.83896
G1 X145.57 Y161.38 E122.85738
G1 X145.29 Y161.47 E122.87551
G1 X145.01 Y161.50 E122.89356
G1 X144.71 Y161.47 E122.91242
G1 X144.43 Y161.38 E122.93054
G1 X144.17 Y161.25 E122.94896
G1 X143.94 Y161.06 E122.96725
G1 X143.75 Y160.83 E122.98554
G1 X143.62 Y160.57 E123.00395
G1 X143.53 Y160.29 E123.02214
G1 X143.50 Y160.00 E123.04051
G1 X143.53 Y159.71 E123.05894
G1 X143.62 Y159.43 E123.07713
G1 X143.75 Y159.17 E123.09554
G1 X143.94 Y158.94 E123.11383
G1 X144.17 Y158.75 E123.13213
G1 X144.43 Y158.62 E123.15054
G1 X144.71 Y158.53 E123.16873
G1 X145.00 Y158.50 E123.18709
G0 F6000 X144.76 Y159.79
;TYPE:FILL
G1 F2700 X145.21 Y160.24 E123.22669
G0 F6000 X152.01 Y160.00
;TYPE:WALL-INNER
G1 F2700 X152.02 Y159.91 E123.23258
G1 X152.04 Y159.81 E123.23884
G1 X152.09 Y159.72 E123.24511
G1 X152.15 Y159.65 E123.25087
G1 X152.22 Y159.59 E123.25663
G1 X152.31 Y159.54 E123.26291
G1 X152.41 Y159.51 E123.26916
G1 X152.50 Y159.51 E123.27499
G1 X152.59 Y159.51 E123.28081
G1 X152.69 Y159.54 E123.28707
G1 X152.78 Y159.59 E123.29334
G1 X152.85 Y159.65 E123.29910
G1 X152.91 Y159.72 E123.30486
G1 X152.96 Y159.81 E123.31113
G1 X152.98 Y159.91 E123.31739
G1 X152.99 Y160.00 E123.32328
G1 X152.98 Y160.09 E123.32912
G1 X152.96 Y160.19 E123.33537
G1 X152.91 Y160.28 E123.34165
G1 X152.85 Y160.35 E123.34740
G1 X152.78 Y160.41 E123.35316
G1 X152.69 Y160.46 E123.35944
G1 X152.59 Y160.48 E123.36569
G1 X152.50 Y160.49 E123.37133
G1 X152.41 Y160.48 E123.37735
G1 X152.31 Y160.46 E123.38360
G1 X152.22 Y160.41 E123.38988
G1 X152.15 Y160.35 E123.39563
G1 X152.09 Y160.28 E123.40139
G1 X152.04 Y160.19 E123.40767
G1 X152.02 Y160.09 E123.41392
G1 X152.01 Y160.00 E123.41975
G0 F6000 X151.50 Y160.00
G1 F2700 X151.52 Y159.81 E123.43192
G1 X151.58 Y159.62 E123.44417
G1 X151.67 Y159.44 E123.45644
G1 X151.80 Y159.29 E123.46853
G1 X151.94 Y159.17 E123.48062
G1 X152.12 Y159.08 E123.49290
G1 X152.30 Y159.02 E123.50483
G1 X152.50 Y159.00 E123.51723
G1 X152.70 Y159.02 E123.52964
G1 X152.88 Y159.08 E123.54157
G1 X153.06 Y159.17 E123.55385
G1 X153.20 Y159.29 E123.56594
G1 X153.33 Y159.44 E123.57803
G1 X153.42 Y159.62 E123.59030
G1 X153.48 Y159.81 E123.60255
G1 X153.50 Y160.00 E123.61471
G1 X153.48 Y160.19 E123.62681
G1 X153.42 Y160.38 E123.63907
G1 X153.33 Y160.56 E123.65134
G1 X153.20 Y160.70 E123.66343
G1 X153.06 Y160.83 E123.67552
G1 X152.88 Y160.92 E123.68779
G1 X152.69 Y160.98 E123.70004
G1 X152.51 Y161.00 E123.71151
G1 X152.30 Y160.98 E123.72454
G1 X152.12 Y160.92 E123.73647
G1 X151.94 Y160.83 E123.74875
G1 X151.80 Y160.70 E123.76084
G1 X151.67 Y160.56 E123.77292
G1 X151.58 Y160.38 E123.78520
G1 X151.52 Y160.19 E123.79745
G1 X151.50 Y160.00 E123.80955
G0 F6000 X151.00 Y160.00
;TYPE:WALL-OUTER
G1 F2700 X151.03 Y159.71 E123.82798
G1 X151.12 Y159.43 E123.84617
G1 X151.25 Y159.17 E123.86458
G1 X151.44 Y158.94 E123.88287
G1 X151.67 Y158.75 E123.90117
G1 X151.93 Y158.62 E123.91958
G1 X152.21 Y158.53 E123.93777
G1 X152.50 Y158.50 E123.95613
G1 X152.79 Y158.53 E123.97449
G1 X153.07 Y158.62 E123.99268
G1 X153.33 Y158.75 E124.01109
G1 X153.56 Y158.94 E124.02938
G1 X153.75 Y159.17 E124.04768
G1 X153.88 Y159.43 E124.06609
G1 X153.97 Y159.71 E124.08428
G1 X154.00 Y160.00 E124.10271
G1 X153.97 Y160.29 E124.12108
G1 X153.88 Y160.57 E124.13926
G1 X153.75 Y160.83 E124.15768
G1 X153.56 Y161.06 E124.17597
G1 X153.33 Y161.25 E124.19426
G1 X153.07 Y161.38 E124.21267
G1 X152.79 Y161.47 E124.23086
G1 X152.51 Y161.50 E124.24879
G1 X152.21 Y161.47 E124.26765
G1 X151.93 Y161.38 E124.28578
G1 X151.67 Y161.25 E124.30419
G1 X151.44 Y161.06 E124.32248
G1 X151.25 Y160.83 E124.34078
G1 X151.12 Y160.57 E124.35919
G1 X151.03 Y160.29 E124.37738
G1 X151.00 Y160.00 E124.39574
G0 F6000 X152.27 Y160.08
G0 X159.51 Y160.00
;TYPE:WALL-INNER
G1 F2700 X159.51 Y159.91 E124.40163
G1 X159.54 Y159.81 E124.40789
G1 X159.59 Y159.72 E124.41416
G1 X159.65 Y159.65 E124.41992
G1 X159.72 Y159.59 E124.42568
G1 X159.81 Y159.54 E124.43195
G1 X159.91 Y159.51 E124.43821
G1 X160.00 Y159.51 E124.44404
G1 X160.09 Y159.51 E124.44992
G1 X160.19 Y159.54 E124.45618
G1 X160.28 Y159.59 E124.46245
G1 X160.35 Y159.65 E124.46821
G1 X160.41 Y159.72 E124.47397
G1 X160.46 Y159.81 E124.48025
G1 X160.48 Y159.91 E124.48650
G1 X160.49 Y160.00 E124.49239
G1 X160.48 Y160.09 E124.49823
G1 X160.46 Y160.19 E124.50448
G1 X160.41 Y160.28 E124.51076
G1 X160.35 Y160.35 E124.51652
G1 X160.28 Y160.41 E124.52227
G1 X160.19 Y160.46 E124.52855
G1 X160.09 Y160.48 E124.53480
G1 X160.00 Y160.49 E124.54051
G1 X159.91 Y160.48 E124.54652
G1 X159.81 Y160.46 E124.55277
G1 X159.72 Y160.41 E124.55905
G1 X159.65 Y160.35 E124.56481
G1 X159.59 Y160.28 E124.57056
G1 X159.54 Y160.19 E124.57684
G1 X159.51 Y160.09 E124.58309
G1 X159.51 Y160.00 E124.58892
G0 F6000 X159.00 Y160.00
G1 F2700 X159.02 Y159.80 E124.60139
G1 X159.08 Y159.62 E124.61332
G1 X159.17 Y159.44 E124.62560
G1 X159.29 Y159.29 E124.63769
G1 X159.44 Y159.17 E124.64978
G1 X159.62 Y159.08 E124.66205
G1 X159.80 Y159.02 E124.67398
G1 X160.00 Y159.00 E124.68639
G1 X160.20 Y159.02 E124.69886
G1 X160.38 Y159.08 E124.71079
G1 X160.56 Y159.17 E124.72306
G1 X160.70 Y159.29 E124.73515
G1 X160.83 Y159.44 E124.74724
G1 X160.92 Y159.62 E124.75952
G1 X160.98 Y159.81 E124.77177
G1 X161.00 Y160.00 E124.78393
G1 X160.98 Y160.19 E124.79603
G1 X160.92 Y160.38 E124.80828
G1 X160.83 Y160.56 E124.82056
G1 X160.70 Y160.70 E124.83265
G1 X160.56 Y160.83 E124.84473
G1 X160.38 Y160.92 E124.85701
G1 X160.19 Y160.98 E124.86926
G1 X160.01 Y161.00 E124.88080
G1 X159.80 Y160.98 E124.89383
G1 X159.62 Y160.92 E124.90576
G1 X159.44 Y160.83 E124.91804
G1 X159.29 Y160.70 E124.93013
G1 X159.17 Y160.56 E124.94221
G1 X159.08 Y160.38 E124.95449
G1 X159.02 Y160.20 E124.96642
G1 X159.00 Y160.00 E124.97883
G0 F6000 X158.50 Y160.00
;TYPE:WALL-OUTER
G1 F2700 X158.53 Y159.71 E124.99725
G1 X158.62 Y159.43 E125.01544
G1 X158.75 Y159.17 E125.03385
G1 X158.94 Y158.94 E125.05215
G1 X159.17 Y158.75 E125.07044
G1 X159.43 Y158.62 E125.08885
G1 X159.71 Y158.53 E125.10704
G1 X160.00 Y158.50 E125.12540
G1 X160.29 Y158.53 E125.14382
G1 X160.57 Y158.62 E125.16201
G1 X160.83 Y158.75 E125.18043
G1 X161.06 Y158.94 E125.19872
G1 X161.25 Y159.17 E125.21701
G1 X161.38 Y159.43 E125.23542
G1 X161.47 Y159.71 E125.25361
G1 X161.50 Y160.00 E125.27204
G1 X161.47 Y160.29 E125.29041
G1 X161.38 Y160.57 E125.30860
G1 X161.25 Y160.83 E125.32701
G1 X161.06 Y161.06 E125.34530
G1 X160.83 Y161.25 E125.36360
G1 X160.57 Y161.38 E125.38201
G1 X160.29 Y161.47 E125.40020
G1 X160.01 Y161.50 E125.41819
G1 X159.71 Y161.47 E125.43698
G1 X159.43 Y161.38 E125.45517
G1 X159.17 Y161.25 E125.47358
G1 X158.94 Y161.06 E125.49188
G1 X158.75 Y160.83 E125.51017
G1 X158.62 Y160.57 E125.52858
G1 X158.53 Y160.29 E125.54677
G1 X158.50 Y160.00 E125.56513
G0 F6000 X159.77 Y160.08
G0 X160.00 Y152.99
;TYPE:WALL-INNER
G1 F2700 X159.91 Y152.98 E125.57114
G1 X159.81 Y152.96 E125.57740
G1 X159.72 Y152.91 E125.58368
G1 X159.65 Y152.85 E125.58943
G1 X159.59 Y152.78 E125.59519
G1 X159.54 Y152.69 E125.60147
G1 X159.51 Y152.59 E125.60772
G1 X159.51 Y152.50 E125.61355
G1 X159.51 Y152.41 E125.61937
G1 X159.54 Y152.31 E125.62563
G1 X159.59 Y152.22 E125.63190
G1 X159.65 Y152.15 E125.63766
G1 X159.72 Y152.09 E125.64342
G1 X159.81 Y152.04 E125.64970
G1 X159.91 Y152.02 E125.65595
G1 X160.00 Y152.01 E125.66178
G1 X160.09 Y152.02 E125.66768
G1 X160.19 Y152.04 E125.67393
G1 X160.28 Y152.09 E125.68021
G1 X160.35 Y152.15 E125.68597
G1 X160.41 Y152.22 E125.69172
G1 X160.46 Y152.31 E125.69800
G1 X160.48 Y152.41 E125.70425
G1 X160.49 Y152.50 E125.71009
G1 X160.48 Y152.59 E125.71592
G1 X160.46 Y152.69 E125.72217
G1 X160.41 Y152.78 E125.72845
G1 X160.35 Y152.85 E125.73421
G1 X160.28 Y152.91 E125.73996
G1 X160.19 Y152.96 E125.74624
G1 X160.09 Y152.98 E125.75249
G1 X160.00 Y152.99 E125.75820
G0 F6000 X160.01 Y153.50
G1 F2700 X159.80 Y153.48 E125.77123
G1 X159.62 Y153.42 E125.78316
G1 X159.44 Y153.33 E125.79544
G1 X159.29 Y153.20 E125.80753
G1 X159.17 Y153.06 E125.81962
G1 X159.08 Y152.88 E125.83189
G1 X159.02 Y152.70 E125.84382
G1 X159.00 Y152.50 E125.85623
G1 X159.02 Y152.30 E125.86863
G1 X159.08 Y152.12 E125.88057
G1 X159.17 Y151.94 E125.89284
G1 X159.29 Y151.80 E125.90493
G1 X159.44 Y151.67 E125.91702
G1 X159.62 Y151.58 E125.92930
G1 X159.81 Y151.52 E125.94155
G1 X160.00 Y151.50 E125.95365
G1 X160.19 Y151.52 E125.96581
G1 X160.38 Y151.58 E125.97806
G1 X160.56 Y151.67 E125.99034
G1 X160.70 Y151.80 E126.00242
G1 X160.83 Y151.94 E126.01451
G1 X160.92 Y152.12 E126.02679
G1 X160.98 Y152.31 E126.03904
G1 X161.00 Y152.50 E126.05114
G1 X160.98 Y152.69 E126.06324
G1 X160.92 Y152.88 E126.07549
G1 X160.83 Y153.06 E126.08777
G1 X160.70 Y153.20 E126.09985
G1 X160.56 Y153.33 E126.11194
G1 X160.38 Y153.42 E126.12422
G1 X160.19 Y153.48 E126.13647
G1 X160.01 Y153.50 E126.14801
G0 F6000 X160.01 Y154.00
;TYPE:WALL-OUTER
G1 F2700 X159.71 Y153.97 E126.16680
G1 X159.43 Y153.88 E126.18499
G1 X159.17 Y153.75 E126.20340
G1 X158.94 Y153.56 E126.22169
G1 X158.75 Y153.33 E126.23999
G1 X158.62 Y153.07 E126.25840
G1 X158.53 Y152.79 E126.27659
G1 X158.50 Y152.50 E126.29495
G1 X158.53 Y152.21 E126.31331
G1 X158.62 Y151.93 E126.33150
G1 X158.75 Y151.67 E126.34991
G1 X158.94 Y151.44 E126.36821
G1 X159.17 Y151.25 E126.38650
G1 X159.43 Y151.12 E126.40491
G1 X159.71 Y151.03 E126.42310
G1 X160.00 Y151.00 E126.44147
G1 X160.29 Y151.03 E126.45990
G1 X160.57 Y151.12 E126.47809
G1 X160.83 Y151.25 E126.49650
G1 X161.06 Y151.44 E126.51479
G1 X161.25 Y151.67 E126.53308
G1 X161.38 Y151.93 E126.55150
G1 X161.47 Y152.21 E126.56968
G1 X161.50 Y152.50 E126.58805
G1 X161.47 Y152.79 E126.60642
G1 X161.38 Y153.07 E126.62461
G1 X161.25 Y153.33 E126.64302
G1 X161.06 Y153.56 E126.66131
G1 X160.83 Y153.75 E126.67961
G1 X160.57 Y153.88 E126.69802
G1 X160.29 Y153.97 E126.71621
G1 X160.01 Y154.00 E126.73420
G0 F6000 X160.08 Y152.73
G0 X152.99 Y152.50
;TYPE:WALL-INNER
G1 F2700 X152.98 Y152.59 E126.74003
G1 X152.96 Y152.69 E126.74628
G1 X152.91 Y152.78 E126.75256
G1 X152.85 Y152.85 E126.75832
G1 X152.78 Y152.91 E126.76407
G1 X152.69 Y152.96 E126.77035
G1 X152.59 Y152.98 E126.77661
G1 X152.50 Y152.99 E126.78225
G1 X152.41 Y152.98 E126.78826
G1 X152.31 Y152.96 E126.79451
G1 X152.22 Y152.91 E126.80079
G1 X152.15 Y152.85 E126.80655
G1 X152.09 Y152.78 E126.81230
G1 X152.04 Y152.69 E126.81858
G1 X152.02 Y152.59 E126.82483
G1 X152.01 Y152.50 E126.83067
G1 X152.02 Y152.41 E126.83650
G1 X152.04 Y152.31 E126.84275
G1 X152.09 Y152.22 E126.84903
G1 X152.15 Y152.15 E126.85479
G1 X152.22 Y152.09 E126.86055
G1 X152.31 Y152.04 E126.86682
G1 X152.41 Y152.02 E126.87308
G1 X152.50 Y152.01 E126.87891
G1 X152.59 Y152.02 E126.88474
G1 X152.69 Y152.04 E126.89100
G1 X152.78 Y152.09 E126.89727
G1 X152.85 Y152.15 E126.90303
G1 X152.91 Y152.22 E126.90879
G1 X152.96 Y152.31 E126.91506
G1 X152.98 Y152.41 E126.92132
G1 X152.99 Y152.50 E126.92715
G0 F6000 X153.50 Y152.50
G1 F2700 X153.48 Y152.69 E126.93925
G1 X153.42 Y152.88 E126.95150
G1 X153.33 Y153.06 E126.96378
G1 X153.20 Y153.20 E126.97587
G1 X153.06 Y153.33 E126.98795
G1 X152.88 Y153.42 E127.00023
G1 X152.69 Y153.48 E127.01248
G1 X152.51 Y153.50 E127.02395
G1 X152.30 Y153.48 E127.03697
G1 X152.12 Y153.42 E127.04891
G1 X151.94 Y153.33 E127.06118
G1 X151.80 Y153.20 E127.07327
G1 X151.67 Y153.06 E127.08536
G1 X151.58 Y152.88 E127.09764
G1 X151.52 Y152.69 E127.10989
G1 X151.50 Y152.50 E127.12199
G1 X151.52 Y152.31 E127.13409
G1 X151.58 Y152.12 E127.14634
G1 X151.67 Y151.94 E127.15861
G1 X151.80 Y151.80 E127.17070
G1 X151.94 Y151.67 E127.18279
G1 X152.12 Y151.58 E127.19507
G1 X152.31 Y151.52 E127.20732
G1 X152.50 Y151.50 E127.21942
G1 X152.69 Y151.52 E127.23152
G1 X152.88 Y151.58 E127.24377
G1 X153.06 Y151.67 E127.25604
G1 X153.20 Y151.80 E127.26813
G1 X153.33 Y151.94 E127.28022
G1 X153.42 Y152.12 E127.29250
G1 X153.48 Y152.31 E127.30475
G1 X153.50 Y152.50 E127.31685
G0 F6000 X154.00 Y152.50
;TYPE:WALL-OUTER
G1 F2700 X153.97 Y152.79 E127.33522
G1 X153.88 Y153.07 E127.35340
G1 X153.75 Y153.33 E127.37182
G1 X153.56 Y153.56 E127.39011
G1 X153.33 Y153.75 E127.40840
G1 X153.07 Y153.88 E127.42681
G1 X152.79 Y153.97 E127.44500
G1 X152.51 Y154.00 E127.46293
G1 X152.21 Y153.97 E127.48179
G1 X151.93 Y153.88 E127.49992
G1 X151.67 Y153.75 E127.51833
G1 X151.44 Y153.56 E127.53662
G1 X151.25 Y153.33 E127.55492
G1 X151.12 Y153.07 E127.57333
G1 X151.03 Y152.79 E127.59152
G1 X151.00 Y152.50 E127.60988
G1 X151.03 Y152.21 E127.62825
G1 X151.12 Y151.93 E127.64644
G1 X151.25 Y151.67 E127.66485
G1 X151.44 Y151.44 E127.68314
G1 X151.67 Y151.25 E127.70144
G1 X151.93 Y151.12 E127.71985
G1 X152.21 Y151.03 E127.73804
G1 X152.50 Y151.00 E127.75641
G1 X152.79 Y151.03 E127.77477
G1 X153.07 Y151.12 E127.79296
G1 X153.33 Y151.25 E127.81137
G1 X153.56 Y151.44 E127.82967
G1 X153.75 Y151.67 E127.84796
G1 X153.88 Y151.93 E127.86637
G1 X153.97 Y152.21 E127.88456
G1 X154.00 Y152.50 E127.90293
G0 F6000 X152.73 Y152.42
G0 X152.51 Y145.49
;TYPE:WALL-INNER
G1 F2700 X152.40 Y145.48 E127.90957
G1 X152.31 Y145.46 E127.91551
G1 X152.22 Y145.41 E127.92178
G1 X152.15 Y145.35 E127.92754
G1 X152.09 Y145.28 E127.93330
G1 X152.04 Y145.19 E127.93957
G1 X152.02 Y145.09 E127.94583
G1 X152.01 Y145.00 E127.95172
G1 X152.02 Y144.91 E127.95756
G1 X152.04 Y144.81 E127.96381
G1 X152.09 Y144.72 E127.97009
G1 X152.15 Y144.65 E127.97584
G1 X152.22 Y144.59 E127.98160
G1 X152.31 Y144.54 E127.98788
G1 X152.41 Y144.52 E127.99413
G1 X152.50 Y144.51 E127.99997
G1 X152.59 Y144.52 E128.00580
G1 X152.69 Y144.54 E128.01205
G1 X152.78 Y144.59 E128.01833
G1 X152.85 Y144.65 E128.02409
G1 X152.91 Y144.72 E128.02984
G1 X152.96 Y144.81 E128.03612
G1 X152.98 Y144.91 E128.04237
G1 X152.99 Y145.00 E128.04821
G1 X152.98 Y145.09 E128.05410
G1 X152.96 Y145.19 E128.06036
G1 X152.91 Y145.28 E128.06663
G1 X152.85 Y145.35 E128.07239
G1 X152.78 Y145.41 E128.07815
G1 X152.69 Y145.46 E128.08442
G1 X152.59 Y145.49 E128.09068
G1 X152.51 Y145.49 E128.09601
G0 F6000 X152.50 Y146.00
G1 F2700 X152.30 Y145.98 E128.10866
G1 X152.12 Y145.92 E128.12059
G1 X151.94 Y145.83 E128.13286
G1 X151.80 Y145.71 E128.14495
G1 X151.67 Y145.56 E128.15704
G1 X151.58 Y145.38 E128.16932
G1 X151.52 Y145.19 E128.18157
G1 X151.50 Y145.00 E128.19373
G1 X151.52 Y144.81 E128.20583
G1 X151.58 Y144.62 E128.21808
G1 X151.67 Y144.44 E128.23036
G1 X151.80 Y144.30 E128.24245
G1 X151.94 Y144.17 E128.25453
G1 X152.12 Y144.08 E128.26681
G1 X152.31 Y144.02 E128.27906
G1 X152.50 Y144.00 E128.29116
G1 X152.69 Y144.02 E128.30326
G1 X152.88 Y144.08 E128.31551
G1 X153.06 Y144.17 E128.32779
G1 X153.20 Y144.30 E128.33988
G1 X153.33 Y144.44 E128.35196
G1 X153.42 Y144.62 E128.36424
G1 X153.48 Y144.81 E128.37649
G1 X153.50 Y145.00 E128.38859
G1 X153.48 Y145.19 E128.40075
G1 X153.42 Y145.38 E128.41300
G1 X153.33 Y145.56 E128.42528
G1 X153.20 Y145.71 E128.43737
G1 X153.06 Y145.83 E128.44946
G1 X152.88 Y145.92 E128.46173
G1 X152.70 Y145.98 E128.47367
G1 X152.50 Y146.00 E128.48582
G0 F6000 X152.51 Y146.50
;TYPE:WALL-OUTER
G1 F2700 X152.21 Y146.47 E128.50461
G1 X151.93 Y146.38 E128.52280
G1 X151.67 Y146.25 E128.54121
G1 X151.44 Y146.06 E128.55950
G1 X151.25 Y145.83 E128.57779
G1 X151.12 Y145.57 E128.59621
G1 X151.03 Y145.29 E128.61439
G1 X151.00 Y145.00 E128.63276
G1 X151.03 Y144.71 E128.65119
G1 X151.12 Y144.43 E128.66938
G1 X151.25 Y144.17 E128.68779
G1 X151.44 Y143.94 E128.70609
G1 X151.67 Y143.75 E128.72438
G1 X151.93 Y143.62 E128.74279
G1 X152.21 Y143.53 E128.76098
G1 X152.50 Y143.50 E128.77935
G1 X152.79 Y143.53 E128.79771
G1 X153.07 Y143.62 E128.81590
G1 X153.33 Y143.75 E128.83432
G1 X153.56 Y143.94 E128.85261
G1 X153.75 Y144.17 E128.87090
G1 X153.88 Y144.43 E128.88931
G1 X153.97 Y144.71 E128.90750
G1 X154.00 Y145.00 E128.92587
G1 X153.97 Y145.29 E128.94430
G1 X153.88 Y145.57 E128.96249
G1 X153.75 Y145.83 E128.98090
G1 X153.56 Y146.06 E128.99919
G1 X153.33 Y146.25 E129.01749
G1 X153.07 Y146.38 E129.03590
G1 X152.79 Y146.47 E129.05409
G1 X152.51 Y146.50 E129.07201
G0 F6000 X152.58 Y145.23
G0 X159.51 Y145.00
;TYPE:WALL-INNER
G1 F2700 X159.51 Y144.91 E129.07784
G1 X159.54 Y144.81 E129.08409
G1 X159.59 Y144.72 E129.09037
G1 X159.65 Y144.65 E129.09612
G1 X159.72 Y144.59 E129.10188
G1 X159.81 Y144.54 E129.10816
G1 X159.91 Y144.52 E129.11441
G1 X160.00 Y144.51 E129.12024
G1 X160.09 Y144.52 E129.12614
G1 X160.19 Y144.54 E129.13239
G1 X160.28 Y144.59 E129.13867
G1 X160.35 Y144.65 E129.14443
G1 X160.41 Y144.72 E129.15018
G1 X160.46 Y144.81 E129.15646
G1 X160.48 Y144.91 E129.16271
G1 X160.49 Y145.00 E129.16855
G1 X160.48 Y145.09 E129.17444
G1 X160.46 Y145.19 E129.18070
G1 X160.41 Y145.28 E129.18697
G1 X160.35 Y145.35 E129.19273
G1 X160.28 Y145.41 E129.19849
G1 X160.19 Y145.46 E129.20476
G1 X160.09 Y145.49 E129.21102
G1 X160.01 Y145.49 E129.21641
G1 X159.90 Y145.48 E129.22305
G1 X159.81 Y145.46 E129.22899
G1 X159.72 Y145.41 E129.23526
G1 X159.65 Y145.35 E129.24102
G1 X159.59 Y145.28 E129.24678
G1 X159.54 Y145.19 E129.25306
G1 X159.51 Y145.09 E129.25931
G1 X159.51 Y145.00 E129.26520
G0 F6000 X159.00 Y145.00
G1 F2700 X159.02 Y144.80 E129.27760
G1 X159.08 Y144.62 E129.28954
G1 X159.17 Y144.44 E129.30181
G1 X159.29 Y144.30 E129.31390
G1 X159.44 Y144.17 E129.32599
G1 X159.62 Y144.08 E129.33826
G1 X159.81 Y144.02 E129.35052
G1 X160.00 Y144.00 E129.36262
G1 X160.19 Y144.02 E129.37478
G1 X160.38 Y144.08 E129.38703
G1 X160.56 Y144.17 E129.39930
G1 X160.70 Y144.30 E129.41139
G1 X160.83 Y144.44 E129.42348
G1 X160.92 Y144.62 E129.43576
G1 X160.98 Y144.81 E129.44801
G1 X161.00 Y145.00 E129.46011
G1 X160.98 Y145.19 E129.47227
G1 X160.92 Y145.38 E129.48452
G1 X160.83 Y145.56 E129.49680
G1 X160.70 Y145.71 E129.50889
G1 X160.56 Y145.83 E129.52097
G1 X160.38 Y145.92 E129.53325
G1 X160.20 Y145.98 E129.54518
G1 X160.00 Y146.00 E129.55733
G1 X159.80 Y145.98 E129.57004
G1 X159.62 Y145.92 E129.58198
G1 X159.44 Y145.83 E129.59425
G1 X159.29 Y145.71 E129.60634
G1 X159.17 Y145.56 E129.61843
G1 X159.08 Y145.38 E129.63070
G1 X159.02 Y145.20 E129.64264
G1 X159.00 Y145.00 E129.65511
G0 F6000 X158.50 Y145.00
;TYPE:WALL-OUTER
G1 F2700 X158.53 Y144.71 E129.67347
G1 X158.62 Y144.43 E129.69166
G1 X158.75 Y144.17 E129.71007
G1 X158.94 Y143.94 E129.72836
G1 X159.17 Y143.75 E129.74665
G1 X159.43 Y143.62 E129.76507
G1 X159.71 Y143.53 E129.78326
G1 X160.00 Y143.50 E129.80162
G1 X160.29 Y143.53 E129.82005
G1 X160.57 Y143.62 E129.83824
G1 X160.83 Y143.75 E129.85665
G1 X161.06 Y143.94 E129.87495
G1 X161.25 Y144.17 E129.89324
G1 X161.38 Y144.43 E129.91165
G1 X161.47 Y144.71 E129.92984
G1 X161.50 Y145.00 E129.94821
G1 X161.47 Y145.29 E129.96664
G1 X161.38 Y145.57 E129.98483
G1 X161.25 Y145.83 E130.00324
G1 X161.06 Y146.06 E130.02153
G1 X160.83 Y146.25 E130.03982
G1 X160.57 Y146.38 E130.05824
G1 X160.29 Y146.47 E130.07643
G1 X160.01 Y146.50 E130.09435
G1 X159.71 Y146.47 E130.11320
G1 X159.43 Y146.38 E130.13139
G1 X159.17 Y146.25 E130.14980
G1 X158.94 Y146.06 E130.16809
G1 X158.75 Y145.83 E130.18639
G1 X158.62 Y145.57 E130.20480
G1 X158.53 Y145.29 E130.22299
G1 X158.50 Y145.00 E130.24141
G0 F6000 X159.79 Y144.76
;TYPE:FILL
G1 F2700 X160.24 Y145.21 E130.28101
;LAYER:1
G0 F6000 X160.35 Y145.35 Z0.50
;TYPE:WALL-INNER
G1 F660 X160.28 Y145.41 E130.28485
G1 X160.19 Y145.46 E130.28903
G1 X160.09 Y145.49 E130.29320
G1 X160.00 Y145.49 E130.29709
G1 X159.91 Y145.49 E130.30101
G1 X159.81 Y145.46 E130.30518
G1 X159.72 Y145.41 E130.30937
G1 X159.65 Y145.35 E130.31320
G1 X159.59 Y145.28 E130.31704
G1 X159.54 Y145.19 E130.32123
G1 X159.51 Y145.09 E130.32539
G1 X159.51 Y145.00 E130.32932
G1 X159.51 Y144.91 E130.33321
G1 X159.54 Y144.81 E130.33737
G1 X159.59 Y144.72 E130.34156
G1 X159.65 Y144.65 E130.34540
G1 X159.72 Y144.59 E130.34924
G1 X159.81 Y144.54 E130.35342
G1 X159.91 Y144.52 E130.35759
G1 X160.00 Y144.51 E130.36148
G1 X160.09 Y144.52 E130.36541
G1 X160.19 Y144.54 E130.36958
G1 X160.28 Y144.59 E130.37376
G1 X160.35 Y144.65 E130.37760
G1 X160.41 Y144.72 E130.38144
G1 X160.46 Y144.81 E130.38562
G1 X160.48 Y144.91 E130.38979
G1 X160.49 Y145.00 E130.39368
G1 X160.48 Y145.09 E130.39761
G1 X160.46 Y145.19 E130.40178
G1 X160.41 Y145.28 E130.40596
G1 X160.35 Y145.35 E130.40980
G0 F6000 X160.70 Y145.71
G1 F660 X160.56 Y145.83 E130.41786
G1 X160.38 Y145.92 E130.42604
G1 X160.20 Y145.98 E130.43400
G1 X160.00 Y146.00 E130.44227
G1 X159.80 Y145.98 E130.45058
G1 X159.62 Y145.92 E130.45854
G1 X159.44 Y145.83 E130.46672
G1 X159.29 Y145.71 E130.47478
G1 X159.17 Y145.56 E130.48284
G1 X159.08 Y145.38 E130.49102
G1 X159.02 Y145.20 E130.49898
G1 X159.00 Y145.00 E130.50729
G1 X159.02 Y144.80 E130.51556
G1 X159.08 Y144.62 E130.52352
G1 X159.17 Y144.44 E130.53170
G1 X159.29 Y144.30 E130.53976
G1 X159.44 Y144.17 E130.54782
G1 X159.62 Y144.08 E130.55600
G1 X159.81 Y144.02 E130.56417
G1 X160.00 Y144.00 E130.57224
G1 X160.19 Y144.02 E130.58034
G1 X160.38 Y144.08 E130.58851
G1 X160.56 Y144.17 E130.59669
G1 X160.70 Y144.30 E130.60475
G1 X160.83 Y144.44 E130.61281
G1 X160.92 Y144.62 E130.62100
G1 X160.98 Y144.81 E130.62916
G1 X161.00 Y145.00 E130.63723
G1 X160.98 Y145.19 E130.64534
G1 X160.92 Y145.38 E130.65351
G1 X160.83 Y145.56 E130.66169
G1 X160.70 Y145.71 E130.66975
G0 F6000 X161.06 Y146.06
;TYPE:WALL-OUTER
G1 F660 X160.83 Y146.25 E130.68194
G1 X160.57 Y146.38 E130.69422
G1 X160.29 Y146.47 E130.70634
G1 X160.00 Y146.50 E130.71859
G1 X159.71 Y146.47 E130.73087
G1 X159.43 Y146.38 E130.74299
G1 X159.17 Y146.25 E130.75527
G1 X158.94 Y146.06 E130.76746
G1 X158.75 Y145.83 E130.77966
G1 X158.62 Y145.57 E130.79193
G1 X158.53 Y145.29 E130.80406
G1 X158.50 Y145.00 E130.81634
G1 X158.53 Y144.71 E130.82858
G1 X158.62 Y144.43 E130.84071
G1 X158.75 Y144.17 E130.85298
G1 X158.94 Y143.94 E130.86518
G1 X159.17 Y143.75 E130.87737
G1 X159.43 Y143.62 E130.88965
G1 X159.71 Y143.53 E130.90177
G1 X160.00 Y143.50 E130.91402
G1 X160.29 Y143.53 E130.92631
G1 X160.57 Y143.62 E130.93843
G1 X160.83 Y143.75 E130.95071
G1 X161.06 Y143.94 E130.96290
G1 X161.25 Y144.17 E130.97510
G1 X161.38 Y144.43 E130.98737
G1 X161.47 Y144.71 E130.99950
G1 X161.50 Y145.00 E131.01174
G1 X161.47 Y145.29 E131.02403
G1 X161.38 Y145.57 E131.03616
G1 X161.25 Y145.83 E131.04843
G1 X161.06 Y146.06 E131.06063
G0 F6000 X160.81 Y145.81
G0 X159.75 Y145.19
;TYPE:FILL
G1 F660 X160.19 Y144.75 E131.08685
G0 F6000 X160.00 Y152.01
;TYPE:WALL-INNER
G1 F660 X160.09 Y152.02 E131.09078
G1 X160.19 Y152.04 E131.09495
G1 X160.28 Y152.09 E131.09913
G1 X160.35 Y152.15 E131.10297
G1 X160.41 Y152.22 E131.10681
G1 X160.46 Y152.31 E131.11099
G1 X160.48 Y152.41 E131.11516
G1 X160.49 Y152.50 E131.11905
G1 X160.48 Y152.59 E131.12294
G1 X160.46 Y152.69 E131.12711
G1 X160.41 Y152.78 E131.13129
G1 X160.35 Y152.85 E131.13513
G1 X160.28 Y152.91 E131.13897
G1 X160.19 Y152.96 E131.14315
G1 X160.09 Y152.98 E131.14732
G1 X160.00 Y152.99 E131.15121
G1 X159.91 Y152.98 E131.15514
G1 X159.81 Y152.96 E131.15931
G1 X159.72 Y152.91 E131.16350
G1 X159.65 Y152.85 E131.16733
G1 X159.59 Y152.78 E131.17117
G1 X159.54 Y152.69 E131.17536
G1 X159.51 Y152.59 E131.17953
G1 X159.51 Y152.50 E131.18341
G1 X159.51 Y152.41 E131.18730
G1 X159.54 Y152.31 E131.19146
G1 X159.59 Y152.22 E131.19565
G1 X159.65 Y152.15 E131.19949
G1 X159.72 Y152.09 E131.20332
G1 X159.81 Y152.04 E131.20751
G1 X159.91 Y152.02 E131.21168
G1 X160.00 Y152.01 E131.21557
G0 F6000 X160.00 Y151.50
G1 F660 X160.19 Y151.52 E131.22368
G1 X160.38 Y151.58 E131.23184
G1 X160.56 Y151.67 E131.24003
G1 X160.70 Y151.80 E131.24809
G1 X160.83 Y151.94 E131.25614
G1 X160.92 Y152.12 E131.26433
G1 X160.98 Y152.31 E131.27250
G1 X161.00 Y152.50 E131.28056
G1 X160.98 Y152.69 E131.28863
G1 X160.92 Y152.88 E131.29680
G1 X160.83 Y153.06 E131.30498
G1 X160.70 Y153.20 E131.31304
G1 X160.56 Y153.33 E131.32110
G1 X160.38 Y153.42 E131.32928
G1 X160.19 Y153.48 E131.33745
G1 X160.00 Y153.50 E131.34552
G1 X159.81 Y153.48 E131.35362
G1 X159.62 Y153.42 E131.36179
G1 X159.44 Y153.33 E131.36997
G1 X159.29 Y153.20 E131.37803
G1 X159.17 Y153.06 E131.38609
G1 X159.08 Y152.88 E131.39428
G1 X159.02 Y152.70 E131.40223
G1 X159.00 Y152.50 E131.41050
G1 X159.02 Y152.30 E131.41877
G1 X159.08 Y152.12 E131.42673
G1 X159.17 Y151.94 E131.43491
G1 X159.29 Y151.80 E131.44297
G1 X159.44 Y151.67 E131.45103
G1 X159.62 Y151.58 E131.45921
G1 X159.81 Y151.52 E131.46738
G1 X160.00 Y151.50 E131.47545
G0 F6000 X160.00 Y151.00
;TYPE:WALL-OUTER
G1 F660 X160.29 Y151.03 E131.48773
G1 X160.57 Y151.12 E131.49986
G1 X160.83 Y151.25 E131.51213
G1 X161.06 Y151.44 E131.52433
G1 X161.25 Y151.67 E131.53653
G1 X161.38 Y151.93 E131.54880
G1 X161.47 Y152.21 E131.56093
G1 X161.50 Y152.50 E131.57317
G1 X161.47 Y152.79 E131.58542
G1 X161.38 Y153.07 E131.59754
G1 X161.25 Y153.33 E131.60982
G1 X161.06 Y153.56 E131.62201
G1 X160.83 Y153.75 E131.63421
G1 X160.57 Y153.88 E131.64648
G1 X160.29 Y153.97 E131.65861
G1 X160.00 Y154.00 E131.67085
G1 X159.71 Y153.97 E131.68314
G1 X159.43 Y153.88 E131.69527
G1 X159.17 Y153.75 E131.70754
G1 X158.94 Y153.56 E131.71974
G1 X158.75 Y153.33 E131.73193
G1 X158.62 Y153.07 E131.74421
G1 X158.53 Y152.79 E131.75633
G1 X158.50 Y152.50 E131.76857
G1 X158.53 Y152.21 E131.78081
G1 X158.62 Y151.93 E131.79294
G1 X158.75 Y151.67 E131.80521
G1 X158.94 Y151.44 E131.81741
G1 X159.17 Y151.25 E131.82960
G1 X159.43 Y151.12 E131.84188
G1 X159.71 Y151.03 E131.85400
G1 X160.00 Y151.00 E131.86625
G0 F6000 X159.92 Y152.27
G0 X152.99 Y152.50
;TYPE:WALL-INNER
G1 F660 X152.98 Y152.59 E131.87014
G1 X152.96 Y152.69 E131.87431
G1 X152.91 Y152.78 E131.87849
G1 X152.85 Y152.85 E131.88233
G1 X152.78 Y152.91 E131.88617
G1 X152.69 Y152.96 E131.89035
G1 X152.59 Y152.98 E131.89452
G1 X152.50 Y152.99 E131.89841
G1 X152.41 Y152.98 E131.90230
G1 X152.31 Y152.96 E131.90647
G1 X152.22 Y152.91 E131.91065
G1 X152.15 Y152.85 E131.91449
G1 X152.09 Y152.78 E131.91833
G1 X152.04 Y152.69 E131.92251
G1 X152.02 Y152.59 E131.92668
G1 X152.01 Y152.50 E131.93057
G1 X152.02 Y152.41 E131.93446
G1 X152.04 Y152.31 E131.93863
G1 X152.09 Y152.22 E131.94282
G1 X152.15 Y152.15 E131.94665
G1 X152.22 Y152.09 E131.95049
G1 X152.31 Y152.04 E131.95468
G1 X152.41 Y152.02 E131.95884
G1 X152.50 Y152.01 E131.96273
G1 X152.59 Y152.02 E131.96662
G1 X152.69 Y152.04 E131.97079
G1 X152.78 Y152.09 E131.97498
G1 X152.85 Y152.15 E131.97881
G1 X152.91 Y152.22 E131.98265
G1 X152.96 Y152.31 E131.98684
G1 X152.98 Y152.41 E131.99101
G1 X152.99 Y152.50 E131.99489
G0 F6000 X153.50 Y152.50
G1 F660 X153.48 Y152.69 E132.00296
G1 X153.42 Y152.88 E132.01113
G1 X153.33 Y153.06 E132.01931
G1 X153.20 Y153.20 E132.02737
G1 X153.06 Y153.33 E132.03543
G1 X152.88 Y153.42 E132.04361
G1 X152.69 Y153.48 E132.05178
G1 X152.50 Y153.50 E132.05985
G1 X152.31 Y153.48 E132.06792
G1 X152.12 Y153.42 E132.07608
G1 X151.94 Y153.33 E132.08427
G1 X151.80 Y153.20 E132.09233
G1 X151.67 Y153.06 E132.10038
G1 X151.58 Y152.88 E132.10857
G1 X151.52 Y152.69 E132.11673
G1 X151.50 Y152.50 E132.12480
G1 X151.52 Y152.31 E132.13287
G1 X151.58 Y152.12 E132.14104
G1 X151.67 Y151.94 E132.14922
G1 X151.80 Y151.80 E132.15728
G1 X151.94 Y151.67 E132.16534
G1 X152.12 Y151.58 E132.17352
G1 X152.31 Y151.52 E132.18169
G1 X152.50 Y151.50 E132.18976
G1 X152.69 Y151.52 E132.19782
G1 X152.88 Y151.58 E132.20599
G1 X153.06 Y151.67 E132.21417
G1 X153.20 Y151.80 E132.22223
G1 X153.33 Y151.94 E132.23029
G1 X153.42 Y152.12 E132.23847
G1 X153.48 Y152.31 E132.24664
G1 X153.50 Y152.50 E132.25471
G0 F6000 X154.00 Y152.50
;TYPE:WALL-OUTER
G1 F660 X153.97 Y152.79 E132.26695
G1 X153.88 Y153.07 E132.27908
G1 X153.75 Y153.33 E132.29135
G1 X153.56 Y153.56 E132.30355
G1 X153.33 Y153.75 E132.31575
G1 X153.07 Y153.88 E132.32802
G1 X152.79 Y153.97 E132.34015
G1 X152.50 Y154.00 E132.35239
G1 X152.21 Y153.97 E132.36464
G1 X151.93 Y153.88 E132.37676
G1 X151.67 Y153.75 E132.38904
G1 X151.44 Y153.56 E132.40123
G1 X151.25 Y153.33 E132.41343
G1 X151.12 Y153.07 E132.42570
G1 X151.03 Y152.79 E132.43783
G1 X151.00 Y152.50 E132.45007
G1 X151.03 Y152.21 E132.46232
G1 X151.12 Y151.93 E132.47444
G1 X151.25 Y151.67 E132.48672
G1 X151.44 Y151.44 E132.49891
G1 X151.67 Y151.25 E132.51111
G1 X151.93 Y151.12 E132.52338
G1 X152.21 Y151.03 E132.53551
G1 X152.50 Y151.00 E132.54775
G1 X152.79 Y151.03 E132.56000
G1 X153.07 Y151.12 E132.57213
G1 X153.33 Y151.25 E132.58440
G1 X153.56 Y151.44 E132.59660
G1 X153.75 Y151.67 E132.60879
G1 X153.88 Y151.93 E132.62107
G1 X153.97 Y152.21 E132.63319
G1 X154.00 Y152.50 E132.64544
G0 F6000 X152.69 Y152.25
;TYPE:FILL
G1 F660 X152.25 Y152.69 E132.67157
G0 F6000 X152.50 Y145.49
;TYPE:WALL-INNER
G1 F660 X152.41 Y145.49 E132.67546
G1 X152.31 Y145.46 E132.67963
G1 X152.22 Y145.41 E132.68381
G1 X152.15 Y145.35 E132.68765
G1 X152.09 Y145.28 E132.69149
G1 X152.04 Y145.19 E132.69567
G1 X152.02 Y145.09 E132.69984
G1 X152.01 Y145.00 E132.70377
G1 X152.02 Y144.91 E132.70766
G1 X152.04 Y144.81 E132.71183
G1 X152.09 Y144.72 E132.71601
G1 X152.15 Y144.65 E132.71985
G1 X152.22 Y144.59 E132.72369
G1 X152.31 Y144.54 E132.72787
G1 X152.41 Y144.52 E132.73204
G1 X152.50 Y144.51 E132.73593
G1 X152.59 Y144.52 E132.73982
G1 X152.69 Y144.54 E132.74399
G1 X152.78 Y144.59 E132.74817
G1 X152.85 Y144.65 E132.75201
G1 X152.91 Y144.72 E132.75585
G1 X152.96 Y144.81 E132.76003
G1 X152.98 Y144.91 E132.76420
G1 X152.99 Y145.00 E132.76809
G1 X152.98 Y145.09 E132.77202
G1 X152.96 Y145.19 E132.77619
G1 X152.91 Y145.28 E132.78038
G1 X152.85 Y145.35 E132.78421
G1 X152.78 Y145.41 E132.78805
G1 X152.69 Y145.46 E132.79224
G1 X152.59 Y145.49 E132.79641
G1 X152.50 Y145.49 E132.80029
G0 F6000 X152.50 Y146.00
G1 F660 X152.30 Y145.98 E132.80856
G1 X152.12 Y145.92 E132.81652
G1 X151.94 Y145.83 E132.82470
G1 X151.80 Y145.71 E132.83276
G1 X151.67 Y145.56 E132.84082
G1 X151.58 Y145.38 E132.84900
G1 X151.52 Y145.19 E132.85717
G1 X151.50 Y145.00 E132.86528
G1 X151.52 Y144.81 E132.87334
G1 X151.58 Y144.62 E132.88151
G1 X151.67 Y144.44 E132.88969
G1 X151.80 Y144.30 E132.89775
G1 X151.94 Y144.17 E132.90581
G1 X152.12 Y144.08 E132.91400
G1 X152.31 Y144.02 E132.92216
G1 X152.50 Y144.00 E132.93023
G1 X152.69 Y144.02 E132.93830
G1 X152.88 Y144.08 E132.94647
G1 X153.06 Y144.17 E132.95465
G1 X153.20 Y144.30 E132.96271
G1 X153.33 Y144.44 E132.97077
G1 X153.42 Y144.62 E132.97895
G1 X153.48 Y144.81 E132.98712
G1 X153.50 Y145.00 E132.99518
G1 X153.48 Y145.19 E133.00329
G1 X153.42 Y145.38 E133.01146
G1 X153.33 Y145.56 E133.01964
G1 X153.20 Y145.71 E133.02770
G1 X153.06 Y145.83 E133.03576
G1 X152.88 Y145.92 E133.04394
G1 X152.70 Y145.98 E133.05190
G1 X152.50 Y146.00 E133.06017
G0 F6000 X152.50 Y146.50
;TYPE:WALL-OUTER
G1 F660 X152.21 Y146.47 E133.07241
G1 X151.93 Y146.38 E133.08454
G1 X151.67 Y146.25 E133.09681
G1 X151.44 Y146.06 E133.10901
G1 X151.25 Y145.83 E133.12120
G1 X151.12 Y145.57 E133.13348
G1 X151.03 Y145.29 E133.14560
G1 X151.00 Y145.00 E133.15785
G1 X151.03 Y144.71 E133.17014
G1 X151.12 Y144.43 E133.18226
G1 X151.25 Y144.17 E133.19454
G1 X151.44 Y143.94 E133.20673
G1 X151.67 Y143.75 E133.21893
G1 X151.93 Y143.62 E133.23120
G1 X152.21 Y143.53 E133.24333
G1 X152.50 Y143.50 E133.25557
G1 X152.79 Y143.53 E133.26782
G1 X153.07 Y143.62 E133.27994
G1 X153.33 Y143.75 E133.29222
G1 X153.56 Y143.94 E133.30441
G1 X153.75 Y144.17 E133.31661
G1 X153.88 Y144.43 E133.32888
G1 X153.97 Y144.71 E133.34101
G1 X154.00 Y145.00 E133.35325
G1 X153.97 Y145.29 E133.36554
G1 X153.88 Y145.57 E133.37767
G1 X153.75 Y145.83 E133.38994
G1 X153.56 Y146.06 E133.40214
G1 X153.33 Y146.25 E133.41433
G1 X153.07 Y146.38 E133.42661
G1 X152.79 Y146.47 E133.43873
G1 X152.50 Y146.50 E133.45097
G0 F6000 X152.56 Y145.31
;TYPE:FILL
G1 F660 X152.81 Y145.06 E133.46591
G0 F6000 X145.49 Y145.00
;TYPE:WALL-INNER
G1 F660 X145.49 Y145.09 E133.46983
G1 X145.46 Y145.19 E133.47400
G1 X145.41 Y145.28 E133.47819
G1 X145.35 Y145.35 E133.48203
G1 X145.28 Y145.41 E133.48586
G1 X145.19 Y145.46 E133.49005
G1 X145.09 Y145.49 E133.49422
G1 X145.00 Y145.49 E133.49814
G1 X144.91 Y145.49 E133.50203
G1 X144.81 Y145.46 E133.50620
G1 X144.72 Y145.41 E133.51038
G1 X144.65 Y145.35 E133.51422
G1 X144.59 Y145.28 E133.51806
G1 X144.54 Y145.19 E133.52224
G1 X144.52 Y145.09 E133.52641
G1 X144.51 Y145.00 E133.53034
G1 X144.52 Y144.91 E133.53423
G1 X144.54 Y144.81 E133.53840
G1 X144.59 Y144.72 E133.54258
G1 X144.65 Y144.65 E133.54642
G1 X144.72 Y144.59 E133.55026
G1 X144.81 Y144.54 E133.55444
G1 X144.91 Y144.52 E133.55861
G1 X145.00 Y144.51 E133.56250
G1 X145.09 Y144.52 E133.56643
G1 X145.19 Y144.54 E133.57060
G1 X145.28 Y144.59 E133.57479
G1 X145.35 Y144.65 E133.57862
G1 X145.41 Y144.72 E133.58246
G1 X145.46 Y144.81 E133.58665
G1 X145.49 Y144.91 E133.59082
G1 X145.49 Y145.00 E133.59470
G0 F6000 X146.00 Y145.00
G1 F660 X145.98 Y145.20 E133.60301
G1 X145.92 Y145.38 E133.61097
G1 X145.83 Y145.56 E133.61915
G1 X145.71 Y145.71 E133.62721
G1 X145.56 Y145.83 E133.63527
G1 X145.38 Y145.92 E133.64345
G1 X145.20 Y145.98 E133.65141
G1 X145.00 Y146.00 E133.65972
G1 X144.80 Y145.98 E133.66799
G1 X144.62 Y145.92 E133.67595
G1 X144.44 Y145.83 E133.68413
G1 X144.30 Y145.71 E133.69219
G1 X144.17 Y145.56 E133.70025
G1 X144.08 Y145.38 E133.70843
G1 X144.02 Y145.19 E133.71660
G1 X144.00 Y145.00 E133.72471
G1 X144.02 Y144.81 E133.73277
G1 X144.08 Y144.62 E133.74094
G1 X144.17 Y144.44 E133.74912
G1 X144.30 Y144.30 E133.75718
G1 X144.44 Y144.17 E133.76524
G1 X144.62 Y144.08 E133.77343
G1 X144.81 Y144.02 E133.78159
G1 X145.00 Y144.00 E133.78966
G1 X145.19 Y144.02 E133.79777
G1 X145.38 Y144.08 E133.80594
G1 X145.56 Y144.17 E133.81412
G1 X145.71 Y144.30 E133.82218
G1 X145.83 Y144.44 E133.83024
G1 X145.92 Y144.62 E133.83842
G1 X145.98 Y144.80 E133.84638
G1 X146.00 Y145.00 E133.85465
G0 F6000 X146.50 Y145.00
;TYPE:WALL-OUTER
G1 F660 X146.47 Y145.29 E133.86693
G1 X146.38 Y145.57 E133.87906
G1 X146.25 Y145.83 E133.89133
G1 X146.06 Y146.06 E133.90353
G1 X145.83 Y146.25 E133.91572
G1 X145.57 Y146.38 E133.92800
G1 X145.29 Y146.47 E133.94012
G1 X145.00 Y146.50 E133.95240
G1 X144.71 Y146.47 E133.96464
G1 X144.43 Y146.38 E133.97677
G1 X144.17 Y146.25 E133.98904
G1 X143.94 Y146.06 E134.00124
G1 X143.75 Y145.83 E134.01344
G1 X143.62 Y145.57 E134.02571
G1 X143.53 Y145.29 E134.03784
G1 X143.50 Y145.00 E134.05008
G1 X143.53 Y144.71 E134.06237
G1 X143.62 Y144.43 E134.07449
G1 X143.75 Y144.17 E134.08677
G1 X143.94 Y143.94 E134.09896
G1 X144.17 Y143.75 E134.11116
G1 X144.43 Y143.62 E134.12343
G1 X144.71 Y143.53 E134.13556
G1 X145.00 Y143.50 E134.14780
G1 X145.29 Y143.53 E134.16009
G1 X145.57 Y143.62 E134.17222
G1 X145.83 Y143.75 E134.18449
G1 X146.06 Y143.94 E134.19669
G1 X146.25 Y144.17 E134.20888
G1 X146.38 Y144.43 E134.22116
G1 X146.47 Y144.71 E134.23328
G1 X146.50 Y145.00 E134.24552
G0 F6000 X145.23 Y144.92
G0 X145.00 Y152.01
;TYPE:WALL-INNER
G1 F660 X145.09 Y152.02 E134.24945
G1 X145.19 Y152.04 E134.25362
