;-- START GCODE --
;Sliced for Type A Machines Series 1
;Sliced at: Thu 07-07-2016 21:20:42
;Basic settings: Layer height: 0.2 Walls: 1 Fill: 50
;Print Speed: 100 Support: 0
;Retraction Speed: 40 Retraction Distance: 1.2
;Print time: #P_TIME#
;Filament used: #F_AMNT#m #F_WGHT#g
;Filament cost: #F_COST#
M106 S255	 ;start with the fan on
G21        ;metric values
G90        ;absolute positioning
M106 S255    ;start with the fan on
G28     ;move to endstops
G29		;allows for auto-levelling
G1 X150 Y5  Z15.0 F6000 ;center and move the platform down 15mm
M109 S220 ;Heat To temp
G92 E0                  ;zero the extruded length
G1 F200 E30              ;extrude 30mm of feed stock
G92 E0                  ;zero the extruded length again
G1 X175 Y25  Z0 F6000 ;remove bugger
G1 X220 F6000 ;remove bugger
G1 X150 Y150  Z15 F6000 ;recenter and begin
G1 F6000

;Layer count: 32
;LAYER:0
M106 S255
G0 F6000 X131.40 Y149.90 Z0.30
;TYPE:SKIRT
G1 F2700 X131.40 Y153.20 E0.20580
G1 X129.15 Y153.20 E0.34611
G1 X129.15 Y168.02 E1.27033
G1 X121.79 Y168.25 E1.72955
G1 X121.64 Y168.27 E1.73919
G1 X121.55 Y168.28 E1.74469
G1 X121.41 Y168.31 E1.75351
G1 X121.28 Y168.35 E1.76200
G1 X121.17 Y168.39 E1.76930
G1 X121.06 Y168.44 E1.77682
G1 X120.94 Y168.50 E1.78543
G1 X120.83 Y168.56 E1.79287
G1 X120.73 Y168.63 E1.80063
G1 X120.64 Y168.71 E1.80819
G1 X120.53 Y168.79 E1.81668
G1 X120.45 Y168.88 E1.82444
G1 X120.37 Y168.97 E1.83168
G1 X120.29 Y169.07 E1.83973
G1 X120.22 Y169.18 E1.84776
G1 X120.16 Y169.28 E1.85508
G1 X120.11 Y169.38 E1.86222
G1 X120.04 Y169.52 E1.87180
G1 X120.00 Y169.63 E1.87904
G1 X119.97 Y169.76 E1.88729
G1 X119.94 Y169.86 E1.89362
G1 X119.92 Y169.98 E1.90163
G1 X119.91 Y170.13 E1.91078
G1 X119.91 Y170.26 E1.91902
G1 X119.91 Y170.37 E1.92557
G1 X119.92 Y170.50 E1.93396
G1 X119.94 Y170.62 E1.94154
G1 X119.97 Y170.74 E1.94941
G1 X120.01 Y170.87 E1.95765
G1 X120.05 Y170.98 E1.96513
G1 X120.09 Y171.09 E1.97261
G1 X120.16 Y171.22 E1.98129
G1 X120.21 Y171.31 E1.98825
G1 X120.29 Y171.42 E1.99647
G1 X120.36 Y171.52 E2.00394
G1 X120.44 Y171.61 E2.01158
G1 X120.54 Y171.71 E2.02005
G1 X120.63 Y171.79 E2.02787
G1 X120.73 Y171.86 E2.03529
G1 X120.83 Y171.93 E2.04292
G1 X120.95 Y172.00 E2.05175
G1 X121.05 Y172.05 E2.05881
G1 X121.17 Y172.10 E2.06677
G1 X121.28 Y172.15 E2.07425
G1 X121.41 Y172.18 E2.08250
G1 X121.53 Y172.21 E2.09036
G1 X121.65 Y172.23 E2.09788
G1 X121.79 Y172.24 E2.10645
G1 X122.02 Y172.25 E2.12087
G1 X147.35 Y172.25 E3.70045
G1 X147.30 Y171.73 E3.73316
G1 X147.26 Y170.54 E3.80747
G1 X147.25 Y170.29 E3.82264
G1 X147.29 Y168.80 E3.91555
G1 X147.43 Y167.36 E4.00575
G1 X147.65 Y165.94 E4.09573
G1 X147.97 Y164.53 E4.18562
G1 X148.37 Y163.14 E4.27614
G1 X148.86 Y161.78 E4.36637
G1 X149.44 Y160.45 E4.45634
G1 X150.09 Y159.17 E4.54623
G1 X150.83 Y157.92 E4.63654
G1 X151.64 Y156.73 E4.72676
G1 X152.52 Y155.59 E4.81663
G1 X153.48 Y154.50 E4.90681
G1 X154.50 Y153.48 E4.99704
G1 X154.82 Y153.20 E5.02328
G1 X153.48 Y153.20 E5.10691
G1 X152.13 Y154.36 E5.21747
G1 X150.70 Y155.19 E5.32121
G1 X148.79 Y155.82 E5.44648
G1 X146.86 Y156.03 E5.56724
G1 X144.90 Y155.80 E5.69066
G1 X143.08 Y155.17 E5.81068
G1 X141.84 Y154.46 E5.89996
G1 X140.75 Y153.61 E5.98594
G1 X140.37 Y153.20 E6.02063
G1 X137.20 Y153.20 E6.21838
G1 X137.20 Y149.90 E6.42418
G1 X131.40 Y149.90 E6.78588
G0 F6000 X130.90 Y149.40
G1 F2700 X130.90 Y152.70 E6.99168
G1 X128.65 Y152.70 E7.13199
G1 X128.65 Y167.54 E8.05721
G1 X121.75 Y167.76 E8.48804
G1 X121.59 Y167.77 E8.49756
G1 X121.44 Y167.79 E8.50740
G1 X121.28 Y167.83 E8.51750
G1 X121.13 Y167.87 E8.52717
G1 X121.00 Y167.92 E8.53618
G1 X120.85 Y167.99 E8.54630
G1 X120.70 Y168.06 E8.55636
G1 X120.57 Y168.14 E8.56624
G1 X120.44 Y168.23 E8.57616
G1 X120.30 Y168.33 E8.58648
G1 X120.20 Y168.42 E8.59479
G1 X120.09 Y168.53 E8.60511
G1 X119.98 Y168.65 E8.61504
G1 X119.88 Y168.78 E8.62522
G1 X119.79 Y168.91 E8.63510
G1 X119.72 Y169.03 E8.64366
G1 X119.65 Y169.18 E8.65381
G1 X119.58 Y169.33 E8.66414
G1 X119.53 Y169.47 E8.67377
G1 X119.49 Y169.62 E8.68332
G1 X119.45 Y169.78 E8.69316
G1 X119.43 Y169.92 E8.70257
G1 X119.41 Y170.09 E8.71309
G1 X119.41 Y170.26 E8.72370
G1 X119.41 Y170.40 E8.73206
G1 X119.43 Y170.56 E8.74259
G1 X119.45 Y170.72 E8.75224
G1 X119.49 Y170.88 E8.76241
G1 X119.53 Y171.01 E8.77123
G1 X119.58 Y171.18 E8.78204
G1 X119.64 Y171.30 E8.79073
G1 X119.72 Y171.46 E8.80186
G1 X119.79 Y171.58 E8.81069
G1 X119.88 Y171.71 E8.82029
G1 X119.99 Y171.85 E8.83141
G1 X120.08 Y171.95 E8.83972
G1 X120.20 Y172.07 E8.85056
G1 X120.30 Y172.16 E8.85887
G1 X120.43 Y172.26 E8.86922
G1 X120.57 Y172.36 E8.87974
G1 X120.70 Y172.44 E8.88902
G1 X120.85 Y172.51 E8.89946
G1 X120.98 Y172.57 E8.90823
G1 X121.14 Y172.63 E8.91904
G1 X121.28 Y172.66 E8.92786
G1 X121.43 Y172.70 E8.93803
G1 X121.59 Y172.72 E8.94762
G1 X121.76 Y172.74 E8.95827
G1 X122.00 Y172.75 E8.97356
G1 X147.90 Y172.75 E10.58844
G1 X147.79 Y171.69 E10.65447
G1 X147.76 Y170.56 E10.72498
G1 X147.75 Y170.29 E10.74215
G1 X147.79 Y168.84 E10.83287
G1 X147.92 Y167.43 E10.92113
G1 X148.15 Y166.03 E11.00915
G1 X148.45 Y164.66 E11.09713
G1 X148.85 Y163.29 E11.18571
G1 X149.33 Y161.96 E11.27394
G1 X149.89 Y160.67 E11.36196
G1 X150.53 Y159.41 E11.44987
G1 X151.25 Y158.19 E11.53821
G1 X152.04 Y157.02 E11.62646
G1 X152.91 Y155.91 E11.71438
G1 X153.84 Y154.84 E11.80266
G1 X154.84 Y153.84 E11.89085
G1 X155.91 Y152.91 E11.97896
G1 X157.02 Y152.04 E12.06709
G1 X158.19 Y151.25 E12.15544
G1 X159.41 Y150.53 E12.24342
G1 X160.66 Y149.89 E12.33147
G1 X160.90 Y149.78 E12.34756
G1 X160.90 Y147.37 E12.49848
G1 X160.70 Y147.28 E12.51220
G1 X159.44 Y146.64 E12.60055
G1 X158.22 Y145.92 E12.68873
G1 X157.21 Y145.24 E12.76461
G1 X157.02 Y145.10 E12.77941
G1 X156.78 Y144.92 E12.79826
G1 X156.78 Y149.40 E13.07796
G1 X155.90 Y149.40 E13.13253
G1 X155.90 Y152.70 E13.33832
G1 X153.26 Y152.70 E13.50327
G1 X153.19 Y152.79 E13.51043
G1 X151.84 Y153.95 E13.62099
G1 X150.49 Y154.74 E13.71858
G1 X148.68 Y155.33 E13.83730
G1 X146.87 Y155.52 E13.95123
G1 X145.01 Y155.31 E14.06780
G1 X143.29 Y154.72 E14.18143
G1 X142.12 Y154.04 E14.26560
G1 X141.09 Y153.24 E14.34682
G1 X140.59 Y152.70 E14.39259
G1 X137.70 Y152.70 E14.57288
G1 X137.70 Y149.40 E14.77868
G1 X130.90 Y149.40 E15.20274
G0 F6000 X130.40 Y148.90
G1 F2700 X130.40 Y152.20 E15.40854
G1 X128.15 Y152.20 E15.54886
G1 X128.15 Y167.05 E16.47507
G1 X121.72 Y167.26 E16.87639
G1 X121.53 Y167.27 E16.88822
G1 X121.35 Y167.30 E16.89984
G1 X121.17 Y167.34 E16.91135
G1 X120.98 Y167.40 E16.92361
G1 X120.81 Y167.46 E16.93493
G1 X120.63 Y167.54 E16.94717
G1 X120.47 Y167.62 E16.95849
G1 X120.30 Y167.72 E16.97056
G1 X120.14 Y167.82 E16.98247
G1 X120.00 Y167.93 E16.99336
G1 X119.86 Y168.06 E17.00533
G1 X119.71 Y168.20 E17.01807
G1 X119.60 Y168.33 E17.02841
G1 X119.48 Y168.48 E17.04081
G1 X119.38 Y168.63 E17.05193
G1 X119.28 Y168.80 E17.06409
G1 X119.19 Y168.97 E17.07595
G1 X119.12 Y169.15 E17.08804
G1 X119.05 Y169.32 E17.09992
G1 X119.00 Y169.50 E17.11103
G1 X118.96 Y169.67 E17.12197
G1 X118.93 Y169.86 E17.13441
G1 X118.91 Y170.05 E17.14631
G1 X118.91 Y170.27 E17.15998
G1 X118.91 Y170.43 E17.16959
G1 X118.93 Y170.62 E17.18206
G1 X118.96 Y170.81 E17.19349
G1 X119.00 Y171.00 E17.20556
G1 X119.05 Y171.17 E17.21685
G1 X119.11 Y171.34 E17.22845
G1 X119.19 Y171.53 E17.24122
G1 X119.28 Y171.69 E17.25235
G1 X119.37 Y171.85 E17.26359
G1 X119.48 Y172.01 E17.27625
G1 X119.59 Y172.16 E17.28790
G1 X119.72 Y172.31 E17.29996
G1 X119.84 Y172.43 E17.31063
G1 X119.99 Y172.56 E17.32269
G1 X120.14 Y172.67 E17.33443
G1 X120.30 Y172.78 E17.34633
G1 X120.45 Y172.87 E17.35766
G1 X120.63 Y172.96 E17.37018
G1 X120.81 Y173.04 E17.38214
G1 X120.97 Y173.10 E17.39320
G1 X121.16 Y173.15 E17.40502
G1 X121.34 Y173.19 E17.41692
G1 X121.53 Y173.22 E17.42847
G1 X121.71 Y173.24 E17.44006
G1 X122.01 Y173.25 E17.45902
G1 X148.46 Y173.25 E19.10821
G1 X148.43 Y173.04 E19.12166
G1 X148.29 Y171.66 E19.20773
G1 X148.25 Y170.48 E19.28149
G1 X148.25 Y170.29 E19.29354
G1 X148.29 Y168.87 E19.38213
G1 X148.42 Y167.49 E19.46839
G1 X148.64 Y166.13 E19.55446
G1 X148.94 Y164.78 E19.64052
G1 X149.32 Y163.45 E19.72706
G1 X149.79 Y162.15 E19.81333
G1 X150.34 Y160.88 E19.89942
G1 X150.97 Y159.65 E19.98543
G1 X151.67 Y158.46 E20.07176
G1 X152.45 Y157.31 E20.15808
G1 X153.29 Y156.22 E20.24404
G1 X154.21 Y155.19 E20.33029
G1 X155.19 Y154.21 E20.41663
G1 X156.22 Y153.29 E20.50275
G1 X157.31 Y152.45 E20.58888
G1 X158.46 Y151.67 E20.67530
G1 X159.65 Y150.97 E20.76132
G1 X160.88 Y150.34 E20.84745
G1 X161.40 Y150.11 E20.88298
G1 X161.40 Y147.04 E21.07493
G1 X160.91 Y146.82 E21.10820
G1 X159.68 Y146.20 E21.19460
G1 X158.49 Y145.50 E21.28082
G1 X157.49 Y144.82 E21.35563
G1 X157.31 Y144.70 E21.36940
G1 X156.28 Y143.90 E21.45097
G1 X156.28 Y148.90 E21.76309
G1 X155.40 Y148.90 E21.81766
G1 X155.40 Y152.20 E22.02346
G1 X153.01 Y152.20 E22.17257
G1 X152.82 Y152.45 E22.19186
G1 X151.55 Y153.54 E22.29641
G1 X150.28 Y154.28 E22.38788
G1 X148.58 Y154.84 E22.49995
G1 X146.87 Y155.02 E22.60711
G1 X145.12 Y154.82 E22.71684
G1 X143.50 Y154.26 E22.82401
G1 X142.40 Y153.62 E22.90306
G1 X141.43 Y152.87 E22.97958
G1 X140.81 Y152.20 E23.03643
G1 X138.20 Y152.20 E23.19919
G1 X138.20 Y148.90 E23.40499
G1 X130.40 Y148.90 E23.89142
G0 F6000 X129.90 Y148.40
G1 F2700 X129.90 Y151.70 E24.09722
G1 X127.75 Y151.70 E24.23136
G1 X127.65 Y151.81 E24.24063
G1 X127.65 Y166.57 E25.16086
G1 X121.69 Y166.76 E25.53279
G1 X121.47 Y166.78 E25.54651
G1 X121.25 Y166.81 E25.56039
G1 X121.03 Y166.86 E25.57445
G1 X120.83 Y166.92 E25.58732
G1 X120.61 Y167.00 E25.60201
G1 X120.43 Y167.08 E25.61464
G1 X120.23 Y167.18 E25.62850
G1 X120.03 Y167.29 E25.64276
G1 X119.85 Y167.42 E25.65663
G1 X119.67 Y167.55 E25.67015
G1 X119.52 Y167.69 E25.68314
G1 X119.36 Y167.85 E25.69756
G1 X119.22 Y168.01 E25.71072
G1 X119.07 Y168.20 E25.72548
G1 X118.96 Y168.36 E25.73773
G1 X118.84 Y168.56 E25.75246
G1 X118.74 Y168.75 E25.76566
G1 X118.66 Y168.95 E25.77928
G1 X118.58 Y169.17 E25.79394
G1 X118.52 Y169.38 E25.80718
G1 X118.47 Y169.58 E25.82030
G1 X118.44 Y169.80 E25.83400
G1 X118.41 Y170.02 E25.84772
G1 X118.41 Y170.26 E25.86282
G1 X118.41 Y170.46 E25.87555
G1 X118.43 Y170.69 E25.88970
G1 X118.47 Y170.90 E25.90290
G1 X118.52 Y171.12 E25.91696
G1 X118.58 Y171.33 E25.93059
G1 X118.65 Y171.53 E25.94391
G1 X118.74 Y171.75 E25.95860
G1 X118.84 Y171.94 E25.97190
G1 X118.95 Y172.12 E25.98524
G1 X119.07 Y172.30 E25.99880
G1 X119.22 Y172.49 E26.01356
G1 X119.35 Y172.64 E26.02611
G1 X119.51 Y172.80 E26.04066
G1 X119.66 Y172.94 E26.05321
G1 X119.85 Y173.08 E26.06756
G1 X120.03 Y173.20 E26.08144
G1 X120.22 Y173.31 E26.09505
G1 X120.41 Y173.41 E26.10849
G1 X120.62 Y173.50 E26.12285
G1 X120.82 Y173.57 E26.13616
G1 X121.03 Y173.64 E26.14980
G1 X121.25 Y173.69 E26.16386
G1 X121.46 Y173.72 E26.17699
G1 X121.68 Y173.74 E26.19084
G1 X122.00 Y173.75 E26.21061
G1 X149.04 Y173.75 E27.89734
G1 X148.92 Y172.97 E27.94635
G1 X148.79 Y171.63 E28.03048
G1 X148.75 Y170.46 E28.10324
G1 X148.75 Y170.28 E28.11447
G1 X148.79 Y168.90 E28.20095
G1 X148.92 Y167.55 E28.28521
G1 X149.13 Y166.22 E28.36937
G1 X149.42 Y164.90 E28.45345
G1 X149.80 Y163.60 E28.53800
G1 X150.26 Y162.33 E28.62233
G1 X150.79 Y161.09 E28.70646
G1 X151.41 Y159.89 E28.79052
G1 X152.09 Y158.73 E28.87490
G1 X152.85 Y157.61 E28.95919
G1 X153.68 Y156.54 E29.04325
G1 X154.57 Y155.53 E29.12755
G1 X155.53 Y154.57 E29.21187
G1 X156.54 Y153.68 E29.29604
G1 X157.61 Y152.85 E29.38027
G1 X158.73 Y152.09 E29.46466
G1 X159.89 Y151.41 E29.54876
G1 X161.09 Y150.79 E29.63293
G1 X161.90 Y150.44 E29.68796
G1 X161.90 Y146.71 E29.92094
G1 X161.12 Y146.37 E29.97369
G1 X159.92 Y145.76 E30.05811
G1 X158.75 Y145.07 E30.14240
G1 X157.78 Y144.41 E30.21614
G1 X157.60 Y144.29 E30.22897
G1 X156.57 Y143.49 E30.31085
G1 X155.78 Y142.79 E30.37643
G1 X155.78 Y148.40 E30.72603
G1 X154.90 Y148.40 E30.78060
G1 X154.90 Y151.70 E30.98640
G1 X152.76 Y151.70 E31.11967
G1 X152.46 Y152.10 E31.15110
G1 X151.26 Y153.13 E31.24959
G1 X150.08 Y153.82 E31.33500
G1 X148.47 Y154.35 E31.44036
G1 X146.87 Y154.52 E31.54075
G1 X145.23 Y154.33 E31.64369
G1 X143.70 Y153.80 E31.74441
G1 X142.68 Y153.21 E31.81838
G1 X141.77 Y152.50 E31.89017
G1 X141.03 Y151.70 E31.95805
G1 X138.70 Y151.70 E32.10336
G1 X138.70 Y148.40 E32.30915
G1 X129.90 Y148.40 E32.85794
G0 F6000 X128.40 Y146.90
G1 F2700 X128.40 Y150.20 E33.06374
G1 X127.02 Y150.20 E33.15018
G1 X126.91 Y150.39 E33.16347
G1 X126.15 Y151.24 E33.23481
G1 X126.15 Y165.12 E34.09996
G1 X121.59 Y165.26 E34.38461
G1 X121.29 Y165.29 E34.40352
G1 X120.97 Y165.34 E34.42360
G1 X120.67 Y165.41 E34.44264
G1 X120.37 Y165.49 E34.46242
G1 X120.06 Y165.60 E34.48245
G1 X119.79 Y165.72 E34.50111
G1 X119.49 Y165.87 E34.52217
G1 X119.23 Y166.02 E34.54075
G1 X118.98 Y166.19 E34.55961
G1 X118.71 Y166.40 E34.58086
G1 X118.50 Y166.59 E34.59884
G1 X118.26 Y166.82 E34.61926
G1 X118.05 Y167.06 E34.63914
G1 X117.87 Y167.30 E34.65807
G1 X117.68 Y167.57 E34.67845
G1 X117.53 Y167.83 E34.69710
G1 X117.39 Y168.11 E34.71674
G1 X117.26 Y168.41 E34.73687
G1 X117.16 Y168.69 E34.75565
G1 X117.06 Y169.02 E34.77697
G1 X117.00 Y169.29 E34.79461
G1 X116.95 Y169.61 E34.81494
G1 X116.92 Y169.94 E34.83518
G1 X116.91 Y170.25 E34.85502
G1 X116.92 Y170.56 E34.87405
G1 X116.94 Y170.88 E34.89396
G1 X116.99 Y171.19 E34.91385
G1 X117.06 Y171.50 E34.93316
G1 X117.14 Y171.78 E34.95173
G1 X117.25 Y172.09 E34.97195
G1 X117.38 Y172.38 E34.99186
G1 X117.53 Y172.67 E35.01194
G1 X117.68 Y172.92 E35.03056
G1 X117.86 Y173.19 E35.05046
G1 X118.05 Y173.44 E35.07033
G1 X118.26 Y173.67 E35.08963
G1 X118.48 Y173.89 E35.10912
G1 X118.71 Y174.10 E35.12843
G1 X118.97 Y174.29 E35.14844
G1 X119.22 Y174.47 E35.16766
G1 X119.49 Y174.62 E35.18692
G1 X119.78 Y174.77 E35.20717
G1 X120.06 Y174.90 E35.22680
G1 X120.37 Y175.01 E35.24702
G1 X120.66 Y175.09 E35.26560
G1 X120.96 Y175.16 E35.28490
G1 X121.27 Y175.21 E35.30479
G1 X121.59 Y175.24 E35.32464
G1 X121.98 Y175.25 E35.34898
G1 X150.88 Y175.25 E37.15132
G1 X150.88 Y175.25 E37.15139
G1 X150.61 Y174.02 E37.22978
G1 X150.41 Y172.78 E37.30796
G1 X150.29 Y171.53 E37.38621
G1 X150.25 Y170.41 E37.45609
G1 X150.25 Y170.28 E37.46477
G1 X150.29 Y168.99 E37.54482
G1 X150.41 Y167.74 E37.62318
G1 X150.60 Y166.50 E37.70148
G1 X150.88 Y165.28 E37.77969
G1 X151.23 Y164.07 E37.85832
G1 X151.65 Y162.88 E37.93675
G1 X152.15 Y161.73 E38.01504
G1 X152.72 Y160.61 E38.09322
G1 X153.36 Y159.53 E38.17172
G1 X154.07 Y158.49 E38.25013
G1 X154.84 Y157.50 E38.32832
G1 X155.67 Y156.56 E38.40675
G1 X156.56 Y155.67 E38.48516
G1 X157.50 Y154.84 E38.56345
G1 X158.49 Y154.07 E38.64185
G1 X159.53 Y153.36 E38.72033
G1 X160.61 Y152.72 E38.79856
G1 X161.73 Y152.15 E38.87684
G1 X162.89 Y151.65 E38.95539
G1 X164.07 Y151.22 E39.03366
G1 X165.28 Y150.88 E39.11210
G1 X165.59 Y150.80 E39.13236
G1 X165.38 Y150.57 E39.15191
G1 X165.15 Y150.20 E39.17909
G1 X163.40 Y150.20 E39.28834
G1 X163.40 Y145.68 E39.57004
G1 X162.91 Y145.51 E39.60231
G1 X161.76 Y145.01 E39.68064
G1 X160.64 Y144.44 E39.75912
G1 X159.56 Y143.80 E39.83754
G1 X158.62 Y143.17 E39.90813
G1 X158.49 Y143.08 E39.91796
G1 X157.52 Y142.33 E39.99424
G1 X156.58 Y141.50 E40.07245
G1 X155.69 Y140.62 E40.15090
G1 X154.86 Y139.67 E40.22928
G1 X154.28 Y138.93 E40.28821
G1 X154.28 Y146.90 E40.78549
G1 X153.40 Y146.90 E40.84005
G1 X153.40 Y150.20 E41.04585
G1 X152.02 Y150.20 E41.13222
G1 X151.99 Y150.26 E41.13630
G1 X151.36 Y151.06 E41.19965
G1 X150.38 Y151.90 E41.28010
G1 X149.46 Y152.44 E41.34717
G1 X148.15 Y152.88 E41.43270
G1 X146.88 Y153.01 E41.51265
G1 X145.56 Y152.86 E41.59513
G1 X144.33 Y152.43 E41.67656
G1 X143.52 Y151.96 E41.73517
G1 X142.79 Y151.40 E41.79278
G1 X142.03 Y150.57 E41.86266
G1 X141.81 Y150.20 E41.88952
G1 X140.20 Y150.20 E41.98955
G1 X140.20 Y146.90 E42.19535
G1 X128.40 Y146.90 E42.93123
G0 F6000 X127.90 Y146.40
G1 F2700 X127.90 Y149.70 E43.13703
G1 X126.72 Y149.70 E43.21049
G1 X126.50 Y150.09 E43.23866
G1 X125.65 Y151.05 E43.31853
G1 X125.65 Y164.63 E44.16535
G1 X121.56 Y164.76 E44.42060
G1 X121.23 Y164.79 E44.44139
G1 X120.88 Y164.85 E44.46367
G1 X120.56 Y164.92 E44.48401
G1 X120.20 Y165.02 E44.50730
G1 X119.89 Y165.13 E44.52783
G1 X119.58 Y165.27 E44.54909
G1 X119.25 Y165.43 E44.57177
G1 X118.97 Y165.60 E44.59254
G1 X118.68 Y165.79 E44.61400
G1 X118.41 Y166.01 E44.63566
G1 X118.14 Y166.24 E44.65766
G1 X117.90 Y166.48 E44.67909
G1 X117.67 Y166.74 E44.70017
G1 X117.46 Y167.00 E44.72141
G1 X117.26 Y167.30 E44.74376
G1 X117.09 Y167.59 E44.76509
G1 X116.94 Y167.89 E44.78601
G1 X116.79 Y168.22 E44.80810
G1 X116.68 Y168.53 E44.82913
G1 X116.58 Y168.88 E44.85122
G1 X116.50 Y169.21 E44.87264
G1 X116.45 Y169.55 E44.89424
G1 X116.42 Y169.89 E44.91535
G1 X116.40 Y170.27 E44.93900
G1 X116.42 Y170.59 E44.95916
G1 X116.45 Y170.94 E44.98096
G1 X116.50 Y171.28 E45.00281
G1 X116.58 Y171.61 E45.02382
G1 X116.67 Y171.95 E45.04539
G1 X116.79 Y172.27 E45.06680
G1 X116.93 Y172.59 E45.08841
G1 X117.09 Y172.91 E45.11073
G1 X117.26 Y173.20 E45.13181
G1 X117.45 Y173.48 E45.15317
G1 X117.66 Y173.75 E45.17429
G1 X117.89 Y174.01 E45.19607
G1 X118.14 Y174.26 E45.21803
G1 X118.40 Y174.49 E45.23981
G1 X118.67 Y174.69 E45.26057
G1 X118.95 Y174.89 E45.28235
G1 X119.25 Y175.07 E45.30393
G1 X119.56 Y175.22 E45.32549
G1 X119.88 Y175.36 E45.34730
G1 X120.20 Y175.48 E45.36871
G1 X120.54 Y175.57 E45.39028
G1 X120.87 Y175.65 E45.41129
G1 X121.21 Y175.70 E45.43308
G1 X121.56 Y175.74 E45.45500
G1 X121.96 Y175.75 E45.48015
G1 X151.55 Y175.75 E47.32521
G1 X151.40 Y175.24 E47.35835
G1 X151.37 Y175.12 E47.36610
G1 X151.10 Y173.93 E47.44233
G1 X150.91 Y172.72 E47.51855
G1 X150.79 Y171.50 E47.59486
G1 X150.75 Y170.40 E47.66381
G1 X150.75 Y170.27 E47.67161
G1 X150.79 Y169.02 E47.74948
G1 X150.90 Y167.80 E47.82596
G1 X151.09 Y166.59 E47.90224
G1 X151.36 Y165.40 E47.97853
G1 X151.70 Y164.22 E48.05514
G1 X152.12 Y163.07 E48.13164
G1 X152.60 Y161.94 E48.20795
G1 X153.16 Y160.85 E48.28421
G1 X153.78 Y159.80 E48.36072
G1 X154.47 Y158.78 E48.43716
G1 X155.22 Y157.82 E48.51344
G1 X156.03 Y156.90 E48.58987
G1 X156.90 Y156.03 E48.66634
G1 X157.82 Y155.22 E48.74269
G1 X158.79 Y154.47 E48.81909
G1 X159.80 Y153.78 E48.89563
G1 X160.85 Y153.16 E48.97187
G1 X161.94 Y152.60 E49.04820
G1 X163.07 Y152.12 E49.12477
G1 X164.22 Y151.70 E49.20113
G1 X165.40 Y151.36 E49.27757
G1 X166.57 Y151.10 E49.35221
G1 X166.47 Y151.02 E49.35977
G1 X165.78 Y150.27 E49.42338
G1 X165.43 Y149.70 E49.46506
G1 X163.90 Y149.70 E49.56060
G1 X163.90 Y145.33 E49.83306
G1 X163.10 Y145.04 E49.88626
G1 X161.97 Y144.56 E49.96270
G1 X160.88 Y144.00 E50.03917
G1 X159.82 Y143.38 E50.11563
G1 X158.90 Y142.76 E50.18520
G1 X158.78 Y142.68 E50.19407
G1 X157.84 Y141.94 E50.26839
G1 X156.92 Y141.14 E50.34467
G1 X156.05 Y140.27 E50.42113
G1 X155.24 Y139.35 E50.49756
G1 X154.49 Y138.39 E50.57378
G1 X153.87 Y137.48 E50.64274
G1 X153.78 Y137.35 E50.65190
G1 X153.78 Y137.34 E50.65290
G1 X153.78 Y146.40 E51.21791
G1 X152.90 Y146.40 E51.27247
G1 X152.90 Y149.70 E51.47827
G1 X151.72 Y149.70 E51.55174
G1 X151.57 Y149.98 E51.57175
G1 X151.00 Y150.72 E51.62968
G1 X150.09 Y151.49 E51.70407
G1 X149.25 Y151.99 E51.76508
G1 X148.05 Y152.38 E51.84398
G1 X146.88 Y152.50 E51.91715
G1 X145.68 Y152.37 E51.99279
G1 X144.54 Y151.98 E52.06777
G1 X143.80 Y151.54 E52.12123
G1 X143.13 Y151.03 E52.17413
G1 X142.43 Y150.27 E52.23826
G1 X142.09 Y149.70 E52.27965
G1 X140.70 Y149.70 E52.36603
G1 X140.70 Y146.40 E52.57182
G1 X127.90 Y146.40 E53.37007
G0 F6000 X127.40 Y145.90
G1 F2700 X127.40 Y149.20 E53.57586
G1 X126.43 Y149.20 E53.63642
G1 X126.09 Y149.80 E53.67947
G1 X125.23 Y150.77 E53.76005
G1 X124.65 Y151.16 E53.80398
G1 X125.15 Y151.14 E53.83549
G1 X125.15 Y164.15 E54.64652
G1 X121.53 Y164.26 E54.87220
G1 X121.17 Y164.29 E54.89531
G1 X120.78 Y164.35 E54.91961
G1 X120.43 Y164.43 E54.94229
G1 X120.06 Y164.54 E54.96579
G1 X119.70 Y164.67 E54.98990
G1 X119.36 Y164.82 E55.01328
G1 X119.03 Y164.99 E55.03634
G1 X118.69 Y165.19 E55.06103
G1 X118.39 Y165.38 E55.08298
G1 X118.08 Y165.62 E55.10747
G1 X117.80 Y165.87 E55.13081
G1 X117.54 Y166.13 E55.15396
G1 X117.29 Y166.42 E55.17777
G1 X117.06 Y166.72 E55.20123
G1 X116.84 Y167.03 E55.22483
G1 X116.66 Y167.34 E55.24759
G1 X116.48 Y167.69 E55.27194
G1 X116.33 Y168.03 E55.29526
G1 X116.20 Y168.38 E55.31842
G1 X116.09 Y168.75 E55.34251
G1 X116.01 Y169.11 E55.36560
G1 X115.95 Y169.49 E55.38953
G1 X115.92 Y169.86 E55.41233
G1 X115.90 Y170.26 E55.43760
G1 X115.92 Y170.62 E55.45994
G1 X115.95 Y171.00 E55.48386
G1 X116.01 Y171.38 E55.50779
G1 X116.09 Y171.74 E55.53043
G1 X116.20 Y172.10 E55.55393
G1 X116.33 Y172.46 E55.57800
G1 X116.47 Y172.80 E55.60124
G1 X116.64 Y173.13 E55.62439
G1 X116.84 Y173.47 E55.64852
G1 X117.05 Y173.78 E55.67187
G1 X117.28 Y174.07 E55.69533
G1 X117.53 Y174.36 E55.71901
G1 X117.79 Y174.62 E55.74203
G1 X118.08 Y174.87 E55.76572
G1 X118.38 Y175.10 E55.78963
G1 X118.67 Y175.30 E55.81172
G1 X119.01 Y175.50 E55.83635
G1 X119.36 Y175.68 E55.86042
G1 X119.69 Y175.82 E55.88304
G1 X120.05 Y175.96 E55.90711
G1 X120.42 Y176.06 E55.93062
G1 X120.77 Y176.14 E55.95325
G1 X121.15 Y176.20 E55.97724
G1 X121.53 Y176.24 E56.00110
G1 X121.95 Y176.25 E56.02706
G1 X152.22 Y176.25 E57.91522
G1 X152.19 Y176.15 E57.92198
G1 X151.88 Y175.10 E57.99007
G1 X151.85 Y174.99 E57.99697
G1 X151.59 Y173.83 E58.07109
G1 X151.40 Y172.66 E58.14536
G1 X151.29 Y171.47 E58.21972
G1 X151.25 Y170.38 E58.28774
G1 X151.25 Y170.27 E58.29466
G1 X151.29 Y169.06 E58.37041
G1 X151.40 Y167.87 E58.44489
G1 X151.59 Y166.69 E58.51927
G1 X151.84 Y165.53 E58.59358
G1 X152.18 Y164.38 E58.66826
G1 X152.58 Y163.25 E58.74270
G1 X153.06 Y162.16 E58.81712
G1 X153.60 Y161.09 E58.89144
G1 X154.21 Y160.07 E58.96598
G1 X154.88 Y159.08 E59.04044
G1 X155.61 Y158.14 E59.11476
G1 X156.40 Y157.24 E59.18926
G1 X157.24 Y156.40 E59.26369
G1 X158.14 Y155.61 E59.33810
G1 X159.08 Y154.88 E59.41255
G1 X160.07 Y154.20 E59.48711
G1 X161.09 Y153.60 E59.56143
G1 X162.16 Y153.06 E59.63587
G1 X163.25 Y152.58 E59.71039
G1 X164.38 Y152.18 E59.78478
G1 X165.52 Y151.84 E59.85925
G1 X166.69 Y151.58 E59.93376
G1 X167.87 Y151.40 E60.00826
G1 X167.88 Y151.40 E60.00907
G1 X167.42 Y151.13 E60.04241
G1 X166.81 Y150.65 E60.09050
G1 X166.18 Y149.97 E60.14850
G1 X165.71 Y149.20 E60.20460
G1 X164.40 Y149.20 E60.28642
G1 X164.40 Y144.98 E60.54965
G1 X163.28 Y144.58 E60.62386
G1 X162.19 Y144.11 E60.69825
G1 X161.12 Y143.56 E60.77283
G1 X160.09 Y142.96 E60.84730
G1 X159.18 Y142.34 E60.91582
G1 X159.08 Y142.27 E60.92367
G1 X158.16 Y141.56 E60.99613
G1 X157.26 Y140.77 E61.07046
G1 X156.42 Y139.93 E61.14498
G1 X155.63 Y139.03 E61.21947
G1 X154.90 Y138.09 E61.29373
G1 X154.28 Y137.19 E61.36171
G1 X154.21 Y137.09 E61.36987
G1 X153.61 Y136.08 E61.44301
G1 X153.28 Y135.42 E61.48880
G1 X153.28 Y145.90 E62.14230
G1 X152.40 Y145.90 E62.19687
G1 X152.40 Y149.20 E62.40267
G1 X151.43 Y149.20 E62.46322
G1 X151.15 Y149.70 E62.49922
G1 X150.63 Y150.37 E62.55164
G1 X149.80 Y151.08 E62.62001
G1 X149.04 Y151.53 E62.67491
G1 X147.94 Y151.89 E62.74716
G1 X146.88 Y152.00 E62.81356
G1 X145.79 Y151.88 E62.88242
G1 X144.75 Y151.52 E62.95093
G1 X144.08 Y151.13 E62.99933
G1 X143.47 Y150.66 E63.04743
G1 X142.83 Y149.97 E63.10592
G1 X142.37 Y149.20 E63.16178
G1 X141.20 Y149.20 E63.23443
G1 X141.20 Y145.90 E63.44023
G1 X127.40 Y145.90 E64.30083
G0 F6000 X126.90 Y145.40
G1 F2700 X126.90 Y148.70 E64.50663
G1 X126.11 Y148.70 E64.55602
G1 X126.04 Y148.88 E64.56770
G1 X125.68 Y149.51 E64.61318
G1 X124.90 Y150.39 E64.68637
G1 X123.91 Y151.04 E64.76068
G1 X122.84 Y151.40 E64.83116
G1 X121.89 Y151.50 E64.89073
G1 X120.90 Y151.39 E64.95281
G1 X119.96 Y151.06 E65.01487
G1 X119.36 Y150.71 E65.05816
G1 X118.81 Y150.29 E65.10159
G1 X118.23 Y149.66 E65.15429
G1 X117.78 Y148.92 E65.20862
G1 X117.69 Y148.70 E65.22331
G1 X116.70 Y148.70 E65.28524
G1 X116.70 Y144.65 E65.53812
G1 X116.21 Y144.51 E65.56978
G1 X115.12 Y144.11 E65.64245
G1 X114.05 Y143.65 E65.71491
G1 X113.01 Y143.13 E65.78737
G1 X112.01 Y142.54 E65.85991
G1 X111.12 Y141.93 E65.92741
G1 X111.03 Y141.87 E65.93427
G1 X110.13 Y141.17 E66.00482
G1 X109.26 Y140.41 E66.07724
G1 X108.44 Y139.59 E66.14978
G1 X107.67 Y138.72 E66.22219
G1 X106.95 Y137.80 E66.29467
G1 X106.34 Y136.91 E66.36180
G1 X106.28 Y136.82 E66.36875
G1 X105.70 Y135.84 E66.43985
G1 X105.17 Y134.80 E66.51217
G1 X104.71 Y133.74 E66.58464
G1 X104.32 Y132.64 E66.65718
G1 X104.01 Y131.61 E66.72424
G1 X103.99 Y131.52 E66.73029
G1 X103.73 Y130.39 E66.80230
G1 X103.55 Y129.25 E66.87461
G1 X103.44 Y128.09 E66.94704
G1 X103.41 Y127.02 E67.01412
G1 X103.40 Y126.92 E67.02024
G1 X103.44 Y125.74 E67.09386
G1 X103.55 Y124.58 E67.16628
G1 X103.73 Y123.44 E67.23869
G1 X103.98 Y122.30 E67.31122
G1 X104.31 Y121.18 E67.38369
G1 X104.70 Y120.09 E67.45621
G1 X105.16 Y119.02 E67.52878
G1 X105.69 Y117.99 E67.60118
G1 X106.28 Y116.99 E67.67354
G1 X106.93 Y116.03 E67.74613
G1 X107.65 Y115.11 E67.81862
G1 X108.42 Y114.24 E67.89104
G1 X109.24 Y113.41 E67.96362
G1 X110.11 Y112.65 E68.03604
G1 X111.03 Y111.93 E68.10853
G1 X111.99 Y111.28 E68.18104
G1 X112.99 Y110.69 E68.25351
G1 X114.02 Y110.16 E68.32594
G1 X115.09 Y109.70 E68.39845
G1 X116.19 Y109.31 E68.47096
G1 X117.30 Y108.98 E68.54343
G1 X118.44 Y108.73 E68.61590
G1 X119.58 Y108.55 E68.68839
G1 X120.74 Y108.44 E68.76093
G1 X124.65 Y108.31 E69.00495
G1 X124.65 Y120.31 E69.75343
G1 X121.51 Y120.42 E69.94972
G1 X121.09 Y120.45 E69.97564
G1 X120.70 Y120.52 E70.00033
G1 X120.30 Y120.61 E70.02621
G1 X119.90 Y120.72 E70.05185
G1 X119.52 Y120.86 E70.07715
G1 X119.14 Y121.02 E70.10296
G1 X118.79 Y121.20 E70.12762
G1 X118.42 Y121.41 E70.15407
G1 X118.09 Y121.64 E70.17885
G1 X117.78 Y121.88 E70.20384
G1 X117.45 Y122.16 E70.23044
G1 X117.17 Y122.45 E70.25535
G1 X116.90 Y122.75 E70.28097
G1 X116.66 Y123.06 E70.30525
G1 X116.41 Y123.43 E70.33298
G1 X116.22 Y123.75 E70.35655
G1 X116.03 Y124.13 E70.38271
G1 X115.87 Y124.49 E70.40768
G1 X115.73 Y124.88 E70.43348
G1 X115.61 Y125.28 E70.45959
G1 X115.52 Y125.67 E70.48428
G1 X115.46 Y126.07 E70.50928
G1 X115.42 Y126.50 E70.53615
G1 X115.40 Y126.91 E70.56224
G1 X115.42 Y127.30 E70.58651
G1 X115.45 Y127.72 E70.61238
G1 X115.52 Y128.11 E70.63731
G1 X115.61 Y128.52 E70.66364
G1 X115.72 Y128.91 E70.68872
G1 X115.86 Y129.29 E70.71411
G1 X116.02 Y129.67 E70.73986
G1 X116.20 Y130.03 E70.76477
G1 X116.42 Y130.39 E70.79082
G1 X116.65 Y130.72 E70.81627
G1 X116.89 Y131.03 E70.84081
G1 X117.16 Y131.35 E70.86683
G1 X117.45 Y131.64 E70.89249
G1 X117.77 Y131.91 E70.91843
G1 X118.09 Y132.16 E70.94363
G1 X118.42 Y132.39 E70.96878
G1 X118.77 Y132.59 E70.99400
G1 X119.14 Y132.78 E71.01982
G1 X119.51 Y132.95 E71.04546
G1 X119.89 Y133.08 E71.07032
G1 X120.28 Y133.19 E71.09556
G1 X120.69 Y133.29 E71.12202
G1 X121.08 Y133.35 E71.14664
G1 X121.50 Y133.39 E71.17258
G1 X121.95 Y133.40 E71.20122
G1 X152.78 Y133.40 E73.12336
G1 X152.78 Y145.40 E73.87172
G1 X151.90 Y145.40 E73.92628
G1 X151.90 Y148.70 E74.13208
G1 X151.11 Y148.70 E74.18147
G1 X151.04 Y148.88 E74.19315
G1 X150.73 Y149.43 E74.23271
G1 X150.27 Y150.02 E74.27966
G1 X149.51 Y150.68 E74.34197
G1 X148.84 Y151.07 E74.39077
G1 X147.84 Y151.40 E74.45640
G1 X146.89 Y151.50 E74.51597
G1 X145.90 Y151.39 E74.57804
G1 X144.96 Y151.06 E74.64011
G1 X144.36 Y150.71 E74.68340
G1 X143.81 Y150.29 E74.72683
G1 X143.24 Y149.66 E74.77953
G1 X142.78 Y148.92 E74.83385
G1 X142.69 Y148.70 E74.84855
G1 X141.70 Y148.70 E74.91047
G1 X141.70 Y145.40 E75.11627
G1 X126.90 Y145.40 E76.03924
G0 F6000 X126.40 Y144.90
G1 F2700 X126.40 Y148.20 E76.24504
G1 X125.77 Y148.20 E76.28439
G1 X125.59 Y148.66 E76.31512
G1 X125.27 Y149.22 E76.35519
G1 X124.57 Y150.01 E76.42092
G1 X123.69 Y150.59 E76.48700
G1 X122.73 Y150.91 E76.55000
G1 X121.89 Y151.00 E76.60279
G1 X121.01 Y150.90 E76.65797
G1 X120.17 Y150.60 E76.71363
G1 X119.64 Y150.30 E76.75177
G1 X119.15 Y149.92 E76.79049
G1 X118.64 Y149.36 E76.83750
G1 X118.23 Y148.70 E76.88614
G1 X118.03 Y148.20 E76.91939
G1 X117.20 Y148.20 E76.97121
G1 X117.20 Y144.27 E77.21642
G1 X116.37 Y144.03 E77.27058
G1 X115.30 Y143.65 E77.34122
G1 X114.26 Y143.20 E77.41170
G1 X113.25 Y142.69 E77.48227
G1 X112.28 Y142.11 E77.55285
G1 X111.40 Y141.52 E77.61922
G1 X111.32 Y141.46 E77.62514
G1 X110.45 Y140.79 E77.69382
G1 X109.60 Y140.04 E77.76430
G1 X108.80 Y139.24 E77.83486
G1 X108.05 Y138.40 E77.90528
G1 X107.36 Y137.50 E77.97585
G1 X106.76 Y136.63 E78.04199
G1 X106.70 Y136.55 E78.04793
G1 X106.14 Y135.59 E78.11709
G1 X105.63 Y134.59 E78.18743
G1 X105.18 Y133.55 E78.25796
G1 X104.79 Y132.49 E78.32852
G1 X104.49 Y131.47 E78.39465
G1 X104.47 Y131.39 E78.39986
G1 X104.23 Y130.30 E78.46970
G1 X104.05 Y129.18 E78.54012
G1 X103.94 Y128.06 E78.61053
G1 X103.90 Y127.00 E78.67668
G1 X103.90 Y126.92 E78.68192
G1 X103.94 Y125.77 E78.75336
G1 X104.04 Y124.64 E78.82384
G1 X104.22 Y123.53 E78.89430
G1 X104.47 Y122.42 E78.96491
G1 X104.78 Y121.34 E79.03537
G1 X105.17 Y120.27 E79.10595
G1 X105.61 Y119.23 E79.17656
G1 X106.13 Y118.23 E79.24701
G1 X106.70 Y117.26 E79.31746
G1 X107.34 Y116.32 E79.38803
G1 X108.03 Y115.43 E79.45856
G1 X108.78 Y114.58 E79.52904
G1 X109.58 Y113.78 E79.59960
G1 X110.43 Y113.03 E79.67007
G1 X111.32 Y112.34 E79.74060
G1 X112.26 Y111.70 E79.81117
G1 X113.23 Y111.13 E79.88169
G1 X114.24 Y110.61 E79.95217
G1 X115.28 Y110.16 E80.02270
G1 X116.34 Y109.78 E80.09328
G1 X117.42 Y109.47 E80.16373
G1 X118.53 Y109.22 E80.23428
G1 X119.65 Y109.04 E80.30481
G1 X120.77 Y108.94 E80.37535
G1 X124.15 Y108.83 E80.58624
G1 X124.15 Y119.83 E81.27235
G1 X121.48 Y119.92 E81.43926
G1 X121.03 Y119.96 E81.46713
G1 X120.61 Y120.02 E81.49395
G1 X120.17 Y120.12 E81.52214
G1 X119.75 Y120.24 E81.54933
G1 X119.34 Y120.39 E81.57650
G1 X118.94 Y120.56 E81.60317
G1 X118.54 Y120.77 E81.63168
G1 X118.16 Y120.98 E81.65863
G1 X117.79 Y121.23 E81.68648
G1 X117.44 Y121.51 E81.71408
G1 X117.12 Y121.79 E81.74059
G1 X116.81 Y122.10 E81.76864
G1 X116.52 Y122.43 E81.79568
G1 X116.25 Y122.78 E81.82337
G1 X115.99 Y123.15 E81.85127
G1 X115.77 Y123.52 E81.87812
G1 X115.58 Y123.90 E81.90498
G1 X115.40 Y124.31 E81.93265
G1 X115.25 Y124.73 E81.96057
G1 X115.13 Y125.15 E81.98786
G1 X115.03 Y125.59 E82.01580
G1 X114.96 Y126.00 E82.04213
G1 X114.92 Y126.45 E82.06988
G1 X114.90 Y126.91 E82.09896
G1 X114.92 Y127.35 E82.12610
G1 X114.96 Y127.78 E82.15310
G1 X115.03 Y128.20 E82.17968
G1 X115.12 Y128.65 E82.20819
G1 X115.25 Y129.07 E82.23566
G1 X115.39 Y129.47 E82.26251
G1 X115.57 Y129.89 E82.29044
G1 X115.77 Y130.27 E82.31702
G1 X115.99 Y130.65 E82.34447
G1 X116.24 Y131.02 E82.37270
G1 X116.52 Y131.37 E82.40031
G1 X116.80 Y131.69 E82.42673
G1 X117.12 Y132.01 E82.45504
G1 X117.44 Y132.29 E82.48186
G1 X117.78 Y132.56 E82.50906
G1 X118.16 Y132.81 E82.53730
G1 X118.52 Y133.03 E82.56367
G1 X118.93 Y133.24 E82.59253
G1 X119.32 Y133.41 E82.61890
G1 X119.74 Y133.56 E82.64640
G1 X120.17 Y133.68 E82.67445
G1 X120.59 Y133.78 E82.70116
G1 X121.02 Y133.84 E82.72850
G1 X121.46 Y133.89 E82.75625
G1 X121.94 Y133.90 E82.78601
G1 X152.28 Y133.90 E84.67791
G1 X152.28 Y144.90 E85.36390
G1 X151.40 Y144.90 E85.41847
G1 X151.40 Y148.20 E85.62426
G1 X150.77 Y148.20 E85.66361
G1 X150.59 Y148.66 E85.69435
G1 X150.31 Y149.15 E85.72956
G1 X149.91 Y149.68 E85.77105
G1 X149.22 Y150.27 E85.82735
G1 X148.63 Y150.61 E85.87008
G1 X147.73 Y150.91 E85.92908
G1 X146.89 Y151.00 E85.98187
G1 X146.01 Y150.90 E86.03705
G1 X145.17 Y150.60 E86.09270
G1 X144.64 Y150.30 E86.13085
G1 X144.15 Y149.92 E86.16956
G1 X143.64 Y149.36 E86.21657
G1 X143.23 Y148.70 E86.26522
G1 X143.03 Y148.20 E86.29846
G1 X142.20 Y148.20 E86.35029
G1 X142.20 Y144.90 E86.55608
G1 X126.40 Y144.90 E87.54142
G0 F6000 X125.90 Y144.40
G1 F2700 X125.90 Y147.70 E87.74721
G1 X125.39 Y147.70 E87.77927
G1 X125.31 Y148.00 E87.79869
G1 X125.14 Y148.44 E87.82824
G1 X124.86 Y148.93 E87.86286
G1 X124.24 Y149.63 E87.92113
G1 X123.47 Y150.14 E87.97897
G1 X122.62 Y150.42 E88.03449
G1 X121.89 Y150.49 E88.08044
G1 X121.12 Y150.41 E88.12884
G1 X120.38 Y150.15 E88.17804
G1 X119.92 Y149.88 E88.21107
G1 X119.49 Y149.55 E88.24504
G1 X119.04 Y149.06 E88.28640
G1 X118.68 Y148.47 E88.32933
G1 X118.48 Y147.97 E88.36269
G1 X118.42 Y147.70 E88.38017
G1 X117.70 Y147.70 E88.42514
G1 X117.70 Y143.89 E88.66305
G1 X117.66 Y143.88 E88.66573
G1 X117.56 Y143.85 E88.67210
G1 X116.52 Y143.55 E88.73958
G1 X115.48 Y143.18 E88.80826
G1 X114.47 Y142.75 E88.87679
G1 X113.49 Y142.25 E88.94540
G1 X112.55 Y141.69 E89.01394
G1 X111.68 Y141.10 E89.07933
G1 X111.61 Y141.06 E89.08426
G1 X110.77 Y140.40 E89.15107
G1 X109.94 Y139.68 E89.21956
G1 X109.16 Y138.90 E89.28817
G1 X108.44 Y138.08 E89.35666
G1 X107.76 Y137.21 E89.42522
G1 X107.17 Y136.35 E89.49043
G1 X107.13 Y136.28 E89.49532
G1 X106.58 Y135.35 E89.56253
G1 X106.08 Y134.38 E89.63098
G1 X105.64 Y133.37 E89.69952
G1 X105.27 Y132.33 E89.76809
G1 X104.97 Y131.33 E89.83325
G1 X104.95 Y131.26 E89.83763
G1 X104.72 Y130.21 E89.90529
G1 X104.54 Y129.12 E89.97381
G1 X104.44 Y128.03 E90.04235
G1 X104.40 Y126.98 E90.10749
G1 X104.40 Y126.91 E90.11186
G1 X104.44 Y125.80 E90.18118
G1 X104.54 Y124.71 E90.24971
G1 X104.71 Y123.62 E90.31821
G1 X104.95 Y122.55 E90.38678
G1 X105.26 Y121.49 E90.45536
G1 X105.63 Y120.46 E90.52389
G1 X106.07 Y119.45 E90.59252
G1 X106.57 Y118.47 E90.66108
G1 X107.12 Y117.52 E90.72957
G1 X107.74 Y116.61 E90.79815
G1 X108.42 Y115.75 E90.86674
G1 X109.14 Y114.92 E90.93526
G1 X109.92 Y114.14 E91.00388
G1 X110.75 Y113.42 E91.07241
G1 X111.62 Y112.74 E91.14099
G1 X112.53 Y112.12 E91.20954
G1 X113.47 Y111.56 E91.27810
G1 X114.45 Y111.07 E91.34662
G1 X115.46 Y110.63 E91.41525
G1 X116.49 Y110.26 E91.48378
G1 X117.55 Y109.95 E91.55236
G1 X118.62 Y109.71 E91.62093
G1 X119.71 Y109.54 E91.68944
G1 X120.80 Y109.44 E91.75803
G1 X123.65 Y109.34 E91.93579
G1 X123.65 Y119.35 E92.55948
G1 X121.45 Y119.42 E92.69687
G1 X120.97 Y119.46 E92.72699
G1 X120.51 Y119.53 E92.75591
G1 X120.05 Y119.64 E92.78530
G1 X119.58 Y119.77 E92.81568
G1 X119.16 Y119.92 E92.84363
G1 X118.72 Y120.11 E92.87324
G1 X118.30 Y120.33 E92.90317
G1 X117.90 Y120.56 E92.93177
G1 X117.49 Y120.84 E92.96262
G1 X117.14 Y121.11 E92.99063
G1 X116.77 Y121.43 E93.02112
G1 X116.45 Y121.76 E93.04956
G1 X116.14 Y122.10 E93.07854
G1 X115.84 Y122.49 E93.10911
G1 X115.58 Y122.87 E93.13752
G1 X115.33 Y123.28 E93.16783
G1 X115.12 Y123.69 E93.19639
G1 X114.94 Y124.12 E93.22577
G1 X114.77 Y124.58 E93.25581
G1 X114.64 Y125.03 E93.28518
G1 X114.54 Y125.49 E93.31471
G1 X114.47 Y125.94 E93.34319
G1 X114.42 Y126.42 E93.37289
G1 X114.40 Y126.91 E93.40377
G1 X114.42 Y127.38 E93.43285
G1 X114.46 Y127.84 E93.46198
G1 X114.53 Y128.30 E93.49064
G1 X114.64 Y128.76 E93.52042
G1 X114.77 Y129.23 E93.55050
G1 X114.93 Y129.66 E93.57932
G1 X115.12 Y130.09 E93.60875
G1 X115.33 Y130.51 E93.63798
G1 X115.58 Y130.93 E93.66807
G1 X115.83 Y131.30 E93.69599
G1 X116.13 Y131.69 E93.72670
G1 X116.44 Y132.04 E93.75626
G1 X116.76 Y132.36 E93.78439
G1 X117.13 Y132.69 E93.81506
G1 X117.48 Y132.96 E93.84293
G1 X117.89 Y133.24 E93.87373
G1 X118.29 Y133.47 E93.90245
G1 X118.70 Y133.69 E93.93165
G1 X119.15 Y133.88 E93.96210
G1 X119.57 Y134.03 E93.98987
G1 X120.05 Y134.17 E94.02064
G1 X120.50 Y134.27 E94.04958
G1 X120.96 Y134.34 E94.07857
G1 X121.43 Y134.39 E94.10826
G1 X121.92 Y134.40 E94.13896
G1 X151.78 Y134.40 E96.00067
G1 X151.78 Y144.40 E96.62430
G1 X150.90 Y144.40 E96.67887
G1 X150.90 Y147.70 E96.88467
G1 X150.38 Y147.70 E96.91728
G1 X150.33 Y147.96 E96.93340
G1 X150.14 Y148.44 E96.96617
G1 X149.89 Y148.87 E96.99700
G1 X149.54 Y149.33 E97.03306
G1 X148.93 Y149.86 E97.08335
G1 X148.42 Y150.15 E97.11996
G1 X147.62 Y150.42 E97.17232
G1 X146.89 Y150.49 E97.21827
G1 X146.12 Y150.41 E97.26667
G1 X145.38 Y150.15 E97.31587
G1 X144.92 Y149.88 E97.34890
G1 X144.49 Y149.55 E97.38287
G1 X144.04 Y149.06 E97.42423
G1 X143.68 Y148.47 E97.46716
G1 X143.48 Y147.97 E97.50052
G1 X143.42 Y147.70 E97.51800
G1 X142.70 Y147.70 E97.56297
G1 X142.70 Y144.40 E97.76876
G1 X125.90 Y144.40 E98.81646
G0 F6000 X125.40 Y143.90
G1 F2700 X125.40 Y147.20 E99.02225
G1 X124.96 Y147.20 E99.04957
G1 X124.93 Y147.47 E99.06661
G1 X124.83 Y147.85 E99.09084
G1 X124.68 Y148.23 E99.11622
G1 X124.45 Y148.64 E99.14546
G1 X123.91 Y149.25 E99.19626
G1 X123.25 Y149.68 E99.24586
G1 X122.52 Y149.93 E99.29388
G1 X121.89 Y149.99 E99.33307
G1 X121.23 Y149.91 E99.37463
G1 X120.58 Y149.69 E99.41736
G1 X120.20 Y149.47 E99.44528
G1 X119.83 Y149.18 E99.47453
G1 X119.44 Y148.76 E99.51011
G1 X119.13 Y148.25 E99.54741
G1 X118.96 Y147.83 E99.57554
G1 X118.86 Y147.36 E99.60526
G1 X118.84 Y147.20 E99.61545
G1 X118.20 Y147.20 E99.65530
G1 X118.20 Y143.49 E99.88698
G1 X117.78 Y143.39 E99.91426
G1 X117.69 Y143.37 E99.91967
G1 X116.67 Y143.08 E99.98566
G1 X115.67 Y142.72 E100.05229
G1 X114.69 Y142.29 E100.11891
G1 X113.73 Y141.81 E100.18549
G1 X112.81 Y141.27 E100.25216
G1 X111.96 Y140.69 E100.31651
G1 X111.91 Y140.65 E100.32036
G1 X111.09 Y140.02 E100.38530
G1 X110.28 Y139.31 E100.45185
G1 X109.53 Y138.56 E100.51849
G1 X108.82 Y137.76 E100.58502
G1 X108.17 Y136.91 E100.65163
G1 X107.58 Y136.06 E100.71589
G1 X107.55 Y136.01 E100.71980
G1 X107.02 Y135.11 E100.78500
G1 X106.53 Y134.16 E100.85155
G1 X106.11 Y133.18 E100.91811
G1 X105.74 Y132.18 E100.98476
G1 X105.45 Y131.19 E101.04888
G1 X105.44 Y131.14 E101.05247
G1 X105.21 Y130.11 E101.11796
G1 X105.04 Y129.06 E101.18453
G1 X104.94 Y127.99 E101.25112
G1 X104.90 Y126.98 E101.31452
G1 X104.90 Y126.91 E101.31883
G1 X104.94 Y125.83 E101.38596
G1 X105.04 Y124.77 E101.45255
G1 X105.20 Y123.72 E101.51909
G1 X105.44 Y122.67 E101.58575
G1 X105.73 Y121.65 E101.65232
G1 X106.09 Y120.64 E101.71892
G1 X106.52 Y119.66 E101.78559
G1 X107.00 Y118.71 E101.85217
G1 X107.55 Y117.79 E101.91873
G1 X108.15 Y116.91 E101.98531
G1 X108.80 Y116.06 E102.05193
G1 X109.51 Y115.26 E102.11852
G1 X110.27 Y114.51 E102.18520
G1 X111.07 Y113.80 E102.25178
G1 X111.91 Y113.15 E102.31841
G1 X112.79 Y112.55 E102.38498
G1 X113.71 Y112.00 E102.45158
G1 X114.66 Y111.52 E102.51816
G1 X115.64 Y111.09 E102.58480
G1 X116.65 Y110.73 E102.65140
G1 X117.67 Y110.44 E102.71797
G1 X118.72 Y110.20 E102.78455
G1 X119.77 Y110.03 E102.85118
G1 X120.83 Y109.93 E102.91782
G1 X123.15 Y109.86 E103.06239
G1 X123.15 Y118.86 E103.62372
G1 X121.42 Y118.92 E103.73172
G1 X120.91 Y118.96 E103.76372
G1 X120.42 Y119.04 E103.79484
G1 X119.92 Y119.15 E103.82654
G1 X119.45 Y119.29 E103.85717
G1 X118.97 Y119.46 E103.88917
G1 X118.50 Y119.66 E103.92096
G1 X118.06 Y119.88 E103.95122
G1 X117.63 Y120.14 E103.98278
G1 X117.22 Y120.42 E104.01385
G1 X116.81 Y120.74 E104.04630
G1 X116.44 Y121.06 E104.07661
G1 X116.07 Y121.42 E104.10889
G1 X115.75 Y121.79 E104.13911
G1 X115.44 Y122.19 E104.17133
G1 X115.16 Y122.60 E104.20216
G1 X114.90 Y123.04 E104.23370
G1 X114.67 Y123.48 E104.26491
G1 X114.47 Y123.95 E104.29680
G1 X114.30 Y124.41 E104.32724
G1 X114.16 Y124.90 E104.35927
G1 X114.05 Y125.38 E104.38977
G1 X113.97 Y125.90 E104.42248
G1 X113.92 Y126.38 E104.45286
G1 X113.90 Y126.92 E104.48612
G1 X113.92 Y127.39 E104.51569
G1 X113.97 Y127.90 E104.54782
G1 X114.05 Y128.41 E104.57946
G1 X114.16 Y128.90 E104.61097
G1 X114.29 Y129.37 E104.64148
G1 X114.47 Y129.85 E104.67357
G1 X114.66 Y130.30 E104.70422
G1 X114.89 Y130.76 E104.73593
G1 X115.15 Y131.19 E104.76699
G1 X115.43 Y131.60 E104.79840
G1 X115.74 Y132.00 E104.83018
G1 X116.07 Y132.37 E104.86085
G1 X116.43 Y132.74 E104.89286
G1 X116.80 Y133.06 E104.92375
G1 X117.20 Y133.37 E104.95516
G1 X117.61 Y133.65 E104.98616
G1 X118.05 Y133.91 E105.01792
G1 X118.50 Y134.14 E105.04969
G1 X118.96 Y134.34 E105.08055
G1 X119.44 Y134.51 E105.11231
G1 X119.91 Y134.65 E105.14322
G1 X120.39 Y134.76 E105.17381
G1 X120.91 Y134.84 E105.20684
G1 X121.40 Y134.88 E105.23722
G1 X121.91 Y134.90 E105.26904
G1 X151.28 Y134.90 E107.10051
G1 X151.28 Y143.90 E107.66177
G1 X150.40 Y143.90 E107.71634
G1 X150.40 Y147.20 E107.92214
G1 X149.97 Y147.20 E107.94939
G1 X149.85 Y147.81 E107.98836
G1 X149.68 Y148.23 E108.01604
G1 X149.48 Y148.60 E108.04256
G1 X149.18 Y148.99 E108.07315
G1 X148.64 Y149.45 E108.11737
G1 X148.22 Y149.69 E108.14787
G1 X147.52 Y149.93 E108.19364
G1 X146.89 Y149.99 E108.23282
G1 X146.23 Y149.91 E108.27438
G1 X145.58 Y149.69 E108.31712
G1 X145.20 Y149.47 E108.34503
G1 X144.83 Y149.18 E108.37429
G1 X144.44 Y148.76 E108.40986
G1 X144.13 Y148.25 E108.44716
G1 X143.96 Y147.83 E108.47529
G1 X143.86 Y147.36 E108.50502
G1 X143.84 Y147.20 E108.51520
G1 X143.20 Y147.20 E108.55505
G1 X143.20 Y143.90 E108.76085
G1 X125.40 Y143.90 E109.87091
G0 F6000 X124.90 Y143.40
G1 F2700 X124.90 Y146.70 E110.07670
G1 X124.47 Y146.70 E110.10346
G1 X124.48 Y146.74 E110.10616
G1 X124.48 Y146.90 E110.11595
G1 X124.48 Y147.06 E110.12580
G1 X124.44 Y147.38 E110.14592
G1 X124.36 Y147.69 E110.16623
G1 X124.23 Y148.01 E110.18745
G1 X124.05 Y148.34 E110.21127
G1 X123.58 Y148.86 E110.25465
G1 X123.03 Y149.23 E110.29605
G1 X122.41 Y149.43 E110.33646
G1 X121.90 Y149.49 E110.36887
G1 X121.34 Y149.42 E110.40364
G1 X120.79 Y149.23 E110.43993
G1 X120.48 Y149.05 E110.46276
G1 X120.17 Y148.81 E110.48730
G1 X119.84 Y148.46 E110.51713
G1 X119.58 Y148.02 E110.54881
G1 X119.44 Y147.68 E110.57165
G1 X119.36 Y147.28 E110.59748
G1 X119.33 Y147.06 E110.61119
G1 X119.33 Y146.90 E110.62111
G1 X119.33 Y146.74 E110.63096
G1 X119.33 Y146.70 E110.63360
G1 X118.70 Y146.70 E110.67289
G1 X118.70 Y143.09 E110.89839
G1 X117.89 Y142.90 E110.95027
G1 X117.82 Y142.89 E110.95478
G1 X116.83 Y142.60 E111.01915
G1 X115.85 Y142.25 E111.08387
G1 X114.90 Y141.84 E111.14845
G1 X113.97 Y141.37 E111.21313
G1 X113.08 Y140.84 E111.27779
G1 X112.24 Y140.28 E111.34106
G1 X112.20 Y140.25 E111.34402
G1 X111.40 Y139.63 E111.40701
G1 X110.63 Y138.95 E111.47162
G1 X109.89 Y138.21 E111.53631
G1 X109.21 Y137.44 E111.60090
G1 X108.57 Y136.62 E111.66555
G1 X108.00 Y135.78 E111.72878
G1 X107.97 Y135.74 E111.73170
G1 X107.46 Y134.87 E111.79491
G1 X106.98 Y133.95 E111.85950
G1 X106.57 Y133.00 E111.92416
G1 X106.22 Y132.02 E111.98883
G1 X105.93 Y131.05 E112.05198
G1 X105.92 Y131.01 E112.05472
G1 X105.70 Y130.02 E112.11810
G1 X105.54 Y128.99 E112.18277
G1 X105.44 Y127.96 E112.24736
G1 X105.40 Y126.95 E112.31057
G1 X105.40 Y126.95 E112.31064
G1 X105.40 Y126.91 E112.31332
G1 X105.43 Y125.86 E112.37828
G1 X105.53 Y124.83 E112.44293
G1 X105.69 Y123.81 E112.50751
G1 X105.92 Y122.80 E112.57224
G1 X106.21 Y121.80 E112.63685
G1 X106.56 Y120.83 E112.70148
G1 X106.97 Y119.88 E112.76617
G1 X107.44 Y118.95 E112.83082
G1 X107.97 Y118.06 E112.89540
G1 X108.55 Y117.20 E112.96004
G1 X109.19 Y116.38 E113.02470
G1 X109.87 Y115.61 E113.08935
G1 X110.61 Y114.87 E113.15399
G1 X111.39 Y114.19 E113.21864
G1 X112.20 Y113.55 E113.28331
G1 X113.06 Y112.97 E113.34794
G1 X113.95 Y112.44 E113.41259
G1 X114.88 Y111.97 E113.47718
G1 X115.83 Y111.56 E113.54187
G1 X116.80 Y111.21 E113.60649
G1 X117.80 Y110.92 E113.67111
G1 X118.81 Y110.69 E113.73578
G1 X119.83 Y110.53 E113.80043
G1 X120.87 Y110.43 E113.86508
G1 X122.65 Y110.38 E113.97651
G1 X122.65 Y118.38 E114.47548
G1 X121.38 Y118.42 E114.55509
G1 X120.85 Y118.47 E114.58816
G1 X120.33 Y118.55 E114.62117
G1 X119.81 Y118.67 E114.65434
G1 X119.28 Y118.82 E114.68841
G1 X118.79 Y118.99 E114.72093
G1 X118.29 Y119.21 E114.75484
G1 X117.83 Y119.44 E114.78734
G1 X117.36 Y119.72 E114.82136
G1 X116.92 Y120.02 E114.85462
G1 X116.50 Y120.34 E114.88748
G1 X116.09 Y120.70 E114.92110
G1 X115.72 Y121.07 E114.95435
G1 X115.36 Y121.47 E114.98731
G1 X115.03 Y121.91 E115.02167
G1 X114.74 Y122.33 E115.05384
G1 X114.46 Y122.80 E115.08765
G1 X114.22 Y123.26 E115.12011
G1 X114.00 Y123.77 E115.15454
G1 X113.83 Y124.26 E115.18709
G1 X113.67 Y124.77 E115.22037
G1 X113.56 Y125.30 E115.25412
G1 X113.47 Y125.82 E115.28702
G1 X113.42 Y126.35 E115.32047
G1 X113.40 Y126.91 E115.35498
G1 X113.42 Y127.44 E115.38811
G1 X113.47 Y127.96 E115.42099
G1 X113.55 Y128.50 E115.45464
G1 X113.67 Y129.02 E115.48832
G1 X113.82 Y129.53 E115.52118
G1 X114.00 Y130.03 E115.55440
G1 X114.21 Y130.52 E115.58803
G1 X114.45 Y130.98 E115.62016
G1 X114.73 Y131.46 E115.65486
G1 X115.02 Y131.89 E115.68714
G1 X115.36 Y132.32 E115.72114
G1 X115.72 Y132.73 E115.75507
G1 X116.07 Y133.09 E115.78673
G1 X116.49 Y133.46 E115.82146
G1 X116.90 Y133.77 E115.85364
G1 X117.36 Y134.08 E115.88807
G1 X117.80 Y134.35 E115.92040
G1 X118.29 Y134.59 E115.95434
G1 X118.77 Y134.80 E115.98688
G1 X119.28 Y134.99 E116.02128
G1 X119.78 Y135.13 E116.05375
G1 X120.31 Y135.25 E116.08698
G1 X120.83 Y135.33 E116.12038
G1 X121.37 Y135.38 E116.15383
G1 X121.92 Y135.40 E116.18858
G1 X150.78 Y135.40 E117.98787
G1 X150.78 Y143.40 E118.48678
G1 X149.90 Y143.40 E118.54134
G1 X149.90 Y146.70 E118.74714
G1 X149.47 Y146.70 E118.77389
G1 X149.48 Y146.74 E118.77659
G1 X149.48 Y146.90 E118.78638
G1 X149.48 Y147.08 E118.79761
G1 X149.37 Y147.68 E118.83532
G1 X149.23 Y148.01 E118.85788
G1 X149.06 Y148.32 E118.88005
G1 X148.81 Y148.64 E118.90517
G1 X148.35 Y149.04 E118.94338
G1 X148.01 Y149.24 E118.96778
G1 X147.41 Y149.43 E119.00688
G1 X146.90 Y149.49 E119.03929
G1 X146.34 Y149.42 E119.07407
G1 X145.79 Y149.23 E119.11035
G1 X145.48 Y149.05 E119.13318
G1 X145.16 Y148.81 E119.15772
G1 X144.84 Y148.46 E119.18756
G1 X144.58 Y148.02 E119.21924
G1 X144.44 Y147.68 E119.24207
G1 X144.35 Y147.28 E119.26791
G1 X144.33 Y147.06 E119.28161
G1 X144.33 Y146.90 E119.29153
G1 X144.33 Y146.74 E119.30138
G1 X144.33 Y146.70 E119.30402
G1 X143.70 Y146.70 E119.34331
G1 X143.70 Y143.40 E119.54911
G1 X124.90 Y143.40 E120.72153
G0 F6000 X124.40 Y142.90
G1 F2700 X124.40 Y146.20 E120.92732
G1 X123.84 Y146.20 E120.96206
G1 X123.94 Y146.51 E120.98212
G1 X123.98 Y146.77 E120.99884
G1 X123.98 Y146.90 E121.00651
G1 X123.98 Y147.03 E121.01480
G1 X123.94 Y147.29 E121.03096
G1 X123.88 Y147.54 E121.04736
G1 X123.78 Y147.79 E121.06441
G1 X123.64 Y148.05 E121.08278
G1 X123.25 Y148.48 E121.11873
G1 X122.81 Y148.78 E121.15191
G1 X122.31 Y148.94 E121.18482
G1 X121.90 Y148.98 E121.21040
G1 X121.45 Y148.93 E121.23840
G1 X121.00 Y148.78 E121.26822
G1 X120.76 Y148.63 E121.28593
G1 X120.50 Y148.44 E121.30571
G1 X120.24 Y148.16 E121.32990
G1 X120.03 Y147.80 E121.35587
G1 X119.92 Y147.54 E121.37347
G1 X119.85 Y147.19 E121.39542
G1 X119.83 Y147.03 E121.40573
G1 X119.83 Y146.91 E121.41340
G1 X119.83 Y146.77 E121.42169
G1 X119.86 Y146.52 E121.43785
G1 X119.92 Y146.26 E121.45423
G1 X119.95 Y146.20 E121.45826
G1 X119.20 Y146.20 E121.50472
G1 X119.20 Y142.66 E121.72524
G1 X118.90 Y142.62 E121.74405
G1 X118.00 Y142.42 E121.80150
G1 X117.95 Y142.40 E121.80504
G1 X116.98 Y142.12 E121.86791
G1 X116.03 Y141.79 E121.93063
G1 X115.11 Y141.39 E121.99326
G1 X114.22 Y140.93 E122.05593
G1 X113.35 Y140.42 E122.11869
G1 X112.52 Y139.86 E122.18089
G1 X112.50 Y139.84 E122.18281
G1 X111.72 Y139.25 E122.24393
G1 X110.97 Y138.58 E122.30659
G1 X110.26 Y137.87 E122.36934
G1 X109.59 Y137.12 E122.43195
G1 X108.97 Y136.32 E122.49469
G1 X108.39 Y135.47 E122.55887
G1 X107.89 Y134.63 E122.62007
G1 X107.44 Y133.74 E122.68276
G1 X107.04 Y132.81 E122.74544
G1 X106.69 Y131.87 E122.80814
G1 X106.41 Y130.91 E122.87030
G1 X106.41 Y130.88 E122.87219
G1 X106.19 Y129.92 E122.93347
G1 X106.03 Y128.93 E122.99618
G1 X105.94 Y127.93 E123.05889
G1 X105.90 Y126.93 E123.12110
G1 X105.90 Y126.90 E123.12291
G1 X105.93 Y125.90 E123.18574
G1 X106.03 Y124.90 E123.24839
G1 X106.19 Y123.90 E123.31108
G1 X106.41 Y122.92 E123.37377
G1 X106.69 Y121.96 E123.43644
G1 X107.03 Y121.01 E123.49913
G1 X107.42 Y120.09 E123.56186
G1 X107.88 Y119.19 E123.62453
G1 X108.39 Y118.33 E123.68718
G1 X108.96 Y117.50 E123.74985
G1 X109.57 Y116.70 E123.81252
G1 X110.24 Y115.95 E123.87522
G1 X110.95 Y115.24 E123.93792
G1 X111.70 Y114.57 E124.00062
G1 X112.50 Y113.96 E124.06329
G1 X113.33 Y113.39 E124.12596
G1 X114.19 Y112.88 E124.18864
G1 X115.09 Y112.42 E124.25129
G1 X116.01 Y112.02 E124.31402
G1 X116.96 Y111.68 E124.37671
G1 X117.92 Y111.40 E124.43937
G1 X118.90 Y111.18 E124.50207
G1 X119.90 Y111.03 E124.56476
G1 X120.90 Y110.93 E124.62741
G1 X122.15 Y110.89 E124.70571
G1 X122.15 Y117.89 E125.14225
G1 X121.35 Y117.92 E125.19235
G1 X120.79 Y117.97 E125.22748
G1 X120.23 Y118.06 E125.26265
G1 X119.67 Y118.18 E125.29843
G1 X119.13 Y118.34 E125.33347
G1 X118.61 Y118.53 E125.36807
G1 X118.08 Y118.76 E125.40427
G1 X117.57 Y119.01 E125.43950
G1 X117.09 Y119.29 E125.47411
G1 X116.63 Y119.61 E125.50908
G1 X116.17 Y119.96 E125.54492
G1 X115.75 Y120.34 E125.58057
G1 X115.36 Y120.72 E125.61488
G1 X114.98 Y121.15 E125.65045
G1 X114.63 Y121.61 E125.68627
G1 X114.31 Y122.06 E125.72064
G1 X114.02 Y122.56 E125.75691
G1 X113.76 Y123.06 E125.79202
G1 X113.54 Y123.58 E125.82685
G1 X113.35 Y124.10 E125.86167
G1 X113.19 Y124.64 E125.89695
G1 X113.06 Y125.21 E125.93314
G1 X112.98 Y125.75 E125.96743
G1 X112.92 Y126.33 E126.00364
G1 X112.90 Y126.91 E126.04008
G1 X112.92 Y127.46 E126.07408
G1 X112.97 Y128.03 E126.10985
G1 X113.06 Y128.58 E126.14457
G1 X113.19 Y129.14 E126.18049
G1 X113.34 Y129.68 E126.21568
G1 X113.54 Y130.22 E126.25123
G1 X113.76 Y130.73 E126.28567
G1 X114.02 Y131.24 E126.32162
G1 X114.30 Y131.72 E126.35612
G1 X114.62 Y132.19 E126.39212
G1 X114.97 Y132.64 E126.42723
G1 X115.34 Y133.06 E126.46187
G1 X115.74 Y133.46 E126.49777
G1 X116.17 Y133.84 E126.53334
G1 X116.61 Y134.18 E126.56764
G1 X117.08 Y134.50 E126.60360
G1 X117.56 Y134.78 E126.63822
G1 X118.08 Y135.05 E126.67447
G1 X118.58 Y135.27 E126.70874
G1 X119.12 Y135.46 E126.74441
G1 X119.67 Y135.62 E126.77980
G1 X120.21 Y135.74 E126.81481
G1 X120.77 Y135.83 E126.85017
G1 X121.34 Y135.88 E126.88550
G1 X121.91 Y135.90 E126.92125
G1 X150.28 Y135.90 E128.69029
G1 X150.28 Y142.90 E129.12683
G1 X149.40 Y142.90 E129.18140
G1 X149.40 Y146.20 E129.38720
G1 X148.84 Y146.20 E129.42193
G1 X148.94 Y146.51 E129.44199
G1 X148.98 Y146.77 E129.45871
G1 X148.98 Y146.90 E129.46638
G1 X148.98 Y147.04 E129.47511
G1 X148.88 Y147.53 E129.50672
G1 X148.78 Y147.79 E129.52424
G1 X148.64 Y148.04 E129.54205
G1 X148.45 Y148.29 E129.56175
G1 X148.06 Y148.63 E129.59390
G1 X147.80 Y148.78 E129.61223
G1 X147.31 Y148.94 E129.64469
G1 X146.90 Y148.98 E129.67027
G1 X146.45 Y148.93 E129.69827
G1 X146.00 Y148.78 E129.72809
G1 X145.76 Y148.63 E129.74580
G1 X145.50 Y148.44 E129.76558
G1 X145.24 Y148.16 E129.78977
G1 X145.03 Y147.80 E129.81574
G1 X144.92 Y147.54 E129.83334
G1 X144.85 Y147.19 E129.85529
G1 X144.83 Y147.03 E129.86560
G1 X144.83 Y146.91 E129.87327
G1 X144.83 Y146.77 E129.88156
G1 X144.86 Y146.52 E129.89772
G1 X144.92 Y146.26 E129.91410
G1 X144.95 Y146.20 E129.91813
G1 X144.20 Y146.20 E129.96459
G1 X144.20 Y142.90 E130.17039
G1 X124.40 Y142.90 E131.40517
G0 F6000 X124.65 Y151.66
G1 F2700 X124.65 Y163.66 E132.15377
G1 X121.51 Y163.76 E132.35007
G1 X121.09 Y163.80 E132.37599
G1 X120.70 Y163.86 E132.40068
G1 X120.30 Y163.95 E132.42656
G1 X119.90 Y164.07 E132.45219
G1 X119.52 Y164.20 E132.47750
G1 X119.14 Y164.37 E132.50312
G1 X118.78 Y164.55 E132.52827
G1 X118.42 Y164.76 E132.55419
G1 X118.09 Y164.98 E132.57920
G1 X117.78 Y165.23 E132.60418
G1 X117.45 Y165.51 E132.63078
G1 X117.17 Y165.79 E132.65570
G1 X116.90 Y166.10 E132.68132
G1 X116.66 Y166.41 E132.70559
G1 X116.41 Y166.78 E132.73332
G1 X116.22 Y167.10 E132.75689
G1 X116.03 Y167.47 E132.78305
G1 X115.87 Y167.84 E132.80802
G1 X115.73 Y168.23 E132.83383
G1 X115.61 Y168.63 E132.85994
G1 X115.52 Y169.02 E132.88463
G1 X115.46 Y169.41 E132.90969
G1 X115.42 Y169.84 E132.93644
G1 X115.40 Y170.26 E132.96265
G1 X115.42 Y170.65 E132.98686
G1 X115.45 Y171.06 E133.01273
G1 X115.52 Y171.46 E133.03766
G1 X115.61 Y171.87 E133.06399
G1 X115.72 Y172.26 E133.08945
G1 X115.86 Y172.64 E133.11430
G1 X116.02 Y173.02 E133.14014
G1 X116.21 Y173.38 E133.16588
G1 X116.41 Y173.73 E133.19082
G1 X116.64 Y174.07 E133.21646
G1 X116.89 Y174.38 E133.24122
G1 X117.16 Y174.70 E133.26724
G1 X117.45 Y174.99 E133.29291
G1 X117.77 Y175.26 E133.31893
G1 X118.08 Y175.50 E133.34360
G1 X118.42 Y175.74 E133.36915
G1 X118.77 Y175.94 E133.39437
G1 X119.14 Y176.13 E133.42020
G1 X119.51 Y176.29 E133.44584
G1 X119.89 Y176.43 E133.47069
G1 X120.28 Y176.54 E133.49615
G1 X120.69 Y176.63 E133.52248
G1 X121.09 Y176.70 E133.54735
G1 X121.48 Y176.73 E133.57228
G1 X121.96 Y176.75 E133.60198
G1 X152.78 Y176.75 E135.52375
G1 X152.78 Y188.75 E136.27210
G1 X151.90 Y188.75 E136.32667
G1 X151.90 Y191.90 E136.52324
G1 X151.17 Y191.90 E136.56895
G1 X151.04 Y192.22 E136.59064
G1 X150.73 Y192.78 E136.63007
G1 X150.27 Y193.37 E136.67702
G1 X149.51 Y194.02 E136.73933
G1 X148.84 Y194.42 E136.78813
G1 X147.84 Y194.75 E136.85376
G1 X146.89 Y194.85 E136.91332
G1 X145.90 Y194.73 E136.97540
G1 X144.96 Y194.41 E137.03746
G1 X144.36 Y194.06 E137.08075
G1 X143.81 Y193.63 E137.12419
G1 X143.24 Y193.01 E137.17689
G1 X142.78 Y192.27 E137.23107
G1 X142.63 Y191.90 E137.25581
G1 X141.70 Y191.90 E137.31399
G1 X141.70 Y188.75 E137.51056
G1 X126.90 Y188.75 E138.43353
G1 X126.90 Y191.90 E138.63009
G1 X126.17 Y191.90 E138.67581
G1 X126.04 Y192.22 E138.69750
G1 X125.68 Y192.86 E138.74284
G1 X124.90 Y193.74 E138.81603
G1 X123.91 Y194.39 E138.89034
G1 X122.84 Y194.75 E138.96082
G1 X121.89 Y194.85 E139.02039
G1 X120.90 Y194.73 E139.08247
G1 X119.96 Y194.41 E139.14453
G1 X119.36 Y194.06 E139.18782
G1 X118.81 Y193.63 E139.23125
G1 X118.23 Y193.01 E139.28395
G1 X117.78 Y192.27 E139.33814
G1 X117.64 Y191.90 E139.36287
G1 X116.70 Y191.90 E139.42106
G1 X116.70 Y187.99 E139.66471
G1 X116.21 Y187.85 E139.69651
G1 X115.12 Y187.46 E139.76906
G1 X114.05 Y187.00 E139.84149
G1 X113.01 Y186.47 E139.91398
G1 X112.01 Y185.88 E139.98641
G1 X111.12 Y185.28 E140.05399
G1 X111.02 Y185.21 E140.06094
G1 X110.13 Y184.52 E140.13152
G1 X109.26 Y183.75 E140.20386
G1 X108.44 Y182.93 E140.27640
G1 X107.67 Y182.06 E140.34881
G1 X106.95 Y181.15 E140.42129
G1 X106.34 Y180.26 E140.48842
G1 X106.28 Y180.16 E140.49537
G1 X105.70 Y179.18 E140.56647
G1 X105.17 Y178.15 E140.63876
G1 X104.71 Y177.09 E140.71120
G1 X104.31 Y175.99 E140.78382
G1 X104.01 Y174.96 E140.85086
G1 X103.99 Y174.87 E140.85692
G1 X103.73 Y173.74 E140.92892
G1 X103.55 Y172.59 E141.00117
G1 X103.44 Y171.44 E141.07360
G1 X103.41 Y170.36 E141.14068
G1 X103.40 Y170.27 E141.14680
G1 X103.44 Y169.09 E141.22048
G1 X103.55 Y167.93 E141.29290
G1 X103.73 Y166.78 E141.36531
G1 X103.98 Y165.65 E141.43779
G1 X104.31 Y164.53 E141.51032
G1 X104.70 Y163.44 E141.58283
G1 X105.16 Y162.37 E141.65540
G1 X105.69 Y161.34 E141.72780
G1 X106.28 Y160.34 E141.80016
G1 X106.93 Y159.37 E141.87275
G1 X107.65 Y158.46 E141.94524
G1 X108.42 Y157.58 E142.01766
G1 X109.24 Y156.76 E142.09024
G1 X110.11 Y155.99 E142.16266
G1 X111.03 Y155.28 E142.23515
G1 X111.99 Y154.63 E142.30774
G1 X112.99 Y154.04 E142.38010
G1 X114.02 Y153.51 E142.45250
G1 X115.09 Y153.05 E142.52507
G1 X116.19 Y152.65 E142.59758
G1 X117.30 Y152.33 E142.67005
G1 X118.44 Y152.07 E142.74259
G1 X119.58 Y151.89 E142.81506
G1 X120.74 Y151.78 E142.88741
G1 X124.65 Y151.66 E143.13156
G0 F6000 X124.15 Y152.17
G1 F2700 X124.15 Y163.18 E143.81780
G1 X121.48 Y163.26 E143.98471
G1 X121.03 Y163.30 E144.01258
G1 X120.61 Y163.37 E144.03940
G1 X120.17 Y163.47 E144.06759
G1 X119.75 Y163.59 E144.09478
G1 X119.34 Y163.74 E144.12195
G1 X118.93 Y163.91 E144.14938
G1 X118.55 Y164.11 E144.17652
G1 X118.16 Y164.34 E144.20439
G1 X117.79 Y164.58 E144.23192
G1 X117.44 Y164.85 E144.25953
G1 X117.12 Y165.13 E144.28604
G1 X116.81 Y165.45 E144.31409
G1 X116.52 Y165.77 E144.34081
G1 X116.25 Y166.13 E144.36882
G1 X115.99 Y166.50 E144.39672
G1 X115.77 Y166.87 E144.42357
G1 X115.58 Y167.25 E144.45042
G1 X115.40 Y167.66 E144.47810
G1 X115.25 Y168.08 E144.50601
G1 X115.13 Y168.50 E144.53331
G1 X115.03 Y168.94 E144.56125
G1 X114.96 Y169.35 E144.58758
G1 X114.92 Y169.80 E144.61539
G1 X114.90 Y170.26 E144.64447
G1 X114.92 Y170.69 E144.67149
G1 X114.96 Y171.13 E144.69854
G1 X115.03 Y171.55 E144.72513
G1 X115.12 Y171.99 E144.75363
G1 X115.25 Y172.41 E144.78091
G1 X115.40 Y172.83 E144.80841
G1 X115.57 Y173.22 E144.83533
G1 X115.77 Y173.62 E144.86325
G1 X115.99 Y173.99 E144.88989
G1 X116.24 Y174.36 E144.91798
G1 X116.52 Y174.72 E144.94581
G1 X116.80 Y175.03 E144.97223
G1 X117.12 Y175.36 E145.00054
G1 X117.43 Y175.64 E145.02697
G1 X117.79 Y175.91 E145.05475
G1 X118.16 Y176.16 E145.08277
G1 X118.52 Y176.38 E145.10913
G1 X118.93 Y176.59 E145.13800
G1 X119.32 Y176.75 E145.16437
G1 X119.74 Y176.90 E145.19187
G1 X120.16 Y177.03 E145.21914
G1 X120.60 Y177.13 E145.24764
G1 X121.02 Y177.19 E145.27423
G1 X121.45 Y177.23 E145.30116
G1 X121.94 Y177.25 E145.33180
G1 X152.28 Y177.25 E147.22338
G1 X152.28 Y188.25 E147.90938
G1 X151.40 Y188.25 E147.96394
G1 X151.40 Y191.40 E148.16051
G1 X150.82 Y191.40 E148.19674
G1 X150.81 Y191.44 E148.19953
G1 X150.59 Y192.01 E148.23734
G1 X150.31 Y192.50 E148.27241
G1 X149.91 Y193.03 E148.31390
G1 X149.22 Y193.61 E148.37020
G1 X148.63 Y193.96 E148.41293
G1 X147.73 Y194.26 E148.47193
G1 X146.89 Y194.34 E148.52472
G1 X146.01 Y194.24 E148.57990
G1 X145.17 Y193.95 E148.63556
G1 X144.64 Y193.65 E148.67370
G1 X144.15 Y193.26 E148.71242
G1 X143.64 Y192.71 E148.75943
G1 X143.23 Y192.04 E148.80793
G1 X143.00 Y191.47 E148.84655
G1 X142.99 Y191.40 E148.85096
G1 X142.20 Y191.40 E148.89991
G1 X142.20 Y188.25 E149.09648
G1 X126.40 Y188.25 E150.08181
G1 X126.40 Y191.40 E150.27838
G1 X125.81 Y191.40 E150.31498
G1 X125.79 Y191.51 E150.32173
G1 X125.59 Y192.01 E150.35545
G1 X125.27 Y192.57 E150.39538
G1 X124.57 Y193.35 E150.46111
G1 X123.69 Y193.94 E150.52718
G1 X122.73 Y194.26 E150.59019
G1 X121.89 Y194.34 E150.64298
G1 X121.01 Y194.24 E150.69816
G1 X120.17 Y193.95 E150.75381
G1 X119.64 Y193.65 E150.79196
G1 X119.15 Y193.26 E150.83068
G1 X118.64 Y192.71 E150.87769
G1 X118.23 Y192.04 E150.92619
G1 X118.00 Y191.47 E150.96481
G1 X117.99 Y191.40 E150.96921
G1 X117.20 Y191.40 E151.01817
G1 X117.20 Y187.62 E151.25415
G1 X116.37 Y187.38 E151.30839
G1 X115.30 Y186.99 E151.37897
G1 X114.26 Y186.55 E151.44943
G1 X113.25 Y186.03 E151.52002
G1 X112.28 Y185.46 E151.59049
G1 X111.40 Y184.86 E151.65694
G1 X111.32 Y184.81 E151.66291
G1 X110.45 Y184.13 E151.73167
G1 X109.60 Y183.39 E151.80206
G1 X108.80 Y182.59 E151.87262
G1 X108.05 Y181.74 E151.94304
G1 X107.36 Y180.85 E152.01361
G1 X106.76 Y179.97 E152.07975
G1 X106.70 Y179.90 E152.08569
G1 X106.14 Y178.94 E152.15485
G1 X105.63 Y177.94 E152.22519
G1 X105.18 Y176.90 E152.29566
G1 X104.79 Y175.84 E152.36634
G1 X104.49 Y174.82 E152.43241
G1 X104.47 Y174.74 E152.43762
G1 X104.23 Y173.65 E152.50740
G1 X104.05 Y172.53 E152.57775
G1 X103.94 Y171.41 E152.64823
G1 X103.90 Y170.35 E152.71438
G1 X103.90 Y170.26 E152.71962
G1 X103.94 Y169.12 E152.79112
G1 X104.04 Y167.99 E152.86160
G1 X104.22 Y166.88 E152.93206
G1 X104.47 Y165.77 E153.00261
G1 X104.78 Y164.69 E153.07313
G1 X105.17 Y163.62 E153.14371
G1 X105.61 Y162.58 E153.21432
G1 X106.13 Y161.58 E153.28477
G1 X106.70 Y160.60 E153.35522
G1 X107.34 Y159.67 E153.42580
G1 X108.03 Y158.77 E153.49633
G1 X108.78 Y157.93 E153.56680
G1 X109.58 Y157.13 E153.63736
G1 X110.43 Y156.38 E153.70783
G1 X111.32 Y155.69 E153.77836
G1 X112.26 Y155.05 E153.84893
G1 X113.23 Y154.47 E153.91939
G1 X114.24 Y153.96 E153.98984
G1 X115.28 Y153.51 E154.06045
G1 X116.34 Y153.13 E154.13103
G1 X117.42 Y152.81 E154.20149
G1 X118.53 Y152.57 E154.27210
G1 X119.65 Y152.39 E154.34262
G1 X120.77 Y152.28 E154.41303
G1 X124.15 Y152.17 E154.62399
G0 F6000 X123.65 Y152.69
G1 F2700 X123.65 Y162.69 E155.24780
G1 X121.45 Y162.76 E155.38519
G1 X120.97 Y162.81 E155.41532
G1 X120.51 Y162.88 E155.44423
G1 X120.05 Y162.98 E155.47363
G1 X119.58 Y163.12 E155.50400
G1 X119.16 Y163.27 E155.53195
G1 X118.71 Y163.46 E155.56240
G1 X118.31 Y163.67 E155.59079
G1 X117.90 Y163.91 E155.62008
G1 X117.49 Y164.18 E155.65094
G1 X117.14 Y164.46 E155.67895
G1 X116.77 Y164.78 E155.70944
G1 X116.45 Y165.10 E155.73788
G1 X116.14 Y165.45 E155.76686
G1 X115.84 Y165.84 E155.79743
G1 X115.58 Y166.21 E155.82584
G1 X115.33 Y166.63 E155.85615
G1 X115.12 Y167.04 E155.88471
G1 X114.94 Y167.47 E155.91409
G1 X114.77 Y167.93 E155.94413
G1 X114.64 Y168.38 E155.97350
G1 X114.54 Y168.84 E156.00303
G1 X114.47 Y169.29 E156.03164
G1 X114.42 Y169.76 E156.06114
G1 X114.40 Y170.26 E156.09215
G1 X114.42 Y170.72 E156.12117
G1 X114.46 Y171.19 E156.15030
G1 X114.53 Y171.64 E156.17896
G1 X114.64 Y172.11 E156.20874
G1 X114.77 Y172.58 E156.23919
G1 X114.92 Y173.00 E156.26697
G1 X115.12 Y173.45 E156.29797
G1 X115.33 Y173.86 E156.32622
G1 X115.57 Y174.27 E156.35581
G1 X115.83 Y174.65 E156.38467
G1 X116.13 Y175.03 E156.41507
G1 X116.44 Y175.39 E156.44464
G1 X116.76 Y175.71 E156.47277
G1 X117.12 Y176.02 E156.50233
G1 X117.49 Y176.31 E156.53211
G1 X117.89 Y176.58 E156.56207
G1 X118.29 Y176.82 E156.59078
G1 X118.70 Y177.03 E156.61998
G1 X119.15 Y177.23 E156.65043
G1 X119.57 Y177.38 E156.67807
G1 X120.04 Y177.51 E156.70866
G1 X120.51 Y177.62 E156.73843
G1 X120.96 Y177.69 E156.76710
G1 X121.43 Y177.73 E156.79623
G1 X121.93 Y177.75 E156.82755
G1 X151.78 Y177.75 E158.68901
G1 X151.78 Y187.75 E159.31264
G1 X150.90 Y187.75 E159.36721
G1 X150.90 Y190.90 E159.56378
G1 X150.41 Y190.90 E159.59465
G1 X150.33 Y191.31 E159.62028
G1 X150.14 Y191.79 E159.65294
G1 X149.89 Y192.22 E159.68371
G1 X149.54 Y192.68 E159.71977
G1 X148.93 Y193.20 E159.77006
G1 X148.42 Y193.50 E159.80667
G1 X147.62 Y193.76 E159.85903
G1 X146.89 Y193.84 E159.90498
G1 X146.12 Y193.75 E159.95338
G1 X145.38 Y193.50 E160.00258
G1 X144.92 Y193.23 E160.03561
G1 X144.49 Y192.90 E160.06958
G1 X144.04 Y192.41 E160.11094
G1 X143.68 Y191.82 E160.15378
G1 X143.48 Y191.32 E160.18717
G1 X143.39 Y190.90 E160.21408
G1 X142.70 Y190.90 E160.25711
G1 X142.70 Y187.75 E160.45368
G1 X125.90 Y187.75 E161.50137
G1 X125.90 Y190.90 E161.69794
G1 X125.42 Y190.90 E161.72781
G1 X125.42 Y190.91 E161.72844
G1 X125.31 Y191.35 E161.75672
G1 X125.14 Y191.79 E161.78628
G1 X124.86 Y192.27 E161.82084
G1 X124.24 Y192.97 E161.87911
G1 X123.47 Y193.48 E161.93695
G1 X122.62 Y193.76 E161.99247
G1 X121.89 Y193.84 E162.03842
G1 X121.12 Y193.75 E162.08682
G1 X120.38 Y193.50 E162.13602
G1 X119.92 Y193.23 E162.16905
G1 X119.49 Y192.90 E162.20302
G1 X119.04 Y192.41 E162.24438
G1 X118.68 Y191.82 E162.28722
G1 X118.48 Y191.32 E162.32061
G1 X118.39 Y190.90 E162.34752
G1 X117.70 Y190.90 E162.39055
G1 X117.70 Y187.23 E162.61923
G1 X117.66 Y187.22 E162.62191
G1 X117.56 Y187.20 E162.62828
G1 X116.52 Y186.90 E162.69582
G1 X115.48 Y186.53 E162.76447
G1 X114.47 Y186.09 E162.83297
G1 X113.49 Y185.60 E162.90161
G1 X112.55 Y185.04 E162.97012
G1 X111.68 Y184.45 E163.03550
G1 X111.61 Y184.41 E163.04043
G1 X110.77 Y183.75 E163.10728
G1 X109.94 Y183.02 E163.17578
G1 X109.16 Y182.25 E163.24439
G1 X108.44 Y181.42 E163.31287
G1 X107.76 Y180.56 E163.38143
G1 X107.17 Y179.69 E163.44664
G1 X107.13 Y179.63 E163.45154
G1 X106.58 Y178.70 E163.51875
G1 X106.08 Y177.72 E163.58719
G1 X105.64 Y176.72 E163.65568
G1 X105.27 Y175.68 E163.72436
G1 X104.97 Y174.68 E163.78947
G1 X104.95 Y174.61 E163.79385
G1 X104.72 Y173.55 E163.86151
G1 X104.54 Y172.47 E163.92997
G1 X104.44 Y171.37 E163.99850
G1 X104.40 Y170.33 E164.06365
G1 X104.40 Y170.26 E164.06802
G1 X104.44 Y169.15 E164.13740
G1 X104.54 Y168.05 E164.20593
G1 X104.71 Y166.97 E164.27443
G1 X104.95 Y165.90 E164.34294
G1 X105.26 Y164.84 E164.41158
G1 X105.63 Y163.81 E164.48011
G1 X106.07 Y162.80 E164.54874
G1 X106.57 Y161.82 E164.61729
G1 X107.12 Y160.87 E164.68579
G1 X107.74 Y159.96 E164.75437
G1 X108.42 Y159.09 E164.82295
G1 X109.14 Y158.27 E164.89148
G1 X109.92 Y157.49 E164.96010
G1 X110.75 Y156.76 E165.02862
G1 X111.62 Y156.09 E165.09721
G1 X112.53 Y155.47 E165.16579
G1 X113.47 Y154.91 E165.23428
G1 X114.45 Y154.41 E165.30284
G1 X115.46 Y153.98 E165.37147
G1 X116.49 Y153.60 E165.44000
G1 X117.55 Y153.30 E165.50858
G1 X118.62 Y153.06 E165.57715
G1 X119.71 Y152.89 E165.64571
G1 X120.80 Y152.78 E165.71417
G1 X123.65 Y152.69 E165.89200
G0 F6000 X123.15 Y153.21
G1 F2700 X123.15 Y162.21 E166.45339
G1 X121.42 Y162.26 E166.56140
G1 X120.91 Y162.31 E166.59339
G1 X120.42 Y162.39 E166.62452
G1 X119.92 Y162.50 E166.65622
G1 X119.45 Y162.63 E166.68685
G1 X118.97 Y162.81 E166.71884
G1 X118.51 Y163.00 E166.74968
G1 X118.05 Y163.24 E166.78198
G1 X117.63 Y163.49 E166.81236
G1 X117.22 Y163.77 E166.84352
G1 X116.81 Y164.08 E166.87597
G1 X116.44 Y164.41 E166.90629
G1 X116.07 Y164.77 E166.93857
G1 X115.75 Y165.13 E166.96878
G1 X115.44 Y165.54 E167.00101
G1 X115.16 Y165.95 E167.03183
G1 X114.90 Y166.38 E167.06337
G1 X114.67 Y166.83 E167.09458
G1 X114.47 Y167.30 E167.12647
G1 X114.30 Y167.76 E167.15691
G1 X114.16 Y168.25 E167.18894
G1 X114.05 Y168.73 E167.21944
G1 X113.97 Y169.25 E167.25215
G1 X113.92 Y169.73 E167.28259
G1 X113.90 Y170.26 E167.31585
G1 X113.92 Y170.74 E167.34536
G1 X113.97 Y171.25 E167.37750
G1 X114.05 Y171.75 E167.40913
G1 X114.16 Y172.25 E167.44064
G1 X114.29 Y172.72 E167.47115
G1 X114.47 Y173.19 E167.50291
G1 X114.66 Y173.65 E167.53383
G1 X114.89 Y174.10 E167.56560
G1 X115.15 Y174.53 E167.59691
G1 X115.43 Y174.95 E167.62843
G1 X115.74 Y175.35 E167.65990
G1 X116.07 Y175.72 E167.69056
G1 X116.43 Y176.08 E167.72258
G1 X116.80 Y176.41 E167.75324
G1 X117.20 Y176.72 E167.78498
G1 X117.61 Y177.00 E167.81584
G1 X118.05 Y177.26 E167.84760
G1 X118.50 Y177.49 E167.87937
G1 X118.96 Y177.69 E167.91023
G1 X119.44 Y177.86 E167.94199
G1 X119.91 Y178.00 E167.97250
G1 X120.40 Y178.10 E168.00400
G1 X120.90 Y178.19 E168.03564
G1 X121.41 Y178.23 E168.06771
G1 X121.91 Y178.25 E168.09891
G1 X151.28 Y178.25 E169.93019
G1 X151.28 Y187.25 E170.49146
G1 X150.40 Y187.25 E170.54603
G1 X150.40 Y190.40 E170.74259
G1 X149.98 Y190.40 E170.76903
G1 X149.98 Y190.47 E170.77359
G1 X149.85 Y191.16 E170.81737
G1 X149.68 Y191.57 E170.84499
G1 X149.48 Y191.94 E170.87146
G1 X149.18 Y192.33 E170.90205
G1 X148.64 Y192.79 E170.94628
G1 X148.22 Y193.04 E170.97677
G1 X147.52 Y193.27 E171.02254
G1 X146.89 Y193.34 E171.06173
G1 X146.23 Y193.26 E171.10328
G1 X145.58 Y193.04 E171.14602
G1 X145.20 Y192.81 E171.17394
G1 X144.83 Y192.53 E171.20319
G1 X144.44 Y192.11 E171.23876
G1 X144.13 Y191.59 E171.27607
G1 X143.96 Y191.18 E171.30414
G1 X143.86 Y190.71 E171.33392
G1 X143.83 Y190.44 E171.35097
G1 X143.83 Y190.40 E171.35334
G1 X143.20 Y190.40 E171.39226
G1 X143.20 Y187.25 E171.58882
G1 X125.40 Y187.25 E172.69888
G1 X125.40 Y190.40 E172.89545
G1 X124.98 Y190.40 E172.92183
G1 X124.98 Y190.44 E172.92407
G1 X124.93 Y190.82 E172.94810
G1 X124.83 Y191.20 E172.97239
G1 X124.68 Y191.57 E172.99777
G1 X124.45 Y191.98 E173.02695
G1 X123.91 Y192.59 E173.07775
G1 X123.25 Y193.03 E173.12736
G1 X122.52 Y193.27 E173.17538
G1 X121.89 Y193.34 E173.21456
G1 X121.23 Y193.26 E173.25612
G1 X120.58 Y193.04 E173.29886
G1 X120.20 Y192.81 E173.32677
G1 X119.83 Y192.53 E173.35603
G1 X119.44 Y192.11 E173.39160
G1 X119.13 Y191.59 E173.42890
G1 X118.96 Y191.18 E173.45698
G1 X118.86 Y190.71 E173.48676
G1 X118.83 Y190.44 E173.50381
G1 X118.83 Y190.40 E173.50618
G1 X118.20 Y190.40 E173.54509
G1 X118.20 Y186.83 E173.76754
G1 X117.78 Y186.74 E173.79482
G1 X117.69 Y186.72 E173.80024
G1 X116.67 Y186.43 E173.86622
G1 X115.67 Y186.06 E173.93290
G1 X114.69 Y185.64 E173.99947
G1 X113.73 Y185.16 E174.06607
G1 X112.81 Y184.62 E174.13266
G1 X111.96 Y184.04 E174.19706
G1 X111.91 Y184.00 E174.20097
G1 X111.09 Y183.36 E174.26590
G1 X110.28 Y182.66 E174.33245
G1 X109.53 Y181.90 E174.39908
G1 X108.82 Y181.10 E174.46561
G1 X108.17 Y180.26 E174.53222
G1 X107.58 Y179.41 E174.59648
G1 X107.55 Y179.36 E174.60039
G1 X107.02 Y178.46 E174.66559
G1 X106.53 Y177.51 E174.73208
G1 X106.11 Y176.53 E174.79864
G1 X105.74 Y175.53 E174.86536
G1 X105.45 Y174.54 E174.92948
G1 X105.44 Y174.48 E174.93307
G1 X105.21 Y173.46 E174.99855
G1 X105.04 Y172.41 E175.06505
G1 X104.94 Y171.34 E175.13165
G1 X104.90 Y170.33 E175.19505
G1 X104.90 Y170.26 E175.19936
G1 X104.94 Y169.18 E175.26655
G1 X105.04 Y168.12 E175.33314
G1 X105.20 Y167.06 E175.39968
G1 X105.44 Y166.02 E175.46629
G1 X105.73 Y165.00 E175.53291
G1 X106.09 Y163.99 E175.59951
G1 X106.52 Y163.01 E175.66618
G1 X107.00 Y162.06 E175.73276
G1 X107.55 Y161.14 E175.79932
G1 X108.15 Y160.26 E175.86590
G1 X108.80 Y159.41 E175.93252
G1 X109.51 Y158.61 E175.99911
G1 X110.27 Y157.85 E176.06579
G1 X111.07 Y157.15 E176.13237
G1 X111.91 Y156.49 E176.19900
G1 X112.79 Y155.89 E176.26557
G1 X113.71 Y155.35 E176.33214
G1 X114.66 Y154.87 E176.39872
G1 X115.64 Y154.44 E176.46539
G1 X116.65 Y154.08 E176.53198
G1 X117.67 Y153.78 E176.59855
G1 X118.72 Y153.55 E176.66521
G1 X119.77 Y153.38 E176.73181
G1 X120.83 Y153.28 E176.79834
G1 X123.15 Y153.21 E176.94297
G0 F6000 X122.65 Y153.72
G1 F2700 X122.65 Y161.72 E177.44200
G1 X121.38 Y161.76 E177.52161
G1 X120.85 Y161.81 E177.55468
G1 X120.33 Y161.90 E177.58769
G1 X119.81 Y162.01 E177.62086
G1 X119.28 Y162.16 E177.65493
G1 X118.79 Y162.34 E177.68745
G1 X118.30 Y162.55 E177.72089
G1 X117.81 Y162.80 E177.75480
G1 X117.36 Y163.06 E177.78737
G1 X116.92 Y163.37 E177.82113
G1 X116.50 Y163.69 E177.85399
G1 X116.09 Y164.04 E177.88762
G1 X115.72 Y164.42 E177.92087
G1 X115.36 Y164.82 E177.95383
G1 X115.03 Y165.25 E177.98818
G1 X114.74 Y165.68 E178.02035
G1 X114.46 Y166.15 E178.05458
G1 X114.22 Y166.61 E178.08662
G1 X114.00 Y167.11 E178.12106
G1 X113.83 Y167.60 E178.15361
G1 X113.67 Y168.12 E178.18688
G1 X113.56 Y168.65 E178.22063
G1 X113.47 Y169.17 E178.25353
G1 X113.42 Y169.70 E178.28705
G1 X113.40 Y170.25 E178.32155
G1 X113.42 Y170.78 E178.35462
G1 X113.47 Y171.31 E178.38757
G1 X113.55 Y171.84 E178.42116
G1 X113.67 Y172.37 E178.45484
G1 X113.82 Y172.87 E178.48712
G1 X114.00 Y173.38 E178.52153
G1 X114.21 Y173.86 E178.55365
G1 X114.46 Y174.35 E178.58843
G1 X114.72 Y174.80 E178.62053
G1 X115.02 Y175.24 E178.65370
G1 X115.36 Y175.67 E178.68771
G1 X115.72 Y176.08 E178.72164
G1 X116.07 Y176.44 E178.75330
G1 X116.48 Y176.80 E178.78723
G1 X116.91 Y177.13 E178.82092
G1 X117.36 Y177.43 E178.85460
G1 X117.80 Y177.69 E178.88692
G1 X118.29 Y177.94 E178.92087
G1 X118.77 Y178.15 E178.95341
G1 X119.28 Y178.34 E178.98781
G1 X119.78 Y178.48 E179.02010
G1 X120.31 Y178.60 E179.05378
G1 X120.83 Y178.68 E179.08698
G1 X121.37 Y178.73 E179.12025
G1 X121.93 Y178.75 E179.15525
G1 X150.78 Y178.75 E180.95441
G1 X150.78 Y186.75 E181.45332
G1 X149.90 Y186.75 E181.50788
G1 X149.90 Y189.90 E181.70445
G1 X149.45 Y189.90 E181.73239
G1 X149.48 Y190.09 E181.74427
G1 X149.48 Y190.25 E181.75412
G1 X149.48 Y190.43 E181.76541
G1 X149.37 Y191.02 E181.80312
G1 X149.23 Y191.36 E181.82568
G1 X149.06 Y191.67 E181.84779
G1 X148.81 Y191.99 E181.87292
G1 X148.35 Y192.39 E181.91113
G1 X148.01 Y192.58 E181.93553
G1 X147.41 Y192.78 E181.97463
G1 X146.90 Y192.83 E182.00704
G1 X146.34 Y192.77 E182.04181
G1 X145.79 Y192.58 E182.07810
G1 X145.48 Y192.40 E182.10093
G1 X145.16 Y192.16 E182.12547
G1 X144.84 Y191.80 E182.15530
G1 X144.58 Y191.37 E182.18693
G1 X144.44 Y191.03 E182.20977
G1 X144.35 Y190.62 E182.23566
G1 X144.33 Y190.41 E182.24931
G1 X144.33 Y190.25 E182.25922
G1 X144.33 Y190.09 E182.26914
G1 X144.35 Y189.90 E182.28102
G1 X143.70 Y189.90 E182.32149
G1 X143.70 Y186.75 E182.51806
G1 X124.90 Y186.75 E183.69048
G1 X124.90 Y189.90 E183.88705
G1 X124.45 Y189.90 E183.91499
G1 X124.48 Y190.09 E183.92687
G1 X124.48 Y190.25 E183.93672
G1 X124.48 Y190.41 E183.94664
G1 X124.44 Y190.73 E183.96669
G1 X124.36 Y191.04 E183.98707
G1 X124.23 Y191.36 E184.00828
G1 X124.05 Y191.69 E184.03205
G1 X123.58 Y192.21 E184.07542
G1 X123.03 Y192.58 E184.11683
G1 X122.41 Y192.78 E184.15724
G1 X121.90 Y192.83 E184.18965
G1 X121.34 Y192.77 E184.22442
G1 X120.79 Y192.58 E184.26071
G1 X120.48 Y192.40 E184.28354
G1 X120.17 Y192.16 E184.30807
G1 X119.84 Y191.80 E184.33791
G1 X119.58 Y191.37 E184.36954
G1 X119.44 Y191.03 E184.39238
G1 X119.36 Y190.62 E184.41827
G1 X119.33 Y190.41 E184.43192
G1 X119.33 Y190.25 E184.44183
G1 X119.33 Y190.09 E184.45175
G1 X119.35 Y189.90 E184.46363
G1 X118.70 Y189.90 E184.50410
G1 X118.70 Y186.43 E184.72038
G1 X117.89 Y186.25 E184.77226
G1 X117.82 Y186.23 E184.77676
G1 X116.83 Y185.95 E184.84119
G1 X115.85 Y185.60 E184.90587
G1 X114.90 Y185.19 E184.97043
G1 X113.97 Y184.72 E185.03514
G1 X113.08 Y184.19 E185.09977
G1 X112.24 Y183.62 E185.16304
G1 X112.20 Y183.60 E185.16600
G1 X111.40 Y182.98 E185.22907
G1 X110.63 Y182.29 E185.29363
G1 X109.89 Y181.56 E185.35832
G1 X109.21 Y180.78 E185.42291
G1 X108.57 Y179.97 E185.48757
G1 X108.00 Y179.13 E185.55079
G1 X107.97 Y179.09 E185.55372
G1 X107.46 Y178.22 E185.61692
G1 X106.98 Y177.30 E185.68152
G1 X106.57 Y176.35 E185.74612
G1 X106.22 Y175.37 E185.81085
G1 X105.93 Y174.40 E185.87400
G1 X105.92 Y174.36 E185.87674
G1 X105.70 Y173.36 E185.94012
G1 X105.54 Y172.34 E186.00472
G1 X105.44 Y171.31 E186.06932
G1 X105.40 Y170.30 E186.13253
G1 X105.40 Y170.30 E186.13259
G1 X105.40 Y170.25 E186.13528
G1 X105.43 Y169.21 E186.20029
G1 X105.53 Y168.18 E186.26495
G1 X105.69 Y167.16 E186.32953
G1 X105.92 Y166.15 E186.39419
G1 X106.21 Y165.15 E186.45887
G1 X106.56 Y164.17 E186.52349
G1 X106.97 Y163.22 E186.58818
G1 X107.44 Y162.30 E186.65283
G1 X107.97 Y161.41 E186.71741
G1 X108.55 Y160.55 E186.78205
G1 X109.19 Y159.73 E186.84672
G1 X109.87 Y158.95 E186.91136
G1 X110.61 Y158.22 E186.97601
G1 X111.39 Y157.53 E187.04065
G1 X112.20 Y156.90 E187.10532
G1 X113.06 Y156.32 E187.16996
G1 X113.95 Y155.79 E187.23454
G1 X114.88 Y155.32 E187.29919
G1 X115.83 Y154.91 E187.36388
G1 X116.80 Y154.56 E187.42850
G1 X117.80 Y154.27 E187.49312
G1 X118.81 Y154.04 E187.55785
G1 X119.83 Y153.88 E187.62243
G1 X120.87 Y153.78 E187.68708
G1 X122.65 Y153.72 E187.79852
G0 F6000 X122.15 Y154.24
G1 F2700 X122.15 Y161.24 E188.23505
G1 X121.35 Y161.27 E188.28516
G1 X120.79 Y161.32 E188.32029
G1 X120.23 Y161.41 E188.35545
G1 X119.67 Y161.53 E188.39124
G1 X119.13 Y161.69 E188.42627
G1 X118.61 Y161.87 E188.46087
G1 X118.08 Y162.10 E188.49708
G1 X117.57 Y162.36 E188.53233
G1 X117.09 Y162.64 E188.56694
G1 X116.63 Y162.96 E188.60188
G1 X116.17 Y163.31 E188.63771
G1 X115.75 Y163.68 E188.67337
G1 X115.36 Y164.07 E188.70768
G1 X114.98 Y164.50 E188.74324
G1 X114.63 Y164.95 E188.77907
G1 X114.31 Y165.41 E188.81344
G1 X114.02 Y165.91 E188.84971
G1 X113.76 Y166.41 E188.88482
G1 X113.54 Y166.92 E188.91965
G1 X113.35 Y167.45 E188.95447
G1 X113.19 Y167.99 E188.98975
G1 X113.06 Y168.56 E189.02594
G1 X112.98 Y169.10 E189.06022
G1 X112.92 Y169.68 E189.09650
G1 X112.90 Y170.26 E189.13294
G1 X112.92 Y170.81 E189.16688
G1 X112.97 Y171.38 E189.20264
G1 X113.06 Y171.93 E189.23737
G1 X113.19 Y172.49 E189.27329
G1 X113.34 Y173.03 E189.30848
G1 X113.54 Y173.57 E189.34408
G1 X113.76 Y174.07 E189.37847
G1 X114.02 Y174.59 E189.41447
G1 X114.30 Y175.06 E189.44892
G1 X114.62 Y175.54 E189.48497
G1 X114.97 Y175.99 E189.52008
G1 X115.34 Y176.40 E189.55473
G1 X115.74 Y176.81 E189.59062
G1 X116.16 Y177.18 E189.62562
G1 X116.62 Y177.53 E189.66131
G1 X117.08 Y177.85 E189.69642
G1 X117.56 Y178.13 E189.73103
G1 X118.08 Y178.40 E189.76729
G1 X118.58 Y178.61 E189.80156
G1 X119.12 Y178.81 E189.83722
G1 X119.66 Y178.97 E189.87241
G1 X120.22 Y179.09 E189.90788
G1 X120.77 Y179.18 E189.94305
G1 X121.34 Y179.23 E189.97825
G1 X121.91 Y179.25 E190.01407
G1 X150.28 Y179.25 E191.78311
G1 X150.28 Y186.25 E192.21965
G1 X149.40 Y186.25 E192.27422
G1 X149.40 Y189.40 E192.47079
G1 X148.80 Y189.40 E192.50851
G1 X148.94 Y189.85 E192.53827
G1 X148.98 Y190.12 E192.55494
G1 X148.98 Y190.24 E192.56261
G1 X148.98 Y190.38 E192.57140
G1 X148.88 Y190.88 E192.60301
G1 X148.78 Y191.14 E192.62047
G1 X148.64 Y191.39 E192.63828
G1 X148.45 Y191.64 E192.65798
G1 X148.06 Y191.98 E192.69013
G1 X147.80 Y192.12 E192.70846
G1 X147.31 Y192.29 E192.74092
G1 X146.90 Y192.33 E192.76650
G1 X146.45 Y192.28 E192.79450
G1 X146.00 Y192.12 E192.82432
G1 X145.76 Y191.98 E192.84203
G1 X145.50 Y191.79 E192.86181
G1 X145.24 Y191.50 E192.88600
G1 X145.03 Y191.15 E192.91197
G1 X144.92 Y190.88 E192.92951
G1 X144.85 Y190.54 E192.95152
G1 X144.83 Y190.38 E192.96177
G1 X144.83 Y190.25 E192.96944
G1 X144.83 Y190.12 E192.97780
G1 X144.86 Y189.86 E192.99389
G1 X144.92 Y189.61 E193.01032
G1 X145.01 Y189.40 E193.02425
G1 X144.20 Y189.40 E193.07439
G1 X144.20 Y186.25 E193.27096
G1 X124.40 Y186.25 E194.50574
G1 X124.40 Y189.40 E194.70231
G1 X123.80 Y189.40 E194.74004
G1 X123.94 Y189.85 E194.76980
G1 X123.98 Y190.12 E194.78646
G1 X123.98 Y190.24 E194.79413
G1 X123.98 Y190.38 E194.80249
G1 X123.94 Y190.63 E194.81858
G1 X123.88 Y190.89 E194.83504
G1 X123.78 Y191.14 E194.85203
G1 X123.64 Y191.40 E194.87040
G1 X123.25 Y191.83 E194.90636
G1 X122.81 Y192.12 E194.93953
G1 X122.31 Y192.29 E194.97245
G1 X121.90 Y192.33 E194.99802
G1 X121.45 Y192.28 E195.02602
G1 X121.00 Y192.12 E195.05584
G1 X120.76 Y191.98 E195.07355
G1 X120.50 Y191.79 E195.09334
G1 X120.24 Y191.50 E195.11752
G1 X120.03 Y191.15 E195.14349
G1 X119.92 Y190.88 E195.16104
G1 X119.85 Y190.54 E195.18304
G1 X119.83 Y190.38 E195.19329
G1 X119.83 Y190.25 E195.20096
G1 X119.83 Y190.12 E195.20932
G1 X119.86 Y189.86 E195.22541
G1 X119.92 Y189.61 E195.24184
G1 X120.01 Y189.40 E195.25577
G1 X119.20 Y189.40 E195.30591
G1 X119.20 Y186.01 E195.51720
G1 X118.90 Y185.97 E195.53601
G1 X118.00 Y185.76 E195.59346
G1 X117.95 Y185.75 E195.59700
G1 X116.98 Y185.47 E195.65987
G1 X116.03 Y185.13 E195.72261
G1 X115.11 Y184.74 E195.78522
G1 X114.22 Y184.28 E195.84791
G1 X113.35 Y183.77 E195.91064
G1 X112.52 Y183.21 E195.97284
G1 X112.50 Y183.19 E195.97476
G1 X111.72 Y182.59 E196.03592
G1 X110.97 Y181.93 E196.09859
G1 X110.26 Y181.22 E196.16134
G1 X109.59 Y180.47 E196.22394
G1 X108.97 Y179.67 E196.28669
G1 X108.39 Y178.82 E196.35086
G1 X107.89 Y177.98 E196.41206
G1 X107.44 Y177.08 E196.47476
G1 X107.04 Y176.16 E196.53738
G1 X106.69 Y175.22 E196.60013
G1 X106.41 Y174.26 E196.66229
G1 X106.41 Y174.23 E196.66419
G1 X106.19 Y173.27 E196.72546
G1 X106.03 Y172.28 E196.78811
G1 X105.94 Y171.28 E196.85083
G1 X105.90 Y170.28 E196.91304
G1 X105.90 Y170.25 E196.91485
G1 X105.93 Y169.24 E196.97774
G1 X106.03 Y168.24 E197.04039
G1 X106.19 Y167.25 E197.10307
G1 X106.41 Y166.27 E197.16571
G1 X106.69 Y165.30 E197.22843
G1 X107.03 Y164.36 E197.29112
G1 X107.42 Y163.44 E197.35385
G1 X107.88 Y162.54 E197.41652
G1 X108.39 Y161.68 E197.47918
G1 X108.96 Y160.84 E197.54184
G1 X109.57 Y160.05 E197.60451
G1 X110.24 Y159.30 E197.66721
G1 X110.95 Y158.59 E197.72992
G1 X111.70 Y157.92 E197.79261
G1 X112.50 Y157.30 E197.85529
G1 X113.33 Y156.74 E197.91795
G1 X114.19 Y156.23 E197.98061
G1 X115.09 Y155.77 E198.04328
G1 X116.01 Y155.37 E198.10601
G1 X116.96 Y155.03 E198.16870
G1 X117.92 Y154.75 E198.23136
G1 X118.90 Y154.53 E198.29406
G1 X119.90 Y154.38 E198.35674
G1 X120.90 Y154.28 E198.41939
G1 X122.15 Y154.24 E198.49769
G0 F6000 X119.54 Y151.40
G1 F2700 X119.08 Y151.13 E198.53081
G1 X118.47 Y150.66 E198.57891
G1 X117.83 Y149.97 E198.63739
G1 X117.37 Y149.20 E198.69325
G1 X116.20 Y149.20 E198.76590
G1 X116.20 Y145.02 E199.02646
G1 X116.06 Y144.98 E199.03567
G1 X114.93 Y144.58 E199.11028
G1 X113.84 Y144.11 E199.18470
G1 X112.77 Y143.56 E199.25919
G1 X111.74 Y142.96 E199.33366
G1 X110.83 Y142.34 E199.40218
G1 X110.73 Y142.27 E199.41003
G1 X109.81 Y141.56 E199.48249
G1 X108.92 Y140.77 E199.55681
G1 X108.07 Y139.93 E199.63134
G1 X107.28 Y139.03 E199.70574
G1 X106.55 Y138.09 E199.78013
G1 X105.93 Y137.19 E199.84829
G1 X105.86 Y137.09 E199.85623
G1 X105.26 Y136.08 E199.92932
G1 X104.72 Y135.02 E200.00356
G1 X104.25 Y133.92 E200.07794
G1 X103.84 Y132.80 E200.15249
G1 X103.53 Y131.75 E200.22051
G1 X103.50 Y131.65 E200.22742
G1 X103.24 Y130.49 E200.30154
G1 X103.06 Y129.31 E200.37580
G1 X102.94 Y128.12 E200.45017
G1 X102.91 Y127.03 E200.51825
G1 X102.90 Y126.92 E200.52518
G1 X102.94 Y125.71 E200.60092
G1 X103.05 Y124.52 E200.67534
G1 X103.24 Y123.34 E200.74965
G1 X103.50 Y122.17 E200.82423
G1 X103.83 Y121.03 E200.89864
G1 X104.23 Y119.91 E200.97308
G1 X104.71 Y118.81 E201.04763
G1 X105.25 Y117.75 E201.12199
G1 X105.86 Y116.72 E201.19630
G1 X106.53 Y115.73 E201.27087
G1 X107.26 Y114.79 E201.34532
G1 X108.05 Y113.89 E201.41972
G1 X108.89 Y113.05 E201.49416
G1 X109.79 Y112.26 E201.56856
G1 X110.73 Y111.53 E201.64301
G1 X111.72 Y110.86 E201.71744
G1 X112.75 Y110.25 E201.79192
G1 X113.81 Y109.71 E201.86633
G1 X114.91 Y109.23 E201.94080
G1 X116.03 Y108.83 E202.01525
G1 X117.18 Y108.50 E202.08966
G1 X118.34 Y108.24 E202.16411
G1 X119.52 Y108.05 E202.23855
G1 X120.71 Y107.94 E202.31303
G1 X125.15 Y107.80 E202.59025
G1 X125.15 Y120.80 E203.40102
G1 X121.53 Y120.91 E203.62670
G1 X121.17 Y120.95 E203.64981
G1 X120.78 Y121.01 E203.67411
G1 X120.43 Y121.09 E203.69679
G1 X120.06 Y121.19 E203.72030
G1 X119.70 Y121.32 E203.74440
G1 X119.35 Y121.47 E203.76798
G1 X119.02 Y121.64 E203.79132
G1 X118.69 Y121.83 E203.81486
G1 X118.39 Y122.04 E203.83749
G1 X118.08 Y122.28 E203.86199
G1 X117.80 Y122.52 E203.88532
G1 X117.54 Y122.79 E203.90847
G1 X117.29 Y123.07 E203.93228
G1 X117.06 Y123.37 E203.95574
G1 X116.84 Y123.68 E203.97934
G1 X116.66 Y124.00 E204.00210
G1 X116.48 Y124.34 E204.02645
G1 X116.33 Y124.69 E204.04977
G1 X116.20 Y125.03 E204.07293
G1 X116.09 Y125.41 E204.09703
G1 X116.01 Y125.77 E204.12011
G1 X115.95 Y126.14 E204.14391
G1 X115.92 Y126.51 E204.16690
G1 X115.90 Y126.91 E204.19205
G1 X115.92 Y127.27 E204.21445
G1 X115.95 Y127.66 E204.23837
G1 X116.01 Y128.03 E204.26230
G1 X116.09 Y128.39 E204.28493
G1 X116.20 Y128.75 E204.30870
G1 X116.32 Y129.11 E204.33209
G1 X116.47 Y129.45 E204.35541
G1 X116.65 Y129.80 E204.37996
G1 X116.83 Y130.11 E204.40235
G1 X117.05 Y130.43 E204.42627
G1 X117.28 Y130.72 E204.44979
G1 X117.53 Y131.01 E204.47347
G1 X117.79 Y131.27 E204.49649
G1 X118.09 Y131.53 E204.52084
G1 X118.38 Y131.75 E204.54373
G1 X118.67 Y131.96 E204.56621
G1 X119.01 Y132.16 E204.59085
G1 X119.36 Y132.33 E204.61491
G1 X119.69 Y132.48 E204.63754
G1 X120.05 Y132.61 E204.66161
G1 X120.40 Y132.71 E204.68408
G1 X120.78 Y132.79 E204.70842
G1 X121.16 Y132.85 E204.73228
G1 X121.53 Y132.89 E204.75527
G1 X121.94 Y132.90 E204.78098
G1 X152.22 Y132.90 E206.66964
G1 X152.19 Y132.80 E206.67626
G1 X151.88 Y131.75 E206.74441
G1 X151.85 Y131.65 E206.75131
G1 X151.59 Y130.49 E206.82544
G1 X151.40 Y129.31 E206.89977
G1 X151.29 Y128.12 E206.97413
G1 X151.25 Y127.03 E207.04214
G1 X151.25 Y126.92 E207.04907
G1 X151.29 Y125.71 E207.12475
G1 X151.40 Y124.52 E207.19923
G1 X151.59 Y123.34 E207.27355
G1 X151.84 Y122.18 E207.34798
G1 X152.18 Y121.03 E207.42260
G1 X152.58 Y119.91 E207.49705
G1 X153.06 Y118.81 E207.57146
G1 X153.60 Y117.75 E207.64579
G1 X154.21 Y116.72 E207.72032
G1 X154.88 Y115.73 E207.79479
G1 X155.61 Y114.79 E207.86911
G1 X156.40 Y113.89 E207.94360
G1 X157.24 Y113.05 E208.01804
G1 X158.14 Y112.26 E208.09244
G1 X159.08 Y111.53 E208.16689
G1 X160.07 Y110.86 E208.24132
G1 X161.09 Y110.25 E208.31580
G1 X162.16 Y109.71 E208.39027
G1 X163.25 Y109.23 E208.46474
G1 X164.38 Y108.83 E208.53913
G1 X165.52 Y108.50 E208.61359
G1 X166.69 Y108.24 E208.68798
G1 X167.87 Y108.05 E208.76249
G1 X169.06 Y107.94 E208.83697
G1 X173.50 Y107.80 E209.11418
G1 X173.50 Y120.80 E209.92496
G1 X169.88 Y120.91 E210.15076
G1 X169.51 Y120.95 E210.17375
G1 X169.13 Y121.01 E210.19811
G1 X168.77 Y121.09 E210.22079
G1 X168.41 Y121.19 E210.24430
G1 X168.05 Y121.32 E210.26840
G1 X167.70 Y121.47 E210.29198
G1 X167.37 Y121.64 E210.31532
G1 X167.04 Y121.83 E210.33886
G1 X166.74 Y122.04 E210.36149
G1 X166.43 Y122.28 E210.38598
G1 X166.15 Y122.52 E210.40923
G1 X165.88 Y122.79 E210.43269
G1 X165.63 Y123.07 E210.45614
G1 X165.40 Y123.37 E210.47974
G1 X165.19 Y123.67 E210.50268
G1 X164.99 Y124.01 E210.52743
G1 X164.83 Y124.33 E210.54968
G1 X164.68 Y124.69 E210.57376
G1 X164.55 Y125.03 E210.59692
G1 X164.44 Y125.41 E210.62102
G1 X164.36 Y125.77 E210.64410
G1 X164.30 Y126.14 E210.66790
G1 X164.26 Y126.51 E210.69089
G1 X164.25 Y126.92 E210.71654
G1 X164.26 Y127.27 E210.73837
G1 X164.30 Y127.66 E210.76236
G1 X164.36 Y128.03 E210.78629
G1 X164.44 Y128.39 E210.80892
G1 X164.54 Y128.75 E210.83268
G1 X164.67 Y129.11 E210.85608
G1 X164.82 Y129.46 E210.88007
G1 X164.99 Y129.78 E210.90255
G1 X165.19 Y130.12 E210.92701
G1 X165.40 Y130.43 E210.95026
G1 X165.63 Y130.73 E210.97391
G1 X165.88 Y131.01 E210.99715
G1 X166.14 Y131.27 E211.02065
G1 X166.43 Y131.53 E211.04482
G1 X166.72 Y131.75 E211.06771
G1 X167.02 Y131.96 E211.09020
G1 X167.36 Y132.16 E211.11483
G1 X167.71 Y132.33 E211.13890
G1 X168.04 Y132.48 E211.16153
G1 X168.40 Y132.61 E211.18559
G1 X168.75 Y132.71 E211.20807
G1 X169.13 Y132.79 E211.23240
G1 X169.51 Y132.85 E211.25640
G1 X169.87 Y132.89 E211.27926
G1 X170.29 Y132.90 E211.30503
G1 X201.62 Y132.90 E213.25942
G1 X201.62 Y145.90 E214.07013
G1 X200.80 Y145.90 E214.12146
G1 X200.80 Y149.20 E214.32726
G1 X199.78 Y149.20 E214.39111
G1 X199.50 Y149.70 E214.42711
G1 X199.03 Y150.31 E214.47464
G1 X198.40 Y150.91 E214.52913
G1 X197.45 Y151.51 E214.59904
G1 X196.29 Y151.89 E214.67512
G1 X195.23 Y152.00 E214.74140
G1 X194.13 Y151.88 E214.81032
G1 X193.09 Y151.52 E214.87889
G1 X192.42 Y151.13 E214.92752
G1 X191.81 Y150.65 E214.97560
G1 X191.18 Y149.97 E215.03360
G1 X190.71 Y149.20 E215.08970
G1 X189.40 Y149.20 E215.17152
G1 X189.40 Y145.90 E215.37732
G1 X175.80 Y145.90 E216.22545
G1 X175.80 Y149.20 E216.43125
G1 X174.78 Y149.20 E216.49511
G1 X174.50 Y149.70 E216.53110
G1 X173.98 Y150.37 E216.58353
G1 X173.15 Y151.08 E216.65190
G1 X173.03 Y151.16 E216.66084
G1 X173.50 Y151.14 E216.69042
G1 X173.50 Y164.15 E217.50145
G1 X169.88 Y164.26 E217.72725
G1 X169.51 Y164.29 E217.75024
G1 X169.13 Y164.35 E217.77460
G1 X168.77 Y164.43 E217.79728
G1 X168.41 Y164.54 E217.82078
G1 X168.05 Y164.67 E217.84489
G1 X167.70 Y164.82 E217.86827
G1 X167.37 Y164.99 E217.89133
G1 X167.03 Y165.19 E217.91602
G1 X166.74 Y165.38 E217.93797
G1 X166.43 Y165.62 E217.96246
G1 X166.15 Y165.87 E217.98571
G1 X165.88 Y166.14 E218.00917
G1 X165.63 Y166.42 E218.03262
G1 X165.40 Y166.72 E218.05622
G1 X165.19 Y167.02 E218.07916
G1 X164.99 Y167.36 E218.10391
G1 X164.83 Y167.68 E218.12616
G1 X164.68 Y168.03 E218.15024
G1 X164.55 Y168.38 E218.17340
G1 X164.44 Y168.75 E218.19750
G1 X164.36 Y169.11 E218.22058
G1 X164.30 Y169.49 E218.24451
G1 X164.26 Y169.86 E218.26731
G1 X164.25 Y170.27 E218.29308
G1 X164.26 Y170.62 E218.31486
G1 X164.30 Y171.00 E218.33884
G1 X164.36 Y171.38 E218.36277
G1 X164.44 Y171.74 E218.38540
G1 X164.54 Y172.10 E218.40891
G1 X164.67 Y172.46 E218.43298
G1 X164.82 Y172.79 E218.45560
G1 X165.00 Y173.15 E218.48065
G1 X165.18 Y173.46 E218.50287
G1 X165.40 Y173.78 E218.52685
G1 X165.63 Y174.07 E218.55045
G1 X165.88 Y174.35 E218.57369
G1 X166.14 Y174.62 E218.59719
G1 X166.43 Y174.87 E218.62070
G1 X166.73 Y175.10 E218.64461
G1 X167.02 Y175.30 E218.66670
G1 X167.36 Y175.50 E218.69133
G1 X167.71 Y175.68 E218.71540
G1 X168.04 Y175.82 E218.73802
G1 X168.40 Y175.96 E218.76209
G1 X168.76 Y176.06 E218.78560
G1 X169.12 Y176.14 E218.80823
G1 X169.50 Y176.20 E218.83216
G1 X169.88 Y176.24 E218.85614
G1 X170.29 Y176.25 E218.88210
G1 X201.62 Y176.25 E220.83593
G1 X201.62 Y189.25 E221.64664
G1 X200.80 Y189.25 E221.69797
G1 X200.80 Y192.40 E221.89453
G1 X199.85 Y192.40 E221.95359
G1 X199.84 Y192.44 E221.95622
G1 X199.50 Y193.05 E221.99995
G1 X199.03 Y193.66 E222.04748
G1 X198.40 Y194.25 E222.10197
G1 X197.45 Y194.85 E222.17188
G1 X196.29 Y195.24 E222.24796
G1 X195.23 Y195.35 E222.31424
G1 X194.13 Y195.22 E222.38316
G1 X193.09 Y194.87 E222.45173
G1 X192.42 Y194.47 E222.50036
G1 X191.81 Y194.00 E222.54845
G1 X191.18 Y193.31 E222.60645
G1 X190.62 Y192.40 E222.67315
G1 X190.62 Y192.40 E222.67329
G1 X189.40 Y192.40 E222.74950
G1 X189.40 Y189.25 E222.94607
G1 X175.80 Y189.25 E223.79420
G1 X175.80 Y192.40 E223.99077
G1 X174.85 Y192.40 E224.04983
G1 X174.84 Y192.44 E224.05245
G1 X174.50 Y193.05 E224.09618
G1 X173.98 Y193.72 E224.14861
G1 X173.15 Y194.43 E224.21698
G1 X172.39 Y194.88 E224.27187
G1 X171.29 Y195.24 E224.34413
G1 X170.23 Y195.35 E224.41040
G1 X169.13 Y195.22 E224.47933
G1 X168.09 Y194.87 E224.54790
G1 X167.42 Y194.47 E224.59652
G1 X166.81 Y194.00 E224.64461
G1 X166.18 Y193.31 E224.70261
G1 X165.62 Y192.40 E224.76932
G1 X165.62 Y192.40 E224.76946
G1 X164.40 Y192.40 E224.84567
G1 X164.40 Y188.33 E225.09967
G1 X163.28 Y187.93 E225.17390
G1 X162.19 Y187.46 E225.24827
G1 X161.12 Y186.91 E225.32288
G1 X160.09 Y186.31 E225.39726
G1 X159.18 Y185.69 E225.46583
G1 X159.08 Y185.62 E225.47377
G1 X158.16 Y184.91 E225.54627
G1 X157.26 Y184.12 E225.62050
G1 X156.42 Y183.28 E225.69503
G1 X155.63 Y182.38 E225.76952
G1 X154.90 Y181.44 E225.84378
G1 X154.28 Y180.54 E225.91176
G1 X154.21 Y180.43 E225.91992
G1 X153.61 Y179.42 E225.99306
G1 X153.28 Y178.77 E226.03885
G1 X153.28 Y189.25 E226.69241
G1 X152.40 Y189.25 E226.74698
G1 X152.40 Y192.40 E226.94355
G1 X151.51 Y192.40 E226.99930
G1 X151.49 Y192.44 E227.00193
G1 X151.15 Y193.05 E227.04566
G1 X150.63 Y193.72 E227.09808
G1 X149.80 Y194.43 E227.16646
G1 X149.04 Y194.88 E227.22135
G1 X147.94 Y195.24 E227.29361
G1 X146.88 Y195.35 E227.36000
G1 X145.79 Y195.22 E227.42886
G1 X144.75 Y194.87 E227.49738
G1 X144.08 Y194.48 E227.54578
G1 X143.47 Y194.00 E227.59388
G1 X142.83 Y193.31 E227.65236
G1 X142.34 Y192.49 E227.71214
G1 X142.30 Y192.40 E227.71838
G1 X141.20 Y192.40 E227.78673
G1 X141.20 Y189.25 E227.98329
G1 X127.40 Y189.25 E228.84390
G1 X127.40 Y192.40 E229.04047
G1 X126.51 Y192.40 E229.09622
G1 X126.49 Y192.44 E229.09885
G1 X126.09 Y193.15 E229.14964
G1 X125.23 Y194.12 E229.23021
G1 X124.13 Y194.85 E229.31280
G1 X122.94 Y195.24 E229.39078
G1 X121.88 Y195.35 E229.45718
G1 X120.79 Y195.22 E229.52604
G1 X119.75 Y194.87 E229.59455
G1 X119.08 Y194.48 E229.64295
G1 X118.47 Y194.00 E229.69105
G1 X117.83 Y193.31 E229.74954
G1 X117.33 Y192.49 E229.80931
G1 X117.30 Y192.40 E229.81555
G1 X116.20 Y192.40 E229.88390
G1 X116.20 Y188.37 E230.13529
G1 X116.06 Y188.33 E230.14462
G1 X114.93 Y187.93 E230.21911
G1 X113.84 Y187.45 E230.29350
G1 X112.77 Y186.91 E230.36803
G1 X111.75 Y186.31 E230.44241
G1 X110.83 Y185.69 E230.51098
G1 X110.73 Y185.62 E230.51892
G1 X109.81 Y184.91 E230.59142
G1 X108.92 Y184.12 E230.66565
G1 X108.07 Y183.28 E230.74018
G1 X107.28 Y182.38 E230.81458
G1 X106.55 Y181.44 E230.88897
G1 X105.93 Y180.54 E230.95713
G1 X105.86 Y180.43 E230.96507
G1 X105.26 Y179.42 E231.03816
G1 X104.72 Y178.37 E231.11234
G1 X104.25 Y177.27 E231.18672
G1 X103.84 Y176.15 E231.26133
G1 X103.53 Y175.10 E231.32936
G1 X103.50 Y174.99 E231.33626
G1 X103.24 Y173.83 E231.41038
G1 X103.06 Y172.66 E231.48452
G1 X102.94 Y171.47 E231.55895
G1 X102.91 Y170.38 E231.62703
G1 X102.90 Y170.27 E231.63396
G1 X102.94 Y169.05 E231.70977
G1 X103.05 Y167.87 E231.78419
G1 X103.24 Y166.69 E231.85856
G1 X103.50 Y165.52 E231.93301
G1 X103.83 Y164.38 E232.00742
G1 X104.23 Y163.25 E232.08193
G1 X104.71 Y162.16 E232.15648
G1 X105.25 Y161.09 E232.23083
G1 X105.86 Y160.07 E232.30514
G1 X106.53 Y159.08 E232.37971
G1 X107.26 Y158.14 E232.45416
G1 X108.05 Y157.24 E232.52856
G1 X108.89 Y156.40 E232.60300
G1 X109.79 Y155.61 E232.67741
G1 X110.73 Y154.88 E232.75185
G1 X111.72 Y154.20 E232.82642
G1 X112.75 Y153.60 E232.90073
G1 X113.81 Y153.06 E232.97509
G1 X114.91 Y152.58 E233.04964
G1 X116.03 Y152.18 E233.12409
G1 X117.18 Y151.84 E233.19849
G1 X118.34 Y151.58 E233.27307
G1 X119.52 Y151.40 E233.34750
G1 X119.54 Y151.40 E233.34838
G0 F6000 X118.22 Y151.10
G1 F2700 X118.13 Y151.03 E233.35571
G1 X117.43 Y150.27 E233.41985
G1 X117.09 Y149.70 E233.46124
G1 X115.70 Y149.70 E233.54761
G1 X115.70 Y145.38 E233.81677
G1 X114.75 Y145.04 E233.87977
G1 X113.63 Y144.56 E233.95617
G1 X112.53 Y144.00 E234.03262
G1 X111.48 Y143.38 E234.10908
G1 X110.55 Y142.76 E234.17865
G1 X110.44 Y142.68 E234.18752
G1 X109.49 Y141.94 E234.26184
G1 X108.58 Y141.14 E234.33811
G1 X107.71 Y140.27 E234.41458
G1 X106.90 Y139.35 E234.49092
G1 X106.14 Y138.39 E234.56727
G1 X105.52 Y137.47 E234.63642
G1 X105.44 Y137.35 E234.64535
G1 X104.83 Y136.32 E234.72044
G1 X104.27 Y135.23 E234.79658
G1 X103.78 Y134.11 E234.87294
G1 X103.36 Y132.96 E234.94942
G1 X103.05 Y131.89 E235.01848
G1 X103.02 Y131.77 E235.02623
G1 X102.75 Y130.58 E235.10246
G1 X102.56 Y129.37 E235.17862
G1 X102.44 Y128.16 E235.25493
G1 X102.41 Y127.05 E235.32400
G1 X102.40 Y126.92 E235.33181
G1 X102.44 Y125.67 E235.40974
G1 X102.56 Y124.46 E235.48610
G1 X102.75 Y123.25 E235.56236
G1 X103.01 Y122.05 E235.63886
G1 X103.36 Y120.88 E235.71524
G1 X103.77 Y119.72 E235.79166
G1 X104.26 Y118.60 E235.86816
G1 X104.81 Y117.51 E235.94450
G1 X105.44 Y116.45 E236.02074
G1 X106.12 Y115.44 E236.09728
G1 X106.88 Y114.47 E236.17368
G1 X107.69 Y113.55 E236.25003
G1 X108.55 Y112.69 E236.32649
G1 X109.47 Y111.88 E236.40284
G1 X110.44 Y111.12 E236.47925
G1 X111.45 Y110.44 E236.55565
G1 X112.51 Y109.81 E236.63209
G1 X113.60 Y109.25 E236.70845
G1 X114.72 Y108.77 E236.78488
G1 X115.88 Y108.35 E236.86130
G1 X117.05 Y108.01 E236.93767
G1 X118.25 Y107.75 E237.01403
G1 X119.46 Y107.55 E237.09044
G1 X120.68 Y107.44 E237.16692
G1 X125.65 Y107.28 E237.47726
G1 X125.65 Y121.28 E238.35047
G1 X121.56 Y121.41 E238.60572
G1 X121.23 Y121.44 E238.62651
G1 X120.88 Y121.50 E238.64879
G1 X120.56 Y121.57 E238.66912
G1 X120.20 Y121.67 E238.69241
G1 X119.89 Y121.78 E238.71295
G1 X119.57 Y121.92 E238.73482
G1 X119.27 Y122.07 E238.75557
G1 X118.96 Y122.26 E238.77833
G1 X118.68 Y122.45 E238.79912
G1 X118.41 Y122.66 E238.82078
G1 X118.14 Y122.89 E238.84278
G1 X117.90 Y123.14 E238.86421
G1 X117.67 Y123.39 E238.88529
G1 X117.46 Y123.66 E238.90653
G1 X117.26 Y123.95 E238.92888
G1 X117.09 Y124.25 E238.95021
G1 X116.94 Y124.55 E238.97113
G1 X116.79 Y124.87 E238.99323
G1 X116.68 Y125.19 E239.01425
G1 X116.58 Y125.53 E239.03634
G1 X116.50 Y125.86 E239.05776
G1 X116.45 Y126.21 E239.07942
G1 X116.42 Y126.54 E239.10047
G1 X116.40 Y126.92 E239.12412
G1 X116.42 Y127.24 E239.14422
G1 X116.45 Y127.59 E239.16608
G1 X116.50 Y127.94 E239.18793
G1 X116.58 Y128.27 E239.20894
G1 X116.67 Y128.60 E239.23069
G1 X116.79 Y128.91 E239.25147
G1 X116.93 Y129.25 E239.27454
G1 X117.08 Y129.54 E239.29429
G1 X117.27 Y129.86 E239.31755
G1 X117.45 Y130.13 E239.33815
G1 X117.66 Y130.40 E239.35936
G1 X117.89 Y130.66 E239.38114
G1 X118.14 Y130.91 E239.40310
G1 X118.40 Y131.14 E239.42497
G1 X118.67 Y131.35 E239.44590
G1 X118.95 Y131.54 E239.46745
G1 X119.25 Y131.72 E239.48904
G1 X119.56 Y131.88 E239.51060
G1 X119.88 Y132.01 E239.53241
G1 X120.20 Y132.13 E239.55381
G1 X120.53 Y132.22 E239.57473
G1 X120.87 Y132.30 E239.59658
G1 X121.22 Y132.36 E239.61881
G1 X121.56 Y132.39 E239.63992
G1 X121.95 Y132.40 E239.66456
G1 X151.55 Y132.40 E241.51032
G1 X151.40 Y131.89 E241.54339
G1 X151.37 Y131.77 E241.55114
G1 X151.10 Y130.58 E241.62737
G1 X150.91 Y129.37 E241.70366
G1 X150.79 Y128.15 E241.77996
G1 X150.75 Y127.05 E241.84891
G1 X150.75 Y126.92 E241.85671
G1 X150.79 Y125.68 E241.93452
G1 X150.90 Y124.46 E242.01100
G1 X151.09 Y123.25 E242.08727
G1 X151.36 Y122.05 E242.16363
G1 X151.70 Y120.87 E242.24025
G1 X152.12 Y119.72 E242.31669
G1 X152.60 Y118.60 E242.39300
G1 X153.16 Y117.51 E242.46925
G1 X153.78 Y116.45 E242.54577
G1 X154.47 Y115.44 E242.62221
G1 X155.22 Y114.47 E242.69848
G1 X156.03 Y113.55 E242.77492
G1 X156.90 Y112.69 E242.85138
G1 X157.82 Y111.88 E242.92773
G1 X158.79 Y111.12 E243.00414
G1 X159.80 Y110.44 E243.08054
G1 X160.85 Y109.81 E243.15698
G1 X161.95 Y109.25 E243.23340
G1 X163.07 Y108.77 E243.30982
G1 X164.22 Y108.35 E243.38618
G1 X165.40 Y108.01 E243.46262
G1 X166.59 Y107.75 E243.53892
G1 X167.81 Y107.55 E243.61545
G1 X169.03 Y107.44 E243.69187
G1 X174.00 Y107.28 E244.00221
G1 X174.00 Y121.28 E244.87542
G1 X169.91 Y121.41 E245.13067
G1 X169.58 Y121.44 E245.15152
G1 X169.22 Y121.50 E245.17380
G1 X168.91 Y121.57 E245.19413
G1 X168.55 Y121.67 E245.21743
G1 X168.24 Y121.78 E245.23796
G1 X167.91 Y121.92 E245.25983
G1 X167.62 Y122.07 E245.28058
G1 X167.30 Y122.26 E245.30334
G1 X167.03 Y122.45 E245.32413
G1 X166.75 Y122.66 E245.34579
G1 X166.49 Y122.89 E245.36766
G1 X166.25 Y123.13 E245.38878
G1 X166.01 Y123.39 E245.41087
G1 X165.81 Y123.66 E245.43154
G1 X165.61 Y123.95 E245.45366
G1 X165.44 Y124.24 E245.47474
G1 X165.28 Y124.56 E245.49680
G1 X165.14 Y124.87 E245.51822
G1 X165.03 Y125.19 E245.53925
G1 X164.93 Y125.53 E245.56134
G1 X164.85 Y125.86 E245.58276
G1 X164.80 Y126.21 E245.60442
G1 X164.76 Y126.54 E245.62547
G1 X164.75 Y126.91 E245.64868
G1 X164.76 Y127.24 E245.66927
G1 X164.79 Y127.59 E245.69107
G1 X164.85 Y127.94 E245.71292
G1 X164.92 Y128.27 E245.73394
G1 X165.02 Y128.60 E245.75569
G1 X165.13 Y128.91 E245.77646
G1 X165.28 Y129.25 E245.79886
G1 X165.43 Y129.56 E245.82056
G1 X165.61 Y129.85 E245.84192
G1 X165.80 Y130.13 E245.86315
G1 X166.01 Y130.40 E245.88444
G1 X166.24 Y130.67 E245.90657
G1 X166.48 Y130.91 E245.92756
G1 X166.75 Y131.14 E245.94996
G1 X167.02 Y131.35 E245.97090
G1 X167.30 Y131.54 E245.99245
G1 X167.60 Y131.72 E246.01403
G1 X167.91 Y131.88 E246.03559
G1 X168.23 Y132.01 E246.05740
G1 X168.55 Y132.13 E246.07881
G1 X168.87 Y132.22 E246.09973
G1 X169.22 Y132.30 E246.12157
G1 X169.57 Y132.36 E246.14374
G1 X169.91 Y132.39 E246.16491
G1 X170.30 Y132.40 E246.18962
G1 X202.12 Y132.40 E248.17425
G1 X202.12 Y146.40 E249.04733
G1 X201.30 Y146.40 E249.09866
G1 X201.30 Y149.70 E249.30445
G1 X200.07 Y149.70 E249.38122
G1 X199.91 Y149.98 E249.40124
G1 X199.40 Y150.64 E249.45352
G1 X198.70 Y151.30 E249.51338
G1 X197.66 Y151.96 E249.59025
G1 X196.40 Y152.38 E249.67347
G1 X195.23 Y152.50 E249.74658
G1 X194.02 Y152.37 E249.82235
G1 X192.89 Y151.98 E249.89733
G1 X192.14 Y151.54 E249.95107
G1 X191.47 Y151.02 E250.00391
G1 X190.78 Y150.27 E250.06751
G1 X190.43 Y149.70 E250.10919
G1 X188.90 Y149.70 E250.20473
G1 X188.90 Y146.40 E250.41053
G1 X176.30 Y146.40 E251.19630
G1 X176.30 Y149.70 E251.40210
G1 X175.07 Y149.70 E251.47886
G1 X174.91 Y149.98 E251.49888
G1 X174.35 Y150.72 E251.55681
G1 X174.00 Y151.01 E251.58525
G1 X174.00 Y164.63 E252.43451
G1 X169.91 Y164.76 E252.68976
G1 X169.58 Y164.79 E252.71061
G1 X169.22 Y164.85 E252.73289
G1 X168.91 Y164.92 E252.75322
G1 X168.55 Y165.02 E252.77652
G1 X168.24 Y165.13 E252.79705
G1 X167.92 Y165.27 E252.81831
G1 X167.60 Y165.43 E252.84098
G1 X167.31 Y165.60 E252.86175
G1 X167.03 Y165.79 E252.88322
G1 X166.75 Y166.01 E252.90487
G1 X166.49 Y166.24 E252.92674
G1 X166.25 Y166.48 E252.94787
G1 X166.01 Y166.74 E252.96995
G1 X165.81 Y167.00 E252.99062
G1 X165.61 Y167.30 E253.01275
G1 X165.44 Y167.59 E253.03383
G1 X165.28 Y167.90 E253.05589
G1 X165.14 Y168.22 E253.07731
G1 X165.03 Y168.53 E253.09834
G1 X164.93 Y168.88 E253.12042
G1 X164.85 Y169.21 E253.14185
G1 X164.80 Y169.55 E253.16345
G1 X164.76 Y169.89 E253.18456
G1 X164.75 Y170.26 E253.20783
G1 X164.76 Y170.59 E253.22830
G1 X164.79 Y170.94 E253.25016
G1 X164.85 Y171.28 E253.27201
G1 X164.92 Y171.61 E253.29302
G1 X165.02 Y171.95 E253.31459
G1 X165.14 Y172.27 E253.33600
G1 X165.28 Y172.59 E253.35781
G1 X165.43 Y172.89 E253.37901
G1 X165.61 Y173.21 E253.40168
G1 X165.80 Y173.48 E253.42237
G1 X166.01 Y173.75 E253.44358
G1 X166.24 Y174.01 E253.46571
G1 X166.48 Y174.25 E253.48670
G1 X166.75 Y174.49 E253.50901
G1 X167.01 Y174.69 E253.52977
G1 X167.30 Y174.89 E253.55155
G1 X167.60 Y175.07 E253.57313
G1 X167.91 Y175.22 E253.59469
G1 X168.23 Y175.36 E253.61650
G1 X168.55 Y175.48 E253.63791
G1 X168.88 Y175.57 E253.65948
G1 X169.21 Y175.65 E253.68049
G1 X169.56 Y175.70 E253.70234
G1 X169.91 Y175.74 E253.72414
G1 X170.31 Y175.75 E253.74941
G1 X202.12 Y175.75 E255.73336
G1 X202.12 Y189.75 E256.60643
G1 X201.30 Y189.75 E256.65776
G1 X201.30 Y192.90 E256.85433
G1 X200.15 Y192.90 E256.92592
G1 X199.91 Y193.33 E256.95647
G1 X199.40 Y193.99 E257.00874
G1 X198.70 Y194.65 E257.06861
G1 X197.66 Y195.31 E257.14547
G1 X196.40 Y195.73 E257.22870
G1 X195.23 Y195.85 E257.30181
G1 X194.02 Y195.71 E257.37757
G1 X192.89 Y195.32 E257.45255
G1 X192.14 Y194.89 E257.50629
G1 X191.47 Y194.37 E257.55913
G1 X190.78 Y193.62 E257.62274
G1 X190.34 Y192.90 E257.67517
G1 X188.90 Y192.90 E257.76509
G1 X188.90 Y189.75 E257.96166
G1 X176.30 Y189.75 E258.74743
G1 X176.30 Y192.90 E258.94400
G1 X175.15 Y192.90 E259.01559
G1 X174.91 Y193.33 E259.04614
G1 X174.35 Y194.06 E259.10407
G1 X173.44 Y194.84 E259.17845
G1 X172.60 Y195.33 E259.23946
G1 X171.40 Y195.73 E259.31829
G1 X170.23 Y195.85 E259.39140
G1 X169.02 Y195.71 E259.46716
G1 X167.89 Y195.32 E259.54214
G1 X167.14 Y194.89 E259.59588
G1 X166.47 Y194.37 E259.64872
G1 X165.78 Y193.62 E259.71233
G1 X165.34 Y192.90 E259.76476
G1 X163.90 Y192.90 E259.85468
G1 X163.90 Y188.68 E260.11798
G1 X163.10 Y188.39 E260.17120
G1 X161.97 Y187.91 E260.24758
G1 X160.88 Y187.35 E260.32409
G1 X159.82 Y186.73 E260.40043
G1 X158.90 Y186.10 E260.47008
G1 X158.78 Y186.02 E260.47901
G1 X157.84 Y185.29 E260.55341
G1 X156.92 Y184.49 E260.62959
G1 X156.05 Y183.62 E260.70606
G1 X155.24 Y182.70 E260.78249
G1 X154.49 Y181.74 E260.85871
G1 X153.87 Y180.82 E260.92767
G1 X153.78 Y180.70 E260.93682
G1 X153.78 Y180.69 E260.93783
G1 X153.78 Y189.75 E261.50290
G1 X152.90 Y189.75 E261.55746
G1 X152.90 Y192.90 E261.75403
G1 X151.81 Y192.90 E261.82232
G1 X151.57 Y193.33 E261.85286
G1 X151.00 Y194.06 E261.91079
G1 X150.09 Y194.84 E261.98518
G1 X149.25 Y195.33 E262.04619
G1 X148.05 Y195.73 E262.12509
G1 X146.88 Y195.85 E262.19826
G1 X145.68 Y195.71 E262.27390
G1 X144.54 Y195.32 E262.34888
G1 X143.80 Y194.89 E262.40234
G1 X143.13 Y194.37 E262.45524
G1 X142.43 Y193.62 E262.51937
G1 X142.00 Y192.90 E262.57151
G1 X140.70 Y192.90 E262.65227
G1 X140.70 Y189.75 E262.84884
G1 X127.90 Y189.75 E263.64708
G1 X127.90 Y192.90 E263.84365
G1 X126.81 Y192.90 E263.91194
G1 X126.50 Y193.44 E263.95064
G1 X125.56 Y194.50 E264.03868
