;-- START GCODE --
;Sliced for Type A Machines Series 1
;Sliced at: Thu 24-11-2016 22:30:08
;Basic settings: Layer height: 0.2 Walls: 1.5 Fill: 20
;Print Speed: 100 Support: 0
;Retraction Speed: 40 Retraction Distance: 1.2
;Print time: #P_TIME#
;Filament used: #F_AMNT#m #F_WGHT#g
;Filament cost: #F_COST#
M106 S255	 ;start with the fan on
G21        ;metric values
G90        ;absolute positioning
M106 S255    ;start with the fan on
G28     ;move to endstops
G29		;allows for auto-levelling
G1 X150 Y5  Z15.0 F6000 ;center and move the platform down 15mm
M109 S220 ;Heat To temp
G92 E0                  ;zero the extruded length
G1 F200 E30              ;extrude 30mm of feed stock
G92 E0                  ;zero the extruded length again
G1 X175 Y25  Z0 F6000 ;remove bugger
G1 X220 F6000 ;remove bugger
G1 X150 Y150  Z15 F6000 ;recenter and begin
G1 F6000

;Layer count: 27
;LAYER:0
M106 S255
G0 F6000 X153.25 Y156.69 Z0.30
;TYPE:SKIRT
G1 F2700 X153.25 Y167.25 E0.65830
G1 X147.25 Y167.25 E1.03248
G1 X147.25 Y205.25 E3.40232
G1 X183.09 Y205.25 E5.63734
G1 X190.12 Y174.79 E7.58694
G1 X190.25 Y174.23 E7.62271
G1 X190.25 Y156.66 E8.71868
G1 X188.89 Y156.49 E8.80434
G1 X187.25 Y155.97 E8.91172
G1 X186.04 Y155.36 E8.99581
G1 X184.81 Y154.51 E9.08929
G1 X184.50 Y154.22 E9.11568
G1 X183.91 Y154.73 E9.16434
G1 X182.78 Y155.47 E9.24866
G1 X181.17 Y156.20 E9.35893
G1 X179.40 Y156.62 E9.47240
G1 X177.81 Y156.72 E9.57147
G1 X175.89 Y156.49 E9.69237
G1 X174.25 Y155.97 E9.79975
G1 X173.04 Y155.36 E9.88384
G1 X171.81 Y154.51 E9.97732
G1 X170.95 Y153.70 E10.05064
G1 X170.46 Y153.15 E10.09666
G1 X169.77 Y152.25 E10.16764
G1 X169.01 Y150.83 E10.26777
G1 X168.68 Y149.90 E10.32957
G1 X162.35 Y149.90 E10.72421
G1 X162.33 Y149.98 E10.72920
G1 X161.68 Y151.46 E10.83022
G1 X161.11 Y152.41 E10.89943
G1 X160.38 Y153.37 E10.97443
G1 X159.39 Y154.32 E11.05986
G1 X158.83 Y154.78 E11.10499
G1 X157.78 Y155.47 E11.18355
G1 X156.17 Y156.20 E11.29383
G1 X154.40 Y156.62 E11.40730
G1 X153.25 Y156.69 E11.47893
G0 F6000 X152.82 Y156.22
G1 F2700 X152.75 Y156.21 E11.48351
G1 X152.75 Y166.75 E12.14063
G1 X146.75 Y166.75 E12.51481
G1 X146.75 Y205.75 E14.94702
G1 X183.49 Y205.75 E17.23804
G1 X190.61 Y174.90 E19.21245
G1 X190.75 Y174.29 E19.25163
G1 X190.75 Y156.21 E20.37897
G1 X188.99 Y156.00 E20.48924
G1 X187.44 Y155.50 E20.59132
G1 X186.29 Y154.93 E20.67081
G1 X185.12 Y154.12 E20.75976
G1 X184.52 Y153.55 E20.81173
G1 X183.60 Y154.33 E20.88640
G1 X182.54 Y155.03 E20.96636
G1 X181.01 Y155.73 E21.07102
G1 X179.32 Y156.12 E21.17893
G1 X177.82 Y156.22 E21.27256
G1 X175.99 Y156.00 E21.38748
G1 X174.44 Y155.50 E21.48956
G1 X173.29 Y154.93 E21.56905
G1 X172.12 Y154.12 E21.65800
G1 X171.31 Y153.35 E21.72762
G1 X170.85 Y152.84 E21.77103
G1 X170.19 Y151.98 E21.83827
G1 X169.47 Y150.63 E21.93369
G1 X169.13 Y149.69 E21.99591
G1 X169.05 Y149.40 E22.01462
G1 X161.95 Y149.40 E22.45777
G1 X161.85 Y149.82 E22.48463
G1 X161.23 Y151.23 E22.58074
G1 X160.69 Y152.13 E22.64617
G1 X160.00 Y153.03 E22.71717
G1 X159.06 Y153.95 E22.79889
G1 X158.53 Y154.37 E22.84111
G1 X157.54 Y155.03 E22.91570
G1 X156.01 Y155.73 E23.02037
G1 X154.32 Y156.12 E23.12827
G1 X152.82 Y156.22 E23.22196
G0 F6000 X152.84 Y155.72
G1 F2700 X152.25 Y155.65 E23.25877
G1 X152.25 Y166.25 E23.91981
G1 X146.25 Y166.25 E24.29399
G1 X146.25 Y206.25 E26.78856
G1 X183.88 Y206.25 E29.13552
G1 X191.09 Y175.01 E31.13472
G1 X191.25 Y174.34 E31.17754
G1 X191.25 Y155.69 E32.34086
G1 X190.84 Y155.72 E32.36667
G1 X189.10 Y155.51 E32.47570
G1 X187.62 Y155.04 E32.57241
G1 X186.55 Y154.50 E32.64729
G1 X185.44 Y153.73 E32.73163
G1 X184.67 Y153.01 E32.79759
G1 X184.50 Y152.81 E32.81380
G1 X184.20 Y153.16 E32.84233
G1 X183.30 Y153.93 E32.91581
G1 X182.29 Y154.59 E32.99131
G1 X180.84 Y155.25 E33.09047
G1 X179.25 Y155.62 E33.19275
G1 X177.84 Y155.72 E33.28094
G1 X176.10 Y155.51 E33.38996
G1 X174.62 Y155.04 E33.48668
G1 X173.55 Y154.50 E33.56156
G1 X172.44 Y153.73 E33.64589
G1 X171.67 Y153.01 E33.71185
G1 X171.23 Y152.52 E33.75271
G1 X170.62 Y151.71 E33.81621
G1 X169.93 Y150.42 E33.90694
G1 X169.61 Y149.54 E33.96551
G1 X169.44 Y148.90 E34.00682
G1 X161.55 Y148.90 E34.49886
G1 X161.38 Y149.66 E34.54764
G1 X160.79 Y151.00 E34.63878
G1 X160.28 Y151.85 E34.70044
G1 X159.62 Y152.70 E34.76739
G1 X158.73 Y153.57 E34.84540
G1 X158.24 Y153.97 E34.88482
G1 X157.29 Y154.59 E34.95532
G1 X155.84 Y155.25 E35.05449
G1 X154.25 Y155.62 E35.15676
G1 X152.84 Y155.72 E35.24502
G0 F6000 X152.85 Y155.22
G1 F2700 X151.75 Y155.09 E35.31404
G1 X151.75 Y165.75 E35.97901
G1 X145.75 Y165.75 E36.35319
G1 X145.75 Y206.75 E38.91012
G1 X184.28 Y206.75 E41.31308
G1 X191.58 Y175.12 E43.33712
G1 X191.75 Y174.40 E43.38340
G1 X191.75 Y155.16 E44.58369
G1 X190.85 Y155.22 E44.64001
G1 X189.21 Y155.02 E44.74307
G1 X187.81 Y154.57 E44.83440
G1 X186.81 Y154.07 E44.90462
G1 X185.75 Y153.34 E44.98444
G1 X185.03 Y152.66 E45.04673
G1 X184.62 Y152.20 E45.08498
G1 X184.50 Y152.04 E45.09758
G1 X183.84 Y152.81 E45.16045
G1 X183.00 Y153.53 E45.22950
G1 X182.05 Y154.16 E45.30064
G1 X180.68 Y154.78 E45.39422
G1 X179.17 Y155.13 E45.49092
G1 X177.85 Y155.22 E45.57373
G1 X176.21 Y155.02 E45.67679
G1 X174.81 Y154.57 E45.76812
G1 X173.81 Y154.07 E45.83835
G1 X172.75 Y153.34 E45.91817
G1 X172.03 Y152.66 E45.98046
G1 X171.62 Y152.20 E46.01871
G1 X171.04 Y151.44 E46.07856
G1 X170.39 Y150.22 E46.16450
G1 X170.09 Y149.39 E46.21950
G1 X169.87 Y148.59 E46.27114
G1 X169.85 Y148.40 E46.28309
G1 X161.15 Y148.40 E46.82552
G1 X160.90 Y149.51 E46.89624
G1 X160.34 Y150.77 E46.98235
G1 X159.86 Y151.57 E47.04029
G1 X159.25 Y152.37 E47.10319
G1 X158.40 Y153.20 E47.17755
G1 X157.94 Y153.57 E47.21404
G1 X157.05 Y154.16 E47.28058
G1 X155.68 Y154.78 E47.37416
G1 X154.17 Y155.13 E47.47085
G1 X152.85 Y155.22 E47.55367
G0 F6000 X152.86 Y154.71
G1 F2700 X151.31 Y154.53 E47.65083
G1 X151.25 Y154.51 E47.65509
G1 X151.25 Y165.25 E48.32480
G1 X145.25 Y165.25 E48.69898
G1 X145.25 Y207.25 E51.31827
G1 X184.68 Y207.25 E53.77724
G1 X192.07 Y175.24 E55.82604
G1 X192.25 Y174.46 E55.87590
G1 X192.25 Y154.59 E57.11467
G1 X192.10 Y154.63 E57.12428
G1 X190.86 Y154.71 E57.20166
G1 X189.31 Y154.53 E57.29882
G1 X188.00 Y154.11 E57.38471
G1 X187.06 Y153.64 E57.45041
G1 X186.07 Y152.95 E57.52561
G1 X185.38 Y152.31 E57.58425
G1 X185.00 Y151.88 E57.61993
G1 X184.50 Y151.21 E57.67227
G1 X184.39 Y151.39 E57.68527
G1 X183.49 Y152.45 E57.77209
G1 X182.70 Y153.12 E57.83672
G1 X181.81 Y153.72 E57.90348
G1 X180.52 Y154.30 E57.99151
G1 X179.10 Y154.63 E58.08256
G1 X177.86 Y154.71 E58.15995
G1 X176.31 Y154.53 E58.25710
G1 X175.00 Y154.11 E58.34299
G1 X174.06 Y153.64 E58.40870
G1 X173.07 Y152.95 E58.48390
G1 X172.38 Y152.31 E58.54253
G1 X172.00 Y151.88 E58.57822
G1 X171.46 Y151.16 E58.63433
G1 X170.84 Y150.02 E58.71552
G1 X170.56 Y149.24 E58.76693
G1 X170.36 Y148.49 E58.81522
G1 X170.28 Y147.90 E58.85246
G1 X160.74 Y147.90 E59.44759
G1 X160.74 Y147.94 E59.45003
G1 X160.42 Y149.35 E59.54018
G1 X159.90 Y150.54 E59.62130
G1 X159.45 Y151.29 E59.67552
G1 X158.88 Y152.03 E59.73436
G1 X158.06 Y152.82 E59.80497
G1 X157.64 Y153.16 E59.83862
G1 X156.81 Y153.72 E59.90117
G1 X155.52 Y154.30 E59.98920
G1 X154.10 Y154.63 E60.08025
G1 X152.86 Y154.71 E60.15763
G0 F6000 X152.87 Y154.21
G1 F2700 X151.42 Y154.04 E60.24876
G1 X150.75 Y153.82 E60.29286
G1 X150.75 Y164.75 E60.97423
G1 X144.75 Y164.75 E61.34841
G1 X144.75 Y207.75 E64.03007
G1 X185.08 Y207.75 E66.54503
G1 X192.56 Y175.35 E68.61860
G1 X192.75 Y174.52 E68.67204
G1 X192.75 Y153.97 E69.95366
G1 X192.03 Y154.13 E70.00003
G1 X190.88 Y154.21 E70.07197
G1 X189.42 Y154.04 E70.16322
G1 X188.19 Y153.64 E70.24376
G1 X187.32 Y153.21 E70.30484
G1 X186.38 Y152.56 E70.37550
G1 X185.74 Y151.96 E70.43043
G1 X185.39 Y151.56 E70.46352
G1 X184.88 Y150.89 E70.51594
G1 X184.51 Y150.19 E70.56557
G1 X184.46 Y150.30 E70.57300
G1 X183.98 Y151.10 E70.63103
G1 X183.13 Y152.10 E70.71276
G1 X182.40 Y152.72 E70.77297
G1 X181.56 Y153.28 E70.83537
G1 X180.36 Y153.82 E70.91779
G1 X179.03 Y154.13 E71.00327
G1 X177.88 Y154.21 E71.07522
G1 X176.42 Y154.04 E71.16646
G1 X175.19 Y153.64 E71.24701
G1 X174.32 Y153.21 E71.30809
G1 X173.38 Y152.56 E71.37875
G1 X172.74 Y151.96 E71.43368
G1 X172.39 Y151.56 E71.46676
G1 X171.88 Y150.89 E71.51919
G1 X171.30 Y149.81 E71.59566
G1 X171.04 Y149.09 E71.64348
G1 X170.85 Y148.40 E71.68841
G1 X170.72 Y147.40 E71.75095
G1 X160.26 Y147.40 E72.40314
G1 X160.24 Y147.87 E72.43267
G1 X159.94 Y149.19 E72.51701
G1 X159.45 Y150.31 E72.59310
G1 X159.04 Y151.00 E72.64359
G1 X158.50 Y151.70 E72.69840
G1 X157.73 Y152.45 E72.76535
G1 X157.35 Y152.76 E72.79608
G1 X156.56 Y153.28 E72.85466
G1 X155.36 Y153.82 E72.93708
G1 X154.03 Y154.13 E73.02256
G1 X152.87 Y154.21 E73.09457
G0 F6000 X152.89 Y153.71
G1 F2700 X151.53 Y153.55 E73.17979
G1 X150.38 Y153.18 E73.25495
G1 X150.25 Y153.11 E73.26421
G1 X150.25 Y164.25 E73.95862
G1 X144.25 Y164.25 E74.33279
G1 X144.25 Y208.25 E77.07682
G1 X185.47 Y208.25 E79.64772
G1 X193.04 Y175.46 E81.74612
G1 X193.25 Y174.57 E81.80316
G1 X193.25 Y153.32 E83.12824
G1 X193.20 Y153.35 E83.13167
G1 X191.95 Y153.64 E83.21159
G1 X190.89 Y153.71 E83.27809
G1 X189.53 Y153.55 E83.36344
G1 X188.38 Y153.18 E83.43860
G1 X187.57 Y152.78 E83.49510
G1 X186.70 Y152.17 E83.56115
G1 X186.10 Y151.61 E83.61242
G1 X185.78 Y151.24 E83.64298
G1 X185.30 Y150.62 E83.69162
G1 X184.72 Y149.53 E83.76893
G1 X184.51 Y148.87 E83.81223
G1 X184.48 Y149.01 E83.82142
G1 X184.01 Y150.07 E83.89353
G1 X183.57 Y150.81 E83.94706
G1 X182.78 Y151.75 E84.02374
G1 X182.10 Y152.32 E84.07952
G1 X181.32 Y152.84 E84.13746
G1 X180.20 Y153.35 E84.21433
G1 X178.95 Y153.64 E84.29425
G1 X177.89 Y153.71 E84.36075
G1 X176.53 Y153.55 E84.44610
G1 X175.38 Y153.18 E84.52126
G1 X174.57 Y152.78 E84.57776
G1 X173.70 Y152.17 E84.64381
G1 X173.10 Y151.61 E84.69507
G1 X172.78 Y151.24 E84.72564
G1 X172.30 Y150.62 E84.77428
G1 X171.76 Y149.61 E84.84601
G1 X171.52 Y148.94 E84.89024
G1 X171.35 Y148.30 E84.93182
G1 X171.20 Y147.20 E85.00071
G1 X171.21 Y146.90 E85.01950
G1 X159.78 Y146.90 E85.73224
G1 X159.75 Y147.81 E85.78880
G1 X159.47 Y149.04 E85.86738
G1 X159.01 Y150.08 E85.93850
G1 X158.62 Y150.72 E85.98521
G1 X158.13 Y151.37 E86.03597
G1 X157.40 Y152.07 E86.09921
G1 X157.05 Y152.35 E86.12706
G1 X156.32 Y152.84 E86.18163
G1 X155.20 Y153.35 E86.25849
G1 X153.95 Y153.64 E86.33841
G1 X152.89 Y153.71 E86.40498
G0 F6000 X152.90 Y153.21
G1 F2700 X151.64 Y153.06 E86.48429
G1 X150.57 Y152.72 E86.55407
G1 X149.83 Y152.34 E86.60592
G1 X149.75 Y152.29 E86.61183
G1 X149.75 Y163.75 E87.32638
G1 X143.75 Y163.75 E87.70056
G1 X143.75 Y208.75 E90.50695
G1 X185.87 Y208.75 E93.13385
G1 X193.53 Y175.58 E95.25702
G1 X193.75 Y174.63 E95.31770
G1 X193.75 Y152.55 E96.69461
G1 X193.04 Y152.87 E96.74334
G1 X191.88 Y153.14 E96.81763
G1 X190.90 Y153.21 E96.87876
G1 X189.64 Y153.06 E96.95814
G1 X188.57 Y152.72 E97.02791
G1 X187.83 Y152.34 E97.07976
G1 X187.02 Y151.78 E97.14129
G1 X186.46 Y151.26 E97.18889
G1 X186.16 Y150.93 E97.21685
G1 X185.72 Y150.35 E97.26180
G1 X185.18 Y149.33 E97.33373
G1 X184.85 Y148.29 E97.40227
G1 X184.70 Y147.18 E97.47187
G1 X184.74 Y146.40 E97.52050
G1 X184.27 Y146.40 E97.54969
G1 X184.30 Y146.62 E97.56359
G1 X184.25 Y147.73 E97.63288
G1 X184.00 Y148.85 E97.70461
G1 X183.57 Y149.84 E97.77172
G1 X183.16 Y150.51 E97.82070
G1 X182.42 Y151.39 E97.89224
G1 X181.80 Y151.93 E97.94364
G1 X181.08 Y152.40 E97.99723
G1 X180.04 Y152.87 E98.06854
G1 X178.88 Y153.14 E98.14283
G1 X177.90 Y153.21 E98.20396
G1 X176.64 Y153.06 E98.28334
G1 X175.57 Y152.72 E98.35311
G1 X174.83 Y152.34 E98.40496
G1 X174.02 Y151.78 E98.46649
G1 X173.46 Y151.26 E98.51409
G1 X173.16 Y150.93 E98.54205
G1 X172.72 Y150.35 E98.58700
G1 X172.22 Y149.40 E98.65399
G1 X172.00 Y148.79 E98.69465
G1 X171.84 Y148.20 E98.73286
G1 X171.70 Y147.18 E98.79697
G1 X171.74 Y146.40 E98.84560
G1 X159.27 Y146.40 E99.62314
G1 X159.30 Y146.62 E99.63704
G1 X159.25 Y147.74 E99.70683
G1 X158.99 Y148.88 E99.77966
G1 X158.56 Y149.85 E99.84573
G1 X158.21 Y150.44 E99.88875
G1 X157.75 Y151.03 E99.93550
G1 X157.07 Y151.70 E99.99504
G1 X156.76 Y151.95 E100.02000
G1 X156.08 Y152.40 E100.07058
G1 X155.04 Y152.87 E100.14189
G1 X153.88 Y153.14 E100.21618
G1 X152.90 Y153.21 E100.27731
G0 F6000 X152.91 Y152.71
G1 F2700 X151.74 Y152.57 E100.35072
G1 X150.76 Y152.25 E100.41513
G1 X150.08 Y151.91 E100.46238
G1 X149.33 Y151.39 E100.51929
G1 X149.25 Y151.31 E100.52640
G1 X149.25 Y163.25 E101.27063
G1 X143.25 Y163.25 E101.64481
G1 X143.25 Y209.25 E104.51356
G1 X186.27 Y209.25 E107.19647
G1 X194.02 Y175.69 E109.34446
G1 X194.25 Y174.69 E109.40848
G1 X194.25 Y151.69 E110.84288
G1 X193.84 Y151.96 E110.87379
G1 X192.88 Y152.40 E110.93952
G1 X191.80 Y152.65 E111.00823
G1 X190.91 Y152.71 E111.06392
G1 X189.74 Y152.57 E111.13734
G1 X188.76 Y152.25 E111.20181
G1 X188.08 Y151.91 E111.24905
G1 X187.33 Y151.39 E111.30596
G1 X186.82 Y150.91 E111.34986
G1 X186.55 Y150.61 E111.37530
G1 X186.15 Y150.08 E111.41651
G1 X185.64 Y149.14 E111.48308
G1 X185.34 Y148.18 E111.54604
G1 X185.20 Y147.16 E111.61011
G1 X185.25 Y146.20 E111.66998
G1 X185.30 Y145.90 E111.68885
G1 X183.70 Y145.90 E111.78876
G1 X183.80 Y146.64 E111.83550
G1 X183.75 Y147.67 E111.89930
G1 X183.52 Y148.70 E111.96535
G1 X183.12 Y149.61 E112.02743
G1 X182.76 Y150.22 E112.07186
G1 X182.07 Y151.04 E112.13828
G1 X181.49 Y151.53 E112.18530
G1 X180.84 Y151.96 E112.23447
G1 X179.88 Y152.40 E112.30020
G1 X178.80 Y152.65 E112.36891
G1 X177.91 Y152.71 E112.42460
G1 X176.74 Y152.57 E112.49802
G1 X175.76 Y152.25 E112.56249
G1 X175.08 Y151.91 E112.60973
G1 X174.33 Y151.39 E112.66665
G1 X173.82 Y150.91 E112.71054
G1 X173.55 Y150.61 E112.73598
G1 X173.15 Y150.08 E112.77719
G1 X172.68 Y149.20 E112.83944
G1 X172.47 Y148.64 E112.87651
G1 X172.33 Y148.10 E112.91137
G1 X172.20 Y147.16 E112.97071
G1 X172.25 Y146.13 E113.03457
G1 X172.30 Y145.90 E113.04952
G1 X158.70 Y145.90 E113.89790
G1 X158.80 Y146.64 E113.94464
G1 X158.75 Y147.67 E114.00894
G1 X158.51 Y148.72 E114.07589
G1 X158.12 Y149.62 E114.13704
G1 X157.79 Y150.16 E114.17635
G1 X157.38 Y150.70 E114.21900
G1 X156.74 Y151.32 E114.27484
G1 X156.46 Y151.55 E114.29692
G1 X155.84 Y151.96 E114.34353
G1 X154.88 Y152.40 E114.40926
G1 X153.80 Y152.65 E114.47797
G1 X152.91 Y152.71 E114.53366
G0 F6000 X152.93 Y152.20
G1 F2700 X151.85 Y152.08 E114.60117
G1 X150.95 Y151.79 E114.66020
G1 X150.34 Y151.48 E114.70284
G1 X149.65 Y151.00 E114.75523
G1 X149.13 Y150.51 E114.79965
G1 X148.60 Y149.86 E114.85202
G1 X148.14 Y149.00 E114.91305
G1 X147.95 Y148.49 E114.94680
G1 X147.82 Y148.00 E114.97829
G1 X147.71 Y147.14 E115.03284
G1 X147.75 Y146.20 E115.09121
G1 X147.92 Y145.40 E115.14231
G1 X133.07 Y145.40 E116.06846
G1 X133.18 Y145.80 E116.09414
G1 X133.29 Y146.67 E116.14869
G1 X133.25 Y147.60 E116.20706
G1 X133.04 Y148.54 E116.26729
G1 X132.68 Y149.38 E116.32434
G1 X132.35 Y149.93 E116.36428
G1 X131.71 Y150.68 E116.42560
G1 X131.19 Y151.12 E116.46820
G1 X130.59 Y151.52 E116.51302
G1 X129.72 Y151.92 E116.57314
G1 X128.73 Y152.15 E116.63634
G1 X127.92 Y152.20 E116.68665
G1 X126.85 Y152.08 E116.75410
G1 X125.95 Y151.79 E116.81313
G1 X125.34 Y151.48 E116.85578
G1 X124.65 Y151.00 E116.90816
G1 X124.18 Y150.56 E116.94839
G1 X123.93 Y150.29 E116.97118
G1 X123.57 Y149.81 E117.00870
G1 X123.14 Y149.00 E117.06620
G1 X122.95 Y148.49 E117.09970
G1 X122.82 Y148.00 E117.13119
G1 X122.71 Y147.14 E117.18574
G1 X122.75 Y146.20 E117.24411
G1 X122.92 Y145.40 E117.29521
G1 X120.06 Y145.40 E117.47350
G1 X120.17 Y145.73 E117.49528
G1 X120.30 Y146.67 E117.55393
G1 X120.26 Y147.55 E117.60894
G1 X120.15 Y148.16 E117.64771
G1 X119.82 Y149.10 E117.70992
G1 X119.38 Y149.90 E117.76678
G1 X118.71 Y150.68 E117.83080
G1 X118.19 Y151.12 E117.87341
G1 X117.59 Y151.52 E117.91822
G1 X116.72 Y151.92 E117.97834
G1 X115.73 Y152.15 E118.04154
G1 X114.92 Y152.20 E118.09185
G1 X113.85 Y152.08 E118.15931
G1 X112.95 Y151.79 E118.21833
G1 X112.34 Y151.48 E118.26098
G1 X111.65 Y151.00 E118.31336
G1 X111.18 Y150.56 E118.35359
G1 X110.93 Y150.29 E118.37638
G1 X110.57 Y149.81 E118.41390
G1 X110.11 Y148.94 E118.47509
G1 X109.83 Y148.07 E118.53242
G1 X109.70 Y147.14 E118.59102
G1 X109.75 Y146.25 E118.64602
G1 X109.86 Y145.64 E118.68486
G1 X109.94 Y145.40 E118.70076
G1 X95.07 Y145.40 E119.62778
G1 X95.18 Y145.80 E119.65346
G1 X95.30 Y146.67 E119.70801
G1 X95.25 Y147.61 E119.76676
G1 X95.04 Y148.56 E119.82794
G1 X94.67 Y149.39 E119.88407
G1 X94.38 Y149.88 E119.91965
G1 X94.00 Y150.37 E119.95830
G1 X93.40 Y150.95 E120.01043
G1 X93.17 Y151.15 E120.02963
G1 X92.59 Y151.52 E120.07225
G1 X91.72 Y151.92 E120.13236
G1 X90.73 Y152.15 E120.19556
G1 X89.92 Y152.20 E120.24588
G1 X88.85 Y152.08 E120.31333
G1 X87.95 Y151.79 E120.37236
G1 X87.34 Y151.48 E120.41500
G1 X86.65 Y151.00 E120.46738
G1 X86.18 Y150.56 E120.50762
G1 X85.93 Y150.29 E120.53041
G1 X85.57 Y149.81 E120.56793
G1 X85.14 Y149.00 E120.62543
G1 X84.95 Y148.49 E120.65893
G1 X84.82 Y148.00 E120.69042
G1 X84.71 Y147.14 E120.74497
G1 X84.75 Y146.20 E120.80334
G1 X84.92 Y145.40 E120.85443
G1 X70.06 Y145.40 E121.78108
G1 X70.17 Y145.73 E121.80285
G1 X70.30 Y146.67 E121.86151
G1 X70.26 Y147.55 E121.91651
G1 X70.15 Y148.16 E121.95529
G1 X69.82 Y149.10 E122.01750
G1 X69.38 Y149.90 E122.07436
G1 X68.71 Y150.68 E122.13838
G1 X68.19 Y151.12 E122.18099
G1 X67.59 Y151.52 E122.22580
G1 X66.72 Y151.92 E122.28592
G1 X65.73 Y152.15 E122.34912
G1 X64.92 Y152.20 E122.39943
G1 X63.85 Y152.08 E122.46689
G1 X62.95 Y151.79 E122.52591
G1 X62.34 Y151.48 E122.56856
G1 X61.65 Y151.00 E122.62094
G1 X61.18 Y150.56 E122.66117
G1 X60.93 Y150.29 E122.68396
G1 X60.57 Y149.81 E122.72148
G1 X60.11 Y148.94 E122.78267
G1 X59.83 Y148.07 E122.84000
G1 X59.70 Y147.14 E122.89860
G1 X59.74 Y146.25 E122.95360
G1 X59.85 Y145.64 E122.99244
G1 X59.94 Y145.40 E123.00833
G1 X57.25 Y145.40 E123.17597
G1 X57.25 Y134.40 E123.86196
G1 X60.67 Y134.40 E124.07517
G1 X68.51 Y100.45 E126.24789
G1 X68.75 Y99.40 E126.31548
G1 X68.75 Y76.40 E127.74963
G1 X85.75 Y76.40 E128.80980
G1 X85.75 Y87.40 E129.49579
G1 X79.75 Y87.40 E129.86997
G1 X79.75 Y134.40 E132.80101
G1 X123.67 Y134.40 E135.53992
G1 X131.51 Y100.45 E137.71264
G1 X131.75 Y99.40 E137.78023
G1 X131.75 Y76.40 E139.21438
G1 X148.75 Y76.40 E140.27455
G1 X148.75 Y87.40 E140.96054
G1 X142.75 Y87.40 E141.33472
G1 X142.75 Y134.40 E144.26577
G1 X186.67 Y134.40 E147.00461
G1 X194.51 Y100.45 E149.17734
G1 X194.75 Y99.40 E149.24493
G1 X194.75 Y76.40 E150.67908
G1 X211.75 Y76.40 E151.73925
G1 X211.75 Y87.40 E152.42524
G1 X205.75 Y87.40 E152.79942
G1 X205.75 Y134.40 E155.73047
G1 X247.75 Y134.40 E158.34970
G1 X247.75 Y145.40 E159.03569
G1 X246.06 Y145.40 E159.14084
G1 X246.17 Y145.73 E159.16261
G1 X246.30 Y146.67 E159.22127
G1 X246.25 Y147.55 E159.27627
G1 X246.15 Y148.16 E159.31505
G1 X245.82 Y149.10 E159.37725
G1 X245.38 Y149.90 E159.43412
G1 X244.71 Y150.68 E159.49814
G1 X244.19 Y151.12 E159.54074
G1 X243.59 Y151.52 E159.58556
G1 X242.72 Y151.92 E159.64567
G1 X241.73 Y152.15 E159.70881
G1 X240.93 Y152.20 E159.75907
G1 X239.85 Y152.08 E159.82658
G1 X238.95 Y151.79 E159.88567
G1 X238.34 Y151.48 E159.92831
G1 X237.65 Y151.00 E159.98069
G1 X237.18 Y150.56 E160.02093
G1 X236.93 Y150.29 E160.04372
G1 X236.57 Y149.81 E160.08123
G1 X236.11 Y148.94 E160.14242
G1 X235.83 Y148.07 E160.19976
G1 X235.70 Y147.14 E160.25835
G1 X235.74 Y146.25 E160.31335
G1 X235.85 Y145.64 E160.35219
G1 X235.94 Y145.40 E160.36809
G1 X221.07 Y145.40 E161.29511
G1 X221.18 Y145.80 E161.32080
G1 X221.29 Y146.67 E161.37535
G1 X221.25 Y147.61 E161.43409
G1 X221.04 Y148.56 E161.49527
G1 X220.68 Y149.38 E161.55112
G1 X220.35 Y149.93 E161.59092
G1 X219.71 Y150.68 E161.65224
G1 X219.19 Y151.12 E161.69484
G1 X218.59 Y151.52 E161.73966
G1 X217.72 Y151.92 E161.79978
G1 X216.73 Y152.15 E161.86292
G1 X215.93 Y152.20 E161.91317
G1 X214.85 Y152.08 E161.98068
G1 X213.95 Y151.79 E162.03977
G1 X213.34 Y151.48 E162.08241
G1 X212.65 Y151.00 E162.13479
G1 X212.13 Y150.51 E162.17922
G1 X211.60 Y149.86 E162.23159
G1 X211.13 Y149.00 E162.29262
G1 X210.95 Y148.49 E162.32637
G1 X210.82 Y148.00 E162.35786
G1 X210.71 Y147.14 E162.41241
G1 X210.75 Y146.20 E162.47078
G1 X210.92 Y145.40 E162.52188
G1 X196.06 Y145.40 E163.44852
G1 X196.17 Y145.73 E163.47030
G1 X196.30 Y146.67 E163.52896
G1 X196.25 Y147.55 E163.58396
G1 X196.15 Y148.16 E163.62274
G1 X195.82 Y149.10 E163.68494
G1 X195.38 Y149.90 E163.74180
G1 X194.71 Y150.68 E163.80583
G1 X194.19 Y151.12 E163.84843
G1 X193.59 Y151.52 E163.89324
G1 X192.72 Y151.92 E163.95336
G1 X191.73 Y152.15 E164.01650
G1 X190.93 Y152.20 E164.06675
G1 X189.85 Y152.08 E164.13427
G1 X188.95 Y151.79 E164.19335
G1 X188.34 Y151.48 E164.23600
G1 X187.65 Y151.00 E164.28838
G1 X187.18 Y150.56 E164.32862
G1 X186.93 Y150.29 E164.35140
G1 X186.57 Y149.81 E164.38892
G1 X186.11 Y148.94 E164.45011
G1 X185.83 Y148.07 E164.50744
G1 X185.70 Y147.14 E164.56604
G1 X185.74 Y146.25 E164.62104
G1 X185.85 Y145.64 E164.65988
G1 X185.94 Y145.40 E164.67578
G1 X183.07 Y145.40 E164.85445
G1 X183.18 Y145.80 E164.88013
G1 X183.29 Y146.67 E164.93468
G1 X183.25 Y147.60 E164.99305
G1 X183.04 Y148.54 E165.05328
G1 X182.68 Y149.38 E165.11033
G1 X182.35 Y149.93 E165.15027
G1 X181.71 Y150.68 E165.21160
G1 X181.19 Y151.12 E165.25420
G1 X180.59 Y151.52 E165.29901
G1 X179.72 Y151.92 E165.35913
G1 X178.73 Y152.15 E165.42227
G1 X177.93 Y152.20 E165.47252
G1 X176.85 Y152.08 E165.54004
G1 X175.95 Y151.79 E165.59912
G1 X175.34 Y151.48 E165.64177
G1 X174.65 Y151.00 E165.69415
G1 X174.18 Y150.56 E165.73438
G1 X173.93 Y150.29 E165.75717
G1 X173.57 Y149.81 E165.79469
G1 X173.13 Y149.00 E165.85219
G1 X172.95 Y148.49 E165.88569
G1 X172.82 Y148.00 E165.91718
G1 X172.71 Y147.14 E165.97173
G1 X172.75 Y146.20 E166.03010
G1 X172.92 Y145.40 E166.08119
G1 X158.07 Y145.40 E167.00734
G1 X158.18 Y145.80 E167.03303
G1 X158.29 Y146.67 E167.08758
G1 X158.25 Y147.61 E167.14632
G1 X158.04 Y148.56 E167.20750
G1 X157.67 Y149.39 E167.26363
G1 X157.38 Y149.88 E167.29921
G1 X157.00 Y150.37 E167.33787
G1 X156.40 Y150.95 E167.39000
G1 X156.16 Y151.15 E167.40919
G1 X155.59 Y151.52 E167.45181
G1 X154.72 Y151.92 E167.51193
G1 X153.73 Y152.15 E167.57507
G1 X152.93 Y152.20 E167.62532
G0 F6000 X152.94 Y151.70
G1 F2700 X151.96 Y151.59 E167.68681
G1 X151.14 Y151.32 E167.74045
G1 X150.59 Y151.05 E167.77855
G1 X149.96 Y150.61 E167.82637
G1 X149.50 Y150.17 E167.86638
G1 X149.02 Y149.58 E167.91370
G1 X148.59 Y148.79 E167.96953
G1 X148.43 Y148.34 E167.99965
G1 X148.31 Y147.91 E168.02779
G1 X148.21 Y147.11 E168.07756
G1 X148.25 Y146.27 E168.13050
G1 X148.43 Y145.41 E168.18492
G1 X148.66 Y144.90 E168.21983
G1 X132.35 Y144.90 E169.23684
G1 X132.41 Y145.01 E169.24454
G1 X132.57 Y145.46 E169.27433
G1 X132.69 Y145.90 E169.30260
G1 X132.79 Y146.69 E169.35237
G1 X132.76 Y147.53 E169.40525
G1 X132.57 Y148.39 E169.45973
G1 X132.23 Y149.15 E169.51181
G1 X131.94 Y149.64 E169.54716
G1 X131.36 Y150.33 E169.60340
G1 X130.89 Y150.72 E169.64158
G1 X130.35 Y151.08 E169.68203
G1 X129.56 Y151.44 E169.73660
G1 X128.66 Y151.65 E169.79417
G1 X127.94 Y151.70 E169.83905
G1 X126.96 Y151.59 E169.90054
G1 X126.14 Y151.32 E169.95418
G1 X125.59 Y151.05 E169.99228
G1 X124.96 Y150.61 E170.04009
G1 X124.54 Y150.21 E170.07666
G1 X124.32 Y149.97 E170.09689
G1 X123.99 Y149.54 E170.13067
G1 X123.59 Y148.79 E170.18343
G1 X123.43 Y148.34 E170.21336
G1 X123.31 Y147.91 E170.24149
G1 X123.21 Y147.11 E170.29126
G1 X123.25 Y146.27 E170.34420
G1 X123.43 Y145.41 E170.39862
G1 X123.66 Y144.90 E170.43356
G1 X119.35 Y144.90 E170.70234
G1 X119.43 Y145.05 E170.71308
G1 X119.68 Y145.84 E170.76484
G1 X119.80 Y146.69 E170.81795
G1 X119.76 Y147.49 E170.86808
G1 X119.66 Y148.03 E170.90242
G1 X119.36 Y148.90 E170.95943
G1 X118.96 Y149.61 E171.01052
G1 X118.36 Y150.33 E171.06893
G1 X117.89 Y150.72 E171.10711
G1 X117.35 Y151.08 E171.14756
G1 X116.56 Y151.44 E171.20213
G1 X115.66 Y151.65 E171.25970
G1 X114.94 Y151.70 E171.30458
G1 X113.96 Y151.59 E171.36606
G1 X113.14 Y151.32 E171.41971
G1 X112.59 Y151.05 E171.45780
G1 X111.96 Y150.61 E171.50562
G1 X111.54 Y150.21 E171.54219
G1 X111.32 Y149.97 E171.56242
G1 X110.99 Y149.54 E171.59620
G1 X110.57 Y148.75 E171.65200
G1 X110.32 Y147.96 E171.70379
G1 X110.21 Y147.11 E171.75684
G1 X110.24 Y146.31 E171.80697
G1 X110.34 Y145.77 E171.84131
G1 X110.64 Y144.91 E171.89827
G1 X110.64 Y144.90 E171.89863
G1 X94.35 Y144.90 E172.91440
G1 X94.39 Y144.96 E172.91853
G1 X94.57 Y145.45 E172.95126
G1 X94.69 Y145.90 E172.98005
G1 X94.79 Y146.69 E173.02982
G1 X94.76 Y147.54 E173.08301
G1 X94.56 Y148.41 E173.13844
G1 X94.23 Y149.16 E173.18960
G1 X93.97 Y149.59 E173.22140
G1 X93.63 Y150.04 E173.25602
G1 X93.07 Y150.58 E173.30444
G1 X92.87 Y150.74 E173.32075
G1 X92.35 Y151.08 E173.35941
G1 X91.56 Y151.44 E173.41398
G1 X90.66 Y151.65 E173.47155
G1 X89.94 Y151.70 E173.51643
G1 X88.96 Y151.59 E173.57791
G1 X88.14 Y151.32 E173.63156
G1 X87.59 Y151.05 E173.66965
G1 X86.96 Y150.61 E173.71747
G1 X86.54 Y150.21 E173.75404
G1 X86.32 Y149.97 E173.77427
G1 X85.99 Y149.54 E173.80805
G1 X85.59 Y148.79 E173.86081
G1 X85.43 Y148.34 E173.89073
G1 X85.31 Y147.91 E173.91887
G1 X85.21 Y147.11 E173.96864
G1 X85.25 Y146.27 E174.02158
G1 X85.43 Y145.41 E174.07600
G1 X85.66 Y144.90 E174.11094
G1 X69.35 Y144.90 E175.12807
G1 X69.43 Y145.05 E175.13881
G1 X69.68 Y145.84 E175.19057
G1 X69.80 Y146.69 E175.24368
G1 X69.76 Y147.49 E175.29381
G1 X69.66 Y148.03 E175.32815
G1 X69.36 Y148.90 E175.38516
G1 X68.96 Y149.61 E175.43625
G1 X68.36 Y150.33 E175.49466
G1 X67.89 Y150.72 E175.53284
G1 X67.35 Y151.08 E175.57329
G1 X66.56 Y151.44 E175.62786
G1 X65.66 Y151.65 E175.68543
G1 X64.94 Y151.70 E175.73031
G1 X63.96 Y151.59 E175.79179
G1 X63.14 Y151.32 E175.84544
G1 X62.59 Y151.05 E175.88354
G1 X61.96 Y150.61 E175.93135
G1 X61.54 Y150.21 E175.96792
G1 X61.32 Y149.97 E175.98815
G1 X60.99 Y149.54 E176.02193
G1 X60.57 Y148.75 E176.07773
G1 X60.32 Y147.96 E176.12952
G1 X60.21 Y147.11 E176.18257
G1 X60.24 Y146.31 E176.23270
G1 X60.34 Y145.77 E176.26704
G1 X60.64 Y144.91 E176.32400
G1 X60.64 Y144.90 E176.32436
G1 X57.75 Y144.90 E176.50472
G1 X57.75 Y134.90 E177.12834
G1 X61.07 Y134.90 E177.33526
G1 X69.25 Y99.46 E179.60384
G1 X69.25 Y76.90 E181.01043
G1 X85.25 Y76.90 E182.00823
G1 X85.25 Y86.90 E182.63186
G1 X79.25 Y86.90 E183.00604
G1 X79.25 Y134.90 E185.99945
G1 X124.07 Y134.90 E188.79443
G1 X132.25 Y99.46 E191.06300
G1 X132.25 Y76.90 E192.46959
G1 X148.25 Y76.90 E193.46740
G1 X148.25 Y86.90 E194.09102
G1 X142.25 Y86.90 E194.46520
G1 X142.25 Y134.90 E197.45861
G1 X187.07 Y134.90 E200.25352
G1 X195.25 Y99.46 E202.52211
G1 X195.25 Y76.90 E203.92871
G1 X211.25 Y76.90 E204.92651
G1 X211.25 Y86.90 E205.55014
G1 X205.25 Y86.90 E205.92431
G1 X205.25 Y134.90 E208.91773
G1 X247.25 Y134.90 E211.53696
G1 X247.25 Y144.90 E212.16059
G1 X245.35 Y144.90 E212.27920
G1 X245.43 Y145.05 E212.28994
G1 X245.68 Y145.84 E212.34170
G1 X245.79 Y146.69 E212.39481
G1 X245.76 Y147.49 E212.44494
G1 X245.66 Y148.03 E212.47928
G1 X245.36 Y148.90 E212.53629
G1 X244.96 Y149.61 E212.58738
G1 X244.36 Y150.33 E212.64579
G1 X243.89 Y150.72 E212.68397
G1 X243.35 Y151.08 E212.72442
G1 X242.55 Y151.44 E212.77899
G1 X241.66 Y151.65 E212.83656
G1 X240.94 Y151.70 E212.88131
G1 X239.96 Y151.59 E212.94292
G1 X239.14 Y151.32 E212.99658
G1 X238.59 Y151.05 E213.03468
G1 X237.96 Y150.61 E213.08249
G1 X237.53 Y150.21 E213.11907
G1 X237.32 Y149.97 E213.13930
G1 X236.99 Y149.54 E213.17307
G1 X236.57 Y148.75 E213.22887
G1 X236.32 Y147.96 E213.28067
G1 X236.21 Y147.11 E213.33372
G1 X236.24 Y146.31 E213.38385
G1 X236.34 Y145.77 E213.41818
G1 X236.64 Y144.91 E213.47514
G1 X236.64 Y144.90 E213.47551
G1 X220.35 Y144.90 E214.49127
G1 X220.39 Y144.96 E214.49559
G1 X220.57 Y145.45 E214.52813
G1 X220.69 Y145.90 E214.55692
G1 X220.79 Y146.69 E214.60669
G1 X220.75 Y147.54 E214.65988
G1 X220.56 Y148.41 E214.71531
G1 X220.23 Y149.15 E214.76619
G1 X219.94 Y149.64 E214.80148
G1 X219.36 Y150.33 E214.85772
G1 X218.89 Y150.72 E214.89590
G1 X218.35 Y151.08 E214.93635
G1 X217.55 Y151.44 E214.99092
G1 X216.66 Y151.65 E215.04849
G1 X215.94 Y151.70 E215.09324
G1 X214.96 Y151.59 E215.15485
G1 X214.14 Y151.32 E215.20851
G1 X213.59 Y151.05 E215.24661
G1 X212.96 Y150.61 E215.29442
G1 X212.50 Y150.17 E215.33444
G1 X212.02 Y149.58 E215.38175
G1 X211.59 Y148.79 E215.43758
G1 X211.43 Y148.34 E215.46771
G1 X211.31 Y147.91 E215.49584
G1 X211.21 Y147.11 E215.54561
G1 X211.24 Y146.27 E215.59855
G1 X211.43 Y145.41 E215.65298
G1 X211.66 Y144.90 E215.68789
G1 X195.35 Y144.90 E216.70496
G1 X195.43 Y145.05 E216.71570
G1 X195.68 Y145.84 E216.76745
G1 X195.79 Y146.69 E216.82057
G1 X195.76 Y147.49 E216.87070
G1 X195.66 Y148.03 E216.90503
G1 X195.36 Y148.90 E216.96205
G1 X194.96 Y149.61 E217.01314
G1 X194.36 Y150.33 E217.07155
G1 X193.89 Y150.72 E217.10972
G1 X193.35 Y151.08 E217.15018
G1 X192.55 Y151.44 E217.20474
G1 X191.66 Y151.65 E217.26232
G1 X190.94 Y151.70 E217.30707
G1 X189.96 Y151.59 E217.36867
G1 X189.14 Y151.32 E217.42234
G1 X188.59 Y151.05 E217.46043
G1 X187.96 Y150.61 E217.50825
G1 X187.53 Y150.21 E217.54482
G1 X187.32 Y149.97 E217.56505
G1 X186.99 Y149.54 E217.59883
G1 X186.57 Y148.75 E217.65463
G1 X186.32 Y147.96 E217.70642
G1 X186.21 Y147.11 E217.75947
G1 X186.24 Y146.31 E217.80960
G1 X186.34 Y145.77 E217.84394
G1 X186.64 Y144.91 E217.90090
G1 X186.64 Y144.90 E217.90126
G1 X182.35 Y144.90 E218.16892
G1 X182.41 Y145.01 E218.17662
G1 X182.57 Y145.46 E218.20641
G1 X182.69 Y145.90 E218.23468
G1 X182.79 Y146.69 E218.28445
G1 X182.75 Y147.53 E218.33733
G1 X182.57 Y148.39 E218.39181
G1 X182.23 Y149.15 E218.44389
G1 X181.94 Y149.64 E218.47924
G1 X181.36 Y150.33 E218.53548
G1 X180.89 Y150.72 E218.57366
G1 X180.35 Y151.08 E218.61411
G1 X179.55 Y151.44 E218.66868
G1 X178.66 Y151.65 E218.72625
G1 X177.94 Y151.70 E218.77100
G1 X176.96 Y151.59 E218.83261
G1 X176.14 Y151.32 E218.88627
G1 X175.59 Y151.05 E218.92437
G1 X174.96 Y150.61 E218.97218
G1 X174.53 Y150.21 E219.00876
G1 X174.32 Y149.97 E219.02898
G1 X173.99 Y149.54 E219.06276
G1 X173.59 Y148.79 E219.11552
G1 X173.43 Y148.34 E219.14545
G1 X173.31 Y147.91 E219.17358
G1 X173.21 Y147.11 E219.22335
G1 X173.24 Y146.27 E219.27629
G1 X173.43 Y145.41 E219.33071
G1 X173.66 Y144.90 E219.36565
G1 X157.35 Y144.90 E220.38247
G1 X157.38 Y144.96 E220.38660
G1 X157.57 Y145.45 E220.41934
G1 X157.69 Y145.90 E220.44813
G1 X157.79 Y146.69 E220.49790
G1 X157.75 Y147.54 E220.55108
G1 X157.56 Y148.41 E220.60652
G1 X157.23 Y149.16 E220.65767
G1 X156.97 Y149.59 E220.68948
G1 X156.63 Y150.04 E220.72409
G1 X156.07 Y150.58 E220.77252
G1 X155.87 Y150.74 E220.78883
G1 X155.35 Y151.08 E220.82749
G1 X154.55 Y151.44 E220.88205
G1 X153.66 Y151.65 E220.93963
G1 X152.94 Y151.70 E220.98444
G0 F6000 X152.95 Y151.20
G1 F2700 X152.07 Y151.09 E221.04002
G1 X151.33 Y150.86 E221.08832
G1 X150.85 Y150.62 E221.12176
G1 X150.28 Y150.22 E221.16501
G1 X149.86 Y149.83 E221.20061
G1 X149.44 Y149.31 E221.24287
G1 X149.05 Y148.59 E221.29351
G1 X148.91 Y148.19 E221.31999
G1 X148.80 Y147.81 E221.34478
G1 X148.71 Y147.09 E221.38976
G1 X148.74 Y146.33 E221.43720
G1 X148.91 Y145.57 E221.48589
G1 X149.22 Y144.88 E221.53311
G1 X149.45 Y144.49 E221.56123
G1 X149.52 Y144.40 E221.56822
G1 X131.48 Y144.40 E222.69274
G1 X131.59 Y144.54 E222.70333
G1 X131.95 Y145.21 E222.75129
G1 X132.09 Y145.61 E222.77757
G1 X132.20 Y146.00 E222.80242
G1 X132.29 Y146.71 E222.84741
G1 X132.26 Y147.47 E222.89485
G1 X132.09 Y148.23 E222.94352
G1 X131.79 Y148.92 E222.99063
G1 X131.53 Y149.35 E223.02146
G1 X131.00 Y149.97 E223.07261
G1 X130.59 Y150.32 E223.10636
G1 X130.11 Y150.64 E223.14235
G1 X129.39 Y150.97 E223.19136
G1 X128.58 Y151.16 E223.24337
G1 X127.95 Y151.20 E223.28281
G1 X127.07 Y151.09 E223.33839
G1 X126.33 Y150.86 E223.38669
G1 X125.85 Y150.62 E223.42013
G1 X125.28 Y150.22 E223.46337
G1 X124.89 Y149.86 E223.49624
G1 X124.71 Y149.65 E223.51391
G1 X124.41 Y149.27 E223.54399
G1 X124.05 Y148.59 E223.59206
G1 X123.91 Y148.19 E223.61834
G1 X123.80 Y147.81 E223.64313
G1 X123.71 Y147.09 E223.68811
G1 X123.74 Y146.33 E223.73555
G1 X123.91 Y145.57 E223.78424
G1 X124.21 Y144.88 E223.83127
G1 X124.47 Y144.46 E223.86210
G1 X124.51 Y144.40 E223.86652
G1 X121.25 Y144.40 E224.07007
G1 X121.25 Y135.40 E224.63134
G1 X124.47 Y135.40 E224.83183
G1 X132.75 Y99.51 E227.12883
G1 X132.75 Y77.40 E228.50774
G1 X147.75 Y77.40 E229.44318
G1 X147.75 Y86.40 E230.00444
G1 X141.75 Y86.40 E230.37862
G1 X141.75 Y135.40 E233.43439
G1 X183.75 Y135.40 E236.05363
G1 X183.75 Y144.40 E236.61489
G1 X181.48 Y144.40 E236.75627
G1 X181.59 Y144.54 E236.76686
G1 X181.95 Y145.21 E236.81482
G1 X182.09 Y145.61 E236.84110
G1 X182.20 Y146.00 E236.86595
G1 X182.29 Y146.71 E236.91093
G1 X182.26 Y147.47 E236.95837
G1 X182.09 Y148.23 E237.00705
G1 X181.79 Y148.92 E237.05416
G1 X181.53 Y149.35 E237.08498
G1 X181.00 Y149.97 E237.13613
G1 X180.59 Y150.32 E237.16989
G1 X180.11 Y150.64 E237.20588
G1 X179.39 Y150.97 E237.25489
G1 X178.58 Y151.16 E237.30688
G1 X177.95 Y151.20 E237.34626
G1 X177.06 Y151.09 E237.40190
G1 X176.33 Y150.86 E237.45020
G1 X175.85 Y150.62 E237.48364
G1 X175.28 Y150.22 E237.52689
G1 X174.89 Y149.86 E237.55976
G1 X174.71 Y149.65 E237.57742
G1 X174.41 Y149.27 E237.60751
G1 X174.05 Y148.59 E237.65558
G1 X173.91 Y148.19 E237.68186
G1 X173.80 Y147.81 E237.70665
G1 X173.71 Y147.09 E237.75163
G1 X173.74 Y146.33 E237.79907
G1 X173.91 Y145.57 E237.84776
G1 X174.21 Y144.88 E237.89479
G1 X174.47 Y144.46 E237.92561
G1 X174.51 Y144.40 E237.93004
G1 X156.49 Y144.40 E239.05431
G1 X156.56 Y144.49 E239.06167
G1 X156.93 Y145.17 E239.10962
G1 X157.09 Y145.60 E239.13863
G1 X157.20 Y146.00 E239.16394
G1 X157.29 Y146.71 E239.20892
G1 X157.26 Y147.47 E239.25655
G1 X157.08 Y148.25 E239.30622
G1 X156.78 Y148.93 E239.35241
G1 X156.55 Y149.31 E239.38044
G1 X156.25 Y149.70 E239.41100
G1 X155.74 Y150.20 E239.45576
G1 X155.57 Y150.34 E239.46924
G1 X155.11 Y150.64 E239.50380
G1 X154.39 Y150.97 E239.55281
G1 X153.58 Y151.16 E239.60480
G1 X152.95 Y151.20 E239.64418
G0 F6000 X152.96 Y150.70
G1 F2700 X152.17 Y150.60 E239.69386
G1 X151.52 Y150.39 E239.73677
G1 X151.10 Y150.19 E239.76561
G1 X150.59 Y149.83 E239.80432
G1 X150.23 Y149.49 E239.83543
G1 X149.85 Y149.03 E239.87267
G1 X149.51 Y148.38 E239.91815
G1 X149.38 Y148.04 E239.94098
G1 X149.30 Y147.71 E239.96240
G1 X149.21 Y147.07 E240.00267
G1 X149.24 Y146.40 E240.04456
G1 X149.39 Y145.73 E240.08748
G1 X149.66 Y145.11 E240.12962
G1 X149.86 Y144.77 E240.15402
G1 X150.12 Y144.43 E240.18057
G1 X150.59 Y143.98 E240.22159
G1 X150.69 Y143.90 E240.22904
G1 X130.32 Y143.90 E241.49924
G1 X130.74 Y144.28 E241.53461
G1 X130.91 Y144.47 E241.55051
G1 X131.16 Y144.81 E241.57685
G1 X131.49 Y145.42 E241.62012
G1 X131.62 Y145.76 E241.64275
G1 X131.71 Y146.09 E241.66425
G1 X131.79 Y146.73 E241.70452
G1 X131.76 Y147.40 E241.74641
G1 X131.61 Y148.08 E241.78933
G1 X131.34 Y148.69 E241.83139
G1 X131.12 Y149.06 E241.85771
G1 X130.65 Y149.62 E241.90373
G1 X130.29 Y149.93 E241.93310
G1 X129.87 Y150.21 E241.96473
G1 X129.23 Y150.49 E242.00819
G1 X128.51 Y150.66 E242.05456
G1 X127.96 Y150.70 E242.08856
G1 X127.17 Y150.60 E242.13824
G1 X126.52 Y150.39 E242.18115
G1 X126.10 Y150.19 E242.20999
G1 X125.59 Y149.83 E242.24870
G1 X125.25 Y149.51 E242.27791
G1 X125.09 Y149.33 E242.29297
G1 X124.84 Y149.00 E242.31931
G1 X124.51 Y148.38 E242.36267
G1 X124.38 Y148.04 E242.38536
G1 X124.30 Y147.71 E242.40678
G1 X124.21 Y147.07 E242.44705
G1 X124.24 Y146.40 E242.48893
G1 X124.39 Y145.73 E242.53186
G1 X124.66 Y145.11 E242.57386
G1 X124.88 Y144.75 E242.60018
G1 X125.35 Y144.18 E242.64620
G1 X125.68 Y143.90 E242.67336
G1 X121.75 Y143.90 E242.91869
G1 X121.75 Y135.90 E243.41759
G1 X124.86 Y135.90 E243.61173
G1 X133.25 Y99.57 E245.93708
G1 X133.25 Y77.90 E247.28835
G1 X147.25 Y77.90 E248.16143
G1 X147.25 Y85.90 E248.66034
G1 X141.25 Y85.90 E249.03451
G1 X141.25 Y135.90 E252.15265
G1 X183.25 Y135.90 E254.77188
G1 X183.25 Y143.90 E255.27079
G1 X180.32 Y143.90 E255.45370
G1 X180.74 Y144.28 E255.48906
G1 X180.91 Y144.47 E255.50496
G1 X181.16 Y144.81 E255.53131
G1 X181.49 Y145.42 E255.57458
G1 X181.62 Y145.76 E255.59721
G1 X181.70 Y146.09 E255.61870
G1 X181.79 Y146.73 E255.65897
G1 X181.76 Y147.40 E255.70086
G1 X181.61 Y148.08 E255.74379
G1 X181.34 Y148.69 E255.78584
G1 X181.12 Y149.06 E255.81217
G1 X180.65 Y149.62 E255.85818
G1 X180.29 Y149.93 E255.88755
G1 X179.87 Y150.21 E255.91919
G1 X179.23 Y150.49 E255.96265
G1 X178.51 Y150.66 E256.00901
G1 X177.96 Y150.70 E256.04295
G1 X177.17 Y150.60 E256.09269
G1 X176.52 Y150.39 E256.13560
G1 X176.10 Y150.19 E256.16444
G1 X175.59 Y149.83 E256.20316
G1 X175.25 Y149.51 E256.23236
G1 X175.09 Y149.33 E256.24742
G1 X174.84 Y149.00 E256.27377
G1 X174.51 Y148.38 E256.31712
G1 X174.38 Y148.04 E256.33981
G1 X174.29 Y147.71 E256.36123
G1 X174.21 Y147.07 E256.40150
G1 X174.24 Y146.40 E256.44339
G1 X174.39 Y145.73 E256.48631
G1 X174.66 Y145.11 E256.52831
G1 X174.88 Y144.75 E256.55463
G1 X175.35 Y144.18 E256.60065
G1 X175.68 Y143.90 E256.62781
G1 X155.32 Y143.90 E257.89789
G1 X155.76 Y144.30 E257.93520
G1 X156.14 Y144.77 E257.97298
G1 X156.47 Y145.38 E258.01588
G1 X156.61 Y145.76 E258.04115
G1 X156.70 Y146.09 E258.06291
G1 X156.79 Y146.73 E258.10318
G1 X156.76 Y147.41 E258.14525
G1 X156.60 Y148.09 E258.18911
G1 X156.34 Y148.70 E258.23027
G1 X156.14 Y149.03 E258.25458
G1 X155.88 Y149.37 E258.28114
G1 X155.41 Y149.83 E258.32215
G1 X155.28 Y149.93 E258.33275
G1 X154.87 Y150.21 E258.36334
G1 X154.23 Y150.49 E258.40680
G1 X153.51 Y150.66 E258.45317
G1 X152.96 Y150.70 E258.48711
G0 F6000 X152.98 Y150.20
G1 F2700 X152.28 Y150.11 E258.53088
G1 X151.71 Y149.93 E258.56841
G1 X151.36 Y149.75 E258.59268
G1 X150.91 Y149.44 E258.62674
G1 X150.60 Y149.15 E258.65347
G1 X150.27 Y148.75 E258.68571
G1 X149.97 Y148.18 E258.72595
G1 X149.86 Y147.89 E258.74512
G1 X149.79 Y147.61 E258.76320
G1 X149.71 Y147.05 E258.79868
G1 X149.74 Y146.46 E258.83514
G1 X149.87 Y145.88 E258.87225
G1 X150.10 Y145.34 E258.90934
G1 X150.28 Y145.05 E258.93001
G1 X150.50 Y144.77 E258.95248
G1 X150.93 Y144.35 E258.98983
G1 X151.03 Y144.26 E258.99848
G1 X151.22 Y144.15 E259.01219
G1 X151.22 Y143.40 E259.05884
G1 X129.78 Y143.40 E260.39602
G1 X129.78 Y144.15 E260.44286
G1 X129.98 Y144.27 E260.45739
G1 X130.38 Y144.63 E260.49126
G1 X130.52 Y144.79 E260.50424
G1 X130.74 Y145.08 E260.52689
G1 X131.03 Y145.62 E260.56545
G1 X131.14 Y145.91 E260.58449
G1 X131.21 Y146.19 E260.60262
G1 X131.29 Y146.75 E260.63811
G1 X131.26 Y147.34 E260.67450
G1 X131.13 Y147.92 E260.71174
G1 X130.90 Y148.47 E260.74877
G1 X130.72 Y148.76 E260.77055
G1 X130.29 Y149.26 E260.81144
G1 X129.99 Y149.53 E260.83643
G1 X129.62 Y149.77 E260.86365
G1 X129.07 Y150.02 E260.90153
G1 X128.43 Y150.16 E260.94231
G1 X127.98 Y150.20 E260.97088
G1 X127.28 Y150.11 E261.01465
G1 X126.71 Y149.93 E261.05218
G1 X126.36 Y149.75 E261.07644
G1 X125.91 Y149.44 E261.11051
G1 X125.61 Y149.16 E261.13610
G1 X125.48 Y149.01 E261.14855
G1 X125.26 Y148.72 E261.17120
G1 X124.97 Y148.18 E261.20982
G1 X124.86 Y147.89 E261.22891
G1 X124.79 Y147.61 E261.24699
G1 X124.71 Y147.05 E261.28247
G1 X124.74 Y146.46 E261.31893
G1 X124.87 Y145.88 E261.35604
G1 X125.11 Y145.34 E261.39307
G1 X125.28 Y145.04 E261.41486
G1 X125.71 Y144.54 E261.45574
G1 X126.02 Y144.27 E261.48166
G1 X126.22 Y144.15 E261.49601
G1 X126.22 Y143.40 E261.54266
G1 X122.25 Y143.40 E261.79030
G1 X122.25 Y136.40 E262.22684
G1 X125.26 Y136.40 E262.41455
G1 X133.75 Y99.62 E264.76839
G1 X133.75 Y78.40 E266.09191
G1 X146.75 Y78.40 E266.90263
G1 X146.75 Y85.40 E267.33917
G1 X140.75 Y85.40 E267.71335
G1 X140.75 Y136.40 E270.89385
G1 X182.75 Y136.40 E273.51308
G1 X182.75 Y143.40 E273.94962
G1 X179.78 Y143.40 E274.13496
G1 X179.78 Y144.15 E274.18180
G1 X179.98 Y144.27 E274.19633
G1 X180.38 Y144.63 E274.23020
G1 X180.52 Y144.79 E274.24318
G1 X180.74 Y145.08 E274.26583
G1 X181.03 Y145.62 E274.30439
G1 X181.14 Y145.91 E274.32343
G1 X181.21 Y146.19 E274.34157
G1 X181.29 Y146.75 E274.37705
G1 X181.26 Y147.34 E274.41344
G1 X181.13 Y147.92 E274.45068
G1 X180.90 Y148.47 E274.48771
G1 X180.72 Y148.76 E274.50950
G1 X180.29 Y149.26 E274.55038
G1 X179.99 Y149.53 E274.57537
G1 X179.62 Y149.77 E274.60260
G1 X179.07 Y150.02 E274.64047
G1 X178.43 Y150.16 E274.68125
G1 X177.98 Y150.20 E274.70976
G1 X177.28 Y150.11 E274.75359
G1 X176.71 Y149.93 E274.79112
G1 X176.36 Y149.75 E274.81539
G1 X175.91 Y149.44 E274.84945
G1 X175.61 Y149.16 E274.87504
G1 X175.48 Y149.01 E274.88749
G1 X175.26 Y148.72 E274.91014
G1 X174.97 Y148.18 E274.94876
G1 X174.86 Y147.89 E274.96785
G1 X174.79 Y147.61 E274.98593
G1 X174.71 Y147.05 E275.02141
G1 X174.74 Y146.46 E275.05787
G1 X174.87 Y145.88 E275.09498
G1 X175.10 Y145.34 E275.13201
G1 X175.28 Y145.04 E275.15380
G1 X175.71 Y144.54 E275.19468
G1 X176.02 Y144.27 E275.22060
G1 X176.22 Y144.15 E275.23496
G1 X176.22 Y143.40 E275.28160
G1 X154.78 Y143.40 E276.61879
G1 X154.78 Y144.15 E276.66562
G1 X154.98 Y144.27 E276.68016
G1 X155.40 Y144.65 E276.71521
G1 X155.72 Y145.05 E276.74776
G1 X156.02 Y145.58 E276.78555
G1 X156.14 Y145.91 E276.80710
G1 X156.21 Y146.19 E276.82537
G1 X156.29 Y146.75 E276.86086
G1 X156.26 Y147.34 E276.89737
G1 X156.13 Y147.94 E276.93547
G1 X155.89 Y148.47 E276.97166
G1 X155.72 Y148.75 E276.99225
G1 X155.50 Y149.04 E277.01471
G1 X155.07 Y149.45 E277.05207
G1 X154.98 Y149.53 E277.05974
G1 X154.62 Y149.77 E277.08638
G1 X154.07 Y150.02 E277.12425
G1 X153.43 Y150.16 E277.16503
G1 X152.98 Y150.20 E277.19354
G0 F6000 X152.99 Y149.69
G1 F2700 X152.39 Y149.62 E277.23141
G1 X151.90 Y149.46 E277.26357
G1 X151.61 Y149.32 E277.28321
G1 X151.22 Y149.05 E277.31274
G1 X150.97 Y148.81 E277.33502
G1 X150.69 Y148.47 E277.36220
G1 X150.42 Y147.97 E277.39727
G1 X150.34 Y147.74 E277.41280
G1 X150.28 Y147.51 E277.42752
G1 X150.21 Y147.03 E277.45822
G1 X150.24 Y146.53 E277.48918
G1 X150.34 Y146.04 E277.52055
G1 X150.55 Y145.57 E277.55261
G1 X150.69 Y145.34 E277.56951
G1 X150.87 Y145.10 E277.58797
G1 X151.26 Y144.72 E277.62157
G1 X151.32 Y144.67 E277.62671
G1 X151.72 Y144.43 E277.65590
G1 X151.72 Y142.90 E277.75125
G1 X129.28 Y142.90 E279.15080
G1 X129.28 Y144.44 E279.24665
G1 X129.68 Y144.68 E279.27586
G1 X130.03 Y144.99 E279.30487
G1 X130.14 Y145.11 E279.31498
G1 X130.32 Y145.35 E279.33389
G1 X130.58 Y145.83 E279.36776
G1 X130.66 Y146.06 E279.38323
G1 X130.72 Y146.29 E279.39795
G1 X130.79 Y146.78 E279.42865
G1 X130.77 Y147.27 E279.45961
G1 X130.66 Y147.76 E279.49104
G1 X130.45 Y148.24 E279.52310
G1 X130.31 Y148.47 E279.54033
G1 X129.94 Y148.91 E279.57613
G1 X129.69 Y149.12 E279.59670
G1 X129.38 Y149.33 E279.61956
G1 X128.91 Y149.54 E279.65182
G1 X128.36 Y149.67 E279.68704
G1 X127.99 Y149.69 E279.71017
G1 X127.39 Y149.62 E279.74804
G1 X126.90 Y149.46 E279.78021
G1 X126.61 Y149.32 E279.79984
G1 X126.22 Y149.05 E279.82937
G1 X125.97 Y148.81 E279.85121
G1 X125.86 Y148.69 E279.86115
G1 X125.68 Y148.45 E279.88006
G1 X125.42 Y147.97 E279.91393
G1 X125.34 Y147.74 E279.92945
G1 X125.28 Y147.51 E279.94417
G1 X125.21 Y147.03 E279.97487
G1 X125.23 Y146.53 E280.00583
G1 X125.34 Y146.04 E280.03720
G1 X125.55 Y145.57 E280.06926
G1 X125.69 Y145.33 E280.08649
G1 X126.06 Y144.89 E280.12229
G1 X126.32 Y144.68 E280.14317
G1 X126.72 Y144.43 E280.17258
G1 X126.72 Y142.90 E280.26793
G1 X122.75 Y142.90 E280.51564
G1 X122.75 Y136.90 E280.88981
G1 X125.66 Y136.90 E281.07116
G1 X134.25 Y99.68 E283.45335
G1 X134.25 Y78.90 E284.74925
G1 X146.25 Y78.90 E285.49760
G1 X146.25 Y84.90 E285.87178
G1 X140.25 Y84.90 E286.24595
G1 X140.25 Y136.90 E289.48882
G1 X182.25 Y136.90 E292.10805
G1 X182.25 Y142.90 E292.48223
G1 X179.28 Y142.90 E292.66751
G1 X179.28 Y144.44 E292.76336
G1 X179.68 Y144.68 E292.79257
G1 X180.03 Y144.99 E292.82158
G1 X180.14 Y145.11 E292.83169
G1 X180.32 Y145.35 E292.85060
G1 X180.58 Y145.83 E292.88447
G1 X180.66 Y146.06 E292.89994
G1 X180.72 Y146.29 E292.91466
G1 X180.79 Y146.78 E292.94536
G1 X180.76 Y147.27 E292.97632
G1 X180.66 Y147.76 E293.00775
G1 X180.45 Y148.24 E293.03981
G1 X180.31 Y148.47 E293.05704
G1 X179.94 Y148.91 E293.09283
G1 X179.69 Y149.12 E293.11340
G1 X179.38 Y149.33 E293.13627
G1 X178.91 Y149.54 E293.16853
G1 X178.36 Y149.67 E293.20375
G1 X177.99 Y149.69 E293.22681
G1 X177.39 Y149.62 E293.26475
G1 X176.90 Y149.46 E293.29691
G1 X176.61 Y149.32 E293.31655
G1 X176.22 Y149.05 E293.34608
G1 X175.97 Y148.81 E293.36792
G1 X175.86 Y148.69 E293.37785
G1 X175.68 Y148.45 E293.39676
G1 X175.42 Y147.97 E293.43063
G1 X175.34 Y147.74 E293.44616
G1 X175.28 Y147.51 E293.46088
G1 X175.21 Y147.03 E293.49158
G1 X175.23 Y146.53 E293.52254
G1 X175.34 Y146.04 E293.55391
G1 X175.55 Y145.57 E293.58597
G1 X175.69 Y145.33 E293.60320
G1 X176.06 Y144.89 E293.63899
G1 X176.32 Y144.68 E293.65988
G1 X176.72 Y144.43 E293.68929
G1 X176.72 Y142.90 E293.78464
G1 X154.28 Y142.90 E295.18418
G1 X154.28 Y144.44 E295.28004
G1 X154.68 Y144.68 E295.30925
G1 X155.03 Y144.99 E295.33869
G1 X155.31 Y145.33 E295.36597
G1 X155.56 Y145.79 E295.39876
G1 X155.66 Y146.06 E295.41652
G1 X155.72 Y146.29 E295.43131
G1 X155.79 Y146.78 E295.46202
G1 X155.76 Y147.27 E295.49298
G1 X155.65 Y147.78 E295.52532
G1 X155.45 Y148.24 E295.55648
G1 X155.31 Y148.47 E295.57335
G1 X155.13 Y148.70 E295.59181
G1 X154.74 Y149.08 E295.62542
G1 X154.68 Y149.13 E295.63025
G1 X154.38 Y149.33 E295.65289
G1 X153.91 Y149.54 E295.68515
G1 X153.36 Y149.67 E295.72037
G1 X152.99 Y149.69 E295.74343
G0 F6000 X149.18 Y151.25
G1 F2700 X148.76 Y150.85 E295.77926
G1 X148.18 Y150.14 E295.83664
G1 X147.68 Y149.21 E295.90283
G1 X147.47 Y148.64 E295.94023
G1 X147.33 Y148.10 E295.97510
G1 X147.20 Y147.16 E296.03443
G1 X147.25 Y146.13 E296.09829
G1 X147.30 Y145.90 E296.11324
G1 X133.70 Y145.90 E296.96162
G1 X133.80 Y146.64 E297.00837
G1 X133.75 Y147.67 E297.07217
G1 X133.52 Y148.70 E297.13821
G1 X133.12 Y149.61 E297.20029
G1 X132.76 Y150.22 E297.24473
G1 X132.07 Y151.04 E297.31114
G1 X131.82 Y151.25 E297.33154
G1 X149.18 Y151.25 E298.41416
G0 F6000 X148.75 Y151.75
G1 F2700 X148.75 Y162.75 E299.10015
G1 X142.75 Y162.75 E299.47432
G1 X142.75 Y209.75 E302.40543
G1 X186.67 Y209.75 E305.14428
G1 X194.51 Y175.80 E307.31707
G1 X194.75 Y174.75 E307.38466
G1 X194.75 Y151.75 E308.81881
G1 X211.75 Y151.75 E309.87898
G1 X211.75 Y162.75 E310.56497
G1 X205.75 Y162.75 E310.93915
G1 X205.75 Y209.75 E313.87026
G1 X247.75 Y209.75 E316.48949
G1 X247.75 Y220.75 E317.17548
G1 X246.06 Y220.75 E317.28063
G1 X246.17 Y221.08 E317.30234
G1 X246.30 Y222.01 E317.36100
G1 X246.25 Y222.89 E317.41594
G1 X246.15 Y223.51 E317.45483
G1 X245.82 Y224.45 E317.51702
G1 X245.38 Y225.25 E317.57385
G1 X244.71 Y226.03 E317.63787
G1 X244.19 Y226.47 E317.68048
G1 X243.59 Y226.87 E317.72529
G1 X242.72 Y227.27 E317.78541
G1 X241.73 Y227.50 E317.84855
G1 X240.93 Y227.55 E317.89880
G1 X239.85 Y227.42 E317.96631
G1 X238.95 Y227.13 E318.02540
G1 X238.34 Y226.83 E318.06804
G1 X237.65 Y226.35 E318.12043
G1 X237.18 Y225.91 E318.16066
G1 X236.93 Y225.63 E318.18345
G1 X236.57 Y225.16 E318.22097
G1 X236.11 Y224.29 E318.28207
G1 X235.83 Y223.42 E318.33936
G1 X235.70 Y222.48 E318.39802
G1 X235.74 Y221.60 E318.45296
G1 X235.85 Y220.99 E318.49185
G1 X235.94 Y220.75 E318.50777
G1 X221.07 Y220.75 E319.43479
G1 X221.18 Y221.15 E319.46042
G1 X221.29 Y222.01 E319.51497
G1 X221.25 Y222.95 E319.57371
G1 X221.04 Y223.91 E319.63489
G1 X220.68 Y224.73 E319.69074
G1 X220.35 Y225.28 E319.73054
G1 X219.71 Y226.03 E319.79186
G1 X219.19 Y226.47 E319.83446
G1 X218.59 Y226.87 E319.87928
G1 X217.72 Y227.27 E319.93939
G1 X216.73 Y227.50 E320.00253
G1 X215.93 Y227.55 E320.05279
G1 X214.85 Y227.42 E320.12030
G1 X213.95 Y227.13 E320.17939
G1 X213.34 Y226.83 E320.22203
G1 X212.65 Y226.35 E320.27441
G1 X212.13 Y225.86 E320.31884
G1 X211.60 Y225.21 E320.37121
G1 X211.14 Y224.35 E320.43210
G1 X210.95 Y223.84 E320.46579
G1 X210.82 Y223.35 E320.49742
G1 X210.71 Y222.48 E320.55197
G1 X210.75 Y221.55 E320.61034
G1 X210.92 Y220.75 E320.66143
G1 X196.06 Y220.75 E321.58808
G1 X196.17 Y221.08 E321.60980
G1 X196.30 Y222.01 E321.66846
G1 X196.25 Y222.89 E321.72339
G1 X196.15 Y223.51 E321.76228
G1 X195.82 Y224.45 E321.82447
G1 X195.38 Y225.25 E321.88130
G1 X194.71 Y226.03 E321.94533
G1 X194.19 Y226.47 E321.98793
G1 X193.59 Y226.87 E322.03274
G1 X192.72 Y227.27 E322.09286
G1 X191.73 Y227.50 E322.15600
G1 X190.93 Y227.55 E322.20625
G1 X189.85 Y227.42 E322.27377
G1 X188.95 Y227.13 E322.33285
G1 X188.34 Y226.83 E322.37550
G1 X187.65 Y226.35 E322.42788
G1 X187.18 Y225.91 E322.46811
G1 X186.93 Y225.63 E322.49090
G1 X186.57 Y225.16 E322.52842
G1 X186.11 Y224.29 E322.58952
G1 X185.83 Y223.42 E322.64682
G1 X185.70 Y222.48 E322.70548
G1 X185.74 Y221.60 E322.76042
G1 X185.85 Y220.99 E322.79930
G1 X185.94 Y220.75 E322.81522
G1 X183.07 Y220.75 E322.99389
G1 X183.18 Y221.15 E323.01952
G1 X183.29 Y222.01 E323.07407
G1 X183.25 Y222.95 E323.13243
G1 X183.04 Y223.89 E323.19267
G1 X182.68 Y224.73 E323.24972
G1 X182.35 Y225.28 E323.28965
G1 X181.71 Y226.03 E323.35098
G1 X181.19 Y226.47 E323.39358
G1 X180.59 Y226.87 E323.43839
G1 X179.72 Y227.27 E323.49851
G1 X178.73 Y227.50 E323.56165
G1 X177.93 Y227.55 E323.61191
G1 X176.85 Y227.42 E323.67942
G1 X175.95 Y227.13 E323.73851
G1 X175.34 Y226.83 E323.78115
G1 X174.65 Y226.35 E323.83353
G1 X174.18 Y225.91 E323.87377
G1 X173.93 Y225.63 E323.89655
G1 X173.57 Y225.16 E323.93407
G1 X173.13 Y224.34 E323.99144
G1 X172.95 Y223.84 E324.02487
G1 X172.82 Y223.35 E324.05650
G1 X172.71 Y222.48 E324.11106
G1 X172.75 Y221.55 E324.16942
G1 X172.92 Y220.75 E324.22052
G1 X158.07 Y220.75 E325.14667
G1 X158.18 Y221.15 E325.17229
G1 X158.29 Y222.01 E325.22684
G1 X158.25 Y222.95 E325.28558
G1 X158.04 Y223.91 E325.34677
G1 X157.67 Y224.74 E325.40289
G1 X157.38 Y225.22 E325.43848
G1 X157.00 Y225.72 E325.47713
G1 X156.40 Y226.30 E325.52926
G1 X156.16 Y226.49 E325.54846
G1 X155.59 Y226.87 E325.59107
G1 X154.72 Y227.27 E325.65119
G1 X153.73 Y227.50 E325.71433
G1 X152.93 Y227.55 E325.76459
G1 X151.85 Y227.42 E325.83210
G1 X150.95 Y227.13 E325.89113
G1 X150.34 Y226.83 E325.93377
G1 X149.65 Y226.35 E325.98615
G1 X149.13 Y225.86 E326.03058
G1 X148.60 Y225.21 E326.08295
G1 X148.14 Y224.35 E326.14383
G1 X147.95 Y223.84 E326.17753
G1 X147.82 Y223.35 E326.20916
G1 X147.71 Y222.48 E326.26371
G1 X147.75 Y221.55 E326.32207
G1 X147.92 Y220.75 E326.37317
G1 X133.07 Y220.75 E327.29932
G1 X133.18 Y221.15 E327.32495
G1 X133.29 Y222.01 E327.37950
G1 X133.25 Y222.95 E327.43786
G1 X133.04 Y223.89 E327.49810
G1 X132.68 Y224.73 E327.55515
G1 X132.35 Y225.28 E327.59508
G1 X131.71 Y226.03 E327.65641
G1 X131.19 Y226.47 E327.69901
G1 X130.59 Y226.87 E327.74383
G1 X129.72 Y227.27 E327.80394
G1 X128.73 Y227.50 E327.86714
G1 X127.92 Y227.55 E327.91746
G1 X126.85 Y227.42 E327.98491
G1 X125.95 Y227.13 E328.04394
G1 X125.34 Y226.83 E328.08658
G1 X124.65 Y226.35 E328.13896
G1 X124.18 Y225.91 E328.17920
G1 X123.93 Y225.63 E328.20199
G1 X123.57 Y225.16 E328.23950
G1 X123.14 Y224.34 E328.29687
G1 X122.95 Y223.84 E328.33031
G1 X122.82 Y223.35 E328.36194
G1 X122.71 Y222.48 E328.41649
G1 X122.75 Y221.55 E328.47485
G1 X122.92 Y220.75 E328.52595
G1 X120.06 Y220.75 E328.70424
G1 X120.17 Y221.08 E328.72596
G1 X120.30 Y222.01 E328.78462
G1 X120.26 Y222.89 E328.83956
G1 X120.15 Y223.51 E328.87845
G1 X119.82 Y224.45 E328.94063
G1 X119.38 Y225.25 E328.99747
G1 X118.71 Y226.03 E329.06149
G1 X118.19 Y226.47 E329.10409
G1 X117.59 Y226.87 E329.14891
G1 X116.72 Y227.27 E329.20902
G1 X115.73 Y227.50 E329.27222
G1 X114.92 Y227.55 E329.32254
G1 X113.85 Y227.42 E329.38999
G1 X112.95 Y227.13 E329.44902
G1 X112.34 Y226.83 E329.49166
G1 X111.65 Y226.35 E329.54404
G1 X111.18 Y225.91 E329.58428
G1 X110.93 Y225.63 E329.60707
G1 X110.57 Y225.16 E329.64459
G1 X110.11 Y224.29 E329.70569
G1 X109.83 Y223.42 E329.76298
G1 X109.70 Y222.48 E329.82164
G1 X109.75 Y221.60 E329.87658
G1 X109.85 Y220.99 E329.91547
G1 X109.94 Y220.75 E329.93139
G1 X95.07 Y220.75 E330.85841
G1 X95.18 Y221.15 E330.88403
G1 X95.30 Y222.01 E330.93858
G1 X95.25 Y222.95 E330.99733
G1 X95.04 Y223.91 E331.05851
G1 X94.67 Y224.74 E331.11464
G1 X94.38 Y225.22 E331.15022
G1 X94.00 Y225.72 E331.18887
G1 X93.40 Y226.30 E331.24100
G1 X93.17 Y226.49 E331.26020
G1 X92.59 Y226.87 E331.30282
G1 X91.72 Y227.27 E331.36293
G1 X90.73 Y227.50 E331.42614
G1 X89.92 Y227.55 E331.47645
G1 X88.85 Y227.42 E331.54390
G1 X87.95 Y227.13 E331.60293
G1 X87.34 Y226.83 E331.64557
G1 X86.65 Y226.35 E331.69795
G1 X86.18 Y225.91 E331.73819
G1 X85.93 Y225.63 E331.76098
G1 X85.57 Y225.16 E331.79850
G1 X85.14 Y224.34 E331.85586
G1 X84.95 Y223.84 E331.88930
G1 X84.82 Y223.35 E331.92093
G1 X84.71 Y222.48 E331.97548
G1 X84.75 Y221.55 E332.03384
G1 X84.92 Y220.75 E332.08494
G1 X70.06 Y220.75 E333.01159
G1 X70.17 Y221.08 E333.03330
G1 X70.30 Y222.01 E333.09196
G1 X70.26 Y222.89 E333.14690
G1 X70.15 Y223.51 E333.18579
G1 X69.82 Y224.45 E333.24798
G1 X69.38 Y225.25 E333.30481
G1 X68.71 Y226.03 E333.36883
G1 X68.19 Y226.47 E333.41144
G1 X67.59 Y226.87 E333.45625
G1 X66.72 Y227.27 E333.51637
G1 X65.73 Y227.50 E333.57957
G1 X64.92 Y227.55 E333.62988
G1 X63.85 Y227.42 E333.69734
G1 X62.95 Y227.13 E333.75636
G1 X62.34 Y226.83 E333.79901
G1 X61.65 Y226.35 E333.85139
G1 X61.18 Y225.91 E333.89162
G1 X60.93 Y225.63 E333.91441
G1 X60.57 Y225.16 E333.95193
G1 X60.11 Y224.29 E334.01303
G1 X59.83 Y223.42 E334.07033
G1 X59.70 Y222.48 E334.12899
G1 X59.74 Y221.60 E334.18392
G1 X59.85 Y220.99 E334.22281
G1 X59.94 Y220.75 E334.23873
G1 X57.25 Y220.75 E334.40636
G1 X57.25 Y209.75 E335.09235
G1 X60.67 Y209.75 E335.30557
G1 X68.51 Y175.80 E337.47834
G1 X68.75 Y174.75 E337.54593
G1 X68.75 Y151.75 E338.98009
G1 X85.75 Y151.75 E340.04026
G1 X85.75 Y162.75 E340.72625
G1 X79.75 Y162.75 E341.10042
G1 X79.75 Y209.75 E344.03153
G1 X123.67 Y209.75 E346.77044
G1 X131.51 Y175.80 E348.94322
G1 X131.75 Y174.75 E349.01081
G1 X131.75 Y151.75 E350.44496
G1 X148.75 Y151.75 E351.50513
G0 F6000 X148.25 Y152.25
G1 F2700 X148.25 Y162.25 E352.12876
G1 X142.25 Y162.25 E352.50293
G1 X142.25 Y210.25 E355.49641
G1 X187.07 Y210.25 E358.29132
G1 X195.25 Y174.80 E360.55997
G1 X195.25 Y152.25 E361.96656
G1 X211.25 Y152.25 E362.96437
G1 X211.25 Y162.25 E363.58799
G1 X205.25 Y162.25 E363.96217
G1 X205.25 Y210.25 E366.95564
G1 X247.25 Y210.25 E369.57488
G1 X247.25 Y220.25 E370.19851
G1 X245.35 Y220.25 E370.31712
G1 X245.43 Y220.40 E370.32781
G1 X245.68 Y221.19 E370.37956
G1 X245.79 Y222.03 E370.43267
G1 X245.76 Y222.84 E370.48274
G1 X245.66 Y223.38 E370.51720
G1 X245.36 Y224.24 E370.57416
G1 X244.96 Y224.96 E370.62524
G1 X244.36 Y225.68 E370.68365
G1 X243.89 Y226.07 E370.72183
G1 X243.35 Y226.43 E370.76229
G1 X242.55 Y226.79 E370.81685
G1 X241.66 Y227.00 E370.87443
G1 X240.94 Y227.05 E370.91918
G1 X239.96 Y226.93 E370.98078
G1 X239.14 Y226.67 E371.03444
G1 X238.59 Y226.40 E371.07254
G1 X237.96 Y225.96 E371.12036
G1 X237.53 Y225.56 E371.15693
G1 X237.32 Y225.32 E371.17716
G1 X236.99 Y224.88 E371.21094
G1 X236.57 Y224.10 E371.26665
G1 X236.32 Y223.31 E371.31840
G1 X236.21 Y222.46 E371.37152
G1 X236.24 Y221.66 E371.42158
G1 X236.34 Y221.12 E371.45604
G1 X236.64 Y220.25 E371.51300
G1 X236.64 Y220.25 E371.51328
G1 X220.35 Y220.25 E372.52898
G1 X220.39 Y220.31 E372.53325
G1 X220.57 Y220.80 E372.56579
G1 X220.69 Y221.24 E372.59458
G1 X220.79 Y222.03 E372.64435
G1 X220.75 Y222.89 E372.69754
G1 X220.56 Y223.75 E372.75297
G1 X220.23 Y224.50 E372.80385
G1 X219.94 Y224.99 E372.83914
G1 X219.36 Y225.68 E372.89538
G1 X218.89 Y226.07 E372.93356
G1 X218.35 Y226.43 E372.97401
G1 X217.55 Y226.79 E373.02858
G1 X216.66 Y227.00 E373.08615
G1 X215.94 Y227.05 E373.13090
G1 X214.96 Y226.93 E373.19251
G1 X214.14 Y226.67 E373.24617
G1 X213.59 Y226.40 E373.28427
G1 X212.96 Y225.96 E373.33208
G1 X212.50 Y225.52 E373.37210
G1 X212.02 Y224.93 E373.41941
G1 X211.59 Y224.14 E373.47510
G1 X211.43 Y223.69 E373.50517
G1 X211.31 Y223.25 E373.53344
G1 X211.21 Y222.46 E373.58321
G1 X211.24 Y221.62 E373.63609
G1 X211.43 Y220.76 E373.69057
G1 X211.66 Y220.25 E373.72548
G1 X195.35 Y220.25 E374.74256
G1 X195.43 Y220.40 E374.75324
G1 X195.68 Y221.19 E374.80499
G1 X195.79 Y222.03 E374.85811
G1 X195.76 Y222.84 E374.90817
G1 X195.66 Y223.38 E374.94264
G1 X195.36 Y224.24 E374.99959
G1 X194.96 Y224.96 E375.05068
G1 X194.36 Y225.68 E375.10909
G1 X193.89 Y226.07 E375.14727
G1 X193.35 Y226.43 E375.18772
G1 X192.55 Y226.79 E375.24229
G1 X191.66 Y227.00 E375.29986
G1 X190.94 Y227.05 E375.34461
G1 X189.96 Y226.93 E375.40622
G1 X189.14 Y226.67 E375.45988
G1 X188.59 Y226.40 E375.49798
G1 X187.96 Y225.96 E375.54579
G1 X187.53 Y225.56 E375.58236
G1 X187.32 Y225.32 E375.60259
G1 X186.99 Y224.88 E375.63637
G1 X186.57 Y224.10 E375.69209
G1 X186.32 Y223.31 E375.74384
G1 X186.21 Y222.46 E375.79695
G1 X186.24 Y221.66 E375.84702
G1 X186.34 Y221.12 E375.88148
G1 X186.64 Y220.25 E375.93844
G1 X186.64 Y220.25 E375.93872
G1 X182.35 Y220.25 E376.20631
G1 X182.41 Y220.36 E376.21396
G1 X182.57 Y220.81 E376.24375
G1 X182.69 Y221.24 E376.27202
G1 X182.79 Y222.03 E376.32179
G1 X182.75 Y222.88 E376.37467
G1 X182.57 Y223.74 E376.42915
G1 X182.23 Y224.50 E376.48123
G1 X181.94 Y224.99 E376.51658
G1 X181.36 Y225.68 E376.57282
G1 X180.89 Y226.07 E376.61100
G1 X180.35 Y226.43 E376.65145
G1 X179.55 Y226.79 E376.70602
G1 X178.66 Y227.00 E376.76359
G1 X177.94 Y227.05 E376.80834
G1 X176.96 Y226.93 E376.86995
G1 X176.14 Y226.67 E376.92361
G1 X175.59 Y226.40 E376.96171
G1 X174.96 Y225.96 E377.00952
G1 X174.53 Y225.56 E377.04609
G1 X174.32 Y225.32 E377.06632
G1 X173.99 Y224.88 E377.10010
G1 X173.59 Y224.14 E377.15280
G1 X173.43 Y223.69 E377.18259
G1 X173.31 Y223.25 E377.21086
G1 X173.21 Y222.46 E377.26063
G1 X173.24 Y221.62 E377.31351
G1 X173.43 Y220.76 E377.36799
G1 X173.66 Y220.25 E377.40293
G1 X157.35 Y220.25 E378.41969
G1 X157.38 Y220.31 E378.42374
G1 X157.57 Y220.80 E378.45647
G1 X157.69 Y221.24 E378.48526
G1 X157.79 Y222.03 E378.53503
G1 X157.75 Y222.89 E378.58822
G1 X157.56 Y223.75 E378.64365
G1 X157.23 Y224.50 E378.69481
G1 X156.97 Y224.94 E378.72661
G1 X156.63 Y225.38 E378.76123
G1 X156.07 Y225.92 E378.80965
G1 X155.87 Y226.09 E378.82596
G1 X155.35 Y226.43 E378.86462
G1 X154.55 Y226.79 E378.91919
G1 X153.66 Y227.00 E378.97676
G1 X152.94 Y227.05 E379.02157
G1 X151.96 Y226.93 E379.08306
G1 X151.14 Y226.67 E379.13671
G1 X150.59 Y226.40 E379.17480
G1 X149.96 Y225.96 E379.22262
G1 X149.50 Y225.52 E379.26263
G1 X149.02 Y224.93 E379.30995
G1 X148.59 Y224.14 E379.36564
G1 X148.43 Y223.69 E379.39571
G1 X148.31 Y223.25 E379.42398
G1 X148.21 Y222.46 E379.47375
G1 X148.25 Y221.62 E379.52662
G1 X148.43 Y220.76 E379.58111
G1 X148.66 Y220.25 E379.61602
G1 X132.35 Y220.25 E380.63303
G1 X132.41 Y220.36 E380.64067
G1 X132.57 Y220.81 E380.67046
G1 X132.69 Y221.24 E380.69874
G1 X132.79 Y222.03 E380.74851
G1 X132.76 Y222.88 E380.80138
G1 X132.57 Y223.74 E380.85587
G1 X132.23 Y224.50 E380.90795
G1 X131.94 Y224.99 E380.94329
G1 X131.36 Y225.68 E380.99953
G1 X130.89 Y226.07 E381.03771
G1 X130.35 Y226.43 E381.07817
G1 X129.56 Y226.79 E381.13273
G1 X128.66 Y227.00 E381.19030
G1 X127.94 Y227.05 E381.23518
G1 X126.96 Y226.93 E381.29667
G1 X126.14 Y226.67 E381.35031
G1 X125.59 Y226.40 E381.38841
G1 X124.96 Y225.96 E381.43622
G1 X124.54 Y225.56 E381.47280
G1 X124.32 Y225.32 E381.49303
G1 X123.99 Y224.88 E381.52680
G1 X123.59 Y224.14 E381.57951
G1 X123.43 Y223.69 E381.60930
G1 X123.31 Y223.25 E381.63757
G1 X123.21 Y222.46 E381.68734
G1 X123.25 Y221.62 E381.74021
G1 X123.43 Y220.76 E381.79470
G1 X123.66 Y220.25 E381.82963
G1 X119.35 Y220.25 E382.09842
G1 X119.43 Y220.40 E382.10910
G1 X119.68 Y221.19 E382.16085
G1 X119.80 Y222.03 E382.21397
G1 X119.76 Y222.84 E382.26403
G1 X119.66 Y223.38 E382.29850
G1 X119.36 Y224.24 E382.35545
G1 X118.96 Y224.96 E382.40654
G1 X118.36 Y225.68 E382.46495
G1 X117.89 Y226.07 E382.50313
G1 X117.35 Y226.43 E382.54358
G1 X116.56 Y226.79 E382.59815
G1 X115.66 Y227.00 E382.65572
G1 X114.94 Y227.05 E382.70060
G1 X113.96 Y226.93 E382.76208
G1 X113.14 Y226.67 E382.81573
G1 X112.59 Y226.40 E382.85383
G1 X111.96 Y225.96 E382.90164
G1 X111.54 Y225.56 E382.93821
G1 X111.32 Y225.32 E382.95844
G1 X110.99 Y224.88 E382.99222
G1 X110.57 Y224.10 E383.04793
G1 X110.32 Y223.31 E383.09969
G1 X110.21 Y222.46 E383.15280
G1 X110.24 Y221.66 E383.20287
G1 X110.34 Y221.12 E383.23733
G1 X110.64 Y220.25 E383.29429
G1 X110.64 Y220.25 E383.29457
G1 X94.36 Y220.25 E384.31020
G1 X94.39 Y220.31 E384.31425
G1 X94.57 Y220.80 E384.34699
G1 X94.69 Y221.24 E384.37577
G1 X94.79 Y222.03 E384.42554
G1 X94.76 Y222.89 E384.47873
G1 X94.56 Y223.75 E384.53416
G1 X94.23 Y224.50 E384.58532
G1 X93.97 Y224.94 E384.61713
G1 X93.63 Y225.38 E384.65174
G1 X93.07 Y225.92 E384.70016
G1 X92.87 Y226.09 E384.71648
G1 X92.35 Y226.43 E384.75514
G1 X91.56 Y226.79 E384.80970
G1 X90.66 Y227.00 E384.86727
G1 X89.94 Y227.05 E384.91215
G1 X88.96 Y226.93 E384.97364
G1 X88.14 Y226.67 E385.02728
G1 X87.59 Y226.40 E385.06538
G1 X86.96 Y225.96 E385.11319
G1 X86.54 Y225.56 E385.14977
G1 X86.32 Y225.32 E385.17000
G1 X85.99 Y224.88 E385.20377
G1 X85.59 Y224.14 E385.25648
G1 X85.43 Y223.69 E385.28627
G1 X85.31 Y223.25 E385.31454
G1 X85.21 Y222.46 E385.36431
G1 X85.25 Y221.62 E385.41718
G1 X85.43 Y220.76 E385.47167
G1 X85.66 Y220.25 E385.50660
G1 X69.35 Y220.25 E386.52374
G1 X69.43 Y220.40 E386.53442
G1 X69.68 Y221.19 E386.58618
G1 X69.80 Y222.03 E386.63929
G1 X69.76 Y222.84 E386.68936
G1 X69.66 Y223.38 E386.72382
G1 X69.36 Y224.24 E386.78078
G1 X68.96 Y224.96 E386.83186
G1 X68.36 Y225.68 E386.89027
G1 X67.89 Y226.07 E386.92845
G1 X67.35 Y226.43 E386.96891
G1 X66.56 Y226.79 E387.02347
G1 X65.66 Y227.00 E387.08104
G1 X64.94 Y227.05 E387.12592
G1 X63.96 Y226.93 E387.18741
G1 X63.14 Y226.67 E387.24105
G1 X62.59 Y226.40 E387.27915
G1 X61.96 Y225.96 E387.32696
G1 X61.54 Y225.56 E387.36354
G1 X61.32 Y225.32 E387.38377
G1 X60.99 Y224.88 E387.41754
G1 X60.57 Y224.10 E387.47326
G1 X60.32 Y223.31 E387.52501
G1 X60.21 Y222.46 E387.57812
G1 X60.24 Y221.66 E387.62819
G1 X60.34 Y221.12 E387.66265
G1 X60.64 Y220.25 E387.71961
G1 X60.64 Y220.25 E387.71989
G1 X57.75 Y220.25 E387.90018
G1 X57.75 Y210.25 E388.52381
G1 X61.07 Y210.25 E388.73073
G1 X69.25 Y174.80 E390.99936
G1 X69.25 Y152.25 E392.40595
G1 X85.25 Y152.25 E393.40376
G1 X85.25 Y162.25 E394.02739
G1 X79.25 Y162.25 E394.40156
G1 X79.25 Y210.25 E397.39504
G1 X124.07 Y210.25 E400.19001
G1 X132.25 Y174.80 E402.45865
G1 X132.25 Y152.25 E403.86524
G1 X148.25 Y152.25 E404.86304
G0 F6000 X147.75 Y152.75
G1 F2700 X147.75 Y161.75 E405.42431
G1 X141.75 Y161.75 E405.79848
G1 X141.75 Y210.75 E408.85432
G1 X183.75 Y210.75 E411.47356
G1 X183.75 Y219.75 E412.03482
G1 X181.48 Y219.75 E412.17614
G1 X181.59 Y219.88 E412.18664
G1 X181.95 Y220.56 E412.23460
G1 X182.09 Y220.96 E412.26088
G1 X182.20 Y221.34 E412.28573
G1 X182.29 Y222.06 E412.33071
G1 X182.26 Y222.82 E412.37815
G1 X182.09 Y223.58 E412.42683
G1 X181.79 Y224.27 E412.47394
G1 X181.53 Y224.69 E412.50476
G1 X181.00 Y225.32 E412.55591
G1 X180.59 Y225.67 E412.58967
G1 X180.11 Y225.99 E412.62566
G1 X179.39 Y226.31 E412.67467
G1 X178.58 Y226.50 E412.72666
G1 X177.95 Y226.55 E412.76604
G1 X177.06 Y226.44 E412.82168
G1 X176.33 Y226.20 E412.86998
G1 X175.85 Y225.97 E412.90342
G1 X175.28 Y225.57 E412.94667
G1 X174.89 Y225.21 E412.97954
G1 X174.71 Y225.00 E412.99720
G1 X174.41 Y224.61 E413.02729
G1 X174.05 Y223.94 E413.07525
G1 X173.91 Y223.54 E413.10153
G1 X173.80 Y223.16 E413.12638
G1 X173.71 Y222.44 E413.17136
G1 X173.74 Y221.68 E413.21880
G1 X173.91 Y220.92 E413.26748
G1 X174.21 Y220.23 E413.31459
G1 X174.47 Y219.80 E413.34541
G1 X174.51 Y219.75 E413.34975
G1 X156.49 Y219.75 E414.47396
G1 X156.56 Y219.84 E414.48127
G1 X156.93 Y220.51 E414.52922
G1 X157.09 Y220.95 E414.55823
G1 X157.20 Y221.34 E414.58354
G1 X157.29 Y222.06 E414.62852
G1 X157.26 Y222.82 E414.67615
G1 X157.08 Y223.60 E414.72582
G1 X156.78 Y224.28 E414.77200
G1 X156.55 Y224.66 E414.80004
G1 X156.25 Y225.05 E414.83060
G1 X155.74 Y225.55 E414.87536
G1 X155.57 Y225.69 E414.88884
G1 X155.11 Y225.99 E414.92340
G1 X154.39 Y226.31 E414.97241
G1 X153.58 Y226.50 E415.02440
G1 X152.95 Y226.55 E415.06378
G1 X152.07 Y226.44 E415.11936
G1 X151.33 Y226.20 E415.16766
G1 X150.85 Y225.97 E415.20110
G1 X150.28 Y225.57 E415.24434
G1 X149.86 Y225.18 E415.27995
G1 X149.44 Y224.65 E415.32221
G1 X149.05 Y223.94 E415.37279
G1 X148.91 Y223.54 E415.39921
G1 X148.80 Y223.16 E415.42406
G1 X148.71 Y222.44 E415.46905
G1 X148.74 Y221.68 E415.51649
G1 X148.91 Y220.92 E415.56516
G1 X149.22 Y220.22 E415.61247
G1 X149.45 Y219.84 E415.64059
G1 X149.51 Y219.75 E415.64748
G1 X131.49 Y219.75 E416.77188
G1 X131.59 Y219.88 E416.78239
G1 X131.95 Y220.56 E416.83035
G1 X132.09 Y220.96 E416.85662
G1 X132.20 Y221.34 E416.88148
G1 X132.29 Y222.06 E416.92646
G1 X132.26 Y222.82 E416.97390
G1 X132.09 Y223.58 E417.02258
G1 X131.79 Y224.27 E417.06969
G1 X131.53 Y224.69 E417.10051
G1 X131.00 Y225.32 E417.15166
G1 X130.59 Y225.67 E417.18541
G1 X130.11 Y225.99 E417.22141
G1 X129.39 Y226.31 E417.27042
G1 X128.58 Y226.50 E417.32243
G1 X127.95 Y226.55 E417.36186
G1 X127.07 Y226.44 E417.41744
G1 X126.33 Y226.20 E417.46574
G1 X125.85 Y225.97 E417.49918
G1 X125.28 Y225.57 E417.54243
G1 X124.89 Y225.21 E417.57530
G1 X124.71 Y225.00 E417.59296
G1 X124.41 Y224.61 E417.62305
G1 X124.05 Y223.94 E417.67101
G1 X123.91 Y223.54 E417.69728
G1 X123.80 Y223.16 E417.72214
G1 X123.71 Y222.44 E417.76712
G1 X123.74 Y221.68 E417.81456
G1 X123.91 Y220.92 E417.86323
G1 X124.21 Y220.23 E417.91035
G1 X124.47 Y219.80 E417.94117
G1 X124.51 Y219.75 E417.94550
G1 X121.25 Y219.75 E418.14899
G1 X121.25 Y210.75 E418.71026
G1 X124.47 Y210.75 E418.91076
G1 X132.75 Y174.86 E421.20782
G1 X132.75 Y152.75 E422.58672
G1 X147.75 Y152.75 E423.52216
G0 F6000 X147.25 Y153.25
G1 F2700 X147.25 Y161.25 E424.02106
G1 X141.25 Y161.25 E424.39524
G1 X141.25 Y211.25 E427.51344
G1 X183.25 Y211.25 E430.13267
G1 X183.25 Y219.25 E430.63158
G1 X180.32 Y219.25 E430.81442
G1 X180.74 Y219.63 E430.84970
G1 X180.91 Y219.82 E430.86560
G1 X181.16 Y220.15 E430.89195
G1 X181.49 Y220.77 E430.93522
G1 X181.62 Y221.11 E430.95785
G1 X181.70 Y221.44 E430.97934
G1 X181.79 Y222.08 E431.01961
G1 X181.76 Y222.75 E431.06150
G1 X181.61 Y223.42 E431.10443
G1 X181.34 Y224.04 E431.14648
G1 X181.12 Y224.40 E431.17280
G1 X180.65 Y224.97 E431.21882
G1 X180.29 Y225.27 E431.24819
G1 X179.87 Y225.55 E431.27983
G1 X179.23 Y225.84 E431.32328
G1 X178.51 Y226.01 E431.36965
G1 X177.96 Y226.04 E431.40359
G1 X177.17 Y225.95 E431.45333
G1 X176.52 Y225.74 E431.49624
G1 X176.10 Y225.53 E431.52508
G1 X175.59 Y225.18 E431.56380
G1 X175.25 Y224.86 E431.59300
G1 X175.09 Y224.68 E431.60806
G1 X174.84 Y224.34 E431.63441
G1 X174.51 Y223.73 E431.67768
G1 X174.38 Y223.39 E431.70031
G1 X174.29 Y223.06 E431.72180
G1 X174.21 Y222.42 E431.76207
G1 X174.24 Y221.75 E431.80396
G1 X174.39 Y221.07 E431.84689
G1 X174.66 Y220.46 E431.88894
G1 X174.88 Y220.09 E431.91526
G1 X175.35 Y219.53 E431.96128
G1 X175.68 Y219.25 E431.98835
G1 X155.32 Y219.25 E433.25831
G1 X155.76 Y219.65 E433.29553
G1 X156.14 Y220.12 E433.33331
G1 X156.47 Y220.72 E433.37621
G1 X156.61 Y221.10 E433.40148
G1 X156.70 Y221.44 E433.42324
G1 X156.79 Y222.08 E433.46351
G1 X156.76 Y222.75 E433.50558
G1 X156.60 Y223.44 E433.54944
G1 X156.34 Y224.04 E433.59060
G1 X156.14 Y224.38 E433.61491
G1 X155.88 Y224.72 E433.64146
G1 X155.41 Y225.17 E433.68248
G1 X155.28 Y225.28 E433.69308
G1 X154.87 Y225.55 E433.72367
G1 X154.23 Y225.84 E433.76713
G1 X153.51 Y226.01 E433.81349
G1 X152.96 Y226.04 E433.84744
G1 X152.17 Y225.95 E433.89711
G1 X151.52 Y225.74 E433.94003
G1 X151.10 Y225.53 E433.96886
G1 X150.59 Y225.18 E434.00758
G1 X150.23 Y224.84 E434.03868
G1 X149.85 Y224.37 E434.07593
G1 X149.51 Y223.73 E434.12132
G1 X149.38 Y223.39 E434.14409
G1 X149.30 Y223.06 E434.16559
G1 X149.21 Y222.42 E434.20586
G1 X149.24 Y221.75 E434.24774
G1 X149.39 Y221.07 E434.29067
G1 X149.66 Y220.45 E434.33287
G1 X149.86 Y220.12 E434.35726
G1 X150.12 Y219.78 E434.38382
G1 X150.59 Y219.32 E434.42483
G1 X150.68 Y219.25 E434.43215
G1 X130.32 Y219.25 E435.70217
G1 X130.74 Y219.63 E435.73745
G1 X130.91 Y219.82 E435.75334
G1 X131.16 Y220.15 E435.77969
G1 X131.49 Y220.77 E435.82296
G1 X131.62 Y221.11 E435.84559
G1 X131.71 Y221.44 E435.86708
G1 X131.79 Y222.08 E435.90735
G1 X131.76 Y222.75 E435.94924
G1 X131.61 Y223.42 E435.99217
G1 X131.34 Y224.04 E436.03423
G1 X131.12 Y224.40 E436.06055
G1 X130.65 Y224.97 E436.10656
G1 X130.29 Y225.27 E436.13593
G1 X129.87 Y225.55 E436.16757
G1 X129.23 Y225.84 E436.21103
G1 X128.51 Y226.01 E436.25739
G1 X127.96 Y226.04 E436.29139
G1 X127.17 Y225.95 E436.34107
G1 X126.52 Y225.74 E436.38398
G1 X126.10 Y225.53 E436.41282
G1 X125.59 Y225.18 E436.45154
G1 X125.25 Y224.86 E436.48074
G1 X125.09 Y224.68 E436.49580
G1 X124.84 Y224.34 E436.52215
G1 X124.51 Y223.73 E436.56542
G1 X124.39 Y223.39 E436.58805
G1 X124.30 Y223.06 E436.60954
G1 X124.21 Y222.42 E436.64981
G1 X124.24 Y221.75 E436.69170
G1 X124.39 Y221.07 E436.73463
G1 X124.66 Y220.46 E436.77668
G1 X124.88 Y220.09 E436.80301
G1 X125.35 Y219.53 E436.84902
G1 X125.68 Y219.25 E436.87609
G1 X121.75 Y219.25 E437.12137
G1 X121.75 Y211.25 E437.62027
G1 X124.86 Y211.25 E437.81440
G1 X133.25 Y174.92 E440.13981
G1 X133.25 Y153.25 E441.49109
G1 X147.25 Y153.25 E442.36417
G0 F6000 X146.75 Y153.75
G1 F2700 X146.75 Y160.75 E442.80071
G1 X140.75 Y160.75 E443.17488
G1 X140.75 Y211.75 E446.35545
G1 X182.75 Y211.75 E448.97468
G1 X182.75 Y218.75 E449.41122
G1 X179.78 Y218.75 E449.59656
G1 X179.78 Y219.50 E449.64334
G1 X179.98 Y219.62 E449.65787
G1 X180.38 Y219.98 E449.69174
G1 X180.52 Y220.14 E449.70472
G1 X180.74 Y220.43 E449.72737
G1 X181.03 Y220.97 E449.76593
G1 X181.14 Y221.26 E449.78497
G1 X181.21 Y221.54 E449.80311
G1 X181.29 Y222.10 E449.83859
G1 X181.26 Y222.69 E449.87498
G1 X181.13 Y223.27 E449.91222
G1 X180.90 Y223.81 E449.94925
G1 X180.72 Y224.11 E449.97103
G1 X180.29 Y224.61 E450.01192
G1 X179.99 Y224.87 E450.03691
G1 X179.62 Y225.11 E450.06414
G1 X179.07 Y225.36 E450.10201
G1 X178.43 Y225.51 E450.14279
G1 X177.98 Y225.54 E450.17129
G1 X177.28 Y225.46 E450.21513
G1 X176.71 Y225.28 E450.25266
G1 X176.36 Y225.10 E450.27693
G1 X175.91 Y224.79 E450.31099
G1 X175.61 Y224.51 E450.33658
G1 X175.48 Y224.36 E450.34903
G1 X175.26 Y224.07 E450.37168
G1 X174.97 Y223.53 E450.41024
G1 X174.86 Y223.24 E450.42928
G1 X174.79 Y222.96 E450.44742
G1 X174.71 Y222.40 E450.48290
G1 X174.74 Y221.81 E450.51929
G1 X174.87 Y221.23 E450.55653
G1 X175.10 Y220.69 E450.59356
G1 X175.28 Y220.38 E450.61534
G1 X175.71 Y219.88 E450.65623
G1 X176.02 Y219.62 E450.68215
G1 X176.22 Y219.50 E450.69650
G1 X176.22 Y218.75 E450.74309
G1 X154.78 Y218.75 E452.08027
G1 X154.78 Y219.50 E452.12704
G1 X154.98 Y219.62 E452.14158
G1 X155.40 Y219.99 E452.17663
G1 X155.72 Y220.40 E452.20918
G1 X156.02 Y220.93 E452.24697
G1 X156.14 Y221.25 E452.26852
G1 X156.21 Y221.54 E452.28679
G1 X156.29 Y222.10 E452.32228
G1 X156.26 Y222.69 E452.35879
G1 X156.13 Y223.28 E452.39689
G1 X155.89 Y223.81 E452.43308
G1 X155.72 Y224.10 E452.45367
G1 X155.50 Y224.38 E452.47613
G1 X155.07 Y224.80 E452.51349
G1 X154.98 Y224.88 E452.52116
G1 X154.62 Y225.11 E452.54780
G1 X154.07 Y225.36 E452.58567
G1 X153.43 Y225.51 E452.62645
G1 X152.98 Y225.54 E452.65496
G1 X152.28 Y225.46 E452.69873
G1 X151.71 Y225.28 E452.73626
G1 X151.36 Y225.10 E452.76052
G1 X150.91 Y224.79 E452.79459
G1 X150.60 Y224.50 E452.82132
G1 X150.27 Y224.09 E452.85356
G1 X149.97 Y223.53 E452.89374
G1 X149.86 Y223.24 E452.91286
G1 X149.79 Y222.96 E452.93099
G1 X149.71 Y222.40 E452.96648
G1 X149.74 Y221.81 E453.00287
G1 X149.87 Y221.23 E453.04011
G1 X150.10 Y220.68 E453.07719
G1 X150.28 Y220.40 E453.09787
G1 X150.50 Y220.11 E453.12033
G1 X150.93 Y219.70 E453.15769
G1 X151.03 Y219.61 E453.16633
G1 X151.22 Y219.50 E453.18005
G1 X151.22 Y218.75 E453.22663
G1 X129.78 Y218.75 E454.56381
G1 X129.78 Y219.50 E454.61058
G1 X129.98 Y219.62 E454.62512
G1 X130.38 Y219.98 E454.65899
G1 X130.52 Y220.14 E454.67197
G1 X130.74 Y220.43 E454.69462
G1 X131.03 Y220.97 E454.73318
G1 X131.14 Y221.26 E454.75222
G1 X131.21 Y221.54 E454.77035
G1 X131.29 Y222.10 E454.80584
G1 X131.26 Y222.69 E454.84223
G1 X131.13 Y223.27 E454.87947
G1 X130.90 Y223.81 E454.91650
G1 X130.72 Y224.11 E454.93828
G1 X130.29 Y224.61 E454.97917
G1 X129.99 Y224.87 E455.00416
G1 X129.62 Y225.11 E455.03138
G1 X129.07 Y225.36 E455.06926
G1 X128.43 Y225.51 E455.11004
G1 X127.98 Y225.54 E455.13861
G1 X127.28 Y225.46 E455.18238
G1 X126.71 Y225.28 E455.21991
G1 X126.36 Y225.10 E455.24417
G1 X125.91 Y224.79 E455.27824
G1 X125.61 Y224.51 E455.30382
G1 X125.48 Y224.36 E455.31628
G1 X125.26 Y224.07 E455.33893
G1 X124.97 Y223.53 E455.37749
G1 X124.86 Y223.24 E455.39653
G1 X124.79 Y222.96 E455.41466
G1 X124.71 Y222.40 E455.45015
G1 X124.74 Y221.81 E455.48654
G1 X124.87 Y221.23 E455.52378
G1 X125.11 Y220.69 E455.56081
G1 X125.28 Y220.38 E455.58259
G1 X125.71 Y219.88 E455.62348
G1 X126.02 Y219.62 E455.64940
G1 X126.22 Y219.50 E455.66375
G1 X126.22 Y218.75 E455.71033
G1 X122.25 Y218.75 E455.95798
G1 X122.25 Y211.75 E456.39452
G1 X125.26 Y211.75 E456.58223
G1 X133.75 Y174.97 E458.93612
G1 X133.75 Y153.75 E460.25965
G1 X146.75 Y153.75 E461.07036
G0 F6000 X146.25 Y154.25
G1 F2700 X146.25 Y160.25 E461.44454
G1 X140.25 Y160.25 E461.81872
G1 X140.25 Y212.25 E465.06164
G1 X182.25 Y212.25 E467.68088
G1 X182.25 Y218.25 E468.05505
G1 X179.28 Y218.25 E468.24033
G1 X179.28 Y219.78 E468.33612
G1 X179.68 Y220.02 E468.36533
G1 X180.03 Y220.33 E468.39434
G1 X180.14 Y220.46 E468.40446
G1 X180.32 Y220.70 E468.42337
G1 X180.58 Y221.18 E468.45724
G1 X180.66 Y221.41 E468.47270
G1 X180.72 Y221.64 E468.48742
G1 X180.79 Y222.12 E468.51812
G1 X180.76 Y222.62 E468.54909
G1 X180.66 Y223.11 E468.58051
G1 X180.45 Y223.58 E468.61257
G1 X180.31 Y223.82 E468.62980
G1 X179.94 Y224.26 E468.66560
G1 X179.69 Y224.47 E468.68617
G1 X179.38 Y224.67 E468.70903
G1 X178.91 Y224.89 E468.74130
G1 X178.36 Y225.02 E468.77651
G1 X177.99 Y225.04 E468.79958
G1 X177.39 Y224.97 E468.83751
G1 X176.90 Y224.81 E468.86968
G1 X176.61 Y224.67 E468.88931
G1 X176.22 Y224.40 E468.91884
G1 X175.97 Y224.16 E468.94068
G1 X175.86 Y224.04 E468.95062
G1 X175.68 Y223.80 E468.96953
G1 X175.42 Y223.32 E469.00340
G1 X175.34 Y223.09 E469.01886
G1 X175.28 Y222.86 E469.03358
G1 X175.21 Y222.37 E469.06429
G1 X175.23 Y221.88 E469.09525
G1 X175.34 Y221.38 E469.12667
G1 X175.55 Y220.91 E469.15873
G1 X175.69 Y220.68 E469.17596
G1 X176.06 Y220.24 E469.21176
G1 X176.32 Y220.02 E469.23264
G1 X176.72 Y219.78 E469.26205
G1 X176.72 Y218.25 E469.35734
G1 X154.28 Y218.25 E470.75689
G1 X154.28 Y219.78 E470.85268
G1 X154.68 Y220.02 E470.88189
G1 X155.03 Y220.34 E470.91134
G1 X155.31 Y220.68 E470.93861
G1 X155.56 Y221.14 E470.97140
G1 X155.66 Y221.41 E470.98916
G1 X155.72 Y221.64 E471.00396
G1 X155.79 Y222.12 E471.03466
G1 X155.76 Y222.62 E471.06562
G1 X155.65 Y223.13 E471.09797
G1 X155.45 Y223.58 E471.12913
G1 X155.31 Y223.81 E471.14599
G1 X155.13 Y224.05 E471.16445
G1 X154.74 Y224.43 E471.19806
G1 X154.68 Y224.47 E471.20289
G1 X154.38 Y224.67 E471.22553
G1 X153.91 Y224.89 E471.25779
G1 X153.36 Y225.02 E471.29301
G1 X152.99 Y225.04 E471.31607
G1 X152.39 Y224.97 E471.35395
G1 X151.90 Y224.81 E471.38611
G1 X151.61 Y224.67 E471.40575
G1 X151.22 Y224.40 E471.43528
G1 X150.97 Y224.16 E471.45756
G1 X150.69 Y223.82 E471.48474
G1 X150.42 Y223.32 E471.51976
G1 X150.34 Y223.09 E471.53528
G1 X150.28 Y222.86 E471.55000
G1 X150.21 Y222.37 E471.58070
G1 X150.24 Y221.88 E471.61167
G1 X150.34 Y221.38 E471.64309
G1 X150.55 Y220.91 E471.67515
G1 X150.69 Y220.68 E471.69205
G1 X150.87 Y220.45 E471.71051
G1 X151.26 Y220.07 E471.74412
G1 X151.32 Y220.02 E471.74926
G1 X151.72 Y219.78 E471.77845
G1 X151.72 Y218.25 E471.87374
G1 X129.28 Y218.25 E473.27328
G1 X129.28 Y219.78 E473.36907
G1 X129.68 Y220.02 E473.39828
G1 X130.03 Y220.33 E473.42729
G1 X130.14 Y220.46 E473.43740
G1 X130.32 Y220.70 E473.45631
G1 X130.58 Y221.18 E473.49018
G1 X130.66 Y221.41 E473.50565
G1 X130.72 Y221.64 E473.52037
G1 X130.79 Y222.12 E473.55107
G1 X130.77 Y222.62 E473.58203
G1 X130.66 Y223.11 E473.61346
G1 X130.45 Y223.58 E473.64552
G1 X130.31 Y223.82 E473.66275
G1 X129.94 Y224.26 E473.69855
G1 X129.69 Y224.47 E473.71912
G1 X129.38 Y224.67 E473.74198
G1 X128.91 Y224.89 E473.77424
G1 X128.36 Y225.02 E473.80946
G1 X127.99 Y225.04 E473.83259
G1 X127.39 Y224.97 E473.87046
G1 X126.90 Y224.81 E473.90263
G1 X126.61 Y224.67 E473.92226
G1 X126.22 Y224.40 E473.95179
G1 X125.97 Y224.16 E473.97363
G1 X125.86 Y224.04 E473.98357
G1 X125.68 Y223.80 E474.00248
G1 X125.42 Y223.32 E474.03635
G1 X125.34 Y223.09 E474.05181
G1 X125.28 Y222.86 E474.06653
G1 X125.21 Y222.37 E474.09723
G1 X125.23 Y221.88 E474.12820
G1 X125.34 Y221.38 E474.15962
G1 X125.55 Y220.91 E474.19168
G1 X125.69 Y220.68 E474.20891
G1 X126.06 Y220.24 E474.24471
G1 X126.32 Y220.02 E474.26559
G1 X126.72 Y219.78 E474.29500
G1 X126.72 Y218.25 E474.39029
G1 X122.75 Y218.25 E474.63800
G1 X122.75 Y212.25 E475.01217
G1 X125.66 Y212.25 E475.19352
G1 X134.25 Y175.03 E477.57577
G1 X134.25 Y154.25 E478.87167
G1 X146.25 Y154.25 E479.62002
G0 F6000 X148.03 Y150.75
G1 F2700 X147.76 Y150.42 E479.64649
G1 X147.22 Y149.41 E479.71792
G1 X147.00 Y148.79 E479.75898
G1 X146.84 Y148.20 E479.79719
G1 X146.70 Y147.18 E479.86130
G1 X146.74 Y146.40 E479.90993
G1 X134.27 Y146.40 E480.68746
G1 X134.30 Y146.62 E480.70136
G1 X134.25 Y147.73 E480.77065
G1 X134.00 Y148.85 E480.84239
G1 X133.57 Y149.84 E480.90950
G1 X133.17 Y150.51 E480.95847
G1 X132.97 Y150.75 E480.97754
G1 X148.03 Y150.75 E481.91697
G0 F6000 X147.10 Y150.25
G1 F2700 X146.76 Y149.62 E481.96181
G1 X146.52 Y148.94 E482.00651
G1 X146.35 Y148.30 E482.04810
G1 X146.20 Y147.20 E482.11698
G1 X146.22 Y146.90 E482.13577
G1 X134.79 Y146.90 E482.84851
G1 X134.75 Y147.80 E482.90451
G1 X134.48 Y149.01 E482.98198
G1 X134.01 Y150.07 E483.05408
G1 X133.91 Y150.25 E483.06700
G1 X147.10 Y150.25 E483.89000
G0 F6000 X146.28 Y149.75
G1 F2700 X146.04 Y149.09 E483.93358
G1 X145.86 Y148.40 E483.97851
G1 X145.72 Y147.40 E484.04105
G1 X135.26 Y147.40 E484.69330
G1 X135.24 Y147.86 E484.72214
G1 X134.96 Y149.17 E484.80543
G1 X134.70 Y149.75 E484.84498
G1 X146.28 Y149.75 E485.56708
G0 F6000 X131.25 Y151.69
G1 F2700 X130.84 Y151.96 E485.59790
G1 X129.88 Y152.40 E485.66363
G1 X128.80 Y152.65 E485.73239
G1 X127.91 Y152.71 E485.78815
G1 X126.74 Y152.57 E485.86150
G1 X125.76 Y152.25 E485.92591
G1 X125.08 Y151.91 E485.97316
G1 X124.33 Y151.39 E486.03007
G1 X123.82 Y150.91 E486.07397
G1 X123.55 Y150.61 E486.09941
G1 X123.15 Y150.08 E486.14062
G1 X122.68 Y149.20 E486.20286
G1 X122.47 Y148.64 E486.23993
G1 X122.33 Y148.10 E486.27480
G1 X122.20 Y147.16 E486.33413
G1 X122.25 Y146.13 E486.39799
G1 X122.30 Y145.90 E486.41294
G1 X120.70 Y145.90 E486.51303
G1 X120.80 Y146.64 E486.55980
G1 X120.75 Y147.60 E486.61966
G1 X120.63 Y148.29 E486.66293
G1 X120.28 Y149.31 E486.73024
G1 X119.79 Y150.19 E486.79294
G1 X119.07 Y151.04 E486.86254
G1 X118.50 Y151.53 E486.90956
G1 X117.84 Y151.96 E486.95874
G1 X116.88 Y152.40 E487.02447
G1 X115.80 Y152.65 E487.09323
G1 X114.91 Y152.71 E487.14899
G1 X113.74 Y152.57 E487.22234
G1 X112.76 Y152.25 E487.28675
G1 X112.08 Y151.91 E487.33400
G1 X111.33 Y151.39 E487.39091
G1 X110.82 Y150.91 E487.43481
G1 X110.55 Y150.61 E487.46025
G1 X110.15 Y150.08 E487.50146
G1 X109.64 Y149.14 E487.56803
G1 X109.34 Y148.18 E487.63099
G1 X109.20 Y147.16 E487.69505
G1 X109.25 Y146.20 E487.75492
G1 X109.30 Y145.90 E487.77380
G1 X95.70 Y145.90 E488.62206
G1 X95.80 Y146.64 E488.66880
G1 X95.75 Y147.67 E488.73310
G1 X95.51 Y148.72 E488.80004
G1 X95.12 Y149.62 E488.86120
G1 X94.80 Y150.16 E488.90050
G1 X94.38 Y150.70 E488.94316
G1 X93.74 Y151.32 E488.99900
G1 X93.46 Y151.55 E489.02108
G1 X92.84 Y151.96 E489.06769
G1 X91.88 Y152.40 E489.13342
G1 X90.80 Y152.65 E489.20219
G1 X89.91 Y152.71 E489.25794
G1 X88.74 Y152.57 E489.33129
G1 X87.76 Y152.25 E489.39570
G1 X87.08 Y151.91 E489.44295
G1 X86.33 Y151.39 E489.49986
G1 X86.25 Y151.31 E489.50697
G1 X86.25 Y163.25 E490.25120
G1 X80.25 Y163.25 E490.62538
G1 X80.25 Y209.25 E493.49413
G1 X123.27 Y209.25 E496.17704
G1 X131.02 Y175.69 E498.32503
G1 X131.25 Y174.69 E498.38905
G1 X131.25 Y151.69 E499.82339
G0 F6000 X130.75 Y152.55
G1 F2700 X130.04 Y152.87 E499.87204
G1 X128.88 Y153.14 E499.94639
G1 X127.90 Y153.21 E500.00752
G1 X126.64 Y153.06 E500.08684
G1 X125.57 Y152.72 E500.15661
G1 X124.83 Y152.34 E500.20846
G1 X124.02 Y151.78 E500.26999
G1 X123.46 Y151.26 E500.31760
G1 X123.16 Y150.93 E500.34555
G1 X122.73 Y150.35 E500.39050
G1 X122.22 Y149.40 E500.45749
G1 X122.00 Y148.79 E500.49815
G1 X121.84 Y148.20 E500.53636
G1 X121.70 Y147.18 E500.60047
G1 X121.74 Y146.40 E500.64910
G1 X121.27 Y146.40 E500.67822
G1 X121.30 Y146.62 E500.69213
G1 X121.25 Y147.66 E500.75681
G1 X121.12 Y148.41 E500.80458
G1 X120.74 Y149.51 E500.87710
G1 X120.20 Y150.47 E500.94557
G1 X119.42 Y151.39 E501.02074
G1 X118.80 Y151.93 E501.07215
G1 X118.08 Y152.40 E501.12573
G1 X117.04 Y152.87 E501.19704
G1 X115.88 Y153.14 E501.27139
G1 X114.90 Y153.21 E501.33252
G1 X113.64 Y153.06 E501.41184
G1 X112.57 Y152.72 E501.48161
G1 X111.83 Y152.34 E501.53346
G1 X111.02 Y151.78 E501.59499
G1 X110.46 Y151.26 E501.64260
G1 X110.16 Y150.93 E501.67055
G1 X109.73 Y150.35 E501.71551
G1 X109.18 Y149.33 E501.78743
G1 X108.85 Y148.29 E501.85597
G1 X108.70 Y147.18 E501.92557
G1 X108.74 Y146.40 E501.97421
G1 X96.27 Y146.40 E502.75175
G1 X96.30 Y146.62 E502.76565
G1 X96.25 Y147.74 E502.83543
G1 X95.99 Y148.88 E502.90827
G1 X95.56 Y149.85 E502.97433
G1 X95.21 Y150.44 E503.01736
G1 X94.75 Y151.03 E503.06411
G1 X94.07 Y151.70 E503.12365
G1 X93.76 Y151.95 E503.14861
G1 X93.08 Y152.40 E503.19919
G1 X92.04 Y152.87 E503.27050
G1 X90.88 Y153.14 E503.34485
G1 X89.90 Y153.21 E503.40598
G1 X88.64 Y153.06 E503.48529
G1 X87.57 Y152.72 E503.55507
G1 X86.83 Y152.34 E503.60692
G1 X86.75 Y152.29 E503.61283
G1 X86.75 Y163.75 E504.32739
G1 X80.75 Y163.75 E504.70156
G1 X80.75 Y208.75 E507.50795
G1 X122.87 Y208.75 E510.13492
G1 X130.53 Y175.58 E512.25807
G1 X130.75 Y174.63 E512.31875
G1 X130.75 Y152.55 E513.69559
G0 F6000 X130.25 Y153.32
G1 F2700 X130.20 Y153.35 E513.69894
G1 X128.95 Y153.64 E513.77892
G1 X127.89 Y153.71 E513.84549
G1 X126.53 Y153.55 E513.93071
G1 X125.38 Y153.18 E514.00587
G1 X124.57 Y152.78 E514.06237
G1 X123.70 Y152.17 E514.12842
G1 X123.10 Y151.61 E514.17969
G1 X122.78 Y151.24 E514.21025
G1 X122.30 Y150.62 E514.25889
G1 X121.76 Y149.61 E514.33062
G1 X121.52 Y148.94 E514.37485
G1 X121.50 Y148.85 E514.38086
G1 X121.19 Y149.72 E514.43807
G1 X120.62 Y150.76 E514.51232
G1 X119.78 Y151.75 E514.59317
G1 X119.10 Y152.32 E514.64895
G1 X118.32 Y152.84 E514.70689
G1 X117.20 Y153.35 E514.78376
G1 X115.95 Y153.64 E514.86374
G1 X114.89 Y153.71 E514.93030
G1 X113.53 Y153.55 E515.01552
G1 X112.38 Y153.18 E515.09068
G1 X111.57 Y152.78 E515.14719
G1 X110.70 Y152.17 E515.21324
G1 X110.10 Y151.61 E515.26450
G1 X109.78 Y151.24 E515.29506
G1 X109.30 Y150.62 E515.34371
G1 X108.72 Y149.53 E515.42102
G1 X108.36 Y148.40 E515.49518
G1 X108.20 Y147.20 E515.57025
G1 X108.21 Y146.90 E515.58904
G1 X96.79 Y146.90 E516.30172
G1 X96.75 Y147.81 E516.35828
G1 X96.47 Y149.04 E516.43686
G1 X96.01 Y150.08 E516.50798
G1 X95.62 Y150.72 E516.55470
G1 X95.13 Y151.37 E516.60545
G1 X94.40 Y152.07 E516.66869
G1 X94.05 Y152.35 E516.69654
G1 X93.32 Y152.84 E516.75111
G1 X92.20 Y153.35 E516.82797
G1 X90.95 Y153.64 E516.90795
G1 X89.89 Y153.71 E516.97452
G1 X88.53 Y153.55 E517.05974
G1 X87.38 Y153.18 E517.13490
G1 X87.25 Y153.11 E517.14416
G1 X87.25 Y164.25 E517.83857
G1 X81.25 Y164.25 E518.21274
G1 X81.25 Y208.25 E520.95677
G1 X122.48 Y208.25 E523.52773
G1 X130.04 Y175.46 E525.62612
G1 X130.25 Y174.57 E525.68316
G1 X130.25 Y153.32 E527.00818
G0 F6000 X129.75 Y153.97
G1 F2700 X129.03 Y154.13 E527.05454
G1 X127.87 Y154.21 E527.12655
G1 X126.42 Y154.04 E527.21768
G1 X125.19 Y153.64 E527.29820
G1 X124.32 Y153.21 E527.35928
G1 X123.39 Y152.56 E527.42995
G1 X122.74 Y151.96 E527.48487
G1 X122.39 Y151.56 E527.51796
G1 X121.88 Y150.89 E527.57038
G1 X121.50 Y150.19 E527.62018
G1 X121.03 Y151.04 E527.68107
G1 X120.14 Y152.10 E527.76744
G1 X119.40 Y152.72 E527.82765
G1 X118.57 Y153.28 E527.89006
G1 X117.36 Y153.82 E527.97248
G1 X116.03 Y154.13 E528.05802
G1 X114.87 Y154.21 E528.13003
G1 X113.42 Y154.04 E528.22116
G1 X112.19 Y153.64 E528.30168
G1 X111.32 Y153.21 E528.36276
G1 X110.39 Y152.56 E528.43343
G1 X109.74 Y151.96 E528.48835
G1 X109.39 Y151.56 E528.52144
G1 X108.88 Y150.89 E528.57386
G1 X108.26 Y149.72 E528.65661
G1 X107.87 Y148.50 E528.73626
G1 X107.72 Y147.40 E528.80574
G1 X97.27 Y147.40 E529.45786
G1 X97.24 Y147.87 E529.48739
G1 X96.94 Y149.19 E529.57173
G1 X96.45 Y150.31 E529.64783
G1 X96.04 Y151.00 E529.69832
G1 X95.50 Y151.70 E529.75313
G1 X94.73 Y152.45 E529.82007
G1 X94.35 Y152.76 E529.85080
G1 X93.57 Y153.28 E529.90938
G1 X92.36 Y153.82 E529.99180
G1 X91.03 Y154.13 E530.07735
G1 X89.87 Y154.21 E530.14935
G1 X88.42 Y154.04 E530.24048
G1 X87.75 Y153.82 E530.28458
G1 X87.75 Y164.75 E530.96596
G1 X81.75 Y164.75 E531.34013
G1 X81.75 Y207.75 E534.02179
G1 X122.08 Y207.75 E536.53682
G1 X129.56 Y175.35 E538.61037
G1 X129.75 Y174.52 E538.66382
G1 X129.75 Y153.97 E539.94543
G0 F6000 X129.25 Y154.60
G1 F2700 X129.10 Y154.63 E539.95504
G1 X127.86 Y154.71 E540.03248
G1 X126.31 Y154.53 E540.12957
G1 X125.00 Y154.11 E540.21540
G1 X124.06 Y153.64 E540.28111
G1 X123.07 Y152.95 E540.35631
G1 X122.39 Y152.31 E540.41494
G1 X122.00 Y151.88 E540.45063
G1 X121.50 Y151.22 E540.50229
G1 X121.44 Y151.33 E540.50991
G1 X120.49 Y152.45 E540.60190
G1 X119.70 Y153.12 E540.66653
G1 X118.81 Y153.72 E540.73330
G1 X117.52 Y154.30 E540.82133
G1 X116.10 Y154.63 E540.91245
G1 X114.86 Y154.71 E540.98989
G1 X113.31 Y154.53 E541.08699
G1 X112.00 Y154.11 E541.17282
G1 X111.06 Y153.64 E541.23852
G1 X110.07 Y152.95 E541.31372
G1 X109.39 Y152.31 E541.37236
G1 X109.00 Y151.88 E541.40804
G1 X108.46 Y151.16 E541.46416
G1 X107.79 Y149.92 E541.55230
G1 X107.38 Y148.62 E541.63750
G1 X107.28 Y147.90 E541.68244
G1 X97.74 Y147.90 E542.27750
G1 X97.74 Y147.94 E542.27994
G1 X97.42 Y149.35 E542.37009
G1 X96.90 Y150.54 E542.45121
G1 X96.45 Y151.29 E542.50543
G1 X95.88 Y152.03 E542.56427
G1 X95.06 Y152.82 E542.63488
G1 X94.64 Y153.16 E542.66853
G1 X93.81 Y153.72 E542.73108
G1 X92.52 Y154.30 E542.81911
G1 X91.10 Y154.63 E542.91023
G1 X89.86 Y154.71 E542.98767
G1 X88.31 Y154.53 E543.08477
G1 X88.25 Y154.51 E543.08903
G1 X88.25 Y165.25 E543.75874
G1 X82.25 Y165.25 E544.13292
G1 X82.25 Y207.25 E546.75221
G1 X121.68 Y207.25 E549.21124
G1 X129.07 Y175.24 E551.26003
G1 X129.25 Y174.46 E551.30989
G1 X129.25 Y154.60 E552.54860
G0 F6000 X128.75 Y155.16
G1 F2700 X127.85 Y155.22 E552.60498
G1 X126.21 Y155.02 E552.70797
G1 X124.81 Y154.57 E552.79925
G1 X123.81 Y154.07 E552.86947
G1 X122.75 Y153.34 E552.94929
G1 X122.03 Y152.66 E553.01158
G1 X121.62 Y152.20 E553.04983
G1 X121.50 Y152.04 E553.06243
G1 X120.84 Y152.81 E553.12530
G1 X120.00 Y153.53 E553.19435
G1 X119.05 Y154.16 E553.26549
G1 X117.69 Y154.78 E553.35907
G1 X116.17 Y155.13 E553.45582
G1 X114.85 Y155.22 E553.53870
G1 X113.21 Y155.02 E553.64170
G1 X111.81 Y154.57 E553.73297
G1 X110.81 Y154.07 E553.80320
G1 X109.75 Y153.34 E553.88302
G1 X109.03 Y152.66 E553.94531
G1 X108.62 Y152.20 E553.98356
G1 X108.04 Y151.44 E554.04341
G1 X107.33 Y150.11 E554.13693
G1 X106.89 Y148.72 E554.22776
G1 X106.85 Y148.40 E554.24809
G1 X98.15 Y148.40 E554.79052
G1 X97.90 Y149.51 E554.86123
G1 X97.34 Y150.77 E554.94735
G1 X96.86 Y151.57 E555.00529
G1 X96.25 Y152.37 E555.06819
G1 X95.40 Y153.20 E555.14254
G1 X94.94 Y153.57 E555.17904
G1 X94.05 Y154.16 E555.24558
G1 X92.69 Y154.78 E555.33916
G1 X91.17 Y155.13 E555.43591
G1 X89.85 Y155.22 E555.51879
G1 X88.75 Y155.09 E555.58775
G1 X88.75 Y165.75 E556.25273
G1 X82.75 Y165.75 E556.62690
G1 X82.75 Y206.75 E559.18384
G1 X121.28 Y206.75 E561.58686
G1 X128.58 Y175.13 E563.61082
G1 X128.75 Y174.40 E563.65710
G1 X128.75 Y155.16 E564.85746
G0 F6000 X128.25 Y155.69
G1 F2700 X127.83 Y155.72 E564.88340
G1 X126.10 Y155.51 E564.99229
G1 X124.63 Y155.04 E565.08895
G1 X123.55 Y154.50 E565.16383
G1 X122.44 Y153.73 E565.24817
G1 X121.67 Y153.01 E565.31413
G1 X121.50 Y152.81 E565.33034
G1 X121.20 Y153.16 E565.35887
G1 X120.30 Y153.93 E565.43235
G1 X119.30 Y154.59 E565.50785
G1 X117.85 Y155.25 E565.60701
G1 X116.25 Y155.62 E565.70929
G1 X114.83 Y155.72 E565.79767
G1 X113.10 Y155.51 E565.90656
G1 X111.63 Y155.04 E566.00322
G1 X110.55 Y154.50 E566.07810
G1 X109.44 Y153.73 E566.16244
G1 X108.67 Y153.01 E566.22840
G1 X108.23 Y152.52 E566.26925
G1 X107.62 Y151.71 E566.33275
G1 X106.87 Y150.31 E566.43171
G1 X106.42 Y148.90 E566.52370
G1 X98.55 Y148.90 E567.01481
G1 X98.38 Y149.66 E567.06359
G1 X97.79 Y151.00 E567.15473
G1 X97.28 Y151.85 E567.21639
G1 X96.63 Y152.70 E567.28333
G1 X95.73 Y153.57 E567.36135
G1 X95.24 Y153.97 E567.40077
G1 X94.30 Y154.59 E567.47127
G1 X92.85 Y155.25 E567.57043
G1 X91.25 Y155.62 E567.67271
G1 X89.83 Y155.72 E567.76109
G1 X89.25 Y155.65 E567.79782
G1 X89.25 Y166.25 E568.45880
G1 X83.25 Y166.25 E568.83298
G1 X83.25 Y206.25 E571.32755
G1 X120.89 Y206.25 E573.67458
G1 X128.09 Y175.01 E575.67376
G1 X128.25 Y174.34 E575.71658
G1 X128.25 Y155.69 E576.87990
G0 F6000 X127.75 Y156.21
G1 F2700 X125.99 Y156.00 E576.99018
G1 X124.44 Y155.50 E577.09218
G1 X123.30 Y154.93 E577.17167
G1 X122.12 Y154.12 E577.26062
G1 X121.52 Y153.55 E577.31259
G1 X120.61 Y154.33 E577.38726
G1 X119.54 Y155.03 E577.46722
G1 X118.01 Y155.73 E577.57189
G1 X116.32 Y156.12 E577.67979
G1 X114.82 Y156.22 E577.77354
G1 X112.99 Y156.00 E577.88841
G1 X111.44 Y155.50 E577.99041
G1 X110.30 Y154.93 E578.06990
G1 X109.12 Y154.12 E578.15885
G1 X108.31 Y153.35 E578.22847
G1 X107.85 Y152.84 E578.27188
G1 X107.19 Y151.98 E578.33913
G1 X106.41 Y150.50 E578.44350
G1 X106.06 Y149.40 E578.51549
G1 X98.95 Y149.40 E578.95883
G1 X98.85 Y149.82 E578.98568
G1 X98.23 Y151.23 E579.08179
G1 X97.69 Y152.13 E579.14723
G1 X97.00 Y153.03 E579.21823
G1 X96.06 Y153.95 E579.29995
G1 X95.53 Y154.37 E579.34216
G1 X94.54 Y155.03 E579.41676
G1 X93.01 Y155.73 E579.52142
G1 X91.32 Y156.12 E579.62932
G1 X89.82 Y156.22 E579.72308
G1 X89.75 Y156.21 E579.72767
G1 X89.75 Y166.75 E580.38478
G1 X83.75 Y166.75 E580.75896
G1 X83.75 Y205.75 E583.19117
G1 X120.49 Y205.75 E585.48225
G1 X127.61 Y174.90 E587.45666
G1 X127.75 Y174.29 E587.49584
G1 X127.75 Y156.21 E588.62317
G0 F6000 X127.25 Y156.66
G1 F2700 X125.89 Y156.49 E588.70877
G1 X124.25 Y155.97 E588.81615
G1 X123.04 Y155.36 E588.90024
G1 X121.81 Y154.51 E588.99372
G1 X121.50 Y154.22 E589.02010
G1 X120.91 Y154.73 E589.06877
G1 X119.78 Y155.47 E589.15309
G1 X118.17 Y156.20 E589.26336
G1 X116.40 Y156.62 E589.37683
G1 X114.81 Y156.72 E589.47602
G1 X112.89 Y156.49 E589.59679
G1 X111.25 Y155.97 E589.70418
G1 X110.04 Y155.36 E589.78827
G1 X108.81 Y154.51 E589.88175
G1 X107.95 Y153.70 E589.95507
G1 X107.46 Y153.15 E590.00109
G1 X106.77 Y152.25 E590.07206
G1 X105.94 Y150.70 E590.18179
G1 X105.69 Y149.90 E590.23384
G1 X99.35 Y149.90 E590.62935
G1 X99.33 Y149.98 E590.63434
G1 X98.68 Y151.46 E590.73537
G1 X98.11 Y152.41 E590.80458
G1 X97.38 Y153.37 E590.87958
G1 X96.39 Y154.32 E590.96500
G1 X95.83 Y154.78 E591.01014
G1 X94.78 Y155.47 E591.08870
G1 X93.17 Y156.20 E591.19897
G1 X91.40 Y156.62 E591.31244
G1 X90.25 Y156.69 E591.38413
G1 X90.25 Y167.25 E592.04243
G1 X84.25 Y167.25 E592.41661
G1 X84.25 Y205.25 E594.78646
G1 X120.09 Y205.25 E597.02154
G1 X127.12 Y174.79 E598.97112
G1 X127.25 Y174.23 E599.00689
G1 X127.25 Y156.66 E600.10286
G0 F6000 X118.55 Y149.33
G1 F2700 X118.00 Y149.97 E600.15573
G1 X117.59 Y150.32 E600.18949
G1 X117.11 Y150.64 E600.22548
G1 X116.39 Y150.97 E600.27449
G1 X115.58 Y151.16 E600.32650
G1 X114.95 Y151.20 E600.36594
G1 X114.07 Y151.09 E600.42151
G1 X113.33 Y150.86 E600.46981
G1 X112.85 Y150.62 E600.50325
G1 X112.28 Y150.22 E600.54650
G1 X111.89 Y149.86 E600.57937
G1 X111.71 Y149.65 E600.59703
G1 X111.41 Y149.27 E600.62712
G1 X111.03 Y148.56 E600.67748
G1 X110.81 Y147.85 E600.72371
G1 X110.71 Y147.09 E600.77128
G1 X110.74 Y146.37 E600.81654
G1 X110.83 Y145.90 E600.84644
G1 X111.10 Y145.11 E600.89825
G1 X111.45 Y144.48 E600.94350
G1 X111.51 Y144.40 E600.94965
G1 X93.49 Y144.40 E602.07393
G1 X93.56 Y144.49 E602.08129
G1 X93.93 Y145.17 E602.12924
G1 X94.09 Y145.60 E602.15825
G1 X94.20 Y146.00 E602.18356
G1 X94.29 Y146.71 E602.22854
G1 X94.26 Y147.47 E602.27617
G1 X94.08 Y148.25 E602.32584
G1 X93.78 Y148.93 E602.37202
G1 X93.55 Y149.31 E602.40005
G1 X93.25 Y149.70 E602.43061
G1 X92.74 Y150.20 E602.47538
G1 X92.57 Y150.34 E602.48886
G1 X92.11 Y150.64 E602.52341
G1 X91.39 Y150.97 E602.57242
G1 X90.58 Y151.16 E602.62443
G1 X89.95 Y151.20 E602.66387
G1 X89.07 Y151.09 E602.71945
G1 X88.33 Y150.86 E602.76775
G1 X87.85 Y150.62 E602.80119
G1 X87.28 Y150.22 E602.84443
G1 X86.89 Y149.86 E602.87730
G1 X86.71 Y149.65 E602.89497
G1 X86.41 Y149.27 E602.92505
G1 X86.05 Y148.59 E602.97312
G1 X85.91 Y148.19 E602.99940
G1 X85.80 Y147.81 E603.02419
G1 X85.71 Y147.09 E603.06917
G1 X85.74 Y146.33 E603.11661
G1 X85.91 Y145.57 E603.16530
G1 X86.21 Y144.88 E603.21233
G1 X86.47 Y144.46 E603.24316
G1 X86.51 Y144.40 E603.24758
G1 X68.48 Y144.40 E604.37198
G1 X68.59 Y144.54 E604.38257
G1 X68.97 Y145.25 E604.43293
G1 X69.19 Y145.95 E604.47910
G1 X69.29 Y146.71 E604.52667
G1 X69.26 Y147.44 E604.57193
G1 X69.18 Y147.91 E604.60177
G1 X68.90 Y148.69 E604.65364
G1 X68.55 Y149.33 E604.69895
G1 X68.00 Y149.97 E604.75182
G1 X67.59 Y150.32 E604.78558
G1 X67.11 Y150.64 E604.82157
G1 X66.39 Y150.97 E604.87058
G1 X65.58 Y151.16 E604.92259
G1 X64.95 Y151.20 E604.96203
G1 X64.07 Y151.09 E605.01760
G1 X63.33 Y150.86 E605.06590
G1 X62.85 Y150.62 E605.09934
G1 X62.28 Y150.22 E605.14259
G1 X61.90 Y149.86 E605.17546
G1 X61.71 Y149.65 E605.19312
G1 X61.41 Y149.27 E605.22321
G1 X61.03 Y148.56 E605.27357
G1 X60.81 Y147.85 E605.31980
G1 X60.71 Y147.09 E605.36737
G1 X60.74 Y146.37 E605.41263
G1 X60.83 Y145.90 E605.44253
G1 X61.10 Y145.11 E605.49434
G1 X61.45 Y144.48 E605.53959
G1 X61.51 Y144.40 E605.54574
G1 X58.25 Y144.40 E605.74930
G1 X58.25 Y135.40 E606.31056
G1 X61.47 Y135.40 E606.51106
G1 X69.75 Y99.51 E608.80806
G1 X69.75 Y77.40 E610.18696
G1 X84.75 Y77.40 E611.12240
G1 X84.75 Y86.40 E611.68367
G1 X78.75 Y86.40 E612.05784
G1 X78.75 Y135.40 E615.11362
G1 X120.75 Y135.40 E617.73285
G1 X120.75 Y144.40 E618.29412
G1 X118.48 Y144.40 E618.43543
G1 X118.59 Y144.54 E618.44602
G1 X118.97 Y145.25 E618.49638
G1 X119.19 Y145.95 E618.54255
G1 X119.29 Y146.71 E618.59013
G1 X119.26 Y147.44 E618.63539
G1 X119.18 Y147.91 E618.66522
G1 X118.90 Y148.69 E618.71709
G1 X118.55 Y149.33 E618.76240
G0 F6000 X118.14 Y149.04
G1 F2700 X117.65 Y149.62 E618.80961
G1 X117.29 Y149.93 E618.83898
G1 X116.87 Y150.21 E618.87061
G1 X116.23 Y150.49 E618.91407
G1 X115.51 Y150.66 E618.96043
G1 X114.96 Y150.70 E618.99444
G1 X114.17 Y150.60 E619.04411
G1 X113.52 Y150.39 E619.08703
G1 X113.10 Y150.19 E619.11587
G1 X112.59 Y149.83 E619.15458
G1 X112.25 Y149.51 E619.18379
G1 X112.09 Y149.33 E619.19885
G1 X111.84 Y149.00 E619.22519
G1 X111.50 Y148.36 E619.27017
G1 X111.30 Y147.74 E619.31084
G1 X111.21 Y147.07 E619.35294
G1 X111.24 Y146.42 E619.39327
G1 X111.31 Y146.02 E619.41868
G1 X111.56 Y145.31 E619.46532
G1 X111.86 Y144.76 E619.50485
G1 X112.35 Y144.18 E619.55206
G1 X112.68 Y143.90 E619.57922
G1 X92.32 Y143.90 E620.84930
G1 X92.76 Y144.30 E620.88661
G1 X93.14 Y144.77 E620.92439
G1 X93.47 Y145.38 E620.96728
G1 X93.61 Y145.76 E620.99256
G1 X93.70 Y146.09 E621.01431
G1 X93.79 Y146.73 E621.05458
G1 X93.76 Y147.41 E621.09666
G1 X93.61 Y148.09 E621.14052
G1 X93.34 Y148.70 E621.18167
G1 X93.14 Y149.03 E621.20598
G1 X92.88 Y149.37 E621.23254
G1 X92.41 Y149.83 E621.27356
G1 X92.28 Y149.93 E621.28415
G1 X91.87 Y150.21 E621.31475
G1 X91.23 Y150.49 E621.35821
G1 X90.51 Y150.66 E621.40457
G1 X89.96 Y150.70 E621.43857
G1 X89.17 Y150.60 E621.48825
G1 X88.52 Y150.39 E621.53117
G1 X88.10 Y150.19 E621.56000
G1 X87.59 Y149.83 E621.59872
G1 X87.25 Y149.51 E621.62792
G1 X87.09 Y149.33 E621.64299
G1 X86.84 Y149.00 E621.66933
G1 X86.51 Y148.38 E621.71268
G1 X86.38 Y148.04 E621.73537
G1 X86.30 Y147.71 E621.75679
G1 X86.21 Y147.07 E621.79706
G1 X86.24 Y146.40 E621.83895
G1 X86.39 Y145.73 E621.88187
G1 X86.66 Y145.11 E621.92388
G1 X86.88 Y144.75 E621.95020
G1 X87.35 Y144.18 E621.99621
G1 X87.68 Y143.90 E622.02337
G1 X67.32 Y143.90 E623.29345
G1 X67.74 Y144.28 E623.32882
G1 X67.91 Y144.47 E623.34472
G1 X68.17 Y144.81 E623.37106
G1 X68.50 Y145.44 E623.41604
G1 X68.70 Y146.06 E623.45665
G1 X68.79 Y146.73 E623.49875
G1 X68.76 Y147.38 E623.53908
G1 X68.69 Y147.78 E623.56449
G1 X68.45 Y148.49 E623.61119
G1 X68.14 Y149.04 E623.65072
G1 X67.65 Y149.62 E623.69793
G1 X67.29 Y149.93 E623.72730
G1 X66.87 Y150.21 E623.75893
G1 X66.23 Y150.49 E623.80239
G1 X65.51 Y150.66 E623.84875
G1 X64.96 Y150.70 E623.88276
G1 X64.17 Y150.60 E623.93243
G1 X63.52 Y150.39 E623.97535
G1 X63.10 Y150.19 E624.00419
G1 X62.59 Y149.83 E624.04290
G1 X62.25 Y149.51 E624.07211
G1 X62.09 Y149.33 E624.08717
G1 X61.84 Y149.00 E624.11351
G1 X61.50 Y148.36 E624.15849
G1 X61.30 Y147.74 E624.19916
G1 X61.21 Y147.07 E624.24126
G1 X61.24 Y146.42 E624.28159
G1 X61.31 Y146.02 E624.30700
G1 X61.55 Y145.31 E624.35364
G1 X61.86 Y144.76 E624.39317
G1 X62.35 Y144.18 E624.44038
G1 X62.68 Y143.90 E624.46754
G1 X58.75 Y143.90 E624.71287
G1 X58.75 Y135.90 E625.21177
G1 X61.86 Y135.90 E625.40591
G1 X70.25 Y99.57 E627.73126
G1 X70.25 Y77.90 E629.08253
G1 X84.25 Y77.90 E629.95561
G1 X84.25 Y85.90 E630.45451
G1 X78.25 Y85.90 E630.82869
G1 X78.25 Y135.90 E633.94683
G1 X120.25 Y135.90 E636.56606
G1 X120.25 Y143.90 E637.06497
G1 X117.32 Y143.90 E637.24781
G1 X117.74 Y144.28 E637.28318
G1 X117.91 Y144.47 E637.29908
G1 X118.17 Y144.81 E637.32542
G1 X118.50 Y145.44 E637.37040
G1 X118.70 Y146.06 E637.41101
G1 X118.79 Y146.73 E637.45311
G1 X118.76 Y147.38 E637.49344
G1 X118.69 Y147.78 E637.51885
G1 X118.45 Y148.49 E637.56555
G1 X118.14 Y149.04 E637.60508
G0 F6000 X117.72 Y148.76
G1 F2700 X117.29 Y149.26 E637.64672
G1 X116.99 Y149.53 E637.67171
G1 X116.62 Y149.77 E637.69893
G1 X116.07 Y150.02 E637.73681
G1 X115.43 Y150.16 E637.77759
G1 X114.98 Y150.20 E637.80616
G1 X114.28 Y150.11 E637.84993
G1 X113.71 Y149.93 E637.88746
G1 X113.36 Y149.75 E637.91172
G1 X112.91 Y149.44 E637.94579
G1 X112.61 Y149.16 E637.97137
G1 X112.48 Y149.01 E637.98383
G1 X112.26 Y148.72 E638.00648
G1 X111.96 Y148.16 E638.04607
G1 X111.79 Y147.63 E638.08120
G1 X111.71 Y147.05 E638.11775
G1 X111.74 Y146.48 E638.15328
G1 X111.80 Y146.15 E638.17418
G1 X112.01 Y145.52 E638.21564
G1 X112.28 Y145.05 E638.24936
G1 X112.71 Y144.54 E638.29099
G1 X113.02 Y144.27 E638.31691
G1 X113.22 Y144.15 E638.33127
G1 X113.22 Y143.40 E638.37791
G1 X91.78 Y143.40 E639.71510
G1 X91.78 Y144.15 E639.76193
G1 X91.98 Y144.27 E639.77647
G1 X92.40 Y144.65 E639.81152
G1 X92.73 Y145.05 E639.84407
G1 X93.02 Y145.58 E639.88186
G1 X93.14 Y145.91 E639.90341
G1 X93.21 Y146.19 E639.92168
G1 X93.29 Y146.75 E639.95717
G1 X93.26 Y147.34 E639.99369
G1 X93.13 Y147.94 E640.03178
G1 X92.89 Y148.47 E640.06797
G1 X92.72 Y148.75 E640.08856
G1 X92.51 Y149.04 E640.11102
G1 X92.08 Y149.45 E640.14838
G1 X91.98 Y149.53 E640.15605
G1 X91.62 Y149.77 E640.18269
G1 X91.07 Y150.02 E640.22056
G1 X90.43 Y150.16 E640.26134
G1 X89.98 Y150.20 E640.28991
G1 X89.28 Y150.11 E640.33368
G1 X88.71 Y149.93 E640.37121
G1 X88.36 Y149.75 E640.39548
G1 X87.91 Y149.44 E640.42954
G1 X87.61 Y149.16 E640.45513
G1 X87.48 Y149.01 E640.46758
G1 X87.26 Y148.72 E640.49023
G1 X86.97 Y148.18 E640.52885
G1 X86.86 Y147.89 E640.54794
G1 X86.79 Y147.61 E640.56602
G1 X86.71 Y147.05 E640.60150
G1 X86.74 Y146.46 E640.63796
G1 X86.87 Y145.88 E640.67507
G1 X87.11 Y145.34 E640.71210
G1 X87.28 Y145.04 E640.73389
G1 X87.71 Y144.54 E640.77477
G1 X88.02 Y144.27 E640.80069
G1 X88.22 Y144.15 E640.81505
G1 X88.22 Y143.40 E640.86169
G1 X66.78 Y143.40 E642.19888
G1 X66.78 Y144.15 E642.24571
G1 X66.98 Y144.27 E642.26025
G1 X67.38 Y144.63 E642.29411
G1 X67.52 Y144.79 E642.30709
G1 X67.74 Y145.08 E642.32975
G1 X68.04 Y145.64 E642.36934
G1 X68.21 Y146.17 E642.40434
G1 X68.29 Y146.75 E642.44096
G1 X68.26 Y147.32 E642.47648
G1 X68.20 Y147.65 E642.49739
G1 X67.99 Y148.28 E642.53891
G1 X67.72 Y148.76 E642.57263
G1 X67.29 Y149.26 E642.61426
G1 X66.99 Y149.53 E642.63925
G1 X66.62 Y149.77 E642.66648
G1 X66.07 Y150.02 E642.70435
G1 X65.43 Y150.16 E642.74513
G1 X64.98 Y150.20 E642.77370
G1 X64.28 Y150.11 E642.81747
G1 X63.71 Y149.93 E642.85500
G1 X63.36 Y149.75 E642.87927
G1 X62.91 Y149.44 E642.91333
G1 X62.61 Y149.16 E642.93892
G1 X62.48 Y149.01 E642.95137
G1 X62.26 Y148.72 E642.97402
G1 X61.96 Y148.16 E643.01361
G1 X61.79 Y147.63 E643.04874
G1 X61.71 Y147.05 E643.08530
G1 X61.74 Y146.48 E643.12082
G1 X61.80 Y146.15 E643.14173
G1 X62.01 Y145.52 E643.18318
G1 X62.28 Y145.05 E643.21690
G1 X62.71 Y144.54 E643.25854
G1 X63.02 Y144.27 E643.28446
G1 X63.22 Y144.15 E643.29881
G1 X63.22 Y143.40 E643.34546
G1 X59.25 Y143.40 E643.59310
G1 X59.25 Y136.40 E644.02964
G1 X62.26 Y136.40 E644.21735
G1 X70.75 Y99.62 E646.57119
G1 X70.75 Y78.40 E647.89471
G1 X83.75 Y78.40 E648.70543
G1 X83.75 Y85.40 E649.14197
G1 X77.75 Y85.40 E649.51614
G1 X77.75 Y136.40 E652.69664
G1 X119.75 Y136.40 E655.31588
