;-- START GCODE --
;Sliced for Type A Machines Series 1
;Sliced at: Wed 12-10-2016 22:38:03
;Basic settings: Layer height: 0.2 Walls: 1.5 Fill: 20
;Print Speed: 100 Support: 0
;Retraction Speed: 40 Retraction Distance: 1.2
;Print time: #P_TIME#
;Filament used: #F_AMNT#m #F_WGHT#g
;Filament cost: #F_COST#
M106 S255	 ;start with the fan on
G21        ;metric values
G90        ;absolute positioning
M106 S255    ;start with the fan on
G28     ;move to endstops
G29		;allows for auto-levelling
G1 X150 Y5  Z15.0 F6000 ;center and move the platform down 15mm
M109 S220 ;Heat To temp
G92 E0                  ;zero the extruded length
G1 F200 E30              ;extrude 30mm of feed stock
G92 E0                  ;zero the extruded length again
G1 X175 Y25  Z0 F6000 ;remove bugger
G1 X220 F6000 ;remove bugger
G1 X150 Y150  Z15 F6000 ;recenter and begin
G1 F6000

;Layer count: 75
;LAYER:0
M106 S255
G0 F6000 X148.81 Y167.27 Z0.30
;TYPE:SKIRT
G1 F2700 X148.16 Y168.06 E0.06367
G1 X147.68 Y168.96 E0.12740
G1 X147.39 Y169.94 E0.19126
G1 X147.28 Y170.96 E0.25499
G1 X147.39 Y171.98 E0.31879
G1 X147.68 Y172.96 E0.38265
G1 X148.16 Y173.86 E0.44637
G1 X148.81 Y174.65 E0.51004
G1 X149.60 Y175.30 E0.57372
G1 X150.50 Y175.78 E0.63744
G1 X151.48 Y176.07 E0.70130
G1 X152.50 Y176.18 E0.76503
G1 X153.52 Y176.07 E0.82876
G1 X154.50 Y175.78 E0.89262
G1 X155.40 Y175.30 E0.95634
G1 X156.19 Y174.65 E1.02001
G1 X156.84 Y173.86 E1.08369
G1 X157.32 Y172.96 E1.14741
G1 X157.61 Y171.98 E1.21127
G1 X157.72 Y170.96 E1.27507
G1 X157.61 Y169.94 E1.33880
G1 X157.32 Y168.96 E1.40266
G1 X156.84 Y168.06 E1.46639
G1 X156.19 Y167.27 E1.53006
G1 X155.40 Y166.62 E1.59373
G1 X154.50 Y166.14 E1.65745
G1 X153.52 Y165.85 E1.72131
G1 X152.50 Y165.75 E1.78505
G1 X151.48 Y165.85 E1.84878
G1 X150.50 Y166.14 E1.91264
G1 X149.60 Y166.62 E1.97637
G1 X148.81 Y167.27 E2.04004
G0 F6000 X148.46 Y166.92
G1 F2700 X147.75 Y167.78 E2.10992
G1 X147.22 Y168.77 E2.17964
G1 X146.89 Y169.85 E2.25003
G1 X146.78 Y170.96 E2.31958
G1 X146.89 Y172.07 E2.38920
G1 X147.22 Y173.15 E2.45959
G1 X147.75 Y174.14 E2.52931
G1 X148.46 Y175.00 E2.59919
G1 X149.32 Y175.71 E2.66906
G1 X150.31 Y176.24 E2.73879
G1 X151.38 Y176.57 E2.80884
G1 X152.50 Y176.68 E2.87871
G1 X153.62 Y176.57 E2.94858
G1 X154.69 Y176.24 E3.01864
G1 X155.68 Y175.71 E3.08836
G1 X156.54 Y175.00 E3.15824
G1 X157.25 Y174.14 E3.22811
G1 X157.78 Y173.15 E3.29784
G1 X158.11 Y172.07 E3.36822
G1 X158.22 Y170.96 E3.43784
G1 X158.11 Y169.85 E3.50740
G1 X157.78 Y168.77 E3.57779
G1 X157.25 Y167.78 E3.64751
G1 X156.54 Y166.92 E3.71739
G1 X155.68 Y166.21 E3.78726
G1 X154.69 Y165.68 E3.85698
G1 X153.61 Y165.35 E3.92737
G1 X152.50 Y165.24 E3.99693
G1 X151.39 Y165.35 E4.06648
G1 X150.31 Y165.68 E4.13687
G1 X149.32 Y166.21 E4.20659
G1 X148.46 Y166.92 E4.27647
G0 F6000 X148.10 Y166.56
G1 F2700 X147.33 Y167.51 E4.35273
G1 X146.75 Y168.58 E4.42853
G1 X146.40 Y169.75 E4.50445
G1 X146.28 Y170.96 E4.58058
G1 X146.40 Y172.18 E4.65679
G1 X146.75 Y173.34 E4.73270
G1 X147.33 Y174.41 E4.80850
G1 X148.10 Y175.36 E4.88476
G1 X149.05 Y176.13 E4.96102
G1 X150.12 Y176.71 E5.03682
G1 X151.28 Y177.06 E5.11274
G1 X152.50 Y177.18 E5.18887
G1 X153.72 Y177.06 E5.26501
G1 X154.88 Y176.71 E5.34093
G1 X155.95 Y176.13 E5.41673
G1 X156.90 Y175.36 E5.49299
G1 X157.67 Y174.41 E5.56924
G1 X158.25 Y173.34 E5.64505
G1 X158.60 Y172.18 E5.72096
G1 X158.72 Y170.96 E5.79716
G1 X158.60 Y169.75 E5.87330
G1 X158.25 Y168.58 E5.94922
G1 X157.67 Y167.51 E6.02502
G1 X156.90 Y166.56 E6.10128
G1 X155.95 Y165.79 E6.17753
G1 X154.88 Y165.21 E6.25334
G1 X153.72 Y164.86 E6.32925
G1 X152.50 Y164.74 E6.40539
G1 X151.28 Y164.86 E6.48153
G1 X150.12 Y165.21 E6.55745
G1 X149.05 Y165.79 E6.63325
G1 X148.10 Y166.56 E6.70951
G0 F6000 X147.75 Y166.21
G1 F2700 X146.91 Y167.23 E6.79183
G1 X146.29 Y168.38 E6.87366
G1 X145.91 Y169.65 E6.95617
G1 X145.78 Y170.96 E7.03819
G1 X145.91 Y172.27 E7.12022
G1 X146.29 Y173.54 E7.20278
G1 X146.91 Y174.69 E7.28462
G1 X147.75 Y175.71 E7.36694
G1 X148.77 Y176.55 E7.44926
G1 X149.93 Y177.17 E7.53110
G1 X151.19 Y177.55 E7.61366
G1 X152.50 Y177.68 E7.69562
G1 X153.81 Y177.55 E7.77759
G1 X155.07 Y177.17 E7.86015
G1 X156.23 Y176.55 E7.94199
G1 X157.25 Y175.71 E8.02431
G1 X158.09 Y174.69 E8.10663
G1 X158.71 Y173.54 E8.18847
G1 X159.09 Y172.27 E8.27103
G1 X159.22 Y170.96 E8.35306
G1 X159.09 Y169.65 E8.43508
G1 X158.71 Y168.38 E8.51759
G1 X158.09 Y167.23 E8.59942
G1 X157.25 Y166.21 E8.68174
G1 X156.23 Y165.37 E8.76407
G1 X155.07 Y164.75 E8.84590
G1 X153.81 Y164.37 E8.92840
G1 X152.50 Y164.24 E9.01043
G1 X151.19 Y164.37 E9.09246
G1 X149.93 Y164.75 E9.17496
G1 X148.77 Y165.37 E9.25679
G1 X147.75 Y166.21 E9.33912
G0 F6000 X147.39 Y165.85
G1 F2700 X146.49 Y166.95 E9.42747
G1 X145.82 Y168.20 E9.51580
G1 X145.42 Y169.55 E9.60395
G1 X145.28 Y170.96 E9.69238
G1 X145.42 Y172.37 E9.78093
G1 X145.82 Y173.72 E9.86901
G1 X146.49 Y174.97 E9.95735
G1 X147.39 Y176.07 E10.04570
G1 X148.49 Y176.97 E10.13405
G1 X149.74 Y177.64 E10.22238
G1 X151.09 Y178.04 E10.31047
G1 X152.50 Y178.18 E10.39895
G1 X153.91 Y178.04 E10.48744
G1 X155.26 Y177.64 E10.57552
G1 X156.51 Y176.97 E10.66385
G1 X157.61 Y176.07 E10.75221
G1 X158.51 Y174.97 E10.84056
G1 X159.18 Y173.72 E10.92889
G1 X159.58 Y172.37 E11.01698
G1 X159.72 Y170.96 E11.10553
G1 X159.58 Y169.55 E11.19396
G1 X159.18 Y168.20 E11.28210
G1 X158.51 Y166.95 E11.37044
G1 X157.61 Y165.85 E11.45879
G1 X156.51 Y164.95 E11.54714
G1 X155.26 Y164.28 E11.63547
G1 X153.91 Y163.88 E11.72362
G1 X152.50 Y163.74 E11.81205
G1 X151.09 Y163.88 E11.90047
G1 X149.74 Y164.28 E11.98862
G1 X148.49 Y164.95 E12.07695
G1 X147.39 Y165.85 E12.16531
G0 F6000 X147.04 Y165.50
G1 F2700 X146.07 Y166.67 E12.25982
G1 X145.36 Y168.00 E12.35406
G1 X144.92 Y169.46 E12.44882
G1 X144.77 Y170.96 E12.54313
G1 X144.92 Y172.47 E12.63751
G1 X145.36 Y173.92 E12.73226
G1 X146.07 Y175.25 E12.82651
G1 X147.04 Y176.42 E12.92102
G1 X148.21 Y177.39 E13.01553
G1 X149.54 Y178.10 E13.10977
G1 X151.00 Y178.54 E13.20452
G1 X152.50 Y178.69 E13.29883
G1 X154.00 Y178.54 E13.39314
G1 X155.46 Y178.10 E13.48790
G1 X156.79 Y177.39 E13.58214
G1 X157.96 Y176.42 E13.67665
G1 X158.93 Y175.25 E13.77116
G1 X159.64 Y173.92 E13.86541
G1 X160.08 Y172.47 E13.96016
G1 X160.23 Y170.96 E14.05454
G1 X160.08 Y169.46 E14.14885
G1 X159.64 Y168.00 E14.24361
G1 X158.93 Y166.67 E14.33785
G1 X157.96 Y165.50 E14.43236
G1 X156.79 Y164.53 E14.52687
G1 X155.46 Y163.82 E14.62111
G1 X154.00 Y163.38 E14.71587
G1 X152.50 Y163.23 E14.81018
G1 X151.00 Y163.38 E14.90450
G1 X149.54 Y163.82 E14.99925
G1 X148.21 Y164.53 E15.09350
G1 X147.04 Y165.50 E15.18801
G0 F6000 X146.68 Y165.14
G1 F2700 X145.66 Y166.39 E15.28886
G1 X144.90 Y167.81 E15.38913
G1 X144.43 Y169.36 E15.48988
G1 X144.27 Y170.96 E15.59040
G1 X144.43 Y172.56 E15.69098
G1 X144.90 Y174.11 E15.79173
G1 X145.66 Y175.53 E15.89201
G1 X146.68 Y176.78 E15.99286
G1 X147.93 Y177.81 E16.09371
G1 X149.35 Y178.56 E16.19398
G1 X150.89 Y179.03 E16.29447
G1 X152.50 Y179.19 E16.39524
G1 X154.11 Y179.03 E16.49600
G1 X155.65 Y178.56 E16.59649
G1 X157.07 Y177.81 E16.69676
G1 X158.32 Y176.78 E16.79761
G1 X159.34 Y175.53 E16.89846
G1 X160.10 Y174.11 E16.99874
G1 X160.57 Y172.56 E17.09949
G1 X160.73 Y170.96 E17.20007
G1 X160.57 Y169.36 E17.30059
G1 X160.10 Y167.81 E17.40134
G1 X159.34 Y166.39 E17.50161
G1 X158.32 Y165.14 E17.60246
G1 X157.07 Y164.12 E17.70331
G1 X155.65 Y163.36 E17.80359
G1 X154.10 Y162.89 E17.90434
G1 X152.50 Y162.73 E18.00486
G1 X150.90 Y162.89 E18.10538
G1 X149.35 Y163.36 E18.20613
G1 X147.93 Y164.12 E18.30640
G1 X146.68 Y165.14 E18.40725
G0 F6000 X146.33 Y164.79
G1 F2700 X145.24 Y166.11 E18.51404
G1 X144.43 Y167.62 E18.62062
G1 X143.94 Y169.26 E18.72755
G1 X143.77 Y170.96 E18.83421
G1 X143.94 Y172.66 E18.94094
G1 X144.43 Y174.30 E19.04787
G1 X145.24 Y175.81 E19.15444
G1 X146.33 Y177.13 E19.26123
G1 X147.65 Y178.22 E19.36803
G1 X149.16 Y179.03 E19.47460
G1 X150.80 Y179.52 E19.58153
G1 X152.50 Y179.69 E19.68819
G1 X154.20 Y179.52 E19.79485
G1 X155.84 Y179.03 E19.90177
G1 X157.35 Y178.22 E20.00835
G1 X158.67 Y177.13 E20.11514
G1 X159.76 Y175.81 E20.22193
G1 X160.57 Y174.30 E20.32851
G1 X161.06 Y172.66 E20.43544
G1 X161.23 Y170.96 E20.54216
G1 X161.06 Y169.26 E20.64883
G1 X160.57 Y167.62 E20.75576
G1 X159.76 Y166.11 E20.86233
G1 X158.67 Y164.79 E20.96913
G1 X157.35 Y163.70 E21.07592
G1 X155.84 Y162.89 E21.18249
G1 X154.20 Y162.40 E21.28942
G1 X152.50 Y162.23 E21.39609
G1 X150.80 Y162.40 E21.50275
G1 X149.16 Y162.89 E21.60968
G1 X147.65 Y163.70 E21.71625
G1 X146.33 Y164.79 E21.82305
G0 F6000 X145.97 Y164.43
G1 F2700 X144.82 Y165.83 E21.93599
G1 X143.97 Y167.43 E22.04879
G1 X143.44 Y169.16 E22.16178
G1 X143.27 Y170.96 E22.27458
G1 X143.44 Y172.76 E22.38750
G1 X143.97 Y174.50 E22.50043
G1 X144.82 Y176.09 E22.61323
G1 X145.97 Y177.49 E22.72617
G1 X147.37 Y178.64 E22.83912
G1 X148.97 Y179.49 E22.95192
G1 X150.70 Y180.02 E23.06491
G1 X152.50 Y180.19 E23.17771
G1 X154.30 Y180.02 E23.29051
G1 X156.03 Y179.49 E23.40349
G1 X157.63 Y178.64 E23.51629
G1 X159.03 Y177.49 E23.62924
G1 X160.18 Y176.09 E23.74219
G1 X161.03 Y174.50 E23.85499
G1 X161.56 Y172.76 E23.96791
G1 X161.73 Y170.96 E24.08083
G1 X161.56 Y169.16 E24.19364
G1 X161.03 Y167.43 E24.30662
G1 X160.18 Y165.83 E24.41942
G1 X159.03 Y164.43 E24.53237
G1 X157.63 Y163.28 E24.64531
G1 X156.03 Y162.43 E24.75811
G1 X154.30 Y161.90 E24.87110
G1 X152.50 Y161.73 E24.98390
G1 X150.70 Y161.90 E25.09670
G1 X148.97 Y162.43 E25.20968
G1 X147.37 Y163.28 E25.32248
G1 X145.97 Y164.43 E25.43543
G0 F6000 X145.62 Y164.08
G1 F2700 X144.40 Y165.55 E25.55453
G1 X143.51 Y167.23 E25.67328
G1 X142.95 Y169.06 E25.79253
G1 X142.76 Y170.96 E25.91153
G1 X142.95 Y172.86 E26.03053
G1 X143.51 Y174.69 E26.14985
G1 X144.40 Y176.37 E26.26859
G1 X145.62 Y177.84 E26.38770
G1 X147.09 Y179.06 E26.50680
G1 X148.77 Y179.96 E26.62554
G1 X150.60 Y180.51 E26.74486
G1 X152.50 Y180.70 E26.86380
G1 X154.40 Y180.51 E26.98273
G1 X156.23 Y179.96 E27.10205
G1 X157.91 Y179.06 E27.22079
G1 X159.38 Y177.84 E27.33990
G1 X160.60 Y176.37 E27.45900
G1 X161.49 Y174.69 E27.57774
G1 X162.05 Y172.86 E27.69706
G1 X162.24 Y170.96 E27.81606
G1 X162.05 Y169.06 E27.93506
G1 X161.49 Y167.23 E28.05431
G1 X160.60 Y165.55 E28.17306
G1 X159.38 Y164.08 E28.29216
G1 X157.91 Y162.86 E28.41126
G1 X156.23 Y161.97 E28.53001
G1 X154.40 Y161.41 E28.64926
G1 X152.50 Y161.22 E28.76826
G1 X150.60 Y161.41 E28.88726
G1 X148.77 Y161.97 E29.00652
G1 X147.09 Y162.86 E29.12526
G1 X145.62 Y164.08 E29.24436
G0 F6000 X145.26 Y163.72
G1 F2700 X143.99 Y165.27 E29.36967
G1 X143.04 Y167.04 E29.49469
G1 X142.46 Y168.96 E29.61989
G1 X142.26 Y170.96 E29.74503
G1 X142.46 Y172.96 E29.87023
G1 X143.04 Y174.88 E29.99543
G1 X143.99 Y176.65 E30.12045
G1 X145.26 Y178.20 E30.24575
G1 X146.81 Y179.47 E30.37106
G1 X148.58 Y180.42 E30.49608
G1 X150.50 Y181.00 E30.62128
G1 X152.50 Y181.20 E30.74641
G1 X154.50 Y181.00 E30.87155
G1 X156.42 Y180.42 E30.99674
G1 X158.19 Y179.47 E31.12176
G1 X159.74 Y178.20 E31.24707
G1 X161.01 Y176.65 E31.37238
G1 X161.96 Y174.88 E31.49740
G1 X162.54 Y172.96 E31.62259
G1 X162.74 Y170.96 E31.74780
G1 X162.54 Y168.96 E31.87294
G1 X161.96 Y167.04 E31.99813
G1 X161.01 Y165.27 E32.12315
G1 X159.74 Y163.72 E32.24846
G1 X158.19 Y162.45 E32.37377
G1 X156.42 Y161.50 E32.49879
G1 X154.50 Y160.92 E32.62398
G1 X152.50 Y160.72 E32.74912
G1 X150.50 Y160.92 E32.87427
G1 X148.58 Y161.50 E32.99946
G1 X146.81 Y162.45 E33.12448
G1 X145.26 Y163.72 E33.24979
G0 F6000 X144.91 Y163.37
G1 F2700 X143.57 Y165.00 E33.38126
G1 X142.58 Y166.85 E33.51222
G1 X141.97 Y168.87 E33.64373
G1 X141.76 Y170.96 E33.77502
G1 X141.97 Y173.06 E33.90637
G1 X142.58 Y175.07 E34.03787
G1 X143.57 Y176.93 E34.16884
G1 X144.91 Y178.56 E34.30031
G1 X146.53 Y179.89 E34.43178
G1 X148.39 Y180.88 E34.56274
G1 X150.41 Y181.50 E34.69425
G1 X152.50 Y181.70 E34.82553
G1 X154.59 Y181.50 E34.95681
G1 X156.61 Y180.88 E35.08832
G1 X158.47 Y179.89 E35.21928
G1 X160.09 Y178.56 E35.35075
G1 X161.43 Y176.93 E35.48223
G1 X162.42 Y175.07 E35.61319
G1 X163.03 Y173.06 E35.74470
G1 X163.24 Y170.96 E35.87604
G1 X163.03 Y168.87 E36.00733
G1 X162.42 Y166.85 E36.13884
G1 X161.43 Y165.00 E36.26980
G1 X160.09 Y163.37 E36.40127
G1 X158.47 Y162.03 E36.53275
G1 X156.61 Y161.04 E36.66371
G1 X154.59 Y160.43 E36.79522
G1 X152.50 Y160.22 E36.92650
G1 X150.41 Y160.43 E37.05779
G1 X148.39 Y161.04 E37.18930
G1 X146.53 Y162.03 E37.32026
G1 X144.91 Y163.37 E37.45173
G0 F6000 X144.55 Y163.01
G1 F2700 X143.15 Y164.72 E37.58931
G1 X142.11 Y166.66 E37.72655
G1 X141.47 Y168.77 E37.86405
G1 X141.26 Y170.96 E38.00155
G1 X141.47 Y173.16 E38.13910
G1 X142.11 Y175.26 E38.27660
G1 X143.15 Y177.21 E38.41384
G1 X144.55 Y178.91 E38.55142
G1 X146.25 Y180.31 E38.68900
G1 X148.20 Y181.35 E38.82624
G1 X150.31 Y181.99 E38.96375
G1 X152.50 Y182.20 E39.10123
G1 X154.69 Y181.99 E39.23872
G1 X156.80 Y181.35 E39.37622
G1 X158.75 Y180.31 E39.51346
G1 X160.45 Y178.91 E39.65104
G1 X161.85 Y177.21 E39.78862
G1 X162.89 Y175.26 E39.92586
G1 X163.53 Y173.16 E40.06337
G1 X163.74 Y170.96 E40.20092
G1 X163.53 Y168.77 E40.33841
G1 X162.89 Y166.66 E40.47592
G1 X161.85 Y164.72 E40.61316
G1 X160.45 Y163.01 E40.75074
G1 X158.75 Y161.61 E40.88832
G1 X156.80 Y160.57 E41.02556
G1 X154.69 Y159.93 E41.16306
G1 X152.50 Y159.72 E41.30055
G1 X150.31 Y159.93 E41.43804
G1 X148.20 Y160.57 E41.57555
G1 X146.25 Y161.61 E41.71279
G1 X144.55 Y163.01 E41.85037
G0 F6000 X144.19 Y162.66
G1 F2700 X142.73 Y164.44 E41.99415
G1 X141.65 Y166.46 E42.13742
G1 X140.98 Y168.67 E42.28143
G1 X140.75 Y170.96 E42.42475
G1 X140.98 Y173.25 E42.56813
G1 X141.65 Y175.46 E42.71215
G1 X142.73 Y177.48 E42.85542
G1 X144.19 Y179.27 E42.99920
G1 X145.98 Y180.73 E43.14298
G1 X148.00 Y181.81 E43.28625
G1 X150.21 Y182.48 E43.43027
G1 X152.50 Y182.71 E43.57358
G1 X154.79 Y182.48 E43.71689
G1 X157.00 Y181.81 E43.86091
G1 X159.02 Y180.73 E44.00417
G1 X160.81 Y179.27 E44.14796
G1 X162.27 Y177.48 E44.29174
G1 X163.35 Y175.46 E44.43501
G1 X164.02 Y173.25 E44.57902
G1 X164.25 Y170.96 E44.72240
G1 X164.02 Y168.67 E44.86572
G1 X163.35 Y166.46 E45.00974
G1 X162.27 Y164.44 E45.15300
G1 X160.81 Y162.66 E45.29679
G1 X159.02 Y161.19 E45.44057
G1 X157.00 Y160.11 E45.58384
G1 X154.79 Y159.44 E45.72786
G1 X152.50 Y159.21 E45.87117
G1 X150.21 Y159.44 E46.01449
G1 X148.00 Y160.11 E46.15851
G1 X145.98 Y161.19 E46.30177
G1 X144.19 Y162.66 E46.44556
G0 F6000 X143.84 Y162.30
G1 F2700 X142.31 Y164.16 E46.59541
G1 X141.18 Y166.27 E46.74498
G1 X140.49 Y168.57 E46.89466
G1 X140.25 Y170.96 E47.04450
G1 X140.49 Y173.35 E47.19441
G1 X141.18 Y175.65 E47.34408
G1 X142.31 Y177.76 E47.49366
G1 X143.84 Y179.62 E47.64351
G1 X145.70 Y181.15 E47.79336
G1 X147.81 Y182.28 E47.94293
G1 X150.11 Y182.97 E48.09267
G1 X152.50 Y183.21 E48.24244
G1 X154.89 Y182.97 E48.39222
G1 X157.19 Y182.28 E48.54196
G1 X159.30 Y181.15 E48.69153
G1 X161.16 Y179.62 E48.84138
G1 X162.69 Y177.76 E48.99123
G1 X163.82 Y175.65 E49.14081
G1 X164.51 Y173.35 E49.29048
G1 X164.75 Y170.96 E49.44039
G1 X164.51 Y168.57 E49.59023
G1 X163.82 Y166.27 E49.73990
G1 X162.69 Y164.16 E49.88948
G1 X161.16 Y162.30 E50.03933
G1 X159.30 Y160.78 E50.18918
G1 X157.19 Y159.64 E50.33875
G1 X154.89 Y158.95 E50.48843
G1 X152.50 Y158.71 E50.63827
G1 X150.11 Y158.95 E50.78811
G1 X147.81 Y159.64 E50.93779
G1 X145.70 Y160.78 E51.08736
G1 X143.84 Y162.30 E51.23722
G0 F6000 X137.25 Y186.84
G1 F2700 X137.25 Y133.26 E54.57849
G1 X111.75 Y133.26 E56.16874
G1 X111.75 Y117.76 E57.13536
G1 X138.35 Y117.76 E58.79421
G1 X138.35 Y118.34 E58.83032
G1 X166.55 Y118.34 E60.58895
G1 X166.55 Y117.76 E60.62506
G1 X193.35 Y117.76 E62.29638
G1 X193.35 Y133.26 E63.26300
G1 X167.75 Y133.26 E64.85949
G1 X167.75 Y186.84 E68.20076
G1 X137.25 Y186.84 E70.10282
G0 F6000 X136.75 Y187.34
G1 F2700 X136.75 Y133.76 E73.44409
G1 X111.25 Y133.76 E75.03435
G1 X111.25 Y117.26 E76.06333
G1 X138.85 Y117.26 E77.78454
G1 X138.85 Y117.84 E77.82065
G1 X166.05 Y117.84 E79.51692
G1 X166.05 Y117.26 E79.55303
G1 X193.85 Y117.26 E81.28671
G1 X193.85 Y133.76 E82.31570
G1 X168.25 Y133.76 E83.91218
G1 X168.25 Y187.34 E87.25345
G1 X136.75 Y187.34 E89.21788
G0 F6000 X136.25 Y187.84
G1 F2700 X136.25 Y134.26 E92.55915
G1 X110.75 Y134.26 E94.14940
G1 X110.75 Y116.76 E95.24075
G1 X139.35 Y116.76 E97.02432
G1 X139.35 Y117.34 E97.06043
G1 X165.55 Y117.34 E98.69434
G1 X165.55 Y116.76 E98.73045
G1 X194.35 Y116.76 E100.52649
G1 X194.35 Y134.26 E101.61784
G1 X168.75 Y134.26 E103.21433
G1 X168.75 Y187.84 E106.55560
G1 X136.25 Y187.84 E108.58239
G0 F6000 X135.75 Y188.34
G1 F2700 X135.75 Y134.76 E111.92366
G1 X110.25 Y134.76 E113.51391
G1 X110.25 Y116.26 E114.66762
G1 X139.85 Y116.26 E116.51356
G1 X139.85 Y116.84 E116.54967
G1 X165.05 Y116.84 E118.12121
G1 X165.05 Y116.26 E118.15732
G1 X194.85 Y116.26 E120.01573
G1 X194.85 Y134.76 E121.16944
G1 X169.25 Y134.76 E122.76592
G1 X169.25 Y188.34 E126.10719
G1 X135.75 Y188.34 E128.19635
G0 F6000 X135.25 Y188.84
G1 F2700 X135.25 Y135.26 E131.53762
G1 X109.75 Y135.26 E133.12787
G1 X109.75 Y115.76 E134.34394
G1 X140.35 Y115.76 E136.25224
G1 X140.35 Y116.34 E136.28835
G1 X164.55 Y116.34 E137.79753
G1 X164.55 Y115.76 E137.83364
G1 X195.35 Y115.76 E139.75441
G1 X195.35 Y135.26 E140.97048
G1 X169.75 Y135.26 E142.56697
G1 X169.75 Y188.84 E145.90824
G1 X135.25 Y188.84 E148.05976
G0 F6000 X134.75 Y189.34
G1 F2700 X134.75 Y135.76 E151.40103
G1 X109.25 Y135.76 E152.99128
G1 X109.25 Y115.26 E154.26972
G1 X140.85 Y115.26 E156.24038
G1 X140.85 Y115.84 E156.27649
G1 X164.05 Y115.84 E157.72330
G1 X164.05 Y115.26 E157.75941
G1 X195.85 Y115.26 E159.74255
G1 X195.85 Y135.76 E161.02098
G1 X170.25 Y135.76 E162.61747
G1 X170.25 Y189.34 E165.95874
G1 X134.75 Y189.34 E168.17262
G0 F6000 X134.25 Y189.84
G1 F2700 X134.25 Y136.26 E171.51389
G1 X108.75 Y136.26 E173.10414
G1 X108.75 Y114.76 E174.44494
G1 X141.35 Y114.76 E176.47796
G1 X141.35 Y115.34 E176.51407
G1 X163.55 Y115.34 E177.89853
G1 X163.55 Y114.76 E177.93463
G1 X196.35 Y114.76 E179.98013
G1 X196.35 Y136.26 E181.32093
G1 X170.75 Y136.26 E182.91742
G1 X170.75 Y189.84 E186.25869
G1 X134.25 Y189.84 E188.53493
G0 F6000 X133.75 Y190.34
G1 F2700 X133.75 Y136.76 E191.87620
G1 X108.25 Y136.76 E193.46645
G1 X108.25 Y114.26 E194.86961
G1 X141.85 Y114.26 E196.96500
G1 X141.85 Y114.84 E197.00111
G1 X163.05 Y114.84 E198.32320
G1 X163.05 Y114.26 E198.35931
G1 X196.85 Y114.26 E200.46717
G1 X196.85 Y136.76 E201.87033
G1 X171.25 Y136.76 E203.46682
G1 X171.25 Y190.34 E206.80809
G1 X133.75 Y190.34 E209.14669
G0 F6000 X133.25 Y190.84
G1 F2700 X133.25 Y137.26 E212.48796
G1 X107.75 Y137.26 E214.07821
G1 X107.75 Y113.76 E215.54374
G1 X142.35 Y113.76 E217.70149
G1 X142.35 Y114.34 E217.73760
G1 X162.55 Y114.34 E218.99733
G1 X162.55 Y113.76 E219.03343
G1 X197.35 Y113.76 E221.20366
G1 X197.35 Y137.26 E222.66918
G1 X171.75 Y137.26 E224.26567
G1 X171.75 Y190.84 E227.60694
G1 X133.25 Y190.84 E230.00791
G0 F6000 X132.75 Y191.34
G1 F2700 X132.75 Y137.76 E233.34918
G1 X107.25 Y137.76 E234.93943
G1 X107.25 Y113.26 E236.46732
G1 X142.85 Y113.26 E238.68743
G1 X142.85 Y113.84 E238.72354
G1 X162.05 Y113.84 E239.92090
G1 X162.05 Y113.26 E239.95701
G1 X197.85 Y113.26 E242.18960
G1 X197.85 Y137.76 E243.71749
G1 X172.25 Y137.76 E245.31397
G1 X172.25 Y191.34 E248.65524
G1 X132.75 Y191.34 E251.11857
G0 F6000 X132.25 Y191.84
G1 F2700 X132.25 Y138.26 E254.45984
G1 X106.75 Y138.26 E256.05009
G1 X106.75 Y112.76 E257.64034
G1 X143.35 Y112.76 E259.92282
G1 X143.35 Y113.34 E259.95893
G1 X161.55 Y113.34 E261.09393
G1 X161.55 Y112.76 E261.13004
G1 X198.35 Y112.76 E263.42499
G1 X198.35 Y138.26 E265.01524
G1 X172.75 Y138.26 E266.61173
G1 X172.75 Y191.84 E269.95300
G1 X132.25 Y191.84 E272.47869
G0 F6000 X131.75 Y192.34
G1 F2700 X131.75 Y138.76 E275.81996
G1 X106.25 Y138.76 E277.41021
G1 X106.25 Y112.26 E279.06282
G1 X143.85 Y112.26 E281.40766
G1 X143.85 Y112.84 E281.44377
G1 X161.05 Y112.84 E282.51641
G1 X161.05 Y112.26 E282.55252
G1 X198.85 Y112.26 E284.90983
G1 X198.85 Y138.76 E286.56244
G1 X173.25 Y138.76 E288.15893
G1 X173.25 Y192.34 E291.50020
G1 X131.75 Y192.34 E294.08826
G0 F6000 X131.25 Y192.84
G1 F2700 X131.25 Y139.26 E297.42953
G1 X105.75 Y139.26 E299.01978
G1 X105.75 Y111.76 E300.73475
G1 X144.35 Y111.76 E303.14196
G1 X144.35 Y112.34 E303.17806
G1 X160.55 Y112.34 E304.18834
G1 X160.55 Y111.76 E304.22445
G1 X199.35 Y111.76 E306.64412
G1 X199.35 Y139.26 E308.35910
G1 X173.75 Y139.26 E309.95558
G1 X173.75 Y192.84 E313.29686
G1 X131.25 Y192.84 E315.94727
G0 F6000 X130.75 Y193.34
G1 F2700 X130.75 Y139.76 E319.28854
G1 X105.25 Y139.76 E320.87880
G1 X105.25 Y111.26 E322.65613
G1 X144.85 Y111.26 E325.12570
G1 X144.85 Y111.84 E325.16181
G1 X160.05 Y111.84 E326.10972
G1 X160.05 Y111.26 E326.14583
G1 X199.85 Y111.26 E328.62787
G1 X199.85 Y139.76 E330.40520
G1 X174.25 Y139.76 E332.00169
G1 X174.25 Y193.34 E335.34296
G1 X130.75 Y193.34 E338.05574
G0 F6000 X130.25 Y193.84
G1 F2700 X130.25 Y140.26 E341.39701
G1 X104.75 Y140.26 E342.98726
G1 X104.75 Y110.76 E344.82697
G1 X145.35 Y110.76 E347.35889
G1 X145.35 Y111.34 E347.39500
G1 X159.55 Y111.34 E348.28055
G1 X159.55 Y110.76 E348.31666
G1 X200.35 Y110.76 E350.86106
G1 X200.35 Y140.26 E352.70076
G1 X174.75 Y140.26 E354.29725
G1 X174.75 Y193.84 E357.63852
G1 X130.25 Y193.84 E360.41366
G0 F6000 X138.75 Y185.34
;TYPE:WALL-INNER
G1 F2700 X138.75 Y171.02 E361.30657
G1 X139.01 Y173.64 E361.47095
G1 X139.79 Y176.22 E361.63915
G1 X141.06 Y178.60 E361.80730
G1 X142.77 Y180.69 E361.97545
G1 X144.86 Y182.40 E362.14361
G1 X147.24 Y183.67 E362.31176
G1 X149.82 Y184.45 E362.47996
G1 X152.50 Y184.72 E362.64809
G1 X155.18 Y184.45 E362.81622
G1 X157.76 Y183.67 E362.98442
G1 X160.14 Y182.40 E363.15257
G1 X162.23 Y180.69 E363.32073
G1 X163.94 Y178.60 E363.48888
G1 X165.21 Y176.22 E363.65703
G1 X165.99 Y173.64 E363.82524
G1 X166.25 Y171.02 E363.98961
G1 X166.25 Y185.34 E364.88252
G1 X138.75 Y185.34 E366.59750
G0 F6000 X138.75 Y170.90
G1 F2700 X138.75 Y119.84 E369.78167
G1 X166.25 Y119.84 E371.49665
G1 X166.25 Y170.90 E374.68083
G1 X165.99 Y168.28 E374.84514
G1 X165.21 Y165.70 E375.01334
G1 X163.94 Y163.32 E375.18150
G1 X162.23 Y161.23 E375.34965
G1 X160.14 Y159.52 E375.51781
G1 X157.76 Y158.25 E375.68596
G1 X155.18 Y157.47 E375.85416
G1 X152.50 Y157.20 E376.02229
G1 X149.82 Y157.47 E376.19043
G1 X147.24 Y158.25 E376.35863
G1 X144.86 Y159.52 E376.52678
G1 X142.77 Y161.23 E376.69494
G1 X141.06 Y163.32 E376.86309
G1 X139.79 Y165.70 E377.03124
G1 X139.01 Y168.28 E377.19944
G1 X138.75 Y170.90 E377.36376
G0 F6000 X139.25 Y170.96
G1 F2700 X139.50 Y173.55 E377.52581
G1 X140.26 Y176.03 E377.68782
G1 X141.48 Y178.32 E377.84986
G1 X143.13 Y180.33 E378.01190
G1 X145.14 Y181.98 E378.17394
G1 X147.43 Y183.21 E378.33598
G1 X149.91 Y183.96 E378.49799
G1 X152.50 Y184.21 E378.65998
G1 X155.09 Y183.96 E378.82197
G1 X157.57 Y183.21 E378.98398
G1 X159.86 Y181.98 E379.14602
G1 X161.87 Y180.33 E379.30805
G1 X163.52 Y178.32 E379.47009
G1 X164.74 Y176.03 E379.63213
G1 X165.50 Y173.55 E379.79414
G1 X165.75 Y170.96 E379.95620
G1 X165.50 Y168.38 E380.11820
G1 X164.74 Y165.89 E380.28020
G1 X163.52 Y163.60 E380.44224
G1 X161.87 Y161.59 E380.60428
G1 X159.86 Y159.94 E380.76632
G1 X157.57 Y158.72 E380.92836
G1 X155.09 Y157.96 E381.09037
G1 X152.50 Y157.71 E381.25236
G1 X149.91 Y157.96 E381.41436
G1 X147.43 Y158.72 E381.57637
G1 X145.14 Y159.94 E381.73841
G1 X143.13 Y161.59 E381.90045
G1 X141.48 Y163.60 E382.06249
G1 X140.26 Y165.89 E382.22453
G1 X139.50 Y168.38 E382.38653
G1 X139.25 Y170.96 E382.54853
G0 F6000 X138.25 Y185.84
G1 F2700 X138.25 Y119.34 E386.69559
G1 X166.75 Y119.34 E388.47293
G1 X166.75 Y185.84 E392.61999
G1 X138.25 Y185.84 E394.39733
G0 F6000 X137.75 Y186.34
;TYPE:WALL-OUTER
G1 F2700 X137.75 Y118.84 E398.60675
G1 X167.25 Y118.84 E400.44645
G1 X167.25 Y186.34 E404.65588
G1 X137.75 Y186.34 E406.49558
G0 F6000 X138.01 Y185.99
G0 X143.26 Y180.25
G0 X143.48 Y179.98
G1 F2700 X145.42 Y181.56 E406.65146
G1 X147.62 Y182.74 E406.80736
G1 X150.01 Y183.47 E406.96324
G1 X152.50 Y183.71 E407.11908
G1 X154.99 Y183.47 E407.27493
G1 X157.38 Y182.74 E407.43080
G1 X159.58 Y181.56 E407.58671
G1 X161.52 Y179.98 E407.74259
G1 X163.10 Y178.04 E407.89847
G1 X164.28 Y175.84 E408.05437
G1 X165.00 Y173.45 E408.21025
G1 X165.25 Y170.96 E408.36616
G1 X165.00 Y168.47 E408.52202
G1 X164.28 Y166.08 E408.67789
G1 X163.10 Y163.88 E408.83379
G1 X161.52 Y161.94 E408.98967
G1 X159.58 Y160.36 E409.14556
G1 X157.38 Y159.18 E409.30146
G1 X154.99 Y158.46 E409.45733
G1 X152.50 Y158.21 E409.61319
G1 X150.01 Y158.46 E409.76904
G1 X147.62 Y159.18 E409.92491
G1 X145.42 Y160.36 E410.08082
G1 X143.48 Y161.94 E410.23670
G1 X141.90 Y163.88 E410.39258
G1 X140.72 Y166.08 E410.54848
G1 X140.00 Y168.47 E410.70436
G1 X139.75 Y170.96 E410.86021
G1 X140.00 Y173.45 E411.01612
G1 X140.72 Y175.84 E411.17200
G1 X141.90 Y178.04 E411.32790
G1 X143.48 Y179.98 E411.48378
G0 F6000 X143.26 Y180.25
G0 X144.50 Y182.33
;TYPE:FILL
G1 F2700 X147.33 Y185.16 E411.73337
G0 F6000 X146.62 Y185.16
G1 F2700 X138.93 Y177.46 E412.41247
G0 F6000 X138.93 Y178.17
G1 F2700 X145.92 Y185.16 E413.02921
G0 F6000 X145.21 Y185.16
G1 F2700 X138.93 Y178.88 E413.58360
G0 F6000 X138.93 Y179.58
G1 F2700 X144.50 Y185.16 E414.07564
G0 F6000 X143.80 Y185.16
G1 F2700 X138.93 Y180.29 E414.50527
G0 F6000 X138.93 Y181.00
G1 F2700 X143.09 Y185.16 E414.87256
G0 F6000 X142.38 Y185.16
G1 F2700 X138.93 Y181.71 E415.17749
G0 F6000 X138.93 Y182.41
G1 F2700 X141.68 Y185.16 E415.42002
G0 F6000 X140.97 Y185.16
G1 F2700 X138.93 Y183.12 E415.60021
G0 F6000 X138.93 Y183.83
G1 F2700 X140.26 Y185.16 E415.71803
G0 F6000 X139.55 Y185.16
G1 F2700 X138.93 Y184.53 E415.77351
G0 F6000 X141.13 Y178.96
G1 F2700 X138.93 Y176.75 E415.96780
G0 F6000 X138.93 Y176.05
G1 F2700 X140.16 Y177.28 E416.07654
G0 F6000 X139.52 Y175.94
G1 F2700 X139.07 Y175.13 E416.12918
G1 X138.93 Y174.63 E416.16152
G0 F6000 X139.18 Y167.11
G1 F2700 X139.13 Y166.71 E416.18412
G1 X139.22 Y166.09 E416.22118
G1 X138.92 Y165.44 E416.26542
G0 F6000 X138.92 Y164.73
G1 F2700 X139.70 Y165.50 E416.33350
G0 F6000 X139.94 Y165.04
G1 F2700 X138.92 Y164.03 E416.42328
G0 F6000 X138.92 Y163.32
G1 F2700 X140.19 Y164.58 E416.53476
G0 F6000 X140.43 Y164.12
G1 F2700 X138.92 Y162.61 E416.66794
G0 F6000 X138.92 Y161.91
G1 F2700 X140.68 Y163.66 E416.82280
G0 F6000 X140.93 Y163.20
G1 F2700 X138.92 Y161.20 E416.99963
G0 F6000 X138.92 Y160.49
G1 F2700 X141.25 Y162.81 E417.20460
G0 F6000 X141.57 Y162.43
G1 F2700 X138.92 Y159.78 E417.43770
G0 F6000 X138.92 Y159.08
G1 F2700 X141.88 Y162.04 E417.69884
G0 F6000 X142.20 Y161.65
G1 F2700 X138.92 Y158.37 E417.98816
G0 F6000 X138.92 Y157.66
G1 F2700 X142.52 Y161.26 E418.30561
G0 F6000 X142.88 Y160.91
G1 F2700 X138.92 Y156.96 E418.65478
G0 F6000 X138.92 Y156.25
G1 F2700 X143.27 Y160.60 E419.03824
G0 F6000 X143.66 Y160.28
G1 F2700 X138.92 Y155.54 E419.45593
G0 F6000 X138.92 Y154.83
G1 F2700 X144.05 Y159.96 E419.90784
G0 F6000 X144.44 Y159.64
G1 F2700 X138.92 Y154.13 E420.39401
G0 F6000 X138.92 Y153.42
G1 F2700 X144.84 Y159.33 E420.91550
G0 F6000 X145.30 Y159.09
G1 F2700 X138.92 Y152.71 E421.47765
G0 F6000 X138.92 Y152.01
G1 F2700 X145.76 Y158.84 E422.08042
G0 F6000 X146.22 Y158.59
G1 F2700 X138.92 Y151.30 E422.72388
G0 F6000 X138.92 Y150.59
G1 F2700 X146.68 Y158.35 E423.40800
G0 F6000 X147.14 Y158.10
G1 F2700 X138.92 Y149.88 E424.13279
G0 F6000 X138.92 Y149.18
G1 F2700 X147.68 Y157.93 E424.90501
G0 F6000 X148.22 Y157.77
G1 F2700 X138.92 Y148.47 E425.72513
G0 F6000 X138.92 Y147.76
G1 F2700 X148.77 Y157.60 E426.59310
G0 F6000 X149.31 Y157.44
G1 F2700 X138.92 Y147.06 E427.50891
G0 F6000 X138.92 Y146.35
G1 F2700 X149.86 Y157.29 E428.47366
G0 F6000 X150.51 Y157.22
G1 F2700 X138.92 Y145.64 E429.49513
G0 F6000 X138.92 Y144.93
G1 F2700 X151.15 Y157.16 E430.57348
G0 F6000 X151.79 Y157.10
G1 F2700 X138.92 Y144.23 E431.70854
G0 F6000 X138.92 Y143.52
G1 F2700 X152.44 Y157.03 E432.90040
G0 F6000 X153.21 Y157.10
G1 F2700 X138.92 Y142.81 E434.16016
G0 F6000 X138.92 Y142.11
G1 F2700 X153.99 Y157.17 E435.48912
G0 F6000 X154.78 Y157.25
G1 F2700 X138.92 Y141.40 E436.88726
G0 F6000 X138.92 Y140.69
G1 F2700 X155.66 Y157.43 E438.36350
G0 F6000 X156.68 Y157.74
G1 F2700 X138.92 Y139.99 E439.92930
G0 F6000 X138.92 Y139.28
G1 F2700 X157.69 Y158.05 E441.58458
G0 F6000 X159.14 Y158.79
G1 F2700 X138.92 Y138.57 E443.36778
G0 F6000 X138.92 Y137.86
G1 F2700 X161.34 Y160.28 E445.34474
G0 F6000 X163.18 Y162.12
G1 F2700 X166.07 Y165.01 E445.60015
G0 F6000 X166.07 Y164.31
G1 F2700 X138.92 Y137.16 E447.99462
G0 F6000 X138.92 Y136.45
G1 F2700 X166.07 Y163.60 E450.38910
G0 F6000 X166.07 Y162.89
G1 F2700 X138.92 Y135.74 E452.78357
G0 F6000 X138.92 Y135.03
G1 F2700 X166.07 Y162.19 E455.17804
G0 F6000 X166.07 Y161.48
G1 F2700 X138.92 Y134.33 E457.57252
G0 F6000 X138.92 Y133.62
G1 F2700 X166.07 Y160.77 E459.96699
G0 F6000 X166.07 Y160.06
G1 F2700 X138.92 Y132.91 E462.36147
G0 F6000 X138.92 Y132.21
G1 F2700 X166.07 Y159.36 E464.75594
G0 F6000 X166.07 Y158.65
G1 F2700 X138.92 Y131.50 E467.15046
G0 F6000 X138.92 Y130.79
G1 F2700 X166.07 Y157.94 E469.54493
G0 F6000 X166.07 Y157.24
G1 F2700 X138.92 Y130.09 E471.93941
G0 F6000 X138.92 Y129.38
G1 F2700 X166.07 Y156.53 E474.33388
G0 F6000 X166.07 Y155.82
G1 F2700 X138.92 Y128.67 E476.72835
G0 F6000 X138.92 Y127.96
G1 F2700 X166.07 Y155.11 E479.12283
G0 F6000 X166.07 Y154.41
G1 F2700 X138.92 Y127.26 E481.51730
G0 F6000 X138.92 Y126.55
G1 F2700 X166.07 Y153.70 E483.91177
G0 F6000 X166.07 Y152.99
G1 F2700 X138.92 Y125.84 E486.30625
G0 F6000 X138.92 Y125.14
G1 F2700 X166.07 Y152.29 E488.70077
G0 F6000 X166.07 Y151.58
G1 F2700 X138.92 Y124.43 E491.09524
G0 F6000 X138.92 Y123.72
G1 F2700 X166.07 Y150.87 E493.48971
G0 F6000 X166.07 Y150.16
G1 F2700 X138.92 Y123.01 E495.88419
G0 F6000 X138.92 Y122.31
G1 F2700 X166.07 Y149.46 E498.27866
G0 F6000 X166.07 Y148.75
G1 F2700 X138.92 Y121.60 E500.67314
G0 F6000 X138.92 Y120.89
G1 F2700 X166.07 Y148.04 E503.06761
G0 F6000 X166.07 Y147.34
G1 F2700 X138.92 Y120.19 E505.46208
G0 F6000 X139.46 Y120.02
G1 F2700 X166.07 Y146.63 E507.80929
G0 F6000 X166.07 Y145.92
G1 F2700 X140.17 Y120.02 E510.09413
G0 F6000 X140.87 Y120.02
G1 F2700 X166.07 Y145.21 E512.31659
G0 F6000 X166.07 Y144.51
G1 F2700 X141.58 Y120.02 E514.47668
G0 F6000 X142.29 Y120.02
G1 F2700 X166.07 Y143.80 E516.57443
G0 F6000 X166.07 Y143.09
G1 F2700 X143.00 Y120.02 E518.60977
G0 F6000 X143.70 Y120.02
G1 F2700 X166.07 Y142.39 E520.58277
G0 F6000 X166.07 Y141.68
G1 F2700 X144.41 Y120.02 E522.49341
G0 F6000 X145.12 Y120.02
G1 F2700 X166.07 Y140.97 E524.34170
G0 F6000 X166.07 Y140.26
G1 F2700 X145.82 Y120.02 E526.12763
G0 F6000 X146.53 Y120.02
G1 F2700 X166.07 Y139.56 E527.85121
G0 F6000 X166.07 Y138.85
G1 F2700 X147.24 Y120.02 E529.51244
G0 F6000 X147.94 Y120.02
G1 F2700 X166.07 Y138.14 E531.11127
G0 F6000 X166.07 Y137.44
G1 F2700 X148.65 Y120.02 E532.64774
G0 F6000 X149.36 Y120.02
G1 F2700 X166.07 Y136.73 E534.12182
G0 F6000 X166.07 Y136.02
G1 F2700 X150.07 Y120.02 E535.53355
G0 F6000 X150.77 Y120.02
G1 F2700 X166.07 Y135.31 E536.88292
G0 F6000 X166.07 Y134.61
G1 F2700 X151.48 Y120.02 E538.16994
G0 F6000 X152.19 Y120.02
G1 F2700 X166.07 Y133.90 E539.39460
G0 F6000 X166.07 Y133.19
G1 F2700 X152.90 Y120.02 E540.55691
G0 F6000 X153.60 Y120.02
G1 F2700 X166.07 Y132.49 E541.65687
G0 F6000 X166.07 Y131.78
G1 F2700 X154.31 Y120.02 E542.69443
G0 F6000 X155.02 Y120.02
G1 F2700 X166.07 Y131.07 E543.66964
G0 F6000 X166.07 Y130.37
G1 F2700 X155.72 Y120.02 E544.58245
G0 F6000 X156.43 Y120.02
G1 F2700 X166.07 Y129.66 E545.43291
G0 F6000 X166.07 Y128.95
G1 F2700 X157.14 Y120.02 E546.22101
G0 F6000 X157.84 Y120.02
G1 F2700 X166.07 Y128.24 E546.94676
G0 F6000 X166.07 Y127.54
G1 F2700 X158.55 Y120.02 E547.61016
G0 F6000 X159.26 Y120.02
G1 F2700 X166.07 Y126.83 E548.21121
G0 F6000 X166.07 Y126.12
G1 F2700 X159.97 Y120.02 E548.74990
G0 F6000 X160.67 Y120.02
G1 F2700 X166.07 Y125.42 E549.22619
G0 F6000 X166.07 Y124.71
G1 F2700 X161.38 Y120.02 E549.64013
G0 F6000 X162.09 Y120.02
G1 F2700 X166.07 Y124.00 E549.99171
G0 F6000 X166.07 Y123.29
G1 F2700 X162.79 Y120.02 E550.28090
G0 F6000 X163.50 Y120.02
G1 F2700 X166.07 Y122.59 E550.50774
G0 F6000 X166.07 Y121.88
G1 F2700 X164.21 Y120.02 E550.67222
G0 F6000 X164.92 Y120.02
G1 F2700 X166.07 Y121.17 E550.77435
G0 F6000 X166.07 Y120.47
G1 F2700 X165.62 Y120.02 E550.81413
G0 F6000 X164.67 Y164.31
G1 F2700 X166.07 Y165.72 E550.93817
G0 F6000 X165.41 Y165.76
G1 F2700 X165.90 Y166.60 E550.99667
G1 X166.07 Y167.13 E551.03166
G0 F6000 X165.85 Y174.69
G1 F2700 X165.88 Y175.07 E551.05115
G1 X165.80 Y175.70 E551.08511
G1 X166.07 Y176.33 E551.12792
G0 F6000 X166.07 Y177.03
G1 F2700 X165.36 Y176.32 E551.19134
G0 F6000 X165.11 Y176.78
G1 F2700 X166.07 Y177.74 E551.27644
G0 F6000 X166.07 Y178.45
G1 F2700 X164.86 Y177.24 E551.38325
G0 F6000 X164.62 Y177.70
G1 F2700 X166.07 Y179.16 E551.51179
G0 F6000 X166.07 Y179.86
G1 F2700 X164.37 Y178.16 E551.66207
G0 F6000 X164.12 Y178.62
G1 F2700 X166.07 Y180.57 E551.83410
G0 F6000 X166.07 Y181.28
G1 F2700 X163.82 Y179.02 E552.03315
G0 F6000 X163.50 Y179.41
G1 F2700 X166.07 Y181.99 E552.26029
G0 F6000 X166.07 Y182.69
G1 F2700 X163.18 Y179.80 E552.51553
G0 F6000 X162.86 Y180.19
G1 F2700 X166.07 Y183.40 E552.79890
G0 F6000 X166.07 Y184.11
G1 F2700 X162.54 Y180.57 E553.11031
G0 F6000 X162.20 Y180.94
G1 F2700 X166.07 Y184.81 E553.45224
G0 F6000 X165.72 Y185.16
G1 F2700 X161.81 Y181.25 E553.79682
G0 F6000 X161.42 Y181.57
G1 F2700 X165.01 Y185.16 E554.11330
G0 F6000 X164.30 Y185.16
G1 F2700 X161.03 Y181.89 E554.40174
G0 F6000 X160.64 Y182.21
G1 F2700 X163.60 Y185.16 E554.66204
G0 F6000 X162.89 Y185.16
G1 F2700 X160.26 Y182.53 E554.89422
G0 F6000 X159.80 Y182.78
G1 F2700 X162.18 Y185.16 E555.10434
G0 F6000 X161.47 Y185.16
G1 F2700 X159.34 Y183.03 E555.29272
G0 F6000 X158.88 Y183.27
G1 F2700 X160.77 Y185.16 E555.45945
G0 F6000 X160.06 Y185.16
G1 F2700 X158.41 Y183.52 E555.60449
G0 F6000 X157.95 Y183.76
G1 F2700 X159.35 Y185.16 E555.72783
G0 F6000 X158.65 Y185.16
G1 F2700 X157.43 Y183.95 E555.83476
G0 F6000 X156.89 Y184.12
G1 F2700 X157.94 Y185.16 E555.92715
G0 F6000 X157.23 Y185.16
G1 F2700 X156.35 Y184.28 E556.00502
G0 F6000 X155.81 Y184.44
G1 F2700 X156.53 Y185.16 E556.06839
G0 F6000 X155.82 Y185.16
G1 F2700 X155.19 Y184.88 E556.11728
G1 X154.51 Y184.92 E556.15977
G1 X153.84 Y184.95 E556.19660
G1 X153.16 Y184.99 E556.22787
G1 X152.49 Y185.02 E556.25353
G1 X151.76 Y185.00 E556.28216
G1 X151.02 Y184.96 E556.31761
G1 X150.27 Y184.92 E556.35991
G1 X149.55 Y184.55 E556.41053
G0 F6000 X149.45 Y185.16
G1 F2700 X148.54 Y184.25 E556.49145
G0 F6000 X148.75 Y185.16
G1 F2700 X147.52 Y183.94 E556.59949
G0 F6000 X148.04 Y185.16
G1 F2700 X146.18 Y183.30 E556.76353
G0 F6000 X134.99 Y133.09
;TYPE:SUPPORT
G1 F2700 X134.99 Y117.94 E557.70832
G0 F6000 X134.99 Y118.11
G0 X131.65 Y118.11
G0 X131.65 Y117.94
G1 F2700 X131.65 Y133.09 E558.65312
G0 F6000 X131.65 Y132.91
G0 X128.32 Y132.91
G0 X128.32 Y133.09
G1 F2700 X128.32 Y117.94 E559.59792
G0 F6000 X128.32 Y118.11
G0 X124.99 Y118.11
G0 X124.99 Y117.94
G1 F2700 X124.99 Y133.09 E560.54271
G0 F6000 X124.99 Y132.91
G0 X121.65 Y132.91
G0 X121.65 Y133.09
G1 F2700 X121.65 Y117.94 E561.48751
G0 F6000 X121.65 Y118.11
G0 X118.32 Y118.11
G0 X118.32 Y117.94
G1 F2700 X118.32 Y133.09 E562.43230
G0 F6000 X118.32 Y132.91
G0 X114.99 Y132.91
G0 X114.99 Y133.09
G1 F2700 X114.99 Y117.94 E563.37710
G0 F6000 X168.32 Y117.94
G1 F2700 X168.32 Y133.09 E564.32189
G0 F6000 X168.32 Y132.91
G0 X171.65 Y132.91
G0 X171.65 Y133.09
G1 F2700 X171.65 Y117.94 E565.26669
G0 F6000 X171.65 Y118.11
G0 X174.98 Y118.11
G0 X174.98 Y117.94
G1 F2700 X174.98 Y133.09 E566.21149
G0 F6000 X174.98 Y132.91
G0 X178.31 Y132.91
G0 X178.31 Y133.09
G1 F2700 X178.31 Y117.94 E567.15628
G0 F6000 X178.31 Y118.11
G0 X181.65 Y118.11
G0 X181.65 Y117.94
G1 F2700 X181.65 Y133.09 E568.10108
G0 F6000 X181.65 Y132.91
G0 X184.98 Y132.91
G0 X184.98 Y133.09
G1 F2700 X184.98 Y117.94 E569.04587
G0 F6000 X184.98 Y118.11
G0 X188.31 Y118.11
G0 X188.31 Y117.94
G1 F2700 X188.31 Y133.09 E569.99067
G0 F6000 X188.31 Y132.91
G0 X191.65 Y132.91
G0 X191.65 Y133.09
G1 F2700 X191.65 Y117.94 E570.93546
;LAYER:1
G0 F6000 X166.25 Y119.84 Z0.50
;TYPE:WALL-INNER
G1 F3480 X166.25 Y170.90 E573.05825
G1 X165.99 Y168.28 E573.16779
G1 X165.21 Y165.70 E573.27993
G1 X163.94 Y163.32 E573.39203
G1 X162.23 Y161.23 E573.50413
G1 X160.14 Y159.52 E573.61623
G1 X157.76 Y158.25 E573.72834
G1 X155.18 Y157.47 E573.84047
G1 X152.50 Y157.20 E573.95256
G1 X149.82 Y157.47 E574.06465
G1 X147.24 Y158.25 E574.17678
G1 X144.86 Y159.52 E574.28888
G1 X142.77 Y161.23 E574.40099
G1 X141.06 Y163.32 E574.51309
G1 X139.79 Y165.70 E574.62519
G1 X139.01 Y168.28 E574.73733
G1 X138.75 Y170.90 E574.84687
G1 X138.75 Y119.84 E576.96965
G1 X166.25 Y119.84 E578.11297
G0 F6000 X166.25 Y171.02
G1 F3480 X166.25 Y185.34 E578.70824
G1 X138.75 Y185.34 E579.85156
G1 X138.75 Y171.02 E580.44683
G1 X139.01 Y173.64 E580.55642
G1 X139.79 Y176.22 E580.66855
G1 X141.06 Y178.60 E580.78065
G1 X142.77 Y180.69 E580.89276
G1 X144.86 Y182.40 E581.00486
G1 X147.24 Y183.67 E581.11696
G1 X149.82 Y184.45 E581.22910
G1 X152.50 Y184.72 E581.34118
G1 X155.18 Y184.45 E581.45327
G1 X157.76 Y183.67 E581.56540
G1 X160.14 Y182.40 E581.67750
G1 X162.23 Y180.69 E581.78960
G1 X163.94 Y178.60 E581.90171
G1 X165.21 Y176.22 E582.01381
G1 X165.99 Y173.64 E582.12594
G1 X166.25 Y171.02 E582.23553
G0 F6000 X165.75 Y170.96
G1 F3480 X165.50 Y168.38 E582.34352
G1 X164.74 Y165.89 E582.45153
G1 X163.52 Y163.60 E582.55956
G1 X161.87 Y161.59 E582.66758
G1 X159.86 Y159.94 E582.77561
G1 X157.57 Y158.72 E582.88363
G1 X155.09 Y157.96 E582.99164
G1 X152.50 Y157.71 E583.09964
G1 X149.91 Y157.96 E583.20763
G1 X147.43 Y158.72 E583.31564
G1 X145.14 Y159.94 E583.42367
G1 X143.13 Y161.59 E583.53169
G1 X141.48 Y163.60 E583.63972
G1 X140.26 Y165.89 E583.74774
G1 X139.50 Y168.38 E583.85575
G1 X139.25 Y170.96 E583.96375
G1 X139.50 Y173.55 E584.07179
G1 X140.26 Y176.03 E584.17979
G1 X141.48 Y178.32 E584.28782
G1 X143.13 Y180.33 E584.39584
G1 X145.14 Y181.98 E584.50387
G1 X147.43 Y183.21 E584.61190
G1 X149.91 Y183.96 E584.71990
G1 X152.50 Y184.21 E584.82790
G1 X155.09 Y183.96 E584.93589
G1 X157.57 Y183.21 E585.04389
G1 X159.86 Y181.98 E585.15192
G1 X161.87 Y180.33 E585.25995
G1 X163.52 Y178.32 E585.36797
G1 X164.74 Y176.03 E585.47600
G1 X165.50 Y173.55 E585.58400
G1 X165.75 Y170.96 E585.69204
G0 F6000 X166.75 Y185.84
G1 F3480 X138.25 Y185.84 E586.87694
G1 X138.25 Y119.34 E589.64164
G1 X166.75 Y119.34 E590.82653
G1 X166.75 Y185.84 E593.59124
G0 F6000 X167.25 Y186.34
;TYPE:WALL-OUTER
G1 F3480 X137.75 Y186.34 E594.81771
G1 X137.75 Y118.84 E597.62399
G1 X167.25 Y118.84 E598.85046
G1 X167.25 Y186.34 E601.65674
G0 F6000 X166.90 Y186.08
G0 X161.78 Y180.20
G0 X161.52 Y179.98
G1 F3480 X163.10 Y178.04 E601.76066
G1 X164.28 Y175.84 E601.86460
G1 X165.00 Y173.45 E601.96851
G1 X165.25 Y170.96 E602.07246
G1 X165.00 Y168.47 E602.17636
G1 X164.28 Y166.08 E602.28027
G1 X163.10 Y163.88 E602.38421
G1 X161.52 Y161.94 E602.48813
G1 X159.58 Y160.36 E602.59205
G1 X157.38 Y159.18 E602.69599
G1 X154.99 Y158.46 E602.79990
G1 X152.50 Y158.21 E602.90381
G1 X150.01 Y158.46 E603.00771
G1 X147.62 Y159.18 E603.11162
G1 X145.42 Y160.36 E603.21556
G1 X143.48 Y161.94 E603.31948
G1 X141.90 Y163.88 E603.42340
G1 X140.72 Y166.08 E603.52734
G1 X140.00 Y168.47 E603.63125
G1 X139.75 Y170.96 E603.73515
G1 X140.00 Y173.45 E603.83910
G1 X140.72 Y175.84 E603.94301
G1 X141.90 Y178.04 E604.04695
G1 X143.48 Y179.98 E604.15087
G1 X145.42 Y181.56 E604.25479
G1 X147.62 Y182.74 E604.35873
G1 X150.01 Y183.47 E604.46264
G1 X152.50 Y183.71 E604.56654
G1 X154.99 Y183.47 E604.67044
G1 X157.38 Y182.74 E604.77435
G1 X159.58 Y181.56 E604.87829
G1 X161.52 Y179.98 E604.98221
G0 F6000 X161.78 Y180.20
G0 X159.83 Y182.76
;TYPE:FILL
G1 F3480 X157.43 Y185.16 E605.12332
G0 F6000 X158.14 Y185.16
G1 F3480 X166.07 Y177.22 E605.58999
G0 F6000 X166.07 Y177.93
G1 F3480 X158.84 Y185.16 E606.01508
G0 F6000 X159.55 Y185.16
G1 F3480 X166.07 Y178.64 E606.39861
G0 F6000 X166.07 Y179.35
G1 F3480 X160.26 Y185.16 E606.74054
G0 F6000 X160.97 Y185.16
G1 F3480 X166.07 Y180.05 E607.04090
G0 F6000 X166.07 Y180.76
G1 F3480 X161.67 Y185.16 E607.29969
G0 F6000 X162.38 Y185.16
G1 F3480 X166.07 Y181.47 E607.51688
G0 F6000 X166.07 Y182.18
G1 F3480 X163.09 Y185.16 E607.69251
G0 F6000 X163.79 Y185.16
G1 F3480 X166.07 Y182.88 E607.82656
G0 F6000 X166.07 Y183.59
G1 F3480 X164.50 Y185.16 E607.91905
G0 F6000 X165.21 Y185.16
G1 F3480 X166.07 Y184.30 E607.96997
G0 F6000 X166.07 Y185.00
G1 F3480 X165.91 Y185.16 E607.97932
G0 F6000 X164.30 Y178.29
G1 F3480 X166.07 Y176.52 E608.08350
G0 F6000 X166.07 Y175.81
G1 F3480 X165.11 Y176.77 E608.14006
G0 F6000 X165.58 Y175.60
G1 F3480 X165.98 Y174.84 E608.16917
G1 X166.06 Y174.41 E608.18768
G0 F6000 X165.93 Y167.47
G1 F3480 X165.92 Y167.13 E608.19618
G1 X165.84 Y166.50 E608.21431
G1 X165.75 Y165.88 E608.24220
G1 X166.07 Y165.20 E608.27318
G0 F6000 X166.07 Y164.50
G1 F3480 X165.22 Y165.35 E608.32328
G0 F6000 X164.98 Y164.89
G1 F3480 X166.07 Y163.79 E608.38784
G0 F6000 X166.07 Y163.08
G1 F3480 X164.73 Y164.43 E608.46692
G0 F6000 X164.48 Y163.97
G1 F3480 X166.07 Y162.38 E608.56046
G0 F6000 X166.07 Y161.67
G1 F3480 X164.24 Y163.51 E608.66853
G0 F6000 X163.96 Y163.07
G1 F3480 X166.07 Y160.96 E608.79265
G0 F6000 X166.07 Y160.25
G1 F3480 X163.64 Y162.69 E608.93552
G0 F6000 X163.33 Y162.30
G1 F3480 X166.07 Y159.55 E609.09709
G0 F6000 X166.07 Y158.84
G1 F3480 X163.01 Y161.91 E609.27745
G0 F6000 X162.69 Y161.52
G1 F3480 X166.07 Y158.13 E609.47656
G0 F6000 X166.07 Y157.43
G1 F3480 X162.37 Y161.13 E609.69437
G0 F6000 X161.98 Y160.81
G1 F3480 X166.07 Y156.72 E609.93485
G0 F6000 X166.07 Y156.01
G1 F3480 X161.60 Y160.49 E610.19814
G0 F6000 X161.21 Y160.17
G1 F3480 X166.07 Y155.31 E610.48424
G0 F6000 X166.07 Y154.60
G1 F3480 X160.82 Y159.85 E610.79322
G0 F6000 X160.43 Y159.53
G1 F3480 X166.07 Y153.89 E611.12500
G0 F6000 X166.07 Y153.18
G1 F3480 X160.01 Y159.25 E611.48175
G0 F6000 X159.54 Y159.00
G1 F3480 X166.07 Y152.48 E611.86563
G0 F6000 X166.07 Y151.77
G1 F3480 X159.08 Y158.76 E612.27661
G0 F6000 X158.62 Y158.51
G1 F3480 X166.07 Y151.06 E612.71465
G0 F6000 X166.07 Y150.35
G1 F3480 X158.16 Y158.27 E613.17978
G0 F6000 X157.68 Y158.04
G1 F3480 X166.07 Y149.65 E613.67338
G0 F6000 X166.07 Y148.94
G1 F3480 X157.14 Y157.88 E614.19890
G0 F6000 X156.59 Y157.71
G1 F3480 X166.07 Y148.23 E614.75628
G0 F6000 X166.07 Y147.53
G1 F3480 X156.05 Y157.55 E615.34554
G0 F6000 X155.51 Y157.38
G1 F3480 X166.07 Y146.82 E615.96669
G0 F6000 X166.07 Y146.11
G1 F3480 X154.92 Y157.27 E616.62247
G0 F6000 X154.28 Y157.20
G1 F3480 X166.07 Y145.41 E617.31615
G0 F6000 X166.07 Y144.70
G1 F3480 X153.63 Y157.14 E618.04766
G0 F6000 X152.99 Y157.08
G1 F3480 X166.07 Y143.99 E618.81707
G0 F6000 X166.07 Y143.28
G1 F3480 X152.31 Y157.05 E619.62628
G0 F6000 X151.53 Y157.12
G1 F3480 X166.07 Y142.58 E620.48159
G0 F6000 X166.07 Y141.87
G1 F3480 X150.74 Y157.20 E621.38305
G0 F6000 X149.96 Y157.28
G1 F3480 X166.07 Y141.16 E622.33061
G0 F6000 X166.07 Y140.46
G1 F3480 X148.99 Y157.54 E623.33485
G0 F6000 X147.98 Y157.84
G1 F3480 X166.07 Y139.75 E624.39874
G0 F6000 X166.07 Y139.04
G1 F3480 X146.87 Y158.25 E625.52818
G0 F6000 X145.35 Y159.06
G1 F3480 X166.07 Y138.33 E626.74685
G0 F6000 X166.07 Y137.63
G1 F3480 X138.92 Y164.78 E628.34317
G0 F6000 X138.92 Y165.48
G1 F3480 X140.60 Y163.81 E628.44177
G0 F6000 X138.92 Y164.07
G1 F3480 X166.07 Y136.92 E630.03808
G0 F6000 X166.07 Y136.21
G1 F3480 X138.92 Y163.36 E631.63440
G0 F6000 X138.92 Y162.66
G1 F3480 X166.07 Y135.51 E633.23072
G0 F6000 X166.07 Y134.80
G1 F3480 X138.92 Y161.95 E634.82703
G0 F6000 X138.92 Y161.24
G1 F3480 X166.07 Y134.09 E636.42335
G0 F6000 X166.07 Y133.38
G1 F3480 X138.92 Y160.53 E638.01966
G0 F6000 X138.92 Y159.83
G1 F3480 X166.07 Y132.68 E639.61601
G0 F6000 X166.07 Y131.97
G1 F3480 X138.92 Y159.12 E641.21232
G0 F6000 X138.92 Y158.41
G1 F3480 X166.07 Y131.26 E642.80864
G0 F6000 X166.07 Y130.56
G1 F3480 X138.92 Y157.71 E644.40496
G0 F6000 X138.92 Y157.00
G1 F3480 X166.07 Y129.85 E646.00127
G0 F6000 X166.07 Y129.14
G1 F3480 X138.92 Y156.29 E647.59759
G0 F6000 X138.92 Y155.59
G1 F3480 X166.07 Y128.44 E649.19390
G0 F6000 X166.07 Y127.73
G1 F3480 X138.92 Y154.88 E650.79022
G0 F6000 X138.92 Y154.17
G1 F3480 X166.07 Y127.02 E652.38654
G0 F6000 X166.07 Y126.31
G1 F3480 X138.92 Y153.46 E653.98285
G0 F6000 X138.92 Y152.76
G1 F3480 X166.07 Y125.61 E655.57917
G0 F6000 X166.07 Y124.90
G1 F3480 X138.92 Y152.05 E657.17548
G0 F6000 X138.92 Y151.34
G1 F3480 X166.07 Y124.19 E658.77180
G0 F6000 X166.07 Y123.48
G1 F3480 X138.92 Y150.63 E660.36812
G0 F6000 X138.92 Y149.93
G1 F3480 X166.07 Y122.78 E661.96443
G0 F6000 X166.07 Y122.07
G1 F3480 X138.92 Y149.22 E663.56075
G0 F6000 X138.92 Y148.51
G1 F3480 X166.07 Y121.36 E665.15706
G0 F6000 X166.07 Y120.66
G1 F3480 X138.92 Y147.81 E666.75338
G0 F6000 X138.92 Y147.10
G1 F3480 X166.01 Y120.02 E668.34587
G0 F6000 X165.30 Y120.02
G1 F3480 X138.92 Y146.39 E669.89680
G0 F6000 X138.92 Y145.69
G1 F3480 X164.59 Y120.02 E671.40613
G0 F6000 X163.89 Y120.02
G1 F3480 X138.92 Y144.98 E672.87388
G0 F6000 X138.92 Y144.27
G1 F3480 X163.18 Y120.02 E674.30007
G0 F6000 X162.47 Y120.02
G1 F3480 X138.92 Y143.56 E675.68469
G0 F6000 X138.92 Y142.86
G1 F3480 X161.77 Y120.02 E677.02772
G0 F6000 X161.06 Y120.02
G1 F3480 X138.92 Y142.15 E678.32917
G0 F6000 X138.92 Y141.44
G1 F3480 X160.35 Y120.02 E679.58905
G0 F6000 X159.65 Y120.02
G1 F3480 X138.92 Y140.74 E680.80737
G0 F6000 X138.92 Y140.03
G1 F3480 X158.94 Y120.02 E681.98412
G0 F6000 X158.23 Y120.02
G1 F3480 X138.92 Y139.32 E683.11926
G0 F6000 X138.92 Y138.61
G1 F3480 X157.52 Y120.02 E684.21284
G0 F6000 X156.82 Y120.02
G1 F3480 X138.92 Y137.91 E685.26485
G0 F6000 X138.92 Y137.20
G1 F3480 X156.11 Y120.02 E686.27529
G0 F6000 X155.40 Y120.02
G1 F3480 X138.92 Y136.49 E687.24414
G0 F6000 X138.92 Y135.79
G1 F3480 X154.69 Y120.02 E688.17141
G0 F6000 X153.99 Y120.02
G1 F3480 X138.92 Y135.08 E689.05712
G0 F6000 X138.92 Y134.37
G1 F3480 X153.28 Y120.02 E689.90125
G0 F6000 X152.57 Y120.02
G1 F3480 X138.92 Y133.66 E690.70382
G0 F6000 X138.92 Y132.96
G1 F3480 X151.87 Y120.02 E691.46479
G0 F6000 X151.16 Y120.02
G1 F3480 X138.92 Y132.25 E692.18419
G0 F6000 X138.92 Y131.54
G1 F3480 X150.45 Y120.02 E692.86202
G0 F6000 X149.75 Y120.02
G1 F3480 X138.92 Y130.84 E693.49829
G0 F6000 X138.92 Y130.13
G1 F3480 X149.04 Y120.02 E694.09298
G0 F6000 X148.33 Y120.02
G1 F3480 X138.92 Y129.42 E694.64608
G0 F6000 X138.92 Y128.72
G1 F3480 X147.62 Y120.02 E695.15760
G0 F6000 X146.92 Y120.02
G1 F3480 X138.92 Y128.01 E695.62756
G0 F6000 X138.92 Y127.30
G1 F3480 X146.21 Y120.02 E696.05595
G0 F6000 X145.50 Y120.02
G1 F3480 X138.92 Y126.59 E696.44277
G0 F6000 X138.92 Y125.89
G1 F3480 X144.80 Y120.02 E696.78799
G0 F6000 X144.09 Y120.02
G1 F3480 X138.92 Y125.18 E697.09164
G0 F6000 X138.92 Y124.47
G1 F3480 X143.38 Y120.02 E697.35373
G0 F6000 X142.68 Y120.02
G1 F3480 X138.92 Y123.77 E697.57424
G0 F6000 X138.92 Y123.06
G1 F3480 X141.97 Y120.02 E697.75316
G0 F6000 X141.26 Y120.02
G1 F3480 X138.92 Y122.35 E697.89051
G0 F6000 X138.92 Y121.64
G1 F3480 X140.55 Y120.02 E697.98629
G0 F6000 X139.85 Y120.02
G1 F3480 X138.92 Y120.94 E698.04050
G0 F6000 X138.92 Y120.23
G1 F3480 X139.14 Y120.02 E698.05314
G0 F6000 X139.79 Y165.32
G1 F3480 X138.92 Y166.19 E698.10411
G0 F6000 X139.38 Y166.44
G1 F3480 X138.92 Y166.90 E698.13110
G0 F6000 X139.09 Y174.51
G1 F3480 X139.09 Y174.87 E698.14070
G1 X139.17 Y175.49 E698.16004
G1 X139.25 Y176.11 E698.18904
G1 X138.93 Y176.80 E698.22056
G0 F6000 X138.93 Y177.50
G1 F3480 X139.81 Y176.62 E698.27239
G0 F6000 X140.05 Y177.08
G1 F3480 X138.93 Y178.21 E698.33868
G0 F6000 X138.93 Y178.92
G1 F3480 X140.30 Y177.55 E698.41941
G0 F6000 X140.54 Y178.01
G1 F3480 X138.93 Y179.63 E698.51466
G0 F6000 X138.93 Y180.33
G1 F3480 X140.79 Y178.47 E698.62437
G0 F6000 X141.07 Y178.89
G1 F3480 X138.93 Y181.04 E698.75066
G0 F6000 X138.93 Y181.75
G1 F3480 X141.39 Y179.28 E698.89571
G0 F6000 X141.71 Y179.67
G1 F3480 X138.93 Y182.45 E699.05946
G0 F6000 X138.93 Y183.16
G1 F3480 X142.03 Y180.06 E699.24196
G0 F6000 X142.35 Y180.44
G1 F3480 X138.93 Y183.87 E699.44322
G0 F6000 X138.93 Y184.58
G1 F3480 X142.67 Y180.83 E699.66350
G0 F6000 X143.06 Y181.15
G1 F3480 X139.04 Y185.16 E699.89954
G0 F6000 X139.75 Y185.16
G1 F3480 X143.45 Y181.47 E700.11685
G0 F6000 X143.84 Y181.78
G1 F3480 X140.46 Y185.16 E700.31541
G0 F6000 X141.17 Y185.16
G1 F3480 X144.22 Y182.10 E700.49523
G0 F6000 X144.61 Y182.42
G1 F3480 X141.87 Y185.16 E700.65633
G0 F6000 X142.58 Y185.16
G1 F3480 X145.05 Y182.70 E700.80127
G0 F6000 X145.51 Y182.94
G1 F3480 X143.29 Y185.16 E700.93174
G0 F6000 X144.00 Y185.16
G1 F3480 X145.97 Y183.19 E701.04774
G0 F6000 X146.43 Y183.44
G1 F3480 X144.70 Y185.16 E701.14928
G0 F6000 X145.41 Y185.16
G1 F3480 X146.89 Y183.68 E701.23636
G0 F6000 X147.38 Y183.90
G1 F3480 X146.12 Y185.16 E701.31088
G0 F6000 X146.82 Y185.16
G1 F3480 X147.93 Y184.06 E701.37574
G0 F6000 X148.47 Y184.22
G1 F3480 X147.53 Y185.16 E701.43092
G0 F6000 X148.24 Y185.16
G1 F3480 X149.01 Y184.39 E701.47645
G0 F6000 X149.55 Y184.55
G1 F3480 X149.30 Y185.16 E701.51227
G1 X150.26 Y184.91 E701.54178
G1 X150.93 Y184.94 E701.56763
G1 X151.61 Y184.97 E701.58975
G1 X152.28 Y185.00 E701.60818
G1 X152.98 Y185.01 E701.62584
G1 X153.73 Y184.97 E701.64804
G1 X154.47 Y184.93 E701.67482
G1 X155.13 Y184.63 E701.70499
G0 F6000 X155.31 Y185.16
G1 F3480 X156.12 Y184.35 E701.75297
G0 F6000 X156.02 Y185.16
G1 F3480 X157.14 Y184.04 E701.81905
G0 F6000 X156.72 Y185.16
G1 F3480 X158.31 Y183.57 E701.91260
;LAYER:2
G0 F6000 X157.76 Y183.67 Z0.70
;TYPE:WALL-INNER
G1 F4320 X160.14 Y182.40 E702.02470
G1 X162.23 Y180.69 E702.13680
G1 X163.94 Y178.60 E702.24891
G1 X165.21 Y176.22 E702.36101
G1 X165.99 Y173.64 E702.47314
G1 X166.25 Y171.02 E702.58272
G1 X166.25 Y185.34 E703.17800
G1 X138.75 Y185.34 E704.32131
G1 X138.75 Y171.02 E704.91659
G1 X139.01 Y173.64 E705.02617
G1 X139.79 Y176.22 E705.13830
G1 X141.06 Y178.60 E705.25040
G1 X142.77 Y180.69 E705.36251
G1 X144.86 Y182.40 E705.47461
G1 X147.24 Y183.67 E705.58671
G1 X149.82 Y184.45 E705.69885
G1 X152.50 Y184.72 E705.81093
G1 X155.18 Y184.45 E705.92302
G1 X157.76 Y183.67 E706.03515
G0 F6000 X161.83 Y180.29
G0 X163.48 Y178.29
G0 X164.70 Y176.01
G0 X165.45 Y173.53
G0 X166.25 Y170.90
G1 F4320 X165.99 Y168.28 E706.14469
G1 X165.21 Y165.70 E706.25683
G1 X163.94 Y163.32 E706.36893
G1 X162.23 Y161.23 E706.48103
G1 X160.14 Y159.52 E706.59314
G1 X157.76 Y158.25 E706.70524
G1 X155.18 Y157.47 E706.81737
G1 X152.50 Y157.20 E706.92946
G1 X149.82 Y157.47 E707.04155
G1 X147.24 Y158.25 E707.15368
G1 X144.86 Y159.52 E707.26579
G1 X142.77 Y161.23 E707.37789
G1 X141.06 Y163.32 E707.48999
G1 X139.79 Y165.70 E707.60209
G1 X139.01 Y168.28 E707.71423
G1 X138.75 Y170.90 E707.82377
G1 X138.75 Y131.16 E709.47588
G1 X113.75 Y131.16 E710.51526
G1 X113.75 Y119.66 E710.99338
G1 X191.25 Y119.66 E714.21545
G1 X191.25 Y131.16 E714.69357
G1 X166.25 Y131.16 E715.73295
G1 X166.25 Y170.90 E717.38506
G0 F6000 X165.75 Y170.96
G1 F4320 X165.50 Y168.38 E717.49306
G1 X164.74 Y165.89 E717.60106
G1 X163.52 Y163.60 E717.70909
G1 X161.87 Y161.59 E717.81712
G1 X159.86 Y159.94 E717.92514
G1 X157.57 Y158.72 E718.03317
G1 X155.09 Y157.96 E718.14117
G1 X152.50 Y157.71 E718.24917
G1 X149.91 Y157.96 E718.35717
G1 X147.43 Y158.72 E718.46517
G1 X145.14 Y159.94 E718.57320
G1 X143.13 Y161.59 E718.68123
G1 X141.48 Y163.60 E718.78925
G1 X140.26 Y165.89 E718.89728
G1 X139.50 Y168.38 E719.00528
G1 X139.25 Y170.96 E719.11328
G1 X139.50 Y173.55 E719.22132
G1 X140.26 Y176.03 E719.32933
G1 X141.48 Y178.32 E719.43735
G1 X143.13 Y180.33 E719.54538
G1 X145.14 Y181.98 E719.65340
G1 X147.43 Y183.21 E719.76143
G1 X149.91 Y183.96 E719.86944
G1 X152.50 Y184.21 E719.97743
G1 X155.09 Y183.96 E720.08542
G1 X157.57 Y183.21 E720.19343
G1 X159.86 Y181.98 E720.30145
G1 X161.87 Y180.33 E720.40948
G1 X163.52 Y178.32 E720.51751
G1 X164.74 Y176.03 E720.62553
G1 X165.50 Y173.55 E720.73354
G1 X165.75 Y170.96 E720.84158
G0 F6000 X166.75 Y185.84
G1 F4320 X138.25 Y185.84 E722.02647
G1 X138.25 Y131.66 E724.27893
G1 X113.25 Y131.66 E725.31831
G1 X113.25 Y119.16 E725.83800
G1 X191.75 Y119.16 E729.10165
G1 X191.75 Y131.66 E729.62134
G1 X166.75 Y131.66 E730.66072
G1 X166.75 Y185.84 E732.91318
G0 F6000 X167.25 Y186.34
;TYPE:WALL-OUTER
G1 F4320 X137.75 Y186.34 E734.13964
G1 X137.75 Y132.16 E736.39210
G1 X112.75 Y132.16 E737.43148
G1 X112.75 Y118.66 E737.99275
G1 X192.25 Y118.66 E741.29797
G1 X192.25 Y132.16 E741.85924
G1 X167.25 Y132.16 E742.89862
G1 X167.25 Y186.34 E745.15108
G0 F6000 X166.90 Y186.08
G0 X161.78 Y180.20
G0 X161.52 Y179.98
G1 F4320 X163.10 Y178.04 E745.25500
G1 X164.28 Y175.84 E745.35893
G1 X165.00 Y173.45 E745.46285
G1 X165.25 Y170.96 E745.56679
G1 X165.00 Y168.47 E745.67069
G1 X164.28 Y166.08 E745.77461
G1 X163.10 Y163.88 E745.87855
G1 X161.52 Y161.94 E745.98247
G1 X159.58 Y160.36 E746.08639
G1 X157.38 Y159.18 E746.19032
G1 X154.99 Y158.46 E746.29424
G1 X152.50 Y158.21 E746.39814
G1 X150.01 Y158.46 E746.50204
G1 X147.62 Y159.18 E746.60596
G1 X145.42 Y160.36 E746.70989
G1 X143.48 Y161.94 E746.81382
G1 X141.90 Y163.88 E746.91774
G1 X140.72 Y166.08 E747.02167
G1 X140.00 Y168.47 E747.12559
G1 X139.75 Y170.96 E747.22949
G1 X140.00 Y173.45 E747.33343
G1 X140.72 Y175.84 E747.43735
G1 X141.90 Y178.04 E747.54128
G1 X143.48 Y179.98 E747.64521
G1 X145.42 Y181.56 E747.74913
G1 X147.62 Y182.74 E747.85306
G1 X150.01 Y183.47 E747.95698
G1 X152.50 Y183.71 E748.06088
G1 X154.99 Y183.47 E748.16477
G1 X157.38 Y182.74 E748.26869
G1 X159.58 Y181.56 E748.37262
G1 X161.52 Y179.98 E748.47655
G0 F6000 X162.20 Y180.94
;TYPE:FILL
G1 F4320 X166.07 Y184.81 E748.70450
G0 F6000 X165.72 Y185.16
G1 F4320 X161.81 Y181.25 E748.93422
G0 F6000 X161.42 Y181.57
G1 F4320 X165.01 Y185.16 E749.14521
G0 F6000 X164.30 Y185.16
G1 F4320 X161.03 Y181.89 E749.33750
G0 F6000 X160.64 Y182.21
G1 F4320 X163.60 Y185.16 E749.51104
G0 F6000 X162.89 Y185.16
G1 F4320 X160.26 Y182.53 E749.66582
G0 F6000 X159.80 Y182.78
G1 F4320 X162.18 Y185.16 E749.80590
G0 F6000 X161.47 Y185.16
G1 F4320 X159.34 Y183.03 E749.93149
G0 F6000 X158.88 Y183.27
G1 F4320 X160.77 Y185.16 E750.04264
G0 F6000 X160.06 Y185.16
G1 F4320 X158.41 Y183.52 E750.13933
G0 F6000 X157.95 Y183.76
G1 F4320 X159.35 Y185.16 E750.22156
G0 F6000 X158.65 Y185.16
G1 F4320 X157.43 Y183.95 E750.29285
G0 F6000 X156.89 Y184.12
G1 F4320 X157.94 Y185.16 E750.35444
G0 F6000 X157.23 Y185.16
G1 F4320 X156.35 Y184.28 E750.40635
G0 F6000 X155.81 Y184.44
G1 F4320 X156.53 Y185.16 E750.44860
G0 F6000 X155.82 Y185.16
G1 F4320 X155.19 Y184.88 E750.48119
G1 X154.51 Y184.92 E750.50952
G1 X153.84 Y184.95 E750.53407
G1 X153.16 Y184.99 E750.55492
G1 X152.49 Y185.02 E750.57202
G1 X151.76 Y185.00 E750.59111
G1 X151.02 Y184.96 E750.61475
G1 X150.27 Y184.92 E750.64295
G1 X149.55 Y184.55 E750.67669
G0 F6000 X149.45 Y185.16
G1 F4320 X148.54 Y184.25 E750.73064
G0 F6000 X148.75 Y185.16
G1 F4320 X147.52 Y183.94 E750.80266
G0 F6000 X147.33 Y185.16
G1 F4320 X144.50 Y182.33 E750.96906
G0 F6000 X146.18 Y183.30
G1 F4320 X148.04 Y185.16 E751.07842
G0 F6000 X146.62 Y185.16
G1 F4320 X138.93 Y177.46 E751.53115
G0 F6000 X138.93 Y178.17
G1 F4320 X145.92 Y185.16 E751.94231
G0 F6000 X145.21 Y185.16
G1 F4320 X138.93 Y178.88 E752.31190
G0 F6000 X138.93 Y179.58
G1 F4320 X144.50 Y185.16 E752.63993
G0 F6000 X143.80 Y185.16
G1 F4320 X138.93 Y180.29 E752.92635
G0 F6000 X138.93 Y181.00
G1 F4320 X143.09 Y185.16 E753.17121
G0 F6000 X142.38 Y185.16
G1 F4320 X138.93 Y181.71 E753.37450
G0 F6000 X138.93 Y182.41
G1 F4320 X141.68 Y185.16 E753.53619
G0 F6000 X140.97 Y185.16
G1 F4320 X138.93 Y183.12 E753.65631
G0 F6000 X138.93 Y183.83
G1 F4320 X140.26 Y185.16 E753.73486
G0 F6000 X139.55 Y185.16
G1 F4320 X138.93 Y184.53 E753.77184
G0 F6000 X141.13 Y178.96
G1 F4320 X138.93 Y176.75 E753.90137
G0 F6000 X138.93 Y176.05
G1 F4320 X140.16 Y177.28 E753.97386
G0 F6000 X139.52 Y175.94
G1 F4320 X139.07 Y175.13 E754.00895
G1 X138.93 Y174.63 E754.03052
G0 F6000 X139.18 Y167.11
G1 F4320 X139.13 Y166.71 E754.04562
G1 X139.22 Y166.09 E754.07041
G1 X138.92 Y165.44 E754.09990
G0 F6000 X138.92 Y164.73
G1 F4320 X139.70 Y165.50 E754.14532
G0 F6000 X139.94 Y165.04
G1 F4320 X138.92 Y164.03 E754.20520
G0 F6000 X138.92 Y163.32
G1 F4320 X140.19 Y164.58 E754.27955
G0 F6000 X140.43 Y164.12
G1 F4320 X138.92 Y162.61 E754.36839
G0 F6000 X138.92 Y161.90
G1 F4320 X140.68 Y163.66 E754.47170
G0 F6000 X140.93 Y163.20
G1 F4320 X138.92 Y161.20 E754.58964
G0 F6000 X138.92 Y160.49
G1 F4320 X141.25 Y162.81 E754.72634
G0 F6000 X141.57 Y162.43
G1 F4320 X138.92 Y159.78 E754.88180
G0 F6000 X138.92 Y159.08
G1 F4320 X141.88 Y162.04 E755.05596
G0 F6000 X142.20 Y161.65
G1 F4320 X138.92 Y158.37 E755.24887
G0 F6000 X138.92 Y157.66
G1 F4320 X142.52 Y161.26 E755.46053
G0 F6000 X142.88 Y160.91
G1 F4320 X138.92 Y156.96 E755.69334
G0 F6000 X138.92 Y156.25
G1 F4320 X143.27 Y160.60 E755.94904
G0 F6000 X143.66 Y160.28
G1 F4320 X138.92 Y155.54 E756.22756
G0 F6000 X138.92 Y154.83
G1 F4320 X144.05 Y159.96 E756.52889
G0 F6000 X144.44 Y159.64
G1 F4320 X138.92 Y154.13 E756.85306
G0 F6000 X138.92 Y153.42
G1 F4320 X144.84 Y159.33 E757.20078
G0 F6000 X145.30 Y159.09
G1 F4320 X138.92 Y152.71 E757.57561
G0 F6000 X138.92 Y152.00
G1 F4320 X145.76 Y158.84 E757.97751
G0 F6000 X146.22 Y158.59
G1 F4320 X138.92 Y151.30 E758.40651
G0 F6000 X138.92 Y150.59
G1 F4320 X146.68 Y158.35 E758.86263
G0 F6000 X147.14 Y158.10
G1 F4320 X138.92 Y149.88 E759.34584
G0 F6000 X138.92 Y149.18
G1 F4320 X147.68 Y157.93 E759.86072
G0 F6000 X148.22 Y157.77
G1 F4320 X138.92 Y148.47 E760.40752
G0 F6000 X138.92 Y147.76
G1 F4320 X148.77 Y157.60 E760.98623
G0 F6000 X149.31 Y157.44
G1 F4320 X138.92 Y147.06 E761.59682
G0 F6000 X138.92 Y146.35
G1 F4320 X149.86 Y157.29 E762.24005
G0 F6000 X150.51 Y157.22
G1 F4320 X138.92 Y145.64 E762.92109
G0 F6000 X138.92 Y144.93
G1 F4320 X151.15 Y157.16 E763.64002
G0 F6000 X151.79 Y157.10
G1 F4320 X138.92 Y144.23 E764.39676
G0 F6000 X138.92 Y143.52
G1 F4320 X152.44 Y157.03 E765.19136
G0 F6000 X153.21 Y157.10
G1 F4320 X138.92 Y142.81 E766.03126
G0 F6000 X138.92 Y142.10
G1 F4320 X153.99 Y157.17 E766.91729
G0 F6000 X154.78 Y157.25
G1 F4320 X138.92 Y141.40 E767.84944
G0 F6000 X138.92 Y140.69
G1 F4320 X155.66 Y157.43 E768.83366
G0 F6000 X156.68 Y157.74
G1 F4320 X138.92 Y139.98 E769.87759
G0 F6000 X138.92 Y139.28
G1 F4320 X157.69 Y158.05 E770.98116
G0 F6000 X159.14 Y158.79
G1 F4320 X138.92 Y138.57 E772.17002
G0 F6000 X138.92 Y137.86
G1 F4320 X161.34 Y160.28 E773.48803
G0 F6000 X163.18 Y162.12
G1 F4320 X166.07 Y165.01 E773.65830
G0 F6000 X166.07 Y164.31
G1 F4320 X138.92 Y137.16 E775.25464
G0 F6000 X138.92 Y136.45
G1 F4320 X166.07 Y163.60 E776.85102
G0 F6000 X166.07 Y162.89
G1 F4320 X138.92 Y135.74 E778.44739
G0 F6000 X138.92 Y135.03
G1 F4320 X166.07 Y162.19 E780.04377
G0 F6000 X166.07 Y161.48
G1 F4320 X138.92 Y134.33 E781.64014
G0 F6000 X138.92 Y133.62
G1 F4320 X166.07 Y160.77 E783.23652
G0 F6000 X166.07 Y160.06
G1 F4320 X138.92 Y132.91 E784.83289
G0 F6000 X138.92 Y132.21
G1 F4320 X166.07 Y159.36 E786.42927
G0 F6000 X166.07 Y158.65
G1 F4320 X138.92 Y131.50 E788.02564
G0 F6000 X138.41 Y130.99
G1 F4320 X127.26 Y119.83 E788.68119
G0 F6000 X126.55 Y119.83
G1 F4320 X137.70 Y130.99 E789.33674
G0 F6000 X137.00 Y130.99
G1 F4320 X125.84 Y119.83 E789.99232
G0 F6000 X125.14 Y119.83
G1 F4320 X136.29 Y130.99 E790.64789
G0 F6000 X135.58 Y130.99
G1 F4320 X124.43 Y119.83 E791.30347
G0 F6000 X123.72 Y119.83
G1 F4320 X134.87 Y130.99 E791.95905
G0 F6000 X134.17 Y130.99
G1 F4320 X123.02 Y119.83 E792.61462
G0 F6000 X122.31 Y119.83
G1 F4320 X133.46 Y130.99 E793.27020
G0 F6000 X132.75 Y130.99
G1 F4320 X121.60 Y119.83 E793.92575
G0 F6000 X120.90 Y119.83
G1 F4320 X132.04 Y130.99 E794.58130
G0 F6000 X131.34 Y130.99
G1 F4320 X120.19 Y119.83 E795.23685
G0 F6000 X119.48 Y119.83
G1 F4320 X130.63 Y130.99 E795.89242
G0 F6000 X129.92 Y130.99
G1 F4320 X118.77 Y119.83 E796.54800
G0 F6000 X118.07 Y119.83
G1 F4320 X129.22 Y130.99 E797.20358
G0 F6000 X128.51 Y130.99
G1 F4320 X117.36 Y119.83 E797.85915
G0 F6000 X116.65 Y119.83
G1 F4320 X127.80 Y130.99 E798.51473
G0 F6000 X127.10 Y130.99
G1 F4320 X115.95 Y119.83 E799.17031
G0 F6000 X115.24 Y119.83
G1 F4320 X126.39 Y130.99 E799.82586
G0 F6000 X125.68 Y130.99
G1 F4320 X114.53 Y119.83 E800.48140
G0 F6000 X113.92 Y119.94
G1 F4320 X124.97 Y130.99 E801.13110
G0 F6000 X124.27 Y130.99
G1 F4320 X113.92 Y120.64 E801.73923
G0 F6000 X113.92 Y121.35
G1 F4320 X123.56 Y130.99 E802.30579
G0 F6000 X122.85 Y130.99
G1 F4320 X113.92 Y122.06 E802.83078
G0 F6000 X113.92 Y122.76
G1 F4320 X122.15 Y130.99 E803.31420
G0 F6000 X121.44 Y130.99
G1 F4320 X113.92 Y123.47 E803.75606
G0 F6000 X113.92 Y124.18
G1 F4320 X120.73 Y130.99 E804.15634
G0 F6000 X120.03 Y130.99
G1 F4320 X113.92 Y124.88 E804.51506
G0 F6000 X113.92 Y125.59
G1 F4320 X119.32 Y130.99 E804.83214
G0 F6000 X118.61 Y130.99
G1 F4320 X113.92 Y126.30 E805.10766
G0 F6000 X113.92 Y127.01
G1 F4320 X117.90 Y130.99 E805.34161
G0 F6000 X117.20 Y130.99
G1 F4320 X113.92 Y127.71 E805.53399
G0 F6000 X113.92 Y128.42
G1 F4320 X116.49 Y130.99 E805.68481
G0 F6000 X115.78 Y130.99
G1 F4320 X113.92 Y129.13 E805.79405
G0 F6000 X113.92 Y129.83
G1 F4320 X115.08 Y130.99 E805.86172
G0 F6000 X114.37 Y130.99
G1 F4320 X113.92 Y130.54 E805.88783
G0 F6000 X127.97 Y119.83
G1 F4320 X166.07 Y157.94 E808.12838
G0 F6000 X166.07 Y157.24
G1 F4320 X128.67 Y119.83 E810.32735
G0 F6000 X129.38 Y119.83
G1 F4320 X166.07 Y156.53 E812.48476
G0 F6000 X166.07 Y155.82
G1 F4320 X130.09 Y119.83 E814.60060
G0 F6000 X130.79 Y119.83
G1 F4320 X166.07 Y155.11 E816.67487
G0 F6000 X166.07 Y154.41
G1 F4320 X131.50 Y119.83 E818.70757
G0 F6000 X132.21 Y119.83
G1 F4320 X166.07 Y153.70 E820.69870
G0 F6000 X166.07 Y152.99
G1 F4320 X132.92 Y119.83 E822.64827
G0 F6000 X133.62 Y119.83
G1 F4320 X166.07 Y152.29 E824.55623
G0 F6000 X166.07 Y151.58
G1 F4320 X134.33 Y119.83 E826.42260
G0 F6000 X135.04 Y119.83
G1 F4320 X166.07 Y150.87 E828.24739
G0 F6000 X166.07 Y150.16
G1 F4320 X135.75 Y119.83 E830.03062
G0 F6000 X136.45 Y119.83
G1 F4320 X166.07 Y149.46 E831.77228
G0 F6000 X166.07 Y148.75
G1 F4320 X137.16 Y119.83 E833.47238
G0 F6000 X137.87 Y119.83
G1 F4320 X166.07 Y148.04 E835.13090
G0 F6000 X166.07 Y147.34
G1 F4320 X138.57 Y119.83 E836.74785
G0 F6000 X139.28 Y119.83
G1 F4320 X166.07 Y146.63 E838.32324
G0 F6000 X166.07 Y145.92
G1 F4320 X139.99 Y119.83 E839.85702
G0 F6000 X140.69 Y119.83
G1 F4320 X166.07 Y145.21 E841.34921
G0 F6000 X166.07 Y144.51
G1 F4320 X141.40 Y119.83 E842.79983
G0 F6000 X142.11 Y119.83
G1 F4320 X166.07 Y143.80 E844.20888
G0 F6000 X166.07 Y143.09
G1 F4320 X142.82 Y119.83 E845.57636
G0 F6000 X143.52 Y119.83
G1 F4320 X166.07 Y142.39 E846.90227
G0 F6000 X166.07 Y141.68
G1 F4320 X144.23 Y119.83 E848.18662
G0 F6000 X144.94 Y119.83
G1 F4320 X166.07 Y140.97 E849.42939
G0 F6000 X166.07 Y140.26
G1 F4320 X145.64 Y119.83 E850.63060
G0 F6000 X146.35 Y119.83
G1 F4320 X166.07 Y139.56 E851.79020
G0 F6000 X166.07 Y138.85
G1 F4320 X147.06 Y119.83 E852.90824
G0 F6000 X147.77 Y119.83
G1 F4320 X166.07 Y138.14 E853.98468
G0 F6000 X166.07 Y137.44
G1 F4320 X148.47 Y119.83 E855.01955
G0 F6000 X149.18 Y119.83
G1 F4320 X166.07 Y136.73 E856.01286
G0 F6000 X166.07 Y136.02
G1 F4320 X149.89 Y119.83 E856.96459
G0 F6000 X150.59 Y119.83
G1 F4320 X166.07 Y135.31 E857.87475
G0 F6000 X166.07 Y134.61
G1 F4320 X151.30 Y119.83 E858.74335
G0 F6000 X152.01 Y119.83
G1 F4320 X166.07 Y133.90 E859.57038
G0 F6000 X166.07 Y133.19
G1 F4320 X152.72 Y119.84 E860.35578
G0 F6000 X153.42 Y119.84
G1 F4320 X166.07 Y132.49 E861.09961
G0 F6000 X166.07 Y131.78
G1 F4320 X154.13 Y119.84 E861.80184
G0 F6000 X154.84 Y119.84
G1 F4320 X166.07 Y131.07 E862.46247
G0 F6000 X166.69 Y130.99
G1 F4320 X155.54 Y119.84 E863.11799
G0 F6000 X156.25 Y119.84
G1 F4320 X167.40 Y130.99 E863.77351
G0 F6000 X168.11 Y130.99
G1 F4320 X156.96 Y119.84 E864.42903
G0 F6000 X157.67 Y119.84
G1 F4320 X168.82 Y130.99 E865.08458
G0 F6000 X169.52 Y130.99
G1 F4320 X158.37 Y119.84 E865.74012
G0 F6000 X159.08 Y119.84
G1 F4320 X170.23 Y130.99 E866.39567
G0 F6000 X170.94 Y130.99
G1 F4320 X159.79 Y119.84 E867.05122
G0 F6000 X160.49 Y119.84
G1 F4320 X171.64 Y130.99 E867.70677
G0 F6000 X172.35 Y130.99
G1 F4320 X161.20 Y119.84 E868.36231
G0 F6000 X161.91 Y119.84
G1 F4320 X173.06 Y130.99 E869.01783
G0 F6000 X173.76 Y130.99
G1 F4320 X162.62 Y119.84 E869.67335
G0 F6000 X163.32 Y119.84
G1 F4320 X174.47 Y130.99 E870.32887
G0 F6000 X175.18 Y130.99
G1 F4320 X164.03 Y119.84 E870.98442
G0 F6000 X164.74 Y119.84
G1 F4320 X175.89 Y130.99 E871.63997
G0 F6000 X176.59 Y130.99
G1 F4320 X165.44 Y119.84 E872.29551
G0 F6000 X166.15 Y119.84
G1 F4320 X177.30 Y130.99 E872.95106
G0 F6000 X178.01 Y130.99
G1 F4320 X166.86 Y119.84 E873.60661
G0 F6000 X167.56 Y119.84
G1 F4320 X178.72 Y130.99 E874.26216
G0 F6000 X179.42 Y130.99
G1 F4320 X168.27 Y119.84 E874.91768
G0 F6000 X168.98 Y119.84
G1 F4320 X180.13 Y130.99 E875.57319
G0 F6000 X180.84 Y130.99
G1 F4320 X169.69 Y119.84 E876.22871
G0 F6000 X170.39 Y119.84
G1 F4320 X181.54 Y130.99 E876.88426
G0 F6000 X182.25 Y130.99
G1 F4320 X171.10 Y119.84 E877.53981
G0 F6000 X171.81 Y119.84
G1 F4320 X182.96 Y130.99 E878.19536
G0 F6000 X183.66 Y130.99
G1 F4320 X172.51 Y119.84 E878.85090
G0 F6000 X173.22 Y119.84
G1 F4320 X184.37 Y130.99 E879.50645
G0 F6000 X185.08 Y130.99
G1 F4320 X173.93 Y119.84 E880.16200
G0 F6000 X174.64 Y119.84
G1 F4320 X185.79 Y130.99 E880.81755
G0 F6000 X186.49 Y130.99
G1 F4320 X175.34 Y119.84 E881.47307
G0 F6000 X176.05 Y119.84
G1 F4320 X187.20 Y130.99 E882.12858
G0 F6000 X187.91 Y130.99
G1 F4320 X176.76 Y119.84 E882.78410
G0 F6000 X177.47 Y119.84
G1 F4320 X188.62 Y130.99 E883.43965
G0 F6000 X189.32 Y130.99
G1 F4320 X178.17 Y119.84 E884.09520
G0 F6000 X178.88 Y119.84
G1 F4320 X190.03 Y130.99 E884.75075
G0 F6000 X190.74 Y130.99
G1 F4320 X179.59 Y119.84 E885.40629
G0 F6000 X180.29 Y119.84
G1 F4320 X191.07 Y130.62 E886.04015
G0 F6000 X191.07 Y129.91
G1 F4320 X181.00 Y119.84 E886.63243
G0 F6000 X181.71 Y119.84
G1 F4320 X191.07 Y129.20 E887.18312
G0 F6000 X191.07 Y128.50
G1 F4320 X182.41 Y119.84 E887.69223
G0 F6000 X183.12 Y119.84
G1 F4320 X191.07 Y127.79 E888.15978
G0 F6000 X191.07 Y127.08
G1 F4320 X183.83 Y119.84 E888.58576
G0 F6000 X184.54 Y119.84
G1 F4320 X191.07 Y126.37 E888.97017
G0 F6000 X191.07 Y125.67
G1 F4320 X185.24 Y119.84 E889.31301
G0 F6000 X185.95 Y119.84
G1 F4320 X191.07 Y124.96 E889.61425
G0 F6000 X191.07 Y124.25
G1 F4320 X186.66 Y119.84 E889.87392
G0 F6000 X187.36 Y119.84
G1 F4320 X191.07 Y123.55 E890.09203
G0 F6000 X191.07 Y122.84
G1 F4320 X188.07 Y119.84 E890.26853
G0 F6000 X188.78 Y119.84
G1 F4320 X191.07 Y122.13 E890.40347
G0 F6000 X191.07 Y121.42
G1 F4320 X189.49 Y119.84 E890.49684
G0 F6000 X190.19 Y119.84
G1 F4320 X191.07 Y120.72 E890.54864
G0 F6000 X191.07 Y120.01
G1 F4320 X190.90 Y119.84 E890.55887
G0 F6000 X166.86 Y131.77
G0 X164.67 Y164.31
G1 F4320 X166.07 Y165.72 E890.64156
G0 F6000 X165.41 Y165.76
G1 F4320 X165.90 Y166.60 E890.68057
G1 X166.07 Y167.13 E890.70389
G0 F6000 X165.85 Y174.69
G1 F4320 X165.88 Y175.07 E890.71688
G1 X165.80 Y175.70 E890.73953
G1 X166.07 Y176.33 E890.76807
G0 F6000 X166.07 Y177.03
G1 F4320 X165.36 Y176.32 E890.81034
G0 F6000 X165.11 Y176.78
G1 F4320 X166.07 Y177.74 E890.86708
G0 F6000 X166.07 Y178.45
G1 F4320 X164.86 Y177.24 E890.93828
G0 F6000 X164.62 Y177.70
G1 F4320 X166.07 Y179.16 E891.02398
G0 F6000 X166.07 Y179.86
G1 F4320 X164.37 Y178.16 E891.12417
G0 F6000 X164.12 Y178.62
G1 F4320 X166.07 Y180.57 E891.23885
G0 F6000 X166.07 Y181.28
G1 F4320 X163.82 Y179.02 E891.37155
G0 F6000 X163.50 Y179.41
G1 F4320 X166.07 Y181.99 E891.52298
G0 F6000 X166.07 Y182.69
G1 F4320 X163.18 Y179.80 E891.69314
G0 F6000 X162.86 Y180.19
G1 F4320 X166.07 Y183.40 E891.88205
G0 F6000 X166.07 Y184.11
G1 F4320 X162.54 Y180.57 E892.08966
;LAYER:3
G0 F6000 X162.23 Y180.69 Z0.90
;TYPE:WALL-INNER
G1 F5160 X163.94 Y178.60 E892.20176
G1 X165.21 Y176.22 E892.31386
G1 X165.99 Y173.64 E892.42600
G1 X166.25 Y171.02 E892.53558
G1 X166.25 Y185.34 E893.13085
G1 X138.75 Y185.34 E894.27417
G1 X138.75 Y171.02 E894.86944
G1 X139.01 Y173.64 E894.97902
G1 X139.79 Y176.22 E895.09116
G1 X141.06 Y178.60 E895.20326
G1 X142.77 Y180.69 E895.31536
G1 X144.86 Y182.40 E895.42747
G1 X147.24 Y183.67 E895.53957
G1 X149.82 Y184.45 E895.65170
G1 X152.50 Y184.72 E895.76379
G1 X155.18 Y184.45 E895.87587
G1 X157.76 Y183.67 E895.98801
G1 X160.14 Y182.40 E896.10011
G1 X162.23 Y180.69 E896.21221
G0 F6000 X164.70 Y176.01
G0 X166.25 Y170.90
G1 F5160 X165.99 Y168.28 E896.32175
G1 X165.21 Y165.70 E896.43389
G1 X163.94 Y163.32 E896.54599
G1 X162.23 Y161.23 E896.65809
G1 X160.14 Y159.52 E896.77020
G1 X157.76 Y158.25 E896.88230
G1 X155.18 Y157.47 E896.99443
G1 X152.50 Y157.20 E897.10652
G1 X149.82 Y157.47 E897.21861
G1 X147.24 Y158.25 E897.33074
G1 X144.86 Y159.52 E897.44285
G1 X142.77 Y161.23 E897.55495
G1 X141.06 Y163.32 E897.66705
G1 X139.79 Y165.70 E897.77915
G1 X139.01 Y168.28 E897.89129
G1 X138.75 Y170.90 E898.00083
G1 X138.75 Y131.16 E899.65294
G1 X113.75 Y131.16 E900.69232
G1 X113.75 Y119.66 E901.17044
G1 X191.25 Y119.66 E904.39251
G1 X191.25 Y131.16 E904.87063
G1 X166.25 Y131.16 E905.91001
G1 X166.25 Y170.90 E907.56212
G0 F6000 X165.75 Y170.96
G1 F5160 X165.50 Y168.38 E907.67012
G1 X164.74 Y165.89 E907.77812
G1 X163.52 Y163.60 E907.88615
G1 X161.87 Y161.59 E907.99418
G1 X159.86 Y159.94 E908.10220
G1 X157.57 Y158.72 E908.21023
G1 X155.09 Y157.96 E908.31823
G1 X152.50 Y157.71 E908.42623
G1 X149.91 Y157.96 E908.53423
G1 X147.43 Y158.72 E908.64223
G1 X145.14 Y159.94 E908.75026
G1 X143.13 Y161.59 E908.85829
G1 X141.48 Y163.60 E908.96631
G1 X140.26 Y165.89 E909.07434
G1 X139.50 Y168.38 E909.18234
G1 X139.25 Y170.96 E909.29034
G1 X139.50 Y173.55 E909.39838
G1 X140.26 Y176.03 E909.50639
G1 X141.48 Y178.32 E909.61441
G1 X143.13 Y180.33 E909.72244
G1 X145.14 Y181.98 E909.83046
G1 X147.43 Y183.21 E909.93849
G1 X149.91 Y183.96 E910.04650
G1 X152.50 Y184.21 E910.15449
G1 X155.09 Y183.96 E910.26248
G1 X157.57 Y183.21 E910.37049
G1 X159.86 Y181.98 E910.47851
G1 X161.87 Y180.33 E910.58654
G1 X163.52 Y178.32 E910.69457
G1 X164.74 Y176.03 E910.80259
G1 X165.50 Y173.55 E910.91060
G1 X165.75 Y170.96 E911.01864
G0 F6000 X166.75 Y185.84
G1 F5160 X138.25 Y185.84 E912.20353
G1 X138.25 Y131.66 E914.45599
G1 X113.25 Y131.66 E915.49537
G1 X113.25 Y119.16 E916.01506
G1 X191.75 Y119.16 E919.27871
G1 X191.75 Y131.66 E919.79840
G1 X166.75 Y131.66 E920.83778
G1 X166.75 Y185.84 E923.09024
G0 F6000 X167.25 Y186.34
;TYPE:WALL-OUTER
G1 F5160 X137.75 Y186.34 E924.31670
G1 X137.75 Y132.16 E926.56916
G1 X112.75 Y132.16 E927.60854
G1 X112.75 Y118.66 E928.16981
G1 X192.25 Y118.66 E931.47503
G1 X192.25 Y132.16 E932.03630
G1 X167.25 Y132.16 E933.07568
G1 X167.25 Y186.34 E935.32814
G0 F6000 X166.90 Y186.08
G0 X161.78 Y180.20
G0 X161.52 Y179.98
G1 F5160 X163.10 Y178.04 E935.43206
G1 X164.28 Y175.84 E935.53599
G1 X165.00 Y173.45 E935.63991
G1 X165.25 Y170.96 E935.74385
G1 X165.00 Y168.47 E935.84775
G1 X164.28 Y166.08 E935.95167
G1 X163.10 Y163.88 E936.05561
G1 X161.52 Y161.94 E936.15953
G1 X159.58 Y160.36 E936.26345
G1 X157.38 Y159.18 E936.36738
G1 X154.99 Y158.46 E936.47130
G1 X152.50 Y158.21 E936.57520
G1 X150.01 Y158.46 E936.67910
G1 X147.62 Y159.18 E936.78302
G1 X145.42 Y160.36 E936.88695
G1 X143.48 Y161.94 E936.99088
G1 X141.90 Y163.88 E937.09480
G1 X140.72 Y166.08 E937.19873
G1 X140.00 Y168.47 E937.30265
G1 X139.75 Y170.96 E937.40655
G1 X140.00 Y173.45 E937.51049
G1 X140.72 Y175.84 E937.61441
G1 X141.90 Y178.04 E937.71834
G1 X143.48 Y179.98 E937.82227
G1 X145.42 Y181.56 E937.92619
G1 X147.62 Y182.74 E938.03012
G1 X150.01 Y183.47 E938.13404
G1 X152.50 Y183.71 E938.23794
G1 X154.99 Y183.47 E938.34183
G1 X157.38 Y182.74 E938.44575
G1 X159.58 Y181.56 E938.54969
G1 X161.52 Y179.98 E938.65361
G0 F6000 X161.78 Y180.20
G0 X159.83 Y182.76
;TYPE:FILL
G1 F5160 X157.43 Y185.16 E938.79472
G0 F6000 X158.14 Y185.16
G1 F5160 X166.07 Y177.22 E939.26138
G0 F6000 X166.07 Y177.93
G1 F5160 X158.84 Y185.16 E939.68648
G0 F6000 X159.55 Y185.16
G1 F5160 X166.07 Y178.64 E940.07001
G0 F6000 X166.07 Y179.35
G1 F5160 X160.26 Y185.16 E940.41194
G0 F6000 X160.97 Y185.16
G1 F5160 X166.07 Y180.05 E940.71230
G0 F6000 X166.07 Y180.76
G1 F5160 X161.67 Y185.16 E940.97109
G0 F6000 X162.38 Y185.16
G1 F5160 X166.07 Y181.47 E941.18828
G0 F6000 X166.07 Y182.18
G1 F5160 X163.09 Y185.16 E941.36390
G0 F6000 X163.79 Y185.16
G1 F5160 X166.07 Y182.88 E941.49796
G0 F6000 X166.07 Y183.59
G1 F5160 X164.50 Y185.16 E941.59045
G0 F6000 X165.21 Y185.16
G1 F5160 X166.07 Y184.30 E941.64136
G0 F6000 X166.07 Y185.00
G1 F5160 X165.91 Y185.16 E941.65071
G0 F6000 X164.30 Y178.29
G1 F5160 X166.07 Y176.52 E941.75490
G0 F6000 X166.07 Y175.81
G1 F5160 X165.11 Y176.77 E941.81146
G0 F6000 X165.58 Y175.60
G1 F5160 X165.98 Y174.84 E941.84056
G1 X166.06 Y174.41 E941.85907
G0 F6000 X165.93 Y167.47
G1 F5160 X165.92 Y167.13 E941.86757
G1 X165.84 Y166.50 E941.88571
G1 X165.75 Y165.88 E941.91350
G1 X166.07 Y165.21 E941.94446
G0 F6000 X166.07 Y164.50
G1 F5160 X165.22 Y165.35 E941.99450
G0 F6000 X164.98 Y164.89
G1 F5160 X166.07 Y163.79 E942.05899
G0 F6000 X166.07 Y163.08
G1 F5160 X164.73 Y164.43 E942.13802
G0 F6000 X164.48 Y163.97
G1 F5160 X166.07 Y162.38 E942.23150
G0 F6000 X166.07 Y161.67
G1 F5160 X164.24 Y163.51 E942.33951
G0 F6000 X163.96 Y163.07
G1 F5160 X166.07 Y160.96 E942.46360
G0 F6000 X166.07 Y160.25
G1 F5160 X163.64 Y162.69 E942.60645
G0 F6000 X163.33 Y162.30
G1 F5160 X166.07 Y159.55 E942.76799
G0 F6000 X166.07 Y158.84
G1 F5160 X163.01 Y161.91 E942.94829
G0 F6000 X162.69 Y161.52
G1 F5160 X166.07 Y158.13 E943.14734
G0 F6000 X166.07 Y157.43
G1 F5160 X162.37 Y161.13 E943.36509
G0 F6000 X161.98 Y160.81
G1 F5160 X166.07 Y156.72 E943.60551
G0 F6000 X166.07 Y156.01
G1 F5160 X161.60 Y160.49 E943.86874
G0 F6000 X161.21 Y160.17
G1 F5160 X166.07 Y155.31 E944.15478
G0 F6000 X166.07 Y154.60
G1 F5160 X160.82 Y159.85 E944.46373
G0 F6000 X160.43 Y159.53
G1 F5160 X166.07 Y153.89 E944.79549
G0 F6000 X166.07 Y153.18
G1 F5160 X160.01 Y159.25 E945.15220
G0 F6000 X159.54 Y159.00
G1 F5160 X166.07 Y152.48 E945.53602
G0 F6000 X166.07 Y151.77
G1 F5160 X159.08 Y158.76 E945.94695
G0 F6000 X158.62 Y158.51
G1 F5160 X166.07 Y151.06 E946.38492
G0 F6000 X166.07 Y150.36
G1 F5160 X158.16 Y158.27 E946.85000
G0 F6000 X157.68 Y158.04
G1 F5160 X166.07 Y149.65 E947.34354
G0 F6000 X166.07 Y148.94
G1 F5160 X157.14 Y157.88 E947.86900
G0 F6000 X156.59 Y157.71
G1 F5160 X166.07 Y148.24 E948.42633
G0 F6000 X166.07 Y147.53
G1 F5160 X156.05 Y157.55 E949.01555
G0 F6000 X155.51 Y157.38
G1 F5160 X166.07 Y146.82 E949.63667
G0 F6000 X166.07 Y146.11
G1 F5160 X154.92 Y157.27 E950.29243
G0 F6000 X154.28 Y157.20
G1 F5160 X166.07 Y145.41 E950.98605
G0 F6000 X166.07 Y144.70
G1 F5160 X153.63 Y157.14 E951.71750
G0 F6000 X152.99 Y157.08
G1 F5160 X166.07 Y143.99 E952.48685
G0 F6000 X166.07 Y143.28
G1 F5160 X152.31 Y157.05 E953.29600
G0 F6000 X151.53 Y157.12
G1 F5160 X166.07 Y142.58 E954.15125
G0 F6000 X166.07 Y141.87
G1 F5160 X150.74 Y157.20 E955.05265
G0 F6000 X149.96 Y157.28
G1 F5160 X166.07 Y141.16 E956.00018
G0 F6000 X166.07 Y140.46
G1 F5160 X148.99 Y157.54 E957.00439
G0 F6000 X147.98 Y157.84
G1 F5160 X166.07 Y139.75 E958.06825
G0 F6000 X166.07 Y139.04
G1 F5160 X146.87 Y158.25 E959.19764
G0 F6000 X145.35 Y159.06
G1 F5160 X166.07 Y138.34 E960.41625
G0 F6000 X166.07 Y137.63
G1 F5160 X138.92 Y164.78 E962.01250
G0 F6000 X138.92 Y165.48
G1 F5160 X140.60 Y163.81 E962.11110
G0 F6000 X138.92 Y164.07
G1 F5160 X166.07 Y136.92 E963.70736
G0 F6000 X166.07 Y136.21
G1 F5160 X138.92 Y163.36 E965.30362
G0 F6000 X138.92 Y162.66
G1 F5160 X166.07 Y135.51 E966.89988
G0 F6000 X166.07 Y134.80
G1 F5160 X138.92 Y161.95 E968.49613
G0 F6000 X138.92 Y161.24
G1 F5160 X166.07 Y134.09 E970.09242
G0 F6000 X166.07 Y133.38
G1 F5160 X138.92 Y160.53 E971.68871
G0 F6000 X138.92 Y159.83
G1 F5160 X166.07 Y132.68 E973.28499
G0 F6000 X166.07 Y131.97
G1 F5160 X138.92 Y159.12 E974.88125
G0 F6000 X138.92 Y158.41
G1 F5160 X166.07 Y131.26 E976.47751
G0 F6000 X166.35 Y130.99
G1 F5160 X177.50 Y119.83 E977.13308
G0 F6000 X176.79 Y119.83
G1 F5160 X138.92 Y157.71 E979.35975
G0 F6000 X138.92 Y157.00
G1 F5160 X176.09 Y119.83 E981.54485
G0 F6000 X175.38 Y119.83
G1 F5160 X138.92 Y156.29 E983.68839
G0 F6000 X138.92 Y155.59
G1 F5160 X174.67 Y119.83 E985.79035
G0 F6000 X173.97 Y119.83
G1 F5160 X138.92 Y154.88 E987.85074
G0 F6000 X138.92 Y154.17
G1 F5160 X173.26 Y119.83 E989.86957
G0 F6000 X172.55 Y119.83
G1 F5160 X138.92 Y153.46 E991.84682
G0 F6000 X138.92 Y152.76
G1 F5160 X171.85 Y119.83 E993.78248
G0 F6000 X171.14 Y119.83
G1 F5160 X138.92 Y152.05 E995.67654
G0 F6000 X138.92 Y151.34
G1 F5160 X170.43 Y119.83 E997.52903
G0 F6000 X169.72 Y119.83
G1 F5160 X138.92 Y150.63 E999.33996
G0 F6000 X138.92 Y149.93
G1 F5160 X169.02 Y119.83 E1001.10931
G0 F6000 X168.31 Y119.83
G1 F5160 X138.92 Y149.22 E1002.83709
G0 F6000 X138.92 Y148.51
G1 F5160 X167.60 Y119.83 E1004.52331
G0 F6000 X166.90 Y119.83
G1 F5160 X138.92 Y147.81 E1006.16795
G0 F6000 X138.92 Y147.10
G1 F5160 X166.19 Y119.83 E1007.77103
G0 F6000 X165.48 Y119.83
G1 F5160 X138.92 Y146.39 E1009.33254
G0 F6000 X138.92 Y145.69
G1 F5160 X164.77 Y119.83 E1010.85242
G0 F6000 X164.07 Y119.83
G1 F5160 X138.92 Y144.98 E1012.33073
G0 F6000 X138.92 Y144.27
G1 F5160 X163.36 Y119.83 E1013.76748
G0 F6000 X162.65 Y119.83
G1 F5160 X138.92 Y143.56 E1015.16265
G0 F6000 X138.92 Y142.86
G1 F5160 X161.95 Y119.83 E1016.51626
G0 F6000 X161.24 Y119.83
G1 F5160 X138.92 Y142.15 E1017.82829
G0 F6000 X138.92 Y141.44
G1 F5160 X160.53 Y119.83 E1019.09876
G0 F6000 X159.82 Y119.83
G1 F5160 X138.92 Y140.74 E1020.32766
G0 F6000 X138.92 Y140.03
G1 F5160 X159.12 Y119.83 E1021.51499
G0 F6000 X158.41 Y119.83
G1 F5160 X138.92 Y139.32 E1022.66072
G0 F6000 X138.92 Y138.61
G1 F5160 X157.70 Y119.83 E1023.76485
G0 F6000 X157.00 Y119.83
G1 F5160 X138.92 Y137.91 E1024.82742
G0 F6000 X138.92 Y137.20
G1 F5160 X156.29 Y119.83 E1025.84841
G0 F6000 X155.58 Y119.83
G1 F5160 X138.92 Y136.49 E1026.82784
G0 F6000 X138.92 Y135.79
G1 F5160 X154.88 Y119.83 E1027.76570
G0 F6000 X154.17 Y119.83
G1 F5160 X138.92 Y135.08 E1028.66199
G0 F6000 X138.92 Y134.37
G1 F5160 X153.46 Y119.83 E1029.51671
G0 F6000 X152.75 Y119.83
G1 F5160 X138.92 Y133.66 E1030.32986
G0 F6000 X138.92 Y132.96
G1 F5160 X152.05 Y119.83 E1031.10144
G0 F6000 X151.34 Y119.83
G1 F5160 X138.92 Y132.25 E1031.83145
G0 F6000 X138.92 Y131.54
G1 F5160 X150.63 Y119.83 E1032.51990
G0 F6000 X149.93 Y119.83
G1 F5160 X138.78 Y130.99 E1033.17553
G0 F6000 X138.07 Y130.99
G1 F5160 X149.22 Y119.83 E1033.83117
G0 F6000 X148.51 Y119.83
G1 F5160 X137.36 Y130.99 E1034.48681
G0 F6000 X136.65 Y130.99
G1 F5160 X147.81 Y119.83 E1035.14244
G0 F6000 X147.10 Y119.83
G1 F5160 X135.95 Y130.99 E1035.79811
G0 F6000 X135.24 Y130.99
G1 F5160 X146.39 Y119.83 E1036.45374
G0 F6000 X145.68 Y119.83
G1 F5160 X134.53 Y130.99 E1037.10938
G0 F6000 X133.82 Y130.99
G1 F5160 X144.98 Y119.83 E1037.76501
G0 F6000 X144.27 Y119.83
G1 F5160 X133.12 Y130.99 E1038.42065
G0 F6000 X132.41 Y130.99
G1 F5160 X143.56 Y119.83 E1039.07629
G0 F6000 X142.85 Y119.83
G1 F5160 X131.70 Y130.99 E1039.73192
G0 F6000 X131.00 Y130.99
G1 F5160 X142.15 Y119.83 E1040.38756
G0 F6000 X141.44 Y119.83
G1 F5160 X130.29 Y130.99 E1041.04320
G0 F6000 X129.58 Y130.99
G1 F5160 X140.73 Y119.83 E1041.69886
G0 F6000 X140.03 Y119.83
G1 F5160 X128.88 Y130.99 E1042.35450
G0 F6000 X128.17 Y130.99
G1 F5160 X139.32 Y119.83 E1043.01013
G0 F6000 X138.61 Y119.83
G1 F5160 X127.46 Y130.99 E1043.66577
G0 F6000 X126.75 Y130.99
G1 F5160 X137.91 Y119.83 E1044.32140
G0 F6000 X137.20 Y119.83
G1 F5160 X126.05 Y130.99 E1044.97704
G0 F6000 X125.34 Y130.99
G1 F5160 X136.49 Y119.83 E1045.63268
G0 F6000 X135.78 Y119.83
G1 F5160 X124.63 Y130.99 E1046.28831
G0 F6000 X123.93 Y130.99
G1 F5160 X135.08 Y119.83 E1046.94395
G0 F6000 X134.37 Y119.83
G1 F5160 X123.22 Y130.99 E1047.59959
G0 F6000 X122.51 Y130.99
G1 F5160 X133.66 Y119.83 E1048.25522
G0 F6000 X132.96 Y119.83
G1 F5160 X121.80 Y130.99 E1048.91086
G0 F6000 X121.10 Y130.99
G1 F5160 X132.25 Y119.83 E1049.56649
G0 F6000 X131.54 Y119.83
G1 F5160 X120.39 Y130.99 E1050.22213
G0 F6000 X119.68 Y130.99
G1 F5160 X130.83 Y119.83 E1050.87777
G0 F6000 X130.13 Y119.83
G1 F5160 X118.98 Y130.99 E1051.53340
G0 F6000 X118.27 Y130.99
G1 F5160 X129.42 Y119.83 E1052.18904
G0 F6000 X128.71 Y119.83
G1 F5160 X117.56 Y130.99 E1052.84467
G0 F6000 X116.86 Y130.99
G1 F5160 X128.01 Y119.83 E1053.50031
G0 F6000 X127.30 Y119.83
G1 F5160 X116.15 Y130.99 E1054.15598
G0 F6000 X115.44 Y130.99
G1 F5160 X126.59 Y119.83 E1054.81161
G0 F6000 X125.88 Y119.83
G1 F5160 X114.73 Y130.99 E1055.46725
G0 F6000 X114.03 Y130.99
G1 F5160 X125.18 Y119.83 E1056.12288
G0 F6000 X124.47 Y119.83
G1 F5160 X113.92 Y130.38 E1056.74289
G0 F6000 X113.92 Y129.67
G1 F5160 X123.76 Y119.83 E1057.32133
G0 F6000 X123.06 Y119.83
G1 F5160 X113.92 Y128.97 E1057.85819
G0 F6000 X113.92 Y128.26
G1 F5160 X122.35 Y119.83 E1058.35349
G0 F6000 X121.64 Y119.83
G1 F5160 X113.92 Y127.55 E1058.80722
G0 F6000 X113.92 Y126.84
G1 F5160 X120.94 Y119.83 E1059.21938
G0 F6000 X120.23 Y119.83
G1 F5160 X113.92 Y126.14 E1059.58995
G0 F6000 X113.92 Y125.43
G1 F5160 X119.52 Y119.83 E1059.91894
G0 F6000 X118.81 Y119.83
G1 F5160 X113.92 Y124.72 E1060.20637
G0 F6000 X113.92 Y124.02
G1 F5160 X118.11 Y119.83 E1060.45219
G0 F6000 X117.40 Y119.83
G1 F5160 X113.92 Y123.31 E1060.65645
G0 F6000 X113.92 Y122.60
G1 F5160 X116.69 Y119.83 E1060.81914
G0 F6000 X115.98 Y119.83
G1 F5160 X113.92 Y121.89 E1060.94026
G0 F6000 X113.92 Y121.19
G1 F5160 X115.28 Y119.83 E1061.01981
G0 F6000 X114.57 Y119.83
G1 F5160 X113.92 Y120.48 E1061.05779
G0 F6000 X138.14 Y131.77
G0 X139.79 Y165.32
G1 F5160 X138.92 Y166.19 E1061.10877
G0 F6000 X139.38 Y166.44
G1 F5160 X138.92 Y166.90 E1061.13576
G0 F6000 X139.09 Y174.51
G1 F5160 X139.09 Y174.87 E1061.14535
G1 X139.17 Y175.49 E1061.16470
G1 X139.25 Y176.11 E1061.19369
G1 X138.93 Y176.80 E1061.22521
G0 F6000 X138.93 Y177.50
G1 F5160 X139.81 Y176.62 E1061.27704
G0 F6000 X140.05 Y177.08
G1 F5160 X138.93 Y178.21 E1061.34333
G0 F6000 X138.93 Y178.92
G1 F5160 X140.30 Y177.55 E1061.42406
G0 F6000 X140.54 Y178.01
G1 F5160 X138.93 Y179.63 E1061.51931
G0 F6000 X138.93 Y180.33
G1 F5160 X140.79 Y178.47 E1061.62902
G0 F6000 X141.07 Y178.89
G1 F5160 X138.93 Y181.04 E1061.75532
G0 F6000 X138.93 Y181.75
G1 F5160 X141.39 Y179.28 E1061.90037
G0 F6000 X141.71 Y179.67
G1 F5160 X138.93 Y182.45 E1062.06412
G0 F6000 X138.93 Y183.16
G1 F5160 X142.03 Y180.06 E1062.24662
G0 F6000 X142.35 Y180.44
G1 F5160 X138.93 Y183.87 E1062.44788
G0 F6000 X138.93 Y184.58
G1 F5160 X142.67 Y180.83 E1062.66816
G0 F6000 X143.06 Y181.15
G1 F5160 X139.04 Y185.16 E1062.90420
G0 F6000 X139.75 Y185.16
G1 F5160 X143.45 Y181.47 E1063.12151
G0 F6000 X143.84 Y181.78
G1 F5160 X140.46 Y185.16 E1063.32006
G0 F6000 X141.17 Y185.16
G1 F5160 X144.22 Y182.10 E1063.49989
G0 F6000 X144.61 Y182.42
G1 F5160 X141.87 Y185.16 E1063.66099
G0 F6000 X142.58 Y185.16
G1 F5160 X145.05 Y182.70 E1063.80592
G0 F6000 X145.51 Y182.94
G1 F5160 X143.29 Y185.16 E1063.93639
G0 F6000 X144.00 Y185.16
G1 F5160 X145.97 Y183.19 E1064.05240
G0 F6000 X146.43 Y183.44
G1 F5160 X144.70 Y185.16 E1064.15394
G0 F6000 X145.41 Y185.16
G1 F5160 X146.89 Y183.68 E1064.24101
G0 F6000 X147.38 Y183.90
G1 F5160 X146.12 Y185.16 E1064.31554
G0 F6000 X146.82 Y185.16
G1 F5160 X147.93 Y184.06 E1064.38039
G0 F6000 X148.47 Y184.22
G1 F5160 X147.53 Y185.16 E1064.43557
G0 F6000 X148.24 Y185.16
G1 F5160 X149.01 Y184.39 E1064.48111
G0 F6000 X149.55 Y184.55
G1 F5160 X149.30 Y185.16 E1064.51692
G1 X150.26 Y184.91 E1064.54644
G1 X150.93 Y184.94 E1064.57229
G1 X151.61 Y184.97 E1064.59440
G1 X152.28 Y185.00 E1064.61283
G1 X152.98 Y185.01 E1064.63049
G1 X153.73 Y184.97 E1064.65270
G1 X154.47 Y184.93 E1064.67947
G1 X155.13 Y184.63 E1064.70964
G0 F6000 X155.31 Y185.16
G1 F5160 X156.12 Y184.35 E1064.75762
G0 F6000 X156.02 Y185.16
G1 F5160 X157.14 Y184.04 E1064.82371
G0 F6000 X156.72 Y185.16
G1 F5160 X158.31 Y183.57 E1064.91725
G0 F6000 X161.83 Y180.29
G0 X163.48 Y178.29
G0 X164.70 Y176.01
G0 X165.45 Y173.53
G0 X165.70 Y170.96
G0 X165.45 Y168.39
G0 X164.70 Y165.91
G0 X163.48 Y163.63
G0 X167.06 Y130.99
G1 F5160 X178.21 Y119.83 E1065.57286
G0 F6000 X178.92 Y119.83
G1 F5160 X167.77 Y130.99 E1066.22847
G0 F6000 X168.47 Y130.99
G1 F5160 X179.62 Y119.83 E1066.88407
G0 F6000 X180.33 Y119.83
G1 F5160 X169.18 Y130.99 E1067.53968
G0 F6000 X169.89 Y130.99
G1 F5160 X181.04 Y119.83 E1068.19526
G0 F6000 X181.75 Y119.83
G1 F5160 X170.59 Y130.99 E1068.85083
G0 F6000 X171.30 Y130.99
G1 F5160 X182.45 Y119.83 E1069.50641
G0 F6000 X183.16 Y119.83
G1 F5160 X172.01 Y130.99 E1070.16199
G0 F6000 X172.72 Y130.99
G1 F5160 X183.87 Y119.83 E1070.81757
G0 F6000 X184.57 Y119.83
G1 F5160 X173.42 Y130.99 E1071.47314
G0 F6000 X174.13 Y130.99
G1 F5160 X185.28 Y119.83 E1072.12875
G0 F6000 X185.99 Y119.83
G1 F5160 X174.84 Y130.99 E1072.78436
G0 F6000 X175.54 Y130.99
G1 F5160 X186.69 Y119.83 E1073.43996
G0 F6000 X187.40 Y119.83
G1 F5160 X176.25 Y130.99 E1074.09554
G0 F6000 X176.96 Y130.99
G1 F5160 X188.11 Y119.83 E1074.75112
G0 F6000 X188.82 Y119.83
G1 F5160 X177.67 Y130.99 E1075.40669
G0 F6000 X178.37 Y130.99
G1 F5160 X189.52 Y119.83 E1076.06227
G0 F6000 X190.23 Y119.83
G1 F5160 X179.08 Y130.99 E1076.71785
G0 F6000 X179.79 Y130.99
G1 F5160 X190.94 Y119.83 E1077.37343
G0 F6000 X191.07 Y120.41
G1 F5160 X180.49 Y130.99 E1077.99546
G0 F6000 X181.20 Y130.99
G1 F5160 X191.07 Y121.11 E1078.57593
G0 F6000 X191.07 Y121.82
G1 F5160 X181.91 Y130.99 E1079.11482
G0 F6000 X182.62 Y130.99
G1 F5160 X191.07 Y122.53 E1079.61215
G0 F6000 X191.07 Y123.23
G1 F5160 X183.32 Y130.99 E1080.06788
G0 F6000 X184.03 Y130.99
G1 F5160 X191.07 Y123.94 E1080.48204
G0 F6000 X191.07 Y124.65
G1 F5160 X184.74 Y130.99 E1080.85463
G0 F6000 X185.44 Y130.99
G1 F5160 X191.07 Y125.36 E1081.18565
G0 F6000 X191.07 Y126.06
G1 F5160 X186.15 Y130.99 E1081.47511
G0 F6000 X186.86 Y130.99
G1 F5160 X191.07 Y126.77 E1081.72296
G0 F6000 X191.07 Y127.48
G1 F5160 X187.56 Y130.99 E1081.92925
G0 F6000 X188.27 Y130.99
G1 F5160 X191.07 Y128.18 E1082.09396
G0 F6000 X191.07 Y128.89
G1 F5160 X188.98 Y130.99 E1082.21711
G0 F6000 X189.69 Y130.99
G1 F5160 X191.07 Y129.60 E1082.29866
G0 F6000 X191.07 Y130.31
G1 F5160 X190.39 Y130.99 E1082.33865
;LAYER:4
G0 F6000 X191.25 Y131.16 Z1.10
;TYPE:WALL-INNER
G1 X166.25 Y131.16 E1083.37802
G1 X166.25 Y170.90 E1085.03014
G1 X165.99 Y168.28 E1085.13964
G1 X165.78 Y167.57 E1085.17022
G1 X165.21 Y165.70 E1085.25176
G1 X164.86 Y165.05 E1085.28234
G1 X163.94 Y163.32 E1085.36392
G1 X162.23 Y161.23 E1085.47602
G1 X160.14 Y159.52 E1085.58818
G1 X159.49 Y159.18 E1085.61876
G1 X157.76 Y158.25 E1085.70028
G1 X157.06 Y158.04 E1085.73090
G1 X155.18 Y157.47 E1085.81237
G1 X152.50 Y157.20 E1085.92446
G1 X149.82 Y157.47 E1086.03650
G1 X149.11 Y157.68 E1086.06708
G1 X147.24 Y158.25 E1086.14863
G1 X146.59 Y158.60 E1086.17920
G1 X144.86 Y159.52 E1086.26078
G1 X142.77 Y161.23 E1086.37289
G1 X141.06 Y163.32 E1086.48505
G1 X140.72 Y163.97 E1086.51553
G1 X139.79 Y165.70 E1086.59715
G1 X139.58 Y166.40 E1086.62768
G1 X139.01 Y168.28 E1086.70923
G1 X138.75 Y170.90 E1086.81877
G1 X138.75 Y131.16 E1088.47089
G1 X113.75 Y131.16 E1089.51027
G1 X113.75 Y119.66 E1089.98838
G1 X191.25 Y119.66 E1093.21046
G1 X191.25 Y131.16 E1093.68857
G0 X166.86 Y131.77
G0 X166.25 Y171.02
G1 X166.25 Y185.34 E1094.28385
G1 X138.75 Y185.34 E1095.42716
G1 X138.75 Y171.02 E1096.02244
G1 X139.01 Y173.64 E1096.13198
G1 X139.22 Y174.35 E1096.16256
G1 X139.79 Y176.22 E1096.24410
G1 X140.14 Y176.87 E1096.27468
G1 X141.06 Y178.60 E1096.35626
G1 X142.77 Y180.69 E1096.46836
G1 X144.86 Y182.40 E1096.58052
G1 X145.51 Y182.74 E1096.61101
G1 X147.24 Y183.67 E1096.69262
G1 X147.94 Y183.88 E1096.72324
G1 X149.82 Y184.45 E1096.80471
G1 X152.50 Y184.72 E1096.91679
G1 X155.18 Y184.45 E1097.02883
G1 X155.89 Y184.24 E1097.05941
G1 X157.76 Y183.67 E1097.14096
G1 X158.41 Y183.32 E1097.17153
G1 X160.14 Y182.40 E1097.25311
G1 X162.23 Y180.69 E1097.36522
G1 X163.94 Y178.60 E1097.47738
G1 X164.28 Y177.96 E1097.50786
G1 X165.21 Y176.22 E1097.58948
G1 X165.42 Y175.52 E1097.62001
G1 X165.99 Y173.64 E1097.70156
G1 X166.25 Y171.02 E1097.81115
G0 X165.75 Y170.96
G1 X165.50 Y168.38 E1097.91914
G1 X165.30 Y167.72 E1097.94763
G1 X164.74 Y165.89 E1098.02715
G1 X163.52 Y163.60 E1098.13514
G1 X161.87 Y161.59 E1098.24320
G1 X159.86 Y159.94 E1098.35125
G1 X157.57 Y158.72 E1098.45926
G1 X156.91 Y158.52 E1098.48775
G1 X155.09 Y157.96 E1098.56726
G1 X152.50 Y157.71 E1098.67526
G1 X149.91 Y157.96 E1098.78325
G1 X149.26 Y158.16 E1098.81174
G1 X147.43 Y158.72 E1098.89126
G1 X145.14 Y159.94 E1098.99925
G1 X143.13 Y161.59 E1099.10731
G1 X141.48 Y163.60 E1099.21536
G1 X140.25 Y165.89 E1099.32337
G1 X140.06 Y166.54 E1099.35186
G1 X139.50 Y168.38 E1099.43137
G1 X139.25 Y170.96 E1099.53936
G1 X139.50 Y173.55 E1099.64740
G1 X139.70 Y174.20 E1099.67589
G1 X140.26 Y176.03 E1099.75541
G1 X141.48 Y178.32 E1099.86340
G1 X143.13 Y180.33 E1099.97146
G1 X145.14 Y181.98 E1100.07951
G1 X147.43 Y183.21 E1100.18752
G1 X148.09 Y183.40 E1100.21601
G1 X149.91 Y183.96 E1100.29552
G1 X152.50 Y184.21 E1100.40351
G1 X155.09 Y183.96 E1100.51150
G1 X155.74 Y183.76 E1100.53999
G1 X157.57 Y183.21 E1100.61951
G1 X159.86 Y181.98 E1100.72750
G1 X161.87 Y180.33 E1100.83556
G1 X163.52 Y178.32 E1100.94361
G1 X164.75 Y176.03 E1101.05162
G1 X164.94 Y175.38 E1101.08011
G1 X165.50 Y173.55 E1101.15962
G1 X165.75 Y170.96 E1101.26766
G0 X166.75 Y185.84
G1 X138.25 Y185.84 E1102.45255
G1 X138.25 Y131.66 E1104.70501
G1 X113.25 Y131.66 E1105.74439
G1 X113.25 Y119.16 E1106.26408
G1 X191.75 Y119.16 E1109.52773
G1 X191.75 Y131.66 E1110.04742
G1 X166.75 Y131.66 E1111.08680
G1 X166.75 Y185.84 E1113.33926
G0 X167.25 Y186.34
;TYPE:WALL-OUTER
G1 X137.75 Y186.34 E1114.56572
G1 X137.75 Y132.16 E1116.81818
G1 X112.75 Y132.16 E1117.85756
G1 X112.75 Y118.66 E1118.41883
G1 X192.25 Y118.66 E1121.72405
G1 X192.25 Y132.16 E1122.28532
G1 X167.25 Y132.16 E1123.32470
G1 X167.25 Y186.34 E1125.57716
G0 X166.90 Y186.08
G0 X161.78 Y180.20
G0 X161.52 Y179.98
G1 X163.10 Y178.04 E1125.68111
G1 X164.28 Y175.84 E1125.78501
G1 X165.00 Y173.45 E1125.88892
G1 X165.25 Y170.96 E1125.99287
G1 X165.00 Y168.47 E1126.09677
G1 X164.28 Y166.08 E1126.20069
G1 X163.10 Y163.88 E1126.30458
G1 X161.52 Y161.94 E1126.40854
G1 X159.58 Y160.36 E1126.51249
G1 X157.38 Y159.18 E1126.61639
G1 X154.99 Y158.46 E1126.72031
G1 X152.50 Y158.21 E1126.82421
G1 X150.01 Y158.46 E1126.92811
G1 X147.62 Y159.18 E1127.03203
G1 X145.42 Y160.36 E1127.13592
G1 X143.48 Y161.94 E1127.23988
G1 X141.90 Y163.88 E1127.34383
G1 X140.72 Y166.08 E1127.44773
G1 X140.00 Y168.47 E1127.55165
G1 X139.75 Y170.96 E1127.65555
G1 X140.00 Y173.45 E1127.75949
G1 X140.72 Y175.84 E1127.86341
G1 X141.90 Y178.04 E1127.96731
G1 X143.48 Y179.98 E1128.07126
G1 X145.42 Y181.56 E1128.17521
G1 X147.62 Y182.74 E1128.27911
G1 X150.01 Y183.47 E1128.38303
G1 X152.50 Y183.71 E1128.48692
G1 X154.99 Y183.47 E1128.59082
G1 X157.38 Y182.74 E1128.69474
G1 X159.58 Y181.56 E1128.79864
G1 X161.52 Y179.98 E1128.90259
G0 X162.20 Y180.94
;TYPE:FILL
G1 X166.07 Y184.81 E1129.13054
G0 X165.72 Y185.16
G1 X161.81 Y181.25 E1129.36026
G0 X161.42 Y181.57
G1 X165.01 Y185.16 E1129.57125
G0 X164.30 Y185.16
G1 X161.03 Y181.89 E1129.76354
G0 X160.64 Y182.21
G1 X163.60 Y185.16 E1129.93708
G0 X162.89 Y185.16
G1 X160.26 Y182.53 E1130.09186
G0 X159.80 Y182.78
G1 X162.18 Y185.16 E1130.23194
G0 X161.47 Y185.16
G1 X159.34 Y183.03 E1130.35753
G0 X158.88 Y183.27
G1 X160.77 Y185.16 E1130.46868
G0 X160.06 Y185.16
G1 X158.42 Y183.52 E1130.56535
G0 X157.96 Y183.76
G1 X159.35 Y185.16 E1130.64751
G0 X158.65 Y185.16
G1 X157.43 Y183.95 E1130.71875
G0 X156.89 Y184.12
G1 X157.94 Y185.16 E1130.78030
G0 X157.23 Y185.16
G1 X156.35 Y184.28 E1130.83219
G0 X155.81 Y184.44
G1 X156.53 Y185.16 E1130.87444
G0 X155.82 Y185.16
G1 X155.19 Y184.88 E1130.90693
G1 X154.52 Y184.92 E1130.93520
G1 X153.84 Y184.95 E1130.95979
G1 X153.16 Y184.99 E1130.98064
G1 X152.49 Y185.02 E1130.99774
G1 X151.76 Y185.00 E1131.01683
G1 X151.02 Y184.96 E1131.04047
G1 X150.27 Y184.92 E1131.06866
G1 X149.55 Y184.55 E1131.10241
G0 X149.45 Y185.16
G1 X148.54 Y184.25 E1131.15636
G0 X148.75 Y185.16
G1 X147.52 Y183.94 E1131.22832
G0 X147.33 Y185.16
G1 X144.50 Y182.33 E1131.39507
G0 X146.18 Y183.30
G1 X148.04 Y185.16 E1131.50443
G0 X146.62 Y185.16
G1 X138.93 Y177.46 E1131.95716
G0 X138.93 Y178.17
G1 X145.92 Y185.16 E1132.36832
G0 X145.21 Y185.16
G1 X138.93 Y178.88 E1132.73791
G0 X138.93 Y179.58
G1 X144.50 Y185.16 E1133.06594
G0 X143.80 Y185.16
G1 X138.93 Y180.29 E1133.35236
G0 X138.93 Y181.00
G1 X143.09 Y185.16 E1133.59722
G0 X142.38 Y185.16
G1 X138.93 Y181.71 E1133.80051
G0 X138.93 Y182.41
G1 X141.68 Y185.16 E1133.96220
G0 X140.97 Y185.16
G1 X138.93 Y183.12 E1134.08232
G0 X138.93 Y183.83
G1 X140.26 Y185.16 E1134.16087
G0 X139.55 Y185.16
G1 X138.93 Y184.53 E1134.19785
G0 X141.13 Y178.96
G1 X138.93 Y176.75 E1134.32773
G0 X138.93 Y176.05
G1 X140.16 Y177.28 E1134.40023
G0 X139.52 Y175.94
G1 X139.07 Y175.13 E1134.43527
G1 X138.93 Y174.63 E1134.45683
G0 X139.18 Y167.11
G1 X139.13 Y166.71 E1134.47189
G1 X139.22 Y166.09 E1134.49664
G1 X138.92 Y165.44 E1134.52613
G0 X138.92 Y164.73
G1 X139.69 Y165.50 E1134.57149
G0 X139.94 Y165.04
G1 X138.92 Y164.03 E1134.63137
G0 X138.92 Y163.32
G1 X140.19 Y164.58 E1134.70572
G0 X140.43 Y164.12
G1 X138.92 Y162.61 E1134.79456
G0 X138.92 Y161.90
G1 X140.68 Y163.66 E1134.89790
G0 X140.93 Y163.20
G1 X138.92 Y161.20 E1135.01590
G0 X138.92 Y160.49
G1 X141.25 Y162.82 E1135.15266
G0 X141.57 Y162.43
G1 X138.92 Y159.78 E1135.30812
G0 X138.92 Y159.08
G1 X141.89 Y162.04 E1135.48233
G0 X142.20 Y161.65
G1 X138.92 Y158.37 E1135.67524
G0 X138.92 Y157.66
G1 X142.52 Y161.26 E1135.88691
G0 X142.88 Y160.91
G1 X138.92 Y156.96 E1136.11971
G0 X138.92 Y156.25
G1 X143.27 Y160.60 E1136.37542
G0 X143.66 Y160.28
G1 X138.92 Y155.54 E1136.65393
G0 X138.92 Y154.83
G1 X144.05 Y159.96 E1136.95532
G0 X144.44 Y159.64
G1 X138.92 Y154.13 E1137.27952
G0 X138.92 Y153.42
G1 X144.84 Y159.33 E1137.62727
G0 X145.30 Y159.09
G1 X138.92 Y152.71 E1138.00213
G0 X138.92 Y152.00
G1 X145.76 Y158.84 E1138.40409
G0 X146.22 Y158.59
G1 X138.92 Y151.30 E1138.83310
G0 X138.92 Y150.59
G1 X146.68 Y158.35 E1139.28921
G0 X147.14 Y158.10
G1 X138.92 Y149.88 E1139.77239
G0 X138.92 Y149.18
G1 X147.68 Y157.93 E1140.28727
G0 X148.22 Y157.77
G1 X138.92 Y148.47 E1140.83405
G0 X138.92 Y147.76
G1 X148.77 Y157.60 E1141.41275
G0 X149.31 Y157.44
G1 X138.92 Y147.06 E1142.02335
G0 X138.92 Y146.35
G1 X149.86 Y157.29 E1142.66658
G0 X150.51 Y157.22
G1 X138.92 Y145.64 E1143.34767
G0 X138.92 Y144.93
G1 X151.15 Y157.16 E1144.06660
G0 X151.79 Y157.10
G1 X138.92 Y144.23 E1144.82334
G0 X138.92 Y143.52
G1 X152.44 Y157.03 E1145.61794
G0 X153.21 Y157.10
G1 X138.92 Y142.81 E1146.45784
G0 X138.92 Y142.10
G1 X153.99 Y157.17 E1147.34387
G0 X154.78 Y157.25
G1 X138.92 Y141.40 E1148.27602
G0 X138.92 Y140.69
G1 X155.66 Y157.43 E1149.26024
G0 X156.68 Y157.74
G1 X138.92 Y139.98 E1150.30411
G0 X138.92 Y139.28
G1 X157.69 Y158.05 E1151.40766
G0 X159.14 Y158.79
G1 X138.92 Y138.57 E1152.59651
G0 X138.92 Y137.86
G1 X161.34 Y160.28 E1153.91469
G0 X163.17 Y162.11
G1 X166.07 Y165.01 E1154.08517
G0 X166.07 Y164.31
G1 X138.92 Y137.16 E1155.68152
G0 X138.92 Y136.45
G1 X166.07 Y163.60 E1157.27789
G0 X166.07 Y162.89
G1 X138.92 Y135.74 E1158.87427
G0 X138.92 Y135.03
G1 X166.07 Y162.19 E1160.47064
G0 X166.07 Y161.48
G1 X138.92 Y134.33 E1162.06702
G0 X138.92 Y133.62
G1 X166.07 Y160.77 E1163.66339
G0 X166.07 Y160.06
G1 X138.92 Y132.91 E1165.25977
G0 X138.92 Y132.21
G1 X166.07 Y159.36 E1166.85614
G0 X166.07 Y158.65
G1 X138.92 Y131.50 E1168.45252
G0 X138.41 Y130.99
G1 X127.26 Y119.83 E1169.10807
G0 X126.55 Y119.83
G1 X137.70 Y130.99 E1169.76361
G0 X137.00 Y130.99
G1 X125.84 Y119.83 E1170.41919
G0 X125.14 Y119.83
G1 X136.29 Y130.99 E1171.07477
G0 X135.58 Y130.99
G1 X124.43 Y119.83 E1171.73035
G0 X123.72 Y119.83
G1 X134.87 Y130.99 E1172.38592
G0 X134.17 Y130.99
G1 X123.02 Y119.83 E1173.04150
G0 X122.31 Y119.83
G1 X133.46 Y130.99 E1173.69708
G0 X132.75 Y130.99
G1 X121.60 Y119.83 E1174.35262
G0 X120.90 Y119.83
G1 X132.04 Y130.99 E1175.00817
G0 X131.34 Y130.99
G1 X120.19 Y119.83 E1175.66372
G0 X119.48 Y119.83
G1 X130.63 Y130.99 E1176.31930
G0 X129.92 Y130.99
G1 X118.77 Y119.83 E1176.97488
G0 X118.07 Y119.83
G1 X129.22 Y130.99 E1177.63045
G0 X128.51 Y130.99
G1 X117.36 Y119.83 E1178.28603
G0 X116.65 Y119.83
G1 X127.80 Y130.99 E1178.94161
G0 X127.10 Y130.99
G1 X115.95 Y119.83 E1179.59718
G0 X115.24 Y119.83
G1 X126.39 Y130.99 E1180.25273
G0 X125.68 Y130.99
G1 X114.53 Y119.83 E1180.90828
G0 X113.92 Y119.94
G1 X124.97 Y130.99 E1181.55798
G0 X124.27 Y130.99
G1 X113.92 Y120.64 E1182.16611
G0 X113.92 Y121.35
G1 X123.56 Y130.99 E1182.73267
G0 X122.85 Y130.99
G1 X113.92 Y122.06 E1183.25766
G0 X113.92 Y122.76
G1 X122.15 Y130.99 E1183.74108
G0 X121.44 Y130.99
G1 X113.92 Y123.47 E1184.18293
G0 X113.92 Y124.18
G1 X120.73 Y130.99 E1184.58322
G0 X120.03 Y130.99
G1 X113.92 Y124.88 E1184.94193
G0 X113.92 Y125.59
G1 X119.32 Y130.99 E1185.25902
G0 X118.61 Y130.99
G1 X113.92 Y126.30 E1185.53454
G0 X113.92 Y127.01
G1 X117.90 Y130.99 E1185.76849
G0 X117.20 Y130.99
G1 X113.92 Y127.71 E1185.96087
G0 X113.92 Y128.42
G1 X116.49 Y130.99 E1186.11168
G0 X115.78 Y130.99
G1 X113.92 Y129.13 E1186.22093
G0 X113.92 Y129.83
G1 X115.08 Y130.99 E1186.28860
G0 X114.37 Y130.99
G1 X113.92 Y130.54 E1186.31471
G0 X127.97 Y119.83
G1 X166.07 Y157.94 E1188.55525
G0 X166.07 Y157.24
G1 X128.67 Y119.83 E1190.75423
G0 X129.38 Y119.83
G1 X166.07 Y156.53 E1192.91164
G0 X166.07 Y155.82
G1 X130.09 Y119.83 E1195.02747
G0 X130.79 Y119.83
G1 X166.07 Y155.11 E1197.10174
G0 X166.07 Y154.41
G1 X131.50 Y119.83 E1199.13445
G0 X132.21 Y119.83
G1 X166.07 Y153.70 E1201.12558
G0 X166.07 Y152.99
G1 X132.92 Y119.83 E1203.07514
G0 X133.62 Y119.83
G1 X166.07 Y152.29 E1204.98311
G0 X166.07 Y151.58
G1 X134.33 Y119.83 E1206.84947
G0 X135.04 Y119.83
G1 X166.07 Y150.87 E1208.67427
G0 X166.07 Y150.16
G1 X135.75 Y119.83 E1210.45750
G0 X136.45 Y119.83
G1 X166.07 Y149.46 E1212.19916
G0 X166.07 Y148.75
G1 X137.16 Y119.83 E1213.89925
G0 X137.87 Y119.83
G1 X166.07 Y148.04 E1215.55777
G0 X166.07 Y147.34
G1 X138.57 Y119.83 E1217.17473
G0 X139.28 Y119.83
G1 X166.07 Y146.63 E1218.75011
G0 X166.07 Y145.92
G1 X139.99 Y119.83 E1220.28390
G0 X140.69 Y119.83
G1 X166.07 Y145.21 E1221.77608
G0 X166.07 Y144.51
G1 X141.40 Y119.83 E1223.22670
G0 X142.11 Y119.83
G1 X166.07 Y143.80 E1224.63575
G0 X166.07 Y143.09
G1 X142.82 Y119.83 E1226.00324
G0 X143.52 Y119.83
G1 X166.07 Y142.39 E1227.32915
G0 X166.07 Y141.68
G1 X144.23 Y119.83 E1228.61349
G0 X144.94 Y119.83
G1 X166.07 Y140.97 E1229.85627
G0 X166.07 Y140.26
G1 X145.64 Y119.83 E1231.05747
G0 X146.35 Y119.83
G1 X166.07 Y139.56 E1232.21708
G0 X166.07 Y138.85
G1 X147.06 Y119.83 E1233.33512
G0 X147.77 Y119.83
G1 X166.07 Y138.14 E1234.41156
G0 X166.07 Y137.44
G1 X148.47 Y119.83 E1235.44643
G0 X149.18 Y119.83
G1 X166.07 Y136.73 E1236.43973
G0 X166.07 Y136.02
G1 X149.89 Y119.83 E1237.39147
G0 X150.59 Y119.83
G1 X166.07 Y135.31 E1238.30163
G0 X166.07 Y134.61
G1 X151.30 Y119.83 E1239.17023
G0 X152.01 Y119.83
G1 X166.07 Y133.90 E1239.99725
G0 X166.07 Y133.19
G1 X152.72 Y119.84 E1240.78265
G0 X153.42 Y119.84
G1 X166.07 Y132.49 E1241.52648
G0 X166.07 Y131.78
G1 X154.13 Y119.84 E1242.22871
G0 X154.84 Y119.84
G1 X166.07 Y131.07 E1242.88935
G0 X166.69 Y130.99
G1 X155.54 Y119.84 E1243.54487
G0 X156.25 Y119.84
G1 X167.40 Y130.99 E1244.20038
G0 X168.11 Y130.99
G1 X156.96 Y119.84 E1244.85590
G0 X157.67 Y119.84
G1 X168.82 Y130.99 E1245.51145
G0 X169.52 Y130.99
G1 X158.37 Y119.84 E1246.16700
G0 X159.08 Y119.84
G1 X170.23 Y130.99 E1246.82255
G0 X170.94 Y130.99
G1 X159.79 Y119.84 E1247.47809
G0 X160.49 Y119.84
G1 X171.64 Y130.99 E1248.13364
G0 X172.35 Y130.99
G1 X161.20 Y119.84 E1248.78919
G0 X161.91 Y119.84
G1 X173.06 Y130.99 E1249.44471
G0 X173.76 Y130.99
G1 X162.62 Y119.84 E1250.10023
G0 X163.32 Y119.84
G1 X174.47 Y130.99 E1250.75575
G0 X175.18 Y130.99
G1 X164.03 Y119.84 E1251.41129
G0 X164.74 Y119.84
G1 X175.89 Y130.99 E1252.06684
G0 X176.59 Y130.99
G1 X165.44 Y119.84 E1252.72239
G0 X166.15 Y119.84
G1 X177.30 Y130.99 E1253.37794
G0 X178.01 Y130.99
G1 X166.86 Y119.84 E1254.03349
G0 X167.56 Y119.84
G1 X178.72 Y130.99 E1254.68903
G0 X179.42 Y130.99
G1 X168.27 Y119.84 E1255.34455
G0 X168.98 Y119.84
G1 X180.13 Y130.99 E1256.00007
G0 X180.84 Y130.99
G1 X169.69 Y119.84 E1256.65559
G0 X170.39 Y119.84
G1 X181.54 Y130.99 E1257.31114
G0 X182.25 Y130.99
G1 X171.10 Y119.84 E1257.96668
G0 X171.81 Y119.84
G1 X182.96 Y130.99 E1258.62223
G0 X183.66 Y130.99
G1 X172.51 Y119.84 E1259.27778
G0 X173.22 Y119.84
G1 X184.37 Y130.99 E1259.93333
G0 X185.08 Y130.99
G1 X173.93 Y119.84 E1260.58888
G0 X174.64 Y119.84
G1 X185.79 Y130.99 E1261.24442
G0 X186.49 Y130.99
G1 X175.34 Y119.84 E1261.89994
G0 X176.05 Y119.84
G1 X187.20 Y130.99 E1262.55546
G0 X187.91 Y130.99
G1 X176.76 Y119.84 E1263.21098
G0 X177.47 Y119.84
G1 X188.62 Y130.99 E1263.86653
