;-- START GCODE --
;Sliced for Type A Machines Series 1
;Sliced at: Thu 08-12-2016 13:51:15
;Basic settings: Layer height: 0.2 Walls: 3 Fill: 20
;Print Speed: 100 Support: 0
;Retraction Speed: 40 Retraction Distance: 1.2
;Print time: #P_TIME#
;Filament used: #F_AMNT#m #F_WGHT#g
;Filament cost: #F_COST#
M106 S255	 ;start with the fan on
G21        ;metric values
G90        ;absolute positioning
M106 S255    ;start with the fan on
G28     ;move to endstops
G29		;allows for auto-levelling
G1 X150 Y5  Z15.0 F6000 ;center and move the platform down 15mm
M109 S220 ;Heat To temp
G92 E0                  ;zero the extruded length
G1 F200 E30              ;extrude 30mm of feed stock
G92 E0                  ;zero the extruded length again
G1 X175 Y25  Z0 F6000 ;remove bugger
G1 X220 F6000 ;remove bugger
G1 X150 Y150  Z15 F6000 ;recenter and begin
G1 F6000

;Layer count: 105
;LAYER:0
M106 S255
G0 F6000 X46.98 Y35.01 Z0.30
;TYPE:SKIRT
G1 F2700 X46.98 Y35.21 E0.01068
G1 X46.78 Y35.41 E0.02578
G1 X46.78 Y35.61 E0.03645
G1 X46.38 Y36.01 E0.06665
G1 X46.38 Y36.21 E0.07733
G1 X46.19 Y36.41 E0.09242
G1 X46.19 Y36.61 E0.10310
G1 X45.78 Y37.01 E0.13330
G1 X45.78 Y37.61 E0.16533
G1 X45.59 Y37.81 E0.18043
G1 X45.59 Y38.41 E0.21246
G1 X45.38 Y38.61 E0.22756
G1 X45.38 Y38.69 E0.23172
G1 X45.59 Y38.89 E0.24682
G1 X45.59 Y39.49 E0.27885
G1 X45.78 Y39.69 E0.29395
G1 X45.78 Y40.29 E0.32598
G1 X46.19 Y40.69 E0.35617
G1 X46.19 Y40.89 E0.36685
G1 X46.38 Y41.09 E0.38195
G1 X46.38 Y41.29 E0.39263
G1 X46.78 Y41.69 E0.42282
G1 X46.78 Y41.89 E0.43350
G1 X46.98 Y42.09 E0.44860
G1 X46.98 Y42.29 E0.45928
G1 X47.57 Y42.88 E0.50352
G1 X48.13 Y43.15 E0.53663
G1 X49.34 Y43.56 E0.60496
G1 X50.43 Y43.65 E0.66329
G1 X51.21 Y43.66 E0.70515
G1 X51.53 Y43.55 E0.72316
G1 X51.93 Y43.36 E0.74680
G1 X52.53 Y43.16 E0.78068
G1 X52.69 Y43.08 E0.78999
G1 X53.07 Y42.69 E0.81913
G1 X53.07 Y42.49 E0.82980
G1 X53.47 Y42.09 E0.86000
G1 X53.47 Y41.89 E0.87068
G1 X53.67 Y41.69 E0.88578
G1 X53.67 Y41.49 E0.89645
G1 X54.07 Y41.09 E0.92665
G1 X54.07 Y40.89 E0.93733
G1 X54.27 Y40.69 E0.95243
G1 X54.27 Y40.49 E0.96310
G1 X54.47 Y40.29 E0.97820
G1 X54.47 Y39.89 E0.99956
G1 X54.67 Y39.69 E1.01465
G1 X54.67 Y39.09 E1.04668
G1 X54.87 Y38.89 E1.06178
G1 X54.87 Y38.41 E1.08730
G1 X54.67 Y38.21 E1.10240
G1 X54.67 Y37.61 E1.13443
G1 X54.47 Y37.41 E1.14953
G1 X54.47 Y37.01 E1.17088
G1 X54.27 Y36.81 E1.18598
G1 X54.27 Y36.61 E1.19666
G1 X54.07 Y36.41 E1.21175
G1 X54.07 Y36.21 E1.22243
G1 X53.67 Y35.81 E1.25263
G1 X53.67 Y35.61 E1.26330
G1 X53.47 Y35.41 E1.27840
G1 X53.47 Y35.21 E1.28908
G1 X53.07 Y34.81 E1.31928
G1 X53.07 Y34.61 E1.32995
G1 X52.67 Y34.21 E1.36015
G1 X52.67 Y34.21 E1.36021
G1 X52.49 Y34.03 E1.37410
G1 X51.97 Y33.77 E1.40506
G1 X51.46 Y33.64 E1.43335
G1 X50.43 Y33.65 E1.48823
G1 X49.08 Y33.77 E1.56065
G1 X49.01 Y33.79 E1.56415
G1 X48.29 Y33.97 E1.60409
G1 X47.59 Y34.32 E1.64606
G1 X47.59 Y34.41 E1.65102
G1 X46.98 Y35.01 E1.69632
G0 F6000 X46.56 Y35.03
G1 F2700 X46.36 Y35.23 E1.71142
G1 X46.36 Y35.44 E1.72209
G1 X45.96 Y35.84 E1.75229
G1 X45.96 Y36.03 E1.76297
G1 X45.76 Y36.23 E1.77807
G1 X45.76 Y36.44 E1.78874
G1 X45.36 Y36.84 E1.81894
G1 X45.36 Y37.44 E1.85097
G1 X45.16 Y37.63 E1.86607
G1 X45.16 Y38.23 E1.89810
G1 X44.96 Y38.44 E1.91320
G1 X44.96 Y38.87 E1.93637
G1 X45.16 Y39.07 E1.95147
G1 X45.16 Y39.67 E1.98350
G1 X45.36 Y39.87 E1.99859
G1 X45.36 Y40.47 E2.03062
G1 X45.76 Y40.87 E2.06082
G1 X45.76 Y41.07 E2.07150
G1 X45.96 Y41.27 E2.08660
G1 X45.96 Y41.47 E2.09727
G1 X46.36 Y41.87 E2.12747
G1 X46.36 Y42.07 E2.13815
G1 X46.56 Y42.27 E2.15325
G1 X46.56 Y42.47 E2.16392
G1 X47.32 Y43.23 E2.22130
G1 X47.97 Y43.55 E2.26002
G1 X49.26 Y43.98 E2.33259
G1 X50.40 Y44.08 E2.39398
G1 X51.28 Y44.09 E2.44102
G1 X51.69 Y43.95 E2.46387
G1 X52.09 Y43.75 E2.48799
G1 X52.69 Y43.55 E2.52168
G1 X52.94 Y43.43 E2.53660
G1 X53.50 Y42.87 E2.57880
G1 X53.50 Y42.67 E2.58948
G1 X53.90 Y42.27 E2.61968
G1 X53.90 Y42.07 E2.63035
G1 X54.10 Y41.87 E2.64545
G1 X54.10 Y41.67 E2.65613
G1 X54.50 Y41.27 E2.68633
G1 X54.50 Y41.07 E2.69700
G1 X54.70 Y40.87 E2.71210
G1 X54.70 Y40.67 E2.72278
G1 X54.90 Y40.47 E2.73788
G1 X54.90 Y40.07 E2.75923
G1 X55.10 Y39.87 E2.77433
G1 X55.10 Y39.27 E2.80636
G1 X55.30 Y39.07 E2.82146
G1 X55.30 Y38.23 E2.86598
G1 X55.10 Y38.03 E2.88108
G1 X55.10 Y37.44 E2.91311
G1 X54.90 Y37.23 E2.92821
G1 X54.90 Y36.84 E2.94956
G1 X54.70 Y36.63 E2.96466
G1 X54.70 Y36.44 E2.97533
G1 X54.50 Y36.23 E2.99043
G1 X54.50 Y36.03 E3.00111
G1 X54.10 Y35.63 E3.03131
G1 X54.10 Y35.44 E3.04198
G1 X53.90 Y35.23 E3.05708
G1 X53.90 Y35.03 E3.06776
G1 X53.50 Y34.63 E3.09796
G1 X53.50 Y34.44 E3.10863
G1 X53.10 Y34.03 E3.13883
G1 X53.10 Y33.96 E3.14305
G1 X52.94 Y33.88 E3.15260
G1 X52.74 Y33.67 E3.16777
G1 X52.12 Y33.36 E3.20502
G1 X51.51 Y33.21 E3.23842
G1 X50.40 Y33.23 E3.29757
G1 X48.99 Y33.34 E3.37305
G1 X48.89 Y33.38 E3.37857
G1 X48.14 Y33.56 E3.42005
G1 X47.16 Y34.06 E3.47873
G1 X47.16 Y34.23 E3.48829
G1 X46.56 Y34.84 E3.53358
G1 X46.56 Y35.03 E3.54426
G0 F6000 X46.13 Y34.86
G1 F2700 X45.93 Y35.06 E3.55936
G1 X45.93 Y35.26 E3.57003
G1 X45.53 Y35.66 E3.60023
G1 X45.53 Y35.86 E3.61091
G1 X45.33 Y36.06 E3.62601
G1 X45.33 Y36.26 E3.63668
G1 X44.93 Y36.66 E3.66688
G1 X44.93 Y37.26 E3.69891
G1 X44.73 Y37.46 E3.71401
G1 X44.73 Y38.06 E3.74604
G1 X44.53 Y38.26 E3.76114
G1 X44.53 Y39.05 E3.80320
G1 X44.73 Y39.25 E3.81830
G1 X44.73 Y39.85 E3.85033
G1 X44.93 Y40.05 E3.86543
G1 X44.93 Y40.65 E3.89746
G1 X45.33 Y41.05 E3.92766
G1 X45.33 Y41.25 E3.93833
G1 X45.53 Y41.45 E3.95343
G1 X45.53 Y41.65 E3.96411
G1 X45.93 Y42.05 E3.99431
G1 X45.93 Y42.25 E4.00498
G1 X46.13 Y42.45 E4.02008
G1 X46.13 Y42.65 E4.03076
G1 X46.93 Y43.45 E4.09116
G1 X46.93 Y43.51 E4.09473
G1 X47.80 Y43.95 E4.14690
G1 X49.16 Y44.40 E4.22354
G1 X50.38 Y44.51 E4.28841
G1 X51.35 Y44.52 E4.34051
G1 X51.85 Y44.35 E4.36882
G1 X52.26 Y44.15 E4.39281
G1 X52.86 Y43.95 E4.42651
G1 X53.33 Y43.71 E4.45475
G1 X53.33 Y43.65 E4.45833
G1 X53.93 Y43.05 E4.50362
G1 X53.93 Y42.85 E4.51430
G1 X54.33 Y42.45 E4.54450
G1 X54.33 Y42.25 E4.55517
G1 X54.53 Y42.05 E4.57027
G1 X54.53 Y41.85 E4.58095
G1 X54.93 Y41.45 E4.61115
G1 X54.93 Y41.25 E4.62182
G1 X55.13 Y41.05 E4.63692
G1 X55.13 Y40.85 E4.64760
G1 X55.33 Y40.65 E4.66270
G1 X55.33 Y40.25 E4.68405
G1 X55.53 Y40.05 E4.69915
G1 X55.53 Y39.45 E4.73118
G1 X55.73 Y39.25 E4.74628
G1 X55.73 Y38.06 E4.80970
G1 X55.53 Y37.86 E4.82480
G1 X55.53 Y37.26 E4.85683
G1 X55.33 Y37.06 E4.87192
G1 X55.33 Y36.66 E4.89328
G1 X55.13 Y36.46 E4.90838
G1 X55.13 Y36.26 E4.91905
G1 X54.93 Y36.06 E4.93415
G1 X54.93 Y35.86 E4.94483
G1 X54.53 Y35.46 E4.97503
G1 X54.53 Y35.26 E4.98570
G1 X54.33 Y35.06 E5.00080
G1 X54.33 Y34.86 E5.01148
G1 X53.93 Y34.46 E5.04168
G1 X53.93 Y34.26 E5.05235
G1 X53.53 Y33.86 E5.08255
G1 X53.53 Y33.69 E5.09146
G1 X53.20 Y33.52 E5.11140
G1 X52.99 Y33.32 E5.12650
G1 X52.27 Y32.96 E5.16995
G1 X51.56 Y32.78 E5.20880
G1 X50.37 Y32.80 E5.27217
G1 X48.90 Y32.92 E5.35092
G1 X48.77 Y32.97 E5.35822
G1 X47.99 Y33.16 E5.40147
G1 X46.86 Y33.72 E5.46862
G1 X46.73 Y33.86 E5.47874
G1 X46.73 Y34.06 E5.48942
G1 X46.13 Y34.66 E5.53471
G1 X46.13 Y34.86 E5.54539
G0 F6000 X45.70 Y34.68
G1 F2700 X45.50 Y34.88 E5.56049
G1 X45.50 Y35.08 E5.57117
G1 X45.10 Y35.48 E5.60136
G1 X45.10 Y35.68 E5.61204
G1 X44.90 Y35.88 E5.62714
G1 X44.90 Y36.08 E5.63781
G1 X44.50 Y36.48 E5.66801
G1 X44.50 Y37.08 E5.70004
G1 X44.30 Y37.28 E5.71514
G1 X44.30 Y37.88 E5.74717
G1 X44.10 Y38.08 E5.76227
G1 X44.10 Y38.48 E5.78362
G1 X43.93 Y38.65 E5.79653
G1 X44.10 Y38.82 E5.80944
G1 X44.10 Y39.22 E5.83079
G1 X44.30 Y39.42 E5.84589
G1 X44.30 Y40.02 E5.87792
G1 X44.50 Y40.22 E5.89302
G1 X44.50 Y40.82 E5.92505
G1 X44.90 Y41.22 E5.95525
G1 X44.90 Y41.42 E5.96593
G1 X45.10 Y41.62 E5.98102
G1 X45.10 Y41.82 E5.99170
G1 X45.50 Y42.22 E6.02190
G1 X45.50 Y42.42 E6.03257
G1 X45.70 Y42.62 E6.04767
G1 X45.70 Y42.82 E6.05835
G1 X46.50 Y43.62 E6.11875
G1 X46.50 Y43.78 E6.12702
G1 X47.64 Y44.35 E6.19477
G1 X49.08 Y44.83 E6.27607
G1 X50.35 Y44.93 E6.34394
G1 X51.42 Y44.95 E6.40112
G1 X52.02 Y44.75 E6.43495
G1 X52.42 Y44.55 E6.45894
G1 X53.02 Y44.34 E6.49270
G1 X53.76 Y43.98 E6.53656
G1 X53.76 Y43.82 E6.54483
G1 X54.36 Y43.22 E6.59013
G1 X54.36 Y43.02 E6.60080
G1 X54.76 Y42.62 E6.63100
G1 X54.76 Y42.42 E6.64168
G1 X54.96 Y42.22 E6.65678
G1 X54.96 Y42.02 E6.66745
G1 X55.36 Y41.62 E6.69765
G1 X55.36 Y41.42 E6.70833
G1 X55.56 Y41.22 E6.72343
G1 X55.56 Y41.02 E6.73410
G1 X55.76 Y40.82 E6.74920
G1 X55.76 Y40.42 E6.77056
G1 X55.96 Y40.22 E6.78565
G1 X55.96 Y39.62 E6.81768
G1 X56.16 Y39.42 E6.83278
G1 X56.16 Y38.82 E6.86481
G1 X56.33 Y38.65 E6.87772
G1 X56.16 Y38.48 E6.89063
G1 X56.16 Y37.88 E6.92266
G1 X55.96 Y37.68 E6.93776
G1 X55.96 Y37.08 E6.96979
G1 X55.76 Y36.88 E6.98489
G1 X55.76 Y36.48 E7.00624
G1 X55.56 Y36.28 E7.02134
G1 X55.56 Y36.08 E7.03202
G1 X55.36 Y35.88 E7.04712
G1 X55.36 Y35.68 E7.05779
G1 X54.96 Y35.28 E7.08799
G1 X54.96 Y35.08 E7.09867
G1 X54.76 Y34.88 E7.11377
G1 X54.76 Y34.68 E7.12444
G1 X54.36 Y34.28 E7.15464
G1 X54.36 Y34.08 E7.16532
G1 X53.96 Y33.68 E7.19551
G1 X53.96 Y33.48 E7.20619
G1 X53.85 Y33.37 E7.21442
G1 X53.45 Y33.17 E7.23829
G1 X53.25 Y32.97 E7.25343
G1 X52.42 Y32.56 E7.30278
G1 X52.41 Y32.56 E7.30311
G1 X51.61 Y32.35 E7.34741
G1 X50.35 Y32.37 E7.41478
G1 X48.82 Y32.50 E7.49668
G1 X48.65 Y32.55 E7.50597
G1 X47.84 Y32.76 E7.55075
G1 X46.61 Y33.37 E7.62409
G1 X46.30 Y33.68 E7.64749
G1 X46.30 Y33.88 E7.65817
G1 X45.70 Y34.48 E7.70347
G1 X45.70 Y34.68 E7.71414
G0 F6000 X45.27 Y34.50
G1 F2700 X45.07 Y34.70 E7.72924
G1 X45.07 Y34.90 E7.73992
G1 X44.67 Y35.30 E7.77012
G1 X44.67 Y35.50 E7.78079
G1 X44.47 Y35.70 E7.79589
G1 X44.47 Y35.90 E7.80657
G1 X44.07 Y36.30 E7.83677
G1 X44.07 Y36.90 E7.86880
G1 X43.87 Y37.10 E7.88389
G1 X43.87 Y37.70 E7.91592
G1 X43.67 Y37.90 E7.93102
G1 X43.67 Y38.30 E7.95238
G1 X43.47 Y38.50 E7.96747
G1 X43.47 Y38.80 E7.98338
G1 X43.67 Y39.00 E7.99848
G1 X43.67 Y39.40 E8.01983
G1 X43.87 Y39.60 E8.03493
G1 X43.87 Y40.20 E8.06696
G1 X44.07 Y40.40 E8.08206
G1 X44.07 Y41.00 E8.11409
G1 X44.47 Y41.40 E8.14429
G1 X44.47 Y41.60 E8.15497
G1 X44.67 Y41.80 E8.17006
G1 X44.67 Y42.00 E8.18074
G1 X45.07 Y42.40 E8.21094
G1 X45.07 Y42.60 E8.22162
G1 X45.27 Y42.80 E8.23671
G1 X45.27 Y43.00 E8.24739
G1 X46.07 Y43.80 E8.30779
G1 X46.07 Y44.00 E8.31841
G1 X46.16 Y44.08 E8.32468
G1 X47.48 Y44.74 E8.40358
G1 X48.99 Y45.25 E8.48871
G1 X50.34 Y45.36 E8.56076
G1 X51.48 Y45.38 E8.62210
G1 X52.18 Y45.14 E8.66133
G1 X52.59 Y44.94 E8.68542
G1 X53.18 Y44.74 E8.71884
G1 X54.10 Y44.28 E8.77387
G1 X54.19 Y44.20 E8.78014
G1 X54.19 Y44.00 E8.79076
G1 X54.78 Y43.40 E8.83606
G1 X54.78 Y43.20 E8.84673
G1 X55.19 Y42.80 E8.87693
G1 X55.19 Y42.60 E8.88761
G1 X55.38 Y42.40 E8.90271
G1 X55.38 Y42.20 E8.91338
G1 X55.78 Y41.80 E8.94358
G1 X55.78 Y41.60 E8.95426
G1 X55.98 Y41.40 E8.96936
G1 X55.98 Y41.20 E8.98003
G1 X56.19 Y41.00 E8.99513
G1 X56.19 Y40.60 E9.01648
G1 X56.38 Y40.40 E9.03158
G1 X56.38 Y39.80 E9.06361
G1 X56.59 Y39.60 E9.07871
G1 X56.59 Y39.00 E9.11074
G1 X56.78 Y38.80 E9.12584
G1 X56.78 Y38.50 E9.14175
G1 X56.59 Y38.30 E9.15685
G1 X56.59 Y37.70 E9.18888
G1 X56.38 Y37.50 E9.20397
G1 X56.38 Y36.90 E9.23600
G1 X56.19 Y36.70 E9.25110
G1 X56.19 Y36.30 E9.27246
G1 X55.98 Y36.10 E9.28755
G1 X55.98 Y35.90 E9.29823
G1 X55.78 Y35.70 E9.31333
G1 X55.78 Y35.50 E9.32401
G1 X55.38 Y35.10 E9.35420
G1 X55.38 Y34.90 E9.36488
G1 X55.19 Y34.70 E9.37998
G1 X55.19 Y34.50 E9.39066
G1 X54.78 Y34.10 E9.42085
G1 X54.78 Y33.90 E9.43153
G1 X54.38 Y33.50 E9.46173
G1 X54.38 Y33.30 E9.47240
G1 X54.10 Y33.02 E9.49377
G1 X53.70 Y32.82 E9.51764
G1 X53.50 Y32.62 E9.53263
G1 X52.58 Y32.16 E9.58773
G1 X52.53 Y32.15 E9.59026
G1 X51.66 Y31.93 E9.63846
G1 X50.34 Y31.94 E9.70915
G1 X48.73 Y32.08 E9.79507
G1 X48.53 Y32.14 E9.80616
G1 X47.69 Y32.35 E9.85265
G1 X46.36 Y33.02 E9.93222
G1 X46.27 Y33.10 E9.93845
G1 X45.87 Y33.50 E9.96865
G1 X45.87 Y33.70 E9.97932
G1 X45.27 Y34.30 E10.02462
G1 X45.27 Y34.50 E10.03530
G0 F6000 X44.84 Y34.33
G1 F2700 X44.65 Y34.53 E10.05040
G1 X44.65 Y34.73 E10.06107
G1 X44.24 Y35.13 E10.09127
G1 X44.24 Y35.33 E10.10195
G1 X44.05 Y35.53 E10.11705
G1 X44.05 Y35.73 E10.12772
G1 X43.65 Y36.13 E10.15792
G1 X43.65 Y36.73 E10.18995
G1 X43.45 Y36.93 E10.20505
G1 X43.45 Y37.53 E10.23708
G1 X43.24 Y37.73 E10.25218
G1 X43.24 Y38.13 E10.27353
G1 X43.05 Y38.33 E10.28863
G1 X43.05 Y38.98 E10.32343
G1 X43.24 Y39.18 E10.33853
G1 X43.24 Y39.58 E10.35989
G1 X43.45 Y39.78 E10.37498
G1 X43.45 Y40.38 E10.40701
G1 X43.65 Y40.58 E10.42211
G1 X43.65 Y41.18 E10.45414
G1 X44.05 Y41.58 E10.48434
G1 X44.05 Y41.78 E10.49502
G1 X44.24 Y41.98 E10.51012
G1 X44.24 Y42.18 E10.52079
G1 X44.65 Y42.58 E10.55099
G1 X44.65 Y42.78 E10.56167
G1 X44.84 Y42.98 E10.57676
G1 X44.84 Y43.18 E10.58744
G1 X45.65 Y43.98 E10.64784
G1 X45.65 Y44.18 E10.65851
G1 X45.90 Y44.43 E10.67784
G1 X47.31 Y45.14 E10.76195
G1 X48.91 Y45.67 E10.85185
G1 X50.31 Y45.79 E10.92690
G1 X51.55 Y45.80 E10.99321
G1 X52.35 Y45.54 E11.03806
G1 X52.75 Y45.34 E11.06206
G1 X53.35 Y45.14 E11.09575
G1 X54.36 Y44.63 E11.15586
G1 X54.61 Y44.38 E11.17527
G1 X54.61 Y44.18 E11.18594
G1 X55.21 Y43.58 E11.23124
G1 X55.21 Y43.38 E11.24192
G1 X55.61 Y42.98 E11.27211
G1 X55.61 Y42.78 E11.28279
G1 X55.81 Y42.58 E11.29789
G1 X55.81 Y42.38 E11.30857
G1 X56.21 Y41.98 E11.33876
G1 X56.21 Y41.78 E11.34944
G1 X56.41 Y41.58 E11.36454
G1 X56.41 Y41.38 E11.37521
G1 X56.61 Y41.18 E11.39031
G1 X56.61 Y40.78 E11.41167
G1 X56.81 Y40.58 E11.42677
G1 X56.81 Y39.98 E11.45880
G1 X57.01 Y39.78 E11.47389
G1 X57.01 Y39.18 E11.50592
G1 X57.21 Y38.98 E11.52102
G1 X57.21 Y38.33 E11.55583
G1 X57.01 Y38.13 E11.57093
G1 X57.01 Y37.53 E11.60296
G1 X56.81 Y37.33 E11.61805
G1 X56.81 Y36.73 E11.65008
G1 X56.61 Y36.53 E11.66518
G1 X56.61 Y36.13 E11.68654
G1 X56.41 Y35.93 E11.70164
G1 X56.41 Y35.73 E11.71231
G1 X56.21 Y35.53 E11.72741
G1 X56.21 Y35.33 E11.73809
G1 X55.81 Y34.93 E11.76828
G1 X55.81 Y34.73 E11.77896
G1 X55.61 Y34.53 E11.79406
G1 X55.61 Y34.33 E11.80474
G1 X55.21 Y33.93 E11.83493
G1 X55.21 Y33.73 E11.84561
G1 X54.81 Y33.33 E11.87581
G1 X54.81 Y33.13 E11.88649
G1 X54.76 Y33.07 E11.89071
G1 X54.76 Y33.07 E11.89083
G1 X54.36 Y32.67 E11.92099
G1 X53.95 Y32.47 E11.94491
G1 X53.76 Y32.27 E11.96005
G1 X52.75 Y31.77 E12.02014
G1 X52.66 Y31.73 E12.02537
G1 X51.71 Y31.50 E12.07748
G1 X50.31 Y31.52 E12.15217
G1 X48.64 Y31.66 E12.24142
G1 X48.41 Y31.73 E12.25430
G1 X47.54 Y31.95 E12.30218
G1 X46.10 Y32.67 E12.38817
G1 X45.50 Y33.27 E12.43347
G1 X45.50 Y33.27 E12.43358
G1 X45.45 Y33.33 E12.43781
G1 X45.45 Y33.53 E12.44849
G1 X44.84 Y34.13 E12.49379
G1 X44.84 Y34.33 E12.50446
G0 F6000 X44.42 Y34.15
G1 F2700 X44.22 Y34.35 E12.51956
G1 X44.22 Y34.55 E12.53024
G1 X43.82 Y34.95 E12.56043
G1 X43.82 Y35.15 E12.57111
G1 X43.62 Y35.35 E12.58621
G1 X43.62 Y35.55 E12.59689
G1 X43.22 Y35.95 E12.62708
G1 X43.22 Y36.55 E12.65911
G1 X43.02 Y36.75 E12.67421
G1 X43.02 Y37.35 E12.70624
G1 X42.82 Y37.55 E12.72134
G1 X42.82 Y37.95 E12.74269
G1 X42.62 Y38.15 E12.75779
G1 X42.62 Y39.16 E12.81150
G1 X42.82 Y39.35 E12.82659
G1 X42.82 Y39.76 E12.84795
G1 X43.02 Y39.95 E12.86305
G1 X43.02 Y40.55 E12.89508
G1 X43.22 Y40.76 E12.91018
G1 X43.22 Y41.35 E12.94220
G1 X43.62 Y41.76 E12.97240
G1 X43.62 Y41.95 E12.98308
G1 X43.82 Y42.16 E12.99818
G1 X43.82 Y42.35 E13.00885
G1 X44.22 Y42.76 E13.03905
G1 X44.22 Y42.95 E13.04973
G1 X44.42 Y43.16 E13.06483
G1 X44.42 Y43.35 E13.07550
G1 X45.22 Y44.16 E13.13590
G1 X45.22 Y44.35 E13.14658
G1 X45.65 Y44.79 E13.17919
G1 X47.15 Y45.54 E13.26855
G1 X48.83 Y46.09 E13.36300
G1 X50.28 Y46.22 E13.44110
G1 X51.62 Y46.23 E13.51237
G1 X52.51 Y45.94 E13.56258
G1 X52.91 Y45.73 E13.58669
G1 X53.51 Y45.53 E13.62038
G1 X54.61 Y44.99 E13.68592
G1 X55.04 Y44.56 E13.71838
G1 X55.04 Y44.35 E13.72911
G1 X55.64 Y43.76 E13.77440
G1 X55.64 Y43.55 E13.78508
G1 X56.04 Y43.16 E13.81528
G1 X56.04 Y42.95 E13.82596
G1 X56.24 Y42.76 E13.84105
G1 X56.24 Y42.55 E13.85173
G1 X56.64 Y42.16 E13.88193
G1 X56.64 Y41.95 E13.89261
G1 X56.84 Y41.76 E13.90770
G1 X56.84 Y41.55 E13.91838
G1 X57.04 Y41.35 E13.93348
G1 X57.04 Y40.95 E13.95483
G1 X57.24 Y40.76 E13.96993
G1 X57.24 Y40.16 E14.00196
G1 X57.44 Y39.95 E14.01706
G1 X57.44 Y39.35 E14.04909
G1 X57.64 Y39.16 E14.06419
G1 X57.64 Y38.15 E14.11789
G1 X57.44 Y37.95 E14.13299
G1 X57.44 Y37.35 E14.16502
G1 X57.24 Y37.15 E14.18012
G1 X57.24 Y36.55 E14.21215
G1 X57.04 Y36.35 E14.22725
G1 X57.04 Y35.95 E14.24860
G1 X56.84 Y35.75 E14.26370
G1 X56.84 Y35.55 E14.27437
G1 X56.64 Y35.35 E14.28947
G1 X56.64 Y35.15 E14.30015
G1 X56.24 Y34.75 E14.33035
G1 X56.24 Y34.55 E14.34102
G1 X56.04 Y34.35 E14.35612
G1 X56.04 Y34.15 E14.36680
G1 X55.64 Y33.75 E14.39700
G1 X55.64 Y33.55 E14.40767
G1 X55.24 Y33.15 E14.43787
G1 X55.24 Y32.95 E14.44855
G1 X54.84 Y32.55 E14.47875
G1 X54.61 Y32.32 E14.49622
G1 X54.21 Y32.12 E14.52014
G1 X54.01 Y31.92 E14.53521
G1 X52.91 Y31.37 E14.60079
G1 X52.77 Y31.32 E14.60889
G1 X51.76 Y31.07 E14.66430
G1 X50.30 Y31.09 E14.74246
G1 X48.55 Y31.23 E14.83572
G1 X48.29 Y31.32 E14.85041
G1 X47.39 Y31.55 E14.90005
G1 X45.85 Y32.32 E14.99220
G1 X45.02 Y33.15 E15.05494
G1 X45.02 Y33.35 E15.06561
G1 X44.42 Y33.95 E15.11091
G1 X44.42 Y34.15 E15.12158
G0 F6000 X43.99 Y33.97
G1 F2700 X43.79 Y34.17 E15.13668
G1 X43.79 Y34.37 E15.14736
G1 X43.39 Y34.77 E15.17756
G1 X43.39 Y34.97 E15.18823
G1 X43.19 Y35.17 E15.20333
G1 X43.19 Y35.37 E15.21401
G1 X42.79 Y35.77 E15.24421
G1 X42.79 Y36.37 E15.27624
G1 X42.59 Y36.57 E15.29134
G1 X42.59 Y37.17 E15.32337
G1 X42.39 Y37.37 E15.33846
G1 X42.39 Y37.77 E15.35982
G1 X42.19 Y37.97 E15.37492
G1 X42.19 Y39.33 E15.44752
G1 X42.39 Y39.53 E15.46261
G1 X42.39 Y39.93 E15.48397
G1 X42.59 Y40.13 E15.49907
G1 X42.59 Y40.73 E15.53110
G1 X42.79 Y40.93 E15.54620
G1 X42.79 Y41.53 E15.57822
G1 X43.19 Y41.93 E15.60842
G1 X43.19 Y42.13 E15.61910
G1 X43.39 Y42.33 E15.63420
G1 X43.39 Y42.53 E15.64487
G1 X43.79 Y42.93 E15.67507
G1 X43.79 Y43.13 E15.68575
G1 X43.99 Y43.33 E15.70085
G1 X43.99 Y43.53 E15.71152
G1 X44.79 Y44.33 E15.77192
G1 X44.79 Y44.53 E15.78260
G1 X45.12 Y44.86 E15.80751
G1 X45.39 Y45.14 E15.82831
G1 X46.98 Y45.93 E15.92308
G1 X48.73 Y46.52 E16.02167
G1 X50.27 Y46.64 E16.10389
G1 X51.68 Y46.66 E16.17944
G1 X52.68 Y46.33 E16.23526
G1 X53.08 Y46.13 E16.25925
G1 X53.68 Y45.93 E16.29295
G1 X54.86 Y45.34 E16.36369
G1 X55.47 Y44.73 E16.40951
G1 X55.47 Y44.53 E16.42019
G1 X56.07 Y43.93 E16.46548
G1 X56.07 Y43.73 E16.47616
G1 X56.47 Y43.33 E16.50636
G1 X56.47 Y43.13 E16.51703
G1 X56.67 Y42.93 E16.53213
G1 X56.67 Y42.73 E16.54281
G1 X57.07 Y42.33 E16.57301
G1 X57.07 Y42.13 E16.58368
G1 X57.27 Y41.93 E16.59878
G1 X57.27 Y41.73 E16.60946
G1 X57.47 Y41.53 E16.62456
G1 X57.47 Y41.13 E16.64591
G1 X57.67 Y40.93 E16.66101
G1 X57.67 Y40.33 E16.69304
G1 X57.87 Y40.13 E16.70814
G1 X57.87 Y39.53 E16.74017
G1 X58.07 Y39.33 E16.75527
G1 X58.07 Y37.97 E16.82787
G1 X57.87 Y37.77 E16.84297
G1 X57.87 Y37.17 E16.87500
G1 X57.67 Y36.97 E16.89009
G1 X57.67 Y36.37 E16.92212
G1 X57.47 Y36.17 E16.93722
G1 X57.47 Y35.77 E16.95858
G1 X57.27 Y35.57 E16.97367
G1 X57.27 Y35.37 E16.98435
G1 X57.07 Y35.17 E16.99945
G1 X57.07 Y34.97 E17.01013
G1 X56.67 Y34.57 E17.04032
G1 X56.67 Y34.37 E17.05100
G1 X56.47 Y34.17 E17.06610
G1 X56.47 Y33.97 E17.07678
G1 X56.07 Y33.57 E17.10697
G1 X56.07 Y33.37 E17.11765
G1 X55.67 Y32.97 E17.14785
G1 X55.67 Y32.77 E17.15852
G1 X55.27 Y32.37 E17.18872
G1 X55.27 Y32.37 E17.18894
G1 X55.26 Y32.37 E17.18929
G1 X54.86 Y31.96 E17.21953
G1 X54.46 Y31.77 E17.24336
G1 X54.26 Y31.57 E17.25842
G1 X53.08 Y30.97 E17.32927
G1 X52.89 Y30.91 E17.33974
G1 X51.81 Y30.64 E17.39922
G1 X50.27 Y30.66 E17.48143
G1 X48.47 Y30.81 E17.57785
G1 X48.17 Y30.91 E17.59446
G1 X47.24 Y31.14 E17.64575
G1 X45.59 Y31.96 E17.74403
G1 X44.99 Y32.56 E17.78933
G1 X44.99 Y32.57 E17.78969
G1 X44.99 Y32.57 E17.78990
G1 X44.59 Y32.97 E17.82010
G1 X44.59 Y33.17 E17.83078
G1 X43.99 Y33.77 E17.87607
G1 X43.99 Y33.97 E17.88675
G0 F6000 X43.56 Y33.79
G1 F2700 X43.36 Y33.99 E17.90185
G1 X43.36 Y34.19 E17.91252
G1 X42.96 Y34.59 E17.94272
G1 X42.96 Y34.79 E17.95340
G1 X42.76 Y34.99 E17.96850
G1 X42.76 Y35.19 E17.97917
G1 X42.36 Y35.59 E18.00937
G1 X42.36 Y36.19 E18.04140
G1 X42.16 Y36.39 E18.05650
G1 X42.16 Y36.99 E18.08853
G1 X41.96 Y37.19 E18.10363
G1 X41.96 Y37.59 E18.12498
G1 X41.76 Y37.79 E18.14008
G1 X41.76 Y39.51 E18.23168
G1 X41.96 Y39.71 E18.24678
G1 X41.96 Y40.11 E18.26814
G1 X42.16 Y40.31 E18.28324
G1 X42.16 Y40.91 E18.31526
G1 X42.36 Y41.11 E18.33036
G1 X42.36 Y41.71 E18.36239
G1 X42.76 Y42.11 E18.39259
G1 X42.76 Y42.31 E18.40327
G1 X42.96 Y42.51 E18.41837
G1 X42.96 Y42.71 E18.42904
G1 X43.36 Y43.11 E18.45924
G1 X43.36 Y43.31 E18.46992
G1 X43.56 Y43.51 E18.48502
G1 X43.56 Y43.71 E18.49569
G1 X44.36 Y44.51 E18.55609
G1 X44.36 Y44.71 E18.56676
G1 X45.16 Y45.51 E18.62708
G1 X45.22 Y45.53 E18.63017
G1 X46.81 Y46.33 E18.72562
G1 X48.62 Y46.93 E18.82696
G1 X48.64 Y46.94 E18.82822
G1 X50.24 Y47.07 E18.91430
G1 X51.75 Y47.09 E18.99476
G1 X52.84 Y46.73 E19.05627
G1 X53.24 Y46.53 E19.08014
G1 X53.84 Y46.33 E19.11396
G1 X55.12 Y45.69 E19.18987
G1 X55.90 Y44.91 E19.24883
G1 X55.90 Y44.71 E19.25951
G1 X56.50 Y44.11 E19.30481
G1 X56.50 Y43.91 E19.31548
G1 X56.90 Y43.51 E19.34568
G1 X56.90 Y43.31 E19.35636
G1 X57.10 Y43.11 E19.37146
G1 X57.10 Y42.91 E19.38213
G1 X57.50 Y42.51 E19.41233
G1 X57.50 Y42.31 E19.42301
G1 X57.70 Y42.11 E19.43811
G1 X57.70 Y41.91 E19.44878
G1 X57.90 Y41.71 E19.46388
G1 X57.90 Y41.31 E19.48524
G1 X58.10 Y41.11 E19.50033
G1 X58.10 Y40.51 E19.53236
G1 X58.30 Y40.31 E19.54746
G1 X58.30 Y39.71 E19.57949
G1 X58.50 Y39.51 E19.59459
G1 X58.50 Y37.79 E19.68620
G1 X58.30 Y37.59 E19.70129
G1 X58.30 Y36.99 E19.73332
G1 X58.10 Y36.79 E19.74842
G1 X58.10 Y36.19 E19.78045
G1 X57.90 Y35.99 E19.79555
G1 X57.90 Y35.59 E19.81690
G1 X57.70 Y35.39 E19.83200
G1 X57.70 Y35.19 E19.84268
G1 X57.50 Y34.99 E19.85778
G1 X57.50 Y34.79 E19.86845
G1 X57.10 Y34.39 E19.89865
G1 X57.10 Y34.19 E19.90933
G1 X56.90 Y33.99 E19.92443
G1 X56.90 Y33.79 E19.93510
G1 X56.50 Y33.39 E19.96530
G1 X56.50 Y33.19 E19.97598
G1 X56.10 Y32.79 E20.00618
G1 X56.10 Y32.59 E20.01685
G1 X55.70 Y32.19 E20.04705
G1 X55.70 Y32.10 E20.05185
G1 X55.52 Y32.01 E20.06267
G1 X55.12 Y31.61 E20.09287
G1 X54.72 Y31.41 E20.11674
G1 X54.52 Y31.21 E20.13184
G1 X53.24 Y30.58 E20.20776
G1 X53.01 Y30.50 E20.22092
G1 X51.86 Y30.21 E20.28431
G1 X50.24 Y30.23 E20.37059
G1 X48.38 Y30.39 E20.47006
G1 X48.05 Y30.50 E20.48870
G1 X47.09 Y30.74 E20.54162
G1 X45.34 Y31.61 E20.64607
G1 X44.74 Y32.21 E20.69137
G1 X44.56 Y32.30 E20.70218
G1 X44.56 Y32.39 E20.70699
G1 X44.16 Y32.79 E20.73718
G1 X44.16 Y32.99 E20.74786
G1 X43.56 Y33.59 E20.79316
G1 X43.56 Y33.79 E20.80383
G0 F6000 X43.13 Y33.62
G1 F2700 X42.93 Y33.82 E20.81893
G1 X42.93 Y34.02 E20.82961
G1 X42.53 Y34.42 E20.85981
G1 X42.53 Y34.62 E20.87048
G1 X42.33 Y34.82 E20.88558
G1 X42.33 Y35.02 E20.89626
G1 X41.93 Y35.42 E20.92646
G1 X41.93 Y36.02 E20.95848
G1 X41.73 Y36.22 E20.97358
G1 X41.73 Y36.82 E21.00561
G1 X41.53 Y37.02 E21.02071
G1 X41.53 Y37.42 E21.04207
G1 X41.33 Y37.62 E21.05716
G1 X41.33 Y39.69 E21.16767
G1 X41.53 Y39.89 E21.18276
G1 X41.53 Y40.29 E21.20412
G1 X41.73 Y40.49 E21.21922
G1 X41.73 Y41.09 E21.25125
G1 X41.93 Y41.29 E21.26634
G1 X41.93 Y41.89 E21.29837
G1 X42.33 Y42.29 E21.32857
G1 X42.33 Y42.49 E21.33925
G1 X42.53 Y42.69 E21.35435
G1 X42.53 Y42.89 E21.36502
G1 X42.93 Y43.29 E21.39522
G1 X42.93 Y43.49 E21.40590
G1 X43.13 Y43.69 E21.42100
G1 X43.13 Y43.89 E21.43162
G1 X43.93 Y44.69 E21.49205
G1 X43.93 Y44.89 E21.50273
G1 X44.93 Y45.88 E21.57796
G1 X45.05 Y45.92 E21.58471
G1 X46.65 Y46.72 E21.68028
G1 X48.45 Y47.32 E21.78156
G1 X48.52 Y47.36 E21.78546
G1 X50.23 Y47.50 E21.87727
G1 X51.82 Y47.52 E21.96199
G1 X53.01 Y47.12 E22.02896
G1 X53.41 Y46.92 E22.05283
G1 X54.01 Y46.72 E22.08659
G1 X55.37 Y46.04 E22.16776
G1 X56.33 Y45.09 E22.24009
G1 X56.33 Y44.89 E22.25071
G1 X56.92 Y44.29 E22.29601
G1 X56.92 Y44.09 E22.30668
G1 X57.33 Y43.69 E22.33688
G1 X57.33 Y43.49 E22.34756
G1 X57.52 Y43.29 E22.36266
G1 X57.52 Y43.09 E22.37333
G1 X57.92 Y42.69 E22.40353
G1 X57.92 Y42.49 E22.41421
G1 X58.12 Y42.29 E22.42931
G1 X58.12 Y42.09 E22.43998
G1 X58.33 Y41.89 E22.45508
G1 X58.33 Y41.49 E22.47644
G1 X58.52 Y41.29 E22.49153
G1 X58.52 Y40.69 E22.52356
G1 X58.73 Y40.49 E22.53866
G1 X58.73 Y39.89 E22.57069
G1 X58.92 Y39.69 E22.58579
G1 X58.92 Y38.69 E22.63917
G1 X58.96 Y38.65 E22.64182
G1 X58.92 Y38.62 E22.64446
G1 X58.92 Y37.62 E22.69784
G1 X58.73 Y37.42 E22.71294
G1 X58.73 Y36.82 E22.74497
G1 X58.52 Y36.62 E22.76007
G1 X58.52 Y36.02 E22.79210
G1 X58.33 Y35.82 E22.80720
G1 X58.33 Y35.42 E22.82855
G1 X58.12 Y35.22 E22.84365
G1 X58.12 Y35.02 E22.85432
G1 X57.92 Y34.82 E22.86942
G1 X57.92 Y34.62 E22.88010
G1 X57.52 Y34.22 E22.91030
G1 X57.52 Y34.02 E22.92097
G1 X57.33 Y33.82 E22.93607
G1 X57.33 Y33.62 E22.94675
G1 X56.92 Y33.22 E22.97695
G1 X56.92 Y33.02 E22.98762
G1 X56.52 Y32.62 E23.01782
G1 X56.52 Y32.42 E23.02850
G1 X56.12 Y32.02 E23.05870
G1 X56.12 Y31.84 E23.06820
G1 X55.77 Y31.66 E23.08937
G1 X55.37 Y31.26 E23.11968
G1 X54.97 Y31.06 E23.14344
G1 X54.77 Y30.86 E23.15865
G1 X53.41 Y30.18 E23.23989
G1 X53.13 Y30.09 E23.25525
G1 X51.91 Y29.78 E23.32277
G1 X50.23 Y29.80 E23.41230
G1 X48.30 Y29.97 E23.51585
G1 X47.94 Y30.09 E23.53622
G1 X46.94 Y30.33 E23.59080
G1 X45.09 Y31.26 E23.70138
G1 X44.49 Y31.86 E23.74683
G1 X44.13 Y32.04 E23.76800
G1 X44.13 Y32.22 E23.77750
G1 X43.73 Y32.62 E23.80770
G1 X43.73 Y32.82 E23.81838
G1 X43.13 Y33.42 E23.86367
G1 X43.13 Y33.62 E23.87435
G0 F6000 X42.70 Y33.44
G1 F2700 X42.51 Y33.64 E23.88945
G1 X42.51 Y33.84 E23.90013
G1 X42.10 Y34.24 E23.93032
G1 X42.10 Y34.44 E23.94100
G1 X41.91 Y34.64 E23.95610
G1 X41.91 Y34.84 E23.96678
G1 X41.51 Y35.24 E23.99697
G1 X41.51 Y35.84 E24.02900
G1 X41.30 Y36.04 E24.04410
G1 X41.30 Y36.64 E24.07613
G1 X41.10 Y36.84 E24.09123
G1 X41.10 Y37.24 E24.11258
G1 X40.91 Y37.44 E24.12768
G1 X40.91 Y39.86 E24.25708
G1 X41.10 Y40.06 E24.27218
G1 X41.10 Y40.46 E24.29353
G1 X41.30 Y40.66 E24.30863
G1 X41.30 Y41.26 E24.34066
G1 X41.51 Y41.46 E24.35576
G1 X41.51 Y42.06 E24.38779
G1 X41.91 Y42.46 E24.41799
G1 X41.91 Y42.66 E24.42866
G1 X42.10 Y42.86 E24.44376
G1 X42.10 Y43.06 E24.45444
G1 X42.51 Y43.46 E24.48464
G1 X42.51 Y43.66 E24.49531
G1 X42.70 Y43.86 E24.51041
G1 X42.70 Y44.06 E24.52109
G1 X43.51 Y44.86 E24.58148
G1 X43.51 Y45.06 E24.59216
G1 X44.10 Y45.66 E24.63746
G1 X44.10 Y45.66 E24.63751
G1 X44.70 Y46.26 E24.68224
G1 X44.89 Y46.32 E24.69283
G1 X46.49 Y47.12 E24.78849
G1 X48.29 Y47.72 E24.88965
G1 X48.40 Y47.78 E24.89646
G1 X50.20 Y47.93 E24.99304
G1 X51.88 Y47.95 E25.08268
G1 X53.17 Y47.52 E25.15505
G1 X53.57 Y47.32 E25.17904
G1 X54.17 Y47.12 E25.21268
G1 X55.62 Y46.39 E25.29946
G1 X56.75 Y45.26 E25.38477
G1 X56.75 Y45.06 E25.39545
G1 X57.35 Y44.46 E25.44074
G1 X57.35 Y44.26 E25.45142
G1 X57.75 Y43.86 E25.48162
G1 X57.75 Y43.66 E25.49230
G1 X57.95 Y43.46 E25.50739
G1 X57.95 Y43.26 E25.51807
G1 X58.35 Y42.86 E25.54827
G1 X58.35 Y42.66 E25.55894
G1 X58.55 Y42.46 E25.57404
G1 X58.55 Y42.26 E25.58472
G1 X58.75 Y42.06 E25.59982
G1 X58.75 Y41.66 E25.62117
G1 X58.95 Y41.46 E25.63627
G1 X58.95 Y40.86 E25.66830
G1 X59.15 Y40.66 E25.68340
G1 X59.15 Y40.06 E25.71543
G1 X59.35 Y39.86 E25.73053
G1 X59.35 Y38.86 E25.78391
G1 X59.55 Y38.66 E25.79901
G1 X59.55 Y38.64 E25.80029
G1 X59.35 Y38.44 E25.81539
G1 X59.35 Y37.44 E25.86877
G1 X59.15 Y37.24 E25.88387
G1 X59.15 Y36.64 E25.91590
G1 X58.95 Y36.44 E25.93100
G1 X58.95 Y35.84 E25.96303
G1 X58.75 Y35.64 E25.97813
G1 X58.75 Y35.24 E25.99948
G1 X58.55 Y35.04 E26.01458
G1 X58.55 Y34.84 E26.02526
G1 X58.35 Y34.64 E26.04035
G1 X58.35 Y34.44 E26.05103
G1 X57.95 Y34.04 E26.08123
G1 X57.95 Y33.84 E26.09191
G1 X57.75 Y33.64 E26.10700
G1 X57.75 Y33.44 E26.11768
G1 X57.35 Y33.04 E26.14788
G1 X57.35 Y32.84 E26.15855
G1 X56.95 Y32.44 E26.18875
G1 X56.95 Y32.24 E26.19943
G1 X56.55 Y31.84 E26.22963
G1 X56.55 Y31.64 E26.24030
G1 X56.42 Y31.51 E26.25012
G1 X56.02 Y31.31 E26.27399
G1 X55.62 Y30.91 E26.30419
G1 X55.22 Y30.71 E26.32806
G1 X55.02 Y30.51 E26.34316
G1 X53.57 Y29.78 E26.42994
G1 X53.24 Y29.67 E26.44834
G1 X51.96 Y29.35 E26.51894
G1 X50.20 Y29.38 E26.61274
G1 X48.21 Y29.54 E26.71945
G1 X47.81 Y29.68 E26.74168
G1 X46.79 Y29.93 E26.79786
G1 X44.84 Y30.91 E26.91479
G1 X44.23 Y31.51 E26.96009
G1 X43.84 Y31.71 E26.98396
G1 X43.70 Y31.84 E26.99378
G1 X43.70 Y32.04 E27.00445
G1 X43.30 Y32.44 E27.03465
G1 X43.30 Y32.64 E27.04533
G1 X42.70 Y33.24 E27.09062
G1 X42.70 Y33.44 E27.10130
G0 F6000 X42.28 Y33.26
G1 F2700 X42.08 Y33.46 E27.11640
G1 X42.08 Y33.66 E27.12708
G1 X41.68 Y34.06 E27.15727
G1 X41.68 Y34.26 E27.16795
G1 X41.48 Y34.46 E27.18305
G1 X41.48 Y34.66 E27.19372
G1 X41.08 Y35.06 E27.22392
G1 X41.08 Y35.66 E27.25595
G1 X40.88 Y35.86 E27.27105
G1 X40.88 Y36.46 E27.30308
G1 X40.68 Y36.66 E27.31818
G1 X40.68 Y37.06 E27.33953
G1 X40.48 Y37.26 E27.35463
G1 X40.48 Y40.04 E27.50303
G1 X40.68 Y40.24 E27.51813
G1 X40.68 Y40.64 E27.53949
G1 X40.88 Y40.84 E27.55459
G1 X40.88 Y41.44 E27.58661
G1 X41.08 Y41.64 E27.60171
G1 X41.08 Y42.24 E27.63374
G1 X41.48 Y42.64 E27.66394
G1 X41.48 Y42.84 E27.67462
G1 X41.68 Y43.04 E27.68972
G1 X41.68 Y43.24 E27.70039
G1 X42.08 Y43.64 E27.73059
G1 X42.08 Y43.84 E27.74127
G1 X42.28 Y44.04 E27.75637
G1 X42.28 Y44.24 E27.76704
G1 X43.08 Y45.04 E27.82744
G1 X43.08 Y45.24 E27.83811
G1 X44.47 Y46.63 E27.94298
G1 X44.72 Y46.72 E27.95738
G1 X46.32 Y47.52 E28.05299
G1 X48.12 Y48.12 E28.15422
G1 X48.28 Y48.20 E28.16365
G1 X50.19 Y48.35 E28.26591
G1 X51.95 Y48.38 E28.35982
G1 X53.34 Y47.92 E28.43781
G1 X53.73 Y47.72 E28.46169
G1 X54.33 Y47.52 E28.49540
G1 X55.88 Y46.74 E28.58755
G1 X57.18 Y45.44 E28.68592
G1 X57.18 Y45.24 E28.69659
G1 X57.78 Y44.64 E28.74189
G1 X57.78 Y44.44 E28.75257
G1 X58.18 Y44.04 E28.78277
G1 X58.18 Y43.84 E28.79344
G1 X58.38 Y43.64 E28.80854
G1 X58.38 Y43.44 E28.81922
G1 X58.78 Y43.04 E28.84941
G1 X58.78 Y42.84 E28.86009
G1 X58.98 Y42.64 E28.87519
G1 X58.98 Y42.44 E28.88587
G1 X59.18 Y42.24 E28.90097
G1 X59.18 Y41.84 E28.92232
G1 X59.38 Y41.64 E28.93742
G1 X59.38 Y41.04 E28.96945
G1 X59.58 Y40.84 E28.98455
G1 X59.58 Y40.24 E29.01658
G1 X59.78 Y40.04 E29.03167
G1 X59.78 Y39.04 E29.08506
G1 X59.98 Y38.84 E29.10016
G1 X59.98 Y38.46 E29.12044
G1 X59.78 Y38.26 E29.13554
G1 X59.78 Y37.26 E29.18892
G1 X59.58 Y37.06 E29.20402
G1 X59.58 Y36.46 E29.23605
G1 X59.38 Y36.26 E29.25115
G1 X59.38 Y35.66 E29.28318
G1 X59.18 Y35.46 E29.29828
G1 X59.18 Y35.06 E29.31963
G1 X58.98 Y34.86 E29.33473
G1 X58.98 Y34.66 E29.34541
G1 X58.78 Y34.46 E29.36051
G1 X58.78 Y34.26 E29.37118
G1 X58.38 Y33.86 E29.40138
G1 X58.38 Y33.66 E29.41206
G1 X58.18 Y33.46 E29.42715
G1 X58.18 Y33.26 E29.43783
G1 X57.78 Y32.86 E29.46803
G1 X57.78 Y32.66 E29.47871
G1 X57.38 Y32.26 E29.50890
G1 X57.38 Y32.06 E29.51958
G1 X56.98 Y31.66 E29.54978
G1 X56.98 Y31.46 E29.56045
G1 X56.68 Y31.16 E29.58333
G1 X56.28 Y30.96 E29.60727
G1 X55.88 Y30.56 E29.63740
G1 X55.48 Y30.36 E29.66134
G1 X55.28 Y30.16 E29.67636
G1 X53.73 Y29.39 E29.76852
G1 X53.36 Y29.26 E29.78945
G1 X52.01 Y28.93 E29.86395
G1 X50.19 Y28.95 E29.96100
G1 X48.12 Y29.12 E30.07173
G1 X47.70 Y29.26 E30.09582
G1 X46.60 Y29.54 E30.15596
G1 X46.58 Y29.56 E30.15754
G1 X44.58 Y30.56 E30.27698
G1 X43.98 Y31.16 E30.32220
G1 X43.58 Y31.36 E30.34615
G1 X43.28 Y31.66 E30.36902
G1 X43.28 Y31.86 E30.37970
G1 X42.88 Y32.26 E30.40989
G1 X42.88 Y32.46 E30.42057
G1 X42.28 Y33.06 E30.46587
G1 X42.28 Y33.26 E30.47654
G0 F6000 X41.85 Y33.09
G1 F2700 X41.65 Y33.28 E30.49164
G1 X41.65 Y33.48 E30.50232
G1 X41.25 Y33.89 E30.53256
G1 X41.25 Y34.09 E30.54318
G1 X41.05 Y34.28 E30.55828
G1 X41.05 Y34.48 E30.56895
G1 X40.65 Y34.89 E30.59919
G1 X40.65 Y35.48 E30.63117
G1 X40.45 Y35.69 E30.64626
G1 X40.45 Y36.28 E30.67829
G1 X40.25 Y36.48 E30.69339
G1 X40.25 Y36.88 E30.71475
G1 X40.05 Y37.09 E30.72984
G1 X40.05 Y40.22 E30.89715
G1 X40.25 Y40.42 E30.91224
G1 X40.25 Y40.82 E30.93360
G1 X40.45 Y41.02 E30.94870
G1 X40.45 Y41.62 E30.98073
G1 X40.65 Y41.82 E30.99582
G1 X40.65 Y42.42 E31.02780
G1 X41.05 Y42.82 E31.05804
G1 X41.05 Y43.02 E31.06871
G1 X41.25 Y43.22 E31.08381
G1 X41.25 Y43.42 E31.09443
G1 X41.65 Y43.82 E31.12467
G1 X41.65 Y44.02 E31.13535
G1 X41.85 Y44.22 E31.15045
G1 X41.85 Y44.42 E31.16107
G1 X42.65 Y45.22 E31.22150
G1 X42.65 Y45.42 E31.23212
G1 X42.93 Y45.70 E31.25311
G1 X42.93 Y45.70 E31.25317
G1 X44.24 Y47.01 E31.35210
G1 X44.56 Y47.11 E31.37016
G1 X46.16 Y47.91 E31.46582
G1 X47.96 Y48.51 E31.56699
G1 X48.16 Y48.62 E31.57929
G1 X50.16 Y48.78 E31.68637
G1 X52.02 Y48.81 E31.78524
G1 X53.50 Y48.31 E31.86858
G1 X53.90 Y48.11 E31.89257
G1 X54.50 Y47.91 E31.92622
G1 X56.13 Y47.10 E32.02362
G1 X57.61 Y45.62 E32.13535
G1 X57.61 Y45.42 E32.14598
G1 X58.21 Y44.82 E32.19131
G1 X58.21 Y44.62 E32.20193
G1 X58.61 Y44.22 E32.23217
G1 X58.61 Y44.02 E32.24279
G1 X58.81 Y43.82 E32.25789
G1 X58.81 Y43.62 E32.26857
G1 X59.21 Y43.22 E32.29880
G1 X59.21 Y43.02 E32.30943
G1 X59.41 Y42.82 E32.32453
G1 X59.41 Y42.62 E32.33520
G1 X59.61 Y42.42 E32.35030
G1 X59.61 Y42.02 E32.37165
G1 X59.81 Y41.82 E32.38675
G1 X59.81 Y41.22 E32.41878
G1 X60.01 Y41.02 E32.43388
G1 X60.01 Y40.42 E32.46591
G1 X60.21 Y40.22 E32.48101
G1 X60.21 Y39.22 E32.53439
G1 X60.41 Y39.02 E32.54949
G1 X60.41 Y38.28 E32.58867
G1 X60.21 Y38.09 E32.60377
G1 X60.21 Y37.09 E32.65715
G1 X60.01 Y36.88 E32.67225
G1 X60.01 Y36.28 E32.70428
G1 X59.81 Y36.09 E32.71938
G1 X59.81 Y35.48 E32.75141
G1 X59.61 Y35.28 E32.76651
G1 X59.61 Y34.88 E32.78786
G1 X59.41 Y34.69 E32.80296
G1 X59.41 Y34.48 E32.81364
G1 X59.21 Y34.28 E32.82874
G1 X59.21 Y34.09 E32.83936
G1 X58.81 Y33.69 E32.86960
G1 X58.81 Y33.48 E32.88027
G1 X58.61 Y33.28 E32.89537
G1 X58.61 Y33.09 E32.90599
G1 X58.21 Y32.69 E32.93623
G1 X58.21 Y32.49 E32.94685
G1 X57.81 Y32.09 E32.97709
G1 X57.81 Y31.89 E32.98771
G1 X57.41 Y31.48 E33.01795
G1 X57.41 Y31.29 E33.02857
G1 X56.93 Y30.81 E33.06481
G1 X56.53 Y30.61 E33.08863
G1 X56.13 Y30.21 E33.11887
G1 X55.73 Y30.01 E33.14269
G1 X55.53 Y29.81 E33.15779
G1 X53.90 Y28.99 E33.25524
G1 X53.49 Y28.85 E33.27820
G1 X52.06 Y28.50 E33.35700
G1 X50.16 Y28.52 E33.45806
G1 X48.04 Y28.70 E33.57194
G1 X47.58 Y28.85 E33.59801
G1 X46.38 Y29.15 E33.66353
G1 X46.33 Y29.21 E33.66776
G1 X44.33 Y30.21 E33.78708
G1 X43.73 Y30.81 E33.83241
G1 X43.33 Y31.01 E33.85624
G1 X43.06 Y31.27 E33.87621
G1 X42.85 Y31.49 E33.89248
G1 X42.85 Y31.68 E33.90310
G1 X42.45 Y32.09 E33.93333
G1 X42.45 Y32.28 E33.94396
G1 X41.85 Y32.89 E33.98929
G1 X41.85 Y33.09 E33.99991
G0 F6000 X41.42 Y32.91
G1 F2700 X41.22 Y33.11 E34.01501
G1 X41.22 Y33.31 E34.02569
G1 X40.82 Y33.71 E34.05589
G1 X40.82 Y33.91 E34.06656
G1 X40.62 Y34.11 E34.08166
G1 X40.62 Y34.31 E34.09234
G1 X40.22 Y34.71 E34.12254
G1 X40.22 Y35.31 E34.15457
G1 X40.02 Y35.51 E34.16967
G1 X40.02 Y36.11 E34.20169
G1 X39.82 Y36.31 E34.21679
G1 X39.82 Y36.71 E34.23815
G1 X39.62 Y36.91 E34.25325
G1 X39.62 Y40.40 E34.43944
G1 X39.82 Y40.60 E34.45454
G1 X39.82 Y41.00 E34.47590
G1 X40.02 Y41.20 E34.49099
G1 X40.02 Y41.80 E34.52302
G1 X40.22 Y42.00 E34.53812
G1 X40.22 Y42.60 E34.57015
G1 X40.62 Y43.00 E34.60035
G1 X40.62 Y43.20 E34.61103
G1 X40.82 Y43.40 E34.62613
G1 X40.82 Y43.60 E34.63680
G1 X41.22 Y44.00 E34.66700
G1 X41.22 Y44.20 E34.67768
G1 X41.42 Y44.40 E34.69278
G1 X41.42 Y44.60 E34.70345
G1 X42.22 Y45.40 E34.76385
G1 X42.22 Y45.60 E34.77452
G1 X42.82 Y46.20 E34.81982
G1 X42.82 Y46.20 E34.81987
G1 X44.01 Y47.38 E34.90922
G1 X44.39 Y47.51 E34.93110
G1 X45.99 Y48.31 E35.02654
G1 X47.79 Y48.91 E35.12788
G1 X48.05 Y49.03 E35.14292
G1 X50.15 Y49.21 E35.25568
G1 X52.08 Y49.24 E35.35877
G1 X53.66 Y48.71 E35.44785
G1 X54.06 Y48.51 E35.47168
G1 X54.66 Y48.31 E35.50549
G1 X56.38 Y47.45 E35.60803
G1 X58.04 Y45.80 E35.73289
G1 X58.04 Y45.60 E35.74357
G1 X58.64 Y45.00 E35.78887
G1 X58.64 Y44.80 E35.79954
G1 X59.04 Y44.40 E35.82974
G1 X59.04 Y44.20 E35.84042
G1 X59.24 Y44.00 E35.85552
G1 X59.24 Y43.80 E35.86619
G1 X59.64 Y43.40 E35.89639
G1 X59.64 Y43.20 E35.90707
G1 X59.84 Y43.00 E35.92217
G1 X59.84 Y42.80 E35.93284
G1 X60.04 Y42.60 E35.94794
G1 X60.04 Y42.20 E35.96930
G1 X60.24 Y42.00 E35.98439
G1 X60.24 Y41.40 E36.01642
G1 X60.44 Y41.20 E36.03152
G1 X60.44 Y40.60 E36.06355
G1 X60.64 Y40.40 E36.07865
G1 X60.64 Y39.40 E36.13203
G1 X60.84 Y39.20 E36.14713
G1 X60.84 Y38.11 E36.20521
G1 X60.64 Y37.91 E36.22031
G1 X60.64 Y36.91 E36.27369
G1 X60.44 Y36.71 E36.28879
G1 X60.44 Y36.11 E36.32082
G1 X60.24 Y35.91 E36.33592
G1 X60.24 Y35.31 E36.36795
G1 X60.04 Y35.11 E36.38305
G1 X60.04 Y34.71 E36.40440
G1 X59.84 Y34.51 E36.41950
G1 X59.84 Y34.31 E36.43018
G1 X59.64 Y34.11 E36.44528
G1 X59.64 Y33.91 E36.45595
G1 X59.24 Y33.51 E36.48615
G1 X59.24 Y33.31 E36.49683
G1 X59.04 Y33.11 E36.51193
G1 X59.04 Y32.91 E36.52260
G1 X58.64 Y32.51 E36.55280
G1 X58.64 Y32.31 E36.56348
G1 X58.24 Y31.91 E36.59367
G1 X58.24 Y31.71 E36.60435
G1 X57.84 Y31.31 E36.63455
G1 X57.84 Y31.11 E36.64523
G1 X57.18 Y30.45 E36.69460
G1 X56.78 Y30.25 E36.71840
G1 X56.38 Y29.85 E36.74867
G1 X55.98 Y29.66 E36.77248
G1 X55.78 Y29.45 E36.78765
G1 X54.06 Y28.59 E36.89019
G1 X53.61 Y28.44 E36.91584
G1 X52.11 Y28.07 E36.99855
G1 X50.15 Y28.09 E37.10292
G1 X47.95 Y28.28 E37.22082
G1 X47.45 Y28.44 E37.24868
G1 X46.16 Y28.76 E37.31965
G1 X46.07 Y28.86 E37.32652
G1 X44.08 Y29.85 E37.44582
G1 X43.47 Y30.45 E37.49119
G1 X43.08 Y30.65 E37.51499
G1 X42.42 Y31.31 E37.56437
G1 X42.42 Y31.51 E37.57504
G1 X42.02 Y31.91 E37.60524
G1 X42.02 Y32.11 E37.61592
G1 X41.42 Y32.71 E37.66121
G1 X41.42 Y32.91 E37.67189
G0 F6000 X40.99 Y32.73
G1 F2700 X40.79 Y32.93 E37.68695
G1 X40.79 Y33.13 E37.69768
G1 X40.39 Y33.53 E37.72784
G1 X40.39 Y33.73 E37.73857
G1 X40.19 Y33.93 E37.75363
G1 X40.19 Y34.13 E37.76436
G1 X39.79 Y34.53 E37.79452
G1 X39.79 Y35.13 E37.82661
G1 X39.59 Y35.33 E37.84167
G1 X39.59 Y35.93 E37.87375
G1 X39.39 Y36.13 E37.88881
G1 X39.39 Y36.53 E37.91022
G1 X39.19 Y36.73 E37.92528
G1 X39.19 Y40.57 E38.13048
G1 X39.39 Y40.77 E38.14554
G1 X39.39 Y41.17 E38.16695
G1 X39.59 Y41.37 E38.18201
G1 X39.59 Y41.97 E38.21409
G1 X39.79 Y42.17 E38.22915
G1 X39.79 Y42.77 E38.26124
G1 X40.19 Y43.17 E38.29140
G1 X40.19 Y43.37 E38.30213
G1 X40.39 Y43.57 E38.31719
G1 X40.39 Y43.77 E38.32792
G1 X40.79 Y44.17 E38.35808
G1 X40.79 Y44.37 E38.36881
G1 X40.99 Y44.57 E38.38387
G1 X40.99 Y44.77 E38.39460
G1 X41.79 Y45.57 E38.45496
G1 X41.79 Y45.77 E38.46569
G1 X42.39 Y46.37 E38.51094
G1 X42.39 Y46.39 E38.51175
G1 X42.42 Y46.40 E38.51335
G1 X43.77 Y47.75 E38.61549
G1 X44.23 Y47.91 E38.64120
G1 X45.83 Y48.70 E38.73657
G1 X47.63 Y49.31 E38.83798
G1 X47.93 Y49.45 E38.85581
G1 X50.12 Y49.64 E38.97344
G1 X52.15 Y49.67 E39.08145
G1 X53.83 Y49.10 E39.17610
G1 X54.23 Y48.91 E39.19985
G1 X54.83 Y48.70 E39.23373
G1 X56.64 Y47.80 E39.34164
G1 X58.47 Y45.97 E39.47957
G1 X58.47 Y45.77 E39.49030
G1 X59.06 Y45.17 E39.53556
G1 X59.06 Y44.97 E39.54629
G1 X59.47 Y44.57 E39.57645
G1 X59.47 Y44.37 E39.58718
G1 X59.66 Y44.17 E39.60224
G1 X59.66 Y43.97 E39.61297
G1 X60.06 Y43.57 E39.64313
G1 X60.06 Y43.37 E39.65386
G1 X60.27 Y43.17 E39.66892
G1 X60.27 Y42.97 E39.67965
G1 X60.47 Y42.77 E39.69471
G1 X60.47 Y42.37 E39.71612
G1 X60.66 Y42.17 E39.73118
G1 X60.66 Y41.57 E39.76326
G1 X60.87 Y41.37 E39.77832
G1 X60.87 Y40.77 E39.81041
G1 X61.06 Y40.57 E39.82547
G1 X61.06 Y39.57 E39.87890
G1 X61.27 Y39.37 E39.89396
G1 X61.27 Y37.93 E39.97105
G1 X61.06 Y37.73 E39.98611
G1 X61.06 Y36.73 E40.03955
G1 X60.87 Y36.53 E40.05461
G1 X60.87 Y35.93 E40.08669
G1 X60.66 Y35.73 E40.10175
G1 X60.66 Y35.13 E40.13383
G1 X60.47 Y34.93 E40.14890
G1 X60.47 Y34.53 E40.17030
G1 X60.27 Y34.33 E40.18536
G1 X60.27 Y34.13 E40.19609
G1 X60.06 Y33.93 E40.21115
G1 X60.06 Y33.73 E40.22188
G1 X59.66 Y33.33 E40.25204
G1 X59.66 Y33.13 E40.26277
G1 X59.47 Y32.93 E40.27783
G1 X59.47 Y32.73 E40.28856
G1 X59.06 Y32.33 E40.31872
G1 X59.06 Y32.13 E40.32945
G1 X58.66 Y31.73 E40.35961
G1 X58.66 Y31.53 E40.37034
G1 X58.27 Y31.13 E40.40050
G1 X58.27 Y30.93 E40.41123
G1 X57.44 Y30.10 E40.47367
G1 X57.04 Y29.90 E40.49759
G1 X56.64 Y29.50 E40.52775
G1 X56.24 Y29.30 E40.55167
G1 X56.04 Y29.10 E40.56673
G1 X54.23 Y28.20 E40.67464
G1 X53.73 Y28.03 E40.70283
G1 X52.16 Y27.64 E40.78945
G1 X50.12 Y27.67 E40.89782
G1 X47.86 Y27.85 E41.01894
G1 X47.34 Y28.03 E41.04872
G1 X45.95 Y28.38 E41.12520
G1 X45.82 Y28.50 E41.13459
G1 X43.82 Y29.50 E41.25401
G1 X43.22 Y30.10 E41.29927
G1 X42.82 Y30.30 E41.32319
G1 X42.42 Y30.70 E41.35335
G1 X42.39 Y30.72 E41.35502
G1 X42.39 Y30.73 E41.35577
G1 X41.99 Y31.13 E41.38593
G1 X41.99 Y31.33 E41.39666
G1 X41.59 Y31.73 E41.42682
G1 X41.59 Y31.93 E41.43755
G1 X40.99 Y32.53 E41.48281
G1 X40.99 Y32.73 E41.49354
G0 F6000 X24.99 Y21.90
G1 F2700 X28.69 Y17.39 E41.80498
G1 X28.76 Y17.31 E41.81059
G1 X33.27 Y13.61 E42.12192
G1 X33.35 Y13.54 E42.12757
G1 X38.49 Y10.79 E42.43907
G1 X38.59 Y10.74 E42.44465
G1 X44.17 Y9.05 E42.75602
G1 X44.17 Y9.05 E42.75608
G1 X44.27 Y9.02 E42.76173
G1 X50.07 Y8.45 E43.07306
G1 X50.18 Y8.44 E43.07875
G1 X55.98 Y9.01 E43.39023
G1 X56.09 Y9.02 E43.39587
G1 X61.67 Y10.71 E43.70725
G1 X61.77 Y10.74 E43.71291
G1 X67.01 Y13.54 E44.02985
G1 X71.52 Y17.24 E44.34129
G1 X71.60 Y17.31 E44.34691
G1 X75.30 Y21.82 E44.65823
G1 X75.37 Y21.90 E44.66388
G1 X78.17 Y27.14 E44.98097
G1 X79.86 Y32.72 E45.29236
G1 X79.86 Y32.72 E45.29241
G1 X79.89 Y32.82 E45.29806
G1 X80.46 Y38.62 E45.60939
G1 X80.47 Y38.73 E45.61508
G1 X79.90 Y44.54 E45.92657
G1 X79.89 Y44.64 E45.93220
G1 X78.20 Y50.23 E46.24359
G1 X78.17 Y50.33 E46.24925
G1 X75.37 Y55.56 E46.56619
G1 X71.67 Y60.07 E46.87763
G1 X71.60 Y60.15 E46.88324
G1 X67.09 Y63.85 E47.19457
G1 X67.01 Y63.92 E47.20022
G1 X65.99 Y64.47 E47.26181
G1 X65.99 Y64.93 E47.28669
G1 X65.42 Y65.50 E47.32987
G1 X65.39 Y65.52 E47.33154
G1 X65.39 Y67.44 E47.43409
G1 X65.99 Y67.44 E47.46612
G1 X65.99 Y68.21 E47.50728
G1 X90.39 Y68.21 E48.80981
G1 X90.39 Y86.64 E49.79355
G1 X9.96 Y86.64 E54.08699
G1 X9.96 Y68.21 E55.07073
G1 X34.27 Y68.21 E56.36792
G1 X34.27 Y67.45 E56.40817
G1 X34.97 Y67.44 E56.44555
G1 X34.97 Y65.37 E56.55632
G1 X34.84 Y65.30 E56.56396
G1 X34.27 Y64.73 E56.60714
G1 X34.27 Y64.41 E56.62417
G1 X33.44 Y63.97 E56.67411
G1 X33.35 Y63.92 E56.67977
G1 X28.84 Y60.22 E56.99113
G1 X28.76 Y60.15 E56.99675
G1 X25.06 Y55.65 E57.30807
G1 X24.99 Y55.56 E57.31373
G1 X22.19 Y50.33 E57.63081
G1 X20.50 Y44.74 E57.94218
G1 X20.50 Y44.74 E57.94223
G1 X20.47 Y44.64 E57.94789
G1 X19.89 Y38.84 E58.25927
G1 X19.88 Y38.73 E58.26485
G1 X20.45 Y32.92 E58.57639
G1 X20.47 Y32.82 E58.58203
G1 X22.16 Y27.24 E58.89340
G1 X22.19 Y27.14 E58.89906
G1 X24.99 Y21.90 E59.21600
G0 F6000 X24.63 Y21.66
G1 F2700 X28.36 Y17.12 E59.52964
G1 X28.45 Y17.00 E59.53749
G1 X32.99 Y13.28 E59.85086
G1 X33.11 Y13.19 E59.85883
G1 X38.29 Y10.41 E60.17262
G1 X38.42 Y10.35 E60.18045
G1 X44.04 Y8.64 E60.49410
G1 X44.18 Y8.60 E60.50193
G1 X50.03 Y8.02 E60.81567
G1 X50.18 Y8.01 E60.82340
G1 X56.03 Y8.58 E61.13735
G1 X56.17 Y8.60 E61.14519
G1 X61.80 Y10.30 E61.45880
G1 X61.94 Y10.35 E61.46669
G1 X67.12 Y13.12 E61.78036
G1 X67.25 Y13.19 E61.78824
G1 X71.79 Y16.91 E62.10188
G1 X71.91 Y17.01 E62.10973
G1 X75.63 Y21.55 E62.42311
G1 X75.72 Y21.66 E62.43107
G1 X78.49 Y26.84 E62.74469
G1 X78.56 Y26.97 E62.75265
G1 X80.27 Y32.59 E63.06619
G1 X80.31 Y32.74 E63.07420
G1 X80.89 Y38.59 E63.38794
G1 X80.90 Y38.73 E63.39567
G1 X80.33 Y44.58 E63.70962
G1 X80.31 Y44.73 E63.71746
G1 X78.61 Y50.35 E64.03107
G1 X78.56 Y50.49 E64.03896
G1 X75.79 Y55.67 E64.35263
G1 X75.72 Y55.80 E64.36051
G1 X72.00 Y60.34 E64.67415
G1 X71.90 Y60.46 E64.68200
G1 X67.36 Y64.18 E64.99538
G1 X67.25 Y64.28 E65.00334
G1 X66.42 Y64.72 E65.05354
G1 X66.42 Y65.11 E65.07420
G1 X65.82 Y65.71 E65.11950
G1 X65.82 Y67.01 E65.18900
G1 X66.42 Y67.01 E65.22103
G1 X66.42 Y67.78 E65.26219
G1 X90.82 Y67.78 E66.56472
G1 X90.82 Y87.06 E67.59415
G1 X9.54 Y87.06 E71.93329
G1 X9.54 Y67.78 E72.96272
G1 X33.84 Y67.78 E74.25992
G1 X33.84 Y67.03 E74.29974
G1 X34.54 Y67.02 E74.33711
G1 X34.54 Y65.61 E74.41260
G1 X33.84 Y64.91 E74.46544
G1 X33.84 Y64.67 E74.47826
G1 X33.24 Y64.35 E74.51456
G1 X33.11 Y64.28 E74.52246
G1 X28.57 Y60.55 E74.83611
G1 X28.45 Y60.46 E74.84395
G1 X24.73 Y55.91 E75.15752
G1 X24.63 Y55.80 E75.16529
G1 X21.86 Y50.62 E75.47903
G1 X21.79 Y50.49 E75.48687
G1 X20.09 Y44.87 E75.80057
G1 X20.04 Y44.73 E75.80840
G1 X19.47 Y38.88 E76.12209
G1 X19.45 Y38.73 E76.12982
G1 X20.03 Y32.88 E76.44382
G1 X20.05 Y32.73 E76.45166
G1 X21.75 Y27.11 E76.76526
G1 X21.79 Y26.97 E76.77315
G1 X24.56 Y21.79 E77.08682
G1 X24.63 Y21.66 E77.09470
G0 F6000 X24.28 Y21.42
G1 F2700 X28.03 Y16.85 E77.41062
G1 X28.15 Y16.70 E77.42074
G1 X32.72 Y12.95 E77.73647
G1 X32.87 Y12.83 E77.74644
G1 X38.09 Y10.04 E78.06260
G1 X38.25 Y9.95 E78.07256
G1 X43.92 Y8.23 E78.38855
G1 X44.10 Y8.18 E78.39855
G1 X49.99 Y7.60 E78.71460
G1 X50.17 Y7.58 E78.72448
G1 X56.07 Y8.16 E79.04085
G1 X56.26 Y8.18 E79.05099
G1 X61.92 Y9.89 E79.36679
G1 X62.10 Y9.95 E79.37695
G1 X67.32 Y12.74 E79.69287
G1 X67.49 Y12.83 E79.70295
G1 X72.06 Y16.58 E80.01887
G1 X72.21 Y16.70 E80.02899
G1 X75.96 Y21.27 E80.34438
G1 X76.08 Y21.42 E80.35469
G1 X78.87 Y26.64 E80.67049
G1 X78.96 Y26.81 E80.68076
G1 X80.68 Y32.47 E80.99648
G1 X80.73 Y32.65 E81.00682
G1 X81.31 Y38.53 E81.32238
G1 X81.33 Y38.73 E81.33275
G1 X80.75 Y44.62 E81.64912
G1 X80.73 Y44.81 E81.65927
G1 X79.02 Y50.48 E81.97506
G1 X78.96 Y50.66 E81.98523
G1 X76.17 Y55.88 E82.30114
G1 X76.08 Y56.04 E82.31122
G1 X72.33 Y60.62 E82.62714
G1 X72.21 Y60.76 E82.63726
G1 X67.63 Y64.52 E82.95299
G1 X67.49 Y64.63 E82.96296
G1 X66.85 Y64.98 E83.00177
G1 X66.85 Y65.28 E83.01821
G1 X66.25 Y65.89 E83.06351
G1 X66.25 Y66.58 E83.10072
G1 X66.85 Y66.58 E83.13275
G1 X66.85 Y67.35 E83.17391
G1 X91.25 Y67.35 E84.47644
G1 X91.25 Y87.49 E85.55156
G1 X9.11 Y87.49 E89.93640
G1 X9.11 Y67.35 E91.01153
G1 X33.41 Y67.35 E92.30872
G1 X33.41 Y66.61 E92.34817
G1 X34.11 Y66.60 E92.38555
G1 X34.11 Y65.78 E92.42911
G1 X33.41 Y65.08 E92.48195
G1 X33.41 Y64.92 E92.49049
G1 X33.03 Y64.72 E92.51313
G1 X32.87 Y64.63 E92.52329
G1 X28.29 Y60.88 E92.83921
G1 X28.15 Y60.76 E92.84933
G1 X24.39 Y56.19 E93.16506
G1 X24.28 Y56.04 E93.17503
G1 X21.48 Y50.82 E93.49113
G1 X21.39 Y50.66 E93.50110
G1 X19.68 Y44.99 E93.81714
G1 X19.62 Y44.81 E93.82714
G1 X19.04 Y38.92 E94.14314
G1 X19.02 Y38.74 E94.15302
G1 X19.60 Y32.84 E94.46944
G1 X19.62 Y32.65 E94.47959
G1 X21.34 Y26.99 E94.79537
G1 X21.40 Y26.81 E94.80553
G1 X24.19 Y21.59 E95.12145
G1 X24.28 Y21.42 E95.13153
G0 F6000 X23.92 Y21.18
G1 F2700 X27.70 Y16.57 E95.44972
G1 X27.85 Y16.39 E95.46208
G1 X32.45 Y12.62 E95.78001
G1 X32.63 Y12.47 E95.79214
G1 X37.89 Y9.66 E96.11059
G1 X38.09 Y9.55 E96.12279
G1 X43.79 Y7.82 E96.44103
G1 X43.79 Y7.82 E96.44109
G1 X44.01 Y7.75 E96.45333
G1 X49.95 Y7.17 E96.77169
G1 X49.95 Y7.17 E96.77174
G1 X50.17 Y7.15 E96.78377
G1 X56.12 Y7.73 E97.10260
G1 X56.35 Y7.75 E97.11501
G1 X62.05 Y9.48 E97.43298
G1 X62.27 Y9.55 E97.44537
G1 X67.53 Y12.36 E97.76353
G1 X67.73 Y12.47 E97.77590
G1 X72.34 Y16.25 E98.09410
G1 X72.52 Y16.40 E98.10646
G1 X76.29 Y21.00 E98.42390
G1 X76.44 Y21.18 E98.43652
G1 X79.25 Y26.43 E98.75456
G1 X79.36 Y26.64 E98.76712
G1 X81.09 Y32.35 E99.08543
G1 X81.09 Y32.35 E99.08549
G1 X81.16 Y32.57 E99.09773
G1 X81.74 Y38.50 E99.41608
G1 X81.74 Y38.50 E99.41614
G1 X81.77 Y38.73 E99.42817
G1 X81.18 Y44.67 E99.74701
G1 X81.16 Y44.90 E99.75941
G1 X79.43 Y50.60 E100.07738
G1 X79.36 Y50.82 E100.08978
G1 X76.55 Y56.08 E100.40794
G1 X76.44 Y56.28 E100.42031
G1 X72.66 Y60.89 E100.73850
G1 X72.51 Y61.07 E100.75086
G1 X67.91 Y64.85 E101.06879
G1 X67.73 Y64.99 E101.08092
G1 X67.28 Y65.23 E101.10834
G1 X67.28 Y65.46 E101.12056
G1 X66.68 Y66.06 E101.16586
G1 X66.68 Y66.15 E101.17077
G1 X67.28 Y66.15 E101.20280
G1 X67.28 Y66.92 E101.24396
G1 X91.68 Y66.92 E102.54649
G1 X91.68 Y87.92 E103.66731
G1 X8.68 Y87.92 E108.09785
G1 X8.68 Y66.92 E109.21867
G1 X32.98 Y66.92 E110.51586
G1 X32.98 Y66.19 E110.55488
G1 X33.68 Y66.18 E110.59226
G1 X33.68 Y65.96 E110.60395
G1 X32.98 Y65.26 E110.65679
G1 X32.98 Y65.18 E110.66107
G1 X32.83 Y65.10 E110.67009
G1 X32.63 Y64.99 E110.68249
G1 X28.02 Y61.21 E111.00069
G1 X27.84 Y61.06 E111.01304
G1 X24.06 Y56.46 E111.33097
G1 X23.92 Y56.28 E111.34311
G1 X21.11 Y51.02 E111.66150
G1 X21.00 Y50.82 E111.67371
G1 X19.27 Y45.12 E111.99200
G1 X19.27 Y45.12 E111.99206
G1 X19.20 Y44.90 E112.00430
G1 X18.62 Y38.96 E112.32260
G1 X18.62 Y38.96 E112.32265
G1 X18.59 Y38.74 E112.33469
G1 X19.18 Y32.79 E112.65358
G1 X19.20 Y32.56 E112.66598
G1 X20.93 Y26.86 E112.98394
G1 X21.00 Y26.64 E112.99633
G1 X23.81 Y21.39 E113.31449
G1 X23.92 Y21.18 E113.32686
G0 F6000 X23.56 Y20.94
G1 F2700 X27.37 Y16.30 E113.64729
G1 X27.55 Y16.09 E113.66193
G1 X32.18 Y12.29 E113.98202
G1 X32.39 Y12.12 E113.99635
G1 X37.69 Y9.28 E114.31711
G1 X37.69 Y9.28 E114.31716
G1 X37.92 Y9.15 E114.33157
G1 X43.67 Y7.41 E114.65214
G1 X43.93 Y7.33 E114.66656
G1 X49.91 Y6.74 E114.98722
G1 X50.17 Y6.72 E115.00140
G1 X56.16 Y7.30 E115.32269
G1 X56.43 Y7.33 E115.33730
G1 X62.17 Y9.07 E115.65755
G1 X62.44 Y9.15 E115.67219
G1 X67.73 Y11.98 E115.99259
G1 X67.97 Y12.12 E116.00721
G1 X72.61 Y15.92 E116.32764
G1 X72.82 Y16.10 E116.34227
G1 X76.62 Y20.73 E116.66236
G1 X76.80 Y20.94 E116.67670
G1 X79.63 Y26.24 E116.99741
G1 X79.63 Y26.24 E116.99746
G1 X79.76 Y26.48 E117.01187
G1 X81.50 Y32.21 E117.33200
G1 X81.58 Y32.48 E117.34693
G1 X82.17 Y38.44 E117.66673
G1 X82.19 Y38.72 E117.68181
G1 X81.61 Y44.71 E118.00306
G1 X81.58 Y44.98 E118.01767
G1 X79.84 Y50.73 E118.33792
G1 X79.75 Y50.99 E118.35256
G1 X76.92 Y56.28 E118.67296
G1 X76.80 Y56.52 E118.68758
G1 X72.99 Y61.16 E119.00801
G1 X72.81 Y61.37 E119.02264
G1 X68.18 Y65.18 E119.34273
G1 X67.97 Y65.35 E119.35703
G1 X67.70 Y65.49 E119.37312
G1 X67.70 Y65.64 E119.38113
G1 X67.62 Y65.73 E119.38762
G1 X67.70 Y65.73 E119.39221
G1 X67.70 Y66.50 E119.43337
G1 X92.11 Y66.50 E120.73590
G1 X92.11 Y88.35 E121.90242
G1 X8.25 Y88.35 E126.37865
G1 X8.25 Y66.50 E127.54516
G1 X32.55 Y66.50 E128.84236
G1 X32.55 Y65.77 E128.88095
G1 X32.88 Y65.77 E128.89847
G1 X32.55 Y65.44 E128.92323
G1 X32.55 Y65.44 E128.92334
G1 X32.39 Y65.35 E128.93337
G1 X27.75 Y61.54 E129.25380
G1 X27.54 Y61.37 E129.26843
G1 X23.73 Y56.73 E129.58852
G1 X23.56 Y56.52 E129.60286
G1 X20.73 Y51.23 E129.92357
G1 X20.73 Y51.23 E129.92362
G1 X20.60 Y50.99 E129.93803
G1 X18.86 Y45.24 E130.25865
G1 X18.78 Y44.98 E130.27307
G1 X18.19 Y39.01 E130.59368
G1 X18.16 Y38.74 E130.60791
G1 X18.75 Y32.75 E130.92921
G1 X18.78 Y32.48 E130.94381
G1 X20.52 Y26.74 E131.26400
G1 X20.60 Y26.48 E131.27869
G1 X23.43 Y21.18 E131.59909
G1 X23.56 Y20.94 E131.61371
G0 F6000 X23.20 Y20.70
G1 F2700 X27.04 Y16.03 E131.93646
G1 X27.24 Y15.79 E131.95333
G1 X31.91 Y11.96 E132.27562
G1 X32.15 Y11.76 E132.29211
G1 X37.48 Y8.90 E132.61516
G1 X37.76 Y8.76 E132.63179
G1 X43.55 Y7.00 E132.95466
G1 X43.55 Y7.00 E132.95471
G1 X43.84 Y6.91 E132.97131
G1 X49.84 Y6.32 E133.29321
G1 X50.17 Y6.29 E133.31065
G1 X56.20 Y6.88 E133.63431
G1 X56.52 Y6.91 E133.65122
G1 X62.30 Y8.66 E133.97365
G1 X62.60 Y8.76 E133.99052
G1 X67.93 Y11.61 E134.31322
G1 X68.21 Y11.76 E134.33003
G1 X72.88 Y15.59 E134.65278
G1 X73.12 Y15.79 E134.66965
G1 X76.95 Y20.45 E134.99118
G1 X77.15 Y20.70 E135.00843
G1 X80.00 Y26.03 E135.33089
G1 X80.15 Y26.31 E135.34806
G1 X81.91 Y32.10 E135.67100
G1 X81.91 Y32.10 E135.67105
G1 X82.00 Y32.40 E135.68765
G1 X82.59 Y38.40 E136.00955
G1 X82.62 Y38.72 E136.02699
G1 X82.03 Y44.76 E136.35071
G1 X82.00 Y45.07 E136.36757
G1 X80.25 Y50.85 E136.69000
G1 X80.15 Y51.15 E136.70687
G1 X77.30 Y56.48 E137.02956
G1 X77.15 Y56.76 E137.04638
G1 X73.32 Y61.44 E137.36913
G1 X73.11 Y61.68 E137.38600
G1 X68.45 Y65.51 E137.70829
G1 X68.21 Y65.70 E137.72474
G1 X68.13 Y65.75 E137.72947
G1 X68.13 Y66.07 E137.74666
G1 X92.53 Y66.07 E139.04919
G1 X92.53 Y88.78 E140.26140
G1 X7.83 Y88.78 E144.78333
G1 X7.83 Y66.07 E145.99554
G1 X32.12 Y66.07 E147.29273
G1 X32.12 Y65.69 E147.31323
G1 X27.48 Y61.87 E147.63431
G1 X27.23 Y61.67 E147.65118
G1 X23.40 Y57.00 E147.97347
G1 X23.20 Y56.76 E147.98996
G1 X20.35 Y51.43 E148.31297
G1 X20.20 Y51.15 E148.32959
G1 X18.45 Y45.36 E148.65251
G1 X18.45 Y45.36 E148.65257
G1 X18.36 Y45.07 E148.66917
G1 X17.77 Y39.05 E148.99214
G1 X17.73 Y38.74 E149.00846
G1 X18.33 Y32.71 E149.33222
G1 X18.36 Y32.39 E149.34908
G1 X20.11 Y26.61 E149.67150
G1 X20.20 Y26.31 E149.68837
G1 X23.05 Y20.98 E150.01106
G1 X23.20 Y20.70 E150.02788
G0 F6000 X22.85 Y20.46
G1 F2700 X26.71 Y15.76 E150.35286
G1 X26.94 Y15.48 E150.37201
G1 X31.64 Y11.62 E150.69646
G1 X31.91 Y11.40 E150.71515
G1 X37.28 Y8.53 E151.04057
G1 X37.59 Y8.36 E151.05932
G1 X43.42 Y6.59 E151.38452
G1 X43.76 Y6.49 E151.40330
G1 X49.82 Y5.89 E151.72863
G1 X50.17 Y5.86 E151.74710
G1 X56.25 Y6.45 E152.07323
G1 X56.60 Y6.49 E152.09239
G1 X62.42 Y8.26 E152.41700
G1 X62.77 Y8.36 E152.43617
G1 X68.13 Y11.23 E152.76104
G1 X68.45 Y11.40 E152.78014
G1 X73.15 Y15.26 E153.10513
G1 X73.43 Y15.49 E153.12427
G1 X77.28 Y20.18 E153.44781
G1 X77.51 Y20.46 E153.46737
G1 X80.38 Y25.82 E153.79205
G1 X80.55 Y26.14 E153.81154
G1 X82.31 Y31.96 E154.13609
G1 X82.42 Y32.31 E154.15559
G1 X83.02 Y38.38 E154.48092
G1 X83.06 Y38.72 E154.49939
G1 X82.46 Y44.80 E154.82552
G1 X82.42 Y45.16 E154.84469
G1 X80.65 Y50.98 E155.16930
G1 X80.55 Y51.32 E155.18846
G1 X77.68 Y56.69 E155.51333
G1 X77.51 Y57.00 E155.53244
G1 X73.65 Y61.71 E155.85742
G1 X73.42 Y61.98 E155.87657
G1 X68.96 Y65.64 E156.18437
G1 X92.96 Y65.64 E157.46555
G1 X92.96 Y89.20 E158.72345
G1 X7.40 Y89.20 E163.29107
G1 X7.40 Y65.64 E164.54898
G1 X31.40 Y65.64 E165.83011
G1 X27.20 Y62.20 E166.11966
G1 X26.93 Y61.97 E166.13881
G1 X23.07 Y57.27 E166.46326
G1 X22.85 Y57.00 E166.48191
G1 X19.98 Y51.64 E166.80659
G1 X19.81 Y51.32 E166.82608
G1 X18.04 Y45.49 E167.15133
G1 X17.94 Y45.15 E167.17011
G1 X17.34 Y39.09 E167.49538
G1 X17.30 Y38.74 E167.51385
G1 X17.90 Y32.66 E167.84004
G1 X17.94 Y32.31 E167.85921
G1 X19.70 Y26.49 E168.18380
G1 X19.81 Y26.14 E168.20297
G1 X22.68 Y20.78 E168.52784
G1 X22.85 Y20.46 E168.54694
G0 F6000 X22.49 Y20.22
G1 F2700 X26.38 Y15.48 E168.87420
G1 X26.64 Y15.18 E168.89558
G1 X31.35 Y11.31 E169.22117
G1 X31.67 Y11.04 E169.24305
G1 X37.08 Y8.15 E169.57081
G1 X37.43 Y7.96 E169.59180
G1 X43.30 Y6.18 E169.91930
G1 X43.67 Y6.07 E169.94025
G1 X49.78 Y5.47 E170.26789
G1 X50.16 Y5.42 E170.28850
G1 X56.29 Y6.03 E170.61710
G1 X56.69 Y6.07 E170.63846
G1 X62.55 Y7.85 E170.96530
G1 X62.93 Y7.96 E170.98671
G1 X68.34 Y10.85 E171.31387
G1 X68.69 Y11.04 E171.33523
G1 X73.43 Y14.93 E171.66249
G1 X73.73 Y15.19 E171.68386
G1 X77.60 Y19.90 E172.00946
G1 X77.87 Y20.22 E172.03133
G1 X80.75 Y25.62 E172.35825
G1 X80.95 Y25.98 E172.37999
G1 X82.72 Y31.84 E172.70671
G1 X82.84 Y32.23 E172.72856
G1 X83.44 Y38.31 E173.05469
G1 X83.49 Y38.72 E173.07681
G1 X82.88 Y44.84 E173.40541
G1 X82.84 Y45.24 E173.42677
G1 X81.06 Y51.10 E173.75361
G1 X80.94 Y51.48 E173.77502
G1 X78.06 Y56.89 E174.10218
G1 X77.87 Y57.24 E174.12354
G1 X73.98 Y61.98 E174.45080
G1 X73.72 Y62.29 E174.47217
G1 X70.16 Y65.21 E174.71834
G1 X93.39 Y65.21 E175.95858
G1 X93.39 Y89.63 E177.26218
G1 X6.97 Y89.63 E181.87550
G1 X6.97 Y65.21 E183.17910
G1 X30.20 Y65.21 E184.41917
G1 X26.93 Y62.53 E184.64493
G1 X26.62 Y62.27 E184.66631
G1 X22.74 Y57.54 E184.99293
G1 X22.49 Y57.24 E185.01377
G1 X19.60 Y51.83 E185.34149
G1 X19.41 Y51.48 E185.36248
G1 X17.63 Y45.61 E185.69003
G1 X17.51 Y45.24 E185.71098
G1 X16.91 Y39.13 E186.03856
G1 X16.87 Y38.75 E186.05918
G1 X17.48 Y32.62 E186.38784
G1 X17.52 Y32.22 E186.40920
G1 X19.29 Y26.36 E186.73602
G1 X19.41 Y25.98 E186.75743
G1 X22.30 Y20.57 E187.08459
G1 X22.49 Y20.22 E187.10595
G0 F6000 X22.13 Y19.98
G1 F2700 X26.05 Y15.21 E187.43544
G1 X26.33 Y14.87 E187.45910
G1 X31.09 Y10.96 E187.78787
G1 X31.43 Y10.69 E187.81092
G1 X36.88 Y7.77 E188.14100
G1 X36.88 Y7.77 E188.14105
G1 X37.26 Y7.57 E188.16424
G1 X43.17 Y5.77 E188.49404
G1 X43.17 Y5.77 E188.49409
G1 X43.59 Y5.64 E188.51729
G1 X49.74 Y5.04 E188.84723
G1 X49.74 Y5.04 E188.84728
G1 X50.16 Y5.00 E188.87005
G1 X56.34 Y5.60 E189.20111
G1 X56.77 Y5.65 E189.22473
G1 X62.67 Y7.44 E189.55375
G1 X63.10 Y7.57 E189.57744
G1 X68.54 Y10.48 E189.90680
G1 X68.93 Y10.69 E189.93044
G1 X73.70 Y14.60 E190.25994
G1 X74.04 Y14.89 E190.28359
G1 X77.93 Y19.63 E190.61119
G1 X78.22 Y19.98 E190.63542
G1 X81.13 Y25.42 E190.96451
G1 X81.34 Y25.81 E190.98862
G1 X83.13 Y31.71 E191.31751
G1 X83.27 Y32.14 E191.34166
G1 X83.87 Y38.29 E191.67160
G1 X83.87 Y38.29 E191.67165
G1 X83.92 Y38.72 E191.69442
G1 X83.31 Y44.89 E192.02549
G1 X83.26 Y45.33 E192.04911
G1 X81.47 Y51.23 E192.37812
G1 X81.34 Y51.65 E192.40181
G1 X78.43 Y57.09 E192.73117
G1 X78.22 Y57.48 E192.75482
G1 X74.31 Y62.25 E193.08431
G1 X74.02 Y62.59 E193.10797
G1 X71.35 Y64.78 E193.29242
G1 X93.82 Y64.78 E194.49161
G1 X93.82 Y90.06 E195.84090
G1 X6.54 Y90.06 E200.49992
G1 X6.54 Y64.78 E201.84921
G1 X29.00 Y64.78 E203.04829
G1 X26.66 Y62.86 E203.21025
G1 X26.32 Y62.58 E203.23390
G1 X22.41 Y57.82 E203.56268
G1 X22.13 Y57.48 E203.58573
G1 X19.22 Y52.03 E203.91573
G1 X19.01 Y51.65 E203.93893
G1 X17.22 Y45.74 E204.26882
G1 X17.09 Y45.32 E204.29195
G1 X16.49 Y39.17 E204.62184
G1 X16.49 Y39.17 E204.62189
G1 X16.44 Y38.75 E204.64466
G1 X17.05 Y32.58 E204.97578
G1 X17.10 Y32.13 E204.99940
G1 X18.88 Y26.24 E205.32840
G1 X19.02 Y25.81 E205.35209
G1 X21.92 Y20.37 E205.68145
G1 X22.13 Y19.98 E205.70510
G0 F6000 X21.78 Y19.74
G1 F2700 X25.72 Y14.94 E206.03691
G1 X26.03 Y14.56 E206.06280
G1 X30.80 Y10.65 E206.39249
G1 X31.19 Y10.33 E206.41898
G1 X36.68 Y7.39 E206.75140
G1 X37.10 Y7.17 E206.77677
G1 X43.05 Y5.36 E207.10884
G1 X43.50 Y5.22 E207.13420
G1 X49.66 Y4.62 E207.46457
G1 X50.16 Y4.57 E207.49136
G1 X56.38 Y5.17 E207.82483
G1 X56.86 Y5.23 E207.85077
G1 X62.80 Y7.03 E208.18201
G1 X63.26 Y7.17 E208.20788
G1 X68.74 Y10.10 E208.53953
G1 X69.17 Y10.33 E208.56538
G1 X73.97 Y14.27 E208.89719
G1 X74.34 Y14.58 E208.92308
G1 X78.26 Y19.36 E209.25276
G1 X78.58 Y19.74 E209.27926
G1 X81.51 Y25.21 E209.61060
G1 X81.74 Y25.65 E209.63695
G1 X83.54 Y31.58 E209.96808
G1 X83.69 Y32.06 E209.99450
G1 X84.29 Y38.22 E210.32487
G1 X84.35 Y38.71 E210.35166
G1 X83.73 Y44.93 E210.68519
G1 X83.68 Y45.41 E210.71107
G1 X81.88 Y51.35 E211.04232
G1 X81.74 Y51.81 E211.06818
G1 X78.81 Y57.29 E211.39984
G1 X78.58 Y57.72 E211.42568
G1 X74.64 Y62.52 E211.75749
G1 X74.33 Y62.90 E211.78338
G1 X72.55 Y64.36 E211.90616
G1 X94.25 Y64.36 E213.06435
G1 X94.25 Y90.49 E214.45934
G1 X6.11 Y90.49 E219.16405
G1 X6.11 Y64.36 E220.55904
G1 X27.81 Y64.36 E221.71712
G1 X26.39 Y63.19 E221.81532
G1 X26.01 Y62.88 E221.84121
G1 X22.09 Y58.11 E222.17090
G1 X21.78 Y57.72 E222.19740
G1 X18.84 Y52.23 E222.52972
G1 X18.62 Y51.81 E222.55513
G1 X16.81 Y45.86 E222.88726
G1 X16.67 Y45.41 E222.91262
G1 X16.07 Y39.25 E223.24294
G1 X16.01 Y38.75 E223.26972
G1 X16.62 Y32.53 E223.60331
G1 X16.68 Y32.05 E223.62914
G1 X18.48 Y26.11 E223.96036
G1 X18.62 Y25.65 E223.98628
G1 X21.55 Y20.17 E224.31794
G1 X21.78 Y19.74 E224.34378
G0 F6000 X21.42 Y19.50
G1 F2700 X25.39 Y14.67 E224.67783
G1 X25.73 Y14.26 E224.70596
G1 X30.53 Y10.32 E225.03770
G1 X30.95 Y9.97 E225.06655
G1 X36.46 Y7.03 E225.40011
G1 X36.93 Y6.77 E225.42882
G1 X42.92 Y4.95 E225.76324
G1 X43.42 Y4.80 E225.79078
G1 X49.63 Y4.19 E226.12410
G1 X50.16 Y4.13 E226.15239
G1 X56.42 Y4.75 E226.48834
G1 X56.95 Y4.81 E226.51647
G1 X62.92 Y6.62 E226.84995
G1 X63.43 Y6.77 E226.87810
G1 X68.94 Y9.72 E227.21199
G1 X69.41 Y9.97 E227.24008
G1 X74.24 Y13.94 E227.57413
G1 X74.65 Y14.28 E227.60226
G1 X78.59 Y19.08 E227.93400
G1 X78.94 Y19.50 E227.96285
G1 X81.88 Y25.01 E228.29636
G1 X82.14 Y25.48 E228.32508
G1 X83.96 Y31.48 E228.65956
G1 X84.11 Y31.97 E228.68710
G1 X84.72 Y38.17 E229.01956
G1 X84.78 Y38.71 E229.04872
G1 X84.16 Y44.98 E229.38467
G1 X84.10 Y45.50 E229.41280
G1 X82.29 Y51.48 E229.74628
G1 X82.14 Y51.98 E229.77442
G1 X79.19 Y57.50 E230.10832
G1 X78.94 Y57.96 E230.13641
G1 X74.97 Y62.80 E230.47046
G1 X74.63 Y63.20 E230.49859
G1 X73.75 Y63.93 E230.55970
G1 X94.67 Y63.93 E231.67683
G1 X94.67 Y90.92 E233.11752
G1 X5.68 Y90.92 E237.86792
G1 X5.68 Y63.93 E239.30861
G1 X26.61 Y63.93 E240.42569
G1 X26.11 Y63.52 E240.46009
G1 X25.71 Y63.18 E240.48823
G1 X21.75 Y58.36 E240.82141
G1 X21.42 Y57.96 E240.84881
G1 X18.46 Y52.44 E241.18343
G1 X18.22 Y51.98 E241.21104
G1 X16.40 Y45.98 E241.54551
G1 X16.25 Y45.49 E241.57305
G1 X15.64 Y39.26 E241.90755
G1 X15.58 Y38.75 E241.93461
G1 X16.20 Y32.49 E242.27061
G1 X16.25 Y31.96 E242.29875
G1 X18.07 Y25.99 E242.63221
G1 X18.22 Y25.48 E242.66036
G1 X21.17 Y19.97 E242.99426
G1 X21.42 Y19.50 E243.02235
G0 F6000 X21.06 Y19.26
G1 F2700 X25.06 Y14.39 E243.35867
G1 X25.42 Y13.96 E243.38904
G1 X30.28 Y9.97 E243.72442
G1 X30.71 Y9.62 E243.75398
G1 X36.27 Y6.64 E244.09101
G1 X36.77 Y6.38 E244.12079
G1 X42.78 Y4.55 E244.45616
G1 X43.33 Y4.38 E244.48723
G1 X49.57 Y3.77 E244.82183
G1 X50.16 Y3.70 E244.85329
G1 X56.47 Y4.32 E245.19171
G1 X57.03 Y4.38 E245.22209
G1 X63.05 Y6.21 E245.55774
G1 X63.59 Y6.38 E245.58814
G1 X69.15 Y9.35 E245.92428
G1 X69.65 Y9.62 E245.95466
G1 X74.52 Y13.61 E246.29098
G1 X74.95 Y13.98 E246.32135
G1 X78.92 Y18.81 E246.65514
G1 X79.29 Y19.26 E246.68630
G1 X82.26 Y24.81 E247.02206
G1 X82.53 Y25.32 E247.05302
G1 X84.36 Y31.33 E247.38850
G1 X84.53 Y31.89 E247.41957
G1 X85.14 Y38.12 E247.75417
G1 X85.21 Y38.71 E247.78569
G1 X84.59 Y45.02 E248.12405
G1 X84.53 Y45.59 E248.15444
G1 X82.70 Y51.60 E248.49009
G1 X82.53 Y52.15 E248.52048
G1 X79.56 Y57.70 E248.85662
G1 X79.29 Y58.20 E248.88701
G1 X75.30 Y63.07 E249.22333
G1 X74.94 Y63.50 E249.25320
G1 X95.10 Y63.50 E250.32945
G1 X95.10 Y91.34 E251.81583
G1 X5.26 Y91.34 E256.61193
G1 X5.26 Y63.50 E258.09831
G1 X25.42 Y63.50 E259.17461
G1 X25.40 Y63.49 E259.17579
G1 X21.42 Y58.63 E259.51117
G1 X21.06 Y58.20 E259.54073
G1 X18.09 Y52.64 E259.87771
G1 X17.82 Y52.15 E259.90750
G1 X15.99 Y46.11 E260.24425
G1 X15.83 Y45.58 E260.27398
G1 X15.21 Y39.34 E260.60853
G1 X15.15 Y38.75 E260.64000
G1 X15.77 Y32.44 E260.97847
G1 X15.83 Y31.88 E261.00885
G1 X17.66 Y25.86 E261.34449
G1 X17.82 Y25.32 E261.37488
G1 X20.79 Y19.76 E261.71102
G1 X21.06 Y19.26 E261.74141
G0 F6000 X20.71 Y19.02
G1 F2700 X24.73 Y14.12 E262.08000
G1 X25.12 Y13.65 E262.11265
G1 X30.01 Y9.64 E262.45019
G1 X30.47 Y9.26 E262.48196
G1 X36.07 Y6.26 E262.82127
G1 X36.60 Y5.98 E262.85326
G1 X42.68 Y4.13 E263.19230
G1 X43.25 Y3.96 E263.22425
G1 X49.52 Y3.34 E263.56090
G1 X49.52 Y3.34 E263.56095
G1 X50.16 Y3.27 E263.59477
G1 X56.51 Y3.90 E263.93559
G1 X57.12 Y3.96 E263.96829
G1 X63.17 Y5.80 E264.30612
G1 X63.76 Y5.98 E264.33881
G1 X69.35 Y8.97 E264.67717
G1 X69.89 Y9.26 E264.70975
G1 X74.79 Y13.28 E265.04835
G1 X75.26 Y13.67 E265.08099
G1 X79.25 Y18.54 E265.41679
G1 X79.65 Y19.02 E265.45030
G1 X82.64 Y24.60 E265.78824
G1 X82.93 Y25.15 E265.82156
G1 X84.77 Y31.20 E266.15922
G1 X84.95 Y31.80 E266.19262
G1 X85.57 Y38.08 E266.52926
G1 X85.57 Y38.08 E266.52931
G1 X85.64 Y38.71 E266.56319
G1 X85.01 Y45.06 E266.90402
G1 X84.95 Y45.67 E266.93666
G1 X83.11 Y51.73 E267.27449
G1 X82.93 Y52.31 E267.30718
G1 X79.94 Y57.90 E267.64554
G1 X79.65 Y58.44 E267.67812
G1 X75.85 Y63.07 E267.99814
G1 X95.53 Y63.07 E269.04876
G1 X95.53 Y91.77 E270.58084
G1 X4.83 Y91.77 E275.42263
G1 X4.83 Y63.07 E276.95471
G1 X24.51 Y63.07 E278.00528
G1 X21.09 Y58.90 E278.29331
G1 X20.71 Y58.44 E278.32508
G1 X17.71 Y52.84 E278.66435
G1 X17.43 Y52.31 E278.69634
G1 X15.58 Y46.23 E279.03544
G1 X15.41 Y45.66 E279.06733
G1 X14.79 Y39.39 E279.40398
G1 X14.79 Y39.39 E279.40403
G1 X14.72 Y38.76 E279.43790
G1 X15.35 Y32.40 E279.77879
G1 X15.41 Y31.79 E279.81137
G1 X17.25 Y25.74 E280.14924
G1 X17.43 Y25.15 E280.18193
G1 X20.42 Y19.56 E280.52029
G1 X20.71 Y19.02 E280.55287
G0 F6000 X20.35 Y18.78
G1 F2700 X24.40 Y13.85 E280.89371
G1 X24.82 Y13.35 E280.92863
G1 X29.74 Y9.31 E281.26837
G1 X30.23 Y8.90 E281.30229
G1 X35.85 Y5.90 E281.64247
G1 X36.43 Y5.58 E281.67809
G1 X42.52 Y3.73 E282.01791
G1 X43.16 Y3.54 E282.05361
G1 X49.49 Y2.92 E282.39288
G1 X50.15 Y2.84 E282.42853
G1 X56.55 Y3.47 E282.77182
G1 X57.20 Y3.54 E282.80672
G1 X63.30 Y5.39 E283.14683
G1 X63.92 Y5.58 E283.18169
G1 X69.55 Y8.59 E283.52235
G1 X70.13 Y8.90 E283.55718
G1 X75.06 Y12.95 E283.89802
G1 X75.56 Y13.37 E283.93293
G1 X79.60 Y18.29 E284.27267
G1 X80.01 Y18.78 E284.30660
G1 X83.01 Y24.40 E284.64673
G1 X83.33 Y24.98 E284.68234
G1 X85.18 Y31.08 E285.02223
G1 X85.37 Y31.72 E285.05793
G1 X86.00 Y38.03 E285.39666
G1 X86.07 Y38.71 E285.43290
G1 X85.44 Y45.11 E285.77620
G1 X85.37 Y45.76 E285.81104
G1 X83.52 Y51.85 E286.15115
G1 X83.33 Y52.48 E286.18602
G1 X80.32 Y58.10 E286.52668
G1 X80.01 Y58.68 E286.56150
G1 X76.75 Y62.65 E286.83536
G1 X95.96 Y62.65 E287.86046
G1 X95.96 Y92.20 E289.43824
G1 X4.40 Y92.20 E294.32573
G1 X4.40 Y62.65 E295.90350
G1 X23.60 Y62.65 E296.92860
G1 X20.75 Y59.17 E297.16836
G1 X20.35 Y58.68 E297.20229
G1 X17.33 Y53.04 E297.54388
G1 X17.03 Y52.48 E297.57808
G1 X15.17 Y46.36 E297.91947
G1 X14.98 Y45.75 E297.95360
G1 X14.36 Y39.38 E298.29497
G1 X14.29 Y38.76 E298.32852
G1 X14.92 Y32.36 E298.67187
G1 X14.99 Y31.71 E298.70671
G1 X16.84 Y25.61 E299.04676
G1 X17.03 Y24.99 E299.08168
G1 X20.04 Y19.36 E299.42233
G1 X20.35 Y18.78 E299.45716
G0 F6000 X19.99 Y18.54
G1 F2700 X24.07 Y13.58 E299.80023
G1 X24.51 Y13.04 E299.83742
G1 X29.44 Y9.00 E300.17731
G1 X29.99 Y8.54 E300.21545
G1 X35.67 Y5.51 E300.55943
G1 X36.27 Y5.18 E300.59578
G1 X42.43 Y3.32 E300.93940
G1 X43.08 Y3.12 E300.97578
G1 X49.43 Y2.49 E301.31666
G1 X50.15 Y2.41 E301.35515
G1 X56.60 Y3.05 E301.70091
G1 X57.29 Y3.12 E301.73807
G1 X63.42 Y4.98 E302.08036
G1 X64.09 Y5.19 E302.11751
G1 X69.75 Y8.21 E302.46036
G1 X70.37 Y8.54 E302.49748
G1 X75.33 Y12.62 E302.84055
G1 X75.87 Y13.07 E302.87774
G1 X79.91 Y17.99 E303.21763
G1 X80.36 Y18.54 E303.25577
G1 X83.40 Y24.22 E303.59965
G1 X83.73 Y24.82 E303.63605
G1 X85.59 Y30.95 E303.97812
G1 X85.80 Y31.63 E304.01611
G1 X86.42 Y37.99 E304.35700
G1 X86.50 Y38.70 E304.39554
G1 X85.86 Y45.15 E304.74126
G1 X85.79 Y45.84 E304.77841
G1 X83.93 Y51.98 E305.12070
G1 X83.72 Y52.64 E305.15785
G1 X80.69 Y58.31 E305.50070
G1 X80.36 Y58.92 E305.53782
G1 X77.66 Y62.22 E305.76559
G1 X96.39 Y62.22 E306.76528
G1 X96.39 Y92.63 E308.38875
G1 X3.97 Y92.63 E313.32194
G1 X3.97 Y62.22 E314.94541
G1 X22.70 Y62.22 E315.94505
G1 X20.45 Y59.47 E316.13447
G1 X19.99 Y58.92 E316.17261
G1 X16.95 Y53.24 E316.51649
G1 X16.63 Y52.64 E316.55289
G1 X14.76 Y46.48 E316.89661
G1 X14.56 Y45.83 E316.93293
G1 X13.94 Y39.48 E317.27376
G1 X13.86 Y38.76 E317.31231
G1 X14.49 Y32.31 E317.65808
G1 X14.57 Y31.62 E317.69523
G1 X16.43 Y25.49 E318.03744
G1 X16.63 Y24.82 E318.07465
G1 X19.66 Y19.16 E318.41751
G1 X19.99 Y18.54 E318.45463
G0 F6000 X27.49 Y23.58
;TYPE:WALL-INNER
G1 F2700 X30.88 Y19.44 E318.74039
G1 X35.02 Y16.05 E319.02604
G1 X39.74 Y13.52 E319.31169
G1 X44.85 Y11.97 E319.59702
G1 X50.18 Y11.45 E319.88265
G1 X55.50 Y11.97 E320.16817
G1 X60.62 Y13.52 E320.45369
G1 X65.33 Y16.04 E320.73884
G1 X69.47 Y19.44 E321.02460
G1 X72.87 Y23.58 E321.31047
G1 X75.39 Y28.29 E321.59587
G1 X76.94 Y33.41 E321.88131
G1 X77.46 Y38.73 E322.16689
G1 X76.94 Y44.05 E322.45242
G1 X75.39 Y49.17 E322.73793
G1 X72.87 Y53.88 E323.02308
G1 X69.47 Y58.02 E323.30885
G1 X65.33 Y61.42 E323.59464
G1 X62.40 Y62.99 E323.77250
G1 X62.40 Y71.20 E324.21103
G1 X87.40 Y71.20 E325.54560
G1 X87.40 Y83.64 E326.20946
G1 X12.96 Y83.64 E330.18304
G1 X12.96 Y71.20 E330.84691
G1 X37.96 Y71.20 E332.18147
G1 X37.96 Y62.99 E332.62006
G1 X35.02 Y61.42 E332.79789
G1 X30.89 Y58.03 E333.08343
G1 X27.49 Y53.89 E333.36930
G1 X24.97 Y49.17 E333.65469
G1 X23.42 Y44.06 E333.94007
G1 X22.89 Y38.73 E334.22565
G1 X23.42 Y33.41 E334.51123
G1 X24.97 Y28.29 E334.79672
G1 X27.49 Y23.58 E335.08188
G0 F6000 X37.88 Y30.51
G1 F2700 X36.51 Y33.07 E335.23669
G1 X35.67 Y35.84 E335.39154
G1 X35.38 Y38.73 E335.54640
G1 X35.67 Y41.62 E335.70120
G1 X36.51 Y44.39 E335.85605
G1 X37.88 Y46.95 E336.01086
G1 X39.72 Y49.19 E336.16570
G1 X41.96 Y51.03 E336.32053
G1 X44.52 Y52.40 E336.47534
G1 X47.29 Y53.24 E336.63020
G1 X50.18 Y53.53 E336.78506
G1 X53.07 Y53.24 E336.93992
G1 X55.84 Y52.40 E337.09473
G1 X58.40 Y51.03 E337.24954
G1 X60.64 Y49.19 E337.40437
G1 X62.48 Y46.95 E337.55921
G1 X63.85 Y44.39 E337.71402
G1 X64.69 Y41.62 E337.86882
G1 X64.97 Y38.73 E338.02369
G1 X64.69 Y35.84 E338.17860
G1 X63.85 Y33.07 E338.33341
G1 X62.48 Y30.51 E338.48822
G1 X60.64 Y28.27 E338.64305
G1 X58.40 Y26.43 E338.79789
G1 X55.84 Y25.06 E338.95269
G1 X53.06 Y24.22 E339.10755
G1 X50.18 Y23.94 E339.26235
G1 X47.29 Y24.22 E339.41715
G1 X44.52 Y25.06 E339.57206
G1 X41.96 Y26.43 E339.72687
G1 X39.72 Y28.27 E339.88170
G1 X37.88 Y30.51 E340.03654
G0 F6000 X38.23 Y30.75
G1 F2700 X36.91 Y33.23 E340.18683
G1 X36.09 Y35.93 E340.33718
G1 X35.81 Y38.73 E340.48753
G1 X36.09 Y41.53 E340.63782
G1 X36.91 Y44.23 E340.78817
G1 X38.23 Y46.71 E340.93846
G1 X40.02 Y48.89 E341.08882
G1 X42.20 Y50.68 E341.23918
G1 X44.68 Y52.00 E341.38947
G1 X47.38 Y52.82 E341.53982
G1 X50.18 Y53.10 E341.69017
G1 X52.98 Y52.82 E341.84053
G1 X55.68 Y52.00 E341.99082
G1 X58.16 Y50.68 E342.14111
G1 X60.34 Y48.89 E342.29147
G1 X62.12 Y46.71 E342.44183
G1 X63.45 Y44.23 E342.59212
G1 X64.27 Y41.53 E342.74242
G1 X64.54 Y38.73 E342.89277
G1 X64.27 Y35.93 E343.04318
G1 X63.45 Y33.23 E343.19348
G1 X62.12 Y30.75 E343.34377
G1 X60.34 Y28.57 E343.49413
G1 X58.16 Y26.79 E343.64449
G1 X55.68 Y25.46 E343.79478
G1 X52.98 Y24.64 E343.94513
G1 X50.18 Y24.37 E344.09542
G1 X47.38 Y24.64 E344.24572
G1 X44.68 Y25.46 E344.39612
G1 X42.20 Y26.79 E344.54641
G1 X40.02 Y28.57 E344.69677
G1 X38.23 Y30.75 E344.84713
G0 F6000 X27.13 Y23.34
G1 F2700 X30.58 Y19.14 E345.13710
G1 X34.78 Y15.69 E345.42734
G1 X39.57 Y13.13 E345.71718
G1 X44.77 Y11.55 E346.00730
G1 X50.18 Y11.02 E346.29755
G1 X55.58 Y11.55 E346.58714
G1 X60.78 Y13.13 E346.87733
G1 X65.58 Y15.69 E347.16734
G1 X69.77 Y19.13 E347.45731
G1 X73.22 Y23.34 E347.74755
G1 X75.78 Y28.12 E348.03743
G1 X77.36 Y33.33 E348.32757
G1 X77.89 Y38.73 E348.61755
G1 X77.36 Y44.13 E348.90737
G1 X75.78 Y49.34 E349.19756
G1 X73.22 Y54.13 E349.48756
G1 X69.78 Y58.33 E349.77754
G1 X65.57 Y61.78 E350.06777
G1 X62.83 Y63.25 E350.23419
G1 X62.83 Y70.78 E350.63621
G1 X87.83 Y70.78 E351.97077
G1 X87.83 Y84.07 E352.68033
G1 X12.53 Y84.07 E356.69961
G1 X12.53 Y70.78 E357.40917
G1 X37.53 Y70.78 E358.74373
G1 X37.53 Y63.25 E359.14576
G1 X34.78 Y61.78 E359.31212
G1 X30.58 Y58.33 E359.60224
G1 X27.13 Y54.13 E359.89248
G1 X24.57 Y49.34 E360.18237
G1 X23.00 Y44.14 E360.47244
G1 X22.46 Y38.73 E360.76263
G1 X23.00 Y33.33 E361.05229
G1 X24.57 Y28.13 E361.34246
G1 X27.13 Y23.34 E361.63247
G0 F6000 X26.78 Y23.10
G1 F2700 X30.28 Y18.83 E361.92692
G1 X34.54 Y15.33 E362.22152
G1 X39.41 Y12.73 E362.51613
G1 X44.69 Y11.13 E362.81066
G1 X50.18 Y10.59 E363.10531
G1 X55.67 Y11.13 E363.39951
G1 X60.95 Y12.73 E363.69394
G1 X65.81 Y15.33 E363.98867
G1 X70.08 Y18.83 E364.28313
G1 X73.58 Y23.09 E364.57773
G1 X76.18 Y27.96 E364.87229
G1 X77.78 Y33.24 E365.16694
G1 X78.32 Y38.73 E365.46137
G1 X77.78 Y44.22 E365.75580
G1 X76.18 Y49.50 E366.05017
G1 X73.58 Y54.37 E366.34490
G1 X70.08 Y58.63 E366.63935
G1 X65.81 Y62.13 E366.93417
G1 X63.25 Y63.50 E367.08907
G1 X63.25 Y70.35 E367.45453
G1 X88.25 Y70.35 E368.78909
G1 X88.25 Y84.50 E369.54435
G1 X12.11 Y84.50 E373.60932
G1 X12.11 Y70.35 E374.36458
G1 X37.10 Y70.35 E375.69914
G1 X37.10 Y63.50 E376.06465
G1 X34.55 Y62.13 E376.21957
G1 X30.28 Y58.63 E376.51417
G1 X26.78 Y54.37 E376.80877
G1 X24.18 Y49.50 E377.10334
G1 X22.57 Y44.22 E377.39792
G1 X22.04 Y38.73 E377.69251
G1 X22.57 Y33.24 E377.98684
G1 X24.17 Y27.96 E378.28119
G1 X26.78 Y23.10 E378.57592
G0 F6000 X38.59 Y30.99
G1 F2700 X37.30 Y33.40 E378.72170
G1 X36.51 Y36.01 E378.86757
G1 X36.24 Y38.73 E379.01341
G1 X36.51 Y41.45 E379.15921
G1 X37.30 Y44.06 E379.30508
G1 X38.59 Y46.47 E379.45086
G1 X40.32 Y48.59 E379.59671
G1 X42.44 Y50.32 E379.74255
G1 X44.84 Y51.61 E379.88833
G1 X47.46 Y52.40 E380.03421
G1 X50.18 Y52.67 E380.18006
G1 X52.90 Y52.40 E380.32591
G1 X55.51 Y51.61 E380.47173
G1 X57.92 Y50.32 E380.61751
G1 X60.03 Y48.59 E380.76335
G1 X61.77 Y46.47 E380.90920
G1 X63.05 Y44.06 E381.05498
G1 X63.85 Y41.45 E381.20080
G1 X64.11 Y38.73 E381.34665
G1 X63.85 Y36.01 E381.49256
G1 X63.05 Y33.40 E381.63838
G1 X61.77 Y30.99 E381.78416
G1 X60.03 Y28.88 E381.93001
G1 X57.92 Y27.14 E382.07585
G1 X55.51 Y25.86 E382.22163
G1 X52.90 Y25.06 E382.36751
G1 X50.18 Y24.80 E382.51330
G1 X47.46 Y25.06 E382.65909
G1 X44.84 Y25.86 E382.80501
G1 X42.44 Y27.14 E382.95079
G1 X40.32 Y28.88 E383.09664
G1 X38.59 Y30.99 E383.24249
G0 F6000 X38.95 Y31.23
G1 F2700 X37.70 Y33.56 E383.38378
G1 X36.93 Y36.10 E383.52507
G1 X36.67 Y38.73 E383.66647
G1 X36.93 Y41.37 E383.80781
G1 X37.70 Y43.90 E383.94910
G1 X38.95 Y46.23 E384.09039
G1 X40.63 Y48.28 E384.23176
G1 X42.68 Y49.96 E384.37312
G1 X45.01 Y51.21 E384.51441
G1 X47.54 Y51.98 E384.65576
G1 X50.18 Y52.24 E384.79710
G1 X52.81 Y51.98 E384.93845
G1 X55.35 Y51.21 E385.07974
G1 X57.68 Y49.96 E385.22103
G1 X59.73 Y48.28 E385.36240
G1 X61.41 Y46.23 E385.50376
G1 X62.66 Y43.90 E385.64505
G1 X63.42 Y41.37 E385.78634
G1 X63.68 Y38.73 E385.92769
G1 X63.42 Y36.10 E386.06909
G1 X62.66 Y33.56 E386.21039
G1 X61.41 Y31.23 E386.35167
G1 X59.73 Y29.18 E386.49304
G1 X57.68 Y27.50 E386.63440
G1 X55.35 Y26.25 E386.77569
G1 X52.81 Y25.49 E386.91699
G1 X50.18 Y25.23 E387.05833
G1 X47.55 Y25.49 E387.19962
G1 X45.01 Y26.25 E387.34101
G1 X42.68 Y27.50 E387.48230
G1 X40.63 Y29.18 E387.62367
G1 X38.95 Y31.23 E387.76503
G0 F6000 X26.42 Y22.86
G1 F2700 X29.97 Y18.53 E388.06403
G1 X34.31 Y14.97 E388.36338
G1 X39.24 Y12.33 E388.66210
G1 X44.60 Y10.71 E388.96115
G1 X50.18 Y10.16 E389.26041
G1 X55.75 Y10.70 E389.55902
G1 X61.12 Y12.33 E389.85841
G1 X66.05 Y14.97 E390.15725
G1 X70.38 Y18.52 E390.45626
G1 X73.94 Y22.86 E390.75560
G1 X76.58 Y27.79 E391.05427
G1 X78.20 Y33.16 E391.35340
G1 X78.75 Y38.73 E391.65266
G1 X78.21 Y44.30 E391.95127
G1 X76.58 Y49.67 E392.25066
G1 X73.94 Y54.60 E392.54950
G1 X70.39 Y58.94 E392.84850
G1 X66.05 Y62.49 E393.14785
G1 X63.68 Y63.76 E393.29131
G1 X63.68 Y69.92 E393.62025
G1 X88.68 Y69.92 E394.95481
G1 X88.68 Y84.92 E395.75577
G1 X11.68 Y84.92 E399.86643
G1 X11.68 Y69.92 E400.66738
G1 X36.68 Y69.92 E402.00195
G1 X36.68 Y63.76 E402.33089
G1 X34.30 Y62.49 E402.47445
G1 X29.98 Y58.94 E402.77345
G1 X26.42 Y54.60 E403.07279
G1 X23.78 Y49.67 E403.37147
G1 X22.15 Y44.31 E403.67057
G1 X21.61 Y38.73 E403.96978
G1 X22.15 Y33.16 E404.26844
G1 X23.78 Y27.80 E404.56782
G1 X26.42 Y22.86 E404.86666
G0 F6000 X26.06 Y22.62
G1 F2700 X29.67 Y18.22 E405.17014
G1 X34.06 Y14.62 E405.47385
G1 X39.08 Y11.93 E405.77746
G1 X44.52 Y10.29 E406.08086
G1 X50.18 Y9.73 E406.38447
G1 X55.83 Y10.28 E406.68775
G1 X61.28 Y11.93 E406.99139
G1 X66.29 Y14.61 E407.29488
G1 X70.69 Y18.22 E407.59836
G1 X74.30 Y22.62 E407.90207
G1 X76.97 Y27.63 E408.20551
G1 X78.63 Y33.07 E408.50910
G1 X79.18 Y38.73 E408.81265
G1 X78.63 Y44.39 E409.11599
G1 X76.98 Y49.83 E409.41963
G1 X74.30 Y54.84 E409.72312
G1 X70.69 Y59.24 E410.02660
G1 X66.29 Y62.85 E410.33019
G1 X64.11 Y64.02 E410.46247
G1 X64.11 Y69.49 E410.75485
G1 X89.11 Y69.49 E412.08941
G1 X89.11 Y85.35 E412.93606
G1 X11.25 Y85.35 E417.09242
G1 X11.25 Y69.49 E417.93907
G1 X36.25 Y69.49 E419.27363
G1 X36.25 Y64.02 E419.56606
G1 X34.07 Y62.85 E419.69818
G1 X29.67 Y59.24 E420.00166
G1 X26.06 Y54.84 E420.30536
G1 X23.38 Y49.83 E420.60893
G1 X21.73 Y44.39 E420.91238
G1 X21.17 Y38.73 E421.21594
G1 X21.73 Y33.08 E421.51933
G1 X23.38 Y27.63 E421.82283
G1 X26.06 Y22.62 E422.12640
G0 F6000 X39.31 Y31.47
G1 F2700 X38.10 Y33.73 E422.26315
G1 X37.35 Y36.18 E422.40000
G1 X37.10 Y38.73 E422.53688
G1 X37.35 Y41.28 E422.67372
G1 X38.10 Y43.74 E422.81057
G1 X39.31 Y45.99 E422.94732
G1 X40.93 Y47.98 E423.08417
G1 X42.91 Y49.60 E423.22103
G1 X45.17 Y50.81 E423.35778
G1 X47.63 Y51.55 E423.49467
G1 X50.18 Y51.81 E423.63151
G1 X52.73 Y51.55 E423.76835
G1 X55.18 Y50.81 E423.90519
G1 X57.44 Y49.60 E424.04194
G1 X59.42 Y47.98 E424.17879
G1 X61.05 Y45.99 E424.31564
G1 X62.26 Y43.74 E424.45239
G1 X63.00 Y41.28 E424.58923
G1 X63.25 Y38.73 E424.72607
G1 X63.00 Y36.18 E424.86297
G1 X62.26 Y33.73 E424.99981
G1 X61.05 Y31.47 E425.13656
G1 X59.42 Y29.49 E425.27341
G1 X57.44 Y27.86 E425.41026
G1 X55.18 Y26.65 E425.54701
G1 X52.73 Y25.91 E425.68387
G1 X50.18 Y25.66 E425.82070
G1 X47.63 Y25.91 E425.95753
G1 X45.17 Y26.65 E426.09443
G1 X42.91 Y27.86 E426.23118
G1 X40.93 Y29.49 E426.36804
G1 X39.31 Y31.47 E426.50489
G0 F6000 X39.66 Y31.71
G1 F2700 X38.50 Y33.89 E426.63717
G1 X37.78 Y36.26 E426.76950
G1 X37.53 Y38.73 E426.90188
G1 X37.78 Y41.20 E427.03421
G1 X38.50 Y43.57 E427.16654
G1 X39.66 Y45.76 E427.29882
G1 X41.24 Y47.67 E427.43116
G1 X43.15 Y49.24 E427.56351
G1 X45.34 Y50.41 E427.69579
G1 X47.71 Y51.13 E427.82817
G1 X50.18 Y51.38 E427.96050
G1 X52.65 Y51.13 E428.09283
G1 X55.02 Y50.41 E428.22516
G1 X57.20 Y49.24 E428.35745
G1 X59.12 Y47.67 E428.48979
G1 X60.69 Y45.76 E428.62213
G1 X61.86 Y43.57 E428.75442
G1 X62.58 Y41.20 E428.88675
G1 X62.82 Y38.73 E429.01908
G1 X62.58 Y36.26 E429.15146
G1 X61.86 Y33.89 E429.28379
G1 X60.69 Y31.71 E429.41608
G1 X59.12 Y29.79 E429.54842
G1 X57.20 Y28.22 E429.68076
G1 X55.02 Y27.05 E429.81305
G1 X52.65 Y26.33 E429.94537
G1 X50.18 Y26.09 E430.07770
G1 X47.71 Y26.33 E430.21003
G1 X45.34 Y27.05 E430.34241
G1 X43.15 Y28.22 E430.47469
G1 X41.24 Y29.79 E430.60703
G1 X39.66 Y31.71 E430.73938
G0 F6000 X25.69 Y22.40
G1 F2700 X25.70 Y22.38 E430.74071
G1 X29.35 Y17.94 E431.04734
G1 X33.81 Y14.27 E431.35565
G1 X33.83 Y14.26 E431.35678
G1 X38.90 Y11.55 E431.66372
G1 X44.42 Y9.87 E431.97164
G1 X50.16 Y9.30 E432.27977
G1 X50.18 Y9.30 E432.28089
G1 X55.90 Y9.86 E432.58760
G1 X55.92 Y9.86 E432.58862
G1 X61.42 Y11.53 E432.89548
G1 X66.51 Y14.25 E433.20353
G1 X66.53 Y14.26 E433.20487
G1 X70.97 Y17.90 E433.51149
G1 X74.64 Y22.36 E433.81980
G1 X74.65 Y22.38 E433.82094
G1 X77.36 Y27.45 E434.12782
G1 X79.04 Y32.97 E434.43581
G1 X79.61 Y38.71 E434.74394
G1 X79.61 Y38.73 E434.74506
G1 X79.05 Y44.45 E435.05178
G1 X79.05 Y44.47 E435.05280
G1 X77.38 Y49.97 E435.35966
G1 X74.66 Y55.06 E435.66771
G1 X74.65 Y55.09 E435.66905
G1 X71.01 Y59.53 E435.97567
G1 X66.55 Y63.19 E436.28398
G1 X66.53 Y63.21 E436.28511
G1 X64.54 Y64.27 E436.40574
G1 X64.54 Y69.06 E436.66161
G1 X89.54 Y69.06 E437.99617
G1 X89.54 Y85.78 E438.88851
G1 X10.82 Y85.78 E443.09057
G1 X10.82 Y69.06 E443.98291
G1 X35.82 Y69.06 E445.31747
G1 X35.82 Y64.27 E445.57334
G1 X33.85 Y63.22 E445.69287
G1 X33.82 Y63.20 E445.69420
G1 X29.38 Y59.56 E446.00083
G1 X25.72 Y55.10 E446.30914
G1 X25.70 Y55.08 E446.31027
G1 X22.99 Y50.01 E446.61716
G1 X21.32 Y44.49 E446.92513
G1 X20.75 Y38.75 E447.23321
G1 X20.75 Y38.73 E447.23433
G1 X21.31 Y33.01 E447.54110
G1 X21.31 Y32.99 E447.54212
G1 X22.98 Y27.49 E447.84896
G1 X25.69 Y22.40 E448.15701
G0 F6000 X25.35 Y22.14
;TYPE:WALL-OUTER
G1 F2700 X29.02 Y17.66 E448.46599
G1 X29.06 Y17.61 E448.46959
G1 X33.54 Y13.94 E448.77861
G1 X33.59 Y13.90 E448.78198
G1 X38.70 Y11.17 E449.09119
G1 X38.75 Y11.14 E449.09446
G1 X44.29 Y9.46 E449.40365
G1 X44.35 Y9.44 E449.40696
G1 X50.12 Y8.87 E449.71625
G1 X50.18 Y8.87 E449.71969
G1 X55.94 Y9.43 E450.02860
G1 X56.00 Y9.44 E450.03203
G1 X61.55 Y11.12 E450.34124
G1 X61.60 Y11.14 E450.34436
G1 X66.77 Y13.90 E450.65725
G1 X71.25 Y17.57 E450.96622
G1 X71.30 Y17.62 E450.96982
G1 X74.97 Y22.09 E451.27884
G1 X75.01 Y22.14 E451.28222
G1 X77.77 Y27.30 E451.59474
G1 X79.45 Y32.84 E451.90389
G1 X79.47 Y32.90 E451.90720
G1 X80.04 Y38.67 E452.21649
G1 X80.04 Y38.73 E452.21982
G1 X79.48 Y44.49 E452.52885
G1 X79.47 Y44.56 E452.53228
G1 X77.79 Y50.10 E452.84149
G1 X77.77 Y50.16 E452.84461
G1 X75.01 Y55.33 E453.15749
G1 X71.34 Y59.80 E453.46647
G1 X71.29 Y59.85 E453.47007
G1 X66.82 Y63.52 E453.77909
G1 X66.77 Y63.56 E453.78246
G1 X64.97 Y64.53 E453.89175
G1 X64.97 Y68.64 E454.11105
G1 X89.97 Y68.64 E455.44561
G1 X89.97 Y86.21 E456.38365
G1 X10.39 Y86.21 E460.63140
G1 X10.39 Y68.64 E461.56944
G1 X35.39 Y68.64 E462.90400
G1 X35.39 Y64.53 E463.12330
G1 X33.64 Y63.59 E463.22929
G1 X33.59 Y63.56 E463.23268
G1 X29.11 Y59.89 E463.54173
G1 X29.06 Y59.85 E463.54533
G1 X25.39 Y55.37 E463.85435
G1 X25.35 Y55.32 E463.85772
G1 X22.59 Y50.16 E464.17025
G1 X20.91 Y44.62 E464.47939
G1 X20.89 Y44.56 E464.48269
G1 X20.32 Y38.79 E464.79193
G1 X20.31 Y38.73 E464.79537
G1 X20.88 Y32.97 E465.10434
G1 X20.89 Y32.91 E465.10777
G1 X22.57 Y27.36 E465.41696
G1 X22.59 Y27.31 E465.42009
G1 X25.35 Y22.14 E465.73297
G0 F6000 X25.61 Y22.32
G0 X39.75 Y31.80
G0 X40.02 Y31.95
G1 F2700 X38.89 Y34.06 E465.86076
G1 X38.20 Y36.35 E465.98857
G1 X37.96 Y38.73 E466.11644
G1 X38.20 Y41.12 E466.24427
G1 X38.89 Y43.41 E466.37207
G1 X40.02 Y45.52 E466.49986
G1 X41.54 Y47.37 E466.62773
G1 X43.39 Y48.89 E466.75559
G1 X45.50 Y50.02 E466.88339
G1 X47.80 Y50.71 E467.01124
G1 X50.18 Y50.95 E467.13907
G1 X52.56 Y50.71 E467.26690
G1 X54.85 Y50.02 E467.39470
G1 X56.96 Y48.89 E467.52249
G1 X58.82 Y47.37 E467.65036
G1 X60.34 Y45.52 E467.77822
G1 X61.46 Y43.41 E467.90602
G1 X62.16 Y41.12 E468.03382
G1 X62.39 Y38.73 E468.16165
G1 X62.16 Y36.35 E468.28953
G1 X61.46 Y34.06 E468.41733
G1 X60.34 Y31.95 E468.54513
G1 X58.82 Y30.09 E468.67299
G1 X56.96 Y28.57 E468.80086
G1 X54.85 Y27.45 E468.92865
G1 X52.56 Y26.75 E469.05646
G1 X50.18 Y26.52 E469.18428
G1 X47.80 Y26.75 E469.31210
G1 X45.50 Y27.45 E469.43995
G1 X43.39 Y28.57 E469.56775
G1 X41.54 Y30.09 E469.69561
G1 X40.02 Y31.95 E469.82348
G0 F6000 X39.75 Y31.80
G0 X37.62 Y30.66
;TYPE:FILL
G1 F2700 X28.97 Y22.01 E470.47688
G0 F6000 X29.24 Y21.68
G1 F2700 X37.86 Y30.29 E471.12749
G0 F6000 X38.13 Y29.96
G1 F2700 X29.52 Y21.34 E471.77810
G0 F6000 X29.79 Y21.01
G1 F2700 X38.41 Y29.63 E472.42867
G0 F6000 X38.68 Y29.30
G1 F2700 X30.06 Y20.68 E473.07921
G0 F6000 X30.33 Y20.35
G1 F2700 X38.95 Y28.96 E473.72978
G0 F6000 X39.22 Y28.63
G1 F2700 X30.61 Y20.01 E474.38028
G0 F6000 X30.88 Y19.68
G1 F2700 X39.50 Y28.30 E475.03077
G0 F6000 X39.80 Y28.00
G1 F2700 X31.19 Y19.39 E475.68108
G0 F6000 X31.52 Y19.11
G1 F2700 X40.14 Y27.73 E476.33146
G0 F6000 X40.47 Y27.45
G1 F2700 X31.85 Y18.84 E476.98188
G0 F6000 X32.19 Y18.57
G1 F2700 X40.80 Y27.18 E477.63234
G0 F6000 X41.13 Y26.91
G1 F2700 X32.52 Y18.29 E478.28280
G0 F6000 X32.85 Y18.02
G1 F2700 X41.47 Y26.64 E478.93326
G0 F6000 X41.80 Y26.36
G1 F2700 X33.18 Y17.75 E479.58376
G0 F6000 X33.52 Y17.48
G1 F2700 X42.18 Y26.14 E480.23791
G0 F6000 X42.57 Y25.93
G1 F2700 X33.85 Y17.20 E480.89672
G0 F6000 X34.18 Y16.93
G1 F2700 X42.97 Y25.72 E481.56020
G0 F6000 X43.36 Y25.51
G1 F2700 X34.51 Y16.66 E482.22840
G0 F6000 X34.84 Y16.38
G1 F2700 X43.76 Y25.30 E482.90128
G0 F6000 X44.15 Y25.09
G1 F2700 X35.19 Y16.12 E483.57774
G0 F6000 X35.59 Y15.91
G1 F2700 X44.56 Y24.89 E484.25542
G0 F6000 X45.03 Y24.75
G1 F2700 X35.98 Y15.70 E484.93842
G0 F6000 X36.37 Y15.49
G1 F2700 X45.49 Y24.61 E485.62670
G0 F6000 X45.95 Y24.47
G1 F2700 X36.77 Y15.28 E486.32026
G0 F6000 X37.16 Y15.07
G1 F2700 X46.42 Y24.33 E487.01911
G0 F6000 X46.88 Y24.19
G1 F2700 X37.56 Y14.86 E487.72325
G0 F6000 X37.95 Y14.65
G1 F2700 X47.37 Y24.06 E488.43388
G0 F6000 X47.92 Y24.01
G1 F2700 X38.35 Y14.44 E489.15636
G0 F6000 X38.74 Y14.23
G1 F2700 X48.47 Y23.95 E489.89069
G0 F6000 X49.02 Y23.90
G1 F2700 X39.13 Y14.02 E490.63687
G0 F6000 X39.53 Y13.80
G1 F2700 X49.57 Y23.85 E491.39491
G0 F6000 X50.12 Y23.79
G1 F2700 X39.95 Y13.62 E492.16303
G0 F6000 X40.41 Y13.48
G1 F2700 X50.78 Y23.84 E492.94583
G0 F6000 X51.45 Y23.91
G1 F2700 X40.88 Y13.34 E493.74426
G0 F6000 X41.34 Y13.19
G1 F2700 X52.12 Y23.98 E494.55827
G0 F6000 X52.79 Y24.04
G1 F2700 X41.80 Y13.05 E495.38796
G0 F6000 X42.27 Y12.91
G1 F2700 X53.57 Y24.22 E496.24134
G0 F6000 X54.44 Y24.48
G1 F2700 X42.73 Y12.77 E497.12527
G0 F6000 X43.20 Y12.63
G1 F2700 X55.31 Y24.74 E498.03969
G0 F6000 X56.32 Y25.15
G1 F2700 X43.66 Y12.49 E498.99515
G0 F6000 X44.13 Y12.35
G1 F2700 X57.62 Y25.84 E500.01387
G0 F6000 X59.62 Y27.24
G1 F2700 X44.59 Y12.21 E501.14877
G0 F6000 X45.09 Y12.10
G1 F2700 X76.81 Y43.82 E503.54372
G0 F6000 X76.70 Y44.32
G1 F2700 X61.67 Y29.28 E504.67877
G0 F6000 X63.06 Y31.29
G1 F2700 X76.56 Y44.78 E505.69761
G0 F6000 X76.42 Y45.25
G1 F2700 X63.76 Y32.59 E506.65329
G0 F6000 X64.16 Y33.60
G1 F2700 X76.28 Y45.71 E507.56790
G0 F6000 X76.14 Y46.18
G1 F2700 X64.43 Y34.47 E508.45194
G0 F6000 X64.69 Y35.34
G1 F2700 X76.00 Y46.64 E509.30548
G0 F6000 X75.86 Y47.11
G1 F2700 X64.87 Y36.12 E510.13523
G0 F6000 X64.93 Y36.79
G1 F2700 X75.72 Y47.57 E510.94929
G0 F6000 X75.57 Y48.03
G1 F2700 X65.00 Y37.46 E511.74779
G0 F6000 X65.06 Y38.13
G1 F2700 X75.43 Y48.50 E512.53067
G0 F6000 X75.29 Y48.96
G1 F2700 X65.12 Y38.79 E513.29882
G0 F6000 X65.06 Y39.34
G1 F2700 X75.11 Y49.38 E514.05690
G0 F6000 X74.89 Y49.77
G1 F2700 X65.01 Y39.89 E514.80316
G0 F6000 X64.95 Y40.44
G1 F2700 X74.68 Y50.17 E515.53764
G0 F6000 X74.47 Y50.56
G1 F2700 X64.90 Y40.99 E516.26027
G0 F6000 X64.84 Y41.54
G1 F2700 X74.26 Y50.96 E516.97113
G0 F6000 X74.05 Y51.35
G1 F2700 X64.72 Y42.02 E517.67538
G0 F6000 X64.58 Y42.49
G1 F2700 X73.84 Y51.75 E518.37438
G0 F6000 X73.63 Y52.14
G1 F2700 X64.44 Y42.95 E519.06810
G0 F6000 X64.30 Y43.42
G1 F2700 X73.42 Y52.54 E519.75653
G0 F6000 X73.21 Y52.93
G1 F2700 X64.16 Y43.88 E520.43975
G0 F6000 X64.02 Y44.35
G1 F2700 X73.00 Y53.33 E521.11761
G0 F6000 X72.79 Y53.72
G1 F2700 X63.82 Y44.76 E521.79423
G0 F6000 X63.61 Y45.15
G1 F2700 X72.53 Y54.06 E522.46723
G0 F6000 X72.25 Y54.40
G1 F2700 X63.40 Y45.55 E523.13550
G0 F6000 X63.19 Y45.94
G1 F2700 X71.98 Y54.73 E523.79910
G0 F6000 X71.71 Y55.06
G1 F2700 X62.98 Y46.33 E524.45801
G0 F6000 X62.77 Y46.73
G1 F2700 X71.43 Y55.39 E525.11224
G0 F6000 X71.16 Y55.73
G1 F2700 X62.54 Y47.11 E525.76289
G0 F6000 X62.27 Y47.44
G1 F2700 X70.89 Y56.06 E526.41346
G0 F6000 X70.62 Y56.39
G1 F2700 X62.00 Y47.77 E527.06407
G0 F6000 X61.73 Y48.11
G1 F2700 X70.34 Y56.72 E527.71468
G0 F6000 X70.07 Y57.06
G1 F2700 X61.45 Y48.44 E528.36525
G0 F6000 X61.18 Y48.77
G1 F2700 X69.80 Y57.39 E529.01583
G0 F6000 X69.52 Y57.72
G1 F2700 X60.91 Y49.10 E529.66628
G0 F6000 X60.61 Y49.41
G1 F2700 X69.23 Y58.03 E530.31667
G0 F6000 X68.89 Y58.30
G1 F2700 X60.28 Y49.69 E530.96709
G0 F6000 X59.95 Y49.96
G1 F2700 X68.56 Y58.57 E531.61755
G0 F6000 X68.23 Y58.85
G1 F2700 X59.61 Y50.23 E532.26801
G0 F6000 X59.28 Y50.50
G1 F2700 X67.90 Y59.12 E532.91846
G0 F6000 X67.56 Y59.39
G1 F2700 X58.95 Y50.78 E533.56896
G0 F6000 X58.62 Y51.05
G1 F2700 X67.23 Y59.66 E534.21942
G0 F6000 X66.90 Y59.94
G1 F2700 X58.25 Y51.28 E534.87267
G0 F6000 X57.85 Y51.50
G1 F2700 X66.57 Y60.21 E535.53064
G0 F6000 X66.23 Y60.48
G1 F2700 X57.46 Y51.71 E536.19326
G0 F6000 X57.06 Y51.92
G1 F2700 X65.90 Y60.76 E536.86062
G0 F6000 X65.57 Y61.03
G1 F2700 X56.67 Y52.13 E537.53264
G0 F6000 X56.27 Y52.34
G1 F2700 X65.23 Y61.30 E538.20907
G0 F6000 X64.84 Y61.51
G1 F2700 X55.88 Y52.55 E538.88580
G0 F6000 X55.41 Y52.69
G1 F2700 X64.45 Y61.72 E539.56789
G0 F6000 X64.05 Y61.93
G1 F2700 X54.95 Y52.83 E540.25523
G0 F6000 X54.48 Y52.97
G1 F2700 X63.66 Y62.14 E540.94781
G0 F6000 X63.26 Y62.35
G1 F2700 X54.02 Y53.11 E541.64575
G0 F6000 X53.55 Y53.25
G1 F2700 X62.87 Y62.57 E542.34895
G0 F6000 X62.47 Y62.78
G1 F2700 X53.09 Y53.39 E543.05753
G0 F6000 X52.54 Y53.45
G1 F2700 X62.25 Y63.16 E543.79058
G0 F6000 X62.25 Y63.76
G1 F2700 X51.98 Y53.50 E544.56531
G0 F6000 X51.43 Y53.55
G1 F2700 X62.25 Y64.36 E545.38159
G0 F6000 X62.25 Y64.97
G1 F2700 X50.88 Y53.61 E546.23947
G0 F6000 X50.33 Y53.66
G1 F2700 X62.25 Y65.58 E547.13891
G0 F6000 X62.25 Y66.18
G1 F2700 X49.70 Y53.63 E548.08651
G0 F6000 X49.02 Y53.56
G1 F2700 X62.25 Y66.79 E549.08481
G0 F6000 X62.25 Y67.39
G1 F2700 X48.35 Y53.50 E550.13380
G0 F6000 X47.68 Y53.43
G1 F2700 X62.25 Y68.00 E551.23349
G0 F6000 X62.25 Y68.60
G1 F2700 X46.93 Y53.29 E552.38950
G0 F6000 X46.07 Y53.03
G1 F2700 X62.25 Y69.21 E553.61107
G0 F6000 X62.25 Y69.81
G1 F2700 X45.20 Y52.76 E554.89817
G0 F6000 X44.27 Y52.44
G1 F2700 X62.25 Y70.42 E556.25563
G0 F6000 X62.25 Y71.02
G1 F2700 X42.97 Y51.74 E557.71131
G0 F6000 X41.33 Y50.71
G1 F2700 X74.11 Y83.49 E560.18609
G0 F6000 X73.50 Y83.49
G1 F2700 X23.55 Y33.54 E563.95688
G0 F6000 X23.68 Y33.06
G1 F2700 X38.20 Y47.58 E565.05310
G0 F6000 X37.17 Y45.94
G1 F2700 X23.82 Y32.60 E566.06079
G0 F6000 X23.96 Y32.13
G1 F2700 X36.47 Y44.64 E567.00530
G0 F6000 X36.15 Y43.71
G1 F2700 X24.10 Y31.67 E567.91455
G0 F6000 X24.24 Y31.20
G1 F2700 X35.88 Y42.84 E568.79327
G0 F6000 X35.62 Y41.98
G1 F2700 X24.38 Y30.74 E569.64152
G0 F6000 X24.52 Y30.27
G1 F2700 X35.48 Y41.23 E570.46856
G0 F6000 X35.41 Y40.56
G1 F2700 X24.66 Y29.81 E571.27998
G0 F6000 X24.81 Y29.35
G1 F2700 X35.35 Y39.89 E572.07576
G0 F6000 X35.28 Y39.22
G1 F2700 X24.95 Y28.88 E572.85596
G0 F6000 X25.09 Y28.42
G1 F2700 X35.25 Y38.58 E573.62305
G0 F6000 X35.30 Y38.03
G1 F2700 X25.29 Y28.01 E574.37909
G0 F6000 X25.50 Y27.62
G1 F2700 X35.36 Y37.48 E575.12335
G0 F6000 X35.41 Y36.92
G1 F2700 X25.71 Y27.22 E575.85572
G0 F6000 X25.92 Y26.83
G1 F2700 X35.47 Y36.37 E576.57624
G0 F6000 X35.52 Y35.82
G1 F2700 X26.13 Y26.43 E577.28498
G0 F6000 X26.34 Y26.04
G1 F2700 X35.66 Y35.36 E577.98832
G0 F6000 X35.80 Y34.89
G1 F2700 X26.55 Y25.64 E578.68634
G0 F6000 X26.76 Y25.25
G1 F2700 X35.94 Y34.43 E579.37912
G0 F6000 X36.08 Y33.96
G1 F2700 X26.97 Y24.86 E580.06664
G0 F6000 X27.18 Y24.46
G1 F2700 X36.22 Y33.50 E580.74888
G0 F6000 X36.36 Y33.03
G1 F2700 X27.40 Y24.07 E581.42577
G0 F6000 X27.61 Y23.67
G1 F2700 X36.57 Y32.63 E582.10246
G0 F6000 X36.78 Y32.24
G1 F2700 X27.88 Y23.34 E582.77455
G0 F6000 X28.15 Y23.01
G1 F2700 X36.99 Y31.85 E583.44199
G0 F6000 X37.20 Y31.45
G1 F2700 X28.42 Y22.67 E584.10479
G0 F6000 X28.70 Y22.34
G1 F2700 X37.41 Y31.06 E584.76288
G0 F6000 X23.50 Y34.09
G1 F2700 X72.90 Y83.49 E588.49207
G0 F6000 X72.29 Y83.49
G1 F2700 X23.45 Y34.64 E592.17966
G0 F6000 X23.39 Y35.20
G1 F2700 X71.69 Y83.49 E595.82566
G0 F6000 X71.08 Y83.49
G1 F2700 X23.34 Y35.75 E599.42998
G0 F6000 X23.28 Y36.30
G1 F2700 X70.48 Y83.49 E602.99275
G0 F6000 X69.87 Y83.49
G1 F2700 X23.23 Y36.85 E606.51387
G0 F6000 X23.18 Y37.40
G1 F2700 X69.27 Y83.49 E609.99341
G0 F6000 X68.66 Y83.49
G1 F2700 X23.12 Y37.95 E613.43130
G0 F6000 X23.07 Y38.50
G1 F2700 X68.06 Y83.49 E616.82764
G0 F6000 X67.45 Y83.49
G1 F2700 X23.08 Y39.12 E620.17702
G0 F6000 X23.15 Y39.80
G1 F2700 X66.84 Y83.49 E623.47570
G0 F6000 X66.24 Y83.49
G1 F2700 X23.22 Y40.47 E626.72369
G0 F6000 X23.28 Y41.14
G1 F2700 X65.63 Y83.49 E629.92103
G0 F6000 X65.03 Y83.49
G1 F2700 X23.35 Y41.81 E633.06770
G0 F6000 X23.41 Y42.48
G1 F2700 X64.42 Y83.49 E636.16361
G0 F6000 X63.82 Y83.49
G1 F2700 X23.48 Y43.15 E639.20890
G0 F6000 X23.55 Y43.82
G1 F2700 X63.21 Y83.49 E642.20345
G0 F6000 X62.61 Y83.49
G1 F2700 X23.75 Y44.63 E645.13690
G0 F6000 X24.01 Y45.50
G1 F2700 X62.00 Y83.49 E648.00477
G0 F6000 X61.40 Y83.49
G1 F2700 X24.28 Y46.37 E650.80705
G0 F6000 X24.54 Y47.24
G1 F2700 X60.79 Y83.49 E653.54379
G0 F6000 X60.19 Y83.49
G1 F2700 X24.80 Y48.11 E656.21489
G0 F6000 X25.07 Y48.98
G1 F2700 X59.58 Y83.49 E658.82042
G0 F6000 X58.98 Y83.49
G1 F2700 X25.70 Y50.21 E661.33287
G0 F6000 X26.39 Y51.51
G1 F2700 X37.40 Y62.52 E662.16373
G0 F6000 X38.11 Y63.23
G1 F2700 X58.37 Y83.49 E663.69324
G0 F6000 X57.77 Y83.49
G1 F2700 X38.11 Y63.84 E665.17708
G0 F6000 X38.11 Y64.44
G1 F2700 X57.16 Y83.49 E666.61525
G0 F6000 X56.55 Y83.49
G1 F2700 X38.11 Y65.05 E668.00770
G0 F6000 X38.11 Y65.65
G1 F2700 X55.95 Y83.49 E669.35444
G0 F6000 X55.34 Y83.49
G1 F2700 X38.11 Y66.26 E670.65551
G0 F6000 X38.11 Y66.86
G1 F2700 X54.74 Y83.49 E671.91091
G0 F6000 X54.13 Y83.49
G1 F2700 X38.11 Y67.47 E673.12055
G0 F6000 X38.11 Y68.07
G1 F2700 X53.53 Y83.49 E674.28452
G0 F6000 X52.92 Y83.49
G1 F2700 X38.11 Y68.68 E675.40282
G0 F6000 X38.11 Y69.28
G1 F2700 X52.32 Y83.49 E676.47540
G0 F6000 X51.71 Y83.49
G1 F2700 X38.11 Y69.89 E677.50228
G0 F6000 X38.11 Y70.49
G1 F2700 X51.11 Y83.49 E678.48348
G0 F6000 X50.50 Y83.49
G1 F2700 X38.11 Y71.10 E679.41900
G0 F6000 X37.76 Y71.35
G1 F2700 X49.90 Y83.49 E680.33516
G0 F6000 X49.29 Y83.49
G1 F2700 X37.16 Y71.35 E681.25132
G0 F6000 X36.55 Y71.35
G1 F2700 X48.69 Y83.49 E682.16748
G0 F6000 X48.08 Y83.49
G1 F2700 X35.95 Y71.35 E683.08368
G0 F6000 X35.34 Y71.35
G1 F2700 X47.48 Y83.49 E683.99984
G0 F6000 X46.87 Y83.49
G1 F2700 X34.73 Y71.35 E684.91600
G0 F6000 X34.13 Y71.35
G1 F2700 X46.27 Y83.49 E685.83220
G0 F6000 X45.66 Y83.49
G1 F2700 X33.52 Y71.35 E686.74840
G0 F6000 X32.92 Y71.35
G1 F2700 X45.05 Y83.49 E687.66456
G0 F6000 X44.45 Y83.49
G1 F2700 X32.31 Y71.35 E688.58072
G0 F6000 X31.71 Y71.35
G1 F2700 X43.84 Y83.49 E689.49692
G0 F6000 X43.24 Y83.49
G1 F2700 X31.10 Y71.35 E690.41308
G0 F6000 X30.50 Y71.35
G1 F2700 X42.63 Y83.49 E691.32924
G0 F6000 X42.03 Y83.49
G1 F2700 X29.89 Y71.35 E692.24544
G0 F6000 X29.29 Y71.35
G1 F2700 X41.42 Y83.49 E693.16164
G0 F6000 X40.82 Y83.49
G1 F2700 X28.68 Y71.35 E694.07780
G0 F6000 X28.08 Y71.35
G1 F2700 X40.21 Y83.49 E694.99396
G0 F6000 X39.61 Y83.49
G1 F2700 X27.47 Y71.35 E695.91016
G0 F6000 X26.87 Y71.35
G1 F2700 X39.00 Y83.49 E696.82632
G0 F6000 X38.40 Y83.49
G1 F2700 X26.26 Y71.35 E697.74248
G0 F6000 X25.66 Y71.35
G1 F2700 X37.79 Y83.49 E698.65868
G0 F6000 X37.19 Y83.49
G1 F2700 X25.05 Y71.35 E699.57488
G0 F6000 X24.45 Y71.35
G1 F2700 X36.58 Y83.49 E700.49104
G0 F6000 X35.98 Y83.49
G1 F2700 X23.84 Y71.35 E701.40720
G0 F6000 X23.23 Y71.35
G1 F2700 X35.37 Y83.49 E702.32340
G0 F6000 X34.76 Y83.49
G1 F2700 X22.63 Y71.35 E703.23956
G0 F6000 X22.02 Y71.35
G1 F2700 X34.16 Y83.49 E704.15572
G0 F6000 X33.55 Y83.49
G1 F2700 X21.42 Y71.35 E705.07192
G0 F6000 X20.81 Y71.35
G1 F2700 X32.95 Y83.49 E705.98812
G0 F6000 X32.34 Y83.49
G1 F2700 X20.21 Y71.35 E706.90428
G0 F6000 X19.60 Y71.35
G1 F2700 X31.74 Y83.49 E707.82044
G0 F6000 X31.13 Y83.49
G1 F2700 X19.00 Y71.35 E708.73664
G0 F6000 X18.39 Y71.35
G1 F2700 X30.53 Y83.49 E709.65280
G0 F6000 X29.92 Y83.49
G1 F2700 X17.79 Y71.35 E710.56896
G0 F6000 X17.18 Y71.35
G1 F2700 X29.32 Y83.49 E711.48516
G0 F6000 X28.71 Y83.49
G1 F2700 X16.58 Y71.35 E712.40136
G0 F6000 X15.97 Y71.35
G1 F2700 X28.11 Y83.49 E713.31752
G0 F6000 X27.50 Y83.49
G1 F2700 X15.37 Y71.35 E714.23368
G0 F6000 X14.76 Y71.35
G1 F2700 X26.90 Y83.49 E715.14988
G0 F6000 X26.29 Y83.49
G1 F2700 X14.15 Y71.35 E716.06604
G0 F6000 X13.55 Y71.35
G1 F2700 X25.68 Y83.49 E716.98220
G0 F6000 X25.08 Y83.49
G1 F2700 X13.11 Y71.52 E717.88587
G0 F6000 X13.11 Y72.12
G1 F2700 X24.48 Y83.49 E718.74386
G0 F6000 X23.87 Y83.49
G1 F2700 X13.11 Y72.73 E719.55614
G0 F6000 X13.11 Y73.34
G1 F2700 X23.26 Y83.49 E720.32271
G0 F6000 X22.66 Y83.49
G1 F2700 X13.11 Y73.94 E721.04360
G0 F6000 X13.11 Y74.55
G1 F2700 X22.05 Y83.49 E721.71879
G0 F6000 X21.45 Y83.49
G1 F2700 X13.11 Y75.15 E722.34826
G0 F6000 X13.11 Y75.76
G1 F2700 X20.84 Y83.49 E722.93205
G0 F6000 X20.24 Y83.49
G1 F2700 X13.11 Y76.36 E723.47018
G0 F6000 X13.11 Y76.97
G1 F2700 X19.63 Y83.49 E723.96259
G0 F6000 X19.03 Y83.49
G1 F2700 X13.11 Y77.57 E724.40929
G0 F6000 X13.11 Y78.18
G1 F2700 X18.42 Y83.49 E724.81031
G0 F6000 X17.82 Y83.49
G1 F2700 X13.11 Y78.78 E725.16563
G0 F6000 X13.11 Y79.39
G1 F2700 X17.21 Y83.49 E725.47527
G0 F6000 X16.61 Y83.49
G1 F2700 X13.11 Y79.99 E725.73920
G0 F6000 X13.11 Y80.60
G1 F2700 X16.00 Y83.49 E725.95745
G0 F6000 X15.39 Y83.49
G1 F2700 X13.11 Y81.20 E726.12999
G0 F6000 X13.11 Y81.81
G1 F2700 X14.79 Y83.49 E726.25682
G0 F6000 X14.19 Y83.49
G1 F2700 X13.11 Y82.42 E726.33798
G0 F6000 X13.11 Y83.02
G1 F2700 X13.58 Y83.49 E726.37342
G0 F6000 X35.75 Y68.99
G0 X35.78 Y64.30
G0 X34.31 Y60.64
G1 F2700 X28.27 Y54.60 E726.82911
G0 F6000 X27.09 Y52.81
G1 F2700 X36.10 Y61.82 E727.50939
G0 F6000 X62.58 Y71.35
G1 F2700 X74.71 Y83.49 E728.42555
G0 F6000 X75.32 Y83.49
G1 F2700 X63.18 Y71.35 E729.34171
G0 F6000 X63.79 Y71.35
G1 F2700 X75.92 Y83.49 E730.25791
G0 F6000 X76.53 Y83.49
G1 F2700 X64.39 Y71.35 E731.17407
G0 F6000 X65.00 Y71.35
G1 F2700 X77.13 Y83.49 E732.09023
G0 F6000 X77.74 Y83.49
G1 F2700 X65.60 Y71.35 E733.00643
G0 F6000 X66.21 Y71.35
G1 F2700 X78.34 Y83.49 E733.92262
G0 F6000 X78.95 Y83.49
G1 F2700 X66.81 Y71.35 E734.83879
G0 F6000 X67.42 Y71.35
G1 F2700 X79.56 Y83.49 E735.75495
G0 F6000 X80.16 Y83.49
G1 F2700 X68.03 Y71.35 E736.67114
G0 F6000 X68.63 Y71.35
G1 F2700 X80.77 Y83.49 E737.58731
G0 F6000 X81.37 Y83.49
G1 F2700 X69.24 Y71.35 E738.50347
G0 F6000 X69.84 Y71.35
G1 F2700 X81.98 Y83.49 E739.41967
G0 F6000 X82.58 Y83.49
G1 F2700 X70.45 Y71.35 E740.33586
G0 F6000 X71.05 Y71.35
G1 F2700 X83.19 Y83.49 E741.25202
G0 F6000 X83.79 Y83.49
G1 F2700 X71.66 Y71.35 E742.16819
G0 F6000 X72.26 Y71.35
G1 F2700 X84.40 Y83.49 E743.08438
G0 F6000 X85.00 Y83.49
G1 F2700 X72.87 Y71.35 E744.00054
G0 F6000 X73.47 Y71.35
G1 F2700 X85.61 Y83.49 E744.91671
G0 F6000 X86.21 Y83.49
G1 F2700 X74.08 Y71.35 E745.83287
G0 F6000 X74.68 Y71.35
G1 F2700 X86.82 Y83.49 E746.74906
G0 F6000 X87.25 Y83.31
G1 F2700 X75.29 Y71.35 E747.65179
G0 F6000 X75.89 Y71.35
G1 F2700 X87.25 Y82.71 E748.50880
G0 F6000 X87.25 Y82.10
G1 F2700 X76.50 Y71.35 E749.32014
G0 F6000 X77.11 Y71.35
G1 F2700 X87.25 Y81.50 E750.08576
G0 F6000 X87.25 Y80.89
G1 F2700 X77.71 Y71.35 E750.80567
G0 F6000 X78.31 Y71.35
G1 F2700 X87.25 Y80.28 E751.47991
G0 F6000 X87.25 Y79.68
G1 F2700 X78.92 Y71.35 E752.10848
G0 F6000 X79.53 Y71.35
G1 F2700 X87.25 Y79.08 E752.69133
G0 F6000 X87.25 Y78.47
G1 F2700 X80.13 Y71.35 E753.22847
G0 F6000 X80.74 Y71.35
G1 F2700 X87.25 Y77.86 E753.71994
G0 F6000 X87.25 Y77.26
G1 F2700 X81.34 Y71.35 E754.16570
G0 F6000 X81.95 Y71.35
G1 F2700 X87.25 Y76.65 E754.56574
G0 F6000 X87.25 Y76.05
G1 F2700 X82.55 Y71.35 E754.92011
G0 F6000 X83.16 Y71.35
G1 F2700 X87.25 Y75.44 E755.22881
G0 F6000 X87.25 Y74.84
G1 F2700 X83.76 Y71.35 E755.49179
G0 F6000 X84.37 Y71.35
G1 F2700 X87.25 Y74.23 E755.70907
G0 F6000 X87.25 Y73.63
G1 F2700 X84.97 Y71.35 E755.88066
G0 F6000 X85.58 Y71.35
G1 F2700 X87.25 Y73.02 E756.00655
G0 F6000 X87.25 Y72.42
G1 F2700 X86.18 Y71.35 E756.08673
G0 F6000 X86.79 Y71.35
G1 F2700 X87.25 Y71.81 E756.12123
G0 F6000 X64.61 Y68.99
G0 X64.58 Y64.30
G0 X76.86 Y43.27
G1 F2700 X45.64 Y12.04 E758.47869
G0 F6000 X46.19 Y11.99
G1 F2700 X76.92 Y42.72 E760.79859
G0 F6000 X76.97 Y42.17
G1 F2700 X46.74 Y11.94 E763.08093
G0 F6000 X47.29 Y11.88
G1 F2700 X77.03 Y41.62 E765.32579
G0 F6000 X77.08 Y41.07
G1 F2700 X47.84 Y11.83 E767.53317
G0 F6000 X48.39 Y11.77
G1 F2700 X77.14 Y40.52 E769.70303
G0 F6000 X77.19 Y39.97
G1 F2700 X48.95 Y11.72 E771.83536
G0 F6000 X49.50 Y11.66
G1 F2700 X77.25 Y39.41 E773.93025
G0 F6000 X77.30 Y38.86
G1 F2700 X50.05 Y11.61 E775.98755
G0 F6000 X50.69 Y11.65
G1 F2700 X77.26 Y38.22 E777.99358
G0 F6000 X77.19 Y37.55
G1 F2700 X51.36 Y11.71 E779.94390
G0 F6000 X52.03 Y11.78
G1 F2700 X77.13 Y36.88 E781.83854
G0 F6000 X77.06 Y36.21
G1 F2700 X52.70 Y11.85 E783.67758
G0 F6000 X53.37 Y11.91
G1 F2700 X77.00 Y35.53 E785.46091
G0 F6000 X76.93 Y34.86
G1 F2700 X54.05 Y11.98 E787.18856
G0 F6000 X54.72 Y12.04
G1 F2700 X76.86 Y34.19 E788.86060
G0 F6000 X76.80 Y33.52
G1 F2700 X55.39 Y12.11 E790.47697
G0 F6000 X56.23 Y12.35
G1 F2700 X76.56 Y32.68 E792.01155
G0 F6000 X76.30 Y31.81
G1 F2700 X57.10 Y12.61 E793.46062
G0 F6000 X57.97 Y12.88
G1 F2700 X76.03 Y30.94 E794.82416
G0 F6000 X75.77 Y30.07
G1 F2700 X58.84 Y13.14 E796.10220
G0 F6000 X59.71 Y13.40
G1 F2700 X75.50 Y29.20 E797.29471
G0 F6000 X75.23 Y28.32
G1 F2700 X60.59 Y13.68 E798.40036
G0 F6000 X61.88 Y14.37
G1 F2700 X74.54 Y27.02 E799.35548
G0 F6000 X73.84 Y25.72
G1 F2700 X63.19 Y15.07 E800.16002
G0 F6000 X64.49 Y15.76
G1 F2700 X73.15 Y24.42 E800.81399
G0 F6000 X71.60 Y22.27
G1 F2700 X66.65 Y17.32 E801.18773
;LAYER:1
G0 F6000 X65.34 Y16.05 Z0.50
;TYPE:WALL-INNER
G1 F3480 X69.47 Y19.44 E801.37806
G1 X72.86 Y23.57 E801.56834
G1 X75.39 Y28.29 E801.75866
G1 X76.94 Y33.41 E801.94901
G1 X77.46 Y38.73 E802.13932
G1 X76.94 Y44.06 E802.32985
G1 X75.39 Y49.17 E802.52019
G1 X72.86 Y53.89 E802.71055
G1 X69.47 Y58.02 E802.90088
G1 X65.34 Y61.42 E803.09116
G1 X62.40 Y62.99 E803.20986
G1 X62.40 Y71.20 E803.50222
G1 X87.40 Y71.20 E804.39193
G1 X87.40 Y83.64 E804.83450
G1 X12.96 Y83.64 E807.48356
G1 X12.96 Y71.20 E807.92613
G1 X37.96 Y71.20 E808.81584
G1 X37.96 Y62.99 E809.10820
G1 X35.02 Y61.42 E809.22693
G1 X30.89 Y58.02 E809.41726
G1 X27.49 Y53.89 E809.60754
G1 X24.97 Y49.17 E809.79791
G1 X23.42 Y44.06 E809.98812
G1 X22.89 Y38.74 E810.17848
G1 X23.42 Y33.41 E810.36911
G1 X24.97 Y28.29 E810.55930
G1 X27.49 Y23.57 E810.74974
G1 X30.89 Y19.44 E810.94007
G1 X35.02 Y16.05 E811.13035
G1 X39.74 Y13.52 E811.32075
G1 X44.85 Y11.97 E811.51093
G1 X50.18 Y11.45 E811.70136
G1 X55.50 Y11.97 E811.89185
G1 X60.62 Y13.52 E812.08219
G1 X65.34 Y16.05 E812.27255
G0 F6000 X58.40 Y26.43
G1 F3480 X55.84 Y25.06 E812.37576
G1 X53.06 Y24.22 E812.47899
G1 X50.18 Y23.94 E812.58219
G1 X47.29 Y24.22 E812.68540
G1 X44.52 Y25.06 E812.78867
G1 X41.96 Y26.43 E812.89187
G1 X39.72 Y28.27 E812.99510
G1 X37.88 Y30.51 E813.09832
G1 X36.51 Y33.07 E813.20152
G1 X35.67 Y35.84 E813.30476
G1 X35.38 Y38.73 E813.40800
G1 X35.67 Y41.62 E813.51120
G1 X36.51 Y44.39 E813.61444
G1 X37.88 Y46.95 E813.71764
G1 X39.72 Y49.19 E813.82087
G1 X41.96 Y51.03 E813.92409
G1 X44.52 Y52.40 E814.02729
G1 X47.29 Y53.24 E814.13053
G1 X50.18 Y53.53 E814.23377
G1 X53.07 Y53.24 E814.33702
G1 X55.84 Y52.40 E814.44022
G1 X58.40 Y51.03 E814.54343
