;-- START GCODE --
;Sliced for Type A Machines Series 1
;Sliced at: Sat 29-10-2016 20:00:33
;Basic settings: Layer height: 0.2 Walls: 1.5 Fill: 20
;Print Speed: 100 Support: 0
;Retraction Speed: 40 Retraction Distance: 1.2
;Print time: #P_TIME#
;Filament used: #F_AMNT#m #F_WGHT#g
;Filament cost: #F_COST#
M106 S255	 ;start with the fan on
G21        ;metric values
G90        ;absolute positioning
M106 S255    ;start with the fan on
G28     ;move to endstops
G29		;allows for auto-levelling
G1 X150 Y5  Z15.0 F6000 ;center and move the platform down 15mm
M109 S220 ;Heat To temp
G92 E0                  ;zero the extruded length
G1 F200 E30              ;extrude 30mm of feed stock
G92 E0                  ;zero the extruded length again
G1 X175 Y25  Z0 F6000 ;remove bugger
G1 X220 F6000 ;remove bugger
G1 X150 Y150  Z15 F6000 ;recenter and begin
G1 F6000

;Layer count: 71
;LAYER:0
M106 S255
G0 F6000 X132.95 Y128.85 Z0.30
;TYPE:SKIRT
G1 F2700 X136.98 Y128.85 E0.25126
G1 X138.54 Y128.01 E0.36159
G1 X140.46 Y127.42 E0.48731
G1 X142.47 Y127.21 E0.61276
G1 X144.48 Y127.41 E0.73874
G1 X146.41 Y127.99 E0.86484
G1 X147.50 Y128.57 E0.94178
G1 X148.54 Y128.01 E1.01506
G1 X150.46 Y127.42 E1.14078
G1 X152.47 Y127.21 E1.26629
G1 X154.47 Y127.41 E1.39215
G1 X156.41 Y127.99 E1.51825
G1 X157.50 Y128.57 E1.59519
G1 X158.53 Y128.01 E1.66847
G1 X160.46 Y127.42 E1.79419
G1 X162.46 Y127.21 E1.91963
G1 X164.47 Y127.41 E2.04562
G1 X166.41 Y127.99 E2.17172
G1 X168.03 Y128.85 E2.28605
G1 X168.95 Y128.85 E2.34342
G1 X168.95 Y129.55 E2.38732
G1 X169.75 Y130.20 E2.45165
G1 X171.03 Y131.76 E2.57746
G1 X171.99 Y133.53 E2.70317
G1 X172.58 Y135.46 E2.82889
G1 X172.78 Y137.46 E2.95433
G1 X172.59 Y139.47 E3.08032
G1 X172.01 Y141.41 E3.20642
G1 X171.43 Y142.50 E3.28336
G1 X171.99 Y143.53 E3.35664
G1 X172.58 Y145.46 E3.48236
G1 X172.78 Y147.46 E3.60780
G1 X172.59 Y149.47 E3.73379
G1 X172.01 Y151.41 E3.85989
G1 X171.43 Y152.50 E3.93678
G1 X171.99 Y153.53 E4.01005
G1 X172.58 Y155.46 E4.13577
G1 X172.78 Y157.47 E4.26134
G1 X172.59 Y159.47 E4.38721
G1 X172.01 Y161.41 E4.51330
G1 X171.07 Y163.19 E4.63879
G1 X169.79 Y164.75 E4.76437
G1 X168.95 Y165.44 E4.83265
G1 X168.95 Y165.95 E4.86408
G1 X168.34 Y165.95 E4.90218
G1 X168.24 Y166.03 E4.91033
G1 X166.46 Y166.99 E5.03604
G1 X164.54 Y167.58 E5.16176
G1 X162.76 Y167.76 E5.27328
G1 X162.59 Y169.47 E5.38061
G1 X162.01 Y171.41 E5.50670
G1 X161.07 Y173.19 E5.63219
G1 X159.79 Y174.75 E5.75778
G1 X158.95 Y175.44 E5.82605
G1 X158.95 Y175.95 E5.85748
G1 X158.34 Y175.95 E5.89558
G1 X158.24 Y176.03 E5.90373
G1 X156.46 Y176.99 E6.02944
G1 X154.54 Y177.58 E6.15516
G1 X152.53 Y177.78 E6.28067
G1 X150.53 Y177.59 E6.40653
G1 X148.59 Y177.01 E6.53263
G1 X146.81 Y176.06 E6.65811
G1 X146.67 Y175.95 E6.66960
G1 X142.95 Y175.95 E6.90152
G1 X142.95 Y171.27 E7.19351
G1 X142.42 Y169.53 E7.30644
G1 X142.24 Y167.76 E7.41797
G1 X140.53 Y167.59 E7.52530
G1 X138.59 Y167.01 E7.65139
G1 X136.81 Y166.06 E7.77688
G1 X136.67 Y165.95 E7.78836
G1 X132.95 Y165.95 E8.02029
G1 X132.95 Y161.27 E8.31227
G1 X132.42 Y159.53 E8.42521
G1 X132.22 Y157.53 E8.55066
G1 X132.41 Y155.52 E8.67665
G1 X132.95 Y153.71 E8.79447
G1 X132.95 Y151.27 E8.94695
G1 X132.42 Y149.54 E9.05989
G1 X132.22 Y147.53 E9.18534
G1 X132.41 Y145.52 E9.31132
G1 X132.95 Y143.71 E9.42915
G1 X132.95 Y141.27 E9.58169
G1 X132.42 Y139.54 E9.69463
G1 X132.22 Y137.53 E9.82008
G1 X132.41 Y135.52 E9.94607
G1 X132.95 Y133.71 E10.06389
G1 X132.95 Y128.85 E10.36729
G0 F6000 X133.45 Y129.35
G1 F2700 X137.11 Y129.35 E10.59529
G1 X138.73 Y128.47 E10.71030
G1 X140.56 Y127.91 E10.82989
G1 X142.47 Y127.72 E10.94926
G1 X144.38 Y127.90 E11.06904
G1 X146.22 Y128.45 E11.18902
G1 X147.50 Y129.13 E11.27955
G1 X148.73 Y128.47 E11.36644
G1 X150.56 Y127.91 E11.48603
G1 X152.47 Y127.72 E11.60539
G1 X154.38 Y127.90 E11.72518
G1 X156.22 Y128.45 E11.84509
G1 X157.50 Y129.13 E11.93563
G1 X158.73 Y128.47 E12.02252
G1 X160.56 Y127.91 E12.14210
G1 X162.47 Y127.72 E12.26147
G1 X164.38 Y127.90 E12.38125
G1 X166.22 Y128.45 E12.50123
G1 X167.90 Y129.35 E12.62017
G1 X168.45 Y129.35 E12.65422
G1 X168.45 Y129.79 E12.68178
G1 X169.40 Y130.56 E12.75785
G1 X170.62 Y132.04 E12.87751
G1 X171.53 Y133.73 E12.99699
G1 X172.09 Y135.56 E13.11658
G1 X172.28 Y137.47 E13.23594
G1 X172.10 Y139.38 E13.35572
G1 X171.55 Y141.22 E13.47570
G1 X170.86 Y142.50 E13.56624
G1 X171.53 Y143.73 E13.65313
G1 X172.09 Y145.56 E13.77271
G1 X172.28 Y147.47 E13.89208
G1 X172.10 Y149.38 E14.01186
G1 X171.55 Y151.22 E14.13184
G1 X170.87 Y152.50 E14.22234
G1 X171.53 Y153.73 E14.30915
G1 X172.09 Y155.56 E14.42881
G1 X172.28 Y157.47 E14.54824
G1 X172.10 Y159.38 E14.66796
G1 X171.55 Y161.22 E14.78788
G1 X170.65 Y162.91 E14.90723
G1 X169.44 Y164.40 E15.02669
G1 X168.45 Y165.21 E15.10653
G1 X168.45 Y165.45 E15.12149
G1 X168.16 Y165.45 E15.13964
G1 X167.96 Y165.62 E15.15595
G1 X166.27 Y166.53 E15.27543
G1 X164.44 Y167.09 E15.39501
G1 X162.53 Y167.28 E15.51438
G1 X162.26 Y167.25 E15.53148
G1 X162.28 Y167.47 E15.54477
G1 X162.10 Y169.38 E15.66450
G1 X161.55 Y171.22 E15.78441
G1 X160.65 Y172.91 E15.90377
G1 X159.44 Y174.40 E16.02323
G1 X158.45 Y175.21 E16.10307
G1 X158.45 Y175.45 E16.11803
G1 X158.16 Y175.45 E16.13618
G1 X157.96 Y175.62 E16.15249
G1 X156.27 Y176.53 E16.27197
G1 X154.44 Y177.09 E16.39155
G1 X152.53 Y177.28 E16.51092
G1 X150.62 Y177.10 E16.63070
G1 X148.78 Y176.55 E16.75062
G1 X147.09 Y175.65 E16.86997
G1 X146.85 Y175.45 E16.88943
G1 X143.45 Y175.45 E17.10134
G1 X143.45 Y171.19 E17.36688
G1 X142.91 Y169.44 E17.48132
G1 X142.72 Y167.53 E17.60069
G1 X142.74 Y167.26 E17.61779
G1 X142.53 Y167.28 E17.63108
G1 X140.62 Y167.10 E17.75080
G1 X138.78 Y166.55 E17.87072
G1 X137.09 Y165.65 E17.99007
G1 X136.85 Y165.45 E18.00953
G1 X133.45 Y165.45 E18.22144
G1 X133.45 Y161.19 E18.48698
G1 X132.91 Y159.44 E18.60142
G1 X132.72 Y157.53 E18.72078
G1 X132.90 Y155.62 E18.84057
G1 X133.45 Y153.79 E18.95989
G1 X133.45 Y151.19 E19.12173
G1 X132.91 Y149.44 E19.23616
G1 X132.72 Y147.53 E19.35553
G1 X132.90 Y145.62 E19.47531
G1 X133.45 Y143.79 E19.59464
G1 X133.45 Y141.19 E19.75653
G1 X132.91 Y139.44 E19.87097
G1 X132.72 Y137.53 E19.99034
G1 X132.90 Y135.62 E20.11012
G1 X133.45 Y133.79 E20.22945
G1 X133.45 Y129.35 E20.50628
G0 F6000 X133.95 Y129.85
G1 F2700 X137.26 Y129.85 E20.71288
G1 X137.32 Y129.80 E20.71771
G1 X138.92 Y128.94 E20.83111
G1 X140.66 Y128.41 E20.94456
G1 X142.47 Y128.22 E21.05779
G1 X144.28 Y128.39 E21.17143
G1 X146.03 Y128.92 E21.28524
G1 X147.50 Y129.70 E21.38938
G1 X148.92 Y128.94 E21.48989
G1 X150.66 Y128.41 E21.60334
G1 X152.47 Y128.22 E21.71656
G1 X154.28 Y128.39 E21.83015
G1 X156.03 Y128.92 E21.94395
G1 X157.50 Y129.70 E22.04810
G1 X158.92 Y128.94 E22.14860
G1 X160.66 Y128.41 E22.26206
G1 X162.47 Y128.22 E22.37528
G1 X164.28 Y128.39 E22.48892
G1 X166.03 Y128.92 E22.60273
G1 X167.63 Y129.77 E22.71591
G1 X167.73 Y129.85 E22.72371
G1 X167.95 Y129.85 E22.73749
G1 X167.95 Y130.03 E22.74872
G1 X169.04 Y130.92 E22.83649
G1 X170.20 Y132.32 E22.95000
G1 X171.06 Y133.92 E23.06340
G1 X171.59 Y135.66 E23.17685
G1 X171.78 Y137.47 E23.29007
G1 X171.61 Y139.28 E23.40372
G1 X171.08 Y141.03 E23.51752
G1 X170.30 Y142.50 E23.62167
G1 X171.06 Y143.92 E23.72217
G1 X171.59 Y145.66 E23.83563
G1 X171.78 Y147.47 E23.94885
G1 X171.61 Y149.28 E24.06249
G1 X171.08 Y151.03 E24.17630
G1 X170.30 Y152.50 E24.28039
G1 X171.06 Y153.92 E24.38090
G1 X171.59 Y155.66 E24.49435
G1 X171.78 Y157.47 E24.60769
G1 X171.61 Y159.28 E24.72122
G1 X171.08 Y161.03 E24.83502
G1 X170.23 Y162.63 E24.94820
G1 X169.08 Y164.04 E25.06155
G1 X167.68 Y165.20 E25.17506
G1 X166.08 Y166.06 E25.28846
G1 X164.34 Y166.59 E25.40191
G1 X162.53 Y166.78 E25.51513
G1 X161.70 Y166.70 E25.56713
G1 X161.78 Y167.47 E25.61541
G1 X161.61 Y169.28 E25.72893
G1 X161.08 Y171.03 E25.84273
G1 X160.23 Y172.63 E25.95591
G1 X159.08 Y174.04 E26.06926
G1 X157.68 Y175.20 E26.18277
G1 X156.08 Y176.06 E26.29617
G1 X154.34 Y176.59 E26.40962
G1 X152.53 Y176.78 E26.52284
G1 X150.72 Y176.60 E26.63643
G1 X148.97 Y176.08 E26.75023
G1 X147.37 Y175.23 E26.86341
G1 X147.03 Y174.95 E26.89099
G1 X143.95 Y174.95 E27.08275
G1 X143.95 Y171.10 E27.32279
G1 X143.94 Y171.08 E27.32449
G1 X143.41 Y169.34 E27.43794
G1 X143.22 Y167.53 E27.55116
G1 X143.30 Y166.70 E27.60316
G1 X142.53 Y166.78 E27.65144
G1 X140.72 Y166.60 E27.76496
G1 X138.97 Y166.08 E27.87876
G1 X137.37 Y165.23 E27.99194
G1 X137.03 Y164.95 E28.01952
G1 X133.95 Y164.95 E28.21128
G1 X133.95 Y161.10 E28.45132
G1 X133.94 Y161.08 E28.45302
G1 X133.41 Y159.34 E28.56647
G1 X133.22 Y157.53 E28.67969
G1 X133.39 Y155.72 E28.79334
G1 X133.92 Y153.97 E28.90714
G1 X133.95 Y153.91 E28.91138
G1 X133.95 Y151.10 E29.08643
G1 X133.94 Y151.08 E29.08814
G1 X133.41 Y149.34 E29.20159
G1 X133.22 Y147.53 E29.31481
G1 X133.39 Y145.72 E29.42846
G1 X133.92 Y143.97 E29.54226
G1 X133.95 Y143.91 E29.54650
G1 X133.95 Y141.10 E29.72161
G1 X133.94 Y141.08 E29.72332
G1 X133.41 Y139.34 E29.83677
G1 X133.22 Y137.53 E29.94999
G1 X133.39 Y135.72 E30.06364
G1 X133.92 Y133.97 E30.17744
G1 X133.95 Y133.91 E30.18168
G1 X133.95 Y129.85 E30.43487
G0 F6000 X134.45 Y130.35
G1 F2700 X137.44 Y130.35 E30.62152
G1 X137.60 Y130.22 E30.63446
G1 X139.12 Y129.40 E30.74175
G1 X140.76 Y128.90 E30.84902
G1 X142.47 Y128.72 E30.95610
G1 X144.19 Y128.89 E31.06360
G1 X145.84 Y129.38 E31.17127
G1 X147.35 Y130.19 E31.27834
G1 X147.50 Y130.30 E31.28974
G1 X147.60 Y130.22 E31.29829
G1 X149.12 Y129.40 E31.40558
G1 X150.76 Y128.90 E31.51285
G1 X152.47 Y128.72 E31.61999
G1 X154.19 Y128.89 E31.72743
G1 X155.84 Y129.38 E31.83504
G1 X157.35 Y130.19 E31.94211
G1 X157.50 Y130.30 E31.95351
G1 X157.60 Y130.22 E31.96206
G1 X159.12 Y129.40 E32.06935
G1 X160.76 Y128.90 E32.17662
G1 X162.47 Y128.72 E32.28370
G1 X164.19 Y128.89 E32.39120
G1 X165.84 Y129.38 E32.49887
G1 X167.35 Y130.19 E32.60594
G1 X168.69 Y131.27 E32.71318
G1 X169.78 Y132.60 E32.82048
G1 X170.60 Y134.12 E32.92777
G1 X171.10 Y135.76 E33.03504
G1 X171.28 Y137.47 E33.14211
G1 X171.11 Y139.19 E33.24962
G1 X170.62 Y140.84 E33.35728
G1 X169.81 Y142.35 E33.46436
G1 X169.69 Y142.50 E33.47576
G1 X169.78 Y142.60 E33.48431
G1 X170.60 Y144.12 E33.59160
G1 X171.10 Y145.76 E33.69887
G1 X171.28 Y147.47 E33.80594
G1 X171.11 Y149.19 E33.91345
G1 X170.62 Y150.84 E34.02111
G1 X169.81 Y152.35 E34.12819
G1 X169.69 Y152.50 E34.13954
G1 X169.78 Y152.60 E34.14809
G1 X170.60 Y154.12 E34.25538
G1 X171.10 Y155.76 E34.36271
G1 X171.28 Y157.47 E34.46985
G1 X171.11 Y159.19 E34.57729
G1 X170.62 Y160.84 E34.68490
G1 X169.81 Y162.35 E34.79197
G1 X168.72 Y163.69 E34.89921
G1 X167.40 Y164.78 E35.00651
G1 X165.88 Y165.60 E35.11380
G1 X164.24 Y166.10 E35.22107
G1 X162.53 Y166.28 E35.32814
G1 X161.14 Y166.14 E35.41516
G1 X161.28 Y167.47 E35.49835
G1 X161.11 Y169.19 E35.60579
G1 X160.62 Y170.84 E35.71340
G1 X159.81 Y172.35 E35.82048
G1 X158.72 Y173.69 E35.92771
G1 X157.40 Y174.78 E36.03501
G1 X155.88 Y175.60 E36.14230
G1 X154.24 Y176.10 E36.24957
G1 X152.53 Y176.28 E36.35671
G1 X150.81 Y176.11 E36.46415
G1 X149.16 Y175.62 E36.57176
G1 X147.65 Y174.81 E36.67884
G1 X147.20 Y174.45 E36.71443
G1 X144.45 Y174.45 E36.88612
G1 X144.45 Y170.97 E37.10289
G1 X144.40 Y170.88 E37.10934
G1 X143.90 Y169.24 E37.21661
G1 X143.72 Y167.53 E37.32369
G1 X143.86 Y166.14 E37.41070
G1 X142.53 Y166.28 E37.49389
G1 X140.81 Y166.11 E37.60133
G1 X139.16 Y165.62 E37.70894
G1 X137.65 Y164.81 E37.81602
G1 X137.20 Y164.45 E37.85162
G1 X134.45 Y164.45 E38.02330
G1 X134.45 Y160.97 E38.24007
G1 X134.40 Y160.88 E38.24652
G1 X133.90 Y159.24 E38.35379
G1 X133.72 Y157.53 E38.46087
G1 X133.89 Y155.81 E38.56837
G1 X134.38 Y154.16 E38.67604
G1 X134.45 Y154.03 E38.68502
G1 X134.45 Y150.97 E38.87573
G1 X134.40 Y150.88 E38.88217
G1 X133.90 Y149.24 E38.98945
G1 X133.72 Y147.53 E39.09652
G1 X133.89 Y145.81 E39.20402
G1 X134.38 Y144.16 E39.31169
G1 X134.45 Y144.03 E39.32068
G1 X134.45 Y140.97 E39.51144
G1 X134.40 Y140.88 E39.51789
G1 X133.90 Y139.24 E39.62516
G1 X133.72 Y137.53 E39.73224
G1 X133.89 Y135.81 E39.83974
G1 X134.38 Y134.16 E39.94741
G1 X134.45 Y134.03 E39.95639
G1 X134.45 Y130.35 E40.18614
G0 F6000 X134.95 Y130.85
G1 F2700 X137.62 Y130.85 E40.35283
G1 X137.88 Y130.63 E40.37392
G1 X139.31 Y129.86 E40.47499
G1 X140.86 Y129.39 E40.57619
G1 X142.47 Y129.22 E40.67712
G1 X144.09 Y129.38 E40.77849
G1 X145.65 Y129.85 E40.87998
G1 X147.08 Y130.61 E40.98089
G1 X147.37 Y130.85 E41.00478
G1 X147.62 Y130.85 E41.02031
G1 X147.88 Y130.63 E41.04140
G1 X149.31 Y129.86 E41.14246
G1 X150.86 Y129.39 E41.24366
G1 X152.47 Y129.22 E41.34466
G1 X154.09 Y129.38 E41.44590
G1 X155.65 Y129.85 E41.54739
G1 X157.08 Y130.61 E41.64830
G1 X157.37 Y130.85 E41.67220
G1 X157.62 Y130.85 E41.68772
G1 X157.88 Y130.63 E41.70881
G1 X159.31 Y129.86 E41.80988
G1 X160.86 Y129.39 E41.91108
G1 X162.47 Y129.22 E42.01201
G1 X164.09 Y129.38 E42.11338
G1 X165.65 Y129.85 E42.21487
G1 X167.08 Y130.61 E42.31578
G1 X168.33 Y131.63 E42.41685
G1 X169.37 Y132.88 E42.51808
G1 X170.13 Y134.31 E42.61915
G1 X170.61 Y135.86 E42.72035
G1 X170.78 Y137.47 E42.82129
G1 X170.62 Y139.09 E42.92265
G1 X170.15 Y140.65 E43.02414
G1 X169.39 Y142.08 E43.12505
G1 X169.05 Y142.50 E43.15901
G1 X169.37 Y142.88 E43.19011
G1 X170.13 Y144.31 E43.29117
G1 X170.61 Y145.86 E43.39237
G1 X170.78 Y147.47 E43.49331
G1 X170.62 Y149.09 E43.59467
G1 X170.15 Y150.65 E43.69617
G1 X169.39 Y152.08 E43.79708
G1 X169.05 Y152.50 E43.83099
G1 X169.37 Y152.88 E43.86200
G1 X170.13 Y154.31 E43.96307
G1 X170.61 Y155.86 E44.06427
G1 X170.78 Y157.47 E44.16533
G1 X170.62 Y159.09 E44.26657
G1 X170.15 Y160.65 E44.36806
G1 X169.39 Y162.07 E44.46897
G1 X168.37 Y163.33 E44.57004
G1 X167.12 Y164.36 E44.67127
G1 X165.69 Y165.13 E44.77234
G1 X164.14 Y165.61 E44.87354
G1 X162.53 Y165.77 E44.97448
G1 X160.91 Y165.62 E45.07584
G1 X160.50 Y165.50 E45.10267
G1 X160.61 Y165.86 E45.12646
G1 X160.78 Y167.47 E45.22753
G1 X160.62 Y169.09 E45.32877
G1 X160.15 Y170.65 E45.43026
G1 X159.39 Y172.07 E45.53117
G1 X158.37 Y173.33 E45.63224
G1 X157.12 Y174.36 E45.73347
G1 X155.69 Y175.13 E45.83454
G1 X154.14 Y175.61 E45.93574
G1 X152.53 Y175.77 E46.03673
G1 X150.91 Y175.62 E46.13797
G1 X149.35 Y175.15 E46.23947
G1 X147.92 Y174.39 E46.34038
G1 X147.38 Y173.95 E46.38404
G1 X144.95 Y173.95 E46.53564
G1 X144.95 Y170.85 E46.72916
G1 X144.87 Y170.69 E46.74029
G1 X144.39 Y169.14 E46.84149
G1 X144.22 Y167.53 E46.94243
G1 X144.38 Y165.91 E47.04379
G1 X144.50 Y165.50 E47.07062
G1 X144.14 Y165.61 E47.09441
G1 X142.53 Y165.77 E47.19548
G1 X140.91 Y165.62 E47.29672
G1 X139.35 Y165.15 E47.39821
G1 X137.92 Y164.39 E47.49912
G1 X137.38 Y163.95 E47.54278
G1 X134.95 Y163.95 E47.69439
G1 X134.95 Y160.85 E47.88790
G1 X134.87 Y160.69 E47.89903
G1 X134.39 Y159.14 E48.00023
G1 X134.22 Y157.53 E48.10117
G1 X134.38 Y155.91 E48.20253
G1 X134.85 Y154.35 E48.30402
G1 X134.95 Y154.16 E48.31767
G1 X134.95 Y150.85 E48.52409
G1 X134.87 Y150.69 E48.53522
G1 X134.39 Y149.14 E48.63642
G1 X134.22 Y147.53 E48.73736
G1 X134.38 Y145.91 E48.83872
G1 X134.85 Y144.35 E48.94021
G1 X134.95 Y144.16 E48.95386
G1 X134.95 Y140.85 E49.16034
G1 X134.87 Y140.69 E49.17147
G1 X134.39 Y139.14 E49.27267
G1 X134.22 Y137.53 E49.37361
G1 X134.38 Y135.91 E49.47498
G1 X134.85 Y134.35 E49.57647
G1 X134.95 Y134.16 E49.59011
G1 X134.95 Y130.85 E49.79647
G0 F6000 X135.45 Y131.35
G1 F2700 X137.80 Y131.35 E49.94315
G1 X138.16 Y131.05 E49.97239
G1 X139.50 Y130.33 E50.06737
G1 X140.96 Y129.88 E50.16238
G1 X142.47 Y129.73 E50.25722
G1 X143.99 Y129.87 E50.35238
G1 X145.46 Y130.31 E50.44770
G1 X146.80 Y131.03 E50.54253
G1 X147.20 Y131.35 E50.57445
G1 X147.80 Y131.35 E50.61224
G1 X148.16 Y131.05 E50.64148
G1 X149.50 Y130.33 E50.73646
G1 X150.96 Y129.88 E50.83147
G1 X152.47 Y129.73 E50.92632
G1 X153.99 Y129.87 E51.02148
G1 X155.46 Y130.31 E51.11673
G1 X156.80 Y131.03 E51.21156
G1 X157.19 Y131.35 E51.24348
G1 X157.80 Y131.35 E51.28127
G1 X158.16 Y131.05 E51.31051
G1 X159.50 Y130.33 E51.40549
G1 X160.96 Y129.88 E51.50050
G1 X162.47 Y129.73 E51.59535
G1 X163.99 Y129.87 E51.69051
G1 X165.46 Y130.31 E51.78582
G1 X166.80 Y131.03 E51.88065
G1 X167.98 Y131.99 E51.97556
G1 X168.95 Y133.16 E52.07064
G1 X169.67 Y134.50 E52.16562
G1 X170.12 Y135.96 E52.26063
G1 X170.27 Y137.47 E52.35548
G1 X170.13 Y138.99 E52.45064
G1 X169.69 Y140.46 E52.54595
G1 X168.97 Y141.80 E52.64078
G1 X168.40 Y142.50 E52.69721
G1 X168.95 Y143.16 E52.75078
G1 X169.67 Y144.50 E52.84576
G1 X170.12 Y145.96 E52.94077
G1 X170.27 Y147.47 E53.03561
G1 X170.13 Y148.99 E53.13077
G1 X169.69 Y150.46 E53.22609
G1 X168.97 Y151.80 E53.32092
G1 X168.40 Y152.50 E53.37731
G1 X168.95 Y153.16 E53.43078
G1 X169.67 Y154.50 E53.52577
G1 X170.12 Y155.96 E53.62083
G1 X170.27 Y157.47 E53.71574
G1 X170.13 Y158.99 E53.81084
G1 X169.69 Y160.46 E53.90610
G1 X168.97 Y161.80 E54.00093
G1 X168.01 Y162.98 E54.09584
G1 X166.84 Y163.95 E54.19092
G1 X165.50 Y164.67 E54.28590
G1 X164.04 Y165.12 E54.38090
G1 X162.53 Y165.27 E54.47575
G1 X161.01 Y165.13 E54.57091
G1 X159.75 Y164.75 E54.65295
G1 X160.12 Y165.96 E54.73198
G1 X160.27 Y167.47 E54.82689
G1 X160.13 Y168.99 E54.92199
G1 X159.69 Y170.46 E55.01724
G1 X158.97 Y171.80 E55.11207
G1 X158.01 Y172.98 E55.20698
G1 X156.84 Y173.95 E55.30206
G1 X155.50 Y174.67 E55.39704
G1 X154.04 Y175.12 E55.49205
G1 X152.53 Y175.27 E55.58690
G1 X151.01 Y175.13 E55.68206
G1 X149.54 Y174.69 E55.77731
G1 X148.20 Y173.97 E55.87214
G1 X147.56 Y173.45 E55.92383
G1 X145.45 Y173.45 E56.05535
G1 X145.45 Y170.72 E56.22548
G1 X145.33 Y170.50 E56.24149
G1 X144.88 Y169.04 E56.33650
G1 X144.73 Y167.53 E56.43135
G1 X144.87 Y166.01 E56.52651
G1 X145.25 Y164.75 E56.60855
G1 X144.04 Y165.12 E56.68757
G1 X142.53 Y165.27 E56.78248
G1 X141.01 Y165.13 E56.87758
G1 X139.54 Y164.69 E56.97284
G1 X138.20 Y163.97 E57.06766
G1 X137.56 Y163.45 E57.11935
G1 X135.45 Y163.45 E57.25088
G1 X135.45 Y160.72 E57.42100
G1 X135.33 Y160.50 E57.43702
G1 X134.88 Y159.04 E57.53202
G1 X134.73 Y157.53 E57.62687
G1 X134.87 Y156.01 E57.72203
G1 X135.31 Y154.54 E57.81735
G1 X135.45 Y154.28 E57.83565
G1 X135.45 Y150.72 E58.05772
G1 X135.33 Y150.50 E58.07374
G1 X134.88 Y149.04 E58.16875
G1 X134.73 Y147.53 E58.26360
G1 X134.87 Y146.01 E58.35875
G1 X135.31 Y144.54 E58.45407
G1 X135.45 Y144.28 E58.47237
G1 X135.45 Y140.72 E58.69451
G1 X135.33 Y140.50 E58.71052
G1 X134.88 Y139.04 E58.80553
G1 X134.73 Y137.53 E58.90038
G1 X134.87 Y136.01 E58.99554
G1 X135.31 Y134.54 E59.09085
G1 X135.45 Y134.28 E59.10916
G1 X135.45 Y131.35 E59.29219
G0 F6000 X135.95 Y131.85
G1 F2700 X137.98 Y131.85 E59.41885
G1 X138.44 Y131.47 E59.45628
G1 X139.70 Y130.79 E59.54512
G1 X141.06 Y130.38 E59.63400
G1 X142.48 Y130.23 E59.72271
G1 X143.90 Y130.37 E59.81173
G1 X145.27 Y130.78 E59.90085
G1 X146.52 Y131.44 E59.98954
G1 X147.02 Y131.85 E60.02957
G1 X147.98 Y131.85 E60.08957
G1 X148.44 Y131.47 E60.12700
G1 X149.70 Y130.79 E60.21584
G1 X151.06 Y130.38 E60.30471
G1 X152.48 Y130.23 E60.39342
G1 X153.90 Y130.37 E60.48238
G1 X155.26 Y130.78 E60.57150
G1 X156.52 Y131.44 E60.66020
G1 X157.02 Y131.85 E60.70023
G1 X157.98 Y131.85 E60.76022
G1 X158.44 Y131.47 E60.79765
G1 X159.70 Y130.79 E60.88649
G1 X161.06 Y130.38 E60.97537
G1 X162.47 Y130.23 E61.06408
G1 X163.90 Y130.37 E61.15310
G1 X165.26 Y130.78 E61.24222
G1 X166.52 Y131.44 E61.33091
G1 X167.62 Y132.34 E61.41975
G1 X168.53 Y133.44 E61.50866
G1 X169.21 Y134.70 E61.59750
G1 X169.62 Y136.06 E61.68637
G1 X169.77 Y137.47 E61.77508
G1 X169.63 Y138.90 E61.86411
G1 X169.22 Y140.26 E61.95323
G1 X168.56 Y141.52 E62.04192
G1 X167.76 Y142.50 E62.12087
G1 X168.53 Y143.44 E62.19693
G1 X169.21 Y144.70 E62.28577
G1 X169.62 Y146.06 E62.37465
G1 X169.77 Y147.47 E62.46336
G1 X169.63 Y148.90 E62.55238
G1 X169.22 Y150.26 E62.64150
G1 X168.56 Y151.52 E62.73019
G1 X167.76 Y152.50 E62.80909
G1 X168.53 Y153.44 E62.88516
G1 X169.21 Y154.70 E62.97400
G1 X169.62 Y156.06 E63.06289
G1 X169.77 Y157.48 E63.15172
G1 X169.63 Y158.90 E63.24062
G1 X169.22 Y160.26 E63.32974
G1 X168.56 Y161.52 E63.41843
G1 X167.66 Y162.62 E63.50727
G1 X166.56 Y163.53 E63.59618
G1 X165.30 Y164.21 E63.68502
G1 X163.94 Y164.62 E63.77389
G1 X162.52 Y164.77 E63.86260
G1 X161.10 Y164.63 E63.95162
G1 X159.73 Y164.22 E64.04075
G1 X158.64 Y163.64 E64.11819
G1 X159.21 Y164.70 E64.19308
G1 X159.62 Y166.06 E64.28197
G1 X159.77 Y167.48 E64.37080
G1 X159.63 Y168.90 E64.45970
G1 X159.22 Y170.26 E64.54882
G1 X158.56 Y171.52 E64.63751
G1 X157.66 Y172.62 E64.72635
G1 X156.56 Y173.53 E64.81526
G1 X155.30 Y174.21 E64.90410
G1 X153.94 Y174.62 E64.99297
G1 X152.52 Y174.77 E65.08169
G1 X151.10 Y174.63 E65.17065
G1 X149.74 Y174.22 E65.25977
G1 X148.48 Y173.55 E65.34846
G1 X147.74 Y172.95 E65.40826
G1 X145.95 Y172.95 E65.51964
G1 X145.95 Y170.59 E65.66650
G1 X145.79 Y170.30 E65.68726
G1 X145.38 Y168.94 E65.77614
G1 X145.23 Y167.52 E65.86485
G1 X145.37 Y166.10 E65.95387
G1 X145.78 Y164.73 E66.04299
G1 X145.95 Y164.41 E66.06609
G1 X145.95 Y163.86 E66.10027
G1 X145.30 Y164.21 E66.14611
G1 X143.94 Y164.62 E66.23500
G1 X142.52 Y164.77 E66.32383
G1 X141.10 Y164.63 E66.41273
G1 X139.74 Y164.22 E66.50185
G1 X138.48 Y163.55 E66.59054
G1 X137.74 Y162.95 E66.65034
G1 X135.95 Y162.95 E66.76172
G1 X135.95 Y160.59 E66.90859
G1 X135.79 Y160.30 E66.92934
G1 X135.38 Y158.94 E67.01822
G1 X135.23 Y157.52 E67.10693
G1 X135.37 Y156.10 E67.19595
G1 X135.78 Y154.73 E67.28507
G1 X135.95 Y154.41 E67.30812
G1 X135.95 Y150.59 E67.54584
G1 X135.79 Y150.30 E67.56660
G1 X135.38 Y148.94 E67.65547
G1 X135.23 Y147.52 E67.74419
G1 X135.37 Y146.10 E67.83321
G1 X135.78 Y144.73 E67.92233
G1 X135.95 Y144.41 E67.94537
G1 X135.95 Y140.59 E68.18316
G1 X135.79 Y140.30 E68.20392
G1 X135.38 Y138.94 E68.29279
G1 X135.23 Y137.52 E68.38151
G1 X135.37 Y136.10 E68.47053
G1 X135.78 Y134.73 E68.55965
G1 X135.95 Y134.41 E68.58269
G1 X135.95 Y131.85 E68.74228
G0 F6000 X136.45 Y132.35
G1 F2700 X138.16 Y132.35 E68.84892
G1 X138.72 Y131.88 E68.89456
G1 X139.89 Y131.25 E68.97718
G1 X141.16 Y130.87 E69.05999
G1 X142.48 Y130.73 E69.14255
G1 X143.80 Y130.86 E69.22537
G1 X145.07 Y131.24 E69.30837
G1 X146.24 Y131.86 E69.39093
G1 X146.84 Y132.35 E69.43898
G1 X148.16 Y132.35 E69.52124
G1 X148.72 Y131.88 E69.56687
G1 X149.89 Y131.25 E69.64949
G1 X151.16 Y130.87 E69.73231
G1 X152.48 Y130.73 E69.81487
G1 X153.80 Y130.86 E69.89769
G1 X155.07 Y131.24 E69.98063
G1 X156.24 Y131.86 E70.06319
G1 X156.84 Y132.35 E70.11124
G1 X158.16 Y132.35 E70.19350
G1 X158.72 Y131.88 E70.23913
G1 X159.89 Y131.25 E70.32175
G1 X161.16 Y130.87 E70.40457
G1 X162.48 Y130.73 E70.48713
G1 X163.80 Y130.86 E70.56995
G1 X165.07 Y131.24 E70.65295
G1 X166.24 Y131.86 E70.73550
G1 X167.27 Y132.70 E70.81818
G1 X168.12 Y133.72 E70.90099
G1 X168.74 Y134.89 E70.98361
G1 X169.13 Y136.16 E71.06642
G1 X169.27 Y137.48 E71.14898
G1 X169.14 Y138.80 E71.23180
G1 X168.76 Y140.07 E71.31481
G1 X168.14 Y141.24 E71.39736
G1 X167.30 Y142.27 E71.48004
G1 X167.02 Y142.50 E71.50233
G1 X167.27 Y142.70 E71.52219
G1 X168.12 Y143.72 E71.60499
G1 X168.74 Y144.89 E71.68761
G1 X169.13 Y146.16 E71.77042
G1 X169.27 Y147.48 E71.85299
G1 X169.14 Y148.80 E71.93580
G1 X168.76 Y150.07 E72.01881
G1 X168.14 Y151.24 E72.10136
G1 X167.30 Y152.27 E72.18404
G1 X167.03 Y152.50 E72.20628
G1 X167.27 Y152.70 E72.22605
G1 X168.12 Y153.72 E72.30885
G1 X168.74 Y154.89 E72.39147
G1 X169.13 Y156.16 E72.47429
G1 X169.27 Y157.48 E72.55691
G1 X169.14 Y158.80 E72.63973
G1 X168.76 Y160.07 E72.72268
G1 X168.14 Y161.24 E72.80523
G1 X167.30 Y162.27 E72.88791
G1 X166.28 Y163.11 E72.97071
G1 X165.11 Y163.74 E73.05333
G1 X163.84 Y164.13 E73.13615
G1 X162.52 Y164.27 E73.21871
G1 X161.20 Y164.14 E73.30153
G1 X159.93 Y163.76 E73.38453
G1 X158.76 Y163.13 E73.46708
G1 X157.91 Y162.45 E73.53491
G1 X157.08 Y162.45 E73.58674
G1 X157.02 Y162.50 E73.59143
G1 X157.27 Y162.70 E73.61129
G1 X158.12 Y163.72 E73.69409
G1 X158.74 Y164.89 E73.77671
G1 X159.13 Y166.16 E73.85953
G1 X159.27 Y167.48 E73.94215
G1 X159.14 Y168.80 E74.02497
G1 X158.76 Y170.07 E74.10791
G1 X158.14 Y171.24 E74.19047
G1 X157.30 Y172.27 E74.27315
G1 X156.28 Y173.11 E74.35595
G1 X155.11 Y173.74 E74.43857
G1 X153.84 Y174.13 E74.52139
G1 X152.52 Y174.27 E74.60395
G1 X151.20 Y174.14 E74.68677
G1 X149.93 Y173.76 E74.76971
G1 X148.76 Y173.13 E74.85226
G1 X147.91 Y172.45 E74.92009
G1 X146.45 Y172.45 E75.01139
G1 X146.45 Y170.47 E75.13493
G1 X146.26 Y170.11 E75.16043
G1 X145.87 Y168.84 E75.24325
G1 X145.73 Y167.52 E75.32581
G1 X145.86 Y166.20 E75.40863
G1 X146.24 Y164.92 E75.49163
G1 X146.45 Y164.53 E75.51934
G1 X146.45 Y162.97 E75.61668
G1 X146.28 Y163.11 E75.63073
G1 X145.11 Y163.74 E75.71335
G1 X143.84 Y164.13 E75.79617
G1 X142.52 Y164.27 E75.87879
G1 X141.20 Y164.14 E75.96161
G1 X139.93 Y163.76 E76.04455
G1 X138.76 Y163.13 E76.12710
G1 X137.91 Y162.45 E76.19493
G1 X136.45 Y162.45 E76.28623
G1 X136.45 Y160.47 E76.40977
G1 X136.26 Y160.11 E76.43527
G1 X135.87 Y158.84 E76.51809
G1 X135.73 Y157.52 E76.60065
G1 X135.86 Y156.20 E76.68347
G1 X136.24 Y154.92 E76.76647
G1 X136.45 Y154.53 E76.79418
G1 X136.45 Y150.47 E77.04756
G1 X136.26 Y150.11 E77.07306
G1 X135.87 Y148.84 E77.15587
G1 X135.73 Y147.52 E77.23844
G1 X135.86 Y146.20 E77.32125
G1 X136.24 Y144.93 E77.40426
G1 X136.45 Y144.53 E77.43196
G1 X136.45 Y140.47 E77.68540
G1 X136.26 Y140.11 E77.71091
G1 X135.87 Y138.84 E77.79372
G1 X135.73 Y137.52 E77.87628
G1 X135.86 Y136.20 E77.95910
G1 X136.24 Y134.93 E78.04211
G1 X136.45 Y134.53 E78.06981
G1 X136.45 Y132.35 E78.20601
G0 F6000 X136.95 Y132.85
G1 F2700 X138.34 Y132.85 E78.29269
G1 X139.00 Y132.30 E78.34643
G1 X140.09 Y131.72 E78.42297
G1 X141.26 Y131.36 E78.49959
G1 X142.48 Y131.23 E78.57601
G1 X143.70 Y131.35 E78.65275
G1 X144.88 Y131.71 E78.72958
G1 X145.97 Y132.28 E78.80602
G1 X146.92 Y133.06 E78.88249
G1 X146.95 Y133.09 E78.88572
G1 X146.95 Y132.85 E78.90106
G1 X148.34 Y132.85 E78.98775
G1 X149.00 Y132.30 E79.04149
G1 X150.09 Y131.72 E79.11802
G1 X151.26 Y131.36 E79.19464
G1 X152.48 Y131.23 E79.27112
G1 X153.70 Y131.35 E79.34774
G1 X154.88 Y131.71 E79.42457
G1 X155.97 Y132.28 E79.50101
G1 X156.92 Y133.06 E79.57748
G1 X156.95 Y133.10 E79.58080
G1 X156.95 Y132.85 E79.59620
G1 X158.34 Y132.85 E79.68283
G1 X159.00 Y132.30 E79.73656
G1 X160.08 Y131.72 E79.81310
G1 X161.26 Y131.36 E79.88972
G1 X162.48 Y131.23 E79.96614
G1 X163.70 Y131.35 E80.04288
G1 X164.88 Y131.71 E80.11971
G1 X165.97 Y132.28 E80.19615
G1 X166.92 Y133.06 E80.27262
G1 X167.70 Y134.00 E80.34931
G1 X168.28 Y135.08 E80.42585
G1 X168.64 Y136.26 E80.50247
G1 X168.76 Y137.48 E80.57889
G1 X168.65 Y138.70 E80.65563
G1 X168.29 Y139.88 E80.73246
G1 X167.72 Y140.97 E80.80890
G1 X166.94 Y141.92 E80.88536
G1 X166.24 Y142.50 E80.94265
G1 X166.92 Y143.06 E80.99743
G1 X167.70 Y144.00 E81.07412
G1 X168.28 Y145.08 E81.15066
G1 X168.64 Y146.26 E81.22728
G1 X168.76 Y147.48 E81.30370
G1 X168.65 Y148.70 E81.38044
G1 X168.29 Y149.88 E81.45727
G1 X167.72 Y150.97 E81.53371
G1 X166.94 Y151.92 E81.61018
G1 X166.24 Y152.50 E81.66746
G1 X166.92 Y153.05 E81.72221
G1 X167.70 Y154.00 E81.79889
G1 X168.28 Y155.08 E81.87543
G1 X168.64 Y156.26 E81.95205
G1 X168.76 Y157.48 E82.02860
G1 X168.65 Y158.70 E82.10521
G1 X168.29 Y159.88 E82.18204
G1 X167.72 Y160.96 E82.25848
G1 X166.94 Y161.91 E82.33495
G1 X166.00 Y162.70 E82.41164
G1 X164.91 Y163.28 E82.48818
G1 X163.74 Y163.64 E82.56480
G1 X162.52 Y163.76 E82.64122
G1 X161.30 Y163.65 E82.71796
G1 X160.12 Y163.29 E82.79479
G1 X159.03 Y162.72 E82.87123
G1 X158.09 Y161.95 E82.94712
G1 X156.95 Y161.95 E83.01821
G1 X156.95 Y161.91 E83.02077
G1 X156.94 Y161.91 E83.02134
G1 X156.24 Y162.50 E83.07863
G1 X156.92 Y163.05 E83.13341
G1 X157.70 Y164.00 E83.21010
G1 X158.28 Y165.08 E83.28664
G1 X158.64 Y166.26 E83.36326
G1 X158.76 Y167.48 E83.43980
G1 X158.65 Y168.70 E83.51642
G1 X158.29 Y169.88 E83.59325
G1 X157.72 Y170.96 E83.66969
G1 X156.94 Y171.91 E83.74616
G1 X156.00 Y172.70 E83.82284
G1 X154.91 Y173.28 E83.89938
G1 X153.74 Y173.64 E83.97600
G1 X152.52 Y173.76 E84.05248
G1 X151.30 Y173.65 E84.12910
G1 X150.12 Y173.29 E84.20593
G1 X149.03 Y172.72 E84.28237
G1 X148.09 Y171.95 E84.35826
G1 X146.95 Y171.95 E84.42942
G1 X146.95 Y170.34 E84.52964
G1 X146.72 Y169.91 E84.55997
G1 X146.36 Y168.74 E84.63659
G1 X146.24 Y167.52 E84.71301
G1 X146.35 Y166.29 E84.78975
G1 X146.71 Y165.12 E84.86658
G1 X146.95 Y164.66 E84.89894
G1 X146.95 Y162.85 E85.01169
G1 X148.34 Y162.85 E85.09831
G1 X148.76 Y162.50 E85.13274
G1 X148.09 Y161.95 E85.18695
G1 X146.95 Y161.95 E85.25810
G1 X146.95 Y161.91 E85.26060
G1 X146.94 Y161.91 E85.26108
G1 X146.00 Y162.70 E85.33777
G1 X144.92 Y163.28 E85.41431
G1 X143.74 Y163.64 E85.49093
G1 X142.52 Y163.76 E85.56747
G1 X141.30 Y163.65 E85.64409
G1 X140.12 Y163.29 E85.72092
G1 X139.03 Y162.72 E85.79736
G1 X138.09 Y161.95 E85.87325
G1 X136.95 Y161.95 E85.94441
G1 X136.95 Y160.34 E86.04463
G1 X136.72 Y159.91 E86.07496
G1 X136.36 Y158.74 E86.15158
G1 X136.24 Y157.52 E86.22800
G1 X136.35 Y156.29 E86.30474
G1 X136.71 Y155.12 E86.38157
G1 X136.95 Y154.66 E86.41393
G1 X136.95 Y152.85 E86.52668
G1 X138.34 Y152.85 E86.61330
G1 X138.76 Y152.50 E86.64772
G1 X138.09 Y151.95 E86.70198
G1 X136.95 Y151.95 E86.77308
G1 X136.95 Y150.34 E86.87323
G1 X136.72 Y149.91 E86.90356
G1 X136.36 Y148.74 E86.98018
G1 X136.24 Y147.52 E87.05660
G1 X136.35 Y146.30 E87.13334
G1 X136.71 Y145.12 E87.21017
G1 X136.95 Y144.66 E87.24254
G1 X136.95 Y142.85 E87.35535
G1 X138.34 Y142.85 E87.44203
G1 X138.76 Y142.50 E87.47637
G1 X138.09 Y141.95 E87.53067
G1 X136.95 Y141.95 E87.60176
G1 X136.95 Y140.34 E87.70192
G1 X136.72 Y139.91 E87.73225
G1 X136.36 Y138.74 E87.80887
G1 X136.24 Y137.52 E87.88529
G1 X136.35 Y136.30 E87.96203
G1 X136.71 Y135.12 E88.03886
G1 X136.95 Y134.66 E88.07122
G1 X136.95 Y132.85 E88.18403
G0 F6000 X137.45 Y133.35
G1 F2700 X138.52 Y133.35 E88.25076
G1 X139.28 Y132.72 E88.31260
G1 X140.28 Y132.18 E88.38303
G1 X141.36 Y131.85 E88.45352
G1 X142.48 Y131.74 E88.52379
G1 X143.61 Y131.84 E88.59439
G1 X144.69 Y132.17 E88.66502
G1 X145.69 Y132.70 E88.73533
G1 X146.56 Y133.41 E88.80572
G1 X147.28 Y134.28 E88.87620
G1 X147.45 Y134.59 E88.89824
G1 X147.45 Y133.35 E88.97595
G1 X148.52 Y133.35 E89.04268
G1 X149.28 Y132.72 E89.10452
G1 X150.28 Y132.18 E89.17495
G1 X151.36 Y131.85 E89.24543
G1 X152.48 Y131.74 E89.31571
G1 X153.61 Y131.84 E89.38624
G1 X154.69 Y132.17 E89.45688
G1 X155.69 Y132.70 E89.52718
G1 X156.56 Y133.41 E89.59757
G1 X157.28 Y134.28 E89.66805
G1 X157.45 Y134.60 E89.69024
G1 X157.45 Y133.35 E89.76807
G1 X158.52 Y133.35 E89.83473
G1 X159.28 Y132.72 E89.89657
G1 X160.28 Y132.18 E89.96700
G1 X161.36 Y131.85 E90.03749
G1 X162.48 Y131.74 E90.10776
G1 X163.61 Y131.84 E90.17836
G1 X164.69 Y132.17 E90.24899
G1 X165.69 Y132.70 E90.31930
G1 X166.56 Y133.41 E90.38969
G1 X167.28 Y134.28 E90.46017
G1 X167.82 Y135.28 E90.53060
G1 X168.15 Y136.36 E90.60108
G1 X168.26 Y137.48 E90.67136
G1 X168.16 Y138.61 E90.74196
G1 X167.83 Y139.69 E90.81259
G1 X167.30 Y140.69 E90.88290
G1 X166.59 Y141.56 E90.95329
G1 X165.72 Y142.28 E91.02377
G1 X165.31 Y142.50 E91.05240
G1 X165.69 Y142.70 E91.07896
G1 X166.56 Y143.41 E91.14935
G1 X167.28 Y144.28 E91.21983
G1 X167.82 Y145.28 E91.29025
G1 X168.15 Y146.36 E91.36074
G1 X168.26 Y147.48 E91.43102
G1 X168.16 Y148.61 E91.50161
G1 X167.83 Y149.69 E91.57225
G1 X167.30 Y150.69 E91.64255
G1 X166.59 Y151.56 E91.71294
G1 X165.72 Y152.28 E91.78343
G1 X165.31 Y152.50 E91.81197
G1 X165.69 Y152.70 E91.83847
G1 X166.56 Y153.41 E91.90886
G1 X167.28 Y154.28 E91.97935
G1 X167.82 Y155.28 E92.04977
G1 X168.15 Y156.36 E92.12026
G1 X168.26 Y157.48 E92.19066
G1 X168.16 Y158.61 E92.26113
G1 X167.83 Y159.69 E92.33177
G1 X167.30 Y160.69 E92.40207
G1 X166.59 Y161.56 E92.47246
G1 X165.72 Y162.28 E92.54294
G1 X164.72 Y162.82 E92.61337
G1 X163.64 Y163.15 E92.68385
G1 X162.52 Y163.26 E92.75413
G1 X161.39 Y163.15 E92.82473
G1 X160.31 Y162.83 E92.89536
G1 X159.31 Y162.30 E92.96567
G1 X158.44 Y161.59 E93.03606
G1 X158.32 Y161.45 E93.04713
G1 X157.45 Y161.45 E93.10164
G1 X157.45 Y160.40 E93.16681
G1 X157.30 Y160.69 E93.18673
G1 X156.59 Y161.56 E93.25712
G1 X155.72 Y162.28 E93.32760
G1 X155.31 Y162.50 E93.35623
G1 X155.69 Y162.70 E93.38279
G1 X156.56 Y163.41 E93.45317
G1 X157.28 Y164.28 E93.52366
G1 X157.82 Y165.28 E93.59408
G1 X158.15 Y166.36 E93.66457
G1 X158.26 Y167.48 E93.73497
G1 X158.16 Y168.61 E93.80544
G1 X157.83 Y169.69 E93.87608
G1 X157.30 Y170.69 E93.94638
G1 X156.59 Y171.56 E94.01677
G1 X155.72 Y172.28 E94.08725
G1 X154.72 Y172.82 E94.15768
G1 X153.64 Y173.15 E94.22817
G1 X152.52 Y173.26 E94.29844
G1 X151.39 Y173.15 E94.36898
G1 X150.31 Y172.83 E94.43961
G1 X149.31 Y172.30 E94.50992
G1 X148.44 Y171.59 E94.58031
G1 X148.32 Y171.45 E94.59138
G1 X147.45 Y171.45 E94.64595
G1 X147.45 Y170.22 E94.72290
G1 X147.18 Y169.72 E94.75798
G1 X146.85 Y168.64 E94.82846
G1 X146.74 Y167.52 E94.89874
G1 X146.84 Y166.39 E94.96934
G1 X147.17 Y165.31 E95.03997
G1 X147.45 Y164.78 E95.07713
G1 X147.45 Y163.35 E95.16637
G1 X148.52 Y163.35 E95.23304
G1 X149.28 Y162.72 E95.29497
G1 X149.69 Y162.50 E95.32360
G1 X149.31 Y162.30 E95.35016
G1 X148.44 Y161.59 E95.42055
G1 X148.32 Y161.45 E95.43162
G1 X147.45 Y161.45 E95.48619
G1 X147.45 Y160.41 E95.55123
G1 X147.30 Y160.69 E95.57101
G1 X146.59 Y161.56 E95.64140
G1 X145.72 Y162.28 E95.71189
G1 X144.72 Y162.82 E95.78231
G1 X143.64 Y163.15 E95.85280
G1 X142.52 Y163.26 E95.92320
G1 X141.39 Y163.15 E95.99367
G1 X140.31 Y162.83 E96.06431
G1 X139.31 Y162.30 E96.13461
G1 X138.44 Y161.59 E96.20500
G1 X138.32 Y161.45 E96.21608
G1 X137.45 Y161.45 E96.27064
G1 X137.45 Y160.22 E96.34760
G1 X137.18 Y159.72 E96.38267
G1 X136.85 Y158.64 E96.45316
G1 X136.74 Y157.52 E96.52343
G1 X136.84 Y156.39 E96.59403
G1 X137.17 Y155.31 E96.66467
G1 X137.45 Y154.78 E96.70183
G1 X137.45 Y153.35 E96.79107
G1 X138.52 Y153.35 E96.85773
G1 X139.28 Y152.72 E96.91966
G1 X139.69 Y152.50 E96.94821
G1 X139.31 Y152.30 E96.97471
G1 X138.44 Y151.59 E97.04510
G1 X138.32 Y151.45 E97.05627
G1 X137.45 Y151.45 E97.11077
G1 X137.45 Y150.22 E97.18766
G1 X137.18 Y149.72 E97.22274
G1 X136.85 Y148.64 E97.29322
G1 X136.74 Y147.52 E97.36350
G1 X136.84 Y146.39 E97.43410
G1 X137.17 Y145.31 E97.50473
G1 X137.45 Y144.78 E97.54189
G1 X137.45 Y143.35 E97.63120
G1 X138.52 Y143.35 E97.69792
G1 X139.28 Y142.72 E97.75977
G1 X139.69 Y142.50 E97.78840
G1 X139.31 Y142.30 E97.81495
G1 X138.44 Y141.59 E97.88534
G1 X138.32 Y141.45 E97.89651
G1 X137.45 Y141.45 E97.95101
G1 X137.45 Y140.22 E98.02791
G1 X137.18 Y139.72 E98.06298
G1 X136.85 Y138.64 E98.13346
G1 X136.74 Y137.52 E98.20374
G1 X136.84 Y136.39 E98.27434
G1 X137.17 Y135.31 E98.34497
G1 X137.45 Y134.78 E98.38213
G1 X137.45 Y133.35 E98.47144
G0 F6000 X137.95 Y133.85
G1 F2700 X138.72 Y133.85 E98.51958
G1 X138.77 Y133.79 E98.52424
G1 X139.57 Y133.13 E98.58861
G1 X140.47 Y132.65 E98.65282
G1 X141.46 Y132.34 E98.71718
G1 X142.48 Y132.24 E98.78138
G1 X143.51 Y132.34 E98.84578
G1 X144.50 Y132.63 E98.91024
G1 X145.41 Y133.12 E98.97446
G1 X146.21 Y133.77 E99.03869
G1 X146.87 Y134.56 E99.10307
G1 X147.35 Y135.47 E99.16727
G1 X147.50 Y135.95 E99.19844
G1 X147.63 Y135.50 E99.22774
G1 X147.95 Y134.91 E99.26956
G1 X147.95 Y133.85 E99.33554
G1 X148.72 Y133.85 E99.38368
G1 X148.77 Y133.79 E99.38834
G1 X149.57 Y133.13 E99.45271
G1 X150.47 Y132.65 E99.51692
G1 X151.46 Y132.34 E99.58129
G1 X152.48 Y132.24 E99.64548
G1 X153.51 Y132.34 E99.70982
G1 X154.50 Y132.63 E99.77428
G1 X155.41 Y133.12 E99.83850
G1 X156.21 Y133.77 E99.90273
G1 X156.86 Y134.56 E99.96711
G1 X157.35 Y135.47 E100.03131
G1 X157.50 Y135.95 E100.06248
G1 X157.63 Y135.50 E100.09178
G1 X157.95 Y134.91 E100.13368
G1 X157.95 Y133.85 E100.19960
G1 X158.72 Y133.85 E100.24768
G1 X158.77 Y133.79 E100.25234
G1 X159.56 Y133.13 E100.31671
G1 X160.47 Y132.65 E100.38092
G1 X161.46 Y132.34 E100.44529
G1 X162.48 Y132.24 E100.50948
G1 X163.51 Y132.34 E100.57388
G1 X164.50 Y132.63 E100.63834
G1 X165.41 Y133.12 E100.70256
G1 X166.21 Y133.77 E100.76679
G1 X166.86 Y134.56 E100.83117
G1 X167.35 Y135.47 E100.89537
G1 X167.66 Y136.46 E100.95974
G1 X167.76 Y137.48 E101.02394
G1 X167.66 Y138.51 E101.08834
G1 X167.37 Y139.50 E101.15279
G1 X166.88 Y140.41 E101.21702
G1 X166.23 Y141.21 E101.28125
G1 X165.43 Y141.86 E101.34562
G1 X164.53 Y142.35 E101.40983
G1 X164.05 Y142.50 E101.44100
G1 X164.50 Y142.63 E101.47030
G1 X165.41 Y143.12 E101.53452
G1 X166.21 Y143.77 E101.59875
G1 X166.86 Y144.56 E101.66313
G1 X167.35 Y145.47 E101.72733
G1 X167.66 Y146.46 E101.79170
G1 X167.76 Y147.48 E101.85590
G1 X167.66 Y148.51 E101.92029
G1 X167.37 Y149.50 E101.98475
G1 X166.88 Y150.41 E102.04898
G1 X166.23 Y151.21 E102.11321
G1 X165.43 Y151.86 E102.17758
G1 X164.53 Y152.35 E102.24179
G1 X164.05 Y152.50 E102.27282
G1 X164.50 Y152.63 E102.30200
G1 X165.41 Y153.12 E102.36622
G1 X166.21 Y153.77 E102.43046
G1 X166.86 Y154.56 E102.49483
G1 X167.35 Y155.47 E102.55903
G1 X167.66 Y156.46 E102.62340
G1 X167.76 Y157.48 E102.68766
G1 X167.66 Y158.51 E102.75200
G1 X167.37 Y159.50 E102.81645
G1 X166.88 Y160.41 E102.88068
G1 X166.23 Y161.21 E102.94491
G1 X165.43 Y161.86 E103.00928
G1 X164.53 Y162.35 E103.07349
G1 X163.54 Y162.65 E103.13786
G1 X162.52 Y162.76 E103.20205
G1 X161.49 Y162.66 E103.26645
G1 X160.50 Y162.36 E103.33091
G1 X159.59 Y161.88 E103.39513
G1 X158.79 Y161.23 E103.45937
G1 X158.56 Y160.95 E103.48205
G1 X157.95 Y160.95 E103.52009
G1 X157.95 Y160.09 E103.57366
G1 X157.65 Y159.53 E103.61356
G1 X157.50 Y159.05 E103.64473
G1 X157.37 Y159.50 E103.67403
G1 X156.88 Y160.41 E103.73825
G1 X156.23 Y161.21 E103.80249
G1 X155.43 Y161.86 E103.86686
G1 X154.53 Y162.35 E103.93107
G1 X154.05 Y162.50 E103.96224
G1 X154.50 Y162.63 E103.99154
G1 X155.41 Y163.12 E104.05576
G1 X156.21 Y163.77 E104.11999
G1 X156.86 Y164.56 E104.18437
G1 X157.35 Y165.47 E104.24857
G1 X157.66 Y166.46 E104.31294
G1 X157.76 Y167.48 E104.37720
G1 X157.66 Y168.51 E104.44153
G1 X157.37 Y169.50 E104.50599
G1 X156.88 Y170.41 E104.57021
G1 X156.23 Y171.21 E104.63445
G1 X155.43 Y171.86 E104.69882
G1 X154.53 Y172.35 E104.76303
G1 X153.54 Y172.65 E104.82740
G1 X152.52 Y172.76 E104.89159
G1 X151.49 Y172.66 E104.95593
G1 X150.50 Y172.36 E105.02038
G1 X149.59 Y171.88 E105.08461
G1 X148.79 Y171.23 E105.14884
G1 X148.56 Y170.95 E105.17153
G1 X147.95 Y170.95 E105.20963
G1 X147.95 Y170.09 E105.26332
G1 X147.65 Y169.53 E105.30309
G1 X147.34 Y168.54 E105.36746
G1 X147.24 Y167.52 E105.43165
G1 X147.34 Y166.49 E105.49605
G1 X147.63 Y165.50 E105.56051
G1 X147.95 Y164.91 E105.60233
G1 X147.95 Y163.85 E105.66824
G1 X148.72 Y163.85 E105.71633
G1 X148.77 Y163.79 E105.72107
G1 X149.57 Y163.13 E105.78544
G1 X150.47 Y162.65 E105.84965
G1 X150.95 Y162.50 E105.88082
G1 X150.50 Y162.36 E105.91012
G1 X149.59 Y161.88 E105.97434
G1 X148.79 Y161.23 E106.03857
G1 X148.56 Y160.95 E106.06126
G1 X147.95 Y160.95 E106.09936
G1 X147.95 Y160.09 E106.15306
G1 X147.65 Y159.53 E106.19282
G1 X147.50 Y159.05 E106.22399
G1 X147.37 Y159.50 E106.25329
G1 X146.88 Y160.41 E106.31751
G1 X146.23 Y161.21 E106.38174
G1 X145.44 Y161.86 E106.44612
G1 X144.53 Y162.35 E106.51032
G1 X143.54 Y162.65 E106.57469
G1 X142.52 Y162.76 E106.63895
G1 X141.49 Y162.66 E106.70328
G1 X140.50 Y162.36 E106.76774
G1 X139.59 Y161.88 E106.83196
G1 X138.79 Y161.23 E106.89620
G1 X138.56 Y160.95 E106.91888
G1 X137.95 Y160.95 E106.95699
G1 X137.95 Y160.09 E107.01068
G1 X137.65 Y159.53 E107.05044
G1 X137.34 Y158.54 E107.11481
G1 X137.24 Y157.52 E107.17901
G1 X137.34 Y156.49 E107.24341
G1 X137.63 Y155.50 E107.30786
G1 X137.95 Y154.91 E107.34968
G1 X137.95 Y153.85 E107.41560
G1 X138.72 Y153.85 E107.46368
G1 X138.77 Y153.79 E107.46843
G1 X139.57 Y153.13 E107.53280
G1 X140.47 Y152.65 E107.59700
G1 X140.95 Y152.50 E107.62805
G1 X140.50 Y152.37 E107.65722
G1 X139.59 Y151.88 E107.72144
G1 X138.79 Y151.23 E107.78567
G1 X138.56 Y150.95 E107.80844
G1 X137.95 Y150.95 E107.84649
G1 X137.95 Y150.09 E107.90012
G1 X137.65 Y149.53 E107.93988
G1 X137.34 Y148.54 E108.00425
G1 X137.24 Y147.52 E108.06844
G1 X137.34 Y146.49 E108.13284
G1 X137.63 Y145.50 E108.19730
G1 X137.95 Y144.91 E108.23912
G1 X137.95 Y143.85 E108.30510
G1 X138.72 Y143.85 E108.35324
G1 X138.77 Y143.79 E108.35790
G1 X139.57 Y143.13 E108.42227
G1 X140.47 Y142.65 E108.48648
G1 X140.95 Y142.50 E108.51765
G1 X140.50 Y142.37 E108.54695
G1 X139.59 Y141.88 E108.61117
G1 X138.79 Y141.23 E108.67540
G1 X138.56 Y140.95 E108.69818
G1 X137.95 Y140.95 E108.73622
G1 X137.95 Y140.09 E108.78985
G1 X137.65 Y139.53 E108.82961
G1 X137.34 Y138.54 E108.89398
G1 X137.24 Y137.52 E108.95817
G1 X137.34 Y136.49 E109.02257
G1 X137.63 Y135.50 E109.08703
G1 X137.95 Y134.91 E109.12885
G1 X137.95 Y133.85 E109.19483
G0 F6000 X138.45 Y134.35
G1 F2700 X138.96 Y134.35 E109.22664
G1 X139.13 Y134.15 E109.24304
G1 X139.85 Y133.55 E109.30121
G1 X140.67 Y133.11 E109.35933
G1 X141.56 Y132.84 E109.41755
G1 X142.49 Y132.74 E109.47560
G1 X143.41 Y132.83 E109.53387
G1 X144.31 Y133.10 E109.59215
G1 X145.13 Y133.54 E109.65020
G1 X145.85 Y134.12 E109.70836
G1 X146.45 Y134.84 E109.76653
G1 X146.89 Y135.66 E109.82465
G1 X147.16 Y136.56 E109.88295
G1 X147.26 Y137.48 E109.94092
G1 X147.17 Y138.41 E109.99905
G1 X146.90 Y139.31 E110.05745
G1 X146.46 Y140.13 E110.11551
G1 X145.88 Y140.85 E110.17366
G1 X145.16 Y141.45 E110.23183
G1 X144.34 Y141.89 E110.28996
G1 X143.44 Y142.16 E110.34825
G1 X142.51 Y142.26 E110.40629
G1 X141.59 Y142.17 E110.46435
G1 X140.69 Y141.90 E110.52275
G1 X139.87 Y141.46 E110.58081
G1 X139.15 Y140.87 E110.63897
G1 X138.80 Y140.45 E110.67330
G1 X138.45 Y140.45 E110.69488
G1 X138.45 Y139.96 E110.72519
G1 X138.11 Y139.33 E110.76978
G1 X137.84 Y138.44 E110.82799
G1 X137.74 Y137.51 E110.88605
G1 X137.83 Y136.59 E110.94431
G1 X138.10 Y135.69 E111.00259
G1 X138.45 Y135.03 E111.04907
G1 X138.45 Y134.35 E111.09167
G0 F6000 X138.95 Y134.85
G1 F2700 X139.20 Y134.85 E111.10707
G1 X139.48 Y134.50 E111.13522
G1 X140.13 Y133.97 E111.18723
G1 X140.86 Y133.57 E111.23924
G1 X141.66 Y133.33 E111.29128
G1 X142.49 Y133.24 E111.34325
G1 X143.32 Y133.32 E111.39531
G1 X144.12 Y133.56 E111.44745
G1 X144.85 Y133.96 E111.49940
G1 X145.50 Y134.48 E111.55140
G1 X146.03 Y135.12 E111.60342
G1 X146.43 Y135.86 E111.65543
G1 X146.67 Y136.66 E111.70753
G1 X146.75 Y137.49 E111.75943
G1 X146.68 Y138.32 E111.81142
G1 X146.44 Y139.12 E111.86362
G1 X146.04 Y139.85 E111.91557
G1 X145.52 Y140.50 E111.96757
G1 X144.88 Y141.03 E112.01959
G1 X144.14 Y141.43 E112.07160
G1 X143.34 Y141.67 E112.12370
G1 X142.51 Y141.75 E112.17566
G1 X141.68 Y141.68 E112.22759
G1 X140.88 Y141.44 E112.27979
G1 X140.15 Y141.04 E112.33174
G1 X139.50 Y140.52 E112.38374
G1 X139.03 Y139.95 E112.42969
G1 X138.95 Y139.95 E112.43480
G1 X138.95 Y139.84 E112.44179
G1 X138.57 Y139.14 E112.49117
G1 X138.33 Y138.34 E112.54321
G1 X138.25 Y137.51 E112.59518
G1 X138.32 Y136.68 E112.64724
G1 X138.56 Y135.88 E112.69939
G1 X138.95 Y135.16 E112.75055
G1 X138.95 Y134.85 E112.76976
G0 F6000 X139.37 Y135.42
G1 F2700 X139.84 Y134.85 E112.81560
G1 X140.41 Y134.39 E112.86154
G1 X141.05 Y134.04 E112.90733
G1 X141.76 Y133.82 E112.95332
G1 X142.49 Y133.75 E112.99908
G1 X143.22 Y133.82 E113.04506
G1 X143.93 Y134.03 E113.09103
G1 X144.58 Y134.37 E113.13681
G1 X145.15 Y134.84 E113.18265
G1 X145.61 Y135.41 E113.22859
G1 X145.96 Y136.05 E113.27438
G1 X146.18 Y136.76 E113.32037
G1 X146.25 Y137.49 E113.36612
G1 X146.18 Y138.22 E113.41204
G1 X145.97 Y138.93 E113.45807
G1 X145.63 Y139.57 E113.50385
G1 X145.16 Y140.15 E113.54969
G1 X144.59 Y140.61 E113.59563
G1 X143.95 Y140.96 E113.64142
G1 X143.24 Y141.18 E113.68740
G1 X142.51 Y141.25 E113.73322
G1 X141.78 Y141.18 E113.77908
G1 X141.07 Y140.97 E113.82511
G1 X140.43 Y140.63 E113.87089
G1 X139.85 Y140.16 E113.91672
G1 X139.39 Y139.59 E113.96267
G1 X139.04 Y138.95 E114.00846
G1 X138.82 Y138.24 E114.05444
G1 X138.75 Y137.51 E114.10020
G1 X138.82 Y136.78 E114.14619
G1 X139.03 Y136.07 E114.19216
G1 X139.37 Y135.42 E114.23794
G0 F6000 X139.79 Y135.70
G1 F2700 X140.19 Y135.21 E114.27766
G1 X140.69 Y134.80 E114.31740
G1 X141.25 Y134.50 E114.35711
G1 X141.86 Y134.31 E114.39688
G1 X142.49 Y134.25 E114.43656
G1 X143.12 Y134.31 E114.47634
G1 X143.74 Y134.49 E114.51619
G1 X144.30 Y134.79 E114.55583
G1 X144.79 Y135.19 E114.59555
G1 X145.20 Y135.69 E114.63529
G1 X145.50 Y136.25 E114.67500
G1 X145.69 Y136.86 E114.71477
G1 X145.75 Y137.49 E114.75445
G1 X145.69 Y138.12 E114.79422
G1 X145.51 Y138.74 E114.83407
G1 X145.21 Y139.30 E114.87372
G1 X144.81 Y139.79 E114.91344
G1 X144.31 Y140.20 E114.95318
G1 X143.75 Y140.50 E114.99288
G1 X143.14 Y140.69 E115.03265
G1 X142.51 Y140.75 E115.07239
G1 X141.88 Y140.69 E115.11210
G1 X141.26 Y140.51 E115.15196
G1 X140.70 Y140.21 E115.19160
G1 X140.21 Y139.81 E115.23132
G1 X139.80 Y139.31 E115.27106
G1 X139.50 Y138.75 E115.31077
G1 X139.31 Y138.14 E115.35054
G1 X139.25 Y137.51 E115.39022
G1 X139.31 Y136.88 E115.43000
G1 X139.49 Y136.26 E115.46985
G1 X139.79 Y135.70 E115.50950
G0 F6000 X141.56 Y142.84
G1 F2700 X142.49 Y142.74 E115.56755
G1 X143.41 Y142.83 E115.62582
G1 X144.31 Y143.10 E115.68410
G1 X145.13 Y143.54 E115.74215
G1 X145.85 Y144.12 E115.80031
G1 X146.45 Y144.84 E115.85848
G1 X146.89 Y145.66 E115.91660
G1 X147.16 Y146.56 E115.97490
G1 X147.26 Y147.48 E116.03287
G1 X147.17 Y148.41 E116.09100
G1 X146.90 Y149.31 E116.14940
G1 X146.46 Y150.13 E116.20745
G1 X145.88 Y150.85 E116.26561
G1 X145.16 Y151.45 E116.32378
G1 X144.34 Y151.89 E116.38190
G1 X143.44 Y152.16 E116.44020
G1 X142.51 Y152.26 E116.49824
G1 X141.59 Y152.17 E116.55630
G1 X140.69 Y151.90 E116.61470
G1 X139.87 Y151.46 E116.67276
G1 X139.15 Y150.87 E116.73091
G1 X138.80 Y150.45 E116.76525
G1 X138.45 Y150.45 E116.78683
G1 X138.45 Y149.96 E116.81713
G1 X138.11 Y149.33 E116.86172
G1 X137.84 Y148.44 E116.91994
G1 X137.74 Y147.51 E116.97800
G1 X137.83 Y146.59 E117.03626
G1 X138.10 Y145.69 E117.09454
G1 X138.45 Y145.03 E117.14102
G1 X138.45 Y144.35 E117.18361
G1 X138.96 Y144.35 E117.21542
G1 X139.13 Y144.15 E117.23182
G1 X139.85 Y143.55 E117.28999
G1 X140.67 Y143.11 E117.34811
G1 X141.56 Y142.84 E117.40633
G0 F6000 X141.66 Y143.33
G1 F2700 X142.49 Y143.24 E117.45830
G1 X143.32 Y143.32 E117.51036
G1 X144.12 Y143.56 E117.56250
G1 X144.85 Y143.96 E117.61445
G1 X145.50 Y144.48 E117.66645
G1 X146.03 Y145.12 E117.71846
G1 X146.43 Y145.86 E117.77048
G1 X146.67 Y146.66 E117.82258
G1 X146.75 Y147.49 E117.87448
G1 X146.68 Y148.32 E117.92647
G1 X146.44 Y149.12 E117.97867
G1 X146.04 Y149.85 E118.03062
G1 X145.52 Y150.50 E118.08262
G1 X144.88 Y151.03 E118.13463
G1 X144.14 Y151.43 E118.18665
G1 X143.34 Y151.67 E118.23875
G1 X142.51 Y151.75 E118.29071
G1 X141.68 Y151.68 E118.34264
G1 X140.88 Y151.44 E118.39484
G1 X140.15 Y151.04 E118.44679
G1 X139.50 Y150.52 E118.49879
G1 X139.03 Y149.95 E118.54474
G1 X138.95 Y149.95 E118.54985
G1 X138.95 Y149.84 E118.55683
G1 X138.57 Y149.14 E118.60622
G1 X138.33 Y148.34 E118.65826
G1 X138.25 Y147.51 E118.71023
G1 X138.32 Y146.68 E118.76229
G1 X138.56 Y145.88 E118.81444
G1 X138.95 Y145.16 E118.86560
G1 X138.95 Y144.85 E118.88481
G1 X139.20 Y144.85 E118.90021
G1 X139.48 Y144.50 E118.92836
G1 X140.13 Y143.97 E118.98038
G1 X140.86 Y143.57 E119.03239
G1 X141.66 Y143.33 E119.08443
G0 F6000 X141.76 Y143.82
G1 F2700 X142.49 Y143.75 E119.13019
G1 X143.22 Y143.82 E119.17617
G1 X143.93 Y144.03 E119.22214
G1 X144.58 Y144.37 E119.26792
G1 X145.15 Y144.84 E119.31376
G1 X145.61 Y145.41 E119.35970
G1 X145.96 Y146.05 E119.40549
G1 X146.18 Y146.76 E119.45148
G1 X146.25 Y147.49 E119.49724
G1 X146.18 Y148.22 E119.54315
G1 X145.97 Y148.93 E119.58918
G1 X145.63 Y149.57 E119.63496
G1 X145.16 Y150.15 E119.68080
G1 X144.59 Y150.61 E119.72674
G1 X143.95 Y150.96 E119.77253
G1 X143.24 Y151.18 E119.81851
G1 X142.51 Y151.25 E119.86433
G1 X141.78 Y151.18 E119.91019
G1 X141.07 Y150.97 E119.95622
G1 X140.43 Y150.63 E120.00200
G1 X139.85 Y150.16 E120.04783
G1 X139.39 Y149.59 E120.09378
G1 X139.04 Y148.95 E120.13957
G1 X138.82 Y148.24 E120.18555
G1 X138.75 Y147.51 E120.23132
G1 X138.82 Y146.78 E120.27730
G1 X139.03 Y146.07 E120.32327
G1 X139.37 Y145.42 E120.36905
G1 X139.84 Y144.85 E120.41488
G1 X140.41 Y144.39 E120.46083
G1 X141.05 Y144.04 E120.50662
G1 X141.76 Y143.82 E120.55260
G0 F6000 X141.86 Y144.31
G1 F2700 X142.49 Y144.25 E120.59229
G1 X143.12 Y144.31 E120.63206
G1 X143.74 Y144.49 E120.67192
G1 X144.30 Y144.79 E120.71156
G1 X144.79 Y145.19 E120.75128
G1 X145.20 Y145.69 E120.79102
G1 X145.50 Y146.25 E120.83073
G1 X145.69 Y146.86 E120.87050
G1 X145.75 Y147.49 E120.91017
G1 X145.69 Y148.12 E120.94995
G1 X145.51 Y148.74 E120.98980
G1 X145.21 Y149.30 E121.02944
G1 X144.81 Y149.79 E121.06916
G1 X144.31 Y150.20 E121.10890
G1 X143.75 Y150.50 E121.14861
G1 X143.14 Y150.69 E121.18838
G1 X142.51 Y150.75 E121.22812
G1 X141.88 Y150.69 E121.26783
G1 X141.26 Y150.51 E121.30768
G1 X140.70 Y150.21 E121.34733
G1 X140.21 Y149.81 E121.38705
G1 X139.80 Y149.31 E121.42679
G1 X139.50 Y148.75 E121.46649
G1 X139.31 Y148.14 E121.50626
G1 X139.25 Y147.51 E121.54595
G1 X139.31 Y146.88 E121.58572
G1 X139.49 Y146.26 E121.62558
G1 X139.79 Y145.70 E121.66522
G1 X140.19 Y145.21 E121.70494
G1 X140.69 Y144.80 E121.74468
G1 X141.25 Y144.50 E121.78439
G1 X141.86 Y144.31 E121.82416
G0 F6000 X147.83 Y146.59
G1 F2700 X148.10 Y145.69 E121.88244
G1 X148.45 Y145.03 E121.92892
G1 X148.45 Y144.35 E121.97151
G1 X148.96 Y144.35 E122.00332
G1 X149.13 Y144.15 E122.01972
G1 X149.85 Y143.55 E122.07789
G1 X150.67 Y143.11 E122.13601
G1 X151.56 Y142.84 E122.19423
G1 X152.49 Y142.74 E122.25229
G1 X153.41 Y142.83 E122.31049
G1 X154.31 Y143.10 E122.36877
G1 X155.13 Y143.54 E122.42682
G1 X155.85 Y144.12 E122.48498
G1 X156.45 Y144.84 E122.54315
G1 X156.89 Y145.66 E122.60127
G1 X157.16 Y146.56 E122.65949
G1 X157.26 Y147.48 E122.71755
G1 X157.17 Y148.41 E122.77581
G1 X156.90 Y149.31 E122.83409
G1 X156.46 Y150.13 E122.89215
G1 X155.87 Y150.85 E122.95030
G1 X155.15 Y151.45 E123.00847
G1 X154.33 Y151.89 E123.06659
G1 X153.44 Y152.16 E123.12489
G1 X152.51 Y152.26 E123.18286
G1 X151.59 Y152.17 E123.24093
G1 X150.69 Y151.90 E123.29933
G1 X149.87 Y151.46 E123.35739
G1 X149.15 Y150.87 E123.41554
G1 X148.80 Y150.45 E123.44988
G1 X148.45 Y150.45 E123.47145
G1 X148.45 Y149.96 E123.50176
G1 X148.11 Y149.33 E123.54635
G1 X147.84 Y148.44 E123.60457
G1 X147.74 Y147.51 E123.66263
G1 X147.83 Y146.59 E123.72089
G0 F6000 X148.32 Y146.68
G1 F2700 X148.56 Y145.88 E123.77304
G1 X148.95 Y145.16 E123.82420
G1 X148.95 Y144.85 E123.84341
G1 X149.20 Y144.85 E123.85881
G1 X149.48 Y144.50 E123.88696
G1 X150.13 Y143.97 E123.93898
G1 X150.86 Y143.57 E123.99099
G1 X151.66 Y143.33 E124.04303
G1 X152.49 Y143.24 E124.09500
G1 X153.32 Y143.32 E124.14699
G1 X154.12 Y143.56 E124.19914
G1 X154.85 Y143.96 E124.25109
G1 X155.50 Y144.48 E124.30309
G1 X156.03 Y145.12 E124.35510
G1 X156.43 Y145.86 E124.40711
G1 X156.67 Y146.66 E124.45915
G1 X156.75 Y147.49 E124.51112
G1 X156.68 Y148.32 E124.56318
G1 X156.44 Y149.12 E124.61532
G1 X156.04 Y149.85 E124.66727
G1 X155.52 Y150.50 E124.71927
G1 X154.87 Y151.03 E124.77129
G1 X154.14 Y151.43 E124.82330
G1 X153.34 Y151.67 E124.87540
G1 X152.51 Y151.75 E124.92730
G1 X151.68 Y151.68 E124.97923
G1 X150.88 Y151.44 E125.03143
G1 X150.15 Y151.04 E125.08338
G1 X149.50 Y150.52 E125.13538
G1 X149.03 Y149.95 E125.18133
G1 X148.95 Y149.95 E125.18644
G1 X148.95 Y149.84 E125.19342
G1 X148.57 Y149.14 E125.24281
G1 X148.33 Y148.34 E125.29485
G1 X148.25 Y147.51 E125.34682
G1 X148.32 Y146.68 E125.39888
G0 F6000 X148.82 Y146.78
G1 F2700 X149.03 Y146.07 E125.44485
G1 X149.37 Y145.42 E125.49063
G1 X149.84 Y144.85 E125.53647
G1 X150.41 Y144.39 E125.58241
G1 X151.05 Y144.04 E125.62820
G1 X151.76 Y143.82 E125.67418
G1 X152.49 Y143.75 E125.71995
G1 X153.22 Y143.82 E125.76587
G1 X153.93 Y144.03 E125.81184
G1 X154.57 Y144.37 E125.85762
G1 X155.15 Y144.84 E125.90346
G1 X155.61 Y145.41 E125.94940
G1 X155.96 Y146.05 E125.99519
G1 X156.18 Y146.76 E126.04117
G1 X156.25 Y147.49 E126.08694
G1 X156.18 Y148.22 E126.13292
G1 X155.97 Y148.93 E126.17889
G1 X155.63 Y149.57 E126.22467
G1 X155.16 Y150.15 E126.27051
G1 X154.59 Y150.61 E126.31645
G1 X153.95 Y150.96 E126.36224
G1 X153.24 Y151.18 E126.40822
G1 X152.51 Y151.25 E126.45398
G1 X151.78 Y151.18 E126.49983
G1 X151.07 Y150.97 E126.54586
G1 X150.43 Y150.63 E126.59165
G1 X149.85 Y150.16 E126.63748
G1 X149.39 Y149.59 E126.68343
G1 X149.04 Y148.95 E126.72922
G1 X148.82 Y148.24 E126.77520
G1 X148.75 Y147.51 E126.82096
G1 X148.82 Y146.78 E126.86695
G0 F6000 X149.31 Y146.88
G1 F2700 X149.49 Y146.26 E126.90680
G1 X149.79 Y145.70 E126.94644
G1 X150.19 Y145.21 E126.98616
G1 X150.69 Y144.80 E127.02590
G1 X151.25 Y144.50 E127.06561
G1 X151.86 Y144.31 E127.10538
G1 X152.49 Y144.25 E127.14506
G1 X153.12 Y144.31 E127.18478
G1 X153.74 Y144.49 E127.22463
G1 X154.30 Y144.79 E127.26428
G1 X154.79 Y145.19 E127.30400
G1 X155.20 Y145.69 E127.34374
G1 X155.50 Y146.25 E127.38344
G1 X155.69 Y146.86 E127.42321
G1 X155.75 Y147.49 E127.46290
G1 X155.69 Y148.12 E127.50267
G1 X155.51 Y148.74 E127.54253
G1 X155.21 Y149.30 E127.58217
G1 X154.81 Y149.79 E127.62189
G1 X154.31 Y150.20 E127.66163
G1 X153.75 Y150.50 E127.70134
G1 X153.14 Y150.69 E127.74111
G1 X152.51 Y150.75 E127.78079
G1 X151.88 Y150.69 E127.82049
G1 X151.26 Y150.51 E127.86035
G1 X150.70 Y150.21 E127.89999
G1 X150.21 Y149.81 E127.93971
G1 X149.80 Y149.31 E127.97945
G1 X149.50 Y148.75 E128.01916
G1 X149.31 Y148.14 E128.05893
G1 X149.25 Y147.51 E128.09861
G1 X149.31 Y146.88 E128.13839
G0 F6000 X157.74 Y147.51
G1 F2700 X157.83 Y146.59 E128.19652
G1 X158.10 Y145.69 E128.25492
G1 X158.45 Y145.03 E128.30154
G1 X158.45 Y144.35 E128.34400
G1 X158.96 Y144.35 E128.37575
G1 X159.12 Y144.15 E128.39215
G1 X159.84 Y143.55 E128.45032
G1 X160.66 Y143.11 E128.50844
G1 X161.56 Y142.84 E128.56666
G1 X162.48 Y142.74 E128.62471
G1 X163.41 Y142.83 E128.68298
G1 X164.31 Y143.10 E128.74126
G1 X165.13 Y143.54 E128.79931
G1 X165.85 Y144.12 E128.85747
G1 X166.45 Y144.84 E128.91564
G1 X166.89 Y145.66 E128.97376
G1 X167.16 Y146.56 E129.03198
G1 X167.26 Y147.48 E129.09004
G1 X167.17 Y148.41 E129.14830
G1 X166.90 Y149.31 E129.20658
G1 X166.46 Y150.13 E129.26464
G1 X165.87 Y150.85 E129.32279
G1 X165.15 Y151.45 E129.38096
G1 X164.33 Y151.89 E129.43909
G1 X163.44 Y152.16 E129.49738
G1 X162.51 Y152.26 E129.55536
G1 X161.59 Y152.17 E129.61348
G1 X160.69 Y151.90 E129.67188
G1 X159.87 Y151.46 E129.72994
G1 X159.15 Y150.87 E129.78810
G1 X158.79 Y150.45 E129.82243
G1 X158.45 Y150.45 E129.84395
G1 X158.45 Y149.97 E129.87413
G1 X158.11 Y149.33 E129.91886
G1 X157.84 Y148.44 E129.97715
G1 X157.74 Y147.51 E130.03513
G0 F6000 X158.25 Y147.51
G1 F2700 X158.32 Y146.68 E130.08712
G1 X158.56 Y145.88 E130.13932
G1 X158.95 Y145.16 E130.19063
G1 X158.95 Y144.85 E130.20971
G1 X159.20 Y144.85 E130.22505
G1 X159.48 Y144.50 E130.25320
G1 X160.12 Y143.97 E130.30522
G1 X160.86 Y143.57 E130.35723
G1 X161.66 Y143.33 E130.40927
G1 X162.49 Y143.24 E130.46124
G1 X163.32 Y143.32 E130.51329
G1 X164.12 Y143.56 E130.56544
G1 X164.85 Y143.96 E130.61739
G1 X165.50 Y144.48 E130.66939
G1 X166.03 Y145.12 E130.72140
G1 X166.43 Y145.86 E130.77341
G1 X166.67 Y146.66 E130.82545
G1 X166.75 Y147.49 E130.87742
G1 X166.68 Y148.32 E130.92948
G1 X166.44 Y149.12 E130.98163
G1 X166.04 Y149.85 E131.03358
G1 X165.52 Y150.50 E131.08558
G1 X164.87 Y151.03 E131.13759
G1 X164.14 Y151.43 E131.18960
G1 X163.34 Y151.67 E131.24170
G1 X162.51 Y151.75 E131.29360
G1 X161.68 Y151.68 E131.34559
G1 X160.88 Y151.44 E131.39780
G1 X160.15 Y151.04 E131.44975
G1 X159.50 Y150.52 E131.50175
G1 X159.03 Y149.95 E131.54769
G1 X158.95 Y149.95 E131.55274
G1 X158.95 Y149.84 E131.55960
G1 X158.57 Y149.14 E131.60913
G1 X158.33 Y148.34 E131.66123
G1 X158.25 Y147.51 E131.71313
G0 F6000 X158.75 Y147.51
G1 F2700 X158.82 Y146.78 E131.75904
G1 X159.03 Y146.07 E131.80507
G1 X159.37 Y145.42 E131.85086
G1 X159.84 Y144.85 E131.89669
G1 X160.41 Y144.39 E131.94264
G1 X161.05 Y144.04 E131.98843
G1 X161.76 Y143.82 E132.03441
G1 X162.49 Y143.75 E132.08017
G1 X163.22 Y143.82 E132.12616
G1 X163.93 Y144.03 E132.17213
G1 X164.57 Y144.37 E132.21791
G1 X165.15 Y144.84 E132.26374
G1 X165.61 Y145.41 E132.30969
G1 X165.96 Y146.05 E132.35548
G1 X166.18 Y146.76 E132.40146
G1 X166.25 Y147.49 E132.44722
G1 X166.18 Y148.22 E132.49321
G1 X165.97 Y148.93 E132.53918
G1 X165.63 Y149.57 E132.58496
G1 X165.16 Y150.15 E132.63079
G1 X164.59 Y150.61 E132.67674
G1 X163.95 Y150.96 E132.72253
G1 X163.24 Y151.18 E132.76851
G1 X162.51 Y151.25 E132.81427
G1 X161.78 Y151.18 E132.86018
G1 X161.07 Y150.97 E132.90621
G1 X160.42 Y150.63 E132.95200
G1 X159.85 Y150.16 E132.99783
G1 X159.39 Y149.59 E133.04378
G1 X159.04 Y148.95 E133.08957
G1 X158.82 Y148.24 E133.13555
G1 X158.75 Y147.51 E133.18131
G0 F6000 X159.25 Y147.51
G1 F2700 X159.31 Y146.88 E133.22108
G1 X159.49 Y146.26 E133.26093
G1 X159.79 Y145.70 E133.30058
G1 X160.19 Y145.21 E133.34029
G1 X160.69 Y144.80 E133.38004
G1 X161.25 Y144.50 E133.41974
G1 X161.86 Y144.31 E133.45951
G1 X162.49 Y144.25 E133.49920
G1 X163.12 Y144.31 E133.53897
G1 X163.74 Y144.49 E133.57883
G1 X164.30 Y144.79 E133.61847
G1 X164.79 Y145.19 E133.65819
G1 X165.20 Y145.69 E133.69793
G1 X165.50 Y146.25 E133.73764
G1 X165.69 Y146.86 E133.77741
G1 X165.75 Y147.49 E133.81709
G1 X165.69 Y148.12 E133.85687
G1 X165.51 Y148.74 E133.89672
G1 X165.21 Y149.30 E133.93637
G1 X164.81 Y149.79 E133.97608
G1 X164.31 Y150.20 E134.01583
G1 X163.75 Y150.50 E134.05553
G1 X163.14 Y150.69 E134.09530
G1 X162.51 Y150.75 E134.13498
G1 X161.88 Y150.69 E134.17475
G1 X161.26 Y150.51 E134.21461
G1 X160.70 Y150.21 E134.25425
G1 X160.21 Y149.81 E134.29397
G1 X159.80 Y149.31 E134.33371
G1 X159.50 Y148.75 E134.37342
G1 X159.31 Y148.14 E134.41319
G1 X159.25 Y147.51 E134.45286
G0 F6000 X160.66 Y153.11
G1 F2700 X161.56 Y152.84 E134.51108
G1 X162.48 Y152.74 E134.56914
G1 X163.41 Y152.83 E134.62740
G1 X164.31 Y153.10 E134.68568
G1 X165.13 Y153.53 E134.74374
G1 X165.85 Y154.12 E134.80189
G1 X166.45 Y154.84 E134.86006
G1 X166.89 Y155.66 E134.91819
G1 X167.16 Y156.56 E134.97640
G1 X167.26 Y157.48 E135.03452
G1 X167.17 Y158.41 E135.09272
G1 X166.90 Y159.31 E135.15100
G1 X166.46 Y160.13 E135.20906
G1 X165.87 Y160.85 E135.26722
G1 X165.15 Y161.45 E135.32538
G1 X164.33 Y161.89 E135.38351
G1 X163.44 Y162.16 E135.44172
G1 X162.51 Y162.26 E135.49978
G1 X161.59 Y162.17 E135.55804
G1 X160.69 Y161.90 E135.61632
G1 X159.87 Y161.46 E135.67438
G1 X159.15 Y160.87 E135.73254
G1 X158.80 Y160.45 E135.76678
G1 X158.45 Y160.45 E135.78836
G1 X158.45 Y159.96 E135.81861
G1 X158.11 Y159.33 E135.86334
G1 X157.84 Y158.44 E135.92163
G1 X157.74 Y157.51 E135.97961
G1 X157.83 Y156.59 E136.03773
G1 X158.10 Y155.69 E136.09613
G1 X158.45 Y155.03 E136.14275
G1 X158.45 Y154.35 E136.18516
G1 X158.96 Y154.35 E136.21684
G1 X159.12 Y154.14 E136.23333
G1 X159.84 Y153.55 E136.29150
G1 X160.66 Y153.11 E136.34962
G0 F6000 X160.86 Y153.57
G1 F2700 X161.66 Y153.33 E136.40166
G1 X162.49 Y153.24 E136.45363
G1 X163.32 Y153.32 E136.50569
G1 X164.12 Y153.56 E136.55783
G1 X164.85 Y153.95 E136.60978
G1 X165.50 Y154.48 E136.66178
G1 X166.03 Y155.12 E136.71380
G1 X166.43 Y155.86 E136.76581
G1 X166.67 Y156.66 E136.81785
G1 X166.75 Y157.49 E136.86988
G1 X166.68 Y158.32 E136.92187
G1 X166.44 Y159.12 E136.97402
G1 X166.04 Y159.85 E137.02597
G1 X165.52 Y160.50 E137.07797
G1 X164.87 Y161.03 E137.12998
G1 X164.14 Y161.43 E137.18199
G1 X163.34 Y161.67 E137.23403
G1 X162.51 Y161.75 E137.28600
G1 X161.68 Y161.68 E137.33806
G1 X160.88 Y161.44 E137.39021
G1 X160.15 Y161.04 E137.44216
G1 X159.50 Y160.52 E137.49416
G1 X159.03 Y159.95 E137.54001
G1 X158.95 Y159.95 E137.54513
G1 X158.95 Y159.84 E137.55205
G1 X158.57 Y159.14 E137.60158
G1 X158.33 Y158.34 E137.65368
G1 X158.25 Y157.51 E137.70558
G1 X158.32 Y156.68 E137.75757
G1 X158.56 Y155.88 E137.80977
G1 X158.95 Y155.15 E137.86108
G1 X158.95 Y154.85 E137.88010
G1 X159.20 Y154.85 E137.89544
G1 X159.48 Y154.50 E137.92364
G1 X160.12 Y153.97 E137.97565
G1 X160.86 Y153.57 E138.02766
G0 F6000 X161.05 Y154.04
G1 F2700 X161.76 Y153.82 E138.07365
G1 X162.49 Y153.75 E138.11941
G1 X163.22 Y153.81 E138.16539
G1 X163.93 Y154.03 E138.21136
G1 X164.57 Y154.37 E138.25714
G1 X165.15 Y154.84 E138.30298
G1 X165.61 Y155.41 E138.34892
G1 X165.96 Y156.05 E138.39471
G1 X166.18 Y156.76 E138.44070
G1 X166.25 Y157.49 E138.48652
G1 X166.18 Y158.22 E138.53244
G1 X165.97 Y158.93 E138.57841
G1 X165.63 Y159.57 E138.62420
G1 X165.16 Y160.14 E138.67003
G1 X164.59 Y160.61 E138.71598
G1 X163.95 Y160.96 E138.76177
G1 X163.24 Y161.18 E138.80775
G1 X162.51 Y161.25 E138.85351
G1 X161.78 Y161.18 E138.89950
G1 X161.07 Y160.97 E138.94547
G1 X160.42 Y160.62 E138.99125
G1 X159.85 Y160.16 E139.03708
G1 X159.39 Y159.59 E139.08303
G1 X159.04 Y158.95 E139.12882
G1 X158.82 Y158.24 E139.17480
G1 X158.75 Y157.51 E139.22056
G1 X158.82 Y156.78 E139.26647
G1 X159.03 Y156.07 E139.31250
G1 X159.37 Y155.42 E139.35828
G1 X159.84 Y154.85 E139.40412
G1 X160.41 Y154.38 E139.45006
G1 X161.05 Y154.04 E139.49585
G0 F6000 X161.25 Y154.50
G1 F2700 X161.86 Y154.31 E139.53562
G1 X162.49 Y154.25 E139.57531
G1 X163.12 Y154.31 E139.61508
G1 X163.74 Y154.49 E139.65494
G1 X164.30 Y154.79 E139.69458
G1 X164.79 Y155.19 E139.73430
G1 X165.20 Y155.69 E139.77404
G1 X165.50 Y156.25 E139.81375
G1 X165.69 Y156.85 E139.85352
G1 X165.75 Y157.49 E139.89326
G1 X165.69 Y158.12 E139.93298
G1 X165.51 Y158.74 E139.97283
G1 X165.21 Y159.30 E140.01248
G1 X164.81 Y159.79 E140.05220
G1 X164.31 Y160.19 E140.09194
G1 X163.75 Y160.50 E140.13164
G1 X163.14 Y160.68 E140.17142
G1 X162.51 Y160.75 E140.21110
G1 X161.88 Y160.69 E140.25087
G1 X161.26 Y160.50 E140.29073
G1 X160.70 Y160.21 E140.33037
G1 X160.21 Y159.80 E140.37009
G1 X159.80 Y159.31 E140.40983
G1 X159.50 Y158.75 E140.44954
G1 X159.31 Y158.14 E140.48931
G1 X159.25 Y157.51 E140.52899
G1 X159.31 Y156.87 E140.56876
G1 X159.49 Y156.26 E140.60861
G1 X159.79 Y155.70 E140.64826
G1 X160.19 Y155.21 E140.68797
G1 X160.69 Y154.80 E140.72772
G1 X161.25 Y154.50 E140.76742
G0 F6000 X155.50 Y156.25
G1 F2700 X155.69 Y156.85 E140.80719
G1 X155.75 Y157.49 E140.84694
G1 X155.69 Y158.12 E140.88665
G1 X155.51 Y158.74 E140.92651
G1 X155.21 Y159.30 E140.96615
G1 X154.81 Y159.79 E141.00587
G1 X154.31 Y160.19 E141.04561
G1 X153.75 Y160.50 E141.08532
G1 X153.14 Y160.68 E141.12509
G1 X152.51 Y160.75 E141.16477
G1 X151.88 Y160.69 E141.20449
G1 X151.26 Y160.50 E141.24434
G1 X150.70 Y160.21 E141.28398
G1 X150.21 Y159.80 E141.32370
G1 X149.80 Y159.31 E141.36344
G1 X149.50 Y158.75 E141.40315
G1 X149.31 Y158.14 E141.44292
G1 X149.25 Y157.51 E141.48261
G1 X149.31 Y156.87 E141.52238
G1 X149.49 Y156.26 E141.56224
G1 X149.79 Y155.70 E141.60188
G1 X150.19 Y155.21 E141.64160
G1 X150.69 Y154.80 E141.68134
G1 X151.25 Y154.50 E141.72105
G1 X151.86 Y154.31 E141.76082
G1 X152.49 Y154.25 E141.80050
G1 X153.12 Y154.31 E141.84022
G1 X153.74 Y154.49 E141.88007
G1 X154.30 Y154.79 E141.91971
G1 X154.79 Y155.19 E141.95943
G1 X155.20 Y155.69 E141.99917
G1 X155.50 Y156.25 E142.03888
G0 F6000 X155.96 Y156.05
G1 F2700 X156.18 Y156.76 E142.08486
G1 X156.25 Y157.49 E142.13069
G1 X156.18 Y158.22 E142.17661
G1 X155.97 Y158.93 E142.22258
G1 X155.63 Y159.57 E142.26836
G1 X155.16 Y160.14 E142.31420
G1 X154.59 Y160.61 E142.36014
G1 X153.95 Y160.96 E142.40593
G1 X153.24 Y161.18 E142.45191
G1 X152.51 Y161.25 E142.49768
G1 X151.78 Y161.18 E142.54360
G1 X151.07 Y160.97 E142.58957
G1 X150.43 Y160.62 E142.63535
G1 X149.85 Y160.16 E142.68119
G1 X149.39 Y159.59 E142.72713
G1 X149.04 Y158.95 E142.77292
G1 X148.82 Y158.24 E142.81890
G1 X148.75 Y157.51 E142.86467
G1 X148.82 Y156.78 E142.91065
G1 X149.03 Y156.07 E142.95662
G1 X149.37 Y155.42 E143.00240
G1 X149.84 Y154.85 E143.04824
G1 X150.41 Y154.38 E143.09418
G1 X151.05 Y154.04 E143.13997
G1 X151.76 Y153.82 E143.18596
G1 X152.49 Y153.75 E143.23172
G1 X153.22 Y153.81 E143.27764
G1 X153.93 Y154.03 E143.32361
G1 X154.57 Y154.37 E143.36939
G1 X155.15 Y154.84 E143.41523
G1 X155.61 Y155.41 E143.46117
G1 X155.96 Y156.05 E143.50696
G0 F6000 X156.43 Y155.86
G1 F2700 X156.67 Y156.66 E143.55900
G1 X156.75 Y157.49 E143.61103
G1 X156.68 Y158.32 E143.66303
G1 X156.44 Y159.12 E143.71517
G1 X156.04 Y159.85 E143.76712
G1 X155.52 Y160.50 E143.81912
G1 X154.87 Y161.03 E143.87114
G1 X154.14 Y161.43 E143.92315
G1 X153.34 Y161.67 E143.97519
G1 X152.51 Y161.75 E144.02716
G1 X151.68 Y161.68 E144.07915
G1 X150.88 Y161.44 E144.13130
G1 X150.15 Y161.04 E144.18325
G1 X149.50 Y160.52 E144.23525
G1 X149.03 Y159.95 E144.28111
G1 X148.95 Y159.95 E144.28628
G1 X148.95 Y159.84 E144.29333
G1 X148.57 Y159.14 E144.34272
G1 X148.33 Y158.34 E144.39476
G1 X148.25 Y157.51 E144.44673
G1 X148.32 Y156.68 E144.49878
G1 X148.56 Y155.88 E144.55093
G1 X148.95 Y155.16 E144.60210
G1 X148.95 Y154.85 E144.62124
G1 X149.20 Y154.85 E144.63665
G1 X149.48 Y154.50 E144.66484
G1 X150.13 Y153.97 E144.71686
G1 X150.86 Y153.57 E144.76887
G1 X151.66 Y153.33 E144.82091
G1 X152.49 Y153.24 E144.87288
G1 X153.32 Y153.32 E144.92487
G1 X154.12 Y153.56 E144.97702
G1 X154.85 Y153.95 E145.02897
G1 X155.50 Y154.48 E145.08097
G1 X156.03 Y155.12 E145.13298
G1 X156.43 Y155.86 E145.18499
G0 F6000 X156.89 Y155.66
G1 F2700 X157.16 Y156.56 E145.24321
G1 X157.26 Y157.48 E145.30133
G1 X157.17 Y158.41 E145.35953
G1 X156.90 Y159.31 E145.41781
G1 X156.46 Y160.13 E145.47586
G1 X155.87 Y160.85 E145.53402
G1 X155.15 Y161.45 E145.59219
G1 X154.33 Y161.89 E145.65031
G1 X153.44 Y162.16 E145.70853
G1 X152.51 Y162.26 E145.76659
G1 X151.59 Y162.17 E145.82479
G1 X150.69 Y161.90 E145.88307
G1 X149.87 Y161.46 E145.94112
G1 X149.15 Y160.87 E145.99928
G1 X148.80 Y160.45 E146.03353
G1 X148.45 Y160.45 E146.05517
G1 X148.45 Y159.96 E146.08554
G1 X148.11 Y159.33 E146.13013
G1 X147.84 Y158.44 E146.18834
G1 X147.74 Y157.51 E146.24640
G1 X147.83 Y156.58 E146.30466
G1 X148.10 Y155.69 E146.36295
G1 X148.45 Y155.03 E146.40942
G1 X148.45 Y154.35 E146.45196
G1 X148.96 Y154.35 E146.48370
G1 X149.13 Y154.14 E146.50019
G1 X149.85 Y153.55 E146.55836
G1 X150.67 Y153.11 E146.61648
G1 X151.56 Y152.84 E146.67470
G1 X152.49 Y152.74 E146.73275
G1 X153.41 Y152.83 E146.79095
G1 X154.31 Y153.10 E146.84923
G1 X155.13 Y153.53 E146.90729
G1 X155.85 Y154.12 E146.96545
G1 X156.45 Y154.84 E147.02362
G1 X156.89 Y155.66 E147.08174
G0 F6000 X145.69 Y156.85
G1 F2700 X145.75 Y157.49 E147.12148
G1 X145.69 Y158.12 E147.16119
G1 X145.51 Y158.74 E147.20104
G1 X145.21 Y159.30 E147.24069
G1 X144.81 Y159.79 E147.28040
G1 X144.31 Y160.19 E147.32015
G1 X143.75 Y160.50 E147.35985
G1 X143.14 Y160.68 E147.39962
G1 X142.51 Y160.75 E147.43937
G1 X141.88 Y160.69 E147.47908
G1 X141.26 Y160.50 E147.51894
G1 X140.70 Y160.21 E147.55858
G1 X140.21 Y159.80 E147.59830
G1 X139.80 Y159.31 E147.63804
G1 X139.50 Y158.75 E147.67775
G1 X139.31 Y158.14 E147.71752
G1 X139.25 Y157.51 E147.75720
G1 X139.31 Y156.87 E147.79698
G1 X139.49 Y156.26 E147.83683
G1 X139.79 Y155.70 E147.87648
G1 X140.19 Y155.21 E147.91620
G1 X140.69 Y154.80 E147.95594
G1 X141.25 Y154.50 E147.99564
G1 X141.86 Y154.31 E148.03541
G1 X142.49 Y154.25 E148.07510
G1 X143.12 Y154.31 E148.11487
G1 X143.74 Y154.49 E148.15473
G1 X144.30 Y154.79 E148.19437
G1 X144.79 Y155.19 E148.23409
G1 X145.20 Y155.69 E148.27383
G1 X145.50 Y156.25 E148.31354
G1 X145.69 Y156.85 E148.35331
G0 F6000 X146.18 Y156.76
G1 F2700 X146.25 Y157.49 E148.39913
G1 X146.18 Y158.22 E148.44498
G1 X145.97 Y158.93 E148.49101
G1 X145.63 Y159.57 E148.53679
G1 X145.16 Y160.14 E148.58263
G1 X144.59 Y160.61 E148.62857
G1 X143.95 Y160.96 E148.67436
G1 X143.24 Y161.18 E148.72035
G1 X142.51 Y161.25 E148.76617
G1 X141.78 Y161.18 E148.81209
G1 X141.07 Y160.97 E148.85806
G1 X140.43 Y160.62 E148.90384
G1 X139.85 Y160.16 E148.94968
G1 X139.39 Y159.59 E148.99562
G1 X139.04 Y158.95 E149.04141
G1 X138.82 Y158.24 E149.08740
G1 X138.75 Y157.51 E149.13316
G1 X138.82 Y156.78 E149.17914
G1 X139.03 Y156.07 E149.22511
G1 X139.37 Y155.42 E149.27090
G1 X139.84 Y154.85 E149.31673
G1 X140.41 Y154.38 E149.36268
G1 X141.05 Y154.04 E149.40847
G1 X141.76 Y153.82 E149.45445
G1 X142.49 Y153.75 E149.50021
G1 X143.22 Y153.81 E149.54619
G1 X143.93 Y154.03 E149.59217
G1 X144.58 Y154.37 E149.63795
G1 X145.15 Y154.84 E149.68378
G1 X145.61 Y155.41 E149.72973
G1 X145.96 Y156.05 E149.77552
G1 X146.18 Y156.76 E149.82150
G0 F6000 X146.67 Y156.66
G1 F2700 X146.75 Y157.49 E149.87346
G1 X146.68 Y158.31 E149.92539
G1 X146.44 Y159.12 E149.97760
G1 X146.04 Y159.85 E150.02954
G1 X145.52 Y160.50 E150.08155
G1 X144.88 Y161.03 E150.13356
G1 X144.14 Y161.43 E150.18557
G1 X143.34 Y161.67 E150.23761
G1 X142.51 Y161.75 E150.28964
G1 X141.68 Y161.68 E150.34164
G1 X140.88 Y161.44 E150.39378
G1 X140.15 Y161.04 E150.44573
G1 X139.50 Y160.52 E150.49773
G1 X139.03 Y159.95 E150.54359
G1 X138.95 Y159.95 E150.54877
G1 X138.95 Y159.84 E150.55581
G1 X138.57 Y159.14 E150.60520
G1 X138.33 Y158.34 E150.65724
G1 X138.25 Y157.51 E150.70921
G1 X138.32 Y156.68 E150.76127
G1 X138.56 Y155.88 E150.81341
G1 X138.95 Y155.16 E150.86458
G1 X138.95 Y154.85 E150.88373
G1 X139.20 Y154.85 E150.89913
G1 X139.48 Y154.50 E150.92733
G1 X140.13 Y153.97 E150.97934
G1 X140.86 Y153.57 E151.03135
G1 X141.66 Y153.33 E151.08339
G1 X142.49 Y153.24 E151.13536
G1 X143.32 Y153.32 E151.18742
G1 X144.12 Y153.56 E151.23956
G1 X144.85 Y153.95 E151.29151
G1 X145.50 Y154.48 E151.34351
G1 X146.03 Y155.12 E151.39553
G1 X146.43 Y155.86 E151.44754
G1 X146.67 Y156.66 E151.49964
G0 F6000 X147.16 Y156.56
G1 F2700 X147.26 Y157.48 E151.55768
G1 X147.17 Y158.41 E151.61574
G1 X146.90 Y159.31 E151.67414
G1 X146.46 Y160.13 E151.73220
G1 X145.88 Y160.85 E151.79035
G1 X145.16 Y161.45 E151.84852
G1 X144.34 Y161.89 E151.90665
G1 X143.44 Y162.16 E151.96486
G1 X142.51 Y162.26 E152.02298
G1 X141.59 Y162.17 E152.08118
G1 X140.69 Y161.90 E152.13946
G1 X139.87 Y161.46 E152.19752
G1 X139.15 Y160.87 E152.25567
G1 X138.80 Y160.45 E152.28992
G1 X138.45 Y160.45 E152.31156
G1 X138.45 Y159.96 E152.34193
G1 X138.11 Y159.33 E152.38652
G1 X137.84 Y158.44 E152.44474
G1 X137.74 Y157.51 E152.50280
G1 X137.83 Y156.58 E152.56106
G1 X138.10 Y155.69 E152.61934
G1 X138.45 Y155.03 E152.66582
G1 X138.45 Y154.35 E152.70835
G1 X138.96 Y154.35 E152.74009
G1 X139.13 Y154.14 E152.75658
G1 X139.85 Y153.55 E152.81475
G1 X140.67 Y153.11 E152.87287
G1 X141.56 Y152.84 E152.93109
G1 X142.49 Y152.74 E152.98915
G1 X143.41 Y152.83 E153.04741
G1 X144.31 Y153.10 E153.10569
G1 X145.13 Y153.53 E153.16375
G1 X145.85 Y154.12 E153.22190
G1 X146.45 Y154.84 E153.28007
G1 X146.89 Y155.66 E153.33820
G1 X147.16 Y156.56 E153.39649
G0 F6000 X150.67 Y163.11
G1 F2700 X151.56 Y162.84 E153.45478
G1 X152.49 Y162.74 E153.51276
G1 X153.41 Y162.83 E153.57082
G1 X154.31 Y163.10 E153.62923
G1 X155.13 Y163.53 E153.68728
G1 X155.85 Y164.12 E153.74544
G1 X156.45 Y164.84 E153.80361
G1 X156.89 Y165.66 E153.86173
G1 X157.16 Y166.56 E153.91995
G1 X157.26 Y167.48 E153.97807
G1 X157.17 Y168.41 E154.03627
G1 X156.90 Y169.31 E154.09455
G1 X156.46 Y170.13 E154.15260
G1 X155.87 Y170.85 E154.21076
G1 X155.15 Y171.45 E154.26893
G1 X154.33 Y171.89 E154.32705
G1 X153.44 Y172.16 E154.38527
G1 X152.51 Y172.26 E154.44333
G1 X151.59 Y172.17 E154.50153
G1 X150.69 Y171.90 E154.55981
G1 X149.87 Y171.46 E154.61786
G1 X149.15 Y170.87 E154.67602
G1 X148.80 Y170.45 E154.71027
G1 X148.45 Y170.45 E154.73191
G1 X148.45 Y169.96 E154.76228
G1 X148.11 Y169.33 E154.80687
G1 X147.84 Y168.44 E154.86508
G1 X147.74 Y167.51 E154.92314
G1 X147.83 Y166.58 E154.98140
G1 X148.10 Y165.69 E155.03968
G1 X148.45 Y165.03 E155.08616
G1 X148.45 Y164.35 E155.12869
G1 X148.96 Y164.35 E155.16044
G1 X149.13 Y164.14 E155.17693
G1 X149.85 Y163.55 E155.23510
G1 X150.67 Y163.11 E155.29322
G0 F6000 X150.86 Y163.57
G1 F2700 X151.66 Y163.33 E155.34532
G1 X152.49 Y163.24 E155.39722
G1 X153.32 Y163.32 E155.44915
G1 X154.12 Y163.56 E155.50135
G1 X154.85 Y163.95 E155.55330
G1 X155.50 Y164.48 E155.60530
G1 X156.03 Y165.12 E155.65732
G1 X156.43 Y165.86 E155.70933
G1 X156.67 Y166.66 E155.76137
G1 X156.75 Y167.49 E155.81340
G1 X156.68 Y168.32 E155.86539
G1 X156.44 Y169.12 E155.91754
G1 X156.04 Y169.85 E155.96949
G1 X155.52 Y170.50 E156.02149
G1 X154.87 Y171.03 E156.07350
G1 X154.14 Y171.43 E156.12551
G1 X153.34 Y171.67 E156.17755
G1 X152.51 Y171.75 E156.22952
G1 X151.68 Y171.68 E156.28152
G1 X150.88 Y171.44 E156.33366
G1 X150.15 Y171.04 E156.38561
G1 X149.50 Y170.52 E156.43761
G1 X149.03 Y169.95 E156.48347
G1 X148.95 Y169.95 E156.48865
G1 X148.95 Y169.84 E156.49569
G1 X148.57 Y169.14 E156.54508
G1 X148.33 Y168.34 E156.59712
G1 X148.25 Y167.51 E156.64909
G1 X148.32 Y166.68 E156.70115
G1 X148.56 Y165.88 E156.75330
G1 X148.95 Y165.16 E156.80446
G1 X148.95 Y164.85 E156.82361
G1 X149.20 Y164.85 E156.83901
G1 X149.48 Y164.50 E156.86721
G1 X150.13 Y163.97 E156.91922
G1 X150.86 Y163.57 E156.97123
G0 F6000 X151.05 Y164.04
G1 F2700 X151.76 Y163.82 E157.01721
G1 X152.49 Y163.75 E157.06297
G1 X153.22 Y163.81 E157.10882
G1 X153.93 Y164.03 E157.15486
G1 X154.57 Y164.37 E157.20064
G1 X155.15 Y164.84 E157.24647
G1 X155.61 Y165.41 E157.29242
G1 X155.96 Y166.05 E157.33821
G1 X156.18 Y166.76 E157.38419
G1 X156.25 Y167.49 E157.43002
G1 X156.18 Y168.22 E157.47594
G1 X155.97 Y168.93 E157.52191
G1 X155.63 Y169.57 E157.56769
G1 X155.16 Y170.14 E157.61352
G1 X154.59 Y170.61 E157.65947
G1 X153.95 Y170.96 E157.70526
G1 X153.24 Y171.18 E157.75124
G1 X152.51 Y171.25 E157.79701
G1 X151.78 Y171.18 E157.84293
G1 X151.07 Y170.97 E157.88890
G1 X150.43 Y170.62 E157.93468
G1 X149.85 Y170.16 E157.98051
G1 X149.39 Y169.59 E158.02646
G1 X149.04 Y168.95 E158.07225
G1 X148.82 Y168.24 E158.11823
G1 X148.75 Y167.51 E158.16399
G1 X148.82 Y166.78 E158.20998
G1 X149.03 Y166.07 E158.25595
G1 X149.37 Y165.42 E158.30173
G1 X149.84 Y164.85 E158.34756
G1 X150.41 Y164.38 E158.39351
G1 X151.05 Y164.04 E158.43930
G0 F6000 X151.25 Y164.50
G1 F2700 X151.86 Y164.31 E158.47907
G1 X152.49 Y164.25 E158.51875
G1 X153.12 Y164.31 E158.55845
G1 X153.74 Y164.49 E158.59831
G1 X154.30 Y164.79 E158.63795
G1 X154.79 Y165.19 E158.67767
G1 X155.20 Y165.69 E158.71741
G1 X155.50 Y166.25 E158.75712
G1 X155.69 Y166.85 E158.79689
G1 X155.75 Y167.49 E158.83664
G1 X155.69 Y168.12 E158.87635
G1 X155.51 Y168.74 E158.91620
G1 X155.21 Y169.30 E158.95585
G1 X154.81 Y169.79 E158.99557
G1 X154.31 Y170.19 E159.03531
G1 X153.75 Y170.50 E159.07502
G1 X153.14 Y170.68 E159.11479
G1 X152.51 Y170.75 E159.15447
G1 X151.88 Y170.69 E159.19418
G1 X151.26 Y170.50 E159.23404
G1 X150.70 Y170.21 E159.27368
G1 X150.21 Y169.80 E159.31340
G1 X149.80 Y169.31 E159.35314
G1 X149.50 Y168.75 E159.39285
G1 X149.31 Y168.14 E159.43262
G1 X149.25 Y167.51 E159.47230
G1 X149.31 Y166.87 E159.51208
G1 X149.49 Y166.26 E159.55193
G1 X149.79 Y165.70 E159.59158
G1 X150.19 Y165.21 E159.63130
G1 X150.69 Y164.80 E159.67104
G1 X151.25 Y164.50 E159.71074
G0 F6000 X152.51 Y140.75
G1 F2700 X151.88 Y140.69 E159.75045
G1 X151.26 Y140.51 E159.79031
G1 X150.70 Y140.21 E159.82995
G1 X150.21 Y139.81 E159.86967
G1 X149.80 Y139.31 E159.90941
G1 X149.50 Y138.75 E159.94912
G1 X149.31 Y138.14 E159.98889
G1 X149.25 Y137.51 E160.02857
G1 X149.31 Y136.88 E160.06835
G1 X149.49 Y136.26 E160.10820
G1 X149.79 Y135.70 E160.14785
G1 X150.19 Y135.21 E160.18756
G1 X150.69 Y134.80 E160.22731
G1 X151.25 Y134.50 E160.26701
G1 X151.86 Y134.31 E160.30678
G1 X152.49 Y134.25 E160.34647
G1 X153.12 Y134.31 E160.38618
G1 X153.74 Y134.49 E160.42603
G1 X154.30 Y134.79 E160.46568
G1 X154.79 Y135.19 E160.50540
G1 X155.20 Y135.69 E160.54514
G1 X155.50 Y136.25 E160.58485
G1 X155.69 Y136.86 E160.62462
G1 X155.75 Y137.49 E160.66430
G1 X155.69 Y138.12 E160.70408
G1 X155.51 Y138.74 E160.74393
G1 X155.21 Y139.30 E160.78357
G1 X154.81 Y139.79 E160.82329
G1 X154.31 Y140.20 E160.86303
G1 X153.75 Y140.50 E160.90274
G1 X153.14 Y140.69 E160.94251
G1 X152.51 Y140.75 E160.98219
G0 F6000 X152.51 Y141.25
G1 F2700 X151.78 Y141.18 E161.02804
G1 X151.07 Y140.97 E161.07407
G1 X150.43 Y140.63 E161.11985
G1 X149.85 Y140.16 E161.16569
G1 X149.39 Y139.59 E161.21163
G1 X149.04 Y138.95 E161.25742
G1 X148.82 Y138.24 E161.30341
G1 X148.75 Y137.51 E161.34917
G1 X148.82 Y136.78 E161.39515
G1 X149.03 Y136.07 E161.44112
G1 X149.37 Y135.42 E161.48690
G1 X149.84 Y134.85 E161.53274
G1 X150.41 Y134.39 E161.57868
G1 X151.05 Y134.04 E161.62447
G1 X151.76 Y133.82 E161.67046
G1 X152.49 Y133.75 E161.71622
G1 X153.22 Y133.82 E161.76214
G1 X153.93 Y134.03 E161.80811
G1 X154.57 Y134.37 E161.85389
G1 X155.15 Y134.84 E161.89973
G1 X155.61 Y135.41 E161.94567
G1 X155.96 Y136.05 E161.99146
G1 X156.18 Y136.76 E162.03745
G1 X156.25 Y137.49 E162.08321
G1 X156.18 Y138.22 E162.12919
G1 X155.97 Y138.93 E162.17516
G1 X155.63 Y139.57 E162.22094
G1 X155.16 Y140.15 E162.26678
G1 X154.59 Y140.61 E162.31272
G1 X153.95 Y140.96 E162.35851
G1 X153.24 Y141.18 E162.40450
G1 X152.51 Y141.25 E162.45026
G0 F6000 X152.51 Y141.75
G1 F2700 X151.68 Y141.68 E162.50218
G1 X150.88 Y141.44 E162.55439
G1 X150.15 Y141.04 E162.60634
G1 X149.50 Y140.52 E162.65834
G1 X149.03 Y139.95 E162.70428
G1 X148.95 Y139.95 E162.70940
G1 X148.95 Y139.84 E162.71638
G1 X148.57 Y139.14 E162.76577
G1 X148.33 Y138.34 E162.81781
G1 X148.25 Y137.51 E162.86978
G1 X148.32 Y136.68 E162.92184
G1 X148.56 Y135.88 E162.97398
G1 X148.95 Y135.16 E163.02515
G1 X148.95 Y134.85 E163.04436
G1 X149.20 Y134.85 E163.05976
G1 X149.48 Y134.50 E163.08791
G1 X150.13 Y133.97 E163.13992
G1 X150.86 Y133.57 E163.19193
G1 X151.66 Y133.33 E163.24397
G1 X152.49 Y133.24 E163.29594
G1 X153.32 Y133.32 E163.34794
G1 X154.12 Y133.56 E163.40008
G1 X154.85 Y133.96 E163.45203
G1 X155.50 Y134.48 E163.50403
G1 X156.03 Y135.12 E163.55605
G1 X156.43 Y135.86 E163.60806
G1 X156.67 Y136.66 E163.66010
G1 X156.75 Y137.49 E163.71207
G1 X156.68 Y138.32 E163.76412
G1 X156.44 Y139.12 E163.81627
G1 X156.04 Y139.85 E163.86822
G1 X155.52 Y140.50 E163.92022
G1 X154.87 Y141.03 E163.97223
G1 X154.14 Y141.43 E164.02424
G1 X153.34 Y141.67 E164.07634
G1 X152.51 Y141.75 E164.12825
G0 F6000 X152.51 Y142.26
G1 F2700 X151.59 Y142.17 E164.18631
G1 X150.69 Y141.90 E164.24471
G1 X149.87 Y141.46 E164.30277
G1 X149.15 Y140.87 E164.36092
G1 X148.80 Y140.45 E164.39526
G1 X148.45 Y140.45 E164.41684
G1 X148.45 Y139.96 E164.44714
G1 X148.11 Y139.33 E164.49173
G1 X147.84 Y138.44 E164.54995
G1 X147.74 Y137.51 E164.60801
G1 X147.83 Y136.59 E164.66627
G1 X148.10 Y135.69 E164.72455
G1 X148.45 Y135.03 E164.77103
G1 X148.45 Y134.35 E164.81362
G1 X148.96 Y134.35 E164.84543
G1 X149.13 Y134.15 E164.86183
G1 X149.85 Y133.55 E164.92000
G1 X150.67 Y133.11 E164.97812
G1 X151.56 Y132.84 E165.03634
G1 X152.49 Y132.74 E165.09440
G1 X153.41 Y132.83 E165.15260
G1 X154.31 Y133.10 E165.21088
G1 X155.13 Y133.54 E165.26893
G1 X155.85 Y134.12 E165.32709
G1 X156.45 Y134.84 E165.38526
G1 X156.89 Y135.66 E165.44338
G1 X157.16 Y136.56 E165.50160
G1 X157.26 Y137.48 E165.55966
G1 X157.17 Y138.41 E165.61792
G1 X156.90 Y139.31 E165.67620
G1 X156.46 Y140.13 E165.73426
G1 X155.87 Y140.85 E165.79241
G1 X155.15 Y141.45 E165.85058
G1 X154.33 Y141.89 E165.90870
G1 X153.44 Y142.16 E165.96700
G1 X152.51 Y142.26 E166.02497
G0 F6000 X158.45 Y140.45
G1 F2700 X158.45 Y139.97 E166.05516
G1 X158.11 Y139.33 E166.09989
G1 X157.84 Y138.44 E166.15818
G1 X157.74 Y137.51 E166.21616
G1 X157.83 Y136.59 E166.27428
G1 X158.10 Y135.69 E166.33268
G1 X158.45 Y135.03 E166.37930
G1 X158.45 Y134.35 E166.42177
G1 X158.96 Y134.35 E166.45351
G1 X159.12 Y134.15 E166.46992
G1 X159.84 Y133.55 E166.52809
G1 X160.66 Y133.11 E166.58621
G1 X161.56 Y132.84 E166.64442
G1 X162.48 Y132.74 E166.70248
G1 X163.41 Y132.83 E166.76074
G1 X164.31 Y133.10 E166.81903
G1 X165.13 Y133.54 E166.87708
G1 X165.85 Y134.12 E166.93524
G1 X166.45 Y134.84 E166.99341
G1 X166.89 Y135.66 E167.05153
G1 X167.16 Y136.56 E167.10975
G1 X167.26 Y137.48 E167.16780
G1 X167.17 Y138.41 E167.22607
G1 X166.90 Y139.31 E167.28435
G1 X166.46 Y140.13 E167.34240
G1 X165.87 Y140.85 E167.40056
G1 X165.15 Y141.45 E167.45873
G1 X164.33 Y141.89 E167.51685
G1 X163.44 Y142.16 E167.57515
G1 X162.51 Y142.26 E167.63312
G1 X161.59 Y142.17 E167.69125
G1 X160.69 Y141.90 E167.74965
G1 X159.87 Y141.46 E167.80771
G1 X159.15 Y140.87 E167.86586
G1 X158.79 Y140.45 E167.90020
G1 X158.45 Y140.45 E167.92171
G0 F6000 X158.95 Y139.95
G1 F2700 X158.95 Y139.84 E167.92857
G1 X158.57 Y139.14 E167.97810
G1 X158.33 Y138.34 E168.03020
G1 X158.25 Y137.51 E168.08210
G1 X158.32 Y136.68 E168.13409
G1 X158.56 Y135.88 E168.18630
G1 X158.95 Y135.16 E168.23760
G1 X158.95 Y134.85 E168.25669
G1 X159.20 Y134.85 E168.27203
G1 X159.48 Y134.50 E168.30018
G1 X160.12 Y133.97 E168.35219
G1 X160.86 Y133.57 E168.40420
G1 X161.66 Y133.33 E168.45624
G1 X162.49 Y133.24 E168.50821
G1 X163.32 Y133.32 E168.56027
G1 X164.12 Y133.56 E168.61241
G1 X164.85 Y133.96 E168.66436
G1 X165.50 Y134.48 E168.71636
G1 X166.03 Y135.12 E168.76838
G1 X166.43 Y135.86 E168.82039
G1 X166.67 Y136.66 E168.87243
G1 X166.75 Y137.49 E168.92440
G1 X166.68 Y138.32 E168.97645
G1 X166.44 Y139.12 E169.02860
G1 X166.04 Y139.85 E169.08055
G1 X165.52 Y140.50 E169.13255
G1 X164.87 Y141.03 E169.18456
G1 X164.14 Y141.43 E169.23657
G1 X163.34 Y141.67 E169.28867
G1 X162.51 Y141.75 E169.34057
G1 X161.68 Y141.68 E169.39256
G1 X160.88 Y141.44 E169.44477
G1 X160.15 Y141.04 E169.49672
G1 X159.50 Y140.52 E169.54872
G1 X159.03 Y139.95 E169.59466
G1 X158.95 Y139.95 E169.59971
G0 F6000 X159.39 Y139.59
G1 F2700 X159.04 Y138.95 E169.64550
G1 X158.82 Y138.24 E169.69149
G1 X158.75 Y137.51 E169.73725
G1 X158.82 Y136.78 E169.78316
G1 X159.03 Y136.07 E169.82919
G1 X159.37 Y135.42 E169.87497
G1 X159.84 Y134.85 E169.92081
G1 X160.41 Y134.39 E169.96675
G1 X161.05 Y134.04 E170.01254
G1 X161.76 Y133.82 E170.05852
G1 X162.49 Y133.75 E170.10429
G1 X163.22 Y133.82 E170.15027
G1 X163.93 Y134.03 E170.19624
G1 X164.57 Y134.37 E170.24202
G1 X165.15 Y134.84 E170.28786
G1 X165.61 Y135.41 E170.33380
G1 X165.96 Y136.05 E170.37959
G1 X166.18 Y136.76 E170.42558
G1 X166.25 Y137.49 E170.47134
G1 X166.18 Y138.22 E170.51732
G1 X165.97 Y138.93 E170.56329
G1 X165.63 Y139.57 E170.60907
G1 X165.16 Y140.15 E170.65491
G1 X164.59 Y140.61 E170.70085
G1 X163.95 Y140.96 E170.74664
G1 X163.24 Y141.18 E170.79263
G1 X162.51 Y141.25 E170.83838
G1 X161.78 Y141.18 E170.88430
G1 X161.07 Y140.97 E170.93033
G1 X160.42 Y140.63 E170.97611
G1 X159.85 Y140.16 E171.02195
G1 X159.39 Y139.59 E171.06789
G0 F6000 X159.80 Y139.31
G1 F2700 X159.50 Y138.75 E171.10760
G1 X159.31 Y138.14 E171.14737
G1 X159.25 Y137.51 E171.18705
G1 X159.31 Y136.88 E171.22682
G1 X159.49 Y136.26 E171.26667
G1 X159.79 Y135.70 E171.30631
G1 X160.19 Y135.21 E171.34603
G1 X160.69 Y134.80 E171.38577
G1 X161.25 Y134.50 E171.42548
G1 X161.86 Y134.31 E171.46525
G1 X162.49 Y134.25 E171.50494
G1 X163.12 Y134.31 E171.54471
G1 X163.74 Y134.49 E171.58457
G1 X164.30 Y134.79 E171.62421
G1 X164.79 Y135.19 E171.66393
G1 X165.20 Y135.69 E171.70367
G1 X165.50 Y136.25 E171.74338
G1 X165.69 Y136.86 E171.78315
G1 X165.75 Y137.49 E171.82283
G1 X165.69 Y138.12 E171.86261
G1 X165.51 Y138.74 E171.90246
G1 X165.21 Y139.30 E171.94211
G1 X164.81 Y139.79 E171.98182
G1 X164.31 Y140.20 E172.02156
G1 X163.75 Y140.50 E172.06127
G1 X163.14 Y140.69 E172.10104
G1 X162.51 Y140.75 E172.14072
G1 X161.88 Y140.69 E172.18049
G1 X161.26 Y140.51 E172.22034
G1 X160.70 Y140.21 E172.25999
G1 X160.21 Y139.81 E172.29971
G1 X159.80 Y139.31 E172.33945
G0 F6000 X145.20 Y138.03
;TYPE:WALL-OUTER
G1 F2700 X145.04 Y138.54 E172.37265
G1 X144.79 Y139.02 E172.40655
G1 X144.45 Y139.44 E172.44010
G1 X144.03 Y139.78 E172.47364
G1 X143.56 Y140.04 E172.50732
G1 X143.05 Y140.19 E172.54076
G1 X142.51 Y140.25 E172.57455
G1 X141.97 Y140.20 E172.60819
G1 X141.46 Y140.04 E172.64139
G1 X140.98 Y139.79 E172.67529
G1 X140.56 Y139.45 E172.70884
G1 X140.22 Y139.03 E172.74238
G1 X139.96 Y138.56 E172.77606
G1 X139.81 Y138.05 E172.80944
G1 X139.75 Y137.51 E172.84323
G1 X139.80 Y136.97 E172.87700
G1 X139.96 Y136.46 E172.91015
G1 X140.21 Y135.98 E172.94404
G1 X140.55 Y135.56 E172.97760
G1 X140.97 Y135.22 E173.01113
G1 X141.44 Y134.96 E173.04481
G1 X141.95 Y134.81 E173.07819
G1 X142.49 Y134.75 E173.11199
G1 X143.03 Y134.80 E173.14576
G1 X143.54 Y134.96 E173.17890
G1 X144.02 Y135.21 E173.21280
G1 X144.44 Y135.55 E173.24635
G1 X144.78 Y135.97 E173.27989
G1 X145.04 Y136.44 E173.31357
G1 X145.19 Y136.95 E173.34701
G1 X145.25 Y137.49 E173.38073
G1 X145.20 Y138.03 E173.41443
G0 F6000 X144.32 Y137.86
G1 F2700 X144.35 Y137.50 E173.43712
G1 X144.31 Y137.13 E173.46006
G1 X144.21 Y136.79 E173.48263
G1 X144.04 Y136.47 E173.50520
G1 X143.81 Y136.19 E173.52788
G1 X143.53 Y135.96 E173.55052
G1 X143.21 Y135.79 E173.57312
G1 X142.86 Y135.68 E173.59547
G1 X142.50 Y135.65 E173.61816
G1 X142.13 Y135.69 E173.64110
G1 X141.79 Y135.79 E173.66367
G1 X141.47 Y135.96 E173.68624
G1 X141.19 Y136.19 E173.70892
G1 X140.96 Y136.47 E173.73156
G1 X140.79 Y136.79 E173.75416
G1 X140.69 Y137.14 E173.77651
G1 X140.65 Y137.50 E173.79920
G1 X140.69 Y137.87 E173.82214
G1 X140.79 Y138.21 E173.84471
G1 X140.96 Y138.53 E173.86728
G1 X141.19 Y138.81 E173.88995
G1 X141.48 Y139.04 E173.91260
G1 X141.80 Y139.21 E173.93520
G1 X142.14 Y139.31 E173.95755
G1 X142.50 Y139.35 E173.98017
G1 X142.87 Y139.31 E174.00318
G1 X143.21 Y139.21 E174.02574
G1 X143.53 Y139.04 E174.04832
G1 X143.81 Y138.81 E174.07099
G1 X144.04 Y138.52 E174.09364
G1 X144.21 Y138.20 E174.11624
G1 X144.32 Y137.86 E174.13859
G0 F6000 X144.50 Y137.78
;TYPE:FILL
G1 F2700 X144.85 Y138.48 E174.17865
G1 X144.20 Y138.55 E174.21395
G1 X144.27 Y139.32 E174.24787
G1 X143.49 Y139.25 E174.28161
G1 X143.41 Y139.88 E174.31699
G1 X142.62 Y139.79 E174.35814
G1 X141.90 Y139.43 E174.40812
G0 F6000 X141.70 Y139.93
G1 F2700 X140.06 Y138.30 E174.55236
G0 F6000 X140.57 Y138.10
G1 F2700 X140.21 Y137.38 E174.60874
G1 X140.12 Y136.59 E174.65001
G1 X140.75 Y136.51 E174.68549
G1 X140.67 Y135.72 E174.71934
G1 X141.45 Y135.79 E174.75320
G1 X141.52 Y135.15 E174.78845
G1 X142.29 Y135.22 E174.82829
G1 X142.95 Y135.53 E174.87385
G0 F6000 X143.15 Y135.02
G1 F2700 X144.98 Y136.84 E175.03454
G0 F6000 X144.47 Y137.04
G1 F2700 X145.06 Y137.63 E175.08649
G0 F6000 X143.03 Y144.80
;TYPE:WALL-OUTER
G1 F2700 X143.54 Y144.96 E175.11963
G1 X144.02 Y145.21 E175.15353
G1 X144.44 Y145.55 E175.18708
G1 X144.78 Y145.97 E175.22062
G1 X145.04 Y146.44 E175.25430
G1 X145.19 Y146.95 E175.28774
G1 X145.25 Y147.49 E175.32147
G1 X145.20 Y148.03 E175.35517
G1 X145.04 Y148.54 E175.38837
G1 X144.79 Y149.02 E175.42227
G1 X144.45 Y149.44 E175.45582
G1 X144.03 Y149.78 E175.48936
G1 X143.56 Y150.04 E175.52304
G1 X143.05 Y150.19 E175.55648
G1 X142.51 Y150.25 E175.59027
G1 X141.97 Y150.20 E175.62391
G1 X141.46 Y150.04 E175.65711
G1 X140.98 Y149.79 E175.69101
G1 X140.56 Y149.45 E175.72456
G1 X140.22 Y149.03 E175.75810
G1 X139.96 Y148.56 E175.79178
G1 X139.81 Y148.05 E175.82516
G1 X139.75 Y147.51 E175.85895
G1 X139.80 Y146.97 E175.89272
G1 X139.96 Y146.46 E175.92587
G1 X140.21 Y145.98 E175.95976
G1 X140.55 Y145.56 E175.99332
G1 X140.97 Y145.22 E176.02685
G1 X141.44 Y144.96 E176.06053
G1 X141.95 Y144.81 E176.09391
G1 X142.49 Y144.75 E176.12771
G1 X143.03 Y144.80 E176.16148
G0 F6000 X142.86 Y145.68
G1 F2700 X142.50 Y145.65 E176.18416
G1 X142.13 Y145.69 E176.20710
G1 X141.79 Y145.79 E176.22967
G1 X141.47 Y145.96 E176.25224
G1 X141.19 Y146.19 E176.27492
G1 X140.96 Y146.47 E176.29756
G1 X140.79 Y146.79 E176.32016
G1 X140.69 Y147.14 E176.34251
G1 X140.65 Y147.50 E176.36520
G1 X140.69 Y147.87 E176.38814
G1 X140.79 Y148.21 E176.41071
G1 X140.96 Y148.53 E176.43328
G1 X141.19 Y148.81 E176.45596
G1 X141.48 Y149.04 E176.47860
G1 X141.80 Y149.21 E176.50120
G1 X142.14 Y149.31 E176.52355
G1 X142.50 Y149.35 E176.54618
G1 X142.87 Y149.31 E176.56918
G1 X143.21 Y149.21 E176.59175
G1 X143.53 Y149.04 E176.61432
G1 X143.81 Y148.81 E176.63700
G1 X144.04 Y148.52 E176.65964
G1 X144.21 Y148.20 E176.68224
G1 X144.32 Y147.86 E176.70459
G1 X144.35 Y147.50 E176.72728
G1 X144.31 Y147.13 E176.75022
G1 X144.21 Y146.79 E176.77279
G1 X144.04 Y146.47 E176.79536
G1 X143.81 Y146.19 E176.81803
G1 X143.53 Y145.96 E176.84068
G1 X143.21 Y145.79 E176.86328
G1 X142.86 Y145.68 E176.88563
G0 F6000 X143.10 Y145.57
;TYPE:FILL
G1 F2700 X142.38 Y145.21 E176.94211
G1 X141.59 Y145.12 E176.98321
G1 X141.51 Y145.75 E177.01865
G1 X140.72 Y145.67 E177.05249
G1 X140.79 Y146.45 E177.08645
G1 X140.15 Y146.51 E177.12178
G1 X140.22 Y147.29 E177.16177
G1 X140.53 Y147.96 E177.20739
G0 F6000 X140.02 Y148.16
G1 F2700 X141.84 Y149.97 E177.36786
G0 F6000 X142.04 Y149.47
G1 F2700 X142.71 Y149.78 E177.41987
G1 X143.48 Y149.85 E177.45980
G1 X143.55 Y149.21 E177.49492
G1 X144.32 Y149.28 E177.52879
G1 X144.24 Y148.49 E177.56277
G1 X144.88 Y148.41 E177.59823
G1 X144.79 Y147.62 E177.63955
G1 X144.43 Y146.90 E177.68936
G0 F6000 X144.93 Y146.70
G1 F2700 X143.30 Y145.06 E177.83382
G0 F6000 X142.49 Y154.75
;TYPE:WALL-OUTER
G1 F2700 X143.03 Y154.80 E177.86759
G1 X143.54 Y154.96 E177.90074
G1 X144.02 Y155.21 E177.93463
G1 X144.44 Y155.55 E177.96819
G1 X144.78 Y155.97 E178.00172
G1 X145.04 Y156.44 E178.03540
G1 X145.19 Y156.95 E178.06884
G1 X145.25 Y157.49 E178.10263
G1 X145.20 Y158.03 E178.13627
G1 X145.04 Y158.54 E178.16947
G1 X144.79 Y159.02 E178.20337
G1 X144.45 Y159.44 E178.23692
G1 X144.03 Y159.78 E178.27046
G1 X143.56 Y160.03 E178.30414
G1 X143.05 Y160.19 E178.33752
G1 X142.51 Y160.25 E178.37138
G1 X141.97 Y160.19 E178.40508
G1 X141.46 Y160.04 E178.43823
G1 X140.98 Y159.79 E178.47213
G1 X140.56 Y159.45 E178.50568
G1 X140.22 Y159.03 E178.53922
G1 X139.96 Y158.56 E178.57290
G1 X139.81 Y158.04 E178.60627
G1 X139.75 Y157.51 E178.64007
G1 X139.80 Y156.97 E178.67384
G1 X139.96 Y156.46 E178.70698
G1 X140.21 Y155.98 E178.74088
G1 X140.55 Y155.56 E178.77443
G1 X140.97 Y155.22 E178.80797
G1 X141.44 Y154.96 E178.84165
G1 X141.95 Y154.81 E178.87503
G1 X142.49 Y154.75 E178.90882
G0 F6000 X142.50 Y155.65
G1 F2700 X142.13 Y155.68 E178.93177
G1 X141.79 Y155.79 E178.95433
G1 X141.47 Y155.96 E178.97690
G1 X141.19 Y156.19 E178.99958
G1 X140.96 Y156.47 E179.02223
G1 X140.79 Y156.79 E179.04482
G1 X140.69 Y157.14 E179.06718
G1 X140.65 Y157.50 E179.08986
G1 X140.69 Y157.87 E179.11280
G1 X140.79 Y158.21 E179.13537
G1 X140.96 Y158.53 E179.15794
G1 X141.19 Y158.81 E179.18062
G1 X141.48 Y159.04 E179.20327
G1 X141.80 Y159.21 E179.22586
G1 X142.14 Y159.31 E179.24821
G1 X142.50 Y159.35 E179.27083
G1 X142.87 Y159.31 E179.29377
G1 X143.21 Y159.21 E179.31639
G1 X143.53 Y159.04 E179.33897
G1 X143.81 Y158.80 E179.36164
G1 X144.04 Y158.52 E179.38429
G1 X144.21 Y158.20 E179.40689
G1 X144.32 Y157.86 E179.42924
G1 X144.35 Y157.50 E179.45186
G1 X144.31 Y157.13 E179.47487
G1 X144.21 Y156.79 E179.49743
G1 X144.04 Y156.47 E179.52001
G1 X143.81 Y156.19 E179.54268
G1 X143.53 Y155.96 E179.56533
G1 X143.21 Y155.79 E179.58792
G1 X142.86 Y155.68 E179.61028
G1 X142.50 Y155.65 E179.63296
G0 F6000 X142.40 Y155.48
;TYPE:FILL
G1 F2700 X141.66 Y155.09 E179.67530
G1 X141.58 Y155.72 E179.71169
G1 X140.77 Y155.62 E179.74558
G1 X140.83 Y156.39 E179.77955
G1 X140.18 Y156.44 E179.81504
G1 X140.23 Y157.20 E179.85403
G1 X140.51 Y157.83 E179.89701
G0 F6000 X139.98 Y158.01
G1 F2700 X141.98 Y160.02 E180.07375
G0 F6000 X142.17 Y159.49
G1 F2700 X142.80 Y159.77 E180.12255
G1 X143.55 Y159.82 E180.16134
G1 X143.61 Y159.16 E180.19652
G1 X144.38 Y159.22 E180.23039
G1 X144.28 Y158.42 E180.26443
G1 X144.91 Y158.34 E180.30085
G1 X144.79 Y157.52 E180.34344
G1 X144.38 Y156.76 E180.39735
G0 F6000 X144.89 Y156.56
G1 F2700 X143.44 Y155.10 E180.52554
G0 F6000 X143.24 Y155.61
G1 F2700 X142.56 Y154.93 E180.58569
G0 F6000 X149.80 Y156.97
;TYPE:WALL-OUTER
G1 F2700 X149.96 Y156.46 E180.61883
G1 X150.21 Y155.98 E180.65273
G1 X150.55 Y155.56 E180.68628
G1 X150.97 Y155.22 E180.71982
G1 X151.44 Y154.96 E180.75350
G1 X151.95 Y154.81 E180.78688
G1 X152.49 Y154.75 E180.82067
G1 X153.03 Y154.80 E180.85438
G1 X153.54 Y154.96 E180.88752
G1 X154.02 Y155.21 E180.92142
G1 X154.44 Y155.55 E180.95497
G1 X154.78 Y155.97 E180.98851
G1 X155.04 Y156.44 E181.02219
G1 X155.19 Y156.95 E181.05557
G1 X155.25 Y157.49 E181.08943
G1 X155.20 Y158.03 E181.12313
G1 X155.04 Y158.54 E181.15628
G1 X154.79 Y159.02 E181.19018
G1 X154.45 Y159.44 E181.22373
G1 X154.03 Y159.78 E181.25727
G1 X153.56 Y160.03 E181.29095
G1 X153.05 Y160.19 E181.32432
G1 X152.51 Y160.25 E181.35812
G1 X151.97 Y160.19 E181.39183
G1 X151.46 Y160.04 E181.42497
G1 X150.98 Y159.79 E181.45887
G1 X150.56 Y159.45 E181.49242
G1 X150.22 Y159.03 E181.52596
G1 X149.96 Y158.56 E181.55964
G1 X149.81 Y158.04 E181.59302
G1 X149.75 Y157.51 E181.62681
G1 X149.80 Y156.97 E181.66058
G0 F6000 X150.69 Y157.14
G1 F2700 X150.65 Y157.50 E181.68327
G1 X150.69 Y157.87 E181.70621
G1 X150.79 Y158.21 E181.72878
G1 X150.96 Y158.53 E181.75135
G1 X151.19 Y158.81 E181.77403
G1 X151.48 Y159.04 E181.79667
G1 X151.80 Y159.21 E181.81927
G1 X152.14 Y159.31 E181.84162
G1 X152.50 Y159.35 E181.86424
G1 X152.87 Y159.31 E181.88711
G1 X153.21 Y159.21 E181.90974
G1 X153.53 Y159.04 E181.93231
G1 X153.81 Y158.80 E181.95499
G1 X154.04 Y158.52 E181.97763
G1 X154.21 Y158.20 E182.00023
G1 X154.31 Y157.86 E182.02258
G1 X154.35 Y157.50 E182.04521
G1 X154.31 Y157.13 E182.06821
G1 X154.21 Y156.79 E182.09078
G1 X154.04 Y156.47 E182.11335
G1 X153.81 Y156.19 E182.13603
G1 X153.52 Y155.96 E182.15867
G1 X153.20 Y155.79 E182.18127
G1 X152.86 Y155.68 E182.20362
G1 X152.50 Y155.65 E182.22625
G1 X152.13 Y155.68 E182.24919
G1 X151.79 Y155.79 E182.27175
G1 X151.47 Y155.96 E182.29433
G1 X151.19 Y156.19 E182.31700
G1 X150.96 Y156.47 E182.33965
G1 X150.79 Y156.79 E182.36225
G1 X150.69 Y157.14 E182.38460
G0 F6000 X150.50 Y157.22
;TYPE:FILL
G1 F2700 X150.15 Y156.51 E182.42475
G1 X150.79 Y156.45 E182.46005
G1 X150.72 Y155.67 E182.49402
G1 X151.51 Y155.75 E182.52790
G1 X151.59 Y155.12 E182.56333
G1 X152.38 Y155.21 E182.60448
G1 X153.10 Y155.57 E182.65446
G0 F6000 X153.29 Y155.06
G1 F2700 X154.93 Y156.70 E182.79892
G0 F6000 X154.43 Y156.90
G1 F2700 X154.79 Y157.61 E182.85540
G1 X154.88 Y158.41 E182.89672
G1 X154.24 Y158.49 E182.93217
G1 X154.32 Y159.27 E182.96612
G1 X153.55 Y159.20 E182.99993
G1 X153.48 Y159.84 E183.03506
G1 X152.70 Y159.78 E183.07505
G1 X152.04 Y159.47 E183.12061
G0 F6000 X151.84 Y159.97
G1 F2700 X150.02 Y158.16 E183.28086
G0 F6000 X150.53 Y157.96
G1 F2700 X149.94 Y157.37 E183.33290
G0 F6000 X159.75 Y157.51
;TYPE:WALL-OUTER
G1 F2700 X159.80 Y156.97 E183.36660
G1 X159.96 Y156.46 E183.39981
G1 X160.21 Y155.98 E183.43370
G1 X160.55 Y155.56 E183.46726
G1 X160.97 Y155.22 E183.50079
G1 X161.44 Y154.96 E183.53447
G1 X161.95 Y154.81 E183.56785
G1 X162.49 Y154.75 E183.60164
G1 X163.03 Y154.80 E183.63541
G1 X163.54 Y154.96 E183.66856
G1 X164.02 Y155.21 E183.70246
G1 X164.44 Y155.55 E183.73601
G1 X164.78 Y155.97 E183.76955
G1 X165.04 Y156.44 E183.80323
G1 X165.19 Y156.95 E183.83661
G1 X165.25 Y157.49 E183.87046
G1 X165.20 Y158.03 E183.90417
G1 X165.04 Y158.54 E183.93732
G1 X164.79 Y159.02 E183.97121
G1 X164.45 Y159.44 E184.00476
G1 X164.03 Y159.78 E184.03830
G1 X163.56 Y160.03 E184.07198
G1 X163.05 Y160.19 E184.10536
G1 X162.51 Y160.25 E184.13915
G1 X161.97 Y160.19 E184.17292
G1 X161.46 Y160.04 E184.20607
G1 X160.98 Y159.79 E184.23997
G1 X160.56 Y159.45 E184.27352
G1 X160.22 Y159.03 E184.30706
G1 X159.96 Y158.56 E184.34074
G1 X159.81 Y158.04 E184.37418
G1 X159.75 Y157.51 E184.40790
G0 F6000 X160.65 Y157.50
G1 F2700 X160.69 Y157.87 E184.43084
G1 X160.79 Y158.21 E184.45341
G1 X160.96 Y158.53 E184.47598
G1 X161.19 Y158.81 E184.49866
G1 X161.47 Y159.04 E184.52130
G1 X161.79 Y159.21 E184.54390
G1 X162.14 Y159.31 E184.56625
G1 X162.50 Y159.35 E184.58893
G1 X162.87 Y159.31 E184.61181
G1 X163.21 Y159.21 E184.63443
G1 X163.53 Y159.04 E184.65701
G1 X163.81 Y158.80 E184.67968
G1 X164.04 Y158.52 E184.70233
G1 X164.21 Y158.20 E184.72492
G1 X164.31 Y157.86 E184.74728
G1 X164.35 Y157.50 E184.76990
G1 X164.31 Y157.13 E184.79290
G1 X164.21 Y156.79 E184.81547
G1 X164.04 Y156.47 E184.83804
G1 X163.81 Y156.19 E184.86072
G1 X163.52 Y155.96 E184.88337
G1 X163.20 Y155.79 E184.90596
G1 X162.86 Y155.68 E184.92832
G1 X162.50 Y155.65 E184.95100
G1 X162.13 Y155.68 E184.97394
G1 X161.79 Y155.79 E184.99651
G1 X161.47 Y155.96 E185.01908
G1 X161.19 Y156.19 E185.04176
G1 X160.96 Y156.47 E185.06440
G1 X160.79 Y156.79 E185.08700
G1 X160.68 Y157.14 E185.10935
G1 X160.65 Y157.50 E185.13204
G0 F6000 X160.49 Y157.31
;TYPE:FILL
G1 F2700 X160.12 Y156.59 E185.17334
G1 X160.75 Y156.51 E185.20896
G1 X160.67 Y155.72 E185.24294
G1 X161.45 Y155.79 E185.27680
G1 X161.51 Y155.15 E185.31206
G1 X162.29 Y155.22 E185.35190
G1 X162.95 Y155.53 E185.39746
G0 F6000 X163.15 Y155.02
G1 F2700 X164.97 Y156.84 E185.55820
G0 F6000 X164.47 Y157.04
G1 F2700 X164.78 Y157.71 E185.61007
G1 X164.85 Y158.48 E185.65011
G1 X164.20 Y158.55 E185.68549
G1 X164.27 Y159.32 E185.71940
G1 X163.49 Y159.24 E185.75324
G1 X163.41 Y159.88 E185.78868
G1 X162.61 Y159.78 E185.82999
G1 X161.90 Y159.42 E185.87989
G0 F6000 X161.70 Y159.93
G1 F2700 X160.06 Y158.30 E186.02408
G0 F6000 X160.57 Y158.10
G1 F2700 X159.93 Y157.46 E186.08057
G0 F6000 X161.97 Y150.20
;TYPE:WALL-OUTER
G1 F2700 X161.46 Y150.04 E186.11378
G1 X160.98 Y149.79 E186.14767
G1 X160.56 Y149.45 E186.18123
G1 X160.22 Y149.03 E186.21476
G1 X159.96 Y148.56 E186.24844
G1 X159.81 Y148.04 E186.28188
G1 X159.75 Y147.51 E186.31561
G1 X159.80 Y146.97 E186.34931
G1 X159.96 Y146.46 E186.38252
G1 X160.21 Y145.98 E186.41641
G1 X160.55 Y145.56 E186.44997
G1 X160.97 Y145.22 E186.48350
G1 X161.44 Y144.96 E186.51718
G1 X161.95 Y144.81 E186.55056
G1 X162.49 Y144.75 E186.58436
G1 X163.03 Y144.80 E186.61813
G1 X163.54 Y144.96 E186.65127
G1 X164.02 Y145.21 E186.68517
G1 X164.44 Y145.55 E186.71872
G1 X164.78 Y145.97 E186.75226
G1 X165.04 Y146.44 E186.78594
G1 X165.19 Y146.95 E186.81932
G1 X165.25 Y147.49 E186.85311
G1 X165.20 Y148.03 E186.88688
G1 X165.04 Y148.54 E186.92003
G1 X164.79 Y149.02 E186.95392
G1 X164.45 Y149.44 E186.98748
G1 X164.03 Y149.78 E187.02101
G1 X163.56 Y150.04 E187.05469
G1 X163.04 Y150.19 E187.08813
G1 X162.51 Y150.25 E187.12186
G1 X161.97 Y150.20 E187.15556
G0 F6000 X162.14 Y149.31
G1 F2700 X162.50 Y149.35 E187.17825
G1 X162.87 Y149.31 E187.20119
G1 X163.21 Y149.21 E187.22375
G1 X163.53 Y149.04 E187.24633
G1 X163.81 Y148.81 E187.26900
G1 X164.04 Y148.52 E187.29165
G1 X164.21 Y148.20 E187.31425
G1 X164.31 Y147.86 E187.33660
G1 X164.35 Y147.50 E187.35928
G1 X164.31 Y147.13 E187.38223
G1 X164.21 Y146.79 E187.40479
G1 X164.04 Y146.47 E187.42736
G1 X163.81 Y146.19 E187.45004
G1 X163.52 Y145.96 E187.47269
G1 X163.20 Y145.79 E187.49528
G1 X162.86 Y145.68 E187.51764
G1 X162.50 Y145.65 E187.54032
G1 X162.13 Y145.69 E187.56326
G1 X161.79 Y145.79 E187.58583
G1 X161.47 Y145.96 E187.60840
G1 X161.19 Y146.19 E187.63108
G1 X160.96 Y146.47 E187.65373
G1 X160.79 Y146.79 E187.67632
G1 X160.68 Y147.14 E187.69867
G1 X160.65 Y147.50 E187.72136
G1 X160.69 Y147.87 E187.74430
G1 X160.79 Y148.21 E187.76687
G1 X160.96 Y148.53 E187.78944
G1 X161.19 Y148.81 E187.81212
G1 X161.47 Y149.04 E187.83476
G1 X161.79 Y149.21 E187.85736
G1 X162.14 Y149.31 E187.87971
G0 F6000 X161.76 Y149.38
;TYPE:FILL
G1 F2700 X162.52 Y149.79 E187.94001
G1 X163.34 Y149.90 E187.98245
G1 X163.42 Y149.28 E188.01897
G1 X164.22 Y149.38 E188.05291
G1 X164.16 Y148.61 E188.08688
G1 X164.82 Y148.55 E188.12224
G1 X164.77 Y147.80 E188.16103
G1 X164.49 Y147.17 E188.20395
G0 F6000 X165.02 Y146.99
G1 F2700 X163.01 Y144.98 E188.38096
G0 F6000 X162.83 Y145.50
G1 F2700 X162.20 Y145.23 E188.42987
G1 X161.44 Y145.18 E188.46852
G1 X161.39 Y145.83 E188.50364
G1 X160.62 Y145.77 E188.53746
G1 X160.72 Y146.58 E188.57140
G1 X160.09 Y146.66 E188.60797
G1 X160.21 Y147.48 E188.65056
G1 X160.62 Y148.24 E188.70458
G0 F6000 X160.11 Y148.44
G1 F2700 X161.56 Y149.89 E188.83242
G0 F6000 X155.20 Y148.03
;TYPE:WALL-OUTER
G1 F2700 X155.04 Y148.54 E188.86556
G1 X154.79 Y149.02 E188.89946
G1 X154.45 Y149.44 E188.93301
G1 X154.03 Y149.78 E188.96655
G1 X153.56 Y150.04 E189.00023
G1 X153.04 Y150.19 E189.03367
G1 X152.51 Y150.25 E189.06739
G1 X151.97 Y150.20 E189.10103
G1 X151.46 Y150.04 E189.13424
G1 X150.98 Y149.79 E189.16813
G1 X150.56 Y149.45 E189.20169
G1 X150.22 Y149.03 E189.23522
G1 X149.96 Y148.56 E189.26890
G1 X149.81 Y148.05 E189.30228
G1 X149.75 Y147.51 E189.33608
G1 X149.80 Y146.97 E189.36985
G1 X149.96 Y146.46 E189.40299
G1 X150.21 Y145.98 E189.43689
G1 X150.55 Y145.56 E189.47044
G1 X150.97 Y145.22 E189.50398
G1 X151.44 Y144.96 E189.53766
G1 X151.95 Y144.81 E189.57104
G1 X152.49 Y144.75 E189.60483
G1 X153.03 Y144.80 E189.63854
G1 X153.54 Y144.96 E189.67169
G1 X154.02 Y145.21 E189.70558
G1 X154.44 Y145.55 E189.73914
G1 X154.78 Y145.97 E189.77267
G1 X155.04 Y146.44 E189.80635
G1 X155.19 Y146.95 E189.83973
G1 X155.25 Y147.49 E189.87353
G1 X155.20 Y148.03 E189.90730
G0 F6000 X154.31 Y147.86
G1 F2700 X154.35 Y147.50 E189.92998
G1 X154.31 Y147.13 E189.95292
G1 X154.21 Y146.79 E189.97549
G1 X154.04 Y146.47 E189.99806
G1 X153.81 Y146.19 E190.02074
G1 X153.52 Y145.96 E190.04338
G1 X153.20 Y145.79 E190.06598
G1 X152.86 Y145.68 E190.08833
G1 X152.50 Y145.65 E190.11096
G1 X152.13 Y145.69 E190.13390
G1 X151.79 Y145.79 E190.15647
G1 X151.47 Y145.96 E190.17904
G1 X151.19 Y146.19 E190.20172
G1 X150.96 Y146.47 E190.22436
G1 X150.79 Y146.79 E190.24696
G1 X150.69 Y147.14 E190.26931
G1 X150.65 Y147.50 E190.29200
G1 X150.69 Y147.87 E190.31494
G1 X150.79 Y148.21 E190.33751
G1 X150.96 Y148.53 E190.36008
G1 X151.19 Y148.81 E190.38275
G1 X151.48 Y149.04 E190.40540
G1 X151.80 Y149.21 E190.42800
G1 X152.14 Y149.31 E190.45035
G1 X152.50 Y149.35 E190.47297
