;-- START GCODE --
;Sliced for Type A Machines Series 1
;Sliced at: Sat 21-05-2016 13:33:40
;Basic settings: Layer height: 0.2 Walls: 1 Fill: 50
;Print Speed: 100 Support: 0
;Retraction Speed: 40 Retraction Distance: 1.2
;Print time: #P_TIME#
;Filament used: #F_AMNT#m #F_WGHT#g
;Filament cost: #F_COST#
M106 S255	 ;start with the fan on
G21        ;metric values
G90        ;absolute positioning
M106 S255    ;start with the fan on
G28     ;move to endstops
G29		;allows for auto-levelling
G1 X150 Y5  Z15.0 F6000 ;center and move the platform down 15mm
M109 S220 ;Heat To temp
G92 E0                  ;zero the extruded length
G1 F200 E30              ;extrude 30mm of feed stock
G92 E0                  ;zero the extruded length again
G1 X175 Y25  Z0 F6000 ;remove bugger
G1 X220 F6000 ;remove bugger
G1 X150 Y150  Z15 F6000 ;recenter and begin
G1 F6000

;Layer count: 20
;LAYER:0
M106 S255
G0 F6000 X144.32 Y137.88 Z0.30
;TYPE:SKIRT
G1 F2700 X145.41 Y137.00 E0.08734
G1 X145.99 Y136.50 E0.13486
G1 X147.29 Y135.81 E0.22709
G1 X148.00 Y135.42 E0.27753
G1 X149.47 Y134.97 E0.37319
G1 X150.19 Y134.74 E0.42055
G1 X151.70 Y134.60 E0.51509
G1 X152.43 Y134.51 E0.56093
G1 X154.07 Y134.67 E0.66387
G1 X154.83 Y134.76 E0.71141
G1 X156.27 Y135.19 E0.80530
G1 X156.99 Y135.42 E0.85234
G1 X158.34 Y136.14 E0.94764
G1 X159.00 Y136.51 E0.99487
G1 X160.19 Y137.48 E1.09036
G1 X160.77 Y137.97 E1.13788
G1 X161.65 Y139.06 E1.22522
G1 X162.15 Y139.64 E1.27274
G1 X162.84 Y140.94 E1.36497
G1 X163.23 Y141.65 E1.41541
G1 X163.68 Y143.12 E1.51101
G1 X163.91 Y143.84 E1.55817
G1 X164.05 Y145.34 E1.65229
G1 X164.14 Y146.09 E1.69919
G1 X163.98 Y147.73 E1.80214
G1 X163.89 Y148.48 E1.84936
G1 X163.46 Y149.92 E1.94325
G1 X163.23 Y150.64 E1.99029
G1 X162.51 Y151.99 E2.08559
G1 X162.23 Y152.49 E2.12140
G1 X162.84 Y153.64 E2.20253
G1 X163.23 Y154.35 E2.25297
G1 X163.68 Y155.81 E2.34850
G1 X163.91 Y156.53 E2.39567
G1 X164.06 Y158.04 E2.49010
G1 X164.14 Y158.78 E2.53663
G1 X163.98 Y160.43 E2.63964
G1 X163.89 Y161.18 E2.68692
G1 X163.46 Y162.62 E2.78081
G1 X163.23 Y163.34 E2.82785
G1 X162.51 Y164.69 E2.92315
G1 X162.14 Y165.35 E2.97038
G1 X161.17 Y166.53 E3.06587
G1 X160.68 Y167.12 E3.11339
G1 X159.59 Y168.00 E3.20073
G1 X159.01 Y168.50 E3.24825
G1 X157.71 Y169.19 E3.34048
G1 X157.00 Y169.58 E3.39092
G1 X155.53 Y170.03 E3.48659
G1 X154.81 Y170.26 E3.53394
G1 X153.30 Y170.40 E3.62849
G1 X152.57 Y170.49 E3.67433
G1 X150.93 Y170.33 E3.77727
G1 X150.17 Y170.24 E3.82480
G1 X148.73 Y169.81 E3.91869
G1 X148.01 Y169.58 E3.96573
G1 X146.66 Y168.86 E4.06103
G1 X146.00 Y168.49 E4.10826
G1 X144.81 Y167.52 E4.20375
G1 X144.23 Y167.03 E4.25127
G1 X143.35 Y165.94 E4.33861
G1 X142.85 Y165.36 E4.38613
G1 X142.16 Y164.06 E4.47836
G1 X141.77 Y163.35 E4.52880
G1 X141.32 Y161.88 E4.62433
G1 X141.09 Y161.16 E4.67151
G1 X140.94 Y159.66 E4.76594
G1 X140.86 Y158.92 E4.81246
G1 X141.02 Y157.27 E4.91547
G1 X141.11 Y156.52 E4.96275
G1 X141.54 Y155.08 E5.05664
G1 X141.77 Y154.36 E5.10368
G1 X142.49 Y153.01 E5.19898
G1 X142.77 Y152.51 E5.23480
G1 X142.16 Y151.36 E5.31593
G1 X141.77 Y150.65 E5.36636
G1 X141.32 Y149.19 E5.46189
G1 X141.09 Y148.47 E5.50907
G1 X140.94 Y146.96 E5.60350
G1 X140.86 Y146.22 E5.65002
G1 X141.02 Y144.57 E5.75303
G1 X141.11 Y143.82 E5.80031
G1 X141.54 Y142.38 E5.89420
G1 X141.77 Y141.66 E5.94124
G1 X142.49 Y140.31 E6.03655
G1 X142.86 Y139.65 E6.08377
G1 X143.83 Y138.47 E6.17927
G1 X144.32 Y137.88 E6.22679
G0 F6000 X144.67 Y138.24
G1 F2700 X145.72 Y137.38 E6.31107
G1 X146.27 Y136.92 E6.35597
G1 X147.56 Y136.23 E6.44757
G1 X148.19 Y135.88 E6.49254
G1 X149.65 Y135.44 E6.58749
G1 X150.29 Y135.23 E6.62930
G1 X151.75 Y135.09 E6.72103
G1 X152.44 Y135.01 E6.76372
G1 X154.02 Y135.17 E6.86303
G1 X154.73 Y135.25 E6.90748
G1 X156.12 Y135.67 E6.99839
G1 X156.79 Y135.88 E7.04235
G1 X158.10 Y136.58 E7.13453
G1 X158.72 Y136.92 E7.17868
G1 X159.87 Y137.86 E7.27112
G1 X160.41 Y138.32 E7.31554
G1 X161.26 Y139.37 E7.39982
G1 X161.73 Y139.92 E7.44473
G1 X162.42 Y141.21 E7.53632
G1 X162.77 Y141.84 E7.58129
G1 X163.21 Y143.30 E7.67624
G1 X163.41 Y143.94 E7.71786
G1 X163.56 Y145.39 E7.80872
G1 X163.64 Y146.09 E7.85278
G1 X163.48 Y147.68 E7.95216
G1 X163.40 Y148.38 E7.99630
G1 X162.98 Y149.77 E8.08721
G1 X162.76 Y150.45 E8.13117
G1 X162.07 Y151.75 E8.22335
G1 X161.73 Y152.37 E8.26751
G1 X161.63 Y152.49 E8.27743
G1 X161.73 Y152.62 E8.28757
G1 X162.42 Y153.91 E8.37916
G1 X162.77 Y154.54 E8.42413
G1 X163.21 Y156.00 E8.51908
G1 X163.41 Y156.64 E8.56064
G1 X163.56 Y158.09 E8.65181
G1 X163.64 Y158.79 E8.69556
G1 X163.48 Y160.37 E8.79494
G1 X163.40 Y161.08 E8.83914
G1 X162.98 Y162.47 E8.93005
G1 X162.76 Y163.15 E8.97401
G1 X162.07 Y164.45 E9.06619
G1 X161.73 Y165.07 E9.11035
G1 X160.79 Y166.22 E9.20278
G1 X160.33 Y166.76 E9.24720
G1 X159.28 Y167.62 E9.33148
G1 X158.73 Y168.08 E9.37639
G1 X157.44 Y168.77 E9.46798
G1 X156.81 Y169.12 E9.51295
G1 X155.35 Y169.56 E9.60791
G1 X154.71 Y169.77 E9.64972
G1 X153.25 Y169.91 E9.74145
G1 X152.56 Y169.99 E9.78414
G1 X150.98 Y169.83 E9.88345
G1 X150.27 Y169.75 E9.92790
G1 X148.88 Y169.33 E10.01880
G1 X148.21 Y169.12 E10.06277
G1 X146.90 Y168.42 E10.15495
G1 X146.28 Y168.08 E10.19910
G1 X145.13 Y167.14 E10.29154
G1 X144.59 Y166.68 E10.33596
G1 X143.74 Y165.63 E10.42024
G1 X143.27 Y165.08 E10.46515
G1 X142.58 Y163.79 E10.55674
G1 X142.23 Y163.16 E10.60171
G1 X141.79 Y161.70 E10.69666
G1 X141.59 Y161.06 E10.73822
G1 X141.44 Y159.61 E10.82939
G1 X141.36 Y158.91 E10.87314
G1 X141.52 Y157.32 E10.97252
G1 X141.60 Y156.62 E11.01672
G1 X142.02 Y155.23 E11.10763
G1 X142.24 Y154.55 E11.15159
G1 X142.93 Y153.25 E11.24377
G1 X143.27 Y152.63 E11.28793
G1 X143.37 Y152.51 E11.29785
G1 X143.27 Y152.38 E11.30799
G1 X142.58 Y151.09 E11.39958
G1 X142.23 Y150.46 E11.44455
G1 X141.79 Y149.00 E11.53950
G1 X141.59 Y148.36 E11.58105
G1 X141.44 Y146.91 E11.67223
G1 X141.36 Y146.21 E11.71598
G1 X141.52 Y144.63 E11.81536
G1 X141.60 Y143.92 E11.85956
G1 X142.02 Y142.53 E11.95047
G1 X142.24 Y141.85 E11.99443
G1 X142.93 Y140.55 E12.08661
G1 X143.27 Y139.93 E12.13077
G1 X144.21 Y138.78 E12.22320
G1 X144.67 Y138.24 E12.26762
G0 F6000 X145.03 Y138.60
G1 F2700 X146.03 Y137.77 E12.34893
G1 X146.55 Y137.34 E12.39119
G1 X147.81 Y136.66 E12.48052
G1 X148.39 Y136.34 E12.52158
G1 X149.74 Y135.93 E12.60969
G1 X150.39 Y135.73 E12.65214
G1 X151.81 Y135.59 E12.74098
G1 X152.44 Y135.52 E12.78054
G1 X153.97 Y135.66 E12.87621
G1 X154.63 Y135.74 E12.91758
G1 X155.97 Y136.15 E13.00543
G1 X156.60 Y136.35 E13.04639
G1 X157.86 Y137.02 E13.13553
G1 X158.44 Y137.34 E13.17656
G1 X159.54 Y138.25 E13.26590
G1 X160.05 Y138.68 E13.30722
G1 X160.88 Y139.68 E13.38853
G1 X161.31 Y140.20 E13.43079
G1 X161.99 Y141.47 E13.52012
G1 X162.31 Y142.04 E13.56118
G1 X162.71 Y143.37 E13.64791
G1 X162.92 Y144.04 E13.69154
G1 X163.06 Y145.44 E13.77932
G1 X163.14 Y146.09 E13.82045
G1 X162.99 Y147.62 E13.91614
G1 X162.91 Y148.28 E13.95726
G1 X162.50 Y149.62 E14.04511
G1 X162.30 Y150.25 E14.08607
G1 X161.63 Y151.51 E14.17521
G1 X161.31 Y152.09 E14.21624
G1 X160.97 Y152.50 E14.24930
G1 X161.31 Y152.90 E14.28214
G1 X161.99 Y154.16 E14.37147
G1 X162.31 Y154.74 E14.41253
G1 X162.71 Y156.07 E14.49926
G1 X162.92 Y156.74 E14.54288
G1 X163.06 Y158.14 E14.63055
G1 X163.14 Y158.79 E14.67168
G1 X162.99 Y160.32 E14.76749
G1 X162.91 Y160.98 E14.80861
G1 X162.50 Y162.32 E14.89646
G1 X162.30 Y162.95 E14.93742
G1 X161.63 Y164.21 E15.02656
G1 X161.31 Y164.79 E15.06759
G1 X160.40 Y165.90 E15.15693
G1 X159.97 Y166.40 E15.19825
G1 X158.97 Y167.23 E15.27956
G1 X158.45 Y167.66 E15.32182
G1 X157.19 Y168.34 E15.41115
G1 X156.61 Y168.66 E15.45221
G1 X155.26 Y169.07 E15.54032
G1 X154.61 Y169.27 E15.58276
G1 X153.19 Y169.41 E15.67161
G1 X152.56 Y169.48 E15.71116
G1 X151.03 Y169.34 E15.80684
G1 X150.37 Y169.26 E15.84821
G1 X149.03 Y168.85 E15.93606
G1 X148.40 Y168.65 E15.97702
G1 X147.14 Y167.98 E16.06616
G1 X146.56 Y167.66 E16.10719
G1 X145.46 Y166.75 E16.19653
G1 X144.95 Y166.32 E16.23785
G1 X144.12 Y165.32 E16.31916
G1 X143.69 Y164.80 E16.36142
G1 X143.01 Y163.53 E16.45075
G1 X142.69 Y162.96 E16.49181
G1 X142.29 Y161.63 E16.57854
G1 X142.08 Y160.96 E16.62217
G1 X141.94 Y159.56 E16.70983
G1 X141.86 Y158.91 E16.75096
G1 X142.01 Y157.38 E16.84677
G1 X142.09 Y156.72 E16.88789
G1 X142.50 Y155.38 E16.97574
G1 X142.70 Y154.75 E17.01670
G1 X143.37 Y153.49 E17.10584
G1 X143.69 Y152.91 E17.14687
G1 X144.03 Y152.50 E17.17993
G1 X143.69 Y152.10 E17.21276
G1 X143.01 Y150.84 E17.30210
G1 X142.69 Y150.26 E17.34316
G1 X142.29 Y148.93 E17.42989
G1 X142.08 Y148.26 E17.47351
G1 X141.94 Y146.86 E17.56118
G1 X141.86 Y146.21 E17.60231
G1 X142.01 Y144.68 E17.69812
G1 X142.09 Y144.02 E17.73924
G1 X142.50 Y142.68 E17.82709
G1 X142.70 Y142.05 E17.86805
G1 X143.37 Y140.79 E17.95719
G1 X143.69 Y140.21 E17.99822
G1 X144.60 Y139.10 E18.08756
G1 X145.03 Y138.60 E18.12888
G0 F6000 X145.38 Y138.96
G1 F2700 X146.38 Y138.13 E18.20993
G1 X146.83 Y137.75 E18.24683
G1 X148.04 Y137.10 E18.33242
G1 X148.59 Y136.81 E18.37097
G1 X149.94 Y136.39 E18.45935
G1 X150.49 Y136.22 E18.49540
G1 X151.82 Y136.09 E18.57848
G1 X152.44 Y136.02 E18.61778
G1 X153.91 Y136.16 E18.70982
G1 X154.52 Y136.23 E18.74811
G1 X155.83 Y136.63 E18.83296
G1 X156.41 Y136.81 E18.87085
G1 X157.62 Y137.46 E18.95686
G1 X158.16 Y137.75 E18.99491
G1 X159.22 Y138.63 E19.08110
G1 X159.69 Y139.03 E19.11932
G1 X160.52 Y140.03 E19.20037
G1 X160.90 Y140.48 E19.23727
G1 X161.53 Y141.67 E19.32089
G1 X161.84 Y142.24 E19.36141
G1 X162.26 Y143.59 E19.44980
G1 X162.43 Y144.14 E19.48565
G1 X162.56 Y145.49 E19.57050
G1 X162.63 Y146.10 E19.60848
G1 X162.49 Y147.57 E19.70060
G1 X162.42 Y148.18 E19.73864
G1 X162.02 Y149.48 E19.82349
G1 X161.84 Y150.06 E19.86138
G1 X161.19 Y151.27 E19.94739
G1 X160.90 Y151.81 E19.98544
G1 X160.33 Y152.50 E20.04140
G1 X160.52 Y152.73 E20.06006
G1 X160.90 Y153.18 E20.09695
G1 X161.53 Y154.37 E20.18057
G1 X161.84 Y154.94 E20.22110
G1 X162.26 Y156.29 E20.30948
G1 X162.43 Y156.84 E20.34533
G1 X162.56 Y158.20 E20.43043
G1 X162.63 Y158.80 E20.46810
G1 X162.49 Y160.27 E20.56027
G1 X162.42 Y160.87 E20.59832
G1 X162.02 Y162.18 E20.68317
G1 X161.84 Y162.75 E20.72106
G1 X161.19 Y163.97 E20.80707
G1 X160.90 Y164.51 E20.84512
G1 X160.02 Y165.57 E20.93131
G1 X159.62 Y166.04 E20.96954
G1 X158.62 Y166.87 E21.05058
G1 X158.17 Y167.25 E21.08748
G1 X156.96 Y167.90 E21.17308
G1 X156.41 Y168.19 E21.21162
G1 X155.06 Y168.61 E21.30001
G1 X154.51 Y168.78 E21.33606
G1 X153.18 Y168.91 E21.41914
G1 X152.56 Y168.98 E21.45843
G1 X151.09 Y168.84 E21.55047
G1 X150.48 Y168.77 E21.58877
G1 X149.17 Y168.37 E21.67362
G1 X148.59 Y168.19 E21.71151
G1 X147.38 Y167.54 E21.79752
G1 X146.84 Y167.25 E21.83557
G1 X145.78 Y166.37 E21.92176
G1 X145.31 Y165.97 E21.95998
G1 X144.48 Y164.97 E22.04103
G1 X144.10 Y164.52 E22.07793
G1 X143.47 Y163.33 E22.16154
G1 X143.16 Y162.76 E22.20207
G1 X142.74 Y161.41 E22.29045
G1 X142.57 Y160.86 E22.32631
G1 X142.44 Y159.50 E22.41140
G1 X142.37 Y158.90 E22.44907
G1 X142.51 Y157.43 E22.54125
G1 X142.58 Y156.82 E22.57930
G1 X142.98 Y155.52 E22.66415
G1 X143.16 Y154.94 E22.70203
G1 X143.81 Y153.73 E22.78805
G1 X144.10 Y153.19 E22.82609
G1 X144.67 Y152.50 E22.88206
G1 X144.48 Y152.27 E22.90071
G1 X144.10 Y151.82 E22.93761
G1 X143.47 Y150.63 E23.02123
G1 X143.16 Y150.06 E23.06175
G1 X142.74 Y148.71 E23.15014
G1 X142.57 Y148.16 E23.18599
G1 X142.44 Y146.80 E23.27109
G1 X142.37 Y146.20 E23.30876
G1 X142.51 Y144.73 E23.40093
G1 X142.58 Y144.13 E23.43898
G1 X142.98 Y142.82 E23.52383
G1 X143.16 Y142.25 E23.56172
G1 X143.81 Y141.03 E23.64773
G1 X144.10 Y140.49 E23.68578
G1 X144.98 Y139.43 E23.77197
G1 X145.38 Y138.96 E23.81019
G0 F6000 X145.73 Y139.32
G1 F2700 X146.70 Y138.52 E23.88871
G1 X147.12 Y138.17 E23.92247
G1 X148.33 Y137.52 E24.00801
G1 X148.78 Y137.27 E24.04050
G1 X150.06 Y136.88 E24.12411
G1 X150.59 Y136.71 E24.15872
G1 X151.92 Y136.58 E24.24187
G1 X152.45 Y136.52 E24.27501
G1 X153.86 Y136.66 E24.36348
G1 X154.42 Y136.72 E24.39863
G1 X155.68 Y137.10 E24.48056
G1 X156.21 Y137.27 E24.51536
G1 X157.38 Y137.90 E24.59833
G1 X157.87 Y138.17 E24.63325
G1 X158.90 Y139.01 E24.71633
G1 X159.33 Y139.38 E24.75151
G1 X160.13 Y140.35 E24.83002
G1 X160.48 Y140.77 E24.86378
G1 X161.13 Y141.97 E24.94924
G1 X161.38 Y142.43 E24.98181
G1 X161.77 Y143.70 E25.06451
G1 X161.94 Y144.24 E25.09984
G1 X162.06 Y145.54 E25.18155
G1 X162.13 Y146.10 E25.21665
G1 X161.99 Y147.52 E25.30513
G1 X161.93 Y148.07 E25.34003
G1 X161.54 Y149.33 E25.42196
G1 X161.38 Y149.86 E25.45675
G1 X160.75 Y151.03 E25.53972
G1 X160.48 Y151.53 E25.57464
G1 X159.68 Y152.50 E25.65330
G1 X160.13 Y153.05 E25.69783
G1 X160.48 Y153.47 E25.73159
G1 X161.13 Y154.67 E25.81704
G1 X161.38 Y155.13 E25.84962
G1 X161.77 Y156.40 E25.93232
G1 X161.94 Y156.94 E25.96764
G1 X162.06 Y158.25 E26.04954
G1 X162.13 Y158.80 E26.08433
G1 X161.99 Y160.21 E26.17287
G1 X161.93 Y160.77 E26.20784
G1 X161.54 Y162.03 E26.28977
G1 X161.38 Y162.56 E26.32456
G1 X160.75 Y163.73 E26.40753
G1 X160.48 Y164.22 E26.44245
G1 X159.63 Y165.25 E26.52553
G1 X159.27 Y165.68 E26.56071
G1 X158.30 Y166.48 E26.63922
G1 X157.88 Y166.83 E26.67298
G1 X156.67 Y167.48 E26.75852
G1 X156.22 Y167.73 E26.79101
G1 X154.94 Y168.12 E26.87462
G1 X154.41 Y168.29 E26.90924
G1 X153.08 Y168.42 E26.99238
G1 X152.55 Y168.48 E27.02553
G1 X151.14 Y168.34 E27.11399
G1 X150.58 Y168.28 E27.14915
G1 X149.32 Y167.90 E27.23108
G1 X148.79 Y167.73 E27.26587
G1 X147.62 Y167.10 E27.34884
G1 X147.13 Y166.83 E27.38376
G1 X146.10 Y165.99 E27.46685
G1 X145.67 Y165.62 E27.50202
G1 X144.87 Y164.65 E27.58054
G1 X144.52 Y164.23 E27.61430
G1 X143.87 Y163.02 E27.69984
G1 X143.62 Y162.57 E27.73233
G1 X143.22 Y161.26 E27.81744
G1 X143.06 Y160.76 E27.85035
G1 X142.94 Y159.45 E27.93225
G1 X142.87 Y158.90 E27.96704
G1 X143.01 Y157.49 E28.05558
G1 X143.07 Y156.93 E28.09055
G1 X143.46 Y155.67 E28.17247
G1 X143.62 Y155.14 E28.20727
G1 X144.25 Y153.97 E28.29024
G1 X144.52 Y153.47 E28.32516
G1 X145.32 Y152.50 E28.40381
G1 X144.87 Y151.95 E28.44834
G1 X144.52 Y151.53 E28.48210
G1 X143.87 Y150.32 E28.56764
G1 X143.62 Y149.87 E28.60013
G1 X143.22 Y148.56 E28.68524
G1 X143.06 Y148.06 E28.71816
G1 X142.94 Y146.75 E28.80006
G1 X142.87 Y146.20 E28.83484
G1 X143.01 Y144.79 E28.92339
G1 X143.07 Y144.23 E28.95835
G1 X143.46 Y142.97 E29.04028
G1 X143.62 Y142.44 E29.07507
G1 X144.25 Y141.27 E29.15804
G1 X144.52 Y140.78 E29.19296
G1 X145.37 Y139.75 E29.27605
G1 X145.73 Y139.32 E29.31122
G0 F6000 X146.08 Y139.67
G1 F2700 X147.02 Y138.91 E29.38691
G1 X147.40 Y138.58 E29.41793
G1 X148.56 Y137.96 E29.50015
G1 X148.98 Y137.73 E29.52979
G1 X150.21 Y137.36 E29.60995
G1 X150.69 Y137.21 E29.64180
G1 X151.97 Y137.08 E29.72138
G1 X152.45 Y137.02 E29.75208
G1 X153.81 Y137.16 E29.83692
G1 X154.32 Y137.22 E29.86900
G1 X155.53 Y137.58 E29.94791
G1 X156.01 Y137.74 E29.97964
G1 X157.15 Y138.34 E30.05952
G1 X157.59 Y138.59 E30.09137
G1 X158.58 Y139.40 E30.17135
G1 X158.98 Y139.73 E30.20339
G1 X159.75 Y140.67 E30.27908
G1 X160.07 Y141.05 E30.31009
G1 X160.66 Y142.15 E30.38813
G1 X160.92 Y142.63 E30.42196
G1 X161.28 Y143.82 E30.49996
G1 X161.44 Y144.34 E30.53379
G1 X161.57 Y145.59 E30.61205
G1 X161.63 Y146.11 E30.64451
G1 X161.49 Y147.46 E30.72935
G1 X161.44 Y147.97 E30.76125
G1 X161.07 Y149.18 E30.84016
G1 X160.91 Y149.67 E30.87189
G1 X160.31 Y150.80 E30.95177
G1 X160.06 Y151.24 E30.98362
G1 X159.25 Y152.24 E31.06360
G1 X159.03 Y152.50 E31.08493
G1 X159.75 Y153.37 E31.15530
G1 X160.07 Y153.75 E31.18632
G1 X160.66 Y154.85 E31.26435
G1 X160.92 Y155.33 E31.29818
G1 X161.28 Y156.52 E31.37619
G1 X161.44 Y157.04 E31.41001
G1 X161.57 Y158.29 E31.48852
G1 X161.63 Y158.81 E31.52067
G1 X161.49 Y160.16 E31.60558
G1 X161.44 Y160.67 E31.63747
G1 X161.07 Y161.88 E31.71638
G1 X160.91 Y162.37 E31.74812
G1 X160.31 Y163.50 E31.82799
G1 X160.06 Y163.94 E31.85984
G1 X159.25 Y164.93 E31.93983
G1 X158.92 Y165.33 E31.97186
G1 X157.98 Y166.09 E32.04755
G1 X157.60 Y166.42 E32.07857
G1 X156.44 Y167.04 E32.16079
G1 X156.02 Y167.27 E32.19043
G1 X154.79 Y167.64 E32.27059
G1 X154.31 Y167.79 E32.30244
G1 X153.03 Y167.92 E32.38202
G1 X152.55 Y167.98 E32.41272
G1 X151.19 Y167.84 E32.49756
G1 X150.68 Y167.78 E32.52964
G1 X149.47 Y167.42 E32.60855
G1 X148.99 Y167.26 E32.64029
G1 X147.85 Y166.66 E32.72016
G1 X147.41 Y166.41 E32.75201
G1 X146.42 Y165.60 E32.83200
G1 X146.02 Y165.27 E32.86403
G1 X145.25 Y164.33 E32.93972
G1 X144.93 Y163.95 E32.97074
G1 X144.31 Y162.79 E33.05296
G1 X144.08 Y162.37 E33.08260
G1 X143.70 Y161.12 E33.16439
G1 X143.56 Y160.66 E33.19443
G1 X143.43 Y159.41 E33.27294
G1 X143.37 Y158.89 E33.30509
G1 X143.51 Y157.54 E33.39000
G1 X143.56 Y157.03 E33.42189
G1 X143.93 Y155.82 E33.50080
G1 X144.09 Y155.33 E33.53254
G1 X144.69 Y154.20 E33.61241
G1 X144.94 Y153.76 E33.64426
G1 X145.75 Y152.76 E33.72425
G1 X145.97 Y152.50 E33.74557
G1 X145.25 Y151.63 E33.81595
G1 X144.93 Y151.25 E33.84696
G1 X144.31 Y150.09 E33.92918
G1 X144.08 Y149.67 E33.95882
G1 X143.70 Y148.42 E34.04062
G1 X143.56 Y147.96 E34.07065
G1 X143.43 Y146.71 E34.14916
G1 X143.37 Y146.19 E34.18131
G1 X143.51 Y144.84 E34.26622
G1 X143.56 Y144.33 E34.29811
G1 X143.93 Y143.12 E34.37703
G1 X144.09 Y142.63 E34.40876
G1 X144.69 Y141.50 E34.48864
G1 X144.94 Y141.06 E34.52049
G1 X145.75 Y140.07 E34.60047
G1 X146.08 Y139.67 E34.63251
G0 F6000 X146.43 Y140.03
G1 F2700 X147.31 Y139.32 E34.70288
G1 X147.68 Y139.00 E34.73359
G1 X148.78 Y138.41 E34.81096
G1 X149.17 Y138.19 E34.83923
G1 X150.34 Y137.84 E34.91546
G1 X150.79 Y137.70 E34.94505
G1 X151.97 Y137.58 E35.01898
G1 X152.46 Y137.53 E35.04936
G1 X153.75 Y137.65 E35.13056
G1 X154.22 Y137.71 E35.15956
G1 X155.38 Y138.06 E35.23550
G1 X155.82 Y138.20 E35.26421
G1 X156.91 Y138.78 E35.34091
G1 X157.31 Y139.00 E35.36969
G1 X158.26 Y139.78 E35.44661
G1 X158.62 Y140.08 E35.47555
G1 X159.33 Y140.95 E35.54553
G1 X159.65 Y141.33 E35.57663
G1 X160.24 Y142.43 E35.65400
G1 X160.46 Y142.82 E35.68228
G1 X160.80 Y143.98 E35.75740
G1 X160.95 Y144.44 E35.78795
G1 X161.07 Y145.65 E35.86353
G1 X161.12 Y146.11 E35.89265
G1 X161.00 Y147.41 E35.97386
G1 X160.94 Y147.87 E36.00268
G1 X160.59 Y149.03 E36.07861
G1 X160.45 Y149.47 E36.10733
G1 X159.87 Y150.56 E36.18402
G1 X159.65 Y150.96 E36.21280
G1 X158.87 Y151.91 E36.28973
G1 X158.57 Y152.27 E36.31866
G1 X158.28 Y152.50 E36.34140
G1 X158.62 Y152.78 E36.36861
G1 X159.33 Y153.65 E36.43858
G1 X159.65 Y154.03 E36.46969
G1 X160.24 Y155.12 E36.54706
G1 X160.46 Y155.52 E36.57533
G1 X160.80 Y156.68 E36.65046
G1 X160.95 Y157.14 E36.68101
G1 X161.07 Y158.35 E36.75646
G1 X161.12 Y158.81 E36.78559
G1 X161.00 Y160.11 E36.86692
G1 X160.94 Y160.57 E36.89573
G1 X160.59 Y161.73 E36.97167
G1 X160.45 Y162.17 E37.00038
G1 X159.87 Y163.26 E37.07708
G1 X159.65 Y163.66 E37.10586
G1 X158.87 Y164.61 E37.18278
G1 X158.57 Y164.97 E37.21172
G1 X157.70 Y165.68 E37.28169
G1 X157.32 Y166.00 E37.31280
G1 X156.22 Y166.59 E37.39017
G1 X155.83 Y166.81 E37.41845
G1 X154.66 Y167.16 E37.49468
G1 X154.21 Y167.30 E37.52426
G1 X153.03 Y167.42 E37.59819
G1 X152.54 Y167.47 E37.62858
G1 X151.25 Y167.35 E37.70978
G1 X150.78 Y167.29 E37.73878
G1 X149.62 Y166.94 E37.81471
G1 X149.18 Y166.80 E37.84343
G1 X148.09 Y166.22 E37.92012
G1 X147.69 Y166.00 E37.94890
G1 X146.74 Y165.22 E38.02583
G1 X146.38 Y164.92 E38.05477
G1 X145.67 Y164.05 E38.12474
G1 X145.35 Y163.67 E38.15585
G1 X144.75 Y162.55 E38.23469
G1 X144.54 Y162.18 E38.26149
G1 X144.18 Y160.97 E38.34001
G1 X144.05 Y160.56 E38.36717
G1 X143.93 Y159.35 E38.44262
G1 X143.88 Y158.89 E38.47174
G1 X144.00 Y157.59 E38.55308
G1 X144.06 Y157.13 E38.58189
G1 X144.41 Y155.97 E38.65782
G1 X144.55 Y155.53 E38.68654
G1 X145.13 Y154.44 E38.76324
G1 X145.35 Y154.04 E38.79201
G1 X146.13 Y153.09 E38.86894
G1 X146.43 Y152.73 E38.89788
G1 X146.72 Y152.50 E38.92061
G1 X146.38 Y152.22 E38.94783
G1 X145.67 Y151.35 E39.01780
G1 X145.35 Y150.97 E39.04891
G1 X144.75 Y149.85 E39.12775
G1 X144.54 Y149.48 E39.15455
G1 X144.18 Y148.27 E39.23307
G1 X144.05 Y147.86 E39.26023
G1 X143.93 Y146.65 E39.33568
G1 X143.88 Y146.19 E39.36480
G1 X144.00 Y144.89 E39.44613
G1 X144.06 Y144.43 E39.47495
G1 X144.41 Y143.27 E39.55088
G1 X144.55 Y142.83 E39.57960
G1 X145.13 Y141.74 E39.65629
G1 X145.35 Y141.34 E39.68507
G1 X146.13 Y140.39 E39.76200
G1 X146.43 Y140.03 E39.79094
G0 F6000 X146.78 Y140.39
G1 F2700 X147.65 Y139.68 E39.86096
G1 X147.96 Y139.41 E39.88635
G1 X148.98 Y138.87 E39.95844
G1 X149.37 Y138.66 E39.98588
G1 X150.51 Y138.31 E40.05998
G1 X150.90 Y138.19 E40.08548
G1 X152.08 Y138.07 E40.15980
G1 X152.46 Y138.03 E40.18378
G1 X153.70 Y138.15 E40.26134
G1 X154.12 Y138.20 E40.28727
G1 X155.23 Y138.54 E40.36019
G1 X155.63 Y138.66 E40.38583
G1 X156.67 Y139.22 E40.45951
G1 X157.03 Y139.42 E40.48522
G1 X157.94 Y140.17 E40.55900
G1 X158.26 Y140.44 E40.58484
G1 X158.97 Y141.30 E40.65486
G1 X159.24 Y141.61 E40.68026
G1 X159.78 Y142.63 E40.75235
G1 X159.99 Y143.02 E40.77979
G1 X160.33 Y144.13 E40.85205
G1 X160.46 Y144.54 E40.87927
G1 X160.57 Y145.68 E40.95013
G1 X160.62 Y146.12 E40.97788
G1 X160.50 Y147.36 E41.05552
G1 X160.45 Y147.77 E41.08126
G1 X160.11 Y148.88 E41.15417
G1 X159.99 Y149.28 E41.17982
G1 X159.43 Y150.32 E41.25350
G1 X159.23 Y150.68 E41.27921
G1 X158.48 Y151.59 E41.35299
G1 X158.22 Y151.91 E41.37883
G1 X157.50 Y152.50 E41.43675
G1 X157.94 Y152.87 E41.47287
G1 X158.26 Y153.13 E41.49871
G1 X158.97 Y154.00 E41.56873
G1 X159.24 Y154.31 E41.59412
G1 X159.78 Y155.33 E41.66621
G1 X159.99 Y155.72 E41.69365
G1 X160.33 Y156.83 E41.76592
G1 X160.46 Y157.24 E41.79313
G1 X160.57 Y158.37 E41.86394
G1 X160.62 Y158.81 E41.89168
G1 X160.50 Y160.05 E41.96932
G1 X160.45 Y160.47 E41.99512
G1 X160.11 Y161.58 E42.06804
G1 X159.99 Y161.98 E42.09368
G1 X159.43 Y163.02 E42.16736
G1 X159.23 Y163.38 E42.19307
G1 X158.48 Y164.29 E42.26685
G1 X158.22 Y164.61 E42.29269
G1 X157.35 Y165.32 E42.36271
G1 X157.04 Y165.59 E42.38810
G1 X156.02 Y166.13 E42.46020
G1 X155.63 Y166.34 E42.48764
G1 X154.49 Y166.69 E42.56173
G1 X154.10 Y166.81 E42.58724
G1 X152.92 Y166.93 E42.66155
G1 X152.54 Y166.97 E42.68553
G1 X151.30 Y166.85 E42.76310
G1 X150.88 Y166.80 E42.78903
G1 X149.77 Y166.46 E42.86194
G1 X149.37 Y166.34 E42.88758
G1 X148.33 Y165.78 E42.96127
G1 X147.97 Y165.58 E42.98697
G1 X147.06 Y164.83 E43.06076
G1 X146.74 Y164.56 E43.08659
G1 X146.03 Y163.70 E43.15662
G1 X145.76 Y163.39 E43.18201
G1 X145.22 Y162.37 E43.25410
G1 X145.01 Y161.98 E43.28154
G1 X144.66 Y160.83 E43.35674
G1 X144.54 Y160.46 E43.38102
G1 X144.43 Y159.33 E43.45182
G1 X144.38 Y158.88 E43.47957
G1 X144.50 Y157.65 E43.55721
G1 X144.55 Y157.23 E43.58301
G1 X144.89 Y156.12 E43.65593
G1 X145.01 Y155.72 E43.68157
G1 X145.57 Y154.68 E43.75525
G1 X145.77 Y154.32 E43.78096
G1 X146.52 Y153.41 E43.85474
G1 X146.78 Y153.09 E43.88058
G1 X147.50 Y152.50 E43.93850
G1 X147.06 Y152.13 E43.97462
G1 X146.74 Y151.87 E44.00046
G1 X146.03 Y151.00 E44.07048
G1 X145.76 Y150.69 E44.09587
G1 X145.22 Y149.67 E44.16796
G1 X145.01 Y149.28 E44.19540
G1 X144.66 Y148.13 E44.27061
G1 X144.54 Y147.76 E44.29489
G1 X144.43 Y146.63 E44.36569
G1 X144.38 Y146.19 E44.39344
G1 X144.50 Y144.95 E44.47107
G1 X144.55 Y144.53 E44.49688
G1 X144.89 Y143.42 E44.56979
G1 X145.01 Y143.02 E44.59543
G1 X145.57 Y141.98 E44.66912
G1 X145.77 Y141.62 E44.69482
G1 X146.52 Y140.71 E44.76860
G1 X146.78 Y140.39 E44.79444
G0 F6000 X147.14 Y140.75
G1 F2700 X147.99 Y140.05 E44.86331
G1 X148.25 Y139.83 E44.88424
G1 X149.23 Y139.31 E44.95345
G1 X149.56 Y139.12 E44.97754
G1 X150.64 Y138.79 E45.04778
G1 X151.00 Y138.68 E45.07101
G1 X152.13 Y138.57 E45.14219
G1 X152.47 Y138.53 E45.16328
G1 X153.65 Y138.65 E45.23721
G1 X154.01 Y138.69 E45.26006
G1 X155.09 Y139.01 E45.33000
G1 X155.43 Y139.12 E45.35256
G1 X156.43 Y139.66 E45.42312
G1 X156.75 Y139.83 E45.44579
G1 X157.62 Y140.55 E45.51642
G1 X157.90 Y140.79 E45.53921
G1 X158.59 Y141.63 E45.60687
G1 X158.82 Y141.90 E45.62900
G1 X159.34 Y142.88 E45.69822
G1 X159.53 Y143.21 E45.72231
G1 X159.85 Y144.28 E45.79169
G1 X159.97 Y144.65 E45.81564
G1 X160.08 Y145.79 E45.88745
G1 X160.12 Y146.12 E45.90823
G1 X160.00 Y147.30 E45.98217
G1 X159.96 Y147.66 E46.00489
G1 X159.63 Y148.74 E46.07483
G1 X159.53 Y149.08 E46.09739
G1 X158.99 Y150.08 E46.16795
G1 X158.82 Y150.40 E46.19062
G1 X158.10 Y151.27 E46.26125
G1 X157.86 Y151.55 E46.28404
G1 X157.01 Y152.25 E46.35290
G1 X156.75 Y152.47 E46.37383
G1 X156.69 Y152.50 E46.37807
G1 X156.75 Y152.53 E46.38193
G1 X157.62 Y153.25 E46.45256
G1 X157.90 Y153.49 E46.47535
G1 X158.59 Y154.32 E46.54301
G1 X158.82 Y154.60 E46.56514
G1 X159.34 Y155.57 E46.63436
G1 X159.53 Y155.91 E46.65845
G1 X159.85 Y156.98 E46.72784
G1 X159.97 Y157.34 E46.75178
G1 X160.07 Y158.43 E46.81989
G1 X160.12 Y158.82 E46.84425
G1 X160.00 Y160.00 E46.91831
G1 X159.96 Y160.36 E46.94104
G1 X159.63 Y161.44 E47.01097
G1 X159.53 Y161.78 E47.03353
G1 X158.99 Y162.78 E47.10409
G1 X158.82 Y163.10 E47.12676
G1 X158.10 Y163.97 E47.19739
G1 X157.86 Y164.25 E47.22018
G1 X157.01 Y164.95 E47.28905
G1 X156.75 Y165.17 E47.30997
G1 X155.77 Y165.69 E47.37919
G1 X155.44 Y165.88 E47.40328
G1 X154.36 Y166.21 E47.47352
G1 X154.00 Y166.32 E47.49675
G1 X152.87 Y166.43 E47.56792
G1 X152.53 Y166.47 E47.58902
G1 X151.35 Y166.35 E47.66295
G1 X150.99 Y166.31 E47.68580
G1 X149.91 Y165.99 E47.75574
G1 X149.57 Y165.88 E47.77830
G1 X148.57 Y165.34 E47.84886
G1 X148.25 Y165.17 E47.87152
G1 X147.38 Y164.45 E47.94216
G1 X147.10 Y164.21 E47.96495
G1 X146.40 Y163.36 E48.03381
G1 X146.18 Y163.10 E48.05474
G1 X145.66 Y162.12 E48.12396
G1 X145.47 Y161.79 E48.14805
G1 X145.14 Y160.68 E48.21998
G1 X145.03 Y160.35 E48.24138
G1 X144.93 Y159.27 E48.30949
G1 X144.88 Y158.88 E48.33385
G1 X145.00 Y157.70 E48.40791
G1 X145.04 Y157.34 E48.43063
G1 X145.37 Y156.26 E48.50057
G1 X145.47 Y155.92 E48.52313
G1 X146.01 Y154.92 E48.59369
G1 X146.18 Y154.60 E48.61636
G1 X146.90 Y153.73 E48.68699
G1 X147.14 Y153.45 E48.70978
G1 X147.99 Y152.75 E48.77864
G1 X148.25 Y152.53 E48.79957
G1 X148.31 Y152.50 E48.80381
G1 X148.25 Y152.47 E48.80767
G1 X147.38 Y151.75 E48.87830
G1 X147.10 Y151.51 E48.90109
G1 X146.40 Y150.66 E48.96995
G1 X146.18 Y150.40 E48.99088
G1 X145.66 Y149.43 E49.06010
G1 X145.47 Y149.09 E49.08419
G1 X145.14 Y147.98 E49.15612
G1 X145.03 Y147.66 E49.17752
G1 X144.93 Y146.57 E49.24563
G1 X144.88 Y146.18 E49.26999
G1 X145.00 Y145.00 E49.34405
G1 X145.04 Y144.64 E49.36678
G1 X145.37 Y143.56 E49.43671
G1 X145.47 Y143.22 E49.45927
G1 X146.01 Y142.22 E49.52983
G1 X146.18 Y141.90 E49.55250
G1 X146.90 Y141.03 E49.62313
G1 X147.14 Y140.75 E49.64592
G0 F6000 X147.49 Y141.11
G1 F2700 X148.29 Y140.45 E49.71044
G1 X148.53 Y140.25 E49.73004
G1 X149.49 Y139.74 E49.79770
G1 X149.76 Y139.59 E49.81721
G1 X150.81 Y139.26 E49.88584
G1 X151.10 Y139.18 E49.90448
G1 X152.14 Y139.07 E49.96971
G1 X152.47 Y139.04 E49.99067
G1 X153.60 Y139.14 E50.06103
G1 X153.91 Y139.18 E50.08074
G1 X154.94 Y139.49 E50.14772
G1 X155.24 Y139.59 E50.16723
G1 X156.19 Y140.10 E50.23466
G1 X156.47 Y140.25 E50.25426
G1 X157.30 Y140.94 E50.32183
G1 X157.54 Y141.14 E50.34152
G1 X158.20 Y141.94 E50.40604
G1 X158.40 Y142.18 E50.42565
G1 X158.90 Y143.12 E50.49202
G1 X159.06 Y143.41 E50.51281
G1 X159.38 Y144.45 E50.58046
G1 X159.47 Y144.75 E50.59997
G1 X159.58 Y145.79 E50.66538
G1 X159.62 Y146.13 E50.68648
G1 X159.50 Y147.25 E50.75685
G1 X159.47 Y147.56 E50.77644
G1 X159.16 Y148.59 E50.84342
G1 X159.06 Y148.89 E50.86292
G1 X158.55 Y149.84 E50.93035
G1 X158.40 Y150.12 E50.94995
G1 X157.72 Y150.95 E51.01753
G1 X157.51 Y151.19 E51.03722
G1 X156.71 Y151.85 E51.10174
G1 X156.47 Y152.05 E51.12134
G1 X155.64 Y152.50 E51.18037
G1 X156.19 Y152.79 E51.21952
G1 X156.47 Y152.95 E51.23911
G1 X157.30 Y153.63 E51.30669
G1 X157.54 Y153.84 E51.32638
G1 X158.20 Y154.64 E51.39090
G1 X158.40 Y154.88 E51.41050
G1 X158.90 Y155.82 E51.47687
G1 X159.06 Y156.11 E51.49767
G1 X159.38 Y157.15 E51.56532
G1 X159.47 Y157.44 E51.58482
G1 X159.58 Y158.49 E51.65018
G1 X159.62 Y158.82 E51.67127
G1 X159.50 Y159.95 E51.74171
G1 X159.47 Y160.26 E51.76129
G1 X159.16 Y161.29 E51.82827
G1 X159.06 Y161.59 E51.84778
G1 X158.55 Y162.54 E51.91521
G1 X158.40 Y162.81 E51.93481
G1 X157.72 Y163.65 E52.00238
G1 X157.51 Y163.89 E52.02207
G1 X156.71 Y164.55 E52.08659
G1 X156.47 Y164.75 E52.10619
G1 X155.51 Y165.26 E52.17385
G1 X155.24 Y165.41 E52.19336
G1 X154.19 Y165.74 E52.26199
G1 X153.90 Y165.82 E52.28063
G1 X152.86 Y165.93 E52.34586
G1 X152.53 Y165.96 E52.36682
G1 X151.40 Y165.86 E52.43718
G1 X151.09 Y165.82 E52.45690
G1 X150.06 Y165.51 E52.52387
G1 X149.76 Y165.41 E52.54338
G1 X148.81 Y164.90 E52.61081
G1 X148.53 Y164.75 E52.63041
G1 X147.70 Y164.06 E52.69798
G1 X147.46 Y163.86 E52.71767
G1 X146.80 Y163.06 E52.78219
G1 X146.60 Y162.82 E52.80180
G1 X146.08 Y161.85 E52.87065
G1 X145.94 Y161.59 E52.88896
G1 X145.62 Y160.54 E52.95760
G1 X145.53 Y160.25 E52.97612
G1 X145.42 Y159.21 E53.04147
G1 X145.38 Y158.88 E53.06257
G1 X145.50 Y157.75 E53.13300
G1 X145.53 Y157.44 E53.15259
G1 X145.84 Y156.41 E53.21957
G1 X145.94 Y156.11 E53.23907
G1 X146.45 Y155.16 E53.30650
G1 X146.60 Y154.88 E53.32610
G1 X147.28 Y154.05 E53.39368
G1 X147.49 Y153.81 E53.41337
G1 X148.29 Y153.15 E53.47789
G1 X148.53 Y152.95 E53.49749
G1 X149.36 Y152.50 E53.55653
G1 X148.81 Y152.21 E53.59567
G1 X148.53 Y152.05 E53.61526
G1 X147.70 Y151.37 E53.68284
G1 X147.46 Y151.16 E53.70253
G1 X146.80 Y150.36 E53.76705
G1 X146.60 Y150.12 E53.78665
G1 X146.08 Y149.15 E53.85551
G1 X145.94 Y148.89 E53.87382
G1 X145.62 Y147.84 E53.94245
G1 X145.53 Y147.56 E53.96097
G1 X145.42 Y146.51 E54.02633
G1 X145.38 Y146.18 E54.04742
G1 X145.50 Y145.05 E54.11786
G1 X145.53 Y144.74 E54.13744
G1 X145.84 Y143.71 E54.20442
G1 X145.94 Y143.41 E54.22393
G1 X146.45 Y142.46 E54.29136
G1 X146.60 Y142.19 E54.31096
G1 X147.28 Y141.35 E54.37853
G1 X147.49 Y141.11 E54.39822
G0 F6000 X147.84 Y141.46
G1 F2700 X148.59 Y140.85 E54.45902
G1 X148.81 Y140.66 E54.47676
G1 X149.74 Y140.17 E54.54227
G1 X149.96 Y140.05 E54.55773
G1 X150.93 Y139.75 E54.62128
G1 X151.20 Y139.67 E54.63875
G1 X152.24 Y139.57 E54.70404
G1 X152.48 Y139.54 E54.71898
G1 X153.54 Y139.64 E54.78572
G1 X153.81 Y139.67 E54.80235
G1 X154.79 Y139.97 E54.86635
G1 X155.04 Y140.05 E54.88277
G1 X155.95 Y140.54 E54.94717
G1 X156.18 Y140.66 E54.96369
G1 X156.98 Y141.32 E55.02812
G1 X157.19 Y141.49 E55.04471
G1 X157.80 Y142.25 E55.10551
G1 X157.99 Y142.46 E55.12325
G1 X158.48 Y143.39 E55.18862
G1 X158.60 Y143.61 E55.20422
G1 X158.90 Y144.58 E55.26777
G1 X158.98 Y144.85 E55.28516
G1 X159.08 Y145.85 E55.34789
G1 X159.11 Y146.13 E55.36566
G1 X159.01 Y147.20 E55.43239
G1 X158.98 Y147.46 E55.44890
G1 X158.68 Y148.44 E55.51290
G1 X158.60 Y148.69 E55.52933
G1 X158.11 Y149.60 E55.59372
G1 X157.99 Y149.84 E55.61024
G1 X157.33 Y150.63 E55.67468
G1 X157.16 Y150.84 E55.69127
G1 X156.41 Y151.46 E55.75207
G1 X156.19 Y151.64 E55.76981
G1 X155.26 Y152.13 E55.83532
G1 X155.04 Y152.25 E55.85078
G1 X154.23 Y152.50 E55.90371
G1 X154.79 Y152.67 E55.94007
G1 X155.04 Y152.75 E55.95650
G1 X155.95 Y153.24 E56.02089
G1 X156.18 Y153.36 E56.03741
G1 X156.98 Y154.02 E56.10184
G1 X157.19 Y154.19 E56.11844
G1 X157.80 Y154.94 E56.17923
G1 X157.99 Y155.16 E56.19698
G1 X158.48 Y156.09 E56.26234
G1 X158.60 Y156.31 E56.27795
G1 X158.90 Y157.28 E56.34149
G1 X158.98 Y157.55 E56.35889
G1 X159.08 Y158.55 E56.42155
G1 X159.11 Y158.83 E56.43932
G1 X159.01 Y159.90 E56.50612
G1 X158.98 Y160.16 E56.52263
G1 X158.68 Y161.14 E56.58662
G1 X158.60 Y161.39 E56.60305
G1 X158.11 Y162.30 E56.66744
G1 X157.99 Y162.53 E56.68397
G1 X157.33 Y163.33 E56.74840
G1 X157.16 Y163.54 E56.76499
G1 X156.41 Y164.15 E56.82579
G1 X156.19 Y164.34 E56.84353
G1 X155.26 Y164.83 E56.90904
G1 X155.04 Y164.95 E56.92450
G1 X154.07 Y165.25 E56.98805
G1 X153.80 Y165.33 E57.00552
G1 X152.76 Y165.43 E57.07081
G1 X152.52 Y165.46 E57.08575
G1 X151.46 Y165.36 E57.15248
G1 X151.19 Y165.33 E57.16912
G1 X150.21 Y165.03 E57.23311
G1 X149.96 Y164.95 E57.24954
G1 X149.05 Y164.46 E57.31393
G1 X148.82 Y164.34 E57.33046
G1 X148.02 Y163.68 E57.39489
G1 X147.81 Y163.51 E57.41148
G1 X147.20 Y162.75 E57.47228
G1 X147.01 Y162.54 E57.49002
G1 X146.52 Y161.61 E57.55553
G1 X146.40 Y161.39 E57.57099
G1 X146.10 Y160.42 E57.63454
G1 X146.02 Y160.15 E57.65193
G1 X145.92 Y159.15 E57.71459
G1 X145.89 Y158.87 E57.73236
G1 X145.99 Y157.80 E57.79916
G1 X146.02 Y157.54 E57.81567
G1 X146.32 Y156.56 E57.87967
G1 X146.40 Y156.31 E57.89610
G1 X146.89 Y155.40 E57.96049
G1 X147.01 Y155.16 E57.97701
G1 X147.67 Y154.37 E58.04144
G1 X147.84 Y154.16 E58.05804
G1 X148.59 Y153.54 E58.11884
G1 X148.81 Y153.36 E58.13658
G1 X149.74 Y152.87 E58.20208
G1 X149.96 Y152.75 E58.21755
G1 X150.77 Y152.50 E58.27048
G1 X150.21 Y152.33 E58.30684
G1 X149.96 Y152.25 E58.32327
G1 X149.05 Y151.76 E58.38766
G1 X148.82 Y151.64 E58.40418
G1 X148.02 Y150.98 E58.46861
G1 X147.81 Y150.81 E58.48521
G1 X147.20 Y150.06 E58.54600
G1 X147.01 Y149.84 E58.56375
G1 X146.52 Y148.91 E58.62925
G1 X146.40 Y148.69 E58.64472
G1 X146.10 Y147.72 E58.70826
G1 X146.02 Y147.45 E58.72566
G1 X145.92 Y146.45 E58.78832
G1 X145.89 Y146.17 E58.80609
G1 X145.99 Y145.10 E58.87289
G1 X146.02 Y144.84 E58.88939
G1 X146.32 Y143.86 E58.95339
G1 X146.40 Y143.61 E58.96982
G1 X146.89 Y142.70 E59.03421
G1 X147.01 Y142.47 E59.05074
G1 X147.67 Y141.67 E59.11517
G1 X147.84 Y141.46 E59.13176
G0 F6000 X148.19 Y141.82
G1 F2700 X148.94 Y141.21 E59.19216
G1 X149.09 Y141.08 E59.20468
G1 X149.97 Y140.61 E59.26681
G1 X150.15 Y140.51 E59.27943
G1 X151.10 Y140.22 E59.34147
G1 X151.30 Y140.16 E59.35429
G1 X152.29 Y140.06 E59.41626
G1 X152.48 Y140.04 E59.42850
G1 X153.49 Y140.14 E59.49160
G1 X153.71 Y140.16 E59.50516
G1 X154.64 Y140.45 E59.56610
G1 X154.85 Y140.51 E59.57949
G1 X155.71 Y140.97 E59.64079
G1 X155.90 Y141.08 E59.65424
G1 X156.66 Y141.70 E59.71561
G1 X156.83 Y141.84 E59.72911
G1 X157.44 Y142.59 E59.78951
G1 X157.57 Y142.75 E59.80203
G1 X158.03 Y143.60 E59.86260
G1 X158.14 Y143.80 E59.87678
G1 X158.43 Y144.75 E59.93882
G1 X158.49 Y144.95 E59.95158
G1 X158.59 Y145.94 E60.01356
G1 X158.61 Y146.13 E60.02599
G1 X158.51 Y147.14 E60.08915
G1 X158.49 Y147.36 E60.10259
G1 X158.20 Y148.29 E60.16353
G1 X158.14 Y148.50 E60.17692
G1 X157.68 Y149.36 E60.23821
G1 X157.57 Y149.55 E60.25167
G1 X156.95 Y150.31 E60.31304
G1 X156.81 Y150.48 E60.32654
G1 X156.06 Y151.09 E60.38693
G1 X155.91 Y151.22 E60.39945
G1 X155.03 Y151.69 E60.46159
G1 X154.85 Y151.79 E60.47420
G1 X153.90 Y152.08 E60.53625
G1 X153.70 Y152.14 E60.54907
G1 X152.71 Y152.24 E60.61103
G1 X152.52 Y152.26 E60.62328
G1 X151.51 Y152.16 E60.68638
G1 X151.29 Y152.14 E60.69994
G1 X150.36 Y151.85 E60.76088
G1 X150.15 Y151.79 E60.77427
G1 X149.29 Y151.33 E60.83556
G1 X149.10 Y151.22 E60.84902
G1 X148.34 Y150.60 E60.91039
G1 X148.17 Y150.46 E60.92388
G1 X147.56 Y149.71 E60.98428
G1 X147.43 Y149.56 E60.99680
G1 X146.96 Y148.68 E61.05893
G1 X146.86 Y148.50 E61.07155
G1 X146.57 Y147.55 E61.13360
G1 X146.51 Y147.35 E61.14636
G1 X146.41 Y146.37 E61.20827
G1 X146.39 Y146.17 E61.22070
G1 X146.49 Y145.16 E61.28386
G1 X146.51 Y144.94 E61.29736
G1 X146.80 Y144.01 E61.35830
G1 X146.86 Y143.80 E61.37169
G1 X147.32 Y142.94 E61.43299
G1 X147.43 Y142.75 E61.44644
G1 X148.05 Y141.99 E61.50781
G1 X148.19 Y141.82 E61.52131
G0 F6000 X148.54 Y142.18
G1 F2700 X149.24 Y141.61 E61.57768
G1 X149.38 Y141.49 E61.58856
G1 X150.19 Y141.06 E61.64623
G1 X150.35 Y140.97 E61.65720
G1 X151.23 Y140.71 E61.71494
G1 X151.40 Y140.65 E61.72585
G1 X152.31 Y140.56 E61.78305
G1 X152.49 Y140.54 E61.79404
G1 X153.44 Y140.64 E61.85350
G1 X153.60 Y140.66 E61.86398
G1 X154.49 Y140.93 E61.92192
G1 X154.65 Y140.97 E61.93226
G1 X155.47 Y141.41 E61.99051
G1 X155.62 Y141.50 E62.00084
G1 X156.34 Y142.09 E62.05911
G1 X156.47 Y142.19 E62.06951
G1 X157.04 Y142.89 E62.12570
G1 X157.16 Y143.03 E62.13676
G1 X157.59 Y143.84 E62.19443
G1 X157.68 Y144.00 E62.20540
G1 X157.94 Y144.88 E62.26314
G1 X158.00 Y145.05 E62.27399
G1 X158.09 Y145.96 E62.33133
G1 X158.11 Y146.14 E62.34237
G1 X158.01 Y147.09 E62.40184
G1 X158.00 Y147.25 E62.41226
G1 X157.72 Y148.14 E62.47020
G1 X157.68 Y148.30 E62.48053
G1 X157.24 Y149.13 E62.53879
G1 X157.16 Y149.27 E62.54912
G1 X156.56 Y149.99 E62.60739
G1 X156.46 Y150.12 E62.61779
G1 X155.76 Y150.69 E62.67398
G1 X155.62 Y150.81 E62.68504
G1 X154.81 Y151.24 E62.74270
G1 X154.65 Y151.33 E62.75367
G1 X153.77 Y151.60 E62.81142
G1 X153.60 Y151.65 E62.82233
G1 X152.69 Y151.74 E62.87953
G1 X152.51 Y151.76 E62.89052
G1 X151.56 Y151.66 E62.94998
G1 X151.40 Y151.65 E62.96046
G1 X150.51 Y151.38 E63.01840
G1 X150.35 Y151.33 E63.02873
G1 X149.53 Y150.89 E63.08699
G1 X149.38 Y150.81 E63.09732
G1 X148.66 Y150.21 E63.15559
G1 X148.53 Y150.11 E63.16599
G1 X147.94 Y149.39 E63.22355
G1 X147.84 Y149.27 E63.23324
G1 X147.40 Y148.44 E63.29211
G1 X147.32 Y148.30 E63.30188
G1 X147.06 Y147.42 E63.35962
G1 X147.00 Y147.25 E63.37047
G1 X146.91 Y146.34 E63.42774
G1 X146.89 Y146.16 E63.43879
G1 X146.99 Y145.21 E63.49832
G1 X147.00 Y145.05 E63.50874
G1 X147.28 Y144.16 E63.56668
G1 X147.32 Y144.00 E63.57701
G1 X147.76 Y143.18 E63.63527
G1 X147.84 Y143.03 E63.64559
G1 X148.44 Y142.31 E63.70387
G1 X148.54 Y142.18 E63.71427
G0 F6000 X148.90 Y142.54
G1 F2700 X149.57 Y141.99 E63.76820
G1 X149.66 Y141.91 E63.77589
G1 X150.44 Y141.49 E63.83139
G1 X150.54 Y141.44 E63.83836
G1 X151.39 Y141.18 E63.89376
G1 X151.50 Y141.15 E63.90082
G1 X152.38 Y141.06 E63.95621
G1 X152.49 Y141.05 E63.96299
G1 X153.38 Y141.13 E64.01881
G1 X153.50 Y141.15 E64.02616
G1 X154.34 Y141.40 E64.08116
G1 X154.46 Y141.44 E64.08842
G1 X155.24 Y141.85 E64.14355
G1 X155.34 Y141.91 E64.15089
G1 X156.02 Y142.47 E64.20597
G1 X156.11 Y142.55 E64.21332
G1 X156.66 Y143.22 E64.26725
G1 X156.74 Y143.31 E64.27494
G1 X157.16 Y144.09 E64.33044
G1 X157.21 Y144.19 E64.33741
G1 X157.47 Y145.03 E64.39222
G1 X157.50 Y145.15 E64.39981
G1 X157.59 Y146.02 E64.45439
G1 X157.60 Y146.14 E64.46211
G1 X157.52 Y147.04 E64.51800
G1 X157.50 Y147.15 E64.52529
G1 X157.25 Y148.00 E64.58029
G1 X157.21 Y148.11 E64.58755
G1 X156.80 Y148.89 E64.64268
G1 X156.74 Y148.99 E64.65002
G1 X156.18 Y149.67 E64.70510
G1 X156.10 Y149.76 E64.71244
G1 X155.43 Y150.31 E64.76637
G1 X155.34 Y150.39 E64.77407
G1 X154.56 Y150.81 E64.82956
G1 X154.46 Y150.86 E64.83654
G1 X153.61 Y151.12 E64.89194
G1 X153.50 Y151.16 E64.89900
G1 X152.62 Y151.24 E64.95439
G1 X152.51 Y151.25 E64.96116
G1 X151.62 Y151.17 E65.01699
G1 X151.50 Y151.15 E65.02434
G1 X150.66 Y150.90 E65.07934
G1 X150.54 Y150.86 E65.08660
G1 X149.76 Y150.45 E65.14173
G1 X149.66 Y150.39 E65.14907
G1 X148.98 Y149.83 E65.20415
G1 X148.89 Y149.75 E65.21149
G1 X148.34 Y149.09 E65.26542
G1 X148.26 Y148.99 E65.27312
G1 X147.84 Y148.21 E65.32861
G1 X147.79 Y148.11 E65.33559
G1 X147.53 Y147.26 E65.39099
G1 X147.50 Y147.15 E65.39799
G1 X147.41 Y146.28 E65.45250
G1 X147.40 Y146.16 E65.46022
G1 X147.48 Y145.26 E65.51618
G1 X147.50 Y145.15 E65.52346
G1 X147.75 Y144.31 E65.57847
G1 X147.79 Y144.19 E65.58572
G1 X148.20 Y143.41 E65.64085
G1 X148.26 Y143.31 E65.64819
G1 X148.82 Y142.63 E65.70328
G1 X148.90 Y142.54 E65.71062
G0 F6000 X149.25 Y142.90
G1 F2700 X149.89 Y142.37 E65.76225
G1 X149.89 Y142.37 E65.76234
G1 X149.94 Y142.33 E65.76672
G1 X150.68 Y141.93 E65.81884
G1 X150.74 Y141.90 E65.82297
G1 X151.54 Y141.66 E65.87510
G1 X151.60 Y141.64 E65.87928
G1 X152.43 Y141.56 E65.93135
G1 X152.50 Y141.55 E65.93542
G1 X153.33 Y141.63 E65.98761
G1 X153.40 Y141.64 E65.99188
G1 X154.20 Y141.88 E66.04388
G1 X154.26 Y141.90 E66.04808
G1 X155.00 Y142.29 E66.10009
G1 X155.06 Y142.33 E66.10436
G1 X155.70 Y142.85 E66.15638
G1 X155.75 Y142.90 E66.16063
G1 X156.28 Y143.54 E66.21226
G1 X156.28 Y143.54 E66.21235
G1 X156.32 Y143.59 E66.21673
G1 X156.72 Y144.33 E66.26862
G1 X156.75 Y144.39 E66.27298
G1 X156.99 Y145.19 E66.32491
G1 X157.01 Y145.25 E66.32922
G1 X157.09 Y146.08 E66.38142
G1 X157.10 Y146.15 E66.38550
G1 X157.02 Y146.98 E66.43776
G1 X157.01 Y147.05 E66.44196
G1 X156.77 Y147.85 E66.49397
G1 X156.75 Y147.91 E66.49817
G1 X156.36 Y148.65 E66.55017
G1 X156.32 Y148.71 E66.55444
G1 X155.79 Y149.35 E66.60646
G1 X155.75 Y149.41 E66.61071
G1 X155.11 Y149.93 E66.66234
G1 X155.11 Y149.93 E66.66243
G1 X155.06 Y149.97 E66.66682
G1 X154.32 Y150.37 E66.71893
G1 X154.26 Y150.40 E66.72306
G1 X153.46 Y150.64 E66.77519
G1 X153.40 Y150.66 E66.77937
G1 X152.57 Y150.74 E66.83144
G1 X152.50 Y150.75 E66.83551
G1 X151.67 Y150.67 E66.88770
G1 X151.60 Y150.66 E66.89197
G1 X150.80 Y150.42 E66.94397
G1 X150.74 Y150.40 E66.94817
G1 X150.00 Y150.01 E67.00018
G1 X149.94 Y149.97 E67.00445
G1 X149.30 Y149.45 E67.05647
G1 X149.25 Y149.40 E67.06072
G1 X148.72 Y148.76 E67.11235
G1 X148.72 Y148.76 E67.11244
G1 X148.68 Y148.71 E67.11682
G1 X148.28 Y147.97 E67.16894
G1 X148.25 Y147.91 E67.17307
G1 X148.01 Y147.11 E67.22519
G1 X147.99 Y147.05 E67.22932
G1 X147.91 Y146.22 E67.28145
G1 X147.90 Y146.15 E67.28553
G1 X147.98 Y145.32 E67.33785
G1 X147.99 Y145.25 E67.34205
G1 X148.23 Y144.45 E67.39406
G1 X148.25 Y144.39 E67.39826
G1 X148.64 Y143.65 E67.45026
G1 X148.68 Y143.59 E67.45453
G1 X149.21 Y142.95 E67.50655
G1 X149.25 Y142.90 E67.51080
G0 F6000 X151.30 Y152.86
G1 F2700 X152.29 Y152.76 E67.57277
G1 X152.48 Y152.74 E67.58501
G1 X153.49 Y152.84 E67.64811
G1 X153.71 Y152.86 E67.66167
G1 X154.64 Y153.15 E67.72261
G1 X154.85 Y153.21 E67.73600
G1 X155.71 Y153.67 E67.79730
G1 X155.90 Y153.78 E67.81075
G1 X156.66 Y154.40 E67.87212
G1 X156.83 Y154.54 E67.88562
G1 X157.44 Y155.29 E67.94602
G1 X157.57 Y155.44 E67.95854
G1 X158.03 Y156.30 E68.01911
G1 X158.14 Y156.50 E68.03329
G1 X158.43 Y157.45 E68.09533
G1 X158.49 Y157.65 E68.10809
G1 X158.59 Y158.63 E68.17000
G1 X158.61 Y158.83 E68.18243
G1 X158.51 Y159.84 E68.24560
G1 X158.49 Y160.06 E68.25910
G1 X158.20 Y160.99 E68.32004
G1 X158.14 Y161.20 E68.33343
G1 X157.68 Y162.06 E68.39472
G1 X157.57 Y162.25 E68.40818
G1 X156.95 Y163.01 E68.46955
G1 X156.81 Y163.18 E68.48304
G1 X156.06 Y163.79 E68.54344
G1 X155.91 Y163.92 E68.55596
G1 X155.03 Y164.39 E68.61809
G1 X154.85 Y164.49 E68.63071
G1 X153.90 Y164.78 E68.69276
G1 X153.70 Y164.84 E68.70558
G1 X152.71 Y164.94 E68.76754
G1 X152.52 Y164.96 E68.77979
G1 X151.51 Y164.86 E68.84288
G1 X151.29 Y164.84 E68.85644
G1 X150.36 Y164.55 E68.91738
G1 X150.15 Y164.49 E68.93078
G1 X149.29 Y164.03 E68.99207
G1 X149.10 Y163.92 E69.00553
G1 X148.34 Y163.30 E69.06690
G1 X148.17 Y163.16 E69.08039
G1 X147.56 Y162.41 E69.14079
G1 X147.43 Y162.25 E69.15331
G1 X146.96 Y161.38 E69.21544
G1 X146.86 Y161.20 E69.22806
G1 X146.57 Y160.25 E69.29011
G1 X146.51 Y160.05 E69.30287
G1 X146.41 Y159.06 E69.36478
G1 X146.39 Y158.87 E69.37721
G1 X146.49 Y157.86 E69.44037
G1 X146.51 Y157.64 E69.45387
G1 X146.80 Y156.71 E69.51481
G1 X146.86 Y156.50 E69.52820
G1 X147.32 Y155.64 E69.58950
G1 X147.43 Y155.45 E69.60295
G1 X148.05 Y154.69 E69.66432
G1 X148.19 Y154.52 E69.67782
G1 X148.94 Y153.91 E69.73822
G1 X149.09 Y153.78 E69.75074
G1 X149.97 Y153.31 E69.81287
G1 X150.15 Y153.21 E69.82549
G1 X151.10 Y152.92 E69.88753
G1 X151.30 Y152.86 E69.90035
G0 F6000 X151.40 Y153.35
G1 F2700 X152.31 Y153.26 E69.95756
G1 X152.49 Y153.24 E69.96854
G1 X153.44 Y153.34 E70.02800
G1 X153.60 Y153.35 E70.03848
G1 X154.49 Y153.62 E70.09643
G1 X154.65 Y153.67 E70.10676
G1 X155.47 Y154.11 E70.16501
G1 X155.62 Y154.19 E70.17534
G1 X156.34 Y154.79 E70.23362
G1 X156.47 Y154.89 E70.24401
G1 X157.04 Y155.59 E70.30020
G1 X157.16 Y155.73 E70.31126
G1 X157.59 Y156.54 E70.36893
G1 X157.68 Y156.70 E70.37990
G1 X157.94 Y157.58 E70.43764
G1 X158.00 Y157.75 E70.44849
G1 X158.09 Y158.66 E70.50577
G1 X158.11 Y158.84 E70.51681
G1 X158.01 Y159.79 E70.57634
G1 X158.00 Y159.95 E70.58676
G1 X157.72 Y160.84 E70.64470
G1 X157.68 Y161.00 E70.65504
G1 X157.24 Y161.82 E70.71329
G1 X157.16 Y161.97 E70.72362
G1 X156.56 Y162.69 E70.78189
G1 X156.46 Y162.82 E70.79229
G1 X155.76 Y163.39 E70.84848
G1 X155.62 Y163.51 E70.85954
G1 X154.81 Y163.94 E70.91721
G1 X154.65 Y164.03 E70.92818
G1 X153.77 Y164.29 E70.98592
G1 X153.60 Y164.35 E70.99683
G1 X152.69 Y164.44 E71.05404
G1 X152.51 Y164.46 E71.06502
G1 X151.56 Y164.36 E71.12448
G1 X151.40 Y164.34 E71.13496
G1 X150.51 Y164.07 E71.19290
G1 X150.35 Y164.03 E71.20324
G1 X149.53 Y163.59 E71.26149
G1 X149.38 Y163.50 E71.27182
G1 X148.66 Y162.91 E71.33009
G1 X148.53 Y162.81 E71.34049
G1 X147.94 Y162.09 E71.39806
G1 X147.84 Y161.97 E71.40774
G1 X147.40 Y161.14 E71.46661
G1 X147.32 Y161.00 E71.47638
G1 X147.06 Y160.12 E71.53412
G1 X147.00 Y159.95 E71.54497
G1 X146.91 Y159.04 E71.60225
G1 X146.89 Y158.86 E71.61329
G1 X146.99 Y157.91 E71.67282
G1 X147.00 Y157.75 E71.68324
G1 X147.28 Y156.86 E71.74118
G1 X147.32 Y156.70 E71.75152
G1 X147.76 Y155.87 E71.80977
G1 X147.84 Y155.73 E71.82010
G1 X148.44 Y155.01 E71.87837
G1 X148.54 Y154.88 E71.88877
G1 X149.24 Y154.31 E71.94514
G1 X149.38 Y154.19 E71.95602
G1 X150.19 Y153.76 E72.01369
G1 X150.35 Y153.67 E72.02466
G1 X151.23 Y153.40 E72.08240
G1 X151.40 Y153.35 E72.09331
G0 F6000 X151.50 Y153.84
G1 F2700 X152.38 Y153.76 E72.14870
G1 X152.49 Y153.75 E72.15547
G1 X153.38 Y153.83 E72.21130
G1 X153.50 Y153.85 E72.21864
G1 X154.34 Y154.10 E72.27365
G1 X154.46 Y154.14 E72.28091
G1 X155.24 Y154.55 E72.33603
G1 X155.34 Y154.61 E72.34338
G1 X156.02 Y155.17 E72.39846
G1 X156.11 Y155.25 E72.40580
G1 X156.66 Y155.91 E72.45973
G1 X156.74 Y156.01 E72.46743
G1 X157.16 Y156.79 E72.52292
G1 X157.21 Y156.89 E72.52990
G1 X157.47 Y157.73 E72.58471
G1 X157.50 Y157.85 E72.59230
G1 X157.59 Y158.72 E72.64681
G1 X157.60 Y158.84 E72.65453
G1 X157.52 Y159.74 E72.71049
G1 X157.50 Y159.85 E72.71777
G1 X157.25 Y160.69 E72.77277
G1 X157.21 Y160.81 E72.78003
G1 X156.80 Y161.59 E72.83516
G1 X156.74 Y161.69 E72.84250
G1 X156.18 Y162.37 E72.89758
G1 X156.10 Y162.46 E72.90493
G1 X155.43 Y163.01 E72.95886
G1 X155.34 Y163.09 E72.96656
G1 X154.56 Y163.51 E73.02205
G1 X154.46 Y163.56 E73.02903
G1 X153.61 Y163.82 E73.08442
G1 X153.50 Y163.85 E73.09149
G1 X152.62 Y163.94 E73.14687
G1 X152.51 Y163.95 E73.15365
G1 X151.62 Y163.87 E73.20947
G1 X151.50 Y163.85 E73.21682
G1 X150.66 Y163.60 E73.27182
G1 X150.54 Y163.56 E73.27908
G1 X149.76 Y163.15 E73.33421
G1 X149.66 Y163.09 E73.34155
G1 X148.98 Y162.53 E73.39663
G1 X148.89 Y162.45 E73.40398
G1 X148.34 Y161.78 E73.45791
G1 X148.26 Y161.69 E73.46561
G1 X147.84 Y160.91 E73.52110
G1 X147.79 Y160.81 E73.52808
G1 X147.53 Y159.96 E73.58347
G1 X147.50 Y159.85 E73.59048
G1 X147.41 Y158.98 E73.64499
G1 X147.40 Y158.86 E73.65271
G1 X147.48 Y157.96 E73.70866
G1 X147.50 Y157.85 E73.71595
G1 X147.75 Y157.00 E73.77095
G1 X147.79 Y156.89 E73.77821
G1 X148.20 Y156.11 E73.83334
G1 X148.26 Y156.01 E73.84068
G1 X148.82 Y155.33 E73.89576
G1 X148.90 Y155.24 E73.90311
G1 X149.57 Y154.69 E73.95704
G1 X149.66 Y154.61 E73.96474
G1 X150.44 Y154.19 E74.02023
G1 X150.54 Y154.14 E74.02721
G1 X151.39 Y153.88 E74.08260
G1 X151.50 Y153.84 E74.08966
G0 F6000 X151.60 Y154.34
G1 F2700 X152.43 Y154.26 E74.14173
G1 X152.50 Y154.25 E74.14581
G1 X153.33 Y154.33 E74.19800
G1 X153.40 Y154.34 E74.20227
G1 X154.20 Y154.58 E74.25427
G1 X154.26 Y154.60 E74.25847
G1 X155.00 Y154.99 E74.31047
G1 X155.06 Y155.03 E74.31474
G1 X155.70 Y155.55 E74.36677
G1 X155.75 Y155.60 E74.37101
G1 X156.28 Y156.24 E74.42265
G1 X156.28 Y156.24 E74.42273
G1 X156.32 Y156.29 E74.42712
G1 X156.72 Y157.03 E74.47901
G1 X156.75 Y157.09 E74.48337
G1 X156.99 Y157.88 E74.53529
G1 X157.01 Y157.95 E74.53961
G1 X157.09 Y158.78 E74.59175
G1 X157.10 Y158.85 E74.59582
G1 X157.02 Y159.68 E74.64814
G1 X157.01 Y159.75 E74.65235
G1 X156.77 Y160.55 E74.70435
G1 X156.75 Y160.61 E74.70855
G1 X156.36 Y161.35 E74.76056
G1 X156.32 Y161.41 E74.76483
G1 X155.79 Y162.05 E74.81685
G1 X155.75 Y162.10 E74.82110
G1 X155.11 Y162.63 E74.87273
G1 X155.11 Y162.63 E74.87282
G1 X155.06 Y162.67 E74.87720
G1 X154.32 Y163.07 E74.92932
G1 X154.26 Y163.10 E74.93345
G1 X153.46 Y163.34 E74.98557
G1 X153.40 Y163.36 E74.98975
G1 X152.57 Y163.44 E75.04182
G1 X152.50 Y163.45 E75.04590
G1 X151.67 Y163.37 E75.09809
G1 X151.60 Y163.36 E75.10236
G1 X150.80 Y163.12 E75.15436
G1 X150.74 Y163.10 E75.15856
G1 X150.00 Y162.71 E75.21056
G1 X149.94 Y162.67 E75.21483
G1 X149.30 Y162.15 E75.26686
G1 X149.25 Y162.10 E75.27110
G1 X148.72 Y161.46 E75.32274
G1 X148.72 Y161.46 E75.32282
G1 X148.68 Y161.41 E75.32721
G1 X148.28 Y160.67 E75.37932
G1 X148.25 Y160.61 E75.38346
G1 X148.01 Y159.81 E75.43558
G1 X147.99 Y159.75 E75.43970
G1 X147.91 Y158.92 E75.49184
G1 X147.90 Y158.85 E75.49592
G1 X147.98 Y158.02 E75.54823
G1 X147.99 Y157.95 E75.55244
G1 X148.23 Y157.15 E75.60444
G1 X148.25 Y157.09 E75.60864
G1 X148.64 Y156.35 E75.66065
G1 X148.68 Y156.29 E75.66492
G1 X149.21 Y155.65 E75.71694
G1 X149.25 Y155.59 E75.72119
G1 X149.89 Y155.07 E75.77282
G1 X149.89 Y155.07 E75.77291
G1 X149.94 Y155.03 E75.77729
G1 X150.68 Y154.63 E75.82941
G1 X150.74 Y154.60 E75.83354
G1 X151.54 Y154.36 E75.88566
G1 X151.60 Y154.34 E75.88984
G0 F6000 X151.80 Y149.68
;TYPE:WALL-INNER
G1 F2700 X151.13 Y149.47 E75.93390
G1 X150.50 Y149.14 E75.97798
G1 X149.96 Y148.70 E76.02171
G1 X149.51 Y148.15 E76.06598
G1 X149.18 Y147.53 E76.10995
G1 X148.97 Y146.85 E76.15400
G1 X148.90 Y146.14 E76.19818
G1 X148.97 Y145.46 E76.24122
G1 X149.18 Y144.78 E76.28561
G1 X149.51 Y144.15 E76.32969
G1 X149.96 Y143.61 E76.37342
G1 X150.50 Y143.16 E76.41769
G1 X151.13 Y142.83 E76.46166
G1 X151.80 Y142.62 E76.50540
G1 X152.50 Y142.56 E76.54964
G1 X153.20 Y142.62 E76.59319
G1 X153.87 Y142.83 E76.63724
G1 X154.50 Y143.16 E76.68132
G1 X155.04 Y143.60 E76.72505
G1 X155.49 Y144.15 E76.76932
G1 X155.82 Y144.78 E76.81329
G1 X156.03 Y145.45 E76.85734
G1 X156.10 Y146.16 E76.90158
G1 X156.03 Y146.84 E76.94457
G1 X155.82 Y147.53 E76.98895
G1 X155.49 Y148.15 E77.03303
G1 X155.04 Y148.69 E77.07677
G1 X154.50 Y149.14 E77.12104
G1 X153.87 Y149.47 E77.16500
G1 X153.20 Y149.68 E77.20874
G1 X152.50 Y149.75 E77.25298
G1 X151.80 Y149.68 E77.29653
G0 F6000 X151.72 Y150.17
;TYPE:WALL-OUTER
G1 F2700 X151.70 Y150.17 E77.29747
G1 X150.95 Y149.94 E77.34661
G1 X150.24 Y149.57 E77.39671
G1 X149.62 Y149.06 E77.44655
G1 X149.60 Y149.05 E77.44818
G1 X149.10 Y148.44 E77.49702
G1 X149.09 Y148.43 E77.49808
G1 X148.72 Y147.73 E77.54707
G1 X148.49 Y146.97 E77.59719
G1 X148.48 Y146.95 E77.59832
G1 X148.40 Y146.17 E77.64732
G1 X148.40 Y146.15 E77.64845
G1 X148.48 Y145.37 E77.69732
G1 X148.48 Y145.35 E77.69826
G1 X148.71 Y144.60 E77.74720
G1 X149.08 Y143.89 E77.79728
G1 X149.09 Y143.87 E77.79884
G1 X149.59 Y143.27 E77.84736
G1 X149.60 Y143.25 E77.84900
G1 X150.21 Y142.75 E77.89783
G1 X150.22 Y142.74 E77.89889
G1 X150.92 Y142.37 E77.94789
G1 X151.69 Y142.14 E77.99801
G1 X151.70 Y142.13 E77.99913
G1 X152.48 Y142.06 E78.04806
G1 X152.50 Y142.05 E78.04925
G1 X153.28 Y142.13 E78.09806
G1 X153.30 Y142.13 E78.09900
G1 X154.05 Y142.36 E78.14794
G1 X154.76 Y142.73 E78.19824
G1 X155.38 Y143.24 E78.24808
G1 X155.40 Y143.25 E78.24971
G1 X155.90 Y143.86 E78.29855
G1 X155.91 Y143.87 E78.29961
G1 X156.28 Y144.57 E78.34860
G1 X156.51 Y145.34 E78.39872
G1 X156.52 Y145.35 E78.39985
G1 X156.60 Y146.13 E78.44891
G1 X156.60 Y146.15 E78.45004
G1 X156.52 Y146.93 E78.49885
G1 X156.52 Y146.95 E78.49978
G1 X156.29 Y147.70 E78.54873
G1 X155.92 Y148.41 E78.59880
G1 X155.91 Y148.43 E78.60037
G1 X155.41 Y149.03 E78.64889
G1 X155.40 Y149.05 E78.65052
G1 X154.79 Y149.55 E78.69936
G1 X154.78 Y149.56 E78.70042
G1 X154.08 Y149.93 E78.74941
G1 X153.31 Y150.16 E78.79954
G1 X153.30 Y150.17 E78.80066
G1 X152.52 Y150.25 E78.84959
G1 X152.50 Y150.25 E78.85078
G1 X151.72 Y150.17 E78.89959
G0 F6000 X152.00 Y149.52
;TYPE:FILL
G1 F2700 X149.13 Y146.65 E79.15244
G0 F6000 X149.10 Y145.92
G1 F2700 X152.73 Y149.55 E79.47241
G0 F6000 X153.34 Y149.45
G1 F2700 X149.20 Y145.31 E79.83780
G0 F6000 X149.37 Y144.78
G1 F2700 X153.87 Y149.28 E80.23445
G0 F6000 X154.33 Y149.03
G1 F2700 X149.62 Y144.32 E80.65002
G0 F6000 X149.93 Y143.92
G1 F2700 X154.73 Y148.72 E81.07366
G0 F6000 X155.08 Y148.37
G1 F2700 X150.28 Y143.57 E81.49704
G0 F6000 X150.69 Y143.26
G1 F2700 X155.39 Y147.97 E81.91195
G0 F6000 X155.63 Y147.50
G1 F2700 X151.15 Y143.01 E82.30781
G0 F6000 X151.68 Y142.84
G1 F2700 X155.81 Y146.97 E82.67179
G0 F6000 X155.90 Y146.35
G1 F2700 X152.30 Y142.75 E82.98955
G0 F6000 X153.04 Y142.78
G1 F2700 X155.87 Y145.61 E83.23896
G0 F6000 X155.49 Y144.53
G1 F2700 X154.11 Y143.15 E83.36067
G0 F6000 X149.47 Y147.70
G1 F2700 X150.95 Y149.18 E83.49102
G0 F6000 X151.80 Y155.32
;TYPE:WALL-INNER
G1 F2700 X152.50 Y155.25 E83.53526
G1 X153.20 Y155.32 E83.57881
G1 X153.87 Y155.53 E83.62286
G1 X154.50 Y155.86 E83.66694
G1 X155.04 Y156.30 E83.71068
G1 X155.49 Y156.85 E83.75495
G1 X155.82 Y157.47 E83.79892
G1 X156.03 Y158.15 E83.84297
G1 X156.10 Y158.86 E83.88714
G1 X156.03 Y159.54 E83.93019
G1 X155.82 Y160.22 E83.97458
G1 X155.49 Y160.85 E84.01866
G1 X155.04 Y161.39 E84.06239
G1 X154.50 Y161.84 E84.10666
G1 X153.87 Y162.17 E84.15063
G1 X153.20 Y162.38 E84.19437
G1 X152.50 Y162.44 E84.23860
G1 X151.80 Y162.38 E84.28215
G1 X151.13 Y162.17 E84.32621
G1 X150.50 Y161.84 E84.37029
G1 X149.96 Y161.40 E84.41402
G1 X149.51 Y160.85 E84.45829
G1 X149.18 Y160.22 E84.50226
G1 X148.97 Y159.55 E84.54631
G1 X148.90 Y158.84 E84.59049
G1 X148.97 Y158.16 E84.63353
G1 X149.18 Y157.47 E84.67792
G1 X149.51 Y156.85 E84.72200
G1 X149.96 Y156.31 E84.76573
G1 X150.50 Y155.86 E84.81000
G1 X151.13 Y155.53 E84.85397
G1 X151.80 Y155.32 E84.89771
G0 F6000 X151.69 Y154.84
;TYPE:WALL-OUTER
G1 F2700 X151.70 Y154.83 E84.89883
G1 X152.48 Y154.75 E84.94776
G1 X152.50 Y154.75 E84.94895
G1 X153.28 Y154.83 E84.99776
G1 X153.30 Y154.83 E84.99870
G1 X154.05 Y155.06 E85.04764
G1 X154.76 Y155.43 E85.09794
G1 X155.38 Y155.94 E85.14778
G1 X155.40 Y155.95 E85.14941
G1 X155.90 Y156.56 E85.19825
G1 X155.91 Y156.57 E85.19931
G1 X156.28 Y157.27 E85.24830
G1 X156.51 Y158.03 E85.29842
G1 X156.52 Y158.05 E85.29955
G1 X156.60 Y158.83 E85.34854
G1 X156.60 Y158.85 E85.34967
G1 X156.52 Y159.63 E85.39855
G1 X156.52 Y159.65 E85.39948
G1 X156.29 Y160.40 E85.44843
G1 X155.92 Y161.11 E85.49850
G1 X155.91 Y161.13 E85.50007
G1 X155.41 Y161.73 E85.54859
G1 X155.40 Y161.75 E85.55022
G1 X154.79 Y162.25 E85.59906
G1 X154.78 Y162.26 E85.60012
G1 X154.08 Y162.63 E85.64911
G1 X153.31 Y162.86 E85.69924
G1 X153.30 Y162.87 E85.70036
G1 X152.52 Y162.94 E85.74929
G1 X152.50 Y162.95 E85.75048
G1 X151.72 Y162.87 E85.79929
G1 X151.70 Y162.87 E85.80022
G1 X150.95 Y162.64 E85.84937
G1 X150.24 Y162.27 E85.89947
G1 X149.62 Y161.76 E85.94931
G1 X149.60 Y161.75 E85.95094
G1 X149.10 Y161.14 E85.99978
G1 X149.09 Y161.13 E86.00084
G1 X148.72 Y160.43 E86.04983
G1 X148.49 Y159.66 E86.09995
G1 X148.48 Y159.65 E86.10108
G1 X148.40 Y158.87 E86.15007
G1 X148.40 Y158.85 E86.15120
G1 X148.48 Y158.07 E86.20008
G1 X148.48 Y158.05 E86.20101
G1 X148.71 Y157.30 E86.24996
G1 X149.08 Y156.59 E86.30003
G1 X149.09 Y156.57 E86.30160
G1 X149.59 Y155.97 E86.35012
G1 X149.60 Y155.95 E86.35175
G1 X150.21 Y155.45 E86.40059
G1 X150.22 Y155.44 E86.40165
G1 X150.92 Y155.07 E86.45064
G1 X151.69 Y154.84 E86.50077
G0 F6000 X151.66 Y155.55
;TYPE:FILL
G1 F2700 X155.80 Y159.69 E86.86616
G0 F6000 X155.62 Y160.22
G1 F2700 X151.13 Y155.72 E87.26281
G0 F6000 X150.67 Y155.97
G1 F2700 X155.38 Y160.68 E87.67838
G0 F6000 X155.07 Y161.08
G1 F2700 X150.27 Y156.28 E88.10202
G0 F6000 X149.91 Y156.63
G1 F2700 X154.72 Y161.43 E88.52540
G0 F6000 X154.31 Y161.74
G1 F2700 X149.61 Y157.03 E88.94031
G0 F6000 X149.36 Y157.50
G1 F2700 X153.85 Y161.98 E89.33612
G0 F6000 X153.32 Y162.16
G1 F2700 X149.19 Y158.03 E89.70010
G0 F6000 X149.10 Y158.65
G1 F2700 X152.70 Y162.25 E90.01778
G0 F6000 X151.96 Y162.22
G1 F2700 X149.13 Y159.39 E90.26728
G0 F6000 X149.50 Y160.47
G1 F2700 X150.88 Y161.84 E90.38899
G0 F6000 X155.90 Y159.08
G1 F2700 X152.27 Y155.45 E90.70896
G0 F6000 X153.00 Y155.48
G1 F2700 X155.87 Y158.34 E90.96181
G0 F6000 X155.53 Y157.30
G1 F2700 X154.05 Y155.82 E91.09216
;LAYER:1
G0 F6000 X153.88 Y155.53 Z0.50
;TYPE:WALL-INNER
G1 F960 X154.49 Y155.85 E91.12095
G1 X154.50 Y155.86 E91.12142
G1 X155.03 Y156.29 E91.15001
G1 X155.48 Y156.84 E91.17966
G1 X155.82 Y157.46 E91.20889
G1 X156.03 Y158.15 E91.23882
G1 X156.09 Y158.84 E91.26756
G1 X156.10 Y158.85 E91.26814
G1 X156.03 Y159.53 E91.29654
G1 X155.82 Y160.23 E91.32660
G1 X155.50 Y160.83 E91.35524
G1 X155.05 Y161.38 E91.38444
G1 X154.50 Y161.83 E91.41409
G1 X153.88 Y162.17 E91.44331
G1 X153.20 Y162.38 E91.47324
G1 X152.51 Y162.44 E91.50198
G1 X152.49 Y162.44 E91.50260
G1 X151.82 Y162.38 E91.53092
G1 X151.12 Y162.17 E91.56097
G1 X150.51 Y161.84 E91.58977
G1 X150.50 Y161.84 E91.59023
G1 X149.97 Y161.40 E91.61909
G1 X149.52 Y160.85 E91.64848
G1 X149.18 Y160.24 E91.67771
G1 X148.97 Y159.55 E91.70764
G1 X148.91 Y158.86 E91.73638
G1 X148.90 Y158.84 E91.73696
G1 X148.97 Y158.16 E91.76536
G1 X149.18 Y157.47 E91.79542
G1 X149.50 Y156.87 E91.82406
G1 X149.95 Y156.32 E91.85326
G1 X150.50 Y155.87 E91.88291
G1 X151.12 Y155.53 E91.91213
G1 X151.80 Y155.32 E91.94206
G1 X152.49 Y155.25 E91.97080
G1 X152.51 Y155.25 E91.97142
G1 X153.18 Y155.32 E91.99974
G1 X153.88 Y155.53 E92.02980
G0 F6000 X154.06 Y155.06
;TYPE:WALL-OUTER
G1 F960 X154.72 Y155.41 E92.06076
G1 X154.78 Y155.44 E92.06344
G1 X155.35 Y155.91 E92.09410
G1 X155.40 Y155.95 E92.09679
G1 X155.87 Y156.53 E92.12761
G1 X155.91 Y156.57 E92.13006
G1 X156.26 Y157.23 E92.16099
G1 X156.29 Y157.28 E92.16357
G1 X156.52 Y158.05 E92.19690
G1 X156.59 Y158.79 E92.22782
G1 X156.60 Y158.85 E92.23041
G1 X156.53 Y159.59 E92.26115
G1 X156.52 Y159.65 E92.26379
G1 X156.29 Y160.41 E92.29702
G1 X155.94 Y161.07 E92.32794
G1 X155.91 Y161.13 E92.33067
G1 X155.44 Y161.70 E92.36133
G1 X155.40 Y161.75 E92.36402
G1 X154.82 Y162.22 E92.39484
G1 X154.78 Y162.26 E92.39729
G1 X154.12 Y162.61 E92.42822
G1 X154.07 Y162.64 E92.43080
G1 X153.30 Y162.87 E92.46413
G1 X152.56 Y162.94 E92.49504
G1 X152.50 Y162.95 E92.49763
G1 X151.76 Y162.88 E92.52833
G1 X151.70 Y162.87 E92.53097
G1 X150.94 Y162.64 E92.56420
G1 X150.28 Y162.29 E92.59517
G1 X150.22 Y162.26 E92.59785
G1 X149.65 Y161.79 E92.62851
G1 X149.60 Y161.75 E92.63120
G1 X149.13 Y161.17 E92.66202
G1 X149.09 Y161.13 E92.66446
G1 X148.74 Y160.47 E92.69540
G1 X148.71 Y160.42 E92.69798
G1 X148.48 Y159.65 E92.73131
G1 X148.41 Y158.91 E92.76222
G1 X148.40 Y158.85 E92.76481
G1 X148.47 Y158.11 E92.79556
G1 X148.48 Y158.05 E92.79819
G1 X148.71 Y157.28 E92.83143
G1 X149.06 Y156.63 E92.86234
G1 X149.09 Y156.57 E92.86508
G1 X149.56 Y156.00 E92.89574
G1 X149.60 Y155.95 E92.89843
G1 X150.18 Y155.48 E92.92924
G1 X150.22 Y155.44 E92.93169
G1 X150.88 Y155.09 E92.96262
G1 X150.93 Y155.06 E92.96521
G1 X151.70 Y154.83 E92.99854
G1 X152.44 Y154.76 E93.02945
G1 X152.50 Y154.75 E93.03204
G1 X153.24 Y154.82 E93.06274
G1 X153.30 Y154.83 E93.06537
G1 X154.06 Y155.06 E93.09861
G0 F6000 X153.70 Y155.66
;TYPE:FILL
G1 F960 X149.31 Y160.05 E93.35693
G0 F6000 X149.54 Y160.53
G1 F960 X154.18 Y155.89 E93.62974
G0 F6000 X154.60 Y156.17
G1 F960 X149.82 Y160.95 E93.91076
G0 F6000 X150.15 Y161.33
G1 F960 X154.97 Y156.50 E94.19430
G0 F6000 X155.29 Y156.89
G1 F960 X150.54 Y161.65 E94.47382
G0 F6000 X150.99 Y161.90
G1 F960 X155.55 Y157.34 E94.74196
G0 F6000 X155.75 Y157.85
G1 F960 X151.50 Y162.10 E94.99196
G0 F6000 X152.08 Y162.23
G1 F960 X155.88 Y158.43 E95.21527
G0 F6000 X155.89 Y159.12
G1 F960 X152.77 Y162.24 E95.39863
G0 F6000 X153.68 Y162.05
G1 F960 X155.70 Y160.02 E95.51757
G0 F6000 X153.16 Y155.49
G1 F960 X149.15 Y159.51 E95.75364
G0 F6000 X149.08 Y158.86
G1 F960 X152.51 Y155.43 E95.95548
G0 F6000 X151.70 Y155.53
G1 F960 X149.19 Y158.05 E96.10353
G0 F6000 X150.00 Y156.53
G1 F960 X150.17 Y156.36 E96.11356
G0 F6000 X151.82 Y149.68
;TYPE:WALL-INNER
G1 F960 X151.12 Y149.47 E96.14361
G1 X150.51 Y149.15 E96.17240
G1 X150.50 Y149.14 E96.17287
G1 X149.97 Y148.70 E96.20173
G1 X149.52 Y148.16 E96.23112
G1 X149.18 Y147.54 E96.26034
G1 X148.97 Y146.85 E96.29027
G1 X148.91 Y146.16 E96.31901
G1 X148.90 Y146.15 E96.31960
G1 X148.97 Y145.47 E96.34800
G1 X149.18 Y144.77 E96.37805
G1 X149.50 Y144.17 E96.40670
G1 X149.95 Y143.62 E96.43590
G1 X150.50 Y143.17 E96.46555
G1 X151.12 Y142.83 E96.49477
G1 X151.80 Y142.62 E96.52470
G1 X152.49 Y142.56 E96.55344
G1 X152.51 Y142.56 E96.55406
G1 X153.18 Y142.62 E96.58238
G1 X153.88 Y142.83 E96.61243
G1 X154.49 Y143.16 E96.64122
G1 X154.50 Y143.16 E96.64169
G1 X155.03 Y143.60 E96.67029
G1 X155.48 Y144.15 E96.69994
G1 X155.82 Y144.76 E96.72916
G1 X156.03 Y145.45 E96.75909
G1 X156.09 Y146.14 E96.78787
G1 X156.10 Y146.16 E96.78845
G1 X156.03 Y146.84 E96.81682
G1 X155.82 Y147.53 E96.84687
G1 X155.50 Y148.13 E96.87551
G1 X155.05 Y148.68 E96.90471
G1 X154.50 Y149.13 E96.93436
G1 X153.88 Y149.47 E96.96358
G1 X153.20 Y149.68 E96.99352
G1 X152.51 Y149.75 E97.02225
G1 X152.49 Y149.75 E97.02288
G1 X151.82 Y149.68 E97.05119
G0 F6000 X151.76 Y150.18
;TYPE:WALL-OUTER
G1 F960 X151.70 Y150.17 E97.05383
G1 X150.94 Y149.94 E97.08706
G1 X150.28 Y149.59 E97.11803
G1 X150.22 Y149.56 E97.12071
G1 X149.65 Y149.09 E97.15137
G1 X149.60 Y149.05 E97.15406
G1 X149.13 Y148.47 E97.18488
G1 X149.09 Y148.43 E97.18733
G1 X148.74 Y147.77 E97.21826
G1 X148.71 Y147.72 E97.22084
G1 X148.48 Y146.95 E97.25417
G1 X148.41 Y146.21 E97.28509
G1 X148.40 Y146.15 E97.28767
G1 X148.47 Y145.41 E97.31842
G1 X148.48 Y145.35 E97.32106
G1 X148.71 Y144.59 E97.35429
G1 X149.06 Y143.93 E97.38520
G1 X149.09 Y143.87 E97.38794
G1 X149.56 Y143.30 E97.41860
G1 X149.60 Y143.25 E97.42129
G1 X150.18 Y142.78 E97.45211
G1 X150.22 Y142.74 E97.45455
G1 X150.88 Y142.39 E97.48549
G1 X150.93 Y142.36 E97.48807
G1 X151.70 Y142.13 E97.52140
G1 X152.44 Y142.06 E97.55231
G1 X152.50 Y142.05 E97.55490
G1 X153.24 Y142.12 E97.58560
G1 X153.30 Y142.13 E97.58823
G1 X154.06 Y142.36 E97.62147
G1 X154.72 Y142.71 E97.65244
G1 X154.78 Y142.74 E97.65512
G1 X155.35 Y143.21 E97.68578
G1 X155.40 Y143.25 E97.68847
G1 X155.87 Y143.83 E97.71928
G1 X155.91 Y143.87 E97.72173
G1 X156.26 Y144.53 E97.75266
G1 X156.29 Y144.58 E97.75525
G1 X156.52 Y145.35 E97.78858
G1 X156.59 Y146.09 E97.81953
G1 X156.60 Y146.15 E97.82212
G1 X156.53 Y146.89 E97.85283
G1 X156.52 Y146.95 E97.85546
G1 X156.29 Y147.72 E97.88870
G1 X155.94 Y148.37 E97.91961
G1 X155.91 Y148.43 E97.92234
G1 X155.44 Y149.00 E97.95301
G1 X155.40 Y149.05 E97.95569
G1 X154.82 Y149.52 E97.98651
G1 X154.78 Y149.56 E97.98896
G1 X154.12 Y149.91 E98.01989
G1 X154.07 Y149.94 E98.02248
G1 X153.30 Y150.17 E98.05580
G1 X152.56 Y150.24 E98.08672
G1 X152.50 Y150.25 E98.08930
G1 X151.76 Y150.18 E98.12000
G0 F6000 X152.05 Y149.53
;TYPE:FILL
G1 F960 X155.88 Y145.71 E98.34478
G0 F6000 X155.74 Y145.13
G1 F960 X151.48 Y149.40 E98.59567
G0 F6000 X150.97 Y149.19
G1 F960 X155.54 Y144.62 E98.86428
G0 F6000 X155.28 Y144.18
G1 F960 X150.52 Y148.94 E99.14397
G0 F6000 X150.14 Y148.62
G1 F960 X154.96 Y143.79 E99.42769
G0 F6000 X154.59 Y143.46
G1 F960 X149.81 Y148.24 E99.70856
G0 F6000 X149.53 Y147.81
G1 F960 X154.16 Y143.18 E99.98087
G0 F6000 X153.68 Y142.95
G1 F960 X149.30 Y147.33 E100.23828
G0 F6000 X149.14 Y146.78
G1 F960 X153.13 Y142.79 E100.47303
G0 F6000 X152.48 Y142.73
G1 F960 X149.08 Y146.14 E100.67317
G0 F6000 X149.20 Y145.31
G1 F960 X151.66 Y142.85 E100.81793
G0 F6000 X155.90 Y146.39
G1 F960 X152.74 Y149.55 E101.00337
G0 F6000 X153.63 Y149.36
G1 F960 X155.71 Y147.28 E101.12555
;LAYER:2
G0 F6000 X155.84 Y147.47 Z0.70
;TYPE:WALL-INNER
G1 F960 X155.82 Y147.53 E101.12790
G1 X155.52 Y148.10 E101.15489
G1 X155.49 Y148.15 E101.15725
G1 X155.08 Y148.65 E101.18419
G1 X155.04 Y148.69 E101.18656
G1 X154.54 Y149.11 E101.21368
G1 X154.50 Y149.14 E101.21595
G1 X153.92 Y149.45 E101.24299
G1 X153.88 Y149.47 E101.24523
G1 X153.25 Y149.66 E101.27229
G1 X153.20 Y149.68 E101.27465
G1 X152.55 Y149.74 E101.30155
G1 X152.50 Y149.75 E101.30393
G1 X151.86 Y149.68 E101.33071
G1 X151.80 Y149.68 E101.33292
G1 X151.18 Y149.49 E101.36012
G1 X151.13 Y149.47 E101.36234
G1 X150.55 Y149.17 E101.38948
G1 X150.50 Y149.14 E101.39169
G1 X150.00 Y148.73 E101.41863
G1 X149.96 Y148.69 E101.42100
G1 X149.54 Y148.19 E101.44812
G1 X149.51 Y148.15 E101.45039
G1 X149.20 Y147.57 E101.47743
G1 X149.18 Y147.53 E101.47967
G1 X148.99 Y146.90 E101.50673
G1 X148.97 Y146.85 E101.50909
G1 X148.91 Y146.20 E101.53603
G1 X148.90 Y146.15 E101.53833
G1 X148.97 Y145.51 E101.56520
G1 X148.97 Y145.45 E101.56741
G1 X149.16 Y144.83 E101.59448
G1 X149.18 Y144.78 E101.59683
G1 X149.48 Y144.20 E101.62382
G1 X149.51 Y144.15 E101.62618
G1 X149.92 Y143.65 E101.65312
G1 X149.96 Y143.61 E101.65549
G1 X150.46 Y143.19 E101.68261
G1 X150.50 Y143.16 E101.68488
G1 X151.08 Y142.85 E101.71192
G1 X151.12 Y142.83 E101.71416
G1 X151.75 Y142.64 E101.74123
G1 X151.80 Y142.62 E101.74358
G1 X152.45 Y142.56 E101.77048
G1 X152.50 Y142.55 E101.77286
G1 X153.14 Y142.62 E101.79964
G1 X153.20 Y142.62 E101.80185
G1 X153.82 Y142.81 E101.82892
G1 X153.87 Y142.83 E101.83127
G1 X154.45 Y143.13 E101.85841
G1 X154.50 Y143.16 E101.86062
G1 X155.00 Y143.57 E101.88756
G1 X155.04 Y143.61 E101.88993
G1 X155.46 Y144.11 E101.91705
G1 X155.49 Y144.15 E101.91932
G1 X155.80 Y144.73 E101.94637
G1 X155.82 Y144.78 E101.94860
G1 X156.01 Y145.40 E101.97567
G1 X156.03 Y145.45 E101.97802
G1 X156.09 Y146.10 E102.00500
G1 X156.10 Y146.15 E102.00730
G1 X156.03 Y146.79 E102.03413
G1 X156.03 Y146.85 E102.03634
G1 X155.84 Y147.47 E102.06341
G0 F6000 X156.32 Y147.62
;TYPE:WALL-OUTER
G1 F960 X156.29 Y147.72 E102.06771
G1 X155.96 Y148.34 E102.09684
G1 X155.91 Y148.43 E102.10132
G1 X155.46 Y148.97 E102.13027
G1 X155.40 Y149.05 E102.13470
G1 X154.86 Y149.49 E102.16371
G1 X154.78 Y149.56 E102.16793
G1 X154.16 Y149.89 E102.19711
G1 X154.07 Y149.94 E102.20145
G1 X153.40 Y150.14 E102.23051
G1 X153.30 Y150.17 E102.23481
G1 X152.60 Y150.24 E102.26389
G1 X152.50 Y150.25 E102.26824
G1 X151.81 Y150.18 E102.29723
G1 X151.70 Y150.17 E102.30162
G1 X151.03 Y149.97 E102.33059
G1 X150.93 Y149.94 E102.33489
G1 X150.31 Y149.61 E102.36407
G1 X150.22 Y149.56 E102.36850
G1 X149.68 Y149.12 E102.39745
G1 X149.60 Y149.05 E102.40188
G1 X149.16 Y148.51 E102.43089
G1 X149.09 Y148.43 E102.43511
G1 X148.76 Y147.81 E102.46429
G1 X148.71 Y147.72 E102.46863
G1 X148.51 Y147.05 E102.49769
G1 X148.48 Y146.95 E102.50200
G1 X148.40 Y146.15 E102.53538
G1 X148.48 Y145.35 E102.56889
G1 X148.68 Y144.68 E102.59782
G1 X148.71 Y144.58 E102.60212
G1 X149.04 Y143.97 E102.63125
G1 X149.09 Y143.87 E102.63573
G1 X149.54 Y143.33 E102.66468
G1 X149.60 Y143.25 E102.66911
G1 X150.14 Y142.81 E102.69812
G1 X150.22 Y142.74 E102.70234
G1 X150.84 Y142.41 E102.73153
G1 X150.93 Y142.36 E102.73586
G1 X151.60 Y142.16 E102.76493
G1 X151.70 Y142.13 E102.76923
G1 X152.40 Y142.06 E102.79830
G1 X152.50 Y142.05 E102.80265
G1 X153.19 Y142.12 E102.83164
G1 X153.30 Y142.13 E102.83603
G1 X153.97 Y142.33 E102.86501
G1 X154.07 Y142.36 E102.86931
G1 X154.69 Y142.69 E102.89849
G1 X154.78 Y142.74 E102.90292
G1 X155.32 Y143.19 E102.93186
G1 X155.40 Y143.25 E102.93629
G1 X155.84 Y143.79 E102.96530
G1 X155.91 Y143.87 E102.96953
G1 X156.24 Y144.49 E102.99871
G1 X156.29 Y144.58 E103.00304
G1 X156.49 Y145.25 E103.03211
G1 X156.52 Y145.35 E103.03641
G1 X156.60 Y146.15 E103.06984
G1 X156.52 Y146.95 E103.10330
G1 X156.32 Y147.62 E103.13224
G0 F6000 X155.63 Y147.50
;TYPE:FILL
G1 F960 X151.15 Y143.01 E103.39614
G0 F6000 X150.69 Y143.26
G1 F960 X155.39 Y147.96 E103.67269
G0 F6000 X155.08 Y148.37
G1 F960 X150.28 Y143.57 E103.95491
G0 F6000 X149.93 Y143.92
G1 F960 X154.73 Y148.72 E104.23734
G0 F6000 X154.33 Y149.03
G1 F960 X149.62 Y144.32 E104.51439
G0 F6000 X149.37 Y144.78
G1 F960 X153.87 Y149.27 E104.77877
G0 F6000 X153.34 Y149.45
G1 F960 X149.20 Y145.31 E105.02239
G0 F6000 X149.10 Y145.92
G1 F960 X152.73 Y149.55 E105.23570
G0 F6000 X152.00 Y149.52
G1 F960 X149.13 Y146.65 E105.40433
G0 F6000 X149.47 Y147.70
G1 F960 X150.95 Y149.18 E105.49117
G0 F6000 X155.81 Y146.97
G1 F960 X151.68 Y142.84 E105.73382
G0 F6000 X152.30 Y142.75
G1 F960 X155.90 Y146.35 E105.94566
G0 F6000 X155.87 Y145.61
G1 F960 X153.04 Y142.78 E106.11206
G0 F6000 X154.12 Y143.16
G1 F960 X155.49 Y144.53 E106.19281
G0 F6000 X153.20 Y155.32
;TYPE:WALL-INNER
G1 F960 X153.82 Y155.51 E106.21988
G1 X153.87 Y155.53 E106.22223
G1 X154.45 Y155.83 E106.24937
G1 X154.50 Y155.86 E106.25158
G1 X155.00 Y156.27 E106.27853
G1 X155.04 Y156.31 E106.28089
G1 X155.46 Y156.81 E106.30801
G1 X155.49 Y156.85 E106.31028
G1 X155.80 Y157.43 E106.33733
G1 X155.82 Y157.47 E106.33956
G1 X156.01 Y158.10 E106.36663
G1 X156.03 Y158.15 E106.36898
G1 X156.09 Y158.80 E106.39593
G1 X156.10 Y158.85 E106.39823
G1 X156.03 Y159.49 E106.42509
G1 X156.03 Y159.55 E106.42730
G1 X155.84 Y160.17 E106.45437
G1 X155.82 Y160.22 E106.45672
G1 X155.52 Y160.80 E106.48371
G1 X155.49 Y160.85 E106.48607
G1 X155.08 Y161.35 E106.51302
G1 X155.04 Y161.39 E106.51538
G1 X154.54 Y161.81 E106.54250
G1 X154.50 Y161.84 E106.54477
G1 X153.92 Y162.15 E106.57182
G1 X153.88 Y162.17 E106.57405
G1 X153.25 Y162.36 E106.60112
G1 X153.20 Y162.38 E106.60347
G1 X152.55 Y162.44 E106.63037
G1 X152.50 Y162.45 E106.63275
G1 X151.86 Y162.38 E106.65953
G1 X151.80 Y162.38 E106.66174
G1 X151.18 Y162.19 E106.68894
G1 X151.13 Y162.17 E106.69116
G1 X150.55 Y161.87 E106.71830
G1 X150.50 Y161.84 E106.72051
G1 X150.00 Y161.43 E106.74746
G1 X149.96 Y161.39 E106.74982
G1 X149.54 Y160.89 E106.77694
G1 X149.51 Y160.85 E106.77921
G1 X149.20 Y160.27 E106.80626
G1 X149.18 Y160.22 E106.80849
G1 X148.99 Y159.60 E106.83556
G1 X148.97 Y159.55 E106.83791
G1 X148.91 Y158.90 E106.86486
G1 X148.90 Y158.85 E106.86716
G1 X148.97 Y158.21 E106.89402
G1 X148.97 Y158.15 E106.89623
G1 X149.16 Y157.53 E106.92330
G1 X149.18 Y157.47 E106.92565
G1 X149.48 Y156.90 E106.95264
G1 X149.51 Y156.85 E106.95500
G1 X149.92 Y156.35 E106.98195
G1 X149.96 Y156.31 E106.98431
G1 X150.46 Y155.89 E107.01143
G1 X150.50 Y155.86 E107.01370
G1 X151.08 Y155.55 E107.04075
G1 X151.12 Y155.53 E107.04298
G1 X151.75 Y155.34 E107.07005
G1 X151.80 Y155.32 E107.07240
G1 X152.45 Y155.26 E107.09930
G1 X152.50 Y155.25 E107.10168
G1 X153.14 Y155.32 E107.12846
G1 X153.20 Y155.32 E107.13067
G0 F6000 X153.30 Y154.83
;TYPE:WALL-OUTER
G1 F960 X153.97 Y155.03 E107.15965
G1 X154.07 Y155.06 E107.16395
G1 X154.69 Y155.39 E107.19313
G1 X154.78 Y155.44 E107.19756
G1 X155.32 Y155.88 E107.22651
G1 X155.40 Y155.95 E107.23094
G1 X155.84 Y156.49 E107.25995
G1 X155.91 Y156.57 E107.26417
G1 X156.24 Y157.19 E107.29335
G1 X156.29 Y157.28 E107.29769
G1 X156.49 Y157.95 E107.32675
G1 X156.52 Y158.05 E107.33105
G1 X156.60 Y158.85 E107.36444
G1 X156.52 Y159.65 E107.39795
G1 X156.32 Y160.32 E107.42688
G1 X156.29 Y160.42 E107.43118
G1 X155.96 Y161.03 E107.46031
G1 X155.91 Y161.13 E107.46479
G1 X155.46 Y161.67 E107.49374
G1 X155.40 Y161.75 E107.49817
G1 X154.86 Y162.19 E107.52718
G1 X154.78 Y162.26 E107.53140
G1 X154.16 Y162.59 E107.56059
G1 X154.07 Y162.64 E107.56492
G1 X153.40 Y162.84 E107.59399
G1 X153.30 Y162.87 E107.59829
G1 X152.60 Y162.94 E107.62736
G1 X152.50 Y162.95 E107.63171
G1 X151.81 Y162.88 E107.66070
G1 X151.70 Y162.87 E107.66509
G1 X151.03 Y162.67 E107.69406
G1 X150.93 Y162.64 E107.69836
G1 X150.31 Y162.31 E107.72755
G1 X150.22 Y162.26 E107.73197
G1 X149.68 Y161.81 E107.76092
G1 X149.60 Y161.75 E107.76535
G1 X149.16 Y161.21 E107.79436
G1 X149.09 Y161.13 E107.79859
G1 X148.76 Y160.51 E107.82777
G1 X148.71 Y160.42 E107.83210
G1 X148.51 Y159.75 E107.86117
G1 X148.48 Y159.65 E107.86547
G1 X148.40 Y158.85 E107.89885
G1 X148.48 Y158.05 E107.93236
G1 X148.68 Y157.38 E107.96130
G1 X148.71 Y157.28 E107.96560
G1 X149.04 Y156.66 E107.99472
G1 X149.09 Y156.57 E107.99921
G1 X149.54 Y156.03 E108.02816
G1 X149.60 Y155.95 E108.03258
G1 X150.14 Y155.51 E108.06160
G1 X150.22 Y155.44 E108.06582
G1 X150.84 Y155.11 E108.09500
G1 X150.93 Y155.06 E108.09934
G1 X151.60 Y154.86 E108.12840
G1 X151.70 Y154.83 E108.13270
G1 X152.40 Y154.76 E108.16178
G1 X152.50 Y154.75 E108.16612
G1 X153.19 Y154.82 E108.19512
G1 X153.30 Y154.83 E108.19950
G0 F6000 X153.00 Y155.48
;TYPE:FILL
G1 F960 X155.87 Y158.34 E108.36813
G0 F6000 X155.90 Y159.08
G1 F960 X152.27 Y155.45 E108.58144
G0 F6000 X151.66 Y155.55
G1 F960 X155.80 Y159.69 E108.82504
G0 F6000 X155.62 Y160.22
G1 F960 X151.13 Y155.72 E109.08944
G0 F6000 X150.67 Y155.97
G1 F960 X155.38 Y160.68 E109.36649
G0 F6000 X155.07 Y161.08
G1 F960 X150.27 Y156.28 E109.64892
G0 F6000 X149.91 Y156.63
G1 F960 X154.71 Y161.43 E109.93111
G0 F6000 X154.31 Y161.74
G1 F960 X149.61 Y157.03 E110.20766
G0 F6000 X149.36 Y157.50
G1 F960 X153.85 Y161.98 E110.47159
G0 F6000 X153.32 Y162.16
G1 F960 X149.19 Y158.03 E110.71422
G0 F6000 X149.10 Y158.65
G1 F960 X152.70 Y162.25 E110.92600
G0 F6000 X151.96 Y162.22
G1 F960 X149.13 Y159.38 E111.09239
G0 F6000 X149.51 Y160.47
G1 F960 X150.88 Y161.84 E111.17318
G0 F6000 X155.53 Y157.30
G1 F960 X154.05 Y155.82 E111.25996
;LAYER:3
G0 F6000 X153.88 Y155.53 Z0.90
;TYPE:WALL-INNER
G1 F960 X154.41 Y155.81 E111.28513
G1 X154.50 Y155.86 E111.28937
G1 X154.97 Y156.24 E111.31439
G1 X155.04 Y156.31 E111.31855
G1 X155.43 Y156.78 E111.34387
G1 X155.49 Y156.85 E111.34786
G1 X155.78 Y157.39 E111.37313
G1 X155.82 Y157.47 E111.37713
G1 X156.03 Y158.15 E111.40664
G1 X156.10 Y158.85 E111.43576
G1 X156.03 Y159.55 E111.46492
G1 X155.82 Y160.23 E111.49444
G1 X155.54 Y160.76 E111.51960
G1 X155.49 Y160.85 E111.52384
G1 X155.11 Y161.31 E111.54886
G1 X155.04 Y161.39 E111.55302
G1 X154.57 Y161.78 E111.57834
G1 X154.50 Y161.84 E111.58233
G1 X153.96 Y162.13 E111.60761
G1 X153.88 Y162.17 E111.61161
G1 X153.20 Y162.38 E111.64112
G1 X152.60 Y162.44 E111.66622
G1 X152.50 Y162.45 E111.67032
G1 X151.90 Y162.39 E111.69542
G1 X151.80 Y162.38 E111.69935
G1 X151.12 Y162.17 E111.72886
G1 X150.59 Y161.88 E111.75412
G1 X150.50 Y161.84 E111.75827
G1 X150.03 Y161.46 E111.78329
G1 X149.96 Y161.39 E111.78745
G1 X149.57 Y160.92 E111.81277
G1 X149.51 Y160.85 E111.81675
G1 X149.22 Y160.31 E111.84203
G1 X149.18 Y160.23 E111.84603
G1 X148.97 Y159.55 E111.87554
G1 X148.90 Y158.85 E111.90470
G1 X148.97 Y158.15 E111.93382
G1 X149.18 Y157.47 E111.96334
G1 X149.46 Y156.94 E111.98850
G1 X149.51 Y156.85 E111.99274
G1 X149.89 Y156.38 E112.01776
G1 X149.96 Y156.31 E112.02192
G1 X150.43 Y155.92 E112.04724
G1 X150.50 Y155.86 E112.05123
G1 X151.04 Y155.57 E112.07651
G1 X151.12 Y155.53 E112.08050
G1 X151.80 Y155.32 E112.11002
G1 X152.40 Y155.26 E112.13512
G1 X152.50 Y155.25 E112.13922
G1 X153.10 Y155.31 E112.16432
G1 X153.20 Y155.32 E112.16825
G1 X153.88 Y155.53 E112.19776
G0 F6000 X154.06 Y155.06
;TYPE:WALL-OUTER
G1 F960 X154.78 Y155.44 E112.23152
G1 X155.40 Y155.95 E112.26469
G1 X155.90 Y156.57 E112.29787
G1 X156.29 Y157.28 E112.33163
G1 X156.52 Y158.05 E112.36482
G1 X156.60 Y158.85 E112.39829
G1 X156.52 Y159.65 E112.43180
G1 X156.29 Y160.41 E112.46500
G1 X155.90 Y161.13 E112.49875
G1 X155.40 Y161.75 E112.53193
G1 X154.78 Y162.25 E112.56510
G1 X154.06 Y162.64 E112.59886
G1 X153.30 Y162.87 E112.63210
G1 X152.50 Y162.95 E112.66552
G1 X151.70 Y162.87 E112.69894
G1 X150.94 Y162.64 E112.73218
G1 X150.22 Y162.25 E112.76594
G1 X149.60 Y161.75 E112.79911
G1 X149.10 Y161.13 E112.83229
G1 X148.71 Y160.41 E112.86605
G1 X148.48 Y159.65 E112.89924
G1 X148.40 Y158.85 E112.93271
G1 X148.48 Y158.05 E112.96622
G1 X148.71 Y157.28 E112.99941
G1 X149.10 Y156.57 E113.03317
G1 X149.60 Y155.95 E113.06635
G1 X150.22 Y155.44 E113.09952
G1 X150.94 Y155.06 E113.13328
G1 X151.70 Y154.83 E113.16652
G1 X152.50 Y154.75 E113.19994
G1 X153.30 Y154.83 E113.23336
G1 X154.06 Y155.06 E113.26660
G0 F6000 X153.70 Y155.66
;TYPE:FILL
G1 F960 X149.31 Y160.05 E113.52492
G0 F6000 X149.54 Y160.53
G1 F960 X154.18 Y155.89 E113.79773
G0 F6000 X154.60 Y156.17
G1 F960 X149.82 Y160.95 E114.07875
G0 F6000 X150.15 Y161.32
G1 F960 X154.98 Y156.50 E114.36229
G0 F6000 X155.30 Y156.89
G1 F960 X150.54 Y161.65 E114.64190
G0 F6000 X150.99 Y161.90
G1 F960 X155.55 Y157.34 E114.91004
G0 F6000 X155.75 Y157.85
G1 F960 X151.50 Y162.10 E115.16010
G0 F6000 X152.08 Y162.23
G1 F960 X155.88 Y158.43 E115.38341
G0 F6000 X155.89 Y159.12
G1 F960 X152.77 Y162.24 E115.56685
G0 F6000 X153.67 Y162.05
G1 F960 X155.70 Y160.02 E115.68594
G0 F6000 X153.16 Y155.49
G1 F960 X149.15 Y159.51 E115.92198
G0 F6000 X149.08 Y158.86
G1 F960 X152.52 Y155.43 E116.12400
G0 F6000 X151.70 Y155.53
G1 F960 X149.19 Y158.05 E116.27211
G0 F6000 X150.00 Y156.53
G1 F960 X150.18 Y156.35 E116.28255
G0 F6000 X151.80 Y149.68
;TYPE:WALL-INNER
G1 F960 X151.12 Y149.47 E116.31206
G1 X150.59 Y149.19 E116.33732
G1 X150.50 Y149.14 E116.34146
G1 X150.03 Y148.76 E116.36648
G1 X149.96 Y148.69 E116.37065
G1 X149.57 Y148.22 E116.39596
G1 X149.51 Y148.15 E116.39995
G1 X149.22 Y147.61 E116.42523
G1 X149.18 Y147.53 E116.42923
G1 X148.97 Y146.85 E116.45874
G1 X148.90 Y146.15 E116.48786
G1 X148.97 Y145.45 E116.51702
G1 X149.18 Y144.77 E116.54653
G1 X149.46 Y144.24 E116.57170
G1 X149.51 Y144.15 E116.57594
G1 X149.89 Y143.69 E116.60096
G1 X149.96 Y143.61 E116.60512
G1 X150.43 Y143.22 E116.63044
G1 X150.50 Y143.16 E116.63442
G1 X151.04 Y142.87 E116.65970
G1 X151.12 Y142.83 E116.66370
G1 X151.80 Y142.62 E116.69321
G1 X152.40 Y142.56 E116.71832
G1 X152.50 Y142.55 E116.72241
G1 X153.10 Y142.61 E116.74752
G1 X153.20 Y142.62 E116.75144
G1 X153.88 Y142.83 E116.78096
G1 X154.41 Y143.11 E116.80612
G1 X154.50 Y143.16 E116.81036
G1 X154.97 Y143.54 E116.83538
G1 X155.04 Y143.61 E116.83954
G1 X155.43 Y144.08 E116.86486
G1 X155.49 Y144.15 E116.86885
G1 X155.78 Y144.69 E116.89413
G1 X155.82 Y144.77 E116.89813
G1 X156.03 Y145.45 E116.92764
G1 X156.10 Y146.15 E116.95680
G1 X156.03 Y146.85 E116.98592
G1 X155.82 Y147.53 E117.01543
G1 X155.54 Y148.06 E117.04060
G1 X155.49 Y148.15 E117.04484
G1 X155.11 Y148.62 E117.06986
G1 X155.04 Y148.69 E117.07402
G1 X154.57 Y149.08 E117.09934
G1 X154.50 Y149.14 E117.10332
G1 X153.96 Y149.43 E117.12860
G1 X153.88 Y149.47 E117.13260
G1 X153.20 Y149.68 E117.16211
G1 X152.60 Y149.74 E117.18722
G1 X152.50 Y149.75 E117.19131
G1 X151.90 Y149.69 E117.21642
G1 X151.80 Y149.68 E117.22034
G0 F6000 X151.70 Y150.17
;TYPE:WALL-OUTER
G1 F960 X150.94 Y149.94 E117.25358
G1 X150.22 Y149.56 E117.28734
G1 X149.60 Y149.05 E117.32051
G1 X149.10 Y148.43 E117.35369
G1 X148.71 Y147.72 E117.38745
G1 X148.48 Y146.95 E117.42064
G1 X148.40 Y146.15 E117.45411
G1 X148.48 Y145.35 E117.48762
G1 X148.71 Y144.59 E117.52081
G1 X149.10 Y143.87 E117.55457
G1 X149.60 Y143.25 E117.58775
G1 X150.22 Y142.75 E117.62092
G1 X150.94 Y142.36 E117.65468
G1 X151.70 Y142.13 E117.68792
G1 X152.50 Y142.05 E117.72134
G1 X153.30 Y142.13 E117.75476
G1 X154.06 Y142.36 E117.78800
G1 X154.78 Y142.75 E117.82176
G1 X155.40 Y143.25 E117.85493
G1 X155.90 Y143.87 E117.88811
G1 X156.29 Y144.59 E117.92186
G1 X156.52 Y145.35 E117.95506
G1 X156.60 Y146.15 E117.98857
G1 X156.52 Y146.95 E118.02204
G1 X156.29 Y147.72 E118.05523
G1 X155.90 Y148.43 E118.08899
G1 X155.40 Y149.05 E118.12217
G1 X154.78 Y149.56 E118.15534
G1 X154.06 Y149.94 E118.18910
G1 X153.30 Y150.17 E118.22234
G1 X152.50 Y150.25 E118.25576
G1 X151.70 Y150.17 E118.28918
G0 F6000 X152.05 Y149.53
;TYPE:FILL
G1 F960 X155.88 Y145.71 E118.51393
G0 F6000 X155.75 Y145.13
G1 F960 X151.48 Y149.40 E118.76493
G0 F6000 X150.97 Y149.19
G1 F960 X155.54 Y144.62 E119.03354
G0 F6000 X155.28 Y144.18
G1 F960 X150.53 Y148.93 E119.31323
G0 F6000 X150.14 Y148.61
G1 F960 X154.96 Y143.79 E119.59695
G0 F6000 X154.59 Y143.46
G1 F960 X149.81 Y148.24 E119.87782
G0 F6000 X149.53 Y147.81
G1 F960 X154.16 Y143.18 E120.15017
G0 F6000 X153.68 Y142.95
G1 F960 X149.30 Y147.33 E120.40758
G0 F6000 X149.14 Y146.78
G1 F960 X153.13 Y142.79 E120.64223
G0 F6000 X152.49 Y142.73
G1 F960 X149.08 Y146.14 E120.84246
G0 F6000 X149.20 Y145.31
G1 F960 X151.66 Y142.85 E120.98745
G0 F6000 X155.90 Y146.39
G1 F960 X152.74 Y149.55 E121.17304
G0 F6000 X153.63 Y149.36
G1 F960 X155.71 Y147.28 E121.29540
;LAYER:4
G0 F6000 X155.82 Y147.53 Z1.10
;TYPE:WALL-INNER
G1 F960 X155.56 Y148.02 E121.31881
G1 X155.49 Y148.15 E121.32465
G1 X155.13 Y148.58 E121.34811
G1 X155.04 Y148.69 E121.35393
G1 X154.60 Y149.05 E121.37750
G1 X154.50 Y149.14 E121.38326
G1 X154.00 Y149.41 E121.40682
G1 X153.88 Y149.47 E121.41257
G1 X153.20 Y149.68 E121.44208
G1 X152.64 Y149.73 E121.46539
G1 X152.50 Y149.75 E121.47124
G1 X151.94 Y149.69 E121.49468
G1 X151.80 Y149.68 E121.50031
G1 X151.12 Y149.47 E121.52983
G1 X150.62 Y149.21 E121.55334
G1 X150.50 Y149.14 E121.55908
G1 X150.07 Y148.78 E121.58260
G1 X149.96 Y148.69 E121.58836
G1 X149.60 Y148.26 E121.61193
G1 X149.51 Y148.15 E121.61769
G1 X149.24 Y147.65 E121.64125
G1 X149.18 Y147.53 E121.64700
G1 X148.97 Y146.85 E121.67651
G1 X148.90 Y146.15 E121.70563
G1 X148.97 Y145.45 E121.73479
G1 X149.18 Y144.77 E121.76431
G1 X149.44 Y144.28 E121.78772
G1 X149.51 Y144.15 E121.79356
G1 X149.87 Y143.72 E121.81702
G1 X149.96 Y143.61 E121.82283
G1 X150.40 Y143.25 E121.84641
G1 X150.50 Y143.16 E121.85217
G1 X151.00 Y142.89 E121.87573
G1 X151.12 Y142.83 E121.88148
G1 X151.80 Y142.62 E121.91099
G1 X152.36 Y142.57 E121.93430
G1 X152.50 Y142.55 E121.94015
G1 X153.06 Y142.61 E121.96358
G1 X153.20 Y142.62 E121.96922
G1 X153.88 Y142.83 E121.99873
G1 X154.37 Y143.09 E122.02215
G1 X154.50 Y143.16 E122.02799
G1 X154.93 Y143.52 E122.05145
G1 X155.04 Y143.61 E122.05726
G1 X155.40 Y144.04 E122.08084
G1 X155.49 Y144.15 E122.08660
G1 X155.76 Y144.65 E122.11016
G1 X155.82 Y144.77 E122.11591
G1 X156.03 Y145.45 E122.14542
G1 X156.10 Y146.15 E122.17458
G1 X156.03 Y146.85 E122.20370
G1 X155.82 Y147.53 E122.23321
G0 F6000 X156.29 Y147.72
;TYPE:WALL-OUTER
G1 F960 X155.91 Y148.43 E122.26682
G1 X155.40 Y149.05 E122.30014
G1 X154.78 Y149.56 E122.33346
G1 X154.06 Y149.94 E122.36707
G1 X153.30 Y150.17 E122.40030
G1 X152.50 Y150.25 E122.43373
G1 X151.70 Y150.17 E122.46715
G1 X150.94 Y149.94 E122.50038
G1 X150.22 Y149.56 E122.53399
G1 X149.60 Y149.05 E122.56731
G1 X149.09 Y148.43 E122.60063
G1 X148.71 Y147.72 E122.63424
G1 X148.48 Y146.95 E122.66744
G1 X148.40 Y146.15 E122.70090
G1 X148.48 Y145.35 E122.73441
G1 X148.71 Y144.59 E122.76761
G1 X149.09 Y143.87 E122.80122
G1 X149.60 Y143.25 E122.83454
G1 X150.22 Y142.74 E122.86785
G1 X150.94 Y142.36 E122.90146
G1 X151.70 Y142.13 E122.93470
G1 X152.50 Y142.05 E122.96812
G1 X153.30 Y142.13 E123.00154
G1 X154.06 Y142.36 E123.03478
G1 X154.78 Y142.74 E123.06839
G1 X155.40 Y143.25 E123.10171
G1 X155.91 Y143.87 E123.13503
G1 X156.29 Y144.59 E123.16864
G1 X156.52 Y145.35 E123.20183
G1 X156.60 Y146.15 E123.23534
G1 X156.52 Y146.95 E123.26881
G1 X156.29 Y147.72 E123.30200
G0 F6000 X155.63 Y147.50
;TYPE:FILL
G1 F960 X151.15 Y143.01 E123.56591
G0 F6000 X150.69 Y143.26
G1 F960 X155.39 Y147.96 E123.84246
G0 F6000 X155.08 Y148.37
G1 F960 X150.28 Y143.57 E124.12462
G0 F6000 X149.93 Y143.92
G1 F960 X154.73 Y148.72 E124.40696
G0 F6000 X154.33 Y149.03
G1 F960 X149.62 Y144.32 E124.68407
G0 F6000 X149.37 Y144.78
G1 F960 X153.87 Y149.28 E124.94850
G0 F6000 X153.34 Y149.45
G1 F960 X149.20 Y145.31 E125.19212
G0 F6000 X149.10 Y145.92
G1 F960 X152.73 Y149.55 E125.40549
G0 F6000 X152.00 Y149.52
G1 F960 X149.13 Y146.65 E125.57412
G0 F6000 X149.47 Y147.70
G1 F960 X150.95 Y149.18 E125.66108
G0 F6000 X155.81 Y146.97
G1 F960 X151.68 Y142.84 E125.90373
G0 F6000 X152.29 Y142.75
G1 F960 X155.90 Y146.35 E126.11566
G0 F6000 X155.87 Y145.61
G1 F960 X153.04 Y142.78 E126.28212
G0 F6000 X154.12 Y143.16
G1 F960 X155.49 Y144.53 E126.36320
G0 F6000 X153.20 Y155.32
;TYPE:WALL-INNER
G1 F960 X153.88 Y155.53 E126.39271
G1 X154.37 Y155.79 E126.41612
G1 X154.50 Y155.86 E126.42196
G1 X154.93 Y156.22 E126.44542
G1 X155.04 Y156.31 E126.45124
G1 X155.40 Y156.74 E126.47481
G1 X155.49 Y156.85 E126.48057
G1 X155.76 Y157.35 E126.50413
G1 X155.82 Y157.47 E126.50988
G1 X156.03 Y158.15 E126.53939
G1 X156.10 Y158.85 E126.56851
G1 X156.03 Y159.55 E126.59767
G1 X155.82 Y160.23 E126.62719
G1 X155.56 Y160.72 E126.65060
G1 X155.49 Y160.85 E126.65644
G1 X155.13 Y161.28 E126.67990
G1 X155.04 Y161.39 E126.68572
G1 X154.60 Y161.75 E126.70929
G1 X154.50 Y161.84 E126.71505
G1 X154.00 Y162.11 E126.73861
G1 X153.88 Y162.17 E126.74436
G1 X153.20 Y162.38 E126.77387
G1 X152.64 Y162.43 E126.79718
G1 X152.50 Y162.45 E126.80303
G1 X151.94 Y162.39 E126.82646
G1 X151.80 Y162.38 E126.83210
G1 X151.12 Y162.17 E126.86162
G1 X150.62 Y161.91 E126.88513
G1 X150.50 Y161.84 E126.89087
G1 X150.07 Y161.48 E126.91439
G1 X149.96 Y161.39 E126.92015
G1 X149.60 Y160.96 E126.94372
G1 X149.51 Y160.85 E126.94948
G1 X149.24 Y160.35 E126.97304
G1 X149.18 Y160.23 E126.97879
G1 X148.97 Y159.55 E127.00830
G1 X148.90 Y158.85 E127.03746
G1 X148.97 Y158.15 E127.06658
G1 X149.18 Y157.47 E127.09609
G1 X149.44 Y156.98 E127.11951
G1 X149.51 Y156.85 E127.12535
G1 X149.87 Y156.42 E127.14881
G1 X149.96 Y156.31 E127.15462
G1 X150.40 Y155.95 E127.17820
G1 X150.50 Y155.86 E127.18395
G1 X151.00 Y155.59 E127.20752
G1 X151.12 Y155.53 E127.21327
G1 X151.80 Y155.32 E127.24278
G1 X152.36 Y155.27 E127.26609
G1 X152.50 Y155.25 E127.27194
G1 X153.06 Y155.31 E127.29537
G1 X153.20 Y155.32 E127.30101
G0 F6000 X153.30 Y154.83
;TYPE:WALL-OUTER
G1 F960 X154.06 Y155.06 E127.33425
G1 X154.78 Y155.44 E127.36786
G1 X155.40 Y155.95 E127.40117
G1 X155.91 Y156.57 E127.43449
G1 X156.29 Y157.28 E127.46810
G1 X156.52 Y158.05 E127.50130
G1 X156.60 Y158.85 E127.53477
G1 X156.52 Y159.65 E127.56827
G1 X156.29 Y160.41 E127.60147
G1 X155.91 Y161.13 E127.63508
G1 X155.40 Y161.75 E127.66840
G1 X154.78 Y162.26 E127.70172
G1 X154.06 Y162.64 E127.73533
G1 X153.30 Y162.87 E127.76856
G1 X152.50 Y162.95 E127.80198
G1 X151.70 Y162.87 E127.83541
G1 X150.94 Y162.64 E127.86864
G1 X150.22 Y162.26 E127.90225
G1 X149.60 Y161.75 E127.93557
G1 X149.09 Y161.13 E127.96889
G1 X148.71 Y160.41 E128.00250
G1 X148.48 Y159.65 E128.03569
G1 X148.40 Y158.85 E128.06916
G1 X148.48 Y158.05 E128.10267
G1 X148.71 Y157.28 E128.13587
G1 X149.09 Y156.57 E128.16948
G1 X149.60 Y155.95 E128.20279
G1 X150.22 Y155.44 E128.23611
G1 X150.94 Y155.06 E128.26972
G1 X151.70 Y154.83 E128.30296
G1 X152.50 Y154.75 E128.33638
G1 X153.30 Y154.83 E128.36980
G0 F6000 X153.00 Y155.48
;TYPE:FILL
G1 F960 X155.87 Y158.34 E128.53843
G0 F6000 X155.90 Y159.08
G1 F960 X152.27 Y155.45 E128.75180
G0 F6000 X151.66 Y155.55
G1 F960 X155.80 Y159.69 E128.99539
G0 F6000 X155.62 Y160.22
G1 F960 X151.13 Y155.72 E129.25980
G0 F6000 X150.67 Y155.97
G1 F960 X155.38 Y160.68 E129.53688
G0 F6000 X155.07 Y161.08
G1 F960 X150.27 Y156.28 E129.81921
G0 F6000 X149.91 Y156.63
G1 F960 X154.71 Y161.43 E130.10138
G0 F6000 X154.31 Y161.74
G1 F960 X149.61 Y157.03 E130.37790
G0 F6000 X149.36 Y157.50
G1 F960 X153.85 Y161.98 E130.64177
G0 F6000 X153.32 Y162.16
G1 F960 X149.19 Y158.03 E130.88437
G0 F6000 X149.10 Y158.64
G1 F960 X152.70 Y162.25 E131.09633
G0 F6000 X151.96 Y162.22
G1 F960 X149.13 Y159.38 E131.26278
G0 F6000 X149.50 Y160.47
G1 F960 X150.88 Y161.84 E131.34383
G0 F6000 X155.53 Y157.30
G1 F960 X154.05 Y155.82 E131.43079
;LAYER:5
G0 F6000 X153.87 Y155.53 Z1.30
;TYPE:WALL-INNER
G1 F960 X154.50 Y155.86 E131.46018
G1 X154.90 Y156.19 E131.48183
G1 X155.04 Y156.31 E131.48942
G1 X155.37 Y156.71 E131.51122
G1 X155.49 Y156.85 E131.51875
G1 X155.82 Y157.47 E131.54812
G1 X155.97 Y157.97 E131.56989
G1 X156.03 Y158.15 E131.57749
G1 X156.08 Y158.67 E131.59917
G1 X156.10 Y158.85 E131.60682
G1 X156.05 Y159.37 E131.62834
G1 X156.03 Y159.55 E131.63595
G1 X155.88 Y160.05 E131.65766
G1 X155.82 Y160.22 E131.66526
G1 X155.49 Y160.85 E131.69465
G1 X155.16 Y161.25 E131.71631
G1 X155.04 Y161.39 E131.72390
G1 X154.64 Y161.72 E131.74570
G1 X154.50 Y161.84 E131.75323
G1 X153.88 Y162.17 E131.78260
G1 X153.37 Y162.32 E131.80437
G1 X153.20 Y162.38 E131.81197
G1 X152.50 Y162.45 E131.84117
G1 X151.80 Y162.38 E131.87037
G1 X151.30 Y162.22 E131.89222
G1 X151.13 Y162.17 E131.89969
G1 X150.50 Y161.84 E131.92908
G1 X150.10 Y161.51 E131.95079
G1 X149.96 Y161.39 E131.95832
G1 X149.63 Y160.99 E131.98012
G1 X149.51 Y160.85 E131.98766
G1 X149.18 Y160.22 E132.01703
G1 X149.03 Y159.72 E132.03879
G1 X148.97 Y159.55 E132.04639
G1 X148.92 Y159.03 E132.06808
G1 X148.90 Y158.85 E132.07572
G1 X148.95 Y158.33 E132.09724
G1 X148.97 Y158.15 E132.10485
G1 X149.12 Y157.65 E132.12656
G1 X149.18 Y157.47 E132.13416
G1 X149.51 Y156.85 E132.16355
G1 X149.84 Y156.45 E132.18521
G1 X149.96 Y156.31 E132.19280
G1 X150.36 Y155.97 E132.21460
G1 X150.50 Y155.86 E132.22213
G1 X151.12 Y155.53 E132.25150
G1 X151.63 Y155.38 E132.27327
G1 X151.80 Y155.32 E132.28087
G1 X152.50 Y155.25 E132.31007
G1 X153.20 Y155.32 E132.33927
G1 X153.70 Y155.47 E132.36099
G1 X153.87 Y155.53 E132.36859
G0 F6000 X154.06 Y155.06
;TYPE:WALL-OUTER
G1 F960 X154.78 Y155.44 E132.40229
G1 X155.40 Y155.95 E132.43561
G1 X155.91 Y156.57 E132.46893
G1 X156.29 Y157.29 E132.50263
G1 X156.52 Y158.05 E132.53570
G1 X156.57 Y158.62 E132.55959
G1 X156.60 Y158.85 E132.56925
G1 X156.54 Y159.42 E132.59298
G1 X156.52 Y159.65 E132.60276
G1 X156.29 Y160.41 E132.63582
G1 X155.91 Y161.13 E132.66952
G1 X155.40 Y161.75 E132.70284
G1 X154.78 Y162.26 E132.73616
G1 X154.06 Y162.64 E132.76986
G1 X153.30 Y162.87 E132.80293
G1 X152.50 Y162.95 E132.83643
G1 X151.70 Y162.87 E132.86994
G1 X150.94 Y162.64 E132.90300
G1 X150.22 Y162.26 E132.93670
G1 X149.60 Y161.75 E132.97002
G1 X149.09 Y161.13 E133.00334
G1 X148.71 Y160.41 E133.03704
G1 X148.48 Y159.65 E133.07011
G1 X148.43 Y159.08 E133.09400
G1 X148.40 Y158.85 E133.10366
G1 X148.46 Y158.28 E133.12739
G1 X148.48 Y158.05 E133.13717
G1 X148.71 Y157.29 E133.17023
G1 X149.09 Y156.57 E133.20393
G1 X149.60 Y155.95 E133.23725
G1 X150.22 Y155.44 E133.27057
G1 X150.94 Y155.06 E133.30427
G1 X151.70 Y154.83 E133.33734
G1 X152.50 Y154.75 E133.37084
G1 X153.30 Y154.83 E133.40435
G1 X154.06 Y155.06 E133.43741
G0 F6000 X153.70 Y155.66
;TYPE:FILL
G1 F960 X149.31 Y160.05 E133.69585
G0 F6000 X149.54 Y160.53
G1 F960 X154.18 Y155.89 E133.96875
G0 F6000 X154.60 Y156.17
G1 F960 X149.82 Y160.95 E134.24980
G0 F6000 X150.15 Y161.33
G1 F960 X154.98 Y156.50 E134.53334
G0 F6000 X155.30 Y156.89
G1 F960 X150.54 Y161.65 E134.81292
G0 F6000 X150.99 Y161.90
G1 F960 X155.55 Y157.34 E135.08109
G0 F6000 X155.75 Y157.85
G1 F960 X151.50 Y162.10 E135.33118
G0 F6000 X152.08 Y162.23
G1 F960 X155.88 Y158.43 E135.55448
G0 F6000 X155.89 Y159.12
G1 F960 X152.77 Y162.24 E135.73790
G0 F6000 X153.67 Y162.05
G1 F960 X155.70 Y160.02 E135.85720
G0 F6000 X153.16 Y155.49
G1 F960 X149.15 Y159.51 E136.09323
G0 F6000 X149.08 Y158.86
G1 F960 X152.51 Y155.43 E136.29508
G0 F6000 X151.71 Y155.53
G1 F960 X149.19 Y158.05 E136.44325
G0 F6000 X150.00 Y156.53
G1 F960 X150.18 Y156.35 E136.45359
G0 F6000 X151.80 Y149.68
;TYPE:WALL-INNER
G1 F960 X151.30 Y149.53 E136.47544
G1 X151.13 Y149.47 E136.48291
G1 X150.50 Y149.14 E136.51230
G1 X150.10 Y148.81 E136.53401
G1 X149.96 Y148.69 E136.54155
G1 X149.63 Y148.29 E136.56335
G1 X149.51 Y148.15 E136.57088
G1 X149.18 Y147.53 E136.60025
G1 X149.03 Y147.03 E136.62201
G1 X148.97 Y146.85 E136.62962
G1 X148.92 Y146.33 E136.65130
G1 X148.90 Y146.15 E136.65895
G1 X148.95 Y145.63 E136.68046
G1 X148.97 Y145.45 E136.68807
G1 X149.12 Y144.95 E136.70979
G1 X149.18 Y144.78 E136.71739
G1 X149.51 Y144.15 E136.74678
G1 X149.84 Y143.75 E136.76843
G1 X149.96 Y143.61 E136.77602
G1 X150.36 Y143.28 E136.79782
G1 X150.50 Y143.16 E136.80535
G1 X151.12 Y142.83 E136.83472
G1 X151.63 Y142.68 E136.85649
G1 X151.80 Y142.62 E136.86409
G1 X152.50 Y142.55 E136.89329
G1 X153.20 Y142.62 E136.92250
G1 X153.70 Y142.77 E136.94421
G1 X153.87 Y142.83 E136.95181
G1 X154.50 Y143.16 E136.98120
G1 X154.90 Y143.49 E137.00286
G1 X155.04 Y143.61 E137.01045
G1 X155.37 Y144.01 E137.03225
G1 X155.49 Y144.15 E137.03978
G1 X155.82 Y144.78 E137.06915
G1 X155.97 Y145.28 E137.09092
G1 X156.03 Y145.45 E137.09852
G1 X156.08 Y145.97 E137.12020
G1 X156.10 Y146.15 E137.12789
G1 X156.05 Y146.67 E137.14936
G1 X156.03 Y146.85 E137.15697
G1 X155.88 Y147.35 E137.17869
G1 X155.82 Y147.53 E137.18629
G1 X155.49 Y148.15 E137.21568
G1 X155.16 Y148.55 E137.23733
G1 X155.04 Y148.69 E137.24492
G1 X154.64 Y149.03 E137.26672
G1 X154.50 Y149.14 E137.27425
G1 X153.88 Y149.47 E137.30362
G1 X153.37 Y149.62 E137.32539
G1 X153.20 Y149.68 E137.33299
G1 X152.50 Y149.75 E137.36220
G1 X151.80 Y149.68 E137.39140
G0 F6000 X151.70 Y150.17
;TYPE:WALL-OUTER
G1 F960 X150.94 Y149.94 E137.42446
G1 X150.22 Y149.56 E137.45816
G1 X149.60 Y149.05 E137.49148
G1 X149.09 Y148.43 E137.52480
G1 X148.71 Y147.71 E137.55850
G1 X148.48 Y146.95 E137.59157
G1 X148.43 Y146.38 E137.61546
G1 X148.40 Y146.15 E137.62512
G1 X148.46 Y145.58 E137.64885
G1 X148.48 Y145.35 E137.65863
G1 X148.71 Y144.59 E137.69169
G1 X149.09 Y143.87 E137.72539
G1 X149.60 Y143.25 E137.75871
G1 X150.22 Y142.74 E137.79203
G1 X150.94 Y142.36 E137.82573
G1 X151.70 Y142.13 E137.85880
G1 X152.50 Y142.05 E137.89230
G1 X153.30 Y142.13 E137.92581
G1 X154.06 Y142.36 E137.95887
G1 X154.78 Y142.74 E137.99257
G1 X155.40 Y143.25 E138.02589
G1 X155.91 Y143.87 E138.05921
G1 X156.29 Y144.59 E138.09291
G1 X156.52 Y145.35 E138.12598
G1 X156.57 Y145.92 E138.14991
G1 X156.60 Y146.15 E138.15957
G1 X156.54 Y146.72 E138.18326
G1 X156.52 Y146.95 E138.19304
G1 X156.29 Y147.71 E138.22610
G1 X155.91 Y148.43 E138.25980
G1 X155.40 Y149.05 E138.29312
G1 X154.78 Y149.56 E138.32644
G1 X154.06 Y149.94 E138.36014
G1 X153.30 Y150.17 E138.39321
G1 X152.50 Y150.25 E138.42671
G1 X151.70 Y150.17 E138.46022
G0 F6000 X152.05 Y149.53
;TYPE:FILL
G1 F960 X155.87 Y145.71 E138.68482
G0 F6000 X155.75 Y145.13
G1 F960 X151.47 Y149.40 E138.93588
G0 F6000 X150.97 Y149.19
G1 F960 X155.54 Y144.62 E139.20461
G0 F6000 X155.28 Y144.18
G1 F960 X150.52 Y148.94 E139.48436
G0 F6000 X150.14 Y148.62
G1 F960 X154.96 Y143.79 E139.76805
G0 F6000 X154.59 Y143.46
G1 F960 X149.81 Y148.24 E140.04892
G0 F6000 X149.53 Y147.81
G1 F960 X154.16 Y143.18 E140.32132
G0 F6000 X153.68 Y142.95
G1 F960 X149.30 Y147.33 E140.57885
G0 F6000 X149.14 Y146.78
G1 F960 X153.13 Y142.79 E140.81345
G0 F6000 X152.49 Y142.73
G1 F960 X149.08 Y146.14 E141.01371
G0 F6000 X149.20 Y145.31
G1 F960 X151.66 Y142.85 E141.15876
G0 F6000 X155.90 Y146.39
G1 F960 X152.74 Y149.55 E141.34423
G0 F6000 X153.63 Y149.37
G1 F960 X155.71 Y147.28 E141.46676
;LAYER:6
G0 F6000 X155.82 Y147.53 Z1.50
;TYPE:WALL-INNER
G1 F660 X155.49 Y148.15 E141.49585
G1 X155.19 Y148.52 E141.51591
G1 X155.04 Y148.69 E141.52510
G1 X154.50 Y149.14 E141.55460
G1 X153.88 Y149.47 E141.58379
G1 X153.20 Y149.68 E141.61319
G1 X152.50 Y149.75 E141.64240
G1 X152.02 Y149.70 E141.66249
G1 X151.80 Y149.68 E141.67159
G1 X151.12 Y149.47 E141.70118
G1 X150.50 Y149.14 E141.73027
G1 X150.13 Y148.84 E141.75033
G1 X149.96 Y148.70 E141.75952
G1 X149.51 Y148.15 E141.78903
G1 X149.18 Y147.53 E141.81821
G1 X148.97 Y146.85 E141.84780
G1 X148.90 Y146.15 E141.87700
G1 X148.97 Y145.45 E141.90608
G1 X149.18 Y144.77 E141.93567
G1 X149.51 Y144.16 E141.96476
G1 X149.81 Y143.78 E141.98482
G1 X149.96 Y143.61 E141.99401
G1 X150.50 Y143.16 E142.02352
G1 X151.12 Y142.83 E142.05270
G1 X151.80 Y142.62 E142.08211
G1 X152.50 Y142.56 E142.11131
G1 X152.98 Y142.60 E142.13140
G1 X153.20 Y142.62 E142.14051
G1 X153.88 Y142.83 E142.17010
G1 X154.50 Y143.16 E142.19919
G1 X154.87 Y143.47 E142.21925
G1 X155.04 Y143.60 E142.22843
G1 X155.49 Y144.15 E142.25794
G1 X155.82 Y144.77 E142.28712
G1 X156.03 Y145.45 E142.31672
G1 X156.10 Y146.15 E142.34596
G1 X156.03 Y146.85 E142.37500
G1 X155.82 Y147.53 E142.40459
G0 F6000 X156.29 Y147.72
;TYPE:WALL-OUTER
G1 F660 X155.91 Y148.43 E142.43788
G1 X155.40 Y149.05 E142.47135
G1 X154.78 Y149.56 E142.50482
G1 X154.07 Y149.94 E142.53811
G1 X153.30 Y150.17 E142.57152
G1 X152.77 Y150.22 E142.59357
G1 X152.50 Y150.25 E142.60498
G1 X151.97 Y150.20 E142.62691
G1 X151.70 Y150.17 E142.63836
G1 X150.93 Y149.94 E142.67177
G1 X150.22 Y149.56 E142.70506
G1 X149.60 Y149.05 E142.73853
G1 X149.09 Y148.43 E142.77200
G1 X148.71 Y147.72 E142.80529
G1 X148.48 Y146.95 E142.83870
G1 X148.40 Y146.15 E142.87213
G1 X148.48 Y145.35 E142.90559
G1 X148.71 Y144.58 E142.93900
G1 X149.09 Y143.88 E142.97229
G1 X149.60 Y143.25 E143.00576
G1 X150.22 Y142.74 E143.03923
G1 X150.93 Y142.36 E143.07252
G1 X151.70 Y142.13 E143.10593
G1 X152.23 Y142.08 E143.12798
G1 X152.50 Y142.05 E143.13939
G1 X153.03 Y142.10 E143.16132
G1 X153.30 Y142.13 E143.17277
G1 X154.07 Y142.36 E143.20618
G1 X154.78 Y142.74 E143.23948
G1 X155.40 Y143.25 E143.27294
G1 X155.91 Y143.88 E143.30641
G1 X156.29 Y144.58 E143.33970
G1 X156.52 Y145.35 E143.37311
G1 X156.60 Y146.15 E143.40658
G1 X156.52 Y146.95 E143.44000
G1 X156.29 Y147.72 E143.47341
G0 F6000 X155.51 Y147.74
;TYPE:FILL
G1 F660 X150.91 Y143.14 E143.74381
G0 F6000 X150.09 Y143.73
G1 F660 X154.92 Y148.56 E144.02798
G0 F6000 X154.10 Y149.15
G1 F660 X149.50 Y144.55 E144.29882
G0 F6000 X149.13 Y145.60
G1 F660 X153.05 Y149.51 E144.52913
G0 F6000 X151.54 Y149.41
G1 F660 X149.23 Y147.11 E144.66456
G0 F6000 X151.97 Y142.78
G1 F660 X155.87 Y146.68 E144.89349
G0 F6000 X155.75 Y145.14
G1 F660 X153.50 Y142.90 E145.02551
G0 F6000 X152.50 Y155.25
;TYPE:WALL-INNER
G1 F660 X152.98 Y155.30 E145.04560
G1 X153.20 Y155.32 E145.05471
G1 X153.88 Y155.53 E145.08430
G1 X154.50 Y155.86 E145.11339
G1 X154.87 Y156.16 E145.13345
G1 X155.04 Y156.30 E145.14264
G1 X155.49 Y156.85 E145.17214
G1 X155.82 Y157.47 E145.20133
G1 X156.03 Y158.15 E145.23092
G1 X156.10 Y158.85 E145.26008
G1 X156.03 Y159.55 E145.28920
G1 X155.82 Y160.23 E145.31879
G1 X155.49 Y160.84 E145.34788
G1 X155.19 Y161.22 E145.36794
G1 X155.04 Y161.39 E145.37713
G1 X154.50 Y161.84 E145.40663
G1 X153.88 Y162.17 E145.43582
G1 X153.20 Y162.38 E145.46522
G1 X152.50 Y162.44 E145.49443
G1 X152.02 Y162.40 E145.51452
G1 X151.80 Y162.38 E145.52362
G1 X151.12 Y162.17 E145.55321
G1 X150.50 Y161.84 E145.58230
G1 X150.13 Y161.53 E145.60236
G1 X149.96 Y161.40 E145.61155
G1 X149.51 Y160.85 E145.64106
G1 X149.18 Y160.23 E145.67024
G1 X148.97 Y159.55 E145.69983
G1 X148.90 Y158.85 E145.72903
G1 X148.97 Y158.15 E145.75811
G1 X149.18 Y157.47 E145.78770
G1 X149.51 Y156.85 E145.81679
G1 X149.81 Y156.48 E145.83685
G1 X149.96 Y156.31 E145.84604
G1 X150.50 Y155.86 E145.87555
G1 X151.12 Y155.53 E145.90473
G1 X151.80 Y155.32 E145.93414
G1 X152.50 Y155.25 E145.96334
G0 F6000 X152.50 Y154.75
;TYPE:WALL-OUTER
G1 F660 X153.03 Y154.80 E145.98527
G1 X153.30 Y154.83 E145.99672
G1 X154.07 Y155.06 E146.03013
G1 X154.78 Y155.44 E146.06342
G1 X155.40 Y155.95 E146.09689
G1 X155.91 Y156.57 E146.13036
G1 X156.29 Y157.28 E146.16365
G1 X156.52 Y158.05 E146.19706
G1 X156.60 Y158.85 E146.23049
G1 X156.52 Y159.65 E146.26395
G1 X156.29 Y160.42 E146.29736
G1 X155.91 Y161.12 E146.33065
G1 X155.40 Y161.75 E146.36412
G1 X154.78 Y162.26 E146.39759
G1 X154.07 Y162.64 E146.43088
G1 X153.30 Y162.87 E146.46429
G1 X152.77 Y162.92 E146.48634
G1 X152.50 Y162.95 E146.49775
G1 X151.97 Y162.90 E146.51968
G1 X151.70 Y162.87 E146.53113
G1 X150.93 Y162.64 E146.56454
G1 X150.22 Y162.26 E146.59784
G1 X149.60 Y161.75 E146.63130
G1 X149.09 Y161.12 E146.66477
G1 X148.71 Y160.42 E146.69806
G1 X148.48 Y159.65 E146.73147
G1 X148.40 Y158.85 E146.76494
G1 X148.48 Y158.05 E146.79836
G1 X148.71 Y157.28 E146.83177
G1 X149.09 Y156.57 E146.86507
G1 X149.60 Y155.95 E146.89853
G1 X150.22 Y155.44 E146.93200
G1 X150.93 Y155.06 E146.96529
G1 X151.70 Y154.83 E146.99870
G1 X152.23 Y154.78 E147.02076
G1 X152.50 Y154.75 E147.03217
G0 F6000 X151.95 Y155.48
;TYPE:FILL
G1 F660 X155.87 Y159.40 E147.26250
G0 F6000 X155.50 Y160.45
G1 F660 X150.90 Y155.85 E147.53337
G0 F6000 X150.07 Y156.44
G1 F660 X154.91 Y161.27 E147.81756
G0 F6000 X154.08 Y161.86
G1 F660 X149.49 Y157.26 E148.08794
G0 F6000 X149.13 Y158.32
G1 F660 X153.02 Y162.22 E148.31686
G0 F6000 X151.49 Y162.10
G1 F660 X149.25 Y159.85 E148.44889
G0 F6000 X153.46 Y155.58
G1 F660 X155.77 Y157.89 E148.58438
;LAYER:7
G0 F6000 X156.03 Y158.15 Z1.70
;TYPE:WALL-INNER
G1 F660 X156.10 Y158.85 E148.61359
G1 X156.03 Y159.55 E148.64284
G1 X155.82 Y160.23 E148.67229
G1 X155.49 Y160.84 E148.70134
G1 X155.04 Y161.39 E148.73085
G1 X154.49 Y161.84 E148.76037
G1 X153.88 Y162.17 E148.78931
G1 X153.20 Y162.38 E148.81869
G1 X152.50 Y162.44 E148.84797
G1 X152.06 Y162.40 E148.86627
G1 X151.80 Y162.38 E148.87725
G1 X151.12 Y162.17 E148.90670
G1 X150.51 Y161.84 E148.93576
G1 X149.96 Y161.39 E148.96527
G1 X149.51 Y160.84 E148.99478
G1 X149.18 Y160.23 E149.02372
G1 X148.97 Y159.55 E149.05327
G1 X148.90 Y158.85 E149.08256
G1 X148.97 Y158.15 E149.11173
G1 X149.18 Y157.47 E149.14118
G1 X149.51 Y156.86 E149.17023
G1 X149.96 Y156.31 E149.19974
G1 X150.51 Y155.86 E149.22925
G1 X151.12 Y155.53 E149.25820
G1 X151.80 Y155.32 E149.28758
G1 X152.50 Y155.25 E149.31686
G1 X152.94 Y155.30 E149.33516
G1 X153.20 Y155.32 E149.34614
G1 X153.88 Y155.53 E149.37559
G1 X154.49 Y155.86 E149.40464
G1 X155.04 Y156.31 E149.43416
G1 X155.49 Y156.86 E149.46367
G1 X155.82 Y157.47 E149.49261
G1 X156.03 Y158.15 E149.52216
G0 F6000 X156.52 Y158.05
;TYPE:WALL-OUTER
G1 F660 X156.60 Y158.85 E149.55567
G1 X156.52 Y159.65 E149.58922
G1 X156.29 Y160.42 E149.62251
G1 X155.91 Y161.12 E149.65584
G1 X155.40 Y161.75 E149.68931
G1 X154.78 Y162.26 E149.72278
G1 X154.07 Y162.64 E149.75611
G1 X153.30 Y162.87 E149.78939
G1 X152.50 Y162.95 E149.82290
G1 X151.70 Y162.87 E149.85640
G1 X150.93 Y162.64 E149.88969
G1 X150.22 Y162.26 E149.92302
G1 X149.60 Y161.75 E149.95649
G1 X149.09 Y161.12 E149.98996
G1 X148.71 Y160.42 E150.02329
G1 X148.48 Y159.65 E150.05657
G1 X148.40 Y158.85 E150.09012
G1 X148.48 Y158.05 E150.12363
G1 X148.71 Y157.28 E150.15692
G1 X149.09 Y156.57 E150.19025
G1 X149.60 Y155.95 E150.22372
G1 X150.22 Y155.44 E150.25719
G1 X150.93 Y155.06 E150.29052
G1 X151.70 Y154.83 E150.32381
