;-- START GCODE --
;Sliced for Type A Machines Series 1
;Sliced at: Sat 16-07-2016 08:04:22
;Basic settings: Layer height: 0.2 Walls: 1.5 Fill: 40
;Print Speed: 100 Support: 0
;Retraction Speed: 40 Retraction Distance: 1.2
;Print time: #P_TIME#
;Filament used: #F_AMNT#m #F_WGHT#g
;Filament cost: #F_COST#
M106 S255	 ;start with the fan on
G21        ;metric values
G90        ;absolute positioning
M106 S255    ;start with the fan on
G28     ;move to endstops
G29		;allows for auto-levelling
G1 X150 Y5  Z15.0 F6000 ;center and move the platform down 15mm
M109 S220 ;Heat To temp
G92 E0                  ;zero the extruded length
G1 F200 E30              ;extrude 30mm of feed stock
G92 E0                  ;zero the extruded length again
G1 X175 Y25  Z0 F6000 ;remove bugger
G1 X220 F6000 ;remove bugger
G1 X150 Y150  Z15 F6000 ;recenter and begin
G1 F6000

;Layer count: 110
;LAYER:0
M106 S255
G0 F6000 X130.95 Y130.13 Z0.30
;TYPE:SKIRT
G1 F2700 X174.45 Y130.13 E2.71272
G1 X174.45 Y159.03 E4.51438
G1 X169.49 Y159.03 E4.82357
G1 X169.49 Y174.63 E5.79699
G1 X130.95 Y174.63 E8.20051
G1 X130.95 Y130.13 E10.97560
G0 F6000 X131.45 Y130.63
G1 F2700 X173.95 Y130.63 E13.62595
G1 X173.95 Y158.53 E15.36525
G1 X168.99 Y158.53 E15.67444
G1 X168.99 Y174.13 E16.64786
G1 X131.45 Y174.13 E18.98902
G1 X131.45 Y130.63 E21.70174
G0 F6000 X131.95 Y131.13
G1 F2700 X173.45 Y131.13 E24.28973
G1 X173.45 Y158.03 E25.96667
G1 X168.49 Y158.03 E26.27586
G1 X168.49 Y173.63 E27.24928
G1 X131.95 Y173.63 E29.52808
G1 X131.95 Y131.13 E32.17843
G0 F6000 X132.45 Y131.63
G1 F2700 X172.95 Y131.63 E34.70406
G1 X172.95 Y157.53 E36.31863
G1 X167.99 Y157.53 E36.62783
G1 X167.99 Y173.13 E37.60125
G1 X132.45 Y173.13 E39.81768
G1 X132.45 Y131.63 E42.40567
G0 F6000 X132.95 Y132.13
G1 F2700 X172.45 Y132.13 E44.86894
G1 X172.45 Y157.03 E46.42115
G1 X167.49 Y157.03 E46.73034
G1 X167.49 Y172.63 E47.70376
G1 X132.95 Y172.63 E49.85784
G1 X132.95 Y132.13 E52.38347
G0 F6000 X133.45 Y132.63
G1 F2700 X171.95 Y132.63 E54.78437
G1 X171.95 Y156.53 E56.27422
G1 X166.99 Y156.53 E56.58341
G1 X166.99 Y172.13 E57.55683
G1 X133.45 Y172.13 E59.64854
G1 X133.45 Y132.63 E62.11181
G0 F6000 X133.95 Y133.13
G1 F2700 X171.45 Y133.13 E64.45035
G1 X171.45 Y156.03 E65.87783
G1 X166.49 Y156.03 E66.18702
G1 X166.49 Y171.63 E67.16044
G1 X133.95 Y171.63 E69.18979
G1 X133.95 Y133.13 E71.59069
G0 F6000 X134.45 Y133.63
G1 F2700 X170.95 Y133.63 E73.86687
G1 X170.95 Y155.53 E75.23199
G1 X165.99 Y155.53 E75.54119
G1 X165.99 Y171.13 E76.51461
G1 X134.45 Y171.13 E78.48159
G1 X134.45 Y133.63 E80.82013
G0 F6000 X134.95 Y134.13
G1 F2700 X170.45 Y134.13 E83.03395
G1 X170.45 Y155.03 E84.33671
G1 X165.49 Y155.03 E84.64590
G1 X165.49 Y170.63 E85.61932
G1 X134.95 Y170.63 E87.52394
G1 X134.95 Y134.13 E89.80012
G0 F6000 X135.45 Y134.63
G1 F2700 X169.95 Y134.63 E91.95157
G1 X169.95 Y154.53 E93.19197
G1 X164.99 Y154.53 E93.50116
G1 X164.99 Y170.13 E94.47458
G1 X135.45 Y170.13 E96.31684
G1 X135.45 Y134.63 E98.53066
G0 F6000 X135.95 Y135.13
G1 F2700 X169.45 Y135.13 E100.61975
G1 X169.45 Y154.03 E101.79778
G1 X164.49 Y154.03 E102.10697
G1 X164.49 Y169.63 E103.08039
G1 X135.95 Y169.63 E104.86029
G1 X135.95 Y135.13 E107.01174
G0 F6000 X136.45 Y135.63
G1 F2700 X168.95 Y135.63 E109.03847
G1 X168.95 Y153.53 E110.15414
G1 X163.99 Y153.53 E110.46333
G1 X163.99 Y169.13 E111.43675
G1 X136.45 Y169.13 E113.15428
G1 X136.45 Y135.63 E115.24337
G0 F6000 X136.95 Y136.13
G1 F2700 X168.45 Y136.13 E117.20774
G1 X168.45 Y153.03 E118.26105
G1 X163.49 Y153.03 E118.57024
G1 X163.49 Y168.63 E119.54366
G1 X136.95 Y168.63 E121.19883
G1 X136.95 Y136.13 E123.22556
G0 F6000 X137.45 Y136.63
G1 F2700 X167.95 Y136.63 E125.12756
G1 X167.95 Y152.53 E126.11850
G1 X163.29 Y152.53 E126.40899
G1 X163.29 Y142.59 E127.02869
G1 X162.99 Y142.59 E127.04740
G1 X162.99 Y168.13 E128.64052
G1 X137.45 Y168.13 E130.23332
G1 X137.45 Y136.63 E132.19769
G0 F6000 X137.95 Y137.13
G1 F2700 X167.45 Y137.13 E134.03733
G1 X167.45 Y152.03 E134.96591
G1 X163.79 Y152.03 E135.19403
G1 X163.79 Y142.09 E135.81373
G1 X162.49 Y142.09 E135.89480
G1 X162.49 Y167.63 E137.48792
G1 X137.95 Y167.63 E139.01836
G1 X137.95 Y137.13 E140.92037
G0 F6000 X141.50 Y142.13
G1 F2700 X141.50 Y164.63 E142.32346
G1 X153.75 Y164.63 E143.08735
G1 X153.75 Y142.13 E144.49045
G1 X141.50 Y142.13 E145.25433
G0 F6000 X142.00 Y142.63
G1 F2700 X142.00 Y164.13 E146.59506
G1 X153.25 Y164.13 E147.29658
G1 X153.25 Y142.63 E148.63732
G1 X142.00 Y142.63 E149.33884
G0 F6000 X142.50 Y143.13
G1 F2700 X142.50 Y163.63 E150.61721
G1 X152.75 Y163.63 E151.25637
G1 X152.75 Y143.13 E152.53474
G1 X142.50 Y143.13 E153.17390
G0 F6000 X143.00 Y143.63
G1 F2700 X143.00 Y163.13 E154.38991
G1 X152.25 Y163.13 E154.96670
G1 X152.25 Y143.63 E156.18271
G1 X143.00 Y143.63 E156.75951
G0 F6000 X143.50 Y144.13
G1 F2700 X143.50 Y162.63 E157.91316
G1 X151.75 Y162.63 E158.42759
G1 X151.75 Y144.13 E159.58123
G1 X143.50 Y144.13 E160.09566
G0 F6000 X144.00 Y144.63
G1 F2700 X144.00 Y162.13 E161.18695
G1 X151.25 Y162.13 E161.63902
G1 X151.25 Y144.63 E162.73030
G1 X144.00 Y144.63 E163.18237
G0 F6000 X144.50 Y145.13
G1 F2700 X144.50 Y161.63 E164.21129
G1 X150.75 Y161.63 E164.60100
G1 X150.75 Y145.13 E165.62992
G1 X144.50 Y145.13 E166.01963
G0 F6000 X145.00 Y145.63
G1 F2700 X145.00 Y161.13 E166.98619
G1 X150.25 Y161.13 E167.31353
G1 X150.25 Y145.63 E168.28009
G1 X145.00 Y145.63 E168.60743
G0 F6000 X145.50 Y146.13
G1 F2700 X145.50 Y160.63 E169.51163
G1 X149.75 Y160.63 E169.77661
G1 X149.75 Y146.13 E170.68081
G1 X145.50 Y146.13 E170.94579
G0 F6000 X146.00 Y146.63
G1 F2700 X146.00 Y160.13 E171.78762
G1 X149.25 Y160.13 E171.99024
G1 X149.25 Y146.63 E172.83207
G1 X146.00 Y146.63 E173.03469
G0 F6000 X146.50 Y147.13
G1 F2700 X146.50 Y159.63 E173.81416
G1 X148.75 Y159.63 E173.95441
G1 X148.75 Y147.13 E174.73389
G1 X146.50 Y147.13 E174.87414
G0 F6000 X140.00 Y140.63
;TYPE:WALL-INNER
G1 F2700 X140.00 Y166.13 E176.46433
G1 X139.45 Y166.13 E176.49906
G1 X139.45 Y138.63 E178.21398
G1 X165.95 Y138.63 E179.86653
G1 X165.95 Y150.53 E180.60802
G1 X165.29 Y150.53 E180.64906
G1 X165.29 Y140.59 E181.26875
G1 X160.99 Y140.59 E181.53691
G1 X160.99 Y166.13 E183.13003
G1 X155.25 Y166.13 E183.48768
G1 X155.25 Y140.63 E185.07787
G1 X140.00 Y140.63 E186.02884
G0 F6000 X140.50 Y141.13
G1 F2700 X140.50 Y165.63 E187.55667
G1 X154.75 Y165.63 E188.44527
G1 X154.75 Y141.13 E189.97310
G1 X140.50 Y141.13 E190.86171
G0 F6000 X138.95 Y138.13
G1 F2700 X166.45 Y138.13 E192.57662
G1 X166.45 Y151.03 E193.38047
G1 X164.79 Y151.03 E193.48387
G1 X164.79 Y141.09 E194.10357
G1 X161.49 Y141.09 E194.30937
G1 X161.49 Y166.63 E195.90249
G1 X138.95 Y166.63 E197.30821
G1 X138.95 Y138.13 E199.08548
G0 F6000 X138.45 Y137.63
;TYPE:WALL-OUTER
G1 F2700 X166.95 Y137.63 E200.86276
G1 X166.95 Y151.53 E201.72898
G1 X164.29 Y151.53 E201.89474
G1 X164.29 Y141.59 E202.51443
G1 X161.99 Y141.59 E202.65787
G1 X161.99 Y167.13 E204.25099
G1 X138.45 Y167.13 E205.71907
G1 X138.45 Y137.63 E207.55871
G0 F6000 X138.80 Y137.90
G0 X141.00 Y141.28
G0 X141.00 Y141.63
G1 F2700 X141.00 Y165.13 E209.02417
G1 X154.25 Y165.13 E209.85042
G1 X154.25 Y141.63 E211.31588
G1 X141.00 Y141.63 E212.14212
G0 F6000 X139.83 Y141.60
;TYPE:FILL
G1 F2700 X139.72 Y141.14 E212.16052
G1 X139.86 Y140.57 E212.17888
G1 X139.62 Y139.97 E212.21894
G0 F6000 X139.62 Y139.27
G1 F2700 X140.81 Y140.46 E212.32394
G0 F6000 X141.52 Y140.46
G1 F2700 X139.87 Y138.81 E212.46932
G0 F6000 X140.58 Y138.81
G1 F2700 X142.23 Y140.46 E212.61471
G0 F6000 X142.93 Y140.46
G1 F2700 X141.28 Y138.81 E212.76010
G0 F6000 X141.99 Y138.81
G1 F2700 X143.64 Y140.46 E212.90549
G0 F6000 X144.35 Y140.46
G1 F2700 X142.70 Y138.81 E213.05088
G0 F6000 X143.41 Y138.81
G1 F2700 X145.06 Y140.46 E213.19627
G0 F6000 X145.76 Y140.46
G1 F2700 X144.11 Y138.81 E213.34165
G0 F6000 X144.82 Y138.81
G1 F2700 X146.47 Y140.46 E213.48704
G0 F6000 X147.18 Y140.46
G1 F2700 X145.53 Y138.81 E213.63243
G0 F6000 X146.23 Y138.81
G1 F2700 X147.88 Y140.46 E213.77791
G0 F6000 X148.59 Y140.46
G1 F2700 X146.94 Y138.81 E213.92338
G0 F6000 X147.65 Y138.81
G1 F2700 X149.30 Y140.46 E214.06886
G0 F6000 X150.00 Y140.46
G1 F2700 X148.35 Y138.81 E214.21434
G0 F6000 X149.06 Y138.81
G1 F2700 X150.71 Y140.46 E214.35977
G0 F6000 X151.42 Y140.46
G1 F2700 X149.77 Y138.81 E214.50520
G0 F6000 X150.48 Y138.81
G1 F2700 X152.13 Y140.46 E214.65063
G0 F6000 X152.83 Y140.46
G1 F2700 X151.18 Y138.81 E214.79611
G0 F6000 X151.89 Y138.81
G1 F2700 X153.54 Y140.46 E214.94159
G0 F6000 X154.25 Y140.46
G1 F2700 X152.60 Y138.81 E215.08706
G0 F6000 X153.31 Y138.81
G1 F2700 X154.96 Y140.46 E215.23254
G0 F6000 X155.43 Y140.93
G1 F2700 X160.81 Y146.32 E215.70751
G0 F6000 X160.81 Y147.03
G1 F2700 X155.43 Y141.64 E216.18248
G0 F6000 X155.43 Y142.35
G1 F2700 X160.81 Y147.73 E216.65745
G0 F6000 X160.81 Y148.44
G1 F2700 X155.43 Y143.05 E217.13238
G0 F6000 X155.43 Y143.76
G1 F2700 X160.81 Y149.15 E217.60730
G0 F6000 X160.81 Y149.85
G1 F2700 X155.43 Y144.47 E218.08223
G0 F6000 X155.43 Y145.18
G1 F2700 X160.81 Y150.56 E218.55715
G0 F6000 X160.81 Y151.27
G1 F2700 X155.43 Y145.88 E219.03208
G0 F6000 X155.43 Y146.59
G1 F2700 X160.81 Y151.97 E219.50701
G0 F6000 X160.81 Y152.68
G1 F2700 X155.43 Y147.30 E219.98198
G0 F6000 X155.43 Y148.00
G1 F2700 X160.81 Y153.39 E220.45695
G0 F6000 X160.81 Y154.10
G1 F2700 X155.43 Y148.71 E220.93192
G0 F6000 X155.43 Y149.42
G1 F2700 X160.81 Y154.80 E221.40684
G0 F6000 X160.81 Y155.51
G1 F2700 X155.43 Y150.12 E221.88177
G0 F6000 X155.43 Y150.83
G1 F2700 X160.81 Y156.22 E222.35669
G0 F6000 X160.81 Y156.92
G1 F2700 X155.43 Y151.54 E222.83162
G0 F6000 X155.43 Y152.25
G1 F2700 X160.81 Y157.63 E223.30655
G0 F6000 X160.81 Y158.34
G1 F2700 X155.43 Y152.95 E223.78147
G0 F6000 X155.43 Y153.66
G1 F2700 X160.81 Y159.04 E224.25640
G0 F6000 X160.81 Y159.75
G1 F2700 X155.43 Y154.37 E224.73137
G0 F6000 X155.43 Y155.07
G1 F2700 X160.81 Y160.46 E225.20634
G0 F6000 X160.81 Y161.17
G1 F2700 X155.43 Y155.78 E225.68131
G0 F6000 X155.43 Y156.49
G1 F2700 X160.81 Y161.87 E226.15624
G0 F6000 X160.81 Y162.58
G1 F2700 X155.43 Y157.20 E226.63116
G0 F6000 X155.43 Y157.90
G1 F2700 X160.81 Y163.29 E227.10609
G0 F6000 X160.81 Y164.00
G1 F2700 X155.43 Y158.61 E227.58101
G0 F6000 X155.43 Y159.32
G1 F2700 X160.81 Y164.70 E228.05594
G0 F6000 X160.81 Y165.41
G1 F2700 X155.43 Y160.02 E228.53087
G0 F6000 X155.43 Y160.73
G1 F2700 X160.65 Y165.96 E228.99177
G0 F6000 X159.95 Y165.96
G1 F2700 X155.43 Y161.44 E229.39032
G0 F6000 X155.43 Y162.15
G1 F2700 X159.24 Y165.96 E229.72651
G0 F6000 X158.53 Y165.96
G1 F2700 X155.43 Y162.85 E230.00031
G0 F6000 X155.43 Y163.56
G1 F2700 X157.83 Y165.96 E230.21176
G0 F6000 X157.12 Y165.96
G1 F2700 X155.43 Y164.27 E230.36085
G0 F6000 X155.43 Y164.97
G1 F2700 X156.41 Y165.96 E230.44759
G0 F6000 X155.70 Y165.96
G1 F2700 X155.43 Y165.68 E230.47193
G0 F6000 X139.83 Y165.64
G1 F2700 X139.73 Y165.18 E230.49027
G1 X139.73 Y164.47 E230.50852
G1 X139.73 Y163.77 E230.52677
G1 X139.73 Y163.06 E230.54503
G1 X139.73 Y162.35 E230.56328
G1 X139.73 Y161.65 E230.58153
G1 X139.73 Y160.94 E230.59979
G1 X139.73 Y160.23 E230.61804
G1 X139.73 Y159.53 E230.63630
G1 X139.73 Y158.82 E230.65457
G1 X139.73 Y158.11 E230.67283
G1 X139.73 Y157.40 E230.69108
G1 X139.73 Y156.70 E230.70933
G1 X139.73 Y155.99 E230.72759
G1 X139.73 Y155.28 E230.74584
G1 X139.73 Y154.57 E230.76410
G1 X139.73 Y153.87 E230.78235
G1 X139.73 Y153.16 E230.80060
G1 X139.73 Y152.45 E230.81888
G1 X139.72 Y151.75 E230.83713
G1 X139.72 Y151.04 E230.85539
G1 X139.72 Y150.33 E230.87373
G1 X139.72 Y149.62 E230.89207
G1 X139.72 Y148.92 E230.91041
G1 X139.72 Y148.21 E230.92875
G1 X139.72 Y147.50 E230.94712
G1 X139.72 Y146.80 E230.96538
G1 X139.72 Y146.09 E230.98363
G1 X139.72 Y145.38 E231.00188
G1 X139.72 Y144.68 E231.02014
G1 X139.72 Y143.97 E231.03848
G1 X139.72 Y143.26 E231.05682
G1 X139.72 Y142.55 E231.07516
G1 X139.62 Y142.10 E231.10445
G0 F6000 X140.61 Y141.24
G0 X154.01 Y138.81
G1 F2700 X160.81 Y145.61 E231.70422
G0 F6000 X160.81 Y144.90
G1 F2700 X154.72 Y138.81 E232.24163
G0 F6000 X155.43 Y138.81
G1 F2700 X160.81 Y144.20 E232.71664
G0 F6000 X160.81 Y143.49
G1 F2700 X156.13 Y138.81 E233.12930
G0 F6000 X156.84 Y138.81
G1 F2700 X160.81 Y142.78 E233.47961
G0 F6000 X160.81 Y142.07
G1 F2700 X157.55 Y138.81 E233.76756
G0 F6000 X158.25 Y138.81
G1 F2700 X160.81 Y141.37 E233.99316
G0 F6000 X160.81 Y140.66
G1 F2700 X158.96 Y138.81 E234.15641
G0 F6000 X159.67 Y138.81
G1 F2700 X161.27 Y140.41 E234.29779
G0 F6000 X161.98 Y140.41
G1 F2700 X160.38 Y138.81 E234.43916
G0 F6000 X161.08 Y138.81
G1 F2700 X162.69 Y140.41 E234.58054
G0 F6000 X163.39 Y140.41
G1 F2700 X161.79 Y138.81 E234.72191
G0 F6000 X162.50 Y138.81
G1 F2700 X164.10 Y140.41 E234.86329
G0 F6000 X164.81 Y140.41
G1 F2700 X163.21 Y138.81 E235.00466
G0 F6000 X163.91 Y138.81
G1 F2700 X165.77 Y140.67 E235.16862
G0 F6000 X165.46 Y141.07
G1 F2700 X165.62 Y141.57 E235.19583
G1 X165.62 Y142.28 E235.22299
G1 X165.62 Y142.99 E235.25010
G1 X165.62 Y143.70 E235.27726
G1 X165.62 Y144.40 E235.30442
G1 X165.62 Y145.11 E235.33158
G1 X165.62 Y145.82 E235.35874
G1 X165.62 Y146.53 E235.38590
G1 X165.62 Y147.23 E235.41306
G1 X165.62 Y147.94 E235.44022
G1 X165.62 Y148.65 E235.46738
G1 X165.62 Y149.35 E235.49454
G1 X165.62 Y150.06 E235.52165
G1 X165.55 Y150.35 E235.54004
G0 F6000 X165.77 Y139.96
G1 F2700 X164.62 Y138.81 E235.64164
G0 F6000 X165.33 Y138.81
G1 F2700 X165.77 Y139.25 E235.68089
;LAYER:1
G0 F6000 X165.95 Y138.63 Z0.50
;TYPE:WALL-INNER
G1 F3480 X165.95 Y150.53 E236.17522
G1 X165.29 Y150.53 E236.20258
G1 X165.29 Y140.59 E236.61571
G1 X160.99 Y140.59 E236.79448
G1 X160.99 Y166.13 E237.85656
G1 X155.25 Y166.13 E238.09499
G1 X155.25 Y140.63 E239.15512
G1 X140.00 Y140.63 E239.78910
G1 X140.00 Y166.13 E240.84923
G1 X139.45 Y166.13 E240.87238
G1 X139.45 Y138.63 E242.01566
G1 X165.95 Y138.63 E243.11736
G0 F6000 X166.45 Y138.13
G1 F3480 X166.45 Y151.03 E243.65326
G1 X164.79 Y151.03 E243.72219
G1 X164.79 Y141.09 E244.13533
G1 X161.49 Y141.09 E244.27252
G1 X161.49 Y166.63 E245.33460
G1 X138.95 Y166.63 E246.27175
G1 X138.95 Y138.13 E247.45660
G1 X166.45 Y138.13 E248.59988
G0 F6000 X154.75 Y141.13
G1 F3480 X140.50 Y141.13 E249.19228
G1 X140.50 Y165.63 E250.21083
G1 X154.75 Y165.63 E250.80324
G1 X154.75 Y141.13 E251.82179
G0 F6000 X154.25 Y141.63
;TYPE:WALL-OUTER
G1 F3480 X141.00 Y141.63 E252.37261
G1 X141.00 Y165.13 E253.34959
G1 X154.25 Y165.13 E253.90042
G1 X154.25 Y141.63 E254.87739
G0 F6000 X154.25 Y141.28
G0 X161.99 Y141.24
G0 X161.99 Y141.59
G1 F3480 X161.99 Y167.13 E255.93947
G1 X138.45 Y167.13 E256.91819
G1 X138.45 Y137.63 E258.14462
G1 X166.95 Y137.63 E259.32947
G1 X166.95 Y151.53 E259.90695
G1 X164.29 Y151.53 E260.01746
G1 X164.29 Y141.59 E260.43059
G1 X161.99 Y141.59 E260.52621
G0 F6000 X161.88 Y140.41
;TYPE:FILL
G1 F3480 X163.48 Y138.81 E260.62049
G0 F6000 X164.19 Y138.81
G1 F3480 X162.58 Y140.41 E260.71477
G0 F6000 X163.29 Y140.41
G1 F3480 X164.89 Y138.81 E260.80908
G0 F6000 X165.60 Y138.81
G1 F3480 X164.00 Y140.41 E260.90339
G0 F6000 X164.70 Y140.41
G1 F3480 X165.77 Y139.34 E260.96618
G0 F6000 X165.77 Y140.05
G1 F3480 X165.59 Y140.59 E260.98738
G1 X165.62 Y141.27 E261.00543
G1 X165.62 Y141.97 E261.02347
G1 X165.62 Y142.68 E261.04152
G1 X165.62 Y143.39 E261.05957
G1 X165.62 Y144.09 E261.07764
G1 X165.62 Y144.80 E261.09563
G1 X165.62 Y145.51 E261.11362
G1 X165.62 Y146.22 E261.13161
G1 X165.62 Y146.92 E261.14960
G1 X165.62 Y147.63 E261.16765
G1 X165.62 Y148.34 E261.18569
G1 X165.62 Y149.04 E261.20374
G1 X165.62 Y149.75 E261.22179
G1 X165.46 Y150.26 E261.24386
G0 F6000 X164.68 Y141.20
G0 X161.60 Y141.20
G0 X160.81 Y149.96
G1 F3480 X155.43 Y155.34 E261.56042
G0 F6000 X155.43 Y156.05
G1 F3480 X160.81 Y150.67 E261.87698
G0 F6000 X160.81 Y151.37
G1 F3480 X155.43 Y156.76 E262.19353
G0 F6000 X155.43 Y157.47
G1 F3480 X160.81 Y152.08 E262.51009
G0 F6000 X160.81 Y152.79
G1 F3480 X155.43 Y158.17 E262.82665
G0 F6000 X155.43 Y158.88
G1 F3480 X160.81 Y153.50 E263.14321
G0 F6000 X160.81 Y154.20
G1 F3480 X155.43 Y159.59 E263.45974
G0 F6000 X155.43 Y160.29
G1 F3480 X160.81 Y154.91 E263.77630
G0 F6000 X160.81 Y155.62
G1 F3480 X155.43 Y161.00 E264.09286
G0 F6000 X155.43 Y161.71
G1 F3480 X160.81 Y156.32 E264.40941
G0 F6000 X160.81 Y157.03
G1 F3480 X155.43 Y162.41 E264.72597
G0 F6000 X155.43 Y163.12
G1 F3480 X160.81 Y157.74 E265.04253
G0 F6000 X160.81 Y158.44
G1 F3480 X155.43 Y163.83 E265.35909
G0 F6000 X155.43 Y164.54
G1 F3480 X160.81 Y159.15 E265.67565
G0 F6000 X160.81 Y159.86
G1 F3480 X155.43 Y165.24 E265.99221
G0 F6000 X155.43 Y165.95
G1 F3480 X160.81 Y160.57 E266.30877
G0 F6000 X160.81 Y161.27
G1 F3480 X156.13 Y165.96 E266.58420
G0 F6000 X156.84 Y165.96
G1 F3480 X160.81 Y161.98 E266.81806
G0 F6000 X160.81 Y162.69
G1 F3480 X157.54 Y165.96 E267.01035
G0 F6000 X158.25 Y165.96
G1 F3480 X160.81 Y163.40 E267.16108
G0 F6000 X160.81 Y164.10
G1 F3480 X158.96 Y165.96 E267.27023
G0 F6000 X159.66 Y165.96
G1 F3480 X160.81 Y164.81 E267.33779
G0 F6000 X160.81 Y165.52
G1 F3480 X160.37 Y165.96 E267.36378
G0 F6000 X155.43 Y154.64
G1 F3480 X160.81 Y149.25 E267.68033
G0 F6000 X160.81 Y148.55
G1 F3480 X155.43 Y153.93 E267.99689
G0 F6000 X155.43 Y153.22
G1 F3480 X160.81 Y147.84 E268.31342
G0 F6000 X160.81 Y147.13
G1 F3480 X155.43 Y152.51 E268.62998
G0 F6000 X155.43 Y151.81
G1 F3480 X160.81 Y146.42 E268.94654
G0 F6000 X160.81 Y145.72
G1 F3480 X155.43 Y151.10 E269.26310
G0 F6000 X155.43 Y150.39
G1 F3480 X160.81 Y145.01 E269.57966
G0 F6000 X160.81 Y144.30
G1 F3480 X155.43 Y149.69 E269.89621
G0 F6000 X155.43 Y148.98
G1 F3480 X160.81 Y143.60 E270.21277
G0 F6000 X160.81 Y142.89
G1 F3480 X155.43 Y148.27 E270.52933
G0 F6000 X155.43 Y147.57
G1 F3480 X160.81 Y142.18 E270.84589
G0 F6000 X160.81 Y141.47
G1 F3480 X155.43 Y146.86 E271.16245
G0 F6000 X155.43 Y146.15
G1 F3480 X160.81 Y140.77 E271.47901
G0 F6000 X161.17 Y140.41
G1 F3480 X162.77 Y138.81 E271.57329
G0 F6000 X162.06 Y138.81
G1 F3480 X155.43 Y145.44 E271.96340
G0 F6000 X155.43 Y144.74
G1 F3480 X161.36 Y138.81 E272.31194
G0 F6000 X160.65 Y138.81
G1 F3480 X155.43 Y144.03 E272.61892
G0 F6000 X155.43 Y143.32
G1 F3480 X159.94 Y138.81 E272.88432
G0 F6000 X159.24 Y138.81
G1 F3480 X155.43 Y142.62 E273.10816
G0 F6000 X155.43 Y141.91
G1 F3480 X158.53 Y138.81 E273.29043
G0 F6000 X157.82 Y138.81
G1 F3480 X155.43 Y141.20 E273.43110
G0 F6000 X155.43 Y140.50
G1 F3480 X157.11 Y138.81 E273.53020
G0 F6000 X156.41 Y138.81
G1 F3480 X154.76 Y140.46 E273.62727
G0 F6000 X154.05 Y140.46
G1 F3480 X155.70 Y138.81 E273.72434
G0 F6000 X154.99 Y138.81
G1 F3480 X153.34 Y140.46 E273.82142
G0 F6000 X152.63 Y140.46
G1 F3480 X154.29 Y138.81 E273.91849
G0 F6000 X153.58 Y138.81
G1 F3480 X151.93 Y140.46 E274.01556
G0 F6000 X151.22 Y140.46
G1 F3480 X152.87 Y138.81 E274.11263
G0 F6000 X152.16 Y138.81
G1 F3480 X150.51 Y140.46 E274.20971
G0 F6000 X149.81 Y140.46
G1 F3480 X151.46 Y138.81 E274.30681
G0 F6000 X150.75 Y138.81
G1 F3480 X149.10 Y140.46 E274.40388
G0 F6000 X148.39 Y140.46
G1 F3480 X150.04 Y138.81 E274.50095
G0 F6000 X149.34 Y138.81
G1 F3480 X147.69 Y140.46 E274.59803
G0 F6000 X146.98 Y140.46
G1 F3480 X148.63 Y138.81 E274.69504
G0 F6000 X147.92 Y138.81
G1 F3480 X146.27 Y140.46 E274.79205
G0 F6000 X145.56 Y140.46
G1 F3480 X147.22 Y138.81 E274.88907
G0 F6000 X146.51 Y138.81
G1 F3480 X144.86 Y140.46 E274.98611
G0 F6000 X144.15 Y140.46
G1 F3480 X145.80 Y138.81 E275.08315
G0 F6000 X145.09 Y138.81
G1 F3480 X143.44 Y140.46 E275.18020
G0 F6000 X142.74 Y140.46
G1 F3480 X144.39 Y138.81 E275.27721
G0 F6000 X143.68 Y138.81
G1 F3480 X142.03 Y140.46 E275.37422
G0 F6000 X141.32 Y140.46
G1 F3480 X142.97 Y138.81 E275.47124
G0 F6000 X142.26 Y138.81
G1 F3480 X140.62 Y140.46 E275.56825
G0 F6000 X139.91 Y140.46
G1 F3480 X141.56 Y138.81 E275.66526
G0 F6000 X140.85 Y138.81
G1 F3480 X139.62 Y140.04 E275.73753
G0 F6000 X139.83 Y140.54
G1 F3480 X139.72 Y141.00 E275.74965
G1 X139.72 Y141.70 E275.76176
G1 X139.72 Y142.41 E275.77387
G1 X139.72 Y143.12 E275.78598
G1 X139.72 Y143.82 E275.79809
G1 X139.72 Y144.53 E275.81020
G1 X139.72 Y145.24 E275.82237
G1 X139.72 Y145.94 E275.83449
G1 X139.72 Y146.65 E275.84660
G1 X139.72 Y147.36 E275.85871
G1 X139.72 Y148.07 E275.87082
G1 X139.72 Y148.77 E275.88293
G1 X139.72 Y149.48 E275.89504
G1 X139.72 Y150.19 E275.90715
G1 X139.72 Y150.89 E275.91926
G1 X139.72 Y151.60 E275.93137
G1 X139.72 Y152.31 E275.94354
G1 X139.73 Y153.01 E275.95565
G1 X139.73 Y153.72 E275.96770
G1 X139.73 Y154.43 E275.97976
G1 X139.73 Y155.14 E275.99181
G1 X139.73 Y155.84 E276.00386
G1 X139.73 Y156.55 E276.01599
G1 X139.73 Y157.26 E276.02810
G1 X139.73 Y157.97 E276.04021
G1 X139.73 Y158.67 E276.05232
G1 X139.73 Y159.38 E276.06443
G1 X139.73 Y160.09 E276.07648
G1 X139.73 Y160.79 E276.08853
G1 X139.73 Y161.50 E276.10058
G1 X139.73 Y162.21 E276.11263
G1 X139.73 Y162.91 E276.12468
G1 X139.73 Y163.62 E276.13681
G1 X139.73 Y164.33 E276.14892
G1 X139.73 Y165.04 E276.16103
G1 X139.62 Y165.49 E276.18051
G0 F6000 X139.62 Y139.33
G1 F3480 X140.14 Y138.81 E276.21120
;LAYER:2
G0 F6000 X139.45 Y138.63 Z0.70
;TYPE:WALL-INNER
G1 F4320 X165.95 Y138.63 E277.31290
G1 X165.95 Y150.53 E277.80723
G1 X165.29 Y150.53 E277.83459
G1 X165.29 Y140.59 E278.24772
G1 X160.99 Y140.59 E278.42649
G1 X160.99 Y166.13 E279.48857
G1 X155.25 Y166.13 E279.72700
G1 X155.25 Y140.63 E280.78713
G1 X140.00 Y140.63 E281.42111
G1 X140.00 Y166.13 E282.48123
G1 X139.45 Y166.13 E282.50439
G1 X139.45 Y138.63 E283.64767
G0 F6000 X138.95 Y138.13
G1 F4320 X166.45 Y138.13 E284.79094
G1 X166.45 Y151.03 E285.32685
G1 X164.79 Y151.03 E285.39578
G1 X164.79 Y141.09 E285.80891
G1 X161.49 Y141.09 E285.94611
G1 X161.49 Y166.63 E287.00819
G1 X138.95 Y166.63 E287.94533
G1 X138.95 Y138.13 E289.13018
G0 F6000 X140.50 Y141.13
G1 F4320 X140.50 Y165.63 E290.14873
G1 X154.75 Y165.63 E290.74114
G1 X154.75 Y141.13 E291.75969
G1 X140.50 Y141.13 E292.35209
G0 F6000 X141.00 Y141.63
;TYPE:WALL-OUTER
G1 F4320 X141.00 Y165.13 E293.32907
G1 X154.25 Y165.13 E293.87990
G1 X154.25 Y141.63 E294.85687
G1 X141.00 Y141.63 E295.40770
G0 F6000 X141.00 Y141.28
G0 X138.80 Y137.90
G0 X138.45 Y137.63
G1 F4320 X166.95 Y137.63 E296.59255
G1 X166.95 Y151.53 E297.17003
G1 X164.29 Y151.53 E297.28054
G1 X164.29 Y141.59 E297.69367
G1 X161.99 Y141.59 E297.78929
G1 X161.99 Y167.13 E298.85137
G1 X138.45 Y167.13 E299.83009
G1 X138.45 Y137.63 E301.05652
G0 F6000 X138.80 Y137.90
G0 X139.87 Y138.81
;TYPE:FILL
G1 F4320 X141.52 Y140.46 E301.15345
G0 F6000 X142.23 Y140.46
G1 F4320 X140.58 Y138.81 E301.25037
G0 F6000 X141.28 Y138.81
G1 F4320 X142.93 Y140.46 E301.34730
G0 F6000 X143.64 Y140.46
G1 F4320 X141.99 Y138.81 E301.44422
G0 F6000 X142.70 Y138.81
G1 F4320 X144.35 Y140.46 E301.54115
G0 F6000 X145.06 Y140.46
G1 F4320 X143.41 Y138.81 E301.63807
G0 F6000 X144.11 Y138.81
G1 F4320 X145.76 Y140.46 E301.73500
G0 F6000 X146.47 Y140.46
G1 F4320 X144.82 Y138.81 E301.83192
G0 F6000 X145.53 Y138.81
G1 F4320 X147.18 Y140.46 E301.92885
G0 F6000 X147.88 Y140.46
G1 F4320 X146.23 Y138.81 E302.02583
G0 F6000 X146.94 Y138.81
G1 F4320 X148.59 Y140.46 E302.12282
G0 F6000 X149.30 Y140.46
G1 F4320 X147.65 Y138.81 E302.21980
G0 F6000 X148.35 Y138.81
G1 F4320 X150.00 Y140.46 E302.31679
G0 F6000 X150.71 Y140.46
G1 F4320 X149.06 Y138.81 E302.41374
G0 F6000 X149.77 Y138.81
G1 F4320 X151.42 Y140.46 E302.51070
G0 F6000 X152.13 Y140.46
G1 F4320 X150.48 Y138.81 E302.60765
G0 F6000 X151.18 Y138.81
G1 F4320 X152.83 Y140.46 E302.70464
G0 F6000 X153.54 Y140.46
G1 F4320 X151.89 Y138.81 E302.80162
G0 F6000 X152.60 Y138.81
G1 F4320 X154.25 Y140.46 E302.89860
G0 F6000 X154.96 Y140.46
G1 F4320 X153.31 Y138.81 E302.99559
G0 F6000 X154.01 Y138.81
G1 F4320 X160.81 Y145.61 E303.39543
G0 F6000 X160.81 Y144.90
G1 F4320 X154.72 Y138.81 E303.75371
G0 F6000 X155.43 Y138.81
G1 F4320 X160.81 Y144.20 E304.07038
G0 F6000 X160.81 Y143.49
G1 F4320 X156.13 Y138.81 E304.34549
G0 F6000 X156.84 Y138.81
G1 F4320 X160.81 Y142.78 E304.57903
G0 F6000 X160.81 Y142.07
G1 F4320 X157.55 Y138.81 E304.77100
G0 F6000 X158.25 Y138.81
G1 F4320 X160.81 Y141.37 E304.92140
G0 F6000 X160.81 Y140.66
G1 F4320 X158.96 Y138.81 E305.03023
G0 F6000 X159.67 Y138.81
G1 F4320 X161.27 Y140.41 E305.12448
G0 F6000 X161.98 Y140.41
G1 F4320 X160.38 Y138.81 E305.21873
G0 F6000 X161.08 Y138.81
G1 F4320 X162.69 Y140.41 E305.31298
G0 F6000 X163.39 Y140.41
G1 F4320 X161.79 Y138.81 E305.40723
G0 F6000 X162.50 Y138.81
G1 F4320 X164.10 Y140.41 E305.50148
G0 F6000 X164.81 Y140.41
G1 F4320 X163.21 Y138.81 E305.59573
G0 F6000 X163.91 Y138.81
G1 F4320 X165.77 Y140.67 E305.70503
G0 F6000 X165.46 Y141.07
G1 F4320 X165.62 Y141.57 E305.72317
G1 X165.62 Y142.28 E305.74128
G1 X165.62 Y142.99 E305.75935
G1 X165.62 Y143.70 E305.77746
G1 X165.62 Y144.40 E305.79557
G1 X165.62 Y145.11 E305.81367
G1 X165.62 Y145.82 E305.83178
G1 X165.62 Y146.53 E305.84989
G1 X165.62 Y147.23 E305.86799
G1 X165.62 Y147.94 E305.88610
G1 X165.62 Y148.65 E305.90421
G1 X165.62 Y149.35 E305.92231
G1 X165.62 Y150.06 E305.94039
G1 X165.55 Y150.35 E305.95265
G0 F6000 X164.68 Y141.20
G0 X161.60 Y141.20
G0 X160.81 Y150.56
G1 F4320 X155.43 Y145.18 E306.26927
G0 F6000 X155.43 Y145.88
G1 F4320 X160.81 Y151.27 E306.58589
G0 F6000 X160.81 Y151.97
G1 F4320 X155.43 Y146.59 E306.90250
G0 F6000 X155.43 Y147.30
G1 F4320 X160.81 Y152.68 E307.21915
G0 F6000 X160.81 Y153.39
G1 F4320 X155.43 Y148.00 E307.53580
G0 F6000 X155.43 Y148.71
G1 F4320 X160.81 Y154.10 E307.85244
G0 F6000 X160.81 Y154.80
G1 F4320 X155.43 Y149.42 E308.16906
G0 F6000 X155.43 Y150.12
G1 F4320 X160.81 Y155.51 E308.48568
G0 F6000 X160.81 Y156.22
G1 F4320 X155.43 Y150.83 E308.80230
G0 F6000 X155.43 Y151.54
G1 F4320 X160.81 Y156.92 E309.11891
G0 F6000 X160.81 Y157.63
G1 F4320 X155.43 Y152.25 E309.43553
G0 F6000 X155.43 Y152.95
G1 F4320 X160.81 Y158.34 E309.75215
G0 F6000 X160.81 Y159.04
G1 F4320 X155.43 Y153.66 E310.06877
G0 F6000 X155.43 Y154.37
G1 F4320 X160.81 Y159.75 E310.38541
G0 F6000 X160.81 Y160.46
G1 F4320 X155.43 Y155.07 E310.70206
G0 F6000 X155.43 Y155.78
G1 F4320 X160.81 Y161.17 E311.01871
G0 F6000 X160.81 Y161.87
G1 F4320 X155.43 Y156.49 E311.33532
G0 F6000 X155.43 Y157.20
G1 F4320 X160.81 Y162.58 E311.65194
G0 F6000 X160.81 Y163.29
G1 F4320 X155.43 Y157.90 E311.96856
G0 F6000 X155.43 Y158.61
G1 F4320 X160.81 Y164.00 E312.28518
G0 F6000 X160.81 Y164.70
G1 F4320 X155.43 Y159.32 E312.60179
G0 F6000 X155.43 Y160.02
G1 F4320 X160.81 Y165.41 E312.91841
G0 F6000 X160.65 Y165.96
G1 F4320 X155.43 Y160.73 E313.22568
G0 F6000 X155.43 Y161.44
G1 F4320 X159.95 Y165.96 E313.49138
G0 F6000 X159.24 Y165.96
G1 F4320 X155.43 Y162.15 E313.71551
G0 F6000 X155.43 Y162.85
G1 F4320 X158.53 Y165.96 E313.89804
G0 F6000 X157.83 Y165.96
G1 F4320 X155.43 Y163.56 E314.03901
G0 F6000 X155.43 Y164.27
G1 F4320 X157.12 Y165.96 E314.13840
G0 F6000 X156.41 Y165.96
G1 F4320 X155.43 Y164.97 E314.19623
G0 F6000 X155.43 Y165.68
G1 F4320 X155.70 Y165.96 E314.21245
G0 F6000 X139.83 Y165.64
G1 F4320 X139.73 Y165.18 E314.22468
G1 X139.73 Y164.47 E314.23685
G1 X139.73 Y163.77 E314.24902
G1 X139.73 Y163.06 E314.26119
G1 X139.73 Y162.35 E314.27335
G1 X139.73 Y161.65 E314.28552
G1 X139.73 Y160.94 E314.29769
G1 X139.73 Y160.23 E314.30986
G1 X139.73 Y159.53 E314.32203
G1 X139.73 Y158.82 E314.33422
G1 X139.73 Y158.11 E314.34639
G1 X139.73 Y157.40 E314.35855
G1 X139.73 Y156.70 E314.37072
G1 X139.73 Y155.99 E314.38289
G1 X139.73 Y155.28 E314.39506
G1 X139.73 Y154.57 E314.40723
G1 X139.73 Y153.87 E314.41940
G1 X139.73 Y153.16 E314.43157
G1 X139.73 Y152.45 E314.44375
G1 X139.72 Y151.75 E314.45592
G1 X139.72 Y151.04 E314.46809
G1 X139.72 Y150.33 E314.48032
G1 X139.72 Y149.62 E314.49255
G1 X139.72 Y148.92 E314.50478
G1 X139.72 Y148.21 E314.51700
G1 X139.72 Y147.50 E314.52925
G1 X139.72 Y146.80 E314.54142
G1 X139.72 Y146.09 E314.55359
G1 X139.72 Y145.38 E314.56576
G1 X139.72 Y144.68 E314.57792
G1 X139.72 Y143.97 E314.59015
G1 X139.72 Y143.26 E314.60238
G1 X139.72 Y142.55 E314.61461
G1 X139.72 Y141.85 E314.62684
G1 X139.72 Y141.14 E314.63906
G1 X139.86 Y140.57 E314.65130
G1 X139.62 Y139.97 E314.67801
G0 F6000 X139.62 Y139.27
G1 F4320 X140.81 Y140.46 E314.74800
G0 F6000 X155.43 Y140.93
G1 F4320 X160.81 Y146.32 E315.06465
G0 F6000 X160.81 Y147.03
G1 F4320 X155.43 Y141.64 E315.38130
G0 F6000 X155.43 Y142.35
G1 F4320 X160.81 Y147.73 E315.69795
G0 F6000 X160.81 Y148.44
G1 F4320 X155.43 Y143.05 E316.01456
G0 F6000 X155.43 Y143.76
G1 F4320 X160.81 Y149.15 E316.33118
G0 F6000 X160.81 Y149.85
G1 F4320 X155.43 Y144.47 E316.64780
G0 F6000 X164.62 Y138.81
G1 F4320 X165.77 Y139.96 E316.71553
G0 F6000 X165.77 Y139.25
G1 F4320 X165.33 Y138.81 E316.74169
;LAYER:3
G0 F6000 X165.95 Y138.63 Z0.90
;TYPE:WALL-INNER
G1 F4320 X165.95 Y150.53 E317.23602
G1 X165.29 Y150.53 E317.26338
G1 X165.29 Y140.59 E317.67651
G1 X160.99 Y140.59 E317.85529
G1 X160.99 Y166.13 E318.91736
G1 X155.25 Y166.13 E319.15580
G1 X155.25 Y140.63 E320.21592
G1 X140.00 Y140.63 E320.84990
G1 X140.00 Y166.13 E321.91003
G1 X139.45 Y166.13 E321.93319
G1 X139.45 Y138.63 E323.07646
G1 X165.95 Y138.63 E324.17816
G0 F6000 X166.45 Y138.13
G1 F4320 X166.45 Y151.03 E324.71407
G1 X164.79 Y151.03 E324.78300
G1 X164.79 Y141.09 E325.19613
G1 X161.49 Y141.09 E325.33333
G1 X161.49 Y166.63 E326.39541
G1 X138.95 Y166.63 E327.33255
G1 X138.95 Y138.13 E328.51740
G1 X166.45 Y138.13 E329.66068
G0 F6000 X154.75 Y141.13
G1 F4320 X140.50 Y141.13 E330.25308
G1 X140.50 Y165.63 E331.27163
G1 X154.75 Y165.63 E331.86404
G1 X154.75 Y141.13 E332.88259
G0 F6000 X154.25 Y141.63
;TYPE:WALL-OUTER
G1 F4320 X141.00 Y141.63 E333.43342
G1 X141.00 Y165.13 E334.41039
G1 X154.25 Y165.13 E334.96122
G1 X154.25 Y141.63 E335.93820
G0 F6000 X154.25 Y141.28
G0 X161.99 Y141.24
G0 X161.99 Y141.59
G1 F4320 X161.99 Y167.13 E337.00028
G1 X138.45 Y167.13 E337.97900
G1 X138.45 Y137.63 E339.20542
G1 X166.95 Y137.63 E340.39027
G1 X166.95 Y151.53 E340.96775
G1 X164.29 Y151.53 E341.07826
G1 X164.29 Y141.59 E341.49139
G1 X161.99 Y141.59 E341.58702
G0 F6000 X161.88 Y140.41
;TYPE:FILL
G1 F4320 X163.48 Y138.81 E341.68130
G0 F6000 X164.19 Y138.81
G1 F4320 X162.58 Y140.41 E341.77557
G0 F6000 X163.29 Y140.41
G1 F4320 X164.89 Y138.81 E341.86988
G0 F6000 X165.60 Y138.81
G1 F4320 X164.00 Y140.41 E341.96419
G0 F6000 X164.70 Y140.41
G1 F4320 X165.77 Y139.34 E342.02699
G0 F6000 X165.77 Y140.05
G1 F4320 X165.59 Y140.59 E342.04818
G1 X165.62 Y141.27 E342.06623
G1 X165.62 Y141.97 E342.08428
G1 X165.62 Y142.68 E342.10233
G1 X165.62 Y143.39 E342.12037
G1 X165.62 Y144.09 E342.13845
G1 X165.62 Y144.80 E342.15644
G1 X165.62 Y145.51 E342.17442
G1 X165.62 Y146.22 E342.19241
G1 X165.62 Y146.92 E342.21040
G1 X165.62 Y147.63 E342.22845
G1 X165.62 Y148.34 E342.24650
G1 X165.62 Y149.04 E342.26454
G1 X165.62 Y149.75 E342.28259
G1 X165.46 Y150.26 E342.30466
G0 F6000 X164.68 Y141.20
G0 X161.60 Y141.20
G0 X160.81 Y149.96
G1 F4320 X155.43 Y155.34 E342.62122
G0 F6000 X155.43 Y156.05
G1 F4320 X160.81 Y150.67 E342.93778
G0 F6000 X160.81 Y151.37
G1 F4320 X155.43 Y156.76 E343.25434
G0 F6000 X155.43 Y157.47
G1 F4320 X160.81 Y152.08 E343.57090
G0 F6000 X160.81 Y152.79
G1 F4320 X155.43 Y158.17 E343.88745
G0 F6000 X155.43 Y158.88
G1 F4320 X160.81 Y153.50 E344.20401
G0 F6000 X160.81 Y154.20
G1 F4320 X155.43 Y159.59 E344.52054
G0 F6000 X155.43 Y160.29
G1 F4320 X160.81 Y154.91 E344.83710
G0 F6000 X160.81 Y155.62
G1 F4320 X155.43 Y161.00 E345.15366
G0 F6000 X155.43 Y161.71
G1 F4320 X160.81 Y156.32 E345.47022
G0 F6000 X160.81 Y157.03
G1 F4320 X155.43 Y162.41 E345.78678
G0 F6000 X155.43 Y163.12
G1 F4320 X160.81 Y157.74 E346.10334
G0 F6000 X160.81 Y158.44
G1 F4320 X155.43 Y163.83 E346.41989
G0 F6000 X155.43 Y164.54
G1 F4320 X160.81 Y159.15 E346.73645
G0 F6000 X160.81 Y159.86
G1 F4320 X155.43 Y165.24 E347.05301
G0 F6000 X155.43 Y165.95
G1 F4320 X160.81 Y160.57 E347.36957
G0 F6000 X160.81 Y161.27
G1 F4320 X156.13 Y165.96 E347.64500
G0 F6000 X156.84 Y165.96
G1 F4320 X160.81 Y161.98 E347.87886
G0 F6000 X160.81 Y162.69
G1 F4320 X157.54 Y165.96 E348.07115
G0 F6000 X158.25 Y165.96
G1 F4320 X160.81 Y163.40 E348.22188
G0 F6000 X160.81 Y164.10
G1 F4320 X158.96 Y165.96 E348.33103
G0 F6000 X159.66 Y165.96
G1 F4320 X160.81 Y164.81 E348.39859
G0 F6000 X160.81 Y165.52
G1 F4320 X160.37 Y165.96 E348.42458
G0 F6000 X155.43 Y154.64
G1 F4320 X160.81 Y149.25 E348.74114
G0 F6000 X160.81 Y148.55
G1 F4320 X155.43 Y153.93 E349.05770
G0 F6000 X155.43 Y153.22
G1 F4320 X160.81 Y147.84 E349.37422
G0 F6000 X160.81 Y147.13
G1 F4320 X155.43 Y152.51 E349.69078
G0 F6000 X155.43 Y151.81
G1 F4320 X160.81 Y146.42 E350.00734
G0 F6000 X160.81 Y145.72
G1 F4320 X155.43 Y151.10 E350.32390
G0 F6000 X155.43 Y150.39
G1 F4320 X160.81 Y145.01 E350.64046
G0 F6000 X160.81 Y144.30
G1 F4320 X155.43 Y149.69 E350.95702
G0 F6000 X155.43 Y148.98
G1 F4320 X160.81 Y143.60 E351.27358
G0 F6000 X160.81 Y142.89
G1 F4320 X155.43 Y148.27 E351.59013
G0 F6000 X155.43 Y147.57
G1 F4320 X160.81 Y142.18 E351.90669
G0 F6000 X160.81 Y141.47
G1 F4320 X155.43 Y146.86 E352.22325
G0 F6000 X155.43 Y146.15
G1 F4320 X160.81 Y140.77 E352.53981
G0 F6000 X161.17 Y140.41
G1 F4320 X162.77 Y138.81 E352.63409
G0 F6000 X162.06 Y138.81
G1 F4320 X155.43 Y145.44 E353.02420
G0 F6000 X155.43 Y144.74
G1 F4320 X161.36 Y138.81 E353.37275
G0 F6000 X160.65 Y138.81
G1 F4320 X155.43 Y144.03 E353.67972
G0 F6000 X155.43 Y143.32
G1 F4320 X159.94 Y138.81 E353.94513
G0 F6000 X159.24 Y138.81
G1 F4320 X155.43 Y142.62 E354.16896
G0 F6000 X155.43 Y141.91
G1 F4320 X158.53 Y138.81 E354.35123
G0 F6000 X157.82 Y138.81
G1 F4320 X155.43 Y141.20 E354.49190
G0 F6000 X155.43 Y140.50
G1 F4320 X157.11 Y138.81 E354.59100
G0 F6000 X156.41 Y138.81
G1 F4320 X154.76 Y140.46 E354.68808
G0 F6000 X154.05 Y140.46
G1 F4320 X155.70 Y138.81 E354.78515
G0 F6000 X154.99 Y138.81
G1 F4320 X153.34 Y140.46 E354.88222
G0 F6000 X152.63 Y140.46
G1 F4320 X154.29 Y138.81 E354.97929
G0 F6000 X153.58 Y138.81
G1 F4320 X151.93 Y140.46 E355.07637
G0 F6000 X151.22 Y140.46
G1 F4320 X152.87 Y138.81 E355.17344
G0 F6000 X152.16 Y138.81
G1 F4320 X150.51 Y140.46 E355.27051
G0 F6000 X149.81 Y140.46
G1 F4320 X151.46 Y138.81 E355.36761
G0 F6000 X150.75 Y138.81
G1 F4320 X149.10 Y140.46 E355.46468
G0 F6000 X148.39 Y140.46
G1 F4320 X150.04 Y138.81 E355.56176
G0 F6000 X149.34 Y138.81
G1 F4320 X147.69 Y140.46 E355.65883
G0 F6000 X146.98 Y140.46
G1 F4320 X148.63 Y138.81 E355.75584
G0 F6000 X147.92 Y138.81
G1 F4320 X146.27 Y140.46 E355.85286
G0 F6000 X145.56 Y140.46
G1 F4320 X147.22 Y138.81 E355.94987
G0 F6000 X146.51 Y138.81
G1 F4320 X144.86 Y140.46 E356.04691
G0 F6000 X144.15 Y140.46
G1 F4320 X145.80 Y138.81 E356.14396
G0 F6000 X145.09 Y138.81
G1 F4320 X143.44 Y140.46 E356.24100
G0 F6000 X142.74 Y140.46
G1 F4320 X144.39 Y138.81 E356.33801
G0 F6000 X143.68 Y138.81
G1 F4320 X142.03 Y140.46 E356.43503
G0 F6000 X141.32 Y140.46
G1 F4320 X142.97 Y138.81 E356.53204
G0 F6000 X142.26 Y138.81
G1 F4320 X140.62 Y140.46 E356.62905
G0 F6000 X139.91 Y140.46
G1 F4320 X141.56 Y138.81 E356.72607
G0 F6000 X140.85 Y138.81
G1 F4320 X139.62 Y140.04 E356.79833
G0 F6000 X139.83 Y140.54
G1 F4320 X139.72 Y141.00 E356.81045
G1 X139.72 Y141.70 E356.82256
G1 X139.72 Y142.41 E356.83467
G1 X139.72 Y143.12 E356.84678
G1 X139.72 Y143.82 E356.85889
G1 X139.72 Y144.53 E356.87100
G1 X139.72 Y145.24 E356.88317
G1 X139.72 Y145.94 E356.89530
G1 X139.72 Y146.65 E356.90741
G1 X139.72 Y147.36 E356.91952
G1 X139.72 Y148.07 E356.93163
G1 X139.72 Y148.77 E356.94374
G1 X139.72 Y149.48 E356.95585
G1 X139.72 Y150.19 E356.96796
G1 X139.72 Y150.89 E356.98007
G1 X139.72 Y151.60 E356.99218
G1 X139.72 Y152.31 E357.00435
G1 X139.73 Y153.01 E357.01646
G1 X139.73 Y153.72 E357.02851
G1 X139.73 Y154.43 E357.04056
G1 X139.73 Y155.14 E357.05261
G1 X139.73 Y155.84 E357.06466
G1 X139.73 Y156.55 E357.07679
G1 X139.73 Y157.26 E357.08890
G1 X139.73 Y157.97 E357.10101
G1 X139.73 Y158.67 E357.11312
G1 X139.73 Y159.38 E357.12523
G1 X139.73 Y160.09 E357.13728
G1 X139.73 Y160.79 E357.14933
G1 X139.73 Y161.50 E357.16138
G1 X139.73 Y162.21 E357.17344
G1 X139.73 Y162.91 E357.18549
G1 X139.73 Y163.62 E357.19761
G1 X139.73 Y164.33 E357.20972
G1 X139.73 Y165.04 E357.22183
G1 X139.62 Y165.49 E357.24131
G0 F6000 X139.62 Y139.33
G1 F4320 X140.14 Y138.81 E357.27200
;LAYER:4
G0 F6000 X139.45 Y138.63 Z1.10
;TYPE:WALL-INNER
G1 F4320 X165.95 Y138.63 E358.37370
G1 X165.95 Y150.53 E358.86803
G1 X165.29 Y150.53 E358.89539
G1 X165.29 Y140.59 E359.30852
G1 X160.99 Y140.59 E359.48729
G1 X160.99 Y166.13 E360.54937
G1 X155.25 Y166.13 E360.78781
G1 X155.25 Y140.63 E361.84793
G1 X140.00 Y140.63 E362.48191
G1 X140.00 Y166.13 E363.54204
G1 X139.45 Y166.13 E363.56519
G1 X139.45 Y138.63 E364.70847
G0 F6000 X138.95 Y138.13
G1 F4320 X166.45 Y138.13 E365.85175
G1 X166.45 Y151.03 E366.38765
G1 X164.79 Y151.03 E366.45658
G1 X164.79 Y141.09 E366.86971
G1 X161.49 Y141.09 E367.00691
G1 X161.49 Y166.63 E368.06899
G1 X138.95 Y166.63 E369.00614
G1 X138.95 Y138.13 E370.19099
G0 F6000 X140.50 Y141.13
G1 F4320 X140.50 Y165.63 E371.20954
G1 X154.75 Y165.63 E371.80194
G1 X154.75 Y141.13 E372.82049
G1 X140.50 Y141.13 E373.41290
G0 F6000 X141.00 Y141.63
;TYPE:WALL-OUTER
G1 F4320 X141.00 Y165.13 E374.38987
G1 X154.25 Y165.13 E374.94070
G1 X154.25 Y141.63 E375.91768
G1 X141.00 Y141.63 E376.46851
G0 F6000 X141.00 Y141.28
G0 X138.80 Y137.90
G0 X138.45 Y137.63
G1 F4320 X166.95 Y137.63 E377.65336
G1 X166.95 Y151.53 E378.23084
G1 X164.29 Y151.53 E378.34134
G1 X164.29 Y141.59 E378.75447
G1 X161.99 Y141.59 E378.85010
G1 X161.99 Y167.13 E379.91218
G1 X138.45 Y167.13 E380.89090
G1 X138.45 Y137.63 E382.11732
G0 F6000 X138.80 Y137.90
G0 X139.87 Y138.81
;TYPE:FILL
G1 F4320 X141.52 Y140.46 E382.21425
G0 F6000 X142.23 Y140.46
G1 F4320 X140.58 Y138.81 E382.31117
G0 F6000 X141.28 Y138.81
G1 F4320 X142.93 Y140.46 E382.40810
G0 F6000 X143.64 Y140.46
G1 F4320 X141.99 Y138.81 E382.50503
G0 F6000 X142.70 Y138.81
G1 F4320 X144.35 Y140.46 E382.60195
G0 F6000 X145.06 Y140.46
G1 F4320 X143.41 Y138.81 E382.69888
G0 F6000 X144.11 Y138.81
G1 F4320 X145.76 Y140.46 E382.79580
G0 F6000 X146.47 Y140.46
G1 F4320 X144.82 Y138.81 E382.89273
G0 F6000 X145.53 Y138.81
G1 F4320 X147.18 Y140.46 E382.98965
G0 F6000 X147.88 Y140.46
G1 F4320 X146.23 Y138.81 E383.08664
G0 F6000 X146.94 Y138.81
G1 F4320 X148.59 Y140.46 E383.18362
G0 F6000 X149.30 Y140.46
G1 F4320 X147.65 Y138.81 E383.28061
G0 F6000 X148.35 Y138.81
G1 F4320 X150.00 Y140.46 E383.37759
G0 F6000 X150.71 Y140.46
G1 F4320 X149.06 Y138.81 E383.47455
G0 F6000 X149.77 Y138.81
G1 F4320 X151.42 Y140.46 E383.57150
G0 F6000 X152.13 Y140.46
G1 F4320 X150.48 Y138.81 E383.66845
G0 F6000 X151.18 Y138.81
G1 F4320 X152.83 Y140.46 E383.76544
G0 F6000 X153.54 Y140.46
G1 F4320 X151.89 Y138.81 E383.86242
G0 F6000 X152.60 Y138.81
G1 F4320 X154.25 Y140.46 E383.95941
G0 F6000 X154.96 Y140.46
G1 F4320 X153.31 Y138.81 E384.05639
G0 F6000 X154.01 Y138.81
G1 F4320 X160.81 Y145.61 E384.45624
G0 F6000 X160.81 Y144.90
G1 F4320 X154.72 Y138.81 E384.81451
G0 F6000 X155.43 Y138.81
G1 F4320 X160.81 Y144.20 E385.13119
G0 F6000 X160.81 Y143.49
G1 F4320 X156.13 Y138.81 E385.40629
G0 F6000 X156.84 Y138.81
G1 F4320 X160.81 Y142.78 E385.63983
G0 F6000 X160.81 Y142.07
G1 F4320 X157.55 Y138.81 E385.83180
G0 F6000 X158.25 Y138.81
G1 F4320 X160.81 Y141.37 E385.98220
G0 F6000 X160.81 Y140.66
G1 F4320 X158.96 Y138.81 E386.09103
G0 F6000 X159.67 Y138.81
G1 F4320 X161.27 Y140.41 E386.18528
G0 F6000 X161.98 Y140.41
G1 F4320 X160.38 Y138.81 E386.27953
G0 F6000 X161.08 Y138.81
G1 F4320 X162.69 Y140.41 E386.37378
G0 F6000 X163.39 Y140.41
G1 F4320 X161.79 Y138.81 E386.46803
G0 F6000 X162.50 Y138.81
G1 F4320 X164.10 Y140.41 E386.56228
G0 F6000 X164.81 Y140.41
G1 F4320 X163.21 Y138.81 E386.65654
G0 F6000 X163.91 Y138.81
G1 F4320 X165.77 Y140.67 E386.76584
G0 F6000 X165.46 Y141.07
G1 F4320 X165.62 Y141.57 E386.78398
G1 X165.62 Y142.28 E386.80208
G1 X165.62 Y142.99 E386.82016
G1 X165.62 Y143.70 E386.83826
G1 X165.62 Y144.40 E386.85637
G1 X165.62 Y145.11 E386.87448
G1 X165.62 Y145.82 E386.89258
G1 X165.62 Y146.53 E386.91069
G1 X165.62 Y147.23 E386.92880
G1 X165.62 Y147.94 E386.94690
G1 X165.62 Y148.65 E386.96501
G1 X165.62 Y149.35 E386.98312
G1 X165.62 Y150.06 E387.00119
G1 X165.55 Y150.35 E387.01346
G0 F6000 X164.68 Y141.20
G0 X161.60 Y141.20
G0 X160.81 Y150.56
G1 F4320 X155.43 Y145.18 E387.33007
G0 F6000 X155.43 Y145.88
G1 F4320 X160.81 Y151.27 E387.64669
G0 F6000 X160.81 Y151.97
G1 F4320 X155.43 Y146.59 E387.96331
G0 F6000 X155.43 Y147.30
G1 F4320 X160.81 Y152.68 E388.27995
G0 F6000 X160.81 Y153.39
G1 F4320 X155.43 Y148.00 E388.59660
G0 F6000 X155.43 Y148.71
G1 F4320 X160.81 Y154.10 E388.91325
G0 F6000 X160.81 Y154.80
G1 F4320 X155.43 Y149.42 E389.22986
G0 F6000 X155.43 Y150.12
G1 F4320 X160.81 Y155.51 E389.54648
G0 F6000 X160.81 Y156.22
G1 F4320 X155.43 Y150.83 E389.86310
G0 F6000 X155.43 Y151.54
G1 F4320 X160.81 Y156.92 E390.17972
G0 F6000 X160.81 Y157.63
G1 F4320 X155.43 Y152.25 E390.49633
G0 F6000 X155.43 Y152.95
G1 F4320 X160.81 Y158.34 E390.81295
G0 F6000 X160.81 Y159.04
G1 F4320 X155.43 Y153.66 E391.12957
G0 F6000 X155.43 Y154.37
G1 F4320 X160.81 Y159.75 E391.44622
G0 F6000 X160.81 Y160.46
G1 F4320 X155.43 Y155.07 E391.76286
G0 F6000 X155.43 Y155.78
G1 F4320 X160.81 Y161.17 E392.07951
G0 F6000 X160.81 Y161.87
G1 F4320 X155.43 Y156.49 E392.39613
G0 F6000 X155.43 Y157.20
G1 F4320 X160.81 Y162.58 E392.71274
G0 F6000 X160.81 Y163.29
G1 F4320 X155.43 Y157.90 E393.02936
G0 F6000 X155.43 Y158.61
G1 F4320 X160.81 Y164.00 E393.34598
G0 F6000 X160.81 Y164.70
G1 F4320 X155.43 Y159.32 E393.66260
G0 F6000 X155.43 Y160.02
G1 F4320 X160.81 Y165.41 E393.97921
G0 F6000 X160.65 Y165.96
G1 F4320 X155.43 Y160.73 E394.28648
G0 F6000 X155.43 Y161.44
G1 F4320 X159.95 Y165.96 E394.55218
G0 F6000 X159.24 Y165.96
G1 F4320 X155.43 Y162.15 E394.77631
G0 F6000 X155.43 Y162.85
G1 F4320 X158.53 Y165.96 E394.95885
G0 F6000 X157.83 Y165.96
G1 F4320 X155.43 Y163.56 E395.09981
G0 F6000 X155.43 Y164.27
G1 F4320 X157.12 Y165.96 E395.19920
G0 F6000 X156.41 Y165.96
G1 F4320 X155.43 Y164.97 E395.25703
G0 F6000 X155.43 Y165.68
G1 F4320 X155.70 Y165.96 E395.27326
G0 F6000 X139.83 Y165.64
G1 F4320 X139.73 Y165.18 E395.28548
G1 X139.73 Y164.47 E395.29765
G1 X139.73 Y163.77 E395.30982
G1 X139.73 Y163.06 E395.32199
G1 X139.73 Y162.35 E395.33416
G1 X139.73 Y161.65 E395.34633
G1 X139.73 Y160.94 E395.35850
G1 X139.73 Y160.23 E395.37066
G1 X139.73 Y159.53 E395.38283
G1 X139.73 Y158.82 E395.39502
G1 X139.73 Y158.11 E395.40719
G1 X139.73 Y157.40 E395.41936
G1 X139.73 Y156.70 E395.43153
G1 X139.73 Y155.99 E395.44370
G1 X139.73 Y155.28 E395.45586
G1 X139.73 Y154.57 E395.46803
G1 X139.73 Y153.87 E395.48020
G1 X139.73 Y153.16 E395.49237
G1 X139.73 Y152.45 E395.50456
G1 X139.72 Y151.75 E395.51673
G1 X139.72 Y151.04 E395.52890
G1 X139.72 Y150.33 E395.54112
G1 X139.72 Y149.62 E395.55335
G1 X139.72 Y148.92 E395.56558
G1 X139.72 Y148.21 E395.57781
G1 X139.72 Y147.50 E395.59005
G1 X139.72 Y146.80 E395.60222
G1 X139.72 Y146.09 E395.61439
G1 X139.72 Y145.38 E395.62656
G1 X139.72 Y144.68 E395.63873
G1 X139.72 Y143.97 E395.65096
G1 X139.72 Y143.26 E395.66318
G1 X139.72 Y142.55 E395.67541
G1 X139.72 Y141.85 E395.68764
G1 X139.72 Y141.14 E395.69987
G1 X139.86 Y140.57 E395.71211
G1 X139.62 Y139.97 E395.73881
G0 F6000 X139.62 Y139.27
G1 F4320 X140.81 Y140.46 E395.80881
G0 F6000 X155.43 Y140.93
G1 F4320 X160.81 Y146.32 E396.12545
G0 F6000 X160.81 Y147.03
G1 F4320 X155.43 Y141.64 E396.44210
G0 F6000 X155.43 Y142.35
G1 F4320 X160.81 Y147.73 E396.75875
G0 F6000 X160.81 Y148.44
G1 F4320 X155.43 Y143.05 E397.07537
G0 F6000 X155.43 Y143.76
G1 F4320 X160.81 Y149.15 E397.39198
G0 F6000 X160.81 Y149.85
G1 F4320 X155.43 Y144.47 E397.70860
G0 F6000 X164.62 Y138.81
G1 F4320 X165.77 Y139.96 E397.77633
G0 F6000 X165.77 Y139.25
G1 F4320 X165.33 Y138.81 E397.80250
;LAYER:5
G0 F6000 X165.95 Y138.63 Z1.30
;TYPE:WALL-INNER
G1 F4320 X165.95 Y150.53 E398.29683
G1 X165.29 Y150.53 E398.32418
G1 X165.29 Y140.59 E398.73732
G1 X160.99 Y140.59 E398.91609
G1 X160.99 Y166.13 E399.97817
G1 X155.25 Y166.13 E400.21660
G1 X155.25 Y140.63 E401.27673
G1 X140.00 Y140.63 E401.91071
G1 X140.00 Y166.13 E402.97083
G1 X139.45 Y166.13 E402.99399
G1 X139.45 Y138.63 E404.13726
G1 X165.95 Y138.63 E405.23897
G0 F6000 X166.45 Y138.13
G1 F4320 X166.45 Y151.03 E405.77487
G1 X164.79 Y151.03 E405.84380
G1 X164.79 Y141.09 E406.25693
G1 X161.49 Y141.09 E406.39413
G1 X161.49 Y166.63 E407.45621
G1 X138.95 Y166.63 E408.39336
G1 X138.95 Y138.13 E409.57821
G1 X166.45 Y138.13 E410.72148
G0 F6000 X154.75 Y141.13
G1 F4320 X140.50 Y141.13 E411.31389
G1 X140.50 Y165.63 E412.33244
G1 X154.75 Y165.63 E412.92484
G1 X154.75 Y141.13 E413.94339
G0 F6000 X154.25 Y141.63
;TYPE:WALL-OUTER
G1 F4320 X141.00 Y141.63 E414.49422
G1 X141.00 Y165.13 E415.47120
G1 X154.25 Y165.13 E416.02203
G1 X154.25 Y141.63 E416.99900
G0 F6000 X154.25 Y141.28
G0 X161.99 Y141.24
G0 X161.99 Y141.59
G1 F4320 X161.99 Y167.13 E418.06108
G1 X138.45 Y167.13 E419.03980
G1 X138.45 Y137.63 E420.26623
G1 X166.95 Y137.63 E421.45108
G1 X166.95 Y151.53 E422.02856
G1 X164.29 Y151.53 E422.13906
G1 X164.29 Y141.59 E422.55220
G1 X161.99 Y141.59 E422.64782
G0 F6000 X161.88 Y140.41
;TYPE:FILL
G1 F4320 X163.48 Y138.81 E422.74210
G0 F6000 X164.19 Y138.81
G1 F4320 X162.58 Y140.41 E422.83638
G0 F6000 X163.29 Y140.41
G1 F4320 X164.89 Y138.81 E422.93069
G0 F6000 X165.60 Y138.81
G1 F4320 X164.00 Y140.41 E423.02500
G0 F6000 X164.70 Y140.41
G1 F4320 X165.77 Y139.34 E423.08779
G0 F6000 X165.77 Y140.05
G1 F4320 X165.59 Y140.59 E423.10898
G1 X165.62 Y141.27 E423.12703
G1 X165.62 Y141.97 E423.14508
G1 X165.62 Y142.68 E423.16313
G1 X165.62 Y143.39 E423.18118
G1 X165.62 Y144.09 E423.19925
G1 X165.62 Y144.80 E423.21724
G1 X165.62 Y145.51 E423.23523
G1 X165.62 Y146.22 E423.25322
G1 X165.62 Y146.92 E423.27121
G1 X165.62 Y147.63 E423.28925
G1 X165.62 Y148.34 E423.30730
G1 X165.62 Y149.04 E423.32535
G1 X165.62 Y149.75 E423.34340
G1 X165.46 Y150.26 E423.36547
G0 F6000 X164.68 Y141.20
G0 X161.60 Y141.20
G0 X160.81 Y149.96
G1 F4320 X155.43 Y155.34 E423.68202
G0 F6000 X155.43 Y156.05
G1 F4320 X160.81 Y150.67 E423.99858
G0 F6000 X160.81 Y151.37
G1 F4320 X155.43 Y156.76 E424.31514
G0 F6000 X155.43 Y157.47
G1 F4320 X160.81 Y152.08 E424.63170
G0 F6000 X160.81 Y152.79
G1 F4320 X155.43 Y158.17 E424.94826
G0 F6000 X155.43 Y158.88
G1 F4320 X160.81 Y153.50 E425.26482
G0 F6000 X160.81 Y154.20
G1 F4320 X155.43 Y159.59 E425.58135
G0 F6000 X155.43 Y160.29
G1 F4320 X160.81 Y154.91 E425.89790
G0 F6000 X160.81 Y155.62
G1 F4320 X155.43 Y161.00 E426.21446
G0 F6000 X155.43 Y161.71
G1 F4320 X160.81 Y156.32 E426.53102
G0 F6000 X160.81 Y157.03
G1 F4320 X155.43 Y162.41 E426.84758
G0 F6000 X155.43 Y163.12
G1 F4320 X160.81 Y157.74 E427.16414
G0 F6000 X160.81 Y158.44
G1 F4320 X155.43 Y163.83 E427.48070
G0 F6000 X155.43 Y164.54
G1 F4320 X160.81 Y159.15 E427.79726
G0 F6000 X160.81 Y159.86
G1 F4320 X155.43 Y165.24 E428.11381
G0 F6000 X155.43 Y165.95
G1 F4320 X160.81 Y160.57 E428.43037
G0 F6000 X160.81 Y161.27
G1 F4320 X156.13 Y165.96 E428.70580
G0 F6000 X156.84 Y165.96
G1 F4320 X160.81 Y161.98 E428.93967
G0 F6000 X160.81 Y162.69
G1 F4320 X157.54 Y165.96 E429.13196
G0 F6000 X158.25 Y165.96
G1 F4320 X160.81 Y163.40 E429.28268
G0 F6000 X160.81 Y164.10
G1 F4320 X158.96 Y165.96 E429.39184
G0 F6000 X159.66 Y165.96
G1 F4320 X160.81 Y164.81 E429.45939
G0 F6000 X160.81 Y165.52
G1 F4320 X160.37 Y165.96 E429.48538
G0 F6000 X155.43 Y154.64
G1 F4320 X160.81 Y149.25 E429.80194
G0 F6000 X160.81 Y148.55
G1 F4320 X155.43 Y153.93 E430.11850
G0 F6000 X155.43 Y153.22
G1 F4320 X160.81 Y147.84 E430.43503
G0 F6000 X160.81 Y147.13
G1 F4320 X155.43 Y152.51 E430.75159
G0 F6000 X155.43 Y151.81
G1 F4320 X160.81 Y146.42 E431.06815
G0 F6000 X160.81 Y145.72
G1 F4320 X155.43 Y151.10 E431.38470
G0 F6000 X155.43 Y150.39
G1 F4320 X160.81 Y145.01 E431.70126
G0 F6000 X160.81 Y144.30
G1 F4320 X155.43 Y149.69 E432.01782
G0 F6000 X155.43 Y148.98
G1 F4320 X160.81 Y143.60 E432.33438
G0 F6000 X160.81 Y142.89
G1 F4320 X155.43 Y148.27 E432.65094
G0 F6000 X155.43 Y147.57
G1 F4320 X160.81 Y142.18 E432.96750
G0 F6000 X160.81 Y141.47
G1 F4320 X155.43 Y146.86 E433.28406
G0 F6000 X155.43 Y146.15
G1 F4320 X160.81 Y140.77 E433.60061
G0 F6000 X161.17 Y140.41
G1 F4320 X162.77 Y138.81 E433.69489
G0 F6000 X162.06 Y138.81
G1 F4320 X155.43 Y145.44 E434.08501
G0 F6000 X155.43 Y144.74
G1 F4320 X161.36 Y138.81 E434.43355
G0 F6000 X160.65 Y138.81
G1 F4320 X155.43 Y144.03 E434.74052
G0 F6000 X155.43 Y143.32
G1 F4320 X159.94 Y138.81 E435.00593
G0 F6000 X159.24 Y138.81
G1 F4320 X155.43 Y142.62 E435.22977
G0 F6000 X155.43 Y141.91
G1 F4320 X158.53 Y138.81 E435.41204
G0 F6000 X157.82 Y138.81
G1 F4320 X155.43 Y141.20 E435.55271
G0 F6000 X155.43 Y140.50
G1 F4320 X157.11 Y138.81 E435.65181
G0 F6000 X156.41 Y138.81
G1 F4320 X154.76 Y140.46 E435.74888
G0 F6000 X154.05 Y140.46
G1 F4320 X155.70 Y138.81 E435.84595
G0 F6000 X154.99 Y138.81
G1 F4320 X153.34 Y140.46 E435.94302
G0 F6000 X152.63 Y140.46
G1 F4320 X154.29 Y138.81 E436.04010
G0 F6000 X153.58 Y138.81
G1 F4320 X151.93 Y140.46 E436.13717
G0 F6000 X151.22 Y140.46
G1 F4320 X152.87 Y138.81 E436.23424
G0 F6000 X152.16 Y138.81
G1 F4320 X150.51 Y140.46 E436.33131
G0 F6000 X149.81 Y140.46
G1 F4320 X151.46 Y138.81 E436.42842
G0 F6000 X150.75 Y138.81
G1 F4320 X149.10 Y140.46 E436.52549
G0 F6000 X148.39 Y140.46
G1 F4320 X150.04 Y138.81 E436.62256
G0 F6000 X149.34 Y138.81
G1 F4320 X147.69 Y140.46 E436.71963
G0 F6000 X146.98 Y140.46
G1 F4320 X148.63 Y138.81 E436.81665
G0 F6000 X147.92 Y138.81
G1 F4320 X146.27 Y140.46 E436.91366
G0 F6000 X145.56 Y140.46
G1 F4320 X147.22 Y138.81 E437.01067
G0 F6000 X146.51 Y138.81
G1 F4320 X144.86 Y140.46 E437.10772
G0 F6000 X144.15 Y140.46
G1 F4320 X145.80 Y138.81 E437.20476
G0 F6000 X145.09 Y138.81
G1 F4320 X143.44 Y140.46 E437.30180
G0 F6000 X142.74 Y140.46
G1 F4320 X144.39 Y138.81 E437.39882
G0 F6000 X143.68 Y138.81
G1 F4320 X142.03 Y140.46 E437.49583
G0 F6000 X141.32 Y140.46
G1 F4320 X142.97 Y138.81 E437.59284
G0 F6000 X142.26 Y138.81
G1 F4320 X140.62 Y140.46 E437.68986
G0 F6000 X139.91 Y140.46
G1 F4320 X141.56 Y138.81 E437.78687
G0 F6000 X140.85 Y138.81
G1 F4320 X139.62 Y140.04 E437.85913
G0 F6000 X139.83 Y140.54
G1 F4320 X139.72 Y141.00 E437.87125
G1 X139.72 Y141.70 E437.88336
G1 X139.72 Y142.41 E437.89547
G1 X139.72 Y143.12 E437.90758
G1 X139.72 Y143.82 E437.91969
G1 X139.72 Y144.53 E437.93180
G1 X139.72 Y145.24 E437.94397
G1 X139.72 Y145.94 E437.95610
G1 X139.72 Y146.65 E437.96821
G1 X139.72 Y147.36 E437.98032
G1 X139.72 Y148.07 E437.99243
G1 X139.72 Y148.77 E438.00454
G1 X139.72 Y149.48 E438.01665
G1 X139.72 Y150.19 E438.02876
G1 X139.72 Y150.89 E438.04087
G1 X139.72 Y151.60 E438.05298
G1 X139.72 Y152.31 E438.06515
G1 X139.73 Y153.01 E438.07726
G1 X139.73 Y153.72 E438.08931
G1 X139.73 Y154.43 E438.10136
G1 X139.73 Y155.14 E438.11341
G1 X139.73 Y155.84 E438.12547
G1 X139.73 Y156.55 E438.13759
G1 X139.73 Y157.26 E438.14970
G1 X139.73 Y157.97 E438.16181
G1 X139.73 Y158.67 E438.17392
G1 X139.73 Y159.38 E438.18603
G1 X139.73 Y160.09 E438.19809
G1 X139.73 Y160.79 E438.21014
G1 X139.73 Y161.50 E438.22219
G1 X139.73 Y162.21 E438.23424
G1 X139.73 Y162.91 E438.24629
G1 X139.73 Y163.62 E438.25842
G1 X139.73 Y164.33 E438.27053
G1 X139.73 Y165.04 E438.28264
G1 X139.62 Y165.49 E438.30211
G0 F6000 X139.62 Y139.33
G1 F4320 X140.14 Y138.81 E438.33281
;LAYER:6
G0 F6000 X139.45 Y138.63 Z1.50
;TYPE:WALL-INNER
G1 F3240 X165.95 Y138.63 E439.43451
G1 X165.95 Y150.53 E439.92884
G1 X165.29 Y150.53 E439.95619
G1 X165.29 Y140.59 E440.36932
G1 X160.99 Y140.59 E440.54810
G1 X160.99 Y166.13 E441.61018
G1 X155.25 Y166.13 E441.84861
G1 X155.25 Y140.63 E442.90874
G1 X140.00 Y140.63 E443.54272
G1 X140.00 Y166.13 E444.60284
G1 X139.45 Y166.13 E444.62600
G1 X139.45 Y138.63 E445.76927
G0 F6000 X138.95 Y138.13
G1 F3240 X166.45 Y138.13 E446.91255
G1 X166.45 Y151.03 E447.44845
G1 X164.79 Y151.03 E447.51738
G1 X164.79 Y141.09 E447.93052
G1 X161.49 Y141.09 E448.06772
G1 X161.49 Y166.63 E449.12979
G1 X138.95 Y166.63 E450.06694
G1 X138.95 Y138.13 E451.25179
G0 F6000 X140.50 Y141.13
G1 F3240 X140.50 Y165.63 E452.27034
G1 X154.75 Y165.63 E452.86275
G1 X154.75 Y141.13 E453.88130
G1 X140.50 Y141.13 E454.47370
G0 F6000 X141.00 Y141.63
;TYPE:WALL-OUTER
G1 F3240 X141.00 Y165.13 E455.45068
G1 X154.25 Y165.13 E456.00150
G1 X154.25 Y141.63 E456.97848
G1 X141.00 Y141.63 E457.52931
G0 F6000 X141.00 Y141.28
G0 X138.80 Y137.90
G0 X138.45 Y137.63
G1 F3240 X166.95 Y137.63 E458.71416
G1 X166.95 Y151.53 E459.29164
G1 X164.29 Y151.53 E459.40215
G1 X164.29 Y141.59 E459.81528
G1 X161.99 Y141.59 E459.91090
G1 X161.99 Y167.13 E460.97298
G1 X138.45 Y167.13 E461.95170
G1 X138.45 Y137.63 E463.17813
G0 F6000 X138.80 Y137.90
G0 X139.69 Y138.81
;TYPE:FILL
G1 F3240 X141.34 Y140.46 E463.27505
G0 F6000 X139.83 Y140.71
G1 F3240 X139.62 Y140.50 E463.28734
G0 F6000 X139.62 Y142.27
G1 F3240 X139.83 Y142.48 E463.29963
G0 F6000 X139.62 Y144.04
G1 F3240 X139.83 Y144.25 E463.31189
G0 F6000 X139.62 Y145.81
G1 F3240 X139.83 Y146.02 E463.32418
G0 F6000 X139.62 Y147.58
G1 F3240 X139.83 Y147.78 E463.33647
G0 F6000 X139.62 Y149.34
G1 F3240 X139.83 Y149.55 E463.34875
G0 F6000 X139.62 Y151.11
G1 F3240 X139.83 Y151.32 E463.36101
G0 F6000 X139.62 Y152.88
G1 F3240 X139.83 Y153.09 E463.37324
G0 F6000 X139.62 Y154.65
G1 F3240 X139.83 Y154.86 E463.38547
G0 F6000 X139.62 Y156.42
G1 F3240 X139.83 Y156.62 E463.39770
G0 F6000 X139.62 Y158.18
G1 F3240 X139.83 Y158.39 E463.40990
G0 F6000 X139.62 Y159.95
G1 F3240 X139.83 Y160.16 E463.42213
G0 F6000 X139.62 Y161.72
G1 F3240 X139.83 Y161.93 E463.43436
G0 F6000 X139.62 Y163.49
G1 F3240 X139.83 Y163.69 E463.44659
G0 F6000 X139.62 Y165.25
G1 F3240 X139.83 Y165.46 E463.45879
G0 F6000 X154.65 Y165.53
G0 X155.43 Y165.15
G1 F3240 X156.24 Y165.96 E463.50621
G0 F6000 X158.00 Y165.96
G1 F3240 X155.43 Y163.38 E463.65758
G0 F6000 X155.43 Y161.62
G1 F3240 X159.77 Y165.96 E463.91287
G0 F6000 X160.81 Y165.23
G1 F3240 X155.43 Y159.85 E464.22952
G0 F6000 X155.43 Y158.08
G1 F3240 X160.81 Y163.47 E464.54614
G0 F6000 X160.81 Y161.70
G1 F3240 X155.43 Y156.31 E464.86276
G0 F6000 X155.43 Y154.54
G1 F3240 X160.81 Y159.93 E465.17937
G0 F6000 X160.81 Y158.16
G1 F3240 X155.43 Y152.78 E465.49602
G0 F6000 X155.43 Y151.01
G1 F3240 X160.81 Y156.39 E465.81264
G0 F6000 X160.81 Y154.63
G1 F3240 X155.43 Y149.24 E466.12925
G0 F6000 X155.43 Y147.47
G1 F3240 X160.81 Y152.86 E466.44587
G0 F6000 X160.81 Y151.09
G1 F3240 X155.43 Y145.71 E466.76252
G0 F6000 X155.43 Y143.94
G1 F3240 X160.81 Y149.32 E467.07916
G0 F6000 X160.81 Y147.56
G1 F3240 X155.43 Y142.17 E467.39578
G0 F6000 X153.72 Y140.46
G1 F3240 X152.07 Y138.81 E467.49274
G0 F6000 X151.95 Y140.46
G1 F3240 X150.30 Y138.81 E467.58972
G0 F6000 X150.18 Y140.46
G1 F3240 X148.53 Y138.81 E467.68671
G0 F6000 X148.41 Y140.46
G1 F3240 X146.76 Y138.81 E467.78369
G0 F6000 X146.65 Y140.46
G1 F3240 X145.00 Y138.81 E467.88062
G0 F6000 X144.88 Y140.46
G1 F3240 X143.23 Y138.81 E467.97754
G0 F6000 X143.11 Y140.46
G1 F3240 X141.46 Y138.81 E468.07447
G0 F6000 X153.84 Y138.81
G1 F3240 X160.81 Y145.79 E468.48469
G0 F6000 X160.81 Y144.02
G1 F3240 X155.60 Y138.81 E468.79099
G0 F6000 X157.37 Y138.81
G1 F3240 X160.81 Y142.25 E468.99336
G0 F6000 X160.81 Y140.48
G1 F3240 X159.14 Y138.81 E469.09179
G0 F6000 X160.91 Y138.81
G1 F3240 X162.51 Y140.41 E469.18604
G0 F6000 X162.67 Y138.81
G1 F3240 X164.28 Y140.41 E469.28029
G0 F6000 X165.77 Y140.14
G1 F3240 X164.44 Y138.81 E469.35843
G0 F6000 X165.46 Y141.60
G1 F3240 X165.77 Y141.91 E469.37660
G0 F6000 X165.46 Y143.37
G1 F3240 X165.77 Y143.67 E469.39476
G0 F6000 X165.46 Y145.13
G1 F3240 X165.77 Y145.44 E469.41293
G0 F6000 X165.46 Y146.90
G1 F3240 X165.77 Y147.21 E469.43110
G0 F6000 X165.46 Y148.67
G1 F3240 X165.77 Y148.98 E469.44927
;LAYER:7
G0 F6000 X165.95 Y150.53 Z1.70
;TYPE:WALL-INNER
G1 F3300 X165.29 Y150.53 E469.47662
G1 X165.29 Y140.59 E469.88976
G1 X160.99 Y140.59 E470.06853
G1 X160.99 Y166.13 E471.13061
G1 X155.25 Y166.13 E471.36904
G1 X155.25 Y140.63 E472.42917
G1 X140.00 Y140.63 E473.06315
G1 X140.00 Y166.13 E474.12327
G1 X139.45 Y166.13 E474.14643
G1 X139.45 Y138.63 E475.28971
G1 X165.95 Y138.63 E476.39141
G1 X165.95 Y150.53 E476.88574
G0 F6000 X166.45 Y151.03
G1 F3300 X164.79 Y151.03 E476.95467
G1 X164.79 Y141.09 E477.36780
G1 X161.49 Y141.09 E477.50500
G1 X161.49 Y166.63 E478.56708
G1 X138.95 Y166.63 E479.50422
G1 X138.95 Y138.13 E480.68907
G1 X166.45 Y138.13 E481.83235
G1 X166.45 Y151.03 E482.36825
G0 F6000 X164.68 Y141.20
G0 X161.60 Y141.20
G0 X154.75 Y141.13
G1 F3300 X140.50 Y141.13 E482.96066
G1 X140.50 Y165.63 E483.97921
G1 X154.75 Y165.63 E484.57161
G1 X154.75 Y141.13 E485.59016
G0 F6000 X154.25 Y141.63
;TYPE:WALL-OUTER
G1 F3300 X141.00 Y141.63 E486.14099
G1 X141.00 Y165.13 E487.11797
G1 X154.25 Y165.13 E487.66880
G1 X154.25 Y141.63 E488.64577
G0 F6000 X154.25 Y141.28
G0 X161.99 Y141.24
G0 X161.99 Y141.59
G1 F3300 X161.99 Y167.13 E489.70785
G1 X138.45 Y167.13 E490.68657
G1 X138.45 Y137.63 E491.91300
G1 X166.95 Y137.63 E493.09785
G1 X166.95 Y151.53 E493.67533
G1 X164.29 Y151.53 E493.78583
G1 X164.29 Y141.59 E494.19897
G1 X161.99 Y141.59 E494.29459
G0 F6000 X162.76 Y140.41
;TYPE:FILL
G1 F3300 X164.36 Y138.81 E494.38887
G0 F6000 X165.77 Y139.17
G1 F3300 X164.53 Y140.41 E494.46207
G0 F6000 X165.46 Y141.24
G1 F3300 X165.77 Y140.94 E494.48015
G0 F6000 X165.77 Y142.70
G1 F3300 X165.46 Y143.01 E494.49823
G0 F6000 X165.77 Y144.47
G1 F3300 X165.46 Y144.78 E494.51634
G0 F6000 X165.77 Y146.24
G1 F3300 X165.46 Y146.55 E494.53445
G0 F6000 X165.77 Y148.01
G1 F3300 X165.46 Y148.31 E494.55253
G0 F6000 X165.77 Y149.78
G1 F3300 X165.46 Y150.08 E494.57061
G0 F6000 X164.68 Y141.20
G0 X161.60 Y141.20
G0 X160.81 Y149.43
G1 F3300 X155.43 Y154.81 E494.88714
G0 F6000 X155.43 Y153.05
G1 F3300 X160.81 Y147.66 E495.20370
G0 F6000 X160.81 Y145.89
G1 F3300 X155.43 Y151.28 E495.52025
G0 F6000 X155.43 Y149.51
G1 F3300 X160.81 Y144.13 E495.83681
G0 F6000 X160.81 Y142.36
G1 F3300 X155.43 Y147.74 E496.15337
G0 F6000 X155.43 Y145.97
G1 F3300 X160.81 Y140.59 E496.46993
G0 F6000 X160.99 Y140.41
G1 F3300 X162.59 Y138.81 E496.56421
G0 F6000 X160.83 Y138.81
G1 F3300 X155.43 Y144.21 E496.88159
G0 F6000 X155.43 Y142.44
G1 F3300 X159.06 Y138.81 E497.09502
G0 F6000 X157.29 Y138.81
G1 F3300 X155.43 Y140.67 E497.20450
G0 F6000 X153.87 Y140.46
G1 F3300 X155.52 Y138.81 E497.30157
G0 F6000 X153.76 Y138.81
G1 F3300 X152.10 Y140.46 E497.39864
G0 F6000 X151.99 Y138.81
G1 F3300 X150.34 Y140.46 E497.49572
G0 F6000 X150.22 Y138.81
G1 F3300 X148.57 Y140.46 E497.59279
G0 F6000 X148.45 Y138.81
G1 F3300 X146.80 Y140.46 E497.68980
G0 F6000 X146.69 Y138.81
G1 F3300 X145.03 Y140.46 E497.78685
G0 F6000 X144.92 Y138.81
G1 F3300 X143.27 Y140.46 E497.88389
G0 F6000 X143.15 Y138.81
G1 F3300 X141.50 Y140.46 E497.98090
G0 F6000 X141.38 Y138.81
G1 F3300 X139.62 Y140.57 E498.08433
G0 F6000 X139.83 Y142.13
G1 F3300 X139.62 Y142.34 E498.09650
G0 F6000 X139.83 Y143.90
G1 F3300 X139.62 Y144.10 E498.10870
G0 F6000 X139.83 Y145.66
G1 F3300 X139.62 Y145.87 E498.12087
G0 F6000 X139.83 Y147.43
G1 F3300 X139.62 Y147.64 E498.13304
G0 F6000 X139.83 Y149.20
G1 F3300 X139.62 Y149.41 E498.14521
G0 F6000 X139.83 Y150.97
G1 F3300 X139.62 Y151.18 E498.15738
G0 F6000 X139.83 Y152.74
G1 F3300 X139.62 Y152.94 E498.16952
G0 F6000 X139.83 Y154.50
G1 F3300 X139.62 Y154.71 E498.18166
G0 F6000 X139.83 Y156.27
G1 F3300 X139.62 Y156.48 E498.19377
G0 F6000 X139.83 Y158.04
G1 F3300 X139.62 Y158.25 E498.20589
G0 F6000 X139.83 Y159.81
G1 F3300 X139.62 Y160.01 E498.21803
G0 F6000 X139.83 Y161.57
G1 F3300 X139.62 Y161.78 E498.23017
G0 F6000 X139.83 Y163.34
G1 F3300 X139.62 Y163.55 E498.24228
G0 F6000 X139.83 Y165.11
G1 F3300 X139.62 Y165.32 E498.25439
G0 F6000 X140.61 Y165.53
G0 X155.43 Y165.42
G1 F3300 X160.81 Y160.04 E498.57095
G0 F6000 X160.81 Y161.80
G1 F3300 X156.66 Y165.96 E498.81522
G0 F6000 X158.43 Y165.96
G1 F3300 X160.81 Y163.57 E498.95554
G0 F6000 X160.81 Y165.34
G1 F3300 X160.19 Y165.96 E498.99193
G0 F6000 X155.43 Y163.65
G1 F3300 X160.81 Y158.27 E499.30849
G0 F6000 X160.81 Y156.50
G1 F3300 X155.43 Y161.88 E499.62505
G0 F6000 X155.43 Y160.12
G1 F3300 X160.81 Y154.73 E499.94161
G0 F6000 X160.81 Y152.97
G1 F3300 X155.43 Y158.35 E500.25817
G0 F6000 X155.43 Y156.58
G1 F3300 X160.81 Y151.20 E500.57473
;LAYER:8
G0 F6000 X161.60 Y141.20 Z1.90
G0 X164.68 Y141.20
G0 X165.29 Y150.53
;TYPE:WALL-INNER
G1 F3300 X165.29 Y140.59 E500.98786
G1 X160.99 Y140.59 E501.16663
G1 X160.99 Y166.13 E502.22871
G1 X155.25 Y166.13 E502.46714
G1 X155.25 Y140.63 E503.52727
G1 X140.00 Y140.63 E504.16125
G1 X140.00 Y166.13 E505.22137
G1 X139.45 Y166.13 E505.24453
G1 X139.45 Y138.63 E506.38781
G1 X165.95 Y138.63 E507.48951
G1 X165.95 Y150.53 E507.98384
G1 X165.29 Y150.53 E508.01119
G0 F6000 X164.79 Y151.03
G1 F3300 X164.79 Y141.09 E508.42433
G1 X161.49 Y141.09 E508.56152
G1 X161.49 Y166.63 E509.62360
G1 X138.95 Y166.63 E510.56075
G1 X138.95 Y138.13 E511.74560
G1 X166.45 Y138.13 E512.88887
G1 X166.45 Y151.03 E513.42478
G1 X164.79 Y151.03 E513.49371
G0 F6000 X164.68 Y141.20
G0 X161.60 Y141.20
G0 X154.75 Y141.13
G1 F3300 X140.50 Y141.13 E514.08611
G1 X140.50 Y165.63 E515.10466
G1 X154.75 Y165.63 E515.69707
G1 X154.75 Y141.13 E516.71562
G0 F6000 X154.25 Y141.63
;TYPE:WALL-OUTER
G1 F3300 X141.00 Y141.63 E517.26645
G1 X141.00 Y165.13 E518.24342
G1 X154.25 Y165.13 E518.79425
G1 X154.25 Y141.63 E519.77123
G0 F6000 X154.25 Y141.28
G0 X161.99 Y141.24
G0 X161.99 Y141.59
G1 F3300 X161.99 Y167.13 E520.83331
G1 X138.45 Y167.13 E521.81203
G1 X138.45 Y137.63 E523.03845
G1 X166.95 Y137.63 E524.22330
G1 X166.95 Y151.53 E524.80078
G1 X164.29 Y151.53 E524.91129
G1 X164.29 Y141.59 E525.32442
G1 X161.99 Y141.59 E525.42005
G0 F6000 X162.51 Y140.41
;TYPE:FILL
G1 F3300 X160.91 Y138.81 E525.51430
G0 F6000 X160.81 Y140.48
G1 F3300 X159.14 Y138.81 E525.61272
G0 F6000 X157.37 Y138.81
G1 F3300 X160.81 Y142.25 E525.81510
G0 F6000 X160.81 Y144.02
G1 F3300 X155.60 Y138.81 E526.12140
G0 F6000 X153.84 Y138.81
G1 F3300 X160.81 Y145.79 E526.53162
G0 F6000 X160.81 Y147.56
G1 F3300 X155.43 Y142.17 E526.84823
G0 F6000 X155.43 Y143.94
G1 F3300 X160.81 Y149.32 E527.16488
G0 F6000 X160.81 Y151.09
G1 F3300 X155.43 Y145.71 E527.48153
G0 F6000 X155.43 Y147.47
G1 F3300 X160.81 Y152.86 E527.79815
G0 F6000 X160.81 Y154.63
G1 F3300 X155.43 Y149.24 E528.11476
G0 F6000 X155.43 Y151.01
G1 F3300 X160.81 Y156.39 E528.43138
G0 F6000 X160.81 Y158.16
G1 F3300 X155.43 Y152.78 E528.74803
G0 F6000 X155.43 Y154.54
G1 F3300 X160.81 Y159.93 E529.06464
G0 F6000 X160.81 Y161.70
G1 F3300 X155.43 Y156.31 E529.38126
G0 F6000 X155.43 Y158.08
G1 F3300 X160.81 Y163.47 E529.69788
G0 F6000 X160.81 Y165.23
G1 F3300 X155.43 Y159.85 E530.01453
G0 F6000 X155.43 Y161.62
G1 F3300 X159.77 Y165.96 E530.26982
G0 F6000 X158.00 Y165.96
G1 F3300 X155.43 Y163.38 E530.42119
G0 F6000 X155.43 Y165.15
G1 F3300 X156.24 Y165.96 E530.46861
G0 F6000 X139.83 Y165.46
G1 F3300 X139.62 Y165.25 E530.48081
G0 F6000 X139.83 Y163.69
G1 F3300 X139.62 Y163.49 E530.49304
G0 F6000 X139.83 Y161.93
G1 F3300 X139.62 Y161.72 E530.50527
G0 F6000 X139.83 Y160.16
G1 F3300 X139.62 Y159.95 E530.51750
G0 F6000 X139.83 Y158.39
G1 F3300 X139.62 Y158.18 E530.52970
G0 F6000 X139.83 Y156.62
G1 F3300 X139.62 Y156.42 E530.54193
G0 F6000 X139.83 Y154.86
G1 F3300 X139.62 Y154.65 E530.55416
G0 F6000 X139.83 Y153.09
G1 F3300 X139.62 Y152.88 E530.56639
G0 F6000 X139.83 Y151.32
G1 F3300 X139.62 Y151.11 E530.57865
G0 F6000 X139.83 Y149.55
G1 F3300 X139.62 Y149.34 E530.59093
G0 F6000 X139.83 Y147.78
G1 F3300 X139.62 Y147.58 E530.60322
G0 F6000 X139.83 Y146.02
G1 F3300 X139.62 Y145.81 E530.61551
G0 F6000 X139.83 Y144.25
G1 F3300 X139.62 Y144.04 E530.62777
G0 F6000 X139.83 Y142.48
G1 F3300 X139.62 Y142.27 E530.64006
G0 F6000 X139.83 Y140.71
G1 F3300 X139.62 Y140.50 E530.65235
G0 F6000 X139.69 Y138.81
G1 F3300 X141.34 Y140.46 E530.74927
G0 F6000 X141.46 Y138.81
G1 F3300 X143.11 Y140.46 E530.84620
G0 F6000 X143.23 Y138.81
G1 F3300 X144.88 Y140.46 E530.94312
G0 F6000 X145.00 Y138.81
G1 F3300 X146.65 Y140.46 E531.04005
G0 F6000 X146.76 Y138.81
G1 F3300 X148.41 Y140.46 E531.13703
G0 F6000 X148.53 Y138.81
G1 F3300 X150.18 Y140.46 E531.23402
G0 F6000 X150.30 Y138.81
G1 F3300 X151.95 Y140.46 E531.33100
G0 F6000 X152.07 Y138.81
G1 F3300 X153.72 Y140.46 E531.42796
G0 F6000 X162.67 Y138.81
G1 F3300 X164.28 Y140.41 E531.52221
G0 F6000 X165.77 Y140.14
G1 F3300 X164.44 Y138.81 E531.60035
G0 F6000 X165.46 Y141.60
G1 F3300 X165.77 Y141.91 E531.61851
G0 F6000 X165.46 Y143.37
G1 F3300 X165.77 Y143.67 E531.63668
G0 F6000 X165.46 Y145.13
G1 F3300 X165.77 Y145.44 E531.65485
G0 F6000 X165.46 Y146.90
G1 F3300 X165.77 Y147.21 E531.67302
G0 F6000 X165.46 Y148.67
G1 F3300 X165.77 Y148.98 E531.69119
;LAYER:9
G0 F6000 X165.95 Y150.53 Z2.10
;TYPE:WALL-INNER
G1 F3300 X165.29 Y150.53 E531.71854
G1 X165.29 Y140.59 E532.13168
G1 X160.99 Y140.59 E532.31045
G1 X160.99 Y166.13 E533.37253
G1 X155.25 Y166.13 E533.61096
G1 X155.25 Y140.63 E534.67109
G1 X140.00 Y140.63 E535.30507
G1 X140.00 Y166.13 E536.36519
G1 X139.45 Y166.13 E536.38835
G1 X139.45 Y138.63 E537.53162
G1 X165.95 Y138.63 E538.63333
G1 X165.95 Y150.53 E539.12765
G0 F6000 X166.45 Y151.03
G1 F3300 X164.79 Y151.03 E539.19659
G1 X164.79 Y141.09 E539.60972
G1 X161.49 Y141.09 E539.74692
G1 X161.49 Y166.63 E540.80900
G1 X138.95 Y166.63 E541.74614
G1 X138.95 Y138.13 E542.93099
G1 X166.45 Y138.13 E544.07427
G1 X166.45 Y151.03 E544.61017
G0 F6000 X164.68 Y141.20
G0 X161.60 Y141.20
G0 X154.75 Y141.13
G1 F3300 X140.50 Y141.13 E545.20258
G1 X140.50 Y165.63 E546.22113
G1 X154.75 Y165.63 E546.81353
G1 X154.75 Y141.13 E547.83208
G0 F6000 X154.25 Y141.63
;TYPE:WALL-OUTER
G1 F3300 X141.00 Y141.63 E548.38291
G1 X141.00 Y165.13 E549.35989
G1 X154.25 Y165.13 E549.91071
G1 X154.25 Y141.63 E550.88769
G0 F6000 X154.25 Y141.28
G0 X161.99 Y141.24
G0 X161.99 Y141.59
G1 F3300 X161.99 Y167.13 E551.94977
G1 X138.45 Y167.13 E552.92849
G1 X138.45 Y137.63 E554.15492
G1 X166.95 Y137.63 E555.33977
G1 X166.95 Y151.53 E555.91725
G1 X164.29 Y151.53 E556.02775
G1 X164.29 Y141.59 E556.44088
G1 X161.99 Y141.59 E556.53651
G0 F6000 X162.76 Y140.41
;TYPE:FILL
G1 F3300 X164.36 Y138.81 E556.63079
G0 F6000 X165.77 Y139.17
G1 F3300 X164.53 Y140.41 E556.70399
G0 F6000 X165.46 Y141.24
G1 F3300 X165.77 Y140.94 E556.72207
G0 F6000 X165.77 Y142.70
G1 F3300 X165.46 Y143.01 E556.74015
G0 F6000 X165.77 Y144.47
G1 F3300 X165.46 Y144.78 E556.75826
G0 F6000 X165.77 Y146.24
G1 F3300 X165.46 Y146.55 E556.77637
G0 F6000 X165.77 Y148.01
G1 F3300 X165.46 Y148.31 E556.79445
G0 F6000 X165.77 Y149.78
G1 F3300 X165.46 Y150.08 E556.81253
G0 F6000 X164.68 Y141.20
G0 X161.60 Y141.20
G0 X160.81 Y149.43
G1 F3300 X155.43 Y154.81 E557.12906
G0 F6000 X155.43 Y153.05
G1 F3300 X160.81 Y147.66 E557.44561
G0 F6000 X160.81 Y145.89
G1 F3300 X155.43 Y151.28 E557.76217
G0 F6000 X155.43 Y149.51
G1 F3300 X160.81 Y144.13 E558.07873
G0 F6000 X160.81 Y142.36
G1 F3300 X155.43 Y147.74 E558.39529
G0 F6000 X155.43 Y145.97
G1 F3300 X160.81 Y140.59 E558.71185
G0 F6000 X160.99 Y140.41
G1 F3300 X162.59 Y138.81 E558.80613
G0 F6000 X160.83 Y138.81
G1 F3300 X155.43 Y144.21 E559.12351
G0 F6000 X155.43 Y142.44
G1 F3300 X159.06 Y138.81 E559.33694
G0 F6000 X157.29 Y138.81
G1 F3300 X155.43 Y140.67 E559.44642
G0 F6000 X153.87 Y140.46
G1 F3300 X155.52 Y138.81 E559.54349
G0 F6000 X153.76 Y138.81
G1 F3300 X152.10 Y140.46 E559.64056
G0 F6000 X151.99 Y138.81
G1 F3300 X150.34 Y140.46 E559.73764
G0 F6000 X150.22 Y138.81
G1 F3300 X148.57 Y140.46 E559.83471
G0 F6000 X148.45 Y138.81
G1 F3300 X146.80 Y140.46 E559.93172
G0 F6000 X146.69 Y138.81
G1 F3300 X145.03 Y140.46 E560.02876
G0 F6000 X144.92 Y138.81
G1 F3300 X143.27 Y140.46 E560.12581
G0 F6000 X143.15 Y138.81
G1 F3300 X141.50 Y140.46 E560.22282
G0 F6000 X141.38 Y138.81
G1 F3300 X139.62 Y140.57 E560.32624
G0 F6000 X139.83 Y142.13
G1 F3300 X139.62 Y142.34 E560.33841
G0 F6000 X139.83 Y143.90
G1 F3300 X139.62 Y144.10 E560.35062
G0 F6000 X139.83 Y145.66
G1 F3300 X139.62 Y145.87 E560.36279
G0 F6000 X139.83 Y147.43
G1 F3300 X139.62 Y147.64 E560.37496
G0 F6000 X139.83 Y149.20
G1 F3300 X139.62 Y149.41 E560.38713
G0 F6000 X139.83 Y150.97
G1 F3300 X139.62 Y151.18 E560.39930
G0 F6000 X139.83 Y152.74
G1 F3300 X139.62 Y152.94 E560.41144
G0 F6000 X139.83 Y154.50
G1 F3300 X139.62 Y154.71 E560.42358
G0 F6000 X139.83 Y156.27
G1 F3300 X139.62 Y156.48 E560.43569
G0 F6000 X139.83 Y158.04
G1 F3300 X139.62 Y158.25 E560.44781
G0 F6000 X139.83 Y159.81
G1 F3300 X139.62 Y160.01 E560.45995
G0 F6000 X139.83 Y161.57
G1 F3300 X139.62 Y161.78 E560.47209
G0 F6000 X139.83 Y163.34
G1 F3300 X139.62 Y163.55 E560.48420
G0 F6000 X139.83 Y165.11
G1 F3300 X139.62 Y165.32 E560.49631
G0 F6000 X140.61 Y165.53
G0 X155.43 Y165.42
G1 F3300 X160.81 Y160.04 E560.81287
G0 F6000 X160.81 Y161.80
G1 F3300 X156.66 Y165.96 E561.05714
G0 F6000 X158.43 Y165.96
G1 F3300 X160.81 Y163.57 E561.19746
G0 F6000 X160.81 Y165.34
G1 F3300 X160.19 Y165.96 E561.23385
G0 F6000 X155.43 Y163.65
G1 F3300 X160.81 Y158.27 E561.55041
G0 F6000 X160.81 Y156.50
G1 F3300 X155.43 Y161.88 E561.86697
G0 F6000 X155.43 Y160.12
G1 F3300 X160.81 Y154.73 E562.18353
G0 F6000 X160.81 Y152.97
G1 F3300 X155.43 Y158.35 E562.50009
G0 F6000 X155.43 Y156.58
G1 F3300 X160.81 Y151.20 E562.81664
;LAYER:10
G0 F6000 X161.60 Y141.20 Z2.30
G0 X164.68 Y141.20
G0 X165.29 Y150.53
;TYPE:WALL-INNER
G1 F3300 X165.29 Y140.59 E563.22978
G1 X160.99 Y140.59 E563.40855
G1 X160.99 Y166.13 E564.47063
G1 X155.25 Y166.13 E564.70906
G1 X155.25 Y140.63 E565.76919
G1 X140.00 Y140.63 E566.40317
G1 X140.00 Y166.13 E567.46329
G1 X139.45 Y166.13 E567.48645
G1 X139.45 Y138.63 E568.62973
G1 X165.95 Y138.63 E569.73143
G1 X165.95 Y150.53 E570.22576
G1 X165.29 Y150.53 E570.25311
G0 F6000 X164.79 Y151.03
G1 F3300 X164.79 Y141.09 E570.66624
G1 X161.49 Y141.09 E570.80344
G1 X161.49 Y166.63 E571.86552
G1 X138.95 Y166.63 E572.80267
G1 X138.95 Y138.13 E573.98752
G1 X166.45 Y138.13 E575.13079
G1 X166.45 Y151.03 E575.66670
G1 X164.79 Y151.03 E575.73563
G0 F6000 X164.68 Y141.20
G0 X161.60 Y141.20
G0 X154.75 Y141.13
G1 F3300 X140.50 Y141.13 E576.32803
G1 X140.50 Y165.63 E577.34658
G1 X154.75 Y165.63 E577.93899
G1 X154.75 Y141.13 E578.95754
G0 F6000 X154.25 Y141.63
;TYPE:WALL-OUTER
G1 F3300 X141.00 Y141.63 E579.50837
G1 X141.00 Y165.13 E580.48534
G1 X154.25 Y165.13 E581.03617
G1 X154.25 Y141.63 E582.01315
G0 F6000 X154.25 Y141.28
G0 X161.99 Y141.24
G0 X161.99 Y141.59
G1 F3300 X161.99 Y167.13 E583.07523
G1 X138.45 Y167.13 E584.05395
G1 X138.45 Y137.63 E585.28037
G1 X166.95 Y137.63 E586.46522
G1 X166.95 Y151.53 E587.04270
G1 X164.29 Y151.53 E587.15321
G1 X164.29 Y141.59 E587.56634
G1 X161.99 Y141.59 E587.66197
G0 F6000 X162.51 Y140.41
;TYPE:FILL
G1 F3300 X160.91 Y138.81 E587.75622
G0 F6000 X160.81 Y140.48
G1 F3300 X159.14 Y138.81 E587.85464
G0 F6000 X157.37 Y138.81
G1 F3300 X160.81 Y142.25 E588.05702
G0 F6000 X160.81 Y144.02
G1 F3300 X155.60 Y138.81 E588.36332
G0 F6000 X153.84 Y138.81
G1 F3300 X160.81 Y145.79 E588.77354
G0 F6000 X160.81 Y147.56
G1 F3300 X155.43 Y142.17 E589.09015
G0 F6000 X155.43 Y143.94
G1 F3300 X160.81 Y149.32 E589.40680
G0 F6000 X160.81 Y151.09
G1 F3300 X155.43 Y145.71 E589.72345
G0 F6000 X155.43 Y147.47
G1 F3300 X160.81 Y152.86 E590.04006
G0 F6000 X160.81 Y154.63
G1 F3300 X155.43 Y149.24 E590.35668
G0 F6000 X155.43 Y151.01
G1 F3300 X160.81 Y156.39 E590.67330
G0 F6000 X160.81 Y158.16
G1 F3300 X155.43 Y152.78 E590.98995
G0 F6000 X155.43 Y154.54
G1 F3300 X160.81 Y159.93 E591.30656
G0 F6000 X160.81 Y161.70
G1 F3300 X155.43 Y156.31 E591.62318
G0 F6000 X155.43 Y158.08
G1 F3300 X160.81 Y163.47 E591.93980
G0 F6000 X160.81 Y165.23
G1 F3300 X155.43 Y159.85 E592.25644
G0 F6000 X155.43 Y161.62
G1 F3300 X159.77 Y165.96 E592.51174
G0 F6000 X158.00 Y165.96
G1 F3300 X155.43 Y163.38 E592.66311
G0 F6000 X155.43 Y165.15
G1 F3300 X156.24 Y165.96 E592.71053
G0 F6000 X139.83 Y165.46
G1 F3300 X139.62 Y165.25 E592.72273
G0 F6000 X139.83 Y163.69
G1 F3300 X139.62 Y163.49 E592.73496
G0 F6000 X139.83 Y161.93
G1 F3300 X139.62 Y161.72 E592.74719
G0 F6000 X139.83 Y160.16
G1 F3300 X139.62 Y159.95 E592.75942
G0 F6000 X139.83 Y158.39
G1 F3300 X139.62 Y158.18 E592.77162
G0 F6000 X139.83 Y156.62
G1 F3300 X139.62 Y156.42 E592.78385
G0 F6000 X139.83 Y154.86
G1 F3300 X139.62 Y154.65 E592.79608
G0 F6000 X139.83 Y153.09
G1 F3300 X139.62 Y152.88 E592.80831
G0 F6000 X139.83 Y151.32
G1 F3300 X139.62 Y151.11 E592.82056
G0 F6000 X139.83 Y149.55
G1 F3300 X139.62 Y149.34 E592.83285
G0 F6000 X139.83 Y147.78
G1 F3300 X139.62 Y147.58 E592.84514
G0 F6000 X139.83 Y146.02
G1 F3300 X139.62 Y145.81 E592.85743
G0 F6000 X139.83 Y144.25
G1 F3300 X139.62 Y144.04 E592.86969
G0 F6000 X139.83 Y142.48
G1 F3300 X139.62 Y142.27 E592.88198
G0 F6000 X139.83 Y140.71
G1 F3300 X139.62 Y140.50 E592.89427
G0 F6000 X139.69 Y138.81
G1 F3300 X141.34 Y140.46 E592.99119
G0 F6000 X141.46 Y138.81
G1 F3300 X143.11 Y140.46 E593.08812
G0 F6000 X143.23 Y138.81
G1 F3300 X144.88 Y140.46 E593.18504
G0 F6000 X145.00 Y138.81
G1 F3300 X146.65 Y140.46 E593.28197
G0 F6000 X146.76 Y138.81
G1 F3300 X148.41 Y140.46 E593.37895
G0 F6000 X148.53 Y138.81
G1 F3300 X150.18 Y140.46 E593.47594
G0 F6000 X150.30 Y138.81
G1 F3300 X151.95 Y140.46 E593.57292
G0 F6000 X152.07 Y138.81
G1 F3300 X153.72 Y140.46 E593.66988
G0 F6000 X162.67 Y138.81
G1 F3300 X164.28 Y140.41 E593.76413
G0 F6000 X165.77 Y140.14
G1 F3300 X164.44 Y138.81 E593.84227
G0 F6000 X165.46 Y141.60
G1 F3300 X165.77 Y141.91 E593.86043
G0 F6000 X165.46 Y143.37
G1 F3300 X165.77 Y143.67 E593.87860
G0 F6000 X165.46 Y145.13
G1 F3300 X165.77 Y145.44 E593.89677
G0 F6000 X165.46 Y146.90
G1 F3300 X165.77 Y147.21 E593.91494
G0 F6000 X165.46 Y148.67
G1 F3300 X165.77 Y148.98 E593.93311
;LAYER:11
G0 F6000 X165.95 Y150.53 Z2.50
;TYPE:WALL-INNER
G1 F3300 X165.29 Y150.53 E593.96046
G1 X165.29 Y140.59 E594.37359
G1 X160.99 Y140.59 E594.55237
G1 X160.99 Y166.13 E595.61445
G1 X155.25 Y166.13 E595.85288
G1 X155.25 Y140.63 E596.91301
G1 X140.00 Y140.63 E597.54699
G1 X140.00 Y166.13 E598.60711
G1 X139.45 Y166.13 E598.63027
G1 X139.45 Y138.63 E599.77354
G1 X165.95 Y138.63 E600.87524
G1 X165.95 Y150.53 E601.36957
G0 F6000 X166.45 Y151.03
G1 F3300 X164.79 Y151.03 E601.43850
G1 X164.79 Y141.09 E601.85164
G1 X161.49 Y141.09 E601.98884
G1 X161.49 Y166.63 E603.05091
G1 X138.95 Y166.63 E603.98806
G1 X138.95 Y138.13 E605.17291
G1 X166.45 Y138.13 E606.31619
G1 X166.45 Y151.03 E606.85209
G0 F6000 X164.68 Y141.20
G0 X161.60 Y141.20
G0 X154.75 Y141.13
G1 F3300 X140.50 Y141.13 E607.44450
G1 X140.50 Y165.63 E608.46305
G1 X154.75 Y165.63 E609.05545
G1 X154.75 Y141.13 E610.07400
G0 F6000 X154.25 Y141.63
;TYPE:WALL-OUTER
G1 F3300 X141.00 Y141.63 E610.62483
G1 X141.00 Y165.13 E611.60180
G1 X154.25 Y165.13 E612.15263
G1 X154.25 Y141.63 E613.12961
G0 F6000 X154.25 Y141.28
G0 X161.99 Y141.24
G0 X161.99 Y141.59
G1 F3300 X161.99 Y167.13 E614.19169
G1 X138.45 Y167.13 E615.17041
G1 X138.45 Y137.63 E616.39683
G1 X166.95 Y137.63 E617.58169
G1 X166.95 Y151.53 E618.15916
G1 X164.29 Y151.53 E618.26967
G1 X164.29 Y141.59 E618.68280
G1 X161.99 Y141.59 E618.77843
G0 F6000 X162.76 Y140.41
;TYPE:FILL
G1 F3300 X164.36 Y138.81 E618.87271
G0 F6000 X165.77 Y139.17
G1 F3300 X164.53 Y140.41 E618.94591
G0 F6000 X165.46 Y141.24
G1 F3300 X165.77 Y140.94 E618.96399
G0 F6000 X165.77 Y142.70
G1 F3300 X165.46 Y143.01 E618.98207
G0 F6000 X165.77 Y144.47
G1 F3300 X165.46 Y144.78 E619.00018
G0 F6000 X165.77 Y146.24
G1 F3300 X165.46 Y146.55 E619.01829
G0 F6000 X165.77 Y148.01
G1 F3300 X165.46 Y148.31 E619.03637
G0 F6000 X165.77 Y149.78
G1 F3300 X165.46 Y150.08 E619.05445
G0 F6000 X164.68 Y141.20
G0 X161.60 Y141.20
G0 X160.81 Y149.43
G1 F3300 X155.43 Y154.81 E619.37097
G0 F6000 X155.43 Y153.05
G1 F3300 X160.81 Y147.66 E619.68753
G0 F6000 X160.81 Y145.89
G1 F3300 X155.43 Y151.28 E620.00409
G0 F6000 X155.43 Y149.51
G1 F3300 X160.81 Y144.13 E620.32065
G0 F6000 X160.81 Y142.36
G1 F3300 X155.43 Y147.74 E620.63721
G0 F6000 X155.43 Y145.97
G1 F3300 X160.81 Y140.59 E620.95377
G0 F6000 X160.99 Y140.41
G1 F3300 X162.59 Y138.81 E621.04805
G0 F6000 X160.83 Y138.81
G1 F3300 X155.43 Y144.21 E621.36543
G0 F6000 X155.43 Y142.44
G1 F3300 X159.06 Y138.81 E621.57886
G0 F6000 X157.29 Y138.81
G1 F3300 X155.43 Y140.67 E621.68834
G0 F6000 X153.87 Y140.46
G1 F3300 X155.52 Y138.81 E621.78541
G0 F6000 X153.76 Y138.81
G1 F3300 X152.10 Y140.46 E621.88248
G0 F6000 X151.99 Y138.81
G1 F3300 X150.34 Y140.46 E621.97955
G0 F6000 X150.22 Y138.81
G1 F3300 X148.57 Y140.46 E622.07663
G0 F6000 X148.45 Y138.81
G1 F3300 X146.80 Y140.46 E622.17364
G0 F6000 X146.69 Y138.81
G1 F3300 X145.03 Y140.46 E622.27068
G0 F6000 X144.92 Y138.81
G1 F3300 X143.27 Y140.46 E622.36773
G0 F6000 X143.15 Y138.81
G1 F3300 X141.50 Y140.46 E622.46474
G0 F6000 X141.38 Y138.81
G1 F3300 X139.62 Y140.57 E622.56816
G0 F6000 X139.83 Y142.13
G1 F3300 X139.62 Y142.34 E622.58033
G0 F6000 X139.83 Y143.90
G1 F3300 X139.62 Y144.10 E622.59253
G0 F6000 X139.83 Y145.66
G1 F3300 X139.62 Y145.87 E622.60470
G0 F6000 X139.83 Y147.43
G1 F3300 X139.62 Y147.64 E622.61688
G0 F6000 X139.83 Y149.20
G1 F3300 X139.62 Y149.41 E622.62905
G0 F6000 X139.83 Y150.97
G1 F3300 X139.62 Y151.18 E622.64122
G0 F6000 X139.83 Y152.74
G1 F3300 X139.62 Y152.94 E622.65336
G0 F6000 X139.83 Y154.50
G1 F3300 X139.62 Y154.71 E622.66550
G0 F6000 X139.83 Y156.27
G1 F3300 X139.62 Y156.48 E622.67761
G0 F6000 X139.83 Y158.04
G1 F3300 X139.62 Y158.25 E622.68972
G0 F6000 X139.83 Y159.81
G1 F3300 X139.62 Y160.01 E622.70187
G0 F6000 X139.83 Y161.57
G1 F3300 X139.62 Y161.78 E622.71401
G0 F6000 X139.83 Y163.34
G1 F3300 X139.62 Y163.55 E622.72612
G0 F6000 X139.83 Y165.11
G1 F3300 X139.62 Y165.32 E622.73823
G0 F6000 X140.61 Y165.53
G0 X155.43 Y165.42
G1 F3300 X160.81 Y160.04 E623.05479
G0 F6000 X160.81 Y161.80
G1 F3300 X156.66 Y165.96 E623.29906
G0 F6000 X158.43 Y165.96
G1 F3300 X160.81 Y163.57 E623.43938
G0 F6000 X160.81 Y165.34
G1 F3300 X160.19 Y165.96 E623.47577
G0 F6000 X155.43 Y163.65
G1 F3300 X160.81 Y158.27 E623.79233
G0 F6000 X160.81 Y156.50
G1 F3300 X155.43 Y161.88 E624.10889
G0 F6000 X155.43 Y160.12
G1 F3300 X160.81 Y154.73 E624.42545
G0 F6000 X160.81 Y152.97
G1 F3300 X155.43 Y158.35 E624.74200
G0 F6000 X155.43 Y156.58
G1 F3300 X160.81 Y151.20 E625.05856
;LAYER:12
G0 F6000 X161.60 Y141.20 Z2.70
G0 X164.68 Y141.20
G0 X165.29 Y150.53
;TYPE:WALL-INNER
G1 F3300 X165.29 Y140.59 E625.47170
G1 X160.99 Y140.59 E625.65047
G1 X160.99 Y166.13 E626.71255
G1 X155.25 Y166.13 E626.95098
G1 X155.25 Y140.63 E628.01111
G1 X140.00 Y140.63 E628.64509
G1 X140.00 Y166.13 E629.70521
G1 X139.45 Y166.13 E629.72837
G1 X139.45 Y138.63 E630.87164
G1 X165.95 Y138.63 E631.97335
G1 X165.95 Y150.53 E632.46767
G1 X165.29 Y150.53 E632.49503
G0 F6000 X164.79 Y151.03
G1 F3300 X164.79 Y141.09 E632.90816
G1 X161.49 Y141.09 E633.04536
G1 X161.49 Y166.63 E634.10744
G1 X138.95 Y166.63 E635.04459
G1 X138.95 Y138.13 E636.22944
G1 X166.45 Y138.13 E637.37271
G1 X166.45 Y151.03 E637.90862
G1 X164.79 Y151.03 E637.97755
G0 F6000 X164.68 Y141.20
G0 X161.60 Y141.20
G0 X154.75 Y141.13
G1 F3300 X140.50 Y141.13 E638.56995
G1 X140.50 Y165.63 E639.58850
G1 X154.75 Y165.63 E640.18091
G1 X154.75 Y141.13 E641.19946
G0 F6000 X154.25 Y141.63
;TYPE:WALL-OUTER
G1 F3300 X141.00 Y141.63 E641.75029
G1 X141.00 Y165.13 E642.72726
G1 X154.25 Y165.13 E643.27809
G1 X154.25 Y141.63 E644.25507
G0 F6000 X154.25 Y141.28
G0 X161.99 Y141.24
G0 X161.99 Y141.59
G1 F3300 X161.99 Y167.13 E645.31715
G1 X138.45 Y167.13 E646.29587
G1 X138.45 Y137.63 E647.52229
G1 X166.95 Y137.63 E648.70714
G1 X166.95 Y151.53 E649.28462
G1 X164.29 Y151.53 E649.39513
G1 X164.29 Y141.59 E649.80826
G1 X161.99 Y141.59 E649.90388
G0 F6000 X162.51 Y140.41
;TYPE:FILL
G1 F3300 X160.91 Y138.81 E649.99813
G0 F6000 X160.81 Y140.48
G1 F3300 X159.14 Y138.81 E650.09656
G0 F6000 X157.37 Y138.81
G1 F3300 X160.81 Y142.25 E650.29894
G0 F6000 X160.81 Y144.02
G1 F3300 X155.60 Y138.81 E650.60523
G0 F6000 X153.84 Y138.81
G1 F3300 X160.81 Y145.79 E651.01546
G0 F6000 X160.81 Y147.56
G1 F3300 X155.43 Y142.17 E651.33207
G0 F6000 X155.43 Y143.94
G1 F3300 X160.81 Y149.32 E651.64872
G0 F6000 X160.81 Y151.09
G1 F3300 X155.43 Y145.71 E651.96537
G0 F6000 X155.43 Y147.47
G1 F3300 X160.81 Y152.86 E652.28198
G0 F6000 X160.81 Y154.63
G1 F3300 X155.43 Y149.24 E652.59860
G0 F6000 X155.43 Y151.01
G1 F3300 X160.81 Y156.39 E652.91522
G0 F6000 X160.81 Y158.16
G1 F3300 X155.43 Y152.78 E653.23186
G0 F6000 X155.43 Y154.54
G1 F3300 X160.81 Y159.93 E653.54848
G0 F6000 X160.81 Y161.70
G1 F3300 X155.43 Y156.31 E653.86510
G0 F6000 X155.43 Y158.08
G1 F3300 X160.81 Y163.47 E654.18172
G0 F6000 X160.81 Y165.23
G1 F3300 X155.43 Y159.85 E654.49836
G0 F6000 X155.43 Y161.62
G1 F3300 X159.77 Y165.96 E654.75366
G0 F6000 X158.00 Y165.96
G1 F3300 X155.43 Y163.38 E654.90503
G0 F6000 X155.43 Y165.15
G1 F3300 X156.24 Y165.96 E654.95245
G0 F6000 X139.83 Y165.46
G1 F3300 X139.62 Y165.25 E654.96465
G0 F6000 X139.83 Y163.69
G1 F3300 X139.62 Y163.49 E654.97688
G0 F6000 X139.83 Y161.93
G1 F3300 X139.62 Y161.72 E654.98911
G0 F6000 X139.83 Y160.16
G1 F3300 X139.62 Y159.95 E655.00134
G0 F6000 X139.83 Y158.39
G1 F3300 X139.62 Y158.18 E655.01354
G0 F6000 X139.83 Y156.62
G1 F3300 X139.62 Y156.42 E655.02577
G0 F6000 X139.83 Y154.86
G1 F3300 X139.62 Y154.65 E655.03799
G0 F6000 X139.83 Y153.09
G1 F3300 X139.62 Y152.88 E655.05022
G0 F6000 X139.83 Y151.32
G1 F3300 X139.62 Y151.11 E655.06248
G0 F6000 X139.83 Y149.55
G1 F3300 X139.62 Y149.34 E655.07477
G0 F6000 X139.83 Y147.78
G1 F3300 X139.62 Y147.58 E655.08706
G0 F6000 X139.83 Y146.02
G1 F3300 X139.62 Y145.81 E655.09935
G0 F6000 X139.83 Y144.25
G1 F3300 X139.62 Y144.04 E655.11161
G0 F6000 X139.83 Y142.48
G1 F3300 X139.62 Y142.27 E655.12390
G0 F6000 X139.83 Y140.71
G1 F3300 X139.62 Y140.50 E655.13618
G0 F6000 X139.69 Y138.81
G1 F3300 X141.34 Y140.46 E655.23311
G0 F6000 X141.46 Y138.81
G1 F3300 X143.11 Y140.46 E655.33004
G0 F6000 X143.23 Y138.81
G1 F3300 X144.88 Y140.46 E655.42696
G0 F6000 X145.00 Y138.81
G1 F3300 X146.65 Y140.46 E655.52389
G0 F6000 X146.76 Y138.81
G1 F3300 X148.41 Y140.46 E655.62087
G0 F6000 X148.53 Y138.81
G1 F3300 X150.18 Y140.46 E655.71786
G0 F6000 X150.30 Y138.81
G1 F3300 X151.95 Y140.46 E655.81484
G0 F6000 X152.07 Y138.81
G1 F3300 X153.72 Y140.46 E655.91179
G0 F6000 X162.67 Y138.81
G1 F3300 X164.28 Y140.41 E656.00604
G0 F6000 X165.77 Y140.14
G1 F3300 X164.44 Y138.81 E656.08418
G0 F6000 X165.46 Y141.60
G1 F3300 X165.77 Y141.91 E656.10235
G0 F6000 X165.46 Y143.37
G1 F3300 X165.77 Y143.67 E656.12052
G0 F6000 X165.46 Y145.13
G1 F3300 X165.77 Y145.44 E656.13869
G0 F6000 X165.46 Y146.90
G1 F3300 X165.77 Y147.21 E656.15686
G0 F6000 X165.46 Y148.67
G1 F3300 X165.77 Y148.98 E656.17502
;LAYER:13
G0 F6000 X165.95 Y150.53 Z2.90
;TYPE:WALL-INNER
G1 F3300 X165.29 Y150.53 E656.20238
G1 X165.29 Y140.59 E656.61551
G1 X160.99 Y140.59 E656.79429
G1 X160.99 Y166.13 E657.85637
G1 X155.25 Y166.13 E658.09480
G1 X155.25 Y140.63 E659.15492
G1 X140.00 Y140.63 E659.78890
G1 X140.00 Y166.13 E660.84903
G1 X139.45 Y166.13 E660.87219
G1 X139.45 Y138.63 E662.01546
G1 X165.95 Y138.63 E663.11716
G1 X165.95 Y150.53 E663.61149
G0 F6000 X166.45 Y151.03
G1 F3300 X164.79 Y151.03 E663.68042
G1 X164.79 Y141.09 E664.09356
G1 X161.49 Y141.09 E664.23075
G1 X161.49 Y166.63 E665.29283
G1 X138.95 Y166.63 E666.22998
G1 X138.95 Y138.13 E667.41483
G1 X166.45 Y138.13 E668.55811
G1 X166.45 Y151.03 E669.09401
G0 F6000 X164.68 Y141.20
G0 X161.60 Y141.20
G0 X154.75 Y141.13
G1 F3300 X140.50 Y141.13 E669.68641
G1 X140.50 Y165.63 E670.70496
G1 X154.75 Y165.63 E671.29737
G1 X154.75 Y141.13 E672.31592
G0 F6000 X154.25 Y141.63
;TYPE:WALL-OUTER
G1 F3300 X141.00 Y141.63 E672.86675
G1 X141.00 Y165.13 E673.84372
G1 X154.25 Y165.13 E674.39455
G1 X154.25 Y141.63 E675.37153
G0 F6000 X154.25 Y141.28
G0 X161.99 Y141.24
G0 X161.99 Y141.59
G1 F3300 X161.99 Y167.13 E676.43361
G1 X138.45 Y167.13 E677.41233
G1 X138.45 Y137.63 E678.63875
G1 X166.95 Y137.63 E679.82360
G1 X166.95 Y151.53 E680.40108
G1 X164.29 Y151.53 E680.51159
G1 X164.29 Y141.59 E680.92472
G1 X161.99 Y141.59 E681.02035
G0 F6000 X162.76 Y140.41
;TYPE:FILL
G1 F3300 X164.36 Y138.81 E681.11463
G0 F6000 X165.77 Y139.17
G1 F3300 X164.53 Y140.41 E681.18783
G0 F6000 X165.46 Y141.24
G1 F3300 X165.77 Y140.94 E681.20591
G0 F6000 X165.77 Y142.70
G1 F3300 X165.46 Y143.01 E681.22399
G0 F6000 X165.77 Y144.47
G1 F3300 X165.46 Y144.78 E681.24210
G0 F6000 X165.77 Y146.24
G1 F3300 X165.46 Y146.55 E681.26020
G0 F6000 X165.77 Y148.01
G1 F3300 X165.46 Y148.31 E681.27828
G0 F6000 X165.77 Y149.78
G1 F3300 X165.46 Y150.08 E681.29636
G0 F6000 X164.68 Y141.20
G0 X161.60 Y141.20
G0 X160.81 Y149.43
G1 F3300 X155.43 Y154.81 E681.61289
G0 F6000 X155.43 Y153.05
G1 F3300 X160.81 Y147.66 E681.92945
G0 F6000 X160.81 Y145.89
G1 F3300 X155.43 Y151.28 E682.24601
G0 F6000 X155.43 Y149.51
G1 F3300 X160.81 Y144.13 E682.56257
G0 F6000 X160.81 Y142.36
G1 F3300 X155.43 Y147.74 E682.87913
G0 F6000 X155.43 Y145.97
G1 F3300 X160.81 Y140.59 E683.19569
G0 F6000 X160.99 Y140.41
G1 F3300 X162.59 Y138.81 E683.28997
G0 F6000 X160.83 Y138.81
G1 F3300 X155.43 Y144.21 E683.60735
G0 F6000 X155.43 Y142.44
G1 F3300 X159.06 Y138.81 E683.82078
G0 F6000 X157.29 Y138.81
G1 F3300 X155.43 Y140.67 E683.93026
G0 F6000 X153.87 Y140.46
G1 F3300 X155.52 Y138.81 E684.02733
G0 F6000 X153.76 Y138.81
G1 F3300 X152.10 Y140.46 E684.12440
G0 F6000 X151.99 Y138.81
G1 F3300 X150.34 Y140.46 E684.22147
G0 F6000 X150.22 Y138.81
G1 F3300 X148.57 Y140.46 E684.31855
G0 F6000 X148.45 Y138.81
G1 F3300 X146.80 Y140.46 E684.41556
G0 F6000 X146.69 Y138.81
G1 F3300 X145.03 Y140.46 E684.51260
G0 F6000 X144.92 Y138.81
G1 F3300 X143.27 Y140.46 E684.60965
G0 F6000 X143.15 Y138.81
G1 F3300 X141.50 Y140.46 E684.70666
G0 F6000 X141.38 Y138.81
G1 F3300 X139.62 Y140.57 E684.81008
G0 F6000 X139.83 Y142.13
G1 F3300 X139.62 Y142.34 E684.82225
G0 F6000 X139.83 Y143.90
G1 F3300 X139.62 Y144.10 E684.83445
G0 F6000 X139.83 Y145.66
G1 F3300 X139.62 Y145.87 E684.84662
G0 F6000 X139.83 Y147.43
G1 F3300 X139.62 Y147.64 E684.85879
G0 F6000 X139.83 Y149.20
G1 F3300 X139.62 Y149.41 E684.87097
G0 F6000 X139.83 Y150.97
G1 F3300 X139.62 Y151.18 E684.88314
G0 F6000 X139.83 Y152.74
G1 F3300 X139.62 Y152.94 E684.89528
G0 F6000 X139.83 Y154.50
G1 F3300 X139.62 Y154.71 E684.90742
G0 F6000 X139.83 Y156.27
G1 F3300 X139.62 Y156.48 E684.91953
G0 F6000 X139.83 Y158.04
G1 F3300 X139.62 Y158.25 E684.93164
G0 F6000 X139.83 Y159.81
G1 F3300 X139.62 Y160.01 E684.94378
G0 F6000 X139.83 Y161.57
G1 F3300 X139.62 Y161.78 E684.95593
G0 F6000 X139.83 Y163.34
G1 F3300 X139.62 Y163.55 E684.96804
G0 F6000 X139.83 Y165.11
G1 F3300 X139.62 Y165.32 E684.98015
G0 F6000 X140.61 Y165.53
G0 X155.43 Y165.42
G1 F3300 X160.81 Y160.04 E685.29671
G0 F6000 X160.81 Y161.80
G1 F3300 X156.66 Y165.96 E685.54098
G0 F6000 X158.43 Y165.96
G1 F3300 X160.81 Y163.57 E685.68129
G0 F6000 X160.81 Y165.34
G1 F3300 X160.19 Y165.96 E685.71769
G0 F6000 X155.43 Y163.65
G1 F3300 X160.81 Y158.27 E686.03425
G0 F6000 X160.81 Y156.50
G1 F3300 X155.43 Y161.88 E686.35081
G0 F6000 X155.43 Y160.12
G1 F3300 X160.81 Y154.73 E686.66736
G0 F6000 X160.81 Y152.97
G1 F3300 X155.43 Y158.35 E686.98392
G0 F6000 X155.43 Y156.58
G1 F3300 X160.81 Y151.20 E687.30048
;LAYER:14
G0 F6000 X161.60 Y141.20 Z3.10
G0 X164.68 Y141.20
G0 X165.29 Y150.53
;TYPE:WALL-INNER
G1 F3300 X165.29 Y140.59 E687.71361
G1 X160.99 Y140.59 E687.89239
G1 X160.99 Y166.13 E688.95447
G1 X155.25 Y166.13 E689.19290
G1 X155.25 Y140.63 E690.25303
G1 X140.00 Y140.63 E690.88701
G1 X140.00 Y166.13 E691.94713
G1 X139.45 Y166.13 E691.97029
G1 X139.45 Y138.63 E693.11356
G1 X165.95 Y138.63 E694.21526
G1 X165.95 Y150.53 E694.70959
G1 X165.29 Y150.53 E694.73695
G0 F6000 X164.79 Y151.03
G1 F3300 X164.79 Y141.09 E695.15008
G1 X161.49 Y141.09 E695.28728
G1 X161.49 Y166.63 E696.34936
G1 X138.95 Y166.63 E697.28651
G1 X138.95 Y138.13 E698.47136
G1 X166.45 Y138.13 E699.61463
G1 X166.45 Y151.03 E700.15054
G1 X164.79 Y151.03 E700.21947
G0 F6000 X164.68 Y141.20
G0 X161.60 Y141.20
G0 X154.75 Y141.13
G1 F3300 X140.50 Y141.13 E700.81187
G1 X140.50 Y165.63 E701.83042
G1 X154.75 Y165.63 E702.42283
G1 X154.75 Y141.13 E703.44138
G0 F6000 X154.25 Y141.63
;TYPE:WALL-OUTER
G1 F3300 X141.00 Y141.63 E703.99221
G1 X141.00 Y165.13 E704.96918
G1 X154.25 Y165.13 E705.52001
G1 X154.25 Y141.63 E706.49698
G0 F6000 X154.25 Y141.28
G0 X161.99 Y141.24
G0 X161.99 Y141.59
G1 F3300 X161.99 Y167.13 E707.55906
G1 X138.45 Y167.13 E708.53779
G1 X138.45 Y137.63 E709.76421
G1 X166.95 Y137.63 E710.94906
G1 X166.95 Y151.53 E711.52654
G1 X164.29 Y151.53 E711.63705
G1 X164.29 Y141.59 E712.05018
G1 X161.99 Y141.59 E712.14580
G0 F6000 X162.51 Y140.41
;TYPE:FILL
G1 F3300 X160.91 Y138.81 E712.24005
G0 F6000 X160.81 Y140.48
G1 F3300 X159.14 Y138.81 E712.33848
G0 F6000 X157.37 Y138.81
G1 F3300 X160.81 Y142.25 E712.54085
G0 F6000 X160.81 Y144.02
G1 F3300 X155.60 Y138.81 E712.84715
G0 F6000 X153.84 Y138.81
G1 F3300 X160.81 Y145.79 E713.25737
G0 F6000 X160.81 Y147.56
G1 F3300 X155.43 Y142.17 E713.57399
G0 F6000 X155.43 Y143.94
G1 F3300 X160.81 Y149.32 E713.89064
G0 F6000 X160.81 Y151.09
G1 F3300 X155.43 Y145.71 E714.20728
G0 F6000 X155.43 Y147.47
G1 F3300 X160.81 Y152.86 E714.52390
G0 F6000 X160.81 Y154.63
G1 F3300 X155.43 Y149.24 E714.84052
G0 F6000 X155.43 Y151.01
G1 F3300 X160.81 Y156.39 E715.15714
G0 F6000 X160.81 Y158.16
G1 F3300 X155.43 Y152.78 E715.47378
G0 F6000 X155.43 Y154.54
G1 F3300 X160.81 Y159.93 E715.79040
G0 F6000 X160.81 Y161.70
G1 F3300 X155.43 Y156.31 E716.10702
G0 F6000 X155.43 Y158.08
G1 F3300 X160.81 Y163.47 E716.42364
G0 F6000 X160.81 Y165.23
G1 F3300 X155.43 Y159.85 E716.74028
G0 F6000 X155.43 Y161.62
G1 F3300 X159.77 Y165.96 E716.99558
G0 F6000 X158.00 Y165.96
G1 F3300 X155.43 Y163.38 E717.14695
G0 F6000 X155.43 Y165.15
G1 F3300 X156.24 Y165.96 E717.19437
G0 F6000 X139.83 Y165.46
G1 F3300 X139.62 Y165.25 E717.20657
G0 F6000 X139.83 Y163.69
G1 F3300 X139.62 Y163.49 E717.21880
G0 F6000 X139.83 Y161.93
G1 F3300 X139.62 Y161.72 E717.23102
G0 F6000 X139.83 Y160.16
G1 F3300 X139.62 Y159.95 E717.24325
G0 F6000 X139.83 Y158.39
G1 F3300 X139.62 Y158.18 E717.25545
G0 F6000 X139.83 Y156.62
G1 F3300 X139.62 Y156.42 E717.26768
G0 F6000 X139.83 Y154.86
G1 F3300 X139.62 Y154.65 E717.27991
G0 F6000 X139.83 Y153.09
G1 F3300 X139.62 Y152.88 E717.29214
G0 F6000 X139.83 Y151.32
G1 F3300 X139.62 Y151.11 E717.30440
G0 F6000 X139.83 Y149.55
G1 F3300 X139.62 Y149.34 E717.31669
G0 F6000 X139.83 Y147.78
G1 F3300 X139.62 Y147.58 E717.32898
G0 F6000 X139.83 Y146.02
G1 F3300 X139.62 Y145.81 E717.34127
G0 F6000 X139.83 Y144.25
G1 F3300 X139.62 Y144.04 E717.35353
G0 F6000 X139.83 Y142.48
G1 F3300 X139.62 Y142.27 E717.36582
G0 F6000 X139.83 Y140.71
G1 F3300 X139.62 Y140.50 E717.37810
G0 F6000 X139.69 Y138.81
G1 F3300 X141.34 Y140.46 E717.47503
G0 F6000 X141.46 Y138.81
G1 F3300 X143.11 Y140.46 E717.57195
G0 F6000 X143.23 Y138.81
G1 F3300 X144.88 Y140.46 E717.66888
G0 F6000 X145.00 Y138.81
G1 F3300 X146.65 Y140.46 E717.76581
G0 F6000 X146.76 Y138.81
G1 F3300 X148.41 Y140.46 E717.86279
G0 F6000 X148.53 Y138.81
G1 F3300 X150.18 Y140.46 E717.95977
G0 F6000 X150.30 Y138.81
G1 F3300 X151.95 Y140.46 E718.05676
G0 F6000 X152.07 Y138.81
G1 F3300 X153.72 Y140.46 E718.15371
G0 F6000 X162.67 Y138.81
G1 F3300 X164.28 Y140.41 E718.24796
G0 F6000 X165.77 Y140.14
G1 F3300 X164.44 Y138.81 E718.32610
G0 F6000 X165.46 Y141.60
G1 F3300 X165.77 Y141.91 E718.34427
G0 F6000 X165.46 Y143.37
G1 F3300 X165.77 Y143.67 E718.36244
G0 F6000 X165.46 Y145.13
G1 F3300 X165.77 Y145.44 E718.38061
G0 F6000 X165.46 Y146.90
G1 F3300 X165.77 Y147.21 E718.39878
G0 F6000 X165.46 Y148.67
G1 F3300 X165.77 Y148.98 E718.41694
;LAYER:15
G0 F6000 X165.95 Y150.53 Z3.30
;TYPE:WALL-INNER
G1 F3300 X165.29 Y150.53 E718.44430
G1 X165.29 Y140.59 E718.85743
G1 X160.99 Y140.59 E719.03621
G1 X160.99 Y166.13 E720.09829
G1 X155.25 Y166.13 E720.33672
G1 X155.25 Y140.63 E721.39684
G1 X140.00 Y140.63 E722.03082
G1 X140.00 Y166.13 E723.09095
G1 X139.45 Y166.13 E723.11411
G1 X139.45 Y138.63 E724.25738
G1 X165.95 Y138.63 E725.35908
G1 X165.95 Y150.53 E725.85341
G0 F6000 X166.45 Y151.03
G1 F3300 X164.79 Y151.03 E725.92234
G1 X164.79 Y141.09 E726.33548
G1 X161.49 Y141.09 E726.47267
G1 X161.49 Y166.63 E727.53475
G1 X138.95 Y166.63 E728.47190
G1 X138.95 Y138.13 E729.65675
G1 X166.45 Y138.13 E730.80002
G1 X166.45 Y151.03 E731.33593
G0 F6000 X164.68 Y141.20
G0 X161.60 Y141.20
G0 X154.75 Y141.13
G1 F3300 X140.50 Y141.13 E731.92833
G1 X140.50 Y165.63 E732.94688
G1 X154.75 Y165.63 E733.53929
G1 X154.75 Y141.13 E734.55784
G0 F6000 X154.25 Y141.63
;TYPE:WALL-OUTER
G1 F3300 X141.00 Y141.63 E735.10867
G1 X141.00 Y165.13 E736.08564
G1 X154.25 Y165.13 E736.63647
G1 X154.25 Y141.63 E737.61345
G0 F6000 X154.25 Y141.28
G0 X161.99 Y141.24
G0 X161.99 Y141.59
G1 F3300 X161.99 Y167.13 E738.67553
G1 X138.45 Y167.13 E739.65425
G1 X138.45 Y137.63 E740.88067
G1 X166.95 Y137.63 E742.06552
G1 X166.95 Y151.53 E742.64300
G1 X164.29 Y151.53 E742.75351
G1 X164.29 Y141.59 E743.16664
G1 X161.99 Y141.59 E743.26226
G0 F6000 X162.76 Y140.41
;TYPE:FILL
G1 F3300 X164.36 Y138.81 E743.35654
G0 F6000 X165.77 Y139.17
G1 F3300 X164.53 Y140.41 E743.42975
G0 F6000 X165.46 Y141.24
G1 F3300 X165.77 Y140.94 E743.44783
G0 F6000 X165.77 Y142.70
G1 F3300 X165.46 Y143.01 E743.46591
G0 F6000 X165.77 Y144.47
G1 F3300 X165.46 Y144.78 E743.48401
G0 F6000 X165.77 Y146.24
G1 F3300 X165.46 Y146.55 E743.50212
G0 F6000 X165.77 Y148.01
G1 F3300 X165.46 Y148.31 E743.52020
G0 F6000 X165.77 Y149.78
G1 F3300 X165.46 Y150.08 E743.53828
G0 F6000 X164.68 Y141.20
G0 X161.60 Y141.20
G0 X160.81 Y149.43
G1 F3300 X155.43 Y154.81 E743.85481
G0 F6000 X155.43 Y153.05
G1 F3300 X160.81 Y147.66 E744.17137
G0 F6000 X160.81 Y145.89
G1 F3300 X155.43 Y151.28 E744.48793
G0 F6000 X155.43 Y149.51
G1 F3300 X160.81 Y144.13 E744.80449
G0 F6000 X160.81 Y142.36
G1 F3300 X155.43 Y147.74 E745.12105
G0 F6000 X155.43 Y145.97
G1 F3300 X160.81 Y140.59 E745.43761
G0 F6000 X160.99 Y140.41
G1 F3300 X162.59 Y138.81 E745.53188
G0 F6000 X160.83 Y138.81
G1 F3300 X155.43 Y144.21 E745.84927
G0 F6000 X155.43 Y142.44
G1 F3300 X159.06 Y138.81 E746.06270
G0 F6000 X157.29 Y138.81
G1 F3300 X155.43 Y140.67 E746.17218
G0 F6000 X153.87 Y140.46
G1 F3300 X155.52 Y138.81 E746.26925
G0 F6000 X153.76 Y138.81
G1 F3300 X152.10 Y140.46 E746.36632
G0 F6000 X151.99 Y138.81
G1 F3300 X150.34 Y140.46 E746.46339
G0 F6000 X150.22 Y138.81
G1 F3300 X148.57 Y140.46 E746.56047
G0 F6000 X148.45 Y138.81
G1 F3300 X146.80 Y140.46 E746.65748
G0 F6000 X146.69 Y138.81
G1 F3300 X145.03 Y140.46 E746.75452
G0 F6000 X144.92 Y138.81
G1 F3300 X143.27 Y140.46 E746.85156
G0 F6000 X143.15 Y138.81
G1 F3300 X141.50 Y140.46 E746.94858
G0 F6000 X141.38 Y138.81
G1 F3300 X139.62 Y140.57 E747.05200
G0 F6000 X139.83 Y142.13
G1 F3300 X139.62 Y142.34 E747.06417
G0 F6000 X139.83 Y143.90
G1 F3300 X139.62 Y144.10 E747.07637
G0 F6000 X139.83 Y145.66
G1 F3300 X139.62 Y145.87 E747.08854
G0 F6000 X139.83 Y147.43
G1 F3300 X139.62 Y147.64 E747.10071
G0 F6000 X139.83 Y149.20
G1 F3300 X139.62 Y149.41 E747.11288
G0 F6000 X139.83 Y150.97
G1 F3300 X139.62 Y151.18 E747.12506
G0 F6000 X139.83 Y152.74
G1 F3300 X139.62 Y152.94 E747.13720
G0 F6000 X139.83 Y154.50
G1 F3300 X139.62 Y154.71 E747.14934
G0 F6000 X139.83 Y156.27
G1 F3300 X139.62 Y156.48 E747.16145
G0 F6000 X139.83 Y158.04
G1 F3300 X139.62 Y158.25 E747.17356
G0 F6000 X139.83 Y159.81
G1 F3300 X139.62 Y160.01 E747.18570
G0 F6000 X139.83 Y161.57
G1 F3300 X139.62 Y161.78 E747.19785
G0 F6000 X139.83 Y163.34
G1 F3300 X139.62 Y163.55 E747.20996
G0 F6000 X139.83 Y165.11
G1 F3300 X139.62 Y165.32 E747.22207
G0 F6000 X140.61 Y165.53
G0 X155.43 Y165.42
G1 F3300 X160.81 Y160.04 E747.53863
G0 F6000 X160.81 Y161.80
G1 F3300 X156.66 Y165.96 E747.78290
G0 F6000 X158.43 Y165.96
G1 F3300 X160.81 Y163.57 E747.92321
G0 F6000 X160.81 Y165.34
G1 F3300 X160.19 Y165.96 E747.95961
G0 F6000 X155.43 Y163.65
G1 F3300 X160.81 Y158.27 E748.27617
G0 F6000 X160.81 Y156.50
G1 F3300 X155.43 Y161.88 E748.59273
G0 F6000 X155.43 Y160.12
G1 F3300 X160.81 Y154.73 E748.90928
G0 F6000 X160.81 Y152.97
G1 F3300 X155.43 Y158.35 E749.22584
G0 F6000 X155.43 Y156.58
G1 F3300 X160.81 Y151.20 E749.54240
;LAYER:16
G0 F6000 X161.60 Y141.20 Z3.50
G0 X164.68 Y141.20
G0 X165.29 Y150.53
;TYPE:WALL-INNER
G1 F3300 X165.29 Y140.59 E749.95553
G1 X160.99 Y140.59 E750.13431
G1 X160.99 Y166.13 E751.19639
G1 X155.25 Y166.13 E751.43482
G1 X155.25 Y140.63 E752.49494
G1 X140.00 Y140.63 E753.12892
G1 X140.00 Y166.13 E754.18905
G1 X139.45 Y166.13 E754.21221
G1 X139.45 Y138.63 E755.35548
G1 X165.95 Y138.63 E756.45718
G1 X165.95 Y150.53 E756.95151
G1 X165.29 Y150.53 E756.97887
G0 F6000 X164.79 Y151.03
G1 F3300 X164.79 Y141.09 E757.39200
G1 X161.49 Y141.09 E757.52920
G1 X161.49 Y166.63 E758.59128
G1 X138.95 Y166.63 E759.52842
G1 X138.95 Y138.13 E760.71327
G1 X166.45 Y138.13 E761.85655
G1 X166.45 Y151.03 E762.39245
G1 X164.79 Y151.03 E762.46139
G0 F6000 X164.68 Y141.20
G0 X161.60 Y141.20
G0 X154.75 Y141.13
G1 F3300 X140.50 Y141.13 E763.05379
G1 X140.50 Y165.63 E764.07234
G1 X154.75 Y165.63 E764.66475
G1 X154.75 Y141.13 E765.68330
G0 F6000 X154.25 Y141.63
;TYPE:WALL-OUTER
G1 F3300 X141.00 Y141.63 E766.23412
G1 X141.00 Y165.13 E767.21110
G1 X154.25 Y165.13 E767.76193
G1 X154.25 Y141.63 E768.73890
G0 F6000 X154.25 Y141.28
G0 X161.99 Y141.24
G0 X161.99 Y141.59
G1 F3300 X161.99 Y167.13 E769.80098
G1 X138.45 Y167.13 E770.77970
G1 X138.45 Y137.63 E772.00613
G1 X166.95 Y137.63 E773.19098
G1 X166.95 Y151.53 E773.76846
G1 X164.29 Y151.53 E773.87897
G1 X164.29 Y141.59 E774.29210
G1 X161.99 Y141.59 E774.38772
G0 F6000 X162.51 Y140.41
;TYPE:FILL
G1 F3300 X160.91 Y138.81 E774.48197
G0 F6000 X160.81 Y140.48
G1 F3300 X159.14 Y138.81 E774.58040
G0 F6000 X157.37 Y138.81
G1 F3300 X160.81 Y142.25 E774.78277
G0 F6000 X160.81 Y144.02
G1 F3300 X155.60 Y138.81 E775.08907
G0 F6000 X153.84 Y138.81
G1 F3300 X160.81 Y145.79 E775.49929
G0 F6000 X160.81 Y147.56
G1 F3300 X155.43 Y142.17 E775.81591
G0 F6000 X155.43 Y143.94
G1 F3300 X160.81 Y149.32 E776.13256
G0 F6000 X160.81 Y151.09
G1 F3300 X155.43 Y145.71 E776.44920
G0 F6000 X155.43 Y147.47
G1 F3300 X160.81 Y152.86 E776.76582
G0 F6000 X160.81 Y154.63
G1 F3300 X155.43 Y149.24 E777.08244
G0 F6000 X155.43 Y151.01
G1 F3300 X160.81 Y156.39 E777.39906
G0 F6000 X160.81 Y158.16
G1 F3300 X155.43 Y152.78 E777.71570
G0 F6000 X155.43 Y154.54
G1 F3300 X160.81 Y159.93 E778.03232
G0 F6000 X160.81 Y161.70
G1 F3300 X155.43 Y156.31 E778.34894
G0 F6000 X155.43 Y158.08
G1 F3300 X160.81 Y163.47 E778.66555
G0 F6000 X160.81 Y165.23
G1 F3300 X155.43 Y159.85 E778.98220
G0 F6000 X155.43 Y161.62
G1 F3300 X159.77 Y165.96 E779.23749
G0 F6000 X158.00 Y165.96
G1 F3300 X155.43 Y163.38 E779.38887
G0 F6000 X155.43 Y165.15
G1 F3300 X156.24 Y165.96 E779.43628
G0 F6000 X139.83 Y165.46
G1 F3300 X139.62 Y165.25 E779.44848
G0 F6000 X139.83 Y163.69
G1 F3300 X139.62 Y163.49 E779.46071
G0 F6000 X139.83 Y161.93
G1 F3300 X139.62 Y161.72 E779.47294
G0 F6000 X139.83 Y160.16
G1 F3300 X139.62 Y159.95 E779.48517
G0 F6000 X139.83 Y158.39
G1 F3300 X139.62 Y158.18 E779.49737
G0 F6000 X139.83 Y156.62
G1 F3300 X139.62 Y156.42 E779.50960
G0 F6000 X139.83 Y154.86
G1 F3300 X139.62 Y154.65 E779.52183
G0 F6000 X139.83 Y153.09
G1 F3300 X139.62 Y152.88 E779.53406
G0 F6000 X139.83 Y151.32
G1 F3300 X139.62 Y151.11 E779.54632
G0 F6000 X139.83 Y149.55
G1 F3300 X139.62 Y149.34 E779.55861
G0 F6000 X139.83 Y147.78
G1 F3300 X139.62 Y147.58 E779.57090
G0 F6000 X139.83 Y146.02
G1 F3300 X139.62 Y145.81 E779.58319
G0 F6000 X139.83 Y144.25
G1 F3300 X139.62 Y144.04 E779.59545
G0 F6000 X139.83 Y142.48
G1 F3300 X139.62 Y142.27 E779.60773
G0 F6000 X139.83 Y140.71
G1 F3300 X139.62 Y140.50 E779.62002
G0 F6000 X139.69 Y138.81
G1 F3300 X141.34 Y140.46 E779.71695
G0 F6000 X141.46 Y138.81
G1 F3300 X143.11 Y140.46 E779.81387
G0 F6000 X143.23 Y138.81
G1 F3300 X144.88 Y140.46 E779.91080
G0 F6000 X145.00 Y138.81
G1 F3300 X146.65 Y140.46 E780.00772
G0 F6000 X146.76 Y138.81
G1 F3300 X148.41 Y140.46 E780.10471
G0 F6000 X148.53 Y138.81
G1 F3300 X150.18 Y140.46 E780.20169
G0 F6000 X150.30 Y138.81
G1 F3300 X151.95 Y140.46 E780.29868
G0 F6000 X152.07 Y138.81
G1 F3300 X153.72 Y140.46 E780.39563
G0 F6000 X162.67 Y138.81
G1 F3300 X164.28 Y140.41 E780.48988
G0 F6000 X165.77 Y140.14
G1 F3300 X164.44 Y138.81 E780.56802
G0 F6000 X165.46 Y141.60
G1 F3300 X165.77 Y141.91 E780.58619
G0 F6000 X165.46 Y143.37
G1 F3300 X165.77 Y143.67 E780.60436
G0 F6000 X165.46 Y145.13
G1 F3300 X165.77 Y145.44 E780.62253
G0 F6000 X165.46 Y146.90
G1 F3300 X165.77 Y147.21 E780.64069
G0 F6000 X165.46 Y148.67
G1 F3300 X165.77 Y148.98 E780.65886
;LAYER:17
G0 F6000 X165.95 Y150.53 Z3.70
;TYPE:WALL-INNER
G1 F3300 X165.29 Y150.53 E780.68622
G1 X165.29 Y140.59 E781.09935
G1 X160.99 Y140.59 E781.27812
G1 X160.99 Y166.13 E782.34020
G1 X155.25 Y166.13 E782.57864
G1 X155.25 Y140.63 E783.63876
G1 X140.00 Y140.63 E784.27274
G1 X140.00 Y166.13 E785.33287
G1 X139.45 Y166.13 E785.35603
G1 X139.45 Y138.63 E786.49930
G1 X165.95 Y138.63 E787.60100
G1 X165.95 Y150.53 E788.09533
G0 F6000 X166.45 Y151.03
G1 F3300 X164.79 Y151.03 E788.16426
G1 X164.79 Y141.09 E788.57739
G1 X161.49 Y141.09 E788.71459
