;-- START GCODE --
;Sliced for Type A Machines Series 1
;Sliced at: Sun 10-01-2016 20:35:09
;Basic settings: Layer height: 0.2 Walls: 1 Fill: 100
;Print Speed: 120 Support: 0
;Retraction Speed: 40 Retraction Distance: 1.2
;Print time: #P_TIME#
;Filament used: #F_AMNT#m #F_WGHT#g
;Filament cost: #F_COST#
M106 S255	 ;start with the fan on
G21        ;metric values
G90        ;absolute positioning
M106 S255    ;start with the fan on
G28     ;move to endstops
G29		;allows for auto-levelling
G1 X150 Y5  Z15.0 F6000 ;center and move the platform down 15mm
M109 S220 ;Heat To temp
G92 E0                  ;zero the extruded length
G1 F200 E30              ;extrude 30mm of feed stock
G92 E0                  ;zero the extruded length again
G1 X175 Y25  Z0 F6000 ;remove bugger
G1 X220 F6000 ;remove bugger
G1 X150 Y150  Z15 F6000 ;recenter and begin
G1 F6000

;Layer count: 10
;LAYER:0
M106 S255
G0 F6000 X68.95 Y124.36 Z0.30
;TYPE:SKIRT
G1 F2700 X236.05 Y124.36 E10.42069
G1 X236.05 Y180.64 E13.93034
G1 X68.95 Y180.64 E24.35103
G1 X68.95 Y124.36 E27.86068
G0 F6000 X69.45 Y124.86
G1 F2700 X235.55 Y124.86 E38.21901
G1 X235.55 Y180.14 E41.66630
G1 X69.45 Y180.14 E52.02463
G1 X69.45 Y124.86 E55.47192
G0 F6000 X69.95 Y125.36
G1 F2700 X235.05 Y125.36 E65.76788
G1 X235.05 Y179.64 E69.15281
G1 X69.95 Y179.64 E79.44878
G1 X69.95 Y125.36 E82.83370
G0 F6000 X70.45 Y125.86
G1 F2700 X234.55 Y125.86 E93.06730
G1 X234.55 Y179.14 E96.38987
G1 X70.45 Y179.14 E106.62347
G1 X70.45 Y125.86 E109.94603
G0 F6000 X70.95 Y126.36
G1 F2700 X234.05 Y126.36 E120.11727
G1 X234.05 Y178.64 E123.37747
G1 X70.95 Y178.64 E133.54871
G1 X70.95 Y126.36 E136.80891
G0 F6000 X71.45 Y126.86
G1 F2700 X233.55 Y126.86 E146.91779
G1 X233.55 Y178.14 E150.11563
G1 X71.45 Y178.14 E160.22451
G1 X71.45 Y126.86 E163.42234
G0 F6000 X71.95 Y127.36
G1 F2700 X233.05 Y127.36 E173.46886
G1 X233.05 Y177.64 E176.60433
G1 X71.95 Y177.64 E186.65085
G1 X71.95 Y127.36 E189.78632
G0 F6000 X72.45 Y127.86
G1 F2700 X232.55 Y127.86 E199.77047
G1 X232.55 Y177.14 E202.84359
G1 X72.45 Y177.14 E212.82774
G1 X72.45 Y127.86 E215.90085
G0 F6000 X72.95 Y128.36
G1 F2700 X232.05 Y128.36 E225.82264
G1 X232.05 Y176.64 E228.83339
G1 X72.95 Y176.64 E238.75518
G1 X72.95 Y128.36 E241.76593
G0 F6000 X73.45 Y128.86
G1 F2700 X231.55 Y128.86 E251.62535
G1 X231.55 Y176.14 E254.57374
G1 X73.45 Y176.14 E264.43317
G1 X73.45 Y128.86 E267.38155
G0 F6000 X73.95 Y129.36
G1 F2700 X231.05 Y129.36 E277.17862
G1 X231.05 Y175.64 E280.06464
G1 X73.95 Y175.64 E289.86170
G1 X73.95 Y129.36 E292.74773
G0 F6000 X74.45 Y129.86
G1 F2700 X230.55 Y129.86 E302.48243
G1 X230.55 Y175.14 E305.30609
G1 X74.45 Y175.14 E315.04079
G1 X74.45 Y129.86 E317.86445
G0 F6000 X74.95 Y130.36
G1 F2700 X230.05 Y130.36 E327.53679
G1 X230.05 Y174.64 E330.29809
G1 X74.95 Y174.64 E339.97042
G1 X74.95 Y130.36 E342.73172
G0 F6000 X75.45 Y130.86
G1 F2700 X229.55 Y130.86 E352.34170
G1 X229.55 Y174.14 E355.04063
G1 X75.45 Y174.14 E364.65061
G1 X75.45 Y130.86 E367.34954
G0 F6000 X75.95 Y131.36
G1 F2700 X229.05 Y131.36 E376.89716
G1 X229.05 Y173.64 E379.53373
G1 X75.95 Y173.64 E389.08134
G1 X75.95 Y131.36 E391.71791
G0 F6000 X76.45 Y131.86
G1 F2700 X228.55 Y131.86 E401.20316
G1 X228.55 Y173.14 E403.77737
G1 X76.45 Y173.14 E413.26262
G1 X76.45 Y131.86 E415.83683
G0 F6000 X76.95 Y132.36
G1 F2700 X228.05 Y132.36 E425.25972
G1 X228.05 Y172.64 E427.77157
G1 X76.95 Y172.64 E437.19446
G1 X76.95 Y132.36 E439.70630
G0 F6000 X77.45 Y132.86
G1 F2700 X227.55 Y132.86 E449.06683
G1 X227.55 Y172.14 E451.51631
G1 X77.45 Y172.14 E460.87684
G1 X77.45 Y132.86 E463.32632
G0 F6000 X77.95 Y133.36
G1 F2700 X227.05 Y133.36 E472.62448
G1 X227.05 Y171.64 E475.01160
G1 X77.95 Y171.64 E484.30977
G1 X77.95 Y133.36 E486.69689
G0 F6000 X78.45 Y133.86
G1 F2700 X226.55 Y133.86 E495.93269
G1 X226.55 Y171.14 E498.25744
G1 X78.45 Y171.14 E507.49324
G1 X78.45 Y133.86 E509.81800
G0 F6000 X78.95 Y134.36
G1 F2700 X226.05 Y134.36 E518.99144
G1 X226.05 Y170.64 E521.25383
G1 X78.95 Y170.64 E530.42727
G1 X78.95 Y134.36 E532.68967
G0 F6000 X79.45 Y134.86
G1 F2700 X225.55 Y134.86 E541.80074
G1 X225.55 Y170.14 E544.00077
G1 X79.45 Y170.14 E553.11185
G1 X79.45 Y134.86 E555.31188
G0 F6000 X79.95 Y135.36
G1 F2700 X225.05 Y135.36 E564.36059
G1 X225.05 Y169.64 E566.49826
G1 X79.95 Y169.64 E575.54697
G1 X79.95 Y135.36 E577.68464
G0 F6000 X80.45 Y135.86
G1 F2700 X224.55 Y135.86 E586.67099
G1 X224.55 Y169.14 E588.74630
G1 X80.45 Y169.14 E597.73265
G1 X80.45 Y135.86 E599.80795
G0 F6000 X80.95 Y136.36
G1 F2700 X224.05 Y136.36 E608.73194
G1 X224.05 Y168.64 E610.74488
G1 X80.95 Y168.64 E619.66887
G1 X80.95 Y136.36 E621.68181
G0 F6000 X81.95 Y137.36
;TYPE:WALL-INNER
G1 F2700 X223.05 Y137.36 E630.48107
G1 X223.05 Y167.64 E632.36929
G1 X81.95 Y167.64 E641.16855
G1 X81.95 Y137.36 E643.05677
G0 F6000 X81.45 Y136.86
;TYPE:WALL-OUTER
G1 F2700 X223.55 Y136.86 E651.91840
G1 X223.55 Y168.14 E653.86898
G1 X81.45 Y168.14 E662.73060
G1 X81.45 Y136.86 E664.68118
G0 F6000 X82.12 Y137.63
;TYPE:FILL
G1 F2700 X111.95 Y167.46 E667.31202
G0 F6000 X111.25 Y167.46
G1 F2700 X82.12 Y138.34 E669.88050
G0 F6000 X82.12 Y139.05
G1 F2700 X110.54 Y167.46 E672.38663
G0 F6000 X109.83 Y167.46
G1 F2700 X82.12 Y139.75 E674.83040
G0 F6000 X82.12 Y140.46
G1 F2700 X109.13 Y167.46 E677.21182
G0 F6000 X108.42 Y167.46
G1 F2700 X82.12 Y141.17 E679.53084
G0 F6000 X82.12 Y141.88
G1 F2700 X107.71 Y167.46 E681.78747
G0 F6000 X107.00 Y167.46
G1 F2700 X82.12 Y142.58 E683.98174
G0 F6000 X82.12 Y143.29
G1 F2700 X106.30 Y167.46 E686.11366
G0 F6000 X105.59 Y167.46
G1 F2700 X82.12 Y144.00 E688.18323
G0 F6000 X82.12 Y144.70
G1 F2700 X104.88 Y167.46 E690.19044
G0 F6000 X104.18 Y167.46
G1 F2700 X82.12 Y145.41 E692.13530
G0 F6000 X82.12 Y146.12
G1 F2700 X103.47 Y167.46 E694.01781
G0 F6000 X102.76 Y167.46
G1 F2700 X82.12 Y146.82 E695.83796
G0 F6000 X82.12 Y147.53
G1 F2700 X102.06 Y167.46 E697.59576
G0 F6000 X101.35 Y167.46
G1 F2700 X82.12 Y148.24 E699.29116
G0 F6000 X82.12 Y148.95
G1 F2700 X100.64 Y167.46 E700.92417
G0 F6000 X99.93 Y167.46
G1 F2700 X82.12 Y149.65 E702.49482
G0 F6000 X82.12 Y150.36
G1 F2700 X99.23 Y167.46 E704.00312
G0 F6000 X98.52 Y167.46
G1 F2700 X82.12 Y151.07 E705.44906
G0 F6000 X82.12 Y151.78
G1 F2700 X97.81 Y167.46 E706.83265
G0 F6000 X97.11 Y167.46
G1 F2700 X82.12 Y152.48 E708.15389
G0 F6000 X82.12 Y153.19
G1 F2700 X96.40 Y167.46 E709.41278
G0 F6000 X95.69 Y167.46
G1 F2700 X82.12 Y153.90 E710.60931
G0 F6000 X82.12 Y154.60
G1 F2700 X94.98 Y167.46 E711.74344
G0 F6000 X94.28 Y167.46
G1 F2700 X82.12 Y155.31 E712.81518
G0 F6000 X82.12 Y156.02
G1 F2700 X93.57 Y167.46 E713.82456
G0 F6000 X92.86 Y167.46
G1 F2700 X82.12 Y156.72 E714.77159
G0 F6000 X82.12 Y157.43
G1 F2700 X92.16 Y167.46 E715.65627
G0 F6000 X91.45 Y167.46
G1 F2700 X82.12 Y158.14 E716.47859
G0 F6000 X82.12 Y158.85
G1 F2700 X90.74 Y167.46 E717.23856
G0 F6000 X90.03 Y167.46
G1 F2700 X82.12 Y159.55 E717.93618
G0 F6000 X82.12 Y160.26
G1 F2700 X89.33 Y167.46 E718.57144
G0 F6000 X88.62 Y167.46
G1 F2700 X82.12 Y160.97 E719.14431
G0 F6000 X82.12 Y161.68
G1 F2700 X87.91 Y167.46 E719.65478
G0 F6000 X87.21 Y167.46
G1 F2700 X82.12 Y162.38 E720.10289
G0 F6000 X82.12 Y163.09
G1 F2700 X86.50 Y167.46 E720.48865
G0 F6000 X85.79 Y167.46
G1 F2700 X82.12 Y163.80 E720.81206
G0 F6000 X82.12 Y164.50
G1 F2700 X85.08 Y167.46 E721.07312
G0 F6000 X84.38 Y167.46
G1 F2700 X82.12 Y165.21 E721.27182
G0 F6000 X82.12 Y165.92
G1 F2700 X83.67 Y167.46 E721.40817
G0 F6000 X82.96 Y167.46
G1 F2700 X82.12 Y166.62 E721.48216
G0 F6000 X82.12 Y167.33
G1 F2700 X82.26 Y167.46 E721.49380
G0 F6000 X82.73 Y137.53
G1 F2700 X112.66 Y167.46 E724.13324
G0 F6000 X113.37 Y167.46
G1 F2700 X83.44 Y137.53 E726.77267
G0 F6000 X84.15 Y137.53
G1 F2700 X114.08 Y167.46 E729.41210
G0 F6000 X114.78 Y167.46
G1 F2700 X84.86 Y137.53 E732.05154
G0 F6000 X85.56 Y137.53
G1 F2700 X115.49 Y167.46 E734.69101
G0 F6000 X116.20 Y167.46
G1 F2700 X86.27 Y137.53 E737.33049
G0 F6000 X86.98 Y137.53
G1 F2700 X116.91 Y167.46 E739.96997
G0 F6000 X117.61 Y167.46
G1 F2700 X87.68 Y137.53 E742.60945
G0 F6000 X88.39 Y137.53
G1 F2700 X118.32 Y167.46 E745.24892
G0 F6000 X119.03 Y167.46
G1 F2700 X89.10 Y137.53 E747.88840
G0 F6000 X89.81 Y137.53
G1 F2700 X119.73 Y167.46 E750.52783
G0 F6000 X120.44 Y167.46
G1 F2700 X90.51 Y137.53 E753.16727
G0 F6000 X91.22 Y137.53
G1 F2700 X121.15 Y167.46 E755.80670
G0 F6000 X121.86 Y167.46
G1 F2700 X91.93 Y137.53 E758.44618
G0 F6000 X92.63 Y137.53
G1 F2700 X122.56 Y167.46 E761.08566
G0 F6000 X123.27 Y167.46
G1 F2700 X93.34 Y137.53 E763.72513
G0 F6000 X94.05 Y137.53
G1 F2700 X123.98 Y167.46 E766.36461
G0 F6000 X124.68 Y167.46
G1 F2700 X94.75 Y137.53 E769.00409
G0 F6000 X95.46 Y137.53
G1 F2700 X125.39 Y167.46 E771.64357
G0 F6000 X126.10 Y167.46
G1 F2700 X96.17 Y137.53 E774.28300
G0 F6000 X96.88 Y137.53
G1 F2700 X126.80 Y167.46 E776.92243
G0 F6000 X127.51 Y167.46
G1 F2700 X97.58 Y137.53 E779.56187
G0 F6000 X98.29 Y137.53
G1 F2700 X128.22 Y167.46 E782.20130
G0 F6000 X128.93 Y167.46
G1 F2700 X99.00 Y137.53 E784.84078
G0 F6000 X99.70 Y137.53
G1 F2700 X129.63 Y167.46 E787.48026
G0 F6000 X130.34 Y167.46
G1 F2700 X100.41 Y137.53 E790.11973
G0 F6000 X101.12 Y137.53
G1 F2700 X131.05 Y167.46 E792.75921
G0 F6000 X131.75 Y167.46
G1 F2700 X101.83 Y137.53 E795.39869
G0 F6000 X102.53 Y137.53
G1 F2700 X132.46 Y167.46 E798.03812
G0 F6000 X133.17 Y167.46
G1 F2700 X103.24 Y137.53 E800.67756
G0 F6000 X103.95 Y137.53
G1 F2700 X133.88 Y167.46 E803.31699
G0 F6000 X134.58 Y167.46
G1 F2700 X104.66 Y137.53 E805.95642
G0 F6000 X105.36 Y137.53
G1 F2700 X135.29 Y167.46 E808.59590
G0 F6000 X136.00 Y167.46
G1 F2700 X106.07 Y137.53 E811.23538
G0 F6000 X106.78 Y137.53
G1 F2700 X136.70 Y167.46 E813.87486
G0 F6000 X137.41 Y167.46
G1 F2700 X107.48 Y137.53 E816.51433
G0 F6000 X108.19 Y137.53
G1 F2700 X138.12 Y167.46 E819.15381
G0 F6000 X138.82 Y167.46
G1 F2700 X108.90 Y137.53 E821.79329
G0 F6000 X109.61 Y137.53
G1 F2700 X139.53 Y167.46 E824.43272
G0 F6000 X140.24 Y167.46
G1 F2700 X110.31 Y137.53 E827.07215
G0 F6000 X111.02 Y137.53
G1 F2700 X140.95 Y167.46 E829.71159
G0 F6000 X141.65 Y167.46
G1 F2700 X111.73 Y137.53 E832.35102
G0 F6000 X112.43 Y137.53
G1 F2700 X142.36 Y167.46 E834.99050
G0 F6000 X143.07 Y167.46
G1 F2700 X113.14 Y137.53 E837.62998
G0 F6000 X113.85 Y137.53
G1 F2700 X143.78 Y167.46 E840.26945
G0 F6000 X144.48 Y167.46
G1 F2700 X114.55 Y137.53 E842.90893
G0 F6000 X115.26 Y137.53
G1 F2700 X145.19 Y167.46 E845.54841
G0 F6000 X145.90 Y167.46
G1 F2700 X115.97 Y137.53 E848.18784
G0 F6000 X116.68 Y137.53
G1 F2700 X146.60 Y167.46 E850.82728
G0 F6000 X147.31 Y167.46
G1 F2700 X117.38 Y137.53 E853.46671
G0 F6000 X118.09 Y137.53
G1 F2700 X148.02 Y167.46 E856.10614
G0 F6000 X148.72 Y167.46
G1 F2700 X118.80 Y137.53 E858.74562
G0 F6000 X119.50 Y137.53
G1 F2700 X149.43 Y167.46 E861.38510
G0 F6000 X150.14 Y167.46
G1 F2700 X120.21 Y137.53 E864.02458
G0 F6000 X120.92 Y137.53
G1 F2700 X150.85 Y167.46 E866.66405
G0 F6000 X151.55 Y167.46
G1 F2700 X121.62 Y137.53 E869.30353
G0 F6000 X122.33 Y137.53
G1 F2700 X152.26 Y167.46 E871.94296
G0 F6000 X152.97 Y167.46
G1 F2700 X123.04 Y137.53 E874.58240
G0 F6000 X123.75 Y137.53
G1 F2700 X153.67 Y167.46 E877.22183
G0 F6000 X154.38 Y167.46
G1 F2700 X124.45 Y137.53 E879.86126
G0 F6000 X125.16 Y137.53
G1 F2700 X155.09 Y167.46 E882.50074
G0 F6000 X155.80 Y167.46
G1 F2700 X125.87 Y137.53 E885.14022
G0 F6000 X126.58 Y137.53
G1 F2700 X156.50 Y167.46 E887.77970
G0 F6000 X157.21 Y167.46
G1 F2700 X127.28 Y137.53 E890.41918
G0 F6000 X127.99 Y137.53
G1 F2700 X157.92 Y167.46 E893.05865
G0 F6000 X158.62 Y167.46
G1 F2700 X128.70 Y137.53 E895.69813
G0 F6000 X129.40 Y137.53
G1 F2700 X159.33 Y167.46 E898.33756
G0 F6000 X160.04 Y167.46
G1 F2700 X130.11 Y137.53 E900.97700
G0 F6000 X130.82 Y137.53
G1 F2700 X160.75 Y167.46 E903.61643
G0 F6000 X161.45 Y167.46
G1 F2700 X131.53 Y137.53 E906.25586
G0 F6000 X132.23 Y137.53
G1 F2700 X162.16 Y167.46 E908.89534
G0 F6000 X162.87 Y167.46
G1 F2700 X132.94 Y137.53 E911.53482
G0 F6000 X133.65 Y137.53
G1 F2700 X163.57 Y167.46 E914.17430
G0 F6000 X164.28 Y167.46
G1 F2700 X134.35 Y137.53 E916.81377
G0 F6000 X135.06 Y137.53
G1 F2700 X164.99 Y167.46 E919.45325
G0 F6000 X165.69 Y167.46
G1 F2700 X135.77 Y137.53 E922.09269
G0 F6000 X136.47 Y137.53
G1 F2700 X166.40 Y167.46 E924.73212
G0 F6000 X167.11 Y167.46
G1 F2700 X137.18 Y137.53 E927.37155
G0 F6000 X137.89 Y137.53
G1 F2700 X167.82 Y167.46 E930.01099
G0 F6000 X168.52 Y167.46
G1 F2700 X138.60 Y137.53 E932.65046
G0 F6000 X139.30 Y137.53
G1 F2700 X169.23 Y167.46 E935.28994
G0 F6000 X169.94 Y167.46
G1 F2700 X140.01 Y137.53 E937.92942
G0 F6000 X140.72 Y137.53
G1 F2700 X170.65 Y167.46 E940.56890
G0 F6000 X171.35 Y167.46
G1 F2700 X141.42 Y137.53 E943.20837
G0 F6000 X142.13 Y137.53
G1 F2700 X172.06 Y167.46 E945.84785
G0 F6000 X172.77 Y167.46
G1 F2700 X142.84 Y137.53 E948.48728
G0 F6000 X143.55 Y137.53
G1 F2700 X173.47 Y167.46 E951.12672
G0 F6000 X174.18 Y167.46
G1 F2700 X144.25 Y137.53 E953.76615
G0 F6000 X144.96 Y137.53
G1 F2700 X174.89 Y167.46 E956.40563
G0 F6000 X175.59 Y167.46
G1 F2700 X145.67 Y137.53 E959.04511
G0 F6000 X146.37 Y137.53
G1 F2700 X176.30 Y167.46 E961.68458
G0 F6000 X177.01 Y167.46
G1 F2700 X147.08 Y137.53 E964.32406
G0 F6000 X147.79 Y137.53
G1 F2700 X177.72 Y167.46 E966.96354
G0 F6000 X178.42 Y167.46
G1 F2700 X148.50 Y137.53 E969.60302
G0 F6000 X149.20 Y137.53
G1 F2700 X179.13 Y167.46 E972.24245
G0 F6000 X179.84 Y167.46
G1 F2700 X149.91 Y137.53 E974.88188
G0 F6000 X150.62 Y137.53
G1 F2700 X180.54 Y167.46 E977.52132
G0 F6000 X181.25 Y167.46
G1 F2700 X151.32 Y137.53 E980.16075
G0 F6000 X152.03 Y137.53
G1 F2700 X181.96 Y167.46 E982.80023
G0 F6000 X182.67 Y167.46
G1 F2700 X152.74 Y137.53 E985.43971
G0 F6000 X153.44 Y137.53
G1 F2700 X183.37 Y167.46 E988.07918
G0 F6000 X184.08 Y167.46
G1 F2700 X154.15 Y137.53 E990.71866
G0 F6000 X154.86 Y137.53
G1 F2700 X184.79 Y167.46 E993.35814
G0 F6000 X185.49 Y167.46
G1 F2700 X155.57 Y137.53 E995.99757
G0 F6000 X156.27 Y137.53
G1 F2700 X186.20 Y167.46 E998.63701
G0 F6000 X186.91 Y167.46
G1 F2700 X156.98 Y137.53 E1001.27644
G0 F6000 X157.69 Y137.53
G1 F2700 X187.62 Y167.46 E1003.91587
G0 F6000 X188.32 Y167.46
G1 F2700 X158.40 Y137.53 E1006.55535
G0 F6000 X159.10 Y137.53
G1 F2700 X189.03 Y167.46 E1009.19483
G0 F6000 X189.74 Y167.46
G1 F2700 X159.81 Y137.53 E1011.83430
G0 F6000 X160.52 Y137.53
G1 F2700 X190.44 Y167.46 E1014.47378
G0 F6000 X191.15 Y167.46
G1 F2700 X161.22 Y137.53 E1017.11326
G0 F6000 X161.93 Y137.53
G1 F2700 X191.86 Y167.46 E1019.75274
G0 F6000 X192.56 Y167.46
G1 F2700 X162.64 Y137.53 E1022.39217
G0 F6000 X163.34 Y137.53
G1 F2700 X193.27 Y167.46 E1025.03160
G0 F6000 X193.98 Y167.46
G1 F2700 X164.05 Y137.53 E1027.67104
G0 F6000 X164.76 Y137.53
G1 F2700 X194.69 Y167.46 E1030.31052
G0 F6000 X195.39 Y167.46
G1 F2700 X165.47 Y137.53 E1032.94999
G0 F6000 X166.17 Y137.53
G1 F2700 X196.10 Y167.46 E1035.58947
G0 F6000 X196.81 Y167.46
G1 F2700 X166.88 Y137.53 E1038.22895
G0 F6000 X167.59 Y137.53
G1 F2700 X197.51 Y167.46 E1040.86843
G0 F6000 X198.22 Y167.46
G1 F2700 X168.29 Y137.53 E1043.50790
G0 F6000 X169.00 Y137.53
G1 F2700 X198.93 Y167.46 E1046.14734
G0 F6000 X199.64 Y167.46
G1 F2700 X169.71 Y137.53 E1048.78677
G0 F6000 X170.42 Y137.53
G1 F2700 X200.34 Y167.46 E1051.42620
G0 F6000 X201.05 Y167.46
G1 F2700 X171.12 Y137.53 E1054.06564
G0 F6000 X171.83 Y137.53
G1 F2700 X201.76 Y167.46 E1056.70511
G0 F6000 X202.47 Y167.46
G1 F2700 X172.54 Y137.53 E1059.34459
G0 F6000 X173.24 Y137.53
G1 F2700 X203.17 Y167.46 E1061.98407
G0 F6000 X203.88 Y167.46
G1 F2700 X173.95 Y137.53 E1064.62355
G0 F6000 X174.66 Y137.53
G1 F2700 X204.59 Y167.46 E1067.26302
G0 F6000 X205.29 Y167.46
G1 F2700 X175.37 Y137.53 E1069.90246
G0 F6000 X176.07 Y137.53
G1 F2700 X206.00 Y167.46 E1072.54189
G0 F6000 X206.71 Y167.46
G1 F2700 X176.78 Y137.53 E1075.18133
G0 F6000 X177.49 Y137.53
G1 F2700 X207.41 Y167.46 E1077.82076
G0 F6000 X208.12 Y167.46
G1 F2700 X178.19 Y137.53 E1080.46024
G0 F6000 X178.90 Y137.53
G1 F2700 X208.83 Y167.46 E1083.09971
G0 F6000 X209.54 Y167.46
G1 F2700 X179.61 Y137.53 E1085.73919
G0 F6000 X180.31 Y137.53
G1 F2700 X210.24 Y167.46 E1088.37867
G0 F6000 X210.95 Y167.46
G1 F2700 X181.02 Y137.53 E1091.01815
G0 F6000 X181.73 Y137.53
G1 F2700 X211.66 Y167.46 E1093.65762
G0 F6000 X212.36 Y167.46
G1 F2700 X182.44 Y137.53 E1096.29706
G0 F6000 X183.14 Y137.53
G1 F2700 X213.07 Y167.46 E1098.93649
G0 F6000 X213.78 Y167.46
G1 F2700 X183.85 Y137.53 E1101.57592
G0 F6000 X184.56 Y137.53
G1 F2700 X214.49 Y167.46 E1104.21536
G0 F6000 X215.19 Y167.46
G1 F2700 X185.26 Y137.53 E1106.85484
G0 F6000 X185.97 Y137.53
G1 F2700 X215.90 Y167.46 E1109.49431
G0 F6000 X216.61 Y167.46
G1 F2700 X186.68 Y137.53 E1112.13379
G0 F6000 X187.39 Y137.53
G1 F2700 X217.31 Y167.46 E1114.77327
G0 F6000 X218.02 Y167.46
G1 F2700 X188.09 Y137.53 E1117.41275
G0 F6000 X188.80 Y137.53
G1 F2700 X218.73 Y167.46 E1120.05218
G0 F6000 X219.44 Y167.46
G1 F2700 X189.51 Y137.53 E1122.69161
G0 F6000 X190.22 Y137.53
G1 F2700 X220.14 Y167.46 E1125.33105
G0 F6000 X220.85 Y167.46
G1 F2700 X190.92 Y137.53 E1127.97048
G0 F6000 X191.63 Y137.53
G1 F2700 X221.56 Y167.46 E1130.60996
G0 F6000 X222.26 Y167.46
G1 F2700 X192.34 Y137.53 E1133.24943
G0 F6000 X193.04 Y137.53
G1 F2700 X222.87 Y167.37 E1135.88027
G0 F6000 X222.87 Y166.66
G1 F2700 X193.75 Y137.53 E1138.44875
G0 F6000 X194.46 Y137.53
G1 F2700 X222.87 Y165.95 E1140.95488
G0 F6000 X222.87 Y165.24
G1 F2700 X195.16 Y137.53 E1143.39861
G0 F6000 X195.87 Y137.53
G1 F2700 X222.87 Y164.54 E1145.77999
G0 F6000 X222.87 Y163.83
G1 F2700 X196.58 Y137.53 E1148.09901
G0 F6000 X197.29 Y137.53
G1 F2700 X222.87 Y163.12 E1150.35568
G0 F6000 X222.87 Y162.42
G1 F2700 X197.99 Y137.53 E1152.55000
G0 F6000 X198.70 Y137.53
G1 F2700 X222.87 Y161.71 E1154.68192
G0 F6000 X222.87 Y161.00
G1 F2700 X199.41 Y137.53 E1156.75148
G0 F6000 X200.11 Y137.53
G1 F2700 X222.87 Y160.29 E1158.75870
G0 F6000 X222.87 Y159.59
G1 F2700 X200.82 Y137.53 E1160.70356
G0 F6000 X201.53 Y137.53
G1 F2700 X222.87 Y158.88 E1162.58606
G0 F6000 X222.87 Y158.17
G1 F2700 X202.24 Y137.53 E1164.40617
G0 F6000 X202.94 Y137.53
G1 F2700 X222.87 Y157.47 E1166.16393
G0 F6000 X222.87 Y156.76
G1 F2700 X203.65 Y137.53 E1167.85933
G0 F6000 X204.36 Y137.53
G1 F2700 X222.87 Y156.05 E1169.49238
G0 F6000 X222.87 Y155.34
G1 F2700 X205.06 Y137.53 E1171.06303
G0 F6000 X205.77 Y137.53
G1 F2700 X222.87 Y154.64 E1172.57133
G0 F6000 X222.87 Y153.93
G1 F2700 X206.48 Y137.53 E1174.01727
G0 F6000 X207.19 Y137.53
G1 F2700 X222.87 Y153.22 E1175.40086
G0 F6000 X222.87 Y152.52
G1 F2700 X207.89 Y137.53 E1176.72210
G0 F6000 X208.60 Y137.53
G1 F2700 X222.87 Y151.81 E1177.98094
G0 F6000 X222.87 Y151.10
G1 F2700 X209.31 Y137.53 E1179.17743
G0 F6000 X210.01 Y137.53
G1 F2700 X222.87 Y150.40 E1180.31156
G0 F6000 X222.87 Y149.69
G1 F2700 X210.72 Y137.53 E1181.38334
G0 F6000 X211.43 Y137.53
G1 F2700 X222.87 Y148.98 E1182.39277
G0 F6000 X222.87 Y148.27
G1 F2700 X212.13 Y137.53 E1183.33980
G0 F6000 X212.84 Y137.53
G1 F2700 X222.87 Y147.57 E1184.22448
G0 F6000 X222.87 Y146.86
G1 F2700 X213.55 Y137.53 E1185.04680
G0 F6000 X214.26 Y137.53
G1 F2700 X222.87 Y146.15 E1185.80677
G0 F6000 X222.87 Y145.44
G1 F2700 X214.96 Y137.53 E1186.50439
G0 F6000 X215.67 Y137.53
G1 F2700 X222.87 Y144.74 E1187.13961
G0 F6000 X222.87 Y144.03
G1 F2700 X216.38 Y137.53 E1187.71247
G0 F6000 X217.09 Y137.53
G1 F2700 X222.87 Y143.32 E1188.22298
G0 F6000 X222.87 Y142.62
G1 F2700 X217.79 Y137.53 E1188.67114
G0 F6000 X218.50 Y137.53
G1 F2700 X222.87 Y141.91 E1189.05690
G0 F6000 X222.87 Y141.20
G1 F2700 X219.21 Y137.53 E1189.38031
G0 F6000 X219.91 Y137.53
G1 F2700 X222.87 Y140.50 E1189.64137
G0 F6000 X222.87 Y139.79
G1 F2700 X220.62 Y137.53 E1189.84007
G0 F6000 X221.33 Y137.53
G1 F2700 X222.87 Y139.08 E1189.97642
G0 F6000 X222.87 Y138.37
G1 F2700 X222.03 Y137.53 E1190.05037
G0 F6000 X222.74 Y137.53
G1 F2700 X222.87 Y137.67 E1190.06197
;LAYER:1
G0 F6000 X223.05 Y137.36 Z0.50
;TYPE:WALL-INNER
G1 F3780 X223.05 Y167.64 E1191.32078
G1 X81.95 Y167.64 E1197.18695
G1 X81.95 Y137.36 E1198.44577
G1 X223.05 Y137.36 E1204.31194
G0 F6000 X223.55 Y136.86
;TYPE:WALL-OUTER
G1 F3780 X223.55 Y168.14 E1205.61233
G1 X81.45 Y168.14 E1211.52008
G1 X81.45 Y136.86 E1212.82046
G1 X223.55 Y136.86 E1218.72821
G0 F6000 X222.74 Y137.53
;TYPE:FILL
G1 F3780 X192.81 Y167.46 E1220.48792
G0 F6000 X193.51 Y167.46
G1 F3780 X222.87 Y138.10 E1222.21412
G0 F6000 X222.87 Y138.81
G1 F3780 X194.22 Y167.46 E1223.89872
G0 F6000 X194.93 Y167.46
G1 F3780 X222.87 Y139.52 E1225.54175
G0 F6000 X222.87 Y140.23
G1 F3780 X195.63 Y167.46 E1227.14321
G0 F6000 X196.34 Y167.46
G1 F3780 X222.87 Y140.93 E1228.70310
G0 F6000 X222.87 Y141.64
G1 F3780 X197.05 Y167.46 E1230.22142
G0 F6000 X197.76 Y167.46
G1 F3780 X222.87 Y142.35 E1231.69818
G0 F6000 X222.87 Y143.05
G1 F3780 X198.46 Y167.46 E1233.13336
G0 F6000 X199.17 Y167.46
G1 F3780 X222.87 Y143.76 E1234.52698
G0 F6000 X222.87 Y144.47
G1 F3780 X199.88 Y167.46 E1235.87902
G0 F6000 X200.58 Y167.46
G1 F3780 X222.87 Y145.18 E1237.18947
G0 F6000 X222.87 Y145.88
G1 F3780 X201.29 Y167.46 E1238.45832
G0 F6000 X202.00 Y167.46
G1 F3780 X222.87 Y146.59 E1239.68561
G0 F6000 X222.87 Y147.30
G1 F3780 X202.71 Y167.46 E1240.87132
G0 F6000 X203.41 Y167.46
G1 F3780 X222.87 Y148.00 E1242.01546
G0 F6000 X222.87 Y148.71
G1 F3780 X204.12 Y167.46 E1243.11804
G0 F6000 X204.83 Y167.46
G1 F3780 X222.87 Y149.42 E1244.17904
G0 F6000 X222.87 Y150.12
G1 F3780 X205.53 Y167.46 E1245.19848
G0 F6000 X206.24 Y167.46
G1 F3780 X222.87 Y150.83 E1246.17635
G0 F6000 X222.87 Y151.54
G1 F3780 X206.95 Y167.46 E1247.11262
G0 F6000 X207.66 Y167.46
G1 F3780 X222.87 Y152.25 E1248.00729
G0 F6000 X222.87 Y152.95
G1 F3780 X208.36 Y167.46 E1248.86039
G0 F6000 X209.07 Y167.46
G1 F3780 X222.87 Y153.66 E1249.67193
G0 F6000 X222.87 Y154.37
G1 F3780 X209.78 Y167.46 E1250.44189
G0 F6000 X210.48 Y167.46
G1 F3780 X222.87 Y155.07 E1251.17029
G0 F6000 X222.87 Y155.78
G1 F3780 X211.19 Y167.46 E1251.85712
G0 F6000 X211.90 Y167.46
G1 F3780 X222.87 Y156.49 E1252.50238
G0 F6000 X222.87 Y157.20
G1 F3780 X212.60 Y167.46 E1253.10607
G0 F6000 X213.31 Y167.46
G1 F3780 X222.87 Y157.90 E1253.66816
G0 F6000 X222.87 Y158.61
G1 F3780 X214.02 Y167.46 E1254.18865
G0 F6000 X214.73 Y167.46
G1 F3780 X222.87 Y159.32 E1254.66757
G0 F6000 X222.87 Y160.03
G1 F3780 X215.43 Y167.46 E1255.10493
G0 F6000 X216.14 Y167.46
G1 F3780 X222.87 Y160.73 E1255.50072
G0 F6000 X222.87 Y161.44
G1 F3780 X216.85 Y167.46 E1255.85493
G0 F6000 X217.56 Y167.46
G1 F3780 X222.87 Y162.15 E1256.16758
G0 F6000 X222.87 Y162.85
G1 F3780 X218.26 Y167.46 E1256.43866
G0 F6000 X218.97 Y167.46
G1 F3780 X222.87 Y163.56 E1256.66817
G0 F6000 X222.87 Y164.27
G1 F3780 X219.68 Y167.46 E1256.85612
G0 F6000 X220.38 Y167.46
G1 F3780 X222.87 Y164.97 E1257.00246
G0 F6000 X222.87 Y165.68
G1 F3780 X221.09 Y167.46 E1257.10720
G0 F6000 X221.80 Y167.46
G1 F3780 X222.87 Y166.39 E1257.17038
G0 F6000 X222.87 Y167.10
G1 F3780 X222.50 Y167.46 E1257.19199
G0 F6000 X222.03 Y137.53
G1 F3780 X192.10 Y167.46 E1258.95170
G0 F6000 X191.39 Y167.46
G1 F3780 X221.32 Y137.53 E1260.71141
G0 F6000 X220.61 Y137.53
G1 F3780 X190.69 Y167.46 E1262.47112
G0 F6000 X189.98 Y167.46
G1 F3780 X219.91 Y137.53 E1264.23083
G0 F6000 X219.20 Y137.53
G1 F3780 X189.27 Y167.46 E1265.99054
G0 F6000 X188.56 Y167.46
G1 F3780 X218.49 Y137.53 E1267.75025
G0 F6000 X217.79 Y137.53
G1 F3780 X187.86 Y167.46 E1269.50996
G0 F6000 X187.15 Y167.46
G1 F3780 X217.08 Y137.53 E1271.26967
G0 F6000 X216.37 Y137.53
G1 F3780 X186.44 Y167.46 E1273.02938
G0 F6000 X185.74 Y167.46
G1 F3780 X215.66 Y137.53 E1274.78909
G0 F6000 X214.96 Y137.53
G1 F3780 X185.03 Y167.46 E1276.54880
G0 F6000 X184.32 Y167.46
G1 F3780 X214.25 Y137.53 E1278.30851
G0 F6000 X213.54 Y137.53
G1 F3780 X183.61 Y167.46 E1280.06822
G0 F6000 X182.91 Y167.46
G1 F3780 X212.84 Y137.53 E1281.82794
G0 F6000 X212.13 Y137.53
G1 F3780 X182.20 Y167.46 E1283.58765
G0 F6000 X181.49 Y167.46
G1 F3780 X211.42 Y137.53 E1285.34736
G0 F6000 X210.71 Y137.53
G1 F3780 X180.78 Y167.46 E1287.10707
G0 F6000 X180.08 Y167.46
G1 F3780 X210.01 Y137.53 E1288.86678
G0 F6000 X209.30 Y137.53
G1 F3780 X179.37 Y167.46 E1290.62649
G0 F6000 X178.66 Y167.46
G1 F3780 X208.59 Y137.53 E1292.38620
G0 F6000 X207.89 Y137.53
G1 F3780 X177.96 Y167.46 E1294.14591
G0 F6000 X177.25 Y167.46
G1 F3780 X207.18 Y137.53 E1295.90562
G0 F6000 X206.47 Y137.53
G1 F3780 X176.54 Y167.46 E1297.66533
G0 F6000 X175.84 Y167.46
G1 F3780 X205.76 Y137.53 E1299.42504
G0 F6000 X205.06 Y137.53
G1 F3780 X175.13 Y167.46 E1301.18475
G0 F6000 X174.42 Y167.46
G1 F3780 X204.35 Y137.53 E1302.94446
G0 F6000 X203.64 Y137.53
G1 F3780 X173.71 Y167.46 E1304.70417
G0 F6000 X173.01 Y167.46
G1 F3780 X202.94 Y137.53 E1306.46388
G0 F6000 X202.23 Y137.53
G1 F3780 X172.30 Y167.46 E1308.22359
G0 F6000 X171.59 Y167.46
G1 F3780 X201.52 Y137.53 E1309.98330
G0 F6000 X200.81 Y137.53
G1 F3780 X170.89 Y167.46 E1311.74301
G0 F6000 X170.18 Y167.46
G1 F3780 X200.11 Y137.53 E1313.50272
G0 F6000 X199.40 Y137.53
G1 F3780 X169.47 Y167.46 E1315.26243
G0 F6000 X168.76 Y167.46
G1 F3780 X198.69 Y137.53 E1317.02215
G0 F6000 X197.99 Y137.53
G1 F3780 X168.06 Y167.46 E1318.78186
G0 F6000 X167.35 Y167.46
G1 F3780 X197.28 Y137.53 E1320.54157
G0 F6000 X196.57 Y137.53
G1 F3780 X166.64 Y167.46 E1322.30128
G0 F6000 X165.94 Y167.46
G1 F3780 X195.87 Y137.53 E1324.06099
G0 F6000 X195.16 Y137.53
G1 F3780 X165.23 Y167.46 E1325.82070
G0 F6000 X164.52 Y167.46
G1 F3780 X194.45 Y137.53 E1327.58041
G0 F6000 X193.74 Y137.53
G1 F3780 X163.81 Y167.46 E1329.34012
G0 F6000 X163.11 Y167.46
G1 F3780 X193.04 Y137.53 E1331.09983
G0 F6000 X192.33 Y137.53
G1 F3780 X162.40 Y167.46 E1332.85954
G0 F6000 X161.69 Y167.46
G1 F3780 X191.62 Y137.53 E1334.61925
G0 F6000 X190.92 Y137.53
G1 F3780 X160.99 Y167.46 E1336.37896
G0 F6000 X160.28 Y167.46
G1 F3780 X190.21 Y137.53 E1338.13867
G0 F6000 X189.50 Y137.53
G1 F3780 X159.57 Y167.46 E1339.89838
G0 F6000 X158.87 Y167.46
G1 F3780 X188.79 Y137.53 E1341.65809
G0 F6000 X188.09 Y137.53
G1 F3780 X158.16 Y167.46 E1343.41780
G0 F6000 X157.45 Y167.46
G1 F3780 X187.38 Y137.53 E1345.17751
G0 F6000 X186.67 Y137.53
G1 F3780 X156.74 Y167.46 E1346.93722
G0 F6000 X156.04 Y167.46
G1 F3780 X185.97 Y137.53 E1348.69693
G0 F6000 X185.26 Y137.53
G1 F3780 X155.33 Y167.46 E1350.45664
G0 F6000 X154.62 Y167.46
G1 F3780 X184.55 Y137.53 E1352.21636
G0 F6000 X183.84 Y137.53
G1 F3780 X153.91 Y167.46 E1353.97607
G0 F6000 X153.21 Y167.46
G1 F3780 X183.14 Y137.53 E1355.73578
G0 F6000 X182.43 Y137.53
G1 F3780 X152.50 Y167.46 E1357.49549
G0 F6000 X151.79 Y167.46
G1 F3780 X181.72 Y137.53 E1359.25520
G0 F6000 X181.02 Y137.53
G1 F3780 X151.09 Y167.46 E1361.01491
G0 F6000 X150.38 Y167.46
G1 F3780 X180.31 Y137.53 E1362.77462
G0 F6000 X179.60 Y137.53
G1 F3780 X149.67 Y167.46 E1364.53433
G0 F6000 X148.97 Y167.46
G1 F3780 X178.90 Y137.53 E1366.29404
G0 F6000 X178.19 Y137.53
G1 F3780 X148.26 Y167.46 E1368.05375
G0 F6000 X147.55 Y167.46
G1 F3780 X177.48 Y137.53 E1369.81346
G0 F6000 X176.77 Y137.53
G1 F3780 X146.84 Y167.46 E1371.57317
G0 F6000 X146.14 Y167.46
G1 F3780 X176.07 Y137.53 E1373.33288
G0 F6000 X175.36 Y137.53
G1 F3780 X145.43 Y167.46 E1375.09259
G0 F6000 X144.72 Y167.46
G1 F3780 X174.65 Y137.53 E1376.85230
G0 F6000 X173.94 Y137.53
G1 F3780 X144.02 Y167.46 E1378.61201
G0 F6000 X143.31 Y167.46
G1 F3780 X173.24 Y137.53 E1380.37172
G0 F6000 X172.53 Y137.53
G1 F3780 X142.60 Y167.46 E1382.13143
G0 F6000 X141.90 Y167.46
G1 F3780 X171.82 Y137.53 E1383.89114
G0 F6000 X171.12 Y137.53
G1 F3780 X141.19 Y167.46 E1385.65085
G0 F6000 X140.48 Y167.46
G1 F3780 X170.41 Y137.53 E1387.41057
G0 F6000 X169.70 Y137.53
G1 F3780 X139.77 Y167.46 E1389.17028
G0 F6000 X139.07 Y167.46
G1 F3780 X169.00 Y137.53 E1390.92999
G0 F6000 X168.29 Y137.53
G1 F3780 X138.36 Y167.46 E1392.68970
G0 F6000 X137.65 Y167.46
G1 F3780 X167.58 Y137.53 E1394.44941
G0 F6000 X166.87 Y137.53
G1 F3780 X136.94 Y167.46 E1396.20912
G0 F6000 X136.24 Y167.46
G1 F3780 X166.17 Y137.53 E1397.96883
G0 F6000 X165.46 Y137.53
G1 F3780 X135.53 Y167.46 E1399.72854
G0 F6000 X134.82 Y167.46
G1 F3780 X164.75 Y137.53 E1401.48825
G0 F6000 X164.04 Y137.53
G1 F3780 X134.12 Y167.46 E1403.24796
G0 F6000 X133.41 Y167.46
G1 F3780 X163.34 Y137.53 E1405.00767
G0 F6000 X162.63 Y137.53
G1 F3780 X132.70 Y167.46 E1406.76738
G0 F6000 X132.00 Y167.46
G1 F3780 X161.92 Y137.53 E1408.52709
G0 F6000 X161.22 Y137.53
G1 F3780 X131.29 Y167.46 E1410.28680
G0 F6000 X130.58 Y167.46
G1 F3780 X160.51 Y137.53 E1412.04651
G0 F6000 X159.80 Y137.53
G1 F3780 X129.87 Y167.46 E1413.80622
G0 F6000 X129.17 Y167.46
G1 F3780 X159.10 Y137.53 E1415.56593
G0 F6000 X158.39 Y137.53
G1 F3780 X128.46 Y167.46 E1417.32564
G0 F6000 X127.75 Y167.46
G1 F3780 X157.68 Y137.53 E1419.08535
G0 F6000 X156.97 Y137.53
G1 F3780 X127.05 Y167.46 E1420.84506
G0 F6000 X126.34 Y167.46
G1 F3780 X156.27 Y137.53 E1422.60478
G0 F6000 X155.56 Y137.53
G1 F3780 X125.63 Y167.46 E1424.36449
G0 F6000 X124.92 Y167.46
G1 F3780 X154.85 Y137.53 E1426.12420
G0 F6000 X154.15 Y137.53
G1 F3780 X124.22 Y167.46 E1427.88391
G0 F6000 X123.51 Y167.46
G1 F3780 X153.44 Y137.53 E1429.64362
G0 F6000 X152.73 Y137.53
G1 F3780 X122.80 Y167.46 E1431.40333
G0 F6000 X122.10 Y167.46
G1 F3780 X152.03 Y137.53 E1433.16304
G0 F6000 X151.32 Y137.53
G1 F3780 X121.39 Y167.46 E1434.92275
G0 F6000 X120.68 Y167.46
G1 F3780 X150.61 Y137.53 E1436.68246
G0 F6000 X149.90 Y137.53
G1 F3780 X119.97 Y167.46 E1438.44217
G0 F6000 X119.27 Y167.46
G1 F3780 X149.20 Y137.53 E1440.20188
G0 F6000 X148.49 Y137.53
G1 F3780 X118.56 Y167.46 E1441.96159
G0 F6000 X117.85 Y167.46
G1 F3780 X147.78 Y137.53 E1443.72130
G0 F6000 X147.07 Y137.53
G1 F3780 X117.15 Y167.46 E1445.48101
G0 F6000 X116.44 Y167.46
G1 F3780 X146.37 Y137.53 E1447.24072
G0 F6000 X145.66 Y137.53
G1 F3780 X115.73 Y167.46 E1449.00043
G0 F6000 X115.03 Y167.46
G1 F3780 X144.95 Y137.53 E1450.76014
G0 F6000 X144.25 Y137.53
G1 F3780 X114.32 Y167.46 E1452.51985
G0 F6000 X113.61 Y167.46
G1 F3780 X143.54 Y137.53 E1454.27956
G0 F6000 X142.83 Y137.53
G1 F3780 X112.90 Y167.46 E1456.03927
G0 F6000 X112.20 Y167.46
G1 F3780 X142.12 Y137.53 E1457.79899
G0 F6000 X141.42 Y137.53
G1 F3780 X111.49 Y167.46 E1459.55870
G0 F6000 X110.78 Y167.46
G1 F3780 X140.71 Y137.53 E1461.31841
G0 F6000 X140.00 Y137.53
G1 F3780 X110.08 Y167.46 E1463.07812
G0 F6000 X109.37 Y167.46
G1 F3780 X139.30 Y137.53 E1464.83783
G0 F6000 X138.59 Y137.53
G1 F3780 X108.66 Y167.46 E1466.59754
G0 F6000 X107.95 Y167.46
G1 F3780 X137.88 Y137.53 E1468.35725
G0 F6000 X137.18 Y137.53
G1 F3780 X107.25 Y167.46 E1470.11696
G0 F6000 X106.54 Y167.46
G1 F3780 X136.47 Y137.53 E1471.87667
G0 F6000 X135.76 Y137.53
G1 F3780 X105.83 Y167.46 E1473.63638
G0 F6000 X105.12 Y167.46
G1 F3780 X135.05 Y137.53 E1475.39609
G0 F6000 X134.35 Y137.53
G1 F3780 X104.42 Y167.46 E1477.15580
G0 F6000 X103.71 Y167.46
G1 F3780 X133.64 Y137.53 E1478.91551
G0 F6000 X132.93 Y137.53
G1 F3780 X103.00 Y167.46 E1480.67522
G0 F6000 X102.30 Y167.46
G1 F3780 X132.23 Y137.53 E1482.43493
G0 F6000 X131.52 Y137.53
G1 F3780 X101.59 Y167.46 E1484.19464
G0 F6000 X100.88 Y167.46
G1 F3780 X130.81 Y137.53 E1485.95435
G0 F6000 X130.10 Y137.53
G1 F3780 X100.17 Y167.46 E1487.71406
G0 F6000 X99.47 Y167.46
G1 F3780 X129.40 Y137.53 E1489.47377
G0 F6000 X128.69 Y137.53
G1 F3780 X98.76 Y167.46 E1491.23348
G0 F6000 X98.05 Y167.46
G1 F3780 X127.98 Y137.53 E1492.99320
G0 F6000 X127.28 Y137.53
G1 F3780 X97.35 Y167.46 E1494.75291
G0 F6000 X96.64 Y167.46
G1 F3780 X126.57 Y137.53 E1496.51262
G0 F6000 X125.86 Y137.53
G1 F3780 X95.93 Y167.46 E1498.27233
G0 F6000 X95.23 Y167.46
G1 F3780 X125.16 Y137.53 E1500.03204
G0 F6000 X124.45 Y137.53
G1 F3780 X94.52 Y167.46 E1501.79175
G0 F6000 X93.81 Y167.46
G1 F3780 X123.74 Y137.53 E1503.55146
G0 F6000 X123.03 Y137.53
G1 F3780 X93.10 Y167.46 E1505.31117
G0 F6000 X92.40 Y167.46
G1 F3780 X122.33 Y137.53 E1507.07088
G0 F6000 X121.62 Y137.53
G1 F3780 X91.69 Y167.46 E1508.83059
G0 F6000 X90.98 Y167.46
G1 F3780 X120.91 Y137.53 E1510.59030
G0 F6000 X120.20 Y137.53
G1 F3780 X90.28 Y167.46 E1512.35001
G0 F6000 X89.57 Y167.46
G1 F3780 X119.50 Y137.53 E1514.10972
G0 F6000 X118.79 Y137.53
G1 F3780 X88.86 Y167.46 E1515.86943
G0 F6000 X88.16 Y167.46
G1 F3780 X118.08 Y137.53 E1517.62914
G0 F6000 X117.38 Y137.53
G1 F3780 X87.45 Y167.46 E1519.38885
G0 F6000 X86.74 Y167.46
G1 F3780 X116.67 Y137.53 E1521.14856
G0 F6000 X115.96 Y137.53
G1 F3780 X86.03 Y167.46 E1522.90827
G0 F6000 X85.33 Y167.46
G1 F3780 X115.25 Y137.53 E1524.66798
G0 F6000 X114.55 Y137.53
G1 F3780 X84.62 Y167.46 E1526.42769
G0 F6000 X83.91 Y167.46
G1 F3780 X113.84 Y137.53 E1528.18741
G0 F6000 X113.13 Y137.53
G1 F3780 X83.20 Y167.46 E1529.94712
G0 F6000 X82.50 Y167.46
G1 F3780 X112.43 Y137.53 E1531.70683
G0 F6000 X111.72 Y137.53
G1 F3780 X82.13 Y167.13 E1533.44681
G0 F6000 X82.13 Y166.42
G1 F3780 X111.01 Y137.53 E1535.14520
G0 F6000 X110.31 Y137.53
G1 F3780 X82.13 Y165.71 E1536.80201
G0 F6000 X82.13 Y165.01
G1 F3780 X109.60 Y137.53 E1538.41726
G0 F6000 X108.89 Y137.53
G1 F3780 X82.13 Y164.30 E1539.99094
G0 F6000 X82.13 Y163.59
G1 F3780 X108.18 Y137.53 E1541.52305
G0 F6000 X107.48 Y137.53
G1 F3780 X82.13 Y162.89 E1543.01359
G0 F6000 X82.13 Y162.18
G1 F3780 X106.77 Y137.53 E1544.46257
G0 F6000 X106.06 Y137.53
G1 F3780 X82.13 Y161.47 E1545.86997
G0 F6000 X82.13 Y160.76
G1 F3780 X105.36 Y137.53 E1547.23578
G0 F6000 X104.65 Y137.53
G1 F3780 X82.13 Y160.06 E1548.55998
G0 F6000 X82.13 Y159.35
G1 F3780 X103.94 Y137.53 E1549.84262
G0 F6000 X103.23 Y137.53
G1 F3780 X82.13 Y158.64 E1551.08369
G0 F6000 X82.13 Y157.94
G1 F3780 X102.53 Y137.53 E1552.28319
G0 F6000 X101.82 Y137.53
G1 F3780 X82.13 Y157.23 E1553.44112
G0 F6000 X82.13 Y156.52
G1 F3780 X101.11 Y137.53 E1554.55749
G0 F6000 X100.41 Y137.53
G1 F3780 X82.13 Y155.81 E1555.63228
G0 F6000 X82.13 Y155.11
G1 F3780 X99.70 Y137.53 E1556.66551
G0 F6000 X98.99 Y137.53
G1 F3780 X82.13 Y154.40 E1557.65716
G0 F6000 X82.13 Y153.69
G1 F3780 X98.28 Y137.53 E1558.60722
G0 F6000 X97.58 Y137.53
G1 F3780 X82.13 Y152.99 E1559.51568
G0 F6000 X82.13 Y152.28
G1 F3780 X96.87 Y137.53 E1560.38257
G0 F6000 X96.16 Y137.53
G1 F3780 X82.13 Y151.57 E1561.20789
G0 F6000 X82.13 Y150.87
G1 F3780 X95.46 Y137.53 E1561.99164
G0 F6000 X94.75 Y137.53
G1 F3780 X82.13 Y150.16 E1562.73383
G0 F6000 X82.13 Y149.45
G1 F3780 X94.04 Y137.53 E1563.43444
G0 F6000 X93.33 Y137.53
G1 F3780 X82.13 Y148.74 E1564.09349
G0 F6000 X82.13 Y148.04
G1 F3780 X92.63 Y137.53 E1564.71097
G0 F6000 X91.92 Y137.53
G1 F3780 X82.13 Y147.33 E1565.28685
G0 F6000 X82.13 Y146.62
G1 F3780 X91.21 Y137.53 E1565.82113
G0 F6000 X90.51 Y137.53
G1 F3780 X82.13 Y145.91 E1566.31384
G0 F6000 X82.13 Y145.21
G1 F3780 X89.80 Y137.53 E1566.76498
G0 F6000 X89.09 Y137.53
G1 F3780 X82.13 Y144.50 E1567.17456
G0 F6000 X82.13 Y143.79
G1 F3780 X88.39 Y137.53 E1567.54256
G0 F6000 X87.68 Y137.53
G1 F3780 X82.13 Y143.09 E1567.86900
G0 F6000 X82.13 Y142.38
G1 F3780 X86.97 Y137.53 E1568.15387
G0 F6000 X86.26 Y137.53
G1 F3780 X82.13 Y141.67 E1568.39716
G0 F6000 X82.13 Y140.97
G1 F3780 X85.56 Y137.53 E1568.59886
G0 F6000 X84.85 Y137.53
G1 F3780 X82.13 Y140.26 E1568.75897
G0 F6000 X82.13 Y139.55
G1 F3780 X84.14 Y137.53 E1568.87750
G0 F6000 X83.44 Y137.53
G1 F3780 X82.13 Y138.84 E1568.95446
G0 F6000 X82.13 Y138.14
G1 F3780 X82.73 Y137.53 E1568.98986
;LAYER:2
G0 F6000 X81.95 Y137.36 Z0.70
;TYPE:WALL-INNER
G1 F4920 X223.05 Y137.36 E1574.85603
G1 X223.05 Y167.64 E1576.11484
G1 X81.95 Y167.64 E1581.98102
G1 X81.95 Y137.36 E1583.23983
G0 F6000 X81.45 Y136.86
;TYPE:WALL-OUTER
G1 F4920 X223.55 Y136.86 E1589.14758
G1 X223.55 Y168.14 E1590.44797
G1 X81.45 Y168.14 E1596.35572
G1 X81.45 Y136.86 E1597.65610
G0 F6000 X82.12 Y137.63
;TYPE:FILL
G1 F4920 X111.95 Y167.46 E1599.40999
G0 F6000 X111.25 Y167.46
G1 F4920 X82.12 Y138.34 E1601.12231
G0 F6000 X82.12 Y139.05
G1 F4920 X110.54 Y167.46 E1602.79307
G0 F6000 X109.83 Y167.46
G1 F4920 X82.12 Y139.75 E1604.42225
G0 F6000 X82.12 Y140.46
G1 F4920 X109.13 Y167.46 E1606.00986
G0 F6000 X108.42 Y167.46
G1 F4920 X82.12 Y141.17 E1607.55588
G0 F6000 X82.12 Y141.88
G1 F4920 X107.71 Y167.46 E1609.06030
G0 F6000 X107.00 Y167.46
G1 F4920 X82.12 Y142.58 E1610.52315
G0 F6000 X82.12 Y143.29
G1 F4920 X106.30 Y167.46 E1611.94442
G0 F6000 X105.59 Y167.46
G1 F4920 X82.12 Y144.00 E1613.32414
G0 F6000 X82.12 Y144.70
G1 F4920 X104.88 Y167.46 E1614.66228
G0 F6000 X104.18 Y167.46
G1 F4920 X82.12 Y145.41 E1615.95885
G0 F6000 X82.12 Y146.12
G1 F4920 X103.47 Y167.46 E1617.21385
G0 F6000 X102.76 Y167.46
G1 F4920 X82.12 Y146.82 E1618.42729
G0 F6000 X82.12 Y147.53
G1 F4920 X102.06 Y167.46 E1619.59916
G0 F6000 X101.35 Y167.46
G1 F4920 X82.12 Y148.24 E1620.72942
G0 F6000 X82.12 Y148.95
G1 F4920 X100.64 Y167.46 E1621.81809
G0 F6000 X99.93 Y167.46
G1 F4920 X82.12 Y149.65 E1622.86520
G0 F6000 X82.12 Y150.36
G1 F4920 X99.23 Y167.46 E1623.87073
G0 F6000 X98.52 Y167.46
G1 F4920 X82.12 Y151.07 E1624.83469
G0 F6000 X82.12 Y151.78
G1 F4920 X97.81 Y167.46 E1625.75709
G0 F6000 X97.11 Y167.46
G1 F4920 X82.12 Y152.48 E1626.63791
G0 F6000 X82.12 Y153.19
G1 F4920 X96.40 Y167.46 E1627.47717
G0 F6000 X95.69 Y167.46
G1 F4920 X82.12 Y153.90 E1628.27485
G0 F6000 X82.12 Y154.60
G1 F4920 X94.98 Y167.46 E1629.03094
G0 F6000 X94.28 Y167.46
G1 F4920 X82.12 Y155.31 E1629.74543
G0 F6000 X82.12 Y156.02
G1 F4920 X93.57 Y167.46 E1630.41836
G0 F6000 X92.86 Y167.46
G1 F4920 X82.12 Y156.72 E1631.04971
G0 F6000 X82.12 Y157.43
G1 F4920 X92.16 Y167.46 E1631.63949
G0 F6000 X91.45 Y167.46
G1 F4920 X82.12 Y158.14 E1632.18771
G0 F6000 X82.12 Y158.85
G1 F4920 X90.74 Y167.46 E1632.69436
G0 F6000 X90.03 Y167.46
G1 F4920 X82.12 Y159.55 E1633.15943
G0 F6000 X82.12 Y160.26
G1 F4920 X89.33 Y167.46 E1633.58294
G0 F6000 X88.62 Y167.46
G1 F4920 X82.12 Y160.97 E1633.96485
G0 F6000 X82.12 Y161.68
G1 F4920 X87.91 Y167.46 E1634.30517
G0 F6000 X87.21 Y167.46
G1 F4920 X82.12 Y162.38 E1634.60391
G0 F6000 X82.12 Y163.09
G1 F4920 X86.50 Y167.46 E1634.86108
G0 F6000 X85.79 Y167.46
G1 F4920 X82.12 Y163.80 E1635.07669
G0 F6000 X82.12 Y164.50
G1 F4920 X85.08 Y167.46 E1635.25073
G0 F6000 X84.38 Y167.46
G1 F4920 X82.12 Y165.21 E1635.38319
G0 F6000 X82.12 Y165.92
G1 F4920 X83.67 Y167.46 E1635.47409
G0 F6000 X82.96 Y167.46
G1 F4920 X82.12 Y166.62 E1635.52342
G0 F6000 X82.12 Y167.33
G1 F4920 X82.26 Y167.46 E1635.53118
G0 F6000 X82.73 Y137.53
G1 F4920 X112.66 Y167.46 E1637.29081
G0 F6000 X113.37 Y167.46
G1 F4920 X83.44 Y137.53 E1639.05043
G0 F6000 X84.15 Y137.53
G1 F4920 X114.08 Y167.46 E1640.81005
G0 F6000 X114.78 Y167.46
G1 F4920 X84.86 Y137.53 E1642.56967
G0 F6000 X85.56 Y137.53
G1 F4920 X115.49 Y167.46 E1644.32932
G0 F6000 X116.20 Y167.46
G1 F4920 X86.27 Y137.53 E1646.08898
G0 F6000 X86.98 Y137.53
G1 F4920 X116.91 Y167.46 E1647.84863
G0 F6000 X117.61 Y167.46
G1 F4920 X87.68 Y137.53 E1649.60828
G0 F6000 X88.39 Y137.53
G1 F4920 X118.32 Y167.46 E1651.36793
G0 F6000 X119.03 Y167.46
G1 F4920 X89.10 Y137.53 E1653.12758
G0 F6000 X89.81 Y137.53
G1 F4920 X119.73 Y167.46 E1654.88721
G0 F6000 X120.44 Y167.46
G1 F4920 X90.51 Y137.53 E1656.64683
G0 F6000 X91.22 Y137.53
G1 F4920 X121.15 Y167.46 E1658.40645
G0 F6000 X121.86 Y167.46
G1 F4920 X91.93 Y137.53 E1660.16610
G0 F6000 X92.63 Y137.53
G1 F4920 X122.56 Y167.46 E1661.92575
G0 F6000 X123.27 Y167.46
G1 F4920 X93.34 Y137.53 E1663.68541
G0 F6000 X94.05 Y137.53
G1 F4920 X123.98 Y167.46 E1665.44506
G0 F6000 X124.68 Y167.46
G1 F4920 X94.75 Y137.53 E1667.20471
G0 F6000 X95.46 Y137.53
G1 F4920 X125.39 Y167.46 E1668.96436
G0 F6000 X126.10 Y167.46
G1 F4920 X96.17 Y137.53 E1670.72398
G0 F6000 X96.88 Y137.53
G1 F4920 X126.80 Y167.46 E1672.48360
G0 F6000 X127.51 Y167.46
G1 F4920 X97.58 Y137.53 E1674.24323
G0 F6000 X98.29 Y137.53
G1 F4920 X128.22 Y167.46 E1676.00285
G0 F6000 X128.93 Y167.46
G1 F4920 X99.00 Y137.53 E1677.76250
G0 F6000 X99.70 Y137.53
G1 F4920 X129.63 Y167.46 E1679.52215
G0 F6000 X130.34 Y167.46
G1 F4920 X100.41 Y137.53 E1681.28180
G0 F6000 X101.12 Y137.53
G1 F4920 X131.05 Y167.46 E1683.04146
G0 F6000 X131.75 Y167.46
G1 F4920 X101.83 Y137.53 E1684.80111
G0 F6000 X102.53 Y137.53
G1 F4920 X132.46 Y167.46 E1686.56073
G0 F6000 X133.17 Y167.46
G1 F4920 X103.24 Y137.53 E1688.32035
G0 F6000 X103.95 Y137.53
G1 F4920 X133.88 Y167.46 E1690.07997
G0 F6000 X134.58 Y167.46
G1 F4920 X104.66 Y137.53 E1691.83960
G0 F6000 X105.36 Y137.53
G1 F4920 X135.29 Y167.46 E1693.59925
G0 F6000 X136.00 Y167.46
G1 F4920 X106.07 Y137.53 E1695.35890
G0 F6000 X106.78 Y137.53
G1 F4920 X136.70 Y167.46 E1697.11855
G0 F6000 X137.41 Y167.46
G1 F4920 X107.48 Y137.53 E1698.87820
G0 F6000 X108.19 Y137.53
G1 F4920 X138.12 Y167.46 E1700.63786
G0 F6000 X138.82 Y167.46
G1 F4920 X108.90 Y137.53 E1702.39751
G0 F6000 X109.61 Y137.53
G1 F4920 X139.53 Y167.46 E1704.15713
G0 F6000 X140.24 Y167.46
G1 F4920 X110.31 Y137.53 E1705.91675
G0 F6000 X111.02 Y137.53
G1 F4920 X140.95 Y167.46 E1707.67637
G0 F6000 X141.65 Y167.46
G1 F4920 X111.73 Y137.53 E1709.43600
G0 F6000 X112.43 Y137.53
G1 F4920 X142.36 Y167.46 E1711.19565
G0 F6000 X143.07 Y167.46
G1 F4920 X113.14 Y137.53 E1712.95530
G0 F6000 X113.85 Y137.53
G1 F4920 X143.78 Y167.46 E1714.71495
G0 F6000 X144.48 Y167.46
G1 F4920 X114.55 Y137.53 E1716.47460
G0 F6000 X115.26 Y137.53
G1 F4920 X145.19 Y167.46 E1718.23426
G0 F6000 X145.90 Y167.46
G1 F4920 X115.97 Y137.53 E1719.99388
G0 F6000 X116.68 Y137.53
G1 F4920 X146.60 Y167.46 E1721.75350
G0 F6000 X147.31 Y167.46
G1 F4920 X117.38 Y137.53 E1723.51312
G0 F6000 X118.09 Y137.53
G1 F4920 X148.02 Y167.46 E1725.27274
G0 F6000 X148.72 Y167.46
G1 F4920 X118.80 Y137.53 E1727.03240
G0 F6000 X119.50 Y137.53
G1 F4920 X149.43 Y167.46 E1728.79205
G0 F6000 X150.14 Y167.46
G1 F4920 X120.21 Y137.53 E1730.55170
G0 F6000 X120.92 Y137.53
G1 F4920 X150.85 Y167.46 E1732.31135
G0 F6000 X151.55 Y167.46
G1 F4920 X121.62 Y137.53 E1734.07100
G0 F6000 X122.33 Y137.53
G1 F4920 X152.26 Y167.46 E1735.83063
G0 F6000 X152.97 Y167.46
G1 F4920 X123.04 Y137.53 E1737.59025
G0 F6000 X123.75 Y137.53
G1 F4920 X153.67 Y167.46 E1739.34987
G0 F6000 X154.38 Y167.46
G1 F4920 X124.45 Y137.53 E1741.10949
G0 F6000 X125.16 Y137.53
G1 F4920 X155.09 Y167.46 E1742.86914
G0 F6000 X155.80 Y167.46
G1 F4920 X125.87 Y137.53 E1744.62880
G0 F6000 X126.58 Y137.53
G1 F4920 X156.50 Y167.46 E1746.38845
G0 F6000 X157.21 Y167.46
G1 F4920 X127.28 Y137.53 E1748.14810
G0 F6000 X127.99 Y137.53
G1 F4920 X157.92 Y167.46 E1749.90775
G0 F6000 X158.62 Y167.46
G1 F4920 X128.70 Y137.53 E1751.66740
G0 F6000 X129.40 Y137.53
G1 F4920 X159.33 Y167.46 E1753.42702
G0 F6000 X160.04 Y167.46
G1 F4920 X130.11 Y137.53 E1755.18665
G0 F6000 X130.82 Y137.53
G1 F4920 X160.75 Y167.46 E1756.94627
G0 F6000 X161.45 Y167.46
G1 F4920 X131.53 Y137.53 E1758.70589
G0 F6000 X132.23 Y137.53
G1 F4920 X162.16 Y167.46 E1760.46554
G0 F6000 X162.87 Y167.46
G1 F4920 X132.94 Y137.53 E1762.22519
G0 F6000 X133.65 Y137.53
G1 F4920 X163.57 Y167.46 E1763.98485
G0 F6000 X164.28 Y167.46
G1 F4920 X134.35 Y137.53 E1765.74450
G0 F6000 X135.06 Y137.53
G1 F4920 X164.99 Y167.46 E1767.50415
G0 F6000 X165.69 Y167.46
G1 F4920 X135.77 Y137.53 E1769.26377
G0 F6000 X136.47 Y137.53
G1 F4920 X166.40 Y167.46 E1771.02339
G0 F6000 X167.11 Y167.46
G1 F4920 X137.18 Y137.53 E1772.78302
G0 F6000 X137.89 Y137.53
G1 F4920 X167.82 Y167.46 E1774.54264
G0 F6000 X168.52 Y167.46
G1 F4920 X138.60 Y137.53 E1776.30229
G0 F6000 X139.30 Y137.53
G1 F4920 X169.23 Y167.46 E1778.06194
G0 F6000 X169.94 Y167.46
G1 F4920 X140.01 Y137.53 E1779.82159
G0 F6000 X140.72 Y137.53
G1 F4920 X170.65 Y167.46 E1781.58125
G0 F6000 X171.35 Y167.46
G1 F4920 X141.42 Y137.53 E1783.34090
G0 F6000 X142.13 Y137.53
G1 F4920 X172.06 Y167.46 E1785.10055
G0 F6000 X172.77 Y167.46
G1 F4920 X142.84 Y137.53 E1786.86017
G0 F6000 X143.55 Y137.53
G1 F4920 X173.47 Y167.46 E1788.61979
G0 F6000 X174.18 Y167.46
G1 F4920 X144.25 Y137.53 E1790.37942
G0 F6000 X144.96 Y137.53
G1 F4920 X174.89 Y167.46 E1792.13907
G0 F6000 X175.59 Y167.46
G1 F4920 X145.67 Y137.53 E1793.89872
G0 F6000 X146.37 Y137.53
G1 F4920 X176.30 Y167.46 E1795.65837
G0 F6000 X177.01 Y167.46
G1 F4920 X147.08 Y137.53 E1797.41802
G0 F6000 X147.79 Y137.53
G1 F4920 X177.72 Y167.46 E1799.17767
G0 F6000 X178.42 Y167.46
G1 F4920 X148.50 Y137.53 E1800.93733
G0 F6000 X149.20 Y137.53
G1 F4920 X179.13 Y167.46 E1802.69695
G0 F6000 X179.84 Y167.46
G1 F4920 X149.91 Y137.53 E1804.45657
G0 F6000 X150.62 Y137.53
G1 F4920 X180.54 Y167.46 E1806.21619
G0 F6000 X181.25 Y167.46
G1 F4920 X151.32 Y137.53 E1807.97582
G0 F6000 X152.03 Y137.53
G1 F4920 X181.96 Y167.46 E1809.73547
G0 F6000 X182.67 Y167.46
G1 F4920 X152.74 Y137.53 E1811.49512
G0 F6000 X153.44 Y137.53
G1 F4920 X183.37 Y167.46 E1813.25477
G0 F6000 X184.08 Y167.46
G1 F4920 X154.15 Y137.53 E1815.01442
G0 F6000 X154.86 Y137.53
G1 F4920 X184.79 Y167.46 E1816.77407
G0 F6000 X185.49 Y167.46
G1 F4920 X155.57 Y137.53 E1818.53370
G0 F6000 X156.27 Y137.53
G1 F4920 X186.20 Y167.46 E1820.29332
G0 F6000 X186.91 Y167.46
G1 F4920 X156.98 Y137.53 E1822.05294
G0 F6000 X157.69 Y137.53
G1 F4920 X187.62 Y167.46 E1823.81256
G0 F6000 X188.32 Y167.46
G1 F4920 X158.40 Y137.53 E1825.57222
G0 F6000 X159.10 Y137.53
G1 F4920 X189.03 Y167.46 E1827.33187
G0 F6000 X189.74 Y167.46
G1 F4920 X159.81 Y137.53 E1829.09152
G0 F6000 X160.52 Y137.53
G1 F4920 X190.44 Y167.46 E1830.85117
G0 F6000 X191.15 Y167.46
G1 F4920 X161.22 Y137.53 E1832.61082
G0 F6000 X161.93 Y137.53
G1 F4920 X191.86 Y167.46 E1834.37047
G0 F6000 X192.56 Y167.46
G1 F4920 X162.64 Y137.53 E1836.13010
G0 F6000 X163.34 Y137.53
G1 F4920 X193.27 Y167.46 E1837.88972
G0 F6000 X193.98 Y167.46
G1 F4920 X164.05 Y137.53 E1839.64934
G0 F6000 X164.76 Y137.53
G1 F4920 X194.69 Y167.46 E1841.40899
G0 F6000 X195.39 Y167.46
G1 F4920 X165.47 Y137.53 E1843.16864
G0 F6000 X166.17 Y137.53
G1 F4920 X196.10 Y167.46 E1844.92830
G0 F6000 X196.81 Y167.46
G1 F4920 X166.88 Y137.53 E1846.68795
G0 F6000 X167.59 Y137.53
G1 F4920 X197.51 Y167.46 E1848.44760
G0 F6000 X198.22 Y167.46
G1 F4920 X168.29 Y137.53 E1850.20725
G0 F6000 X169.00 Y137.53
G1 F4920 X198.93 Y167.46 E1851.96687
G0 F6000 X199.64 Y167.46
G1 F4920 X169.71 Y137.53 E1853.72650
G0 F6000 X170.42 Y137.53
G1 F4920 X200.34 Y167.46 E1855.48612
G0 F6000 X201.05 Y167.46
G1 F4920 X171.12 Y137.53 E1857.24574
G0 F6000 X171.83 Y137.53
G1 F4920 X201.76 Y167.46 E1859.00539
G0 F6000 X202.47 Y167.46
G1 F4920 X172.54 Y137.53 E1860.76504
G0 F6000 X173.24 Y137.53
G1 F4920 X203.17 Y167.46 E1862.52470
G0 F6000 X203.88 Y167.46
G1 F4920 X173.95 Y137.53 E1864.28435
G0 F6000 X174.66 Y137.53
G1 F4920 X204.59 Y167.46 E1866.04400
G0 F6000 X205.29 Y167.46
G1 F4920 X175.37 Y137.53 E1867.80362
G0 F6000 X176.07 Y137.53
G1 F4920 X206.00 Y167.46 E1869.56324
G0 F6000 X206.71 Y167.46
G1 F4920 X176.78 Y137.53 E1871.32287
G0 F6000 X177.49 Y137.53
G1 F4920 X207.41 Y167.46 E1873.08249
G0 F6000 X208.12 Y167.46
G1 F4920 X178.19 Y137.53 E1874.84214
G0 F6000 X178.90 Y137.53
G1 F4920 X208.83 Y167.46 E1876.60179
G0 F6000 X209.54 Y167.46
G1 F4920 X179.61 Y137.53 E1878.36144
G0 F6000 X180.31 Y137.53
G1 F4920 X210.24 Y167.46 E1880.12109
G0 F6000 X210.95 Y167.46
G1 F4920 X181.02 Y137.53 E1881.88075
G0 F6000 X181.73 Y137.53
G1 F4920 X211.66 Y167.46 E1883.64040
G0 F6000 X212.36 Y167.46
G1 F4920 X182.44 Y137.53 E1885.40002
G0 F6000 X183.14 Y137.53
G1 F4920 X213.07 Y167.46 E1887.15964
G0 F6000 X213.78 Y167.46
G1 F4920 X183.85 Y137.53 E1888.91927
G0 F6000 X184.56 Y137.53
G1 F4920 X214.49 Y167.46 E1890.67889
G0 F6000 X215.19 Y167.46
G1 F4920 X185.26 Y137.53 E1892.43854
G0 F6000 X185.97 Y137.53
G1 F4920 X215.90 Y167.46 E1894.19819
G0 F6000 X216.61 Y167.46
G1 F4920 X186.68 Y137.53 E1895.95784
G0 F6000 X187.39 Y137.53
G1 F4920 X217.31 Y167.46 E1897.71749
G0 F6000 X218.02 Y167.46
G1 F4920 X188.09 Y137.53 E1899.47715
G0 F6000 X188.80 Y137.53
G1 F4920 X218.73 Y167.46 E1901.23677
G0 F6000 X219.44 Y167.46
G1 F4920 X189.51 Y137.53 E1902.99639
G0 F6000 X190.22 Y137.53
G1 F4920 X220.14 Y167.46 E1904.75601
G0 F6000 X220.85 Y167.46
G1 F4920 X190.92 Y137.53 E1906.51564
G0 F6000 X191.63 Y137.53
G1 F4920 X221.56 Y167.46 E1908.27529
G0 F6000 X222.26 Y167.46
G1 F4920 X192.34 Y137.53 E1910.03494
G0 F6000 X193.04 Y137.53
G1 F4920 X222.87 Y167.37 E1911.78883
G0 F6000 X222.87 Y166.66
G1 F4920 X193.75 Y137.53 E1913.50115
G0 F6000 X194.46 Y137.53
G1 F4920 X222.87 Y165.95 E1915.17190
G0 F6000 X222.87 Y165.24
G1 F4920 X195.16 Y137.53 E1916.80105
G0 F6000 X195.87 Y137.53
G1 F4920 X222.87 Y164.54 E1918.38864
G0 F6000 X222.87 Y163.83
G1 F4920 X196.58 Y137.53 E1919.93465
G0 F6000 X197.29 Y137.53
G1 F4920 X222.87 Y163.12 E1921.43910
G0 F6000 X222.87 Y162.42
G1 F4920 X197.99 Y137.53 E1922.90198
G0 F6000 X198.70 Y137.53
G1 F4920 X222.87 Y161.71 E1924.32326
G0 F6000 X222.87 Y161.00
G1 F4920 X199.41 Y137.53 E1925.70297
G0 F6000 X200.11 Y137.53
G1 F4920 X222.87 Y160.29 E1927.04111
G0 F6000 X222.87 Y159.59
G1 F4920 X200.82 Y137.53 E1928.33769
G0 F6000 X201.53 Y137.53
G1 F4920 X222.87 Y158.88 E1929.59269
G0 F6000 X222.87 Y158.17
G1 F4920 X202.24 Y137.53 E1930.80610
G0 F6000 X202.94 Y137.53
G1 F4920 X222.87 Y157.47 E1931.97793
G0 F6000 X222.87 Y156.76
G1 F4920 X203.65 Y137.53 E1933.10820
G0 F6000 X204.36 Y137.53
G1 F4920 X222.87 Y156.05 E1934.19690
G0 F6000 X222.87 Y155.34
G1 F4920 X205.06 Y137.53 E1935.24400
G0 F6000 X205.77 Y137.53
G1 F4920 X222.87 Y154.64 E1936.24953
G0 F6000 X222.87 Y153.93
G1 F4920 X206.48 Y137.53 E1937.21350
G0 F6000 X207.19 Y137.53
G1 F4920 X222.87 Y153.22 E1938.13589
G0 F6000 X222.87 Y152.52
G1 F4920 X207.89 Y137.53 E1939.01672
G0 F6000 X208.60 Y137.53
G1 F4920 X222.87 Y151.81 E1939.85594
G0 F6000 X222.87 Y151.10
G1 F4920 X209.31 Y137.53 E1940.65360
G0 F6000 X210.01 Y137.53
G1 F4920 X222.87 Y150.40 E1941.40969
G0 F6000 X222.87 Y149.69
G1 F4920 X210.72 Y137.53 E1942.12421
G0 F6000 X211.43 Y137.53
G1 F4920 X222.87 Y148.98 E1942.79716
G0 F6000 X222.87 Y148.27
G1 F4920 X212.13 Y137.53 E1943.42852
G0 F6000 X212.84 Y137.53
G1 F4920 X222.87 Y147.57 E1944.01830
G0 F6000 X222.87 Y146.86
G1 F4920 X213.55 Y137.53 E1944.56652
G0 F6000 X214.26 Y137.53
G1 F4920 X222.87 Y146.15 E1945.07316
G0 F6000 X222.87 Y145.44
G1 F4920 X214.96 Y137.53 E1945.53824
G0 F6000 X215.67 Y137.53
G1 F4920 X222.87 Y144.74 E1945.96172
G0 F6000 X222.87 Y144.03
G1 F4920 X216.38 Y137.53 E1946.34363
G0 F6000 X217.09 Y137.53
G1 F4920 X222.87 Y143.32 E1946.68397
G0 F6000 X222.87 Y142.62
G1 F4920 X217.79 Y137.53 E1946.98274
G0 F6000 X218.50 Y137.53
G1 F4920 X222.87 Y141.91 E1947.23992
G0 F6000 X222.87 Y141.20
G1 F4920 X219.21 Y137.53 E1947.45552
G0 F6000 X219.91 Y137.53
G1 F4920 X222.87 Y140.50 E1947.62956
G0 F6000 X222.87 Y139.79
G1 F4920 X220.62 Y137.53 E1947.76203
G0 F6000 X221.33 Y137.53
G1 F4920 X222.87 Y139.08 E1947.85293
G0 F6000 X222.87 Y138.37
G1 F4920 X222.03 Y137.53 E1947.90223
G0 F6000 X222.74 Y137.53
G1 F4920 X222.87 Y137.67 E1947.90996
;LAYER:3
G0 F6000 X223.05 Y137.36 Z0.90
;TYPE:WALL-INNER
G1 F6060 X223.05 Y167.64 E1949.16877
G1 X81.95 Y167.64 E1955.03495
G1 X81.95 Y137.36 E1956.29376
G1 X223.05 Y137.36 E1962.15993
G0 F6000 X223.55 Y136.86
;TYPE:WALL-OUTER
G1 F6060 X223.55 Y168.14 E1963.46032
G1 X81.45 Y168.14 E1969.36807
G1 X81.45 Y136.86 E1970.66846
G1 X223.55 Y136.86 E1976.57620
G0 F6000 X222.74 Y137.53
;TYPE:FILL
G1 F6060 X192.81 Y167.46 E1978.33592
G0 F6000 X193.51 Y167.46
G1 F6060 X222.87 Y138.10 E1980.06211
G0 F6000 X222.87 Y138.81
G1 F6060 X194.22 Y167.46 E1981.74671
G0 F6000 X194.93 Y167.46
G1 F6060 X222.87 Y139.52 E1983.38974
G0 F6000 X222.87 Y140.23
G1 F6060 X195.63 Y167.46 E1984.99120
G0 F6000 X196.34 Y167.46
G1 F6060 X222.87 Y140.93 E1986.55109
G0 F6000 X222.87 Y141.64
G1 F6060 X197.05 Y167.46 E1988.06942
G0 F6000 X197.76 Y167.46
G1 F6060 X222.87 Y142.35 E1989.54617
G0 F6000 X222.87 Y143.05
G1 F6060 X198.46 Y167.46 E1990.98135
G0 F6000 X199.17 Y167.46
G1 F6060 X222.87 Y143.76 E1992.37497
G0 F6000 X222.87 Y144.47
G1 F6060 X199.88 Y167.46 E1993.72702
G0 F6000 X200.58 Y167.46
G1 F6060 X222.87 Y145.18 E1995.03747
G0 F6000 X222.87 Y145.88
G1 F6060 X201.29 Y167.46 E1996.30632
G0 F6000 X202.00 Y167.46
G1 F6060 X222.87 Y146.59 E1997.53360
G0 F6000 X222.87 Y147.30
G1 F6060 X202.71 Y167.46 E1998.71931
G0 F6000 X203.41 Y167.46
G1 F6060 X222.87 Y148.00 E1999.86346
G0 F6000 X222.87 Y148.71
G1 F6060 X204.12 Y167.46 E2000.96603
G0 F6000 X204.83 Y167.46
G1 F6060 X222.87 Y149.42 E2002.02704
G0 F6000 X222.87 Y150.12
G1 F6060 X205.53 Y167.46 E2003.04647
G0 F6000 X206.24 Y167.46
G1 F6060 X222.87 Y150.83 E2004.02434
G0 F6000 X222.87 Y151.54
G1 F6060 X206.95 Y167.46 E2004.96061
G0 F6000 X207.66 Y167.46
G1 F6060 X222.87 Y152.25 E2005.85529
G0 F6000 X222.87 Y152.95
G1 F6060 X208.36 Y167.46 E2006.70839
G0 F6000 X209.07 Y167.46
G1 F6060 X222.87 Y153.66 E2007.51992
G0 F6000 X222.87 Y154.37
G1 F6060 X209.78 Y167.46 E2008.28989
G0 F6000 X210.48 Y167.46
G1 F6060 X222.87 Y155.07 E2009.01828
G0 F6000 X222.87 Y155.78
G1 F6060 X211.19 Y167.46 E2009.70511
G0 F6000 X211.90 Y167.46
G1 F6060 X222.87 Y156.49 E2010.35037
G0 F6000 X222.87 Y157.20
G1 F6060 X212.60 Y167.46 E2010.95406
G0 F6000 X213.31 Y167.46
G1 F6060 X222.87 Y157.90 E2011.51615
G0 F6000 X222.87 Y158.61
G1 F6060 X214.02 Y167.46 E2012.03664
G0 F6000 X214.73 Y167.46
G1 F6060 X222.87 Y159.32 E2012.51557
G0 F6000 X222.87 Y160.03
G1 F6060 X215.43 Y167.46 E2012.95292
G0 F6000 X216.14 Y167.46
G1 F6060 X222.87 Y160.73 E2013.34871
G0 F6000 X222.87 Y161.44
G1 F6060 X216.85 Y167.46 E2013.70293
G0 F6000 X217.56 Y167.46
G1 F6060 X222.87 Y162.15 E2014.01558
G0 F6000 X222.87 Y162.85
G1 F6060 X218.26 Y167.46 E2014.28666
G0 F6000 X218.97 Y167.46
G1 F6060 X222.87 Y163.56 E2014.51617
G0 F6000 X222.87 Y164.27
G1 F6060 X219.68 Y167.46 E2014.70411
G0 F6000 X220.38 Y167.46
G1 F6060 X222.87 Y164.97 E2014.85045
G0 F6000 X222.87 Y165.68
G1 F6060 X221.09 Y167.46 E2014.95520
G0 F6000 X221.80 Y167.46
G1 F6060 X222.87 Y166.39 E2015.01837
G0 F6000 X222.87 Y167.10
G1 F6060 X222.50 Y167.46 E2015.03998
G0 F6000 X222.03 Y137.53
G1 F6060 X192.10 Y167.46 E2016.79969
G0 F6000 X191.39 Y167.46
G1 F6060 X221.32 Y137.53 E2018.55940
G0 F6000 X220.61 Y137.53
G1 F6060 X190.69 Y167.46 E2020.31911
G0 F6000 X189.98 Y167.46
G1 F6060 X219.91 Y137.53 E2022.07882
G0 F6000 X219.20 Y137.53
G1 F6060 X189.27 Y167.46 E2023.83853
G0 F6000 X188.56 Y167.46
G1 F6060 X218.49 Y137.53 E2025.59824
G0 F6000 X217.79 Y137.53
G1 F6060 X187.86 Y167.46 E2027.35796
G0 F6000 X187.15 Y167.46
G1 F6060 X217.08 Y137.53 E2029.11767
G0 F6000 X216.37 Y137.53
G1 F6060 X186.44 Y167.46 E2030.87738
G0 F6000 X185.74 Y167.46
G1 F6060 X215.66 Y137.53 E2032.63709
G0 F6000 X214.96 Y137.53
G1 F6060 X185.03 Y167.46 E2034.39680
G0 F6000 X184.32 Y167.46
G1 F6060 X214.25 Y137.53 E2036.15651
G0 F6000 X213.54 Y137.53
G1 F6060 X183.61 Y167.46 E2037.91622
G0 F6000 X182.91 Y167.46
G1 F6060 X212.84 Y137.53 E2039.67593
G0 F6000 X212.13 Y137.53
G1 F6060 X182.20 Y167.46 E2041.43564
G0 F6000 X181.49 Y167.46
G1 F6060 X211.42 Y137.53 E2043.19535
G0 F6000 X210.71 Y137.53
G1 F6060 X180.78 Y167.46 E2044.95506
G0 F6000 X180.08 Y167.46
G1 F6060 X210.01 Y137.53 E2046.71477
G0 F6000 X209.30 Y137.53
G1 F6060 X179.37 Y167.46 E2048.47448
G0 F6000 X178.66 Y167.46
G1 F6060 X208.59 Y137.53 E2050.23419
G0 F6000 X207.89 Y137.53
G1 F6060 X177.96 Y167.46 E2051.99390
G0 F6000 X177.25 Y167.46
G1 F6060 X207.18 Y137.53 E2053.75361
G0 F6000 X206.47 Y137.53
G1 F6060 X176.54 Y167.46 E2055.51332
G0 F6000 X175.84 Y167.46
G1 F6060 X205.76 Y137.53 E2057.27303
G0 F6000 X205.06 Y137.53
G1 F6060 X175.13 Y167.46 E2059.03274
G0 F6000 X174.42 Y167.46
G1 F6060 X204.35 Y137.53 E2060.79245
G0 F6000 X203.64 Y137.53
G1 F6060 X173.71 Y167.46 E2062.55217
G0 F6000 X173.01 Y167.46
G1 F6060 X202.94 Y137.53 E2064.31188
G0 F6000 X202.23 Y137.53
G1 F6060 X172.30 Y167.46 E2066.07159
G0 F6000 X171.59 Y167.46
G1 F6060 X201.52 Y137.53 E2067.83130
G0 F6000 X200.81 Y137.53
G1 F6060 X170.89 Y167.46 E2069.59101
G0 F6000 X170.18 Y167.46
G1 F6060 X200.11 Y137.53 E2071.35072
G0 F6000 X199.40 Y137.53
G1 F6060 X169.47 Y167.46 E2073.11043
G0 F6000 X168.76 Y167.46
G1 F6060 X198.69 Y137.53 E2074.87014
G0 F6000 X197.99 Y137.53
G1 F6060 X168.06 Y167.46 E2076.62985
G0 F6000 X167.35 Y167.46
G1 F6060 X197.28 Y137.53 E2078.38956
G0 F6000 X196.57 Y137.53
G1 F6060 X166.64 Y167.46 E2080.14927
G0 F6000 X165.94 Y167.46
G1 F6060 X195.87 Y137.53 E2081.90898
G0 F6000 X195.16 Y137.53
G1 F6060 X165.23 Y167.46 E2083.66869
G0 F6000 X164.52 Y167.46
G1 F6060 X194.45 Y137.53 E2085.42840
G0 F6000 X193.74 Y137.53
G1 F6060 X163.81 Y167.46 E2087.18811
G0 F6000 X163.11 Y167.46
G1 F6060 X193.04 Y137.53 E2088.94782
G0 F6000 X192.33 Y137.53
G1 F6060 X162.40 Y167.46 E2090.70753
G0 F6000 X161.69 Y167.46
G1 F6060 X191.62 Y137.53 E2092.46724
G0 F6000 X190.92 Y137.53
G1 F6060 X160.99 Y167.46 E2094.22695
G0 F6000 X160.28 Y167.46
G1 F6060 X190.21 Y137.53 E2095.98666
G0 F6000 X189.50 Y137.53
G1 F6060 X159.57 Y167.46 E2097.74638
G0 F6000 X158.87 Y167.46
G1 F6060 X188.79 Y137.53 E2099.50609
G0 F6000 X188.09 Y137.53
G1 F6060 X158.16 Y167.46 E2101.26580
G0 F6000 X157.45 Y167.46
G1 F6060 X187.38 Y137.53 E2103.02551
G0 F6000 X186.67 Y137.53
G1 F6060 X156.74 Y167.46 E2104.78522
G0 F6000 X156.04 Y167.46
G1 F6060 X185.97 Y137.53 E2106.54493
G0 F6000 X185.26 Y137.53
G1 F6060 X155.33 Y167.46 E2108.30464
G0 F6000 X154.62 Y167.46
G1 F6060 X184.55 Y137.53 E2110.06435
G0 F6000 X183.84 Y137.53
G1 F6060 X153.91 Y167.46 E2111.82406
G0 F6000 X153.21 Y167.46
G1 F6060 X183.14 Y137.53 E2113.58377
G0 F6000 X182.43 Y137.53
G1 F6060 X152.50 Y167.46 E2115.34348
G0 F6000 X151.79 Y167.46
G1 F6060 X181.72 Y137.53 E2117.10319
G0 F6000 X181.02 Y137.53
G1 F6060 X151.09 Y167.46 E2118.86290
G0 F6000 X150.38 Y167.46
G1 F6060 X180.31 Y137.53 E2120.62261
G0 F6000 X179.60 Y137.53
G1 F6060 X149.67 Y167.46 E2122.38232
G0 F6000 X148.97 Y167.46
G1 F6060 X178.90 Y137.53 E2124.14203
G0 F6000 X178.19 Y137.53
G1 F6060 X148.26 Y167.46 E2125.90174
G0 F6000 X147.55 Y167.46
G1 F6060 X177.48 Y137.53 E2127.66145
G0 F6000 X176.77 Y137.53
G1 F6060 X146.84 Y167.46 E2129.42116
G0 F6000 X146.14 Y167.46
G1 F6060 X176.07 Y137.53 E2131.18087
G0 F6000 X175.36 Y137.53
G1 F6060 X145.43 Y167.46 E2132.94059
G0 F6000 X144.72 Y167.46
G1 F6060 X174.65 Y137.53 E2134.70030
G0 F6000 X173.94 Y137.53
G1 F6060 X144.02 Y167.46 E2136.46001
G0 F6000 X143.31 Y167.46
G1 F6060 X173.24 Y137.53 E2138.21972
G0 F6000 X172.53 Y137.53
G1 F6060 X142.60 Y167.46 E2139.97943
G0 F6000 X141.90 Y167.46
G1 F6060 X171.82 Y137.53 E2141.73914
G0 F6000 X171.12 Y137.53
G1 F6060 X141.19 Y167.46 E2143.49885
G0 F6000 X140.48 Y167.46
G1 F6060 X170.41 Y137.53 E2145.25856
G0 F6000 X169.70 Y137.53
G1 F6060 X139.77 Y167.46 E2147.01827
G0 F6000 X139.07 Y167.46
G1 F6060 X169.00 Y137.53 E2148.77798
G0 F6000 X168.29 Y137.53
G1 F6060 X138.36 Y167.46 E2150.53769
G0 F6000 X137.65 Y167.46
G1 F6060 X167.58 Y137.53 E2152.29740
G0 F6000 X166.87 Y137.53
G1 F6060 X136.94 Y167.46 E2154.05711
G0 F6000 X136.24 Y167.46
G1 F6060 X166.17 Y137.53 E2155.81682
G0 F6000 X165.46 Y137.53
G1 F6060 X135.53 Y167.46 E2157.57653
G0 F6000 X134.82 Y167.46
G1 F6060 X164.75 Y137.53 E2159.33624
G0 F6000 X164.04 Y137.53
G1 F6060 X134.12 Y167.46 E2161.09595
G0 F6000 X133.41 Y167.46
G1 F6060 X163.34 Y137.53 E2162.85566
G0 F6000 X162.63 Y137.53
G1 F6060 X132.70 Y167.46 E2164.61537
G0 F6000 X132.00 Y167.46
G1 F6060 X161.92 Y137.53 E2166.37508
G0 F6000 X161.22 Y137.53
G1 F6060 X131.29 Y167.46 E2168.13480
G0 F6000 X130.58 Y167.46
G1 F6060 X160.51 Y137.53 E2169.89451
G0 F6000 X159.80 Y137.53
G1 F6060 X129.87 Y167.46 E2171.65422
G0 F6000 X129.17 Y167.46
G1 F6060 X159.10 Y137.53 E2173.41393
G0 F6000 X158.39 Y137.53
G1 F6060 X128.46 Y167.46 E2175.17364
G0 F6000 X127.75 Y167.46
G1 F6060 X157.68 Y137.53 E2176.93335
G0 F6000 X156.97 Y137.53
G1 F6060 X127.05 Y167.46 E2178.69306
G0 F6000 X126.34 Y167.46
G1 F6060 X156.27 Y137.53 E2180.45277
G0 F6000 X155.56 Y137.53
G1 F6060 X125.63 Y167.46 E2182.21248
G0 F6000 X124.92 Y167.46
G1 F6060 X154.85 Y137.53 E2183.97219
G0 F6000 X154.15 Y137.53
G1 F6060 X124.22 Y167.46 E2185.73190
G0 F6000 X123.51 Y167.46
G1 F6060 X153.44 Y137.53 E2187.49161
G0 F6000 X152.73 Y137.53
G1 F6060 X122.80 Y167.46 E2189.25132
G0 F6000 X122.10 Y167.46
G1 F6060 X152.03 Y137.53 E2191.01103
G0 F6000 X151.32 Y137.53
G1 F6060 X121.39 Y167.46 E2192.77074
G0 F6000 X120.68 Y167.46
G1 F6060 X150.61 Y137.53 E2194.53045
G0 F6000 X149.90 Y137.53
G1 F6060 X119.97 Y167.46 E2196.29016
G0 F6000 X119.27 Y167.46
G1 F6060 X149.20 Y137.53 E2198.04987
G0 F6000 X148.49 Y137.53
G1 F6060 X118.56 Y167.46 E2199.80958
G0 F6000 X117.85 Y167.46
G1 F6060 X147.78 Y137.53 E2201.56929
G0 F6000 X147.07 Y137.53
G1 F6060 X117.15 Y167.46 E2203.32901
G0 F6000 X116.44 Y167.46
G1 F6060 X146.37 Y137.53 E2205.08872
G0 F6000 X145.66 Y137.53
G1 F6060 X115.73 Y167.46 E2206.84843
G0 F6000 X115.03 Y167.46
G1 F6060 X144.95 Y137.53 E2208.60814
G0 F6000 X144.25 Y137.53
G1 F6060 X114.32 Y167.46 E2210.36785
G0 F6000 X113.61 Y167.46
G1 F6060 X143.54 Y137.53 E2212.12756
G0 F6000 X142.83 Y137.53
G1 F6060 X112.90 Y167.46 E2213.88727
G0 F6000 X112.20 Y167.46
G1 F6060 X142.12 Y137.53 E2215.64698
G0 F6000 X141.42 Y137.53
G1 F6060 X111.49 Y167.46 E2217.40669
G0 F6000 X110.78 Y167.46
G1 F6060 X140.71 Y137.53 E2219.16640
G0 F6000 X140.00 Y137.53
G1 F6060 X110.08 Y167.46 E2220.92611
G0 F6000 X109.37 Y167.46
G1 F6060 X139.30 Y137.53 E2222.68582
G0 F6000 X138.59 Y137.53
G1 F6060 X108.66 Y167.46 E2224.44553
G0 F6000 X107.95 Y167.46
G1 F6060 X137.88 Y137.53 E2226.20524
G0 F6000 X137.18 Y137.53
G1 F6060 X107.25 Y167.46 E2227.96495
G0 F6000 X106.54 Y167.46
G1 F6060 X136.47 Y137.53 E2229.72466
G0 F6000 X135.76 Y137.53
G1 F6060 X105.83 Y167.46 E2231.48437
G0 F6000 X105.12 Y167.46
G1 F6060 X135.05 Y137.53 E2233.24408
G0 F6000 X134.35 Y137.53
G1 F6060 X104.42 Y167.46 E2235.00379
G0 F6000 X103.71 Y167.46
G1 F6060 X133.64 Y137.53 E2236.76350
G0 F6000 X132.93 Y137.53
G1 F6060 X103.00 Y167.46 E2238.52322
G0 F6000 X102.30 Y167.46
G1 F6060 X132.23 Y137.53 E2240.28293
G0 F6000 X131.52 Y137.53
G1 F6060 X101.59 Y167.46 E2242.04264
G0 F6000 X100.88 Y167.46
G1 F6060 X130.81 Y137.53 E2243.80235
G0 F6000 X130.10 Y137.53
G1 F6060 X100.17 Y167.46 E2245.56206
G0 F6000 X99.47 Y167.46
G1 F6060 X129.40 Y137.53 E2247.32177
G0 F6000 X128.69 Y137.53
G1 F6060 X98.76 Y167.46 E2249.08148
G0 F6000 X98.05 Y167.46
G1 F6060 X127.98 Y137.53 E2250.84119
G0 F6000 X127.28 Y137.53
G1 F6060 X97.35 Y167.46 E2252.60090
G0 F6000 X96.64 Y167.46
G1 F6060 X126.57 Y137.53 E2254.36061
G0 F6000 X125.86 Y137.53
G1 F6060 X95.93 Y167.46 E2256.12032
G0 F6000 X95.23 Y167.46
G1 F6060 X125.16 Y137.53 E2257.88003
G0 F6000 X124.45 Y137.53
G1 F6060 X94.52 Y167.46 E2259.63974
G0 F6000 X93.81 Y167.46
G1 F6060 X123.74 Y137.53 E2261.39945
G0 F6000 X123.03 Y137.53
G1 F6060 X93.10 Y167.46 E2263.15916
G0 F6000 X92.40 Y167.46
G1 F6060 X122.33 Y137.53 E2264.91887
G0 F6000 X121.62 Y137.53
G1 F6060 X91.69 Y167.46 E2266.67858
G0 F6000 X90.98 Y167.46
G1 F6060 X120.91 Y137.53 E2268.43829
G0 F6000 X120.20 Y137.53
G1 F6060 X90.28 Y167.46 E2270.19800
G0 F6000 X89.57 Y167.46
G1 F6060 X119.50 Y137.53 E2271.95771
G0 F6000 X118.79 Y137.53
G1 F6060 X88.86 Y167.46 E2273.71743
G0 F6000 X88.16 Y167.46
G1 F6060 X118.08 Y137.53 E2275.47714
G0 F6000 X117.38 Y137.53
G1 F6060 X87.45 Y167.46 E2277.23685
G0 F6000 X86.74 Y167.46
G1 F6060 X116.67 Y137.53 E2278.99656
G0 F6000 X115.96 Y137.53
G1 F6060 X86.03 Y167.46 E2280.75627
G0 F6000 X85.33 Y167.46
G1 F6060 X115.25 Y137.53 E2282.51598
G0 F6000 X114.55 Y137.53
G1 F6060 X84.62 Y167.46 E2284.27569
G0 F6000 X83.91 Y167.46
G1 F6060 X113.84 Y137.53 E2286.03540
G0 F6000 X113.13 Y137.53
G1 F6060 X83.20 Y167.46 E2287.79511
G0 F6000 X82.50 Y167.46
G1 F6060 X112.43 Y137.53 E2289.55482
G0 F6000 X111.72 Y137.53
G1 F6060 X82.13 Y167.13 E2291.29480
G0 F6000 X82.13 Y166.42
G1 F6060 X111.01 Y137.53 E2292.99319
G0 F6000 X110.31 Y137.53
G1 F6060 X82.13 Y165.71 E2294.65001
G0 F6000 X82.13 Y165.01
G1 F6060 X109.60 Y137.53 E2296.26526
G0 F6000 X108.89 Y137.53
G1 F6060 X82.13 Y164.30 E2297.83894
G0 F6000 X82.13 Y163.59
G1 F6060 X108.18 Y137.53 E2299.37105
G0 F6000 X107.48 Y137.53
G1 F6060 X82.13 Y162.89 E2300.86159
G0 F6000 X82.13 Y162.18
G1 F6060 X106.77 Y137.53 E2302.31056
G0 F6000 X106.06 Y137.53
G1 F6060 X82.13 Y161.47 E2303.71796
G0 F6000 X82.13 Y160.76
G1 F6060 X105.36 Y137.53 E2305.08377
G0 F6000 X104.65 Y137.53
G1 F6060 X82.13 Y160.06 E2306.40798
G0 F6000 X82.13 Y159.35
G1 F6060 X103.94 Y137.53 E2307.69062
G0 F6000 X103.23 Y137.53
G1 F6060 X82.13 Y158.64 E2308.93168
G0 F6000 X82.13 Y157.94
G1 F6060 X102.53 Y137.53 E2310.13119
G0 F6000 X101.82 Y137.53
G1 F6060 X82.13 Y157.23 E2311.28912
G0 F6000 X82.13 Y156.52
G1 F6060 X101.11 Y137.53 E2312.40548
G0 F6000 X100.41 Y137.53
G1 F6060 X82.13 Y155.81 E2313.48027
G0 F6000 X82.13 Y155.11
G1 F6060 X99.70 Y137.53 E2314.51350
G0 F6000 X98.99 Y137.53
G1 F6060 X82.13 Y154.40 E2315.50515
G0 F6000 X82.13 Y153.69
G1 F6060 X98.28 Y137.53 E2316.45521
G0 F6000 X97.58 Y137.53
G1 F6060 X82.13 Y152.99 E2317.36367
G0 F6000 X82.13 Y152.28
G1 F6060 X96.87 Y137.53 E2318.23056
G0 F6000 X96.16 Y137.53
G1 F6060 X82.13 Y151.57 E2319.05588
G0 F6000 X82.13 Y150.87
G1 F6060 X95.46 Y137.53 E2319.83964
G0 F6000 X94.75 Y137.53
G1 F6060 X82.13 Y150.16 E2320.58182
G0 F6000 X82.13 Y149.45
G1 F6060 X94.04 Y137.53 E2321.28244
G0 F6000 X93.33 Y137.53
G1 F6060 X82.13 Y148.74 E2321.94148
G0 F6000 X82.13 Y148.04
G1 F6060 X92.63 Y137.53 E2322.55896
G0 F6000 X91.92 Y137.53
G1 F6060 X82.13 Y147.33 E2323.13484
G0 F6000 X82.13 Y146.62
G1 F6060 X91.21 Y137.53 E2323.66912
G0 F6000 X90.51 Y137.53
G1 F6060 X82.13 Y145.91 E2324.16183
G0 F6000 X82.13 Y145.21
G1 F6060 X89.80 Y137.53 E2324.61298
G0 F6000 X89.09 Y137.53
G1 F6060 X82.13 Y144.50 E2325.02255
G0 F6000 X82.13 Y143.79
G1 F6060 X88.39 Y137.53 E2325.39055
G0 F6000 X87.68 Y137.53
G1 F6060 X82.13 Y143.09 E2325.71699
G0 F6000 X82.13 Y142.38
G1 F6060 X86.97 Y137.53 E2326.00186
G0 F6000 X86.26 Y137.53
G1 F6060 X82.13 Y141.67 E2326.24516
G0 F6000 X82.13 Y140.97
G1 F6060 X85.56 Y137.53 E2326.44686
G0 F6000 X84.85 Y137.53
G1 F6060 X82.13 Y140.26 E2326.60696
G0 F6000 X82.13 Y139.55
G1 F6060 X84.14 Y137.53 E2326.72549
G0 F6000 X83.44 Y137.53
G1 F6060 X82.13 Y138.84 E2326.80246
G0 F6000 X82.13 Y138.14
G1 F6060 X82.73 Y137.53 E2326.83785
;LAYER:4
G0 F6000 X81.95 Y137.36 Z1.10
;TYPE:WALL-INNER
G1 F7200 X223.05 Y137.36 E2332.70402
G1 X223.05 Y167.64 E2333.96284
G1 X81.95 Y167.64 E2339.82901
G1 X81.95 Y137.36 E2341.08782
G0 F6000 X81.45 Y136.86
;TYPE:WALL-OUTER
G1 F7200 X223.55 Y136.86 E2346.99557
G1 X223.55 Y168.14 E2348.29596
G1 X81.45 Y168.14 E2354.20371
G1 X81.45 Y136.86 E2355.50410
G0 F6000 X82.12 Y137.63
;TYPE:FILL
G1 F7200 X111.95 Y167.46 E2357.25799
G0 F6000 X111.25 Y167.46
G1 F7200 X82.12 Y138.34 E2358.97031
G0 F6000 X82.12 Y139.05
G1 F7200 X110.54 Y167.46 E2360.64106
G0 F6000 X109.83 Y167.46
G1 F7200 X82.12 Y139.75 E2362.27024
G0 F6000 X82.12 Y140.46
G1 F7200 X109.13 Y167.46 E2363.85786
G0 F6000 X108.42 Y167.46
G1 F7200 X82.12 Y141.17 E2365.40387
G0 F6000 X82.12 Y141.88
G1 F7200 X107.71 Y167.46 E2366.90829
G0 F6000 X107.00 Y167.46
G1 F7200 X82.12 Y142.58 E2368.37114
G0 F6000 X82.12 Y143.29
G1 F7200 X106.30 Y167.46 E2369.79242
G0 F6000 X105.59 Y167.46
G1 F7200 X82.12 Y144.00 E2371.17213
G0 F6000 X82.12 Y144.70
G1 F7200 X104.88 Y167.46 E2372.51027
G0 F6000 X104.18 Y167.46
G1 F7200 X82.12 Y145.41 E2373.80684
G0 F6000 X82.12 Y146.12
G1 F7200 X103.47 Y167.46 E2375.06185
G0 F6000 X102.76 Y167.46
G1 F7200 X82.12 Y146.82 E2376.27528
G0 F6000 X82.12 Y147.53
G1 F7200 X102.06 Y167.46 E2377.44715
G0 F6000 X101.35 Y167.46
G1 F7200 X82.12 Y148.24 E2378.57742
G0 F6000 X82.12 Y148.95
G1 F7200 X100.64 Y167.46 E2379.66609
G0 F6000 X99.93 Y167.46
G1 F7200 X82.12 Y149.65 E2380.71319
G0 F6000 X82.12 Y150.36
G1 F7200 X99.23 Y167.46 E2381.71872
G0 F6000 X98.52 Y167.46
G1 F7200 X82.12 Y151.07 E2382.68268
G0 F6000 X82.12 Y151.78
G1 F7200 X97.81 Y167.46 E2383.60508
G0 F6000 X97.11 Y167.46
G1 F7200 X82.12 Y152.48 E2384.48590
G0 F6000 X82.12 Y153.19
G1 F7200 X96.40 Y167.46 E2385.32516
G0 F6000 X95.69 Y167.46
G1 F7200 X82.12 Y153.90 E2386.12285
G0 F6000 X82.12 Y154.60
G1 F7200 X94.98 Y167.46 E2386.87894
G0 F6000 X94.28 Y167.46
G1 F7200 X82.12 Y155.31 E2387.59343
G0 F6000 X82.12 Y156.02
G1 F7200 X93.57 Y167.46 E2388.26635
G0 F6000 X92.86 Y167.46
G1 F7200 X82.12 Y156.72 E2388.89770
G0 F6000 X82.12 Y157.43
G1 F7200 X92.16 Y167.46 E2389.48749
G0 F6000 X91.45 Y167.46
G1 F7200 X82.12 Y158.14 E2390.03570
G0 F6000 X82.12 Y158.85
G1 F7200 X90.74 Y167.46 E2390.54235
G0 F6000 X90.03 Y167.46
G1 F7200 X82.12 Y159.55 E2391.00743
G0 F6000 X82.12 Y160.26
G1 F7200 X89.33 Y167.46 E2391.43094
G0 F6000 X88.62 Y167.46
G1 F7200 X82.12 Y160.97 E2391.81285
G0 F6000 X82.12 Y161.68
G1 F7200 X87.91 Y167.46 E2392.15316
G0 F6000 X87.21 Y167.46
G1 F7200 X82.12 Y162.38 E2392.45190
G0 F6000 X82.12 Y163.09
G1 F7200 X86.50 Y167.46 E2392.70908
G0 F6000 X85.79 Y167.46
G1 F7200 X82.12 Y163.80 E2392.92468
G0 F6000 X82.12 Y164.50
G1 F7200 X85.08 Y167.46 E2393.09872
G0 F6000 X84.38 Y167.46
G1 F7200 X82.12 Y165.21 E2393.23119
G0 F6000 X82.12 Y165.92
G1 F7200 X83.67 Y167.46 E2393.32209
G0 F6000 X82.96 Y167.46
G1 F7200 X82.12 Y166.62 E2393.37142
G0 F6000 X82.12 Y167.33
G1 F7200 X82.26 Y167.46 E2393.37918
G0 F6000 X82.73 Y137.53
G1 F7200 X112.66 Y167.46 E2395.13880
G0 F6000 X113.37 Y167.46
G1 F7200 X83.44 Y137.53 E2396.89842
G0 F6000 X84.15 Y137.53
G1 F7200 X114.08 Y167.46 E2398.65804
G0 F6000 X114.78 Y167.46
G1 F7200 X84.86 Y137.53 E2400.41767
G0 F6000 X85.56 Y137.53
G1 F7200 X115.49 Y167.46 E2402.17732
G0 F6000 X116.20 Y167.46
G1 F7200 X86.27 Y137.53 E2403.93697
G0 F6000 X86.98 Y137.53
G1 F7200 X116.91 Y167.46 E2405.69662
G0 F6000 X117.61 Y167.46
G1 F7200 X87.68 Y137.53 E2407.45627
G0 F6000 X88.39 Y137.53
G1 F7200 X118.32 Y167.46 E2409.21592
G0 F6000 X119.03 Y167.46
G1 F7200 X89.10 Y137.53 E2410.97558
G0 F6000 X89.81 Y137.53
G1 F7200 X119.73 Y167.46 E2412.73520
G0 F6000 X120.44 Y167.46
G1 F7200 X90.51 Y137.53 E2414.49482
G0 F6000 X91.22 Y137.53
G1 F7200 X121.15 Y167.46 E2416.25444
G0 F6000 X121.86 Y167.46
G1 F7200 X91.93 Y137.53 E2418.01410
G0 F6000 X92.63 Y137.53
G1 F7200 X122.56 Y167.46 E2419.77375
G0 F6000 X123.27 Y167.46
G1 F7200 X93.34 Y137.53 E2421.53340
G0 F6000 X94.05 Y137.53
G1 F7200 X123.98 Y167.46 E2423.29305
G0 F6000 X124.68 Y167.46
G1 F7200 X94.75 Y137.53 E2425.05270
G0 F6000 X95.46 Y137.53
G1 F7200 X125.39 Y167.46 E2426.81235
G0 F6000 X126.10 Y167.46
G1 F7200 X96.17 Y137.53 E2428.57198
G0 F6000 X96.88 Y137.53
G1 F7200 X126.80 Y167.46 E2430.33160
G0 F6000 X127.51 Y167.46
G1 F7200 X97.58 Y137.53 E2432.09122
G0 F6000 X98.29 Y137.53
G1 F7200 X128.22 Y167.46 E2433.85084
G0 F6000 X128.93 Y167.46
G1 F7200 X99.00 Y137.53 E2435.61049
G0 F6000 X99.70 Y137.53
G1 F7200 X129.63 Y167.46 E2437.37015
G0 F6000 X130.34 Y167.46
G1 F7200 X100.41 Y137.53 E2439.12980
G0 F6000 X101.12 Y137.53
G1 F7200 X131.05 Y167.46 E2440.88945
G0 F6000 X131.75 Y167.46
G1 F7200 X101.83 Y137.53 E2442.64910
G0 F6000 X102.53 Y137.53
G1 F7200 X132.46 Y167.46 E2444.40872
G0 F6000 X133.17 Y167.46
G1 F7200 X103.24 Y137.53 E2446.16835
G0 F6000 X103.95 Y137.53
G1 F7200 X133.88 Y167.46 E2447.92797
G0 F6000 X134.58 Y167.46
G1 F7200 X104.66 Y137.53 E2449.68759
G0 F6000 X105.36 Y137.53
G1 F7200 X135.29 Y167.46 E2451.44724
G0 F6000 X136.00 Y167.46
G1 F7200 X106.07 Y137.53 E2453.20689
G0 F6000 X106.78 Y137.53
G1 F7200 X136.70 Y167.46 E2454.96655
G0 F6000 X137.41 Y167.46
G1 F7200 X107.48 Y137.53 E2456.72620
G0 F6000 X108.19 Y137.53
G1 F7200 X138.12 Y167.46 E2458.48585
G0 F6000 X138.82 Y167.46
G1 F7200 X108.90 Y137.53 E2460.24550
G0 F6000 X109.61 Y137.53
G1 F7200 X139.53 Y167.46 E2462.00512
G0 F6000 X140.24 Y167.46
G1 F7200 X110.31 Y137.53 E2463.76475
G0 F6000 X111.02 Y137.53
G1 F7200 X140.95 Y167.46 E2465.52437
G0 F6000 X141.65 Y167.46
G1 F7200 X111.73 Y137.53 E2467.28399
G0 F6000 X112.43 Y137.53
G1 F7200 X142.36 Y167.46 E2469.04364
G0 F6000 X143.07 Y167.46
G1 F7200 X113.14 Y137.53 E2470.80329
G0 F6000 X113.85 Y137.53
G1 F7200 X143.78 Y167.46 E2472.56295
G0 F6000 X144.48 Y167.46
G1 F7200 X114.55 Y137.53 E2474.32260
G0 F6000 X115.26 Y137.53
G1 F7200 X145.19 Y167.46 E2476.08225
G0 F6000 X145.90 Y167.46
G1 F7200 X115.97 Y137.53 E2477.84187
G0 F6000 X116.68 Y137.53
G1 F7200 X146.60 Y167.46 E2479.60149
G0 F6000 X147.31 Y167.46
G1 F7200 X117.38 Y137.53 E2481.36112
G0 F6000 X118.09 Y137.53
G1 F7200 X148.02 Y167.46 E2483.12074
G0 F6000 X148.72 Y167.46
G1 F7200 X118.80 Y137.53 E2484.88039
G0 F6000 X119.50 Y137.53
G1 F7200 X149.43 Y167.46 E2486.64004
G0 F6000 X150.14 Y167.46
G1 F7200 X120.21 Y137.53 E2488.39969
G0 F6000 X120.92 Y137.53
G1 F7200 X150.85 Y167.46 E2490.15934
G0 F6000 X151.55 Y167.46
G1 F7200 X121.62 Y137.53 E2491.91900
G0 F6000 X122.33 Y137.53
G1 F7200 X152.26 Y167.46 E2493.67862
G0 F6000 X152.97 Y167.46
G1 F7200 X123.04 Y137.53 E2495.43824
G0 F6000 X123.75 Y137.53
G1 F7200 X153.67 Y167.46 E2497.19786
G0 F6000 X154.38 Y167.46
G1 F7200 X124.45 Y137.53 E2498.95749
G0 F6000 X125.16 Y137.53
G1 F7200 X155.09 Y167.46 E2500.71714
G0 F6000 X155.80 Y167.46
G1 F7200 X125.87 Y137.53 E2502.47679
G0 F6000 X126.58 Y137.53
G1 F7200 X156.50 Y167.46 E2504.23644
G0 F6000 X157.21 Y167.46
G1 F7200 X127.28 Y137.53 E2505.99609
G0 F6000 X127.99 Y137.53
G1 F7200 X157.92 Y167.46 E2507.75574
G0 F6000 X158.62 Y167.46
G1 F7200 X128.70 Y137.53 E2509.51540
G0 F6000 X129.40 Y137.53
G1 F7200 X159.33 Y167.46 E2511.27502
G0 F6000 X160.04 Y167.46
G1 F7200 X130.11 Y137.53 E2513.03464
G0 F6000 X130.82 Y137.53
G1 F7200 X160.75 Y167.46 E2514.79426
G0 F6000 X161.45 Y167.46
G1 F7200 X131.53 Y137.53 E2516.55388
G0 F6000 X132.23 Y137.53
G1 F7200 X162.16 Y167.46 E2518.31354
G0 F6000 X162.87 Y167.46
G1 F7200 X132.94 Y137.53 E2520.07319
G0 F6000 X133.65 Y137.53
G1 F7200 X163.57 Y167.46 E2521.83284
G0 F6000 X164.28 Y167.46
G1 F7200 X134.35 Y137.53 E2523.59249
G0 F6000 X135.06 Y137.53
G1 F7200 X164.99 Y167.46 E2525.35214
G0 F6000 X165.69 Y167.46
G1 F7200 X135.77 Y137.53 E2527.11177
G0 F6000 X136.47 Y137.53
G1 F7200 X166.40 Y167.46 E2528.87139
G0 F6000 X167.11 Y167.46
G1 F7200 X137.18 Y137.53 E2530.63101
G0 F6000 X137.89 Y137.53
G1 F7200 X167.82 Y167.46 E2532.39063
G0 F6000 X168.52 Y167.46
G1 F7200 X138.60 Y137.53 E2534.15028
G0 F6000 X139.30 Y137.53
G1 F7200 X169.23 Y167.46 E2535.90994
G0 F6000 X169.94 Y167.46
G1 F7200 X140.01 Y137.53 E2537.66959
G0 F6000 X140.72 Y137.53
G1 F7200 X170.65 Y167.46 E2539.42924
G0 F6000 X171.35 Y167.46
G1 F7200 X141.42 Y137.53 E2541.18889
G0 F6000 X142.13 Y137.53
G1 F7200 X172.06 Y167.46 E2542.94854
G0 F6000 X172.77 Y167.46
G1 F7200 X142.84 Y137.53 E2544.70817
G0 F6000 X143.55 Y137.53
G1 F7200 X173.47 Y167.46 E2546.46779
G0 F6000 X174.18 Y167.46
G1 F7200 X144.25 Y137.53 E2548.22741
G0 F6000 X144.96 Y137.53
G1 F7200 X174.89 Y167.46 E2549.98706
G0 F6000 X175.59 Y167.46
G1 F7200 X145.67 Y137.53 E2551.74671
G0 F6000 X146.37 Y137.53
G1 F7200 X176.30 Y167.46 E2553.50636
G0 F6000 X177.01 Y167.46
G1 F7200 X147.08 Y137.53 E2555.26602
G0 F6000 X147.79 Y137.53
G1 F7200 X177.72 Y167.46 E2557.02567
G0 F6000 X178.42 Y167.46
G1 F7200 X148.50 Y137.53 E2558.78532
G0 F6000 X149.20 Y137.53
G1 F7200 X179.13 Y167.46 E2560.54494
G0 F6000 X179.84 Y167.46
G1 F7200 X149.91 Y137.53 E2562.30456
G0 F6000 X150.62 Y137.53
G1 F7200 X180.54 Y167.46 E2564.06419
G0 F6000 X181.25 Y167.46
G1 F7200 X151.32 Y137.53 E2565.82381
G0 F6000 X152.03 Y137.53
G1 F7200 X181.96 Y167.46 E2567.58346
G0 F6000 X182.67 Y167.46
G1 F7200 X152.74 Y137.53 E2569.34311
G0 F6000 X153.44 Y137.53
G1 F7200 X183.37 Y167.46 E2571.10276
G0 F6000 X184.08 Y167.46
G1 F7200 X154.15 Y137.53 E2572.86242
G0 F6000 X154.86 Y137.53
G1 F7200 X184.79 Y167.46 E2574.62207
G0 F6000 X185.49 Y167.46
G1 F7200 X155.57 Y137.53 E2576.38169
G0 F6000 X156.27 Y137.53
G1 F7200 X186.20 Y167.46 E2578.14131
G0 F6000 X186.91 Y167.46
G1 F7200 X156.98 Y137.53 E2579.90093
G0 F6000 X157.69 Y137.53
G1 F7200 X187.62 Y167.46 E2581.66056
G0 F6000 X188.32 Y167.46
G1 F7200 X158.40 Y137.53 E2583.42021
G0 F6000 X159.10 Y137.53
G1 F7200 X189.03 Y167.46 E2585.17986
G0 F6000 X189.74 Y167.46
G1 F7200 X159.81 Y137.53 E2586.93951
G0 F6000 X160.52 Y137.53
G1 F7200 X190.44 Y167.46 E2588.69916
G0 F6000 X191.15 Y167.46
G1 F7200 X161.22 Y137.53 E2590.45882
G0 F6000 X161.93 Y137.53
G1 F7200 X191.86 Y167.46 E2592.21847
G0 F6000 X192.56 Y167.46
G1 F7200 X162.64 Y137.53 E2593.97809
G0 F6000 X163.34 Y137.53
G1 F7200 X193.27 Y167.46 E2595.73771
G0 F6000 X193.98 Y167.46
G1 F7200 X164.05 Y137.53 E2597.49733
G0 F6000 X164.76 Y137.53
G1 F7200 X194.69 Y167.46 E2599.25699
G0 F6000 X195.39 Y167.46
G1 F7200 X165.47 Y137.53 E2601.01664
G0 F6000 X166.17 Y137.53
G1 F7200 X196.10 Y167.46 E2602.77629
G0 F6000 X196.81 Y167.46
G1 F7200 X166.88 Y137.53 E2604.53594
G0 F6000 X167.59 Y137.53
G1 F7200 X197.51 Y167.46 E2606.29559
G0 F6000 X198.22 Y167.46
G1 F7200 X168.29 Y137.53 E2608.05524
G0 F6000 X169.00 Y137.53
G1 F7200 X198.93 Y167.46 E2609.81487
G0 F6000 X199.64 Y167.46
G1 F7200 X169.71 Y137.53 E2611.57449
G0 F6000 X170.42 Y137.53
G1 F7200 X200.34 Y167.46 E2613.33411
G0 F6000 X201.05 Y167.46
G1 F7200 X171.12 Y137.53 E2615.09373
G0 F6000 X171.83 Y137.53
G1 F7200 X201.76 Y167.46 E2616.85339
G0 F6000 X202.47 Y167.46
G1 F7200 X172.54 Y137.53 E2618.61304
G0 F6000 X173.24 Y137.53
G1 F7200 X203.17 Y167.46 E2620.37269
G0 F6000 X203.88 Y167.46
G1 F7200 X173.95 Y137.53 E2622.13234
G0 F6000 X174.66 Y137.53
G1 F7200 X204.59 Y167.46 E2623.89199
G0 F6000 X205.29 Y167.46
G1 F7200 X175.37 Y137.53 E2625.65161
G0 F6000 X176.07 Y137.53
G1 F7200 X206.00 Y167.46 E2627.41124
G0 F6000 X206.71 Y167.46
G1 F7200 X176.78 Y137.53 E2629.17086
G0 F6000 X177.49 Y137.53
G1 F7200 X207.41 Y167.46 E2630.93048
G0 F6000 X208.12 Y167.46
G1 F7200 X178.19 Y137.53 E2632.69013
G0 F6000 X178.90 Y137.53
G1 F7200 X208.83 Y167.46 E2634.44978
G0 F6000 X209.54 Y167.46
G1 F7200 X179.61 Y137.53 E2636.20944
G0 F6000 X180.31 Y137.53
G1 F7200 X210.24 Y167.46 E2637.96909
G0 F6000 X210.95 Y167.46
G1 F7200 X181.02 Y137.53 E2639.72874
G0 F6000 X181.73 Y137.53
G1 F7200 X211.66 Y167.46 E2641.48839
G0 F6000 X212.36 Y167.46
G1 F7200 X182.44 Y137.53 E2643.24801
G0 F6000 X183.14 Y137.53
G1 F7200 X213.07 Y167.46 E2645.00764
G0 F6000 X213.78 Y167.46
G1 F7200 X183.85 Y137.53 E2646.76726
G0 F6000 X184.56 Y137.53
G1 F7200 X214.49 Y167.46 E2648.52688
G0 F6000 X215.19 Y167.46
G1 F7200 X185.26 Y137.53 E2650.28653
G0 F6000 X185.97 Y137.53
G1 F7200 X215.90 Y167.46 E2652.04618
G0 F6000 X216.61 Y167.46
G1 F7200 X186.68 Y137.53 E2653.80584
G0 F6000 X187.39 Y137.53
G1 F7200 X217.31 Y167.46 E2655.56549
G0 F6000 X218.02 Y167.46
G1 F7200 X188.09 Y137.53 E2657.32514
G0 F6000 X188.80 Y137.53
G1 F7200 X218.73 Y167.46 E2659.08476
G0 F6000 X219.44 Y167.46
G1 F7200 X189.51 Y137.53 E2660.84438
G0 F6000 X190.22 Y137.53
G1 F7200 X220.14 Y167.46 E2662.60401
G0 F6000 X220.85 Y167.46
G1 F7200 X190.92 Y137.53 E2664.36363
G0 F6000 X191.63 Y137.53
G1 F7200 X221.56 Y167.46 E2666.12328
G0 F6000 X222.26 Y167.46
G1 F7200 X192.34 Y137.53 E2667.88293
G0 F6000 X193.04 Y137.53
G1 F7200 X222.87 Y167.37 E2669.63682
G0 F6000 X222.87 Y166.66
G1 F7200 X193.75 Y137.53 E2671.34914
G0 F6000 X194.46 Y137.53
G1 F7200 X222.87 Y165.95 E2673.01989
G0 F6000 X222.87 Y165.24
G1 F7200 X195.16 Y137.53 E2674.64905
G0 F6000 X195.87 Y137.53
G1 F7200 X222.87 Y164.54 E2676.23663
G0 F6000 X222.87 Y163.83
G1 F7200 X196.58 Y137.53 E2677.78265
G0 F6000 X197.29 Y137.53
G1 F7200 X222.87 Y163.12 E2679.28710
G0 F6000 X222.87 Y162.42
G1 F7200 X197.99 Y137.53 E2680.74997
G0 F6000 X198.70 Y137.53
G1 F7200 X222.87 Y161.71 E2682.17125
G0 F6000 X222.87 Y161.00
G1 F7200 X199.41 Y137.53 E2683.55096
G0 F6000 X200.11 Y137.53
G1 F7200 X222.87 Y160.29 E2684.88911
G0 F6000 X222.87 Y159.59
G1 F7200 X200.82 Y137.53 E2686.18568
G0 F6000 X201.53 Y137.53
G1 F7200 X222.87 Y158.88 E2687.44068
G0 F6000 X222.87 Y158.17
G1 F7200 X202.24 Y137.53 E2688.65409
G0 F6000 X202.94 Y137.53
G1 F7200 X222.87 Y157.47 E2689.82593
G0 F6000 X222.87 Y156.76
G1 F7200 X203.65 Y137.53 E2690.95619
G0 F6000 X204.36 Y137.53
G1 F7200 X222.87 Y156.05 E2692.04489
G0 F6000 X222.87 Y155.34
G1 F7200 X205.06 Y137.53 E2693.09199
G0 F6000 X205.77 Y137.53
G1 F7200 X222.87 Y154.64 E2694.09753
G0 F6000 X222.87 Y153.93
G1 F7200 X206.48 Y137.53 E2695.06149
G0 F6000 X207.19 Y137.53
G1 F7200 X222.87 Y153.22 E2695.98388
G0 F6000 X222.87 Y152.52
G1 F7200 X207.89 Y137.53 E2696.86471
G0 F6000 X208.60 Y137.53
G1 F7200 X222.87 Y151.81 E2697.70394
G0 F6000 X222.87 Y151.10
G1 F7200 X209.31 Y137.53 E2698.50159
G0 F6000 X210.01 Y137.53
G1 F7200 X222.87 Y150.40 E2699.25768
G0 F6000 X222.87 Y149.69
G1 F7200 X210.72 Y137.53 E2699.97220
G0 F6000 X211.43 Y137.53
G1 F7200 X222.87 Y148.98 E2700.64516
G0 F6000 X222.87 Y148.27
G1 F7200 X212.13 Y137.53 E2701.27651
G0 F6000 X212.84 Y137.53
G1 F7200 X222.87 Y147.57 E2701.86629
G0 F6000 X222.87 Y146.86
G1 F7200 X213.55 Y137.53 E2702.41451
G0 F6000 X214.26 Y137.53
G1 F7200 X222.87 Y146.15 E2702.92116
G0 F6000 X222.87 Y145.44
G1 F7200 X214.96 Y137.53 E2703.38623
G0 F6000 X215.67 Y137.53
G1 F7200 X222.87 Y144.74 E2703.80971
G0 F6000 X222.87 Y144.03
G1 F7200 X216.38 Y137.53 E2704.19162
G0 F6000 X217.09 Y137.53
G1 F7200 X222.87 Y143.32 E2704.53196
G0 F6000 X222.87 Y142.62
G1 F7200 X217.79 Y137.53 E2704.83074
G0 F6000 X218.50 Y137.53
G1 F7200 X222.87 Y141.91 E2705.08791
G0 F6000 X222.87 Y141.20
G1 F7200 X219.21 Y137.53 E2705.30352
G0 F6000 X219.91 Y137.53
G1 F7200 X222.87 Y140.50 E2705.47755
G0 F6000 X222.87 Y139.79
G1 F7200 X220.62 Y137.53 E2705.61002
G0 F6000 X221.33 Y137.53
G1 F7200 X222.87 Y139.08 E2705.70092
G0 F6000 X222.87 Y138.37
G1 F7200 X222.03 Y137.53 E2705.75022
G0 F6000 X222.74 Y137.53
G1 F7200 X222.87 Y137.67 E2705.75795
;LAYER:5
G0 F6000 X223.05 Y137.36 Z1.30
;TYPE:WALL-INNER
G1 F7200 X223.05 Y167.64 E2707.01677
G1 X81.95 Y167.64 E2712.88294
G1 X81.95 Y137.36 E2714.14175
G1 X223.05 Y137.36 E2720.00793
G0 F6000 X223.55 Y136.86
;TYPE:WALL-OUTER
G1 F7200 X223.55 Y168.14 E2721.30831
G1 X81.45 Y168.14 E2727.21606
G1 X81.45 Y136.86 E2728.51645
G1 X223.55 Y136.86 E2734.42420
G0 F6000 X222.74 Y137.53
;TYPE:FILL
G1 F7200 X192.81 Y167.46 E2736.18391
G0 F6000 X193.51 Y167.46
G1 F7200 X222.87 Y138.10 E2737.91011
G0 F6000 X222.87 Y138.81
G1 F7200 X194.22 Y167.46 E2739.59470
G0 F6000 X194.93 Y167.46
G1 F7200 X222.87 Y139.52 E2741.23773
G0 F6000 X222.87 Y140.23
G1 F7200 X195.63 Y167.46 E2742.83919
G0 F6000 X196.34 Y167.46
G1 F7200 X222.87 Y140.93 E2744.39909
G0 F6000 X222.87 Y141.64
G1 F7200 X197.05 Y167.46 E2745.91741
G0 F6000 X197.76 Y167.46
G1 F7200 X222.87 Y142.35 E2747.39416
G0 F6000 X222.87 Y143.05
G1 F7200 X198.46 Y167.46 E2748.82935
G0 F6000 X199.17 Y167.46
G1 F7200 X222.87 Y143.76 E2750.22296
G0 F6000 X222.87 Y144.47
G1 F7200 X199.88 Y167.46 E2751.57501
G0 F6000 X200.58 Y167.46
G1 F7200 X222.87 Y145.18 E2752.88546
G0 F6000 X222.87 Y145.88
G1 F7200 X201.29 Y167.46 E2754.15431
G0 F6000 X202.00 Y167.46
G1 F7200 X222.87 Y146.59 E2755.38159
G0 F6000 X222.87 Y147.30
G1 F7200 X202.71 Y167.46 E2756.56731
G0 F6000 X203.41 Y167.46
G1 F7200 X222.87 Y148.00 E2757.71145
G0 F6000 X222.87 Y148.71
G1 F7200 X204.12 Y167.46 E2758.81402
G0 F6000 X204.83 Y167.46
G1 F7200 X222.87 Y149.42 E2759.87503
G0 F6000 X222.87 Y150.12
G1 F7200 X205.53 Y167.46 E2760.89447
G0 F6000 X206.24 Y167.46
G1 F7200 X222.87 Y150.83 E2761.87234
G0 F6000 X222.87 Y151.54
G1 F7200 X206.95 Y167.46 E2762.80861
G0 F6000 X207.66 Y167.46
G1 F7200 X222.87 Y152.25 E2763.70328
G0 F6000 X222.87 Y152.95
G1 F7200 X208.36 Y167.46 E2764.55638
G0 F6000 X209.07 Y167.46
G1 F7200 X222.87 Y153.66 E2765.36792
G0 F6000 X222.87 Y154.37
G1 F7200 X209.78 Y167.46 E2766.13788
G0 F6000 X210.48 Y167.46
G1 F7200 X222.87 Y155.07 E2766.86628
G0 F6000 X222.87 Y155.78
G1 F7200 X211.19 Y167.46 E2767.55310
G0 F6000 X211.90 Y167.46
G1 F7200 X222.87 Y156.49 E2768.19836
G0 F6000 X222.87 Y157.20
G1 F7200 X212.60 Y167.46 E2768.80205
G0 F6000 X213.31 Y167.46
G1 F7200 X222.87 Y157.90 E2769.36414
G0 F6000 X222.87 Y158.61
G1 F7200 X214.02 Y167.46 E2769.88464
G0 F6000 X214.73 Y167.46
G1 F7200 X222.87 Y159.32 E2770.36356
G0 F6000 X222.87 Y160.03
G1 F7200 X215.43 Y167.46 E2770.80092
G0 F6000 X216.14 Y167.46
G1 F7200 X222.87 Y160.73 E2771.19670
G0 F6000 X222.87 Y161.44
G1 F7200 X216.85 Y167.46 E2771.55092
G0 F6000 X217.56 Y167.46
G1 F7200 X222.87 Y162.15 E2771.86357
G0 F6000 X222.87 Y162.85
G1 F7200 X218.26 Y167.46 E2772.13465
G0 F6000 X218.97 Y167.46
G1 F7200 X222.87 Y163.56 E2772.36416
G0 F6000 X222.87 Y164.27
G1 F7200 X219.68 Y167.46 E2772.55210
G0 F6000 X220.38 Y167.46
G1 F7200 X222.87 Y164.97 E2772.69845
G0 F6000 X222.87 Y165.68
G1 F7200 X221.09 Y167.46 E2772.80319
G0 F6000 X221.80 Y167.46
G1 F7200 X222.87 Y166.39 E2772.86637
G0 F6000 X222.87 Y167.10
G1 F7200 X222.50 Y167.46 E2772.88798
G0 F6000 X222.03 Y137.53
G1 F7200 X192.10 Y167.46 E2774.64769
G0 F6000 X191.39 Y167.46
G1 F7200 X221.32 Y137.53 E2776.40740
G0 F6000 X220.61 Y137.53
G1 F7200 X190.69 Y167.46 E2778.16711
G0 F6000 X189.98 Y167.46
G1 F7200 X219.91 Y137.53 E2779.92682
G0 F6000 X219.20 Y137.53
G1 F7200 X189.27 Y167.46 E2781.68653
G0 F6000 X188.56 Y167.46
G1 F7200 X218.49 Y137.53 E2783.44624
G0 F6000 X217.79 Y137.53
G1 F7200 X187.86 Y167.46 E2785.20595
G0 F6000 X187.15 Y167.46
G1 F7200 X217.08 Y137.53 E2786.96566
G0 F6000 X216.37 Y137.53
G1 F7200 X186.44 Y167.46 E2788.72537
G0 F6000 X185.74 Y167.46
G1 F7200 X215.66 Y137.53 E2790.48508
G0 F6000 X214.96 Y137.53
G1 F7200 X185.03 Y167.46 E2792.24479
G0 F6000 X184.32 Y167.46
G1 F7200 X214.25 Y137.53 E2794.00450
G0 F6000 X213.54 Y137.53
G1 F7200 X183.61 Y167.46 E2795.76421
G0 F6000 X182.91 Y167.46
G1 F7200 X212.84 Y137.53 E2797.52392
G0 F6000 X212.13 Y137.53
G1 F7200 X182.20 Y167.46 E2799.28363
G0 F6000 X181.49 Y167.46
G1 F7200 X211.42 Y137.53 E2801.04334
G0 F6000 X210.71 Y137.53
G1 F7200 X180.78 Y167.46 E2802.80305
G0 F6000 X180.08 Y167.46
G1 F7200 X210.01 Y137.53 E2804.56276
G0 F6000 X209.30 Y137.53
G1 F7200 X179.37 Y167.46 E2806.32247
G0 F6000 X178.66 Y167.46
G1 F7200 X208.59 Y137.53 E2808.08219
G0 F6000 X207.89 Y137.53
G1 F7200 X177.96 Y167.46 E2809.84190
G0 F6000 X177.25 Y167.46
G1 F7200 X207.18 Y137.53 E2811.60161
G0 F6000 X206.47 Y137.53
G1 F7200 X176.54 Y167.46 E2813.36132
G0 F6000 X175.84 Y167.46
G1 F7200 X205.76 Y137.53 E2815.12103
G0 F6000 X205.06 Y137.53
G1 F7200 X175.13 Y167.46 E2816.88074
G0 F6000 X174.42 Y167.46
G1 F7200 X204.35 Y137.53 E2818.64045
G0 F6000 X203.64 Y137.53
G1 F7200 X173.71 Y167.46 E2820.40016
G0 F6000 X173.01 Y167.46
G1 F7200 X202.94 Y137.53 E2822.15987
G0 F6000 X202.23 Y137.53
G1 F7200 X172.30 Y167.46 E2823.91958
G0 F6000 X171.59 Y167.46
G1 F7200 X201.52 Y137.53 E2825.67929
G0 F6000 X200.81 Y137.53
G1 F7200 X170.89 Y167.46 E2827.43900
G0 F6000 X170.18 Y167.46
G1 F7200 X200.11 Y137.53 E2829.19871
G0 F6000 X199.40 Y137.53
G1 F7200 X169.47 Y167.46 E2830.95842
G0 F6000 X168.76 Y167.46
G1 F7200 X198.69 Y137.53 E2832.71813
G0 F6000 X197.99 Y137.53
G1 F7200 X168.06 Y167.46 E2834.47784
G0 F6000 X167.35 Y167.46
G1 F7200 X197.28 Y137.53 E2836.23755
G0 F6000 X196.57 Y137.53
G1 F7200 X166.64 Y167.46 E2837.99726
G0 F6000 X165.94 Y167.46
G1 F7200 X195.87 Y137.53 E2839.75697
G0 F6000 X195.16 Y137.53
G1 F7200 X165.23 Y167.46 E2841.51668
G0 F6000 X164.52 Y167.46
G1 F7200 X194.45 Y137.53 E2843.27640
G0 F6000 X193.74 Y137.53
G1 F7200 X163.81 Y167.46 E2845.03611
G0 F6000 X163.11 Y167.46
G1 F7200 X193.04 Y137.53 E2846.79582
G0 F6000 X192.33 Y137.53
G1 F7200 X162.40 Y167.46 E2848.55553
G0 F6000 X161.69 Y167.46
G1 F7200 X191.62 Y137.53 E2850.31524
G0 F6000 X190.92 Y137.53
G1 F7200 X160.99 Y167.46 E2852.07495
G0 F6000 X160.28 Y167.46
G1 F7200 X190.21 Y137.53 E2853.83466
G0 F6000 X189.50 Y137.53
G1 F7200 X159.57 Y167.46 E2855.59437
G0 F6000 X158.87 Y167.46
G1 F7200 X188.79 Y137.53 E2857.35408
G0 F6000 X188.09 Y137.53
G1 F7200 X158.16 Y167.46 E2859.11379
G0 F6000 X157.45 Y167.46
G1 F7200 X187.38 Y137.53 E2860.87350
G0 F6000 X186.67 Y137.53
G1 F7200 X156.74 Y167.46 E2862.63321
G0 F6000 X156.04 Y167.46
G1 F7200 X185.97 Y137.53 E2864.39292
G0 F6000 X185.26 Y137.53
G1 F7200 X155.33 Y167.46 E2866.15263
G0 F6000 X154.62 Y167.46
G1 F7200 X184.55 Y137.53 E2867.91234
G0 F6000 X183.84 Y137.53
G1 F7200 X153.91 Y167.46 E2869.67205
G0 F6000 X153.21 Y167.46
G1 F7200 X183.14 Y137.53 E2871.43176
G0 F6000 X182.43 Y137.53
G1 F7200 X152.50 Y167.46 E2873.19147
G0 F6000 X151.79 Y167.46
G1 F7200 X181.72 Y137.53 E2874.95118
G0 F6000 X181.02 Y137.53
G1 F7200 X151.09 Y167.46 E2876.71089
G0 F6000 X150.38 Y167.46
G1 F7200 X180.31 Y137.53 E2878.47061
G0 F6000 X179.60 Y137.53
G1 F7200 X149.67 Y167.46 E2880.23032
G0 F6000 X148.97 Y167.46
G1 F7200 X178.90 Y137.53 E2881.99003
G0 F6000 X178.19 Y137.53
G1 F7200 X148.26 Y167.46 E2883.74974
G0 F6000 X147.55 Y167.46
G1 F7200 X177.48 Y137.53 E2885.50945
G0 F6000 X176.77 Y137.53
G1 F7200 X146.84 Y167.46 E2887.26916
G0 F6000 X146.14 Y167.46
G1 F7200 X176.07 Y137.53 E2889.02887
G0 F6000 X175.36 Y137.53
G1 F7200 X145.43 Y167.46 E2890.78858
G0 F6000 X144.72 Y167.46
G1 F7200 X174.65 Y137.53 E2892.54829
G0 F6000 X173.94 Y137.53
G1 F7200 X144.02 Y167.46 E2894.30800
G0 F6000 X143.31 Y167.46
G1 F7200 X173.24 Y137.53 E2896.06771
G0 F6000 X172.53 Y137.53
G1 F7200 X142.60 Y167.46 E2897.82742
G0 F6000 X141.90 Y167.46
G1 F7200 X171.82 Y137.53 E2899.58713
G0 F6000 X171.12 Y137.53
G1 F7200 X141.19 Y167.46 E2901.34684
G0 F6000 X140.48 Y167.46
G1 F7200 X170.41 Y137.53 E2903.10655
G0 F6000 X169.70 Y137.53
G1 F7200 X139.77 Y167.46 E2904.86626
G0 F6000 X139.07 Y167.46
G1 F7200 X169.00 Y137.53 E2906.62597
G0 F6000 X168.29 Y137.53
G1 F7200 X138.36 Y167.46 E2908.38568
G0 F6000 X137.65 Y167.46
G1 F7200 X167.58 Y137.53 E2910.14539
G0 F6000 X166.87 Y137.53
G1 F7200 X136.94 Y167.46 E2911.90510
G0 F6000 X136.24 Y167.46
G1 F7200 X166.17 Y137.53 E2913.66482
G0 F6000 X165.46 Y137.53
G1 F7200 X135.53 Y167.46 E2915.42453
G0 F6000 X134.82 Y167.46
G1 F7200 X164.75 Y137.53 E2917.18424
G0 F6000 X164.04 Y137.53
G1 F7200 X134.12 Y167.46 E2918.94395
G0 F6000 X133.41 Y167.46
G1 F7200 X163.34 Y137.53 E2920.70366
G0 F6000 X162.63 Y137.53
G1 F7200 X132.70 Y167.46 E2922.46337
G0 F6000 X132.00 Y167.46
G1 F7200 X161.92 Y137.53 E2924.22308
G0 F6000 X161.22 Y137.53
G1 F7200 X131.29 Y167.46 E2925.98279
G0 F6000 X130.58 Y167.46
G1 F7200 X160.51 Y137.53 E2927.74250
G0 F6000 X159.80 Y137.53
G1 F7200 X129.87 Y167.46 E2929.50221
G0 F6000 X129.17 Y167.46
G1 F7200 X159.10 Y137.53 E2931.26192
G0 F6000 X158.39 Y137.53
G1 F7200 X128.46 Y167.46 E2933.02163
G0 F6000 X127.75 Y167.46
G1 F7200 X157.68 Y137.53 E2934.78134
G0 F6000 X156.97 Y137.53
G1 F7200 X127.05 Y167.46 E2936.54105
G0 F6000 X126.34 Y167.46
G1 F7200 X156.27 Y137.53 E2938.30076
G0 F6000 X155.56 Y137.53
G1 F7200 X125.63 Y167.46 E2940.06047
G0 F6000 X124.92 Y167.46
G1 F7200 X154.85 Y137.53 E2941.82018
G0 F6000 X154.15 Y137.53
G1 F7200 X124.22 Y167.46 E2943.57989
G0 F6000 X123.51 Y167.46
G1 F7200 X153.44 Y137.53 E2945.33960
G0 F6000 X152.73 Y137.53
G1 F7200 X122.80 Y167.46 E2947.09931
G0 F6000 X122.10 Y167.46
G1 F7200 X152.03 Y137.53 E2948.85903
G0 F6000 X151.32 Y137.53
G1 F7200 X121.39 Y167.46 E2950.61874
G0 F6000 X120.68 Y167.46
G1 F7200 X150.61 Y137.53 E2952.37845
G0 F6000 X149.90 Y137.53
G1 F7200 X119.97 Y167.46 E2954.13816
G0 F6000 X119.27 Y167.46
G1 F7200 X149.20 Y137.53 E2955.89787
G0 F6000 X148.49 Y137.53
G1 F7200 X118.56 Y167.46 E2957.65758
G0 F6000 X117.85 Y167.46
G1 F7200 X147.78 Y137.53 E2959.41729
G0 F6000 X147.07 Y137.53
G1 F7200 X117.15 Y167.46 E2961.17700
G0 F6000 X116.44 Y167.46
G1 F7200 X146.37 Y137.53 E2962.93671
G0 F6000 X145.66 Y137.53
G1 F7200 X115.73 Y167.46 E2964.69642
G0 F6000 X115.03 Y167.46
G1 F7200 X144.95 Y137.53 E2966.45613
G0 F6000 X144.25 Y137.53
G1 F7200 X114.32 Y167.46 E2968.21584
G0 F6000 X113.61 Y167.46
G1 F7200 X143.54 Y137.53 E2969.97555
G0 F6000 X142.83 Y137.53
G1 F7200 X112.90 Y167.46 E2971.73526
G0 F6000 X112.20 Y167.46
G1 F7200 X142.12 Y137.53 E2973.49497
G0 F6000 X141.42 Y137.53
G1 F7200 X111.49 Y167.46 E2975.25468
G0 F6000 X110.78 Y167.46
G1 F7200 X140.71 Y137.53 E2977.01439
G0 F6000 X140.00 Y137.53
G1 F7200 X110.08 Y167.46 E2978.77410
G0 F6000 X109.37 Y167.46
G1 F7200 X139.30 Y137.53 E2980.53381
G0 F6000 X138.59 Y137.53
G1 F7200 X108.66 Y167.46 E2982.29352
G0 F6000 X107.95 Y167.46
G1 F7200 X137.88 Y137.53 E2984.05324
G0 F6000 X137.18 Y137.53
G1 F7200 X107.25 Y167.46 E2985.81295
G0 F6000 X106.54 Y167.46
G1 F7200 X136.47 Y137.53 E2987.57266
G0 F6000 X135.76 Y137.53
G1 F7200 X105.83 Y167.46 E2989.33237
G0 F6000 X105.12 Y167.46
G1 F7200 X135.05 Y137.53 E2991.09208
G0 F6000 X134.35 Y137.53
G1 F7200 X104.42 Y167.46 E2992.85179
G0 F6000 X103.71 Y167.46
G1 F7200 X133.64 Y137.53 E2994.61150
G0 F6000 X132.93 Y137.53
G1 F7200 X103.00 Y167.46 E2996.37121
G0 F6000 X102.30 Y167.46
G1 F7200 X132.23 Y137.53 E2998.13092
G0 F6000 X131.52 Y137.53
G1 F7200 X101.59 Y167.46 E2999.89063
G0 F6000 X100.88 Y167.46
G1 F7200 X130.81 Y137.53 E3001.65034
G0 F6000 X130.10 Y137.53
G1 F7200 X100.17 Y167.46 E3003.41005
G0 F6000 X99.47 Y167.46
G1 F7200 X129.40 Y137.53 E3005.16976
G0 F6000 X128.69 Y137.53
G1 F7200 X98.76 Y167.46 E3006.92947
G0 F6000 X98.05 Y167.46
G1 F7200 X127.98 Y137.53 E3008.68918
G0 F6000 X127.28 Y137.53
G1 F7200 X97.35 Y167.46 E3010.44889
G0 F6000 X96.64 Y167.46
G1 F7200 X126.57 Y137.53 E3012.20860
G0 F6000 X125.86 Y137.53
G1 F7200 X95.93 Y167.46 E3013.96831
G0 F6000 X95.23 Y167.46
G1 F7200 X125.16 Y137.53 E3015.72802
G0 F6000 X124.45 Y137.53
G1 F7200 X94.52 Y167.46 E3017.48773
G0 F6000 X93.81 Y167.46
G1 F7200 X123.74 Y137.53 E3019.24745
G0 F6000 X123.03 Y137.53
G1 F7200 X93.10 Y167.46 E3021.00716
G0 F6000 X92.40 Y167.46
G1 F7200 X122.33 Y137.53 E3022.76687
G0 F6000 X121.62 Y137.53
G1 F7200 X91.69 Y167.46 E3024.52658
G0 F6000 X90.98 Y167.46
G1 F7200 X120.91 Y137.53 E3026.28629
G0 F6000 X120.20 Y137.53
G1 F7200 X90.28 Y167.46 E3028.04600
G0 F6000 X89.57 Y167.46
G1 F7200 X119.50 Y137.53 E3029.80571
G0 F6000 X118.79 Y137.53
G1 F7200 X88.86 Y167.46 E3031.56542
G0 F6000 X88.16 Y167.46
G1 F7200 X118.08 Y137.53 E3033.32513
G0 F6000 X117.38 Y137.53
G1 F7200 X87.45 Y167.46 E3035.08484
G0 F6000 X86.74 Y167.46
G1 F7200 X116.67 Y137.53 E3036.84455
G0 F6000 X115.96 Y137.53
G1 F7200 X86.03 Y167.46 E3038.60426
G0 F6000 X85.33 Y167.46
G1 F7200 X115.25 Y137.53 E3040.36397
G0 F6000 X114.55 Y137.53
G1 F7200 X84.62 Y167.46 E3042.12368
G0 F6000 X83.91 Y167.46
G1 F7200 X113.84 Y137.53 E3043.88339
G0 F6000 X113.13 Y137.53
G1 F7200 X83.20 Y167.46 E3045.64310
G0 F6000 X82.50 Y167.46
G1 F7200 X112.43 Y137.53 E3047.40281
G0 F6000 X111.72 Y137.53
G1 F7200 X82.13 Y167.13 E3049.14280
G0 F6000 X82.13 Y166.42
G1 F7200 X111.01 Y137.53 E3050.84118
G0 F6000 X110.31 Y137.53
G1 F7200 X82.13 Y165.71 E3052.49800
G0 F6000 X82.13 Y165.01
G1 F7200 X109.60 Y137.53 E3054.11325
G0 F6000 X108.89 Y137.53
G1 F7200 X82.13 Y164.30 E3055.68693
G0 F6000 X82.13 Y163.59
G1 F7200 X108.18 Y137.53 E3057.21904
G0 F6000 X107.48 Y137.53
G1 F7200 X82.13 Y162.89 E3058.70958
G0 F6000 X82.13 Y162.18
G1 F7200 X106.77 Y137.53 E3060.15855
G0 F6000 X106.06 Y137.53
G1 F7200 X82.13 Y161.47 E3061.56596
G0 F6000 X82.13 Y160.76
G1 F7200 X105.36 Y137.53 E3062.93176
G0 F6000 X104.65 Y137.53
G1 F7200 X82.13 Y160.06 E3064.25597
G0 F6000 X82.13 Y159.35
G1 F7200 X103.94 Y137.53 E3065.53861
G0 F6000 X103.23 Y137.53
G1 F7200 X82.13 Y158.64 E3066.77968
G0 F6000 X82.13 Y157.94
G1 F7200 X102.53 Y137.53 E3067.97918
G0 F6000 X101.82 Y137.53
G1 F7200 X82.13 Y157.23 E3069.13711
G0 F6000 X82.13 Y156.52
G1 F7200 X101.11 Y137.53 E3070.25347
G0 F6000 X100.41 Y137.53
G1 F7200 X82.13 Y155.81 E3071.32827
G0 F6000 X82.13 Y155.11
G1 F7200 X99.70 Y137.53 E3072.36149
G0 F6000 X98.99 Y137.53
G1 F7200 X82.13 Y154.40 E3073.35315
G0 F6000 X82.13 Y153.69
G1 F7200 X98.28 Y137.53 E3074.30321
G0 F6000 X97.58 Y137.53
G1 F7200 X82.13 Y152.99 E3075.21167
G0 F6000 X82.13 Y152.28
G1 F7200 X96.87 Y137.53 E3076.07856
G0 F6000 X96.16 Y137.53
G1 F7200 X82.13 Y151.57 E3076.90388
G0 F6000 X82.13 Y150.87
G1 F7200 X95.46 Y137.53 E3077.68763
G0 F6000 X94.75 Y137.53
G1 F7200 X82.13 Y150.16 E3078.42982
G0 F6000 X82.13 Y149.45
G1 F7200 X94.04 Y137.53 E3079.13043
G0 F6000 X93.33 Y137.53
G1 F7200 X82.13 Y148.74 E3079.78948
G0 F6000 X82.13 Y148.04
G1 F7200 X92.63 Y137.53 E3080.40695
G0 F6000 X91.92 Y137.53
G1 F7200 X82.13 Y147.33 E3080.98283
G0 F6000 X82.13 Y146.62
G1 F7200 X91.21 Y137.53 E3081.51711
G0 F6000 X90.51 Y137.53
G1 F7200 X82.13 Y145.91 E3082.00983
G0 F6000 X82.13 Y145.21
G1 F7200 X89.80 Y137.53 E3082.46097
G0 F6000 X89.09 Y137.53
G1 F7200 X82.13 Y144.50 E3082.87054
G0 F6000 X82.13 Y143.79
G1 F7200 X88.39 Y137.53 E3083.23855
G0 F6000 X87.68 Y137.53
G1 F7200 X82.13 Y143.09 E3083.56498
G0 F6000 X82.13 Y142.38
G1 F7200 X86.97 Y137.53 E3083.84985
G0 F6000 X86.26 Y137.53
G1 F7200 X82.13 Y141.67 E3084.09315
G0 F6000 X82.13 Y140.97
G1 F7200 X85.56 Y137.53 E3084.29485
G0 F6000 X84.85 Y137.53
G1 F7200 X82.13 Y140.26 E3084.45495
G0 F6000 X82.13 Y139.55
G1 F7200 X84.14 Y137.53 E3084.57349
G0 F6000 X83.44 Y137.53
G1 F7200 X82.13 Y138.84 E3084.65045
G0 F6000 X82.13 Y138.14
G1 F7200 X82.73 Y137.53 E3084.68585
;LAYER:6
G0 F6000 X81.95 Y137.36 Z1.50
;TYPE:WALL-INNER
G1 F7200 X223.05 Y137.36 E3090.55202
G1 X223.05 Y167.64 E3091.81083
G1 X81.95 Y167.64 E3097.67700
G1 X81.95 Y137.36 E3098.93582
G0 F6000 X81.45 Y136.86
;TYPE:WALL-OUTER
G1 F7200 X223.55 Y136.86 E3104.84357
G1 X223.55 Y168.14 E3106.14395
G1 X81.45 Y168.14 E3112.05170
G1 X81.45 Y136.86 E3113.35209
G0 F6000 X82.12 Y137.63
;TYPE:FILL
G1 F7200 X111.95 Y167.46 E3115.10598
G0 F6000 X111.25 Y167.46
G1 F7200 X82.12 Y138.34 E3116.81830
G0 F6000 X82.12 Y139.05
G1 F7200 X110.54 Y167.46 E3118.48905
G0 F6000 X109.83 Y167.46
G1 F7200 X82.12 Y139.75 E3120.11824
G0 F6000 X82.12 Y140.46
G1 F7200 X109.13 Y167.46 E3121.70585
G0 F6000 X108.42 Y167.46
G1 F7200 X82.12 Y141.17 E3123.25187
G0 F6000 X82.12 Y141.88
G1 F7200 X107.71 Y167.46 E3124.75628
G0 F6000 X107.00 Y167.46
G1 F7200 X82.12 Y142.58 E3126.21913
G0 F6000 X82.12 Y143.29
G1 F7200 X106.30 Y167.46 E3127.64041
G0 F6000 X105.59 Y167.46
G1 F7200 X82.12 Y144.00 E3129.02012
G0 F6000 X82.12 Y144.70
G1 F7200 X104.88 Y167.46 E3130.35826
G0 F6000 X104.18 Y167.46
G1 F7200 X82.12 Y145.41 E3131.65484
G0 F6000 X82.12 Y146.12
G1 F7200 X103.47 Y167.46 E3132.90984
G0 F6000 X102.76 Y167.46
G1 F7200 X82.12 Y146.82 E3134.12328
G0 F6000 X82.12 Y147.53
G1 F7200 X102.06 Y167.46 E3135.29514
G0 F6000 X101.35 Y167.46
G1 F7200 X82.12 Y148.24 E3136.42541
G0 F6000 X82.12 Y148.95
G1 F7200 X100.64 Y167.46 E3137.51408
G0 F6000 X99.93 Y167.46
G1 F7200 X82.12 Y149.65 E3138.56118
G0 F6000 X82.12 Y150.36
G1 F7200 X99.23 Y167.46 E3139.56671
G0 F6000 X98.52 Y167.46
G1 F7200 X82.12 Y151.07 E3140.53068
G0 F6000 X82.12 Y151.78
G1 F7200 X97.81 Y167.46 E3141.45307
G0 F6000 X97.11 Y167.46
G1 F7200 X82.12 Y152.48 E3142.33390
G0 F6000 X82.12 Y153.19
G1 F7200 X96.40 Y167.46 E3143.17315
G0 F6000 X95.69 Y167.46
G1 F7200 X82.12 Y153.90 E3143.97084
G0 F6000 X82.12 Y154.60
G1 F7200 X94.98 Y167.46 E3144.72693
G0 F6000 X94.28 Y167.46
G1 F7200 X82.12 Y155.31 E3145.44142
G0 F6000 X82.12 Y156.02
G1 F7200 X93.57 Y167.46 E3146.11434
G0 F6000 X92.86 Y167.46
G1 F7200 X82.12 Y156.72 E3146.74570
G0 F6000 X82.12 Y157.43
G1 F7200 X92.16 Y167.46 E3147.33548
G0 F6000 X91.45 Y167.46
G1 F7200 X82.12 Y158.14 E3147.88370
G0 F6000 X82.12 Y158.85
G1 F7200 X90.74 Y167.46 E3148.39034
G0 F6000 X90.03 Y167.46
G1 F7200 X82.12 Y159.55 E3148.85542
G0 F6000 X82.12 Y160.26
G1 F7200 X89.33 Y167.46 E3149.27893
G0 F6000 X88.62 Y167.46
G1 F7200 X82.12 Y160.97 E3149.66084
G0 F6000 X82.12 Y161.68
G1 F7200 X87.91 Y167.46 E3150.00115
G0 F6000 X87.21 Y167.46
G1 F7200 X82.12 Y162.38 E3150.29990
G0 F6000 X82.12 Y163.09
G1 F7200 X86.50 Y167.46 E3150.55707
G0 F6000 X85.79 Y167.46
G1 F7200 X82.12 Y163.80 E3150.77268
G0 F6000 X82.12 Y164.50
G1 F7200 X85.08 Y167.46 E3150.94671
G0 F6000 X84.38 Y167.46
G1 F7200 X82.12 Y165.21 E3151.07918
G0 F6000 X82.12 Y165.92
G1 F7200 X83.67 Y167.46 E3151.17008
G0 F6000 X82.96 Y167.46
G1 F7200 X82.12 Y166.62 E3151.21941
G0 F6000 X82.12 Y167.33
G1 F7200 X82.26 Y167.46 E3151.22717
G0 F6000 X82.73 Y137.53
G1 F7200 X112.66 Y167.46 E3152.98679
G0 F6000 X113.37 Y167.46
G1 F7200 X83.44 Y137.53 E3154.74641
G0 F6000 X84.15 Y137.53
G1 F7200 X114.08 Y167.46 E3156.50604
G0 F6000 X114.78 Y167.46
G1 F7200 X84.86 Y137.53 E3158.26566
G0 F6000 X85.56 Y137.53
G1 F7200 X115.49 Y167.46 E3160.02531
G0 F6000 X116.20 Y167.46
G1 F7200 X86.27 Y137.53 E3161.78496
G0 F6000 X86.98 Y137.53
G1 F7200 X116.91 Y167.46 E3163.54461
G0 F6000 X117.61 Y167.46
G1 F7200 X87.68 Y137.53 E3165.30427
G0 F6000 X88.39 Y137.53
G1 F7200 X118.32 Y167.46 E3167.06392
G0 F6000 X119.03 Y167.46
G1 F7200 X89.10 Y137.53 E3168.82357
G0 F6000 X89.81 Y137.53
G1 F7200 X119.73 Y167.46 E3170.58319
G0 F6000 X120.44 Y167.46
G1 F7200 X90.51 Y137.53 E3172.34281
G0 F6000 X91.22 Y137.53
G1 F7200 X121.15 Y167.46 E3174.10244
G0 F6000 X121.86 Y167.46
G1 F7200 X91.93 Y137.53 E3175.86209
G0 F6000 X92.63 Y137.53
G1 F7200 X122.56 Y167.46 E3177.62174
G0 F6000 X123.27 Y167.46
G1 F7200 X93.34 Y137.53 E3179.38139
G0 F6000 X94.05 Y137.53
G1 F7200 X123.98 Y167.46 E3181.14104
G0 F6000 X124.68 Y167.46
G1 F7200 X94.75 Y137.53 E3182.90070
G0 F6000 X95.46 Y137.53
