;-- START GCODE --
;Sliced for Type A Machines Series 1
;Sliced at: Tue 29-12-2015 20:19:17
;Basic settings: Layer height: 0.2 Walls: 1 Fill: 100
;Print Speed: 120 Support: 0
;Retraction Speed: 40 Retraction Distance: 1.2
;Print time: #P_TIME#
;Filament used: #F_AMNT#m #F_WGHT#g
;Filament cost: #F_COST#
M106 S255	 ;start with the fan on
G21        ;metric values
G90        ;absolute positioning
M106 S255    ;start with the fan on
G28     ;move to endstops
G29		;allows for auto-levelling
G1 X150 Y5  Z15.0 F6000 ;center and move the platform down 15mm
M109 S220 ;Heat To temp
G92 E0                  ;zero the extruded length
G1 F200 E30              ;extrude 30mm of feed stock
G92 E0                  ;zero the extruded length again
G1 X175 Y25  Z0 F6000 ;remove bugger
G1 X220 F6000 ;remove bugger
G1 X150 Y150  Z15 F6000 ;recenter and begin
G1 F6000

;Layer count: 80
;LAYER:0
M106 S255
G0 F6000 X126.16 Y131.16 Z0.30
;TYPE:SKIRT
G1 F2700 X178.66 Y131.16 E3.27398
G1 X178.66 Y172.32 E5.84077
G1 X126.16 Y172.32 E9.11475
G1 X126.16 Y131.16 E11.68154
G0 F6000 X126.66 Y131.66
G1 F2700 X178.16 Y131.66 E14.89316
G1 X178.16 Y171.82 E17.39759
G1 X126.66 Y171.82 E20.60921
G1 X126.66 Y131.66 E23.11363
G0 F6000 X127.16 Y132.16
G1 F2700 X177.66 Y132.16 E26.26289
G1 X177.66 Y171.32 E28.70495
G1 X127.16 Y171.32 E31.85421
G1 X127.16 Y132.16 E34.29627
G0 F6000 X127.66 Y132.66
G1 F2700 X177.16 Y132.66 E37.38317
G1 X177.16 Y170.82 E39.76287
G1 X127.66 Y170.82 E42.84976
G1 X127.66 Y132.66 E45.22946
G0 F6000 X128.16 Y133.16
G1 F2700 X176.66 Y133.16 E48.25399
G1 X176.66 Y170.32 E50.57133
G1 X128.16 Y170.32 E53.59586
G1 X128.16 Y133.16 E55.91320
G0 F6000 X128.66 Y133.66
G1 F2700 X176.16 Y133.66 E58.87537
G1 X176.16 Y169.82 E61.13034
G1 X128.66 Y169.82 E64.09251
G1 X128.66 Y133.66 E66.34748
G0 F6000 X129.16 Y134.16
G1 F2700 X175.66 Y134.16 E69.24729
G1 X175.66 Y169.32 E71.43990
G1 X129.16 Y169.32 E74.33971
G1 X129.16 Y134.16 E76.53232
G0 F6000 X129.66 Y134.66
G1 F2700 X175.16 Y134.66 E79.36976
G1 X175.16 Y168.82 E81.50001
G1 X129.66 Y168.82 E84.33745
G1 X129.66 Y134.66 E86.46770
G0 F6000 X130.16 Y135.16
G1 F2700 X174.66 Y135.16 E89.24278
G1 X174.66 Y168.32 E91.31067
G1 X130.16 Y168.32 E94.08575
G1 X130.16 Y135.16 E96.15364
G0 F6000 X130.66 Y135.66
G1 F2700 X174.16 Y135.66 E98.86635
G1 X174.16 Y167.82 E100.87188
G1 X130.66 Y167.82 E103.58460
G1 X130.66 Y135.66 E105.59012
G0 F6000 X131.16 Y136.16
G1 F2700 X173.66 Y136.16 E108.24047
G1 X173.66 Y167.32 E110.18363
G1 X131.16 Y167.32 E112.83399
G1 X131.16 Y136.16 E114.77715
G0 F6000 X131.66 Y136.66
G1 F2700 X173.16 Y136.66 E117.36514
G1 X173.16 Y166.82 E119.24594
G1 X131.66 Y166.82 E121.83393
G1 X131.66 Y136.66 E123.71473
G0 F6000 X132.16 Y137.16
G1 F2700 X172.66 Y137.16 E126.24036
G1 X172.66 Y166.32 E128.05880
G1 X132.16 Y166.32 E130.58442
G1 X132.16 Y137.16 E132.40286
G0 F6000 X132.66 Y137.66
G1 F2700 X172.16 Y137.66 E134.86613
G1 X172.16 Y165.82 E136.62220
G1 X132.66 Y165.82 E139.08547
G1 X132.66 Y137.66 E140.84154
G0 F6000 X133.16 Y138.16
G1 F2700 X171.66 Y138.16 E143.24244
G1 X171.66 Y165.32 E144.93615
G1 X133.16 Y165.32 E147.33706
G1 X133.16 Y138.16 E149.03077
G0 F6000 X133.66 Y138.66
G1 F2700 X171.16 Y138.66 E151.36931
G1 X171.16 Y164.82 E153.00065
G1 X133.66 Y164.82 E155.33919
G1 X133.66 Y138.66 E156.97054
G0 F6000 X134.16 Y139.16
G1 F2700 X170.66 Y139.16 E159.24672
G1 X170.66 Y164.32 E160.81570
G1 X134.16 Y164.32 E163.09188
G1 X134.16 Y139.16 E164.66087
G0 F6000 X134.66 Y139.66
G1 F2700 X170.16 Y139.66 E166.87468
G1 X170.16 Y163.82 E168.38130
G1 X134.66 Y163.82 E170.59512
G1 X134.66 Y139.66 E172.10174
G0 F6000 X135.16 Y140.16
G1 F2700 X169.66 Y140.16 E174.25319
G1 X169.66 Y163.32 E175.69745
G1 X135.16 Y163.32 E177.84891
G1 X135.16 Y140.16 E179.29316
G0 F6000 X135.66 Y140.66
G1 F2700 X169.16 Y140.66 E181.38225
G1 X169.16 Y162.82 E182.76415
G1 X135.66 Y162.82 E184.85324
G1 X135.66 Y140.66 E186.23514
G0 F6000 X136.16 Y141.16
G1 F2700 X168.66 Y141.16 E188.26186
G1 X168.66 Y162.32 E189.58140
G1 X136.16 Y162.32 E191.60812
G1 X136.16 Y141.16 E192.92766
G0 F6000 X136.66 Y141.66
G1 F2700 X168.16 Y141.66 E194.89202
G1 X168.16 Y161.82 E196.14919
G1 X136.66 Y161.82 E198.11356
G1 X136.66 Y141.66 E199.37073
G0 F6000 X137.16 Y142.16
G1 F2700 X167.66 Y142.16 E201.27273
G1 X167.66 Y161.32 E202.46754
G1 X137.16 Y161.32 E204.36954
G1 X137.16 Y142.16 E205.56435
G0 F6000 X137.66 Y142.66
G1 F2700 X167.16 Y142.66 E207.40399
G1 X167.16 Y160.82 E208.53643
G1 X137.66 Y160.82 E210.37607
G1 X137.66 Y142.66 E211.50852
G0 F6000 X138.16 Y143.16
G1 F2700 X166.66 Y143.16 E213.28579
G1 X166.66 Y160.32 E214.35587
G1 X138.16 Y160.32 E216.13315
G1 X138.16 Y143.16 E217.20323
G0 F6000 X140.66 Y145.50
G1 F2700 X140.66 Y157.99 E217.98271
G1 X164.16 Y157.99 E219.44817
G1 X164.16 Y145.50 E220.22764
G1 X140.66 Y145.50 E221.69310
G0 F6000 X141.16 Y146.00
G1 F2700 X141.16 Y157.49 E222.41021
G1 X163.66 Y157.49 E223.81331
G1 X163.66 Y146.00 E224.53042
G1 X141.16 Y146.00 E225.93352
G0 F6000 X141.66 Y146.50
G1 F2700 X141.66 Y156.99 E226.58827
G1 X163.16 Y156.99 E227.92900
G1 X163.16 Y146.50 E228.58375
G1 X141.66 Y146.50 E229.92449
G0 F6000 X142.16 Y147.00
G1 F2700 X142.16 Y156.49 E230.51687
G1 X162.66 Y156.49 E231.79524
G1 X162.66 Y147.00 E232.38763
G1 X142.16 Y147.00 E233.66600
G0 F6000 X142.66 Y147.50
G1 F2700 X142.66 Y155.99 E234.19602
G1 X162.16 Y155.99 E235.41203
G1 X162.16 Y147.50 E235.94206
G1 X142.66 Y147.50 E237.15807
G0 F6000 X143.16 Y148.00
G1 F2700 X143.16 Y155.49 E237.62573
G1 X161.66 Y155.49 E238.77937
G1 X161.66 Y148.00 E239.24703
G1 X143.16 Y148.00 E240.40068
G0 F6000 X143.66 Y148.50
G1 F2700 X143.66 Y154.99 E240.80598
G1 X161.16 Y154.99 E241.89726
G1 X161.16 Y148.50 E242.30256
G1 X143.66 Y148.50 E243.39384
G0 F6000 X144.16 Y149.00
G1 F2700 X144.16 Y154.49 E243.73678
G1 X160.66 Y154.49 E244.76570
G1 X160.66 Y149.00 E245.10863
G1 X144.16 Y149.00 E246.13756
G0 F6000 X144.66 Y149.50
G1 F2700 X144.66 Y153.99 E246.41813
G1 X160.16 Y153.99 E247.38469
G1 X160.16 Y149.50 E247.66526
G1 X144.66 Y149.50 E248.63182
G0 F6000 X145.16 Y150.00
G1 F2700 X145.16 Y153.49 E248.85002
G1 X159.66 Y153.49 E249.75422
G1 X159.66 Y150.00 E249.97243
G1 X145.16 Y150.00 E250.87663
G0 F6000 X145.66 Y150.50
G1 F2700 X145.66 Y152.99 E251.03247
G1 X159.16 Y152.99 E251.87430
G1 X159.16 Y150.50 E252.03015
G1 X145.66 Y150.50 E252.87198
G0 F6000 X139.66 Y144.50
;TYPE:WALL-INNER
G1 F2700 X139.66 Y158.99 E253.77618
G1 X165.16 Y158.99 E255.36637
G1 X165.16 Y144.50 E256.27057
G1 X139.66 Y144.50 E257.86075
G0 F6000 X139.16 Y144.16
G1 F2700 X165.66 Y144.16 E259.51331
G1 X165.66 Y159.32 E260.45866
G1 X139.16 Y159.32 E262.11121
G1 X139.16 Y144.16 E263.05657
G0 F6000 X138.66 Y143.66
;TYPE:WALL-OUTER
G1 F2700 X166.16 Y143.66 E264.77148
G1 X166.16 Y159.82 E265.77920
G1 X138.66 Y159.82 E267.49412
G1 X138.66 Y143.66 E268.50184
G0 F6000 X139.01 Y143.93
G0 X140.16 Y144.65
G0 X140.16 Y145.00
G1 F2700 X140.16 Y158.49 E269.34367
G1 X164.66 Y158.49 E270.87150
G1 X164.66 Y145.00 E271.71333
G1 X140.16 Y145.00 E273.24116
;LAYER:1
G0 F6000 X139.66 Y144.50 Z0.50
;TYPE:WALL-INNER
G1 F1260 X139.66 Y158.99 E273.84395
G1 X165.16 Y158.99 E274.90408
G1 X165.16 Y144.50 E275.50688
G1 X139.66 Y144.50 E276.56700
G0 F6000 X139.16 Y144.16
G1 F1260 X165.66 Y144.16 E277.66870
G1 X165.66 Y159.32 E278.29894
G1 X139.16 Y159.32 E279.40064
G1 X139.16 Y144.16 E280.03088
G0 F6000 X138.66 Y143.66
;TYPE:WALL-OUTER
G1 F1260 X166.16 Y143.66 E281.17416
G1 X166.16 Y159.82 E281.84597
G1 X138.66 Y159.82 E282.98924
G1 X138.66 Y143.66 E283.66106
G0 F6000 X139.01 Y143.93
G0 X140.16 Y144.65
G0 X140.16 Y145.00
G1 F1260 X140.16 Y158.49 E284.22228
G1 X164.66 Y158.49 E285.24083
G1 X164.66 Y145.00 E285.80205
G1 X140.16 Y145.00 E286.82060
;LAYER:2
G0 F6000 X139.66 Y144.50 Z0.70
;TYPE:WALL-INNER
G1 F1260 X139.66 Y158.99 E287.42340
G1 X165.16 Y158.99 E288.48353
G1 X165.16 Y144.50 E289.08633
G1 X139.66 Y144.50 E290.14645
G0 F6000 X139.16 Y144.16
G1 F1260 X165.66 Y144.16 E291.24815
G1 X165.66 Y159.32 E291.87839
G1 X139.16 Y159.32 E292.98009
G1 X139.16 Y144.16 E293.61033
G0 F6000 X138.66 Y143.66
;TYPE:WALL-OUTER
G1 F1260 X166.16 Y143.66 E294.75360
G1 X166.16 Y159.82 E295.42542
G1 X138.66 Y159.82 E296.56869
G1 X138.66 Y143.66 E297.24051
G0 F6000 X139.01 Y143.93
G0 X140.16 Y144.65
G0 X140.16 Y145.00
G1 F1260 X140.16 Y158.49 E297.80173
G1 X164.66 Y158.49 E298.82028
G1 X164.66 Y145.00 E299.38150
G1 X140.16 Y145.00 E300.40005
;LAYER:3
G0 F6000 X139.66 Y144.50 Z0.90
;TYPE:WALL-INNER
G1 F1260 X139.66 Y158.99 E301.00285
G1 X165.16 Y158.99 E302.06298
G1 X165.16 Y144.50 E302.66577
G1 X139.66 Y144.50 E303.72590
G0 F6000 X139.16 Y144.16
G1 F1260 X165.66 Y144.16 E304.82760
G1 X165.66 Y159.32 E305.45784
G1 X139.16 Y159.32 E306.55954
G1 X139.16 Y144.16 E307.18978
G0 F6000 X138.66 Y143.66
;TYPE:WALL-OUTER
G1 F1260 X166.16 Y143.66 E308.33305
G1 X166.16 Y159.82 E309.00486
G1 X138.66 Y159.82 E310.14814
G1 X138.66 Y143.66 E310.81995
G0 F6000 X139.01 Y143.93
G0 X140.16 Y144.65
G0 X140.16 Y145.00
G1 F1260 X140.16 Y158.49 E311.38118
G1 X164.66 Y158.49 E312.39973
G1 X164.66 Y145.00 E312.96095
G1 X140.16 Y145.00 E313.97950
;LAYER:4
G0 F6000 X139.66 Y144.50 Z1.10
;TYPE:WALL-INNER
G1 F1260 X139.66 Y158.99 E314.58230
G1 X165.16 Y158.99 E315.64242
G1 X165.16 Y144.50 E316.24522
G1 X139.66 Y144.50 E317.30535
G0 F6000 X139.16 Y144.16
G1 F1260 X165.66 Y144.16 E318.40705
G1 X165.66 Y159.32 E319.03729
G1 X139.16 Y159.32 E320.13899
G1 X139.16 Y144.16 E320.76922
G0 F6000 X138.66 Y143.66
;TYPE:WALL-OUTER
G1 F1260 X166.16 Y143.66 E321.91250
G1 X166.16 Y159.82 E322.58431
G1 X138.66 Y159.82 E323.72759
G1 X138.66 Y143.66 E324.39940
G0 F6000 X139.01 Y143.93
G0 X140.16 Y144.65
G0 X140.16 Y145.00
G1 F1260 X140.16 Y158.49 E324.96062
G1 X164.66 Y158.49 E325.97917
G1 X164.66 Y145.00 E326.54040
G1 X140.16 Y145.00 E327.55895
;LAYER:5
G0 F6000 X139.66 Y144.50 Z1.30
;TYPE:WALL-INNER
G1 F1260 X139.66 Y158.99 E328.16175
G1 X165.16 Y158.99 E329.22187
G1 X165.16 Y144.50 E329.82467
G1 X139.66 Y144.50 E330.88479
G0 F6000 X139.16 Y144.16
G1 F1260 X165.66 Y144.16 E331.98650
G1 X165.66 Y159.32 E332.61673
G1 X139.16 Y159.32 E333.71843
G1 X139.16 Y144.16 E334.34867
G0 F6000 X138.66 Y143.66
;TYPE:WALL-OUTER
G1 F1260 X166.16 Y143.66 E335.49195
G1 X166.16 Y159.82 E336.16376
G1 X138.66 Y159.82 E337.30704
G1 X138.66 Y143.66 E337.97885
G0 F6000 X139.01 Y143.93
G0 X140.16 Y144.65
G0 X140.16 Y145.00
G1 F1260 X140.16 Y158.49 E338.54007
G1 X164.66 Y158.49 E339.55862
G1 X164.66 Y145.00 E340.11985
G1 X140.16 Y145.00 E341.13840
;LAYER:6
G0 F6000 X139.66 Y144.50 Z1.50
;TYPE:WALL-INNER
G1 F1260 X139.66 Y158.99 E341.74119
G1 X165.16 Y158.99 E342.80132
G1 X165.16 Y144.50 E343.40412
G1 X139.66 Y144.50 E344.46424
G0 F6000 X139.16 Y144.16
G1 F1260 X165.66 Y144.16 E345.56594
G1 X165.66 Y159.32 E346.19618
G1 X139.16 Y159.32 E347.29788
G1 X139.16 Y144.16 E347.92812
G0 F6000 X138.66 Y143.66
;TYPE:WALL-OUTER
G1 F1260 X166.16 Y143.66 E349.07140
G1 X166.16 Y159.82 E349.74321
G1 X138.66 Y159.82 E350.88648
G1 X138.66 Y143.66 E351.55830
G0 F6000 X139.01 Y143.93
G0 X140.16 Y144.65
G0 X140.16 Y145.00
G1 F1260 X140.16 Y158.49 E352.11952
G1 X164.66 Y158.49 E353.13807
G1 X164.66 Y145.00 E353.69929
G1 X140.16 Y145.00 E354.71784
;LAYER:7
G0 F6000 X139.66 Y144.50 Z1.70
;TYPE:WALL-INNER
G1 F1260 X139.66 Y158.99 E355.32064
G1 X165.16 Y158.99 E356.38077
G1 X165.16 Y144.50 E356.98357
G1 X139.66 Y144.50 E358.04369
G0 F6000 X139.16 Y144.16
G1 F1260 X165.66 Y144.16 E359.14539
G1 X165.66 Y159.32 E359.77563
G1 X139.16 Y159.32 E360.87733
G1 X139.16 Y144.16 E361.50757
G0 F6000 X138.66 Y143.66
;TYPE:WALL-OUTER
G1 F1260 X166.16 Y143.66 E362.65084
G1 X166.16 Y159.82 E363.32266
G1 X138.66 Y159.82 E364.46593
G1 X138.66 Y143.66 E365.13774
G0 F6000 X139.01 Y143.93
G0 X140.16 Y144.65
G0 X140.16 Y145.00
G1 F1260 X140.16 Y158.49 E365.69897
G1 X164.66 Y158.49 E366.71752
G1 X164.66 Y145.00 E367.27874
G1 X140.16 Y145.00 E368.29729
;LAYER:8
G0 F6000 X139.66 Y144.50 Z1.90
;TYPE:WALL-INNER
G1 F1260 X139.66 Y158.99 E368.90009
G1 X165.16 Y158.99 E369.96022
G1 X165.16 Y144.50 E370.56301
G1 X139.66 Y144.50 E371.62314
G0 F6000 X139.16 Y144.16
G1 F1260 X165.66 Y144.16 E372.72484
G1 X165.66 Y159.32 E373.35508
G1 X139.16 Y159.32 E374.45678
G1 X139.16 Y144.16 E375.08702
G0 F6000 X138.66 Y143.66
;TYPE:WALL-OUTER
G1 F1260 X166.16 Y143.66 E376.23029
G1 X166.16 Y159.82 E376.90210
G1 X138.66 Y159.82 E378.04538
G1 X138.66 Y143.66 E378.71719
G0 F6000 X139.01 Y143.93
G0 X140.16 Y144.65
G0 X140.16 Y145.00
G1 F1260 X140.16 Y158.49 E379.27842
G1 X164.66 Y158.49 E380.29697
G1 X164.66 Y145.00 E380.85819
G1 X140.16 Y145.00 E381.87674
;LAYER:9
G0 F6000 X139.66 Y144.50 Z2.10
;TYPE:WALL-INNER
G1 F1260 X139.66 Y158.99 E382.47954
G1 X165.16 Y158.99 E383.53966
G1 X165.16 Y144.50 E384.14246
G1 X139.66 Y144.50 E385.20259
G0 F6000 X139.16 Y144.16
G1 F1260 X165.66 Y144.16 E386.30429
G1 X165.66 Y159.32 E386.93453
G1 X139.16 Y159.32 E388.03623
G1 X139.16 Y144.16 E388.66646
G0 F6000 X138.66 Y143.66
;TYPE:WALL-OUTER
G1 F1260 X166.16 Y143.66 E389.80974
G1 X166.16 Y159.82 E390.48155
G1 X138.66 Y159.82 E391.62483
G1 X138.66 Y143.66 E392.29664
G0 F6000 X139.01 Y143.93
G0 X140.16 Y144.65
G0 X140.16 Y145.00
G1 F1260 X140.16 Y158.49 E392.85786
G1 X164.66 Y158.49 E393.87641
G1 X164.66 Y145.00 E394.43764
G1 X140.16 Y145.00 E395.45619
;LAYER:10
G0 F6000 X139.66 Y144.50 Z2.30
;TYPE:WALL-INNER
G1 F1260 X139.66 Y158.99 E396.05899
G1 X165.16 Y158.99 E397.11911
G1 X165.16 Y144.50 E397.72191
G1 X139.66 Y144.50 E398.78203
G0 F6000 X139.16 Y144.16
G1 F1260 X165.66 Y144.16 E399.88373
G1 X165.66 Y159.32 E400.51397
G1 X139.16 Y159.32 E401.61567
G1 X139.16 Y144.16 E402.24591
G0 F6000 X138.66 Y143.66
;TYPE:WALL-OUTER
G1 F1260 X166.16 Y143.66 E403.38919
G1 X166.16 Y159.82 E404.06100
G1 X138.66 Y159.82 E405.20428
G1 X138.66 Y143.66 E405.87609
G0 F6000 X139.01 Y143.93
G0 X140.16 Y144.65
G0 X140.16 Y145.00
G1 F1260 X140.16 Y158.49 E406.43731
G1 X164.66 Y158.49 E407.45586
G1 X164.66 Y145.00 E408.01709
G1 X140.16 Y145.00 E409.03564
;LAYER:11
G0 F6000 X139.66 Y144.50 Z2.50
;TYPE:WALL-INNER
G1 F1260 X139.66 Y158.99 E409.63843
G1 X165.16 Y158.99 E410.69856
G1 X165.16 Y144.50 E411.30136
G1 X139.66 Y144.50 E412.36148
G0 F6000 X139.16 Y144.16
G1 F1260 X165.66 Y144.16 E413.46318
G1 X165.66 Y159.32 E414.09342
G1 X139.16 Y159.32 E415.19512
G1 X139.16 Y144.16 E415.82536
G0 F6000 X138.66 Y143.66
;TYPE:WALL-OUTER
G1 F1260 X166.16 Y143.66 E416.96863
G1 X166.16 Y159.82 E417.64045
G1 X138.66 Y159.82 E418.78372
G1 X138.66 Y143.66 E419.45554
G0 F6000 X139.01 Y143.93
G0 X140.16 Y144.65
G0 X140.16 Y145.00
G1 F1260 X140.16 Y158.49 E420.01676
G1 X164.66 Y158.49 E421.03531
G1 X164.66 Y145.00 E421.59653
G1 X140.16 Y145.00 E422.61508
;LAYER:12
G0 F6000 X139.66 Y144.50 Z2.70
;TYPE:WALL-INNER
G1 F1260 X139.66 Y158.99 E423.21788
G1 X165.16 Y158.99 E424.27801
G1 X165.16 Y144.50 E424.88081
G1 X139.66 Y144.50 E425.94093
G0 F6000 X139.16 Y144.16
G1 F1260 X165.66 Y144.16 E427.04263
G1 X165.66 Y159.32 E427.67287
G1 X139.16 Y159.32 E428.77457
G1 X139.16 Y144.16 E429.40481
G0 F6000 X138.66 Y143.66
;TYPE:WALL-OUTER
G1 F1260 X166.16 Y143.66 E430.54808
G1 X166.16 Y159.82 E431.21990
G1 X138.66 Y159.82 E432.36317
G1 X138.66 Y143.66 E433.03498
G0 F6000 X139.01 Y143.93
G0 X140.16 Y144.65
G0 X140.16 Y145.00
G1 F1260 X140.16 Y158.49 E433.59621
G1 X164.66 Y158.49 E434.61476
G1 X164.66 Y145.00 E435.17598
G1 X140.16 Y145.00 E436.19453
;LAYER:13
G0 F6000 X139.66 Y144.50 Z2.90
;TYPE:WALL-INNER
G1 F1260 X139.66 Y158.99 E436.79733
G1 X165.16 Y158.99 E437.85745
G1 X165.16 Y144.50 E438.46025
G1 X139.66 Y144.50 E439.52038
G0 F6000 X139.16 Y144.16
G1 F1260 X165.66 Y144.16 E440.62208
G1 X165.66 Y159.32 E441.25232
G1 X139.16 Y159.32 E442.35402
G1 X139.16 Y144.16 E442.98426
G0 F6000 X138.66 Y143.66
;TYPE:WALL-OUTER
G1 F1260 X166.16 Y143.66 E444.12753
G1 X166.16 Y159.82 E444.79934
G1 X138.66 Y159.82 E445.94262
G1 X138.66 Y143.66 E446.61443
G0 F6000 X139.01 Y143.93
G0 X140.16 Y144.65
G0 X140.16 Y145.00
G1 F1260 X140.16 Y158.49 E447.17566
G1 X164.66 Y158.49 E448.19421
G1 X164.66 Y145.00 E448.75543
G1 X140.16 Y145.00 E449.77398
;LAYER:14
G0 F6000 X139.66 Y144.50 Z3.10
;TYPE:WALL-INNER
G1 F1260 X139.66 Y158.99 E450.37678
G1 X165.16 Y158.99 E451.43690
G1 X165.16 Y144.50 E452.03970
G1 X139.66 Y144.50 E453.09983
G0 F6000 X139.16 Y144.16
G1 F1260 X165.66 Y144.16 E454.20153
G1 X165.66 Y159.32 E454.83176
G1 X139.16 Y159.32 E455.93347
G1 X139.16 Y144.16 E456.56370
G0 F6000 X138.66 Y143.66
;TYPE:WALL-OUTER
G1 F1260 X166.16 Y143.66 E457.70698
G1 X166.16 Y159.82 E458.37879
G1 X138.66 Y159.82 E459.52207
G1 X138.66 Y143.66 E460.19388
G0 F6000 X139.01 Y143.93
G0 X140.16 Y144.65
G0 X140.16 Y145.00
G1 F1260 X140.16 Y158.49 E460.75510
G1 X164.66 Y158.49 E461.77365
G1 X164.66 Y145.00 E462.33488
G1 X140.16 Y145.00 E463.35343
;LAYER:15
G0 F6000 X139.66 Y144.50 Z3.30
;TYPE:WALL-INNER
G1 F1260 X139.66 Y158.99 E463.95623
G1 X165.16 Y158.99 E465.01635
G1 X165.16 Y144.50 E465.61915
G1 X139.66 Y144.50 E466.67927
G0 F6000 X139.16 Y144.16
G1 F1260 X165.66 Y144.16 E467.78097
G1 X165.66 Y159.32 E468.41121
G1 X139.16 Y159.32 E469.51291
G1 X139.16 Y144.16 E470.14315
G0 F6000 X138.66 Y143.66
;TYPE:WALL-OUTER
G1 F1260 X166.16 Y143.66 E471.28643
G1 X166.16 Y159.82 E471.95824
G1 X138.66 Y159.82 E473.10152
G1 X138.66 Y143.66 E473.77333
G0 F6000 X139.01 Y143.93
G0 X140.16 Y144.65
G0 X140.16 Y145.00
G1 F1260 X140.16 Y158.49 E474.33455
G1 X164.66 Y158.49 E475.35310
G1 X164.66 Y145.00 E475.91432
G1 X140.16 Y145.00 E476.93287
;LAYER:16
G0 F6000 X139.66 Y144.50 Z3.50
;TYPE:WALL-INNER
G1 F1260 X139.66 Y158.99 E477.53567
G1 X165.16 Y158.99 E478.59580
G1 X165.16 Y144.50 E479.19860
G1 X139.66 Y144.50 E480.25872
G0 F6000 X139.16 Y144.16
G1 F1260 X165.66 Y144.16 E481.36042
G1 X165.66 Y159.32 E481.99066
G1 X139.16 Y159.32 E483.09236
G1 X139.16 Y144.16 E483.72260
G0 F6000 X138.66 Y143.66
;TYPE:WALL-OUTER
G1 F1260 X166.16 Y143.66 E484.86587
G1 X166.16 Y159.82 E485.53769
G1 X138.66 Y159.82 E486.68096
G1 X138.66 Y143.66 E487.35278
G0 F6000 X139.01 Y143.93
G0 X140.16 Y144.65
G0 X140.16 Y145.00
G1 F1260 X140.16 Y158.49 E487.91400
G1 X164.66 Y158.49 E488.93255
G1 X164.66 Y145.00 E489.49377
G1 X140.16 Y145.00 E490.51232
;LAYER:17
G0 F6000 X139.66 Y144.50 Z3.70
;TYPE:WALL-INNER
G1 F1260 X139.66 Y158.99 E491.11512
G1 X165.16 Y158.99 E492.17525
G1 X165.16 Y144.50 E492.77804
G1 X139.66 Y144.50 E493.83817
G0 F6000 X139.16 Y144.16
G1 F1260 X165.66 Y144.16 E494.93987
G1 X165.66 Y159.32 E495.57011
G1 X139.16 Y159.32 E496.67181
G1 X139.16 Y144.16 E497.30205
G0 F6000 X138.66 Y143.66
;TYPE:WALL-OUTER
G1 F1260 X166.16 Y143.66 E498.44532
G1 X166.16 Y159.82 E499.11714
G1 X138.66 Y159.82 E500.26041
G1 X138.66 Y143.66 E500.93222
G0 F6000 X139.01 Y143.93
G0 X140.16 Y144.65
G0 X140.16 Y145.00
G1 F1260 X140.16 Y158.49 E501.49345
G1 X164.66 Y158.49 E502.51200
G1 X164.66 Y145.00 E503.07322
G1 X140.16 Y145.00 E504.09177
;LAYER:18
G0 F6000 X139.66 Y144.50 Z3.90
;TYPE:WALL-INNER
G1 F1260 X139.66 Y158.99 E504.69457
G1 X165.16 Y158.99 E505.75469
G1 X165.16 Y144.50 E506.35749
G1 X139.66 Y144.50 E507.41762
G0 F6000 X139.16 Y144.16
G1 F1260 X165.66 Y144.16 E508.51932
G1 X165.66 Y159.32 E509.14956
G1 X139.16 Y159.32 E510.25126
G1 X139.16 Y144.16 E510.88149
G0 F6000 X138.66 Y143.66
;TYPE:WALL-OUTER
G1 F1260 X166.16 Y143.66 E512.02477
G1 X166.16 Y159.82 E512.69658
G1 X138.66 Y159.82 E513.83986
G1 X138.66 Y143.66 E514.51167
G0 F6000 X139.01 Y143.93
G0 X140.16 Y144.65
G0 X140.16 Y145.00
G1 F1260 X140.16 Y158.49 E515.07290
G1 X164.66 Y158.49 E516.09145
G1 X164.66 Y145.00 E516.65267
G1 X140.16 Y145.00 E517.67122
;LAYER:19
G0 F6000 X139.66 Y144.50 Z4.10
;TYPE:WALL-INNER
G1 F1260 X139.66 Y158.99 E518.27402
G1 X165.16 Y158.99 E519.33414
G1 X165.16 Y144.50 E519.93694
G1 X139.66 Y144.50 E520.99707
G0 F6000 X139.16 Y144.16
G1 F1260 X165.66 Y144.16 E522.09877
G1 X165.66 Y159.32 E522.72900
G1 X139.16 Y159.32 E523.83070
G1 X139.16 Y144.16 E524.46094
G0 F6000 X138.66 Y143.66
;TYPE:WALL-OUTER
G1 F1260 X166.16 Y143.66 E525.60422
G1 X166.16 Y159.82 E526.27603
G1 X138.66 Y159.82 E527.41931
G1 X138.66 Y143.66 E528.09112
G0 F6000 X139.01 Y143.93
G0 X140.16 Y144.65
G0 X140.16 Y145.00
G1 F1260 X140.16 Y158.49 E528.65234
G1 X164.66 Y158.49 E529.67089
G1 X164.66 Y145.00 E530.23212
G1 X140.16 Y145.00 E531.25067
;LAYER:20
G0 F6000 X139.66 Y144.50 Z4.30
;TYPE:WALL-INNER
G1 F1260 X139.66 Y158.99 E531.85347
G1 X165.16 Y158.99 E532.91359
G1 X165.16 Y144.50 E533.51639
G1 X139.66 Y144.50 E534.57651
G0 F6000 X139.16 Y144.16
G1 F1260 X165.66 Y144.16 E535.67821
G1 X165.66 Y159.32 E536.30845
G1 X139.16 Y159.32 E537.41015
G1 X139.16 Y144.16 E538.04039
G0 F6000 X138.66 Y143.66
;TYPE:WALL-OUTER
G1 F1260 X166.16 Y143.66 E539.18367
G1 X166.16 Y159.82 E539.85548
G1 X138.66 Y159.82 E540.99875
G1 X138.66 Y143.66 E541.67057
G0 F6000 X139.01 Y143.93
G0 X140.16 Y144.65
G0 X140.16 Y145.00
G1 F1260 X140.16 Y158.49 E542.23179
G1 X164.66 Y158.49 E543.25034
G1 X164.66 Y145.00 E543.81156
G1 X140.16 Y145.00 E544.83011
;LAYER:21
G0 F6000 X139.66 Y144.50 Z4.50
;TYPE:WALL-INNER
G1 F1260 X139.66 Y158.99 E545.43291
G1 X165.16 Y158.99 E546.49304
G1 X165.16 Y144.50 E547.09584
G1 X139.66 Y144.50 E548.15596
G0 F6000 X139.16 Y144.16
G1 F1260 X165.66 Y144.16 E549.25766
G1 X165.66 Y159.32 E549.88790
G1 X139.16 Y159.32 E550.98960
G1 X139.16 Y144.16 E551.61984
G0 F6000 X138.66 Y143.66
;TYPE:WALL-OUTER
G1 F1260 X166.16 Y143.66 E552.76311
G1 X166.16 Y159.82 E553.43493
G1 X138.66 Y159.82 E554.57820
G1 X138.66 Y143.66 E555.25002
G0 F6000 X139.01 Y143.93
G0 X140.16 Y144.65
G0 X140.16 Y145.00
G1 F1260 X140.16 Y158.49 E555.81124
G1 X164.66 Y158.49 E556.82979
G1 X164.66 Y145.00 E557.39101
G1 X140.16 Y145.00 E558.40956
;LAYER:22
G0 F6000 X139.66 Y144.50 Z4.70
;TYPE:WALL-INNER
G1 F1260 X139.66 Y158.99 E559.01236
G1 X165.16 Y158.99 E560.07249
G1 X165.16 Y144.50 E560.67528
G1 X139.66 Y144.50 E561.73541
G0 F6000 X139.16 Y144.16
G1 F1260 X165.66 Y144.16 E562.83711
G1 X165.66 Y159.32 E563.46735
G1 X139.16 Y159.32 E564.56905
G1 X139.16 Y144.16 E565.19929
G0 F6000 X138.66 Y143.66
;TYPE:WALL-OUTER
G1 F1260 X166.16 Y143.66 E566.34256
G1 X166.16 Y159.82 E567.01438
G1 X138.66 Y159.82 E568.15765
G1 X138.66 Y143.66 E568.82946
G0 F6000 X139.01 Y143.93
G0 X140.16 Y144.65
G0 X140.16 Y145.00
G1 F1260 X140.16 Y158.49 E569.39069
G1 X164.66 Y158.49 E570.40924
G1 X164.66 Y145.00 E570.97046
G1 X140.16 Y145.00 E571.98901
;LAYER:23
G0 F6000 X139.66 Y144.50 Z4.90
;TYPE:WALL-INNER
G1 F1260 X139.66 Y158.99 E572.59181
G1 X165.16 Y158.99 E573.65193
G1 X165.16 Y144.50 E574.25473
G1 X139.66 Y144.50 E575.31486
G0 F6000 X139.16 Y144.16
G1 F1260 X165.66 Y144.16 E576.41656
G1 X165.66 Y159.32 E577.04680
G1 X139.16 Y159.32 E578.14850
G1 X139.16 Y144.16 E578.77873
G0 F6000 X138.66 Y143.66
;TYPE:WALL-OUTER
G1 F1260 X166.16 Y143.66 E579.92201
G1 X166.16 Y159.82 E580.59382
G1 X138.66 Y159.82 E581.73710
G1 X138.66 Y143.66 E582.40891
G0 F6000 X139.01 Y143.93
G0 X140.16 Y144.65
G0 X140.16 Y145.00
G1 F1260 X140.16 Y158.49 E582.97014
G1 X164.66 Y158.49 E583.98869
G1 X164.66 Y145.00 E584.54991
G1 X140.16 Y145.00 E585.56846
;LAYER:24
G0 F6000 X139.66 Y144.50 Z5.10
;TYPE:WALL-INNER
G1 F1260 X139.66 Y158.99 E586.17126
G1 X165.16 Y158.99 E587.23138
G1 X165.16 Y144.50 E587.83418
G1 X139.66 Y144.50 E588.89431
G0 F6000 X139.16 Y144.16
G1 F1260 X165.66 Y144.16 E589.99601
G1 X165.66 Y159.32 E590.62624
G1 X139.16 Y159.32 E591.72794
G1 X139.16 Y144.16 E592.35818
G0 F6000 X138.66 Y143.66
;TYPE:WALL-OUTER
G1 F1260 X166.16 Y143.66 E593.50146
G1 X166.16 Y159.82 E594.17327
G1 X138.66 Y159.82 E595.31655
G1 X138.66 Y143.66 E595.98836
G0 F6000 X139.01 Y143.93
G0 X140.16 Y144.65
G0 X140.16 Y145.00
G1 F1260 X140.16 Y158.49 E596.54958
G1 X164.66 Y158.49 E597.56813
G1 X164.66 Y145.00 E598.12936
G1 X140.16 Y145.00 E599.14791
;LAYER:25
G0 F6000 X139.66 Y144.50 Z5.30
;TYPE:WALL-INNER
G1 F1260 X139.66 Y158.99 E599.75070
G1 X165.16 Y158.99 E600.81083
G1 X165.16 Y144.50 E601.41363
G1 X139.66 Y144.50 E602.47375
G0 F6000 X139.16 Y144.16
G1 F1260 X165.66 Y144.16 E603.57545
G1 X165.66 Y159.32 E604.20569
G1 X139.16 Y159.32 E605.30739
G1 X139.16 Y144.16 E605.93763
G0 F6000 X138.66 Y143.66
;TYPE:WALL-OUTER
G1 F1260 X166.16 Y143.66 E607.08091
G1 X166.16 Y159.82 E607.75272
G1 X138.66 Y159.82 E608.89599
G1 X138.66 Y143.66 E609.56781
G0 F6000 X139.01 Y143.93
G0 X140.16 Y144.65
G0 X140.16 Y145.00
G1 F1260 X140.16 Y158.49 E610.12903
G1 X164.66 Y158.49 E611.14758
G1 X164.66 Y145.00 E611.70880
G1 X140.16 Y145.00 E612.72735
;LAYER:26
G0 F6000 X139.66 Y144.50 Z5.50
;TYPE:WALL-INNER
G1 F1260 X139.66 Y158.99 E613.33015
G1 X165.16 Y158.99 E614.39028
G1 X165.16 Y144.50 E614.99308
G1 X139.66 Y144.50 E616.05320
G0 F6000 X139.16 Y144.16
G1 F1260 X165.66 Y144.16 E617.15490
G1 X165.66 Y159.32 E617.78514
G1 X139.16 Y159.32 E618.88684
G1 X139.16 Y144.16 E619.51708
G0 F6000 X138.66 Y143.66
;TYPE:WALL-OUTER
G1 F1260 X166.16 Y143.66 E620.66035
G1 X166.16 Y159.82 E621.33217
G1 X138.66 Y159.82 E622.47544
G1 X138.66 Y143.66 E623.14726
G0 F6000 X139.01 Y143.93
G0 X140.16 Y144.65
G0 X140.16 Y145.00
G1 F1260 X140.16 Y158.49 E623.70848
G1 X164.66 Y158.49 E624.72703
G1 X164.66 Y145.00 E625.28825
G1 X140.16 Y145.00 E626.30680
;LAYER:27
G0 F6000 X139.66 Y144.50 Z5.70
;TYPE:WALL-INNER
G1 F1260 X139.66 Y158.99 E626.90960
G1 X165.16 Y158.99 E627.96973
G1 X165.16 Y144.50 E628.57252
G1 X139.66 Y144.50 E629.63265
G0 F6000 X139.16 Y144.16
G1 F1260 X165.66 Y144.16 E630.73435
G1 X165.66 Y159.32 E631.36459
G1 X139.16 Y159.32 E632.46629
G1 X139.16 Y144.16 E633.09653
G0 F6000 X138.66 Y143.66
;TYPE:WALL-OUTER
G1 F1260 X166.16 Y143.66 E634.23980
G1 X166.16 Y159.82 E634.91161
G1 X138.66 Y159.82 E636.05489
G1 X138.66 Y143.66 E636.72670
G0 F6000 X139.01 Y143.93
G0 X140.16 Y144.65
G0 X140.16 Y145.00
G1 F1260 X140.16 Y158.49 E637.28793
G1 X164.66 Y158.49 E638.30648
G1 X164.66 Y145.00 E638.86770
G1 X140.16 Y145.00 E639.88625
;LAYER:28
G0 F6000 X139.66 Y144.50 Z5.90
;TYPE:WALL-INNER
G1 F1260 X139.66 Y158.99 E640.48905
G1 X165.16 Y158.99 E641.54917
G1 X165.16 Y144.50 E642.15197
G1 X139.66 Y144.50 E643.21210
G0 F6000 X139.16 Y144.16
G1 F1260 X165.66 Y144.16 E644.31380
G1 X165.66 Y159.32 E644.94404
G1 X139.16 Y159.32 E646.04574
G1 X139.16 Y144.16 E646.67597
G0 F6000 X138.66 Y143.66
;TYPE:WALL-OUTER
G1 F1260 X166.16 Y143.66 E647.81925
G1 X166.16 Y159.82 E648.49106
G1 X138.66 Y159.82 E649.63434
G1 X138.66 Y143.66 E650.30615
G0 F6000 X139.01 Y143.93
G0 X140.16 Y144.65
G0 X140.16 Y145.00
G1 F1260 X140.16 Y158.49 E650.86737
G1 X164.66 Y158.49 E651.88592
G1 X164.66 Y145.00 E652.44715
G1 X140.16 Y145.00 E653.46570
;LAYER:29
G0 F6000 X139.66 Y144.50 Z6.10
;TYPE:WALL-INNER
G1 F1260 X139.66 Y158.99 E654.06850
G1 X165.16 Y158.99 E655.12862
G1 X165.16 Y144.50 E655.73142
G1 X139.66 Y144.50 E656.79155
G0 F6000 X139.16 Y144.16
G1 F1260 X165.66 Y144.16 E657.89325
G1 X165.66 Y159.32 E658.52348
G1 X139.16 Y159.32 E659.62518
G1 X139.16 Y144.16 E660.25542
G0 F6000 X138.66 Y143.66
;TYPE:WALL-OUTER
G1 F1260 X166.16 Y143.66 E661.39870
G1 X166.16 Y159.82 E662.07051
G1 X138.66 Y159.82 E663.21379
G1 X138.66 Y143.66 E663.88560
G0 F6000 X139.01 Y143.93
G0 X140.16 Y144.65
G0 X140.16 Y145.00
G1 F1260 X140.16 Y158.49 E664.44682
G1 X164.66 Y158.49 E665.46537
G1 X164.66 Y145.00 E666.02660
G1 X140.16 Y145.00 E667.04515
;LAYER:30
G0 F6000 X139.66 Y144.50 Z6.30
;TYPE:WALL-INNER
G1 F1260 X139.66 Y158.99 E667.64794
G1 X165.16 Y158.99 E668.70807
G1 X165.16 Y144.50 E669.31087
G1 X139.66 Y144.50 E670.37099
G0 F6000 X139.16 Y144.16
G1 F1260 X165.66 Y144.16 E671.47269
G1 X165.66 Y159.32 E672.10293
G1 X139.16 Y159.32 E673.20463
G1 X139.16 Y144.16 E673.83487
G0 F6000 X138.66 Y143.66
;TYPE:WALL-OUTER
G1 F1260 X166.16 Y143.66 E674.97815
G1 X166.16 Y159.82 E675.64996
G1 X138.66 Y159.82 E676.79323
G1 X138.66 Y143.66 E677.46505
G0 F6000 X139.01 Y143.93
G0 X140.16 Y144.65
G0 X140.16 Y145.00
G1 F1260 X140.16 Y158.49 E678.02627
G1 X164.66 Y158.49 E679.04482
G1 X164.66 Y145.00 E679.60604
G1 X140.16 Y145.00 E680.62459
;LAYER:31
G0 F6000 X139.66 Y144.50 Z6.50
;TYPE:WALL-INNER
G1 F1260 X139.66 Y158.99 E681.22739
G1 X165.16 Y158.99 E682.28752
G1 X165.16 Y144.50 E682.89032
G1 X139.66 Y144.50 E683.95044
G0 F6000 X139.16 Y144.16
G1 F1260 X165.66 Y144.16 E685.05214
G1 X165.66 Y159.32 E685.68238
G1 X139.16 Y159.32 E686.78408
G1 X139.16 Y144.16 E687.41432
G0 F6000 X138.66 Y143.66
;TYPE:WALL-OUTER
G1 F1260 X166.16 Y143.66 E688.55759
G1 X166.16 Y159.82 E689.22941
G1 X138.66 Y159.82 E690.37268
G1 X138.66 Y143.66 E691.04450
G0 F6000 X139.01 Y143.93
G0 X140.16 Y144.65
G0 X140.16 Y145.00
G1 F1260 X140.16 Y158.49 E691.60572
G1 X164.66 Y158.49 E692.62427
G1 X164.66 Y145.00 E693.18549
G1 X140.16 Y145.00 E694.20404
;LAYER:32
G0 F6000 X139.66 Y144.50 Z6.70
;TYPE:WALL-INNER
G1 F1260 X139.66 Y158.99 E694.80684
G1 X165.16 Y158.99 E695.86697
G1 X165.16 Y144.50 E696.46976
G1 X139.66 Y144.50 E697.52989
G0 F6000 X139.16 Y144.16
G1 F1260 X165.66 Y144.16 E698.63159
G1 X165.66 Y159.32 E699.26183
G1 X139.16 Y159.32 E700.36353
G1 X139.16 Y144.16 E700.99377
G0 F6000 X138.66 Y143.66
;TYPE:WALL-OUTER
G1 F1260 X166.16 Y143.66 E702.13704
G1 X166.16 Y159.82 E702.80885
G1 X138.66 Y159.82 E703.95213
G1 X138.66 Y143.66 E704.62394
G0 F6000 X139.01 Y143.93
G0 X140.16 Y144.65
G0 X140.16 Y145.00
G1 F1260 X140.16 Y158.49 E705.18517
G1 X164.66 Y158.49 E706.20372
G1 X164.66 Y145.00 E706.76494
G1 X140.16 Y145.00 E707.78349
;LAYER:33
G0 F6000 X139.66 Y144.50 Z6.90
;TYPE:WALL-INNER
G1 F1260 X139.66 Y158.99 E708.38629
G1 X165.16 Y158.99 E709.44641
G1 X165.16 Y144.50 E710.04921
G1 X139.66 Y144.50 E711.10934
G0 F6000 X139.16 Y144.16
G1 F1260 X165.66 Y144.16 E712.21104
G1 X165.66 Y159.32 E712.84128
G1 X139.16 Y159.32 E713.94298
G1 X139.16 Y144.16 E714.57321
G0 F6000 X138.66 Y143.66
;TYPE:WALL-OUTER
G1 F1260 X166.16 Y143.66 E715.71649
G1 X166.16 Y159.82 E716.38830
G1 X138.66 Y159.82 E717.53158
G1 X138.66 Y143.66 E718.20339
G0 F6000 X139.01 Y143.93
G0 X140.16 Y144.65
G0 X140.16 Y145.00
G1 F1260 X140.16 Y158.49 E718.76461
G1 X164.66 Y158.49 E719.78316
G1 X164.66 Y145.00 E720.34439
G1 X140.16 Y145.00 E721.36294
;LAYER:34
G0 F6000 X139.66 Y144.50 Z7.10
;TYPE:WALL-INNER
G1 F1260 X139.66 Y158.99 E721.96574
G1 X165.16 Y158.99 E723.02586
G1 X165.16 Y144.50 E723.62866
G1 X139.66 Y144.50 E724.68879
G0 F6000 X139.16 Y144.16
G1 F1260 X165.66 Y144.16 E725.79049
G1 X165.66 Y159.32 E726.42072
G1 X139.16 Y159.32 E727.52242
G1 X139.16 Y144.16 E728.15266
G0 F6000 X138.66 Y143.66
;TYPE:WALL-OUTER
G1 F1260 X166.16 Y143.66 E729.29594
G1 X166.16 Y159.82 E729.96775
G1 X138.66 Y159.82 E731.11103
G1 X138.66 Y143.66 E731.78284
G0 F6000 X139.01 Y143.93
G0 X140.16 Y144.65
G0 X140.16 Y145.00
G1 F1260 X140.16 Y158.49 E732.34406
G1 X164.66 Y158.49 E733.36261
G1 X164.66 Y145.00 E733.92384
G1 X140.16 Y145.00 E734.94239
;LAYER:35
G0 F6000 X139.66 Y144.50 Z7.30
;TYPE:WALL-INNER
G1 F1260 X139.66 Y158.99 E735.54518
G1 X165.16 Y158.99 E736.60531
G1 X165.16 Y144.50 E737.20811
G1 X139.66 Y144.50 E738.26823
G0 F6000 X139.16 Y144.16
G1 F1260 X165.66 Y144.16 E739.36993
G1 X165.66 Y159.32 E740.00017
G1 X139.16 Y159.32 E741.10187
G1 X139.16 Y144.16 E741.73211
G0 F6000 X138.66 Y143.66
;TYPE:WALL-OUTER
G1 F1260 X166.16 Y143.66 E742.87539
G1 X166.16 Y159.82 E743.54720
G1 X138.66 Y159.82 E744.69047
G1 X138.66 Y143.66 E745.36229
G0 F6000 X139.01 Y143.93
G0 X140.16 Y144.65
G0 X140.16 Y145.00
G1 F1260 X140.16 Y158.49 E745.92351
G1 X164.66 Y158.49 E746.94206
G1 X164.66 Y145.00 E747.50328
G1 X140.16 Y145.00 E748.52183
;LAYER:36
G0 F6000 X139.66 Y144.50 Z7.50
;TYPE:WALL-INNER
G1 F1260 X139.66 Y158.99 E749.12463
G1 X165.16 Y158.99 E750.18476
G1 X165.16 Y144.50 E750.78756
G1 X139.66 Y144.50 E751.84768
G0 F6000 X139.16 Y144.16
G1 F1260 X165.66 Y144.16 E752.94938
G1 X165.66 Y159.32 E753.57962
G1 X139.16 Y159.32 E754.68132
G1 X139.16 Y144.16 E755.31156
G0 F6000 X138.66 Y143.66
;TYPE:WALL-OUTER
G1 F1260 X166.16 Y143.66 E756.45483
G1 X166.16 Y159.82 E757.12665
G1 X138.66 Y159.82 E758.26992
G1 X138.66 Y143.66 E758.94174
G0 F6000 X139.01 Y143.93
G0 X140.16 Y144.65
G0 X140.16 Y145.00
G1 F1260 X140.16 Y158.49 E759.50296
G1 X164.66 Y158.49 E760.52151
G1 X164.66 Y145.00 E761.08273
G1 X140.16 Y145.00 E762.10128
;LAYER:37
G0 F6000 X139.66 Y144.50 Z7.70
;TYPE:WALL-INNER
G1 F1260 X139.66 Y158.99 E762.70408
G1 X165.16 Y158.99 E763.76421
G1 X165.16 Y144.50 E764.36700
G1 X139.66 Y144.50 E765.42713
G0 F6000 X139.16 Y144.16
G1 F1260 X165.66 Y144.16 E766.52883
G1 X165.66 Y159.32 E767.15907
G1 X139.16 Y159.32 E768.26077
G1 X139.16 Y144.16 E768.89101
G0 F6000 X138.66 Y143.66
;TYPE:WALL-OUTER
G1 F1260 X166.16 Y143.66 E770.03428
G1 X166.16 Y159.82 E770.70609
G1 X138.66 Y159.82 E771.84937
G1 X138.66 Y143.66 E772.52118
G0 F6000 X139.01 Y143.93
G0 X140.16 Y144.65
G0 X140.16 Y145.00
G1 F1260 X140.16 Y158.49 E773.08241
G1 X164.66 Y158.49 E774.10096
G1 X164.66 Y145.00 E774.66218
G1 X140.16 Y145.00 E775.68073
;LAYER:38
G0 F6000 X139.66 Y144.50 Z7.90
;TYPE:WALL-INNER
G1 F1260 X139.66 Y158.99 E776.28353
G1 X165.16 Y158.99 E777.34365
G1 X165.16 Y144.50 E777.94645
G1 X139.66 Y144.50 E779.00658
G0 F6000 X139.16 Y144.16
G1 F1260 X165.66 Y144.16 E780.10828
G1 X165.66 Y159.32 E780.73852
G1 X139.16 Y159.32 E781.84022
G1 X139.16 Y144.16 E782.47045
G0 F6000 X138.66 Y143.66
;TYPE:WALL-OUTER
G1 F1260 X166.16 Y143.66 E783.61373
G1 X166.16 Y159.82 E784.28554
G1 X138.66 Y159.82 E785.42882
G1 X138.66 Y143.66 E786.10063
G0 F6000 X139.01 Y143.93
G0 X140.16 Y144.65
G0 X140.16 Y145.00
G1 F1260 X140.16 Y158.49 E786.66185
G1 X164.66 Y158.49 E787.68040
G1 X164.66 Y145.00 E788.24163
G1 X140.16 Y145.00 E789.26018
;LAYER:39
G0 F6000 X139.66 Y144.50 Z8.10
;TYPE:WALL-INNER
G1 F1260 X139.66 Y158.99 E789.86298
G1 X165.16 Y158.99 E790.92310
G1 X165.16 Y144.50 E791.52590
G1 X139.66 Y144.50 E792.58602
G0 F6000 X139.16 Y144.16
G1 F1260 X165.66 Y144.16 E793.68773
G1 X165.66 Y159.32 E794.31796
G1 X139.16 Y159.32 E795.41966
G1 X139.16 Y144.16 E796.04990
G0 F6000 X138.66 Y143.66
;TYPE:WALL-OUTER
G1 F1260 X166.16 Y143.66 E797.19318
G1 X166.16 Y159.82 E797.86499
G1 X138.66 Y159.82 E799.00827
G1 X138.66 Y143.66 E799.68008
G0 F6000 X139.01 Y143.93
G0 X140.16 Y144.65
G0 X140.16 Y145.00
G1 F1260 X140.16 Y158.49 E800.24130
G1 X164.66 Y158.49 E801.25985
G1 X164.66 Y145.00 E801.82108
G1 X140.16 Y145.00 E802.83963
;LAYER:40
G0 F6000 X139.66 Y144.50 Z8.30
;TYPE:WALL-INNER
G1 F1260 X139.66 Y158.99 E803.44242
G1 X165.16 Y158.99 E804.50255
G1 X165.16 Y144.50 E805.10535
G1 X139.66 Y144.50 E806.16547
G0 F6000 X139.16 Y144.16
G1 F1260 X165.66 Y144.16 E807.26717
G1 X165.66 Y159.32 E807.89741
G1 X139.16 Y159.32 E808.99911
G1 X139.16 Y144.16 E809.62935
G0 F6000 X138.66 Y143.66
;TYPE:WALL-OUTER
G1 F1260 X166.16 Y143.66 E810.77263
G1 X166.16 Y159.82 E811.44444
G1 X138.66 Y159.82 E812.58771
G1 X138.66 Y143.66 E813.25953
G0 F6000 X139.01 Y143.93
G0 X140.16 Y144.65
G0 X140.16 Y145.00
G1 F1260 X140.16 Y158.49 E813.82075
G1 X164.66 Y158.49 E814.83930
G1 X164.66 Y145.00 E815.40052
G1 X140.16 Y145.00 E816.41907
;LAYER:41
G0 F6000 X139.66 Y144.50 Z8.50
;TYPE:WALL-INNER
G1 F1260 X139.66 Y158.99 E817.02187
G1 X165.16 Y158.99 E818.08200
G1 X165.16 Y144.50 E818.68480
G1 X139.66 Y144.50 E819.74492
G0 F6000 X139.16 Y144.16
G1 F1260 X165.66 Y144.16 E820.84662
G1 X165.66 Y159.32 E821.47686
G1 X139.16 Y159.32 E822.57856
G1 X139.16 Y144.16 E823.20880
G0 F6000 X138.66 Y143.66
;TYPE:WALL-OUTER
G1 F1260 X166.16 Y143.66 E824.35207
G1 X166.16 Y159.82 E825.02389
G1 X138.66 Y159.82 E826.16716
G1 X138.66 Y143.66 E826.83897
G0 F6000 X139.01 Y143.93
G0 X140.16 Y144.65
G0 X140.16 Y145.00
G1 F1260 X140.16 Y158.49 E827.40020
G1 X164.66 Y158.49 E828.41875
G1 X164.66 Y145.00 E828.97997
G1 X140.16 Y145.00 E829.99852
;LAYER:42
G0 F6000 X139.66 Y144.50 Z8.70
;TYPE:WALL-INNER
G1 F1260 X139.66 Y158.99 E830.60132
G1 X165.16 Y158.99 E831.66144
G1 X165.16 Y144.50 E832.26424
G1 X139.66 Y144.50 E833.32437
G0 F6000 X139.16 Y144.16
G1 F1260 X165.66 Y144.16 E834.42607
G1 X165.66 Y159.32 E835.05631
G1 X139.16 Y159.32 E836.15801
G1 X139.16 Y144.16 E836.78825
G0 F6000 X138.66 Y143.66
;TYPE:WALL-OUTER
G1 F1260 X166.16 Y143.66 E837.93152
G1 X166.16 Y159.82 E838.60333
G1 X138.66 Y159.82 E839.74661
G1 X138.66 Y143.66 E840.41842
G0 F6000 X139.01 Y143.93
G0 X140.16 Y144.65
G0 X140.16 Y145.00
G1 F1260 X140.16 Y158.49 E840.97965
G1 X164.66 Y158.49 E841.99820
G1 X164.66 Y145.00 E842.55942
G1 X140.16 Y145.00 E843.57797
;LAYER:43
G0 F6000 X139.66 Y144.50 Z8.90
;TYPE:WALL-INNER
G1 F1260 X139.66 Y158.99 E844.18077
G1 X165.16 Y158.99 E845.24089
G1 X165.16 Y144.50 E845.84369
G1 X139.66 Y144.50 E846.90382
G0 F6000 X139.16 Y144.16
G1 F1260 X165.66 Y144.16 E848.00552
G1 X165.66 Y159.32 E848.63575
G1 X139.16 Y159.32 E849.73746
G1 X139.16 Y144.16 E850.36769
G0 F6000 X138.66 Y143.66
;TYPE:WALL-OUTER
G1 F1260 X166.16 Y143.66 E851.51097
G1 X166.16 Y159.82 E852.18278
G1 X138.66 Y159.82 E853.32606
G1 X138.66 Y143.66 E853.99787
G0 F6000 X139.01 Y143.93
G0 X140.16 Y144.65
G0 X140.16 Y145.00
G1 F1260 X140.16 Y158.49 E854.55909
G1 X164.66 Y158.49 E855.57764
G1 X164.66 Y145.00 E856.13887
G1 X140.16 Y145.00 E857.15742
;LAYER:44
G0 F6000 X139.66 Y144.50 Z9.10
;TYPE:WALL-INNER
G1 F1260 X139.66 Y158.99 E857.76022
G1 X165.16 Y158.99 E858.82034
G1 X165.16 Y144.50 E859.42314
G1 X139.66 Y144.50 E860.48326
G0 F6000 X139.16 Y144.16
G1 F1260 X165.66 Y144.16 E861.58496
G1 X165.66 Y159.32 E862.21520
G1 X139.16 Y159.32 E863.31690
G1 X139.16 Y144.16 E863.94714
G0 F6000 X138.66 Y143.66
;TYPE:WALL-OUTER
G1 F1260 X166.16 Y143.66 E865.09042
G1 X166.16 Y159.82 E865.76223
G1 X138.66 Y159.82 E866.90551
G1 X138.66 Y143.66 E867.57732
G0 F6000 X139.01 Y143.93
G0 X140.16 Y144.65
G0 X140.16 Y145.00
G1 F1260 X140.16 Y158.49 E868.13854
G1 X164.66 Y158.49 E869.15709
G1 X164.66 Y145.00 E869.71832
G1 X140.16 Y145.00 E870.73687
;LAYER:45
G0 F6000 X139.66 Y144.50 Z9.30
;TYPE:WALL-INNER
G1 F1260 X139.66 Y158.99 E871.33966
G1 X165.16 Y158.99 E872.39979
G1 X165.16 Y144.50 E873.00259
G1 X139.66 Y144.50 E874.06271
G0 F6000 X139.16 Y144.16
G1 F1260 X165.66 Y144.16 E875.16441
G1 X165.66 Y159.32 E875.79465
G1 X139.16 Y159.32 E876.89635
G1 X139.16 Y144.16 E877.52659
G0 F6000 X138.66 Y143.66
;TYPE:WALL-OUTER
G1 F1260 X166.16 Y143.66 E878.66986
G1 X166.16 Y159.82 E879.34168
G1 X138.66 Y159.82 E880.48495
G1 X138.66 Y143.66 E881.15677
G0 F6000 X139.01 Y143.93
G0 X140.16 Y144.65
G0 X140.16 Y145.00
G1 F1260 X140.16 Y158.49 E881.71799
G1 X164.66 Y158.49 E882.73654
G1 X164.66 Y145.00 E883.29776
G1 X140.16 Y145.00 E884.31631
;LAYER:46
G0 F6000 X139.66 Y144.50 Z9.50
;TYPE:WALL-INNER
G1 F1260 X139.66 Y158.99 E884.91911
G1 X165.16 Y158.99 E885.97924
G1 X165.16 Y144.50 E886.58204
G1 X139.66 Y144.50 E887.64216
G0 F6000 X139.16 Y144.16
G1 F1260 X165.66 Y144.16 E888.74386
G1 X165.66 Y159.32 E889.37410
G1 X139.16 Y159.32 E890.47580
G1 X139.16 Y144.16 E891.10604
G0 F6000 X138.66 Y143.66
;TYPE:WALL-OUTER
G1 F1260 X166.16 Y143.66 E892.24931
G1 X166.16 Y159.82 E892.92113
G1 X138.66 Y159.82 E894.06440
G1 X138.66 Y143.66 E894.73621
G0 F6000 X139.01 Y143.93
G0 X140.16 Y144.65
G0 X140.16 Y145.00
G1 F1260 X140.16 Y158.49 E895.29744
G1 X164.66 Y158.49 E896.31599
G1 X164.66 Y145.00 E896.87721
G1 X140.16 Y145.00 E897.89576
;LAYER:47
G0 F6000 X139.66 Y144.50 Z9.70
;TYPE:WALL-INNER
G1 F1260 X139.66 Y158.99 E898.49856
G1 X165.16 Y158.99 E899.55868
G1 X165.16 Y144.50 E900.16148
G1 X139.66 Y144.50 E901.22161
G0 F6000 X139.16 Y144.16
G1 F1260 X165.66 Y144.16 E902.32331
G1 X165.66 Y159.32 E902.95355
G1 X139.16 Y159.32 E904.05525
G1 X139.16 Y144.16 E904.68548
G0 F6000 X138.66 Y143.66
;TYPE:WALL-OUTER
G1 F1260 X166.16 Y143.66 E905.82876
G1 X166.16 Y159.82 E906.50057
G1 X138.66 Y159.82 E907.64385
G1 X138.66 Y143.66 E908.31566
G0 F6000 X139.01 Y143.93
G0 X140.16 Y144.65
G0 X140.16 Y145.00
G1 F1260 X140.16 Y158.49 E908.87689
G1 X164.66 Y158.49 E909.89544
G1 X164.66 Y145.00 E910.45666
G1 X140.16 Y145.00 E911.47521
;LAYER:48
G0 F6000 X139.66 Y144.50 Z9.90
;TYPE:WALL-INNER
G1 F1260 X139.66 Y158.99 E912.07801
G1 X165.16 Y158.99 E913.13813
G1 X165.16 Y144.50 E913.74093
G1 X139.66 Y144.50 E914.80106
G0 F6000 X139.16 Y144.16
G1 F1260 X165.66 Y144.16 E915.90276
G1 X165.66 Y159.32 E916.53299
G1 X139.16 Y159.32 E917.63469
G1 X139.16 Y144.16 E918.26493
G0 F6000 X138.66 Y143.66
;TYPE:WALL-OUTER
G1 F1260 X166.16 Y143.66 E919.40821
G1 X166.16 Y159.82 E920.08002
G1 X138.66 Y159.82 E921.22330
G1 X138.66 Y143.66 E921.89511
G0 F6000 X139.01 Y143.93
G0 X140.16 Y144.65
G0 X140.16 Y145.00
G1 F1260 X140.16 Y158.49 E922.45633
G1 X164.66 Y158.49 E923.47488
G1 X164.66 Y145.00 E924.03611
G1 X140.16 Y145.00 E925.05466
;LAYER:49
G0 F6000 X139.66 Y144.50 Z10.10
;TYPE:WALL-INNER
G1 F1260 X139.66 Y158.99 E925.65746
G1 X165.16 Y158.99 E926.71758
G1 X165.16 Y144.50 E927.32038
G1 X139.66 Y144.50 E928.38050
G0 F6000 X139.16 Y144.16
G1 F1260 X165.66 Y144.16 E929.48220
G1 X165.66 Y159.32 E930.11244
G1 X139.16 Y159.32 E931.21414
G1 X139.16 Y144.16 E931.84438
G0 F6000 X138.66 Y143.66
;TYPE:WALL-OUTER
G1 F1260 X166.16 Y143.66 E932.98766
G1 X166.16 Y159.82 E933.65947
G1 X138.66 Y159.82 E934.80275
G1 X138.66 Y143.66 E935.47456
G0 F6000 X139.01 Y143.93
G0 X140.16 Y144.65
G0 X140.16 Y145.00
G1 F1260 X140.16 Y158.49 E936.03578
G1 X164.66 Y158.49 E937.05433
G1 X164.66 Y145.00 E937.61555
G1 X140.16 Y145.00 E938.63410
;LAYER:50
G0 F6000 X139.66 Y144.50 Z10.30
;TYPE:WALL-INNER
G1 F1260 X139.66 Y158.99 E939.23690
G1 X165.16 Y158.99 E940.29703
G1 X165.16 Y144.50 E940.89983
G1 X139.66 Y144.50 E941.95995
G0 F6000 X139.16 Y144.16
G1 F1260 X165.66 Y144.16 E943.06165
G1 X165.66 Y159.32 E943.69189
G1 X139.16 Y159.32 E944.79359
G1 X139.16 Y144.16 E945.42383
G0 F6000 X138.66 Y143.66
;TYPE:WALL-OUTER
G1 F1260 X166.16 Y143.66 E946.56710
G1 X166.16 Y159.82 E947.23892
G1 X138.66 Y159.82 E948.38219
G1 X138.66 Y143.66 E949.05401
G0 F6000 X139.01 Y143.93
G0 X140.16 Y144.65
G0 X140.16 Y145.00
G1 F1260 X140.16 Y158.49 E949.61523
G1 X164.66 Y158.49 E950.63378
G1 X164.66 Y145.00 E951.19500
G1 X140.16 Y145.00 E952.21355
;LAYER:51
G0 F6000 X139.66 Y144.50 Z10.50
;TYPE:WALL-INNER
G1 F1260 X139.66 Y158.99 E952.81635
G1 X165.16 Y158.99 E953.87648
G1 X165.16 Y144.50 E954.47927
G1 X139.66 Y144.50 E955.53940
G0 F6000 X139.16 Y144.16
G1 F1260 X165.66 Y144.16 E956.64110
G1 X165.66 Y159.32 E957.27134
G1 X139.16 Y159.32 E958.37304
G1 X139.16 Y144.16 E959.00328
G0 F6000 X138.66 Y143.66
;TYPE:WALL-OUTER
G1 F1260 X166.16 Y143.66 E960.14655
G1 X166.16 Y159.82 E960.81837
G1 X138.66 Y159.82 E961.96164
G1 X138.66 Y143.66 E962.63345
G0 F6000 X139.01 Y143.93
G0 X140.16 Y144.65
G0 X140.16 Y145.00
G1 F1260 X140.16 Y158.49 E963.19468
G1 X164.66 Y158.49 E964.21323
G1 X164.66 Y145.00 E964.77445
G1 X140.16 Y145.00 E965.79300
;LAYER:52
G0 F6000 X139.66 Y144.50 Z10.70
;TYPE:WALL-INNER
G1 F1260 X139.66 Y158.99 E966.39580
G1 X165.16 Y158.99 E967.45592
G1 X165.16 Y144.50 E968.05872
G1 X139.66 Y144.50 E969.11885
G0 F6000 X139.16 Y144.16
G1 F1260 X165.66 Y144.16 E970.22055
G1 X165.66 Y159.32 E970.85079
G1 X139.16 Y159.32 E971.95249
G1 X139.16 Y144.16 E972.58272
G0 F6000 X138.66 Y143.66
;TYPE:WALL-OUTER
G1 F1260 X166.16 Y143.66 E973.72600
G1 X166.16 Y159.82 E974.39781
G1 X138.66 Y159.82 E975.54109
G1 X138.66 Y143.66 E976.21290
G0 F6000 X139.01 Y143.93
G0 X140.16 Y144.65
G0 X140.16 Y145.00
G1 F1260 X140.16 Y158.49 E976.77413
G1 X164.66 Y158.49 E977.79268
G1 X164.66 Y145.00 E978.35390
G1 X140.16 Y145.00 E979.37245
;LAYER:53
G0 F6000 X139.66 Y144.50 Z10.90
;TYPE:WALL-INNER
G1 F1260 X139.66 Y158.99 E979.97525
G1 X165.16 Y158.99 E981.03537
G1 X165.16 Y144.50 E981.63817
G1 X139.66 Y144.50 E982.69830
G0 F6000 X139.16 Y144.16
G1 F1260 X165.66 Y144.16 E983.80000
G1 X165.66 Y159.32 E984.43023
G1 X139.16 Y159.32 E985.53193
G1 X139.16 Y144.16 E986.16217
G0 F6000 X138.66 Y143.66
;TYPE:WALL-OUTER
G1 F1260 X166.16 Y143.66 E987.30545
G1 X166.16 Y159.82 E987.97726
G1 X138.66 Y159.82 E989.12054
G1 X138.66 Y143.66 E989.79235
G0 F6000 X139.01 Y143.93
G0 X140.16 Y144.65
G0 X140.16 Y145.00
G1 F1260 X140.16 Y158.49 E990.35357
G1 X164.66 Y158.49 E991.37212
G1 X164.66 Y145.00 E991.93335
G1 X140.16 Y145.00 E992.95190
;LAYER:54
G0 F6000 X139.66 Y144.50 Z11.10
;TYPE:WALL-INNER
G1 F1260 X139.66 Y158.99 E993.55469
G1 X165.16 Y158.99 E994.61482
G1 X165.16 Y144.50 E995.21762
G1 X139.66 Y144.50 E996.27774
G0 F6000 X139.16 Y144.16
G1 F1260 X165.66 Y144.16 E997.37944
G1 X165.66 Y159.32 E998.00968
G1 X139.16 Y159.32 E999.11138
G1 X139.16 Y144.16 E999.74162
G0 F6000 X138.66 Y143.66
;TYPE:WALL-OUTER
G1 F1260 X166.16 Y143.66 E1000.88490
G1 X166.16 Y159.82 E1001.55671
G1 X138.66 Y159.82 E1002.69998
G1 X138.66 Y143.66 E1003.37180
G0 F6000 X139.01 Y143.93
G0 X140.16 Y144.65
G0 X140.16 Y145.00
G1 F1260 X140.16 Y158.49 E1003.93302
G1 X164.66 Y158.49 E1004.95157
G1 X164.66 Y145.00 E1005.51279
G1 X140.16 Y145.00 E1006.53134
;LAYER:55
G0 F6000 X139.66 Y144.50 Z11.30
;TYPE:WALL-INNER
G1 F1260 X139.66 Y158.99 E1007.13414
G1 X165.16 Y158.99 E1008.19427
G1 X165.16 Y144.50 E1008.79707
G1 X139.66 Y144.50 E1009.85719
G0 F6000 X139.16 Y144.16
G1 F1260 X165.66 Y144.16 E1010.95889
G1 X165.66 Y159.32 E1011.58913
G1 X139.16 Y159.32 E1012.69083
G1 X139.16 Y144.16 E1013.32107
G0 F6000 X138.66 Y143.66
;TYPE:WALL-OUTER
G1 F1260 X166.16 Y143.66 E1014.46434
G1 X166.16 Y159.82 E1015.13616
G1 X138.66 Y159.82 E1016.27943
G1 X138.66 Y143.66 E1016.95125
G0 F6000 X139.01 Y143.93
G0 X140.16 Y144.65
G0 X140.16 Y145.00
G1 F1260 X140.16 Y158.49 E1017.51247
G1 X164.66 Y158.49 E1018.53102
G1 X164.66 Y145.00 E1019.09224
G1 X140.16 Y145.00 E1020.11079
;LAYER:56
G0 F6000 X139.66 Y144.50 Z11.50
;TYPE:WALL-INNER
G1 F1260 X139.66 Y158.99 E1020.71359
G1 X165.16 Y158.99 E1021.77372
G1 X165.16 Y144.50 E1022.37651
G1 X139.66 Y144.50 E1023.43664
G0 F6000 X139.16 Y144.16
G1 F1260 X165.66 Y144.16 E1024.53834
G1 X165.66 Y159.32 E1025.16858
G1 X139.16 Y159.32 E1026.27028
G1 X139.16 Y144.16 E1026.90052
G0 F6000 X138.66 Y143.66
;TYPE:WALL-OUTER
G1 F1260 X166.16 Y143.66 E1028.04379
G1 X166.16 Y159.82 E1028.71561
G1 X138.66 Y159.82 E1029.85888
G1 X138.66 Y143.66 E1030.53069
G0 F6000 X139.01 Y143.93
G0 X140.16 Y144.65
G0 X140.16 Y145.00
G1 F1260 X140.16 Y158.49 E1031.09192
G1 X164.66 Y158.49 E1032.11047
G1 X164.66 Y145.00 E1032.67169
G1 X140.16 Y145.00 E1033.69024
;LAYER:57
G0 F6000 X139.66 Y144.50 Z11.70
;TYPE:WALL-INNER
G1 F1260 X139.66 Y158.99 E1034.29304
G1 X165.16 Y158.99 E1035.35316
G1 X165.16 Y144.50 E1035.95596
G1 X139.66 Y144.50 E1037.01609
G0 F6000 X139.16 Y144.16
G1 F1260 X165.66 Y144.16 E1038.11779
G1 X165.66 Y159.32 E1038.74803
G1 X139.16 Y159.32 E1039.84973
G1 X139.16 Y144.16 E1040.47996
G0 F6000 X138.66 Y143.66
;TYPE:WALL-OUTER
G1 F1260 X166.16 Y143.66 E1041.62324
G1 X166.16 Y159.82 E1042.29505
G1 X138.66 Y159.82 E1043.43833
G1 X138.66 Y143.66 E1044.11014
G0 F6000 X139.01 Y143.93
G0 X140.16 Y144.65
G0 X140.16 Y145.00
G1 F1260 X140.16 Y158.49 E1044.67137
G1 X164.66 Y158.49 E1045.68992
G1 X164.66 Y145.00 E1046.25114
G1 X140.16 Y145.00 E1047.26969
;LAYER:58
G0 F6000 X139.66 Y144.50 Z11.90
;TYPE:WALL-INNER
G1 F1260 X139.66 Y158.99 E1047.87249
G1 X165.16 Y158.99 E1048.93261
G1 X165.16 Y144.50 E1049.53541
G1 X139.66 Y144.50 E1050.59554
G0 F6000 X139.16 Y144.16
G1 F1260 X165.66 Y144.16 E1051.69724
G1 X165.66 Y159.32 E1052.32747
G1 X139.16 Y159.32 E1053.42917
G1 X139.16 Y144.16 E1054.05941
G0 F6000 X138.66 Y143.66
;TYPE:WALL-OUTER
G1 F1260 X166.16 Y143.66 E1055.20269
G1 X166.16 Y159.82 E1055.87450
G1 X138.66 Y159.82 E1057.01778
G1 X138.66 Y143.66 E1057.68959
G0 F6000 X139.01 Y143.93
G0 X140.16 Y144.65
G0 X140.16 Y145.00
G1 F1260 X140.16 Y158.49 E1058.25081
G1 X164.66 Y158.49 E1059.26936
G1 X164.66 Y145.00 E1059.83059
G1 X140.16 Y145.00 E1060.84914
;LAYER:59
G0 F6000 X139.66 Y144.50 Z12.10
;TYPE:WALL-INNER
G1 F1260 X139.66 Y158.99 E1061.45193
G1 X165.16 Y158.99 E1062.51206
G1 X165.16 Y144.50 E1063.11486
G1 X139.66 Y144.50 E1064.17498
G0 F6000 X139.16 Y144.16
G1 F1260 X165.66 Y144.16 E1065.27668
G1 X165.66 Y159.32 E1065.90692
G1 X139.16 Y159.32 E1067.00862
G1 X139.16 Y144.16 E1067.63886
G0 F6000 X138.66 Y143.66
;TYPE:WALL-OUTER
G1 F1260 X166.16 Y143.66 E1068.78214
G1 X166.16 Y159.82 E1069.45395
G1 X138.66 Y159.82 E1070.59722
G1 X138.66 Y143.66 E1071.26904
G0 F6000 X139.01 Y143.93
G0 X140.16 Y144.65
G0 X140.16 Y145.00
G1 F1260 X140.16 Y158.49 E1071.83026
G1 X164.66 Y158.49 E1072.84881
G1 X164.66 Y145.00 E1073.41003
G1 X140.16 Y145.00 E1074.42858
;LAYER:60
G0 F6000 X139.66 Y144.50 Z12.30
;TYPE:WALL-INNER
G1 F1260 X139.66 Y158.99 E1075.03138
G1 X165.16 Y158.99 E1076.09151
G1 X165.16 Y144.50 E1076.69431
G1 X139.66 Y144.50 E1077.75443
G0 F6000 X139.16 Y144.16
G1 F1260 X165.66 Y144.16 E1078.85613
G1 X165.66 Y159.32 E1079.48637
G1 X139.16 Y159.32 E1080.58807
G1 X139.16 Y144.16 E1081.21831
G0 F6000 X138.66 Y143.66
;TYPE:WALL-OUTER
G1 F1260 X166.16 Y143.66 E1082.36158
G1 X166.16 Y159.82 E1083.03340
G1 X138.66 Y159.82 E1084.17667
G1 X138.66 Y143.66 E1084.84849
G0 F6000 X139.01 Y143.93
G0 X140.16 Y144.65
G0 X140.16 Y145.00
G1 F1260 X140.16 Y158.49 E1085.40971
G1 X164.66 Y158.49 E1086.42826
G1 X164.66 Y145.00 E1086.98948
G1 X140.16 Y145.00 E1088.00803
;LAYER:61
G0 F6000 X139.66 Y144.50 Z12.50
;TYPE:WALL-INNER
G1 F1260 X139.66 Y158.99 E1088.61083
G1 X165.16 Y158.99 E1089.67096
G1 X165.16 Y144.50 E1090.27375
G1 X139.66 Y144.50 E1091.33388
G0 F6000 X139.16 Y144.16
G1 F1260 X165.66 Y144.16 E1092.43558
G1 X165.66 Y159.32 E1093.06582
G1 X139.16 Y159.32 E1094.16752
G1 X139.16 Y144.16 E1094.79776
G0 F6000 X138.66 Y143.66
;TYPE:WALL-OUTER
G1 F1260 X166.16 Y143.66 E1095.94103
G1 X166.16 Y159.82 E1096.61284
G1 X138.66 Y159.82 E1097.75612
G1 X138.66 Y143.66 E1098.42793
G0 F6000 X139.01 Y143.93
G0 X140.16 Y144.65
G0 X140.16 Y145.00
G1 F1260 X140.16 Y158.49 E1098.98916
G1 X164.66 Y158.49 E1100.00771
G1 X164.66 Y145.00 E1100.56893
G1 X140.16 Y145.00 E1101.58748
;LAYER:62
G0 F6000 X139.66 Y144.50 Z12.70
;TYPE:WALL-INNER
G1 F1260 X139.66 Y158.99 E1102.19028
G1 X165.16 Y158.99 E1103.25040
G1 X165.16 Y144.50 E1103.85320
G1 X139.66 Y144.50 E1104.91333
G0 F6000 X139.16 Y144.16
G1 F1260 X165.66 Y144.16 E1106.01503
G1 X165.66 Y159.32 E1106.64527
G1 X139.16 Y159.32 E1107.74697
G1 X139.16 Y144.16 E1108.37720
G0 F6000 X138.66 Y143.66
;TYPE:WALL-OUTER
G1 F1260 X166.16 Y143.66 E1109.52048
G1 X166.16 Y159.82 E1110.19229
G1 X138.66 Y159.82 E1111.33557
G1 X138.66 Y143.66 E1112.00738
G0 F6000 X139.01 Y143.93
G0 X140.16 Y144.65
G0 X140.16 Y145.00
G1 F1260 X140.16 Y158.49 E1112.56860
G1 X164.66 Y158.49 E1113.58715
G1 X164.66 Y145.00 E1114.14838
G1 X140.16 Y145.00 E1115.16693
;LAYER:63
G0 F6000 X139.66 Y144.50 Z12.90
;TYPE:WALL-INNER
G1 F1260 X139.66 Y158.99 E1115.76973
G1 X165.16 Y158.99 E1116.82985
G1 X165.16 Y144.50 E1117.43265
G1 X139.66 Y144.50 E1118.49278
G0 F6000 X139.16 Y144.16
G1 F1260 X165.66 Y144.16 E1119.59448
G1 X165.66 Y159.32 E1120.22471
G1 X139.16 Y159.32 E1121.32641
G1 X139.16 Y144.16 E1121.95665
G0 F6000 X138.66 Y143.66
;TYPE:WALL-OUTER
G1 F1260 X166.16 Y143.66 E1123.09993
G1 X166.16 Y159.82 E1123.77174
G1 X138.66 Y159.82 E1124.91502
G1 X138.66 Y143.66 E1125.58683
G0 F6000 X139.01 Y143.93
G0 X140.16 Y144.65
G0 X140.16 Y145.00
G1 F1260 X140.16 Y158.49 E1126.14805
G1 X164.66 Y158.49 E1127.16660
G1 X164.66 Y145.00 E1127.72783
G1 X140.16 Y145.00 E1128.74638
;LAYER:64
G0 F6000 X139.66 Y144.50 Z13.10
;TYPE:WALL-INNER
G1 F1260 X139.66 Y158.99 E1129.34917
G1 X165.16 Y158.99 E1130.40930
G1 X165.16 Y144.50 E1131.01210
G1 X139.66 Y144.50 E1132.07222
G0 F6000 X139.16 Y144.16
G1 F1260 X165.66 Y144.16 E1133.17392
G1 X165.66 Y159.32 E1133.80416
G1 X139.16 Y159.32 E1134.90586
G1 X139.16 Y144.16 E1135.53610
G0 F6000 X138.66 Y143.66
;TYPE:WALL-OUTER
G1 F1260 X166.16 Y143.66 E1136.67938
G1 X166.16 Y159.82 E1137.35119
G1 X138.66 Y159.82 E1138.49446
G1 X138.66 Y143.66 E1139.16628
G0 F6000 X139.01 Y143.93
G0 X140.16 Y144.65
G0 X140.16 Y145.00
G1 F1260 X140.16 Y158.49 E1139.72750
G1 X164.66 Y158.49 E1140.74605
G1 X164.66 Y145.00 E1141.30727
G1 X140.16 Y145.00 E1142.32582
;LAYER:65
G0 F6000 X139.66 Y144.50 Z13.30
;TYPE:WALL-INNER
G1 F1260 X139.66 Y158.99 E1142.92862
G1 X165.16 Y158.99 E1143.98875
G1 X165.16 Y144.50 E1144.59155
G1 X139.66 Y144.50 E1145.65167
G0 F6000 X139.16 Y144.16
G1 F1260 X165.66 Y144.16 E1146.75337
G1 X165.66 Y159.32 E1147.38361
G1 X139.16 Y159.32 E1148.48531
G1 X139.16 Y144.16 E1149.11555
G0 F6000 X138.66 Y143.66
;TYPE:WALL-OUTER
G1 F1260 X166.16 Y143.66 E1150.25882
G1 X166.16 Y159.82 E1150.93064
G1 X138.66 Y159.82 E1152.07391
G1 X138.66 Y143.66 E1152.74573
G0 F6000 X139.01 Y143.93
G0 X140.16 Y144.65
G0 X140.16 Y145.00
G1 F1260 X140.16 Y158.49 E1153.30695
G1 X164.66 Y158.49 E1154.32550
G1 X164.66 Y145.00 E1154.88672
G1 X140.16 Y145.00 E1155.90527
;LAYER:66
G0 F6000 X139.66 Y144.50 Z13.50
;TYPE:WALL-INNER
G1 F1260 X139.66 Y158.99 E1156.50807
G1 X165.16 Y158.99 E1157.56820
G1 X165.16 Y144.50 E1158.17099
G1 X139.66 Y144.50 E1159.23112
G0 F6000 X139.16 Y144.16
G1 F1260 X165.66 Y144.16 E1160.33282
G1 X165.66 Y159.32 E1160.96306
G1 X139.16 Y159.32 E1162.06476
G1 X139.16 Y144.16 E1162.69500
G0 F6000 X138.66 Y143.66
;TYPE:WALL-OUTER
G1 F1260 X166.16 Y143.66 E1163.83827
G1 X166.16 Y159.82 E1164.51008
G1 X138.66 Y159.82 E1165.65336
G1 X138.66 Y143.66 E1166.32517
G0 F6000 X139.01 Y143.93
G0 X140.16 Y144.65
G0 X140.16 Y145.00
G1 F1260 X140.16 Y158.49 E1166.88640
G1 X164.66 Y158.49 E1167.90495
G1 X164.66 Y145.00 E1168.46617
G1 X140.16 Y145.00 E1169.48472
;LAYER:67
G0 F6000 X139.66 Y144.50 Z13.70
;TYPE:WALL-INNER
G1 F1260 X139.66 Y158.99 E1170.08752
G1 X165.16 Y158.99 E1171.14764
G1 X165.16 Y144.50 E1171.75044
G1 X139.66 Y144.50 E1172.81057
G0 F6000 X139.16 Y144.16
G1 F1260 X165.66 Y144.16 E1173.91227
G1 X165.66 Y159.32 E1174.54251
G1 X139.16 Y159.32 E1175.64421
G1 X139.16 Y144.16 E1176.27444
G0 F6000 X138.66 Y143.66
;TYPE:WALL-OUTER
G1 F1260 X166.16 Y143.66 E1177.41772
G1 X166.16 Y159.82 E1178.08953
G1 X138.66 Y159.82 E1179.23281
G1 X138.66 Y143.66 E1179.90462
G0 F6000 X139.01 Y143.93
G0 X140.16 Y144.65
G0 X140.16 Y145.00
G1 F1260 X140.16 Y158.49 E1180.46584
G1 X164.66 Y158.49 E1181.48439
G1 X164.66 Y145.00 E1182.04562
G1 X140.16 Y145.00 E1183.06417
;LAYER:68
G0 F6000 X139.66 Y144.50 Z13.90
;TYPE:WALL-INNER
G1 F1260 X139.66 Y158.99 E1183.66697
G1 X165.16 Y158.99 E1184.72709
G1 X165.16 Y144.50 E1185.32989
G1 X139.66 Y144.50 E1186.39001
G0 F6000 X139.16 Y144.16
G1 F1260 X165.66 Y144.16 E1187.49172
G1 X165.66 Y159.32 E1188.12195
G1 X139.16 Y159.32 E1189.22365
G1 X139.16 Y144.16 E1189.85389
G0 F6000 X138.66 Y143.66
;TYPE:WALL-OUTER
G1 F1260 X166.16 Y143.66 E1190.99717
G1 X166.16 Y159.82 E1191.66898
G1 X138.66 Y159.82 E1192.81226
G1 X138.66 Y143.66 E1193.48407
G0 F6000 X139.01 Y143.93
G0 X140.16 Y144.65
G0 X140.16 Y145.00
G1 F1260 X140.16 Y158.49 E1194.04529
G1 X164.66 Y158.49 E1195.06384
G1 X164.66 Y145.00 E1195.62507
G1 X140.16 Y145.00 E1196.64362
;LAYER:69
G0 F6000 X139.66 Y144.50 Z14.10
;TYPE:WALL-INNER
G1 F1260 X139.66 Y158.99 E1197.24641
G1 X165.16 Y158.99 E1198.30654
G1 X165.16 Y144.50 E1198.90934
G1 X139.66 Y144.50 E1199.96946
G0 F6000 X139.16 Y144.16
G1 F1260 X165.66 Y144.16 E1201.07116
G1 X165.66 Y159.32 E1201.70140
G1 X139.16 Y159.32 E1202.80310
G1 X139.16 Y144.16 E1203.43334
G0 F6000 X138.66 Y143.66
;TYPE:WALL-OUTER
G1 F1260 X166.16 Y143.66 E1204.57662
G1 X166.16 Y159.82 E1205.24843
G1 X138.66 Y159.82 E1206.39170
G1 X138.66 Y143.66 E1207.06352
G0 F6000 X139.01 Y143.93
G0 X140.16 Y144.65
G0 X140.16 Y145.00
G1 F1260 X140.16 Y158.49 E1207.62474
G1 X164.66 Y158.49 E1208.64329
G1 X164.66 Y145.00 E1209.20451
G1 X140.16 Y145.00 E1210.22306
;LAYER:70
G0 F6000 X139.66 Y144.50 Z14.30
;TYPE:WALL-INNER
G1 F1260 X139.66 Y158.99 E1210.82586
G1 X165.16 Y158.99 E1211.88599
G1 X165.16 Y144.50 E1212.48879
G1 X139.66 Y144.50 E1213.54891
G0 F6000 X139.16 Y144.16
G1 F1260 X165.66 Y144.16 E1214.65061
G1 X165.66 Y159.32 E1215.28085
G1 X139.16 Y159.32 E1216.38255
G1 X139.16 Y144.16 E1217.01279
G0 F6000 X138.66 Y143.66
;TYPE:WALL-OUTER
G1 F1260 X166.16 Y143.66 E1218.15606
G1 X166.16 Y159.82 E1218.82788
G1 X138.66 Y159.82 E1219.97115
G1 X138.66 Y143.66 E1220.64296
G0 F6000 X139.01 Y143.93
G0 X140.16 Y144.65
G0 X140.16 Y145.00
G1 F1260 X140.16 Y158.49 E1221.20419
G1 X164.66 Y158.49 E1222.22274
G1 X164.66 Y145.00 E1222.78396
G1 X140.16 Y145.00 E1223.80251
;LAYER:71
G0 F6000 X139.66 Y144.50 Z14.50
;TYPE:WALL-INNER
G1 F1260 X139.66 Y158.99 E1224.40531
G1 X165.16 Y158.99 E1225.46544
G1 X165.16 Y144.50 E1226.06823
G1 X139.66 Y144.50 E1227.12836
G0 F6000 X139.16 Y144.16
G1 F1260 X165.66 Y144.16 E1228.23006
G1 X165.66 Y159.32 E1228.86030
G1 X139.16 Y159.32 E1229.96200
G1 X139.16 Y144.16 E1230.59224
G0 F6000 X138.66 Y143.66
;TYPE:WALL-OUTER
G1 F1260 X166.16 Y143.66 E1231.73551
G1 X166.16 Y159.82 E1232.40732
G1 X138.66 Y159.82 E1233.55060
G1 X138.66 Y143.66 E1234.22241
G0 F6000 X139.01 Y143.93
G0 X140.16 Y144.65
G0 X140.16 Y145.00
G1 F1260 X140.16 Y158.49 E1234.78364
G1 X164.66 Y158.49 E1235.80219
G1 X164.66 Y145.00 E1236.36341
G1 X140.16 Y145.00 E1237.38196
;LAYER:72
G0 F6000 X139.66 Y144.50 Z14.70
;TYPE:WALL-INNER
G1 F1260 X139.66 Y158.99 E1237.98476
G1 X165.16 Y158.99 E1239.04488
G1 X165.16 Y144.50 E1239.64768
G1 X139.66 Y144.50 E1240.70781
G0 F6000 X139.16 Y144.16
G1 F1260 X165.66 Y144.16 E1241.80951
G1 X165.66 Y159.32 E1242.43975
G1 X139.16 Y159.32 E1243.54145
G1 X139.16 Y144.16 E1244.17168
G0 F6000 X138.66 Y143.66
;TYPE:WALL-OUTER
G1 F1260 X166.16 Y143.66 E1245.31496
G1 X166.16 Y159.82 E1245.98677
G1 X138.66 Y159.82 E1247.13005
G1 X138.66 Y143.66 E1247.80186
G0 F6000 X139.01 Y143.93
G0 X140.16 Y144.65
G0 X140.16 Y145.00
G1 F1260 X140.16 Y158.49 E1248.36308
G1 X164.66 Y158.49 E1249.38163
G1 X164.66 Y145.00 E1249.94286
G1 X140.16 Y145.00 E1250.96141
;LAYER:73
G0 F6000 X139.66 Y144.50 Z14.90
;TYPE:WALL-INNER
G1 F1260 X139.66 Y158.99 E1251.56421
G1 X165.16 Y158.99 E1252.62433
G1 X165.16 Y144.50 E1253.22713
G1 X139.66 Y144.50 E1254.28725
G0 F6000 X139.16 Y144.16
G1 F1260 X165.66 Y144.16 E1255.38895
G1 X165.66 Y159.32 E1256.01919
G1 X139.16 Y159.32 E1257.12089
G1 X139.16 Y144.16 E1257.75113
G0 F6000 X138.66 Y143.66
;TYPE:WALL-OUTER
G1 F1260 X166.16 Y143.66 E1258.89441
G1 X166.16 Y159.82 E1259.56622
G1 X138.66 Y159.82 E1260.70950
G1 X138.66 Y143.66 E1261.38131
G0 F6000 X139.01 Y143.93
G0 X140.16 Y144.65
G0 X140.16 Y145.00
G1 F1260 X140.16 Y158.49 E1261.94253
G1 X164.66 Y158.49 E1262.96108
G1 X164.66 Y145.00 E1263.52231
G1 X140.16 Y145.00 E1264.54086
;LAYER:74
G0 F6000 X139.66 Y144.50 Z15.10
;TYPE:WALL-INNER
G1 F1260 X139.66 Y158.99 E1265.14365
G1 X165.16 Y158.99 E1266.20378
G1 X165.16 Y144.50 E1266.80658
G1 X139.66 Y144.50 E1267.86670
G0 F6000 X139.16 Y144.16
G1 F1260 X165.66 Y144.16 E1268.96840
G1 X165.66 Y159.32 E1269.59864
G1 X139.16 Y159.32 E1270.70034
G1 X139.16 Y144.16 E1271.33058
G0 F6000 X138.66 Y143.66
;TYPE:WALL-OUTER
G1 F1260 X166.16 Y143.66 E1272.47385
G1 X166.16 Y159.82 E1273.14567
G1 X138.66 Y159.82 E1274.28894
G1 X138.66 Y143.66 E1274.96076
G0 F6000 X139.01 Y143.93
G0 X140.16 Y144.65
G0 X140.16 Y145.00
G1 F1260 X140.16 Y158.49 E1275.52198
G1 X164.66 Y158.49 E1276.54053
G1 X164.66 Y145.00 E1277.10175
G1 X140.16 Y145.00 E1278.12030
;LAYER:75
G0 F6000 X139.66 Y144.50 Z15.30
;TYPE:WALL-INNER
G1 F1260 X139.66 Y158.99 E1278.72310
G1 X165.16 Y158.99 E1279.78323
G1 X165.16 Y144.50 E1280.38603
G1 X139.66 Y144.50 E1281.44615
G0 F6000 X139.16 Y144.16
G1 F1260 X165.66 Y144.16 E1282.54785
G1 X165.66 Y159.32 E1283.17809
G1 X139.16 Y159.32 E1284.27979
G1 X139.16 Y144.16 E1284.91003
G0 F6000 X138.66 Y143.66
;TYPE:WALL-OUTER
G1 F1260 X166.16 Y143.66 E1286.05330
G1 X166.16 Y159.82 E1286.72512
G1 X138.66 Y159.82 E1287.86839
G1 X138.66 Y143.66 E1288.54020
G0 F6000 X139.01 Y143.93
G0 X140.16 Y144.65
G0 X140.16 Y145.00
G1 F1260 X140.16 Y158.49 E1289.10143
G1 X164.66 Y158.49 E1290.11998
G1 X164.66 Y145.00 E1290.68120
G1 X140.16 Y145.00 E1291.69975
;LAYER:76
G0 F6000 X139.66 Y144.50 Z15.50
;TYPE:WALL-INNER
G1 F1260 X139.66 Y158.99 E1292.30255
G1 X165.16 Y158.99 E1293.36267
G1 X165.16 Y144.50 E1293.96547
G1 X139.66 Y144.50 E1295.02560
G0 F6000 X139.16 Y144.16
G1 F1260 X165.66 Y144.16 E1296.12730
G1 X165.66 Y159.32 E1296.75754
G1 X139.16 Y159.32 E1297.85924
G1 X139.16 Y144.16 E1298.48948
G0 F6000 X138.66 Y143.66
;TYPE:WALL-OUTER
G1 F1260 X166.16 Y143.66 E1299.63275
G1 X166.16 Y159.82 E1300.30456
G1 X138.66 Y159.82 E1301.44784
G1 X138.66 Y143.66 E1302.11965
G0 F6000 X139.01 Y143.93
G0 X140.16 Y144.65
G0 X140.16 Y145.00
G1 F1260 X140.16 Y158.49 E1302.68088
G1 X164.66 Y158.49 E1303.69943
G1 X164.66 Y145.00 E1304.26065
G1 X140.16 Y145.00 E1305.27920
;LAYER:77
G0 F6000 X139.66 Y144.50 Z15.70
;TYPE:WALL-INNER
G1 F1260 X139.66 Y158.99 E1305.88200
G1 X165.16 Y158.99 E1306.94212
G1 X165.16 Y144.50 E1307.54492
G1 X139.66 Y144.50 E1308.60505
G0 F6000 X139.16 Y144.16
G1 F1260 X165.66 Y144.16 E1309.70675
G1 X165.66 Y159.32 E1310.33698
G1 X139.16 Y159.32 E1311.43869
G1 X139.16 Y144.16 E1312.06892
G0 F6000 X138.66 Y143.66
;TYPE:WALL-OUTER
G1 F1260 X166.16 Y143.66 E1313.21220
G1 X166.16 Y159.82 E1313.88401
G1 X138.66 Y159.82 E1315.02729
G1 X138.66 Y143.66 E1315.69910
G0 F6000 X139.01 Y143.93
G0 X140.16 Y144.65
G0 X140.16 Y145.00
G1 F1260 X140.16 Y158.49 E1316.26032
G1 X164.66 Y158.49 E1317.27887
G1 X164.66 Y145.00 E1317.84010
G1 X140.16 Y145.00 E1318.85865
;LAYER:78
G0 F6000 X139.66 Y144.50 Z15.90
;TYPE:WALL-INNER
G1 F1260 X139.66 Y158.99 E1319.46145
G1 X165.16 Y158.99 E1320.52157
G1 X165.16 Y144.50 E1321.12437
G1 X139.66 Y144.50 E1322.18449
G0 F6000 X139.16 Y144.16
G1 F1260 X165.66 Y144.16 E1323.28619
G1 X165.66 Y159.32 E1323.91643
G1 X139.16 Y159.32 E1325.01813
G1 X139.16 Y144.16 E1325.64837
G0 F6000 X138.66 Y143.66
;TYPE:WALL-OUTER
G1 F1260 X166.16 Y143.66 E1326.79165
G1 X166.16 Y159.82 E1327.46346
G1 X138.66 Y159.82 E1328.60674
G1 X138.66 Y143.66 E1329.27855
G0 F6000 X139.01 Y143.93
G0 X140.16 Y144.65
G0 X140.16 Y145.00
G1 F1260 X140.16 Y158.49 E1329.83977
G1 X164.66 Y158.49 E1330.85832
G1 X164.66 Y145.00 E1331.41954
G1 X140.16 Y145.00 E1332.43809
;LAYER:79
G0 F6000 X139.66 Y144.50 Z16.10
;TYPE:WALL-INNER
G1 F1260 X139.66 Y158.99 E1333.04089
G1 X165.16 Y158.99 E1334.10102
G1 X165.16 Y144.50 E1334.70382
G1 X139.66 Y144.50 E1335.76394
G0 F6000 X139.16 Y144.16
G1 F1260 X165.66 Y144.16 E1336.86564
G1 X165.66 Y159.32 E1337.49588
G1 X139.16 Y159.32 E1338.59758
G1 X139.16 Y144.16 E1339.22782
G0 F6000 X138.66 Y143.66
;TYPE:WALL-OUTER
G1 F1260 X166.16 Y143.66 E1340.37109
G1 X166.16 Y159.82 E1341.04291
G1 X138.66 Y159.82 E1342.18618
G1 X138.66 Y143.66 E1342.85800
G0 F6000 X139.01 Y143.93
G0 X140.16 Y144.65
G0 X140.16 Y145.00
G1 F1260 X140.16 Y158.49 E1343.41922
G1 X164.66 Y158.49 E1344.43777
G1 X164.66 Y145.00 E1344.99899
G1 X140.16 Y145.00 E1346.01754
M107
G0 F6000 X140.16 Y145.00 Z21.00
;-- END GCODE --
M104 S0     ;extruder heater off
M140 S0     ;heated bed heater off (if you have it)
G91         ;relative positioning
G1 E-1 F300   ;retract the filament a bit before lifting the nozzle, to release some of the pressure
G1 Z+0.5 E-5 X-20 Y-20 F6000 ;move Z up a bit and retract filament even more
G28 X0 Y0     ;move X/Y to min endstops, so the head is out of the way
M84           ;steppers off
G90           ;absolute positioning
;CURA_PROFILE_STRING:eNrtWlFz2kgSfiWu+xHzmNQFVhIQb5bSwyaxvXWV3F0tXF3iF9WABpiNpFGNRsbYxX+/r2ckITDOORtXdpOFBztqdfd0f9P9dbtCwtdCR0shF0sTer3A66x4kkRmKWcfM1EUod/Rwmg+M1Jlkcj4NBHhOU8K0SlUIuMosQ7a+nMJB7HICmnWoe95nUzd3CQiKuSNwBGDTq5lZqIiFyIOfZzono1Ic6G5KbUIg0PSIDwg7B8SDhrhVMQ7jk+9TlHmudImPLsSer1aCi06ecLNXOk04vFSFEg0fKVlWmtGccmTSFwbXbp3yiw7K5mLyKiV0BUaW0F0pZIyFaE/7Ch1g7yXUiRxpQZweCoQWSzx28Dc750O74op2TvC/iHhoC2cJ2pFmPe89rU5qAd7Up6qMjM4P2hLbbL1qxe9YftdKrMID1cigdXOm5lKpzJbhBNdij0Lme6ghyB2zluqnGSdqTJGpa1C8nr9ji0uL1rJ2CyjOSyUthWlpr+JGUpIZh+tscJdJjy3wUMA5F2YdZF5jX9XrhUgw47MbLW6Z/Iks0IYb19w3RLMlEosElXlS3fVc163R+xQKD5K1E4iMwF0LJqVaMHzsA9H7qlGKBHZwizhic4gZ/MSgTWN6WTbdJqnKOXXVtLENYcU5Y6oKuFScPSpnJudxjUA3gVqHx0+TmIxqTCl3OpGMOtchG+RUdGIeLYAIbxo2iqytu74reH1GuVaGJ7NiAFOG/lNW0z6udQ8IZ6oIpVpDuZIVVxLpmjMNqgBypDPASPXC5mFQypxerYqRc5nVJV+LZ3yQuyV2FZOJrbSbIhWDgoRGnW3axTsv2xbVi+51HTPeK4ERVnpUtUUYQCQr1H8WkuUTFRmtiOJeYFxxOt7uF9l2hBKWwdpqFxk0VSa4pAC+pCI+QrYGGlmS0LHqeVJCQCBKjpiET5Ncv+kV/fZTFCq0XXY9fdEaxLNSq2JfFAwtsX/hivVpreY0bWNul02nvz864RdvP7XmzPW7Z6MxomciZiBctkEubCf2TtOsYiCjYWW+OU3Stz8xG5jvt7QTyPwizpuczJ6xQs5Y2hOgySKn9hbApa5hoFJ0hpsG/Zf4Aad293htmHnqFaI2yMLrv9Ns4ONqb3wsjWuNmzsKhfiqoah/mvDZo3NPvluWEvpTVXzu3qOc5vTKcvm8Crl84rmGe45dmE72q9s05Zo5TJftKxmqjBtK3renLzzvRdsHAyHT9jIXhxbSbNkZikYSIap7OQi8Fn1GWHkaMB+xZNSFCcXL73mDZ+CSEojWK4AIzLCtWydW5X73P9Y+QblMKOYyOIC7AT3wcsnT0a4MrUqbLXw0qhuIsDsCXm/8Nl7ECb7APeXPnqfnd+2iX/DRq5OGc9i5tzj3Hrcs1itMuYP05TifMnGt3c2CXj4RXDDJoqRFAkH7KzJefsZ3QitrHM76WIUriN0ivE88Dx21t8zG1WarO+lKVNzRrzNkPjs4+cfw/iCy8wBcjpkHwJC5AAcWlgUpuViIbRVx6r1EDULM/0goA8ZtICeioWLZU+tg4ttscLZP99sOQEXMGBjbwcZ6mZOTtV8DoWB1yhYOR0Ut1TYUzlna1WyJc5k0jwDjP4WOi1w7WC+nfpEkGddBNr3PKdj29FVZ902nIFNcRZKRjAaozC0Gm6vfU4lC+cCM4QVKhV0l7bMNCgGNUSHXP7d6w1x1JC97wLwD91DqFvML1mZV0cSlnVETTQo/gylTG7RN+/hy2t1z/sfPlA4WAOaLnqOoGw8tAYwWTBVmjrEFV+fvPtx0K6wwogc1V9Y0Fv9fW+Lj9A1CuHRSEH7LDYd2+ZBfdP/j8er96/W7HWp+cGhgPnd8x40Nljg+QN2ETBHor9Qyk//USZr++LZV5gaX423R+983E7NWXt/6KCa/pNhKbf2KAgex9Qa6BMwHrVNS5fR+kLuqAMPUuD9rg66eckm/iFPwe9y5X15UF82wE63rXF3fFGTbPvw3ia0SpftTr28q+LfN8Q+NbkmPjv4GY1XtODRKWQZgEtqWv2SKeZ7h4eY/6hDzJ3VvT38d+nmZOI9KOm51IX5ltLevXhQCqja1j6NnBTcwxcYLxl7+/oNK2ZaiAwF6p86toNOr9ejIdtw7xlu/eI1/unm66SZoHeCOzxyycb/TJvB/Yf8jrH9ic9DJvqnjL/ZUX9/Uo+zA+w5/cRGsKf5OftB/6H7wXFiHyf29zWxg7/ixD6uKcc1ZW9N6f+RawrZBMfV5rjaPP5qMziuNn+q1SZ4vNXmuCV9tS2p/6DZOUDQ39HC8LDVsP99JX1cDY+r4d5qOPjWVkOy6R/XyeM6+bjrZPU9mfYXKhrh9n9T3dd8dpSspKWhBWbsTPRmxVXYwSU4mjmr6rJZWB35TIVZoTNt0tWXOxoOshdgLxqSRvqcrZYwaDrdLhNpmRiZJw1d6KJ3MposASqdRuBivbFVbquInE6eZs86wMT8meLjc2rAOrz/AfoECpw=
;CURA_PROFILE_STRING:eNrtWlFz2kgSfiWu+xHzmNQFVhIQb5bSwyaxvXWV3F0tXF3iF9WABpiNpFGNRsbYxX+/r2ckITDOORtXdpOFBztqdfd0f9P9dbtCwtdCR0shF0sTer3A66x4kkRmKWcfM1EUod/Rwmg+M1Jlkcj4NBHhOU8K0SlUIuMosQ7a+nMJB7HICmnWoe95nUzd3CQiKuSNwBGDTq5lZqIiFyIOfZzono1Ic6G5KbUIg0PSIDwg7B8SDhrhVMQ7jk+9TlHmudImPLsSer1aCi06ecLNXOk04vFSFEg0fKVlWmtGccmTSFwbXbp3yiw7K5mLyKiV0BUaW0F0pZIyFaE/7Ch1g7yXUiRxpQZweCoQWSzx28Dc750O74op2TvC/iHhoC2cJ2pFmPe89rU5qAd7Up6qMjM4P2hLbbL1qxe9YftdKrMID1cigdXOm5lKpzJbhBNdij0Lme6ghyB2zluqnGSdqTJGpa1C8nr9ji0uL1rJ2CyjOSyUthWlpr+JGUpIZh+tscJdJjy3wUMA5F2YdZF5jX9XrhUgw47MbLW6Z/Iks0IYb19w3RLMlEosElXlS3fVc163R+xQKD5K1E4iMwF0LJqVaMHzsA9H7qlGKBHZwizhic4gZ/MSgTWN6WTbdJqnKOXXVtLENYcU5Y6oKuFScPSpnJudxjUA3gVqHx0+TmIxqTCl3OpGMOtchG+RUdGIeLYAIbxo2iqytu74reH1GuVaGJ7NiAFOG/lNW0z6udQ8IZ6oIpVpDuZIVVxLpmjMNqgBypDPASPXC5mFQypxerYqRc5nVJV+LZ3yQuyV2FZOJrbSbIhWDgoRGnW3axTsv2xbVi+51HTPeK4ERVnpUtUUYQCQr1H8WkuUTFRmtiOJeYFxxOt7uF9l2hBKWwdpqFxk0VSa4pAC+pCI+QrYGGlmS0LHqeVJCQCBKjpiET5Ncv+kV/fZTFCq0XXY9fdEaxLNSq2JfFAwtsX/hivVpreY0bWNul02nvz864RdvP7XmzPW7Z6MxomciZiBctkEubCf2TtOsYiCjYWW+OU3Stz8xG5jvt7QTyPwizpuczJ6xQs5Y2hOgySKn9hbApa5hoFJ0hpsG/Zf4Aad293htmHnqFaI2yMLrv9Ns4ONqb3wsjWuNmzsKhfiqoah/mvDZo3NPvluWEvpTVXzu3qOc5vTKcvm8Crl84rmGe45dmE72q9s05Zo5TJftKxmqjBtK3renLzzvRdsHAyHT9jIXhxbSbNkZikYSIap7OQi8Fn1GWHkaMB+xZNSFCcXL73mDZ+CSEojWK4AIzLCtWydW5X73P9Y+QblMKOYyOIC7AT3wcsnT0a4MrUqbLXw0qhuIsDsCXm/8Nl7ECb7APeXPnqfnd+2iX/DRq5OGc9i5tzj3Hrcs1itMuYP05TifMnGt3c2CXj4RXDDJoqRFAkH7KzJefsZ3QitrHM76WIUriN0ivE88Dx21t8zG1WarO+lKVNzRrzNkPjs4+cfw/iCy8wBcjpkHwJC5AAcWlgUpuViIbRVx6r1EDULM/0goA8ZtICeioWLZU+tg4ttscLZP99sOQEXMGBjbwcZ6mZOTtV8DoWB1yhYOR0Ut1TYUzlna1WyJc5k0jwDjP4WOi1w7WC+nfpEkGddBNr3PKdj29FVZ902nIFNcRZKRjAaozC0Gm6vfU4lC+cCM4QVKhV0l7bMNCgGNUSHXP7d6w1x1JC97wLwD91DqFvML1mZV0cSlnVETTQo/gylTG7RN+/hy2t1z/sfPlA4WAOaLnqOoGw8tAYwWTBVmjrEFV+fvPtx0K6wwogc1V9Y0Fv9fW+Lj9A1CuHRSEH7LDYd2+ZBfdP/j8er96/W7HWp+cGhgPnd8x40Nljg+QN2ETBHor9Qyk//USZr++LZV5gaX423R+983E7NWXt/6KCa/pNhKbf2KAgex9Qa6BMwHrVNS5fR+kLuqAMPUuD9rg66eckm/iFPwe9y5X15UF82wE63rXF3fFGTbPvw3ia0SpftTr28q+LfN8Q+NbkmPjv4GY1XtODRKWQZgEtqWv2SKeZ7h4eY/6hDzJ3VvT38d+nmZOI9KOm51IX5ltLevXhQCqja1j6NnBTcwxcYLxl7+/oNK2ZaiAwF6p86toNOr9ejIdtw7xlu/eI1/unm66SZoHeCOzxyycb/TJvB/Yf8jrH9ic9DJvqnjL/ZUX9/Uo+zA+w5/cRGsKf5OftB/6H7wXFiHyf29zWxg7/ixD6uKcc1ZW9N6f+RawrZBMfV5rjaPP5qMziuNn+q1SZ4vNXmuCV9tS2p/6DZOUDQ39HC8LDVsP99JX1cDY+r4d5qOPjWVkOy6R/XyeM6+bjrZPU9mfYXKhrh9n9T3dd8dpSspKWhBWbsTPRmxVXYwSU4mjmr6rJZWB35TIVZoTNt0tWXOxoOshdgLxqSRvqcrZYwaDrdLhNpmRiZJw1d6KJ3MposASqdRuBivbFVbquInE6eZs86wMT8meLjc2rAOrz/AfoECpw=

