;-- START GCODE --
;Sliced for Type A Machines Series 1
;Sliced at: Tue 24-05-2016 20:54:10
;Basic settings: Layer height: 0.2 Walls: 1 Fill: 50
;Print Speed: 100 Support: 0
;Retraction Speed: 40 Retraction Distance: 1.2
;Print time: #P_TIME#
;Filament used: #F_AMNT#m #F_WGHT#g
;Filament cost: #F_COST#
M106 S255	 ;start with the fan on
G21        ;metric values
G90        ;absolute positioning
M106 S255    ;start with the fan on
G28     ;move to endstops
G29		;allows for auto-levelling
G1 X150 Y5  Z15.0 F6000 ;center and move the platform down 15mm
M109 S220 ;Heat To temp
G92 E0                  ;zero the extruded length
G1 F200 E30              ;extrude 30mm of feed stock
G92 E0                  ;zero the extruded length again
G1 X175 Y25  Z0 F6000 ;remove bugger
G1 X220 F6000 ;remove bugger
G1 X150 Y150  Z15 F6000 ;recenter and begin
G1 F6000

;Layer count: 8
;LAYER:0
M106 S255
G0 F6000 X118.77 Y119.68 Z0.30
;TYPE:SKIRT
G1 F2700 X157.75 Y119.68 E2.43084
G1 X157.75 Y138.06 E3.57707
G1 X186.23 Y138.06 E5.35309
G1 X186.23 Y166.94 E7.15401
G1 X157.75 Y166.94 E8.93003
G1 X157.75 Y185.32 E10.07626
G1 X118.77 Y185.32 E12.50710
G1 X118.77 Y119.68 E16.60047
G0 F6000 X119.27 Y120.18
G1 F2700 X157.25 Y120.18 E18.96894
G1 X157.25 Y138.56 E20.11517
G1 X185.73 Y138.56 E21.89120
G1 X185.73 Y166.44 E23.62975
G1 X157.25 Y166.44 E25.40577
G1 X157.25 Y184.82 E26.55200
G1 X119.27 Y184.82 E28.92048
G1 X119.27 Y120.18 E32.95148
G0 F6000 X119.77 Y120.68
G1 F2700 X156.75 Y120.68 E35.25759
G1 X156.75 Y139.06 E36.40382
G1 X185.23 Y139.06 E38.17985
G1 X185.23 Y165.94 E39.85604
G1 X156.75 Y165.94 E41.63206
G1 X156.75 Y184.32 E42.77829
G1 X119.77 Y184.32 E45.08440
G1 X119.77 Y120.68 E49.05304
G0 F6000 X120.27 Y121.18
G1 F2700 X156.25 Y121.18 E51.29679
G1 X156.25 Y139.56 E52.44302
G1 X184.73 Y139.56 E54.21905
G1 X184.73 Y165.44 E55.83287
G1 X156.25 Y165.44 E57.60890
G1 X156.25 Y183.82 E58.75513
G1 X120.27 Y183.82 E60.99888
G1 X120.27 Y121.18 E64.90516
G0 F6000 X120.77 Y121.68
G1 F2700 X155.75 Y121.68 E67.08654
G1 X155.75 Y140.06 E68.23277
G1 X184.23 Y140.06 E70.00880
G1 X184.23 Y164.94 E71.56026
G1 X155.75 Y164.94 E73.33629
G1 X155.75 Y183.32 E74.48252
G1 X120.77 Y183.32 E76.66390
G1 X120.77 Y121.68 E80.50782
G0 F6000 X121.27 Y122.18
G1 F2700 X155.25 Y122.18 E82.62684
G1 X155.25 Y140.56 E83.77307
G1 X183.73 Y140.56 E85.54910
G1 X183.73 Y164.44 E87.03820
G1 X155.25 Y164.44 E88.81423
G1 X155.25 Y182.82 E89.96045
G1 X121.27 Y182.82 E92.07948
G1 X121.27 Y122.18 E95.86103
G0 F6000 X121.77 Y122.68
G1 F2700 X154.75 Y122.68 E97.91769
G1 X154.75 Y141.06 E99.06392
G1 X183.23 Y141.06 E100.83995
G1 X183.23 Y163.94 E102.26668
G1 X154.75 Y163.94 E104.04271
G1 X154.75 Y182.32 E105.18894
G1 X121.77 Y182.32 E107.24560
G1 X121.77 Y122.68 E110.96479
G0 F6000 X122.27 Y123.18
G1 F2700 X154.25 Y123.18 E112.95909
G1 X154.25 Y141.56 E114.10532
G1 X182.73 Y141.56 E115.88135
G1 X182.73 Y163.44 E117.24572
G1 X154.25 Y163.44 E119.02175
G1 X154.25 Y181.82 E120.16797
G1 X122.27 Y181.82 E122.16227
G1 X122.27 Y123.18 E125.81910
G0 F6000 X122.77 Y123.68
G1 F2700 X153.75 Y123.68 E127.75104
G1 X153.75 Y142.06 E128.89726
G1 X182.23 Y142.06 E130.67329
G1 X182.23 Y162.94 E131.97530
G1 X153.75 Y162.94 E133.75133
G1 X153.75 Y181.32 E134.89756
G1 X122.77 Y181.32 E136.82949
G1 X122.77 Y123.68 E140.42396
G0 F6000 X123.27 Y124.18
G1 F2700 X153.25 Y124.18 E142.29353
G1 X153.25 Y142.56 E143.43976
G1 X181.73 Y142.56 E145.21579
G1 X181.73 Y162.44 E146.45543
G1 X153.25 Y162.44 E148.23146
G1 X153.25 Y180.82 E149.37769
G1 X123.27 Y180.82 E151.24726
G1 X123.27 Y124.18 E154.77936
G0 F6000 X123.77 Y124.68
G1 F2700 X152.75 Y124.68 E156.58657
G1 X152.75 Y143.06 E157.73280
G1 X181.23 Y143.06 E159.50883
G1 X181.23 Y161.94 E160.68611
G1 X152.75 Y161.94 E162.46214
G1 X152.75 Y180.32 E163.60837
G1 X123.77 Y180.32 E165.41558
G1 X123.77 Y124.68 E168.88532
G0 F6000 X124.27 Y125.18
G1 F2700 X152.25 Y125.18 E170.63017
G1 X152.25 Y143.06 E171.74521
G1 X124.27 Y143.06 E173.49006
G1 X124.27 Y125.18 E174.60511
G0 F6000 X124.77 Y125.68
G1 F2700 X151.75 Y125.68 E176.28759
G1 X151.75 Y142.56 E177.34028
G1 X124.77 Y142.56 E179.02276
G1 X124.77 Y125.68 E180.07544
G0 F6000 X125.27 Y126.18
G1 F2700 X151.25 Y126.18 E181.69557
G1 X151.25 Y142.06 E182.68589
G1 X125.27 Y142.06 E184.30601
G1 X125.27 Y126.18 E185.29633
G0 F6000 X125.77 Y126.68
G1 F2700 X150.75 Y126.68 E186.85409
G1 X150.75 Y141.56 E187.78205
G1 X125.77 Y141.56 E189.33980
G1 X125.77 Y126.68 E190.26776
G0 F6000 X124.27 Y143.56
G1 F2700 X152.25 Y143.56 E192.01261
G1 X152.25 Y161.44 E193.12753
G1 X124.27 Y161.44 E194.87238
G1 X124.27 Y143.56 E195.98730
G0 F6000 X124.77 Y144.06
G1 F2700 X151.75 Y144.06 E197.66978
G1 X151.75 Y160.94 E198.72234
G1 X124.77 Y160.94 E200.40483
G1 X124.77 Y144.06 E201.45739
G0 F6000 X125.27 Y144.56
G1 F2700 X151.25 Y144.56 E203.07751
G1 X151.25 Y160.44 E204.06770
G1 X125.27 Y160.44 E205.68783
G1 X125.27 Y144.56 E206.67802
G0 F6000 X125.77 Y145.06
G1 F2700 X150.75 Y145.06 E208.23578
G1 X150.75 Y159.94 E209.16361
G1 X125.77 Y159.94 E210.72137
G1 X125.77 Y145.06 E211.64921
G0 F6000 X124.27 Y161.94
G1 F2700 X152.25 Y161.94 E213.39405
G1 X152.25 Y179.82 E214.50910
G1 X124.27 Y179.82 E216.25395
G1 X124.27 Y161.94 E217.36899
G0 F6000 X124.77 Y162.44
G1 F2700 X151.75 Y162.44 E219.05148
G1 X151.75 Y179.32 E220.10416
G1 X124.77 Y179.32 E221.78665
G1 X124.77 Y162.44 E222.83933
G0 F6000 X125.27 Y162.94
G1 F2700 X151.25 Y162.94 E224.45945
G1 X151.25 Y178.82 E225.44977
G1 X125.27 Y178.82 E227.06989
G1 X125.27 Y162.94 E228.06021
G0 F6000 X125.77 Y163.44
G1 F2700 X150.75 Y163.44 E229.61797
G1 X150.75 Y178.32 E230.54593
G1 X125.77 Y178.32 E232.10369
G1 X125.77 Y163.44 E233.03165
G0 F6000 X152.75 Y161.44
G1 F2700 X152.75 Y143.56 E234.14657
G1 X180.73 Y143.56 E235.89148
G1 X180.73 Y161.44 E237.00640
G1 X152.75 Y161.44 E238.75131
G0 F6000 X153.25 Y160.94
G1 F2700 X153.25 Y144.06 E239.80387
G1 X180.23 Y144.06 E241.48642
G1 X180.23 Y160.94 E242.53897
G1 X153.25 Y160.94 E244.22152
G0 F6000 X153.75 Y160.44
G1 F2700 X153.75 Y144.56 E245.21172
G1 X179.73 Y144.56 E246.83190
G1 X179.73 Y160.44 E247.82210
G1 X153.75 Y160.44 E249.44228
G0 F6000 X154.25 Y159.94
G1 F2700 X154.25 Y145.06 E250.37012
G1 X179.23 Y145.06 E251.92794
G1 X179.23 Y159.94 E252.85577
G1 X154.25 Y159.94 E254.41359
G0 F6000 X149.75 Y140.56
;TYPE:WALL-INNER
G1 F2700 X126.77 Y140.56 E255.84663
G1 X126.77 Y127.68 E256.64986
G1 X149.75 Y127.68 E258.08289
G1 X149.75 Y140.56 E258.88612
G0 F6000 X150.25 Y141.06
;TYPE:WALL-OUTER
G1 F2700 X126.27 Y141.06 E260.38152
G1 X126.27 Y127.18 E261.24711
G1 X150.25 Y127.18 E262.74251
G1 X150.25 Y141.06 E263.60811
G0 F6000 X149.22 Y140.38
;TYPE:FILL
G1 F2700 X136.69 Y127.86 E264.71309
G0 F6000 X137.40 Y127.86
G1 F2700 X149.57 Y140.03 E265.78642
G0 F6000 X149.57 Y139.32
G1 F2700 X138.11 Y127.86 E266.79739
G0 F6000 X138.82 Y127.86
G1 F2700 X149.57 Y138.61 E267.74600
G0 F6000 X149.57 Y137.91
G1 F2700 X139.52 Y127.86 E268.63227
G0 F6000 X140.23 Y127.86
G1 F2700 X149.57 Y137.20 E269.45618
G0 F6000 X149.57 Y136.49
G1 F2700 X140.94 Y127.86 E270.21774
G0 F6000 X141.64 Y127.86
G1 F2700 X149.57 Y135.78 E270.91694
G0 F6000 X149.57 Y135.08
G1 F2700 X142.35 Y127.86 E271.55379
G0 F6000 X143.06 Y127.86
G1 F2700 X149.57 Y134.37 E272.12824
G0 F6000 X149.57 Y133.66
G1 F2700 X143.77 Y127.86 E272.64030
G0 F6000 X144.47 Y127.86
G1 F2700 X149.57 Y132.96 E273.09000
G0 F6000 X149.57 Y132.25
G1 F2700 X145.18 Y127.86 E273.47735
G0 F6000 X145.89 Y127.86
G1 F2700 X149.57 Y131.54 E273.80235
G0 F6000 X149.57 Y130.83
G1 F2700 X146.59 Y127.86 E274.06499
G0 F6000 X147.30 Y127.86
G1 F2700 X149.57 Y130.13 E274.26528
G0 F6000 X149.57 Y129.42
G1 F2700 X148.01 Y127.86 E274.40321
G0 F6000 X148.72 Y127.86
G1 F2700 X149.57 Y128.71 E274.47880
G0 F6000 X149.57 Y128.01
G1 F2700 X149.42 Y127.86 E274.49203
G0 F6000 X148.52 Y140.38
G1 F2700 X135.99 Y127.86 E275.59706
G0 F6000 X135.28 Y127.86
G1 F2700 X147.81 Y140.38 E276.70209
G0 F6000 X147.10 Y140.38
G1 F2700 X134.57 Y127.86 E277.80707
G0 F6000 X133.87 Y127.86
G1 F2700 X146.40 Y140.38 E278.91206
G0 F6000 X145.69 Y140.38
G1 F2700 X133.16 Y127.86 E280.01704
G0 F6000 X132.45 Y127.86
G1 F2700 X144.98 Y140.38 E281.12203
G0 F6000 X144.27 Y140.38
G1 F2700 X131.75 Y127.86 E282.22702
G0 F6000 X131.04 Y127.86
G1 F2700 X143.57 Y140.38 E283.33200
G0 F6000 X142.86 Y140.38
G1 F2700 X130.33 Y127.86 E284.43699
G0 F6000 X129.62 Y127.86
G1 F2700 X142.15 Y140.38 E285.54202
G0 F6000 X141.45 Y140.38
G1 F2700 X128.92 Y127.86 E286.64705
G0 F6000 X128.21 Y127.86
G1 F2700 X140.74 Y140.38 E287.75203
G0 F6000 X140.03 Y140.38
G1 F2700 X127.50 Y127.86 E288.85702
G0 F6000 X126.94 Y128.00
G1 F2700 X139.32 Y140.38 E289.94886
G0 F6000 X138.62 Y140.38
G1 F2700 X126.94 Y128.71 E290.97835
G0 F6000 X126.94 Y129.42
G1 F2700 X137.91 Y140.38 E291.94549
G0 F6000 X137.20 Y140.38
G1 F2700 X126.94 Y130.13 E292.85028
G0 F6000 X126.94 Y130.83
G1 F2700 X136.50 Y140.38 E293.69271
G0 F6000 X135.79 Y140.38
G1 F2700 X126.94 Y131.54 E294.47279
G0 F6000 X126.94 Y132.25
G1 F2700 X135.08 Y140.38 E295.19047
G0 F6000 X134.38 Y140.38
G1 F2700 X126.94 Y132.96 E295.84579
G0 F6000 X126.94 Y133.66
G1 F2700 X133.67 Y140.38 E296.43872
G0 F6000 X132.96 Y140.38
G1 F2700 X126.94 Y134.37 E296.96930
G0 F6000 X126.94 Y135.08
G1 F2700 X132.25 Y140.38 E297.43752
G0 F6000 X131.55 Y140.38
G1 F2700 X126.94 Y135.78 E297.84339
G0 F6000 X126.94 Y136.49
G1 F2700 X130.84 Y140.38 E298.18691
G0 F6000 X130.13 Y140.38
G1 F2700 X126.94 Y137.20 E298.46807
G0 F6000 X126.94 Y137.90
G1 F2700 X129.43 Y140.38 E298.68688
G0 F6000 X128.72 Y140.38
G1 F2700 X126.94 Y138.61 E298.84330
G0 F6000 X126.94 Y139.32
G1 F2700 X128.01 Y140.38 E298.93736
G0 F6000 X127.30 Y140.38
G1 F2700 X126.94 Y140.03 E298.96902
G0 F6000 X126.77 Y146.06
;TYPE:WALL-INNER
G1 F2700 X149.75 Y146.06 E300.40205
G1 X149.75 Y158.94 E301.20516
G1 X126.77 Y158.94 E302.63819
G1 X126.77 Y146.06 E303.44130
G0 F6000 X126.27 Y145.56
;TYPE:WALL-OUTER
G1 F2700 X150.25 Y145.56 E304.93670
G1 X150.25 Y159.44 E305.80217
G1 X126.27 Y159.44 E307.29756
G1 X126.27 Y145.56 E308.16303
G0 F6000 X126.94 Y146.39
;TYPE:FILL
G1 F2700 X139.32 Y158.76 E309.25426
G0 F6000 X138.61 Y158.76
G1 F2700 X126.94 Y147.10 E310.28314
G0 F6000 X126.94 Y147.80
G1 F2700 X137.90 Y158.76 E311.24966
G0 F6000 X137.20 Y158.76
G1 F2700 X126.94 Y148.51 E312.15382
G0 F6000 X126.94 Y149.22
G1 F2700 X136.49 Y158.76 E312.99564
G0 F6000 X135.78 Y158.76
G1 F2700 X126.94 Y149.93 E313.77510
G0 F6000 X126.94 Y150.63
G1 F2700 X135.07 Y158.76 E314.49221
G0 F6000 X134.37 Y158.76
G1 F2700 X126.94 Y151.34 E315.14692
G0 F6000 X126.94 Y152.05
G1 F2700 X133.66 Y158.76 E315.73923
G0 F6000 X132.95 Y158.76
G1 F2700 X126.94 Y152.75 E316.26919
G0 F6000 X126.94 Y153.46
G1 F2700 X132.25 Y158.76 E316.73679
G0 F6000 X131.54 Y158.76
G1 F2700 X126.94 Y154.17 E317.14205
G0 F6000 X126.94 Y154.88
G1 F2700 X130.83 Y158.76 E317.48495
G0 F6000 X130.12 Y158.76
G1 F2700 X126.94 Y155.58 E317.76549
G0 F6000 X126.94 Y156.29
G1 F2700 X129.42 Y158.76 E317.98368
G0 F6000 X128.71 Y158.76
G1 F2700 X126.94 Y157.00 E318.13952
G0 F6000 X126.94 Y157.70
G1 F2700 X128.00 Y158.76 E318.23301
G0 F6000 X127.30 Y158.76
G1 F2700 X126.94 Y158.41 E318.26405
G0 F6000 X127.50 Y146.24
G1 F2700 X140.02 Y158.76 E319.36886
G0 F6000 X140.73 Y158.76
G1 F2700 X128.20 Y146.24 E320.47367
G0 F6000 X128.91 Y146.24
G1 F2700 X141.44 Y158.76 E321.57853
G0 F6000 X142.15 Y158.76
G1 F2700 X129.62 Y146.24 E322.68334
G0 F6000 X130.33 Y146.24
G1 F2700 X142.85 Y158.76 E323.78814
G0 F6000 X143.56 Y158.76
G1 F2700 X131.03 Y146.24 E324.89295
G0 F6000 X131.74 Y146.24
G1 F2700 X144.27 Y158.76 E325.99776
G0 F6000 X144.97 Y158.76
G1 F2700 X132.45 Y146.24 E327.10257
G0 F6000 X133.15 Y146.24
G1 F2700 X145.68 Y158.76 E328.20738
G0 F6000 X146.39 Y158.76
G1 F2700 X133.86 Y146.24 E329.31219
G0 F6000 X134.57 Y146.24
G1 F2700 X147.09 Y158.76 E330.41700
G0 F6000 X147.80 Y158.76
G1 F2700 X135.28 Y146.24 E331.52181
G0 F6000 X135.98 Y146.24
G1 F2700 X148.51 Y158.76 E332.62666
G0 F6000 X149.22 Y158.76
G1 F2700 X136.69 Y146.24 E333.73147
G0 F6000 X137.40 Y146.24
G1 F2700 X149.57 Y158.41 E334.80533
G0 F6000 X149.57 Y157.71
G1 F2700 X138.10 Y146.24 E335.81683
G0 F6000 X138.81 Y146.24
G1 F2700 X149.57 Y157.00 E336.76597
G0 F6000 X149.57 Y156.29
G1 F2700 X139.52 Y146.24 E337.65277
G0 F6000 X140.22 Y146.24
G1 F2700 X149.57 Y155.58 E338.47716
G0 F6000 X149.57 Y154.88
G1 F2700 X140.93 Y146.24 E339.23920
G0 F6000 X141.64 Y146.24
G1 F2700 X149.57 Y154.17 E339.93889
G0 F6000 X149.57 Y153.46
G1 F2700 X142.35 Y146.24 E340.57623
G0 F6000 X143.05 Y146.24
G1 F2700 X149.57 Y152.75 E341.15117
G0 F6000 X149.57 Y152.05
G1 F2700 X143.76 Y146.24 E341.66375
G0 F6000 X144.47 Y146.24
G1 F2700 X149.57 Y151.34 E342.11398
G0 F6000 X149.57 Y150.63
G1 F2700 X145.18 Y146.24 E342.50186
G0 F6000 X145.88 Y146.24
G1 F2700 X149.57 Y149.93 E342.82739
G0 F6000 X149.57 Y149.22
G1 F2700 X146.59 Y146.24 E343.09056
G0 F6000 X147.30 Y146.24
G1 F2700 X149.57 Y148.51 E343.29133
G0 F6000 X149.57 Y147.81
G1 F2700 X148.00 Y146.24 E343.42975
G0 F6000 X148.71 Y146.24
G1 F2700 X149.57 Y147.10 E343.50582
G0 F6000 X149.57 Y146.39
G1 F2700 X149.42 Y146.24 E343.51949
G0 F6000 X149.75 Y164.44
;TYPE:WALL-INNER
G1 F2700 X149.75 Y177.32 E344.32272
G1 X126.77 Y177.32 E345.75576
G1 X126.77 Y164.44 E346.55899
G1 X149.75 Y164.44 E347.99202
G0 F6000 X150.25 Y163.94
;TYPE:WALL-OUTER
G1 F2700 X150.25 Y177.82 E348.85762
G1 X126.27 Y177.82 E350.35302
G1 X126.27 Y163.94 E351.21861
G1 X150.25 Y163.94 E352.71401
G0 F6000 X149.57 Y164.78
;TYPE:FILL
G1 F2700 X149.41 Y164.61 E352.72847
G0 F6000 X148.70 Y164.61
G1 F2700 X149.57 Y165.48 E352.80529
G0 F6000 X149.57 Y166.19
G1 F2700 X148.00 Y164.61 E352.94446
G0 F6000 X147.29 Y164.61
G1 F2700 X149.57 Y166.90 E353.14598
G0 F6000 X149.57 Y167.60
G1 F2700 X146.58 Y164.61 E353.40986
G0 F6000 X145.88 Y164.61
G1 F2700 X149.57 Y168.31 E353.73609
G0 F6000 X149.57 Y169.02
G1 F2700 X145.17 Y164.61 E354.12467
G0 F6000 X144.46 Y164.61
G1 F2700 X149.57 Y169.73 E354.57561
G0 F6000 X149.57 Y170.43
G1 F2700 X143.75 Y164.61 E355.08890
G0 F6000 X143.05 Y164.61
G1 F2700 X149.57 Y171.14 E355.66463
G0 F6000 X149.57 Y171.85
G1 F2700 X142.34 Y164.61 E356.30272
G0 F6000 X141.63 Y164.61
G1 F2700 X149.57 Y172.56 E357.00316
G0 F6000 X149.57 Y173.26
G1 F2700 X140.93 Y164.61 E357.76595
G0 F6000 X140.22 Y164.61
G1 F2700 X149.57 Y173.97 E358.59110
G0 F6000 X149.57 Y174.68
G1 F2700 X139.51 Y164.61 E359.47859
G0 F6000 X138.80 Y164.61
G1 F2700 X149.57 Y175.38 E360.42845
G0 F6000 X149.57 Y176.09
G1 F2700 X138.10 Y164.61 E361.44065
G0 F6000 X137.39 Y164.61
G1 F2700 X149.57 Y176.80 E362.51521
G0 F6000 X149.21 Y177.14
G1 F2700 X136.68 Y164.61 E363.62020
G0 F6000 X135.97 Y164.61
G1 F2700 X148.50 Y177.14 E364.72523
G0 F6000 X147.80 Y177.14
G1 F2700 X135.27 Y164.61 E365.83026
G0 F6000 X134.56 Y164.61
G1 F2700 X147.09 Y177.14 E366.93524
G0 F6000 X146.38 Y177.14
G1 F2700 X133.85 Y164.61 E368.04023
G0 F6000 X133.15 Y164.61
G1 F2700 X145.68 Y177.14 E369.14521
G0 F6000 X144.97 Y177.14
G1 F2700 X132.44 Y164.61 E370.25020
G0 F6000 X131.73 Y164.61
G1 F2700 X144.26 Y177.14 E371.35518
G0 F6000 X143.56 Y177.14
G1 F2700 X131.03 Y164.61 E372.46017
G0 F6000 X130.32 Y164.61
G1 F2700 X142.85 Y177.14 E373.56516
G0 F6000 X142.14 Y177.14
G1 F2700 X129.61 Y164.61 E374.67019
G0 F6000 X128.90 Y164.61
G1 F2700 X141.43 Y177.14 E375.77522
G0 F6000 X140.73 Y177.14
G1 F2700 X128.20 Y164.61 E376.88020
G0 F6000 X127.49 Y164.61
G1 F2700 X140.02 Y177.14 E377.98519
G0 F6000 X139.31 Y177.14
G1 F2700 X126.94 Y164.77 E379.07597
G0 F6000 X126.94 Y165.48
G1 F2700 X138.60 Y177.14 E380.10436
G0 F6000 X137.90 Y177.14
G1 F2700 X126.94 Y166.19 E381.07040
G0 F6000 X126.94 Y166.90
G1 F2700 X137.19 Y177.14 E381.97408
G0 F6000 X136.48 Y177.14
G1 F2700 X126.94 Y167.60 E382.81541
G0 F6000 X126.94 Y168.31
G1 F2700 X135.78 Y177.14 E383.59439
G0 F6000 X135.07 Y177.14
G1 F2700 X126.94 Y169.02 E384.31101
G0 F6000 X126.94 Y169.72
G1 F2700 X134.36 Y177.14 E384.96528
G0 F6000 X133.66 Y177.14
G1 F2700 X126.94 Y170.43 E385.55715
G0 F6000 X126.94 Y171.14
G1 F2700 X132.95 Y177.14 E386.08667
G0 F6000 X132.24 Y177.14
G1 F2700 X126.94 Y171.85 E386.55379
G0 F6000 X126.94 Y172.55
G1 F2700 X131.53 Y177.14 E386.95856
G0 F6000 X130.83 Y177.14
G1 F2700 X126.94 Y173.26 E387.30097
G0 F6000 X126.94 Y173.97
G1 F2700 X130.12 Y177.14 E387.58103
G0 F6000 X129.41 Y177.14
G1 F2700 X126.94 Y174.67 E387.79874
G0 F6000 X126.94 Y175.38
G1 F2700 X128.71 Y177.14 E387.95409
G0 F6000 X128.00 Y177.14
G1 F2700 X126.94 Y176.09 E388.04709
G0 F6000 X126.94 Y176.79
G1 F2700 X127.29 Y177.14 E388.07770
G0 F6000 X155.25 Y158.94
;TYPE:WALL-INNER
G1 F2700 X155.25 Y146.06 E388.88080
G1 X178.23 Y146.06 E390.31390
G1 X178.23 Y158.94 E391.11701
G1 X155.25 Y158.94 E392.55010
G0 F6000 X154.75 Y159.44
;TYPE:WALL-OUTER
G1 F2700 X154.75 Y145.56 E393.41557
G1 X178.73 Y145.56 E394.91103
G1 X178.73 Y159.44 E395.77650
G1 X154.75 Y159.44 E397.27196
G0 F6000 X155.58 Y158.76
;TYPE:FILL
G1 F2700 X155.42 Y158.60 E397.28599
G0 F6000 X155.42 Y157.90
G1 F2700 X156.29 Y158.76 E397.36236
G0 F6000 X157.00 Y158.76
G1 F2700 X155.42 Y157.19 E397.50109
G0 F6000 X155.42 Y156.48
G1 F2700 X157.70 Y158.76 E397.70217
G0 F6000 X158.41 Y158.76
G1 F2700 X155.42 Y155.78 E397.96561
G0 F6000 X155.42 Y155.07
G1 F2700 X159.12 Y158.76 E398.29140
G0 F6000 X159.82 Y158.76
G1 F2700 X155.42 Y154.36 E398.67954
G0 F6000 X155.42 Y153.66
G1 F2700 X160.53 Y158.76 E399.13004
G0 F6000 X161.24 Y158.76
G1 F2700 X155.42 Y152.95 E399.64298
G0 F6000 X155.42 Y152.24
G1 F2700 X161.94 Y158.76 E400.21827
G0 F6000 X162.65 Y158.76
G1 F2700 X155.42 Y151.53 E400.85591
G0 F6000 X155.42 Y150.83
G1 F2700 X163.36 Y158.76 E401.55591
G0 F6000 X164.07 Y158.76
G1 F2700 X155.42 Y150.12 E402.31826
G0 F6000 X155.42 Y149.41
G1 F2700 X164.77 Y158.76 E403.14297
G0 F6000 X165.48 Y158.76
G1 F2700 X155.42 Y148.71 E404.03002
G0 F6000 X155.42 Y148.00
G1 F2700 X166.19 Y158.76 E404.97943
G0 F6000 X166.89 Y158.76
G1 F2700 X155.42 Y147.29 E405.99120
G0 F6000 X155.42 Y146.58
G1 F2700 X167.60 Y158.76 E407.06536
G0 F6000 X168.31 Y158.76
G1 F2700 X155.78 Y146.24 E408.17021
G0 F6000 X156.49 Y146.24
G1 F2700 X169.02 Y158.76 E409.27502
G0 F6000 X169.72 Y158.76
G1 F2700 X157.20 Y146.24 E410.37983
G0 F6000 X157.90 Y146.24
G1 F2700 X170.43 Y158.76 E411.48464
G0 F6000 X171.14 Y158.76
G1 F2700 X158.61 Y146.24 E412.58945
G0 F6000 X159.32 Y146.24
G1 F2700 X171.84 Y158.76 E413.69426
G0 F6000 X172.55 Y158.76
G1 F2700 X160.02 Y146.24 E414.79907
G0 F6000 X160.73 Y146.24
G1 F2700 X173.26 Y158.76 E415.90388
G0 F6000 X173.97 Y158.76
G1 F2700 X161.44 Y146.24 E417.00869
G0 F6000 X162.15 Y146.24
G1 F2700 X174.67 Y158.76 E418.11354
G0 F6000 X175.38 Y158.76
G1 F2700 X162.85 Y146.24 E419.21835
G0 F6000 X163.56 Y146.24
G1 F2700 X176.09 Y158.76 E420.32316
G0 F6000 X176.79 Y158.76
G1 F2700 X164.27 Y146.24 E421.42797
G0 F6000 X164.97 Y146.24
G1 F2700 X177.50 Y158.76 E422.53278
G0 F6000 X178.05 Y158.61
G1 F2700 X165.68 Y146.24 E423.62379
G0 F6000 X166.39 Y146.24
G1 F2700 X178.05 Y157.90 E424.65244
G0 F6000 X178.05 Y157.19
G1 F2700 X167.09 Y146.24 E425.61874
G0 F6000 X167.80 Y146.24
G1 F2700 X178.05 Y156.49 E426.52269
G0 F6000 X178.05 Y155.78
G1 F2700 X168.51 Y146.24 E427.36428
G0 F6000 X169.22 Y146.24
G1 F2700 X178.05 Y155.07 E428.14348
G0 F6000 X178.05 Y154.36
G1 F2700 X169.92 Y146.24 E428.86032
G0 F6000 X170.63 Y146.24
G1 F2700 X178.05 Y153.66 E429.51481
G0 F6000 X178.05 Y152.95
G1 F2700 X171.34 Y146.24 E430.10695
G0 F6000 X172.04 Y146.24
G1 F2700 X178.05 Y152.24 E430.63669
G0 F6000 X178.05 Y151.53
G1 F2700 X172.75 Y146.24 E431.10407
G0 F6000 X173.46 Y146.24
G1 F2700 X178.05 Y150.83 E431.50910
G0 F6000 X178.05 Y150.12
G1 F2700 X174.17 Y146.24 E431.85178
G0 F6000 X174.87 Y146.24
G1 F2700 X178.05 Y149.41 E432.13211
G0 F6000 X178.05 Y148.71
G1 F2700 X175.58 Y146.24 E432.35008
G0 F6000 X176.29 Y146.24
G1 F2700 X178.05 Y148.00 E432.50565
G0 F6000 X178.05 Y147.29
G1 F2700 X177.00 Y146.24 E432.59888
G0 F6000 X177.70 Y146.24
G1 F2700 X178.05 Y146.59 E432.62974
;LAYER:1
G0 F6000 X178.23 Y146.06 Z0.50
;TYPE:WALL-INNER
G1 F3480 X178.23 Y158.94 E433.16515
G1 X155.25 Y158.94 E434.12055
G1 X155.25 Y146.06 E434.65595
G1 X178.23 Y146.06 E435.61135
G0 F6000 X178.73 Y145.56
;TYPE:WALL-OUTER
G1 F3480 X178.73 Y159.44 E436.18833
G1 X154.75 Y159.44 E437.18530
G1 X154.75 Y145.56 E437.76228
G1 X178.73 Y145.56 E438.75925
G0 F6000 X177.97 Y146.24
;TYPE:FILL
G1 F3480 X165.44 Y158.76 E439.49588
G0 F6000 X166.15 Y158.76
G1 F3480 X178.05 Y146.86 E440.19559
G0 F6000 X178.05 Y147.57
G1 F3480 X166.86 Y158.76 E440.85372
G0 F6000 X167.56 Y158.76
G1 F3480 X178.05 Y148.28 E441.47029
G0 F6000 X178.05 Y148.98
G1 F3480 X168.27 Y158.76 E442.04525
G0 F6000 X168.98 Y158.76
G1 F3480 X178.05 Y149.69 E442.57865
G0 F6000 X178.05 Y150.40
G1 F3480 X169.69 Y158.76 E443.07048
G0 F6000 X170.39 Y158.76
G1 F3480 X178.05 Y151.10 E443.52074
G0 F6000 X178.05 Y151.81
G1 F3480 X171.10 Y158.76 E443.92944
G0 F6000 X171.81 Y158.76
G1 F3480 X178.05 Y152.52 E444.29653
G0 F6000 X178.05 Y153.23
G1 F3480 X172.51 Y158.76 E444.62205
G0 F6000 X173.22 Y158.76
G1 F3480 X178.05 Y153.93 E444.90601
G0 F6000 X178.05 Y154.64
G1 F3480 X173.93 Y158.76 E445.14840
G0 F6000 X174.64 Y158.76
G1 F3480 X178.05 Y155.35 E445.34922
G0 F6000 X178.05 Y156.06
G1 F3480 X175.34 Y158.76 E445.50844
G0 F6000 X176.05 Y158.76
G1 F3480 X178.05 Y156.76 E445.62609
G0 F6000 X178.05 Y157.47
G1 F3480 X176.76 Y158.76 E445.70217
G0 F6000 X177.47 Y158.76
G1 F3480 X178.05 Y158.18 E445.73668
G0 F6000 X177.27 Y146.24
G1 F3480 X164.74 Y158.76 E446.47331
G0 F6000 X164.03 Y158.76
G1 F3480 X176.56 Y146.24 E447.20991
G0 F6000 X175.85 Y146.24
G1 F3480 X163.32 Y158.76 E447.94651
G0 F6000 X162.62 Y158.76
G1 F3480 X175.14 Y146.24 E448.68311
G0 F6000 X174.44 Y146.24
G1 F3480 X161.91 Y158.76 E449.41970
G0 F6000 X161.20 Y158.76
G1 F3480 X173.73 Y146.24 E450.15633
G0 F6000 X173.02 Y146.24
G1 F3480 X160.49 Y158.76 E450.89296
G0 F6000 X159.79 Y158.76
G1 F3480 X172.32 Y146.24 E451.62959
G0 F6000 X171.61 Y146.24
G1 F3480 X159.08 Y158.76 E452.36622
G0 F6000 X158.37 Y158.76
G1 F3480 X170.90 Y146.24 E453.10284
G0 F6000 X170.19 Y146.24
G1 F3480 X157.67 Y158.76 E453.83944
G0 F6000 X156.96 Y158.76
G1 F3480 X169.49 Y146.24 E454.57604
G0 F6000 X168.78 Y146.24
G1 F3480 X156.25 Y158.76 E455.31264
G0 F6000 X155.54 Y158.76
G1 F3480 X168.07 Y146.24 E456.04924
G0 F6000 X167.37 Y146.24
G1 F3480 X155.42 Y158.18 E456.75150
G0 F6000 X155.42 Y157.47
G1 F3480 X166.66 Y146.24 E457.41216
G0 F6000 X165.95 Y146.24
G1 F3480 X155.42 Y156.76 E458.03126
G0 F6000 X155.42 Y156.06
G1 F3480 X165.25 Y146.24 E458.60878
G0 F6000 X164.54 Y146.24
G1 F3480 X155.42 Y155.35 E459.14474
G0 F6000 X155.42 Y154.64
G1 F3480 X163.83 Y146.24 E459.63910
G0 F6000 X163.12 Y146.24
G1 F3480 X155.42 Y153.94 E460.09188
G0 F6000 X155.42 Y153.23
G1 F3480 X162.42 Y146.24 E460.50311
G0 F6000 X161.71 Y146.24
G1 F3480 X155.42 Y152.52 E460.87276
G0 F6000 X155.42 Y151.81
G1 F3480 X161.00 Y146.24 E461.20084
G0 F6000 X160.29 Y146.24
G1 F3480 X155.42 Y151.11 E461.48735
G0 F6000 X155.42 Y150.40
G1 F3480 X159.59 Y146.24 E461.73227
G0 F6000 X158.88 Y146.24
G1 F3480 X155.42 Y149.69 E461.93562
G0 F6000 X155.42 Y148.99
G1 F3480 X158.17 Y146.24 E462.09739
G0 F6000 X157.47 Y146.24
G1 F3480 X155.42 Y148.28 E462.21760
G0 F6000 X155.42 Y147.57
G1 F3480 X156.76 Y146.24 E462.29621
G0 F6000 X156.05 Y146.24
G1 F3480 X155.42 Y146.87 E462.33325
G0 F6000 X149.75 Y146.06
;TYPE:WALL-INNER
G1 F3480 X149.75 Y158.94 E462.86866
G1 X126.77 Y158.94 E463.82401
G1 X126.77 Y146.06 E464.35942
G1 X149.75 Y146.06 E465.31478
G0 F6000 X150.25 Y145.56
;TYPE:WALL-OUTER
G1 F3480 X150.25 Y159.44 E465.89176
G1 X126.27 Y159.44 E466.88869
G1 X126.27 Y145.56 E467.46567
G1 X150.25 Y145.56 E468.46260
G0 F6000 X149.57 Y146.35
;TYPE:FILL
G1 F3480 X137.16 Y158.76 E469.19241
G0 F6000 X137.87 Y158.76
G1 F3480 X149.57 Y147.06 E469.88064
G0 F6000 X149.57 Y147.76
G1 F3480 X138.57 Y158.76 E470.52731
G0 F6000 X139.28 Y158.76
G1 F3480 X149.57 Y148.47 E471.13241
G0 F6000 X149.57 Y149.18
G1 F3480 X139.99 Y158.76 E471.69592
G0 F6000 X140.70 Y158.76
G1 F3480 X149.57 Y149.89 E472.21785
G0 F6000 X149.57 Y150.59
G1 F3480 X141.40 Y158.76 E472.69821
G0 F6000 X142.11 Y158.76
G1 F3480 X149.57 Y151.30 E473.13701
G0 F6000 X149.57 Y152.01
G1 F3480 X142.82 Y158.76 E473.53424
G0 F6000 X143.52 Y158.76
G1 F3480 X149.57 Y152.71 E473.88990
G0 F6000 X149.57 Y153.42
G1 F3480 X144.23 Y158.76 E474.20396
G0 F6000 X144.94 Y158.76
G1 F3480 X149.57 Y154.13 E474.47645
G0 F6000 X149.57 Y154.84
G1 F3480 X145.65 Y158.76 E474.70737
G0 F6000 X146.35 Y158.76
G1 F3480 X149.57 Y155.54 E474.89672
G0 F6000 X149.57 Y156.25
G1 F3480 X147.06 Y158.76 E475.04448
G0 F6000 X147.77 Y158.76
G1 F3480 X149.57 Y156.96 E475.15066
G0 F6000 X149.57 Y157.66
G1 F3480 X148.47 Y158.76 E475.21528
G0 F6000 X149.18 Y158.76
G1 F3480 X149.57 Y158.37 E475.23833
G0 F6000 X148.98 Y146.24
G1 F3480 X136.45 Y158.76 E475.97493
G0 F6000 X135.75 Y158.76
G1 F3480 X148.27 Y146.24 E476.71152
G0 F6000 X147.57 Y146.24
G1 F3480 X135.04 Y158.76 E477.44812
G0 F6000 X134.33 Y158.76
G1 F3480 X146.86 Y146.24 E478.18472
G0 F6000 X146.15 Y146.24
G1 F3480 X133.62 Y158.76 E478.92132
G0 F6000 X132.92 Y158.76
G1 F3480 X145.45 Y146.24 E479.65792
G0 F6000 X144.74 Y146.24
G1 F3480 X132.21 Y158.76 E480.39452
G0 F6000 X131.50 Y158.76
G1 F3480 X144.03 Y146.24 E481.13108
G0 F6000 X143.32 Y146.24
G1 F3480 X130.80 Y158.76 E481.86765
G0 F6000 X130.09 Y158.76
G1 F3480 X142.62 Y146.24 E482.60425
G0 F6000 X141.91 Y146.24
G1 F3480 X129.38 Y158.76 E483.34085
G0 F6000 X128.68 Y158.76
G1 F3480 X141.20 Y146.24 E484.07745
G0 F6000 X140.50 Y146.24
G1 F3480 X127.97 Y158.76 E484.81405
G0 F6000 X127.26 Y158.76
G1 F3480 X139.79 Y146.24 E485.55065
G0 F6000 X139.08 Y146.24
G1 F3480 X126.94 Y158.37 E486.26425
G0 F6000 X126.94 Y157.66
G1 F3480 X138.38 Y146.24 E486.93629
G0 F6000 X137.67 Y146.24
G1 F3480 X126.94 Y156.96 E487.56674
G0 F6000 X126.94 Y156.25
G1 F3480 X136.96 Y146.24 E488.15558
G0 F6000 X136.25 Y146.24
G1 F3480 X126.94 Y155.54 E488.70285
G0 F6000 X126.94 Y154.84
G1 F3480 X135.55 Y146.24 E489.20856
G0 F6000 X134.84 Y146.24
G1 F3480 X126.94 Y154.13 E489.67270
G0 F6000 X126.94 Y153.42
G1 F3480 X134.13 Y146.24 E490.09527
G0 F6000 X133.43 Y146.24
G1 F3480 X126.94 Y152.72 E490.47626
G0 F6000 X126.94 Y152.01
G1 F3480 X132.72 Y146.24 E490.81570
G0 F6000 X132.01 Y146.24
G1 F3480 X126.94 Y151.30 E491.11356
G0 F6000 X126.94 Y150.59
G1 F3480 X131.30 Y146.24 E491.36982
G0 F6000 X130.60 Y146.24
G1 F3480 X126.94 Y149.89 E491.58448
G0 F6000 X126.94 Y149.18
G1 F3480 X129.89 Y146.24 E491.75758
G0 F6000 X129.18 Y146.24
G1 F3480 X126.94 Y148.47 E491.88911
G0 F6000 X126.94 Y147.76
G1 F3480 X128.47 Y146.24 E491.97907
G0 F6000 X127.77 Y146.24
G1 F3480 X126.94 Y147.06 E492.02745
G0 F6000 X126.94 Y146.35
G1 F3480 X127.06 Y146.24 E492.03428
G0 F6000 X126.77 Y140.56
;TYPE:WALL-INNER
G1 F3480 X126.77 Y127.68 E492.56976
G1 X149.75 Y127.68 E493.52512
G1 X149.75 Y140.56 E494.06061
G1 X126.77 Y140.56 E495.01596
G0 F6000 X126.27 Y141.06
;TYPE:WALL-OUTER
G1 F3480 X126.27 Y127.18 E495.59303
G1 X150.25 Y127.18 E496.58996
G1 X150.25 Y141.06 E497.16702
G1 X126.27 Y141.06 E498.16395
G0 F6000 X127.25 Y140.39
;TYPE:FILL
G1 F3480 X139.78 Y127.86 E498.90073
G0 F6000 X140.49 Y127.86
G1 F3480 X127.96 Y140.39 E499.63750
G0 F6000 X128.67 Y140.39
G1 F3480 X141.20 Y127.86 E500.37428
G0 F6000 X141.91 Y127.86
G1 F3480 X129.38 Y140.39 E501.11102
G0 F6000 X130.08 Y140.39
G1 F3480 X142.61 Y127.86 E501.84777
G0 F6000 X143.32 Y127.86
G1 F3480 X130.79 Y140.39 E502.58451
G0 F6000 X131.50 Y140.39
G1 F3480 X144.03 Y127.86 E503.32129
G0 F6000 X144.73 Y127.86
G1 F3480 X132.20 Y140.39 E504.05806
G0 F6000 X132.91 Y140.39
G1 F3480 X145.44 Y127.86 E504.79484
G0 F6000 X146.15 Y127.86
G1 F3480 X133.62 Y140.39 E505.53161
G0 F6000 X134.32 Y140.39
G1 F3480 X146.85 Y127.86 E506.26839
G0 F6000 X147.56 Y127.86
G1 F3480 X135.03 Y140.39 E507.00516
G0 F6000 X135.74 Y140.39
G1 F3480 X148.27 Y127.86 E507.74191
G0 F6000 X148.98 Y127.86
G1 F3480 X136.45 Y140.39 E508.47865
G0 F6000 X137.15 Y140.39
G1 F3480 X149.57 Y127.97 E509.20887
G0 F6000 X149.57 Y128.67
G1 F3480 X137.86 Y140.39 E509.89752
G0 F6000 X138.57 Y140.39
G1 F3480 X149.57 Y129.38 E510.54460
G0 F6000 X149.57 Y130.09
G1 F3480 X139.27 Y140.39 E511.15011
G0 F6000 X139.98 Y140.39
G1 F3480 X149.57 Y130.79 E511.71406
G0 F6000 X149.57 Y131.50
G1 F3480 X140.69 Y140.39 E512.23640
G0 F6000 X141.40 Y140.39
G1 F3480 X149.57 Y132.21 E512.71718
G0 F6000 X149.57 Y132.92
G1 F3480 X142.10 Y140.39 E513.15636
G0 F6000 X142.81 Y140.39
G1 F3480 X149.57 Y133.62 E513.55397
G0 F6000 X149.57 Y134.33
G1 F3480 X143.52 Y140.39 E513.91001
G0 F6000 X144.22 Y140.39
G1 F3480 X149.57 Y135.04 E514.22448
G0 F6000 X149.57 Y135.74
G1 F3480 X144.93 Y140.39 E514.49738
G0 F6000 X145.64 Y140.39
G1 F3480 X149.57 Y136.45 E514.72871
G0 F6000 X149.57 Y137.16
G1 F3480 X146.34 Y140.39 E514.91848
G0 F6000 X147.05 Y140.39
G1 F3480 X149.57 Y137.87 E515.06664
G0 F6000 X149.57 Y138.57
G1 F3480 X147.76 Y140.39 E515.17324
G0 F6000 X148.47 Y140.39
G1 F3480 X149.57 Y139.28 E515.23827
G0 F6000 X149.57 Y139.99
G1 F3480 X149.17 Y140.39 E515.26170
G0 F6000 X139.08 Y127.86
G1 F3480 X126.94 Y139.99 E515.97507
G0 F6000 X126.94 Y139.28
G1 F3480 X138.37 Y127.86 E516.64685
G0 F6000 X137.66 Y127.86
G1 F3480 X126.94 Y138.57 E517.27706
G0 F6000 X126.94 Y137.87
G1 F3480 X136.96 Y127.86 E517.86567
G0 F6000 X136.25 Y127.86
G1 F3480 X126.94 Y137.16 E518.41271
G0 F6000 X126.94 Y136.45
G1 F3480 X135.54 Y127.86 E518.91818
G0 F6000 X134.83 Y127.86
G1 F3480 X126.94 Y135.75 E519.38208
G0 F6000 X126.94 Y135.04
G1 F3480 X134.13 Y127.86 E519.80441
G0 F6000 X133.42 Y127.86
G1 F3480 X126.94 Y134.33 E520.18517
G0 F6000 X126.94 Y133.62
G1 F3480 X132.71 Y127.86 E520.52437
G0 F6000 X132.01 Y127.86
G1 F3480 X126.94 Y132.92 E520.82197
G0 F6000 X126.94 Y132.21
G1 F3480 X131.30 Y127.86 E521.07799
G0 F6000 X130.59 Y127.86
G1 F3480 X126.94 Y131.50 E521.29245
G0 F6000 X126.94 Y130.79
G1 F3480 X129.88 Y127.86 E521.46531
G0 F6000 X129.18 Y127.86
G1 F3480 X126.94 Y130.09 E521.59661
G0 F6000 X126.94 Y129.38
G1 F3480 X128.47 Y127.86 E521.68633
G0 F6000 X127.76 Y127.86
G1 F3480 X126.94 Y128.67 E521.73448
G0 F6000 X126.94 Y127.97
G1 F3480 X127.06 Y127.86 E521.74107
G0 F6000 X126.77 Y164.44
;TYPE:WALL-INNER
G1 F3480 X149.75 Y164.44 E522.69642
G1 X149.75 Y177.32 E523.23191
G1 X126.77 Y177.32 E524.18727
G1 X126.77 Y164.44 E524.72276
G0 F6000 X126.27 Y163.94
;TYPE:WALL-OUTER
G1 F3480 X150.25 Y163.94 E525.71969
G1 X150.25 Y177.82 E526.29675
G1 X126.27 Y177.82 E527.29368
G1 X126.27 Y163.94 E527.87074
G0 F6000 X126.94 Y164.74
;TYPE:FILL
G1 F3480 X127.07 Y164.61 E527.87801
G0 F6000 X127.78 Y164.61
G1 F3480 X126.94 Y165.44 E527.92684
G0 F6000 X126.94 Y166.15
G1 F3480 X128.48 Y164.61 E528.01726
G0 F6000 X129.19 Y164.61
G1 F3480 X126.94 Y166.86 E528.14926
G0 F6000 X126.94 Y167.56
G1 F3480 X129.90 Y164.61 E528.32283
G0 F6000 X130.60 Y164.61
G1 F3480 X126.94 Y168.27 E528.53799
G0 F6000 X126.94 Y168.98
G1 F3480 X131.31 Y164.61 E528.79473
G0 F6000 X132.02 Y164.61
G1 F3480 X126.94 Y169.69 E529.09303
G0 F6000 X126.94 Y170.39
G1 F3480 X132.72 Y164.61 E529.43290
G0 F6000 X133.43 Y164.61
G1 F3480 X126.94 Y171.10 E529.81434
G0 F6000 X126.94 Y171.81
G1 F3480 X134.14 Y164.61 E530.23735
G0 F6000 X134.85 Y164.61
G1 F3480 X126.94 Y172.51 E530.70193
G0 F6000 X126.94 Y173.22
G1 F3480 X135.55 Y164.61 E531.20810
G0 F6000 X136.26 Y164.61
G1 F3480 X126.94 Y173.93 E531.75585
G0 F6000 X126.94 Y174.64
G1 F3480 X136.97 Y164.61 E532.34516
G0 F6000 X137.68 Y164.61
G1 F3480 X126.94 Y175.34 E532.97607
G0 F6000 X126.94 Y176.05
G1 F3480 X138.38 Y164.61 E533.64856
G0 F6000 X139.09 Y164.61
G1 F3480 X126.94 Y176.76 E534.36261
G0 F6000 X127.27 Y177.14
G1 F3480 X139.80 Y164.61 E535.09935
G0 F6000 X140.50 Y164.61
G1 F3480 X127.97 Y177.14 E535.83610
G0 F6000 X128.68 Y177.14
G1 F3480 X141.21 Y164.61 E536.57284
G0 F6000 X141.92 Y164.61
G1 F3480 X129.39 Y177.14 E537.30956
G0 F6000 X130.09 Y177.14
G1 F3480 X142.62 Y164.61 E538.04627
G0 F6000 X143.33 Y164.61
G1 F3480 X130.80 Y177.14 E538.78299
G0 F6000 X131.51 Y177.14
G1 F3480 X144.04 Y164.61 E539.51974
G0 F6000 X144.75 Y164.61
G1 F3480 X132.22 Y177.14 E540.25648
G0 F6000 X132.92 Y177.14
G1 F3480 X145.45 Y164.61 E540.99323
G0 F6000 X146.16 Y164.61
G1 F3480 X133.63 Y177.14 E541.72997
G0 F6000 X134.34 Y177.14
G1 F3480 X146.87 Y164.61 E542.46672
G0 F6000 X147.57 Y164.61
G1 F3480 X135.04 Y177.14 E543.20346
G0 F6000 X135.75 Y177.14
G1 F3480 X148.28 Y164.61 E543.94018
G0 F6000 X148.99 Y164.61
G1 F3480 X136.46 Y177.14 E544.67689
G0 F6000 X137.16 Y177.14
G1 F3480 X149.57 Y164.73 E545.40650
G0 F6000 X149.57 Y165.44
G1 F3480 X137.87 Y177.14 E546.09453
G0 F6000 X138.58 Y177.14
G1 F3480 X149.57 Y166.15 E546.74099
G0 F6000 X149.57 Y166.85
G1 F3480 X139.29 Y177.14 E547.34589
G0 F6000 X139.99 Y177.14
G1 F3480 X149.57 Y167.56 E547.90918
G0 F6000 X149.57 Y168.27
G1 F3480 X140.70 Y177.14 E548.43091
G0 F6000 X141.41 Y177.14
G1 F3480 X149.57 Y168.98 E548.91107
G0 F6000 X149.57 Y169.68
G1 F3480 X142.12 Y177.14 E549.34963
G0 F6000 X142.82 Y177.14
G1 F3480 X149.57 Y170.39 E549.74662
G0 F6000 X149.57 Y171.10
G1 F3480 X143.53 Y177.14 E550.10205
G0 F6000 X144.24 Y177.14
G1 F3480 X149.57 Y171.81 E550.41590
G0 F6000 X149.57 Y172.51
G1 F3480 X144.94 Y177.14 E550.68819
G0 F6000 X145.65 Y177.14
G1 F3480 X149.57 Y173.22 E550.91890
G0 F6000 X149.57 Y173.93
G1 F3480 X146.36 Y177.14 E551.10802
G0 F6000 X147.06 Y177.14
G1 F3480 X149.57 Y174.63 E551.25557
G0 F6000 X149.57 Y175.34
G1 F3480 X147.77 Y177.14 E551.36155
G0 F6000 X148.48 Y177.14
G1 F3480 X149.57 Y176.05 E551.42596
G0 F6000 X149.57 Y176.75
G1 F3480 X149.19 Y177.14 E551.44877
;LAYER:2
G0 F6000 X149.75 Y177.32 Z0.70
;TYPE:WALL-INNER
G1 F4320 X126.77 Y177.32 E552.40413
G1 X126.77 Y164.44 E552.93962
G1 X149.75 Y164.44 E553.89497
G1 X149.75 Y177.32 E554.43046
G0 F6000 X150.25 Y177.82
;TYPE:WALL-OUTER
G1 F4320 X126.27 Y177.82 E555.42739
G1 X126.27 Y163.94 E556.00445
G1 X150.25 Y163.94 E557.00139
G1 X150.25 Y177.82 E557.57845
G0 F6000 X149.57 Y176.80
;TYPE:FILL
G1 F4320 X137.39 Y164.61 E558.29482
G0 F6000 X136.68 Y164.61
G1 F4320 X149.21 Y177.14 E559.03148
G0 F6000 X148.50 Y177.14
G1 F4320 X135.97 Y164.61 E559.76817
G0 F6000 X135.27 Y164.61
G1 F4320 X147.80 Y177.14 E560.50485
G0 F6000 X147.09 Y177.14
G1 F4320 X134.56 Y164.61 E561.24151
G0 F6000 X133.85 Y164.61
G1 F4320 X146.38 Y177.14 E561.97817
G0 F6000 X145.68 Y177.14
G1 F4320 X133.15 Y164.61 E562.71482
G0 F6000 X132.44 Y164.61
G1 F4320 X144.97 Y177.14 E563.45148
G0 F6000 X144.26 Y177.14
G1 F4320 X131.73 Y164.61 E564.18814
G0 F6000 X131.03 Y164.61
G1 F4320 X143.56 Y177.14 E564.92479
G0 F6000 X142.85 Y177.14
G1 F4320 X130.32 Y164.61 E565.66145
G0 F6000 X129.61 Y164.61
G1 F4320 X142.14 Y177.14 E566.39814
G0 F6000 X141.43 Y177.14
G1 F4320 X128.90 Y164.61 E567.13483
G0 F6000 X128.20 Y164.61
G1 F4320 X140.73 Y177.14 E567.87148
G0 F6000 X140.02 Y177.14
G1 F4320 X127.49 Y164.61 E568.60814
G0 F6000 X126.94 Y164.77
G1 F4320 X139.31 Y177.14 E569.33533
G0 F6000 X138.60 Y177.14
G1 F4320 X126.94 Y165.48 E570.02092
G0 F6000 X126.94 Y166.19
G1 F4320 X137.90 Y177.14 E570.66495
G0 F6000 X137.19 Y177.14
G1 F4320 X126.94 Y166.90 E571.26740
G0 F6000 X126.94 Y167.60
G1 F4320 X136.48 Y177.14 E571.82829
G0 F6000 X135.78 Y177.14
G1 F4320 X126.94 Y168.31 E572.34761
G0 F6000 X126.94 Y169.02
G1 F4320 X135.07 Y177.14 E572.82535
G0 F6000 X134.36 Y177.14
G1 F4320 X126.94 Y169.72 E573.26153
G0 F6000 X126.94 Y170.43
G1 F4320 X133.66 Y177.14 E573.65611
G0 F6000 X132.95 Y177.14
G1 F4320 X126.94 Y171.14 E574.00913
G0 F6000 X126.94 Y171.85
G1 F4320 X132.24 Y177.14 E574.32054
G0 F6000 X131.53 Y177.14
G1 F4320 X126.94 Y172.55 E574.59039
G0 F6000 X126.94 Y173.26
G1 F4320 X130.83 Y177.14 E574.81866
G0 F6000 X130.12 Y177.14
G1 F4320 X126.94 Y173.97 E575.00537
G0 F6000 X126.94 Y174.67
G1 F4320 X129.41 Y177.14 E575.15051
G0 F6000 X128.71 Y177.14
G1 F4320 X126.94 Y175.38 E575.25408
G0 F6000 X126.94 Y176.09
G1 F4320 X128.00 Y177.14 E575.31608
G0 F6000 X127.29 Y177.14
G1 F4320 X126.94 Y176.79 E575.33648
G0 F6000 X138.10 Y164.61
G1 F4320 X149.57 Y176.09 E576.01128
G0 F6000 X149.57 Y175.38
G1 F4320 X138.80 Y164.61 E576.64452
G0 F6000 X139.51 Y164.61
G1 F4320 X149.57 Y174.68 E577.23618
G0 F6000 X149.57 Y173.97
G1 F4320 X140.22 Y164.61 E577.78628
G0 F6000 X140.93 Y164.61
G1 F4320 X149.57 Y173.26 E578.29481
G0 F6000 X149.57 Y172.56
G1 F4320 X141.63 Y164.61 E578.76177
G0 F6000 X142.34 Y164.61
G1 F4320 X149.57 Y171.85 E579.18716
G0 F6000 X149.57 Y171.14
G1 F4320 X143.05 Y164.61 E579.57098
G0 F6000 X143.75 Y164.61
G1 F4320 X149.57 Y170.43 E579.91317
G0 F6000 X149.57 Y169.73
G1 F4320 X144.46 Y164.61 E580.21380
G0 F6000 X145.17 Y164.61
G1 F4320 X149.57 Y169.02 E580.47285
G0 F6000 X149.57 Y168.31
G1 F4320 X145.88 Y164.61 E580.69034
G0 F6000 X146.58 Y164.61
G1 F4320 X149.57 Y167.60 E580.86626
G0 F6000 X149.57 Y166.90
G1 F4320 X147.29 Y164.61 E581.00061
G0 F6000 X148.00 Y164.61
G1 F4320 X149.57 Y166.19 E581.09339
G0 F6000 X149.57 Y165.48
G1 F4320 X148.70 Y164.61 E581.14460
G0 F6000 X149.41 Y164.61
G1 F4320 X149.57 Y164.78 E581.15424
G0 F6000 X149.75 Y158.94
;TYPE:WALL-INNER
G1 F4320 X126.77 Y158.94 E582.10960
G1 X126.77 Y146.06 E582.64500
G1 X149.75 Y146.06 E583.60036
G1 X149.75 Y158.94 E584.13576
G0 F6000 X150.25 Y159.44
;TYPE:WALL-OUTER
G1 F4320 X126.27 Y159.44 E585.13269
G1 X126.27 Y145.56 E585.70968
G1 X150.25 Y145.56 E586.70661
G1 X150.25 Y159.44 E587.28359
G0 F6000 X149.57 Y158.41
;TYPE:FILL
G1 F4320 X137.40 Y146.24 E587.99949
G0 F6000 X136.69 Y146.24
G1 F4320 X149.22 Y158.76 E588.73603
G0 F6000 X148.51 Y158.76
G1 F4320 X135.98 Y146.24 E589.47260
G0 F6000 X135.28 Y146.24
G1 F4320 X147.80 Y158.76 E590.20914
G0 F6000 X147.09 Y158.76
G1 F4320 X134.57 Y146.24 E590.94568
G0 F6000 X133.86 Y146.24
G1 F4320 X146.39 Y158.76 E591.68222
G0 F6000 X145.68 Y158.76
G1 F4320 X133.15 Y146.24 E592.41876
G0 F6000 X132.45 Y146.24
G1 F4320 X144.97 Y158.76 E593.15529
G0 F6000 X144.27 Y158.76
G1 F4320 X131.74 Y146.24 E593.89183
G0 F6000 X131.03 Y146.24
G1 F4320 X143.56 Y158.76 E594.62837
G0 F6000 X142.85 Y158.76
G1 F4320 X130.33 Y146.24 E595.36491
G0 F6000 X129.62 Y146.24
G1 F4320 X142.15 Y158.76 E596.10145
G0 F6000 X141.44 Y158.76
G1 F4320 X128.91 Y146.24 E596.83802
G0 F6000 X128.20 Y146.24
G1 F4320 X140.73 Y158.76 E597.57456
G0 F6000 X140.02 Y158.76
G1 F4320 X127.50 Y146.24 E598.31110
G0 F6000 X126.94 Y146.39
G1 F4320 X139.32 Y158.76 E599.03859
G0 F6000 X138.61 Y158.76
G1 F4320 X126.94 Y147.10 E599.72450
G0 F6000 X126.94 Y147.80
G1 F4320 X137.90 Y158.76 E600.36885
G0 F6000 X137.20 Y158.76
G1 F4320 X126.94 Y148.51 E600.97163
G0 F6000 X126.94 Y149.22
G1 F4320 X136.49 Y158.76 E601.53284
G0 F6000 X135.78 Y158.76
G1 F4320 X126.94 Y149.93 E602.05248
G0 F6000 X126.94 Y150.63
G1 F4320 X135.07 Y158.76 E602.53055
G0 F6000 X134.37 Y158.76
G1 F4320 X126.94 Y151.34 E602.96702
G0 F6000 X126.94 Y152.05
G1 F4320 X133.66 Y158.76 E603.36190
G0 F6000 X132.95 Y158.76
G1 F4320 X126.94 Y152.75 E603.71520
G0 F6000 X126.94 Y153.46
G1 F4320 X132.25 Y158.76 E604.02694
G0 F6000 X131.54 Y158.76
G1 F4320 X126.94 Y154.17 E604.29711
G0 F6000 X126.94 Y154.88
G1 F4320 X130.83 Y158.76 E604.52571
G0 F6000 X130.12 Y158.76
G1 F4320 X126.94 Y155.58 E604.71274
G0 F6000 X126.94 Y156.29
G1 F4320 X129.42 Y158.76 E604.85820
G0 F6000 X128.71 Y158.76
G1 F4320 X126.94 Y157.00 E604.96209
G0 F6000 X126.94 Y157.70
G1 F4320 X128.00 Y158.76 E605.02442
G0 F6000 X127.30 Y158.76
G1 F4320 X126.94 Y158.41 E605.04511
G0 F6000 X138.10 Y146.24
G1 F4320 X149.57 Y157.71 E605.71945
G0 F6000 X149.57 Y157.00
G1 F4320 X138.81 Y146.24 E606.35221
G0 F6000 X139.52 Y146.24
G1 F4320 X149.57 Y156.29 E606.94341
G0 F6000 X149.57 Y155.58
G1 F4320 X140.22 Y146.24 E607.49300
G0 F6000 X140.93 Y146.24
G1 F4320 X149.57 Y154.88 E608.00103
G0 F6000 X149.57 Y154.17
G1 F4320 X141.64 Y146.24 E608.46749
G0 F6000 X142.35 Y146.24
G1 F4320 X149.57 Y153.46 E608.89238
G0 F6000 X149.57 Y152.75
G1 F4320 X143.05 Y146.24 E609.27568
G0 F6000 X143.76 Y146.24
G1 F4320 X149.57 Y152.05 E609.61740
G0 F6000 X149.57 Y151.34
G1 F4320 X144.47 Y146.24 E609.91755
G0 F6000 X145.18 Y146.24
G1 F4320 X149.57 Y150.63 E610.17614
G0 F6000 X149.57 Y149.93
G1 F4320 X145.88 Y146.24 E610.39316
G0 F6000 X146.59 Y146.24
G1 F4320 X149.57 Y149.22 E610.56860
G0 F6000 X149.57 Y148.51
G1 F4320 X147.30 Y146.24 E610.70245
G0 F6000 X148.00 Y146.24
G1 F4320 X149.57 Y147.81 E610.79473
G0 F6000 X149.57 Y147.10
G1 F4320 X148.71 Y146.24 E610.84544
G0 F6000 X149.42 Y146.24
G1 F4320 X149.57 Y146.39 E610.85456
G0 F6000 X155.25 Y146.06
;TYPE:WALL-INNER
G1 F4320 X178.23 Y146.06 E611.80996
G1 X178.23 Y158.94 E612.34536
G1 X155.25 Y158.94 E613.30076
G1 X155.25 Y146.06 E613.83616
G0 F6000 X154.75 Y145.56
;TYPE:WALL-OUTER
G1 F4320 X178.73 Y145.56 E614.83314
G1 X178.73 Y159.44 E615.41012
G1 X154.75 Y159.44 E616.40709
G1 X154.75 Y145.56 E616.98407
G0 F6000 X155.42 Y146.58
;TYPE:FILL
G1 F4320 X167.60 Y158.76 E617.70018
G0 F6000 X166.89 Y158.76
G1 F4320 X155.42 Y147.29 E618.37469
G0 F6000 X155.42 Y148.00
G1 F4320 X166.19 Y158.76 E619.00763
G0 F6000 X165.48 Y158.76
G1 F4320 X155.42 Y148.71 E619.59900
G0 F6000 X155.42 Y149.41
G1 F4320 X164.77 Y158.76 E620.14880
G0 F6000 X164.07 Y158.76
G1 F4320 X155.42 Y150.12 E620.65704
G0 F6000 X155.42 Y150.83
G1 F4320 X163.36 Y158.76 E621.12370
G0 F6000 X162.65 Y158.76
G1 F4320 X155.42 Y151.53 E621.54880
G0 F6000 X155.42 Y152.24
G1 F4320 X161.94 Y158.76 E621.93232
G0 F6000 X161.24 Y158.76
G1 F4320 X155.42 Y152.95 E622.27428
G0 F6000 X155.42 Y153.66
G1 F4320 X160.53 Y158.76 E622.57461
G0 F6000 X159.82 Y158.76
G1 F4320 X155.42 Y154.36 E622.83338
G0 F6000 X155.42 Y155.07
G1 F4320 X159.12 Y158.76 E623.05057
G0 F6000 X158.41 Y158.76
G1 F4320 X155.42 Y155.78 E623.22619
G0 F6000 X155.42 Y156.48
G1 F4320 X157.70 Y158.76 E623.36025
G0 F6000 X157.00 Y158.76
G1 F4320 X155.42 Y157.19 E623.45273
G0 F6000 X155.42 Y157.90
G1 F4320 X156.29 Y158.76 E623.50365
G0 F6000 X155.58 Y158.76
G1 F4320 X155.42 Y158.60 E623.51300
G0 F6000 X155.78 Y146.24
G1 F4320 X168.31 Y158.76 E624.24957
G0 F6000 X169.02 Y158.76
G1 F4320 X156.49 Y146.24 E624.98611
G0 F6000 X157.20 Y146.24
G1 F4320 X169.72 Y158.76 E625.72265
G0 F6000 X170.43 Y158.76
G1 F4320 X157.90 Y146.24 E626.45919
G0 F6000 X158.61 Y146.24
G1 F4320 X171.14 Y158.76 E627.19573
G0 F6000 X171.84 Y158.76
G1 F4320 X159.32 Y146.24 E627.93227
G0 F6000 X160.02 Y146.24
G1 F4320 X172.55 Y158.76 E628.66881
G0 F6000 X173.26 Y158.76
G1 F4320 X160.73 Y146.24 E629.40535
G0 F6000 X161.44 Y146.24
G1 F4320 X173.97 Y158.76 E630.14189
G0 F6000 X174.67 Y158.76
G1 F4320 X162.15 Y146.24 E630.87846
G0 F6000 X162.85 Y146.24
G1 F4320 X175.38 Y158.76 E631.61500
G0 F6000 X176.09 Y158.76
G1 F4320 X163.56 Y146.24 E632.35153
G0 F6000 X164.27 Y146.24
G1 F4320 X176.79 Y158.76 E633.08807
G0 F6000 X177.50 Y158.76
G1 F4320 X164.97 Y146.24 E633.82461
G0 F6000 X165.68 Y146.24
G1 F4320 X178.05 Y158.61 E634.55195
G0 F6000 X178.05 Y157.90
G1 F4320 X166.39 Y146.24 E635.23772
G0 F6000 X167.09 Y146.24
G1 F4320 X178.05 Y157.19 E635.88192
G0 F6000 X178.05 Y156.49
G1 F4320 X167.80 Y146.24 E636.48455
G0 F6000 X168.51 Y146.24
G1 F4320 X178.05 Y155.78 E637.04561
G0 F6000 X178.05 Y155.07
G1 F4320 X169.22 Y146.24 E637.56508
G0 F6000 X169.92 Y146.24
G1 F4320 X178.05 Y154.36 E638.04297
G0 F6000 X178.05 Y153.66
G1 F4320 X170.63 Y146.24 E638.47930
G0 F6000 X171.34 Y146.24
G1 F4320 X178.05 Y152.95 E638.87406
G0 F6000 X178.05 Y152.24
G1 F4320 X172.04 Y146.24 E639.22722
G0 F6000 X172.75 Y146.24
G1 F4320 X178.05 Y151.53 E639.53881
G0 F6000 X178.05 Y150.83
G1 F4320 X173.46 Y146.24 E639.80883
G0 F6000 X174.17 Y146.24
G1 F4320 X178.05 Y150.12 E640.03728
G0 F6000 X178.05 Y149.41
G1 F4320 X174.87 Y146.24 E640.22417
G0 F6000 X175.58 Y146.24
G1 F4320 X178.05 Y148.71 E640.36948
G0 F6000 X178.05 Y148.00
G1 F4320 X176.29 Y146.24 E640.47320
G0 F6000 X177.00 Y146.24
G1 F4320 X178.05 Y147.29 E640.53534
G0 F6000 X178.05 Y146.59
G1 F4320 X177.70 Y146.24 E640.55592
G0 F6000 X149.75 Y140.56
;TYPE:WALL-INNER
G1 F4320 X126.77 Y140.56 E641.51128
G1 X126.77 Y127.68 E642.04677
G1 X149.75 Y127.68 E643.00212
G1 X149.75 Y140.56 E643.53761
G0 F6000 X150.25 Y141.06
;TYPE:WALL-OUTER
G1 F4320 X126.27 Y141.06 E644.53454
G1 X126.27 Y127.18 E645.11160
G1 X150.25 Y127.18 E646.10854
G1 X150.25 Y141.06 E646.68560
G0 F6000 X149.22 Y140.38
;TYPE:FILL
G1 F4320 X136.69 Y127.86 E647.42226
G0 F6000 X137.40 Y127.86
G1 F4320 X149.57 Y140.03 E648.13781
G0 F6000 X149.57 Y139.32
G1 F4320 X138.11 Y127.86 E648.81179
G0 F6000 X138.82 Y127.86
G1 F4320 X149.57 Y138.61 E649.44420
G0 F6000 X149.57 Y137.91
G1 F4320 X139.52 Y127.86 E650.03504
G0 F6000 X140.23 Y127.86
G1 F4320 X149.57 Y137.20 E650.58431
G0 F6000 X149.57 Y136.49
G1 F4320 X140.94 Y127.86 E651.09202
G0 F6000 X141.64 Y127.86
G1 F4320 X149.57 Y135.78 E651.55816
G0 F6000 X149.57 Y135.08
G1 F4320 X142.35 Y127.86 E651.98272
G0 F6000 X143.06 Y127.86
G1 F4320 X149.57 Y134.37 E652.36569
G0 F6000 X149.57 Y133.66
G1 F4320 X143.77 Y127.86 E652.70706
G0 F6000 X144.47 Y127.86
G1 F4320 X149.57 Y132.96 E653.00686
G0 F6000 X149.57 Y132.25
G1 F4320 X145.18 Y127.86 E653.26510
G0 F6000 X145.89 Y127.86
G1 F4320 X149.57 Y131.54 E653.48176
G0 F6000 X149.57 Y130.83
G1 F4320 X146.59 Y127.86 E653.65685
G0 F6000 X147.30 Y127.86
G1 F4320 X149.57 Y130.13 E653.79038
G0 F6000 X149.57 Y129.42
G1 F4320 X148.01 Y127.86 E653.88234
G0 F6000 X148.72 Y127.86
G1 F4320 X149.57 Y128.71 E653.93273
G0 F6000 X149.57 Y128.01
G1 F4320 X149.42 Y127.86 E653.94155
G0 F6000 X148.52 Y140.38
G1 F4320 X135.99 Y127.86 E654.67823
G0 F6000 X135.28 Y127.86
G1 F4320 X147.81 Y140.38 E655.41492
G0 F6000 X147.10 Y140.38
G1 F4320 X134.57 Y127.86 E656.15158
G0 F6000 X133.87 Y127.86
G1 F4320 X146.40 Y140.38 E656.88823
G0 F6000 X145.69 Y140.38
G1 F4320 X133.16 Y127.86 E657.62489
G0 F6000 X132.45 Y127.86
G1 F4320 X144.98 Y140.38 E658.36155
G0 F6000 X144.27 Y140.38
G1 F4320 X131.75 Y127.86 E659.09821
G0 F6000 X131.04 Y127.86
G1 F4320 X143.57 Y140.38 E659.83486
G0 F6000 X142.86 Y140.38
G1 F4320 X130.33 Y127.86 E660.57152
G0 F6000 X129.62 Y127.86
G1 F4320 X142.15 Y140.38 E661.30821
G0 F6000 X141.45 Y140.38
G1 F4320 X128.92 Y127.86 E662.04489
G0 F6000 X128.21 Y127.86
G1 F4320 X140.74 Y140.38 E662.78155
G0 F6000 X140.03 Y140.38
G1 F4320 X127.50 Y127.86 E663.51821
G0 F6000 X126.94 Y128.00
G1 F4320 X139.32 Y140.38 E664.24610
G0 F6000 X138.62 Y140.38
G1 F4320 X126.94 Y128.71 E664.93243
G0 F6000 X126.94 Y129.42
G1 F4320 X137.91 Y140.38 E665.57719
G0 F6000 X137.20 Y140.38
G1 F4320 X126.94 Y130.13 E666.18038
G0 F6000 X126.94 Y130.83
G1 F4320 X136.50 Y140.38 E666.74200
G0 F6000 X135.79 Y140.38
G1 F4320 X126.94 Y131.54 E667.26205
G0 F6000 X126.94 Y132.25
G1 F4320 X135.08 Y140.38 E667.74051
G0 F6000 X134.38 Y140.38
G1 F4320 X126.94 Y132.96 E668.17739
G0 F6000 X126.94 Y133.66
G1 F4320 X133.67 Y140.38 E668.57268
G0 F6000 X132.96 Y140.38
G1 F4320 X126.94 Y134.37 E668.92640
G0 F6000 X126.94 Y135.08
G1 F4320 X132.25 Y140.38 E669.23854
G0 F6000 X131.55 Y140.38
G1 F4320 X126.94 Y135.78 E669.50912
G0 F6000 X126.94 Y136.49
G1 F4320 X130.84 Y140.38 E669.73814
G0 F6000 X130.13 Y140.38
G1 F4320 X126.94 Y137.20 E669.92558
G0 F6000 X126.94 Y137.90
G1 F4320 X129.43 Y140.38 E670.07145
G0 F6000 X128.72 Y140.38
G1 F4320 X126.94 Y138.61 E670.17573
G0 F6000 X126.94 Y139.32
G1 F4320 X128.01 Y140.38 E670.23843
G0 F6000 X127.30 Y140.38
G1 F4320 X126.94 Y140.03 E670.25954
;LAYER:3
G0 F6000 X126.77 Y140.56 Z0.90
;TYPE:WALL-INNER
G1 F5160 X126.77 Y127.68 E670.79503
G1 X149.75 Y127.68 E671.75038
G1 X149.75 Y140.56 E672.28587
G1 X126.77 Y140.56 E673.24123
G0 F6000 X126.27 Y141.06
;TYPE:WALL-OUTER
G1 F5160 X126.27 Y127.18 E673.81829
G1 X150.25 Y127.18 E674.81522
G1 X150.25 Y141.06 E675.39229
G1 X126.27 Y141.06 E676.38922
G0 F6000 X127.25 Y140.39
;TYPE:FILL
G1 F5160 X139.78 Y127.86 E677.12599
G0 F6000 X140.49 Y127.86
G1 F5160 X127.96 Y140.39 E677.86277
G0 F6000 X128.67 Y140.39
G1 F5160 X141.20 Y127.86 E678.59954
G0 F6000 X141.91 Y127.86
G1 F5160 X129.38 Y140.39 E679.33629
G0 F6000 X130.08 Y140.39
G1 F5160 X142.61 Y127.86 E680.07303
G0 F6000 X143.32 Y127.86
G1 F5160 X130.79 Y140.39 E680.80978
G0 F6000 X131.50 Y140.39
G1 F5160 X144.03 Y127.86 E681.54655
G0 F6000 X144.73 Y127.86
G1 F5160 X132.20 Y140.39 E682.28333
G0 F6000 X132.91 Y140.39
G1 F5160 X145.44 Y127.86 E683.02010
G0 F6000 X146.15 Y127.86
G1 F5160 X133.62 Y140.39 E683.75688
G0 F6000 X134.32 Y140.39
G1 F5160 X146.85 Y127.86 E684.49365
G0 F6000 X147.56 Y127.86
G1 F5160 X135.03 Y140.39 E685.23043
G0 F6000 X135.74 Y140.39
G1 F5160 X148.27 Y127.86 E685.96717
G0 F6000 X148.98 Y127.86
G1 F5160 X136.45 Y140.39 E686.70392
G0 F6000 X137.15 Y140.39
G1 F5160 X149.57 Y127.97 E687.43414
G0 F6000 X149.57 Y128.67
G1 F5160 X137.86 Y140.39 E688.12279
G0 F6000 X138.57 Y140.39
G1 F5160 X149.57 Y129.38 E688.76987
G0 F6000 X149.57 Y130.09
G1 F5160 X139.27 Y140.39 E689.37538
G0 F6000 X139.98 Y140.39
G1 F5160 X149.57 Y130.79 E689.93932
G0 F6000 X149.57 Y131.50
G1 F5160 X140.69 Y140.39 E690.46167
G0 F6000 X141.40 Y140.39
G1 F5160 X149.57 Y132.21 E690.94244
G0 F6000 X149.57 Y132.92
G1 F5160 X142.10 Y140.39 E691.38162
G0 F6000 X142.81 Y140.39
G1 F5160 X149.57 Y133.62 E691.77923
G0 F6000 X149.57 Y134.33
G1 F5160 X143.52 Y140.39 E692.13527
G0 F6000 X144.22 Y140.39
G1 F5160 X149.57 Y135.04 E692.44974
G0 F6000 X149.57 Y135.74
G1 F5160 X144.93 Y140.39 E692.72265
G0 F6000 X145.64 Y140.39
G1 F5160 X149.57 Y136.45 E692.95398
G0 F6000 X149.57 Y137.16
G1 F5160 X146.34 Y140.39 E693.14374
G0 F6000 X147.05 Y140.39
G1 F5160 X149.57 Y137.87 E693.29191
G0 F6000 X149.57 Y138.57
G1 F5160 X147.76 Y140.39 E693.39851
G0 F6000 X148.47 Y140.39
G1 F5160 X149.57 Y139.28 E693.46354
G0 F6000 X149.57 Y139.99
G1 F5160 X149.17 Y140.39 E693.48697
G0 F6000 X139.08 Y127.86
G1 F5160 X126.94 Y139.99 E694.20034
G0 F6000 X126.94 Y139.28
G1 F5160 X138.37 Y127.86 E694.87212
G0 F6000 X137.66 Y127.86
G1 F5160 X126.94 Y138.57 E695.50232
G0 F6000 X126.94 Y137.87
G1 F5160 X136.96 Y127.86 E696.09093
G0 F6000 X136.25 Y127.86
G1 F5160 X126.94 Y137.16 E696.63797
G0 F6000 X126.94 Y136.45
G1 F5160 X135.54 Y127.86 E697.14344
G0 F6000 X134.83 Y127.86
G1 F5160 X126.94 Y135.75 E697.60734
G0 F6000 X126.94 Y135.04
G1 F5160 X134.13 Y127.86 E698.02968
G0 F6000 X133.42 Y127.86
G1 F5160 X126.94 Y134.33 E698.41044
G0 F6000 X126.94 Y133.62
G1 F5160 X132.71 Y127.86 E698.74963
G0 F6000 X132.01 Y127.86
G1 F5160 X126.94 Y132.92 E699.04723
G0 F6000 X126.94 Y132.21
G1 F5160 X131.30 Y127.86 E699.30326
G0 F6000 X130.59 Y127.86
G1 F5160 X126.94 Y131.50 E699.51772
G0 F6000 X126.94 Y130.79
G1 F5160 X129.88 Y127.86 E699.69058
G0 F6000 X129.18 Y127.86
G1 F5160 X126.94 Y130.09 E699.82187
G0 F6000 X126.94 Y129.38
G1 F5160 X128.47 Y127.86 E699.91159
G0 F6000 X127.76 Y127.86
G1 F5160 X126.94 Y128.67 E699.95975
G0 F6000 X126.94 Y127.97
G1 F5160 X127.06 Y127.86 E699.96633
G0 F6000 X126.77 Y146.06
;TYPE:WALL-INNER
G1 F5160 X149.75 Y146.06 E700.92169
G1 X149.75 Y158.94 E701.45709
G1 X126.77 Y158.94 E702.41245
G1 X126.77 Y146.06 E702.94785
G0 F6000 X126.27 Y145.56
;TYPE:WALL-OUTER
G1 F5160 X150.25 Y145.56 E703.94479
G1 X150.25 Y159.44 E704.52177
G1 X126.27 Y159.44 E705.51870
G1 X126.27 Y145.56 E706.09568
G0 F6000 X126.94 Y146.35
;TYPE:FILL
G1 F5160 X127.06 Y146.24 E706.10250
G0 F6000 X127.77 Y146.24
G1 F5160 X126.94 Y147.06 E706.15089
G0 F6000 X126.94 Y147.76
G1 F5160 X128.47 Y146.24 E706.24084
G0 F6000 X129.18 Y146.24
G1 F5160 X126.94 Y148.47 E706.37237
G0 F6000 X126.94 Y149.18
G1 F5160 X129.89 Y146.24 E706.54547
G0 F6000 X130.60 Y146.24
G1 F5160 X126.94 Y149.89 E706.76013
G0 F6000 X126.94 Y150.59
G1 F5160 X131.30 Y146.24 E707.01640
G0 F6000 X132.01 Y146.24
G1 F5160 X126.94 Y151.30 E707.31426
G0 F6000 X126.94 Y152.01
G1 F5160 X132.72 Y146.24 E707.65369
G0 F6000 X133.43 Y146.24
G1 F5160 X126.94 Y152.72 E708.03469
G0 F6000 X126.94 Y153.42
G1 F5160 X134.13 Y146.24 E708.45725
G0 F6000 X134.84 Y146.24
G1 F5160 X126.94 Y154.13 E708.92139
G0 F6000 X126.94 Y154.84
G1 F5160 X135.55 Y146.24 E709.42710
G0 F6000 X136.25 Y146.24
G1 F5160 X126.94 Y155.54 E709.97437
G0 F6000 X126.94 Y156.25
G1 F5160 X136.96 Y146.24 E710.56322
G0 F6000 X137.67 Y146.24
G1 F5160 X126.94 Y156.96 E711.19366
G0 F6000 X126.94 Y157.66
G1 F5160 X138.38 Y146.24 E711.86570
G0 F6000 X139.08 Y146.24
G1 F5160 X126.94 Y158.37 E712.57931
G0 F6000 X127.26 Y158.76
G1 F5160 X139.79 Y146.24 E713.31591
G0 F6000 X140.50 Y146.24
G1 F5160 X127.97 Y158.76 E714.05250
G0 F6000 X128.68 Y158.76
G1 F5160 X141.20 Y146.24 E714.78910
G0 F6000 X141.91 Y146.24
G1 F5160 X129.38 Y158.76 E715.52570
G0 F6000 X130.09 Y158.76
G1 F5160 X142.62 Y146.24 E716.26230
G0 F6000 X143.32 Y146.24
G1 F5160 X130.80 Y158.76 E716.99887
G0 F6000 X131.50 Y158.76
G1 F5160 X144.03 Y146.24 E717.73544
G0 F6000 X144.74 Y146.24
G1 F5160 X132.21 Y158.76 E718.47204
G0 F6000 X132.92 Y158.76
G1 F5160 X145.45 Y146.24 E719.20863
G0 F6000 X146.15 Y146.24
G1 F5160 X133.62 Y158.76 E719.94523
G0 F6000 X134.33 Y158.76
G1 F5160 X146.86 Y146.24 E720.68183
G0 F6000 X147.57 Y146.24
G1 F5160 X135.04 Y158.76 E721.41843
G0 F6000 X135.75 Y158.76
G1 F5160 X148.27 Y146.24 E722.15503
G0 F6000 X148.98 Y146.24
G1 F5160 X136.45 Y158.76 E722.89163
G0 F6000 X137.16 Y158.76
G1 F5160 X149.57 Y146.35 E723.62143
G0 F6000 X149.57 Y147.06
G1 F5160 X137.87 Y158.76 E724.30967
G0 F6000 X138.57 Y158.76
G1 F5160 X149.57 Y147.76 E724.95634
G0 F6000 X149.57 Y148.47
G1 F5160 X139.28 Y158.76 E725.56144
G0 F6000 X139.99 Y158.76
G1 F5160 X149.57 Y149.18 E726.12494
G0 F6000 X149.57 Y149.89
G1 F5160 X140.70 Y158.76 E726.64688
G0 F6000 X141.40 Y158.76
G1 F5160 X149.57 Y150.59 E727.12724
G0 F6000 X149.57 Y151.30
G1 F5160 X142.11 Y158.76 E727.56604
G0 F6000 X142.82 Y158.76
G1 F5160 X149.57 Y152.01 E727.96327
G0 F6000 X149.57 Y152.71
G1 F5160 X143.52 Y158.76 E728.31892
G0 F6000 X144.23 Y158.76
G1 F5160 X149.57 Y153.42 E728.63298
G0 F6000 X149.57 Y154.13
G1 F5160 X144.94 Y158.76 E728.90547
G0 F6000 X145.65 Y158.76
G1 F5160 X149.57 Y154.84 E729.13640
G0 F6000 X149.57 Y155.54
G1 F5160 X146.35 Y158.76 E729.32575
G0 F6000 X147.06 Y158.76
G1 F5160 X149.57 Y156.25 E729.47350
G0 F6000 X149.57 Y156.96
G1 F5160 X147.77 Y158.76 E729.57969
G0 F6000 X148.47 Y158.76
G1 F5160 X149.57 Y157.66 E729.64431
G0 F6000 X149.57 Y158.37
G1 F5160 X149.18 Y158.76 E729.66735
G0 F6000 X149.75 Y164.44
;TYPE:WALL-INNER
G1 F5160 X149.75 Y177.32 E730.20284
G1 X126.77 Y177.32 E731.15820
G1 X126.77 Y164.44 E731.69369
G1 X149.75 Y164.44 E732.64904
G0 F6000 X150.25 Y163.94
;TYPE:WALL-OUTER
G1 F5160 X150.25 Y177.82 E733.22611
G1 X126.27 Y177.82 E734.22304
G1 X126.27 Y163.94 E734.80010
G1 X150.25 Y163.94 E735.79703
G0 F6000 X149.57 Y164.73
;TYPE:FILL
G1 F5160 X137.16 Y177.14 E736.52663
G0 F6000 X137.87 Y177.14
G1 F5160 X149.57 Y165.44 E737.21467
G0 F6000 X149.57 Y166.15
G1 F5160 X138.58 Y177.14 E737.86113
G0 F6000 X139.29 Y177.14
G1 F5160 X149.57 Y166.85 E738.46602
G0 F6000 X149.57 Y167.56
G1 F5160 X139.99 Y177.14 E739.02932
G0 F6000 X140.70 Y177.14
G1 F5160 X149.57 Y168.27 E739.55105
G0 F6000 X149.57 Y168.98
G1 F5160 X141.41 Y177.14 E740.03121
G0 F6000 X142.12 Y177.14
G1 F5160 X149.57 Y169.68 E740.46977
G0 F6000 X149.57 Y170.39
G1 F5160 X142.82 Y177.14 E740.86676
G0 F6000 X143.53 Y177.14
G1 F5160 X149.57 Y171.10 E741.22218
G0 F6000 X149.57 Y171.81
G1 F5160 X144.24 Y177.14 E741.53604
G0 F6000 X144.94 Y177.14
G1 F5160 X149.57 Y172.51 E741.80832
G0 F6000 X149.57 Y173.22
G1 F5160 X145.65 Y177.14 E742.03904
G0 F6000 X146.36 Y177.14
G1 F5160 X149.57 Y173.93 E742.22816
G0 F6000 X149.57 Y174.63
G1 F5160 X147.06 Y177.14 E742.37571
G0 F6000 X147.77 Y177.14
G1 F5160 X149.57 Y175.34 E742.48169
G0 F6000 X149.57 Y176.05
G1 F5160 X148.48 Y177.14 E742.54610
G0 F6000 X149.19 Y177.14
G1 F5160 X149.57 Y176.75 E742.56891
G0 F6000 X148.99 Y164.61
G1 F5160 X136.46 Y177.14 E743.30563
G0 F6000 X135.75 Y177.14
G1 F5160 X148.28 Y164.61 E744.04234
G0 F6000 X147.57 Y164.61
G1 F5160 X135.04 Y177.14 E744.77909
G0 F6000 X134.34 Y177.14
G1 F5160 X146.87 Y164.61 E745.51583
G0 F6000 X146.16 Y164.61
G1 F5160 X133.63 Y177.14 E746.25258
G0 F6000 X132.92 Y177.14
G1 F5160 X145.45 Y164.61 E746.98932
G0 F6000 X144.75 Y164.61
G1 F5160 X132.22 Y177.14 E747.72607
G0 F6000 X131.51 Y177.14
G1 F5160 X144.04 Y164.61 E748.46281
G0 F6000 X143.33 Y164.61
G1 F5160 X130.80 Y177.14 E749.19953
G0 F6000 X130.09 Y177.14
G1 F5160 X142.62 Y164.61 E749.93625
G0 F6000 X141.92 Y164.61
G1 F5160 X129.39 Y177.14 E750.67296
G0 F6000 X128.68 Y177.14
G1 F5160 X141.21 Y164.61 E751.40971
G0 F6000 X140.50 Y164.61
G1 F5160 X127.97 Y177.14 E752.14645
G0 F6000 X127.27 Y177.14
G1 F5160 X139.80 Y164.61 E752.88320
G0 F6000 X139.09 Y164.61
G1 F5160 X126.94 Y176.76 E753.59725
G0 F6000 X126.94 Y176.05
G1 F5160 X138.38 Y164.61 E754.26973
G0 F6000 X137.68 Y164.61
G1 F5160 X126.94 Y175.34 E754.90064
G0 F6000 X126.94 Y174.64
G1 F5160 X136.97 Y164.61 E755.48996
G0 F6000 X136.26 Y164.61
G1 F5160 X126.94 Y173.93 E756.03770
G0 F6000 X126.94 Y173.22
G1 F5160 X135.55 Y164.61 E756.54388
G0 F6000 X134.85 Y164.61
G1 F5160 X126.94 Y172.51 E757.00845
G0 F6000 X126.94 Y171.81
G1 F5160 X134.14 Y164.61 E757.43146
G0 F6000 X133.43 Y164.61
G1 F5160 X126.94 Y171.10 E757.81290
G0 F6000 X126.94 Y170.39
G1 F5160 X132.72 Y164.61 E758.15277
G0 F6000 X132.02 Y164.61
G1 F5160 X126.94 Y169.69 E758.45108
G0 F6000 X126.94 Y168.98
G1 F5160 X131.31 Y164.61 E758.70781
G0 F6000 X130.60 Y164.61
G1 F5160 X126.94 Y168.27 E758.92298
G0 F6000 X126.94 Y167.56
G1 F5160 X129.90 Y164.61 E759.09654
G0 F6000 X129.19 Y164.61
G1 F5160 X126.94 Y166.86 E759.22854
G0 F6000 X126.94 Y166.15
G1 F5160 X128.48 Y164.61 E759.31897
G0 F6000 X127.78 Y164.61
G1 F5160 X126.94 Y165.44 E759.36780
G0 F6000 X126.94 Y164.74
G1 F5160 X127.07 Y164.61 E759.37506
G0 F6000 X155.25 Y158.94
;TYPE:WALL-INNER
G1 F5160 X155.25 Y146.06 E759.91046
G1 X178.23 Y146.06 E760.86586
G1 X178.23 Y158.94 E761.40127
G1 X155.25 Y158.94 E762.35666
G0 F6000 X154.75 Y159.44
;TYPE:WALL-OUTER
G1 F5160 X154.75 Y145.56 E762.93364
G1 X178.73 Y145.56 E763.93062
G1 X178.73 Y159.44 E764.50760
G1 X154.75 Y159.44 E765.50457
G0 F6000 X155.54 Y158.76
;TYPE:FILL
G1 F5160 X168.07 Y146.24 E766.24117
G0 F6000 X168.78 Y146.24
G1 F5160 X156.25 Y158.76 E766.97777
G0 F6000 X156.96 Y158.76
G1 F5160 X169.49 Y146.24 E767.71436
G0 F6000 X170.19 Y146.24
G1 F5160 X157.67 Y158.76 E768.45096
G0 F6000 X158.37 Y158.76
G1 F5160 X170.90 Y146.24 E769.18759
G0 F6000 X171.61 Y146.24
G1 F5160 X159.08 Y158.76 E769.92422
G0 F6000 X159.79 Y158.76
G1 F5160 X172.32 Y146.24 E770.66085
G0 F6000 X173.02 Y146.24
G1 F5160 X160.49 Y158.76 E771.39747
G0 F6000 X161.20 Y158.76
G1 F5160 X173.73 Y146.24 E772.13410
G0 F6000 X174.44 Y146.24
G1 F5160 X161.91 Y158.76 E772.87070
G0 F6000 X162.62 Y158.76
G1 F5160 X175.14 Y146.24 E773.60730
G0 F6000 X175.85 Y146.24
G1 F5160 X163.32 Y158.76 E774.34390
G0 F6000 X164.03 Y158.76
G1 F5160 X176.56 Y146.24 E775.08050
G0 F6000 X177.27 Y146.24
G1 F5160 X164.74 Y158.76 E775.81712
G0 F6000 X165.44 Y158.76
G1 F5160 X177.97 Y146.24 E776.55375
G0 F6000 X178.05 Y146.86
G1 F5160 X166.15 Y158.76 E777.25345
G0 F6000 X166.86 Y158.76
G1 F5160 X178.05 Y147.57 E777.91159
G0 F6000 X178.05 Y148.28
G1 F5160 X167.56 Y158.76 E778.52816
G0 F6000 X168.27 Y158.76
G1 F5160 X178.05 Y148.98 E779.10312
G0 F6000 X178.05 Y149.69
G1 F5160 X168.98 Y158.76 E779.63652
G0 F6000 X169.69 Y158.76
G1 F5160 X178.05 Y150.40 E780.12835
G0 F6000 X178.05 Y151.10
G1 F5160 X170.39 Y158.76 E780.57861
G0 F6000 X171.10 Y158.76
G1 F5160 X178.05 Y151.81 E780.98731
G0 F6000 X178.05 Y152.52
G1 F5160 X171.81 Y158.76 E781.35440
G0 F6000 X172.51 Y158.76
G1 F5160 X178.05 Y153.23 E781.67992
G0 F6000 X178.05 Y153.93
G1 F5160 X173.22 Y158.76 E781.96388
G0 F6000 X173.93 Y158.76
G1 F5160 X178.05 Y154.64 E782.20627
G0 F6000 X178.05 Y155.35
G1 F5160 X174.64 Y158.76 E782.40709
G0 F6000 X175.34 Y158.76
G1 F5160 X178.05 Y156.06 E782.56631
G0 F6000 X178.05 Y156.76
G1 F5160 X176.05 Y158.76 E782.68396
G0 F6000 X176.76 Y158.76
G1 F5160 X178.05 Y157.47 E782.76004
G0 F6000 X178.05 Y158.18
G1 F5160 X177.47 Y158.76 E782.79455
G0 F6000 X167.37 Y146.24
G1 F5160 X155.42 Y158.18 E783.49681
G0 F6000 X155.42 Y157.47
G1 F5160 X166.66 Y146.24 E784.15748
G0 F6000 X165.95 Y146.24
G1 F5160 X155.42 Y156.76 E784.77657
G0 F6000 X155.42 Y156.06
G1 F5160 X165.25 Y146.24 E785.35410
G0 F6000 X164.54 Y146.24
G1 F5160 X155.42 Y155.35 E785.89005
G0 F6000 X155.42 Y154.64
G1 F5160 X163.83 Y146.24 E786.38441
G0 F6000 X163.12 Y146.24
G1 F5160 X155.42 Y153.94 E786.83720
G0 F6000 X155.42 Y153.23
G1 F5160 X162.42 Y146.24 E787.24842
G0 F6000 X161.71 Y146.24
G1 F5160 X155.42 Y152.52 E787.61807
G0 F6000 X155.42 Y151.81
G1 F5160 X161.00 Y146.24 E787.94616
G0 F6000 X160.29 Y146.24
G1 F5160 X155.42 Y151.11 E788.23267
G0 F6000 X155.42 Y150.40
G1 F5160 X159.59 Y146.24 E788.47758
G0 F6000 X158.88 Y146.24
G1 F5160 X155.42 Y149.69 E788.68093
G0 F6000 X155.42 Y148.99
G1 F5160 X158.17 Y146.24 E788.84271
G0 F6000 X157.47 Y146.24
G1 F5160 X155.42 Y148.28 E788.96292
G0 F6000 X155.42 Y147.57
G1 F5160 X156.76 Y146.24 E789.04153
G0 F6000 X156.05 Y146.24
G1 F5160 X155.42 Y146.87 E789.07857
;LAYER:4
G0 F6000 X155.25 Y146.06 Z1.10
;TYPE:WALL-INNER
G1 X178.23 Y146.06 E790.03397
G1 X178.23 Y158.94 E790.56937
G1 X155.25 Y158.94 E791.52477
G1 X155.25 Y146.06 E792.06017
G0 X154.75 Y145.56
;TYPE:WALL-OUTER
G1 X178.73 Y145.56 E793.05715
G1 X178.73 Y159.44 E793.63413
G1 X154.75 Y159.44 E794.63110
G1 X154.75 Y145.56 E795.20808
G0 X155.42 Y146.58
;TYPE:FILL
G1 X167.60 Y158.76 E795.92419
G0 X166.89 Y158.76
G1 X155.42 Y147.29 E796.59870
G0 X155.42 Y148.00
G1 X166.19 Y158.76 E797.23164
G0 X165.48 Y158.76
G1 X155.42 Y148.71 E797.82301
G0 X155.42 Y149.41
G1 X164.77 Y158.76 E798.37281
G0 X164.07 Y158.76
G1 X155.42 Y150.12 E798.88105
G0 X155.42 Y150.83
G1 X163.36 Y158.76 E799.34771
G0 X162.65 Y158.76
G1 X155.42 Y151.53 E799.77281
G0 X155.42 Y152.24
G1 X161.94 Y158.76 E800.15634
G0 X161.24 Y158.76
G1 X155.42 Y152.95 E800.49829
G0 X155.42 Y153.66
G1 X160.53 Y158.76 E800.79862
G0 X159.82 Y158.76
G1 X155.42 Y154.36 E801.05739
G0 X155.42 Y155.07
G1 X159.12 Y158.76 E801.27458
G0 X158.41 Y158.76
G1 X155.42 Y155.78 E801.45020
G0 X155.42 Y156.48
G1 X157.70 Y158.76 E801.58426
G0 X157.00 Y158.76
G1 X155.42 Y157.19 E801.67675
G0 X155.42 Y157.90
G1 X156.29 Y158.76 E801.72766
G0 X155.58 Y158.76
G1 X155.42 Y158.60 E801.73701
G0 X155.78 Y146.24
G1 X168.31 Y158.76 E802.47358
G0 X169.02 Y158.76
G1 X156.49 Y146.24 E803.21012
G0 X157.20 Y146.24
G1 X169.72 Y158.76 E803.94666
G0 X170.43 Y158.76
G1 X157.90 Y146.24 E804.68320
G0 X158.61 Y146.24
G1 X171.14 Y158.76 E805.41974
G0 X171.84 Y158.76
G1 X159.32 Y146.24 E806.15628
G0 X160.02 Y146.24
G1 X172.55 Y158.76 E806.89282
G0 X173.26 Y158.76
G1 X160.73 Y146.24 E807.62936
G0 X161.44 Y146.24
G1 X173.97 Y158.76 E808.36590
G0 X174.67 Y158.76
G1 X162.15 Y146.24 E809.10247
G0 X162.85 Y146.24
G1 X175.38 Y158.76 E809.83901
G0 X176.09 Y158.76
G1 X163.56 Y146.24 E810.57555
G0 X164.27 Y146.24
G1 X176.79 Y158.76 E811.31209
G0 X177.50 Y158.76
G1 X164.97 Y146.24 E812.04862
G0 X165.68 Y146.24
G1 X178.05 Y158.61 E812.77596
G0 X178.05 Y157.90
G1 X166.39 Y146.24 E813.46173
G0 X167.09 Y146.24
G1 X178.05 Y157.19 E814.10593
G0 X178.05 Y156.49
G1 X167.80 Y146.24 E814.70856
G0 X168.51 Y146.24
G1 X178.05 Y155.78 E815.26963
G0 X178.05 Y155.07
G1 X169.22 Y146.24 E815.78909
G0 X169.92 Y146.24
G1 X178.05 Y154.36 E816.26699
G0 X178.05 Y153.66
G1 X170.63 Y146.24 E816.70331
G0 X171.34 Y146.24
G1 X178.05 Y152.95 E817.09807
G0 X178.05 Y152.24
G1 X172.04 Y146.24 E817.45123
G0 X172.75 Y146.24
G1 X178.05 Y151.53 E817.76282
G0 X178.05 Y150.83
G1 X173.46 Y146.24 E818.03284
G0 X174.17 Y146.24
G1 X178.05 Y150.12 E818.26129
G0 X178.05 Y149.41
G1 X174.87 Y146.24 E818.44818
G0 X175.58 Y146.24
G1 X178.05 Y148.71 E818.59349
G0 X178.05 Y148.00
G1 X176.29 Y146.24 E818.69721
G0 X177.00 Y146.24
G1 X178.05 Y147.29 E818.75935
G0 X178.05 Y146.59
G1 X177.70 Y146.24 E818.77993
G0 X149.75 Y146.06
;TYPE:WALL-INNER
G1 X149.75 Y158.94 E819.31534
G1 X126.77 Y158.94 E820.27069
G1 X126.77 Y146.06 E820.80610
G1 X149.75 Y146.06 E821.76146
G0 X150.25 Y145.56
;TYPE:WALL-OUTER
G1 X150.25 Y159.44 E822.33844
G1 X126.27 Y159.44 E823.33537
G1 X126.27 Y145.56 E823.91235
G1 X150.25 Y145.56 E824.90928
G0 X149.57 Y146.39
;TYPE:FILL
G1 X149.42 Y146.24 E824.91839
G0 X148.71 Y146.24
G1 X149.57 Y147.10 E824.96910
G0 X149.57 Y147.81
G1 X148.00 Y146.24 E825.06138
G0 X147.30 Y146.24
G1 X149.57 Y148.51 E825.19523
G0 X149.57 Y149.22
G1 X146.59 Y146.24 E825.37068
G0 X145.88 Y146.24
G1 X149.57 Y149.93 E825.58770
G0 X149.57 Y150.63
G1 X145.18 Y146.24 E825.84628
G0 X144.47 Y146.24
G1 X149.57 Y151.34 E826.14644
G0 X149.57 Y152.05
G1 X143.76 Y146.24 E826.48816
G0 X143.05 Y146.24
G1 X149.57 Y152.75 E826.87145
G0 X149.57 Y153.46
G1 X142.35 Y146.24 E827.29634
G0 X141.64 Y146.24
G1 X149.57 Y154.17 E827.76280
G0 X149.57 Y154.88
G1 X140.93 Y146.24 E828.27083
G0 X140.22 Y146.24
G1 X149.57 Y155.58 E828.82043
G0 X149.57 Y156.29
G1 X139.52 Y146.24 E829.41162
G0 X138.81 Y146.24
G1 X149.57 Y157.00 E830.04439
G0 X149.57 Y157.71
G1 X138.10 Y146.24 E830.71872
G0 X137.40 Y146.24
G1 X149.57 Y158.41 E831.43462
G0 X149.22 Y158.76
G1 X136.69 Y146.24 E832.17116
G0 X135.98 Y146.24
G1 X148.51 Y158.76 E832.90773
G0 X147.80 Y158.76
G1 X135.28 Y146.24 E833.64427
G0 X134.57 Y146.24
G1 X147.09 Y158.76 E834.38081
G0 X146.39 Y158.76
G1 X133.86 Y146.24 E835.11735
G0 X133.15 Y146.24
G1 X145.68 Y158.76 E835.85389
G0 X144.97 Y158.76
G1 X132.45 Y146.24 E836.59043
G0 X131.74 Y146.24
G1 X144.27 Y158.76 E837.32697
G0 X143.56 Y158.76
G1 X131.03 Y146.24 E838.06351
G0 X130.33 Y146.24
G1 X142.85 Y158.76 E838.80005
G0 X142.15 Y158.76
G1 X129.62 Y146.24 E839.53659
G0 X128.91 Y146.24
G1 X141.44 Y158.76 E840.27316
G0 X140.73 Y158.76
G1 X128.20 Y146.24 E841.00970
G0 X127.50 Y146.24
G1 X140.02 Y158.76 E841.74624
G0 X139.32 Y158.76
G1 X126.94 Y146.39 E842.47372
G0 X126.94 Y147.10
G1 X138.61 Y158.76 E843.15964
G0 X137.90 Y158.76
G1 X126.94 Y147.80 E843.80398
G0 X126.94 Y148.51
G1 X137.20 Y158.76 E844.40676
G0 X136.49 Y158.76
G1 X126.94 Y149.22 E844.96797
G0 X126.94 Y149.93
G1 X135.78 Y158.76 E845.48761
G0 X135.07 Y158.76
G1 X126.94 Y150.63 E845.96568
G0 X126.94 Y151.34
G1 X134.37 Y158.76 E846.40216
G0 X133.66 Y158.76
G1 X126.94 Y152.05 E846.79703
G0 X126.94 Y152.75
G1 X132.95 Y158.76 E847.15034
G0 X132.25 Y158.76
G1 X126.94 Y153.46 E847.46208
G0 X126.94 Y154.17
G1 X131.54 Y158.76 E847.73224
G0 X130.83 Y158.76
G1 X126.94 Y154.88 E847.96084
G0 X126.94 Y155.58
G1 X130.12 Y158.76 E848.14787
G0 X129.42 Y158.76
G1 X126.94 Y156.29 E848.29334
G0 X126.94 Y157.00
G1 X128.71 Y158.76 E848.39723
G0 X128.00 Y158.76
G1 X126.94 Y157.70 E848.45955
G0 X126.94 Y158.41
G1 X127.30 Y158.76 E848.48025
G0 X126.77 Y140.56
;TYPE:WALL-INNER
G1 X126.77 Y127.68 E849.01574
G1 X149.75 Y127.68 E849.97109
G1 X149.75 Y140.56 E850.50658
G1 X126.77 Y140.56 E851.46194
G0 X126.27 Y141.06
;TYPE:WALL-OUTER
G1 X126.27 Y127.18 E852.03900
G1 X150.25 Y127.18 E853.03593
G1 X150.25 Y141.06 E853.61300
G1 X126.27 Y141.06 E854.60993
G0 X127.30 Y140.38
;TYPE:FILL
G1 X126.94 Y140.03 E854.63103
G0 X126.94 Y139.32
G1 X128.01 Y140.38 E854.69374
G0 X128.72 Y140.38
G1 X126.94 Y138.61 E854.79802
G0 X126.94 Y137.90
G1 X129.43 Y140.38 E854.94389
G0 X130.13 Y140.38
G1 X126.94 Y137.20 E855.13133
G0 X126.94 Y136.49
G1 X130.84 Y140.38 E855.36034
G0 X131.55 Y140.38
G1 X126.94 Y135.78 E855.63092
G0 X126.94 Y135.08
G1 X132.25 Y140.38 E855.94307
G0 X132.96 Y140.38
G1 X126.94 Y134.37 E856.29679
G0 X126.94 Y133.66
G1 X133.67 Y140.38 E856.69207
G0 X134.38 Y140.38
G1 X126.94 Y132.96 E857.12896
G0 X126.94 Y132.25
G1 X135.08 Y140.38 E857.60741
G0 X135.79 Y140.38
G1 X126.94 Y131.54 E858.12747
G0 X126.94 Y130.83
G1 X136.50 Y140.38 E858.68909
G0 X137.20 Y140.38
G1 X126.94 Y130.13 E859.29228
G0 X126.94 Y129.42
G1 X137.91 Y140.38 E859.93704
G0 X138.62 Y140.38
G1 X126.94 Y128.71 E860.62336
G0 X126.94 Y128.00
G1 X139.32 Y140.38 E861.35126
G0 X140.03 Y140.38
G1 X127.50 Y127.86 E862.08792
G0 X128.21 Y127.86
G1 X140.74 Y140.38 E862.82457
G0 X141.45 Y140.38
G1 X128.92 Y127.86 E863.56126
G0 X129.62 Y127.86
G1 X142.15 Y140.38 E864.29795
G0 X142.86 Y140.38
G1 X130.33 Y127.86 E865.03460
G0 X131.04 Y127.86
G1 X143.57 Y140.38 E865.77126
G0 X144.27 Y140.38
G1 X131.75 Y127.86 E866.50792
G0 X132.45 Y127.86
G1 X144.98 Y140.38 E867.24458
G0 X145.69 Y140.38
G1 X133.16 Y127.86 E867.98123
G0 X133.87 Y127.86
G1 X146.40 Y140.38 E868.71789
G0 X147.10 Y140.38
G1 X134.57 Y127.86 E869.45455
G0 X135.28 Y127.86
G1 X147.81 Y140.38 E870.19123
G0 X148.52 Y140.38
G1 X135.99 Y127.86 E870.92792
G0 X136.69 Y127.86
G1 X149.22 Y140.38 E871.66458
G0 X149.57 Y140.03
G1 X137.40 Y127.86 E872.38013
G0 X138.11 Y127.86
G1 X149.57 Y139.32 E873.05411
G0 X149.57 Y138.61
G1 X138.82 Y127.86 E873.68652
G0 X139.52 Y127.86
G1 X149.57 Y137.91 E874.27736
G0 X149.57 Y137.20
G1 X140.23 Y127.86 E874.82664
G0 X140.94 Y127.86
G1 X149.57 Y136.49 E875.33434
G0 X149.57 Y135.78
G1 X141.64 Y127.86 E875.80048
G0 X142.35 Y127.86
G1 X149.57 Y135.08 E876.22504
G0 X149.57 Y134.37
G1 X143.06 Y127.86 E876.60801
G0 X143.77 Y127.86
G1 X149.57 Y133.66 E876.94938
G0 X149.57 Y132.96
G1 X144.47 Y127.86 E877.24918
G0 X145.18 Y127.86
G1 X149.57 Y132.25 E877.50742
G0 X149.57 Y131.54
G1 X145.89 Y127.86 E877.72408
G0 X146.59 Y127.86
G1 X149.57 Y130.83 E877.89918
G0 X149.57 Y130.13
G1 X147.30 Y127.86 E878.03270
G0 X148.01 Y127.86
G1 X149.57 Y129.42 E878.12466
G0 X149.57 Y128.71
G1 X148.72 Y127.86 E878.17505
G0 X149.42 Y127.86
G1 X149.57 Y128.01 E878.18387
G0 X149.75 Y164.44
;TYPE:WALL-INNER
G1 X149.75 Y177.32 E878.71936
G1 X126.77 Y177.32 E879.67471
G1 X126.77 Y164.44 E880.21020
G1 X149.75 Y164.44 E881.16556
G0 X150.25 Y163.94
;TYPE:WALL-OUTER
G1 X150.25 Y177.82 E881.74262
G1 X126.27 Y177.82 E882.73955
G1 X126.27 Y163.94 E883.31661
G1 X150.25 Y163.94 E884.31354
G0 X149.57 Y164.78
;TYPE:FILL
G1 X149.41 Y164.61 E884.32319
G0 X148.70 Y164.61
G1 X149.57 Y165.48 E884.37440
G0 X149.57 Y166.19
G1 X148.00 Y164.61 E884.46718
G0 X147.29 Y164.61
G1 X149.57 Y166.90 E884.60153
G0 X149.57 Y167.60
G1 X146.58 Y164.61 E884.77745
G0 X145.88 Y164.61
G1 X149.57 Y168.31 E884.99493
G0 X149.57 Y169.02
G1 X145.17 Y164.61 E885.25399
G0 X144.46 Y164.61
G1 X149.57 Y169.73 E885.55461
G0 X149.57 Y170.43
G1 X143.75 Y164.61 E885.89681
G0 X143.05 Y164.61
G1 X149.57 Y171.14 E886.28063
G0 X149.57 Y171.85
G1 X142.34 Y164.61 E886.70602
G0 X141.63 Y164.61
G1 X149.57 Y172.56 E887.17298
G0 X149.57 Y173.26
G1 X140.93 Y164.61 E887.68151
G0 X140.22 Y164.61
G1 X149.57 Y173.97 E888.23160
G0 X149.57 Y174.68
G1 X139.51 Y164.61 E888.82327
G0 X138.80 Y164.61
G1 X149.57 Y175.38 E889.45650
G0 X149.57 Y176.09
G1 X138.10 Y164.61 E890.13131
G0 X137.39 Y164.61
G1 X149.57 Y176.80 E890.84768
G0 X149.21 Y177.14
G1 X136.68 Y164.61 E891.58434
G0 X135.97 Y164.61
G1 X148.50 Y177.14 E892.32102
G0 X147.80 Y177.14
G1 X135.27 Y164.61 E893.05771
G0 X134.56 Y164.61
G1 X147.09 Y177.14 E893.79437
G0 X146.38 Y177.14
G1 X133.85 Y164.61 E894.53102
G0 X133.15 Y164.61
G1 X145.68 Y177.14 E895.26768
G0 X144.97 Y177.14
G1 X132.44 Y164.61 E896.00434
G0 X131.73 Y164.61
G1 X144.26 Y177.14 E896.74100
G0 X143.56 Y177.14
G1 X131.03 Y164.61 E897.47765
G0 X130.32 Y164.61
G1 X142.85 Y177.14 E898.21431
G0 X142.14 Y177.14
G1 X129.61 Y164.61 E898.95100
G0 X128.90 Y164.61
G1 X141.43 Y177.14 E899.68768
G0 X140.73 Y177.14
G1 X128.20 Y164.61 E900.42434
G0 X127.49 Y164.61
G1 X140.02 Y177.14 E901.16100
G0 X139.31 Y177.14
G1 X126.94 Y164.77 E901.88819
G0 X126.94 Y165.48
G1 X138.60 Y177.14 E902.57378
G0 X137.90 Y177.14
G1 X126.94 Y166.19 E903.21781
G0 X126.94 Y166.90
G1 X137.19 Y177.14 E903.82026
G0 X136.48 Y177.14
G1 X126.94 Y167.60 E904.38115
G0 X126.94 Y168.31
G1 X135.78 Y177.14 E904.90046
G0 X135.07 Y177.14
G1 X126.94 Y169.02 E905.37821
G0 X126.94 Y169.72
G1 X134.36 Y177.14 E905.81439
G0 X133.66 Y177.14
G1 X126.94 Y170.43 E906.20897
G0 X126.94 Y171.14
G1 X132.95 Y177.14 E906.56198
G0 X132.24 Y177.14
G1 X126.94 Y171.85 E906.87340
G0 X126.94 Y172.55
G1 X131.53 Y177.14 E907.14324
G0 X130.83 Y177.14
G1 X126.94 Y173.26 E907.37152
G0 X126.94 Y173.97
G1 X130.12 Y177.14 E907.55823
G0 X129.41 Y177.14
G1 X126.94 Y174.67 E907.70337
G0 X126.94 Y175.38
G1 X128.71 Y177.14 E907.80693
G0 X128.00 Y177.14
G1 X126.94 Y176.09 E907.86894
G0 X126.94 Y176.79
G1 X127.29 Y177.14 E907.88934
;LAYER:5
G0 X126.77 Y177.32 Z1.30
;TYPE:WALL-INNER
G1 X126.77 Y164.44 E908.42483
G1 X149.75 Y164.44 E909.38018
G1 X149.75 Y177.32 E909.91567
G1 X126.77 Y177.32 E910.87103
G0 X126.27 Y177.82
;TYPE:WALL-OUTER
G1 X126.27 Y163.94 E911.44809
G1 X150.25 Y163.94 E912.44502
G1 X150.25 Y177.82 E913.02208
G1 X126.27 Y177.82 E914.01901
G0 X127.27 Y177.14
;TYPE:FILL
G1 X139.80 Y164.61 E914.75576
G0 X140.50 Y164.61
G1 X127.97 Y177.14 E915.49250
G0 X128.68 Y177.14
G1 X141.21 Y164.61 E916.22925
G0 X141.92 Y164.61
G1 X129.39 Y177.14 E916.96597
G0 X130.09 Y177.14
G1 X142.62 Y164.61 E917.70268
G0 X143.33 Y164.61
G1 X130.80 Y177.14 E918.43940
G0 X131.51 Y177.14
G1 X144.04 Y164.61 E919.17614
G0 X144.75 Y164.61
G1 X132.22 Y177.14 E919.91289
G0 X132.92 Y177.14
G1 X145.45 Y164.61 E920.64963
G0 X146.16 Y164.61
G1 X133.63 Y177.14 E921.38638
G0 X134.34 Y177.14
G1 X146.87 Y164.61 E922.12312
G0 X147.57 Y164.61
G1 X135.04 Y177.14 E922.85987
G0 X135.75 Y177.14
G1 X148.28 Y164.61 E923.59659
G0 X148.99 Y164.61
G1 X136.46 Y177.14 E924.33330
G0 X137.16 Y177.14
G1 X149.57 Y164.73 E925.06290
G0 X149.57 Y165.44
G1 X137.87 Y177.14 E925.75094
G0 X138.58 Y177.14
G1 X149.57 Y166.15 E926.39740
G0 X149.57 Y166.85
G1 X139.29 Y177.14 E927.00230
G0 X139.99 Y177.14
G1 X149.57 Y167.56 E927.56559
G0 X149.57 Y168.27
G1 X140.70 Y177.14 E928.08732
G0 X141.41 Y177.14
G1 X149.57 Y168.98 E928.56748
G0 X149.57 Y169.68
G1 X142.12 Y177.14 E929.00604
G0 X142.82 Y177.14
G1 X149.57 Y170.39 E929.40303
G0 X149.57 Y171.10
G1 X143.53 Y177.14 E929.75845
G0 X144.24 Y177.14
G1 X149.57 Y171.81 E930.07231
G0 X149.57 Y172.51
G1 X144.94 Y177.14 E930.34459
G0 X145.65 Y177.14
G1 X149.57 Y173.22 E930.57531
G0 X149.57 Y173.93
G1 X146.36 Y177.14 E930.76443
G0 X147.06 Y177.14
G1 X149.57 Y174.63 E930.91198
G0 X149.57 Y175.34
G1 X147.77 Y177.14 E931.01796
G0 X148.48 Y177.14
G1 X149.57 Y176.05 E931.08237
G0 X149.57 Y176.75
G1 X149.19 Y177.14 E931.10518
G0 X139.09 Y164.61
G1 X126.94 Y176.76 E931.81923
G0 X126.94 Y176.05
G1 X138.38 Y164.61 E932.49171
G0 X137.68 Y164.61
G1 X126.94 Y175.34 E933.12262
G0 X126.94 Y174.64
G1 X136.97 Y164.61 E933.71194
G0 X136.26 Y164.61
G1 X126.94 Y173.93 E934.25968
G0 X126.94 Y173.22
G1 X135.55 Y164.61 E934.76586
G0 X134.85 Y164.61
G1 X126.94 Y172.51 E935.23044
G0 X126.94 Y171.81
G1 X134.14 Y164.61 E935.65345
G0 X133.43 Y164.61
G1 X126.94 Y171.10 E936.03489
G0 X126.94 Y170.39
G1 X132.72 Y164.61 E936.37476
G0 X132.02 Y164.61
G1 X126.94 Y169.69 E936.67306
G0 X126.94 Y168.98
G1 X131.31 Y164.61 E936.92979
G0 X130.60 Y164.61
G1 X126.94 Y168.27 E937.14496
G0 X126.94 Y167.56
G1 X129.90 Y164.61 E937.31852
G0 X129.19 Y164.61
G1 X126.94 Y166.86 E937.45052
G0 X126.94 Y166.15
G1 X128.48 Y164.61 E937.54095
G0 X127.78 Y164.61
G1 X126.94 Y165.44 E937.58978
G0 X126.94 Y164.74
G1 X127.07 Y164.61 E937.59704
G0 X126.77 Y158.94
;TYPE:WALL-INNER
G1 X126.77 Y146.06 E938.13245
G1 X149.75 Y146.06 E939.08780
G1 X149.75 Y158.94 E939.62321
G1 X126.77 Y158.94 E940.57856
G0 X126.27 Y159.44
;TYPE:WALL-OUTER
G1 X126.27 Y145.56 E941.15554
G1 X150.25 Y145.56 E942.15247
G1 X150.25 Y159.44 E942.72945
G1 X126.27 Y159.44 E943.72639
G0 X127.26 Y158.76
;TYPE:FILL
G1 X139.79 Y146.24 E944.46298
G0 X140.50 Y146.24
G1 X127.97 Y158.76 E945.19958
G0 X128.68 Y158.76
G1 X141.20 Y146.24 E945.93618
G0 X141.91 Y146.24
G1 X129.38 Y158.76 E946.67278
G0 X130.09 Y158.76
G1 X142.62 Y146.24 E947.40938
G0 X143.32 Y146.24
G1 X130.80 Y158.76 E948.14595
G0 X131.50 Y158.76
G1 X144.03 Y146.24 E948.88252
G0 X144.74 Y146.24
G1 X132.21 Y158.76 E949.61911
G0 X132.92 Y158.76
G1 X145.45 Y146.24 E950.35571
G0 X146.15 Y146.24
G1 X133.62 Y158.76 E951.09231
G0 X134.33 Y158.76
G1 X146.86 Y146.24 E951.82891
G0 X147.57 Y146.24
G1 X135.04 Y158.76 E952.56551
G0 X135.75 Y158.76
G1 X148.27 Y146.24 E953.30211
G0 X148.98 Y146.24
G1 X136.45 Y158.76 E954.03870
G0 X137.16 Y158.76
G1 X149.57 Y146.35 E954.76851
G0 X149.57 Y147.06
G1 X137.87 Y158.76 E955.45675
G0 X138.57 Y158.76
G1 X149.57 Y147.76 E956.10342
G0 X149.57 Y148.47
G1 X139.28 Y158.76 E956.70852
G0 X139.99 Y158.76
G1 X149.57 Y149.18 E957.27202
G0 X149.57 Y149.89
G1 X140.70 Y158.76 E957.79396
G0 X141.40 Y158.76
G1 X149.57 Y150.59 E958.27432
G0 X149.57 Y151.30
G1 X142.11 Y158.76 E958.71312
G0 X142.82 Y158.76
G1 X149.57 Y152.01 E959.11034
G0 X149.57 Y152.71
G1 X143.52 Y158.76 E959.46600
G0 X144.23 Y158.76
G1 X149.57 Y153.42 E959.78006
G0 X149.57 Y154.13
G1 X144.94 Y158.76 E960.05255
G0 X145.65 Y158.76
G1 X149.57 Y154.84 E960.28347
G0 X149.57 Y155.54
G1 X146.35 Y158.76 E960.47283
G0 X147.06 Y158.76
G1 X149.57 Y156.25 E960.62058
G0 X149.57 Y156.96
G1 X147.77 Y158.76 E960.72677
G0 X148.47 Y158.76
G1 X149.57 Y157.66 E960.79139
G0 X149.57 Y158.37
G1 X149.18 Y158.76 E960.81443
G0 X139.08 Y146.24
G1 X126.94 Y158.37 E961.52804
G0 X126.94 Y157.66
G1 X138.38 Y146.24 E962.20008
G0 X137.67 Y146.24
G1 X126.94 Y156.96 E962.83052
G0 X126.94 Y156.25
G1 X136.96 Y146.24 E963.41937
G0 X136.25 Y146.24
G1 X126.94 Y155.54 E963.96664
G0 X126.94 Y154.84
G1 X135.55 Y146.24 E964.47235
G0 X134.84 Y146.24
G1 X126.94 Y154.13 E964.93649
G0 X126.94 Y153.42
G1 X134.13 Y146.24 E965.35905
G0 X133.43 Y146.24
G1 X126.94 Y152.72 E965.74005
G0 X126.94 Y152.01
G1 X132.72 Y146.24 E966.07948
G0 X132.01 Y146.24
G1 X126.94 Y151.30 E966.37734
G0 X126.94 Y150.59
G1 X131.30 Y146.24 E966.63361
G0 X130.60 Y146.24
G1 X126.94 Y149.89 E966.84827
G0 X126.94 Y149.18
G1 X129.89 Y146.24 E967.02137
G0 X129.18 Y146.24
G1 X126.94 Y148.47 E967.15290
G0 X126.94 Y147.76
G1 X128.47 Y146.24 E967.24285
G0 X127.77 Y146.24
G1 X126.94 Y147.06 E967.29124
G0 X126.94 Y146.35
G1 X127.06 Y146.24 E967.29806
G0 X126.77 Y140.56
;TYPE:WALL-INNER
G1 X126.77 Y127.68 E967.83355
G1 X149.75 Y127.68 E968.78891
G1 X149.75 Y140.56 E969.32440
G1 X126.77 Y140.56 E970.27975
G0 X126.27 Y141.06
;TYPE:WALL-OUTER
G1 X126.27 Y127.18 E970.85681
G1 X150.25 Y127.18 E971.85375
G1 X150.25 Y141.06 E972.43081
G1 X126.27 Y141.06 E973.42774
G0 X127.25 Y140.39
;TYPE:FILL
G1 X139.78 Y127.86 E974.16451
G0 X140.49 Y127.86
G1 X127.96 Y140.39 E974.90129
G0 X128.67 Y140.39
G1 X141.20 Y127.86 E975.63806
G0 X141.91 Y127.86
G1 X129.38 Y140.39 E976.37481
G0 X130.08 Y140.39
G1 X142.61 Y127.86 E977.11155
G0 X143.32 Y127.86
G1 X130.79 Y140.39 E977.84830
G0 X131.50 Y140.39
G1 X144.03 Y127.86 E978.58507
G0 X144.73 Y127.86
G1 X132.20 Y140.39 E979.32185
G0 X132.91 Y140.39
G1 X145.44 Y127.86 E980.05862
G0 X146.15 Y127.86
G1 X133.62 Y140.39 E980.79540
G0 X134.32 Y140.39
G1 X146.85 Y127.86 E981.53217
G0 X147.56 Y127.86
G1 X135.03 Y140.39 E982.26895
G0 X135.74 Y140.39
G1 X148.27 Y127.86 E983.00569
G0 X148.98 Y127.86
G1 X136.45 Y140.39 E983.74244
G0 X137.15 Y140.39
G1 X149.57 Y127.97 E984.47266
G0 X149.57 Y128.67
G1 X137.86 Y140.39 E985.16131
G0 X138.57 Y140.39
G1 X149.57 Y129.38 E985.80839
G0 X149.57 Y130.09
G1 X139.27 Y140.39 E986.41390
G0 X139.98 Y140.39
G1 X149.57 Y130.79 E986.97785
G0 X149.57 Y131.50
G1 X140.69 Y140.39 E987.50019
G0 X141.40 Y140.39
G1 X149.57 Y132.21 E987.98097
G0 X149.57 Y132.92
G1 X142.10 Y140.39 E988.42015
G0 X142.81 Y140.39
G1 X149.57 Y133.62 E988.81775
G0 X149.57 Y134.33
G1 X143.52 Y140.39 E989.17379
G0 X144.22 Y140.39
G1 X149.57 Y135.04 E989.48827
G0 X149.57 Y135.74
G1 X144.93 Y140.39 E989.76117
G0 X145.64 Y140.39
G1 X149.57 Y136.45 E989.99250
G0 X149.57 Y137.16
G1 X146.34 Y140.39 E990.18227
G0 X147.05 Y140.39
G1 X149.57 Y137.87 E990.33043
G0 X149.57 Y138.57
G1 X147.76 Y140.39 E990.43703
G0 X148.47 Y140.39
G1 X149.57 Y139.28 E990.50206
G0 X149.57 Y139.99
G1 X149.17 Y140.39 E990.52549
G0 X139.08 Y127.86
G1 X126.94 Y139.99 E991.23886
G0 X126.94 Y139.28
G1 X138.37 Y127.86 E991.91064
G0 X137.66 Y127.86
G1 X126.94 Y138.57 E992.54085
G0 X126.94 Y137.87
G1 X136.96 Y127.86 E993.12945
G0 X136.25 Y127.86
G1 X126.94 Y137.16 E993.67649
G0 X126.94 Y136.45
G1 X135.54 Y127.86 E994.18196
G0 X134.83 Y127.86
G1 X126.94 Y135.75 E994.64587
G0 X126.94 Y135.04
G1 X134.13 Y127.86 E995.06820
G0 X133.42 Y127.86
G1 X126.94 Y134.33 E995.44896
G0 X126.94 Y133.62
G1 X132.71 Y127.86 E995.78816
G0 X132.01 Y127.86
G1 X126.94 Y132.92 E996.08575
G0 X126.94 Y132.21
G1 X131.30 Y127.86 E996.34178
G0 X130.59 Y127.86
G1 X126.94 Y131.50 E996.55624
G0 X126.94 Y130.79
G1 X129.88 Y127.86 E996.72910
G0 X129.18 Y127.86
G1 X126.94 Y130.09 E996.86039
G0 X126.94 Y129.38
G1 X128.47 Y127.86 E996.95012
G0 X127.76 Y127.86
G1 X126.94 Y128.67 E996.99827
G0 X126.94 Y127.97
G1 X127.06 Y127.86 E997.00486
G0 X155.25 Y146.06
;TYPE:WALL-INNER
G1 X178.23 Y146.06 E997.96025
G1 X178.23 Y158.94 E998.49566
G1 X155.25 Y158.94 E999.45106
G1 X155.25 Y146.06 E999.98646
G0 X154.75 Y145.56
;TYPE:WALL-OUTER
G1 X178.73 Y145.56 E1000.98343
G1 X178.73 Y159.44 E1001.56041
G1 X154.75 Y159.44 E1002.55739
G1 X154.75 Y145.56 E1003.13437
G0 X155.42 Y146.87
;TYPE:FILL
G1 X156.05 Y146.24 E1003.17141
G0 X156.76 Y146.24
G1 X155.42 Y147.57 E1003.25002
G0 X155.42 Y148.28
G1 X157.47 Y146.24 E1003.37023
G0 X158.17 Y146.24
G1 X155.42 Y148.99 E1003.53200
G0 X155.42 Y149.69
G1 X158.88 Y146.24 E1003.73535
G0 X159.59 Y146.24
G1 X155.42 Y150.40 E1003.98027
G0 X155.42 Y151.11
G1 X160.29 Y146.24 E1004.26678
G0 X161.00 Y146.24
G1 X155.42 Y151.81 E1004.59486
G0 X155.42 Y152.52
G1 X161.71 Y146.24 E1004.96451
G0 X162.42 Y146.24
G1 X155.42 Y153.23 E1005.37573
G0 X155.42 Y153.94
G1 X163.12 Y146.24 E1005.82852
G0 X163.83 Y146.24
G1 X155.42 Y154.64 E1006.32288
G0 X155.42 Y155.35
G1 X164.54 Y146.24 E1006.85884
G0 X165.25 Y146.24
G1 X155.42 Y156.06 E1007.43636
G0 X155.42 Y156.76
G1 X165.95 Y146.24 E1008.05546
G0 X166.66 Y146.24
G1 X155.42 Y157.47 E1008.71612
G0 X155.42 Y158.18
G1 X167.37 Y146.24 E1009.41838
G0 X168.07 Y146.24
G1 X155.54 Y158.76 E1010.15498
G0 X156.25 Y158.76
G1 X168.78 Y146.24 E1010.89158
G0 X169.49 Y146.24
G1 X156.96 Y158.76 E1011.62818
G0 X157.67 Y158.76
G1 X170.19 Y146.24 E1012.36478
G0 X170.90 Y146.24
G1 X158.37 Y158.76 E1013.10140
G0 X159.08 Y158.76
G1 X171.61 Y146.24 E1013.83803
G0 X172.32 Y146.24
G1 X159.79 Y158.76 E1014.57466
G0 X160.49 Y158.76
G1 X173.02 Y146.24 E1015.31129
G0 X173.73 Y146.24
G1 X161.20 Y158.76 E1016.04792
G0 X161.91 Y158.76
G1 X174.44 Y146.24 E1016.78451
G0 X175.14 Y146.24
G1 X162.62 Y158.76 E1017.52111
G0 X163.32 Y158.76
G1 X175.85 Y146.24 E1018.25771
G0 X176.56 Y146.24
G1 X164.03 Y158.76 E1018.99431
G0 X164.74 Y158.76
G1 X177.27 Y146.24 E1019.73094
G0 X177.97 Y146.24
G1 X165.44 Y158.76 E1020.46756
G0 X166.15 Y158.76
G1 X178.05 Y146.86 E1021.16727
G0 X178.05 Y147.57
G1 X166.86 Y158.76 E1021.82540
G0 X167.56 Y158.76
G1 X178.05 Y148.28 E1022.44197
G0 X178.05 Y148.98
G1 X168.27 Y158.76 E1023.01694
G0 X168.98 Y158.76
G1 X178.05 Y149.69 E1023.55034
G0 X178.05 Y150.40
G1 X169.69 Y158.76 E1024.04217
G0 X170.39 Y158.76
G1 X178.05 Y151.10 E1024.49243
G0 X178.05 Y151.81
G1 X171.10 Y158.76 E1024.90112
G0 X171.81 Y158.76
G1 X178.05 Y152.52 E1025.26821
G0 X178.05 Y153.23
G1 X172.51 Y158.76 E1025.59374
G0 X173.22 Y158.76
G1 X178.05 Y153.93 E1025.87769
G0 X178.05 Y154.64
G1 X173.93 Y158.76 E1026.12008
G0 X174.64 Y158.76
G1 X178.05 Y155.35 E1026.32090
G0 X178.05 Y156.06
G1 X175.34 Y158.76 E1026.48012
G0 X176.05 Y158.76
G1 X178.05 Y156.76 E1026.59777
G0 X178.05 Y157.47
G1 X176.76 Y158.76 E1026.67385
G0 X177.47 Y158.76
G1 X178.05 Y158.18 E1026.70837
;LAYER:6
G0 X178.23 Y158.94 Z1.50
;TYPE:WALL-INNER
G1 X155.25 Y158.94 E1027.66376
G1 X155.25 Y146.06 E1028.19917
G1 X178.23 Y146.06 E1029.15457
G1 X178.23 Y158.94 E1029.68997
G0 X178.73 Y159.44
;TYPE:WALL-OUTER
G1 X154.75 Y159.44 E1030.68694
G1 X154.75 Y145.56 E1031.26392
G1 X178.73 Y145.56 E1032.26090
G1 X178.73 Y159.44 E1032.83788
G0 X178.05 Y158.61
;TYPE:FILL
G1 X165.68 Y146.24 E1033.56521
G0 X164.97 Y146.24
G1 X177.50 Y158.76 E1034.30175
G0 X176.79 Y158.76
G1 X164.27 Y146.24 E1035.03829
G0 X163.56 Y146.24
G1 X176.09 Y158.76 E1035.77483
G0 X175.38 Y158.76
G1 X162.85 Y146.24 E1036.51137
G0 X162.15 Y146.24
G1 X174.67 Y158.76 E1037.24794
G0 X173.97 Y158.76
G1 X161.44 Y146.24 E1037.98448
G0 X160.73 Y146.24
G1 X173.26 Y158.76 E1038.72102
G0 X172.55 Y158.76
G1 X160.02 Y146.24 E1039.45756
G0 X159.32 Y146.24
G1 X171.84 Y158.76 E1040.19410
G0 X171.14 Y158.76
G1 X158.61 Y146.24 E1040.93064
G0 X157.90 Y146.24
G1 X170.43 Y158.76 E1041.66718
G0 X169.72 Y158.76
G1 X157.20 Y146.24 E1042.40372
G0 X156.49 Y146.24
G1 X169.02 Y158.76 E1043.14026
G0 X168.31 Y158.76
G1 X155.78 Y146.24 E1043.87683
G0 X155.42 Y146.58
G1 X167.60 Y158.76 E1044.59294
G0 X166.89 Y158.76
G1 X155.42 Y147.29 E1045.26745
G0 X155.42 Y148.00
G1 X166.19 Y158.76 E1045.90039
G0 X165.48 Y158.76
G1 X155.42 Y148.71 E1046.49176
G0 X155.42 Y149.41
G1 X164.77 Y158.76 E1047.04156
G0 X164.07 Y158.76
G1 X155.42 Y150.12 E1047.54979
G0 X155.42 Y150.83
G1 X163.36 Y158.76 E1048.01646
G0 X162.65 Y158.76
G1 X155.42 Y151.53 E1048.44156
G0 X155.42 Y152.24
G1 X161.94 Y158.76 E1048.82508
G0 X161.24 Y158.76
G1 X155.42 Y152.95 E1049.16704
G0 X155.42 Y153.66
G1 X160.53 Y158.76 E1049.46737
G0 X159.82 Y158.76
G1 X155.42 Y154.36 E1049.72613
G0 X155.42 Y155.07
G1 X159.12 Y158.76 E1049.94333
G0 X158.41 Y158.76
G1 X155.42 Y155.78 E1050.11895
G0 X155.42 Y156.48
G1 X157.70 Y158.76 E1050.25301
G0 X157.00 Y158.76
G1 X155.42 Y157.19 E1050.34549
G0 X155.42 Y157.90
G1 X156.29 Y158.76 E1050.39641
G0 X155.58 Y158.76
G1 X155.42 Y158.60 E1050.40576
G0 X166.39 Y146.24
G1 X178.05 Y157.90 E1051.09153
G0 X178.05 Y157.19
G1 X167.09 Y146.24 E1051.73573
G0 X167.80 Y146.24
G1 X178.05 Y156.49 E1052.33836
G0 X178.05 Y155.78
G1 X168.51 Y146.24 E1052.89942
G0 X169.22 Y146.24
G1 X178.05 Y155.07 E1053.41889
G0 X178.05 Y154.36
G1 X169.92 Y146.24 E1053.89678
G0 X170.63 Y146.24
G1 X178.05 Y153.66 E1054.33311
G0 X178.05 Y152.95
G1 X171.34 Y146.24 E1054.72787
G0 X172.04 Y146.24
G1 X178.05 Y152.24 E1055.08103
G0 X178.05 Y151.53
G1 X172.75 Y146.24 E1055.39262
G0 X173.46 Y146.24
G1 X178.05 Y150.83 E1055.66264
G0 X178.05 Y150.12
G1 X174.17 Y146.24 E1055.89109
G0 X174.87 Y146.24
G1 X178.05 Y149.41 E1056.07797
G0 X178.05 Y148.71
G1 X175.58 Y146.24 E1056.22329
G0 X176.29 Y146.24
G1 X178.05 Y148.00 E1056.32700
G0 X178.05 Y147.29
G1 X177.00 Y146.24 E1056.38915
G0 X177.70 Y146.24
G1 X178.05 Y146.59 E1056.40973
G0 X149.75 Y146.06
;TYPE:WALL-INNER
G1 X149.75 Y158.94 E1056.94514
G1 X126.77 Y158.94 E1057.90049
G1 X126.77 Y146.06 E1058.43590
G1 X149.75 Y146.06 E1059.39125
G0 X150.25 Y145.56
;TYPE:WALL-OUTER
G1 X150.25 Y159.44 E1059.96823
G1 X126.27 Y159.44 E1060.96516
G1 X126.27 Y145.56 E1061.54214
G1 X150.25 Y145.56 E1062.53907
G0 X149.57 Y146.39
;TYPE:FILL
G1 X149.42 Y146.24 E1062.54819
G0 X148.71 Y146.24
G1 X149.57 Y147.10 E1062.59890
G0 X149.57 Y147.81
G1 X148.00 Y146.24 E1062.69118
G0 X147.30 Y146.24
G1 X149.57 Y148.51 E1062.82503
G0 X149.57 Y149.22
G1 X146.59 Y146.24 E1063.00048
G0 X145.88 Y146.24
G1 X149.57 Y149.93 E1063.21749
G0 X149.57 Y150.63
G1 X145.18 Y146.24 E1063.47608
G0 X144.47 Y146.24
G1 X149.57 Y151.34 E1063.77623
G0 X149.57 Y152.05
G1 X143.76 Y146.24 E1064.11796
G0 X143.05 Y146.24
G1 X149.57 Y152.75 E1064.50125
G0 X149.57 Y153.46
G1 X142.35 Y146.24 E1064.92614
G0 X141.64 Y146.24
G1 X149.57 Y154.17 E1065.39260
G0 X149.57 Y154.88
G1 X140.93 Y146.24 E1065.90063
G0 X140.22 Y146.24
G1 X149.57 Y155.58 E1066.45023
G0 X149.57 Y156.29
G1 X139.52 Y146.24 E1067.04142
G0 X138.81 Y146.24
G1 X149.57 Y157.00 E1067.67418
G0 X149.57 Y157.71
G1 X138.10 Y146.24 E1068.34852
G0 X137.40 Y146.24
G1 X149.57 Y158.41 E1069.06442
G0 X149.22 Y158.76
G1 X136.69 Y146.24 E1069.80096
G0 X135.98 Y146.24
G1 X148.51 Y158.76 E1070.53753
G0 X147.80 Y158.76
G1 X135.28 Y146.24 E1071.27407
G0 X134.57 Y146.24
G1 X147.09 Y158.76 E1072.01061
G0 X146.39 Y158.76
G1 X133.86 Y146.24 E1072.74715
G0 X133.15 Y146.24
G1 X145.68 Y158.76 E1073.48369
G0 X144.97 Y158.76
G1 X132.45 Y146.24 E1074.22023
G0 X131.74 Y146.24
G1 X144.27 Y158.76 E1074.95677
G0 X143.56 Y158.76
G1 X131.03 Y146.24 E1075.69331
G0 X130.33 Y146.24
G1 X142.85 Y158.76 E1076.42985
G0 X142.15 Y158.76
G1 X129.62 Y146.24 E1077.16639
G0 X128.91 Y146.24
G1 X141.44 Y158.76 E1077.90295
G0 X140.73 Y158.76
G1 X128.20 Y146.24 E1078.63949
G0 X127.50 Y146.24
G1 X140.02 Y158.76 E1079.37603
G0 X139.32 Y158.76
G1 X126.94 Y146.39 E1080.10352
G0 X126.94 Y147.10
G1 X138.61 Y158.76 E1080.78943
G0 X137.90 Y158.76
G1 X126.94 Y147.80 E1081.43378
G0 X126.94 Y148.51
G1 X137.20 Y158.76 E1082.03656
G0 X136.49 Y158.76
G1 X126.94 Y149.22 E1082.59777
G0 X126.94 Y149.93
G1 X135.78 Y158.76 E1083.11741
G0 X135.07 Y158.76
G1 X126.94 Y150.63 E1083.59548
G0 X126.94 Y151.34
G1 X134.37 Y158.76 E1084.03195
G0 X133.66 Y158.76
G1 X126.94 Y152.05 E1084.42683
G0 X126.94 Y152.75
G1 X132.95 Y158.76 E1084.78014
G0 X132.25 Y158.76
G1 X126.94 Y153.46 E1085.09187
G0 X126.94 Y154.17
G1 X131.54 Y158.76 E1085.36204
G0 X130.83 Y158.76
G1 X126.94 Y154.88 E1085.59064
G0 X126.94 Y155.58
G1 X130.12 Y158.76 E1085.77767
G0 X129.42 Y158.76
G1 X126.94 Y156.29 E1085.92313
G0 X126.94 Y157.00
G1 X128.71 Y158.76 E1086.02703
G0 X128.00 Y158.76
G1 X126.94 Y157.70 E1086.08935
G0 X126.94 Y158.41
G1 X127.30 Y158.76 E1086.11005
G0 X126.77 Y164.44
;TYPE:WALL-INNER
G1 X149.75 Y164.44 E1087.06540
G1 X149.75 Y177.32 E1087.60089
G1 X126.77 Y177.32 E1088.55625
G1 X126.77 Y164.44 E1089.09173
G0 X126.27 Y163.94
;TYPE:WALL-OUTER
G1 X150.25 Y163.94 E1090.08867
G1 X150.25 Y177.82 E1090.66573
G1 X126.27 Y177.82 E1091.66266
G1 X126.27 Y163.94 E1092.23972
G0 X126.94 Y164.77
;TYPE:FILL
G1 X139.31 Y177.14 E1092.96691
G0 X138.60 Y177.14
G1 X126.94 Y165.48 E1093.65251
G0 X126.94 Y166.19
G1 X137.90 Y177.14 E1094.29653
G0 X137.19 Y177.14
G1 X126.94 Y166.90 E1094.89899
G0 X126.94 Y167.60
G1 X136.48 Y177.14 E1095.45987
G0 X135.78 Y177.14
G1 X126.94 Y168.31 E1095.97919
G0 X126.94 Y169.02
G1 X135.07 Y177.14 E1096.45694
G0 X134.36 Y177.14
G1 X126.94 Y169.72 E1096.89312
G0 X126.94 Y170.43
G1 X133.66 Y177.14 E1097.28770
G0 X132.95 Y177.14
G1 X126.94 Y171.14 E1097.64071
G0 X126.94 Y171.85
G1 X132.24 Y177.14 E1097.95212
G0 X131.53 Y177.14
G1 X126.94 Y172.55 E1098.22197
G0 X126.94 Y173.26
G1 X130.83 Y177.14 E1098.45024
G0 X130.12 Y177.14
G1 X126.94 Y173.97 E1098.63695
G0 X126.94 Y174.67
G1 X129.41 Y177.14 E1098.78209
G0 X128.71 Y177.14
G1 X126.94 Y175.38 E1098.88566
G0 X126.94 Y176.09
G1 X128.00 Y177.14 E1098.94766
G0 X127.29 Y177.14
G1 X126.94 Y176.79 E1098.96806
G0 X127.49 Y164.61
G1 X140.02 Y177.14 E1099.70472
G0 X140.73 Y177.14
G1 X128.20 Y164.61 E1100.44138
G0 X128.90 Y164.61
G1 X141.43 Y177.14 E1101.17806
G0 X142.14 Y177.14
G1 X129.61 Y164.61 E1101.91475
G0 X130.32 Y164.61
G1 X142.85 Y177.14 E1102.65141
G0 X143.56 Y177.14
G1 X131.03 Y164.61 E1103.38806
G0 X131.73 Y164.61
G1 X144.26 Y177.14 E1104.12472
G0 X144.97 Y177.14
G1 X132.44 Y164.61 E1104.86138
G0 X133.15 Y164.61
G1 X145.68 Y177.14 E1105.59804
G0 X146.38 Y177.14
G1 X133.85 Y164.61 E1106.33469
G0 X134.56 Y164.61
G1 X147.09 Y177.14 E1107.07135
G0 X147.80 Y177.14
G1 X135.27 Y164.61 E1107.80804
G0 X135.97 Y164.61
G1 X148.50 Y177.14 E1108.54472
G0 X149.21 Y177.14
G1 X136.68 Y164.61 E1109.28138
G0 X137.39 Y164.61
G1 X149.57 Y176.80 E1109.99775
G0 X149.57 Y176.09
G1 X138.10 Y164.61 E1110.67256
G0 X138.80 Y164.61
G1 X149.57 Y175.38 E1111.30579
G0 X149.57 Y174.68
G1 X139.51 Y164.61 E1111.89746
G0 X140.22 Y164.61
G1 X149.57 Y173.97 E1112.44755
G0 X149.57 Y173.26
G1 X140.93 Y164.61 E1112.95608
G0 X141.63 Y164.61
G1 X149.57 Y172.56 E1113.42304
G0 X149.57 Y171.85
G1 X142.34 Y164.61 E1113.84843
G0 X143.05 Y164.61
G1 X149.57 Y171.14 E1114.23225
G0 X149.57 Y170.43
G1 X143.75 Y164.61 E1114.57445
G0 X144.46 Y164.61
G1 X149.57 Y169.73 E1114.87507
G0 X149.57 Y169.02
G1 X145.17 Y164.61 E1115.13413
G0 X145.88 Y164.61
G1 X149.57 Y168.31 E1115.35161
G0 X149.57 Y167.60
G1 X146.58 Y164.61 E1115.52753
G0 X147.29 Y164.61
G1 X149.57 Y166.90 E1115.66188
G0 X149.57 Y166.19
G1 X148.00 Y164.61 E1115.75466
G0 X148.70 Y164.61
G1 X149.57 Y165.48 E1115.80587
G0 X149.57 Y164.78
G1 X149.41 Y164.61 E1115.81552
G0 X149.75 Y140.56
;TYPE:WALL-INNER
G1 X126.77 Y140.56 E1116.77087
G1 X126.77 Y127.68 E1117.30636
G1 X149.75 Y127.68 E1118.26172
G1 X149.75 Y140.56 E1118.79720
G0 X150.25 Y141.06
;TYPE:WALL-OUTER
G1 X126.27 Y141.06 E1119.79414
G1 X126.27 Y127.18 E1120.37120
G1 X150.25 Y127.18 E1121.36813
G1 X150.25 Y141.06 E1121.94519
G0 X149.22 Y140.38
;TYPE:FILL
G1 X136.69 Y127.86 E1122.68185
G0 X137.40 Y127.86
G1 X149.57 Y140.03 E1123.39740
G0 X149.57 Y139.32
G1 X138.11 Y127.86 E1124.07138
G0 X138.82 Y127.86
G1 X149.57 Y138.61 E1124.70379
G0 X149.57 Y137.91
G1 X139.52 Y127.86 E1125.29463
G0 X140.23 Y127.86
G1 X149.57 Y137.20 E1125.84391
G0 X149.57 Y136.49
G1 X140.94 Y127.86 E1126.35161
G0 X141.64 Y127.86
G1 X149.57 Y135.78 E1126.81775
G0 X149.57 Y135.08
G1 X142.35 Y127.86 E1127.24232
G0 X143.06 Y127.86
G1 X149.57 Y134.37 E1127.62529
G0 X149.57 Y133.66
G1 X143.77 Y127.86 E1127.96666
G0 X144.47 Y127.86
G1 X149.57 Y132.96 E1128.26646
G0 X149.57 Y132.25
G1 X145.18 Y127.86 E1128.52469
G0 X145.89 Y127.86
G1 X149.57 Y131.54 E1128.74135
G0 X149.57 Y130.83
G1 X146.59 Y127.86 E1128.91645
G0 X147.30 Y127.86
G1 X149.57 Y130.13 E1129.04997
G0 X149.57 Y129.42
G1 X148.01 Y127.86 E1129.14193
G0 X148.72 Y127.86
G1 X149.57 Y128.71 E1129.19232
G0 X149.57 Y128.01
G1 X149.42 Y127.86 E1129.20114
G0 X148.52 Y140.38
G1 X135.99 Y127.86 E1129.93783
G0 X135.28 Y127.86
G1 X147.81 Y140.38 E1130.67451
G0 X147.10 Y140.38
G1 X134.57 Y127.86 E1131.41117
G0 X133.87 Y127.86
G1 X146.40 Y140.38 E1132.14783
G0 X145.69 Y140.38
G1 X133.16 Y127.86 E1132.88448
G0 X132.45 Y127.86
G1 X144.98 Y140.38 E1133.62114
G0 X144.27 Y140.38
G1 X131.75 Y127.86 E1134.35780
G0 X131.04 Y127.86
G1 X143.57 Y140.38 E1135.09446
G0 X142.86 Y140.38
G1 X130.33 Y127.86 E1135.83111
G0 X129.62 Y127.86
G1 X142.15 Y140.38 E1136.56780
G0 X141.45 Y140.38
G1 X128.92 Y127.86 E1137.30449
G0 X128.21 Y127.86
G1 X140.74 Y140.38 E1138.04114
G0 X140.03 Y140.38
G1 X127.50 Y127.86 E1138.77780
G0 X126.94 Y128.00
G1 X139.32 Y140.38 E1139.50570
G0 X138.62 Y140.38
G1 X126.94 Y128.71 E1140.19203
G0 X126.94 Y129.42
G1 X137.91 Y140.38 E1140.83678
G0 X137.20 Y140.38
G1 X126.94 Y130.13 E1141.43997
G0 X126.94 Y130.83
G1 X136.50 Y140.38 E1142.00159
G0 X135.79 Y140.38
G1 X126.94 Y131.54 E1142.52165
G0 X126.94 Y132.25
G1 X135.08 Y140.38 E1143.00010
G0 X134.38 Y140.38
G1 X126.94 Y132.96 E1143.43699
G0 X126.94 Y133.66
G1 X133.67 Y140.38 E1143.83227
G0 X132.96 Y140.38
G1 X126.94 Y134.37 E1144.18599
G0 X126.94 Y135.08
G1 X132.25 Y140.38 E1144.49814
G0 X131.55 Y140.38
G1 X126.94 Y135.78 E1144.76872
G0 X126.94 Y136.49
G1 X130.84 Y140.38 E1144.99773
G0 X130.13 Y140.38
G1 X126.94 Y137.20 E1145.18517
G0 X126.94 Y137.90
G1 X129.43 Y140.38 E1145.33105
G0 X128.72 Y140.38
G1 X126.94 Y138.61 E1145.43532
G0 X126.94 Y139.32
G1 X128.01 Y140.38 E1145.49803
G0 X127.30 Y140.38
G1 X126.94 Y140.03 E1145.51913
;LAYER:7
G0 X126.77 Y140.56 Z1.70
;TYPE:WALL-INNER
G1 X126.77 Y127.68 E1146.05462
G1 X149.75 Y127.68 E1147.00998
G1 X149.75 Y140.56 E1147.54547
G1 X126.77 Y140.56 E1148.50082
G0 X126.27 Y141.06
;TYPE:WALL-OUTER
G1 X126.27 Y127.18 E1149.07789
G1 X150.25 Y127.18 E1150.07482
G1 X150.25 Y141.06 E1150.65188
G1 X126.27 Y141.06 E1151.64881
G0 X127.25 Y140.39
;TYPE:FILL
G1 X139.78 Y127.86 E1152.38559
G0 X140.49 Y127.86
G1 X127.96 Y140.39 E1153.12236
G0 X128.67 Y140.39
G1 X141.20 Y127.86 E1153.85914
G0 X141.91 Y127.86
G1 X129.38 Y140.39 E1154.59588
G0 X130.08 Y140.39
G1 X142.61 Y127.86 E1155.33263
G0 X143.32 Y127.86
G1 X130.79 Y140.39 E1156.06937
G0 X131.50 Y140.39
G1 X144.03 Y127.86 E1156.80615
G0 X144.73 Y127.86
G1 X132.20 Y140.39 E1157.54292
G0 X132.91 Y140.39
G1 X145.44 Y127.86 E1158.27970
G0 X146.15 Y127.86
G1 X133.62 Y140.39 E1159.01647
G0 X134.32 Y140.39
G1 X146.85 Y127.86 E1159.75325
G0 X147.56 Y127.86
G1 X135.03 Y140.39 E1160.49002
G0 X135.74 Y140.39
G1 X148.27 Y127.86 E1161.22677
G0 X148.98 Y127.86
G1 X136.45 Y140.39 E1161.96351
G0 X137.15 Y140.39
G1 X149.57 Y127.97 E1162.69373
G0 X149.57 Y128.67
G1 X137.86 Y140.39 E1163.38238
G0 X138.57 Y140.39
G1 X149.57 Y129.38 E1164.02946
G0 X149.57 Y130.09
G1 X139.27 Y140.39 E1164.63497
G0 X139.98 Y140.39
G1 X149.57 Y130.79 E1165.19892
G0 X149.57 Y131.50
G1 X140.69 Y140.39 E1165.72126
G0 X141.40 Y140.39
G1 X149.57 Y132.21 E1166.20204
G0 X149.57 Y132.92
G1 X142.10 Y140.39 E1166.64122
G0 X142.81 Y140.39
G1 X149.57 Y133.62 E1167.03883
G0 X149.57 Y134.33
G1 X143.52 Y140.39 E1167.39487
G0 X144.22 Y140.39
G1 X149.57 Y135.04 E1167.70934
G0 X149.57 Y135.74
G1 X144.93 Y140.39 E1167.98224
G0 X145.64 Y140.39
G1 X149.57 Y136.45 E1168.21357
G0 X149.57 Y137.16
G1 X146.34 Y140.39 E1168.40334
G0 X147.05 Y140.39
G1 X149.57 Y137.87 E1168.55150
G0 X149.57 Y138.57
G1 X147.76 Y140.39 E1168.65810
G0 X148.47 Y140.39
G1 X149.57 Y139.28 E1168.72313
G0 X149.57 Y139.99
G1 X149.17 Y140.39 E1168.74656
G0 X139.08 Y127.86
G1 X126.94 Y139.99 E1169.45993
G0 X126.94 Y139.28
G1 X138.37 Y127.86 E1170.13171
G0 X137.66 Y127.86
G1 X126.94 Y138.57 E1170.76192
G0 X126.94 Y137.87
G1 X136.96 Y127.86 E1171.35052
G0 X136.25 Y127.86
G1 X126.94 Y137.16 E1171.89756
G0 X126.94 Y136.45
G1 X135.54 Y127.86 E1172.40303
G0 X134.83 Y127.86
G1 X126.94 Y135.75 E1172.86694
G0 X126.94 Y135.04
G1 X134.13 Y127.86 E1173.28927
G0 X133.42 Y127.86
G1 X126.94 Y134.33 E1173.67003
G0 X126.94 Y133.62
G1 X132.71 Y127.86 E1174.00923
G0 X132.01 Y127.86
G1 X126.94 Y132.92 E1174.30683
G0 X126.94 Y132.21
G1 X131.30 Y127.86 E1174.56285
G0 X130.59 Y127.86
G1 X126.94 Y131.50 E1174.77731
G0 X126.94 Y130.79
G1 X129.88 Y127.86 E1174.95017
G0 X129.18 Y127.86
G1 X126.94 Y130.09 E1175.08146
G0 X126.94 Y129.38
G1 X128.47 Y127.86 E1175.17119
G0 X127.76 Y127.86
G1 X126.94 Y128.67 E1175.21934
G0 X126.94 Y127.97
G1 X127.06 Y127.86 E1175.22593
G0 X126.77 Y146.06
;TYPE:WALL-INNER
G1 X149.75 Y146.06 E1176.18128
G1 X149.75 Y158.94 E1176.71669
G1 X126.77 Y158.94 E1177.67204
G1 X126.77 Y146.06 E1178.20745
G0 X126.27 Y145.56
;TYPE:WALL-OUTER
G1 X150.25 Y145.56 E1179.20438
G1 X150.25 Y159.44 E1179.78136
G1 X126.27 Y159.44 E1180.77829
G1 X126.27 Y145.56 E1181.35527
G0 X126.94 Y146.35
;TYPE:FILL
G1 X127.06 Y146.24 E1181.36209
G0 X127.77 Y146.24
G1 X126.94 Y147.06 E1181.41048
G0 X126.94 Y147.76
G1 X128.47 Y146.24 E1181.50044
G0 X129.18 Y146.24
G1 X126.94 Y148.47 E1181.63197
G0 X126.94 Y149.18
G1 X129.89 Y146.24 E1181.80506
G0 X130.60 Y146.24
G1 X126.94 Y149.89 E1182.01973
G0 X126.94 Y150.59
G1 X131.30 Y146.24 E1182.27599
G0 X132.01 Y146.24
G1 X126.94 Y151.30 E1182.57385
G0 X126.94 Y152.01
G1 X132.72 Y146.24 E1182.91328
G0 X133.43 Y146.24
G1 X126.94 Y152.72 E1183.29428
G0 X126.94 Y153.42
G1 X134.13 Y146.24 E1183.71685
G0 X134.84 Y146.24
G1 X126.94 Y154.13 E1184.18099
G0 X126.94 Y154.84
G1 X135.55 Y146.24 E1184.68669
G0 X136.25 Y146.24
G1 X126.94 Y155.54 E1185.23397
G0 X126.94 Y156.25
G1 X136.96 Y146.24 E1185.82281
G0 X137.67 Y146.24
G1 X126.94 Y156.96 E1186.45325
G0 X126.94 Y157.66
G1 X138.38 Y146.24 E1187.12529
G0 X139.08 Y146.24
G1 X126.94 Y158.37 E1187.83890
G0 X127.26 Y158.76
G1 X139.79 Y146.24 E1188.57550
G0 X140.50 Y146.24
G1 X127.97 Y158.76 E1189.31210
G0 X128.68 Y158.76
G1 X141.20 Y146.24 E1190.04870
G0 X141.91 Y146.24
G1 X129.38 Y158.76 E1190.78529
G0 X130.09 Y158.76
G1 X142.62 Y146.24 E1191.52189
G0 X143.32 Y146.24
G1 X130.80 Y158.76 E1192.25846
G0 X131.50 Y158.76
G1 X144.03 Y146.24 E1192.99503
G0 X144.74 Y146.24
G1 X132.21 Y158.76 E1193.73163
G0 X132.92 Y158.76
G1 X145.45 Y146.24 E1194.46823
G0 X146.15 Y146.24
G1 X133.62 Y158.76 E1195.20483
G0 X134.33 Y158.76
G1 X146.86 Y146.24 E1195.94142
G0 X147.57 Y146.24
G1 X135.04 Y158.76 E1196.67802
G0 X135.75 Y158.76
G1 X148.27 Y146.24 E1197.41462
G0 X148.98 Y146.24
G1 X136.45 Y158.76 E1198.15122
G0 X137.16 Y158.76
G1 X149.57 Y146.35 E1198.88103
G0 X149.57 Y147.06
G1 X137.87 Y158.76 E1199.56927
G0 X138.57 Y158.76
G1 X149.57 Y147.76 E1200.21594
G0 X149.57 Y148.47
G1 X139.28 Y158.76 E1200.82104
G0 X139.99 Y158.76
G1 X149.57 Y149.18 E1201.38454
G0 X149.57 Y149.89
G1 X140.70 Y158.76 E1201.90647
G0 X141.40 Y158.76
G1 X149.57 Y150.59 E1202.38684
G0 X149.57 Y151.30
G1 X142.11 Y158.76 E1202.82563
G0 X142.82 Y158.76
G1 X149.57 Y152.01 E1203.22286
G0 X149.57 Y152.71
G1 X143.52 Y158.76 E1203.57852
G0 X144.23 Y158.76
G1 X149.57 Y153.42 E1203.89258
G0 X149.57 Y154.13
G1 X144.94 Y158.76 E1204.16507
G0 X145.65 Y158.76
G1 X149.57 Y154.84 E1204.39599
G0 X149.57 Y155.54
G1 X146.35 Y158.76 E1204.58534
G0 X147.06 Y158.76
G1 X149.57 Y156.25 E1204.73310
G0 X149.57 Y156.96
G1 X147.77 Y158.76 E1204.83928
G0 X148.47 Y158.76
G1 X149.57 Y157.66 E1204.90390
G0 X149.57 Y158.37
G1 X149.18 Y158.76 E1204.92695
G0 X149.75 Y164.44
;TYPE:WALL-INNER
G1 X149.75 Y177.32 E1205.46244
G1 X126.77 Y177.32 E1206.41779
G1 X126.77 Y164.44 E1206.95328
G1 X149.75 Y164.44 E1207.90864
G0 X150.25 Y163.94
;TYPE:WALL-OUTER
G1 X150.25 Y177.82 E1208.48570
