;-- START GCODE --
;Sliced for Type A Machines Series 1
;Sliced at: Fri 12-02-2016 20:37:55
;Basic settings: Layer height: 0.1 Walls: 1 Fill: 100
;Print Speed: 120 Support: 0
;Retraction Speed: 40 Retraction Distance: 1.2
;Print time: #P_TIME#
;Filament used: #F_AMNT#m #F_WGHT#g
;Filament cost: #F_COST#
M106 S255	 ;start with the fan on
G21        ;metric values
G90        ;absolute positioning
M106 S255    ;start with the fan on
G28     ;move to endstops
G29		;allows for auto-levelling
G1 X150 Y5  Z15.0 F6000 ;center and move the platform down 15mm
M109 S220 ;Heat To temp
G92 E0                  ;zero the extruded length
G1 F200 E30              ;extrude 30mm of feed stock
G92 E0                  ;zero the extruded length again
G1 X175 Y25  Z0 F6000 ;remove bugger
G1 X220 F6000 ;remove bugger
G1 X150 Y150  Z15 F6000 ;recenter and begin
G1 F6000

;Layer count: 48
;LAYER:0
M106 S255
G0 F6000 X136.78 Y132.71 Z0.30
;TYPE:SKIRT
G1 F2700 X142.69 Y132.71 E0.36831
G1 X143.22 Y132.26 E0.41195
G1 X144.94 Y131.35 E0.53292
G1 X146.04 Y130.74 E0.61127
G1 X148.01 Y130.15 E0.74010
G1 X149.18 Y129.77 E0.81653
G1 X151.14 Y129.59 E0.93945
G1 X152.38 Y129.44 E1.01698
G1 X154.60 Y129.66 E1.15638
G1 X155.85 Y129.80 E1.23492
G1 X157.76 Y130.38 E1.35892
G1 X158.95 Y130.76 E1.43684
G1 X160.74 Y131.71 E1.56331
G1 X161.82 Y132.31 E1.64086
G1 X162.31 Y132.71 E1.67994
G1 X162.78 Y132.71 E1.70919
G1 X162.78 Y133.09 E1.73314
G1 X163.33 Y133.54 E1.77745
G1 X164.31 Y134.35 E1.85631
G1 X165.56 Y135.88 E1.97987
G1 X166.36 Y136.85 E2.05859
G1 X167.28 Y138.57 E2.17956
G1 X167.88 Y139.67 E2.25791
G1 X168.48 Y141.64 E2.38674
G1 X168.85 Y142.81 E2.46316
G1 X169.05 Y144.81 E2.58859
G1 X169.19 Y146.01 E2.66368
G1 X168.97 Y148.23 E2.80308
G1 X168.83 Y149.49 E2.88162
G1 X168.25 Y151.39 E3.00562
G1 X167.91 Y152.47 E3.07674
G1 X168.48 Y154.38 E3.20101
G1 X168.85 Y155.55 E3.27743
G1 X169.04 Y157.51 E3.40029
G1 X169.19 Y158.75 E3.47782
G1 X168.97 Y160.97 E3.61735
G1 X168.83 Y162.22 E3.69589
G1 X168.25 Y164.13 E3.81988
G1 X167.87 Y165.32 E3.89781
G1 X166.92 Y167.11 E4.02428
G1 X166.31 Y168.19 E4.10182
G1 X165.08 Y169.70 E4.22303
G1 X164.28 Y170.68 E4.30189
G1 X162.78 Y171.90 E4.42287
G1 X162.78 Y172.21 E4.44195
G1 X162.41 Y172.21 E4.46515
G1 X161.77 Y172.73 E4.51640
G1 X160.06 Y173.65 E4.63738
G1 X158.96 Y174.25 E4.71573
G1 X156.99 Y174.85 E4.84455
G1 X155.82 Y175.22 E4.92098
G1 X153.85 Y175.41 E5.04390
G1 X152.62 Y175.56 E5.12143
G1 X150.40 Y175.34 E5.26083
G1 X149.14 Y175.20 E5.33938
G1 X147.24 Y174.62 E5.46337
G1 X146.05 Y174.24 E5.54129
G1 X144.26 Y173.29 E5.66776
G1 X143.17 Y172.69 E5.74531
G1 X142.59 Y172.21 E5.79206
G1 X136.78 Y172.21 E6.15464
G1 X136.78 Y164.23 E6.65242
G1 X136.51 Y163.36 E6.70911
G1 X136.15 Y162.19 E6.78520
G1 X135.95 Y160.21 E6.90952
G1 X135.81 Y158.98 E6.98662
G1 X136.03 Y156.76 E7.12609
G1 X136.17 Y155.51 E7.20420
G1 X136.75 Y153.61 E7.32819
G1 X136.78 Y153.51 E7.33460
G1 X136.78 Y151.49 E7.46076
G1 X136.51 Y150.62 E7.51746
G1 X136.15 Y149.46 E7.59355
G1 X135.95 Y147.47 E7.71786
G1 X135.81 Y146.24 E7.79496
G1 X136.03 Y144.02 E7.93444
G1 X136.17 Y142.77 E8.01254
G1 X136.75 Y140.87 E8.13654
G1 X136.78 Y140.77 E8.14295
G1 X136.78 Y132.71 E8.64578
G0 F6000 X137.28 Y133.21
G1 F2700 X142.87 Y133.21 E8.99414
G1 X143.50 Y132.68 E9.04584
G1 X145.18 Y131.79 E9.16455
G1 X146.23 Y131.21 E9.23916
G1 X148.15 Y130.62 E9.36428
G1 X149.28 Y130.27 E9.43820
G1 X151.24 Y130.08 E9.56101
G1 X152.38 Y129.94 E9.63271
G1 X154.55 Y130.15 E9.76853
G1 X155.75 Y130.29 E9.84394
G1 X157.61 Y130.86 E9.96495
G1 X158.75 Y131.22 E10.03978
G1 X160.50 Y132.15 E10.16315
G1 X161.54 Y132.73 E10.23768
G1 X162.13 Y133.21 E10.28515
G1 X162.28 Y133.21 E10.29425
G1 X162.28 Y133.33 E10.30173
G1 X163.01 Y133.93 E10.36081
G1 X163.95 Y134.70 E10.43652
G1 X165.17 Y136.20 E10.55710
G1 X165.94 Y137.13 E10.63277
G1 X166.84 Y138.81 E10.75149
G1 X167.42 Y139.86 E10.82610
G1 X168.00 Y141.78 E10.95100
G1 X168.36 Y142.91 E11.02522
G1 X168.55 Y144.87 E11.14758
G1 X168.68 Y146.01 E11.21972
G1 X168.47 Y148.18 E11.35555
G1 X168.34 Y149.38 E11.43095
G1 X167.77 Y151.24 E11.55196
G1 X167.41 Y152.38 E11.62679
G1 X167.36 Y152.48 E11.63385
G1 X167.42 Y152.60 E11.64211
G1 X168.00 Y154.50 E11.76611
G1 X168.36 Y155.65 E11.84115
G1 X168.55 Y157.61 E11.96389
G1 X168.68 Y158.75 E12.03559
G1 X168.47 Y160.92 E12.17148
G1 X168.34 Y162.12 E12.24695
G1 X167.77 Y163.98 E12.36796
G1 X167.41 Y165.12 E12.44279
G1 X166.48 Y166.87 E12.56617
G1 X165.90 Y167.91 E12.64069
G1 X164.70 Y169.38 E12.75902
G1 X163.93 Y170.32 E12.83473
G1 X162.40 Y171.56 E12.95739
G1 X162.28 Y171.67 E12.96750
G1 X162.28 Y171.71 E12.97011
G1 X162.23 Y171.71 E12.97329
G1 X161.49 Y172.31 E13.03266
G1 X159.81 Y173.21 E13.15138
G1 X158.77 Y173.79 E13.22599
G1 X156.85 Y174.37 E13.35110
G1 X155.72 Y174.73 E13.42503
G1 X153.76 Y174.92 E13.54783
G1 X152.62 Y175.05 E13.61953
G1 X150.45 Y174.84 E13.75536
G1 X149.25 Y174.71 E13.83076
G1 X147.39 Y174.14 E13.95178
G1 X146.25 Y173.78 E14.02661
G1 X144.50 Y172.85 E14.14998
G1 X143.45 Y172.27 E14.22451
G1 X142.77 Y171.71 E14.27964
G1 X137.28 Y171.71 E14.62207
G1 X137.28 Y164.15 E15.09334
G1 X137.00 Y163.22 E15.15427
G1 X136.64 Y162.09 E15.22781
G1 X136.45 Y160.16 E15.34893
G1 X136.31 Y158.98 E15.42314
G1 X136.52 Y156.81 E15.55904
G1 X136.66 Y155.62 E15.63407
G1 X137.23 Y153.76 E15.75508
G1 X137.28 Y153.59 E15.76601
G1 X137.28 Y151.41 E15.90177
G1 X137.00 Y150.48 E15.96270
G1 X136.64 Y149.35 E16.03624
G1 X136.45 Y147.42 E16.15736
G1 X136.31 Y146.24 E16.23157
G1 X136.52 Y144.07 E16.36747
G1 X136.66 Y142.88 E16.44250
G1 X137.23 Y141.02 E16.56351
G1 X137.28 Y140.85 E16.57444
G1 X137.28 Y133.21 E17.05101
G0 F6000 X137.78 Y133.71
G1 F2700 X143.04 Y133.71 E17.37929
G1 X143.78 Y133.10 E17.43915
G1 X145.46 Y132.20 E17.55791
G1 X146.43 Y131.67 E17.62656
G1 X148.29 Y131.11 E17.74788
G1 X149.38 Y130.76 E17.81940
G1 X151.25 Y130.58 E17.93662
G1 X152.39 Y130.45 E18.00788
G1 X154.50 Y130.65 E18.14008
G1 X155.65 Y130.78 E18.21240
G1 X157.46 Y131.33 E18.33040
G1 X158.56 Y131.68 E18.40217
G1 X160.26 Y132.59 E18.52245
G1 X161.26 Y133.14 E18.59390
G1 X162.69 Y134.32 E18.70934
G1 X163.59 Y135.06 E18.78201
G1 X164.81 Y136.54 E18.90161
G1 X165.53 Y137.41 E18.97214
G1 X166.43 Y139.09 E19.09091
G1 X166.96 Y140.06 E19.15955
G1 X167.52 Y141.92 E19.28102
G1 X167.87 Y143.01 E19.35246
G1 X168.05 Y144.88 E19.46911
G1 X168.18 Y146.02 E19.54093
G1 X167.98 Y148.13 E19.67313
G1 X167.84 Y149.28 E19.74546
G1 X167.29 Y151.09 E19.86346
G1 X166.95 Y152.19 E19.93523
G1 X166.79 Y152.49 E19.95638
G1 X166.96 Y152.80 E19.97835
G1 X167.52 Y154.66 E20.09968
G1 X167.87 Y155.75 E20.17119
G1 X168.05 Y157.62 E20.28841
G1 X168.18 Y158.76 E20.35961
G1 X167.98 Y160.87 E20.49186
G1 X167.84 Y162.02 E20.56426
G1 X167.29 Y163.83 E20.68225
G1 X166.95 Y164.93 E20.75403
G1 X166.04 Y166.63 E20.87430
G1 X165.48 Y167.63 E20.94576
G1 X164.31 Y169.06 E21.06120
G1 X163.57 Y169.96 E21.13386
G1 X162.09 Y171.18 E21.25347
G1 X161.21 Y171.90 E21.32400
G1 X159.53 Y172.79 E21.44277
G1 X158.57 Y173.33 E21.51141
G1 X156.71 Y173.89 E21.63274
G1 X155.62 Y174.24 E21.70425
G1 X153.75 Y174.42 E21.82147
G1 X152.61 Y174.55 E21.89273
G1 X150.50 Y174.35 E22.02493
G1 X149.35 Y174.21 E22.09725
G1 X147.54 Y173.66 E22.21525
G1 X146.44 Y173.32 E22.28702
G1 X144.74 Y172.41 E22.40730
G1 X143.74 Y171.85 E22.47876
G1 X142.95 Y171.21 E22.54212
G1 X137.78 Y171.21 E22.86460
G1 X137.78 Y164.08 E23.30925
G1 X137.48 Y163.08 E23.37441
G1 X137.13 Y161.99 E23.44553
G1 X136.95 Y160.11 E23.56352
G1 X136.81 Y158.97 E23.63484
G1 X137.02 Y156.86 E23.76711
G1 X137.16 Y155.72 E23.83907
G1 X137.70 Y153.91 E23.95707
G1 X137.78 Y153.67 E23.97276
G1 X137.78 Y151.34 E24.11776
G1 X137.48 Y150.34 E24.18292
G1 X137.13 Y149.25 E24.25404
G1 X136.95 Y147.37 E24.37203
G1 X136.81 Y146.24 E24.44335
G1 X137.02 Y144.12 E24.57562
G1 X137.16 Y142.98 E24.64758
G1 X137.70 Y141.17 E24.76557
G1 X137.78 Y140.93 E24.78127
G1 X137.78 Y133.71 E25.23135
G0 F6000 X138.28 Y134.21
G1 F2700 X143.22 Y134.21 E25.53967
G1 X143.23 Y134.21 E25.54007
G1 X144.06 Y133.52 E25.60759
G1 X145.64 Y132.68 E25.71874
G1 X146.62 Y132.13 E25.78900
G1 X148.43 Y131.59 E25.90680
G1 X149.48 Y131.25 E25.97569
G1 X151.30 Y131.08 E26.08971
G1 X152.39 Y130.95 E26.15815
G1 X154.44 Y131.15 E26.28671
G1 X155.55 Y131.28 E26.35596
G1 X157.31 Y131.81 E26.47097
G1 X158.36 Y132.14 E26.53967
G1 X160.02 Y133.03 E26.65687
G1 X160.98 Y133.56 E26.72524
G1 X162.38 Y134.70 E26.83780
G1 X163.24 Y135.41 E26.90736
G1 X164.40 Y136.83 E27.02196
G1 X165.11 Y137.69 E27.09143
G1 X165.95 Y139.27 E27.20258
G1 X166.50 Y140.25 E27.27284
G1 X167.04 Y142.06 E27.39064
G1 X167.38 Y143.11 E27.45953
G1 X167.56 Y144.97 E27.57607
G1 X167.68 Y146.02 E27.64205
G1 X167.48 Y148.08 E27.77061
G1 X167.35 Y149.18 E27.83986
G1 X166.82 Y150.94 E27.95487
G1 X166.48 Y151.99 E28.02357
G1 X166.22 Y152.49 E28.05869
G1 X166.50 Y152.99 E28.09431
G1 X167.04 Y154.80 E28.21211
G1 X167.38 Y155.85 E28.28100
G1 X167.55 Y157.67 E28.39503
G1 X167.68 Y158.76 E28.46340
G1 X167.48 Y160.81 E28.59202
G1 X167.35 Y161.92 E28.66133
G1 X166.82 Y163.68 E28.77635
G1 X166.48 Y164.73 E28.84504
G1 X165.60 Y166.39 E28.96225
G1 X165.07 Y167.35 E29.03061
G1 X163.93 Y168.75 E29.14318
G1 X163.22 Y169.61 E29.21273
G1 X161.77 Y170.79 E29.32928
G1 X160.93 Y171.48 E29.39680
G1 X159.36 Y172.32 E29.50796
G1 X158.38 Y172.87 E29.57821
G1 X156.57 Y173.41 E29.69601
G1 X155.51 Y173.75 E29.76490
G1 X153.69 Y173.92 E29.87893
G1 X152.60 Y174.05 E29.94736
G1 X150.55 Y173.85 E30.07593
G1 X149.45 Y173.72 E30.14517
G1 X147.69 Y173.19 E30.26019
G1 X146.63 Y172.85 E30.32888
G1 X144.98 Y171.97 E30.44609
G1 X144.02 Y171.44 E30.51445
G1 X143.13 Y170.71 E30.58616
G1 X138.28 Y170.71 E30.88855
G1 X138.28 Y164.01 E31.30663
G1 X137.96 Y162.94 E31.37616
G1 X137.62 Y161.89 E31.44466
G1 X137.44 Y160.06 E31.55945
G1 X137.32 Y158.97 E31.62795
G1 X137.52 Y156.92 E31.75658
G1 X137.65 Y155.82 E31.82546
G1 X138.18 Y154.05 E31.94047
G1 X138.28 Y153.75 E31.96069
G1 X138.28 Y151.27 E32.11522
G1 X137.96 Y150.20 E32.18475
G1 X137.62 Y149.15 E32.25325
G1 X137.44 Y147.32 E32.36804
G1 X137.32 Y146.23 E32.43654
G1 X137.52 Y144.18 E32.56517
G1 X137.65 Y143.08 E32.63405
G1 X138.18 Y141.31 E32.74906
G1 X138.28 Y141.01 E32.76928
G1 X138.28 Y134.21 E33.19310
G0 F6000 X138.78 Y134.71
G1 F2700 X143.40 Y134.71 E33.48140
G1 X143.54 Y134.59 E33.49292
G1 X144.34 Y133.94 E33.55742
G1 X145.89 Y133.11 E33.66698
G1 X146.82 Y132.60 E33.73289
G1 X148.56 Y132.07 E33.84668
G1 X149.58 Y131.74 E33.91334
G1 X151.41 Y131.57 E34.02774
G1 X152.40 Y131.45 E34.08984
G1 X154.39 Y131.65 E34.21476
G1 X155.45 Y131.77 E34.28093
G1 X157.16 Y132.29 E34.39295
G1 X158.17 Y132.61 E34.45859
G1 X159.78 Y133.47 E34.57267
G1 X160.70 Y133.97 E34.63801
G1 X162.06 Y135.09 E34.74769
G1 X162.88 Y135.77 E34.81414
G1 X164.02 Y137.15 E34.92578
G1 X164.69 Y137.97 E34.99214
G1 X165.52 Y139.52 E35.10170
G1 X166.03 Y140.45 E35.16760
G1 X166.56 Y142.19 E35.28145
G1 X166.88 Y143.21 E35.34811
G1 X167.06 Y145.03 E35.46189
G1 X167.18 Y146.03 E35.52461
G1 X166.98 Y148.02 E35.64954
G1 X166.86 Y149.08 E35.71570
G1 X166.34 Y150.80 E35.82772
G1 X166.02 Y151.80 E35.89336
G1 X165.65 Y152.50 E35.94263
G1 X166.03 Y153.19 E35.99187
G1 X166.56 Y154.93 E36.10566
G1 X166.88 Y155.95 E36.17232
G1 X167.06 Y157.78 E36.28666
G1 X167.18 Y158.77 E36.34876
G1 X166.98 Y160.76 E36.47374
G1 X166.86 Y161.82 E36.53998
G1 X166.34 Y163.53 E36.65199
G1 X166.02 Y164.54 E36.71763
G1 X165.16 Y166.15 E36.83171
G1 X164.65 Y167.07 E36.89706
G1 X163.54 Y168.43 E37.00674
G1 X162.86 Y169.25 E37.07319
G1 X161.45 Y170.41 E37.18668
G1 X160.66 Y171.06 E37.25118
G1 X159.10 Y171.89 E37.36074
G1 X158.18 Y172.40 E37.42664
G1 X156.43 Y172.93 E37.54043
G1 X155.41 Y173.25 E37.60710
G1 X153.59 Y173.43 E37.72150
G1 X152.60 Y173.54 E37.78359
G1 X150.61 Y173.35 E37.90852
G1 X149.55 Y173.23 E37.97469
G1 X147.83 Y172.71 E38.08671
G1 X146.83 Y172.39 E38.15234
G1 X145.22 Y171.53 E38.26642
G1 X144.30 Y171.02 E38.33177
G1 X143.31 Y170.21 E38.41180
G1 X138.78 Y170.21 E38.69412
G1 X138.78 Y163.93 E39.08569
G1 X138.44 Y162.80 E39.15914
G1 X138.12 Y161.79 E39.22541
G1 X137.94 Y160.01 E39.33719
G1 X137.82 Y158.97 E39.40261
G1 X138.02 Y156.97 E39.52768
G1 X138.14 Y155.92 E39.59347
G1 X138.66 Y154.20 E39.70549
G1 X138.78 Y153.82 E39.73036
G1 X138.78 Y151.19 E39.89437
G1 X138.44 Y150.06 E39.96782
G1 X138.12 Y149.05 E40.03409
G1 X137.94 Y147.27 E40.14587
G1 X137.82 Y146.23 E40.21129
G1 X138.02 Y144.23 E40.33636
G1 X138.14 Y143.18 E40.40215
G1 X138.66 Y141.46 E40.51417
G1 X138.78 Y141.08 E40.53904
G1 X138.78 Y134.71 E40.93648
G0 F6000 X139.28 Y135.21
G1 F2700 X143.58 Y135.21 E41.20470
G1 X143.86 Y134.98 E41.22735
G1 X144.62 Y134.35 E41.28889
G1 X146.12 Y133.55 E41.39465
G1 X147.01 Y133.06 E41.45835
G1 X148.71 Y132.55 E41.56861
G1 X149.68 Y132.24 E41.63265
G1 X151.42 Y132.07 E41.74129
G1 X152.40 Y131.96 E41.80313
G1 X154.34 Y132.14 E41.92442
G1 X155.34 Y132.26 E41.98745
G1 X157.02 Y132.77 E42.09653
G1 X157.97 Y133.07 E42.15907
G1 X159.54 Y133.91 E42.27009
G1 X160.42 Y134.39 E42.33236
G1 X161.74 Y135.48 E42.43916
G1 X162.53 Y136.12 E42.50247
G1 X163.65 Y137.49 E42.61291
G1 X164.28 Y138.25 E42.67444
G1 X165.07 Y139.75 E42.78021
G1 X165.57 Y140.64 E42.84391
G1 X166.08 Y142.34 E42.95423
G1 X166.39 Y143.31 E43.01827
G1 X166.56 Y145.04 E43.12660
G1 X166.67 Y146.03 E43.18875
G1 X166.49 Y147.97 E43.31004
G1 X166.37 Y148.97 E43.37307
G1 X165.86 Y150.65 E43.48215
G1 X165.56 Y151.60 E43.54469
G1 X165.08 Y152.50 E43.60805
G1 X165.57 Y153.38 E43.67091
G1 X166.08 Y155.07 E43.78117
G1 X166.39 Y156.05 E43.84522
G1 X166.56 Y157.79 E43.95379
G1 X166.67 Y158.77 E44.01563
G1 X166.49 Y160.71 E44.13698
G1 X166.37 Y161.71 E44.20008
G1 X165.86 Y163.39 E44.30916
G1 X165.56 Y164.34 E44.37170
G1 X164.72 Y165.91 E44.48271
G1 X164.24 Y166.79 E44.54499
G1 X163.15 Y168.11 E44.65179
G1 X162.51 Y168.90 E44.71510
G1 X161.14 Y170.02 E44.82553
G1 X160.38 Y170.65 E44.88707
G1 X158.88 Y171.44 E44.99284
G1 X157.99 Y171.94 E45.05654
G1 X156.29 Y172.45 E45.16680
G1 X155.31 Y172.76 E45.23084
G1 X153.58 Y172.93 E45.33947
G1 X152.59 Y173.04 E45.40131
G1 X150.66 Y172.86 E45.52260
G1 X149.66 Y172.74 E45.58564
G1 X147.98 Y172.23 E45.69472
G1 X147.03 Y171.93 E45.75726
G1 X145.46 Y171.09 E45.86827
G1 X144.58 Y170.61 E45.93054
G1 X143.49 Y169.71 E46.01882
G1 X139.28 Y169.71 E46.28118
G1 X139.28 Y163.86 E46.64619
G1 X138.92 Y162.66 E46.72400
G1 X138.61 Y161.69 E46.78764
G1 X138.44 Y159.95 E46.89667
G1 X138.32 Y158.96 E46.95883
G1 X138.51 Y157.02 E47.08020
G1 X138.63 Y156.02 E47.14291
G1 X139.14 Y154.35 E47.25199
G1 X139.28 Y153.90 E47.28150
G1 X139.28 Y151.12 E47.45493
G1 X138.92 Y149.92 E47.53274
G1 X138.61 Y148.95 E47.59638
G1 X138.44 Y147.21 E47.70541
G1 X138.32 Y146.22 E47.76757
G1 X138.51 Y144.28 E47.88894
G1 X138.63 Y143.28 E47.95166
G1 X139.14 Y141.61 E48.06073
G1 X139.28 Y141.16 E48.09024
G1 X139.28 Y135.21 E48.46130
G0 F6000 X139.78 Y135.71
G1 F2700 X143.76 Y135.71 E48.70950
G1 X144.18 Y135.37 E48.74327
G1 X144.90 Y134.77 E48.80175
G1 X146.37 Y133.99 E48.90562
G1 X147.21 Y133.52 E48.96533
G1 X148.92 Y133.00 E49.07709
G1 X149.78 Y132.73 E49.13342
G1 X151.47 Y132.57 E49.23892
G1 X152.41 Y132.46 E49.29788
G1 X154.29 Y132.64 E49.41554
G1 X155.24 Y132.75 E49.47550
G1 X156.87 Y133.24 E49.58159
G1 X157.78 Y133.53 E49.64106
G1 X159.30 Y134.35 E49.74895
G1 X160.14 Y134.81 E49.80824
G1 X161.43 Y135.86 E49.91211
G1 X162.17 Y136.48 E49.97237
G1 X163.26 Y137.81 E50.07970
G1 X163.86 Y138.53 E50.13818
G1 X164.64 Y140.00 E50.24205
G1 X165.10 Y140.84 E50.30176
G1 X165.62 Y142.52 E50.41157
G1 X165.90 Y143.41 E50.46985
G1 X166.06 Y145.08 E50.57397
G1 X166.17 Y146.04 E50.63437
G1 X165.99 Y147.92 E50.75203
G1 X165.88 Y148.87 E50.81199
G1 X165.38 Y150.50 E50.91809
G1 X165.10 Y151.41 E50.97755
G1 X164.51 Y152.50 E51.05467
G1 X164.64 Y152.74 E51.07163
G1 X165.10 Y153.58 E51.13133
G1 X165.62 Y155.26 E51.24114
G1 X165.90 Y156.15 E51.29942
G1 X166.06 Y157.82 E51.40355
G1 X166.17 Y158.78 E51.46382
G1 X165.99 Y160.66 E51.58161
G1 X165.88 Y161.61 E51.64157
G1 X165.38 Y163.24 E51.74766
G1 X165.10 Y164.15 E51.80713
G1 X164.28 Y165.67 E51.91502
G1 X163.82 Y166.51 E51.97430
G1 X162.77 Y167.79 E52.07818
G1 X162.15 Y168.54 E52.13844
G1 X160.82 Y169.63 E52.24577
G1 X160.10 Y170.23 E52.30425
G1 X158.63 Y171.01 E52.40812
G1 X157.79 Y171.47 E52.46783
G1 X156.07 Y172.00 E52.57959
G1 X155.21 Y172.27 E52.63592
G1 X153.53 Y172.43 E52.74142
G1 X152.59 Y172.54 E52.80038
G1 X150.71 Y172.36 E52.91804
G1 X149.76 Y172.25 E52.97800
G1 X148.13 Y171.75 E53.08410
G1 X147.22 Y171.47 E53.14356
G1 X145.69 Y170.65 E53.25145
G1 X144.86 Y170.19 E53.31074
G1 X143.66 Y169.21 E53.40735
G1 X139.78 Y169.21 E53.64956
G1 X139.78 Y163.78 E53.98801
G1 X139.37 Y162.44 E54.07526
G1 X139.10 Y161.59 E54.13122
G1 X138.94 Y159.90 E54.23724
G1 X138.83 Y158.96 E54.29637
G1 X139.01 Y157.08 E54.41411
G1 X139.12 Y156.13 E54.47375
G1 X139.61 Y154.50 E54.57985
G1 X139.78 Y153.98 E54.61393
G1 X139.78 Y151.04 E54.79684
G1 X139.37 Y149.71 E54.88410
G1 X139.10 Y148.85 E54.94005
G1 X138.94 Y147.16 E55.04607
G1 X138.83 Y146.22 E55.10520
G1 X139.01 Y144.34 E55.22294
G1 X139.12 Y143.39 E55.28258
G1 X139.61 Y141.76 E55.38868
G1 X139.78 Y141.24 E55.42276
G1 X139.78 Y135.71 E55.76750
G0 F6000 X140.28 Y136.21
G1 F2700 X143.94 Y136.21 E55.99568
G1 X144.50 Y135.75 E56.04058
G1 X145.18 Y135.19 E56.09609
G1 X146.65 Y134.40 E56.19996
G1 X147.41 Y133.99 E56.25369
G1 X148.98 Y133.51 E56.35638
G1 X149.88 Y133.22 E56.41553
G1 X151.57 Y133.06 E56.52103
G1 X152.41 Y132.96 E56.57403
G1 X154.23 Y133.14 E56.68806
G1 X155.14 Y133.24 E56.74493
G1 X156.72 Y133.72 E56.84802
G1 X157.58 Y134.00 E56.90442
G1 X159.07 Y134.79 E57.00924
G1 X159.85 Y135.22 E57.06540
G1 X161.11 Y136.25 E57.16648
G1 X161.81 Y136.83 E57.22359
G1 X162.86 Y138.11 E57.32632
G1 X163.44 Y138.81 E57.38338
G1 X164.22 Y140.28 E57.48725
G1 X164.64 Y141.03 E57.54098
G1 X165.11 Y142.59 E57.64237
G1 X165.41 Y143.52 E57.70288
G1 X165.57 Y145.19 E57.80807
G1 X165.67 Y146.04 E57.86138
G1 X165.49 Y147.86 E57.97541
G1 X165.39 Y148.77 E58.03229
G1 X164.91 Y150.35 E58.13537
G1 X164.63 Y151.21 E58.19177
G1 X163.95 Y152.50 E58.28267
G1 X164.22 Y153.02 E58.31944
G1 X164.64 Y153.77 E58.37318
G1 X165.11 Y155.33 E58.47456
G1 X165.41 Y156.25 E58.53501
G1 X165.57 Y157.94 E58.64045
G1 X165.67 Y158.78 E58.69345
G1 X165.49 Y160.60 E58.80760
G1 X165.39 Y161.51 E58.86448
G1 X164.91 Y163.09 E58.96756
G1 X164.63 Y163.95 E59.02397
G1 X163.84 Y165.44 E59.12879
G1 X163.41 Y166.22 E59.18495
G1 X162.38 Y167.48 E59.28603
G1 X161.80 Y168.19 E59.34314
G1 X160.50 Y169.24 E59.44741
G1 X159.82 Y169.81 E59.50293
G1 X158.35 Y170.59 E59.60680
G1 X157.59 Y171.01 E59.66053
G1 X156.02 Y171.49 E59.76322
G1 X155.11 Y171.78 E59.82237
G1 X153.43 Y171.94 E59.92787
G1 X152.59 Y172.04 E59.98086
G1 X150.76 Y171.86 E60.09489
G1 X149.86 Y171.76 E60.15177
G1 X148.28 Y171.28 E60.25485
G1 X147.41 Y171.00 E60.31126
G1 X145.93 Y170.21 E60.41608
G1 X145.14 Y169.78 E60.47224
G1 X143.89 Y168.75 E60.57332
G1 X143.84 Y168.71 E60.57713
G1 X140.28 Y168.71 E60.79939
G1 X140.28 Y163.71 E61.11127
G1 X139.88 Y162.41 E61.19610
G1 X139.59 Y161.49 E61.25622
G1 X139.43 Y159.80 E61.36192
G1 X139.33 Y158.95 E61.41529
G1 X139.51 Y157.13 E61.52945
G1 X139.61 Y156.23 E61.58602
G1 X140.09 Y154.65 E61.68910
G1 X140.28 Y154.06 E61.72778
G1 X140.28 Y150.97 E61.92017
G1 X139.88 Y149.67 E62.00500
G1 X139.59 Y148.75 E62.06512
G1 X139.43 Y147.06 E62.17082
G1 X139.33 Y146.21 E62.22419
G1 X139.51 Y144.39 E62.33835
G1 X139.61 Y143.49 E62.39492
G1 X140.09 Y141.91 E62.49800
G1 X140.28 Y141.32 E62.53668
G1 X140.28 Y136.21 E62.85510
G0 F6000 X140.78 Y136.71
G1 F2700 X144.12 Y136.71 E63.06321
G1 X144.79 Y136.16 E63.11776
G1 X145.46 Y135.61 E63.17172
G1 X146.85 Y134.86 E63.26993
G1 X147.60 Y134.45 E63.32338
G1 X149.19 Y133.97 E63.42705
G1 X149.99 Y133.72 E63.47906
G1 X151.58 Y133.56 E63.57881
G1 X152.42 Y133.46 E63.63154
G1 X154.18 Y133.63 E63.74194
G1 X155.04 Y133.73 E63.79574
G1 X156.57 Y134.20 E63.89584
G1 X157.39 Y134.46 E63.94915
G1 X158.83 Y135.23 E64.05090
G1 X159.57 Y135.64 E64.10399
G1 X160.79 Y136.63 E64.20220
G1 X161.46 Y137.19 E64.25620
G1 X162.47 Y138.42 E64.35591
G1 X163.02 Y139.09 E64.40987
G1 X163.76 Y140.48 E64.50808
G1 X164.18 Y141.23 E64.56153
G1 X164.66 Y142.82 E64.66520
G1 X164.91 Y143.62 E64.71721
G1 X165.07 Y145.21 E64.81677
G1 X165.16 Y146.05 E64.86975
G1 X164.99 Y147.81 E64.98015
G1 X164.90 Y148.67 E65.03395
G1 X164.43 Y150.20 E65.13405
G1 X164.17 Y151.02 E65.18736
G1 X163.40 Y152.46 E65.28911
G1 X163.38 Y152.50 E65.29204
G1 X163.76 Y153.22 E65.34296
G1 X164.18 Y153.97 E65.39641
G1 X164.66 Y155.56 E65.50009
G1 X164.91 Y156.35 E65.55210
G1 X165.07 Y157.95 E65.65184
G1 X165.16 Y158.79 E65.70451
G1 X164.99 Y160.55 E65.81503
G1 X164.90 Y161.41 E65.86883
G1 X164.43 Y162.94 E65.96893
G1 X164.17 Y163.76 E66.02224
G1 X163.40 Y165.20 E66.12399
G1 X162.99 Y165.94 E66.17708
G1 X161.99 Y167.16 E66.27529
G1 X161.44 Y167.83 E66.32929
G1 X160.21 Y168.84 E66.42900
G1 X159.54 Y169.39 E66.48296
G1 X158.15 Y170.13 E66.58117
G1 X157.40 Y170.55 E66.63463
G1 X155.81 Y171.03 E66.73830
G1 X155.01 Y171.28 E66.79031
G1 X153.42 Y171.44 E66.89005
G1 X152.58 Y171.53 E66.94279
G1 X150.82 Y171.36 E67.05318
G1 X149.96 Y171.26 E67.10698
G1 X148.43 Y170.80 E67.20708
G1 X147.61 Y170.54 E67.26039
G1 X146.17 Y169.77 E67.36214
G1 X145.43 Y169.36 E67.41523
G1 X144.21 Y168.36 E67.51344
G1 X144.02 Y168.21 E67.52841
G1 X140.78 Y168.21 E67.73066
G1 X140.78 Y163.64 E68.01590
G1 X140.34 Y162.18 E68.11072
G1 X140.09 Y161.39 E68.16267
G1 X139.93 Y159.80 E68.26229
G1 X139.83 Y158.95 E68.31572
G1 X140.00 Y157.18 E68.42625
G1 X140.10 Y156.33 E68.47974
G1 X140.57 Y154.79 E68.57984
G1 X140.78 Y154.13 E68.62321
G1 X140.78 Y150.90 E68.82490
G1 X140.34 Y149.44 E68.91971
G1 X140.09 Y148.65 E68.97166
G1 X139.93 Y147.06 E69.07129
G1 X139.83 Y146.21 E69.12472
G1 X140.00 Y144.44 E69.23524
G1 X140.10 Y143.59 E69.28874
G1 X140.57 Y142.06 E69.38884
G1 X140.78 Y141.39 E69.43221
G1 X140.78 Y136.71 E69.72419
G0 F6000 X141.28 Y137.21
G1 F2700 X144.29 Y137.21 E69.91228
G1 X145.13 Y136.53 E69.97941
G1 X145.74 Y136.02 E70.02890
G1 X147.11 Y135.29 E70.12562
G1 X147.80 Y134.91 E70.17461
G1 X149.28 Y134.46 E70.27126
G1 X150.09 Y134.21 E70.32410
G1 X151.63 Y134.06 E70.42095
G1 X152.42 Y133.97 E70.47049
G1 X154.13 Y134.13 E70.57737
G1 X154.94 Y134.22 E70.62804
G1 X156.43 Y134.68 E70.72512
G1 X157.19 Y134.92 E70.77538
G1 X158.59 Y135.66 E70.87400
G1 X159.29 Y136.05 E70.92408
G1 X160.47 Y137.02 E71.01940
G1 X161.10 Y137.54 E71.07026
G1 X162.09 Y138.74 E71.16705
G1 X162.60 Y139.37 E71.21790
G1 X163.34 Y140.74 E71.31463
G1 X163.72 Y141.43 E71.36361
G1 X164.16 Y142.89 E71.45928
G1 X164.42 Y143.72 E71.51312
G1 X164.57 Y145.26 E71.60991
G1 X164.66 Y146.05 E71.65957
G1 X164.50 Y147.76 E71.76645
G1 X164.40 Y148.57 E71.81712
G1 X163.95 Y150.06 E71.91421
G1 X163.71 Y150.82 E71.96446
G1 X162.96 Y152.22 E72.06308
G1 X162.81 Y152.49 E72.08268
G1 X163.34 Y153.48 E72.15218
G1 X163.72 Y154.16 E72.20116
G1 X164.16 Y155.63 E72.29682
G1 X164.42 Y156.46 E72.35065
G1 X164.57 Y158.00 E72.44751
G1 X164.66 Y158.79 E72.49705
G1 X164.50 Y160.50 E72.60393
G1 X164.40 Y161.31 E72.65466
G1 X163.95 Y162.79 E72.75174
G1 X163.71 Y163.56 E72.80199
G1 X162.96 Y164.96 E72.90062
G1 X162.57 Y165.66 E72.95069
G1 X161.61 Y166.84 E73.04601
G1 X161.09 Y167.47 E73.09687
G1 X159.87 Y168.47 E73.19503
G1 X159.26 Y168.97 E73.24452
G1 X157.89 Y169.71 E73.34125
G1 X157.20 Y170.09 E73.39023
G1 X155.72 Y170.53 E73.48688
G1 X154.91 Y170.79 E73.53972
G1 X153.37 Y170.94 E73.63658
G1 X152.58 Y171.03 E73.68611
G1 X150.87 Y170.87 E73.79300
G1 X150.06 Y170.77 E73.84366
G1 X148.57 Y170.32 E73.94075
G1 X147.81 Y170.08 E73.99100
G1 X146.41 Y169.33 E74.08962
G1 X145.71 Y168.94 E74.13970
G1 X144.53 Y167.98 E74.23502
G1 X144.20 Y167.71 E74.26116
G1 X141.28 Y167.71 E74.44338
G1 X141.28 Y163.56 E74.70225
G1 X140.84 Y162.10 E74.79707
G1 X140.58 Y161.29 E74.85057
G1 X140.43 Y159.75 E74.94707
G1 X140.34 Y158.94 E74.99761
G1 X140.50 Y157.24 E75.10451
G1 X140.59 Y156.43 E75.15492
G1 X141.05 Y154.94 E75.25201
G1 X141.28 Y154.21 E75.29997
G1 X141.28 Y150.82 E75.51132
G1 X140.84 Y149.37 E75.60613
G1 X140.58 Y148.55 E75.65964
G1 X140.43 Y147.01 E75.75613
G1 X140.34 Y146.20 E75.80668
G1 X140.50 Y144.50 E75.91358
G1 X140.59 Y143.69 E75.96399
G1 X141.05 Y142.20 E76.06107
G1 X141.28 Y141.47 E76.10904
G1 X141.28 Y137.21 E76.37470
G0 F6000 X141.78 Y137.71
G1 F2700 X144.47 Y137.71 E76.54271
G1 X145.44 Y136.91 E76.62106
G1 X146.02 Y136.44 E76.66749
G1 X147.30 Y135.75 E76.75828
G1 X147.99 Y135.38 E76.80721
G1 X149.49 Y134.92 E76.90464
G1 X150.19 Y134.70 E76.95050
G1 X151.73 Y134.55 E77.04730
G1 X152.43 Y134.47 E77.09094
G1 X154.07 Y134.63 E77.19419
G1 X154.83 Y134.72 E77.24172
G1 X156.28 Y135.15 E77.33588
G1 X157.00 Y135.38 E77.38306
G1 X158.35 Y136.10 E77.47864
G1 X159.01 Y136.47 E77.52559
G1 X160.16 Y137.41 E77.61803
G1 X160.75 Y137.90 E77.66584
G1 X161.71 Y139.07 E77.76094
G1 X162.19 Y139.65 E77.80737
G1 X162.86 Y140.91 E77.89660
G1 X163.25 Y141.62 E77.94709
G1 X163.71 Y143.12 E78.04470
G1 X163.93 Y143.82 E78.09044
G1 X164.08 Y145.36 E78.18699
G1 X164.16 Y146.06 E78.23088
G1 X164.00 Y147.71 E78.33413
G1 X163.91 Y148.46 E78.38166
G1 X163.47 Y149.91 E78.47582
G1 X163.25 Y150.63 E78.52300
G1 X162.52 Y151.98 E78.61858
G1 X162.24 Y152.49 E78.65493
G1 X162.86 Y153.65 E78.73695
G1 X163.25 Y154.36 E78.78744
G1 X163.71 Y155.85 E78.88488
G1 X163.93 Y156.56 E78.93074
G1 X164.08 Y158.11 E79.02804
G1 X164.16 Y158.80 E79.07117
G1 X164.00 Y160.44 E79.17441
G1 X163.91 Y161.20 E79.22200
G1 X163.47 Y162.65 E79.31617
G1 X163.25 Y163.37 E79.36334
G1 X162.52 Y164.72 E79.45893
G1 X162.16 Y165.38 E79.50588
G1 X161.22 Y166.53 E79.59832
G1 X160.73 Y167.12 E79.64612
G1 X159.55 Y168.08 E79.74123
G1 X158.98 Y168.56 E79.78766
G1 X157.69 Y169.24 E79.87844
G1 X157.01 Y169.62 E79.92737
G1 X155.51 Y170.08 E80.02481
G1 X154.81 Y170.30 E80.07067
G1 X153.27 Y170.45 E80.16746
G1 X152.57 Y170.53 E80.21111
G1 X150.92 Y170.37 E80.31436
G1 X150.17 Y170.28 E80.36188
G1 X148.72 Y169.84 E80.45605
G1 X148.00 Y169.62 E80.50322
G1 X146.65 Y168.89 E80.59881
G1 X145.99 Y168.53 E80.64576
G1 X144.84 Y167.59 E80.73820
G1 X144.38 Y167.21 E80.77551
G1 X141.78 Y167.21 E80.93771
G1 X141.78 Y163.44 E81.17301
G1 X141.75 Y163.38 E81.17728
G1 X141.29 Y161.86 E81.27588
G1 X141.07 Y161.19 E81.32031
G1 X140.92 Y159.62 E81.41856
G1 X140.84 Y158.94 E81.46126
G1 X141.00 Y157.29 E81.56459
G1 X141.09 Y156.53 E81.61186
G1 X141.52 Y155.09 E81.70602
G1 X141.75 Y154.37 E81.75320
G1 X141.78 Y154.32 E81.75666
G1 X141.78 Y150.70 E81.98254
G1 X141.75 Y150.64 E81.98681
G1 X141.29 Y149.12 E82.08541
G1 X141.07 Y148.45 E82.12984
G1 X140.92 Y146.88 E82.22809
G1 X140.84 Y146.20 E82.27079
G1 X141.00 Y144.55 E82.37412
G1 X141.09 Y143.80 E82.42139
G1 X141.52 Y142.35 E82.51555
G1 X141.75 Y141.63 E82.56273
G1 X141.78 Y141.58 E82.56619
G1 X141.78 Y137.71 E82.80759
G0 F6000 X142.28 Y138.21
G1 F2700 X144.65 Y138.21 E82.95558
G1 X145.76 Y137.30 E83.04505
G1 X146.30 Y136.86 E83.08843
G1 X147.56 Y136.19 E83.17737
G1 X148.19 Y135.84 E83.22225
G1 X149.63 Y135.40 E83.31602
G1 X150.29 Y135.19 E83.35933
G1 X151.74 Y135.05 E83.45024
G1 X152.43 Y134.97 E83.49375
G1 X154.02 Y135.13 E83.59337
G1 X154.73 Y135.21 E83.63782
G1 X156.13 Y135.63 E83.72899
G1 X156.80 Y135.84 E83.77307
G1 X158.11 Y136.54 E83.86556
G1 X158.73 Y136.88 E83.90952
G1 X159.84 Y137.79 E83.99904
G1 X160.39 Y138.25 E84.04374
G1 X161.31 Y139.38 E84.13458
G1 X161.77 Y139.93 E84.17916
G1 X162.44 Y141.19 E84.26810
G1 X162.79 Y141.82 E84.31298
G1 X163.22 Y143.26 E84.40675
G1 X163.44 Y143.92 E84.45006
G1 X163.57 Y145.37 E84.54073
G1 X163.66 Y146.06 E84.58455
G1 X163.50 Y147.65 E84.68417
G1 X163.42 Y148.36 E84.72862
G1 X163.00 Y149.76 E84.81978
G1 X162.78 Y150.43 E84.86386
G1 X162.08 Y151.74 E84.95635
G1 X161.74 Y152.36 E85.00031
G1 X161.63 Y152.50 E85.01152
G1 X161.77 Y152.67 E85.02526
G1 X162.44 Y153.93 E85.11420
G1 X162.79 Y154.56 E85.15908
G1 X163.22 Y156.00 E85.25285
G1 X163.44 Y156.66 E85.29617
G1 X163.57 Y158.11 E85.38707
G1 X163.66 Y158.80 E85.43059
G1 X163.50 Y160.39 E85.53020
G1 X163.42 Y161.10 E85.57472
G1 X163.00 Y162.50 E85.66588
G1 X162.78 Y163.17 E85.70996
G1 X162.08 Y164.48 E85.80245
G1 X161.74 Y165.10 E85.84641
G1 X160.83 Y166.21 E85.93593
G1 X160.38 Y166.76 E85.98063
G1 X159.24 Y167.70 E86.07268
G1 X158.70 Y168.14 E86.11605
G1 X157.44 Y168.81 E86.20499
G1 X156.81 Y169.16 E86.24988
G1 X155.37 Y169.59 E86.34365
G1 X154.71 Y169.81 E86.38696
G1 X153.26 Y169.94 E86.47787
G1 X152.57 Y170.03 E86.52138
G1 X150.98 Y169.87 E86.62100
G1 X150.27 Y169.79 E86.66545
G1 X148.87 Y169.37 E86.75661
G1 X148.19 Y169.15 E86.80069
G1 X146.89 Y168.45 E86.89318
G1 X146.27 Y168.11 E86.93715
G1 X145.16 Y167.20 E87.02667
G1 X144.61 Y166.75 E87.07136
G1 X144.57 Y166.71 E87.07442
G1 X142.28 Y166.71 E87.21761
G1 X142.28 Y163.31 E87.42977
G1 X142.21 Y163.18 E87.43881
G1 X141.77 Y161.72 E87.53408
G1 X141.56 Y161.08 E87.57563
G1 X141.42 Y159.64 E87.66593
G1 X141.34 Y158.93 E87.71056
G1 X141.50 Y157.34 E87.81019
G1 X141.58 Y156.64 E87.85445
G1 X142.00 Y155.24 E87.94561
G1 X142.22 Y154.56 E87.98970
G1 X142.28 Y154.44 E87.99818
G1 X142.28 Y150.57 E88.23983
G1 X142.21 Y150.44 E88.24888
G1 X141.77 Y148.98 E88.34414
G1 X141.56 Y148.34 E88.38570
G1 X141.42 Y146.90 E88.47599
G1 X141.34 Y146.19 E88.52063
G1 X141.50 Y144.60 E88.62025
G1 X141.58 Y143.90 E88.66452
G1 X142.00 Y142.50 E88.75568
G1 X142.22 Y141.82 E88.79976
G1 X142.28 Y141.71 E88.80824
G1 X142.28 Y138.21 E89.02620
G0 F6000 X142.78 Y138.71
G1 F2700 X144.88 Y138.71 E89.15710
G1 X144.97 Y138.59 E89.16663
G1 X146.06 Y137.70 E89.25450
G1 X146.58 Y137.28 E89.29602
G1 X147.84 Y136.60 E89.38546
G1 X148.38 Y136.30 E89.42382
G1 X149.76 Y135.88 E89.51394
G1 X150.39 Y135.69 E89.55476
G1 X151.80 Y135.55 E89.64291
G1 X152.44 Y135.47 E89.68316
G1 X153.97 Y135.62 E89.77914
G1 X154.63 Y135.70 E89.82051
G1 X155.98 Y136.11 E89.90868
G1 X156.61 Y136.31 E89.94970
G1 X157.87 Y136.98 E90.03906
G1 X158.45 Y137.30 E90.07995
G1 X159.52 Y138.18 E90.16663
G1 X160.04 Y138.60 E90.20823
G1 X160.93 Y139.69 E90.29611
G1 X161.35 Y140.21 E90.33762
G1 X162.02 Y141.47 E90.42643
G1 X162.33 Y142.01 E90.46542
G1 X162.74 Y143.38 E90.55450
G1 X162.94 Y144.02 E90.59637
G1 X163.08 Y145.42 E90.68433
G1 X163.15 Y146.07 E90.72482
G1 X163.00 Y147.60 E90.82081
G1 X162.93 Y148.26 E90.86218
G1 X162.52 Y149.61 E90.95034
G1 X162.32 Y150.24 E90.99137
G1 X161.65 Y151.50 E91.08073
G1 X161.33 Y152.08 E91.12162
G1 X160.98 Y152.50 E91.15565
G1 X161.35 Y152.95 E91.19194
G1 X162.02 Y154.20 E91.28074
G1 X162.33 Y154.75 E91.31974
G1 X162.74 Y156.12 E91.40881
G1 X162.94 Y156.76 E91.45068
G1 X163.08 Y158.16 E91.53883
G1 X163.15 Y158.81 E91.57908
G1 X163.00 Y160.34 E91.67512
G1 X162.93 Y161.00 E91.71649
G1 X162.52 Y162.35 E91.80466
G1 X162.32 Y162.98 E91.84568
G1 X161.65 Y164.24 E91.93505
G1 X161.33 Y164.82 E91.97594
G1 X160.45 Y165.89 E92.06261
G1 X160.02 Y166.41 E92.10422
G1 X158.93 Y167.30 E92.19209
G1 X158.42 Y167.72 E92.23360
G1 X157.15 Y168.40 E92.32305
G1 X156.62 Y168.70 E92.36141
G1 X155.23 Y169.12 E92.45152
G1 X154.61 Y169.31 E92.49235
G1 X153.20 Y169.45 E92.58050
G1 X152.56 Y169.52 E92.62075
G1 X151.03 Y169.38 E92.71673
G1 X150.37 Y169.30 E92.75810
G1 X149.02 Y168.89 E92.84626
G1 X148.39 Y168.69 E92.88729
G1 X147.13 Y168.01 E92.97665
G1 X146.55 Y167.70 E93.01754
G1 X145.48 Y166.82 E93.10422
G1 X144.96 Y166.39 E93.14582
G1 X144.81 Y166.21 E93.16058
G1 X142.78 Y166.21 E93.28736
G1 X142.78 Y163.18 E93.47638
G1 X142.67 Y162.99 E93.49014
G1 X142.24 Y161.57 E93.58216
G1 X142.06 Y160.98 E93.62081
G1 X141.92 Y159.59 E93.70797
G1 X141.84 Y158.93 E93.74972
G1 X141.99 Y157.40 E93.84571
G1 X142.07 Y156.74 E93.88690
G1 X142.48 Y155.39 E93.97506
G1 X142.68 Y154.76 E94.01609
G1 X142.78 Y154.57 E94.02945
G1 X142.78 Y150.44 E94.28701
G1 X142.67 Y150.25 E94.30077
G1 X142.24 Y148.84 E94.39278
G1 X142.06 Y148.24 E94.43144
G1 X141.92 Y146.85 E94.51860
G1 X141.84 Y146.19 E94.56035
G1 X141.99 Y144.66 E94.65634
G1 X142.07 Y144.00 E94.69752
G1 X142.48 Y142.65 E94.78569
G1 X142.68 Y142.02 E94.82671
G1 X142.78 Y141.83 E94.84008
G1 X142.78 Y138.71 E95.03471
G0 F6000 X143.28 Y139.21
G1 F2700 X145.11 Y139.21 E95.14908
G1 X145.33 Y138.95 E95.17026
G1 X146.40 Y138.07 E95.25619
G1 X146.86 Y137.69 E95.29358
G1 X148.04 Y137.06 E95.37694
G1 X148.58 Y136.76 E95.41549
G1 X149.90 Y136.36 E95.50182
G1 X150.49 Y136.18 E95.54017
G1 X151.80 Y136.05 E95.62255
G1 X152.44 Y135.98 E95.66260
G1 X153.92 Y136.12 E95.75495
G1 X154.53 Y136.19 E95.79325
G1 X155.83 Y136.59 E95.87842
G1 X156.41 Y136.77 E95.91636
G1 X157.63 Y137.42 E96.00263
G1 X158.16 Y137.72 E96.04045
G1 X159.20 Y138.57 E96.12425
G1 X159.68 Y138.96 E96.16271
G1 X160.54 Y140.01 E96.24766
G1 X160.93 Y140.49 E96.28603
G1 X161.56 Y141.67 E96.36939
G1 X161.86 Y142.21 E96.40794
G1 X162.26 Y143.53 E96.49433
G1 X162.45 Y144.12 E96.53267
G1 X162.58 Y145.48 E96.61789
G1 X162.65 Y146.07 E96.65511
G1 X162.51 Y147.55 E96.74746
G1 X162.44 Y148.16 E96.78576
G1 X162.04 Y149.46 E96.87092
G1 X161.86 Y150.04 E96.90887
G1 X161.21 Y151.26 E96.99514
G1 X160.91 Y151.79 E97.03296
G1 X160.34 Y152.50 E97.08968
G1 X160.54 Y152.75 E97.11007
G1 X160.93 Y153.23 E97.14844
G1 X161.56 Y154.41 E97.23180
G1 X161.86 Y154.95 E97.27035
G1 X162.26 Y156.27 E97.35668
G1 X162.45 Y156.86 E97.39502
G1 X162.57 Y158.16 E97.47665
G1 X162.65 Y158.81 E97.51746
G1 X162.51 Y160.29 E97.60987
G1 X162.44 Y160.90 E97.64817
G1 X162.04 Y162.20 E97.73333
G1 X161.86 Y162.78 E97.77128
G1 X161.21 Y164.00 E97.85755
G1 X160.91 Y164.53 E97.89537
G1 X160.06 Y165.57 E97.97917
G1 X159.67 Y166.05 E98.01763
G1 X158.60 Y166.92 E98.10355
G1 X158.14 Y167.30 E98.14095
G1 X156.96 Y167.93 E98.22431
G1 X156.42 Y168.23 E98.26286
G1 X155.09 Y168.63 E98.34919
G1 X154.51 Y168.82 E98.38753
G1 X153.19 Y168.95 E98.46991
G1 X152.56 Y169.02 E98.50997
G1 X151.08 Y168.88 E98.60232
G1 X150.47 Y168.81 E98.64062
G1 X149.16 Y168.41 E98.72578
G1 X148.59 Y168.23 E98.76373
G1 X147.37 Y167.57 E98.85000
G1 X146.83 Y167.28 E98.88782
G1 X145.79 Y166.43 E98.97162
G1 X145.32 Y166.04 E99.01008
G1 X145.05 Y165.71 E99.03658
G1 X143.28 Y165.71 E99.14696
G1 X143.28 Y163.05 E99.31278
G1 X143.13 Y162.79 E99.33137
G1 X142.73 Y161.47 E99.41770
G1 X142.55 Y160.88 E99.45585
G1 X142.42 Y159.54 E99.54013
G1 X142.35 Y158.92 E99.57867
G1 X142.49 Y157.45 E99.67110
G1 X142.56 Y156.84 E99.70921
G1 X142.96 Y155.53 E99.79438
G1 X143.14 Y154.95 E99.83232
G1 X143.28 Y154.70 E99.85057
G1 X143.28 Y150.31 E100.12397
G1 X143.13 Y150.05 E100.14256
G1 X142.73 Y148.73 E100.22889
G1 X142.55 Y148.14 E100.26703
G1 X142.42 Y146.80 E100.35131
G1 X142.35 Y146.18 E100.38986
G1 X142.49 Y144.71 E100.48228
G1 X142.56 Y144.10 E100.52040
G1 X142.96 Y142.79 E100.60556
G1 X143.14 Y142.22 E100.64351
G1 X143.28 Y141.96 E100.66176
G1 X143.28 Y139.21 E100.83307
G0 F6000 X143.78 Y139.71
G1 F2700 X145.35 Y139.71 E100.93104
G1 X145.68 Y139.30 E100.96382
G1 X146.71 Y138.46 E101.04669
G1 X147.14 Y138.11 E101.08112
G1 X148.31 Y137.48 E101.16434
G1 X148.77 Y137.23 E101.19706
G1 X150.04 Y136.84 E101.27974
G1 X150.59 Y136.67 E101.31552
G1 X151.91 Y136.54 E101.39822
G1 X152.45 Y136.48 E101.43193
G1 X153.86 Y136.62 E101.52064
G1 X154.42 Y136.68 E101.55586
G1 X155.69 Y137.06 E101.63803
G1 X156.22 Y137.23 E101.67292
G1 X157.40 Y137.86 E101.75612
G1 X157.88 Y138.13 E101.79090
G1 X158.89 Y138.95 E101.87182
G1 X159.32 Y139.31 E101.90713
G1 X160.16 Y140.33 E101.98911
G1 X160.52 Y140.77 E102.02442
G1 X161.15 Y141.94 E102.10764
G1 X161.40 Y142.40 E102.14036
G1 X161.78 Y143.65 E102.22146
G1 X161.96 Y144.22 E102.25884
G1 X162.09 Y145.54 E102.34141
G1 X162.15 Y146.08 E102.37531
G1 X162.01 Y147.49 E102.46402
G1 X161.95 Y148.06 E102.49924
G1 X161.56 Y149.32 E102.58141
G1 X161.39 Y149.85 E102.61630
G1 X160.77 Y151.03 E102.69949
G1 X160.50 Y151.51 E102.73427
G1 X159.69 Y152.50 E102.81369
G1 X160.16 Y153.07 E102.85973
G1 X160.52 Y153.51 E102.89504
G1 X161.15 Y154.68 E102.97826
G1 X161.40 Y155.14 E103.01098
G1 X161.78 Y156.39 E103.09208
G1 X161.96 Y156.96 E103.12944
G1 X162.09 Y158.28 E103.21214
G1 X162.15 Y158.82 E103.24585
G1 X162.01 Y160.23 E103.33463
G1 X161.95 Y160.79 E103.36985
G1 X161.56 Y162.06 E103.45202
G1 X161.39 Y162.59 E103.48690
G1 X160.77 Y163.76 E103.57010
G1 X160.50 Y164.25 E103.60488
G1 X159.67 Y165.26 E103.68580
G1 X159.31 Y165.69 E103.72111
G1 X158.29 Y166.54 E103.80398
G1 X157.86 Y166.89 E103.83840
G1 X156.68 Y167.52 E103.92163
G1 X156.22 Y167.77 E103.95434
G1 X154.96 Y168.15 E104.03702
G1 X154.41 Y168.33 E104.07280
G1 X153.09 Y168.46 E104.15551
G1 X152.55 Y168.52 E104.18922
G1 X151.13 Y168.38 E104.27793
G1 X150.57 Y168.32 E104.31315
G1 X149.31 Y167.93 E104.39532
G1 X148.78 Y167.76 E104.43021
G1 X147.60 Y167.14 E104.51340
G1 X147.12 Y166.87 E104.54818
G1 X146.11 Y166.04 E104.62910
G1 X145.67 Y165.68 E104.66441
G1 X145.29 Y165.21 E104.70261
G1 X143.78 Y165.21 E104.79659
G1 X143.78 Y162.92 E104.93934
G1 X143.60 Y162.59 E104.96265
G1 X143.22 Y161.35 E105.04375
G1 X143.04 Y160.78 E105.08091
G1 X142.91 Y159.49 E105.16206
G1 X142.85 Y158.92 E105.19772
G1 X142.99 Y157.50 E105.28651
G1 X143.05 Y156.94 E105.32154
G1 X143.43 Y155.68 E105.40371
G1 X143.60 Y155.15 E105.43860
G1 X143.78 Y154.82 E105.46178
G1 X143.78 Y150.18 E105.75108
G1 X143.60 Y149.85 E105.77439
G1 X143.22 Y148.61 E105.85550
G1 X143.04 Y148.04 E105.89265
G1 X142.91 Y146.75 E105.97380
G1 X142.85 Y146.18 E106.00946
G1 X142.99 Y144.76 E106.09825
G1 X143.05 Y144.20 E106.13328
G1 X143.43 Y142.94 E106.21545
G1 X143.60 Y142.41 E106.25034
G1 X143.78 Y142.08 E106.27352
G1 X143.78 Y139.71 E106.42145
G0 F6000 X144.28 Y140.21
G1 F2700 X145.59 Y140.21 E106.50295
G1 X145.71 Y140.06 E106.51514
G1 X146.04 Y139.66 E106.54744
G1 X147.02 Y138.86 E106.62632
G1 X147.02 Y138.86 E106.62638
G1 X147.42 Y138.53 E106.65860
G1 X148.55 Y137.92 E106.73878
G1 X148.97 Y137.69 E106.76856
G1 X150.18 Y137.32 E106.84736
G1 X150.69 Y137.16 E106.88091
G1 X151.96 Y137.04 E106.96016
G1 X152.45 Y136.98 E106.99130
G1 X153.81 Y137.11 E107.07639
G1 X154.32 Y137.17 E107.10853
G1 X155.54 Y137.54 E107.18764
G1 X156.02 Y137.70 E107.21950
G1 X157.16 Y138.30 E107.29960
G1 X157.60 Y138.55 E107.33131
G1 X158.57 Y139.34 E107.40934
G1 X158.97 Y139.67 E107.44164
G1 X159.77 Y140.65 E107.52053
G1 X159.77 Y140.65 E107.52059
G1 X160.10 Y141.05 E107.55280
G1 X160.70 Y142.17 E107.63243
G1 X160.94 Y142.60 E107.66277
G1 X161.30 Y143.80 E107.74103
G1 X161.47 Y144.32 E107.77511
G1 X161.59 Y145.58 E107.85417
G1 X161.65 Y146.08 E107.88557
G1 X161.51 Y147.44 E107.97065
G1 X161.45 Y147.95 E108.00280
G1 X161.09 Y149.17 E108.08191
G1 X160.93 Y149.65 E108.11376
G1 X160.33 Y150.79 E108.19386
G1 X160.08 Y151.23 E108.22557
G1 X159.29 Y152.20 E108.30361
G1 X159.04 Y152.50 E108.32767
G1 X159.77 Y153.39 E108.39929
G1 X159.77 Y153.39 E108.39935
G1 X160.10 Y153.79 E108.43156
G1 X160.70 Y154.91 E108.51119
G1 X160.94 Y155.34 E108.54153
G1 X161.30 Y156.54 E108.61979
G1 X161.47 Y157.06 E108.65387
G1 X161.59 Y158.32 E108.73313
G1 X161.65 Y158.82 E108.76427
G1 X161.51 Y160.18 E108.84941
G1 X161.45 Y160.69 E108.88156
G1 X161.09 Y161.91 E108.96067
G1 X160.93 Y162.39 E108.99252
G1 X160.33 Y163.53 E109.07262
G1 X160.08 Y163.97 E109.10433
G1 X159.29 Y164.94 E109.18237
G1 X158.96 Y165.34 E109.21467
G1 X157.98 Y166.14 E109.29355
G1 X157.98 Y166.14 E109.29362
G1 X157.58 Y166.47 E109.32583
G1 X156.45 Y167.07 E109.40601
G1 X156.03 Y167.31 E109.43580
G1 X154.83 Y167.67 E109.51406
G1 X154.31 Y167.84 E109.54814
G1 X153.04 Y167.96 E109.62739
G1 X152.55 Y168.01 E109.65854
G1 X151.19 Y167.88 E109.74362
G1 X150.68 Y167.82 E109.77577
G1 X149.46 Y167.46 E109.85488
G1 X148.97 Y167.30 E109.88673
G1 X147.84 Y166.70 E109.96683
G1 X147.40 Y166.45 E109.99854
G1 X146.43 Y165.66 E110.07658
G1 X146.03 Y165.33 E110.10888
G1 X145.52 Y164.71 E110.15873
G1 X144.28 Y164.71 E110.23631
G1 X144.28 Y162.79 E110.35593
G1 X144.06 Y162.40 E110.38392
G1 X143.70 Y161.20 E110.46218
G1 X143.53 Y160.68 E110.49607
G1 X143.41 Y159.37 E110.57790
G1 X143.35 Y158.91 E110.60685
G1 X143.49 Y157.55 E110.69201
G1 X143.54 Y157.04 E110.72396
G1 X143.91 Y155.83 E110.80307
G1 X144.07 Y155.34 E110.83492
G1 X144.28 Y154.94 E110.86313
G1 X144.28 Y152.81 E110.99627
G1 X145.70 Y152.81 E111.08489
G1 X145.71 Y152.80 E111.08587
G1 X145.96 Y152.50 E111.10992
G1 X145.47 Y151.91 E111.15744
G1 X144.28 Y151.91 E111.23190
G1 X144.28 Y150.05 E111.34771
G1 X144.06 Y149.66 E111.37570
G1 X143.70 Y148.46 E111.45396
G1 X143.53 Y147.94 E111.48785
G1 X143.41 Y146.63 E111.56968
G1 X143.35 Y146.17 E111.59863
G1 X143.49 Y144.81 E111.68379
G1 X143.54 Y144.31 E111.71574
G1 X143.91 Y143.09 E111.79485
G1 X144.07 Y142.60 E111.82670
G1 X144.28 Y142.21 E111.85491
G1 X144.28 Y140.21 E111.97939
G0 F6000 X144.78 Y140.71
G1 F2700 X145.82 Y140.71 E112.04449
G1 X146.10 Y140.38 E112.07139
G1 X146.39 Y140.01 E112.10059
G1 X147.34 Y139.24 E112.17655
G1 X147.34 Y139.24 E112.17664
G1 X147.70 Y138.95 E112.20575
G1 X148.74 Y138.39 E112.27952
G1 X149.16 Y138.16 E112.30977
G1 X150.32 Y137.81 E112.38510
G1 X150.79 Y137.66 E112.41585
G1 X151.97 Y137.54 E112.48946
G1 X152.46 Y137.49 E112.52029
G1 X153.76 Y137.61 E112.60174
G1 X154.22 Y137.66 E112.63074
G1 X155.39 Y138.02 E112.70691
G1 X155.83 Y138.16 E112.73570
G1 X156.92 Y138.74 E112.81271
G1 X157.32 Y138.96 E112.84140
G1 X158.25 Y139.73 E112.91652
G1 X158.61 Y140.02 E112.94571
G1 X159.38 Y140.97 E113.02167
G1 X159.38 Y140.97 E113.02176
G1 X159.68 Y141.33 E113.05087
G1 X160.24 Y142.36 E113.12414
G1 X160.47 Y142.79 E113.15490
G1 X160.82 Y143.95 E113.23022
G1 X160.97 Y144.42 E113.26103
G1 X161.09 Y145.60 E113.33458
G1 X161.14 Y146.09 E113.36547
G1 X161.02 Y147.39 E113.44692
G1 X160.96 Y147.85 E113.47592
G1 X160.61 Y149.02 E113.55209
G1 X160.47 Y149.46 E113.58089
G1 X159.89 Y150.55 E113.65789
G1 X159.66 Y150.95 E113.68658
G1 X158.90 Y151.88 E113.76170
G1 X158.60 Y152.24 E113.79089
G1 X158.29 Y152.50 E113.81597
G1 X158.61 Y152.76 E113.84184
G1 X159.38 Y153.71 E113.91780
G1 X159.38 Y153.71 E113.91789
G1 X159.68 Y154.07 E113.94701
G1 X160.24 Y155.10 E114.02027
G1 X160.47 Y155.53 E114.05103
G1 X160.82 Y156.69 E114.12635
G1 X160.97 Y157.16 E114.15710
G1 X161.09 Y158.33 E114.23065
G1 X161.14 Y158.83 E114.26154
G1 X161.02 Y160.13 E114.34305
G1 X160.96 Y160.59 E114.37205
G1 X160.61 Y161.76 E114.44823
G1 X160.47 Y162.20 E114.47702
G1 X159.89 Y163.29 E114.55402
G1 X159.66 Y163.69 E114.58272
G1 X158.90 Y164.62 E114.65783
G1 X158.60 Y164.98 E114.68703
G1 X157.66 Y165.75 E114.76299
G1 X157.66 Y165.75 E114.76308
G1 X157.30 Y166.05 E114.79219
G1 X156.26 Y166.60 E114.86545
G1 X155.83 Y166.84 E114.89621
G1 X154.68 Y167.19 E114.97154
G1 X154.21 Y167.34 E115.00228
G1 X153.03 Y167.46 E115.07584
G1 X152.54 Y167.51 E115.10672
G1 X151.24 Y167.39 E115.18818
G1 X150.78 Y167.33 E115.21718
G1 X149.61 Y166.98 E115.29335
G1 X149.17 Y166.84 E115.32214
G1 X148.08 Y166.26 E115.39915
G1 X147.68 Y166.03 E115.42784
G1 X146.75 Y165.27 E115.50295
G1 X146.38 Y164.97 E115.53215
G1 X145.76 Y164.21 E115.59370
G1 X144.78 Y164.21 E115.65488
G1 X144.78 Y162.66 E115.75123
G1 X144.76 Y162.63 E115.75335
G1 X144.53 Y162.20 E115.78411
G1 X144.18 Y161.05 E115.85943
G1 X144.03 Y160.58 E115.89004
G1 X143.91 Y159.40 E115.96373
G1 X143.85 Y158.91 E115.99474
G1 X143.98 Y157.61 E116.07633
G1 X144.03 Y157.15 E116.10514
G1 X144.39 Y155.98 E116.18131
G1 X144.53 Y155.54 E116.21011
G1 X144.78 Y155.07 E116.24320
G1 X144.78 Y153.31 E116.35302
G1 X145.94 Y153.31 E116.42517
G1 X146.10 Y153.12 E116.44090
G1 X146.39 Y152.75 E116.47009
G1 X146.71 Y152.50 E116.49517
G1 X146.38 Y152.24 E116.52105
G1 X145.71 Y151.41 E116.58752
G1 X144.78 Y151.41 E116.64558
G1 X144.78 Y149.93 E116.73813
G1 X144.76 Y149.90 E116.74025
G1 X144.53 Y149.46 E116.77101
G1 X144.18 Y148.31 E116.84633
G1 X144.03 Y147.84 E116.87694
G1 X143.91 Y146.66 E116.95063
G1 X143.85 Y146.17 E116.98164
G1 X143.98 Y144.87 E117.06322
G1 X144.03 Y144.41 E117.09204
G1 X144.39 Y143.24 E117.16821
G1 X144.53 Y142.80 E117.19700
G1 X144.78 Y142.33 E117.23009
G1 X144.78 Y140.71 E117.33124
G0 F6000 X145.28 Y141.21
G1 F2700 X146.06 Y141.21 E117.37995
G1 X146.48 Y140.69 E117.42161
G1 X146.75 Y140.37 E117.44761
G1 X147.66 Y139.62 E117.52131
G1 X147.98 Y139.36 E117.54665
G1 X149.02 Y138.81 E117.62061
G1 X149.36 Y138.62 E117.64470
G1 X150.48 Y138.28 E117.71756
G1 X150.89 Y138.15 E117.74464
G1 X152.07 Y138.03 E117.81857
G1 X152.46 Y137.99 E117.84305
G1 X153.71 Y138.11 E117.92093
G1 X154.12 Y138.16 E117.94680
G1 X155.24 Y138.50 E118.01997
G1 X155.63 Y138.62 E118.04569
G1 X156.68 Y139.18 E118.11957
G1 X157.04 Y139.38 E118.14522
G1 X157.94 Y140.11 E118.21750
G1 X158.26 Y140.38 E118.24351
G1 X159.00 Y141.28 E118.31654
G1 X159.26 Y141.61 E118.34254
G1 X159.82 Y142.65 E118.41651
G1 X160.01 Y142.99 E118.44060
G1 X160.35 Y144.10 E118.51312
G1 X160.48 Y144.52 E118.54053
G1 X160.59 Y145.70 E118.61408
G1 X160.64 Y146.09 E118.63901
G1 X160.52 Y147.34 E118.71689
G1 X160.47 Y147.75 E118.74275
G1 X160.13 Y148.87 E118.81593
G1 X160.01 Y149.26 E118.84164
G1 X159.45 Y150.31 E118.91552
G1 X159.25 Y150.67 E118.94117
G1 X158.51 Y151.57 E119.01345
G1 X158.25 Y151.89 E119.03946
G1 X157.50 Y152.50 E119.09960
G1 X157.94 Y152.85 E119.13434
G1 X158.26 Y153.12 E119.16035
G1 X159.00 Y154.02 E119.23338
G1 X159.26 Y154.34 E119.25938
G1 X159.82 Y155.39 E119.33335
G1 X160.01 Y155.73 E119.35744
G1 X160.35 Y156.84 E119.42996
G1 X160.48 Y157.26 E119.45737
G1 X160.59 Y158.44 E119.53092
G1 X160.64 Y158.83 E119.55579
G1 X160.52 Y160.07 E119.63366
G1 X160.47 Y160.49 E119.65959
G1 X160.13 Y161.61 E119.73277
G1 X160.01 Y162.00 E119.75848
G1 X159.45 Y163.05 E119.83236
G1 X159.25 Y163.41 E119.85801
G1 X158.51 Y164.31 E119.93029
G1 X158.25 Y164.63 E119.95630
G1 X157.34 Y165.38 E120.03000
G1 X157.02 Y165.63 E120.05534
G1 X155.98 Y166.19 E120.12930
G1 X155.64 Y166.38 E120.15339
G1 X154.53 Y166.72 E120.22591
G1 X154.11 Y166.85 E120.25333
G1 X152.93 Y166.96 E120.32726
G1 X152.54 Y167.01 E120.35174
G1 X151.29 Y166.89 E120.42962
G1 X150.88 Y166.84 E120.45549
G1 X149.76 Y166.50 E120.52866
G1 X149.37 Y166.38 E120.55438
G1 X148.32 Y165.82 E120.62825
G1 X147.96 Y165.62 E120.65391
G1 X147.06 Y164.88 E120.72619
G1 X146.74 Y164.62 E120.75219
G1 X146.00 Y163.71 E120.82558
G1 X145.28 Y163.71 E120.87023
G1 X145.28 Y162.54 E120.94313
G1 X145.18 Y162.35 E120.95691
G1 X144.99 Y162.01 E120.98100
G1 X144.65 Y160.90 E121.05352
G1 X144.52 Y160.48 E121.08080
G1 X144.41 Y159.34 E121.15179
G1 X144.36 Y158.90 E121.17948
G1 X144.48 Y157.66 E121.25742
G1 X144.53 Y157.25 E121.28316
G1 X144.87 Y156.13 E121.35634
G1 X144.99 Y155.73 E121.38206
G1 X145.28 Y155.20 E121.42003
G1 X145.28 Y153.81 E121.50652
G1 X146.17 Y153.81 E121.56234
G1 X146.48 Y153.43 E121.59279
G1 X146.75 Y153.11 E121.61879
G1 X147.49 Y152.50 E121.67893
G1 X147.06 Y152.15 E121.71367
G1 X146.74 Y151.88 E121.73968
G1 X145.99 Y150.97 E121.81337
G1 X145.94 Y150.91 E121.81798
G1 X145.28 Y150.91 E121.85951
G1 X145.28 Y149.80 E121.92861
G1 X145.18 Y149.61 E121.94239
G1 X144.99 Y149.27 E121.96648
G1 X144.65 Y148.16 E122.03900
G1 X144.52 Y147.74 E122.06628
G1 X144.41 Y146.61 E122.13727
G1 X144.36 Y146.16 E122.16495
G1 X144.48 Y144.92 E122.24290
G1 X144.53 Y144.51 E122.26864
G1 X144.87 Y143.39 E122.34182
G1 X144.99 Y143.00 E122.36753
G1 X145.28 Y142.46 E122.40551
G1 X145.28 Y141.21 E122.48334
G0 F6000 X145.78 Y141.71
G1 F2700 X146.30 Y141.71 E122.51564
G1 X146.87 Y141.01 E122.57197
G1 X147.10 Y140.73 E122.59491
G1 X147.98 Y140.01 E122.66555
G1 X148.26 Y139.78 E122.68788
G1 X149.22 Y139.27 E122.75613
G1 X149.56 Y139.08 E122.77999
G1 X150.62 Y138.76 E122.84957
G1 X150.99 Y138.64 E122.87372
G1 X152.13 Y138.53 E122.94476
G1 X152.47 Y138.49 E122.96611
G1 X153.65 Y138.61 E123.04035
G1 X154.01 Y138.65 E123.06314
G1 X155.09 Y138.97 E123.13333
G1 X155.44 Y139.08 E123.15596
G1 X156.44 Y139.62 E123.22679
G1 X156.76 Y139.79 E123.24932
G1 X157.62 Y140.50 E123.31872
G1 X157.90 Y140.73 E123.34167
G1 X158.61 Y141.60 E123.41173
G1 X158.85 Y141.89 E123.43463
G1 X159.36 Y142.85 E123.50260
G1 X159.55 Y143.19 E123.52674
G1 X159.87 Y144.25 E123.59633
G1 X159.99 Y144.62 E123.62047
G1 X160.10 Y145.76 E123.69157
G1 X160.14 Y146.10 E123.71292
G1 X160.02 Y147.28 E123.78716
G1 X159.98 Y147.65 E123.80995
G1 X159.65 Y148.72 E123.88015
G1 X159.54 Y149.07 E123.90277
G1 X159.01 Y150.07 E123.97361
G1 X158.83 Y150.39 E123.99613
G1 X158.13 Y151.25 E124.06553
G1 X157.90 Y151.53 E124.08848
G1 X157.02 Y152.25 E124.15911
G1 X156.74 Y152.48 E124.18145
G1 X156.70 Y152.50 E124.18457
G1 X156.76 Y152.53 E124.18870
G1 X157.62 Y153.24 E124.25810
G1 X157.90 Y153.47 E124.28105
G1 X158.61 Y154.34 E124.35111
G1 X158.85 Y154.62 E124.37402
G1 X159.36 Y155.59 E124.44198
G1 X159.55 Y155.93 E124.46613
G1 X159.87 Y156.99 E124.53571
G1 X159.99 Y157.36 E124.55985
G1 X160.10 Y158.50 E124.63090
G1 X160.14 Y158.84 E124.65225
G1 X160.02 Y160.02 E124.72649
G1 X159.98 Y160.38 E124.74934
G1 X159.65 Y161.46 E124.81953
G1 X159.54 Y161.81 E124.84215
G1 X159.01 Y162.81 E124.91299
G1 X158.83 Y163.13 E124.93552
G1 X158.13 Y163.99 E125.00492
G1 X157.90 Y164.27 E125.02786
G1 X157.02 Y164.99 E125.09850
G1 X156.74 Y165.22 E125.12083
G1 X155.78 Y165.73 E125.18880
G1 X155.44 Y165.92 E125.21294
G1 X154.37 Y166.24 E125.28252
G1 X154.00 Y166.36 E125.30667
G1 X152.87 Y166.47 E125.37771
G1 X152.53 Y166.51 E125.39906
G1 X151.35 Y166.39 E125.47330
G1 X150.98 Y166.35 E125.49609
G1 X149.91 Y166.02 E125.56628
G1 X149.56 Y165.91 E125.58891
G1 X148.56 Y165.38 E125.65974
G1 X148.24 Y165.20 E125.68227
G1 X147.38 Y164.50 E125.75167
G1 X147.10 Y164.26 E125.77462
G1 X146.38 Y163.39 E125.84525
G1 X146.23 Y163.21 E125.85970
G1 X145.78 Y163.21 E125.88795
G1 X145.78 Y162.41 E125.93752
G1 X145.64 Y162.15 E125.95619
G1 X145.45 Y161.81 E125.98033
G1 X145.13 Y160.74 E126.04992
G1 X145.01 Y160.38 E126.07392
G1 X144.90 Y159.23 E126.14592
G1 X144.86 Y158.90 E126.16657
G1 X144.98 Y157.71 E126.24082
G1 X145.02 Y157.35 E126.26355
G1 X145.34 Y156.28 E126.33374
G1 X145.45 Y155.93 E126.35636
G1 X145.78 Y155.32 E126.39941
G1 X145.78 Y154.31 E126.46240
G1 X146.41 Y154.31 E126.50175
G1 X146.87 Y153.75 E126.54690
G1 X147.10 Y153.47 E126.56985
G1 X147.98 Y152.75 E126.64049
G1 X148.26 Y152.52 E126.66282
G1 X148.30 Y152.50 E126.66595
G1 X148.24 Y152.47 E126.67008
G1 X147.38 Y151.76 E126.73948
G1 X147.10 Y151.53 E126.76242
G1 X146.38 Y150.65 E126.83306
G1 X146.18 Y150.41 E126.85242
G1 X145.78 Y150.41 E126.87756
G1 X145.78 Y149.68 E126.92333
G1 X145.64 Y149.41 E126.94199
G1 X145.45 Y149.07 E126.96614
G1 X145.13 Y148.00 E127.03572
G1 X145.01 Y147.64 E127.05972
G1 X144.90 Y146.49 E127.13172
G1 X144.86 Y146.16 E127.15238
G1 X144.98 Y144.97 E127.22663
G1 X145.02 Y144.61 E127.24935
G1 X145.34 Y143.54 E127.31954
G1 X145.45 Y143.19 E127.34217
G1 X145.78 Y142.58 E127.38522
G1 X145.78 Y141.71 E127.43953
G0 F6000 X146.28 Y142.21
G1 F2700 X146.55 Y142.21 E127.45637
G1 X146.58 Y142.15 E127.46042
G1 X147.26 Y141.33 E127.52693
G1 X147.46 Y141.08 E127.54678
G1 X148.30 Y140.40 E127.61432
G1 X148.53 Y140.20 E127.63364
G1 X149.49 Y139.69 E127.70138
G1 X149.75 Y139.54 E127.71977
G1 X150.81 Y139.22 E127.78871
G1 X151.09 Y139.13 E127.80728
G1 X152.14 Y139.03 E127.87276
G1 X152.47 Y139.00 E127.89372
G1 X153.60 Y139.10 E127.96433
G1 X153.91 Y139.14 E127.98404
G1 X154.94 Y139.45 E128.05122
G1 X155.24 Y139.55 E128.07078
G1 X156.20 Y140.06 E128.13852
G1 X156.47 Y140.21 E128.15803
G1 X157.30 Y140.89 E128.22455
G1 X157.55 Y141.09 E128.24440
G1 X158.23 Y141.92 E128.31145
G1 X158.43 Y142.16 E128.33125
G1 X158.94 Y143.12 E128.39899
G1 X159.08 Y143.38 E128.41739
G1 X159.40 Y144.44 E128.48632
G1 X159.49 Y144.72 E128.50490
G1 X159.59 Y145.77 E128.57043
G1 X159.63 Y146.10 E128.59140
G1 X159.53 Y147.23 E128.66200
G1 X159.49 Y147.54 E128.68172
G1 X159.18 Y148.57 E128.74890
G1 X159.08 Y148.87 E128.76846
G1 X158.57 Y149.83 E128.83620
G1 X158.42 Y150.11 E128.85571
G1 X157.74 Y150.93 E128.92223
G1 X157.54 Y151.18 E128.94208
G1 X156.70 Y151.86 E129.00962
G1 X156.46 Y152.06 E129.02893
G1 X155.64 Y152.50 E129.08699
G1 X156.20 Y152.80 E129.12652
G1 X156.47 Y152.95 E129.14604
G1 X157.30 Y153.62 E129.21255
G1 X157.55 Y153.83 E129.23240
G1 X158.23 Y154.66 E129.29945
G1 X158.43 Y154.90 E129.31925
G1 X158.94 Y155.86 E129.38699
G1 X159.08 Y156.12 E129.40539
G1 X159.40 Y157.18 E129.47432
G1 X159.49 Y157.46 E129.49290
G1 X159.59 Y158.51 E129.55837
G1 X159.63 Y158.84 E129.57934
G1 X159.53 Y159.97 E129.65000
G1 X159.49 Y160.28 E129.66972
G1 X159.18 Y161.31 E129.73690
G1 X159.08 Y161.61 E129.75646
G1 X158.57 Y162.57 E129.82420
G1 X158.42 Y162.84 E129.84371
G1 X157.74 Y163.67 E129.91023
G1 X157.54 Y163.92 E129.93008
G1 X156.70 Y164.60 E129.99762
G1 X156.46 Y164.80 E130.01693
G1 X155.50 Y165.31 E130.08467
G1 X155.25 Y165.45 E130.10307
G1 X154.19 Y165.77 E130.17200
G1 X153.91 Y165.86 E130.19058
G1 X152.86 Y165.97 E130.25605
G1 X152.53 Y166.00 E130.27701
G1 X151.40 Y165.90 E130.34762
G1 X151.09 Y165.86 E130.36734
G1 X150.05 Y165.55 E130.43451
G1 X149.75 Y165.45 E130.45408
G1 X148.80 Y164.94 E130.52182
G1 X148.52 Y164.79 E130.54133
G1 X147.70 Y164.11 E130.60784
G1 X147.45 Y163.91 E130.62769
G1 X146.77 Y163.07 E130.69523
G1 X146.57 Y162.83 E130.71455
G1 X146.50 Y162.71 E130.72325
G1 X146.28 Y162.71 E130.73722
G1 X146.28 Y162.29 E130.76341
G1 X146.06 Y161.88 E130.79276
G1 X145.91 Y161.62 E130.81116
G1 X145.59 Y160.56 E130.88009
G1 X145.50 Y160.28 E130.89861
G1 X145.40 Y159.23 E130.96415
G1 X145.36 Y158.90 E130.98519
G1 X145.47 Y157.77 E131.05586
G1 X145.51 Y157.45 E131.07552
G1 X145.82 Y156.42 E131.14270
G1 X145.92 Y156.12 E131.16226
G1 X146.28 Y155.45 E131.21014
G1 X146.28 Y154.81 E131.24986
G1 X146.65 Y154.81 E131.27281
G1 X147.26 Y154.07 E131.33272
G1 X147.46 Y153.82 E131.35257
G1 X148.30 Y153.13 E131.42011
G1 X148.53 Y152.94 E131.43943
G1 X149.36 Y152.50 E131.49749
G1 X148.80 Y152.20 E131.53702
G1 X148.52 Y152.05 E131.55653
G1 X147.70 Y151.37 E131.62305
G1 X147.45 Y151.17 E131.64290
G1 X146.77 Y150.33 E131.71043
G1 X146.57 Y150.09 E131.72975
G1 X146.47 Y149.91 E131.74275
G1 X146.28 Y149.91 E131.75472
G1 X146.28 Y149.55 E131.77711
G1 X146.06 Y149.14 E131.80646
G1 X145.91 Y148.88 E131.82486
G1 X145.59 Y147.82 E131.89379
G1 X145.50 Y147.54 E131.91231
G1 X145.40 Y146.49 E131.97785
G1 X145.36 Y146.16 E131.99888
G1 X145.47 Y145.03 E132.06956
G1 X145.51 Y144.72 E132.08922
G1 X145.82 Y143.68 E132.15639
G1 X145.92 Y143.38 E132.17596
G1 X146.28 Y142.71 E132.22383
G1 X146.28 Y142.21 E132.25489
G0 F6000 X146.78 Y142.71
G1 F2700 X146.84 Y142.71 E132.25901
G1 X146.87 Y142.67 E132.26210
G1 X147.00 Y142.44 E132.27857
G1 X147.64 Y141.65 E132.34221
G1 X147.81 Y141.44 E132.35896
G1 X148.61 Y140.78 E132.42344
G1 X148.81 Y140.62 E132.43969
G1 X149.73 Y140.13 E132.50439
G1 X149.95 Y140.01 E132.51991
G1 X150.93 Y139.71 E132.58371
G1 X151.19 Y139.63 E132.60125
G1 X152.23 Y139.53 E132.66628
G1 X152.48 Y139.50 E132.68166
G1 X153.55 Y139.60 E132.74864
G1 X153.81 Y139.63 E132.76528
G1 X154.80 Y139.93 E132.82947
G1 X155.05 Y140.01 E132.84596
G1 X155.96 Y140.50 E132.91057
G1 X156.19 Y140.63 E132.92704
G1 X156.98 Y141.27 E132.99069
G1 X157.19 Y141.44 E133.00743
G1 X157.84 Y142.24 E133.07151
G1 X158.01 Y142.44 E133.08817
G1 X158.50 Y143.36 E133.15287
G1 X158.62 Y143.58 E133.16838
G1 X158.92 Y144.56 E133.23218
G1 X159.00 Y144.82 E133.24972
G1 X159.10 Y145.86 E133.31481
G1 X159.13 Y146.11 E133.33020
G1 X159.03 Y147.18 E133.39718
G1 X159.00 Y147.44 E133.41381
G1 X158.70 Y148.43 E133.47801
G1 X158.62 Y148.68 E133.49449
G1 X158.13 Y149.59 E133.55911
G1 X158.00 Y149.82 E133.57558
G1 X157.36 Y150.61 E133.63922
G1 X157.19 Y150.82 E133.65596
G1 X156.38 Y151.48 E133.72044
G1 X156.18 Y151.64 E133.73670
G1 X155.27 Y152.13 E133.80140
G1 X155.05 Y152.25 E133.81692
G1 X154.24 Y152.50 E133.87010
G1 X154.80 Y152.67 E133.90666
G1 X155.05 Y152.75 E133.92315
G1 X155.96 Y153.24 E133.98776
G1 X156.19 Y153.37 E134.00423
G1 X156.98 Y154.01 E134.06788
G1 X157.19 Y154.18 E134.08462
G1 X157.84 Y154.98 E134.14870
G1 X158.01 Y155.18 E134.16536
G1 X158.50 Y156.10 E134.23006
G1 X158.62 Y156.32 E134.24557
G1 X158.92 Y157.29 E134.30937
G1 X159.00 Y157.56 E134.32691
G1 X159.10 Y158.60 E134.39194
G1 X159.13 Y158.85 E134.40733
G1 X159.03 Y159.92 E134.47436
G1 X159.00 Y160.18 E134.49100
G1 X158.70 Y161.17 E134.55520
G1 X158.62 Y161.42 E134.57168
G1 X158.13 Y162.33 E134.63630
G1 X158.00 Y162.56 E134.65277
G1 X157.36 Y163.35 E134.71641
G1 X157.19 Y163.56 E134.73315
G1 X156.38 Y164.22 E134.79763
G1 X156.18 Y164.38 E134.81389
G1 X155.27 Y164.87 E134.87859
G1 X155.05 Y164.99 E134.89411
G1 X154.07 Y165.29 E134.95791
G1 X153.80 Y165.37 E134.97544
G1 X152.77 Y165.47 E135.04048
G1 X152.52 Y165.50 E135.05586
G1 X151.45 Y165.40 E135.12284
G1 X151.19 Y165.37 E135.13947
G1 X150.20 Y165.07 E135.20367
G1 X149.95 Y164.99 E135.22016
G1 X149.04 Y164.50 E135.28477
G1 X148.81 Y164.37 E135.30124
G1 X148.01 Y163.73 E135.36488
G1 X147.81 Y163.56 E135.38163
G1 X147.15 Y162.75 E135.44611
G1 X146.99 Y162.55 E135.46236
G1 X146.80 Y162.21 E135.48669
G1 X146.78 Y162.21 E135.48819
G1 X146.78 Y162.16 E135.49100
G1 X146.50 Y161.64 E135.52819
G1 X146.38 Y161.42 E135.54370
G1 X146.08 Y160.44 E135.60750
G1 X146.00 Y160.18 E135.62496
G1 X145.90 Y159.17 E135.68781
G1 X145.87 Y158.89 E135.70551
G1 X145.97 Y157.82 E135.77256
G1 X146.00 Y157.56 E135.78913
G1 X146.30 Y156.57 E135.85333
G1 X146.38 Y156.32 E135.86982
G1 X146.78 Y155.57 E135.92263
G1 X146.78 Y155.31 E135.93897
G1 X146.92 Y155.31 E135.94782
G1 X147.00 Y155.17 E135.95751
G1 X147.64 Y154.38 E136.02115
G1 X147.81 Y154.18 E136.03790
G1 X148.61 Y153.52 E136.10237
G1 X148.81 Y153.36 E136.11863
G1 X149.73 Y152.87 E136.18333
G1 X149.95 Y152.75 E136.19885
G1 X150.76 Y152.50 E136.25204
G1 X150.20 Y152.33 E136.28859
G1 X149.95 Y152.25 E136.30508
G1 X149.04 Y151.76 E136.36970
G1 X148.81 Y151.63 E136.38617
G1 X148.01 Y150.99 E136.44981
G1 X147.81 Y150.82 E136.46655
G1 X147.15 Y150.02 E136.53103
G1 X146.99 Y149.81 E136.54729
G1 X146.50 Y148.90 E136.61199
G1 X146.38 Y148.68 E136.62751
G1 X146.08 Y147.70 E136.69131
G1 X146.00 Y147.44 E136.70876
G1 X145.90 Y146.43 E136.77161
G1 X145.87 Y146.15 E136.78932
G1 X145.97 Y145.08 E136.85636
G1 X146.00 Y144.82 E136.87293
G1 X146.30 Y143.83 E136.93713
G1 X146.38 Y143.58 E136.95362
G1 X146.78 Y142.83 E137.00643
G1 X146.78 Y142.71 E137.01410
G0 F6000 X147.31 Y142.90
G1 F2700 X147.41 Y142.72 E137.02750
G1 X148.03 Y141.96 E137.08830
G1 X148.17 Y141.79 E137.10186
G1 X148.93 Y141.17 E137.16328
G1 X149.09 Y141.03 E137.17661
G1 X149.96 Y140.57 E137.23813
G1 X150.14 Y140.47 E137.25086
G1 X151.10 Y140.18 E137.31316
G1 X151.29 Y140.12 E137.32598
G1 X152.29 Y140.02 E137.38819
G1 X152.48 Y140.00 E137.40038
G1 X153.49 Y140.10 E137.46372
G1 X153.71 Y140.12 E137.47728
G1 X154.65 Y140.41 E137.53846
G1 X154.85 Y140.47 E137.55189
G1 X155.72 Y140.94 E137.61344
G1 X155.91 Y141.04 E137.62683
G1 X156.67 Y141.66 E137.68763
G1 X156.83 Y141.80 E137.70119
G1 X157.46 Y142.56 E137.76261
G1 X157.59 Y142.72 E137.77595
G1 X158.06 Y143.59 E137.83710
G1 X158.16 Y143.77 E137.85019
G1 X158.44 Y144.71 E137.91105
G1 X158.51 Y144.93 E137.92531
G1 X158.60 Y145.90 E137.98652
G1 X158.63 Y146.11 E137.99977
G1 X158.53 Y147.12 E138.06312
G1 X158.50 Y147.34 E138.07668
G1 X158.22 Y148.28 E138.13786
G1 X158.16 Y148.48 E138.15129
G1 X157.69 Y149.35 E138.21283
G1 X157.59 Y149.54 E138.22623
G1 X156.97 Y150.30 E138.28703
G1 X156.83 Y150.47 E138.30059
G1 X156.07 Y151.09 E138.36201
G1 X155.90 Y151.22 E138.37534
G1 X155.03 Y151.69 E138.43686
G1 X154.85 Y151.79 E138.44959
G1 X153.90 Y152.08 E138.51189
G1 X153.70 Y152.14 E138.52471
G1 X152.71 Y152.24 E138.58692
G1 X152.52 Y152.26 E138.59911
G1 X151.50 Y152.16 E138.66245
G1 X151.29 Y152.14 E138.67601
G1 X150.35 Y151.85 E138.73719
G1 X150.15 Y151.79 E138.75062
G1 X149.27 Y151.32 E138.81216
G1 X149.09 Y151.22 E138.82556
G1 X148.33 Y150.60 E138.88636
G1 X148.16 Y150.46 E138.89992
G1 X147.54 Y149.70 E138.96134
G1 X147.40 Y149.53 E138.97468
G1 X146.94 Y148.66 E139.03619
G1 X146.84 Y148.49 E139.04892
G1 X146.55 Y147.53 E139.11122
G1 X146.49 Y147.34 E139.12398
G1 X146.39 Y146.34 E139.18614
G1 X146.37 Y146.15 E139.19851
G1 X146.47 Y145.13 E139.26192
G1 X146.49 Y144.92 E139.27542
G1 X146.78 Y143.98 E139.33660
G1 X146.84 Y143.78 E139.35003
G1 X147.31 Y142.90 E139.41157
G0 F6000 X147.75 Y143.14
G1 F2700 X147.83 Y143.00 E139.42190
G1 X148.41 Y142.28 E139.47978
G1 X148.52 Y142.15 E139.49028
G1 X149.24 Y141.56 E139.54842
G1 X149.37 Y141.45 E139.55892
G1 X150.20 Y141.01 E139.61739
G1 X150.34 Y140.93 E139.62722
G1 X151.23 Y140.66 E139.68520
G1 X151.23 Y140.66 E139.68526
G1 X151.40 Y140.61 E139.69619
G1 X152.31 Y140.52 E139.75364
G1 X152.49 Y140.50 E139.76463
G1 X153.44 Y140.59 E139.82433
G1 X153.61 Y140.61 E139.83475
G1 X154.50 Y140.88 E139.89301
G1 X154.66 Y140.94 E139.90335
G1 X155.49 Y141.38 E139.96182
G1 X155.63 Y141.46 E139.97215
G1 X156.35 Y142.04 E140.03003
G1 X156.48 Y142.15 E140.04053
G1 X157.07 Y142.87 E140.09867
G1 X157.18 Y143.00 E140.10917
G1 X157.61 Y143.81 E140.16650
G1 X157.69 Y143.97 E140.17747
G1 X157.96 Y144.86 E140.23545
G1 X157.96 Y144.86 E140.23551
G1 X158.02 Y145.03 E140.24644
G1 X158.10 Y145.94 E140.30395
G1 X158.12 Y146.12 E140.31494
G1 X158.03 Y147.07 E140.37464
G1 X158.01 Y147.24 E140.38506
G1 X157.74 Y148.13 E140.44332
G1 X157.69 Y148.29 E140.45366
G1 X157.25 Y149.12 E140.51213
G1 X157.17 Y149.26 E140.52246
G1 X156.58 Y149.98 E140.58034
G1 X156.48 Y150.11 E140.59084
G1 X155.75 Y150.70 E140.64898
G1 X155.62 Y150.81 E140.65948
G1 X154.80 Y151.25 E140.71795
G1 X154.66 Y151.32 E140.72778
G1 X153.77 Y151.59 E140.78576
G1 X153.77 Y151.59 E140.78582
G1 X153.60 Y151.65 E140.79675
G1 X152.69 Y151.74 E140.85420
G1 X152.51 Y151.76 E140.86518
G1 X151.56 Y151.66 E140.92489
G1 X151.39 Y151.65 E140.93531
G1 X150.50 Y151.37 E140.99357
G1 X150.34 Y151.32 E141.00390
G1 X149.51 Y150.88 E141.06238
G1 X149.37 Y150.80 E141.07271
G1 X148.65 Y150.21 E141.13059
G1 X148.52 Y150.11 E141.14109
G1 X147.93 Y149.38 E141.19945
G1 X147.82 Y149.26 E141.20972
G1 X147.38 Y148.43 E141.26820
G1 X147.30 Y148.29 E141.27803
G1 X147.03 Y147.40 E141.33601
G1 X147.03 Y147.40 E141.33607
G1 X146.98 Y147.23 E141.34698
G1 X146.89 Y146.32 E141.40444
G1 X146.87 Y146.14 E141.41543
G1 X146.97 Y145.19 E141.47526
G1 X146.98 Y145.02 E141.48562
G1 X147.25 Y144.13 E141.54388
G1 X147.31 Y143.97 E141.55421
G1 X147.75 Y143.14 E141.61269
G0 F6000 X148.19 Y143.38
G1 F2700 X148.24 Y143.28 E141.61998
G1 X148.80 Y142.60 E141.67498
G1 X148.88 Y142.50 E141.68242
G1 X149.56 Y141.94 E141.73755
G1 X149.65 Y141.87 E141.74495
G1 X150.44 Y141.45 E141.80034
G1 X150.53 Y141.40 E141.80731
G1 X151.38 Y141.14 E141.86238
G1 X151.50 Y141.10 E141.87003
G1 X152.38 Y141.02 E141.92566
G1 X152.49 Y141.01 E141.93244
G1 X153.39 Y141.09 E141.98851
G1 X153.50 Y141.11 E141.99586
G1 X154.35 Y141.36 E142.05112
G1 X154.46 Y141.40 E142.05838
G1 X155.25 Y141.82 E142.11373
G1 X155.35 Y141.87 E142.12102
G1 X156.03 Y142.43 E142.17602
G1 X156.12 Y142.51 E142.18346
G1 X156.68 Y143.19 E142.23859
G1 X156.76 Y143.28 E142.24599
G1 X157.18 Y144.07 E142.30137
G1 X157.23 Y144.16 E142.30835
G1 X157.49 Y145.01 E142.36341
G1 X157.52 Y145.13 E142.37107
G1 X157.61 Y146.01 E142.42677
G1 X157.62 Y146.12 E142.43354
G1 X157.54 Y147.02 E142.48961
G1 X157.52 Y147.13 E142.49696
G1 X157.26 Y147.98 E142.55222
G1 X157.23 Y148.09 E142.55948
G1 X156.81 Y148.88 E142.61483
G1 X156.75 Y148.98 E142.62212
G1 X156.20 Y149.66 E142.67712
G1 X156.12 Y149.75 E142.68456
G1 X155.44 Y150.31 E142.73969
G1 X155.34 Y150.39 E142.74709
G1 X154.56 Y150.81 E142.80248
G1 X154.46 Y150.86 E142.80945
G1 X153.62 Y151.12 E142.86452
G1 X153.50 Y151.16 E142.87217
G1 X152.61 Y151.24 E142.92780
G1 X152.51 Y151.25 E142.93458
G1 X151.61 Y151.17 E142.99065
G1 X151.49 Y151.15 E142.99800
G1 X150.65 Y150.90 E143.05326
G1 X150.53 Y150.86 E143.06052
G1 X149.75 Y150.44 E143.11587
G1 X149.65 Y150.39 E143.12316
G1 X148.97 Y149.83 E143.17816
G1 X148.88 Y149.75 E143.18560
G1 X148.31 Y149.07 E143.24073
G1 X148.24 Y148.98 E143.24813
G1 X147.82 Y148.19 E143.30351
G1 X147.77 Y148.09 E143.31049
G1 X147.51 Y147.24 E143.36621
G1 X147.47 Y147.13 E143.37321
G1 X147.39 Y146.26 E143.42791
G1 X147.38 Y146.14 E143.43563
G1 X147.46 Y145.24 E143.49183
G1 X147.48 Y145.12 E143.49912
G1 X147.73 Y144.28 E143.55437
G1 X147.77 Y144.16 E143.56163
G1 X148.19 Y143.38 E143.61698
G0 F6000 X148.62 Y143.62
G1 F2700 X148.66 Y143.56 E143.62126
G1 X149.23 Y142.86 E143.67767
G1 X149.93 Y142.29 E143.73422
G1 X150.67 Y141.89 E143.78642
G1 X150.73 Y141.86 E143.79055
G1 X151.53 Y141.62 E143.84273
G1 X151.60 Y141.60 E143.84711
G1 X152.43 Y141.52 E143.89943
G1 X152.50 Y141.51 E143.90351
G1 X153.33 Y141.59 E143.95594
G1 X153.40 Y141.60 E143.96021
G1 X154.20 Y141.84 E144.01247
G1 X154.27 Y141.86 E144.01667
G1 X155.01 Y142.25 E144.06890
G1 X155.07 Y142.29 E144.07317
G1 X155.77 Y142.86 E144.12959
G1 X156.34 Y143.56 E144.18614
G1 X156.73 Y144.30 E144.23811
G1 X156.77 Y144.36 E144.24247
G1 X157.01 Y145.16 E144.29465
G1 X157.03 Y145.23 E144.29903
G1 X157.11 Y146.06 E144.35141
G1 X157.12 Y146.13 E144.35549
G1 X157.04 Y146.97 E144.40792
G1 X157.03 Y147.03 E144.41219
G1 X156.79 Y147.84 E144.46445
G1 X156.77 Y147.90 E144.46865
G1 X156.37 Y148.64 E144.52088
G1 X156.34 Y148.70 E144.52515
G1 X155.77 Y149.40 E144.58156
G1 X155.06 Y149.97 E144.63812
G1 X154.33 Y150.37 E144.69032
G1 X154.27 Y150.40 E144.69445
G1 X153.47 Y150.64 E144.74663
G1 X153.40 Y150.66 E144.75101
G1 X152.57 Y150.74 E144.80333
G1 X152.50 Y150.75 E144.80740
G1 X151.66 Y150.67 E144.85984
G1 X151.60 Y150.66 E144.86411
G1 X150.79 Y150.42 E144.91637
G1 X150.73 Y150.40 E144.92057
G1 X149.99 Y150.00 E144.97280
G1 X149.93 Y149.97 E144.97707
G1 X149.23 Y149.40 E145.03348
G1 X148.66 Y148.70 E145.09003
G1 X148.26 Y147.96 E145.14223
G1 X148.23 Y147.90 E145.14636
G1 X147.99 Y147.09 E145.19880
G1 X147.97 Y147.03 E145.20293
G1 X147.88 Y146.20 E145.25525
G1 X147.88 Y146.13 E145.25933
G1 X147.96 Y145.29 E145.31189
G1 X147.97 Y145.23 E145.31610
G1 X148.21 Y144.42 E145.36836
G1 X148.23 Y144.36 E145.37256
G1 X148.62 Y143.62 E145.42479
G0 F6000 X151.29 Y152.86
G1 F2700 X152.29 Y152.76 E145.48695
G1 X152.48 Y152.74 E145.49931
G1 X153.49 Y152.84 E145.56267
G1 X153.71 Y152.86 E145.57616
G1 X154.65 Y153.15 E145.63734
G1 X154.85 Y153.21 E145.65077
G1 X155.72 Y153.68 E145.71232
G1 X155.91 Y153.78 E145.72572
G1 X156.67 Y154.40 E145.78651
G1 X156.83 Y154.54 E145.80007
G1 X157.46 Y155.30 E145.86149
G1 X157.59 Y155.46 E145.87483
G1 X158.06 Y156.33 E145.93598
G1 X158.16 Y156.51 E145.94907
G1 X158.44 Y157.45 E146.00994
G1 X158.51 Y157.66 E146.02419
G1 X158.60 Y158.64 E146.08540
G1 X158.63 Y158.85 E146.09859
G1 X158.53 Y159.86 E146.16200
G1 X158.50 Y160.08 E146.17556
G1 X158.22 Y161.02 E146.23674
G1 X158.16 Y161.22 E146.25017
G1 X157.69 Y162.09 E146.31171
G1 X157.59 Y162.28 E146.32511
G1 X156.97 Y163.04 E146.38591
G1 X156.83 Y163.20 E146.39947
G1 X156.07 Y163.83 E146.46089
G1 X155.90 Y163.96 E146.47422
G1 X155.03 Y164.43 E146.53574
G1 X154.85 Y164.53 E146.54847
G1 X153.90 Y164.82 E146.61077
G1 X153.70 Y164.88 E146.62359
G1 X152.71 Y164.97 E146.68581
G1 X152.52 Y165.00 E146.69799
G1 X151.50 Y164.90 E146.76133
G1 X151.29 Y164.88 E146.77489
G1 X150.35 Y164.59 E146.83607
G1 X150.15 Y164.53 E146.84950
G1 X149.27 Y164.06 E146.91105
G1 X149.09 Y163.96 E146.92445
G1 X148.33 Y163.34 E146.98524
G1 X148.16 Y163.20 E146.99880
G1 X147.54 Y162.44 E147.06022
G1 X147.40 Y162.27 E147.07356
G1 X146.94 Y161.40 E147.13508
G1 X146.84 Y161.22 E147.14780
G1 X146.55 Y160.27 E147.21010
G1 X146.49 Y160.07 E147.22286
G1 X146.39 Y159.08 E147.28502
G1 X146.37 Y158.88 E147.29739
G1 X146.47 Y157.87 E147.36081
G1 X146.49 Y157.66 E147.37430
G1 X146.78 Y156.72 E147.43548
G1 X146.84 Y156.51 E147.44891
G1 X147.31 Y155.64 E147.51046
G1 X147.41 Y155.46 E147.52386
G1 X148.03 Y154.70 E147.58465
G1 X148.17 Y154.53 E147.59821
G1 X148.93 Y153.91 E147.65963
G1 X149.09 Y153.77 E147.67297
G1 X149.96 Y153.31 E147.73449
G1 X150.14 Y153.21 E147.74721
G1 X151.10 Y152.92 E147.80951
G1 X151.29 Y152.86 E147.82227
G0 F6000 X151.40 Y153.35
G1 F2700 X152.31 Y153.26 E147.87974
G1 X152.49 Y153.24 E147.89072
G1 X153.44 Y153.33 E147.95050
G1 X153.61 Y153.35 E147.96085
G1 X154.50 Y153.62 E148.01911
G1 X154.66 Y153.67 E148.02945
G1 X155.49 Y154.12 E148.08793
G1 X155.63 Y154.20 E148.09825
G1 X156.35 Y154.78 E148.15613
G1 X156.48 Y154.89 E148.16663
G1 X157.07 Y155.61 E148.22477
G1 X157.18 Y155.74 E148.23527
G1 X157.61 Y156.55 E148.29260
G1 X157.69 Y156.71 E148.30357
G1 X157.96 Y157.60 E148.36155
G1 X157.96 Y157.60 E148.36162
G1 X158.02 Y157.76 E148.37254
G1 X158.10 Y158.68 E148.42999
G1 X158.12 Y158.86 E148.44098
G1 X158.03 Y159.81 E148.50075
G1 X158.01 Y159.98 E148.51117
G1 X157.74 Y160.87 E148.56942
G1 X157.69 Y161.03 E148.57976
G1 X157.25 Y161.85 E148.63824
G1 X157.17 Y162.00 E148.64856
G1 X156.58 Y162.72 E148.70644
G1 X156.48 Y162.85 E148.71694
G1 X155.75 Y163.44 E148.77508
G1 X155.62 Y163.55 E148.78558
G1 X154.80 Y163.99 E148.84406
G1 X154.66 Y164.06 E148.85388
G1 X153.77 Y164.33 E148.91186
G1 X153.77 Y164.33 E148.91193
G1 X153.60 Y164.39 E148.92285
G1 X152.69 Y164.47 E148.98030
G1 X152.51 Y164.50 E148.99129
G1 X151.56 Y164.40 E149.05099
G1 X151.39 Y164.38 E149.06141
G1 X150.50 Y164.11 E149.11967
G1 X150.34 Y164.06 E149.13001
G1 X149.51 Y163.62 E149.18848
G1 X149.37 Y163.54 E149.19881
G1 X148.65 Y162.95 E149.25669
G1 X148.52 Y162.85 E149.26719
G1 X147.93 Y162.12 E149.32555
G1 X147.82 Y162.00 E149.33583
G1 X147.38 Y161.17 E149.39430
G1 X147.30 Y161.03 E149.40413
G1 X147.03 Y160.14 E149.46211
G1 X147.03 Y160.14 E149.46217
G1 X146.98 Y159.97 E149.47308
G1 X146.89 Y159.06 E149.53054
G1 X146.87 Y158.88 E149.54153
G1 X146.97 Y157.93 E149.60137
G1 X146.98 Y157.76 E149.61172
G1 X147.25 Y156.87 E149.66998
G1 X147.31 Y156.71 E149.68032
G1 X147.75 Y155.88 E149.73879
G1 X147.83 Y155.74 E149.74912
G1 X148.41 Y155.02 E149.80700
G1 X148.52 Y154.89 E149.81750
G1 X149.24 Y154.30 E149.87564
G1 X149.37 Y154.19 E149.88614
G1 X150.20 Y153.75 E149.94461
G1 X150.34 Y153.67 E149.95444
G1 X151.23 Y153.40 E150.01242
G1 X151.23 Y153.40 E150.01248
G1 X151.40 Y153.35 E150.02339
G0 F6000 X151.50 Y153.84
G1 F2700 X152.37 Y153.76 E150.07809
G1 X152.49 Y153.74 E150.08581
G1 X153.39 Y153.83 E150.14195
G1 X153.50 Y153.84 E150.14924
G1 X154.35 Y154.10 E150.20450
G1 X154.46 Y154.14 E150.21176
G1 X155.25 Y154.56 E150.26711
G1 X155.35 Y154.61 E150.27440
G1 X156.03 Y155.17 E150.32940
G1 X156.12 Y155.25 E150.33684
G1 X156.68 Y155.93 E150.39197
G1 X156.76 Y156.02 E150.39937
G1 X157.18 Y156.81 E150.45475
G1 X157.23 Y156.90 E150.46173
G1 X157.49 Y157.75 E150.51679
G1 X157.52 Y157.87 E150.52444
G1 X157.61 Y158.75 E150.58008
G1 X157.62 Y158.86 E150.58686
G1 X157.54 Y159.76 E150.64299
G1 X157.52 Y159.87 E150.65034
G1 X157.26 Y160.72 E150.70560
G1 X157.23 Y160.83 E150.71286
G1 X156.81 Y161.62 E150.76821
G1 X156.75 Y161.72 E150.77550
G1 X156.20 Y162.40 E150.83050
G1 X156.12 Y162.49 E150.83794
G1 X155.44 Y163.05 E150.89307
G1 X155.34 Y163.13 E150.90047
G1 X154.56 Y163.55 E150.95585
G1 X154.46 Y163.60 E150.96283
G1 X153.62 Y163.86 E151.01789
G1 X153.50 Y163.89 E151.02554
G1 X152.61 Y163.98 E151.08118
G1 X152.51 Y163.99 E151.08796
G1 X151.61 Y163.91 E151.14403
G1 X151.49 Y163.89 E151.15138
G1 X150.65 Y163.63 E151.20664
G1 X150.53 Y163.60 E151.21390
G1 X149.75 Y163.18 E151.26925
G1 X149.65 Y163.12 E151.27653
G1 X148.97 Y162.57 E151.33154
G1 X148.88 Y162.49 E151.33898
G1 X148.31 Y161.81 E151.39411
G1 X148.24 Y161.72 E151.40151
G1 X147.82 Y160.93 E151.45689
G1 X147.77 Y160.83 E151.46387
G1 X147.51 Y159.98 E151.51958
G1 X147.47 Y159.87 E151.52658
G1 X147.39 Y159.00 E151.58128
G1 X147.38 Y158.88 E151.58900
G1 X147.46 Y157.98 E151.64521
G1 X147.48 Y157.86 E151.65249
G1 X147.73 Y157.01 E151.70775
G1 X147.77 Y156.90 E151.71501
G1 X148.19 Y156.12 E151.77036
G1 X148.24 Y156.02 E151.77765
G1 X148.80 Y155.34 E151.83265
G1 X148.88 Y155.24 E151.84009
G1 X149.56 Y154.68 E151.89522
G1 X149.65 Y154.61 E151.90262
G1 X150.44 Y154.19 E151.95800
G1 X150.53 Y154.14 E151.96498
G1 X151.38 Y153.88 E152.02004
G1 X151.50 Y153.84 E152.02770
G0 F6000 X151.60 Y154.34
G1 F2700 X152.43 Y154.25 E152.08002
G1 X152.50 Y154.25 E152.08410
G1 X153.34 Y154.33 E152.13660
G1 X153.40 Y154.34 E152.14081
G1 X154.20 Y154.58 E152.19307
G1 X154.27 Y154.60 E152.19727
G1 X155.01 Y154.99 E152.24950
G1 X155.07 Y155.03 E152.25377
G1 X155.77 Y155.60 E152.31018
G1 X156.34 Y156.30 E152.36673
G1 X156.73 Y157.04 E152.41871
G1 X156.77 Y157.10 E152.42306
G1 X157.01 Y157.90 E152.47525
G1 X157.03 Y157.97 E152.47963
G1 X157.11 Y158.80 E152.53194
G1 X157.12 Y158.87 E152.53602
G1 X157.04 Y159.70 E152.58852
G1 X157.03 Y159.77 E152.59279
G1 X156.79 Y160.57 E152.64505
G1 X156.77 Y160.64 E152.64925
G1 X156.37 Y161.38 E152.70148
G1 X156.34 Y161.44 E152.70575
G1 X155.77 Y162.14 E152.76216
G1 X155.06 Y162.71 E152.81871
G1 X154.33 Y163.11 E152.87091
G1 X154.27 Y163.14 E152.87504
G1 X153.47 Y163.38 E152.92723
G1 X153.40 Y163.40 E152.93160
G1 X152.57 Y163.48 E152.98392
G1 X152.50 Y163.49 E152.98800
G1 X151.66 Y163.41 E153.04043
G1 X151.60 Y163.40 E153.04470
G1 X150.79 Y163.16 E153.09696
G1 X150.73 Y163.14 E153.10116
G1 X149.99 Y162.74 E153.15339
G1 X149.93 Y162.71 E153.15766
G1 X149.23 Y162.14 E153.21408
G1 X148.66 Y161.44 E153.27063
G1 X148.26 Y160.70 E153.32283
G1 X148.23 Y160.64 E153.32696
G1 X147.99 Y159.83 E153.37940
G1 X147.97 Y159.77 E153.38352
G1 X147.88 Y158.94 E153.43584
G1 X147.88 Y158.87 E153.43992
G1 X147.96 Y158.03 E153.49249
G1 X147.97 Y157.97 E153.49669
G1 X148.21 Y157.16 E153.54896
G1 X148.23 Y157.10 E153.55316
G1 X148.62 Y156.36 E153.60538
G1 X148.66 Y156.30 E153.60965
G1 X149.23 Y155.60 E153.66607
G1 X149.93 Y155.03 E153.72262
G1 X150.67 Y154.63 E153.77482
G1 X150.73 Y154.60 E153.77895
G1 X151.53 Y154.36 E153.83113
G1 X151.60 Y154.34 E153.83551
G0 F6000 X151.79 Y149.68
;TYPE:WALL-INNER
G1 F2700 X151.12 Y149.47 E153.87956
G1 X150.49 Y149.14 E153.92401
G1 X149.94 Y148.69 E153.96819
G1 X149.49 Y148.14 E154.01247
G1 X149.16 Y147.51 E154.05680
G1 X148.95 Y146.83 E154.10099
G1 X148.88 Y146.12 E154.14554
G1 X148.95 Y145.43 E154.18889
G1 X149.16 Y144.75 E154.23328
G1 X149.49 Y144.12 E154.27772
G1 X149.94 Y143.57 E154.32191
G1 X150.49 Y143.12 E154.36618
G1 X151.12 Y142.79 E154.41052
G1 X151.79 Y142.58 E154.45445
G1 X152.50 Y142.51 E154.49894
G1 X153.20 Y142.58 E154.54286
G1 X153.88 Y142.79 E154.58691
G1 X154.51 Y143.12 E154.63135
G1 X155.06 Y143.57 E154.67553
G1 X155.50 Y144.12 E154.71981
G1 X155.84 Y144.75 E154.76414
G1 X156.04 Y145.42 E154.80808
G1 X156.11 Y146.13 E154.85244
G1 X156.05 Y146.83 E154.89655
G1 X155.84 Y147.51 E154.94060
G1 X155.51 Y148.14 E154.98504
G1 X155.06 Y148.69 E155.02922
G1 X154.51 Y149.14 E155.07350
G1 X153.88 Y149.47 E155.11783
G1 X153.21 Y149.68 E155.16177
G1 X152.50 Y149.75 E155.20625
G1 X151.79 Y149.68 E155.25018
G0 F6000 X151.82 Y149.57
G1 F2700 X152.50 Y149.63 E155.29297
G1 X153.18 Y149.57 E155.33577
G1 X153.84 Y149.37 E155.37866
G1 X154.44 Y149.04 E155.42143
G1 X154.98 Y148.61 E155.46428
G1 X155.41 Y148.08 E155.50712
G1 X155.74 Y147.47 E155.54989
G1 X155.94 Y146.81 E155.59278
G1 X156.00 Y146.13 E155.63564
G1 X155.94 Y145.45 E155.67844
G1 X155.74 Y144.79 E155.72133
G1 X155.41 Y144.18 E155.76410
G1 X154.98 Y143.65 E155.80695
G1 X154.44 Y143.22 E155.84979
G1 X153.84 Y142.89 E155.89256
G1 X153.18 Y142.69 E155.93545
G1 X152.50 Y142.62 E155.97826
G1 X151.82 Y142.69 E156.02106
G1 X151.16 Y142.89 E156.06395
G1 X150.55 Y143.22 E156.10672
G1 X150.02 Y143.65 E156.14957
G1 X149.59 Y144.18 E156.19241
G1 X149.26 Y144.79 E156.23518
G1 X149.06 Y145.45 E156.27807
G1 X149.00 Y146.13 E156.32094
G1 X149.06 Y146.81 E156.36374
G1 X149.26 Y147.47 E156.40663
G1 X149.59 Y148.08 E156.44940
G1 X150.02 Y148.61 E156.49225
G1 X150.55 Y149.04 E156.53509
G1 X151.16 Y149.37 E156.57786
G1 X151.82 Y149.57 E156.62075
G0 F6000 X151.91 Y149.07
;TYPE:WALL-OUTER
G1 F2700 X152.50 Y149.13 E156.65741
G1 X153.08 Y149.07 E156.69406
G1 X153.65 Y148.90 E156.73076
G1 X154.17 Y148.62 E156.76744
G1 X154.62 Y148.25 E156.80414
G1 X154.99 Y147.80 E156.84083
G1 X155.27 Y147.28 E156.87751
G1 X155.44 Y146.72 E156.91421
G1 X155.50 Y146.13 E156.95093
G1 X155.44 Y145.54 E156.98758
G1 X155.27 Y144.98 E157.02427
G1 X154.99 Y144.46 E157.06096
G1 X154.62 Y144.01 E157.09765
G1 X154.17 Y143.63 E157.13434
G1 X153.65 Y143.36 E157.17103
G1 X153.08 Y143.19 E157.20773
G1 X152.50 Y143.13 E157.24439
G1 X151.91 Y143.19 E157.28105
G1 X151.35 Y143.36 E157.31774
G1 X150.83 Y143.63 E157.35443
G1 X150.38 Y144.01 E157.39112
G1 X150.00 Y144.46 E157.42781
G1 X149.73 Y144.98 E157.46450
G1 X149.56 Y145.54 E157.50119
G1 X149.50 Y146.13 E157.53792
G1 X149.56 Y146.72 E157.57458
G1 X149.73 Y147.28 E157.61127
G1 X150.00 Y147.80 E157.64796
G1 X150.38 Y148.25 E157.68465
G1 X150.83 Y148.62 E157.72134
G1 X151.35 Y148.90 E157.75803
G1 X151.91 Y149.07 E157.79472
G0 F6000 X151.71 Y150.17
G1 F2700 X151.70 Y150.17 E157.79572
G1 X150.94 Y149.94 E157.84486
G1 X150.23 Y149.56 E157.89539
G1 X149.59 Y149.04 E157.94691
G1 X149.08 Y148.42 E157.99694
G1 X148.70 Y147.72 E158.04652
G1 X148.47 Y146.95 E158.09690
G1 X148.46 Y146.93 E158.09803
G1 X148.38 Y146.15 E158.14727
G1 X148.38 Y146.13 E158.14840
G1 X148.46 Y145.34 E158.19752
G1 X148.46 Y145.33 E158.19852
G1 X148.69 Y144.57 E158.24766
G1 X149.06 Y143.86 E158.29796
G1 X149.08 Y143.84 E158.29953
G1 X149.59 Y143.22 E158.34974
G1 X150.21 Y142.71 E158.39977
G1 X150.91 Y142.33 E158.44935
G1 X151.68 Y142.09 E158.49973
G1 X152.48 Y142.01 E158.55000
G1 X152.50 Y142.01 E158.55119
G1 X153.28 Y142.09 E158.60024
G1 X153.30 Y142.09 E158.60124
G1 X154.05 Y142.32 E158.65038
G1 X154.77 Y142.70 E158.70091
G1 X155.41 Y143.22 E158.75243
G1 X155.92 Y143.84 E158.80246
G1 X156.29 Y144.54 E158.85204
G1 X156.53 Y145.31 E158.90242
G1 X156.61 Y146.11 E158.95275
G1 X156.62 Y146.13 E158.95394
G1 X156.54 Y146.91 E159.00300
G1 X156.54 Y146.93 E159.00400
G1 X156.31 Y147.69 E159.05314
G1 X155.93 Y148.40 E159.10344
G1 X155.92 Y148.42 E159.10500
G1 X155.41 Y149.04 E159.15521
G1 X154.79 Y149.55 E159.20524
G1 X154.09 Y149.93 E159.25482
G1 X153.32 Y150.16 E159.30520
G1 X152.52 Y150.25 E159.35547
G1 X152.50 Y150.25 E159.35666
G1 X151.71 Y150.17 E159.40572
G0 F6000 X152.51 Y155.25
;TYPE:WALL-INNER
G1 F2700 X153.20 Y155.32 E159.44907
G1 X153.88 Y155.53 E159.49346
G1 X154.51 Y155.86 E159.53790
G1 X155.06 Y156.31 E159.58209
G1 X155.50 Y156.86 E159.62636
G1 X155.84 Y157.49 E159.67070
G1 X156.04 Y158.16 E159.71463
G1 X156.11 Y158.87 E159.75893
G1 X156.05 Y159.57 E159.80310
G1 X155.84 Y160.25 E159.84715
G1 X155.51 Y160.88 E159.89159
G1 X155.06 Y161.43 E159.93578
G1 X154.51 Y161.88 E159.98005
G1 X153.88 Y162.21 E160.02439
G1 X153.21 Y162.41 E160.06832
G1 X152.50 Y162.48 E160.11281
G1 X151.79 Y162.42 E160.15673
G1 X151.12 Y162.21 E160.20078
G1 X150.49 Y161.88 E160.24522
G1 X149.94 Y161.43 E160.28940
G1 X149.49 Y160.88 E160.33368
G1 X149.16 Y160.25 E160.37801
G1 X148.95 Y159.57 E160.42220
G1 X148.88 Y158.86 E160.46675
G1 X148.95 Y158.17 E160.51011
G1 X149.16 Y157.49 E160.55450
G1 X149.49 Y156.86 E160.59894
G1 X149.94 Y156.31 E160.64312
G1 X150.49 Y155.86 E160.68740
G1 X151.12 Y155.53 E160.73173
G1 X151.80 Y155.32 E160.77592
G1 X152.51 Y155.25 E160.82041
G0 F6000 X152.50 Y155.36
G1 F2700 X151.82 Y155.43 E160.86321
G1 X151.16 Y155.63 E160.90610
G1 X150.55 Y155.96 E160.94887
G1 X150.02 Y156.39 E160.99172
G1 X149.59 Y156.92 E161.03457
G1 X149.26 Y157.53 E161.07733
G1 X149.06 Y158.19 E161.12022
G1 X149.00 Y158.87 E161.16309
G1 X149.06 Y159.55 E161.20589
G1 X149.26 Y160.21 E161.24878
G1 X149.59 Y160.81 E161.29155
G1 X150.02 Y161.35 E161.33440
G1 X150.55 Y161.78 E161.37725
G1 X151.16 Y162.10 E161.42002
G1 X151.82 Y162.31 E161.46290
G1 X152.50 Y162.37 E161.50570
G1 X153.18 Y162.31 E161.54850
G1 X153.84 Y162.10 E161.59139
G1 X154.44 Y161.78 E161.63416
G1 X154.98 Y161.35 E161.67701
G1 X155.41 Y160.81 E161.71985
G1 X155.74 Y160.21 E161.76262
G1 X155.94 Y159.55 E161.80551
G1 X156.00 Y158.87 E161.84837
G1 X155.94 Y158.19 E161.89117
G1 X155.74 Y157.53 E161.93406
G1 X155.41 Y156.92 E161.97683
G1 X154.98 Y156.39 E162.01968
G1 X154.44 Y155.96 E162.06252
G1 X153.84 Y155.63 E162.10529
G1 X153.18 Y155.43 E162.14818
G1 X152.50 Y155.36 E162.19099
G0 F6000 X152.50 Y155.87
;TYPE:WALL-OUTER
G1 F2700 X151.91 Y155.93 E162.22765
G1 X151.35 Y156.10 E162.26434
G1 X150.83 Y156.37 E162.30103
G1 X150.38 Y156.75 E162.33772
G1 X150.00 Y157.20 E162.37441
G1 X149.73 Y157.72 E162.41110
G1 X149.56 Y158.28 E162.44779
G1 X149.50 Y158.87 E162.48452
G1 X149.56 Y159.45 E162.52118
G1 X149.73 Y160.02 E162.55787
G1 X150.00 Y160.54 E162.59456
G1 X150.38 Y160.99 E162.63125
G1 X150.83 Y161.36 E162.66794
G1 X151.35 Y161.64 E162.70463
G1 X151.91 Y161.81 E162.74132
G1 X152.50 Y161.87 E162.77798
G1 X153.08 Y161.81 E162.81463
G1 X153.65 Y161.64 E162.85133
G1 X154.17 Y161.36 E162.88801
G1 X154.62 Y160.99 E162.92470
G1 X154.99 Y160.54 E162.96140
G1 X155.27 Y160.02 E162.99808
G1 X155.44 Y159.45 E163.03478
G1 X155.50 Y158.87 E163.07149
G1 X155.44 Y158.28 E163.10815
G1 X155.27 Y157.72 E163.14484
G1 X154.99 Y157.20 E163.18153
G1 X154.62 Y156.75 E163.21822
G1 X154.17 Y156.37 E163.25491
G1 X153.65 Y156.10 E163.29160
G1 X153.08 Y155.93 E163.32829
G1 X152.50 Y155.87 E163.36496
G0 F6000 X152.48 Y154.75
G1 F2700 X152.50 Y154.75 E163.36608
G1 X153.28 Y154.83 E163.41514
G1 X153.30 Y154.83 E163.41614
G1 X154.05 Y155.06 E163.46529
G1 X154.77 Y155.44 E163.51581
G1 X155.41 Y155.96 E163.56733
G1 X155.92 Y156.58 E163.61736
G1 X156.29 Y157.28 E163.66694
G1 X156.53 Y158.05 E163.71732
G1 X156.61 Y158.85 E163.76759
G1 X156.62 Y158.87 E163.76878
G1 X156.54 Y159.65 E163.81790
G1 X156.54 Y159.67 E163.81890
G1 X156.31 Y160.42 E163.86804
G1 X155.93 Y161.14 E163.91834
G1 X155.92 Y161.16 E163.91990
G1 X155.41 Y161.78 E163.97011
G1 X154.79 Y162.29 E164.02015
G1 X154.09 Y162.66 E164.06973
G1 X153.32 Y162.90 E164.12011
G1 X152.52 Y162.98 E164.17037
G1 X152.50 Y162.99 E164.17157
G1 X151.71 Y162.91 E164.22062
G1 X151.70 Y162.91 E164.22162
G1 X150.94 Y162.68 E164.27076
G1 X150.23 Y162.30 E164.32128
G1 X149.59 Y161.78 E164.37281
G1 X149.08 Y161.16 E164.42284
G1 X148.70 Y160.46 E164.47242
G1 X148.47 Y159.69 E164.52280
G1 X148.46 Y159.67 E164.52392
G1 X148.38 Y158.88 E164.57317
G1 X148.38 Y158.87 E164.57430
G1 X148.46 Y158.08 E164.62342
G1 X148.46 Y158.07 E164.62442
G1 X148.69 Y157.31 E164.67356
G1 X149.06 Y156.60 E164.72386
G1 X149.08 Y156.58 E164.72542
G1 X149.59 Y155.96 E164.77563
G1 X150.21 Y155.45 E164.82567
G1 X150.91 Y155.07 E164.87524
G1 X151.68 Y154.83 E164.92562
G1 X151.70 Y154.83 E164.92675
G1 X152.48 Y154.75 E164.97599
;LAYER:1
G0 F6000 X152.50 Y155.25 Z0.40
;TYPE:WALL-INNER
G1 F660 X153.20 Y155.32 E164.99064
G1 X153.88 Y155.53 E165.00543
G1 X154.51 Y155.86 E165.02021
G1 X155.06 Y156.31 E165.03490
G1 X155.51 Y156.86 E165.04971
G1 X155.84 Y157.49 E165.06446
G1 X156.05 Y158.17 E165.07924
G1 X156.12 Y158.87 E165.09388
G1 X156.05 Y159.57 E165.10852
G1 X155.84 Y160.25 E165.12333
G1 X155.50 Y160.88 E165.13811
G1 X155.06 Y161.43 E165.15280
G1 X154.51 Y161.88 E165.16761
G1 X153.88 Y162.21 E165.18236
G1 X153.20 Y162.42 E165.19714
G1 X152.50 Y162.49 E165.21180
G1 X151.80 Y162.42 E165.22642
G1 X151.12 Y162.21 E165.24122
G1 X150.49 Y161.88 E165.25599
G1 X149.94 Y161.43 E165.27068
G1 X149.49 Y160.88 E165.28550
G1 X149.16 Y160.25 E165.30025
G1 X148.95 Y159.57 E165.31502
G1 X148.88 Y158.87 E165.32969
G1 X148.95 Y158.17 E165.34433
G1 X149.16 Y157.49 E165.35912
G1 X149.49 Y156.86 E165.37390
G1 X149.94 Y156.31 E165.38859
G1 X150.49 Y155.86 E165.40340
G1 X151.12 Y155.53 E165.41815
G1 X151.80 Y155.32 E165.43293
G1 X152.50 Y155.25 E165.44757
G0 F6000 X152.50 Y155.36
G1 F660 X151.82 Y155.43 E165.46184
G1 X151.16 Y155.63 E165.47614
G1 X150.55 Y155.96 E165.49039
G1 X150.02 Y156.39 E165.50467
G1 X149.59 Y156.92 E165.51896
G1 X149.26 Y157.53 E165.53321
G1 X149.06 Y158.19 E165.54751
G1 X149.00 Y158.87 E165.56180
G1 X149.06 Y159.55 E165.57607
G1 X149.26 Y160.21 E165.59036
G1 X149.59 Y160.81 E165.60462
G1 X150.02 Y161.35 E165.61890
G1 X150.55 Y161.78 E165.63318
G1 X151.16 Y162.10 E165.64744
G1 X151.82 Y162.31 E165.66174
G1 X152.50 Y162.37 E165.67600
G1 X153.18 Y162.31 E165.69027
G1 X153.84 Y162.10 E165.70457
G1 X154.44 Y161.78 E165.71882
G1 X154.98 Y161.35 E165.73310
G1 X155.41 Y160.81 E165.74739
G1 X155.74 Y160.21 E165.76164
G1 X155.94 Y159.55 E165.77594
G1 X156.00 Y158.87 E165.79023
G1 X155.94 Y158.19 E165.80449
G1 X155.74 Y157.53 E165.81879
G1 X155.41 Y156.92 E165.83305
G1 X154.98 Y156.39 E165.84733
G1 X154.44 Y155.96 E165.86161
G1 X153.84 Y155.63 E165.87587
G1 X153.18 Y155.43 E165.89016
G1 X152.50 Y155.36 E165.90443
G0 F6000 X152.50 Y155.87
;TYPE:WALL-OUTER
G1 F660 X151.91 Y155.93 E165.91665
G1 X151.35 Y156.10 E165.92888
G1 X150.83 Y156.37 E165.94111
G1 X150.38 Y156.75 E165.95334
G1 X150.00 Y157.20 E165.96557
G1 X149.73 Y157.72 E165.97780
G1 X149.56 Y158.28 E165.99003
G1 X149.50 Y158.87 E166.00227
G1 X149.56 Y159.45 E166.01449
G1 X149.73 Y160.02 E166.02673
G1 X150.00 Y160.54 E166.03895
G1 X150.38 Y160.99 E166.05119
G1 X150.83 Y161.36 E166.06342
G1 X151.35 Y161.64 E166.07564
G1 X151.91 Y161.81 E166.08788
G1 X152.50 Y161.87 E166.10009
G1 X153.08 Y161.81 E166.11231
G1 X153.65 Y161.64 E166.12454
G1 X154.17 Y161.36 E166.13677
G1 X154.62 Y160.99 E166.14900
G1 X154.99 Y160.54 E166.16123
G1 X155.27 Y160.02 E166.17346
G1 X155.44 Y159.45 E166.18569
G1 X155.50 Y158.87 E166.19793
G1 X155.44 Y158.28 E166.21015
G1 X155.27 Y157.72 E166.22238
G1 X154.99 Y157.20 E166.23461
G1 X154.62 Y156.75 E166.24684
G1 X154.17 Y156.37 E166.25907
G1 X153.65 Y156.10 E166.27130
G1 X153.08 Y155.93 E166.28353
G1 X152.50 Y155.87 E166.29575
G0 F6000 X152.50 Y154.75
G1 F660 X153.30 Y154.83 E166.31257
G1 X154.04 Y155.05 E166.32854
G1 X154.07 Y155.06 E166.32925
G1 X154.75 Y155.43 E166.34535
G1 X154.79 Y155.44 E166.34611
G1 X155.38 Y155.93 E166.36209
G1 X155.41 Y155.96 E166.36293
G1 X155.90 Y156.55 E166.37893
G1 X155.92 Y156.58 E166.37964
G1 X156.29 Y157.26 E166.39574
G1 X156.30 Y157.29 E166.39647
G1 X156.53 Y158.03 E166.41250
G1 X156.54 Y158.06 E166.41324
G1 X156.62 Y158.87 E166.43001
G1 X156.54 Y159.67 E166.44683
G1 X156.31 Y160.41 E166.46281
G1 X156.31 Y160.44 E166.46353
G1 X155.94 Y161.12 E166.47963
G1 X155.92 Y161.16 E166.48038
G1 X155.44 Y161.75 E166.49637
G1 X155.41 Y161.78 E166.49721
G1 X154.81 Y162.27 E166.51321
G1 X154.79 Y162.29 E166.51391
G1 X154.10 Y162.66 E166.53001
G1 X154.07 Y162.67 E166.53075
G1 X153.34 Y162.90 E166.54678
G1 X153.30 Y162.91 E166.54752
G1 X152.50 Y162.99 E166.56429
G1 X151.69 Y162.91 E166.58108
G1 X150.96 Y162.69 E166.59707
G1 X150.93 Y162.68 E166.59779
G1 X150.24 Y162.31 E166.61388
G1 X150.21 Y162.29 E166.61464
G1 X149.62 Y161.81 E166.63062
G1 X149.59 Y161.78 E166.63146
G1 X149.10 Y161.18 E166.64746
G1 X149.08 Y161.16 E166.64817
G1 X148.71 Y160.47 E166.66427
G1 X148.69 Y160.44 E166.66500
G1 X148.47 Y159.71 E166.68103
G1 X148.46 Y159.67 E166.68177
G1 X148.38 Y158.87 E166.69857
G1 X148.46 Y158.06 E166.71536
G1 X148.68 Y157.33 E166.73135
G1 X148.69 Y157.29 E166.73207
G1 X149.06 Y156.61 E166.74816
G1 X149.07 Y156.58 E166.74892
G1 X149.56 Y155.99 E166.76490
G1 X149.59 Y155.95 E166.76574
G1 X150.18 Y155.47 E166.78174
G1 X150.21 Y155.44 E166.78245
G1 X150.89 Y155.08 E166.79855
G1 X150.92 Y155.06 E166.79928
G1 X151.66 Y154.84 E166.81531
G1 X151.70 Y154.83 E166.81605
G1 X152.50 Y154.75 E166.83283
G0 F6000 X152.50 Y149.75
;TYPE:WALL-INNER
G1 F660 X151.80 Y149.68 E166.84745
G1 X151.12 Y149.47 E166.86224
G1 X150.49 Y149.14 E166.87702
G1 X149.94 Y148.69 E166.89170
G1 X149.49 Y148.14 E166.90652
G1 X149.16 Y147.51 E166.92127
G1 X148.95 Y146.83 E166.93605
G1 X148.88 Y146.13 E166.95071
G1 X148.95 Y145.43 E166.96535
G1 X149.16 Y144.75 E166.98015
G1 X149.49 Y144.12 E166.99493
G1 X149.94 Y143.57 E167.00961
G1 X150.49 Y143.12 E167.02443
G1 X151.12 Y142.79 E167.03918
G1 X151.80 Y142.58 E167.05395
G1 X152.50 Y142.51 E167.06862
G1 X153.20 Y142.58 E167.08324
G1 X153.88 Y142.79 E167.09803
G1 X154.51 Y143.12 E167.11281
G1 X155.06 Y143.57 E167.12749
G1 X155.51 Y144.12 E167.14231
G1 X155.84 Y144.75 E167.15706
G1 X156.05 Y145.43 E167.17184
G1 X156.12 Y146.13 E167.18648
G1 X156.05 Y146.83 E167.20114
G1 X155.84 Y147.51 E167.21593
G1 X155.50 Y148.14 E167.23071
G1 X155.06 Y148.69 E167.24540
G1 X154.51 Y149.14 E167.26021
G1 X153.88 Y149.47 E167.27496
G1 X153.20 Y149.68 E167.28974
G1 X152.50 Y149.75 E167.30440
G0 F6000 X152.50 Y149.63
G1 F660 X153.18 Y149.57 E167.31867
G1 X153.84 Y149.37 E167.33296
G1 X154.44 Y149.04 E167.34722
G1 X154.98 Y148.61 E167.36150
G1 X155.41 Y148.08 E167.37578
G1 X155.74 Y147.47 E167.39004
G1 X155.94 Y146.81 E167.40434
G1 X156.00 Y146.13 E167.41862
G1 X155.94 Y145.45 E167.43289
G1 X155.74 Y144.79 E167.44719
G1 X155.41 Y144.18 E167.46144
G1 X154.98 Y143.65 E167.47572
G1 X154.44 Y143.22 E167.49001
G1 X153.84 Y142.89 E167.50426
G1 X153.18 Y142.69 E167.51856
G1 X152.50 Y142.62 E167.53283
G1 X151.82 Y142.69 E167.54710
G1 X151.16 Y142.89 E167.56139
G1 X150.55 Y143.22 E167.57565
G1 X150.02 Y143.65 E167.58993
G1 X149.59 Y144.18 E167.60421
G1 X149.26 Y144.79 E167.61847
G1 X149.06 Y145.45 E167.63277
G1 X149.00 Y146.13 E167.64706
G1 X149.06 Y146.81 E167.66132
G1 X149.26 Y147.47 E167.67562
G1 X149.59 Y148.08 E167.68988
G1 X150.02 Y148.61 E167.70416
G1 X150.55 Y149.04 E167.71844
G1 X151.16 Y149.37 E167.73270
G1 X151.82 Y149.57 E167.74699
G1 X152.50 Y149.63 E167.76126
G0 F6000 X152.50 Y149.13
;TYPE:WALL-OUTER
G1 F660 X153.08 Y149.07 E167.77348
G1 X153.65 Y148.90 E167.78571
G1 X154.17 Y148.62 E167.79794
G1 X154.62 Y148.25 E167.81017
G1 X154.99 Y147.80 E167.82240
G1 X155.27 Y147.28 E167.83463
G1 X155.44 Y146.72 E167.84686
G1 X155.50 Y146.13 E167.85910
G1 X155.44 Y145.54 E167.87132
G1 X155.27 Y144.98 E167.88355
G1 X154.99 Y144.46 E167.89578
G1 X154.62 Y144.01 E167.90801
G1 X154.17 Y143.63 E167.92024
G1 X153.65 Y143.36 E167.93247
G1 X153.08 Y143.19 E167.94470
G1 X152.50 Y143.13 E167.95692
G1 X151.91 Y143.19 E167.96914
G1 X151.35 Y143.36 E167.98137
G1 X150.83 Y143.63 E167.99360
G1 X150.38 Y144.01 E168.00583
G1 X150.00 Y144.46 E168.01806
G1 X149.73 Y144.98 E168.03029
G1 X149.56 Y145.54 E168.04252
G1 X149.50 Y146.13 E168.05476
G1 X149.56 Y146.72 E168.06698
G1 X149.73 Y147.28 E168.07921
G1 X150.00 Y147.80 E168.09144
G1 X150.38 Y148.25 E168.10367
G1 X150.83 Y148.62 E168.11590
G1 X151.35 Y148.90 E168.12813
G1 X151.91 Y149.07 E168.14036
G1 X152.50 Y149.13 E168.15258
G0 F6000 X152.50 Y150.25
G1 F660 X151.69 Y150.17 E168.16938
G1 X150.96 Y149.95 E168.18536
G1 X150.93 Y149.94 E168.18608
G1 X150.24 Y149.57 E168.20218
G1 X150.21 Y149.55 E168.20293
G1 X149.62 Y149.07 E168.21891
G1 X149.59 Y149.04 E168.21976
G1 X149.10 Y148.44 E168.23576
G1 X149.08 Y148.42 E168.23646
G1 X148.71 Y147.74 E168.25256
G1 X148.69 Y147.71 E168.25330
G1 X148.47 Y146.97 E168.26933
G1 X148.46 Y146.93 E168.27007
G1 X148.38 Y146.13 E168.28686
G1 X148.46 Y145.32 E168.30366
G1 X148.68 Y144.59 E168.31964
G1 X148.69 Y144.56 E168.32036
G1 X149.06 Y143.87 E168.33646
G1 X149.07 Y143.84 E168.33721
G1 X149.56 Y143.25 E168.35320
G1 X149.59 Y143.22 E168.35404
G1 X150.18 Y142.73 E168.37004
G1 X150.21 Y142.71 E168.37074
G1 X150.89 Y142.34 E168.38684
G1 X150.92 Y142.32 E168.38758
G1 X151.66 Y142.10 E168.40361
G1 X151.70 Y142.09 E168.40435
G1 X152.50 Y142.01 E168.42112
G1 X153.30 Y142.09 E168.43791
G1 X154.04 Y142.31 E168.45390
G1 X154.07 Y142.32 E168.45462
G1 X154.75 Y142.69 E168.47071
G1 X154.79 Y142.71 E168.47147
G1 X155.38 Y143.19 E168.48745
G1 X155.41 Y143.22 E168.48829
G1 X155.90 Y143.81 E168.50429
G1 X155.92 Y143.84 E168.50500
G1 X156.29 Y144.52 E168.52110
G1 X156.30 Y144.55 E168.52183
G1 X156.53 Y145.29 E168.53786
G1 X156.54 Y145.33 E168.53860
G1 X156.62 Y146.13 E168.55537
G1 X156.54 Y146.93 E168.57219
G1 X156.31 Y147.67 E168.58818
G1 X156.31 Y147.70 E168.58889
G1 X155.94 Y148.39 E168.60499
G1 X155.92 Y148.42 E168.60574
G1 X155.44 Y149.01 E168.62173
G1 X155.41 Y149.04 E168.62257
G1 X154.81 Y149.53 E168.63857
G1 X154.79 Y149.55 E168.63928
G1 X154.10 Y149.92 E168.65537
G1 X154.07 Y149.94 E168.65611
G1 X153.34 Y150.16 E168.67214
G1 X153.30 Y150.17 E168.67288
G1 X152.50 Y150.25 E168.68965
;LAYER:2
G0 F6000 X152.50 Y149.75 Z0.50
;TYPE:WALL-INNER
G1 F660 X151.80 Y149.68 E168.70437
G1 X151.12 Y149.47 E168.71910
G1 X150.49 Y149.14 E168.73383
G1 X149.94 Y148.69 E168.74859
G1 X149.50 Y148.14 E168.76328
G1 X149.16 Y147.51 E168.77809
G1 X148.95 Y146.84 E168.79282
G1 X148.88 Y146.13 E168.80752
G1 X148.95 Y145.43 E168.82214
G1 X149.16 Y144.75 E168.83686
G1 X149.49 Y144.13 E168.85160
G1 X149.94 Y143.57 E168.86648
G1 X150.49 Y143.13 E168.88114
G1 X151.12 Y142.79 E168.89598
G1 X151.79 Y142.58 E168.91071
G1 X152.50 Y142.51 E168.92541
G1 X153.20 Y142.58 E168.94013
G1 X153.88 Y142.79 E168.95486
G1 X154.50 Y143.12 E168.96959
G1 X155.05 Y143.57 E168.98435
G1 X155.50 Y144.12 E168.99904
G1 X155.84 Y144.75 E169.01385
G1 X156.04 Y145.42 E169.02858
G1 X156.11 Y146.13 E169.04330
G1 X156.05 Y146.83 E169.05790
G1 X155.84 Y147.50 E169.07262
G1 X155.51 Y148.13 E169.08736
G1 X155.06 Y148.69 E169.10223
G1 X154.51 Y149.13 E169.11690
G1 X153.88 Y149.47 E169.13173
G1 X153.21 Y149.68 E169.14646
G1 X152.50 Y149.75 E169.16117
G0 F6000 X152.50 Y149.63
G1 F660 X153.18 Y149.57 E169.17543
G1 X153.84 Y149.37 E169.18973
G1 X154.44 Y149.04 E169.20399
G1 X154.98 Y148.61 E169.21827
G1 X155.41 Y148.08 E169.23255
G1 X155.74 Y147.47 E169.24681
G1 X155.94 Y146.81 E169.26110
G1 X156.00 Y146.13 E169.27539
G1 X155.94 Y145.45 E169.28966
G1 X155.74 Y144.79 E169.30395
G1 X155.41 Y144.18 E169.31821
G1 X154.98 Y143.65 E169.33249
G1 X154.44 Y143.22 E169.34677
G1 X153.84 Y142.89 E169.36103
G1 X153.18 Y142.69 E169.37533
G1 X152.50 Y142.62 E169.38959
G1 X151.82 Y142.69 E169.40386
G1 X151.16 Y142.89 E169.41816
G1 X150.55 Y143.22 E169.43241
G1 X150.02 Y143.65 E169.44670
G1 X149.59 Y144.18 E169.46098
G1 X149.26 Y144.79 E169.47524
G1 X149.06 Y145.45 E169.48953
G1 X149.00 Y146.13 E169.50382
G1 X149.06 Y146.81 E169.51809
G1 X149.26 Y147.47 E169.53239
G1 X149.59 Y148.08 E169.54664
G1 X150.02 Y148.61 E169.56092
G1 X150.55 Y149.04 E169.57521
G1 X151.16 Y149.37 E169.58946
G1 X151.82 Y149.57 E169.60376
G1 X152.50 Y149.63 E169.61803
G0 F6000 X152.50 Y149.13
;TYPE:WALL-OUTER
G1 F660 X153.08 Y149.07 E169.63024
G1 X153.65 Y148.90 E169.64248
G1 X154.17 Y148.62 E169.65470
G1 X154.62 Y148.25 E169.66693
G1 X154.99 Y147.80 E169.67917
G1 X155.27 Y147.28 E169.69139
G1 X155.44 Y146.72 E169.70363
G1 X155.50 Y146.13 E169.71586
G1 X155.44 Y145.54 E169.72808
G1 X155.27 Y144.98 E169.74031
G1 X154.99 Y144.46 E169.75254
G1 X154.62 Y144.01 E169.76477
G1 X154.17 Y143.63 E169.77700
G1 X153.65 Y143.36 E169.78923
G1 X153.08 Y143.19 E169.80146
G1 X152.50 Y143.13 E169.81369
G1 X151.91 Y143.19 E169.82591
G1 X151.35 Y143.36 E169.83814
G1 X150.83 Y143.63 E169.85037
G1 X150.38 Y144.01 E169.86260
G1 X150.00 Y144.46 E169.87483
G1 X149.73 Y144.98 E169.88706
G1 X149.56 Y145.54 E169.89929
G1 X149.50 Y146.13 E169.91153
G1 X149.56 Y146.72 E169.92375
G1 X149.73 Y147.28 E169.93598
G1 X150.00 Y147.80 E169.94821
G1 X150.38 Y148.25 E169.96044
G1 X150.83 Y148.62 E169.97267
G1 X151.35 Y148.90 E169.98490
G1 X151.91 Y149.07 E169.99713
G1 X152.50 Y149.13 E170.00935
G0 F6000 X152.55 Y150.24
G1 F660 X152.50 Y150.25 E170.01048
G1 X151.75 Y150.18 E170.02608
G1 X151.69 Y150.17 E170.02727
G1 X150.97 Y149.95 E170.04286
G1 X150.93 Y149.94 E170.04394
G1 X150.26 Y149.58 E170.05968
G1 X150.21 Y149.55 E170.06083
G1 X149.59 Y149.04 E170.07757
G1 X149.08 Y148.42 E170.09425
G1 X148.72 Y147.75 E170.11007
G1 X148.69 Y147.70 E170.11120
G1 X148.47 Y146.98 E170.12684
G1 X148.46 Y146.93 E170.12795
G1 X148.39 Y146.18 E170.14362
G1 X148.38 Y146.13 E170.14474
G1 X148.45 Y145.38 E170.16037
G1 X148.46 Y145.32 E170.16156
G1 X148.68 Y144.60 E170.17715
G1 X148.69 Y144.56 E170.17822
G1 X149.05 Y143.89 E170.19394
G1 X149.08 Y143.84 E170.19512
G1 X149.59 Y143.22 E170.21186
G1 X150.21 Y142.71 E170.22853
G1 X150.88 Y142.35 E170.24435
G1 X150.93 Y142.32 E170.24549
G1 X151.65 Y142.10 E170.26113
G1 X151.70 Y142.09 E170.26221
G1 X152.45 Y142.02 E170.27790
G1 X152.50 Y142.01 E170.27903
G1 X153.25 Y142.08 E170.29463
G1 X153.31 Y142.09 E170.29582
G1 X154.02 Y142.31 E170.31141
G1 X154.07 Y142.32 E170.31248
G1 X154.74 Y142.68 E170.32823
G1 X154.79 Y142.71 E170.32938
G1 X155.41 Y143.22 E170.34612
G1 X155.92 Y143.84 E170.36280
G1 X156.28 Y144.51 E170.37862
G1 X156.31 Y144.56 E170.37975
G1 X156.52 Y145.28 E170.39539
G1 X156.54 Y145.33 E170.39647
G1 X156.61 Y146.08 E170.41218
G1 X156.62 Y146.13 E170.41331
G1 X156.54 Y146.88 E170.42891
G1 X156.54 Y146.94 E170.43010
G1 X156.32 Y147.65 E170.44569
G1 X156.31 Y147.70 E170.44677
G1 X155.95 Y148.37 E170.46248
G1 X155.92 Y148.42 E170.46366
G1 X155.41 Y149.04 E170.48040
G1 X154.79 Y149.55 E170.49708
G1 X154.12 Y149.91 E170.51290
G1 X154.07 Y149.94 E170.51403
G1 X153.35 Y150.15 E170.52967
G1 X153.30 Y150.17 E170.53076
G1 X152.55 Y150.24 E170.54644
G0 F6000 X152.50 Y155.25
;TYPE:WALL-INNER
G1 F660 X153.20 Y155.32 E170.56104
G1 X153.88 Y155.53 E170.57589
G1 X154.50 Y155.86 E170.59062
G1 X155.05 Y156.31 E170.60538
G1 X155.50 Y156.86 E170.62007
G1 X155.84 Y157.48 E170.63488
G1 X156.04 Y158.16 E170.64961
G1 X156.11 Y158.87 E170.66431
G1 X156.05 Y159.57 E170.67893
G1 X155.84 Y160.24 E170.69365
G1 X155.51 Y160.87 E170.70839
G1 X155.06 Y161.42 E170.72326
G1 X154.51 Y161.87 E170.73793
G1 X153.88 Y162.21 E170.75276
G1 X153.21 Y162.41 E170.76749
G1 X152.50 Y162.48 E170.78220
G1 X151.80 Y162.42 E170.79692
G1 X151.12 Y162.21 E170.81165
G1 X150.49 Y161.88 E170.82638
G1 X149.94 Y161.43 E170.84113
G1 X149.50 Y160.88 E170.85583
G1 X149.16 Y160.25 E170.87063
G1 X148.95 Y159.57 E170.88536
G1 X148.88 Y158.87 E170.90007
G1 X148.95 Y158.17 E170.91469
G1 X149.16 Y157.49 E170.92941
G1 X149.49 Y156.87 E170.94415
G1 X149.94 Y156.31 E170.95902
G1 X150.49 Y155.87 E170.97369
G1 X151.12 Y155.53 E170.98852
G1 X151.79 Y155.32 E171.00325
G1 X152.50 Y155.25 E171.01796
G0 F6000 X152.50 Y155.36
G1 F660 X151.82 Y155.43 E171.03223
G1 X151.16 Y155.63 E171.04653
G1 X150.55 Y155.96 E171.06078
G1 X150.02 Y156.39 E171.07506
G1 X149.59 Y156.92 E171.08935
G1 X149.26 Y157.53 E171.10360
G1 X149.06 Y158.19 E171.11790
G1 X149.00 Y158.87 E171.13219
G1 X149.06 Y159.55 E171.14646
G1 X149.26 Y160.21 E171.16075
G1 X149.59 Y160.81 E171.17501
G1 X150.02 Y161.35 E171.18929
G1 X150.55 Y161.78 E171.20357
G1 X151.16 Y162.10 E171.21783
G1 X151.82 Y162.31 E171.23213
G1 X152.50 Y162.37 E171.24639
G1 X153.18 Y162.31 E171.26066
G1 X153.84 Y162.10 E171.27495
G1 X154.44 Y161.78 E171.28921
G1 X154.98 Y161.35 E171.30349
G1 X155.41 Y160.81 E171.31778
G1 X155.74 Y160.21 E171.33203
G1 X155.94 Y159.55 E171.34633
G1 X156.00 Y158.87 E171.36062
G1 X155.94 Y158.19 E171.37488
G1 X155.74 Y157.53 E171.38918
G1 X155.41 Y156.92 E171.40343
G1 X154.98 Y156.39 E171.41772
G1 X154.44 Y155.96 E171.43200
G1 X153.84 Y155.63 E171.44626
G1 X153.18 Y155.43 E171.46055
G1 X152.50 Y155.36 E171.47482
G0 F6000 X152.50 Y155.87
;TYPE:WALL-OUTER
G1 F660 X151.91 Y155.93 E171.48704
G1 X151.35 Y156.10 E171.49927
G1 X150.83 Y156.37 E171.51150
G1 X150.38 Y156.75 E171.52373
G1 X150.00 Y157.20 E171.53596
G1 X149.73 Y157.72 E171.54819
G1 X149.56 Y158.28 E171.56042
G1 X149.50 Y158.87 E171.57266
G1 X149.56 Y159.45 E171.58488
G1 X149.73 Y160.02 E171.59711
G1 X150.00 Y160.54 E171.60934
G1 X150.38 Y160.99 E171.62157
G1 X150.83 Y161.36 E171.63380
G1 X151.35 Y161.64 E171.64603
G1 X151.91 Y161.81 E171.65827
G1 X152.50 Y161.87 E171.67048
G1 X153.08 Y161.81 E171.68270
G1 X153.65 Y161.64 E171.69493
G1 X154.17 Y161.36 E171.70716
G1 X154.62 Y160.99 E171.71939
G1 X154.99 Y160.54 E171.73162
G1 X155.27 Y160.02 E171.74385
G1 X155.44 Y159.45 E171.75608
G1 X155.50 Y158.87 E171.76832
G1 X155.44 Y158.28 E171.78054
G1 X155.27 Y157.72 E171.79277
G1 X154.99 Y157.20 E171.80500
G1 X154.62 Y156.75 E171.81723
G1 X154.17 Y156.37 E171.82946
G1 X153.65 Y156.10 E171.84169
G1 X153.08 Y155.93 E171.85392
G1 X152.50 Y155.87 E171.86614
G0 F6000 X152.45 Y154.75
G1 F660 X152.50 Y154.75 E171.86727
G1 X153.25 Y154.82 E171.88287
G1 X153.31 Y154.83 E171.88406
G1 X154.02 Y155.05 E171.89966
G1 X154.07 Y155.06 E171.90073
G1 X154.74 Y155.42 E171.91647
G1 X154.79 Y155.44 E171.91763
G1 X155.41 Y155.96 E171.93436
G1 X155.92 Y156.58 E171.95104
G1 X156.28 Y157.25 E171.96686
G1 X156.31 Y157.29 E171.96799
G1 X156.52 Y158.01 E171.98363
G1 X156.54 Y158.06 E171.98472
G1 X156.61 Y158.82 E172.00040
G1 X156.62 Y158.87 E172.00153
G1 X156.54 Y159.62 E172.01716
G1 X156.54 Y159.68 E172.01835
G1 X156.32 Y160.39 E172.03394
G1 X156.31 Y160.44 E172.03501
G1 X155.95 Y161.11 E172.05073
G1 X155.92 Y161.16 E172.05191
G1 X155.41 Y161.78 E172.06865
G1 X154.79 Y162.29 E172.08532
G1 X154.12 Y162.65 E172.10114
G1 X154.07 Y162.68 E172.10228
G1 X153.35 Y162.89 E172.11792
G1 X153.30 Y162.91 E172.11900
G1 X152.55 Y162.98 E172.13469
G1 X152.50 Y162.99 E172.13582
G1 X151.75 Y162.91 E172.15142
G1 X151.69 Y162.91 E172.15261
G1 X150.97 Y162.69 E172.16820
G1 X150.93 Y162.68 E172.16927
