;-- START GCODE --
;Sliced for Type A Machines Series 1
;Sliced at: Sat 26-12-2015 12:18:29
;Basic settings: Layer height: 0.2 Walls: 2 Fill: 40
;Print Speed: 120 Support: 0
;Retraction Speed: 40 Retraction Distance: 1.2
;Print time: #P_TIME#
;Filament used: #F_AMNT#m #F_WGHT#g
;Filament cost: #F_COST#
M106 S255	 ;start with the fan on
G21        ;metric values
G90        ;absolute positioning
M106 S255    ;start with the fan on
G28     ;move to endstops
G29		;allows for auto-levelling
G1 X150 Y5  Z15.0 F6000 ;center and move the platform down 15mm
M109 S220 ;Heat To temp
G92 E0                  ;zero the extruded length
G1 F200 E30              ;extrude 30mm of feed stock
G92 E0                  ;zero the extruded length again
G1 X175 Y25  Z0 F6000 ;remove bugger
G1 X220 F6000 ;remove bugger
G1 X150 Y150  Z15 F6000 ;recenter and begin
G1 F6000

;Layer count: 10
;LAYER:0
M106 S255
G0 F6000 X257.57 Y28.32 Z0.30
;TYPE:SKIRT
G1 F2700 X257.89 Y27.27 E0.05480
G1 X258.01 Y26.89 E0.07492
G1 X258.52 Y25.94 E0.12844
G1 X258.52 Y25.94 E0.12849
G1 X258.71 Y25.59 E0.14869
G1 X259.66 Y24.43 E0.22345
G1 X260.50 Y23.73 E0.27801
G1 X260.81 Y23.48 E0.29790
G1 X261.78 Y22.96 E0.35254
G1 X262.13 Y22.77 E0.37281
G1 X263.15 Y22.47 E0.42565
G1 X263.15 Y22.47 E0.42570
G1 X263.55 Y22.34 E0.44665
G1 X264.63 Y22.24 E0.50079
G1 X265.04 Y22.19 E0.52120
G1 X266.14 Y22.30 E0.57669
G1 X266.54 Y22.34 E0.59675
G1 X267.60 Y22.66 E0.65152
G1 X267.98 Y22.78 E0.67177
G1 X268.93 Y23.29 E0.72518
G1 X269.28 Y23.48 E0.74538
G1 X270.13 Y24.17 E0.80001
G1 X270.44 Y24.43 E0.82010
G1 X271.39 Y25.58 E0.89472
G1 X271.90 Y26.55 E0.94929
G1 X272.10 Y26.91 E0.96942
G1 X272.40 Y27.92 E1.02228
G1 X272.53 Y28.32 E1.04313
G1 X272.63 Y29.40 E1.09757
G1 X272.68 Y29.81 E1.11803
G1 X272.57 Y30.92 E1.17342
G1 X272.52 Y31.32 E1.19339
G1 X272.21 Y32.37 E1.24812
G1 X272.09 Y32.75 E1.26820
G1 X271.58 Y33.70 E1.32181
G1 X271.58 Y33.70 E1.32186
G1 X271.39 Y34.06 E1.34214
G1 X270.69 Y34.90 E1.39687
G1 X270.44 Y35.21 E1.41683
G1 X269.60 Y35.91 E1.47135
G1 X269.29 Y36.16 E1.49123
G1 X268.32 Y36.68 E1.54587
G1 X267.96 Y36.87 E1.56614
G1 X266.95 Y37.17 E1.61898
G1 X266.95 Y37.17 E1.61903
G1 X266.55 Y37.30 E1.63988
G1 X265.47 Y37.40 E1.69412
G1 X265.06 Y37.45 E1.71463
G1 X263.95 Y37.34 E1.77012
G1 X263.55 Y37.30 E1.79009
G1 X262.50 Y36.98 E1.84486
G1 X262.12 Y36.86 E1.86510
G1 X261.17 Y36.35 E1.91892
G1 X260.81 Y36.16 E1.93871
G1 X259.97 Y35.47 E1.99334
G1 X259.66 Y35.21 E2.01337
G1 X258.96 Y34.37 E2.06788
G1 X258.71 Y34.06 E2.08802
G1 X258.19 Y33.09 E2.14270
G1 X258.00 Y32.73 E2.16277
G1 X257.70 Y31.72 E2.21562
G1 X257.57 Y31.32 E2.23647
G1 X257.46 Y30.22 E2.29172
G1 X257.42 Y29.83 E2.31123
G1 X257.53 Y28.73 E2.36662
G1 X257.57 Y28.32 E2.38668
G0 F6000 X162.70 Y152.18
G1 F2700 X163.86 Y153.13 E2.46144
G1 X164.55 Y153.97 E2.51593
G1 X164.81 Y154.28 E2.53589
G1 X165.32 Y155.25 E2.59053
G1 X165.51 Y155.60 E2.61079
G1 X165.82 Y156.62 E2.66364
G1 X165.82 Y156.62 E2.66369
G1 X165.95 Y157.02 E2.68464
G1 X166.05 Y158.10 E2.73878
G1 X166.09 Y158.51 E2.75919
G1 X165.99 Y159.61 E2.81468
G1 X165.94 Y160.01 E2.83474
G1 X165.63 Y161.06 E2.88951
G1 X165.50 Y161.45 E2.90975
G1 X165.00 Y162.40 E2.96357
G1 X164.81 Y162.75 E2.98337
G1 X164.12 Y163.60 E3.03800
G1 X163.86 Y163.91 E3.05809
G1 X162.70 Y164.86 E3.13271
G1 X161.74 Y165.37 E3.18728
G1 X161.38 Y165.56 E3.20741
G1 X160.37 Y165.87 E3.26027
G1 X159.97 Y166.00 E3.28111
G1 X158.87 Y166.10 E3.33636
G1 X158.47 Y166.14 E3.35602
G1 X157.37 Y166.04 E3.41141
G1 X156.97 Y165.99 E3.43138
G1 X155.92 Y165.68 E3.48611
G1 X155.54 Y165.56 E3.50618
G1 X154.59 Y165.05 E3.55980
G1 X154.59 Y165.05 E3.55985
G1 X154.23 Y164.86 E3.58013
G1 X153.38 Y164.16 E3.63486
G1 X153.07 Y163.91 E3.65481
G1 X152.38 Y163.06 E3.70934
G1 X152.13 Y162.76 E3.72922
G1 X151.61 Y161.79 E3.78386
G1 X151.42 Y161.43 E3.80413
G1 X151.12 Y160.42 E3.85697
G1 X151.11 Y160.42 E3.85702
G1 X150.99 Y160.02 E3.87786
G1 X150.88 Y158.92 E3.93311
G1 X150.84 Y158.53 E3.95262
G1 X150.95 Y157.42 E4.00811
G1 X150.99 Y157.02 E4.02808
G1 X151.31 Y155.97 E4.08285
G1 X151.43 Y155.59 E4.10309
G1 X151.94 Y154.63 E4.15691
G1 X152.13 Y154.28 E4.17670
G1 X152.82 Y153.44 E4.23133
G1 X153.07 Y153.13 E4.25136
G1 X153.92 Y152.43 E4.30587
G1 X154.23 Y152.18 E4.32601
G1 X155.20 Y151.66 E4.38069
G1 X155.55 Y151.47 E4.40076
G1 X156.57 Y151.16 E4.45361
G1 X156.97 Y151.04 E4.47446
G1 X158.05 Y150.93 E4.52900
G1 X158.46 Y150.89 E4.54921
G1 X159.56 Y151.00 E4.60461
G1 X159.96 Y151.04 E4.62467
G1 X161.01 Y151.36 E4.67946
G1 X161.40 Y151.48 E4.69958
G1 X162.34 Y151.99 E4.75311
G1 X162.34 Y151.99 E4.75316
G1 X162.70 Y152.18 E4.77336
G0 F6000 X52.48 Y45.77
G1 F2700 X51.64 Y46.46 E4.82787
G1 X51.33 Y46.72 E4.84800
G1 X50.36 Y47.23 E4.90258
G1 X50.01 Y47.42 E4.92275
G1 X48.99 Y47.73 E4.97559
G1 X48.99 Y47.73 E4.97564
G1 X48.59 Y47.85 E4.99649
G1 X47.51 Y47.96 E5.05073
G1 X47.10 Y48.00 E5.07125
G1 X45.99 Y47.89 E5.12674
G1 X45.60 Y47.85 E5.14670
G1 X44.55 Y47.53 E5.20147
G1 X44.16 Y47.41 E5.22160
G1 X43.22 Y46.91 E5.27513
G1 X43.22 Y46.91 E5.27518
G1 X42.86 Y46.72 E5.29547
G1 X42.01 Y46.02 E5.35019
G1 X41.70 Y45.77 E5.37008
G1 X41.01 Y44.92 E5.42459
G1 X40.75 Y44.61 E5.44473
G1 X40.24 Y43.65 E5.49930
G1 X40.05 Y43.29 E5.51947
G1 X39.74 Y42.27 E5.57232
G1 X39.74 Y42.27 E5.57237
G1 X39.62 Y41.88 E5.59321
G1 X39.51 Y40.77 E5.64846
G1 X39.47 Y40.38 E5.66797
G1 X39.57 Y39.28 E5.72346
G1 X39.62 Y38.88 E5.74342
G1 X39.93 Y37.83 E5.79816
G1 X40.05 Y37.45 E5.81823
G1 X40.56 Y36.50 E5.87184
G1 X40.56 Y36.50 E5.87189
G1 X40.75 Y36.14 E5.89218
G1 X41.45 Y35.29 E5.94690
G1 X41.70 Y34.98 E5.96679
G1 X42.54 Y34.29 E6.02131
G1 X42.86 Y34.03 E6.04144
G1 X43.82 Y33.52 E6.09601
G1 X44.18 Y33.33 E6.11619
G1 X45.19 Y33.02 E6.16903
G1 X45.19 Y33.02 E6.16908
G1 X45.59 Y32.90 E6.18992
G1 X46.68 Y32.79 E6.24447
G1 X47.08 Y32.75 E6.26468
G1 X48.19 Y32.86 E6.32017
G1 X48.59 Y32.90 E6.34014
G1 X49.64 Y33.22 E6.39491
G1 X50.02 Y33.34 E6.41504
G1 X50.97 Y33.84 E6.46856
G1 X50.97 Y33.84 E6.46861
G1 X51.33 Y34.03 E6.48890
G1 X52.17 Y34.73 E6.54363
G1 X52.48 Y34.98 E6.56351
G1 X53.18 Y35.83 E6.61803
G1 X53.43 Y36.14 E6.63816
G1 X53.95 Y37.11 E6.69284
G1 X54.14 Y37.46 E6.71291
G1 X54.45 Y38.48 E6.76577
G1 X54.57 Y38.87 E6.78661
G1 X54.68 Y39.96 E6.84086
G1 X54.72 Y40.37 E6.86137
G1 X54.61 Y41.47 E6.91686
G1 X54.57 Y41.87 E6.93682
G1 X54.25 Y42.92 E6.99159
G1 X54.13 Y43.31 E7.01173
G1 X53.62 Y44.25 E7.06525
G1 X53.62 Y44.25 E7.06530
G1 X53.43 Y44.61 E7.08559
G1 X52.74 Y45.46 E7.14031
G1 X52.48 Y45.77 E7.16020
G0 F6000 X30.78 Y273.14
G1 F2700 X31.89 Y273.25 E7.21559
G1 X32.28 Y273.29 E7.23556
G1 X33.34 Y273.61 E7.29029
G1 X33.72 Y273.73 E7.31036
G1 X34.67 Y274.24 E7.36397
G1 X34.67 Y274.24 E7.36402
G1 X35.03 Y274.43 E7.38431
G1 X35.87 Y275.12 E7.43904
G1 X36.18 Y275.38 E7.45899
G1 X36.87 Y276.22 E7.51344
G1 X37.13 Y276.53 E7.53340
G1 X37.65 Y277.50 E7.58804
G1 X37.84 Y277.85 E7.60831
G1 X38.14 Y278.87 E7.66115
G1 X38.14 Y278.87 E7.66120
G1 X38.27 Y279.27 E7.68204
G1 X38.37 Y280.35 E7.73629
G1 X38.42 Y280.76 E7.75680
G1 X38.31 Y281.87 E7.81229
G1 X38.27 Y282.26 E7.83226
G1 X37.95 Y283.31 E7.88702
G1 X37.83 Y283.70 E7.90727
G1 X37.32 Y284.65 E7.96108
G1 X37.13 Y285.00 E7.98088
G1 X36.44 Y285.85 E8.03551
G1 X36.18 Y286.16 E8.05554
G1 X35.34 Y286.85 E8.11005
G1 X35.03 Y287.11 E8.13019
G1 X34.06 Y287.62 E8.18487
G1 X33.70 Y287.81 E8.20493
G1 X32.69 Y288.12 E8.25779
G1 X32.29 Y288.25 E8.27864
G1 X31.21 Y288.35 E8.33288
G1 X30.80 Y288.39 E8.35339
G1 X29.70 Y288.29 E8.40878
G1 X29.30 Y288.25 E8.42884
G1 X28.24 Y287.93 E8.48364
G1 X27.86 Y287.81 E8.50376
G1 X26.91 Y287.30 E8.55728
G1 X26.91 Y287.30 E8.55733
G1 X26.56 Y287.11 E8.57753
G1 X25.40 Y286.16 E8.65230
G1 X24.70 Y285.31 E8.70686
G1 X24.45 Y285.01 E8.72674
G1 X23.93 Y284.04 E8.78139
G1 X23.74 Y283.68 E8.80165
G1 X23.44 Y282.67 E8.85449
G1 X23.44 Y282.67 E8.85454
G1 X23.31 Y282.27 E8.87550
G1 X23.20 Y281.16 E8.93083
G1 X23.16 Y280.78 E8.95005
G1 X23.27 Y279.67 E9.00553
G1 X23.31 Y279.27 E9.02560
G1 X23.63 Y278.22 E9.08037
G1 X23.75 Y277.83 E9.10061
G1 X24.26 Y276.88 E9.15442
G1 X24.45 Y276.53 E9.17422
G1 X25.14 Y275.69 E9.22885
G1 X25.40 Y275.38 E9.24895
G1 X26.55 Y274.43 E9.32357
G1 X27.52 Y273.91 E9.37814
G1 X27.88 Y273.72 E9.39827
G1 X28.89 Y273.42 E9.45113
G1 X29.29 Y273.29 E9.47197
G1 X30.39 Y273.18 E9.52722
G1 X30.78 Y273.14 E9.54688
G0 F6000 X47.09 Y43.78
;TYPE:WALL-INNER
G1 F2700 X46.43 Y43.72 E9.57991
G1 X45.79 Y43.52 E9.61306
G1 X45.20 Y43.21 E9.64647
G1 X44.69 Y42.78 E9.67989
G1 X44.26 Y42.26 E9.71335
G1 X43.95 Y41.68 E9.74645
G1 X43.75 Y41.03 E9.78031
G1 X43.69 Y40.37 E9.81329
G1 X43.75 Y39.71 E9.84633
G1 X43.94 Y39.08 E9.87947
G1 X44.26 Y38.48 E9.91288
G1 X44.69 Y37.97 E9.94631
G1 X45.20 Y37.54 E9.97977
G1 X45.79 Y37.23 E10.01287
G1 X46.43 Y37.03 E10.04647
G1 X47.10 Y36.97 E10.07971
G1 X47.76 Y37.03 E10.11274
G1 X48.39 Y37.23 E10.14589
G1 X48.98 Y37.54 E10.17930
G1 X49.50 Y37.97 E10.21272
G1 X49.92 Y38.48 E10.24614
G1 X50.24 Y39.07 E10.27922
G1 X50.43 Y39.72 E10.31288
G1 X50.50 Y40.38 E10.34592
G1 X50.43 Y41.04 E10.37916
G1 X50.24 Y41.67 E10.41230
G1 X49.92 Y42.27 E10.44571
G1 X49.50 Y42.78 E10.47914
G1 X48.98 Y43.21 E10.51259
G1 X48.40 Y43.52 E10.54570
G1 X47.75 Y43.72 E10.57930
G1 X47.09 Y43.78 E10.61253
G0 F6000 X47.10 Y43.48
G1 F2700 X47.75 Y43.41 E10.64493
G1 X48.28 Y43.24 E10.67283
G1 X48.82 Y42.96 E10.70314
G1 X49.29 Y42.57 E10.73352
G1 X49.68 Y42.09 E10.76430
G1 X49.98 Y41.52 E10.79665
G1 X50.14 Y40.98 E10.82460
G1 X50.20 Y40.37 E10.85543
G1 X50.12 Y39.72 E10.88782
G1 X49.96 Y39.19 E10.91568
G1 X49.67 Y38.65 E10.94603
G1 X49.29 Y38.18 E10.97641
G1 X48.81 Y37.79 E11.00718
G1 X48.23 Y37.49 E11.03954
G1 X47.70 Y37.33 E11.06749
G1 X47.08 Y37.27 E11.09832
G1 X46.44 Y37.34 E11.13071
G1 X45.90 Y37.51 E11.15861
G1 X45.37 Y37.79 E11.18892
G1 X44.90 Y38.18 E11.21931
G1 X44.51 Y38.66 E11.25012
G1 X44.21 Y39.23 E11.28251
G1 X44.05 Y39.77 E11.31037
G1 X43.99 Y40.38 E11.34120
G1 X44.06 Y41.03 E11.37359
G1 X44.22 Y41.56 E11.40150
G1 X44.51 Y42.10 E11.43180
G1 X44.90 Y42.57 E11.46219
G1 X45.37 Y42.96 E11.49296
G1 X45.95 Y43.26 E11.52531
G1 X46.49 Y43.42 E11.55326
G1 X47.10 Y43.48 E11.58409
G0 F6000 X47.10 Y43.08
G1 F2700 X47.66 Y43.01 E11.61256
G1 X48.13 Y42.87 E11.63671
G1 X48.59 Y42.62 E11.66314
G1 X49.00 Y42.29 E11.68954
G1 X49.34 Y41.87 E11.71623
G1 X49.60 Y41.37 E11.74464
G1 X49.74 Y40.90 E11.76878
G1 X49.80 Y40.37 E11.79550
G1 X49.73 Y39.80 E11.82397
G1 X49.59 Y39.34 E11.84807
G1 X49.34 Y38.87 E11.87452
G1 X49.00 Y38.46 E11.90096
G1 X48.59 Y38.12 E11.92765
G1 X48.08 Y37.87 E11.95605
G1 X47.62 Y37.72 E11.98020
G1 X47.09 Y37.67 E12.00692
G1 X46.52 Y37.74 E12.03539
G1 X46.06 Y37.88 E12.05954
G1 X45.59 Y38.13 E12.08596
G1 X45.18 Y38.46 E12.11237
G1 X44.84 Y38.88 E12.13906
G1 X44.58 Y39.38 E12.16751
G1 X44.44 Y39.85 E12.19161
G1 X44.39 Y40.38 E12.21832
G1 X44.45 Y40.95 E12.24680
G1 X44.59 Y41.41 E12.27094
G1 X44.84 Y41.88 E12.29737
G1 X45.18 Y42.29 E12.32378
G1 X45.59 Y42.63 E12.35047
G1 X46.10 Y42.88 E12.37887
G1 X46.56 Y43.03 E12.40302
G1 X47.10 Y43.08 E12.42973
G0 F6000 X47.12 Y44.18
G1 F2700 X47.09 Y44.18 E12.43114
G1 X46.38 Y44.11 E12.46668
G1 X46.35 Y44.11 E12.46834
G1 X45.67 Y43.90 E12.50383
G1 X44.98 Y43.54 E12.54255
G1 X44.40 Y43.07 E12.57991
G1 X43.92 Y42.49 E12.61726
G1 X43.57 Y41.83 E12.65443
G1 X43.37 Y41.14 E12.69033
G1 X43.36 Y41.12 E12.69169
G1 X43.29 Y40.40 E12.72758
G1 X43.28 Y40.37 E12.72909
G1 X43.35 Y39.66 E12.76453
G1 X43.36 Y39.63 E12.76608
G1 X43.56 Y38.95 E12.80164
G1 X43.58 Y38.92 E12.80336
G1 X43.92 Y38.26 E12.84030
G1 X44.40 Y37.68 E12.87777
G1 X44.98 Y37.21 E12.91512
G1 X45.64 Y36.86 E12.95229
G1 X46.33 Y36.65 E12.98819
G1 X46.35 Y36.64 E12.98955
G1 X47.07 Y36.57 E13.02544
G1 X47.09 Y36.57 E13.02685
G1 X47.80 Y36.64 E13.06239
G1 X47.84 Y36.64 E13.06404
G1 X48.52 Y36.85 E13.09954
G1 X49.20 Y37.21 E13.13826
G1 X49.78 Y37.68 E13.17561
G1 X50.26 Y38.26 E13.21308
G1 X50.61 Y38.92 E13.25002
G1 X50.82 Y39.61 E13.28608
G1 X50.83 Y39.63 E13.28744
G1 X50.90 Y40.35 E13.32328
G1 X50.90 Y40.38 E13.32454
G1 X50.83 Y41.09 E13.36023
G1 X50.83 Y41.12 E13.36188
G1 X50.62 Y41.80 E13.39738
G1 X50.26 Y42.49 E13.43610
G1 X49.78 Y43.07 E13.47345
G1 X49.20 Y43.54 E13.51081
G1 X48.55 Y43.89 E13.54797
G1 X47.86 Y44.10 E13.58388
G1 X47.83 Y44.11 E13.58524
G1 X47.12 Y44.18 E13.62113
G0 F6000 X47.16 Y44.58
;TYPE:WALL-OUTER
G1 F2700 X47.09 Y44.58 E13.62449
G1 X46.34 Y44.51 E13.66219
G1 X46.27 Y44.50 E13.66570
G1 X45.55 Y44.28 E13.70333
G1 X45.48 Y44.26 E13.70695
G1 X44.76 Y43.88 E13.74773
G1 X44.12 Y43.35 E13.78910
G1 X43.59 Y42.71 E13.83047
G1 X43.20 Y41.99 E13.87136
G1 X42.98 Y41.26 E13.90930
G1 X42.96 Y41.19 E13.91269
G1 X42.89 Y40.44 E13.95044
G1 X42.88 Y40.37 E13.95385
G1 X42.96 Y39.62 E13.99150
G1 X42.96 Y39.55 E13.99501
G1 X43.18 Y38.83 E14.03259
G1 X43.20 Y38.76 E14.03622
G1 X43.59 Y38.04 E14.07704
G1 X44.12 Y37.40 E14.11841
G1 X44.76 Y36.87 E14.15978
G1 X45.48 Y36.49 E14.20067
G1 X46.21 Y36.27 E14.23861
G1 X46.27 Y36.25 E14.24200
G1 X47.03 Y36.17 E14.27975
G1 X47.09 Y36.17 E14.28311
G1 X47.84 Y36.24 E14.32081
G1 X47.91 Y36.25 E14.32432
G1 X48.64 Y36.47 E14.36195
G1 X48.71 Y36.49 E14.36557
G1 X49.43 Y36.87 E14.40635
G1 X50.07 Y37.40 E14.44772
G1 X50.59 Y38.04 E14.48909
G1 X50.98 Y38.76 E14.53002
G1 X51.20 Y39.49 E14.56792
G1 X51.22 Y39.56 E14.57131
G1 X51.29 Y40.31 E14.60906
G1 X51.30 Y40.37 E14.61227
G1 X51.23 Y41.13 E14.65012
G1 X51.22 Y41.20 E14.65363
G1 X51.00 Y41.92 E14.69126
G1 X50.98 Y41.99 E14.69488
G1 X50.59 Y42.71 E14.73566
G1 X50.07 Y43.35 E14.77703
G1 X49.43 Y43.88 E14.81840
G1 X48.70 Y44.26 E14.85929
G1 X47.98 Y44.48 E14.89723
G1 X47.91 Y44.50 E14.90062
G1 X47.16 Y44.58 E14.93837
G0 F6000 X47.14 Y44.28
G0 X47.07 Y42.97
G0 X47.09 Y42.68
G1 F2700 X47.58 Y42.62 E14.96288
G1 X47.97 Y42.50 E14.98327
G1 X48.37 Y42.29 E15.00579
G1 X48.72 Y42.00 E15.02826
G1 X49.01 Y41.65 E15.05084
G1 X49.23 Y41.22 E15.07534
G1 X49.35 Y40.82 E15.09573
G1 X49.39 Y40.37 E15.11834
G1 X49.34 Y39.88 E15.14285
G1 X49.22 Y39.49 E15.16319
G1 X49.01 Y39.10 E15.18575
G1 X48.72 Y38.75 E15.20823
G1 X48.37 Y38.46 E15.23081
G1 X47.93 Y38.24 E15.25531
G1 X47.54 Y38.12 E15.27570
G1 X47.09 Y38.07 E15.29831
G1 X46.60 Y38.13 E15.32281
G1 X46.21 Y38.25 E15.34320
G1 X45.81 Y38.46 E15.36572
G1 X45.47 Y38.75 E15.38820
G1 X45.18 Y39.10 E15.41078
G1 X44.95 Y39.54 E15.43532
G1 X44.84 Y39.93 E15.45566
G1 X44.79 Y40.38 E15.47827
G1 X44.85 Y40.87 E15.50278
G1 X44.97 Y41.26 E15.52317
G1 X45.18 Y41.65 E15.54569
G1 X45.47 Y42.00 E15.56816
G1 X45.81 Y42.29 E15.59074
G1 X46.25 Y42.51 E15.61524
G1 X46.64 Y42.63 E15.63563
G1 X47.09 Y42.68 E15.65824
G0 F6000 X47.01 Y43.57
G0 X156.06 Y156.11
;TYPE:WALL-INNER
G1 F2700 X156.58 Y155.69 E15.69180
G1 X157.16 Y155.37 E15.72499
G1 X157.81 Y155.18 E15.75855
G1 X158.47 Y155.11 E15.79178
G1 X159.13 Y155.18 E15.82487
G1 X159.77 Y155.37 E15.85797
G1 X160.36 Y155.69 E15.89156
G1 X160.88 Y156.11 E15.92485
G1 X161.30 Y156.63 E15.95820
G1 X161.61 Y157.21 E15.99130
G1 X161.81 Y157.86 E16.02507
G1 X161.87 Y158.52 E16.05830
G1 X161.81 Y159.18 E16.09122
G1 X161.62 Y159.82 E16.12448
G1 X161.30 Y160.41 E16.15805
G1 X160.88 Y160.93 E16.19127
G1 X160.36 Y161.35 E16.22455
G1 X159.77 Y161.66 E16.25788
G1 X159.13 Y161.86 E16.29148
G1 X158.46 Y161.92 E16.32467
G1 X157.80 Y161.86 E16.35775
G1 X157.17 Y161.67 E16.39090
G1 X156.58 Y161.35 E16.42431
G1 X156.06 Y160.92 E16.45787
G1 X155.63 Y160.41 E16.49108
G1 X155.32 Y159.82 E16.52418
G1 X155.13 Y159.18 E16.55790
G1 X155.06 Y158.51 E16.59113
G1 X155.13 Y157.85 E16.62417
G1 X155.32 Y157.22 E16.65736
G1 X155.64 Y156.62 E16.69093
G1 X156.06 Y156.11 E16.72400
G0 F6000 X156.27 Y156.32
G1 F2700 X155.88 Y156.79 E16.75442
G1 X155.60 Y157.33 E16.78479
G1 X155.42 Y157.91 E16.81511
G1 X155.36 Y158.52 E16.84550
G1 X155.42 Y159.13 E16.87633
G1 X155.62 Y159.75 E16.90868
G1 X155.89 Y160.24 E16.93658
G1 X156.27 Y160.71 E16.96696
G1 X156.75 Y161.10 E16.99777
G1 X157.33 Y161.40 E17.03008
G1 X157.86 Y161.56 E17.05803
G1 X158.48 Y161.62 E17.08881
G1 X159.12 Y161.55 E17.12120
G1 X159.66 Y161.39 E17.14910
G1 X160.19 Y161.10 E17.17941
G1 X160.66 Y160.71 E17.20980
G1 X161.05 Y160.24 E17.24057
G1 X161.35 Y159.66 E17.27292
G1 X161.51 Y159.12 E17.30087
G1 X161.57 Y158.51 E17.33170
G1 X161.50 Y157.86 E17.36409
G1 X161.34 Y157.33 E17.39200
G1 X161.05 Y156.79 E17.42231
G1 X160.66 Y156.32 E17.45269
G1 X160.19 Y155.93 E17.48346
G1 X159.61 Y155.63 E17.51581
G1 X159.07 Y155.47 E17.54376
G1 X158.46 Y155.41 E17.57459
G1 X157.81 Y155.49 E17.60694
G1 X157.28 Y155.65 E17.63484
G1 X156.74 Y155.94 E17.66515
G1 X156.27 Y156.32 E17.69553
G0 F6000 X156.56 Y156.61
G1 F2700 X156.22 Y157.02 E17.72198
G1 X155.97 Y157.48 E17.74845
G1 X155.82 Y157.99 E17.77482
G1 X155.76 Y158.52 E17.80130
G1 X155.82 Y159.05 E17.82802
G1 X155.99 Y159.59 E17.85642
G1 X156.22 Y160.02 E17.88059
G1 X156.56 Y160.43 E17.90704
G1 X156.97 Y160.77 E17.93377
G1 X157.48 Y161.03 E17.96213
G1 X157.94 Y161.17 E17.98628
G1 X158.47 Y161.22 E18.01295
G1 X159.04 Y161.16 E18.04142
G1 X159.50 Y161.01 E18.06557
G1 X159.97 Y160.76 E18.09199
G1 X160.38 Y160.43 E18.11840
G1 X160.72 Y160.02 E18.14509
G1 X160.98 Y159.51 E18.17349
G1 X161.12 Y159.05 E18.19764
G1 X161.17 Y158.51 E18.22436
G1 X161.10 Y157.95 E18.25283
G1 X160.96 Y157.48 E18.27698
G1 X160.71 Y157.02 E18.30340
G1 X160.38 Y156.61 E18.32981
G1 X159.97 Y156.27 E18.35650
G1 X159.46 Y156.01 E18.38490
G1 X159.00 Y155.87 E18.40905
G1 X158.46 Y155.81 E18.43582
G1 X157.90 Y155.88 E18.46419
G1 X157.43 Y156.02 E18.48834
G1 X156.97 Y156.27 E18.51474
G1 X156.56 Y156.61 E18.54119
G0 F6000 X155.78 Y155.83
G1 F2700 X156.36 Y155.35 E18.57862
G1 X157.01 Y155.00 E18.61556
G1 X157.70 Y154.79 E18.65163
G1 X157.73 Y154.78 E18.65298
G1 X158.44 Y154.71 E18.68883
G1 X158.47 Y154.71 E18.69023
G1 X159.18 Y154.78 E18.72577
G1 X159.21 Y154.78 E18.72738
G1 X159.89 Y154.99 E18.76294
G1 X160.58 Y155.35 E18.80163
G1 X161.16 Y155.83 E18.83903
G1 X161.63 Y156.41 E18.87635
G1 X161.97 Y157.03 E18.91200
G1 X162.19 Y157.75 E18.94941
G1 X162.20 Y157.78 E18.95077
G1 X162.27 Y158.49 E18.98660
G1 X162.27 Y158.52 E18.98791
G1 X162.21 Y159.23 E19.02360
G1 X162.20 Y159.26 E19.02525
G1 X162.00 Y159.94 E19.06075
G1 X161.65 Y160.61 E19.09819
G1 X161.63 Y160.63 E19.09956
G1 X161.16 Y161.21 E19.13681
G1 X160.58 Y161.69 E19.17421
G1 X159.92 Y162.03 E19.21130
G1 X159.23 Y162.24 E19.24727
G1 X159.21 Y162.25 E19.24863
G1 X158.49 Y162.32 E19.28442
G1 X158.47 Y162.32 E19.28587
G1 X157.75 Y162.25 E19.32147
G1 X157.72 Y162.25 E19.32302
G1 X157.04 Y162.04 E19.35858
G1 X157.01 Y162.03 E19.36030
G1 X156.36 Y161.69 E19.39724
G1 X155.78 Y161.21 E19.43467
G1 X155.30 Y160.63 E19.47203
G1 X154.96 Y160.00 E19.50775
G1 X154.95 Y159.97 E19.50931
G1 X154.74 Y159.28 E19.54512
G1 X154.73 Y159.26 E19.54648
G1 X154.66 Y158.54 E19.58237
G1 X154.66 Y158.51 E19.58387
G1 X154.73 Y157.81 E19.61932
G1 X154.73 Y157.77 E19.62097
G1 X154.94 Y157.09 E19.65647
G1 X155.29 Y156.43 E19.69391
G1 X155.30 Y156.40 E19.69528
G1 X155.78 Y155.83 E19.73257
G0 F6000 X155.49 Y155.54
;TYPE:WALL-OUTER
G1 F2700 X156.13 Y155.02 E19.77394
G1 X156.86 Y154.63 E19.81487
G1 X157.58 Y154.41 E19.85277
G1 X157.65 Y154.39 E19.85616
G1 X158.40 Y154.32 E19.89391
G1 X158.47 Y154.31 E19.89727
G1 X159.22 Y154.38 E19.93497
G1 X159.29 Y154.39 E19.93853
G1 X160.01 Y154.61 E19.97610
G1 X160.08 Y154.63 E19.97973
G1 X160.80 Y155.02 E20.02051
G1 X161.44 Y155.54 E20.06192
G1 X161.97 Y156.18 E20.10326
G1 X162.36 Y156.91 E20.14419
G1 X162.58 Y157.63 E20.18212
G1 X162.60 Y157.70 E20.18551
G1 X162.67 Y158.45 E20.22326
G1 X162.68 Y158.52 E20.22647
G1 X162.60 Y159.27 E20.26431
G1 X162.60 Y159.34 E20.26782
G1 X162.38 Y160.06 E20.30545
G1 X162.36 Y160.13 E20.30906
G1 X161.97 Y160.85 E20.34989
G1 X161.44 Y161.49 E20.39122
G1 X160.80 Y162.02 E20.43263
G1 X160.08 Y162.41 E20.47354
G1 X159.35 Y162.63 E20.51142
G1 X159.29 Y162.65 E20.51482
G1 X158.53 Y162.72 E20.55256
G1 X158.47 Y162.73 E20.55597
G1 X157.71 Y162.65 E20.59367
G1 X157.64 Y162.65 E20.59718
G1 X156.92 Y162.43 E20.63476
G1 X156.85 Y162.41 E20.63839
G1 X156.13 Y162.02 E20.67921
G1 X155.49 Y161.49 E20.72058
G1 X154.97 Y160.85 E20.76192
G1 X154.58 Y160.13 E20.80285
G1 X154.36 Y159.40 E20.84078
G1 X154.34 Y159.34 E20.84417
G1 X154.26 Y158.58 E20.88192
G1 X154.26 Y158.52 E20.88533
G1 X154.33 Y157.76 E20.92298
G1 X154.34 Y157.69 E20.92649
G1 X154.56 Y156.97 E20.96412
G1 X154.58 Y156.90 E20.96773
G1 X154.97 Y156.18 E21.00856
G1 X155.49 Y155.54 E21.04989
G0 F6000 X155.70 Y155.75
G0 X156.65 Y156.66
G0 X156.84 Y156.89
G1 F2700 X156.55 Y157.24 E21.07237
G1 X156.34 Y157.64 E21.09489
G1 X156.21 Y158.07 E21.11740
G1 X156.17 Y158.52 E21.13991
G1 X156.21 Y158.97 E21.16252
G1 X156.36 Y159.44 E21.18699
G1 X156.55 Y159.80 E21.20741
G1 X156.84 Y160.15 E21.22989
G1 X157.19 Y160.43 E21.25251
G1 X157.63 Y160.66 E21.27701
G1 X158.02 Y160.78 E21.29740
G1 X158.47 Y160.82 E21.31995
G1 X158.96 Y160.76 E21.34446
G1 X159.35 Y160.64 E21.36485
G1 X159.75 Y160.43 E21.38737
G1 X160.09 Y160.15 E21.40984
G1 X160.38 Y159.79 E21.43243
G1 X160.60 Y159.36 E21.45693
G1 X160.72 Y158.97 E21.47732
G1 X160.77 Y158.52 E21.49992
G1 X160.71 Y158.03 E21.52443
G1 X160.59 Y157.64 E21.54482
G1 X160.38 Y157.24 E21.56734
G1 X160.09 Y156.89 E21.58981
G1 X159.74 Y156.60 E21.61240
G1 X159.31 Y156.38 E21.63690
G1 X158.92 Y156.26 E21.65729
G1 X158.47 Y156.22 E21.67989
G1 X157.98 Y156.27 E21.70435
G1 X157.59 Y156.39 E21.72474
G1 X157.19 Y156.60 E21.74726
G1 X156.84 Y156.89 E21.76977
G0 F6000 X156.27 Y156.19
G0 X262.64 Y32.23
;TYPE:WALL-INNER
G1 F2700 X262.22 Y31.71 E21.80333
G1 X261.90 Y31.12 E21.83652
G1 X261.71 Y30.48 E21.87008
G1 X261.64 Y29.82 E21.90331
G1 X261.71 Y29.16 E21.93640
G1 X261.90 Y28.52 E21.96950
G1 X262.22 Y27.93 E22.00309
G1 X262.64 Y27.41 E22.03638
G1 X263.16 Y26.99 E22.06973
G1 X263.74 Y26.67 E22.10284
G1 X264.39 Y26.48 E22.13660
G1 X265.05 Y26.41 E22.16983
G1 X265.71 Y26.48 E22.20276
G1 X266.35 Y26.67 E22.23601
G1 X266.94 Y26.99 E22.26958
G1 X267.46 Y27.41 E22.30280
G1 X267.88 Y27.93 E22.33609
G1 X268.19 Y28.51 E22.36930
G1 X268.39 Y29.16 E22.40301
G1 X268.45 Y29.82 E22.43605
G1 X268.39 Y30.48 E22.46928
G1 X268.20 Y31.12 E22.50243
G1 X267.88 Y31.71 E22.53584
G1 X267.45 Y32.23 E22.56940
G1 X266.94 Y32.65 E22.60261
G1 X266.36 Y32.97 E22.63571
G1 X265.71 Y33.16 E22.66943
G1 X265.05 Y33.23 E22.70266
G1 X264.39 Y33.16 E22.73570
G1 X263.75 Y32.97 E22.76889
G1 X263.16 Y32.65 E22.80246
G1 X262.64 Y32.23 E22.83553
G0 F6000 X262.85 Y32.02
G1 F2700 X263.32 Y32.40 E22.86595
G1 X263.86 Y32.69 E22.89632
G1 X264.44 Y32.86 E22.92664
G1 X265.05 Y32.92 E22.95703
G1 X265.66 Y32.86 E22.98786
G1 X266.28 Y32.66 E23.02021
G1 X266.77 Y32.40 E23.04811
G1 X267.25 Y32.02 E23.07849
G1 X267.64 Y31.54 E23.10930
G1 X267.93 Y30.96 E23.14161
G1 X268.10 Y30.43 E23.16956
G1 X268.15 Y29.81 E23.20034
G1 X268.08 Y29.17 E23.23273
G1 X267.92 Y28.63 E23.26063
G1 X267.63 Y28.09 E23.29094
G1 X267.25 Y27.62 E23.32132
G1 X266.77 Y27.23 E23.35210
G1 X266.19 Y26.94 E23.38445
G1 X265.65 Y26.77 E23.41240
G1 X265.04 Y26.71 E23.44323
G1 X264.39 Y26.79 E23.47562
G1 X263.86 Y26.95 E23.50353
G1 X263.32 Y27.24 E23.53384
G1 X262.85 Y27.62 E23.56422
G1 X262.46 Y28.10 E23.59499
G1 X262.17 Y28.68 E23.62734
G1 X262.00 Y29.21 E23.65529
G1 X261.94 Y29.83 E23.68612
G1 X262.02 Y30.47 E23.71847
G1 X262.18 Y31.01 E23.74637
G1 X262.47 Y31.54 E23.77668
G1 X262.85 Y32.02 E23.80706
G0 F6000 X263.14 Y31.73
G1 F2700 X263.55 Y32.07 E23.83351
G1 X264.01 Y32.32 E23.85998
G1 X264.52 Y32.47 E23.88635
G1 X265.05 Y32.52 E23.91283
G1 X265.58 Y32.47 E23.93955
G1 X266.12 Y32.30 E23.96795
G1 X266.55 Y32.07 E23.99212
G1 X266.96 Y31.73 E24.01857
G1 X267.30 Y31.32 E24.04530
G1 X267.56 Y30.81 E24.07366
G1 X267.70 Y30.35 E24.09781
G1 X267.75 Y29.82 E24.12448
G1 X267.69 Y29.25 E24.15295
G1 X267.55 Y28.79 E24.17710
G1 X267.30 Y28.32 E24.20352
G1 X266.96 Y27.91 E24.22993
G1 X266.55 Y27.57 E24.25662
G1 X266.04 Y27.31 E24.28502
G1 X265.58 Y27.17 E24.30917
G1 X265.04 Y27.12 E24.33589
G1 X264.48 Y27.18 E24.36436
G1 X264.01 Y27.32 E24.38851
G1 X263.55 Y27.57 E24.41493
G1 X263.14 Y27.91 E24.44134
G1 X262.80 Y28.32 E24.46803
G1 X262.54 Y28.83 E24.49643
G1 X262.40 Y29.29 E24.52058
G1 X262.35 Y29.83 E24.54735
G1 X262.41 Y30.39 E24.57572
G1 X262.55 Y30.85 E24.59987
G1 X262.80 Y31.32 E24.62627
G1 X263.14 Y31.73 E24.65272
G0 F6000 X262.36 Y32.51
G1 F2700 X261.88 Y31.93 E24.69015
G1 X261.53 Y31.28 E24.72709
G1 X261.32 Y30.59 E24.76316
G1 X261.31 Y30.56 E24.76451
G1 X261.25 Y29.84 E24.80035
G1 X261.24 Y29.82 E24.80186
G1 X261.31 Y29.11 E24.83730
G1 X261.31 Y29.08 E24.83891
G1 X261.52 Y28.39 E24.87446
G1 X261.88 Y27.71 E24.91316
G1 X262.36 Y27.13 E24.95056
G1 X262.94 Y26.65 E24.98788
G1 X263.57 Y26.32 E25.02352
G1 X264.28 Y26.09 E25.06094
G1 X264.31 Y26.09 E25.06230
G1 X265.02 Y26.02 E25.09813
G1 X265.05 Y26.01 E25.09964
G1 X265.76 Y26.08 E25.13513
G1 X265.79 Y26.09 E25.13678
G1 X266.48 Y26.29 E25.17228
G1 X267.14 Y26.64 E25.20972
G1 X267.16 Y26.65 E25.21108
G1 X267.74 Y27.13 E25.24834
G1 X268.22 Y27.71 E25.28573
G1 X268.57 Y28.36 E25.32283
G1 X268.77 Y29.05 E25.35880
G1 X268.78 Y29.08 E25.36015
G1 X268.85 Y29.79 E25.39595
G1 X268.86 Y29.82 E25.39730
G1 X268.79 Y30.53 E25.43300
G1 X268.78 Y30.56 E25.43455
G1 X268.58 Y31.25 E25.47011
G1 X268.57 Y31.28 E25.47183
G1 X268.22 Y31.93 E25.50877
G1 X267.74 Y32.51 E25.54620
G1 X267.16 Y32.99 E25.58356
G1 X266.53 Y33.32 E25.61921
G1 X265.82 Y33.55 E25.65662
G1 X265.79 Y33.55 E25.65798
G1 X265.07 Y33.62 E25.69387
G1 X265.05 Y33.63 E25.69528
G1 X264.34 Y33.56 E25.73082
G1 X264.30 Y33.55 E25.73247
G1 X263.62 Y33.35 E25.76797
G1 X262.96 Y33.00 E25.80542
G1 X262.94 Y32.98 E25.80678
G1 X262.36 Y32.51 E25.84407
G0 F6000 X262.07 Y32.80
;TYPE:WALL-OUTER
G1 F2700 X261.55 Y32.16 E25.88544
G1 X261.16 Y31.43 E25.92637
G1 X260.94 Y30.70 E25.96427
G1 X260.92 Y30.64 E25.96766
G1 X260.85 Y29.89 E26.00541
G1 X260.84 Y29.82 E26.00882
G1 X260.91 Y29.07 E26.04647
G1 X260.92 Y29.00 E26.05003
G1 X261.14 Y28.27 E26.08761
G1 X261.16 Y28.21 E26.09124
G1 X261.55 Y27.48 E26.13201
G1 X262.07 Y26.84 E26.17342
G1 X262.71 Y26.32 E26.21476
G1 X263.44 Y25.93 E26.25569
G1 X264.17 Y25.71 E26.29362
G1 X264.23 Y25.69 E26.29702
G1 X264.98 Y25.62 E26.33476
G1 X265.05 Y25.61 E26.33817
G1 X265.80 Y25.68 E26.37581
G1 X265.87 Y25.69 E26.37932
G1 X266.59 Y25.91 E26.41695
G1 X266.66 Y25.93 E26.42056
G1 X267.38 Y26.32 E26.46139
G1 X268.02 Y26.84 E26.50272
G1 X268.55 Y27.48 E26.54413
G1 X268.94 Y28.21 E26.58504
G1 X269.16 Y28.93 E26.62292
G1 X269.18 Y29.00 E26.62632
G1 X269.25 Y29.75 E26.66407
G1 X269.26 Y29.82 E26.66733
G1 X269.18 Y30.57 E26.70518
G1 X269.18 Y30.64 E26.70868
G1 X268.96 Y31.36 E26.74626
G1 X268.94 Y31.43 E26.74989
G1 X268.55 Y32.16 E26.79071
G1 X268.02 Y32.80 E26.83208
G1 X267.38 Y33.32 E26.87342
G1 X266.66 Y33.71 E26.91436
G1 X265.93 Y33.93 E26.95228
G1 X265.87 Y33.95 E26.95568
G1 X265.12 Y34.02 E26.99343
G1 X265.05 Y34.03 E26.99679
G1 X264.30 Y33.95 E27.03449
G1 X264.23 Y33.95 E27.03799
G1 X263.50 Y33.73 E27.07562
G1 X263.44 Y33.71 E27.07923
G1 X262.71 Y33.32 E27.12006
G1 X262.07 Y32.80 E27.16140
G0 F6000 X262.29 Y32.58
G0 X263.19 Y31.64
G0 X263.42 Y31.45
G1 F2700 X263.77 Y31.73 E27.18387
G1 X264.17 Y31.95 E27.20639
G1 X264.60 Y32.08 E27.22890
G1 X265.05 Y32.12 E27.25141
G1 X265.50 Y32.08 E27.27402
G1 X265.97 Y31.93 E27.29849
G1 X266.33 Y31.73 E27.31892
G1 X266.68 Y31.45 E27.34139
G1 X266.96 Y31.10 E27.36401
G1 X267.19 Y30.66 E27.38851
G1 X267.31 Y30.27 E27.40890
G1 X267.35 Y29.82 E27.43146
G1 X267.29 Y29.33 E27.45596
G1 X267.18 Y28.94 E27.47635
G1 X266.96 Y28.54 E27.49887
G1 X266.68 Y28.19 E27.52135
G1 X266.33 Y27.91 E27.54393
G1 X265.89 Y27.68 E27.56843
G1 X265.50 Y27.56 E27.58882
G1 X265.05 Y27.52 E27.61143
G1 X264.56 Y27.57 E27.63593
G1 X264.17 Y27.69 E27.65632
G1 X263.77 Y27.91 E27.67884
G1 X263.42 Y28.19 E27.70132
G1 X263.13 Y28.54 E27.72390
G1 X262.91 Y28.98 E27.74840
G1 X262.79 Y29.37 E27.76879
G1 X262.75 Y29.82 E27.79140
G1 X262.80 Y30.31 E27.81585
G1 X262.92 Y30.70 E27.83624
G1 X263.14 Y31.10 E27.85876
G1 X263.42 Y31.45 E27.88127
G0 F6000 X262.73 Y32.02
G0 X33.20 Y278.36
;TYPE:WALL-INNER
G1 F2700 X33.62 Y278.88 E27.91449
G1 X33.94 Y279.46 E27.94759
G1 X34.13 Y280.11 E27.98130
G1 X34.20 Y280.77 E28.01434
G1 X34.13 Y281.43 E28.04757
G1 X33.94 Y282.07 E28.08076
G1 X33.62 Y282.66 E28.11434
G1 X33.20 Y283.17 E28.14741
G1 X32.68 Y283.60 E28.18097
G1 X32.09 Y283.91 E28.21416
G1 X31.45 Y284.11 E28.24771
G1 X30.79 Y284.17 E28.28095
G1 X30.13 Y284.11 E28.31403
G1 X29.49 Y283.92 E28.34713
G1 X28.90 Y283.60 E28.38072
G1 X28.38 Y283.18 E28.41401
G1 X27.96 Y282.66 E28.44737
G1 X27.64 Y282.07 E28.48047
G1 X27.45 Y281.42 E28.51443
G1 X27.39 Y280.76 E28.54746
G1 X27.45 Y280.11 E28.58039
G1 X27.64 Y279.47 E28.61364
G1 X27.96 Y278.88 E28.64722
G1 X28.38 Y278.36 E28.68043
G1 X28.90 Y277.94 E28.71372
G1 X29.49 Y277.62 E28.74704
G1 X30.13 Y277.43 E28.78065
G1 X30.79 Y277.36 E28.81383
G1 X31.45 Y277.43 E28.84692
G1 X32.09 Y277.62 E28.88007
G1 X32.68 Y277.94 E28.91348
G1 X33.20 Y278.36 E28.94704
G0 F6000 X32.98 Y278.57
G1 F2700 X32.51 Y278.18 E28.97785
G1 X31.93 Y277.88 E29.01016
G1 X31.39 Y277.72 E29.03811
G1 X30.78 Y277.66 E29.06889
G1 X30.14 Y277.74 E29.10128
G1 X29.60 Y277.90 E29.12918
G1 X29.07 Y278.19 E29.15949
G1 X28.59 Y278.57 E29.18988
G1 X28.20 Y279.05 E29.22065
G1 X27.91 Y279.63 E29.25300
G1 X27.74 Y280.16 E29.28095
G1 X27.68 Y280.78 E29.31178
G1 X27.76 Y281.42 E29.34417
G1 X27.92 Y281.96 E29.37208
G1 X28.21 Y282.49 E29.40239
G1 X28.59 Y282.96 E29.43277
G1 X29.07 Y283.36 E29.46354
G1 X29.65 Y283.65 E29.49589
G1 X30.18 Y283.81 E29.52384
G1 X30.80 Y283.87 E29.55467
G1 X31.44 Y283.80 E29.58702
G1 X31.98 Y283.64 E29.61492
G1 X32.51 Y283.35 E29.64523
G1 X32.98 Y282.96 E29.67561
G1 X33.37 Y282.49 E29.70602
G1 X33.66 Y281.96 E29.73640
G1 X33.83 Y281.37 E29.76672
G1 X33.90 Y280.77 E29.79711
G1 X33.83 Y280.15 E29.82794
G1 X33.63 Y279.54 E29.86029
G1 X33.37 Y279.04 E29.88819
G1 X32.98 Y278.57 E29.91857
G0 F6000 X32.70 Y278.86
G1 F2700 X32.29 Y278.52 E29.94530
G1 X31.78 Y278.26 E29.97366
G1 X31.32 Y278.12 E29.99781
G1 X30.79 Y278.06 E30.02448
G1 X30.22 Y278.13 E30.05295
G1 X29.75 Y278.27 E30.07709
G1 X29.29 Y278.52 E30.10352
G1 X28.88 Y278.86 E30.12993
G1 X28.54 Y279.27 E30.15662
G1 X28.28 Y279.78 E30.18502
G1 X28.14 Y280.24 E30.20917
G1 X28.09 Y280.77 E30.23589
G1 X28.15 Y281.34 E30.26436
G1 X28.29 Y281.80 E30.28851
G1 X28.54 Y282.27 E30.31493
G1 X28.88 Y282.68 E30.34134
G1 X29.29 Y283.02 E30.36803
G1 X29.80 Y283.28 E30.39643
G1 X30.26 Y283.42 E30.42058
G1 X30.80 Y283.47 E30.44735
G1 X31.36 Y283.41 E30.47572
G1 X31.82 Y283.26 E30.49987
G1 X32.29 Y283.02 E30.52627
G1 X32.70 Y282.68 E30.55272
G1 X33.04 Y282.27 E30.57916
G1 X33.29 Y281.80 E30.60563
G1 X33.44 Y281.30 E30.63201
G1 X33.49 Y280.77 E30.65848
G1 X33.44 Y280.24 E30.68521
G1 X33.27 Y279.69 E30.71360
G1 X33.04 Y279.27 E30.73778
G1 X32.70 Y278.86 E30.76422
G0 F6000 X33.48 Y278.08
G1 F2700 X33.96 Y278.65 E30.80159
G1 X34.29 Y279.29 E30.83723
G1 X34.52 Y280.00 E30.87465
G1 X34.52 Y280.03 E30.87600
G1 X34.59 Y280.74 E30.91190
G1 X34.60 Y280.77 E30.91315
G1 X34.53 Y281.48 E30.94884
G1 X34.52 Y281.51 E30.95050
G1 X34.32 Y282.19 E30.98599
G1 X33.97 Y282.86 E31.02344
G1 X33.95 Y282.88 E31.02480
G1 X33.48 Y283.46 E31.06210
G1 X32.90 Y283.94 E31.09953
G1 X32.25 Y284.29 E31.13647
G1 X31.56 Y284.49 E31.17253
G1 X31.53 Y284.50 E31.17389
G1 X30.82 Y284.57 E31.20973
G1 X30.79 Y284.57 E31.21114
G1 X30.08 Y284.50 E31.24668
G1 X30.05 Y284.50 E31.24828
G1 X29.36 Y284.30 E31.28384
G1 X28.68 Y283.94 E31.32254
G1 X28.10 Y283.46 E31.35993
G1 X27.62 Y282.88 E31.39726
G1 X27.29 Y282.25 E31.43297
G1 X27.27 Y282.22 E31.43453
G1 X27.06 Y281.54 E31.47034
G1 X27.05 Y281.51 E31.47170
G1 X26.99 Y280.79 E31.50754
G1 X26.98 Y280.76 E31.50904
G1 X27.05 Y280.06 E31.54453
G1 X27.05 Y280.02 E31.54618
G1 X27.26 Y279.34 E31.58168
G1 X27.61 Y278.68 E31.61913
G1 X27.62 Y278.65 E31.62049
G1 X28.10 Y278.08 E31.65774
G1 X28.68 Y277.60 E31.69514
G1 X29.33 Y277.25 E31.73223
G1 X30.02 Y277.04 E31.76820
G1 X30.05 Y277.03 E31.76956
G1 X30.76 Y276.96 E31.80535
G1 X30.79 Y276.96 E31.80681
G1 X31.50 Y277.03 E31.84240
G1 X31.53 Y277.03 E31.84395
G1 X32.22 Y277.24 E31.87951
G1 X32.25 Y277.25 E31.88123
G1 X32.90 Y277.60 E31.91817
G1 X33.48 Y278.08 E31.95560
G0 F6000 X33.77 Y277.79
;TYPE:WALL-OUTER
G1 F2700 X34.29 Y278.43 E31.99694
G1 X34.68 Y279.16 E32.03788
G1 X34.90 Y279.88 E32.07581
G1 X34.92 Y279.95 E32.07920
G1 X34.99 Y280.70 E32.11695
G1 X35.00 Y280.77 E32.12026
G1 X34.92 Y281.52 E32.15801
G1 X34.92 Y281.59 E32.16152
G1 X34.70 Y282.31 E32.19914
G1 X34.68 Y282.38 E32.20276
G1 X34.29 Y283.10 E32.24358
G1 X33.77 Y283.74 E32.28492
G1 X33.12 Y284.27 E32.32629
G1 X32.40 Y284.66 E32.36722
G1 X31.67 Y284.88 E32.40511
G1 X31.61 Y284.90 E32.40851
G1 X30.86 Y284.97 E32.44626
G1 X30.79 Y284.98 E32.44962
G1 X30.04 Y284.90 E32.48732
G1 X29.97 Y284.90 E32.49087
G1 X29.25 Y284.68 E32.52845
G1 X29.18 Y284.65 E32.53208
G1 X28.45 Y284.27 E32.57286
G1 X27.81 Y283.74 E32.61427
G1 X27.29 Y283.10 E32.65560
G1 X26.90 Y282.38 E32.69654
G1 X26.68 Y281.65 E32.73447
G1 X26.66 Y281.59 E32.73786
G1 X26.59 Y280.83 E32.77561
G1 X26.58 Y280.77 E32.77902
G1 X26.65 Y280.01 E32.81666
G1 X26.66 Y279.94 E32.82017
G1 X26.88 Y279.22 E32.85780
G1 X26.90 Y279.15 E32.86141
G1 X27.29 Y278.43 E32.90223
G1 X27.81 Y277.79 E32.94357
G1 X28.45 Y277.27 E32.98498
G1 X29.18 Y276.88 E33.02589
G1 X29.91 Y276.66 E33.06377
G1 X29.97 Y276.64 E33.06716
G1 X30.72 Y276.57 E33.10491
G1 X30.79 Y276.56 E33.10832
G1 X31.54 Y276.63 E33.14602
G1 X31.61 Y276.64 E33.14953
G1 X32.33 Y276.86 E33.18711
G1 X32.40 Y276.88 E33.19074
G1 X33.12 Y277.27 E33.23156
G1 X33.77 Y277.79 E33.27293
G0 F6000 X33.55 Y278.00
G0 X32.65 Y278.95
G0 X32.42 Y279.14
G1 F2700 X32.07 Y278.85 E33.29555
G1 X31.63 Y278.63 E33.32005
G1 X31.24 Y278.51 E33.34044
G1 X30.79 Y278.47 E33.36300
G1 X30.30 Y278.52 E33.38750
G1 X29.91 Y278.64 E33.40789
G1 X29.51 Y278.86 E33.43042
G1 X29.16 Y279.14 E33.45289
G1 X28.88 Y279.49 E33.47547
G1 X28.65 Y279.93 E33.49997
G1 X28.53 Y280.32 E33.52036
G1 X28.49 Y280.77 E33.54297
G1 X28.55 Y281.26 E33.56747
G1 X28.66 Y281.65 E33.58786
G1 X28.88 Y282.05 E33.61038
G1 X29.16 Y282.39 E33.63286
G1 X29.51 Y282.68 E33.65544
G1 X29.95 Y282.91 E33.67994
G1 X30.34 Y283.02 E33.70033
G1 X30.79 Y283.07 E33.72294
G1 X31.28 Y283.01 E33.74739
G1 X31.67 Y282.89 E33.76778
G1 X32.07 Y282.68 E33.79030
G1 X32.42 Y282.39 E33.81282
G1 X32.70 Y282.05 E33.83529
G1 X32.92 Y281.65 E33.85781
G1 X33.05 Y281.22 E33.88032
G1 X33.09 Y280.77 E33.90283
G1 X33.05 Y280.32 E33.92544
G1 X32.90 Y279.85 E33.94991
G1 X32.70 Y279.49 E33.97034
G1 X32.42 Y279.14 E33.99281
G0 F6000 X33.11 Y278.57
;LAYER:1
G0 X32.98 Y278.57 Z0.50
;TYPE:WALL-INNER
G1 F3060 X32.51 Y278.19 E34.01306
G1 X31.98 Y277.90 E34.03327
G1 X31.39 Y277.72 E34.05354
G1 X30.79 Y277.66 E34.07376
G1 X30.18 Y277.72 E34.09401
G1 X29.60 Y277.90 E34.11429
G1 X29.07 Y278.19 E34.13449
G1 X28.59 Y278.57 E34.15475
G1 X28.21 Y279.04 E34.17500
G1 X27.92 Y279.58 E34.19521
G1 X27.74 Y280.16 E34.21548
G1 X27.68 Y280.77 E34.23573
G1 X27.74 Y281.37 E34.25598
G1 X27.92 Y281.96 E34.27626
G1 X28.21 Y282.49 E34.29646
G1 X28.59 Y282.96 E34.31672
G1 X29.07 Y283.35 E34.33697
G1 X29.60 Y283.64 E34.35718
G1 X30.18 Y283.81 E34.37745
G1 X30.79 Y283.87 E34.39770
G1 X31.39 Y283.81 E34.41792
G1 X31.98 Y283.64 E34.43820
G1 X32.51 Y283.35 E34.45840
G1 X32.98 Y282.96 E34.47866
G1 X33.37 Y282.49 E34.49893
G1 X33.66 Y281.96 E34.51918
G1 X33.83 Y281.37 E34.53940
G1 X33.90 Y280.77 E34.55966
G1 X33.83 Y280.16 E34.57991
G1 X33.66 Y279.58 E34.60013
G1 X33.37 Y279.04 E34.62038
G1 X32.98 Y278.57 E34.64065
G0 F6000 X33.20 Y278.36
G1 F3060 X33.62 Y278.87 E34.66280
G1 X33.94 Y279.47 E34.68518
G1 X34.11 Y280.03 E34.70483
G1 X34.13 Y280.11 E34.70744
G1 X34.20 Y280.77 E34.72950
G1 X34.13 Y281.43 E34.75173
G1 X33.96 Y282.00 E34.77130
G1 X33.94 Y282.07 E34.77383
G1 X33.62 Y282.66 E34.79621
G1 X33.20 Y283.18 E34.81836
G1 X32.69 Y283.60 E34.84040
G1 X32.16 Y283.88 E34.86022
G1 X32.09 Y283.91 E34.86268
G1 X31.52 Y284.08 E34.88248
G1 X31.45 Y284.11 E34.88509
G1 X30.79 Y284.17 E34.90711
G1 X30.13 Y284.11 E34.92930
G1 X29.56 Y283.94 E34.94891
G1 X29.49 Y283.91 E34.95155
G1 X28.96 Y283.63 E34.97123
G1 X28.90 Y283.60 E34.97364
G1 X28.38 Y283.18 E34.99596
G1 X27.96 Y282.66 E35.01805
G1 X27.64 Y282.07 E35.04043
G1 X27.47 Y281.50 E35.06009
G1 X27.45 Y281.43 E35.06270
G1 X27.39 Y280.84 E35.08228
G1 X27.39 Y280.77 E35.08479
G1 X27.44 Y280.18 E35.10447
G1 X27.45 Y280.10 E35.10697
G1 X27.62 Y279.54 E35.12654
G1 X27.64 Y279.47 E35.12908
G1 X27.96 Y278.87 E35.15146
G1 X28.38 Y278.36 E35.17356
G1 X28.90 Y277.94 E35.19575
G1 X29.42 Y277.66 E35.21550
G1 X29.49 Y277.62 E35.21795
G1 X30.05 Y277.45 E35.23772
G1 X30.13 Y277.43 E35.24033
G1 X30.79 Y277.36 E35.26239
G1 X31.45 Y277.43 E35.28455
G1 X32.02 Y277.60 E35.30415
G1 X32.09 Y277.62 E35.30672
G1 X32.62 Y277.90 E35.32654
G1 X32.68 Y277.94 E35.32894
G1 X33.20 Y278.36 E35.35115
G0 F6000 X33.48 Y278.07
G1 F3060 X33.96 Y278.65 E35.37618
G1 X34.31 Y279.31 E35.40093
G1 X34.49 Y279.92 E35.42198
G1 X34.52 Y280.03 E35.42587
G1 X34.60 Y280.77 E35.45057
G1 X34.52 Y281.51 E35.47540
G1 X34.34 Y282.11 E35.49635
G1 X34.31 Y282.23 E35.50026
G1 X33.96 Y282.88 E35.52497
G1 X33.48 Y283.46 E35.55000
G1 X32.91 Y283.93 E35.57458
G1 X32.35 Y284.23 E35.59572
G1 X32.25 Y284.29 E35.59953
G1 X31.64 Y284.47 E35.62055
G1 X31.53 Y284.50 E35.62445
G1 X30.79 Y284.57 E35.64914
G1 X30.05 Y284.50 E35.67401
G1 X29.44 Y284.32 E35.69493
G1 X29.33 Y284.28 E35.69893
G1 X28.78 Y283.99 E35.71980
G1 X28.68 Y283.94 E35.72353
G1 X28.10 Y283.46 E35.74846
G1 X27.62 Y282.88 E35.77334
G1 X27.27 Y282.23 E35.79809
G1 X27.09 Y281.62 E35.81914
G1 X27.05 Y281.51 E35.82304
G1 X26.98 Y280.77 E35.84773
G1 X27.05 Y280.02 E35.87256
G1 X27.24 Y279.42 E35.89351
G1 X27.27 Y279.31 E35.89741
G1 X27.62 Y278.65 E35.92213
G1 X28.10 Y278.08 E35.94701
G1 X28.68 Y277.60 E35.97199
G1 X29.23 Y277.31 E35.99287
G1 X29.33 Y277.25 E35.99667
G1 X29.94 Y277.07 E36.01770
G1 X30.05 Y277.03 E36.02159
G1 X30.79 Y276.96 E36.04632
G1 X31.53 Y277.03 E36.07115
G1 X32.13 Y277.22 E36.09207
G1 X32.25 Y277.25 E36.09594
G1 X32.80 Y277.55 E36.11701
G1 X32.91 Y277.60 E36.12082
G1 X33.48 Y278.07 E36.14547
G0 F6000 X32.70 Y278.86
G1 F3060 X32.29 Y278.52 E36.16310
G1 X31.82 Y278.27 E36.18070
G1 X31.32 Y278.12 E36.19833
G1 X30.79 Y278.06 E36.21594
G1 X30.26 Y278.12 E36.23359
G1 X29.75 Y278.27 E36.25121
G1 X29.29 Y278.52 E36.26883
G1 X28.88 Y278.86 E36.28643
G1 X28.54 Y279.27 E36.30404
G1 X28.29 Y279.73 E36.32166
G1 X28.14 Y280.24 E36.33928
G1 X28.09 Y280.77 E36.35693
G1 X28.14 Y281.30 E36.37457
G1 X28.29 Y281.80 E36.39220
G1 X28.54 Y282.27 E36.40981
G1 X28.88 Y282.68 E36.42742
G1 X29.29 Y283.01 E36.44502
G1 X29.75 Y283.26 E36.46264
G1 X30.26 Y283.42 E36.48027
G1 X30.79 Y283.47 E36.49791
G1 X31.32 Y283.42 E36.51553
G1 X31.82 Y283.26 E36.53315
G1 X32.29 Y283.02 E36.55075
G1 X32.70 Y282.68 E36.56838
G1 X33.04 Y282.27 E36.58601
G1 X33.29 Y281.80 E36.60366
G1 X33.44 Y281.30 E36.62124
G1 X33.49 Y280.77 E36.63889
G1 X33.44 Y280.24 E36.65654
G1 X33.29 Y279.73 E36.67412
G1 X33.04 Y279.27 E36.69177
G1 X32.70 Y278.86 E36.70940
G0 F6000 X32.42 Y279.14
;TYPE:WALL-OUTER
G1 F3060 X32.07 Y278.86 E36.72441
G1 X31.67 Y278.64 E36.73942
G1 X31.24 Y278.51 E36.75444
G1 X30.79 Y278.47 E36.76941
G1 X30.34 Y278.51 E36.78442
G1 X29.91 Y278.64 E36.79943
G1 X29.51 Y278.86 E36.81445
G1 X29.16 Y279.14 E36.82943
G1 X28.88 Y279.49 E36.84441
G1 X28.66 Y279.89 E36.85942
G1 X28.53 Y280.32 E36.87444
G1 X28.49 Y280.77 E36.88944
G1 X28.53 Y281.22 E36.90445
G1 X28.66 Y281.65 E36.91946
G1 X28.88 Y282.05 E36.93448
G1 X29.16 Y282.39 E36.94946
G1 X29.51 Y282.68 E36.96444
G1 X29.91 Y282.89 E36.97945
G1 X30.34 Y283.02 E36.99447
G1 X30.79 Y283.07 E37.00947
G1 X31.24 Y283.02 E37.02445
G1 X31.67 Y282.89 E37.03946
G1 X32.07 Y282.68 E37.05447
G1 X32.42 Y282.39 E37.06948
G1 X32.70 Y282.05 E37.08446
G1 X32.92 Y281.65 E37.09948
G1 X33.05 Y281.22 E37.11448
G1 X33.09 Y280.77 E37.12949
G1 X33.05 Y280.32 E37.14450
G1 X32.92 Y279.89 E37.15951
G1 X32.70 Y279.49 E37.17452
G1 X32.42 Y279.14 E37.18950
G0 F6000 X32.65 Y278.95
G0 X33.55 Y278.00
G0 X33.76 Y277.79
G1 F3060 X34.29 Y278.43 E37.21720
G1 X34.68 Y279.16 E37.24449
G1 X34.92 Y279.94 E37.27191
G1 X35.00 Y280.77 E37.29942
G1 X34.92 Y281.59 E37.32692
G1 X34.68 Y282.38 E37.35434
G1 X34.29 Y283.10 E37.38163
G1 X33.76 Y283.75 E37.40933
G1 X33.13 Y284.27 E37.43650
G1 X32.40 Y284.66 E37.46424
G1 X31.61 Y284.90 E37.49146
G1 X30.79 Y284.98 E37.51896
G1 X29.97 Y284.90 E37.54650
G1 X29.18 Y284.66 E37.57389
G1 X28.45 Y284.27 E37.60117
G1 X27.81 Y283.74 E37.62877
G1 X27.29 Y283.10 E37.65633
G1 X26.90 Y282.38 E37.68362
G1 X26.66 Y281.59 E37.71107
G1 X26.58 Y280.77 E37.73854
G1 X26.66 Y279.95 E37.76601
G1 X26.90 Y279.16 E37.79346
G1 X27.29 Y278.43 E37.82075
G1 X27.81 Y277.79 E37.84831
G1 X28.45 Y277.27 E37.87591
G1 X29.18 Y276.88 E37.90319
G1 X29.97 Y276.64 E37.93058
G1 X30.79 Y276.56 E37.95812
G1 X31.61 Y276.64 E37.98562
G1 X32.40 Y276.88 E38.01284
G1 X33.13 Y277.27 E38.04058
G1 X33.76 Y277.79 E38.06775
G0 F6000 X33.18 Y278.50
G0 X156.06 Y160.93
;TYPE:WALL-INNER
G1 F3060 X155.64 Y160.41 E38.08989
G1 X155.32 Y159.82 E38.11227
G1 X155.15 Y159.25 E38.13193
G1 X155.13 Y159.18 E38.13454
G1 X155.06 Y158.52 E38.15660
G1 X155.13 Y157.85 E38.17882
G1 X155.30 Y157.29 E38.19839
G1 X155.32 Y157.22 E38.20093
G1 X155.64 Y156.62 E38.22331
G1 X156.06 Y156.11 E38.24545
G1 X156.57 Y155.69 E38.26750
G1 X157.10 Y155.41 E38.28732
G1 X157.16 Y155.37 E38.28977
G1 X157.73 Y155.20 E38.30958
G1 X157.81 Y155.18 E38.31219
G1 X158.47 Y155.11 E38.33421
G1 X159.13 Y155.18 E38.35640
G1 X159.69 Y155.35 E38.37600
G1 X159.77 Y155.37 E38.37864
G1 X160.29 Y155.65 E38.39833
G1 X160.36 Y155.69 E38.40074
G1 X160.88 Y156.11 E38.42305
G1 X161.30 Y156.62 E38.44515
G1 X161.62 Y157.22 E38.46753
G1 X161.78 Y157.78 E38.48719
G1 X161.81 Y157.86 E38.48980
G1 X161.87 Y158.44 E38.50938
G1 X161.87 Y158.52 E38.51188
G1 X161.81 Y159.11 E38.53156
G1 X161.81 Y159.18 E38.53407
G1 X161.64 Y159.75 E38.55364
G1 X161.62 Y159.82 E38.55618
G1 X161.30 Y160.41 E38.57856
G1 X160.88 Y160.93 E38.60065
G1 X160.36 Y161.35 E38.62285
G1 X159.84 Y161.63 E38.64259
G1 X159.77 Y161.66 E38.64505
G1 X159.20 Y161.84 E38.66482
G1 X159.13 Y161.86 E38.66743
G1 X158.47 Y161.92 E38.68948
G1 X157.80 Y161.86 E38.71164
G1 X157.24 Y161.69 E38.73124
G1 X157.17 Y161.66 E38.73382
G1 X156.64 Y161.38 E38.75364
G1 X156.58 Y161.35 E38.75604
G1 X156.06 Y160.93 E38.77825
G0 F6000 X156.27 Y160.71
G1 F3060 X156.74 Y161.10 E38.79850
G1 X157.28 Y161.39 E38.81871
G1 X157.86 Y161.56 E38.83898
G1 X158.47 Y161.62 E38.85920
G1 X159.07 Y161.56 E38.87945
G1 X159.66 Y161.39 E38.89973
G1 X160.19 Y161.10 E38.91993
G1 X160.66 Y160.71 E38.94019
G1 X161.05 Y160.24 E38.96044
G1 X161.34 Y159.71 E38.98065
G1 X161.51 Y159.12 E39.00092
G1 X161.57 Y158.52 E39.02117
G1 X161.51 Y157.91 E39.04142
G1 X161.34 Y157.33 E39.06170
G1 X161.05 Y156.79 E39.08190
G1 X160.66 Y156.32 E39.10216
G1 X160.19 Y155.94 E39.12241
G1 X159.66 Y155.65 E39.14262
G1 X159.07 Y155.47 E39.16289
G1 X158.47 Y155.41 E39.18314
G1 X157.86 Y155.47 E39.20336
G1 X157.28 Y155.65 E39.22364
G1 X156.74 Y155.94 E39.24384
G1 X156.27 Y156.32 E39.26410
G1 X155.88 Y156.79 E39.28437
G1 X155.60 Y157.33 E39.30462
G1 X155.42 Y157.91 E39.32484
G1 X155.36 Y158.52 E39.34510
G1 X155.42 Y159.12 E39.36535
G1 X155.60 Y159.71 E39.38557
G1 X155.88 Y160.24 E39.40582
G1 X156.27 Y160.71 E39.42609
G0 F6000 X156.56 Y160.43
G1 F3060 X156.97 Y160.77 E39.44372
G1 X157.43 Y161.01 E39.46133
G1 X157.94 Y161.17 E39.47895
G1 X158.47 Y161.22 E39.49656
G1 X159.00 Y161.17 E39.51421
G1 X159.50 Y161.01 E39.53183
G1 X159.97 Y160.76 E39.54945
G1 X160.38 Y160.43 E39.56706
G1 X160.71 Y160.02 E39.58466
G1 X160.96 Y159.55 E39.60228
G1 X161.12 Y159.05 E39.61990
G1 X161.17 Y158.52 E39.63755
G1 X161.12 Y157.99 E39.65520
G1 X160.96 Y157.48 E39.67282
G1 X160.71 Y157.02 E39.69044
G1 X160.38 Y156.61 E39.70804
G1 X159.97 Y156.27 E39.72565
G1 X159.50 Y156.02 E39.74327
G1 X159.00 Y155.87 E39.76089
G1 X158.47 Y155.81 E39.77854
G1 X157.94 Y155.87 E39.79615
G1 X157.43 Y156.02 E39.81377
G1 X156.97 Y156.27 E39.83138
G1 X156.56 Y156.61 E39.84901
G1 X156.22 Y157.02 E39.86664
G1 X155.97 Y157.48 E39.88429
G1 X155.82 Y157.99 E39.90187
G1 X155.76 Y158.52 E39.91952
G1 X155.82 Y159.05 E39.93717
G1 X155.97 Y159.55 E39.95475
G1 X156.22 Y160.02 E39.97240
G1 X156.56 Y160.43 E39.99003
G0 F6000 X155.78 Y161.21
G1 F3060 X155.30 Y160.63 E40.01506
G1 X154.95 Y159.97 E40.03980
G1 X154.77 Y159.37 E40.06086
G1 X154.73 Y159.26 E40.06475
G1 X154.66 Y158.52 E40.08945
G1 X154.73 Y157.78 E40.11428
G1 X154.91 Y157.17 E40.13523
G1 X154.95 Y157.06 E40.13913
G1 X155.30 Y156.41 E40.16385
G1 X155.78 Y155.82 E40.18888
G1 X156.35 Y155.35 E40.21345
G1 X156.91 Y155.06 E40.23460
G1 X157.01 Y155.00 E40.23840
G1 X157.62 Y154.82 E40.25943
G1 X157.73 Y154.78 E40.26332
G1 X158.47 Y154.71 E40.28802
G1 X159.21 Y154.78 E40.31288
G1 X159.81 Y154.97 E40.33380
G1 X159.93 Y155.00 E40.33781
G1 X160.48 Y155.30 E40.35867
G1 X160.58 Y155.35 E40.36241
G1 X161.16 Y155.83 E40.38734
G1 X161.63 Y156.41 E40.41222
G1 X161.99 Y157.06 E40.43696
G1 X162.17 Y157.67 E40.45802
G1 X162.20 Y157.78 E40.46191
G1 X162.27 Y158.52 E40.48661
G1 X162.20 Y159.26 E40.51144
G1 X162.02 Y159.86 E40.53239
G1 X161.99 Y159.98 E40.53629
G1 X161.63 Y160.63 E40.56100
G1 X161.16 Y161.21 E40.58589
G1 X160.58 Y161.69 E40.61086
G1 X160.03 Y161.98 E40.63174
G1 X159.92 Y162.03 E40.63555
G1 X159.32 Y162.22 E40.65657
G1 X159.21 Y162.25 E40.66047
G1 X158.47 Y162.32 E40.68520
G1 X157.72 Y162.25 E40.71003
G1 X157.12 Y162.07 E40.73095
G1 X157.01 Y162.03 E40.73482
G1 X156.45 Y161.74 E40.75589
G1 X156.35 Y161.68 E40.75970
G1 X155.78 Y161.21 E40.78434
G0 F6000 X155.49 Y161.50
;TYPE:WALL-OUTER
G1 F3060 X154.97 Y160.85 E40.81204
G1 X154.58 Y160.13 E40.83933
G1 X154.34 Y159.34 E40.86675
G1 X154.26 Y158.52 E40.89426
G1 X154.34 Y157.69 E40.92176
G1 X154.58 Y156.91 E40.94918
G1 X154.97 Y156.18 E40.97648
G1 X155.49 Y155.54 E41.00417
G1 X156.12 Y155.02 E41.03135
G1 X156.86 Y154.63 E41.05908
G1 X157.64 Y154.39 E41.08630
G1 X158.47 Y154.31 E41.11381
G1 X159.29 Y154.39 E41.14135
G1 X160.08 Y154.63 E41.16873
G1 X160.80 Y155.02 E41.19601
G1 X161.44 Y155.54 E41.22361
G1 X161.97 Y156.18 E41.25117
G1 X162.36 Y156.91 E41.27846
G1 X162.60 Y157.70 E41.30591
G1 X162.68 Y158.52 E41.33338
G1 X162.60 Y159.34 E41.36085
G1 X162.36 Y160.13 E41.38830
G1 X161.97 Y160.85 E41.41559
G1 X161.44 Y161.49 E41.44315
G1 X160.80 Y162.02 E41.47076
G1 X160.08 Y162.41 E41.49803
G1 X159.29 Y162.65 E41.52542
G1 X158.47 Y162.73 E41.55296
G1 X157.64 Y162.65 E41.58046
G1 X156.86 Y162.41 E41.60768
G1 X156.12 Y162.02 E41.63542
G1 X155.49 Y161.50 E41.66259
G0 F6000 X155.70 Y161.28
G0 X156.61 Y160.33
G0 X156.84 Y160.15
G1 F3060 X157.19 Y160.43 E41.67760
G1 X157.59 Y160.64 E41.69261
G1 X158.02 Y160.78 E41.70763
G1 X158.47 Y160.82 E41.72260
G1 X158.92 Y160.78 E41.73761
G1 X159.35 Y160.64 E41.75262
G1 X159.75 Y160.43 E41.76764
G1 X160.09 Y160.15 E41.78262
G1 X160.38 Y159.80 E41.79760
G1 X160.59 Y159.40 E41.81261
G1 X160.72 Y158.97 E41.82763
G1 X160.77 Y158.52 E41.84263
G1 X160.72 Y158.07 E41.85764
G1 X160.59 Y157.64 E41.87265
G1 X160.38 Y157.24 E41.88767
G1 X160.09 Y156.89 E41.90265
G1 X159.75 Y156.60 E41.91763
G1 X159.35 Y156.39 E41.93264
G1 X158.92 Y156.26 E41.94766
G1 X158.47 Y156.22 E41.96266
G1 X158.02 Y156.26 E41.97764
G1 X157.59 Y156.39 E41.99265
G1 X157.19 Y156.60 E42.00766
G1 X156.84 Y156.89 E42.02267
G1 X156.55 Y157.24 E42.03765
G1 X156.34 Y157.64 E42.05267
G1 X156.21 Y158.07 E42.06767
G1 X156.17 Y158.52 E42.08268
G1 X156.21 Y158.97 E42.09769
G1 X156.34 Y159.40 E42.11270
G1 X156.55 Y159.80 E42.12771
G1 X156.84 Y160.15 E42.14269
G0 F6000 X156.15 Y160.72
G0 X49.50 Y42.78
;TYPE:WALL-INNER
G1 F3060 X48.98 Y43.21 E42.16486
G1 X48.46 Y43.48 E42.18460
G1 X48.40 Y43.52 E42.18710
G1 X47.83 Y43.69 E42.20683
G1 X47.75 Y43.72 E42.20944
G1 X47.09 Y43.78 E42.23150
G1 X46.43 Y43.72 E42.25372
G1 X45.86 Y43.54 E42.27329
G1 X45.79 Y43.52 E42.27593
G1 X45.27 Y43.24 E42.29562
G1 X45.20 Y43.21 E42.29806
G1 X44.68 Y42.78 E42.32032
G1 X44.26 Y42.27 E42.34249
G1 X43.98 Y41.74 E42.36223
G1 X43.95 Y41.68 E42.36473
G1 X43.77 Y41.11 E42.38446
G1 X43.75 Y41.03 E42.38707
G1 X43.69 Y40.38 E42.40913
G1 X43.75 Y39.71 E42.43128
G1 X43.92 Y39.15 E42.45089
G1 X43.95 Y39.07 E42.45346
G1 X44.23 Y38.55 E42.47328
G1 X44.26 Y38.48 E42.47568
G1 X44.68 Y37.97 E42.49794
G1 X45.20 Y37.54 E42.52010
G1 X45.72 Y37.27 E42.53985
G1 X45.79 Y37.23 E42.54235
G1 X46.36 Y37.06 E42.56208
G1 X46.43 Y37.03 E42.56469
G1 X47.09 Y36.97 E42.58675
G1 X47.76 Y37.03 E42.60897
G1 X48.32 Y37.21 E42.62854
G1 X48.40 Y37.23 E42.63118
G1 X48.92 Y37.51 E42.65087
G1 X48.98 Y37.54 E42.65331
G1 X49.50 Y37.97 E42.67557
G1 X49.92 Y38.48 E42.69766
G1 X50.20 Y39.01 E42.71748
G1 X50.24 Y39.07 E42.71993
G1 X50.41 Y39.64 E42.73974
G1 X50.43 Y39.72 E42.74235
G1 X50.50 Y40.38 E42.76437
G1 X50.43 Y41.04 E42.78659
G1 X50.26 Y41.60 E42.80616
G1 X50.24 Y41.68 E42.80880
G1 X49.96 Y42.20 E42.82845
G1 X49.92 Y42.27 E42.83093
G1 X49.50 Y42.78 E42.85319
G0 F6000 X49.29 Y42.57
G1 F3060 X49.67 Y42.10 E42.87344
G1 X49.96 Y41.56 E42.89365
G1 X50.14 Y40.98 E42.91393
G1 X50.20 Y40.38 E42.93418
G1 X50.14 Y39.77 E42.95446
G1 X49.96 Y39.19 E42.97467
G1 X49.67 Y38.65 E42.99491
G1 X49.29 Y38.18 E43.01516
G1 X48.82 Y37.79 E43.03542
G1 X48.28 Y37.51 E43.05562
G1 X47.70 Y37.33 E43.07590
G1 X47.09 Y37.27 E43.09615
G1 X46.49 Y37.33 E43.11640
G1 X45.90 Y37.51 E43.13667
G1 X45.37 Y37.79 E43.15688
G1 X44.90 Y38.18 E43.17713
G1 X44.51 Y38.65 E43.19739
G1 X44.22 Y39.19 E43.21762
G1 X44.05 Y39.77 E43.23783
G1 X43.99 Y40.38 E43.25812
G1 X44.05 Y40.98 E43.27837
G1 X44.22 Y41.56 E43.29864
G1 X44.51 Y42.10 E43.31885
G1 X44.90 Y42.57 E43.33910
G1 X45.37 Y42.96 E43.35936
G1 X45.90 Y43.24 E43.37956
G1 X46.49 Y43.42 E43.39984
G1 X47.09 Y43.48 E43.42009
G1 X47.70 Y43.42 E43.44034
G1 X48.28 Y43.24 E43.46062
G1 X48.82 Y42.96 E43.48082
G1 X49.29 Y42.57 E43.50108
G0 F6000 X49.00 Y42.29
G1 F3060 X49.34 Y41.88 E43.51868
G1 X49.59 Y41.41 E43.53630
G1 X49.74 Y40.90 E43.55392
G1 X49.80 Y40.38 E43.57157
G1 X49.74 Y39.85 E43.58922
G1 X49.59 Y39.34 E43.60681
G1 X49.34 Y38.87 E43.62444
G1 X49.00 Y38.46 E43.64207
G1 X48.59 Y38.13 E43.65967
G1 X48.13 Y37.88 E43.67729
G1 X47.62 Y37.72 E43.69491
G1 X47.09 Y37.67 E43.71256
G1 X46.56 Y37.72 E43.73020
G1 X46.06 Y37.88 E43.74783
G1 X45.59 Y38.13 E43.76545
G1 X45.18 Y38.46 E43.78305
G1 X44.84 Y38.87 E43.80068
G1 X44.59 Y39.34 E43.81831
G1 X44.44 Y39.85 E43.83590
G1 X44.39 Y40.38 E43.85355
G1 X44.44 Y40.90 E43.87119
G1 X44.59 Y41.41 E43.88882
G1 X44.84 Y41.88 E43.90644
G1 X45.18 Y42.29 E43.92404
G1 X45.59 Y42.62 E43.94165
G1 X46.06 Y42.87 E43.95926
G1 X46.56 Y43.03 E43.97689
G1 X47.09 Y43.08 E43.99453
G1 X47.62 Y43.03 E44.01218
G1 X48.13 Y42.87 E44.02980
G1 X48.59 Y42.62 E44.04742
G1 X49.00 Y42.29 E44.06503
G0 F6000 X49.78 Y43.07
G1 F3060 X49.21 Y43.54 E44.08986
G1 X48.65 Y43.84 E44.11086
G1 X48.55 Y43.89 E44.11467
G1 X47.94 Y44.08 E44.13572
G1 X47.83 Y44.11 E44.13962
G1 X47.09 Y44.18 E44.16431
G1 X46.35 Y44.11 E44.18915
G1 X45.75 Y43.93 E44.21010
G1 X45.63 Y43.89 E44.21410
G1 X45.08 Y43.59 E44.23497
G1 X44.98 Y43.54 E44.23882
G1 X44.40 Y43.07 E44.26361
G1 X43.93 Y42.49 E44.28845
G1 X43.63 Y41.93 E44.30944
G1 X43.58 Y41.83 E44.31325
G1 X43.39 Y41.23 E44.33430
G1 X43.36 Y41.11 E44.33820
G1 X43.28 Y40.38 E44.36290
G1 X43.36 Y39.63 E44.38773
G1 X43.54 Y39.03 E44.40865
G1 X43.58 Y38.92 E44.41252
G1 X43.87 Y38.36 E44.43354
G1 X43.93 Y38.26 E44.43739
G1 X44.40 Y37.68 E44.46218
G1 X44.98 Y37.21 E44.48702
G1 X45.53 Y36.91 E44.50802
G1 X45.63 Y36.86 E44.51182
G1 X46.24 Y36.67 E44.53288
G1 X46.35 Y36.64 E44.53677
G1 X47.09 Y36.57 E44.56147
G1 X47.84 Y36.64 E44.58630
G1 X48.44 Y36.82 E44.60725
G1 X48.55 Y36.86 E44.61126
G1 X49.11 Y37.16 E44.63212
G1 X49.21 Y37.21 E44.63598
G1 X49.78 Y37.68 E44.66077
G1 X50.26 Y38.26 E44.68548
G1 X50.55 Y38.82 E44.70663
G1 X50.61 Y38.92 E44.71044
G1 X50.79 Y39.52 E44.73146
G1 X50.83 Y39.64 E44.73535
G1 X50.90 Y40.38 E44.76005
G1 X50.83 Y41.12 E44.78488
G1 X50.64 Y41.72 E44.80583
G1 X50.61 Y41.84 E44.80984
G1 X50.31 Y42.39 E44.83070
G1 X50.26 Y42.49 E44.83456
G1 X49.78 Y43.07 E44.85934
G0 F6000 X50.07 Y43.35
;TYPE:WALL-OUTER
G1 F3060 X49.43 Y43.88 E44.88683
G1 X48.70 Y44.26 E44.91420
G1 X47.91 Y44.50 E44.94162
G1 X47.09 Y44.58 E44.96913
G1 X46.27 Y44.50 E44.99664
G1 X45.48 Y44.26 E45.02405
G1 X44.75 Y43.88 E45.05143
G1 X44.12 Y43.35 E45.07891
G1 X43.59 Y42.71 E45.10640
G1 X43.20 Y41.99 E45.13377
G1 X42.96 Y41.20 E45.16119
G1 X42.88 Y40.38 E45.18870
G1 X42.96 Y39.55 E45.21620
G1 X43.20 Y38.77 E45.24342
G1 X43.59 Y38.03 E45.27116
G1 X44.12 Y37.40 E45.29847
G1 X44.75 Y36.87 E45.32595
G1 X45.48 Y36.49 E45.35333
G1 X46.27 Y36.25 E45.38075
G1 X47.09 Y36.17 E45.40826
G1 X47.91 Y36.25 E45.43576
G1 X48.70 Y36.49 E45.46318
G1 X49.43 Y36.87 E45.49056
G1 X50.07 Y37.40 E45.51804
G1 X50.59 Y38.03 E45.54536
G1 X50.98 Y38.77 E45.57309
G1 X51.22 Y39.55 E45.60031
G1 X51.30 Y40.38 E45.62782
G1 X51.22 Y41.20 E45.65532
G1 X50.98 Y41.99 E45.68274
G1 X50.59 Y42.71 E45.71012
G1 X50.07 Y43.35 E45.73760
G0 F6000 X49.86 Y43.14
G0 X48.91 Y42.23
G0 X48.72 Y42.00
G1 F3060 X49.01 Y41.65 E45.75258
G1 X49.22 Y41.26 E45.76760
G1 X49.35 Y40.82 E45.78261
G1 X49.39 Y40.38 E45.79762
G1 X49.35 Y39.93 E45.81262
G1 X49.22 Y39.49 E45.82761
G1 X49.01 Y39.10 E45.84265
G1 X48.72 Y38.75 E45.85763
G1 X48.37 Y38.46 E45.87261
G1 X47.97 Y38.25 E45.88763
G1 X47.54 Y38.12 E45.90264
G1 X47.09 Y38.07 E45.91765
G1 X46.64 Y38.12 E45.93265
G1 X46.21 Y38.25 E45.94767
G1 X45.81 Y38.46 E45.96268
G1 X45.47 Y38.75 E45.97766
G1 X45.18 Y39.10 E45.99264
G1 X44.97 Y39.49 E46.00769
G1 X44.84 Y39.93 E46.02267
G1 X44.79 Y40.38 E46.03768
G1 X44.84 Y40.82 E46.05268
G1 X44.97 Y41.26 E46.06770
G1 X45.18 Y41.65 E46.08271
G1 X45.47 Y42.00 E46.09769
G1 X45.81 Y42.29 E46.11267
G1 X46.21 Y42.50 E46.12769
G1 X46.64 Y42.63 E46.14270
G1 X47.09 Y42.68 E46.15771
G1 X47.54 Y42.63 E46.17271
G1 X47.97 Y42.50 E46.18773
G1 X48.37 Y42.29 E46.20274
G1 X48.72 Y42.00 E46.21772
G0 F6000 X49.29 Y42.70
G0 X261.64 Y29.82
;TYPE:WALL-INNER
G1 F3060 X261.71 Y29.16 E46.23991
G1 X261.88 Y28.59 E46.25952
G1 X261.90 Y28.52 E46.26216
G1 X262.18 Y28.00 E46.28180
G1 X262.22 Y27.93 E46.28425
G1 X262.64 Y27.41 E46.30656
G1 X263.15 Y26.99 E46.32866
G1 X263.75 Y26.67 E46.35104
G1 X264.31 Y26.50 E46.37070
G1 X264.39 Y26.48 E46.37331
G1 X264.98 Y26.42 E46.39289
G1 X265.05 Y26.41 E46.39540
G1 X265.64 Y26.47 E46.41508
G1 X265.71 Y26.48 E46.41758
G1 X266.28 Y26.65 E46.43715
G1 X266.35 Y26.67 E46.43969
G1 X266.94 Y26.99 E46.46207
G1 X267.46 Y27.41 E46.48417
G1 X267.88 Y27.93 E46.50636
G1 X268.16 Y28.45 E46.52610
G1 X268.19 Y28.52 E46.52856
G1 X268.37 Y29.09 E46.54833
G1 X268.39 Y29.16 E46.55094
G1 X268.45 Y29.82 E46.57300
G1 X268.39 Y30.48 E46.59515
G1 X268.22 Y31.05 E46.61476
G1 X268.19 Y31.12 E46.61733
G1 X267.92 Y31.65 E46.63715
G1 X267.88 Y31.71 E46.63955
G1 X267.46 Y32.23 E46.66176
G1 X266.94 Y32.65 E46.68391
G1 X266.35 Y32.97 E46.70629
G1 X265.78 Y33.14 E46.72594
G1 X265.71 Y33.16 E46.72855
G1 X265.05 Y33.23 E46.75061
G1 X264.38 Y33.16 E46.77283
G1 X263.82 Y32.99 E46.79240
G1 X263.75 Y32.97 E46.79494
G1 X263.15 Y32.65 E46.81732
G1 X262.64 Y32.23 E46.83946
G1 X262.22 Y31.71 E46.86151
G1 X261.94 Y31.19 E46.88133
G1 X261.90 Y31.12 E46.88379
G1 X261.73 Y30.55 E46.90359
G1 X261.71 Y30.48 E46.90620
G1 X261.64 Y29.82 E46.92822
G0 F6000 X261.94 Y29.82
G1 F3060 X262.00 Y30.43 E46.94844
G1 X262.18 Y31.01 E46.96871
G1 X262.47 Y31.54 E46.98892
G1 X262.85 Y32.02 E47.00917
G1 X263.32 Y32.40 E47.02945
G1 X263.86 Y32.69 E47.04970
G1 X264.44 Y32.86 E47.06991
G1 X265.05 Y32.92 E47.09017
G1 X265.65 Y32.86 E47.11043
G1 X266.24 Y32.69 E47.13064
G1 X266.77 Y32.40 E47.15089
G1 X267.25 Y32.02 E47.17117
G1 X267.63 Y31.54 E47.19142
G1 X267.92 Y31.01 E47.21163
G1 X268.10 Y30.43 E47.23191
G1 X268.15 Y29.82 E47.25212
G1 X268.10 Y29.21 E47.27237
G1 X267.92 Y28.63 E47.29265
G1 X267.63 Y28.09 E47.31285
G1 X267.25 Y27.62 E47.33311
G1 X266.77 Y27.24 E47.35336
G1 X266.24 Y26.95 E47.37357
G1 X265.65 Y26.77 E47.39384
G1 X265.05 Y26.71 E47.41410
G1 X264.44 Y26.77 E47.43435
G1 X263.86 Y26.95 E47.45462
G1 X263.32 Y27.24 E47.47483
G1 X262.85 Y27.62 E47.49508
G1 X262.47 Y28.09 E47.51534
G1 X262.18 Y28.63 E47.53554
G1 X262.00 Y29.21 E47.55582
G1 X261.94 Y29.82 E47.57607
G0 F6000 X262.35 Y29.82
G1 F3060 X262.40 Y30.35 E47.59368
G1 X262.55 Y30.85 E47.61130
G1 X262.80 Y31.32 E47.62891
G1 X263.14 Y31.73 E47.64654
G1 X263.55 Y32.07 E47.66417
G1 X264.01 Y32.32 E47.68182
G1 X264.52 Y32.47 E47.69940
G1 X265.05 Y32.52 E47.71705
G1 X265.58 Y32.47 E47.73470
G1 X266.08 Y32.32 E47.75228
G1 X266.55 Y32.07 E47.76993
G1 X266.96 Y31.73 E47.78756
G1 X267.30 Y31.32 E47.80519
G1 X267.55 Y30.85 E47.82279
G1 X267.70 Y30.35 E47.84041
G1 X267.75 Y29.82 E47.85803
G1 X267.70 Y29.29 E47.87567
G1 X267.55 Y28.79 E47.89330
G1 X267.30 Y28.32 E47.91092
G1 X266.96 Y27.91 E47.92852
G1 X266.55 Y27.57 E47.94613
G1 X266.08 Y27.32 E47.96374
G1 X265.58 Y27.17 E47.98137
G1 X265.05 Y27.12 E47.99901
G1 X264.52 Y27.17 E48.01666
G1 X264.01 Y27.32 E48.03428
G1 X263.55 Y27.57 E48.05190
G1 X263.14 Y27.91 E48.06951
G1 X262.80 Y28.32 E48.08711
G1 X262.55 Y28.79 E48.10473
G1 X262.40 Y29.29 E48.12235
G1 X262.35 Y29.82 E48.14000
G0 F6000 X261.24 Y29.82
G1 F3060 X261.31 Y29.08 E48.16486
G1 X261.50 Y28.47 E48.18578
G1 X261.53 Y28.36 E48.18979
G1 X261.83 Y27.81 E48.21065
G1 X261.88 Y27.71 E48.21439
G1 X262.36 Y27.13 E48.23932
G1 X262.94 Y26.65 E48.26420
G1 X263.59 Y26.30 E48.28895
G1 X264.20 Y26.12 E48.31000
G1 X264.31 Y26.09 E48.31389
G1 X265.05 Y26.01 E48.33859
G1 X265.79 Y26.09 E48.36342
G1 X266.39 Y26.27 E48.38437
G1 X266.51 Y26.30 E48.38827
G1 X267.16 Y26.65 E48.41299
G1 X267.74 Y27.13 E48.43787
G1 X268.22 Y27.71 E48.46285
G1 X268.51 Y28.26 E48.48372
G1 X268.57 Y28.36 E48.48753
G1 X268.75 Y28.97 E48.50855
G1 X268.78 Y29.08 E48.51245
G1 X268.86 Y29.82 E48.53718
G1 X268.78 Y30.56 E48.56201
G1 X268.60 Y31.16 E48.58293
G1 X268.57 Y31.28 E48.58680
G1 X268.27 Y31.83 E48.60782
G1 X268.21 Y31.94 E48.61168
G1 X267.74 Y32.51 E48.63633
G1 X267.16 Y32.99 E48.66135
G1 X266.51 Y33.34 E48.68610
G1 X265.90 Y33.52 E48.70715
G1 X265.79 Y33.55 E48.71105
G1 X265.05 Y33.63 E48.73575
G1 X264.31 Y33.55 E48.76058
G1 X263.70 Y33.37 E48.78153
G1 X263.59 Y33.34 E48.78543
G1 X262.94 Y32.99 E48.81015
G1 X262.35 Y32.51 E48.83517
G1 X261.88 Y31.94 E48.85975
G1 X261.59 Y31.38 E48.88089
G1 X261.53 Y31.28 E48.88470
G1 X261.35 Y30.67 E48.90573
G1 X261.31 Y30.56 E48.90962
G1 X261.24 Y29.82 E48.93432
G0 F6000 X260.84 Y29.82
;TYPE:WALL-OUTER
G1 F3060 X260.92 Y29.00 E48.96186
G1 X261.16 Y28.21 E48.98924
G1 X261.55 Y27.48 E49.01652
G1 X262.07 Y26.84 E49.04412
G1 X262.71 Y26.32 E49.07168
G1 X263.44 Y25.93 E49.09897
G1 X264.23 Y25.69 E49.12643
G1 X265.05 Y25.61 E49.15389
G1 X265.87 Y25.69 E49.18136
G1 X266.66 Y25.93 E49.20881
G1 X267.38 Y26.32 E49.23611
G1 X268.02 Y26.84 E49.26366
G1 X268.55 Y27.48 E49.29127
G1 X268.94 Y28.21 E49.31854
G1 X269.18 Y29.00 E49.34593
G1 X269.26 Y29.82 E49.37347
G1 X269.18 Y30.64 E49.40098
G1 X268.94 Y31.43 E49.42819
G1 X268.55 Y32.16 E49.45593
G1 X268.03 Y32.79 E49.48310
G1 X267.38 Y33.32 E49.51080
G1 X266.66 Y33.71 E49.53809
G1 X265.87 Y33.95 E49.56551
G1 X265.05 Y34.03 E49.59302
G1 X264.23 Y33.95 E49.62052
G1 X263.44 Y33.71 E49.64794
G1 X262.71 Y33.32 E49.67523
G1 X262.07 Y32.79 E49.70293
G1 X261.55 Y32.16 E49.73011
G1 X261.16 Y31.43 E49.75784
G1 X260.92 Y30.64 E49.78506
G1 X260.84 Y29.82 E49.81257
G0 F6000 X261.14 Y29.82
G0 X262.45 Y29.79
G0 X262.75 Y29.82
G1 F3060 X262.79 Y30.27 E49.82754
G1 X262.92 Y30.70 E49.84255
G1 X263.14 Y31.10 E49.85757
G1 X263.42 Y31.45 E49.87258
G1 X263.77 Y31.73 E49.88756
G1 X264.17 Y31.95 E49.90257
G1 X264.60 Y32.08 E49.91758
G1 X265.05 Y32.12 E49.93258
G1 X265.50 Y32.08 E49.94759
G1 X265.93 Y31.95 E49.96260
G1 X266.33 Y31.73 E49.97761
G1 X266.68 Y31.45 E49.99259
G1 X266.96 Y31.10 E50.00760
G1 X267.18 Y30.70 E50.02262
G1 X267.31 Y30.27 E50.03763
G1 X267.35 Y29.82 E50.05260
G1 X267.31 Y29.37 E50.06761
G1 X267.18 Y28.94 E50.08262
G1 X266.96 Y28.54 E50.09764
G1 X266.68 Y28.19 E50.11262
G1 X266.33 Y27.91 E50.12760
G1 X265.93 Y27.69 E50.14261
G1 X265.50 Y27.56 E50.15763
G1 X265.05 Y27.52 E50.17263
G1 X264.60 Y27.56 E50.18764
G1 X264.17 Y27.69 E50.20265
G1 X263.77 Y27.91 E50.21767
G1 X263.42 Y28.19 E50.23265
G1 X263.14 Y28.54 E50.24763
G1 X262.92 Y28.94 E50.26264
G1 X262.79 Y29.37 E50.27766
G1 X262.75 Y29.82 E50.29266
G0 F6000 X261.85 Y29.73
;LAYER:2
G0 X261.94 Y29.82 Z0.70
;TYPE:WALL-INNER
G1 F3120 X262.00 Y30.43 E50.31288
G1 X262.18 Y31.01 E50.33316
G1 X262.47 Y31.54 E50.35336
G1 X262.85 Y32.02 E50.37362
G1 X263.32 Y32.40 E50.39389
G1 X263.86 Y32.69 E50.41414
G1 X264.44 Y32.86 E50.43436
G1 X265.05 Y32.92 E50.45462
G1 X265.65 Y32.86 E50.47487
G1 X266.24 Y32.69 E50.49509
G1 X266.77 Y32.40 E50.51534
G1 X267.25 Y32.02 E50.53561
G1 X267.63 Y31.54 E50.55587
G1 X267.92 Y31.01 E50.57607
G1 X268.10 Y30.43 E50.59635
G1 X268.15 Y29.82 E50.61657
G1 X268.10 Y29.21 E50.63682
G1 X267.92 Y28.63 E50.65709
G1 X267.63 Y28.09 E50.67730
G1 X267.25 Y27.62 E50.69755
G1 X266.77 Y27.24 E50.71781
G1 X266.24 Y26.95 E50.73801
G1 X265.65 Y26.77 E50.75829
G1 X265.05 Y26.71 E50.77854
G1 X264.44 Y26.77 E50.79879
G1 X263.86 Y26.95 E50.81906
G1 X263.32 Y27.24 E50.83927
G1 X262.85 Y27.62 E50.85952
G1 X262.47 Y28.09 E50.87978
G1 X262.18 Y28.63 E50.89998
G1 X262.00 Y29.21 E50.92026
G1 X261.94 Y29.82 E50.94051
G0 F6000 X261.64 Y29.82
G1 F3120 X261.69 Y29.32 E50.95722
G1 X261.71 Y29.16 E50.96267
G1 X261.86 Y28.67 E50.97942
G1 X261.90 Y28.52 E50.98474
G1 X262.14 Y28.07 E51.00161
G1 X262.22 Y27.93 E51.00705
G1 X262.64 Y27.41 E51.02928
G1 X263.15 Y26.99 E51.05138
G1 X263.60 Y26.75 E51.06833
G1 X263.75 Y26.67 E51.07369
G1 X264.23 Y26.53 E51.09053
G1 X264.39 Y26.48 E51.09593
G1 X264.89 Y26.43 E51.11274
G1 X265.05 Y26.41 E51.11822
G1 X265.55 Y26.46 E51.13486
G1 X265.71 Y26.48 E51.14031
G1 X266.20 Y26.62 E51.15706
G1 X266.35 Y26.67 E51.16234
G1 X266.80 Y26.91 E51.17932
G1 X266.94 Y26.99 E51.18470
G1 X267.46 Y27.41 E51.20689
G1 X267.88 Y27.93 E51.22899
G1 X268.12 Y28.38 E51.24596
G1 X268.19 Y28.52 E51.25136
G1 X268.34 Y29.00 E51.26814
G1 X268.39 Y29.16 E51.27354
G1 X268.44 Y29.66 E51.29038
G1 X268.45 Y29.82 E51.29573
G1 X268.40 Y30.32 E51.31250
G1 X268.39 Y30.48 E51.31788
G1 X268.24 Y30.97 E51.33467
G1 X268.20 Y31.12 E51.33999
G1 X267.96 Y31.57 E51.35689
G1 X267.88 Y31.71 E51.36232
G1 X267.46 Y32.23 E51.38449
G1 X266.94 Y32.65 E51.40663
G1 X266.49 Y32.89 E51.42358
G1 X266.35 Y32.97 E51.42894
G1 X265.87 Y33.11 E51.44579
G1 X265.71 Y33.16 E51.45118
G1 X265.21 Y33.21 E51.46803
G1 X265.05 Y33.23 E51.47341
G1 X264.55 Y33.18 E51.49012
G1 X264.38 Y33.16 E51.49556
G1 X263.90 Y33.01 E51.51242
G1 X263.75 Y32.97 E51.51760
G1 X263.30 Y32.73 E51.53458
G1 X263.16 Y32.65 E51.53996
G1 X262.64 Y32.23 E51.56220
G1 X262.22 Y31.71 E51.58423
G1 X261.98 Y31.27 E51.60119
G1 X261.90 Y31.12 E51.60659
G1 X261.76 Y30.64 E51.62340
G1 X261.71 Y30.48 E51.62880
G1 X261.66 Y29.98 E51.64564
G1 X261.64 Y29.82 E51.65103
G0 F6000 X261.24 Y29.82
G1 F3120 X261.30 Y29.28 E51.66911
G1 X261.31 Y29.08 E51.67586
G1 X261.47 Y28.56 E51.69393
G1 X261.53 Y28.36 E51.70061
G1 X261.79 Y27.88 E51.71874
G1 X261.88 Y27.71 E51.72542
G1 X262.36 Y27.12 E51.75042
G1 X262.93 Y26.66 E51.77507
G1 X263.42 Y26.40 E51.79325
G1 X263.59 Y26.30 E51.80001
G1 X264.11 Y26.14 E51.81807
G1 X264.31 Y26.09 E51.82479
G1 X264.85 Y26.03 E51.84293
G1 X265.05 Y26.01 E51.84965
G1 X265.59 Y26.07 E51.86769
G1 X265.79 Y26.09 E51.87441
G1 X266.31 Y26.24 E51.89252
G1 X266.51 Y26.30 E51.89923
G1 X266.99 Y26.56 E51.91734
G1 X267.17 Y26.66 E51.92414
G1 X267.74 Y27.12 E51.94874
G1 X268.21 Y27.70 E51.97370
G1 X268.47 Y28.19 E51.99184
G1 X268.57 Y28.36 E51.99859
G1 X268.72 Y28.89 E52.01666
G1 X268.78 Y29.08 E52.02337
G1 X268.84 Y29.62 E52.04148
G1 X268.86 Y29.82 E52.04817
G1 X268.80 Y30.36 E52.06628
G1 X268.78 Y30.56 E52.07300
G1 X268.62 Y31.08 E52.09108
G1 X268.57 Y31.27 E52.09776
G1 X268.31 Y31.76 E52.11591
G1 X268.21 Y31.94 E52.12274
G1 X267.74 Y32.51 E52.14741
G1 X267.17 Y32.98 E52.17223
G1 X266.68 Y33.24 E52.19041
G1 X266.50 Y33.34 E52.19716
G1 X265.98 Y33.49 E52.21523
G1 X265.79 Y33.55 E52.22198
G1 X265.25 Y33.61 E52.24009
G1 X265.05 Y33.63 E52.24677
G1 X264.51 Y33.57 E52.26485
G1 X264.31 Y33.55 E52.27157
G1 X263.79 Y33.40 E52.28968
G1 X263.59 Y33.34 E52.29639
G1 X263.11 Y33.08 E52.31450
G1 X262.93 Y32.98 E52.32130
G1 X262.36 Y32.51 E52.34607
G1 X261.89 Y31.94 E52.37072
G1 X261.63 Y31.45 E52.38901
G1 X261.53 Y31.27 E52.39576
G1 X261.37 Y30.75 E52.41383
G1 X261.31 Y30.56 E52.42054
G1 X261.26 Y30.02 E52.43865
G1 X261.24 Y29.82 E52.44534
G0 F6000 X262.35 Y29.82
G1 F3120 X262.40 Y30.35 E52.46295
G1 X262.55 Y30.85 E52.48058
G1 X262.80 Y31.32 E52.49818
G1 X263.14 Y31.73 E52.51581
G1 X263.55 Y32.07 E52.53344
G1 X264.01 Y32.32 E52.55109
G1 X264.52 Y32.47 E52.56867
G1 X265.05 Y32.52 E52.58632
G1 X265.58 Y32.47 E52.60397
G1 X266.08 Y32.32 E52.62155
G1 X266.55 Y32.07 E52.63920
G1 X266.96 Y31.73 E52.65683
G1 X267.30 Y31.32 E52.67446
G1 X267.55 Y30.85 E52.69206
G1 X267.70 Y30.35 E52.70969
G1 X267.75 Y29.82 E52.72730
G1 X267.70 Y29.29 E52.74495
G1 X267.55 Y28.79 E52.76257
G1 X267.30 Y28.32 E52.78019
G1 X266.96 Y27.91 E52.79779
G1 X266.55 Y27.57 E52.81540
G1 X266.08 Y27.32 E52.83302
G1 X265.58 Y27.17 E52.85064
G1 X265.05 Y27.12 E52.86829
G1 X264.52 Y27.17 E52.88593
G1 X264.01 Y27.32 E52.90356
G1 X263.55 Y27.57 E52.92117
G1 X263.14 Y27.91 E52.93878
G1 X262.80 Y28.32 E52.95638
G1 X262.55 Y28.79 E52.97400
G1 X262.40 Y29.29 E52.99163
G1 X262.35 Y29.82 E53.00927
G0 F6000 X262.75 Y29.82
;TYPE:WALL-OUTER
G1 F3120 X262.79 Y30.27 E53.02424
G1 X262.92 Y30.70 E53.03926
G1 X263.14 Y31.10 E53.05427
G1 X263.42 Y31.45 E53.06928
G1 X263.77 Y31.73 E53.08426
G1 X264.17 Y31.95 E53.09928
G1 X264.60 Y32.08 E53.11428
G1 X265.05 Y32.12 E53.12929
G1 X265.50 Y32.08 E53.14430
G1 X265.93 Y31.95 E53.15930
G1 X266.33 Y31.73 E53.17432
G1 X266.68 Y31.45 E53.18930
G1 X266.96 Y31.10 E53.20431
G1 X267.18 Y30.70 E53.21932
G1 X267.31 Y30.27 E53.23434
G1 X267.35 Y29.82 E53.24931
G1 X267.31 Y29.37 E53.26431
G1 X267.18 Y28.94 E53.27933
G1 X266.96 Y28.54 E53.29434
G1 X266.68 Y28.19 E53.30932
G1 X266.33 Y27.91 E53.32431
G1 X265.93 Y27.69 E53.33932
G1 X265.50 Y27.56 E53.35433
G1 X265.05 Y27.52 E53.36934
G1 X264.60 Y27.56 E53.38434
G1 X264.17 Y27.69 E53.39936
G1 X263.77 Y27.91 E53.41437
G1 X263.42 Y28.19 E53.42935
G1 X263.14 Y28.54 E53.44434
G1 X262.92 Y28.94 E53.45935
G1 X262.79 Y29.37 E53.47437
G1 X262.75 Y29.82 E53.48937
G0 F6000 X262.45 Y29.79
G0 X261.14 Y29.82
G0 X260.84 Y29.82
G1 F3120 X260.92 Y29.00 E53.51691
G1 X261.16 Y28.21 E53.54413
G1 X261.55 Y27.48 E53.57170
G1 X262.07 Y26.84 E53.59917
G1 X262.71 Y26.32 E53.62672
G1 X263.44 Y25.93 E53.65401
G1 X264.23 Y25.69 E53.68147
G1 X265.05 Y25.61 E53.70893
G1 X265.87 Y25.69 E53.73640
G1 X266.66 Y25.93 E53.76386
G1 X267.38 Y26.32 E53.79115
G1 X268.02 Y26.84 E53.81870
G1 X268.55 Y27.48 E53.84617
G1 X268.94 Y28.21 E53.87374
G1 X269.18 Y29.00 E53.90096
G1 X269.26 Y29.82 E53.92850
G1 X269.18 Y30.64 E53.95600
G1 X268.94 Y31.43 E53.98322
G1 X268.55 Y32.16 E54.01096
G1 X268.03 Y32.79 E54.03813
G1 X267.38 Y33.32 E54.06583
G1 X266.66 Y33.71 E54.09312
G1 X265.87 Y33.95 E54.12054
G1 X265.05 Y34.03 E54.14805
G1 X264.23 Y33.95 E54.17555
G1 X263.44 Y33.71 E54.20297
G1 X262.71 Y33.32 E54.23026
G1 X262.07 Y32.79 E54.25796
G1 X261.55 Y32.16 E54.28514
G1 X261.16 Y31.43 E54.31287
G1 X260.92 Y30.64 E54.34009
G1 X260.84 Y29.82 E54.36760
G0 F6000 X261.75 Y29.91
G0 X160.36 Y155.69
;TYPE:WALL-INNER
G1 F3120 X160.88 Y156.11 E54.38983
G1 X161.30 Y156.62 E54.41193
G1 X161.54 Y157.07 E54.42888
G1 X161.61 Y157.22 E54.43424
G1 X161.76 Y157.70 E54.45108
G1 X161.81 Y157.85 E54.45648
G1 X161.86 Y158.36 E54.47329
G1 X161.87 Y158.52 E54.47877
G1 X161.82 Y159.02 E54.49541
G1 X161.81 Y159.18 E54.50086
G1 X161.66 Y159.66 E54.51761
G1 X161.62 Y159.82 E54.52289
G1 X161.38 Y160.27 E54.53982
G1 X161.30 Y160.41 E54.54525
G1 X160.88 Y160.93 E54.56744
G1 X160.36 Y161.35 E54.58954
G1 X159.91 Y161.59 E54.60651
G1 X159.77 Y161.66 E54.61191
G1 X159.29 Y161.81 E54.62869
G1 X159.13 Y161.86 E54.63409
G1 X158.63 Y161.91 E54.65093
G1 X158.47 Y161.92 E54.65634
G1 X157.97 Y161.87 E54.67305
G1 X157.80 Y161.86 E54.67843
G1 X157.32 Y161.71 E54.69529
G1 X157.17 Y161.66 E54.70054
G1 X156.72 Y161.43 E54.71756
G1 X156.57 Y161.35 E54.72287
G1 X156.06 Y160.93 E54.74504
G1 X155.64 Y160.41 E54.76718
G1 X155.40 Y159.96 E54.78413
G1 X155.32 Y159.82 E54.78949
G1 X155.18 Y159.34 E54.80634
G1 X155.13 Y159.18 E54.81173
G1 X155.08 Y158.68 E54.82858
G1 X155.06 Y158.52 E54.83396
G1 X155.11 Y158.02 E54.85067
G1 X155.13 Y157.85 E54.85611
G1 X155.27 Y157.37 E54.87286
G1 X155.32 Y157.22 E54.87815
G1 X155.56 Y156.77 E54.89508
G1 X155.64 Y156.63 E54.90051
G1 X156.06 Y156.11 E54.92275
G1 X156.57 Y155.69 E54.94478
G1 X157.02 Y155.45 E54.96174
G1 X157.16 Y155.37 E54.96714
G1 X157.65 Y155.23 E54.98395
G1 X157.80 Y155.18 E54.98935
G1 X158.31 Y155.13 E55.00619
G1 X158.47 Y155.11 E55.01158
G1 X158.97 Y155.16 E55.02828
G1 X159.13 Y155.18 E55.03373
G1 X159.62 Y155.32 E55.05056
G1 X159.77 Y155.37 E55.05581
G1 X160.22 Y155.61 E55.07280
G1 X160.36 Y155.69 E55.07811
G0 F6000 X160.19 Y155.94
G1 F3120 X159.66 Y155.65 E55.09832
G1 X159.07 Y155.47 E55.11859
G1 X158.47 Y155.41 E55.13884
G1 X157.86 Y155.47 E55.15906
G1 X157.28 Y155.65 E55.17933
G1 X156.74 Y155.94 E55.19954
G1 X156.27 Y156.32 E55.21979
G1 X155.88 Y156.79 E55.24007
G1 X155.60 Y157.33 E55.26032
G1 X155.42 Y157.91 E55.28054
G1 X155.36 Y158.52 E55.30079
G1 X155.42 Y159.12 E55.32105
G1 X155.60 Y159.71 E55.34126
G1 X155.88 Y160.24 E55.36152
G1 X156.27 Y160.71 E55.38179
G1 X156.74 Y161.10 E55.40204
G1 X157.28 Y161.39 E55.42225
G1 X157.86 Y161.56 E55.44253
G1 X158.47 Y161.62 E55.46274
G1 X159.07 Y161.56 E55.48299
G1 X159.66 Y161.39 E55.50327
G1 X160.19 Y161.10 E55.52348
G1 X160.66 Y160.71 E55.54373
G1 X161.05 Y160.24 E55.56398
G1 X161.34 Y159.71 E55.58419
G1 X161.51 Y159.12 E55.60446
G1 X161.57 Y158.52 E55.62472
G1 X161.51 Y157.91 E55.64497
G1 X161.34 Y157.33 E55.66524
G1 X161.05 Y156.79 E55.68545
G1 X160.66 Y156.32 E55.70570
G1 X160.19 Y155.94 E55.72596
G0 F6000 X159.97 Y156.27
G1 F3120 X159.50 Y156.02 E55.74357
G1 X159.00 Y155.87 E55.76120
G1 X158.47 Y155.81 E55.77884
G1 X157.94 Y155.87 E55.79646
G1 X157.43 Y156.02 E55.81408
G1 X156.97 Y156.27 E55.83168
G1 X156.56 Y156.61 E55.84931
G1 X156.22 Y157.02 E55.86694
G1 X155.97 Y157.48 E55.88459
G1 X155.82 Y157.99 E55.90217
G1 X155.76 Y158.52 E55.91982
G1 X155.82 Y159.05 E55.93747
G1 X155.97 Y159.55 E55.95506
G1 X156.22 Y160.02 E55.97270
G1 X156.56 Y160.43 E55.99033
G1 X156.97 Y160.77 E56.00797
G1 X157.43 Y161.01 E56.02557
G1 X157.94 Y161.17 E56.04319
G1 X158.47 Y161.22 E56.06080
G1 X159.00 Y161.17 E56.07845
G1 X159.50 Y161.01 E56.09607
G1 X159.97 Y160.76 E56.11369
G1 X160.38 Y160.43 E56.13130
G1 X160.71 Y160.02 E56.14890
G1 X160.96 Y159.55 E56.16652
G1 X161.12 Y159.05 E56.18414
G1 X161.17 Y158.52 E56.20179
G1 X161.12 Y157.99 E56.21944
G1 X160.96 Y157.48 E56.23706
G1 X160.71 Y157.02 E56.25468
G1 X160.38 Y156.61 E56.27228
G1 X159.97 Y156.27 E56.28989
G0 F6000 X160.40 Y155.26
G1 F3120 X160.58 Y155.35 E56.29657
G1 X161.16 Y155.83 E56.32157
G1 X161.63 Y156.40 E56.34622
G1 X161.89 Y156.88 E56.36441
G1 X161.99 Y157.06 E56.37116
G1 X162.14 Y157.58 E56.38923
G1 X162.20 Y157.78 E56.39594
G1 X162.25 Y158.32 E56.41408
G1 X162.27 Y158.52 E56.42074
G1 X162.22 Y159.06 E56.43885
G1 X162.20 Y159.26 E56.44556
G1 X162.04 Y159.78 E56.46367
G1 X161.99 Y159.97 E56.47038
G1 X161.73 Y160.46 E56.48849
G1 X161.63 Y160.63 E56.49529
G1 X161.16 Y161.21 E56.51990
G1 X160.58 Y161.68 E56.54485
G1 X160.10 Y161.94 E56.56299
G1 X159.92 Y162.04 E56.56975
G1 X159.40 Y162.19 E56.58781
G1 X159.21 Y162.25 E56.59452
G1 X158.67 Y162.31 E56.61264
G1 X158.47 Y162.32 E56.61936
G1 X157.93 Y162.27 E56.63744
G1 X157.72 Y162.25 E56.64415
G1 X157.20 Y162.09 E56.66223
G1 X157.01 Y162.03 E56.66891
G1 X156.53 Y161.78 E56.68714
G1 X156.35 Y161.68 E56.69389
G1 X155.78 Y161.21 E56.71856
G1 X155.30 Y160.63 E56.74338
G1 X155.04 Y160.15 E56.76156
G1 X154.95 Y159.97 E56.76832
G1 X154.79 Y159.45 E56.78638
G1 X154.73 Y159.26 E56.79313
G1 X154.68 Y158.72 E56.81124
G1 X154.66 Y158.52 E56.81793
G1 X154.71 Y157.98 E56.83601
G1 X154.73 Y157.78 E56.84272
G1 X154.89 Y157.25 E56.86083
G1 X154.95 Y157.06 E56.86755
G1 X155.21 Y156.58 E56.88565
G1 X155.30 Y156.40 E56.89245
G1 X155.78 Y155.82 E56.91722
G1 X156.35 Y155.35 E56.94187
G1 X156.83 Y155.10 E56.96016
G1 X157.01 Y155.00 E56.96692
G1 X157.53 Y154.84 E56.98498
G1 X157.73 Y154.78 E56.99169
G1 X158.27 Y154.73 E57.00981
G1 X158.47 Y154.71 E57.01649
G1 X159.01 Y154.76 E57.03457
G1 X159.21 Y154.78 E57.04132
G1 X159.73 Y154.94 E57.05940
G1 X159.92 Y155.00 E57.06608
G1 X160.40 Y155.26 E57.08420
G0 F6000 X160.81 Y155.02
;TYPE:WALL-OUTER
G1 F3120 X161.44 Y155.54 E57.11167
G1 X161.97 Y156.18 E57.13923
G1 X162.36 Y156.91 E57.16652
G1 X162.60 Y157.70 E57.19397
G1 X162.68 Y158.52 E57.22144
G1 X162.60 Y159.34 E57.24891
G1 X162.36 Y160.13 E57.27636
G1 X161.97 Y160.85 E57.30365
G1 X161.44 Y161.49 E57.33121
G1 X160.81 Y162.02 E57.35867
G1 X160.07 Y162.41 E57.38624
G1 X159.29 Y162.65 E57.41346
G1 X158.47 Y162.73 E57.44100
G1 X157.64 Y162.65 E57.46851
G1 X156.86 Y162.41 E57.49573
G1 X156.12 Y162.02 E57.52346
G1 X155.49 Y161.50 E57.55063
G1 X154.97 Y160.85 E57.57833
G1 X154.58 Y160.13 E57.60562
G1 X154.34 Y159.34 E57.63304
G1 X154.26 Y158.52 E57.66055
G1 X154.34 Y157.69 E57.68805
G1 X154.58 Y156.91 E57.71547
G1 X154.97 Y156.18 E57.74277
G1 X155.49 Y155.54 E57.77046
G1 X156.12 Y155.02 E57.79764
G1 X156.86 Y154.63 E57.82537
G1 X157.64 Y154.39 E57.85259
G1 X158.47 Y154.31 E57.88010
G1 X159.29 Y154.39 E57.90764
G1 X160.07 Y154.63 E57.93486
G1 X160.81 Y155.02 E57.96243
G0 F6000 X160.64 Y155.27
G0 X159.89 Y156.34
G0 X159.75 Y156.60
G1 F3120 X159.35 Y156.39 E57.97744
G1 X158.92 Y156.26 E57.99246
G1 X158.47 Y156.22 E58.00746
G1 X158.02 Y156.26 E58.02243
G1 X157.59 Y156.39 E58.03745
G1 X157.19 Y156.60 E58.05246
G1 X156.84 Y156.89 E58.06747
G1 X156.55 Y157.24 E58.08245
G1 X156.34 Y157.64 E58.09747
G1 X156.21 Y158.07 E58.11247
G1 X156.17 Y158.52 E58.12748
G1 X156.21 Y158.97 E58.14249
G1 X156.34 Y159.40 E58.15749
G1 X156.55 Y159.80 E58.17251
G1 X156.84 Y160.15 E58.18749
G1 X157.19 Y160.43 E58.20250
G1 X157.59 Y160.64 E58.21751
G1 X158.02 Y160.78 E58.23252
G1 X158.47 Y160.82 E58.24750
G1 X158.92 Y160.78 E58.26250
G1 X159.35 Y160.64 E58.27752
G1 X159.75 Y160.43 E58.29253
G1 X160.09 Y160.15 E58.30751
G1 X160.38 Y159.80 E58.32249
G1 X160.59 Y159.40 E58.33751
G1 X160.72 Y158.97 E58.35252
G1 X160.77 Y158.52 E58.36753
G1 X160.72 Y158.07 E58.38253
G1 X160.59 Y157.64 E58.39755
G1 X160.38 Y157.24 E58.41256
G1 X160.09 Y156.89 E58.42754
G1 X159.75 Y156.60 E58.44253
G0 F6000 X160.17 Y155.81
G0 X49.50 Y42.78
;TYPE:WALL-INNER
G1 F3120 X48.99 Y43.20 E58.46460
G1 X48.54 Y43.44 E58.48156
G1 X48.39 Y43.52 E58.48699
G1 X47.91 Y43.67 E58.50377
G1 X47.76 Y43.72 E58.50917
G1 X47.25 Y43.76 E58.52601
G1 X47.09 Y43.78 E58.53140
G1 X46.59 Y43.73 E58.54810
G1 X46.43 Y43.72 E58.55355
G1 X45.94 Y43.57 E58.57041
G1 X45.79 Y43.52 E58.57563
G1 X45.34 Y43.28 E58.59262
G1 X45.20 Y43.21 E58.59793
G1 X44.68 Y42.78 E58.62014
G1 X44.26 Y42.27 E58.64222
G1 X44.02 Y41.82 E58.65918
G1 X43.95 Y41.68 E58.66461
G1 X43.80 Y41.19 E58.68139
G1 X43.75 Y41.04 E58.68679
G1 X43.70 Y40.53 E58.70363
G1 X43.69 Y40.37 E58.70901
G1 X43.74 Y39.87 E58.72572
G1 X43.75 Y39.71 E58.73110
G1 X43.90 Y39.23 E58.74789
G1 X43.95 Y39.08 E58.75321
G1 X44.18 Y38.63 E58.77011
G1 X44.26 Y38.48 E58.77554
G1 X44.68 Y37.97 E58.79776
G1 X45.20 Y37.55 E58.81983
G1 X45.65 Y37.31 E58.83679
G1 X45.79 Y37.23 E58.84222
G1 X46.27 Y37.08 E58.85900
G1 X46.43 Y37.03 E58.86440
G1 X46.93 Y36.99 E58.88124
G1 X47.09 Y36.97 E58.88663
G1 X47.59 Y37.02 E58.90333
G1 X47.76 Y37.03 E58.90878
G1 X48.24 Y37.18 E58.92553
G1 X48.39 Y37.23 E58.93086
G1 X48.84 Y37.47 E58.94785
G1 X48.98 Y37.54 E58.95316
G1 X49.50 Y37.97 E58.97537
G1 X49.92 Y38.48 E58.99745
G1 X50.16 Y38.93 E59.01441
G1 X50.24 Y39.07 E59.01981
G1 X50.38 Y39.56 E59.03662
G1 X50.43 Y39.71 E59.04202
G1 X50.48 Y40.22 E59.05886
G1 X50.50 Y40.38 E59.06418
G1 X50.45 Y40.88 E59.08095
G1 X50.43 Y41.04 E59.08640
G1 X50.29 Y41.52 E59.10315
G1 X50.24 Y41.67 E59.10848
G1 X50.00 Y42.12 E59.12535
G1 X49.92 Y42.27 E59.13078
G1 X49.50 Y42.78 E59.15299
G0 F6000 X49.29 Y42.57
G1 F3120 X49.67 Y42.10 E59.17325
G1 X49.96 Y41.56 E59.19345
G1 X50.14 Y40.98 E59.21373
G1 X50.20 Y40.38 E59.23398
G1 X50.14 Y39.77 E59.25426
G1 X49.96 Y39.19 E59.27447
G1 X49.67 Y38.65 E59.29471
G1 X49.29 Y38.18 E59.31496
G1 X48.82 Y37.79 E59.33522
G1 X48.28 Y37.51 E59.35542
G1 X47.70 Y37.33 E59.37570
G1 X47.09 Y37.27 E59.39595
G1 X46.49 Y37.33 E59.41620
G1 X45.90 Y37.51 E59.43648
G1 X45.37 Y37.79 E59.45668
G1 X44.90 Y38.18 E59.47694
G1 X44.51 Y38.65 E59.49719
G1 X44.22 Y39.19 E59.51743
G1 X44.05 Y39.77 E59.53764
G1 X43.99 Y40.38 E59.55792
G1 X44.05 Y40.98 E59.57817
G1 X44.22 Y41.56 E59.59845
G1 X44.51 Y42.10 E59.61865
G1 X44.90 Y42.57 E59.63891
G1 X45.37 Y42.96 E59.65916
G1 X45.90 Y43.24 E59.67937
G1 X46.49 Y43.42 E59.69964
G1 X47.09 Y43.48 E59.71989
G1 X47.70 Y43.42 E59.74014
G1 X48.28 Y43.24 E59.76042
G1 X48.82 Y42.96 E59.78062
G1 X49.29 Y42.57 E59.80088
G0 F6000 X49.00 Y42.29
G1 F3120 X49.34 Y41.88 E59.81848
G1 X49.59 Y41.41 E59.83610
G1 X49.74 Y40.90 E59.85373
G1 X49.80 Y40.38 E59.87137
G1 X49.74 Y39.85 E59.88902
G1 X49.59 Y39.34 E59.90661
G1 X49.34 Y38.87 E59.92424
G1 X49.00 Y38.46 E59.94187
G1 X48.59 Y38.13 E59.95947
G1 X48.13 Y37.88 E59.97709
G1 X47.62 Y37.72 E59.99472
G1 X47.09 Y37.67 E60.01236
G1 X46.56 Y37.72 E60.03001
G1 X46.06 Y37.88 E60.04763
G1 X45.59 Y38.13 E60.06525
G1 X45.18 Y38.46 E60.08285
G1 X44.84 Y38.87 E60.10048
G1 X44.59 Y39.34 E60.11811
G1 X44.44 Y39.85 E60.13570
G1 X44.39 Y40.38 E60.15335
G1 X44.44 Y40.90 E60.17100
G1 X44.59 Y41.41 E60.18862
G1 X44.84 Y41.88 E60.20624
G1 X45.18 Y42.29 E60.22384
G1 X45.59 Y42.62 E60.24145
G1 X46.06 Y42.87 E60.25907
G1 X46.56 Y43.03 E60.27669
G1 X47.09 Y43.08 E60.29434
G1 X47.62 Y43.03 E60.31198
G1 X48.13 Y42.87 E60.32961
G1 X48.59 Y42.62 E60.34723
G1 X49.00 Y42.29 E60.36483
G0 F6000 X49.78 Y43.07
G1 F3120 X49.21 Y43.54 E60.38955
G1 X48.73 Y43.80 E60.40779
G1 X48.55 Y43.89 E60.41455
G1 X48.03 Y44.05 E60.43261
G1 X47.83 Y44.11 E60.43936
G1 X47.29 Y44.16 E60.45747
G1 X47.09 Y44.18 E60.46415
G1 X46.55 Y44.13 E60.48223
G1 X46.35 Y44.11 E60.48895
G1 X45.83 Y43.95 E60.50706
G1 X45.64 Y43.89 E60.51374
G1 X45.15 Y43.63 E60.53194
G1 X44.97 Y43.54 E60.53869
G1 X44.40 Y43.07 E60.56341
G1 X43.93 Y42.49 E60.58813
G1 X43.67 Y42.01 E60.60637
G1 X43.57 Y41.83 E60.61313
G1 X43.42 Y41.31 E60.63119
G1 X43.36 Y41.12 E60.63794
G1 X43.30 Y40.57 E60.65605
G1 X43.28 Y40.37 E60.66273
G1 X43.34 Y39.83 E60.68081
G1 X43.36 Y39.63 E60.68753
G1 X43.52 Y39.11 E60.70561
G1 X43.58 Y38.92 E60.71229
G1 X43.83 Y38.44 E60.73044
G1 X43.93 Y38.26 E60.73727
G1 X44.40 Y37.68 E60.76199
G1 X44.97 Y37.21 E60.78671
G1 X45.46 Y36.95 E60.80495
G1 X45.64 Y36.86 E60.81170
G1 X46.16 Y36.70 E60.82977
G1 X46.35 Y36.64 E60.83651
G1 X46.89 Y36.59 E60.85463
G1 X47.09 Y36.57 E60.86131
G1 X47.63 Y36.62 E60.87939
G1 X47.84 Y36.64 E60.88611
G1 X48.36 Y36.80 E60.90422
G1 X48.55 Y36.86 E60.91090
G1 X49.03 Y37.11 E60.92902
G1 X49.21 Y37.21 E60.93585
G1 X49.78 Y37.68 E60.96057
G1 X50.26 Y38.26 E60.98527
G1 X50.51 Y38.74 E61.00355
G1 X50.61 Y38.92 E61.01031
G1 X50.77 Y39.44 E61.02837
G1 X50.83 Y39.63 E61.03509
G1 X50.88 Y40.18 E61.05320
G1 X50.90 Y40.38 E61.05985
G1 X50.85 Y40.92 E61.07797
G1 X50.83 Y41.12 E61.08468
G1 X50.67 Y41.64 E61.10279
G1 X50.61 Y41.83 E61.10947
G1 X50.35 Y42.31 E61.12759
G1 X50.26 Y42.49 E61.13442
G1 X49.78 Y43.07 E61.15914
G0 F6000 X50.07 Y43.35
;TYPE:WALL-OUTER
G1 F3120 X49.43 Y43.87 E61.18646
G1 X48.70 Y44.27 E61.21416
G1 X47.91 Y44.50 E61.24141
G1 X47.09 Y44.58 E61.26892
G1 X46.27 Y44.50 E61.29642
G1 X45.48 Y44.27 E61.32367
G1 X44.75 Y43.87 E61.35138
G1 X44.12 Y43.35 E61.37870
G1 X43.59 Y42.72 E61.40601
G1 X43.20 Y41.98 E61.43372
G1 X42.96 Y41.20 E61.46097
G1 X42.88 Y40.38 E61.48847
G1 X42.96 Y39.55 E61.51598
G1 X43.20 Y38.77 E61.54320
G1 X43.59 Y38.03 E61.57093
G1 X44.12 Y37.40 E61.59825
G1 X44.75 Y36.88 E61.62556
G1 X45.48 Y36.48 E61.65327
G1 X46.27 Y36.25 E61.68052
G1 X47.09 Y36.17 E61.70802
G1 X47.91 Y36.25 E61.73553
G1 X48.70 Y36.48 E61.76278
G1 X49.43 Y36.88 E61.79048
G1 X50.07 Y37.40 E61.81780
G1 X50.59 Y38.03 E61.84511
G1 X50.98 Y38.77 E61.87285
G1 X51.22 Y39.55 E61.90007
G1 X51.30 Y40.38 E61.92757
G1 X51.22 Y41.20 E61.95508
G1 X50.98 Y41.98 E61.98233
G1 X50.59 Y42.72 E62.01004
G1 X50.07 Y43.35 E62.03735
G0 F6000 X49.86 Y43.14
G0 X48.91 Y42.23
G0 X48.72 Y42.00
G1 F3120 X49.01 Y41.65 E62.05233
G1 X49.22 Y41.26 E62.06735
G1 X49.35 Y40.82 E62.08236
G1 X49.39 Y40.38 E62.09737
G1 X49.35 Y39.93 E62.11237
G1 X49.22 Y39.49 E62.12735
G1 X49.01 Y39.10 E62.14240
G1 X48.72 Y38.75 E62.15738
G1 X48.37 Y38.46 E62.17236
G1 X47.97 Y38.25 E62.18738
G1 X47.54 Y38.12 E62.20239
G1 X47.09 Y38.07 E62.21739
G1 X46.64 Y38.12 E62.23240
G1 X46.21 Y38.25 E62.24741
G1 X45.81 Y38.46 E62.26243
G1 X45.47 Y38.75 E62.27741
G1 X45.18 Y39.10 E62.29239
G1 X44.97 Y39.49 E62.30744
G1 X44.84 Y39.93 E62.32242
G1 X44.79 Y40.38 E62.33742
G1 X44.84 Y40.82 E62.35243
G1 X44.97 Y41.26 E62.36744
G1 X45.18 Y41.65 E62.38246
G1 X45.47 Y42.00 E62.39744
G1 X45.81 Y42.29 E62.41242
G1 X46.21 Y42.50 E62.42744
G1 X46.64 Y42.63 E62.44245
G1 X47.09 Y42.68 E62.45746
G1 X47.54 Y42.63 E62.47246
G1 X47.97 Y42.50 E62.48747
G1 X48.37 Y42.29 E62.50249
G1 X48.72 Y42.00 E62.51747
G0 F6000 X49.29 Y42.70
G0 X30.79 Y277.36
;TYPE:WALL-INNER
G1 F3120 X31.29 Y277.41 E62.53418
G1 X31.45 Y277.43 E62.53956
G1 X31.94 Y277.57 E62.55642
G1 X32.09 Y277.62 E62.56167
G1 X32.54 Y277.86 E62.57869
G1 X32.68 Y277.94 E62.58400
G1 X33.20 Y278.36 E62.60617
G1 X33.62 Y278.87 E62.62831
G1 X33.86 Y279.32 E62.64526
G1 X33.94 Y279.46 E62.65062
G1 X34.08 Y279.95 E62.66746
G1 X34.13 Y280.11 E62.67286
G1 X34.18 Y280.61 E62.68970
G1 X34.20 Y280.77 E62.69502
G1 X34.15 Y281.27 E62.71179
G1 X34.13 Y281.43 E62.71724
G1 X33.98 Y281.92 E62.73399
G1 X33.94 Y282.07 E62.73927
G1 X33.70 Y282.52 E62.75621
G1 X33.62 Y282.66 E62.76164
G1 X33.20 Y283.18 E62.78388
G1 X32.69 Y283.60 E62.80590
G1 X32.23 Y283.84 E62.82287
G1 X32.09 Y283.91 E62.82827
G1 X31.61 Y284.06 E62.84508
G1 X31.45 Y284.11 E62.85048
G1 X30.95 Y284.16 E62.86732
G1 X30.79 Y284.17 E62.87270
G1 X30.29 Y284.12 E62.88941
G1 X30.12 Y284.11 E62.89486
G1 X29.64 Y283.96 E62.91168
G1 X29.49 Y283.92 E62.91693
G1 X29.04 Y283.68 E62.93393
G1 X28.90 Y283.60 E62.93924
G1 X28.38 Y283.18 E62.96148
G1 X27.96 Y282.66 E62.98357
G1 X27.72 Y282.21 E63.00052
G1 X27.64 Y282.07 E63.00588
G1 X27.50 Y281.59 E63.02273
G1 X27.45 Y281.43 E63.02812
G1 X27.40 Y280.93 E63.04493
G1 X27.39 Y280.76 E63.05041
G1 X27.43 Y280.27 E63.06705
G1 X27.45 Y280.10 E63.07250
G1 X27.59 Y279.62 E63.08925
G1 X27.64 Y279.47 E63.09453
G1 X27.88 Y279.02 E63.11146
G1 X27.96 Y278.88 E63.11690
G1 X28.38 Y278.36 E63.13909
G1 X28.89 Y277.94 E63.16119
G1 X29.34 Y277.70 E63.17815
G1 X29.49 Y277.62 E63.18355
G1 X29.97 Y277.48 E63.20033
G1 X30.13 Y277.43 E63.20573
G1 X30.63 Y277.38 E63.22257
G1 X30.79 Y277.36 E63.22799
G0 F6000 X30.79 Y277.66
G1 F3120 X30.18 Y277.72 E63.24824
G1 X29.60 Y277.90 E63.26851
G1 X29.07 Y278.19 E63.28872
G1 X28.59 Y278.57 E63.30897
G1 X28.21 Y279.04 E63.32923
G1 X27.92 Y279.58 E63.34943
G1 X27.74 Y280.16 E63.36971
G1 X27.68 Y280.77 E63.38996
G1 X27.74 Y281.37 E63.41021
G1 X27.92 Y281.96 E63.43048
G1 X28.21 Y282.49 E63.45069
G1 X28.59 Y282.96 E63.47094
G1 X29.07 Y283.35 E63.49120
G1 X29.60 Y283.64 E63.51140
G1 X30.18 Y283.81 E63.53168
G1 X30.79 Y283.87 E63.55193
G1 X31.39 Y283.81 E63.57215
G1 X31.98 Y283.64 E63.59242
G1 X32.51 Y283.35 E63.61263
G1 X32.98 Y282.96 E63.63288
G1 X33.37 Y282.49 E63.65316
G1 X33.66 Y281.96 E63.67341
G1 X33.83 Y281.37 E63.69362
G1 X33.90 Y280.77 E63.71388
G1 X33.83 Y280.16 E63.73414
G1 X33.66 Y279.58 E63.75435
G1 X33.37 Y279.04 E63.77460
G1 X32.98 Y278.57 E63.79488
G1 X32.51 Y278.19 E63.81513
G1 X31.98 Y277.90 E63.83534
G1 X31.39 Y277.72 E63.85561
G1 X30.79 Y277.66 E63.87583
G0 F6000 X30.79 Y278.06
G1 F3120 X30.26 Y278.12 E63.89348
G1 X29.75 Y278.27 E63.91110
G1 X29.29 Y278.52 E63.92872
G1 X28.88 Y278.86 E63.94632
G1 X28.54 Y279.27 E63.96393
G1 X28.29 Y279.73 E63.98155
G1 X28.14 Y280.24 E63.99917
G1 X28.09 Y280.77 E64.01682
G1 X28.14 Y281.30 E64.03446
G1 X28.29 Y281.80 E64.05209
G1 X28.54 Y282.27 E64.06971
G1 X28.88 Y282.68 E64.08731
G1 X29.29 Y283.01 E64.10492
G1 X29.75 Y283.26 E64.12253
G1 X30.26 Y283.42 E64.14016
G1 X30.79 Y283.47 E64.15780
G1 X31.32 Y283.42 E64.17542
G1 X31.82 Y283.26 E64.19304
G1 X32.29 Y283.02 E64.21064
G1 X32.70 Y282.68 E64.22827
G1 X33.04 Y282.27 E64.24591
G1 X33.29 Y281.80 E64.26355
G1 X33.44 Y281.30 E64.28113
G1 X33.49 Y280.77 E64.29878
G1 X33.44 Y280.24 E64.31643
G1 X33.29 Y279.73 E64.33402
G1 X33.04 Y279.27 E64.35166
G1 X32.70 Y278.86 E64.36929
G1 X32.29 Y278.52 E64.38693
G1 X31.82 Y278.27 E64.40453
G1 X31.32 Y278.12 E64.42215
G1 X30.79 Y278.06 E64.43976
G0 F6000 X30.59 Y276.98
G1 F3120 X30.79 Y276.96 E64.44648
G1 X31.33 Y277.01 E64.46456
G1 X31.53 Y277.03 E64.47128
G1 X32.05 Y277.19 E64.48936
G1 X32.24 Y277.25 E64.49604
G1 X32.73 Y277.51 E64.51419
G1 X32.91 Y277.60 E64.52102
G1 X33.48 Y278.07 E64.54569
G1 X33.95 Y278.65 E64.57051
G1 X34.21 Y279.13 E64.58869
G1 X34.31 Y279.31 E64.59544
G1 X34.47 Y279.83 E64.61351
G1 X34.52 Y280.03 E64.62026
G1 X34.58 Y280.57 E64.63837
G1 X34.60 Y280.77 E64.64502
G1 X34.54 Y281.31 E64.66313
G1 X34.52 Y281.51 E64.66985
G1 X34.37 Y282.03 E64.68796
G1 X34.31 Y282.23 E64.69467
G1 X34.05 Y282.70 E64.71278
G1 X33.95 Y282.88 E64.71958
G1 X33.48 Y283.46 E64.74435
G1 X32.91 Y283.93 E64.76900
G1 X32.42 Y284.19 E64.78729
G1 X32.24 Y284.29 E64.79404
G1 X31.72 Y284.44 E64.81211
G1 X31.53 Y284.50 E64.81882
G1 X30.99 Y284.56 E64.83693
G1 X30.79 Y284.57 E64.84362
G1 X30.25 Y284.52 E64.86170
G1 X30.05 Y284.50 E64.86845
G1 X29.53 Y284.34 E64.88653
G1 X29.33 Y284.29 E64.89321
G1 X28.85 Y284.03 E64.91140
G1 X28.68 Y283.93 E64.91801
G1 X28.09 Y283.46 E64.94301
G1 X27.62 Y282.88 E64.96766
G1 X27.37 Y282.40 E64.98585
G1 X27.27 Y282.22 E64.99260
G1 X27.11 Y281.70 E65.01067
G1 X27.05 Y281.51 E65.01738
G1 X27.00 Y280.97 E65.03552
G1 X26.98 Y280.77 E65.04224
G1 X27.04 Y280.23 E65.06029
G1 X27.05 Y280.02 E65.06700
G1 X27.21 Y279.50 E65.08511
G1 X27.27 Y279.31 E65.09182
G1 X27.53 Y278.83 E65.10993
G1 X27.63 Y278.65 E65.11673
G1 X28.09 Y278.08 E65.14134
G1 X28.68 Y277.60 E65.16629
G1 X29.16 Y277.35 E65.18443
G1 X29.34 Y277.25 E65.19119
G1 X29.86 Y277.09 E65.20925
G1 X30.05 Y277.03 E65.21597
G1 X30.59 Y276.98 E65.23408
G0 F6000 X30.79 Y276.56
;TYPE:WALL-OUTER
G1 F3120 X31.61 Y276.64 E65.26158
G1 X32.40 Y276.88 E65.28880
G1 X33.13 Y277.27 E65.31654
G1 X33.76 Y277.79 E65.34371
G1 X34.29 Y278.43 E65.37141
G1 X34.68 Y279.16 E65.39870
G1 X34.92 Y279.94 E65.42612
G1 X35.00 Y280.77 E65.45363
G1 X34.92 Y281.59 E65.48113
G1 X34.68 Y282.38 E65.50855
G1 X34.29 Y283.10 E65.53584
G1 X33.76 Y283.75 E65.56354
G1 X33.13 Y284.27 E65.59072
G1 X32.40 Y284.66 E65.61845
G1 X31.61 Y284.90 E65.64567
G1 X30.79 Y284.98 E65.67318
G1 X29.97 Y284.90 E65.70071
G1 X29.18 Y284.66 E65.72793
G1 X28.45 Y284.27 E65.75551
G1 X27.81 Y283.74 E65.78297
G1 X27.29 Y283.10 E65.81053
G1 X26.90 Y282.38 E65.83782
G1 X26.66 Y281.59 E65.86527
G1 X26.58 Y280.77 E65.89274
G1 X26.66 Y279.95 E65.92021
G1 X26.90 Y279.16 E65.94766
G1 X27.29 Y278.43 E65.97495
G1 X27.81 Y277.79 E66.00251
G1 X28.45 Y277.27 E66.02997
G1 X29.18 Y276.88 E66.05755
G1 X29.97 Y276.64 E66.08476
G1 X30.79 Y276.56 E66.11230
G0 F6000 X30.79 Y276.86
G0 X30.82 Y278.17
G0 X30.79 Y278.47
G1 F3120 X30.34 Y278.51 E66.12731
G1 X29.91 Y278.64 E66.14232
G1 X29.51 Y278.86 E66.15734
G1 X29.16 Y279.14 E66.17232
G1 X28.88 Y279.49 E66.18730
G1 X28.66 Y279.89 E66.20231
G1 X28.53 Y280.32 E66.21733
G1 X28.49 Y280.77 E66.23233
G1 X28.53 Y281.22 E66.24734
G1 X28.66 Y281.65 E66.26235
G1 X28.88 Y282.05 E66.27737
G1 X29.16 Y282.39 E66.29235
G1 X29.51 Y282.68 E66.30733
G1 X29.91 Y282.89 E66.32235
G1 X30.34 Y283.02 E66.33736
G1 X30.79 Y283.07 E66.35237
G1 X31.24 Y283.02 E66.36734
G1 X31.67 Y282.89 E66.38235
G1 X32.07 Y282.68 E66.39737
G1 X32.42 Y282.39 E66.41237
G1 X32.70 Y282.05 E66.42736
G1 X32.92 Y281.65 E66.44237
G1 X33.05 Y281.22 E66.45738
G1 X33.09 Y280.77 E66.47238
G1 X33.05 Y280.32 E66.48739
G1 X32.92 Y279.89 E66.50240
G1 X32.70 Y279.49 E66.51741
G1 X32.42 Y279.14 E66.53239
G1 X32.07 Y278.86 E66.54740
G1 X31.67 Y278.64 E66.56241
G1 X31.24 Y278.51 E66.57743
G1 X30.79 Y278.47 E66.59240
G0 F6000 X30.88 Y277.57
;LAYER:3
G0 X30.79 Y277.66 Z0.90
;TYPE:WALL-INNER
G1 F3060 X30.18 Y277.72 E66.61265
G1 X29.60 Y277.90 E66.63293
G1 X29.07 Y278.19 E66.65313
G1 X28.59 Y278.57 E66.67339
G1 X28.21 Y279.04 E66.69364
G1 X27.92 Y279.58 E66.71385
G1 X27.74 Y280.16 E66.73412
G1 X27.68 Y280.77 E66.75437
G1 X27.74 Y281.37 E66.77462
G1 X27.92 Y281.96 E66.79490
G1 X28.21 Y282.49 E66.81511
G1 X28.59 Y282.96 E66.83536
G1 X29.07 Y283.35 E66.85561
G1 X29.60 Y283.64 E66.87582
G1 X30.18 Y283.81 E66.89609
G1 X30.79 Y283.87 E66.91635
G1 X31.39 Y283.81 E66.93656
G1 X31.98 Y283.64 E66.95684
G1 X32.51 Y283.35 E66.97704
G1 X32.98 Y282.96 E66.99730
G1 X33.37 Y282.49 E67.01757
G1 X33.66 Y281.96 E67.03783
G1 X33.83 Y281.37 E67.05804
G1 X33.90 Y280.77 E67.07830
G1 X33.83 Y280.16 E67.09855
G1 X33.66 Y279.58 E67.11877
G1 X33.37 Y279.04 E67.13902
G1 X32.98 Y278.57 E67.15929
G1 X32.51 Y278.19 E67.17955
G1 X31.98 Y277.90 E67.19975
G1 X31.39 Y277.72 E67.22003
G1 X30.79 Y277.66 E67.24025
G0 F6000 X30.79 Y277.36
G1 F3060 X31.45 Y277.43 E67.26247
G1 X32.09 Y277.62 E67.28458
G1 X32.68 Y277.94 E67.30690
G1 X33.20 Y278.36 E67.32902
G1 X33.62 Y278.88 E67.35123
G1 X33.94 Y279.47 E67.37354
G1 X34.13 Y280.11 E67.39574
G1 X34.20 Y280.77 E67.41786
G1 X34.13 Y281.43 E67.44009
G1 X34.01 Y281.83 E67.45399
G1 X33.94 Y282.07 E67.46234
G1 X33.62 Y282.66 E67.48457
G1 X33.20 Y283.18 E67.50672
G1 X32.68 Y283.60 E67.52884
G1 X32.09 Y283.91 E67.55108
G1 X31.45 Y284.11 E67.57332
G1 X30.79 Y284.17 E67.59548
G1 X30.12 Y284.11 E67.61774
G1 X29.49 Y283.92 E67.63984
G1 X28.90 Y283.60 E67.66213
G1 X28.38 Y283.18 E67.68433
G1 X27.96 Y282.66 E67.70650
G1 X27.64 Y282.07 E67.72880
G1 X27.45 Y281.43 E67.75100
G1 X27.38 Y280.77 E67.77319
G1 X27.45 Y280.10 E67.79535
G1 X27.57 Y279.70 E67.80925
G1 X27.64 Y279.46 E67.81760
G1 X27.96 Y278.87 E67.83984
G1 X28.38 Y278.36 E67.86193
G1 X28.90 Y277.94 E67.88413
G1 X29.49 Y277.62 E67.90634
G1 X30.13 Y277.43 E67.92858
G1 X30.79 Y277.36 E67.95078
G0 F6000 X30.79 Y276.96
G1 F3060 X31.53 Y277.03 E67.97561
G1 X32.25 Y277.25 E68.00043
G1 X32.91 Y277.60 E68.02531
G1 X33.48 Y278.07 E68.05002
G1 X33.95 Y278.65 E68.07484
G1 X34.31 Y279.31 E68.09967
G1 X34.52 Y280.02 E68.12453
G1 X34.60 Y280.77 E68.14936
G1 X34.52 Y281.51 E68.17419
G1 X34.31 Y282.23 E68.19901
G1 X33.96 Y282.88 E68.22378
G1 X33.48 Y283.46 E68.24869
G1 X32.91 Y283.93 E68.27341
G1 X32.25 Y284.29 E68.29832
G1 X31.53 Y284.50 E68.32317
G1 X30.79 Y284.57 E68.34793
G1 X30.05 Y284.50 E68.37280
G1 X29.33 Y284.29 E68.39762
G1 X28.68 Y283.94 E68.42232
G1 X28.09 Y283.46 E68.44737
G1 X27.62 Y282.88 E68.47202
G1 X27.27 Y282.23 E68.49685
G1 X27.05 Y281.51 E68.52171
G1 X26.98 Y280.77 E68.54657
G1 X27.05 Y280.02 E68.57136
G1 X27.27 Y279.31 E68.59618
G1 X27.62 Y278.65 E68.62096
G1 X28.09 Y278.08 E68.64570
G1 X28.68 Y277.60 E68.67075
G1 X29.33 Y277.25 E68.69548
G1 X30.05 Y277.03 E68.72033
G1 X30.79 Y276.96 E68.74513
G0 F6000 X30.79 Y278.06
G1 F3060 X30.26 Y278.12 E68.76277
G1 X29.75 Y278.27 E68.78040
G1 X29.29 Y278.52 E68.79802
G1 X28.88 Y278.86 E68.81562
G1 X28.54 Y279.27 E68.83323
G1 X28.29 Y279.73 E68.85085
G1 X28.14 Y280.24 E68.86847
G1 X28.09 Y280.77 E68.88612
G1 X28.14 Y281.30 E68.90376
G1 X28.29 Y281.80 E68.92139
G1 X28.54 Y282.27 E68.93900
G1 X28.88 Y282.68 E68.95661
G1 X29.29 Y283.01 E68.97421
G1 X29.75 Y283.26 E68.99183
G1 X30.26 Y283.42 E69.00946
G1 X30.79 Y283.47 E69.02710
G1 X31.32 Y283.42 E69.04471
G1 X31.82 Y283.26 E69.06234
G1 X32.29 Y283.02 E69.07994
G1 X32.70 Y282.68 E69.09757
G1 X33.04 Y282.27 E69.11520
G1 X33.29 Y281.80 E69.13285
G1 X33.44 Y281.30 E69.15043
G1 X33.49 Y280.77 E69.16808
G1 X33.44 Y280.24 E69.18573
G1 X33.29 Y279.73 E69.20331
G1 X33.04 Y279.27 E69.22096
G1 X32.70 Y278.86 E69.23859
G1 X32.29 Y278.52 E69.25622
G1 X31.82 Y278.27 E69.27383
G1 X31.32 Y278.12 E69.29145
G1 X30.79 Y278.06 E69.30906
G0 F6000 X30.79 Y278.47
;TYPE:WALL-OUTER
G1 F3060 X30.34 Y278.51 E69.32407
G1 X29.91 Y278.64 E69.33908
G1 X29.51 Y278.86 E69.35410
G1 X29.16 Y279.14 E69.36908
G1 X28.88 Y279.49 E69.38406
G1 X28.66 Y279.89 E69.39907
G1 X28.53 Y280.32 E69.41409
G1 X28.49 Y280.77 E69.42909
G1 X28.53 Y281.22 E69.44410
G1 X28.66 Y281.65 E69.45911
G1 X28.88 Y282.05 E69.47413
G1 X29.16 Y282.39 E69.48911
G1 X29.51 Y282.68 E69.50409
G1 X29.91 Y282.89 E69.51910
G1 X30.34 Y283.02 E69.53412
G1 X30.79 Y283.07 E69.54912
G1 X31.24 Y283.02 E69.56410
G1 X31.67 Y282.89 E69.57911
G1 X32.07 Y282.68 E69.59413
G1 X32.42 Y282.39 E69.60913
G1 X32.70 Y282.05 E69.62411
G1 X32.92 Y281.65 E69.63913
G1 X33.05 Y281.22 E69.65413
G1 X33.09 Y280.77 E69.66914
G1 X33.05 Y280.32 E69.68415
G1 X32.92 Y279.89 E69.69916
G1 X32.70 Y279.49 E69.71417
G1 X32.42 Y279.14 E69.72915
G1 X32.07 Y278.86 E69.74416
G1 X31.67 Y278.64 E69.75917
G1 X31.24 Y278.51 E69.77419
G1 X30.79 Y278.47 E69.78916
G0 F6000 X30.82 Y278.17
G0 X30.79 Y276.86
G0 X30.79 Y276.56
G1 F3060 X31.61 Y276.64 E69.81667
G1 X32.40 Y276.88 E69.84405
G1 X33.13 Y277.27 E69.87148
G1 X33.76 Y277.79 E69.89880
G1 X34.29 Y278.43 E69.92649
G1 X34.68 Y279.16 E69.95379
G1 X34.92 Y279.94 E69.98121
G1 X35.00 Y280.77 E70.00871
G1 X34.92 Y281.59 E70.03622
G1 X34.68 Y282.38 E70.06364
G1 X34.29 Y283.10 E70.09093
G1 X33.76 Y283.75 E70.11863
G1 X33.13 Y284.27 E70.14594
G1 X32.40 Y284.66 E70.17337
G1 X31.61 Y284.90 E70.20076
G1 X30.79 Y284.98 E70.22826
G1 X29.97 Y284.90 E70.25580
G1 X29.18 Y284.66 E70.28319
G1 X28.45 Y284.27 E70.31046
G1 X27.81 Y283.74 E70.33807
G1 X27.29 Y283.10 E70.36563
G1 X26.90 Y282.38 E70.39292
G1 X26.66 Y281.59 E70.42037
G1 X26.58 Y280.77 E70.44784
G1 X26.66 Y279.95 E70.47531
G1 X26.90 Y279.16 E70.50276
G1 X27.29 Y278.43 E70.53005
G1 X27.81 Y277.79 E70.55761
G1 X28.45 Y277.27 E70.58521
G1 X29.18 Y276.88 E70.61249
G1 X29.97 Y276.64 E70.63988
G1 X30.79 Y276.56 E70.66741
G0 F6000 X30.70 Y277.47
G0 X156.06 Y160.93
;TYPE:WALL-INNER
G1 F3060 X155.64 Y160.41 E70.68963
G1 X155.32 Y159.82 E70.71194
G1 X155.13 Y159.18 E70.73414
G1 X155.06 Y158.52 E70.75626
G1 X155.13 Y157.85 E70.77849
G1 X155.25 Y157.45 E70.79239
G1 X155.32 Y157.21 E70.80074
G1 X155.64 Y156.62 E70.82297
G1 X156.06 Y156.11 E70.84512
G1 X156.57 Y155.69 E70.86724
G1 X157.16 Y155.37 E70.88948
G1 X157.80 Y155.18 E70.91172
G1 X158.47 Y155.11 E70.93388
G1 X159.13 Y155.18 E70.95614
G1 X159.77 Y155.37 E70.97824
G1 X160.36 Y155.69 E71.00053
G1 X160.88 Y156.11 E71.02272
G1 X161.30 Y156.63 E71.04490
G1 X161.62 Y157.22 E71.06720
G1 X161.81 Y157.86 E71.08940
G1 X161.87 Y158.52 E71.11159
G1 X161.81 Y159.18 E71.13375
G1 X161.69 Y159.58 E71.14765
G1 X161.61 Y159.82 E71.15600
G1 X161.30 Y160.41 E71.17823
G1 X160.88 Y160.93 E71.20033
G1 X160.36 Y161.35 E71.22252
G1 X159.77 Y161.66 E71.24474
G1 X159.13 Y161.86 E71.26698
G1 X158.47 Y161.92 E71.28917
G1 X157.80 Y161.86 E71.31140
G1 X157.17 Y161.66 E71.33350
G1 X156.57 Y161.35 E71.35582
G1 X156.06 Y160.93 E71.37794
G0 F6000 X156.27 Y160.71
G1 F3060 X156.74 Y161.10 E71.39820
G1 X157.28 Y161.39 E71.41840
G1 X157.86 Y161.56 E71.43868
G1 X158.47 Y161.62 E71.45890
G1 X159.07 Y161.56 E71.47915
G1 X159.66 Y161.39 E71.49942
G1 X160.19 Y161.10 E71.51963
G1 X160.66 Y160.71 E71.53988
G1 X161.05 Y160.24 E71.56014
G1 X161.34 Y159.71 E71.58034
G1 X161.51 Y159.12 E71.60062
G1 X161.57 Y158.52 E71.62087
G1 X161.51 Y157.91 E71.64112
G1 X161.34 Y157.33 E71.66139
G1 X161.05 Y156.79 E71.68160
G1 X160.66 Y156.32 E71.70185
G1 X160.19 Y155.94 E71.72211
G1 X159.66 Y155.65 E71.74231
G1 X159.07 Y155.47 E71.76259
G1 X158.47 Y155.41 E71.78284
G1 X157.86 Y155.47 E71.80306
G1 X157.28 Y155.65 E71.82333
G1 X156.74 Y155.94 E71.84354
G1 X156.27 Y156.32 E71.86379
G1 X155.88 Y156.79 E71.88407
G1 X155.60 Y157.33 E71.90432
G1 X155.42 Y157.91 E71.92453
G1 X155.36 Y158.52 E71.94479
G1 X155.42 Y159.12 E71.96505
G1 X155.60 Y159.71 E71.98526
G1 X155.88 Y160.24 E72.00551
G1 X156.27 Y160.71 E72.02579
G0 F6000 X156.56 Y160.43
G1 F3060 X156.97 Y160.77 E72.04342
G1 X157.43 Y161.01 E72.06102
G1 X157.94 Y161.17 E72.07864
G1 X158.47 Y161.22 E72.09626
G1 X159.00 Y161.17 E72.11390
G1 X159.50 Y161.01 E72.13153
G1 X159.97 Y160.76 E72.14915
G1 X160.38 Y160.43 E72.16675
G1 X160.71 Y160.02 E72.18436
G1 X160.96 Y159.55 E72.20197
G1 X161.12 Y159.05 E72.21960
G1 X161.17 Y158.52 E72.23724
G1 X161.12 Y157.99 E72.25489
G1 X160.96 Y157.48 E72.27251
G1 X160.71 Y157.02 E72.29013
G1 X160.38 Y156.61 E72.30774
G1 X159.97 Y156.27 E72.32534
G1 X159.50 Y156.02 E72.34296
G1 X159.00 Y155.87 E72.36058
G1 X158.47 Y155.81 E72.37823
G1 X157.94 Y155.87 E72.39584
G1 X157.43 Y156.02 E72.41347
G1 X156.97 Y156.27 E72.43107
G1 X156.56 Y156.61 E72.44870
G1 X156.22 Y157.02 E72.46633
G1 X155.97 Y157.48 E72.48398
G1 X155.82 Y157.99 E72.50156
G1 X155.76 Y158.52 E72.51921
G1 X155.82 Y159.05 E72.53686
G1 X155.97 Y159.55 E72.55444
G1 X156.22 Y160.02 E72.57209
G1 X156.56 Y160.43 E72.58972
G0 F6000 X155.78 Y161.21
G1 F3060 X155.30 Y160.63 E72.61454
G1 X154.95 Y159.98 E72.63937
G1 X154.73 Y159.26 E72.66422
G1 X154.66 Y158.52 E72.68906
G1 X154.73 Y157.78 E72.71389
G1 X154.95 Y157.06 E72.73871
G1 X155.30 Y156.40 E72.76348
G1 X155.78 Y155.82 E72.78839
G1 X156.35 Y155.35 E72.81311
G1 X157.01 Y155.00 E72.83802
G1 X157.73 Y154.78 E72.86287
G1 X158.47 Y154.71 E72.88763
G1 X159.21 Y154.78 E72.91250
G1 X159.93 Y155.00 E72.93732
G1 X160.58 Y155.35 E72.96202
G1 X161.16 Y155.83 E72.98707
G1 X161.63 Y156.40 E73.01172
G1 X161.99 Y157.06 E73.03655
G1 X162.20 Y157.78 E73.06140
G1 X162.27 Y158.52 E73.08623
G1 X162.20 Y159.26 E73.11106
G1 X161.99 Y159.97 E73.13588
G1 X161.63 Y160.63 E73.16066
G1 X161.16 Y161.21 E73.18540
G1 X160.58 Y161.69 E73.21045
G1 X159.92 Y162.03 E73.23518
G1 X159.21 Y162.25 E73.26003
G1 X158.47 Y162.32 E73.28483
G1 X157.72 Y162.25 E73.30966
G1 X157.01 Y162.03 E73.33448
G1 X156.35 Y161.68 E73.35936
G1 X155.78 Y161.21 E73.38407
G0 F6000 X155.49 Y161.50
;TYPE:WALL-OUTER
G1 F3060 X154.97 Y160.85 E73.41177
G1 X154.58 Y160.13 E73.43906
G1 X154.34 Y159.34 E73.46648
G1 X154.26 Y158.52 E73.49399
G1 X154.34 Y157.69 E73.52149
G1 X154.58 Y156.91 E73.54891
G1 X154.97 Y156.18 E73.57621
G1 X155.49 Y155.54 E73.60390
G1 X156.13 Y155.02 E73.63122
G1 X156.86 Y154.63 E73.65865
G1 X157.64 Y154.39 E73.68603
G1 X158.47 Y154.31 E73.71354
G1 X159.29 Y154.39 E73.74108
G1 X160.08 Y154.63 E73.76847
G1 X160.80 Y155.02 E73.79574
G1 X161.44 Y155.54 E73.82335
G1 X161.97 Y156.18 E73.85090
G1 X162.36 Y156.91 E73.87820
G1 X162.60 Y157.70 E73.90565
G1 X162.68 Y158.52 E73.93312
G1 X162.60 Y159.34 E73.96059
G1 X162.36 Y160.13 E73.98804
G1 X161.97 Y160.85 E74.01533
G1 X161.44 Y161.49 E74.04289
G1 X160.80 Y162.02 E74.07049
G1 X160.08 Y162.41 E74.09777
G1 X159.29 Y162.65 E74.12515
G1 X158.47 Y162.73 E74.15269
G1 X157.64 Y162.65 E74.18020
G1 X156.86 Y162.41 E74.20759
G1 X156.13 Y162.02 E74.23501
G1 X155.49 Y161.50 E74.26233
G0 F6000 X155.70 Y161.28
G0 X156.61 Y160.33
G0 X156.84 Y160.15
G1 F3060 X157.19 Y160.43 E74.27734
G1 X157.59 Y160.64 E74.29235
G1 X158.02 Y160.78 E74.30736
G1 X158.47 Y160.82 E74.32234
G1 X158.92 Y160.78 E74.33734
G1 X159.35 Y160.64 E74.35236
G1 X159.75 Y160.43 E74.36737
G1 X160.09 Y160.15 E74.38235
G1 X160.38 Y159.80 E74.39733
G1 X160.59 Y159.40 E74.41235
G1 X160.72 Y158.97 E74.42736
G1 X160.77 Y158.52 E74.44237
G1 X160.72 Y158.07 E74.45737
G1 X160.59 Y157.64 E74.47239
G1 X160.38 Y157.24 E74.48740
G1 X160.09 Y156.89 E74.50238
G1 X159.75 Y156.60 E74.51737
G1 X159.35 Y156.39 E74.53238
G1 X158.92 Y156.26 E74.54739
G1 X158.47 Y156.22 E74.56240
G1 X158.02 Y156.26 E74.57737
G1 X157.59 Y156.39 E74.59239
G1 X157.19 Y156.60 E74.60740
G1 X156.84 Y156.89 E74.62241
G1 X156.55 Y157.24 E74.63739
G1 X156.34 Y157.64 E74.65240
G1 X156.21 Y158.07 E74.66741
G1 X156.17 Y158.52 E74.68242
G1 X156.21 Y158.97 E74.69743
G1 X156.34 Y159.40 E74.71243
G1 X156.55 Y159.80 E74.72744
G1 X156.84 Y160.15 E74.74243
G0 F6000 X156.15 Y160.72
G0 X49.50 Y42.78
;TYPE:WALL-INNER
G1 F3060 X48.98 Y43.21 E74.76459
G1 X48.40 Y43.52 E74.78684
G1 X47.75 Y43.72 E74.80911
G1 X47.09 Y43.78 E74.83124
G1 X46.43 Y43.72 E74.85346
G1 X46.03 Y43.59 E74.86736
G1 X45.79 Y43.52 E74.87571
G1 X45.20 Y43.21 E74.89788
G1 X44.68 Y42.78 E74.92005
G1 X44.26 Y42.27 E74.94222
G1 X43.95 Y41.68 E74.96446
G1 X43.75 Y41.04 E74.98674
G1 X43.69 Y40.38 E75.00886
