;-- START GCODE --
;Sliced for Type A Machines Series 1
;Sliced at: Sat 03-12-2016 18:06:32
;Basic settings: Layer height: 0.2 Walls: 3 Fill: 20
;Print Speed: 100 Support: 0
;Retraction Speed: 40 Retraction Distance: 1.2
;Print time: #P_TIME#
;Filament used: #F_AMNT#m #F_WGHT#g
;Filament cost: #F_COST#
M106 S255	 ;start with the fan on
G21        ;metric values
G90        ;absolute positioning
M106 S255    ;start with the fan on
G28     ;move to endstops
G29		;allows for auto-levelling
G1 X150 Y5  Z15.0 F6000 ;center and move the platform down 15mm
M109 S220 ;Heat To temp
G92 E0                  ;zero the extruded length
G1 F200 E30              ;extrude 30mm of feed stock
G92 E0                  ;zero the extruded length again
G1 X175 Y25  Z0 F6000 ;remove bugger
G1 X220 F6000 ;remove bugger
G1 X150 Y150  Z15 F6000 ;recenter and begin
G1 F6000

;Layer count: 27
;LAYER:0
M106 S255
G0 F6000 X143.22 Y143.52 Z0.30
;TYPE:SKIRT
G1 F2700 X144.26 Y142.55 E0.07600
G1 X145.42 Y141.70 E0.15252
G1 X146.29 Y141.18 E0.20676
G1 X147.46 Y140.61 E0.27597
G1 X148.85 Y140.11 E0.35521
G1 X150.30 Y139.77 E0.43469
G1 X151.71 Y139.61 E0.51017
G1 X152.75 Y139.59 E0.56571
G1 X154.18 Y139.69 E0.64224
G1 X155.64 Y139.97 E0.72191
G1 X157.07 Y140.42 E0.80145
G1 X158.43 Y141.03 E0.88122
G1 X159.72 Y141.79 E0.96097
G1 X160.84 Y142.65 E1.03651
G1 X161.57 Y143.31 E1.08914
G1 X162.15 Y143.93 E1.13450
G1 X162.62 Y144.48 E1.17320
G1 X163.40 Y145.57 E1.24467
G1 X163.91 Y146.45 E1.29889
G1 X164.43 Y147.56 E1.36458
G1 X164.78 Y148.52 E1.41888
G1 X165.10 Y149.70 E1.48422
G1 X165.29 Y150.70 E1.53831
G1 X165.40 Y151.91 E1.60361
G1 X165.41 Y152.87 E1.65459
G1 X165.34 Y153.83 E1.70585
G1 X165.15 Y155.11 E1.77499
G1 X164.77 Y156.53 E1.85377
G1 X164.22 Y157.93 E1.93380
G1 X163.51 Y159.25 E2.01355
G1 X162.78 Y160.30 E2.08186
G1 X162.50 Y160.67 E2.10679
G1 X161.80 Y161.44 E2.16236
G1 X161.49 Y161.77 E2.18645
G1 X160.49 Y162.64 E2.25748
G1 X159.72 Y163.20 E2.30846
G1 X159.03 Y163.64 E2.35192
G1 X157.89 Y164.24 E2.42062
G1 X156.51 Y164.78 E2.49977
G1 X155.07 Y165.16 E2.57926
G1 X153.67 Y165.36 E2.65476
G1 X152.62 Y165.41 E2.71084
G1 X151.20 Y165.35 E2.78677
G1 X149.72 Y165.11 E2.86666
G1 X148.35 Y164.73 E2.94246
G1 X147.40 Y164.36 E2.99694
G1 X146.23 Y163.79 E3.06673
G1 X144.98 Y163.00 E3.14534
G1 X143.85 Y162.09 E3.22278
G1 X143.05 Y161.29 E3.28333
G1 X142.20 Y160.29 E3.35343
G1 X141.41 Y159.11 E3.42932
G1 X140.98 Y158.31 E3.47786
G1 X140.66 Y157.65 E3.51694
G1 X140.17 Y156.33 E3.59216
G1 X139.81 Y154.88 E3.67158
G1 X139.63 Y153.48 E3.74715
G1 X139.59 Y152.43 E3.80308
G1 X139.67 Y151.01 E3.87906
G1 X139.93 Y149.54 E3.95867
G1 X140.35 Y148.11 E4.03858
G1 X140.94 Y146.73 E4.11833
G1 X141.69 Y145.44 E4.19792
G1 X142.53 Y144.30 E4.27357
G1 X143.22 Y143.52 E4.32927
G0 F6000 X143.53 Y143.82
G1 F2700 X144.54 Y142.88 E4.40288
G1 X145.66 Y142.06 E4.47696
G1 X146.50 Y141.56 E4.52917
G1 X147.62 Y141.00 E4.59616
G1 X148.97 Y140.52 E4.67278
G1 X150.38 Y140.19 E4.74964
G1 X151.74 Y140.04 E4.82276
G1 X152.74 Y140.02 E4.87621
G1 X154.12 Y140.12 E4.95028
G1 X155.54 Y140.39 E5.02729
G1 X156.91 Y140.82 E5.10426
G1 X158.23 Y141.41 E5.18135
G1 X159.48 Y142.14 E5.25849
G1 X160.57 Y142.97 E5.33163
G1 X161.27 Y143.62 E5.38237
G1 X161.83 Y144.22 E5.42629
G1 X162.28 Y144.75 E5.46348
G1 X163.04 Y145.81 E5.53287
G1 X163.53 Y146.65 E5.58511
G1 X164.04 Y147.73 E5.64879
G1 X164.38 Y148.65 E5.70105
G1 X164.69 Y149.79 E5.76440
G1 X164.86 Y150.75 E5.81654
G1 X164.97 Y151.94 E5.87990
G1 X164.98 Y152.86 E5.92907
G1 X164.92 Y153.78 E5.97850
G1 X164.73 Y155.02 E6.04545
G1 X164.36 Y156.40 E6.12168
G1 X163.83 Y157.75 E6.19902
G1 X163.15 Y159.02 E6.27611
G1 X162.44 Y160.04 E6.34254
G1 X162.17 Y160.39 E6.36603
G1 X161.49 Y161.15 E6.42032
G1 X161.19 Y161.46 E6.44305
G1 X160.22 Y162.31 E6.51208
G1 X159.48 Y162.85 E6.56122
G1 X158.81 Y163.27 E6.60317
G1 X157.71 Y163.85 E6.66967
G1 X156.38 Y164.37 E6.74621
G1 X154.98 Y164.74 E6.82304
G1 X153.63 Y164.93 E6.89623
G1 X152.62 Y164.98 E6.95016
G1 X151.24 Y164.92 E7.02368
G1 X149.81 Y164.69 E7.10093
G1 X148.49 Y164.32 E7.17434
G1 X147.57 Y163.97 E7.22677
G1 X146.44 Y163.41 E7.29431
G1 X145.23 Y162.65 E7.37035
G1 X144.14 Y161.77 E7.44531
G1 X143.36 Y161.00 E7.50371
G1 X142.54 Y160.03 E7.57151
G1 X141.78 Y158.89 E7.64500
G1 X141.36 Y158.11 E7.69196
G1 X141.05 Y157.48 E7.72942
G1 X140.57 Y156.20 E7.80233
G1 X140.23 Y154.80 E7.87910
G1 X140.05 Y153.44 E7.95230
G1 X140.02 Y152.44 E8.00609
G1 X140.10 Y151.06 E8.07972
G1 X140.35 Y149.64 E8.15667
G1 X140.76 Y148.25 E8.23393
G1 X141.33 Y146.93 E8.31100
G1 X142.04 Y145.68 E8.38793
G1 X142.86 Y144.57 E8.46126
G1 X143.53 Y143.82 E8.51483
G0 F6000 X143.84 Y144.12
G1 F2700 X144.81 Y143.21 E8.58603
G1 X145.89 Y142.42 E8.65771
G1 X146.70 Y141.94 E8.70790
G1 X147.79 Y141.40 E8.77265
G1 X149.09 Y140.93 E8.84662
G1 X150.45 Y140.62 E8.92090
G1 X151.77 Y140.47 E8.99165
G1 X152.73 Y140.45 E9.04302
G1 X154.07 Y140.54 E9.11463
G1 X155.44 Y140.80 E9.18903
G1 X156.76 Y141.22 E9.26332
G1 X158.04 Y141.79 E9.33783
G1 X159.24 Y142.50 E9.41224
G1 X160.29 Y143.30 E9.48309
G1 X160.97 Y143.92 E9.53191
G1 X161.51 Y144.50 E9.57443
G1 X161.94 Y145.01 E9.61003
G1 X162.68 Y146.04 E9.67739
G1 X163.15 Y146.85 E9.72760
G1 X163.64 Y147.90 E9.78925
G1 X163.97 Y148.78 E9.83951
G1 X164.27 Y149.89 E9.90093
G1 X164.44 Y150.81 E9.95102
G1 X164.54 Y151.96 E10.01245
G1 X164.55 Y152.85 E10.05985
G1 X164.49 Y153.74 E10.10747
G1 X164.31 Y154.94 E10.17220
G1 X163.96 Y156.27 E10.24583
G1 X163.44 Y157.57 E10.32053
G1 X162.78 Y158.80 E10.39495
G1 X162.09 Y159.79 E10.45953
G1 X161.84 Y160.12 E10.48161
G1 X161.18 Y160.86 E10.53461
G1 X160.90 Y161.15 E10.55598
G1 X159.96 Y161.97 E10.62293
G1 X159.24 Y162.49 E10.67032
G1 X158.60 Y162.90 E10.71064
G1 X157.53 Y163.46 E10.77497
G1 X156.24 Y163.96 E10.84892
G1 X154.90 Y164.32 E10.92311
G1 X153.59 Y164.51 E10.99392
G1 X152.62 Y164.56 E11.04572
G1 X151.28 Y164.50 E11.11689
G1 X149.91 Y164.28 E11.19144
G1 X148.62 Y163.91 E11.26246
G1 X147.74 Y163.57 E11.31288
G1 X146.64 Y163.04 E11.37816
G1 X145.48 Y162.30 E11.45163
G1 X144.43 Y161.45 E11.52410
G1 X143.68 Y160.71 E11.58034
G1 X142.88 Y159.77 E11.64586
G1 X142.14 Y158.66 E11.71697
G1 X141.74 Y157.92 E11.76228
G1 X141.45 Y157.31 E11.79822
G1 X140.99 Y156.07 E11.86877
G1 X140.65 Y154.72 E11.94291
G1 X140.48 Y153.41 E12.01375
G1 X140.45 Y152.44 E12.06545
G1 X140.52 Y151.11 E12.13663
G1 X140.76 Y149.74 E12.21097
G1 X141.16 Y148.40 E12.28556
G1 X141.71 Y147.12 E12.36000
G1 X142.40 Y145.91 E12.43430
G1 X143.19 Y144.84 E12.50523
G1 X143.84 Y144.12 E12.55672
G0 F6000 X144.14 Y144.42
G1 F2700 X145.09 Y143.54 E12.62558
G1 X146.13 Y142.77 E12.69481
G1 X146.91 Y142.31 E12.74297
G1 X147.96 Y141.79 E12.80552
G1 X149.22 Y141.34 E12.87688
G1 X150.52 Y141.04 E12.94847
G1 X151.79 Y140.90 E13.01691
G1 X152.72 Y140.88 E13.06614
G1 X154.01 Y140.97 E13.13540
G1 X155.33 Y141.22 E13.20713
G1 X156.61 Y141.62 E13.27878
G1 X157.84 Y142.17 E13.35062
G1 X159.00 Y142.85 E13.42237
G1 X160.02 Y143.63 E13.49087
G1 X160.67 Y144.22 E13.53776
G1 X161.19 Y144.79 E13.57888
G1 X161.61 Y145.27 E13.61300
G1 X162.32 Y146.27 E13.67819
G1 X162.77 Y147.05 E13.72643
G1 X163.25 Y148.06 E13.78613
G1 X163.56 Y148.91 E13.83440
G1 X163.85 Y149.98 E13.89383
G1 X164.01 Y150.87 E13.94191
G1 X164.11 Y151.98 E14.00135
G1 X164.12 Y152.83 E14.04694
G1 X164.06 Y153.69 E14.09279
G1 X163.89 Y154.85 E14.15530
G1 X163.55 Y156.13 E14.22634
G1 X163.05 Y157.39 E14.29835
G1 X162.42 Y158.57 E14.37017
G1 X161.75 Y159.54 E14.43289
G1 X161.51 Y159.84 E14.45352
G1 X160.86 Y160.57 E14.50523
G1 X160.60 Y160.84 E14.52528
G1 X159.69 Y161.64 E14.59015
G1 X159.00 Y162.14 E14.63573
G1 X158.38 Y162.53 E14.67451
G1 X157.35 Y163.07 E14.73664
G1 X156.11 Y163.56 E14.80799
G1 X154.81 Y163.90 E14.87954
G1 X153.54 Y164.08 E14.94803
G1 X152.61 Y164.13 E14.99769
G1 X151.33 Y164.07 E15.06640
G1 X150.00 Y163.86 E15.13835
G1 X148.76 Y163.51 E15.20699
G1 X147.91 Y163.18 E15.25537
G1 X146.85 Y162.66 E15.31838
G1 X145.73 Y161.96 E15.38926
G1 X144.71 Y161.13 E15.45925
G1 X143.99 Y160.42 E15.51338
G1 X143.22 Y159.51 E15.57660
G1 X142.51 Y158.44 E15.64532
G1 X142.12 Y157.72 E15.68906
G1 X141.84 Y157.14 E15.72334
G1 X141.39 Y155.95 E15.79162
G1 X141.07 Y154.65 E15.86312
G1 X140.91 Y153.37 E15.93158
G1 X140.88 Y152.45 E15.98115
G1 X140.95 Y151.16 E16.04997
G1 X141.18 Y149.84 E16.12166
G1 X141.56 Y148.54 E16.19357
G1 X142.09 Y147.31 E16.26536
G1 X142.76 Y146.15 E16.33700
G1 X143.53 Y145.11 E16.40560
G1 X144.14 Y144.42 E16.45494
G0 F6000 X144.45 Y144.72
G1 F2700 X145.36 Y143.87 E16.52138
G1 X146.37 Y143.13 E16.58824
G1 X147.11 Y142.69 E16.63439
G1 X148.12 Y142.19 E16.69469
G1 X149.34 Y141.76 E16.76343
G1 X150.59 Y141.46 E16.83240
G1 X151.82 Y141.32 E16.89847
G1 X152.71 Y141.30 E16.94562
G1 X153.96 Y141.39 E17.01242
G1 X155.23 Y141.64 E17.08149
G1 X156.46 Y142.02 E17.15051
G1 X157.64 Y142.55 E17.21969
G1 X158.76 Y143.21 E17.28884
G1 X159.74 Y143.96 E17.35493
G1 X160.37 Y144.53 E17.39997
G1 X160.87 Y145.07 E17.43970
G1 X161.27 Y145.54 E17.47222
G1 X161.96 Y146.50 E17.53538
G1 X162.39 Y147.25 E17.58157
G1 X162.85 Y148.23 E17.63928
G1 X163.15 Y149.04 E17.68556
G1 X163.43 Y150.08 E17.74306
G1 X163.59 Y150.93 E17.78912
G1 X163.69 Y152.00 E17.84664
G1 X163.69 Y152.82 E17.89041
G1 X163.64 Y153.64 E17.93444
G1 X163.47 Y154.76 E17.99474
G1 X163.14 Y156.00 E18.06318
G1 X162.66 Y157.21 E18.13255
G1 X162.05 Y158.35 E18.20169
G1 X161.40 Y159.29 E18.26255
G1 X161.18 Y159.57 E18.28178
G1 X160.55 Y160.28 E18.33221
G1 X160.31 Y160.53 E18.35086
G1 X159.42 Y161.30 E18.41373
G1 X158.76 Y161.78 E18.45752
G1 X158.17 Y162.16 E18.49474
G1 X157.18 Y162.68 E18.55467
G1 X155.98 Y163.15 E18.62340
G1 X154.73 Y163.48 E18.69230
G1 X153.50 Y163.65 E18.75842
G1 X152.61 Y163.70 E18.80594
G1 X151.37 Y163.64 E18.87230
G1 X150.09 Y163.44 E18.94155
G1 X148.90 Y163.10 E19.00786
G1 X148.08 Y162.79 E19.05422
G1 X147.06 Y162.29 E19.11494
G1 X145.98 Y161.61 E19.18327
G1 X145.00 Y160.81 E19.25072
G1 X144.31 Y160.13 E19.30270
G1 X143.57 Y159.26 E19.36364
G1 X142.88 Y158.22 E19.42998
G1 X142.50 Y157.53 E19.47207
G1 X142.24 Y156.98 E19.50482
G1 X141.80 Y155.82 E19.57075
G1 X141.49 Y154.57 E19.63961
G1 X141.34 Y153.34 E19.70576
G1 X141.30 Y152.45 E19.75314
G1 X141.38 Y151.21 E19.81961
G1 X141.60 Y149.94 E19.88859
G1 X141.97 Y148.69 E19.95793
G1 X142.48 Y147.50 E20.02706
G1 X143.12 Y146.38 E20.09605
G1 X143.86 Y145.38 E20.16228
G1 X144.45 Y144.72 E20.20946
G0 F6000 X144.75 Y145.02
G1 F2700 X145.63 Y144.20 E20.27349
G1 X146.60 Y143.49 E20.33786
G1 X147.31 Y143.06 E20.38202
G1 X148.29 Y142.58 E20.44011
G1 X149.46 Y142.17 E20.50624
G1 X150.67 Y141.88 E20.57258
G1 X151.85 Y141.75 E20.63629
G1 X152.70 Y141.73 E20.68131
G1 X153.90 Y141.82 E20.74569
G1 X155.12 Y142.05 E20.81215
G1 X156.31 Y142.42 E20.87849
G1 X157.45 Y142.93 E20.94505
G1 X158.52 Y143.57 E21.01154
G1 X159.47 Y144.29 E21.07527
G1 X160.06 Y144.84 E21.11842
G1 X160.56 Y145.36 E21.15671
G1 X160.93 Y145.80 E21.18772
G1 X161.59 Y146.73 E21.24878
G1 X162.01 Y147.45 E21.29296
G1 X162.46 Y148.39 E21.34872
G1 X162.74 Y149.17 E21.39295
G1 X163.02 Y150.17 E21.44845
G1 X163.16 Y150.99 E21.49256
G1 X163.26 Y152.02 E21.54810
G1 X163.26 Y152.81 E21.59011
G1 X163.21 Y153.60 E21.63232
G1 X163.05 Y154.67 E21.69041
G1 X162.73 Y155.87 E21.75625
G1 X162.28 Y157.03 E21.82293
G1 X161.69 Y158.13 E21.88947
G1 X161.06 Y159.03 E21.94842
G1 X160.85 Y159.30 E21.96627
G1 X160.24 Y159.98 E22.01541
G1 X160.01 Y160.22 E22.03270
G1 X159.16 Y160.97 E22.09353
G1 X158.52 Y161.43 E22.13553
G1 X157.95 Y161.78 E22.17116
G1 X157.00 Y162.29 E22.22888
G1 X155.84 Y162.74 E22.29502
G1 X154.64 Y163.06 E22.36131
G1 X153.46 Y163.23 E22.42506
G1 X152.61 Y163.27 E22.47044
G1 X151.41 Y163.22 E22.53440
G1 X150.18 Y163.02 E22.60101
G1 X149.03 Y162.69 E22.66487
G1 X148.25 Y162.40 E22.70924
G1 X147.27 Y161.92 E22.76768
G1 X146.23 Y161.26 E22.83343
G1 X145.28 Y160.49 E22.89841
G1 X144.62 Y159.84 E22.94828
G1 X143.91 Y159.00 E23.00694
G1 X143.24 Y158.00 E23.07086
G1 X142.88 Y157.34 E23.11132
G1 X142.63 Y156.81 E23.14253
G1 X142.21 Y155.69 E23.20608
G1 X141.91 Y154.49 E23.27234
G1 X141.76 Y153.30 E23.33612
G1 X141.73 Y152.46 E23.38142
G1 X141.80 Y151.26 E23.44543
G1 X142.01 Y150.03 E23.51181
G1 X142.37 Y148.84 E23.57847
G1 X142.86 Y147.69 E23.64493
G1 X143.48 Y146.61 E23.71134
G1 X144.19 Y145.65 E23.77516
G1 X144.75 Y145.02 E23.82031
G0 F6000 X145.06 Y145.32
G1 F2700 X145.91 Y144.53 E23.88195
G1 X146.84 Y143.84 E23.94392
G1 X147.52 Y143.44 E23.98609
G1 X148.46 Y142.98 E24.04191
G1 X149.58 Y142.58 E24.10545
G1 X150.74 Y142.31 E24.16914
G1 X151.88 Y142.18 E24.23049
G1 X152.69 Y142.16 E24.27343
G1 X153.84 Y142.24 E24.33535
G1 X155.02 Y142.47 E24.39921
G1 X156.16 Y142.82 E24.46291
G1 X157.25 Y143.31 E24.52679
G1 X158.28 Y143.92 E24.59064
G1 X159.19 Y144.62 E24.65205
G1 X159.76 Y145.14 E24.69323
G1 X160.24 Y145.64 E24.73017
G1 X160.59 Y146.06 E24.75959
G1 X161.24 Y146.96 E24.81861
G1 X161.63 Y147.65 E24.86076
G1 X162.06 Y148.56 E24.91456
G1 X162.33 Y149.30 E24.95675
G1 X162.60 Y150.27 E25.01031
G1 X162.74 Y151.04 E25.05241
G1 X162.83 Y152.04 E25.10596
G1 X162.84 Y152.80 E25.14622
G1 X162.79 Y153.55 E25.18661
G1 X162.63 Y154.59 E25.24242
G1 X162.33 Y155.73 E25.30573
G1 X161.89 Y156.85 E25.36977
G1 X161.32 Y157.90 E25.43358
G1 X160.71 Y158.78 E25.49073
G1 X160.52 Y159.02 E25.50714
G1 X159.92 Y159.69 E25.55500
G1 X159.72 Y159.91 E25.57093
G1 X158.89 Y160.63 E25.62967
G1 X158.28 Y161.07 E25.66991
G1 X157.74 Y161.41 E25.70399
G1 X156.82 Y161.90 E25.75955
G1 X155.71 Y162.33 E25.82303
G1 X154.56 Y162.64 E25.88672
G1 X153.42 Y162.80 E25.94810
G1 X152.61 Y162.84 E25.99134
G1 X151.46 Y162.79 E26.05295
G1 X150.27 Y162.60 E26.11689
G1 X149.17 Y162.29 E26.17838
G1 X148.43 Y162.00 E26.22068
G1 X147.48 Y161.54 E26.27688
G1 X146.48 Y160.91 E26.34006
G1 X145.57 Y160.17 E26.40258
G1 X144.94 Y159.54 E26.45021
G1 X144.25 Y158.74 E26.50664
G1 X143.61 Y157.78 E26.56818
G1 X143.26 Y157.14 E26.60704
G1 X143.03 Y156.64 E26.63664
G1 X142.62 Y155.57 E26.69786
G1 X142.34 Y154.41 E26.76148
G1 X142.19 Y153.27 E26.82290
G1 X142.16 Y152.46 E26.86606
G1 X142.23 Y151.31 E26.92772
G1 X142.43 Y150.13 E26.99145
G1 X142.77 Y148.98 E27.05543
G1 X143.25 Y147.88 E27.11928
G1 X143.84 Y146.85 E27.18299
G1 X144.52 Y145.92 E27.24448
G1 X145.06 Y145.32 E27.28747
G0 F6000 X145.37 Y145.62
G1 F2700 X146.18 Y144.86 E27.34677
G1 X147.08 Y144.20 E27.40627
G1 X147.72 Y143.82 E27.44641
G1 X148.62 Y143.37 E27.50003
G1 X149.70 Y142.99 E27.56097
G1 X150.81 Y142.73 E27.62203
G1 X151.91 Y142.61 E27.68107
G1 X152.68 Y142.59 E27.72182
G1 X153.79 Y142.67 E27.78139
G1 X154.91 Y142.88 E27.84252
G1 X156.00 Y143.22 E27.90361
G1 X157.05 Y143.69 E27.96485
G1 X158.04 Y144.28 E28.02606
G1 X158.92 Y144.95 E28.08507
G1 X159.46 Y145.44 E28.12440
G1 X159.92 Y145.93 E28.15990
G1 X160.26 Y146.33 E28.18781
G1 X160.88 Y147.20 E28.24476
G1 X161.25 Y147.85 E28.28485
G1 X161.67 Y148.72 E28.33666
G1 X161.93 Y149.43 E28.37686
G1 X162.18 Y150.36 E28.42848
G1 X162.31 Y151.10 E28.46858
G1 X162.40 Y152.06 E28.52020
G1 X162.41 Y152.78 E28.55858
G1 X162.36 Y153.51 E28.59721
G1 X162.21 Y154.50 E28.65081
G1 X161.92 Y155.60 E28.71152
G1 X161.50 Y156.67 E28.77292
G1 X160.96 Y157.68 E28.83406
G1 X160.37 Y158.53 E28.88937
G1 X160.19 Y158.75 E28.90436
G1 X159.61 Y159.40 E28.95094
G1 X159.42 Y159.60 E28.96551
G1 X158.62 Y160.30 E29.02221
G1 X158.04 Y160.72 E29.06065
G1 X157.52 Y161.04 E29.09315
G1 X156.64 Y161.51 E29.14649
G1 X155.58 Y161.93 E29.20738
G1 X154.47 Y162.22 E29.26843
G1 X153.38 Y162.37 E29.32743
G1 X152.61 Y162.41 E29.36859
G1 X151.50 Y162.36 E29.42774
G1 X150.37 Y162.18 E29.48904
G1 X149.30 Y161.88 E29.54819
G1 X148.60 Y161.61 E29.58844
G1 X147.69 Y161.17 E29.64244
G1 X146.73 Y160.56 E29.70300
G1 X145.85 Y159.85 E29.76305
G1 X145.25 Y159.25 E29.80854
G1 X144.59 Y158.48 E29.86262
G1 X143.98 Y157.56 E29.92185
G1 X143.65 Y156.95 E29.95904
G1 X143.42 Y156.47 E29.98709
G1 X143.03 Y155.44 E30.04596
G1 X142.76 Y154.33 E30.10695
G1 X142.62 Y153.23 E30.16600
G1 X142.59 Y152.47 E30.20703
G1 X142.65 Y151.36 E30.26627
G1 X142.85 Y150.23 E30.32740
G1 X143.18 Y149.13 E30.38871
G1 X143.63 Y148.07 E30.44988
G1 X144.20 Y147.08 E30.51100
G1 X144.86 Y146.19 E30.57010
G1 X145.37 Y145.62 E30.61097
G0 F6000 X145.67 Y145.92
G1 F2700 X146.45 Y145.19 E30.66785
G1 X147.31 Y144.56 E30.72494
G1 X147.93 Y144.19 E30.76306
G1 X148.79 Y143.77 E30.81446
G1 X149.82 Y143.40 E30.87278
G1 X150.89 Y143.15 E30.93121
G1 X151.94 Y143.03 E30.98789
G1 X152.66 Y143.02 E31.02655
G1 X153.73 Y143.09 E31.08366
G1 X154.81 Y143.30 E31.14218
G1 X155.85 Y143.63 E31.20063
G1 X156.86 Y144.07 E31.25920
G1 X157.80 Y144.63 E31.31772
G1 X158.64 Y145.28 E31.37441
G1 X159.16 Y145.75 E31.41185
G1 X159.60 Y146.22 E31.44595
G1 X159.92 Y146.59 E31.47230
G1 X160.51 Y147.43 E31.52712
G1 X160.87 Y148.05 E31.56530
G1 X161.27 Y148.89 E31.61508
G1 X161.52 Y149.56 E31.65330
G1 X161.76 Y150.46 E31.70294
G1 X161.89 Y151.16 E31.74102
G1 X161.97 Y152.09 E31.79066
G1 X161.98 Y152.77 E31.82729
G1 X161.94 Y153.46 E31.86409
G1 X161.79 Y154.41 E31.91548
G1 X161.51 Y155.46 E31.97360
G1 X161.11 Y156.49 E32.03229
G1 X160.59 Y157.45 E32.09083
G1 X160.02 Y158.28 E32.14426
G1 X159.86 Y158.48 E32.15785
G1 X159.30 Y159.11 E32.20310
G1 X159.12 Y159.29 E32.21635
G1 X158.36 Y159.96 E32.27101
G1 X157.80 Y160.36 E32.30765
G1 X157.31 Y160.67 E32.33857
G1 X156.46 Y161.12 E32.38972
G1 X155.44 Y161.52 E32.44800
G1 X154.39 Y161.80 E32.50641
G1 X153.34 Y161.95 E32.56309
G1 X152.61 Y161.98 E32.60206
G1 X151.54 Y161.94 E32.65886
G1 X150.46 Y161.76 E32.71751
G1 X149.44 Y161.47 E32.77422
G1 X148.77 Y161.22 E32.81246
G1 X147.90 Y160.79 E32.86420
G1 X146.98 Y160.21 E32.92219
G1 X146.14 Y159.53 E32.97974
G1 X145.56 Y158.96 E33.02308
G1 X144.94 Y158.22 E33.07489
G1 X144.34 Y157.34 E33.13173
G1 X144.03 Y156.75 E33.16727
G1 X143.81 Y156.30 E33.19379
G1 X143.44 Y155.31 E33.25033
G1 X143.18 Y154.25 E33.30869
G1 X143.04 Y153.20 E33.36536
G1 X143.02 Y152.47 E33.40430
G1 X143.08 Y151.41 E33.46115
G1 X143.27 Y150.33 E33.51961
G1 X143.58 Y149.27 E33.57827
G1 X144.01 Y148.27 E33.63681
G1 X144.56 Y147.32 E33.69528
G1 X145.19 Y146.46 E33.75201
G1 X145.67 Y145.92 E33.79076
G0 F6000 X145.98 Y146.22
G1 F2700 X146.73 Y145.52 E33.84526
G1 X147.55 Y144.92 E33.89991
G1 X148.13 Y144.57 E33.93601
G1 X148.96 Y144.16 E33.98519
G1 X149.94 Y143.81 E34.04089
G1 X150.96 Y143.57 E34.09670
G1 X151.97 Y143.46 E34.15101
G1 X152.65 Y143.44 E34.18753
G1 X153.68 Y143.52 E34.24223
G1 X154.71 Y143.72 E34.29815
G1 X155.70 Y144.03 E34.35392
G1 X156.66 Y144.45 E34.40984
G1 X157.56 Y144.99 E34.46578
G1 X158.37 Y145.60 E34.52006
G1 X158.86 Y146.05 E34.55558
G1 X159.28 Y146.50 E34.58832
G1 X159.58 Y146.85 E34.61312
G1 X160.15 Y147.66 E34.66587
G1 X160.49 Y148.25 E34.70201
G1 X160.88 Y149.05 E34.74979
G1 X161.11 Y149.69 E34.78602
G1 X161.34 Y150.55 E34.83371
G1 X161.47 Y151.22 E34.86979
G1 X161.55 Y152.11 E34.91750
G1 X161.55 Y152.76 E34.95231
G1 X161.51 Y153.41 E34.98730
G1 X161.37 Y154.32 E35.03648
G1 X161.10 Y155.33 E35.09199
G1 X160.72 Y156.31 E35.14804
G1 X160.22 Y157.23 E35.20391
G1 X159.67 Y158.02 E35.25546
G1 X159.53 Y158.20 E35.26764
G1 X158.98 Y158.82 E35.31164
G1 X158.83 Y158.98 E35.32349
G1 X158.09 Y159.63 E35.37611
G1 X157.56 Y160.01 E35.41099
G1 X157.09 Y160.30 E35.44031
G1 X156.28 Y160.73 E35.48931
G1 X155.31 Y161.11 E35.54497
G1 X154.30 Y161.38 E35.60073
G1 X153.29 Y161.52 E35.65503
G1 X152.60 Y161.56 E35.69191
G1 X151.59 Y161.51 E35.74631
G1 X150.55 Y161.35 E35.80226
G1 X149.57 Y161.07 E35.85664
G1 X148.94 Y160.82 E35.89283
G1 X148.11 Y160.42 E35.94230
G1 X147.23 Y159.86 E35.99771
G1 X146.43 Y159.22 E36.05279
G1 X145.88 Y158.67 E36.09401
G1 X145.28 Y157.96 E36.14355
G1 X144.71 Y157.12 E36.19796
G1 X144.41 Y156.56 E36.23193
G1 X144.21 Y156.14 E36.25685
G1 X143.85 Y155.19 E36.31104
G1 X143.60 Y154.17 E36.36675
G1 X143.47 Y153.16 E36.42107
G1 X143.45 Y152.47 E36.45787
G1 X143.50 Y151.46 E36.51236
G1 X143.69 Y150.43 E36.56818
G1 X143.98 Y149.42 E36.62415
G1 X144.40 Y148.46 E36.68001
G1 X144.92 Y147.55 E36.73585
G1 X145.52 Y146.73 E36.79021
G1 X145.98 Y146.22 E36.82688
G0 F6000 X146.28 Y146.52
G1 F2700 X147.00 Y145.85 E36.87901
G1 X147.79 Y145.27 E36.93121
G1 X148.34 Y144.95 E36.96532
G1 X149.12 Y144.56 E37.01228
G1 X150.06 Y144.22 E37.06538
G1 X151.03 Y144.00 E37.11855
G1 X152.00 Y143.89 E37.17050
G1 X152.64 Y143.87 E37.20494
G1 X153.62 Y143.94 E37.25723
G1 X154.60 Y144.13 E37.31044
G1 X155.55 Y144.43 E37.36362
G1 X156.46 Y144.83 E37.41686
G1 X157.32 Y145.34 E37.47012
G1 X158.09 Y145.93 E37.52207
G1 X158.56 Y146.36 E37.55570
G1 X158.96 Y146.79 E37.58701
G1 X159.24 Y147.12 E37.61026
G1 X159.79 Y147.89 E37.66098
G1 X160.11 Y148.44 E37.69508
G1 X160.48 Y149.22 E37.74091
G1 X160.70 Y149.82 E37.77509
G1 X160.93 Y150.65 E37.82079
G1 X161.04 Y151.28 E37.85492
G1 X161.12 Y152.13 E37.90064
G1 X161.12 Y152.75 E37.93363
G1 X161.08 Y153.37 E37.96685
G1 X160.95 Y154.24 E38.01382
G1 X160.70 Y155.20 E38.06679
G1 X160.33 Y156.13 E38.12017
G1 X159.86 Y157.00 E38.17338
G1 X159.33 Y157.77 E38.22305
G1 X159.21 Y157.93 E38.23382
G1 X158.67 Y158.53 E38.27654
G1 X158.53 Y158.67 E38.28703
G1 X157.82 Y159.29 E38.33761
G1 X157.32 Y159.65 E38.37069
G1 X156.88 Y159.93 E38.39843
G1 X156.10 Y160.34 E38.44521
G1 X155.18 Y160.70 E38.49828
G1 X154.22 Y160.96 E38.55145
G1 X153.25 Y161.09 E38.60338
G1 X152.60 Y161.13 E38.63807
G1 X151.63 Y161.08 E38.69012
G1 X150.64 Y160.93 E38.74341
G1 X149.71 Y160.66 E38.79541
G1 X149.11 Y160.43 E38.82959
G1 X148.31 Y160.04 E38.87677
G1 X147.48 Y159.51 E38.92963
G1 X146.71 Y158.90 E38.98220
G1 X146.19 Y158.38 E39.02123
G1 X145.62 Y157.71 E39.06850
G1 X145.08 Y156.90 E39.12052
G1 X144.79 Y156.36 E39.15286
G1 X144.60 Y155.97 E39.17624
G1 X144.26 Y155.06 E39.22805
G1 X144.02 Y154.09 E39.28117
G1 X143.90 Y153.13 E39.33317
G1 X143.87 Y152.48 E39.36778
G1 X143.93 Y151.50 E39.41986
G1 X144.10 Y150.52 E39.47308
G1 X144.39 Y149.57 E39.52638
G1 X144.78 Y148.65 E39.57964
G1 X145.28 Y147.78 E39.63282
G1 X145.85 Y147.00 E39.68477
G1 X146.28 Y146.52 E39.71933
G0 F6000 X146.59 Y146.82
G1 F2700 X147.27 Y146.18 E39.76904
G1 X148.02 Y145.63 E39.81882
G1 X148.54 Y145.32 E39.85092
G1 X149.29 Y144.95 E39.89564
G1 X150.18 Y144.64 E39.94612
G1 X151.10 Y144.42 E39.99667
G1 X152.03 Y144.32 E40.04626
G1 X152.63 Y144.30 E40.07862
G1 X153.56 Y144.37 E40.12844
G1 X154.50 Y144.55 E40.17904
G1 X155.40 Y144.83 E40.22954
G1 X156.26 Y145.22 E40.28016
G1 X157.08 Y145.70 E40.33080
G1 X157.82 Y146.26 E40.38036
G1 X158.26 Y146.66 E40.41210
G1 X158.64 Y147.07 E40.44201
G1 X158.91 Y147.38 E40.46371
G1 X159.43 Y148.12 E40.51232
G1 X159.73 Y148.64 E40.54440
G1 X160.09 Y149.38 E40.58824
G1 X160.29 Y149.95 E40.62041
G1 X160.51 Y150.74 E40.66418
G1 X160.62 Y151.33 E40.69625
G1 X160.69 Y152.15 E40.74005
G1 X160.70 Y152.74 E40.77128
G1 X160.66 Y153.32 E40.80268
G1 X160.53 Y154.15 E40.84743
G1 X160.29 Y155.06 E40.89781
G1 X159.94 Y155.95 E40.94848
G1 X159.49 Y156.78 E40.99906
G1 X158.98 Y157.52 E41.04693
G1 X158.88 Y157.66 E41.05621
G1 X158.36 Y158.23 E41.09765
G1 X158.24 Y158.36 E41.10678
G1 X157.56 Y158.96 E41.15531
G1 X157.08 Y159.30 E41.18660
G1 X156.66 Y159.56 E41.21280
G1 X155.93 Y159.95 E41.25741
G1 X155.05 Y160.29 E41.30787
G1 X154.13 Y160.54 E41.35838
G1 X153.21 Y160.67 E41.40794
G1 X152.60 Y160.70 E41.44054
G1 X151.67 Y160.66 E41.49013
G1 X150.74 Y160.51 E41.54079
G1 X149.84 Y160.25 E41.59044
G1 X149.28 Y160.04 E41.62258
G1 X148.52 Y159.67 E41.66749
G1 X147.73 Y159.17 E41.71775
G1 X147.00 Y158.58 E41.76786
G1 X146.51 Y158.09 E41.80477
G1 X145.96 Y157.45 E41.84973
G1 X145.44 Y156.68 E41.89937
G1 X145.17 Y156.17 E41.93011
G1 X145.00 Y155.80 E41.95186
G1 X144.67 Y154.93 E42.00137
G1 X144.44 Y154.01 E42.05187
G1 X144.32 Y153.09 E42.10149
G1 X144.30 Y152.48 E42.13397
G1 X144.36 Y151.55 E42.18370
G1 X144.52 Y150.62 E42.23420
G1 X144.79 Y149.71 E42.28494
G1 X145.16 Y148.84 E42.33549
G1 X145.63 Y148.02 E42.38602
G1 X146.19 Y147.27 E42.43564
G1 X146.59 Y146.82 E42.46809
G0 F6000 X146.90 Y147.12
G1 F2700 X147.55 Y146.51 E42.51541
G1 X148.26 Y145.99 E42.56280
G1 X148.75 Y145.70 E42.59286
G1 X149.46 Y145.35 E42.63536
G1 X150.30 Y145.05 E42.68324
G1 X151.18 Y144.84 E42.73115
G1 X152.06 Y144.74 E42.77838
G1 X152.62 Y144.73 E42.80860
G1 X153.51 Y144.79 E42.85602
G1 X154.39 Y144.96 E42.90400
G1 X155.25 Y145.23 E42.95189
G1 X156.07 Y145.60 E42.99982
G1 X156.84 Y146.05 E43.04779
G1 X157.54 Y146.59 E43.09502
G1 X157.96 Y146.97 E43.12483
G1 X158.32 Y147.36 E43.15335
G1 X158.57 Y147.64 E43.17349
G1 X159.07 Y148.35 E43.22008
G1 X159.35 Y148.84 E43.25012
G1 X159.69 Y149.55 E43.29200
G1 X159.88 Y150.08 E43.32213
G1 X160.09 Y150.84 E43.36396
G1 X160.19 Y151.39 E43.39402
G1 X160.26 Y152.17 E43.43589
G1 X160.27 Y152.72 E43.46530
G1 X160.23 Y153.28 E43.49489
G1 X160.11 Y154.06 E43.53743
G1 X159.88 Y154.93 E43.58521
G1 X159.55 Y155.77 E43.63324
G1 X159.13 Y156.56 E43.68110
G1 X158.64 Y157.26 E43.72712
G1 X158.55 Y157.38 E43.73504
G1 X158.04 Y157.94 E43.77518
G1 X157.94 Y158.05 E43.78296
G1 X157.29 Y158.62 E43.82941
G1 X156.84 Y158.94 E43.85894
G1 X156.45 Y159.19 E43.88354
G1 X155.75 Y159.56 E43.92595
G1 X154.91 Y159.89 E43.97382
G1 X154.05 Y160.12 E44.02167
G1 X153.17 Y160.24 E44.06886
G1 X152.60 Y160.27 E44.09933
G1 X151.72 Y160.23 E44.14657
G1 X150.83 Y160.09 E44.19457
G1 X149.98 Y159.85 E44.24180
G1 X149.45 Y159.65 E44.27192
G1 X148.73 Y159.30 E44.31456
G1 X147.98 Y158.82 E44.36227
G1 X147.28 Y158.26 E44.40987
G1 X146.82 Y157.80 E44.44464
G1 X146.31 Y157.19 E44.48728
G1 X145.81 Y156.45 E44.53457
G1 X145.55 Y155.97 E44.56369
G1 X145.39 Y155.63 E44.58386
G1 X145.08 Y154.81 E44.63106
G1 X144.87 Y153.94 E44.67890
G1 X144.75 Y153.06 E44.72616
G1 X144.73 Y152.49 E44.75656
G1 X144.78 Y151.60 E44.80382
G1 X144.94 Y150.72 E44.85173
G1 X145.19 Y149.86 E44.89979
G1 X145.55 Y149.03 E44.94771
G1 X145.99 Y148.25 E44.99561
G1 X146.52 Y147.54 E45.04283
G1 X146.90 Y147.12 E45.07316
G0 F6000 X147.20 Y147.42
G1 F2700 X147.82 Y146.84 E45.11810
G1 X148.50 Y146.34 E45.16304
G1 X148.95 Y146.08 E45.19108
G1 X149.63 Y145.74 E45.23135
G1 X150.43 Y145.46 E45.27664
G1 X151.25 Y145.26 E45.32192
G1 X152.09 Y145.17 E45.36677
G1 X152.61 Y145.16 E45.39491
G1 X153.45 Y145.22 E45.43993
G1 X154.29 Y145.38 E45.48520
G1 X155.10 Y145.63 E45.53045
G1 X155.87 Y145.98 E45.57575
G1 X156.60 Y146.41 E45.62106
G1 X157.27 Y146.92 E45.66594
G1 X157.66 Y147.27 E45.69386
G1 X158.00 Y147.64 E45.72098
G1 X158.23 Y147.91 E45.73960
G1 X158.71 Y148.59 E45.78404
G1 X158.98 Y149.04 E45.81210
G1 X159.30 Y149.72 E45.85202
G1 X159.48 Y150.21 E45.88016
G1 X159.67 Y150.93 E45.92001
G1 X159.77 Y151.45 E45.94806
G1 X159.84 Y152.19 E45.98794
G1 X159.84 Y152.71 E46.01554
G1 X159.81 Y153.23 E46.04336
G1 X159.69 Y153.98 E46.08368
G1 X159.48 Y154.79 E46.12887
G1 X159.16 Y155.59 E46.17426
G1 X158.76 Y156.33 E46.21948
G1 X158.29 Y157.01 E46.26362
G1 X158.22 Y157.11 E46.27013
G1 X157.73 Y157.65 E46.30899
G1 X157.65 Y157.74 E46.31541
G1 X157.02 Y158.28 E46.35982
G1 X156.60 Y158.59 E46.38755
G1 X156.24 Y158.82 E46.41057
G1 X155.57 Y159.17 E46.45078
G1 X154.78 Y159.48 E46.49604
G1 X153.96 Y159.69 E46.54126
G1 X153.13 Y159.81 E46.58613
G1 X152.60 Y159.84 E46.61446
G1 X151.76 Y159.81 E46.65929
G1 X150.92 Y159.67 E46.70465
G1 X150.11 Y159.44 E46.74948
G1 X149.62 Y159.25 E46.77757
G1 X148.94 Y158.92 E46.81796
G1 X148.23 Y158.47 E46.86309
G1 X147.57 Y157.94 E46.90818
G1 X147.14 Y157.51 E46.94084
G1 X146.65 Y156.93 E46.98121
G1 X146.18 Y156.23 E47.02607
G1 X145.94 Y155.78 E47.05354
G1 X145.78 Y155.47 E47.07219
G1 X145.49 Y154.68 E47.11703
G1 X145.29 Y153.86 E47.16225
G1 X145.18 Y153.02 E47.20714
G1 X145.16 Y152.49 E47.23540
G1 X145.21 Y151.65 E47.28031
G1 X145.35 Y150.82 E47.32556
G1 X145.60 Y150.00 E47.37095
G1 X145.93 Y149.22 E47.41622
G1 X146.35 Y148.49 E47.46151
G1 X146.85 Y147.81 E47.50636
G1 X147.20 Y147.42 E47.53456
G0 F6000 X147.51 Y147.72
G1 F2700 X148.09 Y147.17 E47.57709
G1 X148.74 Y146.70 E47.61963
G1 X149.15 Y146.45 E47.64565
G1 X149.79 Y146.14 E47.68368
G1 X150.55 Y145.87 E47.72636
G1 X151.32 Y145.69 E47.76901
G1 X152.12 Y145.60 E47.81150
G1 X152.60 Y145.59 E47.83751
G1 X153.40 Y145.64 E47.88011
G1 X154.18 Y145.79 E47.92277
G1 X154.94 Y146.03 E47.96539
G1 X155.67 Y146.36 E48.00802
G1 X156.36 Y146.76 E48.05069
G1 X157.00 Y147.25 E48.09319
G1 X157.35 Y147.58 E48.11923
G1 X157.68 Y147.93 E48.14491
G1 X157.89 Y148.17 E48.16198
G1 X158.35 Y148.82 E48.20436
G1 X158.60 Y149.24 E48.23041
G1 X158.90 Y149.88 E48.26833
G1 X159.07 Y150.34 E48.29447
G1 X159.26 Y151.03 E48.33238
G1 X159.34 Y151.51 E48.35842
G1 X159.41 Y152.21 E48.39632
G1 X159.41 Y152.70 E48.42216
G1 X159.38 Y153.18 E48.44816
G1 X159.27 Y153.89 E48.48627
G1 X159.07 Y154.66 E48.52886
G1 X158.78 Y155.41 E48.57156
G1 X158.40 Y156.11 E48.61415
G1 X157.95 Y156.76 E48.65641
G1 X157.89 Y156.83 E48.66151
G1 X157.42 Y157.36 E48.69909
G1 X157.35 Y157.43 E48.70415
G1 X156.75 Y157.95 E48.74655
G1 X156.36 Y158.23 E48.77245
G1 X156.02 Y158.45 E48.79392
G1 X155.39 Y158.78 E48.83196
G1 X154.65 Y159.07 E48.87461
G1 X153.88 Y159.28 E48.91717
G1 X153.09 Y159.39 E48.95967
G1 X152.60 Y159.41 E48.98586
G1 X151.80 Y159.38 E49.02834
G1 X151.01 Y159.25 E49.07099
G1 X150.25 Y159.03 E49.11349
G1 X149.79 Y158.86 E49.13951
G1 X149.15 Y158.55 E49.17764
G1 X148.48 Y158.12 E49.22020
G1 X147.86 Y157.62 E49.26280
G1 X147.45 Y157.22 E49.29330
G1 X146.99 Y156.67 E49.33140
G1 X146.55 Y156.01 E49.37388
G1 X146.32 Y155.59 E49.39977
G1 X146.18 Y155.30 E49.41681
G1 X145.90 Y154.55 E49.45933
G1 X145.71 Y153.78 E49.50190
G1 X145.60 Y152.99 E49.54442
G1 X145.59 Y152.50 E49.57054
G1 X145.63 Y151.70 E49.61311
G1 X145.77 Y150.92 E49.65570
G1 X146.00 Y150.15 E49.69841
G1 X146.31 Y149.41 E49.74105
G1 X146.71 Y148.72 E49.78367
G1 X147.19 Y148.08 E49.82619
G1 X147.51 Y147.72 E49.85228
G0 F6000 X148.03 Y148.24
G0 X150.14 Y146.90
G0 X152.46 Y146.44
G0 X153.86 Y146.60
;TYPE:WALL-INNER
G1 F2700 X154.65 Y146.84 E49.89598
G1 X154.69 Y146.86 E49.89856
G1 X153.86 Y146.60 E49.94481
G0 F6000 X154.94 Y146.97
G1 F2700 X155.28 Y147.12 E49.96462
G1 X155.81 Y147.43 E49.99720
G1 X154.94 Y146.97 E50.04950
G0 F6000 X155.85 Y147.46
G1 F2700 X155.88 Y147.47 E50.05122
G1 X156.45 Y147.91 E50.08947
G1 X156.75 Y148.19 E50.11168
G1 X157.22 Y148.70 E50.14846
G1 X157.63 Y149.28 E50.18620
G1 X157.84 Y149.65 E50.20902
G1 X158.11 Y150.21 E50.24240
G1 X158.25 Y150.61 E50.26508
G1 X158.42 Y151.21 E50.29822
G1 X158.50 Y151.63 E50.32117
G1 X158.55 Y152.25 E50.35446
G1 X158.56 Y152.67 E50.37672
G1 X158.53 Y153.10 E50.39957
G1 X158.43 Y153.72 E50.43325
G1 X158.25 Y154.39 E50.47043
G1 X158.09 Y154.80 E50.49384
G1 X158.43 Y153.69 E50.55555
G1 X158.55 Y152.51 E50.61922
G1 X158.43 Y151.32 E50.68284
G1 X158.08 Y150.18 E50.74655
G1 X157.52 Y149.13 E50.81025
G1 X156.76 Y148.21 E50.87394
G1 X155.85 Y147.46 E50.93699
G0 F6000 X157.51 Y149.14
G0 X158.41 Y151.32
G0 X158.41 Y153.69
G0 X158.07 Y154.86
G1 F2700 X158.00 Y155.04 E50.94720
G1 X157.66 Y155.67 E50.98527
G1 X157.56 Y155.81 E50.99451
G1 X158.07 Y154.86 E51.05190
G0 F6000 X157.44 Y155.99
G1 F2700 X157.23 Y156.28 E51.07068
G1 X156.85 Y156.71 E51.10148
G1 X157.44 Y155.99 E51.15098
G0 F6000 X156.59 Y156.95
G1 F2700 X156.22 Y157.28 E51.17750
G1 X156.00 Y157.44 E51.19203
G1 X156.59 Y156.95 E51.23304
G0 F6000 X156.46 Y156.51
;TYPE:WALL-OUTER
G1 F2700 X157.16 Y155.65 E51.29229
G1 X157.69 Y154.67 E51.35150
G1 X158.01 Y153.61 E51.41069
G1 X158.12 Y152.51 E51.46985
G1 X158.01 Y151.41 E51.52897
G1 X157.69 Y150.34 E51.58816
G1 X157.16 Y149.37 E51.64736
G1 X156.46 Y148.51 E51.70657
G1 X155.60 Y147.81 E51.76579
G1 X154.62 Y147.28 E51.82499
G1 X153.56 Y146.96 E51.88418
G1 X152.46 Y146.85 E51.94330
G1 X151.36 Y146.96 E52.00252
G1 X150.30 Y147.28 E52.06166
G1 X149.32 Y147.81 E52.12091
G1 X148.46 Y148.51 E52.18012
G1 X147.76 Y149.37 E52.23933
G1 X147.23 Y150.34 E52.29854
G1 X146.91 Y151.41 E52.35773
G1 X146.80 Y152.51 E52.41684
G1 X146.91 Y153.61 E52.47601
G1 X147.23 Y154.67 E52.53520
G1 X147.76 Y155.65 E52.59440
G1 X148.46 Y156.51 E52.65366
G1 X149.32 Y157.21 E52.71287
G1 X150.30 Y157.74 E52.77212
G1 X151.36 Y158.06 E52.83125
G1 X152.46 Y158.17 E52.89047
G1 X153.56 Y158.06 E52.94959
G1 X154.62 Y157.74 E53.00877
G1 X155.60 Y157.21 E53.06797
G1 X156.46 Y156.51 E53.12718
G0 F6000 X157.11 Y157.06
G1 F2700 X156.49 Y157.61 E53.17131
G1 X155.81 Y158.08 E53.21546
G1 X155.21 Y158.39 E53.25133
G1 X154.52 Y158.66 E53.29110
G1 X153.79 Y158.85 E53.33129
G1 X153.05 Y158.96 E53.37130
G1 X152.59 Y158.99 E53.39552
G1 X151.84 Y158.95 E53.43570
G1 X151.11 Y158.83 E53.47538
G1 X150.39 Y158.63 E53.51543
G1 X149.96 Y158.47 E53.53997
G1 X149.36 Y158.17 E53.57547
G1 X148.72 Y157.77 E53.61574
G1 X148.15 Y157.31 E53.65510
G1 X147.76 Y156.92 E53.68443
G1 X147.33 Y156.42 E53.71951
G1 X146.91 Y155.79 E53.76003
G1 X146.57 Y155.12 E53.80014
G1 X146.31 Y154.43 E53.83951
G1 X146.13 Y153.69 E53.87993
G1 X146.03 Y152.96 E53.91966
G1 X146.02 Y152.50 E53.94380
G1 X146.06 Y151.75 E53.98407
G1 X146.19 Y151.01 E54.02417
G1 X146.40 Y150.30 E54.06394
G1 X146.70 Y149.61 E54.10383
G1 X147.07 Y148.95 E54.14434
G1 X147.52 Y148.35 E54.18408
G1 X147.81 Y148.02 E54.20786
G1 X148.37 Y147.50 E54.24858
G1 X148.97 Y147.06 E54.28833
G1 X149.35 Y146.83 E54.31215
G1 X149.96 Y146.53 E54.34813
G1 X150.67 Y146.28 E54.38860
G1 X151.39 Y146.11 E54.42796
G1 X152.15 Y146.03 E54.46863
G1 X152.60 Y146.01 E54.49260
G1 X153.34 Y146.07 E54.53237
G1 X154.08 Y146.21 E54.57253
G1 X154.80 Y146.43 E54.61263
G1 X155.47 Y146.74 E54.65232
G1 X156.12 Y147.12 E54.69242
G1 X156.72 Y147.57 E54.73238
G1 X157.06 Y147.89 E54.75716
G1 X157.56 Y148.44 E54.79708
G1 X157.99 Y149.05 E54.83685
G1 X158.22 Y149.44 E54.86084
G1 X158.50 Y150.04 E54.89663
G1 X158.66 Y150.48 E54.92147
G1 X158.84 Y151.11 E54.95639
G1 X158.92 Y151.57 E54.98145
G1 X158.98 Y152.23 E55.01683
G1 X158.98 Y152.68 E55.04053
G1 X158.95 Y153.14 E55.06520
G1 X158.85 Y153.80 E55.10110
G1 X158.66 Y154.53 E55.14126
G1 X158.39 Y155.22 E55.18085
G1 X158.03 Y155.88 E55.22109
G1 X157.60 Y156.50 E55.26118
G1 X157.11 Y157.06 E55.30115
G0 F6000 X156.88 Y156.85
G0 X155.74 Y157.86
;TYPE:FILL
G1 F2700 X155.23 Y157.65 E55.32481
G1 X155.14 Y158.17 E55.34870
G1 X154.40 Y158.03 E55.37210
G1 X154.27 Y158.50 E55.39769
G1 X153.61 Y158.46 E55.42264
G1 X153.08 Y158.53 E55.45026
G1 X152.51 Y158.56 E55.47909
G1 X151.87 Y158.53 E55.51138
G1 X151.16 Y158.42 E55.54590
G1 X150.43 Y158.00 E55.59090
G0 F6000 X150.13 Y158.30
G1 F2700 X149.24 Y157.41 E55.65786
G0 F6000 X148.69 Y157.47
G1 F2700 X147.49 Y156.27 E55.74865
G0 F6000 X147.56 Y155.73
G1 F2700 X146.70 Y154.88 E55.81293
G0 F6000 X146.97 Y154.54
G1 F2700 X146.56 Y153.83 E55.85433
G1 X146.46 Y153.12 E55.88591
G1 X146.42 Y152.47 E55.91628
G1 X146.46 Y151.91 E55.94228
G1 X146.53 Y151.37 E55.96734
G1 X146.65 Y150.88 E55.99030
G1 X146.65 Y150.28 E56.01346
G1 X147.11 Y150.14 E56.03445
G1 X147.03 Y149.45 E56.05621
G1 X147.53 Y149.35 E56.07724
G1 X147.51 Y148.72 E56.09749
G1 X148.06 Y148.66 E56.11879
G1 X148.07 Y148.07 E56.13959
G1 X148.67 Y148.06 E56.16001
G1 X148.72 Y147.51 E56.18169
G1 X149.36 Y147.54 E56.20215
G1 X149.45 Y147.03 E56.22448
G1 X150.16 Y147.13 E56.24709
G1 X150.28 Y146.65 E56.27044
G1 X151.06 Y146.83 E56.29521
G1 X151.22 Y146.37 E56.31967
G1 X151.93 Y146.48 E56.34836
G1 X152.49 Y146.44 E56.37756
G1 X153.14 Y146.49 E56.41273
G1 X153.64 Y146.68 E56.44128
G0 F6000 X152.85 Y147.75
;TYPE:SUPPORT
G1 F2700 X152.85 Y157.27 E56.94980
G0 F6000 X152.83 Y157.11
G0 X150.07 Y156.47
G0 X149.99 Y156.61
G1 F2700 X149.99 Y148.41 E57.38765
G0 F6000 X150.07 Y148.55
G0 X155.60 Y149.12
G0 X155.71 Y148.99
G1 F2700 X155.71 Y156.03 E57.76341
;LAYER:1
G0 F6000 X156.45 Y156.50 Z0.50
;TYPE:WALL-INNER
G1 F780 X157.16 Y155.65 E57.80283
G1 X157.68 Y154.67 E57.84226
G1 X158.00 Y153.61 E57.88168
G1 X158.11 Y152.51 E57.92109
G1 X158.00 Y151.41 E57.96046
G1 X157.68 Y150.35 E57.99987
G1 X157.16 Y149.37 E58.03931
G1 X156.45 Y148.51 E58.07870
G1 X155.60 Y147.81 E58.11810
G1 X154.62 Y147.29 E58.15753
G1 X153.56 Y146.97 E58.19698
G1 X152.46 Y146.86 E58.23632
G1 X151.36 Y146.97 E58.27573
G1 X150.30 Y147.29 E58.31515
G1 X149.32 Y147.81 E58.35462
G1 X148.47 Y148.51 E58.39401
G1 X147.76 Y149.37 E58.43340
G1 X147.24 Y150.35 E58.47283
G1 X146.92 Y151.41 E58.51225
G1 X146.81 Y152.51 E58.55162
G1 X146.92 Y153.61 E58.59103
G1 X147.24 Y154.67 E58.63045
G1 X147.76 Y155.65 E58.66984
G1 X148.47 Y156.50 E58.70929
G1 X149.32 Y157.21 E58.74869
G1 X150.30 Y157.73 E58.78813
G1 X151.36 Y158.05 E58.82755
G1 X152.46 Y158.16 E58.86696
G1 X153.56 Y158.05 E58.90630
G1 X154.62 Y157.73 E58.94575
G1 X155.60 Y157.21 E58.98519
G1 X156.45 Y156.50 E59.02456
G0 F6000 X156.90 Y156.95
G1 F780 X156.51 Y157.30 E59.04288
G1 X156.08 Y157.63 E59.06262
G1 X155.64 Y157.91 E59.08089
G1 X155.15 Y158.17 E59.10080
G1 X154.68 Y158.36 E59.11887
G1 X154.15 Y158.53 E59.13861
G1 X153.65 Y158.65 E59.15683
G1 X153.09 Y158.73 E59.17696
G1 X152.59 Y158.76 E59.19471
G1 X152.08 Y158.74 E59.21301
G1 X151.52 Y158.68 E59.23287
G1 X151.04 Y158.58 E59.25037
G1 X150.47 Y158.42 E59.27146
G1 X150.16 Y158.30 E59.28336
G1 X149.70 Y158.09 E59.30127
G1 X149.21 Y157.82 E59.32146
G1 X148.78 Y157.53 E59.33963
G1 X148.35 Y157.18 E59.35949
G1 X147.98 Y156.83 E59.37759
G1 X147.65 Y156.45 E59.39537
G1 X147.31 Y155.99 E59.41591
G1 X147.05 Y155.57 E59.43332
G1 X146.79 Y155.07 E59.45352
G1 X146.61 Y154.59 E59.47158
G1 X146.50 Y154.26 E59.48408
G1 X146.36 Y153.70 E59.50455
G1 X146.29 Y153.22 E59.52191
G1 X146.25 Y152.62 E59.54324
G1 X146.25 Y152.51 E59.54730
G1 X146.29 Y151.78 E59.57314
G1 X146.37 Y151.29 E59.59098
G1 X146.50 Y150.74 E59.61104
G1 X146.66 Y150.26 E59.62890
G1 X146.88 Y149.74 E59.64910
G1 X147.12 Y149.31 E59.66679
G1 X147.43 Y148.84 E59.68683
G1 X147.76 Y148.42 E59.70561
G1 X147.97 Y148.18 E59.71707
G1 X148.35 Y147.83 E59.73547
G1 X148.79 Y147.46 E59.75585
G1 X149.20 Y147.19 E59.77355
G1 X149.69 Y146.91 E59.79366
G1 X150.16 Y146.70 E59.81184
G1 X150.69 Y146.51 E59.83174
G1 X151.17 Y146.38 E59.84962
G1 X151.73 Y146.29 E59.86953
G1 X152.25 Y146.25 E59.88807
G1 X152.58 Y146.24 E59.90010
G1 X153.09 Y146.27 E59.91835
G1 X153.66 Y146.35 E59.93850
G1 X154.14 Y146.46 E59.95604
G1 X154.68 Y146.64 E59.97647
G1 X155.15 Y146.83 E59.99448
G1 X155.64 Y147.09 E60.01421
G1 X156.08 Y147.37 E60.03257
G1 X156.52 Y147.71 E60.05267
G1 X156.89 Y148.04 E60.07026
G1 X157.24 Y148.41 E60.08829
G1 X157.38 Y148.58 E60.09601
G1 X157.67 Y148.98 E60.11360
G1 X157.97 Y149.46 E60.13371
G1 X158.20 Y149.91 E60.15200
G1 X158.41 Y150.44 E60.17195
G1 X158.51 Y150.77 E60.18438
G1 X158.63 Y151.25 E60.20208
G1 X158.72 Y151.83 E60.22292
G1 X158.76 Y152.32 E60.24034
G1 X158.75 Y152.83 E60.25846
G1 X158.69 Y153.39 E60.27844
G1 X158.60 Y153.88 E60.29626
G1 X158.45 Y154.43 E60.31657
G1 X158.28 Y154.90 E60.33456
G1 X158.04 Y155.42 E60.35475
G1 X157.79 Y155.84 E60.37204
G1 X157.45 Y156.33 E60.39355
G1 X157.15 Y156.69 E60.41031
G1 X156.90 Y156.95 E60.42302
G0 F6000 X157.19 Y157.26
;TYPE:WALL-OUTER
G1 F780 X156.79 Y157.62 E60.44199
G1 X156.32 Y157.99 E60.46346
G1 X155.86 Y158.28 E60.48270
G1 X155.33 Y158.56 E60.50391
G1 X154.83 Y158.77 E60.52337
G1 X154.26 Y158.95 E60.54460
G1 X153.73 Y159.07 E60.56407
G1 X153.14 Y159.15 E60.58523
G1 X152.59 Y159.19 E60.60466
G1 X152.06 Y159.17 E60.62360
G1 X151.46 Y159.10 E60.64522
G1 X150.94 Y159.00 E60.66413
G1 X150.34 Y158.83 E60.68611
G1 X149.51 Y158.47 E60.71841
G1 X148.97 Y158.18 E60.74027
G1 X148.53 Y157.88 E60.75905
G1 X148.07 Y157.50 E60.78043
G1 X147.67 Y157.12 E60.79986
G1 X147.31 Y156.71 E60.81923
G1 X146.96 Y156.24 E60.84033
G1 X146.68 Y155.78 E60.85932
G1 X146.41 Y155.24 E60.88092
G1 X146.20 Y154.73 E60.90052
G1 X146.08 Y154.37 E60.91398
G1 X145.94 Y153.78 E60.93551
G1 X145.86 Y153.27 E60.95403
G1 X145.82 Y152.65 E60.97610
G1 X145.82 Y152.51 E60.98102
G1 X145.86 Y151.73 E61.00896
G1 X145.94 Y151.22 E61.02738
G1 X146.08 Y150.63 E61.04883
G1 X146.26 Y150.10 E61.06863
G1 X146.50 Y149.56 E61.08969
G1 X146.75 Y149.09 E61.10859
G1 X147.09 Y148.57 E61.13074
G1 X147.42 Y148.16 E61.14942
G1 X148.06 Y147.51 E61.18201
G1 X148.54 Y147.12 E61.20396
G1 X148.99 Y146.82 E61.22320
G1 X149.50 Y146.53 E61.24425
G1 X149.99 Y146.31 E61.26348
G1 X150.56 Y146.10 E61.28508
G1 X151.09 Y145.97 E61.30421
G1 X151.68 Y145.87 E61.32567
G1 X152.22 Y145.82 E61.34478
G1 X152.59 Y145.81 E61.35806
G1 X153.14 Y145.85 E61.37774
G1 X153.74 Y145.93 E61.39911
G1 X154.25 Y146.05 E61.41793
G1 X154.83 Y146.24 E61.43974
G1 X155.32 Y146.44 E61.45858
G1 X155.86 Y146.72 E61.48018
G1 X156.32 Y147.01 E61.49957
G1 X156.80 Y147.38 E61.52096
G1 X157.20 Y147.74 E61.54011
G1 X157.56 Y148.13 E61.55920
G1 X157.71 Y148.31 E61.56735
G1 X158.02 Y148.73 E61.58604
G1 X158.35 Y149.26 E61.60813
G1 X158.59 Y149.73 E61.62707
G1 X158.81 Y150.28 E61.64819
G1 X159.05 Y151.17 E61.68103
G1 X159.15 Y151.78 E61.70289
G1 X159.18 Y152.30 E61.72148
G1 X159.18 Y152.85 E61.74091
G1 X159.12 Y153.45 E61.76246
G1 X159.02 Y153.97 E61.78123
G1 X158.86 Y154.56 E61.80295
G1 X158.67 Y155.07 E61.82246
G1 X158.42 Y155.61 E61.84370
G1 X158.15 Y156.07 E61.86271
G1 X157.80 Y156.57 E61.88427
G1 X157.46 Y156.98 E61.90323
G1 X157.19 Y157.26 E61.91717
G0 F6000 X156.15 Y156.20
G1 F780 X156.80 Y155.41 E61.95361
G1 X157.28 Y154.50 E61.99005
G1 X157.58 Y153.53 E62.02645
G1 X157.68 Y152.51 E62.06285
G1 X157.58 Y151.49 E62.09922
G1 X157.28 Y150.51 E62.13562
G1 X156.80 Y149.61 E62.17207
G1 X156.15 Y148.82 E62.20847
G1 X155.36 Y148.17 E62.24488
G1 X154.46 Y147.69 E62.28133
G1 X153.48 Y147.39 E62.31776
G1 X152.46 Y147.29 E62.35410
G1 X151.44 Y147.39 E62.39050
G1 X150.46 Y147.69 E62.42690
G1 X149.56 Y148.17 E62.46338
G1 X148.77 Y148.82 E62.49979
G1 X148.12 Y149.61 E62.53619
G1 X147.64 Y150.51 E62.57262
G1 X147.34 Y151.49 E62.60903
G1 X147.24 Y152.51 E62.64540
G1 X147.34 Y153.53 E62.68180
G1 X147.64 Y154.50 E62.71821
G1 X148.12 Y155.41 E62.75461
G1 X148.77 Y156.20 E62.79107
G1 X149.56 Y156.85 E62.82748
G1 X150.46 Y157.33 E62.86393
G1 X151.44 Y157.63 E62.90034
G1 X152.46 Y157.73 E62.93674
G1 X153.48 Y157.63 E62.97307
G1 X154.46 Y157.33 E63.00952
G1 X155.36 Y156.85 E63.04596
G1 X156.15 Y156.20 E63.08235
G0 F6000 X156.39 Y156.40
G0 X155.33 Y157.90
;TYPE:FILL
G1 F780 X157.92 Y155.32 E63.21250
G0 F6000 X157.72 Y154.90
G1 F780 X158.33 Y154.30 E63.24305
G0 F6000 X158.04 Y153.98
G1 F780 X158.35 Y153.37 E63.26681
G1 X158.42 Y152.69 E63.28731
G1 X158.40 Y152.11 E63.30461
G1 X158.35 Y151.56 E63.32138
G1 X158.24 Y151.06 E63.33629
G1 X158.10 Y150.59 E63.35132
G1 X158.07 Y150.02 E63.36523
G1 X157.60 Y149.88 E63.37874
G1 X157.65 Y149.23 E63.39222
G1 X157.15 Y149.12 E63.40461
G1 X157.13 Y148.53 E63.41776
G1 X156.59 Y148.47 E63.43044
G1 X156.53 Y147.92 E63.44295
G1 X155.95 Y147.90 E63.45597
G1 X155.84 Y147.40 E63.46841
G1 X155.21 Y147.43 E63.48130
G1 X155.07 Y146.97 E63.49443
G1 X154.51 Y146.92 E63.50719
G1 X154.04 Y146.78 E63.52117
G1 X153.56 Y146.66 E63.53505
G1 X153.02 Y146.59 E63.55036
G1 X152.45 Y146.56 E63.56589
G1 X151.79 Y146.61 E63.58416
G1 X151.07 Y146.73 E63.60347
G1 X150.39 Y147.10 E63.63106
G0 F6000 X149.92 Y146.97
G1 F780 X149.06 Y147.83 E63.67419
G0 F6000 X147.78 Y149.11
G1 F780 X146.97 Y149.92 E63.71496
G0 F6000 X147.05 Y150.44
G1 F780 X146.70 Y151.09 E63.73695
G1 X146.59 Y151.82 E63.75361
G1 X146.54 Y152.47 E63.76883
G1 X146.57 Y153.04 E63.78176
G1 X146.63 Y153.58 E63.79453
G1 X146.76 Y154.07 E63.80565
G1 X146.89 Y154.54 E63.81723
G1 X147.08 Y154.96 E63.82744
G1 X147.18 Y155.47 E63.83795
G1 X147.60 Y155.64 E63.84831
G1 X147.65 Y156.20 E63.85813
G1 X148.13 Y156.33 E63.86857
G1 X148.22 Y156.84 E63.87853
G1 X148.74 Y156.92 E63.88885
G1 X148.87 Y157.40 E63.89934
G1 X149.44 Y157.44 E63.90919
G1 X149.61 Y157.87 E63.92021
G1 X150.13 Y157.96 E63.93138
G1 X150.57 Y158.13 E63.94309
G1 X151.04 Y158.26 E63.95549
G1 X151.53 Y158.37 E63.96796
G1 X152.08 Y158.42 E63.98236
G1 X152.67 Y158.45 E63.99699
G1 X153.34 Y158.38 E64.01482
G1 X154.12 Y158.21 E64.03610
G1 X154.86 Y157.77 E64.06678
G0 F6000 X152.85 Y156.84
;TYPE:SUPPORT
G1 F780 X152.85 Y148.18 E64.37466
G0 F6000 X152.83 Y148.35
G0 X150.10 Y149.04
G0 X149.99 Y148.91
G1 F780 X149.99 Y156.10 E64.63043
G0 F6000 X150.10 Y155.98
G0 X155.58 Y155.30
G0 X155.71 Y155.40
G1 F780 X155.71 Y149.62 E64.83620
;LAYER:2
G0 F6000 X156.48 Y149.08 Z0.70
;TYPE:WALL-INNER
G1 F1020 X156.21 Y148.76 E64.85119
G1 X155.73 Y148.37 E64.87321
G1 X155.41 Y148.10 E64.88821
G1 X154.86 Y147.81 E64.91020
G1 X154.49 Y147.61 E64.92521
G1 X153.90 Y147.43 E64.94718
G1 X153.49 Y147.31 E64.96229
G1 X152.88 Y147.25 E64.98418
G1 X152.46 Y147.21 E64.99919
G1 X151.85 Y147.26 E65.02111
G1 X151.43 Y147.31 E65.03617
G1 X150.83 Y147.49 E65.05817
G1 X150.43 Y147.61 E65.07321
G1 X149.89 Y147.90 E65.09515
G1 X149.51 Y148.10 E65.11023
G1 X149.03 Y148.49 E65.13221
G1 X148.71 Y148.76 E65.14717
G1 X148.32 Y149.23 E65.16906
G1 X148.05 Y149.56 E65.18418
G1 X147.76 Y150.11 E65.20624
G1 X147.56 Y150.48 E65.22122
G1 X147.38 Y151.07 E65.24318
G1 X147.26 Y151.48 E65.25827
G1 X147.20 Y152.09 E65.28022
G1 X147.16 Y152.51 E65.29517
G1 X147.22 Y153.12 E65.31708
G1 X147.26 Y153.54 E65.33221
G1 X147.44 Y154.13 E65.35418
G1 X147.56 Y154.54 E65.36918
G1 X147.85 Y155.08 E65.39112
G1 X148.05 Y155.46 E65.40622
G1 X148.44 Y155.93 E65.42822
G1 X148.71 Y156.26 E65.44320
G1 X149.19 Y156.65 E65.46514
G1 X149.51 Y156.92 E65.48019
G1 X150.06 Y157.21 E65.50214
G1 X150.43 Y157.41 E65.51718
G1 X151.02 Y157.59 E65.53921
G1 X151.43 Y157.71 E65.55430
G1 X152.04 Y157.77 E65.57625
G1 X152.46 Y157.81 E65.59123
G1 X153.07 Y157.75 E65.61315
G1 X153.50 Y157.71 E65.62821
G1 X154.09 Y157.53 E65.65017
G1 X154.49 Y157.41 E65.66525
G1 X155.03 Y157.12 E65.68720
G1 X155.41 Y156.92 E65.70225
G1 X155.88 Y156.53 E65.72418
G1 X156.21 Y156.26 E65.73917
G1 X156.60 Y155.78 E65.76116
G1 X156.87 Y155.45 E65.77624
G1 X157.16 Y154.91 E65.79826
G1 X157.36 Y154.54 E65.81324
G1 X157.54 Y153.95 E65.83520
G1 X157.66 Y153.54 E65.85025
G1 X157.72 Y152.93 E65.87221
G1 X157.76 Y152.51 E65.88726
G1 X157.71 Y151.89 E65.90918
G1 X157.66 Y151.47 E65.92424
G1 X157.48 Y150.88 E65.94620
G1 X157.36 Y150.48 E65.96121
G1 X157.07 Y149.93 E65.98318
G1 X156.87 Y149.56 E65.99829
G1 X156.48 Y149.08 E66.02021
G0 F6000 X157.32 Y148.87
G1 F1020 X157.58 Y149.26 E66.03678
G1 X157.86 Y149.74 E66.05680
G1 X158.05 Y150.15 E66.07267
G1 X158.24 Y150.67 E66.09239
G1 X158.37 Y151.12 E66.10926
G1 X158.47 Y151.66 E66.12849
G1 X158.52 Y152.12 E66.14508
G1 X158.53 Y152.67 E66.16469
G1 X158.49 Y153.22 E66.18436
G1 X158.41 Y153.68 E66.20089
G1 X158.34 Y154.00 E66.21258
G1 X158.18 Y154.53 E66.23250
G1 X158.01 Y154.96 E66.24863
G1 X157.75 Y155.46 E66.26856
G1 X157.52 Y155.84 E66.28455
G1 X157.18 Y156.30 E66.30476
G1 X156.75 Y156.78 E66.32805
G1 X156.32 Y157.16 E66.34821
G1 X155.96 Y157.44 E66.36446
G1 X155.49 Y157.73 E66.38430
G1 X155.08 Y157.95 E66.40070
G1 X154.56 Y158.16 E66.42067
G1 X154.13 Y158.30 E66.43684
G1 X153.59 Y158.43 E66.45645
G1 X153.14 Y158.49 E66.47285
G1 X152.58 Y158.53 E66.49264
G1 X152.03 Y158.51 E66.51215
G1 X151.58 Y158.46 E66.52848
G1 X151.04 Y158.35 E66.54817
G1 X150.59 Y158.22 E66.56459
G1 X150.08 Y158.02 E66.58427
G1 X149.67 Y157.82 E66.60052
G1 X149.18 Y157.53 E66.62056
G1 X148.81 Y157.27 E66.63678
G1 X148.39 Y156.91 E66.65637
G1 X148.01 Y156.52 E66.67578
G1 X147.71 Y156.15 E66.69271
G1 X147.40 Y155.71 E66.71182
G1 X147.16 Y155.30 E66.72864
G1 X146.93 Y154.80 E66.74827
G1 X146.77 Y154.37 E66.76476
G1 X146.62 Y153.84 E66.78440
G1 X146.54 Y153.39 E66.80072
G1 X146.48 Y152.84 E66.82044
G1 X146.47 Y152.50 E66.83236
G1 X146.51 Y151.82 E66.85653
G1 X146.60 Y151.28 E66.87589
G1 X146.71 Y150.83 E66.89259
G1 X146.88 Y150.31 E66.91202
G1 X147.07 Y149.88 E66.92862
G1 X147.33 Y149.40 E66.94812
G1 X147.59 Y149.01 E66.96463
G1 X147.93 Y148.57 E66.98441
G1 X148.30 Y148.19 E67.00352
G1 X148.64 Y147.87 E67.02024
G1 X149.09 Y147.53 E67.04024
G1 X149.47 Y147.29 E67.05609
G1 X149.96 Y147.03 E67.07602
G1 X150.40 Y146.85 E67.09265
G1 X150.91 Y146.69 E67.11188
G1 X151.37 Y146.58 E67.12871
G1 X151.92 Y146.50 E67.14845
G1 X152.57 Y146.47 E67.17168
G1 X153.13 Y146.51 E67.19179
G1 X153.59 Y146.57 E67.20818
G1 X154.14 Y146.70 E67.22814
G1 X154.57 Y146.84 E67.24416
G1 X155.08 Y147.05 E67.26413
G1 X155.49 Y147.26 E67.28037
G1 X155.95 Y147.56 E67.29990
G1 X156.32 Y147.84 E67.31660
G1 X156.74 Y148.22 E67.33651
G1 X157.32 Y148.87 E67.36761
G0 F6000 X157.65 Y148.61
G1 F1020 X157.94 Y149.02 E67.38550
G1 X158.24 Y149.55 E67.40704
G1 X158.44 Y149.97 E67.42382
G1 X158.65 Y150.54 E67.44543
G1 X158.78 Y151.02 E67.46296
G1 X158.90 Y151.60 E67.48397
G1 X158.94 Y152.09 E67.50163
G1 X158.96 Y152.68 E67.52260
G1 X158.91 Y153.27 E67.54351
G1 X158.75 Y154.12 E67.57415
G1 X158.58 Y154.67 E67.59478
G1 X158.39 Y155.14 E67.61278
G1 X158.13 Y155.66 E67.63359
G1 X157.87 Y156.08 E67.65118
G1 X157.52 Y156.57 E67.67254
G1 X157.19 Y156.94 E67.69024
G1 X157.04 Y157.09 E67.69771
G1 X156.59 Y157.49 E67.71916
G1 X156.20 Y157.79 E67.73681
G1 X155.71 Y158.10 E67.75740
G1 X155.26 Y158.34 E67.77538
G1 X154.71 Y158.56 E67.79655
G1 X154.24 Y158.72 E67.81419
G1 X153.68 Y158.85 E67.83465
G1 X153.18 Y158.92 E67.85281
G1 X152.59 Y158.96 E67.87360
G1 X152.00 Y158.94 E67.89475
G1 X151.51 Y158.88 E67.91219
G1 X150.93 Y158.76 E67.93347
G1 X150.46 Y158.62 E67.95072
G1 X149.91 Y158.41 E67.97181
G1 X149.46 Y158.19 E67.98968
G1 X148.95 Y157.89 E68.01063
G1 X148.55 Y157.60 E68.02820
G1 X148.09 Y157.22 E68.04944
G1 X147.69 Y156.80 E68.06997
G1 X147.37 Y156.42 E68.08768
G1 X147.03 Y155.93 E68.10902
G1 X146.79 Y155.51 E68.12634
G1 X146.54 Y154.97 E68.14736
G1 X146.36 Y154.50 E68.16527
G1 X146.21 Y153.93 E68.18632
G1 X146.12 Y153.46 E68.20348
G1 X146.05 Y152.85 E68.22516
G1 X146.04 Y152.51 E68.23744
G1 X146.09 Y151.78 E68.26339
G1 X146.18 Y151.19 E68.28452
G1 X146.30 Y150.72 E68.30198
G1 X146.49 Y150.15 E68.32323
G1 X146.68 Y149.70 E68.34064
G1 X146.97 Y149.18 E68.36191
G1 X147.23 Y148.77 E68.37926
G1 X147.59 Y148.30 E68.40016
G1 X148.01 Y147.87 E68.42140
G1 X148.37 Y147.54 E68.43901
G1 X148.84 Y147.18 E68.46008
G1 X149.25 Y146.92 E68.47735
G1 X149.79 Y146.64 E68.49876
G1 X150.24 Y146.45 E68.51624
G1 X150.80 Y146.27 E68.53710
G1 X151.29 Y146.16 E68.55522
G1 X151.87 Y146.07 E68.57586
G1 X152.38 Y146.05 E68.59397
G1 X152.58 Y146.04 E68.60123
G1 X153.18 Y146.08 E68.62270
G1 X153.67 Y146.15 E68.64031
G1 X154.25 Y146.28 E68.66140
G1 X154.71 Y146.43 E68.67870
G1 X155.27 Y146.67 E68.70010
G1 X155.70 Y146.89 E68.71750
G1 X156.20 Y147.21 E68.73859
G1 X156.60 Y147.51 E68.75655
G1 X157.03 Y147.90 E68.77719
G1 X157.29 Y148.16 E68.79015
G1 X157.65 Y148.61 E68.81076
G0 F6000 X156.51 Y149.80
G1 F1020 X156.15 Y149.36 E68.83119
G1 X155.91 Y149.06 E68.84472
G1 X155.46 Y148.70 E68.86522
G1 X155.17 Y148.46 E68.87873
G1 X154.66 Y148.18 E68.89922
G1 X154.32 Y148.01 E68.91275
G1 X153.78 Y147.84 E68.93319
G1 X153.41 Y147.73 E68.94679
G1 X152.84 Y147.67 E68.96721
G1 X152.46 Y147.63 E68.98069
G1 X151.89 Y147.69 E69.00114
G1 X151.51 Y147.73 E69.01469
G1 X150.96 Y147.90 E69.03522
G1 X150.59 Y148.01 E69.04873
G1 X150.09 Y148.28 E69.06917
G1 X149.75 Y148.46 E69.08275
G1 X149.31 Y148.82 E69.10321
G1 X149.01 Y149.06 E69.11671
G1 X148.65 Y149.50 E69.13713
G1 X148.41 Y149.80 E69.15071
G1 X148.13 Y150.31 E69.17125
G1 X147.96 Y150.65 E69.18477
G1 X147.79 Y151.19 E69.20520
G1 X147.68 Y151.56 E69.21877
G1 X147.62 Y152.13 E69.23922
G1 X147.59 Y152.51 E69.25270
G1 X147.64 Y153.08 E69.27311
G1 X147.68 Y153.46 E69.28671
G1 X147.85 Y154.01 E69.30719
G1 X147.96 Y154.37 E69.32070
G1 X148.23 Y154.88 E69.34119
G1 X148.41 Y155.22 E69.35475
G1 X148.77 Y155.66 E69.37521
G1 X149.01 Y155.95 E69.38873
G1 X149.46 Y156.32 E69.40918
G1 X149.75 Y156.56 E69.42272
G1 X150.26 Y156.83 E69.44318
G1 X150.59 Y157.01 E69.45673
G1 X151.15 Y157.18 E69.47723
G1 X151.51 Y157.29 E69.49079
G1 X152.08 Y157.35 E69.51125
G1 X152.46 Y157.38 E69.52476
G1 X153.03 Y157.33 E69.54521
G1 X153.41 Y157.29 E69.55870
G1 X153.96 Y157.12 E69.57921
G1 X154.33 Y157.01 E69.59275
G1 X154.83 Y156.74 E69.61321
G1 X155.17 Y156.56 E69.62676
G1 X155.61 Y156.20 E69.64720
G1 X155.91 Y155.95 E69.66075
G1 X156.27 Y155.51 E69.68120
G1 X156.51 Y155.22 E69.69475
G1 X156.79 Y154.71 E69.71528
G1 X156.96 Y154.37 E69.72879
G1 X157.13 Y153.82 E69.74923
G1 X157.24 Y153.46 E69.76279
G1 X157.30 Y152.89 E69.78325
G1 X157.33 Y152.51 E69.79676
G1 X157.28 Y151.94 E69.81721
G1 X157.24 Y151.56 E69.83074
G1 X157.07 Y151.01 E69.85122
G1 X156.96 Y150.64 E69.86473
G1 X156.69 Y150.14 E69.88520
G1 X156.51 Y149.80 E69.89878
G0 F6000 X156.16 Y150.04
;TYPE:WALL-OUTER
G1 F1020 X155.60 Y149.37 E69.92975
G1 X155.19 Y149.03 E69.94874
G1 X154.93 Y148.81 E69.96078
G1 X154.46 Y148.56 E69.97975
G1 X154.16 Y148.40 E69.99178
G1 X153.65 Y148.25 E70.01073
G1 X153.33 Y148.15 E70.02280
G1 X152.80 Y148.10 E70.04172
G1 X152.46 Y148.06 E70.05373
G1 X151.93 Y148.12 E70.07268
G1 X151.59 Y148.15 E70.08473
G1 X151.08 Y148.30 E70.10373
G1 X150.76 Y148.40 E70.11575
G1 X150.29 Y148.65 E70.13470
G1 X149.99 Y148.81 E70.14678
G1 X149.58 Y149.15 E70.16575
G1 X149.32 Y149.37 E70.17775
G1 X148.98 Y149.78 E70.19669
G1 X148.76 Y150.04 E70.20877
G1 X148.51 Y150.51 E70.22777
G1 X148.35 Y150.81 E70.23981
G1 X148.20 Y151.32 E70.25875
G1 X148.10 Y151.64 E70.27079
G1 X148.02 Y152.51 E70.30175
G1 X148.07 Y153.04 E70.32070
G1 X148.10 Y153.38 E70.33275
G1 X148.35 Y154.21 E70.36373
G1 X148.76 Y154.98 E70.39477
G1 X149.10 Y155.39 E70.41373
G1 X149.32 Y155.65 E70.42579
G1 X149.73 Y155.99 E70.44472
G1 X149.99 Y156.20 E70.45679
G1 X150.46 Y156.46 E70.47575
G1 X150.76 Y156.62 E70.48780
G1 X151.27 Y156.77 E70.50678
G1 X151.59 Y156.87 E70.51882
G1 X152.46 Y156.95 E70.54982
G1 X152.99 Y156.90 E70.56877
G1 X153.33 Y156.87 E70.58075
G1 X153.84 Y156.71 E70.59974
G1 X154.16 Y156.62 E70.61180
G1 X154.93 Y156.20 E70.64278
G1 X155.60 Y155.65 E70.67381
G1 X155.94 Y155.24 E70.69274
G1 X156.16 Y154.98 E70.70481
G1 X156.41 Y154.51 E70.72381
G1 X156.57 Y154.21 E70.73584
G1 X156.72 Y153.70 E70.75479
G1 X156.82 Y153.38 E70.76682
G1 X156.87 Y152.84 E70.78578
G1 X156.90 Y152.51 E70.79783
G1 X156.85 Y151.98 E70.81678
G1 X156.82 Y151.64 E70.82879
G1 X156.57 Y150.81 E70.85978
G1 X156.32 Y150.34 E70.87875
G1 X156.16 Y150.04 E70.89084
G0 F6000 X156.43 Y149.89
G0 X158.04 Y148.96
G0 X158.30 Y148.79
G1 F1020 X158.62 Y149.35 E70.91378
G1 X158.84 Y149.81 E70.93206
G1 X159.06 Y150.42 E70.95504
G1 X159.20 Y150.92 E70.97363
G1 X159.32 Y151.54 E70.99588
G1 X159.37 Y152.07 E71.01494
G1 X159.38 Y152.70 E71.03729
G1 X159.34 Y153.32 E71.05942
G1 X159.25 Y153.84 E71.07819
G1 X159.17 Y154.23 E71.09235
G1 X158.99 Y154.81 E71.11410
G1 X158.79 Y155.31 E71.13337
G1 X158.50 Y155.88 E71.15586
G1 X158.23 Y156.32 E71.17433
G1 X157.85 Y156.84 E71.19714
G1 X157.50 Y157.23 E71.21580
G1 X156.86 Y157.82 E71.24690
G1 X156.44 Y158.14 E71.26563
G1 X155.92 Y158.47 E71.28770
G1 X155.44 Y158.72 E71.30683
G1 X154.87 Y158.96 E71.32907
G1 X154.35 Y159.13 E71.34838
G1 X153.76 Y159.27 E71.37008
G1 X153.23 Y159.34 E71.38917
G1 X152.59 Y159.38 E71.41167
G1 X151.98 Y159.36 E71.43371
G1 X151.44 Y159.30 E71.45280
G1 X150.82 Y159.18 E71.47536
G1 X150.33 Y159.03 E71.49374
G1 X149.73 Y158.80 E71.51633
G1 X149.25 Y158.57 E71.53543
G1 X148.72 Y158.25 E71.55737
G1 X148.28 Y157.94 E71.57682
G1 X147.81 Y157.54 E71.59874
G1 X147.37 Y157.09 E71.62097
G1 X147.03 Y156.68 E71.64004
G1 X146.68 Y156.16 E71.66220
G1 X146.41 Y155.70 E71.68118
G1 X146.15 Y155.14 E71.70325
G1 X145.95 Y154.63 E71.72284
G1 X145.79 Y154.03 E71.74485
G1 X145.69 Y153.51 E71.76348
G1 X145.63 Y152.88 E71.78613
G1 X145.62 Y152.51 E71.79931
G1 X145.66 Y151.72 E71.82747
G1 X145.76 Y151.12 E71.84920
G1 X145.88 Y150.60 E71.86813
G1 X146.09 Y149.99 E71.89102
G1 X146.30 Y149.51 E71.90959
G1 X146.60 Y148.96 E71.93197
G1 X146.88 Y148.52 E71.95063
G1 X147.28 Y148.01 E71.97356
G1 X147.70 Y147.57 E71.99538
G1 X148.09 Y147.21 E72.01427
G1 X148.60 Y146.83 E72.03699
G1 X149.04 Y146.55 E72.05532
G1 X149.61 Y146.25 E72.07813
G1 X150.08 Y146.05 E72.09658
G1 X150.69 Y145.86 E72.11917
G1 X151.21 Y145.74 E72.13824
G1 X151.83 Y145.65 E72.16042
G1 X152.37 Y145.62 E72.17967
G1 X152.59 Y145.62 E72.18757
G1 X153.23 Y145.66 E72.21036
G1 X153.75 Y145.73 E72.22926
G1 X154.35 Y145.87 E72.25120
G1 X154.87 Y146.03 E72.27048
G1 X155.44 Y146.28 E72.29261
G1 X155.92 Y146.52 E72.31157
G1 X156.44 Y146.86 E72.33383
G1 X156.87 Y147.18 E72.35290
G1 X157.34 Y147.60 E72.37546
G1 X157.60 Y147.87 E72.38867
G1 X158.00 Y148.35 E72.41080
G1 X158.30 Y148.79 E72.42976
G0 F6000 X157.33 Y149.16
;TYPE:FILL
G1 F1020 X155.82 Y147.65 E72.50571
G0 F6000 X155.77 Y148.21
G1 F1020 X154.56 Y147.00 E72.56656
G0 F6000 X154.38 Y147.42
G1 F1020 X153.72 Y146.75 E72.60000
G0 F6000 X153.51 Y147.16
G1 F1020 X152.92 Y146.87 E72.62555
G1 X152.30 Y146.85 E72.64882
G1 X151.74 Y146.90 E72.66951
G1 X151.23 Y146.99 E72.68861
G1 X150.59 Y146.95 E72.70626
G1 X150.48 Y147.45 E72.72332
G1 X149.74 Y147.32 E72.73911
G1 X149.66 Y147.85 E72.75515
G1 X149.00 Y147.79 E72.76992
G1 X148.96 Y148.36 E72.78511
G1 X148.35 Y148.35 E72.79987
G1 X148.35 Y148.96 E72.81445
G1 X147.79 Y149.00 E72.82941
G1 X147.84 Y149.65 E72.84372
G1 X147.32 Y149.74 E72.85901
G1 X147.43 Y150.46 E72.87438
G1 X146.95 Y150.58 E72.89022
G1 X146.98 Y151.21 E72.90676
G1 X146.88 Y151.72 E72.92389
G1 X146.83 Y152.28 E72.94269
G1 X146.84 Y152.90 E72.96303
G1 X146.93 Y153.58 E72.98556
G1 X147.33 Y154.29 E73.01441
G0 F6000 X147.00 Y154.57
G1 F1020 X147.87 Y155.43 E73.05792
G0 F6000 X147.68 Y155.85
G1 F1020 X149.16 Y157.33 E73.13211
G0 F6000 X149.53 Y157.10
G1 F1020 X150.43 Y157.99 E73.17710
G0 F6000 X150.68 Y157.64
G1 F1020 X151.40 Y158.06 E73.20736
G1 X152.09 Y158.14 E73.23152
G1 X152.70 Y158.15 E73.25358
G1 X153.26 Y158.10 E73.27383
G1 X153.77 Y158.00 E73.29243
G1 X154.41 Y158.05 E73.31049
G1 X154.51 Y157.54 E73.32773
G1 X155.26 Y157.68 E73.34445
G1 X155.32 Y157.13 E73.36131
G1 X156.00 Y157.21 E73.37727
G1 X156.01 Y156.62 E73.39390
G1 X156.65 Y156.65 E73.41000
G1 X156.61 Y156.00 E73.42631
G1 X157.21 Y156.00 E73.44330
G1 X157.12 Y155.30 E73.45972
G1 X157.68 Y155.26 E73.47749
G1 X157.52 Y154.49 E73.49503
G1 X158.05 Y154.41 E73.51376
G1 X157.79 Y153.55 E73.53317
G1 X158.29 Y153.45 E73.55407
G1 X158.13 Y152.68 E73.57663
G1 X158.11 Y152.06 E73.60175
G1 X157.81 Y151.45 E73.62591
G0 F6000 X158.25 Y151.29
G1 F1020 X157.55 Y150.59 E73.66097
G0 F6000 X158.00 Y150.43
G1 F1020 X156.77 Y149.20 E73.72272
G0 F6000 X155.71 Y152.22
;TYPE:SUPPORT
G1 F1020 X155.71 Y152.78 E73.74240
G0 F6000 X155.59 Y152.66
G0 X152.85 Y155.30
G0 X152.85 Y155.47
G1 F1020 X152.85 Y149.54 E73.95337
G0 F6000 X152.85 Y149.70
G0 X150.11 Y150.75
G0 X149.99 Y150.63
G1 F1020 X149.99 Y154.65 E74.09650
;LAYER:3
G0 F6000 X149.08 Y155.89 Z0.90
;TYPE:WALL-INNER
G1 F1380 X149.81 Y156.48 E74.12981
G1 X150.63 Y156.92 E74.16312
G1 X151.53 Y157.19 E74.19648
G1 X152.46 Y157.29 E74.22984
G1 X153.39 Y157.19 E74.26314
G1 X154.29 Y156.92 E74.29649
G1 X155.11 Y156.48 E74.32980
G1 X155.84 Y155.89 E74.36311
G1 X156.43 Y155.16 E74.39654
G1 X156.87 Y154.34 E74.42981
G1 X157.15 Y153.44 E74.46318
G1 X157.24 Y152.51 E74.49651
G1 X157.15 Y151.58 E74.52980
G1 X156.87 Y150.68 E74.56316
G1 X156.43 Y149.85 E74.59644
G1 X155.84 Y149.13 E74.62987
G1 X155.11 Y148.54 E74.66317
G1 X154.29 Y148.09 E74.69648
G1 X153.39 Y147.82 E74.72987
G1 X152.46 Y147.73 E74.76313
G1 X151.53 Y147.82 E74.79642
G1 X150.63 Y148.09 E74.82985
G1 X149.81 Y148.54 E74.86316
G1 X149.08 Y149.13 E74.89646
G1 X148.49 Y149.85 E74.92989
G1 X148.05 Y150.68 E74.96316
G1 X147.77 Y151.58 E74.99653
G1 X147.68 Y152.51 E75.02982
G1 X147.77 Y153.44 E75.06315
G1 X148.05 Y154.34 E75.09652
G1 X148.49 Y155.16 E75.12979
G1 X149.08 Y155.89 E75.16322
G0 F6000 X148.84 Y156.43
G1 F1380 X148.46 Y156.04 E75.18268
G1 X148.10 Y155.57 E75.20359
G1 X147.78 Y155.06 E75.22492
G1 X147.53 Y154.53 E75.24616
G1 X147.34 Y153.97 E75.26728
G1 X147.20 Y153.37 E75.28909
G1 X147.13 Y152.72 E75.31231
G1 X147.13 Y152.50 E75.32007
G1 X147.14 Y152.23 E75.32969
G1 X147.20 Y151.67 E75.34970
G1 X147.32 Y151.09 E75.37077
G1 X147.52 Y150.50 E75.39297
G1 X147.64 Y150.22 E75.40397
G1 X147.91 Y149.71 E75.42464
G1 X148.09 Y149.44 E75.43596
G1 X148.44 Y148.98 E75.45646
G1 X148.61 Y148.80 E75.46525
G1 X149.01 Y148.42 E75.48492
G1 X149.53 Y148.02 E75.50833
G1 X150.01 Y147.74 E75.52824
G1 X150.31 Y147.60 E75.53971
G1 X150.82 Y147.40 E75.55920
G1 X151.39 Y147.25 E75.58040
G1 X151.99 Y147.15 E75.60183
G1 X152.57 Y147.13 E75.62266
G1 X153.13 Y147.17 E75.64264
G1 X153.46 Y147.21 E75.65436
G1 X154.00 Y147.34 E75.67403
G1 X154.31 Y147.44 E75.68572
G1 X154.81 Y147.65 E75.70512
G1 X155.35 Y147.95 E75.72689
G1 X155.83 Y148.28 E75.74773
G1 X156.27 Y148.68 E75.76896
G1 X156.63 Y149.07 E75.78788
G1 X156.99 Y149.55 E75.80913
G1 X157.29 Y150.07 E75.83039
G1 X157.54 Y150.63 E75.85235
G1 X157.64 Y150.93 E75.86351
G1 X157.77 Y151.47 E75.88332
G1 X157.85 Y152.06 E75.90441
G1 X157.87 Y152.65 E75.92553
G1 X157.83 Y153.20 E75.94530
G1 X157.77 Y153.53 E75.95702
G1 X157.65 Y154.04 E75.97580
G1 X157.43 Y154.62 E75.99789
G1 X157.17 Y155.15 E76.01872
G1 X156.85 Y155.65 E76.03995
G1 X156.48 Y156.11 E76.06100
G1 X156.08 Y156.50 E76.08088
G1 X155.84 Y156.71 E76.09216
G1 X155.39 Y157.03 E76.11174
G1 X154.84 Y157.34 E76.13432
G1 X154.32 Y157.55 E76.15425
G1 X153.75 Y157.72 E76.17539
G1 X153.16 Y157.83 E76.19681
G1 X152.57 Y157.87 E76.21782
G1 X152.02 Y157.85 E76.23745
G1 X151.70 Y157.81 E76.24884
G1 X151.14 Y157.70 E76.26930
G1 X150.56 Y157.51 E76.29110
G1 X150.03 Y157.27 E76.31149
G1 X149.76 Y157.12 E76.32269
G1 X149.29 Y156.81 E76.34269
G1 X148.84 Y156.43 E76.36357
G0 F6000 X148.55 Y156.75
G1 F1380 X148.14 Y156.32 E76.38448
G1 X147.75 Y155.81 E76.40747
G1 X147.41 Y155.26 E76.43046
G1 X147.13 Y154.70 E76.45289
G1 X146.92 Y154.08 E76.47598
G1 X146.78 Y153.44 E76.49946
G1 X146.71 Y152.76 E76.52373
G1 X146.70 Y152.49 E76.53355
G1 X146.71 Y152.20 E76.54380
G1 X146.77 Y151.61 E76.56474
G1 X146.91 Y150.97 E76.58797
G1 X147.12 Y150.35 E76.61129
G1 X147.26 Y150.03 E76.62394
G1 X147.54 Y149.49 E76.64564
G1 X147.74 Y149.19 E76.65819
G1 X148.11 Y148.71 E76.68003
G1 X148.73 Y148.09 E76.71106
G1 X149.29 Y147.67 E76.73617
G1 X149.81 Y147.37 E76.75736
G1 X150.14 Y147.21 E76.77038
G1 X150.68 Y146.99 E76.79124
G1 X151.31 Y146.83 E76.81421
G1 X151.94 Y146.73 E76.83703
G1 X152.58 Y146.70 E76.85990
G1 X153.18 Y146.74 E76.88120
G1 X153.53 Y146.79 E76.89382
G1 X154.12 Y146.93 E76.91543
G1 X155.00 Y147.27 E76.94874
G1 X155.57 Y147.58 E76.97205
G1 X156.09 Y147.95 E76.99479
G1 X156.58 Y148.37 E77.01771
G1 X156.96 Y148.79 E77.03796
G1 X157.35 Y149.32 E77.06113
G1 X157.67 Y149.87 E77.08400
G1 X157.94 Y150.47 E77.10737
G1 X158.05 Y150.81 E77.11992
G1 X158.19 Y151.38 E77.14097
G1 X158.28 Y152.03 E77.16422
G1 X158.30 Y152.66 E77.18672
G1 X158.25 Y153.25 E77.20782
G1 X158.19 Y153.61 E77.22069
G1 X158.05 Y154.17 E77.24137
G1 X157.83 Y154.78 E77.26436
G1 X157.55 Y155.36 E77.28739
G1 X157.20 Y155.90 E77.31030
G1 X156.79 Y156.40 E77.33319
G1 X156.38 Y156.81 E77.35393
G1 X156.10 Y157.05 E77.36708
G1 X155.62 Y157.38 E77.38774
G1 X155.03 Y157.72 E77.41215
G1 X154.47 Y157.96 E77.43372
G1 X153.85 Y158.14 E77.45648
G1 X153.22 Y158.25 E77.47960
G1 X152.58 Y158.30 E77.50211
G1 X151.98 Y158.28 E77.52356
G1 X151.63 Y158.24 E77.53602
G1 X151.04 Y158.11 E77.55743
G1 X150.39 Y157.90 E77.58179
G1 X149.85 Y157.66 E77.60314
G1 X149.53 Y157.48 E77.61607
G1 X149.04 Y157.15 E77.63718
G1 X148.55 Y156.75 E77.65962
G0 F6000 X149.39 Y155.58
G1 F1380 X150.04 Y156.12 E77.68992
G1 X150.79 Y156.53 E77.72020
G1 X151.61 Y156.77 E77.75059
G1 X152.46 Y156.86 E77.78095
G1 X153.31 Y156.77 E77.81124
G1 X154.12 Y156.53 E77.84163
G1 X154.88 Y156.12 E77.87191
G1 X155.53 Y155.58 E77.90221
G1 X156.08 Y154.92 E77.93260
G1 X156.48 Y154.17 E77.96292
G1 X156.72 Y153.36 E77.99328
G1 X156.81 Y152.51 E78.02360
G1 X156.72 Y151.66 E78.05389
G1 X156.48 Y150.84 E78.08425
G1 X156.08 Y150.09 E78.11456
G1 X155.53 Y149.43 E78.14496
G1 X154.88 Y148.89 E78.17526
G1 X154.12 Y148.49 E78.20554
G1 X153.31 Y148.24 E78.23597
G1 X152.46 Y148.16 E78.26622
G1 X151.61 Y148.24 E78.29654
G1 X150.79 Y148.49 E78.32697
G1 X150.04 Y148.89 E78.35725
G1 X149.39 Y149.43 E78.38755
G1 X148.84 Y150.09 E78.41794
G1 X148.44 Y150.84 E78.44826
G1 X148.19 Y151.66 E78.47862
G1 X148.11 Y152.51 E78.50891
G1 X148.19 Y153.36 E78.53923
G1 X148.44 Y154.17 E78.56959
G1 X148.84 Y154.92 E78.59990
G1 X149.39 Y155.58 E78.63030
G0 F6000 X149.69 Y155.28
G1 F1380 X150.28 Y155.77 E78.65761
G1 X150.96 Y156.13 E78.68490
G1 X151.70 Y156.35 E78.71227
G1 X152.46 Y156.43 E78.73963
G1 X153.22 Y156.35 E78.76692
G1 X153.96 Y156.13 E78.79429
G1 X154.64 Y155.77 E78.82158
G1 X155.23 Y155.28 E78.84889
G1 X155.72 Y154.69 E78.87628
G1 X156.08 Y154.01 E78.90361
G1 X156.30 Y153.27 E78.93097
G1 X156.38 Y152.51 E78.95828
G1 X156.30 Y151.75 E78.98557
G1 X156.08 Y151.01 E79.01292
G1 X155.72 Y150.33 E79.04026
G1 X155.23 Y149.74 E79.06764
G1 X154.64 Y149.25 E79.09496
G1 X153.96 Y148.89 E79.12225
G1 X153.22 Y148.66 E79.14966
G1 X152.46 Y148.59 E79.17691
G1 X151.70 Y148.66 E79.20422
G1 X150.96 Y148.89 E79.23164
G1 X150.28 Y149.25 E79.25893
G1 X149.69 Y149.74 E79.28624
G1 X149.20 Y150.33 E79.31363
G1 X148.84 Y151.01 E79.34096
G1 X148.62 Y151.75 E79.36832
G1 X148.54 Y152.51 E79.39560
G1 X148.62 Y153.27 E79.42292
G1 X148.84 Y154.01 E79.45027
G1 X149.20 Y154.69 E79.47761
G1 X149.69 Y155.28 E79.50499
G0 F6000 X148.25 Y157.05
G1 F1380 X147.82 Y156.60 E79.52717
G1 X147.40 Y156.07 E79.55150
G1 X147.03 Y155.48 E79.57620
G1 X146.73 Y154.85 E79.60098
G1 X146.51 Y154.20 E79.62530
G1 X146.36 Y153.52 E79.65011
G1 X146.28 Y152.78 E79.67655
G1 X146.27 Y152.50 E79.68659
G1 X146.28 Y152.16 E79.69856
G1 X146.35 Y151.54 E79.72103
G1 X146.49 Y150.87 E79.74542
G1 X146.72 Y150.19 E79.77060
G1 X146.87 Y149.84 E79.78439
G1 X147.18 Y149.27 E79.80730
G1 X147.78 Y148.44 E79.84392
G1 X148.00 Y148.19 E79.85578
G1 X148.46 Y147.77 E79.87786
G1 X149.05 Y147.32 E79.90427
G1 X149.61 Y146.99 E79.92747
G1 X149.96 Y146.81 E79.94149
G1 X150.55 Y146.59 E79.96402
G1 X151.22 Y146.41 E79.98851
G1 X151.90 Y146.30 E80.01324
G1 X152.58 Y146.27 E80.03746
G1 X153.23 Y146.32 E80.06054
G1 X153.61 Y146.37 E80.07416
G1 X154.23 Y146.52 E80.09673
G1 X154.61 Y146.64 E80.11104
G1 X155.18 Y146.88 E80.13324
G1 X155.79 Y147.21 E80.15795
G1 X156.36 Y147.61 E80.18257
G1 X156.88 Y148.07 E80.20718
G1 X157.29 Y148.52 E80.22877
G1 X157.71 Y149.09 E80.25402
G1 X158.05 Y149.68 E80.27834
G1 X158.33 Y150.32 E80.30322
G1 X158.46 Y150.69 E80.31709
G1 X158.61 Y151.29 E80.33939
G1 X158.71 Y151.98 E80.36415
G1 X158.73 Y152.67 E80.38868
G1 X158.68 Y153.30 E80.41117
G1 X158.61 Y153.69 E80.42529
G1 X158.46 Y154.31 E80.44767
G1 X158.23 Y154.95 E80.47214
G1 X157.92 Y155.56 E80.49652
G1 X157.54 Y156.15 E80.52141
G1 X157.12 Y156.68 E80.54562
G1 X156.66 Y157.14 E80.56872
G1 X156.37 Y157.38 E80.58203
G1 X155.85 Y157.75 E80.60460
G1 X155.21 Y158.11 E80.63078
G1 X154.61 Y158.36 E80.65391
G1 X153.96 Y158.56 E80.67829
G1 X153.27 Y158.68 E80.70318
G1 X152.59 Y158.73 E80.72740
G1 X151.96 Y158.70 E80.74991
G1 X151.57 Y158.66 E80.76385
G1 X150.94 Y158.53 E80.78674
G1 X150.23 Y158.30 E80.81321
G1 X149.66 Y158.04 E80.83549
G1 X149.30 Y157.84 E80.84997
G1 X148.79 Y157.50 E80.87211
G1 X148.25 Y157.05 E80.89685
G0 F6000 X147.96 Y157.37
G1 F1380 X147.50 Y156.89 E80.92054
G1 X147.04 Y156.30 E80.94712
G1 X146.66 Y155.68 E80.97299
G1 X146.34 Y155.02 E80.99922
G1 X146.10 Y154.31 E81.02574
G1 X145.94 Y153.59 E81.05204
G1 X145.85 Y152.80 E81.08024
G1 X145.84 Y152.50 E81.09106
G1 X145.85 Y152.13 E81.10412
G1 X145.93 Y151.48 E81.12764
G1 X146.08 Y150.75 E81.15414
G1 X146.31 Y150.05 E81.18044
G1 X146.49 Y149.65 E81.19586
G1 X146.81 Y149.06 E81.21984
G1 X147.04 Y148.69 E81.23535
G1 X147.45 Y148.16 E81.25899
G1 X147.69 Y147.90 E81.27172
G1 X148.19 Y147.44 E81.29591
G1 X148.78 Y146.98 E81.32258
G1 X149.41 Y146.61 E81.34858
G1 X149.79 Y146.42 E81.36359
G1 X150.42 Y146.18 E81.38754
G1 X151.13 Y145.99 E81.41378
G1 X151.87 Y145.87 E81.44032
G1 X152.59 Y145.84 E81.46596
G1 X153.26 Y145.89 E81.49022
G1 X153.69 Y145.95 E81.50553
G1 X154.35 Y146.11 E81.52978
G1 X154.75 Y146.23 E81.54450
G1 X155.37 Y146.50 E81.56845
G1 X156.03 Y146.85 E81.59516
G1 X156.62 Y147.27 E81.62101
G1 X157.18 Y147.76 E81.64734
G1 X157.63 Y148.25 E81.67114
G1 X158.06 Y148.84 E81.69705
G1 X158.43 Y149.48 E81.72338
G1 X158.74 Y150.17 E81.75022
G1 X158.87 Y150.57 E81.76509
G1 X159.03 Y151.22 E81.78893
G1 X159.13 Y151.95 E81.81528
G1 X159.16 Y152.69 E81.84151
G1 X159.10 Y153.35 E81.86540
G1 X159.03 Y153.77 E81.88050
G1 X158.87 Y154.43 E81.90453
G1 X158.62 Y155.12 E81.93077
G1 X158.29 Y155.78 E81.95694
G1 X157.90 Y156.40 E81.98316
G1 X157.43 Y156.97 E82.00934
G1 X156.95 Y157.45 E82.03337
G1 X156.63 Y157.72 E82.04855
G1 X156.08 Y158.11 E82.07222
G1 X155.41 Y158.49 E82.09994
G1 X154.76 Y158.76 E82.12498
G1 X154.06 Y158.97 E82.15099
G1 X153.32 Y159.11 E82.17762
G1 X152.59 Y159.16 E82.20359
G1 X151.93 Y159.13 E82.22717
G1 X151.50 Y159.08 E82.24268
G1 X150.83 Y158.94 E82.26703
G1 X150.07 Y158.70 E82.29515
G1 X149.45 Y158.42 E82.31957
G1 X149.09 Y158.22 E82.33406
G1 X148.52 Y157.84 E82.35851
G1 X147.96 Y157.37 E82.38451
G0 F6000 X149.99 Y154.97
G1 F1380 X150.52 Y155.41 E82.40884
G1 X151.12 Y155.73 E82.43315
G1 X151.78 Y155.93 E82.45752
G1 X152.46 Y156.00 E82.48187
G1 X153.14 Y155.93 E82.50615
G1 X153.79 Y155.73 E82.53051
G1 X154.40 Y155.41 E82.55483
G1 X154.93 Y154.97 E82.57916
G1 X155.36 Y154.45 E82.60353
G1 X155.68 Y153.84 E82.62784
G1 X155.88 Y153.19 E82.65221
G1 X155.95 Y152.51 E82.67653
G1 X155.88 Y151.83 E82.70081
G1 X155.68 Y151.17 E82.72518
G1 X155.36 Y150.57 E82.74949
G1 X154.93 Y150.04 E82.77386
G1 X154.40 Y149.61 E82.79819
G1 X153.79 Y149.29 E82.82251
G1 X153.14 Y149.09 E82.84687
G1 X152.46 Y149.02 E82.87115
G1 X151.78 Y149.09 E82.89546
G1 X151.12 Y149.29 E82.91986
G1 X150.52 Y149.61 E82.94417
G1 X149.99 Y150.04 E82.96850
G1 X149.56 Y150.57 E82.99287
G1 X149.24 Y151.17 E83.01718
G1 X149.04 Y151.83 E83.04156
G1 X148.97 Y152.51 E83.06584
G1 X149.04 Y153.19 E83.09015
G1 X149.24 Y153.84 E83.11452
G1 X149.56 Y154.45 E83.13883
G1 X149.99 Y154.97 E83.16321
G0 F6000 X150.30 Y154.67
;TYPE:WALL-OUTER
G1 F1380 X150.76 Y155.05 E83.18455
G1 X151.29 Y155.33 E83.20587
G1 X151.86 Y155.51 E83.22722
G1 X152.46 Y155.57 E83.24857
G1 X153.06 Y155.51 E83.26984
G1 X153.63 Y155.33 E83.29119
G1 X154.16 Y155.05 E83.31251
G1 X154.62 Y154.67 E83.33385
G1 X155.00 Y154.21 E83.35522
G1 X155.28 Y153.68 E83.37655
G1 X155.46 Y153.10 E83.39791
G1 X155.52 Y152.51 E83.41922
G1 X155.46 Y151.91 E83.44050
G1 X155.28 Y151.34 E83.46185
G1 X155.00 Y150.81 E83.48319
G1 X154.62 Y150.35 E83.50455
G1 X154.16 Y149.97 E83.52590
G1 X153.63 Y149.68 E83.54722
G1 X153.06 Y149.51 E83.56856
G1 X152.46 Y149.45 E83.58984
G1 X151.86 Y149.51 E83.61118
G1 X151.29 Y149.68 E83.63253
G1 X150.76 Y149.97 E83.65385
G1 X150.30 Y150.35 E83.67519
G1 X149.92 Y150.81 E83.69656
G1 X149.63 Y151.34 E83.71789
G1 X149.46 Y151.91 E83.73925
G1 X149.40 Y152.51 E83.76053
G1 X149.46 Y153.10 E83.78184
G1 X149.63 Y153.68 E83.80319
G1 X149.92 Y154.21 E83.82453
G1 X150.30 Y154.67 E83.84589
G0 F6000 X150.10 Y154.91
G0 X147.88 Y157.45
G0 X147.67 Y157.68
G1 F1380 X147.17 Y157.16 E83.87157
G1 X146.69 Y156.55 E83.89925
G1 X146.28 Y155.89 E83.92710
G1 X145.94 Y155.18 E83.95511
G1 X145.69 Y154.44 E83.98287
G1 X145.51 Y153.66 E84.01132
G1 X145.42 Y152.82 E84.04123
G1 X145.42 Y152.51 E84.05252
G1 X145.43 Y152.11 E84.06655
G1 X145.50 Y151.40 E84.09203
G1 X145.67 Y150.64 E84.11973
G1 X145.91 Y149.90 E84.14752
G1 X146.10 Y149.46 E84.16461
G1 X146.43 Y148.84 E84.18939
G1 X146.69 Y148.44 E84.20632
G1 X147.12 Y147.89 E84.23130
G1 X147.39 Y147.59 E84.24566
G1 X147.90 Y147.11 E84.27057
G1 X148.53 Y146.63 E84.29877
G1 X148.60 Y146.59 E84.30148
G1 X149.21 Y146.23 E84.32664
G1 X149.61 Y146.03 E84.34283
G1 X150.28 Y145.77 E84.36831
G1 X151.04 Y145.57 E84.39636
G1 X151.82 Y145.45 E84.42430
G1 X152.60 Y145.42 E84.45197
G1 X153.31 Y145.46 E84.47758
G1 X153.77 Y145.53 E84.49408
G1 X154.46 Y145.69 E84.51910
G1 X154.91 Y145.84 E84.53588
G1 X155.55 Y146.11 E84.56087
G1 X156.25 Y146.49 E84.58912
G1 X156.89 Y146.94 E84.61689
G1 X157.48 Y147.46 E84.64487
G1 X157.95 Y147.98 E84.67002
G1 X158.42 Y148.61 E84.69785
G1 X158.82 Y149.29 E84.72596
G1 X159.13 Y150.00 E84.75357
G1 X159.28 Y150.45 E84.77033
G1 X159.45 Y151.14 E84.79575
G1 X159.56 Y151.91 E84.82356
G1 X159.58 Y152.70 E84.85154
G1 X159.53 Y153.41 E84.87675
G1 X159.46 Y153.85 E84.89293
G1 X159.28 Y154.56 E84.91869
G1 X159.01 Y155.29 E84.94637
G1 X158.66 Y155.99 E84.97440
G1 X158.24 Y156.65 E85.00235
G1 X157.75 Y157.26 E85.03007
G1 X157.24 Y157.76 E85.05554
G1 X156.89 Y158.06 E85.07190
G1 X156.31 Y158.47 E85.09731
G1 X155.62 Y158.86 E85.12564
G1 X154.90 Y159.16 E85.15326
G1 X154.16 Y159.39 E85.18090
G1 X153.37 Y159.53 E85.20919
G1 X152.60 Y159.59 E85.23666
G1 X151.89 Y159.56 E85.26206
G1 X151.43 Y159.50 E85.27864
G1 X150.72 Y159.36 E85.30434
G1 X150.29 Y159.23 E85.32036
G1 X149.91 Y159.09 E85.33464
G1 X149.27 Y158.80 E85.35981
G1 X148.86 Y158.58 E85.37625
G1 X148.27 Y158.18 E85.40177
G1 X147.67 Y157.68 E85.42934
G0 F6000 X147.88 Y157.45
G0 X149.00 Y156.37
;TYPE:FILL
G1 F1380 X149.04 Y156.03 E85.43913
G1 X148.56 Y155.90 E85.44831
G1 X148.47 Y155.38 E85.45779
G1 X148.04 Y155.20 E85.46676
G1 X148.02 Y154.62 E85.47679
G1 X147.65 Y154.39 E85.48612
G1 X147.60 Y153.83 E85.49667
G1 X147.48 Y153.34 E85.50687
G1 X147.43 Y152.79 E85.51894
G1 X147.43 Y152.19 E85.53212
G1 X147.52 Y151.49 E85.54716
G1 X147.83 Y150.88 E85.57143
G0 F6000 X147.74 Y150.36
G1 F1380 X148.49 Y149.61 E85.60943
G0 F6000 X149.55 Y148.55
G1 F1380 X150.37 Y147.73 E85.65070
G0 F6000 X150.83 Y147.88
G1 F1380 X151.46 Y147.54 E85.67310
G1 X152.17 Y147.45 E85.69110
G1 X152.76 Y147.45 E85.70659
G1 X153.32 Y147.50 E85.72147
G1 X153.81 Y147.62 E85.73441
G1 X154.27 Y147.76 E85.74781
G1 X154.81 Y147.83 E85.75977
G1 X154.96 Y148.28 E85.77209
G1 X155.57 Y148.28 E85.78364
G1 X155.66 Y148.79 E85.79599
G1 X156.22 Y148.85 E85.80788
G1 X156.26 Y149.41 E85.81996
G1 X156.76 Y149.51 E85.83205
G1 X156.75 Y150.13 E85.84438
G1 X157.21 Y150.27 E85.85737
G1 X157.26 Y150.83 E85.87030
G1 X157.39 Y151.30 E85.88457
G1 X157.49 Y151.80 E85.89919
G1 X157.54 Y152.37 E85.91531
G1 X157.52 Y152.99 E85.93343
G1 X157.40 Y153.72 E85.95390
G1 X157.00 Y154.42 E85.98259
G0 F6000 X157.13 Y154.89
G1 F1380 X154.89 Y157.13 E86.09552
G0 F6000 X154.37 Y157.05
G1 F1380 X153.69 Y157.42 E86.11911
G1 X152.97 Y157.54 E86.13723
G1 X152.34 Y157.56 E86.15309
G1 X151.78 Y157.52 E86.16687
G1 X151.28 Y157.42 E86.17895
G1 X150.81 Y157.28 E86.19053
G1 X150.38 Y157.10 E86.20106
G1 X149.88 Y157.00 E86.21176
G1 X149.71 Y156.57 E86.22168
G1 X149.33 Y156.64 E86.23527
;LAYER:4
G0 F6000 X149.48 Y156.12 Z1.10
;TYPE:WALL-INNER
G1 F1680 X149.09 Y155.76 E86.25386
G1 X148.76 Y155.38 E86.27187
G1 X148.48 Y154.96 E86.28981
G1 X148.23 Y154.49 E86.30887
G1 X148.04 Y154.02 E86.32687
G1 X147.89 Y153.51 E86.34572
G1 X147.81 Y153.00 E86.36396
G1 X147.78 Y152.50 E86.38196
G1 X147.81 Y152.00 E86.39995
G1 X147.89 Y151.49 E86.41820
G1 X148.04 Y150.98 E86.43705
G1 X148.23 Y150.51 E86.45504
G1 X148.48 Y150.04 E86.47410
G1 X148.76 Y149.62 E86.49204
G1 X149.09 Y149.24 E86.51006
G1 X149.48 Y148.88 E86.52864
G1 X149.89 Y148.57 E86.54689
G1 X150.34 Y148.31 E86.56540
G1 X150.80 Y148.10 E86.58348
G1 X151.30 Y147.94 E86.60226
G1 X151.80 Y147.84 E86.62058
G1 X152.31 Y147.79 E86.63880
G1 X152.56 Y147.78 E86.64770
G1 X152.84 Y147.79 E86.65739
G1 X153.33 Y147.86 E86.67521
G1 X153.83 Y147.97 E86.69336
G1 X154.32 Y148.15 E86.71188
G1 X154.79 Y148.38 E86.73060
G1 X155.22 Y148.65 E86.74864
G1 X155.62 Y148.96 E86.76681
G1 X155.98 Y149.32 E86.78483
G1 X156.31 Y149.72 E86.80322
G1 X156.60 Y150.16 E86.82190
G1 X156.82 Y150.61 E86.83976
G1 X157.00 Y151.10 E86.85844
G1 X157.13 Y151.60 E86.87690
G1 X157.20 Y152.11 E86.89512
G1 X157.21 Y152.33 E86.90306
G1 X157.20 Y152.93 E86.92418
G1 X157.13 Y153.40 E86.94111
G1 X157.00 Y153.90 E86.95956
G1 X156.82 Y154.39 E86.97824
G1 X156.60 Y154.84 E86.99610
G1 X156.31 Y155.28 E87.01479
G1 X155.99 Y155.67 E87.03284
G1 X155.62 Y156.04 E87.05119
G1 X155.22 Y156.35 E87.06936
G1 X154.79 Y156.62 E87.08740
G1 X154.32 Y156.85 E87.10612
G1 X153.83 Y157.03 E87.12464
G1 X153.33 Y157.14 E87.14279
G1 X152.84 Y157.21 E87.16061
G1 X152.60 Y157.21 E87.16888
G1 X152.00 Y157.19 E87.19021
G1 X151.53 Y157.12 E87.20728
G1 X151.05 Y156.99 E87.22493
G1 X150.83 Y156.91 E87.23335
G1 X150.31 Y156.67 E87.25368
G1 X149.89 Y156.43 E87.27109
G1 X149.48 Y156.12 E87.28934
G0 F6000 X149.20 Y156.45
G1 F1680 X148.79 Y156.06 E87.30944
G1 X148.42 Y155.64 E87.32935
G1 X148.10 Y155.16 E87.34976
G1 X147.84 Y154.68 E87.36911
G1 X147.63 Y154.16 E87.38937
G1 X147.48 Y153.61 E87.40969
G1 X147.39 Y153.05 E87.42974
G1 X147.36 Y152.50 E87.44934
G1 X147.36 Y152.22 E87.45913
G1 X147.43 Y151.65 E87.47968
G1 X147.55 Y151.11 E87.49934
G1 X147.73 Y150.58 E87.51934
G1 X147.97 Y150.07 E87.53924
G1 X148.26 Y149.59 E87.55949
G1 X148.60 Y149.14 E87.57954
G1 X148.99 Y148.74 E87.59912
G1 X149.42 Y148.38 E87.61916
G1 X149.90 Y148.06 E87.63956
G1 X150.38 Y147.81 E87.65909
G1 X150.90 Y147.61 E87.67883
G1 X151.46 Y147.46 E87.69953
G1 X151.99 Y147.38 E87.71868
G1 X152.57 Y147.36 E87.73941
G1 X153.12 Y147.39 E87.75892
G1 X153.69 Y147.50 E87.77956
G1 X154.23 Y147.66 E87.79947
G1 X154.73 Y147.86 E87.81874
G1 X155.00 Y148.00 E87.82960
G1 X155.47 Y148.30 E87.84955
G1 X155.91 Y148.64 E87.86908
G1 X156.31 Y149.05 E87.88954
G1 X156.67 Y149.48 E87.90953
G1 X156.97 Y149.95 E87.92930
G1 X157.22 Y150.45 E87.94929
G1 X157.42 Y150.99 E87.96966
G1 X157.55 Y151.53 E87.98957
G1 X157.63 Y152.08 E88.00915
G1 X157.64 Y152.33 E88.01834
G1 X157.63 Y152.95 E88.04020
G1 X157.55 Y153.47 E88.05892
G1 X157.42 Y154.01 E88.07883
G1 X157.22 Y154.55 E88.09920
G1 X156.97 Y155.05 E88.11919
G1 X156.67 Y155.52 E88.13896
G1 X156.31 Y155.95 E88.15895
G1 X155.91 Y156.36 E88.17941
G1 X155.47 Y156.70 E88.19894
G1 X155.00 Y157.00 E88.21890
G1 X154.49 Y157.24 E88.23892
G1 X153.94 Y157.44 E88.25977
G1 X153.41 Y157.56 E88.27910
G1 X152.86 Y157.63 E88.29897
G1 X152.60 Y157.64 E88.30809
G1 X151.97 Y157.62 E88.33053
G1 X151.46 Y157.54 E88.34896
G1 X150.90 Y157.39 E88.36966
G1 X150.69 Y157.31 E88.37774
G1 X150.10 Y157.05 E88.40054
G1 X149.66 Y156.79 E88.41887
G1 X149.20 Y156.45 E88.43914
G0 F6000 X148.94 Y156.78
G1 F1680 X148.69 Y156.56 E88.45099
G1 X148.28 Y156.13 E88.47211
G1 X147.91 Y155.65 E88.49370
G1 X147.59 Y155.13 E88.51533
G1 X147.33 Y154.58 E88.53701
G1 X147.14 Y154.01 E88.55860
G1 X147.00 Y153.42 E88.58011
G1 X146.94 Y152.80 E88.60206
G1 X146.93 Y152.50 E88.61288
G1 X146.96 Y151.91 E88.63398
G1 X147.06 Y151.29 E88.65608
G1 X147.22 Y150.71 E88.67777
G1 X147.45 Y150.15 E88.69934
G1 X147.74 Y149.61 E88.72109
G1 X147.91 Y149.35 E88.73206
G1 X148.28 Y148.87 E88.75365
G1 X148.69 Y148.44 E88.77477
G1 X149.17 Y148.03 E88.79710
G1 X149.67 Y147.70 E88.81877
G1 X150.22 Y147.42 E88.84045
G1 X150.78 Y147.20 E88.86207
G1 X151.37 Y147.04 E88.88383
G1 X151.97 Y146.95 E88.90520
G1 X152.59 Y146.93 E88.92729
G1 X153.17 Y146.97 E88.94812
G1 X153.77 Y147.07 E88.96992
G1 X154.37 Y147.25 E88.99218
G1 X154.93 Y147.48 E89.01347
G1 X155.47 Y147.78 E89.03538
G1 X155.96 Y148.13 E89.05704
G1 X156.41 Y148.53 E89.07858
G1 X156.63 Y148.75 E89.08947
G1 X156.82 Y148.98 E89.10005
G1 X157.19 Y149.48 E89.12214
G1 X157.49 Y150.01 E89.14367
G1 X157.73 Y150.57 E89.16544
G1 X157.91 Y151.14 E89.18688
G1 X157.97 Y151.44 E89.19772
G1 X158.06 Y152.04 E89.21931
G1 X158.07 Y152.32 E89.22933
G1 X158.05 Y152.98 E89.25282
G1 X157.97 Y153.56 E89.27352
G1 X157.82 Y154.16 E89.29547
G1 X157.62 Y154.71 E89.31654
G1 X157.49 Y154.99 E89.32757
G1 X157.19 Y155.52 E89.34910
G1 X156.82 Y156.02 E89.37119
G1 X156.63 Y156.25 E89.38176
G1 X156.20 Y156.67 E89.40328
G1 X155.70 Y157.06 E89.42570
G1 X155.20 Y157.38 E89.44676
G1 X154.65 Y157.64 E89.46843
G1 X154.08 Y157.84 E89.49003
G1 X153.49 Y157.98 E89.51151
G1 X152.88 Y158.06 E89.53353
G1 X152.60 Y158.07 E89.54340
G1 X151.95 Y158.04 E89.56655
G1 X151.37 Y157.96 E89.58743
G1 X150.78 Y157.80 E89.60919
G1 X150.51 Y157.71 E89.61937
G1 X149.92 Y157.44 E89.64255
G1 X149.41 Y157.14 E89.66364
G1 X148.94 Y156.78 E89.68464
G0 F6000 X148.92 Y157.31
G1 F1680 X148.41 Y156.89 E89.70794
G1 X147.96 Y156.42 E89.73137
G1 X147.56 Y155.90 E89.75477
G1 X147.37 Y155.61 E89.76702
G1 X147.06 Y155.04 E89.79000
G1 X146.82 Y154.43 E89.81350
G1 X146.64 Y153.80 E89.83667
G1 X146.54 Y153.17 E89.85954
G1 X146.51 Y152.82 E89.87204
G1 X146.50 Y152.50 E89.88329
G1 X146.51 Y152.18 E89.89454
G1 X146.58 Y151.53 E89.91780
G1 X146.64 Y151.20 E89.92991
G1 X146.72 Y150.87 E89.94187
G1 X146.94 Y150.25 E89.96527
G1 X147.21 Y149.67 E89.98817
G1 X147.37 Y149.39 E89.99956
G1 X147.74 Y148.85 E90.02307
G1 X147.96 Y148.58 E90.03521
G1 X148.41 Y148.11 E90.05864
G1 X148.92 Y147.69 E90.08194
G1 X149.45 Y147.33 E90.10489
G1 X149.74 Y147.17 E90.11654
G1 X150.33 Y146.91 E90.13971
G1 X150.97 Y146.70 E90.16358
G1 X151.60 Y146.57 E90.18652
G1 X152.26 Y146.50 E90.21011
G1 X152.58 Y146.50 E90.22143
G1 X153.24 Y146.54 E90.24497
G1 X153.88 Y146.66 E90.26797
G1 X154.50 Y146.84 E90.29113
G1 X155.11 Y147.09 E90.31452
G1 X155.40 Y147.25 E90.32637
G1 X155.96 Y147.60 E90.34985
G1 X156.48 Y148.01 E90.37328
G1 X156.94 Y148.46 E90.39633
G1 X157.35 Y148.96 E90.41919
G1 X157.71 Y149.53 E90.44321
G1 X158.01 Y150.12 E90.46668
G1 X158.23 Y150.72 E90.48943
G1 X158.39 Y151.35 E90.51280
G1 X158.48 Y152.01 E90.53634
G1 X158.50 Y152.32 E90.54764
G1 X158.48 Y153.00 E90.57188
G1 X158.39 Y153.65 E90.59499
G1 X158.23 Y154.28 E90.61836
G1 X158.01 Y154.88 E90.64111
G1 X157.71 Y155.47 E90.66458
G1 X157.35 Y156.04 E90.68839
G1 X156.94 Y156.54 E90.71146
G1 X156.48 Y156.99 E90.73451
G1 X155.96 Y157.40 E90.75794
G1 X155.40 Y157.75 E90.78142
G1 X154.83 Y158.03 E90.80400
G1 X154.20 Y158.26 E90.82797
G1 X153.56 Y158.41 E90.85138
G1 X152.92 Y158.49 E90.87432
G1 X152.60 Y158.50 E90.88558
G1 X151.91 Y158.47 E90.91033
G1 X151.60 Y158.43 E90.92127
G1 X150.97 Y158.30 E90.94420
G1 X150.35 Y158.10 E90.96747
G1 X149.72 Y157.82 E90.99185
G1 X149.18 Y157.50 E91.01441
G1 X148.92 Y157.31 E91.02585
G0 F6000 X148.95 Y157.86
G1 F1680 X148.37 Y157.43 E91.05146
G1 X147.86 Y156.95 E91.07643
G1 X147.40 Y156.41 E91.10160
G1 X147.01 Y155.84 E91.12635
G1 X146.68 Y155.22 E91.15145
G1 X146.41 Y154.56 E91.17655
G1 X146.23 Y153.90 E91.20122
G1 X146.11 Y153.20 E91.22629
G1 X146.08 Y152.86 E91.23836
G1 X146.07 Y152.50 E91.25125
G1 X146.08 Y152.14 E91.26414
G1 X146.16 Y151.46 E91.28830
G1 X146.31 Y150.76 E91.31408
G1 X146.53 Y150.11 E91.33848
G1 X146.84 Y149.46 E91.36407
G1 X147.20 Y148.86 E91.38876
G1 X147.64 Y148.30 E91.41420
G1 X148.11 Y147.80 E91.43872
G1 X148.65 Y147.36 E91.46338
G1 X149.23 Y146.96 E91.48850
G1 X149.87 Y146.64 E91.51384
G1 X150.51 Y146.39 E91.53853
G1 X150.85 Y146.29 E91.55095
G1 X151.20 Y146.20 E91.56394
G1 X151.88 Y146.10 E91.58823
G1 X152.59 Y146.07 E91.61373
G1 X153.29 Y146.12 E91.63860
G1 X153.98 Y146.24 E91.66355
G1 X154.65 Y146.44 E91.68852
G1 X155.31 Y146.72 E91.71369
G1 X155.91 Y147.05 E91.73835
G1 X156.21 Y147.25 E91.75118
G1 X156.48 Y147.45 E91.76310
G1 X157.01 Y147.92 E91.78834
G1 X157.49 Y148.45 E91.81374
G1 X157.90 Y149.01 E91.83848
G1 X158.25 Y149.63 E91.86384
G1 X158.40 Y149.94 E91.87594
G1 X158.64 Y150.59 E91.90079
G1 X158.81 Y151.26 E91.92539
G1 X158.91 Y151.99 E91.95155
G1 X158.93 Y152.30 E91.96245
G1 X158.91 Y153.04 E91.98894
G1 X158.81 Y153.74 E92.01402
G1 X158.64 Y154.41 E92.03862
G1 X158.40 Y155.06 E92.06347
G1 X158.08 Y155.70 E92.08890
G1 X157.70 Y156.28 E92.11351
G1 X157.26 Y156.82 E92.13830
G1 X156.77 Y157.31 E92.16281
G1 X156.48 Y157.55 E92.17630
G1 X156.21 Y157.75 E92.18823
G1 X155.62 Y158.12 E92.21319
G1 X154.97 Y158.44 E92.23869
G1 X154.32 Y158.67 E92.26345
G1 X153.64 Y158.83 E92.28822
G1 X152.94 Y158.91 E92.31331
G1 X152.60 Y158.93 E92.32532
G1 X151.87 Y158.90 E92.35128
G1 X151.20 Y158.80 E92.37547
G1 X150.85 Y158.71 E92.38846
G1 X150.20 Y158.50 E92.41254
G1 X149.53 Y158.20 E92.43889
G1 X148.95 Y157.86 E92.46274
G0 F6000 X148.71 Y158.21
G1 F1680 X148.11 Y157.76 E92.48947
G1 X147.54 Y157.24 E92.51704
G1 X147.07 Y156.68 E92.54296
G1 X146.64 Y156.06 E92.56971
G1 X146.29 Y155.40 E92.59664
G1 X146.00 Y154.69 E92.62370
G1 X145.90 Y154.36 E92.63592
G1 X145.74 Y153.62 E92.66298
G1 X145.66 Y152.87 E92.68968
G1 X145.64 Y152.50 E92.70300
G1 X145.66 Y152.13 E92.71631
G1 X145.74 Y151.38 E92.74302
G1 X145.90 Y150.63 E92.77022
G1 X146.15 Y149.93 E92.79686
G1 X146.29 Y149.60 E92.80936
G1 X146.64 Y148.94 E92.83628
G1 X147.07 Y148.32 E92.86303
G1 X147.54 Y147.76 E92.88896
G1 X148.11 Y147.24 E92.91653
G1 X148.71 Y146.79 E92.94325
G1 X149.35 Y146.41 E92.96961
G1 X150.03 Y146.11 E92.99605
G1 X150.74 Y145.87 E93.02274
G1 X151.48 Y145.72 E93.04964
G1 X152.23 Y145.65 E93.07649
G1 X152.60 Y145.64 E93.08976
G1 X153.34 Y145.69 E93.11595
G1 X154.06 Y145.82 E93.14215
G1 X154.80 Y146.04 E93.16942
G1 X155.50 Y146.33 E93.19634
G1 X156.15 Y146.69 E93.22284
G1 X156.45 Y146.89 E93.23578
G1 X157.04 Y147.36 E93.26281
G1 X157.57 Y147.89 E93.28928
G1 X158.05 Y148.47 E93.31602
G1 X158.45 Y149.08 E93.34209
G1 X158.79 Y149.76 E93.36923
G1 X158.93 Y150.11 E93.38261
G1 X159.05 Y150.48 E93.39625
G1 X159.24 Y151.21 E93.42329
G1 X159.34 Y151.94 E93.44929
G1 X159.35 Y152.30 E93.46223
G1 X159.34 Y153.07 E93.48975
G1 X159.24 Y153.79 E93.51533
G1 X159.05 Y154.52 E93.54225
G1 X158.93 Y154.89 E93.55600
G1 X158.79 Y155.24 E93.56938
G1 X158.64 Y155.56 E93.58231
G1 X158.45 Y155.91 E93.59637
G1 X158.05 Y156.53 E93.62260
G1 X157.57 Y157.11 E93.64934
G1 X157.04 Y157.64 E93.67581
G1 X156.45 Y158.11 E93.70285
G1 X155.82 Y158.50 E93.72926
G1 X155.14 Y158.83 E93.75621
G1 X154.46 Y159.07 E93.78190
G1 X153.72 Y159.25 E93.80886
G1 X152.96 Y159.34 E93.83604
G1 X152.60 Y159.36 E93.84887
G1 X151.84 Y159.32 E93.87601
G1 X151.12 Y159.22 E93.90214
G1 X150.38 Y159.02 E93.92928
G1 X150.03 Y158.90 E93.94242
G1 X149.34 Y158.59 E93.96915
G1 X148.71 Y158.21 E93.99538
G0 F6000 X148.47 Y158.57
;TYPE:WALL-OUTER
G1 F1680 X147.82 Y158.08 E94.02416
G1 X147.25 Y157.55 E94.05213
G1 X146.72 Y156.94 E94.08080
G1 X146.27 Y156.28 E94.10912
G1 X145.90 Y155.58 E94.13746
G1 X145.74 Y155.22 E94.15123
G1 X145.60 Y154.84 E94.16580
G1 X145.49 Y154.47 E94.17952
G1 X145.39 Y154.07 E94.19409
G1 X145.26 Y153.29 E94.22243
G1 X145.23 Y152.90 E94.23618
G1 X145.22 Y152.51 E94.25031
G1 X145.23 Y152.10 E94.26488
G1 X145.31 Y151.32 E94.29276
G1 X145.49 Y150.53 E94.32153
G1 X145.60 Y150.16 E94.33523
G1 X145.75 Y149.78 E94.34983
G1 X146.08 Y149.06 E94.37779
G1 X146.27 Y148.72 E94.39193
G1 X146.72 Y148.06 E94.42025
G1 X146.98 Y147.75 E94.43484
G1 X147.53 Y147.18 E94.46275
G1 X148.13 Y146.67 E94.49105
G1 X148.47 Y146.43 E94.50566
G1 X149.14 Y146.03 E94.53351
G1 X149.87 Y145.71 E94.56185
G1 X150.63 Y145.46 E94.59033
G1 X151.42 Y145.30 E94.61890
G1 X151.80 Y145.25 E94.63267
G1 X152.60 Y145.22 E94.66103
G1 X153.39 Y145.27 E94.68928
G1 X154.17 Y145.41 E94.71758
G1 X154.94 Y145.63 E94.74588
G1 X155.68 Y145.94 E94.77463
G1 X156.37 Y146.32 E94.80252
G1 X157.02 Y146.78 E94.83087
G1 X157.62 Y147.32 E94.85959
G1 X158.16 Y147.91 E94.88793
G1 X158.62 Y148.55 E94.91622
G1 X159.02 Y149.24 E94.94455
G1 X159.33 Y149.96 E94.97247
G1 X159.57 Y150.72 E95.00076
G1 X159.72 Y151.50 E95.02908
G1 X159.78 Y152.31 E95.05782
G1 X159.76 Y153.10 E95.08595
G1 X159.72 Y153.50 E95.10030
G1 X159.57 Y154.27 E95.12818
G1 X159.33 Y155.03 E95.15649
G1 X159.02 Y155.76 E95.18483
G1 X158.62 Y156.45 E95.21316
G1 X158.16 Y157.09 E95.24145
G1 X157.62 Y157.68 E95.26979
G1 X157.02 Y158.22 E95.29838
G1 X156.37 Y158.68 E95.32681
G1 X155.68 Y159.06 E95.35475
G1 X155.32 Y159.22 E95.36889
G1 X154.94 Y159.37 E95.38349
G1 X154.17 Y159.59 E95.41180
G1 X153.39 Y159.73 E95.44011
G1 X152.60 Y159.78 E95.46815
G1 X151.80 Y159.75 E95.49689
G1 X151.01 Y159.63 E95.52504
G1 X150.26 Y159.43 E95.55296
G1 X149.87 Y159.29 E95.56754
G1 X149.15 Y158.97 E95.59575
G1 X148.47 Y158.57 E95.62371
G0 F6000 X148.64 Y158.30
G0 X149.87 Y156.22
;TYPE:FILL
G1 F1680 X148.78 Y155.14 E95.67822
G0 F6000 X148.16 Y153.91
G1 F1680 X151.09 Y156.84 E95.82559
G0 F6000 X151.87 Y157.01
G1 F1680 X147.98 Y153.13 E96.02119
G0 F6000 X147.94 Y152.48
G1 F1680 X152.52 Y157.06 E96.25188
G0 F6000 X153.09 Y157.02
G1 F1680 X147.98 Y151.91 E96.50909
G0 F6000 X148.07 Y151.40
G1 F1680 X153.60 Y156.93 E96.78706
G0 F6000 X154.06 Y156.78
G1 F1680 X148.21 Y150.94 E97.08128
G0 F6000 X148.39 Y150.51
G1 F1680 X154.49 Y156.60 E97.38784
G0 F6000 X154.88 Y156.39
G1 F1680 X148.60 Y150.12 E97.70351
G0 F6000 X148.85 Y149.76
G1 F1680 X155.24 Y156.15 E98.02496
G0 F6000 X155.57 Y155.87
G1 F1680 X149.13 Y149.43 E98.34934
G0 F6000 X149.43 Y149.13
G1 F1680 X155.88 Y155.57 E98.67373
G0 F6000 X156.15 Y155.24
G1 F1680 X149.76 Y148.85 E98.99514
G0 F6000 X150.12 Y148.61
G1 F1680 X156.39 Y154.88 E99.31068
G0 F6000 X156.61 Y154.49
G1 F1680 X150.51 Y148.39 E99.61736
G0 F6000 X150.94 Y148.21
G1 F1680 X156.78 Y154.06 E99.91159
G0 F6000 X156.93 Y153.60
G1 F1680 X151.40 Y148.07 E100.18966
G0 F6000 X151.91 Y147.98
G1 F1680 X157.02 Y153.09 E100.44692
G0 F6000 X157.06 Y152.52
G1 F1680 X152.47 Y147.94 E100.67758
G0 F6000 X153.13 Y147.98
G1 F1680 X157.02 Y151.87 E100.87331
G0 F6000 X156.84 Y151.09
G1 F1680 X153.91 Y148.16 E101.02047
G0 F6000 X155.11 Y148.75
G1 F1680 X156.24 Y149.88 E101.07722
;LAYER:5
G0 F6000 X156.37 Y149.81 Z1.30
;TYPE:WALL-INNER
G1 F1680 X156.60 Y150.17 E101.09233
G1 X156.76 Y150.48 E101.10479
G1 X156.93 Y150.87 E101.11999
G1 X157.03 Y151.19 E101.13198
G1 X157.13 Y151.61 E101.14744
G1 X157.18 Y151.95 E101.15957
G1 X157.21 Y152.38 E101.17470
G1 X157.21 Y152.72 E101.18709
G1 X157.17 Y153.15 E101.20220
G1 X157.08 Y153.63 E101.21969
G1 X156.98 Y153.98 E101.23279
G1 X156.67 Y154.70 E101.26073
G1 X156.45 Y155.07 E101.27595
G1 X156.17 Y155.46 E101.29295
G1 X155.62 Y156.03 E101.32127
G1 X155.35 Y156.25 E101.33369
G1 X155.00 Y156.50 E101.34867
G1 X154.70 Y156.67 E101.36131
G1 X154.31 Y156.85 E101.37645
G1 X154.00 Y156.97 E101.38835
G1 X153.57 Y157.09 E101.40409
G1 X153.24 Y157.16 E101.41616
G1 X152.59 Y157.22 E101.43957
G1 X152.21 Y157.20 E101.45306
G1 X151.79 Y157.16 E101.46791
G1 X151.46 Y157.10 E101.47995
G1 X151.03 Y156.98 E101.49563
G1 X150.32 Y156.68 E101.52298
G1 X149.67 Y156.27 E101.55049
G1 X149.10 Y155.76 E101.57774
G1 X148.87 Y155.50 E101.59025
G1 X148.61 Y155.16 E101.60521
G1 X148.43 Y154.87 E101.61751
G1 X148.23 Y154.49 E101.63297
G1 X148.09 Y154.17 E101.64514
G1 X147.96 Y153.76 E101.66059
G1 X147.81 Y152.98 E101.68878
G1 X147.79 Y152.53 E101.70496
G1 X147.85 Y151.72 E101.73363
G1 X147.92 Y151.39 E101.74566
G1 X148.04 Y150.97 E101.76118
G1 X148.16 Y150.66 E101.77336
G1 X148.35 Y150.27 E101.78853
G1 X148.53 Y149.97 E101.80101
G1 X148.76 Y149.62 E101.81588
G1 X148.99 Y149.35 E101.82849
G1 X149.30 Y149.04 E101.84427
G1 X149.46 Y148.90 E101.85171
G1 X149.76 Y148.67 E101.86529
G1 X150.11 Y148.44 E101.88024
G1 X150.81 Y148.10 E101.90786
G1 X151.55 Y147.88 E101.93536
G1 X152.33 Y147.79 E101.96329
G1 X152.55 Y147.78 E101.97087
G1 X153.34 Y147.86 E101.99936
G1 X153.68 Y147.94 E102.01173
G1 X154.09 Y148.06 E102.02672
G1 X154.41 Y148.19 E102.03899
G1 X154.79 Y148.38 E102.05416
G1 X155.09 Y148.56 E102.06690
G1 X155.43 Y148.81 E102.08171
G1 X155.69 Y149.03 E102.09398
G1 X156.15 Y149.51 E102.11734
G1 X156.37 Y149.81 E102.13077
G0 F6000 X156.72 Y149.56
G1 F1680 X156.97 Y149.96 E102.14734
G1 X157.14 Y150.29 E102.16064
G1 X157.32 Y150.72 E102.17715
G1 X157.44 Y151.07 E102.19058
G1 X157.55 Y151.53 E102.20714
G1 X157.61 Y151.91 E102.22092
G1 X157.64 Y152.36 E102.23698
G1 X157.64 Y152.75 E102.25097
G1 X157.60 Y153.21 E102.26712
G1 X157.49 Y153.74 E102.28640
G1 X157.22 Y154.55 E102.31703
G1 X157.05 Y154.89 E102.33056
G1 X156.67 Y155.52 E102.35662
G1 X156.24 Y156.03 E102.38039
G1 X155.90 Y156.36 E102.39703
G1 X155.60 Y156.60 E102.41077
G1 X155.23 Y156.86 E102.42690
G1 X154.89 Y157.05 E102.44089
G1 X154.48 Y157.25 E102.45706
G1 X154.14 Y157.37 E102.47002
G1 X153.67 Y157.51 E102.48721
G1 X152.83 Y157.63 E102.51759
G1 X152.59 Y157.64 E102.52617
G1 X152.19 Y157.63 E102.54038
G1 X151.72 Y157.58 E102.55716
G1 X150.90 Y157.39 E102.58705
G1 X150.54 Y157.25 E102.60075
G1 X150.13 Y157.07 E102.61681
G1 X149.42 Y156.62 E102.64676
G1 X149.11 Y156.37 E102.66090
G1 X148.79 Y156.06 E102.67671
G1 X148.54 Y155.78 E102.69020
G1 X148.26 Y155.41 E102.70676
G1 X148.05 Y155.07 E102.72071
G1 X147.84 Y154.68 E102.73665
G1 X147.55 Y153.88 E102.76685
G1 X147.46 Y153.50 E102.78063
G1 X147.36 Y152.78 E102.80680
G1 X147.36 Y152.52 E102.81584
G1 X147.37 Y152.11 E102.83044
G1 X147.43 Y151.66 E102.84650
G1 X147.51 Y151.27 E102.86075
G1 X147.63 Y150.84 E102.87679
G1 X147.97 Y150.06 E102.90685
G1 X148.17 Y149.74 E102.92038
G1 X148.43 Y149.37 E102.93651
G1 X149.01 Y148.72 E102.96732
G1 X149.19 Y148.57 E102.97587
G1 X149.52 Y148.31 E102.99057
G1 X149.89 Y148.07 E103.00645
G1 X150.24 Y147.88 E103.02041
G1 X150.65 Y147.70 E103.03636
G1 X151.46 Y147.46 E103.06672
G1 X152.32 Y147.36 E103.09729
G1 X152.56 Y147.36 E103.10608
G1 X153.41 Y147.44 E103.13655
G1 X153.78 Y147.52 E103.14976
G1 X154.23 Y147.66 E103.16674
G1 X154.59 Y147.80 E103.18021
G1 X155.31 Y148.19 E103.20970
G1 X155.70 Y148.47 E103.22666
G1 X155.98 Y148.71 E103.23978
G1 X156.33 Y149.06 E103.25744
G1 X156.72 Y149.56 E103.28003
G0 F6000 X157.07 Y149.32
G1 F1680 X157.34 Y149.74 E103.29779
G1 X157.53 Y150.11 E103.31253
G1 X157.72 Y150.56 E103.32997
G1 X157.97 Y151.44 E103.36231
G1 X158.03 Y151.86 E103.37742
G1 X158.07 Y152.36 E103.39527
G1 X158.06 Y152.77 E103.41004
G1 X158.02 Y153.26 E103.42758
G1 X157.91 Y153.84 E103.44868
G1 X157.79 Y154.25 E103.46385
G1 X157.61 Y154.72 E103.48171
G1 X157.43 Y155.09 E103.49641
G1 X157.17 Y155.54 E103.51496
G1 X156.84 Y156.00 E103.53509
G1 X156.55 Y156.33 E103.55045
G1 X156.18 Y156.68 E103.56870
G1 X155.46 Y157.22 E103.60053
G1 X154.65 Y157.64 E103.63313
G1 X154.25 Y157.79 E103.64830
G1 X153.78 Y157.92 E103.66555
G1 X153.36 Y158.00 E103.68085
G1 X152.86 Y158.06 E103.69898
G1 X152.59 Y158.07 E103.70834
G1 X152.16 Y158.06 E103.72369
G1 X151.66 Y158.01 E103.74168
G1 X150.77 Y157.80 E103.77410
G1 X150.38 Y157.65 E103.78891
G1 X149.94 Y157.45 E103.80641
G1 X149.57 Y157.24 E103.82151
G1 X149.16 Y156.96 E103.83891
G1 X148.84 Y156.69 E103.85398
G1 X148.49 Y156.36 E103.87108
G1 X148.20 Y156.04 E103.88656
G1 X147.90 Y155.64 E103.90419
G1 X147.69 Y155.30 E103.91860
G1 X147.45 Y154.85 E103.93647
G1 X147.14 Y154.00 E103.96881
G1 X146.96 Y153.08 E104.00229
G1 X146.93 Y152.51 E104.02235
G1 X146.95 Y152.08 E104.03770
G1 X147.00 Y151.59 E104.05540
G1 X147.09 Y151.18 E104.07038
G1 X147.23 Y150.71 E104.08783
G1 X147.38 Y150.31 E104.10306
G1 X147.59 Y149.87 E104.12029
G1 X148.09 Y149.10 E104.15298
G1 X148.35 Y148.79 E104.16735
G1 X148.71 Y148.41 E104.18600
G1 X149.26 Y147.97 E104.21111
G1 X149.68 Y147.69 E104.22899
G1 X150.03 Y147.51 E104.24324
G1 X150.50 Y147.30 E104.26130
G1 X150.89 Y147.17 E104.27605
G1 X151.37 Y147.04 E104.29367
G1 X152.28 Y146.93 E104.32644
G1 X152.57 Y146.93 E104.33648
G1 X152.99 Y146.95 E104.35166
G1 X153.49 Y147.02 E104.36946
G1 X153.90 Y147.11 E104.38438
G1 X154.37 Y147.25 E104.40189
G1 X154.76 Y147.41 E104.41701
G1 X155.20 Y147.62 E104.43431
G1 X155.56 Y147.84 E104.44928
G1 X155.96 Y148.13 E104.46703
G1 X156.27 Y148.40 E104.48159
G1 X156.64 Y148.77 E104.50021
G1 X156.81 Y148.97 E104.50937
G1 X157.07 Y149.32 E104.52511
G0 F6000 X157.43 Y149.08
G1 F1680 X157.71 Y149.53 E104.54401
G1 X157.92 Y149.93 E104.56036
G1 X158.13 Y150.41 E104.57888
G1 X158.27 Y150.84 E104.59508
G1 X158.39 Y151.37 E104.61441
G1 X158.50 Y152.34 E104.64910
G1 X158.49 Y152.78 E104.66487
G1 X158.44 Y153.32 E104.68402
G1 X158.33 Y153.94 E104.70638
G1 X158.19 Y154.40 E104.72333
G1 X158.00 Y154.89 E104.74232
G1 X157.81 Y155.29 E104.75819
G1 X157.53 Y155.78 E104.77795
G1 X157.17 Y156.27 E104.79974
G1 X156.48 Y157.00 E104.83543
G1 X155.68 Y157.59 E104.87083
G1 X154.82 Y158.03 E104.90519
G1 X154.39 Y158.19 E104.92169
G1 X153.88 Y158.34 E104.94058
G1 X153.44 Y158.42 E104.95638
G1 X152.90 Y158.49 E104.97583
G1 X152.59 Y158.50 E104.98691
G1 X152.13 Y158.49 E105.00304
G1 X151.60 Y158.43 E105.02207
G1 X151.16 Y158.35 E105.03806
G1 X150.65 Y158.21 E105.05703
G1 X150.22 Y158.05 E105.07320
G1 X149.74 Y157.82 E105.09215
G1 X149.35 Y157.60 E105.10803
G1 X148.91 Y157.30 E105.12702
G1 X148.55 Y157.01 E105.14336
G1 X148.17 Y156.66 E105.16191
G1 X147.87 Y156.31 E105.17812
G1 X147.55 Y155.89 E105.19699
G1 X147.31 Y155.51 E105.21296
G1 X147.06 Y155.03 E105.23216
G1 X146.89 Y154.62 E105.24812
G1 X146.72 Y154.11 E105.26706
G1 X146.53 Y153.14 E105.30246
G1 X146.51 Y152.82 E105.31392
G1 X146.50 Y152.52 E105.32435
G1 X146.52 Y152.04 E105.34141
G1 X146.58 Y151.52 E105.36029
G1 X146.82 Y150.56 E105.39523
G1 X146.99 Y150.14 E105.41136
G1 X147.22 Y149.66 E105.43038
G1 X147.75 Y148.84 E105.46515
G1 X148.42 Y148.10 E105.50062
G1 X149.02 Y147.62 E105.52798
G1 X149.46 Y147.33 E105.54681
G1 X149.86 Y147.12 E105.56290
G1 X150.33 Y146.91 E105.58147
G1 X150.77 Y146.76 E105.59784
G1 X151.28 Y146.62 E105.61667
G1 X151.74 Y146.55 E105.63307
G1 X152.27 Y146.50 E105.65204
G1 X152.57 Y146.50 E105.66276
G1 X153.05 Y146.53 E105.67979
G1 X153.56 Y146.59 E105.69835
G1 X153.99 Y146.69 E105.71404
G1 X154.51 Y146.85 E105.73341
G1 X155.41 Y147.25 E105.76819
G1 X155.79 Y147.48 E105.78419
G1 X156.23 Y147.80 E105.80334
G1 X156.57 Y148.10 E105.81964
G1 X156.95 Y148.47 E105.83847
G1 X157.43 Y149.08 E105.86593
G0 F6000 X157.78 Y148.83
G1 F1680 X158.09 Y149.32 E105.88653
G1 X158.31 Y149.74 E105.90359
G1 X158.53 Y150.27 E105.92413
G1 X158.68 Y150.72 E105.94066
G1 X158.81 Y151.28 E105.96121
G1 X158.88 Y151.76 E105.97860
G1 X158.93 Y152.33 E105.99883
G1 X158.92 Y152.81 E106.01599
G1 X158.87 Y153.38 E106.03643
G1 X158.74 Y154.06 E106.06107
G1 X158.60 Y154.53 E106.07859
G1 X158.40 Y155.06 E106.09861
G1 X158.18 Y155.50 E106.11613
G1 X157.89 Y156.00 E106.13669
G1 X157.49 Y156.55 E106.16090
G1 X157.17 Y156.92 E106.17824
G1 X156.76 Y157.31 E106.19860
G1 X156.38 Y157.62 E106.21596
G1 X155.91 Y157.95 E106.23636
G1 X154.98 Y158.43 E106.27354
G1 X153.98 Y158.76 E106.31111
G1 X152.93 Y158.91 E106.34904
G1 X152.60 Y158.93 E106.36044
G1 X152.09 Y158.91 E106.37877
G1 X151.54 Y158.86 E106.39838
G1 X151.06 Y158.76 E106.41589
G1 X150.51 Y158.61 E106.43597
G1 X150.06 Y158.44 E106.45324
G1 X149.54 Y158.21 E106.47359
G1 X149.12 Y157.97 E106.49079
G1 X148.65 Y157.65 E106.51099
G1 X148.27 Y157.33 E106.52864
G1 X147.86 Y156.95 E106.54843
G1 X147.55 Y156.59 E106.56553
G1 X147.20 Y156.13 E106.58602
G1 X146.94 Y155.71 E106.60362
G1 X146.68 Y155.22 E106.62328
G1 X146.49 Y154.77 E106.64086
G1 X146.31 Y154.24 E106.66070
G1 X146.20 Y153.75 E106.67843
G1 X146.11 Y153.19 E106.69886
G1 X146.08 Y152.85 E106.71079
G1 X146.07 Y152.50 E106.72332
G1 X146.09 Y152.02 E106.74056
G1 X146.16 Y151.45 E106.76098
G1 X146.26 Y150.97 E106.77833
G1 X146.41 Y150.43 E106.79821
G1 X146.59 Y149.98 E106.81555
G1 X146.84 Y149.46 E106.83601
G1 X147.08 Y149.05 E106.85287
G1 X147.41 Y148.57 E106.87355
G1 X147.72 Y148.21 E106.89048
G1 X148.12 Y147.79 E106.91119
G1 X148.77 Y147.27 E106.94085
G1 X149.23 Y146.96 E106.96058
G1 X149.67 Y146.73 E106.97809
G1 X150.19 Y146.50 E106.99820
G1 X150.64 Y146.35 E107.01544
G1 X151.20 Y146.20 E107.03596
G1 X151.67 Y146.13 E107.05283
G1 X152.25 Y146.08 E107.07363
G1 X152.59 Y146.07 E107.08555
G1 X153.64 Y146.17 E107.12313
G1 X154.12 Y146.28 E107.14053
G1 X154.65 Y146.44 E107.16057
G1 X155.11 Y146.63 E107.17795
G1 X155.61 Y146.88 E107.19807
G1 X156.03 Y147.13 E107.21561
G1 X156.49 Y147.46 E107.23542
G1 X156.85 Y147.77 E107.25266
G1 X157.27 Y148.19 E107.27369
G1 X157.48 Y148.44 E107.28520
G1 X157.78 Y148.83 E107.30262
G0 F6000 X158.13 Y148.58
G1 F1680 X158.46 Y149.11 E107.32469
G1 X158.69 Y149.56 E107.34280
G1 X158.93 Y150.12 E107.36446
G1 X159.09 Y150.61 E107.38279
G1 X159.23 Y151.20 E107.40447
G1 X159.31 Y151.72 E107.42304
G1 X159.36 Y152.31 E107.44431
G1 X159.35 Y152.84 E107.46303
G1 X159.29 Y153.43 E107.48408
G1 X159.20 Y153.97 E107.50350
G1 X159.00 Y154.68 E107.52971
G1 X158.79 Y155.23 E107.55080
G1 X158.56 Y155.70 E107.56952
G1 X158.25 Y156.23 E107.59130
G1 X157.82 Y156.82 E107.61742
G1 X157.48 Y157.21 E107.63592
G1 X157.04 Y157.64 E107.65762
G1 X156.64 Y157.96 E107.67601
G1 X156.14 Y158.31 E107.69774
G1 X155.70 Y158.56 E107.71580
G1 X155.15 Y158.83 E107.73756
G1 X154.66 Y159.01 E107.75609
G1 X154.08 Y159.17 E107.77739
G1 X153.56 Y159.27 E107.79616
G1 X152.95 Y159.34 E107.81802
G1 X152.61 Y159.36 E107.83027
G1 X152.08 Y159.34 E107.84925
G1 X151.47 Y159.28 E107.87100
G1 X150.96 Y159.18 E107.88942
G1 X150.39 Y159.02 E107.91052
G1 X149.89 Y158.84 E107.92941
G1 X149.35 Y158.59 E107.95065
G1 X148.90 Y158.33 E107.96924
G1 X148.39 Y157.99 E107.99099
G1 X147.99 Y157.66 E108.00938
G1 X147.56 Y157.25 E108.03058
G1 X147.21 Y156.86 E108.04909
G1 X146.84 Y156.37 E108.07083
G1 X146.57 Y155.94 E108.08894
G1 X146.29 Y155.40 E108.11070
G1 X146.09 Y154.91 E108.12943
G1 X145.90 Y154.35 E108.15062
G1 X145.78 Y153.84 E108.16927
G1 X145.69 Y153.25 E108.19067
G1 X145.65 Y152.87 E108.20417
G1 X145.64 Y152.50 E108.21741
