;-- START GCODE --
;Sliced for Type A Machines Series 1
;Sliced at: Mon 08-08-2016 22:14:13
;Basic settings: Layer height: 0.2 Walls: 1.5 Fill: 40
;Print Speed: 100 Support: 0
;Retraction Speed: 40 Retraction Distance: 1.2
;Print time: #P_TIME#
;Filament used: #F_AMNT#m #F_WGHT#g
;Filament cost: #F_COST#
M106 S255	 ;start with the fan on
G21        ;metric values
G90        ;absolute positioning
M106 S255    ;start with the fan on
G28     ;move to endstops
G29		;allows for auto-levelling
G1 X150 Y5  Z15.0 F6000 ;center and move the platform down 15mm
M109 S220 ;Heat To temp
G92 E0                  ;zero the extruded length
G1 F200 E30              ;extrude 30mm of feed stock
G92 E0                  ;zero the extruded length again
G1 X175 Y25  Z0 F6000 ;remove bugger
G1 X220 F6000 ;remove bugger
G1 X150 Y150  Z15 F6000 ;recenter and begin
G1 F6000

;Layer count: 109
;LAYER:0
M106 S255
G0 F6000 X72.85 Y145.00 Z0.30
;TYPE:SKIRT
G1 F2700 X72.85 Y149.49 E0.27976
G1 X72.25 Y149.55 E0.31736
G1 X72.25 Y166.25 E1.35870
G1 X72.85 Y166.31 E1.39630
G1 X72.85 Y170.59 E1.66359
G1 X79.25 Y170.80 E2.06291
G1 X79.25 Y171.35 E2.09727
G1 X225.45 Y171.35 E11.21470
G1 X225.45 Y170.79 E11.24963
G1 X232.05 Y170.59 E11.66141
G1 X232.05 Y166.31 E11.92820
G1 X232.75 Y166.24 E11.97207
G1 X232.75 Y149.56 E13.01215
G1 X232.05 Y149.49 E13.05603
G1 X232.05 Y145.01 E13.33529
G1 X225.45 Y144.81 E13.74707
G1 X225.45 Y144.55 E13.76360
G1 X79.25 Y144.55 E22.88103
G1 X79.25 Y144.80 E22.89700
G1 X72.85 Y145.00 E23.29631
G0 F6000 X72.35 Y144.52
G1 F2700 X72.35 Y149.04 E23.57813
G1 X71.75 Y149.10 E23.61574
G1 X71.75 Y166.70 E24.71344
G1 X72.35 Y166.76 E24.75105
G1 X72.35 Y171.08 E25.02039
G1 X78.75 Y171.28 E25.41971
G1 X78.75 Y171.85 E25.45501
G1 X225.95 Y171.85 E34.63481
G1 X225.95 Y171.27 E34.67066
G1 X232.55 Y171.07 E35.08245
G1 X232.55 Y166.76 E35.35129
G1 X233.25 Y166.69 E35.39517
G1 X233.25 Y149.11 E36.49163
G1 X232.55 Y149.04 E36.53550
G1 X232.55 Y144.53 E36.81682
G1 X225.95 Y144.33 E37.22860
G1 X225.95 Y144.05 E37.24606
G1 X78.75 Y144.05 E46.42586
G1 X78.75 Y144.32 E46.44276
G1 X72.35 Y144.52 E46.84208
G0 F6000 X71.85 Y144.04
G1 F2700 X71.85 Y148.59 E47.12583
G1 X71.25 Y148.65 E47.16343
G1 X71.25 Y167.15 E48.31764
G1 X71.85 Y167.21 E48.35525
G1 X71.85 Y171.56 E48.62652
G1 X78.25 Y171.76 E49.02584
G1 X78.25 Y172.35 E49.06214
G1 X226.45 Y172.35 E58.30430
G1 X226.45 Y171.76 E58.34103
G1 X233.05 Y171.56 E58.75281
G1 X233.05 Y167.21 E59.02372
G1 X233.75 Y167.14 E59.06759
G1 X233.75 Y148.66 E60.22055
G1 X233.05 Y148.59 E60.26442
G1 X233.05 Y144.04 E60.54780
G1 X226.45 Y143.84 E60.95958
G1 X226.45 Y143.55 E60.97792
G1 X78.25 Y143.55 E70.22008
G1 X78.25 Y143.84 E70.23798
G1 X71.85 Y144.04 E70.63729
G0 F6000 X71.35 Y143.55
G1 F2700 X71.35 Y148.13 E70.92310
G1 X70.75 Y148.19 E70.96071
G1 X70.75 Y167.61 E72.17129
G1 X71.35 Y167.67 E72.20890
G1 X71.35 Y172.05 E72.48223
G1 X77.75 Y172.25 E72.88155
G1 X77.75 Y172.85 E72.91878
G1 X226.95 Y172.85 E82.22330
G1 X226.95 Y172.24 E82.26097
G1 X233.55 Y172.04 E82.67275
G1 X233.55 Y167.67 E82.94572
G1 X234.25 Y167.60 E82.98959
G1 X234.25 Y148.20 E84.19893
G1 X233.55 Y148.13 E84.24280
G1 X233.55 Y143.56 E84.52823
G1 X226.95 Y143.36 E84.94002
G1 X226.95 Y143.05 E84.95929
G1 X77.75 Y143.05 E94.26381
G1 X77.75 Y143.35 E94.28264
G1 X71.35 Y143.55 E94.68196
G0 F6000 X70.85 Y143.07
G1 F2700 X70.85 Y147.68 E94.96976
G1 X70.25 Y147.74 E95.00737
G1 X70.25 Y168.06 E96.27433
G1 X70.85 Y168.12 E96.31193
G1 X70.85 Y172.53 E96.58727
G1 X77.25 Y172.73 E96.98658
G1 X77.25 Y173.35 E97.02481
G1 X227.45 Y173.35 E106.39170
G1 X227.45 Y172.73 E106.43030
G1 X234.05 Y172.53 E106.84208
G1 X234.05 Y168.12 E107.11710
G1 X234.75 Y168.05 E107.16098
G1 X234.75 Y147.75 E108.42669
G1 X234.05 Y147.68 E108.47056
G1 X234.05 Y143.07 E108.75805
G1 X227.45 Y142.87 E109.16984
G1 X227.45 Y142.55 E109.19004
G1 X77.25 Y142.55 E118.55693
G1 X77.25 Y142.87 E118.57676
G1 X70.85 Y143.07 E118.97608
G0 F6000 X68.35 Y145.42
G1 F2700 X67.75 Y145.48 E119.01368
G1 X67.75 Y170.32 E120.56277
G1 X68.35 Y170.38 E120.60038
G1 X68.35 Y174.96 E120.88575
G1 X74.75 Y175.16 E121.28507
G1 X74.75 Y175.85 E121.32810
G1 X229.95 Y175.85 E131.00680
G1 X229.95 Y175.15 E131.05008
G1 X236.55 Y174.95 E131.46186
G1 X236.55 Y170.38 E131.74704
G1 X237.25 Y170.31 E131.79092
G1 X237.25 Y145.49 E133.33876
G1 X236.55 Y145.42 E133.38263
G1 X236.55 Y140.65 E133.68029
G1 X229.95 Y140.45 E134.09207
G1 X229.95 Y140.05 E134.11695
G1 X74.75 Y140.05 E143.79565
G1 X74.75 Y140.44 E143.82029
G1 X68.35 Y140.64 E144.21961
G1 X68.35 Y145.42 E144.51745
G0 F6000 X67.85 Y144.97
G1 F2700 X67.25 Y145.03 E144.55505
G1 X67.25 Y170.77 E146.16052
G1 X67.85 Y170.83 E146.19813
G1 X67.85 Y175.44 E146.48556
G1 X74.25 Y175.64 E146.88487
G1 X74.25 Y176.35 E146.92884
G1 X230.45 Y176.35 E156.66990
G1 X230.45 Y175.64 E156.71412
G1 X237.05 Y175.44 E157.12590
G1 X237.05 Y170.83 E157.41314
G1 X237.75 Y170.76 E157.45701
G1 X237.75 Y145.04 E159.06123
G1 X237.05 Y144.97 E159.10511
G1 X237.05 Y140.16 E159.40482
G1 X230.45 Y139.96 E159.81660
G1 X230.45 Y139.55 E159.84242
G1 X74.25 Y139.55 E169.58348
G1 X74.25 Y139.96 E169.60905
G1 X67.85 Y140.16 E170.00837
G1 X67.85 Y144.97 E170.30827
G0 F6000 X67.35 Y144.52
G1 F2700 X66.75 Y144.58 E170.34588
G1 X66.75 Y171.22 E172.00772
G1 X67.35 Y171.28 E172.04533
G1 X67.35 Y175.93 E172.33475
G1 X73.75 Y176.13 E172.73407
G1 X73.75 Y176.85 E172.77903
G1 X230.95 Y176.85 E182.58246
G1 X230.95 Y176.12 E182.62761
G1 X237.55 Y175.92 E183.03939
G1 X237.55 Y171.28 E183.32869
G1 X238.25 Y171.21 E183.37256
G1 X238.25 Y144.59 E185.03316
G1 X237.55 Y144.52 E185.07703
G1 X237.55 Y139.68 E185.37880
G1 X230.95 Y139.48 E185.79059
G1 X230.95 Y139.05 E185.81734
G1 X73.75 Y139.05 E195.62077
G1 X73.75 Y139.47 E195.64733
G1 X67.35 Y139.68 E196.04665
G1 X67.35 Y144.52 E196.34855
G0 F6000 X68.25 Y145.93
G1 F2700 X68.25 Y169.87 E197.84114
G1 X68.85 Y169.93 E197.87874
G1 X68.85 Y174.47 E198.16218
G1 X75.25 Y174.67 E198.56150
G1 X75.25 Y175.35 E198.60359
G1 X229.45 Y175.35 E208.21993
G1 X229.45 Y174.67 E208.26227
G1 X236.05 Y174.47 E208.67406
G1 X236.05 Y169.93 E208.95725
G1 X236.75 Y169.86 E209.00112
G1 X236.75 Y145.94 E210.49246
G1 X236.05 Y145.87 E210.53633
G1 X236.05 Y141.13 E210.83199
G1 X229.45 Y140.93 E211.24378
G1 X229.45 Y140.55 E211.26772
G1 X75.25 Y140.55 E220.88406
G1 X75.25 Y140.93 E220.90776
G1 X68.85 Y141.13 E221.30708
G1 X68.85 Y145.87 E221.60299
G1 X68.25 Y145.93 E221.64059
G0 F6000 X68.75 Y146.38
G1 F2700 X68.75 Y169.41 E223.07681
G1 X69.35 Y169.47 E223.11441
G1 X69.35 Y173.99 E223.39579
G1 X75.75 Y174.19 E223.79511
G1 X75.75 Y174.85 E223.83621
G1 X228.95 Y174.85 E233.39018
G1 X228.95 Y174.18 E233.43159
G1 X235.55 Y173.98 E233.84337
G1 X235.55 Y169.47 E234.12450
G1 X236.25 Y169.41 E234.16837
G1 X236.25 Y146.40 E235.60334
G1 X235.55 Y146.32 E235.64721
G1 X235.55 Y141.62 E235.94082
G1 X228.95 Y141.42 E236.35260
G1 X228.95 Y141.05 E236.37561
G1 X75.75 Y141.05 E245.92959
G1 X75.75 Y141.41 E245.95229
G1 X69.35 Y141.61 E246.35160
G1 X69.35 Y146.32 E246.64546
G1 X68.75 Y146.38 E246.68306
G0 F6000 X69.25 Y146.84
G1 F2700 X69.25 Y168.96 E248.06290
G1 X69.85 Y169.02 E248.10050
G1 X69.85 Y173.50 E248.37983
G1 X76.25 Y173.70 E248.77915
G1 X76.25 Y174.35 E248.81931
G1 X228.45 Y174.35 E258.31092
G1 X228.45 Y173.70 E258.35139
G1 X235.05 Y173.50 E258.76317
G1 X235.05 Y169.02 E259.04225
G1 X235.75 Y168.95 E259.08612
G1 X235.75 Y146.85 E260.46471
G1 X235.05 Y146.78 E260.50858
G1 X235.05 Y142.10 E260.80013
G1 X228.45 Y141.90 E261.21191
G1 X228.45 Y141.55 E261.23399
G1 X76.25 Y141.55 E270.72560
G1 X76.25 Y141.90 E270.74736
G1 X69.85 Y142.10 E271.14668
G1 X69.85 Y146.78 E271.43848
G1 X69.25 Y146.84 E271.47608
G0 F6000 X69.75 Y147.29
G1 F2700 X69.75 Y168.51 E272.79942
G1 X70.35 Y168.57 E272.83702
G1 X70.35 Y173.02 E273.11441
G1 X76.75 Y173.22 E273.51373
G1 X76.75 Y173.85 E273.55290
G1 X227.95 Y173.85 E282.98214
G1 X227.95 Y173.21 E283.02168
G1 X234.55 Y173.01 E283.43346
G1 X234.55 Y168.57 E283.71054
G1 X235.25 Y168.50 E283.75441
G1 X235.25 Y147.30 E285.07650
G1 X234.55 Y147.23 E285.12038
G1 X234.55 Y142.59 E285.40993
G1 X227.95 Y142.39 E285.82171
G1 X227.95 Y142.05 E285.84285
G1 X76.75 Y142.05 E295.27210
G1 X76.75 Y142.38 E295.29287
G1 X70.35 Y142.58 E295.69218
G1 X70.35 Y147.23 E295.98205
G1 X69.75 Y147.29 E296.01965
G0 F6000 X66.85 Y144.06
G1 F2700 X66.25 Y144.12 E296.05725
G1 X66.25 Y171.68 E297.77547
G1 X66.85 Y171.74 E297.81308
G1 X66.85 Y176.41 E298.10456
G1 X73.25 Y176.61 E298.50388
G1 X73.25 Y177.35 E298.54978
G1 X231.45 Y177.35 E308.41557
G1 X231.45 Y176.61 E308.46165
G1 X238.05 Y176.41 E308.87343
G1 X238.05 Y171.74 E309.16485
G1 X238.75 Y171.67 E309.20873
G1 X238.75 Y144.13 E310.92570
G1 X238.05 Y144.06 E310.96957
G1 X238.05 Y139.19 E311.27346
G1 X231.45 Y138.99 E311.68524
G1 X231.45 Y138.55 E311.71293
G1 X73.25 Y138.55 E321.57872
G1 X73.25 Y138.99 E321.60622
G1 X66.85 Y139.19 E322.00554
G1 X66.85 Y144.06 E322.30950
G0 F6000 X66.35 Y143.61
G1 F2700 X65.75 Y143.67 E322.34710
G1 X65.75 Y172.13 E324.12182
G1 X66.35 Y172.19 E324.15942
G1 X66.35 Y176.89 E324.45284
G1 X72.75 Y177.09 E324.85216
G1 X72.75 Y177.85 E324.89906
G1 X231.95 Y177.85 E334.82721
G1 X231.95 Y177.09 E334.87423
G1 X238.55 Y176.89 E335.28601
G1 X238.55 Y172.19 E335.57937
G1 X239.25 Y172.12 E335.62324
G1 X239.25 Y143.68 E337.39671
G1 X238.55 Y143.61 E337.44058
G1 X238.55 Y138.71 E337.74641
G1 X231.95 Y138.51 E338.15819
G1 X231.95 Y138.05 E338.18682
G1 X72.75 Y138.05 E348.11497
G1 X72.75 Y138.50 E348.14347
G1 X66.35 Y138.71 E348.54278
G1 X66.35 Y143.61 E348.84867
G0 F6000 X65.85 Y143.16
G1 F2700 X65.25 Y143.22 E348.88628
G1 X65.25 Y172.58 E350.71737
G1 X65.85 Y172.64 E350.75498
G1 X65.85 Y177.38 E351.05045
G1 X72.25 Y177.58 E351.44977
G1 X72.25 Y178.35 E351.49760
G1 X232.45 Y178.35 E361.48812
G1 X232.45 Y177.58 E361.53607
G1 X239.05 Y177.38 E361.94786
G1 X239.05 Y172.64 E362.24327
G1 X239.75 Y172.57 E362.28714
G1 X239.75 Y143.23 E364.11699
G1 X239.05 Y143.16 E364.16086
G1 X239.05 Y138.22 E364.46874
G1 X232.45 Y138.02 E364.88053
G1 X232.45 Y137.55 E364.91009
G1 X72.25 Y137.55 E374.90060
G1 X72.25 Y138.02 E374.93004
G1 X65.85 Y138.22 E375.32935
G1 X65.85 Y143.16 E375.63730
G0 F6000 X61.25 Y131.56
G1 F2700 X74.05 Y131.37 E376.43564
G1 X74.05 Y122.35 E376.99784
G1 X230.85 Y122.35 E386.77632
G1 X230.85 Y131.37 E387.33852
G1 X243.85 Y131.56 E388.14933
G1 X243.85 Y182.85 E391.34761
G1 X61.25 Y182.85 E402.73505
G1 X61.25 Y131.56 E405.93332
G0 F6000 X60.75 Y131.07
G1 F2700 X73.55 Y130.87 E406.73166
G1 X73.55 Y121.85 E407.29436
G1 X231.35 Y121.85 E417.13520
G1 X231.35 Y130.87 E417.69784
G1 X244.35 Y131.07 E418.50865
G1 X244.35 Y183.35 E421.76885
G1 X60.75 Y183.35 E433.21865
G1 X60.75 Y131.07 E436.47879
G0 F6000 X60.25 Y130.58
G1 F2700 X73.05 Y130.38 E437.27713
G1 X73.05 Y121.35 E437.84027
G1 X231.85 Y121.35 E447.74347
G1 X231.85 Y130.38 E448.30661
G1 X244.85 Y130.58 E449.11742
G1 X244.85 Y183.85 E452.43948
G1 X60.25 Y183.85 E463.95165
G1 X60.25 Y130.58 E467.27371
G0 F6000 X59.75 Y130.09
G1 F2700 X72.55 Y129.89 E468.07205
G1 X72.55 Y120.85 E468.63569
G1 X232.35 Y120.85 E478.60125
G1 X232.35 Y129.89 E479.16489
G1 X245.35 Y130.09 E479.97570
G1 X245.35 Y184.35 E483.35963
G1 X59.75 Y184.35 E494.93415
G1 X59.75 Y130.09 E498.31808
G0 F6000 X59.25 Y129.60
G1 F2700 X72.05 Y129.40 E499.11642
G1 X72.05 Y120.35 E499.68056
G1 X232.85 Y120.35 E509.70849
G1 X232.85 Y129.40 E510.27256
G1 X245.85 Y129.59 E511.08337
G1 X245.85 Y184.85 E514.52922
G1 X59.25 Y184.85 E526.16611
G1 X59.25 Y129.60 E529.61191
G0 F6000 X58.75 Y129.10
G1 F2700 X71.55 Y128.90 E530.41025
G1 X71.55 Y119.85 E530.97482
G1 X233.35 Y119.85 E541.06511
G1 X233.35 Y128.90 E541.62968
G1 X246.35 Y129.10 E542.44049
G1 X246.35 Y185.35 E545.94821
G1 X58.75 Y185.35 E557.64746
G1 X58.75 Y129.10 E561.15512
G0 F6000 X58.25 Y128.61
G1 F2700 X71.05 Y128.41 E561.95346
G1 X71.05 Y119.35 E562.51853
G1 X233.85 Y119.35 E572.67118
G1 X233.85 Y128.41 E573.23619
G1 X246.85 Y128.61 E574.04700
G1 X246.85 Y185.85 E577.61658
G1 X58.25 Y185.85 E589.37820
G1 X58.25 Y128.61 E592.94778
G0 F6000 X57.75 Y128.12
G1 F2700 X70.55 Y127.92 E593.74612
G1 X70.55 Y118.85 E594.31169
G1 X234.35 Y118.85 E604.52671
G1 X234.35 Y127.92 E605.09221
G1 X247.35 Y128.12 E605.90303
G1 X247.35 Y186.35 E609.53453
G1 X57.75 Y186.35 E621.35851
G1 X57.75 Y128.12 E624.98996
G0 F6000 X57.25 Y127.63
G1 F2700 X70.05 Y127.43 E625.78830
G1 X70.05 Y118.35 E626.35437
G1 X234.85 Y118.35 E636.63175
G1 X234.85 Y127.43 E637.19775
G1 X247.85 Y127.63 E638.00856
G1 X247.85 Y186.85 E641.70193
G1 X57.25 Y186.85 E653.58828
G1 X57.25 Y127.63 E657.28158
G0 F6000 X56.75 Y127.14
G1 F2700 X69.55 Y126.94 E658.07993
G1 X69.55 Y117.85 E658.64649
G1 X235.35 Y117.85 E668.98624
G1 X235.35 Y126.93 E669.55274
G1 X248.35 Y127.13 E670.36355
G1 X248.35 Y187.35 E674.11879
G1 X56.75 Y187.35 E686.06749
G1 X56.75 Y127.14 E689.82266
G0 F6000 X56.25 Y126.64
G1 F2700 X69.05 Y126.44 E690.62100
G1 X69.05 Y117.35 E691.18807
G1 X235.85 Y117.35 E701.59017
G1 X235.85 Y126.44 E702.15711
G1 X248.85 Y126.64 E702.96793
G1 X248.85 Y187.85 E706.78509
G1 X56.25 Y187.85 E718.79615
G1 X56.25 Y126.64 E722.61325
G0 F6000 X55.75 Y126.15
G1 F2700 X68.55 Y125.95 E723.41159
G1 X68.55 Y116.85 E723.97909
G1 X236.35 Y116.85 E734.44356
G1 X236.35 Y125.95 E735.01100
G1 X249.35 Y126.15 E735.82182
G1 X249.35 Y188.35 E739.70084
G1 X55.75 Y188.35 E751.77427
G1 X55.75 Y126.15 E755.65323
G0 F6000 X55.25 Y125.66
G1 F2700 X68.05 Y125.46 E756.45157
G1 X68.05 Y116.35 E757.01957
G1 X236.85 Y116.35 E767.54641
G1 X236.85 Y125.46 E768.11428
G1 X249.85 Y125.66 E768.92509
G1 X249.85 Y188.85 E772.86605
G1 X55.25 Y188.85 E785.00184
G1 X55.25 Y125.66 E788.94266
G0 F6000 X54.75 Y125.17
G1 F2700 X67.55 Y124.97 E789.74100
G1 X67.55 Y115.85 E790.30950
G1 X237.35 Y115.85 E800.89870
G1 X237.35 Y124.96 E801.46707
G1 X250.35 Y125.16 E802.27789
G1 X250.35 Y189.35 E806.28070
G1 X54.75 Y189.35 E818.47886
G1 X54.75 Y125.17 E822.48155
G0 F6000 X54.25 Y124.67
G1 F2700 X67.05 Y124.47 E823.27989
G1 X67.05 Y115.35 E823.84882
G1 X237.85 Y115.35 E834.50038
G1 X237.85 Y124.47 E835.06925
G1 X250.85 Y124.67 E835.88007
G1 X250.85 Y189.85 E839.94474
G1 X54.25 Y189.85 E852.20526
G1 X54.25 Y124.67 E856.26988
G0 F6000 X72.25 Y136.47
;TYPE:WALL-INNER
G1 F2700 X232.75 Y136.47 E866.27910
G1 X232.75 Y136.55 E866.28403
G1 X72.25 Y136.55 E876.29325
G1 X72.25 Y136.47 E876.29818
G0 F6000 X71.75 Y135.97
;TYPE:WALL-OUTER
G1 F2700 X233.25 Y135.97 E886.36976
G1 X233.25 Y137.05 E886.43705
G1 X71.75 Y137.05 E896.50864
G1 X71.75 Y135.97 E896.57592
G0 F6000 X64.25 Y143.25
;TYPE:WALL-INNER
G1 F2700 X64.25 Y172.75 E898.41563
G1 X63.75 Y172.75 E898.44681
G1 X63.75 Y143.25 E900.28651
G1 X64.25 Y143.25 E900.31769
G0 F6000 X64.75 Y142.75
;TYPE:WALL-OUTER
G1 F2700 X64.75 Y173.25 E902.21975
G1 X63.25 Y173.25 E902.31330
G1 X63.25 Y142.75 E904.21536
G1 X64.75 Y142.75 E904.30891
G0 F6000 X64.50 Y143.01
G0 X72.25 Y179.35
;TYPE:WALL-INNER
G1 F2700 X232.75 Y179.35 E914.31813
G1 X232.75 Y180.27 E914.37556
G1 X72.25 Y180.27 E924.38479
G1 X72.25 Y179.35 E924.44222
G0 F6000 X71.75 Y178.85
;TYPE:WALL-OUTER
G1 F2700 X233.25 Y178.85 E934.51381
G1 X233.25 Y180.77 E934.63361
G1 X71.75 Y180.77 E944.70519
G1 X71.75 Y178.85 E944.82499
G0 F6000 X72.42 Y179.55
;TYPE:FILL
G1 F2700 X73.03 Y179.81 E944.87267
G1 X73.74 Y179.81 E944.92293
G1 X74.45 Y179.81 E944.97319
G1 X75.15 Y179.81 E945.02346
G1 X75.86 Y179.81 E945.07370
G1 X76.57 Y179.81 E945.12397
G1 X77.28 Y179.81 E945.17423
G1 X77.98 Y179.81 E945.22449
G1 X78.69 Y179.81 E945.27476
G1 X79.40 Y179.81 E945.32502
G1 X80.10 Y179.81 E945.37528
G1 X80.81 Y179.81 E945.42555
G1 X81.52 Y179.81 E945.47581
G1 X82.23 Y179.81 E945.52605
G1 X82.93 Y179.81 E945.57632
G1 X83.64 Y179.81 E945.62658
G1 X84.35 Y179.81 E945.67684
G1 X85.05 Y179.81 E945.72711
G1 X85.76 Y179.81 E945.77737
G1 X86.47 Y179.81 E945.82763
G1 X87.17 Y179.81 E945.87790
G1 X87.88 Y179.81 E945.92816
G1 X88.59 Y179.81 E945.97842
G1 X89.30 Y179.81 E946.02867
G1 X90.00 Y179.81 E946.07893
G1 X90.71 Y179.81 E946.12919
G1 X91.42 Y179.81 E946.17946
G1 X92.12 Y179.81 E946.22972
G1 X92.83 Y179.81 E946.27998
G1 X93.54 Y179.81 E946.33025
G1 X94.25 Y179.81 E946.38051
G1 X94.95 Y179.81 E946.43077
G1 X95.66 Y179.81 E946.48102
G1 X96.37 Y179.81 E946.53128
G1 X97.08 Y179.81 E946.58155
G1 X97.78 Y179.81 E946.63181
G1 X98.49 Y179.81 E946.68207
G1 X99.20 Y179.81 E946.73234
G1 X99.90 Y179.81 E946.78260
G1 X100.61 Y179.81 E946.83286
G1 X101.32 Y179.81 E946.88312
G1 X102.03 Y179.81 E946.93337
G1 X102.73 Y179.81 E946.98363
G1 X103.44 Y179.81 E947.03390
G1 X104.15 Y179.81 E947.08416
G1 X104.85 Y179.81 E947.13442
G1 X105.56 Y179.81 E947.18469
G1 X106.27 Y179.81 E947.23495
G1 X106.97 Y179.81 E947.28521
G1 X107.68 Y179.81 E947.33548
G1 X108.39 Y179.81 E947.38574
G1 X109.10 Y179.81 E947.43598
G1 X109.80 Y179.81 E947.48625
G1 X110.51 Y179.81 E947.53651
G1 X111.22 Y179.81 E947.58677
G1 X111.92 Y179.81 E947.63704
G1 X112.63 Y179.81 E947.68730
G1 X113.34 Y179.81 E947.73756
G1 X114.05 Y179.81 E947.78783
G1 X114.75 Y179.81 E947.83809
G1 X115.46 Y179.81 E947.88834
G1 X116.17 Y179.81 E947.93860
G1 X116.87 Y179.81 E947.98886
G1 X117.58 Y179.81 E948.03912
G1 X118.29 Y179.81 E948.08939
G1 X119.00 Y179.81 E948.13965
G1 X119.70 Y179.81 E948.18991
G1 X120.41 Y179.81 E948.24018
G1 X121.12 Y179.81 E948.29044
G1 X121.82 Y179.81 E948.34069
G1 X122.53 Y179.81 E948.39095
G1 X123.24 Y179.81 E948.44121
G1 X123.94 Y179.81 E948.49148
G1 X124.65 Y179.81 E948.54174
G1 X125.36 Y179.81 E948.59200
G1 X126.07 Y179.81 E948.64227
G1 X126.77 Y179.81 E948.69253
G1 X127.48 Y179.81 E948.74279
G1 X128.19 Y179.81 E948.79305
G1 X128.90 Y179.81 E948.84330
G1 X129.60 Y179.81 E948.89356
G1 X130.31 Y179.81 E948.94383
G1 X131.02 Y179.81 E948.99409
G1 X131.72 Y179.81 E949.04435
G1 X132.43 Y179.81 E949.09462
G1 X133.14 Y179.81 E949.14488
G1 X133.84 Y179.81 E949.19514
G1 X134.55 Y179.81 E949.24541
G1 X135.26 Y179.81 E949.29565
G1 X135.97 Y179.81 E949.34591
G1 X136.67 Y179.81 E949.39618
G1 X137.38 Y179.81 E949.44644
G1 X138.09 Y179.81 E949.49670
G1 X138.79 Y179.81 E949.54697
G1 X139.50 Y179.81 E949.59723
G1 X140.21 Y179.81 E949.64749
G1 X140.91 Y179.81 E949.69776
G1 X141.62 Y179.81 E949.74802
G1 X142.33 Y179.81 E949.79827
G1 X143.04 Y179.81 E949.84853
G1 X143.74 Y179.81 E949.89879
G1 X144.45 Y179.81 E949.94906
G1 X145.16 Y179.81 E949.99932
G1 X145.87 Y179.81 E950.04958
G1 X146.57 Y179.81 E950.09984
G1 X147.28 Y179.81 E950.15011
G1 X147.99 Y179.81 E950.20037
G1 X148.69 Y179.81 E950.25062
G1 X149.40 Y179.81 E950.30088
G1 X150.11 Y179.81 E950.35114
G1 X150.81 Y179.81 E950.40141
G1 X151.52 Y179.81 E950.45167
G1 X152.23 Y179.81 E950.50193
G1 X152.94 Y179.81 E950.55220
G1 X153.64 Y179.81 E950.60246
G1 X154.35 Y179.81 E950.65272
G1 X155.06 Y179.81 E950.70297
G1 X155.76 Y179.81 E950.75323
G1 X156.47 Y179.81 E950.80349
G1 X157.18 Y179.81 E950.85376
G1 X157.89 Y179.81 E950.90402
G1 X158.59 Y179.81 E950.95428
G1 X159.30 Y179.81 E951.00455
G1 X160.01 Y179.81 E951.05481
G1 X160.71 Y179.81 E951.10507
G1 X161.42 Y179.81 E951.15534
G1 X162.13 Y179.81 E951.20558
G1 X162.84 Y179.81 E951.25584
G1 X163.54 Y179.81 E951.30611
G1 X164.25 Y179.81 E951.35637
G1 X164.96 Y179.81 E951.40663
G1 X165.66 Y179.81 E951.45690
G1 X166.37 Y179.81 E951.50716
G1 X167.08 Y179.81 E951.55742
G1 X167.78 Y179.81 E951.60769
G1 X168.49 Y179.81 E951.65793
G1 X169.20 Y179.81 E951.70820
G1 X169.91 Y179.81 E951.75846
G1 X170.61 Y179.81 E951.80872
G1 X171.32 Y179.81 E951.85899
G1 X172.03 Y179.81 E951.90925
G1 X172.74 Y179.81 E951.95951
G1 X173.44 Y179.81 E952.00977
G1 X174.15 Y179.81 E952.06004
G1 X174.86 Y179.81 E952.11028
G1 X175.56 Y179.81 E952.16055
G1 X176.27 Y179.81 E952.21081
G1 X176.98 Y179.81 E952.26107
G1 X177.69 Y179.81 E952.31134
G1 X178.39 Y179.81 E952.36160
G1 X179.10 Y179.81 E952.41186
G1 X179.81 Y179.81 E952.46213
G1 X180.51 Y179.81 E952.51239
G1 X181.22 Y179.81 E952.56265
G1 X181.93 Y179.81 E952.61290
G1 X182.63 Y179.81 E952.66316
G1 X183.34 Y179.81 E952.71342
G1 X184.05 Y179.81 E952.76369
G1 X184.76 Y179.81 E952.81395
G1 X185.46 Y179.81 E952.86421
G1 X186.17 Y179.81 E952.91448
G1 X186.88 Y179.81 E952.96474
G1 X187.58 Y179.81 E953.01500
G1 X188.29 Y179.81 E953.06525
G1 X189.00 Y179.81 E953.11551
G1 X189.71 Y179.81 E953.16578
G1 X190.41 Y179.81 E953.21604
G1 X191.12 Y179.81 E953.26630
G1 X191.83 Y179.81 E953.31656
G1 X192.53 Y179.81 E953.36683
G1 X193.24 Y179.81 E953.41709
G1 X193.95 Y179.81 E953.46735
G1 X194.66 Y179.81 E953.51760
G1 X195.36 Y179.81 E953.56786
G1 X196.07 Y179.81 E953.61813
G1 X196.78 Y179.81 E953.66839
G1 X197.48 Y179.81 E953.71865
G1 X198.19 Y179.81 E953.76892
G1 X198.90 Y179.81 E953.81918
G1 X199.60 Y179.81 E953.86944
G1 X200.31 Y179.81 E953.91970
G1 X201.02 Y179.81 E953.96997
G1 X201.73 Y179.81 E954.02021
G1 X202.43 Y179.81 E954.07048
G1 X203.14 Y179.81 E954.12074
G1 X203.85 Y179.81 E954.17100
G1 X204.56 Y179.81 E954.22127
G1 X205.26 Y179.81 E954.27153
G1 X205.97 Y179.81 E954.32179
G1 X206.68 Y179.81 E954.37206
G1 X207.38 Y179.81 E954.42232
G1 X208.09 Y179.81 E954.47256
G1 X208.80 Y179.81 E954.52283
G1 X209.50 Y179.81 E954.57309
G1 X210.21 Y179.81 E954.62335
G1 X210.92 Y179.81 E954.67362
G1 X211.63 Y179.81 E954.72388
G1 X212.33 Y179.81 E954.77414
G1 X213.04 Y179.81 E954.82441
G1 X213.75 Y179.81 E954.87467
G1 X214.45 Y179.81 E954.92493
G1 X215.16 Y179.81 E954.97518
G1 X215.87 Y179.81 E955.02544
G1 X216.58 Y179.81 E955.07571
G1 X217.28 Y179.81 E955.12597
G1 X217.99 Y179.81 E955.17623
G1 X218.70 Y179.81 E955.22649
G1 X219.40 Y179.81 E955.27676
G1 X220.11 Y179.81 E955.32702
G1 X220.82 Y179.81 E955.37728
G1 X221.53 Y179.81 E955.42753
G1 X222.23 Y179.81 E955.47779
G1 X222.94 Y179.81 E955.52806
G1 X223.65 Y179.81 E955.57832
G1 X224.35 Y179.81 E955.62858
G1 X225.06 Y179.81 E955.67885
G1 X225.77 Y179.81 E955.72911
G1 X226.47 Y179.81 E955.77937
G1 X227.18 Y179.81 E955.82964
G1 X227.89 Y179.81 E955.87988
G1 X228.60 Y179.81 E955.93014
G1 X229.30 Y179.81 E955.98041
G1 X230.01 Y179.81 E956.03067
G1 X230.72 Y179.81 E956.08093
G1 X231.43 Y179.81 E956.13120
G1 X232.32 Y179.99 E956.18143
G1 X232.20 Y179.52 E956.21178
G0 F6000 X240.75 Y172.75
;TYPE:WALL-INNER
G1 F2700 X240.75 Y143.25 E958.05148
G1 X241.25 Y143.25 E958.08266
G1 X241.25 Y172.75 E959.92236
G1 X240.75 Y172.75 E959.95354
G0 F6000 X240.25 Y173.25
;TYPE:WALL-OUTER
G1 F2700 X240.25 Y142.75 E961.85560
G1 X241.75 Y142.75 E961.94915
G1 X241.75 Y173.25 E963.85121
G1 X240.25 Y173.25 E963.94476
G0 F6000 X240.51 Y172.90
G0 X241.50 Y172.00
G0 X241.64 Y141.88
;TYPE:SUPPORT
G1 F2700 X241.64 Y131.71 E964.57892
G0 F6000 X241.64 Y131.88
G0 X238.31 Y131.83
G0 X238.31 Y131.66
G1 F2700 X238.31 Y138.02 E964.97611
G0 F6000 X238.31 Y137.85
G0 X234.98 Y137.75
G0 X234.98 Y137.92
G1 F2700 X234.98 Y131.60 E965.37012
G0 F6000 X234.97 Y131.78
G0 X231.64 Y131.73
G0 X231.64 Y131.55
G1 F2700 X231.64 Y135.09 E965.59101
G0 F6000 X231.64 Y134.92
G0 X228.31 Y134.92
G0 X228.31 Y135.09
G1 F2700 X228.31 Y122.53 E966.37485
G0 F6000 X228.31 Y122.70
G0 X224.98 Y122.70
G0 X224.98 Y122.53
G1 F2700 X224.98 Y135.09 E967.15868
G0 F6000 X224.98 Y134.92
G0 X221.64 Y134.92
G0 X221.64 Y135.09
G1 F2700 X221.64 Y122.53 E967.94252
G0 F6000 X221.64 Y122.70
G0 X218.31 Y122.70
G0 X218.31 Y122.53
G1 F2700 X218.31 Y135.09 E968.72636
G0 F6000 X218.31 Y134.92
G0 X214.98 Y134.92
G0 X214.98 Y135.09
G1 F2700 X214.98 Y122.53 E969.51020
G0 F6000 X214.98 Y122.70
G0 X211.65 Y122.70
G0 X211.65 Y122.53
G1 F2700 X211.65 Y135.09 E970.29403
G0 F6000 X211.65 Y134.92
G0 X208.31 Y134.92
G0 X208.31 Y135.09
G1 F2700 X208.31 Y122.53 E971.07787
G0 F6000 X208.31 Y122.70
G0 X204.98 Y122.70
G0 X204.98 Y122.53
G1 F2700 X204.98 Y135.09 E971.86171
G0 F6000 X204.98 Y134.92
G0 X201.65 Y134.92
G0 X201.65 Y135.09
G1 F2700 X201.65 Y122.53 E972.64555
G0 F6000 X201.65 Y122.70
G0 X198.31 Y122.70
G0 X198.31 Y122.53
G1 F2700 X198.31 Y135.09 E973.42938
G0 F6000 X198.31 Y134.92
G0 X194.98 Y134.92
G0 X194.98 Y135.09
G1 F2700 X194.98 Y122.53 E974.21322
G0 F6000 X194.98 Y122.70
G0 X191.65 Y122.70
G0 X191.65 Y122.53
G1 F2700 X191.65 Y135.09 E974.99706
G0 F6000 X191.65 Y134.92
G0 X188.31 Y134.92
G0 X188.31 Y135.09
G1 F2700 X188.31 Y122.53 E975.78090
G0 F6000 X188.31 Y122.70
G0 X184.98 Y122.70
G0 X184.98 Y122.53
G1 F2700 X184.98 Y135.09 E976.56473
G0 F6000 X184.98 Y134.92
G0 X181.65 Y134.92
G0 X181.65 Y135.09
G1 F2700 X181.65 Y122.53 E977.34857
G0 F6000 X181.65 Y122.70
G0 X178.31 Y122.70
G0 X178.31 Y122.53
G1 F2700 X178.31 Y135.09 E978.13241
G0 F6000 X178.31 Y134.92
G0 X174.98 Y134.92
G0 X174.98 Y135.09
G1 F2700 X174.98 Y122.53 E978.91625
G0 F6000 X174.98 Y122.70
G0 X171.65 Y122.70
G0 X171.65 Y122.53
G1 F2700 X171.65 Y135.09 E979.70008
G0 F6000 X171.65 Y134.92
G0 X168.32 Y134.92
G0 X168.32 Y135.09
G1 F2700 X168.32 Y122.53 E980.48392
G0 F6000 X168.32 Y122.70
G0 X164.98 Y122.70
G0 X164.98 Y122.53
G1 F2700 X164.98 Y135.09 E981.26776
G0 F6000 X164.98 Y134.92
G0 X161.65 Y134.92
G0 X161.65 Y135.09
G1 F2700 X161.65 Y122.53 E982.05160
G0 F6000 X161.65 Y122.70
G0 X158.32 Y122.70
G0 X158.32 Y122.53
G1 F2700 X158.32 Y135.09 E982.83543
G0 F6000 X158.32 Y134.92
G0 X154.98 Y134.92
G0 X154.98 Y135.09
G1 F2700 X154.98 Y122.53 E983.61927
G0 F6000 X154.98 Y122.70
G0 X151.65 Y122.70
G0 X151.65 Y122.53
G1 F2700 X151.65 Y135.09 E984.40311
G0 F6000 X151.65 Y134.92
G0 X148.32 Y134.92
G0 X148.32 Y135.09
G1 F2700 X148.32 Y122.53 E985.18694
G0 F6000 X148.32 Y122.70
G0 X144.99 Y122.70
G0 X144.99 Y122.53
G1 F2700 X144.99 Y135.09 E985.97078
G0 F6000 X144.99 Y134.92
G0 X141.65 Y134.92
G0 X141.65 Y135.09
G1 F2700 X141.65 Y122.53 E986.75462
G0 F6000 X141.65 Y122.70
G0 X138.32 Y122.70
G0 X138.32 Y122.53
G1 F2700 X138.32 Y135.09 E987.53846
G0 F6000 X138.32 Y134.92
G0 X134.99 Y134.92
G0 X134.99 Y135.09
G1 F2700 X134.99 Y122.53 E988.32229
G0 F6000 X134.99 Y122.70
G0 X131.65 Y122.70
G0 X131.65 Y122.53
G1 F2700 X131.65 Y135.09 E989.10613
G0 F6000 X131.65 Y134.92
G0 X128.32 Y134.92
G0 X128.32 Y135.09
G1 F2700 X128.32 Y122.53 E989.88997
G0 F6000 X128.32 Y122.70
G0 X124.99 Y122.70
G0 X124.99 Y122.53
G1 F2700 X124.99 Y135.09 E990.67381
G0 F6000 X124.99 Y134.92
G0 X121.65 Y134.92
G0 X121.65 Y135.09
G1 F2700 X121.65 Y122.53 E991.45764
G0 F6000 X121.65 Y122.70
G0 X118.32 Y122.70
G0 X118.32 Y122.53
G1 F2700 X118.32 Y135.09 E992.24148
G0 F6000 X118.32 Y134.92
G0 X114.99 Y134.92
G0 X114.99 Y135.09
G1 F2700 X114.99 Y122.53 E993.02532
G0 F6000 X114.99 Y122.70
G0 X111.66 Y122.70
G0 X111.66 Y122.53
G1 F2700 X111.66 Y135.09 E993.80916
G0 F6000 X111.66 Y134.92
G0 X108.32 Y134.92
G0 X108.32 Y135.09
G1 F2700 X108.32 Y122.53 E994.59299
G0 F6000 X108.32 Y122.70
G0 X104.99 Y122.70
G0 X104.99 Y122.53
G1 F2700 X104.99 Y135.09 E995.37683
G0 F6000 X104.99 Y134.92
G0 X101.66 Y134.92
G0 X101.66 Y135.09
G1 F2700 X101.66 Y122.53 E996.16067
G0 F6000 X101.66 Y122.70
G0 X98.32 Y122.70
G0 X98.32 Y122.53
G1 F2700 X98.32 Y135.09 E996.94451
G0 F6000 X98.32 Y134.92
G0 X94.99 Y134.92
G0 X94.99 Y135.09
G1 F2700 X94.99 Y122.53 E997.72834
G0 F6000 X94.99 Y122.70
G0 X91.66 Y122.70
G0 X91.66 Y122.53
G1 F2700 X91.66 Y135.09 E998.51218
G0 F6000 X91.66 Y134.92
G0 X88.32 Y134.92
G0 X88.32 Y135.09
G1 F2700 X88.32 Y122.53 E999.29602
G0 F6000 X88.32 Y122.70
G0 X84.99 Y122.70
G0 X84.99 Y122.53
G1 F2700 X84.99 Y135.09 E1000.07986
G0 F6000 X84.99 Y134.92
G0 X81.66 Y134.92
G0 X81.66 Y135.09
G1 F2700 X81.66 Y122.53 E1000.86369
G0 F6000 X81.66 Y122.70
G0 X78.33 Y122.70
G0 X78.33 Y122.53
G1 F2700 X78.33 Y135.09 E1001.64753
G0 F6000 X78.33 Y134.92
G0 X74.99 Y134.92
G0 X74.99 Y135.09
G1 F2700 X74.99 Y122.53 E1002.43137
G0 F6000 X74.99 Y122.70
G0 X74.44 Y131.75
G0 X71.66 Y131.75
G0 X71.66 Y131.58
G1 F2700 X71.66 Y135.09 E1002.65070
G0 F6000 X71.66 Y134.92
G0 X70.66 Y134.88
G0 X68.32 Y137.79
G0 X68.33 Y137.97
G1 F2700 X68.33 Y131.63 E1003.04608
G0 F6000 X68.33 Y131.80
G0 X64.99 Y131.86
G0 X64.99 Y131.68
G1 F2700 X64.99 Y141.88 E1003.68180
G0 F6000 X64.99 Y141.70
G0 X61.66 Y141.70
G0 X61.66 Y141.88
G1 F2700 X61.66 Y131.73 E1004.31429
G0 F6000 X61.66 Y174.12
G1 F2700 X61.66 Y182.68 E1004.84749
G0 F6000 X61.66 Y182.50
G0 X64.99 Y182.50
G0 X64.99 Y182.68
G1 F2700 X64.99 Y174.12 E1005.38069
G0 F6000 X64.99 Y174.30
G0 X65.46 Y177.76
G0 X68.32 Y177.81
G0 X68.33 Y177.63
G1 F2700 X68.33 Y182.68 E1005.69519
G0 F6000 X234.98 Y182.68
G1 F2700 X234.98 Y177.68 E1006.00694
G0 F6000 X234.98 Y177.85
G0 X238.31 Y177.75
G0 X238.31 Y177.57
G1 F2700 X238.31 Y182.68 E1006.32499
G0 F6000 X238.31 Y182.50
G0 X241.64 Y182.50
G0 X241.64 Y182.68
G1 F2700 X241.64 Y174.12 E1006.85819
;LAYER:1
G0 F6000 X241.25 Y172.75 Z0.50
;TYPE:WALL-INNER
G1 F3480 X240.75 Y172.75 E1006.87898
G1 X240.75 Y143.25 E1008.10544
G1 X241.25 Y143.25 E1008.12623
G1 X241.25 Y172.75 E1009.35270
G0 F6000 X241.75 Y173.25
;TYPE:WALL-OUTER
G1 F3480 X240.25 Y173.25 E1009.41506
G1 X240.25 Y142.75 E1010.68310
G1 X241.75 Y142.75 E1010.74547
G1 X241.75 Y173.25 E1012.01351
G0 F6000 X241.50 Y172.99
G0 X232.75 Y179.35
;TYPE:WALL-INNER
G1 F3480 X232.75 Y180.27 E1012.05180
G1 X72.25 Y180.27 E1018.72462
G1 X72.25 Y179.35 E1018.76291
G1 X232.75 Y179.35 E1025.43572
G0 F6000 X233.25 Y178.85
;TYPE:WALL-OUTER
G1 F3480 X233.25 Y180.77 E1025.51559
G1 X71.75 Y180.77 E1032.22998
G1 X71.75 Y178.85 E1032.30984
G1 X233.25 Y178.85 E1039.02423
G0 F6000 X232.37 Y179.52
;TYPE:FILL
G1 F3480 X231.73 Y179.81 E1039.05786
G1 X231.02 Y179.81 E1039.09143
G1 X230.31 Y179.81 E1039.12500
G1 X229.61 Y179.81 E1039.15857
G1 X228.90 Y179.81 E1039.19213
G1 X228.19 Y179.81 E1039.22570
G1 X227.49 Y179.81 E1039.25927
G1 X226.78 Y179.81 E1039.29283
G1 X226.07 Y179.81 E1039.32639
G1 X225.36 Y179.81 E1039.35996
G1 X224.66 Y179.81 E1039.39353
G1 X223.95 Y179.81 E1039.42710
G1 X223.24 Y179.81 E1039.46066
G1 X222.54 Y179.81 E1039.49423
G1 X221.83 Y179.81 E1039.52780
G1 X221.12 Y179.81 E1039.56137
G1 X220.41 Y179.81 E1039.59492
G1 X219.71 Y179.81 E1039.62849
G1 X219.00 Y179.81 E1039.66206
G1 X218.29 Y179.81 E1039.69562
G1 X217.59 Y179.81 E1039.72919
G1 X216.88 Y179.81 E1039.76276
G1 X216.17 Y179.81 E1039.79633
G1 X215.47 Y179.81 E1039.82989
G1 X214.76 Y179.81 E1039.86346
G1 X214.05 Y179.81 E1039.89703
G1 X213.34 Y179.81 E1039.93059
G1 X212.64 Y179.81 E1039.96415
G1 X211.93 Y179.81 E1039.99772
G1 X211.22 Y179.81 E1040.03129
G1 X210.51 Y179.81 E1040.06486
G1 X209.81 Y179.81 E1040.09842
G1 X209.10 Y179.81 E1040.13199
G1 X208.39 Y179.81 E1040.16556
G1 X207.69 Y179.81 E1040.19913
G1 X206.98 Y179.81 E1040.23268
G1 X206.27 Y179.81 E1040.26625
G1 X205.56 Y179.81 E1040.29982
G1 X204.86 Y179.81 E1040.33338
G1 X204.15 Y179.81 E1040.36695
G1 X203.44 Y179.81 E1040.40052
G1 X202.74 Y179.81 E1040.43409
G1 X202.03 Y179.81 E1040.46766
G1 X201.32 Y179.81 E1040.50122
G1 X200.62 Y179.81 E1040.53478
G1 X199.91 Y179.81 E1040.56835
G1 X199.20 Y179.81 E1040.60191
G1 X198.49 Y179.81 E1040.63548
G1 X197.79 Y179.81 E1040.66905
G1 X197.08 Y179.81 E1040.70262
G1 X196.37 Y179.81 E1040.73618
G1 X195.67 Y179.81 E1040.76975
G1 X194.96 Y179.81 E1040.80332
G1 X194.25 Y179.81 E1040.83689
G1 X193.54 Y179.81 E1040.87044
G1 X192.84 Y179.81 E1040.90401
G1 X192.13 Y179.81 E1040.93758
G1 X191.42 Y179.81 E1040.97115
G1 X190.72 Y179.81 E1041.00471
G1 X190.01 Y179.81 E1041.03828
G1 X189.30 Y179.81 E1041.07185
G1 X188.59 Y179.81 E1041.10542
G1 X187.89 Y179.81 E1041.13898
G1 X187.18 Y179.81 E1041.17254
G1 X186.47 Y179.81 E1041.20611
G1 X185.77 Y179.81 E1041.23967
G1 X185.06 Y179.81 E1041.27324
G1 X184.35 Y179.81 E1041.30681
G1 X183.65 Y179.81 E1041.34038
G1 X182.94 Y179.81 E1041.37394
G1 X182.23 Y179.81 E1041.40751
G1 X181.52 Y179.81 E1041.44108
G1 X180.82 Y179.81 E1041.47464
G1 X180.11 Y179.81 E1041.50820
G1 X179.40 Y179.81 E1041.54177
G1 X178.69 Y179.81 E1041.57534
G1 X177.99 Y179.81 E1041.60891
G1 X177.28 Y179.81 E1041.64247
G1 X176.57 Y179.81 E1041.67604
G1 X175.87 Y179.81 E1041.70961
G1 X175.16 Y179.81 E1041.74318
G1 X174.45 Y179.81 E1041.77674
G1 X173.75 Y179.81 E1041.81030
G1 X173.04 Y179.81 E1041.84387
G1 X172.33 Y179.81 E1041.87743
G1 X171.62 Y179.81 E1041.91100
G1 X170.92 Y179.81 E1041.94457
G1 X170.21 Y179.81 E1041.97814
G1 X169.50 Y179.81 E1042.01171
G1 X168.80 Y179.81 E1042.04527
G1 X168.09 Y179.81 E1042.07884
G1 X167.38 Y179.81 E1042.11240
G1 X166.67 Y179.81 E1042.14596
G1 X165.97 Y179.81 E1042.17953
G1 X165.26 Y179.81 E1042.21310
G1 X164.55 Y179.81 E1042.24667
G1 X163.85 Y179.81 E1042.28023
G1 X163.14 Y179.81 E1042.31380
G1 X162.43 Y179.81 E1042.34737
G1 X161.72 Y179.81 E1042.38094
G1 X161.02 Y179.81 E1042.41449
G1 X160.31 Y179.81 E1042.44806
G1 X159.60 Y179.81 E1042.48163
G1 X158.90 Y179.81 E1042.51520
G1 X158.19 Y179.81 E1042.54876
G1 X157.48 Y179.81 E1042.58233
G1 X156.78 Y179.81 E1042.61590
G1 X156.07 Y179.81 E1042.64947
G1 X155.36 Y179.81 E1042.68303
G1 X154.65 Y179.81 E1042.71660
G1 X153.95 Y179.81 E1042.75016
G1 X153.24 Y179.81 E1042.78372
G1 X152.53 Y179.81 E1042.81729
G1 X151.82 Y179.81 E1042.85086
G1 X151.12 Y179.81 E1042.88443
G1 X150.41 Y179.81 E1042.91799
G1 X149.70 Y179.81 E1042.95156
G1 X149.00 Y179.81 E1042.98513
G1 X148.29 Y179.81 E1043.01870
G1 X147.58 Y179.81 E1043.05225
G1 X146.88 Y179.81 E1043.08582
G1 X146.17 Y179.81 E1043.11939
G1 X145.46 Y179.81 E1043.15296
G1 X144.75 Y179.81 E1043.18652
G1 X144.05 Y179.81 E1043.22009
G1 X143.34 Y179.81 E1043.25366
G1 X142.63 Y179.81 E1043.28723
G1 X141.93 Y179.81 E1043.32079
G1 X141.22 Y179.81 E1043.35436
G1 X140.51 Y179.81 E1043.38792
G1 X139.80 Y179.81 E1043.42148
G1 X139.10 Y179.81 E1043.45505
G1 X138.39 Y179.81 E1043.48862
G1 X137.68 Y179.81 E1043.52219
G1 X136.98 Y179.81 E1043.55576
G1 X136.27 Y179.81 E1043.58932
G1 X135.56 Y179.81 E1043.62289
G1 X134.85 Y179.81 E1043.65646
G1 X134.15 Y179.81 E1043.69001
G1 X133.44 Y179.81 E1043.72358
G1 X132.73 Y179.81 E1043.75715
G1 X132.03 Y179.81 E1043.79072
G1 X131.32 Y179.81 E1043.82428
G1 X130.61 Y179.81 E1043.85785
G1 X129.91 Y179.81 E1043.89142
G1 X129.20 Y179.81 E1043.92499
G1 X128.49 Y179.81 E1043.95855
G1 X127.78 Y179.81 E1043.99211
G1 X127.08 Y179.81 E1044.02568
G1 X126.37 Y179.81 E1044.05925
G1 X125.66 Y179.81 E1044.09281
G1 X124.95 Y179.81 E1044.12638
G1 X124.25 Y179.81 E1044.15995
G1 X123.54 Y179.81 E1044.19352
G1 X122.83 Y179.81 E1044.22708
G1 X122.13 Y179.81 E1044.26065
G1 X121.42 Y179.81 E1044.29422
G1 X120.71 Y179.81 E1044.32777
G1 X120.00 Y179.81 E1044.36134
G1 X119.30 Y179.81 E1044.39491
G1 X118.59 Y179.81 E1044.42848
G1 X117.88 Y179.81 E1044.46204
G1 X117.18 Y179.81 E1044.49561
G1 X116.47 Y179.81 E1044.52918
G1 X115.76 Y179.81 E1044.56275
G1 X115.06 Y179.81 E1044.59631
G1 X114.35 Y179.81 E1044.62987
G1 X113.64 Y179.81 E1044.66344
G1 X112.93 Y179.81 E1044.69701
G1 X112.23 Y179.81 E1044.73057
G1 X111.52 Y179.81 E1044.76414
G1 X110.81 Y179.81 E1044.79771
G1 X110.11 Y179.81 E1044.83128
G1 X109.40 Y179.81 E1044.86484
G1 X108.69 Y179.81 E1044.89841
G1 X107.98 Y179.81 E1044.93197
G1 X107.28 Y179.81 E1044.96553
G1 X106.57 Y179.81 E1044.99910
G1 X105.86 Y179.81 E1045.03267
G1 X105.16 Y179.81 E1045.06624
G1 X104.45 Y179.81 E1045.09981
G1 X103.74 Y179.81 E1045.13337
G1 X103.03 Y179.81 E1045.16694
G1 X102.33 Y179.81 E1045.20051
G1 X101.62 Y179.81 E1045.23408
G1 X100.91 Y179.81 E1045.26763
G1 X100.21 Y179.81 E1045.30120
G1 X99.50 Y179.81 E1045.33477
G1 X98.79 Y179.81 E1045.36833
G1 X98.08 Y179.81 E1045.40190
G1 X97.38 Y179.81 E1045.43547
G1 X96.67 Y179.81 E1045.46904
G1 X95.96 Y179.81 E1045.50260
G1 X95.26 Y179.81 E1045.53617
G1 X94.55 Y179.81 E1045.56973
G1 X93.84 Y179.81 E1045.60330
G1 X93.14 Y179.81 E1045.63686
G1 X92.43 Y179.81 E1045.67043
G1 X91.72 Y179.81 E1045.70400
G1 X91.01 Y179.81 E1045.73757
G1 X90.31 Y179.81 E1045.77113
G1 X89.60 Y179.81 E1045.80470
G1 X88.89 Y179.81 E1045.83827
G1 X88.19 Y179.81 E1045.87182
G1 X87.48 Y179.81 E1045.90539
G1 X86.77 Y179.81 E1045.93896
G1 X86.06 Y179.81 E1045.97253
G1 X85.36 Y179.81 E1046.00609
G1 X84.65 Y179.81 E1046.03966
G1 X83.94 Y179.81 E1046.07323
G1 X83.24 Y179.81 E1046.10680
G1 X82.53 Y179.81 E1046.14036
G1 X81.82 Y179.81 E1046.17393
G1 X81.11 Y179.81 E1046.20749
G1 X80.41 Y179.81 E1046.24106
G1 X79.70 Y179.81 E1046.27462
G1 X78.99 Y179.81 E1046.30819
G1 X78.29 Y179.81 E1046.34176
G1 X77.58 Y179.81 E1046.37533
G1 X76.87 Y179.81 E1046.40889
G1 X76.17 Y179.81 E1046.44246
G1 X75.46 Y179.81 E1046.47603
G1 X74.75 Y179.81 E1046.50958
G1 X74.04 Y179.81 E1046.54315
G1 X73.34 Y179.81 E1046.57672
G1 X72.56 Y179.88 E1046.61029
G1 X72.56 Y179.52 E1046.62501
G0 F6000 X232.50 Y180.09
G1 F3480 X232.57 Y180.02 E1046.62919
G0 F6000 X232.75 Y136.55
;TYPE:WALL-INNER
G1 F3480 X72.25 Y136.55 E1053.30200
G1 X72.25 Y136.47 E1053.30528
G1 X232.75 Y136.47 E1059.97810
G1 X232.75 Y136.55 E1059.98138
G0 F6000 X233.25 Y137.05
;TYPE:WALL-OUTER
G1 F3480 X71.75 Y137.05 E1066.69577
G1 X71.75 Y135.97 E1066.74063
G1 X233.25 Y135.97 E1073.45502
G1 X233.25 Y137.05 E1073.49988
G0 F6000 X64.25 Y143.25
;TYPE:WALL-INNER
G1 F3480 X64.25 Y172.75 E1074.72635
G1 X63.75 Y172.75 E1074.74714
G1 X63.75 Y143.25 E1075.97361
G1 X64.25 Y143.25 E1075.99439
G0 F6000 X64.75 Y142.75
;TYPE:WALL-OUTER
G1 F3480 X64.75 Y173.25 E1077.26244
G1 X63.25 Y173.25 E1077.32480
G1 X63.25 Y142.75 E1078.59284
G1 X64.75 Y142.75 E1078.65520
G0 F6000 X64.50 Y143.01
G0 X234.98 Y177.68
;TYPE:SUPPORT
G1 F3480 X234.98 Y182.68 E1078.86304
G0 F6000 X234.98 Y182.50
G0 X238.31 Y182.50
G0 X238.31 Y182.68
G1 F3480 X238.31 Y177.57 E1079.07507
G0 F6000 X238.31 Y177.75
G0 X239.44 Y177.76
G0 X241.64 Y174.30
G0 X241.64 Y174.12
G1 F3480 X241.64 Y182.68 E1079.43054
G0 F6000 X241.64 Y141.88
G1 F3480 X241.64 Y131.71 E1079.85332
G0 F6000 X241.64 Y131.88
G0 X238.31 Y131.83
G0 X238.31 Y131.66
G1 F3480 X238.31 Y138.02 E1080.11811
G0 F6000 X238.31 Y137.85
G0 X234.98 Y137.75
G0 X234.98 Y137.92
G1 F3480 X234.98 Y131.60 E1080.38078
G0 F6000 X234.97 Y131.78
G0 X231.64 Y131.73
G0 X231.64 Y131.55
G1 F3480 X231.64 Y135.09 E1080.52804
G0 F6000 X231.64 Y134.92
G0 X228.31 Y134.92
G0 X228.31 Y135.09
G1 F3480 X228.31 Y122.53 E1081.05060
G0 F6000 X228.31 Y122.70
G0 X224.98 Y122.70
G0 X224.98 Y122.53
G1 F3480 X224.98 Y135.09 E1081.57316
G0 F6000 X224.98 Y134.92
G0 X221.64 Y134.92
G0 X221.64 Y135.09
G1 F3480 X221.64 Y122.53 E1082.09571
G0 F6000 X221.64 Y122.70
G0 X218.31 Y122.70
G0 X218.31 Y122.53
G1 F3480 X218.31 Y135.09 E1082.61827
G0 F6000 X218.31 Y134.92
G0 X214.98 Y134.92
G0 X214.98 Y135.09
G1 F3480 X214.98 Y122.53 E1083.14083
G0 F6000 X214.98 Y122.70
G0 X211.65 Y122.70
G0 X211.65 Y122.53
G1 F3480 X211.65 Y135.09 E1083.66339
G0 F6000 X211.65 Y134.92
G0 X208.31 Y134.92
G0 X208.31 Y135.09
G1 F3480 X208.31 Y122.53 E1084.18595
G0 F6000 X208.31 Y122.70
G0 X204.98 Y122.70
G0 X204.98 Y122.53
G1 F3480 X204.98 Y135.09 E1084.70851
G0 F6000 X204.98 Y134.92
G0 X201.65 Y134.92
G0 X201.65 Y135.09
G1 F3480 X201.65 Y122.53 E1085.23106
G0 F6000 X201.65 Y122.70
G0 X198.31 Y122.70
G0 X198.31 Y122.53
G1 F3480 X198.31 Y135.09 E1085.75362
G0 F6000 X198.31 Y134.92
G0 X194.98 Y134.92
G0 X194.98 Y135.09
G1 F3480 X194.98 Y122.53 E1086.27618
G0 F6000 X194.98 Y122.70
G0 X191.65 Y122.70
G0 X191.65 Y122.53
G1 F3480 X191.65 Y135.09 E1086.79874
G0 F6000 X191.65 Y134.92
G0 X188.31 Y134.92
G0 X188.31 Y135.09
G1 F3480 X188.31 Y122.53 E1087.32130
G0 F6000 X188.31 Y122.70
G0 X184.98 Y122.70
G0 X184.98 Y122.53
G1 F3480 X184.98 Y135.09 E1087.84386
G0 F6000 X184.98 Y134.92
G0 X181.65 Y134.92
G0 X181.65 Y135.09
G1 F3480 X181.65 Y122.53 E1088.36641
G0 F6000 X181.65 Y122.70
G0 X178.31 Y122.70
G0 X178.31 Y122.53
G1 F3480 X178.31 Y135.09 E1088.88897
G0 F6000 X178.31 Y134.92
G0 X174.98 Y134.92
G0 X174.98 Y135.09
G1 F3480 X174.98 Y122.53 E1089.41153
G0 F6000 X174.98 Y122.70
G0 X171.65 Y122.70
G0 X171.65 Y122.53
G1 F3480 X171.65 Y135.09 E1089.93409
G0 F6000 X171.65 Y134.92
G0 X168.32 Y134.92
G0 X168.32 Y135.09
G1 F3480 X168.32 Y122.53 E1090.45665
G0 F6000 X168.32 Y122.70
G0 X164.98 Y122.70
G0 X164.98 Y122.53
G1 F3480 X164.98 Y135.09 E1090.97921
G0 F6000 X164.98 Y134.92
G0 X161.65 Y134.92
G0 X161.65 Y135.09
G1 F3480 X161.65 Y122.53 E1091.50176
G0 F6000 X161.65 Y122.70
G0 X158.32 Y122.70
G0 X158.32 Y122.53
G1 F3480 X158.32 Y135.09 E1092.02432
G0 F6000 X158.32 Y134.92
G0 X154.98 Y134.92
G0 X154.98 Y135.09
G1 F3480 X154.98 Y122.53 E1092.54688
G0 F6000 X154.98 Y122.70
G0 X151.65 Y122.70
G0 X151.65 Y122.53
G1 F3480 X151.65 Y135.09 E1093.06944
G0 F6000 X151.65 Y134.92
G0 X148.32 Y134.92
G0 X148.32 Y135.09
G1 F3480 X148.32 Y122.53 E1093.59200
G0 F6000 X148.32 Y122.70
G0 X144.99 Y122.70
G0 X144.99 Y122.53
G1 F3480 X144.99 Y135.09 E1094.11456
G0 F6000 X144.99 Y134.92
G0 X141.65 Y134.92
G0 X141.65 Y135.09
G1 F3480 X141.65 Y122.53 E1094.63711
G0 F6000 X141.65 Y122.70
G0 X138.32 Y122.70
G0 X138.32 Y122.53
G1 F3480 X138.32 Y135.09 E1095.15967
G0 F6000 X138.32 Y134.92
G0 X134.99 Y134.92
G0 X134.99 Y135.09
G1 F3480 X134.99 Y122.53 E1095.68223
G0 F6000 X134.99 Y122.70
G0 X131.65 Y122.70
G0 X131.65 Y122.53
G1 F3480 X131.65 Y135.09 E1096.20479
G0 F6000 X131.65 Y134.92
G0 X128.32 Y134.92
G0 X128.32 Y135.09
G1 F3480 X128.32 Y122.53 E1096.72735
G0 F6000 X128.32 Y122.70
G0 X124.99 Y122.70
G0 X124.99 Y122.53
G1 F3480 X124.99 Y135.09 E1097.24991
G0 F6000 X124.99 Y134.92
G0 X121.65 Y134.92
G0 X121.65 Y135.09
G1 F3480 X121.65 Y122.53 E1097.77246
G0 F6000 X121.65 Y122.70
G0 X118.32 Y122.70
G0 X118.32 Y122.53
G1 F3480 X118.32 Y135.09 E1098.29502
G0 F6000 X118.32 Y134.92
G0 X114.99 Y134.92
G0 X114.99 Y135.09
G1 F3480 X114.99 Y122.53 E1098.81758
G0 F6000 X114.99 Y122.70
G0 X111.66 Y122.70
G0 X111.66 Y122.53
G1 F3480 X111.66 Y135.09 E1099.34014
G0 F6000 X111.66 Y134.92
G0 X108.32 Y134.92
G0 X108.32 Y135.09
G1 F3480 X108.32 Y122.53 E1099.86270
G0 F6000 X108.32 Y122.70
G0 X104.99 Y122.70
G0 X104.99 Y122.53
G1 F3480 X104.99 Y135.09 E1100.38526
G0 F6000 X104.99 Y134.92
G0 X101.66 Y134.92
G0 X101.66 Y135.09
G1 F3480 X101.66 Y122.53 E1100.90781
G0 F6000 X101.66 Y122.70
G0 X98.32 Y122.70
G0 X98.32 Y122.53
G1 F3480 X98.32 Y135.09 E1101.43037
G0 F6000 X98.32 Y134.92
G0 X94.99 Y134.92
G0 X94.99 Y135.09
G1 F3480 X94.99 Y122.53 E1101.95293
G0 F6000 X94.99 Y122.70
G0 X91.66 Y122.70
G0 X91.66 Y122.53
G1 F3480 X91.66 Y135.09 E1102.47549
G0 F6000 X91.66 Y134.92
G0 X88.32 Y134.92
G0 X88.32 Y135.09
G1 F3480 X88.32 Y122.53 E1102.99805
G0 F6000 X88.32 Y122.70
G0 X84.99 Y122.70
G0 X84.99 Y122.53
G1 F3480 X84.99 Y135.09 E1103.52061
G0 F6000 X84.99 Y134.92
G0 X81.66 Y134.92
G0 X81.66 Y135.09
G1 F3480 X81.66 Y122.53 E1104.04316
G0 F6000 X81.66 Y122.70
G0 X78.33 Y122.70
G0 X78.33 Y122.53
G1 F3480 X78.33 Y135.09 E1104.56572
G0 F6000 X78.33 Y134.92
G0 X74.99 Y134.92
G0 X74.99 Y135.09
G1 F3480 X74.99 Y122.53 E1105.08828
G0 F6000 X74.99 Y122.70
G0 X74.44 Y131.75
G0 X71.66 Y131.75
G0 X71.66 Y131.58
G1 F3480 X71.66 Y135.09 E1105.23450
G0 F6000 X71.66 Y134.92
G0 X70.66 Y134.88
G0 X68.32 Y137.79
G0 X68.33 Y137.97
G1 F3480 X68.33 Y131.63 E1105.49809
G0 F6000 X68.33 Y131.80
G0 X64.99 Y131.86
G0 X64.99 Y131.68
G1 F3480 X64.99 Y141.88 E1105.92190
G0 F6000 X64.99 Y141.70
G0 X61.66 Y141.70
G0 X61.66 Y141.88
G1 F3480 X61.66 Y131.73 E1106.34356
G0 F6000 X61.66 Y174.12
G1 F3480 X61.66 Y182.68 E1106.69903
G0 F6000 X61.66 Y182.50
G0 X64.99 Y182.50
G0 X64.99 Y182.68
G1 F3480 X64.99 Y174.12 E1107.05449
G0 F6000 X64.99 Y174.30
G0 X65.46 Y177.76
G0 X68.32 Y177.81
G0 X68.33 Y177.63
G1 F3480 X68.33 Y182.68 E1107.26416
;LAYER:2
G0 F6000 X72.25 Y180.27 Z0.70
;TYPE:WALL-INNER
G1 F4320 X72.25 Y179.35 E1107.30245
G1 X232.75 Y179.35 E1113.97526
G1 X232.75 Y180.27 E1114.01355
G1 X72.25 Y180.27 E1120.68637
G0 F6000 X71.75 Y180.77
;TYPE:WALL-OUTER
G1 F4320 X71.75 Y178.85 E1120.76623
G1 X233.25 Y178.85 E1127.48062
G1 X233.25 Y180.77 E1127.56049
G1 X71.75 Y180.77 E1134.27488
G0 F6000 X72.97 Y180.09
;TYPE:FILL
G1 F4320 X72.76 Y179.54 E1134.30670
G1 X73.74 Y179.81 E1134.34017
G1 X74.45 Y179.81 E1134.37367
G1 X75.15 Y179.81 E1134.40718
G1 X75.86 Y179.81 E1134.44068
G1 X76.57 Y179.81 E1134.47419
G1 X77.28 Y179.81 E1134.50770
G1 X77.98 Y179.81 E1134.54121
G1 X78.69 Y179.81 E1134.57471
G1 X79.40 Y179.81 E1134.60822
G1 X80.10 Y179.81 E1134.64173
G1 X80.81 Y179.81 E1134.67524
G1 X81.52 Y179.81 E1134.70875
G1 X82.23 Y179.81 E1134.74225
G1 X82.93 Y179.81 E1134.77576
G1 X83.64 Y179.81 E1134.80926
G1 X84.35 Y179.81 E1134.84277
G1 X85.05 Y179.81 E1134.87628
G1 X85.76 Y179.81 E1134.90979
G1 X86.47 Y179.81 E1134.94330
G1 X87.17 Y179.81 E1134.97681
G1 X87.88 Y179.81 E1135.01032
G1 X88.59 Y179.81 E1135.04383
G1 X89.30 Y179.81 E1135.07732
G1 X90.00 Y179.81 E1135.11083
G1 X90.71 Y179.81 E1135.14434
G1 X91.42 Y179.81 E1135.17785
G1 X92.12 Y179.81 E1135.21136
G1 X92.83 Y179.81 E1135.24487
G1 X93.54 Y179.81 E1135.27838
G1 X94.25 Y179.81 E1135.31188
G1 X94.95 Y179.81 E1135.34539
G1 X95.66 Y179.81 E1135.37889
G1 X96.37 Y179.81 E1135.41240
G1 X97.08 Y179.81 E1135.44591
G1 X97.78 Y179.81 E1135.47942
G1 X98.49 Y179.81 E1135.51293
G1 X99.20 Y179.81 E1135.54643
G1 X99.90 Y179.81 E1135.57994
G1 X100.61 Y179.81 E1135.61345
G1 X101.32 Y179.81 E1135.64696
G1 X102.03 Y179.81 E1135.68046
G1 X102.73 Y179.81 E1135.71397
G1 X103.44 Y179.81 E1135.74748
G1 X104.15 Y179.81 E1135.78098
G1 X104.85 Y179.81 E1135.81449
G1 X105.56 Y179.81 E1135.84800
G1 X106.27 Y179.81 E1135.88151
G1 X106.97 Y179.81 E1135.91502
G1 X107.68 Y179.81 E1135.94853
G1 X108.39 Y179.81 E1135.98204
G1 X109.10 Y179.81 E1136.01553
G1 X109.80 Y179.81 E1136.04904
G1 X110.51 Y179.81 E1136.08255
G1 X111.22 Y179.81 E1136.11606
G1 X111.92 Y179.81 E1136.14957
G1 X112.63 Y179.81 E1136.18308
G1 X113.34 Y179.81 E1136.21659
G1 X114.05 Y179.81 E1136.25010
G1 X114.75 Y179.81 E1136.28360
G1 X115.46 Y179.81 E1136.31710
G1 X116.17 Y179.81 E1136.35061
G1 X116.87 Y179.81 E1136.38412
G1 X117.58 Y179.81 E1136.41763
G1 X118.29 Y179.81 E1136.45114
G1 X119.00 Y179.81 E1136.48465
G1 X119.70 Y179.81 E1136.51815
G1 X120.41 Y179.81 E1136.55166
G1 X121.12 Y179.81 E1136.58517
G1 X121.82 Y179.81 E1136.61867
G1 X122.53 Y179.81 E1136.65218
G1 X123.24 Y179.81 E1136.68569
G1 X123.94 Y179.81 E1136.71919
G1 X124.65 Y179.81 E1136.75270
G1 X125.36 Y179.81 E1136.78621
G1 X126.07 Y179.81 E1136.81972
G1 X126.77 Y179.81 E1136.85323
G1 X127.48 Y179.81 E1136.88674
G1 X128.19 Y179.81 E1136.92025
G1 X128.90 Y179.81 E1136.95374
G1 X129.60 Y179.81 E1136.98725
G1 X130.31 Y179.81 E1137.02076
G1 X131.02 Y179.81 E1137.05427
G1 X131.72 Y179.81 E1137.08778
G1 X132.43 Y179.81 E1137.12129
G1 X133.14 Y179.81 E1137.15480
G1 X133.84 Y179.81 E1137.18831
G1 X134.55 Y179.81 E1137.22181
G1 X135.26 Y179.81 E1137.25531
G1 X135.97 Y179.81 E1137.28882
G1 X136.67 Y179.81 E1137.32233
G1 X137.38 Y179.81 E1137.35584
G1 X138.09 Y179.81 E1137.38935
G1 X138.79 Y179.81 E1137.42286
G1 X139.50 Y179.81 E1137.45636
G1 X140.21 Y179.81 E1137.48987
G1 X140.91 Y179.81 E1137.52338
G1 X141.62 Y179.81 E1137.55689
G1 X142.33 Y179.81 E1137.59039
G1 X143.04 Y179.81 E1137.62390
G1 X143.74 Y179.81 E1137.65741
G1 X144.45 Y179.81 E1137.69091
G1 X145.16 Y179.81 E1137.72442
G1 X145.87 Y179.81 E1137.75793
G1 X146.57 Y179.81 E1137.79144
G1 X147.28 Y179.81 E1137.82495
G1 X147.99 Y179.81 E1137.85846
G1 X148.69 Y179.81 E1137.89196
G1 X149.40 Y179.81 E1137.92546
G1 X150.11 Y179.81 E1137.95897
G1 X150.81 Y179.81 E1137.99248
G1 X151.52 Y179.81 E1138.02599
G1 X152.23 Y179.81 E1138.05950
G1 X152.94 Y179.81 E1138.09301
G1 X153.64 Y179.81 E1138.12652
G1 X154.35 Y179.81 E1138.16003
G1 X155.06 Y179.81 E1138.19352
G1 X155.76 Y179.81 E1138.22703
G1 X156.47 Y179.81 E1138.26054
G1 X157.18 Y179.81 E1138.29405
G1 X157.89 Y179.81 E1138.32756
G1 X158.59 Y179.81 E1138.36107
G1 X159.30 Y179.81 E1138.39458
G1 X160.01 Y179.81 E1138.42808
G1 X160.71 Y179.81 E1138.46159
G1 X161.42 Y179.81 E1138.49510
G1 X162.13 Y179.81 E1138.52860
G1 X162.84 Y179.81 E1138.56211
G1 X163.54 Y179.81 E1138.59562
G1 X164.25 Y179.81 E1138.62913
G1 X164.96 Y179.81 E1138.66263
G1 X165.66 Y179.81 E1138.69614
G1 X166.37 Y179.81 E1138.72965
G1 X167.08 Y179.81 E1138.76316
G1 X167.78 Y179.81 E1138.79667
G1 X168.49 Y179.81 E1138.83017
G1 X169.20 Y179.81 E1138.86367
G1 X169.91 Y179.81 E1138.89718
G1 X170.61 Y179.81 E1138.93069
G1 X171.32 Y179.81 E1138.96420
G1 X172.03 Y179.81 E1138.99771
G1 X172.74 Y179.81 E1139.03122
G1 X173.44 Y179.81 E1139.06473
G1 X174.15 Y179.81 E1139.09824
G1 X174.86 Y179.81 E1139.13173
G1 X175.56 Y179.81 E1139.16524
G1 X176.27 Y179.81 E1139.19875
G1 X176.98 Y179.81 E1139.23226
G1 X177.69 Y179.81 E1139.26577
G1 X178.39 Y179.81 E1139.29928
G1 X179.10 Y179.81 E1139.33279
G1 X179.81 Y179.81 E1139.36629
G1 X180.51 Y179.81 E1139.39980
G1 X181.22 Y179.81 E1139.43331
G1 X181.93 Y179.81 E1139.46681
G1 X182.63 Y179.81 E1139.50032
G1 X183.34 Y179.81 E1139.53383
G1 X184.05 Y179.81 E1139.56734
G1 X184.76 Y179.81 E1139.60084
G1 X185.46 Y179.81 E1139.63435
G1 X186.17 Y179.81 E1139.66786
G1 X186.88 Y179.81 E1139.70137
G1 X187.58 Y179.81 E1139.73488
G1 X188.29 Y179.81 E1139.76838
G1 X189.00 Y179.81 E1139.80189
G1 X189.71 Y179.81 E1139.83539
G1 X190.41 Y179.81 E1139.86890
G1 X191.12 Y179.81 E1139.90241
G1 X191.83 Y179.81 E1139.93592
G1 X192.53 Y179.81 E1139.96943
G1 X193.24 Y179.81 E1140.00294
G1 X193.95 Y179.81 E1140.03645
G1 X194.66 Y179.81 E1140.06994
G1 X195.36 Y179.81 E1140.10345
G1 X196.07 Y179.81 E1140.13696
G1 X196.78 Y179.81 E1140.17047
G1 X197.48 Y179.81 E1140.20398
G1 X198.19 Y179.81 E1140.23749
G1 X198.90 Y179.81 E1140.27100
G1 X199.60 Y179.81 E1140.30451
G1 X200.31 Y179.81 E1140.33801
G1 X201.02 Y179.81 E1140.37152
G1 X201.73 Y179.81 E1140.40502
G1 X202.43 Y179.81 E1140.43853
G1 X203.14 Y179.81 E1140.47204
G1 X203.85 Y179.81 E1140.50555
G1 X204.56 Y179.81 E1140.53906
G1 X205.26 Y179.81 E1140.57256
G1 X205.97 Y179.81 E1140.60607
G1 X206.68 Y179.81 E1140.63958
G1 X207.38 Y179.81 E1140.67309
G1 X208.09 Y179.81 E1140.70659
G1 X208.80 Y179.81 E1140.74010
G1 X209.50 Y179.81 E1140.77361
G1 X210.21 Y179.81 E1140.80711
G1 X210.92 Y179.81 E1140.84062
G1 X211.63 Y179.81 E1140.87413
G1 X212.33 Y179.81 E1140.90764
G1 X213.04 Y179.81 E1140.94115
G1 X213.75 Y179.81 E1140.97466
G1 X214.45 Y179.81 E1141.00817
G1 X215.16 Y179.81 E1141.04166
G1 X215.87 Y179.81 E1141.07517
G1 X216.58 Y179.81 E1141.10868
G1 X217.28 Y179.81 E1141.14219
G1 X217.99 Y179.81 E1141.17570
G1 X218.70 Y179.81 E1141.20921
G1 X219.40 Y179.81 E1141.24272
G1 X220.11 Y179.81 E1141.27622
G1 X220.82 Y179.81 E1141.30973
G1 X221.53 Y179.81 E1141.34323
G1 X222.23 Y179.81 E1141.37674
G1 X222.94 Y179.81 E1141.41025
G1 X223.65 Y179.81 E1141.44376
G1 X224.35 Y179.81 E1141.47727
G1 X225.06 Y179.81 E1141.51077
G1 X225.77 Y179.81 E1141.54428
G1 X226.47 Y179.81 E1141.57779
G1 X227.18 Y179.81 E1141.61130
G1 X227.89 Y179.81 E1141.64480
G1 X228.60 Y179.81 E1141.67831
G1 X229.30 Y179.81 E1141.71182
G1 X230.01 Y179.81 E1141.74532
G1 X230.72 Y179.81 E1141.77883
G1 X231.43 Y179.81 E1141.81234
G1 X232.32 Y179.99 E1141.84583
G1 X232.20 Y179.52 E1141.86606
G0 F6000 X64.25 Y172.75
;TYPE:WALL-INNER
G1 F4320 X63.75 Y172.75 E1141.88685
G1 X63.75 Y143.25 E1143.11332
G1 X64.25 Y143.25 E1143.13410
G1 X64.25 Y172.75 E1144.36057
G0 F6000 X64.75 Y173.25
;TYPE:WALL-OUTER
G1 F4320 X63.25 Y173.25 E1144.42293
G1 X63.25 Y142.75 E1145.69098
G1 X64.75 Y142.75 E1145.75334
G1 X64.75 Y173.25 E1147.02138
G0 F6000 X64.50 Y172.99
G0 X72.25 Y136.55
;TYPE:WALL-INNER
G1 F4320 X72.25 Y136.47 E1147.02467
G1 X232.75 Y136.47 E1153.69748
G1 X232.75 Y136.55 E1153.70077
G1 X72.25 Y136.55 E1160.37358
G0 F6000 X71.75 Y137.05
;TYPE:WALL-OUTER
G1 F4320 X71.75 Y135.97 E1160.41844
G1 X233.25 Y135.97 E1167.13283
G1 X233.25 Y137.05 E1167.17769
G1 X71.75 Y137.05 E1173.89208
G0 F6000 X240.75 Y143.25
;TYPE:WALL-INNER
G1 F4320 X241.25 Y143.25 E1173.91287
G1 X241.25 Y172.75 E1175.13933
G1 X240.75 Y172.75 E1175.16012
G1 X240.75 Y143.25 E1176.38659
G0 F6000 X240.25 Y142.75
;TYPE:WALL-OUTER
G1 F4320 X241.75 Y142.75 E1176.44895
G1 X241.75 Y173.25 E1177.71699
G1 X240.25 Y173.25 E1177.77936
G1 X240.25 Y142.75 E1179.04740
G0 F6000 X68.33 Y177.63
;TYPE:SUPPORT
G1 F4320 X68.33 Y182.68 E1179.25706
G0 F6000 X68.33 Y182.50
G0 X64.99 Y182.50
G0 X64.99 Y182.68
G1 F4320 X64.99 Y174.12 E1179.61253
G0 F6000 X64.99 Y174.30
G0 X61.66 Y174.30
G0 X61.66 Y174.12
G1 F4320 X61.66 Y182.68 E1179.96800
G0 F6000 X61.66 Y141.88
G1 F4320 X61.66 Y131.73 E1180.38965
G0 F6000 X61.66 Y131.91
G0 X64.99 Y131.86
G0 X64.99 Y131.68
G1 F4320 X64.99 Y141.88 E1180.81347
G0 F6000 X64.99 Y141.70
G0 X65.46 Y137.84
G0 X68.32 Y137.79
G0 X68.33 Y137.97
G1 F4320 X68.33 Y131.63 E1181.07706
G0 F6000 X68.33 Y131.80
G0 X71.66 Y131.75
G0 X71.66 Y131.58
G1 F4320 X71.66 Y135.09 E1181.22328
G0 F6000 X71.66 Y134.92
G0 X74.99 Y134.92
G0 X74.99 Y135.09
G1 F4320 X74.99 Y122.53 E1181.74584
G0 F6000 X74.99 Y122.70
G0 X78.33 Y122.70
G0 X78.33 Y122.53
G1 F4320 X78.33 Y135.09 E1182.26839
G0 F6000 X78.33 Y134.92
G0 X81.66 Y134.92
G0 X81.66 Y135.09
G1 F4320 X81.66 Y122.53 E1182.79095
G0 F6000 X81.66 Y122.70
G0 X84.99 Y122.70
G0 X84.99 Y122.53
G1 F4320 X84.99 Y135.09 E1183.31351
G0 F6000 X84.99 Y134.92
G0 X88.32 Y134.92
G0 X88.32 Y135.09
G1 F4320 X88.32 Y122.53 E1183.83607
G0 F6000 X88.32 Y122.70
G0 X91.66 Y122.70
G0 X91.66 Y122.53
G1 F4320 X91.66 Y135.09 E1184.35863
G0 F6000 X91.66 Y134.92
G0 X94.99 Y134.92
G0 X94.99 Y135.09
G1 F4320 X94.99 Y122.53 E1184.88119
G0 F6000 X94.99 Y122.70
G0 X98.32 Y122.70
G0 X98.32 Y122.53
G1 F4320 X98.32 Y135.09 E1185.40374
G0 F6000 X98.32 Y134.92
G0 X101.66 Y134.92
G0 X101.66 Y135.09
G1 F4320 X101.66 Y122.53 E1185.92630
G0 F6000 X101.66 Y122.70
G0 X104.99 Y122.70
G0 X104.99 Y122.53
G1 F4320 X104.99 Y135.09 E1186.44886
G0 F6000 X104.99 Y134.92
G0 X108.32 Y134.92
G0 X108.32 Y135.09
G1 F4320 X108.32 Y122.53 E1186.97142
G0 F6000 X108.32 Y122.70
G0 X111.66 Y122.70
G0 X111.66 Y122.53
G1 F4320 X111.66 Y135.09 E1187.49398
G0 F6000 X111.66 Y134.92
G0 X114.99 Y134.92
G0 X114.99 Y135.09
G1 F4320 X114.99 Y122.53 E1188.01654
G0 F6000 X114.99 Y122.70
G0 X118.32 Y122.70
G0 X118.32 Y122.53
G1 F4320 X118.32 Y135.09 E1188.53909
G0 F6000 X118.32 Y134.92
G0 X121.65 Y134.92
G0 X121.65 Y135.09
G1 F4320 X121.65 Y122.53 E1189.06165
G0 F6000 X121.65 Y122.70
G0 X124.99 Y122.70
G0 X124.99 Y122.53
G1 F4320 X124.99 Y135.09 E1189.58421
G0 F6000 X124.99 Y134.92
G0 X128.32 Y134.92
G0 X128.32 Y135.09
G1 F4320 X128.32 Y122.53 E1190.10677
G0 F6000 X128.32 Y122.70
G0 X131.65 Y122.70
G0 X131.65 Y122.53
G1 F4320 X131.65 Y135.09 E1190.62933
G0 F6000 X131.65 Y134.92
G0 X134.99 Y134.92
G0 X134.99 Y135.09
G1 F4320 X134.99 Y122.53 E1191.15189
G0 F6000 X134.99 Y122.70
G0 X138.32 Y122.70
G0 X138.32 Y122.53
G1 F4320 X138.32 Y135.09 E1191.67444
G0 F6000 X138.32 Y134.92
G0 X141.65 Y134.92
G0 X141.65 Y135.09
G1 F4320 X141.65 Y122.53 E1192.19700
G0 F6000 X141.65 Y122.70
G0 X144.99 Y122.70
G0 X144.99 Y122.53
G1 F4320 X144.99 Y135.09 E1192.71956
G0 F6000 X144.99 Y134.92
G0 X148.32 Y134.92
G0 X148.32 Y135.09
G1 F4320 X148.32 Y122.53 E1193.24212
G0 F6000 X148.32 Y122.70
G0 X151.65 Y122.70
G0 X151.65 Y122.53
G1 F4320 X151.65 Y135.09 E1193.76468
G0 F6000 X151.65 Y134.92
G0 X154.98 Y134.92
G0 X154.98 Y135.09
G1 F4320 X154.98 Y122.53 E1194.28724
G0 F6000 X154.98 Y122.70
G0 X158.32 Y122.70
G0 X158.32 Y122.53
G1 F4320 X158.32 Y135.09 E1194.80979
G0 F6000 X158.32 Y134.92
G0 X161.65 Y134.92
G0 X161.65 Y135.09
G1 F4320 X161.65 Y122.53 E1195.33235
G0 F6000 X161.65 Y122.70
G0 X164.98 Y122.70
G0 X164.98 Y122.53
G1 F4320 X164.98 Y135.09 E1195.85491
G0 F6000 X164.98 Y134.92
G0 X168.32 Y134.92
G0 X168.32 Y135.09
G1 F4320 X168.32 Y122.53 E1196.37747
G0 F6000 X168.32 Y122.70
G0 X171.65 Y122.70
G0 X171.65 Y122.53
G1 F4320 X171.65 Y135.09 E1196.90003
G0 F6000 X171.65 Y134.92
G0 X174.98 Y134.92
G0 X174.98 Y135.09
G1 F4320 X174.98 Y122.53 E1197.42259
G0 F6000 X174.98 Y122.70
G0 X178.31 Y122.70
G0 X178.31 Y122.53
G1 F4320 X178.31 Y135.09 E1197.94514
G0 F6000 X178.31 Y134.92
G0 X181.65 Y134.92
G0 X181.65 Y135.09
G1 F4320 X181.65 Y122.53 E1198.46770
G0 F6000 X181.65 Y122.70
G0 X184.98 Y122.70
G0 X184.98 Y122.53
G1 F4320 X184.98 Y135.09 E1198.99026
G0 F6000 X184.98 Y134.92
G0 X188.31 Y134.92
G0 X188.31 Y135.09
G1 F4320 X188.31 Y122.53 E1199.51282
G0 F6000 X188.31 Y122.70
G0 X191.65 Y122.70
G0 X191.65 Y122.53
G1 F4320 X191.65 Y135.09 E1200.03538
G0 F6000 X191.65 Y134.92
G0 X194.98 Y134.92
G0 X194.98 Y135.09
G1 F4320 X194.98 Y122.53 E1200.55793
G0 F6000 X194.98 Y122.70
G0 X198.31 Y122.70
G0 X198.31 Y122.53
G1 F4320 X198.31 Y135.09 E1201.08049
G0 F6000 X198.31 Y134.92
G0 X201.65 Y134.92
G0 X201.65 Y135.09
G1 F4320 X201.65 Y122.53 E1201.60305
G0 F6000 X201.65 Y122.70
G0 X204.98 Y122.70
G0 X204.98 Y122.53
G1 F4320 X204.98 Y135.09 E1202.12561
G0 F6000 X204.98 Y134.92
G0 X208.31 Y134.92
G0 X208.31 Y135.09
G1 F4320 X208.31 Y122.53 E1202.64817
G0 F6000 X208.31 Y122.70
G0 X211.65 Y122.70
G0 X211.65 Y122.53
G1 F4320 X211.65 Y135.09 E1203.17073
G0 F6000 X211.65 Y134.92
G0 X214.98 Y134.92
G0 X214.98 Y135.09
G1 F4320 X214.98 Y122.53 E1203.69328
G0 F6000 X214.98 Y122.70
G0 X218.31 Y122.70
G0 X218.31 Y122.53
G1 F4320 X218.31 Y135.09 E1204.21584
G0 F6000 X218.31 Y134.92
G0 X221.64 Y134.92
G0 X221.64 Y135.09
G1 F4320 X221.64 Y122.53 E1204.73840
G0 F6000 X221.64 Y122.70
G0 X224.98 Y122.70
G0 X224.98 Y122.53
G1 F4320 X224.98 Y135.09 E1205.26096
G0 F6000 X224.98 Y134.92
G0 X228.31 Y134.92
G0 X228.31 Y135.09
G1 F4320 X228.31 Y122.53 E1205.78352
G0 F6000 X228.31 Y122.70
G0 X230.46 Y131.75
G0 X231.64 Y131.73
G0 X231.64 Y131.55
G1 F4320 X231.64 Y135.09 E1205.93078
G0 F6000 X231.64 Y134.92
G0 X234.34 Y134.88
G0 X234.98 Y137.75
G0 X234.98 Y137.92
G1 F4320 X234.98 Y131.60 E1206.19345
G0 F6000 X234.97 Y131.78
G0 X238.31 Y131.83
G0 X238.31 Y131.66
G1 F4320 X238.31 Y138.02 E1206.45824
G0 F6000 X238.31 Y137.85
G0 X239.44 Y137.84
G0 X241.64 Y141.70
G0 X241.64 Y141.88
G1 F4320 X241.64 Y131.71 E1206.88102
G0 F6000 X241.64 Y174.12
G1 F4320 X241.64 Y182.68 E1207.23649
G0 F6000 X241.64 Y182.50
G0 X238.31 Y182.50
G0 X238.31 Y182.68
G1 F4320 X238.31 Y177.57 E1207.44852
G0 F6000 X238.31 Y177.75
G0 X234.98 Y177.85
G0 X234.98 Y177.68
G1 F4320 X234.98 Y182.68 E1207.65635
;LAYER:3
G0 F6000 X232.75 Y180.27 Z0.90
;TYPE:WALL-INNER
G1 F5160 X72.25 Y180.27 E1214.32917
G1 X72.25 Y179.35 E1214.36746
G1 X232.75 Y179.35 E1221.04027
G1 X232.75 Y180.27 E1221.07857
G0 F6000 X233.25 Y180.77
;TYPE:WALL-OUTER
G1 F5160 X71.75 Y180.77 E1227.79295
G1 X71.75 Y178.85 E1227.87282
G1 X233.25 Y178.85 E1234.58721
G1 X233.25 Y180.77 E1234.66708
G0 F6000 X232.57 Y180.02
;TYPE:FILL
G1 F5160 X232.44 Y179.81 E1234.67123
G1 X231.73 Y179.81 E1234.70480
G1 X231.02 Y179.81 E1234.73836
G1 X230.31 Y179.81 E1234.77193
G1 X229.61 Y179.81 E1234.80550
G1 X228.90 Y179.81 E1234.83907
G1 X228.19 Y179.81 E1234.87263
G1 X227.49 Y179.81 E1234.90620
G1 X226.78 Y179.81 E1234.93976
G1 X226.07 Y179.81 E1234.97332
G1 X225.36 Y179.81 E1235.00689
G1 X224.66 Y179.81 E1235.04046
G1 X223.95 Y179.81 E1235.07403
G1 X223.24 Y179.81 E1235.10759
G1 X222.54 Y179.81 E1235.14116
G1 X221.83 Y179.81 E1235.17473
G1 X221.12 Y179.81 E1235.20830
G1 X220.41 Y179.81 E1235.24185
G1 X219.71 Y179.81 E1235.27542
G1 X219.00 Y179.81 E1235.30899
G1 X218.29 Y179.81 E1235.34256
G1 X217.59 Y179.81 E1235.37612
G1 X216.88 Y179.81 E1235.40969
G1 X216.17 Y179.81 E1235.44326
G1 X215.47 Y179.81 E1235.47683
G1 X214.76 Y179.81 E1235.51039
G1 X214.05 Y179.81 E1235.54396
G1 X213.34 Y179.81 E1235.57752
G1 X212.64 Y179.81 E1235.61108
G1 X211.93 Y179.81 E1235.64465
G1 X211.22 Y179.81 E1235.67822
G1 X210.51 Y179.81 E1235.71179
G1 X209.81 Y179.81 E1235.74535
G1 X209.10 Y179.81 E1235.77892
G1 X208.39 Y179.81 E1235.81249
G1 X207.69 Y179.81 E1235.84606
G1 X206.98 Y179.81 E1235.87961
G1 X206.27 Y179.81 E1235.91318
G1 X205.56 Y179.81 E1235.94675
G1 X204.86 Y179.81 E1235.98032
G1 X204.15 Y179.81 E1236.01388
G1 X203.44 Y179.81 E1236.04745
G1 X202.74 Y179.81 E1236.08102
G1 X202.03 Y179.81 E1236.11459
G1 X201.32 Y179.81 E1236.14815
G1 X200.62 Y179.81 E1236.18171
G1 X199.91 Y179.81 E1236.21528
G1 X199.20 Y179.81 E1236.24885
G1 X198.49 Y179.81 E1236.28241
G1 X197.79 Y179.81 E1236.31598
G1 X197.08 Y179.81 E1236.34955
G1 X196.37 Y179.81 E1236.38312
G1 X195.67 Y179.81 E1236.41668
G1 X194.96 Y179.81 E1236.45025
G1 X194.25 Y179.81 E1236.48382
G1 X193.54 Y179.81 E1236.51737
G1 X192.84 Y179.81 E1236.55094
G1 X192.13 Y179.81 E1236.58451
G1 X191.42 Y179.81 E1236.61808
G1 X190.72 Y179.81 E1236.65164
G1 X190.01 Y179.81 E1236.68521
G1 X189.30 Y179.81 E1236.71878
G1 X188.59 Y179.81 E1236.75235
G1 X187.89 Y179.81 E1236.78591
G1 X187.18 Y179.81 E1236.81947
G1 X186.47 Y179.81 E1236.85304
G1 X185.77 Y179.81 E1236.88661
G1 X185.06 Y179.81 E1236.92017
G1 X184.35 Y179.81 E1236.95374
G1 X183.65 Y179.81 E1236.98731
G1 X182.94 Y179.81 E1237.02088
G1 X182.23 Y179.81 E1237.05444
G1 X181.52 Y179.81 E1237.08801
G1 X180.82 Y179.81 E1237.12157
G1 X180.11 Y179.81 E1237.15513
G1 X179.40 Y179.81 E1237.18870
G1 X178.69 Y179.81 E1237.22227
G1 X177.99 Y179.81 E1237.25584
G1 X177.28 Y179.81 E1237.28940
G1 X176.57 Y179.81 E1237.32297
G1 X175.87 Y179.81 E1237.35654
G1 X175.16 Y179.81 E1237.39011
G1 X174.45 Y179.81 E1237.42367
G1 X173.75 Y179.81 E1237.45723
G1 X173.04 Y179.81 E1237.49080
G1 X172.33 Y179.81 E1237.52437
G1 X171.62 Y179.81 E1237.55793
G1 X170.92 Y179.81 E1237.59150
G1 X170.21 Y179.81 E1237.62507
G1 X169.50 Y179.81 E1237.65864
G1 X168.80 Y179.81 E1237.69220
G1 X168.09 Y179.81 E1237.72577
G1 X167.38 Y179.81 E1237.75933
G1 X166.67 Y179.81 E1237.79290
G1 X165.97 Y179.81 E1237.82646
G1 X165.26 Y179.81 E1237.86003
G1 X164.55 Y179.81 E1237.89360
G1 X163.85 Y179.81 E1237.92717
G1 X163.14 Y179.81 E1237.96073
G1 X162.43 Y179.81 E1237.99430
G1 X161.72 Y179.81 E1238.02787
G1 X161.02 Y179.81 E1238.06142
G1 X160.31 Y179.81 E1238.09499
G1 X159.60 Y179.81 E1238.12856
G1 X158.90 Y179.81 E1238.16213
G1 X158.19 Y179.81 E1238.19569
G1 X157.48 Y179.81 E1238.22926
G1 X156.78 Y179.81 E1238.26283
G1 X156.07 Y179.81 E1238.29640
G1 X155.36 Y179.81 E1238.32996
G1 X154.65 Y179.81 E1238.36353
G1 X153.95 Y179.81 E1238.39709
G1 X153.24 Y179.81 E1238.43066
G1 X152.53 Y179.81 E1238.46422
G1 X151.82 Y179.81 E1238.49779
G1 X151.12 Y179.81 E1238.53136
G1 X150.41 Y179.81 E1238.56493
G1 X149.70 Y179.81 E1238.59849
G1 X149.00 Y179.81 E1238.63206
G1 X148.29 Y179.81 E1238.66563
G1 X147.58 Y179.81 E1238.69918
G1 X146.88 Y179.81 E1238.73275
G1 X146.17 Y179.81 E1238.76632
G1 X145.46 Y179.81 E1238.79989
G1 X144.75 Y179.81 E1238.83345
G1 X144.05 Y179.81 E1238.86702
G1 X143.34 Y179.81 E1238.90059
G1 X142.63 Y179.81 E1238.93416
G1 X141.93 Y179.81 E1238.96772
G1 X141.22 Y179.81 E1239.00129
G1 X140.51 Y179.81 E1239.03485
G1 X139.80 Y179.81 E1239.06842
G1 X139.10 Y179.81 E1239.10198
G1 X138.39 Y179.81 E1239.13555
G1 X137.68 Y179.81 E1239.16912
G1 X136.98 Y179.81 E1239.20269
G1 X136.27 Y179.81 E1239.23625
G1 X135.56 Y179.81 E1239.26982
G1 X134.85 Y179.81 E1239.30339
G1 X134.15 Y179.81 E1239.33695
G1 X133.44 Y179.81 E1239.37051
G1 X132.73 Y179.81 E1239.40408
G1 X132.03 Y179.81 E1239.43765
G1 X131.32 Y179.81 E1239.47122
G1 X130.61 Y179.81 E1239.50478
G1 X129.91 Y179.81 E1239.53835
G1 X129.20 Y179.81 E1239.57192
G1 X128.49 Y179.81 E1239.60549
G1 X127.78 Y179.81 E1239.63904
G1 X127.08 Y179.81 E1239.67261
G1 X126.37 Y179.81 E1239.70618
G1 X125.66 Y179.81 E1239.73974
G1 X124.95 Y179.81 E1239.77331
G1 X124.25 Y179.81 E1239.80688
G1 X123.54 Y179.81 E1239.84045
G1 X122.83 Y179.81 E1239.87401
G1 X122.13 Y179.81 E1239.90758
G1 X121.42 Y179.81 E1239.94115
G1 X120.71 Y179.81 E1239.97471
G1 X120.00 Y179.81 E1240.00827
G1 X119.30 Y179.81 E1240.04184
G1 X118.59 Y179.81 E1240.07541
G1 X117.88 Y179.81 E1240.10898
G1 X117.18 Y179.81 E1240.14254
G1 X116.47 Y179.81 E1240.17611
G1 X115.76 Y179.81 E1240.20968
G1 X115.06 Y179.81 E1240.24325
G1 X114.35 Y179.81 E1240.27680
G1 X113.64 Y179.81 E1240.31037
G1 X112.93 Y179.81 E1240.34394
G1 X112.23 Y179.81 E1240.37750
G1 X111.52 Y179.81 E1240.41107
G1 X110.81 Y179.81 E1240.44464
G1 X110.11 Y179.81 E1240.47821
G1 X109.40 Y179.81 E1240.51177
G1 X108.69 Y179.81 E1240.54534
G1 X107.98 Y179.81 E1240.57890
G1 X107.28 Y179.81 E1240.61247
G1 X106.57 Y179.81 E1240.64603
G1 X105.86 Y179.81 E1240.67960
G1 X105.16 Y179.81 E1240.71317
G1 X104.45 Y179.81 E1240.74674
G1 X103.74 Y179.81 E1240.78030
G1 X103.03 Y179.81 E1240.81387
G1 X102.33 Y179.81 E1240.84744
G1 X101.62 Y179.81 E1240.88101
G1 X100.91 Y179.81 E1240.91456
G1 X100.21 Y179.81 E1240.94813
G1 X99.50 Y179.81 E1240.98170
G1 X98.79 Y179.81 E1241.01527
G1 X98.08 Y179.81 E1241.04883
G1 X97.38 Y179.81 E1241.08240
G1 X96.67 Y179.81 E1241.11597
G1 X95.96 Y179.81 E1241.14954
G1 X95.26 Y179.81 E1241.18310
G1 X94.55 Y179.81 E1241.21666
G1 X93.84 Y179.81 E1241.25023
G1 X93.14 Y179.81 E1241.28379
G1 X92.43 Y179.81 E1241.31736
G1 X91.72 Y179.81 E1241.35093
G1 X91.01 Y179.81 E1241.38450
G1 X90.31 Y179.81 E1241.41806
G1 X89.60 Y179.81 E1241.45163
G1 X88.89 Y179.81 E1241.48520
G1 X88.19 Y179.81 E1241.51876
G1 X87.48 Y179.81 E1241.55232
G1 X86.77 Y179.81 E1241.58589
G1 X86.06 Y179.81 E1241.61946
G1 X85.36 Y179.81 E1241.65303
G1 X84.65 Y179.81 E1241.68659
G1 X83.94 Y179.81 E1241.72016
G1 X83.24 Y179.81 E1241.75373
G1 X82.53 Y179.81 E1241.78730
G1 X81.82 Y179.81 E1241.82086
G1 X81.11 Y179.81 E1241.85442
G1 X80.41 Y179.81 E1241.88799
G1 X79.70 Y179.81 E1241.92155
G1 X78.99 Y179.81 E1241.95512
G1 X78.29 Y179.81 E1241.98869
G1 X77.58 Y179.81 E1242.02226
G1 X76.87 Y179.81 E1242.05582
G1 X76.17 Y179.81 E1242.08939
G1 X75.46 Y179.81 E1242.12296
G1 X74.75 Y179.81 E1242.15652
G1 X74.04 Y179.81 E1242.19008
G1 X73.34 Y179.81 E1242.22365
G1 X72.56 Y179.88 E1242.25722
G1 X72.56 Y179.52 E1242.27194
G0 F6000 X240.75 Y172.75
;TYPE:WALL-INNER
G1 F5160 X240.75 Y143.25 E1243.49841
G1 X241.25 Y143.25 E1243.51920
G1 X241.25 Y172.75 E1244.74566
G1 X240.75 Y172.75 E1244.76645
G0 F6000 X240.25 Y173.25
;TYPE:WALL-OUTER
G1 F5160 X240.25 Y142.75 E1246.03450
G1 X241.75 Y142.75 E1246.09686
G1 X241.75 Y173.25 E1247.36490
G1 X240.25 Y173.25 E1247.42726
G0 F6000 X240.51 Y172.90
G0 X241.50 Y172.00
G0 X232.75 Y136.55
;TYPE:WALL-INNER
G1 F5160 X72.25 Y136.55 E1254.10008
G1 X72.25 Y136.47 E1254.10336
G1 X232.75 Y136.47 E1260.77618
G1 X232.75 Y136.55 E1260.77946
G0 F6000 X233.25 Y137.05
;TYPE:WALL-OUTER
G1 F5160 X71.75 Y137.05 E1267.49385
G1 X71.75 Y135.97 E1267.53871
G1 X233.25 Y135.97 E1274.25310
G1 X233.25 Y137.05 E1274.29796
G0 F6000 X64.25 Y143.25
;TYPE:WALL-INNER
G1 F5160 X64.25 Y172.75 E1275.52443
G1 X63.75 Y172.75 E1275.54522
G1 X63.75 Y143.25 E1276.77168
G1 X64.25 Y143.25 E1276.79247
G0 F6000 X64.75 Y142.75
;TYPE:WALL-OUTER
G1 F5160 X64.75 Y173.25 E1278.06051
G1 X63.25 Y173.25 E1278.12288
G1 X63.25 Y142.75 E1279.39092
G1 X64.75 Y142.75 E1279.45328
G0 F6000 X64.50 Y143.01
G0 X234.98 Y177.68
;TYPE:SUPPORT
G1 F5160 X234.98 Y182.68 E1279.66112
G0 F6000 X234.98 Y182.50
G0 X238.31 Y182.50
G0 X238.31 Y182.68
G1 F5160 X238.31 Y177.57 E1279.87315
G0 F6000 X238.31 Y177.75
G0 X239.44 Y177.76
G0 X241.64 Y174.30
G0 X241.64 Y174.12
G1 F5160 X241.64 Y182.68 E1280.22862
G0 F6000 X241.64 Y141.88
G1 F5160 X241.64 Y131.71 E1280.65139
G0 F6000 X241.64 Y131.88
G0 X238.31 Y131.83
G0 X238.31 Y131.66
G1 F5160 X238.31 Y138.02 E1280.91619
G0 F6000 X238.31 Y137.85
G0 X234.98 Y137.75
G0 X234.98 Y137.92
G1 F5160 X234.98 Y131.60 E1281.17886
G0 F6000 X234.97 Y131.78
G0 X231.64 Y131.73
G0 X231.64 Y131.55
G1 F5160 X231.64 Y135.09 E1281.32612
G0 F6000 X231.64 Y134.92
G0 X228.31 Y134.92
G0 X228.31 Y135.09
G1 F5160 X228.31 Y122.53 E1281.84868
G0 F6000 X228.31 Y122.70
G0 X224.98 Y122.70
G0 X224.98 Y122.53
G1 F5160 X224.98 Y135.09 E1282.37123
G0 F6000 X224.98 Y134.92
G0 X221.64 Y134.92
G0 X221.64 Y135.09
G1 F5160 X221.64 Y122.53 E1282.89379
G0 F6000 X221.64 Y122.70
G0 X218.31 Y122.70
G0 X218.31 Y122.53
G1 F5160 X218.31 Y135.09 E1283.41635
G0 F6000 X218.31 Y134.92
G0 X214.98 Y134.92
G0 X214.98 Y135.09
G1 F5160 X214.98 Y122.53 E1283.93891
G0 F6000 X214.98 Y122.70
G0 X211.65 Y122.70
G0 X211.65 Y122.53
G1 F5160 X211.65 Y135.09 E1284.46147
G0 F6000 X211.65 Y134.92
G0 X208.31 Y134.92
G0 X208.31 Y135.09
G1 F5160 X208.31 Y122.53 E1284.98403
G0 F6000 X208.31 Y122.70
G0 X204.98 Y122.70
G0 X204.98 Y122.53
G1 F5160 X204.98 Y135.09 E1285.50658
G0 F6000 X204.98 Y134.92
G0 X201.65 Y134.92
G0 X201.65 Y135.09
G1 F5160 X201.65 Y122.53 E1286.02914
G0 F6000 X201.65 Y122.70
G0 X198.31 Y122.70
G0 X198.31 Y122.53
G1 F5160 X198.31 Y135.09 E1286.55170
G0 F6000 X198.31 Y134.92
G0 X194.98 Y134.92
G0 X194.98 Y135.09
G1 F5160 X194.98 Y122.53 E1287.07426
G0 F6000 X194.98 Y122.70
G0 X191.65 Y122.70
G0 X191.65 Y122.53
G1 F5160 X191.65 Y135.09 E1287.59682
G0 F6000 X191.65 Y134.92
G0 X188.31 Y134.92
G0 X188.31 Y135.09
G1 F5160 X188.31 Y122.53 E1288.11938
G0 F6000 X188.31 Y122.70
G0 X184.98 Y122.70
G0 X184.98 Y122.53
G1 F5160 X184.98 Y135.09 E1288.64193
G0 F6000 X184.98 Y134.92
G0 X181.65 Y134.92
G0 X181.65 Y135.09
G1 F5160 X181.65 Y122.53 E1289.16449
G0 F6000 X181.65 Y122.70
G0 X178.31 Y122.70
G0 X178.31 Y122.53
G1 F5160 X178.31 Y135.09 E1289.68705
G0 F6000 X178.31 Y134.92
G0 X174.98 Y134.92
G0 X174.98 Y135.09
G1 F5160 X174.98 Y122.53 E1290.20961
G0 F6000 X174.98 Y122.70
G0 X171.65 Y122.70
G0 X171.65 Y122.53
G1 F5160 X171.65 Y135.09 E1290.73217
G0 F6000 X171.65 Y134.92
G0 X168.32 Y134.92
G0 X168.32 Y135.09
G1 F5160 X168.32 Y122.53 E1291.25473
G0 F6000 X168.32 Y122.70
G0 X164.98 Y122.70
G0 X164.98 Y122.53
G1 F5160 X164.98 Y135.09 E1291.77728
G0 F6000 X164.98 Y134.92
G0 X161.65 Y134.92
G0 X161.65 Y135.09
G1 F5160 X161.65 Y122.53 E1292.29984
G0 F6000 X161.65 Y122.70
G0 X158.32 Y122.70
G0 X158.32 Y122.53
G1 F5160 X158.32 Y135.09 E1292.82240
G0 F6000 X158.32 Y134.92
G0 X154.98 Y134.92
G0 X154.98 Y135.09
G1 F5160 X154.98 Y122.53 E1293.34496
G0 F6000 X154.98 Y122.70
G0 X151.65 Y122.70
G0 X151.65 Y122.53
G1 F5160 X151.65 Y135.09 E1293.86752
G0 F6000 X151.65 Y134.92
G0 X148.32 Y134.92
G0 X148.32 Y135.09
G1 F5160 X148.32 Y122.53 E1294.39008
G0 F6000 X148.32 Y122.70
G0 X144.99 Y122.70
G0 X144.99 Y122.53
G1 F5160 X144.99 Y135.09 E1294.91263
G0 F6000 X144.99 Y134.92
G0 X141.65 Y134.92
G0 X141.65 Y135.09
G1 F5160 X141.65 Y122.53 E1295.43519
G0 F6000 X141.65 Y122.70
G0 X138.32 Y122.70
G0 X138.32 Y122.53
G1 F5160 X138.32 Y135.09 E1295.95775
G0 F6000 X138.32 Y134.92
G0 X134.99 Y134.92
G0 X134.99 Y135.09
G1 F5160 X134.99 Y122.53 E1296.48031
G0 F6000 X134.99 Y122.70
G0 X131.65 Y122.70
G0 X131.65 Y122.53
G1 F5160 X131.65 Y135.09 E1297.00287
G0 F6000 X131.65 Y134.92
G0 X128.32 Y134.92
G0 X128.32 Y135.09
G1 F5160 X128.32 Y122.53 E1297.52542
G0 F6000 X128.32 Y122.70
G0 X124.99 Y122.70
G0 X124.99 Y122.53
G1 F5160 X124.99 Y135.09 E1298.04798
G0 F6000 X124.99 Y134.92
G0 X121.65 Y134.92
G0 X121.65 Y135.09
G1 F5160 X121.65 Y122.53 E1298.57054
G0 F6000 X121.65 Y122.70
G0 X118.32 Y122.70
G0 X118.32 Y122.53
G1 F5160 X118.32 Y135.09 E1299.09310
G0 F6000 X118.32 Y134.92
G0 X114.99 Y134.92
G0 X114.99 Y135.09
G1 F5160 X114.99 Y122.53 E1299.61566
G0 F6000 X114.99 Y122.70
G0 X111.66 Y122.70
G0 X111.66 Y122.53
G1 F5160 X111.66 Y135.09 E1300.13822
G0 F6000 X111.66 Y134.92
G0 X108.32 Y134.92
G0 X108.32 Y135.09
G1 F5160 X108.32 Y122.53 E1300.66077
G0 F6000 X108.32 Y122.70
G0 X104.99 Y122.70
G0 X104.99 Y122.53
G1 F5160 X104.99 Y135.09 E1301.18333
G0 F6000 X104.99 Y134.92
G0 X101.66 Y134.92
G0 X101.66 Y135.09
G1 F5160 X101.66 Y122.53 E1301.70589
G0 F6000 X101.66 Y122.70
G0 X98.32 Y122.70
G0 X98.32 Y122.53
G1 F5160 X98.32 Y135.09 E1302.22845
G0 F6000 X98.32 Y134.92
G0 X94.99 Y134.92
G0 X94.99 Y135.09
G1 F5160 X94.99 Y122.53 E1302.75101
G0 F6000 X94.99 Y122.70
G0 X91.66 Y122.70
G0 X91.66 Y122.53
G1 F5160 X91.66 Y135.09 E1303.27357
G0 F6000 X91.66 Y134.92
G0 X88.32 Y134.92
G0 X88.32 Y135.09
G1 F5160 X88.32 Y122.53 E1303.79612
G0 F6000 X88.32 Y122.70
G0 X84.99 Y122.70
G0 X84.99 Y122.53
G1 F5160 X84.99 Y135.09 E1304.31868
G0 F6000 X84.99 Y134.92
G0 X81.66 Y134.92
G0 X81.66 Y135.09
G1 F5160 X81.66 Y122.53 E1304.84124
G0 F6000 X81.66 Y122.70
G0 X78.33 Y122.70
G0 X78.33 Y122.53
G1 F5160 X78.33 Y135.09 E1305.36380
G0 F6000 X78.33 Y134.92
G0 X74.99 Y134.92
G0 X74.99 Y135.09
G1 F5160 X74.99 Y122.53 E1305.88636
G0 F6000 X74.99 Y122.70
G0 X74.44 Y131.75
G0 X71.66 Y131.75
G0 X71.66 Y131.58
G1 F5160 X71.66 Y135.09 E1306.03258
G0 F6000 X71.66 Y134.92
G0 X70.66 Y134.88
G0 X68.32 Y137.79
G0 X68.33 Y137.97
G1 F5160 X68.33 Y131.63 E1306.29616
G0 F6000 X68.33 Y131.80
G0 X64.99 Y131.86
G0 X64.99 Y131.68
G1 F5160 X64.99 Y141.88 E1306.71998
G0 F6000 X64.99 Y141.70
G0 X61.66 Y141.70
G0 X61.66 Y141.88
G1 F5160 X61.66 Y131.73 E1307.14164
G0 F6000 X61.66 Y174.12
G1 F5160 X61.66 Y182.68 E1307.49710
G0 F6000 X61.66 Y182.50
G0 X64.99 Y182.50
G0 X64.99 Y182.68
G1 F5160 X64.99 Y174.12 E1307.85257
G0 F6000 X64.99 Y174.30
G0 X65.46 Y177.76
G0 X68.32 Y177.81
G0 X68.33 Y177.63
G1 F5160 X68.33 Y182.68 E1308.06224
;LAYER:4
G0 F6000 X72.25 Y180.27 Z1.10
;TYPE:WALL-INNER
G1 X72.25 Y179.35 E1308.10053
G1 X232.75 Y179.35 E1314.77334
G1 X232.75 Y180.27 E1314.81163
G1 X72.25 Y180.27 E1321.48445
G0 X71.75 Y180.77
;TYPE:WALL-OUTER
G1 X71.75 Y178.85 E1321.56431
G1 X233.25 Y178.85 E1328.27870
G1 X233.25 Y180.77 E1328.35857
G1 X71.75 Y180.77 E1335.07296
G0 X72.97 Y180.09
;TYPE:FILL
G1 X72.76 Y179.54 E1335.10478
G1 X73.74 Y179.81 E1335.13824
G1 X74.45 Y179.81 E1335.17175
G1 X75.15 Y179.81 E1335.20526
G1 X75.86 Y179.81 E1335.23876
G1 X76.57 Y179.81 E1335.27227
G1 X77.28 Y179.81 E1335.30578
G1 X77.98 Y179.81 E1335.33928
G1 X78.69 Y179.81 E1335.37279
G1 X79.40 Y179.81 E1335.40630
G1 X80.10 Y179.81 E1335.43981
G1 X80.81 Y179.81 E1335.47332
G1 X81.52 Y179.81 E1335.50683
G1 X82.23 Y179.81 E1335.54032
G1 X82.93 Y179.81 E1335.57383
G1 X83.64 Y179.81 E1335.60734
G1 X84.35 Y179.81 E1335.64085
G1 X85.05 Y179.81 E1335.67436
G1 X85.76 Y179.81 E1335.70787
G1 X86.47 Y179.81 E1335.74138
G1 X87.17 Y179.81 E1335.77489
G1 X87.88 Y179.81 E1335.80839
G1 X88.59 Y179.81 E1335.84190
G1 X89.30 Y179.81 E1335.87540
G1 X90.00 Y179.81 E1335.90891
G1 X90.71 Y179.81 E1335.94242
G1 X91.42 Y179.81 E1335.97593
G1 X92.12 Y179.81 E1336.00944
G1 X92.83 Y179.81 E1336.04294
G1 X93.54 Y179.81 E1336.07645
G1 X94.25 Y179.81 E1336.10996
G1 X94.95 Y179.81 E1336.14347
G1 X95.66 Y179.81 E1336.17697
G1 X96.37 Y179.81 E1336.21048
G1 X97.08 Y179.81 E1336.24399
G1 X97.78 Y179.81 E1336.27749
G1 X98.49 Y179.81 E1336.31100
G1 X99.20 Y179.81 E1336.34451
G1 X99.90 Y179.81 E1336.37802
G1 X100.61 Y179.81 E1336.41153
G1 X101.32 Y179.81 E1336.44504
G1 X102.03 Y179.81 E1336.47854
G1 X102.73 Y179.81 E1336.51204
G1 X103.44 Y179.81 E1336.54555
G1 X104.15 Y179.81 E1336.57906
G1 X104.85 Y179.81 E1336.61257
G1 X105.56 Y179.81 E1336.64608
G1 X106.27 Y179.81 E1336.67959
G1 X106.97 Y179.81 E1336.71310
G1 X107.68 Y179.81 E1336.74661
G1 X108.39 Y179.81 E1336.78011
G1 X109.10 Y179.81 E1336.81361
G1 X109.80 Y179.81 E1336.84712
G1 X110.51 Y179.81 E1336.88063
G1 X111.22 Y179.81 E1336.91414
G1 X111.92 Y179.81 E1336.94765
G1 X112.63 Y179.81 E1336.98116
G1 X113.34 Y179.81 E1337.01466
G1 X114.05 Y179.81 E1337.04817
G1 X114.75 Y179.81 E1337.08168
G1 X115.46 Y179.81 E1337.11518
G1 X116.17 Y179.81 E1337.14869
G1 X116.87 Y179.81 E1337.18220
G1 X117.58 Y179.81 E1337.21571
G1 X118.29 Y179.81 E1337.24921
G1 X119.00 Y179.81 E1337.28272
G1 X119.70 Y179.81 E1337.31623
G1 X120.41 Y179.81 E1337.34974
G1 X121.12 Y179.81 E1337.38325
G1 X121.82 Y179.81 E1337.41675
G1 X122.53 Y179.81 E1337.45026
G1 X123.24 Y179.81 E1337.48376
G1 X123.94 Y179.81 E1337.51727
G1 X124.65 Y179.81 E1337.55078
G1 X125.36 Y179.81 E1337.58429
G1 X126.07 Y179.81 E1337.61780
G1 X126.77 Y179.81 E1337.65131
G1 X127.48 Y179.81 E1337.68482
G1 X128.19 Y179.81 E1337.71833
G1 X128.90 Y179.81 E1337.75182
G1 X129.60 Y179.81 E1337.78533
G1 X130.31 Y179.81 E1337.81884
G1 X131.02 Y179.81 E1337.85235
G1 X131.72 Y179.81 E1337.88586
G1 X132.43 Y179.81 E1337.91937
G1 X133.14 Y179.81 E1337.95287
G1 X133.84 Y179.81 E1337.98638
G1 X134.55 Y179.81 E1338.01989
G1 X135.26 Y179.81 E1338.05339
G1 X135.97 Y179.81 E1338.08690
G1 X136.67 Y179.81 E1338.12041
G1 X137.38 Y179.81 E1338.15392
G1 X138.09 Y179.81 E1338.18742
G1 X138.79 Y179.81 E1338.22093
G1 X139.50 Y179.81 E1338.25444
G1 X140.21 Y179.81 E1338.28795
G1 X140.91 Y179.81 E1338.32146
G1 X141.62 Y179.81 E1338.35497
G1 X142.33 Y179.81 E1338.38847
G1 X143.04 Y179.81 E1338.42197
G1 X143.74 Y179.81 E1338.45548
G1 X144.45 Y179.81 E1338.48899
G1 X145.16 Y179.81 E1338.52250
G1 X145.87 Y179.81 E1338.55601
G1 X146.57 Y179.81 E1338.58952
G1 X147.28 Y179.81 E1338.62303
G1 X147.99 Y179.81 E1338.65654
G1 X148.69 Y179.81 E1338.69003
G1 X149.40 Y179.81 E1338.72354
G1 X150.11 Y179.81 E1338.75705
G1 X150.81 Y179.81 E1338.79056
G1 X151.52 Y179.81 E1338.82407
G1 X152.23 Y179.81 E1338.85758
G1 X152.94 Y179.81 E1338.89109
G1 X153.64 Y179.81 E1338.92459
G1 X154.35 Y179.81 E1338.95810
G1 X155.06 Y179.81 E1338.99160
G1 X155.76 Y179.81 E1339.02511
G1 X156.47 Y179.81 E1339.05862
G1 X157.18 Y179.81 E1339.09213
G1 X157.89 Y179.81 E1339.12564
G1 X158.59 Y179.81 E1339.15914
G1 X159.30 Y179.81 E1339.19265
G1 X160.01 Y179.81 E1339.22616
G1 X160.71 Y179.81 E1339.25967
G1 X161.42 Y179.81 E1339.29318
G1 X162.13 Y179.81 E1339.32668
G1 X162.84 Y179.81 E1339.36019
G1 X163.54 Y179.81 E1339.39369
G1 X164.25 Y179.81 E1339.42720
G1 X164.96 Y179.81 E1339.46071
G1 X165.66 Y179.81 E1339.49422
G1 X166.37 Y179.81 E1339.52773
G1 X167.08 Y179.81 E1339.56124
G1 X167.78 Y179.81 E1339.59475
G1 X168.49 Y179.81 E1339.62824
G1 X169.20 Y179.81 E1339.66175
G1 X169.91 Y179.81 E1339.69526
G1 X170.61 Y179.81 E1339.72877
G1 X171.32 Y179.81 E1339.76228
G1 X172.03 Y179.81 E1339.79579
G1 X172.74 Y179.81 E1339.82930
G1 X173.44 Y179.81 E1339.86281
G1 X174.15 Y179.81 E1339.89631
G1 X174.86 Y179.81 E1339.92981
G1 X175.56 Y179.81 E1339.96332
G1 X176.27 Y179.81 E1339.99683
G1 X176.98 Y179.81 E1340.03034
G1 X177.69 Y179.81 E1340.06385
G1 X178.39 Y179.81 E1340.09735
G1 X179.10 Y179.81 E1340.13086
G1 X179.81 Y179.81 E1340.16437
G1 X180.51 Y179.81 E1340.19788
G1 X181.22 Y179.81 E1340.23139
G1 X181.93 Y179.81 E1340.26489
G1 X182.63 Y179.81 E1340.29840
G1 X183.34 Y179.81 E1340.33190
G1 X184.05 Y179.81 E1340.36541
G1 X184.76 Y179.81 E1340.39892
G1 X185.46 Y179.81 E1340.43243
G1 X186.17 Y179.81 E1340.46594
G1 X186.88 Y179.81 E1340.49945
G1 X187.58 Y179.81 E1340.53296
G1 X188.29 Y179.81 E1340.56645
G1 X189.00 Y179.81 E1340.59996
G1 X189.71 Y179.81 E1340.63347
G1 X190.41 Y179.81 E1340.66698
G1 X191.12 Y179.81 E1340.70049
G1 X191.83 Y179.81 E1340.73400
G1 X192.53 Y179.81 E1340.76751
G1 X193.24 Y179.81 E1340.80102
G1 X193.95 Y179.81 E1340.83452
G1 X194.66 Y179.81 E1340.86802
G1 X195.36 Y179.81 E1340.90153
G1 X196.07 Y179.81 E1340.93504
G1 X196.78 Y179.81 E1340.96855
G1 X197.48 Y179.81 E1341.00206
G1 X198.19 Y179.81 E1341.03557
G1 X198.90 Y179.81 E1341.06907
G1 X199.60 Y179.81 E1341.10258
G1 X200.31 Y179.81 E1341.13609
G1 X201.02 Y179.81 E1341.16960
G1 X201.73 Y179.81 E1341.20310
G1 X202.43 Y179.81 E1341.23661
G1 X203.14 Y179.81 E1341.27012
G1 X203.85 Y179.81 E1341.30362
G1 X204.56 Y179.81 E1341.33713
G1 X205.26 Y179.81 E1341.37064
G1 X205.97 Y179.81 E1341.40415
G1 X206.68 Y179.81 E1341.43766
G1 X207.38 Y179.81 E1341.47117
G1 X208.09 Y179.81 E1341.50467
G1 X208.80 Y179.81 E1341.53817
G1 X209.50 Y179.81 E1341.57168
G1 X210.21 Y179.81 E1341.60519
G1 X210.92 Y179.81 E1341.63870
G1 X211.63 Y179.81 E1341.67221
G1 X212.33 Y179.81 E1341.70572
G1 X213.04 Y179.81 E1341.73923
G1 X213.75 Y179.81 E1341.77274
G1 X214.45 Y179.81 E1341.80624
G1 X215.16 Y179.81 E1341.83974
G1 X215.87 Y179.81 E1341.87325
G1 X216.58 Y179.81 E1341.90676
G1 X217.28 Y179.81 E1341.94027
G1 X217.99 Y179.81 E1341.97378
G1 X218.70 Y179.81 E1342.00729
G1 X219.40 Y179.81 E1342.04079
G1 X220.11 Y179.81 E1342.07430
G1 X220.82 Y179.81 E1342.10781
G1 X221.53 Y179.81 E1342.14131
G1 X222.23 Y179.81 E1342.17482
G1 X222.94 Y179.81 E1342.20833
G1 X223.65 Y179.81 E1342.24183
G1 X224.35 Y179.81 E1342.27534
G1 X225.06 Y179.81 E1342.30885
G1 X225.77 Y179.81 E1342.34236
G1 X226.47 Y179.81 E1342.37587
G1 X227.18 Y179.81 E1342.40938
G1 X227.89 Y179.81 E1342.44288
G1 X228.60 Y179.81 E1342.47638
G1 X229.30 Y179.81 E1342.50989
G1 X230.01 Y179.81 E1342.54340
G1 X230.72 Y179.81 E1342.57691
G1 X231.43 Y179.81 E1342.61042
G1 X232.32 Y179.99 E1342.64391
G1 X232.20 Y179.52 E1342.66414
G0 X64.25 Y172.75
;TYPE:WALL-INNER
G1 X63.75 Y172.75 E1342.68493
G1 X63.75 Y143.25 E1343.91139
G1 X64.25 Y143.25 E1343.93218
G1 X64.25 Y172.75 E1345.15865
G0 X64.75 Y173.25
;TYPE:WALL-OUTER
G1 X63.25 Y173.25 E1345.22101
G1 X63.25 Y142.75 E1346.48905
G1 X64.75 Y142.75 E1346.55142
G1 X64.75 Y173.25 E1347.81946
G0 X64.50 Y172.99
G0 X72.25 Y136.55
;TYPE:WALL-INNER
G1 X72.25 Y136.47 E1347.82274
G1 X232.75 Y136.47 E1354.49556
G1 X232.75 Y136.55 E1354.49884
G1 X72.25 Y136.55 E1361.17166
G0 X71.75 Y137.05
;TYPE:WALL-OUTER
G1 X71.75 Y135.97 E1361.21652
G1 X233.25 Y135.97 E1367.93091
G1 X233.25 Y137.05 E1367.97577
G1 X71.75 Y137.05 E1374.69016
G0 X240.75 Y143.25
;TYPE:WALL-INNER
G1 X241.25 Y143.25 E1374.71094
G1 X241.25 Y172.75 E1375.93741
G1 X240.75 Y172.75 E1375.95820
G1 X240.75 Y143.25 E1377.18467
G0 X240.25 Y142.75
;TYPE:WALL-OUTER
G1 X241.75 Y142.75 E1377.24703
G1 X241.75 Y173.25 E1378.51507
G1 X240.25 Y173.25 E1378.57743
G1 X240.25 Y142.75 E1379.84548
G0 X68.33 Y177.63
;TYPE:SUPPORT
G1 X68.33 Y182.68 E1380.05514
G0 X68.33 Y182.50
G0 X64.99 Y182.50
G0 X64.99 Y182.68
G1 X64.99 Y174.12 E1380.41061
G0 X64.99 Y174.30
G0 X61.66 Y174.30
G0 X61.66 Y174.12
G1 X61.66 Y182.68 E1380.76608
G0 X61.66 Y141.88
G1 X61.66 Y131.73 E1381.18773
G0 X61.66 Y131.91
G0 X64.99 Y131.86
G0 X64.99 Y131.68
G1 X64.99 Y141.88 E1381.61155
G0 X64.99 Y141.70
G0 X65.46 Y137.84
G0 X68.32 Y137.79
G0 X68.33 Y137.97
G1 X68.33 Y131.63 E1381.87514
G0 X68.33 Y131.80
G0 X71.66 Y131.75
G0 X71.66 Y131.58
G1 X71.66 Y135.09 E1382.02136
G0 X71.66 Y134.92
G0 X74.99 Y134.92
G0 X74.99 Y135.09
G1 X74.99 Y122.53 E1382.54391
G0 X74.99 Y122.70
G0 X78.33 Y122.70
G0 X78.33 Y122.53
G1 X78.33 Y135.09 E1383.06647
G0 X78.33 Y134.92
G0 X81.66 Y134.92
G0 X81.66 Y135.09
G1 X81.66 Y122.53 E1383.58903
G0 X81.66 Y122.70
G0 X84.99 Y122.70
G0 X84.99 Y122.53
G1 X84.99 Y135.09 E1384.11159
G0 X84.99 Y134.92
G0 X88.32 Y134.92
G0 X88.32 Y135.09
G1 X88.32 Y122.53 E1384.63415
G0 X88.32 Y122.70
G0 X91.66 Y122.70
G0 X91.66 Y122.53
G1 X91.66 Y135.09 E1385.15671
G0 X91.66 Y134.92
G0 X94.99 Y134.92
G0 X94.99 Y135.09
G1 X94.99 Y122.53 E1385.67926
G0 X94.99 Y122.70
G0 X98.32 Y122.70
G0 X98.32 Y122.53
G1 X98.32 Y135.09 E1386.20182
G0 X98.32 Y134.92
G0 X101.66 Y134.92
G0 X101.66 Y135.09
G1 X101.66 Y122.53 E1386.72438
G0 X101.66 Y122.70
G0 X104.99 Y122.70
G0 X104.99 Y122.53
G1 X104.99 Y135.09 E1387.24694
G0 X104.99 Y134.92
G0 X108.32 Y134.92
G0 X108.32 Y135.09
G1 X108.32 Y122.53 E1387.76950
G0 X108.32 Y122.70
G0 X111.66 Y122.70
G0 X111.66 Y122.53
G1 X111.66 Y135.09 E1388.29206
G0 X111.66 Y134.92
G0 X114.99 Y134.92
G0 X114.99 Y135.09
G1 X114.99 Y122.53 E1388.81461
G0 X114.99 Y122.70
G0 X118.32 Y122.70
G0 X118.32 Y122.53
G1 X118.32 Y135.09 E1389.33717
G0 X118.32 Y134.92
G0 X121.65 Y134.92
G0 X121.65 Y135.09
G1 X121.65 Y122.53 E1389.85973
G0 X121.65 Y122.70
G0 X124.99 Y122.70
G0 X124.99 Y122.53
G1 X124.99 Y135.09 E1390.38229
G0 X124.99 Y134.92
G0 X128.32 Y134.92
G0 X128.32 Y135.09
G1 X128.32 Y122.53 E1390.90485
G0 X128.32 Y122.70
G0 X131.65 Y122.70
G0 X131.65 Y122.53
G1 X131.65 Y135.09 E1391.42740
G0 X131.65 Y134.92
G0 X134.99 Y134.92
G0 X134.99 Y135.09
G1 X134.99 Y122.53 E1391.94996
G0 X134.99 Y122.70
G0 X138.32 Y122.70
G0 X138.32 Y122.53
G1 X138.32 Y135.09 E1392.47252
G0 X138.32 Y134.92
G0 X141.65 Y134.92
G0 X141.65 Y135.09
G1 X141.65 Y122.53 E1392.99508
G0 X141.65 Y122.70
G0 X144.99 Y122.70
G0 X144.99 Y122.53
G1 X144.99 Y135.09 E1393.51764
G0 X144.99 Y134.92
G0 X148.32 Y134.92
G0 X148.32 Y135.09
G1 X148.32 Y122.53 E1394.04020
G0 X148.32 Y122.70
G0 X151.65 Y122.70
G0 X151.65 Y122.53
G1 X151.65 Y135.09 E1394.56275
G0 X151.65 Y134.92
G0 X154.98 Y134.92
G0 X154.98 Y135.09
G1 X154.98 Y122.53 E1395.08531
G0 X154.98 Y122.70
G0 X158.32 Y122.70
G0 X158.32 Y122.53
G1 X158.32 Y135.09 E1395.60787
G0 X158.32 Y134.92
G0 X161.65 Y134.92
G0 X161.65 Y135.09
G1 X161.65 Y122.53 E1396.13043
G0 X161.65 Y122.70
G0 X164.98 Y122.70
G0 X164.98 Y122.53
G1 X164.98 Y135.09 E1396.65299
G0 X164.98 Y134.92
G0 X168.32 Y134.92
G0 X168.32 Y135.09
G1 X168.32 Y122.53 E1397.17555
G0 X168.32 Y122.70
G0 X171.65 Y122.70
G0 X171.65 Y122.53
G1 X171.65 Y135.09 E1397.69810
G0 X171.65 Y134.92
G0 X174.98 Y134.92
G0 X174.98 Y135.09
G1 X174.98 Y122.53 E1398.22066
G0 X174.98 Y122.70
G0 X178.31 Y122.70
G0 X178.31 Y122.53
G1 X178.31 Y135.09 E1398.74322
G0 X178.31 Y134.92
G0 X181.65 Y134.92
G0 X181.65 Y135.09
G1 X181.65 Y122.53 E1399.26578
G0 X181.65 Y122.70
G0 X184.98 Y122.70
G0 X184.98 Y122.53
G1 X184.98 Y135.09 E1399.78834
G0 X184.98 Y134.92
G0 X188.31 Y134.92
G0 X188.31 Y135.09
G1 X188.31 Y122.53 E1400.31090
G0 X188.31 Y122.70
G0 X191.65 Y122.70
G0 X191.65 Y122.53
G1 X191.65 Y135.09 E1400.83345
G0 X191.65 Y134.92
G0 X194.98 Y134.92
G0 X194.98 Y135.09
G1 X194.98 Y122.53 E1401.35601
G0 X194.98 Y122.70
G0 X198.31 Y122.70
G0 X198.31 Y122.53
G1 X198.31 Y135.09 E1401.87857
G0 X198.31 Y134.92
G0 X201.65 Y134.92
G0 X201.65 Y135.09
G1 X201.65 Y122.53 E1402.40113
G0 X201.65 Y122.70
G0 X204.98 Y122.70
G0 X204.98 Y122.53
G1 X204.98 Y135.09 E1402.92369
G0 X204.98 Y134.92
G0 X208.31 Y134.92
G0 X208.31 Y135.09
G1 X208.31 Y122.53 E1403.44625
G0 X208.31 Y122.70
G0 X211.65 Y122.70
G0 X211.65 Y122.53
G1 X211.65 Y135.09 E1403.96880
G0 X211.65 Y134.92
G0 X214.98 Y134.92
G0 X214.98 Y135.09
G1 X214.98 Y122.53 E1404.49136
G0 X214.98 Y122.70
G0 X218.31 Y122.70
G0 X218.31 Y122.53
G1 X218.31 Y135.09 E1405.01392
G0 X218.31 Y134.92
G0 X221.64 Y134.92
G0 X221.64 Y135.09
G1 X221.64 Y122.53 E1405.53648
G0 X221.64 Y122.70
G0 X224.98 Y122.70
G0 X224.98 Y122.53
G1 X224.98 Y135.09 E1406.05904
G0 X224.98 Y134.92
G0 X228.31 Y134.92
G0 X228.31 Y135.09
G1 X228.31 Y122.53 E1406.58160
G0 X228.31 Y122.70
G0 X230.46 Y131.75
G0 X231.64 Y131.73
G0 X231.64 Y131.55
G1 X231.64 Y135.09 E1406.72885
G0 X231.64 Y134.92
G0 X234.34 Y134.88
G0 X234.98 Y137.75
G0 X234.98 Y137.92
G1 X234.98 Y131.60 E1406.99153
G0 X234.97 Y131.78
G0 X238.31 Y131.83
G0 X238.31 Y131.66
G1 X238.31 Y138.02 E1407.25632
G0 X238.31 Y137.85
G0 X239.44 Y137.84
G0 X241.64 Y141.70
G0 X241.64 Y141.88
G1 X241.64 Y131.71 E1407.67910
G0 X241.64 Y174.12
G1 X241.64 Y182.68 E1408.03456
G0 X241.64 Y182.50
G0 X238.31 Y182.50
G0 X238.31 Y182.68
G1 X238.31 Y177.57 E1408.24660
G0 X238.31 Y177.75
G0 X234.98 Y177.85
G0 X234.98 Y177.68
G1 X234.98 Y182.68 E1408.45443
;LAYER:5
G0 X232.75 Y180.27 Z1.30
;TYPE:WALL-INNER
G1 X72.25 Y180.27 E1415.12725
G1 X72.25 Y179.35 E1415.16554
G1 X232.75 Y179.35 E1421.83835
G1 X232.75 Y180.27 E1421.87664
G0 X233.25 Y180.77
;TYPE:WALL-OUTER
G1 X71.75 Y180.77 E1428.59103
G1 X71.75 Y178.85 E1428.67090
G1 X233.25 Y178.85 E1435.38529
G1 X233.25 Y180.77 E1435.46515
G0 X232.57 Y180.02
;TYPE:FILL
G1 X232.44 Y179.81 E1435.46931
G1 X231.73 Y179.81 E1435.50287
G1 X231.02 Y179.81 E1435.53644
G1 X230.31 Y179.81 E1435.57001
G1 X229.61 Y179.81 E1435.60358
G1 X228.90 Y179.81 E1435.63714
G1 X228.19 Y179.81 E1435.67071
G1 X227.49 Y179.81 E1435.70428
G1 X226.78 Y179.81 E1435.73783
G1 X226.07 Y179.81 E1435.77140
G1 X225.36 Y179.81 E1435.80497
G1 X224.66 Y179.81 E1435.83854
G1 X223.95 Y179.81 E1435.87210
G1 X223.24 Y179.81 E1435.90567
G1 X222.54 Y179.81 E1435.93924
G1 X221.83 Y179.81 E1435.97281
G1 X221.12 Y179.81 E1436.00637
G1 X220.41 Y179.81 E1436.03993
G1 X219.71 Y179.81 E1436.07350
G1 X219.00 Y179.81 E1436.10707
G1 X218.29 Y179.81 E1436.14063
G1 X217.59 Y179.81 E1436.17420
G1 X216.88 Y179.81 E1436.20777
G1 X216.17 Y179.81 E1436.24134
G1 X215.47 Y179.81 E1436.27490
G1 X214.76 Y179.81 E1436.30847
G1 X214.05 Y179.81 E1436.34204
G1 X213.34 Y179.81 E1436.37559
G1 X212.64 Y179.81 E1436.40916
G1 X211.93 Y179.81 E1436.44273
G1 X211.22 Y179.81 E1436.47630
G1 X210.51 Y179.81 E1436.50986
G1 X209.81 Y179.81 E1436.54343
G1 X209.10 Y179.81 E1436.57700
G1 X208.39 Y179.81 E1436.61057
G1 X207.69 Y179.81 E1436.64414
G1 X206.98 Y179.81 E1436.67769
G1 X206.27 Y179.81 E1436.71126
G1 X205.56 Y179.81 E1436.74483
G1 X204.86 Y179.81 E1436.77839
G1 X204.15 Y179.81 E1436.81196
G1 X203.44 Y179.81 E1436.84553
G1 X202.74 Y179.81 E1436.87910
G1 X202.03 Y179.81 E1436.91266
G1 X201.32 Y179.81 E1436.94623
G1 X200.62 Y179.81 E1436.97979
G1 X199.91 Y179.81 E1437.01336
G1 X199.20 Y179.81 E1437.04692
G1 X198.49 Y179.81 E1437.08049
G1 X197.79 Y179.81 E1437.11406
G1 X197.08 Y179.81 E1437.14763
G1 X196.37 Y179.81 E1437.18119
G1 X195.67 Y179.81 E1437.21476
G1 X194.96 Y179.81 E1437.24833
G1 X194.25 Y179.81 E1437.28190
G1 X193.54 Y179.81 E1437.31545
G1 X192.84 Y179.81 E1437.34902
G1 X192.13 Y179.81 E1437.38259
G1 X191.42 Y179.81 E1437.41615
G1 X190.72 Y179.81 E1437.44972
G1 X190.01 Y179.81 E1437.48329
G1 X189.30 Y179.81 E1437.51686
G1 X188.59 Y179.81 E1437.55042
G1 X187.89 Y179.81 E1437.58399
G1 X187.18 Y179.81 E1437.61755
G1 X186.47 Y179.81 E1437.65112
G1 X185.77 Y179.81 E1437.68468
G1 X185.06 Y179.81 E1437.71825
G1 X184.35 Y179.81 E1437.75182
G1 X183.65 Y179.81 E1437.78539
G1 X182.94 Y179.81 E1437.81895
G1 X182.23 Y179.81 E1437.85252
G1 X181.52 Y179.81 E1437.88609
G1 X180.82 Y179.81 E1437.91964
G1 X180.11 Y179.81 E1437.95321
G1 X179.40 Y179.81 E1437.98678
G1 X178.69 Y179.81 E1438.02035
G1 X177.99 Y179.81 E1438.05391
G1 X177.28 Y179.81 E1438.08748
G1 X176.57 Y179.81 E1438.12105
G1 X175.87 Y179.81 E1438.15462
G1 X175.16 Y179.81 E1438.18819
G1 X174.45 Y179.81 E1438.22175
G1 X173.75 Y179.81 E1438.25531
G1 X173.04 Y179.81 E1438.28888
G1 X172.33 Y179.81 E1438.32244
G1 X171.62 Y179.81 E1438.35601
G1 X170.92 Y179.81 E1438.38958
G1 X170.21 Y179.81 E1438.42315
G1 X169.50 Y179.81 E1438.45671
G1 X168.80 Y179.81 E1438.49028
G1 X168.09 Y179.81 E1438.52385
G1 X167.38 Y179.81 E1438.55741
G1 X166.67 Y179.81 E1438.59097
G1 X165.97 Y179.81 E1438.62454
G1 X165.26 Y179.81 E1438.65811
G1 X164.55 Y179.81 E1438.69168
G1 X163.85 Y179.81 E1438.72524
G1 X163.14 Y179.81 E1438.75881
G1 X162.43 Y179.81 E1438.79238
G1 X161.72 Y179.81 E1438.82595
G1 X161.02 Y179.81 E1438.85950
G1 X160.31 Y179.81 E1438.89307
G1 X159.60 Y179.81 E1438.92664
G1 X158.90 Y179.81 E1438.96020
G1 X158.19 Y179.81 E1438.99377
G1 X157.48 Y179.81 E1439.02734
G1 X156.78 Y179.81 E1439.06091
G1 X156.07 Y179.81 E1439.09447
G1 X155.36 Y179.81 E1439.12804
G1 X154.65 Y179.81 E1439.16161
G1 X153.95 Y179.81 E1439.19517
G1 X153.24 Y179.81 E1439.22873
G1 X152.53 Y179.81 E1439.26230
G1 X151.82 Y179.81 E1439.29587
G1 X151.12 Y179.81 E1439.32944
G1 X150.41 Y179.81 E1439.36300
G1 X149.70 Y179.81 E1439.39657
G1 X149.00 Y179.81 E1439.43014
G1 X148.29 Y179.81 E1439.46371
G1 X147.58 Y179.81 E1439.49726
G1 X146.88 Y179.81 E1439.53083
G1 X146.17 Y179.81 E1439.56440
G1 X145.46 Y179.81 E1439.59796
G1 X144.75 Y179.81 E1439.63153
G1 X144.05 Y179.81 E1439.66510
G1 X143.34 Y179.81 E1439.69867
G1 X142.63 Y179.81 E1439.73224
G1 X141.93 Y179.81 E1439.76580
G1 X141.22 Y179.81 E1439.79937
G1 X140.51 Y179.81 E1439.83293
G1 X139.80 Y179.81 E1439.86649
G1 X139.10 Y179.81 E1439.90006
G1 X138.39 Y179.81 E1439.93363
G1 X137.68 Y179.81 E1439.96720
G1 X136.98 Y179.81 E1440.00076
G1 X136.27 Y179.81 E1440.03433
G1 X135.56 Y179.81 E1440.06790
G1 X134.85 Y179.81 E1440.10147
G1 X134.15 Y179.81 E1440.13502
G1 X133.44 Y179.81 E1440.16859
G1 X132.73 Y179.81 E1440.20216
G1 X132.03 Y179.81 E1440.23573
G1 X131.32 Y179.81 E1440.26929
G1 X130.61 Y179.81 E1440.30286
G1 X129.91 Y179.81 E1440.33643
G1 X129.20 Y179.81 E1440.37000
G1 X128.49 Y179.81 E1440.40356
G1 X127.78 Y179.81 E1440.43712
G1 X127.08 Y179.81 E1440.47069
G1 X126.37 Y179.81 E1440.50425
G1 X125.66 Y179.81 E1440.53782
G1 X124.95 Y179.81 E1440.57139
G1 X124.25 Y179.81 E1440.60496
G1 X123.54 Y179.81 E1440.63852
G1 X122.83 Y179.81 E1440.67209
G1 X122.13 Y179.81 E1440.70566
G1 X121.42 Y179.81 E1440.73923
G1 X120.71 Y179.81 E1440.77278
G1 X120.00 Y179.81 E1440.80635
G1 X119.30 Y179.81 E1440.83992
G1 X118.59 Y179.81 E1440.87349
G1 X117.88 Y179.81 E1440.90705
G1 X117.18 Y179.81 E1440.94062
G1 X116.47 Y179.81 E1440.97419
G1 X115.76 Y179.81 E1441.00776
G1 X115.06 Y179.81 E1441.04132
G1 X114.35 Y179.81 E1441.07488
G1 X113.64 Y179.81 E1441.10845
G1 X112.93 Y179.81 E1441.14201
G1 X112.23 Y179.81 E1441.17558
G1 X111.52 Y179.81 E1441.20915
G1 X110.81 Y179.81 E1441.24272
G1 X110.11 Y179.81 E1441.27629
G1 X109.40 Y179.81 E1441.30985
G1 X108.69 Y179.81 E1441.34342
G1 X107.98 Y179.81 E1441.37698
G1 X107.28 Y179.81 E1441.41054
G1 X106.57 Y179.81 E1441.44411
G1 X105.86 Y179.81 E1441.47768
G1 X105.16 Y179.81 E1441.51125
G1 X104.45 Y179.81 E1441.54481
G1 X103.74 Y179.81 E1441.57838
G1 X103.03 Y179.81 E1441.61195
G1 X102.33 Y179.81 E1441.64552
G1 X101.62 Y179.81 E1441.67908
G1 X100.91 Y179.81 E1441.71264
G1 X100.21 Y179.81 E1441.74621
G1 X99.50 Y179.81 E1441.77978
G1 X98.79 Y179.81 E1441.81334
G1 X98.08 Y179.81 E1441.84691
G1 X97.38 Y179.81 E1441.88048
G1 X96.67 Y179.81 E1441.91405
G1 X95.96 Y179.81 E1441.94761
G1 X95.26 Y179.81 E1441.98118
G1 X94.55 Y179.81 E1442.01474
G1 X93.84 Y179.81 E1442.04830
G1 X93.14 Y179.81 E1442.08187
G1 X92.43 Y179.81 E1442.11544
G1 X91.72 Y179.81 E1442.14901
G1 X91.01 Y179.81 E1442.18257
G1 X90.31 Y179.81 E1442.21614
G1 X89.60 Y179.81 E1442.24971
G1 X88.89 Y179.81 E1442.28328
G1 X88.19 Y179.81 E1442.31683
G1 X87.48 Y179.81 E1442.35040
G1 X86.77 Y179.81 E1442.38397
G1 X86.06 Y179.81 E1442.41754
G1 X85.36 Y179.81 E1442.45110
G1 X84.65 Y179.81 E1442.48467
G1 X83.94 Y179.81 E1442.51824
G1 X83.24 Y179.81 E1442.55181
G1 X82.53 Y179.81 E1442.58537
G1 X81.82 Y179.81 E1442.61894
G1 X81.11 Y179.81 E1442.65250
G1 X80.41 Y179.81 E1442.68606
G1 X79.70 Y179.81 E1442.71963
G1 X78.99 Y179.81 E1442.75320
G1 X78.29 Y179.81 E1442.78677
G1 X77.58 Y179.81 E1442.82034
G1 X76.87 Y179.81 E1442.85390
G1 X76.17 Y179.81 E1442.88747
G1 X75.46 Y179.81 E1442.92104
G1 X74.75 Y179.81 E1442.95459
G1 X74.04 Y179.81 E1442.98816
G1 X73.34 Y179.81 E1443.02173
G1 X72.56 Y179.88 E1443.05530
G1 X72.56 Y179.52 E1443.07002
G0 X240.75 Y172.75
;TYPE:WALL-INNER
G1 X240.75 Y143.25 E1444.29649
G1 X241.25 Y143.25 E1444.31728
G1 X241.25 Y172.75 E1445.54374
G1 X240.75 Y172.75 E1445.56453
G0 X240.25 Y173.25
;TYPE:WALL-OUTER
G1 X240.25 Y142.75 E1446.83257
G1 X241.75 Y142.75 E1446.89494
G1 X241.75 Y173.25 E1448.16298
G1 X240.25 Y173.25 E1448.22534
G0 X240.51 Y172.90
G0 X241.50 Y172.00
G0 X232.75 Y136.55
;TYPE:WALL-INNER
G1 X72.25 Y136.55 E1454.89816
G1 X72.25 Y136.47 E1454.90144
G1 X232.75 Y136.47 E1461.57425
G1 X232.75 Y136.55 E1461.57754
G0 X233.25 Y137.05
;TYPE:WALL-OUTER
G1 X71.75 Y137.05 E1468.29193
G1 X71.75 Y135.97 E1468.33679
G1 X233.25 Y135.97 E1475.05118
G1 X233.25 Y137.05 E1475.09604
G0 X64.25 Y143.25
;TYPE:WALL-INNER
G1 X64.25 Y172.75 E1476.32251
G1 X63.75 Y172.75 E1476.34329
G1 X63.75 Y143.25 E1477.56976
G1 X64.25 Y143.25 E1477.59055
G0 X64.75 Y142.75
;TYPE:WALL-OUTER
G1 X64.75 Y173.25 E1478.85859
G1 X63.25 Y173.25 E1478.92095
G1 X63.25 Y142.75 E1480.18900
G1 X64.75 Y142.75 E1480.25136
G0 X64.50 Y143.01
G0 X234.98 Y177.68
;TYPE:SUPPORT
G1 X234.98 Y182.68 E1480.45919
G0 X234.98 Y182.50
G0 X238.31 Y182.50
G0 X238.31 Y182.68
G1 X238.31 Y177.57 E1480.67123
G0 X238.31 Y177.75
G0 X239.44 Y177.76
G0 X241.64 Y174.30
G0 X241.64 Y174.12
G1 X241.64 Y182.68 E1481.02669
G0 X241.64 Y141.88
G1 X241.64 Y131.71 E1481.44947
G0 X241.64 Y131.88
G0 X238.31 Y131.83
G0 X238.31 Y131.66
G1 X238.31 Y138.02 E1481.71426
G0 X238.31 Y137.85
G0 X234.98 Y137.75
G0 X234.98 Y137.92
G1 X234.98 Y131.60 E1481.97694
G0 X234.97 Y131.78
G0 X231.64 Y131.73
G0 X231.64 Y131.55
G1 X231.64 Y135.09 E1482.12420
G0 X231.64 Y134.92
G0 X228.31 Y134.92
G0 X228.31 Y135.09
G1 X228.31 Y122.53 E1482.64675
G0 X228.31 Y122.70
G0 X224.98 Y122.70
G0 X224.98 Y122.53
G1 X224.98 Y135.09 E1483.16931
G0 X224.98 Y134.92
G0 X221.64 Y134.92
G0 X221.64 Y135.09
G1 X221.64 Y122.53 E1483.69187
G0 X221.64 Y122.70
G0 X218.31 Y122.70
G0 X218.31 Y122.53
G1 X218.31 Y135.09 E1484.21443
G0 X218.31 Y134.92
G0 X214.98 Y134.92
G0 X214.98 Y135.09
G1 X214.98 Y122.53 E1484.73699
G0 X214.98 Y122.70
G0 X211.65 Y122.70
G0 X211.65 Y122.53
G1 X211.65 Y135.09 E1485.25955
G0 X211.65 Y134.92
G0 X208.31 Y134.92
G0 X208.31 Y135.09
G1 X208.31 Y122.53 E1485.78210
G0 X208.31 Y122.70
G0 X204.98 Y122.70
G0 X204.98 Y122.53
G1 X204.98 Y135.09 E1486.30466
G0 X204.98 Y134.92
G0 X201.65 Y134.92
G0 X201.65 Y135.09
G1 X201.65 Y122.53 E1486.82722
G0 X201.65 Y122.70
G0 X198.31 Y122.70
G0 X198.31 Y122.53
G1 X198.31 Y135.09 E1487.34978
G0 X198.31 Y134.92
G0 X194.98 Y134.92
G0 X194.98 Y135.09
G1 X194.98 Y122.53 E1487.87234
G0 X194.98 Y122.70
G0 X191.65 Y122.70
G0 X191.65 Y122.53
G1 X191.65 Y135.09 E1488.39489
G0 X191.65 Y134.92
G0 X188.31 Y134.92
G0 X188.31 Y135.09
G1 X188.31 Y122.53 E1488.91745
G0 X188.31 Y122.70
G0 X184.98 Y122.70
G0 X184.98 Y122.53
G1 X184.98 Y135.09 E1489.44001
G0 X184.98 Y134.92
G0 X181.65 Y134.92
G0 X181.65 Y135.09
G1 X181.65 Y122.53 E1489.96257
G0 X181.65 Y122.70
G0 X178.31 Y122.70
G0 X178.31 Y122.53
G1 X178.31 Y135.09 E1490.48513
G0 X178.31 Y134.92
G0 X174.98 Y134.92
G0 X174.98 Y135.09
G1 X174.98 Y122.53 E1491.00769
G0 X174.98 Y122.70
G0 X171.65 Y122.70
G0 X171.65 Y122.53
G1 X171.65 Y135.09 E1491.53024
G0 X171.65 Y134.92
G0 X168.32 Y134.92
G0 X168.32 Y135.09
G1 X168.32 Y122.53 E1492.05280
G0 X168.32 Y122.70
G0 X164.98 Y122.70
G0 X164.98 Y122.53
G1 X164.98 Y135.09 E1492.57536
G0 X164.98 Y134.92
G0 X161.65 Y134.92
G0 X161.65 Y135.09
G1 X161.65 Y122.53 E1493.09792
G0 X161.65 Y122.70
G0 X158.32 Y122.70
G0 X158.32 Y122.53
G1 X158.32 Y135.09 E1493.62048
G0 X158.32 Y134.92
G0 X154.98 Y134.92
G0 X154.98 Y135.09
G1 X154.98 Y122.53 E1494.14304
G0 X154.98 Y122.70
G0 X151.65 Y122.70
G0 X151.65 Y122.53
G1 X151.65 Y135.09 E1494.66559
G0 X151.65 Y134.92
G0 X148.32 Y134.92
G0 X148.32 Y135.09
G1 X148.32 Y122.53 E1495.18815
G0 X148.32 Y122.70
G0 X144.99 Y122.70
G0 X144.99 Y122.53
G1 X144.99 Y135.09 E1495.71071
G0 X144.99 Y134.92
G0 X141.65 Y134.92
G0 X141.65 Y135.09
G1 X141.65 Y122.53 E1496.23327
G0 X141.65 Y122.70
G0 X138.32 Y122.70
G0 X138.32 Y122.53
G1 X138.32 Y135.09 E1496.75583
G0 X138.32 Y134.92
G0 X134.99 Y134.92
G0 X134.99 Y135.09
G1 X134.99 Y122.53 E1497.27839
G0 X134.99 Y122.70
G0 X131.65 Y122.70
G0 X131.65 Y122.53
G1 X131.65 Y135.09 E1497.80094
G0 X131.65 Y134.92
G0 X128.32 Y134.92
G0 X128.32 Y135.09
G1 X128.32 Y122.53 E1498.32350
G0 X128.32 Y122.70
G0 X124.99 Y122.70
G0 X124.99 Y122.53
G1 X124.99 Y135.09 E1498.84606
G0 X124.99 Y134.92
G0 X121.65 Y134.92
G0 X121.65 Y135.09
G1 X121.65 Y122.53 E1499.36862
G0 X121.65 Y122.70
G0 X118.32 Y122.70
G0 X118.32 Y122.53
G1 X118.32 Y135.09 E1499.89118
G0 X118.32 Y134.92
G0 X114.99 Y134.92
G0 X114.99 Y135.09
G1 X114.99 Y122.53 E1500.41374
G0 X114.99 Y122.70
G0 X111.66 Y122.70
G0 X111.66 Y122.53
G1 X111.66 Y135.09 E1500.93629
G0 X111.66 Y134.92
G0 X108.32 Y134.92
G0 X108.32 Y135.09
G1 X108.32 Y122.53 E1501.45885
G0 X108.32 Y122.70
G0 X104.99 Y122.70
G0 X104.99 Y122.53
G1 X104.99 Y135.09 E1501.98141
G0 X104.99 Y134.92
G0 X101.66 Y134.92
G0 X101.66 Y135.09
G1 X101.66 Y122.53 E1502.50397
G0 X101.66 Y122.70
G0 X98.32 Y122.70
G0 X98.32 Y122.53
G1 X98.32 Y135.09 E1503.02653
G0 X98.32 Y134.92
G0 X94.99 Y134.92
G0 X94.99 Y135.09
G1 X94.99 Y122.53 E1503.54909
G0 X94.99 Y122.70
G0 X91.66 Y122.70
G0 X91.66 Y122.53
G1 X91.66 Y135.09 E1504.07164
G0 X91.66 Y134.92
G0 X88.32 Y134.92
G0 X88.32 Y135.09
G1 X88.32 Y122.53 E1504.59420
G0 X88.32 Y122.70
G0 X84.99 Y122.70
G0 X84.99 Y122.53
G1 X84.99 Y135.09 E1505.11676
G0 X84.99 Y134.92
G0 X81.66 Y134.92
G0 X81.66 Y135.09
G1 X81.66 Y122.53 E1505.63932
G0 X81.66 Y122.70
G0 X78.33 Y122.70
G0 X78.33 Y122.53
G1 X78.33 Y135.09 E1506.16188
G0 X78.33 Y134.92
G0 X74.99 Y134.92
G0 X74.99 Y135.09
G1 X74.99 Y122.53 E1506.68444
G0 X74.99 Y122.70
G0 X74.44 Y131.75
G0 X71.66 Y131.75
G0 X71.66 Y131.58
G1 X71.66 Y135.09 E1506.83066
G0 X71.66 Y134.92
G0 X70.66 Y134.88
G0 X68.32 Y137.79
G0 X68.33 Y137.97
G1 X68.33 Y131.63 E1507.09424
G0 X68.33 Y131.80
G0 X64.99 Y131.86
G0 X64.99 Y131.68
G1 X64.99 Y141.88 E1507.51806
G0 X64.99 Y141.70
G0 X61.66 Y141.70
G0 X61.66 Y141.88
G1 X61.66 Y131.73 E1507.93971
G0 X61.66 Y174.12
G1 X61.66 Y182.68 E1508.29518
G0 X61.66 Y182.50
G0 X64.99 Y182.50
G0 X64.99 Y182.68
G1 X64.99 Y174.12 E1508.65065
G0 X64.99 Y174.30
G0 X65.46 Y177.76
G0 X68.32 Y177.81
G0 X68.33 Y177.63
G1 X68.33 Y182.68 E1508.86031
;LAYER:6
G0 X72.25 Y180.27 Z1.50
;TYPE:WALL-INNER
G1 X72.25 Y179.35 E1508.89860
G1 X232.75 Y179.35 E1515.57142
G1 X232.75 Y180.27 E1515.60971
G1 X72.25 Y180.27 E1522.28252
G0 X71.75 Y180.77
;TYPE:WALL-OUTER
G1 X71.75 Y178.85 E1522.36239
G1 X233.25 Y178.85 E1529.07678
G1 X233.25 Y180.77 E1529.15665
G1 X71.75 Y180.77 E1535.87104
G0 X72.57 Y179.52
;TYPE:FILL
G1 X73.14 Y180.09 E1535.90461
G0 X74.34 Y179.52
G1 X74.91 Y180.09 E1535.93818
G0 X76.11 Y179.52
G1 X76.68 Y180.09 E1535.97172
G0 X77.88 Y179.52
G1 X78.44 Y180.09 E1536.00527
G0 X79.64 Y179.52
G1 X80.21 Y180.09 E1536.03884
G0 X81.41 Y179.52
G1 X81.98 Y180.09 E1536.07241
G0 X83.18 Y179.52
G1 X83.75 Y180.09 E1536.10598
G0 X84.95 Y179.52
G1 X85.52 Y180.09 E1536.13953
G0 X86.71 Y179.52
G1 X87.28 Y180.09 E1536.17310
G0 X88.48 Y179.52
G1 X89.05 Y180.09 E1536.20667
G0 X90.25 Y179.52
G1 X90.82 Y180.09 E1536.24025
G0 X92.02 Y179.52
G1 X92.59 Y180.09 E1536.27379
G0 X93.78 Y179.52
G1 X94.36 Y180.09 E1536.30736
