;-- START GCODE --
;Sliced for Type A Machines Series 1
;Sliced at: Sun 07-08-2016 17:58:41
;Basic settings: Layer height: 0.2 Walls: 1.5 Fill: 40
;Print Speed: 100 Support: 0
;Retraction Speed: 40 Retraction Distance: 1.2
;Print time: #P_TIME#
;Filament used: #F_AMNT#m #F_WGHT#g
;Filament cost: #F_COST#
M106 S255	 ;start with the fan on
G21        ;metric values
G90        ;absolute positioning
M106 S255    ;start with the fan on
G28     ;move to endstops
G29		;allows for auto-levelling
G1 X150 Y5  Z15.0 F6000 ;center and move the platform down 15mm
M109 S220 ;Heat To temp
G92 E0                  ;zero the extruded length
G1 F200 E30              ;extrude 30mm of feed stock
G92 E0                  ;zero the extruded length again
G1 X175 Y25  Z0 F6000 ;remove bugger
G1 X220 F6000 ;remove bugger
G1 X150 Y150  Z15 F6000 ;recenter and begin
G1 F6000

;Layer count: 103
;LAYER:0
M106 S255
G0 F6000 X73.57 Y145.36 Z0.30
;TYPE:SKIRT
G1 F2700 X73.57 Y169.16 E1.48461
G1 X103.77 Y169.36 E3.36800
G1 X103.77 Y169.92 E3.40280
G1 X200.97 Y170.05 E9.46447
G1 X200.97 Y169.36 E9.50744
G1 X231.17 Y169.16 E11.39083
G1 X231.17 Y145.36 E12.87544
G1 X200.97 Y145.16 E14.75884
G1 X200.97 Y144.07 E14.82675
G1 X103.77 Y144.20 E20.88841
G1 X103.77 Y145.16 E20.94816
G1 X73.57 Y145.36 E22.83155
G0 F6000 X73.07 Y144.86
G1 F2700 X73.07 Y169.66 E24.37815
G1 X103.27 Y169.86 E26.26155
G1 X103.27 Y170.42 E26.29647
G1 X201.47 Y170.55 E32.42050
G1 X201.47 Y169.86 E32.46372
G1 X231.67 Y169.66 E34.34711
G1 X231.67 Y144.86 E35.89371
G1 X201.47 Y144.66 E37.77710
G1 X201.47 Y143.57 E37.84527
G1 X103.27 Y143.70 E43.96930
G1 X103.27 Y144.66 E44.02916
G1 X73.07 Y144.86 E45.91256
G0 F6000 X72.57 Y144.37
G1 F2700 X72.57 Y170.16 E47.52102
G1 X102.77 Y170.36 E49.40442
G1 X102.77 Y170.92 E49.43953
G1 X201.97 Y171.06 E55.62592
G1 X201.97 Y170.36 E55.66945
G1 X232.17 Y170.16 E57.55284
G1 X232.17 Y144.37 E59.16130
G1 X201.97 Y144.16 E61.04470
G1 X201.97 Y143.07 E61.11317
G1 X102.77 Y143.20 E67.29956
G1 X102.77 Y144.16 E67.35962
G1 X72.57 Y144.37 E69.24302
G0 F6000 X72.07 Y143.87
G1 F2700 X72.07 Y170.65 E70.91347
G1 X102.27 Y170.85 E72.79686
G1 X102.27 Y171.42 E72.83216
G1 X202.47 Y171.56 E79.08091
G1 X202.47 Y170.85 E79.12463
G1 X232.67 Y170.65 E81.00803
G1 X232.67 Y143.87 E82.67847
G1 X202.47 Y143.67 E84.56187
G1 X202.47 Y142.57 E84.63053
G1 X102.27 Y142.70 E90.87929
G1 X102.27 Y143.67 E90.93953
G1 X72.07 Y143.87 E92.82292
G0 F6000 X71.57 Y143.37
G1 F2700 X71.57 Y171.15 E94.55536
G1 X101.77 Y171.35 E96.43876
G1 X101.77 Y171.92 E96.47418
G1 X202.97 Y172.06 E102.78530
G1 X202.97 Y171.35 E102.82926
G1 X233.17 Y171.15 E104.71266
G1 X233.17 Y143.37 E106.44510
G1 X202.97 Y143.17 E108.32849
G1 X202.97 Y142.07 E108.39740
G1 X101.77 Y142.20 E114.70852
G1 X101.77 Y143.17 E114.76889
G1 X71.57 Y143.37 E116.65228
G0 F6000 X71.07 Y142.88
G1 F2700 X71.07 Y171.65 E118.44658
G1 X101.27 Y171.85 E120.32998
G1 X101.27 Y172.42 E120.36559
G1 X203.47 Y172.56 E126.73907
G1 X203.47 Y171.85 E126.78335
G1 X233.67 Y171.65 E128.66674
G1 X233.67 Y142.88 E130.46104
G1 X203.47 Y142.68 E132.34444
G1 X203.47 Y141.56 E132.41366
G1 X101.27 Y141.70 E138.78714
G1 X101.27 Y142.68 E138.84770
G1 X71.07 Y142.88 E140.73109
G0 F6000 X70.57 Y142.38
G1 F2700 X70.57 Y172.14 E142.58738
G1 X100.77 Y172.34 E144.47078
G1 X100.77 Y172.92 E144.50658
G1 X203.97 Y173.06 E150.94242
G1 X203.97 Y172.34 E150.98688
G1 X234.17 Y172.14 E152.87028
G1 X234.17 Y142.38 E154.72657
G1 X203.97 Y142.18 E156.60997
G1 X203.97 Y141.06 E156.67937
G1 X100.77 Y141.20 E163.11522
G1 X100.77 Y142.18 E163.17596
G1 X70.57 Y142.38 E165.05935
G0 F6000 X70.07 Y141.88
G1 F2700 X70.07 Y172.64 E166.97763
G1 X100.27 Y172.84 E168.86103
G1 X100.27 Y173.42 E168.89695
G1 X204.47 Y173.56 E175.39516
G1 X204.47 Y172.84 E175.43987
G1 X234.67 Y172.64 E177.32327
G1 X234.67 Y141.88 E179.24154
G1 X204.47 Y141.68 E181.12494
G1 X204.47 Y140.56 E181.19460
G1 X100.27 Y140.71 E187.69280
G1 X100.27 Y141.68 E187.75367
G1 X70.07 Y141.88 E189.63707
G0 F6000 X69.57 Y141.38
G1 F2700 X69.57 Y173.14 E191.61721
G1 X99.77 Y173.34 E193.50061
G1 X99.77 Y173.92 E193.53671
G1 X204.97 Y174.06 E200.09728
G1 X204.97 Y173.34 E200.14231
G1 X235.17 Y173.14 E202.02570
G1 X235.17 Y141.38 E204.00585
G1 X204.97 Y141.19 E205.88924
G1 X204.97 Y140.06 E205.95921
G1 X99.77 Y140.21 E212.51978
G1 X99.77 Y141.19 E212.58083
G1 X69.57 Y141.38 E214.46423
G0 F6000 X69.07 Y140.89
G1 F2700 X69.07 Y173.63 E216.50636
G1 X99.27 Y173.83 E218.38976
G1 X99.27 Y174.42 E218.42605
G1 X205.47 Y174.56 E225.04898
G1 X205.47 Y173.83 E225.09420
G1 X235.67 Y173.63 E226.97759
G1 X235.67 Y140.89 E229.01972
G1 X205.47 Y140.69 E230.90312
G1 X205.47 Y139.56 E230.97328
G1 X99.27 Y139.71 E237.59621
G1 X99.27 Y140.69 E237.65745
G1 X69.07 Y140.89 E239.54084
G0 F6000 X68.57 Y140.39
G1 F2700 X68.57 Y174.13 E241.64496
G1 X98.77 Y174.33 E243.52836
G1 X98.77 Y174.91 E243.56478
G1 X205.97 Y175.06 E250.25007
G1 X205.97 Y174.33 E250.29554
G1 X236.17 Y174.13 E252.17893
G1 X236.17 Y140.39 E254.28305
G1 X205.97 Y140.19 E256.16645
G1 X205.97 Y139.06 E256.23686
G1 X98.77 Y139.21 E262.92215
G1 X98.77 Y140.19 E262.98351
G1 X68.57 Y140.39 E264.86691
G0 F6000 X68.07 Y139.89
G1 F2700 X68.07 Y174.63 E267.03302
G1 X98.27 Y174.83 E268.91641
G1 X98.27 Y175.41 E268.95296
G1 X206.47 Y175.56 E275.70062
G1 X206.47 Y174.83 E275.74633
G1 X236.67 Y174.63 E277.62972
G1 X236.67 Y139.89 E279.79583
G1 X206.47 Y139.69 E281.67923
G1 X206.47 Y138.56 E281.74989
G1 X98.27 Y138.71 E288.49754
G1 X98.27 Y139.69 E288.55903
G1 X68.07 Y139.89 E290.44243
G0 F6000 X67.57 Y139.40
G1 F2700 X67.57 Y175.12 E292.67040
G1 X97.77 Y175.32 E294.55380
G1 X97.77 Y175.91 E294.59059
G1 X206.97 Y176.06 E301.40061
G1 X206.97 Y175.32 E301.44657
G1 X237.17 Y175.12 E303.32997
G1 X237.17 Y139.40 E305.55794
G1 X206.97 Y139.20 E307.44133
G1 X206.97 Y138.06 E307.51224
G1 X97.77 Y138.21 E314.32226
G1 X97.77 Y139.20 E314.38400
G1 X67.57 Y139.40 E316.26740
G0 F6000 X67.07 Y138.90
G1 F2700 X67.07 Y175.62 E318.55736
G1 X97.27 Y175.82 E320.44075
G1 X97.27 Y176.41 E320.47767
G1 X207.47 Y176.56 E327.35005
G1 X207.47 Y175.82 E327.39626
G1 X237.67 Y175.62 E329.27966
G1 X237.67 Y138.90 E331.56962
G1 X207.47 Y138.70 E333.45302
G1 X207.47 Y137.56 E333.52417
G1 X97.27 Y137.71 E340.39655
G1 X97.27 Y138.70 E340.45842
G1 X67.07 Y138.90 E342.34181
G0 F6000 X66.57 Y138.40
G1 F2700 X66.57 Y176.12 E344.69376
G1 X96.77 Y176.32 E346.57716
G1 X96.77 Y176.91 E346.61420
G1 X207.97 Y177.06 E353.54895
G1 X207.97 Y176.32 E353.59541
G1 X238.17 Y176.12 E355.47880
G1 X238.17 Y138.40 E357.83075
G1 X207.97 Y138.20 E359.71415
G1 X207.97 Y137.06 E359.78556
G1 X96.77 Y137.21 E366.72030
G1 X96.77 Y138.20 E366.78229
G1 X66.57 Y138.40 E368.66568
G0 F6000 X59.97 Y122.91
G1 F2700 X82.37 Y122.91 E370.06261
G1 X82.37 Y123.49 E370.09884
G1 X222.37 Y123.49 E378.82963
G1 X222.37 Y122.91 E378.86586
G1 X244.97 Y122.91 E380.27526
G1 X244.97 Y182.21 E383.97337
G1 X59.97 Y182.21 E395.51048
G1 X59.97 Y122.91 E399.20859
G0 F6000 X59.47 Y122.41
G1 F2700 X82.87 Y122.41 E400.66788
G1 X82.87 Y122.99 E400.70411
G1 X221.87 Y122.99 E409.37254
G1 X221.87 Y122.41 E409.40877
G1 X245.47 Y122.41 E410.88053
G1 X245.47 Y182.71 E414.64100
G1 X59.47 Y182.71 E426.24048
G1 X59.47 Y122.41 E430.00095
G0 F6000 X58.97 Y121.91
G1 F2700 X83.37 Y121.91 E431.52260
G1 X83.37 Y122.49 E431.55883
G1 X221.37 Y122.49 E440.16489
G1 X221.37 Y121.91 E440.20113
G1 X245.97 Y121.91 E441.73525
G1 X245.97 Y183.21 E445.55809
G1 X58.97 Y183.21 E457.21992
G1 X58.97 Y121.91 E461.04276
G0 F6000 X58.47 Y121.41
G1 F2700 X83.87 Y121.41 E462.62677
G1 X83.87 Y121.99 E462.66300
G1 X220.87 Y121.99 E471.20670
G1 X220.87 Y121.41 E471.24293
G1 X246.47 Y121.41 E472.83942
G1 X246.47 Y183.71 E476.72462
G1 X58.47 Y183.71 E488.44882
G1 X58.47 Y121.41 E492.33402
G0 F6000 X57.97 Y120.91
G1 F2700 X84.37 Y120.91 E493.98039
G1 X84.37 Y121.49 E494.01663
G1 X220.37 Y121.49 E502.49796
G1 X220.37 Y120.91 E502.53419
G1 X246.97 Y120.91 E504.19304
G1 X246.97 Y184.21 E508.14061
G1 X57.97 Y184.21 E519.92717
G1 X57.97 Y120.91 E523.87473
G0 F6000 X57.47 Y120.41
G1 F2700 X84.87 Y120.41 E525.58347
G1 X84.87 Y120.99 E525.61970
G1 X219.87 Y120.99 E534.03867
G1 X219.87 Y120.41 E534.07491
G1 X247.47 Y120.41 E535.79612
G1 X247.47 Y184.71 E539.80604
G1 X57.47 Y184.71 E551.65497
G1 X57.47 Y120.41 E555.66489
G0 F6000 X56.97 Y119.91
G1 F2700 X85.37 Y119.91 E557.43599
G1 X85.37 Y120.49 E557.47223
G1 X219.37 Y120.49 E565.82883
G1 X219.37 Y119.91 E565.86507
G1 X247.97 Y119.91 E567.64864
G1 X247.97 Y185.21 E571.72093
G1 X56.97 Y185.21 E583.63222
G1 X56.97 Y119.91 E587.70450
G0 F6000 X56.47 Y119.41
G1 F2700 X85.87 Y119.41 E589.53797
G1 X85.87 Y119.99 E589.57420
G1 X218.87 Y119.99 E597.86845
G1 X218.87 Y119.41 E597.90468
G1 X248.47 Y119.41 E599.75062
G1 X248.47 Y185.71 E603.88527
G1 X56.47 Y185.71 E615.85892
G1 X56.47 Y119.41 E619.99357
G0 F6000 X55.97 Y118.91
G1 F2700 X86.37 Y118.91 E621.88939
G1 X86.37 Y119.49 E621.92563
G1 X218.37 Y119.49 E630.15751
G1 X218.37 Y118.91 E630.19374
G1 X248.97 Y118.91 E632.10204
G1 X248.97 Y186.21 E636.29906
G1 X55.97 Y186.21 E648.33507
G1 X55.97 Y118.91 E652.53208
G0 F6000 X55.47 Y118.41
G1 F2700 X86.87 Y118.41 E654.49027
G1 X86.87 Y118.99 E654.52651
G1 X217.87 Y118.99 E662.69603
G1 X217.87 Y118.41 E662.73226
G1 X249.47 Y118.41 E664.70292
G1 X249.47 Y186.71 E668.96230
G1 X55.47 Y186.71 E681.06067
G1 X55.47 Y118.41 E685.32005
G0 F6000 X54.97 Y117.91
G1 F2700 X87.37 Y117.91 E687.34060
G1 X87.37 Y118.49 E687.37683
G1 X217.37 Y118.49 E695.48399
G1 X217.37 Y117.91 E695.52022
G1 X249.97 Y117.91 E697.55325
G1 X249.97 Y187.21 E701.87499
G1 X54.97 Y187.21 E714.03573
G1 X54.97 Y117.91 E718.35746
G0 F6000 X54.47 Y117.41
G1 F2700 X87.87 Y117.41 E720.44038
G1 X87.87 Y117.99 E720.47661
G1 X216.87 Y117.99 E728.52141
G1 X216.87 Y117.41 E728.55764
G1 X250.47 Y117.41 E730.65303
G1 X250.47 Y187.71 E735.03713
G1 X54.47 Y187.71 E747.26023
G1 X54.47 Y117.41 E751.64433
G0 F6000 X53.97 Y116.91
G1 F2700 X88.37 Y116.91 E753.78961
G1 X88.37 Y117.49 E753.82584
G1 X216.37 Y117.49 E761.80828
G1 X216.37 Y116.91 E761.84451
G1 X250.97 Y116.91 E764.00226
G1 X250.97 Y188.21 E768.44872
G1 X53.97 Y188.21 E780.73419
G1 X53.97 Y116.91 E785.18065
G0 F6000 X53.47 Y116.41
G1 F2700 X88.87 Y116.41 E787.38829
G1 X88.87 Y116.99 E787.42453
G1 X215.87 Y116.99 E795.34460
G1 X215.87 Y116.41 E795.38083
G1 X251.47 Y116.41 E797.60094
G1 X251.47 Y188.71 E802.10977
G1 X53.47 Y188.71 E814.45759
G1 X53.47 Y116.41 E818.96642
G0 F6000 X52.97 Y115.91
G1 F2700 X89.37 Y115.91 E821.23643
G1 X89.37 Y116.49 E821.27266
G1 X215.37 Y116.49 E829.13037
G1 X215.37 Y115.91 E829.16660
G1 X251.97 Y115.91 E831.44907
G1 X251.97 Y189.21 E836.02026
G1 X52.97 Y189.21 E848.43045
G1 X52.97 Y115.91 E853.00164
G0 F6000 X92.77 Y134.03
G1 F2700 X212.34 Y134.17 E860.45855
G1 X194.93 Y130.44 E861.56955
G1 X194.44 Y130.44 E861.60005
G1 X166.67 Y130.44 E863.33186
G1 X166.10 Y130.44 E863.36716
G1 X138.33 Y130.44 E865.09897
G1 X137.76 Y130.44 E865.13427
G1 X110.00 Y130.44 E866.86608
G1 X109.51 Y130.44 E866.89651
G1 X92.77 Y134.03 E867.96390
G0 F6000 X88.08 Y134.52
G1 F2700 X217.09 Y134.68 E876.00901
G1 X194.98 Y129.94 E877.41921
G1 X109.45 Y129.94 E882.75285
G1 X88.08 Y134.52 E884.11579
G0 F6000 X97.46 Y133.53
G1 F2700 X207.60 Y133.67 E890.98449
G1 X194.87 Y130.94 E891.79636
G1 X194.44 Y130.94 E891.82349
G1 X166.67 Y130.94 E893.55524
G1 X166.10 Y130.94 E893.59060
G1 X138.33 Y130.94 E895.32235
G1 X137.76 Y130.94 E895.35771
G1 X110.00 Y130.94 E897.08946
G1 X109.56 Y130.94 E897.11659
G1 X97.46 Y133.53 E897.88841
G0 F6000 X102.15 Y133.04
G1 F2700 X202.86 Y133.16 E904.16903
G1 X194.82 Y131.44 E904.68196
G1 X194.44 Y131.44 E904.70578
G1 X166.67 Y131.44 E906.43753
G1 X166.10 Y131.44 E906.47289
G1 X138.33 Y131.44 E908.20465
G1 X137.76 Y131.44 E908.24000
G1 X109.99 Y131.44 E909.97176
G1 X109.61 Y131.44 E909.99545
G1 X102.15 Y133.04 E910.47165
G0 F6000 X106.83 Y132.54
G1 F2700 X198.11 Y132.66 E916.16407
G1 X194.76 Y131.94 E916.37780
G1 X194.43 Y131.94 E916.39832
G1 X166.67 Y131.94 E918.13001
G1 X166.10 Y131.94 E918.16543
G1 X138.33 Y131.94 E919.89712
G1 X137.76 Y131.94 E919.93254
G1 X109.99 Y131.94 E921.66423
G1 X109.67 Y131.94 E921.68462
G1 X106.83 Y132.54 E921.86526
G0 F6000 X109.30 Y128.44
;TYPE:WALL-INNER
G1 F2700 X82.91 Y134.10 E923.54839
G1 X82.91 Y124.99 E924.11614
G1 X222.09 Y124.99 E932.79579
G1 X222.09 Y134.22 E933.37108
G1 X195.14 Y128.44 E935.09011
G1 X194.44 Y128.44 E935.13371
G1 X166.67 Y128.44 E936.86546
G1 X166.10 Y128.44 E936.90082
G1 X138.33 Y128.44 E938.63257
G1 X137.77 Y128.44 E938.66793
G1 X110.00 Y128.44 E940.39968
G1 X109.30 Y128.44 E940.44327
G0 F6000 X109.35 Y128.94
G1 F2700 X82.41 Y134.71 E942.16160
G1 X82.41 Y124.49 E942.79908
G1 X222.59 Y124.49 E951.54109
G1 X222.59 Y134.84 E952.18617
G1 X195.08 Y128.94 E953.94053
G1 X194.44 Y128.94 E953.98076
G1 X166.67 Y128.94 E955.71257
G1 X166.10 Y128.94 E955.74787
G1 X138.33 Y128.94 E957.47968
G1 X137.77 Y128.94 E957.51498
G1 X110.00 Y128.94 E959.24679
G1 X109.35 Y128.94 E959.28708
G0 F6000 X109.40 Y129.44
;TYPE:WALL-OUTER
G1 F2700 X81.91 Y135.33 E961.04069
G1 X81.91 Y123.99 E961.74795
G1 X223.09 Y123.99 E970.55232
G1 X223.09 Y135.39 E971.26326
G1 X222.80 Y135.39 E971.28147
G1 X195.03 Y129.44 E973.05248
G1 X109.40 Y129.44 E978.39242
G0 F6000 X109.52 Y128.26
;TYPE:FILL
G1 F2700 X106.43 Y125.17 E978.66511
G0 F6000 X105.72 Y125.17
G1 F2700 X108.89 Y128.34 E978.94504
G0 F6000 X108.31 Y128.47
G1 F2700 X105.01 Y125.17 E979.23599
G0 F6000 X104.31 Y125.17
G1 F2700 X107.73 Y128.59 E979.53793
G0 F6000 X107.15 Y128.72
G1 F2700 X103.60 Y125.17 E979.85093
G0 F6000 X102.89 Y125.17
G1 F2700 X106.57 Y128.84 E980.17495
G0 F6000 X105.98 Y128.97
G1 F2700 X102.19 Y125.17 E980.50992
G0 F6000 X101.48 Y125.17
G1 F2700 X105.40 Y129.09 E980.85590
G0 F6000 X104.82 Y129.22
G1 F2700 X100.77 Y125.17 E981.21296
G0 F6000 X100.06 Y125.17
G1 F2700 X104.24 Y129.34 E981.58103
G0 F6000 X103.66 Y129.47
G1 F2700 X99.36 Y125.17 E981.96014
G0 F6000 X98.65 Y125.17
G1 F2700 X103.07 Y129.59 E982.35026
G0 F6000 X102.49 Y129.72
G1 F2700 X97.94 Y125.17 E982.75137
G0 F6000 X97.24 Y125.17
G1 F2700 X101.91 Y129.84 E983.16350
G0 F6000 X101.33 Y129.96
G1 F2700 X96.53 Y125.17 E983.58657
G0 F6000 X95.82 Y125.17
G1 F2700 X100.75 Y130.09 E984.02071
G0 F6000 X100.16 Y130.22
G1 F2700 X95.11 Y125.17 E984.46591
G0 F6000 X94.41 Y125.17
G1 F2700 X99.58 Y130.34 E984.92210
G0 F6000 X99.00 Y130.46
G1 F2700 X93.70 Y125.17 E985.38931
G0 F6000 X92.99 Y125.17
G1 F2700 X98.42 Y130.59 E985.86754
G0 F6000 X97.83 Y130.71
G1 F2700 X92.29 Y125.17 E986.35675
G0 F6000 X91.58 Y125.17
G1 F2700 X97.25 Y130.84 E986.85699
G0 F6000 X96.67 Y130.96
G1 F2700 X90.87 Y125.17 E987.36825
G0 F6000 X90.17 Y125.17
G1 F2700 X96.09 Y131.09 E987.89054
G0 F6000 X95.50 Y131.21
G1 F2700 X89.46 Y125.17 E988.42385
G0 F6000 X88.75 Y125.17
G1 F2700 X94.92 Y131.34 E988.96818
G0 F6000 X94.34 Y131.46
G1 F2700 X88.04 Y125.17 E989.52350
G0 F6000 X87.34 Y125.17
G1 F2700 X93.76 Y131.59 E990.08988
G0 F6000 X93.18 Y131.71
G1 F2700 X86.63 Y125.17 E990.66729
G0 F6000 X85.92 Y125.17
G1 F2700 X92.59 Y131.84 E991.25568
G0 F6000 X92.01 Y131.96
G1 F2700 X85.22 Y125.17 E991.85509
G0 F6000 X84.51 Y125.17
G1 F2700 X91.43 Y132.09 E992.46548
G0 F6000 X90.85 Y132.21
G1 F2700 X83.80 Y125.17 E993.08690
G0 F6000 X83.09 Y125.17
G1 F2700 X90.27 Y132.34 E993.71934
G0 F6000 X89.68 Y132.46
G1 F2700 X83.08 Y125.86 E994.30125
G0 F6000 X83.08 Y126.57
G1 F2700 X89.10 Y132.59 E994.83182
G0 F6000 X88.52 Y132.71
G1 F2700 X83.08 Y127.28 E995.31107
G0 F6000 X83.08 Y127.99
G1 F2700 X87.94 Y132.84 E995.73890
G0 F6000 X87.35 Y132.96
G1 F2700 X83.08 Y128.69 E996.11540
G0 F6000 X83.08 Y129.40
G1 F2700 X86.77 Y133.09 E996.44062
G0 F6000 X86.19 Y133.21
G1 F2700 X83.08 Y130.11 E996.71442
G0 F6000 X83.08 Y130.81
G1 F2700 X85.61 Y133.34 E996.93693
G0 F6000 X85.03 Y133.46
G1 F2700 X83.08 Y131.52 E997.10812
G0 F6000 X83.08 Y132.23
G1 F2700 X84.44 Y133.59 E997.22793
G0 F6000 X83.86 Y133.71
G1 F2700 X83.08 Y132.94 E997.29637
G0 F6000 X83.08 Y133.64
G1 F2700 X83.28 Y133.84 E997.31348
G0 F6000 X107.14 Y125.17
G1 F2700 X110.23 Y128.26 E997.58622
G0 F6000 X110.94 Y128.26
G1 F2700 X107.84 Y125.17 E997.85896
G0 F6000 X108.55 Y125.17
G1 F2700 X111.64 Y128.26 E998.13166
G0 F6000 X112.35 Y128.26
G1 F2700 X109.26 Y125.17 E998.40435
G0 F6000 X109.96 Y125.17
G1 F2700 X113.06 Y128.26 E998.67705
G0 F6000 X113.76 Y128.26
G1 F2700 X110.67 Y125.17 E998.94975
G0 F6000 X111.38 Y125.17
G1 F2700 X114.47 Y128.26 E999.22244
G0 F6000 X115.18 Y128.26
G1 F2700 X112.08 Y125.17 E999.49514
G0 F6000 X112.79 Y125.17
G1 F2700 X115.88 Y128.26 E999.76784
G0 F6000 X116.59 Y128.26
G1 F2700 X113.50 Y125.17 E1000.04058
G0 F6000 X114.21 Y125.17
G1 F2700 X117.30 Y128.26 E1000.31332
G0 F6000 X118.01 Y128.26
G1 F2700 X114.91 Y125.17 E1000.58601
G0 F6000 X115.62 Y125.17
G1 F2700 X118.71 Y128.26 E1000.85871
G0 F6000 X119.42 Y128.26
G1 F2700 X116.33 Y125.17 E1001.13141
G0 F6000 X117.03 Y125.17
G1 F2700 X120.13 Y128.26 E1001.40410
G0 F6000 X120.83 Y128.26
G1 F2700 X117.74 Y125.17 E1001.67680
G0 F6000 X118.45 Y125.17
G1 F2700 X121.54 Y128.26 E1001.94950
G0 F6000 X122.25 Y128.26
G1 F2700 X119.16 Y125.17 E1002.22219
G0 F6000 X119.86 Y125.17
G1 F2700 X122.95 Y128.26 E1002.49489
G0 F6000 X123.66 Y128.26
G1 F2700 X120.57 Y125.17 E1002.76763
G0 F6000 X121.28 Y125.17
G1 F2700 X124.37 Y128.26 E1003.04033
G0 F6000 X125.08 Y128.26
G1 F2700 X121.98 Y125.17 E1003.31302
G0 F6000 X122.69 Y125.17
G1 F2700 X125.78 Y128.26 E1003.58572
G0 F6000 X126.49 Y128.26
G1 F2700 X123.40 Y125.17 E1003.85842
G0 F6000 X124.11 Y125.17
G1 F2700 X127.20 Y128.26 E1004.13111
G0 F6000 X127.91 Y128.26
G1 F2700 X124.81 Y125.17 E1004.40381
G0 F6000 X125.52 Y125.17
G1 F2700 X128.61 Y128.26 E1004.67651
G0 F6000 X129.32 Y128.26
G1 F2700 X126.23 Y125.17 E1004.94920
G0 F6000 X126.93 Y125.17
G1 F2700 X130.03 Y128.26 E1005.22194
G0 F6000 X130.73 Y128.26
G1 F2700 X127.64 Y125.17 E1005.49469
G0 F6000 X128.35 Y125.17
G1 F2700 X131.44 Y128.26 E1005.76738
G0 F6000 X132.15 Y128.26
G1 F2700 X129.06 Y125.17 E1006.04008
G0 F6000 X129.76 Y125.17
G1 F2700 X132.85 Y128.26 E1006.31277
G0 F6000 X133.56 Y128.26
G1 F2700 X130.47 Y125.17 E1006.58547
G0 F6000 X131.18 Y125.17
G1 F2700 X134.27 Y128.26 E1006.85817
G0 F6000 X134.98 Y128.26
G1 F2700 X131.88 Y125.17 E1007.13086
G0 F6000 X132.59 Y125.17
G1 F2700 X135.68 Y128.26 E1007.40356
G0 F6000 X136.39 Y128.26
G1 F2700 X133.30 Y125.17 E1007.67626
G0 F6000 X134.00 Y125.17
G1 F2700 X137.10 Y128.26 E1007.94900
G0 F6000 X137.81 Y128.26
G1 F2700 X134.71 Y125.17 E1008.22170
G0 F6000 X135.42 Y125.17
G1 F2700 X138.51 Y128.26 E1008.49439
G0 F6000 X139.22 Y128.26
G1 F2700 X136.13 Y125.17 E1008.76709
G0 F6000 X136.83 Y125.17
G1 F2700 X139.93 Y128.26 E1009.03979
G0 F6000 X140.63 Y128.26
G1 F2700 X137.54 Y125.17 E1009.31248
G0 F6000 X138.25 Y125.17
G1 F2700 X141.34 Y128.26 E1009.58518
G0 F6000 X142.05 Y128.26
G1 F2700 X138.96 Y125.17 E1009.85788
G0 F6000 X139.66 Y125.17
G1 F2700 X142.75 Y128.26 E1010.13057
G0 F6000 X143.46 Y128.26
G1 F2700 X140.37 Y125.17 E1010.40331
G0 F6000 X141.08 Y125.17
G1 F2700 X144.17 Y128.26 E1010.67605
G0 F6000 X144.88 Y128.26
G1 F2700 X141.78 Y125.17 E1010.94875
G0 F6000 X142.49 Y125.17
G1 F2700 X145.58 Y128.26 E1011.22145
G0 F6000 X146.29 Y128.26
G1 F2700 X143.20 Y125.17 E1011.49414
G0 F6000 X143.91 Y125.17
G1 F2700 X147.00 Y128.26 E1011.76684
G0 F6000 X147.70 Y128.26
G1 F2700 X144.61 Y125.17 E1012.03954
G0 F6000 X145.32 Y125.17
G1 F2700 X148.41 Y128.26 E1012.31223
G0 F6000 X149.12 Y128.26
G1 F2700 X146.03 Y125.17 E1012.58493
G0 F6000 X146.73 Y125.17
G1 F2700 X149.83 Y128.26 E1012.85767
G0 F6000 X150.53 Y128.26
G1 F2700 X147.44 Y125.17 E1013.13041
G0 F6000 X148.15 Y125.17
G1 F2700 X151.24 Y128.26 E1013.40311
G0 F6000 X151.95 Y128.26
G1 F2700 X148.85 Y125.17 E1013.67580
G0 F6000 X149.56 Y125.17
G1 F2700 X152.66 Y128.26 E1013.94855
G0 F6000 X153.36 Y128.26
G1 F2700 X150.27 Y125.17 E1014.22129
G0 F6000 X150.98 Y125.17
G1 F2700 X154.07 Y128.26 E1014.49403
G0 F6000 X154.78 Y128.26
G1 F2700 X151.68 Y125.17 E1014.76677
G0 F6000 X152.39 Y125.17
G1 F2700 X155.48 Y128.26 E1015.03951
G0 F6000 X156.19 Y128.26
G1 F2700 X153.10 Y125.17 E1015.31225
G0 F6000 X153.80 Y125.17
G1 F2700 X156.90 Y128.26 E1015.58499
G0 F6000 X157.60 Y128.26
G1 F2700 X154.51 Y125.17 E1015.85769
G0 F6000 X155.22 Y125.17
G1 F2700 X158.31 Y128.26 E1016.13043
G0 F6000 X159.02 Y128.26
G1 F2700 X155.93 Y125.17 E1016.40317
G0 F6000 X156.63 Y125.17
G1 F2700 X159.73 Y128.26 E1016.67591
G0 F6000 X160.43 Y128.26
G1 F2700 X157.34 Y125.17 E1016.94865
G0 F6000 X158.05 Y125.17
G1 F2700 X161.14 Y128.26 E1017.22139
G0 F6000 X161.85 Y128.26
G1 F2700 X158.75 Y125.17 E1017.49413
G0 F6000 X159.46 Y125.17
G1 F2700 X162.55 Y128.26 E1017.76687
G0 F6000 X163.26 Y128.26
G1 F2700 X160.17 Y125.17 E1018.03961
G0 F6000 X160.88 Y125.17
G1 F2700 X163.97 Y128.26 E1018.31235
G0 F6000 X164.68 Y128.26
G1 F2700 X161.58 Y125.17 E1018.58505
G0 F6000 X162.29 Y125.17
G1 F2700 X165.38 Y128.26 E1018.85779
G0 F6000 X166.09 Y128.26
G1 F2700 X163.00 Y125.17 E1019.13053
G0 F6000 X163.70 Y125.17
G1 F2700 X166.80 Y128.26 E1019.40327
G0 F6000 X167.50 Y128.26
G1 F2700 X164.41 Y125.17 E1019.67601
G0 F6000 X165.12 Y125.17
G1 F2700 X168.21 Y128.26 E1019.94875
G0 F6000 X168.92 Y128.26
G1 F2700 X165.82 Y125.17 E1020.22149
G0 F6000 X166.53 Y125.17
G1 F2700 X169.62 Y128.26 E1020.49423
G0 F6000 X170.33 Y128.26
G1 F2700 X167.24 Y125.17 E1020.76698
G0 F6000 X167.95 Y125.17
G1 F2700 X171.04 Y128.26 E1021.03967
G0 F6000 X171.75 Y128.26
G1 F2700 X168.65 Y125.17 E1021.31241
G0 F6000 X169.36 Y125.17
G1 F2700 X172.45 Y128.26 E1021.58515
G0 F6000 X173.16 Y128.26
G1 F2700 X170.07 Y125.17 E1021.85789
G0 F6000 X170.78 Y125.17
G1 F2700 X173.87 Y128.26 E1022.13063
G0 F6000 X174.57 Y128.26
G1 F2700 X171.48 Y125.17 E1022.40338
G0 F6000 X172.19 Y125.17
G1 F2700 X175.28 Y128.26 E1022.67612
G0 F6000 X175.99 Y128.26
G1 F2700 X172.90 Y125.17 E1022.94886
G0 F6000 X173.60 Y125.17
G1 F2700 X176.70 Y128.26 E1023.22160
G0 F6000 X177.40 Y128.26
G1 F2700 X174.31 Y125.17 E1023.49429
G0 F6000 X175.02 Y125.17
G1 F2700 X178.11 Y128.26 E1023.76703
G0 F6000 X178.82 Y128.26
G1 F2700 X175.72 Y125.17 E1024.03978
G0 F6000 X176.43 Y125.17
G1 F2700 X179.53 Y128.26 E1024.31252
G0 F6000 X180.23 Y128.26
G1 F2700 X177.14 Y125.17 E1024.58526
G0 F6000 X177.85 Y125.17
G1 F2700 X180.94 Y128.26 E1024.85800
G0 F6000 X181.65 Y128.26
G1 F2700 X178.55 Y125.17 E1025.13074
G0 F6000 X179.26 Y125.17
G1 F2700 X182.35 Y128.26 E1025.40348
G0 F6000 X183.06 Y128.26
G1 F2700 X179.97 Y125.17 E1025.67622
G0 F6000 X180.67 Y125.17
G1 F2700 X183.77 Y128.26 E1025.94896
G0 F6000 X184.47 Y128.26
G1 F2700 X181.38 Y125.17 E1026.22166
G0 F6000 X182.09 Y125.17
G1 F2700 X185.18 Y128.26 E1026.49440
G0 F6000 X185.89 Y128.26
G1 F2700 X182.80 Y125.17 E1026.76714
G0 F6000 X183.50 Y125.17
G1 F2700 X186.60 Y128.26 E1027.03988
G0 F6000 X187.30 Y128.26
G1 F2700 X184.21 Y125.17 E1027.31262
G0 F6000 X184.92 Y125.17
G1 F2700 X188.01 Y128.26 E1027.58536
G0 F6000 X188.72 Y128.26
G1 F2700 X185.62 Y125.17 E1027.85810
G0 F6000 X186.33 Y125.17
G1 F2700 X189.42 Y128.26 E1028.13084
G0 F6000 X190.13 Y128.26
G1 F2700 X187.04 Y125.17 E1028.40358
G0 F6000 X187.75 Y125.17
G1 F2700 X190.84 Y128.26 E1028.67628
G0 F6000 X191.55 Y128.26
G1 F2700 X188.45 Y125.17 E1028.94902
G0 F6000 X189.16 Y125.17
G1 F2700 X192.25 Y128.26 E1029.22176
G0 F6000 X192.96 Y128.26
G1 F2700 X189.87 Y125.17 E1029.49450
G0 F6000 X190.57 Y125.17
G1 F2700 X193.67 Y128.26 E1029.76724
G0 F6000 X194.37 Y128.26
G1 F2700 X191.28 Y125.17 E1030.03998
G0 F6000 X191.99 Y125.17
G1 F2700 X195.08 Y128.26 E1030.31272
G0 F6000 X195.96 Y128.43
G1 F2700 X192.69 Y125.17 E1030.60077
G0 F6000 X193.40 Y125.17
G1 F2700 X196.86 Y128.63 E1030.90587
G0 F6000 X197.76 Y128.82
G1 F2700 X194.11 Y125.17 E1031.22796
G0 F6000 X194.82 Y125.17
G1 F2700 X198.66 Y129.01 E1031.56707
G0 F6000 X199.56 Y129.21
G1 F2700 X195.52 Y125.17 E1031.92320
G0 F6000 X196.23 Y125.17
G1 F2700 X200.46 Y129.40 E1032.29635
G0 F6000 X201.36 Y129.59
G1 F2700 X196.94 Y125.17 E1032.68652
G0 F6000 X197.65 Y125.17
G1 F2700 X202.26 Y129.78 E1033.09380
G0 F6000 X203.16 Y129.98
G1 F2700 X198.35 Y125.17 E1033.51810
G0 F6000 X199.06 Y125.17
G1 F2700 X204.06 Y130.17 E1033.95942
G0 F6000 X204.96 Y130.36
G1 F2700 X199.77 Y125.17 E1034.41781
G0 F6000 X200.47 Y125.17
G1 F2700 X205.86 Y130.56 E1034.89322
G0 F6000 X206.76 Y130.75
G1 F2700 X201.18 Y125.17 E1035.38561
G0 F6000 X201.89 Y125.17
G1 F2700 X207.66 Y130.94 E1035.89502
G0 F6000 X208.56 Y131.14
G1 F2700 X202.59 Y125.17 E1036.42154
G0 F6000 X203.30 Y125.17
G1 F2700 X209.47 Y131.33 E1036.96508
G0 F6000 X210.37 Y131.52
G1 F2700 X204.01 Y125.17 E1037.52565
G0 F6000 X204.72 Y125.17
G1 F2700 X211.26 Y131.72 E1038.10323
G0 F6000 X212.16 Y131.91
G1 F2700 X205.42 Y125.17 E1038.69784
G0 F6000 X206.13 Y125.17
G1 F2700 X213.07 Y132.10 E1039.30951
G0 F6000 X213.97 Y132.29
G1 F2700 X206.84 Y125.17 E1039.93820
G0 F6000 X207.54 Y125.17
G1 F2700 X214.87 Y132.49 E1040.58387
G0 F6000 X215.77 Y132.68
G1 F2700 X208.25 Y125.17 E1041.24665
G0 F6000 X208.96 Y125.17
G1 F2700 X216.67 Y132.88 E1041.92645
G0 F6000 X217.57 Y133.07
G1 F2700 X209.67 Y125.17 E1042.62327
G0 F6000 X210.37 Y125.17
G1 F2700 X218.47 Y133.26 E1043.33712
G0 F6000 X219.37 Y133.45
G1 F2700 X211.08 Y125.17 E1044.06798
G0 F6000 X211.79 Y125.17
G1 F2700 X220.27 Y133.65 E1044.81592
G0 F6000 X221.17 Y133.84
G1 F2700 X212.49 Y125.17 E1045.58087
G0 F6000 X213.20 Y125.17
G1 F2700 X221.91 Y133.88 E1046.34931
G0 F6000 X221.91 Y133.17
G1 F2700 X213.91 Y125.17 E1047.05534
G0 F6000 X214.62 Y125.17
G1 F2700 X221.91 Y132.47 E1047.69899
G0 F6000 X221.91 Y131.76
G1 F2700 X215.32 Y125.17 E1048.28027
G0 F6000 X216.03 Y125.17
G1 F2700 X221.91 Y131.05 E1048.79921
G0 F6000 X221.91 Y130.34
G1 F2700 X216.74 Y125.17 E1049.25579
G0 F6000 X217.44 Y125.17
G1 F2700 X221.91 Y129.64 E1049.65002
G0 F6000 X221.91 Y128.93
G1 F2700 X218.15 Y125.17 E1049.98189
G0 F6000 X218.86 Y125.17
G1 F2700 X221.91 Y128.22 E1050.25142
G0 F6000 X221.91 Y127.52
G1 F2700 X219.56 Y125.17 E1050.45858
G0 F6000 X220.27 Y125.17
G1 F2700 X221.91 Y126.81 E1050.60335
G0 F6000 X221.91 Y126.10
G1 F2700 X220.98 Y125.17 E1050.68573
G0 F6000 X221.69 Y125.17
G1 F2700 X221.91 Y125.39 E1050.70575
G0 F6000 X224.98 Y123.09
;TYPE:SUPPORT
G1 F2700 X224.98 Y138.14 E1051.64468
G0 F6000 X224.98 Y137.97
G0 X228.31 Y137.99
G0 X228.31 Y138.16
G1 F2700 X228.31 Y123.09 E1052.58499
G0 F6000 X228.31 Y123.26
G0 X231.64 Y123.26
G0 X231.64 Y123.09
G1 F2700 X231.64 Y138.19 E1053.52667
G0 F6000 X231.64 Y138.01
G0 X234.98 Y138.03
G0 X234.98 Y138.21
G1 F2700 X234.98 Y123.09 E1054.46971
G0 F6000 X234.98 Y123.26
G0 X238.31 Y123.26
G0 X238.31 Y123.09
G1 F2700 X238.31 Y138.23 E1055.41414
G0 F6000 X238.31 Y138.06
G0 X241.64 Y123.26
G0 X241.64 Y123.09
G1 F2700 X241.64 Y182.04 E1059.09042
G0 F6000 X241.64 Y181.86
G0 X238.31 Y181.86
G0 X238.31 Y182.04
G1 F2700 X238.31 Y176.29 E1059.44869
G0 F6000 X238.31 Y176.47
G0 X234.98 Y176.49
G0 X234.98 Y176.31
G1 F2700 X234.98 Y182.04 E1059.80560
G0 F6000 X234.98 Y181.86
G0 X231.64 Y181.86
G0 X231.64 Y182.04
G1 F2700 X231.64 Y176.34 E1060.16113
G0 F6000 X231.64 Y176.51
G0 X228.31 Y176.53
G0 X228.31 Y176.36
G1 F2700 X228.31 Y182.04 E1060.51528
G0 F6000 X228.31 Y181.86
G0 X224.98 Y181.86
G0 X224.98 Y182.04
G1 F2700 X224.98 Y176.38 E1060.86807
G0 F6000 X224.98 Y176.56
G0 X221.65 Y176.58
G0 X221.64 Y176.40
G1 F2700 X221.64 Y182.04 E1061.21949
G0 F6000 X221.64 Y181.86
G0 X218.31 Y181.86
G0 X218.31 Y182.04
G1 F2700 X218.31 Y176.42 E1061.56953
G0 F6000 X218.31 Y176.60
G0 X214.98 Y176.62
G0 X214.98 Y176.44
G1 F2700 X214.98 Y182.04 E1061.91820
G0 F6000 X214.98 Y181.86
G0 X211.65 Y181.86
G0 X211.65 Y182.04
G1 F2700 X211.65 Y176.47 E1062.26550
G0 F6000 X211.65 Y176.64
G0 X208.31 Y176.67
G0 X208.31 Y176.49
G1 F2700 X208.31 Y182.04 E1062.61142
G0 F6000 X208.31 Y181.86
G0 X204.98 Y181.86
G0 X204.98 Y182.04
G1 F2700 X204.98 Y177.23 E1062.91089
G0 F6000 X204.98 Y177.41
G0 X201.65 Y177.40
G0 X201.65 Y177.23
G1 F2700 X201.65 Y182.04 E1063.21060
G0 F6000 X201.65 Y181.86
G0 X198.31 Y181.86
G0 X198.31 Y182.04
G1 F2700 X198.31 Y177.22 E1063.51063
G0 F6000 X198.31 Y177.40
G0 X194.98 Y177.40
G0 X194.98 Y177.22
G1 F2700 X194.98 Y182.04 E1063.81091
G0 F6000 X194.98 Y181.86
G0 X191.65 Y181.86
G0 X191.65 Y182.04
G1 F2700 X191.65 Y177.22 E1064.11150
G0 F6000 X191.65 Y177.39
G0 X188.31 Y177.39
G0 X188.31 Y177.21
G1 F2700 X188.31 Y182.04 E1064.41233
G0 F6000 X188.31 Y181.86
G0 X184.98 Y181.86
G0 X184.98 Y182.04
G1 F2700 X184.98 Y177.21 E1064.71348
G0 F6000 X184.98 Y177.38
G0 X181.65 Y177.38
G0 X181.65 Y177.20
G1 F2700 X181.65 Y182.04 E1065.01488
G0 F6000 X181.65 Y181.86
G0 X178.31 Y181.86
G0 X178.31 Y182.04
G1 F2700 X178.31 Y177.20 E1065.31659
G0 F6000 X178.31 Y177.37
G0 X174.98 Y177.37
G0 X174.98 Y177.19
G1 F2700 X174.98 Y182.04 E1065.61855
G0 F6000 X174.98 Y181.86
G0 X171.65 Y181.86
G0 X171.65 Y182.04
G1 F2700 X171.65 Y177.19 E1065.92083
G0 F6000 X171.65 Y177.36
G0 X168.32 Y177.36
G0 X168.32 Y177.19
G1 F2700 X168.32 Y182.04 E1066.22335
G0 F6000 X168.32 Y181.86
G0 X164.98 Y181.86
G0 X164.98 Y182.04
G1 F2700 X164.98 Y177.18 E1066.52618
G0 F6000 X164.98 Y177.35
G0 X161.65 Y177.35
G0 X161.65 Y177.18
G1 F2700 X161.65 Y182.04 E1066.82926
G0 F6000 X161.65 Y181.86
G0 X158.32 Y181.86
G0 X158.32 Y182.04
G1 F2700 X158.32 Y177.17 E1067.13266
G0 F6000 X158.32 Y177.34
G0 X154.98 Y177.34
G0 X154.98 Y177.17
G1 F2700 X154.98 Y182.04 E1067.43630
G0 F6000 X154.98 Y181.86
G0 X151.65 Y181.86
G0 X151.65 Y182.04
G1 F2700 X151.65 Y177.16 E1067.74026
G0 F6000 X151.65 Y177.34
G0 X148.32 Y177.33
G0 X148.32 Y177.16
G1 F2700 X148.32 Y182.04 E1068.04446
G0 F6000 X148.32 Y181.86
G0 X144.99 Y181.86
G0 X144.99 Y182.04
G1 F2700 X144.99 Y177.15 E1068.34898
G0 F6000 X144.98 Y177.33
G0 X141.65 Y177.32
G0 X141.65 Y177.15
G1 F2700 X141.65 Y182.04 E1068.65381
G0 F6000 X141.65 Y181.86
G0 X138.32 Y181.86
G0 X138.32 Y182.04
G1 F2700 X138.32 Y177.14 E1068.95889
G0 F6000 X138.32 Y177.32
G0 X134.99 Y177.31
G0 X134.99 Y177.14
G1 F2700 X134.99 Y182.04 E1069.26428
G0 F6000 X134.99 Y181.86
G0 X131.65 Y181.86
G0 X131.65 Y182.04
G1 F2700 X131.65 Y177.13 E1069.56992
G0 F6000 X131.65 Y177.31
G0 X128.32 Y177.30
G0 X128.32 Y177.13
G1 F2700 X128.32 Y182.04 E1069.87587
G0 F6000 X128.32 Y181.86
G0 X124.99 Y181.86
G0 X124.99 Y182.04
G1 F2700 X124.99 Y177.13 E1070.18207
G0 F6000 X124.99 Y177.30
G0 X121.65 Y177.29
G0 X121.65 Y177.12
G1 F2700 X121.65 Y182.04 E1070.48859
G0 F6000 X121.65 Y181.86
G0 X118.32 Y181.86
G0 X118.32 Y182.04
G1 F2700 X118.32 Y177.12 E1070.79535
G0 F6000 X118.32 Y177.29
G0 X114.99 Y177.29
G0 X114.99 Y177.11
G1 F2700 X114.99 Y182.04 E1071.10242
G0 F6000 X114.99 Y181.86
G0 X111.66 Y181.86
G0 X111.66 Y182.04
G1 F2700 X111.66 Y177.11 E1071.40975
G0 F6000 X111.65 Y177.28
G0 X108.32 Y177.28
G0 X108.32 Y177.10
G1 F2700 X108.32 Y182.04 E1071.71738
G0 F6000 X108.32 Y181.86
G0 X104.99 Y181.86
G0 X104.99 Y182.04
G1 F2700 X104.99 Y177.10 E1072.02527
G0 F6000 X104.99 Y177.27
G0 X101.66 Y177.27
G0 X101.66 Y177.09
G1 F2700 X101.66 Y182.04 E1072.33346
G0 F6000 X101.66 Y181.86
G0 X98.32 Y181.86
G0 X98.32 Y182.04
G1 F2700 X98.32 Y177.09 E1072.64191
G0 F6000 X98.32 Y177.26
G0 X96.38 Y177.30
G0 X94.99 Y176.66
G0 X94.99 Y176.48
G1 F2700 X94.99 Y182.04 E1072.98833
G0 F6000 X94.99 Y181.86
G0 X91.66 Y181.86
G0 X91.66 Y182.04
G1 F2700 X91.66 Y176.46 E1073.33613
G0 F6000 X91.66 Y176.63
G0 X88.32 Y176.61
G0 X88.32 Y176.44
G1 F2700 X88.32 Y182.04 E1073.68530
G0 F6000 X88.32 Y181.86
G0 X84.99 Y181.86
G0 X84.99 Y182.04
G1 F2700 X84.99 Y176.41 E1074.03584
G0 F6000 X84.99 Y176.59
G0 X81.66 Y176.57
G0 X81.66 Y176.39
G1 F2700 X81.66 Y182.04 E1074.38775
G0 F6000 X81.66 Y181.86
G0 X78.33 Y181.86
G0 X78.33 Y182.04
G1 F2700 X78.33 Y176.37 E1074.74110
G0 F6000 X78.33 Y176.54
G0 X74.99 Y176.52
G0 X74.99 Y176.35
G1 F2700 X74.99 Y182.04 E1075.09582
G0 F6000 X74.99 Y181.86
G0 X71.66 Y181.86
G0 X71.66 Y182.04
G1 F2700 X71.66 Y176.33 E1075.45191
G0 F6000 X71.66 Y176.50
G0 X68.33 Y176.48
G0 X68.33 Y176.30
G1 F2700 X68.33 Y182.04 E1075.80938
G0 F6000 X68.33 Y181.86
G0 X64.99 Y181.86
G0 X64.99 Y182.04
G1 F2700 X64.99 Y123.09 E1079.48566
G0 F6000 X64.99 Y123.26
G0 X61.66 Y123.26
G0 X61.66 Y123.09
G1 F2700 X61.66 Y182.04 E1083.16194
G0 F6000 X61.66 Y181.86
G0 X66.18 Y138.01
G0 X68.33 Y138.04
G0 X68.33 Y138.22
G1 F2700 X68.33 Y123.09 E1084.10568
G0 F6000 X68.33 Y123.26
G0 X71.66 Y123.26
G0 X71.66 Y123.09
G1 F2700 X71.66 Y138.20 E1085.04804
G0 F6000 X71.66 Y138.02
G0 X74.99 Y138.00
G0 X74.99 Y138.18
G1 F2700 X74.99 Y123.09 E1085.98904
G0 F6000 X74.99 Y123.26
G0 X78.33 Y123.26
G0 X78.33 Y123.09
G1 F2700 X78.33 Y138.15 E1086.92859
G0 F6000 X88.32 Y138.09
G1 F2700 X88.32 Y134.85 E1087.13027
G0 F6000 X88.36 Y135.02
G0 X91.66 Y134.87
G0 X91.66 Y134.70
G1 F2700 X91.66 Y138.06 E1087.34006
G0 F6000 X91.66 Y137.89
G0 X94.99 Y137.87
G0 X94.99 Y138.04
G1 F2700 X94.99 Y134.70 E1087.54823
G0 F6000 X208.31 Y134.84
G1 F2700 X208.31 Y138.03 E1087.74710
G0 F6000 X208.31 Y137.86
G0 X211.65 Y137.88
G0 X211.65 Y138.05
G1 F2700 X211.65 Y134.85 E1087.94704
G0 F6000 X211.64 Y135.02
G0 X214.98 Y135.03
G0 X214.98 Y134.85
G1 F2700 X214.98 Y138.07 E1088.14810
;LAYER:1
G0 F6000 X222.09 Y134.34 Z0.50
;TYPE:WALL-INNER
G1 F3480 X195.14 Y128.56 E1089.29416
G1 X193.87 Y128.56 E1089.34675
G1 X166.67 Y128.56 E1090.47772
G1 X165.54 Y128.56 E1090.52482
G1 X138.33 Y128.56 E1091.65579
G1 X137.20 Y128.56 E1091.70290
G1 X110.00 Y128.56 E1092.83387
G1 X108.73 Y128.56 E1092.88650
G1 X82.91 Y134.10 E1093.98444
G1 X82.91 Y124.99 E1094.36294
G1 X222.09 Y124.99 E1100.14937
G1 X222.09 Y134.34 E1100.53797
G0 F6000 X222.28 Y134.89
G1 F3480 X195.08 Y129.06 E1101.69458
G1 X108.78 Y129.06 E1105.28251
G1 X82.41 Y134.71 E1106.40396
G1 X82.41 Y124.49 E1106.82894
G1 X222.59 Y124.49 E1112.65694
G1 X222.59 Y134.89 E1113.08933
G1 X222.28 Y134.89 E1113.10201
G0 F6000 X222.23 Y135.39
;TYPE:WALL-OUTER
G1 F3480 X195.03 Y129.56 E1114.25857
G1 X108.84 Y129.56 E1117.84210
G1 X81.91 Y135.33 E1118.98706
G1 X81.91 Y123.99 E1119.45856
G1 X223.09 Y123.99 E1125.32815
G1 X223.09 Y135.39 E1125.80210
G1 X222.23 Y135.39 E1125.83782
G0 F6000 X222.27 Y135.04
G0 X221.32 Y134.00
;TYPE:FILL
G1 F3480 X221.91 Y133.41 E1125.87248
G0 F6000 X221.91 Y132.70
G1 F3480 X220.74 Y133.87 E1125.94139
G0 F6000 X220.16 Y133.75
G1 F3480 X221.91 Y131.99 E1126.04457
G0 F6000 X221.91 Y131.28
G1 F3480 X219.58 Y133.62 E1126.18195
G0 F6000 X219.00 Y133.50
G1 F3480 X221.91 Y130.58 E1126.35355
G0 F6000 X221.91 Y129.87
G1 F3480 X218.41 Y133.37 E1126.55939
G0 F6000 X217.83 Y133.25
G1 F3480 X221.91 Y129.16 E1126.79946
G0 F6000 X221.91 Y128.46
G1 F3480 X217.25 Y133.12 E1127.07374
G0 F6000 X216.67 Y133.00
G1 F3480 X221.91 Y127.75 E1127.38227
G0 F6000 X221.91 Y127.04
G1 F3480 X216.08 Y132.87 E1127.72503
G0 F6000 X215.50 Y132.75
G1 F3480 X221.91 Y126.33 E1128.10203
G0 F6000 X221.91 Y125.63
G1 F3480 X214.92 Y132.62 E1128.51325
G0 F6000 X214.34 Y132.50
G1 F3480 X221.67 Y125.17 E1128.94428
G0 F6000 X220.96 Y125.17
G1 F3480 X213.75 Y132.37 E1129.36803
G0 F6000 X213.17 Y132.25
G1 F3480 X220.25 Y125.17 E1129.78442
G0 F6000 X219.55 Y125.17
G1 F3480 X212.59 Y132.12 E1130.19344
G0 F6000 X212.01 Y132.00
G1 F3480 X218.84 Y125.17 E1130.59516
G0 F6000 X218.13 Y125.17
G1 F3480 X211.43 Y131.87 E1130.98948
G0 F6000 X210.84 Y131.75
G1 F3480 X217.43 Y125.17 E1131.37647
G0 F6000 X216.72 Y125.17
G1 F3480 X210.26 Y131.62 E1131.75612
G0 F6000 X209.68 Y131.50
G1 F3480 X216.01 Y125.17 E1132.12842
G0 F6000 X215.31 Y125.17
G1 F3480 X209.10 Y131.37 E1132.49343
G0 F6000 X208.51 Y131.25
G1 F3480 X214.60 Y125.17 E1132.85105
G0 F6000 X213.89 Y125.17
G1 F3480 X207.93 Y131.12 E1133.20136
G0 F6000 X207.35 Y131.00
G1 F3480 X213.18 Y125.17 E1133.54432
G0 F6000 X212.48 Y125.17
G1 F3480 X206.77 Y130.87 E1133.87993
G0 F6000 X206.19 Y130.75
G1 F3480 X211.77 Y125.17 E1134.20819
G0 F6000 X211.06 Y125.17
G1 F3480 X205.60 Y130.62 E1134.52910
G0 F6000 X205.02 Y130.50
G1 F3480 X210.35 Y125.17 E1134.84266
G0 F6000 X209.65 Y125.17
G1 F3480 X204.44 Y130.37 E1135.14887
G0 F6000 X203.86 Y130.25
G1 F3480 X208.94 Y125.17 E1135.44773
G0 F6000 X208.23 Y125.17
G1 F3480 X203.28 Y130.12 E1135.73930
G0 F6000 X202.69 Y130.00
G1 F3480 X207.53 Y125.17 E1136.02352
G0 F6000 X206.82 Y125.17
G1 F3480 X202.11 Y129.88 E1136.30039
G0 F6000 X201.53 Y129.75
G1 F3480 X206.11 Y125.17 E1136.56994
G0 F6000 X205.41 Y125.17
G1 F3480 X200.95 Y129.62 E1136.83211
G0 F6000 X200.36 Y129.50
G1 F3480 X204.70 Y125.17 E1137.08693
G0 F6000 X203.99 Y125.17
G1 F3480 X199.78 Y129.38 E1137.33441
G0 F6000 X199.20 Y129.25
G1 F3480 X203.28 Y125.17 E1137.57453
G0 F6000 X202.58 Y125.17
G1 F3480 X198.62 Y129.13 E1137.80736
G0 F6000 X198.03 Y129.00
G1 F3480 X201.87 Y125.17 E1138.03285
G0 F6000 X201.16 Y125.17
G1 F3480 X197.45 Y128.88 E1138.25095
G0 F6000 X196.87 Y128.75
G1 F3480 X200.46 Y125.17 E1138.46174
G0 F6000 X199.75 Y125.17
G1 F3480 X196.29 Y128.63 E1138.66517
G0 F6000 X195.71 Y128.50
G1 F3480 X199.04 Y125.17 E1138.86129
G0 F6000 X198.33 Y125.17
G1 F3480 X195.12 Y128.38 E1139.05040
G0 F6000 X194.41 Y128.38
G1 F3480 X197.63 Y125.17 E1139.23952
G0 F6000 X196.92 Y125.17
G1 F3480 X193.70 Y128.38 E1139.42864
G0 F6000 X193.00 Y128.38
G1 F3480 X196.21 Y125.17 E1139.61776
G0 F6000 X195.51 Y125.17
G1 F3480 X192.29 Y128.38 E1139.80690
G0 F6000 X191.58 Y128.38
G1 F3480 X194.80 Y125.17 E1139.99605
G0 F6000 X194.09 Y125.17
G1 F3480 X190.88 Y128.38 E1140.18520
G0 F6000 X190.17 Y128.38
G1 F3480 X193.38 Y125.17 E1140.37435
G0 F6000 X192.68 Y125.17
G1 F3480 X189.46 Y128.38 E1140.56349
G0 F6000 X188.75 Y128.38
G1 F3480 X191.97 Y125.17 E1140.75264
G0 F6000 X191.26 Y125.17
G1 F3480 X188.05 Y128.38 E1140.94176
G0 F6000 X187.34 Y128.38
G1 F3480 X190.56 Y125.17 E1141.13088
G0 F6000 X189.85 Y125.17
G1 F3480 X186.63 Y128.38 E1141.31999
G0 F6000 X185.93 Y128.38
G1 F3480 X189.14 Y125.17 E1141.50914
G0 F6000 X188.44 Y125.17
G1 F3480 X185.22 Y128.38 E1141.69829
G0 F6000 X184.51 Y128.38
G1 F3480 X187.73 Y125.17 E1141.88744
G0 F6000 X187.02 Y125.17
G1 F3480 X183.80 Y128.38 E1142.07658
G0 F6000 X183.10 Y128.38
G1 F3480 X186.31 Y125.17 E1142.26573
G0 F6000 X185.61 Y125.17
G1 F3480 X182.39 Y128.38 E1142.45488
G0 F6000 X181.68 Y128.38
G1 F3480 X184.90 Y125.17 E1142.64400
G0 F6000 X184.19 Y125.17
G1 F3480 X180.98 Y128.38 E1142.83311
G0 F6000 X180.27 Y128.38
G1 F3480 X183.49 Y125.17 E1143.02223
G0 F6000 X182.78 Y125.17
G1 F3480 X179.56 Y128.38 E1143.21138
G0 F6000 X178.85 Y128.38
G1 F3480 X182.07 Y125.17 E1143.40053
G0 F6000 X181.36 Y125.17
G1 F3480 X178.15 Y128.38 E1143.58967
G0 F6000 X177.44 Y128.38
G1 F3480 X180.66 Y125.17 E1143.77882
G0 F6000 X179.95 Y125.17
G1 F3480 X176.73 Y128.38 E1143.96797
G0 F6000 X176.03 Y128.38
G1 F3480 X179.24 Y125.17 E1144.15712
G0 F6000 X178.53 Y125.17
G1 F3480 X175.32 Y128.38 E1144.34623
G0 F6000 X174.61 Y128.38
G1 F3480 X177.83 Y125.17 E1144.53535
G0 F6000 X177.12 Y125.17
G1 F3480 X173.91 Y128.38 E1144.72447
G0 F6000 X173.20 Y128.38
G1 F3480 X176.41 Y125.17 E1144.91359
G0 F6000 X175.71 Y125.17
G1 F3480 X172.49 Y128.38 E1145.10273
G0 F6000 X171.78 Y128.38
G1 F3480 X175.00 Y125.17 E1145.29188
G0 F6000 X174.29 Y125.17
G1 F3480 X171.08 Y128.38 E1145.48103
G0 F6000 X170.37 Y128.38
G1 F3480 X173.59 Y125.17 E1145.67018
G0 F6000 X172.88 Y125.17
G1 F3480 X169.66 Y128.38 E1145.85932
G0 F6000 X168.96 Y128.38
G1 F3480 X172.17 Y125.17 E1146.04847
G0 F6000 X171.46 Y125.17
G1 F3480 X168.25 Y128.38 E1146.23759
G0 F6000 X167.54 Y128.38
G1 F3480 X170.76 Y125.17 E1146.42671
G0 F6000 X170.05 Y125.17
G1 F3480 X166.83 Y128.38 E1146.61582
G0 F6000 X166.13 Y128.38
G1 F3480 X169.34 Y125.17 E1146.80491
G0 F6000 X168.64 Y125.17
G1 F3480 X165.42 Y128.38 E1146.99400
G0 F6000 X164.71 Y128.38
G1 F3480 X167.93 Y125.17 E1147.18309
G0 F6000 X167.22 Y125.17
G1 F3480 X164.01 Y128.38 E1147.37218
G0 F6000 X163.30 Y128.38
G1 F3480 X166.51 Y125.17 E1147.56127
G0 F6000 X165.81 Y125.17
G1 F3480 X162.59 Y128.38 E1147.75035
G0 F6000 X161.88 Y128.38
G1 F3480 X165.10 Y125.17 E1147.93941
G0 F6000 X164.39 Y125.17
G1 F3480 X161.18 Y128.38 E1148.12850
G0 F6000 X160.47 Y128.38
G1 F3480 X163.69 Y125.17 E1148.31759
G0 F6000 X162.98 Y125.17
G1 F3480 X159.76 Y128.38 E1148.50668
G0 F6000 X159.06 Y128.38
G1 F3480 X162.27 Y125.17 E1148.69577
G0 F6000 X161.56 Y125.17
G1 F3480 X158.35 Y128.38 E1148.88486
G0 F6000 X157.64 Y128.38
G1 F3480 X160.86 Y125.17 E1149.07394
G0 F6000 X160.15 Y125.17
G1 F3480 X156.94 Y128.38 E1149.26303
G0 F6000 X156.23 Y128.38
G1 F3480 X159.44 Y125.17 E1149.45212
G0 F6000 X158.74 Y125.17
G1 F3480 X155.52 Y128.38 E1149.64118
G0 F6000 X154.81 Y128.38
G1 F3480 X158.03 Y125.17 E1149.83027
G0 F6000 X157.32 Y125.17
G1 F3480 X154.11 Y128.38 E1150.01936
G0 F6000 X153.40 Y128.38
G1 F3480 X156.62 Y125.17 E1150.20845
G0 F6000 X155.91 Y125.17
G1 F3480 X152.69 Y128.38 E1150.39753
G0 F6000 X151.99 Y128.38
G1 F3480 X155.20 Y125.17 E1150.58662
G0 F6000 X154.49 Y125.17
G1 F3480 X151.28 Y128.38 E1150.77571
G0 F6000 X150.57 Y128.38
G1 F3480 X153.79 Y125.17 E1150.96480
G0 F6000 X153.08 Y125.17
G1 F3480 X149.86 Y128.38 E1151.15389
G0 F6000 X149.16 Y128.38
G1 F3480 X152.37 Y125.17 E1151.34298
G0 F6000 X151.66 Y125.17
G1 F3480 X148.45 Y128.38 E1151.53207
G0 F6000 X147.74 Y128.38
G1 F3480 X150.96 Y125.17 E1151.72115
G0 F6000 X150.25 Y125.17
G1 F3480 X147.03 Y128.38 E1151.91024
G0 F6000 X146.33 Y128.38
G1 F3480 X149.54 Y125.17 E1152.09933
G0 F6000 X148.84 Y125.17
G1 F3480 X145.62 Y128.38 E1152.28842
G0 F6000 X144.91 Y128.38
G1 F3480 X148.13 Y125.17 E1152.47751
G0 F6000 X147.42 Y125.17
G1 F3480 X144.21 Y128.38 E1152.66660
G0 F6000 X143.50 Y128.38
G1 F3480 X146.72 Y125.17 E1152.85569
G0 F6000 X146.01 Y125.17
G1 F3480 X142.79 Y128.38 E1153.04477
G0 F6000 X142.09 Y128.38
G1 F3480 X145.30 Y125.17 E1153.23383
G0 F6000 X144.59 Y125.17
G1 F3480 X141.38 Y128.38 E1153.42292
G0 F6000 X140.67 Y128.38
G1 F3480 X143.89 Y125.17 E1153.61201
G0 F6000 X143.18 Y125.17
G1 F3480 X139.96 Y128.38 E1153.80110
G0 F6000 X139.26 Y128.38
G1 F3480 X142.47 Y125.17 E1153.99019
G0 F6000 X141.77 Y125.17
G1 F3480 X138.55 Y128.38 E1154.17927
G0 F6000 X137.84 Y128.38
G1 F3480 X141.06 Y125.17 E1154.36836
G0 F6000 X140.35 Y125.17
G1 F3480 X137.14 Y128.38 E1154.55742
G0 F6000 X136.43 Y128.38
G1 F3480 X139.65 Y125.17 E1154.74648
G0 F6000 X138.94 Y125.17
G1 F3480 X135.72 Y128.38 E1154.93551
G0 F6000 X135.01 Y128.38
G1 F3480 X138.23 Y125.17 E1155.12454
G0 F6000 X137.52 Y125.17
G1 F3480 X134.31 Y128.38 E1155.31357
G0 F6000 X133.60 Y128.38
G1 F3480 X136.82 Y125.17 E1155.50260
G0 F6000 X136.11 Y125.17
G1 F3480 X132.89 Y128.38 E1155.69163
G0 F6000 X132.19 Y128.38
G1 F3480 X135.40 Y125.17 E1155.88066
G0 F6000 X134.69 Y125.17
G1 F3480 X131.48 Y128.38 E1156.06969
G0 F6000 X130.77 Y128.38
G1 F3480 X133.99 Y125.17 E1156.25872
G0 F6000 X133.28 Y125.17
G1 F3480 X130.06 Y128.38 E1156.44778
G0 F6000 X129.36 Y128.38
G1 F3480 X132.57 Y125.17 E1156.63684
G0 F6000 X131.87 Y125.17
G1 F3480 X128.65 Y128.38 E1156.82587
G0 F6000 X127.94 Y128.38
G1 F3480 X131.16 Y125.17 E1157.01490
G0 F6000 X130.45 Y125.17
G1 F3480 X127.24 Y128.38 E1157.20393
G0 F6000 X126.53 Y128.38
G1 F3480 X129.75 Y125.17 E1157.39296
G0 F6000 X129.04 Y125.17
G1 F3480 X125.82 Y128.38 E1157.58199
G0 F6000 X125.12 Y128.38
G1 F3480 X128.33 Y125.17 E1157.77102
G0 F6000 X127.62 Y125.17
G1 F3480 X124.41 Y128.38 E1157.96004
G0 F6000 X123.70 Y128.38
G1 F3480 X126.92 Y125.17 E1158.14910
G0 F6000 X126.21 Y125.17
G1 F3480 X122.99 Y128.38 E1158.33816
G0 F6000 X122.29 Y128.38
G1 F3480 X125.50 Y125.17 E1158.52719
G0 F6000 X124.80 Y125.17
G1 F3480 X121.58 Y128.38 E1158.71622
G0 F6000 X120.87 Y128.38
G1 F3480 X124.09 Y125.17 E1158.90525
G0 F6000 X123.38 Y125.17
G1 F3480 X120.17 Y128.38 E1159.09428
G0 F6000 X119.46 Y128.38
G1 F3480 X122.67 Y125.17 E1159.28331
G0 F6000 X121.97 Y125.17
G1 F3480 X118.75 Y128.38 E1159.47234
G0 F6000 X118.05 Y128.38
G1 F3480 X121.26 Y125.17 E1159.66137
G0 F6000 X120.55 Y125.17
G1 F3480 X117.34 Y128.38 E1159.85040
G0 F6000 X116.63 Y128.38
G1 F3480 X119.85 Y125.17 E1160.03946
G0 F6000 X119.14 Y125.17
G1 F3480 X115.92 Y128.38 E1160.22852
G0 F6000 X115.22 Y128.38
G1 F3480 X118.43 Y125.17 E1160.41755
G0 F6000 X117.72 Y125.17
G1 F3480 X114.51 Y128.38 E1160.60658
G0 F6000 X113.80 Y128.38
G1 F3480 X117.02 Y125.17 E1160.79561
G0 F6000 X116.31 Y125.17
G1 F3480 X113.09 Y128.38 E1160.98464
G0 F6000 X112.39 Y128.38
G1 F3480 X115.60 Y125.17 E1161.17367
G0 F6000 X114.90 Y125.17
G1 F3480 X111.68 Y128.38 E1161.36270
G0 F6000 X110.97 Y128.38
G1 F3480 X114.19 Y125.17 E1161.55173
G0 F6000 X113.48 Y125.17
G1 F3480 X110.27 Y128.38 E1161.74079
G0 F6000 X109.56 Y128.38
G1 F3480 X112.78 Y125.17 E1161.92984
G0 F6000 X112.07 Y125.17
G1 F3480 X108.85 Y128.38 E1162.11887
G0 F6000 X107.99 Y128.53
G1 F3480 X111.36 Y125.17 E1162.31696
G0 F6000 X110.65 Y125.17
G1 F3480 X107.09 Y128.73 E1162.52639
G0 F6000 X106.19 Y128.92
G1 F3480 X109.95 Y125.17 E1162.74717
G0 F6000 X109.24 Y125.17
G1 F3480 X105.29 Y129.12 E1162.97936
G0 F6000 X104.39 Y129.31
G1 F3480 X108.53 Y125.17 E1163.22289
G0 F6000 X107.83 Y125.17
G1 F3480 X103.49 Y129.50 E1163.47777
G0 F6000 X102.59 Y129.69
G1 F3480 X107.12 Y125.17 E1163.74403
G0 F6000 X106.41 Y125.17
G1 F3480 X101.69 Y129.89 E1164.02164
G0 F6000 X100.79 Y130.08
G1 F3480 X105.70 Y125.17 E1164.31056
G0 F6000 X105.00 Y125.17
G1 F3480 X99.89 Y130.27 E1164.61089
G0 F6000 X98.99 Y130.47
G1 F3480 X104.29 Y125.17 E1164.92257
G0 F6000 X103.58 Y125.17
G1 F3480 X98.09 Y130.66 E1165.24560
G0 F6000 X97.19 Y130.85
G1 F3480 X102.88 Y125.17 E1165.57997
G0 F6000 X102.17 Y125.17
G1 F3480 X96.29 Y131.05 E1165.92569
G0 F6000 X95.39 Y131.24
G1 F3480 X101.46 Y125.17 E1166.28279
G0 F6000 X100.75 Y125.17
G1 F3480 X94.49 Y131.43 E1166.65127
G0 F6000 X93.59 Y131.63
G1 F3480 X100.05 Y125.17 E1167.03112
G0 F6000 X99.34 Y125.17
G1 F3480 X92.69 Y131.82 E1167.42232
G0 F6000 X91.79 Y132.01
G1 F3480 X98.63 Y125.17 E1167.82484
G0 F6000 X97.92 Y125.17
G1 F3480 X90.89 Y132.21 E1168.23870
G0 F6000 X89.99 Y132.40
G1 F3480 X97.22 Y125.17 E1168.66392
G0 F6000 X96.51 Y125.17
G1 F3480 X89.08 Y132.59 E1169.10054
G0 F6000 X88.19 Y132.78
G1 F3480 X95.80 Y125.17 E1169.54850
G0 F6000 X95.10 Y125.17
G1 F3480 X87.28 Y132.98 E1170.00782
G0 F6000 X86.39 Y133.17
G1 F3480 X94.39 Y125.17 E1170.47848
G0 F6000 X93.68 Y125.17
G1 F3480 X85.48 Y133.36 E1170.96052
G0 F6000 X84.58 Y133.56
G1 F3480 X92.98 Y125.17 E1171.45391
G0 F6000 X92.27 Y125.17
G1 F3480 X83.68 Y133.75 E1171.95868
G0 F6000 X83.08 Y133.64
G1 F3480 X91.56 Y125.17 E1172.45706
G0 F6000 X90.85 Y125.17
G1 F3480 X83.08 Y132.94 E1172.91388
G0 F6000 X83.08 Y132.23
G1 F3480 X90.15 Y125.17 E1173.32910
G0 F6000 X89.44 Y125.17
G1 F3480 X83.08 Y131.52 E1173.70275
G0 F6000 X83.08 Y130.81
G1 F3480 X88.73 Y125.17 E1174.03483
G0 F6000 X88.03 Y125.17
G1 F3480 X83.08 Y130.11 E1174.32534
G0 F6000 X83.08 Y129.40
G1 F3480 X87.32 Y125.17 E1174.57428
G0 F6000 X86.61 Y125.17
G1 F3480 X83.08 Y128.69 E1174.78166
G0 F6000 X83.08 Y127.99
G1 F3480 X85.90 Y125.17 E1174.94743
G0 F6000 X85.20 Y125.17
G1 F3480 X83.08 Y127.28 E1175.07164
G0 F6000 X83.08 Y126.57
G1 F3480 X84.49 Y125.17 E1175.15428
G0 F6000 X83.78 Y125.17
G1 F3480 X83.08 Y125.86 E1175.19535
G0 F6000 X208.31 Y134.84
;TYPE:SUPPORT
G1 F3480 X208.31 Y138.03 E1175.32793
G0 F6000 X208.31 Y137.86
G0 X211.65 Y137.88
G0 X211.65 Y138.05
G1 F3480 X211.65 Y134.85 E1175.46122
G0 F6000 X211.64 Y135.02
G0 X214.98 Y135.03
G0 X214.98 Y134.85
G1 F3480 X214.98 Y138.07 E1175.59526
G0 F6000 X224.98 Y138.14
G1 F3480 X224.98 Y123.09 E1176.22122
G0 F6000 X224.98 Y123.26
G0 X228.31 Y123.26
G0 X228.31 Y123.09
G1 F3480 X228.31 Y138.16 E1176.84809
G0 F6000 X228.31 Y137.99
G0 X231.64 Y138.01
G0 X231.64 Y138.19
G1 F3480 X231.64 Y123.09 E1177.47587
G0 F6000 X231.64 Y123.26
G0 X234.98 Y123.26
G0 X234.98 Y123.09
G1 F3480 X234.98 Y138.21 E1178.10457
G0 F6000 X234.98 Y138.03
G0 X238.31 Y138.06
G0 X238.31 Y138.23
G1 F3480 X238.31 Y123.09 E1178.73418
G0 F6000 X238.31 Y123.26
G0 X241.64 Y123.26
G0 X241.64 Y123.09
G1 F3480 X241.64 Y182.04 E1181.18504
G0 F6000 X241.64 Y181.86
G0 X238.31 Y181.86
G0 X238.31 Y182.04
G1 F3480 X238.31 Y176.29 E1181.42389
G0 F6000 X238.31 Y176.47
G0 X234.98 Y176.49
G0 X234.98 Y176.31
G1 F3480 X234.98 Y182.04 E1181.66182
G0 F6000 X234.98 Y181.86
G0 X231.64 Y181.86
G0 X231.64 Y182.04
G1 F3480 X231.64 Y176.34 E1181.89884
G0 F6000 X231.64 Y176.51
G0 X228.31 Y176.53
G0 X228.31 Y176.36
G1 F3480 X228.31 Y182.04 E1182.13495
G0 F6000 X228.31 Y181.86
G0 X224.98 Y181.86
G0 X224.98 Y182.04
G1 F3480 X224.98 Y176.38 E1182.37014
G0 F6000 X224.98 Y176.56
G0 X221.65 Y176.58
G0 X221.64 Y176.40
G1 F3480 X221.64 Y182.04 E1182.60442
G0 F6000 X221.64 Y181.86
G0 X218.31 Y181.86
G0 X218.31 Y182.04
G1 F3480 X218.31 Y176.42 E1182.83778
G0 F6000 X218.31 Y176.60
G0 X214.98 Y176.62
G0 X214.98 Y176.44
G1 F3480 X214.98 Y182.04 E1183.07023
G0 F6000 X214.98 Y181.86
G0 X211.65 Y181.86
G0 X211.65 Y182.04
G1 F3480 X211.65 Y176.47 E1183.30176
G0 F6000 X211.65 Y176.64
G0 X208.31 Y176.67
G0 X208.31 Y176.49
G1 F3480 X208.31 Y182.04 E1183.53237
G0 F6000 X208.31 Y181.86
G0 X204.98 Y181.86
G0 X204.98 Y182.04
G1 F3480 X204.98 Y177.23 E1183.73202
G0 F6000 X204.98 Y177.41
G0 X201.65 Y177.40
G0 X201.65 Y177.23
G1 F3480 X201.65 Y182.04 E1183.93183
G0 F6000 X201.65 Y181.86
G0 X198.31 Y181.86
G0 X198.31 Y182.04
G1 F3480 X198.31 Y177.22 E1184.13185
G0 F6000 X198.31 Y177.40
G0 X194.98 Y177.40
G0 X194.98 Y177.22
G1 F3480 X194.98 Y182.04 E1184.33203
G0 F6000 X194.98 Y181.86
G0 X191.65 Y181.86
G0 X191.65 Y182.04
G1 F3480 X191.65 Y177.22 E1184.53242
G0 F6000 X191.65 Y177.39
G0 X188.31 Y177.39
G0 X188.31 Y177.21
G1 F3480 X188.31 Y182.04 E1184.73298
G0 F6000 X188.31 Y181.86
G0 X184.98 Y181.86
G0 X184.98 Y182.04
G1 F3480 X184.98 Y177.21 E1184.93375
G0 F6000 X184.98 Y177.38
G0 X181.65 Y177.38
G0 X181.65 Y177.20
G1 F3480 X181.65 Y182.04 E1185.13468
G0 F6000 X181.65 Y181.86
G0 X178.31 Y181.86
G0 X178.31 Y182.04
G1 F3480 X178.31 Y177.20 E1185.33582
G0 F6000 X178.31 Y177.37
G0 X174.98 Y177.37
G0 X174.98 Y177.19
G1 F3480 X174.98 Y182.04 E1185.53713
G0 F6000 X174.98 Y181.86
G0 X171.65 Y181.86
G0 X171.65 Y182.04
G1 F3480 X171.65 Y177.19 E1185.73864
G0 F6000 X171.65 Y177.36
G0 X168.32 Y177.36
G0 X168.32 Y177.19
G1 F3480 X168.32 Y182.04 E1185.94033
G0 F6000 X168.32 Y181.86
G0 X164.98 Y181.86
G0 X164.98 Y182.04
G1 F3480 X164.98 Y177.18 E1186.14221
G0 F6000 X164.98 Y177.35
G0 X161.65 Y177.35
G0 X161.65 Y177.18
G1 F3480 X161.65 Y182.04 E1186.34427
G0 F6000 X161.65 Y181.86
G0 X158.32 Y181.86
G0 X158.32 Y182.04
G1 F3480 X158.32 Y177.17 E1186.54653
G0 F6000 X158.32 Y177.34
G0 X154.98 Y177.34
G0 X154.98 Y177.17
G1 F3480 X154.98 Y182.04 E1186.74896
G0 F6000 X154.98 Y181.86
G0 X151.65 Y181.86
G0 X151.65 Y182.04
G1 F3480 X151.65 Y177.16 E1186.95160
G0 F6000 X151.65 Y177.34
G0 X148.32 Y177.33
G0 X148.32 Y177.16
G1 F3480 X148.32 Y182.04 E1187.15440
G0 F6000 X148.32 Y181.86
G0 X144.99 Y181.86
G0 X144.99 Y182.04
G1 F3480 X144.99 Y177.15 E1187.35742
G0 F6000 X144.98 Y177.33
G0 X141.65 Y177.32
G0 X141.65 Y177.15
G1 F3480 X141.65 Y182.04 E1187.56063
G0 F6000 X141.65 Y181.86
G0 X138.32 Y181.86
G0 X138.32 Y182.04
G1 F3480 X138.32 Y177.14 E1187.76402
G0 F6000 X138.32 Y177.32
G0 X134.99 Y177.31
G0 X134.99 Y177.14
G1 F3480 X134.99 Y182.04 E1187.96761
G0 F6000 X134.99 Y181.86
G0 X131.65 Y181.86
G0 X131.65 Y182.04
G1 F3480 X131.65 Y177.13 E1188.17137
G0 F6000 X131.65 Y177.31
G0 X128.32 Y177.30
G0 X128.32 Y177.13
G1 F3480 X128.32 Y182.04 E1188.37534
G0 F6000 X128.32 Y181.86
G0 X124.99 Y181.86
G0 X124.99 Y182.04
G1 F3480 X124.99 Y177.13 E1188.57948
G0 F6000 X124.99 Y177.30
G0 X121.65 Y177.29
G0 X121.65 Y177.12
G1 F3480 X121.65 Y182.04 E1188.78382
G0 F6000 X121.65 Y181.86
G0 X118.32 Y181.86
G0 X118.32 Y182.04
G1 F3480 X118.32 Y177.12 E1188.98833
G0 F6000 X118.32 Y177.29
G0 X114.99 Y177.29
G0 X114.99 Y177.11
G1 F3480 X114.99 Y182.04 E1189.19304
G0 F6000 X114.99 Y181.86
G0 X111.66 Y181.86
G0 X111.66 Y182.04
G1 F3480 X111.66 Y177.11 E1189.39792
G0 F6000 X111.65 Y177.28
G0 X108.32 Y177.28
G0 X108.32 Y177.10
G1 F3480 X108.32 Y182.04 E1189.60301
G0 F6000 X108.32 Y181.86
G0 X104.99 Y181.86
G0 X104.99 Y182.04
G1 F3480 X104.99 Y177.10 E1189.80827
G0 F6000 X104.99 Y177.27
G0 X101.66 Y177.27
G0 X101.66 Y177.09
G1 F3480 X101.66 Y182.04 E1190.01374
G0 F6000 X101.66 Y181.86
G0 X98.32 Y181.86
G0 X98.32 Y182.04
G1 F3480 X98.32 Y177.09 E1190.21937
G0 F6000 X98.32 Y177.26
G0 X96.38 Y177.30
G0 X94.99 Y176.66
G0 X94.99 Y176.48
G1 F3480 X94.99 Y182.04 E1190.45032
G0 F6000 X94.99 Y181.86
G0 X91.66 Y181.86
G0 X91.66 Y182.04
G1 F3480 X91.66 Y176.46 E1190.68218
G0 F6000 X91.66 Y176.63
G0 X88.32 Y176.61
G0 X88.32 Y176.44
G1 F3480 X88.32 Y182.04 E1190.91496
G0 F6000 X88.32 Y181.86
G0 X84.99 Y181.86
G0 X84.99 Y182.04
G1 F3480 X84.99 Y176.41 E1191.14865
G0 F6000 X84.99 Y176.59
G0 X81.66 Y176.57
G0 X81.66 Y176.39
G1 F3480 X81.66 Y182.04 E1191.38326
G0 F6000 X81.66 Y181.86
G0 X78.33 Y181.86
G0 X78.33 Y182.04
G1 F3480 X78.33 Y176.37 E1191.61883
G0 F6000 X78.33 Y176.54
G0 X74.99 Y176.52
G0 X74.99 Y176.35
G1 F3480 X74.99 Y182.04 E1191.85531
G0 F6000 X74.99 Y181.86
G0 X71.66 Y181.86
G0 X71.66 Y182.04
G1 F3480 X71.66 Y176.33 E1192.09270
G0 F6000 X71.66 Y176.50
G0 X68.33 Y176.48
G0 X68.33 Y176.30
G1 F3480 X68.33 Y182.04 E1192.33101
G0 F6000 X68.33 Y181.86
G0 X64.99 Y181.86
G0 X64.99 Y182.04
G1 F3480 X64.99 Y123.09 E1194.78187
G0 F6000 X64.99 Y123.26
G0 X61.66 Y123.26
G0 X61.66 Y123.09
G1 F3480 X61.66 Y182.04 E1197.23272
G0 F6000 X61.66 Y181.86
G0 X66.18 Y138.01
G0 X68.33 Y138.04
G0 X68.33 Y138.22
G1 F3480 X68.33 Y123.09 E1197.86188
G0 F6000 X68.33 Y123.26
G0 X71.66 Y123.26
G0 X71.66 Y123.09
G1 F3480 X71.66 Y138.20 E1198.49012
G0 F6000 X71.66 Y138.02
G0 X74.99 Y138.00
G0 X74.99 Y138.18
G1 F3480 X74.99 Y123.09 E1199.11745
G0 F6000 X74.99 Y123.26
G0 X78.33 Y123.26
G0 X78.33 Y123.09
G1 F3480 X78.33 Y138.15 E1199.74382
G0 F6000 X88.32 Y138.09
G1 F3480 X88.32 Y134.85 E1199.87828
G0 F6000 X88.36 Y135.02
G0 X91.66 Y134.87
G0 X91.66 Y134.70
G1 F3480 X91.66 Y138.06 E1200.01813
G0 F6000 X91.66 Y137.89
G0 X94.99 Y137.87
G0 X94.99 Y138.04
G1 F3480 X94.99 Y134.70 E1200.15691
;LAYER:2
G0 F6000 X82.91 Y134.10 Z0.70
;TYPE:WALL-INNER
G1 F4320 X82.91 Y124.99 E1200.53541
G1 X222.09 Y124.99 E1206.32185
G1 X222.09 Y134.39 E1206.71265
G1 X221.77 Y134.39 E1206.72591
G1 X195.14 Y128.68 E1207.85841
G1 X108.16 Y128.68 E1211.47433
G1 X82.91 Y134.10 E1212.54816
G0 F6000 X82.41 Y134.71
G1 F4320 X82.41 Y124.49 E1212.97314
G1 X222.59 Y124.49 E1218.80115
G1 X222.59 Y134.89 E1219.23353
G1 X221.72 Y134.89 E1219.26979
G1 X195.08 Y129.18 E1220.40229
G1 X108.22 Y129.18 E1224.01380
G1 X82.41 Y134.71 E1225.11114
G0 F6000 X81.91 Y135.33
;TYPE:WALL-OUTER
G1 F4320 X81.91 Y123.99 E1225.58264
G1 X223.09 Y123.99 E1231.45222
G1 X223.09 Y135.39 E1231.92618
G1 X221.66 Y135.39 E1231.98547
G1 X195.03 Y129.68 E1233.11793
G1 X108.27 Y129.68 E1236.72503
G1 X81.91 Y135.33 E1237.84589
G0 F6000 X83.28 Y133.84
;TYPE:FILL
G1 F4320 X83.08 Y133.64 E1237.85723
G0 F6000 X83.08 Y132.94
G1 F4320 X83.86 Y133.71 E1237.90286
G0 F6000 X84.44 Y133.59
G1 F4320 X83.08 Y132.23 E1237.98273
G0 F6000 X83.08 Y131.52
G1 F4320 X85.03 Y133.46 E1238.09683
G0 F6000 X85.61 Y133.34
G1 F4320 X83.08 Y130.81 E1238.24517
G0 F6000 X83.08 Y130.11
G1 F4320 X86.19 Y133.21 E1238.42770
G0 F6000 X86.77 Y133.09
G1 F4320 X83.08 Y129.40 E1238.64445
G0 F6000 X83.08 Y128.69
G1 F4320 X87.35 Y132.96 E1238.89546
G0 F6000 X87.94 Y132.84
G1 F4320 X83.08 Y127.99 E1239.18068
G0 F6000 X83.08 Y127.28
G1 F4320 X88.52 Y132.71 E1239.50012
G0 F6000 X89.10 Y132.59
G1 F4320 X83.08 Y126.57 E1239.85383
G0 F6000 X83.08 Y125.86
G1 F4320 X89.68 Y132.46 E1240.24177
G0 F6000 X90.27 Y132.34
G1 F4320 X83.09 Y125.17 E1240.66337
G0 F6000 X83.80 Y125.17
G1 F4320 X90.85 Y132.21 E1241.07765
G0 F6000 X91.43 Y132.09
G1 F4320 X84.51 Y125.17 E1241.48457
G0 F6000 X85.22 Y125.17
G1 F4320 X92.01 Y131.96 E1241.88415
G0 F6000 X92.59 Y131.84
G1 F4320 X85.92 Y125.17 E1242.27641
G0 F6000 X86.63 Y125.17
G1 F4320 X93.18 Y131.71 E1242.66132
G0 F6000 X93.76 Y131.59
G1 F4320 X87.34 Y125.17 E1243.03888
G0 F6000 X88.04 Y125.17
G1 F4320 X94.34 Y131.46 E1243.40909
G0 F6000 X94.92 Y131.34
G1 F4320 X88.75 Y125.17 E1243.77192
G0 F6000 X89.46 Y125.17
G1 F4320 X95.50 Y131.21 E1244.12740
G0 F6000 X96.09 Y131.09
G1 F4320 X90.17 Y125.17 E1244.47559
G0 F6000 X90.87 Y125.17
G1 F4320 X96.67 Y130.96 E1244.81641
G0 F6000 X97.25 Y130.84
G1 F4320 X91.58 Y125.17 E1245.14987
G0 F6000 X92.29 Y125.17
G1 F4320 X97.83 Y130.71 E1245.47598
G0 F6000 X98.42 Y130.59
G1 F4320 X92.99 Y125.17 E1245.79477
G0 F6000 X93.70 Y125.17
G1 F4320 X99.00 Y130.46 E1246.10622
G0 F6000 X99.58 Y130.34
G1 F4320 X94.41 Y125.17 E1246.41028
G0 F6000 X95.11 Y125.17
G1 F4320 X100.16 Y130.21 E1246.70703
G0 F6000 X100.74 Y130.09
G1 F4320 X95.82 Y125.17 E1246.99642
G0 F6000 X96.53 Y125.17
G1 F4320 X101.33 Y129.96 E1247.27847
G0 F6000 X101.91 Y129.84
G1 F4320 X97.24 Y125.17 E1247.55316
G0 F6000 X97.94 Y125.17
G1 F4320 X102.49 Y129.71 E1247.82051
G0 F6000 X103.07 Y129.59
G1 F4320 X98.65 Y125.17 E1248.08050
G0 F6000 X99.36 Y125.17
G1 F4320 X103.66 Y129.46 E1248.33318
G0 F6000 X104.24 Y129.34
G1 F4320 X100.06 Y125.17 E1248.57851
G0 F6000 X100.77 Y125.17
G1 F4320 X104.82 Y129.21 E1248.81649
G0 F6000 X105.40 Y129.09
G1 F4320 X101.48 Y125.17 E1249.04714
G0 F6000 X102.19 Y125.17
G1 F4320 X105.98 Y128.96 E1249.27039
G0 F6000 X106.56 Y128.84
G1 F4320 X102.89 Y125.17 E1249.48629
G0 F6000 X103.60 Y125.17
G1 F4320 X107.15 Y128.72 E1249.69490
G0 F6000 X107.73 Y128.59
G1 F4320 X104.31 Y125.17 E1249.89616
G0 F6000 X105.01 Y125.17
G1 F4320 X108.35 Y128.50 E1250.09222
G0 F6000 X109.06 Y128.50
G1 F4320 X105.72 Y125.17 E1250.28827
G0 F6000 X106.43 Y125.17
G1 F4320 X109.76 Y128.50 E1250.48433
G0 F6000 X110.47 Y128.50
G1 F4320 X107.14 Y125.17 E1250.68038
G0 F6000 X107.84 Y125.17
G1 F4320 X111.18 Y128.50 E1250.87644
G0 F6000 X111.88 Y128.50
G1 F4320 X108.55 Y125.17 E1251.07247
G0 F6000 X109.26 Y125.17
G1 F4320 X112.59 Y128.50 E1251.26849
G0 F6000 X113.30 Y128.50
G1 F4320 X109.96 Y125.17 E1251.46455
G0 F6000 X110.67 Y125.17
G1 F4320 X114.01 Y128.50 E1251.66060
G0 F6000 X114.71 Y128.50
G1 F4320 X111.38 Y125.17 E1251.85666
G0 F6000 X112.08 Y125.17
G1 F4320 X115.42 Y128.50 E1252.05272
G0 F6000 X116.13 Y128.50
G1 F4320 X112.79 Y125.17 E1252.24877
G0 F6000 X113.50 Y125.17
G1 F4320 X116.83 Y128.50 E1252.44483
G0 F6000 X117.54 Y128.50
G1 F4320 X114.21 Y125.17 E1252.64088
G0 F6000 X114.91 Y125.17
G1 F4320 X118.25 Y128.50 E1252.83691
G0 F6000 X118.95 Y128.50
G1 F4320 X115.62 Y125.17 E1253.03294
G0 F6000 X116.33 Y125.17
G1 F4320 X119.66 Y128.50 E1253.22896
G0 F6000 X120.37 Y128.50
G1 F4320 X117.03 Y125.17 E1253.42502
G0 F6000 X117.74 Y125.17
G1 F4320 X121.08 Y128.50 E1253.62107
G0 F6000 X121.78 Y128.50
G1 F4320 X118.45 Y125.17 E1253.81713
G0 F6000 X119.16 Y125.17
G1 F4320 X122.49 Y128.50 E1254.01319
G0 F6000 X123.20 Y128.50
G1 F4320 X119.86 Y125.17 E1254.20924
G0 F6000 X120.57 Y125.17
G1 F4320 X123.91 Y128.50 E1254.40530
G0 F6000 X124.61 Y128.50
G1 F4320 X121.28 Y125.17 E1254.60132
G0 F6000 X121.98 Y125.17
G1 F4320 X125.32 Y128.50 E1254.79735
G0 F6000 X126.03 Y128.50
G1 F4320 X122.69 Y125.17 E1254.99338
G0 F6000 X123.40 Y125.17
G1 F4320 X126.73 Y128.50 E1255.18943
G0 F6000 X127.44 Y128.50
G1 F4320 X124.11 Y125.17 E1255.38549
G0 F6000 X124.81 Y125.17
G1 F4320 X128.15 Y128.50 E1255.58154
G0 F6000 X128.85 Y128.50
G1 F4320 X125.52 Y125.17 E1255.77760
G0 F6000 X126.23 Y125.17
G1 F4320 X129.56 Y128.50 E1255.97366
G0 F6000 X130.27 Y128.50
G1 F4320 X126.93 Y125.17 E1256.16971
G0 F6000 X127.64 Y125.17
G1 F4320 X130.98 Y128.50 E1256.36577
G0 F6000 X131.68 Y128.50
G1 F4320 X128.35 Y125.17 E1256.56179
G0 F6000 X129.06 Y125.17
G1 F4320 X132.39 Y128.50 E1256.75782
G0 F6000 X133.10 Y128.50
G1 F4320 X129.76 Y125.17 E1256.95388
G0 F6000 X130.47 Y125.17
G1 F4320 X133.81 Y128.50 E1257.14993
G0 F6000 X134.51 Y128.50
G1 F4320 X131.18 Y125.17 E1257.34599
G0 F6000 X131.88 Y125.17
G1 F4320 X135.22 Y128.50 E1257.54204
G0 F6000 X135.93 Y128.50
G1 F4320 X132.59 Y125.17 E1257.73810
G0 F6000 X133.30 Y125.17
G1 F4320 X136.63 Y128.50 E1257.93415
G0 F6000 X137.34 Y128.50
G1 F4320 X134.00 Y125.17 E1258.13027
G0 F6000 X134.71 Y125.17
G1 F4320 X138.05 Y128.50 E1258.32635
G0 F6000 X138.75 Y128.50
G1 F4320 X135.42 Y125.17 E1258.52244
G0 F6000 X136.13 Y125.17
G1 F4320 X139.46 Y128.50 E1258.71852
G0 F6000 X140.17 Y128.50
G1 F4320 X136.83 Y125.17 E1258.91461
G0 F6000 X137.54 Y125.17
G1 F4320 X140.88 Y128.50 E1259.11070
G0 F6000 X141.58 Y128.50
G1 F4320 X138.25 Y125.17 E1259.30678
G0 F6000 X138.96 Y125.17
G1 F4320 X142.29 Y128.50 E1259.50290
G0 F6000 X143.00 Y128.50
G1 F4320 X139.66 Y125.17 E1259.69901
G0 F6000 X140.37 Y125.17
G1 F4320 X143.71 Y128.50 E1259.89512
G0 F6000 X144.41 Y128.50
G1 F4320 X141.08 Y125.17 E1260.09124
G0 F6000 X141.78 Y125.17
G1 F4320 X145.12 Y128.50 E1260.28732
G0 F6000 X145.83 Y128.50
G1 F4320 X142.49 Y125.17 E1260.48341
G0 F6000 X143.20 Y125.17
G1 F4320 X146.53 Y128.50 E1260.67949
G0 F6000 X147.24 Y128.50
G1 F4320 X143.91 Y125.17 E1260.87558
G0 F6000 X144.61 Y125.17
G1 F4320 X147.95 Y128.50 E1261.07167
G0 F6000 X148.66 Y128.50
G1 F4320 X145.32 Y125.17 E1261.26778
G0 F6000 X146.03 Y125.17
G1 F4320 X149.36 Y128.50 E1261.46389
G0 F6000 X150.07 Y128.50
G1 F4320 X146.73 Y125.17 E1261.66001
G0 F6000 X147.44 Y125.17
G1 F4320 X150.78 Y128.50 E1261.85612
G0 F6000 X151.48 Y128.50
G1 F4320 X148.15 Y125.17 E1262.05221
G0 F6000 X148.85 Y125.17
G1 F4320 X152.19 Y128.50 E1262.24829
G0 F6000 X152.90 Y128.50
G1 F4320 X149.56 Y125.17 E1262.44438
G0 F6000 X150.27 Y125.17
G1 F4320 X153.60 Y128.50 E1262.64046
G0 F6000 X154.31 Y128.50
G1 F4320 X150.98 Y125.17 E1262.83655
G0 F6000 X151.68 Y125.17
G1 F4320 X155.02 Y128.50 E1263.03266
G0 F6000 X155.73 Y128.50
G1 F4320 X152.39 Y125.17 E1263.22878
G0 F6000 X153.10 Y125.17
G1 F4320 X156.43 Y128.50 E1263.42489
G0 F6000 X157.14 Y128.50
G1 F4320 X153.80 Y125.17 E1263.62101
G0 F6000 X154.51 Y125.17
G1 F4320 X157.85 Y128.50 E1263.81709
G0 F6000 X158.55 Y128.50
G1 F4320 X155.22 Y125.17 E1264.01318
G0 F6000 X155.93 Y125.17
G1 F4320 X159.26 Y128.50 E1264.20926
G0 F6000 X159.97 Y128.50
G1 F4320 X156.63 Y125.17 E1264.40535
G0 F6000 X157.34 Y125.17
G1 F4320 X160.68 Y128.50 E1264.60143
G0 F6000 X161.38 Y128.50
G1 F4320 X158.05 Y125.17 E1264.79752
G0 F6000 X158.75 Y125.17
G1 F4320 X162.09 Y128.50 E1264.99363
G0 F6000 X162.80 Y128.50
G1 F4320 X159.46 Y125.17 E1265.18975
G0 F6000 X160.17 Y125.17
G1 F4320 X163.50 Y128.50 E1265.38586
G0 F6000 X164.21 Y128.50
G1 F4320 X160.88 Y125.17 E1265.58198
G0 F6000 X161.58 Y125.17
G1 F4320 X164.92 Y128.50 E1265.77806
G0 F6000 X165.62 Y128.50
G1 F4320 X162.29 Y125.17 E1265.97415
G0 F6000 X163.00 Y125.17
G1 F4320 X166.33 Y128.50 E1266.17029
G0 F6000 X167.04 Y128.50
G1 F4320 X163.70 Y125.17 E1266.36644
G0 F6000 X164.41 Y125.17
G1 F4320 X167.75 Y128.50 E1266.56258
G0 F6000 X168.45 Y128.50
G1 F4320 X165.12 Y125.17 E1266.75872
G0 F6000 X165.82 Y125.17
G1 F4320 X169.16 Y128.50 E1266.95487
G0 F6000 X169.87 Y128.50
G1 F4320 X166.53 Y125.17 E1267.15101
G0 F6000 X167.24 Y125.17
G1 F4320 X170.58 Y128.50 E1267.34719
G0 F6000 X171.28 Y128.50
G1 F4320 X167.95 Y125.17 E1267.54333
G0 F6000 X168.65 Y125.17
G1 F4320 X171.99 Y128.50 E1267.73947
G0 F6000 X172.70 Y128.50
G1 F4320 X169.36 Y125.17 E1267.93562
G0 F6000 X170.07 Y125.17
G1 F4320 X173.40 Y128.50 E1268.13176
G0 F6000 X174.11 Y128.50
G1 F4320 X170.78 Y125.17 E1268.32791
G0 F6000 X171.48 Y125.17
G1 F4320 X174.82 Y128.50 E1268.52405
G0 F6000 X175.53 Y128.50
G1 F4320 X172.19 Y125.17 E1268.72019
G0 F6000 X172.90 Y125.17
G1 F4320 X176.23 Y128.50 E1268.91634
G0 F6000 X176.94 Y128.50
G1 F4320 X173.60 Y125.17 E1269.11251
G0 F6000 X174.31 Y125.17
G1 F4320 X177.65 Y128.50 E1269.30866
G0 F6000 X178.35 Y128.50
G1 F4320 X175.02 Y125.17 E1269.50480
G0 F6000 X175.72 Y125.17
G1 F4320 X179.06 Y128.50 E1269.70094
G0 F6000 X179.77 Y128.50
G1 F4320 X176.43 Y125.17 E1269.89709
G0 F6000 X177.14 Y125.17
G1 F4320 X180.47 Y128.50 E1270.09323
G0 F6000 X181.18 Y128.50
G1 F4320 X177.85 Y125.17 E1270.28938
G0 F6000 X178.55 Y125.17
G1 F4320 X181.89 Y128.50 E1270.48552
G0 F6000 X182.60 Y128.50
G1 F4320 X179.26 Y125.17 E1270.68166
G0 F6000 X179.97 Y125.17
G1 F4320 X183.30 Y128.50 E1270.87781
G0 F6000 X184.01 Y128.50
G1 F4320 X180.67 Y125.17 E1271.07398
G0 F6000 X181.38 Y125.17
G1 F4320 X184.72 Y128.50 E1271.27012
G0 F6000 X185.43 Y128.50
G1 F4320 X182.09 Y125.17 E1271.46627
G0 F6000 X182.80 Y125.17
G1 F4320 X186.13 Y128.50 E1271.66241
G0 F6000 X186.84 Y128.50
G1 F4320 X183.50 Y125.17 E1271.85856
G0 F6000 X184.21 Y125.17
G1 F4320 X187.55 Y128.50 E1272.05470
G0 F6000 X188.25 Y128.50
G1 F4320 X184.92 Y125.17 E1272.25085
G0 F6000 X185.62 Y125.17
G1 F4320 X188.96 Y128.50 E1272.44699
G0 F6000 X189.67 Y128.50
G1 F4320 X186.33 Y125.17 E1272.64313
G0 F6000 X187.04 Y125.17
G1 F4320 X190.38 Y128.50 E1272.83931
G0 F6000 X191.08 Y128.50
G1 F4320 X187.75 Y125.17 E1273.03545
G0 F6000 X188.45 Y125.17
G1 F4320 X191.79 Y128.50 E1273.23159
G0 F6000 X192.50 Y128.50
G1 F4320 X189.16 Y125.17 E1273.42774
G0 F6000 X189.87 Y125.17
G1 F4320 X193.20 Y128.50 E1273.62388
G0 F6000 X193.91 Y128.50
G1 F4320 X190.57 Y125.17 E1273.82003
G0 F6000 X191.28 Y125.17
G1 F4320 X194.62 Y128.50 E1274.01617
G0 F6000 X195.37 Y128.55
G1 F4320 X191.99 Y125.17 E1274.21505
G0 F6000 X192.69 Y125.17
G1 F4320 X196.27 Y128.74 E1274.42527
G0 F6000 X197.17 Y128.94
G1 F4320 X193.40 Y125.17 E1274.64685
G0 F6000 X194.11 Y125.17
G1 F4320 X198.07 Y129.13 E1274.87977
G0 F6000 X198.97 Y129.32
G1 F4320 X194.82 Y125.17 E1275.12407
G0 F6000 X195.52 Y125.17
G1 F4320 X199.87 Y129.51 E1275.37971
G0 F6000 X200.77 Y129.71
G1 F4320 X196.23 Y125.17 E1275.64674
G0 F6000 X196.94 Y125.17
G1 F4320 X201.67 Y129.90 E1275.92511
G0 F6000 X202.57 Y130.09
G1 F4320 X197.65 Y125.17 E1276.21482
G0 F6000 X198.35 Y125.17
G1 F4320 X203.47 Y130.29 E1276.51589
G0 F6000 X204.37 Y130.48
G1 F4320 X199.06 Y125.17 E1276.82833
G0 F6000 X199.77 Y125.17
G1 F4320 X205.27 Y130.67 E1277.15212
G0 F6000 X206.17 Y130.87
G1 F4320 X200.47 Y125.17 E1277.48726
G0 F6000 X201.18 Y125.17
G1 F4320 X207.07 Y131.06 E1277.83375
G0 F6000 X207.97 Y131.25
G1 F4320 X201.89 Y125.17 E1278.19158
G0 F6000 X202.59 Y125.17
G1 F4320 X208.88 Y131.45 E1278.56079
G0 F6000 X209.78 Y131.64
G1 F4320 X203.30 Y125.17 E1278.94135
G0 F6000 X204.01 Y125.17
G1 F4320 X210.68 Y131.83 E1279.33325
G0 F6000 X211.57 Y132.03
G1 F4320 X204.72 Y125.17 E1279.73654
G0 F6000 X205.42 Y125.17
G1 F4320 X212.47 Y132.22 E1280.15117
G0 F6000 X213.38 Y132.41
G1 F4320 X206.13 Y125.17 E1280.57715
G0 F6000 X206.84 Y125.17
G1 F4320 X214.28 Y132.60 E1281.01447
G0 F6000 X215.18 Y132.80
G1 F4320 X207.54 Y125.17 E1281.46315
G0 F6000 X208.25 Y125.17
G1 F4320 X216.08 Y132.99 E1281.92317
G0 F6000 X216.98 Y133.18
G1 F4320 X208.96 Y125.17 E1282.39457
G0 F6000 X209.67 Y125.17
G1 F4320 X217.88 Y133.38 E1282.87734
G0 F6000 X218.78 Y133.57
G1 F4320 X210.37 Y125.17 E1283.37146
G0 F6000 X211.08 Y125.17
G1 F4320 X219.68 Y133.76 E1283.87693
G0 F6000 X220.58 Y133.96
G1 F4320 X211.79 Y125.17 E1284.39375
G0 F6000 X212.49 Y125.17
G1 F4320 X221.48 Y134.15 E1284.92192
G0 F6000 X221.91 Y133.88
G1 F4320 X213.20 Y125.17 E1285.43421
G0 F6000 X213.91 Y125.17
G1 F4320 X221.91 Y133.17 E1285.90490
G0 F6000 X221.91 Y132.47
G1 F4320 X214.62 Y125.17 E1286.33400
G0 F6000 X215.32 Y125.17
G1 F4320 X221.91 Y131.76 E1286.72152
G0 F6000 X221.91 Y131.05
G1 F4320 X216.03 Y125.17 E1287.06748
G0 F6000 X216.74 Y125.17
G1 F4320 X221.91 Y130.34 E1287.37187
G0 F6000 X221.91 Y129.64
G1 F4320 X217.44 Y125.17 E1287.63469
G0 F6000 X218.15 Y125.17
G1 F4320 X221.91 Y128.93 E1287.85594
G0 F6000 X221.91 Y128.22
G1 F4320 X218.86 Y125.17 E1288.03562
G0 F6000 X219.56 Y125.17
G1 F4320 X221.91 Y127.52 E1288.17373
G0 F6000 X221.91 Y126.81
G1 F4320 X220.27 Y125.17 E1288.27024
G0 F6000 X220.98 Y125.17
G1 F4320 X221.91 Y126.10 E1288.32516
G0 F6000 X221.91 Y125.39
G1 F4320 X221.69 Y125.17 E1288.33851
G0 F6000 X94.99 Y134.70
;TYPE:SUPPORT
G1 F4320 X94.99 Y138.04 E1288.47728
G0 F6000 X94.99 Y137.87
G0 X91.66 Y137.89
G0 X91.66 Y138.06
G1 F4320 X91.66 Y134.70 E1288.61714
G0 F6000 X91.66 Y134.87
G0 X88.36 Y135.02
G0 X88.32 Y134.85
G1 F4320 X88.32 Y138.09 E1288.75160
G0 F6000 X78.33 Y138.15
G1 F4320 X78.33 Y123.09 E1289.37797
G0 F6000 X78.33 Y123.26
G0 X74.99 Y123.26
G0 X74.99 Y123.09
G1 F4320 X74.99 Y138.18 E1290.00530
G0 F6000 X74.99 Y138.00
G0 X71.66 Y138.02
G0 X71.66 Y138.20
G1 F4320 X71.66 Y123.09 E1290.63354
G0 F6000 X71.66 Y123.26
G0 X68.33 Y123.26
G0 X68.33 Y123.09
G1 F4320 X68.33 Y138.22 E1291.26269
G0 F6000 X68.33 Y138.04
G0 X64.99 Y123.26
G0 X64.99 Y123.09
G1 F4320 X64.99 Y182.04 E1293.71355
G0 F6000 X64.99 Y181.86
G0 X61.66 Y181.86
G0 X61.66 Y182.04
G1 F4320 X61.66 Y123.09 E1296.16441
G0 F6000 X61.66 Y123.26
G0 X66.18 Y176.51
G0 X68.33 Y176.48
G0 X68.33 Y176.30
G1 F4320 X68.33 Y182.04 E1296.40272
G0 F6000 X68.33 Y181.86
G0 X71.66 Y181.86
G0 X71.66 Y182.04
G1 F4320 X71.66 Y176.33 E1296.64011
G0 F6000 X71.66 Y176.50
G0 X74.99 Y176.52
G0 X74.99 Y176.35
G1 F4320 X74.99 Y182.04 E1296.87659
G0 F6000 X74.99 Y181.86
G0 X78.33 Y181.86
G0 X78.33 Y182.04
G1 F4320 X78.33 Y176.37 E1297.11215
G0 F6000 X78.33 Y176.54
G0 X81.66 Y176.57
G0 X81.66 Y176.39
G1 F4320 X81.66 Y182.04 E1297.34676
G0 F6000 X81.66 Y181.86
G0 X84.99 Y181.86
G0 X84.99 Y182.04
G1 F4320 X84.99 Y176.41 E1297.58046
G0 F6000 X84.99 Y176.59
G0 X88.32 Y176.61
G0 X88.32 Y176.44
G1 F4320 X88.32 Y182.04 E1297.81324
G0 F6000 X88.32 Y181.86
G0 X91.66 Y181.86
G0 X91.66 Y182.04
G1 F4320 X91.66 Y176.46 E1298.04510
G0 F6000 X91.66 Y176.63
G0 X94.99 Y176.66
G0 X94.99 Y176.48
G1 F4320 X94.99 Y182.04 E1298.27605
G0 F6000 X94.99 Y181.86
G0 X98.32 Y181.86
G0 X98.32 Y182.04
G1 F4320 X98.32 Y177.09 E1298.48168
G0 F6000 X98.32 Y177.26
G0 X101.66 Y177.27
G0 X101.66 Y177.09
G1 F4320 X101.66 Y182.04 E1298.68715
G0 F6000 X101.66 Y181.86
G0 X104.99 Y181.86
G0 X104.99 Y182.04
G1 F4320 X104.99 Y177.10 E1298.89240
G0 F6000 X104.99 Y177.27
G0 X108.32 Y177.28
G0 X108.32 Y177.10
G1 F4320 X108.32 Y182.04 E1299.09749
G0 F6000 X108.32 Y181.86
G0 X111.66 Y181.86
G0 X111.66 Y182.04
G1 F4320 X111.66 Y177.11 E1299.30238
G0 F6000 X111.65 Y177.28
G0 X114.99 Y177.29
G0 X114.99 Y177.11
G1 F4320 X114.99 Y182.04 E1299.50709
G0 F6000 X114.99 Y181.86
G0 X118.32 Y181.86
G0 X118.32 Y182.04
G1 F4320 X118.32 Y177.12 E1299.71160
G0 F6000 X118.32 Y177.29
G0 X121.65 Y177.29
G0 X121.65 Y177.12
G1 F4320 X121.65 Y182.04 E1299.91594
G0 F6000 X121.65 Y181.86
G0 X124.99 Y181.86
G0 X124.99 Y182.04
G1 F4320 X124.99 Y177.13 E1300.12008
G0 F6000 X124.99 Y177.30
G0 X128.32 Y177.30
G0 X128.32 Y177.13
G1 F4320 X128.32 Y182.04 E1300.32404
G0 F6000 X128.32 Y181.86
G0 X131.65 Y181.86
G0 X131.65 Y182.04
G1 F4320 X131.65 Y177.13 E1300.52780
G0 F6000 X131.65 Y177.31
G0 X134.99 Y177.31
G0 X134.99 Y177.14
G1 F4320 X134.99 Y182.04 E1300.73140
G0 F6000 X134.99 Y181.86
G0 X138.32 Y181.86
G0 X138.32 Y182.04
G1 F4320 X138.32 Y177.14 E1300.93478
G0 F6000 X138.32 Y177.32
G0 X141.65 Y177.32
G0 X141.65 Y177.15
G1 F4320 X141.65 Y182.04 E1301.13800
G0 F6000 X141.65 Y181.86
G0 X144.99 Y181.86
G0 X144.99 Y182.04
G1 F4320 X144.99 Y177.15 E1301.34101
G0 F6000 X144.98 Y177.33
G0 X148.32 Y177.33
G0 X148.32 Y177.16
G1 F4320 X148.32 Y182.04 E1301.54382
G0 F6000 X148.32 Y181.86
G0 X151.65 Y181.86
G0 X151.65 Y182.04
G1 F4320 X151.65 Y177.16 E1301.74646
G0 F6000 X151.65 Y177.34
G0 X154.98 Y177.34
G0 X154.98 Y177.17
G1 F4320 X154.98 Y182.04 E1301.94889
G0 F6000 X154.98 Y181.86
G0 X158.32 Y181.86
G0 X158.32 Y182.04
G1 F4320 X158.32 Y177.17 E1302.15115
G0 F6000 X158.32 Y177.34
G0 X161.65 Y177.35
G0 X161.65 Y177.18
G1 F4320 X161.65 Y182.04 E1302.35320
G0 F6000 X161.65 Y181.86
G0 X164.98 Y181.86
G0 X164.98 Y182.04
G1 F4320 X164.98 Y177.18 E1302.55509
G0 F6000 X164.98 Y177.35
G0 X168.32 Y177.36
G0 X168.32 Y177.19
G1 F4320 X168.32 Y182.04 E1302.75677
G0 F6000 X168.32 Y181.86
G0 X171.65 Y181.86
G0 X171.65 Y182.04
G1 F4320 X171.65 Y177.19 E1302.95829
G0 F6000 X171.65 Y177.36
G0 X174.98 Y177.37
G0 X174.98 Y177.19
G1 F4320 X174.98 Y182.04 E1303.15960
G0 F6000 X174.98 Y181.86
G0 X178.31 Y181.86
G0 X178.31 Y182.04
G1 F4320 X178.31 Y177.20 E1303.36074
G0 F6000 X178.31 Y177.37
G0 X181.65 Y177.38
G0 X181.65 Y177.20
G1 F4320 X181.65 Y182.04 E1303.56167
G0 F6000 X181.65 Y181.86
G0 X184.98 Y181.86
G0 X184.98 Y182.04
G1 F4320 X184.98 Y177.21 E1303.76244
G0 F6000 X184.98 Y177.38
G0 X188.31 Y177.39
G0 X188.31 Y177.21
G1 F4320 X188.31 Y182.04 E1303.96299
G0 F6000 X188.31 Y181.86
G0 X191.65 Y181.86
G0 X191.65 Y182.04
G1 F4320 X191.65 Y177.22 E1304.16339
G0 F6000 X191.65 Y177.39
G0 X194.98 Y177.40
G0 X194.98 Y177.22
G1 F4320 X194.98 Y182.04 E1304.36357
G0 F6000 X194.98 Y181.86
G0 X198.31 Y181.86
G0 X198.31 Y182.04
G1 F4320 X198.31 Y177.22 E1304.56359
G0 F6000 X198.31 Y177.40
G0 X201.65 Y177.40
G0 X201.65 Y177.23
G1 F4320 X201.65 Y182.04 E1304.76340
G0 F6000 X201.65 Y181.86
G0 X204.98 Y181.86
G0 X204.98 Y182.04
G1 F4320 X204.98 Y177.23 E1304.96304
G0 F6000 X204.98 Y177.41
G0 X208.36 Y177.45
G0 X208.31 Y176.67
G0 X208.31 Y176.49
G1 F4320 X208.31 Y182.04 E1305.19366
G0 F6000 X208.31 Y181.86
G0 X211.65 Y181.86
G0 X211.65 Y182.04
G1 F4320 X211.65 Y176.47 E1305.42519
G0 F6000 X211.65 Y176.64
G0 X214.98 Y176.62
G0 X214.98 Y176.44
G1 F4320 X214.98 Y182.04 E1305.65764
G0 F6000 X214.98 Y181.86
G0 X218.31 Y181.86
G0 X218.31 Y182.04
G1 F4320 X218.31 Y176.42 E1305.89100
G0 F6000 X218.31 Y176.60
G0 X221.65 Y176.58
G0 X221.64 Y176.40
G1 F4320 X221.64 Y182.04 E1306.12528
G0 F6000 X221.64 Y181.86
G0 X224.98 Y181.86
G0 X224.98 Y182.04
G1 F4320 X224.98 Y176.38 E1306.36047
G0 F6000 X224.98 Y176.56
G0 X228.31 Y176.53
G0 X228.31 Y176.36
G1 F4320 X228.31 Y182.04 E1306.59657
G0 F6000 X228.31 Y181.86
G0 X231.64 Y181.86
G0 X231.64 Y182.04
G1 F4320 X231.64 Y176.34 E1306.83359
G0 F6000 X231.64 Y176.51
G0 X234.98 Y176.49
G0 X234.98 Y176.31
G1 F4320 X234.98 Y182.04 E1307.07153
G0 F6000 X234.98 Y181.86
G0 X238.31 Y181.86
G0 X238.31 Y182.04
G1 F4320 X238.31 Y176.29 E1307.31038
G0 F6000 X238.31 Y176.47
G0 X241.64 Y181.86
G0 X241.64 Y182.04
G1 F4320 X241.64 Y123.09 E1309.76123
G0 F6000 X241.64 Y123.26
G0 X238.31 Y123.26
G0 X238.31 Y123.09
G1 F4320 X238.31 Y138.23 E1310.39085
G0 F6000 X238.31 Y138.06
G0 X234.98 Y138.03
G0 X234.98 Y138.21
G1 F4320 X234.98 Y123.09 E1311.01955
G0 F6000 X234.98 Y123.26
G0 X231.64 Y123.26
G0 X231.64 Y123.09
G1 F4320 X231.64 Y138.19 E1311.64733
G0 F6000 X231.64 Y138.01
G0 X228.31 Y137.99
G0 X228.31 Y138.16
G1 F4320 X228.31 Y123.09 E1312.27420
G0 F6000 X228.31 Y123.26
G0 X224.98 Y123.26
G0 X224.98 Y123.09
G1 F4320 X224.98 Y138.14 E1312.90016
G0 F6000 X214.98 Y138.07
G1 F4320 X214.98 Y134.85 E1313.03411
G0 F6000 X214.95 Y135.03
G0 X211.64 Y135.02
G0 X211.65 Y134.85
G1 F4320 X211.65 Y138.05 E1313.16736
G0 F6000 X211.65 Y137.88
G0 X208.31 Y137.86
G0 X208.31 Y138.03
G1 F4320 X208.31 Y134.84 E1313.29990
;LAYER:3
G0 F6000 X221.21 Y134.39 Z0.90
;TYPE:WALL-INNER
G1 F5160 X195.14 Y128.80 E1314.40833
G1 X107.60 Y128.80 E1318.04778
G1 X82.91 Y134.10 E1319.09754
G1 X82.91 Y124.99 E1319.47604
G1 X222.09 Y124.99 E1325.26247
G1 X222.09 Y134.39 E1325.65328
G1 X221.21 Y134.39 E1325.69007
G0 F6000 X221.15 Y134.89
G1 F5160 X195.08 Y129.30 E1326.79850
G1 X107.65 Y129.30 E1330.43354
G1 X82.41 Y134.71 E1331.50681
G1 X82.41 Y124.49 E1331.93179
G1 X222.59 Y124.49 E1337.75980
G1 X222.59 Y134.89 E1338.19218
G1 X221.15 Y134.89 E1338.25197
G0 F6000 X221.10 Y135.39
;TYPE:WALL-OUTER
G1 F5160 X195.03 Y129.80 E1339.36035
G1 X107.70 Y129.80 E1342.99099
G1 X81.91 Y135.33 E1344.08777
G1 X81.91 Y123.99 E1344.55928
G1 X223.09 Y123.99 E1350.42886
G1 X223.09 Y135.39 E1350.90282
G1 X221.10 Y135.39 E1350.98563
G0 F6000 X221.12 Y134.20
;TYPE:FILL
G1 F5160 X221.91 Y133.41 E1351.03205
G0 F6000 X221.91 Y134.11
G1 F5160 X221.81 Y134.22 E1351.03814
G0 F6000 X220.54 Y134.07
G1 F5160 X221.91 Y132.70 E1351.11881
G0 F6000 X221.91 Y131.99
G1 F5160 X219.96 Y133.95 E1351.23370
G0 F6000 X219.38 Y133.82
G1 F5160 X221.91 Y131.28 E1351.38286
G0 F6000 X221.91 Y130.58
G1 F5160 X218.79 Y133.70 E1351.56622
G0 F6000 X218.21 Y133.57
G1 F5160 X221.91 Y129.87 E1351.78382
G0 F6000 X221.91 Y129.16
G1 F5160 X217.63 Y133.45 E1352.03565
G0 F6000 X217.05 Y133.32
G1 F5160 X221.91 Y128.46 E1352.32169
G0 F6000 X221.91 Y127.75
G1 F5160 X216.47 Y133.20 E1352.64198
G0 F6000 X215.88 Y133.07
G1 F5160 X221.91 Y127.04 E1352.99649
G0 F6000 X221.91 Y126.33
G1 F5160 X215.30 Y132.95 E1353.38525
G0 F6000 X214.72 Y132.82
G1 F5160 X221.91 Y125.63 E1353.80823
G0 F6000 X221.67 Y125.17
G1 F5160 X214.14 Y132.70 E1354.25103
G0 F6000 X213.56 Y132.57
G1 F5160 X220.96 Y125.17 E1354.68653
G0 F6000 X220.25 Y125.17
G1 F5160 X212.97 Y132.45 E1355.11468
G0 F6000 X212.39 Y132.32
G1 F5160 X219.55 Y125.17 E1355.53549
G0 F6000 X218.84 Y125.17
G1 F5160 X211.81 Y132.20 E1355.94897
G0 F6000 X211.23 Y132.07
G1 F5160 X218.13 Y125.17 E1356.35508
G0 F6000 X217.43 Y125.17
G1 F5160 X210.64 Y131.95 E1356.75383
G0 F6000 X210.06 Y131.82
G1 F5160 X216.72 Y125.17 E1357.14524
G0 F6000 X216.01 Y125.17
G1 F5160 X209.48 Y131.70 E1357.52929
G0 F6000 X208.90 Y131.57
G1 F5160 X215.31 Y125.17 E1357.90606
G0 F6000 X214.60 Y125.17
G1 F5160 X208.31 Y131.45 E1358.27548
G0 F6000 X207.73 Y131.32
G1 F5160 X213.89 Y125.17 E1358.63754
G0 F6000 X213.18 Y125.17
G1 F5160 X207.15 Y131.20 E1358.99226
G0 F6000 X206.57 Y131.07
G1 F5160 X212.48 Y125.17 E1359.33963
G0 F6000 X211.77 Y125.17
G1 F5160 X205.99 Y130.95 E1359.67965
G0 F6000 X205.40 Y130.82
G1 F5160 X211.06 Y125.17 E1360.01232
G0 F6000 X210.35 Y125.17
G1 F5160 X204.82 Y130.70 E1360.33769
G0 F6000 X204.24 Y130.57
G1 F5160 X209.65 Y125.17 E1360.65569
G0 F6000 X208.94 Y125.17
G1 F5160 X203.66 Y130.45 E1360.96631
G0 F6000 X203.07 Y130.32
G1 F5160 X208.23 Y125.17 E1361.26964
G0 F6000 X207.53 Y125.17
G1 F5160 X202.49 Y130.20 E1361.56562
G0 F6000 X201.91 Y130.07
G1 F5160 X206.82 Y125.17 E1361.85425
G0 F6000 X206.11 Y125.17
G1 F5160 X201.33 Y129.95 E1362.13556
G0 F6000 X200.75 Y129.82
G1 F5160 X205.41 Y125.17 E1362.40952
G0 F6000 X204.70 Y125.17
G1 F5160 X200.16 Y129.70 E1362.67613
G0 F6000 X199.58 Y129.57
G1 F5160 X203.99 Y125.17 E1362.93537
G0 F6000 X203.28 Y125.17
G1 F5160 X199.00 Y129.45 E1363.18725
G0 F6000 X198.42 Y129.33
G1 F5160 X202.58 Y125.17 E1363.43184
G0 F6000 X201.87 Y125.17
G1 F5160 X197.84 Y129.20 E1363.66908
G0 F6000 X197.25 Y129.08
G1 F5160 X201.16 Y125.17 E1363.89898
G0 F6000 X200.46 Y125.17
G1 F5160 X196.67 Y128.95 E1364.12152
G0 F6000 X196.09 Y128.83
G1 F5160 X199.75 Y125.17 E1364.33672
G0 F6000 X199.04 Y125.17
G1 F5160 X195.51 Y128.70 E1364.54459
G0 F6000 X194.88 Y128.63
G1 F5160 X198.33 Y125.17 E1364.74799
G0 F6000 X197.63 Y125.17
G1 F5160 X194.17 Y128.63 E1364.95143
G0 F6000 X193.46 Y128.63
G1 F5160 X196.92 Y125.17 E1365.15486
G0 F6000 X196.21 Y125.17
G1 F5160 X192.75 Y128.63 E1365.35830
G0 F6000 X192.05 Y128.63
G1 F5160 X195.51 Y125.17 E1365.56173
G0 F6000 X194.80 Y125.17
G1 F5160 X191.34 Y128.63 E1365.76517
G0 F6000 X190.63 Y128.63
G1 F5160 X194.09 Y125.17 E1365.96860
G0 F6000 X193.38 Y125.17
G1 F5160 X189.93 Y128.63 E1366.17204
G0 F6000 X189.22 Y128.63
G1 F5160 X192.68 Y125.17 E1366.37547
G0 F6000 X191.97 Y125.17
G1 F5160 X188.51 Y128.63 E1366.57891
G0 F6000 X187.80 Y128.63
G1 F5160 X191.26 Y125.17 E1366.78231
G0 F6000 X190.56 Y125.17
G1 F5160 X187.10 Y128.63 E1366.98575
G0 F6000 X186.39 Y128.63
G1 F5160 X189.85 Y125.17 E1367.18918
G0 F6000 X189.14 Y125.17
G1 F5160 X185.68 Y128.63 E1367.39262
G0 F6000 X184.97 Y128.63
G1 F5160 X188.44 Y125.17 E1367.59605
G0 F6000 X187.73 Y125.17
G1 F5160 X184.27 Y128.63 E1367.79949
G0 F6000 X183.56 Y128.63
G1 F5160 X187.02 Y125.17 E1368.00292
G0 F6000 X186.31 Y125.17
G1 F5160 X182.85 Y128.63 E1368.20636
G0 F6000 X182.15 Y128.63
G1 F5160 X185.61 Y125.17 E1368.40979
G0 F6000 X184.90 Y125.17
G1 F5160 X181.44 Y128.63 E1368.61320
G0 F6000 X180.73 Y128.63
G1 F5160 X184.19 Y125.17 E1368.81663
G0 F6000 X183.49 Y125.17
G1 F5160 X180.03 Y128.63 E1369.02007
G0 F6000 X179.32 Y128.63
G1 F5160 X182.78 Y125.17 E1369.22350
G0 F6000 X182.07 Y125.17
G1 F5160 X178.61 Y128.63 E1369.42693
G0 F6000 X177.90 Y128.63
G1 F5160 X181.36 Y125.17 E1369.63037
G0 F6000 X180.66 Y125.17
G1 F5160 X177.20 Y128.63 E1369.83380
G0 F6000 X176.49 Y128.63
G1 F5160 X179.95 Y125.17 E1370.03724
G0 F6000 X179.24 Y125.17
G1 F5160 X175.78 Y128.63 E1370.24067
G0 F6000 X175.08 Y128.63
G1 F5160 X178.53 Y125.17 E1370.44408
G0 F6000 X177.83 Y125.17
G1 F5160 X174.37 Y128.63 E1370.64751
G0 F6000 X173.66 Y128.63
G1 F5160 X177.12 Y125.17 E1370.85095
G0 F6000 X176.41 Y125.17
G1 F5160 X172.95 Y128.63 E1371.05438
G0 F6000 X172.25 Y128.63
G1 F5160 X175.71 Y125.17 E1371.25782
G0 F6000 X175.00 Y125.17
G1 F5160 X171.54 Y128.63 E1371.46125
G0 F6000 X170.83 Y128.63
G1 F5160 X174.29 Y125.17 E1371.66469
G0 F6000 X173.59 Y125.17
G1 F5160 X170.13 Y128.63 E1371.86812
G0 F6000 X169.42 Y128.63
G1 F5160 X172.88 Y125.17 E1372.07156
G0 F6000 X172.17 Y125.17
G1 F5160 X168.71 Y128.63 E1372.27499
G0 F6000 X168.00 Y128.63
G1 F5160 X171.46 Y125.17 E1372.47840
G0 F6000 X170.76 Y125.17
G1 F5160 X167.30 Y128.63 E1372.68183
G0 F6000 X166.59 Y128.63
G1 F5160 X170.05 Y125.17 E1372.88527
G0 F6000 X169.34 Y125.17
G1 F5160 X165.88 Y128.62 E1373.08864
G0 F6000 X165.18 Y128.62
G1 F5160 X168.64 Y125.17 E1373.29202
G0 F6000 X167.93 Y125.17
G1 F5160 X164.47 Y128.62 E1373.49539
G0 F6000 X163.76 Y128.62
G1 F5160 X167.22 Y125.17 E1373.69877
G0 F6000 X166.51 Y125.17
G1 F5160 X163.06 Y128.62 E1373.90218
G0 F6000 X162.35 Y128.62
G1 F5160 X165.81 Y125.17 E1374.10558
G0 F6000 X165.10 Y125.17
G1 F5160 X161.64 Y128.62 E1374.30896
G0 F6000 X160.93 Y128.62
G1 F5160 X164.39 Y125.17 E1374.51233
G0 F6000 X163.69 Y125.17
G1 F5160 X160.23 Y128.62 E1374.71571
G0 F6000 X159.52 Y128.62
G1 F5160 X162.98 Y125.17 E1374.91908
G0 F6000 X162.27 Y125.17
G1 F5160 X158.81 Y128.62 E1375.12246
G0 F6000 X158.11 Y128.62
G1 F5160 X161.56 Y125.17 E1375.32584
G0 F6000 X160.86 Y125.17
G1 F5160 X157.40 Y128.62 E1375.52921
G0 F6000 X156.69 Y128.62
G1 F5160 X160.15 Y125.17 E1375.73259
G0 F6000 X159.44 Y125.17
G1 F5160 X155.98 Y128.62 E1375.93599
G0 F6000 X155.28 Y128.62
G1 F5160 X158.74 Y125.17 E1376.13937
G0 F6000 X158.03 Y125.17
G1 F5160 X154.57 Y128.62 E1376.34275
G0 F6000 X153.86 Y128.62
G1 F5160 X157.32 Y125.17 E1376.54612
G0 F6000 X156.62 Y125.17
G1 F5160 X153.16 Y128.62 E1376.74950
G0 F6000 X152.45 Y128.62
G1 F5160 X155.91 Y125.17 E1376.95287
G0 F6000 X155.20 Y125.17
G1 F5160 X151.74 Y128.62 E1377.15625
G0 F6000 X151.03 Y128.62
G1 F5160 X154.49 Y125.17 E1377.35963
G0 F6000 X153.79 Y125.17
G1 F5160 X150.33 Y128.62 E1377.56300
G0 F6000 X149.62 Y128.62
G1 F5160 X153.08 Y125.17 E1377.76641
G0 F6000 X152.37 Y125.17
G1 F5160 X148.91 Y128.62 E1377.96981
G0 F6000 X148.21 Y128.62
G1 F5160 X151.66 Y125.17 E1378.17319
G0 F6000 X150.96 Y125.17
G1 F5160 X147.50 Y128.62 E1378.37656
G0 F6000 X146.79 Y128.62
G1 F5160 X150.25 Y125.17 E1378.57994
G0 F6000 X149.54 Y125.17
G1 F5160 X146.09 Y128.62 E1378.78332
G0 F6000 X145.38 Y128.62
G1 F5160 X148.84 Y125.17 E1378.98669
G0 F6000 X148.13 Y125.17
G1 F5160 X144.67 Y128.62 E1379.19007
G0 F6000 X143.96 Y128.62
G1 F5160 X147.42 Y125.17 E1379.39344
G0 F6000 X146.72 Y125.17
G1 F5160 X143.26 Y128.62 E1379.59682
G0 F6000 X142.55 Y128.62
G1 F5160 X146.01 Y125.17 E1379.80022
G0 F6000 X145.30 Y125.17
G1 F5160 X141.84 Y128.62 E1380.00360
G0 F6000 X141.13 Y128.62
G1 F5160 X144.59 Y125.17 E1380.20698
G0 F6000 X143.89 Y125.17
G1 F5160 X140.43 Y128.62 E1380.41035
G0 F6000 X139.72 Y128.62
G1 F5160 X143.18 Y125.17 E1380.61373
G0 F6000 X142.47 Y125.17
G1 F5160 X139.01 Y128.62 E1380.81710
G0 F6000 X138.31 Y128.62
G1 F5160 X141.77 Y125.17 E1381.02048
G0 F6000 X141.06 Y125.17
G1 F5160 X137.60 Y128.62 E1381.22386
G0 F6000 X136.89 Y128.62
G1 F5160 X140.35 Y125.17 E1381.42723
G0 F6000 X139.65 Y125.17
G1 F5160 X136.19 Y128.62 E1381.63058
G0 F6000 X135.48 Y128.62
G1 F5160 X138.94 Y125.17 E1381.83390
G0 F6000 X138.23 Y125.17
G1 F5160 X134.77 Y128.62 E1382.03721
G0 F6000 X134.06 Y128.62
G1 F5160 X137.52 Y125.17 E1382.24053
G0 F6000 X136.82 Y125.17
G1 F5160 X133.36 Y128.62 E1382.44385
G0 F6000 X132.65 Y128.62
G1 F5160 X136.11 Y125.17 E1382.64716
G0 F6000 X135.40 Y125.17
G1 F5160 X131.94 Y128.62 E1382.85048
G0 F6000 X131.24 Y128.62
G1 F5160 X134.69 Y125.17 E1383.05383
G0 F6000 X133.99 Y125.17
G1 F5160 X130.53 Y128.62 E1383.25717
G0 F6000 X129.82 Y128.62
G1 F5160 X133.28 Y125.17 E1383.46052
G0 F6000 X132.57 Y125.17
G1 F5160 X129.12 Y128.62 E1383.66387
G0 F6000 X128.41 Y128.62
G1 F5160 X131.87 Y125.17 E1383.86719
G0 F6000 X131.16 Y125.17
G1 F5160 X127.70 Y128.62 E1384.07050
G0 F6000 X126.99 Y128.62
G1 F5160 X130.45 Y125.17 E1384.27382
G0 F6000 X129.75 Y125.17
G1 F5160 X126.29 Y128.62 E1384.47714
G0 F6000 X125.58 Y128.62
G1 F5160 X129.04 Y125.17 E1384.68045
G0 F6000 X128.33 Y125.17
G1 F5160 X124.87 Y128.62 E1384.88380
G0 F6000 X124.17 Y128.62
G1 F5160 X127.62 Y125.17 E1385.08715
G0 F6000 X126.92 Y125.17
G1 F5160 X123.46 Y128.62 E1385.29049
G0 F6000 X122.75 Y128.62
G1 F5160 X126.21 Y125.17 E1385.49384
G0 F6000 X125.50 Y125.17
G1 F5160 X122.04 Y128.62 E1385.69716
G0 F6000 X121.34 Y128.62
G1 F5160 X124.80 Y125.17 E1385.90047
G0 F6000 X124.09 Y125.17
G1 F5160 X120.63 Y128.62 E1386.10379
G0 F6000 X119.92 Y128.62
G1 F5160 X123.38 Y125.17 E1386.30711
G0 F6000 X122.67 Y125.17
G1 F5160 X119.22 Y128.62 E1386.51043
G0 F6000 X118.51 Y128.62
G1 F5160 X121.97 Y125.17 E1386.71377
G0 F6000 X121.26 Y125.17
G1 F5160 X117.80 Y128.62 E1386.91712
G0 F6000 X117.09 Y128.62
G1 F5160 X120.55 Y125.17 E1387.12047
G0 F6000 X119.85 Y125.17
G1 F5160 X116.39 Y128.62 E1387.32381
G0 F6000 X115.68 Y128.62
G1 F5160 X119.14 Y125.17 E1387.52716
G0 F6000 X118.43 Y125.17
G1 F5160 X114.97 Y128.62 E1387.73048
G0 F6000 X114.27 Y128.62
G1 F5160 X117.72 Y125.17 E1387.93379
G0 F6000 X117.02 Y125.17
G1 F5160 X113.56 Y128.62 E1388.13711
G0 F6000 X112.85 Y128.62
G1 F5160 X116.31 Y125.17 E1388.34043
G0 F6000 X115.60 Y125.17
G1 F5160 X112.14 Y128.62 E1388.54374
G0 F6000 X111.44 Y128.62
G1 F5160 X114.90 Y125.17 E1388.74709
G0 F6000 X114.19 Y125.17
G1 F5160 X110.73 Y128.62 E1388.95044
G0 F6000 X110.02 Y128.62
G1 F5160 X113.48 Y125.17 E1389.15378
G0 F6000 X112.78 Y125.17
G1 F5160 X109.32 Y128.62 E1389.35713
G0 F6000 X108.61 Y128.62
G1 F5160 X112.07 Y125.17 E1389.56045
G0 F6000 X111.36 Y125.17
G1 F5160 X107.90 Y128.62 E1389.76376
G0 F6000 X107.09 Y128.73
G1 F5160 X110.65 Y125.17 E1389.97320
G0 F6000 X109.95 Y125.17
G1 F5160 X106.19 Y128.92 E1390.19398
G0 F6000 X105.29 Y129.11
G1 F5160 X109.24 Y125.17 E1390.42610
G0 F6000 X108.53 Y125.17
G1 F5160 X104.39 Y129.31 E1390.66964
G0 F6000 X103.49 Y129.50
G1 F5160 X107.83 Y125.17 E1390.92452
G0 F6000 X107.12 Y125.17
G1 F5160 X102.59 Y129.69 E1391.19078
G0 F6000 X101.69 Y129.89
G1 F5160 X106.41 Y125.17 E1391.46838
G0 F6000 X105.70 Y125.17
G1 F5160 X100.79 Y130.08 E1391.75731
G0 F6000 X99.89 Y130.27
G1 F5160 X105.00 Y125.17 E1392.05758
G0 F6000 X104.29 Y125.17
G1 F5160 X98.99 Y130.47 E1392.36926
G0 F6000 X98.09 Y130.66
G1 F5160 X103.58 Y125.17 E1392.69228
G0 F6000 X102.88 Y125.17
G1 F5160 X97.19 Y130.85 E1393.02666
G0 F6000 X96.29 Y131.05
G1 F5160 X102.17 Y125.17 E1393.37238
G0 F6000 X101.46 Y125.17
G1 F5160 X95.39 Y131.24 E1393.72948
G0 F6000 X94.49 Y131.43
G1 F5160 X100.75 Y125.17 E1394.09792
G0 F6000 X100.05 Y125.17
G1 F5160 X93.59 Y131.63 E1394.47778
G0 F6000 X92.69 Y131.82
G1 F5160 X99.34 Y125.17 E1394.86898
G0 F6000 X98.63 Y125.17
G1 F5160 X91.79 Y132.01 E1395.27150
G0 F6000 X90.89 Y132.21
G1 F5160 X97.92 Y125.17 E1395.68536
G0 F6000 X97.22 Y125.17
G1 F5160 X89.99 Y132.40 E1396.11058
G0 F6000 X89.08 Y132.59
G1 F5160 X96.51 Y125.17 E1396.54720
G0 F6000 X95.80 Y125.17
G1 F5160 X88.19 Y132.78 E1396.99516
G0 F6000 X87.28 Y132.98
G1 F5160 X95.10 Y125.17 E1397.45448
G0 F6000 X94.39 Y125.17
G1 F5160 X86.39 Y133.17 E1397.92514
G0 F6000 X85.48 Y133.36
G1 F5160 X93.68 Y125.17 E1398.40718
G0 F6000 X92.98 Y125.17
G1 F5160 X84.58 Y133.56 E1398.90057
G0 F6000 X83.68 Y133.75
G1 F5160 X92.27 Y125.17 E1399.40534
G0 F6000 X91.56 Y125.17
G1 F5160 X83.08 Y133.64 E1399.90372
G0 F6000 X83.08 Y132.94
G1 F5160 X90.85 Y125.17 E1400.36054
G0 F6000 X90.15 Y125.17
G1 F5160 X83.08 Y132.23 E1400.77576
G0 F6000 X83.08 Y131.52
G1 F5160 X89.44 Y125.17 E1401.14941
G0 F6000 X88.73 Y125.17
G1 F5160 X83.08 Y130.81 E1401.48149
G0 F6000 X83.08 Y130.11
G1 F5160 X88.03 Y125.17 E1401.77200
G0 F6000 X87.32 Y125.17
G1 F5160 X83.08 Y129.40 E1402.02094
G0 F6000 X83.08 Y128.69
G1 F5160 X86.61 Y125.17 E1402.22832
G0 F6000 X85.90 Y125.17
G1 F5160 X83.08 Y127.99 E1402.39409
G0 F6000 X83.08 Y127.28
G1 F5160 X85.20 Y125.17 E1402.51830
G0 F6000 X84.49 Y125.17
G1 F5160 X83.08 Y126.57 E1402.60094
G0 F6000 X83.08 Y125.86
G1 F5160 X83.78 Y125.17 E1402.64201
G0 F6000 X208.31 Y134.84
;TYPE:SUPPORT
G1 F5160 X208.31 Y138.03 E1402.77459
G0 F6000 X208.31 Y137.86
G0 X211.65 Y137.88
G0 X211.65 Y138.05
G1 F5160 X211.65 Y134.85 E1402.90788
G0 F6000 X211.64 Y135.02
G0 X214.94 Y135.14
G0 X214.98 Y134.97
G1 F5160 X214.98 Y138.07 E1403.03680
G0 F6000 X224.98 Y138.14
G1 F5160 X224.98 Y123.09 E1403.66276
G0 F6000 X224.98 Y123.26
G0 X228.31 Y123.26
G0 X228.31 Y123.09
G1 F5160 X228.31 Y138.16 E1404.28963
G0 F6000 X228.31 Y137.99
G0 X231.64 Y138.01
G0 X231.64 Y138.19
G1 F5160 X231.64 Y123.09 E1404.91742
G0 F6000 X231.64 Y123.26
G0 X234.98 Y123.26
G0 X234.98 Y123.09
G1 F5160 X234.98 Y138.21 E1405.54612
G0 F6000 X234.98 Y138.03
G0 X238.31 Y138.06
G0 X238.31 Y138.23
G1 F5160 X238.31 Y123.09 E1406.17573
G0 F6000 X238.31 Y123.26
G0 X241.64 Y123.26
G0 X241.64 Y123.09
G1 F5160 X241.64 Y182.04 E1408.62659
G0 F6000 X241.64 Y181.86
G0 X238.31 Y181.86
G0 X238.31 Y182.04
G1 F5160 X238.31 Y176.29 E1408.86544
G0 F6000 X238.31 Y176.47
G0 X234.98 Y176.49
G0 X234.98 Y176.31
G1 F5160 X234.98 Y182.04 E1409.10337
G0 F6000 X234.98 Y181.86
G0 X231.64 Y181.86
G0 X231.64 Y182.04
G1 F5160 X231.64 Y176.34 E1409.34039
G0 F6000 X231.64 Y176.51
G0 X228.31 Y176.53
G0 X228.31 Y176.36
G1 F5160 X228.31 Y182.04 E1409.57650
G0 F6000 X228.31 Y181.86
G0 X224.98 Y181.86
G0 X224.98 Y182.04
G1 F5160 X224.98 Y176.38 E1409.81169
G0 F6000 X224.98 Y176.56
G0 X221.65 Y176.58
G0 X221.64 Y176.40
G1 F5160 X221.64 Y182.04 E1410.04596
G0 F6000 X221.64 Y181.86
G0 X218.31 Y181.86
G0 X218.31 Y182.04
G1 F5160 X218.31 Y176.42 E1410.27932
G0 F6000 X218.31 Y176.60
G0 X214.98 Y176.62
G0 X214.98 Y176.44
G1 F5160 X214.98 Y182.04 E1410.51177
G0 F6000 X214.98 Y181.86
G0 X211.65 Y181.86
G0 X211.65 Y182.04
G1 F5160 X211.65 Y176.47 E1410.74330
G0 F6000 X211.65 Y176.64
G0 X208.31 Y176.67
G0 X208.31 Y176.49
G1 F5160 X208.31 Y182.04 E1410.97392
G0 F6000 X208.31 Y181.86
G0 X204.98 Y181.86
G0 X204.98 Y182.04
G1 F5160 X204.98 Y177.23 E1411.17356
G0 F6000 X204.98 Y177.41
G0 X201.65 Y177.40
G0 X201.65 Y177.23
G1 F5160 X201.65 Y182.04 E1411.37337
G0 F6000 X201.65 Y181.86
G0 X198.31 Y181.86
G0 X198.31 Y182.04
G1 F5160 X198.31 Y177.22 E1411.57339
G0 F6000 X198.31 Y177.40
G0 X194.98 Y177.40
G0 X194.98 Y177.22
G1 F5160 X194.98 Y182.04 E1411.77358
G0 F6000 X194.98 Y181.86
G0 X191.65 Y181.86
G0 X191.65 Y182.04
G1 F5160 X191.65 Y177.22 E1411.97397
G0 F6000 X191.65 Y177.39
G0 X188.31 Y177.39
G0 X188.31 Y177.21
G1 F5160 X188.31 Y182.04 E1412.17453
G0 F6000 X188.31 Y181.86
G0 X184.98 Y181.86
G0 X184.98 Y182.04
G1 F5160 X184.98 Y177.21 E1412.37529
G0 F6000 X184.98 Y177.38
G0 X181.65 Y177.38
G0 X181.65 Y177.20
G1 F5160 X181.65 Y182.04 E1412.57623
G0 F6000 X181.65 Y181.86
G0 X178.31 Y181.86
G0 X178.31 Y182.04
G1 F5160 X178.31 Y177.20 E1412.77737
G0 F6000 X178.31 Y177.37
G0 X174.98 Y177.37
G0 X174.98 Y177.19
G1 F5160 X174.98 Y182.04 E1412.97867
G0 F6000 X174.98 Y181.86
G0 X171.65 Y181.86
G0 X171.65 Y182.04
G1 F5160 X171.65 Y177.19 E1413.18019
G0 F6000 X171.65 Y177.36
G0 X168.32 Y177.36
G0 X168.32 Y177.19
G1 F5160 X168.32 Y182.04 E1413.38187
G0 F6000 X168.32 Y181.86
G0 X164.98 Y181.86
G0 X164.98 Y182.04
G1 F5160 X164.98 Y177.18 E1413.58376
G0 F6000 X164.98 Y177.35
G0 X161.65 Y177.35
G0 X161.65 Y177.18
G1 F5160 X161.65 Y182.04 E1413.78582
G0 F6000 X161.65 Y181.86
G0 X158.32 Y181.86
G0 X158.32 Y182.04
G1 F5160 X158.32 Y177.17 E1413.98808
G0 F6000 X158.32 Y177.34
G0 X154.98 Y177.34
G0 X154.98 Y177.17
G1 F5160 X154.98 Y182.04 E1414.19051
G0 F6000 X154.98 Y181.86
G0 X151.65 Y181.86
G0 X151.65 Y182.04
G1 F5160 X151.65 Y177.16 E1414.39315
G0 F6000 X151.65 Y177.34
G0 X148.32 Y177.33
G0 X148.32 Y177.16
G1 F5160 X148.32 Y182.04 E1414.59595
G0 F6000 X148.32 Y181.86
G0 X144.99 Y181.86
G0 X144.99 Y182.04
G1 F5160 X144.99 Y177.15 E1414.79896
G0 F6000 X144.98 Y177.33
G0 X141.65 Y177.32
G0 X141.65 Y177.15
G1 F5160 X141.65 Y182.04 E1415.00218
G0 F6000 X141.65 Y181.86
G0 X138.32 Y181.86
G0 X138.32 Y182.04
G1 F5160 X138.32 Y177.14 E1415.20557
G0 F6000 X138.32 Y177.32
G0 X134.99 Y177.31
G0 X134.99 Y177.14
G1 F5160 X134.99 Y182.04 E1415.40916
G0 F6000 X134.99 Y181.86
G0 X131.65 Y181.86
G0 X131.65 Y182.04
G1 F5160 X131.65 Y177.13 E1415.61292
G0 F6000 X131.65 Y177.31
G0 X128.32 Y177.30
G0 X128.32 Y177.13
G1 F5160 X128.32 Y182.04 E1415.81689
G0 F6000 X128.32 Y181.86
G0 X124.99 Y181.86
G0 X124.99 Y182.04
G1 F5160 X124.99 Y177.13 E1416.02102
G0 F6000 X124.99 Y177.30
G0 X121.65 Y177.29
G0 X121.65 Y177.12
G1 F5160 X121.65 Y182.04 E1416.22536
G0 F6000 X121.65 Y181.86
G0 X118.32 Y181.86
G0 X118.32 Y182.04
G1 F5160 X118.32 Y177.12 E1416.42987
G0 F6000 X118.32 Y177.29
G0 X114.99 Y177.29
G0 X114.99 Y177.11
G1 F5160 X114.99 Y182.04 E1416.63459
G0 F6000 X114.99 Y181.86
G0 X111.66 Y181.86
G0 X111.66 Y182.04
G1 F5160 X111.66 Y177.11 E1416.83947
G0 F6000 X111.65 Y177.28
G0 X108.32 Y177.28
G0 X108.32 Y177.10
G1 F5160 X108.32 Y182.04 E1417.04456
G0 F6000 X108.32 Y181.86
G0 X104.99 Y181.86
G0 X104.99 Y182.04
G1 F5160 X104.99 Y177.10 E1417.24982
G0 F6000 X104.99 Y177.27
G0 X101.66 Y177.27
G0 X101.66 Y177.09
G1 F5160 X101.66 Y182.04 E1417.45528
G0 F6000 X101.66 Y181.86
G0 X98.32 Y181.86
G0 X98.32 Y182.04
G1 F5160 X98.32 Y177.09 E1417.66091
G0 F6000 X98.32 Y177.26
G0 X96.38 Y177.30
G0 X94.99 Y176.66
G0 X94.99 Y176.48
G1 F5160 X94.99 Y182.04 E1417.89186
G0 F6000 X94.99 Y181.86
G0 X91.66 Y181.86
G0 X91.66 Y182.04
G1 F5160 X91.66 Y176.46 E1418.12373
G0 F6000 X91.66 Y176.63
G0 X88.32 Y176.61
G0 X88.32 Y176.44
G1 F5160 X88.32 Y182.04 E1418.35651
G0 F6000 X88.32 Y181.86
G0 X84.99 Y181.86
G0 X84.99 Y182.04
G1 F5160 X84.99 Y176.41 E1418.59020
G0 F6000 X84.99 Y176.59
G0 X81.66 Y176.57
G0 X81.66 Y176.39
G1 F5160 X81.66 Y182.04 E1418.82481
G0 F6000 X81.66 Y181.86
G0 X78.33 Y181.86
G0 X78.33 Y182.04
G1 F5160 X78.33 Y176.37 E1419.06037
G0 F6000 X78.33 Y176.54
G0 X74.99 Y176.52
G0 X74.99 Y176.35
G1 F5160 X74.99 Y182.04 E1419.29685
G0 F6000 X74.99 Y181.86
G0 X71.66 Y181.86
G0 X71.66 Y182.04
G1 F5160 X71.66 Y176.33 E1419.53425
G0 F6000 X71.66 Y176.50
G0 X68.33 Y176.48
G0 X68.33 Y176.30
G1 F5160 X68.33 Y182.04 E1419.77256
G0 F6000 X68.33 Y181.86
G0 X64.99 Y181.86
G0 X64.99 Y182.04
G1 F5160 X64.99 Y123.09 E1422.22341
G0 F6000 X64.99 Y123.26
G0 X61.66 Y123.26
G0 X61.66 Y123.09
G1 F5160 X61.66 Y182.04 E1424.67427
G0 F6000 X61.66 Y181.86
G0 X66.18 Y138.01
G0 X68.33 Y138.04
G0 X68.33 Y138.22
G1 F5160 X68.33 Y123.09 E1425.30343
G0 F6000 X68.33 Y123.26
G0 X71.66 Y123.26
G0 X71.66 Y123.09
G1 F5160 X71.66 Y138.20 E1425.93167
G0 F6000 X71.66 Y138.02
G0 X74.99 Y138.00
G0 X74.99 Y138.18
G1 F5160 X74.99 Y123.09 E1426.55900
G0 F6000 X74.99 Y123.26
G0 X78.33 Y123.26
G0 X78.33 Y123.09
G1 F5160 X78.33 Y138.15 E1427.18537
G0 F6000 X88.32 Y138.09
G1 F5160 X88.32 Y134.85 E1427.31982
G0 F6000 X88.36 Y135.02
G0 X91.66 Y134.87
G0 X91.66 Y134.70
G1 F5160 X91.66 Y138.06 E1427.45968
G0 F6000 X91.66 Y137.89
G0 X94.99 Y137.87
G0 X94.99 Y138.04
G1 F5160 X94.99 Y134.70 E1427.59846
;LAYER:4
G0 F6000 X82.91 Y134.10 Z1.10
;TYPE:WALL-INNER
G1 X82.91 Y124.99 E1427.97696
G1 X222.09 Y124.99 E1433.76339
G1 X222.09 Y134.39 E1434.15420
G1 X220.64 Y134.39 E1434.21456
G1 X195.14 Y128.92 E1435.29889
G1 X107.03 Y128.92 E1438.96191
G1 X82.91 Y134.10 E1439.98757
G0 X82.41 Y134.71
G1 X82.41 Y124.49 E1440.41255
G1 X222.59 Y124.49 E1446.24055
G1 X222.59 Y134.89 E1446.67294
G1 X220.59 Y134.89 E1446.75629
G1 X195.08 Y129.42 E1447.84062
G1 X107.08 Y129.42 E1451.49923
G1 X82.41 Y134.71 E1452.54840
G0 X81.91 Y135.33
;TYPE:WALL-OUTER
G1 X81.91 Y123.99 E1453.01990
G1 X223.09 Y123.99 E1458.88948
G1 X223.09 Y135.39 E1459.36344
G1 X220.53 Y135.39 E1459.46983
G1 X195.03 Y129.92 E1460.55411
G1 X107.14 Y129.92 E1464.20832
G1 X81.91 Y135.33 E1465.28100
G0 X83.28 Y133.84
;TYPE:FILL
G1 X83.08 Y133.64 E1465.29235
G0 X83.08 Y132.94
G1 X83.86 Y133.71 E1465.33798
G0 X84.44 Y133.59
G1 X83.08 Y132.23 E1465.41785
G0 X83.08 Y131.52
G1 X85.03 Y133.46 E1465.53195
G0 X85.61 Y133.34
G1 X83.08 Y130.81 E1465.68029
G0 X83.08 Y130.11
G1 X86.19 Y133.21 E1465.86282
G0 X86.77 Y133.09
G1 X83.08 Y129.40 E1466.07957
G0 X83.08 Y128.69
G1 X87.35 Y132.96 E1466.33057
G0 X87.94 Y132.84
G1 X83.08 Y127.99 E1466.61579
G0 X83.08 Y127.28
G1 X88.52 Y132.71 E1466.93523
G0 X89.10 Y132.59
G1 X83.08 Y126.57 E1467.28895
G0 X83.08 Y125.86
G1 X89.68 Y132.46 E1467.67689
G0 X90.27 Y132.34
G1 X83.09 Y125.17 E1468.09849
G0 X83.80 Y125.17
G1 X90.85 Y132.21 E1468.51276
G0 X91.43 Y132.09
G1 X84.51 Y125.17 E1468.91969
G0 X85.22 Y125.17
G1 X92.01 Y131.96 E1469.31927
G0 X92.59 Y131.84
G1 X85.92 Y125.17 E1469.71153
G0 X86.63 Y125.17
G1 X93.18 Y131.71 E1470.09644
G0 X93.76 Y131.59
G1 X87.34 Y125.17 E1470.47400
G0 X88.04 Y125.17
G1 X94.34 Y131.46 E1470.84421
G0 X94.92 Y131.34
G1 X88.75 Y125.17 E1471.20704
G0 X89.46 Y125.17
G1 X95.50 Y131.21 E1471.56252
G0 X96.09 Y131.09
G1 X90.17 Y125.17 E1471.91071
G0 X90.87 Y125.17
G1 X96.67 Y130.96 E1472.25152
G0 X97.25 Y130.84
G1 X91.58 Y125.17 E1472.58499
G0 X92.29 Y125.17
G1 X97.83 Y130.71 E1472.91113
G0 X98.42 Y130.59
G1 X92.99 Y125.17 E1473.22992
G0 X93.70 Y125.17
G1 X99.00 Y130.46 E1473.54137
G0 X99.58 Y130.34
G1 X94.41 Y125.17 E1473.84549
G0 X95.11 Y125.17
G1 X100.16 Y130.21 E1474.14223
G0 X100.74 Y130.09
G1 X95.82 Y125.17 E1474.43163
G0 X96.53 Y125.17
G1 X101.33 Y129.96 E1474.71367
G0 X101.91 Y129.84
G1 X97.24 Y125.17 E1474.98837
G0 X97.94 Y125.17
G1 X102.49 Y129.71 E1475.25571
G0 X103.07 Y129.59
G1 X98.65 Y125.17 E1475.51577
G0 X99.36 Y125.17
G1 X103.66 Y129.46 E1475.76845
G0 X104.24 Y129.34
G1 X100.06 Y125.17 E1476.01377
G0 X100.77 Y125.17
G1 X104.82 Y129.22 E1476.25181
G0 X105.40 Y129.09
G1 X101.48 Y125.17 E1476.48247
G0 X102.19 Y125.17
G1 X105.98 Y128.96 E1476.70572
G0 X106.56 Y128.84
G1 X102.89 Y125.17 E1476.92162
G0 X103.60 Y125.17
G1 X107.18 Y128.75 E1477.13199
G0 X107.89 Y128.75
G1 X104.31 Y125.17 E1477.34236
G0 X105.01 Y125.17
G1 X108.59 Y128.75 E1477.55273
G0 X109.30 Y128.75
G1 X105.72 Y125.17 E1477.76311
G0 X106.43 Y125.17
G1 X110.01 Y128.75 E1477.97348
G0 X110.71 Y128.75
G1 X107.14 Y125.17 E1478.18385
G0 X107.84 Y125.17
G1 X111.42 Y128.75 E1478.39422
G0 X112.13 Y128.75
G1 X108.55 Y125.17 E1478.60460
G0 X109.26 Y125.17
G1 X112.83 Y128.75 E1478.81497
G0 X113.54 Y128.75
G1 X109.96 Y125.17 E1479.02534
G0 X110.67 Y125.17
G1 X114.25 Y128.75 E1479.23572
G0 X114.96 Y128.75
G1 X111.38 Y125.17 E1479.44609
G0 X112.08 Y125.17
G1 X115.66 Y128.75 E1479.65646
G0 X116.37 Y128.75
G1 X112.79 Y125.17 E1479.86683
G0 X113.50 Y125.17
G1 X117.08 Y128.75 E1480.07721
G0 X117.78 Y128.75
G1 X114.21 Y125.17 E1480.28758
G0 X114.91 Y125.17
G1 X118.49 Y128.75 E1480.49795
G0 X119.20 Y128.75
G1 X115.62 Y125.17 E1480.70832
G0 X116.33 Y125.17
G1 X119.91 Y128.75 E1480.91870
G0 X120.61 Y128.75
G1 X117.03 Y125.17 E1481.12907
G0 X117.74 Y125.17
G1 X121.32 Y128.75 E1481.33944
G0 X122.03 Y128.75
G1 X118.45 Y125.17 E1481.54981
G0 X119.16 Y125.17
G1 X122.73 Y128.75 E1481.76019
G0 X123.44 Y128.75
G1 X119.86 Y125.17 E1481.97056
G0 X120.57 Y125.17
G1 X124.15 Y128.75 E1482.18093
G0 X124.86 Y128.75
G1 X121.28 Y125.17 E1482.39128
G0 X121.98 Y125.17
G1 X125.56 Y128.75 E1482.60165
G0 X126.27 Y128.75
G1 X122.69 Y125.17 E1482.81202
G0 X123.40 Y125.17
G1 X126.98 Y128.75 E1483.02239
G0 X127.68 Y128.75
G1 X124.11 Y125.17 E1483.23277
G0 X124.81 Y125.17
G1 X128.39 Y128.75 E1483.44314
G0 X129.10 Y128.75
G1 X125.52 Y125.17 E1483.65351
G0 X126.23 Y125.17
G1 X129.81 Y128.75 E1483.86388
G0 X130.51 Y128.75
G1 X126.93 Y125.17 E1484.07426
G0 X127.64 Y125.17
G1 X131.22 Y128.75 E1484.28463
G0 X131.93 Y128.75
G1 X128.35 Y125.17 E1484.49500
G0 X129.06 Y125.17
G1 X132.63 Y128.75 E1484.70538
G0 X133.34 Y128.75
G1 X129.76 Y125.17 E1484.91575
G0 X130.47 Y125.17
G1 X134.05 Y128.75 E1485.12612
G0 X134.75 Y128.75
G1 X131.18 Y125.17 E1485.33649
G0 X131.88 Y125.17
G1 X135.46 Y128.75 E1485.54687
G0 X136.17 Y128.75
G1 X132.59 Y125.17 E1485.75724
G0 X133.30 Y125.17
G1 X136.88 Y128.75 E1485.96764
G0 X137.58 Y128.75
G1 X134.00 Y125.17 E1486.17804
G0 X134.71 Y125.17
G1 X138.29 Y128.75 E1486.38842
G0 X139.00 Y128.75
G1 X135.42 Y125.17 E1486.59879
G0 X136.13 Y125.17
G1 X139.71 Y128.75 E1486.80916
G0 X140.41 Y128.75
G1 X136.83 Y125.17 E1487.01956
G0 X137.54 Y125.17
G1 X141.12 Y128.75 E1487.22997
G0 X141.83 Y128.75
G1 X138.25 Y125.17 E1487.44037
G0 X138.96 Y125.17
G1 X142.53 Y128.75 E1487.65077
G0 X143.24 Y128.75
