;-- START GCODE --
;Sliced for Type A Machines Series 1
;Sliced at: Sun 07-08-2016 09:04:36
;Basic settings: Layer height: 0.2 Walls: 1 Fill: 30
;Print Speed: 100 Support: 0
;Retraction Speed: 40 Retraction Distance: 1.2
;Print time: #P_TIME#
;Filament used: #F_AMNT#m #F_WGHT#g
;Filament cost: #F_COST#
M106 S255	 ;start with the fan on
G21        ;metric values
G90        ;absolute positioning
M106 S255    ;start with the fan on
G28     ;move to endstops
G29		;allows for auto-levelling
G1 X150 Y5  Z15.0 F6000 ;center and move the platform down 15mm
M109 S220 ;Heat To temp
G92 E0                  ;zero the extruded length
G1 F200 E30              ;extrude 30mm of feed stock
G92 E0                  ;zero the extruded length again
G1 X175 Y25  Z0 F6000 ;remove bugger
G1 X220 F6000 ;remove bugger
G1 X150 Y150  Z15 F6000 ;recenter and begin
G1 F6000

;Layer count: 155
;LAYER:0
M106 S255
G0 F6000 X49.88 Y114.71 Z0.30
;TYPE:SKIRT
G1 F2700 X61.48 Y114.71 E0.72341
G1 X61.48 Y113.91 E0.77330
G1 X242.88 Y113.91 E12.08590
G1 X242.88 Y114.11 E12.09837
G1 X254.48 Y114.11 E12.82178
G1 X254.48 Y127.08 E13.63088
G1 X254.82 Y134.43 E14.08934
G1 X254.48 Y134.46 E14.11034
G1 X254.48 Y140.72 E14.50054
G1 X262.30 Y140.72 E14.98816
G1 X267.51 Y144.29 E15.38189
G1 X267.51 Y150.62 E15.77671
G1 X267.51 Y160.74 E16.40744
G1 X262.28 Y164.28 E16.80150
G1 X254.48 Y164.28 E17.28774
G1 X254.48 Y190.21 E18.90475
G1 X248.35 Y190.21 E19.28722
G1 X246.90 Y190.69 E19.38255
G1 X66.28 Y190.69 E30.64620
G1 X66.28 Y190.81 E30.65381
G1 X49.88 Y190.81 E31.67656
G1 X49.88 Y164.28 E33.33098
G1 X42.70 Y164.28 E33.77905
G1 X37.49 Y160.71 E34.17279
G1 X37.49 Y154.38 E34.56761
G1 X37.49 Y144.26 E35.19834
G1 X42.72 Y140.72 E35.59240
G1 X49.88 Y140.72 E36.03910
G1 X49.88 Y114.71 E37.66103
G0 F6000 X50.38 Y115.21
G1 F2700 X61.98 Y115.21 E38.38444
G1 X61.98 Y114.41 E38.43433
G1 X242.38 Y114.41 E49.68457
G1 X242.38 Y114.61 E49.69705
G1 X253.98 Y114.61 E50.42045
G1 X253.98 Y127.09 E51.19849
G1 X254.30 Y133.98 E51.62868
G1 X253.98 Y134.01 E51.64836
G1 X253.98 Y141.22 E52.09799
G1 X262.15 Y141.22 E52.60712
G1 X267.01 Y144.55 E52.97479
G1 X267.01 Y150.62 E53.35314
G1 X267.01 Y160.47 E53.96735
G1 X262.13 Y163.78 E54.33527
G1 X253.98 Y163.78 E54.84316
G1 X253.98 Y189.71 E56.46016
G1 X248.27 Y189.71 E56.81644
G1 X246.82 Y190.19 E56.91177
G1 X65.78 Y190.19 E68.20161
G1 X65.78 Y190.31 E68.20922
G1 X50.38 Y190.31 E69.16961
G1 X50.38 Y163.78 E70.82409
G1 X42.85 Y163.78 E71.29368
G1 X37.99 Y160.45 E71.66135
G1 X37.99 Y154.38 E72.03970
G1 X37.99 Y144.53 E72.65391
G1 X42.87 Y141.22 E73.02183
G1 X50.38 Y141.22 E73.49018
G1 X50.38 Y115.21 E75.11205
G0 F6000 X50.88 Y115.71
G1 F2700 X62.48 Y115.71 E75.83546
G1 X62.48 Y114.91 E75.88535
G1 X241.88 Y114.91 E87.07322
G1 X241.88 Y115.11 E87.08570
G1 X253.48 Y115.11 E87.80910
G1 X253.48 Y127.09 E88.55596
G1 X253.78 Y133.53 E88.95805
G1 X253.48 Y133.56 E88.97642
G1 X253.48 Y141.72 E89.48542
G1 X261.99 Y141.72 E90.01606
G1 X266.51 Y144.82 E90.35763
G1 X266.51 Y160.21 E91.31727
G1 X261.97 Y163.28 E91.65905
G1 X253.48 Y163.28 E92.18851
G1 X253.48 Y189.21 E93.80552
G1 X248.19 Y189.21 E94.13566
G1 X246.74 Y189.69 E94.23100
G1 X65.28 Y189.69 E105.54697
G1 X65.28 Y189.81 E105.55458
G1 X50.88 Y189.81 E106.45260
G1 X50.88 Y163.28 E108.10708
G1 X43.01 Y163.28 E108.59819
G1 X38.49 Y160.18 E108.93975
G1 X38.49 Y144.79 E109.89939
G1 X43.03 Y141.72 E110.24118
G1 X50.88 Y141.72 E110.73110
G1 X50.88 Y115.71 E112.35297
G0 F6000 X51.38 Y116.21
G1 F2700 X62.98 Y116.21 E113.07637
G1 X62.98 Y115.41 E113.12626
G1 X241.38 Y115.41 E124.25178
G1 X241.38 Y115.61 E124.26425
G1 X252.98 Y115.61 E124.98766
G1 X252.98 Y127.11 E125.70477
G1 X253.25 Y133.08 E126.07727
G1 X252.98 Y133.10 E126.09432
G1 X252.98 Y142.22 E126.66276
G1 X261.84 Y142.22 E127.21492
G1 X266.01 Y145.08 E127.53038
G1 X266.01 Y159.94 E128.45709
G1 X261.82 Y162.78 E128.77274
G1 X252.98 Y162.78 E129.32384
G1 X252.98 Y188.71 E130.94084
G1 X248.11 Y188.71 E131.24480
G1 X246.66 Y189.19 E131.34013
G1 X64.78 Y189.19 E142.68229
G1 X64.78 Y189.31 E142.68990
G1 X51.38 Y189.31 E143.52556
G1 X51.38 Y162.78 E145.18005
G1 X43.16 Y162.78 E145.69267
G1 X38.99 Y159.92 E146.00813
G1 X38.99 Y145.06 E146.93484
G1 X43.18 Y142.22 E147.25049
G1 X51.38 Y142.22 E147.76205
G1 X51.38 Y116.21 E149.38392
G0 F6000 X51.88 Y116.71
G1 F2700 X63.48 Y116.71 E150.10733
G1 X63.48 Y115.91 E150.15722
G1 X240.88 Y115.91 E161.22037
G1 X240.88 Y116.11 E161.23284
G1 X252.48 Y116.11 E161.95625
G1 X252.48 Y127.11 E162.64224
G1 X252.73 Y132.63 E162.98659
G1 X252.48 Y132.65 E163.00232
G1 X252.48 Y142.72 E163.63013
G1 X261.68 Y142.72 E164.20380
G1 X265.51 Y145.34 E164.49320
G1 X265.51 Y159.68 E165.38692
G1 X261.67 Y162.28 E165.67648
G1 X252.48 Y162.28 E166.24916
G1 X252.48 Y188.21 E167.86616
G1 X248.03 Y188.21 E168.14393
G1 X246.58 Y188.69 E168.23926
G1 X64.28 Y188.69 E179.60761
G1 X64.28 Y188.81 E179.61522
G1 X51.88 Y188.81 E180.38852
G1 X51.88 Y162.28 E182.04300
G1 X43.32 Y162.28 E182.57714
G1 X39.49 Y159.66 E182.86654
G1 X39.49 Y145.32 E183.76026
G1 X43.33 Y142.72 E184.04982
G1 X51.88 Y142.72 E184.58296
G1 X51.88 Y116.71 E186.20483
G0 F6000 X52.38 Y117.21
G1 F2700 X63.78 Y117.21 E186.91577
G1 X63.78 Y119.73 E187.07273
G1 X63.98 Y119.72 E187.08521
G1 X63.98 Y116.41 E187.29182
G1 X240.38 Y116.41 E198.29260
G1 X240.38 Y119.72 E198.49921
G1 X240.58 Y119.73 E198.51169
G1 X240.58 Y116.61 E198.70607
G1 X251.98 Y116.61 E199.41701
G1 X251.98 Y127.13 E200.07325
G1 X252.21 Y132.18 E200.38807
G1 X251.98 Y132.20 E200.40249
G1 X251.98 Y143.22 E201.08966
G1 X261.53 Y143.22 E201.68485
G1 X265.01 Y145.61 E201.94814
G1 X265.01 Y159.41 E202.80894
G1 X261.51 Y161.78 E203.07237
G1 X251.98 Y161.78 E203.66669
G1 X251.98 Y187.71 E205.28369
G1 X247.95 Y187.71 E205.53526
G1 X246.50 Y188.19 E205.63059
G1 X63.78 Y188.19 E217.02514
G1 X63.78 Y188.31 E217.03275
G1 X52.38 Y188.31 E217.74368
G1 X52.38 Y161.78 E219.39817
G1 X43.47 Y161.78 E219.95382
G1 X39.99 Y159.39 E220.21711
G1 X39.99 Y145.59 E221.07790
G1 X43.49 Y143.22 E221.34134
G1 X52.38 Y143.22 E221.89611
G1 X52.38 Y117.21 E223.51798
G0 F6000 X52.88 Y117.71
G1 F2700 X63.28 Y117.71 E224.16656
G1 X63.28 Y120.24 E224.32421
G1 X64.48 Y120.21 E224.39894
G1 X64.48 Y120.21 E224.39911
G1 X64.48 Y116.91 E224.60491
G1 X239.88 Y116.91 E235.54334
G1 X239.88 Y120.21 E235.74913
G1 X239.88 Y120.21 E235.74931
G1 X241.08 Y120.24 E235.82404
G1 X241.08 Y117.11 E236.01911
G1 X251.48 Y117.11 E236.66768
G1 X251.48 Y127.13 E237.29274
G1 X251.69 Y131.73 E237.57941
G1 X251.48 Y131.75 E237.59251
G1 X251.48 Y143.72 E238.33912
G1 X261.37 Y143.72 E238.95582
G1 X264.51 Y145.87 E239.19301
G1 X264.51 Y159.15 E240.02088
G1 X261.36 Y161.28 E240.25822
G1 X251.48 Y161.28 E240.87412
G1 X251.48 Y187.21 E242.49112
G1 X247.87 Y187.21 E242.71650
G1 X246.42 Y187.69 E242.81183
G1 X63.28 Y187.69 E254.23257
G1 X63.28 Y187.81 E254.24018
G1 X52.88 Y187.81 E254.88875
G1 X52.88 Y161.28 E256.54324
G1 X43.63 Y161.28 E257.12040
G1 X40.49 Y159.13 E257.35759
G1 X40.49 Y145.85 E258.18546
G1 X43.64 Y143.72 E258.42281
G1 X52.88 Y143.72 E258.99916
G1 X52.88 Y117.71 E260.62103
G0 F6000 X53.38 Y118.21
G1 F2700 X62.78 Y118.21 E261.20724
G1 X62.78 Y120.75 E261.36558
G1 X64.78 Y120.71 E261.49033
G1 X64.78 Y120.62 E261.49588
G1 X64.98 Y120.42 E261.51352
G1 X64.98 Y117.41 E261.70105
G1 X239.38 Y117.41 E272.57711
G1 X239.38 Y120.42 E272.76464
G1 X239.58 Y120.62 E272.78227
G1 X239.58 Y120.71 E272.78783
G1 X241.58 Y120.75 E272.91258
G1 X241.58 Y117.61 E273.10840
G1 X250.98 Y117.61 E273.69461
G1 X250.98 Y127.16 E274.28992
G1 X251.17 Y131.28 E274.54706
G1 X250.98 Y131.29 E274.55885
G1 X250.98 Y144.22 E275.36482
G1 X261.22 Y144.22 E276.00304
G1 X264.01 Y146.13 E276.21413
G1 X264.01 Y158.88 E277.00907
G1 X261.20 Y160.78 E277.22033
G1 X250.98 Y160.78 E277.85780
G1 X250.98 Y186.71 E279.47481
G1 X247.79 Y186.71 E279.67406
G1 X246.34 Y187.19 E279.76939
G1 X62.78 Y187.19 E291.21626
G1 X62.78 Y187.31 E291.22387
G1 X53.38 Y187.31 E291.81008
G1 X53.38 Y160.78 E293.46456
G1 X43.78 Y160.78 E294.06324
G1 X40.99 Y158.87 E294.27433
G1 X40.99 Y146.12 E295.06927
G1 X43.80 Y144.22 E295.28053
G1 X53.38 Y144.22 E295.87846
G1 X53.38 Y118.21 E297.50033
G0 F6000 X53.88 Y118.71
G1 F2700 X62.28 Y118.71 E298.02418
G1 X62.28 Y121.26 E298.18320
G1 X65.28 Y121.20 E298.37034
G1 X65.28 Y120.83 E298.39347
G1 X65.48 Y120.62 E298.41111
G1 X65.48 Y117.91 E298.58036
G1 X238.88 Y117.91 E309.39407
G1 X238.88 Y120.62 E309.56332
G1 X239.08 Y120.83 E309.58096
G1 X239.08 Y121.20 E309.60409
G1 X242.08 Y121.26 E309.79123
G1 X242.08 Y118.11 E309.98767
G1 X250.48 Y118.11 E310.51152
G1 X250.48 Y127.16 E311.07571
G1 X250.65 Y130.83 E311.30470
G1 X250.48 Y130.84 E311.31516
G1 X250.48 Y144.72 E312.18051
G1 X261.06 Y144.72 E312.84025
G1 X263.51 Y146.40 E313.02526
G1 X263.51 Y158.62 E313.78721
G1 X261.05 Y160.28 E313.97234
G1 X250.48 Y160.28 E314.63145
G1 X250.48 Y186.21 E316.24846
G1 X247.71 Y186.21 E316.42145
G1 X246.26 Y186.69 E316.51684
G1 X62.28 Y186.69 E327.98990
G1 X62.28 Y186.81 E327.99751
G1 X53.88 Y186.81 E328.52136
G1 X53.88 Y160.28 E330.17584
G1 X43.94 Y160.28 E330.79604
G1 X41.49 Y158.60 E330.98106
G1 X41.49 Y146.38 E331.74301
G1 X43.95 Y144.72 E331.92813
G1 X53.88 Y144.72 E332.54771
G1 X53.88 Y118.71 E334.16958
G0 F6000 X54.38 Y119.21
G1 F2700 X61.78 Y119.21 E334.63106
G1 X61.78 Y121.77 E334.79077
G1 X65.78 Y121.69 E335.04028
G1 X65.78 Y121.03 E335.08100
G1 X65.98 Y120.83 E335.09864
G1 X65.98 Y118.41 E335.24962
G1 X238.38 Y118.41 E346.00096
G1 X238.38 Y120.83 E346.15194
G1 X238.58 Y121.03 E346.16958
G1 X238.58 Y121.69 E346.21037
G1 X242.58 Y121.77 E346.45988
G1 X242.58 Y118.61 E346.65707
G1 X249.98 Y118.61 E347.11855
G1 X249.98 Y127.18 E347.65300
G1 X250.13 Y130.38 E347.85240
G1 X249.98 Y130.39 E347.86155
G1 X249.98 Y145.22 E348.78633
G1 X260.91 Y145.22 E349.46758
G1 X263.01 Y146.66 E349.62649
G1 X263.01 Y158.35 E350.35551
G1 X260.90 Y159.78 E350.51456
G1 X249.98 Y159.78 E351.19525
G1 X249.98 Y185.71 E352.81225
G1 X247.63 Y185.71 E352.95911
G1 X246.18 Y186.19 E353.05445
G1 X61.78 Y186.19 E364.55370
G1 X61.78 Y186.31 E364.56131
G1 X54.38 Y186.31 E365.02279
G1 X54.38 Y159.78 E366.67728
G1 X44.09 Y159.78 E367.31899
G1 X41.99 Y158.34 E367.47791
G1 X41.99 Y146.65 E368.20693
G1 X44.10 Y145.22 E368.36597
G1 X54.38 Y145.22 E369.00712
G1 X54.38 Y119.21 E370.62899
G0 F6000 X54.88 Y119.71
G1 F2700 X61.28 Y119.71 E371.02811
G1 X61.28 Y122.28 E371.18851
G1 X66.28 Y122.17 E371.50040
G1 X66.28 Y121.24 E371.55877
G1 X66.48 Y121.04 E371.57641
G1 X66.48 Y118.91 E371.70911
G1 X237.88 Y118.91 E382.39809
G1 X237.88 Y121.04 E382.53080
G1 X238.08 Y121.24 E382.54844
G1 X238.08 Y122.17 E382.60681
G1 X243.08 Y122.28 E382.91869
G1 X243.08 Y119.11 E383.11651
G1 X249.48 Y119.11 E383.51563
G1 X249.48 Y127.18 E384.01896
G1 X249.61 Y129.93 E384.19020
G1 X249.48 Y129.94 E384.19803
G1 X249.48 Y145.72 E385.18224
G1 X260.75 Y145.72 E385.88501
G1 X262.51 Y146.92 E386.01782
G1 X262.51 Y158.09 E386.71391
G1 X260.75 Y159.28 E386.84682
G1 X249.48 Y159.28 E387.54915
G1 X249.48 Y185.21 E389.16615
G1 X247.55 Y185.21 E389.28683
G1 X246.10 Y185.69 E389.38216
G1 X61.28 Y185.69 E400.90760
G1 X61.28 Y185.81 E400.91521
G1 X54.88 Y185.81 E401.31433
G1 X54.88 Y159.28 E402.96882
G1 X44.25 Y159.28 E403.63205
G1 X42.49 Y158.08 E403.76486
G1 X42.49 Y146.91 E404.46095
G1 X44.26 Y145.72 E404.59386
G1 X54.88 Y145.72 E405.25665
G1 X54.88 Y119.71 E406.87852
G0 F6000 X55.38 Y120.21
G1 F2700 X60.78 Y120.21 E407.21528
G1 X60.78 Y122.79 E407.37636
G1 X66.78 Y122.66 E407.75063
G1 X66.78 Y121.45 E407.82652
G1 X66.98 Y121.25 E407.84416
G1 X66.98 Y119.41 E407.95860
G1 X237.38 Y119.41 E418.58521
G1 X237.38 Y121.25 E418.69965
G1 X237.58 Y121.45 E418.71729
G1 X237.58 Y122.66 E418.79318
G1 X243.58 Y122.80 E419.16745
G1 X243.58 Y119.61 E419.36601
G1 X248.98 Y119.61 E419.70277
G1 X248.98 Y127.20 E420.17629
G1 X249.09 Y129.47 E420.31800
G1 X248.98 Y129.48 E420.32452
G1 X248.98 Y146.22 E421.36816
G1 X260.60 Y146.22 E422.09244
G1 X262.01 Y147.19 E422.19919
G1 X262.01 Y157.82 E422.86229
G1 X260.59 Y158.78 E422.96911
G1 X248.98 Y158.78 E423.69302
G1 X248.98 Y184.71 E425.31002
G1 X247.47 Y184.71 E425.40457
G1 X246.02 Y185.19 E425.49984
G1 X60.78 Y185.19 E437.05148
G1 X60.78 Y185.31 E437.05909
G1 X55.38 Y185.31 E437.39585
G1 X55.38 Y158.78 E439.05033
G1 X44.40 Y158.78 E439.73507
G1 X42.99 Y157.81 E439.84182
G1 X42.99 Y147.18 E440.50492
G1 X44.41 Y146.22 E440.61175
G1 X55.38 Y146.22 E441.29611
G1 X55.38 Y120.21 E442.91798
G0 F6000 X55.88 Y120.71
G1 F2700 X60.28 Y120.71 E443.19238
G1 X60.28 Y123.31 E443.35415
G1 X67.28 Y123.15 E443.79079
G1 X67.28 Y121.65 E443.88433
G1 X67.48 Y121.45 E443.90197
G1 X67.48 Y119.91 E443.99814
G1 X236.88 Y119.91 E454.56239
G1 X236.88 Y121.45 E454.65855
G1 X237.08 Y121.65 E454.67619
G1 X237.08 Y123.15 E454.76973
G1 X244.08 Y123.31 E455.20638
G1 X244.08 Y120.11 E455.40556
G1 X248.48 Y120.11 E455.67996
G1 X248.48 Y127.20 E456.12236
G1 X248.57 Y129.02 E456.23592
G1 X248.48 Y129.03 E456.24112
G1 X248.48 Y146.72 E457.34413
G1 X260.44 Y146.72 E458.08992
G1 X261.51 Y147.45 E458.17056
G1 X261.51 Y157.56 E458.80074
G1 X260.44 Y158.28 E458.88143
G1 X248.48 Y158.28 E459.62698
G1 X248.48 Y184.21 E461.24398
G1 X247.39 Y184.21 E461.31239
G1 X245.94 Y184.69 E461.40766
G1 X60.28 Y184.69 E472.98543
G1 X60.28 Y184.81 E472.99304
G1 X55.88 Y184.81 E473.26744
G1 X55.88 Y158.28 E474.92192
G1 X44.56 Y158.28 E475.62818
G1 X43.49 Y157.55 E475.70882
G1 X43.49 Y147.44 E476.33900
G1 X44.56 Y146.72 E476.41969
G1 X55.88 Y146.72 E477.12570
G1 X55.88 Y120.71 E478.74757
G0 F6000 X56.38 Y121.21
G1 F2700 X59.78 Y121.21 E478.95960
G1 X59.78 Y123.83 E479.12305
G1 X59.90 Y123.81 E479.13032
G1 X67.78 Y123.64 E479.62217
G1 X67.78 Y121.86 E479.73330
G1 X67.98 Y121.66 E479.75094
G1 X67.98 Y120.41 E479.82883
G1 X236.38 Y120.41 E490.33072
G1 X236.38 Y121.66 E490.40861
G1 X236.58 Y121.86 E490.42625
G1 X236.58 Y123.64 E490.53738
G1 X244.41 Y123.81 E491.02585
G1 X244.58 Y123.83 E491.03644
G1 X244.58 Y120.61 E491.23706
G1 X247.98 Y120.61 E491.44909
G1 X247.98 Y127.23 E491.86174
G1 X248.04 Y128.57 E491.94577
G1 X247.98 Y128.58 E491.94966
G1 X247.98 Y147.22 E493.11204
G1 X260.29 Y147.22 E493.87935
G1 X261.01 Y147.71 E493.93389
G1 X261.01 Y157.29 E494.53114
G1 X260.28 Y157.78 E494.58574
G1 X247.98 Y157.78 E495.35287
G1 X247.98 Y183.71 E496.96987
G1 X246.89 Y183.71 E497.03791
G1 X246.89 Y183.85 E497.04645
G1 X245.85 Y184.19 E497.11453
G1 X59.78 Y184.19 E508.71849
G1 X59.78 Y184.31 E508.72610
G1 X56.38 Y184.31 E508.93813
G1 X56.38 Y157.78 E510.59262
G1 X44.71 Y157.78 E511.32039
G1 X43.99 Y157.29 E511.37493
G1 X43.99 Y147.71 E511.97218
G1 X44.72 Y147.22 E512.02678
G1 X56.38 Y147.22 E512.75437
G1 X56.38 Y121.21 E514.37624
G0 F6000 X56.88 Y121.71
G1 F2700 X59.28 Y121.71 E514.52591
G1 X59.28 Y124.42 E514.69498
G1 X59.95 Y124.31 E514.73683
G1 X68.28 Y124.13 E515.25693
G1 X68.28 Y122.07 E515.38565
G1 X68.48 Y121.87 E515.40328
G1 X68.48 Y120.91 E515.46290
G1 X235.88 Y120.91 E525.90243
G1 X235.88 Y121.87 E525.96205
G1 X236.08 Y122.07 E525.97969
G1 X236.08 Y124.13 E526.10840
G1 X244.39 Y124.31 E526.62632
G1 X245.08 Y124.38 E526.66997
G1 X245.08 Y121.11 E526.87352
G1 X247.48 Y121.11 E527.02319
G1 X247.48 Y127.23 E527.40472
G1 X247.52 Y128.12 E527.46054
G1 X247.48 Y128.13 E527.46310
G1 X247.48 Y147.72 E528.68492
G1 X260.13 Y147.72 E529.47374
G1 X260.51 Y147.98 E529.50218
G1 X260.51 Y157.03 E530.06650
G1 X260.13 Y157.28 E530.09497
G1 X247.48 Y157.28 E530.88374
G1 X247.48 Y183.21 E532.50074
G1 X246.39 Y183.21 E532.56878
G1 X246.39 Y183.49 E532.58593
G1 X245.78 Y183.69 E532.62643
G1 X59.28 Y183.69 E544.25659
G1 X59.28 Y183.81 E544.26420
G1 X56.88 Y183.81 E544.41387
G1 X56.88 Y157.28 E546.06835
G1 X44.87 Y157.28 E546.81764
G1 X44.49 Y157.02 E546.84608
G1 X44.49 Y147.97 E547.41040
G1 X44.87 Y147.72 E547.43887
G1 X56.88 Y147.72 E548.18809
G1 X56.88 Y121.71 E549.80996
G0 F6000 X71.53 Y172.41
G1 F2700 X71.50 Y172.44 E549.81261
G1 X70.70 Y172.84 E549.86841
G1 X70.50 Y173.04 E549.88601
G1 X70.10 Y173.24 E549.91393
G1 X70.08 Y173.25 E549.91507
G1 X70.08 Y173.46 E549.92755
G1 X69.68 Y173.85 E549.96282
G1 X69.68 Y174.25 E549.98777
G1 X69.48 Y174.46 E550.00541
G1 X69.48 Y175.46 E550.06777
G1 X69.28 Y175.66 E550.08541
G1 X69.28 Y175.67 E550.08616
G1 X69.48 Y175.87 E550.10380
G1 X69.48 Y176.47 E550.14121
G1 X69.88 Y176.87 E550.17649
G1 X69.88 Y177.07 E550.18896
G1 X70.50 Y177.68 E550.24303
G1 X70.70 Y177.78 E550.25739
G1 X71.45 Y178.03 E550.30628
G1 X71.53 Y178.11 E550.31342
G1 X73.41 Y178.11 E550.43054
G1 X73.67 Y177.98 E550.44892
G1 X74.12 Y177.83 E550.47854
G1 X75.08 Y176.87 E550.56360
G1 X75.08 Y176.47 E550.58855
G1 X75.28 Y176.27 E550.60619
G1 X75.28 Y174.46 E550.71919
G1 X75.08 Y174.25 E550.73683
G1 X75.08 Y173.66 E550.77425
G1 X74.47 Y173.04 E550.82831
G1 X73.68 Y172.65 E550.88317
G1 X73.68 Y172.55 E550.88959
G1 X73.67 Y172.54 E550.89058
G1 X73.41 Y172.41 E550.90896
G1 X71.53 Y172.41 E551.02614
G0 F6000 X59.36 Y182.69
;TYPE:WALL-INNER
G1 F2700 X59.33 Y182.69 E551.02801
G1 X59.33 Y128.96 E554.37851
G1 X59.36 Y128.96 E554.38038
G1 X59.36 Y182.69 E557.73088
G0 F6000 X245.36 Y182.69
G1 F2700 X245.36 Y128.96 E561.08144
G1 X245.39 Y128.96 E561.08331
G1 X245.39 Y182.69 E564.43388
G1 X245.36 Y182.69 E564.43575
G0 F6000 X244.86 Y182.75
;TYPE:WALL-OUTER
G1 F2700 X244.86 Y128.46 E567.82124
G1 X245.68 Y128.46 E567.87244
G1 X245.89 Y128.55 E567.88663
G1 X245.89 Y183.12 E571.28995
G1 X245.70 Y183.19 E571.30281
G1 X59.03 Y183.19 E582.94388
G1 X58.83 Y183.12 E582.95673
G1 X58.83 Y128.55 E586.36012
G1 X59.04 Y128.46 E586.37420
G1 X59.86 Y128.46 E586.42547
G1 X59.86 Y182.75 E589.81101
G1 X244.86 Y182.75 E601.34806
G0 F6000 X57.23 Y156.28
;TYPE:WALL-INNER
G1 F2700 X45.49 Y156.28 E602.08039
G1 X45.49 Y148.72 E602.55204
G1 X57.23 Y148.72 E603.28436
G1 X57.23 Y156.28 E603.75601
G0 F6000 X57.70 Y156.78
;TYPE:WALL-OUTER
G1 F2700 X45.02 Y156.78 E604.54677
G1 X44.99 Y156.76 E604.54911
G1 X44.99 Y148.24 E605.08050
G1 X45.02 Y148.22 E605.08289
G1 X57.70 Y148.22 E605.87365
G1 X57.73 Y148.24 E605.87598
G1 X57.73 Y156.76 E606.40737
G1 X57.70 Y156.78 E606.40976
G0 F6000 X56.76 Y156.10
;TYPE:FILL
G1 F2700 X49.54 Y148.89 E607.04586
G0 F6000 X48.84 Y148.89
G1 F2700 X56.05 Y156.10 E607.68196
G0 F6000 X55.34 Y156.10
G1 F2700 X48.13 Y148.89 E608.31806
G0 F6000 X47.42 Y148.89
G1 F2700 X54.64 Y156.10 E608.95417
G0 F6000 X53.93 Y156.10
G1 F2700 X46.72 Y148.89 E609.59022
G0 F6000 X46.01 Y148.89
G1 F2700 X53.22 Y156.10 E610.22628
G0 F6000 X52.51 Y156.10
G1 F2700 X45.66 Y149.26 E610.83032
G0 F6000 X45.66 Y149.96
G1 F2700 X51.81 Y156.10 E611.37201
G0 F6000 X51.10 Y156.10
G1 F2700 X45.66 Y150.67 E611.85130
G0 F6000 X45.66 Y151.38
G1 F2700 X50.39 Y156.10 E612.26824
G0 F6000 X49.69 Y156.10
G1 F2700 X45.66 Y152.09 E612.62283
G0 F6000 X45.67 Y152.79
G1 F2700 X48.98 Y156.10 E612.91497
G0 F6000 X48.27 Y156.10
G1 F2700 X45.67 Y153.50 E613.14476
G0 F6000 X45.67 Y154.21
G1 F2700 X47.56 Y156.10 E613.31215
G0 F6000 X46.86 Y156.10
G1 F2700 X45.67 Y154.91 E613.41719
G0 F6000 X45.67 Y155.62
G1 F2700 X46.15 Y156.10 E613.45988
G0 F6000 X50.25 Y148.89
G1 F2700 X57.06 Y155.70 E614.06030
G0 F6000 X57.06 Y154.99
G1 F2700 X50.96 Y148.89 E614.59833
G0 F6000 X51.67 Y148.89
G1 F2700 X57.06 Y154.29 E615.07401
G0 F6000 X57.06 Y153.58
G1 F2700 X52.37 Y148.89 E615.48733
G0 F6000 X53.08 Y148.89
G1 F2700 X57.06 Y152.87 E615.83826
G0 F6000 X57.06 Y152.16
G1 F2700 X53.79 Y148.89 E616.12683
G0 F6000 X54.49 Y148.89
G1 F2700 X57.06 Y151.46 E616.35305
G0 F6000 X57.06 Y150.75
G1 F2700 X55.20 Y148.89 E616.51691
G0 F6000 X55.91 Y148.89
G1 F2700 X57.06 Y150.04 E616.61842
G0 F6000 X57.06 Y149.34
G1 F2700 X56.62 Y148.89 E616.65758
G0 F6000 X247.76 Y148.72
;TYPE:WALL-INNER
G1 F2700 X259.51 Y148.72 E617.38991
G1 X259.51 Y156.28 E617.86156
G1 X247.77 Y156.28 E618.59388
G1 X247.76 Y148.72 E619.06553
G0 F6000 X247.30 Y148.22
;TYPE:WALL-OUTER
G1 F2700 X259.98 Y148.22 E619.85629
G1 X260.01 Y148.24 E619.85863
G1 X260.01 Y156.76 E620.39002
G1 X259.98 Y156.78 E620.39241
G1 X247.30 Y156.78 E621.18317
G1 X247.27 Y156.76 E621.18550
G1 X247.26 Y148.24 E621.71689
G1 X247.30 Y148.22 E621.71928
G0 F6000 X248.24 Y148.89
;TYPE:FILL
G1 F2700 X255.45 Y156.10 E622.35529
G0 F6000 X254.75 Y156.10
G1 F2700 X247.94 Y149.30 E622.95568
G0 F6000 X247.94 Y150.00
G1 F2700 X254.04 Y156.10 E623.49370
G0 F6000 X253.33 Y156.11
G1 F2700 X247.94 Y150.71 E623.96942
G0 F6000 X247.94 Y151.42
G1 F2700 X252.63 Y156.11 E624.38279
G0 F6000 X251.92 Y156.11
G1 F2700 X247.94 Y152.13 E624.73380
G0 F6000 X247.94 Y152.83
G1 F2700 X251.21 Y156.11 E625.02242
G0 F6000 X250.50 Y156.11
G1 F2700 X247.94 Y153.54 E625.24868
G0 F6000 X247.94 Y154.25
G1 F2700 X249.80 Y156.11 E625.41259
G0 F6000 X249.09 Y156.11
G1 F2700 X247.94 Y154.96 E625.51415
G0 F6000 X247.94 Y155.66
G1 F2700 X248.38 Y156.11 E625.55331
G0 F6000 X248.95 Y148.89
G1 F2700 X256.16 Y156.10 E626.18932
G0 F6000 X256.87 Y156.10
G1 F2700 X249.66 Y148.89 E626.82533
G0 F6000 X250.36 Y148.89
G1 F2700 X257.57 Y156.10 E627.46134
G0 F6000 X258.28 Y156.10
G1 F2700 X251.07 Y148.89 E628.09736
G0 F6000 X251.78 Y148.89
G1 F2700 X258.99 Y156.10 E628.73333
G0 F6000 X259.33 Y155.74
G1 F2700 X252.49 Y148.89 E629.33728
G0 F6000 X253.19 Y148.89
G1 F2700 X259.33 Y155.03 E629.87888
G0 F6000 X259.33 Y154.33
G1 F2700 X253.90 Y148.89 E630.35813
G0 F6000 X254.61 Y148.89
G1 F2700 X259.33 Y153.62 E630.77502
G0 F6000 X259.33 Y152.91
G1 F2700 X255.31 Y148.89 E631.12952
G0 F6000 X256.02 Y148.89
G1 F2700 X259.33 Y152.21 E631.42162
G0 F6000 X259.33 Y151.50
G1 F2700 X256.73 Y148.89 E631.65136
G0 F6000 X257.43 Y148.89
G1 F2700 X259.33 Y150.79 E631.81871
G0 F6000 X259.33 Y150.08
G1 F2700 X258.14 Y148.89 E631.92366
G0 F6000 X258.85 Y148.89
G1 F2700 X259.33 Y149.38 E631.96626
G0 F6000 X241.64 Y133.63
;TYPE:SUPPORT
G1 F2700 X241.64 Y181.88 E634.97508
G0 F6000 X241.64 Y181.70
G0 X238.31 Y181.70
G0 X238.31 Y181.88
G1 F2700 X238.31 Y133.56 E637.98838
G0 F6000 X238.31 Y132.57
G1 F2700 X238.31 Y124.36 E638.50044
G0 F6000 X238.31 Y124.53
G0 X241.64 Y124.60
G0 X241.64 Y124.43
G1 F2700 X241.64 Y132.50 E639.00352
G0 F6000 X241.64 Y132.32
G0 X235.69 Y124.52
G0 X234.85 Y121.33
G0 X234.98 Y121.21
G1 F2700 X234.98 Y181.88 E642.78689
G0 F6000 X234.98 Y181.70
G0 X231.64 Y181.70
G0 X231.64 Y181.88
G1 F2700 X231.64 Y121.09 E646.57786
G0 F6000 X231.64 Y121.26
G0 X228.31 Y121.26
G0 X228.31 Y121.09
G1 F2700 X228.31 Y181.88 E650.36882
G0 F6000 X228.31 Y181.70
G0 X224.98 Y181.70
G0 X224.98 Y181.88
G1 F2700 X224.98 Y121.09 E654.15979
G0 F6000 X224.98 Y121.26
G0 X221.64 Y121.26
G0 X221.64 Y121.09
G1 F2700 X221.64 Y181.88 E657.95076
G0 F6000 X221.64 Y181.70
G0 X218.31 Y181.70
G0 X218.31 Y181.88
G1 F2700 X218.31 Y121.09 E661.74173
G0 F6000 X218.31 Y121.26
G0 X214.98 Y121.26
G0 X214.98 Y121.09
G1 F2700 X214.98 Y181.88 E665.53270
G0 F6000 X214.98 Y181.70
G0 X211.65 Y181.70
G0 X211.65 Y181.88
G1 F2700 X211.65 Y121.09 E669.32367
G0 F6000 X211.65 Y121.26
G0 X208.31 Y121.26
G0 X208.31 Y121.09
G1 F2700 X208.31 Y181.88 E673.11464
G0 F6000 X208.31 Y181.70
G0 X204.98 Y181.70
G0 X204.98 Y181.88
G1 F2700 X204.98 Y121.09 E676.90561
G0 F6000 X204.98 Y121.26
G0 X201.65 Y121.26
G0 X201.65 Y121.09
G1 F2700 X201.65 Y181.88 E680.69658
G0 F6000 X201.65 Y181.70
G0 X198.31 Y181.70
G0 X198.31 Y181.88
G1 F2700 X198.31 Y121.09 E684.48755
G0 F6000 X198.31 Y121.26
G0 X194.98 Y121.26
G0 X194.98 Y121.09
G1 F2700 X194.98 Y181.88 E688.27852
G0 F6000 X194.98 Y181.70
G0 X191.65 Y181.70
G0 X191.65 Y181.88
G1 F2700 X191.65 Y121.09 E692.06949
G0 F6000 X191.65 Y121.26
G0 X188.31 Y121.26
G0 X188.31 Y121.09
G1 F2700 X188.31 Y181.88 E695.86046
G0 F6000 X188.31 Y181.70
G0 X184.98 Y181.70
G0 X184.98 Y181.88
G1 F2700 X184.98 Y121.09 E699.65143
G0 F6000 X184.98 Y121.26
G0 X181.65 Y121.26
G0 X181.65 Y121.09
G1 F2700 X181.65 Y181.88 E703.44240
G0 F6000 X181.65 Y181.70
G0 X178.31 Y181.70
G0 X178.31 Y181.88
G1 F2700 X178.31 Y121.09 E707.23337
G0 F6000 X178.31 Y121.26
G0 X174.98 Y121.26
G0 X174.98 Y121.09
G1 F2700 X174.98 Y181.88 E711.02434
G0 F6000 X174.98 Y181.70
G0 X171.65 Y181.70
G0 X171.65 Y181.88
G1 F2700 X171.65 Y121.09 E714.81530
G0 F6000 X171.65 Y121.26
G0 X168.32 Y121.26
G0 X168.32 Y121.09
G1 F2700 X168.32 Y181.88 E718.60627
G0 F6000 X168.32 Y181.70
G0 X164.98 Y181.70
G0 X164.98 Y181.88
G1 F2700 X164.98 Y121.09 E722.39724
G0 F6000 X164.98 Y121.26
G0 X161.65 Y121.26
G0 X161.65 Y121.09
G1 F2700 X161.65 Y181.88 E726.18821
G0 F6000 X161.65 Y181.70
G0 X158.32 Y181.70
G0 X158.32 Y181.88
G1 F2700 X158.32 Y121.09 E729.97918
G0 F6000 X158.32 Y121.26
G0 X154.98 Y121.26
G0 X154.98 Y121.09
G1 F2700 X154.98 Y181.88 E733.77015
G0 F6000 X154.98 Y181.70
G0 X151.65 Y181.70
G0 X151.65 Y181.88
G1 F2700 X151.65 Y121.09 E737.56112
G0 F6000 X151.65 Y121.26
G0 X148.32 Y121.26
G0 X148.32 Y121.09
G1 F2700 X148.32 Y181.88 E741.35209
G0 F6000 X148.32 Y181.70
G0 X144.99 Y181.70
G0 X144.99 Y181.88
G1 F2700 X144.99 Y121.09 E745.14306
G0 F6000 X144.99 Y121.26
G0 X141.65 Y121.26
G0 X141.65 Y121.09
G1 F2700 X141.65 Y181.88 E748.93403
G0 F6000 X141.65 Y181.70
G0 X138.32 Y181.70
G0 X138.32 Y181.88
G1 F2700 X138.32 Y121.09 E752.72500
G0 F6000 X138.32 Y121.26
G0 X134.99 Y121.26
G0 X134.99 Y121.09
G1 F2700 X134.99 Y181.88 E756.51597
G0 F6000 X134.99 Y181.70
G0 X131.65 Y181.70
G0 X131.65 Y181.88
G1 F2700 X131.65 Y121.09 E760.30694
G0 F6000 X131.65 Y121.26
G0 X128.32 Y121.26
G0 X128.32 Y121.09
G1 F2700 X128.32 Y181.88 E764.09791
G0 F6000 X128.32 Y181.70
G0 X124.99 Y181.70
G0 X124.99 Y181.88
G1 F2700 X124.99 Y121.09 E767.88888
G0 F6000 X124.99 Y121.26
G0 X121.65 Y121.26
G0 X121.65 Y121.09
G1 F2700 X121.65 Y181.88 E771.67985
G0 F6000 X121.65 Y181.70
G0 X118.32 Y181.70
G0 X118.32 Y181.88
G1 F2700 X118.32 Y121.09 E775.47081
G0 F6000 X118.32 Y121.26
G0 X114.99 Y121.26
G0 X114.99 Y121.09
G1 F2700 X114.99 Y181.88 E779.26178
G0 F6000 X114.99 Y181.70
G0 X111.66 Y181.70
G0 X111.66 Y181.88
G1 F2700 X111.66 Y121.09 E783.05275
G0 F6000 X111.66 Y121.26
G0 X108.32 Y121.26
G0 X108.32 Y121.09
G1 F2700 X108.32 Y181.88 E786.84372
G0 F6000 X108.32 Y181.70
G0 X104.99 Y181.70
G0 X104.99 Y181.88
G1 F2700 X104.99 Y121.09 E790.63469
G0 F6000 X104.99 Y121.26
G0 X101.66 Y121.26
G0 X101.66 Y121.09
G1 F2700 X101.66 Y181.88 E794.42566
G0 F6000 X101.66 Y181.70
G0 X98.32 Y181.70
G0 X98.32 Y181.88
G1 F2700 X98.32 Y121.09 E798.21663
G0 F6000 X98.32 Y121.26
G0 X94.99 Y121.26
G0 X94.99 Y121.09
G1 F2700 X94.99 Y181.88 E802.00760
G0 F6000 X94.99 Y181.70
G0 X91.66 Y181.70
G0 X91.66 Y181.88
G1 F2700 X91.66 Y121.09 E805.79857
G0 F6000 X91.66 Y121.26
G0 X88.32 Y121.26
G0 X88.32 Y121.09
G1 F2700 X88.32 Y181.88 E809.58954
G0 F6000 X88.32 Y181.70
G0 X84.99 Y181.70
G0 X84.99 Y181.88
G1 F2700 X84.99 Y121.09 E813.38051
G0 F6000 X84.99 Y121.26
G0 X81.66 Y121.26
G0 X81.66 Y121.09
G1 F2700 X81.66 Y181.88 E817.17148
G0 F6000 X81.66 Y181.70
G0 X78.33 Y181.70
G0 X78.33 Y181.88
G1 F2700 X78.33 Y121.09 E820.96245
G0 F6000 X78.33 Y121.26
G0 X74.99 Y121.26
G0 X74.99 Y121.09
G1 F2700 X74.99 Y173.32 E824.21972
G0 F6000 X75.12 Y173.19
G0 X73.51 Y171.96
G0 X71.66 Y172.06
G0 X71.66 Y172.24
G1 F2700 X71.66 Y121.09 E827.40957
G0 F6000 X71.66 Y121.26
G0 X68.67 Y124.52
G0 X68.33 Y124.48
G0 X68.33 Y124.31
G1 F2700 X68.33 Y132.62 E827.92787
G0 F6000 X68.33 Y133.50
G1 F2700 X68.33 Y181.88 E830.94435
G0 F6000 X68.33 Y181.70
G0 X64.99 Y181.70
G0 X64.99 Y181.88
G1 F2700 X64.99 Y133.58 E833.95629
G0 F6000 X64.99 Y132.54
G1 F2700 X64.99 Y124.38 E834.46548
G0 F6000 X65.00 Y124.55
G0 X61.66 Y124.62
G0 X61.66 Y124.45
G1 F2700 X61.66 Y132.47 E834.96569
G0 F6000 X61.66 Y133.65
G1 F2700 X61.66 Y181.88 E837.97314
G0 F6000 X61.66 Y181.70
G0 X71.66 Y181.70
G0 X71.66 Y181.88
G1 F2700 X71.66 Y178.29 E838.19689
G0 F6000 X71.66 Y178.46
G0 X73.84 Y178.40
G0 X74.36 Y178.22
G0 X75.11 Y177.33
G0 X74.99 Y177.21
G1 F2700 X74.99 Y181.88 E838.48807
;LAYER:1
G0 F6000 X59.36 Y182.69 Z0.50
;TYPE:WALL-INNER
G1 F3480 X59.33 Y182.69 E838.48931
G1 X59.33 Y128.22 E840.75408
G1 X59.36 Y128.22 E840.75533
G1 X59.36 Y182.69 E843.02009
G0 F6000 X245.36 Y182.69
G1 F3480 X245.36 Y128.22 E845.28482
G1 X245.39 Y128.22 E845.28606
G1 X245.39 Y182.69 E847.55079
G1 X245.36 Y182.69 E847.55203
G0 F6000 X244.86 Y182.75
;TYPE:WALL-OUTER
G1 F3480 X244.86 Y127.72 E849.84012
G1 X245.68 Y127.72 E849.87426
G1 X245.89 Y127.81 E849.88372
G1 X245.89 Y183.12 E852.18366
G1 X245.70 Y183.19 E852.19223
G1 X59.03 Y183.19 E859.95294
G1 X58.83 Y183.12 E859.96151
G1 X58.83 Y127.80 E862.26149
G1 X59.04 Y127.72 E862.27088
G1 X59.86 Y127.72 E862.30506
G1 X59.86 Y182.75 E864.59310
G1 X244.86 Y182.75 E872.28447
G0 F6000 X57.44 Y156.42
;TYPE:WALL-INNER
G1 F3480 X45.29 Y156.42 E872.78965
G1 X45.29 Y148.58 E873.11572
G1 X57.44 Y148.58 E873.62090
G1 X57.44 Y156.42 E873.94698
G0 F6000 X57.70 Y156.92
;TYPE:WALL-OUTER
G1 F3480 X45.02 Y156.92 E874.47411
G1 X44.79 Y156.76 E874.48595
G1 X44.79 Y148.24 E874.84017
G1 X45.02 Y148.08 E874.85211
G1 X57.70 Y148.08 E875.37924
G1 X57.94 Y148.24 E875.39108
G1 X57.94 Y156.76 E875.74530
G1 X57.70 Y156.92 E875.75724
G0 F6000 X56.95 Y156.25
;TYPE:FILL
G1 F3480 X57.26 Y155.93 E875.77585
G0 F6000 X57.26 Y155.22
G1 F3480 X56.24 Y156.25 E875.83605
G0 F6000 X55.53 Y156.25
G1 F3480 X57.26 Y154.51 E875.93783
G0 F6000 X57.26 Y153.81
G1 F3480 X54.83 Y156.25 E876.08118
G0 F6000 X54.12 Y156.25
G1 F3480 X57.26 Y153.10 E876.26609
G0 F6000 X57.26 Y152.39
G1 F3480 X53.41 Y156.25 E876.49251
G0 F6000 X52.70 Y156.25
G1 F3480 X57.26 Y151.69 E876.76051
G0 F6000 X57.26 Y150.98
G1 F3480 X52.00 Y156.25 E877.07007
G0 F6000 X51.29 Y156.25
G1 F3480 X57.26 Y150.27 E877.42129
G0 F6000 X57.26 Y149.56
G1 F3480 X50.58 Y156.25 E877.81407
G0 F6000 X49.88 Y156.25
G1 F3480 X57.26 Y148.86 E878.24843
G0 F6000 X56.66 Y148.75
G1 F3480 X49.17 Y156.25 E878.68905
G0 F6000 X48.46 Y156.25
G1 F3480 X55.95 Y148.75 E879.12967
G0 F6000 X55.25 Y148.75
G1 F3480 X47.75 Y156.25 E879.57029
G0 F6000 X47.05 Y156.25
G1 F3480 X54.54 Y148.75 E880.01091
G0 F6000 X53.83 Y148.75
G1 F3480 X46.34 Y156.25 E880.45152
G0 F6000 X45.63 Y156.25
G1 F3480 X53.13 Y148.75 E880.89214
G0 F6000 X52.42 Y148.75
G1 F3480 X45.46 Y155.71 E881.30119
G0 F6000 X45.46 Y155.00
G1 F3480 X51.71 Y148.75 E881.66866
G0 F6000 X51.01 Y148.75
G1 F3480 X45.46 Y154.29 E881.99454
G0 F6000 X45.46 Y153.59
G1 F3480 X50.30 Y148.75 E882.27882
G0 F6000 X49.59 Y148.75
G1 F3480 X45.46 Y152.88 E882.52153
G0 F6000 X45.46 Y152.17
G1 F3480 X48.88 Y148.75 E882.72267
G0 F6000 X48.18 Y148.75
G1 F3480 X45.46 Y151.47 E882.88225
G0 F6000 X45.46 Y150.76
G1 F3480 X47.47 Y148.75 E883.00025
G0 F6000 X46.76 Y148.75
G1 F3480 X45.46 Y150.05 E883.07668
G0 F6000 X45.46 Y149.34
G1 F3480 X46.05 Y148.75 E883.11155
G0 F6000 X247.56 Y148.58
;TYPE:WALL-INNER
G1 F3480 X259.71 Y148.58 E883.61673
G1 X259.71 Y156.42 E883.94280
G1 X247.56 Y156.42 E884.44798
G1 X247.56 Y148.58 E884.77406
G0 F6000 X247.30 Y148.08
;TYPE:WALL-OUTER
G1 F3480 X259.98 Y148.08 E885.30119
G1 X260.21 Y148.24 E885.31303
G1 X260.21 Y156.76 E885.66725
G1 X259.98 Y156.92 E885.67919
G1 X247.30 Y156.92 E886.20632
G1 X247.06 Y156.76 E886.21816
G1 X247.06 Y148.24 E886.57238
G1 X247.30 Y148.08 E886.58432
G0 F6000 X248.29 Y148.75
;TYPE:FILL
G1 F3480 X247.74 Y149.30 E886.61675
G0 F6000 X247.74 Y150.01
G1 F3480 X248.99 Y148.75 E886.69074
G0 F6000 X249.70 Y148.75
G1 F3480 X247.74 Y150.72 E886.80633
G0 F6000 X247.74 Y151.43
G1 F3480 X250.41 Y148.75 E886.96350
G0 F6000 X251.12 Y148.75
G1 F3480 X247.74 Y152.13 E887.16223
G0 F6000 X247.74 Y152.84
G1 F3480 X251.82 Y148.75 E887.40247
G0 F6000 X252.53 Y148.75
G1 F3480 X247.74 Y153.55 E887.68428
G0 F6000 X247.74 Y154.25
G1 F3480 X253.24 Y148.75 E888.00766
G0 F6000 X253.94 Y148.75
G1 F3480 X247.74 Y154.96 E888.37269
G0 F6000 X247.74 Y155.67
G1 F3480 X254.65 Y148.75 E888.77930
G0 F6000 X255.36 Y148.75
G1 F3480 X247.86 Y156.25 E889.21992
G0 F6000 X248.57 Y156.25
G1 F3480 X256.06 Y148.75 E889.66051
G0 F6000 X256.77 Y148.75
G1 F3480 X249.28 Y156.25 E890.10112
G0 F6000 X249.99 Y156.25
G1 F3480 X257.48 Y148.75 E890.54174
G0 F6000 X258.19 Y148.75
G1 F3480 X250.69 Y156.25 E890.98236
G0 F6000 X251.40 Y156.25
G1 F3480 X258.89 Y148.75 E891.42298
G0 F6000 X259.54 Y148.82
G1 F3480 X252.11 Y156.25 E891.85978
G0 F6000 X252.81 Y156.25
G1 F3480 X259.54 Y149.52 E892.25500
G0 F6000 X259.54 Y150.23
G1 F3480 X253.52 Y156.25 E892.60866
G0 F6000 X254.23 Y156.25
G1 F3480 X259.54 Y150.94 E892.92072
G0 F6000 X259.54 Y151.65
G1 F3480 X254.94 Y156.25 E893.19119
G0 F6000 X255.64 Y156.25
G1 F3480 X259.54 Y152.35 E893.42008
G0 F6000 X259.54 Y153.06
G1 F3480 X256.35 Y156.25 E893.60740
G0 F6000 X257.06 Y156.25
G1 F3480 X259.54 Y153.77 E893.75316
G0 F6000 X259.54 Y154.47
G1 F3480 X257.76 Y156.25 E893.85735
G0 F6000 X258.47 Y156.25
G1 F3480 X259.54 Y155.18 E893.91996
G0 F6000 X259.54 Y155.89
G1 F3480 X259.18 Y156.25 E893.94101
G0 F6000 X241.64 Y133.63
;TYPE:SUPPORT
G1 F3480 X241.64 Y181.88 E895.94689
G0 F6000 X241.64 Y181.70
G0 X238.31 Y181.70
G0 X238.31 Y181.88
G1 F3480 X238.31 Y133.56 E897.95576
G0 F6000 X238.31 Y132.57
G1 F3480 X238.31 Y129.50 E898.08344
G0 F6000 X238.30 Y129.67
G0 X234.98 Y129.35
G0 X234.98 Y129.18
G1 F3480 X234.98 Y181.88 E900.27441
G0 F6000 X234.98 Y181.70
G0 X231.64 Y181.70
G0 X231.64 Y181.88
G1 F3480 X231.64 Y121.09 E902.80172
G0 F6000 X231.64 Y121.26
G0 X228.31 Y121.26
G0 X228.31 Y121.09
G1 F3480 X228.31 Y181.88 E905.32903
G0 F6000 X228.31 Y181.70
G0 X224.98 Y181.70
G0 X224.98 Y181.88
G1 F3480 X224.98 Y121.09 E907.85635
G0 F6000 X224.98 Y121.26
G0 X221.64 Y121.26
G0 X221.64 Y121.09
G1 F3480 X221.64 Y181.88 E910.38366
G0 F6000 X221.64 Y181.70
G0 X218.31 Y181.70
G0 X218.31 Y181.88
G1 F3480 X218.31 Y121.09 E912.91097
G0 F6000 X218.31 Y121.26
G0 X214.98 Y121.26
G0 X214.98 Y121.09
G1 F3480 X214.98 Y181.88 E915.43829
G0 F6000 X214.98 Y181.70
G0 X211.65 Y181.70
G0 X211.65 Y181.88
G1 F3480 X211.65 Y121.09 E917.96560
G0 F6000 X211.65 Y121.26
G0 X208.31 Y121.26
G0 X208.31 Y121.09
G1 F3480 X208.31 Y181.88 E920.49291
G0 F6000 X208.31 Y181.70
G0 X204.98 Y181.70
G0 X204.98 Y181.88
G1 F3480 X204.98 Y121.09 E923.02022
G0 F6000 X204.98 Y121.26
G0 X201.65 Y121.26
G0 X201.65 Y121.09
G1 F3480 X201.65 Y181.88 E925.54754
G0 F6000 X201.65 Y181.70
G0 X198.31 Y181.70
G0 X198.31 Y181.88
G1 F3480 X198.31 Y121.09 E928.07485
G0 F6000 X198.31 Y121.26
G0 X194.98 Y121.26
G0 X194.98 Y121.09
G1 F3480 X194.98 Y181.88 E930.60216
G0 F6000 X194.98 Y181.70
G0 X191.65 Y181.70
G0 X191.65 Y181.88
G1 F3480 X191.65 Y121.09 E933.12948
G0 F6000 X191.65 Y121.26
G0 X188.31 Y121.26
G0 X188.31 Y121.09
G1 F3480 X188.31 Y181.88 E935.65679
G0 F6000 X188.31 Y181.70
G0 X184.98 Y181.70
G0 X184.98 Y181.88
G1 F3480 X184.98 Y121.09 E938.18410
G0 F6000 X184.98 Y121.26
G0 X181.65 Y121.26
G0 X181.65 Y121.09
G1 F3480 X181.65 Y181.88 E940.71142
G0 F6000 X181.65 Y181.70
G0 X178.31 Y181.70
G0 X178.31 Y181.88
G1 F3480 X178.31 Y121.09 E943.23873
G0 F6000 X178.31 Y121.26
G0 X174.98 Y121.26
G0 X174.98 Y121.09
G1 F3480 X174.98 Y181.88 E945.76604
G0 F6000 X174.98 Y181.70
G0 X171.65 Y181.70
G0 X171.65 Y181.88
G1 F3480 X171.65 Y121.09 E948.29335
G0 F6000 X171.65 Y121.26
G0 X168.32 Y121.26
G0 X168.32 Y121.09
G1 F3480 X168.32 Y181.88 E950.82067
G0 F6000 X168.32 Y181.70
G0 X164.98 Y181.70
G0 X164.98 Y181.88
G1 F3480 X164.98 Y121.09 E953.34798
G0 F6000 X164.98 Y121.26
G0 X161.65 Y121.26
G0 X161.65 Y121.09
G1 F3480 X161.65 Y181.88 E955.87529
G0 F6000 X161.65 Y181.70
G0 X158.32 Y181.70
G0 X158.32 Y181.88
G1 F3480 X158.32 Y121.09 E958.40261
G0 F6000 X158.32 Y121.26
G0 X154.98 Y121.26
G0 X154.98 Y121.09
G1 F3480 X154.98 Y181.88 E960.92992
G0 F6000 X154.98 Y181.70
G0 X151.65 Y181.70
G0 X151.65 Y181.88
G1 F3480 X151.65 Y121.09 E963.45723
G0 F6000 X151.65 Y121.26
G0 X148.32 Y121.26
G0 X148.32 Y121.09
G1 F3480 X148.32 Y181.88 E965.98454
G0 F6000 X148.32 Y181.70
G0 X144.99 Y181.70
G0 X144.99 Y181.88
G1 F3480 X144.99 Y121.09 E968.51186
G0 F6000 X144.99 Y121.26
G0 X141.65 Y121.26
G0 X141.65 Y121.09
G1 F3480 X141.65 Y181.88 E971.03917
G0 F6000 X141.65 Y181.70
G0 X138.32 Y181.70
G0 X138.32 Y181.88
G1 F3480 X138.32 Y121.09 E973.56648
G0 F6000 X138.32 Y121.26
G0 X134.99 Y121.26
G0 X134.99 Y121.09
G1 F3480 X134.99 Y181.88 E976.09380
G0 F6000 X134.99 Y181.70
G0 X131.65 Y181.70
G0 X131.65 Y181.88
G1 F3480 X131.65 Y121.09 E978.62111
G0 F6000 X131.65 Y121.26
G0 X128.32 Y121.26
G0 X128.32 Y121.09
G1 F3480 X128.32 Y181.88 E981.14842
G0 F6000 X128.32 Y181.70
G0 X124.99 Y181.70
G0 X124.99 Y181.88
G1 F3480 X124.99 Y121.09 E983.67574
G0 F6000 X124.99 Y121.26
G0 X121.65 Y121.26
G0 X121.65 Y121.09
G1 F3480 X121.65 Y181.88 E986.20305
G0 F6000 X121.65 Y181.70
G0 X118.32 Y181.70
G0 X118.32 Y181.88
G1 F3480 X118.32 Y121.09 E988.73036
G0 F6000 X118.32 Y121.26
G0 X114.99 Y121.26
G0 X114.99 Y121.09
G1 F3480 X114.99 Y181.88 E991.25767
G0 F6000 X114.99 Y181.70
G0 X111.66 Y181.70
G0 X111.66 Y181.88
G1 F3480 X111.66 Y121.09 E993.78499
G0 F6000 X111.66 Y121.26
G0 X108.32 Y121.26
G0 X108.32 Y121.09
G1 F3480 X108.32 Y181.88 E996.31230
G0 F6000 X108.32 Y181.70
G0 X104.99 Y181.70
G0 X104.99 Y181.88
G1 F3480 X104.99 Y121.09 E998.83961
G0 F6000 X104.99 Y121.26
G0 X101.66 Y121.26
G0 X101.66 Y121.09
G1 F3480 X101.66 Y181.88 E1001.36693
G0 F6000 X101.66 Y181.70
G0 X98.32 Y181.70
G0 X98.32 Y181.88
G1 F3480 X98.32 Y121.09 E1003.89424
G0 F6000 X98.32 Y121.26
G0 X94.99 Y121.26
G0 X94.99 Y121.09
G1 F3480 X94.99 Y181.88 E1006.42155
G0 F6000 X94.99 Y181.70
G0 X91.66 Y181.70
G0 X91.66 Y181.88
G1 F3480 X91.66 Y121.09 E1008.94886
G0 F6000 X91.66 Y121.26
G0 X88.32 Y121.26
G0 X88.32 Y121.09
G1 F3480 X88.32 Y181.88 E1011.47618
G0 F6000 X88.32 Y181.70
G0 X84.99 Y181.70
G0 X84.99 Y181.88
G1 F3480 X84.99 Y121.09 E1014.00349
G0 F6000 X84.99 Y121.26
G0 X81.66 Y121.26
G0 X81.66 Y121.09
G1 F3480 X81.66 Y181.88 E1016.53080
G0 F6000 X81.66 Y181.70
G0 X78.33 Y181.70
G0 X78.33 Y181.88
G1 F3480 X78.33 Y121.09 E1019.05812
G0 F6000 X78.33 Y121.26
G0 X74.99 Y121.26
G0 X74.99 Y121.09
G1 F3480 X74.99 Y173.32 E1021.22963
G0 F6000 X75.12 Y173.19
G0 X73.51 Y171.96
G0 X71.66 Y172.06
G0 X71.66 Y172.24
G1 F3480 X71.66 Y121.09 E1023.35620
G0 F6000 X71.66 Y121.26
G0 X68.67 Y124.52
G0 X68.33 Y124.48
G0 X68.33 Y124.31
G1 F3480 X68.33 Y127.73 E1023.49851
G0 F6000 X68.35 Y127.56
G0 X70.20 Y127.61
G0 X70.20 Y129.39
G0 X68.35 Y129.58
G0 X68.33 Y129.41
G1 F3480 X68.33 Y132.62 E1023.63193
G0 F6000 X68.33 Y133.50
G1 F3480 X68.33 Y181.88 E1025.64292
G0 F6000 X68.33 Y181.70
G0 X64.99 Y181.70
G0 X64.99 Y181.88
G1 F3480 X64.99 Y133.58 E1027.65087
G0 F6000 X65.00 Y133.75
G0 X61.66 Y133.82
G0 X61.66 Y133.65
G1 F3480 X61.66 Y181.88 E1029.65583
G0 F6000 X61.66 Y181.70
G0 X71.66 Y181.70
G0 X71.66 Y181.88
G1 F3480 X71.66 Y178.29 E1029.80501
G0 F6000 X71.66 Y178.46
G0 X73.84 Y178.40
G0 X74.36 Y178.22
G0 X75.11 Y177.33
G0 X74.99 Y177.21
G1 F3480 X74.99 Y181.88 E1029.99912
G0 F6000 X74.99 Y181.70
G0 X75.72 Y176.45
G0 X75.52 Y173.48
G0 X73.51 Y171.96
G0 X68.68 Y132.41
G0 X70.20 Y129.39
G0 X70.20 Y127.61
G0 X64.99 Y127.45
G0 X64.99 Y127.63
G1 F3480 X64.99 Y124.38 E1030.13436
G0 F6000 X65.00 Y124.55
G0 X61.66 Y124.62
G0 X61.66 Y124.45
G1 F3480 X61.66 Y127.63 E1030.26674
G0 F6000 X61.66 Y127.46
G0 X234.98 Y127.65
G0 X234.98 Y127.83
G1 F3480 X234.98 Y121.21 E1030.54184
;LAYER:2
G0 F6000 X236.11 Y127.78 Z0.70
;TYPE:WALL-INNER
G1 F4320 X245.36 Y127.78 E1030.92641
G1 X245.36 Y127.47 E1030.93938
G1 X245.39 Y127.47 E1030.94063
G1 X245.39 Y182.69 E1033.23637
G1 X245.36 Y182.69 E1033.23762
G1 X245.36 Y129.22 E1035.46068
G1 X236.11 Y129.22 E1035.84525
G1 X236.11 Y127.78 E1035.90500
G0 F6000 X68.61 Y127.78
G1 F4320 X68.61 Y129.22 E1035.96470
G1 X59.36 Y129.22 E1036.34927
G1 X59.36 Y182.69 E1038.57229
G1 X59.33 Y182.69 E1038.57354
G1 X59.33 Y127.47 E1040.86932
G1 X59.36 Y127.47 E1040.87057
G1 X59.36 Y127.78 E1040.88362
G1 X68.61 Y127.78 E1041.26820
G0 F6000 X69.11 Y127.28
;TYPE:WALL-OUTER
G1 F4320 X69.11 Y129.72 E1041.36947
G1 X59.86 Y129.72 E1041.75404
G1 X59.86 Y182.75 E1043.95882
G1 X244.86 Y182.75 E1051.65018
G1 X244.86 Y129.72 E1053.85499
G1 X235.61 Y129.72 E1054.23956
G1 X235.61 Y127.28 E1054.34088
G1 X244.86 Y127.28 E1054.72545
G1 X244.86 Y126.97 E1054.73847
G1 X245.68 Y126.97 E1054.77264
G1 X245.89 Y127.06 E1054.78205
G1 X245.89 Y183.12 E1057.11304
G1 X245.70 Y183.19 E1057.12161
G1 X59.03 Y183.19 E1064.88233
G1 X58.83 Y183.12 E1064.89090
G1 X58.83 Y127.06 E1067.22194
G1 X59.04 Y126.97 E1067.23127
G1 X59.86 Y126.97 E1067.26549
G1 X59.86 Y127.28 E1067.27850
G1 X69.11 Y127.28 E1067.66307
G0 F6000 X68.44 Y128.19
;TYPE:FILL
G1 F4320 X68.21 Y127.96 E1067.67668
G0 F6000 X67.50 Y127.96
G1 F4320 X68.44 Y128.90 E1067.73186
G0 F6000 X67.88 Y129.04
G1 F4320 X66.79 Y127.96 E1067.79569
G0 F6000 X66.08 Y127.96
G1 F4320 X67.17 Y129.04 E1067.85948
G0 F6000 X66.46 Y129.04
G1 F4320 X65.38 Y127.96 E1067.92327
G0 F6000 X64.67 Y127.96
G1 F4320 X65.76 Y129.04 E1067.98707
G0 F6000 X65.05 Y129.04
G1 F4320 X63.96 Y127.96 E1068.05086
G0 F6000 X63.26 Y127.96
G1 F4320 X64.34 Y129.04 E1068.11465
G0 F6000 X63.63 Y129.04
G1 F4320 X62.55 Y127.96 E1068.17848
G0 F6000 X61.84 Y127.96
G1 F4320 X62.93 Y129.04 E1068.24230
G0 F6000 X62.22 Y129.04
G1 F4320 X61.13 Y127.96 E1068.30612
G0 F6000 X60.43 Y127.96
G1 F4320 X61.51 Y129.04 E1068.36995
G0 F6000 X60.81 Y129.04
G1 F4320 X59.72 Y127.96 E1068.43374
G0 F6000 X59.51 Y128.45
G1 F4320 X60.10 Y129.04 E1068.46855
G0 F6000 X236.29 Y128.45
G1 F4320 X236.88 Y129.04 E1068.50330
G0 F6000 X237.58 Y129.04
G1 F4320 X236.50 Y127.96 E1068.56715
G0 F6000 X237.21 Y127.96
G1 F4320 X238.29 Y129.04 E1068.63100
G0 F6000 X239.00 Y129.04
G1 F4320 X237.91 Y127.96 E1068.69485
G0 F6000 X238.62 Y127.96
G1 F4320 X239.71 Y129.04 E1068.75871
G0 F6000 X240.41 Y129.04
G1 F4320 X239.33 Y127.96 E1068.82256
G0 F6000 X240.03 Y127.96
G1 F4320 X241.12 Y129.04 E1068.88638
G0 F6000 X241.83 Y129.04
G1 F4320 X240.74 Y127.96 E1068.95021
G0 F6000 X241.45 Y127.96
G1 F4320 X242.53 Y129.04 E1069.01403
G0 F6000 X243.24 Y129.04
G1 F4320 X242.16 Y127.96 E1069.07782
G0 F6000 X242.86 Y127.96
G1 F4320 X243.95 Y129.04 E1069.14162
G0 F6000 X244.65 Y129.04
G1 F4320 X243.57 Y127.96 E1069.20541
G0 F6000 X244.28 Y127.96
G1 F4320 X245.22 Y128.90 E1069.26068
G0 F6000 X245.22 Y128.19
G1 F4320 X244.98 Y127.96 E1069.27435
G0 F6000 X247.45 Y148.44
;TYPE:WALL-INNER
G1 F4320 X259.82 Y148.44 E1069.78859
G1 X259.92 Y148.50 E1069.79338
G1 X259.92 Y156.50 E1070.12561
G1 X259.82 Y156.56 E1070.13039
G1 X247.45 Y156.56 E1070.64464
G1 X247.36 Y156.50 E1070.64942
G1 X247.36 Y148.50 E1070.98165
G1 X247.45 Y148.44 E1070.98643
G0 F6000 X247.30 Y147.94
;TYPE:WALL-OUTER
G1 F4320 X259.98 Y147.94 E1071.51357
G1 X260.42 Y148.24 E1071.53567
G1 X260.42 Y156.76 E1071.88989
G1 X259.98 Y157.06 E1071.91209
G1 X247.30 Y157.06 E1072.43922
G1 X246.86 Y156.76 E1072.46133
G1 X246.86 Y148.24 E1072.81555
G1 X247.30 Y147.94 E1072.83775
G0 F6000 X247.96 Y148.62
;TYPE:FILL
G1 F4320 X255.73 Y156.38 E1073.29459
G0 F6000 X255.03 Y156.38
G1 F4320 X247.53 Y148.89 E1073.73530
G0 F6000 X247.53 Y149.60
G1 F4320 X254.32 Y156.38 E1074.13444
G0 F6000 X253.61 Y156.38
G1 F4320 X247.53 Y150.30 E1074.49198
G0 F6000 X247.53 Y151.01
G1 F4320 X252.91 Y156.38 E1074.80795
G0 F6000 X252.20 Y156.38
G1 F4320 X247.53 Y151.72 E1075.08235
G0 F6000 X247.53 Y152.43
G1 F4320 X251.49 Y156.38 E1075.31518
G0 F6000 X250.78 Y156.38
G1 F4320 X247.53 Y153.13 E1075.50642
G0 F6000 X247.53 Y153.84
G1 F4320 X250.08 Y156.38 E1075.65608
G0 F6000 X249.37 Y156.38
G1 F4320 X247.53 Y154.55 E1075.76418
G0 F6000 X247.53 Y155.25
G1 F4320 X248.66 Y156.38 E1075.83071
G0 F6000 X247.96 Y156.38
G1 F4320 X247.53 Y155.96 E1075.85567
G0 F6000 X248.67 Y148.62
G1 F4320 X256.44 Y156.38 E1076.31248
G0 F6000 X257.15 Y156.38
G1 F4320 X249.38 Y148.62 E1076.76930
G0 F6000 X250.09 Y148.62
G1 F4320 X257.85 Y156.38 E1077.22612
G0 F6000 X258.56 Y156.38
G1 F4320 X250.79 Y148.62 E1077.68296
G0 F6000 X251.50 Y148.62
G1 F4320 X259.27 Y156.38 E1078.13981
G0 F6000 X259.74 Y156.15
G1 F4320 X252.21 Y148.62 E1078.58284
G0 F6000 X252.91 Y148.62
G1 F4320 X259.74 Y155.44 E1078.98430
G0 F6000 X259.74 Y154.74
G1 F4320 X253.62 Y148.62 E1079.34419
G0 F6000 X254.33 Y148.61
G1 F4320 X259.74 Y154.03 E1079.66254
G0 F6000 X259.74 Y153.32
G1 F4320 X255.03 Y148.61 E1079.93929
G0 F6000 X255.74 Y148.61
G1 F4320 X259.74 Y152.61 E1080.17448
G0 F6000 X259.74 Y151.91
G1 F4320 X256.45 Y148.61 E1080.36807
G0 F6000 X257.15 Y148.61
G1 F4320 X259.74 Y151.20 E1080.52005
G0 F6000 X259.74 Y150.49
G1 F4320 X257.86 Y148.61 E1080.63047
G0 F6000 X258.57 Y148.61
G1 F4320 X259.74 Y149.78 E1080.69932
G0 F6000 X259.74 Y149.08
G1 F4320 X259.28 Y148.61 E1080.72660
G0 F6000 X57.64 Y148.50
;TYPE:WALL-INNER
G1 F4320 X57.64 Y156.50 E1081.05883
G1 X57.55 Y156.56 E1081.06362
G1 X45.18 Y156.56 E1081.57786
G1 X45.08 Y156.50 E1081.58265
G1 X45.08 Y148.50 E1081.91487
G1 X45.18 Y148.44 E1081.91966
G1 X57.55 Y148.44 E1082.43390
G1 X57.64 Y148.50 E1082.43869
G0 F6000 X58.14 Y148.24
;TYPE:WALL-OUTER
G1 F4320 X58.14 Y156.76 E1082.79291
G1 X57.70 Y157.06 E1082.81511
G1 X45.02 Y157.06 E1083.34224
G1 X44.58 Y156.76 E1083.36434
G1 X44.58 Y148.24 E1083.71857
G1 X45.02 Y147.94 E1083.74076
G1 X57.70 Y147.94 E1084.26789
G1 X58.14 Y148.24 E1084.29000
G0 F6000 X57.47 Y149.04
;TYPE:FILL
G1 F4320 X57.04 Y148.61 E1084.31493
G0 F6000 X56.34 Y148.61
G1 F4320 X57.47 Y149.75 E1084.38143
G0 F6000 X57.47 Y150.45
G1 F4320 X55.63 Y148.61 E1084.48950
G0 F6000 X54.92 Y148.61
G1 F4320 X57.47 Y151.16 E1084.63913
G0 F6000 X57.47 Y151.87
G1 F4320 X54.22 Y148.61 E1084.83034
G0 F6000 X53.51 Y148.61
G1 F4320 X57.47 Y152.57 E1085.06311
G0 F6000 X57.47 Y153.28
G1 F4320 X52.80 Y148.61 E1085.33745
G0 F6000 X52.09 Y148.61
G1 F4320 X57.47 Y153.99 E1085.65343
G0 F6000 X57.47 Y154.69
G1 F4320 X51.39 Y148.61 E1086.01096
G0 F6000 X50.68 Y148.61
G1 F4320 X57.47 Y155.40 E1086.41007
G0 F6000 X57.47 Y156.11
G1 F4320 X49.97 Y148.61 E1086.85075
G0 F6000 X49.27 Y148.61
G1 F4320 X57.03 Y156.38 E1087.30757
G0 F6000 X56.33 Y156.38
G1 F4320 X48.56 Y148.61 E1087.76438
G0 F6000 X47.85 Y148.61
G1 F4320 X55.62 Y156.38 E1088.22120
G0 F6000 X54.91 Y156.38
G1 F4320 X47.14 Y148.61 E1088.67799
G0 F6000 X46.44 Y148.61
G1 F4320 X54.21 Y156.38 E1089.13478
G0 F6000 X53.50 Y156.38
G1 F4320 X45.73 Y148.61 E1089.59156
G0 F6000 X45.26 Y148.85
G1 F4320 X52.79 Y156.38 E1090.03459
G0 F6000 X52.09 Y156.38
G1 F4320 X45.26 Y149.56 E1090.43605
G0 F6000 X45.26 Y150.26
G1 F4320 X51.38 Y156.38 E1090.79591
G0 F6000 X50.67 Y156.38
G1 F4320 X45.26 Y150.97 E1091.11424
G0 F6000 X45.26 Y151.68
G1 F4320 X49.96 Y156.38 E1091.39099
G0 F6000 X49.26 Y156.38
G1 F4320 X45.26 Y152.38 E1091.62618
G0 F6000 X45.26 Y153.09
G1 F4320 X48.55 Y156.38 E1091.81973
G0 F6000 X47.84 Y156.38
G1 F4320 X45.26 Y153.80 E1091.97172
G0 F6000 X45.26 Y154.51
G1 F4320 X47.14 Y156.38 E1092.08214
G0 F6000 X46.43 Y156.38
G1 F4320 X45.26 Y155.21 E1092.15099
G0 F6000 X45.26 Y155.92
G1 F4320 X45.72 Y156.38 E1092.17827
G0 F6000 X61.66 Y133.65
;TYPE:SUPPORT
G1 F4320 X61.66 Y181.88 E1094.18323
G0 F6000 X61.66 Y181.70
G0 X64.99 Y181.70
G0 X64.99 Y181.88
G1 F4320 X64.99 Y133.58 E1096.19119
G0 F6000 X65.00 Y133.75
G0 X68.33 Y133.68
G0 X68.33 Y133.50
G1 F4320 X68.33 Y181.88 E1098.20218
G0 F6000 X68.33 Y181.70
G0 X71.66 Y181.70
G0 X71.66 Y181.88
G1 F4320 X71.66 Y178.29 E1098.35135
G0 F6000 X71.66 Y178.46
G0 X73.84 Y178.40
G0 X74.36 Y178.22
G0 X75.11 Y177.33
G0 X74.99 Y177.21
G1 F4320 X74.99 Y181.88 E1098.54547
G0 F6000 X74.99 Y181.70
G0 X78.33 Y181.70
G0 X78.33 Y181.88
G1 F4320 X78.33 Y121.09 E1101.07278
G0 F6000 X78.33 Y121.26
G0 X74.99 Y121.26
G0 X74.99 Y121.09
G1 F4320 X74.99 Y173.32 E1103.24429
G0 F6000 X75.12 Y173.19
G0 X73.51 Y171.96
G0 X71.66 Y172.06
G0 X71.66 Y172.24
G1 F4320 X71.66 Y121.09 E1105.37086
G0 F6000 X71.66 Y121.26
G0 X81.66 Y121.26
G0 X81.66 Y121.09
G1 F4320 X81.66 Y181.88 E1107.89818
G0 F6000 X81.66 Y181.70
G0 X84.99 Y181.70
G0 X84.99 Y181.88
G1 F4320 X84.99 Y121.09 E1110.42549
G0 F6000 X84.99 Y121.26
G0 X88.32 Y121.26
G0 X88.32 Y121.09
G1 F4320 X88.32 Y181.88 E1112.95280
G0 F6000 X88.32 Y181.70
G0 X91.66 Y181.70
G0 X91.66 Y181.88
G1 F4320 X91.66 Y121.09 E1115.48011
G0 F6000 X91.66 Y121.26
G0 X94.99 Y121.26
G0 X94.99 Y121.09
G1 F4320 X94.99 Y181.88 E1118.00743
G0 F6000 X94.99 Y181.70
G0 X98.32 Y181.70
G0 X98.32 Y181.88
G1 F4320 X98.32 Y121.09 E1120.53474
G0 F6000 X98.32 Y121.26
G0 X101.66 Y121.26
G0 X101.66 Y121.09
G1 F4320 X101.66 Y181.88 E1123.06205
G0 F6000 X101.66 Y181.70
G0 X104.99 Y181.70
G0 X104.99 Y181.88
G1 F4320 X104.99 Y121.09 E1125.58937
G0 F6000 X104.99 Y121.26
G0 X108.32 Y121.26
G0 X108.32 Y121.09
G1 F4320 X108.32 Y181.88 E1128.11668
G0 F6000 X108.32 Y181.70
G0 X111.66 Y181.70
G0 X111.66 Y181.88
G1 F4320 X111.66 Y121.09 E1130.64399
G0 F6000 X111.66 Y121.26
G0 X114.99 Y121.26
G0 X114.99 Y121.09
G1 F4320 X114.99 Y181.88 E1133.17130
G0 F6000 X114.99 Y181.70
G0 X118.32 Y181.70
G0 X118.32 Y181.88
G1 F4320 X118.32 Y121.09 E1135.69862
G0 F6000 X118.32 Y121.26
G0 X121.65 Y121.26
G0 X121.65 Y121.09
G1 F4320 X121.65 Y181.88 E1138.22593
G0 F6000 X121.65 Y181.70
G0 X124.99 Y181.70
G0 X124.99 Y181.88
G1 F4320 X124.99 Y121.09 E1140.75324
G0 F6000 X124.99 Y121.26
G0 X128.32 Y121.26
G0 X128.32 Y121.09
G1 F4320 X128.32 Y181.88 E1143.28056
G0 F6000 X128.32 Y181.70
G0 X131.65 Y181.70
G0 X131.65 Y181.88
G1 F4320 X131.65 Y121.09 E1145.80787
G0 F6000 X131.65 Y121.26
G0 X134.99 Y121.26
G0 X134.99 Y121.09
G1 F4320 X134.99 Y181.88 E1148.33518
G0 F6000 X134.99 Y181.70
G0 X138.32 Y181.70
G0 X138.32 Y181.88
G1 F4320 X138.32 Y121.09 E1150.86250
G0 F6000 X138.32 Y121.26
G0 X141.65 Y121.26
G0 X141.65 Y121.09
G1 F4320 X141.65 Y181.88 E1153.38981
G0 F6000 X141.65 Y181.70
G0 X144.99 Y181.70
G0 X144.99 Y181.88
G1 F4320 X144.99 Y121.09 E1155.91712
G0 F6000 X144.99 Y121.26
G0 X148.32 Y121.26
G0 X148.32 Y121.09
G1 F4320 X148.32 Y181.88 E1158.44443
G0 F6000 X148.32 Y181.70
G0 X151.65 Y181.70
G0 X151.65 Y181.88
G1 F4320 X151.65 Y121.09 E1160.97175
G0 F6000 X151.65 Y121.26
G0 X154.98 Y121.26
G0 X154.98 Y121.09
G1 F4320 X154.98 Y181.88 E1163.49906
G0 F6000 X154.98 Y181.70
G0 X158.32 Y181.70
G0 X158.32 Y181.88
G1 F4320 X158.32 Y121.09 E1166.02637
G0 F6000 X158.32 Y121.26
G0 X161.65 Y121.26
G0 X161.65 Y121.09
G1 F4320 X161.65 Y181.88 E1168.55369
G0 F6000 X161.65 Y181.70
G0 X164.98 Y181.70
G0 X164.98 Y181.88
G1 F4320 X164.98 Y121.09 E1171.08100
G0 F6000 X164.98 Y121.26
G0 X168.32 Y121.26
G0 X168.32 Y121.09
G1 F4320 X168.32 Y181.88 E1173.60831
G0 F6000 X168.32 Y181.70
G0 X171.65 Y181.70
G0 X171.65 Y181.88
G1 F4320 X171.65 Y121.09 E1176.13562
G0 F6000 X171.65 Y121.26
G0 X174.98 Y121.26
G0 X174.98 Y121.09
G1 F4320 X174.98 Y181.88 E1178.66294
G0 F6000 X174.98 Y181.70
G0 X178.31 Y181.70
G0 X178.31 Y181.88
G1 F4320 X178.31 Y121.09 E1181.19025
G0 F6000 X178.31 Y121.26
G0 X181.65 Y121.26
G0 X181.65 Y121.09
G1 F4320 X181.65 Y181.88 E1183.71756
G0 F6000 X181.65 Y181.70
G0 X184.98 Y181.70
G0 X184.98 Y181.88
G1 F4320 X184.98 Y121.09 E1186.24488
G0 F6000 X184.98 Y121.26
G0 X188.31 Y121.26
G0 X188.31 Y121.09
G1 F4320 X188.31 Y181.88 E1188.77219
G0 F6000 X188.31 Y181.70
G0 X191.65 Y181.70
G0 X191.65 Y181.88
G1 F4320 X191.65 Y121.09 E1191.29950
G0 F6000 X191.65 Y121.26
G0 X194.98 Y121.26
G0 X194.98 Y121.09
G1 F4320 X194.98 Y181.88 E1193.82682
G0 F6000 X194.98 Y181.70
G0 X198.31 Y181.70
G0 X198.31 Y181.88
G1 F4320 X198.31 Y121.09 E1196.35413
G0 F6000 X198.31 Y121.26
G0 X201.65 Y121.26
G0 X201.65 Y121.09
G1 F4320 X201.65 Y181.88 E1198.88144
G0 F6000 X201.65 Y181.70
G0 X204.98 Y181.70
G0 X204.98 Y181.88
G1 F4320 X204.98 Y121.09 E1201.40875
G0 F6000 X204.98 Y121.26
G0 X208.31 Y121.26
G0 X208.31 Y121.09
G1 F4320 X208.31 Y181.88 E1203.93607
G0 F6000 X208.31 Y181.70
G0 X211.65 Y181.70
G0 X211.65 Y181.88
G1 F4320 X211.65 Y121.09 E1206.46338
G0 F6000 X211.65 Y121.26
G0 X214.98 Y121.26
G0 X214.98 Y121.09
G1 F4320 X214.98 Y181.88 E1208.99069
G0 F6000 X214.98 Y181.70
G0 X218.31 Y181.70
G0 X218.31 Y181.88
G1 F4320 X218.31 Y121.09 E1211.51801
G0 F6000 X218.31 Y121.26
G0 X221.64 Y121.26
G0 X221.64 Y121.09
G1 F4320 X221.64 Y181.88 E1214.04532
G0 F6000 X221.64 Y181.70
G0 X224.98 Y181.70
G0 X224.98 Y181.88
G1 F4320 X224.98 Y121.09 E1216.57263
G0 F6000 X224.98 Y121.26
G0 X228.31 Y121.26
G0 X228.31 Y121.09
G1 F4320 X228.31 Y181.88 E1219.09994
G0 F6000 X228.31 Y181.70
G0 X231.64 Y181.70
G0 X231.64 Y181.88
G1 F4320 X231.64 Y121.09 E1221.62726
G0 F6000 X231.64 Y121.26
G0 X234.85 Y121.33
G0 X234.98 Y121.21
G1 F4320 X234.98 Y126.41 E1221.84341
G0 F6000 X234.98 Y126.23
G0 X234.52 Y126.19
G0 X234.52 Y130.81
G0 X234.98 Y130.77
G0 X234.98 Y130.59
G1 F4320 X234.98 Y181.88 E1223.97542
G0 F6000 X234.98 Y181.70
G0 X238.31 Y181.70
G0 X238.31 Y181.88
G1 F4320 X238.31 Y133.56 E1225.98429
G0 F6000 X238.31 Y133.73
G0 X241.64 Y133.80
G0 X241.64 Y133.63
G1 F4320 X241.64 Y181.88 E1227.99017
;LAYER:3
G0 F6000 X245.36 Y182.69 Z0.90
;TYPE:WALL-INNER
G1 F5160 X245.36 Y129.88 E1230.18580
G1 X236.11 Y129.88 E1230.57037
G1 X236.11 Y127.12 E1230.68499
G1 X245.36 Y127.12 E1231.06956
G1 X245.36 Y126.72 E1231.08615
G1 X245.39 Y126.72 E1231.08740
G1 X245.39 Y182.69 E1233.41419
G1 X245.36 Y182.69 E1233.41544
G0 F6000 X68.61 Y129.88
G1 F5160 X59.36 Y129.88 E1233.80001
G1 X59.36 Y182.69 E1235.99559
G1 X59.33 Y182.69 E1235.99684
G1 X59.33 Y126.72 E1238.32368
G1 X59.36 Y126.72 E1238.32493
G1 X59.36 Y127.12 E1238.34160
G1 X68.61 Y127.12 E1238.72617
G1 X68.61 Y129.88 E1238.84075
G0 F6000 X69.11 Y130.38
;TYPE:WALL-OUTER
G1 F5160 X59.86 Y130.38 E1239.22532
G1 X59.86 Y182.75 E1241.40265
G1 X244.86 Y182.75 E1249.09402
G1 X244.86 Y130.38 E1251.27139
G1 X235.61 Y130.38 E1251.65596
G1 X235.61 Y126.62 E1251.81216
G1 X244.86 Y126.62 E1252.19673
G1 X244.86 Y126.22 E1252.21336
G1 X245.61 Y126.22 E1252.24446
G1 X245.69 Y126.22 E1252.24758
G1 X245.89 Y126.31 E1252.25695
G1 X245.89 Y183.12 E1254.61900
G1 X245.70 Y183.19 E1254.62757
G1 X59.03 Y183.19 E1262.38828
G1 X58.83 Y183.12 E1262.39685
G1 X58.83 Y126.31 E1264.75895
G1 X59.04 Y126.22 E1264.76832
G1 X59.12 Y126.22 E1264.77148
G1 X59.86 Y126.22 E1264.80250
G1 X59.86 Y126.62 E1264.81913
G1 X69.11 Y126.62 E1265.20370
G1 X69.11 Y130.38 E1265.35985
G0 F6000 X68.44 Y129.20
;TYPE:FILL
G1 F5160 X67.93 Y129.70 E1265.38951
G0 F6000 X67.23 Y129.70
G1 F5160 X68.44 Y128.49 E1265.46075
G0 F6000 X68.44 Y127.78
G1 F5160 X66.52 Y129.70 E1265.57355
G0 F6000 X65.81 Y129.70
G1 F5160 X68.22 Y127.30 E1265.71501
G0 F6000 X67.51 Y127.30
G1 F5160 X65.10 Y129.70 E1265.85653
G0 F6000 X64.40 Y129.70
G1 F5160 X66.80 Y127.30 E1265.99805
G0 F6000 X66.10 Y127.30
G1 F5160 X63.69 Y129.70 E1266.13958
G0 F6000 X62.98 Y129.70
G1 F5160 X65.39 Y127.30 E1266.28110
G0 F6000 X64.68 Y127.30
G1 F5160 X62.27 Y129.70 E1266.42265
G0 F6000 X61.57 Y129.70
G1 F5160 X63.98 Y127.30 E1266.56420
G0 F6000 X63.27 Y127.30
G1 F5160 X60.86 Y129.70 E1266.70575
G0 F6000 X60.15 Y129.70
G1 F5160 X62.56 Y127.30 E1266.84728
G0 F6000 X61.85 Y127.30
G1 F5160 X59.51 Y129.64 E1266.98527
G0 F6000 X59.51 Y128.94
G1 F5160 X61.15 Y127.30 E1267.08167
G0 F6000 X60.44 Y127.30
G1 F5160 X59.51 Y128.23 E1267.13650
G0 F6000 X59.51 Y127.52
G1 F5160 X59.73 Y127.30 E1267.14975
G0 F6000 X236.29 Y127.52
G1 F5160 X236.51 Y127.30 E1267.16290
G0 F6000 X237.22 Y127.30
G1 F5160 X236.29 Y128.23 E1267.21760
G0 F6000 X236.29 Y128.93
G1 F5160 X237.92 Y127.30 E1267.31388
G0 F6000 X238.63 Y127.30
G1 F5160 X236.29 Y129.64 E1267.45173
G0 F6000 X236.93 Y129.70
G1 F5160 X239.34 Y127.30 E1267.59325
G0 F6000 X240.04 Y127.30
G1 F5160 X237.64 Y129.70 E1267.73478
G0 F6000 X238.34 Y129.70
G1 F5160 X240.75 Y127.30 E1267.87630
G0 F6000 X241.46 Y127.30
G1 F5160 X239.05 Y129.70 E1268.01782
G0 F6000 X239.76 Y129.70
G1 F5160 X242.17 Y127.30 E1268.15934
G0 F6000 X242.87 Y127.30
G1 F5160 X240.47 Y129.70 E1268.30087
G0 F6000 X241.17 Y129.70
G1 F5160 X243.58 Y127.30 E1268.44239
G0 F6000 X244.29 Y127.30
G1 F5160 X241.88 Y129.70 E1268.58391
G0 F6000 X242.59 Y129.70
G1 F5160 X244.99 Y127.30 E1268.72543
G0 F6000 X245.22 Y127.78
G1 F5160 X243.29 Y129.70 E1268.83841
G0 F6000 X244.00 Y129.70
G1 F5160 X245.22 Y128.49 E1268.90979
G0 F6000 X245.22 Y129.20
G1 F5160 X244.71 Y129.70 E1268.93960
G0 F6000 X247.45 Y148.37
;TYPE:WALL-INNER
G1 F5160 X259.82 Y148.37 E1269.45405
G1 X260.01 Y148.50 E1269.46362
G1 X260.02 Y156.50 E1269.79606
G1 X259.83 Y156.63 E1269.80563
G1 X247.45 Y156.63 E1270.32008
G1 X247.26 Y156.50 E1270.32965
G1 X247.26 Y148.50 E1270.66208
G1 X247.45 Y148.37 E1270.67166
G0 F6000 X247.29 Y147.87
;TYPE:WALL-OUTER
G1 F5160 X259.98 Y147.87 E1271.19908
G1 X260.51 Y148.24 E1271.22597
G1 X260.52 Y156.76 E1271.58044
G1 X259.98 Y157.13 E1271.60733
G1 X247.30 Y157.13 E1272.13475
G1 X246.76 Y156.76 E1272.16165
G1 X246.76 Y148.24 E1272.51612
G1 X247.29 Y147.87 E1272.54301
G0 F6000 X247.78 Y148.55
;TYPE:FILL
G1 F5160 X247.43 Y148.90 E1272.56376
G0 F6000 X247.43 Y149.61
G1 F5160 X248.49 Y148.55 E1272.62606
G0 F6000 X249.20 Y148.55
G1 F5160 X247.43 Y150.31 E1272.72992
G0 F6000 X247.43 Y151.02
G1 F5160 X249.91 Y148.55 E1272.87538
G0 F6000 X250.61 Y148.55
G1 F5160 X247.43 Y151.73 E1273.06235
G0 F6000 X247.43 Y152.43
G1 F5160 X251.32 Y148.55 E1273.29090
G0 F6000 X252.03 Y148.55
G1 F5160 X247.44 Y153.14 E1273.56100
G0 F6000 X247.44 Y153.85
G1 F5160 X252.74 Y148.55 E1273.87268
G0 F6000 X253.44 Y148.55
G1 F5160 X247.44 Y154.55 E1274.22587
G0 F6000 X247.44 Y155.26
G1 F5160 X254.15 Y148.55 E1274.62066
G0 F6000 X254.86 Y148.55
G1 F5160 X247.44 Y155.97 E1275.05699
G0 F6000 X247.66 Y156.45
G1 F5160 X255.56 Y148.55 E1275.52195
G0 F6000 X256.27 Y148.54
G1 F5160 X248.36 Y156.45 E1275.98696
G0 F6000 X249.07 Y156.45
G1 F5160 X256.98 Y148.54 E1276.45198
G0 F6000 X257.69 Y148.54
G1 F5160 X249.78 Y156.45 E1276.91700
G0 F6000 X250.49 Y156.45
G1 F5160 X258.39 Y148.54 E1277.38208
G0 F6000 X259.10 Y148.54
G1 F5160 X251.19 Y156.45 E1277.84710
G0 F6000 X251.90 Y156.45
G1 F5160 X259.79 Y148.56 E1278.31112
G0 F6000 X259.83 Y149.23
G1 F5160 X252.61 Y156.45 E1278.73604
G0 F6000 X253.31 Y156.45
G1 F5160 X259.83 Y149.93 E1279.11945
G0 F6000 X259.84 Y150.64
G1 F5160 X254.02 Y156.45 E1279.46129
G0 F6000 X254.73 Y156.45
G1 F5160 X259.84 Y151.34 E1279.76159
G0 F6000 X259.84 Y152.05
G1 F5160 X255.44 Y156.45 E1280.02032
G0 F6000 X256.14 Y156.45
G1 F5160 X259.84 Y152.76 E1280.23752
G0 F6000 X259.84 Y153.47
G1 F5160 X256.85 Y156.45 E1280.41314
G0 F6000 X257.56 Y156.45
G1 F5160 X259.84 Y154.17 E1280.54725
G0 F6000 X259.84 Y154.88
G1 F5160 X258.26 Y156.45 E1280.63980
G0 F6000 X258.97 Y156.45
G1 F5160 X259.84 Y155.58 E1280.69083
G0 F6000 X259.84 Y156.29
G1 F5160 X259.68 Y156.45 E1280.70027
G0 F6000 X57.74 Y156.50
;TYPE:WALL-INNER
G1 F5160 X57.55 Y156.63 E1280.70984
G1 X45.18 Y156.63 E1281.22429
G1 X44.99 Y156.50 E1281.23386
G1 X44.98 Y148.50 E1281.56630
G1 X45.17 Y148.37 E1281.57587
G1 X57.55 Y148.37 E1282.09032
G1 X57.74 Y148.50 E1282.09989
G1 X57.74 Y156.50 E1282.43233
G0 F6000 X58.24 Y156.76
;TYPE:WALL-OUTER
G1 F5160 X57.71 Y157.13 E1282.45922
G1 X45.02 Y157.13 E1282.98664
G1 X44.49 Y156.76 E1283.01353
G1 X44.48 Y148.24 E1283.36800
G1 X45.02 Y147.87 E1283.39490
G1 X57.70 Y147.87 E1283.92232
G1 X58.24 Y148.24 E1283.94921
G1 X58.24 Y156.76 E1284.30368
G0 F6000 X57.57 Y156.33
;TYPE:FILL
G1 F5160 X57.45 Y156.45 E1284.31062
G0 F6000 X56.74 Y156.45
G1 F5160 X57.57 Y155.62 E1284.35913
G0 F6000 X57.57 Y154.92
G1 F5160 X56.03 Y156.45 E1284.44917
G0 F6000 X55.33 Y156.45
G1 F5160 X57.56 Y154.21 E1284.58082
G0 F6000 X57.56 Y153.50
G1 F5160 X54.62 Y156.45 E1284.75403
G0 F6000 X53.91 Y156.45
G1 F5160 X57.56 Y152.80 E1284.96875
G0 F6000 X57.56 Y152.09
G1 F5160 X53.20 Y156.45 E1285.22508
G0 F6000 X52.50 Y156.45
G1 F5160 X57.56 Y151.39 E1285.52294
G0 F6000 X57.56 Y150.68
G1 F5160 X51.79 Y156.45 E1285.86237
G0 F6000 X51.08 Y156.45
G1 F5160 X57.56 Y149.97 E1286.24337
G0 F6000 X57.56 Y149.27
G1 F5160 X50.38 Y156.45 E1286.66593
G0 F6000 X49.67 Y156.45
G1 F5160 X57.54 Y148.58 E1287.12901
G0 F6000 X56.87 Y148.54
G1 F5160 X48.96 Y156.45 E1287.59403
G0 F6000 X48.25 Y156.45
G1 F5160 X56.16 Y148.54 E1288.05905
G0 F6000 X55.45 Y148.54
G1 F5160 X47.55 Y156.45 E1288.52407
G0 F6000 X46.84 Y156.45
G1 F5160 X54.75 Y148.54 E1288.98909
G0 F6000 X54.04 Y148.54
G1 F5160 X46.13 Y156.45 E1289.45411
G0 F6000 X45.42 Y156.45
G1 F5160 X53.33 Y148.54 E1289.91913
G0 F6000 X52.63 Y148.54
G1 F5160 X45.16 Y156.01 E1290.35786
G0 F6000 X45.16 Y155.30
G1 F5160 X51.92 Y148.55 E1290.75503
G0 F6000 X51.21 Y148.55
G1 F5160 X45.16 Y154.59 E1291.11066
G0 F6000 X45.16 Y153.89
G1 F5160 X50.50 Y148.55 E1291.42472
G0 F6000 X49.80 Y148.55
G1 F5160 X45.16 Y153.18 E1291.69721
G0 F6000 X45.16 Y152.47
G1 F5160 X49.09 Y148.55 E1291.92816
G0 F6000 X48.38 Y148.55
G1 F5160 X45.16 Y151.77 E1292.11760
G0 F6000 X45.16 Y151.06
G1 F5160 X47.67 Y148.55 E1292.26545
G0 F6000 X46.97 Y148.55
G1 F5160 X45.16 Y150.35 E1292.37169
G0 F6000 X45.16 Y149.65
G1 F5160 X46.26 Y148.55 E1292.43643
G0 F6000 X45.55 Y148.55
G1 F5160 X45.16 Y148.94 E1292.45965
G0 F6000 X61.66 Y133.65
;TYPE:SUPPORT
G1 F5160 X61.66 Y181.88 E1294.46461
G0 F6000 X61.66 Y181.70
G0 X64.99 Y181.70
G0 X64.99 Y181.88
G1 F5160 X64.99 Y133.58 E1296.47257
G0 F6000 X65.00 Y133.75
G0 X68.33 Y133.68
G0 X68.33 Y133.50
G1 F5160 X68.33 Y181.88 E1298.48356
G0 F6000 X68.33 Y181.70
G0 X71.66 Y181.70
G0 X71.66 Y181.88
G1 F5160 X71.66 Y178.29 E1298.63273
G0 F6000 X71.66 Y178.46
G0 X73.84 Y178.40
G0 X74.36 Y178.22
G0 X75.11 Y177.33
G0 X74.99 Y177.21
G1 F5160 X74.99 Y181.88 E1298.82685
G0 F6000 X74.99 Y181.70
G0 X78.33 Y181.70
G0 X78.33 Y181.88
G1 F5160 X78.33 Y121.09 E1301.35416
G0 F6000 X78.33 Y121.26
G0 X74.99 Y121.26
G0 X74.99 Y121.09
G1 F5160 X74.99 Y173.32 E1303.52567
G0 F6000 X75.12 Y173.19
G0 X73.51 Y171.96
G0 X71.66 Y172.06
G0 X71.66 Y172.24
G1 F5160 X71.66 Y121.09 E1305.65224
G0 F6000 X71.66 Y121.26
G0 X81.66 Y121.26
G0 X81.66 Y121.09
G1 F5160 X81.66 Y181.88 E1308.17955
G0 F6000 X81.66 Y181.70
G0 X84.99 Y181.70
G0 X84.99 Y181.88
G1 F5160 X84.99 Y121.09 E1310.70687
G0 F6000 X84.99 Y121.26
G0 X88.32 Y121.26
G0 X88.32 Y121.09
G1 F5160 X88.32 Y181.88 E1313.23418
G0 F6000 X88.32 Y181.70
G0 X91.66 Y181.70
G0 X91.66 Y181.88
G1 F5160 X91.66 Y121.09 E1315.76149
G0 F6000 X91.66 Y121.26
G0 X94.99 Y121.26
G0 X94.99 Y121.09
G1 F5160 X94.99 Y181.88 E1318.28881
G0 F6000 X94.99 Y181.70
G0 X98.32 Y181.70
G0 X98.32 Y181.88
G1 F5160 X98.32 Y121.09 E1320.81612
G0 F6000 X98.32 Y121.26
G0 X101.66 Y121.26
G0 X101.66 Y121.09
G1 F5160 X101.66 Y181.88 E1323.34343
G0 F6000 X101.66 Y181.70
G0 X104.99 Y181.70
G0 X104.99 Y181.88
G1 F5160 X104.99 Y121.09 E1325.87074
G0 F6000 X104.99 Y121.26
G0 X108.32 Y121.26
G0 X108.32 Y121.09
G1 F5160 X108.32 Y181.88 E1328.39806
G0 F6000 X108.32 Y181.70
G0 X111.66 Y181.70
G0 X111.66 Y181.88
G1 F5160 X111.66 Y121.09 E1330.92537
G0 F6000 X111.66 Y121.26
G0 X114.99 Y121.26
G0 X114.99 Y121.09
G1 F5160 X114.99 Y181.88 E1333.45268
G0 F6000 X114.99 Y181.70
G0 X118.32 Y181.70
G0 X118.32 Y181.88
G1 F5160 X118.32 Y121.09 E1335.98000
G0 F6000 X118.32 Y121.26
G0 X121.65 Y121.26
G0 X121.65 Y121.09
G1 F5160 X121.65 Y181.88 E1338.50731
G0 F6000 X121.65 Y181.70
G0 X124.99 Y181.70
G0 X124.99 Y181.88
G1 F5160 X124.99 Y121.09 E1341.03462
G0 F6000 X124.99 Y121.26
G0 X128.32 Y121.26
G0 X128.32 Y121.09
G1 F5160 X128.32 Y181.88 E1343.56194
G0 F6000 X128.32 Y181.70
G0 X131.65 Y181.70
G0 X131.65 Y181.88
G1 F5160 X131.65 Y121.09 E1346.08925
G0 F6000 X131.65 Y121.26
G0 X134.99 Y121.26
G0 X134.99 Y121.09
G1 F5160 X134.99 Y181.88 E1348.61656
G0 F6000 X134.99 Y181.70
G0 X138.32 Y181.70
G0 X138.32 Y181.88
G1 F5160 X138.32 Y121.09 E1351.14387
G0 F6000 X138.32 Y121.26
G0 X141.65 Y121.26
G0 X141.65 Y121.09
G1 F5160 X141.65 Y181.88 E1353.67119
G0 F6000 X141.65 Y181.70
G0 X144.99 Y181.70
G0 X144.99 Y181.88
G1 F5160 X144.99 Y121.09 E1356.19850
G0 F6000 X144.99 Y121.26
G0 X148.32 Y121.26
G0 X148.32 Y121.09
G1 F5160 X148.32 Y181.88 E1358.72581
G0 F6000 X148.32 Y181.70
G0 X151.65 Y181.70
G0 X151.65 Y181.88
G1 F5160 X151.65 Y121.09 E1361.25313
G0 F6000 X151.65 Y121.26
G0 X154.98 Y121.26
G0 X154.98 Y121.09
G1 F5160 X154.98 Y181.88 E1363.78044
G0 F6000 X154.98 Y181.70
G0 X158.32 Y181.70
G0 X158.32 Y181.88
G1 F5160 X158.32 Y121.09 E1366.30775
G0 F6000 X158.32 Y121.26
G0 X161.65 Y121.26
G0 X161.65 Y121.09
G1 F5160 X161.65 Y181.88 E1368.83506
G0 F6000 X161.65 Y181.70
G0 X164.98 Y181.70
G0 X164.98 Y181.88
G1 F5160 X164.98 Y121.09 E1371.36238
G0 F6000 X164.98 Y121.26
G0 X168.32 Y121.26
G0 X168.32 Y121.09
G1 F5160 X168.32 Y181.88 E1373.88969
G0 F6000 X168.32 Y181.70
G0 X171.65 Y181.70
G0 X171.65 Y181.88
G1 F5160 X171.65 Y121.09 E1376.41700
G0 F6000 X171.65 Y121.26
G0 X174.98 Y121.26
G0 X174.98 Y121.09
G1 F5160 X174.98 Y181.88 E1378.94432
G0 F6000 X174.98 Y181.70
G0 X178.31 Y181.70
G0 X178.31 Y181.88
G1 F5160 X178.31 Y121.09 E1381.47163
G0 F6000 X178.31 Y121.26
G0 X181.65 Y121.26
G0 X181.65 Y121.09
G1 F5160 X181.65 Y181.88 E1383.99894
G0 F6000 X181.65 Y181.70
G0 X184.98 Y181.70
G0 X184.98 Y181.88
G1 F5160 X184.98 Y121.09 E1386.52626
G0 F6000 X184.98 Y121.26
G0 X188.31 Y121.26
G0 X188.31 Y121.09
G1 F5160 X188.31 Y181.88 E1389.05357
G0 F6000 X188.31 Y181.70
G0 X191.65 Y181.70
G0 X191.65 Y181.88
G1 F5160 X191.65 Y121.09 E1391.58088
G0 F6000 X191.65 Y121.26
G0 X194.98 Y121.26
G0 X194.98 Y121.09
G1 F5160 X194.98 Y181.88 E1394.10819
G0 F6000 X194.98 Y181.70
G0 X198.31 Y181.70
G0 X198.31 Y181.88
G1 F5160 X198.31 Y121.09 E1396.63551
G0 F6000 X198.31 Y121.26
G0 X201.65 Y121.26
G0 X201.65 Y121.09
G1 F5160 X201.65 Y181.88 E1399.16282
G0 F6000 X201.65 Y181.70
G0 X204.98 Y181.70
G0 X204.98 Y181.88
G1 F5160 X204.98 Y121.09 E1401.69013
G0 F6000 X204.98 Y121.26
G0 X208.31 Y121.26
G0 X208.31 Y121.09
G1 F5160 X208.31 Y181.88 E1404.21745
G0 F6000 X208.31 Y181.70
G0 X211.65 Y181.70
G0 X211.65 Y181.88
G1 F5160 X211.65 Y121.09 E1406.74476
G0 F6000 X211.65 Y121.26
G0 X214.98 Y121.26
G0 X214.98 Y121.09
G1 F5160 X214.98 Y181.88 E1409.27207
G0 F6000 X214.98 Y181.70
G0 X218.31 Y181.70
G0 X218.31 Y181.88
G1 F5160 X218.31 Y121.09 E1411.79938
G0 F6000 X218.31 Y121.26
G0 X221.64 Y121.26
G0 X221.64 Y121.09
G1 F5160 X221.64 Y181.88 E1414.32670
G0 F6000 X221.64 Y181.70
G0 X224.98 Y181.70
G0 X224.98 Y181.88
G1 F5160 X224.98 Y121.09 E1416.85401
G0 F6000 X224.98 Y121.26
G0 X228.31 Y121.26
G0 X228.31 Y121.09
G1 F5160 X228.31 Y181.88 E1419.38132
G0 F6000 X228.31 Y181.70
G0 X231.64 Y181.70
G0 X231.64 Y181.88
G1 F5160 X231.64 Y121.09 E1421.90864
G0 F6000 X231.64 Y121.26
G0 X234.85 Y121.33
G0 X234.98 Y121.21
G1 F5160 X234.98 Y125.75 E1422.09735
G0 F6000 X234.98 Y125.57
G0 X234.52 Y125.53
G0 X234.52 Y131.47
G0 X234.98 Y131.43
G0 X234.98 Y131.25
G1 F5160 X234.98 Y181.88 E1424.20192
G0 F6000 X234.98 Y181.70
G0 X238.31 Y181.70
G0 X238.31 Y181.88
G1 F5160 X238.31 Y133.56 E1426.21079
G0 F6000 X238.31 Y133.73
G0 X241.64 Y133.80
G0 X241.64 Y133.63
G1 F5160 X241.64 Y181.88 E1428.21667
;LAYER:4
G0 F6000 X245.36 Y182.69 Z1.10
;TYPE:WALL-INNER
G1 X245.36 Y130.32 E1430.39371
G1 X236.11 Y130.33 E1430.77828
G1 X236.11 Y126.68 E1430.93003
G1 X245.36 Y126.67 E1431.31460
G1 X245.36 Y126.14 E1431.33672
G1 X245.39 Y126.14 E1431.33797
G1 X245.39 Y182.69 E1433.68888
G1 X245.36 Y182.69 E1433.69012
G0 X68.61 Y130.33
G1 X59.36 Y130.33 E1434.07469
G1 X59.36 Y182.69 E1436.25170
G1 X59.33 Y182.69 E1436.25294
G1 X59.33 Y126.14 E1438.60381
G1 X59.36 Y126.14 E1438.60506
G1 X59.36 Y126.68 E1438.62718
G1 X68.61 Y126.67 E1439.01175
G1 X68.61 Y130.33 E1439.16354
G0 X69.11 Y130.83
;TYPE:WALL-OUTER
G1 X59.86 Y130.83 E1439.54811
G1 X59.86 Y182.75 E1441.70686
G1 X244.86 Y182.75 E1449.39822
G1 X244.86 Y130.82 E1451.55701
G1 X235.61 Y130.83 E1451.94158
G1 X235.61 Y126.18 E1452.13491
G1 X244.86 Y126.17 E1452.51948
G1 X244.86 Y125.64 E1452.54155
G1 X245.69 Y125.64 E1452.57606
G1 X245.89 Y125.71 E1452.58487
G1 X245.89 Y183.12 E1454.97178
G1 X245.70 Y183.19 E1454.98036
G1 X59.03 Y183.19 E1462.74107
G1 X58.83 Y183.12 E1462.74964
G1 X58.83 Y125.71 E1465.13655
G1 X59.03 Y125.64 E1465.14531
G1 X59.86 Y125.64 E1465.17986
G1 X59.86 Y126.18 E1465.20202
G1 X69.11 Y126.17 E1465.58659
G1 X69.11 Y130.83 E1465.77996
G0 X68.28 Y130.15
;TYPE:FILL
G1 X64.98 Y126.85 E1465.97398
G0 X64.27 Y126.85
G1 X67.57 Y130.15 E1466.16801
G0 X66.86 Y130.15
G1 X63.56 Y126.85 E1466.36207
G0 X62.86 Y126.85
G1 X66.16 Y130.15 E1466.55609
G0 X65.45 Y130.15
G1 X62.15 Y126.85 E1466.75012
G0 X61.44 Y126.85
G1 X64.74 Y130.15 E1466.94415
G0 X64.03 Y130.15
G1 X60.73 Y126.85 E1467.13818
G0 X60.03 Y126.85
G1 X63.33 Y130.15 E1467.33220
G0 X62.62 Y130.15
G1 X59.51 Y127.04 E1467.51530
G0 X59.51 Y127.74
G1 X61.91 Y130.15 E1467.65682
G0 X61.21 Y130.15
G1 X59.51 Y128.45 E1467.75677
G0 X59.51 Y129.16
G1 X60.50 Y130.15 E1467.81513
G0 X59.79 Y130.15
G1 X59.51 Y129.87 E1467.83188
G0 X65.69 Y126.85
G1 X68.44 Y129.60 E1467.99372
G0 X68.44 Y128.90
G1 X66.39 Y126.85 E1468.11399
G0 X67.10 Y126.85
G1 X68.44 Y128.19 E1468.19269
G0 X68.44 Y127.48
G1 X67.81 Y126.85 E1468.22982
G0 X236.29 Y127.04
G1 X239.40 Y130.15 E1468.41279
G0 X240.10 Y130.15
G1 X236.81 Y126.85 E1468.60676
G0 X237.51 Y126.85
G1 X240.81 Y130.15 E1468.80073
G0 X241.52 Y130.15
G1 X238.22 Y126.85 E1468.99469
G0 X238.93 Y126.85
G1 X242.23 Y130.15 E1469.18866
G0 X242.93 Y130.15
G1 X239.63 Y126.85 E1469.38263
G0 X240.34 Y126.85
G1 X243.64 Y130.15 E1469.57657
G0 X244.35 Y130.15
G1 X241.05 Y126.85 E1469.77057
G0 X241.75 Y126.85
G1 X245.05 Y130.15 E1469.96457
G0 X245.22 Y129.60
G1 X242.46 Y126.85 E1470.12649
G0 X243.17 Y126.85
G1 X245.22 Y128.90 E1470.24685
G0 X245.22 Y128.19
G1 X243.88 Y126.85 E1470.32563
G0 X244.58 Y126.85
G1 X245.22 Y127.48 E1470.36285
G0 X245.54 Y127.48
G0 X238.69 Y130.47
G0 X238.69 Y130.15
G1 X236.29 Y127.75 E1470.50423
G0 X236.29 Y128.45
G1 X237.98 Y130.15 E1470.60403
G0 X237.28 Y130.15
G1 X236.29 Y129.16 E1470.66227
G0 X236.29 Y129.87
G1 X236.57 Y130.15 E1470.67894
G0 X247.45 Y148.37
;TYPE:WALL-INNER
G1 X259.82 Y148.37 E1471.19323
G1 X260.02 Y148.50 E1471.20306
G1 X260.02 Y156.50 E1471.53533
G1 X259.82 Y156.63 E1471.54517
G1 X247.45 Y156.63 E1472.05945
G1 X247.26 Y156.50 E1472.06929
G1 X247.26 Y148.50 E1472.40156
G1 X247.45 Y148.37 E1472.41140
G0 X247.30 Y147.87
;TYPE:WALL-OUTER
G1 X259.98 Y147.87 E1472.93861
G1 X260.52 Y148.24 E1472.96582
G1 X260.52 Y156.76 E1473.32009
G1 X259.98 Y157.13 E1473.34724
G1 X247.30 Y157.13 E1473.87446
G1 X246.76 Y156.76 E1473.90167
G1 X246.76 Y148.24 E1474.25594
G1 X247.30 Y147.87 E1474.28309
G0 X247.89 Y148.54
;TYPE:FILL
G1 X255.80 Y156.46 E1474.74817
G0 X255.10 Y156.46
G1 X247.43 Y148.79 E1475.19890
G0 X247.43 Y149.50
G1 X254.39 Y156.46 E1475.60806
G0 X253.68 Y156.46
G1 X247.43 Y150.20 E1475.97566
G0 X247.43 Y150.91
G1 X252.97 Y156.46 E1476.30168
G0 X252.27 Y156.46
G1 X247.43 Y151.62 E1476.58614
G0 X247.43 Y152.32
G1 X251.56 Y156.46 E1476.82903
G0 X250.85 Y156.46
G1 X247.43 Y153.03 E1477.03029
G0 X247.43 Y153.74
G1 X250.15 Y156.46 E1477.18998
G0 X249.44 Y156.46
G1 X247.43 Y154.45 E1477.30810
G0 X247.43 Y155.15
G1 X248.73 Y156.46 E1477.38465
G0 X248.03 Y156.46
G1 X247.43 Y155.86 E1477.41963
G0 X248.60 Y148.54
G1 X256.51 Y156.46 E1477.88468
G0 X257.22 Y156.46
G1 X249.31 Y148.54 E1478.34973
G0 X250.01 Y148.54
G1 X257.92 Y156.46 E1478.81478
G0 X258.63 Y156.46
G1 X250.72 Y148.54 E1479.27986
G0 X251.43 Y148.54
G1 X259.34 Y156.46 E1479.74493
G0 X259.84 Y156.25
G1 X252.14 Y148.54 E1480.19796
G0 X252.84 Y148.54
G1 X259.84 Y155.54 E1480.60938
G0 X259.84 Y154.84
G1 X253.55 Y148.54 E1480.97924
G0 X254.26 Y148.54
G1 X259.84 Y154.13 E1481.30753
G0 X259.84 Y153.42
G1 X254.97 Y148.54 E1481.59422
G0 X255.67 Y148.54
G1 X259.84 Y152.71 E1481.83934
G0 X259.84 Y152.01
G1 X256.38 Y148.54 E1482.04289
G0 X257.09 Y148.54
G1 X259.84 Y151.30 E1482.20488
G0 X259.84 Y150.59
G1 X257.79 Y148.54 E1482.32529
G0 X258.50 Y148.54
G1 X259.84 Y149.89 E1482.40414
G0 X259.84 Y149.18
G1 X259.21 Y148.54 E1482.44141
G0 X57.74 Y148.50
;TYPE:WALL-INNER
G1 X57.74 Y156.50 E1482.77368
G1 X57.55 Y156.63 E1482.78352
G1 X45.18 Y156.63 E1483.29780
G1 X44.98 Y156.50 E1483.30764
G1 X44.98 Y148.50 E1483.63991
G1 X45.18 Y148.37 E1483.64975
G1 X57.55 Y148.37 E1484.16403
G1 X57.74 Y148.50 E1484.17387
G0 X58.24 Y148.24
;TYPE:WALL-OUTER
G1 X58.24 Y156.76 E1484.52813
G1 X57.70 Y157.13 E1484.55529
G1 X45.02 Y157.13 E1485.08250
G1 X44.48 Y156.76 E1485.10972
G1 X44.48 Y148.24 E1485.46398
G1 X45.02 Y147.87 E1485.49114
G1 X57.70 Y147.87 E1486.01835
G1 X58.24 Y148.24 E1486.04557
G0 X57.57 Y149.14
;TYPE:FILL
G1 X56.97 Y148.54 E1486.08049
G0 X56.27 Y148.54
G1 X57.57 Y149.84 E1486.15699
G0 X57.57 Y150.55
G1 X55.56 Y148.54 E1486.27505
G0 X54.85 Y148.54
G1 X57.57 Y151.26 E1486.43471
G0 X57.57 Y151.97
G1 X54.15 Y148.54 E1486.63597
G0 X53.44 Y148.54
G1 X57.57 Y152.67 E1486.87880
G0 X57.57 Y153.38
G1 X52.73 Y148.54 E1487.16319
G0 X52.02 Y148.54
G1 X57.57 Y154.09 E1487.48916
G0 X57.57 Y154.79
G1 X51.32 Y148.54 E1487.85669
G0 X50.61 Y148.54
G1 X57.57 Y155.50 E1488.26580
G0 X57.57 Y156.21
G1 X49.90 Y148.54 E1488.71647
G0 X49.20 Y148.54
G1 X57.10 Y156.45 E1489.18149
G0 X56.40 Y156.45
G1 X48.49 Y148.54 E1489.64651
G0 X47.78 Y148.54
G1 X55.69 Y156.45 E1490.11153
G0 X54.98 Y156.45
G1 X47.07 Y148.54 E1490.57655
G0 X46.37 Y148.54
G1 X54.28 Y156.45 E1491.04157
G0 X53.57 Y156.45
G1 X45.66 Y148.54 E1491.50658
G0 X45.16 Y148.75
G1 X52.86 Y156.45 E1491.95958
G0 X52.16 Y156.45
G1 X45.16 Y149.46 E1492.37101
G0 X45.16 Y150.16
G1 X51.45 Y156.45 E1492.74086
G0 X50.74 Y156.45
G1 X45.16 Y150.87 E1493.06915
G0 X45.16 Y151.58
G1 X50.03 Y156.45 E1493.35587
G0 X49.33 Y156.45
G1 X45.16 Y152.28 E1493.60102
G0 X45.16 Y152.99
G1 X48.62 Y156.45 E1493.80457
G0 X47.91 Y156.45
G1 X45.16 Y153.70 E1493.96656
G0 X45.16 Y154.41
G1 X47.20 Y156.45 E1494.08697
G0 X46.50 Y156.45
G1 X45.16 Y155.11 E1494.16579
G0 X45.16 Y155.82
G1 X45.79 Y156.45 E1494.20304
G0 X61.66 Y133.65
;TYPE:SUPPORT
G1 X61.66 Y181.88 E1496.20800
G0 X61.66 Y181.70
G0 X64.99 Y181.70
G0 X64.99 Y181.88
G1 X64.99 Y133.58 E1498.21595
G0 X65.00 Y133.75
G0 X68.33 Y133.68
G0 X68.33 Y133.50
G1 X68.33 Y181.88 E1500.22694
G0 X68.33 Y181.70
G0 X71.66 Y181.70
G0 X71.66 Y181.88
G1 X71.66 Y178.29 E1500.37612
G0 X71.66 Y178.46
G0 X73.84 Y178.40
G0 X74.36 Y178.22
G0 X75.11 Y177.33
G0 X74.99 Y177.21
G1 X74.99 Y181.88 E1500.57023
G0 X74.99 Y181.70
G0 X78.33 Y181.70
G0 X78.33 Y181.88
G1 X78.33 Y121.09 E1503.09754
G0 X78.33 Y121.26
G0 X74.99 Y121.26
G0 X74.99 Y121.09
G1 X74.99 Y173.32 E1505.26906
G0 X75.12 Y173.19
G0 X73.51 Y171.96
G0 X71.66 Y172.06
G0 X71.66 Y172.24
G1 X71.66 Y121.09 E1507.39563
G0 X71.66 Y121.26
G0 X81.66 Y121.26
G0 X81.66 Y121.09
G1 X81.66 Y181.88 E1509.92294
G0 X81.66 Y181.70
G0 X84.99 Y181.70
G0 X84.99 Y181.88
G1 X84.99 Y121.09 E1512.45025
G0 X84.99 Y121.26
G0 X88.32 Y121.26
G0 X88.32 Y121.09
G1 X88.32 Y181.88 E1514.97757
G0 X88.32 Y181.70
G0 X91.66 Y181.70
G0 X91.66 Y181.88
G1 X91.66 Y121.09 E1517.50488
G0 X91.66 Y121.26
G0 X94.99 Y121.26
G0 X94.99 Y121.09
G1 X94.99 Y181.88 E1520.03219
G0 X94.99 Y181.70
G0 X98.32 Y181.70
G0 X98.32 Y181.88
G1 X98.32 Y121.09 E1522.55950
G0 X98.32 Y121.26
G0 X101.66 Y121.26
G0 X101.66 Y121.09
G1 X101.66 Y181.88 E1525.08682
G0 X101.66 Y181.70
G0 X104.99 Y181.70
G0 X104.99 Y181.88
G1 X104.99 Y121.09 E1527.61413
G0 X104.99 Y121.26
G0 X108.32 Y121.26
G0 X108.32 Y121.09
G1 X108.32 Y181.88 E1530.14144
G0 X108.32 Y181.70
G0 X111.66 Y181.70
G0 X111.66 Y181.88
G1 X111.66 Y121.09 E1532.66876
G0 X111.66 Y121.26
G0 X114.99 Y121.26
G0 X114.99 Y121.09
G1 X114.99 Y181.88 E1535.19607
G0 X114.99 Y181.70
G0 X118.32 Y181.70
G0 X118.32 Y181.88
G1 X118.32 Y121.09 E1537.72338
G0 X118.32 Y121.26
G0 X121.65 Y121.26
G0 X121.65 Y121.09
G1 X121.65 Y181.88 E1540.25069
G0 X121.65 Y181.70
G0 X124.99 Y181.70
G0 X124.99 Y181.88
G1 X124.99 Y121.09 E1542.77801
G0 X124.99 Y121.26
G0 X128.32 Y121.26
G0 X128.32 Y121.09
G1 X128.32 Y181.88 E1545.30532
G0 X128.32 Y181.70
G0 X131.65 Y181.70
G0 X131.65 Y181.88
G1 X131.65 Y121.09 E1547.83263
G0 X131.65 Y121.26
G0 X134.99 Y121.26
G0 X134.99 Y121.09
G1 X134.99 Y181.88 E1550.35995
G0 X134.99 Y181.70
G0 X138.32 Y181.70
G0 X138.32 Y181.88
G1 X138.32 Y121.09 E1552.88726
G0 X138.32 Y121.26
G0 X141.65 Y121.26
G0 X141.65 Y121.09
G1 X141.65 Y181.88 E1555.41457
G0 X141.65 Y181.70
G0 X144.99 Y181.70
G0 X144.99 Y181.88
G1 X144.99 Y121.09 E1557.94188
G0 X144.99 Y121.26
G0 X148.32 Y121.26
G0 X148.32 Y121.09
G1 X148.32 Y181.88 E1560.46920
G0 X148.32 Y181.70
G0 X151.65 Y181.70
G0 X151.65 Y181.88
G1 X151.65 Y121.09 E1562.99651
G0 X151.65 Y121.26
G0 X154.98 Y121.26
G0 X154.98 Y121.09
G1 X154.98 Y181.88 E1565.52382
G0 X154.98 Y181.70
G0 X158.32 Y181.70
G0 X158.32 Y181.88
G1 X158.32 Y121.09 E1568.05114
G0 X158.32 Y121.26
G0 X161.65 Y121.26
G0 X161.65 Y121.09
G1 X161.65 Y181.88 E1570.57845
G0 X161.65 Y181.70
G0 X164.98 Y181.70
G0 X164.98 Y181.88
G1 X164.98 Y121.09 E1573.10576
G0 X164.98 Y121.26
G0 X168.32 Y121.26
G0 X168.32 Y121.09
G1 X168.32 Y181.88 E1575.63308
G0 X168.32 Y181.70
G0 X171.65 Y181.70
G0 X171.65 Y181.88
G1 X171.65 Y121.09 E1578.16039
G0 X171.65 Y121.26
G0 X174.98 Y121.26
G0 X174.98 Y121.09
G1 X174.98 Y181.88 E1580.68770
G0 X174.98 Y181.70
G0 X178.31 Y181.70
G0 X178.31 Y181.88
G1 X178.31 Y121.09 E1583.21501
G0 X178.31 Y121.26
G0 X181.65 Y121.26
G0 X181.65 Y121.09
G1 X181.65 Y181.88 E1585.74233
G0 X181.65 Y181.70
G0 X184.98 Y181.70
G0 X184.98 Y181.88
G1 X184.98 Y121.09 E1588.26964
G0 X184.98 Y121.26
G0 X188.31 Y121.26
G0 X188.31 Y121.09
G1 X188.31 Y181.88 E1590.79695
G0 X188.31 Y181.70
G0 X191.65 Y181.70
G0 X191.65 Y181.88
G1 X191.65 Y121.09 E1593.32427
G0 X191.65 Y121.26
G0 X194.98 Y121.26
G0 X194.98 Y121.09
G1 X194.98 Y181.88 E1595.85158
G0 X194.98 Y181.70
G0 X198.31 Y181.70
G0 X198.31 Y181.88
G1 X198.31 Y121.09 E1598.37889
G0 X198.31 Y121.26
G0 X201.65 Y121.26
G0 X201.65 Y121.09
G1 X201.65 Y181.88 E1600.90620
G0 X201.65 Y181.70
G0 X204.98 Y181.70
G0 X204.98 Y181.88
G1 X204.98 Y121.09 E1603.43352
G0 X204.98 Y121.26
G0 X208.31 Y121.26
G0 X208.31 Y121.09
G1 X208.31 Y181.88 E1605.96083
G0 X208.31 Y181.70
G0 X211.65 Y181.70
G0 X211.65 Y181.88
G1 X211.65 Y121.09 E1608.48814
G0 X211.65 Y121.26
G0 X214.98 Y121.26
G0 X214.98 Y121.09
G1 X214.98 Y181.88 E1611.01546
G0 X214.98 Y181.70
G0 X218.31 Y181.70
G0 X218.31 Y181.88
G1 X218.31 Y121.09 E1613.54277
G0 X218.31 Y121.26
G0 X221.64 Y121.26
G0 X221.64 Y121.09
G1 X221.64 Y181.88 E1616.07008
G0 X221.64 Y181.70
G0 X224.98 Y181.70
G0 X224.98 Y181.88
G1 X224.98 Y121.09 E1618.59740
G0 X224.98 Y121.26
G0 X228.31 Y121.26
G0 X228.31 Y121.09
G1 X228.31 Y181.88 E1621.12471
G0 X228.31 Y181.70
G0 X231.64 Y181.70
G0 X231.64 Y181.88
G1 X231.64 Y121.09 E1623.65202
G0 X231.64 Y121.26
G0 X234.85 Y121.33
G0 X234.98 Y121.21
G1 X234.98 Y125.30 E1623.82219
G0 X234.98 Y125.13
G0 X234.52 Y125.08
G0 X234.52 Y131.92
G0 X234.98 Y131.88
G0 X234.98 Y131.70
G1 X234.98 Y181.88 E1625.90818
G0 X234.98 Y181.70
G0 X238.31 Y181.70
G0 X238.31 Y181.88
G1 X238.31 Y133.56 E1627.91705
G0 X238.31 Y133.73
G0 X241.64 Y133.80
G0 X241.64 Y133.63
G1 X241.64 Y181.88 E1629.92293
;LAYER:5
G0 X245.36 Y182.69 Z1.30
;TYPE:WALL-INNER
G1 X245.36 Y130.70 E1632.08442
G1 X236.11 Y130.70 E1632.46899
G1 X236.11 Y126.30 E1632.65184
G1 X245.36 Y126.30 E1633.03641
G1 X245.36 Y125.82 E1633.05624
G1 X245.39 Y125.82 E1633.05749
G1 X245.39 Y182.69 E1635.42166
G1 X245.36 Y182.69 E1635.42291
G0 X68.61 Y130.70
G1 X59.36 Y130.70 E1635.80748
G1 X59.36 Y182.69 E1637.96893
G1 X59.33 Y182.69 E1637.97018
G1 X59.33 Y125.82 E1640.33439
G1 X59.36 Y125.82 E1640.33564
G1 X59.36 Y126.30 E1640.35555
G1 X68.61 Y126.30 E1640.74012
G1 X68.61 Y130.70 E1640.92301
G0 X69.11 Y131.20
;TYPE:WALL-OUTER
G1 X59.86 Y131.20 E1641.30758
G1 X59.86 Y182.75 E1643.45078
G1 X244.86 Y182.75 E1651.14215
G1 X244.86 Y131.20 E1653.28539
G1 X235.61 Y131.20 E1653.66996
G1 X235.61 Y125.80 E1653.89438
G1 X244.86 Y125.80 E1654.27895
G1 X244.86 Y125.32 E1654.29882
G1 X245.69 Y125.32 E1654.33333
G1 X245.89 Y125.39 E1654.34216
G1 X245.89 Y183.12 E1656.74233
G1 X245.70 Y183.19 E1656.75090
G1 X59.03 Y183.19 E1664.51162
G1 X58.83 Y183.12 E1664.52019
G1 X58.83 Y125.39 E1666.92036
G1 X59.03 Y125.32 E1666.92917
G1 X59.86 Y125.32 E1666.96368
G1 X59.86 Y125.80 E1666.98355
G1 X69.11 Y125.80 E1667.36812
G1 X69.11 Y131.20 E1667.59259
G0 X68.44 Y129.91
;TYPE:FILL
G1 X67.82 Y130.52 E1667.62901
G0 X67.11 Y130.52
G1 X68.44 Y129.20 E1667.70701
G0 X68.44 Y128.49
G1 X66.40 Y130.52 E1667.82657
G0 X65.70 Y130.52
G1 X68.44 Y127.78 E1667.98770
G0 X68.44 Y127.08
G1 X64.99 Y130.52 E1668.19043
G0 X64.28 Y130.52
G1 X68.33 Y126.47 E1668.42846
G0 X67.62 Y126.47
G1 X63.58 Y130.52 E1668.66653
G0 X62.87 Y130.52
G1 X66.92 Y126.47 E1668.90460
G0 X66.21 Y126.47
G1 X62.16 Y130.52 E1669.14266
G0 X61.45 Y130.52
G1 X65.50 Y126.47 E1669.38073
G0 X64.80 Y126.47
G1 X60.75 Y130.52 E1669.61879
G0 X60.04 Y130.52
G1 X64.09 Y126.47 E1669.85686
G0 X63.38 Y126.47
G1 X59.51 Y130.35 E1670.08469
G0 X59.51 Y129.64
G1 X62.67 Y126.47 E1670.27096
G0 X61.97 Y126.47
G1 X59.51 Y128.94 E1670.41563
G0 X59.51 Y128.23
G1 X61.26 Y126.47 E1670.51870
G0 X60.55 Y126.47
G1 X59.51 Y127.52 E1670.58020
G0 X59.51 Y126.81
G1 X59.85 Y126.47 E1670.60013
G0 X236.29 Y126.81
G1 X236.62 Y126.47 E1670.61994
G0 X237.33 Y126.47
G1 X236.29 Y127.52 E1670.68133
G0 X236.29 Y128.23
G1 X238.04 Y126.47 E1670.78428
G0 X238.74 Y126.47
G1 X236.29 Y128.93 E1670.92880
G0 X236.29 Y129.64
G1 X239.45 Y126.47 E1671.11489
G0 X240.16 Y126.47
G1 X236.29 Y130.35 E1671.34258
G0 X236.82 Y130.52
G1 X240.87 Y126.47 E1671.58064
G0 X241.57 Y126.47
G1 X237.52 Y130.52 E1671.81871
G0 X238.23 Y130.52
G1 X242.28 Y126.47 E1672.05678
G0 X242.99 Y126.47
G1 X238.94 Y130.52 E1672.29484
G0 X239.65 Y130.52
G1 X243.69 Y126.47 E1672.53291
G0 X244.40 Y126.47
G1 X240.35 Y130.52 E1672.77097
G0 X241.06 Y130.52
G1 X245.11 Y126.47 E1673.00904
G0 X245.22 Y127.08
G1 X241.77 Y130.52 E1673.21186
G0 X242.47 Y130.52
G1 X245.22 Y127.78 E1673.37310
G0 X245.22 Y128.49
G1 X243.18 Y130.52 E1673.49275
G0 X243.89 Y130.52
G1 X245.22 Y129.20 E1673.57084
G0 X245.22 Y129.90
G1 X244.59 Y130.52 E1673.60732
G0 X247.45 Y148.37
;TYPE:WALL-INNER
G1 X259.82 Y148.37 E1674.12156
G1 X260.02 Y148.50 E1674.13143
G1 X260.02 Y156.50 E1674.46370
G1 X259.82 Y156.63 E1674.47354
G1 X247.45 Y156.63 E1674.98778
G1 X247.26 Y156.50 E1674.99765
G1 X247.26 Y148.50 E1675.32992
G1 X247.45 Y148.37 E1675.33976
G0 X247.30 Y147.87
;TYPE:WALL-OUTER
G1 X259.98 Y147.87 E1675.86693
G1 X260.52 Y148.24 E1675.89412
G1 X260.52 Y156.76 E1676.24843
G1 X259.98 Y157.13 E1676.27562
G1 X247.30 Y157.13 E1676.80279
G1 X246.76 Y156.76 E1676.82998
G1 X246.76 Y148.24 E1677.18429
G1 X247.30 Y147.87 E1677.21148
G0 X247.79 Y148.54
;TYPE:FILL
G1 X247.43 Y148.90 E1677.23247
G0 X247.43 Y149.61
G1 X248.50 Y148.54 E1677.29503
G0 X249.20 Y148.54
G1 X247.43 Y150.32 E1677.39919
G0 X247.43 Y151.02
G1 X249.91 Y148.54 E1677.54491
G0 X250.62 Y148.54
G1 X247.43 Y151.73 E1677.73224
G0 X247.43 Y152.44
G1 X251.32 Y148.54 E1677.96113
G0 X252.03 Y148.54
G1 X247.43 Y153.14 E1678.23159
G0 X247.43 Y153.85
G1 X252.74 Y148.54 E1678.54362
G0 X253.44 Y148.54
G1 X247.43 Y154.56 E1678.89722
G0 X247.43 Y155.26
G1 X254.15 Y148.54 E1679.29239
G0 X254.86 Y148.54
G1 X247.43 Y155.97 E1679.72913
G0 X247.66 Y156.46
G1 X255.57 Y148.54 E1680.19424
G0 X256.27 Y148.54
G1 X248.36 Y156.46 E1680.65934
G0 X249.07 Y156.46
G1 X256.98 Y148.54 E1681.12445
G0 X257.69 Y148.54
G1 X249.78 Y156.46 E1681.58959
G0 X250.48 Y156.46
G1 X258.39 Y148.54 E1682.05472
G0 X259.10 Y148.54
G1 X251.19 Y156.46 E1682.51986
G0 X251.90 Y156.46
G1 X259.79 Y148.56 E1682.98397
G0 X259.84 Y149.22
G1 X252.61 Y156.46 E1683.40936
G0 X253.31 Y156.46
G1 X259.84 Y149.93 E1683.79318
G0 X259.84 Y150.63
G1 X254.02 Y156.46 E1684.13543
G0 X254.73 Y156.46
G1 X259.84 Y151.34 E1684.43612
G0 X259.84 Y152.05
G1 X255.43 Y156.46 E1684.69523
G0 X256.14 Y156.46
G1 X259.84 Y152.75 E1684.91278
G0 X259.84 Y153.46
G1 X256.85 Y156.46 E1685.08875
G0 X257.56 Y156.46
G1 X259.84 Y154.17 E1685.22316
G0 X259.84 Y154.88
G1 X258.26 Y156.46 E1685.31600
G0 X258.97 Y156.46
G1 X259.84 Y155.58 E1685.36724
G0 X259.84 Y156.29
G1 X259.68 Y156.46 E1685.37688
G0 X57.74 Y156.50
;TYPE:WALL-INNER
G1 X57.55 Y156.63 E1685.38672
G1 X45.18 Y156.63 E1685.90096
G1 X44.98 Y156.50 E1685.91084
G1 X44.98 Y148.50 E1686.24310
G1 X45.18 Y148.37 E1686.25294
G1 X57.55 Y148.37 E1686.76718
G1 X57.74 Y148.50 E1686.77706
G1 X57.74 Y156.50 E1687.10932
G0 X58.24 Y156.76
;TYPE:WALL-OUTER
G1 X57.70 Y157.13 E1687.13652
G1 X45.02 Y157.13 E1687.66369
G1 X44.48 Y156.76 E1687.69088
G1 X44.48 Y148.24 E1688.04518
G1 X45.02 Y147.87 E1688.07238
G1 X57.70 Y147.87 E1688.59955
G1 X58.24 Y148.24 E1688.62674
G1 X58.24 Y156.76 E1688.98104
G0 X57.57 Y156.33
;TYPE:FILL
G1 X57.45 Y156.45 E1688.98822
G0 X56.74 Y156.45
G1 X57.57 Y155.62 E1689.03696
G0 X57.57 Y154.92
G1 X56.03 Y156.45 E1689.12730
G0 X55.32 Y156.45
G1 X57.57 Y154.21 E1689.25921
G0 X57.57 Y153.50
G1 X54.62 Y156.45 E1689.43272
G0 X53.91 Y156.45
G1 X57.57 Y152.80 E1689.64779
G0 X57.57 Y152.09
G1 X53.20 Y156.45 E1689.90444
G0 X52.49 Y156.45
G1 X57.57 Y151.38 E1690.20265
G0 X57.57 Y150.68
G1 X51.79 Y156.45 E1690.54244
G0 X51.08 Y156.45
G1 X57.57 Y149.97 E1690.92379
G0 X57.57 Y149.26
G1 X50.37 Y156.45 E1691.34671
G0 X49.67 Y156.45
G1 X57.54 Y148.58 E1691.80982
G0 X56.87 Y148.54
G1 X48.96 Y156.45 E1692.27486
G0 X48.25 Y156.45
G1 X56.16 Y148.54 E1692.73994
G0 X55.45 Y148.54
G1 X47.55 Y156.45 E1693.20502
G0 X46.84 Y156.45
G1 X54.75 Y148.54 E1693.67010
G0 X54.04 Y148.54
G1 X46.13 Y156.45 E1694.13517
G0 X45.42 Y156.45
G1 X53.33 Y148.54 E1694.60025
G0 X52.63 Y148.54
G1 X45.16 Y156.01 E1695.03943
G0 X45.16 Y155.31
G1 X51.92 Y148.54 E1695.43704
G0 X51.21 Y148.54
G1 X45.16 Y154.60 E1695.79305
G0 X45.16 Y153.89
G1 X50.51 Y148.54 E1696.10749
G0 X49.80 Y148.54
G1 X45.16 Y153.19 E1696.38037
G0 X45.16 Y152.48
G1 X49.09 Y148.54 E1696.61167
G0 X48.38 Y148.54
G1 X45.16 Y151.77 E1696.80140
G0 X45.16 Y151.06
G1 X47.68 Y148.54 E1696.94957
G0 X46.97 Y148.54
G1 X45.16 Y150.36 E1697.05617
G0 X45.16 Y149.65
G1 X46.26 Y148.54 E1697.12117
G0 X45.56 Y148.54
G1 X45.16 Y148.94 E1697.14460
G0 X61.66 Y133.65
;TYPE:SUPPORT
G1 X61.66 Y181.88 E1699.14956
G0 X61.66 Y181.70
G0 X64.99 Y181.70
G0 X64.99 Y181.88
G1 X64.99 Y133.58 E1701.15752
G0 X65.00 Y133.75
G0 X68.33 Y133.68
G0 X68.33 Y133.50
G1 X68.33 Y181.88 E1703.16851
G0 X68.33 Y181.70
G0 X71.66 Y181.70
G0 X71.66 Y181.88
G1 X71.66 Y178.29 E1703.31768
G0 X71.66 Y178.46
G0 X73.84 Y178.40
G0 X74.36 Y178.22
G0 X75.11 Y177.33
G0 X74.99 Y177.21
G1 X74.99 Y181.88 E1703.51179
G0 X74.99 Y181.70
G0 X78.33 Y181.70
G0 X78.33 Y181.88
G1 X78.33 Y121.09 E1706.03911
G0 X78.33 Y121.26
G0 X74.99 Y121.26
G0 X74.99 Y121.09
G1 X74.99 Y173.32 E1708.21062
G0 X75.12 Y173.19
G0 X73.51 Y171.96
G0 X71.66 Y172.06
G0 X71.66 Y172.24
G1 X71.66 Y121.09 E1710.33719
G0 X71.66 Y121.26
G0 X81.66 Y121.26
G0 X81.66 Y121.09
G1 X81.66 Y181.88 E1712.86450
G0 X81.66 Y181.70
G0 X84.99 Y181.70
G0 X84.99 Y181.88
G1 X84.99 Y121.09 E1715.39181
G0 X84.99 Y121.26
G0 X88.32 Y121.26
G0 X88.32 Y121.09
G1 X88.32 Y181.88 E1717.91913
G0 X88.32 Y181.70
G0 X91.66 Y181.70
G0 X91.66 Y181.88
G1 X91.66 Y121.09 E1720.44644
G0 X91.66 Y121.26
G0 X94.99 Y121.26
G0 X94.99 Y121.09
G1 X94.99 Y181.88 E1722.97375
G0 X94.99 Y181.70
G0 X98.32 Y181.70
G0 X98.32 Y181.88
G1 X98.32 Y121.09 E1725.50107
G0 X98.32 Y121.26
G0 X101.66 Y121.26
G0 X101.66 Y121.09
G1 X101.66 Y181.88 E1728.02838
G0 X101.66 Y181.70
G0 X104.99 Y181.70
G0 X104.99 Y181.88
G1 X104.99 Y121.09 E1730.55569
G0 X104.99 Y121.26
G0 X108.32 Y121.26
G0 X108.32 Y121.09
G1 X108.32 Y181.88 E1733.08301
G0 X108.32 Y181.70
G0 X111.66 Y181.70
G0 X111.66 Y181.88
G1 X111.66 Y121.09 E1735.61032
G0 X111.66 Y121.26
G0 X114.99 Y121.26
G0 X114.99 Y121.09
G1 X114.99 Y181.88 E1738.13763
G0 X114.99 Y181.70
G0 X118.32 Y181.70
G0 X118.32 Y181.88
G1 X118.32 Y121.09 E1740.66494
G0 X118.32 Y121.26
G0 X121.65 Y121.26
G0 X121.65 Y121.09
G1 X121.65 Y181.88 E1743.19226
G0 X121.65 Y181.70
G0 X124.99 Y181.70
G0 X124.99 Y181.88
G1 X124.99 Y121.09 E1745.71957
G0 X124.99 Y121.26
G0 X128.32 Y121.26
G0 X128.32 Y121.09
G1 X128.32 Y181.88 E1748.24688
G0 X128.32 Y181.70
G0 X131.65 Y181.70
G0 X131.65 Y181.88
G1 X131.65 Y121.09 E1750.77420
G0 X131.65 Y121.26
G0 X134.99 Y121.26
G0 X134.99 Y121.09
G1 X134.99 Y181.88 E1753.30151
G0 X134.99 Y181.70
G0 X138.32 Y181.70
G0 X138.32 Y181.88
G1 X138.32 Y121.09 E1755.82882
G0 X138.32 Y121.26
G0 X141.65 Y121.26
G0 X141.65 Y121.09
G1 X141.65 Y181.88 E1758.35613
G0 X141.65 Y181.70
G0 X144.99 Y181.70
G0 X144.99 Y181.88
G1 X144.99 Y121.09 E1760.88345
G0 X144.99 Y121.26
G0 X148.32 Y121.26
G0 X148.32 Y121.09
G1 X148.32 Y181.88 E1763.41076
G0 X148.32 Y181.70
G0 X151.65 Y181.70
G0 X151.65 Y181.88
G1 X151.65 Y121.09 E1765.93807
G0 X151.65 Y121.26
G0 X154.98 Y121.26
G0 X154.98 Y121.09
G1 X154.98 Y181.88 E1768.46539
G0 X154.98 Y181.70
G0 X158.32 Y181.70
G0 X158.32 Y181.88
G1 X158.32 Y121.09 E1770.99270
G0 X158.32 Y121.26
G0 X161.65 Y121.26
G0 X161.65 Y121.09
G1 X161.65 Y181.88 E1773.52001
G0 X161.65 Y181.70
G0 X164.98 Y181.70
G0 X164.98 Y181.88
G1 X164.98 Y121.09 E1776.04733
G0 X164.98 Y121.26
G0 X168.32 Y121.26
G0 X168.32 Y121.09
G1 X168.32 Y181.88 E1778.57464
G0 X168.32 Y181.70
G0 X171.65 Y181.70
G0 X171.65 Y181.88
G1 X171.65 Y121.09 E1781.10195
G0 X171.65 Y121.26
G0 X174.98 Y121.26
G0 X174.98 Y121.09
G1 X174.98 Y181.88 E1783.62926
G0 X174.98 Y181.70
G0 X178.31 Y181.70
G0 X178.31 Y181.88
G1 X178.31 Y121.09 E1786.15658
G0 X178.31 Y121.26
G0 X181.65 Y121.26
G0 X181.65 Y121.09
G1 X181.65 Y181.88 E1788.68389
G0 X181.65 Y181.70
G0 X184.98 Y181.70
G0 X184.98 Y181.88
G1 X184.98 Y121.09 E1791.21120
G0 X184.98 Y121.26
G0 X188.31 Y121.26
G0 X188.31 Y121.09
G1 X188.31 Y181.88 E1793.73852
G0 X188.31 Y181.70
G0 X191.65 Y181.70
G0 X191.65 Y181.88
G1 X191.65 Y121.09 E1796.26583
G0 X191.65 Y121.26
G0 X194.98 Y121.26
G0 X194.98 Y121.09
G1 X194.98 Y181.88 E1798.79314
G0 X194.98 Y181.70
G0 X198.31 Y181.70
G0 X198.31 Y181.88
G1 X198.31 Y121.09 E1801.32045
G0 X198.31 Y121.26
G0 X201.65 Y121.26
G0 X201.65 Y121.09
G1 X201.65 Y181.88 E1803.84777
G0 X201.65 Y181.70
G0 X204.98 Y181.70
G0 X204.98 Y181.88
G1 X204.98 Y121.09 E1806.37508
G0 X204.98 Y121.26
G0 X208.31 Y121.26
G0 X208.31 Y121.09
G1 X208.31 Y181.88 E1808.90239
G0 X208.31 Y181.70
G0 X211.65 Y181.70
G0 X211.65 Y181.88
G1 X211.65 Y121.09 E1811.42971
G0 X211.65 Y121.26
G0 X214.98 Y121.26
G0 X214.98 Y121.09
G1 X214.98 Y181.88 E1813.95702
G0 X214.98 Y181.70
G0 X218.31 Y181.70
G0 X218.31 Y181.88
G1 X218.31 Y121.09 E1816.48433
G0 X218.31 Y121.26
G0 X221.64 Y121.26
G0 X221.64 Y121.09
G1 X221.64 Y181.88 E1819.01165
G0 X221.64 Y181.70
G0 X224.98 Y181.70
G0 X224.98 Y181.88
G1 X224.98 Y121.09 E1821.53896
G0 X224.98 Y121.26
G0 X228.31 Y121.26
G0 X228.31 Y121.09
G1 X228.31 Y181.88 E1824.06627
G0 X228.31 Y181.70
G0 X231.64 Y181.70
G0 X231.64 Y181.88
G1 X231.64 Y121.09 E1826.59358
G0 X231.64 Y121.26
G0 X234.85 Y121.33
G0 X234.98 Y121.21
G1 X234.98 Y124.93 E1826.74820
G0 X234.98 Y124.75
G0 X234.52 Y124.71
G0 X234.52 Y132.29
G0 X234.98 Y132.25
G0 X234.98 Y132.07
G1 X234.98 Y181.88 E1828.81865
G0 X234.98 Y181.70
G0 X238.31 Y181.70
G0 X238.31 Y181.88
G1 X238.31 Y133.56 E1830.82752
G0 X238.31 Y133.73
G0 X241.64 Y133.80
G0 X241.64 Y133.63
G1 X241.64 Y181.88 E1832.83339
;LAYER:6
G0 X245.36 Y182.69 Z1.50
;TYPE:WALL-INNER
G1 X245.36 Y131.07 E1834.97938
G1 X236.11 Y131.07 E1835.36395
G1 X236.11 Y125.93 E1835.57777
G1 X244.52 Y125.93 E1835.92717
G1 X245.36 Y125.92 E1835.96234
G1 X245.36 Y125.50 E1835.97968
G1 X245.39 Y125.50 E1835.98093
G1 X245.39 Y182.69 E1838.35840
G1 X245.36 Y182.69 E1838.35965
G0 X68.61 Y131.07
G1 X60.21 Y131.07 E1838.70905
G1 X59.36 Y131.08 E1838.74422
G1 X59.36 Y182.69 E1840.88987
G1 X59.33 Y182.69 E1840.89112
G1 X59.33 Y125.50 E1843.26864
G1 X59.36 Y125.50 E1843.26989
G1 X59.36 Y125.93 E1843.28760
G1 X68.61 Y125.93 E1843.67217
G1 X68.61 Y131.07 E1843.88603
G0 X69.11 Y131.57
;TYPE:WALL-OUTER
G1 X60.21 Y131.57 E1844.25609
G1 X59.86 Y131.57 E1844.27060
G1 X59.86 Y182.75 E1846.39821
G1 X244.86 Y182.75 E1854.08958
G1 X244.86 Y131.57 E1856.21731
G1 X235.61 Y131.57 E1856.60188
G1 X235.61 Y125.43 E1856.85728
G1 X244.51 Y125.43 E1857.22734
G1 X244.86 Y125.43 E1857.24185
G1 X244.86 Y125.00 E1857.25943
G1 X245.53 Y125.00 E1857.28716
G1 X245.69 Y125.00 E1857.29394
G1 X245.89 Y125.07 E1857.30276
G1 X245.89 Y183.12 E1859.71624
G1 X245.70 Y183.19 E1859.72482
G1 X59.03 Y183.19 E1867.48553
G1 X58.83 Y183.12 E1867.49410
G1 X58.83 Y125.07 E1869.90758
G1 X59.03 Y125.00 E1869.91643
G1 X59.20 Y125.00 E1869.92316
G1 X59.86 Y125.00 E1869.95090
G1 X59.86 Y125.43 E1869.96856
G1 X69.11 Y125.43 E1870.35314
G1 X69.11 Y131.57 E1870.60857
G0 X68.32 Y130.90
;TYPE:FILL
G1 X63.52 Y126.10 E1870.89038
G0 X62.82 Y126.10
G1 X67.61 Y130.90 E1871.17219
G0 X66.90 Y130.90
G1 X62.11 Y126.10 E1871.45406
G0 X61.40 Y126.10
G1 X66.20 Y130.90 E1871.73593
G0 X65.49 Y130.90
G1 X60.70 Y126.10 E1872.01786
G0 X59.99 Y126.10
G1 X64.78 Y130.90 E1872.29979
G0 X64.08 Y130.90
G1 X59.51 Y126.33 E1872.56845
G0 X59.51 Y127.04
G1 X63.37 Y130.90 E1872.79556
G0 X62.66 Y130.90
G1 X59.51 Y127.74 E1872.98112
G0 X59.51 Y128.45
G1 X61.96 Y130.90 E1873.12517
G0 X61.25 Y130.90
G1 X59.51 Y129.16 E1873.22762
G0 X59.51 Y129.01
G1 X59.94 Y129.44 E1873.25290
G0 X59.51 Y129.87
G1 X60.54 Y130.90 E1873.31381
G0 X59.84 Y130.90
G1 X59.51 Y130.57 E1873.33316
G0 X64.23 Y126.10
G1 X68.44 Y130.31 E1873.58048
G0 X68.44 Y129.60
G1 X64.94 Y126.10 E1873.78624
G0 X65.64 Y126.10
G1 X68.44 Y128.90 E1873.95043
G0 X68.44 Y128.19
G1 X66.35 Y126.10 E1874.07305
G0 X67.06 Y126.10
G1 X68.44 Y127.48 E1874.15410
G0 X68.44 Y126.77
G1 X67.77 Y126.10 E1874.19358
G0 X236.29 Y126.33
G1 X240.85 Y130.90 E1874.46201
G0 X240.14 Y130.90
G1 X236.29 Y127.04 E1874.68885
G0 X236.29 Y127.75
G1 X239.44 Y130.90 E1874.87412
G0 X238.73 Y130.90
G1 X236.29 Y128.45 E1875.01782
G0 X236.29 Y129.16
G1 X238.02 Y130.90 E1875.11994
G0 X237.32 Y130.90
G1 X236.29 Y129.87 E1875.18050
G0 X236.29 Y130.57
G1 X236.61 Y130.90 E1875.19950
G0 X236.61 Y131.22
G0 X236.77 Y125.78
G0 X236.77 Y126.10
G1 X241.56 Y130.90 E1875.48125
G0 X242.27 Y130.90
G1 X237.47 Y126.10 E1875.76309
G0 X238.18 Y126.10
G1 X242.97 Y130.90 E1876.04493
G0 X243.68 Y130.90
G1 X238.89 Y126.10 E1876.32679
G0 X239.59 Y126.10
G1 X244.39 Y130.90 E1876.60866
G0 X244.79 Y130.52
G1 X245.17 Y130.90 E1876.63101
G0 X245.09 Y130.90
G1 X240.30 Y126.10 E1876.91293
G0 X241.01 Y126.10
G1 X245.22 Y130.31 E1877.16047
G0 X245.22 Y129.60
G1 X241.71 Y126.10 E1877.36643
G0 X242.42 Y126.10
G1 X245.22 Y128.90 E1877.53088
G0 X245.22 Y128.59
G1 X245.01 Y128.39 E1877.54282
G0 X245.22 Y128.19
G1 X243.12 Y126.10 E1877.66573
G0 X243.83 Y126.10
G1 X245.22 Y127.48 E1877.74704
G0 X245.22 Y126.78
G1 X244.54 Y126.10 E1877.78682
G0 X247.45 Y148.37
;TYPE:WALL-INNER
G1 X259.82 Y148.37 E1878.30111
G1 X260.02 Y148.50 E1878.31088
G1 X260.02 Y156.50 E1878.64319
G1 X259.82 Y156.63 E1878.65307
G1 X247.45 Y156.63 E1879.16735
G1 X247.26 Y156.50 E1879.17713
G1 X247.26 Y148.50 E1879.50944
G1 X247.45 Y148.37 E1879.51931
G0 X247.30 Y147.87
;TYPE:WALL-OUTER
G1 X259.98 Y147.87 E1880.04640
G1 X260.52 Y148.24 E1880.07359
G1 X260.52 Y156.76 E1880.42785
G1 X259.98 Y157.13 E1880.45514
G1 X247.30 Y157.13 E1880.98223
G1 X246.76 Y156.76 E1881.00942
G1 X246.76 Y148.24 E1881.36368
G1 X247.30 Y147.87 E1881.39097
G0 X247.89 Y148.54
;TYPE:FILL
G1 X247.99 Y149.00 E1881.40550
G1 X247.43 Y149.14 E1881.42950
G1 X247.84 Y149.91 E1881.46545
G0 X247.43 Y149.65
G1 X254.23 Y156.45 E1881.86527
G0 X254.39 Y156.45
G1 X253.91 Y156.33 E1881.87980
G1 X253.20 Y156.33 E1881.89430
G1 X252.50 Y156.33 E1881.90882
G1 X252.02 Y156.21 E1881.92935
G0 X251.88 Y156.45
G1 X247.43 Y152.01 E1882.19064
G0 X247.43 Y152.32
G1 X247.63 Y152.88 E1882.21470
G1 X247.63 Y153.59 E1882.23875
G1 X247.84 Y154.15 E1882.26350
G0 X247.43 Y154.37
G1 X249.52 Y156.45 E1882.38627
G0 X249.44 Y156.45
G1 X248.96 Y156.33 E1882.40081
G1 X248.25 Y156.33 E1882.41533
G1 X247.63 Y155.71 E1882.45017
G1 X247.63 Y155.00 E1882.47416
G1 X247.43 Y154.45 E1882.49890
G0 X247.84 Y152.03
G1 X247.63 Y151.47 E1882.52292
G1 X247.63 Y150.76 E1882.54691
G1 X247.43 Y150.20 E1882.57161
G0 X248.85 Y148.79
G1 X248.60 Y148.54 E1882.58619
G0 X248.68 Y148.54
G1 X256.59 Y156.45 E1883.05124
G0 X256.51 Y156.45
G1 X256.03 Y156.33 E1883.06584
G1 X255.32 Y156.33 E1883.08036
G1 X254.85 Y156.21 E1883.10085
G0 X256.97 Y156.21
G1 X257.45 Y156.33 E1883.11543
G1 X258.15 Y156.33 E1883.12995
G1 X258.63 Y156.45 E1883.15048
G0 X258.94 Y156.45
G1 X251.03 Y148.54 E1883.61553
G0 X250.97 Y148.79
G1 X250.49 Y148.67 E1883.63006
G1 X249.78 Y148.67 E1883.64459
G1 X249.31 Y148.54 E1883.66508
G0 X251.43 Y148.54
G1 X251.91 Y148.67 E1883.67962
G1 X252.61 Y148.67 E1883.69416
G1 X253.09 Y148.79 E1883.71470
G0 X253.39 Y148.54
G1 X259.84 Y155.00 E1884.09399
G0 X259.84 Y154.84
G1 X259.64 Y154.28 E1884.11796
G1 X259.64 Y153.57 E1884.14195
G1 X259.64 Y152.86 E1884.16593
G1 X259.64 Y152.16 E1884.18992
G1 X259.64 Y151.45 E1884.21390
G1 X259.64 Y150.74 E1884.23789
G1 X259.43 Y150.18 E1884.26259
G0 X259.84 Y150.28
G1 X258.10 Y148.54 E1884.36484
G0 X258.04 Y148.79
G1 X257.56 Y148.67 E1884.37937
G1 X256.86 Y148.67 E1884.39389
G1 X256.15 Y148.67 E1884.40841
G1 X255.67 Y148.54 E1884.42890
G0 X255.75 Y148.54
G1 X259.84 Y152.64 E1884.66967
G0 X259.43 Y155.13
G1 X259.64 Y155.69 E1884.69365
G1 X259.59 Y156.35 E1884.71767
G1 X259.09 Y156.21 E1884.73928
G0 X259.84 Y149.89
G1 X259.64 Y149.33 E1884.76331
G1 X258.98 Y148.67 E1884.80061
G1 X258.50 Y148.54 E1884.82114
G0 X255.21 Y148.79
G1 X254.73 Y148.67 E1884.83568
G1 X254.03 Y148.67 E1884.85020
G1 X253.55 Y148.54 E1884.87069
G0 X251.31 Y156.21
G1 X251.21 Y156.45 E1884.88526
G1 X250.38 Y156.33 E1884.89980
G1 X249.90 Y156.21 E1884.92029
G0 X57.74 Y156.50
;TYPE:WALL-INNER
G1 X57.55 Y156.63 E1884.93016
G1 X45.18 Y156.63 E1885.44444
G1 X44.98 Y156.50 E1885.45422
G1 X44.98 Y148.50 E1885.78653
G1 X45.18 Y148.37 E1885.79640
G1 X57.55 Y148.37 E1886.31069
G1 X57.74 Y148.50 E1886.32047
G1 X57.74 Y156.50 E1886.65278
G0 X58.24 Y156.76
;TYPE:WALL-OUTER
G1 X57.70 Y157.13 E1886.68006
G1 X45.02 Y157.13 E1887.20715
G1 X44.48 Y156.76 E1887.23434
G1 X44.48 Y148.24 E1887.58860
G1 X45.02 Y147.87 E1887.61589
G1 X57.70 Y147.87 E1888.14298
G1 X58.24 Y148.24 E1888.17017
G1 X58.24 Y156.76 E1888.52443
G0 X57.57 Y156.21
;TYPE:FILL
G1 X57.01 Y156.00 E1888.54845
G1 X56.75 Y156.45 E1888.56298
G1 X56.15 Y156.21 E1888.59001
G0 X56.32 Y156.45
G1 X48.41 Y148.54 E1889.05509
G0 X48.49 Y148.54
G1 X48.97 Y148.67 E1889.06963
G1 X49.67 Y148.67 E1889.08415
G1 X50.38 Y148.67 E1889.09867
G1 X50.86 Y148.79 E1889.11921
G0 X50.77 Y148.54
G1 X57.57 Y155.34 E1889.51902
G0 X57.57 Y155.50
G1 X57.36 Y154.94 E1889.54299
G1 X57.36 Y154.24 E1889.56698
G1 X57.36 Y153.53 E1889.59096
G1 X57.16 Y152.97 E1889.61566
G0 X57.57 Y152.99
G1 X53.12 Y148.54 E1889.87695
G0 X52.98 Y148.79
G1 X52.50 Y148.67 E1889.89149
G1 X51.79 Y148.67 E1889.90601
G1 X51.32 Y148.54 E1889.92650
G0 X53.44 Y148.54
G1 X53.92 Y148.67 E1889.94108
G1 X54.62 Y148.67 E1889.95566
G1 X55.10 Y148.79 E1889.97619
G0 X55.48 Y148.54
G1 X57.57 Y150.63 E1890.09895
G0 X57.57 Y150.55
G1 X57.36 Y149.99 E1890.12298
G1 X57.36 Y149.29 E1890.14696
G1 X56.74 Y148.67 E1890.18180
G1 X56.04 Y148.67 E1890.19632
G1 X55.56 Y148.54 E1890.21681
G0 X57.16 Y150.85
G1 X57.36 Y151.41 E1890.24082
G1 X57.36 Y152.12 E1890.26481
G1 X57.57 Y152.67 E1890.28952
G0 X55.44 Y156.21
G1 X55.34 Y156.45 E1890.30410
G1 X54.51 Y156.33 E1890.31863
G1 X54.03 Y156.21 E1890.33912
G0 X53.96 Y156.45
G1 X46.05 Y148.54 E1890.80417
G0 X45.91 Y148.79
G1 X45.41 Y148.65 E1890.81872
G1 X45.36 Y149.31 E1890.84271
G1 X45.57 Y149.86 E1890.86742
G0 X45.16 Y150.00
G1 X51.61 Y156.45 E1891.24672
G0 X51.45 Y156.45
G1 X50.97 Y156.33 E1891.26132
G1 X50.26 Y156.33 E1891.27584
G1 X49.56 Y156.33 E1891.29036
G1 X49.08 Y156.21 E1891.31085
G0 X49.25 Y156.45
G1 X45.16 Y152.36 E1891.55162
G0 X45.16 Y152.28
G1 X45.36 Y152.84 E1891.57563
G1 X45.36 Y153.55 E1891.59962
G1 X45.36 Y154.26 E1891.62360
G1 X45.57 Y154.81 E1891.64832
G0 X45.16 Y154.72
G1 X46.90 Y156.45 E1891.75057
G0 X46.96 Y156.21
G1 X47.44 Y156.33 E1891.76511
G1 X48.14 Y156.33 E1891.77963
G1 X48.62 Y156.45 E1891.80016
G0 X46.50 Y156.45
G1 X46.02 Y156.33 E1891.81470
G1 X45.36 Y155.67 E1891.85195
G1 X45.16 Y155.11 E1891.87662
G0 X45.57 Y151.99
G1 X45.36 Y151.43 E1891.90064
G1 X45.36 Y150.72 E1891.92462
G1 X45.16 Y150.16 E1891.94932
G0 X46.62 Y148.79
G1 X46.72 Y148.54 E1891.96395
G1 X47.55 Y148.67 E1891.97850
G1 X48.03 Y148.79 E1891.99903
G0 X51.91 Y156.21
G1 X52.38 Y156.33 E1892.01358
G1 X53.09 Y156.33 E1892.02810
G1 X53.57 Y156.45 E1892.04863
G0 X71.66 Y172.24
;TYPE:SUPPORT
G1 X71.66 Y121.09 E1894.17520
G0 X71.66 Y121.26
G0 X74.99 Y121.26
G0 X74.99 Y121.09
G1 X74.99 Y173.32 E1896.34671
G0 X75.12 Y173.19
G0 X75.52 Y173.48
G0 X75.72 Y176.45
G0 X75.11 Y177.33
G0 X74.99 Y177.21
G1 X74.99 Y181.88 E1896.54082
G0 X74.99 Y181.70
G0 X71.66 Y181.70
G0 X71.66 Y181.88
G1 X71.66 Y178.29 E1896.69000
G0 X71.66 Y178.46
G0 X68.33 Y181.70
G0 X68.33 Y181.88
G1 X68.33 Y133.50 E1898.70099
G0 X68.33 Y133.68
G0 X65.00 Y133.75
G0 X64.99 Y133.58
G1 X64.99 Y181.88 E1900.70894
G0 X64.99 Y181.70
G0 X61.66 Y181.70
G0 X61.66 Y181.88
G1 X61.66 Y133.65 E1902.71391
G0 X61.66 Y133.82
G0 X68.67 Y133.72
G0 X70.20 Y132.66
G0 X78.33 Y121.26
G0 X78.33 Y121.09
G1 X78.33 Y181.88 E1905.24122
G0 X78.33 Y181.70
G0 X81.66 Y181.70
G0 X81.66 Y181.88
G1 X81.66 Y121.09 E1907.76853
G0 X81.66 Y121.26
G0 X84.99 Y121.26
