;-- START GCODE --
;Sliced for Type A Machines Series 1
;Sliced at: Sat 21-05-2016 16:08:35
;Basic settings: Layer height: 0.2 Walls: 1 Fill: 50
;Print Speed: 100 Support: 0
;Retraction Speed: 40 Retraction Distance: 1.2
;Print time: #P_TIME#
;Filament used: #F_AMNT#m #F_WGHT#g
;Filament cost: #F_COST#
M106 S255	 ;start with the fan on
G21        ;metric values
G90        ;absolute positioning
M106 S255    ;start with the fan on
G28     ;move to endstops
G29		;allows for auto-levelling
G1 X150 Y5  Z15.0 F6000 ;center and move the platform down 15mm
M109 S220 ;Heat To temp
G92 E0                  ;zero the extruded length
G1 F200 E30              ;extrude 30mm of feed stock
G92 E0                  ;zero the extruded length again
G1 X175 Y25  Z0 F6000 ;remove bugger
G1 X220 F6000 ;remove bugger
G1 X150 Y150  Z15 F6000 ;recenter and begin
G1 F6000

;Layer count: 55
;LAYER:0
M106 S255
G0 F6000 X132.49 Y138.55 Z0.30
;TYPE:SKIRT
G1 F2700 X134.20 Y137.14 E0.13790
G1 X136.14 Y136.09 E0.27588
G1 X138.26 Y135.44 E0.41379
G1 X139.65 Y135.30 E0.50080
G1 X140.37 Y135.20 E0.54648
G1 X142.10 Y135.37 E0.65470
G1 X142.82 Y135.47 E0.70012
G1 X144.79 Y136.07 E0.82869
G1 X146.51 Y136.98 E0.94965
G1 X148.14 Y136.09 E1.06568
G1 X150.26 Y135.44 E1.20358
G1 X151.65 Y135.30 E1.29060
G1 X152.37 Y135.20 E1.33634
G1 X154.10 Y135.37 E1.44443
G1 X154.82 Y135.47 E1.48985
G1 X156.79 Y136.07 E1.61842
G1 X158.51 Y136.98 E1.73939
G1 X160.14 Y136.09 E1.85541
G1 X162.26 Y135.44 E1.99334
G1 X163.65 Y135.30 E2.08041
G1 X164.37 Y135.20 E2.12615
G1 X166.10 Y135.37 E2.23424
G1 X166.82 Y135.47 E2.27966
G1 X168.79 Y136.07 E2.40823
G1 X170.74 Y137.10 E2.54535
G1 X172.45 Y138.49 E2.68317
G1 X173.86 Y140.20 E2.82106
G1 X174.91 Y142.14 E2.95905
G1 X175.56 Y144.26 E3.09697
G1 X175.70 Y145.65 E3.18404
G1 X175.80 Y146.37 E3.22978
G1 X175.63 Y148.10 E3.33787
G1 X175.53 Y148.82 E3.38330
G1 X174.93 Y150.79 E3.51187
G1 X174.03 Y152.51 E3.63280
G1 X174.91 Y154.14 E3.74874
G1 X175.56 Y156.26 E3.88667
G1 X175.70 Y157.65 E3.97374
G1 X175.80 Y158.37 E4.01948
G1 X175.63 Y160.10 E4.12757
G1 X175.53 Y160.82 E4.17299
G1 X174.93 Y162.79 E4.30156
G1 X173.90 Y164.74 E4.43868
G1 X172.51 Y166.45 E4.57650
G1 X170.80 Y167.86 E4.71439
G1 X168.86 Y168.91 E4.85238
G1 X166.74 Y169.56 E4.99028
G1 X165.35 Y169.70 E5.07730
G1 X164.63 Y169.80 E5.12298
G1 X162.90 Y169.63 E5.23119
G1 X162.18 Y169.53 E5.27662
G1 X160.21 Y168.93 E5.40518
G1 X158.49 Y168.02 E5.52615
G1 X156.86 Y168.91 E5.64217
G1 X154.74 Y169.56 E5.78008
G1 X153.35 Y169.70 E5.86710
G1 X152.63 Y169.80 E5.91284
G1 X150.90 Y169.63 E6.02093
G1 X150.18 Y169.53 E6.06635
G1 X148.21 Y168.93 E6.19492
G1 X146.49 Y168.02 E6.31588
G1 X144.86 Y168.91 E6.43191
G1 X142.74 Y169.56 E6.56983
G1 X141.35 Y169.70 E6.65691
G1 X140.63 Y169.80 E6.70265
G1 X138.90 Y169.63 E6.81074
G1 X138.18 Y169.53 E6.85616
G1 X136.21 Y168.93 E6.98473
G1 X134.26 Y167.90 E7.12185
G1 X132.55 Y166.51 E7.25966
G1 X131.14 Y164.80 E7.39756
G1 X130.09 Y162.86 E7.53554
G1 X129.44 Y160.74 E7.67345
G1 X129.30 Y159.35 E7.76047
G1 X129.20 Y158.63 E7.80614
G1 X129.37 Y156.90 E7.91436
G1 X129.47 Y156.18 E7.95978
G1 X130.07 Y154.21 E8.08835
G1 X130.97 Y152.49 E8.20929
G1 X130.09 Y150.86 E8.32522
G1 X129.44 Y148.74 E8.46313
G1 X129.30 Y147.35 E8.55015
G1 X129.20 Y146.63 E8.59583
G1 X129.37 Y144.90 E8.70404
G1 X129.47 Y144.18 E8.74946
G1 X130.07 Y142.21 E8.87803
G1 X131.10 Y140.26 E9.01515
G1 X132.49 Y138.55 E9.15297
G0 F6000 X132.85 Y138.91
G1 F2700 X134.48 Y137.56 E9.28471
G1 X136.34 Y136.56 E9.41661
G1 X138.36 Y135.94 E9.54838
G1 X139.70 Y135.80 E9.63245
G1 X140.38 Y135.71 E9.67536
G1 X142.04 Y135.87 E9.77938
G1 X142.72 Y135.96 E9.82178
G1 X144.60 Y136.53 E9.94480
G1 X146.46 Y137.52 E10.07587
G1 X146.50 Y137.55 E10.07906
G1 X148.34 Y136.56 E10.20940
G1 X150.36 Y135.94 E10.34117
G1 X151.70 Y135.80 E10.42524
G1 X152.38 Y135.71 E10.46821
G1 X154.04 Y135.87 E10.57217
G1 X154.71 Y135.96 E10.61451
G1 X156.60 Y136.53 E10.73753
G1 X158.46 Y137.52 E10.86860
G1 X158.50 Y137.55 E10.87179
G1 X160.34 Y136.56 E11.00213
G1 X162.36 Y135.94 E11.13390
G1 X163.70 Y135.80 E11.21785
G1 X164.38 Y135.71 E11.26100
G1 X166.04 Y135.87 E11.36496
G1 X166.71 Y135.96 E11.40730
G1 X168.60 Y136.53 E11.53032
G1 X170.46 Y137.52 E11.66139
G1 X172.09 Y138.85 E11.79300
G1 X173.44 Y140.48 E11.92474
G1 X174.44 Y142.34 E12.05664
G1 X175.06 Y144.36 E12.18841
G1 X175.20 Y145.70 E12.27236
G1 X175.29 Y146.38 E12.31552
G1 X175.13 Y148.04 E12.41947
G1 X175.04 Y148.72 E12.46181
G1 X174.47 Y150.60 E12.58483
G1 X173.48 Y152.46 E12.71590
G1 X173.45 Y152.50 E12.71905
G1 X174.44 Y154.34 E12.84938
G1 X175.06 Y156.36 E12.98115
G1 X175.20 Y157.70 E13.06510
G1 X175.29 Y158.38 E13.10826
G1 X175.13 Y160.04 E13.21221
G1 X175.04 Y160.71 E13.25455
G1 X174.47 Y162.60 E13.37758
G1 X173.48 Y164.46 E13.50864
G1 X172.15 Y166.09 E13.64025
G1 X170.52 Y167.44 E13.77200
G1 X168.66 Y168.44 E13.90389
G1 X166.64 Y169.06 E14.03567
G1 X165.30 Y169.20 E14.11974
G1 X164.62 Y169.29 E14.16265
G1 X162.96 Y169.13 E14.26667
G1 X162.28 Y169.04 E14.30906
G1 X160.40 Y168.47 E14.43209
G1 X158.54 Y167.48 E14.56315
G1 X158.50 Y167.45 E14.56635
G1 X156.66 Y168.44 E14.69668
G1 X154.64 Y169.06 E14.82846
G1 X153.30 Y169.20 E14.91253
G1 X152.62 Y169.29 E14.95550
G1 X150.96 Y169.13 E15.05946
G1 X150.29 Y169.04 E15.10179
G1 X148.40 Y168.47 E15.22482
G1 X146.54 Y167.48 E15.35588
G1 X146.50 Y167.45 E15.35908
G1 X144.66 Y168.44 E15.48941
G1 X142.64 Y169.06 E15.62119
G1 X141.30 Y169.20 E15.70513
G1 X140.62 Y169.29 E15.74829
G1 X138.96 Y169.13 E15.85224
G1 X138.29 Y169.04 E15.89458
G1 X136.40 Y168.47 E16.01761
G1 X134.54 Y167.48 E16.14867
G1 X132.91 Y166.15 E16.28028
G1 X131.56 Y164.52 E16.41203
G1 X130.56 Y162.66 E16.54392
G1 X129.94 Y160.64 E16.67570
G1 X129.80 Y159.30 E16.75977
G1 X129.71 Y158.62 E16.80268
G1 X129.87 Y156.96 E16.90670
G1 X129.96 Y156.28 E16.94909
G1 X130.53 Y154.40 E17.07212
G1 X131.52 Y152.54 E17.20318
G1 X131.55 Y152.50 E17.20633
G1 X130.56 Y150.66 E17.33667
G1 X129.94 Y148.64 E17.46844
G1 X129.80 Y147.30 E17.55251
G1 X129.71 Y146.62 E17.59542
G1 X129.87 Y144.96 E17.69944
G1 X129.96 Y144.29 E17.74184
G1 X130.53 Y142.40 E17.86486
G1 X131.52 Y140.54 E17.99593
G1 X132.85 Y138.91 E18.12754
G0 F6000 X133.21 Y139.26
G1 F2700 X134.76 Y137.98 E18.25316
G1 X136.53 Y137.02 E18.37887
G1 X138.46 Y136.43 E18.50452
G1 X139.75 Y136.29 E18.58527
G1 X140.39 Y136.21 E18.62579
G1 X141.98 Y136.37 E18.72567
G1 X142.61 Y136.45 E18.76499
G1 X144.41 Y137.00 E18.88242
G1 X146.18 Y137.94 E19.00740
G1 X146.50 Y138.19 E19.03280
G1 X146.76 Y137.98 E19.05393
G1 X148.53 Y137.02 E19.17963
G1 X150.46 Y136.43 E19.30529
G1 X151.75 Y136.29 E19.38603
G1 X152.39 Y136.21 E19.42655
G1 X153.98 Y136.37 E19.52637
G1 X154.61 Y136.45 E19.56570
G1 X156.41 Y137.00 E19.68312
G1 X158.18 Y137.94 E19.80810
G1 X158.50 Y138.19 E19.83350
G1 X158.76 Y137.98 E19.85463
G1 X160.53 Y137.02 E19.98033
G1 X162.46 Y136.43 E20.10599
G1 X163.75 Y136.29 E20.18686
G1 X164.39 Y136.21 E20.22731
G1 X165.98 Y136.37 E20.32713
G1 X166.61 Y136.45 E20.36646
G1 X168.41 Y137.00 E20.48388
G1 X170.18 Y137.94 E20.60887
G1 X171.74 Y139.21 E20.73436
G1 X173.02 Y140.76 E20.85999
G1 X173.98 Y142.53 E20.98569
G1 X174.57 Y144.46 E21.11135
G1 X174.71 Y145.75 E21.19221
G1 X174.79 Y146.39 E21.23267
G1 X174.63 Y147.98 E21.33249
G1 X174.55 Y148.61 E21.37182
G1 X174.00 Y150.41 E21.48924
G1 X173.06 Y152.18 E21.61422
G1 X172.81 Y152.50 E21.63954
G1 X173.02 Y152.76 E21.66062
G1 X173.98 Y154.53 E21.78633
G1 X174.57 Y156.46 E21.91198
G1 X174.71 Y157.75 E21.99285
G1 X174.79 Y158.39 E22.03331
G1 X174.63 Y159.98 E22.13313
G1 X174.55 Y160.61 E22.17245
G1 X174.00 Y162.41 E22.28988
G1 X173.06 Y164.18 E22.41486
G1 X171.79 Y165.74 E22.54036
G1 X170.24 Y167.02 E22.66598
G1 X168.47 Y167.98 E22.79168
G1 X166.54 Y168.57 E22.91734
G1 X165.25 Y168.71 E22.99808
G1 X164.61 Y168.79 E23.03860
G1 X163.02 Y168.63 E23.13848
G1 X162.39 Y168.55 E23.17781
G1 X160.59 Y168.00 E23.29523
G1 X158.82 Y167.06 E23.42022
G1 X158.50 Y166.81 E23.44562
G1 X158.24 Y167.02 E23.46674
G1 X156.47 Y167.98 E23.59245
G1 X154.54 Y168.57 E23.71810
G1 X153.25 Y168.71 E23.79885
G1 X152.61 Y168.79 E23.83937
G1 X151.02 Y168.63 E23.93919
G1 X150.39 Y168.55 E23.97851
G1 X148.59 Y168.00 E24.09594
G1 X146.82 Y167.06 E24.22092
G1 X146.50 Y166.81 E24.24632
G1 X146.24 Y167.02 E24.26745
G1 X144.47 Y167.98 E24.39315
G1 X142.54 Y168.57 E24.51881
G1 X141.25 Y168.71 E24.59967
G1 X140.61 Y168.79 E24.64013
G1 X139.02 Y168.63 E24.73995
G1 X138.39 Y168.55 E24.77928
G1 X136.59 Y168.00 E24.89670
G1 X134.82 Y167.06 E25.02168
G1 X133.26 Y165.79 E25.14718
G1 X131.98 Y164.24 E25.27280
G1 X131.02 Y162.47 E25.39851
G1 X130.43 Y160.54 E25.52416
G1 X130.29 Y159.25 E25.60491
G1 X130.21 Y158.61 E25.64543
G1 X130.37 Y157.02 E25.74531
G1 X130.45 Y156.39 E25.78463
G1 X131.00 Y154.59 E25.90206
G1 X131.94 Y152.82 E26.02704
G1 X132.19 Y152.50 E26.05235
G1 X131.98 Y152.24 E26.07344
G1 X131.02 Y150.47 E26.19914
G1 X130.43 Y148.54 E26.32480
G1 X130.29 Y147.25 E26.40554
G1 X130.21 Y146.61 E26.44606
G1 X130.37 Y145.02 E26.54594
G1 X130.45 Y144.39 E26.58527
G1 X131.00 Y142.59 E26.70269
G1 X131.94 Y140.82 E26.82768
G1 X133.21 Y139.26 E26.95317
G0 F6000 X133.56 Y139.61
G1 F2700 X135.04 Y138.39 E27.07264
G1 X136.73 Y137.48 E27.19226
G1 X138.56 Y136.92 E27.31171
G1 X139.80 Y136.79 E27.38963
G1 X140.40 Y136.71 E27.42731
G1 X141.93 Y136.86 E27.52299
G1 X142.50 Y136.94 E27.55929
G1 X144.22 Y137.46 E27.67117
G1 X145.90 Y138.35 E27.79002
G1 X146.50 Y138.84 E27.83794
G1 X147.04 Y138.39 E27.88153
G1 X148.73 Y137.48 E28.00115
G1 X150.56 Y136.92 E28.12059
G1 X151.80 Y136.79 E28.19852
G1 X152.40 Y136.71 E28.23620
G1 X153.93 Y136.86 E28.33188
G1 X154.50 Y136.94 E28.36812
G1 X156.22 Y137.46 E28.48000
G1 X157.90 Y138.35 E28.59884
G1 X158.50 Y138.84 E28.64676
G1 X159.04 Y138.39 E28.69035
G1 X160.72 Y137.48 E28.80997
G1 X162.56 Y136.92 E28.92948
G1 X163.80 Y136.79 E29.00740
G1 X164.40 Y136.71 E29.04508
G1 X165.93 Y136.86 E29.14076
G1 X166.50 Y136.94 E29.17700
G1 X168.22 Y137.46 E29.28888
G1 X169.90 Y138.35 E29.40773
G1 X171.39 Y139.56 E29.52711
G1 X172.61 Y141.04 E29.64658
G1 X173.52 Y142.73 E29.76620
G1 X174.08 Y144.56 E29.88570
G1 X174.21 Y145.80 E29.96363
G1 X174.29 Y146.40 E30.00131
G1 X174.14 Y147.93 E30.09699
G1 X174.06 Y148.50 E30.13323
G1 X173.54 Y150.22 E30.24511
G1 X172.65 Y151.90 E30.36395
G1 X172.16 Y152.50 E30.41187
G1 X172.61 Y153.04 E30.45541
G1 X173.52 Y154.72 E30.57503
G1 X174.08 Y156.56 E30.69454
G1 X174.21 Y157.80 E30.77246
G1 X174.29 Y158.40 E30.81014
G1 X174.14 Y159.93 E30.90582
G1 X174.06 Y160.50 E30.94206
G1 X173.54 Y162.22 E31.05394
G1 X172.65 Y163.90 E31.17279
G1 X171.44 Y165.39 E31.29217
G1 X169.96 Y166.61 E31.41164
G1 X168.27 Y167.52 E31.53126
G1 X166.44 Y168.08 E31.65070
G1 X165.20 Y168.21 E31.72863
G1 X164.60 Y168.29 E31.76631
G1 X163.07 Y168.14 E31.86199
G1 X162.50 Y168.06 E31.89829
G1 X160.78 Y167.54 E32.01017
G1 X159.10 Y166.65 E32.12901
G1 X158.50 Y166.16 E32.17693
G1 X157.96 Y166.61 E32.22052
G1 X156.27 Y167.52 E32.34014
G1 X154.44 Y168.08 E32.45959
G1 X153.20 Y168.21 E32.53751
G1 X152.60 Y168.29 E32.57519
G1 X151.07 Y168.14 E32.67087
G1 X150.50 Y168.06 E32.70711
G1 X148.78 Y167.54 E32.81899
G1 X147.10 Y166.65 E32.93784
G1 X146.50 Y166.16 E32.98576
G1 X145.96 Y166.61 E33.02935
G1 X144.28 Y167.52 E33.14897
G1 X142.44 Y168.08 E33.26847
G1 X141.20 Y168.21 E33.34640
G1 X140.60 Y168.29 E33.38408
G1 X139.07 Y168.14 E33.47976
G1 X138.50 Y168.06 E33.51600
G1 X136.78 Y167.54 E33.62788
G1 X135.10 Y166.65 E33.74672
G1 X133.61 Y165.44 E33.86610
G1 X132.39 Y163.96 E33.98557
G1 X131.48 Y162.27 E34.10519
G1 X130.92 Y160.44 E34.22463
G1 X130.79 Y159.20 E34.30256
G1 X130.71 Y158.60 E34.34024
G1 X130.86 Y157.07 E34.43592
G1 X130.94 Y156.50 E34.47222
G1 X131.46 Y154.78 E34.58410
G1 X132.35 Y153.10 E34.70295
G1 X132.84 Y152.50 E34.75087
G1 X132.39 Y151.96 E34.79441
G1 X131.48 Y150.28 E34.91403
G1 X130.92 Y148.44 E35.03347
G1 X130.79 Y147.20 E35.11140
G1 X130.71 Y146.60 E35.14908
G1 X130.86 Y145.07 E35.24476
G1 X130.94 Y144.50 E35.28106
G1 X131.46 Y142.78 E35.39294
G1 X132.35 Y141.10 E35.51179
G1 X133.56 Y139.61 E35.63117
G0 F6000 X133.92 Y139.97
G1 F2700 X135.32 Y138.81 E35.74448
G1 X136.92 Y137.95 E35.85793
G1 X138.66 Y137.41 E35.97126
G1 X139.88 Y137.29 E36.04806
G1 X140.41 Y137.22 E36.08115
G1 X141.87 Y137.36 E36.17270
G1 X142.40 Y137.43 E36.20585
G1 X144.03 Y137.92 E36.31221
G1 X145.63 Y138.77 E36.42502
G1 X146.50 Y139.49 E36.49546
G1 X147.32 Y138.81 E36.56155
G1 X148.92 Y137.95 E36.67501
G1 X150.66 Y137.41 E36.78833
G1 X151.88 Y137.29 E36.86513
G1 X152.41 Y137.22 E36.89822
G1 X153.87 Y137.36 E36.98971
G1 X154.40 Y137.43 E37.02286
G1 X156.03 Y137.92 E37.12922
G1 X157.62 Y138.77 E37.24203
G1 X158.50 Y139.49 E37.31247
G1 X159.32 Y138.81 E37.37856
G1 X160.92 Y137.95 E37.49202
G1 X162.66 Y137.41 E37.60540
G1 X163.88 Y137.29 E37.68220
G1 X164.41 Y137.22 E37.71529
G1 X165.87 Y137.36 E37.80678
G1 X166.40 Y137.43 E37.83993
G1 X168.03 Y137.92 E37.94629
G1 X169.62 Y138.77 E38.05910
G1 X171.03 Y139.92 E38.17232
G1 X172.19 Y141.32 E38.28563
G1 X173.05 Y142.92 E38.39909
G1 X173.59 Y144.66 E38.51247
G1 X173.71 Y145.88 E38.58927
G1 X173.78 Y146.41 E38.62236
G1 X173.64 Y147.87 E38.71385
G1 X173.57 Y148.40 E38.74700
G1 X173.08 Y150.03 E38.85336
G1 X172.23 Y151.63 E38.96617
G1 X171.52 Y152.50 E39.03652
G1 X172.19 Y153.32 E39.10258
G1 X173.05 Y154.92 E39.21603
G1 X173.59 Y156.66 E39.32942
G1 X173.71 Y157.88 E39.40621
G1 X173.78 Y158.41 E39.43931
G1 X173.64 Y159.87 E39.53079
G1 X173.57 Y160.40 E39.56394
G1 X173.08 Y162.03 E39.67030
G1 X172.23 Y163.62 E39.78312
G1 X171.08 Y165.03 E39.89633
G1 X169.68 Y166.19 E40.00964
G1 X168.08 Y167.05 E40.12310
G1 X166.34 Y167.59 E40.23643
G1 X165.12 Y167.71 E40.31322
G1 X164.59 Y167.78 E40.34632
G1 X163.13 Y167.64 E40.43786
G1 X162.60 Y167.57 E40.47102
G1 X160.97 Y167.08 E40.57737
G1 X159.37 Y166.23 E40.69019
G1 X158.50 Y165.51 E40.76063
G1 X157.68 Y166.19 E40.82672
G1 X156.08 Y167.05 E40.94017
G1 X154.34 Y167.59 E41.05350
G1 X153.12 Y167.71 E41.13030
G1 X152.59 Y167.78 E41.16339
G1 X151.13 Y167.64 E41.25487
G1 X150.60 Y167.57 E41.28803
G1 X148.97 Y167.08 E41.39438
G1 X147.38 Y166.23 E41.50720
G1 X146.50 Y165.51 E41.57764
G1 X145.68 Y166.19 E41.64373
G1 X144.08 Y167.05 E41.75718
G1 X142.34 Y167.59 E41.87057
G1 X141.12 Y167.71 E41.94737
G1 X140.59 Y167.78 E41.98046
G1 X139.13 Y167.64 E42.07194
G1 X138.60 Y167.57 E42.10510
G1 X136.97 Y167.08 E42.21145
G1 X135.38 Y166.23 E42.32427
G1 X133.97 Y165.08 E42.43749
G1 X132.81 Y163.68 E42.55080
G1 X131.95 Y162.08 E42.66425
G1 X131.41 Y160.34 E42.77758
G1 X131.29 Y159.12 E42.85438
G1 X131.22 Y158.59 E42.88747
G1 X131.36 Y157.13 E42.97902
G1 X131.43 Y156.60 E43.01217
G1 X131.92 Y154.97 E43.11852
G1 X132.77 Y153.37 E43.23134
G1 X133.48 Y152.50 E43.30169
G1 X132.81 Y151.68 E43.36774
G1 X131.95 Y150.08 E43.48120
G1 X131.41 Y148.34 E43.59453
G1 X131.29 Y147.12 E43.67132
G1 X131.22 Y146.59 E43.70441
G1 X131.36 Y145.13 E43.79596
G1 X131.43 Y144.60 E43.82912
G1 X131.92 Y142.97 E43.93547
G1 X132.77 Y141.38 E44.04829
G1 X133.92 Y139.97 E44.16150
G0 F6000 X134.27 Y140.32
G1 F2700 X135.60 Y139.23 E44.26875
G1 X137.11 Y138.41 E44.37603
G1 X138.76 Y137.90 E44.48323
G1 X139.93 Y137.78 E44.55688
G1 X140.42 Y137.72 E44.58734
G1 X141.81 Y137.86 E44.67475
G1 X142.29 Y137.92 E44.70489
G1 X143.84 Y138.39 E44.80568
G1 X145.35 Y139.19 E44.91239
G1 X146.50 Y140.13 E45.00531
G1 X147.60 Y139.23 E45.09395
G1 X149.11 Y138.41 E45.20124
G1 X150.76 Y137.90 E45.30843
G1 X151.93 Y137.78 E45.38209
G1 X152.42 Y137.72 E45.41260
G1 X153.81 Y137.86 E45.49996
G1 X154.29 Y137.92 E45.53003
G1 X155.84 Y138.39 E45.63083
G1 X157.35 Y139.19 E45.73754
G1 X158.50 Y140.13 E45.83045
G1 X159.60 Y139.23 E45.91909
G1 X161.11 Y138.41 E46.02638
G1 X162.76 Y137.90 E46.13357
G1 X163.93 Y137.78 E46.20729
G1 X164.42 Y137.72 E46.23781
G1 X165.81 Y137.86 E46.32516
G1 X166.29 Y137.92 E46.35524
G1 X167.84 Y138.39 E46.45603
G1 X169.35 Y139.19 E46.56274
G1 X170.68 Y140.27 E46.66980
G1 X171.77 Y141.60 E46.77704
G1 X172.59 Y143.11 E46.88433
G1 X173.10 Y144.76 E46.99152
G1 X173.22 Y145.93 E47.06524
G1 X173.28 Y146.42 E47.09576
G1 X173.14 Y147.81 E47.18311
G1 X173.08 Y148.29 E47.21319
G1 X172.61 Y149.84 E47.31398
G1 X171.81 Y151.35 E47.42069
G1 X170.87 Y152.50 E47.51361
G1 X171.77 Y153.60 E47.60220
G1 X172.59 Y155.11 E47.70949
G1 X173.10 Y156.76 E47.81668
G1 X173.22 Y157.93 E47.89040
G1 X173.28 Y158.42 E47.92091
G1 X173.14 Y159.81 E48.00827
G1 X173.08 Y160.29 E48.03834
G1 X172.61 Y161.84 E48.13913
G1 X171.81 Y163.35 E48.24584
G1 X170.73 Y164.68 E48.35290
G1 X169.40 Y165.77 E48.46015
G1 X167.89 Y166.59 E48.56744
G1 X166.24 Y167.10 E48.67463
G1 X165.07 Y167.22 E48.74829
G1 X164.58 Y167.28 E48.77874
G1 X163.19 Y167.14 E48.86615
G1 X162.71 Y167.08 E48.89629
G1 X161.16 Y166.61 E48.99708
G1 X159.65 Y165.81 E49.10380
G1 X158.50 Y164.87 E49.19671
G1 X157.40 Y165.77 E49.28535
G1 X155.89 Y166.59 E49.39264
G1 X154.24 Y167.10 E49.49983
G1 X153.07 Y167.22 E49.57349
G1 X152.58 Y167.28 E49.60401
G1 X151.19 Y167.14 E49.69136
G1 X150.71 Y167.08 E49.72143
G1 X149.16 Y166.61 E49.82223
G1 X147.65 Y165.81 E49.92894
G1 X146.50 Y164.87 E50.02185
G1 X145.40 Y165.77 E50.11049
G1 X143.89 Y166.59 E50.21778
G1 X142.24 Y167.10 E50.32497
G1 X141.07 Y167.22 E50.39869
G1 X140.58 Y167.28 E50.42921
G1 X139.19 Y167.14 E50.51656
G1 X138.71 Y167.08 E50.54664
G1 X137.16 Y166.61 E50.64743
G1 X135.65 Y165.81 E50.75414
G1 X134.32 Y164.73 E50.86120
G1 X133.23 Y163.40 E50.96844
G1 X132.41 Y161.89 E51.07573
G1 X131.90 Y160.24 E51.18292
G1 X131.78 Y159.07 E51.25658
G1 X131.72 Y158.58 E51.28704
G1 X131.86 Y157.19 E51.37445
G1 X131.92 Y156.71 E51.40459
G1 X132.39 Y155.16 E51.50538
G1 X133.19 Y153.65 E51.61209
G1 X134.13 Y152.50 E51.70501
G1 X133.23 Y151.40 E51.79360
G1 X132.41 Y149.89 E51.90089
G1 X131.90 Y148.24 E52.00808
G1 X131.78 Y147.07 E52.08174
G1 X131.72 Y146.59 E52.11219
G1 X131.86 Y145.19 E52.19960
G1 X131.92 Y144.71 E52.22974
G1 X132.39 Y143.16 E52.33054
G1 X133.19 Y141.65 E52.43725
G1 X134.27 Y140.32 E52.54430
G0 F6000 X134.63 Y140.68
G1 F2700 X135.88 Y139.64 E52.64534
G1 X137.31 Y138.87 E52.74652
G1 X138.86 Y138.40 E52.84758
G1 X139.98 Y138.28 E52.91817
G1 X140.43 Y138.22 E52.94598
G1 X141.75 Y138.35 E53.02925
G1 X142.18 Y138.41 E53.05631
G1 X143.65 Y138.85 E53.15150
G1 X145.07 Y139.61 E53.25213
G1 X146.33 Y140.63 E53.35311
G1 X146.50 Y140.84 E53.36995
G1 X146.63 Y140.68 E53.38311
G1 X147.88 Y139.64 E53.48415
G1 X149.31 Y138.87 E53.58533
G1 X150.86 Y138.40 E53.68639
G1 X151.98 Y138.28 E53.75698
G1 X152.43 Y138.22 E53.78485
G1 X153.75 Y138.35 E53.86801
G1 X154.18 Y138.41 E53.89506
G1 X155.64 Y138.85 E53.99025
G1 X157.07 Y139.61 E54.09088
G1 X158.32 Y140.63 E54.19186
G1 X158.50 Y140.84 E54.20869
G1 X158.63 Y140.68 E54.22186
G1 X159.88 Y139.64 E54.32290
G1 X161.31 Y138.87 E54.42407
G1 X162.86 Y138.40 E54.52513
G1 X163.98 Y138.28 E54.59578
G1 X164.43 Y138.22 E54.62366
G1 X165.75 Y138.35 E54.70681
G1 X166.18 Y138.41 E54.73386
G1 X167.64 Y138.85 E54.82905
G1 X169.07 Y139.61 E54.92968
G1 X170.32 Y140.63 E55.03066
G1 X171.36 Y141.88 E55.13170
G1 X172.13 Y143.31 E55.23288
G1 X172.60 Y144.86 E55.33394
G1 X172.72 Y145.98 E55.40459
G1 X172.78 Y146.43 E55.43246
G1 X172.65 Y147.75 E55.51562
G1 X172.59 Y148.18 E55.54267
G1 X172.15 Y149.65 E55.63786
G1 X171.39 Y151.07 E55.73849
G1 X170.37 Y152.33 E55.83947
G1 X170.16 Y152.50 E55.85621
G1 X170.32 Y152.63 E55.86933
G1 X171.36 Y153.88 E55.97037
G1 X172.13 Y155.31 E56.07155
G1 X172.60 Y156.86 E56.17261
G1 X172.72 Y157.98 E56.24326
G1 X172.78 Y158.43 E56.27113
G1 X172.65 Y159.75 E56.35429
G1 X172.59 Y160.18 E56.38134
G1 X172.15 Y161.64 E56.47653
G1 X171.39 Y163.07 E56.57716
G1 X170.37 Y164.32 E56.67814
G1 X169.12 Y165.36 E56.77918
G1 X167.69 Y166.13 E56.88035
G1 X166.14 Y166.60 E56.98141
G1 X165.02 Y166.72 E57.05200
G1 X164.57 Y166.78 E57.07981
G1 X163.25 Y166.65 E57.16309
G1 X162.82 Y166.59 E57.19015
G1 X161.35 Y166.15 E57.28534
G1 X159.93 Y165.39 E57.38597
G1 X158.67 Y164.37 E57.48695
G1 X158.50 Y164.16 E57.50378
G1 X158.37 Y164.32 E57.51695
G1 X157.12 Y165.36 E57.61799
G1 X155.69 Y166.13 E57.71916
G1 X154.14 Y166.60 E57.82022
G1 X153.02 Y166.72 E57.89081
G1 X152.57 Y166.78 E57.91868
G1 X151.25 Y166.65 E58.00184
G1 X150.82 Y166.59 E58.02889
G1 X149.36 Y166.15 E58.12408
G1 X147.93 Y165.39 E58.22471
G1 X146.68 Y164.37 E58.32569
G1 X146.50 Y164.16 E58.34252
G1 X146.37 Y164.32 E58.35569
G1 X145.12 Y165.36 E58.45673
G1 X143.69 Y166.13 E58.55791
G1 X142.14 Y166.60 E58.65897
G1 X141.02 Y166.72 E58.72962
G1 X140.57 Y166.78 E58.75749
G1 X139.25 Y166.65 E58.84065
G1 X138.82 Y166.59 E58.86770
G1 X137.36 Y166.15 E58.96289
G1 X135.93 Y165.39 E59.06352
G1 X134.68 Y164.37 E59.16450
G1 X133.64 Y163.12 E59.26554
G1 X132.87 Y161.69 E59.36671
G1 X132.40 Y160.14 E59.46777
G1 X132.28 Y159.02 E59.53836
G1 X132.22 Y158.57 E59.56617
G1 X132.35 Y157.25 E59.64945
G1 X132.41 Y156.82 E59.67651
G1 X132.85 Y155.35 E59.77170
G1 X133.61 Y153.93 E59.87233
G1 X134.63 Y152.67 E59.97331
G1 X134.84 Y152.50 E59.99005
G1 X134.68 Y152.37 E60.00317
G1 X133.64 Y151.12 E60.10421
G1 X132.87 Y149.69 E60.20539
G1 X132.40 Y148.14 E60.30644
G1 X132.28 Y147.02 E60.37704
G1 X132.22 Y146.58 E60.40484
G1 X132.35 Y145.25 E60.48812
G1 X132.41 Y144.82 E60.51518
G1 X132.85 Y143.36 E60.61037
G1 X133.61 Y141.93 E60.71100
G1 X134.63 Y140.68 E60.81198
G0 F6000 X134.99 Y141.03
G1 F2700 X136.16 Y140.06 E60.90686
G1 X137.50 Y139.34 E61.00190
G1 X138.96 Y138.89 E61.09682
G1 X140.04 Y138.78 E61.16452
G1 X140.43 Y138.73 E61.18950
G1 X141.70 Y138.85 E61.26864
G1 X142.08 Y138.90 E61.29261
G1 X143.45 Y139.32 E61.38228
G1 X144.79 Y140.03 E61.47682
G1 X145.97 Y140.99 E61.57164
G1 X146.50 Y141.63 E61.62338
G1 X146.99 Y141.03 E61.67156
G1 X148.16 Y140.06 E61.76645
G1 X149.50 Y139.34 E61.86149
G1 X150.96 Y138.89 E61.95641
G1 X152.04 Y138.78 E62.02411
G1 X152.43 Y138.73 E62.04909
G1 X153.70 Y138.85 E62.12816
G1 X154.08 Y138.90 E62.15213
G1 X155.45 Y139.32 E62.24180
G1 X156.79 Y140.03 E62.33634
G1 X157.97 Y140.99 E62.43116
G1 X158.50 Y141.63 E62.48290
G1 X158.99 Y141.03 E62.53109
G1 X160.16 Y140.06 E62.62597
G1 X161.50 Y139.34 E62.72101
G1 X162.96 Y138.89 E62.81593
G1 X164.04 Y138.78 E62.88369
G1 X164.43 Y138.73 E62.90867
G1 X165.70 Y138.85 E62.98775
G1 X166.08 Y138.90 E63.01172
G1 X167.45 Y139.32 E63.10138
G1 X168.79 Y140.03 E63.19593
G1 X169.97 Y140.99 E63.29075
G1 X170.94 Y142.16 E63.38563
G1 X171.66 Y143.50 E63.48067
G1 X172.11 Y144.96 E63.57559
G1 X172.22 Y146.04 E63.64335
G1 X172.27 Y146.44 E63.66833
G1 X172.15 Y147.70 E63.74740
G1 X172.10 Y148.08 E63.77138
G1 X171.68 Y149.45 E63.86104
G1 X170.97 Y150.79 E63.95559
G1 X170.01 Y151.97 E64.05040
G1 X169.37 Y152.50 E64.10210
G1 X169.97 Y152.99 E64.15019
G1 X170.94 Y154.16 E64.24508
G1 X171.66 Y155.50 E64.34012
G1 X172.11 Y156.96 E64.43504
G1 X172.22 Y158.04 E64.50280
G1 X172.27 Y158.43 E64.52778
G1 X172.15 Y159.70 E64.60685
G1 X172.10 Y160.08 E64.63083
G1 X171.68 Y161.45 E64.72049
G1 X170.97 Y162.79 E64.81504
G1 X170.01 Y163.97 E64.90985
G1 X168.84 Y164.94 E65.00474
G1 X167.50 Y165.66 E65.09977
G1 X166.04 Y166.11 E65.19470
G1 X164.96 Y166.22 E65.26240
G1 X164.57 Y166.27 E65.28738
G1 X163.30 Y166.15 E65.36651
G1 X162.92 Y166.10 E65.39048
G1 X161.55 Y165.68 E65.48015
G1 X160.21 Y164.97 E65.57470
G1 X159.03 Y164.01 E65.66951
G1 X158.50 Y163.37 E65.72125
G1 X158.01 Y163.97 E65.76944
G1 X156.84 Y164.94 E65.86432
G1 X155.50 Y165.66 E65.95936
G1 X154.04 Y166.11 E66.05428
G1 X152.96 Y166.22 E66.12198
G1 X152.57 Y166.27 E66.14696
G1 X151.30 Y166.15 E66.22603
G1 X150.92 Y166.10 E66.25001
G1 X149.55 Y165.68 E66.33967
G1 X148.21 Y164.97 E66.43422
G1 X147.03 Y164.01 E66.52903
G1 X146.50 Y163.37 E66.58078
G1 X146.01 Y163.97 E66.62896
G1 X144.84 Y164.94 E66.72384
G1 X143.50 Y165.66 E66.81888
G1 X142.04 Y166.11 E66.91380
G1 X140.96 Y166.22 E66.98157
G1 X140.57 Y166.27 E67.00654
G1 X139.30 Y166.15 E67.08562
G1 X138.92 Y166.10 E67.10959
G1 X137.55 Y165.68 E67.19926
G1 X136.21 Y164.97 E67.29380
G1 X135.03 Y164.01 E67.38862
G1 X134.06 Y162.84 E67.48350
G1 X133.34 Y161.50 E67.57854
G1 X132.89 Y160.04 E67.67346
G1 X132.78 Y158.96 E67.74116
G1 X132.73 Y158.57 E67.76614
G1 X132.85 Y157.30 E67.84528
G1 X132.90 Y156.92 E67.86925
G1 X133.32 Y155.55 E67.95892
G1 X134.03 Y154.21 E68.05346
G1 X134.99 Y153.03 E68.14828
G1 X135.63 Y152.50 E68.19997
G1 X135.03 Y152.01 E68.24807
G1 X134.06 Y150.84 E68.34295
G1 X133.34 Y149.50 E68.43799
G1 X132.89 Y148.04 E68.53291
G1 X132.78 Y146.96 E68.60061
G1 X132.73 Y146.57 E68.62559
G1 X132.85 Y145.30 E68.70473
G1 X132.90 Y144.92 E68.72870
G1 X133.32 Y143.55 E68.81836
G1 X134.03 Y142.21 E68.91291
G1 X134.99 Y141.03 E69.00773
G0 F6000 X135.34 Y141.38
G1 F2700 X136.44 Y140.48 E69.09654
G1 X137.70 Y139.80 E69.18541
G1 X139.06 Y139.38 E69.27418
G1 X140.12 Y139.27 E69.34057
G1 X140.44 Y139.23 E69.36115
G1 X141.64 Y139.35 E69.43609
G1 X141.97 Y139.39 E69.45698
G1 X143.26 Y139.78 E69.54110
G1 X144.51 Y140.45 E69.62959
G1 X145.62 Y141.34 E69.71825
G1 X146.50 Y142.42 E69.80498
G1 X147.34 Y141.38 E69.88802
G1 X148.44 Y140.48 E69.97683
G1 X149.70 Y139.80 E70.06570
G1 X151.06 Y139.38 E70.15447
G1 X152.12 Y139.27 E70.22086
G1 X152.44 Y139.23 E70.24144
G1 X153.64 Y139.35 E70.31632
G1 X153.97 Y139.39 E70.33721
G1 X155.26 Y139.78 E70.42133
G1 X156.51 Y140.45 E70.50982
G1 X157.62 Y141.34 E70.59848
G1 X158.50 Y142.42 E70.68521
G1 X159.34 Y141.38 E70.76824
G1 X160.44 Y140.48 E70.85706
G1 X161.69 Y139.80 E70.94593
G1 X163.06 Y139.38 E71.03470
G1 X164.12 Y139.27 E71.10115
G1 X164.44 Y139.23 E71.12173
G1 X165.64 Y139.35 E71.19661
G1 X165.97 Y139.39 E71.21750
G1 X167.26 Y139.78 E71.30162
G1 X168.51 Y140.45 E71.39011
G1 X169.62 Y141.34 E71.47877
G1 X170.52 Y142.44 E71.56759
G1 X171.20 Y143.70 E71.65646
G1 X171.62 Y145.06 E71.74523
G1 X171.73 Y146.12 E71.81168
G1 X171.77 Y146.44 E71.83226
G1 X171.65 Y147.64 E71.90714
G1 X171.61 Y147.97 E71.92802
G1 X171.22 Y149.26 E72.01214
G1 X170.55 Y150.51 E72.10064
G1 X169.66 Y151.62 E72.18930
G1 X168.58 Y152.50 E72.27599
G1 X169.62 Y153.34 E72.35902
G1 X170.52 Y154.44 E72.44784
G1 X171.20 Y155.69 E72.53671
G1 X171.62 Y157.06 E72.62548
G1 X171.73 Y158.12 E72.69193
G1 X171.77 Y158.44 E72.71251
G1 X171.65 Y159.64 E72.78739
G1 X171.61 Y159.97 E72.80827
G1 X171.22 Y161.26 E72.89239
G1 X170.55 Y162.51 E72.98089
G1 X169.66 Y163.62 E73.06955
G1 X168.56 Y164.52 E73.15836
G1 X167.30 Y165.20 E73.24723
G1 X165.94 Y165.62 E73.33600
G1 X164.88 Y165.73 E73.40240
G1 X164.56 Y165.77 E73.42297
G1 X163.36 Y165.65 E73.49791
G1 X163.03 Y165.61 E73.51880
G1 X161.74 Y165.22 E73.60292
G1 X160.49 Y164.55 E73.69141
G1 X159.38 Y163.66 E73.78008
G1 X158.50 Y162.58 E73.86681
G1 X157.66 Y163.62 E73.94984
G1 X156.56 Y164.52 E74.03865
G1 X155.30 Y165.20 E74.12752
G1 X153.94 Y165.62 E74.21629
G1 X152.88 Y165.73 E74.28269
G1 X152.56 Y165.77 E74.30326
G1 X151.36 Y165.65 E74.37814
G1 X151.03 Y165.61 E74.39903
G1 X149.74 Y165.22 E74.48315
G1 X148.49 Y164.55 E74.57164
G1 X147.38 Y163.66 E74.66030
G1 X146.50 Y162.58 E74.74703
G1 X145.66 Y163.62 E74.83006
G1 X144.56 Y164.52 E74.91888
G1 X143.31 Y165.20 E75.00775
G1 X141.94 Y165.62 E75.09652
G1 X140.88 Y165.73 E75.16297
G1 X140.56 Y165.77 E75.18355
G1 X139.36 Y165.65 E75.25843
G1 X139.03 Y165.61 E75.27932
G1 X137.74 Y165.22 E75.36344
G1 X136.49 Y164.55 E75.45193
G1 X135.38 Y163.66 E75.54059
G1 X134.48 Y162.56 E75.62941
G1 X133.80 Y161.30 E75.71828
G1 X133.38 Y159.94 E75.80705
G1 X133.27 Y158.88 E75.87344
G1 X133.23 Y158.56 E75.89402
G1 X133.35 Y157.36 E75.96896
G1 X133.39 Y157.03 E75.98984
G1 X133.78 Y155.74 E76.07397
G1 X134.45 Y154.49 E76.16246
G1 X135.34 Y153.38 E76.25112
G1 X136.42 Y152.50 E76.33781
G1 X135.38 Y151.66 E76.42084
G1 X134.48 Y150.56 E76.50966
G1 X133.80 Y149.31 E76.59853
G1 X133.38 Y147.94 E76.68730
G1 X133.27 Y146.88 E76.75369
G1 X133.23 Y146.56 E76.77427
G1 X133.35 Y145.36 E76.84921
G1 X133.39 Y145.03 E76.87009
G1 X133.78 Y143.74 E76.95422
G1 X134.45 Y142.49 E77.04271
G1 X135.34 Y141.38 E77.13137
G0 F6000 X135.70 Y141.74
G1 F2700 X136.72 Y140.89 E77.21398
G1 X137.89 Y140.26 E77.29674
G1 X139.16 Y139.87 E77.37939
G1 X140.17 Y139.77 E77.44309
G1 X140.45 Y139.73 E77.46064
G1 X141.58 Y139.84 E77.53145
G1 X141.87 Y139.88 E77.54926
G1 X143.07 Y140.25 E77.62778
G1 X144.24 Y140.87 E77.71016
G1 X145.26 Y141.70 E77.79274
G1 X146.11 Y142.72 E77.87535
G1 X146.50 Y143.45 E77.92695
G1 X146.87 Y142.76 E77.97538
G1 X147.70 Y141.74 E78.05796
G1 X148.72 Y140.89 E78.14057
G1 X149.89 Y140.26 E78.22333
G1 X151.16 Y139.87 E78.30599
G1 X152.17 Y139.77 E78.36968
G1 X152.45 Y139.73 E78.38723
G1 X153.58 Y139.84 E78.45798
G1 X153.86 Y139.88 E78.47579
G1 X155.07 Y140.25 E78.55431
G1 X156.24 Y140.87 E78.63669
G1 X157.26 Y141.70 E78.71927
G1 X158.11 Y142.72 E78.80188
G1 X158.50 Y143.45 E78.85348
G1 X158.86 Y142.76 E78.90191
G1 X159.70 Y141.74 E78.98449
G1 X160.72 Y140.89 E79.06710
G1 X161.89 Y140.26 E79.14986
G1 X163.16 Y139.87 E79.23251
G1 X164.17 Y139.77 E79.29627
G1 X164.45 Y139.73 E79.31383
G1 X165.58 Y139.84 E79.38457
G1 X165.86 Y139.88 E79.40238
G1 X167.07 Y140.25 E79.48090
G1 X168.24 Y140.87 E79.56328
G1 X169.26 Y141.70 E79.64586
G1 X170.11 Y142.72 E79.72847
G1 X170.74 Y143.89 E79.81123
G1 X171.13 Y145.16 E79.89389
G1 X171.23 Y146.17 E79.95765
G1 X171.27 Y146.45 E79.97520
G1 X171.16 Y147.58 E80.04595
G1 X171.12 Y147.87 E80.06375
G1 X170.75 Y149.07 E80.14227
G1 X170.13 Y150.24 E80.22465
G1 X169.30 Y151.26 E80.30724
G1 X168.28 Y152.11 E80.38985
G1 X167.55 Y152.50 E80.44136
G1 X168.24 Y152.86 E80.48973
G1 X169.26 Y153.70 E80.57232
G1 X170.11 Y154.72 E80.65493
G1 X170.74 Y155.89 E80.73769
G1 X171.13 Y157.16 E80.82034
G1 X171.23 Y158.17 E80.88410
G1 X171.27 Y158.45 E80.90165
G1 X171.16 Y159.58 E80.97240
G1 X171.12 Y159.86 E80.99021
G1 X170.75 Y161.07 E81.06873
G1 X170.13 Y162.24 E81.15111
G1 X169.30 Y163.26 E81.23369
G1 X168.28 Y164.11 E81.31630
G1 X167.11 Y164.74 E81.39906
G1 X165.84 Y165.13 E81.48171
G1 X164.83 Y165.23 E81.54541
G1 X164.55 Y165.27 E81.56296
G1 X163.42 Y165.16 E81.63377
G1 X163.13 Y165.12 E81.65158
G1 X161.93 Y164.75 E81.73010
G1 X160.76 Y164.13 E81.81248
G1 X159.74 Y163.30 E81.89506
G1 X158.89 Y162.28 E81.97767
G1 X158.50 Y161.55 E82.02927
G1 X158.13 Y162.24 E82.07770
G1 X157.30 Y163.26 E82.16028
G1 X156.28 Y164.11 E82.24289
G1 X155.11 Y164.74 E82.32565
G1 X153.84 Y165.13 E82.40831
G1 X152.83 Y165.23 E82.47200
G1 X152.55 Y165.27 E82.48956
G1 X151.42 Y165.16 E82.56030
G1 X151.14 Y165.12 E82.57811
G1 X149.93 Y164.75 E82.65663
G1 X148.76 Y164.13 E82.73901
G1 X147.74 Y163.30 E82.82159
G1 X146.89 Y162.28 E82.90420
G1 X146.50 Y161.55 E82.95580
G1 X146.14 Y162.24 E83.00423
G1 X145.30 Y163.26 E83.08681
G1 X144.28 Y164.11 E83.16942
G1 X143.11 Y164.74 E83.25218
G1 X141.84 Y165.13 E83.33484
G1 X140.83 Y165.23 E83.39860
G1 X140.55 Y165.27 E83.41615
G1 X139.42 Y165.16 E83.48689
G1 X139.14 Y165.12 E83.50470
G1 X137.93 Y164.75 E83.58322
G1 X136.76 Y164.13 E83.66560
G1 X135.74 Y163.30 E83.74819
G1 X134.89 Y162.28 E83.83080
G1 X134.26 Y161.11 E83.91356
G1 X133.87 Y159.84 E83.99621
G1 X133.77 Y158.83 E84.05991
G1 X133.73 Y158.55 E84.07746
G1 X133.84 Y157.42 E84.14827
G1 X133.88 Y157.13 E84.16608
G1 X134.25 Y155.93 E84.24459
G1 X134.87 Y154.76 E84.32698
G1 X135.70 Y153.74 E84.40956
G1 X136.72 Y152.89 E84.49217
G1 X137.45 Y152.50 E84.54368
G1 X136.76 Y152.14 E84.59205
G1 X135.74 Y151.30 E84.67464
G1 X134.89 Y150.28 E84.75725
G1 X134.26 Y149.11 E84.84001
G1 X133.87 Y147.84 E84.92266
G1 X133.77 Y146.83 E84.98636
G1 X133.73 Y146.55 E85.00391
G1 X133.84 Y145.42 E85.07472
G1 X133.88 Y145.14 E85.09253
G1 X134.25 Y143.93 E85.17105
G1 X134.87 Y142.76 E85.25343
G1 X135.70 Y141.74 E85.33601
G0 F6000 X136.06 Y142.09
G1 F2700 X137.00 Y141.31 E85.41251
G1 X138.08 Y140.73 E85.48914
G1 X139.26 Y140.37 E85.56566
G1 X140.22 Y140.27 E85.62615
G1 X140.46 Y140.24 E85.64113
G1 X141.52 Y140.34 E85.70780
G1 X141.76 Y140.37 E85.72259
G1 X142.88 Y140.71 E85.79556
G1 X143.96 Y141.28 E85.87189
G1 X144.91 Y142.06 E85.94827
G1 X145.69 Y143.00 E86.02477
G1 X146.28 Y144.08 E86.10139
G1 X146.50 Y144.82 E86.14921
G1 X146.71 Y144.12 E86.19449
G1 X147.28 Y143.04 E86.27082
G1 X148.06 Y142.09 E86.34720
G1 X149.00 Y141.31 E86.42370
G1 X150.08 Y140.73 E86.50032
G1 X151.26 Y140.37 E86.57684
G1 X152.22 Y140.27 E86.63740
G1 X152.46 Y140.24 E86.65238
G1 X153.52 Y140.34 E86.71899
G1 X153.76 Y140.37 E86.73371
G1 X154.88 Y140.71 E86.80669
G1 X155.96 Y141.28 E86.88301
G1 X156.91 Y142.06 E86.95939
G1 X157.69 Y143.00 E87.03590
G1 X158.27 Y144.08 E87.11252
G1 X158.50 Y144.82 E87.16028
G1 X158.71 Y144.12 E87.20549
G1 X159.28 Y143.04 E87.28182
G1 X160.06 Y142.09 E87.35820
G1 X161.00 Y141.31 E87.43470
G1 X162.08 Y140.73 E87.51133
G1 X163.26 Y140.37 E87.58785
G1 X164.22 Y140.27 E87.64847
G1 X164.46 Y140.24 E87.66344
G1 X165.52 Y140.34 E87.73006
G1 X165.76 Y140.37 E87.74478
G1 X166.88 Y140.71 E87.81775
G1 X167.96 Y141.28 E87.89408
G1 X168.91 Y142.06 E87.97046
G1 X169.69 Y143.00 E88.04696
G1 X170.27 Y144.08 E88.12359
G1 X170.63 Y145.26 E88.20010
G1 X170.73 Y146.22 E88.26072
G1 X170.76 Y146.46 E88.27570
G1 X170.66 Y147.53 E88.34231
G1 X170.63 Y147.76 E88.35704
G1 X170.29 Y148.88 E88.43001
G1 X169.72 Y149.96 E88.50634
G1 X168.94 Y150.91 E88.58272
G1 X168.00 Y151.69 E88.65922
G1 X166.92 Y152.28 E88.73584
G1 X166.19 Y152.50 E88.78352
G1 X166.88 Y152.71 E88.82868
G1 X167.96 Y153.28 E88.90501
G1 X168.91 Y154.06 E88.98139
G1 X169.69 Y155.00 E89.05789
G1 X170.27 Y156.08 E89.13451
G1 X170.63 Y157.26 E89.21103
G1 X170.73 Y158.22 E89.27165
G1 X170.76 Y158.46 E89.28663
G1 X170.66 Y159.52 E89.35324
G1 X170.63 Y159.76 E89.36796
G1 X170.29 Y160.88 E89.44094
G1 X169.72 Y161.96 E89.51727
G1 X168.94 Y162.91 E89.59365
G1 X168.00 Y163.69 E89.67015
G1 X166.92 Y164.27 E89.74677
G1 X165.74 Y164.63 E89.82329
G1 X164.78 Y164.73 E89.88379
G1 X164.54 Y164.76 E89.89876
G1 X163.48 Y164.66 E89.96544
G1 X163.24 Y164.63 E89.98022
G1 X162.12 Y164.29 E90.05320
G1 X161.04 Y163.72 E90.12953
G1 X160.09 Y162.94 E90.20591
G1 X159.31 Y162.00 E90.28241
G1 X158.72 Y160.92 E90.35903
G1 X158.50 Y160.18 E90.40685
G1 X158.29 Y160.88 E90.45213
G1 X157.72 Y161.96 E90.52845
G1 X156.94 Y162.91 E90.60483
G1 X156.00 Y163.69 E90.68134
G1 X154.92 Y164.27 E90.75796
G1 X153.74 Y164.63 E90.83448
G1 X152.78 Y164.73 E90.89504
G1 X152.54 Y164.76 E90.91001
G1 X151.48 Y164.66 E90.97663
G1 X151.24 Y164.63 E90.99135
G1 X150.12 Y164.29 E91.06432
G1 X149.04 Y163.72 E91.14065
G1 X148.09 Y162.94 E91.21703
G1 X147.31 Y162.00 E91.29353
G1 X146.73 Y160.92 E91.37015
G1 X146.50 Y160.18 E91.41791
G1 X146.29 Y160.88 E91.46313
G1 X145.72 Y161.96 E91.53946
G1 X144.94 Y162.91 E91.61584
G1 X144.00 Y163.69 E91.69234
G1 X142.92 Y164.27 E91.76896
G1 X141.74 Y164.63 E91.84548
G1 X140.78 Y164.73 E91.90610
G1 X140.54 Y164.76 E91.92108
G1 X139.48 Y164.66 E91.98769
G1 X139.24 Y164.63 E92.00241
G1 X138.12 Y164.29 E92.07539
G1 X137.04 Y163.72 E92.15172
G1 X136.09 Y162.94 E92.22810
G1 X135.31 Y162.00 E92.30460
G1 X134.73 Y160.92 E92.38122
G1 X134.37 Y159.74 E92.45774
G1 X134.27 Y158.78 E92.51824
G1 X134.24 Y158.54 E92.53321
G1 X134.34 Y157.48 E92.59989
G1 X134.37 Y157.24 E92.61467
G1 X134.71 Y156.12 E92.68765
G1 X135.28 Y155.04 E92.76397
G1 X136.06 Y154.09 E92.84035
G1 X137.00 Y153.31 E92.91686
G1 X138.08 Y152.72 E92.99348
G1 X138.81 Y152.50 E93.04116
G1 X138.12 Y152.29 E93.08632
G1 X137.04 Y151.72 E93.16265
G1 X136.09 Y150.94 E93.23902
G1 X135.31 Y150.00 E93.31553
G1 X134.73 Y148.92 E93.39215
G1 X134.37 Y147.74 E93.46867
G1 X134.27 Y146.78 E93.52917
G1 X134.24 Y146.54 E93.54414
G1 X134.34 Y145.48 E93.61082
G1 X134.37 Y145.24 E93.62560
G1 X134.71 Y144.12 E93.69858
G1 X135.28 Y143.04 E93.77490
G1 X136.06 Y142.09 E93.85128
G0 F6000 X136.41 Y142.44
G1 F2700 X137.28 Y141.73 E93.92163
G1 X138.28 Y141.19 E93.99209
G1 X139.36 Y140.86 E94.06241
G1 X140.28 Y140.76 E94.12015
G1 X140.47 Y140.74 E94.13223
G1 X141.47 Y140.84 E94.19476
G1 X141.65 Y140.86 E94.20646
G1 X142.69 Y141.18 E94.27385
G1 X143.68 Y141.70 E94.34410
G1 X144.56 Y142.41 E94.41436
G1 X145.27 Y143.28 E94.48471
G1 X145.81 Y144.28 E94.55516
G1 X146.14 Y145.36 E94.62563
G1 X146.23 Y146.25 E94.68185
G1 X146.26 Y146.47 E94.69531
G1 X146.16 Y147.47 E94.75777
G1 X146.14 Y147.65 E94.76953
G1 X145.83 Y148.69 E94.83692
G1 X145.30 Y149.68 E94.90717
G1 X144.59 Y150.56 E94.97743
G1 X143.72 Y151.27 E95.04778
G1 X142.72 Y151.81 E95.11824
G1 X141.64 Y152.14 E95.18870
G1 X140.73 Y152.24 E95.24586
G1 X140.53 Y152.26 E95.25838
G1 X139.53 Y152.16 E95.32084
G1 X139.35 Y152.14 E95.33261
G1 X138.31 Y151.83 E95.40000
G1 X137.32 Y151.30 E95.47024
G1 X136.44 Y150.59 E95.54051
G1 X135.73 Y149.72 E95.61085
G1 X135.19 Y148.72 E95.68131
G1 X134.86 Y147.65 E95.75163
G1 X134.76 Y146.72 E95.80937
G1 X134.74 Y146.53 E95.82145
G1 X134.84 Y145.53 E95.88398
G1 X134.86 Y145.35 E95.89568
G1 X135.18 Y144.31 E95.96307
G1 X135.70 Y143.32 E96.03332
G1 X136.41 Y142.44 E96.10358
G0 F6000 X136.77 Y142.80
G1 F2700 X137.56 Y142.14 E96.16777
G1 X138.47 Y141.65 E96.23211
G1 X139.46 Y141.35 E96.29630
G1 X140.33 Y141.26 E96.35090
G1 X140.48 Y141.24 E96.36040
G1 X141.41 Y141.33 E96.41880
G1 X141.55 Y141.35 E96.42742
G1 X142.50 Y141.64 E96.48926
G1 X143.40 Y142.12 E96.55337
G1 X144.20 Y142.77 E96.61756
G1 X144.86 Y143.56 E96.68174
G1 X145.35 Y144.47 E96.74608
G1 X145.65 Y145.46 E96.81033
G1 X145.74 Y146.35 E96.86650
G1 X145.76 Y146.48 E96.87436
G1 X145.67 Y147.41 E96.93269
G1 X145.65 Y147.55 E96.94137
G1 X145.36 Y148.50 E97.00322
G1 X144.88 Y149.40 E97.06733
G1 X144.23 Y150.20 E97.13152
G1 X143.44 Y150.86 E97.19570
G1 X142.53 Y151.35 E97.26004
G1 X141.54 Y151.65 E97.32429
G1 X140.65 Y151.74 E97.38046
G1 X140.52 Y151.76 E97.38832
G1 X139.59 Y151.67 E97.44665
G1 X139.45 Y151.65 E97.45533
G1 X138.50 Y151.36 E97.51718
G1 X137.60 Y150.88 E97.58129
G1 X136.80 Y150.23 E97.64547
G1 X136.14 Y149.44 E97.70966
G1 X135.65 Y148.53 E97.77400
G1 X135.35 Y147.54 E97.83819
G1 X135.26 Y146.68 E97.89235
G1 X135.24 Y146.52 E97.90229
G1 X135.33 Y145.59 E97.96069
G1 X135.35 Y145.45 E97.96931
G1 X135.64 Y144.50 E98.03115
G1 X136.12 Y143.60 E98.09526
G1 X136.77 Y142.80 E98.15945
G0 F6000 X137.13 Y143.15
G1 F2700 X137.84 Y142.56 E98.21752
G1 X138.67 Y142.12 E98.27570
G1 X139.56 Y141.84 E98.33377
G1 X140.41 Y141.76 E98.38718
G1 X140.49 Y141.75 E98.39216
G1 X141.35 Y141.83 E98.44636
G1 X141.44 Y141.84 E98.45190
G1 X142.30 Y142.10 E98.50819
G1 X143.13 Y142.54 E98.56630
G1 X143.85 Y143.13 E98.62428
G1 X144.44 Y143.84 E98.68235
G1 X144.88 Y144.67 E98.74053
G1 X145.16 Y145.56 E98.79866
G1 X145.24 Y146.40 E98.85175
G1 X145.25 Y146.49 E98.85698
G1 X145.17 Y147.35 E98.91118
G1 X145.16 Y147.44 E98.91671
G1 X144.90 Y148.30 E98.97300
G1 X144.46 Y149.13 E99.03111
G1 X143.87 Y149.85 E99.08909
G1 X143.16 Y150.44 E99.14717
G1 X142.34 Y150.88 E99.20534
G1 X141.44 Y151.16 E99.26348
G1 X140.60 Y151.24 E99.31656
G1 X140.51 Y151.25 E99.32179
G1 X139.65 Y151.17 E99.37599
G1 X139.56 Y151.16 E99.38153
G1 X138.70 Y150.90 E99.43782
G1 X137.87 Y150.46 E99.49593
G1 X137.15 Y149.87 E99.55391
G1 X136.56 Y149.16 E99.61198
G1 X136.12 Y148.34 E99.67016
G1 X135.84 Y147.44 E99.72823
G1 X135.76 Y146.59 E99.78164
G1 X135.75 Y146.51 E99.78662
G1 X135.83 Y145.65 E99.84082
G1 X135.84 Y145.56 E99.84636
G1 X136.10 Y144.70 E99.90265
G1 X136.54 Y143.87 E99.96076
G1 X137.13 Y143.15 E100.01874
G0 F6000 X137.48 Y143.51
G1 F2700 X138.13 Y142.98 E100.07065
G1 X138.86 Y142.58 E100.12270
G1 X139.66 Y142.34 E100.17462
G1 X140.46 Y142.25 E100.22496
G1 X140.50 Y142.25 E100.22729
G1 X141.29 Y142.33 E100.27736
G1 X141.33 Y142.33 E100.27981
G1 X142.11 Y142.57 E100.33057
G1 X142.85 Y142.96 E100.38255
G1 X143.49 Y143.48 E100.43441
G1 X144.02 Y144.13 E100.48633
G1 X144.42 Y144.86 E100.53837
G1 X144.66 Y145.66 E100.59029
G1 X144.75 Y146.45 E100.64025
G1 X144.75 Y146.50 E100.64296
G1 X144.67 Y147.29 E100.69302
G1 X144.67 Y147.33 E100.69547
G1 X144.43 Y148.11 E100.74623
G1 X144.04 Y148.85 E100.79821
G1 X143.52 Y149.49 E100.85007
G1 X142.88 Y150.02 E100.90199
G1 X142.14 Y150.42 E100.95403
G1 X141.34 Y150.66 E101.00595
G1 X140.54 Y150.75 E101.05623
G1 X140.50 Y150.75 E101.05862
G1 X139.71 Y150.67 E101.10868
G1 X139.67 Y150.67 E101.11113
G1 X138.89 Y150.43 E101.16189
G1 X138.15 Y150.04 E101.21387
G1 X137.51 Y149.52 E101.26573
G1 X136.98 Y148.88 E101.31765
G1 X136.58 Y148.14 E101.36969
G1 X136.34 Y147.34 E101.42161
G1 X136.25 Y146.54 E101.47196
G1 X136.25 Y146.50 E101.47428
G1 X136.33 Y145.71 E101.52435
G1 X136.33 Y145.67 E101.52681
G1 X136.57 Y144.89 E101.57757
G1 X136.96 Y144.15 E101.62954
G1 X137.48 Y143.51 E101.68141
G0 F6000 X139.36 Y152.86
G1 F2700 X140.27 Y152.76 E101.73876
G1 X140.47 Y152.74 E101.75109
G1 X141.47 Y152.84 E101.81361
G1 X141.65 Y152.86 E101.82538
G1 X142.69 Y153.17 E101.89277
G1 X143.68 Y153.70 E101.96301
G1 X144.56 Y154.41 E102.03328
G1 X145.27 Y155.28 E102.10362
G1 X145.81 Y156.28 E102.17408
G1 X146.14 Y157.36 E102.24454
G1 X146.23 Y158.25 E102.30076
G1 X146.26 Y158.47 E102.31422
G1 X146.16 Y159.47 E102.37668
G1 X146.14 Y159.65 E102.38845
G1 X145.83 Y160.69 E102.45584
G1 X145.30 Y161.68 E102.52609
G1 X144.59 Y162.56 E102.59635
G1 X143.72 Y163.27 E102.66670
G1 X142.72 Y163.81 E102.73715
G1 X141.64 Y164.14 E102.80754
G1 X140.72 Y164.24 E102.86528
G1 X140.53 Y164.26 E102.87735
G1 X139.53 Y164.16 E102.93982
G1 X139.35 Y164.14 E102.95152
G1 X138.31 Y163.82 E103.01892
G1 X137.32 Y163.30 E103.08916
G1 X136.44 Y162.59 E103.15942
G1 X135.73 Y161.72 E103.22977
G1 X135.19 Y160.72 E103.30023
G1 X134.86 Y159.64 E103.37055
G1 X134.76 Y158.72 E103.42829
G1 X134.74 Y158.53 E103.44037
G1 X134.84 Y157.53 E103.50290
G1 X134.86 Y157.35 E103.51460
G1 X135.18 Y156.31 E103.58199
G1 X135.70 Y155.32 E103.65224
G1 X136.41 Y154.44 E103.72250
G1 X137.28 Y153.73 E103.79285
G1 X138.28 Y153.19 E103.86330
G1 X139.36 Y152.86 E103.93371
G0 F6000 X139.46 Y153.35
G1 F2700 X140.35 Y153.26 E103.98981
G1 X140.48 Y153.24 E103.99768
G1 X141.41 Y153.33 E104.05607
G1 X141.55 Y153.35 E104.06475
G1 X142.50 Y153.64 E104.12660
G1 X143.40 Y154.12 E104.19070
G1 X144.20 Y154.77 E104.25489
G1 X144.86 Y155.56 E104.31907
G1 X145.35 Y156.47 E104.38342
G1 X145.65 Y157.46 E104.44767
G1 X145.74 Y158.35 E104.50383
G1 X145.76 Y158.48 E104.51170
G1 X145.67 Y159.41 E104.57003
G1 X145.65 Y159.55 E104.57871
G1 X145.36 Y160.50 E104.64055
G1 X144.88 Y161.40 E104.70466
G1 X144.23 Y162.20 E104.76885
G1 X143.44 Y162.86 E104.83303
G1 X142.53 Y163.35 E104.89737
G1 X141.54 Y163.65 E104.96156
G1 X140.67 Y163.74 E105.01623
G1 X140.52 Y163.76 E105.02573
G1 X139.59 Y163.67 E105.08406
G1 X139.45 Y163.65 E105.09268
G1 X138.50 Y163.36 E105.15453
G1 X137.60 Y162.88 E105.21864
G1 X136.80 Y162.23 E105.28282
G1 X136.14 Y161.44 E105.34700
G1 X135.65 Y160.53 E105.41135
G1 X135.35 Y159.54 E105.47554
G1 X135.26 Y158.68 E105.52970
G1 X135.24 Y158.52 E105.53964
G1 X135.33 Y157.59 E105.59804
G1 X135.35 Y157.45 E105.60665
G1 X135.64 Y156.50 E105.66850
G1 X136.12 Y155.60 E105.73261
G1 X136.77 Y154.80 E105.79680
G1 X137.56 Y154.14 E105.86098
G1 X138.47 Y153.65 E105.92532
G1 X139.46 Y153.35 E105.98957
G0 F6000 X139.56 Y153.84
G1 F2700 X140.40 Y153.76 E106.04260
G1 X140.49 Y153.75 E106.04783
G1 X141.35 Y153.83 E106.10209
G1 X141.44 Y153.84 E106.10762
G1 X142.30 Y154.10 E106.16391
G1 X143.13 Y154.54 E106.22202
G1 X143.85 Y155.13 E106.28000
G1 X144.44 Y155.84 E106.33808
G1 X144.88 Y156.66 E106.39625
G1 X145.16 Y157.56 E106.45439
G1 X145.24 Y158.40 E106.50747
G1 X145.25 Y158.49 E106.51270
G1 X145.17 Y159.35 E106.56690
G1 X145.16 Y159.44 E106.57244
G1 X144.90 Y160.30 E106.62873
G1 X144.46 Y161.13 E106.68684
G1 X143.87 Y161.85 E106.74482
G1 X143.16 Y162.44 E106.80289
G1 X142.34 Y162.88 E106.86107
G1 X141.44 Y163.16 E106.91914
G1 X140.59 Y163.24 E106.97261
G1 X140.51 Y163.25 E106.97759
G1 X139.65 Y163.17 E107.03173
G1 X139.56 Y163.16 E107.03727
G1 X138.70 Y162.90 E107.09356
G1 X137.87 Y162.46 E107.15167
G1 X137.15 Y161.87 E107.20965
G1 X136.56 Y161.16 E107.26772
G1 X136.12 Y160.33 E107.32590
G1 X135.84 Y159.44 E107.38397
G1 X135.76 Y158.59 E107.43738
G1 X135.75 Y158.51 E107.44236
G1 X135.83 Y157.65 E107.49656
G1 X135.84 Y157.56 E107.50210
G1 X136.10 Y156.70 E107.55838
G1 X136.54 Y155.87 E107.61650
G1 X137.13 Y155.15 E107.67448
G1 X137.84 Y154.56 E107.73255
G1 X138.67 Y154.12 E107.79073
G1 X139.56 Y153.84 E107.84886
G0 F6000 X139.66 Y154.34
G1 F2700 X140.46 Y154.25 E107.89907
G1 X140.50 Y154.25 E107.90146
G1 X141.29 Y154.33 E107.95159
G1 X141.33 Y154.33 E107.95404
G1 X142.11 Y154.57 E108.00480
G1 X142.85 Y154.96 E108.05678
G1 X143.49 Y155.48 E108.10864
G1 X144.02 Y156.12 E108.16056
G1 X144.42 Y156.86 E108.21260
G1 X144.66 Y157.66 E108.26452
G1 X144.75 Y158.45 E108.31448
G1 X144.75 Y158.50 E108.31719
G1 X144.67 Y159.29 E108.36725
G1 X144.67 Y159.33 E108.36970
G1 X144.43 Y160.11 E108.42047
G1 X144.04 Y160.85 E108.47244
G1 X143.52 Y161.49 E108.52430
G1 X142.88 Y162.02 E108.57622
G1 X142.14 Y162.42 E108.62826
G1 X141.34 Y162.66 E108.68018
G1 X140.54 Y162.75 E108.73059
G1 X140.50 Y162.75 E108.73292
G1 X139.71 Y162.67 E108.78293
G1 X139.67 Y162.67 E108.78538
G1 X138.89 Y162.43 E108.83614
G1 X138.15 Y162.04 E108.88811
G1 X137.51 Y161.52 E108.93998
G1 X136.98 Y160.87 E108.99189
G1 X136.58 Y160.14 E109.04394
G1 X136.34 Y159.34 E109.09586
G1 X136.25 Y158.54 E109.14620
G1 X136.25 Y158.50 E109.14853
G1 X136.33 Y157.71 E109.19860
G1 X136.33 Y157.67 E109.20105
G1 X136.57 Y156.89 E109.25181
G1 X136.96 Y156.15 E109.30379
G1 X137.48 Y155.51 E109.35565
G1 X138.13 Y154.98 E109.40757
G1 X138.86 Y154.58 E109.45961
G1 X139.66 Y154.34 E109.51153
G0 F6000 X147.18 Y156.31
G1 F2700 X147.70 Y155.32 E109.58178
G1 X148.41 Y154.44 E109.65204
G1 X149.28 Y153.73 E109.72238
G1 X150.28 Y153.19 E109.79284
G1 X151.36 Y152.86 E109.86324
G1 X152.27 Y152.76 E109.92059
G1 X152.47 Y152.74 E109.93292
G1 X153.47 Y152.84 E109.99539
G1 X153.65 Y152.86 E110.00715
G1 X154.69 Y153.17 E110.07454
G1 X155.68 Y153.70 E110.14479
G1 X156.56 Y154.41 E110.21505
G1 X157.27 Y155.28 E110.28540
G1 X157.81 Y156.28 E110.35585
G1 X158.14 Y157.36 E110.42624
G1 X158.24 Y158.28 E110.48398
G1 X158.26 Y158.47 E110.49605
G1 X158.16 Y159.47 E110.55852
G1 X158.14 Y159.65 E110.57023
G1 X157.82 Y160.69 E110.63762
G1 X157.30 Y161.68 E110.70786
G1 X156.59 Y162.56 E110.77813
G1 X155.72 Y163.27 E110.84847
G1 X154.72 Y163.81 E110.91893
G1 X153.64 Y164.14 E110.98925
G1 X152.72 Y164.24 E111.04699
G1 X152.53 Y164.26 E111.05907
G1 X151.53 Y164.16 E111.12154
G1 X151.35 Y164.14 E111.13324
G1 X150.31 Y163.82 E111.20063
G1 X149.32 Y163.30 E111.27088
G1 X148.44 Y162.59 E111.34114
G1 X147.73 Y161.72 E111.41149
G1 X147.19 Y160.72 E111.48194
G1 X146.86 Y159.64 E111.55227
G1 X146.76 Y158.72 E111.61001
G1 X146.74 Y158.53 E111.62209
G1 X146.84 Y157.53 E111.68462
G1 X146.86 Y157.35 E111.69632
G1 X147.18 Y156.31 E111.76371
G0 F6000 X147.64 Y156.50
G1 F2700 X148.12 Y155.60 E111.82782
G1 X148.77 Y154.80 E111.89201
G1 X149.56 Y154.14 E111.95619
G1 X150.47 Y153.65 E112.02053
G1 X151.46 Y153.35 E112.08478
G1 X152.35 Y153.26 E112.14088
G1 X152.48 Y153.24 E112.14875
G1 X153.41 Y153.33 E112.20708
G1 X153.55 Y153.35 E112.21576
G1 X154.50 Y153.64 E112.27761
G1 X155.40 Y154.12 E112.34172
G1 X156.20 Y154.77 E112.40590
G1 X156.86 Y155.56 E112.47008
G1 X157.35 Y156.47 E112.53443
G1 X157.65 Y157.46 E112.59862
G1 X157.74 Y158.32 E112.65284
G1 X157.76 Y158.48 E112.66278
G1 X157.67 Y159.41 E112.72112
G1 X157.65 Y159.55 E112.72973
G1 X157.36 Y160.50 E112.79158
G1 X156.88 Y161.40 E112.85569
G1 X156.23 Y162.20 E112.91988
G1 X155.44 Y162.86 E112.98406
G1 X154.53 Y163.35 E113.04840
G1 X153.54 Y163.65 E113.11259
G1 X152.67 Y163.74 E113.16719
G1 X152.52 Y163.76 E113.17669
G1 X151.59 Y163.67 E113.23503
G1 X151.45 Y163.65 E113.24365
G1 X150.50 Y163.36 E113.30549
G1 X149.60 Y162.88 E113.36960
G1 X148.80 Y162.23 E113.43379
G1 X148.14 Y161.44 E113.49797
G1 X147.65 Y160.53 E113.56231
G1 X147.35 Y159.54 E113.62650
G1 X147.26 Y158.68 E113.68066
G1 X147.24 Y158.52 E113.69060
G1 X147.33 Y157.59 E113.74900
G1 X147.35 Y157.45 E113.75762
G1 X147.64 Y156.50 E113.81947
G0 F6000 X148.10 Y156.70
G1 F2700 X148.54 Y155.87 E113.87758
G1 X149.13 Y155.15 E113.93556
G1 X149.84 Y154.56 E113.99363
G1 X150.67 Y154.12 E114.05181
G1 X151.56 Y153.84 E114.10994
G1 X152.40 Y153.76 E114.16297
G1 X152.49 Y153.75 E114.16820
G1 X153.35 Y153.83 E114.22240
G1 X153.44 Y153.84 E114.22793
G1 X154.30 Y154.10 E114.28422
G1 X155.13 Y154.54 E114.34233
G1 X155.85 Y155.13 E114.40031
G1 X156.44 Y155.84 E114.45839
G1 X156.88 Y156.66 E114.51656
G1 X157.16 Y157.56 E114.57464
G1 X157.24 Y158.41 E114.62805
G1 X157.25 Y158.49 E114.63308
G1 X157.17 Y159.35 E114.68722
G1 X157.16 Y159.44 E114.69276
G1 X156.90 Y160.30 E114.74905
G1 X156.46 Y161.13 E114.80716
G1 X155.87 Y161.85 E114.86514
G1 X155.16 Y162.44 E114.92321
G1 X154.33 Y162.88 E114.98139
G1 X153.44 Y163.16 E115.03947
G1 X152.59 Y163.24 E115.09288
G1 X152.51 Y163.25 E115.09785
G1 X151.65 Y163.17 E115.15199
G1 X151.56 Y163.16 E115.15753
G1 X150.70 Y162.90 E115.21382
G1 X149.87 Y162.46 E115.27193
G1 X149.15 Y161.87 E115.32991
G1 X148.56 Y161.16 E115.38798
G1 X148.12 Y160.33 E115.44616
G1 X147.84 Y159.44 E115.50423
G1 X147.76 Y158.59 E115.55764
G1 X147.75 Y158.51 E115.56262
G1 X147.83 Y157.65 E115.61682
G1 X147.84 Y157.56 E115.62236
G1 X148.10 Y156.70 E115.67865
G0 F6000 X148.57 Y156.89
G1 F2700 X148.96 Y156.15 E115.73062
G1 X149.48 Y155.51 E115.78248
G1 X150.13 Y154.98 E115.83440
G1 X150.86 Y154.58 E115.88644
G1 X151.66 Y154.34 E115.93836
G1 X152.46 Y154.25 E115.98858
G1 X152.50 Y154.25 E115.99097
G1 X153.29 Y154.33 E116.04103
G1 X153.33 Y154.33 E116.04348
G1 X154.11 Y154.57 E116.09424
G1 X154.85 Y154.96 E116.14622
G1 X155.49 Y155.48 E116.19808
G1 X156.02 Y156.12 E116.25000
G1 X156.42 Y156.86 E116.30204
G1 X156.66 Y157.66 E116.35396
G1 X156.75 Y158.45 E116.40393
G1 X156.75 Y158.50 E116.40670
G1 X156.67 Y159.29 E116.45670
G1 X156.67 Y159.33 E116.45916
G1 X156.43 Y160.11 E116.50992
G1 X156.04 Y160.85 E116.56189
G1 X155.52 Y161.49 E116.61376
G1 X154.87 Y162.02 E116.66567
G1 X154.14 Y162.42 E116.71771
G1 X153.34 Y162.66 E116.76963
G1 X152.54 Y162.75 E116.81998
G1 X152.50 Y162.75 E116.82231
G1 X151.71 Y162.67 E116.87232
G1 X151.67 Y162.67 E116.87477
G1 X150.89 Y162.43 E116.92553
G1 X150.15 Y162.04 E116.97750
G1 X149.51 Y161.52 E117.02937
G1 X148.98 Y160.87 E117.08128
G1 X148.58 Y160.14 E117.13332
G1 X148.34 Y159.34 E117.18525
G1 X148.25 Y158.54 E117.23559
G1 X148.25 Y158.50 E117.23792
G1 X148.33 Y157.71 E117.28799
G1 X148.33 Y157.67 E117.29044
G1 X148.57 Y156.89 E117.34120
G0 F6000 X158.84 Y157.53
G1 F2700 X158.86 Y157.35 E117.35297
G1 X159.17 Y156.31 E117.42036
G1 X159.70 Y155.32 E117.49060
G1 X160.41 Y154.44 E117.56087
G1 X161.28 Y153.73 E117.63121
G1 X162.28 Y153.19 E117.70167
G1 X163.36 Y152.86 E117.77213
G1 X164.27 Y152.76 E117.82929
G1 X164.47 Y152.74 E117.84181
G1 X165.47 Y152.84 E117.90427
G1 X165.65 Y152.86 E117.91604
G1 X166.69 Y153.17 E117.98343
G1 X167.68 Y153.70 E118.05368
G1 X168.56 Y154.41 E118.12394
G1 X169.27 Y155.28 E118.19429
G1 X169.81 Y156.28 E118.26474
G1 X170.14 Y157.36 E118.33513
G1 X170.24 Y158.28 E118.39287
G1 X170.26 Y158.47 E118.40494
G1 X170.16 Y159.47 E118.46741
G1 X170.14 Y159.65 E118.47911
G1 X169.82 Y160.69 E118.54651
G1 X169.30 Y161.68 E118.61675
G1 X168.59 Y162.56 E118.68701
G1 X167.72 Y163.27 E118.75736
G1 X166.72 Y163.81 E118.82782
G1 X165.64 Y164.14 E118.89814
G1 X164.72 Y164.24 E118.95588
G1 X164.53 Y164.26 E118.96796
G1 X163.53 Y164.16 E119.03049
G1 X163.35 Y164.14 E119.04219
G1 X162.31 Y163.82 E119.10958
G1 X161.32 Y163.30 E119.17983
G1 X160.44 Y162.59 E119.25009
G1 X159.73 Y161.72 E119.32044
G1 X159.19 Y160.72 E119.39089
G1 X158.86 Y159.64 E119.46130
G1 X158.76 Y158.73 E119.51865
G1 X158.74 Y158.53 E119.53098
G1 X158.84 Y157.53 E119.59350
G0 F6000 X159.33 Y157.59
G1 F2700 X159.35 Y157.45 E119.60218
G1 X159.64 Y156.50 E119.66403
G1 X160.12 Y155.60 E119.72814
G1 X160.77 Y154.80 E119.79232
G1 X161.56 Y154.14 E119.85650
G1 X162.47 Y153.65 E119.92085
G1 X163.46 Y153.35 E119.98510
G1 X164.35 Y153.26 E120.04126
G1 X164.48 Y153.24 E120.04913
G1 X165.41 Y153.33 E120.10746
G1 X165.55 Y153.35 E120.11614
G1 X166.50 Y153.64 E120.17799
G1 X167.40 Y154.12 E120.24210
G1 X168.20 Y154.77 E120.30628
G1 X168.86 Y155.56 E120.37046
G1 X169.35 Y156.47 E120.43481
G1 X169.65 Y157.46 E120.49900
G1 X169.74 Y158.32 E120.55322
G1 X169.76 Y158.48 E120.56316
G1 X169.67 Y159.41 E120.62150
G1 X169.65 Y159.55 E120.63011
G1 X169.36 Y160.50 E120.69196
G1 X168.88 Y161.40 E120.75607
G1 X168.23 Y162.20 E120.82026
G1 X167.44 Y162.86 E120.88444
G1 X166.53 Y163.35 E120.94878
G1 X165.54 Y163.65 E121.01297
G1 X164.67 Y163.74 E121.06757
G1 X164.52 Y163.76 E121.07707
G1 X163.59 Y163.67 E121.13547
G1 X163.45 Y163.65 E121.14409
G1 X162.50 Y163.36 E121.20593
G1 X161.60 Y162.88 E121.27004
G1 X160.80 Y162.23 E121.33423
G1 X160.14 Y161.44 E121.39841
G1 X159.65 Y160.53 E121.46276
G1 X159.35 Y159.54 E121.52700
G1 X159.26 Y158.64 E121.58355
G1 X159.24 Y158.52 E121.59097
G1 X159.33 Y157.59 E121.64937
G0 F6000 X159.83 Y157.65
G1 F2700 X159.84 Y157.56 E121.65491
G1 X160.10 Y156.70 E121.71119
G1 X160.54 Y155.87 E121.76930
G1 X161.13 Y155.15 E121.82728
G1 X161.84 Y154.56 E121.88536
G1 X162.66 Y154.12 E121.94353
G1 X163.56 Y153.84 E122.00167
G1 X164.40 Y153.76 E122.05475
G1 X164.49 Y153.75 E122.05998
G1 X165.35 Y153.83 E122.11418
G1 X165.44 Y153.84 E122.11972
G1 X166.30 Y154.10 E122.17601
G1 X167.13 Y154.54 E122.23412
G1 X167.85 Y155.13 E122.29210
G1 X168.44 Y155.84 E122.35017
G1 X168.88 Y156.66 E122.40835
G1 X169.16 Y157.56 E122.46642
G1 X169.24 Y158.41 E122.51983
G1 X169.25 Y158.49 E122.52487
G1 X169.17 Y159.35 E122.57901
G1 X169.16 Y159.44 E122.58455
G1 X168.90 Y160.30 E122.64084
G1 X168.46 Y161.13 E122.69895
G1 X167.87 Y161.85 E122.75693
G1 X167.16 Y162.44 E122.81500
G1 X166.33 Y162.88 E122.87318
G1 X165.44 Y163.16 E122.93125
G1 X164.59 Y163.24 E122.98466
G1 X164.51 Y163.25 E122.98964
G1 X163.65 Y163.17 E123.04384
G1 X163.56 Y163.16 E123.04938
G1 X162.70 Y162.90 E123.10566
G1 X161.87 Y162.46 E123.16378
G1 X161.15 Y161.87 E123.22176
G1 X160.56 Y161.16 E123.27983
G1 X160.12 Y160.33 E123.33801
G1 X159.84 Y159.44 E123.39614
G1 X159.76 Y158.59 E123.44954
G1 X159.75 Y158.51 E123.45440
G1 X159.83 Y157.65 E123.50865
G0 F6000 X160.33 Y157.71
G1 F2700 X160.33 Y157.67 E123.51111
G1 X160.57 Y156.89 E123.56187
G1 X160.96 Y156.15 E123.61384
G1 X161.48 Y155.51 E123.66571
G1 X162.12 Y154.98 E123.71762
G1 X162.86 Y154.58 E123.76966
G1 X163.66 Y154.34 E123.82158
G1 X164.46 Y154.25 E123.87186
G1 X164.50 Y154.25 E123.87425
G1 X165.29 Y154.33 E123.92432
G1 X165.33 Y154.33 E123.92677
G1 X166.11 Y154.57 E123.97753
G1 X166.85 Y154.96 E124.02950
G1 X167.49 Y155.48 E124.08137
G1 X168.02 Y156.12 E124.13328
G1 X168.42 Y156.86 E124.18532
G1 X168.66 Y157.66 E124.23725
G1 X168.75 Y158.45 E124.28721
G1 X168.75 Y158.50 E124.28998
G1 X168.67 Y159.29 E124.33999
G1 X168.67 Y159.33 E124.34244
G1 X168.43 Y160.11 E124.39320
G1 X168.04 Y160.85 E124.44518
G1 X167.52 Y161.49 E124.49704
G1 X166.87 Y162.02 E124.54896
G1 X166.14 Y162.42 E124.60100
G1 X165.34 Y162.66 E124.65292
G1 X164.54 Y162.75 E124.70326
G1 X164.50 Y162.75 E124.70559
G1 X163.71 Y162.67 E124.75566
G1 X163.67 Y162.67 E124.75811
G1 X162.89 Y162.43 E124.80888
G1 X162.15 Y162.04 E124.86085
G1 X161.51 Y161.52 E124.91271
G1 X160.98 Y160.87 E124.96463
G1 X160.58 Y160.14 E125.01667
G1 X160.34 Y159.34 E125.06859
G1 X160.25 Y158.54 E125.11899
G1 X160.25 Y158.50 E125.12120
G1 X160.33 Y157.71 E125.17132
G0 F6000 X162.89 Y150.43
G1 F2700 X162.15 Y150.04 E125.22330
G1 X161.51 Y149.52 E125.27516
G1 X160.98 Y148.88 E125.32708
G1 X160.58 Y148.14 E125.37912
G1 X160.34 Y147.34 E125.43104
G1 X160.25 Y146.54 E125.48144
G1 X160.25 Y146.51 E125.48364
G1 X160.33 Y145.71 E125.53377
G1 X160.33 Y145.67 E125.53622
G1 X160.57 Y144.89 E125.58698
G1 X160.96 Y144.15 E125.63896
G1 X161.48 Y143.51 E125.69082
G1 X162.12 Y142.98 E125.74274
G1 X162.86 Y142.58 E125.79478
G1 X163.66 Y142.34 E125.84670
G1 X164.46 Y142.25 E125.89711
G1 X164.50 Y142.25 E125.89944
G1 X165.29 Y142.33 E125.94944
G1 X165.33 Y142.33 E125.95190
G1 X166.11 Y142.57 E126.00266
G1 X166.85 Y142.96 E126.05463
G1 X167.49 Y143.48 E126.10650
G1 X168.02 Y144.13 E126.15841
G1 X168.42 Y144.86 E126.21045
G1 X168.66 Y145.66 E126.26237
G1 X168.75 Y146.45 E126.31234
G1 X168.75 Y146.50 E126.31511
G1 X168.67 Y147.29 E126.36512
G1 X168.67 Y147.33 E126.36757
G1 X168.43 Y148.11 E126.41833
G1 X168.04 Y148.85 E126.47031
G1 X167.52 Y149.49 E126.52217
G1 X166.87 Y150.02 E126.57409
G1 X166.14 Y150.42 E126.62613
G1 X165.34 Y150.66 E126.67805
G1 X164.54 Y150.75 E126.72826
G1 X164.50 Y150.75 E126.73065
G1 X163.71 Y150.67 E126.78078
G1 X163.67 Y150.67 E126.78323
G1 X162.89 Y150.43 E126.83399
G0 F6000 X162.70 Y150.90
G1 F2700 X161.87 Y150.46 E126.89210
G1 X161.15 Y149.87 E126.95008
G1 X160.56 Y149.16 E127.00816
G1 X160.12 Y148.34 E127.06634
G1 X159.84 Y147.44 E127.12447
G1 X159.76 Y146.59 E127.17787
G1 X159.75 Y146.51 E127.18272
G1 X159.83 Y145.65 E127.23698
G1 X159.84 Y145.56 E127.24252
G1 X160.10 Y144.70 E127.29881
G1 X160.54 Y143.87 E127.35692
G1 X161.13 Y143.15 E127.41490
G1 X161.84 Y142.56 E127.47297
G1 X162.66 Y142.12 E127.53115
G1 X163.56 Y141.84 E127.58922
G1 X164.41 Y141.76 E127.64270
G1 X164.49 Y141.75 E127.64767
G1 X165.35 Y141.83 E127.70181
G1 X165.44 Y141.84 E127.70735
G1 X166.30 Y142.10 E127.76364
G1 X167.13 Y142.54 E127.82175
G1 X167.85 Y143.13 E127.87973
G1 X168.44 Y143.84 E127.93780
G1 X168.88 Y144.67 E127.99598
G1 X169.16 Y145.56 E128.05405
G1 X169.24 Y146.41 E128.10746
G1 X169.25 Y146.49 E128.11250
G1 X169.17 Y147.35 E128.16664
G1 X169.16 Y147.44 E128.17218
G1 X168.90 Y148.30 E128.22846
G1 X168.46 Y149.13 E128.28658
G1 X167.87 Y149.85 E128.34456
G1 X167.16 Y150.44 E128.40263
G1 X166.33 Y150.88 E128.46081
G1 X165.44 Y151.16 E128.51894
G1 X164.60 Y151.24 E128.57197
G1 X164.51 Y151.25 E128.57720
G1 X163.65 Y151.17 E128.63146
G1 X163.56 Y151.16 E128.63699
G1 X162.70 Y150.90 E128.69328
G0 F6000 X162.50 Y151.36
G1 F2700 X161.60 Y150.88 E128.75739
G1 X160.80 Y150.23 E128.82157
G1 X160.14 Y149.44 E128.88576
G1 X159.65 Y148.53 E128.95010
G1 X159.35 Y147.54 E129.01435
G1 X159.26 Y146.64 E129.07089
G1 X159.24 Y146.52 E129.07832
G1 X159.33 Y145.59 E129.13671
G1 X159.35 Y145.45 E129.14539
G1 X159.64 Y144.50 E129.20724
G1 X160.12 Y143.60 E129.27135
G1 X160.77 Y142.80 E129.33553
G1 X161.56 Y142.14 E129.39971
G1 X162.47 Y141.65 E129.46406
G1 X163.46 Y141.35 E129.52825
G1 X164.33 Y141.26 E129.58291
G1 X164.48 Y141.24 E129.59241
G1 X165.41 Y141.33 E129.65075
G1 X165.55 Y141.35 E129.65936
G1 X166.50 Y141.64 E129.72121
G1 X167.40 Y142.12 E129.78532
G1 X168.20 Y142.77 E129.84951
G1 X168.86 Y143.56 E129.91369
G1 X169.35 Y144.47 E129.97803
G1 X169.65 Y145.46 E130.04222
G1 X169.74 Y146.32 E130.09644
G1 X169.76 Y146.48 E130.10638
G1 X169.67 Y147.41 E130.16472
G1 X169.65 Y147.55 E130.17334
G1 X169.36 Y148.50 E130.23519
G1 X168.88 Y149.40 E130.29929
G1 X168.23 Y150.20 E130.36348
G1 X167.44 Y150.86 E130.42766
G1 X166.53 Y151.35 E130.49201
G1 X165.54 Y151.65 E130.55626
G1 X164.65 Y151.74 E130.61236
G1 X164.52 Y151.76 E130.62023
G1 X163.59 Y151.67 E130.67862
G1 X163.45 Y151.65 E130.68730
G1 X162.50 Y151.36 E130.74914
G0 F6000 X162.31 Y151.83
G1 F2700 X161.32 Y151.30 E130.81939
G1 X160.44 Y150.59 E130.88965
G1 X159.73 Y149.72 E130.96000
G1 X159.19 Y148.72 E131.03046
G1 X158.86 Y147.64 E131.10086
G1 X158.76 Y146.73 E131.15821
G1 X158.74 Y146.53 E131.17054
G1 X158.84 Y145.53 E131.23306
G1 X158.86 Y145.35 E131.24483
G1 X159.17 Y144.31 E131.31222
G1 X159.70 Y143.32 E131.38247
G1 X160.41 Y142.44 E131.45273
G1 X161.28 Y141.73 E131.52308
G1 X162.28 Y141.19 E131.59353
G1 X163.36 Y140.86 E131.66392
G1 X164.28 Y140.76 E131.72166
G1 X164.47 Y140.74 E131.73373
G1 X165.47 Y140.84 E131.79620
G1 X165.65 Y140.86 E131.80790
G1 X166.69 Y141.18 E131.87530
G1 X167.68 Y141.70 E131.94554
G1 X168.56 Y142.41 E132.01580
G1 X169.27 Y143.28 E132.08615
G1 X169.81 Y144.28 E132.15661
G1 X170.14 Y145.36 E132.22699
G1 X170.24 Y146.28 E132.28473
G1 X170.26 Y146.47 E132.29681
G1 X170.16 Y147.47 E132.35928
G1 X170.14 Y147.65 E132.37098
G1 X169.82 Y148.69 E132.43837
G1 X169.30 Y149.68 E132.50862
G1 X168.59 Y150.56 E132.57888
G1 X167.72 Y151.27 E132.64923
G1 X166.72 Y151.81 E132.71968
G1 X165.64 Y152.14 E132.79008
G1 X164.73 Y152.24 E132.84743
G1 X164.53 Y152.26 E132.85976
G1 X163.53 Y152.16 E132.92229
G1 X163.35 Y152.14 E132.93406
G1 X162.31 Y151.83 E133.00145
G0 F6000 X156.04 Y148.85
G1 F2700 X155.52 Y149.49 E133.05331
G1 X154.87 Y150.02 E133.10523
G1 X154.14 Y150.42 E133.15727
G1 X153.34 Y150.66 E133.20919
G1 X152.54 Y150.75 E133.25940
G1 X152.50 Y150.75 E133.26179
G1 X151.71 Y150.67 E133.31186
G1 X151.67 Y150.67 E133.31431
G1 X150.89 Y150.43 E133.36507
G1 X150.15 Y150.04 E133.41704
G1 X149.51 Y149.52 E133.46891
G1 X148.98 Y148.88 E133.52083
G1 X148.58 Y148.14 E133.57287
G1 X148.34 Y147.34 E133.62479
G1 X148.25 Y146.54 E133.67513
G1 X148.25 Y146.50 E133.67746
G1 X148.33 Y145.71 E133.72753
G1 X148.33 Y145.67 E133.72998
G1 X148.57 Y144.89 E133.78074
G1 X148.96 Y144.15 E133.83272
G1 X149.48 Y143.51 E133.88458
G1 X150.13 Y142.98 E133.93650
G1 X150.86 Y142.58 E133.98854
G1 X151.66 Y142.34 E134.04046
G1 X152.46 Y142.25 E134.09080
G1 X152.50 Y142.25 E134.09313
G1 X153.29 Y142.33 E134.14314
G1 X153.33 Y142.33 E134.14559
G1 X154.11 Y142.57 E134.19635
G1 X154.85 Y142.96 E134.24833
G1 X155.49 Y143.48 E134.30019
G1 X156.02 Y144.13 E134.35211
G1 X156.42 Y144.86 E134.40415
G1 X156.66 Y145.66 E134.45607
G1 X156.75 Y146.45 E134.50604
G1 X156.75 Y146.50 E134.50881
G1 X156.67 Y147.29 E134.55882
G1 X156.67 Y147.33 E134.56127
G1 X156.43 Y148.11 E134.61203
G1 X156.04 Y148.85 E134.66400
G0 F6000 X156.46 Y149.13
G1 F2700 X155.87 Y149.85 E134.72198
G1 X155.16 Y150.44 E134.78006
G1 X154.33 Y150.88 E134.83823
G1 X153.44 Y151.16 E134.89637
G1 X152.60 Y151.24 E134.94939
G1 X152.51 Y151.25 E134.95462
G1 X151.65 Y151.17 E135.00882
G1 X151.56 Y151.16 E135.01436
G1 X150.70 Y150.90 E135.07064
G1 X149.87 Y150.46 E135.12876
G1 X149.15 Y149.87 E135.18674
G1 X148.56 Y149.16 E135.24481
G1 X148.12 Y148.34 E135.30299
G1 X147.84 Y147.44 E135.36106
G1 X147.76 Y146.59 E135.41447
G1 X147.75 Y146.51 E135.41945
G1 X147.83 Y145.65 E135.47365
G1 X147.84 Y145.56 E135.47919
G1 X148.10 Y144.70 E135.53547
G1 X148.54 Y143.87 E135.59358
G1 X149.13 Y143.15 E135.65157
G1 X149.84 Y142.56 E135.70964
G1 X150.67 Y142.12 E135.76782
G1 X151.56 Y141.84 E135.82589
G1 X152.41 Y141.76 E135.87930
G1 X152.49 Y141.75 E135.88427
G1 X153.35 Y141.83 E135.93842
G1 X153.44 Y141.84 E135.94395
G1 X154.30 Y142.10 E136.00024
G1 X155.13 Y142.54 E136.05835
G1 X155.85 Y143.13 E136.11633
G1 X156.44 Y143.84 E136.17441
G1 X156.88 Y144.67 E136.23258
G1 X157.16 Y145.56 E136.29066
G1 X157.24 Y146.41 E136.34407
G1 X157.25 Y146.49 E136.34910
G1 X157.17 Y147.35 E136.40324
G1 X157.16 Y147.44 E136.40878
G1 X156.90 Y148.30 E136.46507
G1 X156.46 Y149.13 E136.52318
G0 F6000 X156.88 Y149.40
G1 F2700 X156.23 Y150.20 E136.58737
G1 X155.44 Y150.86 E136.65155
G1 X154.53 Y151.35 E136.71589
G1 X153.54 Y151.65 E136.78014
G1 X152.65 Y151.74 E136.83624
G1 X152.52 Y151.76 E136.84411
G1 X151.59 Y151.67 E136.90244
G1 X151.45 Y151.65 E136.91112
G1 X150.50 Y151.36 E136.97297
G1 X149.60 Y150.88 E137.03708
G1 X148.80 Y150.23 E137.10126
G1 X148.14 Y149.44 E137.16544
G1 X147.65 Y148.53 E137.22979
G1 X147.35 Y147.54 E137.29398
G1 X147.26 Y146.68 E137.34814
G1 X147.24 Y146.52 E137.35808
G1 X147.33 Y145.59 E137.41648
G1 X147.35 Y145.45 E137.42509
G1 X147.64 Y144.50 E137.48694
G1 X148.12 Y143.60 E137.55105
G1 X148.77 Y142.80 E137.61524
G1 X149.56 Y142.14 E137.67942
G1 X150.47 Y141.65 E137.74376
G1 X151.46 Y141.35 E137.80795
G1 X152.33 Y141.26 E137.86255
G1 X152.48 Y141.24 E137.87205
G1 X153.41 Y141.33 E137.93039
G1 X153.55 Y141.35 E137.93901
G1 X154.50 Y141.64 E138.00085
G1 X155.40 Y142.12 E138.06496
G1 X156.20 Y142.77 E138.12915
G1 X156.86 Y143.56 E138.19333
G1 X157.35 Y144.47 E138.25767
G1 X157.65 Y145.46 E138.32186
G1 X157.74 Y146.32 E138.37609
G1 X157.76 Y146.48 E138.38603
G1 X157.67 Y147.41 E138.44436
G1 X157.65 Y147.55 E138.45298
G1 X157.36 Y148.50 E138.51483
G1 X156.88 Y149.40 E138.57894
G0 F6000 X157.30 Y149.68
G1 F2700 X156.59 Y150.56 E138.64920
G1 X155.72 Y151.27 E138.71955
G1 X154.72 Y151.81 E138.79000
G1 X153.64 Y152.14 E138.86040
G1 X152.73 Y152.24 E138.91775
G1 X152.53 Y152.26 E138.93008
G1 X151.53 Y152.16 E138.99255
G1 X151.35 Y152.14 E139.00431
G1 X150.31 Y151.83 E139.07170
G1 X149.32 Y151.30 E139.14195
G1 X148.44 Y150.59 E139.21221
G1 X147.73 Y149.72 E139.28256
G1 X147.19 Y148.72 E139.35302
G1 X146.86 Y147.65 E139.42334
G1 X146.76 Y146.72 E139.48108
G1 X146.74 Y146.53 E139.49316
G1 X146.84 Y145.53 E139.55569
G1 X146.86 Y145.35 E139.56739
G1 X147.18 Y144.31 E139.63478
G1 X147.70 Y143.32 E139.70503
G1 X148.41 Y142.44 E139.77529
G1 X149.28 Y141.73 E139.84564
G1 X150.28 Y141.19 E139.91609
G1 X151.36 Y140.86 E139.98642
G1 X152.28 Y140.76 E140.04416
G1 X152.47 Y140.74 E140.05623
G1 X153.47 Y140.84 E140.11870
G1 X153.65 Y140.86 E140.13041
G1 X154.69 Y141.18 E140.19780
G1 X155.68 Y141.70 E140.26804
G1 X156.56 Y142.41 E140.33831
G1 X157.27 Y143.28 E140.40865
G1 X157.81 Y144.28 E140.47911
G1 X158.14 Y145.36 E140.54949
G1 X158.24 Y146.28 E140.60723
G1 X158.26 Y146.47 E140.61931
G1 X158.16 Y147.47 E140.68178
G1 X158.14 Y147.65 E140.69348
G1 X157.82 Y148.69 E140.76087
G1 X157.30 Y149.68 E140.83112
G0 F6000 X143.69 Y147.13
;TYPE:WALL-INNER
G1 F2700 X143.50 Y147.73 E140.87002
G1 X143.21 Y148.29 E140.90969
G1 X142.80 Y148.79 E140.94936
G1 X142.31 Y149.19 E140.98906
G1 X141.75 Y149.49 E141.02876
G1 X141.15 Y149.68 E141.06841
G1 X140.50 Y149.75 E141.10897
G1 X139.87 Y149.69 E141.14851
G1 X139.27 Y149.50 E141.18741
G1 X138.71 Y149.21 E141.22708
G1 X138.22 Y148.80 E141.26675
G1 X137.81 Y148.31 E141.30644
G1 X137.51 Y147.75 E141.34615
G1 X137.32 Y147.15 E141.38580
G1 X137.25 Y146.49 E141.42661
G1 X137.31 Y145.87 E141.46559
G1 X137.50 Y145.27 E141.50481
G1 X137.79 Y144.71 E141.54448
G1 X138.20 Y144.22 E141.58415
G1 X138.69 Y143.81 E141.62384
G1 X139.25 Y143.51 E141.66355
G1 X139.86 Y143.32 E141.70320
G1 X140.51 Y143.25 E141.74402
G1 X141.13 Y143.31 E141.78299
G1 X141.73 Y143.50 E141.82221
G1 X142.29 Y143.79 E141.86188
G1 X142.79 Y144.20 E141.90155
G1 X143.19 Y144.69 E141.94124
G1 X143.49 Y145.25 E141.98095
G1 X143.68 Y145.86 E142.02060
G1 X143.75 Y146.50 E142.06104
G1 X143.69 Y147.13 E142.10070
G0 F6000 X144.18 Y147.23
;TYPE:WALL-OUTER
G1 F2700 X143.97 Y147.92 E142.14546
G1 X143.62 Y148.57 E142.19144
G1 X143.16 Y149.14 E142.23727
G1 X142.59 Y149.61 E142.28298
G1 X141.95 Y149.96 E142.32900
G1 X141.25 Y150.17 E142.37459
G1 X140.50 Y150.25 E142.42148
G1 X139.77 Y150.18 E142.46722
G1 X139.08 Y149.97 E142.51198
G1 X138.43 Y149.62 E142.55810
G1 X137.86 Y149.16 E142.60380
G1 X137.39 Y148.59 E142.64951
G1 X137.04 Y147.94 E142.69558
G1 X136.83 Y147.25 E142.74111
G1 X136.75 Y146.50 E142.78789
G1 X136.82 Y145.77 E142.83382
G1 X137.03 Y145.08 E142.87852
G1 X137.38 Y144.43 E142.92450
G1 X137.84 Y143.86 E142.97033
G1 X138.41 Y143.39 E143.01605
G1 X139.06 Y143.04 E143.06206
G1 X139.75 Y142.83 E143.10765
G1 X140.50 Y142.75 E143.15442
G1 X141.23 Y142.82 E143.20029
G1 X141.92 Y143.03 E143.24506
G1 X142.57 Y143.38 E143.29103
G1 X143.14 Y143.84 E143.33687
G1 X143.61 Y144.41 E143.38258
G1 X143.96 Y145.06 E143.42860
G1 X144.17 Y145.75 E143.47412
G1 X144.25 Y146.50 E143.52102
G1 X144.18 Y147.23 E143.56682
G0 F6000 X143.44 Y147.33
;TYPE:FILL
G1 F2700 X139.67 Y143.56 E143.89944
G0 F6000 X139.16 Y143.75
G1 F2700 X143.25 Y147.84 E144.26012
G0 F6000 X142.98 Y148.29
G1 F2700 X138.71 Y144.02 E144.63675
G0 F6000 X138.33 Y144.34
G1 F2700 X142.66 Y148.67 E145.01925
G0 F6000 X142.28 Y148.99
G1 F2700 X138.01 Y144.72 E145.39579
G0 F6000 X137.75 Y145.17
G1 F2700 X141.83 Y149.25 E145.75580
G0 F6000 X141.31 Y149.44
G1 F2700 X137.55 Y145.68 E146.08746
G0 F6000 X137.45 Y146.29
G1 F2700 X140.71 Y149.55 E146.37488
G0 F6000 X139.97 Y149.52
G1 F2700 X137.49 Y147.03 E146.59413
G0 F6000 X137.95 Y148.20
G1 F2700 X138.81 Y149.06 E146.66954
G0 F6000 X143.55 Y146.73
G1 F2700 X140.27 Y143.45 E146.95842
G0 F6000 X141.00 Y143.48
G1 F2700 X143.52 Y145.99 E147.18014
G0 F6000 X143.08 Y144.84
G1 F2700 X142.15 Y143.91 E147.26216
G0 F6000 X141.13 Y155.31
;TYPE:WALL-INNER
G1 F2700 X141.73 Y155.50 E147.30106
G1 X142.29 Y155.79 E147.34073
G1 X142.79 Y156.20 E147.38040
G1 X143.19 Y156.69 E147.42010
G1 X143.49 Y157.25 E147.45980
G1 X143.68 Y157.85 E147.49946
G1 X143.75 Y158.50 E147.53989
G1 X143.69 Y159.13 E147.57955
G1 X143.50 Y159.73 E147.61845
G1 X143.21 Y160.29 E147.65812
G1 X142.80 Y160.78 E147.69779
G1 X142.31 Y161.19 E147.73748
G1 X141.75 Y161.49 E147.77719
G1 X141.15 Y161.68 E147.81684
G1 X140.49 Y161.75 E147.85772
G1 X139.87 Y161.69 E147.89663
G1 X139.27 Y161.50 E147.93585
G1 X138.71 Y161.21 E147.97552
G1 X138.22 Y160.80 E148.01519
G1 X137.81 Y160.31 E148.05489
G1 X137.51 Y159.75 E148.09459
G1 X137.32 Y159.14 E148.13424
G1 X137.25 Y158.49 E148.17506
G1 X137.31 Y157.87 E148.21403
G1 X137.50 Y157.27 E148.25325
G1 X137.79 Y156.71 E148.29292
G1 X138.20 Y156.21 E148.33259
G1 X138.69 Y155.81 E148.37229
G1 X139.25 Y155.51 E148.41199
G1 X139.86 Y155.32 E148.45164
G1 X140.50 Y155.25 E148.49214
G1 X141.13 Y155.31 E148.53174
G0 F6000 X141.23 Y154.82
;TYPE:WALL-OUTER
G1 F2700 X141.92 Y155.03 E148.57650
G1 X142.57 Y155.38 E148.62248
G1 X143.14 Y155.84 E148.66831
G1 X143.61 Y156.41 E148.71403
G1 X143.96 Y157.05 E148.76004
G1 X144.17 Y157.75 E148.80557
G1 X144.25 Y158.50 E148.85246
G1 X144.18 Y159.23 E148.89826
G1 X143.97 Y159.92 E148.94303
G1 X143.62 Y160.57 E148.98900
G1 X143.16 Y161.14 E149.03484
G1 X142.59 Y161.61 E149.08055
G1 X141.95 Y161.96 E149.12657
G1 X141.25 Y162.17 E149.17215
G1 X140.50 Y162.25 E149.21899
G1 X139.77 Y162.18 E149.26480
G1 X139.08 Y161.97 E149.30956
G1 X138.43 Y161.62 E149.35568
G1 X137.86 Y161.16 E149.40138
G1 X137.39 Y160.59 E149.44709
G1 X137.04 Y159.94 E149.49316
G1 X136.83 Y159.25 E149.53869
G1 X136.75 Y158.50 E149.58547
G1 X136.82 Y157.77 E149.63140
G1 X137.03 Y157.08 E149.67610
G1 X137.38 Y156.43 E149.72208
G1 X137.84 Y155.86 E149.76791
G1 X138.41 Y155.39 E149.81363
G1 X139.06 Y155.04 E149.85964
G1 X139.75 Y154.83 E149.90523
G1 X140.50 Y154.75 E149.95206
G1 X141.23 Y154.82 E149.99786
G0 F6000 X140.98 Y155.47
;TYPE:FILL
G1 F2700 X143.52 Y158.02 E150.22192
G0 F6000 X143.55 Y158.75
G1 F2700 X140.25 Y155.46 E150.51243
G0 F6000 X139.65 Y155.56
G1 F2700 X143.44 Y159.35 E150.84607
G0 F6000 X143.24 Y159.86
G1 F2700 X139.14 Y155.76 E151.20723
G0 F6000 X138.70 Y156.03
G1 F2700 X142.97 Y160.30 E151.58408
G0 F6000 X142.65 Y160.68
G1 F2700 X138.31 Y156.35 E151.96649
G0 F6000 X138.00 Y156.74
G1 F2700 X142.26 Y161.00 E152.34277
G0 F6000 X141.81 Y161.26
G1 F2700 X137.74 Y157.18 E152.70221
G0 F6000 X137.55 Y157.70
G1 F2700 X141.30 Y161.45 E153.03271
G0 F6000 X140.69 Y161.55
G1 F2700 X137.45 Y158.31 E153.31846
G0 F6000 X137.49 Y159.06
G1 F2700 X139.95 Y161.51 E153.53542
G0 F6000 X138.69 Y160.96
G1 F2700 X138.04 Y160.31 E153.59297
G0 F6000 X142.10 Y155.89
G1 F2700 X143.10 Y156.89 E153.68121
G0 F6000 X149.31 Y157.87
;TYPE:WALL-INNER
G1 F2700 X149.50 Y157.27 E153.72043
G1 X149.79 Y156.71 E153.76010
G1 X150.20 Y156.21 E153.79977
G1 X150.69 Y155.81 E153.83946
G1 X151.25 Y155.51 E153.87917
G1 X151.86 Y155.32 E153.91882
G1 X152.50 Y155.25 E153.95931
G1 X153.13 Y155.31 E153.99885
G1 X153.73 Y155.50 E154.03775
G1 X154.29 Y155.79 E154.07742
G1 X154.78 Y156.20 E154.11709
G1 X155.19 Y156.69 E154.15679
G1 X155.49 Y157.25 E154.19649
G1 X155.68 Y157.85 E154.23614
G1 X155.75 Y158.51 E154.27702
G1 X155.69 Y159.13 E154.31593
G1 X155.50 Y159.73 E154.35515
G1 X155.21 Y160.29 E154.39482
G1 X154.80 Y160.78 E154.43449
G1 X154.31 Y161.19 E154.47419
G1 X153.75 Y161.49 E154.51389
G1 X153.14 Y161.68 E154.55355
G1 X152.49 Y161.75 E154.59436
G1 X151.87 Y161.69 E154.63327
G1 X151.27 Y161.50 E154.67249
G1 X150.71 Y161.21 E154.71216
G1 X150.22 Y160.80 E154.75183
G1 X149.81 Y160.31 E154.79153
G1 X149.51 Y159.75 E154.83123
G1 X149.32 Y159.14 E154.87088
G1 X149.25 Y158.49 E154.91170
G1 X149.31 Y157.87 E154.95067
G0 F6000 X148.82 Y157.77
;TYPE:WALL-OUTER
G1 F2700 X149.03 Y157.08 E154.99538
G1 X149.38 Y156.43 E155.04135
G1 X149.84 Y155.86 E155.08719
G1 X150.41 Y155.39 E155.13290
G1 X151.06 Y155.04 E155.17891
G1 X151.75 Y154.83 E155.22450
G1 X152.50 Y154.75 E155.27133
G1 X153.23 Y154.82 E155.31707
G1 X153.92 Y155.03 E155.36184
G1 X154.57 Y155.38 E155.40781
G1 X155.14 Y155.84 E155.45365
G1 X155.61 Y156.41 E155.49936
G1 X155.96 Y157.05 E155.54538
G1 X156.17 Y157.75 E155.59091
G1 X156.25 Y158.50 E155.63781
G1 X156.18 Y159.23 E155.68361
G1 X155.97 Y159.92 E155.72838
G1 X155.62 Y160.57 E155.77435
G1 X155.16 Y161.14 E155.82019
G1 X154.59 Y161.61 E155.86590
G1 X153.94 Y161.96 E155.91192
G1 X153.25 Y162.17 E155.95750
G1 X152.50 Y162.25 E156.00428
G1 X151.77 Y162.18 E156.05009
G1 X151.08 Y161.97 E156.09485
G1 X150.43 Y161.62 E156.14097
G1 X149.86 Y161.16 E156.18667
G1 X149.39 Y160.59 E156.23238
G1 X149.04 Y159.94 E156.27845
G1 X148.83 Y159.25 E156.32398
G1 X148.75 Y158.50 E156.37075
G1 X148.82 Y157.77 E156.41668
G0 F6000 X149.55 Y157.68
;TYPE:FILL
G1 F2700 X153.31 Y161.44 E156.74821
G0 F6000 X153.83 Y161.25
G1 F2700 X149.75 Y157.17 E157.10822
G0 F6000 X150.00 Y156.72
G1 F2700 X154.27 Y160.99 E157.48467
G0 F6000 X154.66 Y160.67
G1 F2700 X150.32 Y156.34 E157.86708
G0 F6000 X150.71 Y156.02
G1 F2700 X154.98 Y160.29 E158.24367
G0 F6000 X155.25 Y159.84
G1 F2700 X151.16 Y155.75 E158.60430
G0 F6000 X151.67 Y155.56
G1 F2700 X155.44 Y159.33 E158.93688
G0 F6000 X155.55 Y158.73
G1 F2700 X152.27 Y155.45 E159.22580
G0 F6000 X153.00 Y155.48
G1 F2700 X155.52 Y157.99 E159.44748
G0 F6000 X155.07 Y156.84
G1 F2700 X154.15 Y155.91 E159.52950
G0 F6000 X149.45 Y158.29
G1 F2700 X152.71 Y161.54 E159.81675
G0 F6000 X151.97 Y161.52
G1 F2700 X149.49 Y159.03 E160.03600
G0 F6000 X149.95 Y160.21
G1 F2700 X150.80 Y161.05 E160.11044
G0 F6000 X161.32 Y159.14
;TYPE:WALL-INNER
G1 F2700 X161.25 Y158.50 E160.15093
G1 X161.31 Y157.87 E160.19053
G1 X161.50 Y157.27 E160.22943
G1 X161.79 Y156.71 E160.26910
G1 X162.20 Y156.21 E160.30877
G1 X162.69 Y155.81 E160.34847
G1 X163.25 Y155.51 E160.38817
G1 X163.85 Y155.32 E160.42782
G1 X164.50 Y155.25 E160.46838
G1 X165.13 Y155.31 E160.50792
G1 X165.73 Y155.50 E160.54682
G1 X166.29 Y155.79 E160.58649
G1 X166.78 Y156.20 E160.62616
G1 X167.19 Y156.69 E160.66585
G1 X167.49 Y157.25 E160.70556
G1 X167.68 Y157.85 E160.74521
G1 X167.75 Y158.51 E160.78609
G1 X167.69 Y159.13 E160.82500
G1 X167.50 Y159.73 E160.86422
G1 X167.21 Y160.29 E160.90389
G1 X166.80 Y160.78 E160.94356
G1 X166.31 Y161.19 E160.98326
G1 X165.75 Y161.49 E161.02296
G1 X165.14 Y161.68 E161.06261
G1 X164.49 Y161.75 E161.10343
G1 X163.87 Y161.69 E161.14240
G1 X163.27 Y161.50 E161.18162
G1 X162.71 Y161.21 E161.22129
G1 X162.21 Y160.80 E161.26096
G1 X161.81 Y160.31 E161.30066
G1 X161.51 Y159.75 E161.34036
G1 X161.32 Y159.14 E161.38001
G0 F6000 X160.83 Y159.25
;TYPE:WALL-OUTER
G1 F2700 X160.75 Y158.50 E161.42685
G1 X160.82 Y157.77 E161.47271
G1 X161.03 Y157.08 E161.51741
G1 X161.38 Y156.43 E161.56339
G1 X161.84 Y155.86 E161.60923
G1 X162.41 Y155.39 E161.65494
G1 X163.05 Y155.04 E161.70095
G1 X163.75 Y154.83 E161.74654
G1 X164.50 Y154.75 E161.79343
G1 X165.23 Y154.82 E161.83917
G1 X165.92 Y155.03 E161.88394
G1 X166.57 Y155.38 E161.92991
G1 X167.14 Y155.84 E161.97575
G1 X167.61 Y156.41 E162.02146
G1 X167.96 Y157.05 E162.06748
G1 X168.17 Y157.75 E162.11300
G1 X168.25 Y158.50 E162.15991
G1 X168.18 Y159.23 E162.20571
G1 X167.97 Y159.92 E162.25048
G1 X167.62 Y160.57 E162.29645
G1 X167.16 Y161.14 E162.34229
G1 X166.59 Y161.61 E162.38800
G1 X165.94 Y161.96 E162.43401
G1 X165.25 Y162.17 E162.47960
G1 X164.50 Y162.25 E162.52638
G1 X163.77 Y162.18 E162.57225
G1 X163.08 Y161.97 E162.61701
G1 X162.43 Y161.62 E162.66313
G1 X161.86 Y161.16 E162.70883
G1 X161.39 Y160.59 E162.75454
G1 X161.04 Y159.94 E162.80061
G1 X160.83 Y159.25 E162.84614
G0 F6000 X161.48 Y159.01
;TYPE:FILL
G1 F2700 X164.00 Y161.52 E163.06786
G0 F6000 X164.73 Y161.54
G1 F2700 X161.45 Y158.27 E163.35678
G0 F6000 X161.56 Y157.67
G1 F2700 X165.33 Y161.44 E163.68945
G0 F6000 X165.84 Y161.25
G1 F2700 X161.75 Y157.16 E164.05012
G0 F6000 X162.01 Y156.71
G1 F2700 X166.28 Y160.98 E164.42676
G0 F6000 X166.67 Y160.66
G1 F2700 X162.34 Y156.32 E164.80921
G0 F6000 X162.72 Y156.01
G1 F2700 X166.99 Y160.27 E165.18567
G0 F6000 X167.25 Y159.83
G1 F2700 X163.17 Y155.75 E165.54568
G0 F6000 X163.69 Y155.56
G1 F2700 X167.45 Y159.31 E165.87724
G0 F6000 X167.55 Y158.71
G1 F2700 X164.29 Y155.45 E166.16462
G0 F6000 X165.03 Y155.48
G1 F2700 X167.51 Y157.97 E166.38387
G0 F6000 X167.05 Y156.79
G1 F2700 X166.19 Y155.94 E166.45919
G0 F6000 X161.92 Y160.15
G1 F2700 X162.85 Y161.08 E166.54121
G0 F6000 X163.87 Y149.69
;TYPE:WALL-INNER
G1 F2700 X163.27 Y149.50 E166.58012
G1 X162.71 Y149.21 E166.61979
G1 X162.21 Y148.80 E166.65946
G1 X161.81 Y148.31 E166.69915
G1 X161.51 Y147.75 E166.73886
G1 X161.32 Y147.15 E166.77851
G1 X161.25 Y146.50 E166.81900
G1 X161.31 Y145.87 E166.85860
G1 X161.50 Y145.27 E166.89751
G1 X161.79 Y144.71 E166.93718
G1 X162.20 Y144.22 E166.97685
G1 X162.69 Y143.81 E167.01654
G1 X163.25 Y143.51 E167.05625
G1 X163.85 Y143.32 E167.09590
G1 X164.51 Y143.25 E167.13677
G1 X165.13 Y143.31 E167.17569
G1 X165.73 Y143.50 E167.21491
G1 X166.29 Y143.79 E167.25458
G1 X166.78 Y144.20 E167.29425
G1 X167.19 Y144.69 E167.33394
G1 X167.49 Y145.25 E167.37365
G1 X167.68 Y145.86 E167.41330
G1 X167.75 Y146.51 E167.45417
G1 X167.69 Y147.13 E167.49309
G1 X167.50 Y147.73 E167.53231
G1 X167.21 Y148.29 E167.57198
G1 X166.80 Y148.79 E167.61165
G1 X166.31 Y149.19 E167.65134
G1 X165.75 Y149.49 E167.69105
G1 X165.14 Y149.68 E167.73070
G1 X164.50 Y149.75 E167.77119
G1 X163.87 Y149.69 E167.81079
G0 F6000 X163.77 Y150.18
;TYPE:WALL-OUTER
G1 F2700 X163.08 Y149.97 E167.85555
G1 X162.43 Y149.62 E167.90167
G1 X161.86 Y149.16 E167.94737
G1 X161.39 Y148.59 E167.99308
G1 X161.04 Y147.94 E168.03915
G1 X160.83 Y147.25 E168.08468
G1 X160.75 Y146.50 E168.13151
G1 X160.82 Y145.77 E168.17738
G1 X161.03 Y145.08 E168.22208
G1 X161.38 Y144.43 E168.26806
G1 X161.84 Y143.86 E168.31389
G1 X162.41 Y143.39 E168.35960
G1 X163.05 Y143.04 E168.40562
G1 X163.75 Y142.83 E168.45121
G1 X164.50 Y142.75 E168.49804
G1 X165.23 Y142.82 E168.54385
G1 X165.92 Y143.03 E168.58862
G1 X166.57 Y143.38 E168.63459
G1 X167.14 Y143.84 E168.68043
G1 X167.61 Y144.41 E168.72614
G1 X167.96 Y145.06 E168.77215
G1 X168.17 Y145.75 E168.81768
G1 X168.25 Y146.50 E168.86458
G1 X168.18 Y147.23 E168.91039
G1 X167.97 Y147.92 E168.95515
G1 X167.62 Y148.57 E169.00113
G1 X167.16 Y149.14 E169.04697
G1 X166.59 Y149.61 E169.09268
G1 X165.94 Y149.96 E169.13869
G1 X165.25 Y150.17 E169.18428
G1 X164.50 Y150.25 E169.23111
G1 X163.77 Y150.18 E169.27692
G0 F6000 X164.02 Y149.52
;TYPE:FILL
G1 F2700 X161.48 Y146.98 E169.50102
G0 F6000 X161.45 Y146.25
G1 F2700 X164.75 Y149.54 E169.79148
G0 F6000 X165.34 Y149.43
G1 F2700 X161.56 Y145.65 E170.12512
G0 F6000 X161.76 Y145.14
G1 F2700 X165.85 Y149.24 E170.48637
G0 F6000 X166.30 Y148.97
G1 F2700 X162.02 Y144.70 E170.86327
G0 F6000 X162.35 Y144.32
G1 F2700 X166.68 Y148.65 E171.24563
G0 F6000 X167.00 Y148.26
G1 F2700 X162.74 Y144.00 E171.62196
G0 F6000 X163.18 Y143.74
G1 F2700 X167.26 Y147.81 E171.98144
G0 F6000 X167.45 Y147.30
G1 F2700 X163.70 Y143.55 E172.31199
G0 F6000 X164.31 Y143.45
G1 F2700 X167.55 Y146.69 E172.59774
G0 F6000 X167.51 Y145.94
G1 F2700 X165.05 Y143.48 E172.81474
G0 F6000 X166.31 Y144.04
G1 F2700 X166.96 Y144.69 E172.87224
G0 F6000 X162.90 Y149.11
G1 F2700 X161.90 Y148.11 E172.96044
G0 F6000 X155.69 Y147.13
;TYPE:WALL-INNER
G1 F2700 X155.50 Y147.73 E172.99966
G1 X155.21 Y148.29 E173.03933
G1 X154.80 Y148.79 E173.07900
G1 X154.31 Y149.19 E173.11869
G1 X153.75 Y149.49 E173.15840
G1 X153.14 Y149.68 E173.19805
G1 X152.50 Y149.75 E173.23854
G1 X151.87 Y149.69 E173.27808
G1 X151.27 Y149.50 E173.31698
G1 X150.71 Y149.21 E173.35665
G1 X150.22 Y148.80 E173.39632
G1 X149.81 Y148.31 E173.43602
G1 X149.51 Y147.75 E173.47572
G1 X149.32 Y147.15 E173.51537
G1 X149.25 Y146.49 E173.55619
G1 X149.31 Y145.87 E173.59516
G1 X149.50 Y145.27 E173.63438
G1 X149.79 Y144.71 E173.67405
G1 X150.20 Y144.22 E173.71372
G1 X150.69 Y143.81 E173.75342
G1 X151.25 Y143.51 E173.79312
G1 X151.86 Y143.32 E173.83278
G1 X152.51 Y143.25 E173.87359
G1 X153.13 Y143.31 E173.91250
G1 X153.73 Y143.50 E173.95172
G1 X154.29 Y143.79 E173.99139
G1 X154.78 Y144.20 E174.03106
G1 X155.19 Y144.69 E174.07076
G1 X155.49 Y145.25 E174.11046
G1 X155.68 Y145.86 E174.15011
G1 X155.75 Y146.51 E174.19099
G1 X155.69 Y147.13 E174.22990
G0 F6000 X156.18 Y147.23
;TYPE:WALL-OUTER
G1 F2700 X155.97 Y147.92 E174.27467
G1 X155.62 Y148.57 E174.32064
G1 X155.16 Y149.14 E174.36648
G1 X154.59 Y149.61 E174.41219
G1 X153.94 Y149.96 E174.45820
G1 X153.25 Y150.17 E174.50379
G1 X152.50 Y150.25 E174.55062
G1 X151.77 Y150.18 E174.59636
G1 X151.08 Y149.97 E174.64113
G1 X150.43 Y149.62 E174.68724
G1 X149.86 Y149.16 E174.73294
G1 X149.39 Y148.59 E174.77866
G1 X149.04 Y147.94 E174.82472
G1 X148.83 Y147.25 E174.87025
G1 X148.75 Y146.50 E174.91703
G1 X148.82 Y145.77 E174.96296
G1 X149.03 Y145.08 E175.00767
G1 X149.38 Y144.43 E175.05364
G1 X149.84 Y143.86 E175.09948
G1 X150.41 Y143.39 E175.14519
G1 X151.06 Y143.04 E175.19120
G1 X151.75 Y142.83 E175.23679
G1 X152.50 Y142.75 E175.28357
G1 X153.23 Y142.82 E175.32938
G1 X153.92 Y143.03 E175.37414
G1 X154.57 Y143.38 E175.42012
G1 X155.14 Y143.84 E175.46595
G1 X155.61 Y144.41 E175.51166
G1 X155.96 Y145.06 E175.55768
G1 X156.17 Y145.75 E175.60321
G1 X156.25 Y146.50 E175.65011
G1 X156.18 Y147.23 E175.69591
G0 F6000 X155.45 Y147.31
;TYPE:FILL
G1 F2700 X151.69 Y143.56 E176.02744
G0 F6000 X151.17 Y143.75
G1 F2700 X155.25 Y147.83 E176.38740
G0 F6000 X154.99 Y148.28
G1 F2700 X150.72 Y144.01 E176.76381
G0 F6000 X150.34 Y144.33
G1 F2700 X154.67 Y148.66 E177.14627
G0 F6000 X154.29 Y148.98
G1 F2700 X150.01 Y144.71 E177.52295
G0 F6000 X149.75 Y145.16
G1 F2700 X153.84 Y149.25 E177.88349
G0 F6000 X153.33 Y149.44
G1 F2700 X149.56 Y145.67 E178.21611
G0 F6000 X149.45 Y146.27
G1 F2700 X152.73 Y149.55 E178.50508
G0 F6000 X152.00 Y149.52
G1 F2700 X149.48 Y147.01 E178.72671
G0 F6000 X149.92 Y148.16
G1 F2700 X150.85 Y149.09 E178.80873
G0 F6000 X155.55 Y146.71
G1 F2700 X152.29 Y143.45 E179.09598
G0 F6000 X153.03 Y143.48
G1 F2700 X155.51 Y145.97 E179.31527
G0 F6000 X155.04 Y144.79
G1 F2700 X154.20 Y143.95 E179.38980
;LAYER:1
G0 F6000 X154.28 Y143.79 Z0.50
;TYPE:WALL-INNER
G1 F2640 X154.78 Y144.19 E179.41614
G1 X155.18 Y144.68 E179.44247
G1 X155.50 Y145.26 E179.47021
G1 X155.69 Y145.87 E179.49681
G1 X155.75 Y146.50 E179.52308
G1 X155.69 Y147.13 E179.54932
G1 X155.50 Y147.74 E179.57595
G1 X155.21 Y148.28 E179.60142
G1 X154.81 Y148.78 E179.62776
G1 X154.32 Y149.18 E179.65409
G1 X153.74 Y149.50 E179.68183
G1 X153.13 Y149.69 E179.70839
G1 X152.50 Y149.75 E179.73470
G1 X151.87 Y149.69 E179.76089
G1 X151.26 Y149.50 E179.78752
G1 X150.72 Y149.21 E179.81299
G1 X150.22 Y148.81 E179.83933
G1 X149.82 Y148.33 E179.86566
G1 X149.50 Y147.74 E179.89340
G1 X149.31 Y147.13 E179.91996
G1 X149.25 Y146.50 E179.94627
G1 X149.31 Y145.87 E179.97247
G1 X149.50 Y145.26 E179.99914
G1 X149.79 Y144.72 E180.02461
G1 X150.19 Y144.22 E180.05095
G1 X150.68 Y143.82 E180.07728
G1 X151.26 Y143.50 E180.10502
G1 X151.87 Y143.31 E180.13157
G1 X152.50 Y143.25 E180.15785
G1 X153.13 Y143.31 E180.18409
G1 X153.74 Y143.50 E180.21072
G1 X154.28 Y143.79 E180.23618
G0 F6000 X154.56 Y143.37
;TYPE:WALL-OUTER
G1 F2640 X155.13 Y143.83 E180.26664
G1 X155.60 Y144.39 E180.29707
G1 X155.96 Y145.06 E180.32883
G1 X156.18 Y145.77 E180.35938
G1 X156.25 Y146.50 E180.38988
G1 X156.18 Y147.23 E180.42034
G1 X155.97 Y147.93 E180.45073
G1 X155.63 Y148.56 E180.48053
G1 X155.17 Y149.13 E180.51098
G1 X154.61 Y149.60 E180.54142
G1 X153.94 Y149.96 E180.57317
G1 X153.23 Y150.18 E180.60372
G1 X152.50 Y150.25 E180.63418
G1 X151.78 Y150.18 E180.66463
G1 X151.07 Y149.97 E180.69502
G1 X150.44 Y149.63 E180.72482
G1 X149.87 Y149.17 E180.75527
G1 X149.40 Y148.61 E180.78571
G1 X149.04 Y147.94 E180.81747
G1 X148.82 Y147.23 E180.84802
G1 X148.75 Y146.50 E180.87848
G1 X148.82 Y145.78 E180.90897
G1 X149.03 Y145.07 E180.93937
G1 X149.37 Y144.44 E180.96916
G1 X149.83 Y143.87 E180.99961
G1 X150.39 Y143.40 E181.03005
G1 X151.06 Y143.04 E181.06181
G1 X151.77 Y142.82 E181.09236
G1 X152.50 Y142.75 E181.12282
G1 X153.22 Y142.82 E181.15327
G1 X153.93 Y143.03 E181.18367
G1 X154.56 Y143.37 E181.21346
G0 F6000 X154.14 Y143.91
;TYPE:FILL
G1 F2640 X149.91 Y148.13 E181.46176
G0 F6000 X150.22 Y148.53
G1 F2640 X154.53 Y144.22 E181.71541
G0 F6000 X154.88 Y144.58
G1 F2640 X150.58 Y148.88 E181.96782
G0 F6000 X151.00 Y149.16
G1 F2640 X155.16 Y145.01 E182.21229
G0 F6000 X155.38 Y145.49
G1 F2640 X151.49 Y149.39 E182.44148
G0 F6000 X152.05 Y149.53
G1 F2640 X155.53 Y146.06 E182.64571
G0 F6000 X155.54 Y146.74
G1 F2640 X152.74 Y149.55 E182.81066
G0 F6000 X153.65 Y149.34
G1 F2640 X155.34 Y147.65 E182.91026
G0 F6000 X153.68 Y143.66
G1 F2640 X149.66 Y147.67 E183.14609
G0 F6000 X149.50 Y147.13
G1 F2640 X153.13 Y143.50 E183.35976
G0 F6000 X152.49 Y143.43
G1 F2640 X149.43 Y146.50 E183.54003
G0 F6000 X149.56 Y145.65
G1 F2640 X151.65 Y143.56 E183.66297
G0 F6000 X161.31 Y145.87
;TYPE:WALL-INNER
G1 F2640 X161.50 Y145.26 E183.68964
G1 X161.79 Y144.72 E183.71511
G1 X162.19 Y144.22 E183.74145
G1 X162.67 Y143.82 E183.76778
G1 X163.26 Y143.50 E183.79552
G1 X163.87 Y143.31 E183.82211
G1 X164.50 Y143.25 E183.84839
G1 X165.13 Y143.31 E183.87463
G1 X165.74 Y143.50 E183.90126
G1 X166.28 Y143.79 E183.92672
G1 X166.78 Y144.19 E183.95307
G1 X167.18 Y144.68 E183.97940
G1 X167.50 Y145.26 E184.00714
G1 X167.69 Y145.87 E184.03373
G1 X167.75 Y146.50 E184.06001
G1 X167.69 Y147.13 E184.08625
G1 X167.50 Y147.74 E184.11288
G1 X167.21 Y148.28 E184.13834
G1 X166.81 Y148.78 E184.16468
G1 X166.32 Y149.18 E184.19102
G1 X165.74 Y149.50 E184.21876
G1 X165.13 Y149.69 E184.24531
G1 X164.50 Y149.75 E184.27163
G1 X163.87 Y149.69 E184.29782
G1 X163.26 Y149.50 E184.32449
G1 X162.72 Y149.21 E184.34995
G1 X162.22 Y148.81 E184.37629
G1 X161.82 Y148.33 E184.40263
G1 X161.50 Y147.74 E184.43037
G1 X161.31 Y147.13 E184.45692
G1 X161.25 Y146.50 E184.48324
G1 X161.31 Y145.87 E184.50943
G0 F6000 X160.82 Y145.78
;TYPE:WALL-OUTER
G1 F2640 X161.03 Y145.07 E184.53982
G1 X161.37 Y144.44 E184.56962
G1 X161.83 Y143.87 E184.60007
G1 X162.39 Y143.40 E184.63051
G1 X163.06 Y143.04 E184.66226
G1 X163.77 Y142.82 E184.69282
G1 X164.50 Y142.75 E184.72332
G1 X165.22 Y142.82 E184.75377
G1 X165.93 Y143.03 E184.78416
G1 X166.56 Y143.37 E184.81396
G1 X167.13 Y143.83 E184.84441
G1 X167.60 Y144.39 E184.87485
G1 X167.96 Y145.06 E184.90661
G1 X168.18 Y145.77 E184.93716
G1 X168.25 Y146.50 E184.96766
G1 X168.18 Y147.23 E184.99811
G1 X167.97 Y147.93 E185.02851
G1 X167.63 Y148.56 E185.05830
G1 X167.17 Y149.13 E185.08875
G1 X166.61 Y149.60 E185.11919
G1 X165.94 Y149.96 E185.15095
G1 X165.23 Y150.18 E185.18150
G1 X164.50 Y150.25 E185.21196
G1 X163.77 Y150.18 E185.24245
G1 X163.07 Y149.97 E185.27284
G1 X162.44 Y149.63 E185.30264
G1 X161.87 Y149.17 E185.33309
G1 X161.40 Y148.61 E185.36353
G1 X161.04 Y147.94 E185.39528
G1 X160.82 Y147.23 E185.42584
G1 X160.75 Y146.50 E185.45629
G1 X160.82 Y145.78 E185.48678
G0 F6000 X161.55 Y145.69
;TYPE:FILL
G1 F2640 X163.68 Y143.55 E185.61210
G0 F6000 X164.51 Y143.43
G1 F2640 X161.43 Y146.51 E185.79349
G0 F6000 X161.50 Y147.15
G1 F2640 X165.15 Y143.50 E186.00786
G0 F6000 X165.69 Y143.67
G1 F2640 X161.67 Y147.69 E186.24416
G0 F6000 X161.92 Y148.15
G1 F2640 X166.15 Y143.92 E186.49278
G0 F6000 X166.54 Y144.23
G1 F2640 X162.23 Y148.54 E186.74661
G0 F6000 X162.59 Y148.89
G1 F2640 X166.88 Y144.59 E186.99890
G0 F6000 X167.17 Y145.02
G1 F2640 X163.01 Y149.17 E187.24308
G0 F6000 X163.50 Y149.39
G1 F2640 X167.39 Y145.50 E187.47165
G0 F6000 X167.53 Y146.07
G1 F2640 X164.07 Y149.53 E187.67479
G0 F6000 X164.76 Y149.54
G1 F2640 X167.54 Y146.76 E187.83830
G0 F6000 X167.33 Y147.68
G1 F2640 X165.69 Y149.33 E187.93496
G0 F6000 X165.13 Y155.31
;TYPE:WALL-INNER
G1 F2640 X165.74 Y155.50 E187.96160
G1 X166.28 Y155.79 E187.98706
G1 X166.78 Y156.19 E188.01340
G1 X167.18 Y156.67 E188.03974
G1 X167.50 Y157.26 E188.06748
G1 X167.69 Y157.87 E188.09407
G1 X167.75 Y158.50 E188.12035
G1 X167.69 Y159.13 E188.14658
G1 X167.50 Y159.74 E188.17322
G1 X167.21 Y160.28 E188.19868
G1 X166.81 Y160.78 E188.22502
G1 X166.32 Y161.18 E188.25135
G1 X165.74 Y161.50 E188.27909
G1 X165.13 Y161.69 E188.30565
G1 X164.50 Y161.75 E188.33197
G1 X163.87 Y161.69 E188.35816
G1 X163.26 Y161.50 E188.38483
G1 X162.72 Y161.21 E188.41030
G1 X162.22 Y160.81 E188.43664
G1 X161.82 Y160.32 E188.46297
G1 X161.50 Y159.74 E188.49071
G1 X161.31 Y159.13 E188.51727
G1 X161.25 Y158.50 E188.54358
G1 X161.31 Y157.87 E188.56977
G1 X161.50 Y157.26 E188.59644
G1 X161.79 Y156.72 E188.62191
G1 X162.19 Y156.22 E188.64825
G1 X162.67 Y155.82 E188.67458
G1 X163.26 Y155.50 E188.70232
G1 X163.87 Y155.31 E188.72888
G1 X164.50 Y155.25 E188.75523
G1 X165.13 Y155.31 E188.78142
G0 F6000 X165.22 Y154.82
;TYPE:WALL-OUTER
G1 F2640 X165.93 Y155.03 E188.81182
G1 X166.56 Y155.37 E188.84161
G1 X167.13 Y155.83 E188.87207
G1 X167.60 Y156.39 E188.90250
G1 X167.96 Y157.06 E188.93426
G1 X168.18 Y157.77 E188.96481
G1 X168.25 Y158.50 E188.99531
G1 X168.18 Y159.22 E189.02576
G1 X167.97 Y159.93 E189.05616
G1 X167.63 Y160.56 E189.08596
G1 X167.17 Y161.13 E189.11641
G1 X166.61 Y161.60 E189.14685
G1 X165.94 Y161.96 E189.17860
G1 X165.23 Y162.18 E189.20915
G1 X164.50 Y162.25 E189.23961
G1 X163.77 Y162.18 E189.27011
G1 X163.07 Y161.97 E189.30050
G1 X162.44 Y161.63 E189.33030
G1 X161.87 Y161.17 E189.36075
G1 X161.40 Y160.61 E189.39119
G1 X161.04 Y159.94 E189.42295
G1 X160.82 Y159.23 E189.45350
G1 X160.75 Y158.50 E189.48395
G1 X160.82 Y157.77 E189.51444
G1 X161.03 Y157.07 E189.54484
G1 X161.37 Y156.44 E189.57463
G1 X161.83 Y155.87 E189.60508
G1 X162.39 Y155.40 E189.63552
G1 X163.06 Y155.04 E189.66728
G1 X163.77 Y154.82 E189.69783
G1 X164.50 Y154.75 E189.72833
G1 X165.22 Y154.82 E189.75878
G0 F6000 X165.16 Y155.51
;TYPE:FILL
G1 F2640 X161.51 Y159.16 E189.97379
G0 F6000 X161.68 Y159.70
G1 F2640 X165.70 Y155.68 E190.21039
G0 F6000 X166.16 Y155.92
G1 F2640 X161.93 Y160.16 E190.45945
G0 F6000 X162.24 Y160.56
G1 F2640 X166.56 Y156.24 E190.71339
G0 F6000 X166.89 Y156.61
G1 F2640 X162.60 Y160.90 E190.96557
G0 F6000 X163.03 Y161.18
G1 F2640 X167.17 Y157.03 E191.20931
G0 F6000 X167.39 Y157.52
G1 F2640 X163.52 Y161.40 E191.43717
G0 F6000 X164.09 Y161.53
G1 F2640 X167.53 Y158.09 E191.63931
G0 F6000 X167.54 Y158.79
G1 F2640 X164.79 Y161.54 E191.80130
G0 F6000 X165.74 Y161.30
G1 F2640 X167.31 Y159.73 E191.89378
G0 F6000 X164.53 Y155.43
G1 F2640 X161.43 Y158.53 E192.07620
G0 F6000 X161.54 Y157.72
G1 F2640 X163.71 Y155.54 E192.20384
G0 F6000 X155.69 Y157.87
;TYPE:WALL-INNER
G1 F2640 X155.75 Y158.50 E192.23012
G1 X155.69 Y159.13 E192.25636
G1 X155.50 Y159.74 E192.28299
G1 X155.21 Y160.28 E192.30845
G1 X154.81 Y160.78 E192.33480
G1 X154.32 Y161.18 E192.36113
G1 X153.74 Y161.50 E192.38887
G1 X153.13 Y161.69 E192.41542
G1 X152.50 Y161.75 E192.44170
G1 X151.87 Y161.69 E192.46794
G1 X151.26 Y161.50 E192.49457
G1 X150.72 Y161.21 E192.52003
G1 X150.22 Y160.81 E192.54637
G1 X149.82 Y160.32 E192.57271
G1 X149.50 Y159.74 E192.60045
G1 X149.31 Y159.13 E192.62700
G1 X149.25 Y158.50 E192.65332
G1 X149.31 Y157.87 E192.67951
G1 X149.50 Y157.26 E192.70619
G1 X149.79 Y156.72 E192.73165
G1 X150.19 Y156.22 E192.75799
G1 X150.68 Y155.82 E192.78433
G1 X151.26 Y155.50 E192.81207
G1 X151.87 Y155.31 E192.83862
G1 X152.50 Y155.25 E192.86493
G1 X153.13 Y155.31 E192.89112
G1 X153.74 Y155.50 E192.91776
G1 X154.28 Y155.79 E192.94322
G1 X154.78 Y156.19 E192.96956
G1 X155.18 Y156.67 E192.99590
G1 X155.50 Y157.26 E193.02364
G1 X155.69 Y157.87 E193.05023
G0 F6000 X156.18 Y157.77
;TYPE:WALL-OUTER
G1 F2640 X156.25 Y158.50 E193.08073
G1 X156.18 Y159.22 E193.11118
G1 X155.97 Y159.93 E193.14158
G1 X155.63 Y160.56 E193.17137
G1 X155.17 Y161.13 E193.20182
G1 X154.61 Y161.60 E193.23226
G1 X153.94 Y161.96 E193.26402
G1 X153.23 Y162.18 E193.29457
G1 X152.50 Y162.25 E193.32503
G1 X151.78 Y162.18 E193.35548
G1 X151.07 Y161.97 E193.38588
G1 X150.44 Y161.63 E193.41567
G1 X149.87 Y161.17 E193.44613
G1 X149.40 Y160.61 E193.47656
G1 X149.04 Y159.94 E193.50832
G1 X148.82 Y159.23 E193.53887
G1 X148.75 Y158.50 E193.56933
G1 X148.82 Y157.77 E193.59983
G1 X149.03 Y157.07 E193.63022
G1 X149.37 Y156.44 E193.66002
G1 X149.83 Y155.87 E193.69047
G1 X150.39 Y155.40 E193.72091
G1 X151.06 Y155.04 E193.75266
G1 X151.77 Y154.82 E193.78322
G1 X152.50 Y154.75 E193.81367
G1 X153.22 Y154.82 E193.84412
G1 X153.93 Y155.03 E193.87451
G1 X154.56 Y155.37 E193.90431
G1 X155.13 Y155.83 E193.93476
G1 X155.60 Y156.39 E193.96520
G1 X155.96 Y157.06 E193.99696
G1 X156.18 Y157.77 E194.02751
G0 F6000 X155.53 Y158.07
;TYPE:FILL
G1 F2640 X152.07 Y161.53 E194.23065
G0 F6000 X151.50 Y161.39
G1 F2640 X155.39 Y157.50 E194.45916
G0 F6000 X155.17 Y157.02
G1 F2640 X151.02 Y161.17 E194.70328
G0 F6000 X150.59 Y160.88
G1 F2640 X154.89 Y156.59 E194.95561
G0 F6000 X154.55 Y156.23
G1 F2640 X150.23 Y160.54 E195.20943
G0 F6000 X149.92 Y160.14
G1 F2640 X154.15 Y155.91 E195.45802
G0 F6000 X153.69 Y155.67
G1 F2640 X149.67 Y159.69 E195.69426
G0 F6000 X149.50 Y159.15
G1 F2640 X153.15 Y155.50 E195.90863
G0 F6000 X152.51 Y155.43
G1 F2640 X149.43 Y158.51 E196.08996
G0 F6000 X149.55 Y157.68
G1 F2640 X151.69 Y155.55 E196.21531
G0 F6000 X155.54 Y158.76
G1 F2640 X152.76 Y161.54 E196.37883
G0 F6000 X153.69 Y161.32
G1 F2640 X155.33 Y159.68 E196.47519
G0 F6000 X143.75 Y158.50
;TYPE:WALL-INNER
G1 F2640 X143.69 Y159.13 E196.50147
G1 X143.50 Y159.74 E196.52810
G1 X143.21 Y160.28 E196.55356
G1 X142.81 Y160.78 E196.57990
G1 X142.33 Y161.18 E196.60624
G1 X141.74 Y161.50 E196.63398
G1 X141.13 Y161.69 E196.66057
G1 X140.50 Y161.75 E196.68685
G1 X139.87 Y161.69 E196.71308
G1 X139.26 Y161.50 E196.73972
G1 X138.72 Y161.21 E196.76518
G1 X138.22 Y160.81 E196.79152
G1 X137.82 Y160.32 E196.81786
G1 X137.50 Y159.74 E196.84560
G1 X137.31 Y159.13 E196.87215
G1 X137.25 Y158.50 E196.89847
G1 X137.31 Y157.87 E196.92466
G1 X137.50 Y157.26 E196.95134
G1 X137.79 Y156.72 E196.97680
G1 X138.19 Y156.22 E197.00314
G1 X138.68 Y155.82 E197.02947
G1 X139.26 Y155.50 E197.05721
G1 X139.87 Y155.31 E197.08377
G1 X140.50 Y155.25 E197.11008
G1 X141.13 Y155.31 E197.13627
G1 X141.74 Y155.50 E197.16295
G1 X142.28 Y155.79 E197.18841
G1 X142.78 Y156.19 E197.21475
G1 X143.18 Y156.67 E197.24108
G1 X143.50 Y157.26 E197.26882
G1 X143.69 Y157.87 E197.29538
G1 X143.75 Y158.50 E197.32165
G0 F6000 X144.25 Y158.50
;TYPE:WALL-OUTER
G1 F2640 X144.18 Y159.22 E197.35210
G1 X143.97 Y159.93 E197.38249
G1 X143.63 Y160.56 E197.41229
G1 X143.17 Y161.13 E197.44274
G1 X142.61 Y161.60 E197.47318
G1 X141.94 Y161.96 E197.50494
G1 X141.23 Y162.18 E197.53549
G1 X140.50 Y162.25 E197.56599
G1 X139.78 Y162.18 E197.59644
G1 X139.07 Y161.97 E197.62684
G1 X138.44 Y161.63 E197.65663
G1 X137.87 Y161.17 E197.68708
G1 X137.40 Y160.61 E197.71752
G1 X137.04 Y159.94 E197.74928
G1 X136.82 Y159.23 E197.77983
G1 X136.75 Y158.50 E197.81029
G1 X136.82 Y157.77 E197.84078
G1 X137.03 Y157.07 E197.87118
G1 X137.37 Y156.44 E197.90097
G1 X137.83 Y155.87 E197.93143
G1 X138.39 Y155.40 E197.96186
G1 X139.06 Y155.04 E197.99362
G1 X139.77 Y154.82 E198.02417
G1 X140.50 Y154.75 E198.05463
G1 X141.23 Y154.82 E198.08512
G1 X141.93 Y155.03 E198.11551
G1 X142.56 Y155.37 E198.14531
G1 X143.13 Y155.83 E198.17576
G1 X143.60 Y156.39 E198.20620
G1 X143.96 Y157.06 E198.23796
G1 X144.18 Y157.77 E198.26851
G1 X144.25 Y158.50 E198.29900
G0 F6000 X143.55 Y158.74
;TYPE:FILL
G1 F2640 X140.74 Y161.55 E198.46396
G0 F6000 X140.05 Y161.53
G1 F2640 X143.53 Y158.05 E198.66816
G0 F6000 X143.39 Y157.49
G1 F2640 X139.49 Y161.38 E198.89734
G0 F6000 X139.00 Y161.16
G1 F2640 X143.16 Y157.00 E199.14188
G0 F6000 X142.88 Y156.58
G1 F2640 X138.58 Y160.88 E199.39432
G0 F6000 X138.22 Y160.53
G1 F2640 X142.53 Y156.22 E199.64802
G0 F6000 X142.14 Y155.91
G1 F2640 X137.91 Y160.13 E199.89629
G0 F6000 X137.66 Y159.67
G1 F2640 X141.68 Y155.66 E200.13215
G0 F6000 X141.13 Y155.50
G1 F2640 X137.50 Y159.13 E200.34585
G0 F6000 X137.43 Y158.50
G1 F2640 X140.50 Y155.43 E200.52620
G0 F6000 X139.66 Y155.56
G1 F2640 X137.56 Y157.65 E200.64918
G0 F6000 X141.65 Y161.34
G1 F2640 X143.35 Y159.65 E200.74875
G0 F6000 X141.13 Y149.69
;TYPE:WALL-INNER
G1 F2640 X140.50 Y149.75 E200.77510
G1 X139.87 Y149.69 E200.80129
G1 X139.26 Y149.50 E200.82793
G1 X138.72 Y149.21 E200.85339
G1 X138.22 Y148.81 E200.87973
G1 X137.82 Y148.33 E200.90607
G1 X137.50 Y147.74 E200.93380
G1 X137.31 Y147.13 E200.96036
G1 X137.25 Y146.50 E200.98668
G1 X137.31 Y145.87 E201.01287
G1 X137.50 Y145.26 E201.03954
G1 X137.79 Y144.72 E201.06501
G1 X138.19 Y144.22 E201.09135
G1 X138.68 Y143.82 E201.11768
G1 X139.26 Y143.50 E201.14542
G1 X139.87 Y143.31 E201.17198
G1 X140.50 Y143.25 E201.19830
G1 X141.13 Y143.31 E201.22449
G1 X141.74 Y143.50 E201.25116
G1 X142.28 Y143.79 E201.27663
G1 X142.78 Y144.19 E201.30297
G1 X143.18 Y144.68 E201.32930
G1 X143.50 Y145.26 E201.35704
G1 X143.69 Y145.87 E201.38359
G1 X143.75 Y146.50 E201.40987
G1 X143.69 Y147.13 E201.43614
G1 X143.50 Y147.74 E201.46277
G1 X143.21 Y148.28 E201.48824
G1 X142.81 Y148.78 E201.51458
G1 X142.33 Y149.18 E201.54091
G1 X141.74 Y149.50 E201.56865
G1 X141.13 Y149.69 E201.59521
G0 F6000 X141.23 Y150.18
;TYPE:WALL-OUTER
G1 F2640 X140.50 Y150.25 E201.62570
G1 X139.78 Y150.18 E201.65615
G1 X139.07 Y149.97 E201.68655
G1 X138.44 Y149.63 E201.71634
G1 X137.87 Y149.17 E201.74679
G1 X137.40 Y148.61 E201.77723
G1 X137.04 Y147.94 E201.80899
G1 X136.82 Y147.23 E201.83954
G1 X136.75 Y146.50 E201.87000
G1 X136.82 Y145.78 E201.90049
G1 X137.03 Y145.07 E201.93089
G1 X137.37 Y144.44 E201.96068
G1 X137.83 Y143.87 E201.99114
G1 X138.39 Y143.40 E202.02157
G1 X139.06 Y143.04 E202.05333
G1 X139.77 Y142.82 E202.08388
G1 X140.50 Y142.75 E202.11434
G1 X141.23 Y142.82 E202.14484
G1 X141.93 Y143.03 E202.17523
G1 X142.56 Y143.37 E202.20503
G1 X143.13 Y143.83 E202.23548
G1 X143.60 Y144.39 E202.26592
G1 X143.96 Y145.06 E202.29767
G1 X144.18 Y145.77 E202.32823
G1 X144.25 Y146.50 E202.35872
G1 X144.18 Y147.23 E202.38917
G1 X143.97 Y147.93 E202.41957
G1 X143.63 Y148.56 E202.44936
G1 X143.17 Y149.13 E202.47981
G1 X142.61 Y149.60 E202.51025
G1 X141.94 Y149.96 E202.54201
G1 X141.23 Y150.18 E202.57256
G0 F6000 X140.72 Y149.55
;TYPE:FILL
G1 F2640 X143.55 Y146.72 E202.73901
G0 F6000 X143.52 Y146.03
G1 F2640 X140.03 Y149.53 E202.94421
G0 F6000 X139.47 Y149.38
G1 F2640 X143.38 Y145.47 E203.17410
G0 F6000 X143.15 Y144.99
G1 F2640 X138.99 Y149.16 E203.41899
G0 F6000 X138.57 Y148.87
G1 F2640 X142.87 Y144.57 E203.67158
G0 F6000 X142.52 Y144.21
G1 F2640 X138.21 Y148.52 E203.92511
G0 F6000 X137.91 Y148.12
G1 F2640 X142.12 Y143.90 E204.17299
G0 F6000 X141.66 Y143.66
G1 F2640 X137.66 Y147.66 E204.40826
G0 F6000 X137.49 Y147.12
G1 F2640 X141.12 Y143.49 E204.62131
G0 F6000 X140.47 Y143.43
G1 F2640 X137.43 Y146.47 E204.80014
G0 F6000 X137.57 Y145.62
G1 F2640 X139.62 Y143.57 E204.92073
G0 F6000 X143.35 Y147.62
G1 F2640 X141.62 Y149.35 E205.02263
;LAYER:2
G0 F6000 X141.74 Y149.50 Z0.70
;TYPE:WALL-INNER
G1 F2640 X141.14 Y149.68 E205.04892
G1 X140.50 Y149.75 E205.07561
G1 X139.87 Y149.69 E205.10180
G1 X139.26 Y149.50 E205.12830
G1 X138.70 Y149.20 E205.15473
G1 X138.21 Y148.80 E205.18129
G1 X137.80 Y148.31 E205.20761
G1 X137.50 Y147.74 E205.23428
G1 X137.32 Y147.13 E205.26074
G1 X137.25 Y146.49 E205.28743
G1 X137.31 Y145.88 E205.31324
G1 X137.50 Y145.26 E205.33997
G1 X137.80 Y144.70 E205.36640
G1 X138.21 Y144.21 E205.39296
G1 X138.69 Y143.80 E205.41928
G1 X139.26 Y143.50 E205.44595
G1 X139.87 Y143.32 E205.47241
G1 X140.51 Y143.25 E205.49910
G1 X141.13 Y143.31 E205.52491
G1 X141.74 Y143.50 E205.55164
G1 X142.30 Y143.80 E205.57807
G1 X142.80 Y144.21 E205.60463
G1 X143.20 Y144.69 E205.63094
G1 X143.50 Y145.26 E205.65762
G1 X143.68 Y145.87 E205.68391
G1 X143.75 Y146.50 E205.71047
G1 X143.69 Y147.13 E205.73679
G1 X143.50 Y147.74 E205.76329
G1 X143.20 Y148.30 E205.78972
G1 X142.80 Y148.80 E205.81628
G1 X142.31 Y149.20 E205.84260
G1 X141.74 Y149.50 E205.86927
G0 F6000 X141.95 Y149.96
;TYPE:WALL-OUTER
G1 F2640 X141.25 Y150.17 E205.89982
G1 X140.52 Y150.25 E205.93036
G1 X140.50 Y150.25 E205.93116
G1 X139.79 Y150.18 E205.96085
G1 X139.77 Y150.18 E205.96148
G1 X139.08 Y149.97 E205.99137
G1 X138.43 Y149.63 E206.02195
G1 X137.85 Y149.15 E206.05324
G1 X137.38 Y148.59 E206.08370
G1 X137.05 Y147.95 E206.11362
G1 X136.83 Y147.25 E206.14417
G1 X136.82 Y147.23 E206.14492
G1 X136.75 Y146.52 E206.17475
G1 X136.75 Y146.50 E206.17550
G1 X136.82 Y145.79 E206.20524
G1 X136.82 Y145.77 E206.20586
G1 X137.03 Y145.09 E206.23563
G1 X137.37 Y144.44 E206.26618
G1 X137.85 Y143.85 E206.29763
G1 X138.42 Y143.38 E206.32808
G1 X139.05 Y143.05 E206.35801
G1 X139.75 Y142.83 E206.38856
G1 X139.77 Y142.82 E206.38931
