;-- START GCODE --
;Sliced for Type A Machines Series 1
;Sliced at: Wed 17-08-2016 09:24:00
;Basic settings: Layer height: 0.2 Walls: 1.5 Fill: 40
;Print Speed: 100 Support: 0
;Retraction Speed: 40 Retraction Distance: 1.2
;Print time: #P_TIME#
;Filament used: #F_AMNT#m #F_WGHT#g
;Filament cost: #F_COST#
M106 S255	 ;start with the fan on
G21        ;metric values
G90        ;absolute positioning
M106 S255    ;start with the fan on
G28     ;move to endstops
G29		;allows for auto-levelling
G1 X150 Y5  Z15.0 F6000 ;center and move the platform down 15mm
M109 S220 ;Heat To temp
G92 E0                  ;zero the extruded length
G1 F200 E30              ;extrude 30mm of feed stock
G92 E0                  ;zero the extruded length again
G1 X175 Y25  Z0 F6000 ;remove bugger
G1 X220 F6000 ;remove bugger
G1 X150 Y150  Z15 F6000 ;recenter and begin
G1 F6000

;Layer count: 74
;LAYER:0
M106 S255
G0 F6000 X68.19 Y146.18 Z0.30
;TYPE:SKIRT
G1 F2700 X68.19 Y172.65 E1.65130
G1 X236.81 Y172.65 E12.16679
G1 X236.81 Y146.18 E13.81809
G1 X217.31 Y146.18 E15.03435
G1 X217.27 Y138.30 E15.52534
G1 X217.27 Y136.57 E15.63335
G1 X87.73 Y136.57 E23.71163
G1 X87.73 Y138.29 E23.81890
G1 X87.73 Y146.18 E24.31063
G1 X68.19 Y146.18 E25.52920
G0 F6000 X67.69 Y145.68
G1 F2700 X67.69 Y173.15 E27.24286
G1 X237.31 Y173.15 E37.82071
G1 X237.31 Y145.68 E39.53437
G1 X217.80 Y145.68 E40.75076
G1 X217.77 Y138.30 E41.21063
G1 X217.77 Y136.07 E41.34976
G1 X87.23 Y136.07 E49.49034
G1 X87.23 Y138.29 E49.62873
G1 X87.23 Y145.68 E50.08934
G1 X67.69 Y145.68 E51.30791
G0 F6000 X67.19 Y145.18
G1 F2700 X67.19 Y173.65 E53.08393
G1 X237.81 Y173.65 E63.72414
G1 X237.81 Y145.18 E65.50017
G1 X218.30 Y145.18 E66.71674
G1 X218.27 Y138.30 E67.14549
G1 X218.27 Y135.57 E67.31574
G1 X86.73 Y135.57 E75.51869
G1 X86.73 Y138.29 E75.68825
G1 X86.73 Y145.18 E76.11768
G1 X67.19 Y145.18 E77.33625
G0 F6000 X66.69 Y144.68
G1 F2700 X66.69 Y174.15 E79.17464
G1 X238.31 Y174.15 E89.87722
G1 X238.31 Y144.68 E91.71561
G1 X218.80 Y144.68 E92.93230
G1 X218.77 Y138.30 E93.33000
G1 X218.77 Y135.07 E93.53130
G1 X86.23 Y135.07 E101.79655
G1 X86.23 Y138.29 E101.99723
G1 X86.23 Y144.68 E102.39554
G1 X66.69 Y144.68 E103.61411
G0 F6000 X66.19 Y144.18
G1 F2700 X66.19 Y174.65 E105.51487
G1 X238.81 Y174.65 E116.27980
G1 X238.81 Y144.18 E118.18056
G1 X219.30 Y144.18 E119.39738
G1 X219.27 Y138.30 E119.76395
G1 X219.27 Y134.57 E119.99638
G1 X85.73 Y134.57 E128.32399
G1 X85.73 Y138.29 E128.55585
G1 X85.73 Y144.18 E128.92298
G1 X66.19 Y144.18 E130.14155
G0 F6000 X65.69 Y143.68
G1 F2700 X65.69 Y175.15 E132.10467
G1 X239.31 Y175.15 E142.93196
G1 X239.31 Y143.68 E144.89508
G1 X219.79 Y143.68 E146.11209
G1 X219.77 Y138.30 E146.44754
G1 X219.77 Y134.07 E146.71109
G1 X85.23 Y134.07 E155.10106
G1 X85.23 Y138.29 E155.36411
G1 X85.23 Y143.68 E155.70005
G1 X65.69 Y143.68 E156.91862
G0 F6000 X65.19 Y143.18
G1 F2700 X65.19 Y175.65 E158.94410
G1 X239.81 Y175.65 E169.83376
G1 X239.81 Y143.18 E171.85924
G1 X220.29 Y143.18 E173.07637
G1 X220.27 Y138.29 E173.38071
G1 X220.27 Y133.57 E173.67537
G1 X84.73 Y133.57 E182.12765
G1 X84.73 Y138.29 E182.42181
G1 X84.73 Y143.18 E182.72664
G1 X65.19 Y143.18 E183.94521
G0 F6000 X64.69 Y142.68
G1 F2700 X64.69 Y176.15 E186.03305
G1 X240.31 Y176.15 E196.98507
G1 X240.31 Y142.68 E199.07292
G1 X220.79 Y142.68 E200.29017
G1 X220.77 Y138.29 E200.56339
G1 X220.77 Y133.07 E200.88917
G1 X84.23 Y133.07 E209.40381
G1 X84.23 Y138.29 E209.72915
G1 X84.23 Y142.68 E210.00280
G1 X64.69 Y142.68 E211.22137
G0 F6000 X64.19 Y142.18
G1 F2700 X64.19 Y176.65 E213.37158
G1 X240.81 Y176.65 E224.38596
G1 X240.81 Y142.18 E226.53617
G1 X221.29 Y142.18 E227.75361
G1 X221.27 Y138.29 E227.99571
G1 X221.27 Y132.57 E228.35261
G1 X83.73 Y132.57 E236.92961
G1 X83.73 Y138.29 E237.28613
G1 X83.73 Y142.18 E237.52860
G1 X64.19 Y142.18 E238.74717
G0 F6000 X63.69 Y141.68
G1 F2700 X63.69 Y177.15 E240.95974
G1 X241.31 Y177.15 E252.03649
G1 X241.31 Y141.68 E254.24905
G1 X221.78 Y141.68 E255.46662
G1 X221.77 Y138.29 E255.67766
G1 X221.77 Y132.07 E256.06562
G1 X83.24 Y132.07 E264.70492
G1 X83.23 Y138.29 E265.09257
G1 X83.23 Y141.68 E265.30391
G1 X63.69 Y141.68 E266.52248
G0 F6000 X63.19 Y141.18
G1 F2700 X63.19 Y177.65 E268.79741
G1 X241.81 Y177.65 E279.93652
G1 X241.81 Y141.18 E282.21145
G1 X222.28 Y141.18 E283.42915
G1 X222.27 Y138.29 E283.60907
G1 X222.27 Y131.57 E284.02815
G1 X82.74 Y131.57 E292.72981
G1 X82.73 Y138.29 E293.14864
G1 X82.73 Y141.18 E293.32880
G1 X63.19 Y141.18 E294.54737
G0 F6000 X62.69 Y140.68
G1 F2700 X62.69 Y178.15 E296.88466
G1 X242.31 Y178.15 E308.08614
G1 X242.31 Y140.68 E310.42343
G1 X222.78 Y140.68 E311.64131
G1 X222.77 Y138.29 E311.79011
G1 X222.77 Y131.07 E312.24031
G1 X82.24 Y131.07 E321.00427
G1 X82.23 Y138.28 E321.45422
G1 X82.23 Y140.68 E321.60327
G1 X62.69 Y140.68 E322.82183
G0 F6000 X62.19 Y140.18
G1 F2700 X62.19 Y178.65 E325.22149
G1 X242.81 Y178.65 E336.48533
G1 X242.81 Y140.18 E338.88498
G1 X223.28 Y140.18 E340.10299
G1 X223.27 Y138.29 E340.22067
G1 X223.27 Y130.57 E340.70198
G1 X81.74 Y130.57 E349.52831
G1 X81.73 Y140.18 E350.12730
G1 X62.19 Y140.18 E351.34581
G0 F6000 X61.69 Y139.68
G1 F2700 X61.69 Y179.15 E353.80783
G1 X243.31 Y179.15 E365.13403
G1 X243.31 Y139.68 E367.59605
G1 X223.78 Y139.68 E368.81418
G1 X223.77 Y138.29 E368.90074
G1 X223.77 Y130.07 E369.41317
G1 X81.24 Y130.07 E378.30186
G1 X81.23 Y139.68 E378.90086
G1 X61.69 Y139.68 E380.11936
G0 F6000 X61.19 Y139.18
G1 F2700 X61.19 Y179.65 E382.64374
G1 X243.81 Y179.65 E394.03231
G1 X243.81 Y139.18 E396.55669
G1 X224.27 Y139.18 E397.77501
G1 X224.27 Y138.29 E397.83045
G1 X224.27 Y129.57 E398.37400
G1 X80.74 Y129.57 E407.32499
G1 X80.73 Y139.18 E407.92398
G1 X61.19 Y139.18 E409.14255
G0 F6000 X57.58 Y120.68
G1 F2700 X247.42 Y120.68 E420.98137
G1 X247.42 Y184.32 E424.95001
G1 X57.58 Y184.32 E436.78883
G1 X57.58 Y120.68 E440.75747
G0 F6000 X57.08 Y120.18
G1 F2700 X247.92 Y120.18 E452.65866
G1 X247.92 Y184.82 E456.68966
G1 X57.08 Y184.82 E468.59084
G1 X57.08 Y120.18 E472.62185
G0 F6000 X56.58 Y119.68
G1 F2700 X248.42 Y119.68 E484.58539
G1 X248.42 Y185.32 E488.67876
G1 X56.58 Y185.32 E500.64231
G1 X56.58 Y119.68 E504.73567
G0 F6000 X56.08 Y119.18
G1 F2700 X248.92 Y119.18 E516.76158
G1 X248.92 Y185.82 E520.91731
G1 X56.08 Y185.82 E532.94322
G1 X56.08 Y119.18 E537.09895
G0 F6000 X55.58 Y118.68
G1 F2700 X249.42 Y118.68 E549.18722
G1 X249.42 Y186.32 E553.40531
G1 X55.58 Y186.32 E565.49358
G1 X55.58 Y118.68 E569.71167
G0 F6000 X55.08 Y118.18
G1 F2700 X249.92 Y118.18 E581.86231
G1 X249.92 Y186.82 E586.14276
G1 X55.08 Y186.82 E598.29340
G1 X55.08 Y118.18 E602.57385
G0 F6000 X54.58 Y117.68
G1 F2700 X250.42 Y117.68 E614.78685
G1 X250.42 Y187.32 E619.12967
G1 X54.58 Y187.32 E631.34266
G1 X54.58 Y117.68 E635.68548
G0 F6000 X54.08 Y117.18
G1 F2700 X250.92 Y117.18 E647.96084
G1 X250.92 Y187.82 E652.36602
G1 X54.08 Y187.82 E664.64138
G1 X54.08 Y117.18 E669.04656
G0 F6000 X53.58 Y116.68
G1 F2700 X251.42 Y116.68 E681.38428
G1 X251.42 Y188.32 E685.85182
G1 X53.58 Y188.32 E698.18955
G1 X53.58 Y116.68 E702.65709
G0 F6000 X53.08 Y116.18
G1 F2700 X251.92 Y116.18 E715.05718
G1 X251.92 Y188.82 E719.58708
G1 X53.08 Y188.82 E731.98717
G1 X53.08 Y116.18 E736.51707
G0 F6000 X52.58 Y115.68
G1 F2700 X252.42 Y115.68 E748.97952
G1 X252.42 Y189.32 E753.57179
G1 X52.58 Y189.32 E766.03424
G1 X52.58 Y115.68 E770.62650
G0 F6000 X52.08 Y115.18
G1 F2700 X252.92 Y115.18 E783.15131
G1 X252.92 Y189.82 E787.80595
G1 X52.08 Y189.82 E800.33076
G1 X52.08 Y115.18 E804.98539
G0 F6000 X51.58 Y114.68
G1 F2700 X253.42 Y114.68 E817.57256
G1 X253.42 Y190.32 E822.28956
G1 X51.58 Y190.32 E834.87673
G1 X51.58 Y114.68 E839.59372
G0 F6000 X51.08 Y114.18
G1 F2700 X253.92 Y114.18 E852.24326
G1 X253.92 Y190.82 E857.02262
G1 X51.08 Y190.82 E869.67215
G1 X51.08 Y114.18 E874.45151
G0 F6000 X50.58 Y113.68
G1 F2700 X254.42 Y113.68 E887.16341
G1 X254.42 Y191.32 E892.00513
G1 X50.58 Y191.32 E904.71703
G1 X50.58 Y113.68 E909.55874
G0 F6000 X59.08 Y122.18
;TYPE:WALL-INNER
G1 F2700 X245.92 Y122.18 E921.21048
G1 X245.92 Y182.82 E924.99203
G1 X59.08 Y182.82 E936.64376
G1 X59.08 Y122.18 E940.42531
G0 F6000 X59.69 Y137.68
G1 F2700 X59.69 Y181.15 E943.13678
G1 X245.31 Y181.15 E954.71243
G1 X245.31 Y137.68 E957.42390
G1 X225.77 Y137.68 E958.64247
G1 X225.77 Y128.07 E959.24147
G1 X79.24 Y128.07 E968.37948
G1 X79.23 Y137.68 E968.97848
G1 X59.69 Y137.68 E970.19711
G0 F6000 X60.19 Y138.18
G1 F2700 X60.19 Y180.65 E972.84621
G1 X244.81 Y180.65 E984.35950
G1 X244.81 Y138.18 E987.00861
G1 X225.27 Y138.18 E988.22718
G1 X225.27 Y128.57 E988.82617
G1 X79.74 Y128.57 E997.90182
G1 X79.73 Y138.18 E998.50082
G1 X60.19 Y138.18 E999.71945
G0 F6000 X58.58 Y121.68
G1 F2700 X246.42 Y121.68 E1011.43354
G1 X246.42 Y183.32 E1015.27746
G1 X58.58 Y183.32 E1026.99155
G1 X58.58 Y121.68 E1030.83547
G0 F6000 X58.08 Y121.18
;TYPE:WALL-OUTER
G1 F2700 X246.92 Y121.18 E1042.61192
G1 X246.92 Y183.82 E1046.51820
G1 X58.08 Y183.82 E1058.29466
G1 X58.08 Y121.18 E1062.20094
G0 F6000 X58.43 Y121.44
G0 X60.69 Y138.32
G0 X60.69 Y138.68
G1 F2700 X60.69 Y180.15 E1064.78768
G1 X244.31 Y180.15 E1076.23861
G1 X244.31 Y138.68 E1078.82535
G1 X224.77 Y138.68 E1080.04379
G1 X224.77 Y129.07 E1080.64279
G1 X80.24 Y129.07 E1089.65614
G1 X80.23 Y138.68 E1090.25513
G1 X60.69 Y138.68 E1091.47370
G0 F6000 X60.78 Y137.50
;TYPE:FILL
G1 F2700 X59.26 Y135.98 E1091.60789
G0 F6000 X59.26 Y135.27
G1 F2700 X61.48 Y137.50 E1091.80448
G0 F6000 X62.19 Y137.50
G1 F2700 X59.26 Y134.56 E1092.06341
G0 F6000 X59.26 Y133.86
G1 F2700 X62.90 Y137.50 E1092.38471
G0 F6000 X63.61 Y137.50
G1 F2700 X59.26 Y133.15 E1092.76839
G0 F6000 X59.26 Y132.44
G1 F2700 X64.31 Y137.50 E1093.21444
G0 F6000 X65.02 Y137.50
G1 F2700 X59.26 Y131.73 E1093.72283
G0 F6000 X59.26 Y131.03
G1 F2700 X65.73 Y137.50 E1094.29358
G0 F6000 X66.43 Y137.50
G1 F2700 X59.26 Y130.32 E1094.92668
G0 F6000 X59.26 Y129.61
G1 F2700 X67.14 Y137.50 E1095.62214
G0 F6000 X67.85 Y137.50
G1 F2700 X59.26 Y128.91 E1096.37999
G0 F6000 X59.26 Y128.20
G1 F2700 X68.56 Y137.50 E1097.20020
G0 F6000 X69.26 Y137.50
G1 F2700 X59.26 Y127.49 E1098.08276
G0 F6000 X59.26 Y126.78
G1 F2700 X69.97 Y137.50 E1099.02772
G0 F6000 X70.68 Y137.50
G1 F2700 X59.26 Y126.08 E1100.03503
G0 F6000 X59.26 Y125.37
G1 F2700 X71.38 Y137.50 E1101.10469
G0 F6000 X72.09 Y137.50
G1 F2700 X59.26 Y124.66 E1102.23671
G0 F6000 X59.26 Y123.96
G1 F2700 X72.80 Y137.50 E1103.43108
G0 F6000 X73.50 Y137.50
G1 F2700 X59.26 Y123.25 E1104.68780
G0 F6000 X59.26 Y122.54
G1 F2700 X74.21 Y137.50 E1106.00688
G0 F6000 X74.92 Y137.50
G1 F2700 X59.78 Y122.36 E1107.34241
G0 F6000 X60.48 Y122.36
G1 F2700 X75.63 Y137.50 E1108.67793
G0 F6000 X76.33 Y137.50
G1 F2700 X61.19 Y122.36 E1110.01346
G0 F6000 X61.90 Y122.36
G1 F2700 X77.04 Y137.50 E1111.34898
G0 F6000 X77.75 Y137.50
G1 F2700 X62.60 Y122.36 E1112.68451
G0 F6000 X63.31 Y122.36
G1 F2700 X78.45 Y137.50 E1114.02003
G0 F6000 X79.06 Y137.39
G1 F2700 X64.02 Y122.36 E1115.34621
G0 F6000 X64.73 Y122.36
G1 F2700 X79.06 Y136.69 E1116.61003
G0 F6000 X79.06 Y135.98
G1 F2700 X65.43 Y122.36 E1117.81159
G0 F6000 X66.14 Y122.36
G1 F2700 X79.06 Y135.27 E1118.95080
G0 F6000 X79.06 Y134.57
G1 F2700 X66.85 Y122.36 E1120.02774
G0 F6000 X67.56 Y122.36
G1 F2700 X79.06 Y133.86 E1121.04237
G0 F6000 X79.06 Y133.15
G1 F2700 X68.26 Y122.36 E1121.99465
G0 F6000 X68.97 Y122.36
G1 F2700 X79.06 Y132.45 E1122.88461
G0 F6000 X79.06 Y131.74
G1 F2700 X69.68 Y122.36 E1123.71232
G0 F6000 X70.38 Y122.36
G1 F2700 X79.06 Y131.03 E1124.47771
G0 F6000 X79.06 Y130.33
G1 F2700 X71.09 Y122.36 E1125.18080
G0 F6000 X71.80 Y122.36
G1 F2700 X79.06 Y129.62 E1125.82153
G0 F6000 X79.06 Y128.91
G1 F2700 X72.50 Y122.36 E1126.39991
G0 F6000 X73.21 Y122.36
G1 F2700 X79.06 Y128.21 E1126.91602
G0 F6000 X79.46 Y127.89
G1 F2700 X73.92 Y122.36 E1127.40444
G0 F6000 X74.63 Y122.36
G1 F2700 X80.16 Y127.89 E1127.89286
G0 F6000 X80.87 Y127.89
G1 F2700 X75.33 Y122.36 E1128.38128
G0 F6000 X76.04 Y122.36
G1 F2700 X81.58 Y127.89 E1128.86970
G0 F6000 X82.29 Y127.89
G1 F2700 X76.75 Y122.36 E1129.35816
G0 F6000 X77.45 Y122.36
G1 F2700 X82.99 Y127.89 E1129.84658
G0 F6000 X83.70 Y127.89
G1 F2700 X78.16 Y122.36 E1130.33500
G0 F6000 X78.87 Y122.36
G1 F2700 X84.41 Y127.89 E1130.82342
G0 F6000 X85.11 Y127.89
G1 F2700 X79.58 Y122.36 E1131.31184
G0 F6000 X80.28 Y122.36
G1 F2700 X85.82 Y127.89 E1131.80026
G0 F6000 X86.53 Y127.89
G1 F2700 X80.99 Y122.36 E1132.28868
G0 F6000 X81.70 Y122.36
G1 F2700 X87.23 Y127.89 E1132.77710
G0 F6000 X87.94 Y127.89
G1 F2700 X82.40 Y122.36 E1133.26552
G0 F6000 X83.11 Y122.36
G1 F2700 X88.65 Y127.89 E1133.75394
G0 F6000 X89.36 Y127.89
G1 F2700 X83.82 Y122.36 E1134.24236
G0 F6000 X84.53 Y122.36
G1 F2700 X90.06 Y127.89 E1134.73078
G0 F6000 X90.77 Y127.89
G1 F2700 X85.23 Y122.36 E1135.21920
G0 F6000 X85.94 Y122.36
G1 F2700 X91.48 Y127.89 E1135.70762
G0 F6000 X92.19 Y127.89
G1 F2700 X86.65 Y122.36 E1136.19604
G0 F6000 X87.35 Y122.36
G1 F2700 X92.89 Y127.89 E1136.68446
G0 F6000 X93.60 Y127.89
G1 F2700 X88.06 Y122.36 E1137.17288
G0 F6000 X88.77 Y122.36
G1 F2700 X94.31 Y127.89 E1137.66130
G0 F6000 X95.01 Y127.89
G1 F2700 X89.47 Y122.36 E1138.14972
G0 F6000 X90.18 Y122.36
G1 F2700 X95.72 Y127.89 E1138.63818
G0 F6000 X96.43 Y127.89
G1 F2700 X90.89 Y122.36 E1139.12660
G0 F6000 X91.60 Y122.36
G1 F2700 X97.14 Y127.89 E1139.61502
G0 F6000 X97.84 Y127.89
G1 F2700 X92.30 Y122.36 E1140.10344
G0 F6000 X93.01 Y122.36
G1 F2700 X98.55 Y127.89 E1140.59186
G0 F6000 X99.26 Y127.89
G1 F2700 X93.72 Y122.36 E1141.08028
G0 F6000 X94.42 Y122.36
G1 F2700 X99.96 Y127.89 E1141.56870
G0 F6000 X100.67 Y127.89
G1 F2700 X95.13 Y122.36 E1142.05712
G0 F6000 X95.84 Y122.36
G1 F2700 X101.38 Y127.89 E1142.54554
G0 F6000 X102.08 Y127.89
G1 F2700 X96.55 Y122.36 E1143.03400
G0 F6000 X97.25 Y122.36
G1 F2700 X102.79 Y127.89 E1143.52242
G0 F6000 X103.50 Y127.89
G1 F2700 X97.96 Y122.36 E1144.01084
G0 F6000 X98.67 Y122.36
G1 F2700 X104.21 Y127.89 E1144.49926
G0 F6000 X104.91 Y127.89
G1 F2700 X99.38 Y122.36 E1144.98768
G0 F6000 X100.08 Y122.36
G1 F2700 X105.62 Y127.89 E1145.47610
G0 F6000 X106.33 Y127.89
G1 F2700 X100.79 Y122.36 E1145.96452
G0 F6000 X101.50 Y122.36
G1 F2700 X107.03 Y127.89 E1146.45294
G0 F6000 X107.74 Y127.89
G1 F2700 X102.20 Y122.36 E1146.94136
G0 F6000 X102.91 Y122.36
G1 F2700 X108.45 Y127.89 E1147.42978
G0 F6000 X109.16 Y127.89
G1 F2700 X103.62 Y122.36 E1147.91820
G0 F6000 X104.33 Y122.36
G1 F2700 X109.86 Y127.89 E1148.40662
G0 F6000 X110.57 Y127.89
G1 F2700 X105.03 Y122.36 E1148.89504
G0 F6000 X105.74 Y122.36
G1 F2700 X111.28 Y127.89 E1149.38346
G0 F6000 X111.98 Y127.89
G1 F2700 X106.45 Y122.36 E1149.87188
G0 F6000 X107.15 Y122.36
G1 F2700 X112.69 Y127.89 E1150.36030
G0 F6000 X113.40 Y127.89
G1 F2700 X107.86 Y122.36 E1150.84872
G0 F6000 X108.57 Y122.36
G1 F2700 X114.11 Y127.89 E1151.33714
G0 F6000 X114.81 Y127.89
G1 F2700 X109.27 Y122.36 E1151.82556
G0 F6000 X109.98 Y122.36
G1 F2700 X115.52 Y127.89 E1152.31402
G0 F6000 X116.23 Y127.89
G1 F2700 X110.69 Y122.36 E1152.80244
G0 F6000 X111.40 Y122.36
G1 F2700 X116.93 Y127.89 E1153.29086
G0 F6000 X117.64 Y127.89
G1 F2700 X112.10 Y122.36 E1153.77928
G0 F6000 X112.81 Y122.36
G1 F2700 X118.35 Y127.89 E1154.26770
G0 F6000 X119.06 Y127.89
G1 F2700 X113.52 Y122.36 E1154.75612
G0 F6000 X114.22 Y122.36
G1 F2700 X119.76 Y127.89 E1155.24454
G0 F6000 X120.47 Y127.89
G1 F2700 X114.93 Y122.36 E1155.73296
G0 F6000 X115.64 Y122.36
G1 F2700 X121.18 Y127.89 E1156.22138
G0 F6000 X121.88 Y127.89
G1 F2700 X116.34 Y122.36 E1156.70980
G0 F6000 X117.05 Y122.36
G1 F2700 X122.59 Y127.89 E1157.19822
G0 F6000 X123.30 Y127.89
G1 F2700 X117.76 Y122.36 E1157.68664
G0 F6000 X118.47 Y122.36
G1 F2700 X124.00 Y127.89 E1158.17506
G0 F6000 X124.71 Y127.89
G1 F2700 X119.17 Y122.36 E1158.66348
G0 F6000 X119.88 Y122.36
G1 F2700 X125.42 Y127.89 E1159.15190
G0 F6000 X126.13 Y127.89
G1 F2700 X120.59 Y122.36 E1159.64032
G0 F6000 X121.30 Y122.36
G1 F2700 X126.83 Y127.89 E1160.12874
G0 F6000 X127.54 Y127.89
G1 F2700 X122.00 Y122.36 E1160.61716
G0 F6000 X122.71 Y122.36
G1 F2700 X128.25 Y127.89 E1161.10558
G0 F6000 X128.96 Y127.89
G1 F2700 X123.42 Y122.36 E1161.59400
G0 F6000 X124.12 Y122.36
G1 F2700 X129.66 Y127.89 E1162.08242
G0 F6000 X130.37 Y127.89
G1 F2700 X124.83 Y122.36 E1162.57084
G0 F6000 X125.54 Y122.36
G1 F2700 X131.08 Y127.89 E1163.05926
G0 F6000 X131.78 Y127.89
G1 F2700 X126.25 Y122.36 E1163.54768
G0 F6000 X126.95 Y122.36
G1 F2700 X132.49 Y127.89 E1164.03610
G0 F6000 X133.20 Y127.89
G1 F2700 X127.66 Y122.36 E1164.52452
G0 F6000 X128.37 Y122.36
G1 F2700 X133.90 Y127.89 E1165.01294
G0 F6000 X134.61 Y127.89
G1 F2700 X129.07 Y122.36 E1165.50136
G0 F6000 X129.78 Y122.36
G1 F2700 X135.32 Y127.89 E1165.98982
G0 F6000 X136.03 Y127.89
G1 F2700 X130.49 Y122.36 E1166.47824
G0 F6000 X131.19 Y122.36
G1 F2700 X136.73 Y127.89 E1166.96666
G0 F6000 X137.44 Y127.89
G1 F2700 X131.90 Y122.36 E1167.45508
G0 F6000 X132.61 Y122.36
G1 F2700 X138.15 Y127.89 E1167.94350
G0 F6000 X138.85 Y127.89
G1 F2700 X133.32 Y122.36 E1168.43192
G0 F6000 X134.02 Y122.36
G1 F2700 X139.56 Y127.89 E1168.92034
G0 F6000 X140.27 Y127.89
G1 F2700 X134.73 Y122.36 E1169.40876
G0 F6000 X135.44 Y122.36
G1 F2700 X140.97 Y127.89 E1169.89718
G0 F6000 X141.68 Y127.89
G1 F2700 X136.14 Y122.36 E1170.38560
G0 F6000 X136.85 Y122.36
G1 F2700 X142.39 Y127.89 E1170.87402
G0 F6000 X143.10 Y127.89
G1 F2700 X137.56 Y122.36 E1171.36244
G0 F6000 X138.27 Y122.36
G1 F2700 X143.80 Y127.89 E1171.85086
G0 F6000 X144.51 Y127.89
G1 F2700 X138.97 Y122.36 E1172.33928
G0 F6000 X139.68 Y122.36
G1 F2700 X145.22 Y127.89 E1172.82770
G0 F6000 X145.93 Y127.89
G1 F2700 X140.39 Y122.36 E1173.31612
G0 F6000 X141.09 Y122.36
G1 F2700 X146.63 Y127.89 E1173.80454
G0 F6000 X147.34 Y127.89
G1 F2700 X141.80 Y122.36 E1174.29296
G0 F6000 X142.51 Y122.36
G1 F2700 X148.05 Y127.89 E1174.78138
G0 F6000 X148.75 Y127.89
G1 F2700 X143.22 Y122.36 E1175.26984
G0 F6000 X143.92 Y122.36
G1 F2700 X149.46 Y127.89 E1175.75826
G0 F6000 X150.17 Y127.89
G1 F2700 X144.63 Y122.36 E1176.24668
G0 F6000 X145.34 Y122.36
G1 F2700 X150.88 Y127.89 E1176.73510
G0 F6000 X151.58 Y127.89
G1 F2700 X146.04 Y122.36 E1177.22352
G0 F6000 X146.75 Y122.36
G1 F2700 X152.29 Y127.89 E1177.71194
G0 F6000 X153.00 Y127.89
G1 F2700 X147.46 Y122.36 E1178.20036
G0 F6000 X148.16 Y122.36
G1 F2700 X153.70 Y127.89 E1178.68878
G0 F6000 X154.41 Y127.89
G1 F2700 X148.87 Y122.36 E1179.17720
G0 F6000 X149.58 Y122.36
G1 F2700 X155.12 Y127.89 E1179.66566
G0 F6000 X155.82 Y127.89
G1 F2700 X150.29 Y122.36 E1180.15408
G0 F6000 X150.99 Y122.36
G1 F2700 X156.53 Y127.89 E1180.64250
G0 F6000 X157.24 Y127.89
G1 F2700 X151.70 Y122.36 E1181.13092
G0 F6000 X152.41 Y122.36
G1 F2700 X157.95 Y127.89 E1181.61934
G0 F6000 X158.65 Y127.89
G1 F2700 X153.12 Y122.36 E1182.10776
G0 F6000 X153.82 Y122.36
G1 F2700 X159.36 Y127.89 E1182.59618
G0 F6000 X160.07 Y127.89
G1 F2700 X154.53 Y122.36 E1183.08460
G0 F6000 X155.24 Y122.36
G1 F2700 X160.77 Y127.89 E1183.57302
G0 F6000 X161.48 Y127.89
G1 F2700 X155.94 Y122.36 E1184.06144
G0 F6000 X156.65 Y122.36
G1 F2700 X162.19 Y127.89 E1184.54986
G0 F6000 X162.90 Y127.89
G1 F2700 X157.36 Y122.36 E1185.03828
G0 F6000 X158.06 Y122.36
G1 F2700 X163.60 Y127.89 E1185.52670
G0 F6000 X164.31 Y127.89
G1 F2700 X158.77 Y122.36 E1186.01512
G0 F6000 X159.48 Y122.36
G1 F2700 X165.02 Y127.89 E1186.50354
G0 F6000 X165.72 Y127.89
G1 F2700 X160.19 Y122.36 E1186.99196
G0 F6000 X160.89 Y122.36
G1 F2700 X166.43 Y127.89 E1187.48038
G0 F6000 X167.14 Y127.89
G1 F2700 X161.60 Y122.36 E1187.96880
G0 F6000 X162.31 Y122.36
G1 F2700 X167.84 Y127.89 E1188.45722
G0 F6000 X168.55 Y127.89
G1 F2700 X163.01 Y122.36 E1188.94568
G0 F6000 X163.72 Y122.36
G1 F2700 X169.26 Y127.89 E1189.43410
G0 F6000 X169.97 Y127.89
G1 F2700 X164.43 Y122.36 E1189.92252
G0 F6000 X165.14 Y122.36
G1 F2700 X170.67 Y127.89 E1190.41094
G0 F6000 X171.38 Y127.89
G1 F2700 X165.84 Y122.36 E1190.89936
G0 F6000 X166.55 Y122.36
G1 F2700 X172.09 Y127.89 E1191.38778
G0 F6000 X172.79 Y127.89
G1 F2700 X167.26 Y122.36 E1191.87620
G0 F6000 X167.96 Y122.36
G1 F2700 X173.50 Y127.89 E1192.36462
G0 F6000 X174.21 Y127.89
G1 F2700 X168.67 Y122.36 E1192.85304
G0 F6000 X169.38 Y122.36
G1 F2700 X174.92 Y127.89 E1193.34150
G0 F6000 X175.62 Y127.89
G1 F2700 X170.09 Y122.36 E1193.82992
G0 F6000 X170.79 Y122.36
G1 F2700 X176.33 Y127.89 E1194.31834
G0 F6000 X177.04 Y127.89
G1 F2700 X171.50 Y122.36 E1194.80676
G0 F6000 X172.21 Y122.36
G1 F2700 X177.75 Y127.89 E1195.29518
G0 F6000 X178.45 Y127.89
G1 F2700 X172.91 Y122.36 E1195.78360
G0 F6000 X173.62 Y122.36
G1 F2700 X179.16 Y127.89 E1196.27202
G0 F6000 X179.87 Y127.89
G1 F2700 X174.33 Y122.36 E1196.76044
G0 F6000 X175.03 Y122.36
G1 F2700 X180.57 Y127.89 E1197.24886
G0 F6000 X181.28 Y127.89
G1 F2700 X175.74 Y122.36 E1197.73728
G0 F6000 X176.45 Y122.36
G1 F2700 X181.99 Y127.89 E1198.22570
G0 F6000 X182.69 Y127.89
G1 F2700 X177.16 Y122.36 E1198.71412
G0 F6000 X177.86 Y122.36
G1 F2700 X183.40 Y127.89 E1199.20254
G0 F6000 X184.11 Y127.89
G1 F2700 X178.57 Y122.36 E1199.69096
G0 F6000 X179.28 Y122.36
G1 F2700 X184.82 Y127.89 E1200.17938
G0 F6000 X185.52 Y127.89
G1 F2700 X179.99 Y122.36 E1200.66780
G0 F6000 X180.69 Y122.36
G1 F2700 X186.23 Y127.89 E1201.15622
G0 F6000 X186.94 Y127.89
G1 F2700 X181.40 Y122.36 E1201.64464
G0 F6000 X182.11 Y122.36
G1 F2700 X187.64 Y127.89 E1202.13306
G0 F6000 X188.35 Y127.89
G1 F2700 X182.81 Y122.36 E1202.62152
G0 F6000 X183.52 Y122.36
G1 F2700 X189.06 Y127.89 E1203.10994
G0 F6000 X189.77 Y127.89
G1 F2700 X184.23 Y122.36 E1203.59836
G0 F6000 X184.94 Y122.36
G1 F2700 X190.47 Y127.89 E1204.08678
G0 F6000 X191.18 Y127.89
G1 F2700 X185.64 Y122.36 E1204.57520
G0 F6000 X186.35 Y122.36
G1 F2700 X191.89 Y127.89 E1205.06362
G0 F6000 X192.59 Y127.89
G1 F2700 X187.06 Y122.36 E1205.55204
G0 F6000 X187.76 Y122.36
G1 F2700 X193.30 Y127.89 E1206.04046
G0 F6000 X194.01 Y127.89
G1 F2700 X188.47 Y122.36 E1206.52888
G0 F6000 X189.18 Y122.36
G1 F2700 X194.72 Y127.89 E1207.01730
G0 F6000 X195.42 Y127.89
G1 F2700 X189.88 Y122.36 E1207.50572
G0 F6000 X190.59 Y122.36
G1 F2700 X196.13 Y127.89 E1207.99414
G0 F6000 X196.84 Y127.89
G1 F2700 X191.30 Y122.36 E1208.48256
G0 F6000 X192.01 Y122.36
G1 F2700 X197.54 Y127.89 E1208.97098
G0 F6000 X198.25 Y127.89
G1 F2700 X192.71 Y122.36 E1209.45940
G0 F6000 X193.42 Y122.36
G1 F2700 X198.96 Y127.89 E1209.94782
G0 F6000 X199.66 Y127.89
G1 F2700 X194.13 Y122.36 E1210.43624
G0 F6000 X194.83 Y122.36
G1 F2700 X200.37 Y127.89 E1210.92466
G0 F6000 X201.08 Y127.89
G1 F2700 X195.54 Y122.36 E1211.41308
G0 F6000 X196.25 Y122.36
G1 F2700 X201.79 Y127.89 E1211.90150
G0 F6000 X202.49 Y127.89
G1 F2700 X196.96 Y122.36 E1212.38992
G0 F6000 X197.66 Y122.36
G1 F2700 X203.20 Y127.89 E1212.87834
G0 F6000 X203.91 Y127.89
G1 F2700 X198.37 Y122.36 E1213.36676
G0 F6000 X199.08 Y122.36
G1 F2700 X204.62 Y127.89 E1213.85518
G0 F6000 X205.32 Y127.89
G1 F2700 X199.78 Y122.36 E1214.34360
G0 F6000 X200.49 Y122.36
G1 F2700 X206.03 Y127.89 E1214.83202
G0 F6000 X206.74 Y127.89
G1 F2700 X201.20 Y122.36 E1215.32044
G0 F6000 X201.91 Y122.36
G1 F2700 X207.44 Y127.89 E1215.80886
G0 F6000 X208.15 Y127.89
G1 F2700 X202.61 Y122.36 E1216.29732
G0 F6000 X203.32 Y122.36
G1 F2700 X208.86 Y127.89 E1216.78574
G0 F6000 X209.56 Y127.89
G1 F2700 X204.03 Y122.36 E1217.27416
G0 F6000 X204.73 Y122.36
G1 F2700 X210.27 Y127.89 E1217.76258
G0 F6000 X210.98 Y127.89
G1 F2700 X205.44 Y122.36 E1218.25100
G0 F6000 X206.15 Y122.36
G1 F2700 X211.69 Y127.89 E1218.73942
G0 F6000 X212.39 Y127.89
G1 F2700 X206.85 Y122.36 E1219.22784
G0 F6000 X207.56 Y122.36
G1 F2700 X213.10 Y127.89 E1219.71626
G0 F6000 X213.81 Y127.89
G1 F2700 X208.27 Y122.36 E1220.20468
G0 F6000 X208.98 Y122.36
G1 F2700 X214.51 Y127.89 E1220.69310
G0 F6000 X215.22 Y127.89
G1 F2700 X209.68 Y122.36 E1221.18152
G0 F6000 X210.39 Y122.36
G1 F2700 X215.93 Y127.89 E1221.66994
G0 F6000 X216.64 Y127.89
G1 F2700 X211.10 Y122.36 E1222.15836
G0 F6000 X211.81 Y122.36
G1 F2700 X217.34 Y127.89 E1222.64678
G0 F6000 X218.05 Y127.89
G1 F2700 X212.51 Y122.36 E1223.13520
G0 F6000 X213.22 Y122.36
G1 F2700 X218.76 Y127.89 E1223.62362
G0 F6000 X219.46 Y127.89
G1 F2700 X213.93 Y122.36 E1224.11204
G0 F6000 X214.63 Y122.36
G1 F2700 X220.17 Y127.89 E1224.60046
G0 F6000 X220.88 Y127.89
G1 F2700 X215.34 Y122.36 E1225.08888
G0 F6000 X216.05 Y122.36
G1 F2700 X221.59 Y127.89 E1225.57734
G0 F6000 X222.29 Y127.89
G1 F2700 X216.75 Y122.36 E1226.06576
G0 F6000 X217.46 Y122.36
G1 F2700 X223.00 Y127.89 E1226.55418
G0 F6000 X223.71 Y127.89
G1 F2700 X218.17 Y122.36 E1227.04260
G0 F6000 X218.88 Y122.36
G1 F2700 X224.41 Y127.89 E1227.53102
G0 F6000 X225.12 Y127.89
G1 F2700 X219.58 Y122.36 E1228.01944
G0 F6000 X220.29 Y122.36
G1 F2700 X225.83 Y127.89 E1228.50786
G0 F6000 X225.94 Y128.01
G1 F2700 X235.43 Y137.50 E1229.34491
G0 F6000 X236.14 Y137.50
G1 F2700 X221.00 Y122.36 E1230.68048
G0 F6000 X221.70 Y122.36
G1 F2700 X236.85 Y137.50 E1232.01605
G0 F6000 X237.56 Y137.50
G1 F2700 X222.41 Y122.36 E1233.35162
G0 F6000 X223.12 Y122.36
G1 F2700 X238.26 Y137.50 E1234.68714
G0 F6000 X238.97 Y137.50
G1 F2700 X223.83 Y122.36 E1236.02267
G0 F6000 X224.53 Y122.36
G1 F2700 X239.68 Y137.50 E1237.35820
G0 F6000 X240.38 Y137.50
G1 F2700 X225.24 Y122.36 E1238.69372
G0 F6000 X225.95 Y122.36
G1 F2700 X241.09 Y137.50 E1240.02925
G0 F6000 X241.80 Y137.50
G1 F2700 X226.65 Y122.36 E1241.36477
G0 F6000 X227.36 Y122.36
G1 F2700 X242.50 Y137.50 E1242.70034
G0 F6000 X243.21 Y137.50
G1 F2700 X228.07 Y122.36 E1244.03591
G0 F6000 X228.78 Y122.36
G1 F2700 X243.92 Y137.50 E1245.37148
G0 F6000 X244.63 Y137.50
G1 F2700 X229.48 Y122.36 E1246.70701
G0 F6000 X230.19 Y122.36
G1 F2700 X245.33 Y137.50 E1248.04253
G0 F6000 X245.48 Y137.65
G1 F2700 X245.61 Y138.13 E1248.06543
G1 X245.61 Y138.84 E1248.08827
G1 X245.61 Y139.55 E1248.11114
G1 X245.61 Y140.25 E1248.13406
G1 X245.61 Y140.96 E1248.15690
G1 X245.61 Y141.67 E1248.17974
G1 X245.61 Y142.38 E1248.20258
G1 X245.61 Y143.08 E1248.22542
G1 X245.61 Y143.79 E1248.24826
G1 X245.61 Y144.50 E1248.27110
G1 X245.61 Y145.20 E1248.29394
G1 X245.61 Y145.91 E1248.31681
G1 X245.61 Y146.62 E1248.33973
G1 X245.61 Y147.32 E1248.36257
G1 X245.61 Y148.03 E1248.38541
G1 X245.61 Y148.74 E1248.40825
G1 X245.61 Y149.45 E1248.43109
G1 X245.61 Y150.15 E1248.45393
G1 X245.61 Y150.86 E1248.47677
G1 X245.61 Y151.57 E1248.49961
G1 X245.61 Y152.27 E1248.52245
G1 X245.61 Y152.98 E1248.54532
G1 X245.61 Y153.69 E1248.56824
G1 X245.61 Y154.40 E1248.59108
G1 X245.61 Y155.10 E1248.61392
G1 X245.61 Y155.81 E1248.63676
G1 X245.61 Y156.52 E1248.65960
G1 X245.61 Y157.22 E1248.68244
G1 X245.61 Y157.93 E1248.70528
G1 X245.61 Y158.64 E1248.72812
G1 X245.61 Y159.35 E1248.75099
G1 X245.61 Y160.05 E1248.77391
G1 X245.61 Y160.76 E1248.79675
G1 X245.61 Y161.47 E1248.81959
G1 X245.61 Y162.17 E1248.84243
G1 X245.61 Y162.88 E1248.86527
G1 X245.61 Y163.59 E1248.88811
G1 X245.61 Y164.29 E1248.91095
G1 X245.61 Y165.00 E1248.93379
G1 X245.61 Y165.71 E1248.95666
G1 X245.61 Y166.42 E1248.97958
G1 X245.61 Y167.12 E1249.00242
G1 X245.61 Y167.83 E1249.02526
G1 X245.61 Y168.54 E1249.04810
G1 X245.61 Y169.25 E1249.07094
G1 X245.61 Y169.95 E1249.09378
G1 X245.61 Y170.66 E1249.11662
G1 X245.61 Y171.37 E1249.13946
G1 X245.61 Y172.07 E1249.16230
G1 X245.61 Y172.78 E1249.18517
G1 X245.61 Y173.49 E1249.20809
G1 X245.61 Y174.19 E1249.23093
G1 X245.61 Y174.90 E1249.25377
G1 X245.61 Y175.61 E1249.27661
G1 X245.61 Y176.32 E1249.29945
G1 X245.61 Y177.02 E1249.32229
G1 X245.61 Y177.73 E1249.34513
G1 X245.61 Y178.44 E1249.36797
G1 X245.61 Y179.15 E1249.39084
G1 X245.61 Y179.85 E1249.41376
G1 X245.61 Y180.56 E1249.43660
G1 X245.53 Y181.19 E1249.45947
G1 X245.74 Y181.75 E1249.49702
G0 F6000 X245.74 Y182.46
G1 F2700 X244.62 Y181.33 E1249.59651
G0 F6000 X243.91 Y181.33
G1 F2700 X245.22 Y182.64 E1249.71244
G0 F6000 X244.51 Y182.64
G1 F2700 X243.20 Y181.33 E1249.82837
G0 F6000 X242.49 Y181.33
G1 F2700 X243.81 Y182.64 E1249.94430
G0 F6000 X243.10 Y182.64
G1 F2700 X241.79 Y181.33 E1250.06023
G0 F6000 X241.08 Y181.33
G1 F2700 X242.39 Y182.64 E1250.17616
G0 F6000 X241.69 Y182.64
G1 F2700 X240.37 Y181.33 E1250.29205
G0 F6000 X239.66 Y181.33
G1 F2700 X240.98 Y182.64 E1250.40794
G0 F6000 X240.27 Y182.64
G1 F2700 X238.96 Y181.33 E1250.52383
G0 F6000 X238.25 Y181.33
G1 F2700 X239.56 Y182.64 E1250.63971
G0 F6000 X238.86 Y182.64
G1 F2700 X237.54 Y181.33 E1250.75560
G0 F6000 X236.84 Y181.33
G1 F2700 X238.15 Y182.64 E1250.87153
G0 F6000 X237.44 Y182.64
G1 F2700 X236.13 Y181.33 E1250.98746
G0 F6000 X235.42 Y181.33
G1 F2700 X236.74 Y182.64 E1251.10339
G0 F6000 X236.03 Y182.64
G1 F2700 X234.72 Y181.33 E1251.21932
G0 F6000 X234.01 Y181.33
G1 F2700 X235.32 Y182.64 E1251.33526
G0 F6000 X234.62 Y182.64
G1 F2700 X233.30 Y181.33 E1251.45114
G0 F6000 X232.59 Y181.33
G1 F2700 X233.91 Y182.64 E1251.56703
G0 F6000 X233.20 Y182.64
G1 F2700 X231.89 Y181.33 E1251.68292
G0 F6000 X231.18 Y181.33
G1 F2700 X232.49 Y182.64 E1251.79881
G0 F6000 X231.79 Y182.64
G1 F2700 X230.47 Y181.33 E1251.91474
G0 F6000 X229.76 Y181.33
G1 F2700 X231.08 Y182.64 E1252.03067
G0 F6000 X230.37 Y182.64
G1 F2700 X229.06 Y181.33 E1252.14660
G0 F6000 X228.35 Y181.33
G1 F2700 X229.67 Y182.64 E1252.26253
G0 F6000 X228.96 Y182.64
G1 F2700 X227.64 Y181.33 E1252.37846
G0 F6000 X226.94 Y181.33
G1 F2700 X228.25 Y182.64 E1252.49435
G0 F6000 X227.54 Y182.64
G1 F2700 X226.23 Y181.33 E1252.61024
G0 F6000 X225.52 Y181.33
G1 F2700 X226.84 Y182.64 E1252.72612
G0 F6000 X226.13 Y182.64
G1 F2700 X224.82 Y181.33 E1252.84201
G0 F6000 X224.11 Y181.33
G1 F2700 X225.42 Y182.64 E1252.95790
G0 F6000 X224.72 Y182.64
G1 F2700 X223.40 Y181.33 E1253.07383
G0 F6000 X222.69 Y181.33
G1 F2700 X224.01 Y182.64 E1253.18976
G0 F6000 X223.30 Y182.64
G1 F2700 X221.99 Y181.33 E1253.30569
G0 F6000 X221.28 Y181.33
G1 F2700 X222.59 Y182.64 E1253.42162
G0 F6000 X221.89 Y182.64
G1 F2700 X220.57 Y181.33 E1253.53751
G0 F6000 X219.87 Y181.33
G1 F2700 X221.18 Y182.64 E1253.65340
G0 F6000 X220.47 Y182.64
G1 F2700 X219.16 Y181.33 E1253.76929
G0 F6000 X218.45 Y181.33
G1 F2700 X219.77 Y182.64 E1253.88517
G0 F6000 X219.06 Y182.64
G1 F2700 X217.75 Y181.33 E1254.00106
G0 F6000 X217.04 Y181.33
G1 F2700 X218.35 Y182.64 E1254.11699
G0 F6000 X217.65 Y182.64
G1 F2700 X216.33 Y181.33 E1254.23292
G0 F6000 X215.62 Y181.33
G1 F2700 X216.94 Y182.64 E1254.34885
G0 F6000 X216.23 Y182.64
G1 F2700 X214.92 Y181.33 E1254.46479
G0 F6000 X214.21 Y181.33
G1 F2700 X215.52 Y182.64 E1254.58072
G0 F6000 X214.82 Y182.64
G1 F2700 X213.50 Y181.33 E1254.69660
G0 F6000 X212.79 Y181.33
G1 F2700 X214.11 Y182.64 E1254.81249
G0 F6000 X213.40 Y182.64
G1 F2700 X212.09 Y181.33 E1254.92838
G0 F6000 X211.38 Y181.33
G1 F2700 X212.69 Y182.64 E1255.04427
G0 F6000 X211.99 Y182.64
G1 F2700 X210.67 Y181.33 E1255.16020
G0 F6000 X209.97 Y181.33
G1 F2700 X211.28 Y182.64 E1255.27613
G0 F6000 X210.57 Y182.64
G1 F2700 X209.26 Y181.33 E1255.39206
G0 F6000 X208.55 Y181.33
G1 F2700 X209.87 Y182.64 E1255.50799
G0 F6000 X209.16 Y182.64
G1 F2700 X207.84 Y181.33 E1255.62392
G0 F6000 X207.14 Y181.33
G1 F2700 X208.45 Y182.64 E1255.73981
G0 F6000 X207.75 Y182.64
G1 F2700 X206.43 Y181.33 E1255.85570
G0 F6000 X205.72 Y181.33
G1 F2700 X207.04 Y182.64 E1255.97158
G0 F6000 X206.33 Y182.64
G1 F2700 X205.02 Y181.33 E1256.08747
G0 F6000 X204.31 Y181.33
G1 F2700 X205.62 Y182.64 E1256.20336
G0 F6000 X204.92 Y182.64
G1 F2700 X203.60 Y181.33 E1256.31929
G0 F6000 X202.90 Y181.33
G1 F2700 X204.21 Y182.64 E1256.43522
G0 F6000 X203.50 Y182.64
G1 F2700 X202.19 Y181.33 E1256.55115
G0 F6000 X201.48 Y181.33
G1 F2700 X202.80 Y182.64 E1256.66708
G0 F6000 X202.09 Y182.64
G1 F2700 X200.77 Y181.33 E1256.78297
G0 F6000 X200.07 Y181.33
G1 F2700 X201.38 Y182.64 E1256.89886
G0 F6000 X200.67 Y182.64
G1 F2700 X199.36 Y181.33 E1257.01475
G0 F6000 X198.65 Y181.33
G1 F2700 X199.97 Y182.64 E1257.13063
G0 F6000 X199.26 Y182.64
G1 F2700 X197.95 Y181.33 E1257.24652
G0 F6000 X197.24 Y181.33
G1 F2700 X198.55 Y182.64 E1257.36245
G0 F6000 X197.85 Y182.64
G1 F2700 X196.53 Y181.33 E1257.47838
G0 F6000 X195.82 Y181.33
G1 F2700 X197.14 Y182.64 E1257.59431
G0 F6000 X196.43 Y182.64
G1 F2700 X195.12 Y181.33 E1257.71025
G0 F6000 X194.41 Y181.33
G1 F2700 X195.72 Y182.64 E1257.82618
G0 F6000 X195.02 Y182.64
G1 F2700 X193.70 Y181.33 E1257.94206
G0 F6000 X193.00 Y181.33
G1 F2700 X194.31 Y182.64 E1258.05795
G0 F6000 X193.60 Y182.64
G1 F2700 X192.29 Y181.33 E1258.17384
G0 F6000 X191.58 Y181.33
G1 F2700 X192.90 Y182.64 E1258.28973
G0 F6000 X192.19 Y182.64
G1 F2700 X190.87 Y181.33 E1258.40566
G0 F6000 X190.17 Y181.33
G1 F2700 X191.48 Y182.64 E1258.52159
G0 F6000 X190.78 Y182.64
G1 F2700 X189.46 Y181.33 E1258.63752
G0 F6000 X188.75 Y181.33
G1 F2700 X190.07 Y182.64 E1258.75345
G0 F6000 X189.36 Y182.64
G1 F2700 X188.05 Y181.33 E1258.86938
G0 F6000 X187.34 Y181.33
G1 F2700 X188.65 Y182.64 E1258.98527
G0 F6000 X187.95 Y182.64
G1 F2700 X186.63 Y181.33 E1259.10116
G0 F6000 X185.93 Y181.33
G1 F2700 X187.24 Y182.64 E1259.21704
G0 F6000 X186.53 Y182.64
G1 F2700 X185.22 Y181.33 E1259.33293
G0 F6000 X184.51 Y181.33
G1 F2700 X185.82 Y182.64 E1259.44882
G0 F6000 X185.12 Y182.64
G1 F2700 X183.80 Y181.33 E1259.56475
G0 F6000 X183.10 Y181.33
G1 F2700 X184.41 Y182.64 E1259.68068
G0 F6000 X183.70 Y182.64
G1 F2700 X182.39 Y181.33 E1259.79661
G0 F6000 X181.68 Y181.33
G1 F2700 X183.00 Y182.64 E1259.91254
G0 F6000 X182.29 Y182.64
G1 F2700 X180.97 Y181.33 E1260.02848
G0 F6000 X180.27 Y181.33
G1 F2700 X181.58 Y182.64 E1260.14436
G0 F6000 X180.88 Y182.64
G1 F2700 X179.56 Y181.33 E1260.26025
G0 F6000 X178.85 Y181.33
G1 F2700 X180.17 Y182.64 E1260.37614
G0 F6000 X179.46 Y182.64
G1 F2700 X178.15 Y181.33 E1260.49202
G0 F6000 X177.44 Y181.33
G1 F2700 X178.75 Y182.64 E1260.60796
G0 F6000 X178.05 Y182.64
G1 F2700 X176.73 Y181.33 E1260.72389
G0 F6000 X176.03 Y181.33
G1 F2700 X177.34 Y182.64 E1260.83982
G0 F6000 X176.63 Y182.64
G1 F2700 X175.32 Y181.33 E1260.95575
G0 F6000 X174.61 Y181.33
G1 F2700 X175.93 Y182.64 E1261.07168
G0 F6000 X175.22 Y182.64
G1 F2700 X173.90 Y181.33 E1261.18757
G0 F6000 X173.20 Y181.33
G1 F2700 X174.51 Y182.64 E1261.30346
G0 F6000 X173.80 Y182.64
G1 F2700 X172.49 Y181.33 E1261.41934
G0 F6000 X171.78 Y181.33
G1 F2700 X173.10 Y182.64 E1261.53523
G0 F6000 X172.39 Y182.64
G1 F2700 X171.08 Y181.33 E1261.65112
G0 F6000 X170.37 Y181.33
G1 F2700 X171.68 Y182.64 E1261.76705
G0 F6000 X170.98 Y182.64
G1 F2700 X169.66 Y181.33 E1261.88298
G0 F6000 X168.95 Y181.33
G1 F2700 X170.27 Y182.64 E1261.99891
G0 F6000 X169.56 Y182.64
G1 F2700 X168.25 Y181.33 E1262.11484
G0 F6000 X167.54 Y181.33
G1 F2700 X168.85 Y182.64 E1262.23073
G0 F6000 X168.15 Y182.64
G1 F2700 X166.83 Y181.33 E1262.34662
G0 F6000 X166.13 Y181.33
G1 F2700 X167.44 Y182.64 E1262.46250
G0 F6000 X166.73 Y182.64
G1 F2700 X165.42 Y181.33 E1262.57839
G0 F6000 X164.71 Y181.33
G1 F2700 X166.03 Y182.64 E1262.69428
G0 F6000 X165.32 Y182.64
G1 F2700 X164.00 Y181.33 E1262.81021
G0 F6000 X163.30 Y181.33
G1 F2700 X164.61 Y182.64 E1262.92614
G0 F6000 X163.91 Y182.64
G1 F2700 X162.59 Y181.33 E1263.04207
G0 F6000 X161.88 Y181.33
G1 F2700 X163.20 Y182.64 E1263.15800
G0 F6000 X162.49 Y182.64
G1 F2700 X161.18 Y181.33 E1263.27394
G0 F6000 X160.47 Y181.33
G1 F2700 X161.78 Y182.64 E1263.38982
G0 F6000 X161.08 Y182.64
G1 F2700 X159.76 Y181.33 E1263.50571
G0 F6000 X159.06 Y181.33
G1 F2700 X160.37 Y182.64 E1263.62160
G0 F6000 X159.66 Y182.64
G1 F2700 X158.35 Y181.33 E1263.73749
G0 F6000 X157.64 Y181.33
G1 F2700 X158.96 Y182.64 E1263.85342
G0 F6000 X158.25 Y182.64
G1 F2700 X156.93 Y181.33 E1263.96935
G0 F6000 X156.23 Y181.33
G1 F2700 X157.54 Y182.64 E1264.08528
G0 F6000 X156.83 Y182.64
G1 F2700 X155.52 Y181.33 E1264.20121
G0 F6000 X154.81 Y181.33
G1 F2700 X156.13 Y182.64 E1264.31714
G0 F6000 X155.42 Y182.64
G1 F2700 X154.10 Y181.33 E1264.43303
G0 F6000 X153.40 Y181.33
G1 F2700 X154.71 Y182.64 E1264.54892
G0 F6000 X154.00 Y182.64
G1 F2700 X152.69 Y181.33 E1264.66480
G0 F6000 X151.98 Y181.33
G1 F2700 X153.30 Y182.64 E1264.78069
G0 F6000 X152.59 Y182.64
G1 F2700 X151.28 Y181.33 E1264.89658
G0 F6000 X150.57 Y181.33
G1 F2700 X151.88 Y182.64 E1265.01251
G0 F6000 X151.18 Y182.64
G1 F2700 X149.86 Y181.33 E1265.12844
G0 F6000 X149.16 Y181.33
G1 F2700 X150.47 Y182.64 E1265.24437
G0 F6000 X149.76 Y182.64
G1 F2700 X148.45 Y181.33 E1265.36030
G0 F6000 X147.74 Y181.33
G1 F2700 X149.06 Y182.64 E1265.47619
G0 F6000 X148.35 Y182.64
G1 F2700 X147.03 Y181.33 E1265.59208
G0 F6000 X146.33 Y181.33
G1 F2700 X147.64 Y182.64 E1265.70797
G0 F6000 X146.93 Y182.64
G1 F2700 X145.62 Y181.33 E1265.82385
G0 F6000 X144.91 Y181.33
G1 F2700 X146.23 Y182.64 E1265.93974
G0 F6000 X145.52 Y182.64
G1 F2700 X144.21 Y181.33 E1266.05567
G0 F6000 X143.50 Y181.33
G1 F2700 X144.81 Y182.64 E1266.17160
G0 F6000 X144.11 Y182.64
G1 F2700 X142.79 Y181.33 E1266.28753
G0 F6000 X142.08 Y181.33
G1 F2700 X143.40 Y182.64 E1266.40347
G0 F6000 X142.69 Y182.64
G1 F2700 X141.38 Y181.33 E1266.51940
G0 F6000 X140.67 Y181.33
G1 F2700 X141.98 Y182.64 E1266.63528
G0 F6000 X141.28 Y182.64
G1 F2700 X139.96 Y181.33 E1266.75117
G0 F6000 X139.26 Y181.33
G1 F2700 X140.57 Y182.64 E1266.86706
G0 F6000 X139.86 Y182.64
G1 F2700 X138.55 Y181.33 E1266.98295
G0 F6000 X137.84 Y181.33
G1 F2700 X139.16 Y182.64 E1267.09888
G0 F6000 X138.45 Y182.64
G1 F2700 X137.13 Y181.33 E1267.21481
G0 F6000 X136.43 Y181.33
G1 F2700 X137.74 Y182.64 E1267.33074
G0 F6000 X137.03 Y182.64
G1 F2700 X135.72 Y181.33 E1267.44667
G0 F6000 X135.01 Y181.33
G1 F2700 X136.33 Y182.64 E1267.56260
G0 F6000 X135.62 Y182.64
G1 F2700 X134.31 Y181.33 E1267.67849
G0 F6000 X133.60 Y181.33
G1 F2700 X134.91 Y182.64 E1267.79438
G0 F6000 X134.21 Y182.64
G1 F2700 X132.89 Y181.33 E1267.91026
G0 F6000 X132.19 Y181.33
G1 F2700 X133.50 Y182.64 E1268.02615
G0 F6000 X132.79 Y182.64
G1 F2700 X131.48 Y181.33 E1268.14204
G0 F6000 X130.77 Y181.33
G1 F2700 X132.09 Y182.64 E1268.25797
G0 F6000 X131.38 Y182.64
G1 F2700 X130.06 Y181.33 E1268.37390
G0 F6000 X129.36 Y181.33
G1 F2700 X130.67 Y182.64 E1268.48983
G0 F6000 X129.96 Y182.64
G1 F2700 X128.65 Y181.33 E1268.60576
G0 F6000 X127.94 Y181.33
G1 F2700 X129.26 Y182.64 E1268.72165
G0 F6000 X128.55 Y182.64
G1 F2700 X127.23 Y181.33 E1268.83754
G0 F6000 X126.53 Y181.33
G1 F2700 X127.84 Y182.64 E1268.95343
G0 F6000 X127.14 Y182.64
G1 F2700 X125.82 Y181.33 E1269.06931
G0 F6000 X125.11 Y181.33
G1 F2700 X126.43 Y182.64 E1269.18520
G0 F6000 X125.72 Y182.64
G1 F2700 X124.41 Y181.33 E1269.30113
G0 F6000 X123.70 Y181.33
G1 F2700 X125.01 Y182.64 E1269.41706
G0 F6000 X124.31 Y182.64
G1 F2700 X122.99 Y181.33 E1269.53299
G0 F6000 X122.28 Y181.33
G1 F2700 X123.60 Y182.64 E1269.64893
G0 F6000 X122.89 Y182.64
G1 F2700 X121.58 Y181.33 E1269.76486
G0 F6000 X120.87 Y181.33
G1 F2700 X122.19 Y182.64 E1269.88074
G0 F6000 X121.48 Y182.64
G1 F2700 X120.16 Y181.33 E1269.99663
G0 F6000 X119.46 Y181.33
G1 F2700 X120.77 Y182.64 E1270.11252
G0 F6000 X120.06 Y182.64
G1 F2700 X118.75 Y181.33 E1270.22841
G0 F6000 X118.04 Y181.33
G1 F2700 X119.36 Y182.64 E1270.34434
G0 F6000 X118.65 Y182.64
G1 F2700 X117.33 Y181.33 E1270.46027
G0 F6000 X116.63 Y181.33
G1 F2700 X117.94 Y182.64 E1270.57620
G0 F6000 X117.24 Y182.64
G1 F2700 X115.92 Y181.33 E1270.69213
G0 F6000 X115.21 Y181.33
G1 F2700 X116.53 Y182.64 E1270.80806
G0 F6000 X115.82 Y182.64
G1 F2700 X114.51 Y181.33 E1270.92395
G0 F6000 X113.80 Y181.33
G1 F2700 X115.11 Y182.64 E1271.03984
G0 F6000 X114.41 Y182.64
G1 F2700 X113.09 Y181.33 E1271.15572
G0 F6000 X112.39 Y181.33
G1 F2700 X113.70 Y182.64 E1271.27161
G0 F6000 X112.99 Y182.64
G1 F2700 X111.68 Y181.33 E1271.38750
G0 F6000 X110.97 Y181.33
G1 F2700 X112.29 Y182.64 E1271.50343
G0 F6000 X111.58 Y182.64
G1 F2700 X110.26 Y181.33 E1271.61936
G0 F6000 X109.56 Y181.33
G1 F2700 X110.87 Y182.64 E1271.73529
G0 F6000 X110.17 Y182.64
G1 F2700 X108.85 Y181.33 E1271.85122
G0 F6000 X108.14 Y181.33
G1 F2700 X109.46 Y182.64 E1271.96716
G0 F6000 X108.75 Y182.64
G1 F2700 X107.44 Y181.33 E1272.08304
G0 F6000 X106.73 Y181.33
G1 F2700 X108.04 Y182.64 E1272.19893
G0 F6000 X107.34 Y182.64
G1 F2700 X106.02 Y181.33 E1272.31482
G0 F6000 X105.31 Y181.33
G1 F2700 X106.63 Y182.64 E1272.43070
G0 F6000 X105.92 Y182.64
G1 F2700 X104.61 Y181.33 E1272.54664
G0 F6000 X103.90 Y181.33
G1 F2700 X105.22 Y182.64 E1272.66257
G0 F6000 X104.51 Y182.64
G1 F2700 X103.19 Y181.33 E1272.77850
G0 F6000 X102.49 Y181.33
G1 F2700 X103.80 Y182.64 E1272.89443
G0 F6000 X103.09 Y182.64
G1 F2700 X101.78 Y181.33 E1273.01036
G0 F6000 X101.07 Y181.33
G1 F2700 X102.39 Y182.64 E1273.12625
G0 F6000 X101.68 Y182.64
G1 F2700 X100.36 Y181.33 E1273.24214
G0 F6000 X99.66 Y181.33
G1 F2700 X100.97 Y182.64 E1273.35802
G0 F6000 X100.27 Y182.64
G1 F2700 X98.95 Y181.33 E1273.47391
G0 F6000 X98.24 Y181.33
G1 F2700 X99.56 Y182.64 E1273.58980
G0 F6000 X98.85 Y182.64
G1 F2700 X97.54 Y181.33 E1273.70573
G0 F6000 X96.83 Y181.33
G1 F2700 X98.14 Y182.64 E1273.82166
G0 F6000 X97.44 Y182.64
G1 F2700 X96.12 Y181.33 E1273.93759
G0 F6000 X95.42 Y181.33
G1 F2700 X96.73 Y182.64 E1274.05352
G0 F6000 X96.02 Y182.64
G1 F2700 X94.71 Y181.33 E1274.16941
G0 F6000 X94.00 Y181.33
G1 F2700 X95.31 Y182.64 E1274.28530
G0 F6000 X94.61 Y182.64
G1 F2700 X93.29 Y181.33 E1274.40118
G0 F6000 X92.59 Y181.33
G1 F2700 X93.90 Y182.64 E1274.51707
G0 F6000 X93.19 Y182.64
G1 F2700 X91.88 Y181.33 E1274.63296
G0 F6000 X91.17 Y181.33
G1 F2700 X92.49 Y182.64 E1274.74889
G0 F6000 X91.78 Y182.64
G1 F2700 X90.47 Y181.33 E1274.86482
G0 F6000 X89.76 Y181.33
G1 F2700 X91.07 Y182.64 E1274.98075
G0 F6000 X90.37 Y182.64
G1 F2700 X89.05 Y181.33 E1275.09668
G0 F6000 X88.34 Y181.33
G1 F2700 X89.66 Y182.64 E1275.21262
G0 F6000 X88.95 Y182.64
G1 F2700 X87.64 Y181.33 E1275.32850
G0 F6000 X86.93 Y181.33
G1 F2700 X88.24 Y182.64 E1275.44439
G0 F6000 X87.54 Y182.64
G1 F2700 X86.22 Y181.33 E1275.56028
G0 F6000 X85.52 Y181.33
G1 F2700 X86.83 Y182.64 E1275.67617
G0 F6000 X86.12 Y182.64
G1 F2700 X84.81 Y181.33 E1275.79210
G0 F6000 X84.10 Y181.33
G1 F2700 X85.42 Y182.64 E1275.90803
G0 F6000 X84.71 Y182.64
G1 F2700 X83.39 Y181.33 E1276.02396
G0 F6000 X82.69 Y181.33
G1 F2700 X84.00 Y182.64 E1276.13989
G0 F6000 X83.30 Y182.64
G1 F2700 X81.98 Y181.33 E1276.25582
G0 F6000 X81.27 Y181.33
G1 F2700 X82.59 Y182.64 E1276.37171
G0 F6000 X81.88 Y182.64
G1 F2700 X80.57 Y181.33 E1276.48760
G0 F6000 X79.86 Y181.33
G1 F2700 X81.17 Y182.64 E1276.60348
G0 F6000 X80.47 Y182.64
G1 F2700 X79.15 Y181.33 E1276.71937
G0 F6000 X78.44 Y181.33
G1 F2700 X79.76 Y182.64 E1276.83526
G0 F6000 X79.05 Y182.64
G1 F2700 X77.74 Y181.33 E1276.95119
G0 F6000 X77.03 Y181.33
G1 F2700 X78.34 Y182.64 E1277.06712
G0 F6000 X77.64 Y182.64
G1 F2700 X76.32 Y181.33 E1277.18305
G0 F6000 X75.62 Y181.33
G1 F2700 X76.93 Y182.64 E1277.29898
G0 F6000 X76.22 Y182.64
G1 F2700 X74.91 Y181.33 E1277.41487
G0 F6000 X74.20 Y181.33
G1 F2700 X75.52 Y182.64 E1277.53076
G0 F6000 X74.81 Y182.64
G1 F2700 X73.50 Y181.33 E1277.64665
G0 F6000 X72.79 Y181.33
G1 F2700 X74.10 Y182.64 E1277.76253
G0 F6000 X73.39 Y182.64
G1 F2700 X72.08 Y181.33 E1277.87842
G0 F6000 X71.37 Y181.33
G1 F2700 X72.69 Y182.64 E1277.99435
G0 F6000 X71.98 Y182.64
G1 F2700 X70.67 Y181.33 E1278.11028
G0 F6000 X69.96 Y181.33
G1 F2700 X71.27 Y182.64 E1278.22621
G0 F6000 X70.57 Y182.64
G1 F2700 X69.25 Y181.33 E1278.34215
G0 F6000 X68.55 Y181.33
G1 F2700 X69.86 Y182.64 E1278.45808
G0 F6000 X69.15 Y182.64
G1 F2700 X67.84 Y181.33 E1278.57396
G0 F6000 X67.13 Y181.33
G1 F2700 X68.44 Y182.64 E1278.68985
G0 F6000 X67.74 Y182.64
G1 F2700 X66.42 Y181.33 E1278.80574
G0 F6000 X65.72 Y181.33
G1 F2700 X67.03 Y182.64 E1278.92163
G0 F6000 X66.32 Y182.64
G1 F2700 X65.01 Y181.33 E1279.03756
G0 F6000 X64.30 Y181.33
G1 F2700 X65.62 Y182.64 E1279.15349
G0 F6000 X64.91 Y182.64
G1 F2700 X63.59 Y181.33 E1279.26942
G0 F6000 X62.89 Y181.33
G1 F2700 X64.20 Y182.64 E1279.38535
G0 F6000 X63.50 Y182.64
G1 F2700 X62.18 Y181.33 E1279.50128
G0 F6000 X61.47 Y181.33
G1 F2700 X62.79 Y182.64 E1279.61717
G0 F6000 X62.08 Y182.64
G1 F2700 X60.77 Y181.33 E1279.73306
G0 F6000 X60.06 Y181.33
G1 F2700 X61.37 Y182.64 E1279.84894
G0 F6000 X60.67 Y182.64
G1 F2700 X59.26 Y181.23 E1279.97339
G0 F6000 X59.52 Y180.78
G1 F2700 X59.39 Y180.30 E1279.99626
G1 X59.39 Y179.59 E1280.01919
G1 X59.39 Y178.89 E1280.04206
G1 X59.39 Y178.18 E1280.06490
G1 X59.39 Y177.47 E1280.08774
G1 X59.39 Y176.76 E1280.11058
G1 X59.39 Y176.06 E1280.13342
G1 X59.39 Y175.35 E1280.15626
G1 X59.39 Y174.64 E1280.17909
G1 X59.39 Y173.94 E1280.20193
G1 X59.39 Y173.23 E1280.22477
G1 X59.39 Y172.52 E1280.24770
G1 X59.39 Y171.81 E1280.27057
G1 X59.39 Y171.11 E1280.29341
G1 X59.39 Y170.40 E1280.31625
G1 X59.39 Y169.69 E1280.33909
G1 X59.39 Y168.99 E1280.36193
G1 X59.39 Y168.28 E1280.38477
G1 X59.39 Y167.57 E1280.40760
G1 X59.39 Y166.87 E1280.43044
G1 X59.39 Y166.16 E1280.45337
G1 X59.39 Y165.45 E1280.47624
G1 X59.39 Y164.74 E1280.49908
G1 X59.39 Y164.04 E1280.52192
G1 X59.39 Y163.33 E1280.54476
G1 X59.39 Y162.62 E1280.56760
G1 X59.39 Y161.92 E1280.59044
G1 X59.39 Y161.21 E1280.61327
G1 X59.39 Y160.50 E1280.63611
G1 X59.39 Y159.79 E1280.65904
G1 X59.39 Y159.09 E1280.68191
G1 X59.39 Y158.38 E1280.70475
G1 X59.39 Y157.67 E1280.72759
G1 X59.39 Y156.97 E1280.75043
G1 X59.39 Y156.26 E1280.77327
G1 X59.39 Y155.55 E1280.79611
G1 X59.39 Y154.84 E1280.81894
G1 X59.39 Y154.14 E1280.84178
G1 X59.39 Y153.43 E1280.86462
G1 X59.39 Y152.72 E1280.88755
G1 X59.39 Y152.02 E1280.91042
G1 X59.39 Y151.31 E1280.93326
G1 X59.39 Y150.60 E1280.95610
G1 X59.39 Y149.90 E1280.97894
G1 X59.39 Y149.19 E1281.00178
G1 X59.39 Y148.48 E1281.02461
G1 X59.39 Y147.77 E1281.04745
G1 X59.39 Y147.07 E1281.07029
G1 X59.39 Y146.36 E1281.09322
G1 X59.39 Y145.65 E1281.11609
G1 X59.39 Y144.94 E1281.13893
G1 X59.39 Y144.24 E1281.16177
G1 X59.39 Y143.53 E1281.18461
G1 X59.39 Y142.82 E1281.20745
G1 X59.39 Y142.12 E1281.23028
G1 X59.39 Y141.41 E1281.25312
G1 X59.39 Y140.70 E1281.27596
G1 X59.39 Y140.00 E1281.29889
G1 X59.39 Y139.29 E1281.32176
G1 X59.39 Y138.58 E1281.34460
G1 X59.39 Y137.87 E1281.36744
G1 X59.26 Y137.39 E1281.39863
G0 F6000 X59.26 Y136.68
G1 F2700 X60.07 Y137.50 E1281.47047
G0 F6000 X59.26 Y181.94
G1 F2700 X59.96 Y182.64 E1281.53255
G0 F6000 X244.70 Y180.54
G0 X244.70 Y138.28
G0 X225.94 Y137.20
G1 F2700 X226.24 Y137.50 E1281.55884
G0 F6000 X226.95 Y137.50
G1 F2700 X225.94 Y136.49 E1281.64747
G0 F6000 X225.94 Y135.79
G1 F2700 X227.66 Y137.50 E1281.79846
G0 F6000 X228.36 Y137.50
G1 F2700 X225.94 Y135.08 E1282.01180
G0 F6000 X225.94 Y134.37
G1 F2700 X229.07 Y137.50 E1282.28759
G0 F6000 X229.78 Y137.50
G1 F2700 X225.94 Y133.66 E1282.62572
G0 F6000 X225.94 Y132.96
G1 F2700 X230.48 Y137.50 E1283.02621
G0 F6000 X231.19 Y137.50
G1 F2700 X225.94 Y132.25 E1283.48906
G0 F6000 X225.94 Y131.54
G1 F2700 X231.90 Y137.50 E1284.01425
G0 F6000 X232.60 Y137.50
G1 F2700 X225.94 Y130.84 E1284.60180
G0 F6000 X225.94 Y130.13
G1 F2700 X233.31 Y137.50 E1285.25171
G0 F6000 X234.02 Y137.50
G1 F2700 X225.94 Y129.42 E1285.96396
G0 F6000 X225.94 Y128.72
G1 F2700 X234.73 Y137.50 E1286.73857
G0 F6000 X245.74 Y137.20
G1 F2700 X230.90 Y122.36 E1288.04791
G0 F6000 X231.60 Y122.36
G1 F2700 X245.74 Y136.50 E1289.29488
G0 F6000 X245.74 Y135.79
G1 F2700 X232.31 Y122.36 E1290.47951
G0 F6000 X233.02 Y122.36
G1 F2700 X245.74 Y135.08 E1291.60178
G0 F6000 X245.74 Y134.37
G1 F2700 X233.72 Y122.36 E1292.66170
G0 F6000 X234.43 Y122.36
G1 F2700 X245.74 Y133.67 E1293.65926
G0 F6000 X245.74 Y132.96
G1 F2700 X235.14 Y122.36 E1294.59448
G0 F6000 X235.85 Y122.36
G1 F2700 X245.74 Y132.25 E1295.46733
G0 F6000 X245.74 Y131.54
G1 F2700 X236.55 Y122.36 E1296.27775
G0 F6000 X237.26 Y122.36
G1 F2700 X245.74 Y130.84 E1297.02582
G0 F6000 X245.74 Y130.13
G1 F2700 X237.97 Y122.36 E1297.71153
G0 F6000 X238.68 Y122.36
G1 F2700 X245.74 Y129.42 E1298.33488
G0 F6000 X245.74 Y128.72
G1 F2700 X239.38 Y122.36 E1298.89589
G0 F6000 X240.09 Y122.36
G1 F2700 X245.74 Y128.01 E1299.39454
G0 F6000 X245.74 Y127.30
G1 F2700 X240.80 Y122.36 E1299.83083
G0 F6000 X241.50 Y122.36
G1 F2700 X245.74 Y126.60 E1300.20478
G0 F6000 X245.74 Y125.89
G1 F2700 X242.21 Y122.36 E1300.51637
G0 F6000 X242.92 Y122.36
G1 F2700 X245.74 Y125.18 E1300.76552
G0 F6000 X245.74 Y124.47
G1 F2700 X243.62 Y122.36 E1300.95231
G0 F6000 X244.33 Y122.36
G1 F2700 X245.74 Y123.77 E1301.07675
G0 F6000 X245.74 Y123.06
G1 F2700 X245.04 Y122.36 E1301.13884
;LAYER:1
G0 F6000 X245.92 Y122.18 Z0.50
;TYPE:WALL-INNER
G1 F3480 X245.92 Y182.82 E1303.65988
G1 X59.08 Y182.82 E1311.42770
G1 X59.08 Y122.18 E1313.94873
G1 X245.92 Y122.18 E1321.71656
G0 F6000 X245.31 Y137.68
G1 F3480 X225.77 Y137.68 E1322.52893
G1 X225.77 Y128.07 E1322.92826
G1 X79.23 Y128.07 E1329.02061
G1 X79.23 Y137.68 E1329.41994
G1 X59.69 Y137.68 E1330.23231
G1 X59.69 Y181.15 E1332.03996
G1 X245.31 Y181.15 E1339.75706
G1 X245.31 Y137.68 E1341.56471
G0 F6000 X244.81 Y138.18
G1 F3480 X225.27 Y138.18 E1342.37696
G1 X225.27 Y137.64 E1342.39904
G1 X225.27 Y128.57 E1342.77629
G1 X79.73 Y128.57 E1348.82706
G1 X79.73 Y138.18 E1349.22639
G1 X60.19 Y138.18 E1350.03877
G1 X60.19 Y180.65 E1351.80484
G1 X244.81 Y180.65 E1359.48036
G1 X244.81 Y138.18 E1361.24643
G0 F6000 X246.42 Y121.68
G1 F3480 X246.42 Y183.32 E1363.80904
G1 X58.58 Y183.32 E1371.61844
G1 X58.58 Y121.68 E1374.18105
G1 X246.42 Y121.68 E1381.99045
G0 F6000 X246.92 Y121.18
;TYPE:WALL-OUTER
G1 F3480 X246.92 Y183.82 E1384.59463
G1 X58.08 Y183.82 E1392.44560
G1 X58.08 Y121.18 E1395.04979
G1 X246.92 Y121.18 E1402.90076
G0 F6000 X246.57 Y121.44
G0 X244.66 Y138.68
G0 X244.31 Y138.68
G1 F3480 X224.77 Y138.68 E1403.71293
G1 X224.77 Y137.64 E1403.75580
G1 X224.77 Y129.07 E1404.11226
G1 X80.23 Y129.07 E1410.12145
G1 X80.23 Y138.68 E1410.52078
G1 X60.69 Y138.68 E1411.33316
G1 X60.69 Y180.15 E1413.05766
G1 X244.31 Y180.15 E1420.69161
G1 X244.31 Y138.68 E1422.41611
G0 F6000 X245.48 Y138.83
;TYPE:FILL
G1 F3480 X245.61 Y138.34 E1422.43139
G1 X245.57 Y137.68 E1422.44660
G1 X245.74 Y137.15 E1422.46962
G0 F6000 X245.74 Y136.45
G1 F3480 X244.69 Y137.50 E1422.53148
G0 F6000 X243.98 Y137.50
G1 F3480 X245.74 Y135.74 E1422.63490
G0 F6000 X245.74 Y135.03
G1 F3480 X243.28 Y137.50 E1422.77989
G0 F6000 X242.57 Y137.50
G1 F3480 X245.74 Y134.33 E1422.96645
G0 F6000 X245.74 Y133.62
G1 F3480 X241.86 Y137.50 E1423.19458
G0 F6000 X241.16 Y137.50
G1 F3480 X245.74 Y132.91 E1423.46431
G0 F6000 X245.74 Y132.20
G1 F3480 X240.45 Y137.50 E1423.77563
G0 F6000 X239.74 Y137.50
G1 F3480 X245.74 Y131.50 E1424.12853
G0 F6000 X245.74 Y130.79
G1 F3480 X239.03 Y137.50 E1424.52299
G0 F6000 X238.33 Y137.50
G1 F3480 X245.74 Y130.08 E1424.95902
G0 F6000 X245.74 Y129.38
G1 F3480 X237.62 Y137.50 E1425.43662
G0 F6000 X236.91 Y137.50
G1 F3480 X245.74 Y128.67 E1425.95579
G0 F6000 X245.74 Y127.96
G1 F3480 X236.21 Y137.50 E1426.51653
G0 F6000 X235.50 Y137.50
G1 F3480 X245.74 Y127.25 E1427.11884
G0 F6000 X245.74 Y126.55
G1 F3480 X234.79 Y137.50 E1427.76275
G0 F6000 X234.08 Y137.50
G1 F3480 X245.74 Y125.84 E1428.44825
G0 F6000 X245.74 Y125.13
G1 F3480 X233.38 Y137.50 E1429.17533
G0 F6000 X232.67 Y137.50
G1 F3480 X245.74 Y124.43 E1429.94397
G0 F6000 X245.74 Y123.72
G1 F3480 X231.96 Y137.50 E1430.75418
G0 F6000 X231.26 Y137.50
G1 F3480 X245.74 Y123.01 E1431.60596
G0 F6000 X245.69 Y122.36
G1 F3480 X230.55 Y137.50 E1432.49637
G0 F6000 X229.84 Y137.50
G1 F3480 X244.99 Y122.36 E1433.38678
G0 F6000 X244.28 Y122.36
G1 F3480 X229.13 Y137.50 E1434.27719
G0 F6000 X228.43 Y137.50
G1 F3480 X243.57 Y122.36 E1435.16760
G0 F6000 X242.87 Y122.36
G1 F3480 X227.72 Y137.50 E1436.05803
G0 F6000 X227.01 Y137.50
G1 F3480 X242.16 Y122.36 E1436.94844
G0 F6000 X241.45 Y122.36
G1 F3480 X226.31 Y137.50 E1437.83885
G0 F6000 X225.94 Y137.16
G1 F3480 X240.74 Y122.36 E1438.70906
G0 F6000 X240.04 Y122.36
G1 F3480 X225.94 Y136.45 E1439.53768
G0 F6000 X225.94 Y135.74
G1 F3480 X239.33 Y122.36 E1440.32472
G0 F6000 X238.62 Y122.36
G1 F3480 X225.94 Y135.03 E1441.07020
G0 F6000 X225.94 Y134.33
G1 F3480 X237.91 Y122.36 E1441.77411
G0 F6000 X237.21 Y122.36
G1 F3480 X225.94 Y133.62 E1442.43645
G0 F6000 X225.94 Y132.91
G1 F3480 X236.50 Y122.36 E1443.05722
G0 F6000 X235.79 Y122.36
G1 F3480 X225.94 Y132.21 E1443.63639
G0 F6000 X225.94 Y131.50
G1 F3480 X235.09 Y122.36 E1444.17399
G0 F6000 X234.38 Y122.36
G1 F3480 X225.94 Y130.79 E1444.67003
G0 F6000 X225.94 Y130.09
G1 F3480 X233.67 Y122.36 E1445.12449
G0 F6000 X232.97 Y122.36
G1 F3480 X225.94 Y129.38 E1445.53736
G0 F6000 X225.94 Y128.67
G1 F3480 X232.26 Y122.36 E1445.90866
G0 F6000 X231.55 Y122.36
G1 F3480 X225.94 Y127.96 E1446.23838
G0 F6000 X225.31 Y127.89
G1 F3480 X230.84 Y122.36 E1446.56406
G0 F6000 X230.14 Y122.36
G1 F3480 X224.60 Y127.89 E1446.88973
G0 F6000 X223.89 Y127.89
G1 F3480 X229.43 Y122.36 E1447.21537
G0 F6000 X228.72 Y122.36
G1 F3480 X223.18 Y127.89 E1447.54101
G0 F6000 X222.48 Y127.89
G1 F3480 X228.01 Y122.36 E1447.86666
G0 F6000 X227.31 Y122.36
G1 F3480 X221.77 Y127.89 E1448.19233
G0 F6000 X221.06 Y127.89
G1 F3480 X226.60 Y122.36 E1448.51800
G0 F6000 X225.89 Y122.36
G1 F3480 X220.35 Y127.89 E1448.84367
G0 F6000 X219.65 Y127.89
G1 F3480 X225.19 Y122.36 E1449.16934
G0 F6000 X224.48 Y122.36
G1 F3480 X218.94 Y127.89 E1449.49502
G0 F6000 X218.23 Y127.89
G1 F3480 X223.77 Y122.36 E1449.82069
G0 F6000 X223.07 Y122.36
G1 F3480 X217.53 Y127.89 E1450.14636
G0 F6000 X216.82 Y127.89
G1 F3480 X222.36 Y122.36 E1450.47200
G0 F6000 X221.65 Y122.36
G1 F3480 X216.11 Y127.89 E1450.79765
G0 F6000 X215.41 Y127.89
G1 F3480 X220.94 Y122.36 E1451.12332
G0 F6000 X220.24 Y122.36
G1 F3480 X214.70 Y127.89 E1451.44899
G0 F6000 X213.99 Y127.89
G1 F3480 X219.53 Y122.36 E1451.77466
G0 F6000 X218.82 Y122.36
G1 F3480 X213.28 Y127.89 E1452.10033
G0 F6000 X212.58 Y127.89
G1 F3480 X218.12 Y122.36 E1452.42600
G0 F6000 X217.41 Y122.36
G1 F3480 X211.87 Y127.89 E1452.75168
G0 F6000 X211.16 Y127.89
G1 F3480 X216.70 Y122.36 E1453.07735
G0 F6000 X215.99 Y122.36
G1 F3480 X210.46 Y127.89 E1453.40299
G0 F6000 X209.75 Y127.89
G1 F3480 X215.29 Y122.36 E1453.72863
G0 F6000 X214.58 Y122.36
G1 F3480 X209.04 Y127.89 E1454.05431
G0 F6000 X208.33 Y127.89
G1 F3480 X213.87 Y122.36 E1454.37998
G0 F6000 X213.17 Y122.36
G1 F3480 X207.63 Y127.89 E1454.70565
G0 F6000 X206.92 Y127.89
G1 F3480 X212.46 Y122.36 E1455.03132
G0 F6000 X211.75 Y122.36
G1 F3480 X206.21 Y127.89 E1455.35699
G0 F6000 X205.51 Y127.89
G1 F3480 X211.04 Y122.36 E1455.68267
G0 F6000 X210.34 Y122.36
G1 F3480 X204.80 Y127.89 E1456.00834
G0 F6000 X204.09 Y127.89
G1 F3480 X209.63 Y122.36 E1456.33398
G0 F6000 X208.92 Y122.36
G1 F3480 X203.38 Y127.89 E1456.65962
G0 F6000 X202.68 Y127.89
G1 F3480 X208.22 Y122.36 E1456.98527
G0 F6000 X207.51 Y122.36
G1 F3480 X201.97 Y127.89 E1457.31094
G0 F6000 X201.26 Y127.89
G1 F3480 X206.80 Y122.36 E1457.63661
G0 F6000 X206.09 Y122.36
G1 F3480 X200.56 Y127.89 E1457.96228
G0 F6000 X199.85 Y127.89
G1 F3480 X205.39 Y122.36 E1458.28795
G0 F6000 X204.68 Y122.36
G1 F3480 X199.14 Y127.89 E1458.61363
G0 F6000 X198.44 Y127.89
G1 F3480 X203.97 Y122.36 E1458.93930
G0 F6000 X203.27 Y122.36
G1 F3480 X197.73 Y127.89 E1459.26497
G0 F6000 X197.02 Y127.89
G1 F3480 X202.56 Y122.36 E1459.59061
G0 F6000 X201.85 Y122.36
G1 F3480 X196.31 Y127.89 E1459.91625
G0 F6000 X195.61 Y127.89
G1 F3480 X201.15 Y122.36 E1460.24193
G0 F6000 X200.44 Y122.36
G1 F3480 X194.90 Y127.89 E1460.56760
G0 F6000 X194.19 Y127.89
G1 F3480 X199.73 Y122.36 E1460.89327
G0 F6000 X199.02 Y122.36
G1 F3480 X193.49 Y127.89 E1461.21894
G0 F6000 X192.78 Y127.89
G1 F3480 X198.32 Y122.36 E1461.54461
G0 F6000 X197.61 Y122.36
G1 F3480 X192.07 Y127.89 E1461.87029
G0 F6000 X191.36 Y127.89
G1 F3480 X196.90 Y122.36 E1462.19596
G0 F6000 X196.19 Y122.36
G1 F3480 X190.66 Y127.89 E1462.52160
G0 F6000 X189.95 Y127.89
G1 F3480 X195.49 Y122.36 E1462.84724
G0 F6000 X194.78 Y122.36
G1 F3480 X189.24 Y127.89 E1463.17292
G0 F6000 X188.53 Y127.89
G1 F3480 X194.07 Y122.36 E1463.49859
G0 F6000 X193.37 Y122.36
G1 F3480 X187.83 Y127.89 E1463.82426
G0 F6000 X187.12 Y127.89
G1 F3480 X192.66 Y122.36 E1464.14993
G0 F6000 X191.95 Y122.36
G1 F3480 X186.41 Y127.89 E1464.47560
G0 F6000 X185.71 Y127.89
G1 F3480 X191.25 Y122.36 E1464.80128
G0 F6000 X190.54 Y122.36
G1 F3480 X185.00 Y127.89 E1465.12695
G0 F6000 X184.29 Y127.89
G1 F3480 X189.83 Y122.36 E1465.45262
G0 F6000 X189.12 Y122.36
G1 F3480 X183.59 Y127.89 E1465.77826
G0 F6000 X182.88 Y127.89
G1 F3480 X188.42 Y122.36 E1466.10390
G0 F6000 X187.71 Y122.36
G1 F3480 X182.17 Y127.89 E1466.42958
G0 F6000 X181.46 Y127.89
G1 F3480 X187.00 Y122.36 E1466.75525
G0 F6000 X186.30 Y122.36
G1 F3480 X180.76 Y127.89 E1467.08092
G0 F6000 X180.05 Y127.89
G1 F3480 X185.59 Y122.36 E1467.40659
G0 F6000 X184.88 Y122.36
G1 F3480 X179.34 Y127.89 E1467.73226
G0 F6000 X178.64 Y127.89
G1 F3480 X184.18 Y122.36 E1468.05794
G0 F6000 X183.47 Y122.36
G1 F3480 X177.93 Y127.89 E1468.38361
G0 F6000 X177.22 Y127.89
G1 F3480 X182.76 Y122.36 E1468.70925
G0 F6000 X182.05 Y122.36
G1 F3480 X176.51 Y127.89 E1469.03489
G0 F6000 X175.81 Y127.89
G1 F3480 X181.35 Y122.36 E1469.36057
G0 F6000 X180.64 Y122.36
G1 F3480 X175.10 Y127.89 E1469.68624
G0 F6000 X174.39 Y127.89
G1 F3480 X179.93 Y122.36 E1470.01191
G0 F6000 X179.22 Y122.36
G1 F3480 X173.69 Y127.89 E1470.33758
G0 F6000 X172.98 Y127.89
G1 F3480 X178.52 Y122.36 E1470.66325
G0 F6000 X177.81 Y122.36
G1 F3480 X172.27 Y127.89 E1470.98893
G0 F6000 X171.56 Y127.89
G1 F3480 X177.10 Y122.36 E1471.31460
G0 F6000 X176.40 Y122.36
G1 F3480 X170.86 Y127.89 E1471.64024
G0 F6000 X170.15 Y127.89
G1 F3480 X175.69 Y122.36 E1471.96588
G0 F6000 X174.98 Y122.36
G1 F3480 X169.44 Y127.89 E1472.29155
G0 F6000 X168.74 Y127.89
G1 F3480 X174.28 Y122.36 E1472.61723
G0 F6000 X173.57 Y122.36
G1 F3480 X168.03 Y127.89 E1472.94290
G0 F6000 X167.32 Y127.89
G1 F3480 X172.86 Y122.36 E1473.26857
G0 F6000 X172.15 Y122.36
G1 F3480 X166.62 Y127.89 E1473.59424
G0 F6000 X165.91 Y127.89
G1 F3480 X171.45 Y122.36 E1473.91991
G0 F6000 X170.74 Y122.36
G1 F3480 X165.20 Y127.89 E1474.24559
G0 F6000 X164.49 Y127.89
G1 F3480 X170.03 Y122.36 E1474.57126
G0 F6000 X169.32 Y122.36
G1 F3480 X163.79 Y127.89 E1474.89690
G0 F6000 X163.08 Y127.89
G1 F3480 X168.62 Y122.36 E1475.22254
G0 F6000 X167.91 Y122.36
G1 F3480 X162.37 Y127.89 E1475.54822
G0 F6000 X161.66 Y127.89
G1 F3480 X167.20 Y122.36 E1475.87389
G0 F6000 X166.50 Y122.36
G1 F3480 X160.96 Y127.89 E1476.19956
G0 F6000 X160.25 Y127.89
G1 F3480 X165.79 Y122.36 E1476.52523
G0 F6000 X165.08 Y122.36
G1 F3480 X159.54 Y127.89 E1476.85090
G0 F6000 X158.84 Y127.89
G1 F3480 X164.38 Y122.36 E1477.17658
G0 F6000 X163.67 Y122.36
G1 F3480 X158.13 Y127.89 E1477.50225
G0 F6000 X157.42 Y127.89
G1 F3480 X162.96 Y122.36 E1477.82789
G0 F6000 X162.25 Y122.36
G1 F3480 X156.72 Y127.89 E1478.15353
G0 F6000 X156.01 Y127.89
G1 F3480 X161.55 Y122.36 E1478.47920
G0 F6000 X160.84 Y122.36
G1 F3480 X155.30 Y127.89 E1478.80488
G0 F6000 X154.59 Y127.89
G1 F3480 X160.13 Y122.36 E1479.13055
G0 F6000 X159.43 Y122.36
G1 F3480 X153.89 Y127.89 E1479.45622
G0 F6000 X153.18 Y127.89
G1 F3480 X158.72 Y122.36 E1479.78189
G0 F6000 X158.01 Y122.36
G1 F3480 X152.47 Y127.89 E1480.10756
G0 F6000 X151.77 Y127.89
G1 F3480 X157.31 Y122.36 E1480.43324
G0 F6000 X156.60 Y122.36
G1 F3480 X151.06 Y127.89 E1480.75888
G0 F6000 X150.35 Y127.89
G1 F3480 X155.89 Y122.36 E1481.08452
G0 F6000 X155.18 Y122.36
G1 F3480 X149.65 Y127.89 E1481.41016
G0 F6000 X148.94 Y127.89
G1 F3480 X154.48 Y122.36 E1481.73584
G0 F6000 X153.77 Y122.36
G1 F3480 X148.23 Y127.89 E1482.06151
G0 F6000 X147.52 Y127.89
G1 F3480 X153.06 Y122.36 E1482.38718
G0 F6000 X152.35 Y122.36
G1 F3480 X146.82 Y127.89 E1482.71285
G0 F6000 X146.11 Y127.89
G1 F3480 X151.65 Y122.36 E1483.03852
G0 F6000 X150.94 Y122.36
G1 F3480 X145.40 Y127.89 E1483.36420
G0 F6000 X144.69 Y127.89
G1 F3480 X150.23 Y122.36 E1483.68987
G0 F6000 X149.53 Y122.36
G1 F3480 X143.99 Y127.89 E1484.01551
G0 F6000 X143.28 Y127.89
G1 F3480 X148.82 Y122.36 E1484.34115
G0 F6000 X148.11 Y122.36
G1 F3480 X142.57 Y127.89 E1484.66682
G0 F6000 X141.87 Y127.89
G1 F3480 X147.41 Y122.36 E1484.99250
G0 F6000 X146.70 Y122.36
G1 F3480 X141.16 Y127.89 E1485.31817
G0 F6000 X140.45 Y127.89
G1 F3480 X145.99 Y122.36 E1485.64384
G0 F6000 X145.28 Y122.36
G1 F3480 X139.75 Y127.89 E1485.96951
G0 F6000 X139.04 Y127.89
G1 F3480 X144.58 Y122.36 E1486.29518
G0 F6000 X143.87 Y122.36
G1 F3480 X138.33 Y127.89 E1486.62086
G0 F6000 X137.62 Y127.89
G1 F3480 X143.16 Y122.36 E1486.94650
G0 F6000 X142.46 Y122.36
G1 F3480 X136.92 Y127.89 E1487.27214
G0 F6000 X136.21 Y127.89
G1 F3480 X141.75 Y122.36 E1487.59781
G0 F6000 X141.04 Y122.36
G1 F3480 X135.50 Y127.89 E1487.92349
G0 F6000 X134.79 Y127.89
G1 F3480 X140.33 Y122.36 E1488.24916
G0 F6000 X139.63 Y122.36
G1 F3480 X134.09 Y127.89 E1488.57483
G0 F6000 X133.38 Y127.89
G1 F3480 X138.92 Y122.36 E1488.90050
G0 F6000 X138.21 Y122.36
G1 F3480 X132.67 Y127.89 E1489.22617
G0 F6000 X131.97 Y127.89
G1 F3480 X137.51 Y122.36 E1489.55185
G0 F6000 X136.80 Y122.36
G1 F3480 X131.26 Y127.89 E1489.87749
G0 F6000 X130.55 Y127.89
G1 F3480 X136.09 Y122.36 E1490.20313
G0 F6000 X135.38 Y122.36
G1 F3480 X129.85 Y127.89 E1490.52877
G0 F6000 X129.14 Y127.89
G1 F3480 X134.68 Y122.36 E1490.85445
G0 F6000 X133.97 Y122.36
G1 F3480 X128.43 Y127.89 E1491.18012
G0 F6000 X127.72 Y127.89
G1 F3480 X133.26 Y122.36 E1491.50579
G0 F6000 X132.56 Y122.36
G1 F3480 X127.02 Y127.89 E1491.83146
G0 F6000 X126.31 Y127.89
G1 F3480 X131.85 Y122.36 E1492.15713
G0 F6000 X131.14 Y122.36
G1 F3480 X125.60 Y127.89 E1492.48281
G0 F6000 X124.90 Y127.89
G1 F3480 X130.44 Y122.36 E1492.80848
G0 F6000 X129.73 Y122.36
G1 F3480 X124.19 Y127.89 E1493.13412
G0 F6000 X123.48 Y127.89
G1 F3480 X129.02 Y122.36 E1493.45976
G0 F6000 X128.31 Y122.36
G1 F3480 X122.77 Y127.89 E1493.78543
G0 F6000 X122.07 Y127.89
G1 F3480 X127.61 Y122.36 E1494.11111
G0 F6000 X126.90 Y122.36
G1 F3480 X121.36 Y127.89 E1494.43678
G0 F6000 X120.65 Y127.89
G1 F3480 X126.19 Y122.36 E1494.76245
G0 F6000 X125.48 Y122.36
G1 F3480 X119.95 Y127.89 E1495.08812
G0 F6000 X119.24 Y127.89
G1 F3480 X124.78 Y122.36 E1495.41379
G0 F6000 X124.07 Y122.36
G1 F3480 X118.53 Y127.89 E1495.73947
G0 F6000 X117.83 Y127.89
G1 F3480 X123.36 Y122.36 E1496.06511
G0 F6000 X122.66 Y122.36
G1 F3480 X117.12 Y127.89 E1496.39075
G0 F6000 X116.41 Y127.89
G1 F3480 X121.95 Y122.36 E1496.71642
G0 F6000 X121.24 Y122.36
G1 F3480 X115.70 Y127.89 E1497.04210
G0 F6000 X115.00 Y127.89
G1 F3480 X120.53 Y122.36 E1497.36777
G0 F6000 X119.83 Y122.36
G1 F3480 X114.29 Y127.89 E1497.69344
G0 F6000 X113.58 Y127.89
G1 F3480 X119.12 Y122.36 E1498.01911
G0 F6000 X118.41 Y122.36
G1 F3480 X112.88 Y127.89 E1498.34478
G0 F6000 X112.17 Y127.89
G1 F3480 X117.71 Y122.36 E1498.67045
G0 F6000 X117.00 Y122.36
G1 F3480 X111.46 Y127.89 E1498.99613
G0 F6000 X110.75 Y127.89
G1 F3480 X116.29 Y122.36 E1499.32177
G0 F6000 X115.58 Y122.36
G1 F3480 X110.05 Y127.89 E1499.64741
G0 F6000 X109.34 Y127.89
G1 F3480 X114.88 Y122.36 E1499.97308
G0 F6000 X114.17 Y122.36
G1 F3480 X108.63 Y127.89 E1500.29876
G0 F6000 X107.92 Y127.89
G1 F3480 X113.46 Y122.36 E1500.62443
G0 F6000 X112.76 Y122.36
G1 F3480 X107.22 Y127.89 E1500.95010
G0 F6000 X106.51 Y127.89
G1 F3480 X112.05 Y122.36 E1501.27577
G0 F6000 X111.34 Y122.36
G1 F3480 X105.80 Y127.89 E1501.60144
G0 F6000 X105.10 Y127.89
G1 F3480 X110.64 Y122.36 E1501.92712
G0 F6000 X109.93 Y122.36
G1 F3480 X104.39 Y127.89 E1502.25276
G0 F6000 X103.68 Y127.89
G1 F3480 X109.22 Y122.36 E1502.57840
G0 F6000 X108.51 Y122.36
G1 F3480 X102.97 Y127.89 E1502.90407
G0 F6000 X102.27 Y127.89
G1 F3480 X107.81 Y122.36 E1503.22974
G0 F6000 X107.10 Y122.36
G1 F3480 X101.56 Y127.89 E1503.55542
G0 F6000 X100.85 Y127.89
G1 F3480 X106.39 Y122.36 E1503.88109
G0 F6000 X105.69 Y122.36
G1 F3480 X100.15 Y127.89 E1504.20676
G0 F6000 X99.44 Y127.89
G1 F3480 X104.98 Y122.36 E1504.53243
G0 F6000 X104.27 Y122.36
G1 F3480 X98.73 Y127.89 E1504.85810
G0 F6000 X98.03 Y127.89
G1 F3480 X103.56 Y122.36 E1505.18375
G0 F6000 X102.86 Y122.36
G1 F3480 X97.32 Y127.89 E1505.50939
G0 F6000 X96.61 Y127.89
G1 F3480 X102.15 Y122.36 E1505.83506
G0 F6000 X101.44 Y122.36
G1 F3480 X95.90 Y127.89 E1506.16073
G0 F6000 X95.20 Y127.89
G1 F3480 X100.74 Y122.36 E1506.48641
G0 F6000 X100.03 Y122.36
G1 F3480 X94.49 Y127.89 E1506.81208
G0 F6000 X93.78 Y127.89
G1 F3480 X99.32 Y122.36 E1507.13775
G0 F6000 X98.61 Y122.36
G1 F3480 X93.08 Y127.89 E1507.46342
G0 F6000 X92.37 Y127.89
G1 F3480 X97.91 Y122.36 E1507.78909
G0 F6000 X97.20 Y122.36
G1 F3480 X91.66 Y127.89 E1508.11477
G0 F6000 X90.95 Y127.89
G1 F3480 X96.49 Y122.36 E1508.44041
G0 F6000 X95.79 Y122.36
G1 F3480 X90.25 Y127.89 E1508.76605
G0 F6000 X89.54 Y127.89
G1 F3480 X95.08 Y122.36 E1509.09172
G0 F6000 X94.37 Y122.36
G1 F3480 X88.83 Y127.89 E1509.41739
G0 F6000 X88.13 Y127.89
G1 F3480 X93.67 Y122.36 E1509.74307
G0 F6000 X92.96 Y122.36
G1 F3480 X87.42 Y127.89 E1510.06874
G0 F6000 X86.71 Y127.89
G1 F3480 X92.25 Y122.36 E1510.39441
G0 F6000 X91.54 Y122.36
G1 F3480 X86.00 Y127.89 E1510.72008
G0 F6000 X85.30 Y127.89
G1 F3480 X90.84 Y122.36 E1511.04575
G0 F6000 X90.13 Y122.36
G1 F3480 X84.59 Y127.89 E1511.37140
G0 F6000 X83.88 Y127.89
G1 F3480 X89.42 Y122.36 E1511.69704
G0 F6000 X88.72 Y122.36
G1 F3480 X83.18 Y127.89 E1512.02271
G0 F6000 X82.47 Y127.89
G1 F3480 X88.01 Y122.36 E1512.34838
G0 F6000 X87.30 Y122.36
G1 F3480 X81.76 Y127.89 E1512.67406
G0 F6000 X81.06 Y127.89
G1 F3480 X86.59 Y122.36 E1512.99973
G0 F6000 X85.89 Y122.36
G1 F3480 X80.35 Y127.89 E1513.32540
G0 F6000 X79.64 Y127.89
G1 F3480 X85.18 Y122.36 E1513.65107
G0 F6000 X84.47 Y122.36
G1 F3480 X69.33 Y137.50 E1514.54151
G0 F6000 X68.62 Y137.50
G1 F3480 X83.77 Y122.36 E1515.43192
G0 F6000 X83.06 Y122.36
G1 F3480 X67.91 Y137.50 E1516.32233
G0 F6000 X67.21 Y137.50
G1 F3480 X82.35 Y122.36 E1517.21274
G0 F6000 X81.64 Y122.36
G1 F3480 X66.50 Y137.50 E1518.10315
G0 F6000 X65.79 Y137.50
G1 F3480 X80.94 Y122.36 E1518.99356
G0 F6000 X80.23 Y122.36
G1 F3480 X65.09 Y137.50 E1519.88397
G0 F6000 X64.38 Y137.50
G1 F3480 X79.52 Y122.36 E1520.77437
G0 F6000 X78.82 Y122.36
G1 F3480 X63.67 Y137.50 E1521.66478
G0 F6000 X62.97 Y137.50
G1 F3480 X78.11 Y122.36 E1522.55519
G0 F6000 X77.40 Y122.36
G1 F3480 X62.26 Y137.50 E1523.44563
G0 F6000 X61.55 Y137.50
G1 F3480 X76.69 Y122.36 E1524.33604
G0 F6000 X75.99 Y122.36
G1 F3480 X60.84 Y137.50 E1525.22645
G0 F6000 X60.14 Y137.50
G1 F3480 X75.28 Y122.36 E1526.11686
G0 F6000 X74.57 Y122.36
G1 F3480 X59.26 Y137.67 E1527.01744
G0 F6000 X59.52 Y138.12
G1 F3480 X59.38 Y138.60 E1527.03266
G1 X59.38 Y139.31 E1527.04783
G1 X59.38 Y140.02 E1527.06300
G1 X59.38 Y140.72 E1527.07818
G1 X59.38 Y141.43 E1527.09335
G1 X59.38 Y142.14 E1527.10852
G1 X59.38 Y142.85 E1527.12369
G1 X59.38 Y143.55 E1527.13885
G1 X59.38 Y144.26 E1527.15402
G1 X59.38 Y144.97 E1527.16919
G1 X59.38 Y145.67 E1527.18435
G1 X59.38 Y146.38 E1527.19952
G1 X59.38 Y147.09 E1527.21469
G1 X59.38 Y147.80 E1527.22988
G1 X59.38 Y148.50 E1527.24504
G1 X59.38 Y149.21 E1527.26021
G1 X59.38 Y149.92 E1527.27538
G1 X59.38 Y150.62 E1527.29055
G1 X59.38 Y151.33 E1527.30571
G1 X59.38 Y152.04 E1527.32088
G1 X59.38 Y152.75 E1527.33605
G1 X59.38 Y153.45 E1527.35121
G1 X59.38 Y154.16 E1527.36640
G1 X59.38 Y154.87 E1527.38157
G1 X59.38 Y155.57 E1527.39674
G1 X59.38 Y156.28 E1527.41190
G1 X59.38 Y156.99 E1527.42707
G1 X59.38 Y157.69 E1527.44224
G1 X59.38 Y158.40 E1527.45741
G1 X59.38 Y159.11 E1527.47257
G1 X59.38 Y159.82 E1527.48774
G1 X59.38 Y160.52 E1527.50291
G1 X59.38 Y161.23 E1527.51810
G1 X59.38 Y161.94 E1527.53326
G1 X59.38 Y162.65 E1527.54843
G1 X59.38 Y163.35 E1527.56360
G1 X59.38 Y164.06 E1527.57876
G1 X59.38 Y164.77 E1527.59393
G1 X59.38 Y165.47 E1527.60910
G1 X59.38 Y166.18 E1527.62427
G1 X59.38 Y166.89 E1527.63943
G1 X59.38 Y167.59 E1527.65462
G1 X59.38 Y168.30 E1527.66979
G1 X59.38 Y169.01 E1527.68496
G1 X59.38 Y169.72 E1527.70012
G1 X59.38 Y170.42 E1527.71529
G1 X59.38 Y171.13 E1527.73046
G1 X59.38 Y171.84 E1527.74562
G1 X59.38 Y172.54 E1527.76079
G1 X59.38 Y173.25 E1527.77596
G1 X59.38 Y173.96 E1527.79115
G1 X59.38 Y174.67 E1527.80631
G1 X59.38 Y175.37 E1527.82148
G1 X59.38 Y176.08 E1527.83665
G1 X59.38 Y176.79 E1527.85182
G1 X59.38 Y177.49 E1527.86698
G1 X59.38 Y178.20 E1527.88215
G1 X59.38 Y178.91 E1527.89732
G1 X59.38 Y179.62 E1527.91248
G1 X59.38 Y180.32 E1527.92765
G1 X59.38 Y181.03 E1527.94284
G1 X59.26 Y181.51 E1527.96362
G0 F6000 X59.26 Y182.22
G1 F3480 X60.15 Y181.33 E1528.01607
G0 F6000 X60.85 Y181.33
G1 F3480 X59.54 Y182.64 E1528.09345
G0 F6000 X60.25 Y182.64
G1 F3480 X61.56 Y181.33 E1528.17082
G0 F6000 X62.27 Y181.33
G1 F3480 X60.95 Y182.64 E1528.24817
G0 F6000 X61.66 Y182.64
G1 F3480 X62.98 Y181.33 E1528.32554
G0 F6000 X63.68 Y181.33
G1 F3480 X62.37 Y182.64 E1528.40292
G0 F6000 X63.08 Y182.64
G1 F3480 X64.39 Y181.33 E1528.48030
G0 F6000 X65.10 Y181.33
G1 F3480 X63.78 Y182.64 E1528.55767
G0 F6000 X64.49 Y182.64
G1 F3480 X65.81 Y181.33 E1528.63505
G0 F6000 X66.51 Y181.33
G1 F3480 X65.20 Y182.64 E1528.71242
G0 F6000 X65.90 Y182.64
G1 F3480 X67.22 Y181.33 E1528.78980
G0 F6000 X67.93 Y181.33
G1 F3480 X66.61 Y182.64 E1528.86717
G0 F6000 X67.32 Y182.64
G1 F3480 X68.63 Y181.33 E1528.94455
G0 F6000 X69.34 Y181.33
G1 F3480 X68.03 Y182.64 E1529.02193
G0 F6000 X68.73 Y182.64
G1 F3480 X70.05 Y181.33 E1529.09930
G0 F6000 X70.75 Y181.33
G1 F3480 X69.44 Y182.64 E1529.17668
G0 F6000 X70.15 Y182.64
G1 F3480 X71.46 Y181.33 E1529.25405
G0 F6000 X72.17 Y181.33
G1 F3480 X70.85 Y182.64 E1529.33143
G0 F6000 X71.56 Y182.64
G1 F3480 X72.88 Y181.33 E1529.40880
G0 F6000 X73.58 Y181.33
G1 F3480 X72.27 Y182.64 E1529.48618
G0 F6000 X72.97 Y182.64
G1 F3480 X74.29 Y181.33 E1529.56356
G0 F6000 X75.00 Y181.33
G1 F3480 X73.68 Y182.64 E1529.64093
G0 F6000 X74.39 Y182.64
G1 F3480 X75.70 Y181.33 E1529.71828
G0 F6000 X76.41 Y181.33
G1 F3480 X75.10 Y182.64 E1529.79565
G0 F6000 X75.80 Y182.64
G1 F3480 X77.12 Y181.33 E1529.87303
G0 F6000 X77.83 Y181.33
G1 F3480 X76.51 Y182.64 E1529.95041
G0 F6000 X77.22 Y182.64
G1 F3480 X78.53 Y181.33 E1530.02778
G0 F6000 X79.24 Y181.33
G1 F3480 X77.92 Y182.64 E1530.10516
G0 F6000 X78.63 Y182.64
G1 F3480 X79.95 Y181.33 E1530.18253
G0 F6000 X80.65 Y181.33
G1 F3480 X79.34 Y182.64 E1530.25991
G0 F6000 X80.05 Y182.64
G1 F3480 X81.36 Y181.33 E1530.33728
G0 F6000 X82.07 Y181.33
G1 F3480 X80.75 Y182.64 E1530.41463
G0 F6000 X81.46 Y182.64
G1 F3480 X82.78 Y181.33 E1530.49201
G0 F6000 X83.48 Y181.33
G1 F3480 X82.17 Y182.64 E1530.56938
G0 F6000 X82.87 Y182.64
G1 F3480 X84.19 Y181.33 E1530.64676
G0 F6000 X84.90 Y181.33
G1 F3480 X83.58 Y182.64 E1530.72413
G0 F6000 X84.29 Y182.64
G1 F3480 X85.60 Y181.33 E1530.80151
G0 F6000 X86.31 Y181.33
G1 F3480 X85.00 Y182.64 E1530.87889
G0 F6000 X85.70 Y182.64
G1 F3480 X87.02 Y181.33 E1530.95626
G0 F6000 X87.72 Y181.33
G1 F3480 X86.41 Y182.64 E1531.03364
G0 F6000 X87.12 Y182.64
G1 F3480 X88.43 Y181.33 E1531.11101
G0 F6000 X89.14 Y181.33
G1 F3480 X87.82 Y182.64 E1531.18839
G0 F6000 X88.53 Y182.64
G1 F3480 X89.85 Y181.33 E1531.26576
G0 F6000 X90.55 Y181.33
G1 F3480 X89.24 Y182.64 E1531.34314
G0 F6000 X89.94 Y182.64
G1 F3480 X91.26 Y181.33 E1531.42052
G0 F6000 X91.97 Y181.33
G1 F3480 X90.65 Y182.64 E1531.49789
G0 F6000 X91.36 Y182.64
G1 F3480 X92.67 Y181.33 E1531.57527
G0 F6000 X93.38 Y181.33
G1 F3480 X92.07 Y182.64 E1531.65264
G0 F6000 X92.77 Y182.64
G1 F3480 X94.09 Y181.33 E1531.73002
G0 F6000 X94.80 Y181.33
G1 F3480 X93.48 Y182.64 E1531.80739
G0 F6000 X94.19 Y182.64
G1 F3480 X95.50 Y181.33 E1531.88474
G0 F6000 X96.21 Y181.33
G1 F3480 X94.89 Y182.64 E1531.96212
G0 F6000 X95.60 Y182.64
G1 F3480 X96.92 Y181.33 E1532.03949
G0 F6000 X97.62 Y181.33
G1 F3480 X96.31 Y182.64 E1532.11687
G0 F6000 X97.02 Y182.64
G1 F3480 X98.33 Y181.33 E1532.19424
G0 F6000 X99.04 Y181.33
G1 F3480 X97.72 Y182.64 E1532.27162
G0 F6000 X98.43 Y182.64
G1 F3480 X99.75 Y181.33 E1532.34899
G0 F6000 X100.45 Y181.33
G1 F3480 X99.14 Y182.64 E1532.42637
G0 F6000 X99.84 Y182.64
G1 F3480 X101.16 Y181.33 E1532.50375
G0 F6000 X101.87 Y181.33
G1 F3480 X100.55 Y182.64 E1532.58112
G0 F6000 X101.26 Y182.64
G1 F3480 X102.58 Y181.33 E1532.65850
G0 F6000 X103.28 Y181.33
G1 F3480 X101.97 Y182.64 E1532.73587
G0 F6000 X102.67 Y182.64
G1 F3480 X103.99 Y181.33 E1532.81325
G0 F6000 X104.70 Y181.33
G1 F3480 X103.38 Y182.64 E1532.89063
G0 F6000 X104.09 Y182.64
G1 F3480 X105.40 Y181.33 E1532.96800
G0 F6000 X106.11 Y181.33
G1 F3480 X104.79 Y182.64 E1533.04538
G0 F6000 X105.50 Y182.64
G1 F3480 X106.82 Y181.33 E1533.12275
G0 F6000 X107.52 Y181.33
G1 F3480 X106.21 Y182.64 E1533.20013
G0 F6000 X106.92 Y182.64
G1 F3480 X108.23 Y181.33 E1533.27750
G0 F6000 X108.94 Y181.33
G1 F3480 X107.62 Y182.64 E1533.35485
G0 F6000 X108.33 Y182.64
G1 F3480 X109.65 Y181.33 E1533.43223
G0 F6000 X110.35 Y181.33
G1 F3480 X109.04 Y182.64 E1533.50960
G0 F6000 X109.74 Y182.64
G1 F3480 X111.06 Y181.33 E1533.58698
G0 F6000 X111.77 Y181.33
G1 F3480 X110.45 Y182.64 E1533.66435
G0 F6000 X111.16 Y182.64
G1 F3480 X112.47 Y181.33 E1533.74173
G0 F6000 X113.18 Y181.33
G1 F3480 X111.86 Y182.64 E1533.81910
G0 F6000 X112.57 Y182.64
G1 F3480 X113.89 Y181.33 E1533.89648
G0 F6000 X114.59 Y181.33
G1 F3480 X113.28 Y182.64 E1533.97386
G0 F6000 X113.99 Y182.64
G1 F3480 X115.30 Y181.33 E1534.05120
G0 F6000 X116.01 Y181.33
G1 F3480 X114.69 Y182.64 E1534.12858
G0 F6000 X115.40 Y182.64
G1 F3480 X116.72 Y181.33 E1534.20595
G0 F6000 X117.42 Y181.33
G1 F3480 X116.11 Y182.64 E1534.28333
G0 F6000 X116.81 Y182.64
G1 F3480 X118.13 Y181.33 E1534.36071
G0 F6000 X118.84 Y181.33
G1 F3480 X117.52 Y182.64 E1534.43808
G0 F6000 X118.23 Y182.64
G1 F3480 X119.55 Y181.33 E1534.51546
G0 F6000 X120.25 Y181.33
G1 F3480 X118.94 Y182.64 E1534.59283
G0 F6000 X119.64 Y182.64
G1 F3480 X120.96 Y181.33 E1534.67021
G0 F6000 X121.67 Y181.33
G1 F3480 X120.35 Y182.64 E1534.74758
G0 F6000 X121.06 Y182.64
G1 F3480 X122.37 Y181.33 E1534.82496
G0 F6000 X123.08 Y181.33
G1 F3480 X121.77 Y182.64 E1534.90234
G0 F6000 X122.47 Y182.64
G1 F3480 X123.79 Y181.33 E1534.97971
G0 F6000 X124.50 Y181.33
G1 F3480 X123.18 Y182.64 E1535.05709
G0 F6000 X123.89 Y182.64
G1 F3480 X125.20 Y181.33 E1535.13446
G0 F6000 X125.91 Y181.33
G1 F3480 X124.59 Y182.64 E1535.21184
G0 F6000 X125.30 Y182.64
G1 F3480 X126.62 Y181.33 E1535.28921
G0 F6000 X127.32 Y181.33
G1 F3480 X126.01 Y182.64 E1535.36659
G0 F6000 X126.71 Y182.64
G1 F3480 X128.03 Y181.33 E1535.44397
G0 F6000 X128.74 Y181.33
G1 F3480 X127.42 Y182.64 E1535.52131
G0 F6000 X128.13 Y182.64
G1 F3480 X129.44 Y181.33 E1535.59869
G0 F6000 X130.15 Y181.33
G1 F3480 X128.84 Y182.64 E1535.67606
G0 F6000 X129.54 Y182.64
G1 F3480 X130.86 Y181.33 E1535.75344
G0 F6000 X131.57 Y181.33
G1 F3480 X130.25 Y182.64 E1535.83082
G0 F6000 X130.96 Y182.64
G1 F3480 X132.27 Y181.33 E1535.90819
G0 F6000 X132.98 Y181.33
G1 F3480 X131.66 Y182.64 E1535.98557
G0 F6000 X132.37 Y182.64
G1 F3480 X133.69 Y181.33 E1536.06294
G0 F6000 X134.39 Y181.33
G1 F3480 X133.08 Y182.64 E1536.14032
G0 F6000 X133.79 Y182.64
G1 F3480 X135.10 Y181.33 E1536.21767
G0 F6000 X135.81 Y181.33
G1 F3480 X134.49 Y182.64 E1536.29504
G0 F6000 X135.20 Y182.64
G1 F3480 X136.52 Y181.33 E1536.37242
G0 F6000 X137.22 Y181.33
G1 F3480 X135.91 Y182.64 E1536.44979
G0 F6000 X136.61 Y182.64
G1 F3480 X137.93 Y181.33 E1536.52717
G0 F6000 X138.64 Y181.33
G1 F3480 X137.32 Y182.64 E1536.60454
G0 F6000 X138.03 Y182.64
G1 F3480 X139.34 Y181.33 E1536.68192
G0 F6000 X140.05 Y181.33
G1 F3480 X138.74 Y182.64 E1536.75930
G0 F6000 X139.44 Y182.64
G1 F3480 X140.76 Y181.33 E1536.83667
G0 F6000 X141.47 Y181.33
G1 F3480 X140.15 Y182.64 E1536.91405
G0 F6000 X140.86 Y182.64
G1 F3480 X142.17 Y181.33 E1536.99142
G0 F6000 X142.88 Y181.33
G1 F3480 X141.56 Y182.64 E1537.06880
G0 F6000 X142.27 Y182.64
G1 F3480 X143.59 Y181.33 E1537.14617
G0 F6000 X144.29 Y181.33
G1 F3480 X142.98 Y182.64 E1537.22355
G0 F6000 X143.69 Y182.64
G1 F3480 X145.00 Y181.33 E1537.30093
G0 F6000 X145.71 Y181.33
G1 F3480 X144.39 Y182.64 E1537.37830
G0 F6000 X145.10 Y182.64
G1 F3480 X146.41 Y181.33 E1537.45568
G0 F6000 X147.12 Y181.33
G1 F3480 X145.81 Y182.64 E1537.53305
G0 F6000 X146.51 Y182.64
G1 F3480 X147.83 Y181.33 E1537.61043
G0 F6000 X148.54 Y181.33
G1 F3480 X147.22 Y182.64 E1537.68778
G0 F6000 X147.93 Y182.64
G1 F3480 X149.24 Y181.33 E1537.76515
G0 F6000 X149.95 Y181.33
G1 F3480 X148.63 Y182.64 E1537.84253
G0 F6000 X149.34 Y182.64
G1 F3480 X150.66 Y181.33 E1537.91990
G0 F6000 X151.37 Y181.33
G1 F3480 X150.05 Y182.64 E1537.99728
G0 F6000 X150.76 Y182.64
G1 F3480 X152.07 Y181.33 E1538.07465
G0 F6000 X152.78 Y181.33
G1 F3480 X151.46 Y182.64 E1538.15203
G0 F6000 X152.17 Y182.64
G1 F3480 X153.49 Y181.33 E1538.22941
G0 F6000 X154.19 Y181.33
G1 F3480 X152.88 Y182.64 E1538.30678
G0 F6000 X153.59 Y182.64
G1 F3480 X154.90 Y181.33 E1538.38413
G0 F6000 X155.61 Y181.33
G1 F3480 X154.29 Y182.64 E1538.46150
G0 F6000 X155.00 Y182.64
G1 F3480 X156.31 Y181.33 E1538.53888
G0 F6000 X157.02 Y181.33
G1 F3480 X155.71 Y182.64 E1538.61625
G0 F6000 X156.41 Y182.64
G1 F3480 X157.73 Y181.33 E1538.69363
G0 F6000 X158.44 Y181.33
G1 F3480 X157.12 Y182.64 E1538.77101
G0 F6000 X157.83 Y182.64
G1 F3480 X159.14 Y181.33 E1538.84838
G0 F6000 X159.85 Y181.33
G1 F3480 X158.53 Y182.64 E1538.92576
G0 F6000 X159.24 Y182.64
G1 F3480 X160.56 Y181.33 E1539.00313
G0 F6000 X161.26 Y181.33
G1 F3480 X159.95 Y182.64 E1539.08051
G0 F6000 X160.66 Y182.64
G1 F3480 X161.97 Y181.33 E1539.15789
G0 F6000 X162.68 Y181.33
G1 F3480 X161.36 Y182.64 E1539.23526
G0 F6000 X162.07 Y182.64
G1 F3480 X163.39 Y181.33 E1539.31264
G0 F6000 X164.09 Y181.33
G1 F3480 X162.78 Y182.64 E1539.39001
G0 F6000 X163.48 Y182.64
G1 F3480 X164.80 Y181.33 E1539.46739
G0 F6000 X165.51 Y181.33
G1 F3480 X164.19 Y182.64 E1539.54476
G0 F6000 X164.90 Y182.64
G1 F3480 X166.21 Y181.33 E1539.62214
G0 F6000 X166.92 Y181.33
G1 F3480 X165.60 Y182.64 E1539.69952
G0 F6000 X166.31 Y182.64
G1 F3480 X167.63 Y181.33 E1539.77689
G0 F6000 X168.34 Y181.33
G1 F3480 X167.02 Y182.64 E1539.85424
G0 F6000 X167.73 Y182.64
G1 F3480 X169.04 Y181.33 E1539.93161
G0 F6000 X169.75 Y181.33
G1 F3480 X168.43 Y182.64 E1540.00899
G0 F6000 X169.14 Y182.64
G1 F3480 X170.46 Y181.33 E1540.08636
G0 F6000 X171.16 Y181.33
G1 F3480 X169.85 Y182.64 E1540.16374
G0 F6000 X170.56 Y182.64
G1 F3480 X171.87 Y181.33 E1540.24112
G0 F6000 X172.58 Y181.33
G1 F3480 X171.26 Y182.64 E1540.31849
G0 F6000 X171.97 Y182.64
G1 F3480 X173.28 Y181.33 E1540.39587
G0 F6000 X173.99 Y181.33
G1 F3480 X172.68 Y182.64 E1540.47324
G0 F6000 X173.38 Y182.64
G1 F3480 X174.70 Y181.33 E1540.55062
G0 F6000 X175.41 Y181.33
G1 F3480 X174.09 Y182.64 E1540.62800
G0 F6000 X174.80 Y182.64
G1 F3480 X176.11 Y181.33 E1540.70537
G0 F6000 X176.82 Y181.33
G1 F3480 X175.50 Y182.64 E1540.78275
G0 F6000 X176.21 Y182.64
G1 F3480 X177.53 Y181.33 E1540.86012
G0 F6000 X178.24 Y181.33
G1 F3480 X176.92 Y182.64 E1540.93750
G0 F6000 X177.63 Y182.64
G1 F3480 X178.94 Y181.33 E1541.01487
G0 F6000 X179.65 Y181.33
G1 F3480 X178.33 Y182.64 E1541.09225
G0 F6000 X179.04 Y182.64
G1 F3480 X180.36 Y181.33 E1541.16963
G0 F6000 X181.06 Y181.33
G1 F3480 X179.75 Y182.64 E1541.24700
G0 F6000 X180.46 Y182.64
G1 F3480 X181.77 Y181.33 E1541.32435
G0 F6000 X182.48 Y181.33
G1 F3480 X181.16 Y182.64 E1541.40172
G0 F6000 X181.87 Y182.64
G1 F3480 X183.19 Y181.33 E1541.47910
G0 F6000 X183.89 Y181.33
G1 F3480 X182.58 Y182.64 E1541.55647
G0 F6000 X183.28 Y182.64
G1 F3480 X184.60 Y181.33 E1541.63385
G0 F6000 X185.31 Y181.33
G1 F3480 X183.99 Y182.64 E1541.71123
G0 F6000 X184.70 Y182.64
G1 F3480 X186.01 Y181.33 E1541.78860
G0 F6000 X186.72 Y181.33
G1 F3480 X185.40 Y182.64 E1541.86598
G0 F6000 X186.11 Y182.64
G1 F3480 X187.43 Y181.33 E1541.94335
G0 F6000 X188.13 Y181.33
G1 F3480 X186.82 Y182.64 E1542.02070
G0 F6000 X187.53 Y182.64
G1 F3480 X188.84 Y181.33 E1542.09808
G0 F6000 X189.55 Y181.33
G1 F3480 X188.23 Y182.64 E1542.17545
G0 F6000 X188.94 Y182.64
G1 F3480 X190.26 Y181.33 E1542.25283
G0 F6000 X190.96 Y181.33
G1 F3480 X189.65 Y182.64 E1542.33020
G0 F6000 X190.35 Y182.64
G1 F3480 X191.67 Y181.33 E1542.40758
G0 F6000 X192.38 Y181.33
G1 F3480 X191.06 Y182.64 E1542.48495
G0 F6000 X191.77 Y182.64
G1 F3480 X193.08 Y181.33 E1542.56233
G0 F6000 X193.79 Y181.33
G1 F3480 X192.47 Y182.64 E1542.63971
G0 F6000 X193.18 Y182.64
G1 F3480 X194.50 Y181.33 E1542.71708
G0 F6000 X195.21 Y181.33
G1 F3480 X193.89 Y182.64 E1542.79446
G0 F6000 X194.60 Y182.64
G1 F3480 X195.91 Y181.33 E1542.87183
G0 F6000 X196.62 Y181.33
G1 F3480 X195.30 Y182.64 E1542.94921
G0 F6000 X196.01 Y182.64
G1 F3480 X197.33 Y181.33 E1543.02658
G0 F6000 X198.03 Y181.33
G1 F3480 X196.72 Y182.64 E1543.10396
G0 F6000 X197.43 Y182.64
G1 F3480 X198.74 Y181.33 E1543.18134
G0 F6000 X199.45 Y181.33
G1 F3480 X198.13 Y182.64 E1543.25871
G0 F6000 X198.84 Y182.64
G1 F3480 X200.16 Y181.33 E1543.33609
G0 F6000 X200.86 Y181.33
G1 F3480 X199.55 Y182.64 E1543.41346
G0 F6000 X200.25 Y182.64
G1 F3480 X201.57 Y181.33 E1543.49081
G0 F6000 X202.28 Y181.33
G1 F3480 X200.96 Y182.64 E1543.56819
G0 F6000 X201.67 Y182.64
G1 F3480 X202.98 Y181.33 E1543.64556
G0 F6000 X203.69 Y181.33
G1 F3480 X202.38 Y182.64 E1543.72294
G0 F6000 X203.08 Y182.64
G1 F3480 X204.40 Y181.33 E1543.80031
G0 F6000 X205.10 Y181.33
G1 F3480 X203.79 Y182.64 E1543.87769
G0 F6000 X204.50 Y182.64
G1 F3480 X205.81 Y181.33 E1543.95506
G0 F6000 X206.52 Y181.33
G1 F3480 X205.20 Y182.64 E1544.03244
G0 F6000 X205.91 Y182.64
G1 F3480 X207.23 Y181.33 E1544.10982
G0 F6000 X207.93 Y181.33
G1 F3480 X206.62 Y182.64 E1544.18716
G0 F6000 X207.32 Y182.64
G1 F3480 X208.64 Y181.33 E1544.26454
G0 F6000 X209.35 Y181.33
G1 F3480 X208.03 Y182.64 E1544.34191
G0 F6000 X208.74 Y182.64
G1 F3480 X210.06 Y181.33 E1544.41929
G0 F6000 X210.76 Y181.33
G1 F3480 X209.45 Y182.64 E1544.49667
G0 F6000 X210.15 Y182.64
G1 F3480 X211.47 Y181.33 E1544.57404
G0 F6000 X212.18 Y181.33
G1 F3480 X210.86 Y182.64 E1544.65142
G0 F6000 X211.57 Y182.64
G1 F3480 X212.88 Y181.33 E1544.72879
G0 F6000 X213.59 Y181.33
G1 F3480 X212.27 Y182.64 E1544.80617
G0 F6000 X212.98 Y182.64
G1 F3480 X214.30 Y181.33 E1544.88354
G0 F6000 X215.00 Y181.33
G1 F3480 X213.69 Y182.64 E1544.96092
G0 F6000 X214.40 Y182.64
G1 F3480 X215.71 Y181.33 E1545.03830
G0 F6000 X216.42 Y181.33
G1 F3480 X215.10 Y182.64 E1545.11567
G0 F6000 X215.81 Y182.64
G1 F3480 X217.13 Y181.33 E1545.19305
G0 F6000 X217.83 Y181.33
G1 F3480 X216.52 Y182.64 E1545.27042
G0 F6000 X217.22 Y182.64
G1 F3480 X218.54 Y181.33 E1545.34780
G0 F6000 X219.25 Y181.33
G1 F3480 X217.93 Y182.64 E1545.42517
G0 F6000 X218.64 Y182.64
G1 F3480 X219.95 Y181.33 E1545.50255
G0 F6000 X220.66 Y181.33
G1 F3480 X219.34 Y182.64 E1545.57993
G0 F6000 X220.05 Y182.64
G1 F3480 X221.37 Y181.33 E1545.65727
G0 F6000 X222.08 Y181.33
G1 F3480 X220.76 Y182.64 E1545.73465
G0 F6000 X221.47 Y182.64
G1 F3480 X222.78 Y181.33 E1545.81202
G0 F6000 X223.49 Y181.33
G1 F3480 X222.17 Y182.64 E1545.88940
G0 F6000 X222.88 Y182.64
G1 F3480 X224.20 Y181.33 E1545.96678
G0 F6000 X224.90 Y181.33
G1 F3480 X223.59 Y182.64 E1546.04415
G0 F6000 X224.29 Y182.64
G1 F3480 X225.61 Y181.33 E1546.12153
G0 F6000 X226.32 Y181.33
G1 F3480 X225.00 Y182.64 E1546.19890
G0 F6000 X225.71 Y182.64
G1 F3480 X227.03 Y181.33 E1546.27628
G0 F6000 X227.73 Y181.33
G1 F3480 X226.42 Y182.64 E1546.35362
G0 F6000 X227.12 Y182.64
G1 F3480 X228.44 Y181.33 E1546.43100
G0 F6000 X229.15 Y181.33
G1 F3480 X227.83 Y182.64 E1546.50838
G0 F6000 X228.54 Y182.64
G1 F3480 X229.85 Y181.33 E1546.58575
G0 F6000 X230.56 Y181.33
G1 F3480 X229.25 Y182.64 E1546.66313
G0 F6000 X229.95 Y182.64
G1 F3480 X231.27 Y181.33 E1546.74050
G0 F6000 X231.97 Y181.33
G1 F3480 X230.66 Y182.64 E1546.81788
G0 F6000 X231.37 Y182.64
G1 F3480 X232.68 Y181.33 E1546.89526
G0 F6000 X233.39 Y181.33
G1 F3480 X232.07 Y182.64 E1546.97263
G0 F6000 X232.78 Y182.64
G1 F3480 X234.10 Y181.33 E1547.05001
G0 F6000 X234.80 Y181.33
G1 F3480 X233.49 Y182.64 E1547.12735
G0 F6000 X234.19 Y182.64
G1 F3480 X235.51 Y181.33 E1547.20473
G0 F6000 X236.22 Y181.33
G1 F3480 X234.90 Y182.64 E1547.28210
G0 F6000 X235.61 Y182.64
G1 F3480 X236.93 Y181.33 E1547.35948
G0 F6000 X237.63 Y181.33
G1 F3480 X236.32 Y182.64 E1547.43686
G0 F6000 X237.02 Y182.64
G1 F3480 X238.34 Y181.33 E1547.51423
G0 F6000 X239.05 Y181.33
G1 F3480 X237.73 Y182.64 E1547.59161
G0 F6000 X238.44 Y182.64
G1 F3480 X239.75 Y181.33 E1547.66898
G0 F6000 X240.46 Y181.33
G1 F3480 X239.14 Y182.64 E1547.74636
G0 F6000 X239.85 Y182.64
G1 F3480 X241.17 Y181.33 E1547.82371
G0 F6000 X241.88 Y181.33
G1 F3480 X240.56 Y182.64 E1547.90108
G0 F6000 X241.27 Y182.64
G1 F3480 X242.58 Y181.33 E1547.97846
G0 F6000 X243.29 Y181.33
G1 F3480 X241.97 Y182.64 E1548.05583
G0 F6000 X242.68 Y182.64
G1 F3480 X244.00 Y181.33 E1548.13321
G0 F6000 X244.70 Y181.33
G1 F3480 X243.39 Y182.64 E1548.21058
G0 F6000 X244.09 Y182.64
G1 F3480 X245.41 Y181.33 E1548.28796
G0 F6000 X245.48 Y181.25
G1 F3480 X245.61 Y180.77 E1548.30321
G1 X245.61 Y180.06 E1548.31844
G1 X245.61 Y179.36 E1548.33366
G1 X245.61 Y178.65 E1548.34895
G1 X245.61 Y177.94 E1548.36420
G1 X245.61 Y177.24 E1548.37942
G1 X245.61 Y176.53 E1548.39465
G1 X245.61 Y175.82 E1548.40987
G1 X245.61 Y175.11 E1548.42510
G1 X245.61 Y174.41 E1548.44033
G1 X245.61 Y173.70 E1548.45555
G1 X245.61 Y172.99 E1548.47078
G1 X245.61 Y172.29 E1548.48600
G1 X245.61 Y171.58 E1548.50129
G1 X245.61 Y170.87 E1548.51653
G1 X245.61 Y170.16 E1548.53176
G1 X245.61 Y169.46 E1548.54699
G1 X245.61 Y168.75 E1548.56221
G1 X245.61 Y168.04 E1548.57744
G1 X245.61 Y167.34 E1548.59266
G1 X245.61 Y166.63 E1548.60789
G1 X245.61 Y165.92 E1548.62312
G1 X245.61 Y165.22 E1548.63840
G1 X245.61 Y164.51 E1548.65365
G1 X245.61 Y163.80 E1548.66887
G1 X245.61 Y163.09 E1548.68410
G1 X245.61 Y162.39 E1548.69933
G1 X245.61 Y161.68 E1548.71455
G1 X245.61 Y160.97 E1548.72978
G1 X245.61 Y160.26 E1548.74500
G1 X245.61 Y159.56 E1548.76023
G1 X245.61 Y158.85 E1548.77551
G1 X245.61 Y158.14 E1548.79076
G1 X245.61 Y157.44 E1548.80599
G1 X245.61 Y156.73 E1548.82121
G1 X245.61 Y156.02 E1548.83644
G1 X245.61 Y155.31 E1548.85167
G1 X245.61 Y154.61 E1548.86689
G1 X245.61 Y153.90 E1548.88212
G1 X245.61 Y153.19 E1548.89734
G1 X245.61 Y152.49 E1548.91257
G1 X245.61 Y151.78 E1548.92785
G1 X245.61 Y151.07 E1548.94310
G1 X245.61 Y150.37 E1548.95833
G1 X245.61 Y149.66 E1548.97355
G1 X245.61 Y148.95 E1548.98878
G1 X245.61 Y148.24 E1549.00400
G1 X245.61 Y147.54 E1549.01923
G1 X245.61 Y146.83 E1549.03446
G1 X245.61 Y146.12 E1549.04968
G1 X245.61 Y145.42 E1549.06497
G1 X245.61 Y144.71 E1549.08021
G1 X245.61 Y144.00 E1549.09544
G1 X245.61 Y143.29 E1549.11067
G1 X245.61 Y142.59 E1549.12589
G1 X245.61 Y141.88 E1549.14112
G1 X245.61 Y141.17 E1549.15634
G1 X245.61 Y140.47 E1549.17157
G1 X245.61 Y139.76 E1549.18680
G1 X245.74 Y139.28 E1549.20763
G0 F6000 X245.74 Y181.70
G1 F3480 X244.80 Y182.64 E1549.26302
G0 F6000 X245.51 Y182.64
G1 F3480 X245.74 Y182.41 E1549.27683
G0 F6000 X60.30 Y180.54
G0 X60.30 Y138.28
G0 X79.06 Y136.97
G1 F3480 X78.52 Y137.50 E1549.30823
G0 F6000 X77.81 Y137.50
G1 F3480 X79.06 Y136.26 E1549.38120
G0 F6000 X79.06 Y135.55
G1 F3480 X77.11 Y137.50 E1549.49576
G0 F6000 X76.40 Y137.50
G1 F3480 X79.06 Y134.84 E1549.65190
G0 F6000 X79.06 Y134.14
G1 F3480 X75.69 Y137.50 E1549.84963
G0 F6000 X74.98 Y137.50
G1 F3480 X79.06 Y133.43 E1550.08893
G0 F6000 X79.06 Y132.72
G1 F3480 X74.28 Y137.50 E1550.36980
G0 F6000 X73.57 Y137.50
G1 F3480 X79.06 Y132.01 E1550.69224
G0 F6000 X79.06 Y131.31
G1 F3480 X72.86 Y137.50 E1551.05624
G0 F6000 X72.16 Y137.50
G1 F3480 X79.06 Y130.60 E1551.46182
G0 F6000 X79.06 Y129.89
G1 F3480 X71.45 Y137.50 E1551.90896
G0 F6000 X70.74 Y137.50
G1 F3480 X79.06 Y129.19 E1552.39771
G0 F6000 X79.06 Y128.48
G1 F3480 X70.04 Y137.50 E1552.92802
G0 F6000 X59.26 Y136.97
G1 F3480 X73.87 Y122.36 E1553.78703
G0 F6000 X73.16 Y122.36
G1 F3480 X59.26 Y136.26 E1554.60447
G0 F6000 X59.26 Y135.55
G1 F3480 X72.45 Y122.36 E1555.38035
G0 F6000 X71.75 Y122.36
G1 F3480 X59.26 Y134.84 E1556.11465
G0 F6000 X59.26 Y134.14
G1 F3480 X71.04 Y122.36 E1556.80739
G0 F6000 X70.33 Y122.36
G1 F3480 X59.26 Y133.43 E1557.45853
G0 F6000 X59.26 Y132.72
G1 F3480 X69.62 Y122.36 E1558.06810
G0 F6000 X68.92 Y122.36
G1 F3480 X59.26 Y132.02 E1558.63610
G0 F6000 X59.26 Y131.31
G1 F3480 X68.21 Y122.36 E1559.16253
G0 F6000 X67.50 Y122.36
G1 F3480 X59.26 Y130.60 E1559.64736
G0 F6000 X59.26 Y129.89
G1 F3480 X66.80 Y122.36 E1560.09063
G0 F6000 X66.09 Y122.36
G1 F3480 X59.26 Y129.19 E1560.49232
G0 F6000 X59.26 Y128.48
G1 F3480 X65.38 Y122.36 E1560.85245
G0 F6000 X64.67 Y122.36
G1 F3480 X59.26 Y127.77 E1561.17101
G0 F6000 X59.26 Y127.07
G1 F3480 X63.97 Y122.36 E1561.44799
G0 F6000 X63.26 Y122.36
G1 F3480 X59.26 Y126.36 E1561.68338
G0 F6000 X59.26 Y125.65
G1 F3480 X62.55 Y122.36 E1561.87721
G0 F6000 X61.84 Y122.36
G1 F3480 X59.26 Y124.94 E1562.02946
G0 F6000 X59.26 Y124.24
G1 F3480 X61.14 Y122.36 E1562.14011
G0 F6000 X60.43 Y122.36
G1 F3480 X59.26 Y123.53 E1562.20920
G0 F6000 X59.26 Y122.82
G1 F3480 X59.72 Y122.36 E1562.23672
;LAYER:2
G0 F6000 X59.08 Y122.18 Z0.70
;TYPE:WALL-INNER
G1 F4320 X245.92 Y122.18 E1570.00454
G1 X245.92 Y182.82 E1572.52557
G1 X59.08 Y182.82 E1580.29339
G1 X59.08 Y122.18 E1582.81443
G0 F6000 X59.69 Y137.68
G1 F4320 X59.69 Y181.15 E1584.62208
G1 X245.31 Y181.15 E1592.33917
G1 X245.31 Y137.68 E1594.14682
G1 X225.77 Y137.68 E1594.95903
G1 X225.77 Y137.00 E1594.98693
G1 X225.77 Y128.07 E1595.35836
G1 X79.23 Y128.07 E1601.45071
G1 X79.23 Y137.68 E1601.85004
G1 X59.69 Y137.68 E1602.66241
G0 F6000 X60.19 Y138.18
G1 F4320 X60.19 Y180.65 E1604.42849
G1 X244.81 Y180.65 E1612.10401
G1 X244.81 Y138.18 E1613.87008
G1 X225.28 Y138.18 E1614.68221
G1 X225.27 Y137.00 E1614.73090
G1 X225.27 Y128.57 E1615.08154
G1 X79.73 Y128.57 E1621.13231
G1 X79.73 Y138.18 E1621.53164
G1 X60.19 Y138.18 E1622.34402
G0 F6000 X58.58 Y121.68
G1 F4320 X246.42 Y121.68 E1630.15341
G1 X246.42 Y183.32 E1632.71602
G1 X58.58 Y183.32 E1640.52542
G1 X58.58 Y121.68 E1643.08803
G0 F6000 X58.08 Y121.18
;TYPE:WALL-OUTER
G1 F4320 X246.92 Y121.18 E1650.93900
G1 X246.92 Y183.82 E1653.54319
G1 X58.08 Y183.82 E1661.39416
G1 X58.08 Y121.18 E1663.99834
G0 F6000 X58.43 Y121.44
G0 X60.69 Y138.32
G0 X60.69 Y138.68
G1 F4320 X60.69 Y180.15 E1665.72284
G1 X244.31 Y180.15 E1673.35679
G1 X244.31 Y138.68 E1675.08129
G1 X224.78 Y138.68 E1675.89329
G1 X224.77 Y137.00 E1675.96276
G1 X224.77 Y129.07 E1676.29262
G1 X80.23 Y129.07 E1682.30181
G1 X80.23 Y138.68 E1682.70114
G1 X60.69 Y138.68 E1683.51352
G0 F6000 X60.78 Y137.50
;TYPE:FILL
G1 F4320 X59.26 Y135.98 E1683.60301
G0 F6000 X59.26 Y136.68
G1 F4320 X60.07 Y137.50 E1683.65093
G0 F6000 X59.52 Y137.65
G1 F4320 X59.26 Y137.74 E1683.66617
G1 X59.39 Y138.58 E1683.68139
G1 X59.39 Y139.29 E1683.69661
G1 X59.39 Y140.00 E1683.71186
G1 X59.39 Y140.70 E1683.72715
G1 X59.39 Y141.41 E1683.74237
G1 X59.39 Y142.12 E1683.75760
G1 X59.39 Y142.82 E1683.77282
G1 X59.39 Y143.53 E1683.78805
G1 X59.39 Y144.24 E1683.80328
G1 X59.39 Y144.94 E1683.81850
G1 X59.39 Y145.65 E1683.83373
G1 X59.39 Y146.36 E1683.84897
G1 X59.39 Y147.07 E1683.86426
G1 X59.39 Y147.77 E1683.87949
G1 X59.39 Y148.48 E1683.89471
G1 X59.39 Y149.19 E1683.90994
G1 X59.39 Y149.90 E1683.92516
G1 X59.39 Y150.60 E1683.94039
G1 X59.39 Y151.31 E1683.95561
G1 X59.39 Y152.02 E1683.97084
G1 X59.39 Y152.72 E1683.98609
G1 X59.39 Y153.43 E1684.00137
G1 X59.39 Y154.14 E1684.01660
G1 X59.39 Y154.84 E1684.03182
G1 X59.39 Y155.55 E1684.04705
G1 X59.39 Y156.26 E1684.06228
G1 X59.39 Y156.97 E1684.07750
G1 X59.39 Y157.67 E1684.09273
G1 X59.39 Y158.38 E1684.10795
G1 X59.39 Y159.09 E1684.12318
G1 X59.39 Y159.79 E1684.13843
G1 X59.39 Y160.50 E1684.15371
G1 X59.39 Y161.21 E1684.16894
G1 X59.39 Y161.92 E1684.18416
G1 X59.39 Y162.62 E1684.19939
G1 X59.39 Y163.33 E1684.21462
G1 X59.39 Y164.04 E1684.22984
G1 X59.39 Y164.74 E1684.24507
G1 X59.39 Y165.45 E1684.26029
G1 X59.39 Y166.16 E1684.27554
G1 X59.39 Y166.87 E1684.29083
G1 X59.39 Y167.57 E1684.30605
G1 X59.39 Y168.28 E1684.32128
G1 X59.39 Y168.99 E1684.33650
G1 X59.39 Y169.69 E1684.35173
G1 X59.39 Y170.40 E1684.36696
G1 X59.39 Y171.11 E1684.38218
G1 X59.39 Y171.81 E1684.39741
G1 X59.39 Y172.52 E1684.41265
G1 X59.39 Y173.23 E1684.42794
G1 X59.39 Y173.94 E1684.44317
G1 X59.39 Y174.64 E1684.45839
G1 X59.39 Y175.35 E1684.47362
G1 X59.39 Y176.06 E1684.48884
G1 X59.39 Y176.76 E1684.50407
G1 X59.39 Y177.47 E1684.51929
G1 X59.39 Y178.18 E1684.53452
G1 X59.39 Y178.89 E1684.54975
G1 X59.39 Y179.59 E1684.56499
G1 X59.39 Y180.30 E1684.58028
G1 X59.52 Y180.78 E1684.60111
G0 F6000 X59.26 Y181.23
G1 F4320 X60.67 Y182.64 E1684.68408
G0 F6000 X59.96 Y182.64
G1 F4320 X59.26 Y181.94 E1684.72547
G0 F6000 X60.06 Y181.33
G1 F4320 X61.37 Y182.64 E1684.80273
G0 F6000 X62.08 Y182.64
G1 F4320 X60.77 Y181.33 E1684.87998
G0 F6000 X61.47 Y181.33
G1 F4320 X62.79 Y182.64 E1684.95724
G0 F6000 X63.50 Y182.64
G1 F4320 X62.18 Y181.33 E1685.03453
G0 F6000 X62.89 Y181.33
G1 F4320 X64.20 Y182.64 E1685.11182
G0 F6000 X64.91 Y182.64
G1 F4320 X63.59 Y181.33 E1685.18911
G0 F6000 X64.30 Y181.33
G1 F4320 X65.62 Y182.64 E1685.26639
G0 F6000 X66.32 Y182.64
G1 F4320 X65.01 Y181.33 E1685.34368
G0 F6000 X65.72 Y181.33
G1 F4320 X67.03 Y182.64 E1685.42094
G0 F6000 X67.74 Y182.64
G1 F4320 X66.42 Y181.33 E1685.49820
G0 F6000 X67.13 Y181.33
G1 F4320 X68.44 Y182.64 E1685.57545
G0 F6000 X69.15 Y182.64
G1 F4320 X67.84 Y181.33 E1685.65271
G0 F6000 X68.55 Y181.33
G1 F4320 X69.86 Y182.64 E1685.73000
G0 F6000 X70.57 Y182.64
G1 F4320 X69.25 Y181.33 E1685.80729
G0 F6000 X69.96 Y181.33
G1 F4320 X71.27 Y182.64 E1685.88458
G0 F6000 X71.98 Y182.64
G1 F4320 X70.67 Y181.33 E1685.96186
G0 F6000 X71.37 Y181.33
G1 F4320 X72.69 Y182.64 E1686.03915
G0 F6000 X73.39 Y182.64
G1 F4320 X72.08 Y181.33 E1686.11641
G0 F6000 X72.79 Y181.33
G1 F4320 X74.10 Y182.64 E1686.19367
G0 F6000 X74.81 Y182.64
G1 F4320 X73.50 Y181.33 E1686.27093
G0 F6000 X74.20 Y181.33
G1 F4320 X75.52 Y182.64 E1686.34818
G0 F6000 X76.22 Y182.64
G1 F4320 X74.91 Y181.33 E1686.42544
G0 F6000 X75.62 Y181.33
G1 F4320 X76.93 Y182.64 E1686.50273
G0 F6000 X77.64 Y182.64
G1 F4320 X76.32 Y181.33 E1686.58002
G0 F6000 X77.03 Y181.33
G1 F4320 X78.34 Y182.64 E1686.65730
G0 F6000 X79.05 Y182.64
G1 F4320 X77.74 Y181.33 E1686.73459
G0 F6000 X78.44 Y181.33
G1 F4320 X79.76 Y182.64 E1686.81185
G0 F6000 X80.47 Y182.64
G1 F4320 X79.15 Y181.33 E1686.88911
G0 F6000 X79.86 Y181.33
G1 F4320 X81.17 Y182.64 E1686.96637
G0 F6000 X81.88 Y182.64
G1 F4320 X80.57 Y181.33 E1687.04362
G0 F6000 X81.27 Y181.33
G1 F4320 X82.59 Y182.64 E1687.12088
G0 F6000 X83.30 Y182.64
G1 F4320 X81.98 Y181.33 E1687.19817
G0 F6000 X82.69 Y181.33
G1 F4320 X84.00 Y182.64 E1687.27546
G0 F6000 X84.71 Y182.64
G1 F4320 X83.39 Y181.33 E1687.35275
G0 F6000 X84.10 Y181.33
G1 F4320 X85.42 Y182.64 E1687.43003
G0 F6000 X86.12 Y182.64
G1 F4320 X84.81 Y181.33 E1687.50732
G0 F6000 X85.52 Y181.33
G1 F4320 X86.83 Y182.64 E1687.58458
G0 F6000 X87.54 Y182.64
G1 F4320 X86.22 Y181.33 E1687.66184
G0 F6000 X86.93 Y181.33
G1 F4320 X88.24 Y182.64 E1687.73910
G0 F6000 X88.95 Y182.64
G1 F4320 X87.64 Y181.33 E1687.81635
G0 F6000 X88.34 Y181.33
G1 F4320 X89.66 Y182.64 E1687.89364
G0 F6000 X90.37 Y182.64
G1 F4320 X89.05 Y181.33 E1687.97093
G0 F6000 X89.76 Y181.33
G1 F4320 X91.07 Y182.64 E1688.04822
G0 F6000 X91.78 Y182.64
G1 F4320 X90.47 Y181.33 E1688.12550
G0 F6000 X91.17 Y181.33
G1 F4320 X92.49 Y182.64 E1688.20279
G0 F6000 X93.19 Y182.64
G1 F4320 X91.88 Y181.33 E1688.28005
G0 F6000 X92.59 Y181.33
G1 F4320 X93.90 Y182.64 E1688.35731
G0 F6000 X94.61 Y182.64
G1 F4320 X93.29 Y181.33 E1688.43457
G0 F6000 X94.00 Y181.33
G1 F4320 X95.31 Y182.64 E1688.51182
G0 F6000 X96.02 Y182.64
G1 F4320 X94.71 Y181.33 E1688.58908
G0 F6000 X95.42 Y181.33
G1 F4320 X96.73 Y182.64 E1688.66637
G0 F6000 X97.44 Y182.64
G1 F4320 X96.12 Y181.33 E1688.74366
G0 F6000 X96.83 Y181.33
G1 F4320 X98.14 Y182.64 E1688.82094
G0 F6000 X98.85 Y182.64
G1 F4320 X97.54 Y181.33 E1688.89823
G0 F6000 X98.24 Y181.33
G1 F4320 X99.56 Y182.64 E1688.97549
G0 F6000 X100.27 Y182.64
G1 F4320 X98.95 Y181.33 E1689.05275
G0 F6000 X99.66 Y181.33
G1 F4320 X100.97 Y182.64 E1689.13001
G0 F6000 X101.68 Y182.64
G1 F4320 X100.36 Y181.33 E1689.20726
G0 F6000 X101.07 Y181.33
G1 F4320 X102.39 Y182.64 E1689.28452
G0 F6000 X103.09 Y182.64
G1 F4320 X101.78 Y181.33 E1689.36181
G0 F6000 X102.49 Y181.33
G1 F4320 X103.80 Y182.64 E1689.43910
G0 F6000 X104.51 Y182.64
G1 F4320 X103.19 Y181.33 E1689.51639
G0 F6000 X103.90 Y181.33
G1 F4320 X105.22 Y182.64 E1689.59367
G0 F6000 X105.92 Y182.64
G1 F4320 X104.61 Y181.33 E1689.67096
G0 F6000 X105.31 Y181.33
G1 F4320 X106.63 Y182.64 E1689.74822
G0 F6000 X107.34 Y182.64
G1 F4320 X106.02 Y181.33 E1689.82548
G0 F6000 X106.73 Y181.33
G1 F4320 X108.04 Y182.64 E1689.90274
G0 F6000 X108.75 Y182.64
G1 F4320 X107.44 Y181.33 E1689.97999
G0 F6000 X108.14 Y181.33
G1 F4320 X109.46 Y182.64 E1690.05728
G0 F6000 X110.17 Y182.64
G1 F4320 X108.85 Y181.33 E1690.13457
G0 F6000 X109.56 Y181.33
G1 F4320 X110.87 Y182.64 E1690.21186
G0 F6000 X111.58 Y182.64
G1 F4320 X110.26 Y181.33 E1690.28914
G0 F6000 X110.97 Y181.33
G1 F4320 X112.29 Y182.64 E1690.36643
G0 F6000 X112.99 Y182.64
G1 F4320 X111.68 Y181.33 E1690.44369
G0 F6000 X112.39 Y181.33
G1 F4320 X113.70 Y182.64 E1690.52095
G0 F6000 X114.41 Y182.64
G1 F4320 X113.09 Y181.33 E1690.59821
G0 F6000 X113.80 Y181.33
G1 F4320 X115.11 Y182.64 E1690.67546
G0 F6000 X115.82 Y182.64
G1 F4320 X114.51 Y181.33 E1690.75272
G0 F6000 X115.21 Y181.33
G1 F4320 X116.53 Y182.64 E1690.83001
G0 F6000 X117.24 Y182.64
G1 F4320 X115.92 Y181.33 E1690.90730
G0 F6000 X116.63 Y181.33
G1 F4320 X117.94 Y182.64 E1690.98458
G0 F6000 X118.65 Y182.64
G1 F4320 X117.33 Y181.33 E1691.06187
G0 F6000 X118.04 Y181.33
G1 F4320 X119.36 Y182.64 E1691.13916
G0 F6000 X120.06 Y182.64
G1 F4320 X118.75 Y181.33 E1691.21642
G0 F6000 X119.46 Y181.33
G1 F4320 X120.77 Y182.64 E1691.29368
G0 F6000 X121.48 Y182.64
G1 F4320 X120.16 Y181.33 E1691.37093
G0 F6000 X120.87 Y181.33
G1 F4320 X122.19 Y182.64 E1691.44819
G0 F6000 X122.89 Y182.64
G1 F4320 X121.58 Y181.33 E1691.52548
G0 F6000 X122.28 Y181.33
G1 F4320 X123.60 Y182.64 E1691.60277
G0 F6000 X124.31 Y182.64
G1 F4320 X122.99 Y181.33 E1691.68006
G0 F6000 X123.70 Y181.33
G1 F4320 X125.01 Y182.64 E1691.75734
G0 F6000 X125.72 Y182.64
G1 F4320 X124.41 Y181.33 E1691.83463
G0 F6000 X125.11 Y181.33
G1 F4320 X126.43 Y182.64 E1691.91189
G0 F6000 X127.14 Y182.64
G1 F4320 X125.82 Y181.33 E1691.98915
G0 F6000 X126.53 Y181.33
G1 F4320 X127.84 Y182.64 E1692.06641
G0 F6000 X128.55 Y182.64
G1 F4320 X127.23 Y181.33 E1692.14366
G0 F6000 X127.94 Y181.33
G1 F4320 X129.26 Y182.64 E1692.22092
G0 F6000 X129.96 Y182.64
G1 F4320 X128.65 Y181.33 E1692.29821
G0 F6000 X129.36 Y181.33
G1 F4320 X130.67 Y182.64 E1692.37550
G0 F6000 X131.38 Y182.64
G1 F4320 X130.06 Y181.33 E1692.45278
G0 F6000 X130.77 Y181.33
G1 F4320 X132.09 Y182.64 E1692.53007
G0 F6000 X132.79 Y182.64
G1 F4320 X131.48 Y181.33 E1692.60733
G0 F6000 X132.19 Y181.33
G1 F4320 X133.50 Y182.64 E1692.68459
G0 F6000 X134.21 Y182.64
G1 F4320 X132.89 Y181.33 E1692.76185
G0 F6000 X133.60 Y181.33
G1 F4320 X134.91 Y182.64 E1692.83910
G0 F6000 X135.62 Y182.64
G1 F4320 X134.31 Y181.33 E1692.91636
G0 F6000 X135.01 Y181.33
G1 F4320 X136.33 Y182.64 E1692.99365
G0 F6000 X137.03 Y182.64
G1 F4320 X135.72 Y181.33 E1693.07094
G0 F6000 X136.43 Y181.33
G1 F4320 X137.74 Y182.64 E1693.14823
G0 F6000 X138.45 Y182.64
G1 F4320 X137.13 Y181.33 E1693.22551
G0 F6000 X137.84 Y181.33
G1 F4320 X139.16 Y182.64 E1693.30280
G0 F6000 X139.86 Y182.64
G1 F4320 X138.55 Y181.33 E1693.38006
G0 F6000 X139.26 Y181.33
G1 F4320 X140.57 Y182.64 E1693.45732
G0 F6000 X141.28 Y182.64
G1 F4320 X139.96 Y181.33 E1693.53457
G0 F6000 X140.67 Y181.33
G1 F4320 X141.98 Y182.64 E1693.61183
G0 F6000 X142.69 Y182.64
G1 F4320 X141.38 Y181.33 E1693.68912
G0 F6000 X142.08 Y181.33
G1 F4320 X143.40 Y182.64 E1693.76641
G0 F6000 X144.11 Y182.64
G1 F4320 X142.79 Y181.33 E1693.84370
G0 F6000 X143.50 Y181.33
G1 F4320 X144.81 Y182.64 E1693.92098
G0 F6000 X145.52 Y182.64
G1 F4320 X144.21 Y181.33 E1693.99827
G0 F6000 X144.91 Y181.33
G1 F4320 X146.23 Y182.64 E1694.07553
G0 F6000 X146.93 Y182.64
G1 F4320 X145.62 Y181.33 E1694.15279
G0 F6000 X146.33 Y181.33
G1 F4320 X147.64 Y182.64 E1694.23005
G0 F6000 X148.35 Y182.64
G1 F4320 X147.03 Y181.33 E1694.30730
G0 F6000 X147.74 Y181.33
G1 F4320 X149.06 Y182.64 E1694.38456
G0 F6000 X149.76 Y182.64
G1 F4320 X148.45 Y181.33 E1694.46185
G0 F6000 X149.16 Y181.33
G1 F4320 X150.47 Y182.64 E1694.53914
G0 F6000 X151.18 Y182.64
G1 F4320 X149.86 Y181.33 E1694.61642
G0 F6000 X150.57 Y181.33
G1 F4320 X151.88 Y182.64 E1694.69371
G0 F6000 X152.59 Y182.64
G1 F4320 X151.28 Y181.33 E1694.77097
G0 F6000 X151.98 Y181.33
G1 F4320 X153.30 Y182.64 E1694.84823
G0 F6000 X154.00 Y182.64
G1 F4320 X152.69 Y181.33 E1694.92549
G0 F6000 X153.40 Y181.33
G1 F4320 X154.71 Y182.64 E1695.00274
G0 F6000 X155.42 Y182.64
G1 F4320 X154.10 Y181.33 E1695.08000
G0 F6000 X154.81 Y181.33
G1 F4320 X156.13 Y182.64 E1695.15729
G0 F6000 X156.83 Y182.64
G1 F4320 X155.52 Y181.33 E1695.23458
G0 F6000 X156.23 Y181.33
G1 F4320 X157.54 Y182.64 E1695.31187
G0 F6000 X158.25 Y182.64
G1 F4320 X156.93 Y181.33 E1695.38915
G0 F6000 X157.64 Y181.33
G1 F4320 X158.96 Y182.64 E1695.46644
G0 F6000 X159.66 Y182.64
G1 F4320 X158.35 Y181.33 E1695.54370
G0 F6000 X159.06 Y181.33
G1 F4320 X160.37 Y182.64 E1695.62096
G0 F6000 X161.08 Y182.64
G1 F4320 X159.76 Y181.33 E1695.69822
G0 F6000 X160.47 Y181.33
