;-- START GCODE --
;Sliced for Type A Machines Series 1
;Sliced at: Sun 14-08-2016 21:22:24
;Basic settings: Layer height: 0.2 Walls: 1.5 Fill: 40
;Print Speed: 100 Support: 0
;Retraction Speed: 40 Retraction Distance: 1.2
;Print time: #P_TIME#
;Filament used: #F_AMNT#m #F_WGHT#g
;Filament cost: #F_COST#
M106 S255	 ;start with the fan on
G21        ;metric values
G90        ;absolute positioning
M106 S255    ;start with the fan on
G28     ;move to endstops
G29		;allows for auto-levelling
G1 X150 Y5  Z15.0 F6000 ;center and move the platform down 15mm
M109 S220 ;Heat To temp
G92 E0                  ;zero the extruded length
G1 F200 E30              ;extrude 30mm of feed stock
G92 E0                  ;zero the extruded length again
G1 X175 Y25  Z0 F6000 ;remove bugger
G1 X220 F6000 ;remove bugger
G1 X150 Y150  Z15 F6000 ;recenter and begin
G1 F6000

;Layer count: 60
;LAYER:0
M106 S255
G0 F6000 X63.25 Y136.24 Z0.30
;TYPE:SKIRT
G1 F2700 X75.97 Y136.24 E0.79276
G1 X241.71 Y136.24 E11.12895
G1 X241.75 Y143.65 E11.59131
G1 X241.75 Y156.26 E12.37739
G1 X241.74 Y156.26 E12.37777
G1 X241.76 Y168.76 E13.15743
G1 X217.32 Y168.76 E14.68170
G1 X217.32 Y156.97 E15.41670
G1 X87.84 Y156.97 E23.49131
G1 X87.84 Y168.76 E24.22632
G1 X63.25 Y168.76 E25.75982
G1 X63.25 Y149.32 E26.97202
G1 X63.25 Y149.27 E26.97558
G1 X63.25 Y148.84 E27.00184
G1 X63.25 Y136.24 E27.78786
G0 F6000 X63.75 Y136.74
G1 F2700 X75.97 Y136.74 E28.54943
G1 X241.21 Y136.74 E38.85463
G1 X241.25 Y143.66 E39.28587
G1 X241.25 Y155.76 E40.04071
G1 X241.24 Y155.76 E40.04115
G1 X241.26 Y168.26 E40.82081
G1 X217.82 Y168.26 E42.28265
G1 X217.82 Y156.47 E43.01766
G1 X87.34 Y156.47 E51.15463
G1 X87.34 Y168.26 E51.88963
G1 X63.75 Y168.26 E53.36077
G1 X63.75 Y149.33 E54.54111
G1 X63.75 Y149.28 E54.54467
G1 X63.75 Y148.84 E54.57167
G1 X63.75 Y136.74 E55.32645
G0 F6000 X64.25 Y137.24
G1 F2700 X75.97 Y137.24 E56.05684
G1 X240.71 Y137.24 E66.33104
G1 X240.75 Y143.66 E66.73123
G1 X240.75 Y155.26 E67.45476
G1 X240.74 Y155.26 E67.45526
G1 X240.76 Y167.76 E68.23492
G1 X218.32 Y167.76 E69.63434
G1 X218.32 Y155.97 E70.36935
G1 X86.84 Y155.97 E78.56868
G1 X86.84 Y167.76 E79.30369
G1 X64.25 Y167.76 E80.71246
G1 X64.25 Y149.34 E81.86099
G1 X64.25 Y149.28 E81.86468
G1 X64.25 Y148.84 E81.89230
G1 X64.25 Y137.24 E82.61577
G0 F6000 X64.75 Y137.74
G1 F2700 X75.97 Y137.74 E83.31498
G1 X240.22 Y137.74 E93.55819
G1 X240.25 Y143.66 E93.92726
G1 X240.25 Y154.76 E94.61955
G1 X240.24 Y154.76 E94.62011
G1 X240.26 Y167.26 E95.39977
G1 X218.82 Y167.26 E96.73676
G1 X218.82 Y155.47 E97.47177
G1 X86.34 Y155.47 E105.73347
G1 X86.34 Y167.26 E106.46847
G1 X64.75 Y167.26 E107.81488
G1 X64.75 Y149.35 E108.93161
G1 X64.75 Y149.29 E108.93530
G1 X64.75 Y148.84 E108.96361
G1 X64.75 Y137.74 E109.65584
G0 F6000 X65.25 Y138.24
G1 F2700 X239.72 Y138.24 E120.53602
G1 X239.75 Y143.66 E120.87396
G1 X239.75 Y154.26 E121.53501
G1 X239.74 Y154.26 E121.53563
G1 X239.76 Y166.76 E122.31529
G1 X219.32 Y166.76 E123.58986
G1 X219.32 Y154.97 E124.32487
G1 X85.84 Y154.97 E132.64893
G1 X85.84 Y166.76 E133.38393
G1 X65.25 Y166.76 E134.66798
G1 X65.25 Y149.36 E135.75291
G1 X65.25 Y149.30 E135.75684
G1 X65.25 Y148.84 E135.78559
G1 X65.25 Y138.24 E136.44657
G0 F6000 X65.75 Y138.74
G1 F2700 X239.22 Y138.74 E147.26458
G1 X239.25 Y143.66 E147.57141
G1 X239.25 Y153.76 E148.20121
G1 X239.24 Y153.76 E148.20183
G1 X239.26 Y166.26 E148.98149
G1 X219.82 Y166.26 E150.19370
G1 X219.82 Y154.47 E150.92871
G1 X85.34 Y154.47 E159.31513
G1 X85.34 Y166.26 E160.05013
G1 X65.75 Y166.26 E161.27182
G1 X65.75 Y149.38 E162.32488
G1 X65.75 Y149.31 E162.32881
G1 X65.75 Y148.84 E162.35831
G1 X65.75 Y138.74 E162.98805
G0 F6000 X66.25 Y139.24
G1 F2700 X238.72 Y139.24 E173.74388
G1 X238.75 Y143.66 E174.01965
G1 X238.75 Y153.26 E174.61814
G1 X238.74 Y153.26 E174.61883
G1 X238.76 Y165.76 E175.39849
G1 X220.32 Y165.76 E176.54827
G1 X220.32 Y153.97 E177.28328
G1 X84.84 Y153.97 E185.73206
G1 X84.84 Y165.76 E186.46707
G1 X66.25 Y165.76 E187.62639
G1 X66.25 Y149.38 E188.64764
G1 X66.25 Y149.32 E188.65158
G1 X66.25 Y148.84 E188.68182
G1 X66.25 Y139.24 E189.28026
G0 F6000 X66.75 Y139.74
G1 F2700 X238.23 Y139.74 E199.97391
G1 X238.25 Y143.66 E200.21856
G1 X238.25 Y152.76 E200.78581
G1 X238.24 Y152.76 E200.78656
G1 X238.25 Y165.26 E201.56622
G1 X220.82 Y165.26 E202.65358
G1 X220.82 Y153.47 E203.38859
G1 X84.34 Y153.47 E211.89973
G1 X84.34 Y165.26 E212.63474
G1 X66.75 Y165.26 E213.73170
G1 X66.75 Y149.40 E214.72115
G1 X66.75 Y149.33 E214.72520
G1 X66.75 Y148.84 E214.75601
G1 X66.75 Y139.74 E215.32320
G0 F6000 X67.25 Y140.24
G1 F2700 X237.73 Y140.24 E225.95462
G1 X237.75 Y143.66 E226.16815
G1 X237.75 Y152.26 E226.70416
G1 X237.73 Y152.26 E226.70497
G1 X237.75 Y164.76 E227.48463
G1 X221.32 Y164.76 E228.50956
G1 X221.32 Y152.97 E229.24457
G1 X83.84 Y152.97 E237.81807
G1 X83.84 Y164.76 E238.55308
G1 X67.25 Y164.76 E239.58768
G1 X67.25 Y149.41 E240.54532
G1 X67.25 Y149.34 E240.54950
G1 X67.25 Y148.84 E240.58087
G1 X67.25 Y140.24 E241.11682
G0 F6000 X67.75 Y140.74
G1 F2700 X237.23 Y140.74 E251.68606
G1 X237.25 Y143.67 E251.86853
G1 X237.25 Y151.76 E252.37324
G1 X237.23 Y151.76 E252.37411
G1 X237.25 Y164.26 E253.15377
G1 X221.82 Y164.26 E254.11628
G1 X221.82 Y152.47 E254.85128
G1 X83.34 Y152.47 E263.48715
G1 X83.34 Y164.26 E264.22216
G1 X67.75 Y164.26 E265.19440
G1 X67.75 Y149.42 E266.12017
G1 X67.75 Y149.35 E266.12454
G1 X67.75 Y148.83 E266.15653
G1 X67.75 Y140.74 E266.66117
G0 F6000 X68.25 Y141.24
G1 F2700 X236.74 Y141.24 E277.16830
G1 X236.75 Y143.67 E277.31966
G1 X236.75 Y151.26 E277.79311
G1 X236.73 Y151.26 E277.79405
G1 X236.75 Y163.76 E278.57371
G1 X222.32 Y163.76 E279.47385
G1 X222.32 Y151.97 E280.20886
G1 X82.84 Y151.97 E288.90709
G1 X82.84 Y163.76 E289.64210
G1 X68.25 Y163.76 E290.55197
G1 X68.25 Y149.43 E291.44594
G1 X68.25 Y149.36 E291.45019
G1 X68.25 Y148.83 E291.48299
G1 X68.25 Y141.24 E291.95645
G0 F6000 X68.75 Y141.74
G1 F2700 X236.24 Y141.74 E302.40134
G1 X236.25 Y143.67 E302.52157
G1 X236.25 Y150.76 E302.96379
G1 X236.23 Y150.76 E302.96479
G1 X236.25 Y163.26 E303.74445
G1 X222.82 Y163.26 E304.58216
G1 X222.82 Y151.47 E305.31717
G1 X82.34 Y151.47 E314.07777
G1 X82.34 Y163.26 E314.81277
G1 X68.75 Y163.26 E315.66028
G1 X68.75 Y149.44 E316.52245
G1 X68.75 Y149.36 E316.52713
G1 X68.75 Y148.83 E316.56018
G1 X68.75 Y141.74 E317.00240
G0 F6000 X69.25 Y142.24
G1 F2700 X235.74 Y142.24 E327.38511
G1 X235.75 Y143.67 E327.47429
G1 X235.75 Y150.26 E327.88520
G1 X235.73 Y150.26 E327.88626
G1 X235.75 Y162.76 E328.66592
G1 X223.32 Y162.76 E329.44121
G1 X223.32 Y150.97 E330.17622
G1 X81.84 Y150.97 E338.99918
G1 X81.84 Y162.76 E339.73418
G1 X69.25 Y162.76 E340.51933
G1 X69.25 Y149.45 E341.34969
G1 X69.25 Y149.37 E341.35431
G1 X69.25 Y148.83 E341.38817
G1 X69.25 Y142.24 E341.79908
G0 F6000 X69.75 Y142.74
G1 F2700 X235.24 Y142.74 E352.11962
G1 X235.25 Y143.67 E352.17768
G1 X235.25 Y149.76 E352.55734
G1 X235.23 Y149.76 E352.55847
G1 X235.25 Y162.26 E353.33813
G1 X223.82 Y162.26 E354.05100
G1 X223.82 Y150.47 E354.78600
G1 X81.34 Y150.47 E363.67132
G1 X81.34 Y162.26 E364.40633
G1 X69.75 Y162.26 E365.12911
G1 X69.75 Y149.46 E365.92761
G1 X69.75 Y149.38 E365.93210
G1 X69.75 Y148.83 E365.96684
G1 X69.75 Y142.74 E366.34650
G0 F6000 X70.25 Y143.24
G1 F2700 X234.75 Y143.24 E376.60486
G1 X234.75 Y143.67 E376.63180
G1 X234.75 Y149.26 E376.98023
G1 X234.73 Y149.26 E376.98135
G1 X234.75 Y161.76 E377.76101
G1 X224.32 Y161.76 E378.41145
G1 X224.32 Y149.97 E379.14646
G1 X80.84 Y149.97 E388.09414
G1 X80.84 Y161.76 E388.82915
G1 X70.25 Y161.76 E389.48957
G1 X70.25 Y149.47 E390.25626
G1 X70.26 Y149.26 E390.26924
G1 X70.25 Y149.26 E390.26961
G1 X70.25 Y148.83 E390.29655
G1 X70.25 Y143.24 E390.64498
G0 F6000 X71.10 Y144.00
G0 X71.75 Y144.74
;TYPE:WALL-INNER
G1 F2700 X233.25 Y144.74 E400.71637
G1 X233.25 Y147.76 E400.90465
G1 X233.23 Y147.76 E400.90577
G1 X233.23 Y149.67 E401.02507
G1 X233.25 Y160.26 E401.68543
G1 X225.82 Y160.26 E402.14866
G1 X225.82 Y148.47 E402.88367
G1 X79.34 Y148.47 E412.01844
G1 X79.34 Y160.26 E412.75345
G1 X71.75 Y160.26 E413.22678
G1 X71.75 Y149.50 E413.89793
G1 X71.82 Y147.76 E414.00653
G1 X71.75 Y147.76 E414.01096
G1 X71.75 Y144.74 E414.19923
G0 F6000 X71.25 Y144.24
G1 F2700 X233.75 Y144.24 E424.33299
G1 X233.75 Y148.26 E424.58363
G1 X233.73 Y148.26 E424.58475
G1 X233.73 Y149.67 E424.67287
G1 X233.75 Y160.76 E425.36441
G1 X225.32 Y160.76 E425.89006
G1 X225.32 Y148.97 E426.62507
G1 X79.84 Y148.97 E435.69748
G1 X79.84 Y160.76 E436.43249
G1 X71.25 Y160.76 E436.96818
G1 X71.25 Y149.47 E437.67220
G1 X71.30 Y148.26 E437.74791
G1 X71.25 Y148.26 E437.75102
G1 X71.25 Y144.24 E438.00166
G0 F6000 X70.75 Y143.74
;TYPE:WALL-OUTER
G1 F2700 X234.25 Y143.74 E448.19778
G1 X234.25 Y148.76 E448.51078
G1 X234.23 Y148.76 E448.51190
G1 X234.25 Y161.26 E449.29156
G1 X224.82 Y161.26 E449.87965
G1 X224.82 Y149.47 E450.61465
G1 X80.34 Y149.47 E459.62470
G1 X80.34 Y161.26 E460.35971
G1 X70.75 Y161.26 E460.95776
G1 X70.75 Y149.48 E461.69234
G1 X70.78 Y148.76 E461.73746
G1 X70.75 Y148.76 E461.73927
G1 X70.75 Y143.74 E462.05227
G0 F6000 X71.10 Y144.00
G0 X71.93 Y145.11
;TYPE:FILL
G1 F2700 X79.17 Y152.35 E462.69075
G0 F6000 X79.17 Y153.06
G1 F2700 X71.93 Y145.82 E463.32923
G0 F6000 X71.93 Y146.53
G1 F2700 X79.17 Y153.76 E463.96771
G0 F6000 X79.17 Y154.47
G1 F2700 X71.93 Y147.23 E464.60615
G0 F6000 X71.99 Y148.00
G1 F2700 X79.17 Y155.18 E465.23930
G0 F6000 X79.17 Y155.89
G1 F2700 X71.96 Y148.68 E465.87491
G0 F6000 X71.93 Y149.36
G1 F2700 X79.17 Y156.59 E466.51291
G0 F6000 X79.17 Y157.30
G1 F2700 X71.92 Y150.06 E467.15144
G0 F6000 X71.92 Y150.77
G1 F2700 X79.17 Y158.01 E467.78996
G0 F6000 X79.17 Y158.72
G1 F2700 X71.92 Y151.47 E468.42849
G0 F6000 X71.92 Y152.18
G1 F2700 X79.17 Y159.42 E469.06702
G0 F6000 X79.12 Y160.09
G1 F2700 X71.92 Y152.89 E469.70166
G0 F6000 X71.92 Y153.60
G1 F2700 X78.41 Y160.09 E470.27396
G0 F6000 X77.71 Y160.09
G1 F2700 X71.92 Y154.30 E470.78390
G0 F6000 X71.92 Y155.01
G1 F2700 X77.00 Y160.09 E471.23148
G0 F6000 X76.29 Y160.09
G1 F2700 X71.92 Y155.72 E471.61671
G0 F6000 X71.92 Y156.42
G1 F2700 X75.59 Y160.09 E471.93959
G0 F6000 X74.88 Y160.09
G1 F2700 X71.92 Y157.13 E472.20012
G0 F6000 X71.92 Y157.84
G1 F2700 X74.17 Y160.09 E472.39825
G0 F6000 X73.46 Y160.09
G1 F2700 X71.92 Y158.55 E472.53398
G0 F6000 X71.92 Y159.25
G1 F2700 X72.76 Y160.09 E472.60736
G0 F6000 X72.05 Y160.09
G1 F2700 X71.92 Y159.96 E472.61838
G0 F6000 X79.17 Y151.64
G1 F2700 X72.44 Y144.91 E473.21179
G0 F6000 X73.14 Y144.91
G1 F2700 X79.17 Y150.94 E473.74286
G0 F6000 X79.17 Y150.23
G1 F2700 X73.85 Y144.91 E474.21156
G0 F6000 X74.56 Y144.91
G1 F2700 X79.17 Y149.52 E474.61788
G0 F6000 X79.17 Y148.81
G1 F2700 X75.27 Y144.91 E474.96183
G0 F6000 X75.97 Y144.91
G1 F2700 X79.36 Y148.30 E475.26028
G0 F6000 X80.06 Y148.30
G1 F2700 X76.68 Y144.91 E475.55873
G0 F6000 X77.39 Y144.91
G1 F2700 X80.77 Y148.30 E475.85718
G0 F6000 X81.48 Y148.30
G1 F2700 X78.09 Y144.91 E476.15563
G0 F6000 X78.80 Y144.91
G1 F2700 X82.18 Y148.30 E476.45408
G0 F6000 X82.89 Y148.30
G1 F2700 X79.51 Y144.91 E476.75257
G0 F6000 X80.21 Y144.91
G1 F2700 X83.60 Y148.30 E477.05107
G0 F6000 X84.31 Y148.30
G1 F2700 X80.92 Y144.91 E477.34952
G0 F6000 X81.63 Y144.91
G1 F2700 X85.01 Y148.30 E477.64797
G0 F6000 X85.72 Y148.30
G1 F2700 X82.34 Y144.91 E477.94641
G0 F6000 X83.04 Y144.91
G1 F2700 X86.43 Y148.30 E478.24486
G0 F6000 X87.13 Y148.30
G1 F2700 X83.75 Y144.91 E478.54331
G0 F6000 X84.46 Y144.91
G1 F2700 X87.84 Y148.30 E478.84176
G0 F6000 X88.55 Y148.30
G1 F2700 X85.16 Y144.91 E479.14021
G0 F6000 X85.87 Y144.91
G1 F2700 X89.25 Y148.30 E479.43866
G0 F6000 X89.96 Y148.30
G1 F2700 X86.58 Y144.91 E479.73716
G0 F6000 X87.28 Y144.91
G1 F2700 X90.67 Y148.30 E480.03565
G0 F6000 X91.38 Y148.30
G1 F2700 X87.99 Y144.91 E480.33410
G0 F6000 X88.70 Y144.91
G1 F2700 X92.08 Y148.30 E480.63255
G0 F6000 X92.79 Y148.30
G1 F2700 X89.41 Y144.91 E480.93100
G0 F6000 X90.11 Y144.91
G1 F2700 X93.50 Y148.30 E481.22945
G0 F6000 X94.20 Y148.30
G1 F2700 X90.82 Y144.91 E481.52790
G0 F6000 X91.53 Y144.91
G1 F2700 X94.91 Y148.30 E481.82634
G0 F6000 X95.62 Y148.30
G1 F2700 X92.23 Y144.91 E482.12479
G0 F6000 X92.94 Y144.91
G1 F2700 X96.33 Y148.30 E482.42329
G0 F6000 X97.03 Y148.30
G1 F2700 X93.65 Y144.91 E482.72178
G0 F6000 X94.36 Y144.91
G1 F2700 X97.74 Y148.30 E483.02023
G0 F6000 X98.45 Y148.30
G1 F2700 X95.06 Y144.91 E483.31868
G0 F6000 X95.77 Y144.91
G1 F2700 X99.16 Y148.30 E483.61713
G0 F6000 X99.86 Y148.30
G1 F2700 X96.48 Y144.91 E483.91558
G0 F6000 X97.19 Y144.91
G1 F2700 X100.57 Y148.30 E484.21403
G0 F6000 X101.28 Y148.30
G1 F2700 X97.89 Y144.91 E484.51248
G0 F6000 X98.60 Y144.91
G1 F2700 X101.98 Y148.30 E484.81093
G0 F6000 X102.69 Y148.30
G1 F2700 X99.31 Y144.91 E485.10938
G0 F6000 X100.01 Y144.91
G1 F2700 X103.40 Y148.30 E485.40787
G0 F6000 X104.11 Y148.30
G1 F2700 X100.72 Y144.91 E485.70636
G0 F6000 X101.43 Y144.91
G1 F2700 X104.81 Y148.30 E486.00481
G0 F6000 X105.52 Y148.30
G1 F2700 X102.14 Y144.91 E486.30326
G0 F6000 X102.84 Y144.91
G1 F2700 X106.23 Y148.30 E486.60171
G0 F6000 X106.93 Y148.30
G1 F2700 X103.55 Y144.91 E486.90016
G0 F6000 X104.26 Y144.91
G1 F2700 X107.64 Y148.30 E487.19861
G0 F6000 X108.35 Y148.30
G1 F2700 X104.96 Y144.91 E487.49706
G0 F6000 X105.67 Y144.91
G1 F2700 X109.05 Y148.30 E487.79551
G0 F6000 X109.76 Y148.30
G1 F2700 X106.38 Y144.91 E488.09400
G0 F6000 X107.08 Y144.91
G1 F2700 X110.47 Y148.30 E488.39249
G0 F6000 X111.18 Y148.30
G1 F2700 X107.79 Y144.91 E488.69094
G0 F6000 X108.50 Y144.91
G1 F2700 X111.88 Y148.30 E488.98939
G0 F6000 X112.59 Y148.30
G1 F2700 X109.21 Y144.91 E489.28784
G0 F6000 X109.91 Y144.91
G1 F2700 X113.30 Y148.30 E489.58629
G0 F6000 X114.00 Y148.30
G1 F2700 X110.62 Y144.91 E489.88474
G0 F6000 X111.33 Y144.91
G1 F2700 X114.71 Y148.30 E490.18319
G0 F6000 X115.42 Y148.30
G1 F2700 X112.03 Y144.91 E490.48164
G0 F6000 X112.74 Y144.91
G1 F2700 X116.13 Y148.30 E490.78013
G0 F6000 X116.83 Y148.30
G1 F2700 X113.45 Y144.91 E491.07863
G0 F6000 X114.16 Y144.91
G1 F2700 X117.54 Y148.30 E491.37708
G0 F6000 X118.25 Y148.30
G1 F2700 X114.86 Y144.91 E491.67553
G0 F6000 X115.57 Y144.91
G1 F2700 X118.95 Y148.30 E491.97398
G0 F6000 X119.66 Y148.30
G1 F2700 X116.28 Y144.91 E492.27242
G0 F6000 X116.98 Y144.91
G1 F2700 X120.37 Y148.30 E492.57087
G0 F6000 X121.08 Y148.30
G1 F2700 X117.69 Y144.91 E492.86932
G0 F6000 X118.40 Y144.91
G1 F2700 X121.78 Y148.30 E493.16777
G0 F6000 X122.49 Y148.30
G1 F2700 X119.11 Y144.91 E493.46622
G0 F6000 X119.81 Y144.91
G1 F2700 X123.20 Y148.30 E493.76472
G0 F6000 X123.90 Y148.30
G1 F2700 X120.52 Y144.91 E494.06321
G0 F6000 X121.23 Y144.91
G1 F2700 X124.61 Y148.30 E494.36166
G0 F6000 X125.32 Y148.30
G1 F2700 X121.93 Y144.91 E494.66011
G0 F6000 X122.64 Y144.91
G1 F2700 X126.03 Y148.30 E494.95856
G0 F6000 X126.73 Y148.30
G1 F2700 X123.35 Y144.91 E495.25701
G0 F6000 X124.06 Y144.91
G1 F2700 X127.44 Y148.30 E495.55546
G0 F6000 X128.15 Y148.30
G1 F2700 X124.76 Y144.91 E495.85390
G0 F6000 X125.47 Y144.91
G1 F2700 X128.85 Y148.30 E496.15235
G0 F6000 X129.56 Y148.30
G1 F2700 X126.18 Y144.91 E496.45085
G0 F6000 X126.88 Y144.91
G1 F2700 X130.27 Y148.30 E496.74934
G0 F6000 X130.97 Y148.30
G1 F2700 X127.59 Y144.91 E497.04779
G0 F6000 X128.30 Y144.91
G1 F2700 X131.68 Y148.30 E497.34624
G0 F6000 X132.39 Y148.30
G1 F2700 X129.00 Y144.91 E497.64469
G0 F6000 X129.71 Y144.91
G1 F2700 X133.10 Y148.30 E497.94314
G0 F6000 X133.80 Y148.30
G1 F2700 X130.42 Y144.91 E498.24159
G0 F6000 X131.13 Y144.91
G1 F2700 X134.51 Y148.30 E498.54004
G0 F6000 X135.22 Y148.30
G1 F2700 X131.83 Y144.91 E498.83849
G0 F6000 X132.54 Y144.91
G1 F2700 X135.93 Y148.30 E499.13698
G0 F6000 X136.63 Y148.30
G1 F2700 X133.25 Y144.91 E499.43547
G0 F6000 X133.96 Y144.91
G1 F2700 X137.34 Y148.30 E499.73392
G0 F6000 X138.05 Y148.30
G1 F2700 X134.66 Y144.91 E500.03237
G0 F6000 X135.37 Y144.91
G1 F2700 X138.75 Y148.30 E500.33082
G0 F6000 X139.46 Y148.30
G1 F2700 X136.08 Y144.91 E500.62927
G0 F6000 X136.78 Y144.91
G1 F2700 X140.17 Y148.30 E500.92772
G0 F6000 X140.87 Y148.30
G1 F2700 X137.49 Y144.91 E501.22617
G0 F6000 X138.20 Y144.91
G1 F2700 X141.58 Y148.30 E501.52462
G0 F6000 X142.29 Y148.30
G1 F2700 X138.90 Y144.91 E501.82307
G0 F6000 X139.61 Y144.91
G1 F2700 X143.00 Y148.30 E502.12156
G0 F6000 X143.70 Y148.30
G1 F2700 X140.32 Y144.91 E502.42006
G0 F6000 X141.03 Y144.91
G1 F2700 X144.41 Y148.30 E502.71850
G0 F6000 X145.12 Y148.30
G1 F2700 X141.73 Y144.91 E503.01695
G0 F6000 X142.44 Y144.91
G1 F2700 X145.82 Y148.30 E503.31540
G0 F6000 X146.53 Y148.30
G1 F2700 X143.15 Y144.91 E503.61385
G0 F6000 X143.85 Y144.91
G1 F2700 X147.24 Y148.30 E503.91230
G0 F6000 X147.94 Y148.30
G1 F2700 X144.56 Y144.91 E504.21075
G0 F6000 X145.27 Y144.91
G1 F2700 X148.65 Y148.30 E504.50920
G0 F6000 X149.36 Y148.30
G1 F2700 X145.97 Y144.91 E504.80769
G0 F6000 X146.68 Y144.91
G1 F2700 X150.07 Y148.30 E505.10619
G0 F6000 X150.77 Y148.30
G1 F2700 X147.39 Y144.91 E505.40464
G0 F6000 X148.10 Y144.91
G1 F2700 X151.48 Y148.30 E505.70309
G0 F6000 X152.19 Y148.30
G1 F2700 X148.80 Y144.91 E506.00154
G0 F6000 X149.51 Y144.91
G1 F2700 X152.90 Y148.30 E506.29998
G0 F6000 X153.60 Y148.30
G1 F2700 X150.22 Y144.91 E506.59843
G0 F6000 X150.93 Y144.91
G1 F2700 X154.31 Y148.30 E506.89688
G0 F6000 X155.02 Y148.30
G1 F2700 X151.63 Y144.91 E507.19533
G0 F6000 X152.34 Y144.91
G1 F2700 X155.72 Y148.30 E507.49383
G0 F6000 X156.43 Y148.30
G1 F2700 X153.05 Y144.91 E507.79232
G0 F6000 X153.75 Y144.91
G1 F2700 X157.14 Y148.30 E508.09077
G0 F6000 X157.84 Y148.30
G1 F2700 X154.46 Y144.91 E508.38922
G0 F6000 X155.17 Y144.91
G1 F2700 X158.55 Y148.30 E508.68767
G0 F6000 X159.26 Y148.30
G1 F2700 X155.88 Y144.91 E508.98612
G0 F6000 X156.58 Y144.91
G1 F2700 X159.97 Y148.30 E509.28457
G0 F6000 X160.67 Y148.30
G1 F2700 X157.29 Y144.91 E509.58302
G0 F6000 X158.00 Y144.91
G1 F2700 X161.38 Y148.30 E509.88147
G0 F6000 X162.09 Y148.30
G1 F2700 X158.70 Y144.91 E510.17991
G0 F6000 X159.41 Y144.91
G1 F2700 X162.79 Y148.30 E510.47841
G0 F6000 X163.50 Y148.30
G1 F2700 X160.12 Y144.91 E510.77690
G0 F6000 X160.82 Y144.91
G1 F2700 X164.21 Y148.30 E511.07535
G0 F6000 X164.92 Y148.30
G1 F2700 X161.53 Y144.91 E511.37380
G0 F6000 X162.24 Y144.91
G1 F2700 X165.62 Y148.30 E511.67225
G0 F6000 X166.33 Y148.30
G1 F2700 X162.95 Y144.91 E511.97070
G0 F6000 X163.65 Y144.91
G1 F2700 X167.04 Y148.30 E512.26915
G0 F6000 X167.74 Y148.30
G1 F2700 X164.36 Y144.91 E512.56760
G0 F6000 X165.07 Y144.91
G1 F2700 X168.45 Y148.30 E512.86605
G0 F6000 X169.16 Y148.30
G1 F2700 X165.77 Y144.91 E513.16454
G0 F6000 X166.48 Y144.91
G1 F2700 X169.87 Y148.30 E513.46303
G0 F6000 X170.57 Y148.30
G1 F2700 X167.19 Y144.91 E513.76148
G0 F6000 X167.90 Y144.91
G1 F2700 X171.28 Y148.30 E514.05993
G0 F6000 X171.99 Y148.30
G1 F2700 X168.60 Y144.91 E514.35838
G0 F6000 X169.31 Y144.91
G1 F2700 X172.69 Y148.30 E514.65683
G0 F6000 X173.40 Y148.30
G1 F2700 X170.02 Y144.91 E514.95528
G0 F6000 X170.72 Y144.91
G1 F2700 X174.11 Y148.30 E515.25373
G0 F6000 X174.81 Y148.30
G1 F2700 X171.43 Y144.91 E515.55218
G0 F6000 X172.14 Y144.91
G1 F2700 X175.52 Y148.30 E515.85063
G0 F6000 X176.23 Y148.30
G1 F2700 X172.84 Y144.91 E516.14912
G0 F6000 X173.55 Y144.91
G1 F2700 X176.94 Y148.30 E516.44762
G0 F6000 X177.64 Y148.30
G1 F2700 X174.26 Y144.91 E516.74606
G0 F6000 X174.97 Y144.91
G1 F2700 X178.35 Y148.30 E517.04451
G0 F6000 X179.06 Y148.30
G1 F2700 X175.67 Y144.91 E517.34296
G0 F6000 X176.38 Y144.91
G1 F2700 X179.76 Y148.30 E517.64141
G0 F6000 X180.47 Y148.30
G1 F2700 X177.09 Y144.91 E517.93986
G0 F6000 X177.79 Y144.91
G1 F2700 X181.18 Y148.30 E518.23831
G0 F6000 X181.89 Y148.30
G1 F2700 X178.50 Y144.91 E518.53676
G0 F6000 X179.21 Y144.91
G1 F2700 X182.59 Y148.30 E518.83525
G0 F6000 X183.30 Y148.30
G1 F2700 X179.92 Y144.91 E519.13375
G0 F6000 X180.62 Y144.91
G1 F2700 X184.01 Y148.30 E519.43220
G0 F6000 X184.72 Y148.30
G1 F2700 X181.33 Y144.91 E519.73065
G0 F6000 X182.04 Y144.91
G1 F2700 X185.42 Y148.30 E520.02910
G0 F6000 X186.13 Y148.30
G1 F2700 X182.75 Y144.91 E520.32755
G0 F6000 X183.45 Y144.91
G1 F2700 X186.84 Y148.30 E520.62599
G0 F6000 X187.54 Y148.30
G1 F2700 X184.16 Y144.91 E520.92444
G0 F6000 X184.87 Y144.91
G1 F2700 X188.25 Y148.30 E521.22289
G0 F6000 X188.96 Y148.30
G1 F2700 X185.57 Y144.91 E521.52139
G0 F6000 X186.28 Y144.91
G1 F2700 X189.66 Y148.30 E521.81988
G0 F6000 X190.37 Y148.30
G1 F2700 X186.99 Y144.91 E522.11833
G0 F6000 X187.69 Y144.91
G1 F2700 X191.08 Y148.30 E522.41678
G0 F6000 X191.79 Y148.30
G1 F2700 X188.40 Y144.91 E522.71523
G0 F6000 X189.11 Y144.91
G1 F2700 X192.49 Y148.30 E523.01368
G0 F6000 X193.20 Y148.30
G1 F2700 X189.82 Y144.91 E523.31213
G0 F6000 X190.52 Y144.91
G1 F2700 X193.91 Y148.30 E523.61058
G0 F6000 X194.61 Y148.30
G1 F2700 X191.23 Y144.91 E523.90903
G0 F6000 X191.94 Y144.91
G1 F2700 X195.32 Y148.30 E524.20747
G0 F6000 X196.03 Y148.30
G1 F2700 X192.64 Y144.91 E524.50597
G0 F6000 X193.35 Y144.91
G1 F2700 X196.74 Y148.30 E524.80446
G0 F6000 X197.44 Y148.30
G1 F2700 X194.06 Y144.91 E525.10291
G0 F6000 X194.77 Y144.91
G1 F2700 X198.15 Y148.30 E525.40136
G0 F6000 X198.86 Y148.30
G1 F2700 X195.47 Y144.91 E525.69981
G0 F6000 X196.18 Y144.91
G1 F2700 X199.56 Y148.30 E525.99826
G0 F6000 X200.27 Y148.30
G1 F2700 X196.89 Y144.91 E526.29671
G0 F6000 X197.59 Y144.91
G1 F2700 X200.98 Y148.30 E526.59516
G0 F6000 X201.69 Y148.30
G1 F2700 X198.30 Y144.91 E526.89361
G0 F6000 X199.01 Y144.91
G1 F2700 X202.39 Y148.30 E527.19210
G0 F6000 X203.10 Y148.30
G1 F2700 X199.72 Y144.91 E527.49059
G0 F6000 X200.42 Y144.91
G1 F2700 X203.81 Y148.30 E527.78904
G0 F6000 X204.51 Y148.30
G1 F2700 X201.13 Y144.91 E528.08749
G0 F6000 X201.84 Y144.91
G1 F2700 X205.22 Y148.30 E528.38594
G0 F6000 X205.93 Y148.30
G1 F2700 X202.54 Y144.91 E528.68439
G0 F6000 X203.25 Y144.91
G1 F2700 X206.63 Y148.30 E528.98284
G0 F6000 X207.34 Y148.30
G1 F2700 X203.96 Y144.91 E529.28129
G0 F6000 X204.66 Y144.91
G1 F2700 X208.05 Y148.30 E529.57974
G0 F6000 X208.76 Y148.30
G1 F2700 X205.37 Y144.91 E529.87823
G0 F6000 X206.08 Y144.91
G1 F2700 X209.46 Y148.30 E530.17673
G0 F6000 X210.17 Y148.30
G1 F2700 X206.79 Y144.91 E530.47518
G0 F6000 X207.49 Y144.91
G1 F2700 X210.88 Y148.30 E530.77363
G0 F6000 X211.59 Y148.30
G1 F2700 X208.20 Y144.91 E531.07207
G0 F6000 X208.91 Y144.91
G1 F2700 X212.29 Y148.30 E531.37052
G0 F6000 X213.00 Y148.30
G1 F2700 X209.62 Y144.91 E531.66897
G0 F6000 X210.32 Y144.91
G1 F2700 X213.71 Y148.30 E531.96742
G0 F6000 X214.41 Y148.30
G1 F2700 X211.03 Y144.91 E532.26587
G0 F6000 X211.74 Y144.91
G1 F2700 X215.12 Y148.30 E532.56432
G0 F6000 X215.83 Y148.30
G1 F2700 X212.44 Y144.91 E532.86281
G0 F6000 X213.15 Y144.91
G1 F2700 X216.53 Y148.30 E533.16131
G0 F6000 X217.24 Y148.30
G1 F2700 X213.86 Y144.91 E533.45976
G0 F6000 X214.56 Y144.91
G1 F2700 X217.95 Y148.30 E533.75821
G0 F6000 X218.66 Y148.30
G1 F2700 X215.27 Y144.91 E534.05666
G0 F6000 X215.98 Y144.91
G1 F2700 X219.36 Y148.30 E534.35511
G0 F6000 X220.07 Y148.30
G1 F2700 X216.69 Y144.91 E534.65355
G0 F6000 X217.39 Y144.91
G1 F2700 X220.78 Y148.30 E534.95200
G0 F6000 X221.48 Y148.30
G1 F2700 X218.10 Y144.91 E535.25045
G0 F6000 X218.81 Y144.91
G1 F2700 X222.19 Y148.30 E535.54895
G0 F6000 X222.90 Y148.30
G1 F2700 X219.51 Y144.91 E535.84744
G0 F6000 X220.22 Y144.91
G1 F2700 X223.61 Y148.30 E536.14589
G0 F6000 X224.31 Y148.30
G1 F2700 X220.93 Y144.91 E536.44434
G0 F6000 X221.64 Y144.91
G1 F2700 X225.02 Y148.30 E536.74279
G0 F6000 X225.73 Y148.30
G1 F2700 X222.34 Y144.91 E537.04124
G0 F6000 X223.05 Y144.91
G1 F2700 X233.06 Y154.93 E537.92442
G0 F6000 X233.06 Y155.64
G1 F2700 X225.99 Y148.56 E538.54821
G0 F6000 X225.99 Y149.27
G1 F2700 X233.07 Y156.34 E539.17210
G0 F6000 X233.07 Y157.05
G1 F2700 X225.99 Y149.98 E539.79607
G0 F6000 X225.99 Y150.69
G1 F2700 X233.07 Y157.76 E540.42014
G0 F6000 X233.07 Y158.47
G1 F2700 X225.99 Y151.39 E541.04429
G0 F6000 X225.99 Y152.10
G1 F2700 X233.07 Y159.18 E541.66848
G0 F6000 X233.07 Y159.88
G1 F2700 X225.99 Y152.81 E542.29272
G0 F6000 X225.99 Y153.51
G1 F2700 X232.56 Y160.09 E542.87233
G0 F6000 X231.86 Y160.09
G1 F2700 X225.99 Y154.22 E543.38959
G0 F6000 X225.99 Y154.93
G1 F2700 X231.15 Y160.09 E543.84450
G0 F6000 X230.44 Y160.09
G1 F2700 X225.99 Y155.63 E544.23705
G0 F6000 X225.99 Y156.34
G1 F2700 X229.74 Y160.09 E544.56725
G0 F6000 X229.03 Y160.09
G1 F2700 X225.99 Y157.05 E544.83510
G0 F6000 X225.99 Y157.76
G1 F2700 X228.32 Y160.09 E545.04054
G0 F6000 X227.61 Y160.09
G1 F2700 X225.99 Y158.46 E545.18360
G0 F6000 X225.99 Y159.17
G1 F2700 X226.91 Y160.09 E545.26429
G0 F6000 X226.20 Y160.09
G1 F2700 X225.99 Y159.88 E545.28264
G0 F6000 X233.06 Y154.22
G1 F2700 X223.76 Y144.91 E546.10337
G0 F6000 X224.46 Y144.91
G1 F2700 X233.06 Y153.51 E546.86162
G0 F6000 X233.06 Y152.81
G1 F2700 X225.17 Y144.91 E547.55748
G0 F6000 X225.88 Y144.91
G1 F2700 X233.06 Y152.10 E548.19089
G0 F6000 X233.06 Y151.39
G1 F2700 X226.59 Y144.91 E548.76177
G0 F6000 X227.29 Y144.91
G1 F2700 X233.06 Y150.68 E549.27021
G0 F6000 X233.06 Y149.97
G1 F2700 X228.00 Y144.91 E549.71630
G0 F6000 X228.71 Y144.91
G1 F2700 X233.06 Y149.26 E550.09994
G0 F6000 X233.06 Y148.56
G1 F2700 X229.41 Y144.91 E550.42110
G0 F6000 X230.12 Y144.91
G1 F2700 X233.06 Y147.85 E550.67982
G0 F6000 X233.07 Y147.16
G1 F2700 X230.83 Y144.91 E550.87777
G0 F6000 X231.53 Y144.91
G1 F2700 X233.07 Y146.45 E551.01337
G0 F6000 X233.07 Y145.75
G1 F2700 X232.24 Y144.91 E551.08661
G0 F6000 X232.95 Y144.91
G1 F2700 X233.07 Y145.04 E551.09751
;LAYER:1
G0 F6000 X233.25 Y144.74 Z0.50
;TYPE:WALL-INNER
G1 F3480 X233.25 Y147.76 E551.22302
G1 X233.23 Y147.76 E551.22373
G1 X233.23 Y149.87 E551.31162
G1 X233.25 Y160.26 E551.74350
G1 X225.82 Y160.26 E552.05232
G1 X225.82 Y148.47 E552.54233
G1 X79.34 Y148.47 E558.63217
G1 X79.34 Y160.26 E559.12218
G1 X71.75 Y160.26 E559.43773
G1 X71.75 Y149.50 E559.88517
G1 X71.82 Y147.76 E559.95757
G1 X71.75 Y147.76 E559.96048
G1 X71.75 Y144.74 E560.08599
G1 X233.25 Y144.74 E566.80017
G0 F6000 X233.75 Y144.24
G1 F3480 X233.75 Y148.26 E566.96727
G1 X233.73 Y148.26 E566.96797
G1 X233.73 Y149.87 E567.03507
G1 X233.75 Y160.76 E567.48775
G1 X225.32 Y160.76 E567.83818
G1 X225.32 Y148.97 E568.32819
G1 X79.84 Y148.97 E574.37646
G1 X79.84 Y160.76 E574.86647
G1 X71.25 Y160.76 E575.22360
G1 X71.25 Y149.47 E575.69294
G1 X71.30 Y148.26 E575.74341
G1 X71.25 Y148.26 E575.74545
G1 X71.25 Y144.24 E575.91254
G1 X233.75 Y144.24 E582.66830
G0 F6000 X234.25 Y143.74
;TYPE:WALL-OUTER
G1 F3480 X234.25 Y148.76 E582.87696
G1 X234.23 Y148.76 E582.87767
G1 X234.25 Y161.26 E583.39744
G1 X224.82 Y161.26 E583.78950
G1 X224.82 Y149.47 E584.27950
G1 X80.34 Y149.47 E590.28620
G1 X80.34 Y161.26 E590.77620
G1 X70.75 Y161.26 E591.17491
G1 X70.75 Y149.48 E591.66462
G1 X70.78 Y148.76 E591.69471
G1 X70.75 Y148.76 E591.69583
G1 X70.75 Y143.74 E591.90449
G1 X234.25 Y143.74 E598.70178
G0 F6000 X233.99 Y144.09
G0 X233.03 Y144.91
;TYPE:FILL
G1 F3480 X225.99 Y151.96 E599.11580
G0 F6000 X225.99 Y152.66
G1 F3480 X233.07 Y145.58 E599.53199
G0 F6000 X233.07 Y146.29
G1 F3480 X225.99 Y153.37 E599.94820
G0 F6000 X225.99 Y154.08
G1 F3480 X233.07 Y147.00 E600.36442
G0 F6000 X233.05 Y147.72
G1 F3480 X225.99 Y154.78 E600.77964
G0 F6000 X225.99 Y155.49
G1 F3480 X233.06 Y148.43 E601.19492
G0 F6000 X233.06 Y149.13
G1 F3480 X225.99 Y156.20 E601.61023
G0 F6000 X225.99 Y156.91
G1 F3480 X233.06 Y149.84 E602.02562
G0 F6000 X233.06 Y150.55
G1 F3480 X225.99 Y157.61 E602.44104
G0 F6000 X225.99 Y158.32
G1 F3480 X233.06 Y151.25 E602.85650
G0 F6000 X233.06 Y151.96
G1 F3480 X225.99 Y159.03 E603.27204
G0 F6000 X225.99 Y159.73
G1 F3480 X233.06 Y152.66 E603.68764
G0 F6000 X233.06 Y153.37
G1 F3480 X226.35 Y160.09 E604.08240
G0 F6000 X227.05 Y160.09
G1 F3480 X233.06 Y154.08 E604.43565
G0 F6000 X233.06 Y154.78
G1 F3480 X227.76 Y160.09 E604.74738
G0 F6000 X228.47 Y160.09
G1 F3480 X233.06 Y155.49 E605.01758
G0 F6000 X233.06 Y156.20
G1 F3480 X229.18 Y160.09 E605.24624
G0 F6000 X229.88 Y160.09
G1 F3480 X233.07 Y156.90 E605.43342
G0 F6000 X233.07 Y157.61
G1 F3480 X230.59 Y160.09 E605.57905
G0 F6000 X231.30 Y160.09
G1 F3480 X233.07 Y158.31 E605.68318
G0 F6000 X233.07 Y159.02
G1 F3480 X232.00 Y160.09 E605.74580
G0 F6000 X232.71 Y160.09
G1 F3480 X233.07 Y159.73 E605.76691
G0 F6000 X225.99 Y151.25
G1 F3480 X232.33 Y144.91 E606.13935
G0 F6000 X231.62 Y144.91
G1 F3480 X225.99 Y150.54 E606.47020
G0 F6000 X225.99 Y149.83
G1 F3480 X230.91 Y144.91 E606.75948
G0 F6000 X230.21 Y144.91
G1 F3480 X225.99 Y149.13 E607.00718
G0 F6000 X225.99 Y148.42
G1 F3480 X229.50 Y144.91 E607.21332
G0 F6000 X228.79 Y144.91
G1 F3480 X225.41 Y148.30 E607.41241
G0 F6000 X224.70 Y148.30
G1 F3480 X228.08 Y144.91 E607.61149
G0 F6000 X227.38 Y144.91
G1 F3480 X223.99 Y148.30 E607.81058
G0 F6000 X223.28 Y148.30
G1 F3480 X226.67 Y144.91 E608.00966
G0 F6000 X225.96 Y144.91
G1 F3480 X222.58 Y148.30 E608.20874
G0 F6000 X221.87 Y148.30
G1 F3480 X225.25 Y144.91 E608.40780
G0 F6000 X224.55 Y144.91
G1 F3480 X221.16 Y148.30 E608.60685
G0 F6000 X220.46 Y148.30
G1 F3480 X223.84 Y144.91 E608.80591
G0 F6000 X223.13 Y144.91
G1 F3480 X219.75 Y148.30 E609.00499
G0 F6000 X219.04 Y148.30
G1 F3480 X222.43 Y144.91 E609.20407
G0 F6000 X221.72 Y144.91
G1 F3480 X218.33 Y148.30 E609.40316
G0 F6000 X217.63 Y148.30
G1 F3480 X221.01 Y144.91 E609.60224
G0 F6000 X220.31 Y144.91
G1 F3480 X216.92 Y148.30 E609.80133
G0 F6000 X216.21 Y148.30
G1 F3480 X219.60 Y144.91 E610.00041
G0 F6000 X218.89 Y144.91
G1 F3480 X215.51 Y148.30 E610.19946
G0 F6000 X214.80 Y148.30
G1 F3480 X218.18 Y144.91 E610.39852
G0 F6000 X217.48 Y144.91
G1 F3480 X214.09 Y148.30 E610.59757
G0 F6000 X213.38 Y148.30
G1 F3480 X216.77 Y144.91 E610.79663
G0 F6000 X216.06 Y144.91
G1 F3480 X212.68 Y148.30 E610.99571
G0 F6000 X211.97 Y148.30
G1 F3480 X215.36 Y144.91 E611.19479
G0 F6000 X214.65 Y144.91
G1 F3480 X211.26 Y148.30 E611.39388
G0 F6000 X210.56 Y148.30
G1 F3480 X213.94 Y144.91 E611.59296
G0 F6000 X213.24 Y144.91
G1 F3480 X209.85 Y148.30 E611.79205
G0 F6000 X209.14 Y148.30
G1 F3480 X212.53 Y144.91 E611.99113
G0 F6000 X211.82 Y144.91
G1 F3480 X208.44 Y148.30 E612.19018
G0 F6000 X207.73 Y148.30
G1 F3480 X211.11 Y144.91 E612.38924
G0 F6000 X210.41 Y144.91
G1 F3480 X207.02 Y148.30 E612.58829
G0 F6000 X206.31 Y148.30
G1 F3480 X209.70 Y144.91 E612.78738
G0 F6000 X208.99 Y144.91
G1 F3480 X205.61 Y148.30 E612.98646
G0 F6000 X204.90 Y148.30
G1 F3480 X208.28 Y144.91 E613.18554
G0 F6000 X207.58 Y144.91
G1 F3480 X204.19 Y148.30 E613.38463
G0 F6000 X203.49 Y148.30
G1 F3480 X206.87 Y144.91 E613.58371
G0 F6000 X206.16 Y144.91
G1 F3480 X202.78 Y148.30 E613.78280
G0 F6000 X202.07 Y148.30
G1 F3480 X205.46 Y144.91 E613.98185
G0 F6000 X204.75 Y144.91
G1 F3480 X201.36 Y148.30 E614.18090
G0 F6000 X200.66 Y148.30
G1 F3480 X204.04 Y144.91 E614.37996
G0 F6000 X203.34 Y144.91
G1 F3480 X199.95 Y148.30 E614.57904
G0 F6000 X199.24 Y148.30
G1 F3480 X202.63 Y144.91 E614.77813
G0 F6000 X201.92 Y144.91
G1 F3480 X198.53 Y148.30 E614.97721
G0 F6000 X197.83 Y148.30
G1 F3480 X201.21 Y144.91 E615.17629
G0 F6000 X200.51 Y144.91
G1 F3480 X197.12 Y148.30 E615.37538
G0 F6000 X196.41 Y148.30
G1 F3480 X199.80 Y144.91 E615.57446
G0 F6000 X199.09 Y144.91
G1 F3480 X195.71 Y148.30 E615.77352
G0 F6000 X195.00 Y148.30
G1 F3480 X198.38 Y144.91 E615.97257
G0 F6000 X197.68 Y144.91
G1 F3480 X194.29 Y148.30 E616.17163
G0 F6000 X193.59 Y148.30
G1 F3480 X196.97 Y144.91 E616.37068
G0 F6000 X196.26 Y144.91
G1 F3480 X192.88 Y148.30 E616.56976
G0 F6000 X192.17 Y148.30
G1 F3480 X195.56 Y144.91 E616.76885
G0 F6000 X194.85 Y144.91
G1 F3480 X191.46 Y148.30 E616.96793
G0 F6000 X190.76 Y148.30
G1 F3480 X194.14 Y144.91 E617.16702
G0 F6000 X193.44 Y144.91
G1 F3480 X190.05 Y148.30 E617.36610
G0 F6000 X189.34 Y148.30
G1 F3480 X192.73 Y144.91 E617.56518
G0 F6000 X192.02 Y144.91
G1 F3480 X188.64 Y148.30 E617.76424
G0 F6000 X187.93 Y148.30
G1 F3480 X191.31 Y144.91 E617.96329
G0 F6000 X190.61 Y144.91
G1 F3480 X187.22 Y148.30 E618.16235
G0 F6000 X186.51 Y148.30
G1 F3480 X189.90 Y144.91 E618.36143
G0 F6000 X189.19 Y144.91
G1 F3480 X185.81 Y148.30 E618.56051
G0 F6000 X185.10 Y148.30
G1 F3480 X188.49 Y144.91 E618.75960
G0 F6000 X187.78 Y144.91
G1 F3480 X184.39 Y148.30 E618.95868
G0 F6000 X183.69 Y148.30
G1 F3480 X187.07 Y144.91 E619.15777
G0 F6000 X186.37 Y144.91
G1 F3480 X182.98 Y148.30 E619.35685
G0 F6000 X182.27 Y148.30
G1 F3480 X185.66 Y144.91 E619.55590
G0 F6000 X184.95 Y144.91
G1 F3480 X181.56 Y148.30 E619.75496
G0 F6000 X180.86 Y148.30
G1 F3480 X184.24 Y144.91 E619.95401
G0 F6000 X183.54 Y144.91
G1 F3480 X180.15 Y148.30 E620.15307
G0 F6000 X179.44 Y148.30
G1 F3480 X182.83 Y144.91 E620.35215
G0 F6000 X182.12 Y144.91
G1 F3480 X178.74 Y148.30 E620.55123
G0 F6000 X178.03 Y148.30
G1 F3480 X181.41 Y144.91 E620.75032
G0 F6000 X180.71 Y144.91
G1 F3480 X177.32 Y148.30 E620.94940
G0 F6000 X176.62 Y148.30
G1 F3480 X180.00 Y144.91 E621.14849
G0 F6000 X179.29 Y144.91
G1 F3480 X175.91 Y148.30 E621.34754
G0 F6000 X175.20 Y148.30
G1 F3480 X178.59 Y144.91 E621.54659
G0 F6000 X177.88 Y144.91
G1 F3480 X174.49 Y148.30 E621.74565
G0 F6000 X173.79 Y148.30
G1 F3480 X177.17 Y144.91 E621.94470
G0 F6000 X176.47 Y144.91
G1 F3480 X173.08 Y148.30 E622.14379
G0 F6000 X172.37 Y148.30
G1 F3480 X175.76 Y144.91 E622.34287
G0 F6000 X175.05 Y144.91
G1 F3480 X171.66 Y148.30 E622.54196
G0 F6000 X170.96 Y148.30
G1 F3480 X174.34 Y144.91 E622.74104
G0 F6000 X173.64 Y144.91
G1 F3480 X170.25 Y148.30 E622.94012
G0 F6000 X169.54 Y148.30
G1 F3480 X172.93 Y144.91 E623.13921
G0 F6000 X172.22 Y144.91
G1 F3480 X168.84 Y148.30 E623.33826
G0 F6000 X168.13 Y148.30
G1 F3480 X171.51 Y144.91 E623.53732
G0 F6000 X170.81 Y144.91
G1 F3480 X167.42 Y148.30 E623.73637
G0 F6000 X166.72 Y148.30
G1 F3480 X170.10 Y144.91 E623.93545
G0 F6000 X169.39 Y144.91
G1 F3480 X166.01 Y148.30 E624.13454
G0 F6000 X165.30 Y148.30
G1 F3480 X168.69 Y144.91 E624.33362
G0 F6000 X167.98 Y144.91
G1 F3480 X164.59 Y148.30 E624.53271
G0 F6000 X163.89 Y148.30
G1 F3480 X167.27 Y144.91 E624.73179
G0 F6000 X166.57 Y144.91
G1 F3480 X163.18 Y148.30 E624.93087
G0 F6000 X162.47 Y148.30
G1 F3480 X165.86 Y144.91 E625.12993
G0 F6000 X165.15 Y144.91
G1 F3480 X161.77 Y148.30 E625.32898
G0 F6000 X161.06 Y148.30
G1 F3480 X164.44 Y144.91 E625.52804
G0 F6000 X163.74 Y144.91
G1 F3480 X160.35 Y148.30 E625.72709
G0 F6000 X159.64 Y148.30
G1 F3480 X163.03 Y144.91 E625.92617
G0 F6000 X162.32 Y144.91
G1 F3480 X158.94 Y148.30 E626.12526
G0 F6000 X158.23 Y148.30
G1 F3480 X161.62 Y144.91 E626.32434
G0 F6000 X160.91 Y144.91
G1 F3480 X157.52 Y148.30 E626.52343
G0 F6000 X156.82 Y148.30
G1 F3480 X160.20 Y144.91 E626.72251
G0 F6000 X159.50 Y144.91
G1 F3480 X156.11 Y148.30 E626.92159
G0 F6000 X155.40 Y148.30
G1 F3480 X158.79 Y144.91 E627.12065
G0 F6000 X158.08 Y144.91
G1 F3480 X154.69 Y148.30 E627.31970
G0 F6000 X153.99 Y148.30
G1 F3480 X157.37 Y144.91 E627.51876
G0 F6000 X156.67 Y144.91
G1 F3480 X153.28 Y148.30 E627.71784
G0 F6000 X152.57 Y148.30
G1 F3480 X155.96 Y144.91 E627.91692
G0 F6000 X155.25 Y144.91
G1 F3480 X151.87 Y148.30 E628.11601
G0 F6000 X151.16 Y148.30
G1 F3480 X154.54 Y144.91 E628.31509
G0 F6000 X153.84 Y144.91
G1 F3480 X150.45 Y148.30 E628.51418
G0 F6000 X149.75 Y148.30
G1 F3480 X153.13 Y144.91 E628.71326
G0 F6000 X152.42 Y144.91
G1 F3480 X149.04 Y148.30 E628.91231
G0 F6000 X148.33 Y148.30
G1 F3480 X151.72 Y144.91 E629.11137
G0 F6000 X151.01 Y144.91
G1 F3480 X147.62 Y148.30 E629.31042
G0 F6000 X146.92 Y148.30
G1 F3480 X150.30 Y144.91 E629.50951
G0 F6000 X149.59 Y144.91
G1 F3480 X146.21 Y148.30 E629.70859
G0 F6000 X145.50 Y148.30
G1 F3480 X148.89 Y144.91 E629.90767
G0 F6000 X148.18 Y144.91
G1 F3480 X144.79 Y148.30 E630.10676
G0 F6000 X144.09 Y148.30
G1 F3480 X147.47 Y144.91 E630.30584
G0 F6000 X146.77 Y144.91
G1 F3480 X143.38 Y148.30 E630.50493
G0 F6000 X142.67 Y148.30
G1 F3480 X146.06 Y144.91 E630.70398
G0 F6000 X145.35 Y144.91
G1 F3480 X141.97 Y148.30 E630.90303
G0 F6000 X141.26 Y148.30
G1 F3480 X144.65 Y144.91 E631.10209
G0 F6000 X143.94 Y144.91
G1 F3480 X140.55 Y148.30 E631.30114
G0 F6000 X139.84 Y148.30
G1 F3480 X143.23 Y144.91 E631.50023
G0 F6000 X142.52 Y144.91
G1 F3480 X139.14 Y148.30 E631.69931
G0 F6000 X138.43 Y148.30
G1 F3480 X141.82 Y144.91 E631.89840
G0 F6000 X141.11 Y144.91
G1 F3480 X137.72 Y148.30 E632.09748
G0 F6000 X137.02 Y148.30
G1 F3480 X140.40 Y144.91 E632.29656
G0 F6000 X139.70 Y144.91
G1 F3480 X136.31 Y148.30 E632.49565
G0 F6000 X135.60 Y148.30
G1 F3480 X138.99 Y144.91 E632.69470
G0 F6000 X138.28 Y144.91
G1 F3480 X134.90 Y148.30 E632.89376
G0 F6000 X134.19 Y148.30
G1 F3480 X137.57 Y144.91 E633.09281
G0 F6000 X136.87 Y144.91
G1 F3480 X133.48 Y148.30 E633.29189
G0 F6000 X132.77 Y148.30
G1 F3480 X136.16 Y144.91 E633.49098
G0 F6000 X135.45 Y144.91
G1 F3480 X132.07 Y148.30 E633.69006
G0 F6000 X131.36 Y148.30
G1 F3480 X134.75 Y144.91 E633.88915
G0 F6000 X134.04 Y144.91
G1 F3480 X130.65 Y148.30 E634.08823
G0 F6000 X129.95 Y148.30
G1 F3480 X133.33 Y144.91 E634.28731
G0 F6000 X132.62 Y144.91
G1 F3480 X129.24 Y148.30 E634.48637
G0 F6000 X128.53 Y148.30
G1 F3480 X131.92 Y144.91 E634.68542
G0 F6000 X131.21 Y144.91
G1 F3480 X127.83 Y148.30 E634.88448
G0 F6000 X127.12 Y148.30
G1 F3480 X130.50 Y144.91 E635.08353
G0 F6000 X129.80 Y144.91
G1 F3480 X126.41 Y148.30 E635.28261
G0 F6000 X125.70 Y148.30
G1 F3480 X129.09 Y144.91 E635.48170
G0 F6000 X128.38 Y144.91
G1 F3480 X125.00 Y148.30 E635.68078
G0 F6000 X124.29 Y148.30
G1 F3480 X127.67 Y144.91 E635.87987
G0 F6000 X126.97 Y144.91
G1 F3480 X123.58 Y148.30 E636.07895
G0 F6000 X122.88 Y148.30
G1 F3480 X126.26 Y144.91 E636.27800
G0 F6000 X125.55 Y144.91
G1 F3480 X122.17 Y148.30 E636.47706
G0 F6000 X121.46 Y148.30
G1 F3480 X124.85 Y144.91 E636.67611
G0 F6000 X124.14 Y144.91
G1 F3480 X120.75 Y148.30 E636.87517
G0 F6000 X120.05 Y148.30
G1 F3480 X123.43 Y144.91 E637.07425
G0 F6000 X122.72 Y144.91
G1 F3480 X119.34 Y148.30 E637.27333
G0 F6000 X118.63 Y148.30
G1 F3480 X122.02 Y144.91 E637.47242
G0 F6000 X121.31 Y144.91
G1 F3480 X117.92 Y148.30 E637.67150
G0 F6000 X117.22 Y148.30
G1 F3480 X120.60 Y144.91 E637.87059
G0 F6000 X119.90 Y144.91
G1 F3480 X116.51 Y148.30 E638.06967
G0 F6000 X115.80 Y148.30
G1 F3480 X119.19 Y144.91 E638.26872
G0 F6000 X118.48 Y144.91
G1 F3480 X115.10 Y148.30 E638.46778
G0 F6000 X114.39 Y148.30
G1 F3480 X117.78 Y144.91 E638.66683
G0 F6000 X117.07 Y144.91
G1 F3480 X113.68 Y148.30 E638.86592
G0 F6000 X112.97 Y148.30
G1 F3480 X116.36 Y144.91 E639.06500
G0 F6000 X115.65 Y144.91
G1 F3480 X112.27 Y148.30 E639.26409
G0 F6000 X111.56 Y148.30
G1 F3480 X114.95 Y144.91 E639.46317
G0 F6000 X114.24 Y144.91
G1 F3480 X110.85 Y148.30 E639.66225
G0 F6000 X110.15 Y148.30
G1 F3480 X113.53 Y144.91 E639.86134
G0 F6000 X112.83 Y144.91
G1 F3480 X109.44 Y148.30 E640.06039
G0 F6000 X108.73 Y148.30
G1 F3480 X112.12 Y144.91 E640.25945
G0 F6000 X111.41 Y144.91
G1 F3480 X108.03 Y148.30 E640.45850
G0 F6000 X107.32 Y148.30
G1 F3480 X110.70 Y144.91 E640.65755
G0 F6000 X110.00 Y144.91
G1 F3480 X106.61 Y148.30 E640.85664
G0 F6000 X105.90 Y148.30
G1 F3480 X109.29 Y144.91 E641.05572
G0 F6000 X108.58 Y144.91
G1 F3480 X105.20 Y148.30 E641.25481
G0 F6000 X104.49 Y148.30
G1 F3480 X107.88 Y144.91 E641.45389
G0 F6000 X107.17 Y144.91
G1 F3480 X103.78 Y148.30 E641.65297
G0 F6000 X103.08 Y148.30
G1 F3480 X106.46 Y144.91 E641.85203
G0 F6000 X105.75 Y144.91
G1 F3480 X102.37 Y148.30 E642.05108
G0 F6000 X101.66 Y148.30
G1 F3480 X105.05 Y144.91 E642.25014
G0 F6000 X104.34 Y144.91
G1 F3480 X100.95 Y148.30 E642.44919
G0 F6000 X100.25 Y148.30
G1 F3480 X103.63 Y144.91 E642.64827
G0 F6000 X102.93 Y144.91
G1 F3480 X99.54 Y148.30 E642.84736
G0 F6000 X98.83 Y148.30
G1 F3480 X102.22 Y144.91 E643.04644
G0 F6000 X101.51 Y144.91
G1 F3480 X98.13 Y148.30 E643.24553
G0 F6000 X97.42 Y148.30
G1 F3480 X100.81 Y144.91 E643.44461
G0 F6000 X100.10 Y144.91
G1 F3480 X96.71 Y148.30 E643.64369
G0 F6000 X96.00 Y148.30
G1 F3480 X99.39 Y144.91 E643.84275
G0 F6000 X98.68 Y144.91
G1 F3480 X95.30 Y148.30 E644.04180
G0 F6000 X94.59 Y148.30
G1 F3480 X97.98 Y144.91 E644.24086
G0 F6000 X97.27 Y144.91
G1 F3480 X93.88 Y148.30 E644.43994
G0 F6000 X93.18 Y148.30
G1 F3480 X96.56 Y144.91 E644.63902
G0 F6000 X95.86 Y144.91
G1 F3480 X92.47 Y148.30 E644.83811
G0 F6000 X91.76 Y148.30
G1 F3480 X95.15 Y144.91 E645.03719
G0 F6000 X94.44 Y144.91
G1 F3480 X91.06 Y148.30 E645.23628
G0 F6000 X90.35 Y148.30
G1 F3480 X93.73 Y144.91 E645.43536
G0 F6000 X93.03 Y144.91
G1 F3480 X89.64 Y148.30 E645.63441
G0 F6000 X88.93 Y148.30
G1 F3480 X92.32 Y144.91 E645.83347
G0 F6000 X91.61 Y144.91
G1 F3480 X88.23 Y148.30 E646.03252
G0 F6000 X87.52 Y148.30
G1 F3480 X90.91 Y144.91 E646.23158
G0 F6000 X90.20 Y144.91
G1 F3480 X86.81 Y148.30 E646.43066
G0 F6000 X86.11 Y148.30
G1 F3480 X89.49 Y144.91 E646.62975
G0 F6000 X88.78 Y144.91
G1 F3480 X85.40 Y148.30 E646.82883
G0 F6000 X84.69 Y148.30
G1 F3480 X88.08 Y144.91 E647.02791
G0 F6000 X87.37 Y144.91
G1 F3480 X83.98 Y148.30 E647.22700
G0 F6000 X83.28 Y148.30
G1 F3480 X86.66 Y144.91 E647.42608
G0 F6000 X85.95 Y144.91
G1 F3480 X82.57 Y148.30 E647.62514
G0 F6000 X81.86 Y148.30
G1 F3480 X85.25 Y144.91 E647.82419
G0 F6000 X84.54 Y144.91
G1 F3480 X81.16 Y148.30 E648.02324
G0 F6000 X80.45 Y148.30
G1 F3480 X83.83 Y144.91 E648.22233
G0 F6000 X83.13 Y144.91
G1 F3480 X79.74 Y148.30 E648.42141
G0 F6000 X79.17 Y148.88
G1 F3480 X71.93 Y156.12 E648.84704
G0 F6000 X71.93 Y156.82
G1 F3480 X79.17 Y149.58 E649.27266
G0 F6000 X79.17 Y150.29
G1 F3480 X71.93 Y157.53 E649.69829
G0 F6000 X71.93 Y158.24
G1 F3480 X79.17 Y151.00 E650.12394
G0 F6000 X79.17 Y151.70
G1 F3480 X71.93 Y158.94 E650.54960
G0 F6000 X71.93 Y159.65
G1 F3480 X79.17 Y152.41 E650.97525
G0 F6000 X79.17 Y153.12
G1 F3480 X72.20 Y160.09 E651.38483
G0 F6000 X72.91 Y160.09
G1 F3480 X79.17 Y153.83 E651.75283
G0 F6000 X79.17 Y154.53
G1 F3480 X73.61 Y160.09 E652.07927
G0 F6000 X74.32 Y160.09
G1 F3480 X79.17 Y155.24 E652.36414
G0 F6000 X79.17 Y155.95
G1 F3480 X75.03 Y160.09 E652.60743
G0 F6000 X75.73 Y160.09
G1 F3480 X79.17 Y156.65 E652.80916
G0 F6000 X79.17 Y157.36
G1 F3480 X76.44 Y160.09 E652.96932
G0 F6000 X77.15 Y160.09
G1 F3480 X79.17 Y158.07 E653.08792
G0 F6000 X79.17 Y158.78
G1 F3480 X77.86 Y160.09 E653.16494
G0 F6000 X78.56 Y160.09
G1 F3480 X79.17 Y159.48 E653.20036
G0 F6000 X71.93 Y155.41
G1 F3480 X82.42 Y144.91 E653.81737
G0 F6000 X81.71 Y144.91
G1 F3480 X71.93 Y154.70 E654.39281
G0 F6000 X71.93 Y153.99
G1 F3480 X81.01 Y144.91 E654.92668
G0 F6000 X80.30 Y144.91
G1 F3480 X71.93 Y153.29 E655.41898
G0 F6000 X71.93 Y152.58
G1 F3480 X79.59 Y144.91 E655.86968
G0 F6000 X78.88 Y144.91
G1 F3480 X71.93 Y151.87 E656.27881
G0 F6000 X71.93 Y151.16
G1 F3480 X78.18 Y144.91 E656.64635
G0 F6000 X77.47 Y144.91
G1 F3480 X71.93 Y150.46 E656.97231
G0 F6000 X71.93 Y149.75
G1 F3480 X76.76 Y144.91 E657.25671
G0 F6000 X76.06 Y144.91
G1 F3480 X71.94 Y149.03 E657.49842
G0 F6000 X71.97 Y148.29
G1 F3480 X75.35 Y144.91 E657.69680
G0 F6000 X74.64 Y144.91
G1 F3480 X71.97 Y147.58 E657.85376
G0 F6000 X71.93 Y146.92
G1 F3480 X73.94 Y144.91 E657.97179
G0 F6000 X73.23 Y144.91
G1 F3480 X71.93 Y146.21 E658.04820
G0 F6000 X71.93 Y145.51
G1 F3480 X72.52 Y144.91 E658.08303
;LAYER:2
G0 F6000 X71.75 Y144.74 Z0.70
;TYPE:WALL-INNER
G1 F4320 X233.25 Y144.74 E664.79722
G1 X233.25 Y147.76 E664.92273
G1 X233.23 Y147.76 E664.92344
G1 X233.23 Y150.07 E665.01964
G1 X233.25 Y160.26 E665.44321
G1 X225.82 Y160.26 E665.75203
G1 X225.82 Y148.47 E666.24204
G1 X79.34 Y148.47 E672.33188
G1 X79.34 Y160.26 E672.82189
G1 X71.75 Y160.26 E673.13744
G1 X71.75 Y149.50 E673.58488
G1 X71.82 Y147.76 E673.65728
G1 X71.75 Y147.76 E673.66019
G1 X71.75 Y144.74 E673.78570
G0 F6000 X71.25 Y144.24
G1 F4320 X233.75 Y144.24 E680.54146
G1 X233.75 Y148.26 E680.70855
G1 X233.73 Y148.26 E680.70926
G1 X233.73 Y150.07 E680.78467
G1 X233.75 Y160.76 E681.22903
G1 X225.32 Y160.76 E681.57947
G1 X225.32 Y148.97 E682.06947
G1 X79.84 Y148.97 E688.11774
G1 X79.84 Y160.76 E688.60775
G1 X71.25 Y160.76 E688.96488
G1 X71.25 Y149.47 E689.43422
G1 X71.30 Y148.26 E689.48470
G1 X71.25 Y148.26 E689.48673
G1 X71.25 Y144.24 E689.65382
G0 F6000 X70.75 Y143.74
;TYPE:WALL-OUTER
G1 F4320 X234.25 Y143.74 E696.45111
G1 X234.25 Y148.76 E696.65978
G1 X234.23 Y148.76 E696.66049
G1 X234.25 Y161.26 E697.18026
G1 X224.82 Y161.26 E697.57231
G1 X224.82 Y149.47 E698.06232
G1 X80.34 Y149.47 E704.06902
G1 X80.34 Y161.26 E704.55902
G1 X70.75 Y161.26 E704.95773
G1 X70.75 Y149.48 E705.44744
G1 X70.78 Y148.76 E705.47752
G1 X70.75 Y148.76 E705.47865
G1 X70.75 Y143.74 E705.68731
G0 F6000 X71.10 Y144.00
G0 X71.93 Y145.11
;TYPE:FILL
G1 F4320 X79.17 Y152.35 E706.11288
G0 F6000 X79.17 Y153.06
G1 F4320 X71.93 Y145.82 E706.53845
G0 F6000 X71.93 Y146.53
G1 F4320 X79.17 Y153.76 E706.96407
G0 F6000 X79.17 Y154.47
G1 F4320 X71.93 Y147.23 E707.38970
G0 F6000 X71.99 Y148.00
G1 F4320 X79.17 Y155.18 E707.81179
G0 F6000 X79.17 Y155.89
G1 F4320 X71.96 Y148.68 E708.23554
G0 F6000 X71.93 Y149.36
G1 F4320 X79.17 Y156.59 E708.66087
G0 F6000 X79.17 Y157.30
G1 F4320 X71.92 Y150.06 E709.08655
G0 F6000 X71.92 Y150.77
G1 F4320 X79.17 Y158.01 E709.51224
G0 F6000 X79.17 Y158.72
G1 F4320 X71.92 Y151.47 E709.93792
G0 F6000 X71.92 Y152.18
G1 F4320 X79.17 Y159.42 E710.36361
G0 F6000 X79.12 Y160.09
G1 F4320 X71.92 Y152.89 E710.78670
G0 F6000 X71.92 Y153.60
G1 F4320 X78.41 Y160.09 E711.16823
G0 F6000 X77.71 Y160.09
G1 F4320 X71.92 Y154.30 E711.50819
G0 F6000 X71.92 Y155.01
G1 F4320 X77.00 Y160.09 E711.80658
G0 F6000 X76.29 Y160.09
G1 F4320 X71.92 Y155.72 E712.06340
G0 F6000 X71.92 Y156.42
G1 F4320 X75.59 Y160.09 E712.27866
G0 F6000 X74.88 Y160.09
G1 F4320 X71.92 Y157.13 E712.45234
G0 F6000 X71.92 Y157.84
G1 F4320 X74.17 Y160.09 E712.58443
G0 F6000 X73.46 Y160.09
G1 F4320 X71.92 Y158.55 E712.67491
G0 F6000 X71.92 Y159.25
G1 F4320 X72.76 Y160.09 E712.72383
G0 F6000 X72.05 Y160.09
G1 F4320 X71.92 Y159.96 E712.73118
G0 F6000 X79.17 Y151.64
G1 F4320 X72.44 Y144.91 E713.12682
G0 F6000 X73.14 Y144.91
G1 F4320 X79.17 Y150.94 E713.48089
G0 F6000 X79.17 Y150.23
G1 F4320 X73.85 Y144.91 E713.79339
G0 F6000 X74.56 Y144.91
G1 F4320 X79.17 Y149.52 E714.06433
G0 F6000 X79.17 Y148.81
G1 F4320 X75.26 Y144.91 E714.29369
G0 F6000 X75.97 Y144.91
G1 F4320 X79.36 Y148.30 E714.49271
G0 F6000 X80.06 Y148.30
G1 F4320 X76.68 Y144.91 E714.69174
G0 F6000 X77.39 Y144.91
G1 F4320 X80.77 Y148.30 E714.89076
G0 F6000 X81.48 Y148.30
G1 F4320 X78.09 Y144.91 E715.08979
G0 F6000 X78.80 Y144.91
G1 F4320 X82.18 Y148.30 E715.28881
G0 F6000 X82.89 Y148.30
G1 F4320 X79.51 Y144.91 E715.48784
G0 F6000 X80.21 Y144.91
G1 F4320 X83.60 Y148.30 E715.68687
G0 F6000 X84.31 Y148.30
G1 F4320 X80.92 Y144.91 E715.88589
G0 F6000 X81.63 Y144.91
G1 F4320 X85.01 Y148.30 E716.08492
G0 F6000 X85.72 Y148.30
G1 F4320 X82.33 Y144.91 E716.28394
G0 F6000 X83.04 Y144.91
G1 F4320 X86.43 Y148.30 E716.48297
G0 F6000 X87.13 Y148.30
G1 F4320 X83.75 Y144.91 E716.68199
G0 F6000 X84.46 Y144.91
G1 F4320 X87.84 Y148.30 E716.88102
G0 F6000 X88.55 Y148.30
G1 F4320 X85.16 Y144.91 E717.08004
G0 F6000 X85.87 Y144.91
G1 F4320 X89.25 Y148.30 E717.27904
G0 F6000 X89.96 Y148.30
G1 F4320 X86.58 Y144.91 E717.47806
G0 F6000 X87.28 Y144.91
G1 F4320 X90.67 Y148.30 E717.67709
G0 F6000 X91.38 Y148.30
G1 F4320 X87.99 Y144.91 E717.87611
G0 F6000 X88.70 Y144.91
G1 F4320 X92.08 Y148.30 E718.07514
G0 F6000 X92.79 Y148.30
G1 F4320 X89.41 Y144.91 E718.27416
G0 F6000 X90.11 Y144.91
G1 F4320 X93.50 Y148.30 E718.47319
G0 F6000 X94.20 Y148.30
G1 F4320 X90.82 Y144.91 E718.67221
G0 F6000 X91.53 Y144.91
G1 F4320 X94.91 Y148.30 E718.87124
G0 F6000 X95.62 Y148.30
G1 F4320 X92.23 Y144.91 E719.07023
G0 F6000 X92.94 Y144.91
G1 F4320 X96.33 Y148.30 E719.26926
G0 F6000 X97.03 Y148.30
G1 F4320 X93.65 Y144.91 E719.46828
G0 F6000 X94.36 Y144.91
G1 F4320 X97.74 Y148.30 E719.66731
G0 F6000 X98.45 Y148.30
G1 F4320 X95.06 Y144.91 E719.86633
G0 F6000 X95.77 Y144.91
G1 F4320 X99.16 Y148.30 E720.06536
G0 F6000 X99.86 Y148.30
G1 F4320 X96.48 Y144.91 E720.26438
G0 F6000 X97.18 Y144.91
G1 F4320 X100.57 Y148.30 E720.46341
G0 F6000 X101.28 Y148.30
G1 F4320 X97.89 Y144.91 E720.66243
G0 F6000 X98.60 Y144.91
G1 F4320 X101.98 Y148.30 E720.86146
G0 F6000 X102.69 Y148.30
G1 F4320 X99.31 Y144.91 E721.06045
G0 F6000 X100.01 Y144.91
G1 F4320 X103.40 Y148.30 E721.25948
G0 F6000 X104.11 Y148.30
G1 F4320 X100.72 Y144.91 E721.45850
G0 F6000 X101.43 Y144.91
G1 F4320 X104.81 Y148.30 E721.65753
G0 F6000 X105.52 Y148.30
G1 F4320 X102.13 Y144.91 E721.85655
G0 F6000 X102.84 Y144.91
G1 F4320 X106.23 Y148.30 E722.05558
G0 F6000 X106.93 Y148.30
G1 F4320 X103.55 Y144.91 E722.25460
G0 F6000 X104.25 Y144.91
G1 F4320 X107.64 Y148.30 E722.45363
G0 F6000 X108.35 Y148.30
G1 F4320 X104.96 Y144.91 E722.65265
G0 F6000 X105.67 Y144.91
G1 F4320 X109.05 Y148.30 E722.85165
G0 F6000 X109.76 Y148.30
G1 F4320 X106.38 Y144.91 E723.05067
G0 F6000 X107.08 Y144.91
G1 F4320 X110.47 Y148.30 E723.24970
G0 F6000 X111.18 Y148.30
G1 F4320 X107.79 Y144.91 E723.44872
G0 F6000 X108.50 Y144.91
G1 F4320 X111.88 Y148.30 E723.64775
G0 F6000 X112.59 Y148.30
G1 F4320 X109.20 Y144.91 E723.84677
G0 F6000 X109.91 Y144.91
G1 F4320 X113.30 Y148.30 E724.04580
G0 F6000 X114.00 Y148.30
G1 F4320 X110.62 Y144.91 E724.24482
G0 F6000 X111.33 Y144.91
G1 F4320 X114.71 Y148.30 E724.44385
G0 F6000 X115.42 Y148.30
G1 F4320 X112.03 Y144.91 E724.64287
G0 F6000 X112.74 Y144.91
G1 F4320 X116.13 Y148.30 E724.84190
G0 F6000 X116.83 Y148.30
G1 F4320 X113.45 Y144.91 E725.04092
G0 F6000 X114.16 Y144.91
G1 F4320 X117.54 Y148.30 E725.23995
G0 F6000 X118.25 Y148.30
G1 F4320 X114.86 Y144.91 E725.43897
G0 F6000 X115.57 Y144.91
G1 F4320 X118.95 Y148.30 E725.63800
G0 F6000 X119.66 Y148.30
G1 F4320 X116.28 Y144.91 E725.83702
G0 F6000 X116.98 Y144.91
G1 F4320 X120.37 Y148.30 E726.03605
G0 F6000 X121.08 Y148.30
G1 F4320 X117.69 Y144.91 E726.23507
G0 F6000 X118.40 Y144.91
G1 F4320 X121.78 Y148.30 E726.43410
G0 F6000 X122.49 Y148.30
G1 F4320 X119.11 Y144.91 E726.63309
G0 F6000 X119.81 Y144.91
G1 F4320 X123.20 Y148.30 E726.83212
G0 F6000 X123.90 Y148.30
G1 F4320 X120.52 Y144.91 E727.03114
G0 F6000 X121.23 Y144.91
G1 F4320 X124.61 Y148.30 E727.23017
G0 F6000 X125.32 Y148.30
G1 F4320 X121.93 Y144.91 E727.42919
G0 F6000 X122.64 Y144.91
G1 F4320 X126.03 Y148.30 E727.62822
G0 F6000 X126.73 Y148.30
G1 F4320 X123.35 Y144.91 E727.82724
G0 F6000 X124.05 Y144.91
G1 F4320 X127.44 Y148.30 E728.02627
G0 F6000 X128.15 Y148.30
G1 F4320 X124.76 Y144.91 E728.22529
G0 F6000 X125.47 Y144.91
G1 F4320 X128.85 Y148.30 E728.42429
G0 F6000 X129.56 Y148.30
G1 F4320 X126.18 Y144.91 E728.62332
G0 F6000 X126.88 Y144.91
G1 F4320 X130.27 Y148.30 E728.82234
G0 F6000 X130.97 Y148.30
G1 F4320 X127.59 Y144.91 E729.02137
G0 F6000 X128.30 Y144.91
G1 F4320 X131.68 Y148.30 E729.22039
G0 F6000 X132.39 Y148.30
G1 F4320 X129.00 Y144.91 E729.41942
G0 F6000 X129.71 Y144.91
G1 F4320 X133.10 Y148.30 E729.61844
G0 F6000 X133.80 Y148.30
G1 F4320 X130.42 Y144.91 E729.81747
G0 F6000 X131.12 Y144.91
G1 F4320 X134.51 Y148.30 E730.01649
G0 F6000 X135.22 Y148.30
G1 F4320 X131.83 Y144.91 E730.21552
G0 F6000 X132.54 Y144.91
G1 F4320 X135.93 Y148.30 E730.41454
G0 F6000 X136.63 Y148.30
G1 F4320 X133.25 Y144.91 E730.61357
G0 F6000 X133.95 Y144.91
G1 F4320 X137.34 Y148.30 E730.81259
G0 F6000 X138.05 Y148.30
G1 F4320 X134.66 Y144.91 E731.01162
G0 F6000 X135.37 Y144.91
G1 F4320 X138.75 Y148.30 E731.21064
G0 F6000 X139.46 Y148.30
G1 F4320 X136.07 Y144.91 E731.40967
G0 F6000 X136.78 Y144.91
G1 F4320 X140.17 Y148.30 E731.60869
G0 F6000 X140.87 Y148.30
G1 F4320 X137.49 Y144.91 E731.80772
G0 F6000 X138.20 Y144.91
G1 F4320 X141.58 Y148.30 E732.00674
G0 F6000 X142.29 Y148.30
G1 F4320 X138.90 Y144.91 E732.20574
G0 F6000 X139.61 Y144.91
G1 F4320 X143.00 Y148.30 E732.40476
G0 F6000 X143.70 Y148.30
G1 F4320 X140.32 Y144.91 E732.60379
G0 F6000 X141.03 Y144.91
G1 F4320 X144.41 Y148.30 E732.80281
G0 F6000 X145.12 Y148.30
G1 F4320 X141.73 Y144.91 E733.00184
G0 F6000 X142.44 Y144.91
G1 F4320 X145.82 Y148.30 E733.20086
G0 F6000 X146.53 Y148.30
G1 F4320 X143.15 Y144.91 E733.39989
G0 F6000 X143.85 Y144.91
G1 F4320 X147.24 Y148.30 E733.59891
G0 F6000 X147.94 Y148.30
G1 F4320 X144.56 Y144.91 E733.79794
G0 F6000 X145.27 Y144.91
G1 F4320 X148.65 Y148.30 E733.99693
G0 F6000 X149.36 Y148.30
G1 F4320 X145.97 Y144.91 E734.19596
G0 F6000 X146.68 Y144.91
G1 F4320 X150.07 Y148.30 E734.39498
G0 F6000 X150.77 Y148.30
G1 F4320 X147.39 Y144.91 E734.59401
G0 F6000 X148.10 Y144.91
G1 F4320 X151.48 Y148.30 E734.79303
G0 F6000 X152.19 Y148.30
G1 F4320 X148.80 Y144.91 E734.99206
G0 F6000 X149.51 Y144.91
G1 F4320 X152.90 Y148.30 E735.19108
G0 F6000 X153.60 Y148.30
G1 F4320 X150.22 Y144.91 E735.39011
G0 F6000 X150.92 Y144.91
G1 F4320 X154.31 Y148.30 E735.58913
G0 F6000 X155.02 Y148.30
G1 F4320 X151.63 Y144.91 E735.78816
G0 F6000 X152.34 Y144.91
G1 F4320 X155.72 Y148.30 E735.98718
G0 F6000 X156.43 Y148.30
G1 F4320 X153.05 Y144.91 E736.18621
G0 F6000 X153.75 Y144.91
G1 F4320 X157.14 Y148.30 E736.38523
G0 F6000 X157.84 Y148.30
G1 F4320 X154.46 Y144.91 E736.58426
G0 F6000 X155.17 Y144.91
G1 F4320 X158.55 Y148.30 E736.78328
G0 F6000 X159.26 Y148.30
G1 F4320 X155.87 Y144.91 E736.98231
G0 F6000 X156.58 Y144.91
G1 F4320 X159.97 Y148.30 E737.18133
G0 F6000 X160.67 Y148.30
G1 F4320 X157.29 Y144.91 E737.38036
G0 F6000 X158.00 Y144.91
G1 F4320 X161.38 Y148.30 E737.57938
G0 F6000 X162.09 Y148.30
G1 F4320 X158.70 Y144.91 E737.77838
G0 F6000 X159.41 Y144.91
G1 F4320 X162.79 Y148.30 E737.97740
G0 F6000 X163.50 Y148.30
G1 F4320 X160.12 Y144.91 E738.17643
G0 F6000 X160.82 Y144.91
G1 F4320 X164.21 Y148.30 E738.37545
G0 F6000 X164.92 Y148.30
G1 F4320 X161.53 Y144.91 E738.57448
G0 F6000 X162.24 Y144.91
G1 F4320 X165.62 Y148.30 E738.77350
G0 F6000 X166.33 Y148.30
G1 F4320 X162.94 Y144.91 E738.97253
G0 F6000 X163.65 Y144.91
G1 F4320 X167.04 Y148.30 E739.17155
G0 F6000 X167.74 Y148.30
G1 F4320 X164.36 Y144.91 E739.37058
G0 F6000 X165.07 Y144.91
G1 F4320 X168.45 Y148.30 E739.56957
G0 F6000 X169.16 Y148.30
G1 F4320 X165.77 Y144.91 E739.76860
G0 F6000 X166.48 Y144.91
G1 F4320 X169.87 Y148.30 E739.96762
G0 F6000 X170.57 Y148.30
G1 F4320 X167.19 Y144.91 E740.16665
G0 F6000 X167.90 Y144.91
G1 F4320 X171.28 Y148.30 E740.36567
G0 F6000 X171.99 Y148.30
G1 F4320 X168.60 Y144.91 E740.56470
G0 F6000 X169.31 Y144.91
G1 F4320 X172.69 Y148.30 E740.76372
G0 F6000 X173.40 Y148.30
G1 F4320 X170.02 Y144.91 E740.96275
G0 F6000 X170.72 Y144.91
G1 F4320 X174.11 Y148.30 E741.16177
G0 F6000 X174.81 Y148.30
G1 F4320 X171.43 Y144.91 E741.36080
G0 F6000 X172.14 Y144.91
G1 F4320 X175.52 Y148.30 E741.55980
G0 F6000 X176.23 Y148.30
G1 F4320 X172.84 Y144.91 E741.75882
G0 F6000 X173.55 Y144.91
G1 F4320 X176.94 Y148.30 E741.95785
G0 F6000 X177.64 Y148.30
G1 F4320 X174.26 Y144.91 E742.15687
G0 F6000 X174.97 Y144.91
G1 F4320 X178.35 Y148.30 E742.35590
G0 F6000 X179.06 Y148.30
G1 F4320 X175.67 Y144.91 E742.55492
G0 F6000 X176.38 Y144.91
G1 F4320 X179.76 Y148.30 E742.75395
G0 F6000 X180.47 Y148.30
G1 F4320 X177.09 Y144.91 E742.95297
G0 F6000 X177.79 Y144.91
G1 F4320 X181.18 Y148.30 E743.15200
G0 F6000 X181.89 Y148.30
G1 F4320 X178.50 Y144.91 E743.35099
G0 F6000 X179.21 Y144.91
G1 F4320 X182.59 Y148.30 E743.55002
G0 F6000 X183.30 Y148.30
G1 F4320 X179.92 Y144.91 E743.74904
G0 F6000 X180.62 Y144.91
G1 F4320 X184.01 Y148.30 E743.94807
G0 F6000 X184.72 Y148.30
G1 F4320 X181.33 Y144.91 E744.14709
G0 F6000 X182.04 Y144.91
G1 F4320 X185.42 Y148.30 E744.34612
G0 F6000 X186.13 Y148.30
G1 F4320 X182.74 Y144.91 E744.54514
G0 F6000 X183.45 Y144.91
G1 F4320 X186.84 Y148.30 E744.74417
G0 F6000 X187.54 Y148.30
G1 F4320 X184.16 Y144.91 E744.94319
G0 F6000 X184.87 Y144.91
G1 F4320 X188.25 Y148.30 E745.14222
G0 F6000 X188.96 Y148.30
G1 F4320 X185.57 Y144.91 E745.34124
G0 F6000 X186.28 Y144.91
G1 F4320 X189.66 Y148.30 E745.54027
G0 F6000 X190.37 Y148.30
G1 F4320 X186.99 Y144.91 E745.73929
G0 F6000 X187.69 Y144.91
G1 F4320 X191.08 Y148.30 E745.93832
G0 F6000 X191.79 Y148.30
G1 F4320 X188.40 Y144.91 E746.13734
G0 F6000 X189.11 Y144.91
G1 F4320 X192.49 Y148.30 E746.33637
G0 F6000 X193.20 Y148.30
G1 F4320 X189.81 Y144.91 E746.53539
G0 F6000 X190.52 Y144.91
G1 F4320 X193.91 Y148.30 E746.73442
G0 F6000 X194.61 Y148.30
G1 F4320 X191.23 Y144.91 E746.93344
G0 F6000 X191.94 Y144.91
G1 F4320 X195.32 Y148.30 E747.13244
G0 F6000 X196.03 Y148.30
G1 F4320 X192.64 Y144.91 E747.33146
G0 F6000 X193.35 Y144.91
G1 F4320 X196.74 Y148.30 E747.53049
G0 F6000 X197.44 Y148.30
G1 F4320 X194.06 Y144.91 E747.72951
G0 F6000 X194.76 Y144.91
G1 F4320 X198.15 Y148.30 E747.92854
G0 F6000 X198.86 Y148.30
G1 F4320 X195.47 Y144.91 E748.12756
G0 F6000 X196.18 Y144.91
G1 F4320 X199.56 Y148.30 E748.32659
G0 F6000 X200.27 Y148.30
G1 F4320 X196.89 Y144.91 E748.52561
G0 F6000 X197.59 Y144.91
G1 F4320 X200.98 Y148.30 E748.72464
G0 F6000 X201.69 Y148.30
G1 F4320 X198.30 Y144.91 E748.92363
G0 F6000 X199.01 Y144.91
G1 F4320 X202.39 Y148.30 E749.12266
G0 F6000 X203.10 Y148.30
G1 F4320 X199.72 Y144.91 E749.32168
G0 F6000 X200.42 Y144.91
G1 F4320 X203.81 Y148.30 E749.52071
G0 F6000 X204.51 Y148.30
G1 F4320 X201.13 Y144.91 E749.71973
G0 F6000 X201.84 Y144.91
G1 F4320 X205.22 Y148.30 E749.91876
G0 F6000 X205.93 Y148.30
G1 F4320 X202.54 Y144.91 E750.11778
G0 F6000 X203.25 Y144.91
G1 F4320 X206.63 Y148.30 E750.31681
G0 F6000 X207.34 Y148.30
G1 F4320 X203.96 Y144.91 E750.51583
G0 F6000 X204.66 Y144.91
G1 F4320 X208.05 Y148.30 E750.71486
G0 F6000 X208.76 Y148.30
G1 F4320 X205.37 Y144.91 E750.91388
G0 F6000 X206.08 Y144.91
G1 F4320 X209.46 Y148.30 E751.11291
G0 F6000 X210.17 Y148.30
G1 F4320 X206.79 Y144.91 E751.31193
G0 F6000 X207.49 Y144.91
G1 F4320 X210.88 Y148.30 E751.51096
G0 F6000 X211.59 Y148.30
G1 F4320 X208.20 Y144.91 E751.70998
G0 F6000 X208.91 Y144.91
G1 F4320 X212.29 Y148.30 E751.90901
G0 F6000 X213.00 Y148.30
G1 F4320 X209.61 Y144.91 E752.10803
G0 F6000 X210.32 Y144.91
G1 F4320 X213.71 Y148.30 E752.30706
G0 F6000 X214.41 Y148.30
G1 F4320 X211.03 Y144.91 E752.50608
G0 F6000 X211.74 Y144.91
G1 F4320 X215.12 Y148.30 E752.70508
G0 F6000 X215.83 Y148.30
G1 F4320 X212.44 Y144.91 E752.90410
G0 F6000 X213.15 Y144.91
G1 F4320 X216.53 Y148.30 E753.10313
G0 F6000 X217.24 Y148.30
G1 F4320 X213.86 Y144.91 E753.30215
G0 F6000 X214.56 Y144.91
G1 F4320 X217.95 Y148.30 E753.50118
G0 F6000 X218.66 Y148.30
G1 F4320 X215.27 Y144.91 E753.70020
G0 F6000 X215.98 Y144.91
G1 F4320 X219.36 Y148.30 E753.89923
G0 F6000 X220.07 Y148.30
G1 F4320 X216.69 Y144.91 E754.09825
G0 F6000 X217.39 Y144.91
G1 F4320 X220.78 Y148.30 E754.29728
G0 F6000 X221.48 Y148.30
G1 F4320 X218.10 Y144.91 E754.49628
G0 F6000 X218.81 Y144.91
G1 F4320 X222.19 Y148.30 E754.69530
G0 F6000 X222.90 Y148.30
G1 F4320 X219.51 Y144.91 E754.89433
G0 F6000 X220.22 Y144.91
G1 F4320 X223.61 Y148.30 E755.09335
G0 F6000 X224.31 Y148.30
G1 F4320 X220.93 Y144.91 E755.29238
G0 F6000 X221.63 Y144.91
G1 F4320 X225.02 Y148.30 E755.49140
G0 F6000 X225.73 Y148.30
G1 F4320 X222.34 Y144.91 E755.69043
G0 F6000 X223.05 Y144.91
G1 F4320 X233.06 Y154.93 E756.27927
G0 F6000 X233.06 Y155.64
G1 F4320 X225.99 Y148.56 E756.69513
G0 F6000 X225.99 Y149.27
G1 F4320 X233.07 Y156.34 E757.11106
G0 F6000 X233.07 Y157.05
G1 F4320 X225.99 Y149.98 E757.52704
G0 F6000 X225.99 Y150.69
G1 F4320 X233.07 Y157.76 E757.94308
G0 F6000 X233.07 Y158.47
G1 F4320 X225.99 Y151.39 E758.35918
G0 F6000 X225.99 Y152.10
G1 F4320 X233.07 Y159.18 E758.77531
G0 F6000 X233.07 Y159.88
G1 F4320 X225.99 Y152.81 E759.19147
G0 F6000 X225.99 Y153.51
G1 F4320 X232.56 Y160.09 E759.57788
G0 F6000 X231.86 Y160.09
G1 F4320 X225.99 Y154.22 E759.92272
G0 F6000 X225.99 Y154.93
G1 F4320 X231.15 Y160.09 E760.22599
G0 F6000 X230.44 Y160.09
G1 F4320 X225.99 Y155.63 E760.48769
G0 F6000 X225.99 Y156.34
G1 F4320 X229.74 Y160.09 E760.70783
G0 F6000 X229.03 Y160.09
G1 F4320 X225.99 Y157.05 E760.88639
G0 F6000 X225.99 Y157.76
G1 F4320 X228.32 Y160.09 E761.02336
G0 F6000 X227.61 Y160.09
G1 F4320 X225.99 Y158.46 E761.11872
G0 F6000 X225.99 Y159.17
G1 F4320 X226.91 Y160.09 E761.17252
G0 F6000 X226.20 Y160.09
G1 F4320 X225.99 Y159.88 E761.18475
G0 F6000 X233.06 Y154.22
G1 F4320 X223.76 Y144.91 E761.73197
G0 F6000 X224.46 Y144.91
G1 F4320 X233.06 Y153.51 E762.23753
G0 F6000 X233.06 Y152.81
G1 F4320 X225.17 Y144.91 E762.70146
G0 F6000 X225.88 Y144.91
G1 F4320 X233.06 Y152.10 E763.12376
G0 F6000 X233.06 Y151.39
G1 F4320 X226.59 Y144.91 E763.50441
G0 F6000 X227.29 Y144.91
G1 F4320 X233.06 Y150.68 E763.84343
G0 F6000 X233.06 Y149.97
G1 F4320 X228.00 Y144.91 E764.14087
G0 F6000 X228.71 Y144.91
G1 F4320 X233.06 Y149.26 E764.39670
G0 F6000 X233.06 Y148.56
G1 F4320 X229.41 Y144.91 E764.61086
G0 F6000 X230.12 Y144.91
G1 F4320 X233.06 Y147.85 E764.78340
G0 F6000 X233.07 Y147.16
G1 F4320 X230.83 Y144.91 E764.91537
G0 F6000 X231.53 Y144.91
G1 F4320 X233.07 Y146.45 E765.00574
G0 F6000 X233.07 Y145.74
G1 F4320 X232.24 Y144.91 E765.05454
G0 F6000 X232.95 Y144.91
G1 F4320 X233.07 Y145.04 E765.06177
;LAYER:3
G0 F6000 X233.25 Y144.74 Z0.90
;TYPE:WALL-INNER
G1 F5160 X233.25 Y147.76 E765.18729
G1 X233.23 Y147.76 E765.18799
G1 X233.23 Y150.27 E765.29255
G1 X233.25 Y160.26 E765.70777
G1 X225.82 Y160.26 E766.01659
G1 X225.82 Y148.47 E766.50659
G1 X79.34 Y148.47 E772.59644
G1 X79.34 Y160.26 E773.08644
G1 X71.75 Y160.26 E773.40200
G1 X71.75 Y149.50 E773.84943
G1 X71.82 Y147.76 E773.92183
G1 X71.75 Y147.76 E773.92470
G1 X71.75 Y144.74 E774.05022
G1 X233.25 Y144.74 E780.76431
G0 F6000 X233.75 Y144.24
G1 F5160 X233.75 Y148.26 E780.93141
G1 X233.73 Y148.26 E780.93211
G1 X233.75 Y160.76 E781.45189
G1 X225.32 Y160.76 E781.80232
G1 X225.32 Y148.97 E782.29233
G1 X79.84 Y148.97 E788.34060
G1 X79.84 Y160.76 E788.83060
G1 X71.25 Y160.76 E789.18774
G1 X71.25 Y149.47 E789.65708
G1 X71.30 Y148.26 E789.70755
G1 X71.25 Y148.26 E789.70955
G1 X71.25 Y144.24 E789.87664
G1 X233.75 Y144.24 E796.63231
G0 F6000 X234.25 Y143.74
;TYPE:WALL-OUTER
G1 F5160 X234.25 Y148.76 E796.84098
G1 X234.23 Y148.76 E796.84164
G1 X234.25 Y161.26 E797.36142
G1 X224.82 Y161.26 E797.75347
G1 X224.82 Y149.47 E798.24347
G1 X80.34 Y149.47 E804.25017
G1 X80.34 Y161.26 E804.74018
G1 X70.75 Y161.26 E805.13888
G1 X70.75 Y149.48 E805.62860
G1 X70.78 Y148.76 E805.65868
G1 X70.75 Y148.76 E805.65976
G1 X70.75 Y143.74 E805.86843
G1 X234.25 Y143.74 E812.66563
G0 F6000 X233.90 Y144.00
G0 X233.03 Y144.91
;TYPE:FILL
G1 F5160 X225.99 Y151.96 E813.07965
G0 F6000 X225.99 Y152.66
G1 F5160 X233.07 Y145.58 E813.49581
G0 F6000 X233.07 Y146.29
G1 F5160 X225.99 Y153.37 E813.91197
G0 F6000 X225.99 Y154.08
G1 F5160 X233.07 Y147.00 E814.32812
G0 F6000 X233.05 Y147.72
G1 F5160 X225.99 Y154.78 E814.74328
G0 F6000 X225.99 Y155.49
G1 F5160 X233.05 Y148.43 E815.15844
G0 F6000 X233.06 Y149.13
G1 F5160 X225.99 Y156.20 E815.57372
G0 F6000 X225.99 Y156.91
G1 F5160 X233.06 Y149.84 E815.98903
G0 F6000 X233.06 Y150.55
G1 F5160 X225.99 Y157.61 E816.40436
G0 F6000 X225.99 Y158.32
G1 F5160 X233.06 Y151.25 E816.81979
G0 F6000 X233.06 Y151.96
G1 F5160 X225.99 Y159.03 E817.23524
G0 F6000 X225.99 Y159.73
G1 F5160 X233.06 Y152.67 E817.65081
G0 F6000 X233.06 Y153.37
G1 F5160 X226.35 Y160.09 E818.04554
G0 F6000 X227.05 Y160.09
G1 F5160 X233.06 Y154.08 E818.39873
G0 F6000 X233.06 Y154.78
G1 F5160 X227.76 Y160.09 E818.71047
G0 F6000 X228.47 Y160.09
G1 F5160 X233.06 Y155.49 E818.98061
G0 F6000 X233.06 Y156.20
G1 F5160 X229.18 Y160.09 E819.20926
G0 F6000 X229.88 Y160.09
G1 F5160 X233.06 Y156.90 E819.39638
G0 F6000 X233.07 Y157.61
G1 F5160 X230.59 Y160.09 E819.54202
G0 F6000 X231.30 Y160.09
G1 F5160 X233.07 Y158.31 E819.64615
G0 F6000 X233.07 Y159.02
G1 F5160 X232.00 Y160.09 E819.70874
G0 F6000 X232.71 Y160.09
G1 F5160 X233.07 Y159.73 E819.72985
G0 F6000 X225.99 Y151.25
G1 F5160 X232.33 Y144.91 E820.10229
G0 F6000 X231.62 Y144.91
G1 F5160 X225.99 Y150.54 E820.43314
G0 F6000 X225.99 Y149.83
G1 F5160 X230.91 Y144.91 E820.72241
G0 F6000 X230.21 Y144.91
G1 F5160 X225.99 Y149.13 E820.97012
G0 F6000 X225.99 Y148.42
G1 F5160 X229.50 Y144.91 E821.17626
G0 F6000 X228.79 Y144.91
G1 F5160 X225.41 Y148.30 E821.37535
G0 F6000 X224.70 Y148.30
G1 F5160 X228.08 Y144.91 E821.57443
G0 F6000 X227.38 Y144.91
G1 F5160 X223.99 Y148.30 E821.77351
G0 F6000 X223.28 Y148.30
G1 F5160 X226.67 Y144.91 E821.97260
G0 F6000 X225.96 Y144.91
G1 F5160 X222.58 Y148.30 E822.17168
G0 F6000 X221.87 Y148.30
G1 F5160 X225.25 Y144.91 E822.37073
G0 F6000 X224.55 Y144.91
G1 F5160 X221.16 Y148.30 E822.56979
G0 F6000 X220.46 Y148.30
G1 F5160 X223.84 Y144.91 E822.76884
G0 F6000 X223.13 Y144.91
G1 F5160 X219.75 Y148.30 E822.96793
G0 F6000 X219.04 Y148.30
G1 F5160 X222.43 Y144.91 E823.16701
G0 F6000 X221.72 Y144.91
G1 F5160 X218.33 Y148.30 E823.36610
G0 F6000 X217.63 Y148.30
G1 F5160 X221.01 Y144.91 E823.56518
G0 F6000 X220.31 Y144.91
G1 F5160 X216.92 Y148.30 E823.76426
G0 F6000 X216.21 Y148.30
G1 F5160 X219.60 Y144.91 E823.96335
G0 F6000 X218.89 Y144.91
G1 F5160 X215.51 Y148.30 E824.16240
G0 F6000 X214.80 Y148.30
G1 F5160 X218.18 Y144.91 E824.36146
G0 F6000 X217.48 Y144.91
G1 F5160 X214.09 Y148.30 E824.56051
G0 F6000 X213.38 Y148.30
G1 F5160 X216.77 Y144.91 E824.75956
G0 F6000 X216.06 Y144.91
G1 F5160 X212.68 Y148.30 E824.95865
G0 F6000 X211.97 Y148.30
G1 F5160 X215.36 Y144.91 E825.15773
G0 F6000 X214.65 Y144.91
G1 F5160 X211.26 Y148.30 E825.35682
G0 F6000 X210.56 Y148.30
G1 F5160 X213.94 Y144.91 E825.55590
G0 F6000 X213.24 Y144.91
G1 F5160 X209.85 Y148.30 E825.75498
G0 F6000 X209.14 Y148.30
G1 F5160 X212.53 Y144.91 E825.95407
G0 F6000 X211.82 Y144.91
G1 F5160 X208.44 Y148.30 E826.15312
G0 F6000 X207.73 Y148.30
G1 F5160 X211.11 Y144.91 E826.35218
G0 F6000 X210.41 Y144.91
G1 F5160 X207.02 Y148.30 E826.55123
G0 F6000 X206.31 Y148.30
G1 F5160 X209.70 Y144.91 E826.75031
G0 F6000 X208.99 Y144.91
G1 F5160 X205.61 Y148.30 E826.94940
G0 F6000 X204.90 Y148.30
G1 F5160 X208.28 Y144.91 E827.14848
G0 F6000 X207.58 Y144.91
G1 F5160 X204.19 Y148.30 E827.34757
G0 F6000 X203.49 Y148.30
G1 F5160 X206.87 Y144.91 E827.54665
G0 F6000 X206.16 Y144.91
G1 F5160 X202.78 Y148.30 E827.74573
G0 F6000 X202.07 Y148.30
G1 F5160 X205.46 Y144.91 E827.94479
G0 F6000 X204.75 Y144.91
G1 F5160 X201.36 Y148.30 E828.14384
G0 F6000 X200.66 Y148.30
G1 F5160 X204.04 Y144.91 E828.34290
G0 F6000 X203.34 Y144.91
G1 F5160 X199.95 Y148.30 E828.54198
G0 F6000 X199.24 Y148.30
G1 F5160 X202.63 Y144.91 E828.74106
G0 F6000 X201.92 Y144.91
G1 F5160 X198.53 Y148.30 E828.94015
G0 F6000 X197.83 Y148.30
G1 F5160 X201.21 Y144.91 E829.13923
G0 F6000 X200.51 Y144.91
G1 F5160 X197.12 Y148.30 E829.33832
G0 F6000 X196.41 Y148.30
G1 F5160 X199.80 Y144.91 E829.53740
G0 F6000 X199.09 Y144.91
G1 F5160 X195.71 Y148.30 E829.73645
G0 F6000 X195.00 Y148.30
G1 F5160 X198.38 Y144.91 E829.93551
G0 F6000 X197.68 Y144.91
G1 F5160 X194.29 Y148.30 E830.13456
G0 F6000 X193.59 Y148.30
G1 F5160 X196.97 Y144.91 E830.33362
G0 F6000 X196.26 Y144.91
G1 F5160 X192.88 Y148.30 E830.53270
G0 F6000 X192.17 Y148.30
G1 F5160 X195.56 Y144.91 E830.73179
G0 F6000 X194.85 Y144.91
G1 F5160 X191.46 Y148.30 E830.93087
G0 F6000 X190.76 Y148.30
G1 F5160 X194.14 Y144.91 E831.12995
G0 F6000 X193.44 Y144.91
G1 F5160 X190.05 Y148.30 E831.32904
G0 F6000 X189.34 Y148.30
G1 F5160 X192.73 Y144.91 E831.52812
G0 F6000 X192.02 Y144.91
G1 F5160 X188.64 Y148.30 E831.72717
G0 F6000 X187.93 Y148.30
G1 F5160 X191.31 Y144.91 E831.92623
G0 F6000 X190.61 Y144.91
G1 F5160 X187.22 Y148.30 E832.12528
G0 F6000 X186.51 Y148.30
G1 F5160 X189.90 Y144.91 E832.32437
G0 F6000 X189.19 Y144.91
G1 F5160 X185.81 Y148.30 E832.52345
G0 F6000 X185.10 Y148.30
G1 F5160 X188.49 Y144.91 E832.72254
G0 F6000 X187.78 Y144.91
G1 F5160 X184.39 Y148.30 E832.92162
G0 F6000 X183.69 Y148.30
G1 F5160 X187.07 Y144.91 E833.12070
G0 F6000 X186.37 Y144.91
G1 F5160 X182.98 Y148.30 E833.31979
G0 F6000 X182.27 Y148.30
G1 F5160 X185.66 Y144.91 E833.51884
G0 F6000 X184.95 Y144.91
G1 F5160 X181.56 Y148.30 E833.71790
G0 F6000 X180.86 Y148.30
G1 F5160 X184.24 Y144.91 E833.91695
G0 F6000 X183.54 Y144.91
G1 F5160 X180.15 Y148.30 E834.11600
G0 F6000 X179.44 Y148.30
G1 F5160 X182.83 Y144.91 E834.31509
G0 F6000 X182.12 Y144.91
G1 F5160 X178.74 Y148.30 E834.51417
G0 F6000 X178.03 Y148.30
G1 F5160 X181.41 Y144.91 E834.71326
G0 F6000 X180.71 Y144.91
G1 F5160 X177.32 Y148.30 E834.91234
G0 F6000 X176.62 Y148.30
G1 F5160 X180.00 Y144.91 E835.11142
G0 F6000 X179.29 Y144.91
G1 F5160 X175.91 Y148.30 E835.31048
G0 F6000 X175.20 Y148.30
G1 F5160 X178.59 Y144.91 E835.50953
G0 F6000 X177.88 Y144.91
G1 F5160 X174.49 Y148.30 E835.70859
G0 F6000 X173.79 Y148.30
G1 F5160 X177.17 Y144.91 E835.90764
G0 F6000 X176.47 Y144.91
G1 F5160 X173.08 Y148.30 E836.10672
G0 F6000 X172.37 Y148.30
G1 F5160 X175.76 Y144.91 E836.30581
G0 F6000 X175.05 Y144.91
G1 F5160 X171.66 Y148.30 E836.50489
G0 F6000 X170.96 Y148.30
G1 F5160 X174.34 Y144.91 E836.70398
G0 F6000 X173.64 Y144.91
G1 F5160 X170.25 Y148.30 E836.90306
G0 F6000 X169.54 Y148.30
G1 F5160 X172.93 Y144.91 E837.10214
G0 F6000 X172.22 Y144.91
G1 F5160 X168.84 Y148.30 E837.30120
G0 F6000 X168.13 Y148.30
G1 F5160 X171.51 Y144.91 E837.50025
G0 F6000 X170.81 Y144.91
G1 F5160 X167.42 Y148.30 E837.69931
G0 F6000 X166.72 Y148.30
G1 F5160 X170.10 Y144.91 E837.89839
G0 F6000 X169.39 Y144.91
G1 F5160 X166.01 Y148.30 E838.09747
G0 F6000 X165.30 Y148.30
G1 F5160 X168.69 Y144.91 E838.29656
G0 F6000 X167.98 Y144.91
G1 F5160 X164.59 Y148.30 E838.49564
G0 F6000 X163.89 Y148.30
G1 F5160 X167.27 Y144.91 E838.69473
G0 F6000 X166.57 Y144.91
G1 F5160 X163.18 Y148.30 E838.89381
G0 F6000 X162.47 Y148.30
G1 F5160 X165.86 Y144.91 E839.09286
G0 F6000 X165.15 Y144.91
G1 F5160 X161.77 Y148.30 E839.29192
G0 F6000 X161.06 Y148.30
G1 F5160 X164.44 Y144.91 E839.49097
G0 F6000 X163.74 Y144.91
G1 F5160 X160.35 Y148.30 E839.69003
G0 F6000 X159.64 Y148.30
G1 F5160 X163.03 Y144.91 E839.88911
G0 F6000 X162.32 Y144.91
G1 F5160 X158.94 Y148.30 E840.08820
G0 F6000 X158.23 Y148.30
G1 F5160 X161.62 Y144.91 E840.28728
G0 F6000 X160.91 Y144.91
G1 F5160 X157.52 Y148.30 E840.48636
G0 F6000 X156.82 Y148.30
G1 F5160 X160.20 Y144.91 E840.68545
G0 F6000 X159.50 Y144.91
G1 F5160 X156.11 Y148.30 E840.88453
G0 F6000 X155.40 Y148.30
G1 F5160 X158.79 Y144.91 E841.08359
G0 F6000 X158.08 Y144.91
G1 F5160 X154.69 Y148.30 E841.28264
G0 F6000 X153.99 Y148.30
G1 F5160 X157.37 Y144.91 E841.48169
G0 F6000 X156.67 Y144.91
G1 F5160 X153.28 Y148.30 E841.68078
G0 F6000 X152.57 Y148.30
G1 F5160 X155.96 Y144.91 E841.87986
G0 F6000 X155.25 Y144.91
G1 F5160 X151.87 Y148.30 E842.07895
G0 F6000 X151.16 Y148.30
G1 F5160 X154.54 Y144.91 E842.27803
G0 F6000 X153.84 Y144.91
G1 F5160 X150.45 Y148.30 E842.47711
G0 F6000 X149.75 Y148.30
G1 F5160 X153.13 Y144.91 E842.67620
G0 F6000 X152.42 Y144.91
G1 F5160 X149.04 Y148.30 E842.87531
G0 F6000 X148.33 Y148.30
G1 F5160 X151.72 Y144.91 E843.07442
G0 F6000 X151.01 Y144.91
G1 F5160 X147.62 Y148.30 E843.27354
G0 F6000 X146.92 Y148.30
G1 F5160 X150.30 Y144.91 E843.47268
G0 F6000 X149.60 Y144.91
G1 F5160 X146.21 Y148.30 E843.67182
G0 F6000 X145.50 Y148.30
G1 F5160 X148.89 Y144.91 E843.87096
G0 F6000 X148.18 Y144.91
G1 F5160 X144.79 Y148.30 E844.07011
G0 F6000 X144.09 Y148.30
G1 F5160 X147.47 Y144.91 E844.26922
G0 F6000 X146.77 Y144.91
G1 F5160 X143.38 Y148.30 E844.46833
G0 F6000 X142.67 Y148.30
G1 F5160 X146.06 Y144.91 E844.66745
G0 F6000 X145.35 Y144.91
G1 F5160 X141.97 Y148.30 E844.86656
G0 F6000 X141.26 Y148.30
G1 F5160 X144.65 Y144.91 E845.06567
G0 F6000 X143.94 Y144.91
G1 F5160 X140.55 Y148.30 E845.26479
G0 F6000 X139.84 Y148.30
G1 F5160 X143.23 Y144.91 E845.46393
G0 F6000 X142.53 Y144.91
G1 F5160 X139.14 Y148.30 E845.66307
G0 F6000 X138.43 Y148.30
G1 F5160 X141.82 Y144.91 E845.86221
G0 F6000 X141.11 Y144.91
G1 F5160 X137.72 Y148.30 E846.06133
G0 F6000 X137.02 Y148.30
G1 F5160 X140.40 Y144.91 E846.26044
G0 F6000 X139.70 Y144.91
G1 F5160 X136.31 Y148.30 E846.45955
G0 F6000 X135.60 Y148.30
G1 F5160 X138.99 Y144.91 E846.65867
G0 F6000 X138.28 Y144.91
G1 F5160 X134.90 Y148.30 E846.85778
G0 F6000 X134.19 Y148.30
G1 F5160 X137.57 Y144.91 E847.05689
G0 F6000 X136.87 Y144.91
G1 F5160 X133.48 Y148.30 E847.25604
G0 F6000 X132.77 Y148.30
G1 F5160 X136.16 Y144.91 E847.45518
G0 F6000 X135.45 Y144.91
G1 F5160 X132.07 Y148.30 E847.65432
G0 F6000 X131.36 Y148.30
G1 F5160 X134.75 Y144.91 E847.85343
G0 F6000 X134.04 Y144.91
G1 F5160 X130.65 Y148.30 E848.05255
G0 F6000 X129.95 Y148.30
G1 F5160 X133.33 Y144.91 E848.25166
G0 F6000 X132.62 Y144.91
G1 F5160 X129.24 Y148.30 E848.45077
G0 F6000 X128.53 Y148.30
G1 F5160 X131.92 Y144.91 E848.64989
G0 F6000 X131.21 Y144.91
G1 F5160 X127.83 Y148.30 E848.84900
G0 F6000 X127.12 Y148.30
G1 F5160 X130.50 Y144.91 E849.04811
G0 F6000 X129.80 Y144.91
G1 F5160 X126.41 Y148.30 E849.24726
G0 F6000 X125.70 Y148.30
G1 F5160 X129.09 Y144.91 E849.44640
G0 F6000 X128.38 Y144.91
G1 F5160 X125.00 Y148.30 E849.64554
G0 F6000 X124.29 Y148.30
G1 F5160 X127.67 Y144.91 E849.84466
G0 F6000 X126.97 Y144.91
G1 F5160 X123.58 Y148.30 E850.04377
G0 F6000 X122.88 Y148.30
G1 F5160 X126.26 Y144.91 E850.24288
G0 F6000 X125.55 Y144.91
G1 F5160 X122.17 Y148.30 E850.44199
G0 F6000 X121.46 Y148.30
G1 F5160 X124.85 Y144.91 E850.64111
G0 F6000 X124.14 Y144.91
G1 F5160 X120.75 Y148.30 E850.84022
G0 F6000 X120.05 Y148.30
G1 F5160 X123.43 Y144.91 E851.03936
G0 F6000 X122.73 Y144.91
G1 F5160 X119.34 Y148.30 E851.23851
G0 F6000 X118.63 Y148.30
G1 F5160 X122.02 Y144.91 E851.43765
G0 F6000 X121.31 Y144.91
G1 F5160 X117.92 Y148.30 E851.63676
G0 F6000 X117.22 Y148.30
G1 F5160 X120.60 Y144.91 E851.83588
G0 F6000 X119.90 Y144.91
G1 F5160 X116.51 Y148.30 E852.03499
G0 F6000 X115.80 Y148.30
G1 F5160 X119.19 Y144.91 E852.23410
G0 F6000 X118.48 Y144.91
G1 F5160 X115.10 Y148.30 E852.43322
G0 F6000 X114.39 Y148.30
G1 F5160 X117.78 Y144.91 E852.63233
G0 F6000 X117.07 Y144.91
G1 F5160 X113.68 Y148.30 E852.83147
G0 F6000 X112.97 Y148.30
G1 F5160 X116.36 Y144.91 E853.03061
G0 F6000 X115.66 Y144.91
G1 F5160 X112.27 Y148.30 E853.22976
G0 F6000 X111.56 Y148.30
G1 F5160 X114.95 Y144.91 E853.42887
G0 F6000 X114.24 Y144.91
G1 F5160 X110.85 Y148.30 E853.62798
G0 F6000 X110.15 Y148.30
G1 F5160 X113.53 Y144.91 E853.82710
G0 F6000 X112.83 Y144.91
G1 F5160 X109.44 Y148.30 E854.02621
G0 F6000 X108.73 Y148.30
G1 F5160 X112.12 Y144.91 E854.22532
G0 F6000 X111.41 Y144.91
G1 F5160 X108.03 Y148.30 E854.42444
G0 F6000 X107.32 Y148.30
G1 F5160 X110.70 Y144.91 E854.62355
G0 F6000 X110.00 Y144.91
G1 F5160 X106.61 Y148.30 E854.82269
G0 F6000 X105.90 Y148.30
G1 F5160 X109.29 Y144.91 E855.02183
G0 F6000 X108.58 Y144.91
G1 F5160 X105.20 Y148.30 E855.22098
G0 F6000 X104.49 Y148.30
G1 F5160 X107.88 Y144.91 E855.42009
G0 F6000 X107.17 Y144.91
G1 F5160 X103.78 Y148.30 E855.61920
G0 F6000 X103.08 Y148.30
G1 F5160 X106.46 Y144.91 E855.81832
G0 F6000 X105.75 Y144.91
G1 F5160 X102.37 Y148.30 E856.01743
G0 F6000 X101.66 Y148.30
G1 F5160 X105.05 Y144.91 E856.21654
G0 F6000 X104.34 Y144.91
G1 F5160 X100.95 Y148.30 E856.41566
G0 F6000 X100.25 Y148.30
G1 F5160 X103.63 Y144.91 E856.61480
G0 F6000 X102.93 Y144.91
G1 F5160 X99.54 Y148.30 E856.81394
G0 F6000 X98.83 Y148.30
G1 F5160 X102.22 Y144.91 E857.01308
G0 F6000 X101.51 Y144.91
G1 F5160 X98.13 Y148.30 E857.21220
G0 F6000 X97.42 Y148.30
G1 F5160 X100.81 Y144.91 E857.41131
G0 F6000 X100.10 Y144.91
G1 F5160 X96.71 Y148.30 E857.61042
G0 F6000 X96.00 Y148.30
G1 F5160 X99.39 Y144.91 E857.80954
G0 F6000 X98.68 Y144.91
G1 F5160 X95.30 Y148.30 E858.00865
G0 F6000 X94.59 Y148.30
G1 F5160 X97.98 Y144.91 E858.20776
G0 F6000 X97.27 Y144.91
G1 F5160 X93.88 Y148.30 E858.40691
G0 F6000 X93.18 Y148.30
G1 F5160 X96.56 Y144.91 E858.60605
G0 F6000 X95.86 Y144.91
G1 F5160 X92.47 Y148.30 E858.80519
G0 F6000 X91.76 Y148.30
G1 F5160 X95.15 Y144.91 E859.00430
G0 F6000 X94.44 Y144.91
G1 F5160 X91.06 Y148.30 E859.20342
G0 F6000 X90.35 Y148.30
G1 F5160 X93.73 Y144.91 E859.40253
G0 F6000 X93.03 Y144.91
G1 F5160 X89.64 Y148.30 E859.60164
G0 F6000 X88.93 Y148.30
G1 F5160 X92.32 Y144.91 E859.80076
G0 F6000 X91.61 Y144.91
G1 F5160 X88.23 Y148.30 E859.99987
G0 F6000 X87.52 Y148.30
G1 F5160 X90.91 Y144.91 E860.19898
G0 F6000 X90.20 Y144.91
G1 F5160 X86.81 Y148.30 E860.39813
G0 F6000 X86.11 Y148.30
G1 F5160 X89.49 Y144.91 E860.59727
G0 F6000 X88.78 Y144.91
G1 F5160 X85.40 Y148.30 E860.79641
G0 F6000 X84.69 Y148.30
G1 F5160 X88.08 Y144.91 E860.99552
G0 F6000 X87.37 Y144.91
G1 F5160 X83.98 Y148.30 E861.19464
G0 F6000 X83.28 Y148.30
G1 F5160 X86.66 Y144.91 E861.39375
G0 F6000 X85.96 Y144.91
G1 F5160 X82.57 Y148.30 E861.59286
G0 F6000 X81.86 Y148.30
G1 F5160 X85.25 Y144.91 E861.79198
G0 F6000 X84.54 Y144.91
G1 F5160 X81.16 Y148.30 E861.99109
G0 F6000 X80.45 Y148.30
G1 F5160 X83.83 Y144.91 E862.19023
G0 F6000 X83.13 Y144.91
G1 F5160 X79.74 Y148.30 E862.38938
G0 F6000 X79.17 Y148.88
G1 F5160 X71.93 Y156.12 E862.81500
G0 F6000 X71.93 Y156.82
G1 F5160 X79.17 Y149.58 E863.24063
G0 F6000 X79.17 Y150.29
G1 F5160 X71.93 Y157.53 E863.66625
G0 F6000 X71.93 Y158.24
G1 F5160 X79.17 Y151.00 E864.09191
G0 F6000 X79.17 Y151.70
G1 F5160 X71.93 Y158.94 E864.51756
G0 F6000 X71.93 Y159.65
G1 F5160 X79.17 Y152.41 E864.94322
G0 F6000 X79.17 Y153.12
G1 F5160 X72.20 Y160.09 E865.35279
G0 F6000 X72.91 Y160.09
G1 F5160 X79.17 Y153.83 E865.72080
G0 F6000 X79.17 Y154.53
G1 F5160 X73.61 Y160.09 E866.04723
G0 F6000 X74.32 Y160.09
G1 F5160 X79.17 Y155.24 E866.33210
G0 F6000 X79.17 Y155.95
G1 F5160 X75.03 Y160.09 E866.57540
G0 F6000 X75.73 Y160.09
G1 F5160 X79.17 Y156.65 E866.77713
G0 F6000 X79.17 Y157.36
G1 F5160 X76.44 Y160.09 E866.93729
G0 F6000 X77.15 Y160.09
G1 F5160 X79.17 Y158.07 E867.05588
G0 F6000 X79.17 Y158.78
G1 F5160 X77.86 Y160.09 E867.13290
G0 F6000 X78.56 Y160.09
G1 F5160 X79.17 Y159.48 E867.16833
G0 F6000 X71.93 Y155.41
G1 F5160 X82.42 Y144.91 E867.78539
G0 F6000 X81.71 Y144.91
G1 F5160 X71.93 Y154.70 E868.36086
G0 F6000 X71.93 Y153.99
G1 F5160 X81.01 Y144.91 E868.89476
G0 F6000 X80.30 Y144.91
G1 F5160 X71.93 Y153.29 E869.38709
G0 F6000 X71.93 Y152.58
G1 F5160 X79.59 Y144.91 E869.83785
G0 F6000 X78.89 Y144.91
G1 F5160 X71.93 Y151.87 E870.24704
G0 F6000 X71.93 Y151.16
G1 F5160 X78.18 Y144.91 E870.61464
G0 F6000 X77.47 Y144.91
G1 F5160 X71.93 Y150.46 E870.94066
G0 F6000 X71.93 Y149.75
G1 F5160 X76.76 Y144.91 E871.22512
G0 F6000 X76.06 Y144.91
G1 F5160 X71.94 Y149.03 E871.46689
G0 F6000 X71.97 Y148.29
G1 F5160 X75.35 Y144.91 E871.66532
G0 F6000 X74.64 Y144.91
G1 F5160 X71.97 Y147.58 E871.82231
G0 F6000 X71.93 Y146.92
G1 F5160 X73.94 Y144.91 E871.94028
G0 F6000 X73.23 Y144.91
G1 F5160 X71.93 Y146.21 E872.01669
G0 F6000 X71.93 Y145.51
G1 F5160 X72.52 Y144.91 E872.05153
;LAYER:4
G0 F6000 X71.75 Y144.74 Z1.10
;TYPE:WALL-INNER
G1 X233.25 Y144.74 E878.76554
G1 X233.25 Y147.76 E878.89106
G1 X233.23 Y147.76 E878.89172
G1 X233.23 Y150.47 E879.00464
G1 X233.25 Y160.26 E879.41150
G1 X225.82 Y160.26 E879.72032
G1 X225.82 Y148.47 E880.21032
G1 X79.34 Y148.47 E886.30017
G1 X79.34 Y160.26 E886.79017
G1 X71.75 Y160.26 E887.10573
G1 X71.75 Y149.50 E887.55316
G1 X71.82 Y147.76 E887.62556
G1 X71.75 Y147.76 E887.62839
G1 X71.75 Y144.74 E887.75391
G0 X71.25 Y144.24
G1 X233.75 Y144.24 E894.50945
G1 X233.75 Y148.26 E894.67655
G1 X233.73 Y148.26 E894.67721
G1 X233.75 Y160.76 E895.19698
G1 X225.32 Y160.76 E895.54742
G1 X225.32 Y148.97 E896.03743
G1 X79.84 Y148.97 E902.08570
G1 X79.84 Y160.76 E902.57570
G1 X71.25 Y160.76 E902.93283
G1 X71.25 Y149.47 E903.40218
G1 X71.30 Y148.26 E903.45265
G1 X71.25 Y148.26 E903.45456
G1 X71.25 Y144.24 E903.62165
G0 X70.75 Y143.74
;TYPE:WALL-OUTER
G1 X234.25 Y143.74 E910.41878
G1 X234.25 Y148.76 E910.62744
G1 X234.23 Y148.76 E910.62807
G1 X234.25 Y161.26 E911.14784
G1 X224.82 Y161.26 E911.53989
G1 X224.82 Y149.47 E912.02990
G1 X80.34 Y149.47 E918.03660
G1 X80.34 Y161.26 E918.52660
G1 X70.75 Y161.26 E918.92531
G1 X70.75 Y149.48 E919.41502
G1 X70.78 Y148.76 E919.44510
G1 X70.75 Y148.76 E919.44614
G1 X70.75 Y143.74 E919.65481
G0 X71.11 Y144.00
G0 X71.93 Y145.11
;TYPE:FILL
G1 X79.17 Y152.35 E920.08029
G0 X79.17 Y153.06
G1 X71.93 Y145.82 E920.50577
G0 X71.93 Y146.53
G1 X79.17 Y153.76 E920.93124
G0 X79.17 Y154.47
G1 X71.93 Y147.24 E921.35672
G0 X71.99 Y148.00
G1 X79.17 Y155.18 E921.77882
G0 X79.17 Y155.89
G1 X71.96 Y148.68 E922.20256
G0 X71.93 Y149.36
G1 X79.17 Y156.59 E922.62790
G0 X79.17 Y157.30
G1 X71.92 Y150.06 E923.05358
G0 X71.92 Y150.77
G1 X79.17 Y158.01 E923.47926
G0 X79.17 Y158.72
G1 X71.92 Y151.47 E923.90495
G0 X71.92 Y152.18
G1 X79.17 Y159.42 E924.33063
G0 X79.12 Y160.09
G1 X71.92 Y152.89 E924.75373
G0 X71.92 Y153.60
G1 X78.41 Y160.09 E925.13526
G0 X77.71 Y160.09
G1 X71.92 Y154.30 E925.47522
G0 X71.92 Y155.01
G1 X77.00 Y160.09 E925.77361
G0 X76.29 Y160.09
G1 X71.92 Y155.72 E926.03043
G0 X71.92 Y156.42
G1 X75.59 Y160.09 E926.24568
G0 X74.88 Y160.09
G1 X71.92 Y157.13 E926.41937
G0 X71.92 Y157.84
G1 X74.17 Y160.09 E926.55145
G0 X73.46 Y160.09
G1 X71.92 Y158.55 E926.64194
G0 X71.92 Y159.25
G1 X72.76 Y160.09 E926.69086
G0 X72.05 Y160.09
G1 X71.92 Y159.96 E926.69821
G0 X79.17 Y151.64
G1 X72.44 Y144.91 E927.09382
G0 X73.14 Y144.91
G1 X79.17 Y150.94 E927.44786
G0 X79.17 Y150.23
G1 X73.85 Y144.91 E927.76033
G0 X74.56 Y144.91
G1 X79.17 Y149.52 E928.03120
G0 X79.17 Y148.81
G1 X75.27 Y144.91 E928.26051
G0 X75.97 Y144.91
G1 X79.36 Y148.30 E928.45948
G0 X80.06 Y148.30
G1 X76.68 Y144.91 E928.65844
G0 X77.39 Y144.91
G1 X80.77 Y148.30 E928.85741
G0 X81.48 Y148.30
G1 X78.09 Y144.91 E929.05637
G0 X78.80 Y144.91
G1 X82.18 Y148.30 E929.25534
G0 X82.89 Y148.30
G1 X79.51 Y144.91 E929.45434
G0 X80.21 Y144.91
G1 X83.60 Y148.30 E929.65333
G0 X84.31 Y148.30
G1 X80.92 Y144.91 E929.85230
G0 X81.63 Y144.91
G1 X85.01 Y148.30 E930.05126
G0 X85.72 Y148.30
G1 X82.34 Y144.91 E930.25023
G0 X83.04 Y144.91
G1 X86.43 Y148.30 E930.44920
G0 X87.13 Y148.30
G1 X83.75 Y144.91 E930.64816
G0 X84.46 Y144.91
G1 X87.84 Y148.30 E930.84713
G0 X88.55 Y148.30
G1 X85.16 Y144.91 E931.04610
G0 X85.87 Y144.91
G1 X89.25 Y148.30 E931.24506
G0 X89.96 Y148.30
G1 X86.58 Y144.91 E931.44406
G0 X87.28 Y144.91
G1 X90.67 Y148.30 E931.64305
G0 X91.38 Y148.30
G1 X87.99 Y144.91 E931.84202
G0 X88.70 Y144.91
G1 X92.08 Y148.30 E932.04099
G0 X92.79 Y148.30
G1 X89.41 Y144.91 E932.23995
G0 X90.11 Y144.91
G1 X93.50 Y148.30 E932.43892
G0 X94.20 Y148.30
G1 X90.82 Y144.91 E932.63788
G0 X91.53 Y144.91
G1 X94.91 Y148.30 E932.83685
G0 X95.62 Y148.30
G1 X92.23 Y144.91 E933.03582
G0 X92.94 Y144.91
G1 X96.33 Y148.30 E933.23481
G0 X97.03 Y148.30
G1 X93.65 Y144.91 E933.43381
G0 X94.36 Y144.91
G1 X97.74 Y148.30 E933.63277
G0 X98.45 Y148.30
G1 X95.06 Y144.91 E933.83174
G0 X95.77 Y144.91
G1 X99.16 Y148.30 E934.03071
G0 X99.86 Y148.30
G1 X96.48 Y144.91 E934.22967
G0 X97.19 Y144.91
G1 X100.57 Y148.30 E934.42864
G0 X101.28 Y148.30
G1 X97.89 Y144.91 E934.62761
G0 X98.60 Y144.91
G1 X101.98 Y148.30 E934.82657
G0 X102.69 Y148.30
G1 X99.31 Y144.91 E935.02554
G0 X100.01 Y144.91
G1 X103.40 Y148.30 E935.22453
G0 X104.11 Y148.30
G1 X100.72 Y144.91 E935.42353
G0 X101.43 Y144.91
G1 X104.81 Y148.30 E935.62250
G0 X105.52 Y148.30
G1 X102.14 Y144.91 E935.82146
G0 X102.84 Y144.91
G1 X106.23 Y148.30 E936.02043
G0 X106.93 Y148.30
G1 X103.55 Y144.91 E936.21939
G0 X104.26 Y144.91
G1 X107.64 Y148.30 E936.41836
G0 X108.35 Y148.30
G1 X104.96 Y144.91 E936.61733
G0 X105.67 Y144.91
G1 X109.05 Y148.30 E936.81629
G0 X109.76 Y148.30
G1 X106.38 Y144.91 E937.01529
G0 X107.08 Y144.91
G1 X110.47 Y148.30 E937.21428
G0 X111.18 Y148.30
G1 X107.79 Y144.91 E937.41325
G0 X108.50 Y144.91
G1 X111.88 Y148.30 E937.61222
G0 X112.59 Y148.30
G1 X109.21 Y144.91 E937.81118
G0 X109.91 Y144.91
G1 X113.30 Y148.30 E938.01015
G0 X114.00 Y148.30
G1 X110.62 Y144.91 E938.20912
G0 X111.33 Y144.91
G1 X114.71 Y148.30 E938.40808
G0 X115.42 Y148.30
G1 X112.03 Y144.91 E938.60705
G0 X112.74 Y144.91
G1 X116.13 Y148.30 E938.80604
G0 X116.83 Y148.30
G1 X113.45 Y144.91 E939.00504
G0 X114.16 Y144.91
G1 X117.54 Y148.30 E939.20401
G0 X118.25 Y148.30
G1 X114.86 Y144.91 E939.40297
G0 X115.57 Y144.91
G1 X118.95 Y148.30 E939.60194
G0 X119.66 Y148.30
G1 X116.28 Y144.91 E939.80090
G0 X116.98 Y144.91
G1 X120.37 Y148.30 E939.99987
G0 X121.08 Y148.30
G1 X117.69 Y144.91 E940.19884
G0 X118.40 Y144.91
G1 X121.78 Y148.30 E940.39780
G0 X122.49 Y148.30
G1 X119.11 Y144.91 E940.59677
G0 X119.81 Y144.91
G1 X123.20 Y148.30 E940.79576
G0 X123.90 Y148.30
G1 X120.52 Y144.91 E940.99476
G0 X121.23 Y144.91
G1 X124.61 Y148.30 E941.19373
G0 X125.32 Y148.30
G1 X121.93 Y144.91 E941.39269
G0 X122.64 Y144.91
G1 X126.03 Y148.30 E941.59166
G0 X126.73 Y148.30
G1 X123.35 Y144.91 E941.79062
G0 X124.06 Y144.91
G1 X127.44 Y148.30 E941.98959
G0 X128.15 Y148.30
G1 X124.76 Y144.91 E942.18856
G0 X125.47 Y144.91
G1 X128.85 Y148.30 E942.38752
G0 X129.56 Y148.30
G1 X126.18 Y144.91 E942.58652
G0 X126.88 Y144.91
G1 X130.27 Y148.30 E942.78551
G0 X130.97 Y148.30
G1 X127.59 Y144.91 E942.98448
G0 X128.30 Y144.91
G1 X131.68 Y148.30 E943.18345
G0 X132.39 Y148.30
G1 X129.00 Y144.91 E943.38241
G0 X129.71 Y144.91
G1 X133.10 Y148.30 E943.58138
G0 X133.80 Y148.30
G1 X130.42 Y144.91 E943.78035
G0 X131.13 Y144.91
G1 X134.51 Y148.30 E943.97931
G0 X135.22 Y148.30
G1 X131.83 Y144.91 E944.17828
G0 X132.54 Y144.91
G1 X135.93 Y148.30 E944.37727
G0 X136.63 Y148.30
G1 X133.25 Y144.91 E944.57627
G0 X133.96 Y144.91
G1 X137.34 Y148.30 E944.77524
G0 X138.05 Y148.30
G1 X134.66 Y144.91 E944.97420
G0 X135.37 Y144.91
G1 X138.75 Y148.30 E945.17317
G0 X139.46 Y148.30
G1 X136.08 Y144.91 E945.37213
G0 X136.78 Y144.91
G1 X140.17 Y148.30 E945.57110
G0 X140.87 Y148.30
G1 X137.49 Y144.91 E945.77007
G0 X138.20 Y144.91
G1 X141.58 Y148.30 E945.96903
G0 X142.29 Y148.30
G1 X138.90 Y144.91 E946.16800
G0 X139.61 Y144.91
G1 X143.00 Y148.30 E946.36700
G0 X143.70 Y148.30
G1 X140.32 Y144.91 E946.56599
G0 X141.03 Y144.91
G1 X144.41 Y148.30 E946.76496
G0 X145.12 Y148.30
G1 X141.73 Y144.91 E946.96392
G0 X142.44 Y144.91
G1 X145.82 Y148.30 E947.16289
G0 X146.53 Y148.30
G1 X143.15 Y144.91 E947.36186
G0 X143.85 Y144.91
G1 X147.24 Y148.30 E947.56082
G0 X147.94 Y148.30
G1 X144.56 Y144.91 E947.75979
G0 X145.27 Y144.91
G1 X148.65 Y148.30 E947.95875
G0 X149.36 Y148.30
G1 X145.97 Y144.91 E948.15775
G0 X146.68 Y144.91
G1 X150.07 Y148.30 E948.35675
G0 X150.77 Y148.30
G1 X147.39 Y144.91 E948.55571
G0 X148.10 Y144.91
G1 X151.48 Y148.30 E948.75468
G0 X152.19 Y148.30
G1 X148.80 Y144.91 E948.95364
G0 X149.51 Y144.91
G1 X152.90 Y148.30 E949.15261
G0 X153.60 Y148.30
G1 X150.22 Y144.91 E949.35158
G0 X150.93 Y144.91
G1 X154.31 Y148.30 E949.55054
G0 X155.02 Y148.30
G1 X151.63 Y144.91 E949.74951
G0 X152.34 Y144.91
G1 X155.72 Y148.30 E949.94850
G0 X156.43 Y148.30
G1 X153.05 Y144.91 E950.14750
G0 X153.75 Y144.91
G1 X157.14 Y148.30 E950.34647
G0 X157.84 Y148.30
G1 X154.46 Y144.91 E950.54543
G0 X155.17 Y144.91
G1 X158.55 Y148.30 E950.74440
G0 X159.26 Y148.30
G1 X155.88 Y144.91 E950.94337
G0 X156.58 Y144.91
G1 X159.97 Y148.30 E951.14233
G0 X160.67 Y148.30
G1 X157.29 Y144.91 E951.34130
G0 X158.00 Y144.91
G1 X161.38 Y148.30 E951.54026
G0 X162.09 Y148.30
G1 X158.70 Y144.91 E951.73923
G0 X159.41 Y144.91
G1 X162.79 Y148.30 E951.93823
G0 X163.50 Y148.30
G1 X160.12 Y144.91 E952.13722
G0 X160.82 Y144.91
G1 X164.21 Y148.30 E952.33619
G0 X164.92 Y148.30
G1 X161.53 Y144.91 E952.53515
G0 X162.24 Y144.91
G1 X165.62 Y148.30 E952.73412
G0 X166.33 Y148.30
G1 X162.95 Y144.91 E952.93309
G0 X163.65 Y144.91
G1 X167.04 Y148.30 E953.13205
G0 X167.74 Y148.30
G1 X164.36 Y144.91 E953.33102
G0 X165.07 Y144.91
G1 X168.45 Y148.30 E953.52999
G0 X169.16 Y148.30
G1 X165.77 Y144.91 E953.72898
G0 X166.48 Y144.91
G1 X169.87 Y148.30 E953.92798
G0 X170.57 Y148.30
G1 X167.19 Y144.91 E954.12694
G0 X167.90 Y144.91
G1 X171.28 Y148.30 E954.32591
G0 X171.99 Y148.30
G1 X168.60 Y144.91 E954.52488
G0 X169.31 Y144.91
G1 X172.69 Y148.30 E954.72384
G0 X173.40 Y148.30
G1 X170.02 Y144.91 E954.92281
G0 X170.72 Y144.91
G1 X174.11 Y148.30 E955.12177
G0 X174.81 Y148.30
G1 X171.43 Y144.91 E955.32074
G0 X172.14 Y144.91
G1 X175.52 Y148.30 E955.51971
G0 X176.23 Y148.30
G1 X172.84 Y144.91 E955.71870
G0 X173.55 Y144.91
G1 X176.94 Y148.30 E955.91770
G0 X177.64 Y148.30
G1 X174.26 Y144.91 E956.11666
G0 X174.97 Y144.91
G1 X178.35 Y148.30 E956.31563
G0 X179.06 Y148.30
G1 X175.67 Y144.91 E956.51460
G0 X176.38 Y144.91
G1 X179.76 Y148.30 E956.71356
G0 X180.47 Y148.30
G1 X177.09 Y144.91 E956.91253
G0 X177.79 Y144.91
G1 X181.18 Y148.30 E957.11150
G0 X181.89 Y148.30
G1 X178.50 Y144.91 E957.31046
G0 X179.21 Y144.91
G1 X182.59 Y148.30 E957.50946
G0 X183.30 Y148.30
G1 X179.92 Y144.91 E957.70845
G0 X180.62 Y144.91
G1 X184.01 Y148.30 E957.90742
G0 X184.72 Y148.30
G1 X181.33 Y144.91 E958.10639
G0 X182.04 Y144.91
G1 X185.42 Y148.30 E958.30535
G0 X186.13 Y148.30
G1 X182.75 Y144.91 E958.50432
G0 X183.45 Y144.91
G1 X186.84 Y148.30 E958.70328
G0 X187.54 Y148.30
G1 X184.16 Y144.91 E958.90225
G0 X184.87 Y144.91
G1 X188.25 Y148.30 E959.10122
G0 X188.96 Y148.30
G1 X185.57 Y144.91 E959.30021
G0 X186.28 Y144.91
G1 X189.66 Y148.30 E959.49921
G0 X190.37 Y148.30
G1 X186.99 Y144.91 E959.69817
G0 X187.69 Y144.91
G1 X191.08 Y148.30 E959.89714
G0 X191.79 Y148.30
G1 X188.40 Y144.91 E960.09611
G0 X189.11 Y144.91
G1 X192.49 Y148.30 E960.29507
G0 X193.20 Y148.30
G1 X189.82 Y144.91 E960.49404
G0 X190.52 Y144.91
G1 X193.91 Y148.30 E960.69300
G0 X194.61 Y148.30
G1 X191.23 Y144.91 E960.89197
G0 X191.94 Y144.91
G1 X195.32 Y148.30 E961.09094
G0 X196.03 Y148.30
G1 X192.64 Y144.91 E961.28993
G0 X193.35 Y144.91
G1 X196.74 Y148.30 E961.48893
G0 X197.44 Y148.30
G1 X194.06 Y144.91 E961.68789
G0 X194.77 Y144.91
G1 X198.15 Y148.30 E961.88686
G0 X198.86 Y148.30
G1 X195.47 Y144.91 E962.08583
G0 X196.18 Y144.91
G1 X199.56 Y148.30 E962.28479
G0 X200.27 Y148.30
G1 X196.89 Y144.91 E962.48376
G0 X197.59 Y144.91
G1 X200.98 Y148.30 E962.68273
G0 X201.69 Y148.30
G1 X198.30 Y144.91 E962.88169
G0 X199.01 Y144.91
G1 X202.39 Y148.30 E963.08069
G0 X203.10 Y148.30
G1 X199.72 Y144.91 E963.27968
G0 X200.42 Y144.91
G1 X203.81 Y148.30 E963.47865
G0 X204.51 Y148.30
G1 X201.13 Y144.91 E963.67762
G0 X201.84 Y144.91
G1 X205.22 Y148.30 E963.87658
G0 X205.93 Y148.30
G1 X202.54 Y144.91 E964.07555
G0 X203.25 Y144.91
G1 X206.63 Y148.30 E964.27451
G0 X207.34 Y148.30
G1 X203.96 Y144.91 E964.47348
G0 X204.66 Y144.91
G1 X208.05 Y148.30 E964.67245
G0 X208.76 Y148.30
G1 X205.37 Y144.91 E964.87144
G0 X206.08 Y144.91
G1 X209.46 Y148.30 E965.07044
G0 X210.17 Y148.30
G1 X206.79 Y144.91 E965.26940
G0 X207.49 Y144.91
G1 X210.88 Y148.30 E965.46837
G0 X211.59 Y148.30
G1 X208.20 Y144.91 E965.66734
G0 X208.91 Y144.91
G1 X212.29 Y148.30 E965.86630
G0 X213.00 Y148.30
G1 X209.62 Y144.91 E966.06527
G0 X210.32 Y144.91
G1 X213.71 Y148.30 E966.26424
G0 X214.41 Y148.30
G1 X211.03 Y144.91 E966.46320
G0 X211.74 Y144.91
G1 X215.12 Y148.30 E966.66217
G0 X215.83 Y148.30
G1 X212.44 Y144.91 E966.86116
G0 X213.15 Y144.91
G1 X216.53 Y148.30 E967.06016
G0 X217.24 Y148.30
G1 X213.86 Y144.91 E967.25913
G0 X214.56 Y144.91
G1 X217.95 Y148.30 E967.45809
G0 X218.66 Y148.30
G1 X215.27 Y144.91 E967.65706
G0 X215.98 Y144.91
G1 X219.36 Y148.30 E967.85602
G0 X220.07 Y148.30
G1 X216.69 Y144.91 E968.05499
G0 X217.39 Y144.91
G1 X220.78 Y148.30 E968.25396
G0 X221.48 Y148.30
G1 X218.10 Y144.91 E968.45292
G0 X218.81 Y144.91
G1 X222.19 Y148.30 E968.65192
G0 X222.90 Y148.30
G1 X219.51 Y144.91 E968.85091
G0 X220.22 Y144.91
G1 X223.61 Y148.30 E969.04988
G0 X224.31 Y148.30
G1 X220.93 Y144.91 E969.24885
G0 X221.64 Y144.91
G1 X225.02 Y148.30 E969.44781
G0 X225.73 Y148.30
G1 X222.34 Y144.91 E969.64678
G0 X223.05 Y144.91
G1 X233.06 Y154.93 E970.23551
G0 X233.06 Y154.22
G1 X223.76 Y144.91 E970.78263
G0 X224.46 Y144.91
G1 X233.06 Y153.51 E971.28810
G0 X233.06 Y152.80
G1 X225.17 Y144.91 E971.75195
G0 X225.88 Y144.91
G1 X233.06 Y152.10 E972.17419
G0 X233.06 Y151.39
G1 X226.59 Y144.91 E972.55475
G0 X227.29 Y144.91
G1 X233.06 Y150.68 E972.89371
G0 X233.06 Y149.97
G1 X228.00 Y144.91 E973.19098
G0 X228.71 Y144.91
G1 X233.06 Y149.26 E973.44666
G0 X233.05 Y148.56
G1 X229.41 Y144.91 E973.66068
G0 X230.12 Y144.91
G1 X233.05 Y147.85 E973.83307
G0 X233.07 Y147.16
G1 X230.83 Y144.91 E973.96486
G0 X231.53 Y144.91
G1 X233.07 Y146.45 E974.05508
G0 X233.07 Y145.74
G1 X232.24 Y144.91 E974.10373
G0 X232.95 Y144.91
G1 X233.07 Y145.03 E974.11082
G0 X225.99 Y148.56
G1 X233.06 Y155.64 E974.52668
G0 X233.06 Y156.34
G1 X225.99 Y149.27 E974.94255
G0 X225.99 Y149.98
G1 X233.07 Y157.05 E975.35847
G0 X233.07 Y157.76
G1 X225.99 Y150.69 E975.77452
G0 X225.99 Y151.39
G1 X233.07 Y158.47 E976.19056
G0 X233.07 Y159.18
G1 X225.99 Y152.10 E976.60669
G0 X225.99 Y152.81
G1 X233.07 Y159.88 E977.02285
G0 X232.56 Y160.09
G1 X225.99 Y153.51 E977.40926
G0 X225.99 Y154.22
G1 X231.86 Y160.09 E977.75409
G0 X231.15 Y160.09
G1 X225.99 Y154.93 E978.05737
G0 X225.99 Y155.63
G1 X230.44 Y160.09 E978.31907
G0 X229.74 Y160.09
G1 X225.99 Y156.34 E978.53920
G0 X225.99 Y157.05
G1 X229.03 Y160.09 E978.71776
G0 X228.32 Y160.09
G1 X225.99 Y157.76 E978.85473
G0 X225.99 Y158.46
G1 X227.61 Y160.09 E978.95010
G0 X226.91 Y160.09
G1 X225.99 Y159.17 E979.00390
G0 X225.99 Y159.88
G1 X226.20 Y160.09 E979.01613
;LAYER:5
G0 X225.82 Y160.26 Z1.30
;TYPE:WALL-INNER
G1 X225.82 Y148.47 E979.50613
G1 X79.34 Y148.47 E985.59598
G1 X79.34 Y160.26 E986.08598
G1 X71.75 Y160.26 E986.40154
G1 X71.75 Y149.50 E986.84897
G1 X71.82 Y147.76 E986.92137
G1 X71.75 Y147.76 E986.92420
G1 X71.75 Y144.74 E987.04971
G1 X233.25 Y144.74 E993.76373
G1 X233.25 Y147.76 E993.88924
G1 X233.23 Y147.76 E993.88991
G1 X233.23 Y150.68 E994.01114
G1 X233.25 Y160.26 E994.40968
G1 X225.82 Y160.26 E994.71850
G0 X225.32 Y160.76
G1 X225.32 Y148.97 E995.20851
G1 X79.84 Y148.97 E1001.25678
G1 X79.84 Y160.76 E1001.74679
G1 X71.25 Y160.76 E1002.10392
G1 X71.25 Y149.47 E1002.57326
G1 X71.30 Y148.26 E1002.62373
G1 X71.25 Y148.26 E1002.62564
G1 X71.25 Y144.24 E1002.79274
G1 X233.75 Y144.24 E1009.54828
G1 X233.75 Y148.26 E1009.71537
G1 X233.73 Y148.26 E1009.71600
G1 X233.75 Y160.76 E1010.23577
G1 X225.32 Y160.76 E1010.58621
G0 X224.82 Y161.26
;TYPE:WALL-OUTER
G1 X224.82 Y149.47 E1011.07621
G1 X80.34 Y149.47 E1017.08291
G1 X80.34 Y161.26 E1017.57292
G1 X70.75 Y161.26 E1017.97162
G1 X70.75 Y149.48 E1018.46134
G1 X70.78 Y148.76 E1018.49142
G1 X70.75 Y148.76 E1018.49246
G1 X70.75 Y143.74 E1018.70112
G1 X234.25 Y143.74 E1025.49825
G1 X234.25 Y148.76 E1025.70691
G1 X234.23 Y148.76 E1025.70754
G1 X234.25 Y161.26 E1026.22731
G1 X224.82 Y161.26 E1026.61936
G0 X225.08 Y160.91
G0 X225.99 Y159.73
;TYPE:FILL
G1 X233.06 Y152.67 E1027.03494
G0 X233.06 Y153.37
G1 X226.35 Y160.09 E1027.42966
G0 X227.05 Y160.09
G1 X233.06 Y154.08 E1027.78285
G0 X233.06 Y154.78
G1 X227.76 Y160.09 E1028.09459
G0 X228.47 Y160.09
G1 X233.06 Y155.49 E1028.36473
G0 X233.06 Y156.20
G1 X229.18 Y160.09 E1028.59339
G0 X229.88 Y160.09
G1 X233.06 Y156.90 E1028.78051
G0 X233.07 Y157.61
G1 X230.59 Y160.09 E1028.92614
G0 X231.30 Y160.09
G1 X233.07 Y158.31 E1029.03027
G0 X233.07 Y159.02
G1 X232.00 Y160.09 E1029.09286
G0 X232.71 Y160.09
G1 X233.07 Y159.73 E1029.11397
G0 X225.99 Y159.03
G1 X233.06 Y151.96 E1029.52942
G0 X233.06 Y151.25
G1 X225.99 Y158.32 E1029.94485
G0 X225.99 Y157.61
G1 X233.06 Y150.55 E1030.36018
G0 X233.06 Y149.84
G1 X225.99 Y156.91 E1030.77549
G0 X225.99 Y156.20
G1 X233.06 Y149.13 E1031.19077
G0 X233.05 Y148.43
G1 X225.99 Y155.49 E1031.60593
G0 X225.99 Y154.78
G1 X233.05 Y147.72 E1032.02109
G0 X233.07 Y147.00
G1 X225.99 Y154.08 E1032.43719
G0 X225.99 Y153.37
G1 X233.07 Y146.29 E1032.85329
G0 X233.07 Y145.59
G1 X225.99 Y152.66 E1033.26936
G0 X225.99 Y151.96
G1 X233.03 Y144.91 E1033.68337
G0 X232.33 Y144.91
G1 X225.99 Y151.25 E1034.05582
G0 X225.99 Y150.54
G1 X231.62 Y144.91 E1034.38666
G0 X230.91 Y144.91
G1 X225.99 Y149.83 E1034.67594
G0 X225.99 Y149.13
G1 X230.21 Y144.91 E1034.92365
G0 X229.50 Y144.91
G1 X225.99 Y148.42 E1035.12979
G0 X225.41 Y148.30
G1 X228.79 Y144.91 E1035.32887
G0 X228.08 Y144.91
G1 X224.70 Y148.30 E1035.52795
G0 X223.99 Y148.30
G1 X227.38 Y144.91 E1035.72704
G0 X226.67 Y144.91
G1 X223.28 Y148.30 E1035.92612
G0 X222.58 Y148.30
G1 X225.96 Y144.91 E1036.12521
G0 X225.25 Y144.91
G1 X221.87 Y148.30 E1036.32426
G0 X221.16 Y148.30
G1 X224.55 Y144.91 E1036.52331
G0 X223.84 Y144.91
G1 X220.46 Y148.30 E1036.72237
G0 X219.75 Y148.30
G1 X223.13 Y144.91 E1036.92145
G0 X222.43 Y144.91
G1 X219.04 Y148.30 E1037.12054
G0 X218.33 Y148.30
G1 X221.72 Y144.91 E1037.31962
G0 X221.01 Y144.91
G1 X217.63 Y148.30 E1037.51870
G0 X216.92 Y148.30
G1 X220.31 Y144.91 E1037.71779
G0 X219.60 Y144.91
G1 X216.21 Y148.30 E1037.91687
G0 X215.51 Y148.30
G1 X218.89 Y144.91 E1038.11593
G0 X218.18 Y144.91
G1 X214.80 Y148.30 E1038.31498
G0 X214.09 Y148.30
G1 X217.48 Y144.91 E1038.51404
G0 X216.77 Y144.91
G1 X213.38 Y148.30 E1038.71309
G0 X212.68 Y148.30
G1 X216.06 Y144.91 E1038.91217
G0 X215.36 Y144.91
G1 X211.97 Y148.30 E1039.11126
G0 X211.26 Y148.30
G1 X214.65 Y144.91 E1039.31034
G0 X213.94 Y144.91
G1 X210.56 Y148.30 E1039.50943
G0 X209.85 Y148.30
G1 X213.24 Y144.91 E1039.70851
G0 X212.53 Y144.91
G1 X209.14 Y148.30 E1039.90759
G0 X208.44 Y148.30
G1 X211.82 Y144.91 E1040.10665
G0 X211.11 Y144.91
G1 X207.73 Y148.30 E1040.30570
G0 X207.02 Y148.30
G1 X210.41 Y144.91 E1040.50476
G0 X209.70 Y144.91
G1 X206.31 Y148.30 E1040.70384
G0 X205.61 Y148.30
G1 X208.99 Y144.91 E1040.90292
G0 X208.28 Y144.91
G1 X204.90 Y148.30 E1041.10201
G0 X204.19 Y148.30
G1 X207.58 Y144.91 E1041.30109
G0 X206.87 Y144.91
G1 X203.49 Y148.30 E1041.50018
G0 X202.78 Y148.30
G1 X206.16 Y144.91 E1041.69926
G0 X205.46 Y144.91
G1 X202.07 Y148.30 E1041.89831
G0 X201.36 Y148.30
G1 X204.75 Y144.91 E1042.09737
G0 X204.04 Y144.91
G1 X200.66 Y148.30 E1042.29642
G0 X199.95 Y148.30
G1 X203.34 Y144.91 E1042.49551
G0 X202.63 Y144.91
G1 X199.24 Y148.30 E1042.69459
G0 X198.53 Y148.30
G1 X201.92 Y144.91 E1042.89367
G0 X201.21 Y144.91
G1 X197.83 Y148.30 E1043.09276
G0 X197.12 Y148.30
G1 X200.51 Y144.91 E1043.29184
G0 X199.80 Y144.91
G1 X196.41 Y148.30 E1043.49093
G0 X195.71 Y148.30
G1 X199.09 Y144.91 E1043.68998
G0 X198.38 Y144.91
G1 X195.00 Y148.30 E1043.88903
G0 X194.29 Y148.30
G1 X197.68 Y144.91 E1044.08809
G0 X196.97 Y144.91
G1 X193.59 Y148.30 E1044.28714
G0 X192.88 Y148.30
G1 X196.26 Y144.91 E1044.48623
G0 X195.56 Y144.91
G1 X192.17 Y148.30 E1044.68531
G0 X191.46 Y148.30
G1 X194.85 Y144.91 E1044.88439
G0 X194.14 Y144.91
G1 X190.76 Y148.30 E1045.08348
G0 X190.05 Y148.30
G1 X193.44 Y144.91 E1045.28256
G0 X192.73 Y144.91
G1 X189.34 Y148.30 E1045.48165
G0 X188.64 Y148.30
G1 X192.02 Y144.91 E1045.68070
G0 X191.31 Y144.91
G1 X187.93 Y148.30 E1045.87975
G0 X187.22 Y148.30
G1 X190.61 Y144.91 E1046.07881
G0 X189.90 Y144.91
G1 X186.51 Y148.30 E1046.27789
G0 X185.81 Y148.30
G1 X189.19 Y144.91 E1046.47698
G0 X188.49 Y144.91
G1 X185.10 Y148.30 E1046.67606
G0 X184.39 Y148.30
G1 X187.78 Y144.91 E1046.87514
G0 X187.07 Y144.91
G1 X183.69 Y148.30 E1047.07423
G0 X182.98 Y148.30
G1 X186.37 Y144.91 E1047.27331
G0 X185.66 Y144.91
G1 X182.27 Y148.30 E1047.47237
G0 X181.56 Y148.30
G1 X184.95 Y144.91 E1047.67142
G0 X184.24 Y144.91
G1 X180.86 Y148.30 E1047.87048
G0 X180.15 Y148.30
G1 X183.54 Y144.91 E1048.06953
G0 X182.83 Y144.91
G1 X179.44 Y148.30 E1048.26861
G0 X178.74 Y148.30
G1 X182.12 Y144.91 E1048.46770
G0 X181.41 Y144.91
G1 X178.03 Y148.30 E1048.66678
G0 X177.32 Y148.30
G1 X180.71 Y144.91 E1048.86587
G0 X180.00 Y144.91
G1 X176.62 Y148.30 E1049.06495
G0 X175.91 Y148.30
G1 X179.29 Y144.91 E1049.26400
G0 X178.59 Y144.91
G1 X175.20 Y148.30 E1049.46306
G0 X174.49 Y148.30
G1 X177.88 Y144.91 E1049.66211
G0 X177.17 Y144.91
G1 X173.79 Y148.30 E1049.86117
G0 X173.08 Y148.30
G1 X176.47 Y144.91 E1050.06025
G0 X175.76 Y144.91
G1 X172.37 Y148.30 E1050.25933
G0 X171.66 Y148.30
G1 X175.05 Y144.91 E1050.45842
G0 X174.34 Y144.91
G1 X170.96 Y148.30 E1050.65750
G0 X170.25 Y148.30
G1 X173.64 Y144.91 E1050.85659
G0 X172.93 Y144.91
G1 X169.54 Y148.30 E1051.05567
G0 X168.84 Y148.30
G1 X172.22 Y144.91 E1051.25472
G0 X171.51 Y144.91
G1 X168.13 Y148.30 E1051.45378
G0 X167.42 Y148.30
G1 X170.81 Y144.91 E1051.65283
G0 X170.10 Y144.91
G1 X166.72 Y148.30 E1051.85192
G0 X166.01 Y148.30
G1 X169.39 Y144.91 E1052.05100
G0 X168.69 Y144.91
G1 X165.30 Y148.30 E1052.25008
G0 X164.59 Y148.30
G1 X167.98 Y144.91 E1052.44917
G0 X167.27 Y144.91
G1 X163.89 Y148.30 E1052.64825
G0 X163.18 Y148.30
G1 X166.57 Y144.91 E1052.84734
G0 X165.86 Y144.91
G1 X162.47 Y148.30 E1053.04639
G0 X161.77 Y148.30
G1 X165.15 Y144.91 E1053.24544
G0 X164.44 Y144.91
G1 X161.06 Y148.30 E1053.44450
G0 X160.35 Y148.30
G1 X163.74 Y144.91 E1053.64355
G0 X163.03 Y144.91
G1 X159.64 Y148.30 E1053.84264
G0 X158.94 Y148.30
G1 X162.32 Y144.91 E1054.04172
G0 X161.62 Y144.91
G1 X158.23 Y148.30 E1054.24081
G0 X157.52 Y148.30
G1 X160.91 Y144.91 E1054.43989
G0 X160.20 Y144.91
G1 X156.82 Y148.30 E1054.63897
G0 X156.11 Y148.30
G1 X159.50 Y144.91 E1054.83806
G0 X158.79 Y144.91
G1 X155.40 Y148.30 E1055.03711
G0 X154.69 Y148.30
G1 X158.08 Y144.91 E1055.23617
G0 X157.37 Y144.91
G1 X153.99 Y148.30 E1055.43522
G0 X153.28 Y148.30
G1 X156.67 Y144.91 E1055.63430
G0 X155.96 Y144.91
G1 X152.57 Y148.30 E1055.83339
G0 X151.87 Y148.30
G1 X155.25 Y144.91 E1056.03247
G0 X154.54 Y144.91
G1 X151.16 Y148.30 E1056.23156
G0 X150.45 Y148.30
G1 X153.84 Y144.91 E1056.43064
G0 X153.13 Y144.91
G1 X149.75 Y148.30 E1056.62972
G0 X149.04 Y148.30
G1 X152.42 Y144.91 E1056.82878
