;-- START GCODE --
;Sliced for Type A Machines Series 1
;Sliced at: Sun 14-08-2016 10:49:04
;Basic settings: Layer height: 0.2 Walls: 1.5 Fill: 40
;Print Speed: 100 Support: 0
;Retraction Speed: 40 Retraction Distance: 1.2
;Print time: #P_TIME#
;Filament used: #F_AMNT#m #F_WGHT#g
;Filament cost: #F_COST#
M106 S255	 ;start with the fan on
G21        ;metric values
G90        ;absolute positioning
M106 S255    ;start with the fan on
G28     ;move to endstops
G29		;allows for auto-levelling
G1 X150 Y5  Z15.0 F6000 ;center and move the platform down 15mm
M109 S220 ;Heat To temp
G92 E0                  ;zero the extruded length
G1 F200 E30              ;extrude 30mm of feed stock
G92 E0                  ;zero the extruded length again
G1 X175 Y25  Z0 F6000 ;remove bugger
G1 X220 F6000 ;remove bugger
G1 X150 Y150  Z15 F6000 ;recenter and begin
G1 F6000

;Layer count: 70
;LAYER:0
M106 S255
G0 F6000 X65.08 Y136.16 Z0.30
;TYPE:SKIRT
G1 F2700 X239.58 Y136.16 E10.88224
G1 X239.58 Y170.65 E13.03325
G1 X215.80 Y166.23 E14.54148
G1 X215.49 Y165.97 E14.56680
G1 X204.85 Y163.54 E15.24749
G1 X192.37 Y163.54 E16.02596
G1 X192.16 Y163.54 E16.03893
G1 X179.03 Y163.54 E16.85751
G1 X178.83 Y163.54 E16.87048
G1 X165.70 Y163.54 E17.68899
G1 X165.49 Y163.54 E17.70196
G1 X152.37 Y163.54 E18.52041
G1 X152.16 Y163.54 E18.53338
G1 X139.03 Y163.54 E19.35196
G1 X138.83 Y163.54 E19.36493
G1 X125.70 Y163.54 E20.18344
G1 X125.49 Y163.54 E20.19641
G1 X112.37 Y163.54 E21.01492
G1 X112.16 Y163.54 E21.02789
G1 X100.32 Y163.54 E21.76614
G1 X87.14 Y166.55 E22.60976
G1 X65.08 Y170.65 E24.00858
G1 X65.08 Y136.16 E26.15959
G0 F6000 X65.58 Y136.66
G1 F2700 X239.08 Y136.66 E36.97947
G1 X239.08 Y170.05 E39.06176
G1 X216.02 Y165.76 E40.52432
G1 X215.72 Y165.51 E40.54889
G1 X204.91 Y163.04 E41.24077
G1 X192.37 Y163.04 E42.02273
G1 X192.16 Y163.04 E42.03564
G1 X179.03 Y163.04 E42.85428
G1 X178.82 Y163.04 E42.86719
G1 X165.70 Y163.04 E43.68576
G1 X165.49 Y163.04 E43.69867
G1 X152.37 Y163.04 E44.51718
G1 X152.16 Y163.04 E44.53009
G1 X139.03 Y163.04 E45.34873
G1 X138.83 Y163.04 E45.36164
G1 X125.70 Y163.04 E46.18021
G1 X125.49 Y163.04 E46.19312
G1 X112.37 Y163.04 E47.01169
G1 X112.16 Y163.04 E47.02460
G1 X100.27 Y163.04 E47.76641
G1 X87.03 Y166.06 E48.61278
G1 X65.58 Y170.05 E49.97348
G1 X65.58 Y136.66 E52.05584
G0 F6000 X66.08 Y137.16
G1 F2700 X238.58 Y137.16 E62.81335
G1 X238.58 Y169.45 E64.82698
G1 X216.24 Y165.30 E66.24388
G1 X215.95 Y165.05 E66.26778
G1 X204.96 Y162.54 E66.97048
G1 X192.36 Y162.54 E67.75631
G1 X192.16 Y162.54 E67.76916
G1 X179.03 Y162.54 E68.58786
G1 X178.82 Y162.54 E68.60070
G1 X165.70 Y162.54 E69.41934
G1 X165.49 Y162.54 E69.43219
G1 X152.36 Y162.54 E70.25076
G1 X152.16 Y162.54 E70.26361
G1 X139.03 Y162.54 E71.08231
G1 X138.82 Y162.54 E71.09515
G1 X125.70 Y162.54 E71.91379
G1 X125.49 Y162.54 E71.92664
G1 X112.36 Y162.54 E72.74527
G1 X112.16 Y162.54 E72.75812
G1 X100.21 Y162.54 E73.50335
G1 X86.93 Y165.57 E74.35261
G1 X66.08 Y169.45 E75.67512
G1 X66.08 Y137.16 E77.68875
G0 F6000 X66.58 Y137.66
G1 F2700 X238.08 Y137.66 E88.38390
G1 X238.08 Y168.84 E90.32887
G1 X216.46 Y164.83 E91.70003
G1 X216.18 Y164.59 E91.72327
G1 X205.02 Y162.04 E92.43710
G1 X192.36 Y162.04 E93.22649
G1 X192.16 Y162.04 E93.23928
G1 X179.03 Y162.04 E94.05804
G1 X178.82 Y162.04 E94.07082
G1 X165.69 Y162.04 E94.88952
G1 X165.49 Y162.04 E94.90230
G1 X152.36 Y162.04 E95.72094
G1 X152.16 Y162.04 E95.73373
G1 X139.03 Y162.04 E96.55249
G1 X138.82 Y162.04 E96.56527
G1 X125.69 Y162.04 E97.38397
G1 X125.49 Y162.04 E97.39675
G1 X112.36 Y162.04 E98.21545
G1 X112.16 Y162.04 E98.22824
G1 X100.15 Y162.04 E98.97678
G1 X86.83 Y165.08 E99.82903
G1 X66.58 Y168.84 E101.11342
G1 X66.58 Y137.66 E103.05839
G0 F6000 X67.08 Y138.16
G1 F2700 X237.58 Y138.16 E113.69118
G1 X237.58 Y168.24 E115.56743
G1 X216.68 Y164.36 E116.89292
G1 X216.41 Y164.13 E116.91545
G1 X205.08 Y161.54 E117.64022
G1 X192.36 Y161.54 E118.43335
G1 X192.16 Y161.54 E118.44607
G1 X179.03 Y161.54 E119.26489
G1 X178.82 Y161.54 E119.27761
G1 X165.69 Y161.54 E120.09637
G1 X165.49 Y161.54 E120.10910
G1 X152.36 Y161.54 E120.92780
G1 X152.16 Y161.54 E120.94052
G1 X139.03 Y161.54 E121.75934
G1 X138.82 Y161.54 E121.77206
G1 X125.69 Y161.54 E122.59082
G1 X125.49 Y161.54 E122.60355
G1 X112.36 Y161.54 E123.42231
G1 X112.16 Y161.54 E123.43503
G1 X100.10 Y161.54 E124.18712
G1 X86.73 Y164.59 E125.04219
G1 X67.08 Y168.24 E126.28840
G1 X67.08 Y138.16 E128.16464
G0 F6000 X67.58 Y138.66
G1 F2700 X237.08 Y138.66 E138.73507
G1 X237.08 Y167.64 E140.54265
G1 X216.90 Y163.89 E141.82247
G1 X216.63 Y163.67 E141.84438
G1 X205.13 Y161.04 E142.58027
G1 X192.36 Y161.04 E143.37695
G1 X192.15 Y161.04 E143.38961
G1 X179.02 Y161.04 E144.20850
G1 X178.82 Y161.04 E144.22116
G1 X165.69 Y161.04 E145.03998
G1 X165.49 Y161.04 E145.05264
G1 X152.36 Y161.04 E145.87140
G1 X152.15 Y161.04 E145.88406
G1 X139.02 Y161.04 E146.70295
G1 X138.82 Y161.04 E146.71561
G1 X125.69 Y161.04 E147.53443
G1 X125.49 Y161.04 E147.54709
G1 X112.36 Y161.04 E148.36591
G1 X112.15 Y161.04 E148.37857
G1 X100.04 Y161.04 E149.13416
G1 X86.63 Y164.10 E149.99198
G1 X67.58 Y167.64 E151.20007
G1 X67.58 Y138.66 E153.00766
G0 F6000 X68.08 Y139.16
G1 F2700 X236.58 Y139.16 E163.51572
G1 X236.58 Y167.04 E165.25458
G1 X217.12 Y163.43 E166.48866
G1 X216.86 Y163.21 E166.50996
G1 X205.19 Y160.54 E167.25660
G1 X192.35 Y160.54 E168.05722
G1 X192.15 Y160.54 E168.06975
G1 X179.02 Y160.54 E168.88876
G1 X178.82 Y160.54 E168.90130
G1 X165.69 Y160.54 E169.72025
G1 X165.49 Y160.54 E169.73278
G1 X152.35 Y160.54 E170.55167
G1 X152.15 Y160.54 E170.56420
G1 X139.02 Y160.54 E171.38321
G1 X138.82 Y160.54 E171.39575
G1 X125.69 Y160.54 E172.21469
G1 X125.49 Y160.54 E172.22723
G1 X112.35 Y160.54 E173.04618
G1 X112.15 Y160.54 E173.05871
G1 X99.98 Y160.54 E173.81754
G1 X86.53 Y163.61 E174.67843
G1 X68.08 Y167.04 E175.84839
G1 X68.08 Y139.16 E177.58725
G0 F6000 X68.58 Y139.66
G1 F2700 X236.08 Y139.66 E188.03295
G1 X236.08 Y166.44 E189.70315
G1 X217.34 Y162.96 E190.89157
G1 X217.09 Y162.75 E190.91207
G1 X205.25 Y160.04 E191.66997
G1 X192.35 Y160.04 E192.47407
G1 X192.15 Y160.04 E192.48655
G1 X179.02 Y160.04 E193.30562
G1 X178.82 Y160.04 E193.31809
G1 X165.68 Y160.04 E194.13710
G1 X165.48 Y160.04 E194.14957
G1 X152.35 Y160.04 E194.96852
G1 X152.15 Y160.04 E194.98100
G1 X139.02 Y160.04 E195.80007
G1 X138.82 Y160.04 E195.81254
G1 X125.69 Y160.04 E196.63155
G1 X125.48 Y160.04 E196.64402
G1 X112.35 Y160.04 E197.46303
G1 X112.15 Y160.04 E197.47551
G1 X99.93 Y160.04 E198.23789
G1 X86.42 Y163.12 E199.10160
G1 X68.58 Y166.44 E200.23338
G1 X68.58 Y139.66 E201.90358
G0 F6000 X69.08 Y140.16
G1 F2700 X235.58 Y140.16 E212.28691
G1 X235.58 Y165.84 E213.88839
G1 X217.56 Y162.49 E215.03113
G1 X217.32 Y162.29 E215.05105
G1 X205.30 Y159.54 E215.81977
G1 X192.35 Y159.54 E216.62768
G1 X192.15 Y159.54 E216.64009
G1 X179.01 Y159.54 E217.45922
G1 X178.81 Y159.54 E217.47163
G1 X165.68 Y159.54 E218.29070
G1 X165.48 Y159.54 E218.30311
G1 X152.35 Y159.54 E219.12212
G1 X152.15 Y159.54 E219.13453
G1 X139.01 Y159.54 E219.95367
G1 X138.82 Y159.54 E219.96608
G1 X125.68 Y159.54 E220.78515
G1 X125.48 Y159.54 E220.79756
G1 X112.35 Y159.54 E221.61664
G1 X112.15 Y159.54 E221.62905
G1 X99.87 Y159.54 E222.39492
G1 X86.32 Y162.63 E223.26138
G1 X69.08 Y165.84 E224.35504
G1 X69.08 Y140.16 E225.95651
G0 F6000 X69.58 Y140.66
G1 F2700 X235.08 Y140.66 E236.27749
G1 X235.08 Y165.24 E237.81030
G1 X217.78 Y162.02 E238.90738
G1 X217.55 Y161.82 E238.92659
G1 X205.36 Y159.04 E239.70643
G1 X192.34 Y159.04 E240.51795
G1 X192.15 Y159.04 E240.53024
G1 X179.01 Y159.04 E241.34950
G1 X178.81 Y159.04 E241.36178
G1 X165.68 Y159.04 E242.18098
G1 X165.48 Y159.04 E242.19327
G1 X152.35 Y159.04 E243.01240
G1 X152.15 Y159.04 E243.02469
G1 X139.01 Y159.04 E243.84395
G1 X138.81 Y159.04 E243.85623
G1 X125.68 Y159.04 E244.67543
G1 X125.48 Y159.04 E244.68772
G1 X112.35 Y159.04 E245.50691
G1 X112.15 Y159.04 E245.51920
G1 X99.81 Y159.04 E246.28838
G1 X86.22 Y162.14 E247.15784
G1 X69.58 Y165.24 E248.21338
G1 X69.58 Y140.66 E249.74619
G0 F6000 X70.08 Y141.16
G1 F2700 X234.58 Y141.16 E260.00480
G1 X234.58 Y164.63 E261.46889
G1 X218.01 Y161.56 E262.52024
G1 X217.78 Y161.37 E262.53866
G1 X205.41 Y158.54 E263.32971
G1 X192.34 Y158.54 E264.14479
G1 X192.15 Y158.54 E264.15701
G1 X179.01 Y158.54 E264.97633
G1 X178.81 Y158.54 E264.98856
G1 X165.68 Y158.54 E265.80781
G1 X165.48 Y158.54 E265.82004
G1 X152.34 Y158.54 E266.63923
G1 X152.15 Y158.54 E266.65146
G1 X139.01 Y158.54 E267.47078
G1 X138.81 Y158.54 E267.48300
G1 X125.68 Y158.54 E268.30226
G1 X125.48 Y158.54 E268.31449
G1 X112.34 Y158.54 E269.13375
G1 X112.15 Y158.54 E269.14597
G1 X99.76 Y158.54 E269.91864
G1 X86.12 Y161.66 E270.79099
G1 X70.08 Y164.63 E271.80834
G1 X70.08 Y141.16 E273.27250
G0 F6000 X70.58 Y141.66
G1 F2700 X234.08 Y141.66 E283.46874
G1 X234.08 Y164.03 E284.86417
G1 X218.23 Y161.09 E285.86985
G1 X218.01 Y160.90 E285.88768
G1 X205.47 Y158.04 E286.68959
G1 X192.34 Y158.04 E287.50848
G1 X192.15 Y158.04 E287.52058
G1 X179.01 Y158.04 E288.34002
G1 X178.81 Y158.04 E288.35212
G1 X165.67 Y158.04 E289.17151
G1 X165.48 Y158.04 E289.18360
G1 X152.34 Y158.04 E290.00293
G1 X152.15 Y158.04 E290.01502
G1 X139.01 Y158.04 E290.83447
G1 X138.81 Y158.04 E290.84657
G1 X125.67 Y158.04 E291.66595
G1 X125.48 Y158.04 E291.67805
G1 X112.34 Y158.04 E292.49744
G1 X112.15 Y158.04 E292.50954
G1 X99.63 Y158.04 E293.28994
G1 X99.61 Y158.06 E293.29198
G1 X86.02 Y161.16 E294.16119
G1 X70.58 Y164.03 E295.14042
G1 X70.58 Y141.66 E296.53585
G0 F6000 X71.08 Y142.16
G1 F2700 X233.58 Y142.16 E306.66974
G1 X233.58 Y163.43 E307.99650
G1 X218.45 Y160.62 E308.95652
G1 X218.24 Y160.44 E308.97360
G1 X205.53 Y157.54 E309.78671
G1 X205.48 Y157.54 E309.78970
G1 X192.34 Y157.54 E310.60908
G1 X192.14 Y157.54 E310.62118
G1 X179.00 Y157.54 E311.44063
G1 X178.81 Y157.54 E311.45273
G1 X165.67 Y157.54 E312.27211
G1 X165.48 Y157.54 E312.28421
G1 X152.34 Y157.54 E313.10353
G1 X152.15 Y157.54 E313.11563
G1 X139.00 Y157.54 E313.93508
G1 X138.81 Y157.54 E313.94718
G1 X125.67 Y157.54 E314.76656
G1 X125.48 Y157.54 E314.77866
G1 X112.34 Y157.54 E315.59804
G1 X112.14 Y157.54 E315.61014
G1 X99.45 Y157.54 E316.40165
G1 X99.38 Y157.60 E316.40758
G1 X85.92 Y160.68 E317.26872
G1 X71.08 Y163.43 E318.20977
G1 X71.08 Y142.16 E319.53654
G0 F6000 X71.58 Y142.66
G1 F2700 X233.08 Y142.66 E329.60806
G1 X233.08 Y162.83 E330.86611
G1 X218.67 Y160.15 E331.78039
G1 X218.47 Y159.98 E331.79681
G1 X205.58 Y157.04 E332.62093
G1 X205.48 Y157.04 E332.62754
G1 X192.34 Y157.04 E333.44705
G1 X192.14 Y157.04 E333.45902
G1 X179.00 Y157.04 E334.27859
G1 X178.81 Y157.04 E334.29057
G1 X165.67 Y157.04 E335.11007
G1 X165.48 Y157.04 E335.12205
G1 X152.34 Y157.04 E335.94149
G1 X152.14 Y157.04 E335.95347
G1 X139.00 Y157.04 E336.77304
G1 X138.81 Y157.04 E336.78501
G1 X125.67 Y157.04 E337.60452
G1 X125.48 Y157.04 E337.61650
G1 X112.34 Y157.04 E338.43601
G1 X112.14 Y157.04 E338.44798
G1 X99.27 Y157.04 E339.25084
G1 X99.15 Y157.14 E339.26053
G1 X85.82 Y160.19 E340.11350
G1 X71.58 Y162.83 E341.01641
G1 X71.58 Y142.66 E342.27446
G0 F6000 X72.08 Y143.16
G1 F2700 X232.58 Y143.16 E352.28362
G1 X232.58 Y162.23 E353.47300
G1 X218.89 Y159.69 E354.34161
G1 X218.69 Y159.52 E354.35737
G1 X205.63 Y156.54 E355.19268
G1 X205.47 Y156.54 E355.20266
G1 X192.33 Y156.54 E356.02229
G1 X192.14 Y156.54 E356.03414
G1 X179.00 Y156.54 E356.85384
G1 X178.81 Y156.54 E356.86569
G1 X165.66 Y156.54 E357.68532
G1 X165.47 Y156.54 E357.69717
G1 X152.33 Y156.54 E358.51674
G1 X152.14 Y156.54 E358.52859
G1 X139.00 Y156.54 E359.34828
G1 X138.81 Y156.54 E359.36013
G1 X125.67 Y156.54 E360.17977
G1 X125.48 Y156.54 E360.19162
G1 X112.33 Y156.54 E361.01125
G1 X112.14 Y156.54 E361.02310
G1 X99.09 Y156.54 E361.83718
G1 X98.92 Y156.68 E361.85073
G1 X85.72 Y159.70 E362.69551
G1 X72.08 Y162.23 E363.56032
G1 X72.08 Y143.16 E364.74970
G0 F6000 X72.93 Y143.92
G0 X73.58 Y144.66
;TYPE:WALL-INNER
G1 F2700 X231.08 Y144.66 E374.57177
G1 X231.08 Y160.42 E375.55504
G1 X219.55 Y158.28 E376.28651
G1 X219.38 Y158.14 E376.30033
G1 X205.80 Y155.04 E377.16883
G1 X205.47 Y155.04 E377.18972
G1 X192.33 Y155.04 E378.00910
G1 X192.13 Y155.04 E378.02120
G1 X178.99 Y155.04 E378.84065
G1 X178.80 Y155.04 E378.85275
G1 X165.66 Y155.04 E379.67213
G1 X165.47 Y155.04 E379.68423
G1 X152.33 Y155.04 E380.50355
G1 X152.13 Y155.04 E380.51565
G1 X139.00 Y155.04 E381.33510
G1 X138.80 Y155.04 E381.34720
G1 X125.66 Y155.04 E382.16658
G1 X125.47 Y155.04 E382.17868
G1 X112.33 Y155.04 E382.99806
G1 X112.14 Y155.04 E383.01016
G1 X98.54 Y155.04 E383.85773
G1 X98.24 Y155.30 E383.88270
G1 X85.40 Y158.23 E384.70361
G1 X73.58 Y160.42 E385.45348
G1 X73.58 Y144.66 E386.43675
G0 F6000 X73.08 Y144.16
G1 F2700 X231.58 Y144.16 E396.32118
G1 X231.58 Y161.03 E397.37318
G1 X219.33 Y158.75 E398.15038
G1 X219.15 Y158.60 E398.16486
G1 X205.75 Y155.54 E399.02223
G1 X205.47 Y155.54 E399.03950
G1 X192.33 Y155.54 E399.85901
G1 X192.14 Y155.54 E399.87099
G1 X179.00 Y155.54 E400.69056
G1 X178.80 Y155.54 E400.70253
G1 X165.66 Y155.54 E401.52204
G1 X165.47 Y155.54 E401.53401
G1 X152.33 Y155.54 E402.35346
G1 X152.14 Y155.54 E402.36543
G1 X139.00 Y155.54 E403.18501
G1 X138.80 Y155.54 E403.19698
G1 X125.66 Y155.54 E404.01649
G1 X125.47 Y155.54 E404.02846
G1 X112.33 Y155.54 E404.84797
G1 X112.14 Y155.54 E404.85994
G1 X98.73 Y155.54 E405.69635
G1 X98.47 Y155.76 E405.71756
G1 X85.51 Y158.72 E406.54641
G1 X73.08 Y161.03 E407.33459
G1 X73.08 Y144.16 E408.38658
G0 F6000 X72.58 Y143.66
;TYPE:WALL-OUTER
G1 F2700 X232.08 Y143.66 E418.33338
G1 X232.08 Y161.63 E419.45404
G1 X219.11 Y159.22 E420.27703
G1 X218.92 Y159.06 E420.29209
G1 X205.69 Y156.04 E421.13833
G1 X205.47 Y156.04 E421.15199
G1 X192.33 Y156.04 E421.97163
G1 X192.14 Y156.04 E421.98347
G1 X179.00 Y156.04 E422.80317
G1 X178.81 Y156.04 E422.81502
G1 X165.66 Y156.04 E423.63465
G1 X165.47 Y156.04 E423.64650
G1 X152.33 Y156.04 E424.46607
G1 X152.14 Y156.04 E424.47792
G1 X139.00 Y156.04 E425.29762
G1 X138.81 Y156.04 E425.30947
G1 X125.66 Y156.04 E426.12910
G1 X125.47 Y156.04 E426.14095
G1 X112.33 Y156.04 E426.96058
G1 X112.14 Y156.04 E426.97243
G1 X98.91 Y156.04 E427.79774
G1 X98.69 Y156.22 E427.81505
G1 X85.61 Y159.21 E428.65189
G1 X72.58 Y161.63 E429.47839
G1 X72.58 Y143.66 E430.59905
G0 F6000 X72.93 Y143.92
G0 X73.77 Y144.83
;TYPE:FILL
G1 F2700 X86.69 Y157.75 E431.73860
G0 F6000 X87.26 Y157.62
G1 F2700 X74.47 Y144.83 E432.86661
G0 F6000 X75.18 Y144.83
G1 F2700 X87.84 Y157.49 E433.98297
G0 F6000 X88.42 Y157.36
G1 F2700 X75.89 Y144.83 E435.08778
G0 F6000 X76.59 Y144.83
G1 F2700 X88.99 Y157.23 E436.18104
G0 F6000 X89.57 Y157.09
G1 F2700 X77.30 Y144.83 E437.26265
G0 F6000 X78.01 Y144.83
G1 F2700 X90.14 Y156.96 E438.33267
G0 F6000 X90.72 Y156.83
G1 F2700 X78.72 Y144.83 E439.39109
G0 F6000 X79.42 Y144.83
G1 F2700 X91.29 Y156.70 E440.43791
G0 F6000 X91.87 Y156.57
G1 F2700 X80.13 Y144.83 E441.47313
G0 F6000 X80.84 Y144.83
G1 F2700 X92.44 Y156.44 E442.49680
G0 F6000 X93.02 Y156.31
G1 F2700 X81.55 Y144.83 E443.50883
G0 F6000 X82.25 Y144.83
G1 F2700 X93.60 Y156.18 E444.50931
G0 F6000 X94.17 Y156.04
G1 F2700 X82.96 Y144.83 E445.49814
G0 F6000 X83.67 Y144.83
G1 F2700 X94.75 Y155.91 E446.47542
G0 F6000 X95.32 Y155.78
G1 F2700 X84.37 Y144.83 E447.44110
G0 F6000 X85.08 Y144.83
G1 F2700 X95.90 Y155.65 E448.39519
G0 F6000 X96.47 Y155.52
G1 F2700 X85.79 Y144.83 E449.33768
G0 F6000 X86.50 Y144.83
G1 F2700 X97.05 Y155.39 E450.26857
G0 F6000 X97.62 Y155.25
G1 F2700 X87.20 Y144.83 E451.18786
G0 F6000 X87.91 Y144.83
G1 F2700 X98.19 Y155.11 E452.09423
G0 F6000 X98.65 Y154.86
G1 F2700 X88.62 Y144.83 E452.97900
G0 F6000 X89.32 Y144.83
G1 F2700 X99.36 Y154.86 E453.86376
G0 F6000 X100.06 Y154.86
G1 F2700 X90.03 Y144.83 E454.74853
G0 F6000 X90.74 Y144.83
G1 F2700 X100.77 Y154.86 E455.63325
G0 F6000 X101.48 Y154.86
G1 F2700 X91.44 Y144.83 E456.51797
G0 F6000 X92.15 Y144.83
G1 F2700 X102.18 Y154.86 E457.40273
G0 F6000 X102.89 Y154.86
G1 F2700 X92.86 Y144.83 E458.28750
G0 F6000 X93.57 Y144.83
G1 F2700 X103.60 Y154.86 E459.17226
G0 F6000 X104.31 Y154.86
G1 F2700 X94.27 Y144.83 E460.05703
G0 F6000 X94.98 Y144.83
G1 F2700 X105.01 Y154.86 E460.94179
G0 F6000 X105.72 Y154.86
G1 F2700 X95.69 Y144.83 E461.82656
G0 F6000 X96.39 Y144.83
G1 F2700 X106.43 Y154.86 E462.71132
G0 F6000 X107.13 Y154.86
G1 F2700 X97.10 Y144.83 E463.59604
G0 F6000 X97.81 Y144.83
G1 F2700 X107.84 Y154.86 E464.48076
G0 F6000 X108.55 Y154.86
G1 F2700 X98.52 Y144.83 E465.36548
G0 F6000 X99.22 Y144.83
G1 F2700 X109.25 Y154.86 E466.25025
G0 F6000 X109.96 Y154.86
G1 F2700 X99.93 Y144.83 E467.13501
G0 F6000 X100.64 Y144.83
G1 F2700 X110.67 Y154.86 E468.01978
G0 F6000 X111.38 Y154.86
G1 F2700 X101.34 Y144.83 E468.90454
G0 F6000 X102.05 Y144.83
G1 F2700 X112.08 Y154.86 E469.78931
G0 F6000 X112.79 Y154.86
G1 F2700 X102.76 Y144.83 E470.67407
G0 F6000 X103.47 Y144.83
G1 F2700 X113.50 Y154.86 E471.55884
G0 F6000 X114.20 Y154.86
G1 F2700 X104.17 Y144.83 E472.44356
G0 F6000 X104.88 Y144.83
G1 F2700 X114.91 Y154.86 E473.32828
G0 F6000 X115.62 Y154.86
G1 F2700 X105.59 Y144.83 E474.21304
G0 F6000 X106.29 Y144.83
G1 F2700 X116.33 Y154.86 E475.09781
G0 F6000 X117.03 Y154.86
G1 F2700 X107.00 Y144.83 E475.98257
G0 F6000 X107.71 Y144.83
G1 F2700 X117.74 Y154.86 E476.86734
G0 F6000 X118.45 Y154.86
G1 F2700 X108.42 Y144.83 E477.75210
G0 F6000 X109.12 Y144.83
G1 F2700 X119.15 Y154.86 E478.63687
G0 F6000 X119.86 Y154.86
G1 F2700 X109.83 Y144.83 E479.52163
G0 F6000 X110.54 Y144.83
G1 F2700 X120.57 Y154.86 E480.40635
G0 F6000 X121.28 Y154.86
G1 F2700 X111.24 Y144.83 E481.29107
G0 F6000 X111.95 Y144.83
G1 F2700 X121.98 Y154.86 E482.17579
G0 F6000 X122.69 Y154.86
G1 F2700 X112.66 Y144.83 E483.06056
G0 F6000 X113.36 Y144.83
G1 F2700 X123.40 Y154.86 E483.94532
G0 F6000 X124.10 Y154.86
G1 F2700 X114.07 Y144.83 E484.83009
G0 F6000 X114.78 Y144.83
G1 F2700 X124.81 Y154.86 E485.71485
G0 F6000 X125.52 Y154.86
G1 F2700 X115.49 Y144.83 E486.59962
G0 F6000 X116.19 Y144.83
G1 F2700 X126.22 Y154.86 E487.48438
G0 F6000 X126.93 Y154.86
G1 F2700 X116.90 Y144.83 E488.36910
G0 F6000 X117.61 Y144.83
G1 F2700 X127.64 Y154.86 E489.25382
G0 F6000 X128.35 Y154.86
G1 F2700 X118.31 Y144.83 E490.13854
G0 F6000 X119.02 Y144.83
G1 F2700 X129.05 Y154.86 E491.02331
G0 F6000 X129.76 Y154.86
G1 F2700 X119.73 Y144.83 E491.90807
G0 F6000 X120.44 Y144.83
G1 F2700 X130.47 Y154.86 E492.79284
G0 F6000 X131.18 Y154.86
G1 F2700 X121.14 Y144.83 E493.67760
G0 F6000 X121.85 Y144.83
G1 F2700 X131.88 Y154.86 E494.56237
G0 F6000 X132.59 Y154.86
G1 F2700 X122.56 Y144.83 E495.44713
G0 F6000 X123.26 Y144.83
G1 F2700 X133.30 Y154.86 E496.33190
G0 F6000 X134.00 Y154.86
G1 F2700 X123.97 Y144.83 E497.21662
G0 F6000 X124.68 Y144.83
G1 F2700 X134.71 Y154.86 E498.10134
G0 F6000 X135.42 Y154.86
G1 F2700 X125.39 Y144.83 E498.98610
G0 F6000 X126.09 Y144.83
G1 F2700 X136.12 Y154.86 E499.87087
G0 F6000 X136.83 Y154.86
G1 F2700 X126.80 Y144.83 E500.75563
G0 F6000 X127.51 Y144.83
G1 F2700 X137.54 Y154.86 E501.64040
G0 F6000 X138.25 Y154.86
G1 F2700 X128.21 Y144.83 E502.52516
G0 F6000 X128.92 Y144.83
G1 F2700 X138.95 Y154.86 E503.40993
G0 F6000 X139.66 Y154.86
G1 F2700 X129.63 Y144.83 E504.29469
G0 F6000 X130.34 Y144.83
G1 F2700 X140.37 Y154.86 E505.17941
G0 F6000 X141.07 Y154.86
G1 F2700 X131.04 Y144.83 E506.06413
G0 F6000 X131.75 Y144.83
G1 F2700 X141.78 Y154.86 E506.94885
G0 F6000 X142.49 Y154.86
G1 F2700 X132.46 Y144.83 E507.83362
G0 F6000 X133.16 Y144.83
G1 F2700 X143.20 Y154.86 E508.71838
G0 F6000 X143.90 Y154.86
G1 F2700 X133.87 Y144.83 E509.60315
G0 F6000 X134.58 Y144.83
G1 F2700 X144.61 Y154.86 E510.48791
G0 F6000 X145.32 Y154.86
G1 F2700 X135.28 Y144.83 E511.37268
G0 F6000 X135.99 Y144.83
G1 F2700 X146.02 Y154.86 E512.25744
G0 F6000 X146.73 Y154.86
G1 F2700 X136.70 Y144.83 E513.14216
G0 F6000 X137.41 Y144.83
G1 F2700 X147.44 Y154.86 E514.02688
G0 F6000 X148.15 Y154.86
G1 F2700 X138.11 Y144.83 E514.91160
G0 F6000 X138.82 Y144.83
G1 F2700 X148.85 Y154.86 E515.79637
G0 F6000 X149.56 Y154.86
G1 F2700 X139.53 Y144.83 E516.68113
G0 F6000 X140.24 Y144.83
G1 F2700 X150.27 Y154.86 E517.56590
G0 F6000 X150.97 Y154.86
G1 F2700 X140.94 Y144.83 E518.45066
G0 F6000 X141.65 Y144.83
G1 F2700 X151.68 Y154.86 E519.33543
G0 F6000 X152.39 Y154.86
G1 F2700 X142.36 Y144.83 E520.22019
G0 F6000 X143.06 Y144.83
G1 F2700 X153.09 Y154.86 E521.10496
G0 F6000 X153.80 Y154.86
G1 F2700 X143.77 Y144.83 E521.98968
G0 F6000 X144.48 Y144.83
G1 F2700 X154.51 Y154.86 E522.87440
G0 F6000 X155.22 Y154.86
G1 F2700 X145.19 Y144.83 E523.75916
G0 F6000 X145.89 Y144.83
G1 F2700 X155.92 Y154.86 E524.64393
G0 F6000 X156.63 Y154.86
G1 F2700 X146.60 Y144.83 E525.52869
G0 F6000 X147.31 Y144.83
G1 F2700 X157.34 Y154.86 E526.41346
G0 F6000 X158.04 Y154.86
G1 F2700 X148.01 Y144.83 E527.29822
G0 F6000 X148.72 Y144.83
G1 F2700 X158.75 Y154.86 E528.18299
G0 F6000 X159.46 Y154.86
G1 F2700 X149.43 Y144.83 E529.06775
G0 F6000 X150.13 Y144.83
G1 F2700 X160.17 Y154.86 E529.95247
G0 F6000 X160.87 Y154.86
G1 F2700 X150.84 Y144.83 E530.83719
G0 F6000 X151.55 Y144.83
G1 F2700 X161.58 Y154.86 E531.72191
G0 F6000 X162.29 Y154.86
G1 F2700 X152.26 Y144.83 E532.60668
G0 F6000 X152.96 Y144.83
G1 F2700 X163.00 Y154.86 E533.49144
G0 F6000 X163.70 Y154.86
G1 F2700 X153.67 Y144.83 E534.37621
G0 F6000 X154.38 Y144.83
G1 F2700 X164.41 Y154.86 E535.26097
G0 F6000 X165.12 Y154.86
G1 F2700 X155.08 Y144.83 E536.14574
G0 F6000 X155.79 Y144.83
G1 F2700 X165.82 Y154.86 E537.03050
G0 F6000 X166.53 Y154.86
G1 F2700 X156.50 Y144.83 E537.91527
G0 F6000 X157.21 Y144.83
G1 F2700 X167.24 Y154.86 E538.79999
G0 F6000 X167.94 Y154.86
G1 F2700 X157.91 Y144.83 E539.68471
G0 F6000 X158.62 Y144.83
G1 F2700 X168.65 Y154.86 E540.56947
G0 F6000 X169.36 Y154.86
G1 F2700 X159.33 Y144.83 E541.45424
G0 F6000 X160.03 Y144.83
G1 F2700 X170.07 Y154.86 E542.33900
G0 F6000 X170.77 Y154.86
G1 F2700 X160.74 Y144.83 E543.22377
G0 F6000 X161.45 Y144.83
G1 F2700 X171.48 Y154.86 E544.10853
G0 F6000 X172.19 Y154.86
G1 F2700 X162.16 Y144.83 E544.99330
G0 F6000 X162.86 Y144.83
G1 F2700 X172.89 Y154.86 E545.87806
G0 F6000 X173.60 Y154.86
G1 F2700 X163.57 Y144.83 E546.76278
G0 F6000 X164.28 Y144.83
G1 F2700 X174.31 Y154.86 E547.64750
G0 F6000 X175.01 Y154.86
G1 F2700 X164.98 Y144.83 E548.53222
G0 F6000 X165.69 Y144.83
G1 F2700 X175.72 Y154.86 E549.41699
G0 F6000 X176.43 Y154.86
G1 F2700 X166.40 Y144.83 E550.30175
G0 F6000 X167.10 Y144.83
G1 F2700 X177.14 Y154.86 E551.18652
G0 F6000 X177.84 Y154.86
G1 F2700 X167.81 Y144.83 E552.07128
G0 F6000 X168.52 Y144.83
G1 F2700 X178.55 Y154.86 E552.95605
G0 F6000 X179.26 Y154.86
G1 F2700 X169.23 Y144.83 E553.84081
G0 F6000 X169.93 Y144.83
G1 F2700 X179.97 Y154.86 E554.72553
G0 F6000 X180.67 Y154.86
G1 F2700 X170.64 Y144.83 E555.61025
G0 F6000 X171.35 Y144.83
G1 F2700 X181.38 Y154.86 E556.49497
G0 F6000 X182.09 Y154.86
G1 F2700 X172.06 Y144.83 E557.37974
G0 F6000 X172.76 Y144.83
G1 F2700 X182.79 Y154.86 E558.26450
G0 F6000 X183.50 Y154.86
G1 F2700 X173.47 Y144.83 E559.14927
G0 F6000 X174.18 Y144.83
G1 F2700 X184.21 Y154.86 E560.03403
G0 F6000 X184.91 Y154.86
G1 F2700 X174.88 Y144.83 E560.91880
G0 F6000 X175.59 Y144.83
G1 F2700 X185.62 Y154.86 E561.80356
G0 F6000 X186.33 Y154.86
G1 F2700 X176.30 Y144.83 E562.68833
G0 F6000 X177.00 Y144.83
G1 F2700 X187.04 Y154.86 E563.57305
G0 F6000 X187.74 Y154.86
G1 F2700 X177.71 Y144.83 E564.45777
G0 F6000 X178.42 Y144.83
G1 F2700 X188.45 Y154.86 E565.34253
G0 F6000 X189.16 Y154.86
G1 F2700 X179.13 Y144.83 E566.22730
G0 F6000 X179.83 Y144.83
G1 F2700 X189.87 Y154.86 E567.11206
G0 F6000 X190.57 Y154.86
G1 F2700 X180.54 Y144.83 E567.99683
G0 F6000 X181.25 Y144.83
G1 F2700 X191.28 Y154.86 E568.88159
G0 F6000 X191.99 Y154.86
G1 F2700 X181.95 Y144.83 E569.76636
G0 F6000 X182.66 Y144.83
G1 F2700 X192.69 Y154.86 E570.65112
G0 F6000 X193.40 Y154.86
G1 F2700 X183.37 Y144.83 E571.53584
G0 F6000 X184.08 Y144.83
G1 F2700 X194.11 Y154.86 E572.42056
G0 F6000 X194.81 Y154.86
G1 F2700 X184.78 Y144.83 E573.30528
G0 F6000 X185.49 Y144.83
G1 F2700 X195.52 Y154.86 E574.19005
G0 F6000 X196.23 Y154.86
G1 F2700 X186.20 Y144.83 E575.07481
G0 F6000 X186.90 Y144.83
G1 F2700 X196.94 Y154.86 E575.95958
G0 F6000 X197.64 Y154.86
G1 F2700 X187.61 Y144.83 E576.84434
G0 F6000 X188.32 Y144.83
G1 F2700 X198.35 Y154.86 E577.72911
G0 F6000 X199.06 Y154.86
G1 F2700 X189.03 Y144.83 E578.61387
G0 F6000 X189.73 Y144.83
G1 F2700 X199.76 Y154.86 E579.49859
G0 F6000 X200.47 Y154.86
G1 F2700 X190.44 Y144.83 E580.38331
G0 F6000 X191.15 Y144.83
G1 F2700 X201.18 Y154.86 E581.26803
G0 F6000 X201.89 Y154.86
G1 F2700 X191.85 Y144.83 E582.15280
G0 F6000 X192.56 Y144.83
G1 F2700 X202.59 Y154.86 E583.03756
G0 F6000 X203.30 Y154.86
G1 F2700 X193.27 Y144.83 E583.92233
G0 F6000 X193.97 Y144.83
G1 F2700 X204.01 Y154.86 E584.80709
G0 F6000 X204.71 Y154.86
G1 F2700 X194.68 Y144.83 E585.69186
G0 F6000 X195.39 Y144.83
G1 F2700 X205.42 Y154.86 E586.57662
G0 F6000 X206.22 Y154.95
G1 F2700 X196.10 Y144.83 E587.46941
G0 F6000 X196.80 Y144.83
G1 F2700 X207.14 Y155.16 E588.38063
G0 F6000 X208.05 Y155.37
G1 F2700 X197.51 Y144.83 E589.31033
G0 F6000 X198.22 Y144.83
G1 F2700 X208.97 Y155.58 E590.25851
G0 F6000 X209.88 Y155.79
G1 F2700 X198.93 Y144.83 E591.22512
G0 F6000 X199.63 Y144.83
G1 F2700 X210.80 Y156.00 E592.21020
G0 F6000 X211.72 Y156.21
G1 F2700 X200.34 Y144.83 E593.21377
G0 F6000 X201.05 Y144.83
G1 F2700 X212.63 Y156.42 E594.23576
G0 F6000 X213.55 Y156.63
G1 F2700 X201.75 Y144.83 E595.27628
G0 F6000 X202.46 Y144.83
G1 F2700 X214.47 Y156.84 E596.33531
G0 F6000 X215.38 Y157.05
G1 F2700 X203.17 Y144.83 E597.41274
G0 F6000 X203.88 Y144.83
G1 F2700 X216.30 Y157.26 E598.50864
G0 F6000 X217.22 Y157.47
G1 F2700 X204.58 Y144.83 E599.62302
G0 F6000 X205.29 Y144.83
G1 F2700 X218.13 Y157.68 E600.75583
G0 F6000 X219.05 Y157.88
G1 F2700 X206.00 Y144.83 E601.90712
G0 F6000 X206.70 Y144.83
G1 F2700 X220.07 Y158.20 E603.08619
G0 F6000 X220.94 Y158.36
G1 F2700 X207.41 Y144.83 E604.27946
G0 F6000 X208.12 Y144.83
G1 F2700 X221.81 Y158.52 E605.48692
G0 F6000 X222.68 Y158.68
G1 F2700 X208.82 Y144.83 E606.70863
G0 F6000 X209.53 Y144.83
G1 F2700 X223.55 Y158.84 E607.94459
G0 F6000 X224.41 Y159.01
G1 F2700 X210.24 Y144.83 E609.19479
G0 F6000 X210.95 Y144.83
G1 F2700 X225.28 Y159.17 E610.45918
G0 F6000 X226.15 Y159.33
G1 F2700 X211.65 Y144.83 E611.73782
G0 F6000 X212.36 Y144.83
G1 F2700 X227.02 Y159.49 E613.03066
G0 F6000 X227.89 Y159.65
G1 F2700 X213.07 Y144.83 E614.33770
G0 F6000 X213.77 Y144.83
G1 F2700 X228.76 Y159.81 E615.65903
G0 F6000 X229.62 Y159.97
G1 F2700 X214.48 Y144.83 E616.99455
G0 F6000 X215.19 Y144.83
G1 F2700 X230.49 Y160.13 E618.34428
G0 F6000 X230.91 Y159.84
G1 F2700 X215.90 Y144.83 E619.66803
G0 F6000 X216.60 Y144.83
G1 F2700 X230.91 Y159.13 E620.92938
G0 F6000 X230.91 Y158.43
G1 F2700 X217.31 Y144.83 E622.12838
G0 F6000 X218.02 Y144.83
G1 F2700 X230.91 Y157.72 E623.26503
G0 F6000 X230.91 Y157.01
G1 F2700 X218.72 Y144.83 E624.33933
G0 F6000 X219.43 Y144.83
G1 F2700 X230.91 Y156.31 E625.35127
G0 F6000 X230.91 Y155.60
G1 F2700 X220.14 Y144.83 E626.30085
G0 F6000 X220.84 Y144.83
G1 F2700 X230.91 Y154.89 E627.18809
G0 F6000 X230.91 Y154.18
G1 F2700 X221.55 Y144.83 E628.01293
G0 F6000 X222.26 Y144.83
G1 F2700 X230.91 Y153.48 E628.77541
G0 F6000 X230.91 Y152.77
G1 F2700 X222.97 Y144.83 E629.47549
G0 F6000 X223.67 Y144.83
G1 F2700 X230.91 Y152.06 E630.11323
G0 F6000 X230.91 Y151.35
G1 F2700 X224.38 Y144.83 E630.68861
G0 F6000 X225.09 Y144.83
G1 F2700 X230.91 Y150.65 E631.20163
G0 F6000 X230.91 Y149.94
G1 F2700 X225.79 Y144.83 E631.65231
G0 F6000 X226.50 Y144.83
G1 F2700 X230.91 Y149.23 E632.04062
G0 F6000 X230.91 Y148.53
G1 F2700 X227.21 Y144.83 E632.36659
G0 F6000 X227.92 Y144.83
G1 F2700 X230.91 Y147.82 E632.63016
G0 F6000 X230.91 Y147.11
G1 F2700 X228.62 Y144.83 E632.83137
G0 F6000 X229.33 Y144.83
G1 F2700 X230.91 Y146.41 E632.97024
G0 F6000 X230.91 Y145.70
G1 F2700 X230.04 Y144.83 E633.04670
G0 F6000 X230.75 Y144.83
G1 F2700 X230.91 Y144.99 E633.06081
G0 F6000 X98.49 Y155.81
G0 X86.11 Y157.88
G1 F2700 X73.76 Y145.53 E634.15054
G0 F6000 X73.76 Y146.24
G1 F2700 X85.54 Y158.01 E635.18951
G0 F6000 X84.95 Y158.13
G1 F2700 X73.76 Y146.94 E636.17641
G0 F6000 X73.76 Y147.65
G1 F2700 X84.35 Y158.24 E637.11074
G0 F6000 X83.75 Y158.35
G1 F2700 X73.76 Y148.36 E637.99250
G0 F6000 X73.76 Y149.06
G1 F2700 X83.16 Y158.46 E638.82162
G0 F6000 X82.56 Y158.57
G1 F2700 X73.76 Y149.77 E639.59817
G0 F6000 X73.76 Y150.48
G1 F2700 X81.97 Y158.69 E640.32215
G0 F6000 X81.37 Y158.80
G1 F2700 X73.76 Y151.19 E640.99349
G0 F6000 X73.76 Y151.89
G1 F2700 X80.77 Y158.91 E641.61226
G0 F6000 X80.18 Y159.02
G1 F2700 X73.76 Y152.60 E642.17847
G0 F6000 X73.76 Y153.31
G1 F2700 X79.58 Y159.13 E642.69202
G0 F6000 X78.98 Y159.24
G1 F2700 X73.76 Y154.01 E643.15301
G0 F6000 X73.76 Y154.72
G1 F2700 X78.39 Y159.35 E643.56144
G0 F6000 X77.79 Y159.46
G1 F2700 X73.76 Y155.43 E643.91722
G0 F6000 X73.76 Y156.13
G1 F2700 X77.19 Y159.57 E644.22043
G0 F6000 X76.60 Y159.68
G1 F2700 X73.76 Y156.84 E644.47108
G0 F6000 X73.76 Y157.55
G1 F2700 X76.00 Y159.79 E644.66907
G0 F6000 X75.41 Y159.91
G1 F2700 X73.76 Y158.26 E644.81450
G0 F6000 X73.76 Y158.96
G1 F2700 X74.81 Y160.02 E644.90737
G0 F6000 X74.21 Y160.13
G1 F2700 X73.76 Y159.67 E644.94759
;LAYER:1
G0 F6000 X73.58 Y160.42 Z0.50
;TYPE:WALL-INNER
G1 F3480 X73.58 Y144.66 E645.60310
G1 X231.08 Y144.66 E652.15115
G1 X231.08 Y160.42 E652.80667
G1 X219.55 Y158.28 E653.29435
G1 X219.19 Y157.98 E653.31383
G1 X205.80 Y154.92 E653.88468
G1 X205.28 Y154.93 E653.90639
G1 X192.33 Y154.92 E654.44487
G1 X191.95 Y154.93 E654.46071
G1 X179.00 Y154.92 E654.99923
G1 X178.61 Y154.93 E655.01507
G1 X165.66 Y154.92 E655.55355
G1 X165.28 Y154.93 E655.56939
G1 X152.33 Y154.92 E656.10783
G1 X151.95 Y154.93 E656.12367
G1 X139.00 Y154.92 E656.66220
G1 X138.62 Y154.93 E656.67804
G1 X125.66 Y154.92 E657.21652
G1 X125.28 Y154.93 E657.23236
G1 X112.33 Y154.92 E657.77084
G1 X111.95 Y154.93 E657.78668
G1 X98.54 Y154.92 E658.34404
G1 X98.05 Y155.34 E658.37101
G1 X85.40 Y158.23 E658.91013
G1 X73.58 Y160.42 E659.41004
G0 F6000 X73.08 Y161.03
G1 F3480 X73.08 Y144.16 E660.11138
G1 X231.58 Y144.16 E666.70100
G1 X231.58 Y161.03 E667.40233
G1 X219.33 Y158.75 E667.92046
G1 X218.96 Y158.44 E667.94042
G1 X205.75 Y155.42 E668.50386
G1 X205.28 Y155.43 E668.52323
G1 X192.33 Y155.42 E669.06171
G1 X191.95 Y155.43 E669.07755
G1 X179.00 Y155.42 E669.61607
G1 X178.62 Y155.43 E669.63191
G1 X165.66 Y155.42 E670.17040
G1 X165.28 Y155.43 E670.18624
G1 X152.33 Y155.42 E670.72468
G1 X151.95 Y155.43 E670.74052
G1 X139.00 Y155.42 E671.27904
G1 X138.62 Y155.43 E671.29488
G1 X125.66 Y155.42 E671.83336
G1 X125.28 Y155.43 E671.84920
G1 X112.33 Y155.42 E672.38768
G1 X111.95 Y155.43 E672.40352
G1 X98.72 Y155.42 E672.95335
G1 X98.28 Y155.80 E672.97779
G1 X85.51 Y158.72 E673.52225
G1 X73.08 Y161.03 E674.04770
G0 F6000 X72.58 Y161.63
;TYPE:WALL-OUTER
G1 F3480 X72.58 Y143.66 E674.79480
G1 X232.08 Y143.66 E681.42600
G1 X232.08 Y161.63 E682.17311
G1 X219.11 Y159.22 E682.72177
G1 X218.73 Y158.90 E682.74210
G1 X205.69 Y155.92 E683.29817
G1 X98.91 Y155.92 E687.73778
G1 X98.50 Y156.26 E687.75964
G1 X85.61 Y159.21 E688.30943
G1 X72.58 Y161.63 E688.86042
G0 F6000 X73.76 Y159.94
;TYPE:FILL
G1 F3480 X88.87 Y144.83 E689.74886
G0 F6000 X89.57 Y144.83
G1 F3480 X74.29 Y160.11 E690.64733
G0 F6000 X75.16 Y159.95
G1 F3480 X90.28 Y144.83 E691.53633
G0 F6000 X90.99 Y144.83
G1 F3480 X76.03 Y159.79 E692.41583
G0 F6000 X76.90 Y159.63
G1 F3480 X91.70 Y144.83 E693.28586
G0 F6000 X92.40 Y144.83
G1 F3480 X77.77 Y159.47 E694.14643
G0 F6000 X78.64 Y159.31
G1 F3480 X93.11 Y144.83 E694.99751
G0 F6000 X93.82 Y144.83
G1 F3480 X79.50 Y159.14 E695.83909
G0 F6000 X80.37 Y158.98
G1 F3480 X94.52 Y144.83 E696.67117
G0 F6000 X95.23 Y144.83
G1 F3480 X81.24 Y158.82 E697.49376
G0 F6000 X82.11 Y158.66
G1 F3480 X95.94 Y144.83 E698.30685
G0 F6000 X96.64 Y144.83
G1 F3480 X82.98 Y158.50 E699.11048
G0 F6000 X83.84 Y158.34
G1 F3480 X97.35 Y144.83 E699.90467
G0 F6000 X98.06 Y144.83
G1 F3480 X84.71 Y158.18 E700.68933
G0 F6000 X85.59 Y158.00
G1 F3480 X98.77 Y144.83 E701.46382
G0 F6000 X99.47 Y144.83
G1 F3480 X86.51 Y157.79 E702.22603
G0 F6000 X87.43 Y157.59
G1 F3480 X100.18 Y144.83 E702.97591
G0 F6000 X100.89 Y144.83
G1 F3480 X88.34 Y157.38 E703.71348
G0 F6000 X89.26 Y157.17
G1 F3480 X101.59 Y144.83 E704.43873
G0 F6000 X102.30 Y144.83
G1 F3480 X90.18 Y156.96 E705.15170
G0 F6000 X91.09 Y156.75
G1 F3480 X103.01 Y144.83 E705.85231
G0 F6000 X103.72 Y144.83
G1 F3480 X92.01 Y156.54 E706.54067
G0 F6000 X92.92 Y156.33
G1 F3480 X104.42 Y144.83 E707.21673
G0 F6000 X105.13 Y144.83
G1 F3480 X93.84 Y156.12 E707.88045
G0 F6000 X94.76 Y155.91
G1 F3480 X105.84 Y144.83 E708.53189
G0 F6000 X106.55 Y144.83
G1 F3480 X95.67 Y155.70 E709.17100
G0 F6000 X96.59 Y155.49
G1 F3480 X107.25 Y144.83 E709.79783
G0 F6000 X107.96 Y144.83
G1 F3480 X97.51 Y155.28 E710.41234
G0 F6000 X98.75 Y154.75
G1 F3480 X108.67 Y144.83 E710.99545
G0 F6000 X109.37 Y144.83
G1 F3480 X99.45 Y154.75 E711.57856
G0 F6000 X100.16 Y154.75
G1 F3480 X110.08 Y144.83 E712.16164
G0 F6000 X110.79 Y144.83
G1 F3480 X100.87 Y154.75 E712.74475
G0 F6000 X101.58 Y154.75
G1 F3480 X111.50 Y144.83 E713.32786
G0 F6000 X112.20 Y144.83
G1 F3480 X102.28 Y154.75 E713.91097
G0 F6000 X102.99 Y154.75
G1 F3480 X112.91 Y144.83 E714.49408
G0 F6000 X113.62 Y144.83
G1 F3480 X103.70 Y154.75 E715.07719
G0 F6000 X104.41 Y154.75
G1 F3480 X114.32 Y144.83 E715.66031
G0 F6000 X115.03 Y144.83
G1 F3480 X105.11 Y154.75 E716.24342
G0 F6000 X105.82 Y154.75
G1 F3480 X115.74 Y144.83 E716.82653
G0 F6000 X116.44 Y144.83
G1 F3480 X106.53 Y154.75 E717.40961
G0 F6000 X107.23 Y154.75
G1 F3480 X117.15 Y144.83 E717.99272
G0 F6000 X117.86 Y144.83
G1 F3480 X107.94 Y154.75 E718.57583
G0 F6000 X108.65 Y154.75
G1 F3480 X118.57 Y144.83 E719.15894
G0 F6000 X119.27 Y144.83
G1 F3480 X109.36 Y154.75 E719.74205
G0 F6000 X110.06 Y154.75
G1 F3480 X119.98 Y144.83 E720.32516
G0 F6000 X120.69 Y144.83
G1 F3480 X110.77 Y154.75 E720.90827
G0 F6000 X111.48 Y154.75
G1 F3480 X121.39 Y144.83 E721.49139
G0 F6000 X122.10 Y144.83
G1 F3480 X112.18 Y154.75 E722.07450
G0 F6000 X112.89 Y154.75
G1 F3480 X122.81 Y144.83 E722.65758
G0 F6000 X123.52 Y144.83
G1 F3480 X113.60 Y154.75 E723.24066
G0 F6000 X114.31 Y154.75
G1 F3480 X124.22 Y144.83 E723.82377
G0 F6000 X124.93 Y144.83
G1 F3480 X115.01 Y154.75 E724.40688
G0 F6000 X115.72 Y154.75
G1 F3480 X125.64 Y144.83 E724.98999
G0 F6000 X126.34 Y144.83
G1 F3480 X116.43 Y154.75 E725.57310
G0 F6000 X117.13 Y154.75
G1 F3480 X127.05 Y144.83 E726.15621
G0 F6000 X127.76 Y144.83
G1 F3480 X117.84 Y154.75 E726.73933
G0 F6000 X118.55 Y154.75
G1 F3480 X128.47 Y144.83 E727.32244
G0 F6000 X129.17 Y144.83
G1 F3480 X119.25 Y154.75 E727.90555
G0 F6000 X119.96 Y154.75
G1 F3480 X129.88 Y144.83 E728.48863
G0 F6000 X130.59 Y144.83
G1 F3480 X120.67 Y154.75 E729.07174
G0 F6000 X121.38 Y154.75
G1 F3480 X131.29 Y144.83 E729.65485
G0 F6000 X132.00 Y144.83
G1 F3480 X122.08 Y154.75 E730.23796
G0 F6000 X122.79 Y154.75
G1 F3480 X132.71 Y144.83 E730.82107
G0 F6000 X133.41 Y144.83
G1 F3480 X123.50 Y154.75 E731.40418
G0 F6000 X124.20 Y154.75
G1 F3480 X134.12 Y144.83 E731.98730
G0 F6000 X134.83 Y144.83
G1 F3480 X124.91 Y154.75 E732.57041
G0 F6000 X125.62 Y154.75
G1 F3480 X135.54 Y144.83 E733.15352
G0 F6000 X136.24 Y144.83
G1 F3480 X126.33 Y154.75 E733.73660
G0 F6000 X127.03 Y154.75
G1 F3480 X136.95 Y144.83 E734.31971
G0 F6000 X137.66 Y144.83
G1 F3480 X127.74 Y154.75 E734.90282
G0 F6000 X128.45 Y154.75
G1 F3480 X138.37 Y144.83 E735.48593
G0 F6000 X139.07 Y144.83
G1 F3480 X129.15 Y154.75 E736.06904
G0 F6000 X129.86 Y154.75
G1 F3480 X139.78 Y144.83 E736.65215
G0 F6000 X140.49 Y144.83
G1 F3480 X130.57 Y154.75 E737.23526
G0 F6000 X131.28 Y154.75
G1 F3480 X141.19 Y144.83 E737.81838
G0 F6000 X141.90 Y144.83
G1 F3480 X131.98 Y154.75 E738.40149
G0 F6000 X132.69 Y154.75
G1 F3480 X142.61 Y144.83 E738.98457
G0 F6000 X143.31 Y144.83
G1 F3480 X133.40 Y154.75 E739.56765
G0 F6000 X134.10 Y154.75
G1 F3480 X144.02 Y144.83 E740.15076
G0 F6000 X144.73 Y144.83
G1 F3480 X134.81 Y154.75 E740.73387
G0 F6000 X135.52 Y154.75
G1 F3480 X145.44 Y144.83 E741.31698
G0 F6000 X146.14 Y144.83
G1 F3480 X136.22 Y154.75 E741.90009
G0 F6000 X136.93 Y154.75
G1 F3480 X146.85 Y144.83 E742.48320
G0 F6000 X147.56 Y144.83
G1 F3480 X137.64 Y154.75 E743.06632
G0 F6000 X138.35 Y154.75
G1 F3480 X148.26 Y144.83 E743.64943
G0 F6000 X148.97 Y144.83
G1 F3480 X139.05 Y154.75 E744.23254
G0 F6000 X139.76 Y154.75
G1 F3480 X149.68 Y144.83 E744.81562
G0 F6000 X150.39 Y144.83
G1 F3480 X140.47 Y154.75 E745.39873
G0 F6000 X141.18 Y154.75
G1 F3480 X151.09 Y144.83 E745.98184
G0 F6000 X151.80 Y144.83
G1 F3480 X141.88 Y154.75 E746.56495
G0 F6000 X142.59 Y154.75
G1 F3480 X152.51 Y144.83 E747.14806
G0 F6000 X153.21 Y144.83
G1 F3480 X143.30 Y154.75 E747.73117
G0 F6000 X144.00 Y154.75
G1 F3480 X153.92 Y144.83 E748.31429
G0 F6000 X154.63 Y144.83
G1 F3480 X144.71 Y154.75 E748.89740
G0 F6000 X145.42 Y154.75
G1 F3480 X155.34 Y144.83 E749.48051
G0 F6000 X156.04 Y144.83
G1 F3480 X146.12 Y154.75 E750.06359
G0 F6000 X146.83 Y154.75
G1 F3480 X156.75 Y144.83 E750.64670
G0 F6000 X157.46 Y144.83
G1 F3480 X147.54 Y154.75 E751.22981
G0 F6000 X148.25 Y154.75
G1 F3480 X158.16 Y144.83 E751.81292
G0 F6000 X158.87 Y144.83
G1 F3480 X148.95 Y154.75 E752.39603
G0 F6000 X149.66 Y154.75
G1 F3480 X159.58 Y144.83 E752.97914
G0 F6000 X160.28 Y144.83
G1 F3480 X150.37 Y154.75 E753.56226
G0 F6000 X151.07 Y154.75
G1 F3480 X160.99 Y144.83 E754.14537
G0 F6000 X161.70 Y144.83
G1 F3480 X151.78 Y154.75 E754.72848
G0 F6000 X152.49 Y154.75
G1 F3480 X162.41 Y144.83 E755.31159
G0 F6000 X163.11 Y144.83
G1 F3480 X153.20 Y154.75 E755.89467
G0 F6000 X153.90 Y154.75
G1 F3480 X163.82 Y144.83 E756.47778
G0 F6000 X164.53 Y144.83
G1 F3480 X154.61 Y154.75 E757.06089
G0 F6000 X155.32 Y154.75
G1 F3480 X165.24 Y144.83 E757.64400
G0 F6000 X165.94 Y144.83
G1 F3480 X156.02 Y154.75 E758.22711
G0 F6000 X156.73 Y154.75
G1 F3480 X166.65 Y144.83 E758.81022
G0 F6000 X167.36 Y144.83
G1 F3480 X157.44 Y154.75 E759.39334
G0 F6000 X158.15 Y154.75
G1 F3480 X168.06 Y144.83 E759.97645
G0 F6000 X168.77 Y144.83
G1 F3480 X158.85 Y154.75 E760.55956
G0 F6000 X159.56 Y154.75
G1 F3480 X169.48 Y144.83 E761.14264
G0 F6000 X170.19 Y144.83
G1 F3480 X160.27 Y154.75 E761.72575
G0 F6000 X160.97 Y154.75
G1 F3480 X170.89 Y144.83 E762.30886
G0 F6000 X171.60 Y144.83
G1 F3480 X161.68 Y154.75 E762.89197
G0 F6000 X162.39 Y154.75
G1 F3480 X172.31 Y144.83 E763.47508
G0 F6000 X173.01 Y144.83
G1 F3480 X163.09 Y154.75 E764.05819
G0 F6000 X163.80 Y154.75
G1 F3480 X173.72 Y144.83 E764.64131
G0 F6000 X174.43 Y144.83
G1 F3480 X164.51 Y154.75 E765.22442
G0 F6000 X165.22 Y154.75
G1 F3480 X175.13 Y144.83 E765.80753
G0 F6000 X175.84 Y144.83
G1 F3480 X165.92 Y154.75 E766.39061
G0 F6000 X166.63 Y154.75
G1 F3480 X176.55 Y144.83 E766.97372
G0 F6000 X177.26 Y144.83
G1 F3480 X167.34 Y154.75 E767.55683
G0 F6000 X168.04 Y154.75
G1 F3480 X177.96 Y144.83 E768.13994
G0 F6000 X178.67 Y144.83
G1 F3480 X168.75 Y154.75 E768.72305
G0 F6000 X169.46 Y154.75
G1 F3480 X179.38 Y144.83 E769.30616
G0 F6000 X180.08 Y144.83
G1 F3480 X170.17 Y154.75 E769.88927
G0 F6000 X170.87 Y154.75
G1 F3480 X180.79 Y144.83 E770.47239
G0 F6000 X181.50 Y144.83
G1 F3480 X171.58 Y154.75 E771.05550
G0 F6000 X172.29 Y154.75
G1 F3480 X182.21 Y144.83 E771.63861
G0 F6000 X182.91 Y144.83
G1 F3480 X173.00 Y154.75 E772.22169
G0 F6000 X173.70 Y154.75
G1 F3480 X183.62 Y144.83 E772.80480
G0 F6000 X184.33 Y144.83
G1 F3480 X174.41 Y154.75 E773.38791
G0 F6000 X175.12 Y154.75
G1 F3480 X185.03 Y144.83 E773.97102
G0 F6000 X185.74 Y144.83
G1 F3480 X175.82 Y154.75 E774.55413
G0 F6000 X176.53 Y154.75
G1 F3480 X186.45 Y144.83 E775.13724
G0 F6000 X187.16 Y144.83
G1 F3480 X177.24 Y154.75 E775.72036
G0 F6000 X177.94 Y154.75
G1 F3480 X187.86 Y144.83 E776.30347
G0 F6000 X188.57 Y144.83
G1 F3480 X178.65 Y154.75 E776.88658
G0 F6000 X179.36 Y154.75
G1 F3480 X189.28 Y144.83 E777.46966
G0 F6000 X189.98 Y144.83
G1 F3480 X180.07 Y154.75 E778.05277
G0 F6000 X180.77 Y154.75
G1 F3480 X190.69 Y144.83 E778.63588
G0 F6000 X191.40 Y144.83
G1 F3480 X181.48 Y154.75 E779.21899
G0 F6000 X182.19 Y154.75
G1 F3480 X192.10 Y144.83 E779.80210
G0 F6000 X192.81 Y144.83
G1 F3480 X182.89 Y154.75 E780.38521
G0 F6000 X183.60 Y154.75
G1 F3480 X193.52 Y144.83 E780.96832
G0 F6000 X194.23 Y144.83
G1 F3480 X184.31 Y154.75 E781.55144
G0 F6000 X185.01 Y154.75
G1 F3480 X194.93 Y144.83 E782.13455
G0 F6000 X195.64 Y144.83
G1 F3480 X185.72 Y154.75 E782.71763
G0 F6000 X186.43 Y154.75
G1 F3480 X196.35 Y144.83 E783.30071
G0 F6000 X197.06 Y144.83
G1 F3480 X187.14 Y154.75 E783.88382
G0 F6000 X187.84 Y154.75
G1 F3480 X197.76 Y144.83 E784.46693
G0 F6000 X198.47 Y144.83
G1 F3480 X188.55 Y154.75 E785.05004
G0 F6000 X189.26 Y154.75
G1 F3480 X199.18 Y144.83 E785.63315
G0 F6000 X199.88 Y144.83
G1 F3480 X189.97 Y154.75 E786.21626
G0 F6000 X190.67 Y154.75
G1 F3480 X200.59 Y144.83 E786.79938
G0 F6000 X201.30 Y144.83
G1 F3480 X191.38 Y154.75 E787.38249
G0 F6000 X192.09 Y154.75
G1 F3480 X202.00 Y144.83 E787.96560
G0 F6000 X202.71 Y144.83
G1 F3480 X192.79 Y154.75 E788.54868
G0 F6000 X193.50 Y154.75
G1 F3480 X203.42 Y144.83 E789.13179
G0 F6000 X204.13 Y144.83
G1 F3480 X194.21 Y154.75 E789.71490
G0 F6000 X194.91 Y154.75
G1 F3480 X204.83 Y144.83 E790.29801
G0 F6000 X205.54 Y144.83
G1 F3480 X195.62 Y154.75 E790.88112
G0 F6000 X196.33 Y154.75
G1 F3480 X206.25 Y144.83 E791.46423
G0 F6000 X206.95 Y144.83
G1 F3480 X197.04 Y154.75 E792.04735
G0 F6000 X197.74 Y154.75
G1 F3480 X207.66 Y144.83 E792.63046
G0 F6000 X208.37 Y144.83
G1 F3480 X198.45 Y154.75 E793.21357
G0 F6000 X199.16 Y154.75
G1 F3480 X209.07 Y144.83 E793.79665
G0 F6000 X209.78 Y144.83
G1 F3480 X199.87 Y154.75 E794.37976
G0 F6000 X200.57 Y154.75
G1 F3480 X210.49 Y144.83 E794.96287
G0 F6000 X211.20 Y144.83
G1 F3480 X201.28 Y154.75 E795.54598
G0 F6000 X201.99 Y154.75
G1 F3480 X211.90 Y144.83 E796.12909
G0 F6000 X212.61 Y144.83
G1 F3480 X202.69 Y154.75 E796.71220
G0 F6000 X203.40 Y154.75
G1 F3480 X213.32 Y144.83 E797.29531
G0 F6000 X214.03 Y144.83
G1 F3480 X204.11 Y154.75 E797.87843
G0 F6000 X204.81 Y154.75
G1 F3480 X214.73 Y144.83 E798.46154
G0 F6000 X215.44 Y144.83
G1 F3480 X205.52 Y154.75 E799.04462
G0 F6000 X206.15 Y154.82
G1 F3480 X216.15 Y144.83 E799.63223
G0 F6000 X216.85 Y144.83
G1 F3480 X206.73 Y154.96 E800.22757
G0 F6000 X207.30 Y155.09
G1 F3480 X217.56 Y144.83 E800.83061
G0 F6000 X218.27 Y144.83
G1 F3480 X207.88 Y155.22 E801.44139
G0 F6000 X208.46 Y155.35
G1 F3480 X218.97 Y144.83 E802.05989
G0 F6000 X219.68 Y144.83
G1 F3480 X209.03 Y155.48 E802.68613
G0 F6000 X209.61 Y155.61
G1 F3480 X220.39 Y144.83 E803.32010
G0 F6000 X221.10 Y144.83
G1 F3480 X210.18 Y155.75 E803.96180
G0 F6000 X210.76 Y155.88
G1 F3480 X221.80 Y144.83 E804.61120
G0 F6000 X222.51 Y144.83
G1 F3480 X211.33 Y156.01 E805.26837
G0 F6000 X211.91 Y156.14
G1 F3480 X223.22 Y144.83 E805.93327
G0 F6000 X223.93 Y144.83
G1 F3480 X212.48 Y156.27 E806.60592
G0 F6000 X213.06 Y156.40
G1 F3480 X224.63 Y144.83 E807.28628
G0 F6000 X225.34 Y144.83
G1 F3480 X213.64 Y156.53 E807.97437
G0 F6000 X214.21 Y156.66
G1 F3480 X226.05 Y144.83 E808.67020
G0 F6000 X226.75 Y144.83
G1 F3480 X214.79 Y156.80 E809.37375
G0 F6000 X215.36 Y156.93
G1 F3480 X227.46 Y144.83 E810.08504
G0 F6000 X228.17 Y144.83
G1 F3480 X215.94 Y157.06 E810.80400
G0 F6000 X216.51 Y157.19
G1 F3480 X228.87 Y144.83 E811.53072
G0 F6000 X229.58 Y144.83
G1 F3480 X217.09 Y157.32 E812.26517
G0 F6000 X217.66 Y157.45
G1 F3480 X230.29 Y144.83 E813.00739
G0 F6000 X230.91 Y144.92
G1 F3480 X218.24 Y157.59 E813.75195
G0 F6000 X218.82 Y157.72
G1 F3480 X230.91 Y145.63 E814.46268
G0 F6000 X230.91 Y146.34
G1 F3480 X219.35 Y157.89 E815.14204
G0 F6000 X219.80 Y158.15
G1 F3480 X230.91 Y147.04 E815.79512
G0 F6000 X230.91 Y147.75
G1 F3480 X220.39 Y158.26 E816.41315
G0 F6000 X220.99 Y158.37
G1 F3480 X230.91 Y148.46 E816.99612
G0 F6000 X230.91 Y149.16
G1 F3480 X221.59 Y158.48 E817.54404
G0 F6000 X222.18 Y158.59
G1 F3480 X230.91 Y149.87 E818.05686
G0 F6000 X230.91 Y150.58
G1 F3480 X222.78 Y158.70 E818.53461
G0 F6000 X223.38 Y158.81
G1 F3480 X230.91 Y151.29 E818.97731
G0 F6000 X230.91 Y151.99
G1 F3480 X223.97 Y158.93 E819.38492
G0 F6000 X224.57 Y159.04
G1 F3480 X230.91 Y152.70 E819.75748
G0 F6000 X230.91 Y153.41
G1 F3480 X225.16 Y159.15 E820.09497
G0 F6000 X225.76 Y159.26
G1 F3480 X230.91 Y154.11 E820.39742
G0 F6000 X230.91 Y154.82
G1 F3480 X226.36 Y159.37 E820.66482
G0 F6000 X226.95 Y159.48
G1 F3480 X230.91 Y155.53 E820.89713
G0 F6000 X230.91 Y156.24
G1 F3480 X227.55 Y159.59 E821.09439
G0 F6000 X228.15 Y159.70
G1 F3480 X230.91 Y156.94 E821.25652
G0 F6000 X230.91 Y157.65
G1 F3480 X228.74 Y159.81 E821.38361
G0 F6000 X229.34 Y159.92
G1 F3480 X230.91 Y158.36 E821.47565
G0 F6000 X230.91 Y159.06
G1 F3480 X229.94 Y160.03 E821.53262
G0 F6000 X230.53 Y160.14
G1 F3480 X230.91 Y159.77 E821.55455
G0 F6000 X205.28 Y155.47
G0 X88.16 Y144.83
G1 F3480 X73.76 Y159.23 E822.40143
G0 F6000 X73.76 Y158.53
G1 F3480 X87.45 Y144.83 E823.20673
G0 F6000 X86.75 Y144.83
G1 F3480 X73.76 Y157.82 E823.97046
G0 F6000 X73.76 Y157.11
G1 F3480 X86.04 Y144.83 E824.69262
G0 F6000 X85.33 Y144.83
G1 F3480 X73.76 Y156.41 E825.37322
G0 F6000 X73.76 Y155.70
G1 F3480 X84.62 Y144.83 E826.01225
G0 F6000 X83.92 Y144.83
G1 F3480 X73.76 Y154.99 E826.60970
G0 F6000 X73.76 Y154.28
G1 F3480 X83.21 Y144.83 E827.16556
G0 F6000 X82.50 Y144.83
G1 F3480 X73.76 Y153.58 E827.67982
G0 F6000 X73.76 Y152.87
G1 F3480 X81.80 Y144.83 E828.15251
G0 F6000 X81.09 Y144.83
G1 F3480 X73.76 Y152.16 E828.58364
G0 F6000 X73.76 Y151.46
G1 F3480 X80.38 Y144.83 E828.97319
G0 F6000 X79.67 Y144.83
G1 F3480 X73.76 Y150.75 E829.32118
G0 F6000 X73.76 Y150.04
G1 F3480 X78.97 Y144.83 E829.62759
G0 F6000 X78.26 Y144.83
G1 F3480 X73.76 Y149.34 E829.89244
G0 F6000 X73.76 Y148.63
G1 F3480 X77.55 Y144.83 E830.11572
G0 F6000 X76.85 Y144.83
G1 F3480 X73.76 Y147.92 E830.29740
G0 F6000 X73.76 Y147.21
G1 F3480 X76.14 Y144.83 E830.43748
G0 F6000 X75.43 Y144.83
G1 F3480 X73.76 Y146.51 E830.53599
G0 F6000 X73.76 Y145.80
G1 F3480 X74.72 Y144.83 E830.59294
G0 F6000 X74.02 Y144.83
G1 F3480 X73.76 Y145.09 E830.60831
;LAYER:2
G0 F6000 X73.58 Y144.66 Z0.70
;TYPE:WALL-INNER
G1 F4320 X231.08 Y144.66 E837.15636
G1 X231.08 Y160.42 E837.81188
G1 X219.55 Y158.28 E838.29960
G1 X219.00 Y157.82 E838.32941
G1 X205.80 Y154.81 E838.89204
G1 X205.09 Y154.81 E838.92168
G1 X192.33 Y154.81 E839.45222
G1 X191.76 Y154.81 E839.47600
G1 X179.00 Y154.81 E840.00658
G1 X178.42 Y154.81 E840.03036
G1 X165.66 Y154.81 E840.56090
G1 X165.09 Y154.81 E840.58469
G1 X152.33 Y154.81 E841.11518
G1 X151.76 Y154.81 E841.13897
G1 X139.00 Y154.81 E841.66955
G1 X138.43 Y154.81 E841.69333
G1 X125.66 Y154.81 E842.22387
G1 X125.09 Y154.81 E842.24765
G1 X112.33 Y154.81 E842.77819
G1 X111.76 Y154.81 E842.80197
G1 X98.55 Y154.81 E843.35135
G1 X97.86 Y155.38 E843.38863
G1 X85.40 Y158.23 E843.91969
G1 X73.58 Y160.42 E844.41960
G1 X73.58 Y144.66 E845.07512
G0 F6000 X73.08 Y144.16
G1 F4320 X231.58 Y144.16 E851.66474
G1 X231.58 Y161.03 E852.36607
G1 X219.33 Y158.75 E852.88420
G1 X218.77 Y158.28 E852.91449
G1 X205.75 Y155.31 E853.46978
G1 X205.09 Y155.31 E853.49705
G1 X192.33 Y155.31 E854.02763
G1 X191.76 Y155.31 E854.05137
G1 X179.00 Y155.31 E854.58200
G1 X178.43 Y155.31 E854.60574
G1 X165.66 Y155.31 E855.13632
G1 X165.09 Y155.31 E855.16006
G1 X152.33 Y155.31 E855.69060
G1 X151.76 Y155.31 E855.71434
G1 X139.00 Y155.31 E856.24496
G1 X138.43 Y155.31 E856.26870
G1 X125.66 Y155.31 E856.79928
G1 X125.09 Y155.31 E856.82302
G1 X112.33 Y155.31 E857.35361
G1 X111.76 Y155.31 E857.37735
G1 X98.73 Y155.31 E857.91924
G1 X98.08 Y155.84 E857.95404
G1 X85.51 Y158.72 E858.49032
G1 X73.08 Y161.03 E859.01577
G1 X73.08 Y144.16 E859.71710
G0 F6000 X72.58 Y143.66
;TYPE:WALL-OUTER
G1 F4320 X232.08 Y143.66 E866.34830
G1 X232.08 Y161.63 E867.09540
G1 X219.11 Y159.22 E867.64407
G1 X218.54 Y158.74 E867.67473
G1 X205.69 Y155.81 E868.22265
G1 X98.91 Y155.81 E872.66226
G1 X98.31 Y156.31 E872.69443
G1 X85.61 Y159.21 E873.23607
G1 X72.58 Y161.63 E873.78707
G1 X72.58 Y143.66 E874.53418
G0 F6000 X72.93 Y143.92
G0 X73.77 Y144.83
;TYPE:FILL
G1 F4320 X86.69 Y157.75 E875.29388
G0 F6000 X87.26 Y157.62
G1 F4320 X74.47 Y144.83 E876.04588
G0 F6000 X75.18 Y144.83
G1 F4320 X87.84 Y157.49 E876.79018
G0 F6000 X88.42 Y157.36
G1 F4320 X75.89 Y144.83 E877.52672
G0 F6000 X76.59 Y144.83
G1 F4320 X88.99 Y157.23 E878.25556
G0 F6000 X89.57 Y157.09
G1 F4320 X77.30 Y144.83 E878.97664
G0 F6000 X78.01 Y144.83
G1 F4320 X90.14 Y156.96 E879.68998
G0 F6000 X90.72 Y156.83
G1 F4320 X78.72 Y144.83 E880.39560
G0 F6000 X79.42 Y144.83
G1 F4320 X91.29 Y156.70 E881.09348
G0 F6000 X91.87 Y156.57
G1 F4320 X80.13 Y144.83 E881.78363
G0 F6000 X80.84 Y144.83
G1 F4320 X92.44 Y156.44 E882.46607
G0 F6000 X93.02 Y156.31
G1 F4320 X81.55 Y144.83 E883.14076
G0 F6000 X82.25 Y144.83
G1 F4320 X93.60 Y156.18 E883.80774
G0 F6000 X94.17 Y156.04
G1 F4320 X82.96 Y144.83 E884.46702
G0 F6000 X83.67 Y144.83
G1 F4320 X94.75 Y155.91 E885.11857
G0 F6000 X95.32 Y155.78
G1 F4320 X84.37 Y144.83 E885.76236
G0 F6000 X85.08 Y144.83
G1 F4320 X95.90 Y155.65 E886.39842
G0 F6000 X96.47 Y155.52
G1 F4320 X85.79 Y144.83 E887.02674
G0 F6000 X86.50 Y144.83
G1 F4320 X97.05 Y155.39 E887.64734
G0 F6000 X97.62 Y155.25
G1 F4320 X87.20 Y144.83 E888.26020
G0 F6000 X87.91 Y144.83
G1 F4320 X98.06 Y154.98 E888.85710
G0 F6000 X98.45 Y154.66
G1 F4320 X88.62 Y144.83 E889.43507
G0 F6000 X89.32 Y144.83
G1 F4320 X99.12 Y154.63 E890.01139
G0 F6000 X99.83 Y154.63
G1 F4320 X90.03 Y144.83 E890.58771
G0 F6000 X90.74 Y144.83
G1 F4320 X100.54 Y154.63 E891.16400
G0 F6000 X101.25 Y154.63
G1 F4320 X91.44 Y144.83 E891.74032
G0 F6000 X92.15 Y144.83
G1 F4320 X101.95 Y154.63 E892.31664
G0 F6000 X102.66 Y154.63
G1 F4320 X92.86 Y144.83 E892.89296
G0 F6000 X93.57 Y144.83
G1 F4320 X103.37 Y154.63 E893.46928
G0 F6000 X104.08 Y154.63
G1 F4320 X94.27 Y144.83 E894.04560
G0 F6000 X94.98 Y144.83
G1 F4320 X104.78 Y154.63 E894.62192
G0 F6000 X105.49 Y154.63
G1 F4320 X95.69 Y144.83 E895.19824
G0 F6000 X96.39 Y144.83
G1 F4320 X106.20 Y154.63 E895.77456
G0 F6000 X106.90 Y154.63
G1 F4320 X97.10 Y144.83 E896.35085
G0 F6000 X97.81 Y144.83
G1 F4320 X107.61 Y154.63 E896.92717
G0 F6000 X108.32 Y154.63
G1 F4320 X98.52 Y144.83 E897.50349
G0 F6000 X99.22 Y144.83
G1 F4320 X109.03 Y154.63 E898.07981
G0 F6000 X109.73 Y154.63
G1 F4320 X99.93 Y144.83 E898.65613
G0 F6000 X100.64 Y144.83
G1 F4320 X110.44 Y154.63 E899.23245
G0 F6000 X111.15 Y154.63
G1 F4320 X101.34 Y144.83 E899.80877
G0 F6000 X102.05 Y144.83
G1 F4320 X111.85 Y154.63 E900.38509
G0 F6000 X112.56 Y154.63
G1 F4320 X102.76 Y144.83 E900.96141
G0 F6000 X103.47 Y144.83
G1 F4320 X113.27 Y154.63 E901.53773
G0 F6000 X113.97 Y154.63
G1 F4320 X104.17 Y144.83 E902.11405
G0 F6000 X104.88 Y144.83
G1 F4320 X114.68 Y154.63 E902.69037
G0 F6000 X115.39 Y154.63
G1 F4320 X105.59 Y144.83 E903.26669
G0 F6000 X106.29 Y144.83
G1 F4320 X116.10 Y154.63 E903.84301
G0 F6000 X116.80 Y154.63
G1 F4320 X107.00 Y144.83 E904.41933
G0 F6000 X107.71 Y144.83
G1 F4320 X117.51 Y154.63 E904.99565
G0 F6000 X118.22 Y154.63
G1 F4320 X108.42 Y144.83 E905.57197
G0 F6000 X109.12 Y144.83
G1 F4320 X118.92 Y154.63 E906.14829
G0 F6000 X119.63 Y154.63
G1 F4320 X109.83 Y144.83 E906.72461
G0 F6000 X110.54 Y144.83
G1 F4320 X120.34 Y154.63 E907.30090
G0 F6000 X121.05 Y154.63
G1 F4320 X111.24 Y144.83 E907.87722
G0 F6000 X111.95 Y144.83
G1 F4320 X121.75 Y154.63 E908.45354
G0 F6000 X122.46 Y154.63
G1 F4320 X112.66 Y144.83 E909.02986
G0 F6000 X113.36 Y144.83
G1 F4320 X123.17 Y154.63 E909.60618
G0 F6000 X123.87 Y154.63
G1 F4320 X114.07 Y144.83 E910.18250
G0 F6000 X114.78 Y144.83
G1 F4320 X124.58 Y154.63 E910.75882
G0 F6000 X125.29 Y154.63
G1 F4320 X115.49 Y144.83 E911.33514
G0 F6000 X116.19 Y144.83
G1 F4320 X126.00 Y154.63 E911.91146
G0 F6000 X126.70 Y154.63
G1 F4320 X116.90 Y144.83 E912.48775
G0 F6000 X117.61 Y144.83
G1 F4320 X127.41 Y154.63 E913.06407
G0 F6000 X128.12 Y154.63
G1 F4320 X118.31 Y144.83 E913.64039
G0 F6000 X119.02 Y144.83
G1 F4320 X128.82 Y154.63 E914.21671
G0 F6000 X129.53 Y154.63
G1 F4320 X119.73 Y144.83 E914.79303
G0 F6000 X120.44 Y144.83
G1 F4320 X130.24 Y154.63 E915.36935
G0 F6000 X130.94 Y154.63
G1 F4320 X121.14 Y144.83 E915.94567
G0 F6000 X121.85 Y144.83
G1 F4320 X131.65 Y154.63 E916.52199
G0 F6000 X132.36 Y154.63
G1 F4320 X122.56 Y144.83 E917.09831
G0 F6000 X123.26 Y144.83
G1 F4320 X133.07 Y154.63 E917.67463
G0 F6000 X133.77 Y154.63
G1 F4320 X123.97 Y144.83 E918.25092
G0 F6000 X124.68 Y144.83
G1 F4320 X134.48 Y154.63 E918.82724
G0 F6000 X135.19 Y154.63
G1 F4320 X125.39 Y144.83 E919.40356
G0 F6000 X126.09 Y144.83
G1 F4320 X135.90 Y154.63 E919.97988
G0 F6000 X136.60 Y154.63
G1 F4320 X126.80 Y144.83 E920.55620
G0 F6000 X127.51 Y144.83
G1 F4320 X137.31 Y154.63 E921.13252
G0 F6000 X138.02 Y154.63
G1 F4320 X128.21 Y144.83 E921.70884
G0 F6000 X128.92 Y144.83
G1 F4320 X138.72 Y154.63 E922.28516
G0 F6000 X139.43 Y154.63
G1 F4320 X129.63 Y144.83 E922.86148
G0 F6000 X130.34 Y144.83
G1 F4320 X140.14 Y154.63 E923.43777
G0 F6000 X140.84 Y154.63
G1 F4320 X131.04 Y144.83 E924.01409
G0 F6000 X131.75 Y144.83
G1 F4320 X141.55 Y154.63 E924.59041
G0 F6000 X142.26 Y154.63
G1 F4320 X132.46 Y144.83 E925.16673
G0 F6000 X133.16 Y144.83
G1 F4320 X142.97 Y154.63 E925.74305
G0 F6000 X143.67 Y154.63
G1 F4320 X133.87 Y144.83 E926.31937
G0 F6000 X134.58 Y144.83
G1 F4320 X144.38 Y154.63 E926.89569
G0 F6000 X145.09 Y154.63
G1 F4320 X135.28 Y144.83 E927.47201
G0 F6000 X135.99 Y144.83
G1 F4320 X145.79 Y154.63 E928.04833
G0 F6000 X146.50 Y154.63
G1 F4320 X136.70 Y144.83 E928.62462
G0 F6000 X137.41 Y144.83
G1 F4320 X147.21 Y154.63 E929.20094
G0 F6000 X147.92 Y154.63
G1 F4320 X138.11 Y144.83 E929.77726
G0 F6000 X138.82 Y144.83
G1 F4320 X148.62 Y154.63 E930.35358
G0 F6000 X149.33 Y154.63
G1 F4320 X139.53 Y144.83 E930.92990
G0 F6000 X140.24 Y144.83
G1 F4320 X150.04 Y154.63 E931.50622
G0 F6000 X150.74 Y154.63
G1 F4320 X140.94 Y144.83 E932.08254
G0 F6000 X141.65 Y144.83
G1 F4320 X151.45 Y154.63 E932.65886
G0 F6000 X152.16 Y154.63
G1 F4320 X142.36 Y144.83 E933.23518
G0 F6000 X143.06 Y144.83
G1 F4320 X152.87 Y154.63 E933.81150
G0 F6000 X153.57 Y154.63
G1 F4320 X143.77 Y144.83 E934.38779
G0 F6000 X144.48 Y144.83
G1 F4320 X154.28 Y154.63 E934.96411
G0 F6000 X154.99 Y154.63
G1 F4320 X145.19 Y144.83 E935.54043
G0 F6000 X145.89 Y144.83
G1 F4320 X155.69 Y154.63 E936.11675
G0 F6000 X156.40 Y154.63
G1 F4320 X146.60 Y144.83 E936.69307
G0 F6000 X147.31 Y144.83
G1 F4320 X157.11 Y154.63 E937.26939
G0 F6000 X157.81 Y154.63
G1 F4320 X148.01 Y144.83 E937.84571
G0 F6000 X148.72 Y144.83
G1 F4320 X158.52 Y154.63 E938.42203
G0 F6000 X159.23 Y154.63
G1 F4320 X149.43 Y144.83 E938.99835
G0 F6000 X150.13 Y144.83
G1 F4320 X159.94 Y154.63 E939.57464
G0 F6000 X160.64 Y154.63
G1 F4320 X150.84 Y144.83 E940.15096
G0 F6000 X151.55 Y144.83
G1 F4320 X161.35 Y154.63 E940.72728
G0 F6000 X162.06 Y154.63
G1 F4320 X152.26 Y144.83 E941.30360
G0 F6000 X152.96 Y144.83
G1 F4320 X162.76 Y154.63 E941.87992
G0 F6000 X163.47 Y154.63
G1 F4320 X153.67 Y144.83 E942.45624
G0 F6000 X154.38 Y144.83
G1 F4320 X164.18 Y154.63 E943.03256
G0 F6000 X164.89 Y154.63
G1 F4320 X155.08 Y144.83 E943.60888
G0 F6000 X155.79 Y144.83
G1 F4320 X165.59 Y154.63 E944.18520
G0 F6000 X166.30 Y154.63
G1 F4320 X156.50 Y144.83 E944.76152
G0 F6000 X157.21 Y144.83
G1 F4320 X167.01 Y154.63 E945.33784
G0 F6000 X167.72 Y154.63
G1 F4320 X157.91 Y144.83 E945.91416
G0 F6000 X158.62 Y144.83
G1 F4320 X168.42 Y154.63 E946.49048
G0 F6000 X169.13 Y154.63
G1 F4320 X159.33 Y144.83 E947.06680
G0 F6000 X160.03 Y144.83
G1 F4320 X169.84 Y154.63 E947.64312
G0 F6000 X170.54 Y154.63
G1 F4320 X160.74 Y144.83 E948.21944
G0 F6000 X161.45 Y144.83
G1 F4320 X171.25 Y154.63 E948.79576
G0 F6000 X171.96 Y154.63
G1 F4320 X162.16 Y144.83 E949.37208
G0 F6000 X162.86 Y144.83
G1 F4320 X172.66 Y154.63 E949.94840
G0 F6000 X173.37 Y154.63
G1 F4320 X163.57 Y144.83 E950.52469
G0 F6000 X164.28 Y144.83
G1 F4320 X174.08 Y154.63 E951.10101
G0 F6000 X174.79 Y154.63
G1 F4320 X164.98 Y144.83 E951.67733
G0 F6000 X165.69 Y144.83
G1 F4320 X175.49 Y154.63 E952.25365
G0 F6000 X176.20 Y154.63
G1 F4320 X166.40 Y144.83 E952.82997
G0 F6000 X167.10 Y144.83
G1 F4320 X176.91 Y154.63 E953.40630
G0 F6000 X177.61 Y154.63
G1 F4320 X167.81 Y144.83 E953.98262
G0 F6000 X168.52 Y144.83
G1 F4320 X178.32 Y154.63 E954.55894
G0 F6000 X179.03 Y154.63
G1 F4320 X169.23 Y144.83 E955.13526
G0 F6000 X169.93 Y144.83
G1 F4320 X179.74 Y154.63 E955.71155
G0 F6000 X180.44 Y154.63
G1 F4320 X170.64 Y144.83 E956.28787
G0 F6000 X171.35 Y144.83
G1 F4320 X181.15 Y154.63 E956.86419
G0 F6000 X181.86 Y154.63
G1 F4320 X172.06 Y144.83 E957.44051
G0 F6000 X172.76 Y144.83
G1 F4320 X182.56 Y154.63 E958.01683
G0 F6000 X183.27 Y154.63
G1 F4320 X173.47 Y144.83 E958.59315
G0 F6000 X174.18 Y144.83
G1 F4320 X183.98 Y154.63 E959.16947
G0 F6000 X184.69 Y154.63
G1 F4320 X174.88 Y144.83 E959.74579
G0 F6000 X175.59 Y144.83
G1 F4320 X185.39 Y154.63 E960.32211
G0 F6000 X186.10 Y154.63
G1 F4320 X176.30 Y144.83 E960.89843
G0 F6000 X177.00 Y144.83
G1 F4320 X186.81 Y154.63 E961.47475
G0 F6000 X187.51 Y154.63
G1 F4320 X177.71 Y144.83 E962.05107
G0 F6000 X178.42 Y144.83
G1 F4320 X188.22 Y154.63 E962.62739
G0 F6000 X188.93 Y154.63
G1 F4320 X179.13 Y144.83 E963.20371
G0 F6000 X179.83 Y144.83
G1 F4320 X189.63 Y154.63 E963.78003
G0 F6000 X190.34 Y154.63
G1 F4320 X180.54 Y144.83 E964.35635
G0 F6000 X181.25 Y144.83
G1 F4320 X191.05 Y154.63 E964.93267
G0 F6000 X191.76 Y154.63
G1 F4320 X181.95 Y144.83 E965.50899
G0 F6000 X182.66 Y144.83
G1 F4320 X192.46 Y154.63 E966.08531
G0 F6000 X193.17 Y154.63
G1 F4320 X183.37 Y144.83 E966.66160
G0 F6000 X184.08 Y144.83
G1 F4320 X193.88 Y154.63 E967.23792
G0 F6000 X194.59 Y154.63
G1 F4320 X184.78 Y144.83 E967.81424
G0 F6000 X185.49 Y144.83
G1 F4320 X195.29 Y154.63 E968.39056
G0 F6000 X196.00 Y154.63
G1 F4320 X186.20 Y144.83 E968.96688
G0 F6000 X186.90 Y144.83
G1 F4320 X196.71 Y154.63 E969.54320
G0 F6000 X197.41 Y154.63
G1 F4320 X187.61 Y144.83 E970.11952
G0 F6000 X188.32 Y144.83
G1 F4320 X198.12 Y154.63 E970.69584
G0 F6000 X198.83 Y154.63
G1 F4320 X189.03 Y144.83 E971.27216
G0 F6000 X189.73 Y144.83
G1 F4320 X199.53 Y154.63 E971.84845
G0 F6000 X200.24 Y154.63
G1 F4320 X190.44 Y144.83 E972.42477
G0 F6000 X191.15 Y144.83
G1 F4320 X200.95 Y154.63 E973.00109
G0 F6000 X201.66 Y154.63
G1 F4320 X191.85 Y144.83 E973.57741
G0 F6000 X192.56 Y144.83
G1 F4320 X202.36 Y154.63 E974.15373
G0 F6000 X203.07 Y154.63
G1 F4320 X193.27 Y144.83 E974.73005
G0 F6000 X193.97 Y144.83
G1 F4320 X203.78 Y154.63 E975.30637
G0 F6000 X204.48 Y154.63
G1 F4320 X194.68 Y144.83 E975.88269
G0 F6000 X195.39 Y144.83
G1 F4320 X205.19 Y154.63 E976.45901
G0 F6000 X205.92 Y154.66
G1 F4320 X196.10 Y144.83 E977.03668
G0 F6000 X196.80 Y144.83
G1 F4320 X206.84 Y154.87 E977.62667
G0 F6000 X207.75 Y155.07
G1 F4320 X197.51 Y144.83 E978.22898
G0 F6000 X198.22 Y144.83
G1 F4320 X208.67 Y155.28 E978.84357
G0 F6000 X209.59 Y155.49
G1 F4320 X198.93 Y144.83 E979.47049
G0 F6000 X199.63 Y144.83
G1 F4320 X210.50 Y155.70 E980.10972
G0 F6000 X211.42 Y155.91
G1 F4320 X200.34 Y144.83 E980.76124
G0 F6000 X201.05 Y144.83
G1 F4320 X212.34 Y156.12 E981.42511
G0 F6000 X213.25 Y156.33
G1 F4320 X201.75 Y144.83 E982.10126
G0 F6000 X202.46 Y144.83
G1 F4320 X214.17 Y156.54 E982.78971
G0 F6000 X215.09 Y156.75
G1 F4320 X203.17 Y144.83 E983.49047
G0 F6000 X203.88 Y144.83
G1 F4320 X216.00 Y156.96 E984.20352
G0 F6000 X216.92 Y157.17
G1 F4320 X204.58 Y144.83 E984.92889
G0 F6000 X205.29 Y144.83
G1 F4320 X217.84 Y157.38 E985.66655
G0 F6000 X218.75 Y157.59
G1 F4320 X206.00 Y144.83 E986.41652
G0 F6000 X206.70 Y144.83
G1 F4320 X220.07 Y158.20 E987.20263
G0 F6000 X220.94 Y158.36
G1 F4320 X207.41 Y144.83 E987.99820
G0 F6000 X208.12 Y144.83
G1 F4320 X221.81 Y158.52 E988.80329
G0 F6000 X222.68 Y158.69
G1 F4320 X208.82 Y144.83 E989.61786
G0 F6000 X209.53 Y144.83
G1 F4320 X223.55 Y158.85 E990.44185
G0 F6000 X224.41 Y159.01
G1 F4320 X210.24 Y144.83 E991.27535
G0 F6000 X210.95 Y144.83
G1 F4320 X225.28 Y159.17 E992.11834
G0 F6000 X226.15 Y159.33
G1 F4320 X211.65 Y144.83 E992.97079
G0 F6000 X212.36 Y144.83
G1 F4320 X227.02 Y159.49 E993.83275
G0 F6000 X227.89 Y159.65
G1 F4320 X213.07 Y144.83 E994.70416
G0 F6000 X213.77 Y144.83
G1 F4320 X228.76 Y159.81 E995.58505
G0 F6000 X229.62 Y159.97
G1 F4320 X214.48 Y144.83 E996.47540
G0 F6000 X215.19 Y144.83
G1 F4320 X230.49 Y160.13 E997.37522
G0 F6000 X230.91 Y159.84
G1 F4320 X215.90 Y144.83 E998.25772
G0 F6000 X216.60 Y144.83
G1 F4320 X230.91 Y159.13 E999.09862
G0 F6000 X230.91 Y158.43
G1 F4320 X217.31 Y144.83 E999.89795
G0 F6000 X218.02 Y144.83
G1 F4320 X230.91 Y157.72 E1000.65572
G0 F6000 X230.91 Y157.01
G1 F4320 X218.72 Y144.83 E1001.37191
G0 F6000 X219.43 Y144.83
G1 F4320 X230.91 Y156.31 E1002.04654
G0 F6000 X230.91 Y155.60
G1 F4320 X220.14 Y144.83 E1002.67960
G0 F6000 X220.84 Y144.83
G1 F4320 X230.91 Y154.89 E1003.27109
G0 F6000 X230.91 Y154.18
G1 F4320 X221.55 Y144.83 E1003.82098
G0 F6000 X222.26 Y144.83
G1 F4320 X230.91 Y153.48 E1004.32930
G0 F6000 X230.91 Y152.77
G1 F4320 X222.97 Y144.83 E1004.79603
G0 F6000 X223.67 Y144.83
G1 F4320 X230.91 Y152.06 E1005.22118
G0 F6000 X230.91 Y151.35
G1 F4320 X224.38 Y144.83 E1005.60477
G0 F6000 X225.09 Y144.83
G1 F4320 X230.91 Y150.65 E1005.94679
G0 F6000 X230.91 Y149.94
G1 F4320 X225.79 Y144.83 E1006.24723
G0 F6000 X226.50 Y144.83
G1 F4320 X230.91 Y149.23 E1006.50611
G0 F6000 X230.91 Y148.53
G1 F4320 X227.21 Y144.83 E1006.72342
G0 F6000 X227.92 Y144.83
G1 F4320 X230.91 Y147.82 E1006.89914
G0 F6000 X230.91 Y147.11
G1 F4320 X228.62 Y144.83 E1007.03328
G0 F6000 X229.33 Y144.83
G1 F4320 X230.91 Y146.41 E1007.12585
G0 F6000 X230.91 Y145.70
G1 F4320 X230.04 Y144.83 E1007.17683
G0 F6000 X230.75 Y144.83
G1 F4320 X230.91 Y144.99 E1007.18624
G0 F6000 X98.75 Y155.37
G0 X86.11 Y157.88
G1 F4320 X73.76 Y145.53 E1007.91272
G0 F6000 X73.76 Y146.24
G1 F4320 X85.54 Y158.01 E1008.60537
G0 F6000 X84.95 Y158.13
G1 F4320 X73.76 Y146.94 E1009.26330
G0 F6000 X73.76 Y147.65
G1 F4320 X84.35 Y158.24 E1009.88619
G0 F6000 X83.75 Y158.35
G1 F4320 X73.76 Y148.36 E1010.47403
G0 F6000 X73.76 Y149.06
G1 F4320 X83.16 Y158.46 E1011.02677
G0 F6000 X82.56 Y158.57
G1 F4320 X73.76 Y149.77 E1011.54447
G0 F6000 X73.76 Y150.48
G1 F4320 X81.97 Y158.69 E1012.02713
G0 F6000 X81.37 Y158.80
G1 F4320 X73.76 Y151.19 E1012.47469
G0 F6000 X73.76 Y151.89
G1 F4320 X80.77 Y158.91 E1012.88720
G0 F6000 X80.18 Y159.02
G1 F4320 X73.76 Y152.60 E1013.26467
G0 F6000 X73.76 Y153.31
G1 F4320 X79.58 Y159.13 E1013.60704
G0 F6000 X78.98 Y159.24
G1 F4320 X73.76 Y154.01 E1013.91437
G0 F6000 X73.76 Y154.72
G1 F4320 X78.39 Y159.35 E1014.18666
G0 F6000 X77.79 Y159.46
G1 F4320 X73.76 Y155.43 E1014.42384
G0 F6000 X73.76 Y156.13
G1 F4320 X77.19 Y159.57 E1014.62598
G0 F6000 X76.60 Y159.68
G1 F4320 X73.76 Y156.84 E1014.79308
G0 F6000 X73.76 Y157.55
G1 F4320 X76.00 Y159.79 E1014.92508
G0 F6000 X75.41 Y159.91
G1 F4320 X73.76 Y158.26 E1015.02203
G0 F6000 X73.76 Y158.96
G1 F4320 X74.81 Y160.02 E1015.08395
G0 F6000 X74.21 Y160.13
G1 F4320 X73.76 Y159.67 E1015.11076
;LAYER:3
G0 F6000 X73.58 Y160.42 Z0.90
;TYPE:WALL-INNER
G1 F5160 X73.58 Y144.66 E1015.76627
G1 X231.08 Y144.66 E1022.31432
G1 X231.08 Y160.42 E1022.96984
G1 X219.55 Y158.28 E1023.45752
G1 X218.81 Y157.66 E1023.49766
G1 X205.80 Y154.69 E1024.05219
G1 X204.90 Y154.69 E1024.08973
G1 X192.33 Y154.69 E1024.61237
G1 X191.57 Y154.69 E1024.64405
G1 X179.00 Y154.69 E1025.16673
G1 X178.23 Y154.69 E1025.19842
G1 X165.66 Y154.69 E1025.72106
G1 X164.90 Y154.69 E1025.75274
G1 X152.33 Y154.69 E1026.27534
G1 X151.57 Y154.69 E1026.30702
G1 X139.00 Y154.69 E1026.82970
G1 X138.24 Y154.69 E1026.86138
G1 X125.66 Y154.69 E1027.38402
G1 X124.90 Y154.69 E1027.41570
G1 X112.33 Y154.69 E1027.93834
G1 X111.57 Y154.69 E1027.97002
G1 X98.54 Y154.69 E1028.51154
G1 X97.67 Y155.43 E1028.55915
G1 X85.40 Y158.23 E1029.08206
G1 X73.58 Y160.42 E1029.58197
G0 F6000 X73.08 Y161.03
G1 F5160 X73.08 Y144.16 E1030.28330
G1 X231.58 Y144.16 E1036.87293
G1 X231.58 Y161.03 E1037.57426
G1 X219.33 Y158.75 E1038.09243
G1 X218.58 Y158.12 E1038.13298
G1 X205.75 Y155.19 E1038.68018
G1 X204.90 Y155.19 E1038.71535
G1 X192.33 Y155.19 E1039.23799
G1 X191.57 Y155.19 E1039.26967
G1 X179.00 Y155.19 E1039.79235
G1 X178.24 Y155.19 E1039.82403
G1 X165.66 Y155.19 E1040.34668
G1 X164.90 Y155.19 E1040.37836
G1 X152.33 Y155.19 E1040.90096
G1 X151.57 Y155.19 E1040.93264
G1 X139.00 Y155.19 E1041.45532
G1 X138.24 Y155.19 E1041.48700
G1 X125.67 Y155.19 E1042.00964
G1 X124.90 Y155.19 E1042.04132
G1 X112.33 Y155.19 E1042.56396
G1 X111.57 Y155.19 E1042.59564
G1 X98.73 Y155.19 E1043.12963
G1 X97.89 Y155.89 E1043.17473
G1 X85.51 Y158.72 E1043.70294
G1 X73.08 Y161.03 E1044.22839
G0 F6000 X72.58 Y161.63
;TYPE:WALL-OUTER
G1 F5160 X72.58 Y143.66 E1044.97550
G1 X232.08 Y143.66 E1051.60670
G1 X232.08 Y161.63 E1052.35380
G1 X219.11 Y159.22 E1052.90247
G1 X218.35 Y158.59 E1052.94343
G1 X205.69 Y155.69 E1053.48325
G1 X98.91 Y155.69 E1057.92286
G1 X98.12 Y156.35 E1057.96536
G1 X85.61 Y159.21 E1058.49889
G1 X72.58 Y161.63 E1059.04989
G0 F6000 X73.76 Y159.94
;TYPE:FILL
G1 F5160 X88.87 Y144.83 E1059.93833
G0 F6000 X89.57 Y144.83
G1 F5160 X74.29 Y160.11 E1060.83679
G0 F6000 X75.16 Y159.95
G1 F5160 X90.28 Y144.83 E1061.72579
G0 F6000 X90.99 Y144.83
G1 F5160 X76.03 Y159.79 E1062.60529
G0 F6000 X76.90 Y159.63
G1 F5160 X91.70 Y144.83 E1063.47533
G0 F6000 X92.40 Y144.83
G1 F5160 X77.77 Y159.47 E1064.33590
G0 F6000 X78.64 Y159.31
G1 F5160 X93.11 Y144.83 E1065.18697
G0 F6000 X93.82 Y144.83
G1 F5160 X79.50 Y159.14 E1066.02855
G0 F6000 X80.37 Y158.98
G1 F5160 X94.52 Y144.83 E1066.86064
G0 F6000 X95.23 Y144.83
G1 F5160 X81.24 Y158.82 E1067.68322
G0 F6000 X82.11 Y158.66
G1 F5160 X95.94 Y144.83 E1068.49632
G0 F6000 X96.64 Y144.83
G1 F5160 X82.98 Y158.50 E1069.29994
G0 F6000 X83.84 Y158.34
G1 F5160 X97.35 Y144.83 E1070.09413
G0 F6000 X98.06 Y144.83
G1 F5160 X84.71 Y158.18 E1070.87880
G0 F6000 X85.59 Y158.00
G1 F5160 X98.77 Y144.83 E1071.65329
G0 F6000 X99.47 Y144.83
G1 F5160 X86.51 Y157.79 E1072.41549
G0 F6000 X87.43 Y157.59
G1 F5160 X100.18 Y144.83 E1073.16538
G0 F6000 X100.89 Y144.83
G1 F5160 X88.34 Y157.38 E1073.90295
G0 F6000 X89.26 Y157.17
G1 F5160 X101.59 Y144.83 E1074.62820
G0 F6000 X102.30 Y144.83
G1 F5160 X90.18 Y156.96 E1075.34116
G0 F6000 X91.09 Y156.75
G1 F5160 X103.01 Y144.83 E1076.04178
G0 F6000 X103.72 Y144.83
G1 F5160 X92.01 Y156.54 E1076.73013
G0 F6000 X92.92 Y156.33
G1 F5160 X104.42 Y144.83 E1077.40620
G0 F6000 X105.13 Y144.83
G1 F5160 X93.84 Y156.12 E1078.06998
G0 F6000 X94.76 Y155.91
G1 F5160 X105.84 Y144.83 E1078.72147
G0 F6000 X106.55 Y144.83
G1 F5160 X95.67 Y155.70 E1079.36064
G0 F6000 X96.59 Y155.49
G1 F5160 X107.25 Y144.83 E1079.98750
G0 F6000 X107.96 Y144.83
G1 F5160 X97.51 Y155.28 E1080.60204
G0 F6000 X98.98 Y154.52
G1 F5160 X108.67 Y144.83 E1081.17159
G0 F6000 X109.37 Y144.83
G1 F5160 X99.69 Y154.52 E1081.74115
G0 F6000 X100.39 Y154.52
G1 F5160 X110.08 Y144.83 E1082.31071
G0 F6000 X110.79 Y144.83
G1 F5160 X101.10 Y154.52 E1082.88030
G0 F6000 X101.81 Y154.52
G1 F5160 X111.50 Y144.83 E1083.44989
G0 F6000 X112.20 Y144.83
G1 F5160 X102.51 Y154.52 E1084.01948
G0 F6000 X103.22 Y154.52
G1 F5160 X112.91 Y144.83 E1084.58903
G0 F6000 X113.62 Y144.83
G1 F5160 X103.93 Y154.52 E1085.15859
G0 F6000 X104.64 Y154.52
G1 F5160 X114.32 Y144.83 E1085.72815
G0 F6000 X115.03 Y144.83
G1 F5160 X105.34 Y154.52 E1086.29771
G0 F6000 X106.05 Y154.52
G1 F5160 X115.74 Y144.83 E1086.86727
G0 F6000 X116.44 Y144.83
G1 F5160 X106.76 Y154.52 E1087.43683
G0 F6000 X107.46 Y154.52
G1 F5160 X117.15 Y144.83 E1088.00641
G0 F6000 X117.86 Y144.83
G1 F5160 X108.17 Y154.52 E1088.57600
G0 F6000 X108.88 Y154.52
G1 F5160 X118.57 Y144.83 E1089.14559
G0 F6000 X119.27 Y144.83
G1 F5160 X109.58 Y154.52 E1089.71518
G0 F6000 X110.29 Y154.52
G1 F5160 X119.98 Y144.83 E1090.28474
G0 F6000 X120.69 Y144.83
G1 F5160 X111.00 Y154.52 E1090.85429
G0 F6000 X111.71 Y154.52
G1 F5160 X121.39 Y144.83 E1091.42385
G0 F6000 X122.10 Y144.83
G1 F5160 X112.41 Y154.52 E1091.99341
G0 F6000 X113.12 Y154.52
G1 F5160 X122.81 Y144.83 E1092.56297
G0 F6000 X123.52 Y144.83
G1 F5160 X113.83 Y154.52 E1093.13253
G0 F6000 X114.53 Y154.52
G1 F5160 X124.22 Y144.83 E1093.70212
G0 F6000 X124.93 Y144.83
G1 F5160 X115.24 Y154.52 E1094.27170
G0 F6000 X115.95 Y154.52
G1 F5160 X125.64 Y144.83 E1094.84129
G0 F6000 X126.34 Y144.83
G1 F5160 X116.66 Y154.52 E1095.41085
G0 F6000 X117.36 Y154.52
G1 F5160 X127.05 Y144.83 E1095.98041
G0 F6000 X127.76 Y144.83
G1 F5160 X118.07 Y154.52 E1096.54997
G0 F6000 X118.78 Y154.52
G1 F5160 X128.47 Y144.83 E1097.11953
G0 F6000 X129.17 Y144.83
G1 F5160 X119.48 Y154.52 E1097.68908
G0 F6000 X120.19 Y154.52
G1 F5160 X129.88 Y144.83 E1098.25864
G0 F6000 X130.59 Y144.83
G1 F5160 X120.90 Y154.52 E1098.82823
G0 F6000 X121.61 Y154.52
G1 F5160 X131.29 Y144.83 E1099.39782
G0 F6000 X132.00 Y144.83
G1 F5160 X122.31 Y154.52 E1099.96741
G0 F6000 X123.02 Y154.52
G1 F5160 X132.71 Y144.83 E1100.53697
G0 F6000 X133.41 Y144.83
G1 F5160 X123.73 Y154.52 E1101.10652
G0 F6000 X124.44 Y154.52
G1 F5160 X134.12 Y144.83 E1101.67608
G0 F6000 X134.83 Y144.83
G1 F5160 X125.14 Y154.52 E1102.24564
G0 F6000 X125.85 Y154.52
G1 F5160 X135.54 Y144.83 E1102.81520
G0 F6000 X136.24 Y144.83
G1 F5160 X126.56 Y154.52 E1103.38476
G0 F6000 X127.26 Y154.52
G1 F5160 X136.95 Y144.83 E1103.95435
G0 F6000 X137.66 Y144.83
G1 F5160 X127.97 Y154.52 E1104.52393
G0 F6000 X128.68 Y154.52
G1 F5160 X138.37 Y144.83 E1105.09352
G0 F6000 X139.07 Y144.83
G1 F5160 X129.38 Y154.52 E1105.66311
G0 F6000 X130.09 Y154.52
G1 F5160 X139.78 Y144.83 E1106.23267
G0 F6000 X140.49 Y144.83
G1 F5160 X130.80 Y154.52 E1106.80223
G0 F6000 X131.51 Y154.52
G1 F5160 X141.19 Y144.83 E1107.37178
G0 F6000 X141.90 Y144.83
G1 F5160 X132.21 Y154.52 E1107.94134
G0 F6000 X132.92 Y154.52
G1 F5160 X142.61 Y144.83 E1108.51090
G0 F6000 X143.31 Y144.83
G1 F5160 X133.63 Y154.52 E1109.08046
G0 F6000 X134.33 Y154.52
G1 F5160 X144.02 Y144.83 E1109.65005
G0 F6000 X144.73 Y144.83
G1 F5160 X135.04 Y154.52 E1110.21964
G0 F6000 X135.75 Y154.52
G1 F5160 X145.44 Y144.83 E1110.78922
G0 F6000 X146.14 Y144.83
G1 F5160 X136.46 Y154.52 E1111.35878
G0 F6000 X137.16 Y154.52
G1 F5160 X146.85 Y144.83 E1111.92834
G0 F6000 X147.56 Y144.83
G1 F5160 X137.87 Y154.52 E1112.49790
G0 F6000 X138.58 Y154.52
G1 F5160 X148.26 Y144.83 E1113.06746
G0 F6000 X148.97 Y144.83
G1 F5160 X139.28 Y154.52 E1113.63702
G0 F6000 X139.99 Y154.52
G1 F5160 X149.68 Y144.83 E1114.20657
G0 F6000 X150.39 Y144.83
G1 F5160 X140.70 Y154.52 E1114.77616
G0 F6000 X141.41 Y154.52
G1 F5160 X151.09 Y144.83 E1115.34575
G0 F6000 X151.80 Y144.83
G1 F5160 X142.11 Y154.52 E1115.91534
G0 F6000 X142.82 Y154.52
G1 F5160 X152.51 Y144.83 E1116.48490
G0 F6000 X153.21 Y144.83
G1 F5160 X143.53 Y154.52 E1117.05445
G0 F6000 X144.23 Y154.52
G1 F5160 X153.92 Y144.83 E1117.62401
G0 F6000 X154.63 Y144.83
G1 F5160 X144.94 Y154.52 E1118.19357
G0 F6000 X145.65 Y154.52
G1 F5160 X155.34 Y144.83 E1118.76313
G0 F6000 X156.04 Y144.83
G1 F5160 X146.35 Y154.52 E1119.33269
G0 F6000 X147.06 Y154.52
G1 F5160 X156.75 Y144.83 E1119.90228
G0 F6000 X157.46 Y144.83
G1 F5160 X147.77 Y154.52 E1120.47186
G0 F6000 X148.48 Y154.52
G1 F5160 X158.16 Y144.83 E1121.04145
G0 F6000 X158.87 Y144.83
G1 F5160 X149.18 Y154.52 E1121.61104
G0 F6000 X149.89 Y154.52
G1 F5160 X159.58 Y144.83 E1122.18060
G0 F6000 X160.28 Y144.83
G1 F5160 X150.60 Y154.52 E1122.75016
G0 F6000 X151.31 Y154.52
G1 F5160 X160.99 Y144.83 E1123.31972
G0 F6000 X161.70 Y144.83
G1 F5160 X152.01 Y154.52 E1123.88927
G0 F6000 X152.72 Y154.52
G1 F5160 X162.41 Y144.83 E1124.45883
G0 F6000 X163.11 Y144.83
G1 F5160 X153.43 Y154.52 E1125.02839
G0 F6000 X154.13 Y154.52
G1 F5160 X163.82 Y144.83 E1125.59798
G0 F6000 X164.53 Y144.83
G1 F5160 X154.84 Y154.52 E1126.16757
G0 F6000 X155.55 Y154.52
G1 F5160 X165.24 Y144.83 E1126.73715
G0 F6000 X165.94 Y144.83
G1 F5160 X156.25 Y154.52 E1127.30671
G0 F6000 X156.96 Y154.52
G1 F5160 X166.65 Y144.83 E1127.87627
G0 F6000 X167.36 Y144.83
G1 F5160 X157.67 Y154.52 E1128.44583
G0 F6000 X158.38 Y154.52
G1 F5160 X168.06 Y144.83 E1129.01539
G0 F6000 X168.77 Y144.83
G1 F5160 X159.08 Y154.52 E1129.58495
G0 F6000 X159.79 Y154.52
G1 F5160 X169.48 Y144.83 E1130.15451
G0 F6000 X170.19 Y144.83
G1 F5160 X160.50 Y154.52 E1130.72409
G0 F6000 X161.20 Y154.52
G1 F5160 X170.89 Y144.83 E1131.29368
G0 F6000 X171.60 Y144.83
G1 F5160 X161.91 Y154.52 E1131.86327
G0 F6000 X162.62 Y154.52
G1 F5160 X172.31 Y144.83 E1132.43283
G0 F6000 X173.01 Y144.83
G1 F5160 X163.33 Y154.52 E1133.00239
G0 F6000 X164.03 Y154.52
G1 F5160 X173.72 Y144.83 E1133.57194
G0 F6000 X174.43 Y144.83
G1 F5160 X164.74 Y154.52 E1134.14150
G0 F6000 X165.45 Y154.52
G1 F5160 X175.13 Y144.83 E1134.71106
G0 F6000 X175.84 Y144.83
G1 F5160 X166.15 Y154.52 E1135.28062
G0 F6000 X166.86 Y154.52
G1 F5160 X176.55 Y144.83 E1135.85021
G0 F6000 X177.26 Y144.83
G1 F5160 X167.57 Y154.52 E1136.41980
G0 F6000 X168.28 Y154.52
G1 F5160 X177.96 Y144.83 E1136.98938
G0 F6000 X178.67 Y144.83
G1 F5160 X168.98 Y154.52 E1137.55897
G0 F6000 X169.69 Y154.52
G1 F5160 X179.38 Y144.83 E1138.12853
G0 F6000 X180.08 Y144.83
G1 F5160 X170.40 Y154.52 E1138.69809
G0 F6000 X171.10 Y154.52
G1 F5160 X180.79 Y144.83 E1139.26765
G0 F6000 X181.50 Y144.83
G1 F5160 X171.81 Y154.52 E1139.83721
G0 F6000 X172.52 Y154.52
G1 F5160 X182.21 Y144.83 E1140.40676
G0 F6000 X182.91 Y144.83
G1 F5160 X173.22 Y154.52 E1140.97632
G0 F6000 X173.93 Y154.52
G1 F5160 X183.62 Y144.83 E1141.54591
G0 F6000 X184.33 Y144.83
G1 F5160 X174.64 Y154.52 E1142.11550
G0 F6000 X175.35 Y154.52
G1 F5160 X185.03 Y144.83 E1142.68509
G0 F6000 X185.74 Y144.83
G1 F5160 X176.05 Y154.52 E1143.25464
G0 F6000 X176.76 Y154.52
G1 F5160 X186.45 Y144.83 E1143.82420
G0 F6000 X187.16 Y144.83
G1 F5160 X177.47 Y154.52 E1144.39376
G0 F6000 X178.18 Y154.52
G1 F5160 X187.86 Y144.83 E1144.96332
G0 F6000 X188.57 Y144.83
G1 F5160 X178.88 Y154.52 E1145.53288
G0 F6000 X179.59 Y154.52
G1 F5160 X189.28 Y144.83 E1146.10244
G0 F6000 X189.98 Y144.83
G1 F5160 X180.30 Y154.52 E1146.67202
G0 F6000 X181.00 Y154.52
G1 F5160 X190.69 Y144.83 E1147.24161
G0 F6000 X191.40 Y144.83
G1 F5160 X181.71 Y154.52 E1147.81120
G0 F6000 X182.42 Y154.52
G1 F5160 X192.10 Y144.83 E1148.38079
G0 F6000 X192.81 Y144.83
G1 F5160 X183.12 Y154.52 E1148.95035
G0 F6000 X183.83 Y154.52
G1 F5160 X193.52 Y144.83 E1149.51991
G0 F6000 X194.23 Y144.83
G1 F5160 X184.54 Y154.52 E1150.08946
G0 F6000 X185.25 Y154.52
G1 F5160 X194.93 Y144.83 E1150.65902
G0 F6000 X195.64 Y144.83
G1 F5160 X185.95 Y154.52 E1151.22858
G0 F6000 X186.66 Y154.52
G1 F5160 X196.35 Y144.83 E1151.79814
G0 F6000 X197.06 Y144.83
G1 F5160 X187.37 Y154.52 E1152.36773
G0 F6000 X188.07 Y154.52
G1 F5160 X197.76 Y144.83 E1152.93732
G0 F6000 X198.47 Y144.83
G1 F5160 X188.78 Y154.52 E1153.50690
G0 F6000 X189.49 Y154.52
G1 F5160 X199.18 Y144.83 E1154.07646
G0 F6000 X199.88 Y144.83
G1 F5160 X190.20 Y154.52 E1154.64602
G0 F6000 X190.90 Y154.52
G1 F5160 X200.59 Y144.83 E1155.21558
G0 F6000 X201.30 Y144.83
G1 F5160 X191.61 Y154.52 E1155.78514
G0 F6000 X192.32 Y154.52
G1 F5160 X202.00 Y144.83 E1156.35470
G0 F6000 X202.71 Y144.83
G1 F5160 X193.02 Y154.52 E1156.92425
G0 F6000 X193.73 Y154.52
G1 F5160 X203.42 Y144.83 E1157.49384
G0 F6000 X204.13 Y144.83
G1 F5160 X194.44 Y154.52 E1158.06343
G0 F6000 X195.15 Y154.52
G1 F5160 X204.83 Y144.83 E1158.63302
G0 F6000 X205.54 Y144.83
G1 F5160 X195.85 Y154.52 E1159.20258
G0 F6000 X196.56 Y154.52
G1 F5160 X206.25 Y144.83 E1159.77213
G0 F6000 X206.95 Y144.83
G1 F5160 X197.27 Y154.52 E1160.34169
G0 F6000 X197.97 Y154.52
G1 F5160 X207.66 Y144.83 E1160.91125
G0 F6000 X208.37 Y144.83
G1 F5160 X198.68 Y154.52 E1161.48081
G0 F6000 X199.39 Y154.52
G1 F5160 X209.07 Y144.83 E1162.05037
G0 F6000 X209.78 Y144.83
G1 F5160 X200.09 Y154.52 E1162.61996
G0 F6000 X200.80 Y154.52
G1 F5160 X210.49 Y144.83 E1163.18954
G0 F6000 X211.20 Y144.83
G1 F5160 X201.51 Y154.52 E1163.75913
G0 F6000 X202.22 Y154.52
G1 F5160 X211.90 Y144.83 E1164.32872
G0 F6000 X212.61 Y144.83
G1 F5160 X202.92 Y154.52 E1164.89828
G0 F6000 X203.63 Y154.52
G1 F5160 X213.32 Y144.83 E1165.46784
G0 F6000 X214.03 Y144.83
G1 F5160 X204.34 Y154.52 E1166.03740
G0 F6000 X205.04 Y154.52
G1 F5160 X214.73 Y144.83 E1166.60695
G0 F6000 X215.44 Y144.83
G1 F5160 X205.75 Y154.52 E1167.17651
G0 F6000 X206.34 Y154.64
G1 F5160 X216.15 Y144.83 E1167.75307
G0 F6000 X216.85 Y144.83
G1 F5160 X206.92 Y154.77 E1168.33735
G0 F6000 X207.49 Y154.90
G1 F5160 X217.56 Y144.83 E1168.92940
G0 F6000 X218.27 Y144.83
G1 F5160 X208.07 Y155.03 E1169.52915
G0 F6000 X208.64 Y155.16
G1 F5160 X218.97 Y144.83 E1170.13663
G0 F6000 X219.68 Y144.83
G1 F5160 X209.22 Y155.29 E1170.75185
G0 F6000 X209.79 Y155.43
G1 F5160 X220.39 Y144.83 E1171.37479
G0 F6000 X221.10 Y144.83
G1 F5160 X210.37 Y155.56 E1172.00547
G0 F6000 X210.94 Y155.69
G1 F5160 X221.80 Y144.83 E1172.64388
G0 F6000 X222.51 Y144.83
G1 F5160 X211.52 Y155.82 E1173.28999
G0 F6000 X212.10 Y155.95
G1 F5160 X223.22 Y144.83 E1173.94389
G0 F6000 X223.93 Y144.83
G1 F5160 X212.67 Y156.08 E1174.60550
G0 F6000 X213.25 Y156.22
G1 F5160 X224.63 Y144.83 E1175.27486
G0 F6000 X225.34 Y144.83
G1 F5160 X213.82 Y156.35 E1175.95193
G0 F6000 X214.40 Y156.48
G1 F5160 X226.05 Y144.83 E1176.63673
G0 F6000 X226.75 Y144.83
G1 F5160 X214.97 Y156.61 E1177.32929
G0 F6000 X215.55 Y156.74
G1 F5160 X227.46 Y144.83 E1178.02955
G0 F6000 X228.17 Y144.83
G1 F5160 X216.12 Y156.87 E1178.73757
G0 F6000 X216.70 Y157.00
G1 F5160 X228.87 Y144.83 E1179.45330
G0 F6000 X229.58 Y144.83
G1 F5160 X217.28 Y157.14 E1180.17682
G0 F6000 X217.85 Y157.27
G1 F5160 X230.29 Y144.83 E1180.90803
G0 F6000 X230.91 Y144.92
G1 F5160 X218.43 Y157.40 E1181.64155
G0 F6000 X218.97 Y157.57
G1 F5160 X230.91 Y145.63 E1182.34354
G0 F6000 X230.91 Y146.34
G1 F5160 X219.35 Y157.89 E1183.02290
G0 F6000 X219.80 Y158.15
G1 F5160 X230.91 Y147.04 E1183.67598
G0 F6000 X230.91 Y147.75
G1 F5160 X220.39 Y158.26 E1184.29399
G0 F6000 X220.99 Y158.37
G1 F5160 X230.91 Y148.46 E1184.87695
G0 F6000 X230.91 Y149.16
G1 F5160 X221.59 Y158.48 E1185.42481
G0 F6000 X222.18 Y158.59
G1 F5160 X230.91 Y149.87 E1185.93763
G0 F6000 X230.91 Y150.58
G1 F5160 X222.78 Y158.70 E1186.41538
G0 F6000 X223.38 Y158.81
G1 F5160 X230.91 Y151.29 E1186.85803
G0 F6000 X230.91 Y151.99
G1 F5160 X223.97 Y158.93 E1187.26563
G0 F6000 X224.57 Y159.04
G1 F5160 X230.91 Y152.70 E1187.63820
G0 F6000 X230.91 Y153.41
G1 F5160 X225.16 Y159.15 E1187.97569
G0 F6000 X225.76 Y159.26
G1 F5160 X230.91 Y154.11 E1188.27813
G0 F6000 X230.91 Y154.82
G1 F5160 X226.36 Y159.37 E1188.54548
G0 F6000 X226.95 Y159.48
G1 F5160 X230.91 Y155.53 E1188.77778
G0 F6000 X230.91 Y156.24
G1 F5160 X227.55 Y159.59 E1188.97504
G0 F6000 X228.15 Y159.70
G1 F5160 X230.91 Y156.94 E1189.13717
G0 F6000 X230.91 Y157.65
G1 F5160 X228.74 Y159.81 E1189.26426
G0 F6000 X229.34 Y159.92
G1 F5160 X230.91 Y158.36 E1189.35631
G0 F6000 X230.91 Y159.06
G1 F5160 X229.94 Y160.03 E1189.41328
G0 F6000 X230.53 Y160.14
G1 F5160 X230.91 Y159.77 E1189.43521
G0 F6000 X205.74 Y155.25
G0 X88.16 Y144.83
G1 F5160 X73.76 Y159.23 E1190.28208
G0 F6000 X73.76 Y158.53
G1 F5160 X87.45 Y144.83 E1191.08738
G0 F6000 X86.75 Y144.83
G1 F5160 X73.76 Y157.82 E1191.85112
G0 F6000 X73.76 Y157.11
G1 F5160 X86.04 Y144.83 E1192.57328
G0 F6000 X85.33 Y144.83
G1 F5160 X73.76 Y156.41 E1193.25388
G0 F6000 X73.76 Y155.70
G1 F5160 X84.62 Y144.83 E1193.89290
G0 F6000 X83.92 Y144.83
G1 F5160 X73.76 Y154.99 E1194.49036
G0 F6000 X73.76 Y154.28
G1 F5160 X83.21 Y144.83 E1195.04622
G0 F6000 X82.50 Y144.83
G1 F5160 X73.76 Y153.58 E1195.56048
G0 F6000 X73.76 Y152.87
G1 F5160 X81.80 Y144.83 E1196.03317
G0 F6000 X81.09 Y144.83
G1 F5160 X73.76 Y152.16 E1196.46429
G0 F6000 X73.76 Y151.46
G1 F5160 X80.38 Y144.83 E1196.85385
G0 F6000 X79.67 Y144.83
G1 F5160 X73.76 Y150.75 E1197.20183
G0 F6000 X73.76 Y150.04
G1 F5160 X78.97 Y144.83 E1197.50825
G0 F6000 X78.26 Y144.83
G1 F5160 X73.76 Y149.34 E1197.77310
G0 F6000 X73.76 Y148.63
G1 F5160 X77.55 Y144.83 E1197.99638
G0 F6000 X76.85 Y144.83
G1 F5160 X73.76 Y147.92 E1198.17806
G0 F6000 X73.76 Y147.21
G1 F5160 X76.14 Y144.83 E1198.31814
G0 F6000 X75.43 Y144.83
G1 F5160 X73.76 Y146.51 E1198.41665
G0 F6000 X73.76 Y145.80
G1 F5160 X74.72 Y144.83 E1198.47359
G0 F6000 X74.02 Y144.83
G1 F5160 X73.76 Y145.09 E1198.48897
;LAYER:4
G0 F6000 X73.58 Y144.66 Z1.10
;TYPE:WALL-INNER
G1 X231.08 Y144.66 E1205.03702
G1 X231.08 Y160.43 E1205.69257
G1 X219.55 Y158.28 E1206.18035
G1 X218.62 Y157.50 E1206.23076
G1 X205.80 Y154.58 E1206.77715
G1 X204.71 Y154.58 E1206.82259
G1 X192.33 Y154.58 E1207.33733
G1 X191.38 Y154.58 E1207.37691
G1 X179.00 Y154.58 E1207.89169
G1 X178.04 Y154.58 E1207.93127
G1 X165.66 Y154.58 E1208.44601
G1 X164.71 Y154.58 E1208.48559
G1 X152.33 Y154.58 E1209.00029
G1 X151.38 Y154.58 E1209.03987
G1 X139.00 Y154.58 E1209.55466
G1 X138.04 Y154.58 E1209.59424
G1 X125.66 Y154.58 E1210.10898
G1 X124.71 Y154.58 E1210.14856
G1 X112.33 Y154.58 E1210.66330
G1 X111.38 Y154.58 E1210.70288
G1 X98.54 Y154.58 E1211.23650
G1 X97.47 Y155.47 E1211.29444
G1 X85.40 Y158.23 E1211.80938
G1 X84.48 Y158.40 E1211.84807
G1 X73.58 Y160.42 E1212.30912
G1 X73.58 Y144.66 E1212.96464
G0 X73.08 Y144.16
G1 X231.58 Y144.16 E1219.55426
G1 X231.58 Y161.03 E1220.25555
G1 X219.33 Y158.75 E1220.77373
G1 X218.39 Y157.97 E1220.82458
G1 X205.75 Y155.08 E1221.36364
G1 X98.72 Y155.08 E1225.81314
G1 X97.70 Y155.93 E1225.86853
G1 X85.53 Y158.71 E1226.38771
G1 X73.08 Y161.03 E1226.91405
G1 X73.08 Y144.16 E1227.61534
G0 X72.58 Y143.66
;TYPE:WALL-OUTER
G1 X232.08 Y143.66 E1234.24653
G1 X232.08 Y161.63 E1234.99364
G1 X219.11 Y159.22 E1235.54226
G1 X218.16 Y158.43 E1235.59359
G1 X205.69 Y155.58 E1236.12527
G1 X98.91 Y155.58 E1240.56488
G1 X97.93 Y156.39 E1240.61771
G1 X85.61 Y159.21 E1241.14328
G1 X72.58 Y161.63 E1241.69410
G1 X72.58 Y143.66 E1242.44121
G0 X72.93 Y143.92
G0 X73.77 Y144.83
;TYPE:FILL
G1 X86.69 Y157.75 E1243.20097
G0 X87.26 Y157.62
G1 X74.47 Y144.83 E1243.95298
G0 X75.18 Y144.83
G1 X87.84 Y157.49 E1244.69728
G0 X88.42 Y157.36
G1 X75.89 Y144.83 E1245.43382
G0 X76.59 Y144.83
G1 X88.99 Y157.23 E1246.16265
G0 X89.57 Y157.09
G1 X77.30 Y144.83 E1246.88373
G0 X78.01 Y144.83
G1 X90.14 Y156.96 E1247.59707
G0 X90.72 Y156.83
G1 X78.72 Y144.83 E1248.30269
G0 X79.42 Y144.83
G1 X91.29 Y156.70 E1249.00057
G0 X91.87 Y156.57
G1 X80.13 Y144.83 E1249.69072
G0 X80.84 Y144.83
G1 X92.44 Y156.44 E1250.37316
G0 X93.02 Y156.31
G1 X81.55 Y144.83 E1251.04785
G0 X82.25 Y144.83
G1 X93.60 Y156.18 E1251.71483
G0 X94.17 Y156.04
G1 X82.96 Y144.83 E1252.37406
G0 X83.67 Y144.83
G1 X94.75 Y155.91 E1253.02558
G0 X95.32 Y155.78
G1 X84.37 Y144.83 E1253.66937
G0 X85.08 Y144.83
G1 X95.90 Y155.65 E1254.30542
G0 X96.47 Y155.52
G1 X85.79 Y144.83 E1254.93375
G0 X86.50 Y144.83
G1 X97.05 Y155.39 E1255.55434
G0 X97.55 Y155.18
G1 X87.20 Y144.83 E1256.16271
G0 X87.91 Y144.83
G1 X97.93 Y154.86 E1256.75217
G0 X98.32 Y154.53
G1 X88.62 Y144.83 E1257.32272
G0 X89.32 Y144.83
G1 X98.89 Y154.40 E1257.88540
G0 X99.60 Y154.40
G1 X90.03 Y144.83 E1258.44808
G0 X90.74 Y144.83
G1 X100.31 Y154.40 E1259.01076
G0 X101.02 Y154.40
G1 X91.44 Y144.83 E1259.57344
G0 X92.15 Y144.83
G1 X101.72 Y154.40 E1260.13612
G0 X102.43 Y154.40
G1 X92.86 Y144.83 E1260.69880
G0 X93.57 Y144.83
G1 X103.14 Y154.40 E1261.26148
G0 X103.84 Y154.40
G1 X94.27 Y144.83 E1261.82416
G0 X94.98 Y144.83
G1 X104.55 Y154.40 E1262.38684
G0 X105.26 Y154.40
G1 X95.69 Y144.83 E1262.94952
G0 X96.39 Y144.83
G1 X105.96 Y154.40 E1263.51220
G0 X106.67 Y154.40
G1 X97.10 Y144.83 E1264.07488
G0 X97.81 Y144.83
G1 X107.38 Y154.40 E1264.63756
G0 X108.09 Y154.40
G1 X98.52 Y144.83 E1265.20024
G0 X99.22 Y144.83
G1 X108.79 Y154.40 E1265.76291
G0 X109.50 Y154.40
G1 X99.93 Y144.83 E1266.32559
G0 X100.64 Y144.83
G1 X110.21 Y154.40 E1266.88827
G0 X110.91 Y154.40
G1 X101.34 Y144.83 E1267.45095
G0 X102.05 Y144.83
G1 X111.62 Y154.40 E1268.01363
G0 X112.33 Y154.40
G1 X102.76 Y144.83 E1268.57631
G0 X103.47 Y144.83
G1 X113.03 Y154.40 E1269.13899
G0 X113.74 Y154.40
G1 X104.17 Y144.83 E1269.70167
G0 X104.88 Y144.83
G1 X114.45 Y154.40 E1270.26435
G0 X115.16 Y154.40
G1 X105.59 Y144.83 E1270.82703
G0 X106.29 Y144.83
G1 X115.86 Y154.40 E1271.38971
G0 X116.57 Y154.40
G1 X107.00 Y144.83 E1271.95239
G0 X107.71 Y144.83
G1 X117.28 Y154.40 E1272.51507
G0 X117.98 Y154.40
G1 X108.42 Y144.83 E1273.07775
G0 X109.12 Y144.83
G1 X118.69 Y154.40 E1273.64042
G0 X119.40 Y154.40
G1 X109.83 Y144.83 E1274.20310
G0 X110.54 Y144.83
G1 X120.11 Y154.40 E1274.76578
G0 X120.81 Y154.40
G1 X111.24 Y144.83 E1275.32846
G0 X111.95 Y144.83
G1 X121.52 Y154.40 E1275.89114
G0 X122.23 Y154.40
G1 X112.66 Y144.83 E1276.45382
G0 X113.36 Y144.83
G1 X122.94 Y154.40 E1277.01650
G0 X123.64 Y154.40
G1 X114.07 Y144.83 E1277.57918
G0 X114.78 Y144.83
G1 X124.35 Y154.40 E1278.14186
G0 X125.06 Y154.40
G1 X115.49 Y144.83 E1278.70454
G0 X116.19 Y144.83
G1 X125.76 Y154.40 E1279.26722
G0 X126.47 Y154.40
G1 X116.90 Y144.83 E1279.82987
G0 X117.61 Y144.83
G1 X127.18 Y154.40 E1280.39255
G0 X127.89 Y154.40
G1 X118.31 Y144.83 E1280.95523
G0 X119.02 Y144.83
G1 X128.59 Y154.40 E1281.51791
G0 X129.30 Y154.40
G1 X119.73 Y144.83 E1282.08059
G0 X120.44 Y144.83
G1 X130.01 Y154.40 E1282.64326
G0 X130.71 Y154.40
G1 X121.14 Y144.83 E1283.20594
G0 X121.85 Y144.83
G1 X131.42 Y154.40 E1283.76862
G0 X132.13 Y154.40
G1 X122.56 Y144.83 E1284.33130
G0 X123.26 Y144.83
G1 X132.83 Y154.40 E1284.89398
G0 X133.54 Y154.40
G1 X123.97 Y144.83 E1285.45666
G0 X124.68 Y144.83
G1 X134.25 Y154.40 E1286.01934
G0 X134.96 Y154.40
G1 X125.39 Y144.83 E1286.58202
G0 X126.09 Y144.83
G1 X135.66 Y154.40 E1287.14470
G0 X136.37 Y154.40
G1 X126.80 Y144.83 E1287.70738
G0 X127.51 Y144.83
G1 X137.08 Y154.40 E1288.27006
G0 X137.78 Y154.40
G1 X128.21 Y144.83 E1288.83274
G0 X128.92 Y144.83
G1 X138.49 Y154.40 E1289.39542
G0 X139.20 Y154.40
G1 X129.63 Y144.83 E1289.95810
G0 X130.34 Y144.83
G1 X139.91 Y154.40 E1290.52078
G0 X140.61 Y154.40
G1 X131.04 Y144.83 E1291.08345
G0 X131.75 Y144.83
G1 X141.32 Y154.40 E1291.64613
G0 X142.03 Y154.40
G1 X132.46 Y144.83 E1292.20881
G0 X133.16 Y144.83
G1 X142.73 Y154.40 E1292.77149
G0 X143.44 Y154.40
G1 X133.87 Y144.83 E1293.33417
G0 X134.58 Y144.83
G1 X144.15 Y154.40 E1293.89685
G0 X144.85 Y154.40
G1 X135.28 Y144.83 E1294.45953
G0 X135.99 Y144.83
G1 X145.56 Y154.40 E1295.02221
G0 X146.27 Y154.40
G1 X136.70 Y144.83 E1295.58486
G0 X137.41 Y144.83
G1 X146.98 Y154.40 E1296.14754
G0 X147.68 Y154.40
G1 X138.11 Y144.83 E1296.71022
G0 X138.82 Y144.83
G1 X148.39 Y154.40 E1297.27290
G0 X149.10 Y154.40
G1 X139.53 Y144.83 E1297.83558
G0 X140.24 Y144.83
G1 X149.81 Y154.40 E1298.39826
G0 X150.51 Y154.40
G1 X140.94 Y144.83 E1298.96094
G0 X141.65 Y144.83
G1 X151.22 Y154.40 E1299.52362
G0 X151.93 Y154.40
G1 X142.36 Y144.83 E1300.08629
G0 X143.06 Y144.83
G1 X152.63 Y154.40 E1300.64897
G0 X153.34 Y154.40
G1 X143.77 Y144.83 E1301.21165
G0 X144.48 Y144.83
G1 X154.05 Y154.40 E1301.77433
G0 X154.75 Y154.40
G1 X145.19 Y144.83 E1302.33701
G0 X145.89 Y144.83
G1 X155.46 Y154.40 E1302.89969
G0 X156.17 Y154.40
G1 X146.60 Y144.83 E1303.46237
G0 X147.31 Y144.83
G1 X156.88 Y154.40 E1304.02505
G0 X157.58 Y154.40
G1 X148.01 Y144.83 E1304.58773
G0 X148.72 Y144.83
G1 X158.29 Y154.40 E1305.15041
G0 X159.00 Y154.40
G1 X149.43 Y144.83 E1305.71309
G0 X150.13 Y144.83
G1 X159.71 Y154.40 E1306.27577
G0 X160.41 Y154.40
G1 X150.84 Y144.83 E1306.83845
G0 X151.55 Y144.83
G1 X161.12 Y154.40 E1307.40113
G0 X161.83 Y154.40
G1 X152.26 Y144.83 E1307.96380
G0 X152.96 Y144.83
G1 X162.53 Y154.40 E1308.52648
G0 X163.24 Y154.40
G1 X153.67 Y144.83 E1309.08916
G0 X154.38 Y144.83
G1 X163.95 Y154.40 E1309.65184
G0 X164.65 Y154.40
G1 X155.08 Y144.83 E1310.21452
G0 X155.79 Y144.83
G1 X165.36 Y154.40 E1310.77720
G0 X166.07 Y154.40
G1 X156.50 Y144.83 E1311.33988
G0 X157.21 Y144.83
G1 X166.78 Y154.40 E1311.90256
G0 X167.48 Y154.40
G1 X157.91 Y144.83 E1312.46524
G0 X158.62 Y144.83
G1 X168.19 Y154.40 E1313.02792
G0 X168.90 Y154.40
G1 X159.33 Y144.83 E1313.59060
G0 X160.03 Y144.83
G1 X169.60 Y154.40 E1314.15328
G0 X170.31 Y154.40
G1 X160.74 Y144.83 E1314.71596
G0 X161.45 Y144.83
G1 X171.02 Y154.40 E1315.27864
G0 X171.72 Y154.40
G1 X162.16 Y144.83 E1315.84132
G0 X162.86 Y144.83
G1 X172.43 Y154.40 E1316.40399
G0 X173.14 Y154.40
G1 X163.57 Y144.83 E1316.96667
G0 X164.28 Y144.83
G1 X173.85 Y154.40 E1317.52935
G0 X174.55 Y154.40
G1 X164.98 Y144.83 E1318.09203
G0 X165.69 Y144.83
G1 X175.26 Y154.40 E1318.65471
G0 X175.97 Y154.40
G1 X166.40 Y144.83 E1319.21739
G0 X167.10 Y144.83
G1 X176.68 Y154.40 E1319.78007
G0 X177.38 Y154.40
G1 X167.81 Y144.83 E1320.34275
G0 X168.52 Y144.83
G1 X178.09 Y154.40 E1320.90543
G0 X178.80 Y154.40
G1 X169.23 Y144.83 E1321.46811
G0 X169.93 Y144.83
G1 X179.50 Y154.40 E1322.03079
G0 X180.21 Y154.40
G1 X170.64 Y144.83 E1322.59347
G0 X171.35 Y144.83
G1 X180.92 Y154.40 E1323.15615
G0 X181.62 Y154.40
G1 X172.06 Y144.83 E1323.71883
G0 X172.76 Y144.83
G1 X182.33 Y154.40 E1324.28151
G0 X183.04 Y154.40
G1 X173.47 Y144.83 E1324.84418
G0 X174.18 Y144.83
G1 X183.75 Y154.40 E1325.40686
G0 X184.45 Y154.40
G1 X174.88 Y144.83 E1325.96954
G0 X175.59 Y144.83
G1 X185.16 Y154.40 E1326.53222
G0 X185.87 Y154.40
G1 X176.30 Y144.83 E1327.09490
G0 X177.00 Y144.83
G1 X186.57 Y154.40 E1327.65758
G0 X187.28 Y154.40
G1 X177.71 Y144.83 E1328.22026
G0 X178.42 Y144.83
G1 X187.99 Y154.40 E1328.78294
G0 X188.70 Y154.40
G1 X179.13 Y144.83 E1329.34562
G0 X179.83 Y144.83
G1 X189.40 Y154.40 E1329.90830
G0 X190.11 Y154.40
G1 X180.54 Y144.83 E1330.47098
G0 X181.25 Y144.83
G1 X190.82 Y154.40 E1331.03366
G0 X191.52 Y154.40
G1 X181.95 Y144.83 E1331.59634
G0 X182.66 Y144.83
G1 X192.23 Y154.40 E1332.15902
G0 X192.94 Y154.40
G1 X183.37 Y144.83 E1332.72170
G0 X184.08 Y144.83
G1 X193.65 Y154.40 E1333.28437
G0 X194.35 Y154.40
G1 X184.78 Y144.83 E1333.84705
G0 X185.49 Y144.83
G1 X195.06 Y154.40 E1334.40973
G0 X195.77 Y154.40
G1 X186.20 Y144.83 E1334.97241
G0 X186.90 Y144.83
G1 X196.47 Y154.40 E1335.53509
G0 X197.18 Y154.40
G1 X187.61 Y144.83 E1336.09777
G0 X188.32 Y144.83
G1 X197.89 Y154.40 E1336.66045
G0 X198.59 Y154.40
G1 X189.03 Y144.83 E1337.22313
G0 X189.73 Y144.83
G1 X199.30 Y154.40 E1337.78578
G0 X200.01 Y154.40
G1 X190.44 Y144.83 E1338.34846
G0 X191.15 Y144.83
G1 X200.72 Y154.40 E1338.91114
G0 X201.42 Y154.40
G1 X191.85 Y144.83 E1339.47382
G0 X192.56 Y144.83
G1 X202.13 Y154.40 E1340.03650
G0 X202.84 Y154.40
G1 X193.27 Y144.83 E1340.59918
G0 X193.97 Y144.83
G1 X203.54 Y154.40 E1341.16186
G0 X204.25 Y154.40
G1 X194.68 Y144.83 E1341.72453
G0 X195.39 Y144.83
G1 X204.96 Y154.40 E1342.28721
G0 X205.67 Y154.40
G1 X196.10 Y144.83 E1342.84989
G0 X196.80 Y144.83
G1 X206.54 Y154.56 E1343.42219
G0 X207.45 Y154.78
G1 X197.51 Y144.83 E1344.00683
G0 X198.22 Y144.83
G1 X208.37 Y154.98 E1344.60375
G0 X209.29 Y155.19
G1 X198.93 Y144.83 E1345.21300
G0 X199.63 Y144.83
G1 X210.20 Y155.40 E1345.83453
G0 X211.12 Y155.61
G1 X200.34 Y144.83 E1346.46842
G0 X201.05 Y144.83
G1 X212.04 Y155.82 E1347.11459
G0 X212.95 Y156.03
G1 X201.75 Y144.83 E1347.77304
G0 X202.46 Y144.83
G1 X213.87 Y156.24 E1348.44388
G0 X214.79 Y156.45
G1 X203.17 Y144.83 E1349.12700
G0 X203.88 Y144.83
G1 X215.70 Y156.66 E1349.82241
G0 X216.62 Y156.87
G1 X204.58 Y144.83 E1350.53014
G0 X205.29 Y144.83
G1 X217.53 Y157.08 E1351.25019
G0 X218.45 Y157.29
G1 X206.00 Y144.83 E1351.98256
G0 X206.70 Y144.83
G1 X220.07 Y158.20 E1352.76866
G0 X220.94 Y158.36
G1 X207.41 Y144.83 E1353.56423
G0 X208.12 Y144.83
G1 X221.81 Y158.52 E1354.36933
G0 X222.68 Y158.69
G1 X208.82 Y144.83 E1355.18395
G0 X209.53 Y144.83
G1 X223.55 Y158.85 E1356.00801
G0 X224.41 Y159.01
G1 X210.24 Y144.83 E1356.84153
G0 X210.95 Y144.83
G1 X225.28 Y159.17 E1357.68455
G0 X226.15 Y159.33
G1 X211.65 Y144.83 E1358.53703
G0 X212.36 Y144.83
G1 X227.02 Y159.49 E1359.39902
G0 X227.89 Y159.65
G1 X213.07 Y144.83 E1360.27049
G0 X213.77 Y144.83
G1 X228.76 Y159.81 E1361.15149
G0 X229.63 Y159.98
G1 X214.48 Y144.83 E1362.04196
G0 X215.19 Y144.83
G1 X230.49 Y160.14 E1362.94190
G0 X230.91 Y159.84
G1 X215.90 Y144.83 E1363.82440
G0 X216.60 Y144.83
G1 X230.91 Y159.13 E1364.66530
G0 X230.91 Y158.43
G1 X217.31 Y144.83 E1365.46463
G0 X218.02 Y144.83
G1 X230.91 Y157.72 E1366.22240
G0 X230.91 Y157.01
G1 X218.72 Y144.83 E1366.93860
G0 X219.43 Y144.83
G1 X230.91 Y156.31 E1367.61322
G0 X230.91 Y155.60
G1 X220.14 Y144.83 E1368.24628
G0 X220.84 Y144.83
G1 X230.91 Y154.89 E1368.83777
G0 X230.91 Y154.18
G1 X221.55 Y144.83 E1369.38766
G0 X222.26 Y144.83
G1 X230.91 Y153.48 E1369.89598
G0 X230.91 Y152.77
G1 X222.97 Y144.83 E1370.36271
G0 X223.67 Y144.83
G1 X230.91 Y152.06 E1370.78786
G0 X230.91 Y151.35
G1 X224.38 Y144.83 E1371.17145
G0 X225.09 Y144.83
G1 X230.91 Y150.65 E1371.51347
G0 X230.91 Y149.94
G1 X225.79 Y144.83 E1371.81391
G0 X226.50 Y144.83
G1 X230.91 Y149.23 E1372.07279
G0 X230.91 Y148.53
G1 X227.21 Y144.83 E1372.29010
G0 X227.92 Y144.83
G1 X230.91 Y147.82 E1372.46582
G0 X230.91 Y147.11
G1 X228.62 Y144.83 E1372.59996
G0 X229.33 Y144.83
G1 X230.91 Y146.41 E1372.69254
G0 X230.91 Y145.70
G1 X230.04 Y144.83 E1372.74351
G0 X230.75 Y144.83
G1 X230.91 Y144.99 E1372.75292
G0 X98.75 Y155.14
G0 X86.11 Y157.88
G1 X73.76 Y145.53 E1373.47943
G0 X73.76 Y146.24
G1 X85.54 Y158.01 E1374.17208
G0 X84.95 Y158.13
G1 X73.76 Y146.94 E1374.83007
G0 X73.76 Y147.65
G1 X84.35 Y158.24 E1375.45302
G0 X83.75 Y158.35
G1 X73.76 Y148.36 E1376.04092
G0 X73.76 Y149.06
G1 X83.16 Y158.47 E1376.59372
G0 X82.56 Y158.58
G1 X73.76 Y149.77 E1377.11148
G0 X73.76 Y150.48
G1 X81.97 Y158.69 E1377.59414
G0 X81.37 Y158.80
G1 X73.76 Y151.19 E1378.04172
G0 X73.76 Y151.89
G1 X80.77 Y158.91 E1378.45427
G0 X80.18 Y159.02
G1 X73.76 Y152.60 E1378.83174
G0 X73.76 Y153.31
G1 X79.58 Y159.13 E1379.17417
G0 X78.98 Y159.24
G1 X73.76 Y154.01 E1379.48155
G0 X73.76 Y154.72
G1 X78.39 Y159.35 E1379.75384
G0 X77.79 Y159.46
G1 X73.76 Y155.43 E1379.99108
G0 X73.76 Y156.13
G1 X77.19 Y159.57 E1380.19322
G0 X76.60 Y159.68
G1 X73.76 Y156.84 E1380.36032
G0 X73.76 Y157.55
G1 X76.00 Y159.79 E1380.49235
G0 X75.41 Y159.91
G1 X73.76 Y158.26 E1380.58930
G0 X73.76 Y158.96
G1 X74.81 Y160.02 E1380.65121
G0 X74.21 Y160.13
G1 X73.76 Y159.67 E1380.67808
;LAYER:5
G0 X73.58 Y160.42 Z1.30
;TYPE:WALL-INNER
G1 X73.58 Y144.66 E1381.33360
G1 X231.08 Y144.66 E1387.88165
G1 X231.08 Y160.42 E1388.53716
G1 X219.55 Y158.28 E1389.02493
G1 X218.43 Y157.34 E1389.08564
G1 X205.80 Y154.46 E1389.62392
G1 X204.52 Y154.46 E1389.67726
G1 X192.33 Y154.46 E1390.18406
G1 X191.19 Y154.46 E1390.23158
G1 X179.00 Y154.46 E1390.73842
G1 X177.85 Y154.46 E1390.78594
G1 X165.66 Y154.46 E1391.29275
G1 X164.52 Y154.46 E1391.34027
G1 X152.33 Y154.46 E1391.84703
G1 X151.19 Y154.46 E1391.89455
G1 X139.00 Y154.46 E1392.40139
G1 X137.85 Y154.46 E1392.44891
G1 X125.67 Y154.46 E1392.95571
G1 X124.52 Y154.46 E1393.00323
G1 X112.33 Y154.46 E1393.51003
G1 X111.19 Y154.46 E1393.55755
G1 X98.54 Y154.46 E1394.08327
G1 X97.28 Y155.51 E1394.15151
G1 X85.40 Y158.23 E1394.65818
G1 X73.58 Y160.42 E1395.15809
G0 X73.08 Y161.03
G1 X73.08 Y144.16 E1395.85942
G1 X231.58 Y144.16 E1402.44904
G1 X231.58 Y161.03 E1403.15037
G1 X219.33 Y158.75 E1403.66851
G1 X218.20 Y157.81 E1403.72972
G1 X205.75 Y154.96 E1404.26067
G1 X98.72 Y154.96 E1408.71017
G1 X97.51 Y155.98 E1408.77586
G1 X85.51 Y158.72 E1409.28783
G1 X73.08 Y161.03 E1409.81328
G0 X72.58 Y161.63
;TYPE:WALL-OUTER
G1 X72.58 Y143.66 E1410.56038
G1 X232.08 Y143.66 E1417.19158
G1 X232.08 Y161.63 E1417.93869
G1 X219.11 Y159.22 E1418.48735
G1 X217.97 Y158.27 E1418.54895
G1 X205.69 Y155.46 E1419.07252
G1 X98.91 Y155.46 E1423.51213
G1 X97.74 Y156.44 E1423.57526
G1 X85.61 Y159.21 E1424.09255
G1 X72.58 Y161.63 E1424.64354
G0 X73.76 Y159.94
;TYPE:FILL
G1 X88.87 Y144.83 E1425.53198
G0 X89.57 Y144.83
G1 X74.29 Y160.11 E1426.43045
G0 X75.16 Y159.95
G1 X90.28 Y144.83 E1427.31945
G0 X90.99 Y144.83
G1 X76.03 Y159.79 E1428.19895
G0 X76.90 Y159.63
G1 X91.70 Y144.83 E1429.06898
G0 X92.40 Y144.83
G1 X77.77 Y159.47 E1429.92955
G0 X78.64 Y159.31
G1 X93.11 Y144.83 E1430.78063
G0 X93.82 Y144.83
G1 X79.50 Y159.14 E1431.62221
G0 X80.37 Y158.98
G1 X94.52 Y144.83 E1432.45429
G0 X95.23 Y144.83
G1 X81.24 Y158.82 E1433.27688
G0 X82.11 Y158.66
G1 X95.94 Y144.83 E1434.08997
G0 X96.64 Y144.83
G1 X82.98 Y158.50 E1434.89360
G0 X83.84 Y158.34
G1 X97.35 Y144.83 E1435.68779
G0 X98.06 Y144.83
G1 X84.71 Y158.18 E1436.47245
G0 X85.59 Y158.00
G1 X98.77 Y144.83 E1437.24694
G0 X99.47 Y144.83
G1 X86.51 Y157.79 E1438.00915
G0 X87.43 Y157.59
G1 X100.18 Y144.83 E1438.75903
G0 X100.89 Y144.83
G1 X88.34 Y157.38 E1439.49660
G0 X89.26 Y157.17
G1 X101.59 Y144.83 E1440.22185
G0 X102.30 Y144.83
G1 X90.18 Y156.96 E1440.93482
G0 X91.09 Y156.75
G1 X103.01 Y144.83 E1441.63543
G0 X103.72 Y144.83
G1 X92.01 Y156.54 E1442.32379
G0 X92.92 Y156.33
G1 X104.42 Y144.83 E1442.99985
G0 X105.13 Y144.83
G1 X93.84 Y156.12 E1443.66357
G0 X94.76 Y155.91
G1 X105.84 Y144.83 E1444.31507
G0 X106.55 Y144.83
G1 X95.67 Y155.70 E1444.95424
G0 X96.59 Y155.49
G1 X107.25 Y144.83 E1445.58109
G0 X107.96 Y144.83
G1 X98.50 Y154.29 E1446.13701
G0 X99.21 Y154.29
G1 X108.67 Y144.83 E1446.69293
G0 X109.37 Y144.83
G1 X99.92 Y154.29 E1447.24885
G0 X100.62 Y154.29
G1 X110.08 Y144.83 E1447.80477
G0 X110.79 Y144.83
G1 X101.33 Y154.29 E1448.36071
G0 X102.04 Y154.29
G1 X111.50 Y144.83 E1448.91666
G0 X112.20 Y144.83
G1 X102.75 Y154.29 E1449.47261
G0 X103.45 Y154.29
G1 X112.91 Y144.83 E1450.02855
G0 X113.62 Y144.83
G1 X104.16 Y154.29 E1450.58447
G0 X104.87 Y154.29
G1 X114.32 Y144.83 E1451.14039
G0 X115.03 Y144.83
G1 X105.58 Y154.29 E1451.69631
G0 X106.28 Y154.29
G1 X115.74 Y144.83 E1452.25222
G0 X116.44 Y144.83
G1 X106.99 Y154.29 E1452.80814
G0 X107.70 Y154.29
G1 X117.15 Y144.83 E1453.36409
G0 X117.86 Y144.83
G1 X108.40 Y154.29 E1453.92004
G0 X109.11 Y154.29
G1 X118.57 Y144.83 E1454.47598
G0 X119.27 Y144.83
G1 X109.82 Y154.29 E1455.03193
G0 X110.53 Y154.29
G1 X119.98 Y144.83 E1455.58785
G0 X120.69 Y144.83
G1 X111.23 Y154.29 E1456.14377
G0 X111.94 Y154.29
G1 X121.39 Y144.83 E1456.69968
G0 X122.10 Y144.83
G1 X112.65 Y154.29 E1457.25560
G0 X113.35 Y154.29
G1 X122.81 Y144.83 E1457.81152
G0 X123.52 Y144.83
G1 X114.06 Y154.29 E1458.36744
G0 X114.77 Y154.29
G1 X124.22 Y144.83 E1458.92338
G0 X124.93 Y144.83
G1 X115.47 Y154.29 E1459.47933
G0 X116.18 Y154.29
G1 X125.64 Y144.83 E1460.03528
G0 X126.34 Y144.83
G1 X116.89 Y154.29 E1460.59123
G0 X117.60 Y154.29
G1 X127.05 Y144.83 E1461.14714
G0 X127.76 Y144.83
G1 X118.30 Y154.29 E1461.70306
G0 X119.01 Y154.29
G1 X128.47 Y144.83 E1462.25898
G0 X129.17 Y144.83
G1 X119.72 Y154.29 E1462.81490
G0 X120.42 Y154.29
G1 X129.88 Y144.83 E1463.37082
G0 X130.59 Y144.83
G1 X121.13 Y154.29 E1463.92676
G0 X121.84 Y154.29
G1 X131.29 Y144.83 E1464.48271
G0 X132.00 Y144.83
G1 X122.55 Y154.29 E1465.03866
G0 X123.25 Y154.29
G1 X132.71 Y144.83 E1465.59460
G0 X133.41 Y144.83
G1 X123.96 Y154.29 E1466.15052
G0 X124.67 Y154.29
G1 X134.12 Y144.83 E1466.70644
G0 X134.83 Y144.83
G1 X125.37 Y154.29 E1467.26236
G0 X126.08 Y154.29
G1 X135.54 Y144.83 E1467.81827
G0 X136.24 Y144.83
G1 X126.79 Y154.29 E1468.37419
G0 X127.50 Y154.29
G1 X136.95 Y144.83 E1468.93014
G0 X137.66 Y144.83
G1 X128.20 Y154.29 E1469.48609
G0 X128.91 Y154.29
G1 X138.37 Y144.83 E1470.04203
G0 X139.07 Y144.83
G1 X129.62 Y154.29 E1470.59798
G0 X130.32 Y154.29
G1 X139.78 Y144.83 E1471.15390
G0 X140.49 Y144.83
G1 X131.03 Y154.29 E1471.70982
G0 X131.74 Y154.29
G1 X141.19 Y144.83 E1472.26573
G0 X141.90 Y144.83
G1 X132.44 Y154.29 E1472.82165
G0 X133.15 Y154.29
G1 X142.61 Y144.83 E1473.37757
G0 X143.31 Y144.83
G1 X133.86 Y154.29 E1473.93349
G0 X134.57 Y154.29
G1 X144.02 Y144.83 E1474.48944
G0 X144.73 Y144.83
G1 X135.27 Y154.29 E1475.04538
G0 X135.98 Y154.29
G1 X145.44 Y144.83 E1475.60133
G0 X146.14 Y144.83
G1 X136.69 Y154.29 E1476.15728
G0 X137.40 Y154.29
G1 X146.85 Y144.83 E1476.71319
G0 X147.56 Y144.83
G1 X138.10 Y154.29 E1477.26911
G0 X138.81 Y154.29
G1 X148.26 Y144.83 E1477.82503
G0 X148.97 Y144.83
G1 X139.52 Y154.29 E1478.38095
G0 X140.22 Y154.29
G1 X149.68 Y144.83 E1478.93687
G0 X150.39 Y144.83
G1 X140.93 Y154.29 E1479.49281
G0 X141.64 Y154.29
G1 X151.09 Y144.83 E1480.04876
G0 X151.80 Y144.83
G1 X142.34 Y154.29 E1480.60471
G0 X143.05 Y154.29
G1 X152.51 Y144.83 E1481.16065
G0 X153.21 Y144.83
G1 X143.76 Y154.29 E1481.71657
G0 X144.47 Y154.29
G1 X153.92 Y144.83 E1482.27249
G0 X154.63 Y144.83
G1 X145.17 Y154.29 E1482.82841
G0 X145.88 Y154.29
G1 X155.34 Y144.83 E1483.38433
G0 X156.04 Y144.83
G1 X146.59 Y154.29 E1483.94024
G0 X147.29 Y154.29
G1 X156.75 Y144.83 E1484.49619
G0 X157.46 Y144.83
G1 X148.00 Y154.29 E1485.05214
G0 X148.71 Y154.29
G1 X158.16 Y144.83 E1485.60808
G0 X158.87 Y144.83
G1 X149.41 Y154.29 E1486.16403
G0 X150.12 Y154.29
G1 X159.58 Y144.83 E1486.71995
G0 X160.28 Y144.83
G1 X150.83 Y154.29 E1487.27587
G0 X151.54 Y154.29
G1 X160.99 Y144.83 E1487.83178
G0 X161.70 Y144.83
G1 X152.24 Y154.29 E1488.38770
G0 X152.95 Y154.29
G1 X162.41 Y144.83 E1488.94362
G0 X163.11 Y144.83
G1 X153.66 Y154.29 E1489.49954
