;-- START GCODE --
;Sliced for Type A Machines Series 1
;Sliced at: Sun 03-01-2016 23:15:20
;Basic settings: Layer height: 0.2 Walls: 1 Fill: 100
;Print Speed: 120 Support: 0
;Retraction Speed: 40 Retraction Distance: 1.2
;Print time: #P_TIME#
;Filament used: #F_AMNT#m #F_WGHT#g
;Filament cost: #F_COST#
M106 S255	 ;start with the fan on
G21        ;metric values
G90        ;absolute positioning
M106 S255    ;start with the fan on
G28     ;move to endstops
G29		;allows for auto-levelling
G1 X150 Y5  Z15.0 F6000 ;center and move the platform down 15mm
M109 S220 ;Heat To temp
G92 E0                  ;zero the extruded length
G1 F200 E30              ;extrude 30mm of feed stock
G92 E0                  ;zero the extruded length again
G1 X175 Y25  Z0 F6000 ;remove bugger
G1 X220 F6000 ;remove bugger
G1 X150 Y150  Z15 F6000 ;recenter and begin
G1 F6000

;Layer count: 79
;LAYER:0
M106 S255
G0 F6000 X137.87 Y145.01 Z0.30
;TYPE:SKIRT
G1 F1860 X154.94 Y143.86 E1.06656
G1 X167.13 Y143.86 E1.82701
G1 X167.13 Y145.06 E1.90184
G1 X167.57 Y145.06 E1.92941
G1 X167.57 Y159.76 E2.84614
G1 X167.13 Y159.76 E2.87370
G1 X167.13 Y161.14 E2.95976
G1 X154.93 Y161.14 E3.72046
G1 X143.56 Y160.35 E4.43141
G1 X137.87 Y159.96 E4.78693
G1 X137.87 Y158.71 E4.86494
G1 X137.37 Y158.70 E4.89613
G1 X137.37 Y146.12 E5.68053
G1 X137.87 Y146.11 E5.71171
G1 X137.87 Y145.01 E5.78081
G0 F6000 X138.37 Y145.47
G1 F1860 X154.95 Y144.36 E6.81717
G1 X166.63 Y144.36 E7.54538
G1 X166.63 Y145.56 E7.62022
G1 X167.07 Y145.56 E7.64778
G1 X167.07 Y159.26 E8.50215
G1 X166.63 Y159.26 E8.52972
G1 X166.63 Y160.64 E8.61578
G1 X154.95 Y160.64 E9.34417
G1 X143.59 Y159.85 E10.05406
G1 X138.37 Y159.49 E10.38050
G1 X138.37 Y158.21 E10.46020
G1 X137.87 Y158.21 E10.49139
G1 X137.87 Y146.61 E11.21430
G1 X138.37 Y146.61 E11.24548
G1 X138.37 Y145.47 E11.31620
G0 F6000 X142.37 Y149.21
;TYPE:WALL-INNER
G1 F1860 X155.08 Y148.36 E12.11062
G1 X162.63 Y148.36 E12.58133
G1 X162.63 Y148.85 E12.61202
G1 X155.81 Y148.85 E13.03727
G1 X155.81 Y149.84 E13.09888
G1 X142.37 Y149.84 E13.93697
G1 X142.37 Y149.21 E13.97601
G0 F6000 X141.87 Y148.75
;TYPE:WALL-OUTER
G1 F1860 X155.06 Y147.86 E14.80056
G1 X163.13 Y147.86 E15.30357
G1 X163.13 Y149.35 E15.39662
G1 X156.31 Y149.35 E15.82187
G1 X156.31 Y150.34 E15.88349
G1 X141.87 Y150.34 E16.78394
G1 X141.87 Y148.75 E16.88335
G0 F6000 X142.65 Y149.37
;TYPE:FILL
G1 F1860 X143.13 Y149.49 E16.90934
G1 X143.81 Y149.47 E16.93917
G1 X144.50 Y149.45 E16.97294
G1 X145.18 Y149.43 E17.01058
G1 X145.87 Y149.41 E17.05219
G1 X146.55 Y149.38 E17.09777
G1 X147.24 Y149.36 E17.14726
G1 X147.92 Y149.34 E17.20069
G1 X148.61 Y149.32 E17.25805
G1 X149.31 Y149.66 E17.30685
G0 F6000 X150.02 Y149.66
G1 F1860 X149.28 Y148.92 E17.37207
G0 F6000 X149.94 Y148.88
G1 F1860 X150.72 Y149.66 E17.44126
G0 F6000 X151.43 Y149.66
G1 F1860 X150.60 Y148.84 E17.51429
G0 F6000 X151.27 Y148.79
G1 F1860 X152.14 Y149.66 E17.59124
G0 F6000 X152.85 Y149.66
G1 F1860 X151.93 Y148.75 E17.67220
G0 F6000 X152.59 Y148.70
G1 F1860 X153.55 Y149.66 E17.75704
G0 F6000 X154.26 Y149.66
G1 F1860 X153.25 Y148.66 E17.84581
G0 F6000 X153.92 Y148.61
G1 F1860 X154.97 Y149.66 E17.93850
G0 F6000 X155.63 Y149.62
G1 F1860 X154.58 Y148.57 E18.03155
G0 F6000 X155.25 Y148.53
G1 F1860 X155.63 Y148.92 E18.06524
G0 F6000 X155.81 Y155.34
;TYPE:WALL-INNER
G1 F1860 X155.81 Y156.35 E18.12835
G1 X162.63 Y156.35 E18.55360
G1 X162.63 Y156.64 E18.57162
G1 X155.08 Y156.64 E19.04215
G1 X142.37 Y155.76 E19.83687
G1 X142.37 Y155.34 E19.86306
G1 X155.81 Y155.34 E20.70115
G0 F6000 X156.31 Y154.84
;TYPE:WALL-OUTER
G1 F1860 X156.31 Y155.85 E20.76427
G1 X163.13 Y155.85 E21.18952
G1 X163.13 Y157.14 E21.26990
G1 X155.06 Y157.14 E21.77286
G1 X141.87 Y156.23 E22.59758
G1 X141.87 Y154.84 E22.68408
G1 X156.31 Y154.84 E23.58453
G0 F6000 X155.16 Y155.51
;TYPE:FILL
G1 F1860 X155.63 Y155.99 E23.62638
G0 F6000 X155.40 Y156.46
G1 F1860 X154.45 Y155.51 E23.71021
G0 F6000 X153.75 Y155.51
G1 F1860 X154.67 Y156.44 E23.79148
G0 F6000 X153.91 Y156.38
G1 F1860 X153.04 Y155.51 E23.86808
G0 F6000 X152.33 Y155.51
G1 F1860 X153.15 Y156.33 E23.94005
G0 F6000 X152.39 Y156.28
G1 F1860 X151.62 Y155.51 E24.00734
G0 F6000 X150.92 Y155.51
G1 F1860 X151.63 Y156.22 E24.07004
G0 F6000 X150.87 Y156.17
G1 F1860 X150.16 Y155.82 E24.12810
G1 X149.43 Y155.79 E24.18143
G1 X148.69 Y155.76 E24.23017
G1 X147.96 Y155.74 E24.27426
G1 X147.22 Y155.71 E24.31365
G1 X146.49 Y155.68 E24.34832
G1 X145.76 Y155.66 E24.37851
G1 X145.03 Y155.63 E24.40407
G1 X144.29 Y155.60 E24.42496
G1 X143.85 Y155.51 E24.45330
G0 F6000 X158.32 Y154.98
;TYPE:SUPPORT
G1 F1860 X158.32 Y150.23 E24.74946
G0 F6000 X158.32 Y150.40
G0 X161.65 Y150.40
G0 X161.65 Y150.23
G1 F1860 X161.65 Y154.98 E25.04562
;LAYER:1
G0 F6000 X161.65 Y156.20 Z0.50
G0 X162.63 Y156.35
;TYPE:WALL-INNER
G1 F900 X162.63 Y156.64 E25.05763
G1 X155.08 Y156.64 E25.37132
G1 X143.30 Y155.82 E25.86237
G1 X142.37 Y155.74 E25.90118
G1 X142.37 Y155.34 E25.91802
G1 X155.81 Y155.34 E26.47675
G1 X155.81 Y156.35 E26.51882
G1 X162.63 Y156.35 E26.80232
G0 F6000 X163.13 Y155.85
;TYPE:WALL-OUTER
G1 F900 X163.13 Y157.14 E26.85591
G1 X155.06 Y157.14 E27.19122
G1 X143.26 Y156.32 E27.68298
G1 X141.87 Y156.20 E27.74111
G1 X141.87 Y154.84 E27.79778
G1 X156.31 Y154.84 E28.39808
G1 X156.31 Y155.85 E28.44015
G1 X163.13 Y155.85 E28.72366
G0 F6000 X162.87 Y156.20
G0 X155.92 Y156.24
G0 X155.63 Y155.85
;TYPE:FILL
G1 F900 X155.02 Y156.46 E28.75976
G0 F6000 X154.36 Y156.41
G1 F900 X155.26 Y155.51 E28.81276
G0 F6000 X154.55 Y155.51
G1 F900 X153.70 Y156.37 E28.86306
G0 F6000 X153.04 Y156.32
G1 F900 X153.84 Y155.51 E28.91063
G0 F6000 X153.14 Y155.51
G1 F900 X152.37 Y156.28 E28.95555
G0 F6000 X151.71 Y156.23
G1 F900 X152.43 Y155.51 E28.99776
G0 F6000 X151.72 Y155.51
G1 F900 X150.72 Y156.16 E29.03720
G1 X150.66 Y155.51 E29.07399
G1 X149.67 Y155.80 E29.10809
G1 X148.98 Y155.78 E29.13950
G1 X148.30 Y155.76 E29.16828
G1 X147.61 Y155.74 E29.19435
G1 X146.93 Y155.71 E29.21771
G1 X146.24 Y155.69 E29.23837
G1 X145.56 Y155.67 E29.25641
G1 X144.88 Y155.64 E29.27172
G1 X144.19 Y155.62 E29.28435
G1 X143.78 Y155.68 E29.30184
G0 F6000 X142.37 Y149.84
;TYPE:WALL-INNER
G1 F900 X142.37 Y149.22 E29.32765
G1 X143.29 Y149.15 E29.36617
G1 X155.08 Y148.36 E29.85728
G1 X162.63 Y148.36 E30.17109
G1 X162.63 Y148.85 E30.19155
G1 X155.81 Y148.85 E30.47505
G1 X155.81 Y149.84 E30.51612
G1 X142.37 Y149.84 E31.07485
G0 F6000 X141.87 Y150.34
;TYPE:WALL-OUTER
G1 F900 X141.87 Y148.75 E31.14083
G1 X143.26 Y148.65 E31.19868
G1 X155.06 Y147.86 E31.69055
G1 X163.13 Y147.86 E32.02589
G1 X163.13 Y149.35 E32.08792
G1 X156.31 Y149.35 E32.37142
G1 X156.31 Y150.34 E32.41250
G1 X141.87 Y150.34 E33.01280
G0 F6000 X142.72 Y149.66
;TYPE:FILL
G1 F900 X143.24 Y149.50 E33.03147
G1 X143.97 Y149.48 E33.05318
G1 X144.70 Y149.45 E33.07785
G1 X145.43 Y149.43 E33.10553
G1 X146.17 Y149.40 E33.13623
G1 X146.90 Y149.38 E33.16996
G1 X147.63 Y149.35 E33.20667
G1 X148.35 Y148.99 E33.24008
G0 F6000 X148.38 Y149.66
G1 F900 X149.11 Y148.94 E33.28286
G0 F6000 X149.09 Y149.66
G1 F900 X149.87 Y148.89 E33.32863
G0 F6000 X150.62 Y148.84
G1 F900 X149.79 Y149.66 E33.37740
G0 F6000 X150.50 Y149.66
G1 F900 X151.38 Y148.78 E33.42920
G0 F6000 X152.14 Y148.73
G1 F900 X151.21 Y149.66 E33.48400
G0 F6000 X151.92 Y149.66
G1 F900 X152.90 Y148.68 E33.54179
G0 F6000 X153.66 Y148.63
G1 F900 X152.62 Y149.66 E33.60259
G0 F6000 X153.33 Y149.66
G1 F900 X154.41 Y148.58 E33.66638
G0 F6000 X155.17 Y148.53
G1 F900 X154.04 Y149.66 E33.73282
G0 F6000 X154.74 Y149.66
G1 F900 X155.63 Y148.78 E33.78512
G0 F6000 X155.63 Y149.48
G1 F900 X155.45 Y149.66 E33.79585
G0 F6000 X158.32 Y150.23
;TYPE:SUPPORT
G1 F900 X158.32 Y154.98 E33.99329
G0 F6000 X158.32 Y154.80
G0 X161.65 Y154.80
G0 X161.65 Y154.98
G1 F900 X161.65 Y150.23 E34.19073
;LAYER:2
G0 F6000 X161.65 Y149.00 Z0.70
G0 X162.63 Y148.85
;TYPE:WALL-INNER
G1 F840 X155.81 Y148.85 E34.47423
G1 X155.81 Y149.84 E34.51531
G1 X142.37 Y149.84 E35.07404
G1 X142.37 Y149.23 E35.09928
G1 X146.16 Y148.96 E35.25738
G1 X155.08 Y148.36 E35.62894
G1 X162.63 Y148.36 E35.94275
G1 X162.63 Y148.85 E35.96321
G0 F6000 X163.13 Y149.35
;TYPE:WALL-OUTER
G1 F840 X156.31 Y149.35 E36.24671
G1 X156.31 Y150.34 E36.28778
G1 X141.87 Y150.34 E36.88809
G1 X141.87 Y148.79 E36.95261
G1 X141.94 Y148.76 E36.95580
G1 X146.13 Y148.46 E37.13024
G1 X155.06 Y147.86 E37.50255
G1 X163.13 Y147.86 E37.83790
G1 X163.13 Y149.35 E37.89993
G0 F6000 X162.78 Y149.09
G0 X155.92 Y148.96
G0 X155.63 Y149.62
;TYPE:FILL
G1 F840 X154.58 Y148.57 E37.96193
G0 F6000 X153.92 Y148.61
G1 F840 X154.97 Y149.66 E38.02363
G0 F6000 X154.26 Y149.66
G1 F840 X153.26 Y148.66 E38.08266
G0 F6000 X152.59 Y148.71
G1 F840 X153.55 Y149.66 E38.13905
G0 F6000 X152.85 Y149.66
G1 F840 X151.93 Y148.75 E38.19273
G0 F6000 X151.27 Y148.80
G1 F840 X152.14 Y149.66 E38.24374
G0 F6000 X151.43 Y149.66
G1 F840 X150.61 Y148.84 E38.29210
G0 F6000 X149.95 Y148.89
G1 F840 X150.72 Y149.66 E38.33781
G0 F6000 X150.02 Y149.66
G1 F840 X149.28 Y148.93 E38.38085
G0 F6000 X148.62 Y148.98
G1 F840 X148.96 Y149.66 E38.42122
G1 X147.93 Y149.34 E38.45889
G1 X147.24 Y149.37 E38.49388
G1 X146.56 Y149.39 E38.52620
G1 X145.88 Y149.41 E38.55585
G1 X145.19 Y149.43 E38.58287
G1 X144.51 Y149.46 E38.60720
G1 X143.82 Y149.48 E38.62888
G1 X143.14 Y149.50 E38.64789
G1 X142.67 Y149.39 E38.66801
G0 F6000 X155.25 Y148.53
G1 F840 X155.63 Y148.92 E38.69047
G0 F6000 X155.81 Y155.34
;TYPE:WALL-INNER
G1 F840 X155.81 Y156.35 E38.73255
G1 X162.63 Y156.35 E39.01605
G1 X162.63 Y156.64 E39.02806
G1 X155.08 Y156.64 E39.34175
G1 X146.17 Y156.02 E39.71324
G1 X142.37 Y155.69 E39.87178
G1 X142.37 Y155.34 E39.88649
G1 X155.81 Y155.34 E40.44522
G0 F6000 X156.31 Y154.84
;TYPE:WALL-OUTER
G1 F840 X156.31 Y155.85 E40.48730
G1 X163.13 Y155.85 E40.77080
G1 X163.13 Y157.14 E40.82439
G1 X155.06 Y157.14 E41.15969
G1 X146.13 Y156.52 E41.53189
G1 X141.87 Y156.15 E41.70975
G1 X141.87 Y154.84 E41.76433
G1 X156.31 Y154.84 E42.36464
G0 F6000 X155.16 Y155.51
;TYPE:FILL
G1 F840 X155.63 Y155.99 E42.39254
G0 F6000 X155.40 Y156.46
G1 F840 X154.45 Y155.51 E42.44842
G0 F6000 X153.75 Y155.51
G1 F840 X154.67 Y156.44 E42.50260
G0 F6000 X153.91 Y156.38
G1 F840 X153.04 Y155.51 E42.55367
G0 F6000 X152.33 Y155.51
G1 F840 X153.15 Y156.33 E42.60165
G0 F6000 X152.39 Y156.28
G1 F840 X151.62 Y155.51 E42.64651
G0 F6000 X150.92 Y155.51
G1 F840 X151.63 Y156.22 E42.68831
G0 F6000 X150.87 Y156.17
G1 F840 X150.16 Y155.82 E42.72701
G1 X149.43 Y155.79 E42.76257
G1 X148.69 Y155.76 E42.79506
G1 X147.96 Y155.74 E42.82446
G1 X147.22 Y155.71 E42.85072
G1 X146.49 Y155.68 E42.87383
G1 X145.75 Y155.65 E42.89394
G1 X145.01 Y155.62 E42.91025
G1 X144.55 Y155.51 E42.92978
G0 F6000 X158.32 Y154.98
;TYPE:SUPPORT
G1 F840 X158.32 Y150.23 E43.12722
G0 F6000 X158.32 Y150.40
G0 X161.65 Y150.40
G0 X161.65 Y150.23
G1 F840 X161.65 Y154.98 E43.32467
;LAYER:3
G0 F6000 X161.65 Y156.20 Z0.90
G0 X162.63 Y156.35
;TYPE:WALL-INNER
G1 F840 X162.63 Y156.64 E43.33668
G1 X155.08 Y156.64 E43.65037
G1 X149.04 Y156.22 E43.90229
G1 X142.37 Y155.64 E44.18056
G1 X142.37 Y155.34 E44.19315
G1 X155.81 Y155.34 E44.75188
G1 X155.81 Y156.35 E44.79396
G1 X162.63 Y156.35 E45.07746
G0 F6000 X163.13 Y155.85
;TYPE:WALL-OUTER
G1 F840 X163.13 Y157.14 E45.13105
G1 X155.06 Y157.14 E45.46635
G1 X149.00 Y156.72 E45.71899
G1 X141.87 Y156.10 E46.01657
G1 X141.87 Y154.84 E46.06904
G1 X156.31 Y154.84 E46.66934
G1 X156.31 Y155.85 E46.71142
G1 X163.13 Y155.85 E46.99492
G0 F6000 X162.87 Y156.20
G0 X155.92 Y156.24
G0 X155.63 Y155.85
;TYPE:FILL
G1 F840 X155.02 Y156.46 E47.03102
G0 F6000 X154.36 Y156.41
G1 F840 X155.26 Y155.51 E47.08403
G0 F6000 X154.55 Y155.51
G1 F840 X153.70 Y156.37 E47.13433
G0 F6000 X153.04 Y156.32
G1 F840 X153.84 Y155.51 E47.18189
G0 F6000 X153.14 Y155.51
G1 F840 X152.38 Y156.28 E47.22675
G0 F6000 X151.71 Y156.23
G1 F840 X152.43 Y155.51 E47.26897
G0 F6000 X151.72 Y155.51
G1 F840 X150.72 Y156.16 E47.30841
G1 X150.66 Y155.51 E47.34519
G1 X149.67 Y155.80 E47.37930
G1 X148.98 Y155.78 E47.41071
G1 X148.30 Y155.75 E47.43879
G1 X147.62 Y155.72 E47.46358
G1 X146.94 Y155.69 E47.48502
G1 X146.27 Y155.67 E47.50316
G1 X145.59 Y155.64 E47.51797
G1 X144.91 Y155.61 E47.52944
G1 X144.57 Y155.60 E47.54350
G0 F6000 X142.37 Y149.84
;TYPE:WALL-INNER
G1 F840 X142.37 Y149.25 E47.56811
G1 X149.03 Y148.77 E47.84581
G1 X155.08 Y148.36 E48.09782
G1 X162.63 Y148.36 E48.41163
G1 X162.63 Y148.85 E48.43209
G1 X155.81 Y148.85 E48.71559
G1 X155.81 Y149.84 E48.75667
G1 X142.37 Y149.84 E49.31540
G0 F6000 X141.87 Y150.34
;TYPE:WALL-OUTER
G1 F840 X141.87 Y148.85 E49.37734
G1 X142.12 Y148.76 E49.38810
G1 X149.00 Y148.27 E49.67496
G1 X155.06 Y147.86 E49.92773
G1 X163.13 Y147.86 E50.26307
G1 X163.13 Y149.35 E50.32510
G1 X156.31 Y149.35 E50.60860
G1 X156.31 Y150.34 E50.64968
G1 X141.87 Y150.34 E51.24998
G0 F6000 X142.72 Y149.66
;TYPE:FILL
G1 F840 X143.22 Y149.52 E51.26685
G1 X143.95 Y149.49 E51.28688
G1 X144.69 Y149.47 E51.30997
G1 X145.42 Y149.44 E51.33623
G1 X146.16 Y149.41 E51.36562
G1 X146.89 Y149.39 E51.39811
G1 X147.62 Y149.36 E51.43372
G1 X148.33 Y149.00 E51.46674
G0 F6000 X148.38 Y149.66
G1 F840 X149.09 Y148.95 E51.50863
G0 F6000 X149.09 Y149.66
G1 F840 X149.85 Y148.90 E51.55364
G0 F6000 X150.61 Y148.84
G1 F840 X149.79 Y149.66 E51.60179
G0 F6000 X150.50 Y149.66
G1 F840 X151.37 Y148.79 E51.65303
G0 F6000 X152.13 Y148.74
G1 F840 X151.21 Y149.66 E51.70742
G0 F6000 X151.92 Y149.66
G1 F840 X152.89 Y148.69 E51.76492
G0 F6000 X153.65 Y148.63
G1 F840 X152.62 Y149.66 E51.82554
G0 F6000 X153.33 Y149.66
G1 F840 X154.41 Y148.58 E51.88928
G0 F6000 X155.17 Y148.53
G1 F840 X154.04 Y149.66 E51.95572
G0 F6000 X154.74 Y149.66
G1 F840 X155.63 Y148.78 E52.00802
G0 F6000 X155.63 Y149.48
G1 F840 X155.45 Y149.66 E52.01875
G0 F6000 X158.32 Y150.23
;TYPE:SUPPORT
G1 F840 X158.32 Y154.98 E52.21619
G0 F6000 X158.32 Y154.80
G0 X161.65 Y154.80
G0 X161.65 Y154.98
G1 F840 X161.65 Y150.23 E52.41363
;LAYER:4
G0 F6000 X161.65 Y149.00 Z1.10
G0 X162.63 Y148.85
;TYPE:WALL-INNER
G1 F840 X155.81 Y148.85 E52.69713
G1 X155.81 Y149.84 E52.73821
G1 X142.37 Y149.84 E53.29693
G1 X142.37 Y149.27 E53.32076
G1 X151.90 Y148.57 E53.71806
G1 X155.08 Y148.36 E53.85052
G1 X162.63 Y148.36 E54.16433
G1 X162.63 Y148.85 E54.18479
G0 F6000 X163.13 Y149.35
;TYPE:WALL-OUTER
G1 F840 X156.31 Y149.35 E54.46829
G1 X156.31 Y150.34 E54.50936
G1 X141.87 Y150.34 E55.10967
G1 X141.87 Y148.91 E55.16904
G1 X142.29 Y148.77 E55.18737
G1 X151.87 Y148.07 E55.58665
G1 X155.06 Y147.86 E55.71987
G1 X163.13 Y147.86 E56.05521
G1 X163.13 Y149.35 E56.11724
G0 F6000 X162.78 Y149.09
G0 X155.92 Y148.96
G0 X155.63 Y149.62
;TYPE:FILL
G1 F840 X154.58 Y148.57 E56.17915
G0 F6000 X153.92 Y148.62
G1 F840 X154.97 Y149.66 E56.24071
G0 F6000 X154.26 Y149.66
G1 F840 X153.26 Y148.66 E56.29948
G0 F6000 X152.60 Y148.71
G1 F840 X153.55 Y149.66 E56.35545
G0 F6000 X152.85 Y149.66
G1 F840 X151.94 Y148.76 E56.40869
G0 F6000 X151.28 Y148.81
G1 F840 X152.14 Y149.66 E56.45911
G0 F6000 X151.43 Y149.66
G1 F840 X150.62 Y148.85 E56.50680
G0 F6000 X149.96 Y148.90
G1 F840 X150.72 Y149.66 E56.55169
G0 F6000 X150.02 Y149.66
G1 F840 X149.30 Y148.95 E56.59384
G0 F6000 X148.64 Y148.99
G1 F840 X148.96 Y149.66 E56.63320
G1 X147.94 Y149.35 E56.66986
G1 X147.25 Y149.38 E56.70372
G1 X146.57 Y149.40 E56.73474
G1 X145.89 Y149.42 E56.76303
G1 X145.20 Y149.45 E56.78858
G1 X144.52 Y149.47 E56.81137
G1 X143.84 Y149.49 E56.83134
G1 X143.15 Y149.52 E56.84856
G1 X142.70 Y149.42 E56.86784
G0 F6000 X155.25 Y148.53
G1 F840 X155.63 Y148.92 E56.89030
G0 F6000 X155.81 Y155.34
;TYPE:WALL-INNER
G1 F840 X155.81 Y156.35 E56.93237
G1 X162.63 Y156.35 E57.21587
G1 X162.63 Y156.64 E57.22789
G1 X155.08 Y156.64 E57.54157
G1 X151.91 Y156.42 E57.67393
G1 X142.37 Y155.59 E58.07193
G1 X142.37 Y155.34 E58.08244
G1 X155.81 Y155.34 E58.64117
G0 F6000 X156.31 Y154.84
;TYPE:WALL-OUTER
G1 F840 X156.31 Y155.85 E58.68325
G1 X163.13 Y155.85 E58.96675
G1 X163.13 Y157.14 E59.02034
G1 X155.06 Y157.14 E59.35564
G1 X151.87 Y156.92 E59.48871
G1 X141.87 Y156.05 E59.90602
G1 X141.87 Y154.84 E59.95641
G1 X156.31 Y154.84 E60.55672
G0 F6000 X155.16 Y155.51
;TYPE:FILL
G1 F840 X155.63 Y155.99 E60.58462
G0 F6000 X155.40 Y156.46
G1 F840 X154.45 Y155.51 E60.64050
G0 F6000 X153.75 Y155.51
G1 F840 X154.67 Y156.44 E60.69468
G0 F6000 X153.91 Y156.38
G1 F840 X153.04 Y155.51 E60.74581
G0 F6000 X152.33 Y155.51
G1 F840 X153.15 Y156.33 E60.79378
G0 F6000 X152.39 Y156.28
G1 F840 X151.62 Y155.51 E60.83870
G0 F6000 X151.62 Y156.22
G1 F840 X150.88 Y155.83 E60.88020
G1 X150.14 Y155.80 E60.91771
G1 X149.40 Y155.76 E60.95127
G1 X148.66 Y155.73 E60.98087
G1 X147.92 Y155.70 E61.00649
G1 X147.18 Y155.66 E61.02821
G1 X146.44 Y155.63 E61.04597
G1 X145.70 Y155.60 E61.05972
G1 X145.26 Y155.51 E61.07822
G0 F6000 X158.32 Y154.98
;TYPE:SUPPORT
G1 F840 X158.32 Y150.23 E61.27566
G0 F6000 X158.32 Y150.40
G0 X161.65 Y150.40
G0 X161.65 Y150.23
G1 F840 X161.65 Y154.98 E61.47310
;LAYER:5
G0 F6000 X161.65 Y156.20 Z1.30
G0 X162.63 Y156.35
;TYPE:WALL-INNER
G1 F840 X162.63 Y156.64 E61.48511
G1 X155.09 Y156.64 E61.79851
G1 X142.37 Y155.54 E62.32931
G1 X142.37 Y155.34 E62.33771
G1 X155.81 Y155.34 E62.89644
G1 X155.81 Y156.35 E62.93851
G1 X162.63 Y156.35 E63.22201
G0 F6000 X163.13 Y155.85
;TYPE:WALL-OUTER
G1 F840 X163.13 Y157.14 E63.27561
G1 X155.07 Y157.14 E63.61062
G1 X141.87 Y156.00 E64.16145
G1 X141.87 Y154.84 E64.20972
G1 X156.31 Y154.84 E64.81003
G1 X156.31 Y155.85 E64.85210
G1 X163.13 Y155.85 E65.13560
G0 F6000 X162.87 Y156.20
G0 X155.92 Y156.24
G0 X155.63 Y155.85
;TYPE:FILL
G1 F840 X155.02 Y156.46 E65.17155
G0 F6000 X154.37 Y156.40
G1 F840 X155.26 Y155.51 E65.22382
G0 F6000 X154.55 Y155.51
G1 F840 X153.72 Y156.34 E65.27277
G0 F6000 X153.07 Y156.29
G1 F840 X153.84 Y155.51 E65.31840
G0 F6000 X153.14 Y155.51
G1 F840 X152.42 Y156.23 E65.36073
G0 F6000 X151.77 Y156.18
G1 F840 X152.08 Y155.51 E65.39979
G1 X151.07 Y155.82 E65.43547
G1 X150.39 Y155.79 E65.46784
G1 X149.71 Y155.76 E65.49696
G1 X149.03 Y155.73 E65.52273
G1 X148.35 Y155.70 E65.54516
G1 X147.67 Y155.68 E65.56432
G1 X146.99 Y155.65 E65.58016
G1 X146.31 Y155.62 E65.59263
G1 X145.91 Y155.67 E65.60956
G0 F6000 X142.37 Y149.84
;TYPE:WALL-INNER
G1 F840 X142.37 Y149.33 E65.63081
G1 X142.56 Y149.26 E65.63917
G1 X154.77 Y148.38 E66.14791
G1 X162.63 Y148.36 E66.47482
G1 X162.63 Y148.85 E66.49527
G1 X155.81 Y148.85 E66.77878
G1 X155.81 Y149.84 E66.81985
G1 X142.37 Y149.84 E67.37858
G0 F6000 X141.87 Y150.34
;TYPE:WALL-OUTER
G1 F840 X141.87 Y148.97 E67.43537
G1 X142.46 Y148.77 E67.46128
G1 X154.73 Y147.88 E67.97269
G1 X155.24 Y147.86 E67.99383
G1 X163.13 Y147.86 E68.32198
G1 X163.13 Y149.35 E68.38401
G1 X156.31 Y149.35 E68.66751
G1 X156.31 Y150.34 E68.70859
G1 X141.87 Y150.34 E69.30889
G0 F6000 X142.72 Y149.66
;TYPE:FILL
G1 F840 X143.21 Y149.53 E69.32404
G1 X143.94 Y149.51 E69.34241
G1 X144.68 Y149.48 E69.36403
G1 X145.41 Y149.45 E69.38886
G1 X146.14 Y149.43 E69.41689
G1 X146.88 Y149.40 E69.44821
G1 X147.61 Y149.37 E69.48277
G1 X148.35 Y149.34 E69.52051
G1 X149.08 Y148.97 E69.55467
G0 F6000 X149.09 Y149.66
G1 F840 X149.84 Y148.91 E69.59894
G0 F6000 X149.79 Y149.66
G1 F840 X150.60 Y148.86 E69.64648
G0 F6000 X151.36 Y148.80
G1 F840 X150.50 Y149.66 E69.69716
G0 F6000 X151.21 Y149.66
G1 F840 X152.13 Y148.75 E69.75110
G0 F6000 X152.89 Y148.69
G1 F840 X151.92 Y149.66 E69.80831
G0 F6000 X152.62 Y149.66
G1 F840 X153.65 Y148.64 E69.86876
G0 F6000 X154.41 Y148.58
G1 F840 X153.33 Y149.66 E69.93240
G0 F6000 X154.04 Y149.66
G1 F840 X155.15 Y148.56 E69.99764
G0 F6000 X155.63 Y148.78
G1 F840 X154.74 Y149.66 E70.04994
G0 F6000 X155.45 Y149.66
G1 F840 X155.63 Y149.48 E70.06067
G0 F6000 X158.32 Y150.23
;TYPE:SUPPORT
G1 F840 X158.32 Y154.98 E70.25811
G0 F6000 X158.32 Y154.80
G0 X161.65 Y154.80
G0 X161.65 Y154.98
G1 F840 X161.65 Y150.23 E70.45555
;LAYER:6
G0 F6000 X161.65 Y149.00 Z1.50
G0 X162.63 Y148.85
;TYPE:WALL-INNER
G1 F840 X155.81 Y148.85 E70.73905
G1 X155.81 Y149.84 E70.78012
G1 X142.37 Y149.84 E71.33885
G1 X142.37 Y149.39 E71.35748
G1 X142.73 Y149.27 E71.37341
G1 X155.09 Y148.37 E71.88837
G1 X162.63 Y148.37 E72.20193
G1 X162.63 Y148.85 E72.22185
G0 F6000 X163.13 Y149.35
;TYPE:WALL-OUTER
G1 F840 X156.31 Y149.35 E72.50535
G1 X156.31 Y150.34 E72.54643
G1 X141.87 Y150.34 E73.14673
G1 X141.87 Y149.04 E73.20086
G1 X142.63 Y148.77 E73.23439
G1 X155.06 Y147.87 E73.75264
G1 X163.13 Y147.87 E74.08790
G1 X163.13 Y149.35 E74.14939
G0 F6000 X162.78 Y149.09
G0 X155.92 Y148.96
G0 X155.63 Y149.62
;TYPE:FILL
G1 F840 X154.59 Y148.58 E74.21051
G0 F6000 X153.94 Y148.63
G1 F840 X154.97 Y149.66 E74.27122
G0 F6000 X154.26 Y149.66
G1 F840 X153.28 Y148.68 E74.32910
G0 F6000 X152.62 Y148.73
G1 F840 X153.55 Y149.66 E74.38420
G0 F6000 X152.85 Y149.66
G1 F840 X151.96 Y148.77 E74.43652
G0 F6000 X151.30 Y148.82
G1 F840 X152.14 Y149.66 E74.48600
G0 F6000 X151.43 Y149.66
G1 F840 X150.64 Y148.87 E74.53269
G0 F6000 X149.98 Y148.92
G1 F840 X150.72 Y149.66 E74.57658
G0 F6000 X150.02 Y149.66
G1 F840 X148.99 Y148.99 E74.61760
G1 X148.96 Y149.66 E74.65592
G1 X147.95 Y149.36 E74.69139
G1 X147.26 Y149.39 E74.72407
G1 X146.58 Y149.41 E74.75396
G1 X145.90 Y149.43 E74.78101
G1 X145.21 Y149.46 E74.80525
G1 X144.53 Y149.48 E74.82667
G1 X143.85 Y149.50 E74.84531
G1 X143.16 Y149.53 E74.86119
G1 X142.73 Y149.45 E74.87939
G0 F6000 X155.26 Y148.55
G1 F840 X155.63 Y148.92 E74.90106
G0 F6000 X155.81 Y155.34
;TYPE:WALL-INNER
G1 F840 X155.81 Y156.35 E74.94313
G1 X162.63 Y156.35 E75.22663
G1 X162.63 Y156.63 E75.23823
G1 X155.16 Y156.63 E75.54888
G1 X155.10 Y156.63 E75.55121
G1 X154.20 Y156.52 E75.58908
G1 X142.37 Y155.49 E76.08260
G1 X142.37 Y155.34 E76.08892
G1 X155.81 Y155.34 E76.64765
G0 F6000 X156.31 Y154.84
;TYPE:WALL-OUTER
G1 F840 X156.31 Y155.85 E76.68972
G1 X163.13 Y155.85 E76.97323
G1 X163.13 Y157.13 E77.02640
G1 X155.16 Y157.13 E77.35771
G1 X155.07 Y157.13 E77.36125
G1 X154.15 Y157.01 E77.40021
G1 X141.87 Y155.95 E77.91242
G1 X141.87 Y154.84 E77.95857
G1 X156.31 Y154.84 E78.55887
G0 F6000 X155.16 Y155.51
;TYPE:FILL
G1 F840 X155.63 Y155.99 E78.58677
G0 F6000 X155.39 Y156.45
G1 F840 X154.45 Y155.51 E78.64204
G0 F6000 X153.75 Y155.51
G1 F840 X154.62 Y156.39 E78.69375
G0 F6000 X153.84 Y156.31
G1 F840 X153.04 Y155.51 E78.74058
G0 F6000 X152.33 Y155.51
G1 F840 X153.06 Y156.24 E78.78347
G0 F6000 X152.29 Y156.18
G1 F840 X151.57 Y155.81 E78.82239
G1 X150.83 Y155.78 E78.85736
G1 X150.09 Y155.74 E78.88838
G1 X149.35 Y155.71 E78.91542
G1 X148.60 Y155.68 E78.93855
G1 X147.87 Y155.64 E78.95771
G1 X147.12 Y155.61 E78.97288
G1 X146.68 Y155.51 E78.99197
G0 F6000 X158.32 Y154.98
;TYPE:SUPPORT
G1 F840 X158.32 Y150.23 E79.18941
G0 F6000 X158.32 Y150.40
G0 X161.65 Y150.40
G0 X161.65 Y150.23
G1 F840 X161.65 Y154.98 E79.38685
;LAYER:7
G0 F6000 X161.65 Y156.20 Z1.70
G0 X162.63 Y156.35
;TYPE:WALL-INNER
G1 F840 X162.63 Y156.62 E79.39795
G1 X155.27 Y156.62 E79.70378
G1 X155.10 Y156.62 E79.71089
G1 X153.13 Y156.38 E79.79362
G1 X142.37 Y155.44 E80.24248
G1 X142.37 Y155.34 E80.24672
G1 X155.81 Y155.34 E80.80545
G1 X155.81 Y156.35 E80.84752
G1 X162.63 Y156.35 E81.13103
G0 F6000 X163.13 Y155.85
;TYPE:WALL-OUTER
G1 F840 X163.13 Y157.12 E81.18370
G1 X155.27 Y157.12 E81.51027
G1 X155.07 Y157.12 E81.51859
G1 X153.07 Y156.87 E81.60232
G1 X141.87 Y155.90 E82.06989
G1 X141.87 Y154.84 E82.11396
G1 X156.31 Y154.84 E82.71426
G1 X156.31 Y155.85 E82.75633
G1 X163.13 Y155.85 E83.03983
G0 F6000 X162.87 Y156.20
G0 X155.92 Y156.24
G0 X155.63 Y155.85
;TYPE:FILL
G1 F840 X155.05 Y156.43 E83.07438
G0 F6000 X154.42 Y156.36
G1 F840 X155.26 Y155.51 E83.12394
G0 F6000 X154.55 Y155.51
G1 F840 X153.79 Y156.28 E83.16895
G0 F6000 X153.16 Y156.20
G1 F840 X153.49 Y155.51 E83.20933
G1 X152.47 Y155.83 E83.24645
G1 X151.79 Y155.80 E83.28025
G1 X151.11 Y155.77 E83.31071
G1 X150.43 Y155.74 E83.33783
G1 X149.75 Y155.72 E83.36168
G1 X149.07 Y155.69 E83.38219
G1 X148.40 Y155.66 E83.39942
G1 X147.72 Y155.63 E83.41333
G1 X147.30 Y155.69 E83.43077
G0 F6000 X142.37 Y149.84
;TYPE:WALL-INNER
G1 F840 X142.37 Y149.45 E83.44682
G1 X142.90 Y149.27 E83.47029
G1 X155.09 Y148.39 E83.97812
G1 X162.63 Y148.39 E84.29168
G1 X162.63 Y148.85 E84.31097
G1 X155.81 Y148.85 E84.59447
G1 X155.81 Y149.84 E84.63555
G1 X142.37 Y149.84 E85.19428
G0 F6000 X141.87 Y150.34
;TYPE:WALL-OUTER
G1 F840 X141.87 Y149.10 E85.24587
G1 X142.80 Y148.77 E85.28691
G1 X155.06 Y147.89 E85.79803
G1 X163.13 Y147.89 E86.13329
G1 X163.13 Y149.35 E86.19416
G1 X156.31 Y149.35 E86.47766
G1 X156.31 Y150.34 E86.51874
G1 X141.87 Y150.34 E87.11904
G0 F6000 X142.72 Y149.66
;TYPE:FILL
G1 F840 X143.19 Y149.55 E87.13224
G1 X143.92 Y149.52 E87.14863
G1 X144.66 Y149.50 E87.16826
G1 X145.39 Y149.47 E87.19116
G1 X146.13 Y149.44 E87.21728
G1 X146.86 Y149.41 E87.24663
G1 X147.60 Y149.39 E87.27925
G1 X148.33 Y149.36 E87.31510
G1 X149.05 Y149.00 E87.34838
G0 F6000 X149.09 Y149.66
G1 F840 X149.81 Y148.94 E87.39074
G0 F6000 X149.79 Y149.66
G1 F840 X150.57 Y148.89 E87.43634
G0 F6000 X151.33 Y148.83
G1 F840 X150.50 Y149.66 E87.48517
G0 F6000 X151.21 Y149.66
G1 F840 X152.09 Y148.78 E87.53726
G0 F6000 X152.86 Y148.72
G1 F840 X151.92 Y149.66 E87.59259
G0 F6000 X152.62 Y149.66
G1 F840 X153.62 Y148.67 E87.65115
G0 F6000 X154.38 Y148.61
G1 F840 X153.33 Y149.66 E87.71292
G0 F6000 X154.04 Y149.66
G1 F840 X155.14 Y148.56 E87.77768
G0 F6000 X155.63 Y148.78
G1 F840 X154.74 Y149.66 E87.82998
G0 F6000 X155.45 Y149.66
G1 F840 X155.63 Y149.48 E87.84071
G0 F6000 X158.32 Y150.23
;TYPE:SUPPORT
G1 F840 X158.32 Y154.98 E88.03815
G0 F6000 X158.32 Y154.80
G0 X161.65 Y154.80
G0 X161.65 Y154.98
G1 F840 X161.65 Y150.23 E88.23559
;LAYER:8
G0 F6000 X161.65 Y149.00 Z1.90
G0 X162.63 Y148.85
;TYPE:WALL-INNER
G1 F840 X155.81 Y148.85 E88.51909
G1 X155.81 Y149.84 E88.56017
G1 X142.37 Y149.84 E89.11890
G1 X142.37 Y149.52 E89.13237
G1 X143.08 Y149.27 E89.16341
G1 X155.09 Y148.40 E89.66407
G1 X162.63 Y148.40 E89.97763
G1 X162.63 Y148.85 E89.99630
G0 F6000 X163.13 Y149.35
;TYPE:WALL-OUTER
G1 F840 X156.31 Y149.35 E90.27980
G1 X156.31 Y150.34 E90.32087
G1 X141.87 Y150.34 E90.92118
G1 X141.87 Y149.16 E90.97019
G1 X142.97 Y148.78 E91.01880
G1 X155.06 Y147.90 E91.52276
G1 X163.13 Y147.90 E91.85802
G1 X163.13 Y149.35 E91.91830
G0 F6000 X162.78 Y149.09
G0 X155.92 Y148.96
G0 X155.63 Y149.62
;TYPE:FILL
G1 F840 X154.62 Y148.61 E91.97783
G0 F6000 X153.96 Y148.66
G1 F840 X154.97 Y149.66 E92.03695
G0 F6000 X154.26 Y149.66
G1 F840 X153.30 Y148.71 E92.09325
G0 F6000 X152.64 Y148.75
G1 F840 X153.55 Y149.66 E92.14676
G0 F6000 X152.85 Y149.66
G1 F840 X151.98 Y148.80 E92.19744
G0 F6000 X151.32 Y148.85
G1 F840 X152.14 Y149.66 E92.24530
G0 F6000 X151.43 Y149.66
G1 F840 X150.66 Y148.90 E92.29039
G0 F6000 X150.00 Y148.94
G1 F840 X150.72 Y149.66 E92.33273
G0 F6000 X150.02 Y149.66
G1 F840 X149.01 Y149.02 E92.37225
G1 X148.96 Y149.66 E92.40898
G1 X147.96 Y149.38 E92.44284
G1 X147.28 Y149.40 E92.47391
G1 X146.59 Y149.42 E92.50215
G1 X145.91 Y149.45 E92.52765
G1 X145.23 Y149.47 E92.55032
G1 X144.54 Y149.50 E92.57015
G1 X143.86 Y149.52 E92.58720
G1 X143.18 Y149.54 E92.60154
G1 X142.83 Y149.55 E92.61585
G0 F6000 X155.29 Y148.58
G1 F840 X155.63 Y148.92 E92.63581
G0 F6000 X155.81 Y155.34
;TYPE:WALL-INNER
G1 F840 X155.81 Y156.35 E92.67789
G1 X162.63 Y156.35 E92.96139
G1 X162.63 Y156.61 E92.97199
G1 X155.39 Y156.60 E93.27308
G1 X155.10 Y156.61 E93.28492
G1 X152.06 Y156.23 E93.41251
G1 X142.37 Y155.39 E93.81669
G1 X142.37 Y155.34 E93.81881
G1 X155.81 Y155.34 E94.37754
G0 F6000 X156.31 Y154.84
;TYPE:WALL-OUTER
G1 F840 X156.31 Y155.85 E94.41961
G1 X163.13 Y155.85 E94.70311
G1 X163.13 Y157.11 E94.75529
G1 X155.07 Y157.11 E95.09013
G1 X152.00 Y156.73 E95.21877
G1 X141.87 Y155.85 E95.64164
G1 X141.87 Y154.84 E95.68359
G1 X156.31 Y154.84 E96.28389
G0 F6000 X155.16 Y155.51
;TYPE:FILL
G1 F840 X155.63 Y155.99 E96.31179
G1 X155.16 Y155.51 E96.33969
G0 F6000 X154.45 Y155.51
G1 F840 X155.37 Y156.43 E96.39355
G1 X154.45 Y155.51 E96.44741
G0 F6000 X153.75 Y155.51
G1 F840 X154.60 Y156.37 E96.49753
G1 X153.75 Y155.51 E96.54765
G0 F6000 X153.04 Y155.51
G1 F840 X153.79 Y156.27 E96.59196
G1 X153.04 Y155.51 E96.63626
G0 F6000 X152.99 Y156.17
G1 F840 X152.33 Y155.51 E96.67468
G1 X152.58 Y156.12 E96.71311
G1 X151.62 Y155.51 E96.74569
G1 X151.79 Y156.03 E96.77833
G1 X150.92 Y155.51 E96.80680
G1 X151.01 Y155.96 E96.83526
G1 X150.21 Y155.51 E96.85979
G1 X150.24 Y155.90 E96.88432
G1 X149.50 Y155.51 E96.90482
G1 X149.47 Y155.83 E96.92536
G1 X148.80 Y155.51 E96.94191
G1 X148.69 Y155.76 E96.95849
G1 X148.09 Y155.51 E96.97111
G1 X148.30 Y155.73 E96.98375
G0 F6000 X158.32 Y154.98
;TYPE:SUPPORT
G1 F840 X158.32 Y150.23 E97.18119
G0 F6000 X158.32 Y150.40
G0 X161.65 Y150.40
G0 X161.65 Y150.23
G1 F840 X161.65 Y154.98 E97.37863
;LAYER:9
G0 F6000 X161.65 Y156.20 Z2.10
G0 X162.63 Y156.35
;TYPE:WALL-INNER
G1 F840 X162.63 Y156.59 E97.38878
G1 X155.50 Y156.59 E97.68517
G1 X155.10 Y156.59 E97.70167
G1 X150.99 Y156.09 E97.87413
G1 X142.37 Y155.34 E98.23365
G1 X155.81 Y155.34 E98.79238
G1 X155.81 Y156.35 E98.83445
G1 X162.63 Y156.35 E99.11795
G0 F6000 X163.13 Y155.85
;TYPE:WALL-OUTER
G1 F840 X163.13 Y157.09 E99.16967
G1 X155.08 Y157.09 E99.50448
G1 X150.93 Y156.59 E99.67798
G1 X141.87 Y155.80 E100.05620
G1 X141.87 Y154.84 E100.09607
G1 X156.31 Y154.84 E100.69637
G1 X156.31 Y155.85 E100.73844
G1 X163.13 Y155.85 E101.02195
G0 F6000 X162.87 Y156.20
G0 X155.92 Y156.24
G0 X155.63 Y155.85
;TYPE:FILL
G1 F840 X155.07 Y156.41 E101.05534
G1 X155.63 Y155.85 E101.08874
G0 F6000 X155.26 Y155.51
G1 F840 X154.44 Y156.34 E101.13710
G1 X155.26 Y155.51 E101.18546
G0 F6000 X154.55 Y155.51
G1 F840 X153.81 Y156.26 E101.22926
G1 X154.55 Y155.51 E101.27306
G0 F6000 X153.84 Y155.51
G1 F840 X153.18 Y156.18 E101.31228
G1 X153.49 Y155.51 E101.35149
G1 X152.55 Y156.10 E101.38606
G1 X152.78 Y155.51 E101.42064
G1 X151.92 Y156.03 E101.45073
G1 X152.08 Y155.51 E101.48085
G1 X151.29 Y155.95 E101.50633
G1 X151.37 Y155.51 E101.53183
G1 X150.65 Y155.88 E101.55348
G1 X150.66 Y155.51 E101.57519
G1 X150.00 Y155.83 E101.59352
G1 X149.96 Y155.51 E101.61191
G1 X149.35 Y155.77 E101.62696
G1 X149.25 Y155.51 E101.64200
G1 X148.70 Y155.71 E101.65372
G1 X148.54 Y155.51 E101.66543
G1 X148.06 Y155.64 E101.67291
G1 X148.19 Y155.51 E101.68041
G0 F6000 X143.25 Y149.27
;TYPE:WALL-INNER
G1 F840 X155.09 Y148.42 E102.17390
G1 X162.63 Y148.42 E102.48746
G1 X162.63 Y148.85 E102.50554
G1 X155.81 Y148.85 E102.78904
G1 X155.81 Y149.84 E102.83012
G1 X142.37 Y149.84 E103.38885
G1 X142.37 Y149.58 E103.39974
G1 X143.25 Y149.27 E103.43836
G0 F6000 X143.15 Y148.78
;TYPE:WALL-OUTER
G1 F840 X155.06 Y147.92 E103.93514
G1 X163.13 Y147.92 E104.27041
G1 X163.13 Y149.35 E104.33011
G1 X156.31 Y149.35 E104.61361
G1 X156.31 Y150.34 E104.65469
G1 X141.87 Y150.34 E105.25499
G1 X141.87 Y149.22 E105.30143
G1 X143.15 Y148.78 E105.35761
G0 F6000 X143.68 Y149.41
;TYPE:FILL
G1 F840 X143.78 Y149.66 E105.37229
G1 X144.64 Y149.51 E105.39006
G1 X145.38 Y149.48 E105.41110
G1 X146.11 Y149.46 E105.43540
G1 X146.85 Y149.43 E105.46299
G1 X147.58 Y149.40 E105.49381
G1 X148.32 Y149.37 E105.52789
G1 X149.05 Y149.35 E105.56515
G1 X149.78 Y148.97 E105.59910
G0 F6000 X149.79 Y149.66
G1 F840 X150.54 Y148.92 E105.64287
G0 F6000 X150.50 Y149.66
G1 F840 X151.30 Y148.87 E105.68985
G0 F6000 X152.06 Y148.81
G1 F840 X151.21 Y149.66 E105.74012
G0 F6000 X151.92 Y149.66
G1 F840 X152.83 Y148.75 E105.79362
G0 F6000 X153.59 Y148.70
G1 F840 X152.62 Y149.66 E105.85030
G0 F6000 X153.33 Y149.66
G1 F840 X154.35 Y148.65 E105.91025
G0 F6000 X155.11 Y148.59
G1 F840 X154.04 Y149.66 E105.97334
G0 F6000 X154.74 Y149.66
G1 F840 X155.63 Y148.78 E106.02563
G0 F6000 X155.63 Y149.48
G1 F840 X155.45 Y149.66 E106.03636
G0 F6000 X158.32 Y150.23
;TYPE:SUPPORT
G1 F840 X158.32 Y154.98 E106.23381
G0 F6000 X158.32 Y154.80
G0 X161.65 Y154.80
G0 X161.65 Y154.98
G1 F840 X161.65 Y150.23 E106.43125
;LAYER:10
G0 F6000 X161.65 Y149.00 Z2.30
G0 X162.63 Y148.85
;TYPE:WALL-INNER
G1 F840 X155.81 Y148.85 E106.71475
G1 X155.81 Y149.84 E106.75582
G1 X142.37 Y149.84 E107.31455
G1 X142.37 Y149.64 E107.32287
G1 X143.42 Y149.27 E107.36906
G1 X155.09 Y148.43 E107.85538
G1 X162.63 Y148.43 E108.16894
G1 X162.63 Y148.85 E108.18640
G0 F6000 X163.13 Y149.35
;TYPE:WALL-OUTER
G1 F840 X156.31 Y149.35 E108.46990
G1 X156.31 Y150.34 E108.51098
G1 X141.87 Y150.34 E109.11128
G1 X141.87 Y149.28 E109.15514
G1 X143.32 Y148.78 E109.21890
G1 X155.06 Y147.93 E109.70851
G1 X163.13 Y147.93 E110.04377
G1 X163.13 Y149.35 E110.10285
G0 F6000 X162.78 Y149.09
G0 X155.92 Y148.96
G0 X155.63 Y149.62
;TYPE:FILL
G1 F840 X154.65 Y148.64 E110.16077
G0 F6000 X153.99 Y148.69
G1 F840 X154.97 Y149.66 E110.21824
G0 F6000 X154.26 Y149.66
G1 F840 X153.33 Y148.73 E110.27292
G0 F6000 X152.67 Y148.78
G1 F840 X153.55 Y149.66 E110.32484
G0 F6000 X152.85 Y149.66
G1 F840 X152.01 Y148.83 E110.37396
G0 F6000 X151.35 Y148.88
G1 F840 X152.14 Y149.66 E110.42023
G0 F6000 X151.43 Y149.66
G1 F840 X150.69 Y148.92 E110.46371
G0 F6000 X150.03 Y148.97
G1 F840 X150.37 Y149.66 E110.50436
G1 X149.34 Y149.34 E110.54220
G1 X148.66 Y149.37 E110.57727
G1 X147.97 Y149.39 E110.60954
G1 X147.29 Y149.41 E110.63902
G1 X146.61 Y149.44 E110.66567
G1 X145.93 Y149.46 E110.68954
G1 X145.24 Y149.48 E110.71060
G1 X144.56 Y149.51 E110.72890
G1 X143.88 Y149.53 E110.74435
G1 X143.44 Y149.45 E110.76271
G0 F6000 X155.32 Y148.61
G1 F840 X155.63 Y148.92 E110.78093
G0 F6000 X155.81 Y155.34
;TYPE:WALL-INNER
G1 F840 X155.81 Y156.35 E110.82301
G1 X162.63 Y156.35 E111.10651
G1 X162.63 Y156.58 E111.11616
G1 X155.61 Y156.58 E111.40780
G1 X155.10 Y156.58 E111.42905
G1 X149.92 Y155.94 E111.64633
G1 X142.95 Y155.34 E111.93703
G1 X155.81 Y155.34 E112.47169
G0 F6000 X156.31 Y154.84
;TYPE:WALL-OUTER
G1 F840 X156.31 Y155.85 E112.51376
G1 X163.13 Y155.85 E112.79726
G1 X163.13 Y157.08 E112.84848
G1 X155.07 Y157.08 E113.18333
G1 X149.86 Y156.44 E113.40161
G1 X141.87 Y155.75 E113.73518
G1 X141.87 Y154.84 E113.77293
G1 X156.31 Y154.84 E114.37323
G0 F6000 X155.16 Y155.51
;TYPE:FILL
G1 F840 X155.63 Y155.99 E114.40113
G1 X155.16 Y155.51 E114.42903
G0 F6000 X154.45 Y155.51
G1 F840 X155.35 Y156.41 E114.48156
G1 X154.45 Y155.51 E114.53410
G0 F6000 X153.75 Y155.51
G1 F840 X154.57 Y156.34 E114.58266
G1 X153.75 Y155.51 E114.63123
G0 F6000 X153.04 Y155.51
G1 F840 X153.77 Y156.24 E114.67397
G1 X153.04 Y155.51 E114.71672
G0 F6000 X152.96 Y156.14
G1 F840 X152.33 Y155.51 E114.75361
G1 X152.56 Y156.09 E114.79052
G1 X151.62 Y155.51 E114.82161
G1 X151.75 Y155.99 E114.85269
G1 X150.92 Y155.51 E114.87784
G1 X150.94 Y155.89 E114.90308
G1 X150.21 Y155.51 E114.92242
G1 X150.14 Y155.80 E114.94179
G1 X149.50 Y155.51 E114.95579
G1 X149.35 Y155.72 E114.96982
G1 X148.80 Y155.51 E114.97986
G1 X148.97 Y155.69 E114.98994
G0 F6000 X158.32 Y154.98
;TYPE:SUPPORT
G1 F840 X158.32 Y150.23 E115.18738
G0 F6000 X158.32 Y150.40
G0 X161.65 Y150.40
G0 X161.65 Y150.23
G1 F840 X161.65 Y154.98 E115.38482
;LAYER:11
G0 F6000 X161.65 Y156.20 Z2.50
G0 X162.63 Y156.35
;TYPE:WALL-INNER
G1 F840 X162.63 Y156.57 E115.39397
G1 X155.73 Y156.57 E115.68092
G1 X155.10 Y156.57 E115.70682
G1 X148.84 Y155.80 E115.96900
G1 X143.53 Y155.34 E116.19089
G1 X155.81 Y155.34 E116.70152
G1 X155.81 Y156.35 E116.74359
G1 X162.63 Y156.35 E117.02709
G0 F6000 X163.13 Y155.85
;TYPE:WALL-OUTER
G1 F840 X163.13 Y157.07 E117.07781
G1 X155.08 Y157.07 E117.41262
G1 X148.79 Y156.30 E117.67580
G1 X141.87 Y155.70 E117.96467
G1 X141.87 Y154.84 E118.00034
G1 X156.31 Y154.84 E118.60064
G1 X156.31 Y155.85 E118.64272
G1 X163.13 Y155.85 E118.92622
G0 F6000 X162.87 Y156.20
G0 X155.92 Y156.24
G0 X155.63 Y155.85
;TYPE:FILL
G1 F840 X155.09 Y156.39 E118.95832
G1 X155.63 Y155.85 E118.99043
G0 F6000 X155.26 Y155.51
G1 F840 X154.46 Y156.31 E119.03758
G1 X155.26 Y155.51 E119.08473
G0 F6000 X154.55 Y155.51
G1 F840 X153.83 Y156.24 E119.12733
G1 X154.55 Y155.51 E119.16993
G0 F6000 X153.84 Y155.51
G1 F840 X153.20 Y156.16 E119.20797
G1 X153.49 Y155.51 E119.24595
G1 X152.57 Y156.08 E119.27937
G1 X152.78 Y155.51 E119.31280
G1 X151.94 Y156.00 E119.34166
G1 X152.08 Y155.51 E119.37060
G1 X151.31 Y155.93 E119.39488
G1 X151.37 Y155.51 E119.41919
G1 X150.68 Y155.85 E119.43898
G1 X150.66 Y155.51 E119.45879
G1 X150.05 Y155.77 E119.47401
G1 X149.96 Y155.51 E119.48924
G1 X149.42 Y155.69 E119.49993
G1 X149.60 Y155.51 E119.51066
G0 F6000 X155.81 Y149.84
;TYPE:WALL-INNER
G1 F840 X142.37 Y149.84 E120.06939
G1 X142.37 Y149.70 E120.07513
G1 X143.59 Y149.28 E120.12893
G1 X155.09 Y148.45 E120.60804
G1 X162.63 Y148.45 E120.92160
G1 X162.63 Y148.85 E120.93848
G1 X155.81 Y148.85 E121.22198
G1 X155.81 Y149.84 E121.26306
G0 F6000 X156.31 Y149.35
;TYPE:WALL-OUTER
G1 F840 X156.31 Y150.34 E121.30413
G1 X141.87 Y150.34 E121.90444
G1 X141.87 Y149.35 E121.94572
G1 X143.49 Y148.78 E122.01709
G1 X155.06 Y147.95 E122.49949
G1 X163.13 Y147.94 E122.83475
G1 X163.13 Y149.35 E122.89325
G1 X156.31 Y149.35 E123.17675
G0 F6000 X155.63 Y149.48
;TYPE:FILL
G1 F840 X155.45 Y149.66 E123.18748
G0 F6000 X154.74 Y149.66
G1 F840 X155.63 Y148.78 E123.23978
G0 F6000 X155.08 Y148.62
G1 F840 X154.04 Y149.66 E123.30114
G0 F6000 X153.33 Y149.66
G1 F840 X154.32 Y148.68 E123.35923
G0 F6000 X153.56 Y148.73
G1 F840 X152.62 Y149.66 E123.41408
G0 F6000 X151.92 Y149.66
G1 F840 X152.79 Y148.79 E123.46571
G0 F6000 X152.03 Y148.84
G1 F840 X151.21 Y149.66 E123.51409
G0 F6000 X150.50 Y149.66
G1 F840 X151.27 Y148.90 E123.55925
G0 F6000 X150.51 Y148.95
G1 F840 X149.79 Y149.66 E123.60120
G0 F6000 X149.75 Y149.01
G1 F840 X149.03 Y149.36 E123.63988
G1 X148.30 Y149.39 E123.67529
G1 X147.57 Y149.42 E123.70748
G1 X146.83 Y149.44 E123.73647
G1 X146.10 Y149.47 E123.76218
G1 X145.36 Y149.50 E123.78469
G1 X144.63 Y149.53 E123.80392
G1 X143.89 Y149.56 E123.81995
G1 X143.43 Y149.66 E123.83972
G0 F6000 X158.32 Y150.23
;TYPE:SUPPORT
G1 F840 X158.32 Y154.98 E124.03716
G0 F6000 X158.32 Y154.80
G0 X161.65 Y154.80
G0 X161.65 Y154.98
G1 F840 X161.65 Y150.23 E124.23460
;LAYER:12
G0 F6000 X161.65 Y149.00 Z2.70
G0 X162.63 Y148.85
;TYPE:WALL-INNER
G1 F840 X155.81 Y148.85 E124.51811
G1 X155.81 Y149.84 E124.55918
G1 X142.37 Y149.84 E125.11791
G1 X142.37 Y149.76 E125.12103
G1 X143.76 Y149.28 E125.18241
G1 X155.09 Y148.46 E125.65435
G1 X162.63 Y148.46 E125.96791
G1 X162.63 Y148.85 E125.98420
G0 F6000 X163.13 Y149.35
;TYPE:WALL-OUTER
G1 F840 X156.31 Y149.35 E126.26770
G1 X156.31 Y150.34 E126.30878
G1 X141.87 Y150.34 E126.90909
G1 X141.87 Y149.41 E126.94775
G1 X143.66 Y148.78 E127.02669
G1 X155.06 Y147.96 E127.50193
G1 X163.13 Y147.96 E127.83719
G1 X163.13 Y149.35 E127.89506
G0 F6000 X162.78 Y149.09
G0 X155.92 Y148.96
G0 X155.63 Y149.62
;TYPE:FILL
G1 F840 X154.68 Y148.67 E127.95139
G0 F6000 X154.02 Y148.71
G1 F840 X154.97 Y149.66 E128.00728
G0 F6000 X154.26 Y149.66
G1 F840 X153.36 Y148.76 E128.06037
G0 F6000 X152.70 Y148.81
G1 F840 X153.55 Y149.66 E128.11064
G0 F6000 X152.85 Y149.66
G1 F840 X152.04 Y148.86 E128.15815
G0 F6000 X151.38 Y148.90
G1 F840 X152.14 Y149.66 E128.20286
G0 F6000 X151.43 Y149.66
G1 F840 X150.72 Y148.95 E128.24472
G0 F6000 X150.06 Y149.00
G1 F840 X150.37 Y149.66 E128.28377
G1 X149.35 Y149.35 E128.31994
G1 X148.67 Y149.38 E128.35341
G1 X147.99 Y149.40 E128.38409
G1 X147.31 Y149.43 E128.41193
G1 X146.62 Y149.45 E128.43699
G1 X145.94 Y149.47 E128.45921
G1 X145.25 Y149.50 E128.47867
G1 X144.57 Y149.52 E128.49527
G1 X143.89 Y149.54 E128.50915
G1 X143.55 Y149.56 E128.52318
G0 F6000 X155.35 Y148.63
G1 F840 X155.63 Y148.92 E128.53973
G0 F6000 X155.81 Y155.34
;TYPE:WALL-INNER
G1 F840 X155.81 Y156.35 E128.58180
G1 X162.63 Y156.35 E128.86531
G1 X162.63 Y156.56 E128.87395
G1 X155.84 Y156.56 E129.15617
G1 X155.10 Y156.56 E129.18685
G1 X147.78 Y155.66 E129.49381
G1 X144.10 Y155.34 E129.64704
G1 X155.81 Y155.34 E130.13376
G0 F6000 X156.31 Y154.84
;TYPE:WALL-OUTER
G1 F840 X156.31 Y155.85 E130.17584
G1 X163.13 Y155.85 E130.45934
G1 X163.13 Y157.06 E130.50956
G1 X155.07 Y157.06 E130.84441
G1 X147.72 Y156.16 E131.15237
G1 X141.87 Y155.65 E131.39658
G1 X141.87 Y154.84 E131.43018
G1 X156.31 Y154.84 E132.03048
G0 F6000 X155.16 Y155.51
;TYPE:FILL
G1 F840 X155.63 Y155.99 E132.05838
G1 X155.16 Y155.51 E132.08628
G0 F6000 X154.45 Y155.51
G1 F840 X155.32 Y156.38 E132.13740
G1 X154.45 Y155.51 E132.18853
G0 F6000 X153.75 Y155.51
G1 F840 X154.54 Y156.31 E132.23553
G1 X153.75 Y155.51 E132.28254
G0 F6000 X153.74 Y156.21
G1 F840 X153.04 Y155.51 E132.32373
G1 X153.34 Y156.16 E132.36488
G1 X152.33 Y155.51 E132.40017
G1 X152.53 Y156.06 E132.43545
G1 X151.62 Y155.51 E132.46487
G1 X151.72 Y155.97 E132.49438
G1 X150.92 Y155.51 E132.51797
G1 X150.92 Y155.87 E132.54160
G1 X150.21 Y155.51 E132.55941
G1 X150.11 Y155.77 E132.57729
G1 X149.50 Y155.51 E132.58922
G1 X149.71 Y155.72 E132.60122
G0 F6000 X158.32 Y154.98
;TYPE:SUPPORT
G1 F840 X158.32 Y150.23 E132.79866
G0 F6000 X158.32 Y150.40
G0 X161.65 Y150.40
G0 X161.65 Y150.23
G1 F840 X161.65 Y154.98 E132.99610
;LAYER:13
G0 F6000 X161.65 Y156.20 Z2.90
G0 X162.63 Y156.35
;TYPE:WALL-INNER
G1 F840 X162.63 Y156.55 E133.00425
G1 X155.10 Y156.55 E133.31714
G1 X146.70 Y155.51 E133.66896
G1 X144.68 Y155.34 E133.75330
G1 X155.81 Y155.34 E134.21591
G1 X155.81 Y156.35 E134.25798
G1 X162.63 Y156.35 E134.54148
G0 F6000 X163.13 Y155.85
;TYPE:WALL-OUTER
G1 F840 X163.13 Y157.05 E134.59120
G1 X155.07 Y157.05 E134.92605
G1 X146.65 Y156.01 E135.27887
G1 X141.87 Y155.60 E135.47839
G1 X141.87 Y154.84 E135.50987
G1 X156.31 Y154.84 E136.11017
G1 X156.31 Y155.85 E136.15224
G1 X163.13 Y155.85 E136.43575
G0 F6000 X162.87 Y156.20
G0 X155.92 Y156.24
G0 X155.63 Y155.85
;TYPE:FILL
G1 F840 X155.11 Y156.37 E136.46661
G1 X155.63 Y155.85 E136.49748
G0 F6000 X155.26 Y155.51
G1 F840 X154.48 Y156.29 E136.54337
G1 X155.26 Y155.51 E136.58926
G0 F6000 X154.55 Y155.51
G1 F840 X153.85 Y156.22 E136.63060
G1 X154.20 Y155.51 E136.67191
G1 X153.22 Y156.14 E136.70862
G1 X153.49 Y155.51 E136.74538
G1 X152.59 Y156.06 E136.77758
G1 X152.78 Y155.51 E136.80977
G1 X151.96 Y155.98 E136.83739
G1 X152.08 Y155.51 E136.86508
G1 X151.33 Y155.91 E136.88818
G1 X151.37 Y155.51 E136.91133
G1 X150.70 Y155.83 E136.92994
G1 X150.66 Y155.51 E136.94857
G1 X150.07 Y155.75 E136.96259
G1 X149.96 Y155.51 E136.97659
G1 X149.44 Y155.68 E136.98611
G1 X149.60 Y155.51 E136.99563
G0 F6000 X144.37 Y155.19
G0 X144.37 Y155.09
G1 F840 X143.80 Y155.31 E137.02123
G1 X143.12 Y155.28 E137.04355
G1 X142.44 Y155.25 E137.06251
G1 X142.12 Y155.22 E137.07593
G0 F6000 X142.37 Y149.84
;TYPE:WALL-INNER
G1 F840 X142.37 Y149.83 E137.07647
G1 X143.94 Y149.28 E137.14542
G1 X155.09 Y148.48 E137.61019
G1 X162.63 Y148.47 E137.92375
G1 X162.63 Y148.85 E137.93942
G1 X155.81 Y148.85 E138.22292
G1 X155.81 Y149.84 E138.26400
G1 X142.37 Y149.84 E138.82273
G0 F6000 X141.87 Y149.47
;TYPE:WALL-OUTER
G1 F840 X143.84 Y148.79 E138.90924
G1 X155.06 Y147.98 E139.37731
G1 X163.13 Y147.97 E139.71257
G1 X163.13 Y149.35 E139.76982
G1 X156.31 Y149.35 E140.05332
G1 X156.31 Y150.34 E140.09440
G1 X141.87 Y150.34 E140.69470
G1 X141.87 Y149.47 E140.73079
G0 F6000 X142.16 Y149.74
G0 X144.14 Y149.66
;TYPE:FILL
G1 F840 X144.61 Y149.54 E140.74494
G1 X145.35 Y149.51 E140.76237
G1 X146.08 Y149.49 E140.78295
G1 X146.81 Y149.46 E140.80683
G1 X147.55 Y149.43 E140.83393
G1 X148.28 Y149.41 E140.86432
G1 X149.02 Y149.38 E140.89792
G1 X149.75 Y149.35 E140.93473
G1 X150.48 Y148.98 E140.96842
G0 F6000 X150.50 Y149.66
G1 F840 X151.24 Y148.93 E141.01170
G0 F6000 X151.21 Y149.66
G1 F840 X152.00 Y148.87 E141.05826
G0 F6000 X152.76 Y148.82
G1 F840 X151.92 Y149.66 E141.10801
G0 F6000 X152.62 Y149.66
G1 F840 X153.52 Y148.76 E141.16098
G0 F6000 X154.29 Y148.71
G1 F840 X153.33 Y149.66 E141.21722
G0 F6000 X154.04 Y149.66
G1 F840 X155.05 Y148.65 E141.27672
G0 F6000 X155.63 Y148.78
G1 F840 X154.74 Y149.66 E141.32902
G0 F6000 X155.45 Y149.66
G1 F840 X155.63 Y149.48 E141.33975
G0 F6000 X158.32 Y150.23
;TYPE:SUPPORT
G1 F840 X158.32 Y154.98 E141.53719
G0 F6000 X158.32 Y154.80
G0 X161.65 Y154.80
G0 X161.65 Y154.98
G1 F840 X161.65 Y150.23 E141.73463
;LAYER:14
G0 F6000 X161.65 Y149.00 Z3.10
G0 X162.63 Y148.85
;TYPE:WALL-INNER
G1 F840 X155.81 Y148.85 E142.01813
G1 X155.81 Y149.84 E142.05921
G1 X142.51 Y149.84 E142.61203
G1 X144.11 Y149.28 E142.68231
G1 X155.09 Y148.49 E143.13991
G1 X162.63 Y148.49 E143.45347
G1 X162.63 Y148.85 E143.46857
G0 F6000 X163.13 Y149.35
;TYPE:WALL-OUTER
G1 F840 X156.31 Y149.35 E143.75207
G1 X156.31 Y150.34 E143.79314
G1 X141.87 Y150.34 E144.39345
G1 X141.87 Y149.53 E144.42696
G1 X144.01 Y148.79 E144.52105
G1 X155.06 Y147.99 E144.98194
G1 X163.13 Y147.99 E145.31720
G1 X163.13 Y149.35 E145.37387
G0 F6000 X162.78 Y149.09
G0 X155.92 Y148.96
G0 X155.63 Y149.62
;TYPE:FILL
G1 F840 X154.70 Y148.69 E145.42858
G0 F6000 X154.04 Y148.74
G1 F840 X154.97 Y149.66 E145.48291
G0 F6000 X154.26 Y149.66
G1 F840 X153.38 Y148.79 E145.53444
G0 F6000 X152.72 Y148.84
G1 F840 X153.55 Y149.66 E145.58313
G0 F6000 X152.85 Y149.66
G1 F840 X152.06 Y148.88 E145.62905
G0 F6000 X151.41 Y148.93
G1 F840 X152.14 Y149.66 E145.67217
G0 F6000 X151.43 Y149.66
G1 F840 X150.42 Y149.00 E145.71248
G1 X150.37 Y149.66 E145.75000
G1 X149.37 Y149.37 E145.78466
G1 X148.69 Y149.39 E145.81654
G1 X148.00 Y149.42 E145.84564
G1 X147.32 Y149.44 E145.87193
G1 X146.63 Y149.46 E145.89540
G1 X145.95 Y149.49 E145.91614
G1 X145.27 Y149.51 E145.93407
G1 X144.59 Y149.53 E145.94913
G1 X144.15 Y149.45 E145.96748
G0 F6000 X155.38 Y148.66
G1 F840 X155.63 Y148.92 E145.98230
G0 F6000 X155.81 Y155.34
;TYPE:WALL-INNER
G1 F840 X155.81 Y156.35 E146.02437
G1 X162.63 Y156.35 E146.30787
G1 X162.63 Y156.53 E146.31552
G1 X155.10 Y156.53 E146.62842
G1 X145.63 Y155.37 E147.02506
G1 X145.27 Y155.34 E147.04041
G1 X155.81 Y155.34 E147.47878
G0 F6000 X156.31 Y154.84
;TYPE:WALL-OUTER
G1 F840 X156.31 Y155.85 E147.52086
G1 X163.13 Y155.85 E147.80436
G1 X163.13 Y157.03 E147.85358
G1 X155.07 Y157.03 E148.18843
G1 X145.58 Y155.87 E148.58607
G1 X141.87 Y155.55 E148.74094
G1 X141.87 Y154.84 E148.77033
G1 X156.31 Y154.84 E149.37064
G0 F6000 X155.16 Y155.51
;TYPE:FILL
G1 F840 X155.63 Y155.99 E149.39853
G1 X155.16 Y155.51 E149.42643
G0 F6000 X154.45 Y155.51
G1 F840 X155.30 Y156.36 E149.47612
G1 X154.45 Y155.51 E149.52580
G0 F6000 X153.75 Y155.51
G1 F840 X154.52 Y156.28 E149.57116
G1 X153.75 Y155.51 E149.61652
G0 F6000 X153.71 Y156.19
G1 F840 X153.04 Y155.51 E149.65606
G1 X153.31 Y156.14 E149.69562
G1 X152.33 Y155.51 E149.72931
G1 X152.50 Y156.04 E149.76305
G1 X151.62 Y155.51 E149.79092
G1 X151.69 Y155.94 E149.81880
G1 X150.92 Y155.51 E149.84083
G1 X150.89 Y155.84 E149.86285
G1 X150.21 Y155.51 E149.87906
G1 X150.08 Y155.74 E149.89527
G1 X149.50 Y155.51 E149.90563
G1 X149.68 Y155.69 E149.91603
G0 F6000 X145.04 Y155.30
G1 F840 X144.70 Y155.31 E149.92824
G1 X143.96 Y155.27 E149.95408
G1 X143.22 Y155.24 E149.97595
G1 X142.48 Y155.21 E149.99390
G1 X142.12 Y155.20 E150.00878
G0 F6000 X158.32 Y154.98
;TYPE:SUPPORT
G1 F840 X158.32 Y150.23 E150.20622
G0 F6000 X158.32 Y150.40
G0 X161.65 Y150.40
G0 X161.65 Y150.23
G1 F840 X161.65 Y154.98 E150.40366
;LAYER:15
G0 F6000 X161.65 Y156.20 Z3.30
G0 X162.63 Y156.35
;TYPE:WALL-INNER
G1 F780 X162.63 Y156.52 E150.41082
G1 X155.10 Y156.52 E150.72371
G1 X145.47 Y155.34 E151.12738
G1 X155.81 Y155.34 E151.55744
G1 X155.81 Y156.35 E151.59951
G1 X162.63 Y156.35 E151.88301
G0 F6000 X163.13 Y155.85
;TYPE:WALL-OUTER
G1 F780 X163.13 Y157.02 E151.93174
G1 X155.07 Y157.02 E152.26658
G1 X144.51 Y155.72 E152.70909
G1 X141.87 Y155.50 E152.81926
G1 X141.87 Y154.84 E152.84653
G1 X156.31 Y154.84 E153.44684
G1 X156.31 Y155.85 E153.48891
G1 X163.13 Y155.85 E153.77241
G0 F6000 X162.87 Y156.20
G0 X155.92 Y156.24
G0 X155.63 Y155.85
;TYPE:FILL
G1 F780 X155.13 Y156.35 E153.80190
G1 X155.63 Y155.85 E153.83139
G0 F6000 X155.26 Y155.51
G1 F780 X154.50 Y156.27 E153.87601
G1 X155.26 Y155.51 E153.92064
G0 F6000 X154.55 Y155.51
G1 F780 X153.87 Y156.19 E153.96071
G1 X154.20 Y155.51 E154.00074
G1 X153.24 Y156.12 E154.03625
G1 X153.49 Y155.51 E154.07174
G1 X152.61 Y156.04 E154.10267
G1 X152.78 Y155.51 E154.13360
G1 X151.98 Y155.96 E154.16001
G1 X152.08 Y155.51 E154.18645
G1 X151.35 Y155.88 E154.20829
G1 X151.37 Y155.51 E154.23015
G1 X150.72 Y155.81 E154.24750
G1 X150.66 Y155.51 E154.26489
G1 X150.09 Y155.73 E154.27769
G1 X149.96 Y155.51 E154.29053
G1 X149.47 Y155.65 E154.29833
G1 X149.60 Y155.51 E154.30615
G0 F6000 X145.08 Y155.19
G0 X145.08 Y155.09
G1 F780 X144.52 Y155.29 E154.32990
G1 X143.85 Y155.26 E154.35013
G1 X143.17 Y155.23 E154.36703
G1 X142.49 Y155.20 E154.38054
G1 X142.12 Y155.22 E154.39581
G0 F6000 X142.69 Y149.84
;TYPE:WALL-INNER
G1 F780 X144.28 Y149.28 E154.46586
G1 X155.09 Y148.50 E154.91629
G1 X162.63 Y148.50 E155.22985
G1 X162.63 Y148.85 E155.24432
G1 X155.81 Y148.85 E155.52782
G1 X155.81 Y149.84 E155.56890
G1 X142.69 Y149.84 E156.11436
G0 F6000 X141.87 Y149.60
;TYPE:WALL-OUTER
G1 F780 X144.18 Y148.79 E156.21603
G1 X155.06 Y148.00 E156.66975
G1 X163.13 Y148.00 E157.00501
G1 X163.13 Y149.35 E157.06106
G1 X156.31 Y149.35 E157.34456
G1 X156.31 Y150.34 E157.38563
G1 X141.87 Y150.34 E157.98594
G1 X141.87 Y149.60 E158.01687
G0 F6000 X142.16 Y149.87
G0 X144.14 Y149.66
;TYPE:FILL
G1 F780 X144.60 Y149.56 E158.02914
G1 X145.33 Y149.53 E158.04465
G1 X146.06 Y149.50 E158.06337
G1 X146.80 Y149.48 E158.08532
G1 X147.53 Y149.45 E158.11061
G1 X148.27 Y149.42 E158.13905
G1 X149.00 Y149.39 E158.17074
G1 X149.74 Y149.37 E158.20566
G1 X150.47 Y149.34 E158.24389
G1 X151.21 Y148.96 E158.27825
G0 F6000 X151.21 Y149.66
G1 F780 X151.97 Y148.90 E158.32294
G0 F6000 X151.92 Y149.66
G1 F780 X152.73 Y148.85 E158.37086
G0 F6000 X153.49 Y148.79
G1 F780 X152.62 Y149.66 E158.42201
G0 F6000 X153.33 Y149.66
G1 F780 X154.25 Y148.74 E158.47639
G0 F6000 X155.02 Y148.68
G1 F780 X154.04 Y149.66 E158.53401
G0 F6000 X154.74 Y149.66
G1 F780 X155.63 Y148.78 E158.58631
G0 F6000 X155.63 Y149.48
G1 F780 X155.45 Y149.66 E158.59704
G0 F6000 X158.32 Y150.23
;TYPE:SUPPORT
G1 F780 X158.32 Y154.98 E158.79448
G0 F6000 X158.32 Y154.80
G0 X161.65 Y154.80
G0 X161.65 Y154.98
G1 F780 X161.65 Y150.23 E158.99193
;LAYER:16
G0 F6000 X161.65 Y149.00 Z3.50
G0 X162.78 Y148.85
G0 X162.63 Y148.85
;TYPE:WALL-INNER
G1 F780 X155.81 Y148.85 E159.27543
G1 X155.81 Y149.84 E159.31650
G1 X142.87 Y149.84 E159.85457
G1 X144.45 Y149.29 E159.92436
G1 X155.09 Y148.52 E160.36762
G1 X162.63 Y148.52 E160.68118
G1 X162.63 Y148.85 E160.69507
G0 F6000 X162.63 Y156.35
G1 F780 X162.63 Y156.51 E160.70176
G1 X155.10 Y156.51 E161.01466
G1 X145.56 Y155.34 E161.41439
G1 X155.81 Y155.34 E161.84054
G1 X155.81 Y156.35 E161.88261
G1 X162.63 Y156.35 E162.16612
G0 F6000 X163.13 Y155.85
;TYPE:WALL-OUTER
G1 F780 X163.13 Y157.01 E162.21438
G1 X155.07 Y157.01 E162.54923
G1 X143.44 Y155.58 E163.03656
G1 X141.87 Y155.44 E163.10208
G1 X141.87 Y154.84 E163.12727
G1 X156.31 Y154.84 E163.72758
G1 X156.31 Y155.85 E163.76965
G1 X163.13 Y155.85 E164.05315
G0 F6000 X163.13 Y149.35
G1 F780 X156.31 Y149.35 E164.33665
G1 X156.31 Y150.34 E164.37773
G1 X141.87 Y150.34 E164.97803
G1 X141.87 Y149.66 E165.00639
G1 X144.35 Y148.79 E165.11562
G1 X155.06 Y148.02 E165.56218
G1 X163.13 Y148.02 E165.89744
G1 X163.13 Y149.35 E165.95290
G0 F6000 X162.78 Y149.09
G0 X155.92 Y148.96
G0 X155.96 Y149.62
G0 X155.63 Y149.62
;TYPE:FILL
G1 F780 X154.73 Y148.72 E166.00605
G0 F6000 X154.07 Y148.77
G1 F780 X154.97 Y149.66 E166.05879
G0 F6000 X154.26 Y149.66
G1 F780 X153.41 Y148.81 E166.10871
G0 F6000 X152.75 Y148.86
G1 F780 X153.55 Y149.66 E166.15584
G0 F6000 X152.85 Y149.66
G1 F780 X152.09 Y148.91 E166.20011
G0 F6000 X151.43 Y148.96
G1 F780 X151.78 Y149.66 E166.24154
G1 X150.44 Y149.03 E166.28016
G1 X150.37 Y149.66 E166.31604
G1 X149.38 Y149.38 E166.34910
G1 X148.70 Y149.41 E166.37933
G1 X148.02 Y149.43 E166.40678
G1 X147.33 Y149.45 E166.43142
G1 X146.65 Y149.48 E166.45330
G1 X145.97 Y149.50 E166.47239
G1 X145.28 Y149.53 E166.48861
G1 X144.60 Y149.55 E166.50208
G1 X144.26 Y149.57 E166.51606
G0 F6000 X149.57 Y155.58
G1 F780 X149.65 Y155.66 E166.52124
G1 X149.89 Y155.54 E166.52640
G1 X150.46 Y155.76 E166.54110
G1 X150.56 Y155.51 E166.55585
G1 X151.27 Y155.86 E166.57638
G1 X151.27 Y155.51 E166.59690
G1 X152.07 Y155.96 E166.62321
G1 X151.98 Y155.51 E166.64962
G1 X152.88 Y156.06 E166.68180
G1 X152.69 Y155.51 E166.71400
G1 X153.69 Y156.16 E166.75195
G1 X153.04 Y155.51 E166.78999
G0 F6000 X153.75 Y155.51
G1 F780 X154.49 Y156.26 E166.83386
G1 X153.75 Y155.51 E166.87772
G0 F6000 X154.45 Y155.51
G1 F780 X155.28 Y156.34 E166.92608
G1 X154.45 Y155.51 E166.97444
G0 F6000 X155.16 Y155.51
G1 F780 X155.63 Y155.99 E167.00234
G1 X155.16 Y155.51 E167.03024
G0 F6000 X155.63 Y148.92
G1 F780 X155.41 Y148.69 E167.04338
G0 F6000 X158.32 Y150.23
;TYPE:SUPPORT
G1 F780 X158.32 Y154.98 E167.24082
G0 F6000 X158.32 Y154.80
G0 X161.65 Y154.80
G0 X161.65 Y154.98
G1 F780 X161.65 Y150.23 E167.43826
;LAYER:17
G0 F6000 X161.65 Y149.00 Z3.70
G0 X162.78 Y148.85
G0 X162.63 Y148.85
;TYPE:WALL-INNER
G1 F840 X155.81 Y148.85 E167.72176
G1 X155.81 Y149.84 E167.76284
G1 X143.05 Y149.84 E168.29342
G1 X144.63 Y149.29 E168.36291
G1 X155.09 Y148.53 E168.79896
G1 X162.63 Y148.53 E169.11252
G1 X162.63 Y148.85 E169.12578
G0 F6000 X162.63 Y156.35
G1 F840 X162.63 Y156.50 E169.13197
G1 X155.10 Y156.50 E169.44487
G1 X145.66 Y155.34 E169.84046
G1 X155.81 Y155.34 E170.26249
G1 X155.81 Y156.35 E170.30456
G1 X162.63 Y156.35 E170.58807
G0 F6000 X163.13 Y155.85
;TYPE:WALL-OUTER
G1 F840 X163.13 Y157.00 E170.63583
G1 X155.07 Y157.00 E170.97068
G1 X142.37 Y155.44 E171.50287
G1 X141.87 Y155.40 E171.52369
G1 X141.87 Y149.72 E171.75959
G1 X144.53 Y148.79 E171.87646
G1 X155.06 Y148.03 E172.31580
G1 X163.13 Y148.03 E172.65106
G1 X163.13 Y149.35 E172.70590
G1 X156.31 Y149.35 E172.98940
G1 X156.31 Y150.34 E173.03048
G1 X142.04 Y150.34 E173.62355
G1 X142.04 Y150.77 E173.64138
G1 X142.04 Y154.84 E173.81059
G1 X156.31 Y154.84 E174.40370
G1 X156.31 Y155.85 E174.44578
G1 X163.13 Y155.85 E174.72928
G0 F6000 X162.87 Y156.20
G0 X155.92 Y156.24
G0 X155.63 Y155.85
;TYPE:FILL
G1 F840 X155.16 Y156.32 E174.75738
G1 X155.63 Y155.85 E174.78549
G0 F6000 X155.26 Y155.51
G1 F840 X154.52 Y156.25 E174.82894
G1 X155.26 Y155.51 E174.87239
G0 F6000 X154.55 Y155.51
G1 F840 X153.89 Y156.17 E174.91128
G1 X154.20 Y155.51 E174.95015
G1 X153.26 Y156.10 E174.98442
G1 X153.49 Y155.51 E175.01871
G1 X152.63 Y156.02 E175.04839
G1 X152.78 Y155.51 E175.07813
G1 X152.00 Y155.94 E175.10334
G1 X152.08 Y155.51 E175.12855
G1 X151.37 Y155.86 E175.14915
G1 X151.37 Y155.51 E175.16976
G1 X150.74 Y155.79 E175.18580
G1 X150.66 Y155.51 E175.20189
G1 X150.11 Y155.71 E175.21340
G1 X150.31 Y155.51 E175.22495
G0 F6000 X150.50 Y149.66
G1 F840 X151.18 Y148.99 E175.26455
G0 F6000 X151.21 Y149.66
G1 F840 X151.94 Y148.94 E175.30742
G0 F6000 X151.92 Y149.66
G1 F840 X152.70 Y148.88 E175.35351
G0 F6000 X153.46 Y148.82
G1 F840 X152.62 Y149.66 E175.40284
G0 F6000 X153.33 Y149.66
G1 F840 X154.22 Y148.77 E175.45538
G0 F6000 X154.99 Y148.72
G1 F840 X154.04 Y149.66 E175.51117
G0 F6000 X154.74 Y149.66
G1 F840 X155.63 Y148.78 E175.56347
G0 F6000 X155.63 Y149.48
G1 F840 X155.45 Y149.66 E175.57420
G0 F6000 X155.45 Y149.99
G0 X150.39 Y148.72
G0 X150.41 Y149.05
G1 F840 X149.72 Y149.38 E175.61051
G1 X148.99 Y149.41 E175.64366
G1 X148.25 Y149.44 E175.67357
G1 X147.52 Y149.46 E175.70026
G1 X146.78 Y149.49 E175.72368
G1 X146.05 Y149.52 E175.74390
G1 X145.31 Y149.55 E175.76084
G1 X144.84 Y149.66 E175.78097
G0 F6000 X158.32 Y150.23
;TYPE:SUPPORT
G1 F840 X158.32 Y154.98 E175.97842
G0 F6000 X158.32 Y154.80
G0 X161.65 Y154.80
G0 X161.65 Y154.98
G1 F840 X161.65 Y150.23 E176.17586
;LAYER:18
G0 F6000 X161.65 Y149.00 Z3.90
G0 X162.63 Y148.85
;TYPE:WALL-INNER
G1 F780 X155.81 Y148.85 E176.45936
G1 X155.81 Y149.84 E176.50043
G1 X143.23 Y149.84 E177.02353
G1 X144.80 Y149.29 E177.09269
G1 X155.09 Y148.55 E177.52153
G1 X162.63 Y148.55 E177.83509
G1 X162.63 Y148.85 E177.84773
G0 F6000 X162.63 Y156.35
G1 F780 X162.63 Y156.49 E177.85343
G1 X155.10 Y156.49 E178.16632
G1 X145.75 Y155.34 E178.55789
G1 X155.81 Y155.34 E178.97593
G1 X155.81 Y156.35 E179.01801
G1 X162.63 Y156.35 E179.30151
G0 F6000 X163.13 Y155.85
;TYPE:WALL-OUTER
G1 F780 X163.13 Y156.99 E179.34878
G1 X155.07 Y156.99 E179.68362
G1 X141.94 Y155.37 E180.23370
G1 X141.94 Y149.76 E180.46718
G1 X144.70 Y148.80 E180.58846
G1 X155.06 Y148.05 E181.02060
G1 X163.13 Y148.05 E181.35586
G1 X163.13 Y149.35 E181.41008
G1 X156.31 Y149.35 E181.69358
G1 X156.31 Y150.34 E181.73465
G1 X142.53 Y150.34 E182.30768
G1 X142.53 Y154.84 E182.49473
G1 X156.31 Y154.84 E183.06784
G1 X156.31 Y155.85 E183.10992
G1 X163.13 Y155.85 E183.39342
G0 F6000 X162.87 Y156.20
G0 X155.92 Y156.24
G0 X155.63 Y155.99
;TYPE:FILL
G1 F780 X155.16 Y155.51 E183.42132
G1 X155.63 Y155.99 E183.44922
G0 F6000 X155.25 Y156.31
G1 F780 X154.45 Y155.51 E183.49617
G1 X155.25 Y156.31 E183.54312
G0 F6000 X154.46 Y156.23
G1 F780 X153.75 Y155.51 E183.58536
G1 X154.46 Y156.23 E183.62761
G0 F6000 X153.66 Y156.13
G1 F780 X153.04 Y155.51 E183.66403
G1 X153.25 Y156.08 E183.70047
G1 X152.33 Y155.51 E183.73105
G1 X152.45 Y155.98 E183.76162
G1 X151.62 Y155.51 E183.78633
G1 X151.64 Y155.88 E183.81106
G1 X150.92 Y155.51 E183.82996
G1 X150.84 Y155.78 E183.84891
G1 X150.21 Y155.51 E183.86196
G1 X150.43 Y155.74 E183.87507
G0 F6000 X150.72 Y149.66
G1 F780 X150.08 Y149.37 E183.90928
G1 X149.40 Y149.40 E183.94070
G1 X148.71 Y149.42 E183.96938
G1 X148.03 Y149.44 E183.99524
G1 X147.35 Y149.47 E184.01829
G1 X146.66 Y149.49 E184.03852
G1 X145.98 Y149.51 E184.05596
G1 X145.30 Y149.54 E184.07057
G1 X144.87 Y149.46 E184.08877
G0 F6000 X150.80 Y149.03
G1 F780 X151.45 Y149.32 E184.12582
G1 X152.14 Y149.66 E184.15791
G0 F6000 X152.85 Y149.66
G1 F780 X152.12 Y148.94 E184.20060
G0 F6000 X152.78 Y148.89
G1 F780 X153.55 Y149.66 E184.24610
G0 F6000 X154.26 Y149.66
G1 F780 X153.44 Y148.84 E184.29441
G0 F6000 X154.10 Y148.79
G1 F780 X154.97 Y149.66 E184.34550
G0 F6000 X155.63 Y149.62
G1 F780 X154.76 Y148.75 E184.39700
G0 F6000 X155.44 Y148.72
G1 F780 X155.63 Y148.92 E184.40832
G0 F6000 X158.32 Y150.23
;TYPE:SUPPORT
G1 F780 X158.32 Y154.98 E184.60576
G0 F6000 X158.32 Y154.80
G0 X161.65 Y154.80
G0 X161.65 Y154.98
G1 F780 X161.65 Y150.23 E184.80320
;LAYER:19
G0 F6000 X161.65 Y149.00 Z4.10
G0 X162.63 Y148.85
;TYPE:WALL-INNER
G1 F840 X155.81 Y148.85 E185.08671
G1 X155.81 Y149.84 E185.12778
G1 X143.41 Y149.84 E185.64348
G1 X144.97 Y149.29 E185.71238
G1 X155.09 Y148.56 E186.13405
G1 X162.63 Y148.56 E186.44761
G1 X162.63 Y148.85 E186.45967
G0 F6000 X162.63 Y156.35
G1 F840 X162.63 Y156.48 E186.46486
G1 X155.10 Y156.48 E186.77776
G1 X145.85 Y155.34 E187.16547
G1 X155.81 Y155.34 E187.57969
G1 X155.81 Y156.35 E187.62176
G1 X162.63 Y156.35 E187.90526
G0 F6000 X163.13 Y155.85
;TYPE:WALL-OUTER
G1 F840 X163.13 Y156.98 E187.95203
G1 X155.07 Y156.98 E188.28688
G1 X142.16 Y155.39 E188.82769
G1 X142.16 Y149.74 E189.06247
G1 X144.87 Y148.80 E189.18159
G1 X155.06 Y148.06 E189.60656
G1 X163.13 Y148.06 E189.94182
G1 X163.13 Y149.35 E189.99545
G1 X156.31 Y149.35 E190.27895
G1 X156.31 Y150.34 E190.32003
G1 X143.01 Y150.34 E190.87302
G1 X143.01 Y154.84 E191.06007
G1 X156.31 Y154.84 E191.61314
G1 X156.31 Y155.85 E191.65522
G1 X163.13 Y155.85 E191.93872
G0 F6000 X162.87 Y156.20
G0 X155.92 Y156.24
G0 X155.63 Y155.85
;TYPE:FILL
G1 F840 X155.18 Y156.30 E191.96541
G1 X155.63 Y155.85 E191.99210
G0 F6000 X155.26 Y155.51
G1 F840 X154.54 Y156.23 E192.03432
G1 X155.26 Y155.51 E192.07654
G0 F6000 X154.55 Y155.51
G1 F840 X153.91 Y156.15 E192.11416
G1 X154.20 Y155.51 E192.15182
G1 X153.28 Y156.08 E192.18481
G1 X153.49 Y155.51 E192.21785
G1 X152.65 Y156.00 E192.24636
G1 X152.78 Y155.51 E192.27486
G1 X152.02 Y155.92 E192.29877
G1 X152.08 Y155.51 E192.32273
G1 X151.39 Y155.84 E192.34219
G1 X151.37 Y155.51 E192.36167
G1 X150.76 Y155.77 E192.37655
G1 X150.66 Y155.51 E192.39151
G1 X150.13 Y155.69 E192.40180
G1 X150.31 Y155.51 E192.41214
G0 F6000 X150.50 Y149.66
G1 F840 X151.18 Y149.34 E192.44982
G1 X151.91 Y148.97 E192.48396
G0 F6000 X151.92 Y149.66
G1 F840 X152.67 Y148.91 E192.52818
G0 F6000 X152.62 Y149.66
G1 F840 X153.43 Y148.86 E192.57563
G0 F6000 X154.19 Y148.80
G1 F840 X153.33 Y149.66 E192.62634
G0 F6000 X154.04 Y149.66
G1 F840 X154.96 Y148.75 E192.68031
G0 F6000 X155.63 Y148.78
G1 F840 X154.74 Y149.66 E192.73261
G0 F6000 X155.45 Y149.66
G1 F840 X155.63 Y149.48 E192.74334
G0 F6000 X150.38 Y149.08
G1 F840 X149.71 Y149.40 E192.77784
G1 X148.97 Y149.43 E192.80905
G1 X148.24 Y149.45 E192.83699
G1 X147.50 Y149.48 E192.86176
G1 X146.77 Y149.51 E192.88326
G1 X146.03 Y149.54 E192.90149
G1 X145.30 Y149.56 E192.91653
G1 X144.84 Y149.66 E192.93583
G0 F6000 X143.19 Y149.91
G1 F840 X142.88 Y150.21 E192.94655
G1 X142.59 Y150.86 E192.96672
G1 X142.59 Y151.57 E192.98688
G1 X142.59 Y152.28 E193.00707
G1 X142.59 Y152.98 E193.02718
G1 X142.59 Y153.69 E193.04731
G1 X142.59 Y154.40 E193.06742
G1 X142.41 Y154.92 E193.09037
G0 F6000 X142.51 Y154.92
G0 X142.51 Y149.97
G0 X142.41 Y149.97
G1 F840 X142.50 Y149.89 E193.09522
G0 F6000 X158.32 Y150.23
;TYPE:SUPPORT
G1 F840 X158.32 Y154.98 E193.29266
G0 F6000 X158.32 Y154.80
G0 X161.65 Y154.80
G0 X161.65 Y154.98
G1 F840 X161.65 Y150.23 E193.49010
;LAYER:20
G0 F6000 X161.65 Y149.00 Z4.30
G0 X162.63 Y148.85
;TYPE:WALL-INNER
G1 F840 X155.81 Y148.85 E193.77361
G1 X155.81 Y149.84 E193.81468
G1 X143.58 Y149.84 E194.32298
G1 X145.14 Y149.30 E194.39161
G1 X155.09 Y148.58 E194.80612
G1 X162.63 Y148.58 E195.11968
G1 X162.63 Y148.85 E195.13111
G0 F6000 X155.92 Y148.96
G0 X143.10 Y149.95
G0 X143.10 Y155.23
G0 X155.92 Y156.24
G0 X162.63 Y156.35
G1 F840 X162.63 Y156.46 E195.13581
G1 X155.10 Y156.46 E195.44870
G1 X145.95 Y155.34 E195.83227
G1 X155.81 Y155.34 E196.24237
G1 X155.81 Y156.35 E196.28444
G1 X162.63 Y156.35 E196.56794
G0 F6000 X155.92 Y156.24
G0 X143.10 Y155.23
G0 X142.99 Y154.98
G1 F840 X142.88 Y154.96 E196.57234
G1 X142.88 Y150.08 E196.77523
G1 X142.99 Y150.05 E196.77988
G1 X142.99 Y151.16 E196.82599
G1 X142.99 Y154.98 E196.98481
G0 F6000 X143.49 Y154.84
;TYPE:WALL-OUTER
G1 F840 X156.31 Y154.84 E197.51780
G1 X156.31 Y155.85 E197.55987
G1 X163.13 Y155.85 E197.84337
G1 X163.13 Y156.96 E197.88965
G1 X155.07 Y156.96 E198.22449
G1 X142.38 Y155.41 E198.75605
G1 X142.38 Y149.73 E198.99207
G1 X145.04 Y148.80 E199.10908
G1 X155.06 Y148.08 E199.52688
G1 X163.13 Y148.08 E199.86214
G1 X163.13 Y149.35 E199.91515
G1 X156.31 Y149.35 E200.19865
G1 X156.31 Y150.34 E200.23972
G1 X143.49 Y150.34 E200.77272
G1 X143.49 Y154.84 E200.95976
G0 F6000 X143.49 Y155.19
G0 X143.10 Y155.23
G0 X143.10 Y149.95
G0 X145.07 Y149.66
;TYPE:FILL
G1 F840 X145.27 Y149.51 E200.96471
G1 X145.99 Y149.53 E200.97770
G1 X146.68 Y149.50 E200.99349
G1 X147.36 Y149.48 E201.01208
G1 X148.04 Y149.46 E201.03350
G1 X148.73 Y149.43 E201.05771
G1 X149.41 Y149.41 E201.08474
G1 X150.09 Y149.39 E201.11452
G1 X150.78 Y149.36 E201.14708
G1 X151.46 Y149.34 E201.18247
G1 X152.14 Y149.31 E201.22066
G1 X152.85 Y149.66 E201.25329
G0 F6000 X153.55 Y149.66
G1 F840 X152.81 Y148.92 E201.29715
G0 F6000 X153.47 Y148.87
G1 F840 X154.26 Y149.66 E201.34384
G0 F6000 X154.97 Y149.66
G1 F840 X154.13 Y148.82 E201.39329
G0 F6000 X154.78 Y148.78
G1 F840 X155.63 Y149.62 E201.44317
G0 F6000 X155.63 Y148.92
G1 F840 X155.47 Y148.75 E201.45279
G0 F6000 X143.10 Y149.95
G0 X143.10 Y155.23
G0 X155.16 Y155.51
G1 F840 X155.63 Y155.99 E201.48069
G1 X155.16 Y155.51 E201.50859
G0 F6000 X154.45 Y155.51
G1 F840 X155.23 Y156.29 E201.55412
G1 X154.45 Y155.51 E201.59966
G0 F6000 X154.44 Y156.21
G1 F840 X153.75 Y155.51 E201.64032
G1 X154.03 Y156.16 E201.68092
G1 X153.04 Y155.51 E201.71568
G1 X153.23 Y156.06 E201.75053
G1 X152.33 Y155.51 E201.77945
G1 X152.42 Y155.96 E201.80842
G1 X151.62 Y155.51 E201.83158
G1 X151.62 Y155.86 E201.85477
G1 X150.92 Y155.51 E201.87214
G1 X150.81 Y155.76 E201.88951
G1 X150.21 Y155.51 E201.90105
G1 X150.41 Y155.71 E201.91264
G0 F6000 X158.32 Y154.98
;TYPE:SUPPORT
G1 F840 X158.32 Y150.23 E202.11008
G0 F6000 X158.32 Y150.40
G0 X161.65 Y150.40
G0 X161.65 Y150.23
G1 F840 X161.65 Y154.98 E202.30752
;LAYER:21
G0 F6000 X161.65 Y156.20 Z4.50
G0 X162.63 Y156.35
;TYPE:WALL-INNER
G1 F840 X162.63 Y156.45 E202.31172
G1 X155.10 Y156.45 E202.62461
G1 X146.04 Y155.34 E203.00407
G1 X155.81 Y155.34 E203.41009
G1 X155.81 Y156.35 E203.45217
G1 X162.63 Y156.35 E203.73567
G0 F6000 X155.92 Y156.24
G0 X143.58 Y155.23
G0 X143.58 Y149.95
G0 X155.92 Y148.96
G0 X162.63 Y148.85
G1 F840 X155.81 Y148.85 E204.01917
G1 X155.81 Y149.84 E204.06025
G1 X143.76 Y149.84 E204.56114
G1 X145.31 Y149.30 E204.62952
G1 X155.09 Y148.59 E205.03685
G1 X162.63 Y148.59 E205.35041
G1 X162.63 Y148.85 E205.36122
G0 F6000 X155.92 Y148.96
G0 X143.47 Y149.94
G1 F840 X143.47 Y151.29 E205.41718
G1 X143.47 Y155.02 E205.57254
G1 X143.11 Y154.98 E205.58792
G1 X143.11 Y150.07 E205.79205
G1 X143.47 Y149.94 E205.80825
G0 F6000 X143.97 Y150.34
;TYPE:WALL-OUTER
G1 F840 X143.97 Y154.84 E205.99530
G1 X156.31 Y154.84 E206.50821
G1 X156.31 Y155.85 E206.55028
G1 X163.13 Y155.85 E206.83378
G1 X163.13 Y156.95 E206.87956
G1 X155.07 Y156.95 E207.21440
G1 X142.61 Y155.42 E207.73670
G1 X142.60 Y149.71 E207.97397
G1 X145.21 Y148.81 E208.08882
G1 X155.06 Y148.09 E208.49945
G1 X163.13 Y148.09 E208.83471
G1 X163.13 Y149.35 E208.88710
G1 X156.31 Y149.35 E209.17060
G1 X156.31 Y150.34 E209.21167
G1 X143.97 Y150.34 E209.72459
G0 F6000 X143.62 Y150.34
G0 X143.58 Y149.95
G0 X145.55 Y149.66
;TYPE:FILL
G1 F840 X146.02 Y149.55 E209.73771
G1 X146.75 Y149.52 E209.75410
G1 X147.49 Y149.50 E209.77371
G1 X148.22 Y149.47 E209.79658
G1 X148.96 Y149.44 E209.82266
G1 X149.69 Y149.41 E209.85202
G1 X150.43 Y149.39 E209.88461
G1 X151.16 Y149.36 E209.92039
G1 X151.87 Y149.00 E209.95358
G0 F6000 X151.92 Y149.66
G1 F840 X152.64 Y148.94 E209.99591
G0 F6000 X152.62 Y149.66
G1 F840 X153.40 Y148.89 E210.04148
G0 F6000 X154.16 Y148.83
G1 F840 X153.33 Y149.66 E210.09028
G0 F6000 X154.04 Y149.66
G1 F840 X154.92 Y148.78 E210.14231
G0 F6000 X155.63 Y148.78
G1 F840 X154.74 Y149.66 E210.19461
G0 F6000 X155.45 Y149.66
G1 F840 X155.63 Y149.48 E210.20534
G0 F6000 X143.58 Y149.95
G0 X143.58 Y155.23
G0 X155.26 Y155.51
G1 F840 X154.56 Y156.21 E210.24627
G1 X155.45 Y155.68 E210.28720
G1 X155.20 Y156.28 E210.31250
G1 X155.63 Y155.85 E210.33778
G0 F6000 X154.55 Y155.51
G1 F840 X153.93 Y156.13 E210.37417
G1 X154.20 Y155.51 E210.41056
G1 X153.30 Y156.05 E210.44239
G1 X153.49 Y155.51 E210.47419
G1 X152.67 Y155.98 E210.50145
G1 X152.78 Y155.51 E210.52877
G1 X152.04 Y155.90 E210.55148
G1 X152.08 Y155.51 E210.57421
G1 X151.41 Y155.82 E210.59232
G1 X151.37 Y155.51 E210.61044
G1 X150.78 Y155.75 E210.62404
G1 X150.66 Y155.51 E210.63767
G1 X150.16 Y155.67 E210.64670
G1 X150.31 Y155.51 E210.65575
G0 F6000 X158.32 Y154.98
;TYPE:SUPPORT
G1 F840 X158.32 Y150.23 E210.85319
G0 F6000 X158.32 Y150.40
G0 X161.65 Y150.40
G0 X161.65 Y150.23
G1 F840 X161.65 Y154.98 E211.05063
;LAYER:22
G0 F6000 X161.65 Y156.20 Z4.70
G0 X162.63 Y156.35
;TYPE:WALL-INNER
G1 F840 X162.63 Y156.44 E211.05438
G1 X155.10 Y156.44 E211.36727
G1 X146.13 Y155.34 E211.74292
G1 X155.81 Y155.34 E212.14516
G1 X155.81 Y156.35 E212.18724
G1 X162.63 Y156.35 E212.47074
G0 F6000 X155.92 Y156.24
G0 X144.06 Y155.23
G0 X144.06 Y149.95
G0 X155.92 Y148.96
G0 X162.63 Y148.85
G1 F840 X155.81 Y148.85 E212.75424
G1 X155.81 Y149.84 E212.79531
G1 X143.96 Y149.84 E213.28815
G1 X143.95 Y151.41 E213.35363
G1 X143.96 Y155.07 E213.50563
G1 X143.33 Y154.99 E213.53193
G1 X143.33 Y150.05 E213.73735
G1 X145.49 Y149.30 E213.83244
G1 X155.09 Y148.61 E214.23261
G1 X162.63 Y148.61 E214.54617
G1 X162.63 Y148.85 E214.55639
G0 F6000 X163.13 Y149.35
;TYPE:WALL-OUTER
G1 F840 X156.31 Y149.35 E214.83989
G1 X156.31 Y150.34 E214.88097
G1 X144.46 Y150.34 E215.37384
G1 X144.46 Y154.84 E215.56089
G1 X156.31 Y154.84 E216.05376
G1 X156.31 Y155.85 E216.09584
G1 X163.13 Y155.85 E216.37934
G1 X163.13 Y156.94 E216.42466
G1 X155.07 Y156.94 E216.75950
G1 X142.83 Y155.44 E217.27255
G1 X142.83 Y149.70 E217.51110
G1 X145.39 Y148.81 E217.62380
G1 X155.06 Y148.11 E218.02726
G1 X163.13 Y148.11 E218.36252
G1 X163.13 Y149.35 E218.41432
G0 F6000 X162.78 Y149.09
G0 X155.92 Y148.96
G0 X155.63 Y149.62
;TYPE:FILL
G1 F840 X154.81 Y148.80 E218.46262
G0 F6000 X154.15 Y148.85
G1 F840 X154.97 Y149.66 E218.51054
G0 F6000 X154.26 Y149.66
G1 F840 X153.49 Y148.90 E218.55564
G0 F6000 X152.83 Y148.94
G1 F840 X153.55 Y149.66 E218.59794
G0 F6000 X152.85 Y149.66
G1 F840 X151.84 Y149.02 E218.63730
G1 X151.78 Y149.66 E218.67394
G1 X150.79 Y149.38 E218.70776
G1 X150.11 Y149.40 E218.73883
G1 X149.42 Y149.42 E218.76708
G1 X148.74 Y149.45 E218.79253
G1 X148.06 Y149.47 E218.81515
G1 X147.37 Y149.50 E218.83498
G1 X146.69 Y149.52 E218.85197
G1 X146.01 Y149.54 E218.86620
G1 X145.58 Y149.47 E218.88417
G0 F6000 X144.06 Y149.95
G0 X143.78 Y150.50
G1 F840 X143.50 Y150.22 E218.90057
G1 X143.64 Y150.71 E218.91693
G1 X143.78 Y151.21 E218.93329
G1 X143.50 Y151.28 E218.94971
G1 X143.78 Y151.91 E218.96610
G1 X143.50 Y151.99 E218.98252
G1 X143.78 Y152.62 E218.99891
G1 X143.50 Y152.69 E219.01533
G1 X143.78 Y153.33 E219.03172
G1 X143.50 Y153.40 E219.04814
G1 X143.78 Y154.03 E219.06456
G1 X143.50 Y154.11 E219.08098
G1 X143.78 Y154.74 E219.09740
G1 X143.50 Y154.46 E219.11383
G0 F6000 X144.06 Y155.23
G0 X150.21 Y155.51
G1 F840 X150.38 Y155.68 E219.12388
G1 X150.56 Y155.51 E219.13391
G1 X151.19 Y155.78 E219.14974
G1 X151.27 Y155.51 E219.16560
G1 X151.99 Y155.88 E219.18726
G1 X151.98 Y155.51 E219.20891
G1 X152.80 Y155.98 E219.23634
G1 X152.69 Y155.51 E219.26385
G1 X153.60 Y156.08 E219.29710
G1 X153.39 Y155.51 E219.33039
G1 X154.41 Y156.18 E219.36946
G1 X153.75 Y155.51 E219.40859
G0 F6000 X154.45 Y155.51
G1 F840 X155.20 Y156.26 E219.45278
G1 X154.45 Y155.51 E219.49696
G0 F6000 X155.16 Y155.51
G1 F840 X155.63 Y155.99 E219.52486
G1 X155.16 Y155.51 E219.55276
G0 F6000 X144.06 Y155.23
G0 X144.06 Y149.95
G0 X155.63 Y148.92
G1 F840 X155.50 Y148.78 E219.56067
G0 F6000 X158.32 Y150.23
;TYPE:SUPPORT
G1 F840 X158.32 Y154.98 E219.75811
G0 F6000 X158.32 Y154.80
G0 X161.65 Y154.80
G0 X161.65 Y154.98
G1 F840 X161.65 Y150.23 E219.95555
;LAYER:23
G0 F6000 X161.65 Y149.00 Z4.90
G0 X162.63 Y148.85
;TYPE:WALL-INNER
G1 F840 X155.81 Y148.85 E220.23905
G1 X155.81 Y149.84 E220.28013
G1 X144.44 Y149.84 E220.75292
G1 X144.44 Y151.54 E220.82376
G1 X144.44 Y155.12 E220.97235
G1 X143.55 Y155.01 E221.00959
G1 X143.55 Y150.04 E221.21622
G1 X145.66 Y149.30 E221.30920
G1 X155.09 Y148.62 E221.70215
G1 X162.63 Y148.62 E222.01571
G1 X162.63 Y148.85 E222.02532
G0 F6000 X155.92 Y148.96
G0 X144.55 Y149.95
G0 X144.54 Y155.23
G0 X155.92 Y156.24
G0 X162.63 Y156.35
G1 F840 X162.63 Y156.43 E222.02856
G1 X155.10 Y156.43 E222.34146
G1 X146.23 Y155.34 E222.71300
G1 X155.81 Y155.34 E223.11117
G1 X155.81 Y156.35 E223.15324
G1 X162.63 Y156.35 E223.43674
G0 F6000 X163.13 Y155.85
;TYPE:WALL-OUTER
G1 F840 X163.13 Y156.93 E223.48156
G1 X155.07 Y156.93 E223.81641
G1 X143.05 Y155.45 E224.32019
G1 X143.05 Y149.68 E224.56000
G1 X145.56 Y148.81 E224.67058
G1 X155.06 Y148.12 E225.06682
G1 X163.13 Y148.12 E225.40208
G1 X163.13 Y149.35 E225.45326
G1 X156.31 Y149.35 E225.73676
G1 X156.31 Y150.34 E225.77784
G1 X144.94 Y150.34 E226.25067
G1 X144.94 Y154.84 E226.43772
G1 X156.31 Y154.84 E226.91055
G1 X156.31 Y155.85 E226.95263
G1 X163.13 Y155.85 E227.23613
G0 F6000 X162.87 Y156.20
G0 X155.92 Y156.24
G0 X155.63 Y155.85
;TYPE:FILL
G1 F840 X155.23 Y156.25 E227.26009
G1 X155.45 Y155.68 E227.28402
G1 X154.58 Y156.19 E227.32378
G1 X154.91 Y155.51 E227.36357
G1 X153.95 Y156.11 E227.39872
G1 X154.20 Y155.51 E227.43386
G1 X153.32 Y156.03 E227.46443
G1 X153.49 Y155.51 E227.49500
G1 X152.69 Y155.96 E227.52102
G1 X152.78 Y155.51 E227.54709
G1 X152.06 Y155.88 E227.56855
G1 X152.08 Y155.51 E227.59005
G1 X151.44 Y155.80 E227.60697
G1 X151.37 Y155.51 E227.62394
G1 X150.81 Y155.72 E227.63631
G1 X151.02 Y155.51 E227.64871
G0 F6000 X144.54 Y155.23
G0 X144.55 Y149.95
G0 X151.21 Y149.66
G1 F840 X151.88 Y149.35 E227.68588
G1 X152.60 Y148.98 E227.71974
G0 F6000 X152.62 Y149.66
G1 F840 X153.37 Y148.92 E227.76348
G0 F6000 X153.33 Y149.66
G1 F840 X154.13 Y148.87 E227.81046
G0 F6000 X154.89 Y148.81
G1 F840 X154.04 Y149.66 E227.86064
G0 F6000 X154.74 Y149.66
G1 F840 X155.61 Y148.80 E227.91168
G0 F6000 X155.63 Y149.48
G1 F840 X155.45 Y149.66 E227.92241
G0 F6000 X151.08 Y149.09
G1 F840 X150.41 Y149.40 E227.95641
G1 X149.68 Y149.43 E227.98717
G1 X148.94 Y149.46 E228.01475
G1 X148.21 Y149.49 E228.03900
G1 X147.47 Y149.51 E228.06004
G1 X146.74 Y149.54 E228.07784
G1 X146.00 Y149.57 E228.09237
G1 X145.55 Y149.66 E228.11151
G0 F6000 X144.26 Y150.25
G1 F840 X143.72 Y150.79 E228.14323
G1 X144.26 Y150.60 E228.17491
G1 X143.72 Y151.49 E228.20660
G1 X144.26 Y151.31 E228.23835
G1 X143.72 Y152.20 E228.27004
G1 X144.26 Y152.01 E228.30179
G1 X143.72 Y152.91 E228.33348
G1 X144.26 Y152.72 E228.36520
G1 X143.72 Y153.62 E228.39686
G1 X144.26 Y153.43 E228.42853
G1 X143.72 Y154.32 E228.46019
G1 X144.26 Y154.14 E228.49186
G1 X143.88 Y154.87 E228.51427
G1 X144.26 Y154.49 E228.53673
G0 F6000 X158.32 Y154.98
;TYPE:SUPPORT
G1 F840 X158.32 Y150.23 E228.73417
G0 F6000 X158.32 Y150.40
G0 X161.65 Y150.40
G0 X161.65 Y150.23
G1 F840 X161.65 Y154.98 E228.93161
;LAYER:24
G0 F6000 X161.65 Y156.20 Z5.10
G0 X162.63 Y156.35
;TYPE:WALL-INNER
G1 F840 X162.63 Y156.42 E228.93435
G1 X155.10 Y156.42 E229.24725
G1 X146.33 Y155.34 E229.61465
G1 X155.81 Y155.34 E230.00870
G1 X155.81 Y156.35 E230.05077
G1 X162.63 Y156.35 E230.33427
G0 F6000 X155.92 Y156.24
G0 X145.03 Y155.23
G0 X145.03 Y149.95
G0 X155.92 Y148.96
G0 X162.63 Y148.85
G1 F840 X155.81 Y148.85 E230.61777
G1 X155.81 Y149.84 E230.65885
G1 X144.92 Y149.84 E231.11160
G1 X144.92 Y155.16 E231.33299
G1 X143.77 Y155.02 E231.38112
G1 X143.77 Y150.03 E231.58895
G1 X145.83 Y149.31 E231.67982
G1 X155.09 Y148.64 E232.06561
G1 X162.63 Y148.63 E232.37917
G1 X162.63 Y148.85 E232.38819
G0 F6000 X163.13 Y149.35
;TYPE:WALL-OUTER
G1 F840 X156.31 Y149.35 E232.67169
G1 X156.31 Y150.34 E232.71276
G1 X145.42 Y150.34 E233.16556
G1 X145.42 Y154.84 E233.35261
G1 X156.31 Y154.84 E233.80540
G1 X156.31 Y155.85 E233.84748
G1 X163.13 Y155.85 E234.13098
G1 X163.13 Y156.92 E234.17530
G1 X155.07 Y156.92 E234.51014
G1 X143.27 Y155.47 E235.00467
G1 X143.27 Y149.67 E235.24568
G1 X145.73 Y148.81 E235.35410
G1 X155.06 Y148.14 E235.74318
G1 X163.13 Y148.13 E236.07845
G1 X163.13 Y149.35 E236.12904
G0 F6000 X162.78 Y149.09
G0 X155.92 Y148.96
G0 X155.63 Y149.62
;TYPE:FILL
G1 F840 X154.84 Y148.83 E236.17573
G0 F6000 X154.18 Y148.88
G1 F840 X154.97 Y149.66 E236.22203
G0 F6000 X154.26 Y149.66
G1 F840 X153.52 Y148.93 E236.26551
G0 F6000 X152.86 Y148.97
G1 F840 X153.20 Y149.66 E236.30617
G1 X152.17 Y149.34 E236.34401
G1 X151.49 Y149.37 E236.37907
G1 X150.80 Y149.39 E236.41129
G1 X150.12 Y149.41 E236.44072
G1 X149.44 Y149.44 E236.46741
G1 X148.75 Y149.46 E236.49128
G1 X148.07 Y149.49 E236.51231
G1 X147.39 Y149.51 E236.53052
G1 X146.70 Y149.53 E236.54592
G1 X146.02 Y149.56 E236.55853
G1 X145.70 Y149.59 E236.57195
G0 F6000 X144.74 Y150.05
G1 F840 X144.35 Y150.01 E236.57974
G1 X144.74 Y150.75 E236.61495
G0 F6000 X144.74 Y151.46
G1 F840 X143.94 Y150.66 E236.66210
G0 F6000 X143.94 Y151.37
G1 F840 X144.74 Y152.17 E236.70923
G0 F6000 X144.74 Y152.88
G1 F840 X143.94 Y152.07 E236.75635
G0 F6000 X143.94 Y152.78
G1 F840 X144.74 Y153.58 E236.80345
G0 F6000 X144.74 Y154.29
G1 F840 X143.94 Y153.49 E236.85055
G0 F6000 X143.94 Y154.19
G1 F840 X144.71 Y154.96 E236.89570
G0 F6000 X145.03 Y155.23
G0 X150.92 Y155.51
G1 F840 X151.16 Y155.75 E236.90990
G1 X151.27 Y155.51 E236.92409
G1 X151.97 Y155.85 E236.94411
G1 X151.98 Y155.51 E236.96414
G1 X152.77 Y155.95 E236.98993
G1 X152.69 Y155.51 E237.01577
G1 X153.58 Y156.05 E237.04740
G1 X153.39 Y155.51 E237.07905
G1 X154.38 Y156.15 E237.11651
G1 X153.75 Y155.51 E237.15402
G0 F6000 X154.45 Y155.51
G1 F840 X155.18 Y156.24 E237.19680
G1 X154.45 Y155.51 E237.23957
G0 F6000 X155.16 Y155.51
G1 F840 X155.63 Y155.99 E237.26747
G1 X155.16 Y155.51 E237.29537
G0 F6000 X145.03 Y155.23
G0 X145.03 Y149.95
G0 X155.63 Y148.92
G1 F840 X155.53 Y148.81 E237.30157
G0 F6000 X158.32 Y150.23
;TYPE:SUPPORT
G1 F840 X158.32 Y154.98 E237.49901
G0 F6000 X158.32 Y154.80
G0 X161.65 Y154.80
G0 X161.65 Y154.98
G1 F840 X161.65 Y150.23 E237.69646
;LAYER:25
G0 F6000 X161.65 Y149.00 Z5.30
G0 X162.63 Y148.85
;TYPE:WALL-INNER
G1 F840 X155.81 Y148.85 E237.97996
G1 X155.81 Y149.84 E238.02103
G1 X145.40 Y149.84 E238.45375
G1 X145.40 Y155.21 E238.67713
G1 X143.99 Y155.04 E238.73619
G1 X143.99 Y150.01 E238.94531
G1 X146.00 Y149.31 E239.03403
G1 X155.09 Y148.65 E239.41264
G1 X162.63 Y148.65 E239.72620
G1 X162.63 Y148.85 E239.73460
G0 F6000 X155.92 Y148.96
G0 X145.51 Y149.95
G0 X145.51 Y155.23
G0 X155.92 Y156.24
G0 X162.63 Y156.35
G1 F840 X162.63 Y156.41 E239.73684
G1 X155.10 Y156.41 E240.04974
G1 X146.43 Y155.34 E240.41324
G1 X155.81 Y155.34 E240.80342
G1 X155.81 Y156.35 E240.84550
G1 X162.63 Y156.35 E241.12900
G0 F6000 X163.13 Y155.85
;TYPE:WALL-OUTER
G1 F840 X163.13 Y156.91 E241.17282
G1 X155.07 Y156.91 E241.50766
G1 X143.49 Y155.48 E241.99293
G1 X143.49 Y149.65 E242.23523
G1 X145.90 Y148.81 E242.34150
G1 X155.06 Y148.15 E242.72340
G1 X163.13 Y148.15 E243.05867
G1 X163.13 Y149.35 E243.10864
G1 X156.31 Y149.35 E243.39214
G1 X156.31 Y150.34 E243.43322
G1 X145.90 Y150.34 E243.86597
G1 X145.90 Y154.84 E244.05302
G1 X156.31 Y154.84 E244.48578
G1 X156.31 Y155.85 E244.52785
G1 X163.13 Y155.85 E244.81135
G0 F6000 X162.87 Y156.20
G0 X155.92 Y156.24
G0 X155.63 Y155.85
;TYPE:FILL
G1 F840 X155.25 Y156.23 E244.83390
G1 X155.45 Y155.68 E244.85644
G1 X154.61 Y156.17 E244.89484
G1 X154.91 Y155.51 E244.93325
G1 X153.98 Y156.09 E244.96711
G1 X154.20 Y155.51 E245.00105
G1 X153.35 Y156.01 E245.03041
G1 X153.49 Y155.51 E245.05975
G1 X152.72 Y155.94 E245.08448
G1 X152.78 Y155.51 E245.10926
G1 X152.09 Y155.86 E245.12945
G1 X152.08 Y155.51 E245.14969
G1 X151.46 Y155.78 E245.16535
G1 X151.37 Y155.51 E245.18106
G1 X150.83 Y155.70 E245.19221
G1 X151.02 Y155.51 E245.20338
G0 F6000 X145.51 Y155.23
G0 X145.51 Y149.95
G0 X151.21 Y149.66
G1 F840 X151.86 Y149.36 E245.23876
G1 X152.57 Y149.01 E245.27178
G0 F6000 X152.62 Y149.66
G1 F840 X153.34 Y148.95 E245.31364
G0 F6000 X153.33 Y149.66
G1 F840 X154.10 Y148.90 E245.35874
G0 F6000 X154.86 Y148.84
G1 F840 X154.04 Y149.66 E245.40707
G0 F6000 X154.74 Y149.66
G1 F840 X155.58 Y148.83 E245.45637
G0 F6000 X155.63 Y149.48
G1 F840 X155.45 Y149.66 E245.46710
G0 F6000 X151.05 Y149.12
G1 F840 X150.39 Y149.42 E245.49923
G1 X149.66 Y149.44 E245.52815
G1 X148.92 Y149.47 E245.55384
G1 X148.19 Y149.50 E245.57626
G1 X147.46 Y149.53 E245.59540
G1 X146.72 Y149.56 E245.61130
G1 X146.26 Y149.66 E245.63098
G0 F6000 X145.23 Y149.99
G1 F840 X144.16 Y151.05 E245.69343
G0 F6000 X144.16 Y151.76
G1 F840 X145.23 Y150.70 E245.75587
G0 F6000 X145.23 Y151.40
G1 F840 X144.16 Y152.47 E245.81831
G0 F6000 X144.16 Y153.17
G1 F840 X145.22 Y152.11 E245.88069
G0 F6000 X145.22 Y152.82
G1 F840 X144.16 Y153.88 E245.94307
G0 F6000 X144.16 Y154.59
G1 F840 X145.22 Y153.53 E246.00540
G0 F6000 X145.22 Y154.23
G1 F840 X144.53 Y154.93 E246.04626
G0 F6000 X144.16 Y150.34
G1 F840 X144.49 Y150.02 E246.06543
G0 F6000 X158.32 Y150.23
;TYPE:SUPPORT
G1 F840 X158.32 Y154.98 E246.26287
G0 F6000 X158.32 Y154.80
G0 X161.65 Y154.80
G0 X161.65 Y154.98
G1 F840 X161.65 Y150.23 E246.46031
;LAYER:26
G0 F6000 X161.65 Y149.00 Z5.50
G0 X162.63 Y148.85
;TYPE:WALL-INNER
G1 F840 X155.81 Y148.85 E246.74381
G1 X155.81 Y149.84 E246.78489
G1 X145.88 Y149.84 E247.19756
G1 X145.88 Y155.26 E247.42290
G1 X144.21 Y155.06 E247.49289
G1 X144.21 Y150.00 E247.70326
G1 X146.18 Y149.31 E247.78982
G1 X155.09 Y148.67 E248.16126
G1 X162.63 Y148.66 E248.47482
G1 X162.63 Y148.85 E248.48260
G0 F6000 X155.92 Y148.96
G0 X145.99 Y149.95
G0 X145.99 Y155.23
G0 X155.92 Y156.24
G0 X162.63 Y156.35
G1 F840 X162.63 Y156.39 E248.48434
G1 X155.10 Y156.39 E248.79724
G1 X146.52 Y155.34 E249.15663
G1 X155.81 Y155.34 E249.54274
G1 X155.81 Y156.35 E249.58482
G1 X162.63 Y156.35 E249.86832
G0 F6000 X163.13 Y155.85
;TYPE:WALL-OUTER
G1 F840 X163.13 Y156.89 E249.91164
G1 X155.07 Y156.89 E250.24649
G1 X143.71 Y155.50 E250.72250
G1 X143.71 Y149.64 E250.96604
G1 X146.07 Y148.82 E251.07015
G1 X155.06 Y148.17 E251.44489
G1 X163.13 Y148.16 E251.78015
G1 X163.13 Y149.35 E251.82950
G1 X156.31 Y149.35 E252.11300
G1 X156.31 Y150.34 E252.15408
G1 X146.38 Y150.34 E252.56680
G1 X146.38 Y154.84 E252.75384
G1 X156.31 Y154.84 E253.16656
G1 X156.31 Y155.85 E253.20863
G1 X163.13 Y155.85 E253.49213
G0 F6000 X162.87 Y156.20
G0 X155.92 Y156.24
G0 X155.63 Y155.99
;TYPE:FILL
G1 F840 X155.16 Y155.51 E253.52003
G1 X155.40 Y156.10 E253.54793
G1 X154.45 Y155.51 E253.58922
G1 X154.76 Y156.17 E253.63055
G1 X153.75 Y155.51 E253.66642
G1 X153.95 Y156.07 E253.70232
G1 X153.04 Y155.51 E253.73237
G1 X153.15 Y155.97 E253.76243
G1 X152.33 Y155.51 E253.78665
G1 X152.34 Y155.88 E253.81090
G1 X151.62 Y155.51 E253.82934
G1 X151.53 Y155.78 E253.84783
G1 X150.92 Y155.51 E253.86046
G1 X151.13 Y155.73 E253.87310
G0 F6000 X145.99 Y155.23
G0 X145.71 Y154.55
G1 F840 X144.38 Y153.22 E253.95083
G0 F6000 X144.38 Y153.93
G1 F840 X145.49 Y155.03 E254.01574
G0 F6000 X144.68 Y154.94
G1 F840 X144.38 Y154.64 E254.03320
G0 F6000 X145.71 Y153.84
G1 F840 X144.38 Y152.52 E254.11093
G0 F6000 X144.38 Y151.81
G1 F840 X145.71 Y153.13 E254.18878
G0 F6000 X145.71 Y152.43
G1 F840 X144.38 Y151.10 E254.26662
G0 F6000 X144.38 Y150.40
G1 F840 X145.71 Y151.72 E254.34444
G0 F6000 X145.71 Y151.01
G1 F840 X144.70 Y150.01 E254.40356
G0 F6000 X145.23 Y149.82
G1 F840 X145.71 Y150.31 E254.43184
G0 F6000 X146.48 Y149.66
G1 F840 X146.62 Y149.45 E254.44285
G1 X147.40 Y149.52 E254.45660
G1 X148.08 Y149.50 E254.47320
G1 X148.77 Y149.47 E254.49257
G1 X149.45 Y149.45 E254.51474
G1 X150.13 Y149.43 E254.53978
G1 X150.82 Y149.40 E254.56756
G1 X151.50 Y149.38 E254.59819
G1 X152.18 Y149.36 E254.63154
G1 X152.87 Y149.33 E254.66774
G1 X153.55 Y149.66 E254.69943
G0 F6000 X154.26 Y149.66
G1 F840 X153.55 Y148.95 E254.74129
G0 F6000 X154.21 Y148.90
G1 F840 X154.97 Y149.66 E254.78597
G0 F6000 X155.63 Y149.62
G1 F840 X154.87 Y148.86 E254.83107
G0 F6000 X155.56 Y148.84
G1 F840 X155.63 Y148.92 E254.83554
G0 F6000 X158.32 Y150.23
;TYPE:SUPPORT
G1 F840 X158.32 Y154.98 E255.03298
G0 F6000 X158.32 Y154.80
G0 X161.65 Y154.80
G0 X161.65 Y154.98
G1 F840 X161.65 Y150.23 E255.23042
;LAYER:27
G0 F6000 X161.65 Y149.00 Z5.70
G0 X162.63 Y148.85
;TYPE:WALL-INNER
G1 F840 X155.81 Y148.85 E255.51392
G1 X155.81 Y149.84 E255.55500
G1 X146.37 Y149.84 E255.94763
G1 X146.36 Y155.31 E256.17492
G1 X144.43 Y155.07 E256.25585
G1 X144.43 Y149.98 E256.46747
G1 X146.35 Y149.31 E256.55187
G1 X155.09 Y148.68 E256.91614
G1 X162.63 Y148.68 E257.22970
G1 X162.63 Y148.85 E257.23689
G0 F6000 X155.92 Y148.96
G0 X146.47 Y149.95
G0 X146.47 Y155.23
G0 X155.92 Y156.24
G0 X162.63 Y156.35
G1 F840 X162.63 Y156.38 E257.23814
G1 X155.10 Y156.38 E257.55104
G1 X146.62 Y155.34 E257.90629
G1 X155.81 Y155.34 E258.28828
G1 X155.81 Y156.35 E258.33035
G1 X162.63 Y156.35 E258.61385
G0 F6000 X163.13 Y155.85
;TYPE:WALL-OUTER
G1 F840 X163.13 Y156.88 E258.65668
G1 X155.07 Y156.88 E258.99152
G1 X143.93 Y155.51 E259.45828
G1 X143.93 Y149.62 E259.70307
G1 X146.25 Y148.82 E259.80502
G1 X155.06 Y148.18 E260.17259
G1 X163.13 Y148.18 E260.50785
G1 X163.13 Y149.35 E260.55662
G1 X156.31 Y149.35 E260.84012
G1 X156.31 Y150.34 E260.88120
G1 X146.87 Y150.34 E261.27388
G1 X146.87 Y154.84 E261.46092
G1 X156.31 Y154.84 E261.85360
G1 X156.31 Y155.85 E261.89568
G1 X163.13 Y155.85 E262.17918
G0 F6000 X162.87 Y156.20
G0 X155.92 Y156.24
G0 X155.63 Y155.85
;TYPE:FILL
G1 F840 X155.27 Y156.21 E262.20031
G1 X155.45 Y155.68 E262.22145
G1 X154.63 Y156.15 E262.25864
G1 X154.91 Y155.51 E262.29586
G1 X154.00 Y156.07 E262.32855
G1 X154.20 Y155.51 E262.36121
G1 X153.37 Y155.99 E262.38921
G1 X153.49 Y155.51 E262.41730
G1 X152.74 Y155.91 E262.44081
G1 X152.78 Y155.51 E262.46441
G1 X152.11 Y155.84 E262.48344
G1 X152.08 Y155.51 E262.50249
G1 X151.48 Y155.76 E262.51700
G1 X151.37 Y155.51 E262.53150
G1 X150.85 Y155.68 E262.54145
G1 X151.02 Y155.51 E262.55139
G0 F6000 X146.47 Y155.23
G0 X146.19 Y154.69
G1 F840 X145.81 Y155.06 E262.57361
G0 F6000 X145.18 Y154.99
G1 F840 X146.19 Y153.98 E262.63282
G0 F6000 X146.19 Y153.27
G1 F840 X144.61 Y154.85 E262.72584
G0 F6000 X144.61 Y154.15
G1 F840 X146.19 Y152.56 E262.81885
G0 F6000 X146.19 Y151.85
G1 F840 X144.61 Y153.44 E262.91190
G0 F6000 X144.61 Y152.73
G1 F840 X146.19 Y151.15 E263.00494
G0 F6000 X146.19 Y150.44
G1 F840 X144.61 Y152.02 E263.09807
G0 F6000 X144.61 Y151.32
G1 F840 X146.19 Y149.73 E263.19121
G0 F6000 X146.26 Y149.66
G1 F840 X146.71 Y149.57 E263.20204
G1 X147.44 Y149.54 E263.21609
G1 X148.17 Y149.52 E263.23340
G1 X148.91 Y149.49 E263.25392
G1 X149.64 Y149.46 E263.27771
G1 X150.38 Y149.43 E263.30474
G1 X151.11 Y149.41 E263.33501
G1 X151.85 Y149.38 E263.36854
G1 X152.58 Y149.35 E263.40530
G1 X153.30 Y148.98 E263.43899
G0 F6000 X153.33 Y149.66
G1 F840 X154.07 Y148.93 E263.48227
G0 F6000 X154.04 Y149.66
G1 F840 X154.83 Y148.87 E263.52877
G0 F6000 X155.56 Y148.85
G1 F840 X154.74 Y149.66 E263.57643
G0 F6000 X155.45 Y149.66
G1 F840 X155.63 Y149.48 E263.58716
G0 F6000 X145.39 Y149.83
G1 F840 X144.61 Y150.61 E263.63302
G0 F6000 X158.32 Y150.23
;TYPE:SUPPORT
G1 F840 X158.32 Y154.98 E263.83046
G0 F6000 X158.32 Y154.80
G0 X161.65 Y154.80
G0 X161.65 Y154.98
G1 F840 X161.65 Y150.23 E264.02790
;LAYER:28
G0 F6000 X161.65 Y149.00 Z5.90
G0 X162.63 Y148.85
;TYPE:WALL-INNER
G1 F840 X155.81 Y148.85 E264.31140
G1 X155.81 Y149.84 E264.35248
G1 X146.85 Y149.84 E264.72507
G1 X146.85 Y155.34 E264.95370
G1 X155.81 Y155.34 E265.32629
G1 X155.81 Y156.35 E265.36837
G1 X162.63 Y156.35 E265.65187
G1 X162.63 Y156.37 E265.65266
G1 X155.10 Y156.37 E265.96555
G1 X144.65 Y155.09 E266.40328
G1 X144.65 Y149.97 E266.61619
G1 X146.52 Y149.31 E266.69847
G1 X155.09 Y148.69 E267.05553
G1 X162.63 Y148.69 E267.36909
G1 X162.63 Y148.85 E267.37566
G0 F6000 X163.13 Y149.35
;TYPE:WALL-OUTER
G1 F840 X156.31 Y149.35 E267.65916
G1 X156.31 Y150.34 E267.70024
G1 X147.35 Y150.34 E268.07283
G1 X147.35 Y154.84 E268.25988
G1 X156.31 Y154.84 E268.63248
G1 X156.31 Y155.85 E268.67455
G1 X163.13 Y155.85 E268.95805
G1 X163.13 Y156.87 E269.00042
G1 X155.07 Y156.87 E269.33526
G1 X144.15 Y155.53 E269.79276
G1 X144.15 Y149.61 E270.03885
G1 X146.42 Y148.82 E270.13868
G1 X155.06 Y148.19 E270.49904
G1 X163.13 Y148.19 E270.83430
G1 X163.13 Y149.35 E270.88244
G0 F6000 X162.78 Y149.09
G0 X155.92 Y148.96
G0 X155.63 Y149.62
;TYPE:FILL
G1 F840 X154.89 Y148.88 E270.92592
G0 F6000 X154.24 Y148.93
G1 F840 X154.97 Y149.66 E270.96896
G0 F6000 X154.26 Y149.66
G1 F840 X153.25 Y149.00 E271.00917
G1 X153.20 Y149.66 E271.04663
G1 X152.20 Y149.37 E271.08120
G1 X151.51 Y149.39 E271.11302
G1 X150.83 Y149.42 E271.14200
G1 X150.15 Y149.44 E271.16824
G1 X149.46 Y149.46 E271.19165
G1 X148.78 Y149.49 E271.21228
G1 X148.10 Y149.51 E271.23012
G1 X147.41 Y149.54 E271.24512
G1 X146.83 Y149.66 E271.25735
G1 X146.37 Y149.55 E271.27682
G0 F6000 X145.84 Y149.73
G1 F840 X146.67 Y150.56 E271.32551
G0 F6000 X146.67 Y151.27
G1 F840 X145.32 Y149.92 E271.40500
G0 F6000 X144.83 Y150.13
G1 F840 X146.67 Y151.98 E271.51354
G0 F6000 X146.67 Y152.68
G1 F840 X144.83 Y150.84 E271.62207
G0 F6000 X144.83 Y151.54
G1 F840 X146.67 Y153.39 E271.73058
G0 F6000 X146.67 Y154.10
G1 F840 X144.83 Y152.25 E271.83909
G0 F6000 X144.83 Y152.96
G1 F840 X146.67 Y154.80 E271.94760
G0 F6000 X146.27 Y155.11
G1 F840 X144.83 Y153.67 E272.03226
G0 F6000 X144.83 Y154.37
G1 F840 X145.46 Y155.01 E272.06954
G0 F6000 X150.92 Y155.51
G1 F840 X151.10 Y155.70 E272.08062
G1 X151.27 Y155.51 E272.09172
G1 X151.91 Y155.80 E272.10861
G1 X151.98 Y155.51 E272.12553
G1 X152.72 Y155.90 E272.14816
G1 X152.69 Y155.51 E272.17087
G1 X153.52 Y156.00 E272.19933
G1 X153.39 Y155.51 E272.22784
G1 X154.33 Y156.10 E272.26213
G1 X154.10 Y155.51 E272.29649
G1 X155.13 Y156.19 E272.33643
G1 X154.81 Y155.51 E272.37645
G1 X155.63 Y155.99 E272.40435
G1 X155.16 Y155.51 E272.43230
G0 F6000 X158.32 Y154.98
;TYPE:SUPPORT
G1 F840 X158.32 Y150.23 E272.62974
G0 F6000 X158.32 Y150.40
G0 X161.65 Y150.40
G0 X161.65 Y150.23
G1 F840 X161.65 Y154.98 E272.82718
;LAYER:29
G0 F6000 X161.65 Y156.20 Z6.10
G0 X162.63 Y156.35
;TYPE:WALL-INNER
G1 F840 X155.10 Y156.36 E273.14008
G1 X144.87 Y155.10 E273.56855
G1 X144.87 Y149.95 E273.78270
G1 X146.69 Y149.32 E273.86283
G1 X155.09 Y148.71 E274.21272
G1 X162.63 Y148.71 E274.52628
G1 X162.63 Y148.85 E274.53227
G1 X155.81 Y148.85 E274.81577
G1 X155.81 Y149.84 E274.85685
G1 X147.33 Y149.84 E275.20941
G1 X147.33 Y155.34 E275.43803
G1 X155.81 Y155.34 E275.79059
G1 X155.81 Y156.35 E275.83266
G1 X162.63 Y156.35 E276.11616
G0 F6000 X163.13 Y155.85
;TYPE:WALL-OUTER
G1 F840 X163.13 Y156.86 E276.15803
G1 X155.07 Y156.86 E276.49287
G1 X144.37 Y155.54 E276.94112
G1 X144.37 Y149.59 E277.18845
G1 X146.59 Y148.82 E277.28613
G1 X155.06 Y148.21 E277.63931
G1 X163.13 Y148.21 E277.97457
G1 X163.13 Y149.35 E278.02214
G1 X156.31 Y149.35 E278.30564
G1 X156.31 Y150.34 E278.34671
G1 X147.83 Y150.34 E278.69927
G1 X147.83 Y154.84 E278.88632
G1 X156.31 Y154.84 E279.23888
G1 X156.31 Y155.85 E279.28095
G1 X163.13 Y155.85 E279.56445
G0 F6000 X162.88 Y156.38
;TYPE:FILL
G1 F840 X162.55 Y156.35 E279.57779
G1 X161.84 Y156.35 E279.60760
G1 X161.14 Y156.35 E279.63740
G1 X160.43 Y156.35 E279.66721
G1 X159.72 Y156.35 E279.69701
G1 X159.01 Y156.35 E279.72682
G1 X158.31 Y156.35 E279.75662
G1 X157.60 Y156.35 E279.78643
G1 X156.89 Y156.35 E279.81622
G1 X156.10 Y156.44 E279.84604
G1 X155.51 Y156.68 E279.86963
G1 X155.46 Y156.38 E279.87688
G1 X155.63 Y155.85 E279.89785
G1 X154.83 Y156.29 E279.93424
G1 X155.26 Y155.51 E279.97010
G1 X154.60 Y155.82 E280.00609
G1 X154.02 Y156.05 E280.03753
G1 X154.20 Y155.51 E280.06901
G1 X153.39 Y155.97 E280.09587
G1 X153.49 Y155.51 E280.12275
G1 X152.76 Y155.89 E280.14506
G1 X152.78 Y155.51 E280.16739
G1 X152.13 Y155.81 E280.18514
G1 X152.08 Y155.51 E280.20290
G1 X151.50 Y155.74 E280.21610
G1 X151.37 Y155.51 E280.22932
G1 X150.87 Y155.66 E280.23801
G1 X151.02 Y155.51 E280.24671
G0 F6000 X147.44 Y155.23
G0 X147.15 Y154.43
G1 F840 X146.46 Y155.12 E280.28746
G0 F6000 X145.83 Y155.04
G1 F840 X147.15 Y153.72 E280.36524
G0 F6000 X147.15 Y153.01
G1 F840 X145.20 Y154.96 E280.48001
G0 F6000 X145.05 Y154.41
G1 F840 X147.15 Y152.31 E280.60381
G0 F6000 X147.15 Y151.60
G1 F840 X145.05 Y153.70 E280.72760
G0 F6000 X145.05 Y153.00
G1 F840 X147.15 Y150.89 E280.85143
G0 F6000 X147.15 Y150.18
G1 F840 X145.05 Y152.29 E280.97525
G0 F6000 X145.05 Y151.58
G1 F840 X147.18 Y149.46 E281.10031
G0 F6000 X147.67 Y149.66
G1 F840 X148.16 Y149.53 E281.11585
G1 X148.89 Y149.50 E281.13460
G1 X149.63 Y149.48 E281.15655
G1 X150.36 Y149.45 E281.18181
G1 X151.10 Y149.42 E281.21021
G1 X151.83 Y149.39 E281.24189
G1 X152.57 Y149.37 E281.27683
G1 X153.30 Y149.34 E281.31505
G1 X154.03 Y148.96 E281.34942
G0 F6000 X154.04 Y149.66
G1 F840 X154.80 Y148.90 E281.39410
G0 F6000 X155.53 Y148.88
G1 F840 X154.74 Y149.66 E281.43999
G0 F6000 X155.45 Y149.66
G1 F840 X155.63 Y149.48 E281.45072
G0 F6000 X146.28 Y149.64
G1 F840 X145.05 Y150.88 E281.52310
G0 F6000 X145.05 Y150.17
G1 F840 X145.19 Y150.02 E281.53174
G0 F6000 X158.32 Y150.23
;TYPE:SUPPORT
G1 F840 X158.32 Y154.98 E281.72918
G0 F6000 X158.32 Y154.80
G0 X161.65 Y154.80
G0 X161.65 Y154.98
G1 F840 X161.65 Y150.23 E281.92662
;LAYER:30
G0 F6000 X161.65 Y149.00 Z6.30
G0 X162.63 Y148.85
;TYPE:WALL-INNER
G1 F780 X155.81 Y148.85 E282.21013
G1 X155.81 Y149.84 E282.25120
G1 X147.81 Y149.84 E282.58372
G1 X147.81 Y155.34 E282.81234
G1 X155.81 Y155.34 E283.14486
G1 X155.81 Y156.35 E283.18673
G1 X155.10 Y156.35 E283.21612
G1 X145.09 Y155.12 E283.63533
G1 X145.09 Y149.94 E283.85069
G1 X146.87 Y149.32 E283.92866
G1 X155.09 Y148.72 E284.27139
G1 X162.63 Y148.72 E284.58495
G1 X162.63 Y148.85 E284.59031
G0 F6000 X163.13 Y149.35
;TYPE:WALL-OUTER
G1 F780 X156.31 Y149.35 E284.87381
G1 X156.31 Y150.34 E284.91489
G1 X148.31 Y150.34 E285.24741
G1 X148.31 Y154.84 E285.43445
G1 X156.31 Y154.84 E285.76697
G1 X156.31 Y155.85 E285.80905
G1 X163.13 Y155.85 E286.09255
G1 X163.13 Y156.85 E286.13391
G1 X155.07 Y156.85 E286.46876
G1 X144.59 Y155.56 E286.90775
G1 X144.59 Y149.58 E287.15628
G1 X146.76 Y148.82 E287.25181
G1 X155.06 Y148.22 E287.59783
G1 X163.13 Y148.22 E287.93309
G1 X163.13 Y149.35 E287.98003
G0 F6000 X162.78 Y149.09
G0 X155.92 Y148.96
G0 X147.92 Y149.95
G0 X147.92 Y155.23
G0 X155.92 Y156.24
G0 X162.11 Y156.20
G0 X162.11 Y156.10
;TYPE:FILL
G1 F780 X162.25 Y156.59 E288.00907
G1 X161.30 Y156.35 E288.03808
G1 X160.59 Y156.35 E288.06712
G1 X159.88 Y156.35 E288.09622
G1 X159.18 Y156.35 E288.12532
G1 X158.47 Y156.35 E288.15441
G1 X157.76 Y156.35 E288.18345
G1 X157.05 Y156.35 E288.21249
G1 X156.24 Y156.24 E288.24155
G1 X155.94 Y156.29 E288.25368
G1 X155.16 Y155.51 E288.28157
G1 X155.37 Y156.08 E288.30945
G1 X154.45 Y155.51 E288.34799
G1 X154.71 Y156.12 E288.38652
G1 X153.75 Y155.51 E288.41925
G1 X153.90 Y156.02 E288.45197
G1 X153.04 Y155.51 E288.47887
G1 X153.09 Y155.92 E288.50580
G1 X152.33 Y155.51 E288.52684
G1 X152.29 Y155.82 E288.54788
G1 X151.62 Y155.51 E288.56306
G1 X151.48 Y155.72 E288.57832
G1 X150.92 Y155.51 E288.58757
G1 X151.08 Y155.67 E288.59686
G0 F6000 X147.64 Y155.06
G1 F780 X145.27 Y152.69 E288.73603
G0 F6000 X145.27 Y153.40
G1 F780 X147.05 Y155.18 E288.84057
G0 F6000 X146.24 Y155.08
G1 F780 X145.27 Y154.11 E288.89766
G0 F6000 X145.27 Y154.81
G1 F780 X145.43 Y154.98 E288.90736
G0 F6000 X147.64 Y154.35
G1 F780 X145.27 Y151.99 E289.04656
G0 F6000 X145.27 Y151.28
G1 F780 X147.64 Y153.65 E289.18576
G0 F6000 X147.64 Y152.94
G1 F780 X145.27 Y150.57 E289.32496
G0 F6000 X145.41 Y150.01
G1 F780 X147.64 Y152.23 E289.45570
G0 F6000 X147.64 Y151.53
G1 F780 X145.94 Y149.83 E289.55553
G0 F6000 X146.46 Y149.65
G1 F780 X147.64 Y150.82 E289.62450
G0 F6000 X147.64 Y150.11
G1 F780 X147.34 Y149.46 E289.66135
G1 X148.11 Y149.53 E289.67479
G1 X148.79 Y149.50 E289.69092
G1 X149.48 Y149.48 E289.70993
G1 X150.16 Y149.45 E289.73170
G1 X150.84 Y149.43 E289.75630
G1 X151.53 Y149.41 E289.78369
G1 X152.21 Y149.38 E289.81392
G1 X152.89 Y149.36 E289.84694
G1 X153.58 Y149.34 E289.88279
G1 X154.26 Y149.31 E289.92144
G1 X154.97 Y149.66 E289.95429
G0 F6000 X155.63 Y149.62
G1 F780 X154.92 Y148.91 E289.99618
G0 F6000 X158.32 Y150.23
;TYPE:SUPPORT
G1 F780 X158.32 Y154.98 E290.19362
G0 F6000 X158.32 Y154.80
G0 X161.65 Y154.80
G0 X161.65 Y154.98
G1 F780 X161.65 Y150.23 E290.39106
;LAYER:31
G0 F6000 X161.65 Y149.00 Z6.50
G0 X162.63 Y148.85
;TYPE:WALL-INNER
G1 F840 X155.81 Y148.85 E290.67456
G1 X155.81 Y149.84 E290.71564
G1 X148.29 Y149.84 E291.02812
G1 X148.29 Y155.34 E291.25674
G1 X155.81 Y155.34 E291.56922
G1 X155.81 Y156.33 E291.61059
G1 X155.10 Y156.33 E291.63998
G1 X145.32 Y155.13 E292.04994
G1 X145.31 Y149.92 E292.26655
G1 X147.04 Y149.32 E292.34236
G1 X155.09 Y148.74 E292.67791
G1 X162.63 Y148.74 E292.99147
G1 X162.63 Y148.85 E292.99621
G0 F6000 X163.13 Y149.35
;TYPE:WALL-OUTER
G1 F840 X156.31 Y149.35 E293.27971
G1 X156.31 Y150.34 E293.32079
G1 X148.79 Y150.34 E293.63327
G1 X148.79 Y154.84 E293.82032
G1 X156.31 Y154.84 E294.13279
G1 X156.31 Y155.85 E294.17487
G1 X163.13 Y155.85 E294.45837
G1 X163.13 Y156.83 E294.49924
G1 X155.07 Y156.83 E294.83408
G1 X144.82 Y155.57 E295.26381
G1 X144.81 Y149.56 E295.51360
G1 X146.94 Y148.83 E295.60696
G1 X155.06 Y148.24 E295.94581
G1 X163.13 Y148.24 E296.28107
G1 X163.13 Y149.35 E296.32739
G0 F6000 X162.78 Y149.09
G0 X155.92 Y148.96
G0 X148.40 Y149.95
G0 X148.40 Y155.23
G0 X155.92 Y156.24
G0 X162.45 Y156.20
G0 X162.45 Y156.10
;TYPE:FILL
G1 F840 X161.85 Y156.34 E296.35577
G1 X161.15 Y156.34 E296.38417
G1 X160.44 Y156.34 E296.41256
G1 X159.73 Y156.34 E296.44096
G1 X159.03 Y156.34 E296.46935
G1 X158.32 Y156.34 E296.49774
G1 X157.61 Y156.34 E296.52614
G1 X156.91 Y156.34 E296.55453
G1 X156.31 Y156.58 E296.58128
G0 F6000 X155.63 Y155.85
G1 F840 X155.32 Y156.16 E296.59962
G1 X155.45 Y155.68 E296.61794
G1 X154.67 Y156.10 E296.65266
G1 X154.91 Y155.51 E296.68739
G1 X154.04 Y156.03 E296.71755
G1 X154.20 Y155.51 E296.74771
G1 X153.41 Y155.95 E296.77329
G1 X153.49 Y155.51 E296.79893
G1 X152.78 Y155.87 E296.81991
G1 X152.78 Y155.51 E296.84093
G1 X152.15 Y155.79 E296.85742
G1 X152.08 Y155.51 E296.87393
G1 X151.52 Y155.72 E296.88586
G1 X151.72 Y155.51 E296.89783
G0 F6000 X148.40 Y155.23
G0 X148.12 Y154.88
G1 F840 X147.74 Y155.25 E296.91999
G0 F6000 X147.11 Y155.18
G1 F840 X148.12 Y154.17 E296.97917
G0 F6000 X148.12 Y153.46
G1 F840 X146.48 Y155.10 E297.07536
G0 F6000 X145.85 Y155.02
G1 F840 X148.12 Y152.75 E297.20860
G0 F6000 X148.12 Y152.05
G1 F840 X145.49 Y154.68 E297.36311
G0 F6000 X145.49 Y153.97
G1 F840 X148.12 Y151.34 E297.51763
G0 F6000 X148.12 Y150.63
G1 F840 X145.49 Y153.26 E297.67214
G0 F6000 X145.49 Y152.55
G1 F840 X148.12 Y149.93 E297.82666
G0 F6000 X148.38 Y149.66
G1 F840 X148.88 Y149.52 E297.84348
G1 X149.61 Y149.49 E297.86360
G1 X150.35 Y149.47 E297.88697
G1 X151.08 Y149.44 E297.91353
G1 X151.82 Y149.41 E297.94332
G1 X152.55 Y149.38 E297.97641
G1 X153.28 Y149.35 E298.01268
G1 X154.00 Y148.99 E298.04615
G0 F6000 X154.04 Y149.66
G1 F840 X154.76 Y148.94 E298.08896
G0 F6000 X154.74 Y149.66
G1 F840 X155.50 Y148.91 E298.13311
G0 F6000 X155.63 Y149.48
G1 F840 X155.45 Y149.66 E298.14384
G0 F6000 X147.91 Y149.43
G1 F840 X145.49 Y151.85 E298.28583
G0 F6000 X145.49 Y151.14
G1 F840 X147.14 Y149.49 E298.38300
G0 F6000 X146.09 Y149.84
G1 F840 X145.49 Y150.43 E298.41816
G0 F6000 X148.40 Y155.23
G0 X155.92 Y156.24
G0 X162.67 Y156.58
G1 F840 X162.88 Y156.38 E298.43009
G0 F6000 X161.65 Y154.98
;TYPE:SUPPORT
G1 F840 X161.65 Y150.23 E298.62753
G0 F6000 X161.65 Y150.40
G0 X158.32 Y150.40
G0 X158.32 Y150.23
G1 F840 X158.32 Y154.98 E298.82497
;LAYER:32
G0 F6000 X158.32 Y156.20 Z6.70
G0 X155.92 Y156.24
G0 X155.81 Y155.34
;TYPE:WALL-INNER
G1 F780 X155.81 Y156.32 E298.86584
G1 X155.10 Y156.32 E298.89523
G1 X145.54 Y155.15 E299.29593
G1 X145.54 Y149.91 E299.51383
G1 X147.21 Y149.32 E299.58748
G1 X155.09 Y148.75 E299.91587
G1 X162.63 Y148.75 E300.22943
G1 X162.63 Y148.85 E300.23359
G1 X155.81 Y148.85 E300.51709
G1 X155.81 Y149.84 E300.55816
G1 X148.78 Y149.84 E300.85060
G1 X148.78 Y155.34 E301.07923
G1 X155.81 Y155.34 E301.37167
G0 F6000 X156.31 Y154.84
;TYPE:WALL-OUTER
G1 F780 X156.31 Y155.85 E301.41374
G1 X163.13 Y155.85 E301.69724
G1 X163.13 Y156.82 E301.73761
G1 X155.07 Y156.82 E302.07246
G1 X145.04 Y155.59 E302.49292
G1 X145.04 Y149.55 E302.74400
G1 X147.11 Y148.83 E302.83521
G1 X155.06 Y148.25 E303.16689
G1 X163.13 Y148.25 E303.50215
G1 X163.13 Y149.35 E303.54788
G1 X156.31 Y149.35 E303.83138
G1 X156.31 Y150.34 E303.87246
G1 X149.28 Y150.34 E304.16490
G1 X149.28 Y154.84 E304.35195
G1 X156.31 Y154.84 E304.64439
G0 F6000 X156.45 Y156.10
;TYPE:FILL
G1 F780 X157.04 Y156.34 E304.67203
G1 X157.75 Y156.34 E304.69966
G1 X158.46 Y156.34 E304.72729
G1 X159.16 Y156.34 E304.75492
G1 X159.87 Y156.34 E304.78259
G1 X160.58 Y156.34 E304.81028
G1 X161.28 Y156.34 E304.83791
G1 X161.99 Y156.34 E304.86554
G1 X162.58 Y156.57 E304.89192
G0 F6000 X156.22 Y156.57
G1 F780 X155.83 Y156.19 E304.90264
G1 X155.16 Y155.51 E304.93055
G1 X155.36 Y156.06 E304.95843
G1 X154.45 Y155.51 E304.99532
G1 X154.68 Y156.09 E305.03225
G1 X153.75 Y155.51 E305.06334
G1 X153.87 Y155.99 E305.09445
G1 X153.04 Y155.51 E305.11972
G1 X153.07 Y155.89 E305.14503
G1 X152.33 Y155.51 E305.16449
G1 X152.26 Y155.79 E305.18395
G1 X151.62 Y155.51 E305.19760
G1 X151.86 Y155.75 E305.21130
G0 F6000 X148.60 Y155.32
G1 F780 X145.71 Y152.43 E305.38119
G0 F6000 X145.71 Y153.13
G1 F780 X147.83 Y155.25 E305.50554
G0 F6000 X147.02 Y155.15
G1 F780 X145.71 Y153.84 E305.58245
G0 F6000 X145.71 Y154.55
G1 F780 X146.21 Y155.05 E305.61196
G0 F6000 X148.60 Y154.61
G1 F780 X145.71 Y151.72 E305.78186
G0 F6000 X145.71 Y151.01
G1 F780 X148.60 Y153.90 E305.95172
G0 F6000 X148.60 Y153.20
G1 F780 X145.71 Y150.31 E306.12158
G0 F6000 X146.03 Y149.92
G1 F780 X148.60 Y152.49 E306.27275
G0 F6000 X148.60 Y151.78
G1 F780 X146.55 Y149.74 E306.39304
G0 F6000 X147.08 Y149.55
G1 F780 X148.60 Y151.07 E306.48253
G0 F6000 X148.60 Y150.37
G1 F780 X147.69 Y149.46 E306.53574
G0 F6000 X148.35 Y149.41
G1 F780 X148.81 Y149.51 E306.55039
G1 X149.49 Y149.49 E306.56778
G1 X150.18 Y149.47 E306.58798
G1 X150.86 Y149.44 E306.61094
G1 X151.54 Y149.42 E306.63674
G1 X152.22 Y149.40 E306.66538
G1 X152.91 Y149.37 E306.69691
G1 X153.59 Y149.35 E306.73117
G1 X154.27 Y149.32 E306.76817
G1 X155.30 Y149.64 E306.80801
G1 X154.95 Y148.94 E306.84076
G0 F6000 X158.32 Y150.23
;TYPE:SUPPORT
G1 F780 X158.32 Y154.98 E307.03820
G0 F6000 X158.32 Y154.80
G0 X161.65 Y154.80
G0 X161.65 Y154.98
G1 F780 X161.65 Y150.23 E307.23564
;LAYER:33
G0 F6000 X161.65 Y149.00 Z6.90
G0 X162.63 Y148.85
;TYPE:WALL-INNER
G1 F780 X155.81 Y148.85 E307.51914
G1 X155.81 Y149.84 E307.56022
G1 X149.26 Y149.84 E307.83262
G1 X149.26 Y155.34 E308.06124
G1 X155.81 Y155.34 E308.33364
G1 X155.81 Y156.31 E308.37401
G1 X155.10 Y156.31 E308.40340
G1 X145.76 Y155.16 E308.79484
G1 X145.76 Y149.89 E309.01398
G1 X147.38 Y149.32 E309.08549
G1 X155.09 Y148.77 E309.40670
G1 X162.63 Y148.77 E309.72026
G1 X162.63 Y148.85 E309.72379
G0 F6000 X163.13 Y149.35
;TYPE:WALL-OUTER
G1 F780 X156.31 Y149.35 E310.00729
G1 X156.31 Y150.34 E310.04837
G1 X149.76 Y150.34 E310.32077
G1 X149.76 Y154.84 E310.50782
