;-- START GCODE --
;Sliced for Type A Machines Series 1
;Sliced at: Sat 21-05-2016 12:09:50
;Basic settings: Layer height: 0.2 Walls: 1 Fill: 50
;Print Speed: 100 Support: 0
;Retraction Speed: 40 Retraction Distance: 1.2
;Print time: #P_TIME#
;Filament used: #F_AMNT#m #F_WGHT#g
;Filament cost: #F_COST#
M106 S255	 ;start with the fan on
G21        ;metric values
G90        ;absolute positioning
M106 S255    ;start with the fan on
G28     ;move to endstops
G29		;allows for auto-levelling
G1 X150 Y5  Z15.0 F6000 ;center and move the platform down 15mm
M109 S220 ;Heat To temp
G92 E0                  ;zero the extruded length
G1 F200 E30              ;extrude 30mm of feed stock
G92 E0                  ;zero the extruded length again
G1 X175 Y25  Z0 F6000 ;remove bugger
G1 X220 F6000 ;remove bugger
G1 X150 Y150  Z15 F6000 ;recenter and begin
G1 F6000

;Layer count: 65
;LAYER:0
M106 S255
G0 F6000 X98.56 Y135.03 Z0.30
;TYPE:SKIRT
G1 F2700 X100.39 Y134.04 E0.13000
G1 X101.88 Y133.26 E0.23489
G1 X102.61 Y133.23 E0.28020
G1 X102.87 Y133.15 E0.29717
G1 X103.57 Y132.91 E0.34322
G1 X105.72 Y132.69 E0.47845
G1 X106.48 Y132.62 E0.52560
G1 X108.55 Y132.82 E0.65579
G1 X109.33 Y132.90 E0.70426
G1 X111.41 Y133.54 E0.84006
G1 X112.11 Y133.78 E0.88617
G1 X114.37 Y135.00 E1.04648
G1 X116.00 Y136.31 E1.17708
G1 X116.60 Y136.81 E1.22555
G1 X117.90 Y138.39 E1.35308
G1 X118.28 Y138.84 E1.39016
G1 X120.07 Y139.07 E1.50284
G1 X120.41 Y142.85 E1.73982
G1 X136.35 Y142.85 E2.73406
G1 X136.35 Y142.25 E2.77167
G1 X168.35 Y142.25 E4.76728
G1 X168.35 Y142.85 E4.80476
G1 X184.61 Y142.85 E5.81859
G1 X184.97 Y139.06 E6.05589
G1 X186.73 Y138.84 E6.16676
G1 X187.93 Y137.37 E6.28497
G1 X188.43 Y136.77 E6.33353
G1 X190.06 Y135.45 E6.46493
G1 X190.57 Y135.03 E6.50569
G1 X192.99 Y133.73 E6.67732
G1 X194.84 Y133.16 E6.79796
G1 X195.56 Y132.90 E6.84541
G1 X197.68 Y132.70 E6.97848
G1 X198.40 Y132.61 E7.02351
G1 X200.54 Y132.82 E7.15785
G1 X201.29 Y132.89 E7.20511
G1 X202.40 Y133.23 E7.27712
G1 X203.15 Y133.26 E7.32424
G1 X206.42 Y135.03 E7.55584
G1 X208.02 Y136.34 E7.68470
G1 X208.58 Y136.80 E7.73007
G1 X209.88 Y138.39 E7.85826
G1 X209.88 Y138.39 E7.85834
G1 X210.32 Y138.92 E7.90145
G1 X211.68 Y141.38 E8.07653
G1 X212.12 Y142.85 E8.17230
G1 X217.72 Y142.86 E8.52153
G1 X217.75 Y150.32 E8.98664
G1 X217.75 Y172.34 E10.36018
G1 X214.55 Y172.34 E10.55968
G1 X214.55 Y172.95 E10.59747
G1 X190.15 Y172.95 E12.11912
G1 X190.15 Y164.38 E12.65332
G1 X114.55 Y164.53 E17.36795
G1 X114.55 Y172.75 E17.88026
G1 X90.15 Y172.75 E19.40191
G1 X90.15 Y172.35 E19.42711
G1 X87.24 Y172.34 E19.60871
G1 X87.29 Y142.85 E21.44804
G1 X92.88 Y142.85 E21.79702
G1 X93.12 Y142.06 E21.84863
G1 X93.37 Y141.31 E21.89780
G1 X94.66 Y138.96 E22.06486
G1 X95.96 Y137.37 E22.19308
G1 X96.42 Y136.81 E22.23809
G1 X97.99 Y135.51 E22.36541
G1 X98.56 Y135.03 E22.41180
G0 F6000 X98.84 Y135.45
G1 F2700 X100.63 Y134.49 E22.53856
G1 X102.02 Y133.76 E22.63630
G1 X102.69 Y133.73 E22.67850
G1 X103.03 Y133.62 E22.70054
G1 X103.67 Y133.40 E22.74308
G1 X105.78 Y133.19 E22.87468
G1 X106.48 Y133.12 E22.91875
G1 X108.50 Y133.31 E23.04570
G1 X109.23 Y133.39 E23.09103
G1 X111.25 Y134.01 E23.22318
G1 X111.90 Y134.24 E23.26619
G1 X114.09 Y135.42 E23.42125
G1 X115.69 Y136.70 E23.54880
G1 X116.25 Y137.16 E23.59403
G1 X117.52 Y138.70 E23.71859
G1 X117.97 Y139.25 E23.76303
G1 X118.00 Y139.31 E23.76727
G1 X119.61 Y139.51 E23.86833
G1 X119.95 Y143.35 E24.10868
G1 X136.85 Y143.35 E25.16267
G1 X136.85 Y142.75 E25.20028
G1 X167.85 Y142.75 E27.13352
G1 X167.85 Y143.35 E27.17100
G1 X185.06 Y143.35 E28.24433
G1 X185.43 Y139.51 E28.48501
G1 X187.00 Y139.31 E28.58380
G1 X187.01 Y139.30 E28.58506
G1 X188.32 Y137.69 E28.71422
G1 X188.78 Y137.13 E28.75954
G1 X190.34 Y135.87 E28.88469
G1 X190.85 Y135.45 E28.92581
G1 X193.19 Y134.19 E29.09136
G1 X194.99 Y133.63 E29.20886
G1 X195.66 Y133.40 E29.25373
G1 X197.71 Y133.20 E29.38172
G1 X198.41 Y133.11 E29.42554
G1 X200.49 Y133.31 E29.55631
G1 X201.20 Y133.38 E29.60043
G1 X202.31 Y133.73 E29.67336
G1 X203.02 Y133.76 E29.71731
G1 X206.14 Y135.44 E29.93869
G1 X207.70 Y136.72 E30.06446
G1 X208.22 Y137.16 E30.10681
G1 X209.49 Y138.70 E30.23149
G1 X209.49 Y138.70 E30.23156
G1 X209.91 Y139.21 E30.27218
G1 X211.21 Y141.58 E30.44107
G1 X211.75 Y143.35 E30.55677
G1 X217.22 Y143.36 E30.89814
G1 X217.25 Y150.32 E31.33213
G1 X217.25 Y171.84 E32.67449
G1 X214.05 Y171.84 E32.87399
G1 X214.05 Y172.45 E32.91178
G1 X190.65 Y172.45 E34.37107
G1 X190.65 Y163.88 E34.90533
G1 X114.05 Y164.04 E39.68232
G1 X114.05 Y172.25 E40.19457
G1 X90.65 Y172.25 E41.65386
G1 X90.65 Y171.85 E41.67905
G1 X87.74 Y171.84 E41.86059
G1 X87.79 Y143.35 E43.63756
G1 X93.25 Y143.35 E43.97862
G1 X93.60 Y142.21 E44.05301
G1 X93.83 Y141.51 E44.09890
G1 X95.07 Y139.24 E44.26029
G1 X96.34 Y137.69 E44.38549
G1 X96.77 Y137.16 E44.42754
G1 X98.31 Y135.89 E44.55186
G1 X98.84 Y135.45 E44.59514
G0 F6000 X99.12 Y135.87
G1 F2700 X100.86 Y134.93 E44.71869
G1 X102.15 Y134.25 E44.80933
G1 X102.78 Y134.22 E44.84859
G1 X103.17 Y134.10 E44.87410
G1 X103.78 Y133.89 E44.91459
G1 X105.86 Y133.69 E45.04443
G1 X106.48 Y133.62 E45.08349
G1 X108.45 Y133.81 E45.20723
G1 X109.13 Y133.88 E45.24943
G1 X111.10 Y134.49 E45.37793
G1 X111.70 Y134.70 E45.41790
G1 X113.81 Y135.84 E45.56758
G1 X115.37 Y137.09 E45.69211
G1 X115.89 Y137.51 E45.73411
G1 X117.13 Y139.02 E45.85569
G1 X117.55 Y139.53 E45.89694
G1 X117.68 Y139.78 E45.91416
G1 X119.15 Y139.96 E46.00642
G1 X119.49 Y143.85 E46.25015
G1 X137.35 Y143.85 E47.36389
G1 X137.35 Y143.25 E47.40149
G1 X167.35 Y143.25 E49.27237
G1 X167.35 Y143.85 E49.30985
G1 X185.52 Y143.85 E50.44274
G1 X185.89 Y139.96 E50.68674
G1 X187.32 Y139.78 E50.77680
G1 X187.43 Y139.57 E50.79122
G1 X188.70 Y138.01 E50.91719
G1 X189.13 Y137.49 E50.95923
G1 X190.69 Y136.23 E51.08430
G1 X191.13 Y135.87 E51.11961
G1 X193.38 Y134.65 E51.27908
G1 X195.13 Y134.11 E51.39356
G1 X195.77 Y133.89 E51.43579
G1 X197.76 Y133.70 E51.56008
G1 X198.41 Y133.61 E51.60127
G1 X200.44 Y133.81 E51.72846
G1 X201.10 Y133.88 E51.76946
G1 X202.23 Y134.22 E51.84317
G1 X202.88 Y134.25 E51.88412
G1 X205.86 Y135.86 E52.09526
G1 X207.38 Y137.11 E52.21802
G1 X207.87 Y137.51 E52.25736
G1 X209.11 Y139.02 E52.37908
G1 X209.49 Y139.49 E52.41678
G1 X210.75 Y141.77 E52.57947
G1 X211.31 Y143.65 E52.70142
G1 X211.38 Y143.85 E52.71511
G1 X216.72 Y143.86 E53.04825
G1 X216.75 Y150.32 E53.45124
G1 X216.75 Y171.34 E54.76229
G1 X213.55 Y171.34 E54.96179
G1 X213.55 Y171.95 E54.99959
G1 X191.15 Y171.95 E56.39651
G1 X191.15 Y163.38 E56.93083
G1 X113.55 Y163.54 E61.77019
G1 X113.55 Y171.75 E62.28238
G1 X91.15 Y171.75 E63.67931
G1 X91.15 Y171.35 E63.70450
G1 X88.24 Y171.34 E63.88598
G1 X88.28 Y143.85 E65.60058
G1 X93.63 Y143.85 E65.93385
G1 X94.07 Y142.36 E66.03092
G1 X94.29 Y141.71 E66.07352
G1 X95.49 Y139.52 E66.22922
G1 X96.73 Y138.00 E66.35150
G1 X97.13 Y137.52 E66.39053
G1 X98.62 Y136.28 E66.51183
G1 X99.12 Y135.87 E66.55201
G0 F6000 X99.40 Y136.28
G1 F2700 X101.10 Y135.37 E66.67239
G1 X102.28 Y134.75 E66.75591
G1 X102.87 Y134.72 E66.79230
G1 X103.32 Y134.58 E66.82185
G1 X103.89 Y134.38 E66.85958
G1 X105.91 Y134.18 E66.98578
G1 X106.48 Y134.12 E67.02183
G1 X108.40 Y134.31 E67.14232
G1 X109.03 Y134.38 E67.18139
G1 X110.94 Y134.96 E67.30628
G1 X111.50 Y135.16 E67.34310
G1 X113.54 Y136.26 E67.48753
G1 X115.06 Y137.47 E67.60900
G1 X115.54 Y137.87 E67.64777
G1 X116.74 Y139.34 E67.76634
G1 X117.13 Y139.81 E67.80440
G1 X117.36 Y140.24 E67.83472
G1 X118.68 Y140.41 E67.91806
G1 X119.03 Y144.35 E68.16517
G1 X137.85 Y144.35 E69.33859
G1 X137.85 Y143.75 E69.37619
G1 X166.85 Y143.75 E71.18471
G1 X166.85 Y144.35 E71.22219
G1 X185.97 Y144.35 E72.41463
G1 X186.35 Y140.40 E72.66202
G1 X187.64 Y140.24 E72.74347
G1 X187.85 Y139.85 E72.77097
G1 X189.09 Y138.32 E72.89375
G1 X189.49 Y137.84 E72.93252
G1 X191.01 Y136.62 E73.05439
G1 X191.41 Y136.28 E73.08695
G1 X193.57 Y135.12 E73.24039
G1 X195.31 Y134.58 E73.35391
G1 X195.88 Y134.38 E73.39144
G1 X197.84 Y134.19 E73.51399
G1 X198.42 Y134.12 E73.55058
G1 X200.39 Y134.31 E73.67421
G1 X201.00 Y134.37 E73.71206
G1 X202.14 Y134.72 E73.78675
G1 X202.75 Y134.75 E73.82439
G1 X205.58 Y136.28 E74.02537
G1 X207.06 Y137.50 E74.14507
G1 X207.51 Y137.87 E74.18136
G1 X208.72 Y139.34 E74.30010
G1 X209.08 Y139.77 E74.33492
G1 X210.28 Y141.97 E74.49136
G1 X210.83 Y143.78 E74.60965
G1 X211.01 Y144.31 E74.64449
G1 X211.01 Y144.35 E74.64700
G1 X216.22 Y144.36 E74.97216
G1 X216.25 Y150.32 E75.34403
G1 X216.25 Y170.84 E76.62384
G1 X213.05 Y170.84 E76.82334
G1 X213.05 Y171.45 E76.86107
G1 X191.65 Y171.45 E78.19563
G1 X191.65 Y162.88 E78.73002
G1 X113.05 Y163.04 E83.63174
G1 X113.05 Y171.25 E84.14386
G1 X91.65 Y171.25 E85.47843
G1 X91.65 Y170.85 E85.50362
G1 X88.74 Y170.84 E85.68510
G1 X88.78 Y144.35 E87.33734
G1 X94.01 Y144.35 E87.66293
G1 X94.01 Y144.32 E87.66508
G1 X94.55 Y142.51 E87.78267
G1 X94.75 Y141.91 E87.82198
G1 X95.91 Y139.80 E87.97202
G1 X97.12 Y138.32 E88.09137
G1 X97.48 Y137.87 E88.12739
G1 X98.94 Y136.66 E88.24563
G1 X99.40 Y136.28 E88.28272
G0 F6000 X99.68 Y136.70
G1 F2700 X101.33 Y135.81 E88.39991
G1 X102.42 Y135.24 E88.47623
G1 X102.95 Y135.22 E88.50950
G1 X103.49 Y135.05 E88.54465
G1 X104.00 Y134.87 E88.57842
G1 X105.95 Y134.68 E88.70087
G1 X106.48 Y134.63 E88.73391
G1 X108.35 Y134.81 E88.85119
G1 X108.93 Y134.87 E88.88712
G1 X110.79 Y135.44 E89.00838
G1 X111.30 Y135.62 E89.04213
G1 X113.26 Y136.68 E89.18125
G1 X114.74 Y137.86 E89.29971
G1 X115.18 Y138.22 E89.33519
G1 X116.36 Y139.66 E89.45080
G1 X116.71 Y140.09 E89.48562
G1 X117.04 Y140.71 E89.52905
G1 X118.22 Y140.85 E89.60346
G1 X118.58 Y144.85 E89.85396
G1 X138.35 Y144.85 E91.08712
G1 X138.35 Y144.25 E91.12472
G1 X166.35 Y144.25 E92.87088
G1 X166.35 Y144.85 E92.90836
G1 X186.43 Y144.85 E94.16029
G1 X186.81 Y140.85 E94.41100
G1 X187.96 Y140.71 E94.48366
G1 X188.27 Y140.13 E94.52441
G1 X189.48 Y138.64 E94.64391
G1 X189.84 Y138.20 E94.67948
G1 X191.28 Y137.04 E94.79484
G1 X191.69 Y136.70 E94.82802
G1 X193.77 Y135.58 E94.97530
G1 X195.47 Y135.05 E95.08621
G1 X195.99 Y134.87 E95.12071
G1 X197.89 Y134.69 E95.23962
G1 X198.43 Y134.62 E95.27357
G1 X200.34 Y134.81 E95.39363
G1 X200.90 Y134.86 E95.42835
G1 X202.06 Y135.22 E95.50389
G1 X202.61 Y135.24 E95.53840
G1 X205.30 Y136.69 E95.72920
G1 X206.75 Y137.88 E95.84585
G1 X207.16 Y138.22 E95.87912
G1 X208.34 Y139.66 E95.99485
G1 X208.66 Y140.05 E96.02675
G1 X209.82 Y142.16 E96.17700
G1 X210.35 Y143.93 E96.29204
G1 X210.51 Y144.42 E96.32430
G1 X210.56 Y144.85 E96.35152
G1 X215.73 Y144.86 E96.67374
G1 X215.75 Y150.32 E97.01450
G1 X215.75 Y170.34 E98.26312
G1 X212.55 Y170.34 E98.46262
G1 X212.55 Y170.95 E98.50035
G1 X192.15 Y170.95 E99.77255
G1 X192.15 Y162.38 E100.30700
G1 X112.55 Y162.54 E105.27109
G1 X112.55 Y170.75 E105.78315
G1 X92.15 Y170.75 E107.05535
G1 X92.15 Y170.35 E107.08048
G1 X89.24 Y170.35 E107.26189
G1 X89.28 Y144.85 E108.85183
G1 X94.44 Y144.85 E109.17356
G1 X94.50 Y144.42 E109.20050
G1 X95.03 Y142.66 E109.31523
G1 X95.21 Y142.11 E109.35120
G1 X96.32 Y140.08 E109.49557
G1 X97.50 Y138.64 E109.61196
G1 X97.84 Y138.23 E109.64496
G1 X99.26 Y137.05 E109.76019
G1 X99.68 Y136.70 E109.79417
G0 F6000 X99.96 Y137.12
G1 F2700 X101.57 Y136.25 E109.90815
G1 X102.55 Y135.74 E109.97736
G1 X103.03 Y135.71 E110.00751
G1 X103.65 Y135.53 E110.04775
G1 X104.11 Y135.37 E110.07801
G1 X105.98 Y135.18 E110.19526
G1 X106.48 Y135.13 E110.22679
G1 X108.30 Y135.31 E110.34083
G1 X108.83 Y135.36 E110.37362
G1 X110.63 Y135.91 E110.49123
G1 X111.09 Y136.07 E110.52188
G1 X112.98 Y137.09 E110.65570
G1 X114.43 Y138.25 E110.77109
G1 X114.83 Y138.58 E110.80339
G1 X115.97 Y139.97 E110.91594
G1 X116.29 Y140.37 E110.94767
G1 X116.72 Y141.17 E111.00413
G1 X117.76 Y141.30 E111.06967
G1 X118.12 Y145.35 E111.32354
G1 X138.85 Y145.35 E112.61645
G1 X138.85 Y144.75 E112.65405
G1 X165.85 Y144.75 E114.33785
G1 X165.85 Y145.35 E114.37533
G1 X186.88 Y145.35 E115.68694
G1 X186.90 Y145.12 E115.70128
G1 X187.27 Y141.30 E115.94102
G1 X188.29 Y141.17 E116.00512
G1 X188.69 Y140.40 E116.05901
G1 X189.86 Y138.96 E116.17527
G1 X190.19 Y138.56 E116.20752
G1 X191.60 Y137.43 E116.32003
G1 X191.97 Y137.12 E116.35021
G1 X193.96 Y136.04 E116.49146
G1 X195.64 Y135.52 E116.60081
G1 X196.10 Y135.36 E116.63115
G1 X197.94 Y135.19 E116.74636
G1 X198.44 Y135.12 E116.77767
G1 X200.29 Y135.30 E116.89422
G1 X200.80 Y135.35 E116.92581
G1 X201.97 Y135.71 E117.00220
G1 X202.47 Y135.74 E117.03359
G1 X205.02 Y137.11 E117.21410
G1 X206.43 Y138.27 E117.32781
G1 X206.43 Y138.27 E117.32790
G1 X206.80 Y138.58 E117.35811
G1 X207.95 Y139.97 E117.47079
G1 X208.25 Y140.33 E117.49985
G1 X209.36 Y142.36 E117.64381
G1 X209.88 Y144.09 E117.75651
G1 X210.02 Y144.53 E117.78538
G1 X210.11 Y145.35 E117.83730
G1 X215.23 Y145.36 E118.15653
G1 X215.25 Y150.32 E118.46623
G1 X215.25 Y169.84 E119.68361
G1 X212.05 Y169.85 E119.88311
G1 X212.05 Y170.45 E119.92078
G1 X192.65 Y170.45 E121.13061
G1 X192.65 Y161.88 E121.66513
G1 X112.05 Y162.04 E126.69157
G1 X112.05 Y170.25 E127.20357
G1 X92.65 Y170.25 E128.41341
G1 X92.65 Y169.85 E128.43854
G1 X89.74 Y169.85 E128.61989
G1 X89.78 Y145.35 E130.14747
G1 X94.89 Y145.35 E130.46596
G1 X94.93 Y144.99 E130.48866
G1 X94.99 Y144.53 E130.51761
G1 X95.50 Y142.81 E130.62942
G1 X95.67 Y142.31 E130.66216
G1 X96.74 Y140.36 E130.80078
G1 X97.89 Y138.95 E130.91428
G1 X98.19 Y138.58 E130.94423
G1 X99.58 Y137.43 E131.05650
G1 X99.96 Y137.12 E131.08734
G0 F6000 X100.24 Y137.54
G1 F2700 X101.81 Y136.69 E131.19814
G1 X102.69 Y136.23 E131.26023
G1 X103.12 Y136.21 E131.28733
G1 X103.81 Y136.00 E131.33225
G1 X104.22 Y135.86 E131.35929
G1 X106.04 Y135.68 E131.47346
G1 X106.49 Y135.63 E131.50142
G1 X108.25 Y135.80 E131.61213
G1 X108.73 Y135.85 E131.64185
G1 X110.47 Y136.39 E131.75580
G1 X110.89 Y136.53 E131.78335
G1 X112.70 Y137.51 E131.91190
G1 X114.11 Y138.64 E132.02431
G1 X114.47 Y138.94 E132.05329
G1 X115.58 Y140.29 E132.16283
G1 X115.58 Y140.29 E132.16289
G1 X115.88 Y140.65 E132.19138
G1 X116.39 Y141.63 E132.26090
G1 X117.30 Y141.75 E132.31752
G1 X117.66 Y145.85 E132.57478
G1 X139.35 Y145.85 E133.92742
G1 X139.35 Y145.25 E133.96503
G1 X165.35 Y145.25 E135.58646
G1 X165.35 Y145.85 E135.62394
G1 X187.34 Y145.85 E136.99524
G1 X187.40 Y145.17 E137.03800
G1 X187.73 Y141.74 E137.25268
G1 X188.61 Y141.63 E137.30811
G1 X189.11 Y140.68 E137.37511
G1 X190.25 Y139.28 E137.48814
G1 X190.55 Y138.92 E137.51716
G1 X191.91 Y137.81 E137.62679
G1 X192.25 Y137.54 E137.65390
G1 X194.16 Y136.51 E137.78907
G1 X195.79 Y136.00 E137.89541
G1 X196.21 Y135.85 E137.92310
G1 X198.01 Y135.68 E138.03643
G1 X198.44 Y135.62 E138.06335
G1 X200.25 Y135.80 E138.17627
G1 X200.70 Y135.85 E138.20479
G1 X201.89 Y136.21 E138.28215
G1 X202.34 Y136.23 E138.31024
G1 X204.74 Y137.53 E138.48061
G1 X206.11 Y138.66 E138.59128
G1 X206.45 Y138.93 E138.61843
G1 X207.56 Y140.29 E138.72814
G1 X207.83 Y140.62 E138.75428
G1 X208.89 Y142.55 E138.89205
G1 X209.40 Y144.22 E139.00098
G1 X209.53 Y144.63 E139.02780
G1 X209.66 Y145.85 E139.10435
G1 X214.73 Y145.86 E139.42066
G1 X214.75 Y150.32 E139.69923
G1 X214.75 Y169.34 E140.88543
G1 X211.55 Y169.35 E141.08493
G1 X211.55 Y169.95 E141.12260
G1 X193.15 Y169.95 E142.27007
G1 X193.15 Y161.38 E142.80465
G1 X111.55 Y161.54 E147.89346
G1 X111.55 Y169.75 E148.40539
G1 X93.15 Y169.75 E149.55287
G1 X93.15 Y169.35 E149.57800
G1 X90.24 Y169.35 E149.75929
G1 X90.28 Y145.85 E151.22450
G1 X95.34 Y145.85 E151.54000
G1 X95.42 Y145.05 E151.59029
G1 X95.48 Y144.63 E151.61634
G1 X95.98 Y142.96 E151.72529
G1 X96.13 Y142.51 E151.75468
G1 X97.15 Y140.64 E151.88763
G1 X98.28 Y139.27 E151.99817
G1 X98.55 Y138.94 E152.02515
G1 X99.90 Y137.82 E152.13437
G1 X100.24 Y137.54 E152.16210
G0 F6000 X100.52 Y137.95
G1 F2700 X102.04 Y137.13 E152.26967
G1 X102.82 Y136.72 E152.32456
G1 X103.21 Y136.71 E152.34878
G1 X103.95 Y136.48 E152.39716
G1 X104.33 Y136.35 E152.42215
G1 X106.10 Y136.17 E152.53338
G1 X106.49 Y136.13 E152.55752
G1 X108.20 Y136.30 E152.66504
G1 X108.63 Y136.34 E152.69156
G1 X110.32 Y136.86 E152.80191
G1 X110.69 Y136.99 E152.82643
G1 X112.43 Y137.93 E152.94962
G1 X113.80 Y139.03 E153.05902
G1 X114.11 Y139.29 E153.08472
G1 X115.20 Y140.61 E153.19132
G1 X115.46 Y140.92 E153.21662
G1 X116.07 Y142.10 E153.29922
G1 X116.83 Y142.19 E153.34698
G1 X117.20 Y146.35 E153.60762
G1 X139.85 Y146.35 E155.01995
G1 X139.85 Y145.75 E155.05755
G1 X164.85 Y145.75 E156.61662
G1 X164.85 Y146.35 E156.65410
G1 X187.80 Y146.35 E158.08514
G1 X187.90 Y145.21 E158.15639
G1 X188.19 Y142.19 E158.34589
G1 X188.93 Y142.10 E158.39258
G1 X189.53 Y140.96 E158.47281
G1 X190.64 Y139.59 E158.58256
G1 X190.90 Y139.27 E158.60834
G1 X192.23 Y138.20 E158.71513
G1 X192.53 Y137.95 E158.73928
G1 X194.35 Y136.97 E158.86833
G1 X195.93 Y136.48 E158.97153
G1 X196.31 Y136.35 E158.99664
G1 X198.06 Y136.18 E159.10628
G1 X198.45 Y136.13 E159.13062
G1 X200.20 Y136.30 E159.23996
G1 X200.60 Y136.34 E159.26535
G1 X201.80 Y136.71 E159.34368
G1 X202.20 Y136.72 E159.36853
G1 X204.46 Y137.94 E159.52869
G1 X205.79 Y139.04 E159.63629
G1 X206.09 Y139.29 E159.66044
G1 X207.18 Y140.61 E159.76713
G1 X207.41 Y140.90 E159.79030
G1 X208.43 Y142.75 E159.92190
G1 X208.92 Y144.37 E160.02776
G1 X209.04 Y144.74 E160.05193
G1 X209.21 Y146.35 E160.15314
G1 X214.23 Y146.36 E160.46651
G1 X214.25 Y150.32 E160.71397
G1 X214.25 Y168.84 E161.86893
G1 X211.05 Y168.85 E162.06843
G1 X211.05 Y169.45 E162.10603
G1 X193.65 Y169.45 E163.19114
G1 X193.65 Y160.88 E163.72578
G1 X111.05 Y161.04 E168.87695
G1 X111.05 Y169.25 E169.38883
G1 X93.65 Y169.25 E170.47394
G1 X93.65 Y168.85 E170.49907
G1 X90.74 Y168.85 E170.68030
G1 X90.78 Y146.35 E172.08315
G1 X95.79 Y146.35 E172.39559
G1 X95.92 Y145.11 E172.47346
G1 X95.97 Y144.74 E172.49663
G1 X96.46 Y143.11 E172.60265
G1 X96.59 Y142.72 E172.62874
G1 X97.57 Y140.92 E172.75606
G1 X98.66 Y139.59 E172.86366
G1 X98.91 Y139.29 E172.88758
G1 X100.22 Y138.20 E172.99378
G1 X100.52 Y137.95 E173.01846
G0 F6000 X100.80 Y138.37
G1 F2700 X102.28 Y137.57 E173.12285
G1 X102.95 Y137.22 E173.17061
G1 X103.29 Y137.20 E173.19177
G1 X104.09 Y136.96 E173.24387
G1 X104.44 Y136.84 E173.26665
G1 X106.14 Y136.67 E173.37318
G1 X106.49 Y136.64 E173.39531
G1 X108.15 Y136.80 E173.49956
G1 X108.53 Y136.84 E173.52295
G1 X110.16 Y137.34 E173.62965
G1 X110.49 Y137.45 E173.65107
G1 X112.15 Y138.35 E173.76899
G1 X113.48 Y139.42 E173.87538
G1 X113.76 Y139.65 E173.89784
G1 X114.81 Y140.93 E174.00143
G1 X115.04 Y141.20 E174.02354
G1 X115.75 Y142.56 E174.11923
G1 X116.37 Y142.64 E174.15807
G1 X116.72 Y146.57 E174.40436
G1 X116.75 Y146.85 E174.42209
G1 X140.35 Y146.85 E175.89398
G1 X140.35 Y146.25 E175.93158
G1 X164.35 Y146.25 E177.42829
G1 X164.35 Y146.85 E177.46577
G1 X188.25 Y146.85 E178.95649
G1 X188.40 Y145.26 E179.05617
G1 X188.65 Y142.63 E179.22061
G1 X189.25 Y142.56 E179.25870
G1 X189.94 Y141.23 E179.35200
G1 X191.02 Y139.91 E179.45852
G1 X191.25 Y139.63 E179.48107
G1 X192.55 Y138.58 E179.58511
G1 X192.81 Y138.37 E179.60606
G1 X194.55 Y137.43 E179.72903
G1 X196.08 Y136.96 E179.82918
G1 X196.42 Y136.84 E179.85170
G1 X198.12 Y136.68 E179.95821
G1 X198.46 Y136.63 E179.97939
G1 X200.15 Y136.80 E180.08516
G1 X200.50 Y136.83 E180.10741
G1 X201.72 Y137.20 E180.18653
G1 X202.06 Y137.22 E180.20832
G1 X204.18 Y138.36 E180.35824
G1 X205.47 Y139.43 E180.46283
G1 X205.74 Y139.64 E180.48392
G1 X206.79 Y140.93 E180.58764
G1 X207.00 Y141.18 E180.60793
G1 X207.97 Y142.94 E180.73325
G1 X208.44 Y144.53 E180.83684
G1 X208.55 Y144.84 E180.85754
G1 X208.72 Y146.50 E180.96125
G1 X208.77 Y146.84 E180.98267
G1 X208.77 Y146.85 E180.98354
G1 X213.74 Y146.86 E181.29330
G1 X213.75 Y150.32 E181.50964
G1 X213.75 Y168.34 E182.63335
G1 X210.55 Y168.35 E182.83285
G1 X210.55 Y168.95 E182.87046
G1 X194.15 Y168.95 E183.89321
G1 X194.15 Y160.38 E184.42790
G1 X110.55 Y160.54 E189.64144
G1 X110.55 Y168.75 E190.15325
G1 X94.15 Y168.75 E191.17600
G1 X94.15 Y168.35 E191.20113
G1 X91.25 Y168.35 E191.38230
G1 X91.28 Y146.85 E192.72279
G1 X96.24 Y146.85 E193.03223
G1 X96.42 Y145.17 E193.13776
G1 X96.46 Y144.85 E193.15796
G1 X96.93 Y143.26 E193.26110
G1 X97.05 Y142.91 E193.28392
G1 X97.99 Y141.21 E193.40549
G1 X99.05 Y139.91 E193.51012
G1 X99.26 Y139.65 E193.53112
G1 X100.53 Y138.59 E193.63431
G1 X100.80 Y138.37 E193.65585
G0 F6000 X101.08 Y138.79
G1 F2700 X102.51 Y138.02 E193.75702
G1 X103.09 Y137.71 E193.79769
G1 X103.38 Y137.70 E193.81579
G1 X104.26 Y137.43 E193.87332
G1 X104.54 Y137.33 E193.89213
G1 X106.20 Y137.17 E193.99591
G1 X106.20 Y137.17 E193.99597
G1 X106.49 Y137.14 E194.01416
G1 X108.10 Y137.29 E194.11523
G1 X108.43 Y137.33 E194.13548
G1 X110.01 Y137.81 E194.23853
G1 X110.28 Y137.91 E194.25683
G1 X111.87 Y138.77 E194.36953
G1 X113.17 Y139.80 E194.47281
G1 X113.40 Y140.00 E194.49204
G1 X114.43 Y141.25 E194.59293
G1 X114.62 Y141.48 E194.61158
G1 X115.43 Y143.02 E194.72035
G1 X115.91 Y143.08 E194.75026
G1 X116.22 Y146.62 E194.97152
G1 X116.22 Y146.62 E194.97158
G1 X116.25 Y146.89 E194.98868
G1 X116.21 Y147.35 E195.01767
G1 X140.85 Y147.35 E196.55441
G1 X140.85 Y146.75 E196.59202
G1 X163.85 Y146.75 E198.02636
G1 X163.85 Y147.35 E198.06384
G1 X188.79 Y147.35 E199.61935
G1 X188.78 Y147.18 E199.63012
G1 X188.78 Y147.18 E199.63018
G1 X188.75 Y146.91 E199.64729
G1 X188.89 Y145.31 E199.74753
G1 X189.10 Y143.08 E199.88684
G1 X189.57 Y143.02 E199.91626
G1 X190.36 Y141.51 E200.02273
G1 X191.41 Y140.23 E200.12605
G1 X191.61 Y139.99 E200.14533
G1 X192.89 Y138.95 E200.24818
G1 X193.09 Y138.79 E200.26443
G1 X194.74 Y137.90 E200.38138
G1 X196.24 Y137.43 E200.47890
G1 X196.53 Y137.33 E200.49833
G1 X198.17 Y137.17 E200.60107
G1 X198.47 Y137.13 E200.61968
G1 X200.10 Y137.29 E200.72194
G1 X200.40 Y137.32 E200.74099
G1 X201.63 Y137.70 E200.82097
G1 X201.93 Y137.71 E200.83969
G1 X203.90 Y138.78 E200.97940
G1 X205.38 Y140.00 E201.09901
G1 X206.41 Y141.25 E201.19973
G1 X206.58 Y141.46 E201.21710
G1 X207.50 Y143.13 E201.33622
G1 X207.96 Y144.68 E201.43654
G1 X208.06 Y144.95 E201.45469
G1 X208.22 Y146.54 E201.55419
G1 X208.26 Y146.85 E201.57372
G1 X208.21 Y147.35 E201.60538
G1 X213.24 Y147.35 E201.91869
G1 X213.25 Y150.33 E202.10397
G1 X213.25 Y167.84 E203.19650
G1 X210.05 Y167.85 E203.39600
G1 X210.05 Y168.45 E203.43361
G1 X194.65 Y168.45 E204.39399
G1 X194.65 Y159.88 E204.92875
G1 X110.05 Y160.04 E210.20465
G1 X110.05 Y168.25 E210.71640
G1 X94.65 Y168.25 E211.67679
G1 X94.65 Y167.85 E211.70192
G1 X91.75 Y167.85 E211.88308
G1 X91.78 Y147.35 E213.16121
G1 X96.79 Y147.35 E213.47340
G1 X96.78 Y147.23 E213.48110
G1 X96.73 Y146.95 E213.49868
G1 X96.91 Y145.23 E213.60658
G1 X96.95 Y144.95 E213.62389
G1 X97.41 Y143.41 E213.72411
G1 X97.51 Y143.12 E213.74363
G1 X98.40 Y141.49 E213.85954
G1 X99.44 Y140.22 E213.96125
G1 X99.62 Y140.00 E213.97919
G1 X100.85 Y138.97 E214.07937
G1 X101.08 Y138.79 E214.09780
G0 F6000 X101.36 Y139.20
G1 F2700 X102.75 Y138.46 E214.19579
G1 X103.22 Y138.21 E214.22927
G1 X103.46 Y138.20 E214.24438
G1 X104.42 Y137.91 E214.30671
G1 X104.65 Y137.82 E214.32224
G1 X106.24 Y137.67 E214.42156
G1 X106.49 Y137.64 E214.43748
G1 X108.05 Y137.79 E214.53528
G1 X108.33 Y137.82 E214.55241
G1 X109.85 Y138.29 E214.65181
G1 X110.08 Y138.37 E214.66705
G1 X111.59 Y139.19 E214.77437
G1 X112.85 Y140.19 E214.87468
G1 X113.05 Y140.35 E214.89067
G1 X114.04 Y141.56 E214.98829
G1 X114.20 Y141.76 E215.00397
G1 X115.04 Y143.35 E215.11597
G1 X115.08 Y143.48 E215.12483
G1 X115.45 Y143.53 E215.14796
G1 X115.72 Y146.67 E215.34429
G1 X115.75 Y146.89 E215.35851
G1 X115.66 Y147.85 E215.41867
G1 X141.35 Y147.85 E217.02071
G1 X141.35 Y147.25 E217.05832
G1 X163.35 Y147.25 E218.43030
G1 X163.35 Y147.85 E218.46778
G1 X189.34 Y147.85 E220.08852
G1 X189.27 Y147.12 E220.13448
G1 X189.25 Y146.91 E220.14782
G1 X189.39 Y145.35 E220.24504
G1 X189.56 Y143.53 E220.35931
G1 X189.92 Y143.48 E220.38143
G1 X189.94 Y143.39 E220.38741
G1 X190.78 Y141.79 E220.50044
G1 X191.80 Y140.54 E220.60048
G1 X191.96 Y140.34 E220.61647
G1 X193.20 Y139.34 E220.71608
G1 X193.37 Y139.20 E220.72972
G1 X194.94 Y138.36 E220.84055
G1 X196.38 Y137.91 E220.93488
G1 X196.64 Y137.82 E220.95180
G1 X198.22 Y137.67 E221.05104
G1 X198.47 Y137.64 E221.06688
G1 X200.05 Y137.79 E221.16557
G1 X200.30 Y137.82 E221.18149
G1 X201.54 Y138.20 E221.26244
G1 X201.79 Y138.21 E221.27786
G1 X203.62 Y139.19 E221.40741
G1 X204.84 Y140.20 E221.50603
G1 X205.02 Y140.35 E221.52091
G1 X206.02 Y141.56 E221.61865
G1 X206.17 Y141.74 E221.63310
G1 X207.04 Y143.33 E221.74600
G1 X207.48 Y144.80 E221.84195
G1 X207.56 Y145.06 E221.85869
G1 X207.72 Y146.60 E221.95550
G1 X207.76 Y146.86 E221.97169
G1 X207.66 Y147.85 E222.03402
G1 X212.74 Y147.85 E222.35089
G1 X212.75 Y150.33 E222.50505
G1 X212.75 Y167.34 E223.56634
G1 X209.55 Y167.35 E223.76584
G1 X209.55 Y167.95 E223.80338
G1 X195.15 Y167.95 E224.70140
G1 X195.15 Y159.37 E225.23623
G1 X109.55 Y159.54 E230.57449
G1 X109.55 Y167.75 E231.08617
G1 X95.15 Y167.75 E231.98420
G1 X95.15 Y167.35 E232.00933
G1 X92.25 Y167.35 E232.19043
G1 X92.28 Y147.85 E233.40619
G1 X97.34 Y147.85 E233.72156
G1 X97.27 Y147.16 E233.76460
G1 X97.24 Y146.94 E233.77872
G1 X97.41 Y145.29 E233.88230
G1 X97.44 Y145.06 E233.89672
G1 X97.89 Y143.56 E233.99407
G1 X97.97 Y143.32 E234.01024
G1 X98.82 Y141.77 E234.12051
G1 X99.82 Y140.54 E234.21929
G1 X99.97 Y140.35 E234.23422
G1 X101.17 Y139.36 E234.33134
G1 X101.36 Y139.20 E234.34667
G0 F6000 X101.64 Y139.62
G1 F2700 X102.98 Y138.90 E234.44149
G1 X103.35 Y138.70 E234.46782
G1 X103.54 Y138.69 E234.47968
G1 X104.58 Y138.38 E234.54722
G1 X104.76 Y138.31 E234.55926
G1 X106.30 Y138.16 E234.65551
G1 X106.49 Y138.14 E234.66774
G1 X108.00 Y138.29 E234.76235
G1 X108.23 Y138.31 E234.77633
G1 X109.69 Y138.76 E234.87214
G1 X109.88 Y138.83 E234.88423
G1 X111.32 Y139.60 E234.98628
G1 X112.53 Y140.58 E235.08356
G1 X112.69 Y140.71 E235.09627
G1 X113.66 Y141.88 E235.19092
G1 X113.78 Y142.04 E235.20346
G1 X114.57 Y143.54 E235.30918
G1 X114.69 Y143.94 E235.33534
G1 X114.98 Y143.98 E235.35363
G1 X115.23 Y146.71 E235.52499
G1 X115.24 Y146.89 E235.53632
G1 X115.11 Y148.35 E235.62773
G1 X141.85 Y148.35 E237.29500
G1 X141.85 Y147.75 E237.33260
G1 X162.85 Y147.75 E238.64222
G1 X162.85 Y148.35 E238.67970
G1 X189.88 Y148.35 E240.36568
G1 X189.77 Y147.07 E240.44575
G1 X189.76 Y146.90 E240.45634
G1 X189.89 Y145.40 E240.55062
G1 X190.03 Y143.97 E240.63977
G1 X190.30 Y143.94 E240.65730
G1 X190.41 Y143.58 E240.68065
G1 X191.20 Y142.06 E240.78745
G1 X192.18 Y140.86 E240.88426
G1 X192.31 Y140.70 E240.89706
G1 X193.52 Y139.73 E240.99347
G1 X193.65 Y139.62 E241.00437
G1 X195.13 Y138.82 E241.10912
G1 X196.56 Y138.38 E241.20247
G1 X196.75 Y138.31 E241.21470
G1 X198.27 Y138.17 E241.31024
G1 X198.48 Y138.14 E241.32351
G1 X200.00 Y138.29 E241.41857
G1 X200.20 Y138.31 E241.43141
G1 X201.46 Y138.69 E241.51322
G1 X201.66 Y138.70 E241.52551
G1 X203.34 Y139.61 E241.64483
G1 X204.52 Y140.59 E241.74029
G1 X204.67 Y140.71 E241.75230
G1 X205.63 Y141.88 E241.84703
G1 X205.75 Y142.02 E241.85860
G1 X206.57 Y143.52 E241.96527
G1 X207.01 Y144.99 E242.06065
G1 X207.07 Y145.16 E242.07216
G1 X207.23 Y146.68 E242.16722
G1 X207.26 Y146.87 E242.17906
G1 X207.10 Y148.35 E242.27217
G1 X212.24 Y148.35 E242.59259
G1 X212.25 Y150.33 E242.71564
G1 X212.25 Y166.85 E243.74574
G1 X209.05 Y166.85 E243.94524
G1 X209.05 Y167.45 E243.98279
G1 X195.65 Y167.45 E244.81845
G1 X195.65 Y158.87 E245.35333
G1 X109.05 Y159.05 E250.75396
G1 X109.05 Y167.25 E251.26558
G1 X95.65 Y167.25 E252.10124
G1 X95.65 Y166.85 E252.12631
G1 X92.75 Y166.85 E252.30735
G1 X92.78 Y148.35 E253.46081
G1 X97.89 Y148.35 E253.77936
G1 X97.77 Y147.12 E253.85647
G1 X97.74 Y146.93 E253.86845
G1 X97.91 Y145.35 E253.96764
G1 X97.93 Y145.16 E253.97922
G1 X98.36 Y143.71 E254.07359
G1 X98.43 Y143.52 E254.08649
G1 X99.24 Y142.05 E254.19106
G1 X100.21 Y140.86 E254.28689
G1 X100.33 Y140.71 E254.29880
G1 X101.49 Y139.75 E254.39295
G1 X101.64 Y139.62 E254.40513
G0 F6000 X101.92 Y140.04
G1 F2700 X103.22 Y139.34 E254.49668
G1 X103.49 Y139.20 E254.51593
G1 X103.64 Y139.19 E254.52511
G1 X104.72 Y138.86 E254.59567
G1 X104.87 Y138.81 E254.60577
G1 X106.35 Y138.66 E254.69832
G1 X106.50 Y138.65 E254.70760
G1 X107.95 Y138.79 E254.79895
G1 X108.13 Y138.81 E254.80980
G1 X109.54 Y139.24 E254.90196
G1 X109.68 Y139.29 E254.91101
G1 X111.04 Y140.02 E255.00770
G1 X112.22 Y140.97 E255.10193
G1 X112.34 Y141.06 E255.11145
G1 X113.27 Y142.20 E255.20304
G1 X113.36 Y142.32 E255.21239
G1 X114.11 Y143.73 E255.31192
G1 X114.31 Y144.40 E255.35533
G1 X114.52 Y144.42 E255.36885
G1 X114.73 Y146.76 E255.51522
G1 X114.74 Y146.90 E255.52374
G1 X114.61 Y148.36 E255.61514
G1 X114.56 Y148.85 E255.64635
G1 X142.35 Y148.85 E257.37909
G1 X142.35 Y148.25 E257.41670
G1 X162.35 Y148.25 E258.66395
G1 X162.35 Y148.85 E258.70143
G1 X190.43 Y148.85 E260.45264
G1 X190.27 Y147.03 E260.56677
G1 X190.26 Y146.90 E260.57473
G1 X190.39 Y145.44 E260.66607
G1 X190.49 Y144.42 E260.73010
G1 X190.69 Y144.40 E260.74305
G1 X190.88 Y143.77 E260.78375
G1 X191.62 Y142.34 E260.88437
G1 X192.57 Y141.18 E260.97789
G1 X192.67 Y141.06 E260.98742
G1 X193.83 Y140.12 E261.08068
G1 X193.93 Y140.04 E261.08883
G1 X195.33 Y139.28 E261.18755
G1 X196.71 Y138.86 E261.27778
G1 X196.85 Y138.81 E261.28742
G1 X198.32 Y138.67 E261.37926
G1 X198.49 Y138.64 E261.38995
G1 X199.95 Y138.79 E261.48144
G1 X200.10 Y138.80 E261.49116
G1 X201.37 Y139.19 E261.57385
G1 X201.52 Y139.20 E261.58297
G1 X203.06 Y140.03 E261.69207
G1 X204.31 Y141.06 E261.79351
G1 X205.25 Y142.20 E261.88514
G1 X205.34 Y142.31 E261.89378
G1 X206.11 Y143.72 E261.99426
G1 X206.53 Y145.12 E262.08553
G1 X206.58 Y145.27 E262.09545
G1 X206.73 Y146.72 E262.18649
G1 X206.75 Y146.88 E262.19625
G1 X206.60 Y148.39 E262.29130
G1 X206.58 Y148.53 E262.29980
G1 X206.48 Y148.85 E262.32085
G1 X211.74 Y148.85 E262.64894
G1 X211.75 Y150.33 E262.74087
G1 X211.75 Y166.35 E263.73973
G1 X208.55 Y166.35 E263.93923
G1 X208.55 Y166.95 E263.97671
G1 X196.15 Y166.95 E264.75001
G1 X196.15 Y158.37 E265.28496
G1 X108.55 Y158.55 E270.74795
G1 X108.55 Y166.75 E271.25951
G1 X96.15 Y166.75 E272.03280
G1 X96.15 Y166.35 E272.05787
G1 X93.25 Y166.35 E272.23885
G1 X93.28 Y148.85 E273.32995
G1 X98.51 Y148.85 E273.65617
G1 X98.46 Y148.68 E273.66720
G1 X98.41 Y148.54 E273.67676
G1 X98.27 Y147.07 E273.76891
G1 X98.25 Y146.92 E273.77804
G1 X98.40 Y145.41 E273.87291
G1 X98.42 Y145.27 E273.88160
G1 X98.84 Y143.87 E273.97303
G1 X98.89 Y143.72 E273.98270
G1 X99.65 Y142.33 E274.08158
G1 X100.59 Y141.17 E274.17447
G1 X100.69 Y141.06 E274.18333
G1 X101.81 Y140.13 E274.27443
G1 X101.92 Y140.04 E274.28360
G0 F6000 X102.20 Y140.46
G1 F2700 X103.45 Y139.78 E274.37197
G1 X103.62 Y139.69 E274.38402
G1 X103.72 Y139.69 E274.39008
G1 X104.88 Y139.33 E274.46565
G1 X104.98 Y139.30 E274.47240
G1 X106.39 Y139.16 E274.56100
G1 X106.50 Y139.15 E274.56752
G1 X107.90 Y139.28 E274.65562
G1 X108.03 Y139.30 E274.66334
G1 X109.38 Y139.71 E274.75183
G1 X109.47 Y139.75 E274.75779
G1 X110.76 Y140.44 E274.84920
G1 X111.90 Y141.36 E274.94041
G1 X111.98 Y141.42 E274.94665
G1 X112.88 Y142.52 E275.03527
G1 X112.95 Y142.59 E275.04142
G1 X113.64 Y143.92 E275.13468
G1 X113.92 Y144.85 E275.19545
G1 X114.06 Y144.87 E275.20419
G1 X114.23 Y146.81 E275.32564
G1 X114.24 Y146.90 E275.33128
G1 X114.11 Y148.31 E275.41968
G1 X114.06 Y148.93 E275.45864
G1 X113.93 Y148.95 E275.46675
G1 X113.81 Y149.35 E275.49306
G1 X142.85 Y149.35 E277.30395
G1 X142.85 Y148.75 E277.34156
G1 X161.85 Y148.75 E278.52645
G1 X161.85 Y149.35 E278.56393
G1 X191.19 Y149.35 E280.39359
G1 X191.07 Y148.95 E280.41980
G1 X190.94 Y148.93 E280.42817
G1 X190.77 Y146.99 E280.55000
G1 X190.76 Y146.90 E280.55532
G1 X190.88 Y145.49 E280.64366
G1 X190.94 Y144.87 E280.68262
G1 X191.08 Y144.85 E280.69105
G1 X191.34 Y143.96 E280.74910
G1 X192.04 Y142.62 E280.84350
G1 X192.96 Y141.49 E280.93379
G1 X193.02 Y141.42 E280.94008
G1 X194.15 Y140.51 E281.03015
G1 X194.21 Y140.45 E281.03560
G1 X195.52 Y139.75 E281.12819
G1 X196.85 Y139.34 E281.21533
G1 X196.96 Y139.30 E281.22239
G1 X198.40 Y139.16 E281.31261
G1 X198.50 Y139.15 E281.31859
G1 X199.90 Y139.28 E281.40657
G1 X200.01 Y139.29 E281.41314
G1 X201.29 Y139.69 E281.49676
G1 X201.38 Y139.69 E281.50263
G1 X202.78 Y140.44 E281.60160
G1 X203.96 Y141.42 E281.69693
G1 X204.92 Y142.59 E281.79139
G1 X205.65 Y143.91 E281.88557
G1 X206.06 Y145.28 E281.97447
G1 X206.06 Y145.28 E281.97454
G1 X206.09 Y145.38 E281.98102
G1 X206.24 Y146.80 E282.07013
G1 X206.25 Y146.89 E282.07580
G1 X206.10 Y148.33 E282.16653
G1 X206.09 Y148.42 E282.17213
G1 X205.81 Y149.35 E282.23245
G1 X211.25 Y149.35 E282.57114
G1 X211.25 Y150.33 E282.63201
G1 X211.25 Y165.85 E283.59963
G1 X208.05 Y165.85 E283.79913
G1 X208.05 Y166.45 E283.83661
G1 X196.65 Y166.45 E284.54755
G1 X196.65 Y157.87 E285.08256
G1 X108.05 Y158.05 E290.60791
G1 X108.05 Y166.25 E291.11941
G1 X96.65 Y166.25 E291.83034
G1 X96.65 Y165.85 E291.85541
G1 X93.75 Y165.85 E292.03633
G1 X93.78 Y149.35 E293.06506
G1 X99.18 Y149.35 E293.40220
G1 X98.92 Y148.51 E293.45728
G1 X98.90 Y148.43 E293.46231
G1 X98.76 Y146.99 E293.55258
G1 X98.75 Y146.91 E293.55750
G1 X98.90 Y145.47 E293.64804
G1 X98.91 Y145.38 E293.65377
G1 X99.32 Y144.01 E293.74234
G1 X99.35 Y143.92 E293.74865
G1 X100.07 Y142.61 E293.84184
G1 X100.98 Y141.49 E293.93181
G1 X101.04 Y141.42 E293.93770
G1 X102.13 Y140.52 E294.02579
G1 X102.20 Y140.46 E294.03182
G0 F6000 X102.48 Y140.87
G1 F2700 X103.69 Y140.22 E294.11706
G1 X103.75 Y140.19 E294.12197
G1 X103.80 Y140.19 E294.12497
G1 X105.04 Y139.81 E294.20551
G1 X105.09 Y139.79 E294.20880
G1 X106.44 Y139.66 E294.29378
G1 X106.50 Y139.65 E294.29716
G1 X107.85 Y139.78 E294.38206
G1 X107.93 Y139.79 E294.38664
G1 X109.23 Y140.19 E294.47148
G1 X109.27 Y140.20 E294.47434
G1 X110.49 Y140.86 E294.56051
G1 X111.59 Y141.74 E294.64866
G1 X111.63 Y141.78 E294.65167
G1 X112.53 Y142.87 E294.74025
G1 X113.18 Y144.11 E294.82726
G1 X113.53 Y145.31 E294.90527
G1 X113.60 Y145.31 E294.90917
G1 X113.73 Y146.85 E295.00565
G1 X113.74 Y146.90 E295.00841
G1 X113.62 Y148.26 E295.09387
G1 X113.60 Y148.49 E295.10771
G1 X113.54 Y148.49 E295.11142
G1 X113.22 Y149.62 E295.18487
G1 X113.17 Y149.78 E295.19503
G1 X113.13 Y149.79 E295.19762
G1 X113.10 Y149.85 E295.20194
G1 X143.35 Y149.85 E297.08860
G1 X143.35 Y149.25 E297.12621
G1 X161.35 Y149.25 E298.24874
G1 X161.35 Y149.85 E298.28622
G1 X191.89 Y149.85 E300.19090
G1 X191.80 Y149.67 E300.20348
G1 X191.46 Y148.49 E300.27996
G1 X191.40 Y148.49 E300.28374
G1 X191.27 Y146.94 E300.38041
G1 X191.26 Y146.90 E300.38304
G1 X191.38 Y145.53 E300.46843
G1 X191.40 Y145.31 E300.48228
G1 X191.46 Y145.31 E300.48605
G1 X191.81 Y144.15 E300.56149
G1 X192.46 Y142.89 E300.64966
G1 X193.34 Y141.81 E300.73676
G1 X193.38 Y141.77 E300.73978
G1 X194.46 Y140.90 E300.82670
G1 X194.49 Y140.87 E300.82941
G1 X195.72 Y140.21 E300.91597
G1 X197.03 Y139.80 E301.00181
G1 X197.07 Y139.79 E301.00445
G1 X198.45 Y139.66 E301.09104
G1 X198.50 Y139.65 E301.09437
G1 X199.91 Y139.79 E301.18216
G1 X201.20 Y140.19 E301.26675
G1 X201.25 Y140.19 E301.26944
G1 X202.50 Y140.86 E301.35814
G1 X203.60 Y141.77 E301.44745
G1 X204.50 Y142.87 E301.53593
G1 X205.18 Y144.11 E301.62396
G1 X205.58 Y145.44 E301.71048
G1 X205.60 Y145.48 E301.71357
G1 X205.74 Y146.85 E301.79960
G1 X205.74 Y146.85 E301.79966
G1 X205.75 Y146.90 E301.80232
G1 X205.60 Y148.27 E301.88872
G1 X205.60 Y148.32 E301.89149
G1 X205.21 Y149.63 E301.97694
G1 X205.19 Y149.69 E301.98047
G1 X205.11 Y149.85 E301.99194
G1 X210.75 Y149.85 E302.34348
G1 X210.75 Y150.33 E302.37322
G1 X210.75 Y165.35 E303.30966
G1 X207.55 Y165.35 E303.50916
G1 X207.55 Y165.95 E303.54664
G1 X197.15 Y165.95 E304.19521
G1 X197.15 Y157.37 E304.73035
G1 X107.55 Y157.55 E310.31806
G1 X107.55 Y165.75 E310.82950
G1 X97.15 Y165.75 E311.47807
G1 X97.15 Y165.35 E311.50314
G1 X94.25 Y165.35 E311.68399
G1 X94.28 Y149.85 E312.65037
G1 X99.89 Y149.85 E313.00047
G1 X99.80 Y149.67 E313.01283
G1 X99.40 Y148.36 E313.09833
G1 X99.39 Y148.32 E313.10091
G1 X99.26 Y146.94 E313.18736
G1 X99.25 Y146.90 E313.18988
G1 X99.40 Y145.53 E313.27610
G1 X99.40 Y145.48 E313.27893
G1 X99.80 Y144.17 E313.36458
G1 X99.81 Y144.12 E313.36760
G1 X100.48 Y142.89 E313.45512
G1 X101.40 Y141.77 E313.54500
G1 X102.48 Y140.87 E313.63295
G0 F6000 X103.04 Y141.71
;TYPE:WALL-INNER
G1 F2700 X104.08 Y141.14 E313.70670
G1 X105.30 Y140.77 E313.78573
G1 X106.50 Y140.66 E313.86124
G1 X107.72 Y140.77 E313.93781
G1 X108.88 Y141.13 E314.01287
G1 X109.93 Y141.70 E314.08774
G1 X110.92 Y142.49 E314.16639
G1 X111.69 Y143.43 E314.24220
G1 X112.25 Y144.49 E314.31721
G1 X112.61 Y145.72 E314.39726
G1 X112.64 Y145.79 E314.40200
G1 X112.73 Y146.90 E314.47136
G1 X112.64 Y148.00 E314.54048
G1 X112.29 Y149.24 E314.62054
G1 X111.49 Y150.85 E314.73285
G1 X143.73 Y150.85 E316.74324
G1 X143.73 Y153.32 E316.89684
G1 X97.50 Y153.32 E319.77980
G1 X97.50 Y164.35 E320.46754
G1 X95.25 Y164.35 E320.60761
G1 X95.27 Y150.85 E321.44926
G1 X101.49 Y150.85 E321.83690
G1 X100.74 Y149.31 E321.94400
G1 X100.38 Y148.12 E322.02142
G1 X100.26 Y146.90 E322.09810
G1 X100.39 Y145.69 E322.17391
G1 X100.74 Y144.51 E322.25031
G1 X101.32 Y143.45 E322.32574
G1 X102.11 Y142.48 E322.40410
G1 X103.04 Y141.71 E322.47965
G0 F6000 X104.44 Y143.47
G1 F2700 X103.92 Y143.88 E322.52098
G1 X103.85 Y143.95 E322.52713
G1 X103.44 Y144.44 E322.56692
G1 X103.38 Y144.51 E322.57299
G1 X103.05 Y145.14 E322.61740
G1 X102.85 Y145.76 E322.65746
G1 X102.82 Y145.86 E322.66409
G1 X102.76 Y146.48 E322.70294
G1 X102.75 Y146.59 E322.70980
G1 X102.81 Y147.25 E322.75140
G1 X102.82 Y147.35 E322.75738
G1 X103.01 Y147.96 E322.79706
G1 X103.04 Y148.05 E322.80303
G1 X103.37 Y148.66 E322.84673
G1 X103.78 Y149.18 E322.88805
G1 X103.85 Y149.25 E322.89421
G1 X104.34 Y149.66 E322.93400
G1 X104.42 Y149.72 E322.94006
G1 X105.04 Y150.06 E322.98437
G1 X105.66 Y150.25 E323.02455
G1 X105.76 Y150.28 E323.03117
G1 X106.38 Y150.34 E323.07040
G1 X106.49 Y150.36 E323.07682
G1 X107.15 Y150.29 E323.11849
G1 X107.25 Y150.28 E323.12447
G1 X107.86 Y150.09 E323.16414
G1 X107.95 Y150.06 E323.17012
G1 X108.56 Y149.73 E323.21381
G1 X109.08 Y149.32 E323.25513
G1 X109.16 Y149.25 E323.26129
G1 X109.56 Y148.76 E323.30108
G1 X109.62 Y148.69 E323.30714
G1 X109.96 Y148.06 E323.35145
G1 X110.15 Y147.44 E323.39163
G1 X110.18 Y147.34 E323.39831
G1 X110.24 Y146.69 E323.43885
G1 X110.25 Y146.62 E323.44383
G1 X110.19 Y145.95 E323.48549
G1 X110.18 Y145.85 E323.49153
G1 X109.99 Y145.25 E323.53114
G1 X109.96 Y145.16 E323.53712
G1 X109.63 Y144.54 E323.58087
G1 X109.22 Y144.02 E323.62219
G1 X109.15 Y143.95 E323.62835
G1 X108.66 Y143.54 E323.66814
G1 X108.59 Y143.48 E323.67420
G1 X107.96 Y143.15 E323.71851
G1 X107.34 Y142.95 E323.75869
G1 X107.24 Y142.92 E323.76537
G1 X106.60 Y142.86 E323.80579
G1 X106.52 Y142.85 E323.81095
G1 X105.85 Y142.91 E323.85261
G1 X105.75 Y142.92 E323.85859
G1 X105.15 Y143.11 E323.89826
G1 X105.06 Y143.14 E323.90424
G1 X104.44 Y143.47 E323.94793
G0 F6000 X104.71 Y143.89
;TYPE:WALL-OUTER
G1 F2700 X104.24 Y144.27 E323.98611
G1 X104.20 Y144.30 E323.98912
G1 X103.80 Y144.79 E324.02887
G1 X103.51 Y145.34 E324.06717
G1 X103.33 Y145.92 E324.10520
G1 X103.31 Y145.96 E324.10808
G1 X103.25 Y146.54 E324.14455
G1 X103.25 Y146.60 E324.14776
G1 X103.31 Y147.19 E324.18517
G1 X103.31 Y147.24 E324.18807
G1 X103.48 Y147.80 E324.22488
G1 X103.50 Y147.85 E324.22776
G1 X103.79 Y148.39 E324.26587
G1 X104.17 Y148.86 E324.30405
G1 X104.20 Y148.90 E324.30706
G1 X104.69 Y149.30 E324.34681
G1 X105.24 Y149.59 E324.38506
G1 X105.82 Y149.78 E324.42321
G1 X105.86 Y149.79 E324.42603
G1 X106.44 Y149.85 E324.46243
G1 X106.50 Y149.85 E324.46564
G1 X107.09 Y149.79 E324.50312
G1 X107.14 Y149.79 E324.50601
G1 X107.70 Y149.62 E324.54282
G1 X107.75 Y149.60 E324.54570
G1 X108.29 Y149.31 E324.58381
G1 X108.76 Y148.93 E324.62199
G1 X108.80 Y148.90 E324.62500
G1 X109.20 Y148.41 E324.66475
G1 X109.49 Y147.87 E324.70300
G1 X109.67 Y147.29 E324.74082
G1 X109.69 Y147.24 E324.74397
G1 X109.75 Y146.66 E324.78037
G1 X109.75 Y146.61 E324.78358
G1 X109.69 Y146.01 E324.82105
G1 X109.69 Y145.96 E324.82394
G1 X109.52 Y145.40 E324.86070
G1 X109.50 Y145.35 E324.86358
G1 X109.22 Y144.81 E324.90174
G1 X108.83 Y144.34 E324.93992
G1 X108.80 Y144.30 E324.94293
G1 X108.31 Y143.90 E324.98268
G1 X107.77 Y143.61 E325.02093
G1 X107.18 Y143.43 E325.05908
G1 X107.14 Y143.41 E325.06190
G1 X106.56 Y143.36 E325.09842
G1 X106.50 Y143.35 E325.10157
G1 X105.91 Y143.41 E325.13898
G1 X105.86 Y143.41 E325.14187
G1 X105.30 Y143.58 E325.17869
G1 X105.25 Y143.60 E325.18156
G1 X104.71 Y143.89 E325.21968
G0 F6000 X104.49 Y143.61
G0 X102.96 Y141.58
G0 X102.76 Y141.29
G1 F2700 X103.89 Y140.68 E325.29981
G1 X105.20 Y140.28 E325.38470
G1 X106.50 Y140.15 E325.46610
G1 X107.80 Y140.28 E325.54799
G1 X107.83 Y140.28 E325.54962
G1 X109.07 Y140.66 E325.63036
G1 X110.21 Y141.28 E325.71142
G1 X111.27 Y142.13 E325.79606
G1 X112.11 Y143.15 E325.87861
G1 X112.71 Y144.30 E325.95932
G1 X113.10 Y145.58 E326.04313
G1 X113.13 Y145.70 E326.05067
G1 X113.24 Y146.90 E326.12561
G1 X113.13 Y148.10 E326.20080
G1 X112.75 Y149.42 E326.28645
G1 X112.29 Y150.35 E326.35146
G1 X144.23 Y150.35 E328.34289
G1 X144.23 Y153.82 E328.55886
G1 X98.00 Y153.82 E331.44182
G1 X98.00 Y164.85 E332.12956
G1 X94.75 Y164.85 E332.33205
G1 X94.78 Y150.35 E333.23606
G1 X100.69 Y150.35 E333.60488
G1 X100.27 Y149.48 E333.66509
G1 X99.88 Y148.21 E333.74778
G1 X99.76 Y146.90 E333.83028
G1 X99.89 Y145.59 E333.91216
G1 X100.27 Y144.32 E333.99505
G1 X100.90 Y143.17 E334.07655
G1 X101.75 Y142.13 E334.16071
G1 X102.76 Y141.29 E334.24247
G0 F6000 X103.25 Y141.79
;TYPE:FILL
G1 F2700 X104.63 Y143.16 E334.36365
G0 F6000 X104.19 Y143.44
G1 F2700 X102.85 Y142.09 E334.48214
G0 F6000 X102.46 Y142.41
G1 F2700 X103.80 Y143.75 E334.60032
G0 F6000 X103.47 Y144.13
G1 F2700 X102.11 Y142.76 E334.72066
G0 F6000 X101.79 Y143.15
G1 F2700 X103.17 Y144.53 E334.84254
G0 F6000 X102.92 Y145.00
G1 F2700 X101.47 Y143.54 E334.97091
G0 F6000 X101.22 Y144.00
G1 F2700 X102.74 Y145.52 E335.10541
G0 F6000 X102.62 Y146.11
G1 F2700 X100.97 Y144.45 E335.25128
G0 F6000 X100.78 Y144.97
G1 F2700 X102.59 Y146.78 E335.41082
G0 F6000 X102.73 Y147.63
G1 F2700 X100.62 Y145.52 E335.59682
G0 F6000 X100.52 Y146.12
G1 F2700 X103.51 Y149.12 E335.86119
G0 F6000 X103.99 Y149.60
G1 F2700 X107.53 Y153.14 E336.17379
G0 F6000 X106.83 Y153.14
G1 F2700 X100.45 Y146.76 E336.73625
G0 F6000 X100.49 Y147.52
G1 F2700 X106.12 Y153.14 E337.23247
G0 F6000 X105.41 Y153.14
G1 F2700 X100.63 Y148.36 E337.65426
G0 F6000 X100.99 Y149.43
G1 F2700 X104.71 Y153.14 E337.98208
G0 F6000 X104.00 Y153.14
G1 F2700 X101.66 Y150.81 E338.18819
G0 F6000 X101.17 Y151.03
G1 F2700 X103.29 Y153.14 E338.37499
G0 F6000 X102.58 Y153.14
G1 F2700 X100.47 Y151.03 E338.56174
G0 F6000 X99.76 Y151.03
G1 F2700 X101.88 Y153.14 E338.74849
G0 F6000 X101.17 Y153.14
G1 F2700 X99.05 Y151.03 E338.93528
G0 F6000 X98.34 Y151.03
G1 F2700 X100.46 Y153.14 E339.12208
G0 F6000 X99.76 Y153.14
G1 F2700 X97.64 Y151.03 E339.30888
G0 F6000 X96.93 Y151.03
G1 F2700 X99.05 Y153.14 E339.49567
G0 F6000 X98.34 Y153.14
G1 F2700 X96.22 Y151.03 E339.68247
G0 F6000 X95.52 Y151.03
G1 F2700 X97.64 Y153.14 E339.86926
G0 F6000 X97.32 Y153.54
G1 F2700 X95.45 Y151.66 E340.03445
G0 F6000 X95.45 Y152.37
G1 F2700 X97.32 Y154.24 E340.19986
G0 F6000 X97.32 Y154.95
G1 F2700 X95.44 Y153.07 E340.36535
G0 F6000 X95.44 Y153.78
G1 F2700 X97.32 Y155.66 E340.53094
G0 F6000 X97.32 Y156.37
G1 F2700 X95.44 Y154.49 E340.69661
G0 F6000 X95.44 Y155.19
G1 F2700 X97.32 Y157.07 E340.86242
G0 F6000 X97.32 Y157.78
G1 F2700 X95.44 Y155.90 E341.02835
G0 F6000 X95.44 Y156.60
G1 F2700 X97.32 Y158.49 E341.19442
G0 F6000 X97.32 Y159.19
G1 F2700 X95.44 Y157.31 E341.36049
G0 F6000 X95.44 Y158.01
G1 F2700 X97.32 Y159.90 E341.52674
G0 F6000 X97.32 Y160.61
G1 F2700 X95.44 Y158.72 E341.69307
G0 F6000 X95.43 Y159.43
G1 F2700 X97.32 Y161.31 E341.85959
G0 F6000 X97.32 Y162.02
G1 F2700 X95.43 Y160.13 E342.02614
G0 F6000 X95.43 Y160.84
G1 F2700 X97.32 Y162.73 E342.19283
G0 F6000 X97.32 Y163.44
G1 F2700 X95.43 Y161.54 E342.35965
G0 F6000 X95.43 Y162.25
G1 F2700 X97.32 Y164.14 E342.52655
G0 F6000 X96.64 Y164.17
G1 F2700 X95.43 Y162.96 E342.63362
G0 F6000 X95.43 Y163.66
G1 F2700 X95.94 Y164.17 E342.67851
G0 F6000 X97.61 Y153.43
G0 X108.24 Y153.14
G1 F2700 X105.47 Y150.37 E342.92263
G0 F6000 X106.32 Y150.51
G1 F2700 X108.95 Y153.14 E343.15467
G0 F6000 X109.66 Y153.14
G1 F2700 X106.99 Y150.48 E343.38945
G0 F6000 X107.58 Y150.36
G1 F2700 X110.36 Y153.14 E343.63489
G0 F6000 X111.07 Y153.14
G1 F2700 X108.10 Y150.18 E343.89639
G0 F6000 X108.56 Y149.93
G1 F2700 X111.78 Y153.14 E344.17958
G0 F6000 X112.48 Y153.14
G1 F2700 X108.97 Y149.63 E344.48941
G0 F6000 X109.34 Y149.30
G1 F2700 X113.19 Y153.14 E344.82860
G0 F6000 X113.90 Y153.14
G1 F2700 X111.78 Y151.03 E345.01504
G0 F6000 X111.40 Y150.64
G1 F2700 X109.66 Y148.91 E345.16793
G0 F6000 X109.93 Y148.47
G1 F2700 X111.63 Y150.17 E345.31759
G0 F6000 X111.86 Y149.69
G1 F2700 X110.16 Y147.99 E345.46797
G0 F6000 X110.33 Y147.45
G1 F2700 X112.10 Y149.22 E345.62407
G0 F6000 X112.26 Y148.68
G1 F2700 X110.41 Y146.82 E345.78767
G0 F6000 X110.38 Y146.09
G1 F2700 X112.42 Y148.13 E345.96750
G0 F6000 X112.50 Y147.51
G1 F2700 X110.14 Y145.15 E346.17555
G0 F6000 X111.76 Y143.93
G1 F2700 X109.47 Y141.65 E346.37681
G0 F6000 X108.23 Y141.11
G1 F2700 X112.26 Y145.14 E346.73223
G0 F6000 X112.48 Y146.07
G1 F2700 X107.32 Y140.91 E347.18753
G0 F6000 X106.54 Y140.83
G1 F2700 X112.55 Y146.85 E347.71807
G0 F6000 X111.72 Y150.71
G0 X112.49 Y151.03
G1 F2700 X114.61 Y153.14 E347.90455
G0 F6000 X115.31 Y153.14
G1 F2700 X113.20 Y151.03 E348.09104
G0 F6000 X113.91 Y151.03
G1 F2700 X116.02 Y153.14 E348.27739
G0 F6000 X116.72 Y153.14
G1 F2700 X114.61 Y151.03 E348.46375
G0 F6000 X115.32 Y151.03
G1 F2700 X117.43 Y153.14 E348.65010
G0 F6000 X118.14 Y153.14
G1 F2700 X116.03 Y151.03 E348.83646
G0 F6000 X116.73 Y151.03
G1 F2700 X118.85 Y153.14 E349.02281
G0 F6000 X119.55 Y153.14
G1 F2700 X117.44 Y151.03 E349.20921
G0 F6000 X118.15 Y151.03
G1 F2700 X120.26 Y153.14 E349.39561
G0 F6000 X120.97 Y153.14
G1 F2700 X118.85 Y151.03 E349.58201
G0 F6000 X119.56 Y151.03
G1 F2700 X121.67 Y153.14 E349.76841
G0 F6000 X122.38 Y153.14
G1 F2700 X120.27 Y151.03 E349.95480
G0 F6000 X120.98 Y151.03
G1 F2700 X123.09 Y153.14 E350.14116
G0 F6000 X123.80 Y153.14
G1 F2700 X121.68 Y151.03 E350.32751
G0 F6000 X122.39 Y151.03
G1 F2700 X124.50 Y153.14 E350.51387
G0 F6000 X125.21 Y153.14
G1 F2700 X123.10 Y151.03 E350.70018
G0 F6000 X123.80 Y151.03
G1 F2700 X125.92 Y153.14 E350.88649
G0 F6000 X126.62 Y153.14
G1 F2700 X124.51 Y151.03 E351.07280
G0 F6000 X125.22 Y151.03
G1 F2700 X127.33 Y153.14 E351.25911
G0 F6000 X128.04 Y153.14
G1 F2700 X125.92 Y151.03 E351.44542
G0 F6000 X126.63 Y151.03
G1 F2700 X128.75 Y153.14 E351.63173
G0 F6000 X129.45 Y153.14
G1 F2700 X127.34 Y151.03 E351.81800
G0 F6000 X128.05 Y151.03
G1 F2700 X130.16 Y153.14 E352.00426
G0 F6000 X130.87 Y153.14
G1 F2700 X128.75 Y151.03 E352.19057
G0 F6000 X129.46 Y151.03
G1 F2700 X131.57 Y153.14 E352.37688
G0 F6000 X132.28 Y153.14
G1 F2700 X130.17 Y151.03 E352.56319
G0 F6000 X130.88 Y151.03
G1 F2700 X132.99 Y153.14 E352.74950
G0 F6000 X133.69 Y153.14
G1 F2700 X131.58 Y151.03 E352.93581
G0 F6000 X132.29 Y151.03
G1 F2700 X134.40 Y153.14 E353.12208
G0 F6000 X135.11 Y153.14
G1 F2700 X133.00 Y151.03 E353.30839
G0 F6000 X133.70 Y151.03
G1 F2700 X135.82 Y153.14 E353.49470
G0 F6000 X136.52 Y153.14
G1 F2700 X134.41 Y151.03 E353.68097
G0 F6000 X135.12 Y151.03
G1 F2700 X137.23 Y153.14 E353.86723
G0 F6000 X137.94 Y153.14
G1 F2700 X135.82 Y151.03 E354.05350
G0 F6000 X136.53 Y151.03
G1 F2700 X138.64 Y153.14 E354.23977
G0 F6000 X139.35 Y153.14
G1 F2700 X137.24 Y151.03 E354.42603
G0 F6000 X137.95 Y151.03
G1 F2700 X140.06 Y153.14 E354.61230
G0 F6000 X140.76 Y153.14
G1 F2700 X138.65 Y151.03 E354.79856
G0 F6000 X139.36 Y151.03
G1 F2700 X141.47 Y153.14 E354.98483
G0 F6000 X142.18 Y153.14
G1 F2700 X140.07 Y151.03 E355.17114
G0 F6000 X140.78 Y151.03
G1 F2700 X142.89 Y153.14 E355.35741
G0 F6000 X143.55 Y153.10
G1 F2700 X141.48 Y151.03 E355.53979
G0 F6000 X142.19 Y151.03
G1 F2700 X143.55 Y152.39 E355.65983
G0 F6000 X143.55 Y151.68
G1 F2700 X142.90 Y151.03 E355.71750
G0 F6000 X111.72 Y150.71
G0 X112.05 Y143.90
G0 X107.96 Y142.96
G1 F2700 X105.89 Y140.89 E355.89998
G0 F6000 X105.26 Y140.97
G1 F2700 X107.01 Y142.72 E356.05458
G0 F6000 X106.28 Y142.69
G1 F2700 X104.72 Y141.13 E356.19208
G0 F6000 X104.17 Y141.30
G1 F2700 X105.65 Y142.77 E356.32199
G0 F6000 X105.11 Y142.94
G1 F2700 X103.71 Y141.54 E356.44484
G0 F6000 X161.27 Y150.85
;TYPE:WALL-INNER
G1 F2700 X192.36 Y150.85 E358.38364
G1 X193.41 Y150.64 E358.45054
G1 X192.74 Y149.30 E358.54416
G1 X192.36 Y148.01 E358.62813
G1 X192.27 Y146.90 E358.69781
G1 X192.36 Y145.79 E358.76711
G1 X192.74 Y144.53 E358.84932
G1 X193.30 Y143.44 E358.92530
G1 X194.08 Y142.49 E359.00229
G1 X195.05 Y141.71 E359.08000
G1 X196.10 Y141.14 E359.15464
G1 X197.27 Y140.78 E359.23082
G1 X198.51 Y140.66 E359.30863
G1 X199.71 Y140.77 E359.38338
G1 X200.90 Y141.14 E359.46109
G1 X201.94 Y141.69 E359.53455
G1 X202.89 Y142.49 E359.61199
G1 X203.67 Y143.43 E359.68842
G1 X204.26 Y144.50 E359.76408
G1 X204.61 Y145.69 E359.84156
G1 X204.74 Y146.90 E359.91781
G1 X204.61 Y148.12 E359.99393
G1 X204.26 Y149.31 E360.07145
G1 X203.50 Y150.87 E360.17969
G1 X204.81 Y150.85 E360.26120
G1 X209.75 Y150.85 E360.56946
G1 X209.75 Y164.35 E361.41099
G1 X207.50 Y164.35 E361.55099
G1 X207.50 Y154.29 E362.17823
G1 X207.50 Y153.32 E362.23860
G1 X161.27 Y153.32 E365.12120
G1 X161.27 Y150.85 E365.27498
G0 F6000 X192.36 Y150.80
G0 X193.22 Y150.55
G0 X194.81 Y147.25
G1 F2700 X194.82 Y147.35 E365.28096
G1 X195.01 Y147.96 E365.32064
G1 X195.04 Y148.05 E365.32661
G1 X195.37 Y148.66 E365.37030
G1 X195.78 Y149.18 E365.41163
G1 X195.85 Y149.25 E365.41778
G1 X196.34 Y149.66 E365.45757
G1 X196.41 Y149.72 E365.46364
G1 X197.04 Y150.06 E365.50794
G1 X197.66 Y150.25 E365.54812
G1 X197.76 Y150.28 E365.55475
G1 X198.38 Y150.34 E365.59404
G1 X198.49 Y150.36 E365.60046
G1 X199.15 Y150.29 E365.64206
G1 X199.25 Y150.28 E365.64804
G1 X199.85 Y150.09 E365.68772
G1 X199.94 Y150.06 E365.69369
G1 X200.56 Y149.73 E365.73738
G1 X201.08 Y149.32 E365.77871
G1 X201.15 Y149.25 E365.78486
G1 X201.56 Y148.76 E365.82465
G1 X201.62 Y148.69 E365.83072
G1 X201.96 Y148.06 E365.87503
G1 X202.15 Y147.44 E365.91520
G1 X202.18 Y147.34 E365.92183
G1 X202.24 Y146.72 E365.96061
G1 X202.25 Y146.62 E365.96748
G1 X202.19 Y145.95 E366.00914
G1 X202.18 Y145.85 E366.01512
G1 X201.99 Y145.25 E366.05474
G1 X201.96 Y145.16 E366.06071
G1 X201.63 Y144.54 E366.10446
G1 X201.22 Y144.02 E366.14578
G1 X201.15 Y143.95 E366.15194
G1 X200.66 Y143.54 E366.19173
G1 X200.59 Y143.48 E366.19780
G1 X199.96 Y143.15 E366.24210
G1 X199.34 Y142.95 E366.28228
G1 X199.24 Y142.92 E366.28897
G1 X198.59 Y142.86 E366.32951
G1 X198.51 Y142.85 E366.33448
G1 X197.85 Y142.91 E366.37614
G1 X197.75 Y142.92 E366.38218
G1 X197.15 Y143.11 E366.42186
G1 X197.05 Y143.14 E366.42783
G1 X196.44 Y143.47 E366.47152
G1 X195.92 Y143.88 E366.51285
G1 X195.84 Y143.95 E366.51901
G1 X195.44 Y144.44 E366.55879
G1 X195.38 Y144.51 E366.56486
G1 X195.04 Y145.14 E366.60928
G1 X194.85 Y145.76 E366.64934
G1 X194.82 Y145.86 E366.65602
G1 X194.76 Y146.50 E366.69644
G1 X194.75 Y146.59 E366.70160
G1 X194.81 Y147.25 E366.74326
G0 F6000 X195.31 Y147.19
;TYPE:WALL-OUTER
G1 F2700 X195.31 Y147.24 E366.74615
G1 X195.48 Y147.80 E366.78297
G1 X195.50 Y147.85 E366.78585
G1 X195.78 Y148.39 E366.82396
G1 X196.17 Y148.86 E366.86214
G1 X196.20 Y148.90 E366.86515
G1 X196.69 Y149.30 E366.90490
G1 X197.24 Y149.59 E366.94315
G1 X197.82 Y149.78 E366.98129
G1 X197.86 Y149.79 E366.98411
G1 X198.44 Y149.85 E367.02058
G1 X198.50 Y149.85 E367.02379
G1 X199.09 Y149.79 E367.06120
G1 X199.14 Y149.79 E367.06410
G1 X199.70 Y149.62 E367.10091
G1 X199.75 Y149.60 E367.10379
G1 X200.29 Y149.31 E367.14190
G1 X200.76 Y148.93 E367.18008
G1 X200.80 Y148.90 E367.18309
G1 X201.20 Y148.41 E367.22284
G1 X201.49 Y147.87 E367.26109
G1 X201.67 Y147.29 E367.29890
G1 X201.69 Y147.24 E367.30206
G1 X201.75 Y146.66 E367.33846
G1 X201.75 Y146.61 E367.34168
G1 X201.69 Y146.01 E367.37915
G1 X201.69 Y145.96 E367.38204
G1 X201.52 Y145.40 E367.41880
G1 X201.50 Y145.35 E367.42168
G1 X201.21 Y144.81 E367.45984
G1 X200.83 Y144.34 E367.49802
G1 X200.80 Y144.30 E367.50103
G1 X200.31 Y143.90 E367.54078
G1 X199.76 Y143.61 E367.57903
G1 X199.18 Y143.43 E367.61718
G1 X199.14 Y143.41 E367.62000
G1 X198.56 Y143.36 E367.65646
G1 X198.50 Y143.35 E367.65961
G1 X197.91 Y143.41 E367.69708
G1 X197.86 Y143.41 E367.69997
G1 X197.30 Y143.58 E367.73678
G1 X197.25 Y143.60 E367.73966
G1 X196.71 Y143.89 E367.77777
G1 X196.24 Y144.27 E367.81595
G1 X196.20 Y144.30 E367.81896
G1 X195.80 Y144.79 E367.85871
G1 X195.51 Y145.34 E367.89702
G1 X195.32 Y145.92 E367.93505
G1 X195.31 Y145.96 E367.93793
G1 X195.25 Y146.54 E367.97439
G1 X195.25 Y146.60 E367.97760
G1 X195.31 Y147.19 E368.01501
G0 F6000 X194.96 Y147.22
G0 X192.22 Y148.03
G0 X191.87 Y148.10
G1 F2700 X191.76 Y146.90 E368.09026
G1 X191.87 Y145.69 E368.16545
G1 X192.27 Y144.34 E368.25389
G1 X192.88 Y143.17 E368.33601
G1 X193.73 Y142.13 E368.41947
G1 X194.78 Y141.29 E368.50329
G1 X195.91 Y140.68 E368.58365
G1 X197.17 Y140.28 E368.66626
G1 X198.51 Y140.15 E368.74971
G1 X199.81 Y140.28 E368.83135
G1 X201.05 Y140.66 E368.91243
G1 X201.11 Y140.68 E368.91606
G1 X202.22 Y141.28 E368.99474
G1 X203.25 Y142.13 E369.07790
G1 X204.09 Y143.15 E369.16062
G1 X204.72 Y144.30 E369.24240
G1 X205.10 Y145.58 E369.32580
G1 X205.24 Y146.90 E369.40850
G1 X205.11 Y148.21 E369.49058
G1 X204.74 Y149.48 E369.57297
G1 X204.31 Y150.36 E369.63396
G1 X204.80 Y150.35 E369.66477
G1 X210.25 Y150.35 E370.00459
G1 X210.25 Y164.85 E370.90841
G1 X207.00 Y164.85 E371.11078
G1 X207.00 Y154.29 E371.76921
G1 X207.00 Y153.82 E371.79845
G1 X160.77 Y153.82 E374.68117
G1 X160.77 Y150.35 E374.89732
G1 X192.31 Y150.35 E376.86424
G1 X192.67 Y150.28 E376.88694
G1 X192.27 Y149.49 E376.94247
G1 X191.87 Y148.10 E377.03258
G0 F6000 X192.50 Y147.60
;TYPE:FILL
G1 F2700 X198.05 Y153.15 E377.52162
G0 F6000 X197.34 Y153.15
G1 F2700 X192.68 Y148.49 E377.93242
G0 F6000 X193.07 Y149.59
G1 F2700 X196.63 Y153.15 E378.24622
G0 F6000 X195.93 Y153.15
G1 F2700 X193.57 Y150.79 E378.45401
G0 F6000 X192.98 Y150.91
G1 F2700 X195.22 Y153.15 E378.65138
G0 F6000 X194.51 Y153.15
G1 F2700 X192.39 Y151.03 E378.83836
G0 F6000 X191.69 Y151.03
G1 F2700 X193.80 Y153.15 E379.02515
G0 F6000 X193.10 Y153.15
G1 F2700 X190.98 Y151.03 E379.21199
G0 F6000 X190.27 Y151.03
G1 F2700 X192.39 Y153.15 E379.39883
G0 F6000 X191.68 Y153.15
G1 F2700 X189.56 Y151.03 E379.58567
G0 F6000 X188.86 Y151.03
G1 F2700 X190.98 Y153.15 E379.77251
G0 F6000 X190.27 Y153.15
G1 F2700 X188.15 Y151.03 E379.95930
G0 F6000 X187.44 Y151.03
G1 F2700 X189.56 Y153.15 E380.14610
G0 F6000 X188.85 Y153.15
G1 F2700 X186.74 Y151.03 E380.33290
G0 F6000 X186.03 Y151.03
G1 F2700 X188.15 Y153.15 E380.51965
G0 F6000 X187.44 Y153.15
G1 F2700 X185.32 Y151.03 E380.70640
G0 F6000 X184.61 Y151.03
G1 F2700 X186.73 Y153.15 E380.89319
G0 F6000 X186.03 Y153.15
G1 F2700 X183.91 Y151.03 E381.07999
G0 F6000 X183.20 Y151.03
G1 F2700 X185.32 Y153.15 E381.26678
G0 F6000 X184.61 Y153.15
G1 F2700 X182.49 Y151.03 E381.45358
G0 F6000 X181.79 Y151.03
G1 F2700 X183.90 Y153.14 E381.64029
G0 F6000 X183.20 Y153.14
G1 F2700 X181.08 Y151.03 E381.82699
G0 F6000 X180.37 Y151.03
G1 F2700 X182.49 Y153.14 E382.01370
G0 F6000 X181.78 Y153.14
G1 F2700 X179.66 Y151.03 E382.20041
G0 F6000 X178.96 Y151.03
G1 F2700 X181.07 Y153.14 E382.38712
G0 F6000 X180.37 Y153.14
G1 F2700 X178.25 Y151.03 E382.57382
G0 F6000 X177.54 Y151.03
G1 F2700 X179.66 Y153.14 E382.76053
G0 F6000 X178.95 Y153.14
G1 F2700 X176.84 Y151.03 E382.94728
G0 F6000 X176.13 Y151.03
G1 F2700 X178.25 Y153.14 E383.13403
G0 F6000 X177.54 Y153.14
G1 F2700 X175.42 Y151.03 E383.32074
G0 F6000 X174.71 Y151.03
G1 F2700 X176.83 Y153.14 E383.50745
G0 F6000 X176.12 Y153.14
G1 F2700 X174.01 Y151.03 E383.69416
G0 F6000 X173.30 Y151.03
G1 F2700 X175.42 Y153.14 E383.88086
G0 F6000 X174.71 Y153.14
G1 F2700 X172.59 Y151.03 E384.06757
G0 F6000 X171.89 Y151.03
G1 F2700 X174.00 Y153.14 E384.25428
G0 F6000 X173.30 Y153.14
G1 F2700 X171.18 Y151.03 E384.44098
G0 F6000 X170.47 Y151.03
G1 F2700 X172.59 Y153.14 E384.62765
G0 F6000 X171.88 Y153.14
G1 F2700 X169.76 Y151.03 E384.81431
G0 F6000 X169.06 Y151.03
G1 F2700 X171.17 Y153.14 E385.00102
G0 F6000 X170.47 Y153.14
G1 F2700 X168.35 Y151.03 E385.18772
G0 F6000 X167.64 Y151.03
G1 F2700 X169.76 Y153.14 E385.37443
G0 F6000 X169.05 Y153.14
G1 F2700 X166.94 Y151.03 E385.56110
G0 F6000 X166.23 Y151.03
G1 F2700 X168.34 Y153.14 E385.74776
G0 F6000 X167.64 Y153.14
G1 F2700 X165.52 Y151.03 E385.93442
G0 F6000 X164.81 Y151.03
G1 F2700 X166.93 Y153.14 E386.12100
G0 F6000 X166.22 Y153.14
G1 F2700 X164.11 Y151.03 E386.30757
G0 F6000 X163.40 Y151.03
G1 F2700 X165.52 Y153.14 E386.49415
G0 F6000 X164.81 Y153.14
G1 F2700 X162.69 Y151.03 E386.68077
G0 F6000 X161.99 Y151.03
G1 F2700 X164.10 Y153.14 E386.86738
G0 F6000 X163.40 Y153.14
G1 F2700 X161.45 Y151.19 E387.03914
G0 F6000 X161.45 Y151.90
G1 F2700 X162.69 Y153.14 E387.14850
G0 F6000 X161.98 Y153.14
G1 F2700 X161.45 Y152.61 E387.19551
G0 F6000 X193.22 Y150.55
G0 X192.45 Y146.84
G1 F2700 X198.75 Y153.15 E387.75188
G0 F6000 X199.46 Y153.15
G1 F2700 X192.50 Y146.19 E388.36554
G0 F6000 X192.61 Y145.58
G1 F2700 X194.76 Y147.73 E388.55520
G0 F6000 X194.60 Y146.87
G1 F2700 X192.77 Y145.04 E388.71647
G0 F6000 X192.94 Y144.51
G1 F2700 X194.61 Y146.18 E388.86362
G0 F6000 X194.72 Y145.58
G1 F2700 X193.19 Y144.04 E388.99917
G0 F6000 X193.43 Y143.58
G1 F2700 X194.90 Y145.04 E389.12860
G0 F6000 X195.14 Y144.58
G1 F2700 X193.74 Y143.18 E389.25225
G0 F6000 X194.06 Y142.79
G1 F2700 X195.44 Y144.17 E389.37364
G0 F6000 X195.76 Y143.79
G1 F2700 X194.42 Y142.44 E389.49227
G0 F6000 X194.81 Y142.13
G1 F2700 X196.15 Y143.47 E389.61075
G0 F6000 X196.58 Y143.19
G1 F2700 X195.21 Y141.82 E389.73167
G0 F6000 X195.67 Y141.57
G1 F2700 X197.05 Y142.95 E389.85338
G0 F6000 X197.59 Y142.79
G1 F2700 X196.12 Y141.32 E389.98263
G0 F6000 X196.66 Y141.15
G1 F2700 X198.21 Y142.70 E390.11933
G0 F6000 X198.93 Y142.71
G1 F2700 X197.20 Y140.98 E390.27199
G0 F6000 X197.82 Y140.90
G1 F2700 X199.85 Y142.93 E390.45094
G0 F6000 X200.13 Y141.08
G1 F2700 X204.30 Y145.26 E390.81924
G0 F6000 X204.49 Y146.15
G1 F2700 X199.24 Y140.90 E391.28190
G0 F6000 X198.47 Y140.84
G1 F2700 X204.56 Y146.93 E391.81945
G0 F6000 X204.49 Y147.57
G1 F2700 X202.18 Y145.25 E392.02379
G0 F6000 X202.38 Y146.17
G1 F2700 X204.41 Y148.19 E392.20230
G0 F6000 X204.25 Y148.74
G1 F2700 X202.40 Y146.89 E392.36546
G0 F6000 X202.31 Y147.51
G1 F2700 X204.08 Y149.28 E392.52191
G0 F6000 X203.85 Y149.76
G1 F2700 X202.14 Y148.05 E392.67268
G0 F6000 X201.91 Y148.52
G1 F2700 X203.62 Y150.23 E392.82349
G0 F6000 X203.38 Y150.70
G1 F2700 X201.63 Y148.95 E392.97823
G0 F6000 X201.31 Y149.34
G1 F2700 X205.12 Y153.15 E393.31425
G0 F6000 X204.41 Y153.15
G1 F2700 X200.93 Y149.66 E393.62161
G0 F6000 X200.51 Y149.96
G1 F2700 X203.71 Y153.15 E393.90295
G0 F6000 X203.00 Y153.15
G1 F2700 X200.06 Y150.20 E394.16250
G0 F6000 X199.52 Y150.38
G1 F2700 X202.29 Y153.15 E394.40689
G0 F6000 X201.58 Y153.15
G1 F2700 X198.93 Y150.49 E394.64131
G0 F6000 X198.23 Y150.50
G1 F2700 X200.88 Y153.15 E394.87441
G0 F6000 X200.17 Y153.15
G1 F2700 X197.36 Y150.34 E395.12179
G0 F6000 X203.72 Y151.04
G1 F2700 X205.83 Y153.15 E395.30718
G0 F6000 X206.53 Y153.15
G1 F2700 X204.43 Y151.04 E395.49269
G0 F6000 X205.13 Y151.04
G1 F2700 X207.24 Y153.15 E395.67839
G0 F6000 X207.67 Y153.58
G1 F2700 X209.57 Y155.48 E395.84618
G0 F6000 X209.57 Y156.19
G1 F2700 X207.67 Y154.28 E396.01392
G0 F6000 X207.67 Y154.99
G1 F2700 X209.57 Y156.89 E396.18162
G0 F6000 X209.57 Y157.60
G1 F2700 X207.67 Y155.70 E396.34924
G0 F6000 X207.67 Y156.41
G1 F2700 X209.57 Y158.31 E396.51685
G0 F6000 X209.57 Y159.01
G1 F2700 X207.67 Y157.12 E396.68442
G0 F6000 X207.67 Y157.82
G1 F2700 X209.57 Y159.72 E396.85199
G0 F6000 X209.57 Y160.43
G1 F2700 X207.67 Y158.53 E397.01947
G0 F6000 X207.67 Y159.24
G1 F2700 X209.57 Y161.14 E397.18695
G0 F6000 X209.57 Y161.84
G1 F2700 X207.68 Y159.94 E397.35439
G0 F6000 X207.68 Y160.65
G1 F2700 X209.57 Y162.55 E397.52178
G0 F6000 X209.57 Y163.26
G1 F2700 X207.68 Y161.36 E397.68917
G0 F6000 X207.68 Y162.07
G1 F2700 X209.57 Y163.97 E397.85648
G0 F6000 X209.07 Y164.17
G1 F2700 X207.68 Y162.78 E397.97977
G0 F6000 X207.68 Y163.48
G1 F2700 X208.37 Y164.17 E398.04063
G0 F6000 X209.57 Y154.77
G1 F2700 X205.84 Y151.04 E398.36986
G0 F6000 X206.54 Y151.04
G1 F2700 X209.57 Y154.06 E398.63691
G0 F6000 X209.57 Y153.36
G1 F2700 X207.25 Y151.03 E398.84178
G0 F6000 X207.96 Y151.03
G1 F2700 X209.57 Y152.65 E398.98448
G0 F6000 X209.57 Y151.94
G1 F2700 X208.66 Y151.03 E399.06505
G0 F6000 X209.37 Y151.03
G1 F2700 X209.57 Y151.24 E399.08343
G0 F6000 X203.73 Y150.72
G0 X203.82 Y144.07
G1 F2700 X201.30 Y141.55 E399.30582
G0 F6000 X104.99 Y154.69
;TYPE:SUPPORT
G1 F2700 X104.99 Y165.57 E399.98439
G0 F6000 X104.99 Y165.40
G0 X101.66 Y165.40
G0 X101.66 Y165.57
G1 F2700 X101.66 Y154.69 E400.66295
G0 F6000 X148.32 Y157.29
G1 F2700 X148.32 Y149.43 E401.15356
G0 F6000 X148.32 Y149.60
G0 X151.65 Y149.60
G0 X151.65 Y149.43
G1 F2700 X151.65 Y157.29 E401.64380
G0 F6000 X151.65 Y157.11
G0 X154.98 Y157.10
G0 X154.98 Y157.28
G1 F2700 X154.98 Y149.43 E402.13359
G0 F6000 X154.98 Y149.60
G0 X158.32 Y149.60
G0 X158.32 Y149.43
G1 F2700 X158.32 Y157.27 E402.62302
G0 F6000 X198.31 Y154.70
G1 F2700 X198.31 Y165.78 E403.31381
G0 F6000 X198.31 Y165.60
G0 X201.65 Y165.60
G0 X201.65 Y165.78
G1 F2700 X201.65 Y154.70 E404.00460
G0 F6000 X201.65 Y154.87
G0 X204.98 Y154.87
G0 X204.98 Y154.70
G1 F2700 X204.98 Y165.78 E404.69539
;LAYER:1
G0 F6000 X207.50 Y164.35 Z0.50
;TYPE:WALL-INNER
G1 F3480 X207.50 Y154.51 E405.10433
G1 X207.50 Y153.32 E405.15380
G1 X161.27 Y153.32 E407.07549
G1 X161.27 Y150.85 E407.17801
G1 X192.36 Y150.85 E408.47054
G1 X193.41 Y150.64 E408.51514
G1 X192.74 Y149.30 E408.57756
G1 X192.39 Y148.10 E408.62972
G1 X192.37 Y148.01 E408.63349
G1 X192.27 Y146.90 E408.68003
G1 X192.36 Y145.79 E408.72615
G1 X192.74 Y144.50 E408.78190
G1 X193.29 Y143.46 E408.83083
G1 X194.08 Y142.49 E408.88306
G1 X195.05 Y141.71 E408.93474
G1 X196.12 Y141.13 E408.98530
G1 X197.27 Y140.78 E409.03534
G1 X198.52 Y140.66 E409.08730
G1 X199.71 Y140.77 E409.13705
G1 X200.90 Y141.14 E409.18872
G1 X200.91 Y141.14 E409.18947
G1 X201.96 Y141.70 E409.23870
G1 X202.89 Y142.49 E409.28948
G1 X203.67 Y143.43 E409.34031
G1 X204.27 Y144.51 E409.39165
G1 X204.61 Y145.69 E409.44260
G1 X204.74 Y146.90 E409.49326
G1 X204.61 Y148.12 E409.54418
G1 X204.28 Y149.27 E409.59413
G1 X203.52 Y150.86 E409.66733
G1 X204.89 Y150.85 E409.72433
G1 X209.75 Y150.85 E409.92634
G1 X209.75 Y164.35 E410.48736
G1 X207.50 Y164.35 E410.58069
G0 F6000 X207.39 Y153.43
G0 X199.89 Y150.08
G1 F3480 X200.48 Y149.78 E410.60838
G1 X200.59 Y149.72 E410.61352
G1 X201.06 Y149.33 E410.63898
G1 X201.16 Y149.25 E410.64394
G1 X201.54 Y148.78 E410.66953
G1 X201.62 Y148.69 E410.67449
G1 X201.91 Y148.14 E410.70021
G1 X201.97 Y148.04 E410.70486
G1 X202.17 Y147.38 E410.73363
G1 X202.24 Y146.73 E410.76078
G1 X202.25 Y146.61 E410.76593
G1 X202.19 Y145.98 E410.79224
G1 X202.18 Y145.86 E410.79710
G1 X202.00 Y145.27 E410.82273
G1 X201.97 Y145.16 E410.82757
G1 X201.67 Y144.61 E410.85333
G1 X201.62 Y144.51 E410.85823
G1 X201.23 Y144.04 E410.88369
G1 X201.15 Y143.94 E410.88865
G1 X200.68 Y143.56 E410.91424
G1 X200.59 Y143.48 E410.91920
G1 X200.04 Y143.19 E410.94492
G1 X199.94 Y143.13 E410.94957
G1 X199.28 Y142.93 E410.97834
G1 X198.63 Y142.86 E411.00548
G1 X198.51 Y142.85 E411.01059
G1 X197.88 Y142.91 E411.03690
G1 X197.76 Y142.92 E411.04180
G1 X197.11 Y143.12 E411.07008
G1 X196.52 Y143.42 E411.09776
G1 X196.41 Y143.48 E411.10290
G1 X195.94 Y143.87 E411.12837
G1 X195.84 Y143.95 E411.13333
G1 X195.45 Y144.42 E411.15891
G1 X195.38 Y144.51 E411.16387
G1 X195.09 Y145.05 E411.18915
G1 X195.03 Y145.16 E411.19429
G1 X194.85 Y145.75 E411.21979
G1 X194.82 Y145.86 E411.22489
G1 X194.76 Y146.47 E411.25024
G1 X194.75 Y146.59 E411.25535
G1 X194.81 Y147.22 E411.28162
G1 X194.82 Y147.34 E411.28652
G1 X195.02 Y147.99 E411.31479
G1 X195.32 Y148.58 E411.34248
G1 X195.38 Y148.69 E411.34762
G1 X195.77 Y149.16 E411.37308
G1 X195.85 Y149.26 E411.37804
G1 X196.32 Y149.65 E411.40363
G1 X196.41 Y149.72 E411.40859
G1 X196.96 Y150.01 E411.43431
G1 X197.06 Y150.07 E411.43896
G1 X197.72 Y150.27 E411.46773
G1 X198.37 Y150.34 E411.49492
G1 X198.49 Y150.35 E411.50007
G1 X199.12 Y150.29 E411.52634
G1 X199.24 Y150.28 E411.53120
G1 X199.89 Y150.08 E411.55948
G0 F6000 X199.70 Y149.62
;TYPE:WALL-OUTER
G1 F3480 X200.25 Y149.34 E411.58501
G1 X200.31 Y149.30 E411.58791
G1 X200.80 Y148.90 E411.61435
G1 X201.20 Y148.41 E411.64088
G1 X201.47 Y147.91 E411.66436
G1 X201.50 Y147.85 E411.66726
G1 X201.68 Y147.28 E411.69193
G1 X201.75 Y146.60 E411.72021
G1 X201.70 Y146.03 E411.74411
G1 X201.69 Y145.96 E411.74691
G1 X201.52 Y145.42 E411.77055
G1 X201.50 Y145.36 E411.77335
G1 X201.24 Y144.85 E411.79702
G1 X201.20 Y144.79 E411.79987
G1 X200.80 Y144.30 E411.82631
G1 X200.31 Y143.90 E411.85284
G1 X199.80 Y143.63 E411.87646
G1 X199.75 Y143.60 E411.87922
G1 X199.18 Y143.43 E411.90389
G1 X198.57 Y143.36 E411.92924
G1 X198.50 Y143.35 E411.93213
G1 X197.93 Y143.40 E411.95601
G1 X197.86 Y143.41 E411.95886
G1 X197.30 Y143.58 E411.98336
G1 X196.75 Y143.86 E412.00889
G1 X196.69 Y143.90 E412.01180
G1 X196.20 Y144.30 E412.03824
G1 X195.80 Y144.79 E412.06477
G1 X195.53 Y145.29 E412.08828
G1 X195.50 Y145.35 E412.09118
G1 X195.33 Y145.90 E412.11476
G1 X195.31 Y145.97 E412.11768
G1 X195.26 Y146.53 E412.14145
G1 X195.25 Y146.60 E412.14413
G1 X195.30 Y147.17 E412.16797
G1 X195.31 Y147.24 E412.17082
G1 X195.48 Y147.80 E412.19532
G1 X195.76 Y148.35 E412.22085
G1 X195.80 Y148.41 E412.22375
G1 X196.20 Y148.90 E412.25020
G1 X196.69 Y149.30 E412.27673
G1 X197.19 Y149.57 E412.30035
G1 X197.25 Y149.60 E412.30310
G1 X197.82 Y149.78 E412.32778
G1 X198.50 Y149.85 E412.35610
G1 X199.07 Y149.80 E412.37995
G1 X199.14 Y149.79 E412.38275
G1 X199.70 Y149.62 E412.40726
G0 F6000 X199.80 Y149.95
G0 X204.00 Y150.20
G0 X204.31 Y150.35
G1 F3480 X204.89 Y150.35 E412.43116
G1 X210.25 Y150.35 E412.65405
G1 X210.25 Y164.85 E413.25660
G1 X207.00 Y164.85 E413.39151
G1 X207.00 Y154.51 E413.82123
G1 X207.00 Y153.82 E413.84996
G1 X160.77 Y153.82 E415.77173
G1 X160.77 Y150.35 E415.91583
G1 X192.31 Y150.35 E417.22711
G1 X192.67 Y150.28 E417.24224
G1 X192.27 Y149.49 E417.27926
G1 X191.91 Y148.24 E417.33336
G1 X191.87 Y148.10 E417.33920
G1 X191.77 Y146.92 E417.38862
G1 X191.76 Y146.90 E417.38950
G1 X191.87 Y145.70 E417.43958
G1 X192.28 Y144.31 E417.49953
G1 X192.87 Y143.19 E417.55250
G1 X193.72 Y142.14 E417.60831
G1 X194.76 Y141.30 E417.66391
G1 X195.93 Y140.66 E417.71936
G1 X197.16 Y140.29 E417.77285
G1 X198.48 Y140.16 E417.82816
G1 X198.51 Y140.15 E417.82934
G1 X199.81 Y140.28 E417.88356
G1 X201.04 Y140.66 E417.93701
G1 X201.11 Y140.68 E417.94006
G1 X202.24 Y141.29 E417.99339
G1 X203.23 Y142.12 E418.04721
G1 X204.09 Y143.15 E418.10300
G1 X204.73 Y144.32 E418.15846
G1 X205.10 Y145.57 E418.21257
G1 X205.24 Y146.88 E418.26768
G1 X205.24 Y146.90 E418.26827
G1 X205.11 Y148.20 E418.32253
G1 X205.11 Y148.21 E418.32324
G1 X204.75 Y149.44 E418.37653
G1 X204.31 Y150.35 E418.41843
G0 F6000 X204.29 Y151.03
;TYPE:FILL
G1 F3480 X202.17 Y153.15 E418.54270
G0 F6000 X202.88 Y153.15
G1 F3480 X204.99 Y151.03 E418.66702
G0 F6000 X205.70 Y151.03
G1 F3480 X203.59 Y153.15 E418.79138
G0 F6000 X204.29 Y153.15
G1 F3480 X206.41 Y151.03 E418.91582
G0 F6000 X207.12 Y151.03
G1 F3480 X205.00 Y153.15 E419.04032
G0 F6000 X205.71 Y153.15
G1 F3480 X207.83 Y151.03 E419.16485
G0 F6000 X208.53 Y151.03
G1 F3480 X206.41 Y153.15 E419.28944
G0 F6000 X207.12 Y153.15
G1 F3480 X209.24 Y151.03 E419.41409
G0 F6000 X209.57 Y151.40
G1 F3480 X207.67 Y153.31 E419.52597
G0 F6000 X207.67 Y154.01
G1 F3480 X209.57 Y152.11 E419.63786
G0 F6000 X209.57 Y152.82
G1 F3480 X207.67 Y154.72 E419.74969
G0 F6000 X207.67 Y155.43
G1 F3480 X209.57 Y153.53 E419.86149
G0 F6000 X209.57 Y154.23
G1 F3480 X207.67 Y156.13 E419.97330
G0 F6000 X207.67 Y156.84
G1 F3480 X209.57 Y154.94 E420.08504
G0 F6000 X209.57 Y155.65
G1 F3480 X207.67 Y157.55 E420.19675
G0 F6000 X207.67 Y158.25
G1 F3480 X209.57 Y156.35 E420.30840
G0 F6000 X209.57 Y157.06
G1 F3480 X207.67 Y158.96 E420.42006
G0 F6000 X207.68 Y159.67
G1 F3480 X209.57 Y157.77 E420.53165
G0 F6000 X209.57 Y158.47
G1 F3480 X207.68 Y160.37 E420.64325
G0 F6000 X207.68 Y161.08
G1 F3480 X209.57 Y159.18 E420.75484
G0 F6000 X209.57 Y159.89
G1 F3480 X207.68 Y161.79 E420.86638
G0 F6000 X207.68 Y162.49
G1 F3480 X209.57 Y160.60 E420.97789
G0 F6000 X209.57 Y161.30
G1 F3480 X207.68 Y163.20 E421.08936
G0 F6000 X207.68 Y163.91
G1 F3480 X209.57 Y162.01 E421.20084
G0 F6000 X209.57 Y162.72
G1 F3480 X208.12 Y164.17 E421.28645
G0 F6000 X208.82 Y164.17
G1 F3480 X209.57 Y163.43 E421.33046
G0 F6000 X207.39 Y153.43
G0 X201.47 Y153.15
G1 F3480 X203.58 Y151.03 E421.45464
G0 F6000 X203.58 Y150.33
G1 F3480 X200.76 Y153.15 E421.62026
G0 F6000 X200.05 Y153.15
G1 F3480 X204.16 Y149.04 E421.86174
G0 F6000 X204.44 Y148.05
G1 F3480 X199.34 Y153.15 E422.16148
G0 F6000 X198.64 Y153.15
G1 F3480 X204.53 Y147.26 E422.50765
G0 F6000 X204.53 Y146.55
G1 F3480 X197.93 Y153.15 E422.89547
G0 F6000 X197.22 Y153.15
G1 F3480 X200.31 Y150.06 E423.07676
G0 F6000 X199.20 Y150.46
G1 F3480 X196.52 Y153.15 E423.23472
G0 F6000 X195.81 Y153.15
G1 F3480 X198.43 Y150.52 E423.38894
G0 F6000 X197.80 Y150.45
G1 F3480 X195.10 Y153.15 E423.54734
G0 F6000 X194.40 Y153.15
G1 F3480 X197.24 Y150.30 E423.71444
G0 F6000 X196.74 Y150.09
G1 F3480 X193.69 Y153.15 E423.89382
G0 F6000 X192.98 Y153.15
G1 F3480 X196.28 Y149.84 E424.08803
G0 F6000 X195.90 Y149.52
G1 F3480 X192.28 Y153.15 E424.30099
G0 F6000 X191.57 Y153.15
G1 F3480 X195.55 Y149.17 E424.53491
G0 F6000 X195.23 Y148.78
G1 F3480 X193.53 Y150.48 E424.63492
G0 F6000 X193.29 Y150.01
G1 F3480 X194.99 Y148.31 E424.73467
G0 F6000 X194.78 Y147.81
G1 F3480 X193.05 Y149.54 E424.83624
G0 F6000 X192.84 Y149.04
G1 F3480 X194.63 Y147.25 E424.94143
G0 F6000 X194.57 Y146.61
G1 F3480 X192.69 Y148.49 E425.05231
G0 F6000 X192.53 Y147.94
G1 F3480 X194.65 Y145.82 E425.17652
G0 F6000 X195.10 Y144.66
G1 F3480 X192.48 Y147.29 E425.33074
G0 F6000 X192.47 Y146.59
G1 F3480 X198.19 Y140.86 E425.66741
G0 F6000 X198.90 Y140.87
G1 F3480 X196.56 Y143.21 E425.80476
G0 F6000 X197.72 Y142.75
G1 F3480 X199.54 Y140.93 E425.91165
G0 F6000 X200.10 Y141.08
G1 F3480 X198.51 Y142.67 E426.00549
G0 F6000 X199.14 Y142.74
G1 F3480 X200.64 Y141.24 E426.09368
G0 F6000 X201.13 Y141.46
G1 F3480 X199.71 Y142.88 E426.17723
G0 F6000 X200.22 Y143.08
G1 F3480 X201.59 Y141.71 E426.25819
G0 F6000 X202.02 Y141.99
G1 F3480 X200.68 Y143.33 E426.33713
G0 F6000 X201.07 Y143.65
G1 F3480 X202.41 Y142.31 E426.41592
G0 F6000 X202.79 Y142.63
G1 F3480 X201.42 Y144.00 E426.49608
G0 F6000 X201.74 Y144.39
G1 F3480 X203.11 Y143.02 E426.57631
G0 F6000 X203.43 Y143.41
G1 F3480 X201.99 Y144.84 E426.66057
G0 F6000 X202.20 Y145.34
G1 F3480 X203.70 Y143.84 E426.74853
G0 F6000 X203.95 Y144.30
G1 F3480 X202.36 Y145.89 E426.84201
G0 F6000 X202.42 Y146.53
G1 F3480 X204.16 Y144.79 E426.94452
G0 F6000 X204.33 Y145.34
G1 F3480 X202.35 Y147.31 E427.06070
G0 F6000 X201.97 Y148.40
G1 F3480 X204.46 Y145.91 E427.20711
G0 F6000 X197.41 Y140.94
G1 F3480 X192.54 Y145.81 E427.49353
G0 F6000 X192.84 Y144.81
G1 F3480 X196.43 Y141.22 E427.70461
G0 F6000 X194.82 Y142.12
G1 F3480 X193.70 Y143.23 E427.77037
G0 F6000 X193.13 Y150.88
G1 F3480 X190.86 Y153.15 E427.90387
G0 F6000 X190.15 Y153.15
G1 F3480 X192.27 Y151.03 E428.02846
G0 F6000 X191.57 Y151.03
G1 F3480 X189.45 Y153.15 E428.15305
G0 F6000 X188.74 Y153.15
G1 F3480 X190.86 Y151.03 E428.27764
G0 F6000 X190.15 Y151.03
G1 F3480 X188.03 Y153.15 E428.40223
G0 F6000 X187.33 Y153.15
G1 F3480 X189.44 Y151.03 E428.52682
G0 F6000 X188.74 Y151.03
G1 F3480 X186.62 Y153.15 E428.65143
G0 F6000 X185.91 Y153.15
G1 F3480 X188.03 Y151.03 E428.77605
G0 F6000 X187.32 Y151.03
G1 F3480 X185.20 Y153.15 E428.90064
G0 F6000 X184.50 Y153.15
G1 F3480 X186.62 Y151.03 E429.02520
G0 F6000 X185.91 Y151.03
G1 F3480 X183.79 Y153.15 E429.14976
G0 F6000 X183.08 Y153.15
G1 F3480 X185.20 Y151.03 E429.27432
G0 F6000 X184.50 Y151.03
G1 F3480 X182.38 Y153.15 E429.39891
G0 F6000 X181.67 Y153.15
G1 F3480 X183.79 Y151.03 E429.52350
G0 F6000 X183.08 Y151.03
G1 F3480 X180.96 Y153.15 E429.64809
G0 F6000 X180.25 Y153.15
G1 F3480 X182.37 Y151.03 E429.77268
G0 F6000 X181.67 Y151.03
G1 F3480 X179.55 Y153.15 E429.89727
G0 F6000 X178.84 Y153.15
G1 F3480 X180.96 Y151.03 E430.02183
G0 F6000 X180.25 Y151.03
G1 F3480 X178.13 Y153.14 E430.14633
G0 F6000 X177.43 Y153.14
G1 F3480 X179.54 Y151.03 E430.27086
G0 F6000 X178.84 Y151.03
G1 F3480 X176.72 Y153.14 E430.39539
G0 F6000 X176.01 Y153.14
G1 F3480 X178.13 Y151.03 E430.51992
G0 F6000 X177.42 Y151.03
G1 F3480 X175.31 Y153.14 E430.64445
G0 F6000 X174.60 Y153.14
G1 F3480 X176.72 Y151.03 E430.76904
G0 F6000 X176.01 Y151.03
G1 F3480 X173.89 Y153.14 E430.89360
G0 F6000 X173.19 Y153.14
G1 F3480 X175.30 Y151.03 E431.01816
G0 F6000 X174.60 Y151.03
G1 F3480 X172.48 Y153.14 E431.14269
G0 F6000 X171.77 Y153.14
G1 F3480 X173.89 Y151.03 E431.26722
G0 F6000 X173.18 Y151.03
G1 F3480 X171.06 Y153.14 E431.39175
G0 F6000 X170.36 Y153.14
G1 F3480 X172.47 Y151.03 E431.51628
G0 F6000 X171.77 Y151.03
G1 F3480 X169.65 Y153.14 E431.64081
G0 F6000 X168.94 Y153.14
G1 F3480 X171.06 Y151.03 E431.76534
G0 F6000 X170.35 Y151.03
G1 F3480 X168.24 Y153.14 E431.88987
G0 F6000 X167.53 Y153.14
G1 F3480 X169.65 Y151.03 E432.01437
G0 F6000 X168.94 Y151.03
G1 F3480 X166.82 Y153.14 E432.13887
G0 F6000 X166.12 Y153.14
G1 F3480 X168.23 Y151.03 E432.26337
G0 F6000 X167.53 Y151.03
G1 F3480 X165.41 Y153.14 E432.38787
G0 F6000 X164.70 Y153.14
G1 F3480 X166.82 Y151.03 E432.51237
G0 F6000 X166.11 Y151.03
G1 F3480 X163.99 Y153.14 E432.63687
G0 F6000 X163.29 Y153.14
G1 F3480 X165.40 Y151.03 E432.76137
G0 F6000 X164.70 Y151.03
G1 F3480 X162.58 Y153.14 E432.88588
G0 F6000 X161.87 Y153.14
G1 F3480 X163.99 Y151.03 E433.01038
G0 F6000 X163.28 Y151.03
G1 F3480 X161.45 Y152.86 E433.11824
G0 F6000 X161.45 Y152.15
G1 F3480 X162.57 Y151.03 E433.18453
G0 F6000 X161.87 Y151.03
G1 F3480 X161.45 Y151.45 E433.20925
G0 F6000 X143.73 Y150.85
;TYPE:WALL-INNER
G1 F3480 X143.73 Y153.32 E433.31165
G1 X97.50 Y153.32 E435.23359
G1 X97.50 Y164.35 E435.69208
G1 X95.25 Y164.35 E435.78550
G1 X95.27 Y150.85 E436.34660
G1 X101.49 Y150.85 E436.60503
G1 X100.74 Y149.31 E436.67643
G1 X100.38 Y148.12 E436.72792
G1 X100.26 Y146.90 E436.77917
G1 X100.39 Y145.69 E436.82975
G1 X100.74 Y144.51 E436.88064
G1 X101.33 Y143.43 E436.93197
G1 X102.11 Y142.48 E436.98313
G1 X103.04 Y141.71 E437.03352
G1 X104.09 Y141.14 E437.08282
G1 X105.29 Y140.77 E437.13525
G1 X106.50 Y140.66 E437.18572
G1 X107.72 Y140.77 E437.23681
G1 X108.88 Y141.13 E437.28690
G1 X109.95 Y141.71 E437.33750
G1 X110.92 Y142.49 E437.38926
G1 X111.69 Y143.43 E437.43989
G1 X112.24 Y144.47 E437.48892
G1 X112.61 Y145.70 E437.54245
G1 X112.64 Y145.79 E437.54626
G1 X112.73 Y146.90 E437.59251
G1 X112.64 Y148.00 E437.63855
G1 X112.29 Y149.24 E437.69195
G1 X111.49 Y150.85 E437.76683
G1 X143.73 Y150.85 E439.10709
G0 F6000 X111.72 Y150.71
G0 X110.17 Y147.38
G1 F3480 X110.24 Y146.73 E439.13424
G1 X110.25 Y146.61 E439.13934
G1 X110.19 Y145.98 E439.16565
G1 X110.18 Y145.86 E439.17055
G1 X110.00 Y145.27 E439.19618
G1 X109.97 Y145.16 E439.20102
G1 X109.67 Y144.61 E439.22678
G1 X109.62 Y144.51 E439.23168
G1 X109.23 Y144.04 E439.25714
G1 X109.15 Y143.94 E439.26211
G1 X108.68 Y143.56 E439.28769
G1 X108.59 Y143.48 E439.29265
G1 X108.04 Y143.19 E439.31837
G1 X107.94 Y143.13 E439.32303
G1 X107.28 Y142.93 E439.35179
G1 X106.63 Y142.86 E439.37898
G1 X106.51 Y142.85 E439.38408
G1 X105.88 Y142.91 E439.41035
G1 X105.76 Y142.92 E439.41525
G1 X105.11 Y143.12 E439.44353
G1 X104.52 Y143.42 E439.47122
G1 X104.41 Y143.48 E439.47635
G1 X103.94 Y143.87 E439.50182
G1 X103.84 Y143.95 E439.50678
G1 X103.45 Y144.42 E439.53237
G1 X103.38 Y144.51 E439.53733
G1 X103.09 Y145.05 E439.56260
G1 X103.03 Y145.16 E439.56774
G1 X102.86 Y145.75 E439.59324
G1 X102.82 Y145.86 E439.59834
G1 X102.76 Y146.47 E439.62370
G1 X102.75 Y146.59 E439.62884
G1 X102.81 Y147.22 E439.65512
G1 X102.82 Y147.34 E439.65997
G1 X103.02 Y147.99 E439.68825
G1 X103.32 Y148.58 E439.71594
G1 X103.38 Y148.69 E439.72108
G1 X103.77 Y149.16 E439.74654
G1 X103.85 Y149.26 E439.75150
G1 X104.32 Y149.65 E439.77709
G1 X104.42 Y149.72 E439.78205
G1 X104.96 Y150.01 E439.80777
G1 X105.06 Y150.07 E439.81242
G1 X105.72 Y150.27 E439.84119
G1 X106.37 Y150.34 E439.86834
G1 X106.49 Y150.35 E439.87349
G1 X107.12 Y150.29 E439.89980
G1 X107.24 Y150.28 E439.90466
G1 X107.89 Y150.08 E439.93294
G1 X108.48 Y149.78 E439.96062
G1 X108.59 Y149.72 E439.96576
G1 X109.06 Y149.33 E439.99123
G1 X109.16 Y149.25 E439.99619
G1 X109.55 Y148.78 E440.02177
G1 X109.62 Y148.69 E440.02673
G1 X109.91 Y148.14 E440.05246
G1 X109.97 Y148.04 E440.05711
G1 X110.17 Y147.38 E440.08587
G0 F6000 X109.68 Y147.28
;TYPE:WALL-OUTER
G1 F3480 X109.74 Y146.67 E440.11122
G1 X109.75 Y146.60 E440.11411
G1 X109.70 Y146.03 E440.13799
G1 X109.69 Y145.96 E440.14084
G1 X109.52 Y145.42 E440.16448
G1 X109.50 Y145.36 E440.16728
G1 X109.24 Y144.85 E440.19095
G1 X109.20 Y144.79 E440.19380
G1 X108.80 Y144.30 E440.22024
G1 X108.31 Y143.90 E440.24677
G1 X107.81 Y143.63 E440.27039
G1 X107.75 Y143.60 E440.27315
G1 X107.18 Y143.43 E440.29782
G1 X106.57 Y143.36 E440.32321
G1 X106.50 Y143.35 E440.32610
G1 X105.93 Y143.40 E440.34994
G1 X105.86 Y143.41 E440.35279
G1 X105.30 Y143.58 E440.37729
G1 X104.75 Y143.86 E440.40282
G1 X104.69 Y143.90 E440.40573
G1 X104.20 Y144.30 E440.43217
G1 X103.80 Y144.79 E440.45870
G1 X103.53 Y145.29 E440.48221
G1 X103.50 Y145.35 E440.48511
G1 X103.33 Y145.90 E440.50869
G1 X103.31 Y145.97 E440.51161
G1 X103.26 Y146.53 E440.53538
G1 X103.25 Y146.60 E440.53810
G1 X103.30 Y147.17 E440.56195
G1 X103.31 Y147.24 E440.56476
G1 X103.48 Y147.80 E440.58926
G1 X103.76 Y148.35 E440.61479
G1 X103.80 Y148.41 E440.61769
G1 X104.20 Y148.90 E440.64413
G1 X104.69 Y149.30 E440.67067
G1 X105.20 Y149.57 E440.69429
G1 X105.25 Y149.60 E440.69704
G1 X105.82 Y149.78 E440.72172
G1 X106.50 Y149.85 E440.75000
G1 X107.07 Y149.80 E440.77389
G1 X107.14 Y149.79 E440.77669
G1 X107.70 Y149.62 E440.80120
G1 X108.25 Y149.34 E440.82673
G1 X108.31 Y149.30 E440.82963
G1 X108.80 Y148.90 E440.85607
G1 X109.20 Y148.41 E440.88260
G1 X109.47 Y147.91 E440.90607
G1 X109.50 Y147.85 E440.90898
G1 X109.68 Y147.28 E440.93365
G0 F6000 X110.02 Y147.32
G0 X112.78 Y148.03
G0 X113.13 Y148.10
G1 F3480 X112.75 Y149.42 E440.99079
G1 X112.29 Y150.35 E441.03413
G1 X144.23 Y150.35 E442.36175
G1 X144.23 Y153.82 E442.50573
G1 X98.00 Y153.82 E444.42767
G1 X98.00 Y164.65 E444.87801
G1 X98.00 Y164.85 E444.88616
G1 X94.75 Y164.85 E445.02115
G1 X94.78 Y150.35 E445.62383
G1 X100.69 Y150.35 E445.86970
G1 X100.27 Y149.49 E445.90972
G1 X99.89 Y148.24 E445.96406
G1 X99.76 Y146.91 E446.01924
G1 X99.76 Y146.90 E446.01995
G1 X99.89 Y145.60 E446.07400
G1 X99.89 Y145.59 E446.07463
G1 X100.27 Y144.33 E446.12916
G1 X100.91 Y143.15 E446.18503
G1 X101.75 Y142.13 E446.24021
G1 X102.75 Y141.30 E446.29406
G1 X103.89 Y140.68 E446.34819
G1 X105.18 Y140.29 E446.40393
G1 X106.50 Y140.15 E446.45921
G1 X107.78 Y140.28 E446.51277
G1 X107.83 Y140.28 E446.51469
G1 X109.05 Y140.66 E446.56791
G1 X110.23 Y141.29 E446.62331
G1 X111.26 Y142.12 E446.67842
G1 X111.27 Y142.13 E446.67910
G1 X112.11 Y143.15 E446.73402
G1 X112.70 Y144.28 E446.78707
G1 X113.09 Y145.56 E446.84278
G1 X113.13 Y145.70 E446.84862
G1 X113.23 Y146.88 E446.89799
G1 X113.24 Y146.90 E446.89879
G1 X113.13 Y148.10 E446.94875
G0 F6000 X112.41 Y148.16
;TYPE:FILL
G1 F3480 X107.42 Y153.14 E447.24173
G0 F6000 X108.13 Y153.14
G1 F3480 X112.13 Y149.15 E447.47674
G0 F6000 X111.45 Y150.53
G1 F3480 X108.84 Y153.14 E447.63034
G0 F6000 X109.55 Y153.14
G1 F3480 X111.66 Y151.03 E447.75476
G0 F6000 X112.37 Y151.03
G1 F3480 X110.25 Y153.14 E447.87917
G0 F6000 X110.96 Y153.14
G1 F3480 X113.08 Y151.03 E448.00358
G0 F6000 X113.78 Y151.03
G1 F3480 X111.67 Y153.14 E448.12802
G0 F6000 X112.37 Y153.14
G1 F3480 X114.49 Y151.03 E448.25247
G0 F6000 X115.20 Y151.03
G1 F3480 X113.08 Y153.14 E448.37688
G0 F6000 X113.79 Y153.14
G1 F3480 X115.91 Y151.03 E448.50129
G0 F6000 X116.61 Y151.03
G1 F3480 X114.50 Y153.14 E448.62570
G0 F6000 X115.20 Y153.14
G1 F3480 X117.32 Y151.03 E448.75012
G0 F6000 X118.03 Y151.03
G1 F3480 X115.91 Y153.14 E448.87450
G0 F6000 X116.62 Y153.14
G1 F3480 X118.73 Y151.03 E448.99888
G0 F6000 X119.44 Y151.03
G1 F3480 X117.33 Y153.14 E449.12327
G0 F6000 X118.03 Y153.14
G1 F3480 X120.15 Y151.03 E449.24768
G0 F6000 X120.86 Y151.03
G1 F3480 X118.74 Y153.14 E449.37209
G0 F6000 X119.45 Y153.14
G1 F3480 X121.56 Y151.03 E449.49650
G0 F6000 X122.27 Y151.03
G1 F3480 X120.15 Y153.14 E449.62092
G0 F6000 X120.86 Y153.14
G1 F3480 X122.98 Y151.03 E449.74527
G0 F6000 X123.68 Y151.03
G1 F3480 X121.57 Y153.14 E449.86963
G0 F6000 X122.28 Y153.14
G1 F3480 X124.39 Y151.03 E449.99398
G0 F6000 X125.10 Y151.03
G1 F3480 X122.98 Y153.14 E450.11833
G0 F6000 X123.69 Y153.14
G1 F3480 X125.80 Y151.03 E450.24269
G0 F6000 X126.51 Y151.03
G1 F3480 X124.40 Y153.14 E450.36704
G0 F6000 X125.10 Y153.14
G1 F3480 X127.22 Y151.03 E450.49139
G0 F6000 X127.93 Y151.03
G1 F3480 X125.81 Y153.14 E450.61575
G0 F6000 X126.52 Y153.14
G1 F3480 X128.63 Y151.03 E450.74010
G0 F6000 X129.34 Y151.03
G1 F3480 X127.22 Y153.14 E450.86446
G0 F6000 X127.93 Y153.14
G1 F3480 X130.05 Y151.03 E450.98881
G0 F6000 X130.75 Y151.03
G1 F3480 X128.64 Y153.14 E451.11311
G0 F6000 X129.35 Y153.14
G1 F3480 X131.46 Y151.03 E451.23740
G0 F6000 X132.17 Y151.03
G1 F3480 X130.05 Y153.14 E451.36170
G0 F6000 X130.76 Y153.14
G1 F3480 X132.88 Y151.03 E451.48599
G0 F6000 X133.58 Y151.03
G1 F3480 X131.47 Y153.14 E451.61032
G0 F6000 X132.18 Y153.14
G1 F3480 X134.29 Y151.03 E451.73464
G0 F6000 X135.00 Y151.03
G1 F3480 X132.88 Y153.14 E451.85893
G0 F6000 X133.59 Y153.14
G1 F3480 X135.70 Y151.03 E451.98323
G0 F6000 X136.41 Y151.03
G1 F3480 X134.30 Y153.14 E452.10753
G0 F6000 X135.00 Y153.14
G1 F3480 X137.12 Y151.03 E452.23182
G0 F6000 X137.82 Y151.03
G1 F3480 X135.71 Y153.14 E452.35612
G0 F6000 X136.42 Y153.14
G1 F3480 X138.53 Y151.03 E452.48035
G0 F6000 X139.24 Y151.03
G1 F3480 X137.13 Y153.14 E452.60459
G0 F6000 X137.83 Y153.14
G1 F3480 X139.95 Y151.03 E452.72885
G0 F6000 X140.65 Y151.03
G1 F3480 X138.54 Y153.14 E452.85312
G0 F6000 X139.25 Y153.14
G1 F3480 X141.36 Y151.03 E452.97738
G0 F6000 X142.07 Y151.03
G1 F3480 X139.95 Y153.14 E453.10165
G0 F6000 X140.66 Y153.14
G1 F3480 X142.78 Y151.03 E453.22592
G0 F6000 X143.48 Y151.03
G1 F3480 X141.37 Y153.14 E453.35015
G0 F6000 X142.08 Y153.14
G1 F3480 X143.55 Y151.67 E453.43682
G0 F6000 X143.55 Y152.37
G1 F3480 X142.78 Y153.14 E453.48191
G0 F6000 X111.72 Y150.71
G0 X112.52 Y147.34
G1 F3480 X106.72 Y153.14 E453.82296
G0 F6000 X106.01 Y153.14
G1 F3480 X112.53 Y146.62 E454.20646
G0 F6000 X112.47 Y145.97
G1 F3480 X109.89 Y148.56 E454.35862
G0 F6000 X110.34 Y147.40
G1 F3480 X112.34 Y145.40 E454.47595
G0 F6000 X112.17 Y144.86
G1 F3480 X110.43 Y146.60 E454.57852
G0 F6000 X110.37 Y145.96
G1 F3480 X111.98 Y144.35 E454.67307
G0 F6000 X111.73 Y143.88
G1 F3480 X110.22 Y145.40 E454.76197
G0 F6000 X110.02 Y144.89
G1 F3480 X111.47 Y143.44 E454.84728
G0 F6000 X111.15 Y143.05
G1 F3480 X109.77 Y144.43 E454.92836
G0 F6000 X109.46 Y144.04
G1 F3480 X110.83 Y142.66 E455.00926
G0 F6000 X110.45 Y142.34
G1 F3480 X109.11 Y143.68 E455.08828
G0 F6000 X108.72 Y143.36
G1 F3480 X110.06 Y142.02 E455.16716
G0 F6000 X109.64 Y141.74
G1 F3480 X108.27 Y143.11 E455.24789
G0 F6000 X107.77 Y142.90
G1 F3480 X109.18 Y141.49 E455.33079
G0 F6000 X108.71 Y141.25
G1 F3480 X107.21 Y142.75 E455.41863
G0 F6000 X106.58 Y142.68
G1 F3480 X108.16 Y141.09 E455.51206
G0 F6000 X107.61 Y140.94
G1 F3480 X105.81 Y142.74 E455.61789
G0 F6000 X104.72 Y143.12
G1 F3480 X106.97 Y140.87 E455.75012
G0 F6000 X106.28 Y140.85
G1 F3480 X100.46 Y146.68 E456.09255
G0 F6000 X100.48 Y147.36
G1 F3480 X103.02 Y144.82 E456.24166
G0 F6000 X102.64 Y145.91
G1 F3480 X100.54 Y148.01 E456.36501
G0 F6000 X100.69 Y148.56
G1 F3480 X102.58 Y146.68 E456.47585
G0 F6000 X102.64 Y147.32
G1 F3480 X100.86 Y149.10 E456.58074
G0 F6000 X101.07 Y149.60
G1 F3480 X102.80 Y147.87 E456.68222
G0 F6000 X103.01 Y148.36
G1 F3480 X101.30 Y150.07 E456.78270
G0 F6000 X101.54 Y150.55
G1 F3480 X103.26 Y148.82 E456.88424
G0 F6000 X103.58 Y149.21
G1 F3480 X101.77 Y151.02 E456.99084
G0 F6000 X101.77 Y151.03
G1 F3480 X99.65 Y153.14 E457.11543
G0 F6000 X100.35 Y153.14
G1 F3480 X103.94 Y149.56 E457.32627
G0 F6000 X104.33 Y149.87
G1 F3480 X101.06 Y153.14 E457.51854
G0 F6000 X101.77 Y153.14
G1 F3480 X104.79 Y150.12 E457.69634
G0 F6000 X105.30 Y150.32
G1 F3480 X102.47 Y153.14 E457.86235
G0 F6000 X103.18 Y153.14
G1 F3480 X105.87 Y150.46 E458.02027
G0 F6000 X106.50 Y150.53
G1 F3480 X103.89 Y153.14 E458.17414
G0 F6000 X104.59 Y153.14
G1 F3480 X107.30 Y150.44 E458.33289
G0 F6000 X108.47 Y149.98
G1 F3480 X105.30 Y153.14 E458.51886
G0 F6000 X101.06 Y151.03
G1 F3480 X98.94 Y153.14 E458.64345
G0 F6000 X98.23 Y153.14
G1 F3480 X100.35 Y151.03 E458.76807
G0 F6000 X99.64 Y151.03
G1 F3480 X97.52 Y153.14 E458.89269
G0 F6000 X97.32 Y153.35
G1 F3480 X95.44 Y155.23 E459.00323
G0 F6000 X95.44 Y154.52
G1 F3480 X98.94 Y151.03 E459.20860
G0 F6000 X98.23 Y151.03
G1 F3480 X95.44 Y153.81 E459.37229
G0 F6000 X95.44 Y153.10
G1 F3480 X97.52 Y151.03 E459.49441
G0 F6000 X96.81 Y151.03
G1 F3480 X95.45 Y152.39 E459.57484
G0 F6000 X95.45 Y151.69
G1 F3480 X96.11 Y151.03 E459.61365
G0 F6000 X97.32 Y154.05
G1 F3480 X95.44 Y155.94 E459.72427
G0 F6000 X95.44 Y156.64
G1 F3480 X97.32 Y154.76 E459.83499
G0 F6000 X97.32 Y155.47
G1 F3480 X95.44 Y157.35 E459.94573
G0 F6000 X95.44 Y158.06
G1 F3480 X97.32 Y156.18 E460.05656
G0 F6000 X97.32 Y156.88
G1 F3480 X95.44 Y158.77 E460.16745
G0 F6000 X95.43 Y159.48
G1 F3480 X97.32 Y157.59 E460.27846
G0 F6000 X97.32 Y158.30
G1 F3480 X95.43 Y160.19 E460.38952
G0 F6000 X95.43 Y160.89
G1 F3480 X97.32 Y159.00 E460.50065
G0 F6000 X97.32 Y159.71
G1 F3480 X95.43 Y161.60 E460.61186
G0 F6000 X95.43 Y162.31
G1 F3480 X97.32 Y160.42 E460.72316
G0 F6000 X97.32 Y161.12
G1 F3480 X95.43 Y163.02 E460.83455
G0 F6000 X95.43 Y163.73
G1 F3480 X97.32 Y161.83 E460.94600
G0 F6000 X97.32 Y162.54
G1 F3480 X95.69 Y164.17 E461.04198
G0 F6000 X96.40 Y164.17
G1 F3480 X97.32 Y163.25 E461.09643
G0 F6000 X97.32 Y163.95
G1 F3480 X97.10 Y164.17 E461.10931
G0 F6000 X95.17 Y150.74
G0 X101.26 Y150.71
G0 X100.54 Y145.88
G1 F3480 X105.50 Y140.93 E461.40064
G0 F6000 X104.53 Y141.19
G1 F3480 X100.80 Y144.92 E461.62016
G0 F6000 X101.46 Y143.55
G1 F3480 X103.19 Y141.82 E461.72155
G0 F6000 X198.31 Y154.70
;TYPE:SUPPORT
G1 F3480 X198.31 Y165.78 E462.18208
G0 F6000 X198.31 Y165.60
G0 X201.65 Y165.60
G0 X201.65 Y165.78
G1 F3480 X201.65 Y154.70 E462.64261
G0 F6000 X201.65 Y154.87
G0 X204.98 Y154.87
G0 X204.98 Y154.70
G1 F3480 X204.98 Y165.78 E463.10314
G0 F6000 X158.32 Y157.27
G1 F3480 X158.32 Y149.43 E463.42942
G0 F6000 X158.32 Y149.60
G0 X154.98 Y149.60
G0 X154.98 Y149.43
G1 F3480 X154.98 Y157.28 E463.75595
G0 F6000 X154.98 Y157.10
G0 X151.65 Y157.11
G0 X151.65 Y157.29
G1 F3480 X151.65 Y149.43 E464.08277
G0 F6000 X151.65 Y149.60
G0 X148.32 Y149.60
G0 X148.32 Y149.43
G1 F3480 X148.32 Y157.29 E464.40984
G0 F6000 X104.99 Y154.69
G1 F3480 X104.99 Y165.57 E464.86222
G0 F6000 X104.99 Y165.40
G0 X101.66 Y165.40
G0 X101.66 Y165.57
G1 F3480 X101.66 Y154.69 E465.31460
;LAYER:2
G0 F6000 X101.66 Y153.47 Z0.70
G0 X101.49 Y150.85
;TYPE:WALL-INNER
G1 F4320 X100.74 Y149.31 E465.38600
G1 X100.38 Y148.12 E465.43753
G1 X100.26 Y146.90 E465.48869
G1 X100.39 Y145.68 E465.53953
G1 X100.74 Y144.51 E465.59021
G1 X101.33 Y143.43 E465.64134
G1 X102.11 Y142.48 E465.69256
G1 X103.05 Y141.70 E465.74319
G1 X104.09 Y141.14 E465.79234
G1 X105.29 Y140.77 E465.84486
G1 X106.50 Y140.66 E465.89525
G1 X107.71 Y140.77 E465.94583
G1 X107.73 Y140.78 E465.94646
G1 X108.88 Y141.13 E465.99646
G1 X109.95 Y141.71 E466.04721
G1 X110.92 Y142.49 E466.09874
G1 X111.69 Y143.43 E466.14961
G1 X112.26 Y144.51 E466.20018
G1 X112.64 Y145.79 E466.25583
G1 X112.73 Y146.90 E466.30228
G1 X112.64 Y148.00 E466.34815
G1 X112.29 Y149.24 E466.40148
G1 X111.49 Y150.85 E466.47643
G1 X143.73 Y150.85 E467.81669
G1 X143.73 Y153.32 E467.91909
G1 X97.50 Y153.32 E469.84102
G1 X97.50 Y164.35 E470.29951
G1 X95.25 Y164.35 E470.39293
G1 X95.27 Y150.85 E470.95403
G1 X101.49 Y150.85 E471.21246
G0 F6000 X103.85 Y149.25
G1 F4320 X104.42 Y149.72 E471.24310
G1 X104.94 Y150.00 E471.26789
G1 X105.06 Y150.07 E471.27351
G1 X105.64 Y150.24 E471.29846
G1 X105.77 Y150.28 E471.30419
G1 X106.35 Y150.34 E471.32871
G1 X106.50 Y150.35 E471.33465
G1 X107.10 Y150.30 E471.35980
G1 X107.24 Y150.28 E471.36557
G1 X107.81 Y150.11 E471.39034
G1 X107.94 Y150.07 E471.39607
G1 X108.47 Y149.79 E471.42096
G1 X108.59 Y149.72 E471.42673
G1 X109.16 Y149.25 E471.45721
G1 X109.62 Y148.69 E471.48785
G1 X109.90 Y148.16 E471.51240
G1 X109.97 Y148.04 E471.51826
G1 X110.14 Y147.47 E471.54312
G1 X110.18 Y147.33 E471.54898
G1 X110.24 Y146.75 E471.57346
G1 X110.25 Y146.61 E471.57936
G1 X110.20 Y146.00 E471.60450
G1 X110.18 Y145.86 E471.61035
G1 X110.01 Y145.30 E471.63504
G1 X109.97 Y145.16 E471.64077
G1 X109.69 Y144.64 E471.66566
G1 X109.62 Y144.51 E471.67146
G1 X109.16 Y143.95 E471.70195
G1 X108.58 Y143.48 E471.73259
G1 X108.06 Y143.20 E471.75738
G1 X107.94 Y143.13 E471.76300
G1 X107.37 Y142.96 E471.78795
G1 X107.23 Y142.92 E471.79372
G1 X106.64 Y142.86 E471.81862
G1 X106.50 Y142.85 E471.82418
G1 X105.90 Y142.91 E471.84932
G1 X105.76 Y142.92 E471.85509
G1 X105.19 Y143.09 E471.87982
G1 X105.06 Y143.13 E471.88555
G1 X104.53 Y143.41 E471.91044
G1 X104.41 Y143.48 E471.91620
G1 X103.85 Y143.95 E471.94669
G1 X103.38 Y144.52 E471.97733
G1 X103.10 Y145.04 E472.00191
G1 X103.03 Y145.16 E472.00777
G1 X102.86 Y145.73 E472.03259
G1 X102.82 Y145.87 E472.03842
G1 X102.76 Y146.46 E472.06302
G1 X102.75 Y146.60 E472.06892
G1 X102.81 Y147.20 E472.09407
G1 X102.82 Y147.34 E472.09984
G1 X102.99 Y147.91 E472.12456
G1 X103.03 Y148.04 E472.13030
G1 X103.31 Y148.57 E472.15519
G1 X103.38 Y148.69 E472.16095
G1 X103.85 Y149.25 E472.19144
G0 F6000 X104.20 Y148.90
;TYPE:WALL-OUTER
G1 F4320 X104.69 Y149.30 E472.21797
G1 X105.18 Y149.56 E472.24070
G1 X105.25 Y149.60 E472.24438
G1 X105.87 Y149.79 E472.27092
G1 X106.41 Y149.84 E472.29361
G1 X106.50 Y149.85 E472.29737
G1 X107.05 Y149.80 E472.32026
G1 X107.14 Y149.79 E472.32398
G1 X107.75 Y149.60 E472.35045
G1 X108.23 Y149.35 E472.37325
G1 X108.31 Y149.30 E472.37695
G1 X108.80 Y148.90 E472.40343
G1 X109.20 Y148.41 E472.42996
G1 X109.46 Y147.93 E472.45263
G1 X109.50 Y147.85 E472.45637
G1 X109.69 Y147.24 E472.48291
G1 X109.74 Y146.69 E472.50559
G1 X109.75 Y146.60 E472.50931
G1 X109.70 Y146.06 E472.53220
G1 X109.69 Y145.97 E472.53596
G1 X109.50 Y145.36 E472.56238
G1 X109.25 Y144.87 E472.58519
G1 X109.20 Y144.79 E472.58893
G1 X108.80 Y144.30 E472.61540
G1 X108.31 Y143.90 E472.64193
G1 X107.82 Y143.64 E472.66466
G1 X107.75 Y143.60 E472.66834
G1 X107.14 Y143.41 E472.69489
G1 X106.59 Y143.36 E472.71757
G1 X106.50 Y143.35 E472.72137
G1 X105.95 Y143.40 E472.74426
G1 X105.86 Y143.41 E472.74794
G1 X105.26 Y143.60 E472.77440
G1 X104.77 Y143.85 E472.79720
G1 X104.69 Y143.90 E472.80091
G1 X104.20 Y144.30 E472.82738
G1 X103.80 Y144.79 E472.85391
G1 X103.54 Y145.28 E472.87662
G1 X103.50 Y145.36 E472.88036
G1 X103.31 Y145.97 E472.90686
G1 X103.26 Y146.51 E472.92955
G1 X103.25 Y146.60 E472.93335
G1 X103.30 Y147.15 E472.95624
G1 X103.31 Y147.24 E472.95992
G1 X103.50 Y147.84 E472.98638
G1 X103.75 Y148.33 E473.00919
G1 X103.80 Y148.41 E473.01289
G1 X104.20 Y148.90 E473.03936
G0 F6000 X103.98 Y149.17
G0 X101.26 Y150.71
G0 X100.69 Y150.70
G0 X100.69 Y150.35
G1 F4320 X100.27 Y149.49 E473.07938
G1 X99.89 Y148.26 E473.13281
G1 X99.88 Y148.22 E473.13442
G1 X99.76 Y146.94 E473.18800
G1 X99.76 Y146.90 E473.18967
G1 X99.89 Y145.63 E473.24276
G1 X99.89 Y145.58 E473.24452
G1 X100.26 Y144.35 E473.29783
G1 X100.27 Y144.32 E473.29953
G1 X100.89 Y143.19 E473.35306
G1 X100.91 Y143.15 E473.35481
G1 X101.73 Y142.16 E473.40813
G1 X101.75 Y142.13 E473.40981
G1 X102.73 Y141.31 E473.46286
G1 X102.76 Y141.29 E473.46443
G1 X103.89 Y140.68 E473.51789
G1 X105.16 Y140.29 E473.57271
G1 X105.19 Y140.28 E473.57423
G1 X106.50 Y140.15 E473.62892
G1 X107.83 Y140.28 E473.68440
G1 X109.04 Y140.65 E473.73692
G1 X109.07 Y140.66 E473.73832
G1 X110.23 Y141.29 E473.79302
G1 X111.24 Y142.10 E473.84710
G1 X111.27 Y142.13 E473.84879
G1 X112.08 Y143.12 E473.90214
G1 X112.11 Y143.15 E473.90382
G1 X112.70 Y144.28 E473.95686
G1 X112.72 Y144.31 E473.95838
G1 X113.13 Y145.70 E474.01840
G1 X113.23 Y146.86 E474.06686
G1 X113.24 Y146.90 E474.06853
G1 X113.13 Y148.10 E474.11845
G1 X112.75 Y149.42 E474.17554
G1 X112.29 Y150.35 E474.21897
G1 X144.23 Y150.35 E475.54659
G1 X144.23 Y153.82 E475.69057
G1 X98.00 Y153.82 E477.61250
G1 X98.00 Y164.85 E478.07100
G1 X94.75 Y164.85 E478.20595
G1 X94.78 Y150.35 E478.80862
G1 X100.69 Y150.35 E479.05450
G0 F6000 X100.47 Y151.03
;TYPE:FILL
G1 F4320 X102.58 Y153.14 E479.17903
G0 F6000 X101.88 Y153.14
G1 F4320 X99.76 Y151.03 E479.30356
G0 F6000 X99.05 Y151.03
G1 F4320 X101.17 Y153.14 E479.42812
G0 F6000 X100.46 Y153.14
G1 F4320 X98.34 Y151.03 E479.55268
G0 F6000 X97.64 Y151.03
G1 F4320 X99.76 Y153.14 E479.67724
G0 F6000 X99.05 Y153.14
G1 F4320 X96.93 Y151.03 E479.80180
G0 F6000 X96.22 Y151.03
G1 F4320 X98.34 Y153.14 E479.92633
G0 F6000 X97.64 Y153.14
G1 F4320 X95.52 Y151.03 E480.05086
G0 F6000 X95.45 Y151.66
G1 F4320 X97.32 Y153.54 E480.16104
G0 F6000 X97.32 Y154.24
G1 F4320 X95.45 Y152.37 E480.27134
G0 F6000 X95.44 Y153.07
G1 F4320 X97.32 Y154.95 E480.38170
G0 F6000 X97.32 Y155.66
G1 F4320 X95.44 Y153.78 E480.49212
G0 F6000 X95.44 Y154.49
G1 F4320 X97.32 Y156.37 E480.60263
G0 F6000 X97.32 Y157.07
G1 F4320 X95.44 Y155.19 E480.71323
G0 F6000 X95.44 Y155.90
G1 F4320 X97.32 Y157.78 E480.82391
G0 F6000 X97.32 Y158.49
G1 F4320 X95.44 Y156.60 E480.93468
G0 F6000 X95.44 Y157.31
G1 F4320 X97.32 Y159.19 E481.04545
G0 F6000 X97.32 Y159.90
G1 F4320 X95.44 Y158.01 E481.15634
G0 F6000 X95.44 Y158.72
G1 F4320 X97.32 Y160.61 E481.26729
G0 F6000 X97.32 Y161.31
G1 F4320 X95.43 Y159.43 E481.37833
G0 F6000 X95.43 Y160.13
G1 F4320 X97.32 Y162.02 E481.48940
G0 F6000 X97.32 Y162.73
G1 F4320 X95.43 Y160.84 E481.60058
G0 F6000 X95.43 Y161.54
G1 F4320 X97.32 Y163.44 E481.71185
G0 F6000 X97.32 Y164.14
G1 F4320 X95.43 Y162.25 E481.82318
G0 F6000 X95.43 Y162.96
G1 F4320 X96.64 Y164.17 E481.89459
G0 F6000 X95.94 Y164.17
G1 F4320 X95.43 Y163.66 E481.92452
G0 F6000 X97.61 Y153.43
G0 X103.29 Y153.14
G1 F4320 X101.17 Y151.03 E482.04905
G0 F6000 X101.66 Y150.81
G1 F4320 X104.00 Y153.14 E482.18645
G0 F6000 X104.71 Y153.14
G1 F4320 X100.99 Y149.42 E482.40512
G0 F6000 X100.63 Y148.36
G1 F4320 X105.41 Y153.14 E482.68631
G0 F6000 X106.12 Y153.14
G1 F4320 X100.49 Y147.52 E483.01710
G0 F6000 X100.45 Y146.76
G1 F4320 X106.83 Y153.14 E483.39213
G0 F6000 X107.53 Y153.14
G1 F4320 X103.99 Y149.60 E483.60038
G0 F6000 X103.50 Y149.11
G1 F4320 X100.52 Y146.12 E483.77574
G0 F6000 X100.62 Y145.52
G1 F4320 X102.73 Y147.63 E483.89971
G0 F6000 X102.59 Y146.78
G1 F4320 X100.78 Y144.97 E484.00608
G0 F6000 X100.97 Y144.45
G1 F4320 X102.62 Y146.11 E484.10333
G0 F6000 X102.74 Y145.52
G1 F4320 X101.22 Y144.00 E484.19299
G0 F6000 X101.47 Y143.54
G1 F4320 X102.92 Y145.00 E484.27866
G0 F6000 X103.17 Y144.53
G1 F4320 X101.78 Y143.15 E484.36006
G0 F6000 X102.10 Y142.76
G1 F4320 X103.47 Y144.13 E484.44035
G0 F6000 X103.80 Y143.75
G1 F4320 X102.46 Y142.41 E484.51899
G0 F6000 X102.85 Y142.09
G1 F4320 X104.19 Y143.44 E484.59786
G0 F6000 X104.63 Y143.16
G1 F4320 X103.25 Y141.79 E484.67871
G0 F6000 X103.71 Y141.54
G1 F4320 X105.11 Y142.94 E484.76067
G0 F6000 X105.65 Y142.77
G1 F4320 X104.17 Y141.30 E484.84724
G0 F6000 X104.72 Y141.13
G1 F4320 X106.28 Y142.69 E484.93891
G0 F6000 X107.01 Y142.72
G1 F4320 X105.26 Y140.97 E485.04198
G0 F6000 X105.89 Y140.89
G1 F4320 X107.95 Y142.95 E485.16327
G0 F6000 X108.23 Y141.11
G1 F4320 X112.26 Y145.14 E485.40034
G0 F6000 X112.48 Y146.07
G1 F4320 X107.32 Y140.91 E485.70385
G0 F6000 X106.54 Y140.83
G1 F4320 X112.55 Y146.85 E486.05745
G0 F6000 X112.50 Y147.51
G1 F4320 X110.14 Y145.15 E486.19615
G0 F6000 X110.38 Y146.09
G1 F4320 X112.42 Y148.13 E486.31603
G0 F6000 X112.26 Y148.68
G1 F4320 X110.41 Y146.82 E486.42516
G0 F6000 X110.33 Y147.45
G1 F4320 X112.10 Y149.22 E486.52929
G0 F6000 X111.86 Y149.69
G1 F4320 X110.16 Y147.99 E486.62936
G0 F6000 X109.93 Y148.47
G1 F4320 X111.63 Y150.17 E486.72913
G0 F6000 X111.40 Y150.64
G1 F4320 X109.66 Y148.91 E486.83106
G0 F6000 X109.35 Y149.30
G1 F4320 X113.19 Y153.14 E487.05710
G0 F6000 X112.48 Y153.14
G1 F4320 X108.97 Y149.63 E487.26359
G0 F6000 X108.56 Y149.93
G1 F4320 X111.78 Y153.14 E487.45253
G0 F6000 X111.07 Y153.14
G1 F4320 X108.10 Y150.18 E487.62692
G0 F6000 X107.58 Y150.36
G1 F4320 X110.36 Y153.14 E487.79061
G0 F6000 X109.66 Y153.14
G1 F4320 X106.99 Y150.48 E487.94715
G0 F6000 X106.31 Y150.51
G1 F4320 X108.95 Y153.14 E488.10199
G0 F6000 X108.24 Y153.14
G1 F4320 X105.47 Y150.37 E488.26477
G0 F6000 X111.78 Y151.03
G1 F4320 X113.90 Y153.14 E488.38907
G0 F6000 X114.61 Y153.14
G1 F4320 X112.49 Y151.03 E488.51339
G0 F6000 X113.20 Y151.03
G1 F4320 X115.31 Y153.14 E488.63772
G0 F6000 X116.02 Y153.14
G1 F4320 X113.91 Y151.03 E488.76201
G0 F6000 X114.61 Y151.03
G1 F4320 X116.73 Y153.14 E488.88631
G0 F6000 X117.43 Y153.14
G1 F4320 X115.32 Y151.03 E489.01060
G0 F6000 X116.03 Y151.03
G1 F4320 X118.14 Y153.14 E489.13490
G0 F6000 X118.85 Y153.14
G1 F4320 X116.73 Y151.03 E489.25919
G0 F6000 X117.44 Y151.03
G1 F4320 X119.55 Y153.14 E489.38349
G0 F6000 X120.26 Y153.14
G1 F4320 X118.15 Y151.03 E489.50778
G0 F6000 X118.85 Y151.03
G1 F4320 X120.97 Y153.14 E489.63205
G0 F6000 X121.67 Y153.14
G1 F4320 X119.56 Y151.03 E489.75631
G0 F6000 X120.27 Y151.03
G1 F4320 X122.38 Y153.14 E489.88058
G0 F6000 X123.09 Y153.14
G1 F4320 X120.98 Y151.03 E490.00481
G0 F6000 X121.68 Y151.03
G1 F4320 X123.80 Y153.14 E490.12905
G0 F6000 X124.50 Y153.14
G1 F4320 X122.39 Y151.03 E490.25329
G0 F6000 X123.10 Y151.03
G1 F4320 X125.21 Y153.14 E490.37752
G0 F6000 X125.92 Y153.14
G1 F4320 X123.80 Y151.03 E490.50179
G0 F6000 X124.51 Y151.03
G1 F4320 X126.62 Y153.14 E490.62606
G0 F6000 X127.33 Y153.14
G1 F4320 X125.22 Y151.03 E490.75032
G0 F6000 X125.92 Y151.03
G1 F4320 X128.04 Y153.14 E490.87459
G0 F6000 X128.75 Y153.14
G1 F4320 X126.63 Y151.03 E490.99879
G0 F6000 X127.34 Y151.03
G1 F4320 X129.45 Y153.14 E491.12297
G0 F6000 X130.16 Y153.14
G1 F4320 X128.05 Y151.03 E491.24715
G0 F6000 X128.75 Y151.03
G1 F4320 X130.87 Y153.14 E491.37136
G0 F6000 X131.57 Y153.14
G1 F4320 X129.46 Y151.03 E491.49556
G0 F6000 X130.17 Y151.03
G1 F4320 X132.28 Y153.14 E491.61977
G0 F6000 X132.99 Y153.14
G1 F4320 X130.88 Y151.03 E491.74398
G0 F6000 X131.58 Y151.03
G1 F4320 X133.69 Y153.14 E491.86818
G0 F6000 X134.40 Y153.14
G1 F4320 X132.29 Y151.03 E491.99239
G0 F6000 X133.00 Y151.03
G1 F4320 X135.11 Y153.14 E492.11660
G0 F6000 X135.82 Y153.14
G1 F4320 X133.70 Y151.03 E492.24080
G0 F6000 X134.41 Y151.03
G1 F4320 X136.52 Y153.14 E492.36498
G0 F6000 X137.23 Y153.14
G1 F4320 X135.12 Y151.03 E492.48916
G0 F6000 X135.82 Y151.03
G1 F4320 X137.94 Y153.14 E492.61334
G0 F6000 X138.64 Y153.14
G1 F4320 X136.53 Y151.03 E492.73751
G0 F6000 X137.24 Y151.03
G1 F4320 X139.35 Y153.14 E492.86169
G0 F6000 X140.06 Y153.14
G1 F4320 X137.95 Y151.03 E492.98587
G0 F6000 X138.65 Y151.03
G1 F4320 X140.76 Y153.14 E493.11005
G0 F6000 X141.47 Y153.14
G1 F4320 X139.36 Y151.03 E493.23422
G0 F6000 X140.07 Y151.03
G1 F4320 X142.18 Y153.14 E493.35843
G0 F6000 X142.89 Y153.14
G1 F4320 X140.78 Y151.03 E493.48261
G0 F6000 X141.48 Y151.03
G1 F4320 X143.55 Y153.10 E493.60420
G0 F6000 X143.55 Y152.39
G1 F4320 X142.19 Y151.03 E493.68422
G0 F6000 X142.90 Y151.03
G1 F4320 X143.55 Y151.68 E493.72267
G0 F6000 X111.72 Y150.71
G0 X111.76 Y143.93
G1 F4320 X109.48 Y141.65 E493.85679
G0 F6000 X161.27 Y150.85
;TYPE:WALL-INNER
G1 F4320 X192.36 Y150.85 E495.14932
G1 X193.41 Y150.64 E495.19392
G1 X192.74 Y149.30 E495.25639
G1 X192.40 Y148.12 E495.30763
G1 X192.37 Y148.01 E495.31223
G1 X192.27 Y146.89 E495.35893
G1 X192.36 Y145.79 E495.40493
G1 X192.74 Y144.50 E495.46063
G1 X193.31 Y143.43 E495.51108
G1 X194.08 Y142.49 E495.56174
G1 X195.05 Y141.71 E495.61369
G1 X196.12 Y141.13 E495.66407
G1 X197.27 Y140.78 E495.71416
G1 X198.51 Y140.66 E495.76599
G1 X199.71 Y140.77 E495.81587
G1 X200.88 Y141.13 E495.86667
G1 X201.96 Y141.71 E495.91765
G1 X202.89 Y142.48 E495.96793
G1 X203.67 Y143.43 E496.01932
G1 X204.27 Y144.51 E496.07053
G1 X204.61 Y145.69 E496.12147
G1 X204.74 Y146.90 E496.17226
G1 X204.61 Y148.12 E496.22300
G1 X204.28 Y149.27 E496.27313
G1 X203.50 Y150.86 E496.34633
G1 X204.98 Y150.85 E496.40766
G1 X209.75 Y150.85 E496.60597
G1 X209.75 Y164.35 E497.16699
