;-- START GCODE --
;Sliced for Type A Machines Series 1
;Sliced at: Mon 30-05-2016 21:21:13
;Basic settings: Layer height: 0.2 Walls: 1 Fill: 50
;Print Speed: 100 Support: 0
;Retraction Speed: 40 Retraction Distance: 1.2
;Print time: #P_TIME#
;Filament used: #F_AMNT#m #F_WGHT#g
;Filament cost: #F_COST#
M106 S255	 ;start with the fan on
G21        ;metric values
G90        ;absolute positioning
M106 S255    ;start with the fan on
G28     ;move to endstops
G29		;allows for auto-levelling
G1 X150 Y5  Z15.0 F6000 ;center and move the platform down 15mm
M109 S220 ;Heat To temp
G92 E0                  ;zero the extruded length
G1 F200 E30              ;extrude 30mm of feed stock
G92 E0                  ;zero the extruded length again
G1 X175 Y25  Z0 F6000 ;remove bugger
G1 X220 F6000 ;remove bugger
G1 X150 Y150  Z15 F6000 ;recenter and begin
G1 F6000

;Layer count: 155
;LAYER:0
M106 S255
G0 F6000 X146.32 Y144.57 Z0.30
;TYPE:SKIRT
G1 F2700 X144.93 Y146.27 E0.13705
G1 X143.89 Y148.21 E0.27415
G1 X143.25 Y150.31 E0.41140
G1 X143.03 Y152.50 E0.54839
G1 X143.25 Y154.69 E0.68538
G1 X143.89 Y156.79 E0.82263
G1 X144.93 Y158.73 E0.95973
G1 X146.32 Y160.43 E1.09678
G1 X148.02 Y161.82 E1.23383
G1 X149.96 Y162.86 E1.37093
G1 X152.06 Y163.50 E1.50818
G1 X154.25 Y163.72 E1.64517
G1 X156.44 Y163.50 E1.78216
G1 X158.54 Y162.86 E1.91941
G1 X160.48 Y161.82 E2.05651
G1 X162.18 Y160.43 E2.19356
G1 X163.57 Y158.73 E2.33062
G1 X164.61 Y156.79 E2.46771
G1 X165.25 Y154.69 E2.60496
G1 X165.47 Y152.50 E2.74195
G1 X165.25 Y150.31 E2.87894
G1 X164.61 Y148.21 E3.01619
G1 X163.57 Y146.27 E3.15329
G1 X162.18 Y144.57 E3.29034
G1 X160.48 Y143.18 E3.42740
G1 X158.54 Y142.14 E3.56449
G1 X156.44 Y141.50 E3.70174
G1 X154.25 Y141.28 E3.83879
G1 X152.06 Y141.50 E3.97566
G1 X149.96 Y142.14 E4.11297
G1 X148.02 Y143.18 E4.25007
G1 X146.32 Y144.57 E4.38712
G0 F6000 X145.97 Y144.22
G1 F2700 X144.51 Y145.99 E4.53015
G1 X143.42 Y148.02 E4.67378
G1 X142.76 Y150.22 E4.81695
G1 X142.53 Y152.50 E4.96008
G1 X142.76 Y154.78 E5.10322
G1 X143.42 Y156.98 E5.24638
G1 X144.51 Y159.01 E5.39001
G1 X145.97 Y160.78 E5.53305
G1 X147.74 Y162.24 E5.67608
G1 X149.77 Y163.33 E5.81971
G1 X151.97 Y163.99 E5.96288
G1 X154.25 Y164.22 E6.10601
G1 X156.53 Y163.99 E6.24914
G1 X158.73 Y163.33 E6.39231
G1 X160.76 Y162.24 E6.53594
G1 X162.53 Y160.78 E6.67897
G1 X163.99 Y159.01 E6.82201
G1 X165.08 Y156.98 E6.96564
G1 X165.74 Y154.78 E7.10881
G1 X165.97 Y152.50 E7.25194
G1 X165.74 Y150.22 E7.39507
G1 X165.08 Y148.02 E7.53824
G1 X163.99 Y145.99 E7.68187
G1 X162.53 Y144.22 E7.82490
G1 X160.76 Y142.76 E7.96794
G1 X158.73 Y141.67 E8.11156
G1 X156.53 Y141.01 E8.25473
G1 X154.25 Y140.78 E8.39786
G1 X151.97 Y141.01 E8.54100
G1 X149.77 Y141.67 E8.68416
G1 X147.74 Y142.76 E8.82779
G1 X145.97 Y144.22 E8.97083
G0 F6000 X145.61 Y143.86
G1 F2700 X144.09 Y145.71 E9.12024
G1 X142.96 Y147.82 E9.26956
G1 X142.27 Y150.12 E9.41906
G1 X142.03 Y152.50 E9.56833
G1 X142.27 Y154.88 E9.71760
G1 X142.96 Y157.18 E9.86710
G1 X144.09 Y159.29 E10.01642
G1 X145.61 Y161.14 E10.16583
G1 X147.46 Y162.66 E10.31525
G1 X149.57 Y163.79 E10.46456
G1 X151.87 Y164.48 E10.61406
G1 X154.25 Y164.72 E10.76333
G1 X156.63 Y164.48 E10.91260
G1 X158.93 Y163.79 E11.06210
G1 X161.04 Y162.66 E11.21142
G1 X162.89 Y161.14 E11.36084
G1 X164.41 Y159.29 E11.51025
G1 X165.54 Y157.18 E11.65957
G1 X166.23 Y154.88 E11.80907
G1 X166.47 Y152.50 E11.95834
G1 X166.23 Y150.12 E12.10761
G1 X165.54 Y147.82 E12.25711
G1 X164.41 Y145.71 E12.40642
G1 X162.89 Y143.86 E12.55584
G1 X161.04 Y142.34 E12.70525
G1 X158.93 Y141.21 E12.85457
G1 X156.63 Y140.51 E13.00409
G1 X154.25 Y140.28 E13.15335
G1 X151.87 Y140.52 E13.30262
G1 X149.57 Y141.21 E13.45212
G1 X147.46 Y142.34 E13.60144
G1 X145.61 Y143.86 E13.75085
G0 F6000 X145.25 Y143.50
G1 F2700 X143.67 Y145.43 E13.90616
G1 X142.50 Y147.63 E14.06198
G1 X141.77 Y150.02 E14.21756
G1 X141.53 Y152.50 E14.37296
G1 X141.77 Y154.98 E14.52837
G1 X142.50 Y157.37 E14.68394
G1 X143.67 Y159.57 E14.83976
G1 X145.25 Y161.50 E14.99507
G1 X147.18 Y163.08 E15.15038
G1 X149.38 Y164.25 E15.30620
G1 X151.77 Y164.98 E15.46177
G1 X154.25 Y165.22 E15.61718
G1 X156.73 Y164.98 E15.77258
G1 X159.12 Y164.25 E15.92816
G1 X161.32 Y163.08 E16.08398
G1 X163.25 Y161.50 E16.23928
G1 X164.83 Y159.57 E16.39459
G1 X166.00 Y157.37 E16.55041
G1 X166.73 Y154.98 E16.70598
G1 X166.97 Y152.50 E16.86139
G1 X166.73 Y150.02 E17.01680
G1 X166.00 Y147.63 E17.17237
G1 X164.83 Y145.43 E17.32819
G1 X163.25 Y143.50 E17.48350
G1 X161.32 Y141.92 E17.63881
G1 X159.12 Y140.75 E17.79462
G1 X156.73 Y140.02 E17.95014
G1 X154.25 Y139.78 E18.10561
G1 X151.77 Y140.02 E18.26108
G1 X149.38 Y140.75 E18.41659
G1 X147.18 Y141.92 E18.57241
G1 X145.25 Y143.50 E18.72772
G0 F6000 X144.90 Y143.15
G1 F2700 X143.26 Y145.15 E18.88923
G1 X142.03 Y147.44 E19.05108
G1 X141.28 Y149.92 E19.21277
G1 X141.03 Y152.50 E19.37438
G1 X141.28 Y155.08 E19.53599
G1 X142.03 Y157.56 E19.69768
G1 X143.26 Y159.85 E19.85953
G1 X144.90 Y161.85 E20.02104
G1 X146.90 Y163.49 E20.18255
G1 X149.19 Y164.72 E20.34440
G1 X151.67 Y165.47 E20.50609
G1 X154.25 Y165.72 E20.66770
G1 X156.83 Y165.47 E20.82931
G1 X159.31 Y164.72 E20.99100
G1 X161.60 Y163.49 E21.15285
G1 X163.60 Y161.85 E21.31436
G1 X165.24 Y159.85 E21.47587
G1 X166.47 Y157.56 E21.63772
G1 X167.22 Y155.08 E21.79941
G1 X167.47 Y152.50 E21.96102
G1 X167.22 Y149.92 E22.12263
G1 X166.47 Y147.44 E22.28432
G1 X165.24 Y145.15 E22.44617
G1 X163.60 Y143.15 E22.60768
G1 X161.60 Y141.51 E22.76919
G1 X159.31 Y140.28 E22.93104
G1 X156.83 Y139.53 E23.09273
G1 X154.25 Y139.28 E23.25434
G1 X151.67 Y139.53 E23.41595
G1 X149.19 Y140.28 E23.57765
G1 X146.90 Y141.51 E23.73949
G1 X144.90 Y143.15 E23.90100
G0 F6000 X144.54 Y142.79
G1 F2700 X142.84 Y144.87 E24.06867
G1 X141.57 Y147.25 E24.23682
G1 X140.79 Y149.82 E24.40437
G1 X140.52 Y152.50 E24.57225
G1 X140.79 Y155.18 E24.74013
G1 X141.57 Y157.75 E24.90768
G1 X142.84 Y160.13 E25.07584
G1 X144.54 Y162.21 E25.24350
G1 X146.62 Y163.91 E25.41117
G1 X149.00 Y165.18 E25.57932
G1 X151.57 Y165.96 E25.74687
G1 X154.25 Y166.23 E25.91475
G1 X156.93 Y165.96 E26.08263
G1 X159.50 Y165.18 E26.25018
G1 X161.88 Y163.91 E26.41834
G1 X163.96 Y162.21 E26.58600
G1 X165.66 Y160.13 E26.75367
G1 X166.93 Y157.75 E26.92182
G1 X167.71 Y155.18 E27.08937
G1 X167.98 Y152.50 E27.25725
G1 X167.71 Y149.82 E27.42513
G1 X166.93 Y147.25 E27.59268
G1 X165.66 Y144.87 E27.76084
G1 X163.96 Y142.79 E27.92850
G1 X161.88 Y141.09 E28.09617
G1 X159.50 Y139.82 E28.26432
G1 X156.93 Y139.04 E28.43187
G1 X154.25 Y138.77 E28.59982
G1 X151.57 Y139.04 E28.76763
G1 X149.00 Y139.82 E28.93518
G1 X146.62 Y141.09 E29.10334
G1 X144.54 Y142.79 E29.27100
G0 F6000 X144.19 Y142.44
G1 F2700 X142.42 Y144.59 E29.44488
G1 X141.10 Y147.06 E29.61903
G1 X140.29 Y149.73 E29.79309
G1 X140.02 Y152.50 E29.96680
G1 X140.29 Y155.27 E30.14051
G1 X141.10 Y157.94 E30.31457
G1 X142.42 Y160.41 E30.48872
G1 X144.19 Y162.56 E30.66260
G1 X146.34 Y164.33 E30.83647
G1 X148.81 Y165.65 E31.01062
G1 X151.48 Y166.46 E31.18468
G1 X154.25 Y166.73 E31.35839
G1 X157.02 Y166.46 E31.53210
G1 X159.69 Y165.65 E31.70617
G1 X162.16 Y164.33 E31.88032
G1 X164.31 Y162.56 E32.05419
G1 X166.08 Y160.41 E32.22806
G1 X167.40 Y157.94 E32.40221
G1 X168.21 Y155.27 E32.57627
G1 X168.48 Y152.50 E32.74998
G1 X168.21 Y149.73 E32.92370
G1 X167.40 Y147.06 E33.09776
G1 X166.08 Y144.59 E33.27191
G1 X164.31 Y142.44 E33.44578
G1 X162.16 Y140.67 E33.61965
G1 X159.69 Y139.35 E33.79380
G1 X157.02 Y138.54 E33.96780
G1 X154.25 Y138.27 E34.14164
G1 X151.48 Y138.54 E34.31529
G1 X148.81 Y139.35 E34.48935
G1 X146.34 Y140.67 E34.66350
G1 X144.19 Y142.44 E34.83737
G0 F6000 X143.83 Y142.08
G1 F2700 X142.00 Y144.31 E35.01714
G1 X140.64 Y146.87 E35.19779
G1 X139.80 Y149.62 E35.37753
G1 X139.52 Y152.50 E35.55776
G1 X139.80 Y155.38 E35.73799
G1 X140.64 Y158.13 E35.91773
G1 X142.00 Y160.69 E36.09838
G1 X143.83 Y162.92 E36.27815
G1 X146.06 Y164.75 E36.45791
G1 X148.62 Y166.11 E36.63856
G1 X151.37 Y166.95 E36.81830
G1 X154.25 Y167.23 E36.99853
G1 X157.13 Y166.95 E37.17876
G1 X159.88 Y166.11 E37.35850
G1 X162.44 Y164.75 E37.53915
G1 X164.67 Y162.92 E37.71892
G1 X166.50 Y160.69 E37.89868
G1 X167.86 Y158.13 E38.07933
G1 X168.70 Y155.38 E38.25907
G1 X168.98 Y152.50 E38.43930
G1 X168.70 Y149.62 E38.61953
G1 X167.86 Y146.87 E38.79927
G1 X166.50 Y144.31 E38.97992
G1 X164.67 Y142.08 E39.15969
G1 X162.44 Y140.25 E39.33945
G1 X159.88 Y138.89 E39.52010
G1 X157.13 Y138.05 E39.69985
G1 X154.25 Y137.77 E39.88014
G1 X151.37 Y138.05 E40.06030
G1 X148.62 Y138.89 E40.24004
G1 X146.06 Y140.25 E40.42069
G1 X143.83 Y142.08 E40.60046
G0 F6000 X143.48 Y141.73
G1 F2700 X141.58 Y144.03 E40.78660
G1 X140.18 Y146.67 E40.97297
G1 X139.31 Y149.53 E41.15936
G1 X139.01 Y152.50 E41.34542
G1 X139.31 Y155.47 E41.53147
G1 X140.18 Y158.33 E41.71786
G1 X141.58 Y160.97 E41.90423
G1 X143.48 Y163.27 E42.09038
G1 X145.78 Y165.17 E42.27652
G1 X148.42 Y166.57 E42.46289
G1 X151.28 Y167.44 E42.64928
G1 X154.25 Y167.74 E42.83534
G1 X157.22 Y167.44 E43.02139
G1 X160.08 Y166.57 E43.20778
G1 X162.72 Y165.17 E43.39415
G1 X165.02 Y163.27 E43.58030
G1 X166.92 Y160.97 E43.76644
G1 X168.32 Y158.33 E43.95281
G1 X169.19 Y155.47 E44.13920
G1 X169.49 Y152.50 E44.32526
G1 X169.19 Y149.53 E44.51131
G1 X168.32 Y146.67 E44.69770
G1 X166.92 Y144.03 E44.88407
G1 X165.02 Y141.73 E45.07022
G1 X162.72 Y139.83 E45.25636
G1 X160.08 Y138.43 E45.44273
G1 X157.22 Y137.56 E45.62912
G1 X154.25 Y137.26 E45.81524
G1 X151.28 Y137.56 E46.00123
G1 X148.42 Y138.43 E46.18762
G1 X145.78 Y139.83 E46.37399
G1 X143.48 Y141.73 E46.56014
G0 F6000 X143.12 Y141.37
G1 F2700 X141.17 Y143.76 E46.75249
G1 X139.71 Y146.48 E46.94485
G1 X138.82 Y149.43 E47.13738
G1 X138.51 Y152.50 E47.32963
G1 X138.82 Y155.57 E47.52189
G1 X139.71 Y158.52 E47.71441
G1 X141.17 Y161.24 E47.90678
G1 X143.12 Y163.63 E48.09913
G1 X145.51 Y165.58 E48.29148
G1 X148.23 Y167.04 E48.48384
G1 X151.18 Y167.93 E48.67637
G1 X154.25 Y168.24 E48.86862
G1 X157.32 Y167.93 E49.06088
G1 X160.27 Y167.04 E49.25340
G1 X162.99 Y165.58 E49.44577
G1 X165.38 Y163.63 E49.63812
G1 X167.33 Y161.24 E49.83047
G1 X168.79 Y158.52 E50.02284
G1 X169.68 Y155.57 E50.21536
G1 X169.99 Y152.50 E50.40761
G1 X169.68 Y149.43 E50.59987
G1 X168.79 Y146.48 E50.79239
G1 X167.33 Y143.76 E50.98476
G1 X165.38 Y141.37 E51.17711
G1 X162.99 Y139.42 E51.36946
G1 X160.27 Y137.96 E51.56183
G1 X157.32 Y137.07 E51.75435
G1 X154.25 Y136.76 E51.94667
G1 X151.18 Y137.07 E52.13886
G1 X148.23 Y137.96 E52.33139
G1 X145.51 Y139.42 E52.52375
G1 X143.12 Y141.37 E52.71610
G0 F6000 X142.77 Y141.02
G1 F2700 X140.75 Y143.48 E52.91461
G1 X139.25 Y146.29 E53.11328
G1 X138.32 Y149.33 E53.31167
G1 X138.01 Y152.50 E53.51019
G1 X138.32 Y155.67 E53.70871
G1 X139.25 Y158.71 E53.90709
G1 X140.75 Y161.52 E54.10577
G1 X142.77 Y163.98 E54.30427
G1 X145.23 Y166.00 E54.50278
G1 X148.04 Y167.50 E54.70145
G1 X151.08 Y168.43 E54.89984
G1 X154.25 Y168.74 E55.09836
G1 X157.42 Y168.43 E55.29688
G1 X160.46 Y167.50 E55.49526
G1 X163.27 Y166.00 E55.69394
G1 X165.73 Y163.98 E55.89244
G1 X167.75 Y161.52 E56.09095
G1 X169.25 Y158.71 E56.28962
G1 X170.18 Y155.67 E56.48801
G1 X170.49 Y152.50 E56.68653
G1 X170.18 Y149.33 E56.88505
G1 X169.25 Y146.29 E57.08343
G1 X167.75 Y143.48 E57.28211
G1 X165.73 Y141.02 E57.48061
G1 X163.27 Y139.00 E57.67912
G1 X160.46 Y137.50 E57.87779
G1 X157.42 Y136.57 E58.07618
G1 X154.25 Y136.26 E58.27476
G1 X151.08 Y136.57 E58.47322
G1 X148.04 Y137.50 E58.67160
G1 X145.23 Y139.00 E58.87028
G1 X142.77 Y141.02 E59.06878
G0 F6000 X142.41 Y140.66
G1 F2700 X140.33 Y143.20 E59.27328
G1 X138.78 Y146.09 E59.47817
G1 X137.83 Y149.23 E59.68275
G1 X137.51 Y152.50 E59.88742
G1 X137.83 Y155.77 E60.09208
G1 X138.78 Y158.91 E60.29666
G1 X140.33 Y161.80 E60.50155
G1 X142.41 Y164.34 E60.70605
G1 X144.95 Y166.42 E60.91054
G1 X147.84 Y167.97 E61.11544
G1 X150.98 Y168.92 E61.32002
G1 X154.25 Y169.24 E61.52468
G1 X157.52 Y168.92 E61.72935
G1 X160.66 Y167.97 E61.93393
G1 X163.55 Y166.42 E62.13882
G1 X166.09 Y164.34 E62.34332
G1 X168.17 Y161.80 E62.54781
G1 X169.72 Y158.91 E62.75271
G1 X170.67 Y155.77 E62.95728
G1 X170.99 Y152.50 E63.16195
G1 X170.67 Y149.23 E63.36661
G1 X169.72 Y146.09 E63.57119
G1 X168.17 Y143.20 E63.77609
G1 X166.09 Y140.66 E63.98058
G1 X163.55 Y138.58 E64.18508
G1 X160.66 Y137.03 E64.38997
G1 X157.52 Y136.08 E64.59455
G1 X154.25 Y135.76 E64.79928
G1 X150.98 Y136.08 E65.00388
G1 X147.84 Y137.03 E65.20846
G1 X144.95 Y138.58 E65.41335
G1 X142.41 Y140.66 E65.61785
G0 F6000 X142.06 Y140.31
G1 F2700 X139.91 Y142.92 E65.82845
G1 X138.32 Y145.90 E66.03962
G1 X137.34 Y149.13 E66.25020
G1 X137.01 Y152.50 E66.46107
G1 X137.34 Y155.87 E66.67194
G1 X138.32 Y159.10 E66.88252
G1 X139.91 Y162.08 E67.09369
G1 X142.06 Y164.69 E67.30429
G1 X144.67 Y166.84 E67.51489
G1 X147.65 Y168.43 E67.72606
G1 X150.88 Y169.41 E67.93664
G1 X154.25 Y169.74 E68.14751
G1 X157.62 Y169.41 E68.35838
G1 X160.85 Y168.43 E68.56896
G1 X163.83 Y166.84 E68.78013
G1 X166.44 Y164.69 E68.99073
G1 X168.59 Y162.08 E69.20133
G1 X170.18 Y159.10 E69.41251
G1 X171.16 Y155.87 E69.62308
G1 X171.49 Y152.50 E69.83395
G1 X171.16 Y149.13 E70.04482
G1 X170.18 Y145.90 E70.25540
G1 X168.59 Y142.92 E70.46657
G1 X166.44 Y140.31 E70.67717
G1 X163.83 Y138.16 E70.88778
G1 X160.85 Y136.57 E71.09895
G1 X157.62 Y135.59 E71.30952
G1 X154.25 Y135.26 E71.52046
G1 X150.88 Y135.59 E71.73126
G1 X147.65 Y136.57 E71.94184
G1 X144.67 Y138.16 E72.15301
G1 X142.06 Y140.31 E72.36361
G0 F6000 X141.70 Y139.95
G1 F2700 X139.50 Y142.64 E72.58056
G1 X137.86 Y145.71 E72.79748
G1 X136.84 Y149.04 E73.01470
G1 X136.50 Y152.50 E73.23140
G1 X136.84 Y155.96 E73.44809
G1 X137.86 Y159.29 E73.66532
G1 X139.50 Y162.36 E73.88224
G1 X141.70 Y165.05 E74.09918
G1 X144.39 Y167.25 E74.31613
G1 X147.46 Y168.89 E74.53305
G1 X150.79 Y169.91 E74.75027
G1 X154.25 Y170.25 E74.96697
G1 X157.71 Y169.91 E75.18366
G1 X161.04 Y168.89 E75.40089
G1 X164.11 Y167.25 E75.61781
G1 X166.80 Y165.05 E75.83475
G1 X169.00 Y162.36 E76.05170
G1 X170.64 Y159.29 E76.26861
G1 X171.66 Y155.96 E76.48584
G1 X172.00 Y152.50 E76.70254
G1 X171.66 Y149.04 E76.91923
G1 X170.64 Y145.71 E77.13646
G1 X169.00 Y142.64 E77.35338
G1 X166.80 Y139.95 E77.57032
G1 X164.11 Y137.74 E77.78735
G1 X161.04 Y136.11 E78.00419
G1 X157.71 Y135.09 E78.22141
G1 X154.25 Y134.75 E78.43817
G1 X150.79 Y135.09 E78.65480
G1 X147.46 Y136.11 E78.87203
G1 X144.39 Y137.74 E79.08887
G1 X141.70 Y139.95 E79.30590
G0 F6000 X141.35 Y139.60
G1 F2700 X139.08 Y142.36 E79.52886
G1 X137.39 Y145.52 E79.75228
G1 X136.35 Y148.94 E79.97503
G1 X136.00 Y152.50 E80.19825
G1 X136.35 Y156.06 E80.42147
G1 X137.39 Y159.48 E80.64422
G1 X139.08 Y162.64 E80.86764
G1 X141.35 Y165.40 E81.09060
G1 X144.11 Y167.67 E81.31356
G1 X147.27 Y169.36 E81.53698
G1 X150.69 Y170.40 E81.75973
G1 X154.25 Y170.75 E81.98295
G1 X157.81 Y170.40 E82.20617
G1 X161.23 Y169.36 E82.42892
G1 X164.39 Y167.67 E82.65234
G1 X167.15 Y165.40 E82.87530
G1 X169.42 Y162.64 E83.09827
G1 X171.11 Y159.48 E83.32169
G1 X172.15 Y156.06 E83.54444
G1 X172.50 Y152.50 E83.76766
G1 X172.15 Y148.94 E83.99087
G1 X171.11 Y145.52 E84.21362
G1 X169.42 Y142.36 E84.43704
G1 X167.15 Y139.60 E84.66001
G1 X164.39 Y137.33 E84.88297
G1 X161.23 Y135.64 E85.10639
G1 X157.81 Y134.60 E85.32914
G1 X154.25 Y134.25 E85.55242
G1 X150.69 Y134.60 E85.77558
G1 X147.27 Y135.64 E85.99833
G1 X144.11 Y137.33 E86.22175
G1 X141.35 Y139.60 E86.44471
G0 F6000 X134.89 Y132.42
G1 F2700 X135.49 Y131.82 E86.49758
G1 X135.89 Y131.62 E86.52550
G1 X136.49 Y131.02 E86.57837
G1 X136.89 Y130.82 E86.60629
G1 X137.49 Y130.22 E86.65916
G1 X137.89 Y130.02 E86.68708
G1 X138.69 Y129.22 E86.75759
G1 X143.09 Y127.02 E87.06440
G1 X143.36 Y126.74 E87.08883
G1 X144.40 Y126.48 E87.15511
G1 X148.66 Y125.06 E87.43548
G1 X151.41 Y124.85 E87.60768
G1 X159.47 Y124.85 E88.10995
G1 X160.42 Y125.09 E88.17095
G1 X164.72 Y126.52 E88.45355
G1 X170.11 Y129.22 E88.82994
G1 X170.91 Y130.02 E88.90045
G1 X171.31 Y130.22 E88.92837
G1 X172.31 Y131.22 E89.01652
G1 X172.71 Y131.42 E89.04444
G1 X175.10 Y133.81 E89.25491
G1 X175.10 Y134.01 E89.26739
G1 X175.90 Y134.81 E89.33794
G1 X175.90 Y135.01 E89.35042
G1 X176.70 Y135.81 E89.42097
G1 X176.70 Y136.01 E89.43344
G1 X177.50 Y136.81 E89.50400
G1 X177.50 Y137.01 E89.51647
G1 X177.90 Y137.41 E89.55175
G1 X177.90 Y137.61 E89.56422
G1 X178.10 Y137.81 E89.58186
G1 X178.10 Y138.01 E89.59433
G1 X178.30 Y138.21 E89.61197
G1 X178.30 Y138.41 E89.62444
G1 X178.50 Y138.61 E89.64208
G1 X178.50 Y138.81 E89.65456
G1 X178.70 Y139.01 E89.67219
G1 X178.70 Y139.21 E89.68467
G1 X178.90 Y139.41 E89.70231
G1 X178.90 Y139.61 E89.71478
G1 X179.10 Y139.81 E89.73242
G1 X179.10 Y140.01 E89.74489
G1 X179.30 Y140.21 E89.76253
G1 X179.30 Y140.41 E89.77500
G1 X179.50 Y140.61 E89.79264
G1 X179.50 Y140.81 E89.80511
G1 X179.70 Y141.01 E89.82275
G1 X179.70 Y141.21 E89.83522
G1 X179.90 Y141.41 E89.85286
G1 X179.90 Y141.61 E89.86534
G1 X180.10 Y141.81 E89.88297
G1 X180.10 Y142.21 E89.90792
G1 X180.30 Y142.41 E89.92556
G1 X180.30 Y142.81 E89.95050
G1 X180.50 Y143.01 E89.96814
G1 X180.50 Y143.41 E89.99309
G1 X180.70 Y143.61 E90.01073
G1 X180.70 Y144.01 E90.03567
G1 X180.90 Y144.21 E90.05331
G1 X180.90 Y144.61 E90.07826
G1 X181.10 Y144.81 E90.09589
G1 X181.10 Y145.21 E90.12084
G1 X181.30 Y145.41 E90.13848
G1 X181.30 Y145.81 E90.16342
G1 X181.50 Y146.01 E90.18106
G1 X181.50 Y146.61 E90.21848
G1 X181.70 Y146.81 E90.23612
G1 X181.70 Y148.41 E90.33590
G1 X181.90 Y148.61 E90.35354
G1 X181.90 Y150.21 E90.45332
G1 X182.10 Y150.41 E90.47096
G1 X182.10 Y154.59 E90.73213
G1 X181.90 Y154.79 E90.74977
G1 X181.90 Y156.39 E90.84955
G1 X181.70 Y156.59 E90.86719
G1 X181.70 Y157.99 E90.95450
G1 X181.50 Y158.19 E90.97214
G1 X181.50 Y158.79 E91.00955
G1 X181.30 Y158.99 E91.02719
G1 X181.30 Y159.39 E91.05214
G1 X181.10 Y159.59 E91.06978
G1 X181.10 Y159.99 E91.09472
G1 X180.90 Y160.19 E91.11236
G1 X180.90 Y160.59 E91.13731
G1 X180.70 Y160.79 E91.15495
G1 X180.70 Y161.19 E91.17989
G1 X180.50 Y161.39 E91.19753
G1 X180.50 Y161.79 E91.22247
G1 X180.30 Y161.99 E91.24011
G1 X180.30 Y162.39 E91.26506
G1 X180.10 Y162.59 E91.28270
G1 X180.10 Y162.99 E91.30764
G1 X179.90 Y163.19 E91.32528
G1 X179.90 Y163.39 E91.33775
G1 X179.70 Y163.59 E91.35539
G1 X179.70 Y163.79 E91.36786
G1 X179.50 Y163.99 E91.38550
G1 X179.50 Y164.19 E91.39798
G1 X179.30 Y164.39 E91.41562
G1 X179.30 Y164.59 E91.42809
G1 X179.10 Y164.79 E91.44573
G1 X179.10 Y164.99 E91.45820
G1 X178.90 Y165.19 E91.47584
G1 X178.90 Y165.39 E91.48831
G1 X178.70 Y165.59 E91.50595
G1 X178.70 Y165.79 E91.51842
G1 X178.50 Y165.99 E91.53606
G1 X178.50 Y166.19 E91.54853
G1 X178.30 Y166.39 E91.56617
G1 X178.30 Y166.59 E91.57864
G1 X178.10 Y166.79 E91.59628
G1 X178.10 Y166.99 E91.60876
G1 X177.90 Y167.19 E91.62640
G1 X177.90 Y167.39 E91.63887
G1 X177.70 Y167.59 E91.65651
G1 X177.70 Y167.79 E91.66898
G1 X177.50 Y167.99 E91.68662
G1 X177.50 Y168.19 E91.69909
G1 X176.50 Y169.19 E91.78728
G1 X176.50 Y169.39 E91.79976
G1 X175.30 Y170.59 E91.90559
G1 X175.30 Y170.79 E91.91806
G1 X173.19 Y172.90 E92.10380
G1 X173.24 Y173.12 E92.11763
G1 X172.31 Y173.58 E92.18253
G1 X171.31 Y174.58 E92.27068
G1 X170.91 Y174.78 E92.29859
G1 X170.11 Y175.58 E92.36910
G1 X164.72 Y178.28 E92.74550
G1 X160.42 Y179.71 E93.02810
G1 X159.53 Y179.94 E93.08536
G1 X157.86 Y180.14 E93.18994
G1 X156.00 Y180.35 E93.30653
G1 X154.20 Y180.35 E93.41916
G1 X148.65 Y179.73 E93.76752
G1 X144.40 Y178.32 E94.04692
G1 X143.36 Y178.06 E94.11320
G1 X143.09 Y177.78 E94.13763
G1 X138.69 Y175.58 E94.44445
G1 X137.89 Y174.78 E94.51496
G1 X137.49 Y174.58 E94.54287
G1 X136.89 Y173.98 E94.59575
G1 X136.49 Y173.78 E94.62366
G1 X135.89 Y173.18 E94.67654
G1 X135.49 Y172.98 E94.70445
G1 X134.89 Y172.38 E94.75733
G1 X134.10 Y171.99 E94.81218
G1 X134.10 Y171.59 E94.83676
G1 X133.10 Y170.59 E94.92495
G1 X133.10 Y170.39 E94.93742
G1 X131.90 Y169.19 E95.04326
G1 X131.90 Y168.99 E95.05573
G1 X130.70 Y167.79 E95.16156
G1 X130.70 Y167.59 E95.17403
G1 X130.50 Y167.39 E95.19167
G1 X130.50 Y167.19 E95.20415
G1 X130.30 Y166.99 E95.22178
G1 X130.30 Y166.79 E95.23426
G1 X130.10 Y166.59 E95.25190
G1 X130.10 Y166.39 E95.26437
G1 X129.90 Y166.19 E95.28201
G1 X129.90 Y165.99 E95.29448
G1 X129.70 Y165.79 E95.31212
G1 X129.70 Y165.59 E95.32459
G1 X129.50 Y165.39 E95.34223
G1 X129.50 Y165.19 E95.35470
G1 X129.30 Y164.99 E95.37234
G1 X129.30 Y164.79 E95.38481
G1 X129.10 Y164.59 E95.40245
G1 X129.10 Y164.39 E95.41492
G1 X128.90 Y164.19 E95.43256
G1 X128.90 Y163.99 E95.44504
G1 X128.70 Y163.79 E95.46268
G1 X128.70 Y163.59 E95.47515
G1 X128.50 Y163.39 E95.49279
G1 X128.50 Y163.19 E95.50526
G1 X128.30 Y162.99 E95.52290
G1 X128.30 Y162.39 E95.56032
G1 X128.10 Y162.19 E95.57795
G1 X128.10 Y161.79 E95.60290
G1 X127.90 Y161.59 E95.62054
G1 X127.90 Y161.19 E95.64548
G1 X127.70 Y160.99 E95.66312
G1 X127.70 Y160.59 E95.68807
G1 X127.50 Y160.39 E95.70571
G1 X127.50 Y159.99 E95.73065
G1 X127.30 Y159.79 E95.74829
G1 X127.30 Y159.39 E95.77324
G1 X127.10 Y159.19 E95.79087
G1 X127.10 Y158.79 E95.81582
G1 X126.90 Y158.59 E95.83346
G1 X126.90 Y158.19 E95.85840
G1 X126.70 Y157.99 E95.87604
G1 X126.70 Y155.59 E96.02571
G1 X126.50 Y155.39 E96.04335
G1 X126.50 Y149.61 E96.40431
G1 X126.70 Y149.41 E96.42195
G1 X126.70 Y146.81 E96.58409
G1 X126.90 Y146.61 E96.60173
G1 X126.90 Y146.21 E96.62667
G1 X127.10 Y146.01 E96.64431
G1 X127.10 Y145.61 E96.66926
G1 X127.30 Y145.41 E96.68690
G1 X127.30 Y145.01 E96.71184
G1 X127.50 Y144.81 E96.72948
G1 X127.50 Y144.41 E96.75442
G1 X127.70 Y144.21 E96.77206
G1 X127.70 Y143.81 E96.79701
G1 X127.90 Y143.61 E96.81465
G1 X127.90 Y143.21 E96.83959
G1 X128.10 Y143.01 E96.85723
G1 X128.10 Y142.61 E96.88218
G1 X128.30 Y142.41 E96.89982
G1 X128.30 Y141.81 E96.93723
G1 X128.70 Y141.41 E96.97251
G1 X128.70 Y141.21 E96.98498
G1 X128.90 Y141.01 E97.00262
G1 X128.90 Y140.81 E97.01509
G1 X129.10 Y140.61 E97.03273
G1 X129.10 Y140.41 E97.04521
G1 X129.30 Y140.21 E97.06285
G1 X129.30 Y140.01 E97.07532
G1 X129.50 Y139.81 E97.09296
G1 X129.50 Y139.61 E97.10543
G1 X129.70 Y139.41 E97.12307
G1 X129.70 Y139.21 E97.13554
G1 X129.90 Y139.01 E97.15318
G1 X129.90 Y138.81 E97.16565
G1 X130.10 Y138.61 E97.18329
G1 X130.10 Y138.41 E97.19576
G1 X130.30 Y138.21 E97.21340
G1 X130.30 Y138.01 E97.22587
G1 X130.50 Y137.81 E97.24351
G1 X130.50 Y137.61 E97.25599
G1 X130.70 Y137.41 E97.27363
G1 X130.70 Y137.21 E97.28610
G1 X131.70 Y136.21 E97.37429
G1 X131.70 Y136.01 E97.38676
G1 X132.50 Y135.21 E97.45732
G1 X132.50 Y135.01 E97.46979
G1 X133.30 Y134.21 E97.54035
G1 X133.30 Y134.01 E97.55282
G1 X134.10 Y133.21 E97.62338
G1 X134.10 Y132.81 E97.64795
G1 X134.89 Y132.42 E97.70281
G0 F6000 X134.59 Y132.01
G1 F2700 X135.19 Y131.41 E97.75563
G1 X135.59 Y131.21 E97.78361
G1 X136.19 Y130.61 E97.83644
G1 X136.59 Y130.41 E97.86441
G1 X137.19 Y129.81 E97.91724
G1 X137.59 Y129.61 E97.94521
G1 X138.39 Y128.81 E98.01568
G1 X142.79 Y126.61 E98.32254
G1 X143.11 Y126.29 E98.35050
G1 X144.25 Y126.01 E98.42360
G1 X148.56 Y124.57 E98.70719
G1 X151.39 Y124.35 E98.88445
G1 X159.53 Y124.35 E99.39170
G1 X160.56 Y124.61 E99.45777
G1 X164.91 Y126.06 E99.74380
G1 X170.41 Y128.81 E100.12745
G1 X171.21 Y129.61 E100.19792
G1 X171.61 Y129.81 E100.22589
G1 X172.61 Y130.81 E100.31400
G1 X173.01 Y131.01 E100.34197
G1 X175.60 Y133.60 E100.57044
G1 X175.60 Y133.80 E100.58297
G1 X176.40 Y134.60 E100.65348
G1 X176.40 Y134.80 E100.66602
G1 X177.20 Y135.60 E100.73653
G1 X177.20 Y135.80 E100.74906
G1 X178.00 Y136.60 E100.81958
G1 X178.00 Y136.80 E100.83211
G1 X178.40 Y137.20 E100.86734
G1 X178.40 Y137.40 E100.87982
G1 X178.60 Y137.60 E100.89746
G1 X178.60 Y137.80 E100.90993
G1 X178.80 Y138.00 E100.92757
G1 X178.80 Y138.20 E100.94004
G1 X179.00 Y138.40 E100.95768
G1 X179.00 Y138.60 E100.97015
G1 X179.20 Y138.80 E100.98779
G1 X179.20 Y139.00 E101.00026
G1 X179.40 Y139.20 E101.01790
G1 X179.40 Y139.40 E101.03037
G1 X179.60 Y139.60 E101.04801
G1 X179.60 Y139.80 E101.06049
G1 X179.80 Y140.00 E101.07812
G1 X179.80 Y140.20 E101.09060
G1 X180.00 Y140.40 E101.10824
G1 X180.00 Y140.60 E101.12071
G1 X180.20 Y140.80 E101.13835
G1 X180.20 Y141.00 E101.15082
G1 X180.40 Y141.20 E101.16846
G1 X180.40 Y141.40 E101.18093
G1 X180.60 Y141.60 E101.19857
G1 X180.60 Y142.00 E101.22351
G1 X180.80 Y142.20 E101.24115
G1 X180.80 Y142.60 E101.26610
G1 X181.00 Y142.80 E101.28374
G1 X181.00 Y143.20 E101.30868
G1 X181.20 Y143.40 E101.32632
G1 X181.20 Y143.80 E101.35127
G1 X181.40 Y144.00 E101.36891
G1 X181.40 Y144.40 E101.39385
G1 X181.60 Y144.60 E101.41149
G1 X181.60 Y145.00 E101.43643
G1 X181.80 Y145.20 E101.45407
G1 X181.80 Y145.60 E101.47902
G1 X182.00 Y145.80 E101.49666
G1 X182.00 Y146.40 E101.53407
G1 X182.20 Y146.60 E101.55171
G1 X182.20 Y148.20 E101.65149
G1 X182.40 Y148.40 E101.66913
G1 X182.40 Y150.00 E101.76891
G1 X182.60 Y150.20 E101.78655
G1 X182.60 Y154.80 E102.07355
G1 X182.40 Y155.00 E102.09118
G1 X182.40 Y156.60 E102.19096
G1 X182.20 Y156.80 E102.20860
G1 X182.20 Y158.20 E102.29591
G1 X182.00 Y158.40 E102.31355
G1 X182.00 Y159.00 E102.35097
G1 X181.80 Y159.20 E102.36861
G1 X181.80 Y159.60 E102.39355
G1 X181.60 Y159.80 E102.41119
G1 X181.60 Y160.20 E102.43614
G1 X181.40 Y160.40 E102.45377
G1 X181.40 Y160.80 E102.47872
G1 X181.20 Y161.00 E102.49636
G1 X181.20 Y161.40 E102.52130
G1 X181.00 Y161.60 E102.53894
G1 X181.00 Y162.00 E102.56389
G1 X180.80 Y162.20 E102.58153
G1 X180.80 Y162.60 E102.60647
G1 X180.60 Y162.80 E102.62411
G1 X180.60 Y163.20 E102.64906
G1 X180.40 Y163.40 E102.66669
G1 X180.40 Y163.60 E102.67917
G1 X180.20 Y163.80 E102.69681
G1 X180.20 Y164.00 E102.70928
G1 X180.00 Y164.20 E102.72692
G1 X180.00 Y164.40 E102.73939
G1 X179.80 Y164.60 E102.75703
G1 X179.80 Y164.80 E102.76950
G1 X179.60 Y165.00 E102.78714
G1 X179.60 Y165.20 E102.79961
G1 X179.40 Y165.40 E102.81725
G1 X179.40 Y165.60 E102.82972
G1 X179.20 Y165.80 E102.84736
G1 X179.20 Y166.00 E102.85984
G1 X179.00 Y166.20 E102.87747
G1 X179.00 Y166.40 E102.88995
G1 X178.80 Y166.60 E102.90759
G1 X178.80 Y166.80 E102.92006
G1 X178.60 Y167.00 E102.93770
G1 X178.60 Y167.20 E102.95017
G1 X178.40 Y167.40 E102.96781
G1 X178.40 Y167.60 E102.98028
G1 X178.20 Y167.80 E102.99792
G1 X178.20 Y168.00 E103.01039
G1 X178.00 Y168.20 E103.02803
G1 X178.00 Y168.40 E103.04050
G1 X177.00 Y169.40 E103.12865
G1 X177.00 Y169.60 E103.14119
G1 X175.80 Y170.80 E103.24698
G1 X175.80 Y171.00 E103.25951
G1 X173.74 Y173.06 E103.44080
G1 X173.82 Y173.39 E103.46199
G1 X172.61 Y173.99 E103.54652
G1 X171.61 Y174.99 E103.63463
G1 X171.21 Y175.19 E103.66260
G1 X170.41 Y175.99 E103.73307
G1 X164.91 Y178.74 E104.11672
G1 X160.56 Y180.19 E104.40275
G1 X159.62 Y180.43 E104.46310
G1 X157.92 Y180.64 E104.56975
G1 X156.03 Y180.85 E104.68828
G1 X154.17 Y180.85 E104.80440
G1 X148.54 Y180.22 E105.15778
G1 X144.26 Y178.80 E105.43910
G1 X143.11 Y178.51 E105.51297
G1 X142.79 Y178.19 E105.54093
G1 X138.39 Y175.99 E105.84780
G1 X137.59 Y175.19 E105.91826
G1 X137.19 Y174.99 E105.94624
G1 X136.59 Y174.39 E105.99906
G1 X136.19 Y174.19 E106.02704
G1 X135.59 Y173.59 E106.07987
G1 X135.19 Y173.39 E106.10784
G1 X134.59 Y172.79 E106.16067
G1 X133.60 Y172.30 E106.22981
G1 X133.60 Y171.80 E106.26080
G1 X132.60 Y170.80 E106.34895
G1 X132.60 Y170.60 E106.36148
G1 X131.40 Y169.40 E106.46727
G1 X131.40 Y169.20 E106.47981
G1 X130.20 Y168.00 E106.58560
G1 X130.20 Y167.80 E106.59807
G1 X130.00 Y167.60 E106.61571
G1 X130.00 Y167.40 E106.62818
G1 X129.80 Y167.20 E106.64582
G1 X129.80 Y167.00 E106.65829
G1 X129.60 Y166.80 E106.67593
G1 X129.60 Y166.60 E106.68840
G1 X129.40 Y166.40 E106.70604
G1 X129.40 Y166.20 E106.71852
G1 X129.20 Y166.00 E106.73615
G1 X129.20 Y165.80 E106.74863
G1 X129.00 Y165.60 E106.76627
G1 X129.00 Y165.40 E106.77874
G1 X128.80 Y165.20 E106.79638
G1 X128.80 Y165.00 E106.80885
G1 X128.60 Y164.80 E106.82649
G1 X128.60 Y164.60 E106.83896
G1 X128.40 Y164.40 E106.85660
G1 X128.40 Y164.20 E106.86907
G1 X128.20 Y164.00 E106.88671
G1 X128.20 Y163.80 E106.89918
G1 X128.00 Y163.60 E106.91682
G1 X128.00 Y163.40 E106.92930
G1 X127.80 Y163.20 E106.94693
G1 X127.80 Y162.60 E106.98435
G1 X127.60 Y162.40 E107.00199
G1 X127.60 Y162.00 E107.02694
G1 X127.40 Y161.80 E107.04457
G1 X127.40 Y161.40 E107.06952
G1 X127.20 Y161.20 E107.08716
G1 X127.20 Y160.80 E107.11210
G1 X127.00 Y160.60 E107.12974
G1 X127.00 Y160.20 E107.15469
G1 X126.80 Y160.00 E107.17233
G1 X126.80 Y159.60 E107.19727
G1 X126.60 Y159.40 E107.21491
G1 X126.60 Y159.00 E107.23986
G1 X126.40 Y158.80 E107.25749
G1 X126.40 Y158.40 E107.28244
G1 X126.20 Y158.20 E107.30008
G1 X126.20 Y155.80 E107.44975
G1 X126.00 Y155.60 E107.46739
G1 X126.00 Y149.40 E107.85416
G1 X126.20 Y149.20 E107.87180
G1 X126.20 Y146.60 E108.03394
G1 X126.40 Y146.40 E108.05158
G1 X126.40 Y146.00 E108.07653
G1 X126.60 Y145.80 E108.09417
G1 X126.60 Y145.40 E108.11911
G1 X126.80 Y145.20 E108.13675
G1 X126.80 Y144.80 E108.16170
G1 X127.00 Y144.60 E108.17933
G1 X127.00 Y144.20 E108.20428
G1 X127.20 Y144.00 E108.22192
G1 X127.20 Y143.60 E108.24686
G1 X127.40 Y143.40 E108.26450
G1 X127.40 Y143.00 E108.28945
G1 X127.60 Y142.80 E108.30709
G1 X127.60 Y142.40 E108.33203
G1 X127.80 Y142.20 E108.34967
G1 X127.80 Y141.60 E108.38709
G1 X128.20 Y141.20 E108.42232
G1 X128.20 Y141.00 E108.43486
G1 X128.40 Y140.80 E108.45250
G1 X128.40 Y140.60 E108.46497
G1 X128.60 Y140.40 E108.48261
G1 X128.60 Y140.20 E108.49508
G1 X128.80 Y140.00 E108.51272
G1 X128.80 Y139.80 E108.52519
G1 X129.00 Y139.60 E108.54283
G1 X129.00 Y139.40 E108.55530
G1 X129.20 Y139.20 E108.57294
G1 X129.20 Y139.00 E108.58541
G1 X129.40 Y138.80 E108.60305
G1 X129.40 Y138.60 E108.61552
G1 X129.60 Y138.40 E108.63316
G1 X129.60 Y138.20 E108.64564
G1 X129.80 Y138.00 E108.66328
G1 X129.80 Y137.80 E108.67575
G1 X130.00 Y137.60 E108.69339
G1 X130.00 Y137.40 E108.70586
G1 X130.20 Y137.20 E108.72350
G1 X130.20 Y137.00 E108.73597
G1 X131.20 Y136.00 E108.82412
G1 X131.20 Y135.80 E108.83666
G1 X132.00 Y135.00 E108.90717
G1 X132.00 Y134.80 E108.91970
G1 X132.80 Y134.00 E108.99021
G1 X132.80 Y133.80 E109.00275
G1 X133.60 Y133.00 E109.07326
G1 X133.60 Y132.50 E109.10425
G1 X134.59 Y132.01 E109.17339
G0 F6000 X134.29 Y131.60
G1 F2700 X134.90 Y131.00 E109.22635
G1 X135.29 Y130.80 E109.25419
G1 X135.90 Y130.20 E109.30715
G1 X136.29 Y130.00 E109.33498
G1 X136.90 Y129.40 E109.38794
G1 X137.29 Y129.20 E109.41577
G1 X138.09 Y128.40 E109.48637
G1 X142.49 Y126.20 E109.79310
G1 X142.85 Y125.84 E109.82476
G1 X144.11 Y125.53 E109.90550
G1 X148.46 Y124.08 E110.19157
G1 X151.38 Y123.85 E110.37384
G1 X159.59 Y123.85 E110.88615
G1 X160.70 Y124.13 E110.95724
G1 X165.10 Y125.59 E111.24668
G1 X170.71 Y128.40 E111.63758
G1 X171.51 Y129.20 E111.70818
G1 X171.91 Y129.40 E111.73601
G1 X172.91 Y130.40 E111.82425
G1 X173.31 Y130.60 E111.85208
G1 X176.10 Y133.39 E112.09854
G1 X176.10 Y133.59 E112.11102
G1 X176.90 Y134.39 E112.18157
G1 X176.90 Y134.59 E112.19404
G1 X177.70 Y135.39 E112.26460
G1 X177.70 Y135.59 E112.27707
G1 X178.50 Y136.39 E112.34763
G1 X178.50 Y136.59 E112.36010
G1 X178.90 Y136.99 E112.39538
G1 X178.90 Y137.19 E112.40785
G1 X179.10 Y137.39 E112.42549
G1 X179.10 Y137.59 E112.43796
G1 X179.30 Y137.79 E112.45560
G1 X179.30 Y137.99 E112.46807
G1 X179.50 Y138.19 E112.48571
G1 X179.50 Y138.39 E112.49818
G1 X179.70 Y138.59 E112.51582
G1 X179.70 Y138.79 E112.52830
G1 X179.90 Y138.99 E112.54593
G1 X179.90 Y139.19 E112.55841
G1 X180.10 Y139.39 E112.57605
G1 X180.10 Y139.59 E112.58852
G1 X180.30 Y139.79 E112.60616
G1 X180.30 Y139.99 E112.61863
G1 X180.50 Y140.19 E112.63627
G1 X180.50 Y140.39 E112.64874
G1 X180.70 Y140.59 E112.66638
G1 X180.70 Y140.79 E112.67885
G1 X180.90 Y140.99 E112.69649
G1 X180.90 Y141.19 E112.70896
G1 X181.10 Y141.39 E112.72660
G1 X181.10 Y141.79 E112.75155
G1 X181.30 Y141.99 E112.76919
G1 X181.30 Y142.39 E112.79413
G1 X181.50 Y142.59 E112.81177
G1 X181.50 Y142.99 E112.83672
G1 X181.70 Y143.19 E112.85435
G1 X181.70 Y143.59 E112.87930
G1 X181.90 Y143.79 E112.89694
G1 X181.90 Y144.19 E112.92188
G1 X182.10 Y144.39 E112.93952
G1 X182.10 Y144.79 E112.96447
G1 X182.30 Y144.99 E112.98211
G1 X182.30 Y145.39 E113.00705
G1 X182.50 Y145.59 E113.02469
G1 X182.50 Y146.19 E113.06211
G1 X182.70 Y146.39 E113.07975
G1 X182.70 Y147.99 E113.17953
G1 X182.90 Y148.19 E113.19717
G1 X182.90 Y149.79 E113.29695
G1 X183.10 Y149.99 E113.31459
G1 X183.10 Y155.01 E113.62740
G1 X182.90 Y155.21 E113.64504
G1 X182.90 Y156.81 E113.74482
G1 X182.70 Y157.01 E113.76245
G1 X182.70 Y158.41 E113.84976
G1 X182.50 Y158.61 E113.86740
G1 X182.50 Y159.21 E113.90482
G1 X182.30 Y159.41 E113.92246
G1 X182.30 Y159.81 E113.94740
G1 X182.10 Y160.01 E113.96504
G1 X182.10 Y160.41 E113.98999
G1 X181.90 Y160.61 E114.00763
G1 X181.90 Y161.01 E114.03257
G1 X181.70 Y161.21 E114.05021
G1 X181.70 Y161.61 E114.07516
G1 X181.50 Y161.81 E114.09279
G1 X181.50 Y162.21 E114.11774
G1 X181.30 Y162.41 E114.13538
G1 X181.30 Y162.81 E114.16032
G1 X181.10 Y163.01 E114.17796
G1 X181.10 Y163.41 E114.20291
G1 X180.90 Y163.61 E114.22055
G1 X180.90 Y163.81 E114.23302
G1 X180.70 Y164.01 E114.25066
G1 X180.70 Y164.21 E114.26313
G1 X180.50 Y164.41 E114.28077
G1 X180.50 Y164.61 E114.29324
G1 X180.30 Y164.81 E114.31088
G1 X180.30 Y165.01 E114.32335
G1 X180.10 Y165.21 E114.34099
G1 X180.10 Y165.41 E114.35346
G1 X179.90 Y165.61 E114.37110
G1 X179.90 Y165.81 E114.38358
G1 X179.70 Y166.01 E114.40121
G1 X179.70 Y166.21 E114.41369
G1 X179.50 Y166.41 E114.43133
G1 X179.50 Y166.61 E114.44380
G1 X179.30 Y166.81 E114.46144
G1 X179.30 Y167.01 E114.47391
G1 X179.10 Y167.21 E114.49155
G1 X179.10 Y167.41 E114.50402
G1 X178.90 Y167.61 E114.52166
G1 X178.90 Y167.81 E114.53413
G1 X178.70 Y168.01 E114.55177
G1 X178.70 Y168.21 E114.56424
G1 X178.50 Y168.41 E114.58188
G1 X178.50 Y168.61 E114.59436
G1 X177.50 Y169.61 E114.68255
G1 X177.50 Y169.81 E114.69502
G1 X176.30 Y171.01 E114.80086
G1 X176.30 Y171.21 E114.81333
G1 X174.29 Y173.21 E114.99025
G1 X174.40 Y173.66 E115.01867
G1 X172.91 Y174.40 E115.12259
G1 X171.91 Y175.40 E115.21082
G1 X171.51 Y175.60 E115.23866
G1 X170.71 Y176.40 E115.30926
G1 X165.10 Y179.21 E115.70016
G1 X160.69 Y180.67 E115.98966
G1 X159.71 Y180.92 E116.05309
G1 X157.98 Y181.14 E116.16176
G1 X156.06 Y181.35 E116.28230
G1 X154.14 Y181.35 E116.40178
G1 X148.43 Y180.72 E116.76025
G1 X144.11 Y179.28 E117.04425
G1 X142.85 Y178.96 E117.12499
G1 X142.49 Y178.60 E117.15665
G1 X138.09 Y176.40 E117.46338
G1 X137.29 Y175.60 E117.53398
G1 X136.90 Y175.40 E117.56181
G1 X136.29 Y174.80 E117.61477
G1 X135.90 Y174.60 E117.64260
G1 X135.29 Y174.00 E117.69557
G1 X134.90 Y173.80 E117.72340
G1 X134.29 Y173.20 E117.77636
G1 X133.10 Y172.61 E117.85958
G1 X133.10 Y172.01 E117.89687
G1 X132.10 Y171.01 E117.98507
G1 X132.10 Y170.81 E117.99754
G1 X130.90 Y169.61 E118.10337
G1 X130.90 Y169.41 E118.11585
G1 X129.70 Y168.21 E118.22168
G1 X129.70 Y168.01 E118.23415
G1 X129.50 Y167.81 E118.25179
G1 X129.50 Y167.61 E118.26426
G1 X129.30 Y167.41 E118.28190
G1 X129.30 Y167.21 E118.29438
G1 X129.10 Y167.01 E118.31201
G1 X129.10 Y166.81 E118.32449
G1 X128.90 Y166.61 E118.34213
G1 X128.90 Y166.41 E118.35460
G1 X128.70 Y166.21 E118.37224
G1 X128.70 Y166.01 E118.38471
G1 X128.50 Y165.81 E118.40235
G1 X128.50 Y165.61 E118.41482
G1 X128.30 Y165.41 E118.43246
G1 X128.30 Y165.21 E118.44493
G1 X128.10 Y165.01 E118.46257
G1 X128.10 Y164.81 E118.47504
G1 X127.90 Y164.61 E118.49268
G1 X127.90 Y164.41 E118.50516
G1 X127.70 Y164.21 E118.52279
G1 X127.70 Y164.01 E118.53527
G1 X127.50 Y163.81 E118.55291
G1 X127.50 Y163.61 E118.56538
G1 X127.30 Y163.41 E118.58302
G1 X127.30 Y162.81 E118.62043
G1 X127.10 Y162.61 E118.63807
G1 X127.10 Y162.21 E118.66302
G1 X126.90 Y162.01 E118.68066
G1 X126.90 Y161.61 E118.70560
G1 X126.70 Y161.41 E118.72324
G1 X126.70 Y161.01 E118.74819
G1 X126.50 Y160.81 E118.76583
G1 X126.50 Y160.41 E118.79077
G1 X126.30 Y160.21 E118.80841
G1 X126.30 Y159.81 E118.83335
G1 X126.10 Y159.61 E118.85099
G1 X126.10 Y159.21 E118.87594
G1 X125.90 Y159.01 E118.89358
G1 X125.90 Y158.61 E118.91852
G1 X125.70 Y158.41 E118.93616
G1 X125.70 Y156.01 E119.08583
G1 X125.50 Y155.81 E119.10347
G1 X125.50 Y149.19 E119.51606
G1 X125.70 Y148.99 E119.53370
G1 X125.70 Y146.39 E119.69584
G1 X125.90 Y146.19 E119.71348
G1 X125.90 Y145.79 E119.73843
G1 X126.10 Y145.59 E119.75607
G1 X126.10 Y145.19 E119.78101
G1 X126.30 Y144.99 E119.79865
G1 X126.30 Y144.59 E119.82360
G1 X126.50 Y144.39 E119.84124
G1 X126.50 Y143.99 E119.86618
G1 X126.70 Y143.79 E119.88382
G1 X126.70 Y143.39 E119.90876
G1 X126.90 Y143.19 E119.92640
G1 X126.90 Y142.79 E119.95135
G1 X127.10 Y142.59 E119.96899
G1 X127.10 Y142.19 E119.99393
G1 X127.30 Y141.99 E120.01157
G1 X127.30 Y141.39 E120.04899
G1 X127.70 Y140.99 E120.08427
G1 X127.70 Y140.79 E120.09674
G1 X127.90 Y140.59 E120.11438
G1 X127.90 Y140.39 E120.12685
G1 X128.10 Y140.19 E120.14449
G1 X128.10 Y139.99 E120.15696
G1 X128.30 Y139.79 E120.17460
G1 X128.30 Y139.59 E120.18707
G1 X128.50 Y139.39 E120.20471
G1 X128.50 Y139.19 E120.21718
G1 X128.70 Y138.99 E120.23482
G1 X128.70 Y138.79 E120.24730
G1 X128.90 Y138.59 E120.26494
G1 X128.90 Y138.39 E120.27741
G1 X129.10 Y138.19 E120.29505
G1 X129.10 Y137.99 E120.30752
G1 X129.30 Y137.79 E120.32516
G1 X129.30 Y137.59 E120.33763
G1 X129.50 Y137.39 E120.35527
G1 X129.50 Y137.19 E120.36774
G1 X129.70 Y136.99 E120.38538
G1 X129.70 Y136.79 E120.39785
G1 X130.70 Y135.79 E120.48605
G1 X130.70 Y135.59 E120.49852
G1 X131.50 Y134.79 E120.56908
G1 X131.50 Y134.59 E120.58155
G1 X132.30 Y133.79 E120.65210
G1 X132.30 Y133.59 E120.66458
G1 X133.10 Y132.79 E120.73513
G1 X133.10 Y132.19 E120.77242
G1 X134.29 Y131.60 E120.85565
G0 F6000 X134.00 Y131.19
G1 F2700 X134.60 Y130.59 E120.90834
G1 X135.00 Y130.39 E120.93632
G1 X135.60 Y129.79 E120.98914
G1 X136.00 Y129.59 E121.01712
G1 X136.60 Y128.99 E121.06995
G1 X137.00 Y128.79 E121.09797
G1 X137.80 Y127.99 E121.16840
G1 X142.20 Y125.79 E121.47527
G1 X142.60 Y125.39 E121.51037
G1 X143.97 Y125.04 E121.59876
G1 X148.36 Y123.58 E121.88727
G1 X151.36 Y123.35 E122.07461
G1 X159.65 Y123.35 E122.59190
G1 X160.84 Y123.64 E122.66800
G1 X165.29 Y125.13 E122.96087
G1 X171.00 Y127.99 E123.35914
G1 X171.80 Y128.79 E123.42956
G1 X172.20 Y128.99 E123.45759
G1 X173.20 Y129.99 E123.54565
G1 X173.60 Y130.19 E123.57368
G1 X176.60 Y133.19 E123.83808
G1 X176.60 Y133.39 E123.85062
G1 X177.40 Y134.19 E123.92113
G1 X177.40 Y134.39 E123.93367
G1 X178.20 Y135.19 E124.00418
G1 X178.20 Y135.39 E124.01671
G1 X179.00 Y136.19 E124.08722
G1 X179.00 Y136.38 E124.09970
G1 X179.40 Y136.78 E124.13497
G1 X179.40 Y136.99 E124.14745
G1 X179.60 Y137.19 E124.16508
G1 X179.60 Y137.38 E124.17756
G1 X179.80 Y137.59 E124.19520
G1 X179.80 Y137.78 E124.20767
G1 X180.00 Y137.99 E124.22531
G1 X180.00 Y138.19 E124.23778
G1 X180.20 Y138.38 E124.25542
G1 X180.20 Y138.59 E124.26789
G1 X180.40 Y138.78 E124.28553
G1 X180.40 Y138.99 E124.29800
G1 X180.60 Y139.19 E124.31564
G1 X180.60 Y139.38 E124.32811
G1 X180.80 Y139.59 E124.34575
G1 X180.80 Y139.78 E124.35823
G1 X181.00 Y139.99 E124.37586
G1 X181.00 Y140.19 E124.38834
G1 X181.20 Y140.38 E124.40598
G1 X181.20 Y140.59 E124.41845
G1 X181.40 Y140.78 E124.43609
G1 X181.40 Y140.99 E124.44856
G1 X181.60 Y141.19 E124.46620
G1 X181.60 Y141.59 E124.49114
G1 X181.80 Y141.78 E124.50878
G1 X181.80 Y142.19 E124.53373
G1 X182.00 Y142.38 E124.55137
G1 X182.00 Y142.78 E124.57631
G1 X182.20 Y142.99 E124.59395
G1 X182.20 Y143.38 E124.61890
G1 X182.40 Y143.59 E124.63653
G1 X182.40 Y143.99 E124.66148
G1 X182.60 Y144.19 E124.67912
G1 X182.60 Y144.59 E124.70406
G1 X182.80 Y144.78 E124.72170
G1 X182.80 Y145.19 E124.74665
G1 X183.00 Y145.38 E124.76429
G1 X183.00 Y145.99 E124.80170
G1 X183.20 Y146.19 E124.81934
G1 X183.20 Y147.78 E124.91912
G1 X183.40 Y147.99 E124.93676
G1 X183.40 Y149.59 E125.03654
G1 X183.60 Y149.78 E125.05418
G1 X183.60 Y155.22 E125.39281
G1 X183.40 Y155.41 E125.41045
G1 X183.40 Y157.01 E125.51023
G1 X183.20 Y157.22 E125.52787
G1 X183.20 Y158.62 E125.61518
G1 X183.00 Y158.81 E125.63282
G1 X183.00 Y159.41 E125.67023
G1 X182.80 Y159.62 E125.68787
G1 X182.80 Y160.01 E125.71282
G1 X182.60 Y160.22 E125.73046
G1 X182.60 Y160.62 E125.75540
G1 X182.40 Y160.81 E125.77304
G1 X182.40 Y161.22 E125.79799
G1 X182.20 Y161.41 E125.81562
G1 X182.20 Y161.81 E125.84057
G1 X182.00 Y162.01 E125.85821
G1 X182.00 Y162.41 E125.88315
G1 X181.80 Y162.62 E125.90079
G1 X181.80 Y163.01 E125.92574
G1 X181.60 Y163.22 E125.94338
G1 X181.60 Y163.62 E125.96832
G1 X181.40 Y163.81 E125.98596
G1 X181.40 Y164.01 E125.99843
G1 X181.20 Y164.22 E126.01607
G1 X181.20 Y164.41 E126.02854
G1 X181.00 Y164.62 E126.04618
G1 X181.00 Y164.81 E126.05866
G1 X180.80 Y165.01 E126.07629
G1 X180.80 Y165.22 E126.08877
G1 X180.60 Y165.41 E126.10641
G1 X180.60 Y165.62 E126.11888
G1 X180.40 Y165.81 E126.13652
G1 X180.40 Y166.01 E126.14899
G1 X180.20 Y166.22 E126.16663
G1 X180.20 Y166.41 E126.17910
G1 X180.00 Y166.62 E126.19674
G1 X180.00 Y166.81 E126.20921
G1 X179.80 Y167.01 E126.22685
G1 X179.80 Y167.22 E126.23932
G1 X179.60 Y167.41 E126.25696
G1 X179.60 Y167.62 E126.26944
G1 X179.40 Y167.81 E126.28707
G1 X179.40 Y168.01 E126.29955
G1 X179.20 Y168.22 E126.31719
G1 X179.20 Y168.41 E126.32966
G1 X179.00 Y168.62 E126.34730
G1 X179.00 Y168.81 E126.35977
G1 X178.00 Y169.81 E126.44792
G1 X178.00 Y170.01 E126.46045
G1 X176.80 Y171.21 E126.56624
G1 X176.80 Y171.41 E126.57878
G1 X174.84 Y173.37 E126.75133
G1 X174.97 Y173.93 E126.78706
G1 X173.20 Y174.81 E126.91072
G1 X172.20 Y175.81 E126.99870
G1 X171.80 Y176.01 E127.02673
G1 X171.00 Y176.81 E127.09715
G1 X165.29 Y179.67 E127.49541
G1 X160.84 Y181.16 E127.78828
G1 X159.80 Y181.41 E127.85479
G1 X158.04 Y181.63 E127.96560
G1 X156.09 Y181.85 E128.08802
G1 X154.11 Y181.85 E128.21100
G1 X148.32 Y181.21 E128.57448
G1 X143.97 Y179.75 E128.86065
G1 X142.60 Y179.41 E128.94878
G1 X142.20 Y179.01 E128.98389
G1 X137.80 Y176.81 E129.29075
G1 X137.00 Y176.01 E129.36118
G1 X136.60 Y175.81 E129.38921
G1 X136.00 Y175.21 E129.44203
G1 X135.60 Y175.01 E129.47001
G1 X135.00 Y174.41 E129.52284
G1 X134.60 Y174.21 E129.55081
G1 X134.00 Y173.62 E129.60351
G1 X132.60 Y172.91 E129.70117
G1 X132.60 Y172.21 E129.74489
G1 X131.60 Y171.22 E129.83304
G1 X131.60 Y171.01 E129.84558
G1 X130.40 Y169.81 E129.95136
G1 X130.40 Y169.61 E129.96390
G1 X129.20 Y168.41 E130.06969
G1 X129.20 Y168.22 E130.08216
G1 X129.00 Y168.01 E130.09980
G1 X129.00 Y167.81 E130.11227
G1 X128.80 Y167.62 E130.12991
G1 X128.80 Y167.41 E130.14238
G1 X128.60 Y167.22 E130.16002
G1 X128.60 Y167.01 E130.17250
G1 X128.40 Y166.81 E130.19013
G1 X128.40 Y166.62 E130.20261
G1 X128.20 Y166.41 E130.22025
G1 X128.20 Y166.22 E130.23272
G1 X128.00 Y166.01 E130.25036
G1 X128.00 Y165.81 E130.26283
G1 X127.80 Y165.62 E130.28047
G1 X127.80 Y165.41 E130.29294
G1 X127.60 Y165.22 E130.31058
G1 X127.60 Y165.01 E130.32305
G1 X127.40 Y164.81 E130.34069
G1 X127.40 Y164.62 E130.35316
G1 X127.20 Y164.41 E130.37080
G1 X127.20 Y164.22 E130.38327
G1 X127.00 Y164.01 E130.40091
G1 X127.00 Y163.81 E130.41339
G1 X126.80 Y163.62 E130.43103
G1 X126.80 Y163.01 E130.46844
G1 X126.60 Y162.81 E130.48608
G1 X126.60 Y162.41 E130.51103
G1 X126.40 Y162.22 E130.52867
G1 X126.40 Y161.81 E130.55361
G1 X126.20 Y161.62 E130.57125
G1 X126.20 Y161.22 E130.59619
G1 X126.00 Y161.01 E130.61383
G1 X126.00 Y160.62 E130.63878
G1 X125.80 Y160.41 E130.65642
G1 X125.80 Y160.01 E130.68136
G1 X125.60 Y159.81 E130.69900
G1 X125.60 Y159.41 E130.72395
G1 X125.40 Y159.22 E130.74159
G1 X125.40 Y158.81 E130.76653
G1 X125.20 Y158.62 E130.78417
G1 X125.20 Y156.22 E130.93384
G1 X125.00 Y156.01 E130.95148
G1 X125.00 Y148.99 E131.38989
G1 X125.20 Y148.78 E131.40753
G1 X125.20 Y146.19 E131.56967
G1 X125.40 Y145.99 E131.58731
G1 X125.40 Y145.59 E131.61225
G1 X125.60 Y145.38 E131.62989
G1 X125.60 Y144.99 E131.65484
G1 X125.80 Y144.78 E131.67248
G1 X125.80 Y144.38 E131.69742
G1 X126.00 Y144.19 E131.71506
G1 X126.00 Y143.78 E131.74001
G1 X126.20 Y143.59 E131.75765
G1 X126.20 Y143.19 E131.78259
G1 X126.40 Y142.99 E131.80023
G1 X126.40 Y142.59 E131.82517
G1 X126.60 Y142.38 E131.84281
G1 X126.60 Y141.99 E131.86776
G1 X126.80 Y141.78 E131.88540
G1 X126.80 Y141.19 E131.92282
G1 X127.20 Y140.78 E131.95809
G1 X127.20 Y140.59 E131.97057
G1 X127.40 Y140.38 E131.98820
G1 X127.40 Y140.19 E132.00068
G1 X127.60 Y139.99 E132.01832
G1 X127.60 Y139.78 E132.03079
G1 X127.80 Y139.59 E132.04843
G1 X127.80 Y139.38 E132.06090
G1 X128.00 Y139.19 E132.07854
G1 X128.00 Y138.99 E132.09101
G1 X128.20 Y138.78 E132.10865
G1 X128.20 Y138.59 E132.12112
G1 X128.40 Y138.38 E132.13876
G1 X128.40 Y138.19 E132.15123
G1 X128.60 Y137.99 E132.16887
G1 X128.60 Y137.78 E132.18135
G1 X128.80 Y137.59 E132.19898
G1 X128.80 Y137.38 E132.21146
G1 X129.00 Y137.19 E132.22910
G1 X129.00 Y136.99 E132.24157
G1 X129.20 Y136.78 E132.25921
G1 X129.20 Y136.59 E132.27168
G1 X130.20 Y135.59 E132.35983
G1 X130.20 Y135.38 E132.37236
G1 X131.00 Y134.59 E132.44288
G1 X131.00 Y134.38 E132.45541
G1 X131.80 Y133.59 E132.52592
G1 X131.80 Y133.38 E132.53846
G1 X132.60 Y132.59 E132.60897
G1 X132.60 Y131.88 E132.65268
G1 X134.00 Y131.19 E132.75035
G0 F6000 X133.70 Y130.78
G1 F2700 X134.30 Y130.18 E132.80327
G1 X134.70 Y129.98 E132.83108
G1 X135.30 Y129.38 E132.88408
G1 X135.70 Y129.18 E132.91189
G1 X136.30 Y128.58 E132.96489
G1 X136.70 Y128.38 E132.99270
G1 X137.50 Y127.58 E133.06334
G1 X141.90 Y125.38 E133.37004
G1 X142.34 Y124.94 E133.40893
G1 X143.82 Y124.57 E133.50407
G1 X148.26 Y123.09 E133.79586
G1 X151.34 Y122.85 E133.98820
G1 X159.71 Y122.85 E134.51055
G1 X160.97 Y123.17 E134.59172
G1 X165.48 Y124.67 E134.88801
G1 X171.30 Y127.58 E135.29352
G1 X172.10 Y128.38 E135.36417
G1 X172.50 Y128.58 E135.39197
G1 X173.50 Y129.58 E135.48025
G1 X173.90 Y129.78 E135.50806
G1 X177.10 Y132.98 E135.79046
G1 X177.10 Y133.18 E135.80293
G1 X177.90 Y133.98 E135.87349
G1 X177.90 Y134.18 E135.88596
G1 X178.70 Y134.98 E135.95651
G1 X178.70 Y135.18 E135.96899
G1 X179.50 Y135.98 E136.03954
G1 X179.50 Y136.18 E136.05201
G1 X179.90 Y136.58 E136.08729
G1 X179.90 Y136.78 E136.09976
G1 X180.10 Y136.98 E136.11740
G1 X180.10 Y137.18 E136.12988
G1 X180.30 Y137.38 E136.14751
G1 X180.30 Y137.58 E136.15999
G1 X180.50 Y137.78 E136.17763
G1 X180.50 Y137.98 E136.19010
G1 X180.70 Y138.18 E136.20774
G1 X180.70 Y138.38 E136.22021
G1 X180.90 Y138.58 E136.23785
G1 X180.90 Y138.78 E136.25032
G1 X181.10 Y138.98 E136.26796
G1 X181.10 Y139.18 E136.28043
G1 X181.30 Y139.38 E136.29807
G1 X181.30 Y139.58 E136.31054
G1 X181.50 Y139.78 E136.32818
G1 X181.50 Y139.98 E136.34066
G1 X181.70 Y140.18 E136.35829
G1 X181.70 Y140.38 E136.37077
G1 X181.90 Y140.58 E136.38841
G1 X181.90 Y140.78 E136.40088
G1 X182.10 Y140.98 E136.41852
G1 X182.10 Y141.38 E136.44346
G1 X182.30 Y141.58 E136.46110
G1 X182.30 Y141.98 E136.48605
G1 X182.50 Y142.18 E136.50369
G1 X182.50 Y142.58 E136.52863
G1 X182.70 Y142.78 E136.54627
G1 X182.70 Y143.18 E136.57121
G1 X182.90 Y143.38 E136.58885
G1 X182.90 Y143.78 E136.61380
G1 X183.10 Y143.98 E136.63144
G1 X183.10 Y144.38 E136.65638
G1 X183.30 Y144.58 E136.67402
G1 X183.30 Y144.98 E136.69897
G1 X183.50 Y145.18 E136.71660
G1 X183.50 Y145.78 E136.75402
G1 X183.70 Y145.98 E136.77166
G1 X183.70 Y147.58 E136.87144
G1 X183.90 Y147.78 E136.88908
G1 X183.90 Y149.38 E136.98886
G1 X184.10 Y149.58 E137.00650
G1 X184.10 Y155.42 E137.37095
G1 X183.90 Y155.62 E137.38859
G1 X183.90 Y157.22 E137.48837
G1 X183.70 Y157.42 E137.50601
G1 X183.70 Y158.82 E137.59331
G1 X183.50 Y159.02 E137.61095
G1 X183.50 Y159.62 E137.64837
G1 X183.30 Y159.82 E137.66601
G1 X183.30 Y160.22 E137.69095
G1 X183.10 Y160.42 E137.70859
G1 X183.10 Y160.82 E137.73354
G1 X182.90 Y161.02 E137.75118
G1 X182.90 Y161.42 E137.77612
G1 X182.70 Y161.62 E137.79376
G1 X182.70 Y162.02 E137.81871
G1 X182.50 Y162.22 E137.83634
G1 X182.50 Y162.62 E137.86129
G1 X182.30 Y162.82 E137.87893
G1 X182.30 Y163.22 E137.90387
G1 X182.10 Y163.42 E137.92151
G1 X182.10 Y163.82 E137.94646
G1 X181.90 Y164.02 E137.96410
G1 X181.90 Y164.22 E137.97657
G1 X181.70 Y164.42 E137.99421
G1 X181.70 Y164.62 E138.00668
G1 X181.50 Y164.82 E138.02432
G1 X181.50 Y165.02 E138.03679
G1 X181.30 Y165.22 E138.05443
G1 X181.30 Y165.42 E138.06690
G1 X181.10 Y165.62 E138.08454
G1 X181.10 Y165.82 E138.09701
G1 X180.90 Y166.02 E138.11465
G1 X180.90 Y166.22 E138.12713
G1 X180.70 Y166.42 E138.14477
G1 X180.70 Y166.62 E138.15724
G1 X180.50 Y166.82 E138.17488
G1 X180.50 Y167.02 E138.18735
G1 X180.30 Y167.22 E138.20499
G1 X180.30 Y167.42 E138.21746
G1 X180.10 Y167.62 E138.23510
G1 X180.10 Y167.82 E138.24757
G1 X179.90 Y168.02 E138.26521
G1 X179.90 Y168.22 E138.27768
G1 X179.70 Y168.42 E138.29532
G1 X179.70 Y168.62 E138.30779
G1 X179.50 Y168.82 E138.32543
G1 X179.50 Y169.02 E138.33791
G1 X178.50 Y170.02 E138.42610
G1 X178.50 Y170.22 E138.43857
G1 X177.30 Y171.42 E138.54441
G1 X177.30 Y171.62 E138.55688
G1 X175.39 Y173.53 E138.72498
G1 X175.55 Y174.20 E138.76800
G1 X173.50 Y175.22 E138.91110
G1 X172.50 Y176.22 E138.99921
G1 X172.10 Y176.42 E139.02701
G1 X171.30 Y177.22 E139.09766
G1 X165.48 Y180.13 E139.50317
G1 X160.97 Y181.63 E139.79945
G1 X159.89 Y181.91 E139.86906
G1 X158.10 Y182.13 E139.98194
G1 X156.11 Y182.35 E140.10630
G1 X154.09 Y182.35 E140.23277
G1 X148.21 Y181.70 E140.60122
G1 X143.83 Y180.24 E140.88916
G1 X142.34 Y179.86 E140.98507
G1 X141.90 Y179.42 E141.02396
G1 X137.50 Y177.22 E141.33066
G1 X136.70 Y176.42 E141.40131
G1 X136.30 Y176.22 E141.42911
G1 X135.70 Y175.62 E141.48212
G1 X135.30 Y175.42 E141.50992
G1 X134.70 Y174.82 E141.56293
G1 X134.30 Y174.62 E141.59073
G1 X133.70 Y174.02 E141.64365
G1 X132.10 Y173.22 E141.75532
G1 X132.10 Y172.42 E141.80534
G1 X131.10 Y171.42 E141.89353
G1 X131.10 Y171.22 E141.90600
G1 X129.90 Y170.02 E142.01184
G1 X129.90 Y169.82 E142.02431
G1 X128.70 Y168.62 E142.13014
G1 X128.70 Y168.42 E142.14261
G1 X128.50 Y168.22 E142.16025
G1 X128.50 Y168.02 E142.17273
G1 X128.30 Y167.82 E142.19036
G1 X128.30 Y167.62 E142.20284
G1 X128.10 Y167.42 E142.22048
G1 X128.10 Y167.22 E142.23295
G1 X127.90 Y167.02 E142.25059
G1 X127.90 Y166.82 E142.26306
G1 X127.70 Y166.62 E142.28070
G1 X127.70 Y166.42 E142.29317
G1 X127.50 Y166.22 E142.31081
G1 X127.50 Y166.02 E142.32328
G1 X127.30 Y165.82 E142.34092
G1 X127.30 Y165.62 E142.35339
G1 X127.10 Y165.42 E142.37103
G1 X127.10 Y165.22 E142.38351
G1 X126.90 Y165.02 E142.40114
G1 X126.90 Y164.82 E142.41362
G1 X126.70 Y164.62 E142.43126
G1 X126.70 Y164.42 E142.44373
G1 X126.50 Y164.22 E142.46137
G1 X126.50 Y164.02 E142.47384
G1 X126.30 Y163.82 E142.49148
G1 X126.30 Y163.22 E142.52890
G1 X126.10 Y163.02 E142.54653
G1 X126.10 Y162.62 E142.57148
G1 X125.90 Y162.42 E142.58912
G1 X125.90 Y162.02 E142.61406
G1 X125.70 Y161.82 E142.63170
G1 X125.70 Y161.42 E142.65665
G1 X125.50 Y161.22 E142.67429
G1 X125.50 Y160.82 E142.69923
G1 X125.30 Y160.62 E142.71687
G1 X125.30 Y160.22 E142.74182
G1 X125.10 Y160.02 E142.75945
G1 X125.10 Y159.62 E142.78440
G1 X124.90 Y159.42 E142.80204
G1 X124.90 Y159.02 E142.82698
G1 X124.70 Y158.82 E142.84462
G1 X124.70 Y156.42 E142.99429
G1 X124.50 Y156.22 E143.01193
G1 X124.50 Y148.78 E143.47616
G1 X124.70 Y148.58 E143.49380
G1 X124.70 Y145.98 E143.65594
G1 X124.90 Y145.78 E143.67358
G1 X124.90 Y145.38 E143.69853
G1 X125.10 Y145.18 E143.71616
G1 X125.10 Y144.78 E143.74111
G1 X125.30 Y144.58 E143.75875
G1 X125.30 Y144.18 E143.78369
G1 X125.50 Y143.98 E143.80133
G1 X125.50 Y143.58 E143.82628
G1 X125.70 Y143.38 E143.84392
G1 X125.70 Y142.98 E143.86886
G1 X125.90 Y142.78 E143.88650
G1 X125.90 Y142.38 E143.91145
G1 X126.10 Y142.18 E143.92908
G1 X126.10 Y141.78 E143.95403
G1 X126.30 Y141.58 E143.97167
G1 X126.30 Y140.98 E144.00909
G1 X126.70 Y140.58 E144.04436
G1 X126.70 Y140.38 E144.05684
G1 X126.90 Y140.18 E144.07448
G1 X126.90 Y139.98 E144.08695
G1 X127.10 Y139.78 E144.10459
G1 X127.10 Y139.58 E144.11706
G1 X127.30 Y139.38 E144.13470
G1 X127.30 Y139.18 E144.14717
G1 X127.50 Y138.98 E144.16481
G1 X127.50 Y138.78 E144.17728
G1 X127.70 Y138.58 E144.19492
G1 X127.70 Y138.38 E144.20739
G1 X127.90 Y138.18 E144.22503
G1 X127.90 Y137.98 E144.23750
G1 X128.10 Y137.78 E144.25514
G1 X128.10 Y137.58 E144.26762
G1 X128.30 Y137.38 E144.28526
G1 X128.30 Y137.18 E144.29773
G1 X128.50 Y136.98 E144.31537
G1 X128.50 Y136.78 E144.32784
G1 X128.70 Y136.58 E144.34548
G1 X128.70 Y136.38 E144.35795
G1 X129.70 Y135.38 E144.44614
G1 X129.70 Y135.18 E144.45862
G1 X130.50 Y134.38 E144.52917
G1 X130.50 Y134.18 E144.54165
G1 X131.30 Y133.38 E144.61220
G1 X131.30 Y133.18 E144.62467
G1 X132.10 Y132.38 E144.69523
G1 X132.10 Y131.58 E144.74524
G1 X133.70 Y130.78 E144.85691
G0 F6000 X133.41 Y130.37
G1 F2700 X134.01 Y129.76 E144.90992
G1 X134.41 Y129.56 E144.93775
G1 X135.01 Y128.97 E144.99071
G1 X135.41 Y128.76 E145.01855
G1 X136.01 Y128.16 E145.07151
G1 X136.41 Y127.97 E145.09934
G1 X137.21 Y127.17 E145.16994
G1 X141.61 Y124.97 E145.47672
G1 X142.09 Y124.48 E145.51906
G1 X143.69 Y124.08 E145.62185
G1 X148.16 Y122.59 E145.91608
G1 X151.32 Y122.35 E146.11348
G1 X159.77 Y122.35 E146.64088
G1 X161.12 Y122.69 E146.72708
G1 X165.67 Y124.20 E147.02678
G1 X171.59 Y127.17 E147.43954
G1 X172.40 Y127.97 E147.51014
G1 X172.79 Y128.16 E147.53798
G1 X173.79 Y129.16 E147.62622
G1 X174.19 Y129.37 E147.65405
G1 X177.60 Y132.77 E147.95444
G1 X177.60 Y132.97 E147.96691
G1 X178.40 Y133.77 E148.03747
G1 X178.40 Y133.97 E148.04994
G1 X179.20 Y134.77 E148.12049
G1 X179.20 Y134.97 E148.13297
G1 X180.00 Y135.77 E148.20352
G1 X180.00 Y135.97 E148.21600
G1 X180.40 Y136.37 E148.25127
G1 X180.40 Y136.57 E148.26375
G1 X180.60 Y136.77 E148.28138
G1 X180.60 Y136.97 E148.29386
G1 X180.80 Y137.17 E148.31150
G1 X180.80 Y137.37 E148.32397
G1 X181.00 Y137.57 E148.34161
G1 X181.00 Y137.77 E148.35408
G1 X181.20 Y137.97 E148.37172
G1 X181.20 Y138.17 E148.38419
G1 X181.40 Y138.37 E148.40183
G1 X181.40 Y138.57 E148.41430
G1 X181.60 Y138.77 E148.43194
G1 X181.60 Y138.97 E148.44441
G1 X181.80 Y139.17 E148.46205
G1 X181.80 Y139.37 E148.47453
G1 X182.00 Y139.57 E148.49216
G1 X182.00 Y139.77 E148.50464
G1 X182.20 Y139.97 E148.52228
G1 X182.20 Y140.17 E148.53475
G1 X182.40 Y140.37 E148.55239
G1 X182.40 Y140.57 E148.56486
G1 X182.60 Y140.77 E148.58250
G1 X182.60 Y141.17 E148.60744
G1 X182.80 Y141.37 E148.62508
G1 X182.80 Y141.77 E148.65003
G1 X183.00 Y141.97 E148.66767
G1 X183.00 Y142.37 E148.69261
G1 X183.20 Y142.57 E148.71025
G1 X183.20 Y142.97 E148.73520
G1 X183.40 Y143.17 E148.75283
G1 X183.40 Y143.57 E148.77778
G1 X183.60 Y143.77 E148.79542
G1 X183.60 Y144.17 E148.82036
G1 X183.80 Y144.37 E148.83800
G1 X183.80 Y144.77 E148.86295
G1 X184.00 Y144.97 E148.88059
G1 X184.00 Y145.57 E148.91800
G1 X184.20 Y145.77 E148.93564
G1 X184.20 Y147.37 E149.03542
G1 X184.40 Y147.57 E149.05306
G1 X184.40 Y149.17 E149.15284
G1 X184.60 Y149.37 E149.17048
G1 X184.60 Y155.63 E149.56075
G1 X184.40 Y155.83 E149.57839
G1 X184.40 Y157.43 E149.67817
G1 X184.20 Y157.63 E149.69581
G1 X184.20 Y159.03 E149.78311
G1 X184.00 Y159.23 E149.80075
G1 X184.00 Y159.83 E149.83817
G1 X183.80 Y160.03 E149.85581
G1 X183.80 Y160.43 E149.88075
G1 X183.60 Y160.63 E149.89839
G1 X183.60 Y161.03 E149.92334
G1 X183.40 Y161.23 E149.94098
G1 X183.40 Y161.63 E149.96592
G1 X183.20 Y161.83 E149.98356
G1 X183.20 Y162.23 E150.00851
G1 X183.00 Y162.43 E150.02614
G1 X183.00 Y162.83 E150.05109
G1 X182.80 Y163.03 E150.06873
G1 X182.80 Y163.43 E150.09367
G1 X182.60 Y163.63 E150.11131
G1 X182.60 Y164.03 E150.13626
G1 X182.40 Y164.23 E150.15390
G1 X182.40 Y164.43 E150.16637
G1 X182.20 Y164.63 E150.18401
G1 X182.20 Y164.83 E150.19648
G1 X182.00 Y165.03 E150.21412
G1 X182.00 Y165.23 E150.22659
G1 X181.80 Y165.43 E150.24423
G1 X181.80 Y165.63 E150.25670
G1 X181.60 Y165.83 E150.27434
G1 X181.60 Y166.03 E150.28681
G1 X181.40 Y166.23 E150.30445
G1 X181.40 Y166.43 E150.31693
G1 X181.20 Y166.63 E150.33456
G1 X181.20 Y166.83 E150.34704
G1 X181.00 Y167.03 E150.36468
G1 X181.00 Y167.23 E150.37715
G1 X180.80 Y167.43 E150.39479
G1 X180.80 Y167.63 E150.40726
G1 X180.60 Y167.83 E150.42490
G1 X180.60 Y168.03 E150.43737
G1 X180.40 Y168.23 E150.45501
G1 X180.40 Y168.43 E150.46748
G1 X180.20 Y168.63 E150.48512
G1 X180.20 Y168.83 E150.49759
G1 X180.00 Y169.03 E150.51523
G1 X180.00 Y169.23 E150.52771
G1 X179.00 Y170.23 E150.61594
G1 X179.00 Y170.43 E150.62835
G1 X177.80 Y171.63 E150.73423
G1 X177.80 Y171.83 E150.74664
G1 X175.94 Y173.69 E150.91042
G1 X176.13 Y174.47 E150.96069
G1 X173.79 Y175.63 E151.12317
G1 X172.79 Y176.63 E151.21141
G1 X172.40 Y176.84 E151.23924
G1 X171.59 Y177.63 E151.30984
G1 X165.67 Y180.59 E151.72261
G1 X161.12 Y182.12 E152.02232
G1 X159.98 Y182.40 E152.09500
G1 X158.16 Y182.63 E152.20995
G1 X156.14 Y182.85 E152.33632
G1 X154.06 Y182.85 E152.46616
G1 X148.11 Y182.19 E152.83969
G1 X143.69 Y180.72 E153.13032
G1 X142.09 Y180.31 E153.23311
G1 X141.61 Y179.84 E153.27544
G1 X137.21 Y177.63 E153.58222
G1 X136.41 Y176.84 E153.65282
G1 X136.01 Y176.63 E153.68066
G1 X135.41 Y176.03 E153.73362
G1 X135.01 Y175.84 E153.76145
G1 X134.41 Y175.24 E153.81441
G1 X134.01 Y175.03 E153.84225
G1 X133.41 Y174.43 E153.89525
G1 X131.60 Y173.53 E154.02103
G1 X131.60 Y172.63 E154.07741
G1 X130.60 Y171.63 E154.16565
G1 X130.60 Y171.43 E154.17806
G1 X129.40 Y170.23 E154.28393
G1 X129.40 Y170.03 E154.29635
G1 X128.20 Y168.83 E154.40222
G1 X128.20 Y168.63 E154.41469
G1 X128.00 Y168.43 E154.43233
G1 X128.00 Y168.23 E154.44481
G1 X127.80 Y168.03 E154.46245
G1 X127.80 Y167.83 E154.47492
G1 X127.60 Y167.63 E154.49256
G1 X127.60 Y167.43 E154.50503
G1 X127.40 Y167.23 E154.52267
G1 X127.40 Y167.03 E154.53514
G1 X127.20 Y166.83 E154.55278
G1 X127.20 Y166.63 E154.56525
G1 X127.00 Y166.43 E154.58289
G1 X127.00 Y166.23 E154.59536
G1 X126.80 Y166.03 E154.61300
G1 X126.80 Y165.83 E154.62547
G1 X126.60 Y165.63 E154.64311
G1 X126.60 Y165.43 E154.65559
G1 X126.40 Y165.23 E154.67322
G1 X126.40 Y165.03 E154.68570
G1 X126.20 Y164.83 E154.70334
G1 X126.20 Y164.63 E154.71581
G1 X126.00 Y164.43 E154.73345
G1 X126.00 Y164.23 E154.74592
G1 X125.80 Y164.03 E154.76356
G1 X125.80 Y163.43 E154.80098
G1 X125.60 Y163.23 E154.81862
G1 X125.60 Y162.83 E154.84356
G1 X125.40 Y162.63 E154.86120
G1 X125.40 Y162.23 E154.88614
G1 X125.20 Y162.03 E154.90378
G1 X125.20 Y161.63 E154.92873
G1 X125.00 Y161.43 E154.94637
G1 X125.00 Y161.03 E154.97131
G1 X124.80 Y160.83 E154.98895
G1 X124.80 Y160.43 E155.01390
G1 X124.60 Y160.23 E155.03154
G1 X124.60 Y159.83 E155.05648
G1 X124.40 Y159.63 E155.07412
G1 X124.40 Y159.23 E155.09906
G1 X124.20 Y159.03 E155.11670
G1 X124.20 Y156.63 E155.26637
G1 X124.00 Y156.43 E155.28401
G1 X124.00 Y148.57 E155.77406
G1 X124.20 Y148.37 E155.79170
G1 X124.20 Y145.77 E155.95384
G1 X124.40 Y145.57 E155.97148
G1 X124.40 Y145.17 E155.99643
G1 X124.60 Y144.97 E156.01406
G1 X124.60 Y144.57 E156.03901
G1 X124.80 Y144.37 E156.05665
G1 X124.80 Y143.97 E156.08159
G1 X125.00 Y143.77 E156.09923
G1 X125.00 Y143.37 E156.12418
G1 X125.20 Y143.17 E156.14182
G1 X125.20 Y142.77 E156.16676
G1 X125.40 Y142.57 E156.18440
G1 X125.40 Y142.17 E156.20934
G1 X125.60 Y141.97 E156.22698
G1 X125.60 Y141.57 E156.25193
G1 X125.80 Y141.37 E156.26957
G1 X125.80 Y140.77 E156.30699
G1 X126.20 Y140.37 E156.34226
G1 X126.20 Y140.17 E156.35474
G1 X126.40 Y139.97 E156.37237
G1 X126.40 Y139.77 E156.38485
G1 X126.60 Y139.57 E156.40249
G1 X126.60 Y139.37 E156.41496
G1 X126.80 Y139.17 E156.43260
G1 X126.80 Y138.97 E156.44507
G1 X127.00 Y138.77 E156.46271
G1 X127.00 Y138.57 E156.47518
G1 X127.20 Y138.37 E156.49282
G1 X127.20 Y138.17 E156.50529
G1 X127.40 Y137.97 E156.52293
G1 X127.40 Y137.77 E156.53540
G1 X127.60 Y137.57 E156.55304
G1 X127.60 Y137.37 E156.56552
G1 X127.80 Y137.17 E156.58315
G1 X127.80 Y136.97 E156.59563
G1 X128.00 Y136.77 E156.61327
G1 X128.00 Y136.57 E156.62574
G1 X128.20 Y136.37 E156.64338
G1 X128.20 Y136.17 E156.65585
G1 X129.20 Y135.17 E156.74409
G1 X129.20 Y134.97 E156.75650
G1 X130.00 Y134.17 E156.82705
G1 X130.00 Y133.97 E156.83953
G1 X130.80 Y133.17 E156.91008
G1 X130.80 Y132.97 E156.92255
G1 X131.60 Y132.17 E156.99311
G1 X131.60 Y131.27 E157.04955
G1 X133.41 Y130.37 E157.17533
G0 F6000 X133.11 Y129.95
G1 F2700 X133.71 Y129.35 E157.22807
G1 X134.11 Y129.15 E157.25596
G1 X134.71 Y128.55 E157.30888
G1 X135.11 Y128.35 E157.33677
G1 X135.71 Y127.75 E157.38968
G1 X136.11 Y127.55 E157.41757
G1 X136.91 Y126.75 E157.48813
G1 X141.31 Y124.55 E157.79485
G1 X141.83 Y124.03 E157.84080
G1 X143.55 Y123.60 E157.95123
G1 X148.06 Y122.10 E158.24797
G1 X151.30 Y121.85 E158.45037
G1 X159.84 Y121.85 E158.98277
G1 X161.25 Y122.20 E159.07403
G1 X165.87 Y123.74 E159.37716
G1 X171.89 Y126.75 E159.79718
G1 X172.69 Y127.55 E159.86773
G1 X173.09 Y127.75 E159.89562
G1 X174.09 Y128.75 E159.98381
G1 X174.49 Y128.95 E160.01170
G1 X178.10 Y132.56 E160.33009
G1 X178.10 Y132.76 E160.34256
G1 X178.90 Y133.56 E160.41311
G1 X178.90 Y133.76 E160.42559
G1 X179.70 Y134.56 E160.49614
G1 X179.70 Y134.76 E160.50861
G1 X180.50 Y135.56 E160.57917
G1 X180.50 Y135.76 E160.59164
G1 X180.90 Y136.16 E160.62692
G1 X180.90 Y136.36 E160.63939
G1 X181.10 Y136.56 E160.65703
G1 X181.10 Y136.76 E160.66950
G1 X181.30 Y136.96 E160.68714
G1 X181.30 Y137.16 E160.69961
G1 X181.50 Y137.36 E160.71725
G1 X181.50 Y137.56 E160.72973
G1 X181.70 Y137.76 E160.74737
G1 X181.70 Y137.96 E160.75984
G1 X181.90 Y138.16 E160.77748
G1 X181.90 Y138.36 E160.78995
G1 X182.10 Y138.56 E160.80759
G1 X182.10 Y138.76 E160.82006
G1 X182.30 Y138.96 E160.83770
G1 X182.30 Y139.16 E160.85017
G1 X182.50 Y139.36 E160.86781
G1 X182.50 Y139.56 E160.88028
G1 X182.70 Y139.76 E160.89792
G1 X182.70 Y139.96 E160.91039
G1 X182.90 Y140.16 E160.92803
G1 X182.90 Y140.36 E160.94051
G1 X183.10 Y140.56 E160.95814
G1 X183.10 Y140.96 E160.98309
G1 X183.30 Y141.16 E161.00073
G1 X183.30 Y141.56 E161.02567
G1 X183.50 Y141.76 E161.04331
G1 X183.50 Y142.16 E161.06826
G1 X183.70 Y142.36 E161.08590
G1 X183.70 Y142.76 E161.11084
G1 X183.90 Y142.96 E161.12848
G1 X183.90 Y143.36 E161.15343
G1 X184.10 Y143.56 E161.17106
G1 X184.10 Y143.96 E161.19601
G1 X184.30 Y144.16 E161.21365
G1 X184.30 Y144.56 E161.23859
G1 X184.50 Y144.76 E161.25623
G1 X184.50 Y145.36 E161.29365
G1 X184.70 Y145.56 E161.31129
G1 X184.70 Y147.16 E161.41107
G1 X184.90 Y147.36 E161.42871
G1 X184.90 Y148.96 E161.52849
G1 X185.10 Y149.16 E161.54613
G1 X185.10 Y155.84 E161.96221
G1 X184.90 Y156.04 E161.97985
G1 X184.90 Y157.64 E162.07963
G1 X184.70 Y157.84 E162.09727
G1 X184.70 Y159.24 E162.18458
G1 X184.50 Y159.44 E162.20222
G1 X184.50 Y160.04 E162.23963
G1 X184.30 Y160.24 E162.25727
G1 X184.30 Y160.64 E162.28222
G1 X184.10 Y160.84 E162.29986
G1 X184.10 Y161.24 E162.32480
G1 X183.90 Y161.44 E162.34244
G1 X183.90 Y161.84 E162.36739
G1 X183.70 Y162.04 E162.38503
G1 X183.70 Y162.44 E162.40997
G1 X183.50 Y162.64 E162.42761
G1 X183.50 Y163.04 E162.45255
G1 X183.30 Y163.24 E162.47019
G1 X183.30 Y163.64 E162.49514
G1 X183.10 Y163.84 E162.51278
G1 X183.10 Y164.24 E162.53772
G1 X182.90 Y164.44 E162.55536
G1 X182.90 Y164.64 E162.56783
G1 X182.70 Y164.84 E162.58547
G1 X182.70 Y165.04 E162.59794
G1 X182.50 Y165.24 E162.61558
G1 X182.50 Y165.44 E162.62806
G1 X182.30 Y165.64 E162.64570
G1 X182.30 Y165.84 E162.65817
G1 X182.10 Y166.04 E162.67581
G1 X182.10 Y166.24 E162.68828
G1 X181.90 Y166.44 E162.70592
G1 X181.90 Y166.64 E162.71839
G1 X181.70 Y166.84 E162.73603
G1 X181.70 Y167.04 E162.74850
G1 X181.50 Y167.24 E162.76614
G1 X181.50 Y167.44 E162.77861
G1 X181.30 Y167.64 E162.79625
G1 X181.30 Y167.84 E162.80872
G1 X181.10 Y168.04 E162.82636
G1 X181.10 Y168.24 E162.83884
G1 X180.90 Y168.44 E162.85647
G1 X180.90 Y168.64 E162.86895
G1 X180.70 Y168.84 E162.88659
G1 X180.70 Y169.04 E162.89906
G1 X180.50 Y169.24 E162.91670
G1 X180.50 Y169.44 E162.92917
G1 X179.50 Y170.44 E163.01736
G1 X179.50 Y170.64 E163.02984
G1 X178.30 Y171.84 E163.13567
G1 X178.30 Y172.04 E163.14814
G1 X176.49 Y173.84 E163.30742
G1 X176.70 Y174.74 E163.36504
G1 X174.09 Y176.05 E163.54733
G1 X173.09 Y177.05 E163.63534
G1 X172.69 Y177.25 E163.66323
G1 X171.89 Y178.05 E163.73379
G1 X165.87 Y181.06 E164.15381
G1 X161.25 Y182.60 E164.45699
G1 X160.08 Y182.89 E164.53271
G1 X158.21 Y183.12 E164.64980
G1 X156.17 Y183.35 E164.77805
G1 X154.03 Y183.35 E164.91138
G1 X148.00 Y182.68 E165.28993
G1 X143.55 Y181.20 E165.58247
G1 X141.83 Y180.77 E165.69290
G1 X141.31 Y180.25 E165.73885
G1 X136.91 Y178.05 E166.04557
G1 X136.11 Y177.25 E166.11613
G1 X135.71 Y177.05 E166.14402
G1 X135.11 Y176.45 E166.19694
G1 X134.71 Y176.25 E166.22483
G1 X134.11 Y175.65 E166.27774
G1 X133.71 Y175.45 E166.30563
G1 X133.11 Y174.85 E166.35837
G1 X131.10 Y173.84 E166.49863
G1 X131.10 Y172.84 E166.56143
G1 X130.10 Y171.84 E166.64962
G1 X130.10 Y171.64 E166.66209
G1 X128.90 Y170.44 E166.76793
G1 X128.90 Y170.24 E166.78040
G1 X127.70 Y169.04 E166.88623
G1 X127.70 Y168.84 E166.89871
G1 X127.50 Y168.64 E166.91634
G1 X127.50 Y168.44 E166.92882
G1 X127.30 Y168.24 E166.94646
G1 X127.30 Y168.04 E166.95893
G1 X127.10 Y167.84 E166.97657
G1 X127.10 Y167.64 E166.98904
G1 X126.90 Y167.44 E167.00668
G1 X126.90 Y167.24 E167.01915
G1 X126.70 Y167.04 E167.03679
G1 X126.70 Y166.84 E167.04926
G1 X126.50 Y166.64 E167.06690
G1 X126.50 Y166.44 E167.07937
G1 X126.30 Y166.24 E167.09701
G1 X126.30 Y166.04 E167.10949
G1 X126.10 Y165.84 E167.12712
G1 X126.10 Y165.64 E167.13960
G1 X125.90 Y165.44 E167.15724
G1 X125.90 Y165.24 E167.16971
G1 X125.70 Y165.04 E167.18735
G1 X125.70 Y164.84 E167.19982
G1 X125.50 Y164.64 E167.21746
G1 X125.50 Y164.44 E167.22993
G1 X125.30 Y164.24 E167.24757
G1 X125.30 Y163.64 E167.28499
G1 X125.10 Y163.44 E167.30263
G1 X125.10 Y163.04 E167.32757
G1 X124.90 Y162.84 E167.34521
G1 X124.90 Y162.44 E167.37016
G1 X124.70 Y162.24 E167.38779
G1 X124.70 Y161.84 E167.41274
G1 X124.50 Y161.64 E167.43038
G1 X124.50 Y161.24 E167.45532
G1 X124.30 Y161.04 E167.47296
G1 X124.30 Y160.64 E167.49791
G1 X124.10 Y160.44 E167.51555
G1 X124.10 Y160.04 E167.54049
G1 X123.90 Y159.84 E167.55813
G1 X123.90 Y159.44 E167.58307
G1 X123.70 Y159.24 E167.60071
G1 X123.70 Y156.84 E167.75038
G1 X123.50 Y156.64 E167.76802
G1 X123.50 Y148.36 E168.28389
G1 X123.70 Y148.16 E168.30153
G1 X123.70 Y145.56 E168.46367
G1 X123.90 Y145.36 E168.48131
G1 X123.90 Y144.96 E168.50625
G1 X124.10 Y144.76 E168.52389
G1 X124.10 Y144.36 E168.54884
G1 X124.30 Y144.16 E168.56648
G1 X124.30 Y143.76 E168.59142
G1 X124.50 Y143.56 E168.60906
G1 X124.50 Y143.16 E168.63401
G1 X124.70 Y142.96 E168.65164
G1 X124.70 Y142.56 E168.67659
G1 X124.90 Y142.36 E168.69423
G1 X124.90 Y141.96 E168.71917
G1 X125.10 Y141.76 E168.73681
G1 X125.10 Y141.36 E168.76176
G1 X125.30 Y141.16 E168.77940
G1 X125.30 Y140.56 E168.81681
G1 X125.70 Y140.16 E168.85209
G1 X125.70 Y139.96 E168.86456
G1 X125.90 Y139.76 E168.88220
G1 X125.90 Y139.56 E168.89468
G1 X126.10 Y139.36 E168.91231
G1 X126.10 Y139.16 E168.92479
G1 X126.30 Y138.96 E168.94243
G1 X126.30 Y138.76 E168.95490
G1 X126.50 Y138.56 E168.97254
G1 X126.50 Y138.36 E168.98501
G1 X126.70 Y138.16 E169.00265
G1 X126.70 Y137.96 E169.01512
G1 X126.90 Y137.76 E169.03276
G1 X126.90 Y137.56 E169.04523
G1 X127.10 Y137.36 E169.06287
G1 X127.10 Y137.16 E169.07534
G1 X127.30 Y136.96 E169.09298
G1 X127.30 Y136.76 E169.10546
G1 X127.50 Y136.56 E169.12309
G1 X127.50 Y136.36 E169.13557
G1 X127.70 Y136.16 E169.15321
G1 X127.70 Y135.96 E169.16568
G1 X128.70 Y134.96 E169.25387
G1 X128.70 Y134.76 E169.26635
G1 X129.50 Y133.96 E169.33690
G1 X129.50 Y133.76 E169.34937
G1 X130.30 Y132.96 E169.41993
G1 X130.30 Y132.76 E169.43240
G1 X131.10 Y131.96 E169.50296
G1 X131.10 Y130.96 E169.56576
G1 X133.11 Y129.95 E169.70601
G0 F6000 X132.81 Y129.54
G1 F2700 X133.41 Y128.94 E169.75893
G1 X133.81 Y128.74 E169.78673
G1 X134.41 Y128.14 E169.83974
G1 X134.81 Y127.94 E169.86754
G1 X135.41 Y127.34 E169.92055
G1 X135.81 Y127.14 E169.94836
G1 X136.61 Y126.34 E170.01900
G1 X141.01 Y124.14 E170.32570
G1 X141.57 Y123.58 E170.37526
G1 X143.40 Y123.12 E170.49271
G1 X147.96 Y121.61 E170.79245
G1 X151.28 Y121.35 E170.99992
G1 X159.90 Y121.35 E171.53736
G1 X161.40 Y121.72 E171.63365
G1 X166.06 Y123.28 E171.94019
G1 X172.19 Y126.34 E172.36746
G1 X172.99 Y127.14 E172.43810
G1 X173.39 Y127.34 E172.46591
G1 X174.39 Y128.34 E172.55419
G1 X174.79 Y128.54 E172.58200
G1 X178.60 Y132.36 E172.91837
G1 X178.60 Y132.56 E172.93084
G1 X179.40 Y133.36 E173.00140
G1 X179.40 Y133.56 E173.01387
G1 X180.20 Y134.36 E173.08442
G1 X180.20 Y134.56 E173.09690
G1 X181.00 Y135.36 E173.16745
G1 X181.00 Y135.56 E173.17992
G1 X181.40 Y135.96 E173.21520
G1 X181.40 Y136.16 E173.22767
G1 X181.60 Y136.36 E173.24531
G1 X181.60 Y136.56 E173.25779
G1 X181.80 Y136.76 E173.27543
G1 X181.80 Y136.96 E173.28790
G1 X182.00 Y137.16 E173.30554
G1 X182.00 Y137.36 E173.31801
G1 X182.20 Y137.56 E173.33565
G1 X182.20 Y137.76 E173.34812
G1 X182.40 Y137.96 E173.36576
G1 X182.40 Y138.16 E173.37823
G1 X182.60 Y138.36 E173.39587
G1 X182.60 Y138.56 E173.40834
G1 X182.80 Y138.76 E173.42598
G1 X182.80 Y138.96 E173.43845
G1 X183.00 Y139.16 E173.45609
G1 X183.00 Y139.36 E173.46857
G1 X183.20 Y139.56 E173.48620
G1 X183.20 Y139.76 E173.49868
G1 X183.40 Y139.96 E173.51632
G1 X183.40 Y140.16 E173.52879
G1 X183.60 Y140.36 E173.54643
G1 X183.60 Y140.76 E173.57137
G1 X183.80 Y140.96 E173.58901
G1 X183.80 Y141.36 E173.61396
G1 X184.00 Y141.56 E173.63160
G1 X184.00 Y141.96 E173.65654
G1 X184.20 Y142.16 E173.67418
G1 X184.20 Y142.56 E173.69912
G1 X184.40 Y142.76 E173.71676
G1 X184.40 Y143.16 E173.74171
G1 X184.60 Y143.36 E173.75935
G1 X184.60 Y143.76 E173.78429
G1 X184.80 Y143.96 E173.80193
G1 X184.80 Y144.36 E173.82688
G1 X185.00 Y144.56 E173.84452
G1 X185.00 Y145.16 E173.88193
G1 X185.20 Y145.36 E173.89957
G1 X185.20 Y146.96 E173.99935
G1 X185.40 Y147.16 E174.01699
G1 X185.40 Y148.76 E174.11677
G1 X185.60 Y148.96 E174.13441
G1 X185.60 Y156.04 E174.57631
G1 X185.40 Y156.24 E174.59395
G1 X185.40 Y157.84 E174.69373
G1 X185.20 Y158.04 E174.71137
G1 X185.20 Y159.44 E174.79868
G1 X185.00 Y159.64 E174.81632
G1 X185.00 Y160.24 E174.85374
G1 X184.80 Y160.44 E174.87137
G1 X184.80 Y160.84 E174.89632
G1 X184.60 Y161.04 E174.91396
G1 X184.60 Y161.44 E174.93890
G1 X184.40 Y161.64 E174.95654
G1 X184.40 Y162.04 E174.98149
G1 X184.20 Y162.24 E174.99913
G1 X184.20 Y162.64 E175.02407
G1 X184.00 Y162.84 E175.04171
G1 X184.00 Y163.24 E175.06666
G1 X183.80 Y163.44 E175.08429
G1 X183.80 Y163.84 E175.10924
G1 X183.60 Y164.04 E175.12688
G1 X183.60 Y164.44 E175.15182
G1 X183.40 Y164.64 E175.16946
G1 X183.40 Y164.84 E175.18193
G1 X183.20 Y165.04 E175.19957
G1 X183.20 Y165.24 E175.21205
G1 X183.00 Y165.44 E175.22968
G1 X183.00 Y165.64 E175.24216
G1 X182.80 Y165.84 E175.25980
G1 X182.80 Y166.04 E175.27227
G1 X182.60 Y166.24 E175.28991
G1 X182.60 Y166.44 E175.30238
G1 X182.40 Y166.64 E175.32002
G1 X182.40 Y166.84 E175.33249
G1 X182.20 Y167.04 E175.35013
G1 X182.20 Y167.24 E175.36260
G1 X182.00 Y167.44 E175.38024
G1 X182.00 Y167.64 E175.39271
G1 X181.80 Y167.84 E175.41035
G1 X181.80 Y168.04 E175.42283
G1 X181.60 Y168.24 E175.44046
G1 X181.60 Y168.44 E175.45294
G1 X181.40 Y168.64 E175.47058
G1 X181.40 Y168.84 E175.48305
G1 X181.20 Y169.04 E175.50069
G1 X181.20 Y169.24 E175.51316
G1 X181.00 Y169.44 E175.53080
G1 X181.00 Y169.64 E175.54327
G1 X180.00 Y170.64 E175.63147
G1 X180.00 Y170.84 E175.64394
G1 X178.80 Y172.04 E175.74982
G1 X178.80 Y172.24 E175.76223
G1 X177.04 Y174.00 E175.91718
G1 X177.28 Y175.01 E175.98205
G1 X174.39 Y176.46 E176.18363
G1 X173.39 Y177.46 E176.27187
G1 X172.99 Y177.66 E176.29968
G1 X172.19 Y178.46 E176.37032
G1 X166.06 Y181.52 E176.79759
G1 X161.39 Y183.08 E177.10421
G1 X160.17 Y183.38 E177.18305
G1 X158.27 Y183.62 E177.30215
G1 X156.20 Y183.85 E177.43235
G1 X154.00 Y183.85 E177.56918
G1 X147.89 Y183.17 E177.95275
G1 X143.41 Y181.68 E178.24706
G1 X141.57 Y181.22 E178.36522
G1 X141.01 Y180.66 E178.41478
G1 X136.61 Y178.46 E178.72148
G1 X135.81 Y177.66 E178.79213
G1 X135.41 Y177.46 E178.81993
G1 X134.81 Y176.86 E178.87294
G1 X134.41 Y176.66 E178.90074
G1 X133.81 Y176.06 E178.95375
G1 X133.41 Y175.86 E178.98155
G1 X132.81 Y175.26 E179.03447
G1 X130.60 Y174.15 E179.18878
G1 X130.60 Y173.04 E179.25794
G1 X129.60 Y172.04 E179.34614
G1 X129.60 Y171.84 E179.35855
G1 X128.40 Y170.64 E179.46443
G1 X128.40 Y170.44 E179.47684
G1 X127.20 Y169.24 E179.58271
G1 X127.20 Y169.04 E179.59519
G1 X127.00 Y168.84 E179.61282
G1 X127.00 Y168.64 E179.62530
G1 X126.80 Y168.44 E179.64294
G1 X126.80 Y168.24 E179.65541
G1 X126.60 Y168.04 E179.67305
G1 X126.60 Y167.84 E179.68552
G1 X126.40 Y167.64 E179.70316
G1 X126.40 Y167.44 E179.71563
G1 X126.20 Y167.24 E179.73327
G1 X126.20 Y167.04 E179.74574
G1 X126.00 Y166.84 E179.76338
G1 X126.00 Y166.64 E179.77585
G1 X125.80 Y166.44 E179.79349
G1 X125.80 Y166.24 E179.80597
G1 X125.60 Y166.04 E179.82360
G1 X125.60 Y165.84 E179.83608
G1 X125.40 Y165.64 E179.85372
G1 X125.40 Y165.44 E179.86619
G1 X125.20 Y165.24 E179.88383
G1 X125.20 Y165.04 E179.89630
G1 X125.00 Y164.84 E179.91394
G1 X125.00 Y164.64 E179.92641
G1 X124.80 Y164.44 E179.94405
G1 X124.80 Y163.84 E179.98147
G1 X124.60 Y163.64 E179.99911
G1 X124.60 Y163.24 E180.02405
G1 X124.40 Y163.04 E180.04169
G1 X124.40 Y162.64 E180.06664
G1 X124.20 Y162.44 E180.08427
G1 X124.20 Y162.04 E180.10922
G1 X124.00 Y161.84 E180.12686
G1 X124.00 Y161.44 E180.15180
G1 X123.80 Y161.24 E180.16944
G1 X123.80 Y160.84 E180.19439
G1 X123.60 Y160.64 E180.21203
G1 X123.60 Y160.24 E180.23697
G1 X123.40 Y160.04 E180.25461
G1 X123.40 Y159.64 E180.27956
G1 X123.20 Y159.44 E180.29719
G1 X123.20 Y157.04 E180.44686
G1 X123.00 Y156.84 E180.46450
G1 X123.00 Y148.16 E181.00619
G1 X123.20 Y147.96 E181.02383
G1 X123.20 Y145.36 E181.18597
G1 X123.40 Y145.16 E181.20361
G1 X123.40 Y144.76 E181.22855
G1 X123.60 Y144.56 E181.24619
G1 X123.60 Y144.16 E181.27114
G1 X123.80 Y143.96 E181.28878
G1 X123.80 Y143.56 E181.31372
G1 X124.00 Y143.36 E181.33136
G1 X124.00 Y142.96 E181.35630
G1 X124.20 Y142.76 E181.37394
G1 X124.20 Y142.36 E181.39889
G1 X124.40 Y142.16 E181.41653
G1 X124.40 Y141.76 E181.44147
G1 X124.60 Y141.56 E181.45911
G1 X124.60 Y141.16 E181.48406
G1 X124.80 Y140.96 E181.50169
G1 X124.80 Y140.36 E181.53911
G1 X125.20 Y139.96 E181.57439
G1 X125.20 Y139.76 E181.58686
G1 X125.40 Y139.56 E181.60450
G1 X125.40 Y139.36 E181.61697
G1 X125.60 Y139.16 E181.63461
G1 X125.60 Y138.96 E181.64709
G1 X125.80 Y138.76 E181.66472
G1 X125.80 Y138.56 E181.67720
G1 X126.00 Y138.36 E181.69484
G1 X126.00 Y138.16 E181.70731
G1 X126.20 Y137.96 E181.72495
G1 X126.20 Y137.76 E181.73742
G1 X126.40 Y137.56 E181.75506
G1 X126.40 Y137.36 E181.76753
G1 X126.60 Y137.16 E181.78517
G1 X126.60 Y136.96 E181.79764
G1 X126.80 Y136.76 E181.81528
G1 X126.80 Y136.56 E181.82775
G1 X127.00 Y136.36 E181.84539
G1 X127.00 Y136.16 E181.85787
G1 X127.20 Y135.96 E181.87550
G1 X127.20 Y135.76 E181.88798
G1 X128.20 Y134.76 E181.97617
G1 X128.20 Y134.56 E181.98864
G1 X129.00 Y133.76 E182.05920
G1 X129.00 Y133.56 E182.07167
G1 X129.80 Y132.76 E182.14223
G1 X129.80 Y132.56 E182.15470
G1 X130.60 Y131.76 E182.22525
G1 X130.60 Y130.65 E182.29442
G1 X132.81 Y129.54 E182.44873
G0 F6000 X132.52 Y129.13
G1 F2700 X133.12 Y128.53 E182.50164
G1 X133.52 Y128.33 E182.52959
G1 X134.12 Y127.73 E182.58246
G1 X134.52 Y127.53 E182.61041
G1 X135.12 Y126.93 E182.66328
G1 X135.52 Y126.73 E182.69122
G1 X136.32 Y125.93 E182.76174
G1 X140.72 Y123.73 E183.06852
G1 X141.32 Y123.13 E183.12161
G1 X143.27 Y122.64 E183.24676
G1 X147.86 Y121.11 E183.54888
G1 X151.26 Y120.85 E183.76142
G1 X159.96 Y120.85 E184.30385
G1 X161.53 Y121.24 E184.40514
G1 X166.25 Y122.82 E184.71518
G1 X172.48 Y125.93 E185.14975
G1 X173.28 Y126.73 E185.22026
G1 X173.68 Y126.93 E185.24821
G1 X174.68 Y127.93 E185.33636
G1 X175.08 Y128.13 E185.36430
G1 X179.10 Y132.15 E185.71862
G1 X179.10 Y132.35 E185.73109
G1 X179.90 Y133.15 E185.80165
G1 X179.90 Y133.35 E185.81412
G1 X180.70 Y134.15 E185.88468
G1 X180.70 Y134.35 E185.89715
G1 X181.50 Y135.15 E185.96771
G1 X181.50 Y135.35 E185.98018
G1 X181.90 Y135.75 E186.01546
G1 X181.90 Y135.95 E186.02793
G1 X182.10 Y136.15 E186.04557
G1 X182.10 Y136.35 E186.05804
G1 X182.30 Y136.55 E186.07568
G1 X182.30 Y136.75 E186.08815
G1 X182.50 Y136.95 E186.10579
G1 X182.50 Y137.15 E186.11826
G1 X182.70 Y137.35 E186.13590
G1 X182.70 Y137.55 E186.14837
G1 X182.90 Y137.75 E186.16601
G1 X182.90 Y137.95 E186.17849
G1 X183.10 Y138.15 E186.19612
G1 X183.10 Y138.35 E186.20860
G1 X183.30 Y138.55 E186.22624
G1 X183.30 Y138.75 E186.23871
G1 X183.50 Y138.95 E186.25635
G1 X183.50 Y139.15 E186.26882
G1 X183.70 Y139.35 E186.28646
G1 X183.70 Y139.55 E186.29893
G1 X183.90 Y139.75 E186.31657
G1 X183.90 Y139.95 E186.32904
G1 X184.10 Y140.15 E186.34668
G1 X184.10 Y140.55 E186.37163
G1 X184.30 Y140.75 E186.38927
G1 X184.30 Y141.15 E186.41421
G1 X184.50 Y141.35 E186.43185
G1 X184.50 Y141.75 E186.45679
G1 X184.70 Y141.95 E186.47443
G1 X184.70 Y142.35 E186.49938
G1 X184.90 Y142.55 E186.51702
G1 X184.90 Y142.95 E186.54196
G1 X185.10 Y143.15 E186.55960
G1 X185.10 Y143.55 E186.58455
G1 X185.30 Y143.75 E186.60219
G1 X185.30 Y144.15 E186.62713
G1 X185.50 Y144.35 E186.64477
G1 X185.50 Y144.95 E186.68219
G1 X185.70 Y145.15 E186.69983
G1 X185.70 Y146.75 E186.79961
G1 X185.90 Y146.95 E186.81724
G1 X185.90 Y148.55 E186.91703
G1 X186.10 Y148.75 E186.93466
G1 X186.10 Y156.25 E187.40238
G1 X185.90 Y156.45 E187.42002
G1 X185.90 Y158.05 E187.51980
G1 X185.70 Y158.25 E187.53744
G1 X185.70 Y159.65 E187.62475
G1 X185.50 Y159.85 E187.64239
G1 X185.50 Y160.45 E187.67981
G1 X185.30 Y160.65 E187.69745
G1 X185.30 Y161.05 E187.72239
G1 X185.10 Y161.25 E187.74003
G1 X185.10 Y161.65 E187.76498
G1 X184.90 Y161.85 E187.78261
G1 X184.90 Y162.25 E187.80756
G1 X184.70 Y162.45 E187.82520
G1 X184.70 Y162.85 E187.85014
G1 X184.50 Y163.05 E187.86778
G1 X184.50 Y163.45 E187.89273
G1 X184.30 Y163.65 E187.91037
G1 X184.30 Y164.05 E187.93531
G1 X184.10 Y164.25 E187.95295
G1 X184.10 Y164.65 E187.97790
G1 X183.90 Y164.85 E187.99553
G1 X183.90 Y165.05 E188.00801
G1 X183.70 Y165.25 E188.02565
G1 X183.70 Y165.45 E188.03812
G1 X183.50 Y165.65 E188.05576
G1 X183.50 Y165.85 E188.06823
G1 X183.30 Y166.05 E188.08587
G1 X183.30 Y166.25 E188.09834
G1 X183.10 Y166.45 E188.11598
G1 X183.10 Y166.65 E188.12845
G1 X182.90 Y166.85 E188.14609
G1 X182.90 Y167.05 E188.15856
G1 X182.70 Y167.25 E188.17620
G1 X182.70 Y167.45 E188.18867
G1 X182.50 Y167.65 E188.20631
G1 X182.50 Y167.85 E188.21879
G1 X182.30 Y168.05 E188.23643
G1 X182.30 Y168.25 E188.24890
G1 X182.10 Y168.45 E188.26654
G1 X182.10 Y168.65 E188.27901
G1 X181.90 Y168.85 E188.29665
G1 X181.90 Y169.05 E188.30912
G1 X181.70 Y169.25 E188.32676
G1 X181.70 Y169.45 E188.33923
G1 X181.50 Y169.65 E188.35687
G1 X181.50 Y169.85 E188.36934
G1 X180.50 Y170.85 E188.45754
G1 X180.50 Y171.05 E188.47001
G1 X179.30 Y172.25 E188.57584
G1 X179.30 Y172.45 E188.58832
G1 X177.59 Y174.16 E188.73886
G1 X177.86 Y175.28 E188.81103
G1 X174.68 Y176.87 E189.03228
G1 X173.68 Y177.87 E189.12039
G1 X173.28 Y178.07 E189.14833
G1 X172.48 Y178.87 E189.21884
G1 X166.25 Y181.98 E189.65342
G1 X161.53 Y183.56 E189.96345
G1 X160.26 Y183.88 E190.04540
G1 X158.33 Y184.12 E190.16657
G1 X156.22 Y184.35 E190.29871
G1 X153.98 Y184.35 E190.43897
G1 X147.78 Y183.66 E190.82762
G1 X143.26 Y182.16 E191.12481
G1 X141.32 Y181.67 E191.24964
G1 X140.72 Y181.07 E191.30273
G1 X136.32 Y178.87 E191.60952
G1 X135.52 Y178.07 E191.68003
G1 X135.12 Y177.87 E191.70797
G1 X134.52 Y177.27 E191.76084
G1 X134.12 Y177.07 E191.78879
G1 X133.52 Y176.47 E191.84166
G1 X133.12 Y176.27 E191.86961
G1 X132.52 Y175.67 E191.92252
G1 X130.10 Y174.46 E192.09100
G1 X130.10 Y173.25 E192.16653
G1 X129.70 Y172.85 E192.20180
G1 X129.70 Y182.15 E192.78178
G1 X119.70 Y182.15 E193.40540
G1 X119.70 Y171.65 E194.06021
G1 X128.70 Y171.65 E194.62148
G1 X127.90 Y170.85 E194.69203
G1 X127.90 Y170.65 E194.70451
G1 X126.70 Y169.45 E194.81034
G1 X126.70 Y169.25 E194.82281
G1 X126.50 Y169.05 E194.84045
G1 X126.50 Y168.85 E194.85292
G1 X126.30 Y168.65 E194.87056
G1 X126.30 Y168.45 E194.88303
G1 X126.10 Y168.25 E194.90067
G1 X126.10 Y168.05 E194.91315
G1 X125.90 Y167.85 E194.93078
G1 X125.90 Y167.65 E194.94326
G1 X125.70 Y167.45 E194.96090
G1 X125.70 Y167.25 E194.97337
G1 X125.50 Y167.05 E194.99101
G1 X125.50 Y166.85 E195.00348
G1 X125.30 Y166.65 E195.02112
G1 X125.30 Y166.45 E195.03359
G1 X125.10 Y166.25 E195.05123
G1 X125.10 Y166.05 E195.06370
G1 X124.90 Y165.85 E195.08134
G1 X124.90 Y165.65 E195.09381
G1 X124.70 Y165.45 E195.11145
G1 X124.70 Y165.25 E195.12393
G1 X124.50 Y165.05 E195.14156
G1 X124.50 Y164.85 E195.15404
G1 X124.30 Y164.65 E195.17168
G1 X124.30 Y164.05 E195.20909
G1 X124.10 Y163.85 E195.22673
G1 X124.10 Y163.45 E195.25168
G1 X123.90 Y163.25 E195.26932
G1 X123.90 Y162.85 E195.29426
G1 X123.70 Y162.65 E195.31190
G1 X123.70 Y162.25 E195.33685
G1 X123.50 Y162.05 E195.35448
G1 X123.50 Y161.65 E195.37943
G1 X123.30 Y161.45 E195.39707
G1 X123.30 Y161.05 E195.42201
G1 X123.10 Y160.85 E195.43965
G1 X123.10 Y160.45 E195.46460
G1 X122.90 Y160.25 E195.48224
G1 X122.90 Y159.85 E195.50718
G1 X122.70 Y159.65 E195.52482
G1 X122.70 Y157.25 E195.67449
G1 X122.50 Y157.05 E195.69213
G1 X122.50 Y147.95 E196.25963
G1 X122.70 Y147.75 E196.27727
G1 X122.70 Y145.15 E196.43941
G1 X122.90 Y144.95 E196.45705
G1 X122.90 Y144.55 E196.48200
G1 X123.10 Y144.35 E196.49964
G1 X123.10 Y143.95 E196.52458
G1 X123.30 Y143.75 E196.54222
G1 X123.30 Y143.35 E196.56716
G1 X123.50 Y143.15 E196.58480
G1 X123.50 Y142.75 E196.60975
G1 X123.70 Y142.55 E196.62739
G1 X123.70 Y142.15 E196.65233
G1 X123.90 Y141.95 E196.66997
G1 X123.90 Y141.55 E196.69492
G1 X124.10 Y141.35 E196.71256
G1 X124.10 Y140.95 E196.73750
G1 X124.30 Y140.75 E196.75514
G1 X124.30 Y140.15 E196.79256
G1 X124.70 Y139.75 E196.82783
G1 X124.70 Y139.55 E196.84031
G1 X124.90 Y139.35 E196.85795
G1 X124.90 Y139.15 E196.87042
G1 X125.10 Y138.95 E196.88806
G1 X125.10 Y138.75 E196.90053
G1 X125.30 Y138.55 E196.91817
G1 X125.30 Y138.35 E196.93064
G1 X125.50 Y138.15 E196.94828
G1 X125.50 Y137.95 E196.96075
G1 X125.70 Y137.75 E196.97839
G1 X125.70 Y137.55 E196.99086
G1 X125.90 Y137.35 E197.00850
G1 X125.90 Y137.15 E197.02098
G1 X126.10 Y136.95 E197.03861
G1 X126.10 Y136.75 E197.05109
G1 X126.30 Y136.55 E197.06873
G1 X126.30 Y136.35 E197.08120
G1 X126.50 Y136.15 E197.09884
G1 X126.50 Y135.95 E197.11131
G1 X126.70 Y135.75 E197.12895
G1 X126.70 Y135.55 E197.14142
G1 X127.70 Y134.55 E197.22962
G1 X127.70 Y134.35 E197.24209
G1 X128.50 Y133.55 E197.31264
G1 X128.50 Y133.35 E197.32512
G1 X129.30 Y132.55 E197.39567
G1 X129.30 Y132.35 E197.40814
G1 X130.10 Y131.55 E197.47870
G1 X130.10 Y130.34 E197.55422
G1 X132.52 Y129.13 E197.72270
G0 F6000 X132.22 Y128.72
G1 F2700 X132.82 Y128.12 E197.77553
G1 X133.22 Y127.92 E197.80342
G1 X133.82 Y127.32 E197.85634
G1 X134.22 Y127.12 E197.88422
G1 X134.82 Y126.52 E197.93714
G1 X135.22 Y126.32 E197.96503
G1 X136.02 Y125.52 E198.03559
G1 X140.42 Y123.32 E198.34243
G1 X141.06 Y122.68 E198.39905
G1 X143.13 Y122.16 E198.53172
G1 X147.76 Y120.62 E198.83635
G1 X151.24 Y120.35 E199.05389
G1 X160.02 Y120.35 E199.60144
G1 X161.67 Y120.76 E199.70775
G1 X166.44 Y122.35 E200.02120
G1 X172.78 Y125.52 E200.46302
G1 X173.58 Y126.32 E200.53358
G1 X173.98 Y126.52 E200.56147
G1 X174.98 Y127.52 E200.64966
G1 X175.38 Y127.72 E200.67755
G1 X179.60 Y131.94 E201.04982
G1 X179.60 Y132.14 E201.06229
G1 X180.40 Y132.94 E201.13285
G1 X180.40 Y133.14 E201.14532
G1 X181.20 Y133.94 E201.21587
G1 X181.20 Y134.14 E201.22835
G1 X182.00 Y134.94 E201.29890
G1 X182.00 Y135.14 E201.31137
G1 X182.40 Y135.54 E201.34665
G1 X182.40 Y135.74 E201.35912
G1 X182.60 Y135.94 E201.37676
G1 X182.60 Y136.14 E201.38924
G1 X182.80 Y136.34 E201.40687
G1 X182.80 Y136.54 E201.41935
G1 X183.00 Y136.74 E201.43699
G1 X183.00 Y136.94 E201.44946
G1 X183.20 Y137.14 E201.46710
G1 X183.20 Y137.34 E201.47957
G1 X183.40 Y137.54 E201.49721
G1 X183.40 Y137.74 E201.50968
G1 X183.60 Y137.94 E201.52732
G1 X183.60 Y138.14 E201.53979
G1 X183.80 Y138.34 E201.55743
G1 X183.80 Y138.54 E201.56990
G1 X184.00 Y138.74 E201.58754
G1 X184.00 Y138.94 E201.60002
G1 X184.20 Y139.14 E201.61765
G1 X184.20 Y139.34 E201.63013
G1 X184.40 Y139.54 E201.64777
G1 X184.40 Y139.74 E201.66024
G1 X184.60 Y139.94 E201.67788
G1 X184.60 Y140.34 E201.70282
G1 X184.80 Y140.54 E201.72046
G1 X184.80 Y140.94 E201.74541
G1 X185.00 Y141.14 E201.76305
G1 X185.00 Y141.54 E201.78799
G1 X185.20 Y141.74 E201.80563
G1 X185.20 Y142.14 E201.83057
G1 X185.40 Y142.34 E201.84821
G1 X185.40 Y142.74 E201.87316
G1 X185.60 Y142.94 E201.89080
G1 X185.60 Y143.34 E201.91574
G1 X185.80 Y143.54 E201.93338
G1 X185.80 Y143.94 E201.95833
G1 X186.00 Y144.14 E201.97596
G1 X186.00 Y144.74 E202.01338
G1 X186.20 Y144.94 E202.03102
G1 X186.20 Y146.54 E202.13080
G1 X186.40 Y146.74 E202.14844
G1 X186.40 Y148.34 E202.24822
G1 X186.60 Y148.54 E202.26586
G1 X186.60 Y156.46 E202.75952
G1 X186.40 Y156.66 E202.77716
G1 X186.40 Y158.26 E202.87694
G1 X186.20 Y158.46 E202.89458
G1 X186.20 Y159.86 E202.98189
G1 X186.00 Y160.06 E202.99953
G1 X186.00 Y160.66 E203.03695
G1 X185.80 Y160.86 E203.05458
G1 X185.80 Y161.26 E203.07953
G1 X185.60 Y161.46 E203.09717
G1 X185.60 Y161.86 E203.12211
G1 X185.40 Y162.06 E203.13975
G1 X185.40 Y162.46 E203.16470
G1 X185.20 Y162.66 E203.18234
G1 X185.20 Y163.06 E203.20728
G1 X185.00 Y163.26 E203.22492
G1 X185.00 Y163.66 E203.24987
G1 X184.80 Y163.86 E203.26750
G1 X184.80 Y164.26 E203.29245
G1 X184.60 Y164.46 E203.31009
G1 X184.60 Y164.86 E203.33503
G1 X184.40 Y165.06 E203.35267
G1 X184.40 Y165.26 E203.36514
G1 X184.20 Y165.46 E203.38278
G1 X184.20 Y165.66 E203.39526
G1 X184.00 Y165.86 E203.41290
G1 X184.00 Y166.06 E203.42537
G1 X183.80 Y166.26 E203.44301
G1 X183.80 Y166.46 E203.45548
G1 X183.60 Y166.66 E203.47312
G1 X183.60 Y166.86 E203.48559
G1 X183.40 Y167.06 E203.50323
G1 X183.40 Y167.26 E203.51570
G1 X183.20 Y167.46 E203.53334
G1 X183.20 Y167.66 E203.54581
G1 X183.00 Y167.86 E203.56345
G1 X183.00 Y168.06 E203.57592
G1 X182.80 Y168.26 E203.59356
G1 X182.80 Y168.46 E203.60604
G1 X182.60 Y168.66 E203.62368
G1 X182.60 Y168.86 E203.63615
G1 X182.40 Y169.06 E203.65379
G1 X182.40 Y169.26 E203.66626
G1 X182.20 Y169.46 E203.68390
G1 X182.20 Y169.66 E203.69637
G1 X182.00 Y169.86 E203.71401
G1 X182.00 Y170.06 E203.72648
G1 X181.00 Y171.06 E203.81468
G1 X181.00 Y171.26 E203.82715
G1 X179.80 Y172.46 E203.93298
G1 X179.80 Y172.66 E203.94545
G1 X178.14 Y174.31 E204.09159
G1 X178.43 Y175.56 E204.17099
G1 X174.98 Y177.28 E204.41176
G1 X173.98 Y178.28 E204.49987
G1 X173.58 Y178.48 E204.52776
G1 X172.78 Y179.28 E204.59832
G1 X166.44 Y182.45 E205.04014
G1 X161.67 Y184.04 E205.35358
G1 X160.35 Y184.37 E205.43862
G1 X158.39 Y184.61 E205.56192
G1 X156.25 Y184.85 E205.69602
G1 X153.95 Y184.85 E205.83970
G1 X147.67 Y184.15 E206.23337
G1 X143.12 Y182.64 E206.53248
G1 X141.06 Y182.12 E206.66490
G1 X140.42 Y181.48 E206.72152
G1 X136.02 Y179.28 E207.02836
G1 X135.22 Y178.48 E207.09891
G1 X134.82 Y178.28 E207.12680
G1 X134.22 Y177.68 E207.17972
G1 X133.82 Y177.48 E207.20761
G1 X133.22 Y176.88 E207.26053
G1 X132.82 Y176.68 E207.28842
G1 X132.22 Y176.08 E207.34124
G1 X130.20 Y175.07 E207.48217
G1 X130.20 Y182.65 E207.95482
G1 X119.20 Y182.65 E208.64081
G1 X119.20 Y171.15 E209.35798
G1 X127.49 Y171.15 E209.87509
G1 X127.40 Y171.06 E209.88320
G1 X127.40 Y170.86 E209.89568
G1 X126.20 Y169.66 E210.00151
G1 X126.20 Y169.46 E210.01398
G1 X126.00 Y169.26 E210.03162
G1 X126.00 Y169.06 E210.04409
G1 X125.80 Y168.86 E210.06173
G1 X125.80 Y168.66 E210.07421
G1 X125.60 Y168.46 E210.09184
G1 X125.60 Y168.26 E210.10432
G1 X125.40 Y168.06 E210.12196
G1 X125.40 Y167.86 E210.13443
G1 X125.20 Y167.66 E210.15207
G1 X125.20 Y167.46 E210.16454
G1 X125.00 Y167.26 E210.18218
G1 X125.00 Y167.06 E210.19465
G1 X124.80 Y166.86 E210.21229
G1 X124.80 Y166.66 E210.22476
G1 X124.60 Y166.46 E210.24240
G1 X124.60 Y166.26 E210.25487
G1 X124.40 Y166.06 E210.27251
G1 X124.40 Y165.86 E210.28499
G1 X124.20 Y165.66 E210.30262
G1 X124.20 Y165.46 E210.31510
G1 X124.00 Y165.26 E210.33274
G1 X124.00 Y165.06 E210.34521
G1 X123.80 Y164.86 E210.36285
G1 X123.80 Y164.26 E210.40026
G1 X123.60 Y164.06 E210.41790
G1 X123.60 Y163.66 E210.44285
G1 X123.40 Y163.46 E210.46049
G1 X123.40 Y163.06 E210.48543
G1 X123.20 Y162.86 E210.50307
G1 X123.20 Y162.46 E210.52802
G1 X123.00 Y162.26 E210.54566
G1 X123.00 Y161.86 E210.57060
G1 X122.80 Y161.66 E210.58824
G1 X122.80 Y161.26 E210.61318
G1 X122.60 Y161.06 E210.63082
G1 X122.60 Y160.66 E210.65577
G1 X122.40 Y160.46 E210.67341
G1 X122.40 Y160.06 E210.69835
G1 X122.20 Y159.86 E210.71599
G1 X122.20 Y157.46 E210.86566
G1 X122.00 Y157.26 E210.88330
G1 X122.00 Y147.74 E211.47674
G1 X122.20 Y147.54 E211.49438
G1 X122.20 Y144.94 E211.65653
G1 X122.40 Y144.74 E211.67417
G1 X122.40 Y144.34 E211.69911
G1 X122.60 Y144.14 E211.71675
G1 X122.60 Y143.74 E211.74169
G1 X122.80 Y143.54 E211.75933
G1 X122.80 Y143.14 E211.78428
G1 X123.00 Y142.94 E211.80192
G1 X123.00 Y142.54 E211.82686
G1 X123.20 Y142.34 E211.84450
G1 X123.20 Y141.94 E211.86945
G1 X123.40 Y141.74 E211.88708
G1 X123.40 Y141.34 E211.91203
G1 X123.60 Y141.14 E211.92967
G1 X123.60 Y140.74 E211.95461
G1 X123.80 Y140.54 E211.97225
G1 X123.80 Y139.94 E212.00967
G1 X124.20 Y139.54 E212.04495
G1 X124.20 Y139.34 E212.05742
G1 X124.40 Y139.14 E212.07506
G1 X124.40 Y138.94 E212.08753
G1 X124.60 Y138.74 E212.10517
G1 X124.60 Y138.54 E212.11764
G1 X124.80 Y138.34 E212.13528
G1 X124.80 Y138.14 E212.14775
G1 X125.00 Y137.94 E212.16539
G1 X125.00 Y137.74 E212.17787
G1 X125.20 Y137.54 E212.19551
G1 X125.20 Y137.34 E212.20798
G1 X125.40 Y137.14 E212.22562
G1 X125.40 Y136.94 E212.23809
G1 X125.60 Y136.74 E212.25573
G1 X125.60 Y136.54 E212.26820
G1 X125.80 Y136.34 E212.28584
G1 X125.80 Y136.14 E212.29831
G1 X126.00 Y135.94 E212.31595
G1 X126.00 Y135.74 E212.32842
G1 X126.20 Y135.54 E212.34606
G1 X126.20 Y135.34 E212.35853
G1 X127.20 Y134.34 E212.44673
G1 X127.20 Y134.14 E212.45920
G1 X128.00 Y133.34 E212.52976
G1 X128.00 Y133.14 E212.54223
G1 X128.80 Y132.34 E212.61278
G1 X128.80 Y132.14 E212.62526
G1 X129.60 Y131.34 E212.69581
G1 X129.60 Y130.03 E212.77770
G1 X132.22 Y128.72 E212.96045
G0 F6000 X131.93 Y128.31
G1 F2700 X132.53 Y127.71 E213.01328
G1 X132.93 Y127.51 E213.04123
G1 X133.53 Y126.91 E213.09410
G1 X133.93 Y126.71 E213.12205
G1 X134.53 Y126.11 E213.17492
G1 X134.93 Y125.91 E213.20289
G1 X135.72 Y125.11 E213.27336
G1 X140.13 Y122.91 E213.58023
G1 X140.81 Y122.23 E213.64038
G1 X142.98 Y121.69 E213.77998
G1 X147.66 Y120.12 E214.08782
G1 X151.22 Y119.85 E214.31037
G1 X160.08 Y119.85 E214.86290
G1 X161.81 Y120.28 E214.97428
G1 X166.63 Y121.89 E215.29110
G1 X173.07 Y125.11 E215.74023
G1 X173.87 Y125.91 E215.81070
G1 X174.28 Y126.11 E215.83867
G1 X175.27 Y127.11 E215.92678
G1 X175.68 Y127.31 E215.95475
G1 X180.10 Y131.74 E216.34501
G1 X180.10 Y131.94 E216.35748
G1 X180.90 Y132.74 E216.42804
G1 X180.90 Y132.94 E216.44051
G1 X181.70 Y133.74 E216.51107
G1 X181.70 Y133.94 E216.52354
G1 X182.50 Y134.74 E216.59409
G1 X182.50 Y134.94 E216.60657
G1 X182.90 Y135.34 E216.64184
G1 X182.90 Y135.53 E216.65432
G1 X183.10 Y135.74 E216.67195
G1 X183.10 Y135.94 E216.68443
G1 X183.30 Y136.13 E216.70207
G1 X183.30 Y136.34 E216.71454
G1 X183.50 Y136.53 E216.73218
G1 X183.50 Y136.74 E216.74465
G1 X183.70 Y136.94 E216.76229
G1 X183.70 Y137.13 E216.77476
G1 X183.90 Y137.34 E216.79240
G1 X183.90 Y137.53 E216.80487
G1 X184.10 Y137.74 E216.82251
G1 X184.10 Y137.94 E216.83498
G1 X184.30 Y138.13 E216.85262
G1 X184.30 Y138.34 E216.86510
G1 X184.50 Y138.53 E216.88273
G1 X184.50 Y138.74 E216.89521
G1 X184.70 Y138.94 E216.91285
G1 X184.70 Y139.13 E216.92532
G1 X184.90 Y139.34 E216.94296
G1 X184.90 Y139.53 E216.95543
G1 X185.10 Y139.74 E216.97307
G1 X185.10 Y140.13 E216.99801
G1 X185.30 Y140.34 E217.01565
G1 X185.30 Y140.74 E217.04060
G1 X185.50 Y140.94 E217.05824
G1 X185.50 Y141.34 E217.08318
G1 X185.70 Y141.53 E217.10082
G1 X185.70 Y141.94 E217.12577
G1 X185.90 Y142.13 E217.14340
G1 X185.90 Y142.53 E217.16835
G1 X186.10 Y142.74 E217.18599
G1 X186.10 Y143.13 E217.21093
G1 X186.30 Y143.34 E217.22857
G1 X186.30 Y143.74 E217.25352
G1 X186.50 Y143.94 E217.27116
G1 X186.50 Y144.53 E217.30857
G1 X186.70 Y144.74 E217.32621
G1 X186.70 Y146.34 E217.42599
G1 X186.90 Y146.53 E217.44363
G1 X186.90 Y148.13 E217.54341
G1 X187.10 Y148.34 E217.56105
G1 X187.10 Y156.66 E218.08053
G1 X186.90 Y156.87 E218.09817
G1 X186.90 Y158.47 E218.19795
G1 X186.70 Y158.66 E218.21559
G1 X186.70 Y160.06 E218.30290
G1 X186.50 Y160.26 E218.32054
G1 X186.50 Y160.87 E218.35796
G1 X186.30 Y161.06 E218.37559
G1 X186.30 Y161.47 E218.40054
G1 X186.10 Y161.66 E218.41818
G1 X186.10 Y162.06 E218.44312
G1 X185.90 Y162.26 E218.46076
G1 X185.90 Y162.66 E218.48571
G1 X185.70 Y162.87 E218.50335
G1 X185.70 Y163.26 E218.52829
G1 X185.50 Y163.47 E218.54593
G1 X185.50 Y163.87 E218.57088
G1 X185.30 Y164.06 E218.58851
G1 X185.30 Y164.47 E218.61346
G1 X185.10 Y164.66 E218.63110
G1 X185.10 Y165.06 E218.65604
G1 X184.90 Y165.26 E218.67368
G1 X184.90 Y165.47 E218.68615
G1 X184.70 Y165.66 E218.70379
G1 X184.70 Y165.87 E218.71627
G1 X184.50 Y166.06 E218.73390
G1 X184.50 Y166.26 E218.74638
G1 X184.30 Y166.47 E218.76402
G1 X184.30 Y166.66 E218.77649
G1 X184.10 Y166.87 E218.79413
G1 X184.10 Y167.06 E218.80660
G1 X183.90 Y167.26 E218.82424
G1 X183.90 Y167.47 E218.83671
G1 X183.70 Y167.66 E218.85435
G1 X183.70 Y167.87 E218.86682
G1 X183.50 Y168.06 E218.88446
G1 X183.50 Y168.26 E218.89693
G1 X183.30 Y168.47 E218.91457
G1 X183.30 Y168.66 E218.92705
G1 X183.10 Y168.87 E218.94468
G1 X183.10 Y169.06 E218.95716
G1 X182.90 Y169.26 E218.97480
G1 X182.90 Y169.47 E218.98727
G1 X182.70 Y169.66 E219.00491
G1 X182.70 Y169.87 E219.01738
G1 X182.50 Y170.06 E219.03502
G1 X182.50 Y170.26 E219.04749
G1 X181.50 Y171.26 E219.13569
G1 X181.50 Y171.47 E219.14816
G1 X180.30 Y172.66 E219.25399
G1 X180.30 Y172.87 E219.26646
G1 X178.69 Y174.47 E219.40819
G1 X179.01 Y175.83 E219.49489
G1 X175.27 Y177.69 E219.75518
G1 X174.28 Y178.69 E219.84328
G1 X173.87 Y178.89 E219.87126
G1 X173.07 Y179.69 E219.94172
G1 X166.63 Y182.91 E220.39086
G1 X161.81 Y184.52 E220.70773
G1 X160.44 Y184.86 E220.79578
G1 X158.45 Y185.11 E220.92116
G1 X156.28 Y185.35 E221.05720
G1 X153.92 Y185.35 E221.20437
G1 X147.57 Y184.64 E221.60306
G1 X142.99 Y183.12 E221.90408
G1 X140.81 Y182.57 E222.04414
G1 X140.13 Y181.89 E222.10429
G1 X135.72 Y179.69 E222.41116
G1 X134.93 Y178.89 E222.48163
G1 X134.53 Y178.69 E222.50960
G1 X133.93 Y178.09 E222.56247
G1 X133.53 Y177.89 E222.59042
G1 X132.93 Y177.29 E222.64329
G1 X132.53 Y177.09 E222.67123
G1 X131.93 Y176.49 E222.72406
G1 X130.70 Y175.88 E222.80952
G1 X130.70 Y183.15 E223.26296
G1 X118.70 Y183.15 E224.01131
G1 X118.70 Y170.65 E224.79084
G1 X126.48 Y170.65 E225.27634
G1 X125.70 Y169.87 E225.34557
G1 X125.70 Y169.66 E225.35804
G1 X125.50 Y169.47 E225.37568
G1 X125.50 Y169.26 E225.38815
G1 X125.30 Y169.06 E225.40579
G1 X125.30 Y168.87 E225.41827
G1 X125.10 Y168.66 E225.43590
G1 X125.10 Y168.47 E225.44838
G1 X124.90 Y168.26 E225.46602
G1 X124.90 Y168.06 E225.47849
G1 X124.70 Y167.87 E225.49613
G1 X124.70 Y167.66 E225.50860
G1 X124.50 Y167.47 E225.52624
G1 X124.50 Y167.26 E225.53871
G1 X124.30 Y167.06 E225.55635
G1 X124.30 Y166.87 E225.56882
G1 X124.10 Y166.66 E225.58646
G1 X124.10 Y166.47 E225.59893
G1 X123.90 Y166.26 E225.61657
G1 X123.90 Y166.06 E225.62905
G1 X123.70 Y165.87 E225.64668
G1 X123.70 Y165.66 E225.65916
G1 X123.50 Y165.47 E225.67680
G1 X123.50 Y165.26 E225.68927
G1 X123.30 Y165.06 E225.70691
G1 X123.30 Y164.47 E225.74432
G1 X123.10 Y164.26 E225.76196
G1 X123.10 Y163.87 E225.78691
G1 X122.90 Y163.66 E225.80455
G1 X122.90 Y163.26 E225.82949
G1 X122.70 Y163.06 E225.84713
G1 X122.70 Y162.66 E225.87208
G1 X122.50 Y162.47 E225.88972
G1 X122.50 Y162.06 E225.91466
G1 X122.30 Y161.87 E225.93230
G1 X122.30 Y161.47 E225.95724
G1 X122.10 Y161.26 E225.97488
G1 X122.10 Y160.87 E225.99983
G1 X121.90 Y160.66 E226.01747
G1 X121.90 Y160.26 E226.04241
G1 X121.70 Y160.06 E226.06005
G1 X121.70 Y157.66 E226.20972
G1 X121.50 Y157.47 E226.22736
G1 X121.50 Y147.53 E226.84662
G1 X121.70 Y147.34 E226.86426
G1 X121.70 Y144.74 E227.02640
G1 X121.90 Y144.53 E227.04404
G1 X121.90 Y144.13 E227.06899
G1 X122.10 Y143.94 E227.08663
G1 X122.10 Y143.53 E227.11157
G1 X122.30 Y143.34 E227.12921
G1 X122.30 Y142.94 E227.15416
G1 X122.50 Y142.74 E227.17180
G1 X122.50 Y142.34 E227.19674
G1 X122.70 Y142.13 E227.21438
G1 X122.70 Y141.74 E227.23932
G1 X122.90 Y141.53 E227.25696
G1 X122.90 Y141.13 E227.28191
G1 X123.10 Y140.94 E227.29955
G1 X123.10 Y140.53 E227.32449
G1 X123.30 Y140.34 E227.34213
G1 X123.30 Y139.74 E227.37955
G1 X123.70 Y139.34 E227.41483
G1 X123.70 Y139.13 E227.42730
G1 X123.90 Y138.94 E227.44494
G1 X123.90 Y138.74 E227.45741
G1 X124.10 Y138.53 E227.47505
G1 X124.10 Y138.34 E227.48752
G1 X124.30 Y138.13 E227.50516
G1 X124.30 Y137.94 E227.51763
G1 X124.50 Y137.74 E227.53527
G1 X124.50 Y137.53 E227.54774
G1 X124.70 Y137.34 E227.56538
G1 X124.70 Y137.13 E227.57786
G1 X124.90 Y136.94 E227.59550
G1 X124.90 Y136.74 E227.60797
G1 X125.10 Y136.53 E227.62561
G1 X125.10 Y136.34 E227.63808
G1 X125.30 Y136.13 E227.65572
G1 X125.30 Y135.94 E227.66819
G1 X125.50 Y135.74 E227.68583
G1 X125.50 Y135.53 E227.69830
G1 X125.70 Y135.34 E227.71594
G1 X125.70 Y135.13 E227.72841
G1 X126.70 Y134.13 E227.81661
G1 X126.70 Y133.94 E227.82908
G1 X127.50 Y133.13 E227.89964
G1 X127.50 Y132.94 E227.91211
G1 X128.30 Y132.13 E227.98266
G1 X128.30 Y131.94 E227.99514
G1 X129.10 Y131.13 E228.06569
G1 X129.10 Y129.72 E228.15393
G1 X131.93 Y128.31 E228.35092
G0 F6000 X131.63 Y127.90
G1 F2700 X132.23 Y127.30 E228.40383
G1 X132.63 Y127.10 E228.43172
G1 X133.23 Y126.50 E228.48464
G1 X133.63 Y126.30 E228.51253
G1 X134.23 Y125.70 E228.56545
G1 X134.63 Y125.50 E228.59334
G1 X135.43 Y124.70 E228.66389
G1 X139.83 Y122.50 E228.97059
G1 X140.55 Y121.78 E229.03444
G1 X142.84 Y121.20 E229.18184
G1 X147.56 Y119.63 E229.49199
G1 X151.20 Y119.35 E229.71960
G1 X160.14 Y119.35 E230.27712
G1 X161.95 Y119.80 E230.39358
G1 X166.82 Y121.43 E230.71379
G1 X173.37 Y124.70 E231.17020
G1 X174.17 Y125.50 E231.24076
G1 X174.57 Y125.70 E231.26865
G1 X175.57 Y126.70 E231.35684
G1 X175.97 Y126.90 E231.38473
G1 X180.60 Y131.53 E231.79298
G1 X180.60 Y131.73 E231.80546
G1 X181.40 Y132.53 E231.87601
G1 X181.40 Y132.73 E231.88848
G1 X182.20 Y133.53 E231.95904
G1 X182.20 Y133.73 E231.97151
G1 X183.00 Y134.53 E232.04207
G1 X183.00 Y134.73 E232.05454
G1 X183.40 Y135.13 E232.08982
G1 X183.40 Y135.33 E232.10229
G1 X183.60 Y135.53 E232.11993
G1 X183.60 Y135.73 E232.13240
G1 X183.80 Y135.93 E232.15004
G1 X183.80 Y136.13 E232.16251
G1 X184.00 Y136.33 E232.18015
G1 X184.00 Y136.53 E232.19262
G1 X184.20 Y136.73 E232.21026
G1 X184.20 Y136.93 E232.22274
G1 X184.40 Y137.13 E232.24037
G1 X184.40 Y137.33 E232.25285
G1 X184.60 Y137.53 E232.27049
G1 X184.60 Y137.73 E232.28296
G1 X184.80 Y137.93 E232.30060
G1 X184.80 Y138.13 E232.31307
G1 X185.00 Y138.33 E232.33071
G1 X185.00 Y138.53 E232.34318
G1 X185.20 Y138.73 E232.36082
G1 X185.20 Y138.93 E232.37329
G1 X185.40 Y139.13 E232.39093
G1 X185.40 Y139.33 E232.40340
G1 X185.60 Y139.53 E232.42104
G1 X185.60 Y139.93 E232.44599
G1 X185.80 Y140.13 E232.46363
G1 X185.80 Y140.53 E232.48857
G1 X186.00 Y140.73 E232.50621
G1 X186.00 Y141.13 E232.53116
G1 X186.20 Y141.33 E232.54879
G1 X186.20 Y141.73 E232.57374
G1 X186.40 Y141.93 E232.59138
G1 X186.40 Y142.33 E232.61632
G1 X186.60 Y142.53 E232.63396
G1 X186.60 Y142.93 E232.65891
G1 X186.80 Y143.13 E232.67655
G1 X186.80 Y143.53 E232.70149
G1 X187.00 Y143.73 E232.71913
G1 X187.00 Y144.33 E232.75655
G1 X187.20 Y144.53 E232.77419
G1 X187.20 Y146.13 E232.87397
G1 X187.40 Y146.33 E232.89161
G1 X187.40 Y147.93 E232.99139
G1 X187.60 Y148.13 E233.00903
G1 X187.60 Y156.87 E233.55433
G1 X187.40 Y157.07 E233.57196
G1 X187.40 Y158.67 E233.67174
G1 X187.20 Y158.87 E233.68938
G1 X187.20 Y160.27 E233.77669
G1 X187.00 Y160.47 E233.79433
G1 X187.00 Y161.07 E233.83175
G1 X186.80 Y161.27 E233.84939
G1 X186.80 Y161.67 E233.87433
G1 X186.60 Y161.87 E233.89197
G1 X186.60 Y162.27 E233.91692
G1 X186.40 Y162.47 E233.93455
G1 X186.40 Y162.87 E233.95950
G1 X186.20 Y163.07 E233.97714
G1 X186.20 Y163.47 E234.00208
G1 X186.00 Y163.67 E234.01972
G1 X186.00 Y164.07 E234.04467
G1 X185.80 Y164.27 E234.06231
G1 X185.80 Y164.67 E234.08725
G1 X185.60 Y164.87 E234.10489
G1 X185.60 Y165.27 E234.12984
G1 X185.40 Y165.47 E234.14747
G1 X185.40 Y165.67 E234.15995
G1 X185.20 Y165.87 E234.17759
G1 X185.20 Y166.07 E234.19006
G1 X185.00 Y166.27 E234.20770
G1 X185.00 Y166.47 E234.22017
G1 X184.80 Y166.67 E234.23781
G1 X184.80 Y166.87 E234.25028
G1 X184.60 Y167.07 E234.26792
G1 X184.60 Y167.27 E234.28039
G1 X184.40 Y167.47 E234.29803
G1 X184.40 Y167.67 E234.31050
G1 X184.20 Y167.87 E234.32814
G1 X184.20 Y168.07 E234.34062
G1 X184.00 Y168.27 E234.35825
G1 X184.00 Y168.47 E234.37073
G1 X183.80 Y168.67 E234.38837
G1 X183.80 Y168.87 E234.40084
G1 X183.60 Y169.07 E234.41848
G1 X183.60 Y169.27 E234.43095
G1 X183.40 Y169.47 E234.44859
G1 X183.40 Y169.67 E234.46106
G1 X183.20 Y169.87 E234.47870
G1 X183.20 Y170.07 E234.49117
G1 X183.00 Y170.27 E234.50881
G1 X183.00 Y170.47 E234.52128
G1 X182.00 Y171.47 E234.60948
G1 X182.00 Y171.67 E234.62195
G1 X180.80 Y172.87 E234.72778
G1 X180.80 Y173.07 E234.74026
G1 X179.24 Y174.63 E234.87757
G1 X179.59 Y176.10 E234.97157
