;-- START GCODE --
;Sliced for Type A Machines Series 1
;Sliced at: Sun 06-11-2016 20:39:38
;Basic settings: Layer height: 0.2 Walls: 1.4 Fill: 100
;Print Speed: 30 Support: 0
;Retraction Speed: 40 Retraction Distance: 1.2
;Print time: #P_TIME#
;Filament used: #F_AMNT#m #F_WGHT#g
;Filament cost: #F_COST#
M106 S255	 ;start with the fan on
G21        ;metric values
G90        ;absolute positioning
M106 S255    ;start with the fan on
G28     ;move to endstops
G29		;allows for auto-levelling
G1 X150 Y5  Z15.0 F12000 ;center and move the platform down 15mm
M109 S220 ;Heat To temp
G92 E0                  ;zero the extruded length
G1 F200 E30              ;extrude 30mm of feed stock
G92 E0                  ;zero the extruded length again
G1 X175 Y25  Z0 F12000 ;remove bugger
G1 X220 F12000 ;remove bugger
G1 X150 Y150  Z15 F12000 ;recenter and begin
G1 F12000

;Layer count: 25
;LAYER:0
M106 S255
G0 F12000 X127.92 Y132.42 Z0.30
;TYPE:SKIRT
G1 F1800 X177.08 Y132.42 E2.85693
G1 X177.08 Y172.58 E5.19077
G1 X127.92 Y172.58 E8.04770
G1 X127.92 Y132.42 E10.38153
G0 F12000 X128.39 Y132.89
G1 F1800 X176.61 Y132.89 E13.18430
G1 X176.61 Y172.11 E15.46396
G1 X128.39 Y172.11 E18.26673
G1 X128.39 Y132.89 E20.54639
G0 F12000 X128.85 Y133.35
G1 F1800 X176.15 Y133.35 E23.29498
G1 X176.15 Y171.65 E25.52048
G1 X128.85 Y171.65 E28.26907
G1 X128.85 Y133.35 E30.49457
G0 F12000 X129.32 Y133.82
G1 F1800 X175.68 Y133.82 E33.18899
G1 X175.68 Y171.18 E35.36031
G1 X129.32 Y171.18 E38.05474
G1 X129.32 Y133.82 E40.22606
G0 F12000 X129.79 Y134.29
G1 F1800 X175.21 Y134.29 E42.86632
G1 X175.21 Y170.71 E44.98347
G1 X129.79 Y170.71 E47.62373
G1 X129.79 Y134.29 E49.74088
G0 F12000 X130.25 Y134.75
G1 F1800 X174.75 Y134.75 E52.32697
G1 X174.75 Y170.25 E54.38995
G1 X130.25 Y170.25 E56.97603
G1 X130.25 Y134.75 E59.03902
G0 F12000 X130.72 Y135.22
G1 F1800 X174.28 Y135.22 E61.57093
G1 X174.28 Y169.78 E63.57975
G1 X130.72 Y169.78 E66.11166
G1 X130.72 Y135.22 E68.12048
G0 F12000 X131.19 Y135.69
G1 F1800 X173.81 Y135.69 E70.59822
G1 X173.81 Y169.31 E72.55287
G1 X131.19 Y169.31 E75.03061
G1 X131.19 Y135.69 E76.98526
G0 F12000 X131.65 Y136.15
G1 F1800 X173.35 Y136.15 E79.40884
G1 X173.35 Y168.85 E81.30931
G1 X131.65 Y168.85 E83.73289
G1 X131.65 Y136.15 E85.63336
G0 F12000 X132.12 Y136.62
G1 F1800 X172.88 Y136.62 E88.00277
G1 X172.88 Y168.38 E89.84907
G1 X132.12 Y168.38 E92.21848
G1 X132.12 Y136.62 E94.06478
G0 F12000 X132.58 Y137.08
G1 F1800 X172.42 Y137.08 E96.38002
G1 X172.42 Y167.92 E98.17216
G1 X132.58 Y167.92 E100.48739
G1 X132.58 Y137.08 E102.27953
G0 F12000 X133.05 Y137.55
G1 F1800 X171.95 Y137.55 E104.54059
G1 X171.95 Y167.45 E106.27856
G1 X133.05 Y167.45 E108.53962
G1 X133.05 Y137.55 E110.27759
G0 F12000 X133.51 Y138.01
G1 F1800 X171.49 Y138.01 E112.48449
G1 X171.49 Y166.99 E114.16828
G1 X133.51 Y166.99 E116.37518
G1 X133.51 Y138.01 E118.05898
G0 F12000 X133.98 Y138.48
G1 F1800 X171.02 Y138.48 E120.21170
G1 X171.02 Y166.52 E121.84133
G1 X133.98 Y166.52 E123.99405
G1 X133.98 Y138.48 E125.62368
G0 F12000 X134.45 Y138.95
G1 F1800 X170.55 Y138.95 E127.72224
G1 X170.55 Y166.05 E129.29770
G1 X134.45 Y166.05 E131.39625
G1 X134.45 Y138.95 E132.97171
G0 F12000 X134.91 Y139.41
G1 F1800 X170.09 Y139.41 E135.01609
G1 X170.09 Y165.59 E136.53738
G1 X134.91 Y165.59 E138.58177
G1 X134.91 Y139.41 E140.10306
G0 F12000 X135.38 Y139.88
G1 F1800 X169.62 Y139.88 E142.09327
G1 X169.62 Y165.12 E143.56039
G1 X135.38 Y165.12 E145.55061
G1 X135.38 Y139.88 E147.01772
G0 F12000 X135.84 Y140.34
G1 F1800 X169.16 Y140.34 E148.95377
G1 X169.16 Y164.66 E150.36672
G1 X135.84 Y164.66 E152.30277
G1 X135.84 Y140.34 E153.71571
G0 F12000 X136.31 Y140.81
G1 F1800 X168.69 Y140.81 E155.59759
G1 X168.69 Y164.19 E156.95637
G1 X136.31 Y164.19 E158.83825
G1 X136.31 Y140.81 E160.19702
G0 F12000 X136.78 Y141.28
G1 F1800 X168.22 Y141.28 E162.02473
G1 X168.22 Y163.72 E163.32934
G1 X136.78 Y163.72 E165.15705
G1 X136.78 Y141.28 E166.46165
G0 F12000 X137.24 Y141.74
G1 F1800 X167.76 Y141.74 E168.23519
G1 X167.76 Y163.26 E169.48563
G1 X137.24 Y163.26 E171.25917
G1 X137.24 Y141.74 E172.50961
G0 F12000 X137.71 Y142.21
G1 F1800 X167.29 Y142.21 E174.22897
G1 X167.29 Y162.79 E175.42524
G1 X137.71 Y162.79 E177.14461
G1 X137.71 Y142.21 E178.34088
G0 F12000 X138.18 Y142.68
G1 F1800 X166.82 Y142.68 E180.00608
G1 X166.82 Y162.32 E181.14818
G1 X138.18 Y162.32 E182.81337
G1 X138.18 Y142.68 E183.95547
G0 F12000 X138.64 Y143.14
G1 F1800 X166.36 Y143.14 E185.56650
G1 X166.36 Y161.86 E186.65443
G1 X138.64 Y161.86 E188.26546
G1 X138.64 Y143.14 E189.35339
G0 F12000 X139.11 Y143.61
G1 F1800 X165.89 Y143.61 E190.91024
G1 X165.89 Y161.39 E191.94400
G1 X139.11 Y161.39 E193.50086
G1 X139.11 Y143.61 E194.53462
G0 F12000 X139.57 Y144.07
G1 F1800 X165.43 Y144.07 E196.03731
G1 X165.43 Y160.93 E197.01690
G1 X139.57 Y160.93 E198.51959
G1 X139.57 Y144.07 E199.49918
G0 F12000 X140.04 Y144.54
G1 F1800 X164.96 Y144.54 E200.94770
G1 X164.96 Y160.46 E201.87312
G1 X140.04 Y160.46 E203.32164
G1 X140.04 Y144.54 E204.24705
G0 F12000 X140.50 Y145.00
G1 F1800 X164.50 Y145.00 E205.64140
G1 X164.50 Y160.00 E206.51265
G1 X140.50 Y160.00 E207.90700
G1 X140.50 Y145.00 E208.77825
G0 F12000 X140.97 Y145.47
G1 F1800 X164.03 Y145.47 E210.11843
G1 X164.03 Y159.53 E210.93551
G1 X140.97 Y159.53 E212.27569
G1 X140.97 Y145.47 E213.09277
G0 F12000 X141.44 Y145.94
G1 F1800 X163.56 Y145.94 E214.37878
G1 X163.56 Y159.06 E215.14169
G1 X141.44 Y159.06 E216.42770
G1 X141.44 Y145.94 E217.19061
G0 F12000 X141.90 Y146.40
G1 F1800 X163.10 Y146.40 E218.42245
G1 X163.10 Y158.60 E219.13119
G1 X141.90 Y158.60 E220.36303
G1 X141.90 Y146.40 E221.07177
G0 F12000 X142.37 Y146.87
G1 F1800 X162.63 Y146.87 E222.24944
G1 X162.63 Y158.13 E222.90401
G1 X142.37 Y158.13 E224.08168
G1 X142.37 Y146.87 E224.73625
G0 F12000 X142.84 Y147.34
G1 F1800 X162.16 Y147.34 E225.85975
G1 X162.16 Y157.66 E226.46015
G1 X142.84 Y157.66 E227.58365
G1 X142.84 Y147.34 E228.18405
G0 F12000 X143.30 Y147.80
G1 F1800 X161.70 Y147.80 E229.25338
G1 X161.70 Y157.20 E229.79962
G1 X143.30 Y157.20 E230.86895
G1 X143.30 Y147.80 E231.41518
G0 F12000 X143.77 Y148.27
G1 F1800 X161.23 Y148.27 E232.43034
G1 X161.23 Y156.73 E232.92240
G1 X143.77 Y156.73 E233.93756
G1 X143.77 Y148.27 E234.42962
G0 F12000 X146.12 Y150.13
G1 F1800 X146.12 Y154.87 E234.70477
G1 X158.88 Y154.87 E235.44618
G1 X158.88 Y150.13 E235.72133
G1 X146.12 Y150.13 E236.46273
G0 F12000 X146.59 Y150.60
G1 F1800 X146.59 Y154.40 E236.68371
G1 X158.41 Y154.40 E237.37095
G1 X158.41 Y150.60 E237.59193
G1 X146.59 Y150.60 E238.27916
G0 F12000 X147.05 Y151.06
G1 F1800 X147.05 Y153.94 E238.44597
G1 X157.95 Y153.94 E239.07904
G1 X157.95 Y151.06 E239.24585
G1 X147.05 Y151.06 E239.87892
G0 F12000 X147.05 Y149.33
G0 X145.19 Y149.20
;TYPE:WALL-INNER
G1 F1800 X145.19 Y155.80 E240.26241
G1 X159.81 Y155.80 E241.11215
G1 X159.81 Y149.20 E241.49564
G1 X145.19 Y149.20 E242.34538
G0 F12000 X144.70 Y149.20
G1 F1800 X160.30 Y149.20 E243.25221
G1 X160.30 Y155.80 E243.63593
G1 X144.70 Y155.80 E244.54275
G1 X144.70 Y149.20 E244.92647
G0 F12000 X144.23 Y148.73
;TYPE:WALL-OUTER
G1 F1800 X160.77 Y148.73 E245.88746
G1 X160.77 Y156.27 E246.32535
G1 X144.23 Y156.27 E247.28634
G1 X144.23 Y148.73 E247.72424
G0 F12000 X144.57 Y148.98
G0 X145.66 Y149.33
G0 X145.66 Y149.67
G1 F1800 X145.66 Y155.33 E248.05355
G1 X159.34 Y155.33 E248.84913
G1 X159.34 Y149.67 E249.17845
G1 X145.66 Y149.67 E249.97402
G0 F12000 X145.03 Y149.97
;TYPE:FILL
G1 F1800 X144.86 Y150.13 E249.98747
G1 X144.94 Y150.88 E250.00086
G1 X144.94 Y151.53 E250.01426
G1 X144.94 Y152.19 E250.02766
G1 X144.94 Y152.85 E250.04105
G1 X144.94 Y153.51 E250.05445
G1 X144.94 Y154.17 E250.06785
G1 X144.94 Y154.83 E250.08125
G1 X145.03 Y155.24 E250.10566
G0 F12000 X145.28 Y149.29
G0 X159.72 Y149.29
G0 X159.97 Y155.03
G1 F1800 X160.14 Y154.86 E250.11905
G1 X160.05 Y154.12 E250.13242
G1 X160.05 Y153.46 E250.14574
G1 X160.05 Y152.81 E250.15905
G1 X160.05 Y152.15 E250.17237
G1 X160.05 Y151.49 E250.18569
G1 X160.05 Y150.83 E250.19900
G1 X160.05 Y150.17 E250.21232
G1 X159.97 Y149.76 E250.23666
;LAYER:1
G0 F12000 X159.81 Y149.20 Z0.50
;TYPE:WALL-INNER
G1 F720 X145.19 Y149.20 E250.80316
G1 X145.19 Y155.80 E251.05882
G1 X159.81 Y155.80 E251.62532
G1 X159.81 Y149.20 E251.88098
G0 F12000 X160.30 Y149.20
G1 F720 X160.30 Y155.80 E252.13679
G1 X144.70 Y155.80 E252.74134
G1 X144.70 Y149.20 E252.99715
G1 X160.30 Y149.20 E253.60170
G0 F12000 X160.77 Y148.73
;TYPE:WALL-OUTER
G1 F720 X160.77 Y156.27 E253.89363
G1 X144.23 Y156.27 E254.53429
G1 X144.23 Y148.73 E254.82622
G1 X160.77 Y148.73 E255.46688
G0 F12000 X160.43 Y148.98
G0 X159.34 Y149.33
G0 X159.34 Y149.67
G1 F720 X145.66 Y149.67 E255.99726
G1 X145.66 Y155.33 E256.21681
G1 X159.34 Y155.33 E256.74719
G1 X159.34 Y149.67 E256.96674
G0 F12000 X159.97 Y149.44
;TYPE:FILL
G1 F720 X160.09 Y149.65 E256.97084
G1 X160.05 Y150.34 E256.97970
G1 X160.05 Y151.00 E256.98853
G1 X160.05 Y151.66 E256.99735
G1 X160.05 Y152.32 E257.00618
G1 X160.05 Y152.98 E257.01501
G1 X160.05 Y153.64 E257.02383
G1 X160.05 Y154.30 E257.03265
G1 X160.05 Y154.96 E257.04147
G1 X159.97 Y155.37 E257.05770
G0 F12000 X159.72 Y155.71
G0 X145.28 Y155.71
G0 X145.03 Y155.16
G1 F720 X144.86 Y154.99 E257.06659
G1 X144.94 Y154.25 E257.07544
G1 X144.94 Y153.59 E257.08427
G1 X144.94 Y152.93 E257.09309
G1 X144.94 Y152.27 E257.10191
G1 X144.94 Y151.62 E257.11073
G1 X144.94 Y150.96 E257.11956
G1 X144.94 Y150.30 E257.12838
G1 X145.03 Y149.89 E257.14457
;LAYER:2
G0 F12000 X145.19 Y149.20 Z0.70
;TYPE:WALL-INNER
G1 F720 X145.19 Y155.80 E257.40023
G1 X159.81 Y155.80 E257.96673
G1 X159.81 Y149.20 E258.22239
G1 X145.19 Y149.20 E258.78888
G0 F12000 X144.70 Y149.20
G1 F720 X160.30 Y149.20 E259.39343
G1 X160.30 Y155.80 E259.64925
G1 X144.70 Y155.80 E260.25379
G1 X144.70 Y149.20 E260.50961
G0 F12000 X144.23 Y148.73
;TYPE:WALL-OUTER
G1 F720 X160.77 Y148.73 E261.15027
G1 X160.77 Y156.27 E261.44220
G1 X144.23 Y156.27 E262.08286
G1 X144.23 Y148.73 E262.37478
G0 F12000 X144.57 Y148.98
G0 X145.66 Y149.33
G0 X145.66 Y149.67
G1 F720 X145.66 Y155.33 E262.59433
G1 X159.34 Y155.33 E263.12471
G1 X159.34 Y149.67 E263.34426
G1 X145.66 Y149.67 E263.87464
G0 F12000 X145.03 Y149.97
;TYPE:FILL
G1 F720 X144.86 Y150.13 E263.88361
G1 X144.94 Y150.88 E263.89253
G1 X144.94 Y151.53 E263.90147
G1 X144.94 Y152.19 E263.91040
G1 X144.94 Y152.85 E263.91933
G1 X144.94 Y153.51 E263.92826
G1 X144.94 Y154.17 E263.93719
G1 X144.94 Y154.83 E263.94613
G1 X145.03 Y155.24 E263.96240
G0 F12000 X145.28 Y149.29
G0 X159.72 Y149.29
G0 X159.97 Y155.03
G1 F720 X160.14 Y154.86 E263.97133
G1 X160.05 Y154.12 E263.98024
G1 X160.05 Y153.46 E263.98912
G1 X160.05 Y152.81 E263.99800
G1 X160.05 Y152.15 E264.00687
G1 X160.05 Y151.49 E264.01575
G1 X160.05 Y150.83 E264.02463
G1 X160.05 Y150.17 E264.03350
G1 X159.97 Y149.76 E264.04974
;LAYER:3
G0 F12000 X159.81 Y149.20 Z0.90
;TYPE:WALL-INNER
G1 F720 X145.19 Y149.20 E264.61623
G1 X145.19 Y155.80 E264.87189
G1 X159.81 Y155.80 E265.43839
G1 X159.81 Y149.20 E265.69405
G0 F12000 X160.30 Y149.20
G1 F720 X160.30 Y155.80 E265.94986
G1 X144.70 Y155.80 E266.55441
G1 X144.70 Y149.20 E266.81023
G1 X160.30 Y149.20 E267.41477
G0 F12000 X160.77 Y148.73
;TYPE:WALL-OUTER
G1 F720 X160.77 Y156.27 E267.70670
G1 X144.23 Y156.27 E268.34736
G1 X144.23 Y148.73 E268.63929
G1 X160.77 Y148.73 E269.27995
G0 F12000 X160.43 Y148.98
G0 X159.34 Y149.33
G0 X159.34 Y149.67
G1 F720 X145.66 Y149.67 E269.81033
G1 X145.66 Y155.33 E270.02988
G1 X159.34 Y155.33 E270.56026
G1 X159.34 Y149.67 E270.77981
G0 F12000 X159.97 Y149.44
;TYPE:FILL
G1 F720 X160.09 Y149.65 E270.78391
G1 X160.05 Y150.34 E270.79278
G1 X160.05 Y151.00 E270.80160
G1 X160.05 Y151.66 E270.81042
G1 X160.05 Y152.32 E270.81926
G1 X160.05 Y152.98 E270.82808
G1 X160.05 Y153.64 E270.83690
G1 X160.05 Y154.30 E270.84572
G1 X160.05 Y154.96 E270.85455
G1 X159.97 Y155.37 E270.87078
G0 F12000 X159.72 Y155.71
G0 X145.28 Y155.71
G0 X145.03 Y155.16
G1 F720 X144.86 Y154.99 E270.87967
G1 X144.94 Y154.25 E270.88852
G1 X144.94 Y153.59 E270.89734
G1 X144.94 Y152.93 E270.90616
G1 X144.94 Y152.27 E270.91498
G1 X144.94 Y151.62 E270.92381
G1 X144.94 Y150.96 E270.93263
G1 X144.94 Y150.30 E270.94145
G1 X145.03 Y149.89 E270.95764
;LAYER:4
G0 F12000 X145.19 Y149.20 Z1.10
;TYPE:WALL-INNER
G1 F720 X145.19 Y155.80 E271.21330
G1 X159.81 Y155.80 E271.77980
G1 X159.81 Y149.20 E272.03546
G1 X145.19 Y149.20 E272.60196
G0 F12000 X144.70 Y149.20
G1 F720 X160.30 Y149.20 E273.20650
G1 X160.30 Y155.80 E273.46232
G1 X144.70 Y155.80 E274.06687
G1 X144.70 Y149.20 E274.32268
G0 F12000 X144.23 Y148.73
;TYPE:WALL-OUTER
G1 F720 X160.77 Y148.73 E274.96334
G1 X160.77 Y156.27 E275.25527
G1 X144.23 Y156.27 E275.89593
G1 X144.23 Y148.73 E276.18786
G0 F12000 X144.57 Y148.98
G0 X145.66 Y149.33
G0 X145.66 Y149.67
G1 F720 X145.66 Y155.33 E276.40740
G1 X159.34 Y155.33 E276.93779
G1 X159.34 Y149.67 E277.15733
G1 X145.66 Y149.67 E277.68772
G0 F12000 X145.03 Y149.97
;TYPE:FILL
G1 F720 X144.86 Y150.13 E277.69668
G1 X144.94 Y150.88 E277.70561
G1 X144.94 Y151.53 E277.71454
G1 X144.94 Y152.19 E277.72347
G1 X144.94 Y152.85 E277.73240
G1 X144.94 Y153.51 E277.74133
G1 X144.94 Y154.17 E277.75027
G1 X144.94 Y154.83 E277.75920
G1 X145.03 Y155.24 E277.77548
G0 F12000 X145.28 Y149.29
G0 X159.72 Y149.29
G0 X159.97 Y155.03
G1 F720 X160.14 Y154.86 E277.78440
G1 X160.05 Y154.12 E277.79332
G1 X160.05 Y153.46 E277.80219
G1 X160.05 Y152.81 E277.81107
G1 X160.05 Y152.15 E277.81995
G1 X160.05 Y151.49 E277.82882
G1 X160.05 Y150.83 E277.83770
G1 X160.05 Y150.17 E277.84658
G1 X159.97 Y149.76 E277.86281
;LAYER:5
G0 F12000 X159.81 Y149.20 Z1.30
;TYPE:WALL-INNER
G1 F720 X145.19 Y149.20 E278.42931
G1 X145.19 Y155.80 E278.68497
G1 X159.81 Y155.80 E279.25146
G1 X159.81 Y149.20 E279.50712
G0 F12000 X160.30 Y149.20
G1 F720 X160.30 Y155.80 E279.76294
G1 X144.70 Y155.80 E280.36748
G1 X144.70 Y149.20 E280.62330
G1 X160.30 Y149.20 E281.22785
G0 F12000 X160.77 Y148.73
;TYPE:WALL-OUTER
G1 F720 X160.77 Y156.27 E281.51977
G1 X144.23 Y156.27 E282.16043
G1 X144.23 Y148.73 E282.45236
G1 X160.77 Y148.73 E283.09302
G0 F12000 X160.43 Y148.98
G0 X159.34 Y149.33
G0 X159.34 Y149.67
G1 F720 X145.66 Y149.67 E283.62341
G1 X145.66 Y155.33 E283.84295
G1 X159.34 Y155.33 E284.37334
G1 X159.34 Y149.67 E284.59288
G0 F12000 X159.97 Y149.44
;TYPE:FILL
G1 F720 X160.09 Y149.65 E284.59698
G1 X160.05 Y150.34 E284.60585
G1 X160.05 Y151.00 E284.61467
G1 X160.05 Y151.66 E284.62349
G1 X160.05 Y152.32 E284.63233
G1 X160.05 Y152.98 E284.64115
G1 X160.05 Y153.64 E284.64997
G1 X160.05 Y154.30 E284.65880
G1 X160.05 Y154.96 E284.66762
G1 X159.97 Y155.37 E284.68385
G0 F12000 X159.72 Y155.71
G0 X145.28 Y155.71
G0 X145.03 Y155.16
G1 F720 X144.86 Y154.99 E284.69274
G1 X144.94 Y154.25 E284.70159
G1 X144.94 Y153.59 E284.71041
G1 X144.94 Y152.93 E284.71923
G1 X144.94 Y152.27 E284.72806
G1 X144.94 Y151.62 E284.73688
G1 X144.94 Y150.96 E284.74570
G1 X144.94 Y150.30 E284.75452
G1 X145.03 Y149.89 E284.77072
;LAYER:6
G0 F12000 X145.19 Y149.20 Z1.50
;TYPE:WALL-INNER
G1 F720 X145.19 Y155.80 E285.02638
G1 X159.81 Y155.80 E285.59287
G1 X159.81 Y149.20 E285.84853
G1 X145.19 Y149.20 E286.41503
G0 F12000 X144.70 Y149.20
G1 F720 X160.30 Y149.20 E287.01958
G1 X160.30 Y155.80 E287.27539
G1 X144.70 Y155.80 E287.87994
G1 X144.70 Y149.20 E288.13575
G0 F12000 X144.23 Y148.73
;TYPE:WALL-OUTER
G1 F720 X160.77 Y148.73 E288.77641
G1 X160.77 Y156.27 E289.06834
G1 X144.23 Y156.27 E289.70900
G1 X144.23 Y148.73 E290.00093
G0 F12000 X144.57 Y148.98
G0 X145.66 Y149.33
G0 X145.66 Y149.67
G1 F720 X145.66 Y155.33 E290.22048
G1 X159.34 Y155.33 E290.75086
G1 X159.34 Y149.67 E290.97041
G1 X145.66 Y149.67 E291.50079
G0 F12000 X145.03 Y149.97
;TYPE:FILL
G1 F720 X144.86 Y150.13 E291.50975
G1 X144.94 Y150.88 E291.51868
G1 X144.94 Y151.53 E291.52761
G1 X144.94 Y152.19 E291.53654
G1 X144.94 Y152.85 E291.54547
G1 X144.94 Y153.51 E291.55441
G1 X144.94 Y154.17 E291.56334
G1 X144.94 Y154.83 E291.57227
G1 X145.03 Y155.24 E291.58855
G0 F12000 X145.28 Y149.29
G0 X159.72 Y149.29
G0 X159.97 Y155.03
G1 F720 X160.14 Y154.86 E291.59747
G1 X160.05 Y154.12 E291.60639
G1 X160.05 Y153.46 E291.61527
G1 X160.05 Y152.81 E291.62414
G1 X160.05 Y152.15 E291.63302
G1 X160.05 Y151.49 E291.64190
G1 X160.05 Y150.83 E291.65077
G1 X160.05 Y150.17 E291.65965
G1 X159.97 Y149.76 E291.67588
;LAYER:7
G0 F12000 X159.81 Y149.20 Z1.70
;TYPE:WALL-INNER
G1 F720 X145.19 Y149.20 E292.24238
G1 X145.19 Y155.80 E292.49804
G1 X159.81 Y155.80 E293.06453
G1 X159.81 Y149.20 E293.32019
G0 F12000 X160.30 Y149.20
G1 F720 X160.30 Y155.80 E293.57601
G1 X144.70 Y155.80 E294.18056
G1 X144.70 Y149.20 E294.43637
G1 X160.30 Y149.20 E295.04092
G0 F12000 X160.77 Y148.73
;TYPE:WALL-OUTER
G1 F720 X160.77 Y156.27 E295.33285
G1 X144.23 Y156.27 E295.97351
G1 X144.23 Y148.73 E296.26543
G1 X160.77 Y148.73 E296.90609
G0 F12000 X160.43 Y148.98
G0 X159.34 Y149.33
G0 X159.34 Y149.67
G1 F720 X145.66 Y149.67 E297.43648
G1 X145.66 Y155.33 E297.65602
G1 X159.34 Y155.33 E298.18641
G1 X159.34 Y149.67 E298.40595
G0 F12000 X159.97 Y149.44
;TYPE:FILL
G1 F720 X160.09 Y149.65 E298.41006
G1 X160.05 Y150.34 E298.41892
G1 X160.05 Y151.00 E298.42774
G1 X160.05 Y151.66 E298.43657
G1 X160.05 Y152.32 E298.44540
G1 X160.05 Y152.98 E298.45422
G1 X160.05 Y153.64 E298.46305
G1 X160.05 Y154.30 E298.47187
G1 X160.05 Y154.96 E298.48069
G1 X159.97 Y155.37 E298.49692
G0 F12000 X159.72 Y155.71
G0 X145.28 Y155.71
G0 X145.03 Y155.16
G1 F720 X144.86 Y154.99 E298.50581
G1 X144.94 Y154.25 E298.51466
G1 X144.94 Y153.59 E298.52348
G1 X144.94 Y152.93 E298.53231
G1 X144.94 Y152.27 E298.54113
G1 X144.94 Y151.62 E298.54995
G1 X144.94 Y150.96 E298.55877
G1 X144.94 Y150.30 E298.56759
G1 X145.03 Y149.89 E298.58379
;LAYER:8
G0 F12000 X145.19 Y149.20 Z1.90
;TYPE:WALL-INNER
G1 F720 X145.19 Y155.80 E298.83945
G1 X159.81 Y155.80 E299.40594
G1 X159.81 Y149.20 E299.66160
G1 X145.19 Y149.20 E300.22810
G0 F12000 X144.70 Y149.20
G1 F720 X160.30 Y149.20 E300.83265
G1 X160.30 Y155.80 E301.08846
G1 X144.70 Y155.80 E301.69301
G1 X144.70 Y149.20 E301.94882
G0 F12000 X144.23 Y148.73
;TYPE:WALL-OUTER
G1 F720 X160.77 Y148.73 E302.58949
G1 X160.77 Y156.27 E302.88141
G1 X144.23 Y156.27 E303.52207
G1 X144.23 Y148.73 E303.81400
G0 F12000 X144.57 Y148.98
G0 X145.66 Y149.33
G0 X145.66 Y149.67
G1 F720 X145.66 Y155.33 E304.03355
G1 X159.34 Y155.33 E304.56393
G1 X159.34 Y149.67 E304.78348
G1 X145.66 Y149.67 E305.31386
G0 F12000 X145.03 Y149.97
;TYPE:FILL
G1 F720 X144.86 Y150.13 E305.32283
G1 X144.94 Y150.88 E305.33175
G1 X144.94 Y151.53 E305.34068
G1 X144.94 Y152.19 E305.34962
G1 X144.94 Y152.85 E305.35855
G1 X144.94 Y153.51 E305.36748
G1 X144.94 Y154.17 E305.37641
G1 X144.94 Y154.83 E305.38534
G1 X145.03 Y155.24 E305.40162
G0 F12000 X145.28 Y149.29
G0 X159.72 Y149.29
G0 X159.97 Y155.03
G1 F720 X160.14 Y154.86 E305.41055
G1 X160.05 Y154.12 E305.41946
G1 X160.05 Y153.46 E305.42834
G1 X160.05 Y152.81 E305.43721
G1 X160.05 Y152.15 E305.44609
G1 X160.05 Y151.49 E305.45497
G1 X160.05 Y150.83 E305.46385
G1 X160.05 Y150.17 E305.47272
G1 X159.97 Y149.76 E305.48895
;LAYER:9
G0 F12000 X160.23 Y149.32 Z2.10
;TYPE:WALL-OUTER
G1 F540 X157.73 Y149.32 E305.58582
G1 X157.73 Y148.73 E305.60845
G1 X160.77 Y148.73 E305.72601
G1 X160.77 Y156.27 E306.01794
G1 X144.23 Y156.27 E306.65860
G1 X144.23 Y148.73 E306.95053
G1 X147.27 Y148.73 E307.06809
G1 X147.27 Y149.32 E307.09072
G1 X144.77 Y149.32 E307.18759
G1 X144.77 Y155.68 E307.43426
G1 X160.23 Y155.68 E308.03354
G1 X160.23 Y149.32 E308.28021
G0 F12000 X160.26 Y149.15
;TYPE:FILL
G1 F540 X160.56 Y149.18 E308.29427
G1 X160.50 Y149.90 E308.30547
G1 X160.50 Y150.56 E308.31670
G1 X160.50 Y151.22 E308.32790
G1 X160.50 Y151.88 E308.33908
G1 X160.50 Y152.54 E308.35026
G1 X160.50 Y153.20 E308.36143
G1 X160.50 Y153.85 E308.37261
G1 X160.50 Y154.51 E308.38379
G1 X160.50 Y155.17 E308.39497
G1 X160.28 Y155.72 E308.40616
G1 X159.70 Y155.97 E308.42018
G1 X159.04 Y155.97 E308.43421
G1 X158.38 Y155.97 E308.44824
G1 X157.72 Y155.97 E308.46227
G1 X157.06 Y155.97 E308.47629
G1 X156.40 Y155.97 E308.49032
G1 X155.74 Y155.97 E308.50435
G1 X155.08 Y155.97 E308.51838
G1 X154.43 Y155.97 E308.53240
G1 X153.77 Y155.97 E308.54643
G1 X153.11 Y155.97 E308.56046
G1 X152.45 Y155.97 E308.57449
G1 X151.79 Y155.97 E308.58852
G1 X151.13 Y155.97 E308.60254
G1 X150.47 Y155.97 E308.61657
G1 X149.81 Y155.97 E308.63060
G1 X149.15 Y155.97 E308.64463
G1 X148.49 Y155.97 E308.65865
G1 X147.83 Y155.97 E308.67270
G1 X147.18 Y155.97 E308.68668
G1 X146.52 Y155.97 E308.70065
G1 X145.86 Y155.97 E308.71462
G1 X145.20 Y155.97 E308.72860
G1 X144.57 Y155.94 E308.74263
G1 X144.50 Y155.35 E308.75379
G1 X144.50 Y154.70 E308.76497
G1 X144.50 Y154.04 E308.77615
G1 X144.50 Y153.38 E308.78733
G1 X144.50 Y152.72 E308.79851
G1 X144.50 Y152.06 E308.80968
G1 X144.50 Y151.40 E308.82086
G1 X144.50 Y150.74 E308.83204
G1 X144.50 Y150.08 E308.84322
G1 X144.50 Y149.42 E308.85440
G1 X144.90 Y149.02 E308.87086
G1 X145.56 Y149.02 E308.88483
G1 X146.22 Y149.02 E308.89881
G1 X146.68 Y148.90 E308.91723
G1 F2400 E307.71723
G0 F12000 X158.28 Y149.15
G1 F2400 E308.91723
G1 F540 X158.74 Y149.02 E308.93132
G1 X159.40 Y149.02 E308.94535
G1 X159.85 Y148.90 E308.96377
;LAYER:10
G0 F12000 X160.23 Y149.32 Z2.30
;TYPE:WALL-OUTER
G1 F540 X157.73 Y149.32 E309.06064
G1 X157.73 Y148.73 E309.08327
G1 X160.77 Y148.73 E309.20083
G1 X160.77 Y156.27 E309.49276
G1 X144.23 Y156.27 E310.13342
G1 X144.23 Y148.73 E310.42535
G1 X147.27 Y148.73 E310.54291
G1 X147.27 Y149.32 E310.56554
G1 X144.77 Y149.32 E310.66241
G1 X144.77 Y155.68 E310.90908
G1 X160.23 Y155.68 E311.50836
G1 X160.23 Y149.32 E311.75503
G0 F12000 X160.40 Y149.52
;TYPE:FILL
G1 F540 X160.50 Y149.95 E311.76632
G1 X160.50 Y150.61 E311.77760
G1 X160.50 Y151.27 E311.78889
G1 X160.50 Y151.93 E311.80018
G1 X160.50 Y152.59 E311.81147
G1 X160.50 Y153.25 E311.82276
G1 X160.50 Y153.91 E311.83404
G1 X160.50 Y154.57 E311.84533
G1 X160.50 Y155.23 E311.85662
G1 X160.49 Y155.88 E311.86793
G1 X159.93 Y155.97 E311.88189
G1 X159.27 Y155.97 E311.89580
G1 X158.61 Y155.97 E311.90972
G1 X157.95 Y155.97 E311.92364
G1 X157.29 Y155.97 E311.93756
G1 X156.63 Y155.97 E311.95148
G1 X155.97 Y155.97 E311.96539
G1 X155.31 Y155.97 E311.97931
G1 X154.66 Y155.97 E311.99323
G1 X154.00 Y155.97 E312.00715
G1 X153.34 Y155.97 E312.02107
G1 X152.68 Y155.97 E312.03499
G1 X152.02 Y155.97 E312.04890
G1 X151.36 Y155.97 E312.06282
G1 X150.70 Y155.97 E312.07674
G1 X150.04 Y155.97 E312.09066
G1 X149.38 Y155.97 E312.10458
G1 X148.72 Y155.97 E312.11849
G1 X148.07 Y155.97 E312.13241
G1 X147.41 Y155.97 E312.14633
G1 X146.75 Y155.97 E312.16025
G1 X146.09 Y155.97 E312.17417
G1 X145.43 Y155.97 E312.18809
G1 X144.77 Y155.97 E312.20200
G1 X144.50 Y155.70 E312.21145
G1 X144.50 Y155.04 E312.22274
G1 X144.50 Y154.38 E312.23403
G1 X144.50 Y153.73 E312.24532
G1 X144.50 Y153.07 E312.25661
G1 X144.50 Y152.41 E312.26789
G1 X144.50 Y151.75 E312.27918
G1 X144.50 Y151.09 E312.29047
G1 X144.50 Y150.43 E312.30176
G1 X144.50 Y149.77 E312.31305
G1 X144.50 Y149.12 E312.32432
G1 X145.07 Y149.02 E312.33832
G1 X145.73 Y149.02 E312.35229
G1 X146.39 Y149.02 E312.36626
G1 X146.84 Y149.15 E312.38469
G1 F2400 E311.18469
G0 F12000 X157.90 Y149.00
G1 F2400 E312.38469
G1 F540 X158.25 Y149.02 E312.39307
G1 X158.91 Y149.02 E312.40698
G1 X159.57 Y149.02 E312.42090
G1 X160.23 Y149.02 E312.43482
G1 X160.60 Y149.07 E312.44942
;LAYER:11
G0 F12000 X160.77 Y148.73 Z2.50
;TYPE:WALL-OUTER
G1 F540 X160.77 Y156.27 E312.74134
G1 X144.23 Y156.27 E313.38200
G1 X144.23 Y148.73 E313.67393
G1 X147.27 Y148.73 E313.79149
G1 X147.27 Y149.32 E313.81412
G1 X144.77 Y149.32 E313.91099
G1 X144.77 Y155.68 E314.15766
G1 X160.23 Y155.68 E314.75694
G1 X160.23 Y149.32 E315.00361
G1 X157.73 Y149.32 E315.10048
G1 X157.73 Y148.73 E315.12311
G1 X160.77 Y148.73 E315.24067
G0 F12000 X160.51 Y148.90
;TYPE:FILL
G1 F540 X160.43 Y149.31 E315.25473
G1 X160.50 Y149.90 E315.26589
G1 X160.50 Y150.56 E315.27712
G1 X160.50 Y151.22 E315.28832
G1 X160.50 Y151.88 E315.29950
G1 X160.50 Y152.54 E315.31068
G1 X160.50 Y153.20 E315.32185
G1 X160.50 Y153.85 E315.33303
G1 X160.50 Y154.51 E315.34421
G1 X160.50 Y155.17 E315.35539
G1 X160.28 Y155.72 E315.36658
G1 X159.70 Y155.97 E315.38060
G1 X159.04 Y155.97 E315.39463
G1 X158.38 Y155.97 E315.40866
G1 X157.72 Y155.97 E315.42269
G1 X157.06 Y155.97 E315.43671
G1 X156.40 Y155.97 E315.45074
G1 X155.74 Y155.97 E315.46477
G1 X155.08 Y155.97 E315.47880
G1 X154.43 Y155.97 E315.49282
G1 X153.77 Y155.97 E315.50685
G1 X153.11 Y155.97 E315.52088
G1 X152.45 Y155.97 E315.53491
G1 X151.79 Y155.97 E315.54894
G1 X151.13 Y155.97 E315.56296
G1 X150.47 Y155.97 E315.57699
G1 X149.81 Y155.97 E315.59102
G1 X149.15 Y155.97 E315.60505
G1 X148.49 Y155.97 E315.61907
G1 X147.83 Y155.97 E315.63312
G1 X147.18 Y155.97 E315.64710
G1 X146.52 Y155.97 E315.66107
G1 X145.86 Y155.97 E315.67504
G1 X145.20 Y155.97 E315.68902
G1 X144.57 Y155.94 E315.70305
G1 X144.50 Y155.35 E315.71421
G1 X144.50 Y154.70 E315.72539
G1 X144.50 Y154.04 E315.73657
G1 X144.50 Y153.38 E315.74775
G1 X144.50 Y152.72 E315.75893
G1 X144.50 Y152.06 E315.77010
G1 X144.50 Y151.40 E315.78128
G1 X144.50 Y150.74 E315.79246
G1 X144.50 Y150.08 E315.80364
G1 X144.50 Y149.42 E315.81482
G1 X144.90 Y149.02 E315.83128
G1 X145.56 Y149.02 E315.84525
G1 X146.22 Y149.02 E315.85923
G1 X146.68 Y148.90 E315.87765
G1 F2400 E314.67765
G0 F12000 X158.28 Y149.15
G1 F2400 E315.87765
G1 F540 X158.74 Y149.02 E315.89174
G1 X159.40 Y149.02 E315.90577
G1 X159.85 Y148.90 E315.92419
;LAYER:12
G0 F12000 X160.23 Y149.32 Z2.70
;TYPE:WALL-OUTER
G1 F540 X157.73 Y149.32 E316.02106
G1 X157.73 Y148.73 E316.04369
G1 X160.77 Y148.73 E316.16125
G1 X160.77 Y156.27 E316.45318
G1 X144.23 Y156.27 E317.09384
G1 X144.23 Y148.73 E317.38577
G1 X147.27 Y148.73 E317.50333
G1 X147.27 Y149.32 E317.52596
G1 X144.77 Y149.32 E317.62283
G1 X144.77 Y155.68 E317.86950
G1 X160.23 Y155.68 E318.46878
G1 X160.23 Y149.32 E318.71545
G0 F12000 X160.40 Y149.52
;TYPE:FILL
G1 F540 X160.50 Y149.95 E318.72674
G1 X160.50 Y150.61 E318.73802
G1 X160.50 Y151.27 E318.74931
G1 X160.50 Y151.93 E318.76060
G1 X160.50 Y152.59 E318.77189
G1 X160.50 Y153.25 E318.78318
G1 X160.50 Y153.91 E318.79446
G1 X160.50 Y154.57 E318.80575
G1 X160.50 Y155.23 E318.81704
G1 X160.49 Y155.88 E318.82835
G1 X159.93 Y155.97 E318.84231
G1 X159.27 Y155.97 E318.85622
G1 X158.61 Y155.97 E318.87014
G1 X157.95 Y155.97 E318.88406
G1 X157.29 Y155.97 E318.89798
G1 X156.63 Y155.97 E318.91190
G1 X155.97 Y155.97 E318.92581
G1 X155.31 Y155.97 E318.93973
G1 X154.66 Y155.97 E318.95365
G1 X154.00 Y155.97 E318.96757
G1 X153.34 Y155.97 E318.98149
G1 X152.68 Y155.97 E318.99541
G1 X152.02 Y155.97 E319.00932
G1 X151.36 Y155.97 E319.02324
G1 X150.70 Y155.97 E319.03716
G1 X150.04 Y155.97 E319.05108
G1 X149.38 Y155.97 E319.06500
G1 X148.72 Y155.97 E319.07892
G1 X148.07 Y155.97 E319.09283
G1 X147.41 Y155.97 E319.10675
G1 X146.75 Y155.97 E319.12067
G1 X146.09 Y155.97 E319.13459
G1 X145.43 Y155.97 E319.14851
G1 X144.77 Y155.97 E319.16242
G1 X144.50 Y155.70 E319.17187
G1 X144.50 Y155.04 E319.18316
G1 X144.50 Y154.38 E319.19445
G1 X144.50 Y153.73 E319.20574
G1 X144.50 Y153.07 E319.21703
G1 X144.50 Y152.41 E319.22831
G1 X144.50 Y151.75 E319.23960
G1 X144.50 Y151.09 E319.25089
G1 X144.50 Y150.43 E319.26218
G1 X144.50 Y149.77 E319.27347
G1 X144.50 Y149.12 E319.28474
G1 X145.07 Y149.02 E319.29874
G1 X145.73 Y149.02 E319.31271
G1 X146.39 Y149.02 E319.32668
G1 X146.84 Y149.15 E319.34511
G1 F2400 E318.14511
G0 F12000 X157.90 Y149.00
G1 F2400 E319.34511
G1 F540 X158.25 Y149.02 E319.35349
G1 X158.91 Y149.02 E319.36740
G1 X159.57 Y149.02 E319.38132
G1 X160.23 Y149.02 E319.39524
G1 X160.60 Y149.07 E319.40984
;LAYER:13
G0 F12000 X160.77 Y148.73 Z2.90
;TYPE:WALL-OUTER
G1 F540 X160.77 Y156.27 E319.70176
G1 X144.23 Y156.27 E320.34242
G1 X144.23 Y148.73 E320.63435
G1 X147.27 Y148.73 E320.75191
G1 X147.27 Y149.32 E320.77454
G1 X144.77 Y149.32 E320.87141
G1 X144.77 Y155.68 E321.11808
G1 X160.23 Y155.68 E321.71736
G1 X160.23 Y149.32 E321.96403
G1 X157.73 Y149.32 E322.06090
G1 X157.73 Y148.73 E322.08353
G1 X160.77 Y148.73 E322.20109
G0 F12000 X160.51 Y148.90
;TYPE:FILL
G1 F540 X160.43 Y149.31 E322.21515
G1 X160.50 Y149.90 E322.22631
G1 X160.50 Y150.56 E322.23754
G1 X160.50 Y151.22 E322.24874
G1 X160.50 Y151.88 E322.25992
G1 X160.50 Y152.54 E322.27110
G1 X160.50 Y153.20 E322.28228
G1 X160.50 Y153.85 E322.29345
G1 X160.50 Y154.51 E322.30463
G1 X160.50 Y155.17 E322.31581
G1 X160.28 Y155.72 E322.32700
G1 X159.70 Y155.97 E322.34102
G1 X159.04 Y155.97 E322.35505
G1 X158.38 Y155.97 E322.36908
G1 X157.72 Y155.97 E322.38311
G1 X157.06 Y155.97 E322.39713
G1 X156.40 Y155.97 E322.41116
G1 X155.74 Y155.97 E322.42519
G1 X155.08 Y155.97 E322.43922
G1 X154.43 Y155.97 E322.45325
G1 X153.77 Y155.97 E322.46727
G1 X153.11 Y155.97 E322.48130
G1 X152.45 Y155.97 E322.49533
G1 X151.79 Y155.97 E322.50936
G1 X151.13 Y155.97 E322.52338
G1 X150.47 Y155.97 E322.53741
G1 X149.81 Y155.97 E322.55144
G1 X149.15 Y155.97 E322.56547
G1 X148.49 Y155.97 E322.57950
G1 X147.83 Y155.97 E322.59354
G1 X147.18 Y155.97 E322.60752
G1 X146.52 Y155.97 E322.62149
G1 X145.86 Y155.97 E322.63546
G1 X145.20 Y155.97 E322.64944
G1 X144.57 Y155.94 E322.66347
G1 X144.50 Y155.35 E322.67463
G1 X144.50 Y154.70 E322.68581
G1 X144.50 Y154.04 E322.69699
G1 X144.50 Y153.38 E322.70817
G1 X144.50 Y152.72 E322.71935
G1 X144.50 Y152.06 E322.73052
G1 X144.50 Y151.40 E322.74170
G1 X144.50 Y150.74 E322.75288
G1 X144.50 Y150.08 E322.76406
G1 X144.50 Y149.42 E322.77524
G1 X144.90 Y149.02 E322.79170
G1 X145.56 Y149.02 E322.80567
G1 X146.22 Y149.02 E322.81965
G1 X146.68 Y148.90 E322.83807
G1 F2400 E321.63807
G0 F12000 X158.28 Y149.15
G1 F2400 E322.83807
G1 F540 X158.74 Y149.02 E322.85216
G1 X159.40 Y149.02 E322.86619
G1 X159.85 Y148.90 E322.88461
;LAYER:14
G0 F12000 X160.23 Y149.32 Z3.10
;TYPE:WALL-OUTER
G1 F540 X157.73 Y149.32 E322.98148
G1 X157.73 Y148.73 E323.00411
G1 X160.77 Y148.73 E323.12167
G1 X160.77 Y156.27 E323.41360
G1 X144.23 Y156.27 E324.05426
G1 X144.23 Y148.73 E324.34619
G1 X147.27 Y148.73 E324.46375
G1 X147.27 Y149.32 E324.48638
G1 X144.77 Y149.32 E324.58325
G1 X144.77 Y155.68 E324.82992
G1 X160.23 Y155.68 E325.42920
G1 X160.23 Y149.32 E325.67587
G0 F12000 X160.40 Y149.52
;TYPE:FILL
G1 F540 X160.50 Y149.95 E325.68716
G1 X160.50 Y150.61 E325.69844
G1 X160.50 Y151.27 E325.70973
G1 X160.50 Y151.93 E325.72102
G1 X160.50 Y152.59 E325.73231
G1 X160.50 Y153.25 E325.74360
G1 X160.50 Y153.91 E325.75488
G1 X160.50 Y154.57 E325.76617
G1 X160.50 Y155.23 E325.77746
G1 X160.49 Y155.88 E325.78877
G1 X159.93 Y155.97 E325.80273
G1 X159.27 Y155.97 E325.81664
G1 X158.61 Y155.97 E325.83056
G1 X157.95 Y155.97 E325.84448
G1 X157.29 Y155.97 E325.85840
G1 X156.63 Y155.97 E325.87232
G1 X155.97 Y155.97 E325.88624
G1 X155.31 Y155.97 E325.90015
G1 X154.66 Y155.97 E325.91407
G1 X154.00 Y155.97 E325.92799
G1 X153.34 Y155.97 E325.94191
G1 X152.68 Y155.97 E325.95583
G1 X152.02 Y155.97 E325.96974
G1 X151.36 Y155.97 E325.98366
G1 X150.70 Y155.97 E325.99758
G1 X150.04 Y155.97 E326.01150
G1 X149.38 Y155.97 E326.02542
G1 X148.72 Y155.97 E326.03934
G1 X148.07 Y155.97 E326.05325
G1 X147.41 Y155.97 E326.06717
G1 X146.75 Y155.97 E326.08109
G1 X146.09 Y155.97 E326.09501
G1 X145.43 Y155.97 E326.10893
G1 X144.77 Y155.97 E326.12284
G1 X144.50 Y155.70 E326.13229
G1 X144.50 Y155.04 E326.14358
G1 X144.50 Y154.38 E326.15487
G1 X144.50 Y153.73 E326.16616
G1 X144.50 Y153.07 E326.17745
G1 X144.50 Y152.41 E326.18873
G1 X144.50 Y151.75 E326.20002
G1 X144.50 Y151.09 E326.21131
G1 X144.50 Y150.43 E326.22260
G1 X144.50 Y149.77 E326.23389
G1 X144.50 Y149.12 E326.24516
G1 X145.07 Y149.02 E326.25916
G1 X145.73 Y149.02 E326.27313
G1 X146.39 Y149.02 E326.28710
G1 X146.84 Y149.15 E326.30553
G1 F2400 E325.10553
G0 F12000 X157.90 Y149.00
G1 F2400 E326.30553
G1 F540 X158.25 Y149.02 E326.31391
G1 X158.91 Y149.02 E326.32782
G1 X159.57 Y149.02 E326.34174
G1 X160.23 Y149.02 E326.35566
G1 X160.60 Y149.07 E326.37026
;LAYER:15
G0 F12000 X160.77 Y148.73 Z3.30
;TYPE:WALL-OUTER
G1 F540 X160.77 Y156.27 E326.66218
G1 X144.23 Y156.27 E327.30285
G1 X144.23 Y148.73 E327.59477
G1 X147.27 Y148.73 E327.71233
G1 X147.27 Y149.32 E327.73496
G1 X144.77 Y149.32 E327.83183
G1 X144.77 Y155.68 E328.07850
G1 X160.23 Y155.68 E328.67778
G1 X160.23 Y149.32 E328.92445
G1 X157.73 Y149.32 E329.02132
G1 X157.73 Y148.73 E329.04395
G1 X160.77 Y148.73 E329.16151
G0 F12000 X160.51 Y148.90
;TYPE:FILL
G1 F540 X160.43 Y149.31 E329.17557
G1 X160.50 Y149.90 E329.18673
G1 X160.50 Y150.56 E329.19796
G1 X160.50 Y151.22 E329.20916
G1 X160.50 Y151.88 E329.22034
G1 X160.50 Y152.54 E329.23152
G1 X160.50 Y153.20 E329.24270
G1 X160.50 Y153.85 E329.25387
G1 X160.50 Y154.51 E329.26505
G1 X160.50 Y155.17 E329.27623
G1 X160.28 Y155.72 E329.28742
G1 X159.70 Y155.97 E329.30144
G1 X159.04 Y155.97 E329.31547
G1 X158.38 Y155.97 E329.32950
G1 X157.72 Y155.97 E329.34353
G1 X157.06 Y155.97 E329.35755
G1 X156.40 Y155.97 E329.37158
G1 X155.74 Y155.97 E329.38561
G1 X155.08 Y155.97 E329.39964
G1 X154.43 Y155.97 E329.41367
G1 X153.77 Y155.97 E329.42769
G1 X153.11 Y155.97 E329.44172
G1 X152.45 Y155.97 E329.45575
G1 X151.79 Y155.97 E329.46978
G1 X151.13 Y155.97 E329.48380
G1 X150.47 Y155.97 E329.49783
G1 X149.81 Y155.97 E329.51186
G1 X149.15 Y155.97 E329.52589
G1 X148.49 Y155.97 E329.53992
G1 X147.83 Y155.97 E329.55396
G1 X147.18 Y155.97 E329.56794
G1 X146.52 Y155.97 E329.58191
G1 X145.86 Y155.97 E329.59588
G1 X145.20 Y155.97 E329.60986
G1 X144.57 Y155.94 E329.62389
G1 X144.50 Y155.35 E329.63505
G1 X144.50 Y154.70 E329.64623
G1 X144.50 Y154.04 E329.65741
G1 X144.50 Y153.38 E329.66859
G1 X144.50 Y152.72 E329.67977
G1 X144.50 Y152.06 E329.69095
G1 X144.50 Y151.40 E329.70212
G1 X144.50 Y150.74 E329.71330
G1 X144.50 Y150.08 E329.72448
G1 X144.50 Y149.42 E329.73566
G1 X144.90 Y149.02 E329.75212
G1 X145.56 Y149.02 E329.76609
G1 X146.22 Y149.02 E329.78007
G1 X146.68 Y148.90 E329.79849
G1 F2400 E328.59849
G0 F12000 X158.28 Y149.15
G1 F2400 E329.79849
G1 F540 X158.74 Y149.02 E329.81258
G1 X159.40 Y149.02 E329.82661
G1 X159.85 Y148.90 E329.84503
;LAYER:16
G0 F12000 X160.23 Y149.32 Z3.50
;TYPE:WALL-OUTER
G1 F540 X157.73 Y149.32 E329.94190
G1 X157.73 Y148.73 E329.96453
G1 X160.77 Y148.73 E330.08209
G1 X160.77 Y156.27 E330.37402
G1 X144.23 Y156.27 E331.01468
G1 X144.23 Y148.73 E331.30661
G1 X147.27 Y148.73 E331.42417
G1 X147.27 Y149.32 E331.44680
G1 X144.77 Y149.32 E331.54367
G1 X144.77 Y155.68 E331.79034
G1 X160.23 Y155.68 E332.38962
G1 X160.23 Y149.32 E332.63629
G0 F12000 X160.40 Y149.52
;TYPE:FILL
G1 F540 X160.50 Y149.95 E332.64758
G1 X160.50 Y150.61 E332.65886
G1 X160.50 Y151.27 E332.67015
G1 X160.50 Y151.93 E332.68144
G1 X160.50 Y152.59 E332.69273
G1 X160.50 Y153.25 E332.70402
G1 X160.50 Y153.91 E332.71530
G1 X160.50 Y154.57 E332.72659
G1 X160.50 Y155.23 E332.73788
G1 X160.49 Y155.88 E332.74919
G1 X159.93 Y155.97 E332.76315
G1 X159.27 Y155.97 E332.77706
G1 X158.61 Y155.97 E332.79098
G1 X157.95 Y155.97 E332.80490
G1 X157.29 Y155.97 E332.81882
G1 X156.63 Y155.97 E332.83274
G1 X155.97 Y155.97 E332.84666
G1 X155.31 Y155.97 E332.86057
G1 X154.66 Y155.97 E332.87449
G1 X154.00 Y155.97 E332.88841
G1 X153.34 Y155.97 E332.90233
G1 X152.68 Y155.97 E332.91625
G1 X152.02 Y155.97 E332.93016
G1 X151.36 Y155.97 E332.94408
G1 X150.70 Y155.97 E332.95800
G1 X150.04 Y155.97 E332.97192
G1 X149.38 Y155.97 E332.98584
G1 X148.72 Y155.97 E332.99976
G1 X148.07 Y155.97 E333.01367
G1 X147.41 Y155.97 E333.02759
G1 X146.75 Y155.97 E333.04151
G1 X146.09 Y155.97 E333.05543
G1 X145.43 Y155.97 E333.06935
G1 X144.77 Y155.97 E333.08327
G1 X144.50 Y155.70 E333.09272
G1 X144.50 Y155.04 E333.10400
G1 X144.50 Y154.38 E333.11529
G1 X144.50 Y153.73 E333.12658
G1 X144.50 Y153.07 E333.13787
G1 X144.50 Y152.41 E333.14916
G1 X144.50 Y151.75 E333.16044
G1 X144.50 Y151.09 E333.17173
G1 X144.50 Y150.43 E333.18302
G1 X144.50 Y149.77 E333.19431
G1 X144.50 Y149.12 E333.20558
G1 X145.07 Y149.02 E333.21958
G1 X145.73 Y149.02 E333.23355
G1 X146.39 Y149.02 E333.24753
G1 X146.84 Y149.15 E333.26595
G1 F2400 E332.06595
G0 F12000 X157.90 Y149.00
G1 F2400 E333.26595
G1 F540 X158.25 Y149.02 E333.27433
G1 X158.91 Y149.02 E333.28824
G1 X159.57 Y149.02 E333.30216
G1 X160.23 Y149.02 E333.31608
G1 X160.60 Y149.07 E333.33068
;LAYER:17
G0 F12000 X160.77 Y148.73 Z3.70
;TYPE:WALL-OUTER
G1 F540 X160.77 Y156.27 E333.62261
G1 X144.23 Y156.27 E334.26327
G1 X144.23 Y148.73 E334.55519
G1 X147.27 Y148.73 E334.67276
G1 X147.27 Y149.32 E334.69538
G1 X144.77 Y149.32 E334.79225
G1 X144.77 Y155.68 E335.03892
G1 X160.23 Y155.68 E335.63820
G1 X160.23 Y149.32 E335.88487
G1 X157.73 Y149.32 E335.98174
G1 X157.73 Y148.73 E336.00437
G1 X160.77 Y148.73 E336.12193
G0 F12000 X160.51 Y148.90
;TYPE:FILL
G1 F540 X160.43 Y149.31 E336.13599
G1 X160.50 Y149.90 E336.14715
G1 X160.50 Y150.56 E336.15839
G1 X160.50 Y151.22 E336.16958
G1 X160.50 Y151.88 E336.18076
G1 X160.50 Y152.54 E336.19194
G1 X160.50 Y153.20 E336.20312
G1 X160.50 Y153.85 E336.21429
G1 X160.50 Y154.51 E336.22547
G1 X160.50 Y155.17 E336.23665
G1 X160.28 Y155.72 E336.24784
G1 X159.70 Y155.97 E336.26186
G1 X159.04 Y155.97 E336.27589
G1 X158.38 Y155.97 E336.28992
G1 X157.72 Y155.97 E336.30395
G1 X157.06 Y155.97 E336.31797
G1 X156.40 Y155.97 E336.33200
G1 X155.74 Y155.97 E336.34603
G1 X155.08 Y155.97 E336.36006
G1 X154.43 Y155.97 E336.37409
G1 X153.77 Y155.97 E336.38811
G1 X153.11 Y155.97 E336.40214
G1 X152.45 Y155.97 E336.41617
G1 X151.79 Y155.97 E336.43020
G1 X151.13 Y155.97 E336.44422
G1 X150.47 Y155.97 E336.45825
G1 X149.81 Y155.97 E336.47228
G1 X149.15 Y155.97 E336.48631
G1 X148.49 Y155.97 E336.50034
G1 X147.83 Y155.97 E336.51439
G1 X147.18 Y155.97 E336.52836
G1 X146.52 Y155.97 E336.54233
G1 X145.86 Y155.97 E336.55630
G1 X145.20 Y155.97 E336.57028
G1 X144.57 Y155.94 E336.58431
G1 X144.50 Y155.35 E336.59547
G1 X144.50 Y154.70 E336.60665
G1 X144.50 Y154.04 E336.61783
G1 X144.50 Y153.38 E336.62901
G1 X144.50 Y152.72 E336.64019
G1 X144.50 Y152.06 E336.65137
G1 X144.50 Y151.40 E336.66254
G1 X144.50 Y150.74 E336.67372
G1 X144.50 Y150.08 E336.68490
G1 X144.50 Y149.42 E336.69608
G1 X144.90 Y149.02 E336.71254
G1 X145.56 Y149.02 E336.72652
G1 X146.22 Y149.02 E336.74049
G1 X146.68 Y148.90 E336.75891
G1 F2400 E335.55891
G0 F12000 X158.28 Y149.15
G1 F2400 E336.75891
G1 F540 X158.74 Y149.02 E336.77300
G1 X159.40 Y149.02 E336.78703
G1 X159.85 Y148.90 E336.80545
;LAYER:18
G0 F12000 X160.23 Y149.32 Z3.90
;TYPE:WALL-OUTER
G1 F540 X157.73 Y149.32 E336.90232
G1 X157.73 Y148.73 E336.92495
G1 X160.77 Y148.73 E337.04251
G1 X160.77 Y156.27 E337.33444
G1 X144.23 Y156.27 E337.97510
G1 X144.23 Y148.73 E338.26703
G1 X147.27 Y148.73 E338.38459
G1 X147.27 Y149.32 E338.40722
G1 X144.77 Y149.32 E338.50409
G1 X144.77 Y155.68 E338.75076
G1 X160.23 Y155.68 E339.35004
G1 X160.23 Y149.32 E339.59671
G0 F12000 X160.40 Y149.52
;TYPE:FILL
G1 F540 X160.50 Y149.95 E339.60800
G1 X160.50 Y150.61 E339.61929
G1 X160.50 Y151.27 E339.63057
G1 X160.50 Y151.93 E339.64186
G1 X160.50 Y152.59 E339.65315
G1 X160.50 Y153.25 E339.66444
G1 X160.50 Y153.91 E339.67573
G1 X160.50 Y154.57 E339.68701
G1 X160.50 Y155.23 E339.69830
G1 X160.49 Y155.88 E339.70961
G1 X159.93 Y155.97 E339.72357
G1 X159.27 Y155.97 E339.73748
G1 X158.61 Y155.97 E339.75140
G1 X157.95 Y155.97 E339.76532
G1 X157.29 Y155.97 E339.77924
G1 X156.63 Y155.97 E339.79316
G1 X155.97 Y155.97 E339.80708
G1 X155.31 Y155.97 E339.82099
G1 X154.66 Y155.97 E339.83491
G1 X154.00 Y155.97 E339.84883
G1 X153.34 Y155.97 E339.86275
G1 X152.68 Y155.97 E339.87667
G1 X152.02 Y155.97 E339.89059
G1 X151.36 Y155.97 E339.90450
G1 X150.70 Y155.97 E339.91842
G1 X150.04 Y155.97 E339.93234
G1 X149.38 Y155.97 E339.94626
G1 X148.72 Y155.97 E339.96018
G1 X148.07 Y155.97 E339.97409
G1 X147.41 Y155.97 E339.98801
G1 X146.75 Y155.97 E340.00193
G1 X146.09 Y155.97 E340.01585
G1 X145.43 Y155.97 E340.02977
G1 X144.77 Y155.97 E340.04369
G1 X144.50 Y155.70 E340.05314
G1 X144.50 Y155.04 E340.06442
G1 X144.50 Y154.38 E340.07571
G1 X144.50 Y153.73 E340.08700
G1 X144.50 Y153.07 E340.09829
G1 X144.50 Y152.41 E340.10958
G1 X144.50 Y151.75 E340.12086
G1 X144.50 Y151.09 E340.13215
G1 X144.50 Y150.43 E340.14344
G1 X144.50 Y149.77 E340.15473
G1 X144.50 Y149.12 E340.16600
G1 X145.07 Y149.02 E340.18000
G1 X145.73 Y149.02 E340.19397
G1 X146.39 Y149.02 E340.20795
G1 X146.84 Y149.15 E340.22637
G1 F2400 E339.02637
G0 F12000 X157.90 Y149.00
G1 F2400 E340.22637
G1 F540 X158.25 Y149.02 E340.23475
G1 X158.91 Y149.02 E340.24867
G1 X159.57 Y149.02 E340.26258
G1 X160.23 Y149.02 E340.27650
G1 X160.60 Y149.07 E340.29110
;LAYER:19
G0 F12000 X160.77 Y148.73 Z4.10
;TYPE:WALL-OUTER
G1 F540 X160.77 Y156.27 E340.58303
G1 X144.23 Y156.27 E341.22369
G1 X144.23 Y148.73 E341.51561
G1 X147.27 Y148.73 E341.63318
G1 X147.27 Y149.32 E341.65580
G1 X144.77 Y149.32 E341.75267
G1 X144.77 Y155.68 E341.99934
G1 X160.23 Y155.68 E342.59862
G1 X160.23 Y149.32 E342.84529
G1 X157.73 Y149.32 E342.94216
G1 X157.73 Y148.73 E342.96479
G1 X160.77 Y148.73 E343.08235
G0 F12000 X160.51 Y148.90
;TYPE:FILL
G1 F540 X160.43 Y149.31 E343.09641
G1 X160.50 Y149.90 E343.10757
G1 X160.50 Y150.56 E343.11881
G1 X160.50 Y151.22 E343.13000
G1 X160.50 Y151.88 E343.14118
G1 X160.50 Y152.54 E343.15236
G1 X160.50 Y153.20 E343.16354
G1 X160.50 Y153.85 E343.17471
G1 X160.50 Y154.51 E343.18589
G1 X160.50 Y155.17 E343.19707
G1 X160.28 Y155.72 E343.20826
G1 X159.70 Y155.97 E343.22228
G1 X159.04 Y155.97 E343.23631
G1 X158.38 Y155.97 E343.25034
G1 X157.72 Y155.97 E343.26437
G1 X157.06 Y155.97 E343.27839
G1 X156.40 Y155.97 E343.29242
G1 X155.74 Y155.97 E343.30645
G1 X155.08 Y155.97 E343.32048
G1 X154.43 Y155.97 E343.33451
G1 X153.77 Y155.97 E343.34853
G1 X153.11 Y155.97 E343.36256
G1 X152.45 Y155.97 E343.37659
G1 X151.79 Y155.97 E343.39062
G1 X151.13 Y155.97 E343.40465
G1 X150.47 Y155.97 E343.41867
G1 X149.81 Y155.97 E343.43270
G1 X149.15 Y155.97 E343.44673
G1 X148.49 Y155.97 E343.46076
G1 X147.83 Y155.97 E343.47481
G1 X147.18 Y155.97 E343.48878
G1 X146.52 Y155.97 E343.50275
G1 X145.86 Y155.97 E343.51672
G1 X145.20 Y155.97 E343.53070
G1 X144.57 Y155.94 E343.54473
G1 X144.50 Y155.35 E343.55589
G1 X144.50 Y154.70 E343.56707
G1 X144.50 Y154.04 E343.57825
G1 X144.50 Y153.38 E343.58943
G1 X144.50 Y152.72 E343.60061
G1 X144.50 Y152.06 E343.61179
G1 X144.50 Y151.40 E343.62296
G1 X144.50 Y150.74 E343.63414
G1 X144.50 Y150.08 E343.64532
G1 X144.50 Y149.42 E343.65650
G1 X144.90 Y149.02 E343.67296
G1 X145.56 Y149.02 E343.68694
G1 X146.22 Y149.02 E343.70091
G1 X146.68 Y148.90 E343.71934
G1 F2400 E342.51934
G0 F12000 X158.28 Y149.15
G1 F2400 E343.71934
G1 F540 X158.74 Y149.02 E343.73342
G1 X159.40 Y149.02 E343.74745
G1 X159.85 Y148.90 E343.76587
;LAYER:20
G0 F12000 X160.23 Y149.32 Z4.30
;TYPE:WALL-OUTER
G1 F540 X157.73 Y149.32 E343.86274
G1 X157.73 Y148.73 E343.88537
G1 X160.77 Y148.73 E344.00294
G1 X160.77 Y156.27 E344.29486
G1 X144.23 Y156.27 E344.93552
G1 X144.23 Y148.73 E345.22745
G1 X147.27 Y148.73 E345.34501
G1 X147.27 Y149.32 E345.36764
G1 X144.77 Y149.32 E345.46451
G1 X144.77 Y155.68 E345.71118
G1 X160.23 Y155.68 E346.31046
G1 X160.23 Y149.32 E346.55713
G0 F12000 X160.40 Y149.52
;TYPE:FILL
G1 F540 X160.50 Y149.95 E346.56842
G1 X160.50 Y150.61 E346.57971
G1 X160.50 Y151.27 E346.59099
G1 X160.50 Y151.93 E346.60228
G1 X160.50 Y152.59 E346.61357
G1 X160.50 Y153.25 E346.62486
G1 X160.50 Y153.91 E346.63615
G1 X160.50 Y154.57 E346.64743
G1 X160.50 Y155.23 E346.65872
G1 X160.49 Y155.88 E346.67003
G1 X159.93 Y155.97 E346.68399
G1 X159.27 Y155.97 E346.69791
G1 X158.61 Y155.97 E346.71182
G1 X157.95 Y155.97 E346.72574
G1 X157.29 Y155.97 E346.73966
G1 X156.63 Y155.97 E346.75358
G1 X155.97 Y155.97 E346.76750
G1 X155.31 Y155.97 E346.78141
G1 X154.66 Y155.97 E346.79533
G1 X154.00 Y155.97 E346.80925
G1 X153.34 Y155.97 E346.82317
G1 X152.68 Y155.97 E346.83709
G1 X152.02 Y155.97 E346.85101
G1 X151.36 Y155.97 E346.86492
G1 X150.70 Y155.97 E346.87884
G1 X150.04 Y155.97 E346.89276
G1 X149.38 Y155.97 E346.90668
G1 X148.72 Y155.97 E346.92060
G1 X148.07 Y155.97 E346.93451
G1 X147.41 Y155.97 E346.94843
G1 X146.75 Y155.97 E346.96235
G1 X146.09 Y155.97 E346.97627
G1 X145.43 Y155.97 E346.99019
G1 X144.77 Y155.97 E347.00411
G1 X144.50 Y155.70 E347.01356
G1 X144.50 Y155.04 E347.02484
G1 X144.50 Y154.38 E347.03613
G1 X144.50 Y153.73 E347.04742
G1 X144.50 Y153.07 E347.05871
G1 X144.50 Y152.41 E347.07000
G1 X144.50 Y151.75 E347.08128
G1 X144.50 Y151.09 E347.09257
G1 X144.50 Y150.43 E347.10386
G1 X144.50 Y149.77 E347.11515
G1 X144.50 Y149.12 E347.12642
G1 X145.07 Y149.02 E347.14042
G1 X145.73 Y149.02 E347.15439
G1 X146.39 Y149.02 E347.16837
G1 X146.84 Y149.15 E347.18679
G1 F2400 E345.98679
G0 F12000 X157.90 Y149.00
G1 F2400 E347.18679
G1 F540 X158.25 Y149.02 E347.19517
G1 X158.91 Y149.02 E347.20909
G1 X159.57 Y149.02 E347.22300
G1 X160.23 Y149.02 E347.23692
G1 X160.60 Y149.07 E347.25152
;LAYER:21
G0 F12000 X160.77 Y148.73 Z4.50
;TYPE:WALL-OUTER
G1 F540 X160.77 Y156.27 E347.54345
G1 X144.23 Y156.27 E348.18411
G1 X144.23 Y148.73 E348.47603
G1 X147.27 Y148.73 E348.59360
G1 X147.27 Y149.32 E348.61622
G1 X144.77 Y149.32 E348.71309
G1 X144.77 Y155.68 E348.95976
G1 X160.23 Y155.68 E349.55904
G1 X160.23 Y149.32 E349.80571
G1 X157.73 Y149.32 E349.90258
G1 X157.73 Y148.73 E349.92521
G1 X160.77 Y148.73 E350.04277
G0 F12000 X160.51 Y148.90
;TYPE:FILL
G1 F540 X160.43 Y149.31 E350.05683
G1 X160.50 Y149.90 E350.06799
G1 X160.50 Y150.56 E350.07923
G1 X160.50 Y151.22 E350.09042
G1 X160.50 Y151.88 E350.10160
G1 X160.50 Y152.54 E350.11278
G1 X160.50 Y153.20 E350.12396
G1 X160.50 Y153.85 E350.13514
G1 X160.50 Y154.51 E350.14631
G1 X160.50 Y155.17 E350.15749
G1 X160.28 Y155.72 E350.16868
G1 X159.70 Y155.97 E350.18270
G1 X159.04 Y155.97 E350.19673
G1 X158.38 Y155.97 E350.21076
G1 X157.72 Y155.97 E350.22479
G1 X157.06 Y155.97 E350.23882
G1 X156.40 Y155.97 E350.25284
G1 X155.74 Y155.97 E350.26687
G1 X155.08 Y155.97 E350.28090
G1 X154.43 Y155.97 E350.29493
G1 X153.77 Y155.97 E350.30895
G1 X153.11 Y155.97 E350.32298
G1 X152.45 Y155.97 E350.33701
G1 X151.79 Y155.97 E350.35104
G1 X151.13 Y155.97 E350.36507
G1 X150.47 Y155.97 E350.37909
G1 X149.81 Y155.97 E350.39312
G1 X149.15 Y155.97 E350.40715
G1 X148.49 Y155.97 E350.42118
G1 X147.83 Y155.97 E350.43523
G1 X147.18 Y155.97 E350.44920
G1 X146.52 Y155.97 E350.46317
G1 X145.86 Y155.97 E350.47714
G1 X145.20 Y155.97 E350.49112
G1 X144.57 Y155.94 E350.50515
G1 X144.50 Y155.35 E350.51631
G1 X144.50 Y154.70 E350.52749
G1 X144.50 Y154.04 E350.53867
G1 X144.50 Y153.38 E350.54985
G1 X144.50 Y152.72 E350.56103
G1 X144.50 Y152.06 E350.57221
G1 X144.50 Y151.40 E350.58338
G1 X144.50 Y150.74 E350.59456
G1 X144.50 Y150.08 E350.60574
G1 X144.50 Y149.42 E350.61692
G1 X144.90 Y149.02 E350.63338
G1 X145.56 Y149.02 E350.64736
G1 X146.22 Y149.02 E350.66133
G1 X146.68 Y148.90 E350.67976
G1 F2400 E349.47976
G0 F12000 X158.28 Y149.15
G1 F2400 E350.67976
G1 F540 X158.74 Y149.02 E350.69384
G1 X159.40 Y149.02 E350.70787
G1 X159.85 Y148.90 E350.72630
;LAYER:22
G0 F12000 X160.23 Y149.32 Z4.70
;TYPE:WALL-OUTER
G1 F540 X157.73 Y149.32 E350.82317
G1 X157.73 Y148.73 E350.84579
G1 X160.77 Y148.73 E350.96336
G1 X160.77 Y156.27 E351.25528
G1 X144.23 Y156.27 E351.89594
G1 X144.23 Y148.73 E352.18787
G1 X147.27 Y148.73 E352.30543
G1 X147.27 Y149.32 E352.32806
G1 X144.77 Y149.32 E352.42493
G1 X144.77 Y155.68 E352.67160
G1 X160.23 Y155.68 E353.27088
G1 X160.23 Y149.32 E353.51755
G0 F12000 X160.40 Y149.52
;TYPE:FILL
G1 F540 X160.50 Y149.95 E353.52884
G1 X160.50 Y150.61 E353.54013
G1 X160.50 Y151.27 E353.55141
G1 X160.50 Y151.93 E353.56270
G1 X160.50 Y152.59 E353.57399
G1 X160.50 Y153.25 E353.58528
G1 X160.50 Y153.91 E353.59657
G1 X160.50 Y154.57 E353.60785
G1 X160.50 Y155.23 E353.61914
G1 X160.49 Y155.88 E353.63045
G1 X159.93 Y155.97 E353.64441
G1 X159.27 Y155.97 E353.65833
G1 X158.61 Y155.97 E353.67224
G1 X157.95 Y155.97 E353.68616
G1 X157.29 Y155.97 E353.70008
G1 X156.63 Y155.97 E353.71400
G1 X155.97 Y155.97 E353.72792
G1 X155.31 Y155.97 E353.74183
G1 X154.66 Y155.97 E353.75575
G1 X154.00 Y155.97 E353.76967
G1 X153.34 Y155.97 E353.78359
G1 X152.68 Y155.97 E353.79751
G1 X152.02 Y155.97 E353.81143
G1 X151.36 Y155.97 E353.82534
G1 X150.70 Y155.97 E353.83926
G1 X150.04 Y155.97 E353.85318
G1 X149.38 Y155.97 E353.86710
G1 X148.72 Y155.97 E353.88102
G1 X148.07 Y155.97 E353.89494
G1 X147.41 Y155.97 E353.90885
G1 X146.75 Y155.97 E353.92277
G1 X146.09 Y155.97 E353.93669
G1 X145.43 Y155.97 E353.95061
G1 X144.77 Y155.97 E353.96453
G1 X144.50 Y155.70 E353.97398
G1 X144.50 Y155.04 E353.98526
G1 X144.50 Y154.38 E353.99655
G1 X144.50 Y153.73 E354.00784
G1 X144.50 Y153.07 E354.01913
G1 X144.50 Y152.41 E354.03042
G1 X144.50 Y151.75 E354.04170
G1 X144.50 Y151.09 E354.05299
G1 X144.50 Y150.43 E354.06428
G1 X144.50 Y149.77 E354.07557
G1 X144.50 Y149.12 E354.08684
G1 X145.07 Y149.02 E354.10084
G1 X145.73 Y149.02 E354.11481
G1 X146.39 Y149.02 E354.12879
G1 X146.84 Y149.15 E354.14721
G1 F2400 E352.94721
G0 F12000 X157.90 Y149.00
G1 F2400 E354.14721
G1 F540 X158.25 Y149.02 E354.15559
G1 X158.91 Y149.02 E354.16951
G1 X159.57 Y149.02 E354.18342
G1 X160.23 Y149.02 E354.19734
G1 X160.60 Y149.07 E354.21194
;LAYER:23
G0 F12000 X160.77 Y148.73 Z4.90
;TYPE:WALL-OUTER
G1 F540 X160.77 Y156.27 E354.50387
G1 X144.23 Y156.27 E355.14453
G1 X144.23 Y148.73 E355.43645
G1 X147.27 Y148.73 E355.55402
G1 X147.27 Y149.32 E355.57665
G1 X144.77 Y149.32 E355.67352
G1 X144.77 Y155.68 E355.92019
G1 X160.23 Y155.68 E356.51946
G1 X160.23 Y149.32 E356.76613
G1 X157.73 Y149.32 E356.86300
G1 X157.73 Y148.73 E356.88563
G1 X160.77 Y148.73 E357.00319
G0 F12000 X160.51 Y148.90
;TYPE:FILL
G1 F540 X160.43 Y149.31 E357.01725
G1 X160.50 Y149.90 E357.02841
G1 X160.50 Y150.56 E357.03965
G1 X160.50 Y151.22 E357.05084
G1 X160.50 Y151.88 E357.06202
G1 X160.50 Y152.54 E357.07320
G1 X160.50 Y153.20 E357.08438
G1 X160.50 Y153.85 E357.09556
G1 X160.50 Y154.51 E357.10673
G1 X160.50 Y155.17 E357.11791
G1 X160.28 Y155.72 E357.12910
G1 X159.70 Y155.97 E357.14312
G1 X159.04 Y155.97 E357.15715
G1 X158.38 Y155.97 E357.17118
G1 X157.72 Y155.97 E357.18521
G1 X157.06 Y155.97 E357.19924
G1 X156.40 Y155.97 E357.21326
G1 X155.74 Y155.97 E357.22729
G1 X155.08 Y155.97 E357.24132
G1 X154.43 Y155.97 E357.25535
G1 X153.77 Y155.97 E357.26937
G1 X153.11 Y155.97 E357.28340
G1 X152.45 Y155.97 E357.29743
G1 X151.79 Y155.97 E357.31146
G1 X151.13 Y155.97 E357.32549
G1 X150.47 Y155.97 E357.33951
G1 X149.81 Y155.97 E357.35354
G1 X149.15 Y155.97 E357.36757
G1 X148.49 Y155.97 E357.38160
G1 X147.83 Y155.97 E357.39565
G1 X147.18 Y155.97 E357.40962
G1 X146.52 Y155.97 E357.42359
G1 X145.86 Y155.97 E357.43757
G1 X145.20 Y155.97 E357.45154
G1 X144.57 Y155.94 E357.46557
G1 X144.50 Y155.35 E357.47673
G1 X144.50 Y154.70 E357.48791
G1 X144.50 Y154.04 E357.49909
G1 X144.50 Y153.38 E357.51027
G1 X144.50 Y152.72 E357.52145
G1 X144.50 Y152.06 E357.53263
G1 X144.50 Y151.40 E357.54381
G1 X144.50 Y150.74 E357.55498
G1 X144.50 Y150.08 E357.56616
G1 X144.50 Y149.42 E357.57734
G1 X144.90 Y149.02 E357.59380
G1 X145.56 Y149.02 E357.60778
G1 X146.22 Y149.02 E357.62175
G1 X146.68 Y148.90 E357.64018
G1 F2400 E356.44018
G0 F12000 X158.28 Y149.15
G1 F2400 E357.64018
G1 F540 X158.74 Y149.02 E357.65426
G1 X159.40 Y149.02 E357.66829
G1 X159.85 Y148.90 E357.68672
;LAYER:24
G0 F12000 X160.23 Y149.32 Z5.10
;TYPE:WALL-OUTER
G1 F540 X157.73 Y149.32 E357.78359
G1 X157.73 Y148.73 E357.80621
G1 X160.77 Y148.73 E357.92378
G1 X160.77 Y156.27 E358.21570
G1 X144.23 Y156.27 E358.85636
G1 X144.23 Y148.73 E359.14829
G1 X147.27 Y148.73 E359.26585
G1 X147.27 Y149.32 E359.28848
G1 X144.77 Y149.32 E359.38535
G1 X144.77 Y155.68 E359.63202
G1 X160.23 Y155.68 E360.23130
G1 X160.23 Y149.32 E360.47797
G0 F12000 X160.40 Y149.52
;TYPE:FILL
G1 F540 X160.50 Y149.95 E360.48926
G1 X160.50 Y150.61 E360.50055
G1 X160.50 Y151.27 E360.51183
G1 X160.50 Y151.93 E360.52312
G1 X160.50 Y152.59 E360.53441
G1 X160.50 Y153.25 E360.54570
G1 X160.50 Y153.91 E360.55699
G1 X160.50 Y154.57 E360.56827
G1 X160.50 Y155.23 E360.57956
G1 X160.49 Y155.88 E360.59087
G1 X159.93 Y155.97 E360.60483
G1 X159.27 Y155.97 E360.61875
G1 X158.61 Y155.97 E360.63266
G1 X157.95 Y155.97 E360.64658
G1 X157.29 Y155.97 E360.66050
G1 X156.63 Y155.97 E360.67442
G1 X155.97 Y155.97 E360.68834
G1 X155.31 Y155.97 E360.70226
G1 X154.66 Y155.97 E360.71617
G1 X154.00 Y155.97 E360.73009
G1 X153.34 Y155.97 E360.74401
G1 X152.68 Y155.97 E360.75793
G1 X152.02 Y155.97 E360.77185
G1 X151.36 Y155.97 E360.78576
G1 X150.70 Y155.97 E360.79968
G1 X150.04 Y155.97 E360.81360
G1 X149.38 Y155.97 E360.82752
G1 X148.72 Y155.97 E360.84144
G1 X148.07 Y155.97 E360.85536
G1 X147.41 Y155.97 E360.86927
G1 X146.75 Y155.97 E360.88319
G1 X146.09 Y155.97 E360.89711
G1 X145.43 Y155.97 E360.91103
G1 X144.77 Y155.97 E360.92495
G1 X144.50 Y155.70 E360.93440
G1 X144.50 Y155.04 E360.94568
G1 X144.50 Y154.38 E360.95697
G1 X144.50 Y153.73 E360.96826
G1 X144.50 Y153.07 E360.97955
G1 X144.50 Y152.41 E360.99084
G1 X144.50 Y151.75 E361.00212
G1 X144.50 Y151.09 E361.01341
G1 X144.50 Y150.43 E361.02470
G1 X144.50 Y149.77 E361.03599
G1 X144.50 Y149.12 E361.04726
G1 X145.07 Y149.02 E361.06126
G1 X145.73 Y149.02 E361.07523
G1 X146.39 Y149.02 E361.08921
G1 X146.84 Y149.15 E361.10763
G1 F2400 E359.90763
G0 F12000 X157.90 Y149.00
G1 F2400 E361.10763
G1 F540 X158.25 Y149.02 E361.11601
G1 X158.91 Y149.02 E361.12993
G1 X159.57 Y149.02 E361.14384
G1 X160.23 Y149.02 E361.15776
G1 X160.60 Y149.07 E361.17236
M107
G1 F2400 E359.97236
G0 F12000 X160.60 Y149.07 Z10.20
;-- END GCODE --
M104 S0     ;extruder heater off
M140 S0     ;heated bed heater off (if you have it)
G91         ;relative positioning
G1 E-1 F300   ;retract the filament a bit before lifting the nozzle, to release some of the pressure
G1 Z+0.5 E-5 X-20 Y-20 F12000 ;move Z up a bit and retract filament even more
G28 X0 Y0     ;move X/Y to min endstops, so the head is out of the way
M84           ;steppers off
G90           ;absolute positioning
;CURA_PROFILE_STRING:eNrtWk1v20gSvTLG/og+JthIS1LSOBmBh0lie7BIZhcjLSbxhWiRLak3JJtoNi3Lhv77vGp+iJLljDMxspOsdLDDYlV1VfWrV2VECV8LHS6FXCxN4PZ9Z8WTJDRLGX3MRFEEXn/oaGE0j4xUWSgyPktEMNWlcAqVyDhMrIOtgdt/4cwlfMQiK6RZB57rOpm6uUlEWMgbAYWhk2uZmbDIhYiDgVs/GpHmQnNTahH4/gGpHxwQDg4Jh61wJuIdx6euU5R5rrQJzq6EXq+WQgsnT7iZK52GPF6KAokGr7RMG80wLnkSimujy+qdMktnJXMRGrUSOjjnSSE6gvBKJWUqAm/kKHWDtJdSJHGthtrwVCCyWOK3gbnXPx3dFVOyd4SDQ8JhVzhP1IpK3ne711ZVergn5akqM4Pz/a7UJtu8+qE/6r5LZRbi4UoksNp5E6l0JrNFhYxdC5nuVA9B7Jy3VDnJnJkyRqU7SBo4Fl1uuJKxWYZzWChtAaVm/xURECSzj9ZY4S4TntvgIUDlqzDrzH23c0KF2LokI0dmFq7VM6nJrBDG3RdcdwSRUomtRQ1+SZc9dOa8aZC47pCPEuhJZCZQH1vPWrTgeTCAo+qpqVEisoVZAjZ0Bjmblwis7c1KVkVBNWifwpRfW0kb1xxSAB5R1cKl4GhVOTc1CqveNSh9p5Wr+lQSW5O6qgTkphXMOhfBW2RUtCKeLUAJg7axQmtrjx9thddrALYwPIuIAk5b+U1XTAflUvOEiKKOVKY5qCNVcSOZoTW7RR0AiHyOMnK9kFkwIpDTs1Upch4RLr1GOuOF2APZVk4mFms2RCsHiQgN5O0a+fsvu5b1Sy413TOea0FR1rqEmiLwUeRrwF9rCciEZWZ7ktgXNQ55cw/3q8xaSunqIA2ViyycSVMcUkAnEjNfoTZGmmhJ1anU8qREAVFVdMQiaHosEpRkeB30vD3RmkRRqTURD6Bi2/tvuExt+ouILmzc67HJ9Kdfp+zi9b/enLFe72Q8SWQkYga6ZVNkwX5i7zhFIQo2EVril9cqcfMju435ekM/jcAv6rXNyfgVL2TE0JYG4Rc/srdUUla1CkySzlTbsN9QMejc7o62DTsHTiHuTiu4/jfNDTahxsLLzqTasEmFWYhr9EL915bJWpt94t2wjtKbGu27ehXftqdTlu3hdcrnNcUz3HBchV1Rfm2bdkSrKvNFxypShela0fPm5J3n/sAm/mj0hI3txbGVNEtmloKBXpjKTi58j9WfMcaNRtmveFKK4uTipdu+4TNQSGkEyxXKiIxwLVvnVuU+9y9q3yAbZhQTWVyAl+Def/nkyRhXplaFRQsvjeolAqyekPcLj70HVbIPcH/poevZ+W2X9DdsXOGU8SxmlXuc24x6FqtVxrxRmlKcL9nk9s4WAQ8/C27YVDGSImGfnbU5bz/jG6GVdW6nXAzgVlROMZ5j9rCzwZ7ZuNZkAzdNmZozYmyGxKOPn38M4wsus6ogpyP2waeKHCiHFrYKs3KxENqqY816iJotM/2gQh8y6BR6JhZVLHtqDi62wwpnv7zZcgIuYMgm7k5lqJs5OVXzORSGbqtg5XRQ3FFhT+WcrVXJljiTSfMMZfS2pdMC1w7O28EngjzrIdCB61Y6th0rdDZtwxl4FGcBMoLRAIWh1ahW2ucEWTgXmB6sUKmgu7Qw06AYYIgOufy72x/hqBF730PBP/QOVd3W/JKVeX0k1bKJqI0G4M8AZXKLvnkPX26ne97/4wOFgwWg7aLnCMrGQwsAkwVTpWlCXPH1ybsXwy7CCiNyoL+wRe/0970tPkbXKIRHwwTts9g4ts395qb/iMfr96/W7HWp+cGhgMnddx80NpjvekN24bOKRH+mlJ/+s0zW9sWzrzA1vhpvj995uJ2Gs/b+yAGa/pNhIbf2AASPY2oN9AkYj9qmo8tocSF31IEHKfB+VwfdvGRT75An/0+5cr88qC8bYKfb1rg7vqhJtn14bxNapctup17eVfHuG2KfmlxTjx38jCcrWu3oFLL0wSUNrX7JFPPcw0PMe9QhVp3Vuz38N+nmZOo+KOm51IX5ltLevXhQCqjaYp9GTgru4QuMl4y9ff2GFZEWIgNAvdOK7aDT7/dpyLbce4Zbv3iNf1bzddpO0DvBHR65ZON9ps3w/kP+xNj+xOchE/1Txt/sqL8/qcfZAfacfmIj2NP8nP1g8ND94DixjxP7+5rY/v/jxD6uKcc1ZW9NGfwv1xSy8Y+rzXG1efzVZnhcbf5Sq43/eKvNcUv6alvS4EGzc4igv6OF4WGr4eD7Svq4Gh5Xw73VcPitrYZkMziuk8d18nHXyfobMt0vVLTC7f+mVl/w2VGyko6GFpixkehHxVXg4BIqmjmrcdkurBX5zIRZoTNt0vWXO1oOshdgLxqSVvqcrZYwaDvdLhNpmRiZJy1d6KJ/Mp4uUVQ6jYqL9cai3KKInE6fZs8c1MT8leLjc2rAJrzfAc26CaY=
;CURA_PROFILE_STRING:eNrtWk1v20gSvTLG/og+JthIS1LSOBmBh0lie7BIZhcjLSbxhWiRLak3JJtoNi3Lhv77vGp+iJLljDMxspOsdLDDYlV1VfWrV2VECV8LHS6FXCxN4PZ9Z8WTJDRLGX3MRFEEXn/oaGE0j4xUWSgyPktEMNWlcAqVyDhMrIOtgdt/4cwlfMQiK6RZB57rOpm6uUlEWMgbAYWhk2uZmbDIhYiDgVs/GpHmQnNTahH4/gGpHxwQDg4Jh61wJuIdx6euU5R5rrQJzq6EXq+WQgsnT7iZK52GPF6KAokGr7RMG80wLnkSimujy+qdMktnJXMRGrUSOjjnSSE6gvBKJWUqAm/kKHWDtJdSJHGthtrwVCCyWOK3gbnXPx3dFVOyd4SDQ8JhVzhP1IpK3ne711ZVergn5akqM4Pz/a7UJtu8+qE/6r5LZRbi4UoksNp5E6l0JrNFhYxdC5nuVA9B7Jy3VDnJnJkyRqU7SBo4Fl1uuJKxWYZzWChtAaVm/xURECSzj9ZY4S4TntvgIUDlqzDrzH23c0KF2LokI0dmFq7VM6nJrBDG3RdcdwSRUomtRQ1+SZc9dOa8aZC47pCPEuhJZCZQH1vPWrTgeTCAo+qpqVEisoVZAjZ0Bjmblwis7c1KVkVBNWifwpRfW0kb1xxSAB5R1cKl4GhVOTc1CqveNSh9p5Wr+lQSW5O6qgTkphXMOhfBW2RUtCKeLUAJg7axQmtrjx9thddrALYwPIuIAk5b+U1XTAflUvOEiKKOVKY5qCNVcSOZoTW7RR0AiHyOMnK9kFkwIpDTs1Upch4RLr1GOuOF2APZVk4mFms2RCsHiQgN5O0a+fsvu5b1Sy413TOea0FR1rqEmiLwUeRrwF9rCciEZWZ7ktgXNQ55cw/3q8xaSunqIA2ViyycSVMcUkAnEjNfoTZGmmhJ1anU8qREAVFVdMQiaHosEpRkeB30vD3RmkRRqTURD6Bi2/tvuExt+ouILmzc67HJ9Kdfp+zi9b/enLFe72Q8SWQkYga6ZVNkwX5i7zhFIQo2EVril9cqcfMju435ekM/jcAv6rXNyfgVL2TE0JYG4Rc/srdUUla1CkySzlTbsN9QMejc7o62DTsHTiHuTiu4/jfNDTahxsLLzqTasEmFWYhr9EL915bJWpt94t2wjtKbGu27ehXftqdTlu3hdcrnNcUz3HBchV1Rfm2bdkSrKvNFxypShela0fPm5J3n/sAm/mj0hI3txbGVNEtmloKBXpjKTi58j9WfMcaNRtmveFKK4uTipdu+4TNQSGkEyxXKiIxwLVvnVuU+9y9q3yAbZhQTWVyAl+Def/nkyRhXplaFRQsvjeolAqyekPcLj70HVbIPcH/poevZ+W2X9DdsXOGU8SxmlXuc24x6FqtVxrxRmlKcL9nk9s4WAQ8/C27YVDGSImGfnbU5bz/jG6GVdW6nXAzgVlROMZ5j9rCzwZ7ZuNZkAzdNmZozYmyGxKOPn38M4wsus6ogpyP2waeKHCiHFrYKs3KxENqqY816iJotM/2gQh8y6BR6JhZVLHtqDi62wwpnv7zZcgIuYMgm7k5lqJs5OVXzORSGbqtg5XRQ3FFhT+WcrVXJljiTSfMMZfS2pdMC1w7O28EngjzrIdCB61Y6th0rdDZtwxl4FGcBMoLRAIWh1ahW2ucEWTgXmB6sUKmgu7Qw06AYYIgOufy72x/hqBF730PBP/QOVd3W/JKVeX0k1bKJqI0G4M8AZXKLvnkPX26ne97/4wOFgwWg7aLnCMrGQwsAkwVTpWlCXPH1ybsXwy7CCiNyoL+wRe/0970tPkbXKIRHwwTts9g4ts395qb/iMfr96/W7HWp+cGhgMnddx80NpjvekN24bOKRH+mlJ/+s0zW9sWzrzA1vhpvj995uJ2Gs/b+yAGa/pNhIbf2AASPY2oN9AkYj9qmo8tocSF31IEHKfB+VwfdvGRT75An/0+5cr88qC8bYKfb1rg7vqhJtn14bxNapctup17eVfHuG2KfmlxTjx38jCcrWu3oFLL0wSUNrX7JFPPcw0PMe9QhVp3Vuz38N+nmZOo+KOm51IX5ltLevXhQCqjaYp9GTgru4QuMl4y9ff2GFZEWIgNAvdOK7aDT7/dpyLbce4Zbv3iNf1bzddpO0DvBHR65ZON9ps3w/kP+xNj+xOchE/1Txt/sqL8/qcfZAfacfmIj2NP8nP1g8ND94DixjxP7+5rY/v/jxD6uKcc1ZW9NGfwv1xSy8Y+rzXG1efzVZnhcbf5Sq43/eKvNcUv6alvS4EGzc4igv6OF4WGr4eD7Svq4Gh5Xw73VcPitrYZkMziuk8d18nHXyfobMt0vVLTC7f+mVl/w2VGyko6GFpixkehHxVXg4BIqmjmrcdkurBX5zIRZoTNt0vWXO1oOshdgLxqSVvqcrZYwaDvdLhNpmRiZJy1d6KJ/Mp4uUVQ6jYqL9cai3KKInE6fZs8c1MT8leLjc2rAJrzfAc26CaY=

