;-- START GCODE --
;Sliced for Type A Machines Series 1
;Sliced at: Thu 17-11-2016 10:38:20
;Basic settings: Layer height: 0.2 Walls: 1.2 Fill: 20
;Print Speed: 40 Support: 0
;Retraction Speed: 40 Retraction Distance: 1.2
;Print time: #P_TIME#
;Filament used: #F_AMNT#m #F_WGHT#g
;Filament cost: #F_COST#
M106 S255	 ;start with the fan on
G21        ;metric values
G90        ;absolute positioning
M106 S255    ;start with the fan on
G28     ;move to endstops
G29		;allows for auto-levelling
G1 X150 Y5  Z15.0 F12000 ;center and move the platform down 15mm
M109 S220 ;Heat To temp
G92 E0                  ;zero the extruded length
G1 F200 E30              ;extrude 30mm of feed stock
G92 E0                  ;zero the extruded length again
G1 X175 Y25  Z0 F12000 ;remove bugger
G1 X220 F12000 ;remove bugger
G1 X150 Y150  Z15 F12000 ;recenter and begin
G1 F12000

;Layer count: 37
;LAYER:0
M106 S255
G0 F12000 X114.89 Y115.15 Z0.30
;TYPE:SKIRT
G1 F2400 X190.11 Y115.15 E3.75274
G1 X190.11 Y189.85 E7.47954
G1 X114.89 Y189.85 E11.23228
G1 X114.89 Y115.15 E14.95908
G0 F12000 X115.29 Y115.55
G1 F2400 X189.71 Y115.55 E18.67191
G1 X189.71 Y189.45 E22.35879
G1 X115.29 Y189.45 E26.07162
G1 X115.29 Y115.55 E29.75851
G0 F12000 X115.69 Y115.95
G1 F2400 X189.31 Y115.95 E33.43142
G1 X189.31 Y189.05 E37.07840
G1 X115.69 Y189.05 E40.75132
G1 X115.69 Y115.95 E44.39829
G0 F12000 X116.09 Y116.35
G1 F2400 X188.91 Y116.35 E48.03129
G1 X188.91 Y188.65 E51.63836
G1 X116.09 Y188.65 E55.27136
G1 X116.09 Y116.35 E58.87842
G0 F12000 X116.49 Y116.75
G1 F2400 X188.51 Y116.75 E62.47151
G1 X188.51 Y188.25 E66.03866
G1 X116.49 Y188.25 E69.63176
G1 X116.49 Y116.75 E73.19891
G0 F12000 X116.89 Y117.15
G1 F2400 X188.11 Y117.15 E76.75209
G1 X188.11 Y187.85 E80.27932
G1 X116.89 Y187.85 E83.83250
G1 X116.89 Y117.15 E87.35974
G0 F12000 X117.29 Y117.55
G1 F2400 X187.71 Y117.55 E90.87301
G1 X187.71 Y187.45 E94.36033
G1 X117.29 Y187.45 E97.87360
G1 X117.29 Y117.55 E101.36093
G0 F12000 X117.69 Y117.95
G1 F2400 X187.31 Y117.95 E104.83428
G1 X187.31 Y187.05 E108.28170
G1 X117.69 Y187.05 E111.75505
G1 X117.69 Y117.95 E115.20246
G0 F12000 X118.09 Y118.35
G1 F2400 X186.91 Y118.35 E118.63591
G1 X186.91 Y186.65 E122.04341
G1 X118.09 Y186.65 E125.47685
G1 X118.09 Y118.35 E128.88435
G0 F12000 X118.49 Y118.75
G1 F2400 X186.51 Y118.75 E132.27789
G1 X186.51 Y186.25 E135.64547
G1 X118.49 Y186.25 E139.03901
G1 X118.49 Y118.75 E142.40659
G0 F12000 X118.89 Y119.15
G1 F2400 X186.11 Y119.15 E145.76021
G1 X186.11 Y185.85 E149.08789
G1 X118.89 Y185.85 E152.44151
G1 X118.89 Y119.15 E155.76919
G0 F12000 X119.29 Y119.55
G1 F2400 X185.71 Y119.55 E159.08289
G1 X185.71 Y185.45 E162.37066
G1 X119.29 Y185.45 E165.68436
G1 X119.29 Y119.55 E168.97213
G0 F12000 X119.69 Y119.95
G1 F2400 X185.31 Y119.95 E172.24592
G1 X185.31 Y185.05 E175.49378
G1 X119.69 Y185.05 E178.76757
G1 X119.69 Y119.95 E182.01542
G0 F12000 X120.09 Y120.35
G1 F2400 X184.91 Y120.35 E185.24931
G1 X184.91 Y184.65 E188.45725
G1 X120.09 Y184.65 E191.69113
G1 X120.09 Y120.35 E194.89907
G0 F12000 X120.49 Y120.75
G1 F2400 X184.51 Y120.75 E198.09304
G1 X184.51 Y184.25 E201.26107
G1 X120.49 Y184.25 E204.45504
G1 X120.49 Y120.75 E207.62307
G0 F12000 X120.89 Y121.15
G1 F2400 X184.11 Y121.15 E210.77713
G1 X184.11 Y183.85 E213.90524
G1 X120.89 Y183.85 E217.05930
G1 X120.89 Y121.15 E220.18742
G0 F12000 X121.29 Y121.55
G1 F2400 X183.71 Y121.55 E223.30156
G1 X183.71 Y183.45 E226.38977
G1 X121.29 Y183.45 E229.50391
G1 X121.29 Y121.55 E232.59212
G0 F12000 X121.69 Y121.95
G1 F2400 X183.31 Y121.95 E235.66635
G1 X183.31 Y183.05 E238.71464
G1 X121.69 Y183.05 E241.78888
G1 X121.69 Y121.95 E244.83717
G0 F12000 X122.09 Y122.35
G1 F2400 X182.91 Y122.35 E247.87149
G1 X182.91 Y182.65 E250.87987
G1 X122.09 Y182.65 E253.91419
G1 X122.09 Y122.35 E256.92257
G0 F12000 X122.49 Y122.75
G1 F2400 X182.51 Y122.75 E259.91698
G1 X182.51 Y182.25 E262.88545
G1 X122.49 Y182.25 E265.87986
G1 X122.49 Y122.75 E268.84832
G0 F12000 X122.89 Y123.15
G1 F2400 X182.11 Y123.15 E271.80282
G1 X182.11 Y181.85 E274.73138
G1 X122.89 Y181.85 E277.68587
G1 X122.89 Y123.15 E280.61443
G0 F12000 X123.29 Y123.55
G1 F2400 X181.71 Y123.55 E283.52901
G1 X181.71 Y181.45 E286.41766
G1 X123.29 Y181.45 E289.33224
G1 X123.29 Y123.55 E292.22089
G0 F12000 X123.69 Y123.95
G1 F2400 X181.31 Y123.95 E295.09556
G1 X181.31 Y181.05 E297.94429
G1 X123.69 Y181.05 E300.81896
G1 X123.69 Y123.95 E303.66769
G0 F12000 X124.09 Y124.35
G1 F2400 X180.91 Y124.35 E306.50246
G1 X180.91 Y180.65 E309.31127
G1 X124.09 Y180.65 E312.14603
G1 X124.09 Y124.35 E314.95485
G0 F12000 X124.49 Y124.75
G1 F2400 X180.51 Y124.75 E317.74970
G1 X180.51 Y180.25 E320.51861
G1 X124.49 Y180.25 E323.31346
G1 X124.49 Y124.75 E326.08236
G0 F12000 X124.89 Y125.15
G1 F2400 X180.11 Y125.15 E328.83730
G1 X180.11 Y179.85 E331.56630
G1 X124.89 Y179.85 E334.32123
G1 X124.89 Y125.15 E337.05023
G0 F12000 X125.29 Y125.55
G1 F2400 X179.71 Y125.55 E339.76525
G1 X179.71 Y179.45 E342.45433
G1 X125.29 Y179.45 E345.16936
G1 X125.29 Y125.55 E347.85844
G0 F12000 X125.69 Y125.95
G1 F2400 X179.31 Y125.95 E350.53355
G1 X179.31 Y179.05 E353.18272
G1 X125.69 Y179.05 E355.85783
G1 X125.69 Y125.95 E358.50700
G0 F12000 X126.09 Y126.35
G1 F2400 X178.91 Y126.35 E361.14220
G1 X178.91 Y178.65 E363.75146
G1 X126.09 Y178.65 E366.38666
G1 X126.09 Y126.35 E368.99592
G0 F12000 X126.49 Y126.75
G1 F2400 X178.51 Y126.75 E371.59121
G1 X178.51 Y178.25 E374.16055
G1 X126.49 Y178.25 E376.75584
G1 X126.49 Y126.75 E379.32519
G0 F12000 X126.89 Y127.15
G1 F2400 X178.11 Y127.15 E381.88056
G1 X178.11 Y177.85 E384.41000
G1 X126.89 Y177.85 E386.96537
G1 X126.89 Y127.15 E389.49481
G0 F12000 X127.29 Y127.55
G1 F2400 X177.71 Y127.55 E392.01027
G1 X177.71 Y177.45 E394.49979
G1 X127.29 Y177.45 E397.01526
G1 X127.29 Y127.55 E399.50478
G0 F12000 X127.69 Y127.95
G1 F2400 X177.31 Y127.95 E401.98033
G1 X177.31 Y177.05 E404.42994
G1 X127.69 Y177.05 E406.90549
G1 X127.69 Y127.95 E409.35510
G0 F12000 X128.09 Y128.35
G1 F2400 X176.91 Y128.35 E411.79074
G1 X176.91 Y176.65 E414.20044
G1 X128.09 Y176.65 E416.63608
G1 X128.09 Y128.35 E419.04577
G0 F12000 X128.49 Y128.75
G1 F2400 X176.51 Y128.75 E421.44150
G1 X176.51 Y176.25 E423.81128
G1 X128.49 Y176.25 E426.20701
G1 X128.49 Y128.75 E428.57680
G0 F12000 X128.89 Y129.15
G1 F2400 X176.11 Y129.15 E430.93261
G1 X176.11 Y175.85 E433.26248
G1 X128.89 Y175.85 E435.61830
G1 X128.89 Y129.15 E437.94817
G0 F12000 X129.29 Y129.55
G1 F2400 X175.71 Y129.55 E440.26408
G1 X175.71 Y175.45 E442.55404
G1 X129.29 Y175.45 E444.86994
G1 X129.29 Y129.55 E447.15990
G0 F12000 X129.69 Y129.95
G1 F2400 X175.31 Y129.95 E449.43589
G1 X175.31 Y175.05 E451.68594
G1 X129.69 Y175.05 E453.96193
G1 X129.69 Y129.95 E456.21198
G0 F12000 X130.09 Y130.35
G1 F2400 X174.91 Y130.35 E458.44806
G1 X174.91 Y174.65 E460.65819
G1 X130.09 Y174.65 E462.89427
G1 X130.09 Y130.35 E465.10441
G0 F12000 X130.49 Y130.75
G1 F2400 X174.51 Y130.75 E467.30057
G1 X174.51 Y174.25 E469.47080
G1 X130.49 Y174.25 E471.66696
G1 X130.49 Y130.75 E473.83719
G0 F12000 X130.89 Y131.15
G1 F2400 X174.11 Y131.15 E475.99344
G1 X174.11 Y173.85 E478.12375
G1 X130.89 Y173.85 E480.28001
G1 X130.89 Y131.15 E482.41032
G0 F12000 X131.29 Y131.55
G1 F2400 X173.71 Y131.55 E484.52666
G1 X173.71 Y173.45 E486.61706
G1 X131.29 Y173.45 E488.73340
G1 X131.29 Y131.55 E490.82380
G0 F12000 X131.69 Y131.95
G1 F2400 X173.31 Y131.95 E492.90023
G1 X173.31 Y173.05 E494.95072
G1 X131.69 Y173.05 E497.02715
G1 X131.69 Y131.95 E499.07764
G0 F12000 X132.09 Y132.35
G1 F2400 X172.91 Y132.35 E501.11416
G1 X172.91 Y172.65 E503.12473
G1 X132.09 Y172.65 E505.16125
G1 X132.09 Y132.35 E507.17183
G0 F12000 X132.49 Y132.75
G1 F2400 X172.51 Y132.75 E509.16843
G1 X172.51 Y172.25 E511.13909
G1 X132.49 Y172.25 E513.13570
G1 X132.49 Y132.75 E515.10636
G0 F12000 X134.96 Y135.20
G1 F2400 X134.96 Y169.80 E516.83256
G1 X170.04 Y169.80 E518.58311
G1 X170.04 Y135.20 E520.30931
G1 X134.96 Y135.20 E522.05986
G0 F12000 X135.36 Y135.60
G1 F2400 X135.36 Y169.40 E523.74615
G1 X169.64 Y169.40 E525.45678
G1 X169.64 Y135.60 E527.14307
G1 X135.36 Y135.60 E528.85371
G0 F12000 X135.76 Y136.00
G1 F2400 X135.76 Y169.00 E530.50009
G1 X169.24 Y169.00 E532.17081
G1 X169.24 Y136.00 E533.81719
G1 X135.76 Y136.00 E535.48791
G0 F12000 X136.16 Y136.40
G1 F2400 X136.16 Y168.60 E537.09437
G1 X168.84 Y168.60 E538.72518
G1 X168.84 Y136.40 E540.33165
G1 X136.16 Y136.40 E541.96246
G0 F12000 X136.56 Y136.80
G1 F2400 X136.56 Y168.20 E543.52901
G1 X168.44 Y168.20 E545.11991
G1 X168.44 Y136.80 E546.68646
G1 X136.56 Y136.80 E548.27736
G0 F12000 X136.96 Y137.20
G1 F2400 X136.96 Y167.80 E549.80400
G1 X168.04 Y167.80 E551.35499
G1 X168.04 Y137.20 E552.88163
G1 X136.96 Y137.20 E554.43262
G0 F12000 X137.36 Y137.60
G1 F2400 X137.36 Y167.40 E555.91934
G1 X167.64 Y167.40 E557.43042
G1 X167.64 Y137.60 E558.91715
G1 X137.36 Y137.60 E560.42822
G0 F12000 X137.76 Y138.00
G1 F2400 X137.76 Y167.00 E561.87504
G1 X167.24 Y167.00 E563.34620
G1 X167.24 Y138.00 E564.79301
G1 X137.76 Y138.00 E566.26418
G0 F12000 X138.16 Y138.40
G1 F2400 X138.16 Y166.60 E567.67108
G1 X166.84 Y166.60 E569.10233
G1 X166.84 Y138.40 E570.50923
G1 X138.16 Y138.40 E571.94048
G0 F12000 X138.56 Y138.80
G1 F2400 X138.56 Y166.20 E573.30748
G1 X166.44 Y166.20 E574.69881
G1 X166.44 Y138.80 E576.06581
G1 X138.56 Y138.80 E577.45714
G0 F12000 X138.96 Y139.20
G1 F2400 X138.96 Y165.80 E578.78422
G1 X166.04 Y165.80 E580.13565
G1 X166.04 Y139.20 E581.46273
G1 X138.96 Y139.20 E582.81415
G0 F12000 X139.36 Y139.60
G1 F2400 X139.36 Y165.40 E584.10132
G1 X165.64 Y165.40 E585.41283
G1 X165.64 Y139.60 E586.70000
G1 X139.36 Y139.60 E588.01152
G0 F12000 X139.76 Y140.00
G1 F2400 X139.76 Y165.00 E589.25877
G1 X165.24 Y165.00 E590.53037
G1 X165.24 Y140.00 E591.77763
G1 X139.76 Y140.00 E593.04923
G0 F12000 X140.16 Y140.40
G1 F2400 X140.16 Y164.60 E594.25657
G1 X164.84 Y164.60 E595.48826
G1 X164.84 Y140.40 E596.69560
G1 X140.16 Y140.40 E597.92729
G0 F12000 X140.56 Y140.80
G1 F2400 X140.56 Y164.20 E599.09472
G1 X164.44 Y164.20 E600.28650
G1 X164.44 Y140.80 E601.45393
G1 X140.56 Y140.80 E602.64571
G0 F12000 X140.96 Y141.20
G1 F2400 X140.96 Y163.80 E603.77323
G1 X164.04 Y163.80 E604.92509
G1 X164.04 Y141.20 E606.05261
G1 X140.96 Y141.20 E607.20448
G0 F12000 X141.36 Y141.60
G1 F2400 X141.36 Y163.40 E608.29208
G1 X163.64 Y163.40 E609.40403
G1 X163.64 Y141.60 E610.49164
G1 X141.36 Y141.60 E611.60359
G0 F12000 X141.76 Y142.00
G1 F2400 X141.76 Y163.00 E612.65129
G1 X163.24 Y163.00 E613.72333
G1 X163.24 Y142.00 E614.77102
G1 X141.76 Y142.00 E615.84306
G0 F12000 X142.16 Y142.40
G1 F2400 X142.16 Y162.60 E616.85085
G1 X162.84 Y162.60 E617.88297
G1 X162.84 Y142.40 E618.89076
G1 X142.16 Y142.40 E619.92289
G0 F12000 X142.56 Y142.80
G1 F2400 X142.56 Y162.20 E620.89076
G1 X162.44 Y162.20 E621.88297
G1 X162.44 Y142.80 E622.85084
G1 X142.56 Y142.80 E623.84306
G0 F12000 X142.96 Y143.20
G1 F2400 X142.96 Y161.80 E624.77102
G1 X162.04 Y161.80 E625.72332
G1 X162.04 Y143.20 E626.65128
G1 X142.96 Y143.20 E627.60358
G0 F12000 X143.36 Y143.60
G1 F2400 X143.36 Y161.40 E628.49163
G1 X161.64 Y161.40 E629.40402
G1 X161.64 Y143.60 E630.29206
G1 X143.36 Y143.60 E631.20446
G0 F12000 X143.76 Y144.00
G1 F2400 X143.76 Y161.00 E632.05259
G1 X161.24 Y161.00 E632.92507
G1 X161.24 Y144.00 E633.77320
G1 X143.76 Y144.00 E634.64568
G0 F12000 X144.16 Y144.40
G1 F2400 X144.16 Y160.60 E635.45390
G1 X160.84 Y160.60 E636.28647
G1 X160.84 Y144.40 E637.09469
G1 X144.16 Y144.40 E637.92726
G0 F12000 X144.56 Y144.80
G1 F2400 X144.56 Y160.20 E638.69557
G1 X160.44 Y160.20 E639.48823
G1 X160.44 Y144.80 E640.25654
G1 X144.56 Y144.80 E641.04919
G0 F12000 X144.96 Y145.20
G1 F2400 X144.96 Y159.80 E641.77759
G1 X160.04 Y159.80 E642.53033
G1 X160.04 Y145.20 E643.25873
G1 X144.96 Y145.20 E644.01147
G0 F12000 X145.36 Y145.60
G1 F2400 X145.36 Y159.40 E644.69996
G1 X159.64 Y159.40 E645.41279
G1 X159.64 Y145.60 E646.10127
G1 X145.36 Y145.60 E646.81410
G0 F12000 X145.76 Y146.00
G1 F2400 X145.76 Y159.00 E647.46268
G1 X159.24 Y159.00 E648.13560
G1 X159.24 Y146.00 E648.78417
G1 X145.76 Y146.00 E649.45709
G0 F12000 X146.16 Y146.40
G1 F2400 X146.16 Y158.60 E650.06575
G1 X158.84 Y158.60 E650.69875
G1 X158.84 Y146.40 E651.30741
G1 X146.16 Y146.40 E651.94042
G0 F12000 X146.56 Y146.80
G1 F2400 X146.56 Y158.20 E652.50917
G1 X158.44 Y158.20 E653.10226
G1 X158.44 Y146.80 E653.67101
G1 X146.56 Y146.80 E654.26411
G0 F12000 X146.96 Y147.20
G1 F2400 X146.96 Y157.80 E654.79294
G1 X158.04 Y157.80 E655.34613
G1 X158.04 Y147.20 E655.87496
G1 X146.96 Y147.20 E656.42815
G0 F12000 X147.36 Y147.60
G1 F2400 X147.36 Y157.40 E656.91707
G1 X157.64 Y157.40 E657.43034
G1 X157.64 Y147.60 E657.91926
G1 X147.36 Y147.60 E658.43253
G0 F12000 X147.76 Y148.00
G1 F2400 X147.76 Y157.00 E658.88155
G1 X157.24 Y157.00 E659.35490
G1 X157.24 Y148.00 E659.80392
G1 X147.76 Y148.00 E660.27727
G0 F12000 X148.16 Y148.40
G1 F2400 X148.16 Y156.60 E660.68637
G1 X156.84 Y156.60 E661.11982
G1 X156.84 Y148.40 E661.52892
G1 X148.16 Y148.40 E661.96237
G0 F12000 X148.56 Y148.80
G1 F2400 X148.56 Y156.20 E662.33155
G1 X156.44 Y156.20 E662.72509
G1 X156.44 Y148.80 E663.09427
G1 X148.56 Y148.80 E663.48781
G0 F12000 X148.96 Y149.20
G1 F2400 X148.96 Y155.80 E663.81708
G1 X156.04 Y155.80 E664.17071
G1 X156.04 Y149.20 E664.49998
G1 X148.96 Y149.20 E664.85360
G0 F12000 X149.36 Y149.60
G1 F2400 X149.36 Y155.40 E665.14297
G1 X155.64 Y155.40 E665.45668
G1 X155.64 Y149.60 E665.74604
G1 X149.36 Y149.60 E666.05975
G0 F12000 X149.76 Y150.00
G1 F2400 X149.76 Y155.00 E666.30920
G1 X155.24 Y155.00 E666.58300
G1 X155.24 Y150.00 E666.83245
G1 X149.76 Y150.00 E667.10624
G0 F12000 X150.16 Y150.40
G1 F2400 X150.16 Y154.60 E667.31578
G1 X154.84 Y154.60 E667.54967
G1 X154.84 Y150.40 E667.75921
G1 X150.16 Y150.40 E667.99309
G1 F2400 E666.79309
G0 F12000 X133.76 Y134.00
;TYPE:WALL-INNER
G1 F2400 E667.99309
G1 X133.76 Y171.00 E669.83903
G1 X171.24 Y171.00 E671.70931
G1 X171.24 Y134.00 E673.55525
G1 X133.76 Y134.00 E675.42554
G0 F12000 X133.69 Y133.95
G1 F2400 X171.31 Y133.95 E677.30241
G1 X171.31 Y171.05 E679.15333
G1 X133.69 Y171.05 E681.03020
G1 X133.69 Y133.95 E682.88113
G0 F12000 X133.29 Y133.55
G1 F2400 X171.71 Y133.55 E684.79791
G1 X171.71 Y171.45 E686.68875
G1 X133.29 Y171.45 E688.60553
G1 X133.29 Y133.55 E690.49637
G0 F12000 X134.16 Y134.40
G1 F2400 X134.16 Y170.60 E692.30239
G1 X170.84 Y170.60 E694.13277
G1 X170.84 Y134.40 E695.93879
G1 X134.16 Y134.40 E697.76916
G0 F12000 X134.56 Y134.80
;TYPE:WALL-OUTER
G1 F2400 X134.56 Y170.20 E699.53528
G1 X170.44 Y170.20 E701.32574
G1 X170.44 Y134.80 E703.09185
G1 X134.56 Y134.80 E704.88231
G0 F12000 X134.56 Y134.50
G0 X133.19 Y133.36
G0 X132.89 Y133.15
G1 F2400 X172.11 Y133.15 E706.83900
G1 X172.11 Y171.85 E708.76975
G1 X132.89 Y171.85 E710.72645
G1 X132.89 Y133.15 E712.65720
G0 F12000 X133.89 Y134.15
;LAYER:1
G0 X133.76 Y134.00 Z0.50
;TYPE:WALL-INNER
G1 F2400 X133.76 Y171.00 E713.88455
G1 X171.24 Y171.00 E715.12809
G1 X171.24 Y134.00 E716.35544
G1 X133.76 Y134.00 E717.59898
G0 F12000 X133.69 Y133.95
G1 F2400 X171.31 Y133.95 E718.84729
G1 X171.31 Y171.05 E720.07836
G1 X133.69 Y171.05 E721.32668
G1 X133.69 Y133.95 E722.55774
G0 F12000 X133.29 Y133.55
G1 F2400 X171.71 Y133.55 E723.83253
G1 X171.71 Y171.45 E725.09007
G1 X133.29 Y171.45 E726.36487
G1 X133.29 Y133.55 E727.62241
G0 F12000 X134.16 Y134.40
G1 F2400 X134.16 Y170.60 E728.82328
G1 X170.84 Y170.60 E730.04034
G1 X170.84 Y134.40 E731.24122
G1 X134.16 Y134.40 E732.45828
G0 F12000 X134.56 Y134.80
;TYPE:WALL-OUTER
G1 F2400 X134.56 Y170.20 E733.63268
G1 X170.44 Y170.20 E734.82327
G1 X170.44 Y134.80 E735.99767
G1 X134.56 Y134.80 E737.18826
G0 F12000 X134.56 Y134.50
G0 X133.19 Y133.36
G0 X132.89 Y133.15
G1 F2400 X172.11 Y133.15 E738.48953
G1 X172.11 Y171.85 E739.77354
G1 X132.89 Y171.85 E741.07481
G1 X132.89 Y133.15 E742.35883
G0 F12000 X133.89 Y134.15
;LAYER:2
G0 X133.76 Y134.00 Z0.70
;TYPE:WALL-INNER
G1 F2400 X133.76 Y171.00 E743.58618
G1 X171.24 Y171.00 E744.82972
G1 X171.24 Y134.00 E746.05706
G1 X133.76 Y134.00 E747.30060
G0 F12000 X133.69 Y133.95
G1 F2400 X171.31 Y133.95 E748.54892
G1 X171.31 Y171.05 E749.77999
G1 X133.69 Y171.05 E751.02830
G1 X133.69 Y133.95 E752.25937
G0 F12000 X133.29 Y133.55
G1 F2400 X171.71 Y133.55 E753.53416
G1 X171.71 Y171.45 E754.79170
G1 X133.29 Y171.45 E756.06649
G1 X133.29 Y133.55 E757.32404
G0 F12000 X134.16 Y134.40
G1 F2400 X134.16 Y170.60 E758.52491
G1 X170.84 Y170.60 E759.74197
G1 X170.84 Y134.40 E760.94285
G1 X134.16 Y134.40 E762.15991
G0 F12000 X134.56 Y134.80
;TYPE:WALL-OUTER
G1 F2400 X134.56 Y170.20 E763.33431
G1 X170.44 Y170.20 E764.52490
G1 X170.44 Y134.80 E765.69930
G1 X134.56 Y134.80 E766.88989
G0 F12000 X134.56 Y134.50
G0 X133.19 Y133.36
G0 X132.89 Y133.15
G1 F2400 X172.11 Y133.15 E768.19116
G1 X172.11 Y171.85 E769.47517
G1 X132.89 Y171.85 E770.77644
G1 X132.89 Y133.15 E772.06046
G0 F12000 X133.89 Y134.15
;LAYER:3
G0 X133.76 Y134.00 Z0.90
;TYPE:WALL-INNER
G1 F2400 X133.76 Y171.00 E773.28781
G1 X171.24 Y171.00 E774.53134
G1 X171.24 Y134.00 E775.75869
G1 X133.76 Y134.00 E777.00223
G0 F12000 X133.69 Y133.95
G1 F2400 X171.31 Y133.95 E778.25055
G1 X171.31 Y171.05 E779.48162
G1 X133.69 Y171.05 E780.72993
G1 X133.69 Y133.95 E781.96100
G0 F12000 X133.29 Y133.55
G1 F2400 X171.71 Y133.55 E783.23579
G1 X171.71 Y171.45 E784.49333
G1 X133.29 Y171.45 E785.76812
G1 X133.29 Y133.55 E787.02566
G0 F12000 X134.16 Y134.40
G1 F2400 X134.16 Y170.60 E788.22654
G1 X170.84 Y170.60 E789.44360
G1 X170.84 Y134.40 E790.64448
G1 X134.16 Y134.40 E791.86154
G0 F12000 X134.56 Y134.80
;TYPE:WALL-OUTER
G1 F2400 X134.56 Y170.20 E793.03594
G1 X170.44 Y170.20 E794.22653
G1 X170.44 Y134.80 E795.40093
G1 X134.56 Y134.80 E796.59152
G0 F12000 X134.56 Y134.50
G0 X133.19 Y133.36
G0 X132.89 Y133.15
G1 F2400 X172.11 Y133.15 E797.89279
G1 X172.11 Y171.85 E799.17680
G1 X132.89 Y171.85 E800.47807
G1 X132.89 Y133.15 E801.76208
G0 F12000 X133.89 Y134.15
;LAYER:4
G0 X133.76 Y134.00 Z1.10
;TYPE:WALL-INNER
G1 F2400 X133.76 Y171.00 E802.98943
G1 X171.24 Y171.00 E804.23297
G1 X171.24 Y134.00 E805.46032
G1 X133.76 Y134.00 E806.70386
G0 F12000 X133.69 Y133.95
G1 F2400 X171.31 Y133.95 E807.95218
G1 X171.31 Y171.05 E809.18325
G1 X133.69 Y171.05 E810.43156
G1 X133.69 Y133.95 E811.66263
G0 F12000 X133.29 Y133.55
G1 F2400 X171.71 Y133.55 E812.93742
G1 X171.71 Y171.45 E814.19496
G1 X133.29 Y171.45 E815.46975
G1 X133.29 Y133.55 E816.72729
G0 F12000 X134.16 Y134.40
G1 F2400 X134.16 Y170.60 E817.92817
G1 X170.84 Y170.60 E819.14523
G1 X170.84 Y134.40 E820.34611
G1 X134.16 Y134.40 E821.56317
G0 F12000 X134.56 Y134.80
;TYPE:WALL-OUTER
G1 F2400 X134.56 Y170.20 E822.73757
G1 X170.44 Y170.20 E823.92816
G1 X170.44 Y134.80 E825.10256
G1 X134.56 Y134.80 E826.29315
G0 F12000 X134.56 Y134.50
G0 X133.19 Y133.36
G0 X132.89 Y133.15
G1 F2400 X172.11 Y133.15 E827.59442
G1 X172.11 Y171.85 E828.87843
G1 X132.89 Y171.85 E830.17970
G1 X132.89 Y133.15 E831.46371
G0 F12000 X133.89 Y134.15
;LAYER:5
G0 X133.76 Y134.00 Z1.30
;TYPE:WALL-INNER
G1 F2400 X133.76 Y171.00 E832.69106
G1 X171.24 Y171.00 E833.93460
G1 X171.24 Y134.00 E835.16195
G1 X133.76 Y134.00 E836.40549
G0 F12000 X133.69 Y133.95
G1 F2400 X171.31 Y133.95 E837.65381
G1 X171.31 Y171.05 E838.88487
G1 X133.69 Y171.05 E840.13319
G1 X133.69 Y133.95 E841.36426
G0 F12000 X133.29 Y133.55
G1 F2400 X171.71 Y133.55 E842.63905
G1 X171.71 Y171.45 E843.89659
G1 X133.29 Y171.45 E845.17138
G1 X133.29 Y133.55 E846.42892
G0 F12000 X134.16 Y134.40
G1 F2400 X134.16 Y170.60 E847.62980
G1 X170.84 Y170.60 E848.84686
G1 X170.84 Y134.40 E850.04774
G1 X134.16 Y134.40 E851.26480
G0 F12000 X134.56 Y134.80
;TYPE:WALL-OUTER
G1 F2400 X134.56 Y170.20 E852.43920
G1 X170.44 Y170.20 E853.62979
G1 X170.44 Y134.80 E854.80419
G1 X134.56 Y134.80 E855.99478
G0 F12000 X134.56 Y134.50
G0 X133.19 Y133.36
G0 X132.89 Y133.15
G1 F2400 X172.11 Y133.15 E857.29604
G1 X172.11 Y171.85 E858.58006
G1 X132.89 Y171.85 E859.88133
G1 X132.89 Y133.15 E861.16534
G0 F12000 X133.89 Y134.15
;LAYER:6
G0 X133.76 Y134.00 Z1.50
;TYPE:WALL-INNER
G1 F2400 X133.76 Y171.00 E862.39269
G1 X171.24 Y171.00 E863.63623
G1 X171.24 Y134.00 E864.86358
G1 X133.76 Y134.00 E866.10712
G0 F12000 X133.69 Y133.95
G1 F2400 X171.31 Y133.95 E867.35544
G1 X171.31 Y171.05 E868.58650
G1 X133.69 Y171.05 E869.83482
G1 X133.69 Y133.95 E871.06589
G0 F12000 X133.29 Y133.55
G1 F2400 X171.71 Y133.55 E872.34068
G1 X171.71 Y171.45 E873.59822
G1 X133.29 Y171.45 E874.87301
G1 X133.29 Y133.55 E876.13055
G0 F12000 X134.16 Y134.40
G1 F2400 X134.16 Y170.60 E877.33143
G1 X170.84 Y170.60 E878.54849
G1 X170.84 Y134.40 E879.74936
G1 X134.16 Y134.40 E880.96643
G0 F12000 X134.56 Y134.80
;TYPE:WALL-OUTER
G1 F2400 X134.56 Y170.20 E882.14083
G1 X170.44 Y170.20 E883.33142
G1 X170.44 Y134.80 E884.50582
G1 X134.56 Y134.80 E885.69641
G0 F12000 X134.56 Y134.50
G0 X133.19 Y133.36
G0 X132.89 Y133.15
G1 F2400 X172.11 Y133.15 E886.99767
G1 X172.11 Y171.85 E888.28169
G1 X132.89 Y171.85 E889.58296
G1 X132.89 Y133.15 E890.86697
G0 F12000 X133.89 Y134.15
;LAYER:7
G0 X133.76 Y134.00 Z1.70
;TYPE:WALL-INNER
G1 F2400 X133.76 Y171.00 E892.09432
G1 X171.24 Y171.00 E893.33786
G1 X171.24 Y134.00 E894.56521
G1 X133.76 Y134.00 E895.80875
G0 F12000 X133.69 Y133.95
G1 F2400 X171.31 Y133.95 E897.05707
G1 X171.31 Y171.05 E898.28813
G1 X133.69 Y171.05 E899.53645
G1 X133.69 Y133.95 E900.76752
G0 F12000 X133.29 Y133.55
G1 F2400 X171.71 Y133.55 E902.04231
G1 X171.71 Y171.45 E903.29985
G1 X133.29 Y171.45 E904.57464
G1 X133.29 Y133.55 E905.83218
G0 F12000 X134.16 Y134.40
G1 F2400 X134.16 Y170.60 E907.03306
G1 X170.84 Y170.60 E908.25012
G1 X170.84 Y134.40 E909.45099
G1 X134.16 Y134.40 E910.66806
G0 F12000 X134.56 Y134.80
;TYPE:WALL-OUTER
G1 F2400 X134.56 Y170.20 E911.84246
G1 X170.44 Y170.20 E913.03305
G1 X170.44 Y134.80 E914.20745
G1 X134.56 Y134.80 E915.39804
G0 F12000 X134.56 Y134.50
G0 X133.19 Y133.36
G0 X132.89 Y133.15
G1 F2400 X172.11 Y133.15 E916.69930
G1 X172.11 Y171.85 E917.98332
G1 X132.89 Y171.85 E919.28459
G1 X132.89 Y133.15 E920.56860
G0 F12000 X133.89 Y134.15
;LAYER:8
G0 X133.76 Y134.00 Z1.90
;TYPE:WALL-INNER
G1 F2400 X133.76 Y171.00 E921.79595
G1 X171.24 Y171.00 E923.03949
G1 X171.24 Y134.00 E924.26684
G1 X133.76 Y134.00 E925.51038
G0 F12000 X133.69 Y133.95
G1 F2400 X171.31 Y133.95 E926.75870
G1 X171.31 Y171.05 E927.98976
G1 X133.69 Y171.05 E929.23808
G1 X133.69 Y133.95 E930.46914
G0 F12000 X133.29 Y133.55
G1 F2400 X171.71 Y133.55 E931.74394
G1 X171.71 Y171.45 E933.00148
G1 X133.29 Y171.45 E934.27627
G1 X133.29 Y133.55 E935.53381
G0 F12000 X134.16 Y134.40
G1 F2400 X134.16 Y170.60 E936.73468
G1 X170.84 Y170.60 E937.95175
G1 X170.84 Y134.40 E939.15262
G1 X134.16 Y134.40 E940.36969
G0 F12000 X134.56 Y134.80
;TYPE:WALL-OUTER
G1 F2400 X134.56 Y170.20 E941.54409
G1 X170.44 Y170.20 E942.73468
G1 X170.44 Y134.80 E943.90907
G1 X134.56 Y134.80 E945.09966
G0 F12000 X134.56 Y134.50
G0 X133.19 Y133.36
G0 X132.89 Y133.15
G1 F2400 X172.11 Y133.15 E946.40093
G1 X172.11 Y171.85 E947.68495
G1 X132.89 Y171.85 E948.98622
G1 X132.89 Y133.15 E950.27023
G0 F12000 X133.89 Y134.15
;LAYER:9
G0 X133.76 Y134.00 Z2.10
;TYPE:WALL-INNER
G1 F2400 X133.76 Y171.00 E951.49758
G1 X171.24 Y171.00 E952.74112
G1 X171.24 Y134.00 E953.96847
G1 X133.76 Y134.00 E955.21201
G0 F12000 X133.69 Y133.95
G1 F2400 X171.31 Y133.95 E956.46033
G1 X171.31 Y171.05 E957.69139
G1 X133.69 Y171.05 E958.93971
G1 X133.69 Y133.95 E960.17077
G0 F12000 X133.29 Y133.55
G1 F2400 X171.71 Y133.55 E961.44557
G1 X171.71 Y171.45 E962.70311
G1 X133.29 Y171.45 E963.97790
G1 X133.29 Y133.55 E965.23544
G0 F12000 X134.16 Y134.40
G1 F2400 X134.16 Y170.60 E966.43631
G1 X170.84 Y170.60 E967.65338
G1 X170.84 Y134.40 E968.85425
G1 X134.16 Y134.40 E970.07132
G0 F12000 X134.56 Y134.80
;TYPE:WALL-OUTER
G1 F2400 X134.56 Y170.20 E971.24572
G1 X170.44 Y170.20 E972.43631
G1 X170.44 Y134.80 E973.61070
G1 X134.56 Y134.80 E974.80129
G0 F12000 X134.56 Y134.50
G0 X133.19 Y133.36
G0 X132.89 Y133.15
G1 F2400 X172.11 Y133.15 E976.10256
G1 X172.11 Y171.85 E977.38658
G1 X132.89 Y171.85 E978.68784
G1 X132.89 Y133.15 E979.97186
G0 F12000 X133.89 Y134.15
;LAYER:10
G0 X133.76 Y134.00 Z2.30
;TYPE:WALL-INNER
G1 F2400 X133.76 Y171.00 E981.19921
G1 X171.24 Y171.00 E982.44275
G1 X171.24 Y134.00 E983.67010
G1 X133.76 Y134.00 E984.91364
G0 F12000 X133.69 Y133.95
G1 F2400 X171.31 Y133.95 E986.16196
G1 X171.31 Y171.05 E987.39302
G1 X133.69 Y171.05 E988.64134
G1 X133.69 Y133.95 E989.87240
G0 F12000 X133.29 Y133.55
G1 F2400 X171.71 Y133.55 E991.14720
G1 X171.71 Y171.45 E992.40474
G1 X133.29 Y171.45 E993.67953
G1 X133.29 Y133.55 E994.93707
G0 F12000 X134.16 Y134.40
G1 F2400 X134.16 Y170.60 E996.13794
G1 X170.84 Y170.60 E997.35501
G1 X170.84 Y134.40 E998.55588
G1 X134.16 Y134.40 E999.77295
G0 F12000 X134.56 Y134.80
;TYPE:WALL-OUTER
G1 F2400 X134.56 Y170.20 E1000.94735
G1 X170.44 Y170.20 E1002.13793
G1 X170.44 Y134.80 E1003.31233
G1 X134.56 Y134.80 E1004.50292
G0 F12000 X134.56 Y134.50
G0 X133.19 Y133.36
G0 X132.89 Y133.15
G1 F2400 X172.11 Y133.15 E1005.80419
G1 X172.11 Y171.85 E1007.08821
G1 X132.89 Y171.85 E1008.38947
G1 X132.89 Y133.15 E1009.67349
G0 F12000 X133.89 Y134.15
;LAYER:11
G0 X133.76 Y134.00 Z2.50
;TYPE:WALL-INNER
G1 F2400 X133.76 Y171.00 E1010.90084
G1 X171.24 Y171.00 E1012.14438
G1 X171.24 Y134.00 E1013.37173
G1 X133.76 Y134.00 E1014.61527
G0 F12000 X133.69 Y133.95
G1 F2400 X171.31 Y133.95 E1015.86358
G1 X171.31 Y171.05 E1017.09465
G1 X133.69 Y171.05 E1018.34297
G1 X133.69 Y133.95 E1019.57403
G0 F12000 X133.29 Y133.55
G1 F2400 X171.71 Y133.55 E1020.84882
G1 X171.71 Y171.45 E1022.10637
G1 X133.29 Y171.45 E1023.38116
G1 X133.29 Y133.55 E1024.63870
G0 F12000 X134.16 Y134.40
G1 F2400 X134.16 Y170.60 E1025.83957
G1 X170.84 Y170.60 E1027.05664
G1 X170.84 Y134.40 E1028.25751
G1 X134.16 Y134.40 E1029.47458
G0 F12000 X134.56 Y134.80
;TYPE:WALL-OUTER
G1 F2400 X134.56 Y170.20 E1030.64897
G1 X170.44 Y170.20 E1031.83956
G1 X170.44 Y134.80 E1033.01396
G1 X134.56 Y134.80 E1034.20455
G0 F12000 X134.56 Y134.50
G0 X133.19 Y133.36
G0 X132.89 Y133.15
G1 F2400 X172.11 Y133.15 E1035.50582
G1 X172.11 Y171.85 E1036.78984
G1 X132.89 Y171.85 E1038.09110
G1 X132.89 Y133.15 E1039.37512
G0 F12000 X133.89 Y134.15
;LAYER:12
G0 X133.76 Y134.00 Z2.70
;TYPE:WALL-INNER
G1 F2400 X133.76 Y171.00 E1040.60247
G1 X171.24 Y171.00 E1041.84601
G1 X171.24 Y134.00 E1043.07336
G1 X133.76 Y134.00 E1044.31690
G0 F12000 X133.69 Y133.95
G1 F2400 X171.31 Y133.95 E1045.56521
G1 X171.31 Y171.05 E1046.79628
G1 X133.69 Y171.05 E1048.04460
G1 X133.69 Y133.95 E1049.27566
G0 F12000 X133.29 Y133.55
G1 F2400 X171.71 Y133.55 E1050.55045
G1 X171.71 Y171.45 E1051.80799
G1 X133.29 Y171.45 E1053.08279
G1 X133.29 Y133.55 E1054.34033
G0 F12000 X134.16 Y134.40
G1 F2400 X134.16 Y170.60 E1055.54120
G1 X170.84 Y170.60 E1056.75827
G1 X170.84 Y134.40 E1057.95914
G1 X134.16 Y134.40 E1059.17620
G0 F12000 X134.56 Y134.80
;TYPE:WALL-OUTER
G1 F2400 X134.56 Y170.20 E1060.35060
G1 X170.44 Y170.20 E1061.54119
G1 X170.44 Y134.80 E1062.71559
G1 X134.56 Y134.80 E1063.90618
G0 F12000 X134.56 Y134.50
G0 X133.19 Y133.36
G0 X132.89 Y133.15
G1 F2400 X172.11 Y133.15 E1065.20745
G1 X172.11 Y171.85 E1066.49146
G1 X132.89 Y171.85 E1067.79273
G1 X132.89 Y133.15 E1069.07675
G0 F12000 X133.89 Y134.15
;LAYER:13
G0 X133.76 Y134.00 Z2.90
;TYPE:WALL-INNER
G1 F2400 X133.76 Y171.00 E1070.30410
G1 X171.24 Y171.00 E1071.54764
G1 X171.24 Y134.00 E1072.77499
G1 X133.76 Y134.00 E1074.01853
G0 F12000 X133.69 Y133.95
G1 F2400 X171.31 Y133.95 E1075.26684
G1 X171.31 Y171.05 E1076.49791
G1 X133.69 Y171.05 E1077.74623
G1 X133.69 Y133.95 E1078.97729
G0 F12000 X133.29 Y133.55
G1 F2400 X171.71 Y133.55 E1080.25208
G1 X171.71 Y171.45 E1081.50962
G1 X133.29 Y171.45 E1082.78442
G1 X133.29 Y133.55 E1084.04196
G0 F12000 X134.16 Y134.40
G1 F2400 X134.16 Y170.60 E1085.24283
G1 X170.84 Y170.60 E1086.45990
G1 X170.84 Y134.40 E1087.66077
G1 X134.16 Y134.40 E1088.87783
G0 F12000 X134.56 Y134.80
;TYPE:WALL-OUTER
G1 F2400 X134.56 Y170.20 E1090.05223
G1 X170.44 Y170.20 E1091.24282
G1 X170.44 Y134.80 E1092.41722
G1 X134.56 Y134.80 E1093.60781
G0 F12000 X134.56 Y134.50
G0 X133.19 Y133.36
G0 X132.89 Y133.15
G1 F2400 X172.11 Y133.15 E1094.90908
G1 X172.11 Y171.85 E1096.19309
G1 X132.89 Y171.85 E1097.49436
G1 X132.89 Y133.15 E1098.77838
G0 F12000 X133.89 Y134.15
;LAYER:14
G0 X133.76 Y134.00 Z3.10
;TYPE:WALL-INNER
G1 F2400 X133.76 Y171.00 E1100.00573
G1 X171.24 Y171.00 E1101.24927
G1 X171.24 Y134.00 E1102.47662
G1 X133.76 Y134.00 E1103.72016
G0 F12000 X133.69 Y133.95
G1 F2400 X171.31 Y133.95 E1104.96847
G1 X171.31 Y171.05 E1106.19954
G1 X133.69 Y171.05 E1107.44785
G1 X133.69 Y133.95 E1108.67892
G0 F12000 X133.29 Y133.55
G1 F2400 X171.71 Y133.55 E1109.95371
G1 X171.71 Y171.45 E1111.21125
G1 X133.29 Y171.45 E1112.48605
G1 X133.29 Y133.55 E1113.74359
G0 F12000 X134.16 Y134.40
G1 F2400 X134.16 Y170.60 E1114.94446
G1 X170.84 Y170.60 E1116.16152
G1 X170.84 Y134.40 E1117.36240
G1 X134.16 Y134.40 E1118.57946
G0 F12000 X134.56 Y134.80
;TYPE:WALL-OUTER
G1 F2400 X134.56 Y170.20 E1119.75386
G1 X170.44 Y170.20 E1120.94445
G1 X170.44 Y134.80 E1122.11885
G1 X134.56 Y134.80 E1123.30944
G0 F12000 X134.56 Y134.50
G0 X133.19 Y133.36
G0 X132.89 Y133.15
G1 F2400 X172.11 Y133.15 E1124.61071
G1 X172.11 Y171.85 E1125.89472
G1 X132.89 Y171.85 E1127.19599
G1 X132.89 Y133.15 E1128.48001
G0 F12000 X133.89 Y134.15
;LAYER:15
G0 X133.76 Y134.00 Z3.30
;TYPE:WALL-INNER
G1 F2400 X133.76 Y171.00 E1129.70736
G1 X171.24 Y171.00 E1130.95090
G1 X171.24 Y134.00 E1132.17824
G1 X133.76 Y134.00 E1133.42178
G0 F12000 X133.69 Y133.95
G1 F2400 X171.31 Y133.95 E1134.67010
G1 X171.31 Y171.05 E1135.90117
G1 X133.69 Y171.05 E1137.14948
G1 X133.69 Y133.95 E1138.38055
G0 F12000 X133.29 Y133.55
G1 F2400 X171.71 Y133.55 E1139.65534
G1 X171.71 Y171.45 E1140.91288
G1 X133.29 Y171.45 E1142.18767
G1 X133.29 Y133.55 E1143.44522
G0 F12000 X134.16 Y134.40
G1 F2400 X134.16 Y170.60 E1144.64609
G1 X170.84 Y170.60 E1145.86315
G1 X170.84 Y134.40 E1147.06403
G1 X134.16 Y134.40 E1148.28109
G0 F12000 X134.56 Y134.80
;TYPE:WALL-OUTER
G1 F2400 X134.56 Y170.20 E1149.45549
G1 X170.44 Y170.20 E1150.64608
G1 X170.44 Y134.80 E1151.82048
G1 X134.56 Y134.80 E1153.01107
G0 F12000 X134.56 Y134.50
G0 X133.19 Y133.36
G0 X132.89 Y133.15
G1 F2400 X172.11 Y133.15 E1154.31234
G1 X172.11 Y171.85 E1155.59635
G1 X132.89 Y171.85 E1156.89762
G1 X132.89 Y133.15 E1158.18164
G0 F12000 X133.89 Y134.15
;LAYER:16
G0 X133.76 Y134.00 Z3.50
;TYPE:WALL-INNER
G1 F2400 X133.76 Y171.00 E1159.40898
G1 X171.24 Y171.00 E1160.65252
G1 X171.24 Y134.00 E1161.87987
G1 X133.76 Y134.00 E1163.12341
G0 F12000 X133.69 Y133.95
G1 F2400 X171.31 Y133.95 E1164.37173
G1 X171.31 Y171.05 E1165.60280
G1 X133.69 Y171.05 E1166.85111
G1 X133.69 Y133.95 E1168.08218
G0 F12000 X133.29 Y133.55
G1 F2400 X171.71 Y133.55 E1169.35697
G1 X171.71 Y171.45 E1170.61451
G1 X133.29 Y171.45 E1171.88930
G1 X133.29 Y133.55 E1173.14684
G0 F12000 X134.16 Y134.40
G1 F2400 X134.16 Y170.60 E1174.34772
G1 X170.84 Y170.60 E1175.56478
G1 X170.84 Y134.40 E1176.76566
G1 X134.16 Y134.40 E1177.98272
G0 F12000 X134.56 Y134.80
;TYPE:WALL-OUTER
G1 F2400 X134.56 Y170.20 E1179.15712
G1 X170.44 Y170.20 E1180.34771
G1 X170.44 Y134.80 E1181.52211
G1 X134.56 Y134.80 E1182.71270
G0 F12000 X134.56 Y134.50
G0 X133.19 Y133.36
G0 X132.89 Y133.15
G1 F2400 X172.11 Y133.15 E1184.01397
G1 X172.11 Y171.85 E1185.29798
G1 X132.89 Y171.85 E1186.59925
G1 X132.89 Y133.15 E1187.88326
G0 F12000 X133.89 Y134.15
;LAYER:17
G0 X133.76 Y134.00 Z3.70
;TYPE:WALL-INNER
G1 F2400 X133.76 Y171.00 E1189.11061
G1 X171.24 Y171.00 E1190.35415
G1 X171.24 Y134.00 E1191.58150
G1 X133.76 Y134.00 E1192.82504
G0 F12000 X133.69 Y133.95
G1 F2400 X171.31 Y133.95 E1194.07336
G1 X171.31 Y171.05 E1195.30443
G1 X133.69 Y171.05 E1196.55274
G1 X133.69 Y133.95 E1197.78381
G0 F12000 X133.29 Y133.55
G1 F2400 X171.71 Y133.55 E1199.05860
G1 X171.71 Y171.45 E1200.31614
G1 X133.29 Y171.45 E1201.59093
G1 X133.29 Y133.55 E1202.84847
G0 F12000 X134.16 Y134.40
G1 F2400 X134.16 Y170.60 E1204.04935
G1 X170.84 Y170.60 E1205.26641
G1 X170.84 Y134.40 E1206.46729
G1 X134.16 Y134.40 E1207.68435
G0 F12000 X134.56 Y134.80
;TYPE:WALL-OUTER
G1 F2400 X134.56 Y170.20 E1208.85875
G1 X170.44 Y170.20 E1210.04934
G1 X170.44 Y134.80 E1211.22374
G1 X134.56 Y134.80 E1212.41433
G0 F12000 X134.56 Y134.50
G0 X133.19 Y133.36
G0 X132.89 Y133.15
G1 F2400 X172.11 Y133.15 E1213.71559
G1 X172.11 Y171.85 E1214.99961
G1 X132.89 Y171.85 E1216.30088
G1 X132.89 Y133.15 E1217.58489
G0 F12000 X133.89 Y134.15
;LAYER:18
G0 X133.76 Y134.00 Z3.90
;TYPE:WALL-INNER
G1 F2400 X133.76 Y171.00 E1218.81224
G1 X171.24 Y171.00 E1220.05578
G1 X171.24 Y134.00 E1221.28313
G1 X133.76 Y134.00 E1222.52667
G0 F12000 X133.69 Y133.95
G1 F2400 X171.31 Y133.95 E1223.77499
G1 X171.31 Y171.05 E1225.00605
G1 X133.69 Y171.05 E1226.25437
G1 X133.69 Y133.95 E1227.48544
G0 F12000 X133.29 Y133.55
G1 F2400 X171.71 Y133.55 E1228.76023
G1 X171.71 Y171.45 E1230.01777
G1 X133.29 Y171.45 E1231.29256
G1 X133.29 Y133.55 E1232.55010
G0 F12000 X134.16 Y134.40
G1 F2400 X134.16 Y170.60 E1233.75098
G1 X170.84 Y170.60 E1234.96804
G1 X170.84 Y134.40 E1236.16892
G1 X134.16 Y134.40 E1237.38598
G0 F12000 X134.56 Y134.80
;TYPE:WALL-OUTER
G1 F2400 X134.56 Y170.20 E1238.56038
G1 X170.44 Y170.20 E1239.75097
G1 X170.44 Y134.80 E1240.92537
G1 X134.56 Y134.80 E1242.11596
G0 F12000 X134.56 Y134.50
G0 X133.19 Y133.36
G0 X132.89 Y133.15
G1 F2400 X172.11 Y133.15 E1243.41722
G1 X172.11 Y171.85 E1244.70124
G1 X132.89 Y171.85 E1246.00251
G1 X132.89 Y133.15 E1247.28652
G0 F12000 X133.89 Y134.15
;LAYER:19
G0 X133.76 Y134.00 Z4.10
;TYPE:WALL-INNER
G1 F2400 X133.76 Y171.00 E1248.51387
G1 X171.24 Y171.00 E1249.75741
G1 X171.24 Y134.00 E1250.98476
G1 X133.76 Y134.00 E1252.22830
G0 F12000 X133.69 Y133.95
G1 F2400 X171.31 Y133.95 E1253.47662
G1 X171.31 Y171.05 E1254.70768
G1 X133.69 Y171.05 E1255.95600
G1 X133.69 Y133.95 E1257.18707
G0 F12000 X133.29 Y133.55
G1 F2400 X171.71 Y133.55 E1258.46186
G1 X171.71 Y171.45 E1259.71940
G1 X133.29 Y171.45 E1260.99419
G1 X133.29 Y133.55 E1262.25173
G0 F12000 X134.16 Y134.40
G1 F2400 X134.16 Y170.60 E1263.45261
G1 X170.84 Y170.60 E1264.66967
G1 X170.84 Y134.40 E1265.87054
G1 X134.16 Y134.40 E1267.08761
G0 F12000 X134.56 Y134.80
;TYPE:WALL-OUTER
G1 F2400 X134.56 Y170.20 E1268.26201
G1 X170.44 Y170.20 E1269.45260
G1 X170.44 Y134.80 E1270.62700
G1 X134.56 Y134.80 E1271.81759
G0 F12000 X134.56 Y134.50
G0 X133.19 Y133.36
G0 X132.89 Y133.15
G1 F2400 X172.11 Y133.15 E1273.11885
G1 X172.11 Y171.85 E1274.40287
G1 X132.89 Y171.85 E1275.70414
G1 X132.89 Y133.15 E1276.98815
G0 F12000 X133.89 Y134.15
;LAYER:20
G0 X133.76 Y134.00 Z4.30
;TYPE:WALL-INNER
G1 F2400 X133.76 Y171.00 E1278.21550
G1 X171.24 Y171.00 E1279.45904
G1 X171.24 Y134.00 E1280.68639
G1 X133.76 Y134.00 E1281.92993
G0 F12000 X133.69 Y133.95
G1 F2400 X171.31 Y133.95 E1283.17825
G1 X171.31 Y171.05 E1284.40931
G1 X133.69 Y171.05 E1285.65763
G1 X133.69 Y133.95 E1286.88870
G0 F12000 X133.29 Y133.55
G1 F2400 X171.71 Y133.55 E1288.16349
G1 X171.71 Y171.45 E1289.42103
G1 X133.29 Y171.45 E1290.69582
G1 X133.29 Y133.55 E1291.95336
G0 F12000 X134.16 Y134.40
G1 F2400 X134.16 Y170.60 E1293.15424
G1 X170.84 Y170.60 E1294.37130
G1 X170.84 Y134.40 E1295.57217
G1 X134.16 Y134.40 E1296.78924
G0 F12000 X134.56 Y134.80
;TYPE:WALL-OUTER
G1 F2400 X134.56 Y170.20 E1297.96364
G1 X170.44 Y170.20 E1299.15423
G1 X170.44 Y134.80 E1300.32863
G1 X134.56 Y134.80 E1301.51921
G0 F12000 X134.56 Y134.50
G0 X133.19 Y133.36
G0 X132.89 Y133.15
G1 F2400 X172.11 Y133.15 E1302.82048
G1 X172.11 Y171.85 E1304.10450
G1 X132.89 Y171.85 E1305.40577
G1 X132.89 Y133.15 E1306.68978
G0 F12000 X133.89 Y134.15
;LAYER:21
G0 X133.76 Y134.00 Z4.50
;TYPE:WALL-INNER
G1 F2400 X133.76 Y171.00 E1307.91713
G1 X171.24 Y171.00 E1309.16067
G1 X171.24 Y134.00 E1310.38802
G1 X133.76 Y134.00 E1311.63156
G0 F12000 X133.69 Y133.95
G1 F2400 X171.31 Y133.95 E1312.87988
G1 X171.31 Y171.05 E1314.11094
G1 X133.69 Y171.05 E1315.35926
G1 X133.69 Y133.95 E1316.59032
G0 F12000 X133.29 Y133.55
G1 F2400 X171.71 Y133.55 E1317.86512
G1 X171.71 Y171.45 E1319.12266
G1 X133.29 Y171.45 E1320.39745
G1 X133.29 Y133.55 E1321.65499
G0 F12000 X134.16 Y134.40
G1 F2400 X134.16 Y170.60 E1322.85586
G1 X170.84 Y170.60 E1324.07293
G1 X170.84 Y134.40 E1325.27380
G1 X134.16 Y134.40 E1326.49087
G0 F12000 X134.56 Y134.80
;TYPE:WALL-OUTER
G1 F2400 X134.56 Y170.20 E1327.66527
G1 X170.44 Y170.20 E1328.85586
G1 X170.44 Y134.80 E1330.03025
G1 X134.56 Y134.80 E1331.22084
G0 F12000 X134.56 Y134.50
G0 X133.19 Y133.36
G0 X132.89 Y133.15
G1 F2400 X172.11 Y133.15 E1332.52211
G1 X172.11 Y171.85 E1333.80613
G1 X132.89 Y171.85 E1335.10739
G1 X132.89 Y133.15 E1336.39141
G0 F12000 X133.89 Y134.15
;LAYER:22
G0 X133.76 Y134.00 Z4.70
;TYPE:WALL-INNER
G1 F2400 X133.76 Y171.00 E1337.61876
G1 X171.24 Y171.00 E1338.86230
G1 X171.24 Y134.00 E1340.08965
G1 X133.76 Y134.00 E1341.33319
G0 F12000 X133.69 Y133.95
G1 F2400 X171.31 Y133.95 E1342.58151
G1 X171.31 Y171.05 E1343.81257
G1 X133.69 Y171.05 E1345.06089
G1 X133.69 Y133.95 E1346.29195
G0 F12000 X133.29 Y133.55
G1 F2400 X171.71 Y133.55 E1347.56675
G1 X171.71 Y171.45 E1348.82429
G1 X133.29 Y171.45 E1350.09908
G1 X133.29 Y133.55 E1351.35662
G0 F12000 X134.16 Y134.40
G1 F2400 X134.16 Y170.60 E1352.55749
G1 X170.84 Y170.60 E1353.77456
G1 X170.84 Y134.40 E1354.97543
G1 X134.16 Y134.40 E1356.19250
G0 F12000 X134.56 Y134.80
;TYPE:WALL-OUTER
G1 F2400 X134.56 Y170.20 E1357.36690
G1 X170.44 Y170.20 E1358.55748
G1 X170.44 Y134.80 E1359.73188
G1 X134.56 Y134.80 E1360.92247
G0 F12000 X134.56 Y134.50
G0 X133.19 Y133.36
G0 X132.89 Y133.15
G1 F2400 X172.11 Y133.15 E1362.22374
G1 X172.11 Y171.85 E1363.50776
G1 X132.89 Y171.85 E1364.80902
G1 X132.89 Y133.15 E1366.09304
G0 F12000 X133.89 Y134.15
;LAYER:23
G0 X133.76 Y134.00 Z4.90
;TYPE:WALL-INNER
G1 F2400 X133.76 Y171.00 E1367.32039
G1 X171.24 Y171.00 E1368.56393
G1 X171.24 Y134.00 E1369.79128
G1 X133.76 Y134.00 E1371.03482
G0 F12000 X133.69 Y133.95
G1 F2400 X171.31 Y133.95 E1372.28314
G1 X171.31 Y171.05 E1373.51420
G1 X133.69 Y171.05 E1374.76252
G1 X133.69 Y133.95 E1375.99358
G0 F12000 X133.29 Y133.55
G1 F2400 X171.71 Y133.55 E1377.26838
G1 X171.71 Y171.45 E1378.52592
G1 X133.29 Y171.45 E1379.80071
G1 X133.29 Y133.55 E1381.05825
G0 F12000 X134.16 Y134.40
G1 F2400 X134.16 Y170.60 E1382.25912
G1 X170.84 Y170.60 E1383.47619
G1 X170.84 Y134.40 E1384.67706
G1 X134.16 Y134.40 E1385.89413
G0 F12000 X134.56 Y134.80
;TYPE:WALL-OUTER
G1 F2400 X134.56 Y170.20 E1387.06852
G1 X170.44 Y170.20 E1388.25911
G1 X170.44 Y134.80 E1389.43351
G1 X134.56 Y134.80 E1390.62410
G0 F12000 X134.56 Y134.50
G0 X133.19 Y133.36
G0 X132.89 Y133.15
G1 F2400 X172.11 Y133.15 E1391.92537
G1 X172.11 Y171.85 E1393.20939
G1 X132.89 Y171.85 E1394.51065
G1 X132.89 Y133.15 E1395.79467
G0 F12000 X133.89 Y134.15
;LAYER:24
G0 X133.76 Y134.00 Z5.10
;TYPE:WALL-INNER
G1 F2400 X133.76 Y171.00 E1397.02202
G1 X171.24 Y171.00 E1398.26556
G1 X171.24 Y134.00 E1399.49291
G1 X133.76 Y134.00 E1400.73645
G0 F12000 X133.69 Y133.95
G1 F2400 X171.31 Y133.95 E1401.98476
G1 X171.31 Y171.05 E1403.21583
G1 X133.69 Y171.05 E1404.46415
G1 X133.69 Y133.95 E1405.69521
G0 F12000 X133.29 Y133.55
G1 F2400 X171.71 Y133.55 E1406.97000
G1 X171.71 Y171.45 E1408.22754
G1 X133.29 Y171.45 E1409.50234
G1 X133.29 Y133.55 E1410.75988
G0 F12000 X134.16 Y134.40
G1 F2400 X134.16 Y170.60 E1411.96075
G1 X170.84 Y170.60 E1413.17782
G1 X170.84 Y134.40 E1414.37869
G1 X134.16 Y134.40 E1415.59576
G0 F12000 X134.56 Y134.80
;TYPE:WALL-OUTER
G1 F2400 X134.56 Y170.20 E1416.77015
G1 X170.44 Y170.20 E1417.96074
G1 X170.44 Y134.80 E1419.13514
G1 X134.56 Y134.80 E1420.32573
G0 F12000 X134.56 Y134.50
G0 X133.19 Y133.36
G0 X132.89 Y133.15
G1 F2400 X172.11 Y133.15 E1421.62700
G1 X172.11 Y171.85 E1422.91101
G1 X132.89 Y171.85 E1424.21228
G1 X132.89 Y133.15 E1425.49630
G0 F12000 X133.89 Y134.15
;LAYER:25
G0 X133.76 Y134.00 Z5.30
;TYPE:WALL-INNER
G1 F2400 X133.76 Y171.00 E1426.72365
G1 X171.24 Y171.00 E1427.96719
G1 X171.24 Y134.00 E1429.19454
G1 X133.76 Y134.00 E1430.43808
G0 F12000 X133.69 Y133.95
G1 F2400 X171.31 Y133.95 E1431.68639
G1 X171.31 Y171.05 E1432.91746
G1 X133.69 Y171.05 E1434.16578
G1 X133.69 Y133.95 E1435.39684
G0 F12000 X133.29 Y133.55
G1 F2400 X171.71 Y133.55 E1436.67163
G1 X171.71 Y171.45 E1437.92917
G1 X133.29 Y171.45 E1439.20397
G1 X133.29 Y133.55 E1440.46151
G0 F12000 X134.16 Y134.40
G1 F2400 X134.16 Y170.60 E1441.66238
G1 X170.84 Y170.60 E1442.87945
G1 X170.84 Y134.40 E1444.08032
G1 X134.16 Y134.40 E1445.29738
G0 F12000 X134.56 Y134.80
;TYPE:WALL-OUTER
G1 F2400 X134.56 Y170.20 E1446.47178
G1 X170.44 Y170.20 E1447.66237
G1 X170.44 Y134.80 E1448.83677
G1 X134.56 Y134.80 E1450.02736
G0 F12000 X134.56 Y134.50
G0 X133.19 Y133.36
G0 X132.89 Y133.15
G1 F2400 X172.11 Y133.15 E1451.32863
G1 X172.11 Y171.85 E1452.61264
G1 X132.89 Y171.85 E1453.91391
G1 X132.89 Y133.15 E1455.19793
G0 F12000 X133.89 Y134.15
;LAYER:26
G0 X133.76 Y134.00 Z5.50
;TYPE:WALL-INNER
G1 F2400 X133.76 Y171.00 E1456.42528
G1 X171.24 Y171.00 E1457.66882
G1 X171.24 Y134.00 E1458.89617
G1 X133.76 Y134.00 E1460.13971
G0 F12000 X133.69 Y133.95
G1 F2400 X171.31 Y133.95 E1461.38802
G1 X171.31 Y171.05 E1462.61909
G1 X133.69 Y171.05 E1463.86741
G1 X133.69 Y133.95 E1465.09847
G0 F12000 X133.29 Y133.55
G1 F2400 X171.71 Y133.55 E1466.37326
G1 X171.71 Y171.45 E1467.63080
G1 X133.29 Y171.45 E1468.90560
G1 X133.29 Y133.55 E1470.16314
G0 F12000 X134.16 Y134.40
G1 F2400 X134.16 Y170.60 E1471.36401
G1 X170.84 Y170.60 E1472.58107
G1 X170.84 Y134.40 E1473.78195
G1 X134.16 Y134.40 E1474.99901
G0 F12000 X134.56 Y134.80
;TYPE:WALL-OUTER
G1 F2400 X134.56 Y170.20 E1476.17341
G1 X170.44 Y170.20 E1477.36400
G1 X170.44 Y134.80 E1478.53840
G1 X134.56 Y134.80 E1479.72899
G0 F12000 X134.56 Y134.50
G0 X133.19 Y133.36
G0 X132.89 Y133.15
G1 F2400 X172.11 Y133.15 E1481.03026
G1 X172.11 Y171.85 E1482.31427
G1 X132.89 Y171.85 E1483.61554
G1 X132.89 Y133.15 E1484.89956
G0 F12000 X133.89 Y134.15
;LAYER:27
G0 X133.76 Y134.00 Z5.70
;TYPE:WALL-INNER
G1 F2400 X133.76 Y171.00 E1486.12691
G1 X171.24 Y171.00 E1487.37045
G1 X171.24 Y134.00 E1488.59780
G1 X133.76 Y134.00 E1489.84133
G0 F12000 X133.69 Y133.95
G1 F2400 X171.31 Y133.95 E1491.08965
G1 X171.31 Y171.05 E1492.32072
G1 X133.69 Y171.05 E1493.56903
G1 X133.69 Y133.95 E1494.80010
G0 F12000 X133.29 Y133.55
G1 F2400 X171.71 Y133.55 E1496.07489
G1 X171.71 Y171.45 E1497.33243
G1 X133.29 Y171.45 E1498.60723
G1 X133.29 Y133.55 E1499.86477
G0 F12000 X134.16 Y134.40
G1 F2400 X134.16 Y170.60 E1501.06564
G1 X170.84 Y170.60 E1502.28270
G1 X170.84 Y134.40 E1503.48358
G1 X134.16 Y134.40 E1504.70064
G0 F12000 X134.56 Y134.80
;TYPE:WALL-OUTER
G1 F2400 X134.56 Y170.20 E1505.87504
G1 X170.44 Y170.20 E1507.06563
G1 X170.44 Y134.80 E1508.24003
G1 X134.56 Y134.80 E1509.43062
G0 F12000 X134.56 Y134.50
G0 X133.19 Y133.36
G0 X132.89 Y133.15
G1 F2400 X172.11 Y133.15 E1510.73189
G1 X172.11 Y171.85 E1512.01590
G1 X132.89 Y171.85 E1513.31717
G1 X132.89 Y133.15 E1514.60119
G0 F12000 X133.89 Y134.15
;LAYER:28
G0 X133.76 Y134.00 Z5.90
;TYPE:WALL-INNER
G1 F2400 X133.76 Y171.00 E1515.82854
G1 X171.24 Y171.00 E1517.07207
G1 X171.24 Y134.00 E1518.29942
G1 X133.76 Y134.00 E1519.54296
G0 F12000 X133.69 Y133.95
G1 F2400 X171.31 Y133.95 E1520.79128
G1 X171.31 Y171.05 E1522.02235
G1 X133.69 Y171.05 E1523.27066
G1 X133.69 Y133.95 E1524.50173
G0 F12000 X133.29 Y133.55
G1 F2400 X171.71 Y133.55 E1525.77652
G1 X171.71 Y171.45 E1527.03406
G1 X133.29 Y171.45 E1528.30885
G1 X133.29 Y133.55 E1529.56639
G0 F12000 X134.16 Y134.40
G1 F2400 X134.16 Y170.60 E1530.76727
G1 X170.84 Y170.60 E1531.98433
G1 X170.84 Y134.40 E1533.18521
G1 X134.16 Y134.40 E1534.40227
G0 F12000 X134.56 Y134.80
;TYPE:WALL-OUTER
G1 F2400 X134.56 Y170.20 E1535.57667
G1 X170.44 Y170.20 E1536.76726
G1 X170.44 Y134.80 E1537.94166
G1 X134.56 Y134.80 E1539.13225
G0 F12000 X134.56 Y134.50
G0 X133.19 Y133.36
G0 X132.89 Y133.15
G1 F2400 X172.11 Y133.15 E1540.43352
G1 X172.11 Y171.85 E1541.71753
G1 X132.89 Y171.85 E1543.01880
G1 X132.89 Y133.15 E1544.30282
G0 F12000 X133.89 Y134.15
;LAYER:29
G0 X133.76 Y134.00 Z6.10
;TYPE:WALL-INNER
G1 F2400 X133.76 Y171.00 E1545.53016
G1 X171.24 Y171.00 E1546.77370
G1 X171.24 Y134.00 E1548.00105
G1 X133.76 Y134.00 E1549.24459
G0 F12000 X133.69 Y133.95
G1 F2400 X171.31 Y133.95 E1550.49291
G1 X171.31 Y171.05 E1551.72398
G1 X133.69 Y171.05 E1552.97229
G1 X133.69 Y133.95 E1554.20336
G0 F12000 X133.29 Y133.55
G1 F2400 X171.71 Y133.55 E1555.47815
G1 X171.71 Y171.45 E1556.73569
G1 X133.29 Y171.45 E1558.01048
G1 X133.29 Y133.55 E1559.26802
G0 F12000 X134.16 Y134.40
G1 F2400 X134.16 Y170.60 E1560.46890
G1 X170.84 Y170.60 E1561.68596
G1 X170.84 Y134.40 E1562.88684
G1 X134.16 Y134.40 E1564.10390
G0 F12000 X134.56 Y134.80
;TYPE:WALL-OUTER
G1 F2400 X134.56 Y170.20 E1565.27830
G1 X170.44 Y170.20 E1566.46889
G1 X170.44 Y134.80 E1567.64329
G1 X134.56 Y134.80 E1568.83388
G0 F12000 X134.56 Y134.50
G0 X133.19 Y133.36
G0 X132.89 Y133.15
G1 F2400 X172.11 Y133.15 E1570.13515
G1 X172.11 Y171.85 E1571.41916
G1 X132.89 Y171.85 E1572.72043
G1 X132.89 Y133.15 E1574.00444
G0 F12000 X133.89 Y134.15
;LAYER:30
G0 X133.76 Y134.00 Z6.30
;TYPE:WALL-INNER
G1 F2400 X133.76 Y171.00 E1575.23179
G1 X171.24 Y171.00 E1576.47533
G1 X171.24 Y134.00 E1577.70268
G1 X133.76 Y134.00 E1578.94622
G0 F12000 X133.69 Y133.95
G1 F2400 X171.31 Y133.95 E1580.19454
G1 X171.31 Y171.05 E1581.42560
G1 X133.69 Y171.05 E1582.67392
G1 X133.69 Y133.95 E1583.90499
G0 F12000 X133.29 Y133.55
G1 F2400 X171.71 Y133.55 E1585.17978
G1 X171.71 Y171.45 E1586.43732
G1 X133.29 Y171.45 E1587.71211
G1 X133.29 Y133.55 E1588.96965
G0 F12000 X134.16 Y134.40
G1 F2400 X134.16 Y170.60 E1590.17053
G1 X170.84 Y170.60 E1591.38759
G1 X170.84 Y134.40 E1592.58847
G1 X134.16 Y134.40 E1593.80553
G0 F12000 X134.56 Y134.80
;TYPE:WALL-OUTER
G1 F2400 X134.56 Y170.20 E1594.97993
G1 X170.44 Y170.20 E1596.17052
G1 X170.44 Y134.80 E1597.34492
G1 X134.56 Y134.80 E1598.53551
G0 F12000 X134.56 Y134.50
G0 X133.19 Y133.36
G0 X132.89 Y133.15
G1 F2400 X172.11 Y133.15 E1599.83677
G1 X172.11 Y171.85 E1601.12079
G1 X132.89 Y171.85 E1602.42206
G1 X132.89 Y133.15 E1603.70607
G0 F12000 X133.89 Y134.15
;LAYER:31
G0 X133.76 Y134.00 Z6.50
;TYPE:WALL-INNER
G1 F2400 X133.76 Y171.00 E1604.93342
G1 X171.24 Y171.00 E1606.17696
G1 X171.24 Y134.00 E1607.40431
G1 X133.76 Y134.00 E1608.64785
G0 F12000 X133.69 Y133.95
G1 F2400 X171.31 Y133.95 E1609.89617
G1 X171.31 Y171.05 E1611.12723
G1 X133.69 Y171.05 E1612.37555
G1 X133.69 Y133.95 E1613.60662
G0 F12000 X133.29 Y133.55
G1 F2400 X171.71 Y133.55 E1614.88141
G1 X171.71 Y171.45 E1616.13895
G1 X133.29 Y171.45 E1617.41374
G1 X133.29 Y133.55 E1618.67128
G0 F12000 X134.16 Y134.40
G1 F2400 X134.16 Y170.60 E1619.87216
G1 X170.84 Y170.60 E1621.08922
G1 X170.84 Y134.40 E1622.29010
G1 X134.16 Y134.40 E1623.50716
G0 F12000 X134.56 Y134.80
;TYPE:WALL-OUTER
G1 F2400 X134.56 Y170.20 E1624.68156
G1 X170.44 Y170.20 E1625.87215
G1 X170.44 Y134.80 E1627.04655
G1 X134.56 Y134.80 E1628.23714
G0 F12000 X134.56 Y134.50
G0 X133.19 Y133.36
G0 X132.89 Y133.15
G1 F2400 X172.11 Y133.15 E1629.53840
G1 X172.11 Y171.85 E1630.82242
G1 X132.89 Y171.85 E1632.12369
G1 X132.89 Y133.15 E1633.40770
G0 F12000 X133.89 Y134.15
;LAYER:32
G0 X133.76 Y134.00 Z6.70
;TYPE:WALL-INNER
G1 F2400 X133.76 Y171.00 E1634.63505
G1 X171.24 Y171.00 E1635.87859
G1 X171.24 Y134.00 E1637.10594
G1 X133.76 Y134.00 E1638.34948
G0 F12000 X133.69 Y133.95
G1 F2400 X171.31 Y133.95 E1639.59780
G1 X171.31 Y171.05 E1640.82886
G1 X133.69 Y171.05 E1642.07718
G1 X133.69 Y133.95 E1643.30825
G0 F12000 X133.29 Y133.55
G1 F2400 X171.71 Y133.55 E1644.58304
G1 X171.71 Y171.45 E1645.84058
G1 X133.29 Y171.45 E1647.11537
G1 X133.29 Y133.55 E1648.37291
G0 F12000 X134.16 Y134.40
G1 F2400 X134.16 Y170.60 E1649.57379
G1 X170.84 Y170.60 E1650.79085
G1 X170.84 Y134.40 E1651.99172
G1 X134.16 Y134.40 E1653.20879
G0 F12000 X134.56 Y134.80
;TYPE:WALL-OUTER
G1 F2400 X134.56 Y170.20 E1654.38319
G1 X170.44 Y170.20 E1655.57378
G1 X170.44 Y134.80 E1656.74818
G1 X134.56 Y134.80 E1657.93877
G0 F12000 X134.56 Y134.50
G0 X133.19 Y133.36
G0 X132.89 Y133.15
G1 F2400 X172.11 Y133.15 E1659.24003
G1 X172.11 Y171.85 E1660.52405
G1 X132.89 Y171.85 E1661.82532
G1 X132.89 Y133.15 E1663.10933
G0 F12000 X133.89 Y134.15
;LAYER:33
G0 X133.76 Y134.00 Z6.90
;TYPE:WALL-INNER
G1 F2400 X133.76 Y171.00 E1664.33668
G1 X171.24 Y171.00 E1665.58022
G1 X171.24 Y134.00 E1666.80757
G1 X133.76 Y134.00 E1668.05111
G0 F12000 X133.69 Y133.95
G1 F2400 X171.31 Y133.95 E1669.29943
G1 X171.31 Y171.05 E1670.53049
G1 X133.69 Y171.05 E1671.77881
G1 X133.69 Y133.95 E1673.00987
G0 F12000 X133.29 Y133.55
G1 F2400 X171.71 Y133.55 E1674.28467
G1 X171.71 Y171.45 E1675.54221
G1 X133.29 Y171.45 E1676.81700
G1 X133.29 Y133.55 E1678.07454
G0 F12000 X134.16 Y134.40
G1 F2400 X134.16 Y170.60 E1679.27541
G1 X170.84 Y170.60 E1680.49248
G1 X170.84 Y134.40 E1681.69335
G1 X134.16 Y134.40 E1682.91042
G0 F12000 X134.56 Y134.80
;TYPE:WALL-OUTER
G1 F2400 X134.56 Y170.20 E1684.08482
G1 X170.44 Y170.20 E1685.27541
G1 X170.44 Y134.80 E1686.44981
G1 X134.56 Y134.80 E1687.64039
G0 F12000 X134.56 Y134.50
G0 X133.19 Y133.36
G0 X132.89 Y133.15
G1 F2400 X172.11 Y133.15 E1688.94166
G1 X172.11 Y171.85 E1690.22568
G1 X132.89 Y171.85 E1691.52695
G1 X132.89 Y133.15 E1692.81096
G0 F12000 X133.89 Y134.15
;LAYER:34
G0 X133.76 Y134.00 Z7.10
;TYPE:WALL-INNER
G1 F2400 X133.76 Y171.00 E1694.03831
G1 X171.24 Y171.00 E1695.28185
G1 X171.24 Y134.00 E1696.50920
G1 X133.76 Y134.00 E1697.75274
G0 F12000 X133.69 Y133.95
G1 F2400 X171.31 Y133.95 E1699.00106
G1 X171.31 Y171.05 E1700.23212
G1 X133.69 Y171.05 E1701.48044
G1 X133.69 Y133.95 E1702.71150
G0 F12000 X133.29 Y133.55
G1 F2400 X171.71 Y133.55 E1703.98630
G1 X171.71 Y171.45 E1705.24384
G1 X133.29 Y171.45 E1706.51863
G1 X133.29 Y133.55 E1707.77617
G0 F12000 X134.16 Y134.40
G1 F2400 X134.16 Y170.60 E1708.97704
G1 X170.84 Y170.60 E1710.19411
G1 X170.84 Y134.40 E1711.39498
G1 X134.16 Y134.40 E1712.61205
G0 F12000 X134.56 Y134.80
;TYPE:WALL-OUTER
G1 F2400 X134.56 Y170.20 E1713.78645
G1 X170.44 Y170.20 E1714.97704
G1 X170.44 Y134.80 E1716.15143
G1 X134.56 Y134.80 E1717.34202
G0 F12000 X134.56 Y134.50
G0 X133.19 Y133.36
G0 X132.89 Y133.15
G1 F2400 X172.11 Y133.15 E1718.64329
G1 X172.11 Y171.85 E1719.92731
G1 X132.89 Y171.85 E1721.22857
G1 X132.89 Y133.15 E1722.51259
G0 F12000 X133.89 Y134.15
;LAYER:35
G0 X133.76 Y134.00 Z7.30
;TYPE:WALL-INNER
G1 F2400 X133.76 Y171.00 E1723.73994
G1 X171.24 Y171.00 E1724.98348
G1 X171.24 Y134.00 E1726.21083
G1 X133.76 Y134.00 E1727.45437
G0 F12000 X133.69 Y133.95
G1 F2400 X171.31 Y133.95 E1728.70269
G1 X171.31 Y171.05 E1729.93375
G1 X133.69 Y171.05 E1731.18207
G1 X133.69 Y133.95 E1732.41313
G0 F12000 X133.29 Y133.55
G1 F2400 X171.71 Y133.55 E1733.68793
G1 X171.71 Y171.45 E1734.94547
G1 X133.29 Y171.45 E1736.22026
G1 X133.29 Y133.55 E1737.47780
G0 F12000 X134.16 Y134.40
G1 F2400 X134.16 Y170.60 E1738.67867
G1 X170.84 Y170.60 E1739.89574
G1 X170.84 Y134.40 E1741.09661
G1 X134.16 Y134.40 E1742.31368
G0 F12000 X134.56 Y134.80
;TYPE:WALL-OUTER
G1 F2400 X134.56 Y170.20 E1743.48808
G1 X170.44 Y170.20 E1744.67866
G1 X170.44 Y134.80 E1745.85306
G1 X134.56 Y134.80 E1747.04365
G0 F12000 X134.56 Y134.50
G0 X133.19 Y133.36
G0 X132.89 Y133.15
G1 F2400 X172.11 Y133.15 E1748.34492
G1 X172.11 Y171.85 E1749.62894
G1 X132.89 Y171.85 E1750.93020
G1 X132.89 Y133.15 E1752.21422
G0 F12000 X133.89 Y134.15
;LAYER:36
G0 X133.76 Y134.00 Z7.50
;TYPE:WALL-INNER
G1 F2400 X133.76 Y171.00 E1753.44157
G1 X171.24 Y171.00 E1754.68511
G1 X171.24 Y134.00 E1755.91246
G1 X133.76 Y134.00 E1757.15600
G0 F12000 X133.69 Y133.95
G1 F2400 X171.31 Y133.95 E1758.40431
G1 X171.31 Y171.05 E1759.63538
G1 X133.69 Y171.05 E1760.88370
G1 X133.69 Y133.95 E1762.11476
G0 F12000 X133.29 Y133.55
G1 F2400 X171.71 Y133.55 E1763.38956
G1 X171.71 Y171.45 E1764.64710
G1 X133.29 Y171.45 E1765.92189
G1 X133.29 Y133.55 E1767.17943
G0 F12000 X134.16 Y134.40
G1 F2400 X134.16 Y170.60 E1768.38030
G1 X170.84 Y170.60 E1769.59737
G1 X170.84 Y134.40 E1770.79824
G1 X134.16 Y134.40 E1772.01531
G0 F12000 X134.56 Y134.80
;TYPE:WALL-OUTER
G1 F2400 X134.56 Y170.20 E1773.18970
G1 X170.44 Y170.20 E1774.38029
G1 X170.44 Y134.80 E1775.55469
G1 X134.56 Y134.80 E1776.74528
G0 F12000 X134.56 Y134.50
G0 X133.19 Y133.36
G0 X132.89 Y133.15
G1 F2400 X172.11 Y133.15 E1778.04655
G1 X172.11 Y171.85 E1779.33057
G1 X132.89 Y171.85 E1780.63183
G1 X132.89 Y133.15 E1781.91585
G0 F12000 X133.89 Y134.15
M107
G1 F2400 E1780.71585
G0 F12000 X133.89 Y134.15 Z12.41
;-- END GCODE --
M104 S0     ;extruder heater off
M140 S0     ;heated bed heater off (if you have it)
G91         ;relative positioning
G1 E-1 F300   ;retract the filament a bit before lifting the nozzle, to release some of the pressure
G1 Z+0.5 E-5 X-20 Y-20 F12000 ;move Z up a bit and retract filament even more
G28 X0 Y0     ;move X/Y to min endstops, so the head is out of the way
M84           ;steppers off
G90           ;absolute positioning
;CURA_PROFILE_STRING:eNrtWk1v20gSvTLG/og+JthIS1LSOBmBh0liezBIZgYjLTbxhWiRLak3JJtoNi3Lhv77vmp+iJLlrDMxspOsdLDDYlV1VfWrV2VECV8LHS6FXCxN4PZ9Z8WTJDRLGX3MRFEEHkRaGM0jI1UWiozPEhFMdSmcQiUyDhPrYGvg9l84cwkfscgKadaB7zqZurlJRFjIG4H3QyfXMjNhkQsRB0O3fjQizYXmptQi8P0DUj84IBwcEg5b4UzEO45PXaco81xpE/yqMuHkCTdzpdOQx0tRIMPglZZpoxPGJU9CcW10Wb1TZumsZC5Co1ZCB+c8KURHEF6ppExF4I0cpW6Q8FKKJK7VUBSeCsQUS/w2MPf6p6O7YkrzjnBwSDjsCueJWgWe6/bd7n01Nd6V8lSVmdm/W5ts8+qH/qj7LpVZiIcrkcBq502k0pnMFhUkdi1kulM9BLFz3lLlJHNmyhiV7kBo4FhYueFKxmYZzmGhNGXnqNm/RQTsyOyjNVZXQic8t8FDgMpXYdaZ+27nhAqqdUlGjswsTqtnUpNZIYy7L7juCCKlEluLGvWSLnvozHnTGXHdGh8l0JPITKA+tp61aMHzYABH1VNTo0RkC7MEbOgMcjYvEVjblJWsioJq0D6FKb+2kjauOaSAOqKqhUvB0aNybmoUVk1rUPpOD1f1qSS2JnVVCchNK5h1LoK3yKhoRTxbgAsGbUuF1tYeP9oKr9cAbGF4FlHzn7bym66YDsql5glRRB2pTHOQRqriRjJDa3aLijvUfI4ycr2QWTAikNOzVSlyHhEuvUY644XYA9lWTiYWazZEKwd9CA3k7Rr5+y+7lvVLLjXdM55rQVHWuoSaIvBR5GvAX2sJyIRlZnuSaBc1DnlzD/erzFpK6eogDZWLLJxJUxxSQCcSJV+hNkaaaEnVqdTypEQBUVV0xCJoeiwSlGR4HfS8PdGaRFGpNREPoGLb+2+4TG36i4gubNzrscn0pz+m7OL1b2/OWK93Mp4kMhIxA92yKbJgP7F3nKIQBZsILfHLa5W4+ZHdxny9oZ9G4Bf12uZk/IoXMmJoS4Pwix/ZWyopq1oFJklnnG3Yv1Ax6NzuzrQNOwdOIe6OKbj+nSYGm1Bj4WVnRm3YpMIsxDV6of5Hy2StzT7xblhH6U2N9l29im/b0ynL9vA65fOa4hluOK7Crii/tk07olWV+aJjFanCdK3oeXPyznN/YBN/NHrCxvbi2EqaJTNLwUAvTGUnF77H6s8Y40aj7Fc8KUVxcvHSbd/wGSikNILlCmVERriWrXOrcp/7F7VvkA0zioksLsBLcO+/fPJkjCtTq8KihZdG9RIBVk/I+4XH3oMq2Qe4v/TQ9ez8tkv6GzaucMp4FrPKPc5tRj2L1Spj3ihNKc6XbHJ7Z3+Ah58FN2yqGEmRsM/O2py3n/GN0Mo6t1MuBnArKqcYzzF72Nlgz2xca7KBm6ZMzRkxNkPi0cfPP4bxBZdZVZDTEfvgU0UOlEMLW4VZuVgIbdWxYD1EzZaZflChDxl0Cj0TiyqWPTUHF9thhbNf32w5ARcwZBN3pzLUzZycqvkcCkO3VbByOijuqLCncs7WqmRLnMmkeYYyetvSaYFrB+ft4BNBnvUQ6MB1Kx3bjhU6m7bhDDyKswAZwWiAwtBqVMvsc4IsnAtMD1aoVNBdWphpUAwwRIdc/t3tj3DUiL3voeAfeoeqbmt+ycq8PpJq2UTURgPwZ4AyuUXfvIcvt9M97//xgcLBAtB20XMEZeOhBYDJgqnSNCGu+Prk3YthF2GFETnQX9iid/r73hYfo2sUwqNhgvZZbBzb5n5z0/+Nx+v3r9bsdan5waGAyd13HzQ2mO96Q3bhs4pEf6aUn/5SJmv74tlXmBpfjbfH7zzcTsNZe3/eAE3/zLCQW3sAgscxtQb6BIxHbdPRZbS4kDvqwIMUeL+rg25esql3yJP/p1y5Xx7Ulw2w021r3B1f1CTbPry3Ca3SZbdTL++qePcNsU9NrqnHDn7GkxWtdnQKWfrgkoZWv2SKee7hIeY96hCrzurdHv6bdHMydR+U9FzqwnxLae9ePCgFVG2xTyMnBffwBcZLxt6+fsOKSAuRAaDeacV20On3+zRkW+49w61fvMY/q/k6bSfoneAOj1yy8T7TZnj/IX9ibH/i85CJ/injb3bU35/U4+wAe04/sRHsaX7OfjB46H5wnNjHif19TWz//3FiH9eU45qyt6YM/pdrCtn4x9XmuNo8/mozPK42f6nVxn+81ea4JX21LWnwoNk5RNDf0cLwsNVw8H0lfVwNj6vh3mo4/NZWQ7IZHNfJ4zr5uOtk/Q2Z7hcqWuH2f1OrL/jsKFlJR0MLzNhI9KPiKnBwCRXNnNW4bBfWinxmwqzQmTbp+ssdLQfZC7AXDUkrfc5WSxi0nW6XibRMjMyTli500T8ZT5coKp1GxcV6Y1FuUUROp0+zZw5qYv5K8fE5NWAT3n8ACM4G4Q==
;CURA_PROFILE_STRING:eNrtWk1v20gSvTLG/og+JthIS1LSOBmBh0liezBIZgYjLTbxhWiRLak3JJtoNi3Lhv77vmp+iJLlrDMxspOsdLDDYlV1VfWrV2VECV8LHS6FXCxN4PZ9Z8WTJDRLGX3MRFEEHkRaGM0jI1UWiozPEhFMdSmcQiUyDhPrYGvg9l84cwkfscgKadaB7zqZurlJRFjIG4H3QyfXMjNhkQsRB0O3fjQizYXmptQi8P0DUj84IBwcEg5b4UzEO45PXaco81xpE/yqMuHkCTdzpdOQx0tRIMPglZZpoxPGJU9CcW10Wb1TZumsZC5Co1ZCB+c8KURHEF6ppExF4I0cpW6Q8FKKJK7VUBSeCsQUS/w2MPf6p6O7YkrzjnBwSDjsCueJWgWe6/bd7n01Nd6V8lSVmdm/W5ts8+qH/qj7LpVZiIcrkcBq502k0pnMFhUkdi1kulM9BLFz3lLlJHNmyhiV7kBo4FhYueFKxmYZzmGhNGXnqNm/RQTsyOyjNVZXQic8t8FDgMpXYdaZ+27nhAqqdUlGjswsTqtnUpNZIYy7L7juCCKlEluLGvWSLnvozHnTGXHdGh8l0JPITKA+tp61aMHzYABH1VNTo0RkC7MEbOgMcjYvEVjblJWsioJq0D6FKb+2kjauOaSAOqKqhUvB0aNybmoUVk1rUPpOD1f1qSS2JnVVCchNK5h1LoK3yKhoRTxbgAsGbUuF1tYeP9oKr9cAbGF4FlHzn7bym66YDsql5glRRB2pTHOQRqriRjJDa3aLijvUfI4ycr2QWTAikNOzVSlyHhEuvUY644XYA9lWTiYWazZEKwd9CA3k7Rr5+y+7lvVLLjXdM55rQVHWuoSaIvBR5GvAX2sJyIRlZnuSaBc1DnlzD/erzFpK6eogDZWLLJxJUxxSQCcSJV+hNkaaaEnVqdTypEQBUVV0xCJoeiwSlGR4HfS8PdGaRFGpNREPoGLb+2+4TG36i4gubNzrscn0pz+m7OL1b2/OWK93Mp4kMhIxA92yKbJgP7F3nKIQBZsILfHLa5W4+ZHdxny9oZ9G4Bf12uZk/IoXMmJoS4Pwix/ZWyopq1oFJklnnG3Yv1Ax6NzuzrQNOwdOIe6OKbj+nSYGm1Bj4WVnRm3YpMIsxDV6of5Hy2StzT7xblhH6U2N9l29im/b0ynL9vA65fOa4hluOK7Crii/tk07olWV+aJjFanCdK3oeXPyznN/YBN/NHrCxvbi2EqaJTNLwUAvTGUnF77H6s8Y40aj7Fc8KUVxcvHSbd/wGSikNILlCmVERriWrXOrcp/7F7VvkA0zioksLsBLcO+/fPJkjCtTq8KihZdG9RIBVk/I+4XH3oMq2Qe4v/TQ9ez8tkv6GzaucMp4FrPKPc5tRj2L1Spj3ihNKc6XbHJ7Z3+Ah58FN2yqGEmRsM/O2py3n/GN0Mo6t1MuBnArKqcYzzF72Nlgz2xca7KBm6ZMzRkxNkPi0cfPP4bxBZdZVZDTEfvgU0UOlEMLW4VZuVgIbdWxYD1EzZaZflChDxl0Cj0TiyqWPTUHF9thhbNf32w5ARcwZBN3pzLUzZycqvkcCkO3VbByOijuqLCncs7WqmRLnMmkeYYyetvSaYFrB+ft4BNBnvUQ6MB1Kx3bjhU6m7bhDDyKswAZwWiAwtBqVMvsc4IsnAtMD1aoVNBdWphpUAwwRIdc/t3tj3DUiL3voeAfeoeqbmt+ycq8PpJq2UTURgPwZ4AyuUXfvIcvt9M97//xgcLBAtB20XMEZeOhBYDJgqnSNCGu+Prk3YthF2GFETnQX9iid/r73hYfo2sUwqNhgvZZbBzb5n5z0/+Nx+v3r9bsdan5waGAyd13HzQ2mO96Q3bhs4pEf6aUn/5SJmv74tlXmBpfjbfH7zzcTsNZe3/eAE3/zLCQW3sAgscxtQb6BIxHbdPRZbS4kDvqwIMUeL+rg25esql3yJP/p1y5Xx7Ulw2w021r3B1f1CTbPry3Ca3SZbdTL++qePcNsU9NrqnHDn7GkxWtdnQKWfrgkoZWv2SKee7hIeY96hCrzurdHv6bdHMydR+U9FzqwnxLae9ePCgFVG2xTyMnBffwBcZLxt6+fsOKSAuRAaDeacV20On3+zRkW+49w61fvMY/q/k6bSfoneAOj1yy8T7TZnj/IX9ibH/i85CJ/injb3bU35/U4+wAe04/sRHsaX7OfjB46H5wnNjHif19TWz//3FiH9eU45qyt6YM/pdrCtn4x9XmuNo8/mozPK42f6nVxn+81ea4JX21LWnwoNk5RNDf0cLwsNVw8H0lfVwNj6vh3mo4/NZWQ7IZHNfJ4zr5uOtk/Q2Z7hcqWuH2f1OrL/jsKFlJR0MLzNhI9KPiKnBwCRXNnNW4bBfWinxmwqzQmTbp+ssdLQfZC7AXDUkrfc5WSxi0nW6XibRMjMyTli500T8ZT5coKp1GxcV6Y1FuUUROp0+zZw5qYv5K8fE5NWAT3n8ACM4G4Q==

