;-- START GCODE --
;Sliced for Type A Machines Series 1
;Sliced at: Sun 20-11-2016 20:38:52
;Basic settings: Layer height: 0.2 Walls: 1.2 Fill: 20
;Print Speed: 40 Support: 0
;Retraction Speed: 40 Retraction Distance: 1.2
;Print time: #P_TIME#
;Filament used: #F_AMNT#m #F_WGHT#g
;Filament cost: #F_COST#
M106 S255	 ;start with the fan on
G21        ;metric values
G90        ;absolute positioning
M106 S255    ;start with the fan on
G28     ;move to endstops
G29		;allows for auto-levelling
G1 X150 Y5  Z15.0 F12000 ;center and move the platform down 15mm
M109 S220 ;Heat To temp
G92 E0                  ;zero the extruded length
G1 F200 E30              ;extrude 30mm of feed stock
G92 E0                  ;zero the extruded length again
G1 X175 Y25  Z0 F12000 ;remove bugger
G1 X220 F12000 ;remove bugger
G1 X150 Y150  Z15 F12000 ;recenter and begin
G1 F12000

;Layer count: 30
;LAYER:0
M106 S255
G0 F12000 X175.05 Y177.07 Z0.30
;TYPE:SKIRT
G1 F2400 X175.05 Y207.92 E1.53896
G1 X205.90 Y207.92 E3.07793
G1 X205.90 Y177.07 E4.61689
G1 X175.05 Y177.07 E6.15585
G0 F12000 X174.65 Y176.67
G1 F2400 X174.65 Y208.32 E7.73473
G1 X206.30 Y208.32 E9.31360
G1 X206.30 Y176.67 E10.89248
G1 X174.65 Y176.67 E12.47135
G0 F12000 X174.61 Y176.27
G1 F2400 X169.18 Y168.39 E12.94865
G1 X169.17 Y168.38 E12.94940
G1 X169.11 Y168.31 E12.95410
G1 X169.03 Y168.23 E12.95961
G1 X168.96 Y168.16 E12.96476
G1 X168.90 Y168.11 E12.96851
G1 X168.80 Y168.03 E12.97484
G1 X168.75 Y168.00 E12.97784
G1 X168.66 Y167.94 E12.98338
G1 X168.56 Y167.88 E12.98923
G1 X168.52 Y167.86 E12.99106
G1 X168.52 Y172.60 E13.22734
G1 X174.25 Y176.29 E13.56717
G1 X174.25 Y208.35 E15.16685
G1 X166.38 Y213.78 E15.64364
G1 X166.35 Y213.81 E15.64563
G1 X166.29 Y213.86 E15.64966
G1 X166.21 Y213.93 E15.65517
G1 X166.14 Y214.01 E15.66032
G1 X166.09 Y214.07 E15.66414
G1 X166.03 Y214.14 E15.66887
G1 X165.98 Y214.21 E15.67320
G1 X165.92 Y214.31 E15.67870
G1 X165.86 Y214.41 E15.68473
G1 X165.82 Y214.49 E15.68899
G1 X165.78 Y214.59 E15.69460
G1 X165.74 Y214.68 E15.69964
G1 X165.72 Y214.74 E15.70248
G1 X165.69 Y214.86 E15.70885
G1 X165.67 Y214.94 E15.71304
G1 X165.65 Y215.04 E15.71811
G1 X165.64 Y215.15 E15.72344
G1 X165.63 Y215.22 E15.72725
G1 X165.63 Y215.36 E15.73398
G1 X165.63 Y215.43 E15.73728
G1 X165.64 Y215.52 E15.74218
G1 X165.65 Y215.64 E15.74806
G1 X165.66 Y215.71 E15.75181
G1 X165.69 Y215.81 E15.75687
G1 X165.72 Y215.93 E15.76296
G1 X165.74 Y216.00 E15.76675
G1 X165.79 Y216.12 E15.77305
G1 X165.81 Y216.17 E15.77589
G1 X165.86 Y216.28 E15.78162
G1 X165.91 Y216.36 E15.78660
G1 X165.97 Y216.46 E15.79257
G1 X166.02 Y216.53 E15.79636
G1 X166.09 Y216.61 E15.80180
G1 X166.14 Y216.67 E15.80587
G1 X166.22 Y216.75 E15.81138
G1 X166.29 Y216.83 E15.81653
G1 X166.36 Y216.88 E15.82106
G1 X166.42 Y216.94 E15.82511
G1 X166.49 Y216.99 E15.82944
G1 X166.59 Y217.04 E15.83500
G1 X166.69 Y217.10 E15.84097
G1 X166.77 Y217.14 E15.84523
G1 X166.87 Y217.19 E15.85084
G1 X166.96 Y217.22 E15.85588
G1 X167.02 Y217.24 E15.85872
G1 X167.14 Y217.28 E15.86509
G1 X167.23 Y217.30 E15.86964
G1 X167.32 Y217.31 E15.87435
G1 X167.43 Y217.33 E15.87968
G1 X167.52 Y217.33 E15.88428
G1 X167.65 Y217.34 E15.89072
G1 X167.71 Y217.34 E15.89362
G1 X167.80 Y217.33 E15.89842
G1 X167.92 Y217.31 E15.90430
G1 X168.00 Y217.30 E15.90855
G1 X168.09 Y217.28 E15.91315
G1 X168.21 Y217.25 E15.91921
G1 X168.28 Y217.23 E15.92272
G1 X168.41 Y217.17 E15.92994
G1 X168.46 Y217.15 E15.93240
G1 X168.56 Y217.10 E15.93786
G1 X168.64 Y217.06 E15.94285
G1 X168.73 Y217.00 E15.94794
G1 X168.82 Y216.94 E15.95317
G1 X168.89 Y216.88 E15.95807
G1 X168.94 Y216.84 E15.96143
G1 X169.04 Y216.75 E15.96771
G1 X169.10 Y216.68 E15.97273
G1 X169.17 Y216.60 E15.97761
G1 X169.22 Y216.54 E15.98166
G1 X169.31 Y216.41 E15.98965
G1 X174.29 Y208.72 E16.44681
G1 X206.33 Y208.72 E18.04539
G1 X211.76 Y216.58 E18.52218
G1 X211.79 Y216.61 E18.52418
G1 X211.84 Y216.67 E18.52821
G1 X211.91 Y216.75 E18.53371
G1 X211.99 Y216.83 E18.53886
G1 X212.06 Y216.88 E18.54339
G1 X212.12 Y216.94 E18.54744
G1 X212.19 Y216.99 E18.55178
G1 X212.29 Y217.04 E18.55734
G1 X212.39 Y217.10 E18.56331
G1 X212.47 Y217.14 E18.56757
G1 X212.57 Y217.19 E18.57317
G1 X212.66 Y217.22 E18.57821
G1 X212.72 Y217.24 E18.58105
G1 X212.84 Y217.28 E18.58742
G1 X212.93 Y217.30 E18.59197
G1 X213.02 Y217.31 E18.59669
G1 X213.13 Y217.33 E18.60202
G1 X213.22 Y217.33 E18.60662
G1 X213.35 Y217.34 E18.61306
G1 X213.41 Y217.34 E18.61595
G1 X213.50 Y217.33 E18.62075
G1 X213.62 Y217.31 E18.62663
G1 X213.71 Y217.30 E18.63089
G1 X213.79 Y217.28 E18.63549
G1 X213.91 Y217.25 E18.64154
G1 X213.98 Y217.23 E18.64506
G1 X214.02 Y217.21 E18.64746
G1 X214.02 Y213.42 E18.83654
G1 X206.70 Y208.68 E19.27202
G1 X206.70 Y176.63 E20.87060
G1 X214.02 Y171.57 E21.31479
G1 X214.02 Y167.78 E21.50427
G1 X213.97 Y167.76 E21.50689
G1 X213.93 Y167.74 E21.50951
G1 X213.81 Y167.71 E21.51567
G1 X213.72 Y167.69 E21.52022
G1 X213.62 Y167.67 E21.52494
G1 X213.52 Y167.66 E21.53027
G1 X213.43 Y167.65 E21.53482
G1 X213.29 Y167.65 E21.54151
G1 X213.24 Y167.65 E21.54420
G1 X213.14 Y167.66 E21.54901
G1 X213.03 Y167.67 E21.55488
G1 X212.94 Y167.69 E21.55914
G1 X212.85 Y167.71 E21.56374
G1 X212.74 Y167.74 E21.56979
G1 X212.67 Y167.76 E21.57300
G1 X212.53 Y167.81 E21.58053
G1 X212.49 Y167.83 E21.58276
G1 X212.38 Y167.89 E21.58923
G1 X212.30 Y167.93 E21.59341
G1 X212.22 Y167.98 E21.59807
G1 X212.13 Y168.04 E21.60373
G1 X212.06 Y168.10 E21.60850
G1 X211.99 Y168.16 E21.61271
G1 X211.91 Y168.23 E21.61821
G1 X211.85 Y168.30 E21.62280
G1 X211.79 Y168.37 E21.62743
G1 X211.73 Y168.45 E21.63223
G1 X211.64 Y168.57 E21.63957
G1 X206.66 Y176.27 E22.09738
G1 X174.61 Y176.27 E23.69611
G0 F12000 X174.82 Y175.87
G1 F2400 X169.51 Y168.16 E24.16311
G1 X169.47 Y168.11 E24.16621
G1 X169.41 Y168.04 E24.17095
G1 X169.32 Y167.95 E24.17744
G1 X169.23 Y167.87 E24.18333
G1 X169.15 Y167.79 E24.18874
G1 X169.06 Y167.73 E24.19432
G1 X168.95 Y167.65 E24.20091
G1 X168.86 Y167.59 E24.20652
G1 X168.76 Y167.53 E24.21208
G1 X168.66 Y167.48 E24.21806
G1 X168.55 Y167.44 E24.22373
G1 X168.43 Y167.39 E24.23021
G1 X168.33 Y167.35 E24.23537
G1 X168.22 Y167.32 E24.24091
G1 X168.12 Y167.30 E24.24608
G1 X168.12 Y172.82 E24.52122
G1 X173.85 Y176.51 E24.86105
G1 X173.85 Y208.14 E26.43938
G1 X166.14 Y213.46 E26.90670
G1 X166.10 Y213.50 E26.90947
G1 X166.03 Y213.56 E26.91411
G1 X165.93 Y213.65 E26.92078
G1 X165.85 Y213.73 E26.92653
G1 X165.79 Y213.81 E26.93141
G1 X165.72 Y213.89 E26.93674
G1 X165.64 Y214.01 E26.94405
G1 X165.57 Y214.11 E26.94979
G1 X165.52 Y214.21 E26.95564
G1 X165.46 Y214.32 E26.96191
G1 X165.41 Y214.43 E26.96803
G1 X165.37 Y214.54 E26.97397
G1 X165.35 Y214.60 E26.97681
G1 X165.30 Y214.77 E26.98551
G1 X165.28 Y214.87 E26.99099
G1 X165.26 Y214.98 E26.99651
G1 X165.24 Y215.11 E27.00294
G1 X165.23 Y215.22 E27.00840
G1 X165.23 Y215.37 E27.01578
G1 X165.23 Y215.44 E27.01962
G1 X165.24 Y215.56 E27.02533
G1 X165.26 Y215.69 E27.03206
G1 X165.27 Y215.80 E27.03748
G1 X165.30 Y215.92 E27.04382
G1 X165.33 Y216.04 E27.04992
G1 X165.37 Y216.14 E27.05497
G1 X165.41 Y216.26 E27.06176
G1 X165.45 Y216.35 E27.06638
G1 X165.51 Y216.46 E27.07252
G1 X165.57 Y216.57 E27.07889
G1 X165.63 Y216.67 E27.08478
G1 X165.71 Y216.78 E27.09166
G1 X165.76 Y216.85 E27.09564
G1 X165.86 Y216.96 E27.10300
G1 X165.93 Y217.04 E27.10833
G1 X166.01 Y217.11 E27.11394
G1 X166.10 Y217.19 E27.11974
G1 X166.17 Y217.25 E27.12436
G1 X166.29 Y217.33 E27.13163
G1 X166.39 Y217.39 E27.13737
G1 X166.49 Y217.45 E27.14323
G1 X166.60 Y217.51 E27.14950
G1 X166.72 Y217.56 E27.15562
G1 X166.83 Y217.60 E27.16155
G1 X166.89 Y217.62 E27.16503
G1 X167.05 Y217.67 E27.17310
G1 X167.16 Y217.69 E27.17857
G1 X167.26 Y217.71 E27.18409
G1 X167.39 Y217.72 E27.19052
G1 X167.50 Y217.73 E27.19598
G1 X167.65 Y217.74 E27.20337
G1 X167.73 Y217.74 E27.20721
G1 X167.84 Y217.73 E27.21291
G1 X167.97 Y217.71 E27.21965
G1 X168.08 Y217.69 E27.22506
G1 X168.21 Y217.66 E27.23140
G1 X168.32 Y217.63 E27.23750
G1 X168.42 Y217.60 E27.24271
G1 X168.54 Y217.55 E27.24923
G1 X168.64 Y217.51 E27.25424
G1 X168.75 Y217.46 E27.26039
G1 X168.85 Y217.40 E27.26647
G1 X168.95 Y217.33 E27.27248
G1 X169.05 Y217.26 E27.27843
G1 X169.13 Y217.20 E27.28365
G1 X169.23 Y217.12 E27.28991
G1 X169.32 Y217.03 E27.29616
G1 X169.40 Y216.94 E27.30226
G1 X169.47 Y216.87 E27.30704
G1 X169.55 Y216.76 E27.31393
G1 X169.63 Y216.65 E27.32102
G1 X174.51 Y209.12 E27.76852
G1 X206.12 Y209.12 E29.34580
G1 X211.45 Y216.83 E29.81331
G1 X211.48 Y216.87 E29.81590
G1 X211.53 Y216.93 E29.82018
G1 X211.63 Y217.04 E29.82720
G1 X211.71 Y217.11 E29.83281
G1 X211.80 Y217.19 E29.83861
G1 X211.87 Y217.25 E29.84323
G1 X211.99 Y217.33 E29.85050
G1 X212.09 Y217.39 E29.85625
G1 X212.19 Y217.45 E29.86210
G1 X212.30 Y217.51 E29.86837
G1 X212.41 Y217.56 E29.87449
G1 X212.53 Y217.60 E29.88043
G1 X212.59 Y217.62 E29.88390
G1 X212.75 Y217.67 E29.89197
G1 X212.85 Y217.69 E29.89744
G1 X212.96 Y217.71 E29.90296
G1 X213.09 Y217.72 E29.90940
G1 X213.20 Y217.73 E29.91485
G1 X213.35 Y217.74 E29.92224
G1 X213.43 Y217.74 E29.92608
G1 X213.54 Y217.73 E29.93179
G1 X213.67 Y217.71 E29.93852
G1 X213.78 Y217.69 E29.94393
G1 X213.91 Y217.66 E29.95027
G1 X214.02 Y217.63 E29.95637
G1 X214.12 Y217.60 E29.96158
G1 X214.24 Y217.55 E29.96810
G1 X214.34 Y217.51 E29.97311
G1 X214.42 Y217.47 E29.97804
G1 X214.42 Y213.20 E30.19092
G1 X207.10 Y208.46 E30.62637
G1 X207.10 Y176.84 E32.20365
G1 X214.42 Y171.79 E32.64781
G1 X214.42 Y167.52 E32.86074
G1 X214.35 Y167.48 E32.86464
G1 X214.24 Y167.43 E32.87114
G1 X214.11 Y167.38 E32.87767
G1 X214.06 Y167.36 E32.88073
G1 X213.90 Y167.32 E32.88880
G1 X213.79 Y167.30 E32.89427
G1 X213.68 Y167.28 E32.89979
G1 X213.56 Y167.26 E32.90623
G1 X213.46 Y167.25 E32.91108
G1 X213.29 Y167.25 E32.91967
G1 X213.22 Y167.25 E32.92291
G1 X213.11 Y167.26 E32.92861
G1 X212.97 Y167.28 E32.93535
G1 X212.87 Y167.29 E32.94076
G1 X212.74 Y167.32 E32.94710
G1 X212.62 Y167.35 E32.95320
G1 X212.53 Y167.39 E32.95841
G1 X212.40 Y167.43 E32.96493
G1 X212.30 Y167.48 E32.97034
G1 X212.19 Y167.53 E32.97647
G1 X212.10 Y167.59 E32.98197
G1 X211.99 Y167.65 E32.98815
G1 X211.90 Y167.72 E32.99410
G1 X211.82 Y167.78 E32.99894
G1 X211.71 Y167.88 E33.00629
G1 X211.63 Y167.95 E33.01162
G1 X211.55 Y168.03 E33.01737
G1 X211.48 Y168.11 E33.02261
G1 X211.40 Y168.22 E33.02957
G1 X211.32 Y168.33 E33.03609
G1 X206.44 Y175.87 E33.48420
G1 X174.82 Y175.87 E35.06163
G0 F12000 X175.03 Y175.47
G1 F2400 X169.83 Y167.93 E35.51871
G1 X169.79 Y167.88 E35.52163
G1 X169.70 Y167.77 E35.52902
G1 X169.60 Y167.67 E35.53604
G1 X169.49 Y167.56 E35.54349
G1 X169.40 Y167.48 E35.54982
G1 X169.30 Y167.40 E35.55601
G1 X169.19 Y167.33 E35.56269
G1 X169.05 Y167.24 E35.57072
G1 X168.95 Y167.18 E35.57646
G1 X168.83 Y167.12 E35.58356
G1 X168.71 Y167.06 E35.59017
G1 X168.58 Y167.02 E35.59685
G1 X168.44 Y166.97 E35.60400
G1 X168.29 Y166.93 E35.61181
G1 X168.17 Y166.90 E35.61795
G1 X168.05 Y166.88 E35.62438
G1 X167.90 Y166.86 E35.63198
G1 X167.76 Y166.85 E35.63853
G1 X167.72 Y166.85 E35.64058
G1 X167.72 Y173.03 E35.94910
G1 X173.45 Y176.72 E36.28892
G1 X173.45 Y207.93 E37.84590
G1 X165.91 Y213.14 E38.30315
G1 X165.85 Y213.18 E38.30649
G1 X165.76 Y213.26 E38.31289
G1 X165.65 Y213.37 E38.32037
G1 X165.55 Y213.47 E38.32732
G1 X165.48 Y213.55 E38.33302
G1 X165.39 Y213.66 E38.34005
G1 X165.31 Y213.78 E38.34682
G1 X165.23 Y213.91 E38.35481
G1 X165.17 Y214.01 E38.36062
G1 X165.10 Y214.14 E38.36789
G1 X165.04 Y214.27 E38.37511
G1 X165.00 Y214.40 E38.38169
G1 X164.95 Y214.53 E38.38846
G1 X164.92 Y214.65 E38.39514
G1 X164.88 Y214.80 E38.40277
G1 X164.86 Y214.92 E38.40885
G1 X164.84 Y215.07 E38.41624
G1 X164.83 Y215.19 E38.42224
G1 X164.83 Y215.36 E38.43088
G1 X164.83 Y215.46 E38.43587
G1 X164.84 Y215.62 E38.44352
G1 X164.85 Y215.72 E38.44875
G1 X164.88 Y215.89 E38.45730
G1 X164.91 Y216.01 E38.46374
G1 X164.95 Y216.15 E38.47083
G1 X164.99 Y216.27 E38.47718
G1 X165.05 Y216.42 E38.48515
G1 X165.09 Y216.52 E38.49071
G1 X165.16 Y216.65 E38.49792
G1 X165.22 Y216.78 E38.50489
G1 X165.30 Y216.90 E38.51209
G1 X165.38 Y217.01 E38.51879
G1 X165.45 Y217.10 E38.52490
G1 X165.56 Y217.22 E38.53275
G1 X165.65 Y217.32 E38.53928
G1 X165.75 Y217.41 E38.54624
G1 X165.84 Y217.50 E38.55260
G1 X165.94 Y217.58 E38.55900
G1 X166.06 Y217.66 E38.56590
G1 X166.19 Y217.74 E38.57393
G1 X166.30 Y217.80 E38.58001
G1 X166.42 Y217.87 E38.58684
G1 X166.56 Y217.93 E38.59452
G1 X166.68 Y217.97 E38.60064
G1 X166.81 Y218.01 E38.60740
G1 X166.94 Y218.05 E38.61409
G1 X167.08 Y218.08 E38.62171
G1 X167.20 Y218.10 E38.62779
G1 X167.35 Y218.12 E38.63518
G1 X167.48 Y218.13 E38.64173
G1 X167.65 Y218.14 E38.65002
G1 X167.74 Y218.13 E38.65481
G1 X167.90 Y218.12 E38.66246
G1 X168.01 Y218.11 E38.66809
G1 X168.17 Y218.08 E38.67645
G1 X168.30 Y218.06 E38.68268
G1 X168.43 Y218.02 E38.68977
G1 X168.55 Y217.98 E38.69591
G1 X168.71 Y217.92 E38.70436
G1 X168.81 Y217.88 E38.70975
G1 X168.93 Y217.81 E38.71686
G1 X169.06 Y217.74 E38.72401
G1 X169.17 Y217.67 E38.73031
G1 X169.29 Y217.59 E38.73772
G1 X169.38 Y217.51 E38.74387
G1 X169.49 Y217.42 E38.75102
G1 X169.60 Y217.32 E38.75829
G1 X169.70 Y217.21 E38.76577
G1 X169.78 Y217.12 E38.77143
G1 X169.87 Y217.00 E38.77932
G1 X169.98 Y216.85 E38.78817
G1 X174.73 Y209.52 E39.22427
G1 X205.91 Y209.52 E40.78019
G1 X211.11 Y217.05 E41.23701
G1 X211.16 Y217.11 E41.24078
G1 X211.25 Y217.21 E41.24726
G1 X211.35 Y217.32 E41.25467
G1 X211.45 Y217.41 E41.26162
G1 X211.54 Y217.50 E41.26798
G1 X211.65 Y217.58 E41.27438
G1 X211.76 Y217.66 E41.28129
G1 X211.89 Y217.74 E41.28932
G1 X212.00 Y217.80 E41.29539
G1 X212.12 Y217.87 E41.30222
G1 X212.26 Y217.93 E41.30990
G1 X212.38 Y217.97 E41.31602
G1 X212.51 Y218.01 E41.32279
G1 X212.63 Y218.05 E41.32947
G1 X212.78 Y218.08 E41.33709
G1 X212.90 Y218.10 E41.34317
G1 X213.05 Y218.12 E41.35057
G1 X213.18 Y218.13 E41.35712
G1 X213.35 Y218.14 E41.36540
G1 X213.44 Y218.13 E41.37019
G1 X213.60 Y218.12 E41.37785
G1 X213.71 Y218.11 E41.38347
G1 X213.87 Y218.08 E41.39183
G1 X214.00 Y218.06 E41.39807
G1 X214.13 Y218.02 E41.40516
G1 X214.25 Y217.98 E41.41130
G1 X214.41 Y217.92 E41.41975
G1 X214.51 Y217.88 E41.42513
G1 X214.63 Y217.81 E41.43225
G1 X214.76 Y217.74 E41.43940
G1 X214.82 Y217.70 E41.44323
G1 X214.82 Y212.98 E41.67851
G1 X207.50 Y208.24 E42.11396
G1 X207.50 Y177.05 E43.66989
G1 X214.82 Y172.00 E44.11405
G1 X214.82 Y167.29 E44.34898
G1 X214.75 Y167.24 E44.35317
G1 X214.65 Y167.19 E44.35891
G1 X214.53 Y167.12 E44.36601
G1 X214.39 Y167.06 E44.37320
G1 X214.27 Y167.01 E44.37997
G1 X214.14 Y166.97 E44.38662
G1 X214.01 Y166.94 E44.39331
G1 X213.86 Y166.90 E44.40093
G1 X213.74 Y166.88 E44.40701
G1 X213.60 Y166.86 E44.41440
G1 X213.48 Y166.85 E44.42030
G1 X213.31 Y166.85 E44.42884
G1 X213.18 Y166.85 E44.43503
G1 X213.05 Y166.86 E44.44168
G1 X212.94 Y166.88 E44.44731
G1 X212.77 Y166.90 E44.45566
G1 X212.65 Y166.93 E44.46190
G1 X212.51 Y166.97 E44.46899
G1 X212.40 Y167.01 E44.47513
G1 X212.24 Y167.07 E44.48358
G1 X212.13 Y167.12 E44.48936
G1 X212.01 Y167.18 E44.49644
G1 X211.89 Y167.25 E44.50321
G1 X211.78 Y167.31 E44.50950
G1 X211.66 Y167.40 E44.51691
G1 X211.56 Y167.47 E44.52307
G1 X211.44 Y167.58 E44.53092
G1 X211.35 Y167.67 E44.53745
G1 X211.25 Y167.77 E44.54440
G1 X211.17 Y167.86 E44.55030
G1 X211.08 Y167.98 E44.55816
G1 X210.97 Y168.13 E44.56736
G1 X206.22 Y175.47 E45.00346
G1 X175.03 Y175.47 E46.55954
G0 F12000 X175.24 Y175.07
G1 F2400 X170.15 Y167.69 E47.00664
G1 X170.09 Y167.61 E47.01158
G1 X170.01 Y167.51 E47.01809
G1 X169.88 Y167.37 E47.02772
G1 X169.77 Y167.27 E47.03524
G1 X169.66 Y167.18 E47.04189
G1 X169.54 Y167.08 E47.05007
G1 X169.41 Y166.99 E47.05790
G1 X169.27 Y166.90 E47.06607
G1 X169.14 Y166.83 E47.07368
G1 X169.00 Y166.76 E47.08140
G1 X168.85 Y166.69 E47.08942
G1 X168.71 Y166.64 E47.09722
G1 X168.58 Y166.59 E47.10407
G1 X168.38 Y166.54 E47.11406
G1 X168.25 Y166.51 E47.12091
G1 X168.10 Y166.48 E47.12826
G1 X167.94 Y166.46 E47.13670
G1 X167.78 Y166.45 E47.14426
G1 X167.60 Y166.45 E47.15349
G1 X167.49 Y166.45 E47.15923
G1 X167.33 Y166.46 E47.16708
G1 X167.32 Y166.46 E47.16728
G1 X167.32 Y173.25 E47.50613
G1 X173.05 Y176.94 E47.84596
G1 X173.05 Y207.72 E49.38158
G1 X165.68 Y212.81 E49.82821
G1 X165.59 Y212.88 E49.83422
G1 X165.50 Y212.96 E49.84020
G1 X165.36 Y213.09 E49.84984
G1 X165.25 Y213.20 E49.85735
G1 X165.17 Y213.30 E49.86368
G1 X165.08 Y213.41 E49.87111
G1 X164.97 Y213.56 E49.87995
G1 X164.89 Y213.70 E49.88812
G1 X164.81 Y213.84 E49.89603
G1 X164.74 Y213.98 E49.90397
G1 X164.68 Y214.11 E49.91118
G1 X164.61 Y214.28 E49.92006
G1 X164.57 Y214.40 E49.92662
G1 X164.53 Y214.56 E49.93517
G1 X164.49 Y214.72 E49.94330
G1 X164.47 Y214.87 E49.95050
G1 X164.44 Y215.03 E49.95874
G1 X164.43 Y215.18 E49.96630
G1 X164.43 Y215.37 E49.97553
G1 X164.43 Y215.48 E49.98127
G1 X164.44 Y215.65 E49.98982
G1 X164.46 Y215.78 E49.99646
G1 X164.49 Y215.97 E50.00562
G1 X164.53 Y216.13 E50.01385
G1 X164.56 Y216.26 E50.02094
G1 X164.61 Y216.40 E50.02834
G1 X164.68 Y216.58 E50.03791
G1 X164.73 Y216.69 E50.04359
G1 X164.80 Y216.84 E50.05229
G1 X164.88 Y216.99 E50.06049
G1 X164.97 Y217.12 E50.06827
G1 X165.05 Y217.24 E50.07546
G1 X165.16 Y217.37 E50.08393
G1 X165.25 Y217.48 E50.09090
G1 X165.37 Y217.61 E50.10011
G1 X165.48 Y217.71 E50.10762
G1 X165.59 Y217.80 E50.11441
G1 X165.70 Y217.89 E50.12145
G1 X165.84 Y217.99 E50.13018
G1 X165.98 Y218.08 E50.13842
G1 X166.12 Y218.16 E50.14633
G1 X166.26 Y218.23 E50.15427
G1 X166.39 Y218.29 E50.16148
G1 X166.56 Y218.35 E50.17036
G1 X166.68 Y218.39 E50.17692
G1 X166.85 Y218.44 E50.18547
G1 X167.00 Y218.48 E50.19360
G1 X167.15 Y218.50 E50.20079
G1 X167.31 Y218.52 E50.20904
G1 X167.46 Y218.53 E50.21660
G1 X167.65 Y218.54 E50.22583
G1 X167.76 Y218.53 E50.23157
G1 X167.93 Y218.52 E50.24012
G1 X168.06 Y218.51 E50.24676
G1 X168.25 Y218.48 E50.25592
G1 X168.41 Y218.44 E50.26415
G1 X168.54 Y218.40 E50.27124
G1 X168.68 Y218.36 E50.27828
G1 X168.87 Y218.29 E50.28827
G1 X168.98 Y218.24 E50.29437
G1 X169.13 Y218.16 E50.30276
G1 X169.27 Y218.08 E50.31078
G1 X169.40 Y218.00 E50.31845
G1 X169.51 Y217.92 E50.32554
G1 X169.65 Y217.81 E50.33425
G1 X169.76 Y217.72 E50.34122
G1 X169.88 Y217.60 E50.34976
G1 X169.99 Y217.49 E50.35773
G1 X170.09 Y217.37 E50.36516
G1 X170.19 Y217.25 E50.37327
G1 X170.31 Y217.07 E50.38390
G1 X174.94 Y209.92 E50.80915
G1 X205.70 Y209.92 E52.34377
G1 X210.79 Y217.28 E52.79041
G1 X210.86 Y217.38 E52.79642
G1 X210.93 Y217.46 E52.80186
G1 X211.07 Y217.61 E52.81203
G1 X211.18 Y217.71 E52.81954
G1 X211.28 Y217.80 E52.82634
G1 X211.40 Y217.89 E52.83337
G1 X211.54 Y217.99 E52.84211
G1 X211.68 Y218.08 E52.85034
G1 X211.82 Y218.16 E52.85825
G1 X211.96 Y218.23 E52.86619
G1 X212.09 Y218.29 E52.87341
G1 X212.26 Y218.35 E52.88228
G1 X212.38 Y218.39 E52.88884
G1 X212.55 Y218.44 E52.89739
G1 X212.71 Y218.48 E52.90552
G1 X212.85 Y218.50 E52.91272
G1 X213.01 Y218.52 E52.92097
G1 X213.16 Y218.53 E52.92852
G1 X213.35 Y218.54 E52.93775
G1 X213.46 Y218.53 E52.94349
G1 X213.63 Y218.52 E52.95204
G1 X213.76 Y218.51 E52.95868
G1 X213.95 Y218.48 E52.96784
G1 X214.11 Y218.44 E52.97607
G1 X214.24 Y218.40 E52.98316
G1 X214.38 Y218.36 E52.99020
G1 X214.56 Y218.29 E53.00020
G1 X214.68 Y218.24 E53.00630
G1 X214.83 Y218.16 E53.01469
G1 X214.97 Y218.08 E53.02270
G1 X215.10 Y218.00 E53.03037
G1 X215.21 Y217.92 E53.03746
G1 X215.22 Y217.91 E53.03817
G1 X215.22 Y212.78 E53.29431
G1 X215.06 Y212.66 E53.30462
G1 X207.90 Y208.02 E53.73001
G1 X207.90 Y177.26 E55.26463
G1 X215.22 Y172.21 E55.70879
G1 X215.22 Y167.07 E55.96477
G1 X215.11 Y166.99 E55.97190
G1 X214.97 Y166.91 E55.98007
G1 X214.84 Y166.83 E55.98769
G1 X214.70 Y166.76 E55.99541
G1 X214.54 Y166.69 E56.00407
G1 X214.41 Y166.64 E56.01120
G1 X214.27 Y166.59 E56.01855
G1 X214.10 Y166.55 E56.02710
G1 X213.94 Y166.51 E56.03523
G1 X213.80 Y166.49 E56.04242
G1 X213.64 Y166.46 E56.05067
G1 X213.50 Y166.45 E56.05757
G1 X213.31 Y166.45 E56.06701
G1 X213.16 Y166.45 E56.07419
G1 X213.01 Y166.46 E56.08175
G1 X212.88 Y166.48 E56.08838
G1 X212.70 Y166.51 E56.09754
G1 X212.54 Y166.55 E56.10577
G1 X212.40 Y166.58 E56.11286
G1 X212.27 Y166.63 E56.11990
G1 X212.09 Y166.70 E56.12952
G1 X211.97 Y166.75 E56.13591
G1 X211.81 Y166.83 E56.14499
G1 X211.68 Y166.90 E56.15227
G1 X211.55 Y166.99 E56.16005
G1 X211.43 Y167.07 E56.16714
G1 X211.30 Y167.17 E56.17585
G1 X211.19 Y167.26 E56.18282
G1 X211.06 Y167.39 E56.19203
G1 X210.95 Y167.50 E56.19955
G1 X210.87 Y167.60 E56.20595
G1 X210.76 Y167.74 E56.21487
G1 X210.64 Y167.90 E56.22482
G1 X206.00 Y175.07 E56.65075
G1 X175.24 Y175.07 E58.18552
G0 F12000 X175.45 Y174.67
G1 F2400 X170.48 Y167.46 E58.62237
G1 X170.40 Y167.35 E58.62902
G1 X170.30 Y167.24 E58.63673
G1 X170.16 Y167.09 E58.64700
G1 X170.04 Y166.98 E58.65480
G1 X169.91 Y166.87 E58.66343
G1 X169.77 Y166.76 E58.67220
G1 X169.64 Y166.67 E58.68030
G1 X169.46 Y166.55 E58.69077
G1 X169.34 Y166.48 E58.69806
G1 X169.16 Y166.39 E58.70779
G1 X169.01 Y166.33 E58.71598
G1 X168.84 Y166.26 E58.72528
G1 X168.69 Y166.21 E58.73322
G1 X168.50 Y166.16 E58.74316
G1 X168.33 Y166.12 E58.75176
G1 X168.16 Y166.09 E58.76027
G1 X168.00 Y166.07 E58.76851
G1 X167.78 Y166.05 E58.77912
G1 X167.60 Y166.05 E58.78825
G1 X167.47 Y166.05 E58.79484
G1 X167.29 Y166.06 E58.80384
G1 X167.09 Y166.09 E58.81399
G1 X166.93 Y166.11 E58.82179
G1 X166.92 Y166.12 E58.82225
G1 X166.92 Y173.47 E59.18919
G1 X172.65 Y177.16 E59.52901
G1 X172.65 Y207.51 E61.04328
G1 X165.44 Y212.49 E61.48009
G1 X165.33 Y212.57 E61.48713
G1 X165.22 Y212.67 E61.49456
G1 X165.07 Y212.81 E61.50454
G1 X164.96 Y212.92 E61.51262
G1 X164.85 Y213.05 E61.52094
G1 X164.75 Y213.18 E61.52897
G1 X164.65 Y213.32 E61.53777
G1 X164.54 Y213.50 E61.54847
G1 X164.46 Y213.64 E61.55658
G1 X164.38 Y213.80 E61.56513
G1 X164.31 Y213.96 E61.57431
G1 X164.24 Y214.14 E61.58356
G1 X164.19 Y214.28 E61.59087
G1 X164.14 Y214.47 E61.60071
G1 X164.10 Y214.65 E61.61007
G1 X164.07 Y214.81 E61.61822
G1 X164.05 Y214.97 E61.62611
G1 X164.03 Y215.18 E61.63687
G1 X164.03 Y215.37 E61.64600
G1 X164.03 Y215.50 E61.65259
G1 X164.05 Y215.69 E61.66230
G1 X164.06 Y215.85 E61.67023
G1 X164.10 Y216.04 E61.67980
G1 X164.13 Y216.19 E61.68736
G1 X164.19 Y216.39 E61.69801
G1 X164.23 Y216.54 E61.70573
G1 X164.31 Y216.74 E61.71637
G1 X164.36 Y216.86 E61.72292
G1 X164.45 Y217.03 E61.73258
G1 X164.53 Y217.18 E61.74100
G1 X164.63 Y217.33 E61.75019
G1 X164.75 Y217.50 E61.76026
G1 X164.84 Y217.62 E61.76758
G1 X164.96 Y217.75 E61.77653
G1 X165.09 Y217.89 E61.78595
G1 X165.21 Y218.00 E61.79425
G1 X165.33 Y218.11 E61.80242
G1 X165.47 Y218.22 E61.81141
G1 X165.61 Y218.32 E61.81971
G1 X165.78 Y218.43 E61.83012
G1 X165.92 Y218.51 E61.83823
G1 X166.08 Y218.59 E61.84678
G1 X166.25 Y218.66 E61.85596
G1 X166.42 Y218.73 E61.86521
G1 X166.56 Y218.78 E61.87272
G1 X166.75 Y218.83 E61.88236
G1 X166.93 Y218.87 E61.89172
G1 X167.09 Y218.90 E61.89987
G1 X167.25 Y218.92 E61.90791
G1 X167.46 Y218.93 E61.91852
G1 X167.65 Y218.94 E61.92765
G1 X167.78 Y218.94 E61.93424
G1 X167.97 Y218.92 E61.94394
G1 X168.14 Y218.90 E61.95238
G1 X168.32 Y218.87 E61.96145
G1 X168.48 Y218.83 E61.96963
G1 X168.67 Y218.78 E61.97966
G1 X168.82 Y218.73 E61.98755
G1 X169.01 Y218.66 E61.99748
G1 X169.15 Y218.60 E62.00506
G1 X169.31 Y218.52 E62.01423
G1 X169.46 Y218.43 E62.02265
G1 X169.61 Y218.34 E62.03177
G1 X169.77 Y218.22 E62.04136
G1 X169.90 Y218.12 E62.04965
G1 X170.03 Y218.01 E62.05796
G1 X170.17 Y217.88 E62.06798
G1 X170.28 Y217.76 E62.07571
G1 X170.41 Y217.62 E62.08526
G1 X170.50 Y217.50 E62.09312
G1 X170.63 Y217.31 E62.10436
G1 X175.16 Y210.32 E62.52007
G1 X205.49 Y210.32 E64.03334
G1 X210.46 Y217.52 E64.46986
G1 X210.55 Y217.63 E64.47712
G1 X210.65 Y217.75 E64.48462
G1 X210.78 Y217.89 E64.49439
G1 X210.91 Y218.00 E64.50268
G1 X211.03 Y218.11 E64.51085
G1 X211.17 Y218.22 E64.51985
G1 X211.31 Y218.32 E64.52815
G1 X211.48 Y218.43 E64.53856
G1 X211.62 Y218.51 E64.54667
G1 X211.78 Y218.59 E64.55522
G1 X211.94 Y218.66 E64.56440
G1 X212.12 Y218.73 E64.57365
G1 X212.26 Y218.78 E64.58116
G1 X212.45 Y218.83 E64.59080
G1 X212.63 Y218.87 E64.60015
G1 X212.79 Y218.90 E64.60831
G1 X212.95 Y218.92 E64.61635
G1 X213.16 Y218.93 E64.62696
G1 X213.35 Y218.94 E64.63609
G1 X213.48 Y218.94 E64.64268
G1 X213.67 Y218.92 E64.65238
G1 X213.84 Y218.90 E64.66082
G1 X214.02 Y218.87 E64.66989
G1 X214.18 Y218.83 E64.67807
G1 X214.37 Y218.78 E64.68810
G1 X214.52 Y218.73 E64.69599
G1 X214.71 Y218.66 E64.70592
G1 X214.85 Y218.60 E64.71350
G1 X215.01 Y218.52 E64.72267
G1 X215.16 Y218.43 E64.73109
G1 X215.31 Y218.34 E64.74021
G1 X215.47 Y218.22 E64.74980
G1 X215.60 Y218.12 E64.75809
G1 X215.62 Y218.10 E64.75954
G1 X215.62 Y212.58 E65.03513
G1 X215.61 Y212.57 E65.03591
G1 X215.48 Y212.46 E65.04454
G1 X215.29 Y212.33 E65.05578
G1 X208.30 Y207.81 E65.47150
G1 X208.30 Y177.47 E66.98477
G1 X215.50 Y172.50 E67.42158
G1 X215.61 Y172.41 E67.42861
G1 X215.62 Y172.40 E67.42929
G1 X215.62 Y166.88 E67.70488
G1 X215.62 Y166.88 E67.70527
G1 X215.48 Y166.76 E67.71426
G1 X215.34 Y166.67 E67.72257
G1 X215.16 Y166.56 E67.73304
G1 X215.04 Y166.48 E67.74033
G1 X214.86 Y166.40 E67.75005
G1 X214.71 Y166.33 E67.75823
G1 X214.53 Y166.26 E67.76815
G1 X214.39 Y166.21 E67.77555
G1 X214.20 Y166.16 E67.78519
G1 X214.02 Y166.12 E67.79454
G1 X213.86 Y166.09 E67.80270
G1 X213.70 Y166.07 E67.81074
G1 X213.51 Y166.05 E67.82025
G1 X213.30 Y166.05 E67.83058
G1 X213.15 Y166.05 E67.83811
G1 X212.97 Y166.06 E67.84677
G1 X212.81 Y166.09 E67.85521
G1 X212.63 Y166.12 E67.86427
G1 X212.47 Y166.15 E67.87246
G1 X212.27 Y166.21 E67.88249
G1 X212.12 Y166.25 E67.89038
G1 X211.94 Y166.33 E67.90031
G1 X211.80 Y166.39 E67.90779
G1 X211.62 Y166.48 E67.91783
G1 X211.49 Y166.55 E67.92545
G1 X211.33 Y166.65 E67.93457
G1 X211.18 Y166.76 E67.94416
G1 X211.05 Y166.86 E67.95199
G1 X210.92 Y166.97 E67.96087
G1 X210.78 Y167.11 E67.97057
G1 X210.66 Y167.22 E67.97872
G1 X210.55 Y167.35 E67.98728
G1 X210.44 Y167.49 E67.99592
G1 X210.31 Y167.67 E68.00716
G1 X205.79 Y174.67 E68.42287
G1 X175.45 Y174.67 E69.93629
G0 F12000 X175.66 Y174.27
G1 F2400 X170.81 Y167.23 E70.36278
G1 X170.70 Y167.09 E70.37167
G1 X170.61 Y166.98 E70.37867
G1 X170.44 Y166.81 E70.39056
G1 X170.30 Y166.67 E70.40048
G1 X170.16 Y166.55 E70.40968
G1 X170.02 Y166.44 E70.41852
G1 X169.86 Y166.33 E70.42840
G1 X169.69 Y166.22 E70.43845
G1 X169.51 Y166.12 E70.44862
G1 X169.34 Y166.04 E70.45806
G1 X169.15 Y165.95 E70.46860
G1 X168.99 Y165.89 E70.47721
G1 X168.80 Y165.82 E70.48710
G1 X168.59 Y165.77 E70.49827
G1 X168.41 Y165.73 E70.50718
G1 X168.21 Y165.69 E70.51721
G1 X168.04 Y165.67 E70.52611
G1 X167.82 Y165.65 E70.53666
G1 X167.60 Y165.65 E70.54779
G1 X167.43 Y165.65 E70.55638
G1 X167.25 Y165.66 E70.56518
G1 X167.03 Y165.69 E70.57624
G1 X166.85 Y165.72 E70.58540
G1 X166.65 Y165.77 E70.59567
G1 X166.52 Y165.80 E70.60230
G1 X166.52 Y173.69 E70.99578
G1 X172.25 Y177.38 E71.33560
G1 X172.25 Y207.30 E72.82852
G1 X165.20 Y212.17 E73.25607
G1 X165.09 Y212.26 E73.26314
G1 X164.97 Y212.36 E73.27096
G1 X164.79 Y212.52 E73.28286
G1 X164.66 Y212.66 E73.29224
G1 X164.55 Y212.79 E73.30105
G1 X164.43 Y212.94 E73.31040
G1 X164.31 Y213.11 E73.32064
G1 X164.21 Y213.28 E73.33069
G1 X164.09 Y213.47 E73.34199
G1 X164.02 Y213.62 E73.35031
G1 X163.94 Y213.81 E73.36043
G1 X163.86 Y214.00 E73.37092
G1 X163.81 Y214.17 E73.37948
G1 X163.76 Y214.34 E73.38865
G1 X163.71 Y214.57 E73.40036
G1 X163.67 Y214.75 E73.40943
G1 X163.65 Y214.92 E73.41793
G1 X163.64 Y215.13 E73.42824
G1 X163.63 Y215.36 E73.43997
G1 X163.63 Y215.54 E73.44860
G1 X163.65 Y215.73 E73.45810
G1 X163.67 Y215.91 E73.46745
G1 X163.70 Y216.11 E73.47748
G1 X163.75 Y216.31 E73.48760
G1 X163.80 Y216.49 E73.49690
G1 X163.86 Y216.68 E73.50683
G1 X163.94 Y216.88 E73.51774
G1 X164.00 Y217.03 E73.52581
G1 X164.10 Y217.23 E73.53696
G1 X164.19 Y217.38 E73.54592
G1 X164.31 Y217.57 E73.55657
G1 X164.41 Y217.72 E73.56609
G1 X164.53 Y217.87 E73.57558
G1 X164.66 Y218.01 E73.58499
G1 X164.80 Y218.17 E73.59583
G1 X164.94 Y218.30 E73.60486
G1 X165.08 Y218.42 E73.61448
G1 X165.22 Y218.54 E73.62358
G1 X165.39 Y218.65 E73.63364
G1 X165.56 Y218.76 E73.64351
G1 X165.76 Y218.87 E73.65506
G1 X165.91 Y218.95 E73.66331
G1 X166.09 Y219.03 E73.67343
G1 X166.29 Y219.11 E73.68392
G1 X166.45 Y219.16 E73.69249
G1 X166.63 Y219.21 E73.70206
G1 X166.85 Y219.26 E73.71336
G1 X167.03 Y219.29 E73.72244
G1 X167.21 Y219.32 E73.73133
G1 X167.42 Y219.33 E73.74189
G1 X167.64 Y219.34 E73.75297
G1 X167.82 Y219.33 E73.76161
G1 X168.01 Y219.32 E73.77111
G1 X168.19 Y219.30 E73.78046
G1 X168.40 Y219.26 E73.79068
G1 X168.59 Y219.22 E73.80060
G1 X168.78 Y219.17 E73.81033
G1 X168.96 Y219.11 E73.81978
G1 X169.17 Y219.02 E73.83139
G1 X169.30 Y218.97 E73.83836
G1 X169.51 Y218.86 E73.85003
G1 X169.67 Y218.78 E73.85892
G1 X169.84 Y218.66 E73.86946
G1 X169.99 Y218.56 E73.87855
G1 X170.16 Y218.43 E73.88872
G1 X170.28 Y218.32 E73.89731
G1 X170.46 Y218.16 E73.90899
G1 X170.59 Y218.02 E73.91866
G1 X170.70 Y217.89 E73.92740
G1 X170.82 Y217.73 E73.93725
G1 X170.97 Y217.52 E73.95020
G1 X175.38 Y210.72 E74.35452
G1 X205.28 Y210.72 E75.84643
G1 X210.15 Y217.77 E76.27398
G1 X210.24 Y217.89 E76.28156
G1 X210.34 Y218.00 E76.28888
G1 X210.50 Y218.17 E76.30077
G1 X210.63 Y218.30 E76.30981
G1 X210.78 Y218.42 E76.31943
G1 X210.92 Y218.54 E76.32852
G1 X211.09 Y218.65 E76.33858
G1 X211.26 Y218.76 E76.34845
G1 X211.46 Y218.87 E76.36000
G1 X211.60 Y218.95 E76.36826
G1 X211.79 Y219.03 E76.37838
G1 X211.99 Y219.11 E76.38886
G1 X212.15 Y219.16 E76.39743
G1 X212.33 Y219.21 E76.40700
G1 X212.56 Y219.26 E76.41831
G1 X212.73 Y219.29 E76.42738
G1 X212.91 Y219.32 E76.43628
G1 X213.12 Y219.33 E76.44684
G1 X213.34 Y219.34 E76.45792
G1 X213.52 Y219.33 E76.46655
G1 X213.71 Y219.32 E76.47605
G1 X213.89 Y219.30 E76.48540
G1 X214.09 Y219.26 E76.49563
G1 X214.29 Y219.22 E76.50554
G1 X214.48 Y219.17 E76.51528
G1 X214.66 Y219.11 E76.52473
G1 X214.87 Y219.02 E76.53633
G1 X215.00 Y218.97 E76.54330
G1 X215.21 Y218.86 E76.55497
G1 X215.37 Y218.78 E76.56387
G1 X215.54 Y218.66 E76.57440
G1 X215.69 Y218.56 E76.58349
G1 X215.85 Y218.43 E76.59366
G1 X215.99 Y218.32 E76.60226
G1 X216.02 Y218.28 E76.60494
G1 X216.02 Y212.40 E76.89849
G1 X216.00 Y212.38 E76.90022
G1 X215.87 Y212.26 E76.90871
G1 X215.71 Y212.14 E76.91870
G1 X215.50 Y211.99 E76.93166
G1 X208.70 Y207.59 E77.33597
G1 X208.70 Y177.68 E78.82789
G1 X215.75 Y172.81 E79.25551
G1 X215.87 Y172.72 E79.26301
G1 X215.97 Y172.63 E79.26963
G1 X216.02 Y172.58 E79.27333
G1 X216.02 Y166.70 E79.56694
G1 X216.00 Y166.68 E79.56867
G1 X215.86 Y166.56 E79.57769
G1 X215.72 Y166.45 E79.58650
G1 X215.56 Y166.33 E79.59656
G1 X215.39 Y166.22 E79.60661
G1 X215.21 Y166.12 E79.61678
G1 X215.04 Y166.04 E79.62621
G1 X214.85 Y165.95 E79.63676
G1 X214.66 Y165.88 E79.64686
G1 X214.50 Y165.82 E79.65538
G1 X214.31 Y165.77 E79.66496
G1 X214.09 Y165.72 E79.67626
G1 X213.91 Y165.69 E79.68533
G1 X213.74 Y165.67 E79.69423
G1 X213.53 Y165.65 E79.70474
G1 X213.30 Y165.65 E79.71602
G1 X213.13 Y165.65 E79.72450
G1 X212.94 Y165.67 E79.73400
G1 X212.75 Y165.69 E79.74335
G1 X212.55 Y165.72 E79.75358
G1 X212.36 Y165.77 E79.76349
G1 X212.17 Y165.82 E79.77323
G1 X211.99 Y165.88 E79.78268
G1 X211.77 Y165.96 E79.79429
G1 X211.63 Y166.03 E79.80208
G1 X211.44 Y166.12 E79.81272
G1 X211.28 Y166.21 E79.82155
G1 X211.10 Y166.32 E79.83233
G1 X210.95 Y166.43 E79.84143
G1 X210.79 Y166.55 E79.85148
G1 X210.65 Y166.67 E79.86090
G1 X210.49 Y166.82 E79.87173
G1 X210.36 Y166.96 E79.88112
G1 X210.25 Y167.10 E79.89014
G1 X210.12 Y167.25 E79.90013
G1 X209.97 Y167.47 E79.91308
G1 X205.57 Y174.27 E80.31740
G1 X175.66 Y174.27 E81.80946
G0 F12000 X175.87 Y173.87
G1 F2400 X171.13 Y166.99 E82.22644
G1 X171.03 Y166.86 E82.23472
G1 X170.89 Y166.70 E82.24526
G1 X170.73 Y166.53 E82.25680
G1 X170.58 Y166.39 E82.26672
G1 X170.42 Y166.25 E82.27775
G1 X170.25 Y166.12 E82.28841
G1 X170.08 Y166.00 E82.29883
G1 X169.90 Y165.88 E82.30942
G1 X169.69 Y165.76 E82.32153
G1 X169.52 Y165.68 E82.33070
G1 X169.32 Y165.59 E82.34189
G1 X169.12 Y165.51 E82.35281
G1 X168.91 Y165.44 E82.36342
G1 X168.69 Y165.38 E82.37477
G1 X168.49 Y165.33 E82.38520
G1 X168.29 Y165.30 E82.39523
G1 X168.05 Y165.27 E82.40720
G1 X167.84 Y165.25 E82.41770
G1 X167.60 Y165.25 E82.42968
G1 X167.41 Y165.25 E82.43926
G1 X167.20 Y165.27 E82.44997
G1 X166.98 Y165.29 E82.46088
G1 X166.78 Y165.33 E82.47120
G1 X166.56 Y165.38 E82.48224
G1 X166.36 Y165.43 E82.49275
G1 X166.16 Y165.50 E82.50340
G1 X166.12 Y165.51 E82.50505
G1 X166.12 Y173.91 E82.92393
G1 X171.85 Y177.60 E83.26376
G1 X171.85 Y207.09 E84.73532
G1 X164.96 Y211.85 E85.15304
G1 X164.84 Y211.94 E85.16037
G1 X164.68 Y212.08 E85.17119
G1 X164.51 Y212.24 E85.18273
G1 X164.37 Y212.38 E85.19265
G1 X164.23 Y212.55 E85.20357
G1 X164.11 Y212.70 E85.21317
G1 X163.98 Y212.89 E85.22470
G1 X163.87 Y213.07 E85.23529
G1 X163.75 Y213.28 E85.24729
G1 X163.66 Y213.45 E85.25691
G1 X163.56 Y213.66 E85.26865
G1 X163.48 Y213.87 E85.27952
G1 X163.43 Y214.04 E85.28877
G1 X163.37 Y214.26 E85.30021
G1 X163.32 Y214.47 E85.31100
G1 X163.28 Y214.69 E85.32209
G1 X163.25 Y214.91 E85.33306
G1 X163.24 Y215.12 E85.34356
G1 X163.23 Y215.36 E85.35554
G1 X163.23 Y215.55 E85.36512
G1 X163.25 Y215.76 E85.37562
G1 X163.27 Y215.97 E85.38583
G1 X163.31 Y216.21 E85.39793
G1 X163.36 Y216.40 E85.40784
G1 X163.41 Y216.59 E85.41787
G1 X163.48 Y216.81 E85.42926
G1 X163.57 Y217.04 E85.44146
G1 X163.65 Y217.21 E85.45068
G1 X163.74 Y217.39 E85.46101
G1 X163.86 Y217.61 E85.47325
G1 X163.97 Y217.78 E85.48352
G1 X164.09 Y217.96 E85.49423
G1 X164.22 Y218.12 E85.50429
G1 X164.37 Y218.30 E85.51639
G1 X164.52 Y218.46 E85.52705
G1 X164.66 Y218.59 E85.53697
G1 X164.82 Y218.73 E85.54754
G1 X165.00 Y218.87 E85.55849
G1 X165.17 Y218.99 E85.56905
G1 X165.34 Y219.10 E85.57935
G1 X165.56 Y219.22 E85.59164
G1 X165.73 Y219.31 E85.60137
G1 X165.94 Y219.40 E85.61300
G1 X166.15 Y219.48 E85.62376
G1 X166.32 Y219.54 E85.63311
G1 X166.54 Y219.60 E85.64455
G1 X166.76 Y219.65 E85.65535
G1 X166.97 Y219.69 E85.66644
G1 X167.19 Y219.72 E85.67740
G1 X167.40 Y219.73 E85.68791
G1 X167.64 Y219.74 E85.69988
G1 X167.84 Y219.73 E85.70947
G1 X168.04 Y219.72 E85.71997
G1 X168.25 Y219.69 E85.73017
G1 X168.49 Y219.65 E85.74227
G1 X168.68 Y219.61 E85.75219
G1 X168.89 Y219.55 E85.76290
G1 X169.09 Y219.49 E85.77361
G1 X169.31 Y219.40 E85.78531
G1 X169.50 Y219.32 E85.79552
G1 X169.67 Y219.23 E85.80536
G1 X169.89 Y219.11 E85.81760
G1 X170.06 Y219.00 E85.82758
G1 X170.23 Y218.88 E85.83829
G1 X170.40 Y218.75 E85.84867
G1 X170.57 Y218.60 E85.86006
G1 X170.74 Y218.44 E85.87156
G1 X170.88 Y218.30 E85.88173
G1 X171.01 Y218.14 E85.89184
G1 X171.15 Y217.97 E85.90293
G1 X171.31 Y217.73 E85.91718
G1 X175.60 Y211.12 E86.31050
G1 X205.07 Y211.12 E87.78111
G1 X209.83 Y218.01 E88.19895
G1 X209.92 Y218.12 E88.20616
G1 X210.06 Y218.29 E88.21699
G1 X210.22 Y218.46 E88.22853
G1 X210.36 Y218.59 E88.23844
G1 X210.52 Y218.73 E88.24902
G1 X210.70 Y218.87 E88.25996
G1 X210.87 Y218.99 E88.27052
G1 X211.04 Y219.10 E88.28082
G1 X211.26 Y219.22 E88.29311
G1 X211.43 Y219.31 E88.30284
G1 X211.65 Y219.40 E88.31447
G1 X211.85 Y219.48 E88.32523
G1 X212.02 Y219.54 E88.33459
G1 X212.25 Y219.60 E88.34602
G1 X212.46 Y219.65 E88.35682
G1 X212.68 Y219.69 E88.36791
G1 X212.89 Y219.72 E88.37888
G1 X213.10 Y219.73 E88.38938
G1 X213.34 Y219.74 E88.40136
G1 X213.53 Y219.73 E88.41094
G1 X213.75 Y219.72 E88.42144
G1 X213.95 Y219.69 E88.43165
G1 X214.19 Y219.65 E88.44375
G1 X214.38 Y219.61 E88.45366
G1 X214.59 Y219.55 E88.46437
G1 X214.79 Y219.49 E88.47508
G1 X215.01 Y219.40 E88.48679
G1 X215.20 Y219.32 E88.49699
G1 X215.37 Y219.23 E88.50683
G1 X215.59 Y219.11 E88.51907
G1 X215.76 Y219.00 E88.52905
G1 X215.93 Y218.88 E88.53976
G1 X216.10 Y218.75 E88.55014
G1 X216.27 Y218.60 E88.56153
G1 X216.42 Y218.46 E88.57216
G1 X216.42 Y212.23 E88.88287
G1 X216.28 Y212.09 E88.89258
G1 X216.13 Y211.96 E88.90294
G1 X215.95 Y211.82 E88.91417
G1 X215.72 Y211.66 E88.92817
G1 X209.10 Y207.37 E89.32174
G1 X209.10 Y177.89 E90.79235
G1 X215.99 Y173.14 E91.21019
G1 X216.10 Y173.05 E91.21740
G1 X216.26 Y172.91 E91.22748
G1 X216.42 Y172.75 E91.23902
G1 X216.42 Y166.53 E91.54974
G1 X216.28 Y166.39 E91.55944
G1 X216.12 Y166.25 E91.57002
G1 X215.95 Y166.12 E91.58096
G1 X215.78 Y166.00 E91.59152
G1 X215.60 Y165.88 E91.60211
G1 X215.39 Y165.76 E91.61422
G1 X215.22 Y165.68 E91.62339
G1 X215.01 Y165.59 E91.63492
G1 X214.79 Y165.50 E91.64653
G1 X214.62 Y165.44 E91.65557
G1 X214.40 Y165.38 E91.66700
G1 X214.19 Y165.34 E91.67780
G1 X213.97 Y165.30 E91.68889
G1 X213.75 Y165.27 E91.69985
G1 X213.54 Y165.25 E91.71031
G1 X213.30 Y165.25 E91.72249
G1 X213.11 Y165.25 E91.73192
G1 X212.90 Y165.27 E91.74242
G1 X212.70 Y165.29 E91.75263
G1 X212.46 Y165.33 E91.76472
G1 X212.27 Y165.38 E91.77464
G1 X212.06 Y165.43 E91.78535
G1 X211.85 Y165.50 E91.79606
G1 X211.64 Y165.59 E91.80776
G1 X211.46 Y165.66 E91.81741
G1 X211.25 Y165.77 E91.82904
G1 X211.06 Y165.88 E91.84003
G1 X210.89 Y165.98 E91.85001
G1 X210.71 Y166.11 E91.86072
G1 X210.55 Y166.23 E91.87110
G1 X210.37 Y166.39 E91.88320
G1 X210.21 Y166.54 E91.89386
G1 X210.07 Y166.68 E91.90377
G1 X209.94 Y166.84 E91.91414
G1 X209.80 Y167.02 E91.92536
G1 X209.64 Y167.25 E91.93937
G1 X205.35 Y173.87 E92.33293
G1 X175.87 Y173.87 E93.80370
G0 F12000 X176.08 Y173.47
G1 F2400 X171.44 Y166.74 E94.21141
G1 X171.33 Y166.60 E94.22023
G1 X171.20 Y166.44 E94.23067
G1 X171.01 Y166.25 E94.24408
G1 X170.84 Y166.08 E94.25597
G1 X170.68 Y165.94 E94.26679
G1 X170.50 Y165.80 E94.27824
G1 X170.31 Y165.67 E94.28951
G1 X170.09 Y165.53 E94.30285
G1 X169.89 Y165.41 E94.31422
G1 X169.70 Y165.32 E94.32449
G1 X169.46 Y165.21 E94.33798
G1 X169.25 Y165.13 E94.34916
G1 X169.04 Y165.06 E94.35982
G1 X168.79 Y164.99 E94.37314
G1 X168.56 Y164.94 E94.38449
G1 X168.35 Y164.90 E94.39543
G1 X168.09 Y164.87 E94.40826
G1 X167.86 Y164.85 E94.41976
G1 X167.60 Y164.85 E94.43269
G1 X167.39 Y164.85 E94.44322
G1 X167.16 Y164.87 E94.45487
G1 X166.93 Y164.90 E94.46663
G1 X166.70 Y164.94 E94.47812
G1 X166.46 Y164.99 E94.49040
G1 X166.24 Y165.05 E94.50166
G1 X166.02 Y165.12 E94.51318
G1 X165.77 Y165.22 E94.52686
G1 X165.72 Y165.24 E94.52920
G1 X165.72 Y174.13 E94.97258
G1 X171.45 Y177.81 E95.31237
G1 X171.45 Y206.88 E96.76258
G1 X164.74 Y211.52 E97.16958
G1 X164.57 Y211.65 E97.18025
G1 X164.43 Y211.77 E97.18962
G1 X164.23 Y211.96 E97.20303
G1 X164.06 Y212.13 E97.21492
G1 X163.93 Y212.28 E97.22508
G1 X163.79 Y212.46 E97.23659
G1 X163.65 Y212.66 E97.24840
G1 X163.51 Y212.88 E97.26174
G1 X163.40 Y213.09 E97.27338
G1 X163.29 Y213.29 E97.28463
G1 X163.20 Y213.50 E97.29637
G1 X163.11 Y213.73 E97.30857
G1 X163.04 Y213.92 E97.31876
G1 X162.98 Y214.16 E97.33130
G1 X162.92 Y214.40 E97.34332
G1 X162.88 Y214.64 E97.35532
G1 X162.85 Y214.87 E97.36714
G1 X162.84 Y215.10 E97.37864
G1 X162.83 Y215.36 E97.39157
G1 X162.83 Y215.57 E97.40210
G1 X162.85 Y215.80 E97.41350
G1 X162.88 Y216.02 E97.42472
G1 X162.92 Y216.28 E97.43768
G1 X162.97 Y216.49 E97.44851
G1 X163.04 Y216.74 E97.46118
G1 X163.10 Y216.94 E97.47196
G1 X163.20 Y217.20 E97.48557
G1 X163.28 Y217.36 E97.49463
G1 X163.40 Y217.61 E97.50831
G1 X163.51 Y217.80 E97.51937
G1 X163.63 Y218.00 E97.53105
G1 X163.78 Y218.21 E97.54366
G1 X163.91 Y218.37 E97.55426
G1 X164.06 Y218.55 E97.56611
G1 X164.24 Y218.74 E97.57871
G1 X164.41 Y218.90 E97.59060
G1 X164.57 Y219.04 E97.60100
G1 X164.75 Y219.18 E97.61266
G1 X164.94 Y219.31 E97.62411
G1 X165.16 Y219.46 E97.63745
G1 X165.37 Y219.57 E97.64909
G1 X165.57 Y219.67 E97.66033
G1 X165.78 Y219.77 E97.67208
G1 X166.01 Y219.86 E97.68427
G1 X166.20 Y219.92 E97.69446
G1 X166.45 Y219.99 E97.70701
G1 X166.68 Y220.04 E97.71902
G1 X166.92 Y220.08 E97.73102
G1 X167.15 Y220.11 E97.74284
G1 X167.38 Y220.13 E97.75435
G1 X167.64 Y220.14 E97.76728
G1 X167.85 Y220.13 E97.77781
G1 X168.08 Y220.12 E97.78921
G1 X168.30 Y220.09 E97.80042
G1 X168.56 Y220.04 E97.81338
G1 X168.77 Y220.00 E97.82421
G1 X169.02 Y219.93 E97.83689
G1 X169.22 Y219.86 E97.84766
G1 X169.47 Y219.77 E97.86075
G1 X169.65 Y219.69 E97.87085
G1 X169.89 Y219.57 E97.88401
G1 X170.08 Y219.46 E97.89507
G1 X170.27 Y219.34 E97.90646
G1 X170.48 Y219.19 E97.91911
G1 X170.65 Y219.06 E97.92999
G1 X170.82 Y218.91 E97.94113
G1 X171.02 Y218.73 E97.95461
G1 X171.18 Y218.56 E97.96601
G1 X171.33 Y218.39 E97.97736
G1 X171.48 Y218.19 E97.98988
G1 X171.62 Y217.99 E98.00234
G1 X175.81 Y211.52 E98.38699
G1 X204.86 Y211.52 E99.83625
G1 X209.50 Y218.24 E100.24356
G1 X209.63 Y218.40 E100.25391
G1 X209.75 Y218.54 E100.26329
G1 X209.94 Y218.74 E100.27670
G1 X210.11 Y218.90 E100.28859
G1 X210.27 Y219.04 E100.29899
G1 X210.45 Y219.18 E100.31064
G1 X210.64 Y219.31 E100.32209
G1 X210.86 Y219.46 E100.33544
G1 X211.07 Y219.57 E100.34708
G1 X211.27 Y219.67 E100.35832
G1 X211.48 Y219.77 E100.37007
G1 X211.71 Y219.86 E100.38226
G1 X211.90 Y219.92 E100.39245
G1 X212.15 Y219.99 E100.40499
G1 X212.38 Y220.04 E100.41701
G1 X212.62 Y220.08 E100.42901
G1 X212.85 Y220.11 E100.44083
G1 X213.08 Y220.13 E100.45234
G1 X213.34 Y220.14 E100.46526
G1 X213.55 Y220.13 E100.47579
G1 X213.78 Y220.12 E100.48720
G1 X214.00 Y220.09 E100.49841
G1 X214.26 Y220.04 E100.51137
G1 X214.47 Y220.00 E100.52220
G1 X214.72 Y219.93 E100.53487
G1 X214.92 Y219.86 E100.54565
G1 X215.17 Y219.77 E100.55874
G1 X215.35 Y219.69 E100.56884
G1 X215.59 Y219.57 E100.58200
G1 X215.78 Y219.46 E100.59306
G1 X215.97 Y219.34 E100.60445
G1 X216.18 Y219.19 E100.61710
G1 X216.35 Y219.06 E100.62798
G1 X216.52 Y218.91 E100.63912
G1 X216.72 Y218.73 E100.65260
G1 X216.82 Y218.62 E100.66019
G1 X216.82 Y212.07 E100.98692
G1 X216.71 Y211.95 E100.99511
G1 X216.54 Y211.78 E101.00700
G1 X216.38 Y211.65 E101.01715
G1 X216.17 Y211.48 E101.03076
G1 X215.97 Y211.34 E101.04301
G1 X209.50 Y207.15 E101.42766
G1 X209.50 Y178.10 E102.87692
G1 X216.22 Y173.47 E103.28424
G1 X216.38 Y173.34 E103.29459
G1 X216.51 Y173.22 E103.30325
G1 X216.72 Y173.03 E103.31754
G1 X216.82 Y172.92 E103.32513
G1 X216.82 Y166.37 E103.65186
G1 X216.71 Y166.25 E103.66005
G1 X216.54 Y166.08 E103.67194
G1 X216.38 Y165.95 E103.68234
G1 X216.20 Y165.80 E103.69400
G1 X216.01 Y165.67 E103.70545
G1 X215.78 Y165.53 E103.71879
G1 X215.59 Y165.41 E103.73016
G1 X215.40 Y165.32 E103.74043
G1 X215.15 Y165.21 E103.75425
G1 X214.94 Y165.13 E103.76566
G1 X214.74 Y165.06 E103.77578
G1 X214.50 Y165.00 E103.78833
G1 X214.27 Y164.94 E103.80034
G1 X214.03 Y164.90 E103.81234
G1 X213.79 Y164.87 E103.82416
G1 X213.56 Y164.85 E103.83562
G1 X213.30 Y164.85 E103.84869
G1 X213.09 Y164.85 E103.85912
G1 X212.87 Y164.87 E103.87053
G1 X212.64 Y164.90 E103.88174
G1 X212.39 Y164.94 E103.89470
G1 X212.18 Y164.99 E103.90553
G1 X211.93 Y165.06 E103.91821
G1 X211.72 Y165.12 E103.92898
G1 X211.48 Y165.22 E103.94207
G1 X211.29 Y165.30 E103.95248
G1 X211.05 Y165.42 E103.96560
G1 X210.87 Y165.53 E103.97637
G1 X210.67 Y165.65 E103.98776
G1 X210.47 Y165.79 E104.00041
G1 X210.29 Y165.93 E104.01129
G1 X210.11 Y166.08 E104.02314
G1 X209.93 Y166.25 E104.03574
G1 X209.76 Y166.43 E104.04763
G1 X209.63 Y166.58 E104.05778
G1 X209.47 Y166.79 E104.07118
G1 X209.32 Y167.00 E104.08364
G1 X205.13 Y173.47 E104.46829
G1 X176.08 Y173.47 E105.91770
G0 F12000 X176.29 Y173.07
G1 F2400 X171.77 Y166.52 E106.31480
G1 X171.64 Y166.34 E106.32568
G1 X171.49 Y166.17 E106.33735
G1 X171.30 Y165.97 E106.35115
G1 X171.13 Y165.80 E106.36294
G1 X170.92 Y165.63 E106.37627
G1 X170.72 Y165.47 E106.38914
G1 X170.53 Y165.33 E106.40081
G1 X170.31 Y165.19 E106.41382
G1 X170.07 Y165.06 E106.42753
G1 X169.86 Y164.95 E106.43932
G1 X169.63 Y164.85 E106.45209
G1 X169.39 Y164.76 E106.46466
G1 X169.14 Y164.67 E106.47792
G1 X168.90 Y164.61 E106.49049
G1 X168.65 Y164.55 E106.50319
G1 X168.40 Y164.51 E106.51565
G1 X168.13 Y164.47 E106.52912
G1 X167.88 Y164.45 E106.54163
G1 X167.61 Y164.45 E106.55550
G1 X167.38 Y164.45 E106.56688
G1 X167.12 Y164.47 E106.57958
G1 X166.87 Y164.50 E106.59215
G1 X166.62 Y164.54 E106.60480
G1 X166.37 Y164.60 E106.61784
G1 X166.11 Y164.67 E106.63103
G1 X165.88 Y164.75 E106.64326
G1 X165.62 Y164.85 E106.65738
G1 X165.41 Y164.94 E106.66839
G1 X165.32 Y164.98 E106.67348
G1 X165.32 Y174.34 E107.14045
G1 X171.05 Y178.03 E107.48027
G1 X171.05 Y206.67 E108.90908
G1 X164.49 Y211.20 E109.30648
G1 X164.32 Y211.33 E109.31738
G1 X164.15 Y211.48 E109.32878
G1 X163.95 Y211.67 E109.34257
G1 X163.78 Y211.84 E109.35436
G1 X163.62 Y212.03 E109.36716
G1 X163.46 Y212.24 E109.37989
G1 X163.32 Y212.44 E109.39217
G1 X163.18 Y212.66 E109.40518
G1 X163.04 Y212.90 E109.41916
G1 X162.94 Y213.11 E109.43063
G1 X162.82 Y213.36 E109.44472
G1 X162.73 Y213.59 E109.45687
G1 X162.66 Y213.82 E109.46880
G1 X162.59 Y214.07 E109.48189
G1 X162.53 Y214.31 E109.49386
G1 X162.49 Y214.58 E109.50785
G1 X162.46 Y214.83 E109.52046
G1 X162.44 Y215.08 E109.53297
G1 X162.43 Y215.36 E109.54680
G1 X162.43 Y215.59 E109.55822
G1 X162.45 Y215.84 E109.57078
G1 X162.48 Y216.10 E109.58380
G1 X162.52 Y216.33 E109.59564
G1 X162.58 Y216.60 E109.60939
G1 X162.65 Y216.85 E109.62208
G1 X162.73 Y217.08 E109.63440
G1 X162.83 Y217.34 E109.64809
G1 X162.93 Y217.56 E109.66020
G1 X163.03 Y217.77 E109.67205
G1 X163.16 Y218.01 E109.68556
G1 X163.31 Y218.23 E109.69866
G1 X163.45 Y218.44 E109.71134
G1 X163.60 Y218.63 E109.72353
G1 X163.77 Y218.83 E109.73655
G1 X163.95 Y219.02 E109.74961
G1 X164.12 Y219.18 E109.76139
G1 X164.32 Y219.35 E109.77445
G1 X164.52 Y219.51 E109.78727
G1 X164.72 Y219.65 E109.79923
G1 X164.94 Y219.79 E109.81224
G1 X165.18 Y219.93 E109.82623
G1 X165.39 Y220.03 E109.83769
G1 X165.65 Y220.15 E109.85179
G1 X165.87 Y220.23 E109.86393
G1 X166.10 Y220.31 E109.87586
G1 X166.35 Y220.38 E109.88896
G1 X166.59 Y220.43 E109.90093
G1 X166.86 Y220.48 E109.91491
G1 X167.11 Y220.51 E109.92753
G1 X167.36 Y220.53 E109.94004
G1 X167.64 Y220.54 E109.95386
G1 X167.87 Y220.53 E109.96529
G1 X168.12 Y220.51 E109.97784
G1 X168.38 Y220.48 E109.99086
G1 X168.61 Y220.44 E110.00271
G1 X168.88 Y220.38 E110.01646
G1 X169.13 Y220.31 E110.02914
G1 X169.36 Y220.24 E110.04132
G1 X169.63 Y220.13 E110.05585
G1 X169.83 Y220.05 E110.06677
G1 X170.05 Y219.94 E110.07911
G1 X170.29 Y219.80 E110.09263
G1 X170.50 Y219.66 E110.10543
G1 X170.71 Y219.52 E110.11818
G1 X170.91 Y219.37 E110.13062
G1 X171.11 Y219.19 E110.14364
G1 X171.29 Y219.02 E110.15645
G1 X171.47 Y218.84 E110.16880
G1 X171.63 Y218.64 E110.18167
G1 X171.80 Y218.43 E110.19529
G1 X171.95 Y218.21 E110.20840
G1 X176.03 Y211.92 E110.58269
G1 X204.65 Y211.92 E112.01065
G1 X209.18 Y218.47 E112.40805
G1 X209.31 Y218.64 E112.41896
G1 X209.46 Y218.82 E112.43035
G1 X209.65 Y219.02 E112.44415
G1 X209.82 Y219.18 E112.45593
G1 X210.02 Y219.35 E112.46898
G1 X210.22 Y219.51 E112.48181
G1 X210.42 Y219.65 E112.49377
G1 X210.64 Y219.79 E112.50678
G1 X210.88 Y219.93 E112.52076
G1 X211.09 Y220.03 E112.53223
G1 X211.34 Y220.15 E112.54632
G1 X211.57 Y220.23 E112.55847
G1 X211.80 Y220.31 E112.57040
G1 X212.05 Y220.38 E112.58349
G1 X212.29 Y220.43 E112.59546
G1 X212.56 Y220.48 E112.60945
G1 X212.81 Y220.51 E112.62207
G1 X213.06 Y220.53 E112.63458
G1 X213.34 Y220.54 E112.64840
G1 X213.57 Y220.53 E112.65983
G1 X213.82 Y220.51 E112.67238
G1 X214.08 Y220.48 E112.68540
G1 X214.31 Y220.44 E112.69724
G1 X214.58 Y220.38 E112.71100
G1 X214.83 Y220.31 E112.72368
G1 X215.06 Y220.24 E112.73586
G1 X215.33 Y220.13 E112.75039
G1 X215.53 Y220.05 E112.76131
G1 X215.75 Y219.94 E112.77365
G1 X215.99 Y219.80 E112.78716
G1 X216.21 Y219.66 E112.79997
G1 X216.41 Y219.52 E112.81271
G1 X216.61 Y219.37 E112.82516
G1 X216.81 Y219.19 E112.83818
G1 X217.00 Y219.02 E112.85099
G1 X217.17 Y218.84 E112.86334
G1 X217.22 Y218.77 E112.86776
G1 X217.22 Y211.91 E113.20996
G1 X217.18 Y211.86 E113.21364
G1 X217.00 Y211.67 E113.22669
G1 X216.82 Y211.50 E113.23848
G1 X216.63 Y211.34 E113.25128
G1 X216.41 Y211.16 E113.26529
G1 X216.19 Y211.01 E113.27839
G1 X209.90 Y206.94 E113.65269
G1 X209.90 Y178.31 E115.08065
G1 X216.45 Y173.79 E115.47804
G1 X216.62 Y173.65 E115.48895
G1 X216.80 Y173.50 E115.50034
G1 X216.99 Y173.32 E115.51383
G1 X217.17 Y173.14 E115.52625
G1 X217.22 Y173.07 E115.53067
G1 X217.22 Y166.21 E115.87286
G1 X217.18 Y166.16 E115.87654
G1 X217.00 Y165.97 E115.88960
G1 X216.82 Y165.80 E115.90139
G1 X216.63 Y165.63 E115.91444
G1 X216.43 Y165.47 E115.92727
G1 X216.23 Y165.34 E115.93922
G1 X216.01 Y165.20 E115.95223
G1 X215.77 Y165.06 E115.96595
G1 X215.56 Y164.95 E115.97773
G1 X215.31 Y164.84 E115.99122
G1 X215.07 Y164.75 E116.00395
G1 X214.84 Y164.68 E116.01604
G1 X214.59 Y164.61 E116.02893
G1 X214.36 Y164.55 E116.04090
G1 X214.09 Y164.50 E116.05488
G1 X213.83 Y164.47 E116.06750
G1 X213.59 Y164.46 E116.07996
G1 X213.30 Y164.45 E116.09398
G1 X213.08 Y164.45 E116.10526
G1 X212.83 Y164.47 E116.11782
G1 X212.57 Y164.50 E116.13084
G1 X212.33 Y164.54 E116.14268
G1 X212.06 Y164.60 E116.15643
G1 X211.82 Y164.67 E116.16912
G1 X211.59 Y164.75 E116.18130
G1 X211.32 Y164.85 E116.19582
G1 X211.11 Y164.94 E116.20712
G1 X210.89 Y165.05 E116.21940
G1 X210.66 Y165.18 E116.23258
G1 X210.44 Y165.32 E116.24538
G1 X210.23 Y165.47 E116.25813
G1 X210.04 Y165.62 E116.27057
G1 X209.84 Y165.79 E116.28359
G1 X209.65 Y165.97 E116.29665
G1 X209.49 Y166.14 E116.30844
G1 X209.32 Y166.34 E116.32124
G1 X209.14 Y166.56 E116.33524
G1 X208.99 Y166.77 E116.34835
G1 X204.92 Y173.07 E116.72265
G1 X176.29 Y173.07 E118.15070
G0 F12000 X176.50 Y172.67
G1 F2400 X172.09 Y166.28 E118.53801
G1 X171.95 Y166.09 E118.54996
G1 X171.79 Y165.90 E118.56223
G1 X171.58 Y165.69 E118.57719
G1 X171.38 Y165.49 E118.59095
G1 X171.19 Y165.33 E118.60341
G1 X170.96 Y165.15 E118.61837
G1 X170.74 Y165.00 E118.63136
G1 X170.51 Y164.85 E118.64518
G1 X170.27 Y164.71 E118.65919
G1 X170.04 Y164.59 E118.67193
G1 X169.76 Y164.47 E118.68705
G1 X169.52 Y164.38 E118.69973
G1 X169.27 Y164.29 E118.71324
G1 X168.99 Y164.22 E118.72783
G1 X168.73 Y164.16 E118.74104
G1 X168.46 Y164.11 E118.75466
G1 X168.17 Y164.07 E118.76894
G1 X167.90 Y164.05 E118.78245
G1 X167.61 Y164.05 E118.79722
G1 X167.36 Y164.05 E118.80960
G1 X167.09 Y164.07 E118.82330
G1 X166.82 Y164.10 E118.83652
G1 X166.52 Y164.16 E118.85165
G1 X166.29 Y164.21 E118.86372
G1 X166.00 Y164.29 E118.87862
G1 X165.75 Y164.37 E118.89154
G1 X165.47 Y164.48 E118.90699
G1 X165.25 Y164.57 E118.91854
G1 X164.98 Y164.71 E118.93377
G1 X164.92 Y164.74 E118.93699
G1 X164.92 Y174.56 E119.42696
G1 X170.65 Y178.25 E119.76679
G1 X170.65 Y206.46 E121.17424
G1 X164.26 Y210.88 E121.56184
G1 X164.07 Y211.02 E121.57379
G1 X163.88 Y211.18 E121.58581
G1 X163.67 Y211.38 E121.60070
G1 X163.48 Y211.59 E121.61453
G1 X163.32 Y211.77 E121.62653
G1 X163.14 Y212.00 E121.64128
G1 X162.98 Y212.22 E121.65463
G1 X162.83 Y212.46 E121.66870
G1 X162.69 Y212.71 E121.68318
G1 X162.57 Y212.94 E121.69618
G1 X162.46 Y213.19 E121.70996
G1 X162.36 Y213.45 E121.72361
G1 X162.28 Y213.69 E121.73639
G1 X162.20 Y213.98 E121.75119
G1 X162.14 Y214.23 E121.76413
G1 X162.09 Y214.52 E121.77898
G1 X162.06 Y214.79 E121.79245
G1 X162.04 Y215.06 E121.80596
G1 X162.03 Y215.36 E121.82073
G1 X162.03 Y215.61 E121.83311
G1 X162.05 Y215.87 E121.84652
G1 X162.09 Y216.16 E121.86064
G1 X162.13 Y216.42 E121.87425
G1 X162.19 Y216.69 E121.88800
G1 X162.27 Y216.95 E121.90146
G1 X162.35 Y217.22 E121.91522
G1 X162.46 Y217.49 E121.92997
G1 X162.56 Y217.71 E121.94208
G1 X162.69 Y217.99 E121.95725
G1 X162.81 Y218.20 E121.96958
G1 X162.98 Y218.46 E121.98492
G1 X163.12 Y218.66 E121.99728
G1 X163.29 Y218.88 E122.01125
G1 X163.47 Y219.09 E122.02494
G1 X163.67 Y219.30 E122.03916
G1 X163.87 Y219.49 E122.05292
G1 X164.05 Y219.65 E122.06516
G1 X164.29 Y219.83 E122.07998
G1 X164.50 Y219.98 E122.09305
G1 X164.74 Y220.13 E122.10711
G1 X164.99 Y220.28 E122.12159
G1 X165.22 Y220.40 E122.13460
G1 X165.47 Y220.51 E122.14838
G1 X165.74 Y220.61 E122.16256
G1 X165.97 Y220.69 E122.17481
G1 X166.26 Y220.77 E122.18961
G1 X166.51 Y220.82 E122.20255
G1 X166.81 Y220.88 E122.21739
G1 X167.07 Y220.91 E122.23087
G1 X167.34 Y220.93 E122.24438
G1 X167.64 Y220.94 E122.25915
G1 X167.89 Y220.93 E122.27153
G1 X168.16 Y220.91 E122.28493
G1 X168.44 Y220.88 E122.29905
G1 X168.71 Y220.83 E122.31267
G1 X168.97 Y220.77 E122.32642
G1 X169.24 Y220.70 E122.34009
G1 X169.49 Y220.62 E122.35348
G1 X169.78 Y220.50 E122.36893
G1 X169.99 Y220.41 E122.38043
G1 X170.27 Y220.28 E122.39567
G1 X170.48 Y220.15 E122.40800
G1 X170.72 Y220.00 E122.42222
G1 X170.95 Y219.84 E122.43629
G1 X171.16 Y219.67 E122.44970
G1 X171.37 Y219.50 E122.46339
G1 X171.57 Y219.31 E122.47708
G1 X171.77 Y219.09 E122.49165
G1 X171.94 Y218.90 E122.50438
G1 X172.12 Y218.68 E122.51857
G1 X172.29 Y218.43 E122.53364
G1 X176.25 Y212.32 E122.89707
G1 X204.44 Y212.32 E124.30368
G1 X208.86 Y218.71 E124.69128
G1 X209.00 Y218.90 E124.70322
G1 X209.15 Y219.07 E124.71475
G1 X209.37 Y219.30 E124.73021
G1 X209.57 Y219.49 E124.74397
G1 X209.75 Y219.65 E124.75621
G1 X209.99 Y219.83 E124.77103
G1 X210.20 Y219.98 E124.78410
G1 X210.44 Y220.13 E124.79816
G1 X210.69 Y220.28 E124.81264
G1 X210.92 Y220.40 E124.82565
G1 X211.18 Y220.51 E124.83943
G1 X211.44 Y220.61 E124.85361
G1 X211.67 Y220.69 E124.86586
G1 X211.96 Y220.77 E124.88066
G1 X212.21 Y220.82 E124.89360
G1 X212.50 Y220.88 E124.90844
G1 X212.77 Y220.91 E124.92192
G1 X213.04 Y220.93 E124.93543
G1 X213.34 Y220.94 E124.95020
G1 X213.59 Y220.93 E124.96258
G1 X213.85 Y220.91 E124.97598
G1 X214.14 Y220.88 E124.99011
G1 X214.41 Y220.83 E125.00372
G1 X214.67 Y220.77 E125.01747
G1 X214.94 Y220.70 E125.03114
G1 X215.19 Y220.62 E125.04453
G1 X215.48 Y220.50 E125.05998
G1 X215.69 Y220.41 E125.07148
G1 X215.97 Y220.28 E125.08672
G1 X216.18 Y220.15 E125.09905
G1 X216.42 Y220.00 E125.11327
G1 X216.65 Y219.84 E125.12734
G1 X216.87 Y219.67 E125.14075
G1 X217.07 Y219.50 E125.15444
G1 X217.27 Y219.31 E125.16813
G1 X217.47 Y219.09 E125.18270
G1 X217.62 Y218.92 E125.19413
G1 X217.62 Y211.76 E125.55119
G1 X217.48 Y211.59 E125.56251
G1 X217.28 Y211.38 E125.57680
G1 X217.08 Y211.19 E125.59049
G1 X216.89 Y211.03 E125.60330
G1 X216.66 Y210.85 E125.61770
G1 X216.41 Y210.68 E125.63263
G1 X210.30 Y206.72 E125.99621
G1 X210.30 Y178.52 E127.40281
G1 X216.69 Y174.11 E127.79041
G1 X216.88 Y173.96 E127.80235
G1 X217.06 Y173.81 E127.81442
G1 X217.27 Y173.61 E127.82881
G1 X217.47 Y173.40 E127.84339
G1 X217.62 Y173.22 E127.85481
G1 X217.62 Y166.06 E128.21187
G1 X217.48 Y165.89 E128.22319
G1 X217.28 Y165.69 E128.23742
G1 X217.08 Y165.50 E128.25118
G1 X216.89 Y165.33 E128.26363
G1 X216.66 Y165.15 E128.27824
G1 X216.45 Y165.00 E128.29138
G1 X216.21 Y164.85 E128.30555
G1 X215.97 Y164.71 E128.31916
G1 X215.74 Y164.60 E128.33212
G1 X215.47 Y164.48 E128.34686
G1 X215.19 Y164.37 E128.36142
G1 X214.97 Y164.30 E128.37304
G1 X214.69 Y164.22 E128.38784
G1 X214.44 Y164.16 E128.40078
G1 X214.14 Y164.11 E128.41562
G1 X213.87 Y164.08 E128.42910
G1 X213.62 Y164.06 E128.44191
G1 X213.30 Y164.05 E128.45788
G1 X213.06 Y164.05 E128.46975
G1 X212.79 Y164.07 E128.48316
G1 X212.51 Y164.11 E128.49728
G1 X212.24 Y164.15 E128.51090
G1 X211.97 Y164.21 E128.52465
G1 X211.71 Y164.29 E128.53831
G1 X211.45 Y164.37 E128.55171
G1 X211.17 Y164.48 E128.56688
G1 X210.93 Y164.59 E128.57993
G1 X210.69 Y164.70 E128.59325
G1 X210.47 Y164.83 E128.60621
G1 X210.22 Y164.98 E128.62042
G1 X209.99 Y165.15 E128.63450
G1 X209.78 Y165.31 E128.64790
G1 X209.57 Y165.49 E128.66159
G1 X209.37 Y165.69 E128.67581
G1 X209.18 Y165.88 E128.68957
G1 X209.01 Y166.08 E128.70238
G1 X208.83 Y166.31 E128.71678
G1 X208.66 Y166.55 E128.73171
G1 X204.70 Y172.67 E129.09529
G1 X176.50 Y172.67 E130.50199
G0 F12000 X176.71 Y172.27
G1 F2400 X172.42 Y166.04 E130.87936
G1 X172.26 Y165.83 E130.89251
G1 X172.07 Y165.62 E130.90655
G1 X171.86 Y165.40 E130.92176
G1 X171.66 Y165.21 E130.93584
G1 X171.44 Y165.02 E130.95028
G1 X171.19 Y164.82 E130.96602
G1 X170.98 Y164.67 E130.97883
G1 X170.71 Y164.50 E130.99514
G1 X170.46 Y164.36 E131.00910
G1 X170.21 Y164.23 E131.02312
G1 X169.94 Y164.11 E131.03819
G1 X169.64 Y164.00 E131.05408
G1 X169.39 Y163.91 E131.06727
G1 X169.09 Y163.83 E131.08275
G1 X168.81 Y163.76 E131.09713
G1 X168.52 Y163.71 E131.11182
G1 X168.21 Y163.68 E131.12715
G1 X167.92 Y163.66 E131.14156
G1 X167.61 Y163.65 E131.15728
G1 X167.34 Y163.65 E131.17061
G1 X167.05 Y163.67 E131.18516
G1 X166.75 Y163.71 E131.20049
G1 X166.47 Y163.76 E131.21446
G1 X166.18 Y163.82 E131.22944
G1 X165.89 Y163.90 E131.24439
G1 X165.61 Y163.99 E131.25878
G1 X165.31 Y164.11 E131.27530
G1 X165.08 Y164.21 E131.28745
G1 X164.81 Y164.35 E131.30276
G1 X164.55 Y164.49 E131.31759
G1 X164.52 Y164.51 E131.31907
G1 X164.52 Y174.54 E131.81967
G1 X164.17 Y174.54 E131.83733
G1 X164.32 Y174.65 E131.84642
G1 X170.25 Y178.47 E132.19839
G1 X170.25 Y206.25 E133.58448
G1 X164.01 Y210.56 E133.96283
G1 X163.82 Y210.71 E133.97459
G1 X163.61 Y210.89 E133.98878
G1 X163.38 Y211.10 E134.00409
G1 X163.19 Y211.31 E134.01838
G1 X163.00 Y211.52 E134.03250
G1 X162.82 Y211.76 E134.04746
G1 X162.66 Y211.98 E134.06088
G1 X162.48 Y212.26 E134.07762
G1 X162.34 Y212.50 E134.09140
G1 X162.21 Y212.77 E134.10633
G1 X162.09 Y213.04 E134.12107
G1 X161.98 Y213.33 E134.13649
G1 X161.90 Y213.57 E134.14904
G1 X161.81 Y213.89 E134.16572
G1 X161.75 Y214.15 E134.17917
G1 X161.69 Y214.47 E134.19508
G1 X161.66 Y214.75 E134.20961
G1 X161.64 Y215.04 E134.22402
G1 X161.63 Y215.34 E134.23899
G1 X161.63 Y215.62 E134.25277
G1 X161.66 Y215.91 E134.26747
G1 X161.69 Y216.19 E134.28149
G1 X161.74 Y216.49 E134.29637
G1 X161.81 Y216.80 E134.31262
G1 X161.88 Y217.05 E134.32524
G1 X161.98 Y217.36 E134.34157
G1 X162.09 Y217.65 E134.35695
G1 X162.19 Y217.88 E134.36995
G1 X162.32 Y218.14 E134.38445
G1 X162.48 Y218.42 E134.40035
G1 X162.63 Y218.66 E134.41453
G1 X162.81 Y218.92 E134.43029
G1 X162.97 Y219.13 E134.44344
G1 X163.18 Y219.36 E134.45883
G1 X163.38 Y219.58 E134.47383
G1 X163.59 Y219.78 E134.48812
G1 X163.81 Y219.97 E134.50231
G1 X164.05 Y220.16 E134.51770
G1 X164.27 Y220.31 E134.53101
G1 X164.54 Y220.49 E134.54739
G1 X164.78 Y220.62 E134.56117
G1 X165.05 Y220.76 E134.57610
G1 X165.32 Y220.88 E134.59084
G1 X165.62 Y220.99 E134.60684
G1 X165.85 Y221.07 E134.61888
G1 X166.17 Y221.16 E134.63550
G1 X166.43 Y221.22 E134.64894
G1 X166.75 Y221.27 E134.66485
G1 X167.03 Y221.31 E134.67938
G1 X167.32 Y221.33 E134.69379
G1 X167.64 Y221.34 E134.70951
G1 X167.91 Y221.33 E134.72284
G1 X168.19 Y221.31 E134.73724
G1 X168.49 Y221.28 E134.75202
G1 X168.78 Y221.22 E134.76691
G1 X169.08 Y221.16 E134.78239
G1 X169.34 Y221.09 E134.79574
G1 X169.63 Y220.99 E134.81107
G1 X169.93 Y220.88 E134.82690
G1 X170.16 Y220.77 E134.83965
G1 X170.44 Y220.64 E134.85496
G1 X170.71 Y220.48 E134.87048
G1 X170.95 Y220.33 E134.88459
G1 X171.19 Y220.16 E134.89923
G1 X171.41 Y219.99 E134.91338
G1 X171.65 Y219.79 E134.92891
G1 X171.85 Y219.59 E134.94310
G1 X172.06 Y219.37 E134.95817
G1 X172.25 Y219.16 E134.97228
G1 X172.44 Y218.91 E134.98824
G1 X172.63 Y218.64 E135.00432
G1 X176.47 Y212.72 E135.35651
G1 X204.23 Y212.72 E136.74181
G1 X208.54 Y218.96 E137.12015
G1 X208.68 Y219.14 E137.13153
G1 X208.87 Y219.36 E137.14610
G1 X209.08 Y219.58 E137.16141
G1 X209.29 Y219.78 E137.17571
G1 X209.50 Y219.97 E137.18989
G1 X209.75 Y220.16 E137.20528
G1 X209.97 Y220.31 E137.21859
G1 X210.24 Y220.49 E137.23497
G1 X210.48 Y220.62 E137.24875
G1 X210.75 Y220.76 E137.26368
G1 X211.02 Y220.88 E137.27842
G1 X211.32 Y220.99 E137.29442
G1 X211.55 Y221.07 E137.30646
G1 X211.87 Y221.16 E137.32308
G1 X212.13 Y221.22 E137.33653
G1 X212.45 Y221.27 E137.35243
G1 X212.74 Y221.31 E137.36697
G1 X213.02 Y221.33 E137.38137
G1 X213.34 Y221.34 E137.39709
G1 X213.60 Y221.33 E137.41042
G1 X213.89 Y221.31 E137.42482
G1 X214.19 Y221.28 E137.43960
G1 X214.48 Y221.22 E137.45449
G1 X214.78 Y221.16 E137.46997
G1 X215.04 Y221.09 E137.48332
G1 X215.33 Y220.99 E137.49865
G1 X215.63 Y220.88 E137.51448
G1 X215.86 Y220.77 E137.52723
G1 X216.14 Y220.64 E137.54254
G1 X216.41 Y220.48 E137.55807
G1 X216.65 Y220.33 E137.57217
G1 X216.89 Y220.16 E137.58681
G1 X217.11 Y219.99 E137.60097
G1 X217.35 Y219.79 E137.61650
G1 X217.55 Y219.59 E137.63068
G1 X217.76 Y219.37 E137.64575
G1 X217.95 Y219.16 E137.65989
G1 X218.02 Y219.06 E137.66597
G1 X218.02 Y211.62 E138.03711
G1 X217.97 Y211.56 E138.04134
G1 X217.77 Y211.32 E138.05701
G1 X217.56 Y211.10 E138.07172
G1 X217.36 Y210.91 E138.08601
G1 X217.14 Y210.72 E138.10016
G1 X216.90 Y210.53 E138.11584
G1 X216.62 Y210.34 E138.13242
G1 X210.70 Y206.50 E138.48461
G1 X210.70 Y178.73 E139.86991
G1 X216.94 Y174.43 E140.24825
G1 X217.12 Y174.28 E140.26001
G1 X217.34 Y174.09 E140.27423
G1 X217.55 Y173.89 E140.28898
G1 X217.76 Y173.67 E140.30405
G1 X217.95 Y173.46 E140.31820
G1 X218.02 Y173.36 E140.32428
G1 X218.02 Y165.92 E140.69541
G1 X217.97 Y165.86 E140.69964
G1 X217.77 Y165.62 E140.71531
G1 X217.56 Y165.40 E140.73031
G1 X217.36 Y165.21 E140.74432
G1 X217.14 Y165.02 E140.75850
G1 X216.89 Y164.83 E140.77421
G1 X216.68 Y164.68 E140.78728
G1 X216.40 Y164.50 E140.80387
G1 X216.16 Y164.36 E140.81770
G1 X215.91 Y164.24 E140.83156
G1 X215.62 Y164.11 E140.84728
G1 X215.33 Y164.00 E140.86274
G1 X215.10 Y163.92 E140.87505
G1 X214.78 Y163.83 E140.89167
G1 X214.51 Y163.77 E140.90512
G1 X214.20 Y163.71 E140.92102
G1 X213.91 Y163.68 E140.93556
G1 X213.64 Y163.66 E140.94896
G1 X213.29 Y163.65 E140.96683
G1 X213.04 Y163.65 E140.97901
G1 X212.75 Y163.67 E140.99341
G1 X212.46 Y163.71 E141.00819
G1 X212.17 Y163.76 E141.02307
G1 X211.86 Y163.83 E141.03856
G1 X211.60 Y163.90 E141.05191
G1 X211.31 Y164.00 E141.06724
G1 X211.02 Y164.11 E141.08307
G1 X210.78 Y164.22 E141.09616
G1 X210.50 Y164.35 E141.11139
G1 X210.24 Y164.50 E141.12627
G1 X210.00 Y164.65 E141.14062
G1 X209.76 Y164.82 E141.15531
G1 X209.54 Y164.99 E141.16939
G1 X209.30 Y165.20 E141.18506
G1 X209.09 Y165.40 E141.19964
G1 X208.89 Y165.61 E141.21407
G1 X208.70 Y165.82 E141.22821
G1 X208.51 Y166.07 E141.24382
G1 X208.32 Y166.34 E141.26047
G1 X204.48 Y172.27 E141.61266
G1 X176.71 Y172.27 E142.99806
G0 F12000 X176.92 Y171.87
G1 F2400 X172.74 Y165.81 E143.36546
G1 X172.57 Y165.59 E143.37944
G1 X172.37 Y165.35 E143.39482
G1 X172.15 Y165.12 E143.41070
G1 X171.91 Y164.89 E143.42718
G1 X171.70 Y164.71 E143.44115
G1 X171.46 Y164.52 E143.45657
G1 X171.19 Y164.33 E143.47304
G1 X170.92 Y164.16 E143.48866
G1 X170.65 Y164.00 E143.50445
G1 X170.38 Y163.87 E143.51925
G1 X170.09 Y163.74 E143.53530
G1 X169.78 Y163.62 E143.55162
G1 X169.50 Y163.53 E143.56645
G1 X169.18 Y163.44 E143.58291
G1 X168.88 Y163.37 E143.59826
G1 X168.57 Y163.32 E143.61391
G1 X168.25 Y163.28 E143.63005
G1 X167.95 Y163.25 E143.64516
G1 X167.60 Y163.25 E143.66277
G1 X167.32 Y163.25 E143.67640
G1 X167.01 Y163.28 E143.69195
G1 X166.70 Y163.31 E143.70789
G1 X166.39 Y163.37 E143.72337
G1 X166.08 Y163.44 E143.73943
G1 X165.77 Y163.52 E143.75516
G1 X165.49 Y163.61 E143.77022
G1 X165.17 Y163.74 E143.78721
G1 X164.90 Y163.85 E143.80162
G1 X164.62 Y164.00 E143.81742
G1 X164.34 Y164.16 E143.83375
G1 X164.12 Y164.29 E143.84617
G1 X164.12 Y174.14 E144.33788
G1 X163.32 Y174.14 E144.37780
G1 X163.32 Y174.38 E144.38957
G1 X163.33 Y174.39 E144.39020
G1 X163.54 Y174.57 E144.40418
G1 X163.81 Y174.78 E144.42109
G1 X164.09 Y174.98 E144.43799
G1 X169.85 Y178.69 E144.77988
G1 X169.85 Y206.04 E146.14463
G1 X163.79 Y210.22 E146.51199
G1 X163.56 Y210.41 E146.52671
G1 X163.34 Y210.59 E146.54083
G1 X163.10 Y210.82 E146.55731
G1 X162.88 Y211.05 E146.57354
G1 X162.70 Y211.26 E146.58719
G1 X162.51 Y211.50 E146.60233
G1 X162.31 Y211.78 E146.61952
G1 X162.15 Y212.05 E146.63520
G1 X161.99 Y212.32 E146.65082
G1 X161.84 Y212.61 E146.66731
G1 X161.72 Y212.88 E146.68167
G1 X161.60 Y213.19 E146.69875
G1 X161.51 Y213.47 E146.71304
G1 X161.43 Y213.77 E146.72873
G1 X161.36 Y214.07 E146.74433
G1 X161.30 Y214.41 E146.76120
G1 X161.26 Y214.71 E146.77658
G1 X161.24 Y215.02 E146.79169
G1 X161.23 Y215.36 E146.80886
G1 X161.24 Y215.64 E146.82289
G1 X161.26 Y215.94 E146.83769
G1 X161.29 Y216.26 E146.85402
G1 X161.35 Y216.59 E146.87068
G1 X161.41 Y216.88 E146.88519
G1 X161.50 Y217.19 E146.90143
G1 X161.60 Y217.49 E146.91713
G1 X161.72 Y217.81 E146.93441
G1 X161.83 Y218.05 E146.94723
G1 X161.98 Y218.35 E146.96403
G1 X162.14 Y218.63 E146.98023
G1 X162.31 Y218.89 E146.99577
G1 X162.48 Y219.14 E147.01104
G1 X162.67 Y219.39 E147.02647
G1 X162.88 Y219.63 E147.04239
G1 X163.10 Y219.86 E147.05841
G1 X163.33 Y220.09 E147.07464
G1 X163.55 Y220.27 E147.08879
G1 X163.78 Y220.46 E147.10375
G1 X164.06 Y220.65 E147.12072
G1 X164.33 Y220.82 E147.13633
G1 X164.60 Y220.98 E147.15195
G1 X164.89 Y221.13 E147.16844
G1 X165.16 Y221.24 E147.18280
G1 X165.48 Y221.37 E147.20014
G1 X165.75 Y221.46 E147.21417
G1 X166.05 Y221.54 E147.22986
G1 X166.36 Y221.61 E147.24551
G1 X166.69 Y221.67 E147.26233
G1 X167.00 Y221.71 E147.27771
G1 X167.30 Y221.73 E147.29282
G1 X167.65 Y221.74 E147.31044
G1 X167.92 Y221.73 E147.32401
G1 X168.23 Y221.71 E147.33937
G1 X168.54 Y221.67 E147.35515
G1 X168.87 Y221.62 E147.37186
G1 X169.16 Y221.55 E147.38632
G1 X169.47 Y221.47 E147.40263
G1 X169.77 Y221.37 E147.41826
G1 X170.07 Y221.25 E147.43462
G1 X170.34 Y221.13 E147.44925
G1 X170.63 Y220.99 E147.46527
G1 X170.91 Y220.83 E147.48142
G1 X171.16 Y220.67 E147.49636
G1 X171.43 Y220.48 E147.51251
G1 X171.67 Y220.30 E147.52762
G1 X171.91 Y220.09 E147.54375
G1 X172.14 Y219.87 E147.55917
G1 X172.37 Y219.63 E147.57565
G1 X172.56 Y219.41 E147.59068
G1 X172.75 Y219.16 E147.60621
G1 X172.97 Y218.86 E147.62444
G1 X176.68 Y213.12 E147.96587
G1 X204.02 Y213.12 E149.32982
G1 X208.20 Y219.17 E149.69669
G1 X208.39 Y219.41 E149.71184
G1 X208.57 Y219.62 E149.72602
G1 X208.80 Y219.86 E149.74250
G1 X209.03 Y220.09 E149.75874
G1 X209.25 Y220.27 E149.77289
G1 X209.49 Y220.46 E149.78785
G1 X209.76 Y220.65 E149.80482
G1 X210.03 Y220.82 E149.82043
G1 X210.30 Y220.98 E149.83605
G1 X210.59 Y221.13 E149.85254
G1 X210.86 Y221.24 E149.86690
G1 X211.18 Y221.37 E149.88424
G1 X211.45 Y221.46 E149.89827
G1 X211.75 Y221.54 E149.91395
G1 X212.06 Y221.61 E149.92960
G1 X212.39 Y221.67 E149.94643
G1 X212.69 Y221.71 E149.96181
G1 X213.00 Y221.73 E149.97692
G1 X213.35 Y221.74 E149.99454
G1 X213.62 Y221.73 E150.00811
G1 X213.93 Y221.71 E150.02347
G1 X214.24 Y221.67 E150.03925
G1 X214.57 Y221.62 E150.05595
G1 X214.86 Y221.55 E150.07042
G1 X215.17 Y221.47 E150.08672
G1 X215.47 Y221.37 E150.10236
G1 X215.78 Y221.25 E150.11872
G1 X216.04 Y221.13 E150.13335
G1 X216.33 Y220.99 E150.14937
G1 X216.61 Y220.83 E150.16552
G1 X216.87 Y220.67 E150.18045
G1 X217.13 Y220.48 E150.19661
G1 X217.37 Y220.30 E150.21172
G1 X217.61 Y220.09 E150.22785
G1 X217.84 Y219.87 E150.24327
G1 X218.07 Y219.63 E150.25975
G1 X218.27 Y219.40 E150.27499
G1 X218.42 Y219.20 E150.28779
G1 X218.42 Y211.49 E150.67264
G1 X218.28 Y211.30 E150.68459
G1 X218.07 Y211.05 E150.70072
G1 X217.85 Y210.82 E150.71653
G1 X217.61 Y210.60 E150.73276
G1 X217.40 Y210.41 E150.74673
G1 X217.14 Y210.21 E150.76312
G1 X216.84 Y210.00 E150.78142
G1 X211.10 Y206.28 E151.12285
G1 X211.10 Y178.94 E152.48680
G1 X217.16 Y174.76 E152.85416
G1 X217.39 Y174.58 E152.86888
G1 X217.60 Y174.39 E152.88300
G1 X217.84 Y174.17 E152.89902
G1 X218.06 Y173.94 E152.91525
G1 X218.27 Y173.70 E152.93088
G1 X218.42 Y173.50 E152.94361
G1 X218.42 Y165.79 E153.32846
G1 X218.28 Y165.60 E153.34041
G1 X218.07 Y165.35 E153.35654
G1 X217.85 Y165.12 E153.37235
G1 X217.61 Y164.89 E153.38890
G1 X217.40 Y164.71 E153.40273
G1 X217.16 Y164.53 E153.41769
G1 X216.88 Y164.33 E153.43466
G1 X216.62 Y164.16 E153.45027
G1 X216.34 Y164.01 E153.46607
G1 X216.08 Y163.87 E153.48070
G1 X215.77 Y163.73 E153.49795
G1 X215.47 Y163.62 E153.51379
G1 X215.20 Y163.53 E153.52808
G1 X214.90 Y163.44 E153.54377
G1 X214.59 Y163.38 E153.55942
G1 X214.26 Y163.32 E153.57624
G1 X213.95 Y163.28 E153.59163
G1 X213.66 Y163.26 E153.60604
G1 X213.31 Y163.25 E153.62380
G1 X213.00 Y163.25 E153.63898
G1 X212.72 Y163.28 E153.65328
G1 X212.40 Y163.31 E153.66906
G1 X212.07 Y163.37 E153.68577
G1 X211.79 Y163.43 E153.70023
G1 X211.48 Y163.52 E153.71654
G1 X211.18 Y163.62 E153.73217
G1 X210.87 Y163.74 E153.74854
G1 X210.59 Y163.86 E153.76397
G1 X210.32 Y164.00 E153.77887
G1 X210.04 Y164.16 E153.79525
G1 X209.78 Y164.32 E153.81025
G1 X209.52 Y164.50 E153.82598
G1 X209.28 Y164.69 E153.84126
G1 X209.04 Y164.89 E153.85711
G1 X208.80 Y165.12 E153.87345
G1 X208.58 Y165.35 E153.88969
G1 X208.40 Y165.56 E153.90327
G1 X208.20 Y165.82 E153.91969
G1 X207.98 Y166.12 E153.93834
G1 X204.26 Y171.87 E154.27978
G1 X176.92 Y171.87 E155.64382
G0 F12000 X177.13 Y171.47
G1 F2400 X173.06 Y165.56 E156.00179
G1 X172.87 Y165.32 E156.01704
G1 X172.68 Y165.09 E156.03193
G1 X172.43 Y164.84 E156.04951
G1 X172.20 Y164.62 E156.06563
G1 X171.94 Y164.40 E156.08250
G1 X171.68 Y164.19 E156.09906
G1 X171.42 Y164.00 E156.11524
G1 X171.12 Y163.82 E156.13256
G1 X170.84 Y163.65 E156.14920
G1 X170.54 Y163.50 E156.16551
G1 X170.24 Y163.37 E156.18195
G1 X169.91 Y163.24 E156.19950
G1 X169.61 Y163.14 E156.21537
G1 X169.29 Y163.06 E156.23199
G1 X168.96 Y162.98 E156.24872
G1 X168.63 Y162.92 E156.26583
G1 X168.31 Y162.88 E156.28163
G1 X167.96 Y162.86 E156.29904
G1 X167.59 Y162.85 E156.31760
G1 X167.31 Y162.85 E156.33177
G1 X166.98 Y162.88 E156.34838
G1 X166.64 Y162.92 E156.36532
G1 X166.32 Y162.97 E156.38162
G1 X165.96 Y163.05 E156.39966
G1 X165.66 Y163.13 E156.41529
G1 X165.36 Y163.24 E156.43125
G1 X165.01 Y163.37 E156.45000
G1 X164.73 Y163.49 E156.46501
G1 X164.43 Y163.64 E156.48187
G1 X164.13 Y163.81 E156.49881
G1 X163.85 Y163.99 E156.51555
G1 X163.72 Y164.08 E156.52325
G1 X163.72 Y173.74 E157.00554
G1 X162.92 Y173.74 E157.04545
G1 X162.92 Y174.55 E157.08571
G1 X163.05 Y174.67 E157.09422
G1 X163.30 Y174.89 E157.11088
G1 X163.59 Y175.11 E157.12914
G1 X163.85 Y175.30 E157.14529
G1 X169.45 Y178.91 E157.47747
G1 X169.45 Y205.83 E158.82086
G1 X163.54 Y209.91 E159.17897
G1 X163.30 Y210.10 E159.19412
G1 X163.08 Y210.29 E159.20901
G1 X162.82 Y210.53 E159.22658
G1 X162.60 Y210.77 E159.24271
G1 X162.38 Y211.02 E159.25930
G1 X162.19 Y211.27 E159.27515
G1 X161.99 Y211.54 E159.29183
G1 X161.80 Y211.84 E159.30957
G1 X161.63 Y212.13 E159.32640
G1 X161.49 Y212.43 E159.34259
G1 X161.35 Y212.74 E159.35975
G1 X161.22 Y213.07 E159.37736
G1 X161.13 Y213.34 E159.39138
G1 X161.04 Y213.68 E159.40909
G1 X160.96 Y214.00 E159.42587
G1 X160.90 Y214.35 E159.44324
G1 X160.86 Y214.65 E159.45858
G1 X160.84 Y215.00 E159.47609
G1 X160.83 Y215.37 E159.49426
G1 X160.84 Y215.66 E159.50878
G1 X160.86 Y215.99 E159.52524
G1 X160.90 Y216.32 E159.54182
G1 X160.96 Y216.66 E159.55944
G1 X161.03 Y216.97 E159.57513
G1 X161.12 Y217.29 E159.59183
G1 X161.22 Y217.62 E159.60863
G1 X161.35 Y217.95 E159.62648
G1 X161.47 Y218.23 E159.64204
G1 X161.63 Y218.53 E159.65884
G1 X161.78 Y218.82 E159.67504
G1 X161.98 Y219.12 E159.69309
G1 X162.16 Y219.38 E159.70860
G1 X162.36 Y219.64 E159.72499
G1 X162.59 Y219.91 E159.74257
G1 X162.81 Y220.14 E159.75902
G1 X163.04 Y220.36 E159.77486
G1 X163.31 Y220.60 E159.79261
G1 X163.55 Y220.78 E159.80750
G1 X163.83 Y220.98 E159.82472
G1 X164.12 Y221.17 E159.84204
G1 X164.42 Y221.33 E159.85886
G1 X164.71 Y221.48 E159.87506
G1 X165.02 Y221.62 E159.89221
G1 X165.35 Y221.75 E159.90983
G1 X165.62 Y221.84 E159.92385
G1 X165.96 Y221.93 E159.94156
G1 X166.29 Y222.00 E159.95833
G1 X166.63 Y222.06 E159.97571
G1 X166.94 Y222.10 E159.99110
G1 X167.28 Y222.13 E160.00856
G1 X167.66 Y222.14 E160.02707
G1 X167.94 Y222.13 E160.04125
G1 X168.27 Y222.11 E160.05770
G1 X168.60 Y222.07 E160.07429
G1 X168.95 Y222.01 E160.09191
G1 X169.27 Y221.94 E160.10831
G1 X169.58 Y221.85 E160.12461
G1 X169.90 Y221.75 E160.14146
G1 X170.23 Y221.62 E160.15885
G1 X170.51 Y221.49 E160.17444
G1 X170.82 Y221.34 E160.19131
G1 X171.10 Y221.18 E160.20773
G1 X171.40 Y221.00 E160.22502
G1 X171.66 Y220.81 E160.24106
G1 X171.92 Y220.60 E160.25773
G1 X172.19 Y220.38 E160.27503
G1 X172.42 Y220.16 E160.29102
G1 X172.66 Y219.90 E160.30856
G1 X172.86 Y219.67 E160.32380
G1 X173.09 Y219.38 E160.34210
G1 X173.29 Y219.10 E160.35947
G1 X176.90 Y213.52 E160.69128
G1 X203.81 Y213.52 E162.03392
G1 X207.89 Y219.42 E162.39196
G1 X208.08 Y219.66 E162.40725
G1 X208.27 Y219.89 E162.42207
G1 X208.51 Y220.14 E162.43964
G1 X208.74 Y220.36 E162.45549
G1 X209.01 Y220.60 E162.47324
G1 X209.25 Y220.78 E162.48813
G1 X209.53 Y220.98 E162.50535
G1 X209.82 Y221.17 E162.52267
G1 X210.12 Y221.33 E162.53949
G1 X210.41 Y221.48 E162.55569
G1 X210.72 Y221.62 E162.57284
G1 X211.05 Y221.75 E162.59045
G1 X211.32 Y221.84 E162.60448
G1 X211.66 Y221.93 E162.62219
G1 X211.99 Y222.00 E162.63896
G1 X212.33 Y222.06 E162.65634
G1 X212.63 Y222.10 E162.67173
G1 X212.98 Y222.13 E162.68919
G1 X213.35 Y222.14 E162.70770
G1 X213.64 Y222.13 E162.72187
G1 X213.97 Y222.11 E162.73833
G1 X214.30 Y222.07 E162.75492
G1 X214.65 Y222.01 E162.77253
G1 X214.97 Y221.94 E162.78894
G1 X215.28 Y221.85 E162.80524
G1 X215.60 Y221.75 E162.82209
G1 X215.93 Y221.62 E162.83948
G1 X216.21 Y221.49 E162.85507
G1 X216.52 Y221.34 E162.87194
G1 X216.80 Y221.18 E162.88836
G1 X217.10 Y221.00 E162.90565
G1 X217.36 Y220.81 E162.92169
G1 X217.62 Y220.60 E162.93836
G1 X217.89 Y220.38 E162.95566
G1 X218.12 Y220.16 E162.97165
G1 X218.36 Y219.90 E162.98919
G1 X218.58 Y219.66 E163.00556
G1 X218.76 Y219.42 E163.02074
G1 X218.82 Y219.33 E163.02600
G1 X218.82 Y211.35 E163.42392
G1 X218.79 Y211.30 E163.42697
G1 X218.59 Y211.04 E163.44347
G1 X218.36 Y210.78 E163.46080
G1 X218.13 Y210.54 E163.47724
G1 X217.90 Y210.32 E163.49337
G1 X217.64 Y210.10 E163.51024
G1 X217.37 Y209.88 E163.52784
G1 X217.08 Y209.68 E163.54521
G1 X211.50 Y206.06 E163.87701
G1 X211.50 Y179.15 E165.21965
G1 X217.40 Y175.07 E165.57776
G1 X217.65 Y174.89 E165.59305
G1 X217.87 Y174.69 E165.60780
G1 X218.12 Y174.46 E165.62488
G1 X218.36 Y174.20 E165.64242
G1 X218.58 Y173.96 E165.65879
G1 X218.76 Y173.72 E165.67393
G1 X218.82 Y173.63 E165.67923
G1 X218.82 Y165.65 E166.07716
G1 X218.79 Y165.60 E166.08027
G1 X218.59 Y165.34 E166.09677
G1 X218.36 Y165.08 E166.11428
G1 X218.13 Y164.84 E166.13048
G1 X217.90 Y164.62 E166.14660
G1 X217.63 Y164.39 E166.16408
G1 X217.40 Y164.20 E166.17897
G1 X217.12 Y164.00 E166.19619
G1 X216.82 Y163.81 E166.21390
G1 X216.53 Y163.65 E166.23037
G1 X216.25 Y163.51 E166.24623
G1 X215.92 Y163.36 E166.26403
G1 X215.60 Y163.24 E166.28095
G1 X215.33 Y163.15 E166.29529
G1 X214.99 Y163.06 E166.31300
G1 X214.66 Y162.98 E166.32977
G1 X214.32 Y162.92 E166.34715
G1 X214.01 Y162.88 E166.36254
G1 X213.66 Y162.86 E166.37995
G1 X213.31 Y162.85 E166.39766
G1 X212.99 Y162.85 E166.41368
G1 X212.68 Y162.88 E166.42914
G1 X212.35 Y162.92 E166.44573
G1 X212.00 Y162.98 E166.46334
G1 X211.68 Y163.05 E166.47974
G1 X211.37 Y163.13 E166.49589
G1 X211.04 Y163.24 E166.51290
G1 X210.72 Y163.36 E166.52996
G1 X210.42 Y163.50 E166.54664
G1 X210.13 Y163.64 E166.56255
G1 X209.84 Y163.81 E166.57915
G1 X209.55 Y163.99 E166.59643
G1 X209.29 Y164.18 E166.61248
G1 X209.02 Y164.38 E166.62915
G1 X208.76 Y164.61 E166.64649
G1 X208.52 Y164.83 E166.66293
G1 X208.30 Y165.07 E166.67906
G1 X208.08 Y165.32 E166.69568
G1 X207.86 Y165.60 E166.71352
G1 X207.66 Y165.89 E166.73089
G1 X204.05 Y171.47 E167.06269
G1 X177.13 Y171.47 E168.40544
G0 F12000 X177.34 Y171.07
G1 F2400 X173.38 Y165.32 E168.75365
G1 X173.20 Y165.09 E168.76858
G1 X172.97 Y164.82 E168.78623
G1 X172.71 Y164.55 E168.80490
G1 X172.47 Y164.32 E168.82159
G1 X172.20 Y164.09 E168.83892
G1 X171.93 Y163.88 E168.85627
G1 X171.64 Y163.67 E168.87416
G1 X171.32 Y163.47 E168.89256
G1 X171.03 Y163.31 E168.90920
G1 X170.70 Y163.14 E168.92774
G1 X170.41 Y163.00 E168.94403
G1 X170.06 Y162.87 E168.96222
G1 X169.72 Y162.76 E168.98008
G1 X169.38 Y162.66 E168.99800
G1 X169.04 Y162.59 E169.01514
G1 X168.68 Y162.53 E169.03348
G1 X168.35 Y162.48 E169.05007
G1 X167.98 Y162.46 E169.06853
G1 X167.59 Y162.45 E169.08794
G1 X167.29 Y162.45 E169.10311
G1 X166.94 Y162.48 E169.12072
G1 X166.57 Y162.52 E169.13932
G1 X166.24 Y162.58 E169.15607
G1 X165.90 Y162.66 E169.17340
G1 X165.53 Y162.76 E169.19228
G1 X165.22 Y162.86 E169.20888
G1 X164.85 Y163.00 E169.22833
G1 X164.57 Y163.12 E169.24355
G1 X164.24 Y163.29 E169.26213
G1 X163.92 Y163.47 E169.28047
G1 X163.64 Y163.65 E169.29715
G1 X163.34 Y163.85 E169.31499
G1 X163.32 Y163.87 E169.31631
G1 X163.32 Y173.34 E169.78897
G1 X162.52 Y173.34 E169.82888
G1 X162.52 Y174.72 E169.89753
G1 X162.54 Y174.74 E169.89870
G1 X162.78 Y174.97 E169.91539
G1 X163.04 Y175.19 E169.93251
G1 X163.34 Y175.43 E169.95152
G1 X163.62 Y175.63 E169.96871
G1 X169.05 Y179.12 E170.29081
G1 X169.05 Y205.62 E171.61285
G1 X163.32 Y209.58 E171.96045
G1 X163.06 Y209.78 E171.97670
G1 X162.80 Y210.00 E171.99368
G1 X162.53 Y210.26 E172.01235
G1 X162.30 Y210.50 E172.02904
G1 X162.07 Y210.76 E172.04630
G1 X161.87 Y211.02 E172.06272
G1 X161.65 Y211.33 E172.08155
G1 X161.45 Y211.64 E172.09995
G1 X161.29 Y211.94 E172.11682
G1 X161.12 Y212.27 E172.13538
G1 X160.98 Y212.58 E172.15220
G1 X160.84 Y212.93 E172.17113
G1 X160.75 Y213.21 E172.18585
G1 X160.65 Y213.59 E172.20538
G1 X160.57 Y213.93 E172.22266
G1 X160.51 Y214.29 E172.24121
G1 X160.47 Y214.61 E172.25745
G1 X160.44 Y214.98 E172.27591
G1 X160.43 Y215.37 E172.29532
G1 X160.44 Y215.68 E172.31049
G1 X160.46 Y216.02 E172.32780
G1 X160.50 Y216.39 E172.34649
G1 X160.56 Y216.72 E172.36290
G1 X160.65 Y217.10 E172.38223
G1 X160.73 Y217.41 E172.39852
G1 X160.85 Y217.76 E172.41706
G1 X160.98 Y218.10 E172.43485
G1 X161.11 Y218.40 E172.45123
G1 X161.27 Y218.72 E172.46948
G1 X161.44 Y219.03 E172.48699
G1 X161.63 Y219.33 E172.50471
G1 X161.85 Y219.64 E172.52334
G1 X162.04 Y219.89 E172.53915
G1 X162.29 Y220.17 E172.55776
G1 X162.54 Y220.44 E172.57615
G1 X162.78 Y220.67 E172.59284
G1 X163.04 Y220.89 E172.61010
G1 X163.31 Y221.10 E172.62695
G1 X163.61 Y221.31 E172.64538
G1 X163.92 Y221.51 E172.66378
G1 X164.22 Y221.68 E172.68065
G1 X164.55 Y221.85 E172.69921
G1 X164.86 Y221.99 E172.71603
G1 X165.21 Y222.12 E172.73497
G1 X165.49 Y222.22 E172.74968
G1 X165.87 Y222.32 E172.76921
G1 X166.21 Y222.40 E172.78649
G1 X166.57 Y222.46 E172.80504
G1 X166.90 Y222.50 E172.82128
G1 X167.26 Y222.53 E172.83974
G1 X167.65 Y222.54 E172.85915
G1 X167.96 Y222.53 E172.87432
G1 X168.30 Y222.51 E172.89163
G1 X168.68 Y222.46 E172.91032
G1 X169.00 Y222.41 E172.92673
G1 X169.38 Y222.32 E172.94606
G1 X169.69 Y222.24 E172.96235
G1 X170.03 Y222.12 E172.98037
G1 X170.39 Y221.99 E172.99913
G1 X170.68 Y221.86 E173.01499
G1 X171.00 Y221.69 E173.03331
G1 X171.31 Y221.52 E173.05082
G1 X171.61 Y221.33 E173.06865
G1 X171.91 Y221.12 E173.08663
G1 X172.17 Y220.92 E173.10305
G1 X172.45 Y220.68 E173.12162
G1 X172.71 Y220.43 E173.13952
G1 X172.95 Y220.18 E173.15684
G1 X173.17 Y219.93 E173.17346
G1 X173.41 Y219.62 E173.19298
G1 X173.62 Y219.32 E173.21105
G1 X177.12 Y213.92 E173.53250
G1 X203.60 Y213.92 E174.85380
G1 X207.56 Y219.65 E175.20140
G1 X207.76 Y219.91 E175.21765
G1 X207.98 Y220.16 E175.23463
G1 X208.24 Y220.44 E175.25330
G1 X208.48 Y220.67 E175.26999
G1 X208.74 Y220.89 E175.28725
G1 X209.01 Y221.10 E175.30409
G1 X209.31 Y221.31 E175.32253
G1 X209.62 Y221.51 E175.34092
G1 X209.92 Y221.68 E175.35779
G1 X210.25 Y221.85 E175.37636
G1 X210.56 Y221.99 E175.39317
G1 X210.91 Y222.12 E175.41211
G1 X211.19 Y222.22 E175.42683
G1 X211.57 Y222.32 E175.44636
G1 X211.91 Y222.40 E175.46364
G1 X212.27 Y222.46 E175.48219
G1 X212.59 Y222.50 E175.49842
G1 X212.96 Y222.53 E175.51689
G1 X213.35 Y222.54 E175.53630
G1 X213.66 Y222.53 E175.55147
G1 X214.00 Y222.51 E175.56878
G1 X214.38 Y222.46 E175.58747
G1 X214.70 Y222.41 E175.60388
G1 X215.08 Y222.32 E175.62321
G1 X215.39 Y222.24 E175.63950
G1 X215.74 Y222.12 E175.65751
G1 X216.09 Y221.99 E175.67628
G1 X216.38 Y221.86 E175.69214
G1 X216.71 Y221.69 E175.71045
G1 X217.01 Y221.52 E175.72797
G1 X217.31 Y221.33 E175.74579
G1 X217.61 Y221.12 E175.76377
G1 X217.87 Y220.92 E175.78020
G1 X218.15 Y220.68 E175.79877
G1 X218.41 Y220.43 E175.81666
G1 X218.65 Y220.18 E175.83399
G1 X218.88 Y219.92 E175.85142
G1 X219.08 Y219.66 E175.86802
G1 X219.22 Y219.46 E175.88016
G1 X219.22 Y211.23 E176.29066
G1 X219.10 Y211.06 E176.30101
G1 X218.90 Y210.80 E176.31744
G1 X218.66 Y210.52 E176.33601
G1 X218.41 Y210.25 E176.35439
G1 X218.16 Y210.02 E176.37108
G1 X217.91 Y209.80 E176.38781
G1 X217.60 Y209.56 E176.40736
G1 X217.31 Y209.35 E176.42544
G1 X211.90 Y205.85 E176.74689
G1 X211.90 Y179.36 E178.06818
G1 X217.63 Y175.41 E178.41579
G1 X217.89 Y175.21 E178.43204
G1 X218.15 Y174.98 E178.44902
G1 X218.41 Y174.73 E178.46719
G1 X218.65 Y174.48 E178.48452
G1 X218.88 Y174.22 E178.50195
G1 X219.08 Y173.96 E178.51855
G1 X219.22 Y173.76 E178.53069
G1 X219.22 Y165.53 E178.94118
G1 X219.10 Y165.36 E178.95154
G1 X218.90 Y165.10 E178.96796
G1 X218.66 Y164.82 E178.98654
G1 X218.41 Y164.55 E179.00492
G1 X218.16 Y164.32 E179.02161
G1 X217.90 Y164.09 E179.03887
G1 X217.64 Y163.88 E179.05579
G1 X217.33 Y163.67 E179.07434
G1 X217.02 Y163.47 E179.09255
G1 X216.73 Y163.31 E179.10920
G1 X216.40 Y163.14 E179.12774
G1 X216.09 Y163.00 E179.14505
G1 X215.74 Y162.87 E179.16342
G1 X215.46 Y162.77 E179.17844
G1 X215.08 Y162.67 E179.19796
G1 X214.74 Y162.59 E179.21525
G1 X214.38 Y162.53 E179.23379
G1 X214.05 Y162.49 E179.25003
G1 X213.68 Y162.46 E179.26844
G1 X213.31 Y162.45 E179.28706
G1 X212.97 Y162.46 E179.30407
G1 X212.64 Y162.48 E179.32038
G1 X212.27 Y162.52 E179.33907
G1 X211.95 Y162.58 E179.35548
G1 X211.57 Y162.66 E179.37470
G1 X211.25 Y162.75 E179.39110
G1 X210.91 Y162.86 E179.40912
G1 X210.56 Y163.00 E179.42788
G1 X210.26 Y163.13 E179.44403
G1 X209.94 Y163.29 E179.46232
G1 X209.64 Y163.46 E179.47954
G1 X209.33 Y163.65 E179.49737
G1 X209.04 Y163.86 E179.51535
G1 X208.78 Y164.06 E179.53178
G1 X208.50 Y164.31 E179.55035
G1 X208.23 Y164.56 E179.56873
G1 X208.00 Y164.80 E179.58542
G1 X207.78 Y165.05 E179.60191
G1 X207.54 Y165.36 E179.62171
G1 X207.33 Y165.66 E179.63978
G1 X203.83 Y171.07 E179.96123
G1 X177.34 Y171.07 E181.28263
G0 F12000 X177.55 Y170.67
G1 F2400 X173.71 Y165.10 E181.62022
G1 X173.49 Y164.82 E181.63786
G1 X173.26 Y164.55 E181.65533
G1 X173.00 Y164.28 E181.67442
G1 X172.73 Y164.02 E181.69305
G1 X172.45 Y163.77 E181.71166
G1 X172.17 Y163.55 E181.72957
G1 X171.85 Y163.33 E181.74862
G1 X171.55 Y163.14 E181.76665
G1 X171.21 Y162.95 E181.78611
G1 X170.89 Y162.78 E181.80394
G1 X170.55 Y162.63 E181.82268
G1 X170.19 Y162.49 E181.84188
G1 X169.86 Y162.38 E181.85944
G1 X169.47 Y162.28 E181.87927
G1 X169.12 Y162.19 E181.89739
G1 X168.74 Y162.13 E181.91652
G1 X168.39 Y162.09 E181.93417
G1 X168.00 Y162.06 E181.95354
G1 X167.61 Y162.05 E181.97295
G1 X167.27 Y162.05 E181.99002
G1 X166.88 Y162.08 E182.00948
G1 X166.51 Y162.13 E182.02797
G1 X166.16 Y162.19 E182.04589
G1 X165.79 Y162.27 E182.06475
G1 X165.42 Y162.37 E182.08411
G1 X165.09 Y162.48 E182.10143
G1 X164.69 Y162.63 E182.12254
G1 X164.40 Y162.76 E182.13863
G1 X164.05 Y162.94 E182.15795
G1 X163.73 Y163.12 E182.17645
G1 X163.40 Y163.33 E182.19595
G1 X163.12 Y163.52 E182.21281
G1 X162.92 Y163.68 E182.22532
G1 X162.92 Y172.94 E182.68771
G1 X162.12 Y172.94 E182.72762
G1 X162.12 Y174.88 E182.82431
G1 X162.25 Y175.01 E182.83306
G1 X162.51 Y175.27 E182.85169
G1 X162.78 Y175.50 E182.86948
G1 X163.10 Y175.75 E182.88977
G1 X163.42 Y175.97 E182.90897
G1 X168.65 Y179.34 E183.21934
G1 X168.65 Y205.41 E184.52003
G1 X163.07 Y209.26 E184.85842
G1 X162.80 Y209.47 E184.87516
G1 X162.54 Y209.70 E184.89278
G1 X162.26 Y209.97 E184.91187
G1 X162.00 Y210.24 E184.93050
G1 X161.76 Y210.51 E184.94844
G1 X161.54 Y210.79 E184.96667
G1 X161.32 Y211.11 E184.98601
G1 X161.12 Y211.42 E185.00404
G1 X160.93 Y211.76 E185.02372
G1 X160.76 Y212.09 E185.04202
G1 X160.61 Y212.43 E185.06080
G1 X160.48 Y212.78 E185.07920
G1 X160.36 Y213.13 E185.09785
G1 X160.26 Y213.47 E185.11542
G1 X160.18 Y213.85 E185.13495
G1 X160.11 Y214.23 E185.15425
G1 X160.07 Y214.58 E185.17155
G1 X160.04 Y214.96 E185.19091
G1 X160.03 Y215.34 E185.20982
G1 X160.04 Y215.69 E185.22739
G1 X160.06 Y216.08 E185.24670
G1 X160.11 Y216.44 E185.26505
G1 X160.17 Y216.81 E185.28367
G1 X160.25 Y217.17 E185.30182
G1 X160.35 Y217.54 E185.32106
G1 X160.47 Y217.89 E185.33944
G1 X160.61 Y218.27 E185.35966
G1 X160.75 Y218.57 E185.37603
G1 X160.92 Y218.91 E185.39529
G1 X161.10 Y219.24 E185.41378
G1 X161.31 Y219.56 E185.43273
G1 X161.52 Y219.86 E185.45111
G1 X161.75 Y220.16 E185.46988
G1 X161.99 Y220.43 E185.48810
G1 X162.25 Y220.71 E185.50702
G1 X162.52 Y220.97 E185.52565
G1 X162.79 Y221.20 E185.54358
G1 X163.08 Y221.43 E185.56231
G1 X163.39 Y221.65 E185.58118
G1 X163.70 Y221.84 E185.59921
G1 X164.04 Y222.04 E185.61890
G1 X164.37 Y222.21 E185.63719
G1 X164.71 Y222.36 E185.65598
G1 X165.06 Y222.49 E185.67438
G1 X165.41 Y222.61 E185.69303
G1 X165.75 Y222.70 E185.71059
G1 X166.13 Y222.79 E185.73013
G1 X166.51 Y222.86 E185.74943
G1 X166.86 Y222.90 E185.76672
G1 X167.24 Y222.93 E185.78608
G1 X167.63 Y222.94 E185.80545
G1 X167.97 Y222.93 E185.82257
G1 X168.36 Y222.90 E185.84187
G1 X168.73 Y222.86 E185.86022
G1 X169.09 Y222.79 E185.87885
G1 X169.45 Y222.72 E185.89699
G1 X169.82 Y222.61 E185.91624
G1 X170.16 Y222.50 E185.93421
G1 X170.55 Y222.35 E185.95499
G1 X170.85 Y222.22 E185.97114
G1 X171.19 Y222.05 E185.99046
G1 X171.52 Y221.87 E186.00896
G1 X171.84 Y221.66 E186.02795
G1 X172.13 Y221.46 E186.04575
G1 X172.44 Y221.22 E186.06509
G1 X172.71 Y220.98 E186.08334
G1 X172.98 Y220.73 E186.10176
G1 X173.25 Y220.45 E186.12099
G1 X173.49 Y220.17 E186.13906
G1 X173.72 Y219.87 E186.15829
G1 X173.95 Y219.54 E186.17817
G1 X177.34 Y214.32 E186.48889
G1 X203.39 Y214.32 E187.78883
G1 X207.25 Y219.90 E188.12722
G1 X207.45 Y220.16 E188.14379
G1 X207.68 Y220.43 E188.16158
G1 X207.95 Y220.71 E188.18067
G1 X208.22 Y220.97 E188.19930
G1 X208.49 Y221.20 E188.21724
G1 X208.78 Y221.43 E188.23597
G1 X209.09 Y221.65 E188.25484
G1 X209.40 Y221.84 E188.27287
G1 X209.74 Y222.04 E188.29255
G1 X210.07 Y222.21 E188.31085
G1 X210.41 Y222.36 E188.32963
G1 X210.76 Y222.49 E188.34803
G1 X211.11 Y222.61 E188.36668
G1 X211.45 Y222.70 E188.38425
G1 X211.83 Y222.79 E188.40378
G1 X212.21 Y222.86 E188.42308
G1 X212.56 Y222.90 E188.44038
G1 X212.94 Y222.93 E188.45974
G1 X213.33 Y222.94 E188.47910
G1 X213.68 Y222.93 E188.49622
G1 X214.06 Y222.90 E188.51553
G1 X214.43 Y222.86 E188.53388
G1 X214.79 Y222.79 E188.55250
G1 X215.15 Y222.72 E188.57065
G1 X215.52 Y222.61 E188.58989
G1 X215.86 Y222.50 E188.60786
G1 X216.25 Y222.35 E188.62864
G1 X216.55 Y222.22 E188.64479
G1 X216.89 Y222.05 E188.66411
G1 X217.22 Y221.87 E188.68261
G1 X217.54 Y221.66 E188.70160
G1 X217.83 Y221.46 E188.71940
G1 X218.14 Y221.22 E188.73874
G1 X218.41 Y220.98 E188.75699
G1 X218.68 Y220.73 E188.77542
G1 X218.95 Y220.45 E188.79465
G1 X219.19 Y220.17 E188.81275
G1 X219.41 Y219.88 E188.83117
G1 X219.62 Y219.58 E188.84942
G1 X219.62 Y211.10 E189.27264
G1 X219.44 Y210.84 E189.28880
G1 X219.20 Y210.53 E189.30814
G1 X218.96 Y210.25 E189.32636
G1 X218.70 Y209.98 E189.34527
G1 X218.43 Y209.72 E189.36390
G1 X218.16 Y209.48 E189.38184
G1 X217.85 Y209.24 E189.40135
G1 X217.53 Y209.01 E189.42122
G1 X212.30 Y205.63 E189.73195
G1 X212.30 Y179.57 E191.03189
G1 X217.88 Y175.72 E191.37028
G1 X218.14 Y175.51 E191.38702
G1 X218.41 Y175.28 E191.40463
G1 X218.68 Y175.03 E191.42327
G1 X218.95 Y174.75 E191.44250
G1 X219.19 Y174.47 E191.46061
G1 X219.41 Y174.18 E191.47902
G1 X219.62 Y173.88 E191.49728
G1 X219.62 Y165.40 E191.92050
G1 X219.44 Y165.13 E191.93665
G1 X219.20 Y164.83 E191.95599
G1 X218.96 Y164.55 E191.97421
G1 X218.70 Y164.28 E191.99312
G1 X218.43 Y164.02 E192.01176
G1 X218.16 Y163.78 E192.02969
G1 X217.86 Y163.55 E192.04842
G1 X217.55 Y163.34 E192.06729
G1 X217.25 Y163.14 E192.08532
G1 X216.91 Y162.95 E192.10478
G1 X216.59 Y162.79 E192.12261
G1 X216.24 Y162.63 E192.14177
G1 X215.88 Y162.49 E192.16104
G1 X215.54 Y162.38 E192.17911
G1 X215.20 Y162.28 E192.19667
G1 X214.81 Y162.20 E192.21621
G1 X214.43 Y162.13 E192.23551
G1 X214.09 Y162.09 E192.25280
G1 X213.70 Y162.06 E192.27212
G1 X213.31 Y162.05 E192.29163
G1 X212.97 Y162.06 E192.30865
G1 X212.59 Y162.08 E192.32796
G1 X212.22 Y162.13 E192.34630
G1 X211.85 Y162.19 E192.36493
G1 X211.50 Y162.27 E192.38307
G1 X211.13 Y162.37 E192.40232
G1 X210.78 Y162.49 E192.42029
G1 X210.40 Y162.63 E192.44107
G1 X210.09 Y162.77 E192.45749
G1 X209.75 Y162.94 E192.47677
G1 X209.43 Y163.12 E192.49501
G1 X209.11 Y163.32 E192.51400
G1 X208.82 Y163.53 E192.53180
G1 X208.51 Y163.77 E192.55114
G1 X208.23 Y164.00 E192.56937
G1 X207.96 Y164.26 E192.58828
G1 X207.70 Y164.53 E192.60691
G1 X207.47 Y164.81 E192.62485
G1 X207.22 Y165.12 E192.64436
G1 X207.00 Y165.44 E192.66423
G1 X203.61 Y170.67 E192.97496
G1 X177.55 Y170.67 E194.27500
G0 F12000 X177.76 Y170.27
G1 F2400 X174.03 Y164.86 E194.60284
G1 X173.80 Y164.56 E194.62143
G1 X173.56 Y164.29 E194.63957
G1 X173.28 Y163.98 E194.66057
G1 X173.00 Y163.72 E194.67973
G1 X172.72 Y163.48 E194.69820
G1 X172.40 Y163.23 E194.71813
G1 X172.09 Y163.01 E194.73746
G1 X171.74 Y162.78 E194.75821
G1 X171.41 Y162.60 E194.77687
G1 X171.05 Y162.42 E194.79715
G1 X170.71 Y162.27 E194.81555
G1 X170.32 Y162.12 E194.83632
G1 X169.97 Y162.00 E194.85497
G1 X169.58 Y161.89 E194.87496
G1 X169.20 Y161.80 E194.89445
G1 X168.81 Y161.74 E194.91400
G1 X168.41 Y161.69 E194.93436
G1 X168.02 Y161.66 E194.95373
G1 X167.62 Y161.65 E194.97404
G1 X167.25 Y161.66 E194.99210
G1 X166.84 Y161.68 E195.01256
G1 X166.46 Y161.73 E195.03186
G1 X166.08 Y161.79 E195.05094
G1 X165.69 Y161.88 E195.07130
G1 X165.31 Y161.99 E195.09089
G1 X164.94 Y162.11 E195.11001
G1 X164.55 Y162.26 E195.13117
G1 X164.24 Y162.40 E195.14808
G1 X163.85 Y162.59 E195.16941
G1 X163.52 Y162.78 E195.18883
G1 X163.20 Y162.98 E195.20771
G1 X162.87 Y163.21 E195.22769
G1 X162.56 Y163.45 E195.24685
G1 X162.52 Y163.48 E195.24954
G1 X162.52 Y172.54 E195.70160
G1 X161.72 Y172.54 E195.74151
G1 X161.72 Y175.04 E195.86604
G1 X161.97 Y175.30 E195.88396
G1 X162.25 Y175.57 E195.90312
G1 X162.53 Y175.81 E195.92141
G1 X162.86 Y176.07 E195.94245
G1 X163.20 Y176.31 E195.96332
G1 X168.25 Y179.56 E196.26299
G1 X168.25 Y205.20 E197.54232
G1 X162.83 Y208.94 E197.87077
G1 X162.55 Y209.16 E197.88869
G1 X162.27 Y209.40 E197.90694
G1 X161.97 Y209.69 E197.92794
G1 X161.70 Y209.97 E197.94710
G1 X161.47 Y210.24 E197.96492
G1 X161.22 Y210.56 E197.98518
G1 X160.99 Y210.88 E198.00477
G1 X160.77 Y211.23 E198.02552
G1 X160.58 Y211.57 E198.04487
G1 X160.40 Y211.91 E198.06428
G1 X160.24 Y212.28 E198.08398
G1 X160.10 Y212.64 E198.10330
G1 X159.98 Y213.00 E198.12257
G1 X159.88 Y213.38 E198.14185
G1 X159.78 Y213.78 E198.16230
G1 X159.72 Y214.16 E198.18155
G1 X159.67 Y214.56 E198.20166
G1 X159.64 Y214.94 E198.22102
G1 X159.63 Y215.34 E198.24094
G1 X159.64 Y215.70 E198.25865
G1 X159.67 Y216.12 E198.27961
G1 X159.71 Y216.50 E198.29896
G1 X159.78 Y216.89 E198.31845
G1 X159.87 Y217.28 E198.33853
G1 X159.97 Y217.65 E198.35779
G1 X160.09 Y218.02 E198.37711
G1 X160.25 Y218.42 E198.39866
G1 X160.37 Y218.71 E198.41452
G1 X160.57 Y219.11 E198.43667
G1 X160.76 Y219.44 E198.45582
G1 X160.97 Y219.78 E198.47550
G1 X161.19 Y220.09 E198.49477
G1 X161.44 Y220.41 E198.51475
G1 X161.69 Y220.70 E198.53361
G1 X161.97 Y221.00 E198.55443
G1 X162.25 Y221.26 E198.57359
G1 X162.53 Y221.51 E198.59202
G1 X162.84 Y221.75 E198.61150
G1 X163.16 Y221.98 E198.63129
G1 X163.51 Y222.20 E198.65204
G1 X163.85 Y222.39 E198.67139
G1 X164.20 Y222.57 E198.69080
G1 X164.56 Y222.73 E198.71050
G1 X164.92 Y222.87 E198.72982
G1 X165.28 Y222.99 E198.74910
G1 X165.66 Y223.09 E198.76837
G1 X166.06 Y223.18 E198.78882
G1 X166.44 Y223.25 E198.80807
G1 X166.84 Y223.30 E198.82818
G1 X167.22 Y223.33 E198.84754
G1 X167.63 Y223.34 E198.86786
G1 X167.99 Y223.33 E198.88587
G1 X168.40 Y223.30 E198.90613
G1 X168.78 Y223.25 E198.92548
G1 X169.17 Y223.19 E198.94497
G1 X169.56 Y223.10 E198.96505
G1 X169.93 Y223.00 E198.98431
G1 X170.31 Y222.88 E199.00389
G1 X170.69 Y222.73 E199.02469
G1 X171.01 Y222.59 E199.04186
G1 X171.39 Y222.40 E199.06319
G1 X171.72 Y222.21 E199.08234
G1 X172.05 Y222.00 E199.10126
G1 X172.38 Y221.77 E199.12157
G1 X172.69 Y221.53 E199.14130
G1 X172.98 Y221.28 E199.16016
G1 X173.27 Y221.00 E199.18052
G1 X173.54 Y220.72 E199.19954
G1 X173.80 Y220.42 E199.21959
G1 X174.04 Y220.12 E199.23882
G1 X174.29 Y219.76 E199.26034
G1 X177.55 Y214.72 E199.56036
G1 X203.18 Y214.72 E200.83899
G1 X206.93 Y220.14 E201.16758
G1 X207.14 Y220.42 E201.18536
G1 X207.38 Y220.69 E201.20361
G1 X207.67 Y221.00 E201.22461
G1 X207.95 Y221.26 E201.24377
G1 X208.23 Y221.51 E201.26220
G1 X208.54 Y221.75 E201.28168
G1 X208.86 Y221.98 E201.30147
G1 X209.21 Y222.20 E201.32222
G1 X209.55 Y222.39 E201.34157
G1 X209.90 Y222.57 E201.36098
G1 X210.26 Y222.73 E201.38068
G1 X210.62 Y222.87 E201.40000
G1 X210.99 Y222.99 E201.41928
G1 X211.36 Y223.09 E201.43855
G1 X211.76 Y223.18 E201.45900
G1 X212.14 Y223.25 E201.47825
G1 X212.54 Y223.30 E201.49836
G1 X212.92 Y223.33 E201.51772
G1 X213.33 Y223.34 E201.53804
G1 X213.69 Y223.33 E201.55605
G1 X214.10 Y223.30 E201.57631
G1 X214.48 Y223.25 E201.59566
G1 X214.87 Y223.19 E201.61515
G1 X215.26 Y223.10 E201.63523
G1 X215.63 Y223.00 E201.65449
G1 X216.00 Y222.88 E201.67407
G1 X216.39 Y222.73 E201.69487
G1 X216.71 Y222.59 E201.71204
G1 X217.09 Y222.40 E201.73337
G1 X217.43 Y222.21 E201.75252
G1 X217.75 Y222.00 E201.77144
G1 X218.08 Y221.77 E201.79175
G1 X218.39 Y221.53 E201.81148
G1 X218.68 Y221.28 E201.83034
G1 X218.97 Y221.00 E201.85070
G1 X219.24 Y220.72 E201.86972
G1 X219.50 Y220.42 E201.88981
G1 X219.73 Y220.13 E201.90822
G1 X219.96 Y219.81 E201.92801
G1 X220.02 Y219.70 E201.93423
G1 X220.02 Y210.98 E202.36917
G1 X219.99 Y210.92 E202.37282
G1 X219.75 Y210.59 E202.39313
G1 X219.51 Y210.28 E202.41286
G1 X219.26 Y209.99 E202.43172
G1 X218.97 Y209.69 E202.45254
G1 X218.70 Y209.42 E202.47170
G1 X218.42 Y209.18 E202.49013
G1 X218.10 Y208.93 E202.51039
G1 X217.75 Y208.68 E202.53191
G1 X212.70 Y205.41 E202.83192
G1 X212.70 Y179.78 E204.11056
G1 X218.12 Y176.04 E204.43915
G1 X218.40 Y175.82 E204.45692
G1 X218.68 Y175.58 E204.47521
G1 X218.97 Y175.30 E204.49572
G1 X219.24 Y175.02 E204.51474
G1 X219.50 Y174.72 E204.53482
G1 X219.73 Y174.43 E204.55324
G1 X219.96 Y174.10 E204.57303
G1 X220.02 Y174.00 E204.57925
G1 X220.02 Y165.28 E205.01419
G1 X219.99 Y165.22 E205.01784
G1 X219.75 Y164.89 E205.03815
G1 X219.51 Y164.57 E205.05788
G1 X219.26 Y164.29 E205.07674
G1 X218.97 Y163.99 E205.09756
G1 X218.70 Y163.72 E205.11672
G1 X218.42 Y163.48 E205.13515
G1 X218.11 Y163.24 E205.15463
G1 X217.79 Y163.01 E205.17442
G1 X217.44 Y162.79 E205.19517
G1 X217.11 Y162.60 E205.21382
G1 X216.75 Y162.42 E205.23411
G1 X216.40 Y162.26 E205.25289
G1 X216.02 Y162.12 E205.27350
G1 X215.66 Y162.00 E205.29220
G1 X215.29 Y161.89 E205.31147
G1 X214.89 Y161.80 E205.33192
G1 X214.51 Y161.74 E205.35117
G1 X214.11 Y161.69 E205.37129
G1 X213.72 Y161.66 E205.39060
G1 X213.31 Y161.65 E205.41106
G1 X212.95 Y161.66 E205.42903
G1 X212.55 Y161.69 E205.44923
G1 X212.16 Y161.73 E205.46858
G1 X211.78 Y161.80 E205.48807
G1 X211.39 Y161.88 E205.50815
G1 X211.01 Y161.99 E205.52741
G1 X210.64 Y162.11 E205.54699
G1 X210.25 Y162.26 E205.56779
G1 X209.92 Y162.41 E205.58617
G1 X209.57 Y162.58 E205.60565
G1 X209.22 Y162.78 E205.62542
G1 X208.90 Y162.98 E205.64434
G1 X208.57 Y163.22 E205.66465
G1 X208.26 Y163.46 E205.68438
G1 X207.97 Y163.70 E205.70324
G1 X207.67 Y163.99 E205.72406
G1 X207.40 Y164.27 E205.74322
G1 X207.16 Y164.55 E205.76165
G1 X206.91 Y164.87 E205.78191
G1 X206.66 Y165.22 E205.80343
G1 X203.39 Y170.27 E206.10344
G1 X177.76 Y170.27 E207.38218
G0 F12000 X177.97 Y169.87
G1 F2400 X174.35 Y164.61 E207.70073
G1 X174.11 Y164.31 E207.71992
G1 X173.88 Y164.04 E207.73793
G1 X173.56 Y163.70 E207.76083
G1 X173.27 Y163.43 E207.78056
G1 X172.95 Y163.15 E207.80164
G1 X172.64 Y162.91 E207.82143
G1 X172.31 Y162.67 E207.84187
G1 X171.95 Y162.44 E207.86323
G1 X171.61 Y162.25 E207.88251
G1 X171.23 Y162.06 E207.90386
G1 X170.85 Y161.89 E207.92421
G1 X170.47 Y161.74 E207.94498
G1 X170.08 Y161.61 E207.96527
G1 X169.67 Y161.50 E207.98650
G1 X169.28 Y161.41 E208.00645
G1 X168.87 Y161.34 E208.02722
G1 X168.45 Y161.29 E208.04838
G1 X168.04 Y161.26 E208.06875
G1 X167.62 Y161.25 E208.09001
G1 X167.24 Y161.25 E208.10892
G1 X166.81 Y161.29 E208.13043
G1 X166.41 Y161.34 E208.15054
G1 X165.99 Y161.41 E208.17174
G1 X165.60 Y161.49 E208.19162
G1 X165.19 Y161.60 E208.21273
G1 X164.81 Y161.73 E208.23253
G1 X164.41 Y161.88 E208.25417
G1 X164.04 Y162.05 E208.27431
G1 X163.69 Y162.22 E208.29388
G1 X163.31 Y162.44 E208.31573
G1 X162.96 Y162.66 E208.33654
G1 X162.64 Y162.88 E208.35573
G1 X162.31 Y163.14 E208.37678
G1 X162.12 Y163.30 E208.38891
G1 X162.12 Y172.14 E208.83014
G1 X161.32 Y172.14 E208.87005
G1 X161.32 Y175.19 E209.02212
G1 X161.38 Y175.26 E209.02672
G1 X161.69 Y175.58 E209.04874
G1 X161.97 Y175.86 E209.06846
G1 X162.28 Y176.12 E209.08870
G1 X162.62 Y176.39 E209.11037
G1 X162.97 Y176.63 E209.13165
G1 X167.85 Y179.78 E209.42122
G1 X167.85 Y204.99 E210.67915
G1 X162.60 Y208.62 E210.99731
G1 X162.28 Y208.86 E211.01754
G1 X162.02 Y209.09 E211.03494
G1 X161.69 Y209.41 E211.05784
G1 X161.41 Y209.69 E211.07757
G1 X161.14 Y210.00 E211.09812
G1 X160.90 Y210.32 E211.11795
G1 X160.66 Y210.66 E211.13882
G1 X160.43 Y211.02 E211.16018
G1 X160.23 Y211.37 E211.18009
G1 X160.04 Y211.74 E211.20099
G1 X159.88 Y212.11 E211.22087
G1 X159.72 Y212.52 E211.24314
G1 X159.60 Y212.88 E211.26189
G1 X159.48 Y213.31 E211.28400
G1 X159.40 Y213.68 E211.30298
G1 X159.32 Y214.10 E211.32435
G1 X159.27 Y214.52 E211.34532
G1 X159.24 Y214.92 E211.36568
G1 X159.23 Y215.35 E211.38694
G1 X159.24 Y215.73 E211.40586
G1 X159.27 Y216.16 E211.42721
G1 X159.32 Y216.56 E211.44737
G1 X159.39 Y216.98 E211.46874
G1 X159.48 Y217.37 E211.48877
G1 X159.58 Y217.75 E211.50869
G1 X159.72 Y218.17 E211.53054
G1 X159.87 Y218.55 E211.55101
G1 X160.03 Y218.92 E211.57089
G1 X160.21 Y219.28 E211.59079
G1 X160.42 Y219.65 E211.61235
G1 X160.64 Y220.00 E211.63315
G1 X160.88 Y220.34 E211.65382
G1 X161.12 Y220.66 E211.67355
G1 X161.38 Y220.96 E211.69368
G1 X161.69 Y221.28 E211.71570
G1 X161.97 Y221.56 E211.73542
G1 X162.28 Y221.82 E211.75583
G1 X162.61 Y222.08 E211.77644
G1 X162.94 Y222.31 E211.79671
G1 X163.30 Y222.54 E211.81806
G1 X163.65 Y222.74 E211.83797
G1 X164.02 Y222.93 E211.85888
G1 X164.39 Y223.09 E211.87875
G1 X164.80 Y223.25 E211.90103
G1 X165.16 Y223.37 E211.91977
G1 X165.59 Y223.49 E211.94188
G1 X165.96 Y223.57 E211.96086
G1 X166.38 Y223.65 E211.98224
G1 X166.80 Y223.70 E212.00320
G1 X167.20 Y223.73 E212.02357
G1 X167.63 Y223.74 E212.04483
G1 X168.01 Y223.73 E212.06374
G1 X168.44 Y223.70 E212.08510
G1 X168.84 Y223.65 E212.10525
G1 X169.26 Y223.58 E212.12662
G1 X169.65 Y223.49 E212.14665
G1 X170.04 Y223.38 E212.16657
G1 X170.44 Y223.25 E212.18775
G1 X170.84 Y223.10 E212.20929
G1 X171.21 Y222.94 E212.22910
G1 X171.56 Y222.76 E212.24867
G1 X171.93 Y222.55 E212.27023
G1 X172.29 Y222.32 E212.29114
G1 X172.62 Y222.09 E212.31116
G1 X172.94 Y221.84 E212.33146
G1 X173.24 Y221.58 E212.35162
G1 X173.56 Y221.28 E212.37319
G1 X173.85 Y220.98 E212.39411
G1 X174.10 Y220.69 E212.41331
G1 X174.36 Y220.35 E212.43460
G1 X174.63 Y219.97 E212.45784
G1 X177.77 Y215.12 E212.74643
G1 X202.97 Y215.12 E214.00371
G1 X206.60 Y220.36 E214.32187
G1 X206.84 Y220.68 E214.34209
G1 X207.07 Y220.95 E214.35950
G1 X207.39 Y221.28 E214.38240
G1 X207.67 Y221.56 E214.40212
G1 X207.98 Y221.82 E214.42254
G1 X208.31 Y222.08 E214.44315
G1 X208.64 Y222.31 E214.46341
G1 X209.00 Y222.54 E214.48476
G1 X209.35 Y222.74 E214.50467
G1 X209.72 Y222.93 E214.52558
G1 X210.09 Y223.09 E214.54546
G1 X210.50 Y223.25 E214.56773
G1 X210.86 Y223.37 E214.58647
G1 X211.29 Y223.49 E214.60859
G1 X211.66 Y223.57 E214.62756
G1 X212.08 Y223.65 E214.64894
G1 X212.50 Y223.70 E214.66990
G1 X212.90 Y223.73 E214.69027
G1 X213.33 Y223.74 E214.71153
G1 X213.71 Y223.73 E214.73044
G1 X214.14 Y223.70 E214.75180
G1 X214.54 Y223.65 E214.77196
G1 X214.96 Y223.58 E214.79332
G1 X215.35 Y223.49 E214.81335
G1 X215.74 Y223.38 E214.83328
G1 X216.14 Y223.25 E214.85445
G1 X216.54 Y223.10 E214.87599
G1 X216.91 Y222.94 E214.89580
G1 X217.26 Y222.76 E214.91537
G1 X217.63 Y222.55 E214.93693
G1 X217.99 Y222.32 E214.95784
G1 X218.31 Y222.09 E214.97786
G1 X218.64 Y221.84 E214.99816
G1 X218.94 Y221.58 E215.01833
G1 X219.26 Y221.28 E215.03989
G1 X219.55 Y220.98 E215.06081
G1 X219.80 Y220.69 E215.08009
G1 X220.06 Y220.36 E215.10106
G1 X220.29 Y220.03 E215.12132
G1 X220.42 Y219.82 E215.13357
G1 X220.42 Y210.87 E215.58014
G1 X220.31 Y210.68 E215.59121
G1 X220.07 Y210.35 E215.61122
G1 X219.82 Y210.03 E215.63152
G1 X219.56 Y209.72 E215.65165
G1 X219.26 Y209.40 E215.67367
G1 X218.97 Y209.13 E215.69340
G1 X218.66 Y208.86 E215.71377
G1 X218.33 Y208.60 E215.73467
G1 X217.95 Y208.34 E215.75791
G1 X213.10 Y205.19 E216.04649
G1 X213.10 Y179.99 E217.30378
G1 X218.34 Y176.37 E217.62193
G1 X218.66 Y176.12 E217.64216
G1 X218.93 Y175.89 E217.65964
G1 X219.26 Y175.58 E217.68204
G1 X219.55 Y175.28 E217.70297
G1 X219.80 Y174.99 E217.72224
G1 X220.06 Y174.66 E217.74321
G1 X220.29 Y174.32 E217.76348
G1 X220.42 Y174.12 E217.77573
G1 X220.42 Y165.17 E218.22229
G1 X220.31 Y164.98 E218.23337
G1 X220.07 Y164.65 E218.25338
G1 X219.82 Y164.33 E218.27368
G1 X219.56 Y164.02 E218.29381
G1 X219.26 Y163.70 E218.31583
G1 X218.97 Y163.43 E218.33556
G1 X218.66 Y163.16 E218.35597
G1 X218.34 Y162.91 E218.37658
G1 X218.01 Y162.67 E218.39684
G1 X217.65 Y162.44 E218.41820
G1 X217.31 Y162.25 E218.43748
G1 X216.93 Y162.06 E218.45883
G1 X216.54 Y161.89 E218.47994
G1 X216.16 Y161.74 E218.50051
