;-- START GCODE --
;Sliced for Type A Machines Series 1
;Sliced at: Sun 06-11-2016 21:00:29
;Basic settings: Layer height: 0.2 Walls: 1.4 Fill: 100
;Print Speed: 30 Support: 0
;Retraction Speed: 40 Retraction Distance: 1.2
;Print time: #P_TIME#
;Filament used: #F_AMNT#m #F_WGHT#g
;Filament cost: #F_COST#
M106 S255	 ;start with the fan on
G21        ;metric values
G90        ;absolute positioning
M106 S255    ;start with the fan on
G28     ;move to endstops
G29		;allows for auto-levelling
G1 X150 Y5  Z15.0 F12000 ;center and move the platform down 15mm
M109 S220 ;Heat To temp
G92 E0                  ;zero the extruded length
G1 F200 E30              ;extrude 30mm of feed stock
G92 E0                  ;zero the extruded length again
G1 X175 Y25  Z0 F12000 ;remove bugger
G1 X220 F12000 ;remove bugger
G1 X150 Y150  Z15 F12000 ;recenter and begin
G1 F12000

;Layer count: 100
;LAYER:0
M106 S255
G0 F12000 X127.92 Y144.42 Z0.30
;TYPE:SKIRT
G1 F1800 X177.08 Y144.42 E2.85693
G1 X177.08 Y184.58 E5.19077
G1 X127.92 Y184.58 E8.04770
G1 X127.92 Y144.42 E10.38153
G0 F12000 X128.39 Y144.89
G1 F1800 X176.61 Y144.89 E13.18430
G1 X176.61 Y184.11 E15.46396
G1 X128.39 Y184.11 E18.26673
G1 X128.39 Y144.89 E20.54639
G0 F12000 X128.85 Y145.35
G1 F1800 X176.15 Y145.35 E23.29498
G1 X176.15 Y183.65 E25.52048
G1 X128.85 Y183.65 E28.26907
G1 X128.85 Y145.35 E30.49457
G0 F12000 X129.32 Y145.82
G1 F1800 X175.68 Y145.82 E33.18899
G1 X175.68 Y183.18 E35.36031
G1 X129.32 Y183.18 E38.05474
G1 X129.32 Y145.82 E40.22606
G0 F12000 X129.79 Y146.29
G1 F1800 X175.21 Y146.29 E42.86632
G1 X175.21 Y182.71 E44.98347
G1 X129.79 Y182.71 E47.62373
G1 X129.79 Y146.29 E49.74088
G0 F12000 X130.25 Y146.75
G1 F1800 X174.75 Y146.75 E52.32697
G1 X174.75 Y182.25 E54.38995
G1 X130.25 Y182.25 E56.97603
G1 X130.25 Y146.75 E59.03902
G0 F12000 X130.72 Y147.22
G1 F1800 X174.28 Y147.22 E61.57093
G1 X174.28 Y181.78 E63.57975
G1 X130.72 Y181.78 E66.11166
G1 X130.72 Y147.22 E68.12048
G0 F12000 X131.19 Y147.69
G1 F1800 X173.81 Y147.69 E70.59822
G1 X173.81 Y181.31 E72.55287
G1 X131.19 Y181.31 E75.03061
G1 X131.19 Y147.69 E76.98526
G0 F12000 X131.65 Y148.15
G1 F1800 X173.35 Y148.15 E79.40884
G1 X173.35 Y180.85 E81.30931
G1 X131.65 Y180.85 E83.73289
G1 X131.65 Y148.15 E85.63336
G0 F12000 X132.12 Y148.62
G1 F1800 X172.88 Y148.62 E88.00277
G1 X172.88 Y180.38 E89.84907
G1 X132.12 Y180.38 E92.21848
G1 X132.12 Y148.62 E94.06478
G0 F12000 X132.58 Y149.08
G1 F1800 X172.42 Y149.08 E96.38002
G1 X172.42 Y179.92 E98.17216
G1 X132.58 Y179.92 E100.48739
G1 X132.58 Y149.08 E102.27953
G0 F12000 X133.05 Y149.55
G1 F1800 X171.95 Y149.55 E104.54059
G1 X171.95 Y179.45 E106.27856
G1 X133.05 Y179.45 E108.53962
G1 X133.05 Y149.55 E110.27759
G0 F12000 X133.51 Y150.01
G1 F1800 X171.49 Y150.01 E112.48449
G1 X171.49 Y178.99 E114.16828
G1 X133.51 Y178.99 E116.37518
G1 X133.51 Y150.01 E118.05898
G0 F12000 X133.98 Y150.48
G1 F1800 X171.02 Y150.48 E120.21170
G1 X171.02 Y178.52 E121.84133
G1 X133.98 Y178.52 E123.99405
G1 X133.98 Y150.48 E125.62368
G0 F12000 X134.45 Y150.95
G1 F1800 X170.55 Y150.95 E127.72224
G1 X170.55 Y178.05 E129.29770
G1 X134.45 Y178.05 E131.39625
G1 X134.45 Y150.95 E132.97171
G0 F12000 X134.91 Y151.41
G1 F1800 X170.09 Y151.41 E135.01609
G1 X170.09 Y177.59 E136.53738
G1 X134.91 Y177.59 E138.58177
G1 X134.91 Y151.41 E140.10306
G0 F12000 X135.38 Y151.88
G1 F1800 X169.62 Y151.88 E142.09327
G1 X169.62 Y177.12 E143.56039
G1 X135.38 Y177.12 E145.55061
G1 X135.38 Y151.88 E147.01772
G0 F12000 X135.84 Y152.34
G1 F1800 X169.16 Y152.34 E148.95377
G1 X169.16 Y176.66 E150.36672
G1 X135.84 Y176.66 E152.30277
G1 X135.84 Y152.34 E153.71571
G0 F12000 X136.31 Y152.81
G1 F1800 X168.69 Y152.81 E155.59759
G1 X168.69 Y176.19 E156.95637
G1 X136.31 Y176.19 E158.83825
G1 X136.31 Y152.81 E160.19702
G0 F12000 X136.78 Y153.28
G1 F1800 X168.22 Y153.28 E162.02473
G1 X168.22 Y175.72 E163.32934
G1 X136.78 Y175.72 E165.15705
G1 X136.78 Y153.28 E166.46165
G0 F12000 X137.24 Y153.74
G1 F1800 X167.76 Y153.74 E168.23519
G1 X167.76 Y175.26 E169.48563
G1 X137.24 Y175.26 E171.25917
G1 X137.24 Y153.74 E172.50961
G0 F12000 X137.71 Y154.21
G1 F1800 X167.29 Y154.21 E174.22897
G1 X167.29 Y174.79 E175.42524
G1 X137.71 Y174.79 E177.14461
G1 X137.71 Y154.21 E178.34088
G0 F12000 X138.18 Y154.68
G1 F1800 X166.82 Y154.68 E180.00608
G1 X166.82 Y174.32 E181.14818
G1 X138.18 Y174.32 E182.81337
G1 X138.18 Y154.68 E183.95547
G0 F12000 X138.64 Y155.14
G1 F1800 X166.36 Y155.14 E185.56650
G1 X166.36 Y173.86 E186.65443
G1 X138.64 Y173.86 E188.26546
G1 X138.64 Y155.14 E189.35339
G0 F12000 X139.11 Y155.61
G1 F1800 X165.89 Y155.61 E190.91024
G1 X165.89 Y173.39 E191.94400
G1 X139.11 Y173.39 E193.50086
G1 X139.11 Y155.61 E194.53462
G0 F12000 X139.57 Y156.07
G1 F1800 X165.43 Y156.07 E196.03731
G1 X165.43 Y172.93 E197.01690
G1 X139.57 Y172.93 E198.51959
G1 X139.57 Y156.07 E199.49918
G0 F12000 X140.04 Y156.54
G1 F1800 X164.96 Y156.54 E200.94770
G1 X164.96 Y172.46 E201.87312
G1 X140.04 Y172.46 E203.32164
G1 X140.04 Y156.54 E204.24705
G0 F12000 X140.50 Y157.00
G1 F1800 X164.50 Y157.00 E205.64140
G1 X164.50 Y172.00 E206.51265
G1 X140.50 Y172.00 E207.90700
G1 X140.50 Y157.00 E208.77825
G0 F12000 X140.97 Y157.47
G1 F1800 X164.03 Y157.47 E210.11843
G1 X164.03 Y171.53 E210.93551
G1 X140.97 Y171.53 E212.27569
G1 X140.97 Y157.47 E213.09277
G0 F12000 X141.44 Y157.94
G1 F1800 X163.56 Y157.94 E214.37878
G1 X163.56 Y171.06 E215.14169
G1 X141.44 Y171.06 E216.42770
G1 X141.44 Y157.94 E217.19061
G0 F12000 X141.90 Y158.40
G1 F1800 X163.10 Y158.40 E218.42245
G1 X163.10 Y170.60 E219.13119
G1 X141.90 Y170.60 E220.36303
G1 X141.90 Y158.40 E221.07177
G0 F12000 X142.37 Y158.87
G1 F1800 X162.63 Y158.87 E222.24944
G1 X162.63 Y170.13 E222.90401
G1 X142.37 Y170.13 E224.08168
G1 X142.37 Y158.87 E224.73625
G0 F12000 X142.84 Y159.34
G1 F1800 X162.16 Y159.34 E225.85975
G1 X162.16 Y169.66 E226.46015
G1 X142.84 Y169.66 E227.58365
G1 X142.84 Y159.34 E228.18405
G0 F12000 X143.30 Y159.80
G1 F1800 X161.70 Y159.80 E229.25338
G1 X161.70 Y169.20 E229.79962
G1 X143.30 Y169.20 E230.86895
G1 X143.30 Y159.80 E231.41518
G0 F12000 X143.77 Y160.27
G1 F1800 X161.23 Y160.27 E232.43034
G1 X161.23 Y168.73 E232.92240
G1 X143.77 Y168.73 E233.93756
G1 X143.77 Y160.27 E234.42962
G0 F12000 X147.81 Y163.23
G1 F1800 X147.81 Y165.77 E234.57690
G1 X157.19 Y165.77 E235.12244
G1 X157.19 Y163.23 E235.26972
G1 X147.81 Y163.23 E235.81525
G0 F12000 X147.81 Y162.43
G0 X146.41 Y161.84
;TYPE:WALL-INNER
G1 F1800 X146.41 Y167.16 E236.12504
G1 X158.59 Y167.16 E236.83309
G1 X158.59 Y161.84 E237.14288
G1 X146.41 Y161.84 E237.85092
G0 F12000 X145.16 Y161.66
G1 F1800 X159.84 Y161.66 E238.70357
G1 X159.84 Y167.34 E239.03312
G1 X145.16 Y167.34 E239.88577
G1 X145.16 Y161.66 E240.21533
G0 F12000 X144.70 Y161.20
G1 F1800 X160.30 Y161.20 E241.12215
G1 X160.30 Y167.80 E241.50587
G1 X144.70 Y167.80 E242.41269
G1 X144.70 Y161.20 E242.79641
G0 F12000 X146.88 Y162.30
G1 F1800 X146.88 Y166.70 E243.05203
G1 X158.12 Y166.70 E243.70591
G1 X158.12 Y162.30 E243.96153
G1 X146.88 Y162.30 E244.61540
G0 F12000 X147.34 Y162.77
;TYPE:WALL-OUTER
G1 F1800 X147.34 Y166.23 E244.81685
G1 X157.66 Y166.23 E245.41656
G1 X157.66 Y162.77 E245.61801
G1 X147.34 Y162.77 E246.21771
G0 F12000 X147.34 Y162.43
G0 X144.57 Y160.98
G0 X144.23 Y160.73
G1 F1800 X160.77 Y160.73 E247.17870
G1 X160.77 Y168.27 E247.61659
G1 X144.23 Y168.27 E248.57758
G1 X144.23 Y160.73 E249.01548
G0 F12000 X144.57 Y160.98
G0 X145.33 Y162.13
;TYPE:FILL
G1 F1800 X146.25 Y163.05 E249.09085
G0 F12000 X146.25 Y163.71
G1 F1800 X145.33 Y162.79 E249.16622
G0 F12000 X145.33 Y163.45
G1 F1800 X146.25 Y164.37 E249.24160
G0 F12000 X146.25 Y165.03
G1 F1800 X145.33 Y164.11 E249.31697
G0 F12000 X145.33 Y164.77
G1 F1800 X146.25 Y165.69 E249.39231
G0 F12000 X146.25 Y166.34
G1 F1800 X145.33 Y165.43 E249.46764
G0 F12000 X145.33 Y166.09
G1 F1800 X146.25 Y167.00 E249.54297
G0 F12000 X145.75 Y167.17
G1 F1800 X145.33 Y166.75 E249.57770
G0 F12000 X146.25 Y162.39
G1 F1800 X145.68 Y161.83 E249.62398
G0 F12000 X158.75 Y162.38
G1 F1800 X159.67 Y163.29 E249.69931
G0 F12000 X159.67 Y163.95
G1 F1800 X158.75 Y163.04 E249.77465
G0 F12000 X158.75 Y163.70
G1 F1800 X159.67 Y164.61 E249.84998
G0 F12000 X159.67 Y165.27
G1 F1800 X158.75 Y164.36 E249.92531
G0 F12000 X158.75 Y165.01
G1 F1800 X159.67 Y165.93 E250.00065
G0 F12000 X159.67 Y166.59
G1 F1800 X158.75 Y165.67 E250.07598
G0 F12000 X158.75 Y166.33
G1 F1800 X159.59 Y167.17 E250.14478
G0 F12000 X158.93 Y167.17
G1 F1800 X158.75 Y166.99 E250.15941
G0 F12000 X159.67 Y162.64
G1 F1800 X158.86 Y161.83 E250.22587
G0 F12000 X159.52 Y161.83
G1 F1800 X159.67 Y161.98 E250.23816
;LAYER:1
G0 F12000 X159.84 Y161.66 Z0.50
;TYPE:WALL-INNER
G1 F1020 X159.84 Y167.34 E250.45786
G1 X145.16 Y167.34 E251.02629
G1 X145.16 Y161.66 E251.24599
G1 X159.84 Y161.66 E251.81443
G0 F12000 X158.59 Y161.84
G1 F1020 X146.41 Y161.84 E252.28646
G1 X146.41 Y167.16 E252.49298
G1 X158.59 Y167.16 E252.96501
G1 X158.59 Y161.84 E253.17154
G0 F12000 X158.12 Y162.30
G1 F1020 X146.88 Y162.30 E253.60746
G1 X146.88 Y166.70 E253.77787
G1 X158.12 Y166.70 E254.21378
G1 X158.12 Y162.30 E254.38420
G0 F12000 X160.30 Y161.20
G1 F1020 X160.30 Y167.80 E254.64001
G1 X144.70 Y167.80 E255.24456
G1 X144.70 Y161.20 E255.50038
G1 X160.30 Y161.20 E256.10492
G0 F12000 X160.77 Y160.73
;TYPE:WALL-OUTER
G1 F1020 X160.77 Y168.27 E256.39685
G1 X144.23 Y168.27 E257.03751
G1 X144.23 Y160.73 E257.32944
G1 X160.77 Y160.73 E257.97010
G0 F12000 X160.43 Y160.98
G0 X157.66 Y162.43
G0 X157.66 Y162.77
G1 F1020 X147.34 Y162.77 E258.36990
G1 X147.34 Y166.23 E258.50420
G1 X157.66 Y166.23 E258.90400
G1 X157.66 Y162.77 E259.03831
G0 F12000 X158.75 Y162.52
;TYPE:FILL
G1 F1020 X159.45 Y161.83 E259.07617
G0 F12000 X159.67 Y162.26
G1 F1020 X158.75 Y163.18 E259.12637
G0 F12000 X158.75 Y163.84
G1 F1020 X159.67 Y162.92 E259.17656
G0 F12000 X159.67 Y163.58
G1 F1020 X158.75 Y164.50 E259.22676
G0 F12000 X158.75 Y165.15
G1 F1020 X159.67 Y164.24 E259.27695
G0 F12000 X159.67 Y164.90
G1 F1020 X158.75 Y165.81 E259.32712
G0 F12000 X158.75 Y166.47
G1 F1020 X159.67 Y165.56 E259.37729
G0 F12000 X159.67 Y166.22
G1 F1020 X158.75 Y167.13 E259.42745
G0 F12000 X159.38 Y167.17
G1 F1020 X159.67 Y166.88 E259.44365
G0 F12000 X146.25 Y166.46
G1 F1020 X145.54 Y167.17 E259.48247
G0 F12000 X145.33 Y166.72
G1 F1020 X146.25 Y165.80 E259.53269
G0 F12000 X146.25 Y165.14
G1 F1020 X145.33 Y166.06 E259.58292
G0 F12000 X145.33 Y165.40
G1 F1020 X146.25 Y164.48 E259.63314
G0 F12000 X146.25 Y163.82
G1 F1020 X145.33 Y164.74 E259.68336
G0 F12000 X145.33 Y164.08
G1 F1020 X146.25 Y163.17 E259.73358
G0 F12000 X146.25 Y162.51
G1 F1020 X145.33 Y163.42 E259.78381
G0 F12000 X145.33 Y162.76
G1 F1020 X146.25 Y161.85 E259.83403
G0 F12000 X145.61 Y161.83
G1 F1020 X145.33 Y162.10 E259.84923
;LAYER:2
G0 F12000 X145.16 Y161.66 Z0.70
;TYPE:WALL-INNER
G1 F1020 X159.84 Y161.66 E260.41767
G1 X159.84 Y167.34 E260.63737
G1 X145.16 Y167.34 E261.20580
G1 X145.16 Y161.66 E261.42551
G0 F12000 X146.41 Y161.84
G1 F1020 X146.41 Y167.16 E261.63203
G1 X158.59 Y167.16 E262.10406
G1 X158.59 Y161.84 E262.31059
G1 X146.41 Y161.84 E262.78262
G0 F12000 X146.88 Y162.30
G1 F1020 X146.88 Y166.70 E262.95303
G1 X158.12 Y166.70 E263.38895
G1 X158.12 Y162.30 E263.55936
G1 X146.88 Y162.30 E263.99528
G0 F12000 X144.70 Y161.20
G1 F1020 X160.30 Y161.20 E264.59982
G1 X160.30 Y167.80 E264.85564
G1 X144.70 Y167.80 E265.46019
G1 X144.70 Y161.20 E265.71600
G0 F12000 X144.23 Y160.73
;TYPE:WALL-OUTER
G1 F1020 X160.77 Y160.73 E266.35666
G1 X160.77 Y168.27 E266.64859
G1 X144.23 Y168.27 E267.28925
G1 X144.23 Y160.73 E267.58118
G0 F12000 X144.57 Y160.98
G0 X147.34 Y162.43
G0 X147.34 Y162.77
G1 F1020 X147.34 Y166.23 E267.71548
G1 X157.66 Y166.23 E268.11528
G1 X157.66 Y162.77 E268.24958
G1 X147.34 Y162.77 E268.64938
G0 F12000 X146.25 Y163.05
;TYPE:FILL
G1 F1020 X145.33 Y162.13 E268.69963
G0 F12000 X145.68 Y161.83
G1 F1020 X146.25 Y162.39 E268.73048
G0 F12000 X145.33 Y162.79
G1 F1020 X146.25 Y163.71 E268.78073
G0 F12000 X146.25 Y164.37
G1 F1020 X145.33 Y163.45 E268.83098
G0 F12000 X145.33 Y164.11
G1 F1020 X146.25 Y165.03 E268.88123
G0 F12000 X146.25 Y165.69
G1 F1020 X145.33 Y164.77 E268.93146
G0 F12000 X145.33 Y165.43
G1 F1020 X146.25 Y166.34 E268.98168
G0 F12000 X146.25 Y167.00
G1 F1020 X145.33 Y166.09 E269.03190
G0 F12000 X145.33 Y166.75
G1 F1020 X145.75 Y167.17 E269.05505
G0 F12000 X158.75 Y166.99
G1 F1020 X158.93 Y167.17 E269.06481
G0 F12000 X159.59 Y167.17
G1 F1020 X158.75 Y166.33 E269.11067
G0 F12000 X158.75 Y165.67
G1 F1020 X159.67 Y166.59 E269.16090
G0 F12000 X159.67 Y165.93
G1 F1020 X158.75 Y165.01 E269.21112
G0 F12000 X158.75 Y164.36
G1 F1020 X159.67 Y165.27 E269.26134
G0 F12000 X159.67 Y164.61
G1 F1020 X158.75 Y163.70 E269.31156
G0 F12000 X158.75 Y163.04
G1 F1020 X159.67 Y163.95 E269.36178
G0 F12000 X159.67 Y163.29
G1 F1020 X158.75 Y162.38 E269.41201
G0 F12000 X158.86 Y161.83
G1 F1020 X159.67 Y162.64 E269.45631
G0 F12000 X159.67 Y161.98
G1 F1020 X159.52 Y161.83 E269.46450
;LAYER:3
G0 F12000 X159.84 Y161.66 Z0.90
;TYPE:WALL-INNER
G1 F1020 X159.84 Y167.34 E269.68421
G1 X145.16 Y167.34 E270.25264
G1 X145.16 Y161.66 E270.47234
G1 X159.84 Y161.66 E271.04077
G0 F12000 X158.59 Y161.84
G1 F1020 X146.41 Y161.84 E271.51280
G1 X146.41 Y167.16 E271.71933
G1 X158.59 Y167.16 E272.19136
G1 X158.59 Y161.84 E272.39789
G0 F12000 X158.12 Y162.30
G1 F1020 X146.88 Y162.30 E272.83380
G1 X146.88 Y166.70 E273.00422
G1 X158.12 Y166.70 E273.44013
G1 X158.12 Y162.30 E273.61055
G0 F12000 X160.30 Y161.20
G1 F1020 X160.30 Y167.80 E273.86636
G1 X144.70 Y167.80 E274.47091
G1 X144.70 Y161.20 E274.72672
G1 X160.30 Y161.20 E275.33127
G0 F12000 X160.77 Y160.73
;TYPE:WALL-OUTER
G1 F1020 X160.77 Y168.27 E275.62320
G1 X144.23 Y168.27 E276.26386
G1 X144.23 Y160.73 E276.55579
G1 X160.77 Y160.73 E277.19645
G0 F12000 X160.43 Y160.98
G0 X157.66 Y162.43
G0 X157.66 Y162.77
G1 F1020 X147.34 Y162.77 E277.59625
G1 X147.34 Y166.23 E277.73055
G1 X157.66 Y166.23 E278.13035
G1 X157.66 Y162.77 E278.26465
G0 F12000 X158.75 Y162.52
;TYPE:FILL
G1 F1020 X159.45 Y161.83 E278.30252
G0 F12000 X159.67 Y162.26
G1 F1020 X158.75 Y163.18 E278.35271
G0 F12000 X158.75 Y163.84
G1 F1020 X159.67 Y162.92 E278.40291
G0 F12000 X159.67 Y163.58
G1 F1020 X158.75 Y164.50 E278.45310
G0 F12000 X158.75 Y165.15
G1 F1020 X159.67 Y164.24 E278.50330
G0 F12000 X159.67 Y164.90
G1 F1020 X158.75 Y165.81 E278.55347
G0 F12000 X158.75 Y166.47
G1 F1020 X159.67 Y165.56 E278.60363
G0 F12000 X159.67 Y166.22
G1 F1020 X158.75 Y167.13 E278.65380
G0 F12000 X159.38 Y167.17
G1 F1020 X159.67 Y166.88 E278.66999
G0 F12000 X146.25 Y166.46
G1 F1020 X145.54 Y167.17 E278.70882
G0 F12000 X145.33 Y166.72
G1 F1020 X146.25 Y165.80 E278.75904
G0 F12000 X146.25 Y165.14
G1 F1020 X145.33 Y166.06 E278.80926
G0 F12000 X145.33 Y165.40
G1 F1020 X146.25 Y164.48 E278.85949
G0 F12000 X146.25 Y163.82
G1 F1020 X145.33 Y164.74 E278.90971
G0 F12000 X145.33 Y164.08
G1 F1020 X146.25 Y163.17 E278.95993
G0 F12000 X146.25 Y162.51
G1 F1020 X145.33 Y163.42 E279.01015
G0 F12000 X145.33 Y162.76
G1 F1020 X146.25 Y161.85 E279.06037
G0 F12000 X145.61 Y161.83
G1 F1020 X145.33 Y162.10 E279.07558
;LAYER:4
G0 F12000 X145.16 Y161.66 Z1.10
;TYPE:WALL-INNER
G1 F1020 X159.84 Y161.66 E279.64402
G1 X159.84 Y167.34 E279.86372
G1 X145.16 Y167.34 E280.43215
G1 X145.16 Y161.66 E280.65185
G0 F12000 X146.41 Y161.84
G1 F1020 X146.41 Y167.16 E280.85838
G1 X158.59 Y167.16 E281.33041
G1 X158.59 Y161.84 E281.53694
G1 X146.41 Y161.84 E282.00896
G0 F12000 X146.88 Y162.30
G1 F1020 X146.88 Y166.70 E282.17938
G1 X158.12 Y166.70 E282.61529
G1 X158.12 Y162.30 E282.78571
G1 X146.88 Y162.30 E283.22162
G0 F12000 X144.70 Y161.20
G1 F1020 X160.30 Y161.20 E283.82617
G1 X160.30 Y167.80 E284.08199
G1 X144.70 Y167.80 E284.68653
G1 X144.70 Y161.20 E284.94235
G0 F12000 X144.23 Y160.73
;TYPE:WALL-OUTER
G1 F1020 X160.77 Y160.73 E285.58301
G1 X160.77 Y168.27 E285.87494
G1 X144.23 Y168.27 E286.51560
G1 X144.23 Y160.73 E286.80752
G0 F12000 X144.57 Y160.98
G0 X147.34 Y162.43
G0 X147.34 Y162.77
G1 F1020 X147.34 Y166.23 E286.94182
G1 X157.66 Y166.23 E287.34163
G1 X157.66 Y162.77 E287.47593
G1 X147.34 Y162.77 E287.87573
G0 F12000 X146.25 Y163.05
;TYPE:FILL
G1 F1020 X145.33 Y162.13 E287.92598
G0 F12000 X145.68 Y161.83
G1 F1020 X146.25 Y162.39 E287.95683
G0 F12000 X145.33 Y162.79
G1 F1020 X146.25 Y163.71 E288.00708
G0 F12000 X146.25 Y164.37
G1 F1020 X145.33 Y163.45 E288.05733
G0 F12000 X145.33 Y164.11
G1 F1020 X146.25 Y165.03 E288.10758
G0 F12000 X146.25 Y165.69
G1 F1020 X145.33 Y164.77 E288.15780
G0 F12000 X145.33 Y165.43
G1 F1020 X146.25 Y166.34 E288.20803
G0 F12000 X146.25 Y167.00
G1 F1020 X145.33 Y166.09 E288.25825
G0 F12000 X145.33 Y166.75
G1 F1020 X145.75 Y167.17 E288.28140
G0 F12000 X158.75 Y166.99
G1 F1020 X158.93 Y167.17 E288.29115
G0 F12000 X159.59 Y167.17
G1 F1020 X158.75 Y166.33 E288.33702
G0 F12000 X158.75 Y165.67
G1 F1020 X159.67 Y166.59 E288.38724
G0 F12000 X159.67 Y165.93
G1 F1020 X158.75 Y165.01 E288.43746
G0 F12000 X158.75 Y164.36
G1 F1020 X159.67 Y165.27 E288.48769
G0 F12000 X159.67 Y164.61
G1 F1020 X158.75 Y163.70 E288.53791
G0 F12000 X158.75 Y163.04
G1 F1020 X159.67 Y163.95 E288.58813
G0 F12000 X159.67 Y163.29
G1 F1020 X158.75 Y162.38 E288.63835
G0 F12000 X158.86 Y161.83
G1 F1020 X159.67 Y162.64 E288.68266
G0 F12000 X159.67 Y161.98
G1 F1020 X159.52 Y161.83 E288.69085
;LAYER:5
G0 F12000 X159.84 Y161.66 Z1.30
;TYPE:WALL-INNER
G1 F1020 X159.84 Y167.34 E288.91055
G1 X145.16 Y167.34 E289.47899
G1 X145.16 Y161.66 E289.69869
G1 X159.84 Y161.66 E290.26712
G0 F12000 X158.59 Y161.84
G1 F1020 X146.41 Y161.84 E290.73915
G1 X146.41 Y167.16 E290.94568
G1 X158.59 Y167.16 E291.41771
G1 X158.59 Y161.84 E291.62423
G0 F12000 X158.12 Y162.30
G1 F1020 X146.88 Y162.30 E292.06015
G1 X146.88 Y166.70 E292.23056
G1 X158.12 Y166.70 E292.66648
G1 X158.12 Y162.30 E292.83689
G0 F12000 X160.30 Y161.20
G1 F1020 X160.30 Y167.80 E293.09271
G1 X144.70 Y167.80 E293.69725
G1 X144.70 Y161.20 E293.95307
G1 X160.30 Y161.20 E294.55762
G0 F12000 X160.77 Y160.73
;TYPE:WALL-OUTER
G1 F1020 X160.77 Y168.27 E294.84954
G1 X144.23 Y168.27 E295.49020
G1 X144.23 Y160.73 E295.78213
G1 X160.77 Y160.73 E296.42279
G0 F12000 X160.43 Y160.98
G0 X157.66 Y162.43
G0 X157.66 Y162.77
G1 F1020 X147.34 Y162.77 E296.82260
G1 X147.34 Y166.23 E296.95690
G1 X157.66 Y166.23 E297.35670
G1 X157.66 Y162.77 E297.49100
G0 F12000 X158.75 Y162.52
;TYPE:FILL
G1 F1020 X159.45 Y161.83 E297.52887
G0 F12000 X159.67 Y162.26
G1 F1020 X158.75 Y163.18 E297.57906
G0 F12000 X158.75 Y163.84
G1 F1020 X159.67 Y162.92 E297.62926
G0 F12000 X159.67 Y163.58
G1 F1020 X158.75 Y164.50 E297.67945
G0 F12000 X158.75 Y165.15
G1 F1020 X159.67 Y164.24 E297.72965
G0 F12000 X159.67 Y164.90
G1 F1020 X158.75 Y165.81 E297.77981
G0 F12000 X158.75 Y166.47
G1 F1020 X159.67 Y165.56 E297.82998
G0 F12000 X159.67 Y166.22
G1 F1020 X158.75 Y167.13 E297.88015
G0 F12000 X159.38 Y167.17
G1 F1020 X159.67 Y166.88 E297.89634
G0 F12000 X146.25 Y166.46
G1 F1020 X145.54 Y167.17 E297.93517
G0 F12000 X145.33 Y166.72
G1 F1020 X146.25 Y165.80 E297.98539
G0 F12000 X146.25 Y165.14
G1 F1020 X145.33 Y166.06 E298.03561
G0 F12000 X145.33 Y165.40
G1 F1020 X146.25 Y164.48 E298.08583
G0 F12000 X146.25 Y163.82
G1 F1020 X145.33 Y164.74 E298.13605
G0 F12000 X145.33 Y164.08
G1 F1020 X146.25 Y163.17 E298.18628
G0 F12000 X146.25 Y162.51
G1 F1020 X145.33 Y163.42 E298.23650
G0 F12000 X145.33 Y162.76
G1 F1020 X146.25 Y161.85 E298.28672
G0 F12000 X145.61 Y161.83
G1 F1020 X145.33 Y162.10 E298.30193
;LAYER:6
G0 F12000 X145.16 Y161.66 Z1.50
;TYPE:WALL-INNER
G1 F1020 X159.84 Y161.66 E298.87036
G1 X159.84 Y167.34 E299.09006
G1 X145.16 Y167.34 E299.65850
G1 X145.16 Y161.66 E299.87820
G0 F12000 X146.41 Y161.84
G1 F1020 X146.41 Y167.16 E300.08473
G1 X158.59 Y167.16 E300.55676
G1 X158.59 Y161.84 E300.76328
G1 X146.41 Y161.84 E301.23531
G0 F12000 X146.88 Y162.30
G1 F1020 X146.88 Y166.70 E301.40573
G1 X158.12 Y166.70 E301.84164
G1 X158.12 Y162.30 E302.01205
G1 X146.88 Y162.30 E302.44797
G0 F12000 X144.70 Y161.20
G1 F1020 X160.30 Y161.20 E303.05252
G1 X160.30 Y167.80 E303.30833
G1 X144.70 Y167.80 E303.91288
G1 X144.70 Y161.20 E304.16869
G0 F12000 X144.23 Y160.73
;TYPE:WALL-OUTER
G1 F1020 X160.77 Y160.73 E304.80935
G1 X160.77 Y168.27 E305.10128
G1 X144.23 Y168.27 E305.74194
G1 X144.23 Y160.73 E306.03387
G0 F12000 X144.57 Y160.98
G0 X147.34 Y162.43
G0 X147.34 Y162.77
G1 F1020 X147.34 Y166.23 E306.16817
G1 X157.66 Y166.23 E306.56797
G1 X157.66 Y162.77 E306.70227
G1 X147.34 Y162.77 E307.10208
G0 F12000 X146.25 Y163.05
;TYPE:FILL
G1 F1020 X145.33 Y162.13 E307.15233
G0 F12000 X145.68 Y161.83
G1 F1020 X146.25 Y162.39 E307.18318
G0 F12000 X145.33 Y162.79
G1 F1020 X146.25 Y163.71 E307.23343
G0 F12000 X146.25 Y164.37
G1 F1020 X145.33 Y163.45 E307.28368
G0 F12000 X145.33 Y164.11
G1 F1020 X146.25 Y165.03 E307.33393
G0 F12000 X146.25 Y165.69
G1 F1020 X145.33 Y164.77 E307.38415
G0 F12000 X145.33 Y165.43
G1 F1020 X146.25 Y166.34 E307.43437
G0 F12000 X146.25 Y167.00
G1 F1020 X145.33 Y166.09 E307.48459
G0 F12000 X145.33 Y166.75
G1 F1020 X145.75 Y167.17 E307.50775
G0 F12000 X158.75 Y166.99
G1 F1020 X158.93 Y167.17 E307.51750
G0 F12000 X159.59 Y167.17
G1 F1020 X158.75 Y166.33 E307.56337
G0 F12000 X158.75 Y165.67
G1 F1020 X159.67 Y166.59 E307.61359
G0 F12000 X159.67 Y165.93
G1 F1020 X158.75 Y165.01 E307.66381
G0 F12000 X158.75 Y164.36
G1 F1020 X159.67 Y165.27 E307.71403
G0 F12000 X159.67 Y164.61
G1 F1020 X158.75 Y163.70 E307.76426
G0 F12000 X158.75 Y163.04
G1 F1020 X159.67 Y163.95 E307.81448
G0 F12000 X159.67 Y163.29
G1 F1020 X158.75 Y162.38 E307.86470
G0 F12000 X158.86 Y161.83
G1 F1020 X159.67 Y162.64 E307.90901
G0 F12000 X159.67 Y161.98
G1 F1020 X159.52 Y161.83 E307.91720
;LAYER:7
G0 F12000 X159.84 Y161.66 Z1.70
;TYPE:WALL-INNER
G1 F1020 X159.84 Y167.34 E308.13690
G1 X145.16 Y167.34 E308.70533
G1 X145.16 Y161.66 E308.92504
G1 X159.84 Y161.66 E309.49347
G0 F12000 X158.59 Y161.84
G1 F1020 X146.41 Y161.84 E309.96550
G1 X146.41 Y167.16 E310.17202
G1 X158.59 Y167.16 E310.64405
G1 X158.59 Y161.84 E310.85058
G0 F12000 X158.12 Y162.30
G1 F1020 X146.88 Y162.30 E311.28650
G1 X146.88 Y166.70 E311.45691
G1 X158.12 Y166.70 E311.89283
G1 X158.12 Y162.30 E312.06324
G0 F12000 X160.30 Y161.20
G1 F1020 X160.30 Y167.80 E312.31905
G1 X144.70 Y167.80 E312.92360
G1 X144.70 Y161.20 E313.17942
G1 X160.30 Y161.20 E313.78396
G0 F12000 X160.77 Y160.73
;TYPE:WALL-OUTER
G1 F1020 X160.77 Y168.27 E314.07589
G1 X144.23 Y168.27 E314.71655
G1 X144.23 Y160.73 E315.00848
G1 X160.77 Y160.73 E315.64914
G0 F12000 X160.43 Y160.98
G0 X157.66 Y162.43
G0 X157.66 Y162.77
G1 F1020 X147.34 Y162.77 E316.04894
G1 X147.34 Y166.23 E316.18324
G1 X157.66 Y166.23 E316.58305
G1 X157.66 Y162.77 E316.71735
G0 F12000 X158.75 Y162.52
;TYPE:FILL
G1 F1020 X159.45 Y161.83 E316.75521
G0 F12000 X159.67 Y162.26
G1 F1020 X158.75 Y163.18 E316.80541
G0 F12000 X158.75 Y163.84
G1 F1020 X159.67 Y162.92 E316.85560
G0 F12000 X159.67 Y163.58
G1 F1020 X158.75 Y164.50 E316.90580
G0 F12000 X158.75 Y165.15
G1 F1020 X159.67 Y164.24 E316.95599
G0 F12000 X159.67 Y164.90
G1 F1020 X158.75 Y165.81 E317.00616
G0 F12000 X158.75 Y166.47
G1 F1020 X159.67 Y165.56 E317.05633
G0 F12000 X159.67 Y166.22
G1 F1020 X158.75 Y167.13 E317.10650
G0 F12000 X159.38 Y167.17
G1 F1020 X159.67 Y166.88 E317.12269
G0 F12000 X146.25 Y166.46
G1 F1020 X145.54 Y167.17 E317.16151
G0 F12000 X145.33 Y166.72
G1 F1020 X146.25 Y165.80 E317.21173
G0 F12000 X146.25 Y165.14
G1 F1020 X145.33 Y166.06 E317.26196
G0 F12000 X145.33 Y165.40
G1 F1020 X146.25 Y164.48 E317.31218
G0 F12000 X146.25 Y163.82
G1 F1020 X145.33 Y164.74 E317.36240
G0 F12000 X145.33 Y164.08
G1 F1020 X146.25 Y163.17 E317.41262
G0 F12000 X146.25 Y162.51
G1 F1020 X145.33 Y163.42 E317.46285
G0 F12000 X145.33 Y162.76
G1 F1020 X146.25 Y161.85 E317.51307
G0 F12000 X145.61 Y161.83
G1 F1020 X145.33 Y162.10 E317.52828
;LAYER:8
G0 F12000 X145.16 Y161.66 Z1.90
;TYPE:WALL-INNER
G1 F1020 X159.84 Y161.66 E318.09671
G1 X159.84 Y167.34 E318.31641
G1 X145.16 Y167.34 E318.88485
G1 X145.16 Y161.66 E319.10455
G0 F12000 X146.41 Y161.84
G1 F1020 X146.41 Y167.16 E319.31107
G1 X158.59 Y167.16 E319.78310
G1 X158.59 Y161.84 E319.98963
G1 X146.41 Y161.84 E320.46166
G0 F12000 X146.88 Y162.30
G1 F1020 X146.88 Y166.70 E320.63207
G1 X158.12 Y166.70 E321.06799
G1 X158.12 Y162.30 E321.23840
G1 X146.88 Y162.30 E321.67432
G0 F12000 X144.70 Y161.20
G1 F1020 X160.30 Y161.20 E322.27886
G1 X160.30 Y167.80 E322.53468
G1 X144.70 Y167.80 E323.13923
G1 X144.70 Y161.20 E323.39504
G0 F12000 X144.23 Y160.73
;TYPE:WALL-OUTER
G1 F1020 X160.77 Y160.73 E324.03570
G1 X160.77 Y168.27 E324.32763
G1 X144.23 Y168.27 E324.96829
G1 X144.23 Y160.73 E325.26022
G0 F12000 X144.57 Y160.98
G0 X147.34 Y162.43
G0 X147.34 Y162.77
G1 F1020 X147.34 Y166.23 E325.39452
G1 X157.66 Y166.23 E325.79432
G1 X157.66 Y162.77 E325.92862
G1 X147.34 Y162.77 E326.32842
G0 F12000 X146.25 Y163.05
;TYPE:FILL
G1 F1020 X145.33 Y162.13 E326.37867
G0 F12000 X145.68 Y161.83
G1 F1020 X146.25 Y162.39 E326.40953
G0 F12000 X145.33 Y162.79
G1 F1020 X146.25 Y163.71 E326.45978
G0 F12000 X146.25 Y164.37
G1 F1020 X145.33 Y163.45 E326.51003
G0 F12000 X145.33 Y164.11
G1 F1020 X146.25 Y165.03 E326.56027
G0 F12000 X146.25 Y165.69
G1 F1020 X145.33 Y164.77 E326.61050
G0 F12000 X145.33 Y165.43
G1 F1020 X146.25 Y166.34 E326.66072
G0 F12000 X146.25 Y167.00
G1 F1020 X145.33 Y166.09 E326.71094
G0 F12000 X145.33 Y166.75
G1 F1020 X145.75 Y167.17 E326.73409
G0 F12000 X158.75 Y166.99
G1 F1020 X158.93 Y167.17 E326.74385
G0 F12000 X159.59 Y167.17
G1 F1020 X158.75 Y166.33 E326.78971
G0 F12000 X158.75 Y165.67
G1 F1020 X159.67 Y166.59 E326.83994
G0 F12000 X159.67 Y165.93
G1 F1020 X158.75 Y165.01 E326.89016
G0 F12000 X158.75 Y164.36
G1 F1020 X159.67 Y165.27 E326.94038
G0 F12000 X159.67 Y164.61
G1 F1020 X158.75 Y163.70 E326.99060
G0 F12000 X158.75 Y163.04
G1 F1020 X159.67 Y163.95 E327.04083
G0 F12000 X159.67 Y163.29
G1 F1020 X158.75 Y162.38 E327.09105
G0 F12000 X158.86 Y161.83
G1 F1020 X159.67 Y162.64 E327.13535
G0 F12000 X159.67 Y161.98
G1 F1020 X159.52 Y161.83 E327.14355
;LAYER:9
G0 F12000 X159.84 Y161.66 Z2.10
;TYPE:WALL-INNER
G1 F1020 X159.84 Y167.34 E327.36325
G1 X145.16 Y167.34 E327.93168
G1 X145.16 Y161.66 E328.15138
G1 X159.84 Y161.66 E328.71982
G0 F12000 X158.59 Y161.84
G1 F1020 X146.41 Y161.84 E329.19184
G1 X146.41 Y167.16 E329.39837
G1 X158.59 Y167.16 E329.87040
G1 X158.59 Y161.84 E330.07693
G0 F12000 X158.12 Y162.30
G1 F1020 X146.88 Y162.30 E330.51284
G1 X146.88 Y166.70 E330.68326
G1 X158.12 Y166.70 E331.11917
G1 X158.12 Y162.30 E331.28959
G0 F12000 X160.30 Y161.20
G1 F1020 X160.30 Y167.80 E331.54540
G1 X144.70 Y167.80 E332.14995
G1 X144.70 Y161.20 E332.40576
G1 X160.30 Y161.20 E333.01031
G0 F12000 X160.77 Y160.73
;TYPE:WALL-OUTER
G1 F1020 X160.77 Y168.27 E333.30224
G1 X144.23 Y168.27 E333.94290
G1 X144.23 Y160.73 E334.23483
G1 X160.77 Y160.73 E334.87549
G0 F12000 X160.43 Y160.98
G0 X157.66 Y162.43
G0 X157.66 Y162.77
G1 F1020 X147.34 Y162.77 E335.27529
G1 X147.34 Y166.23 E335.40959
G1 X157.66 Y166.23 E335.80939
G1 X157.66 Y162.77 E335.94369
G0 F12000 X158.75 Y162.52
;TYPE:FILL
G1 F1020 X159.45 Y161.83 E335.98156
G0 F12000 X159.67 Y162.26
G1 F1020 X158.75 Y163.18 E336.03175
G0 F12000 X158.75 Y163.84
G1 F1020 X159.67 Y162.92 E336.08195
G0 F12000 X159.67 Y163.58
G1 F1020 X158.75 Y164.50 E336.13214
G0 F12000 X158.75 Y165.15
G1 F1020 X159.67 Y164.24 E336.18234
G0 F12000 X159.67 Y164.90
G1 F1020 X158.75 Y165.81 E336.23251
G0 F12000 X158.75 Y166.47
G1 F1020 X159.67 Y165.56 E336.28267
G0 F12000 X159.67 Y166.22
G1 F1020 X158.75 Y167.13 E336.33284
G0 F12000 X159.38 Y167.17
G1 F1020 X159.67 Y166.88 E336.34904
G0 F12000 X146.25 Y166.46
G1 F1020 X145.54 Y167.17 E336.38786
G0 F12000 X145.33 Y166.72
G1 F1020 X146.25 Y165.80 E336.43808
G0 F12000 X146.25 Y165.14
G1 F1020 X145.33 Y166.06 E336.48830
G0 F12000 X145.33 Y165.40
G1 F1020 X146.25 Y164.48 E336.53853
G0 F12000 X146.25 Y163.82
G1 F1020 X145.33 Y164.74 E336.58875
G0 F12000 X145.33 Y164.08
G1 F1020 X146.25 Y163.17 E336.63897
G0 F12000 X146.25 Y162.51
G1 F1020 X145.33 Y163.42 E336.68919
G0 F12000 X145.33 Y162.76
G1 F1020 X146.25 Y161.85 E336.73942
G0 F12000 X145.61 Y161.83
G1 F1020 X145.33 Y162.10 E336.75462
;LAYER:10
G0 F12000 X145.16 Y161.66 Z2.30
;TYPE:WALL-INNER
G1 F1020 X159.84 Y161.66 E337.32306
G1 X159.84 Y167.34 E337.54276
G1 X145.16 Y167.34 E338.11119
G1 X145.16 Y161.66 E338.33089
G0 F12000 X146.41 Y161.84
G1 F1020 X146.41 Y167.16 E338.53742
G1 X158.59 Y167.16 E339.00945
G1 X158.59 Y161.84 E339.21598
G1 X146.41 Y161.84 E339.68801
G0 F12000 X146.88 Y162.30
G1 F1020 X146.88 Y166.70 E339.85842
G1 X158.12 Y166.70 E340.29434
G1 X158.12 Y162.30 E340.46475
G1 X146.88 Y162.30 E340.90066
G0 F12000 X144.70 Y161.20
G1 F1020 X160.30 Y161.20 E341.50521
G1 X160.30 Y167.80 E341.76103
G1 X144.70 Y167.80 E342.36557
G1 X144.70 Y161.20 E342.62139
G0 F12000 X144.23 Y160.73
;TYPE:WALL-OUTER
G1 F1020 X160.77 Y160.73 E343.26205
G1 X160.77 Y168.27 E343.55398
G1 X144.23 Y168.27 E344.19464
G1 X144.23 Y160.73 E344.48657
G0 F12000 X144.57 Y160.98
G0 X147.34 Y162.43
G0 X147.34 Y162.77
G1 F1020 X147.34 Y166.23 E344.62087
G1 X157.66 Y166.23 E345.02067
G1 X157.66 Y162.77 E345.15497
G1 X147.34 Y162.77 E345.55477
G0 F12000 X146.25 Y163.05
;TYPE:FILL
G1 F1020 X145.33 Y162.13 E345.60502
G0 F12000 X145.68 Y161.83
G1 F1020 X146.25 Y162.39 E345.63587
G0 F12000 X145.33 Y162.79
G1 F1020 X146.25 Y163.71 E345.68612
G0 F12000 X146.25 Y164.37
G1 F1020 X145.33 Y163.45 E345.73637
G0 F12000 X145.33 Y164.11
G1 F1020 X146.25 Y165.03 E345.78662
G0 F12000 X146.25 Y165.69
G1 F1020 X145.33 Y164.77 E345.83684
G0 F12000 X145.33 Y165.43
G1 F1020 X146.25 Y166.34 E345.88707
G0 F12000 X146.25 Y167.00
G1 F1020 X145.33 Y166.09 E345.93729
G0 F12000 X145.33 Y166.75
G1 F1020 X145.75 Y167.17 E345.96044
G0 F12000 X158.75 Y166.99
G1 F1020 X158.93 Y167.17 E345.97020
G0 F12000 X159.59 Y167.17
G1 F1020 X158.75 Y166.33 E346.01606
G0 F12000 X158.75 Y165.67
G1 F1020 X159.67 Y166.59 E346.06628
G0 F12000 X159.67 Y165.93
G1 F1020 X158.75 Y165.01 E346.11651
G0 F12000 X158.75 Y164.36
G1 F1020 X159.67 Y165.27 E346.16673
G0 F12000 X159.67 Y164.61
G1 F1020 X158.75 Y163.70 E346.21695
G0 F12000 X158.75 Y163.04
G1 F1020 X159.67 Y163.95 E346.26717
G0 F12000 X159.67 Y163.29
G1 F1020 X158.75 Y162.38 E346.31740
G0 F12000 X158.86 Y161.83
G1 F1020 X159.67 Y162.64 E346.36170
G0 F12000 X159.67 Y161.98
G1 F1020 X159.52 Y161.83 E346.36989
;LAYER:11
G0 F12000 X159.84 Y161.66 Z2.50
;TYPE:WALL-INNER
G1 F1020 X159.84 Y167.34 E346.58959
G1 X145.16 Y167.34 E347.15803
G1 X145.16 Y161.66 E347.37773
G1 X159.84 Y161.66 E347.94616
G0 F12000 X158.59 Y161.84
G1 F1020 X146.41 Y161.84 E348.41819
G1 X146.41 Y167.16 E348.62472
G1 X158.59 Y167.16 E349.09675
G1 X158.59 Y161.84 E349.30328
G0 F12000 X158.12 Y162.30
G1 F1020 X146.88 Y162.30 E349.73919
G1 X146.88 Y166.70 E349.90960
G1 X158.12 Y166.70 E350.34552
G1 X158.12 Y162.30 E350.51593
G0 F12000 X160.30 Y161.20
G1 F1020 X160.30 Y167.80 E350.77175
G1 X144.70 Y167.80 E351.37630
G1 X144.70 Y161.20 E351.63211
G1 X160.30 Y161.20 E352.23666
G0 F12000 X160.77 Y160.73
;TYPE:WALL-OUTER
G1 F1020 X160.77 Y168.27 E352.52859
G1 X144.23 Y168.27 E353.16925
G1 X144.23 Y160.73 E353.46117
G1 X160.77 Y160.73 E354.10183
G0 F12000 X160.43 Y160.98
G0 X157.66 Y162.43
G0 X157.66 Y162.77
G1 F1020 X147.34 Y162.77 E354.50164
G1 X147.34 Y166.23 E354.63594
G1 X157.66 Y166.23 E355.03574
G1 X157.66 Y162.77 E355.17004
G0 F12000 X158.75 Y162.52
;TYPE:FILL
G1 F1020 X159.45 Y161.83 E355.20791
G0 F12000 X159.67 Y162.26
G1 F1020 X158.75 Y163.18 E355.25810
G0 F12000 X158.75 Y163.84
G1 F1020 X159.67 Y162.92 E355.30830
G0 F12000 X159.67 Y163.58
G1 F1020 X158.75 Y164.50 E355.35849
G0 F12000 X158.75 Y165.15
G1 F1020 X159.67 Y164.24 E355.40869
G0 F12000 X159.67 Y164.90
G1 F1020 X158.75 Y165.81 E355.45885
G0 F12000 X158.75 Y166.47
G1 F1020 X159.67 Y165.56 E355.50902
G0 F12000 X159.67 Y166.22
G1 F1020 X158.75 Y167.13 E355.55919
G0 F12000 X159.38 Y167.17
G1 F1020 X159.67 Y166.88 E355.57538
G0 F12000 X146.25 Y166.46
G1 F1020 X145.54 Y167.17 E355.61421
G0 F12000 X145.33 Y166.72
G1 F1020 X146.25 Y165.80 E355.66443
G0 F12000 X146.25 Y165.14
G1 F1020 X145.33 Y166.06 E355.71465
G0 F12000 X145.33 Y165.40
G1 F1020 X146.25 Y164.48 E355.76487
G0 F12000 X146.25 Y163.82
G1 F1020 X145.33 Y164.74 E355.81510
G0 F12000 X145.33 Y164.08
G1 F1020 X146.25 Y163.17 E355.86532
G0 F12000 X146.25 Y162.51
G1 F1020 X145.33 Y163.42 E355.91554
G0 F12000 X145.33 Y162.76
G1 F1020 X146.25 Y161.85 E355.96576
G0 F12000 X145.61 Y161.83
G1 F1020 X145.33 Y162.10 E355.98097
;LAYER:12
G0 F12000 X145.16 Y161.66 Z2.70
;TYPE:WALL-INNER
G1 F1020 X159.84 Y161.66 E356.54940
G1 X159.84 Y167.34 E356.76911
G1 X145.16 Y167.34 E357.33754
G1 X145.16 Y161.66 E357.55724
G0 F12000 X146.41 Y161.84
G1 F1020 X146.41 Y167.16 E357.76377
G1 X158.59 Y167.16 E358.23580
G1 X158.59 Y161.84 E358.44232
G1 X146.41 Y161.84 E358.91435
G0 F12000 X146.88 Y162.30
G1 F1020 X146.88 Y166.70 E359.08477
G1 X158.12 Y166.70 E359.52068
G1 X158.12 Y162.30 E359.69110
G1 X146.88 Y162.30 E360.12701
G0 F12000 X144.70 Y161.20
G1 F1020 X160.30 Y161.20 E360.73156
G1 X160.30 Y167.80 E360.98737
G1 X144.70 Y167.80 E361.59192
G1 X144.70 Y161.20 E361.84774
G0 F12000 X144.23 Y160.73
;TYPE:WALL-OUTER
G1 F1020 X160.77 Y160.73 E362.48840
G1 X160.77 Y168.27 E362.78032
G1 X144.23 Y168.27 E363.42098
G1 X144.23 Y160.73 E363.71291
G0 F12000 X144.57 Y160.98
G0 X147.34 Y162.43
G0 X147.34 Y162.77
G1 F1020 X147.34 Y166.23 E363.84721
G1 X157.66 Y166.23 E364.24702
G1 X157.66 Y162.77 E364.38132
G1 X147.34 Y162.77 E364.78112
G0 F12000 X146.25 Y163.05
;TYPE:FILL
G1 F1020 X145.33 Y162.13 E364.83137
G0 F12000 X145.68 Y161.83
G1 F1020 X146.25 Y162.39 E364.86222
G0 F12000 X145.33 Y162.79
G1 F1020 X146.25 Y163.71 E364.91247
G0 F12000 X146.25 Y164.37
G1 F1020 X145.33 Y163.45 E364.96272
G0 F12000 X145.33 Y164.11
G1 F1020 X146.25 Y165.03 E365.01297
G0 F12000 X146.25 Y165.69
G1 F1020 X145.33 Y164.77 E365.06319
G0 F12000 X145.33 Y165.43
G1 F1020 X146.25 Y166.34 E365.11341
G0 F12000 X146.25 Y167.00
G1 F1020 X145.33 Y166.09 E365.16364
G0 F12000 X145.33 Y166.75
G1 F1020 X145.75 Y167.17 E365.18679
G0 F12000 X158.75 Y166.99
G1 F1020 X158.93 Y167.17 E365.19654
G0 F12000 X159.59 Y167.17
G1 F1020 X158.75 Y166.33 E365.24241
G0 F12000 X158.75 Y165.67
G1 F1020 X159.67 Y166.59 E365.29263
G0 F12000 X159.67 Y165.93
G1 F1020 X158.75 Y165.01 E365.34285
G0 F12000 X158.75 Y164.36
G1 F1020 X159.67 Y165.27 E365.39308
G0 F12000 X159.67 Y164.61
G1 F1020 X158.75 Y163.70 E365.44330
G0 F12000 X158.75 Y163.04
G1 F1020 X159.67 Y163.95 E365.49352
G0 F12000 X159.67 Y163.29
G1 F1020 X158.75 Y162.38 E365.54374
G0 F12000 X158.86 Y161.83
G1 F1020 X159.67 Y162.64 E365.58805
G0 F12000 X159.67 Y161.98
G1 F1020 X159.52 Y161.83 E365.59624
;LAYER:13
G0 F12000 X159.84 Y161.66 Z2.90
;TYPE:WALL-INNER
G1 F1020 X159.84 Y167.34 E365.81594
G1 X145.16 Y167.34 E366.38437
G1 X145.16 Y161.66 E366.60408
G1 X159.84 Y161.66 E367.17251
G0 F12000 X158.59 Y161.84
G1 F1020 X146.41 Y161.84 E367.64454
G1 X146.41 Y167.16 E367.85107
G1 X158.59 Y167.16 E368.32310
G1 X158.59 Y161.84 E368.52962
G0 F12000 X158.12 Y162.30
G1 F1020 X146.88 Y162.30 E368.96554
G1 X146.88 Y166.70 E369.13595
G1 X158.12 Y166.70 E369.57187
G1 X158.12 Y162.30 E369.74228
G0 F12000 X160.30 Y161.20
G1 F1020 X160.30 Y167.80 E369.99810
G1 X144.70 Y167.80 E370.60264
G1 X144.70 Y161.20 E370.85846
G1 X160.30 Y161.20 E371.46301
G0 F12000 X160.77 Y160.73
;TYPE:WALL-OUTER
G1 F1020 X160.77 Y168.27 E371.75493
G1 X144.23 Y168.27 E372.39559
G1 X144.23 Y160.73 E372.68752
G1 X160.77 Y160.73 E373.32818
G0 F12000 X160.43 Y160.98
G0 X157.66 Y162.43
G0 X157.66 Y162.77
G1 F1020 X147.34 Y162.77 E373.72798
G1 X147.34 Y166.23 E373.86229
G1 X157.66 Y166.23 E374.26209
G1 X157.66 Y162.77 E374.39639
G0 F12000 X158.75 Y162.52
;TYPE:FILL
G1 F1020 X159.45 Y161.83 E374.43425
G0 F12000 X159.67 Y162.26
G1 F1020 X158.75 Y163.18 E374.48445
G0 F12000 X158.75 Y163.84
G1 F1020 X159.67 Y162.92 E374.53464
G0 F12000 X159.67 Y163.58
G1 F1020 X158.75 Y164.50 E374.58484
G0 F12000 X158.75 Y165.15
G1 F1020 X159.67 Y164.24 E374.63503
G0 F12000 X159.67 Y164.90
G1 F1020 X158.75 Y165.81 E374.68520
G0 F12000 X158.75 Y166.47
G1 F1020 X159.67 Y165.56 E374.73537
G0 F12000 X159.67 Y166.22
G1 F1020 X158.75 Y167.13 E374.78554
G0 F12000 X159.38 Y167.17
G1 F1020 X159.67 Y166.88 E374.80173
G0 F12000 X146.25 Y166.46
G1 F1020 X145.54 Y167.17 E374.84055
G0 F12000 X145.33 Y166.72
G1 F1020 X146.25 Y165.80 E374.89078
G0 F12000 X146.25 Y165.14
G1 F1020 X145.33 Y166.06 E374.94100
G0 F12000 X145.33 Y165.40
G1 F1020 X146.25 Y164.48 E374.99122
G0 F12000 X146.25 Y163.82
G1 F1020 X145.33 Y164.74 E375.04144
G0 F12000 X145.33 Y164.08
G1 F1020 X146.25 Y163.17 E375.09167
G0 F12000 X146.25 Y162.51
G1 F1020 X145.33 Y163.42 E375.14189
G0 F12000 X145.33 Y162.76
G1 F1020 X146.25 Y161.85 E375.19211
G0 F12000 X145.61 Y161.83
G1 F1020 X145.33 Y162.10 E375.20732
;LAYER:14
G0 F12000 X145.16 Y161.66 Z3.10
;TYPE:WALL-INNER
G1 F1020 X159.84 Y161.66 E375.77575
G1 X159.84 Y167.34 E375.99545
G1 X145.16 Y167.34 E376.56389
G1 X145.16 Y161.66 E376.78359
G0 F12000 X146.41 Y161.84
G1 F1020 X146.41 Y167.16 E376.99012
G1 X158.59 Y167.16 E377.46214
G1 X158.59 Y161.84 E377.66867
G1 X146.41 Y161.84 E378.14070
G0 F12000 X146.88 Y162.30
G1 F1020 X146.88 Y166.70 E378.31111
G1 X158.12 Y166.70 E378.74703
G1 X158.12 Y162.30 E378.91744
G1 X146.88 Y162.30 E379.35336
G0 F12000 X144.70 Y161.20
G1 F1020 X160.30 Y161.20 E379.95791
G1 X160.30 Y167.80 E380.21372
G1 X144.70 Y167.80 E380.81827
G1 X144.70 Y161.20 E381.07408
G0 F12000 X144.23 Y160.73
;TYPE:WALL-OUTER
G1 F1020 X160.77 Y160.73 E381.71474
G1 X160.77 Y168.27 E382.00667
G1 X144.23 Y168.27 E382.64733
G1 X144.23 Y160.73 E382.93926
G0 F12000 X144.57 Y160.98
G0 X147.34 Y162.43
G0 X147.34 Y162.77
G1 F1020 X147.34 Y166.23 E383.07356
G1 X157.66 Y166.23 E383.47336
G1 X157.66 Y162.77 E383.60766
G1 X147.34 Y162.77 E384.00747
G0 F12000 X146.25 Y163.05
;TYPE:FILL
G1 F1020 X145.33 Y162.13 E384.05772
G0 F12000 X145.68 Y161.83
G1 F1020 X146.25 Y162.39 E384.08857
G0 F12000 X145.33 Y162.79
G1 F1020 X146.25 Y163.71 E384.13882
G0 F12000 X146.25 Y164.37
G1 F1020 X145.33 Y163.45 E384.18907
G0 F12000 X145.33 Y164.11
G1 F1020 X146.25 Y165.03 E384.23932
G0 F12000 X146.25 Y165.69
G1 F1020 X145.33 Y164.77 E384.28954
G0 F12000 X145.33 Y165.43
G1 F1020 X146.25 Y166.34 E384.33976
G0 F12000 X146.25 Y167.00
G1 F1020 X145.33 Y166.09 E384.38998
G0 F12000 X145.33 Y166.75
G1 F1020 X145.75 Y167.17 E384.41314
G0 F12000 X158.75 Y166.99
G1 F1020 X158.93 Y167.17 E384.42289
G0 F12000 X159.59 Y167.17
G1 F1020 X158.75 Y166.33 E384.46876
G0 F12000 X158.75 Y165.67
G1 F1020 X159.67 Y166.59 E384.51898
G0 F12000 X159.67 Y165.93
G1 F1020 X158.75 Y165.01 E384.56920
G0 F12000 X158.75 Y164.36
G1 F1020 X159.67 Y165.27 E384.61942
G0 F12000 X159.67 Y164.61
G1 F1020 X158.75 Y163.70 E384.66965
G0 F12000 X158.75 Y163.04
G1 F1020 X159.67 Y163.95 E384.71987
G0 F12000 X159.67 Y163.29
G1 F1020 X158.75 Y162.38 E384.77009
G0 F12000 X158.86 Y161.83
G1 F1020 X159.67 Y162.64 E384.81439
G0 F12000 X159.67 Y161.98
G1 F1020 X159.52 Y161.83 E384.82259
;LAYER:15
G0 F12000 X159.84 Y161.66 Z3.30
;TYPE:WALL-INNER
G1 F1020 X159.84 Y167.34 E385.04229
G1 X145.16 Y167.34 E385.61072
G1 X145.16 Y161.66 E385.83042
G1 X159.84 Y161.66 E386.39886
G0 F12000 X158.59 Y161.84
G1 F1020 X146.41 Y161.84 E386.87089
G1 X146.41 Y167.16 E387.07741
G1 X158.59 Y167.16 E387.54944
G1 X158.59 Y161.84 E387.75597
G0 F12000 X158.12 Y162.30
G1 F1020 X146.88 Y162.30 E388.19189
G1 X146.88 Y166.70 E388.36230
G1 X158.12 Y166.70 E388.79821
G1 X158.12 Y162.30 E388.96863
G0 F12000 X160.30 Y161.20
G1 F1020 X160.30 Y167.80 E389.22444
G1 X144.70 Y167.80 E389.82899
G1 X144.70 Y161.20 E390.08481
G1 X160.30 Y161.20 E390.68935
G0 F12000 X160.77 Y160.73
;TYPE:WALL-OUTER
G1 F1020 X160.77 Y168.27 E390.98128
G1 X144.23 Y168.27 E391.62194
G1 X144.23 Y160.73 E391.91387
G1 X160.77 Y160.73 E392.55453
G0 F12000 X160.43 Y160.98
G0 X157.66 Y162.43
G0 X157.66 Y162.77
G1 F1020 X147.34 Y162.77 E392.95433
G1 X147.34 Y166.23 E393.08863
G1 X157.66 Y166.23 E393.48843
G1 X157.66 Y162.77 E393.62274
G0 F12000 X158.75 Y162.52
;TYPE:FILL
G1 F1020 X159.45 Y161.83 E393.66060
G0 F12000 X159.67 Y162.26
G1 F1020 X158.75 Y163.18 E393.71080
G0 F12000 X158.75 Y163.84
G1 F1020 X159.67 Y162.92 E393.76099
G0 F12000 X159.67 Y163.58
G1 F1020 X158.75 Y164.50 E393.81119
G0 F12000 X158.75 Y165.15
G1 F1020 X159.67 Y164.24 E393.86138
G0 F12000 X159.67 Y164.90
G1 F1020 X158.75 Y165.81 E393.91155
G0 F12000 X158.75 Y166.47
G1 F1020 X159.67 Y165.56 E393.96172
G0 F12000 X159.67 Y166.22
G1 F1020 X158.75 Y167.13 E394.01188
G0 F12000 X159.38 Y167.17
G1 F1020 X159.67 Y166.88 E394.02808
G0 F12000 X146.25 Y166.46
G1 F1020 X145.54 Y167.17 E394.06690
G0 F12000 X145.33 Y166.72
G1 F1020 X146.25 Y165.80 E394.11712
G0 F12000 X146.25 Y165.14
G1 F1020 X145.33 Y166.06 E394.16735
G0 F12000 X145.33 Y165.40
G1 F1020 X146.25 Y164.48 E394.21757
G0 F12000 X146.25 Y163.82
G1 F1020 X145.33 Y164.74 E394.26779
G0 F12000 X145.33 Y164.08
G1 F1020 X146.25 Y163.17 E394.31801
G0 F12000 X146.25 Y162.51
G1 F1020 X145.33 Y163.42 E394.36824
G0 F12000 X145.33 Y162.76
G1 F1020 X146.25 Y161.85 E394.41846
G0 F12000 X145.61 Y161.83
G1 F1020 X145.33 Y162.10 E394.43366
;LAYER:16
G0 F12000 X145.16 Y161.66 Z3.50
;TYPE:WALL-INNER
G1 F1020 X159.84 Y161.66 E395.00210
G1 X159.84 Y167.34 E395.22180
G1 X145.16 Y167.34 E395.79023
G1 X145.16 Y161.66 E396.00994
G0 F12000 X146.41 Y161.84
G1 F1020 X146.41 Y167.16 E396.21646
G1 X158.59 Y167.16 E396.68849
G1 X158.59 Y161.84 E396.89502
G1 X146.41 Y161.84 E397.36705
G0 F12000 X146.88 Y162.30
G1 F1020 X146.88 Y166.70 E397.53746
G1 X158.12 Y166.70 E397.97338
G1 X158.12 Y162.30 E398.14379
G1 X146.88 Y162.30 E398.57971
G0 F12000 X144.70 Y161.20
G1 F1020 X160.30 Y161.20 E399.18425
G1 X160.30 Y167.80 E399.44007
G1 X144.70 Y167.80 E400.04462
G1 X144.70 Y161.20 E400.30043
G0 F12000 X144.23 Y160.73
;TYPE:WALL-OUTER
G1 F1020 X160.77 Y160.73 E400.94109
G1 X160.77 Y168.27 E401.23302
G1 X144.23 Y168.27 E401.87368
G1 X144.23 Y160.73 E402.16561
G0 F12000 X144.57 Y160.98
G0 X147.34 Y162.43
G0 X147.34 Y162.77
G1 F1020 X147.34 Y166.23 E402.29991
G1 X157.66 Y166.23 E402.69971
G1 X157.66 Y162.77 E402.83401
G1 X147.34 Y162.77 E403.23381
G0 F12000 X146.25 Y163.05
;TYPE:FILL
G1 F1020 X145.33 Y162.13 E403.28406
G0 F12000 X145.68 Y161.83
G1 F1020 X146.25 Y162.39 E403.31491
G0 F12000 X145.33 Y162.79
G1 F1020 X146.25 Y163.71 E403.36516
G0 F12000 X146.25 Y164.37
G1 F1020 X145.33 Y163.45 E403.41541
G0 F12000 X145.33 Y164.11
G1 F1020 X146.25 Y165.03 E403.46566
G0 F12000 X146.25 Y165.69
G1 F1020 X145.33 Y164.77 E403.51589
G0 F12000 X145.33 Y165.43
G1 F1020 X146.25 Y166.34 E403.56611
G0 F12000 X146.25 Y167.00
G1 F1020 X145.33 Y166.09 E403.61633
G0 F12000 X145.33 Y166.75
G1 F1020 X145.75 Y167.17 E403.63948
G0 F12000 X158.75 Y166.99
G1 F1020 X158.93 Y167.17 E403.64924
G0 F12000 X159.59 Y167.17
G1 F1020 X158.75 Y166.33 E403.69510
G0 F12000 X158.75 Y165.67
G1 F1020 X159.67 Y166.59 E403.74533
G0 F12000 X159.67 Y165.93
G1 F1020 X158.75 Y165.01 E403.79555
G0 F12000 X158.75 Y164.36
G1 F1020 X159.67 Y165.27 E403.84577
G0 F12000 X159.67 Y164.61
G1 F1020 X158.75 Y163.70 E403.89599
G0 F12000 X158.75 Y163.04
G1 F1020 X159.67 Y163.95 E403.94621
G0 F12000 X159.67 Y163.29
G1 F1020 X158.75 Y162.38 E403.99644
G0 F12000 X158.86 Y161.83
G1 F1020 X159.67 Y162.64 E404.04074
G0 F12000 X159.67 Y161.98
G1 F1020 X159.52 Y161.83 E404.04893
;LAYER:17
G0 F12000 X159.84 Y161.66 Z3.70
;TYPE:WALL-INNER
G1 F1020 X159.84 Y167.34 E404.26864
G1 X145.16 Y167.34 E404.83707
G1 X145.16 Y161.66 E405.05677
G1 X159.84 Y161.66 E405.62520
G0 F12000 X158.59 Y161.84
G1 F1020 X146.41 Y161.84 E406.09723
G1 X146.41 Y167.16 E406.30376
G1 X158.59 Y167.16 E406.77579
G1 X158.59 Y161.84 E406.98232
G0 F12000 X158.12 Y162.30
G1 F1020 X146.88 Y162.30 E407.41823
G1 X146.88 Y166.70 E407.58865
G1 X158.12 Y166.70 E408.02456
G1 X158.12 Y162.30 E408.19498
G0 F12000 X160.30 Y161.20
G1 F1020 X160.30 Y167.80 E408.45079
G1 X144.70 Y167.80 E409.05534
G1 X144.70 Y161.20 E409.31115
G1 X160.30 Y161.20 E409.91570
G0 F12000 X160.77 Y160.73
;TYPE:WALL-OUTER
G1 F1020 X160.77 Y168.27 E410.20763
G1 X144.23 Y168.27 E410.84829
G1 X144.23 Y160.73 E411.14022
G1 X160.77 Y160.73 E411.78088
G0 F12000 X160.43 Y160.98
G0 X157.66 Y162.43
G0 X157.66 Y162.77
G1 F1020 X147.34 Y162.77 E412.18068
G1 X147.34 Y166.23 E412.31498
G1 X157.66 Y166.23 E412.71478
G1 X157.66 Y162.77 E412.84908
G0 F12000 X158.75 Y162.52
;TYPE:FILL
G1 F1020 X159.45 Y161.83 E412.88695
G0 F12000 X159.67 Y162.26
G1 F1020 X158.75 Y163.18 E412.93714
G0 F12000 X158.75 Y163.84
G1 F1020 X159.67 Y162.92 E412.98734
G0 F12000 X159.67 Y163.58
G1 F1020 X158.75 Y164.50 E413.03753
G0 F12000 X158.75 Y165.15
G1 F1020 X159.67 Y164.24 E413.08773
G0 F12000 X159.67 Y164.90
G1 F1020 X158.75 Y165.81 E413.13790
G0 F12000 X158.75 Y166.47
G1 F1020 X159.67 Y165.56 E413.18806
G0 F12000 X159.67 Y166.22
G1 F1020 X158.75 Y167.13 E413.23823
G0 F12000 X159.38 Y167.17
G1 F1020 X159.67 Y166.88 E413.25442
G0 F12000 X146.25 Y166.46
G1 F1020 X145.54 Y167.17 E413.29325
G0 F12000 X145.33 Y166.72
G1 F1020 X146.25 Y165.80 E413.34347
G0 F12000 X146.25 Y165.14
G1 F1020 X145.33 Y166.06 E413.39369
G0 F12000 X145.33 Y165.40
G1 F1020 X146.25 Y164.48 E413.44392
G0 F12000 X146.25 Y163.82
G1 F1020 X145.33 Y164.74 E413.49414
G0 F12000 X145.33 Y164.08
G1 F1020 X146.25 Y163.17 E413.54436
G0 F12000 X146.25 Y162.51
G1 F1020 X145.33 Y163.42 E413.59458
G0 F12000 X145.33 Y162.76
G1 F1020 X146.25 Y161.85 E413.64480
G0 F12000 X145.61 Y161.83
G1 F1020 X145.33 Y162.10 E413.66001
;LAYER:18
G0 F12000 X145.16 Y161.66 Z3.90
;TYPE:WALL-INNER
G1 F1020 X159.84 Y161.66 E414.22845
G1 X159.84 Y167.34 E414.44815
G1 X145.16 Y167.34 E415.01658
G1 X145.16 Y161.66 E415.23628
G0 F12000 X146.41 Y161.84
G1 F1020 X146.41 Y167.16 E415.44281
G1 X158.59 Y167.16 E415.91484
G1 X158.59 Y161.84 E416.12137
G1 X146.41 Y161.84 E416.59339
G0 F12000 X146.88 Y162.30
G1 F1020 X146.88 Y166.70 E416.76381
G1 X158.12 Y166.70 E417.19972
G1 X158.12 Y162.30 E417.37014
G1 X146.88 Y162.30 E417.80605
G0 F12000 X144.70 Y161.20
G1 F1020 X160.30 Y161.20 E418.41060
G1 X160.30 Y167.80 E418.66642
G1 X144.70 Y167.80 E419.27096
G1 X144.70 Y161.20 E419.52678
G0 F12000 X144.23 Y160.73
;TYPE:WALL-OUTER
G1 F1020 X160.77 Y160.73 E420.16744
G1 X160.77 Y168.27 E420.45937
G1 X144.23 Y168.27 E421.10003
G1 X144.23 Y160.73 E421.39195
G0 F12000 X144.57 Y160.98
G0 X147.34 Y162.43
G0 X147.34 Y162.77
G1 F1020 X147.34 Y166.23 E421.52625
G1 X157.66 Y166.23 E421.92606
G1 X157.66 Y162.77 E422.06036
G1 X147.34 Y162.77 E422.46016
G0 F12000 X146.25 Y163.05
;TYPE:FILL
G1 F1020 X145.33 Y162.13 E422.51041
G0 F12000 X145.68 Y161.83
G1 F1020 X146.25 Y162.39 E422.54126
G0 F12000 X145.33 Y162.79
G1 F1020 X146.25 Y163.71 E422.59151
G0 F12000 X146.25 Y164.37
G1 F1020 X145.33 Y163.45 E422.64176
G0 F12000 X145.33 Y164.11
G1 F1020 X146.25 Y165.03 E422.69201
G0 F12000 X146.25 Y165.69
G1 F1020 X145.33 Y164.77 E422.74223
G0 F12000 X145.33 Y165.43
G1 F1020 X146.25 Y166.34 E422.79246
G0 F12000 X146.25 Y167.00
G1 F1020 X145.33 Y166.09 E422.84268
G0 F12000 X145.33 Y166.75
G1 F1020 X145.75 Y167.17 E422.86583
G0 F12000 X158.75 Y166.99
G1 F1020 X158.93 Y167.17 E422.87558
G0 F12000 X159.59 Y167.17
G1 F1020 X158.75 Y166.33 E422.92145
G0 F12000 X158.75 Y165.67
G1 F1020 X159.67 Y166.59 E422.97167
G0 F12000 X159.67 Y165.93
G1 F1020 X158.75 Y165.01 E423.02189
G0 F12000 X158.75 Y164.36
G1 F1020 X159.67 Y165.27 E423.07212
G0 F12000 X159.67 Y164.61
G1 F1020 X158.75 Y163.70 E423.12234
G0 F12000 X158.75 Y163.04
G1 F1020 X159.67 Y163.95 E423.17256
G0 F12000 X159.67 Y163.29
G1 F1020 X158.75 Y162.38 E423.22278
G0 F12000 X158.86 Y161.83
G1 F1020 X159.67 Y162.64 E423.26709
G0 F12000 X159.67 Y161.98
G1 F1020 X159.52 Y161.83 E423.27528
;LAYER:19
G0 F12000 X159.84 Y161.66 Z4.10
;TYPE:WALL-INNER
G1 F1020 X159.84 Y167.34 E423.49498
G1 X145.16 Y167.34 E424.06342
G1 X145.16 Y161.66 E424.28312
G1 X159.84 Y161.66 E424.85155
G0 F12000 X158.59 Y161.84
G1 F1020 X146.41 Y161.84 E425.32358
G1 X146.41 Y167.16 E425.53011
G1 X158.59 Y167.16 E426.00214
G1 X158.59 Y161.84 E426.20866
G0 F12000 X158.12 Y162.30
G1 F1020 X146.88 Y162.30 E426.64458
G1 X146.88 Y166.70 E426.81499
G1 X158.12 Y166.70 E427.25091
G1 X158.12 Y162.30 E427.42132
G0 F12000 X160.30 Y161.20
G1 F1020 X160.30 Y167.80 E427.67714
G1 X144.70 Y167.80 E428.28168
G1 X144.70 Y161.20 E428.53750
G1 X160.30 Y161.20 E429.14205
G0 F12000 X160.77 Y160.73
;TYPE:WALL-OUTER
G1 F1020 X160.77 Y168.27 E429.43397
G1 X144.23 Y168.27 E430.07464
G1 X144.23 Y160.73 E430.36656
G1 X160.77 Y160.73 E431.00722
G0 F12000 X160.43 Y160.98
G0 X157.66 Y162.43
G0 X157.66 Y162.77
G1 F1020 X147.34 Y162.77 E431.40703
G1 X147.34 Y166.23 E431.54133
G1 X157.66 Y166.23 E431.94113
G1 X157.66 Y162.77 E432.07543
G0 F12000 X158.75 Y162.52
;TYPE:FILL
G1 F1020 X159.45 Y161.83 E432.11330
G0 F12000 X159.67 Y162.26
G1 F1020 X158.75 Y163.18 E432.16349
G0 F12000 X158.75 Y163.84
G1 F1020 X159.67 Y162.92 E432.21369
G0 F12000 X159.67 Y163.58
G1 F1020 X158.75 Y164.50 E432.26388
G0 F12000 X158.75 Y165.15
G1 F1020 X159.67 Y164.24 E432.31408
G0 F12000 X159.67 Y164.90
G1 F1020 X158.75 Y165.81 E432.36424
G0 F12000 X158.75 Y166.47
G1 F1020 X159.67 Y165.56 E432.41441
G0 F12000 X159.67 Y166.22
G1 F1020 X158.75 Y167.13 E432.46458
G0 F12000 X159.38 Y167.17
G1 F1020 X159.67 Y166.88 E432.48077
G0 F12000 X146.25 Y166.46
G1 F1020 X145.54 Y167.17 E432.51960
G0 F12000 X145.33 Y166.72
G1 F1020 X146.25 Y165.80 E432.56982
G0 F12000 X146.25 Y165.14
G1 F1020 X145.33 Y166.06 E432.62004
G0 F12000 X145.33 Y165.40
G1 F1020 X146.25 Y164.48 E432.67026
G0 F12000 X146.25 Y163.82
G1 F1020 X145.33 Y164.74 E432.72048
G0 F12000 X145.33 Y164.08
G1 F1020 X146.25 Y163.17 E432.77071
G0 F12000 X146.25 Y162.51
G1 F1020 X145.33 Y163.42 E432.82093
G0 F12000 X145.33 Y162.76
G1 F1020 X146.25 Y161.85 E432.87115
G0 F12000 X145.61 Y161.83
G1 F1020 X145.33 Y162.10 E432.88636
;LAYER:20
G0 F12000 X145.16 Y161.66 Z4.30
;TYPE:WALL-INNER
G1 F1020 X159.84 Y161.66 E433.45479
G1 X159.84 Y167.34 E433.67449
G1 X145.16 Y167.34 E434.24293
G1 X145.16 Y161.66 E434.46263
G0 F12000 X146.41 Y161.84
G1 F1020 X146.41 Y167.16 E434.66916
G1 X158.59 Y167.16 E435.14119
G1 X158.59 Y161.84 E435.34771
G1 X146.41 Y161.84 E435.81974
G0 F12000 X146.88 Y162.30
G1 F1020 X146.88 Y166.70 E435.99016
G1 X158.12 Y166.70 E436.42607
G1 X158.12 Y162.30 E436.59648
G1 X146.88 Y162.30 E437.03240
G0 F12000 X144.70 Y161.20
G1 F1020 X160.30 Y161.20 E437.63695
G1 X160.30 Y167.80 E437.89276
G1 X144.70 Y167.80 E438.49731
G1 X144.70 Y161.20 E438.75312
G0 F12000 X144.23 Y160.73
;TYPE:WALL-OUTER
G1 F1020 X160.77 Y160.73 E439.39378
G1 X160.77 Y168.27 E439.68571
G1 X144.23 Y168.27 E440.32637
G1 X144.23 Y160.73 E440.61830
G0 F12000 X144.57 Y160.98
G0 X147.34 Y162.43
G0 X147.34 Y162.77
G1 F1020 X147.34 Y166.23 E440.75260
G1 X157.66 Y166.23 E441.15240
G1 X157.66 Y162.77 E441.28670
G1 X147.34 Y162.77 E441.68651
G0 F12000 X146.25 Y163.05
;TYPE:FILL
G1 F1020 X145.33 Y162.13 E441.73676
G0 F12000 X145.68 Y161.83
G1 F1020 X146.25 Y162.39 E441.76761
G0 F12000 X145.33 Y162.79
G1 F1020 X146.25 Y163.71 E441.81786
G0 F12000 X146.25 Y164.37
G1 F1020 X145.33 Y163.45 E441.86811
G0 F12000 X145.33 Y164.11
G1 F1020 X146.25 Y165.03 E441.91836
G0 F12000 X146.25 Y165.69
G1 F1020 X145.33 Y164.77 E441.96858
G0 F12000 X145.33 Y165.43
G1 F1020 X146.25 Y166.34 E442.01880
G0 F12000 X146.25 Y167.00
G1 F1020 X145.33 Y166.09 E442.06902
G0 F12000 X145.33 Y166.75
G1 F1020 X145.75 Y167.17 E442.09218
G0 F12000 X158.75 Y166.99
G1 F1020 X158.93 Y167.17 E442.10193
G0 F12000 X159.59 Y167.17
G1 F1020 X158.75 Y166.33 E442.14780
G0 F12000 X158.75 Y165.67
G1 F1020 X159.67 Y166.59 E442.19802
G0 F12000 X159.67 Y165.93
G1 F1020 X158.75 Y165.01 E442.24824
G0 F12000 X158.75 Y164.36
G1 F1020 X159.67 Y165.27 E442.29846
G0 F12000 X159.67 Y164.61
G1 F1020 X158.75 Y163.70 E442.34869
G0 F12000 X158.75 Y163.04
G1 F1020 X159.67 Y163.95 E442.39891
G0 F12000 X159.67 Y163.29
G1 F1020 X158.75 Y162.38 E442.44913
G0 F12000 X158.86 Y161.83
G1 F1020 X159.67 Y162.64 E442.49344
G0 F12000 X159.67 Y161.98
G1 F1020 X159.52 Y161.83 E442.50163
;LAYER:21
G0 F12000 X159.84 Y161.66 Z4.50
;TYPE:WALL-INNER
G1 F1020 X159.84 Y167.34 E442.72133
G1 X145.16 Y167.34 E443.28976
G1 X145.16 Y161.66 E443.50947
G1 X159.84 Y161.66 E444.07790
G0 F12000 X158.59 Y161.84
G1 F1020 X146.41 Y161.84 E444.54993
G1 X146.41 Y167.16 E444.75646
G1 X158.59 Y167.16 E445.22848
G1 X158.59 Y161.84 E445.43501
G0 F12000 X158.12 Y162.30
G1 F1020 X146.88 Y162.30 E445.87093
G1 X146.88 Y166.70 E446.04134
G1 X158.12 Y166.70 E446.47726
G1 X158.12 Y162.30 E446.64767
G0 F12000 X160.30 Y161.20
G1 F1020 X160.30 Y167.80 E446.90348
G1 X144.70 Y167.80 E447.50803
G1 X144.70 Y161.20 E447.76385
G1 X160.30 Y161.20 E448.36839
G0 F12000 X160.77 Y160.73
;TYPE:WALL-OUTER
G1 F1020 X160.77 Y168.27 E448.66032
G1 X144.23 Y168.27 E449.30098
G1 X144.23 Y160.73 E449.59291
G1 X160.77 Y160.73 E450.23357
G0 F12000 X160.43 Y160.98
G0 X157.66 Y162.43
G0 X157.66 Y162.77
G1 F1020 X147.34 Y162.77 E450.63337
G1 X147.34 Y166.23 E450.76767
G1 X157.66 Y166.23 E451.16748
G1 X157.66 Y162.77 E451.30178
G0 F12000 X158.75 Y162.52
;TYPE:FILL
G1 F1020 X159.45 Y161.83 E451.33964
G0 F12000 X159.67 Y162.26
G1 F1020 X158.75 Y163.18 E451.38984
G0 F12000 X158.75 Y163.84
G1 F1020 X159.67 Y162.92 E451.44003
G0 F12000 X159.67 Y163.58
G1 F1020 X158.75 Y164.50 E451.49023
G0 F12000 X158.75 Y165.15
G1 F1020 X159.67 Y164.24 E451.54042
G0 F12000 X159.67 Y164.90
G1 F1020 X158.75 Y165.81 E451.59059
G0 F12000 X158.75 Y166.47
G1 F1020 X159.67 Y165.56 E451.64076
G0 F12000 X159.67 Y166.22
G1 F1020 X158.75 Y167.13 E451.69093
G0 F12000 X159.38 Y167.17
G1 F1020 X159.67 Y166.88 E451.70712
G0 F12000 X146.25 Y166.46
G1 F1020 X145.54 Y167.17 E451.74594
G0 F12000 X145.33 Y166.72
G1 F1020 X146.25 Y165.80 E451.79616
G0 F12000 X146.25 Y165.14
G1 F1020 X145.33 Y166.06 E451.84639
G0 F12000 X145.33 Y165.40
G1 F1020 X146.25 Y164.48 E451.89661
G0 F12000 X146.25 Y163.82
G1 F1020 X145.33 Y164.74 E451.94683
G0 F12000 X145.33 Y164.08
G1 F1020 X146.25 Y163.17 E451.99705
G0 F12000 X146.25 Y162.51
G1 F1020 X145.33 Y163.42 E452.04728
G0 F12000 X145.33 Y162.76
G1 F1020 X146.25 Y161.85 E452.09750
G0 F12000 X145.61 Y161.83
G1 F1020 X145.33 Y162.10 E452.11271
;LAYER:22
G0 F12000 X145.16 Y161.66 Z4.70
;TYPE:WALL-INNER
G1 F1020 X159.84 Y161.66 E452.68114
G1 X159.84 Y167.34 E452.90084
G1 X145.16 Y167.34 E453.46928
G1 X145.16 Y161.66 E453.68898
G0 F12000 X146.41 Y161.84
G1 F1020 X146.41 Y167.16 E453.89550
G1 X158.59 Y167.16 E454.36753
G1 X158.59 Y161.84 E454.57406
G1 X146.41 Y161.84 E455.04609
G0 F12000 X146.88 Y162.30
G1 F1020 X146.88 Y166.70 E455.21650
G1 X158.12 Y166.70 E455.65242
G1 X158.12 Y162.30 E455.82283
G1 X146.88 Y162.30 E456.25875
G0 F12000 X144.70 Y161.20
G1 F1020 X160.30 Y161.20 E456.86329
G1 X160.30 Y167.80 E457.11911
G1 X144.70 Y167.80 E457.72366
G1 X144.70 Y161.20 E457.97947
G0 F12000 X144.23 Y160.73
;TYPE:WALL-OUTER
G1 F1020 X160.77 Y160.73 E458.62013
G1 X160.77 Y168.27 E458.91206
G1 X144.23 Y168.27 E459.55272
G1 X144.23 Y160.73 E459.84465
G0 F12000 X144.57 Y160.98
G0 X147.34 Y162.43
G0 X147.34 Y162.77
G1 F1020 X147.34 Y166.23 E459.97895
G1 X157.66 Y166.23 E460.37875
G1 X157.66 Y162.77 E460.51305
G1 X147.34 Y162.77 E460.91285
G0 F12000 X146.25 Y163.05
;TYPE:FILL
G1 F1020 X145.33 Y162.13 E460.96310
G0 F12000 X145.68 Y161.83
G1 F1020 X146.25 Y162.39 E460.99396
G0 F12000 X145.33 Y162.79
G1 F1020 X146.25 Y163.71 E461.04421
G0 F12000 X146.25 Y164.37
G1 F1020 X145.33 Y163.45 E461.09446
G0 F12000 X145.33 Y164.11
G1 F1020 X146.25 Y165.03 E461.14470
G0 F12000 X146.25 Y165.69
G1 F1020 X145.33 Y164.77 E461.19493
G0 F12000 X145.33 Y165.43
G1 F1020 X146.25 Y166.34 E461.24515
G0 F12000 X146.25 Y167.00
G1 F1020 X145.33 Y166.09 E461.29537
G0 F12000 X145.33 Y166.75
G1 F1020 X145.75 Y167.17 E461.31852
G0 F12000 X158.75 Y166.99
G1 F1020 X158.93 Y167.17 E461.32828
G0 F12000 X159.59 Y167.17
G1 F1020 X158.75 Y166.33 E461.37414
G0 F12000 X158.75 Y165.67
G1 F1020 X159.67 Y166.59 E461.42437
G0 F12000 X159.67 Y165.93
G1 F1020 X158.75 Y165.01 E461.47459
G0 F12000 X158.75 Y164.36
G1 F1020 X159.67 Y165.27 E461.52481
G0 F12000 X159.67 Y164.61
G1 F1020 X158.75 Y163.70 E461.57503
G0 F12000 X158.75 Y163.04
G1 F1020 X159.67 Y163.95 E461.62526
G0 F12000 X159.67 Y163.29
G1 F1020 X158.75 Y162.38 E461.67548
G0 F12000 X158.86 Y161.83
G1 F1020 X159.67 Y162.64 E461.71978
G0 F12000 X159.67 Y161.98
G1 F1020 X159.52 Y161.83 E461.72798
;LAYER:23
G0 F12000 X159.84 Y161.66 Z4.90
;TYPE:WALL-INNER
G1 F1020 X159.84 Y167.34 E461.94768
G1 X145.16 Y167.34 E462.51611
G1 X145.16 Y161.66 E462.73581
G1 X159.84 Y161.66 E463.30425
G0 F12000 X158.59 Y161.84
G1 F1020 X146.41 Y161.84 E463.77628
G1 X146.41 Y167.16 E463.98280
G1 X158.59 Y167.16 E464.45483
G1 X158.59 Y161.84 E464.66136
G0 F12000 X158.12 Y162.30
G1 F1020 X146.88 Y162.30 E465.09727
G1 X146.88 Y166.70 E465.26769
G1 X158.12 Y166.70 E465.70360
G1 X158.12 Y162.30 E465.87402
G0 F12000 X160.30 Y161.20
G1 F1020 X160.30 Y167.80 E466.12983
G1 X144.70 Y167.80 E466.73438
G1 X144.70 Y161.20 E466.99019
G1 X160.30 Y161.20 E467.59474
G0 F12000 X160.77 Y160.73
;TYPE:WALL-OUTER
G1 F1020 X160.77 Y168.27 E467.88667
G1 X144.23 Y168.27 E468.52733
G1 X144.23 Y160.73 E468.81926
G1 X160.77 Y160.73 E469.45992
G0 F12000 X160.43 Y160.98
G0 X157.66 Y162.43
G0 X157.66 Y162.77
G1 F1020 X147.34 Y162.77 E469.85972
G1 X147.34 Y166.23 E469.99402
G1 X157.66 Y166.23 E470.39382
G1 X157.66 Y162.77 E470.52812
G0 F12000 X158.75 Y162.52
;TYPE:FILL
G1 F1020 X159.45 Y161.83 E470.56599
G0 F12000 X159.67 Y162.26
G1 F1020 X158.75 Y163.18 E470.61618
G0 F12000 X158.75 Y163.84
G1 F1020 X159.67 Y162.92 E470.66638
G0 F12000 X159.67 Y163.58
G1 F1020 X158.75 Y164.50 E470.71657
G0 F12000 X158.75 Y165.15
G1 F1020 X159.67 Y164.24 E470.76677
G0 F12000 X159.67 Y164.90
G1 F1020 X158.75 Y165.81 E470.81694
G0 F12000 X158.75 Y166.47
G1 F1020 X159.67 Y165.56 E470.86710
G0 F12000 X159.67 Y166.22
G1 F1020 X158.75 Y167.13 E470.91727
G0 F12000 X159.38 Y167.17
G1 F1020 X159.67 Y166.88 E470.93347
G0 F12000 X146.25 Y166.46
G1 F1020 X145.54 Y167.17 E470.97229
G0 F12000 X145.33 Y166.72
G1 F1020 X146.25 Y165.80 E471.02251
G0 F12000 X146.25 Y165.14
G1 F1020 X145.33 Y166.06 E471.07273
G0 F12000 X145.33 Y165.40
G1 F1020 X146.25 Y164.48 E471.12296
G0 F12000 X146.25 Y163.82
G1 F1020 X145.33 Y164.74 E471.17318
G0 F12000 X145.33 Y164.08
G1 F1020 X146.25 Y163.17 E471.22340
G0 F12000 X146.25 Y162.51
G1 F1020 X145.33 Y163.42 E471.27362
G0 F12000 X145.33 Y162.76
G1 F1020 X146.25 Y161.85 E471.32385
G0 F12000 X145.61 Y161.83
G1 F1020 X145.33 Y162.10 E471.33905
;LAYER:24
G0 F12000 X145.16 Y161.66 Z5.10
;TYPE:WALL-INNER
G1 F1020 X159.84 Y161.66 E471.90749
G1 X159.84 Y167.34 E472.12719
G1 X145.16 Y167.34 E472.69562
G1 X145.16 Y161.66 E472.91532
G0 F12000 X146.41 Y161.84
G1 F1020 X146.41 Y167.16 E473.12185
G1 X158.59 Y167.16 E473.59388
G1 X158.59 Y161.84 E473.80041
G1 X146.41 Y161.84 E474.27244
G0 F12000 X146.88 Y162.30
G1 F1020 X146.88 Y166.70 E474.44285
G1 X158.12 Y166.70 E474.87877
G1 X158.12 Y162.30 E475.04918
G1 X146.88 Y162.30 E475.48509
G0 F12000 X144.70 Y161.20
G1 F1020 X160.30 Y161.20 E476.08964
G1 X160.30 Y167.80 E476.34546
G1 X144.70 Y167.80 E476.95000
G1 X144.70 Y161.20 E477.20582
G0 F12000 X144.23 Y160.73
;TYPE:WALL-OUTER
G1 F1020 X160.77 Y160.73 E477.84648
G1 X160.77 Y168.27 E478.13841
G1 X144.23 Y168.27 E478.77907
G1 X144.23 Y160.73 E479.07100
G0 F12000 X144.57 Y160.98
G0 X147.34 Y162.43
G0 X147.34 Y162.77
G1 F1020 X147.34 Y166.23 E479.20530
G1 X157.66 Y166.23 E479.60510
G1 X157.66 Y162.77 E479.73940
G1 X147.34 Y162.77 E480.13920
G0 F12000 X146.25 Y163.05
;TYPE:FILL
G1 F1020 X145.33 Y162.13 E480.18945
G0 F12000 X145.68 Y161.83
G1 F1020 X146.25 Y162.39 E480.22030
G0 F12000 X145.33 Y162.79
G1 F1020 X146.25 Y163.71 E480.27055
G0 F12000 X146.25 Y164.37
G1 F1020 X145.33 Y163.45 E480.32080
G0 F12000 X145.33 Y164.11
G1 F1020 X146.25 Y165.03 E480.37105
G0 F12000 X146.25 Y165.69
G1 F1020 X145.33 Y164.77 E480.42127
G0 F12000 X145.33 Y165.43
G1 F1020 X146.25 Y166.34 E480.47150
G0 F12000 X146.25 Y167.00
G1 F1020 X145.33 Y166.09 E480.52172
G0 F12000 X145.33 Y166.75
G1 F1020 X145.75 Y167.17 E480.54487
G0 F12000 X158.75 Y166.99
G1 F1020 X158.93 Y167.17 E480.55463
G0 F12000 X159.59 Y167.17
G1 F1020 X158.75 Y166.33 E480.60049
G0 F12000 X158.75 Y165.67
G1 F1020 X159.67 Y166.59 E480.65071
G0 F12000 X159.67 Y165.93
G1 F1020 X158.75 Y165.01 E480.70094
G0 F12000 X158.75 Y164.36
G1 F1020 X159.67 Y165.27 E480.75116
G0 F12000 X159.67 Y164.61
G1 F1020 X158.75 Y163.70 E480.80138
G0 F12000 X158.75 Y163.04
G1 F1020 X159.67 Y163.95 E480.85160
G0 F12000 X159.67 Y163.29
G1 F1020 X158.75 Y162.38 E480.90183
G0 F12000 X158.86 Y161.83
G1 F1020 X159.67 Y162.64 E480.94613
G0 F12000 X159.67 Y161.98
G1 F1020 X159.52 Y161.83 E480.95432
;LAYER:25
G0 F12000 X159.84 Y161.66 Z5.30
;TYPE:WALL-INNER
G1 F1020 X159.84 Y167.34 E481.17402
G1 X145.16 Y167.34 E481.74246
G1 X145.16 Y161.66 E481.96216
G1 X159.84 Y161.66 E482.53059
G0 F12000 X158.59 Y161.84
G1 F1020 X146.41 Y161.84 E483.00262
G1 X146.41 Y167.16 E483.20915
G1 X158.59 Y167.16 E483.68118
G1 X158.59 Y161.84 E483.88771
G0 F12000 X158.12 Y162.30
G1 F1020 X146.88 Y162.30 E484.32362
G1 X146.88 Y166.70 E484.49403
G1 X158.12 Y166.70 E484.92995
G1 X158.12 Y162.30 E485.10036
G0 F12000 X160.30 Y161.20
G1 F1020 X160.30 Y167.80 E485.35618
G1 X144.70 Y167.80 E485.96073
G1 X144.70 Y161.20 E486.21654
G1 X160.30 Y161.20 E486.82109
G0 F12000 X160.77 Y160.73
;TYPE:WALL-OUTER
G1 F1020 X160.77 Y168.27 E487.11302
G1 X144.23 Y168.27 E487.75368
G1 X144.23 Y160.73 E488.04560
G1 X160.77 Y160.73 E488.68626
G0 F12000 X160.43 Y160.98
G0 X157.66 Y162.43
G0 X157.66 Y162.77
G1 F1020 X147.34 Y162.77 E489.08607
G1 X147.34 Y166.23 E489.22037
G1 X157.66 Y166.23 E489.62017
G1 X157.66 Y162.77 E489.75447
G0 F12000 X158.75 Y162.52
;TYPE:FILL
G1 F1020 X159.45 Y161.83 E489.79234
G0 F12000 X159.67 Y162.26
G1 F1020 X158.75 Y163.18 E489.84253
G0 F12000 X158.75 Y163.84
G1 F1020 X159.67 Y162.92 E489.89273
G0 F12000 X159.67 Y163.58
G1 F1020 X158.75 Y164.50 E489.94292
G0 F12000 X158.75 Y165.15
G1 F1020 X159.67 Y164.24 E489.99312
G0 F12000 X159.67 Y164.90
G1 F1020 X158.75 Y165.81 E490.04328
G0 F12000 X158.75 Y166.47
G1 F1020 X159.67 Y165.56 E490.09345
G0 F12000 X159.67 Y166.22
G1 F1020 X158.75 Y167.13 E490.14362
G0 F12000 X159.38 Y167.17
G1 F1020 X159.67 Y166.88 E490.15981
G0 F12000 X146.25 Y166.46
G1 F1020 X145.54 Y167.17 E490.19864
G0 F12000 X145.33 Y166.72
G1 F1020 X146.25 Y165.80 E490.24886
G0 F12000 X146.25 Y165.14
G1 F1020 X145.33 Y166.06 E490.29908
G0 F12000 X145.33 Y165.40
G1 F1020 X146.25 Y164.48 E490.34930
G0 F12000 X146.25 Y163.82
G1 F1020 X145.33 Y164.74 E490.39953
G0 F12000 X145.33 Y164.08
G1 F1020 X146.25 Y163.17 E490.44975
G0 F12000 X146.25 Y162.51
G1 F1020 X145.33 Y163.42 E490.49997
G0 F12000 X145.33 Y162.76
G1 F1020 X146.25 Y161.85 E490.55019
G0 F12000 X145.61 Y161.83
G1 F1020 X145.33 Y162.10 E490.56540
;LAYER:26
G0 F12000 X145.16 Y161.66 Z5.50
;TYPE:WALL-INNER
G1 F1020 X159.84 Y161.66 E491.13383
G1 X159.84 Y167.34 E491.35354
G1 X145.16 Y167.34 E491.92197
G1 X145.16 Y161.66 E492.14167
G0 F12000 X146.41 Y161.84
G1 F1020 X146.41 Y167.16 E492.34820
G1 X158.59 Y167.16 E492.82023
G1 X158.59 Y161.84 E493.02675
G1 X146.41 Y161.84 E493.49878
G0 F12000 X146.88 Y162.30
G1 F1020 X146.88 Y166.70 E493.66920
G1 X158.12 Y166.70 E494.10511
G1 X158.12 Y162.30 E494.27553
G1 X146.88 Y162.30 E494.71144
G0 F12000 X144.70 Y161.20
G1 F1020 X160.30 Y161.20 E495.31599
G1 X160.30 Y167.80 E495.57180
G1 X144.70 Y167.80 E496.17635
G1 X144.70 Y161.20 E496.43217
G0 F12000 X144.23 Y160.73
;TYPE:WALL-OUTER
G1 F1020 X160.77 Y160.73 E497.07283
G1 X160.77 Y168.27 E497.36475
G1 X144.23 Y168.27 E498.00541
G1 X144.23 Y160.73 E498.29734
G0 F12000 X144.57 Y160.98
G0 X147.34 Y162.43
G0 X147.34 Y162.77
G1 F1020 X147.34 Y166.23 E498.43164
G1 X157.66 Y166.23 E498.83145
G1 X157.66 Y162.77 E498.96575
G1 X147.34 Y162.77 E499.36555
G0 F12000 X146.25 Y163.05
;TYPE:FILL
G1 F1020 X145.33 Y162.13 E499.41580
G0 F12000 X145.68 Y161.83
G1 F1020 X146.25 Y162.39 E499.44665
G0 F12000 X145.33 Y162.79
G1 F1020 X146.25 Y163.71 E499.49690
G0 F12000 X146.25 Y164.37
G1 F1020 X145.33 Y163.45 E499.54715
G0 F12000 X145.33 Y164.11
G1 F1020 X146.25 Y165.03 E499.59740
G0 F12000 X146.25 Y165.69
G1 F1020 X145.33 Y164.77 E499.64762
G0 F12000 X145.33 Y165.43
G1 F1020 X146.25 Y166.34 E499.69784
G0 F12000 X146.25 Y167.00
G1 F1020 X145.33 Y166.09 E499.74807
G0 F12000 X145.33 Y166.75
G1 F1020 X145.75 Y167.17 E499.77122
G0 F12000 X158.75 Y166.99
G1 F1020 X158.93 Y167.17 E499.78097
G0 F12000 X159.59 Y167.17
G1 F1020 X158.75 Y166.33 E499.82684
G0 F12000 X158.75 Y165.67
G1 F1020 X159.67 Y166.59 E499.87706
G0 F12000 X159.67 Y165.93
G1 F1020 X158.75 Y165.01 E499.92728
G0 F12000 X158.75 Y164.36
G1 F1020 X159.67 Y165.27 E499.97751
G0 F12000 X159.67 Y164.61
G1 F1020 X158.75 Y163.70 E500.02773
G0 F12000 X158.75 Y163.04
G1 F1020 X159.67 Y163.95 E500.07795
G0 F12000 X159.67 Y163.29
G1 F1020 X158.75 Y162.38 E500.12817
G0 F12000 X158.86 Y161.83
G1 F1020 X159.67 Y162.64 E500.17248
G0 F12000 X159.67 Y161.98
G1 F1020 X159.52 Y161.83 E500.18067
;LAYER:27
G0 F12000 X159.84 Y161.66 Z5.70
;TYPE:WALL-INNER
G1 F1020 X159.84 Y167.34 E500.40037
G1 X145.16 Y167.34 E500.96881
G1 X145.16 Y161.66 E501.18851
G1 X159.84 Y161.66 E501.75694
G0 F12000 X158.59 Y161.84
G1 F1020 X146.41 Y161.84 E502.22897
G1 X146.41 Y167.16 E502.43550
G1 X158.59 Y167.16 E502.90753
G1 X158.59 Y161.84 E503.11405
G0 F12000 X158.12 Y162.30
G1 F1020 X146.88 Y162.30 E503.54997
G1 X146.88 Y166.70 E503.72038
G1 X158.12 Y166.70 E504.15630
G1 X158.12 Y162.30 E504.32671
G0 F12000 X160.30 Y161.20
G1 F1020 X160.30 Y167.80 E504.58253
G1 X144.70 Y167.80 E505.18707
G1 X144.70 Y161.20 E505.44289
G1 X160.30 Y161.20 E506.04744
G0 F12000 X160.77 Y160.73
;TYPE:WALL-OUTER
G1 F1020 X160.77 Y168.27 E506.33936
G1 X144.23 Y168.27 E506.98002
G1 X144.23 Y160.73 E507.27195
G1 X160.77 Y160.73 E507.91261
G0 F12000 X160.43 Y160.98
G0 X157.66 Y162.43
G0 X157.66 Y162.77
G1 F1020 X147.34 Y162.77 E508.31241
G1 X147.34 Y166.23 E508.44672
G1 X157.66 Y166.23 E508.84652
G1 X157.66 Y162.77 E508.98082
G0 F12000 X158.75 Y162.52
;TYPE:FILL
G1 F1020 X159.45 Y161.83 E509.01868
G0 F12000 X159.67 Y162.26
G1 F1020 X158.75 Y163.18 E509.06888
G0 F12000 X158.75 Y163.84
G1 F1020 X159.67 Y162.92 E509.11907
G0 F12000 X159.67 Y163.58
G1 F1020 X158.75 Y164.50 E509.16927
G0 F12000 X158.75 Y165.15
G1 F1020 X159.67 Y164.24 E509.21946
G0 F12000 X159.67 Y164.90
G1 F1020 X158.75 Y165.81 E509.26963
G0 F12000 X158.75 Y166.47
G1 F1020 X159.67 Y165.56 E509.31980
G0 F12000 X159.67 Y166.22
G1 F1020 X158.75 Y167.13 E509.36997
G0 F12000 X159.38 Y167.17
G1 F1020 X159.67 Y166.88 E509.38616
G0 F12000 X146.25 Y166.46
G1 F1020 X145.54 Y167.17 E509.42498
G0 F12000 X145.33 Y166.72
G1 F1020 X146.25 Y165.80 E509.47521
G0 F12000 X146.25 Y165.14
G1 F1020 X145.33 Y166.06 E509.52543
G0 F12000 X145.33 Y165.40
G1 F1020 X146.25 Y164.48 E509.57565
G0 F12000 X146.25 Y163.82
G1 F1020 X145.33 Y164.74 E509.62587
G0 F12000 X145.33 Y164.08
G1 F1020 X146.25 Y163.17 E509.67610
G0 F12000 X146.25 Y162.51
G1 F1020 X145.33 Y163.42 E509.72632
G0 F12000 X145.33 Y162.76
G1 F1020 X146.25 Y161.85 E509.77654
G0 F12000 X145.61 Y161.83
G1 F1020 X145.33 Y162.10 E509.79175
;LAYER:28
G0 F12000 X145.16 Y161.66 Z5.90
;TYPE:WALL-INNER
G1 F1020 X159.84 Y161.66 E510.36018
G1 X159.84 Y167.34 E510.57988
G1 X145.16 Y167.34 E511.14832
G1 X145.16 Y161.66 E511.36802
G0 F12000 X146.41 Y161.84
G1 F1020 X146.41 Y167.16 E511.57455
G1 X158.59 Y167.16 E512.04657
G1 X158.59 Y161.84 E512.25310
G1 X146.41 Y161.84 E512.72513
G0 F12000 X146.88 Y162.30
G1 F1020 X146.88 Y166.70 E512.89554
G1 X158.12 Y166.70 E513.33146
G1 X158.12 Y162.30 E513.50187
G1 X146.88 Y162.30 E513.93779
G0 F12000 X144.70 Y161.20
G1 F1020 X160.30 Y161.20 E514.54234
G1 X160.30 Y167.80 E514.79815
G1 X144.70 Y167.80 E515.40270
G1 X144.70 Y161.20 E515.65851
G0 F12000 X144.23 Y160.73
;TYPE:WALL-OUTER
G1 F1020 X160.77 Y160.73 E516.29917
G1 X160.77 Y168.27 E516.59110
G1 X144.23 Y168.27 E517.23176
G1 X144.23 Y160.73 E517.52369
G0 F12000 X144.57 Y160.98
G0 X147.34 Y162.43
G0 X147.34 Y162.77
G1 F1020 X147.34 Y166.23 E517.65799
G1 X157.66 Y166.23 E518.05779
G1 X157.66 Y162.77 E518.19209
G1 X147.34 Y162.77 E518.59190
G0 F12000 X146.25 Y163.05
;TYPE:FILL
G1 F1020 X145.33 Y162.13 E518.64215
G0 F12000 X145.68 Y161.83
G1 F1020 X146.25 Y162.39 E518.67300
G0 F12000 X145.33 Y162.79
G1 F1020 X146.25 Y163.71 E518.72325
G0 F12000 X146.25 Y164.37
G1 F1020 X145.33 Y163.45 E518.77350
G0 F12000 X145.33 Y164.11
G1 F1020 X146.25 Y165.03 E518.82375
G0 F12000 X146.25 Y165.69
G1 F1020 X145.33 Y164.77 E518.87397
G0 F12000 X145.33 Y165.43
G1 F1020 X146.25 Y166.34 E518.92419
G0 F12000 X146.25 Y167.00
G1 F1020 X145.33 Y166.09 E518.97441
G0 F12000 X145.33 Y166.75
G1 F1020 X145.75 Y167.17 E518.99757
G0 F12000 X158.75 Y166.99
G1 F1020 X158.93 Y167.17 E519.00732
G0 F12000 X159.59 Y167.17
G1 F1020 X158.75 Y166.33 E519.05319
G0 F12000 X158.75 Y165.67
G1 F1020 X159.67 Y166.59 E519.10341
G0 F12000 X159.67 Y165.93
G1 F1020 X158.75 Y165.01 E519.15363
G0 F12000 X158.75 Y164.36
G1 F1020 X159.67 Y165.27 E519.20385
G0 F12000 X159.67 Y164.61
G1 F1020 X158.75 Y163.70 E519.25408
G0 F12000 X158.75 Y163.04
G1 F1020 X159.67 Y163.95 E519.30430
G0 F12000 X159.67 Y163.29
G1 F1020 X158.75 Y162.38 E519.35452
G0 F12000 X158.86 Y161.83
G1 F1020 X159.67 Y162.64 E519.39882
G0 F12000 X159.67 Y161.98
G1 F1020 X159.52 Y161.83 E519.40702
;LAYER:29
G0 F12000 X159.84 Y161.66 Z6.10
;TYPE:WALL-INNER
G1 F1020 X159.84 Y167.34 E519.62672
G1 X145.16 Y167.34 E520.19515
G1 X145.16 Y161.66 E520.41485
G1 X159.84 Y161.66 E520.98329
G0 F12000 X158.59 Y161.84
G1 F1020 X146.41 Y161.84 E521.45532
G1 X146.41 Y167.16 E521.66184
G1 X158.59 Y167.16 E522.13387
G1 X158.59 Y161.84 E522.34040
G0 F12000 X158.12 Y162.30
G1 F1020 X146.88 Y162.30 E522.77632
G1 X146.88 Y166.70 E522.94673
G1 X158.12 Y166.70 E523.38264
G1 X158.12 Y162.30 E523.55306
G0 F12000 X160.30 Y161.20
G1 F1020 X160.30 Y167.80 E523.80887
G1 X144.70 Y167.80 E524.41342
G1 X144.70 Y161.20 E524.66924
G1 X160.30 Y161.20 E525.27378
G0 F12000 X160.77 Y160.73
;TYPE:WALL-OUTER
G1 F1020 X160.77 Y168.27 E525.56571
G1 X144.23 Y168.27 E526.20637
G1 X144.23 Y160.73 E526.49830
G1 X160.77 Y160.73 E527.13896
G0 F12000 X160.43 Y160.98
G0 X157.66 Y162.43
G0 X157.66 Y162.77
G1 F1020 X147.34 Y162.77 E527.53876
G1 X147.34 Y166.23 E527.67306
G1 X157.66 Y166.23 E528.07286
G1 X157.66 Y162.77 E528.20717
G0 F12000 X158.75 Y162.52
;TYPE:FILL
G1 F1020 X159.45 Y161.83 E528.24503
G0 F12000 X159.67 Y162.26
G1 F1020 X158.75 Y163.18 E528.29523
G0 F12000 X158.75 Y163.84
G1 F1020 X159.67 Y162.92 E528.34542
G0 F12000 X159.67 Y163.58
G1 F1020 X158.75 Y164.50 E528.39562
G0 F12000 X158.75 Y165.15
G1 F1020 X159.67 Y164.24 E528.44581
G0 F12000 X159.67 Y164.90
G1 F1020 X158.75 Y165.81 E528.49598
G0 F12000 X158.75 Y166.47
G1 F1020 X159.67 Y165.56 E528.54615
G0 F12000 X159.67 Y166.22
G1 F1020 X158.75 Y167.13 E528.59631
G0 F12000 X159.38 Y167.17
G1 F1020 X159.67 Y166.88 E528.61251
G0 F12000 X146.25 Y166.46
G1 F1020 X145.54 Y167.17 E528.65133
G0 F12000 X145.33 Y166.72
G1 F1020 X146.25 Y165.80 E528.70155
G0 F12000 X146.25 Y165.14
G1 F1020 X145.33 Y166.06 E528.75178
G0 F12000 X145.33 Y165.40
G1 F1020 X146.25 Y164.48 E528.80200
G0 F12000 X146.25 Y163.82
G1 F1020 X145.33 Y164.74 E528.85222
G0 F12000 X145.33 Y164.08
G1 F1020 X146.25 Y163.17 E528.90244
G0 F12000 X146.25 Y162.51
G1 F1020 X145.33 Y163.42 E528.95267
G0 F12000 X145.33 Y162.76
G1 F1020 X146.25 Y161.85 E529.00289
G0 F12000 X145.61 Y161.83
G1 F1020 X145.33 Y162.10 E529.01809
;LAYER:30
G0 F12000 X145.16 Y161.66 Z6.30
;TYPE:WALL-INNER
G1 F1020 X159.84 Y161.66 E529.58653
G1 X159.84 Y167.34 E529.80623
G1 X145.16 Y167.34 E530.37466
G1 X145.16 Y161.66 E530.59437
G0 F12000 X146.41 Y161.84
G1 F1020 X146.41 Y167.16 E530.80089
G1 X158.59 Y167.16 E531.27292
G1 X158.59 Y161.84 E531.47945
G1 X146.41 Y161.84 E531.95148
G0 F12000 X146.88 Y162.30
G1 F1020 X146.88 Y166.70 E532.12189
G1 X158.12 Y166.70 E532.55781
G1 X158.12 Y162.30 E532.72822
G1 X146.88 Y162.30 E533.16414
G0 F12000 X144.70 Y161.20
G1 F1020 X160.30 Y161.20 E533.76868
G1 X160.30 Y167.80 E534.02450
G1 X144.70 Y167.80 E534.62905
G1 X144.70 Y161.20 E534.88486
G0 F12000 X144.23 Y160.73
;TYPE:WALL-OUTER
G1 F1020 X160.77 Y160.73 E535.52552
G1 X160.77 Y168.27 E535.81745
G1 X144.23 Y168.27 E536.45811
G1 X144.23 Y160.73 E536.75004
G0 F12000 X144.57 Y160.98
G0 X147.34 Y162.43
G0 X147.34 Y162.77
G1 F1020 X147.34 Y166.23 E536.88434
G1 X157.66 Y166.23 E537.28414
G1 X157.66 Y162.77 E537.41844
G1 X147.34 Y162.77 E537.81824
G0 F12000 X146.25 Y163.05
;TYPE:FILL
G1 F1020 X145.33 Y162.13 E537.86849
G0 F12000 X145.68 Y161.83
G1 F1020 X146.25 Y162.39 E537.89934
G0 F12000 X145.33 Y162.79
G1 F1020 X146.25 Y163.71 E537.94959
G0 F12000 X146.25 Y164.37
G1 F1020 X145.33 Y163.45 E537.99984
G0 F12000 X145.33 Y164.11
G1 F1020 X146.25 Y165.03 E538.05009
G0 F12000 X146.25 Y165.69
G1 F1020 X145.33 Y164.77 E538.10032
G0 F12000 X145.33 Y165.43
G1 F1020 X146.25 Y166.34 E538.15054
G0 F12000 X146.25 Y167.00
G1 F1020 X145.33 Y166.09 E538.20076
G0 F12000 X145.33 Y166.75
G1 F1020 X145.75 Y167.17 E538.22391
G0 F12000 X158.75 Y166.99
G1 F1020 X158.93 Y167.17 E538.23367
G0 F12000 X159.59 Y167.17
G1 F1020 X158.75 Y166.33 E538.27953
G0 F12000 X158.75 Y165.67
G1 F1020 X159.67 Y166.59 E538.32976
G0 F12000 X159.67 Y165.93
G1 F1020 X158.75 Y165.01 E538.37998
G0 F12000 X158.75 Y164.36
G1 F1020 X159.67 Y165.27 E538.43020
G0 F12000 X159.67 Y164.61
G1 F1020 X158.75 Y163.70 E538.48042
G0 F12000 X158.75 Y163.04
G1 F1020 X159.67 Y163.95 E538.53064
G0 F12000 X159.67 Y163.29
G1 F1020 X158.75 Y162.38 E538.58087
G0 F12000 X158.86 Y161.83
G1 F1020 X159.67 Y162.64 E538.62517
G0 F12000 X159.67 Y161.98
G1 F1020 X159.52 Y161.83 E538.63336
;LAYER:31
G0 F12000 X159.84 Y161.66 Z6.50
;TYPE:WALL-INNER
G1 F1020 X159.84 Y167.34 E538.85307
G1 X145.16 Y167.34 E539.42150
G1 X145.16 Y161.66 E539.64120
G1 X159.84 Y161.66 E540.20963
G0 F12000 X158.59 Y161.84
G1 F1020 X146.41 Y161.84 E540.68166
G1 X146.41 Y167.16 E540.88819
G1 X158.59 Y167.16 E541.36022
G1 X158.59 Y161.84 E541.56675
G0 F12000 X158.12 Y162.30
G1 F1020 X146.88 Y162.30 E542.00266
G1 X146.88 Y166.70 E542.17308
G1 X158.12 Y166.70 E542.60899
G1 X158.12 Y162.30 E542.77941
G0 F12000 X160.30 Y161.20
G1 F1020 X160.30 Y167.80 E543.03522
G1 X144.70 Y167.80 E543.63977
G1 X144.70 Y161.20 E543.89558
G1 X160.30 Y161.20 E544.50013
G0 F12000 X160.77 Y160.73
;TYPE:WALL-OUTER
G1 F1020 X160.77 Y168.27 E544.79206
G1 X144.23 Y168.27 E545.43272
G1 X144.23 Y160.73 E545.72465
G1 X160.77 Y160.73 E546.36531
G0 F12000 X160.43 Y160.98
G0 X157.66 Y162.43
G0 X157.66 Y162.77
G1 F1020 X147.34 Y162.77 E546.76511
G1 X147.34 Y166.23 E546.89941
G1 X157.66 Y166.23 E547.29921
G1 X157.66 Y162.77 E547.43351
G0 F12000 X158.75 Y162.52
;TYPE:FILL
G1 F1020 X159.45 Y161.83 E547.47138
G0 F12000 X159.67 Y162.26
G1 F1020 X158.75 Y163.18 E547.52157
G0 F12000 X158.75 Y163.84
G1 F1020 X159.67 Y162.92 E547.57177
G0 F12000 X159.67 Y163.58
G1 F1020 X158.75 Y164.50 E547.62196
G0 F12000 X158.75 Y165.15
G1 F1020 X159.67 Y164.24 E547.67216
G0 F12000 X159.67 Y164.90
G1 F1020 X158.75 Y165.81 E547.72233
G0 F12000 X158.75 Y166.47
G1 F1020 X159.67 Y165.56 E547.77249
G0 F12000 X159.67 Y166.22
G1 F1020 X158.75 Y167.13 E547.82266
G0 F12000 X159.38 Y167.17
G1 F1020 X159.67 Y166.88 E547.83885
G0 F12000 X146.25 Y166.46
G1 F1020 X145.54 Y167.17 E547.87768
G0 F12000 X145.33 Y166.72
G1 F1020 X146.25 Y165.80 E547.92790
G0 F12000 X146.25 Y165.14
G1 F1020 X145.33 Y166.06 E547.97812
G0 F12000 X145.33 Y165.40
G1 F1020 X146.25 Y164.48 E548.02835
G0 F12000 X146.25 Y163.82
G1 F1020 X145.33 Y164.74 E548.07857
G0 F12000 X145.33 Y164.08
G1 F1020 X146.25 Y163.17 E548.12879
G0 F12000 X146.25 Y162.51
G1 F1020 X145.33 Y163.42 E548.17901
G0 F12000 X145.33 Y162.76
G1 F1020 X146.25 Y161.85 E548.22923
G0 F12000 X145.61 Y161.83
G1 F1020 X145.33 Y162.10 E548.24444
;LAYER:32
G0 F12000 X145.16 Y161.66 Z6.70
;TYPE:WALL-INNER
G1 F1020 X159.84 Y161.66 E548.81288
G1 X159.84 Y167.34 E549.03258
G1 X145.16 Y167.34 E549.60101
G1 X145.16 Y161.66 E549.82071
G0 F12000 X146.41 Y161.84
G1 F1020 X146.41 Y167.16 E550.02724
G1 X158.59 Y167.16 E550.49927
G1 X158.59 Y161.84 E550.70580
G1 X146.41 Y161.84 E551.17782
G0 F12000 X146.88 Y162.30
G1 F1020 X146.88 Y166.70 E551.34824
G1 X158.12 Y166.70 E551.78415
G1 X158.12 Y162.30 E551.95457
G1 X146.88 Y162.30 E552.39048
G0 F12000 X144.70 Y161.20
G1 F1020 X160.30 Y161.20 E552.99503
G1 X160.30 Y167.80 E553.25085
G1 X144.70 Y167.80 E553.85539
G1 X144.70 Y161.20 E554.11121
G0 F12000 X144.23 Y160.73
;TYPE:WALL-OUTER
G1 F1020 X160.77 Y160.73 E554.75187
G1 X160.77 Y168.27 E555.04380
G1 X144.23 Y168.27 E555.68446
G1 X144.23 Y160.73 E555.97638
G0 F12000 X144.57 Y160.98
G0 X147.34 Y162.43
G0 X147.34 Y162.77
G1 F1020 X147.34 Y166.23 E556.11068
G1 X157.66 Y166.23 E556.51049
G1 X157.66 Y162.77 E556.64479
G1 X147.34 Y162.77 E557.04459
G0 F12000 X146.25 Y163.05
;TYPE:FILL
G1 F1020 X145.33 Y162.13 E557.09484
G0 F12000 X145.68 Y161.83
G1 F1020 X146.25 Y162.39 E557.12569
G0 F12000 X145.33 Y162.79
G1 F1020 X146.25 Y163.71 E557.17594
G0 F12000 X146.25 Y164.37
G1 F1020 X145.33 Y163.45 E557.22619
G0 F12000 X145.33 Y164.11
G1 F1020 X146.25 Y165.03 E557.27644
G0 F12000 X146.25 Y165.69
G1 F1020 X145.33 Y164.77 E557.32666
G0 F12000 X145.33 Y165.43
G1 F1020 X146.25 Y166.34 E557.37689
G0 F12000 X146.25 Y167.00
G1 F1020 X145.33 Y166.09 E557.42711
G0 F12000 X145.33 Y166.75
G1 F1020 X145.75 Y167.17 E557.45026
G0 F12000 X158.75 Y166.99
G1 F1020 X158.93 Y167.17 E557.46001
G0 F12000 X159.59 Y167.17
G1 F1020 X158.75 Y166.33 E557.50588
G0 F12000 X158.75 Y165.67
G1 F1020 X159.67 Y166.59 E557.55610
G0 F12000 X159.67 Y165.93
G1 F1020 X158.75 Y165.01 E557.60632
G0 F12000 X158.75 Y164.36
G1 F1020 X159.67 Y165.27 E557.65655
G0 F12000 X159.67 Y164.61
G1 F1020 X158.75 Y163.70 E557.70677
G0 F12000 X158.75 Y163.04
G1 F1020 X159.67 Y163.95 E557.75699
G0 F12000 X159.67 Y163.29
G1 F1020 X158.75 Y162.38 E557.80721
G0 F12000 X158.86 Y161.83
G1 F1020 X159.67 Y162.64 E557.85152
G0 F12000 X159.67 Y161.98
G1 F1020 X159.52 Y161.83 E557.85971
;LAYER:33
G0 F12000 X159.84 Y161.66 Z6.90
;TYPE:WALL-INNER
G1 F1020 X159.84 Y167.34 E558.07941
G1 X145.16 Y167.34 E558.64785
G1 X145.16 Y161.66 E558.86755
G1 X159.84 Y161.66 E559.43598
G0 F12000 X158.59 Y161.84
G1 F1020 X146.41 Y161.84 E559.90801
G1 X146.41 Y167.16 E560.11454
G1 X158.59 Y167.16 E560.58657
G1 X158.59 Y161.84 E560.79309
G0 F12000 X158.12 Y162.30
G1 F1020 X146.88 Y162.30 E561.22901
G1 X146.88 Y166.70 E561.39942
G1 X158.12 Y166.70 E561.83534
G1 X158.12 Y162.30 E562.00575
G0 F12000 X160.30 Y161.20
G1 F1020 X160.30 Y167.80 E562.26157
G1 X144.70 Y167.80 E562.86612
G1 X144.70 Y161.20 E563.12193
G1 X160.30 Y161.20 E563.72648
G0 F12000 X160.77 Y160.73
;TYPE:WALL-OUTER
G1 F1020 X160.77 Y168.27 E564.01840
G1 X144.23 Y168.27 E564.65907
G1 X144.23 Y160.73 E564.95099
G1 X160.77 Y160.73 E565.59165
G0 F12000 X160.43 Y160.98
G0 X157.66 Y162.43
G0 X157.66 Y162.77
G1 F1020 X147.34 Y162.77 E565.99146
G1 X147.34 Y166.23 E566.12576
G1 X157.66 Y166.23 E566.52556
G1 X157.66 Y162.77 E566.65986
G0 F12000 X158.75 Y162.52
;TYPE:FILL
G1 F1020 X159.45 Y161.83 E566.69773
G0 F12000 X159.67 Y162.26
G1 F1020 X158.75 Y163.18 E566.74792
G0 F12000 X158.75 Y163.84
G1 F1020 X159.67 Y162.92 E566.79812
G0 F12000 X159.67 Y163.58
G1 F1020 X158.75 Y164.50 E566.84831
G0 F12000 X158.75 Y165.15
G1 F1020 X159.67 Y164.24 E566.89851
G0 F12000 X159.67 Y164.90
G1 F1020 X158.75 Y165.81 E566.94867
G0 F12000 X158.75 Y166.47
G1 F1020 X159.67 Y165.56 E566.99884
G0 F12000 X159.67 Y166.22
G1 F1020 X158.75 Y167.13 E567.04901
G0 F12000 X159.38 Y167.17
G1 F1020 X159.67 Y166.88 E567.06520
G0 F12000 X146.25 Y166.46
G1 F1020 X145.54 Y167.17 E567.10403
G0 F12000 X145.33 Y166.72
G1 F1020 X146.25 Y165.80 E567.15425
G0 F12000 X146.25 Y165.14
G1 F1020 X145.33 Y166.06 E567.20447
G0 F12000 X145.33 Y165.40
G1 F1020 X146.25 Y164.48 E567.25469
G0 F12000 X146.25 Y163.82
G1 F1020 X145.33 Y164.74 E567.30491
G0 F12000 X145.33 Y164.08
G1 F1020 X146.25 Y163.17 E567.35514
G0 F12000 X146.25 Y162.51
G1 F1020 X145.33 Y163.42 E567.40536
G0 F12000 X145.33 Y162.76
G1 F1020 X146.25 Y161.85 E567.45558
G0 F12000 X145.61 Y161.83
G1 F1020 X145.33 Y162.10 E567.47079
;LAYER:34
G0 F12000 X145.16 Y161.66 Z7.10
;TYPE:WALL-INNER
G1 F1020 X159.84 Y161.66 E568.03922
G1 X159.84 Y167.34 E568.25892
G1 X145.16 Y167.34 E568.82736
G1 X145.16 Y161.66 E569.04706
G0 F12000 X146.41 Y161.84
G1 F1020 X146.41 Y167.16 E569.25359
G1 X158.59 Y167.16 E569.72562
G1 X158.59 Y161.84 E569.93214
G1 X146.41 Y161.84 E570.40417
G0 F12000 X146.88 Y162.30
G1 F1020 X146.88 Y166.70 E570.57459
G1 X158.12 Y166.70 E571.01050
G1 X158.12 Y162.30 E571.18092
G1 X146.88 Y162.30 E571.61683
G0 F12000 X144.70 Y161.20
G1 F1020 X160.30 Y161.20 E572.22138
G1 X160.30 Y167.80 E572.47719
G1 X144.70 Y167.80 E573.08174
G1 X144.70 Y161.20 E573.33755
G0 F12000 X144.23 Y160.73
;TYPE:WALL-OUTER
G1 F1020 X160.77 Y160.73 E573.97821
G1 X160.77 Y168.27 E574.27014
G1 X144.23 Y168.27 E574.91080
G1 X144.23 Y160.73 E575.20273
G0 F12000 X144.57 Y160.98
G0 X147.34 Y162.43
G0 X147.34 Y162.77
G1 F1020 X147.34 Y166.23 E575.33703
G1 X157.66 Y166.23 E575.73683
G1 X157.66 Y162.77 E575.87113
G1 X147.34 Y162.77 E576.27094
G0 F12000 X146.25 Y163.05
;TYPE:FILL
G1 F1020 X145.33 Y162.13 E576.32119
G0 F12000 X145.68 Y161.83
G1 F1020 X146.25 Y162.39 E576.35204
G0 F12000 X145.33 Y162.79
G1 F1020 X146.25 Y163.71 E576.40229
G0 F12000 X146.25 Y164.37
G1 F1020 X145.33 Y163.45 E576.45254
G0 F12000 X145.33 Y164.11
G1 F1020 X146.25 Y165.03 E576.50279
G0 F12000 X146.25 Y165.69
G1 F1020 X145.33 Y164.77 E576.55301
G0 F12000 X145.33 Y165.43
G1 F1020 X146.25 Y166.34 E576.60323
G0 F12000 X146.25 Y167.00
G1 F1020 X145.33 Y166.09 E576.65346
G0 F12000 X145.33 Y166.75
G1 F1020 X145.75 Y167.17 E576.67661
G0 F12000 X158.75 Y166.99
G1 F1020 X158.93 Y167.17 E576.68636
G0 F12000 X159.59 Y167.17
G1 F1020 X158.75 Y166.33 E576.73223
G0 F12000 X158.75 Y165.67
G1 F1020 X159.67 Y166.59 E576.78245
G0 F12000 X159.67 Y165.93
G1 F1020 X158.75 Y165.01 E576.83267
G0 F12000 X158.75 Y164.36
G1 F1020 X159.67 Y165.27 E576.88289
G0 F12000 X159.67 Y164.61
G1 F1020 X158.75 Y163.70 E576.93312
G0 F12000 X158.75 Y163.04
G1 F1020 X159.67 Y163.95 E576.98334
G0 F12000 X159.67 Y163.29
G1 F1020 X158.75 Y162.38 E577.03356
G0 F12000 X158.86 Y161.83
G1 F1020 X159.67 Y162.64 E577.07787
G0 F12000 X159.67 Y161.98
G1 F1020 X159.52 Y161.83 E577.08606
;LAYER:35
G0 F12000 X159.84 Y161.66 Z7.30
;TYPE:WALL-INNER
G1 F1020 X159.84 Y167.34 E577.30576
G1 X145.16 Y167.34 E577.87419
G1 X145.16 Y161.66 E578.09390
G1 X159.84 Y161.66 E578.66233
G0 F12000 X158.59 Y161.84
G1 F1020 X146.41 Y161.84 E579.13436
G1 X146.41 Y167.16 E579.34089
G1 X158.59 Y167.16 E579.81291
G1 X158.59 Y161.84 E580.01944
G0 F12000 X158.12 Y162.30
G1 F1020 X146.88 Y162.30 E580.45536
G1 X146.88 Y166.70 E580.62577
G1 X158.12 Y166.70 E581.06169
G1 X158.12 Y162.30 E581.23210
G0 F12000 X160.30 Y161.20
G1 F1020 X160.30 Y167.80 E581.48791
G1 X144.70 Y167.80 E582.09246
G1 X144.70 Y161.20 E582.34828
G1 X160.30 Y161.20 E582.95282
G0 F12000 X160.77 Y160.73
;TYPE:WALL-OUTER
G1 F1020 X160.77 Y168.27 E583.24475
G1 X144.23 Y168.27 E583.88541
G1 X144.23 Y160.73 E584.17734
G1 X160.77 Y160.73 E584.81800
G0 F12000 X160.43 Y160.98
G0 X157.66 Y162.43
G0 X157.66 Y162.77
G1 F1020 X147.34 Y162.77 E585.21780
G1 X147.34 Y166.23 E585.35210
G1 X157.66 Y166.23 E585.75191
G1 X157.66 Y162.77 E585.88621
G0 F12000 X158.75 Y162.52
;TYPE:FILL
G1 F1020 X159.45 Y161.83 E585.92407
G0 F12000 X159.67 Y162.26
G1 F1020 X158.75 Y163.18 E585.97427
G0 F12000 X158.75 Y163.84
G1 F1020 X159.67 Y162.92 E586.02446
G0 F12000 X159.67 Y163.58
G1 F1020 X158.75 Y164.50 E586.07466
G0 F12000 X158.75 Y165.15
G1 F1020 X159.67 Y164.24 E586.12485
G0 F12000 X159.67 Y164.90
G1 F1020 X158.75 Y165.81 E586.17502
G0 F12000 X158.75 Y166.47
G1 F1020 X159.67 Y165.56 E586.22519
G0 F12000 X159.67 Y166.22
G1 F1020 X158.75 Y167.13 E586.27536
G0 F12000 X159.38 Y167.17
G1 F1020 X159.67 Y166.88 E586.29155
G0 F12000 X146.25 Y166.46
G1 F1020 X145.54 Y167.17 E586.33037
G0 F12000 X145.33 Y166.72
G1 F1020 X146.25 Y165.80 E586.38059
G0 F12000 X146.25 Y165.14
G1 F1020 X145.33 Y166.06 E586.43082
G0 F12000 X145.33 Y165.40
G1 F1020 X146.25 Y164.48 E586.48104
G0 F12000 X146.25 Y163.82
G1 F1020 X145.33 Y164.74 E586.53126
G0 F12000 X145.33 Y164.08
G1 F1020 X146.25 Y163.17 E586.58148
G0 F12000 X146.25 Y162.51
G1 F1020 X145.33 Y163.42 E586.63171
G0 F12000 X145.33 Y162.76
G1 F1020 X146.25 Y161.85 E586.68193
G0 F12000 X145.61 Y161.83
G1 F1020 X145.33 Y162.10 E586.69714
;LAYER:36
G0 F12000 X145.16 Y161.66 Z7.50
;TYPE:WALL-INNER
G1 F1020 X159.84 Y161.66 E587.26557
G1 X159.84 Y167.34 E587.48527
G1 X145.16 Y167.34 E588.05371
G1 X145.16 Y161.66 E588.27341
G0 F12000 X146.41 Y161.84
G1 F1020 X146.41 Y167.16 E588.47993
G1 X158.59 Y167.16 E588.95196
G1 X158.59 Y161.84 E589.15849
G1 X146.41 Y161.84 E589.63052
G0 F12000 X146.88 Y162.30
G1 F1020 X146.88 Y166.70 E589.80093
G1 X158.12 Y166.70 E590.23685
G1 X158.12 Y162.30 E590.40726
G1 X146.88 Y162.30 E590.84318
G0 F12000 X144.70 Y161.20
G1 F1020 X160.30 Y161.20 E591.44773
G1 X160.30 Y167.80 E591.70354
G1 X144.70 Y167.80 E592.30809
G1 X144.70 Y161.20 E592.56390
G0 F12000 X144.23 Y160.73
;TYPE:WALL-OUTER
G1 F1020 X160.77 Y160.73 E593.20456
G1 X160.77 Y168.27 E593.49649
G1 X144.23 Y168.27 E594.13715
G1 X144.23 Y160.73 E594.42908
G0 F12000 X144.57 Y160.98
G0 X147.34 Y162.43
G0 X147.34 Y162.77
G1 F1020 X147.34 Y166.23 E594.56338
G1 X157.66 Y166.23 E594.96318
G1 X157.66 Y162.77 E595.09748
G1 X147.34 Y162.77 E595.49728
G0 F12000 X146.25 Y163.05
;TYPE:FILL
G1 F1020 X145.33 Y162.13 E595.54753
G0 F12000 X145.68 Y161.83
G1 F1020 X146.25 Y162.39 E595.57839
G0 F12000 X145.33 Y162.79
G1 F1020 X146.25 Y163.71 E595.62864
G0 F12000 X146.25 Y164.37
G1 F1020 X145.33 Y163.45 E595.67889
G0 F12000 X145.33 Y164.11
G1 F1020 X146.25 Y165.03 E595.72913
G0 F12000 X146.25 Y165.69
G1 F1020 X145.33 Y164.77 E595.77936
G0 F12000 X145.33 Y165.43
G1 F1020 X146.25 Y166.34 E595.82958
G0 F12000 X146.25 Y167.00
G1 F1020 X145.33 Y166.09 E595.87980
G0 F12000 X145.33 Y166.75
G1 F1020 X145.75 Y167.17 E595.90295
G0 F12000 X158.75 Y166.99
G1 F1020 X158.93 Y167.17 E595.91271
G0 F12000 X159.59 Y167.17
G1 F1020 X158.75 Y166.33 E595.95857
G0 F12000 X158.75 Y165.67
G1 F1020 X159.67 Y166.59 E596.00880
G0 F12000 X159.67 Y165.93
G1 F1020 X158.75 Y165.01 E596.05902
G0 F12000 X158.75 Y164.36
G1 F1020 X159.67 Y165.27 E596.10924
G0 F12000 X159.67 Y164.61
G1 F1020 X158.75 Y163.70 E596.15946
G0 F12000 X158.75 Y163.04
G1 F1020 X159.67 Y163.95 E596.20969
G0 F12000 X159.67 Y163.29
G1 F1020 X158.75 Y162.38 E596.25991
G0 F12000 X158.86 Y161.83
G1 F1020 X159.67 Y162.64 E596.30421
G0 F12000 X159.67 Y161.98
G1 F1020 X159.52 Y161.83 E596.31241
;LAYER:37
G0 F12000 X159.84 Y161.66 Z7.70
;TYPE:WALL-INNER
G1 F1020 X159.84 Y167.34 E596.53211
G1 X145.16 Y167.34 E597.10054
G1 X145.16 Y161.66 E597.32024
G1 X159.84 Y161.66 E597.88868
G0 F12000 X158.59 Y161.84
G1 F1020 X146.41 Y161.84 E598.36071
G1 X146.41 Y167.16 E598.56723
G1 X158.59 Y167.16 E599.03926
G1 X158.59 Y161.84 E599.24579
G0 F12000 X158.12 Y162.30
G1 F1020 X146.88 Y162.30 E599.68170
G1 X146.88 Y166.70 E599.85212
G1 X158.12 Y166.70 E600.28803
G1 X158.12 Y162.30 E600.45845
G0 F12000 X160.30 Y161.20
G1 F1020 X160.30 Y167.80 E600.71426
G1 X144.70 Y167.80 E601.31881
G1 X144.70 Y161.20 E601.57462
G1 X160.30 Y161.20 E602.17917
G0 F12000 X160.77 Y160.73
;TYPE:WALL-OUTER
G1 F1020 X160.77 Y168.27 E602.47110
G1 X144.23 Y168.27 E603.11176
G1 X144.23 Y160.73 E603.40369
G1 X160.77 Y160.73 E604.04435
G0 F12000 X160.43 Y160.98
G0 X157.66 Y162.43
G0 X157.66 Y162.77
G1 F1020 X147.34 Y162.77 E604.44415
G1 X147.34 Y166.23 E604.57845
G1 X157.66 Y166.23 E604.97825
G1 X157.66 Y162.77 E605.11255
G0 F12000 X158.75 Y162.52
;TYPE:FILL
G1 F1020 X159.45 Y161.83 E605.15042
G0 F12000 X159.67 Y162.26
G1 F1020 X158.75 Y163.18 E605.20061
G0 F12000 X158.75 Y163.84
G1 F1020 X159.67 Y162.92 E605.25081
G0 F12000 X159.67 Y163.58
G1 F1020 X158.75 Y164.50 E605.30100
G0 F12000 X158.75 Y165.15
G1 F1020 X159.67 Y164.24 E605.35120
G0 F12000 X159.67 Y164.90
G1 F1020 X158.75 Y165.81 E605.40137
G0 F12000 X158.75 Y166.47
G1 F1020 X159.67 Y165.56 E605.45153
G0 F12000 X159.67 Y166.22
G1 F1020 X158.75 Y167.13 E605.50170
G0 F12000 X159.38 Y167.17
G1 F1020 X159.67 Y166.88 E605.51790
G0 F12000 X146.25 Y166.46
G1 F1020 X145.54 Y167.17 E605.55672
G0 F12000 X145.33 Y166.72
G1 F1020 X146.25 Y165.80 E605.60694
G0 F12000 X146.25 Y165.14
G1 F1020 X145.33 Y166.06 E605.65716
G0 F12000 X145.33 Y165.40
G1 F1020 X146.25 Y164.48 E605.70739
G0 F12000 X146.25 Y163.82
G1 F1020 X145.33 Y164.74 E605.75761
G0 F12000 X145.33 Y164.08
G1 F1020 X146.25 Y163.17 E605.80783
G0 F12000 X146.25 Y162.51
G1 F1020 X145.33 Y163.42 E605.85805
G0 F12000 X145.33 Y162.76
G1 F1020 X146.25 Y161.85 E605.90828
G0 F12000 X145.61 Y161.83
G1 F1020 X145.33 Y162.10 E605.92348
;LAYER:38
G0 F12000 X145.16 Y161.66 Z7.90
;TYPE:WALL-INNER
G1 F1020 X159.84 Y161.66 E606.49192
G1 X159.84 Y167.34 E606.71162
G1 X145.16 Y167.34 E607.28005
G1 X145.16 Y161.66 E607.49975
G0 F12000 X146.41 Y161.84
G1 F1020 X146.41 Y167.16 E607.70628
G1 X158.59 Y167.16 E608.17831
G1 X158.59 Y161.84 E608.38484
G1 X146.41 Y161.84 E608.85687
G0 F12000 X146.88 Y162.30
G1 F1020 X146.88 Y166.70 E609.02728
G1 X158.12 Y166.70 E609.46320
G1 X158.12 Y162.30 E609.63361
G1 X146.88 Y162.30 E610.06952
G0 F12000 X144.70 Y161.20
G1 F1020 X160.30 Y161.20 E610.67407
G1 X160.30 Y167.80 E610.92989
G1 X144.70 Y167.80 E611.53443
G1 X144.70 Y161.20 E611.79025
G0 F12000 X144.23 Y160.73
;TYPE:WALL-OUTER
G1 F1020 X160.77 Y160.73 E612.43091
G1 X160.77 Y168.27 E612.72284
G1 X144.23 Y168.27 E613.36350
G1 X144.23 Y160.73 E613.65543
G0 F12000 X144.57 Y160.98
G0 X147.34 Y162.43
G0 X147.34 Y162.77
G1 F1020 X147.34 Y166.23 E613.78973
G1 X157.66 Y166.23 E614.18953
G1 X157.66 Y162.77 E614.32383
G1 X147.34 Y162.77 E614.72363
G0 F12000 X146.25 Y163.05
;TYPE:FILL
G1 F1020 X145.33 Y162.13 E614.77388
G0 F12000 X145.68 Y161.83
G1 F1020 X146.25 Y162.39 E614.80473
G0 F12000 X145.33 Y162.79
G1 F1020 X146.25 Y163.71 E614.85498
G0 F12000 X146.25 Y164.37
G1 F1020 X145.33 Y163.45 E614.90523
G0 F12000 X145.33 Y164.11
G1 F1020 X146.25 Y165.03 E614.95548
G0 F12000 X146.25 Y165.69
G1 F1020 X145.33 Y164.77 E615.00570
G0 F12000 X145.33 Y165.43
G1 F1020 X146.25 Y166.34 E615.05593
G0 F12000 X146.25 Y167.00
G1 F1020 X145.33 Y166.09 E615.10615
G0 F12000 X145.33 Y166.75
G1 F1020 X145.75 Y167.17 E615.12930
G0 F12000 X158.75 Y166.99
G1 F1020 X158.93 Y167.17 E615.13906
G0 F12000 X159.59 Y167.17
G1 F1020 X158.75 Y166.33 E615.18492
G0 F12000 X158.75 Y165.67
G1 F1020 X159.67 Y166.59 E615.23514
G0 F12000 X159.67 Y165.93
G1 F1020 X158.75 Y165.01 E615.28537
G0 F12000 X158.75 Y164.36
G1 F1020 X159.67 Y165.27 E615.33559
G0 F12000 X159.67 Y164.61
G1 F1020 X158.75 Y163.70 E615.38581
G0 F12000 X158.75 Y163.04
G1 F1020 X159.67 Y163.95 E615.43603
G0 F12000 X159.67 Y163.29
G1 F1020 X158.75 Y162.38 E615.48626
G0 F12000 X158.86 Y161.83
G1 F1020 X159.67 Y162.64 E615.53056
G0 F12000 X159.67 Y161.98
G1 F1020 X159.52 Y161.83 E615.53875
;LAYER:39
G0 F12000 X159.84 Y161.66 Z8.10
;TYPE:WALL-INNER
G1 F1020 X159.84 Y167.34 E615.75845
G1 X145.16 Y167.34 E616.32689
G1 X145.16 Y161.66 E616.54659
G1 X159.84 Y161.66 E617.11502
G0 F12000 X158.59 Y161.84
G1 F1020 X146.41 Y161.84 E617.58705
G1 X146.41 Y167.16 E617.79358
G1 X158.59 Y167.16 E618.26561
G1 X158.59 Y161.84 E618.47214
G0 F12000 X158.12 Y162.30
G1 F1020 X146.88 Y162.30 E618.90805
G1 X146.88 Y166.70 E619.07846
G1 X158.12 Y166.70 E619.51438
G1 X158.12 Y162.30 E619.68479
G0 F12000 X160.30 Y161.20
G1 F1020 X160.30 Y167.80 E619.94061
G1 X144.70 Y167.80 E620.54516
G1 X144.70 Y161.20 E620.80097
G1 X160.30 Y161.20 E621.40552
G0 F12000 X160.77 Y160.73
;TYPE:WALL-OUTER
G1 F1020 X160.77 Y168.27 E621.69745
G1 X144.23 Y168.27 E622.33811
G1 X144.23 Y160.73 E622.63003
G1 X160.77 Y160.73 E623.27069
G0 F12000 X160.43 Y160.98
G0 X157.66 Y162.43
G0 X157.66 Y162.77
G1 F1020 X147.34 Y162.77 E623.67050
G1 X147.34 Y166.23 E623.80480
G1 X157.66 Y166.23 E624.20460
G1 X157.66 Y162.77 E624.33890
G0 F12000 X158.75 Y162.52
;TYPE:FILL
G1 F1020 X159.45 Y161.83 E624.37677
G0 F12000 X159.67 Y162.26
G1 F1020 X158.75 Y163.18 E624.42696
G0 F12000 X158.75 Y163.84
G1 F1020 X159.67 Y162.92 E624.47716
G0 F12000 X159.67 Y163.58
G1 F1020 X158.75 Y164.50 E624.52735
G0 F12000 X158.75 Y165.15
G1 F1020 X159.67 Y164.24 E624.57755
G0 F12000 X159.67 Y164.90
G1 F1020 X158.75 Y165.81 E624.62771
G0 F12000 X158.75 Y166.47
G1 F1020 X159.67 Y165.56 E624.67788
G0 F12000 X159.67 Y166.22
G1 F1020 X158.75 Y167.13 E624.72805
G0 F12000 X159.38 Y167.17
G1 F1020 X159.67 Y166.88 E624.74424
G0 F12000 X146.25 Y166.46
G1 F1020 X145.54 Y167.17 E624.78307
G0 F12000 X145.33 Y166.72
G1 F1020 X146.25 Y165.80 E624.83329
G0 F12000 X146.25 Y165.14
G1 F1020 X145.33 Y166.06 E624.88351
G0 F12000 X145.33 Y165.40
G1 F1020 X146.25 Y164.48 E624.93373
G0 F12000 X146.25 Y163.82
G1 F1020 X145.33 Y164.74 E624.98396
G0 F12000 X145.33 Y164.08
G1 F1020 X146.25 Y163.17 E625.03418
G0 F12000 X146.25 Y162.51
G1 F1020 X145.33 Y163.42 E625.08440
G0 F12000 X145.33 Y162.76
G1 F1020 X146.25 Y161.85 E625.13462
G0 F12000 X145.61 Y161.83
G1 F1020 X145.33 Y162.10 E625.14983
;LAYER:40
G0 F12000 X145.16 Y161.66 Z8.30
;TYPE:WALL-INNER
G1 F1020 X159.84 Y161.66 E625.71826
G1 X159.84 Y167.34 E625.93797
G1 X145.16 Y167.34 E626.50640
G1 X145.16 Y161.66 E626.72610
G0 F12000 X146.41 Y161.84
G1 F1020 X146.41 Y167.16 E626.93263
G1 X158.59 Y167.16 E627.40466
G1 X158.59 Y161.84 E627.61118
G1 X146.41 Y161.84 E628.08321
G0 F12000 X146.88 Y162.30
G1 F1020 X146.88 Y166.70 E628.25363
G1 X158.12 Y166.70 E628.68954
G1 X158.12 Y162.30 E628.85996
G1 X146.88 Y162.30 E629.29587
G0 F12000 X144.70 Y161.20
G1 F1020 X160.30 Y161.20 E629.90042
G1 X160.30 Y167.80 E630.15623
G1 X144.70 Y167.80 E630.76078
G1 X144.70 Y161.20 E631.01660
G0 F12000 X144.23 Y160.73
;TYPE:WALL-OUTER
G1 F1020 X160.77 Y160.73 E631.65726
G1 X160.77 Y168.27 E631.94918
G1 X144.23 Y168.27 E632.58984
G1 X144.23 Y160.73 E632.88177
G0 F12000 X144.57 Y160.98
G0 X147.34 Y162.43
G0 X147.34 Y162.77
G1 F1020 X147.34 Y166.23 E633.01607
G1 X157.66 Y166.23 E633.41588
G1 X157.66 Y162.77 E633.55018
G1 X147.34 Y162.77 E633.94998
G0 F12000 X146.25 Y163.05
;TYPE:FILL
G1 F1020 X145.33 Y162.13 E634.00023
G0 F12000 X145.68 Y161.83
G1 F1020 X146.25 Y162.39 E634.03108
G0 F12000 X145.33 Y162.79
G1 F1020 X146.25 Y163.71 E634.08133
G0 F12000 X146.25 Y164.37
G1 F1020 X145.33 Y163.45 E634.13158
G0 F12000 X145.33 Y164.11
G1 F1020 X146.25 Y165.03 E634.18183
G0 F12000 X146.25 Y165.69
G1 F1020 X145.33 Y164.77 E634.23205
G0 F12000 X145.33 Y165.43
G1 F1020 X146.25 Y166.34 E634.28227
G0 F12000 X146.25 Y167.00
G1 F1020 X145.33 Y166.09 E634.33250
G0 F12000 X145.33 Y166.75
G1 F1020 X145.75 Y167.17 E634.35565
G0 F12000 X158.75 Y166.99
G1 F1020 X158.93 Y167.17 E634.36540
G0 F12000 X159.59 Y167.17
G1 F1020 X158.75 Y166.33 E634.41127
G0 F12000 X158.75 Y165.67
G1 F1020 X159.67 Y166.59 E634.46149
G0 F12000 X159.67 Y165.93
G1 F1020 X158.75 Y165.01 E634.51171
G0 F12000 X158.75 Y164.36
G1 F1020 X159.67 Y165.27 E634.56194
G0 F12000 X159.67 Y164.61
G1 F1020 X158.75 Y163.70 E634.61216
G0 F12000 X158.75 Y163.04
G1 F1020 X159.67 Y163.95 E634.66238
G0 F12000 X159.67 Y163.29
G1 F1020 X158.75 Y162.38 E634.71260
G0 F12000 X158.86 Y161.83
G1 F1020 X159.67 Y162.64 E634.75691
G0 F12000 X159.67 Y161.98
G1 F1020 X159.52 Y161.83 E634.76510
;LAYER:41
G0 F12000 X159.84 Y161.66 Z8.50
;TYPE:WALL-INNER
G1 F1020 X159.84 Y167.34 E634.98480
G1 X145.16 Y167.34 E635.55324
G1 X145.16 Y161.66 E635.77294
G1 X159.84 Y161.66 E636.34137
G0 F12000 X158.59 Y161.84
G1 F1020 X146.41 Y161.84 E636.81340
G1 X146.41 Y167.16 E637.01993
G1 X158.59 Y167.16 E637.49196
G1 X158.59 Y161.84 E637.69848
G0 F12000 X158.12 Y162.30
G1 F1020 X146.88 Y162.30 E638.13440
G1 X146.88 Y166.70 E638.30481
G1 X158.12 Y166.70 E638.74073
G1 X158.12 Y162.30 E638.91114
G0 F12000 X160.30 Y161.20
G1 F1020 X160.30 Y167.80 E639.16696
G1 X144.70 Y167.80 E639.77150
G1 X144.70 Y161.20 E640.02732
G1 X160.30 Y161.20 E640.63187
G0 F12000 X160.77 Y160.73
;TYPE:WALL-OUTER
G1 F1020 X160.77 Y168.27 E640.92379
G1 X144.23 Y168.27 E641.56445
G1 X144.23 Y160.73 E641.85638
G1 X160.77 Y160.73 E642.49704
G0 F12000 X160.43 Y160.98
G0 X157.66 Y162.43
G0 X157.66 Y162.77
G1 F1020 X147.34 Y162.77 E642.89684
G1 X147.34 Y166.23 E643.03115
G1 X157.66 Y166.23 E643.43095
G1 X157.66 Y162.77 E643.56525
G0 F12000 X158.75 Y162.52
;TYPE:FILL
G1 F1020 X159.45 Y161.83 E643.60311
G0 F12000 X159.67 Y162.26
G1 F1020 X158.75 Y163.18 E643.65331
G0 F12000 X158.75 Y163.84
G1 F1020 X159.67 Y162.92 E643.70350
G0 F12000 X159.67 Y163.58
G1 F1020 X158.75 Y164.50 E643.75370
G0 F12000 X158.75 Y165.15
G1 F1020 X159.67 Y164.24 E643.80389
G0 F12000 X159.67 Y164.90
G1 F1020 X158.75 Y165.81 E643.85406
G0 F12000 X158.75 Y166.47
G1 F1020 X159.67 Y165.56 E643.90423
G0 F12000 X159.67 Y166.22
G1 F1020 X158.75 Y167.13 E643.95440
G0 F12000 X159.38 Y167.17
G1 F1020 X159.67 Y166.88 E643.97059
G0 F12000 X146.25 Y166.46
G1 F1020 X145.54 Y167.17 E644.00941
G0 F12000 X145.33 Y166.72
G1 F1020 X146.25 Y165.80 E644.05964
G0 F12000 X146.25 Y165.14
G1 F1020 X145.33 Y166.06 E644.10986
G0 F12000 X145.33 Y165.40
G1 F1020 X146.25 Y164.48 E644.16008
G0 F12000 X146.25 Y163.82
G1 F1020 X145.33 Y164.74 E644.21030
G0 F12000 X145.33 Y164.08
G1 F1020 X146.25 Y163.17 E644.26053
G0 F12000 X146.25 Y162.51
G1 F1020 X145.33 Y163.42 E644.31075
G0 F12000 X145.33 Y162.76
G1 F1020 X146.25 Y161.85 E644.36097
G0 F12000 X145.61 Y161.83
G1 F1020 X145.33 Y162.10 E644.37618
;LAYER:42
G0 F12000 X145.16 Y161.66 Z8.70
;TYPE:WALL-INNER
G1 F1020 X159.84 Y161.66 E644.94461
G1 X159.84 Y167.34 E645.16431
G1 X145.16 Y167.34 E645.73275
G1 X145.16 Y161.66 E645.95245
G0 F12000 X146.41 Y161.84
G1 F1020 X146.41 Y167.16 E646.15898
G1 X158.59 Y167.16 E646.63100
G1 X158.59 Y161.84 E646.83753
G1 X146.41 Y161.84 E647.30956
G0 F12000 X146.88 Y162.30
G1 F1020 X146.88 Y166.70 E647.47997
G1 X158.12 Y166.70 E647.91589
G1 X158.12 Y162.30 E648.08630
G1 X146.88 Y162.30 E648.52222
G0 F12000 X144.70 Y161.20
G1 F1020 X160.30 Y161.20 E649.12677
G1 X160.30 Y167.80 E649.38258
G1 X144.70 Y167.80 E649.98713
G1 X144.70 Y161.20 E650.24294
G0 F12000 X144.23 Y160.73
;TYPE:WALL-OUTER
G1 F1020 X160.77 Y160.73 E650.88360
G1 X160.77 Y168.27 E651.17553
G1 X144.23 Y168.27 E651.81619
G1 X144.23 Y160.73 E652.10812
G0 F12000 X144.57 Y160.98
G0 X147.34 Y162.43
G0 X147.34 Y162.77
G1 F1020 X147.34 Y166.23 E652.24242
G1 X157.66 Y166.23 E652.64222
G1 X157.66 Y162.77 E652.77652
G1 X147.34 Y162.77 E653.17633
G0 F12000 X146.25 Y163.05
;TYPE:FILL
G1 F1020 X145.33 Y162.13 E653.22658
G0 F12000 X145.68 Y161.83
G1 F1020 X146.25 Y162.39 E653.25743
G0 F12000 X145.33 Y162.79
G1 F1020 X146.25 Y163.71 E653.30768
G0 F12000 X146.25 Y164.37
G1 F1020 X145.33 Y163.45 E653.35793
G0 F12000 X145.33 Y164.11
G1 F1020 X146.25 Y165.03 E653.40818
G0 F12000 X146.25 Y165.69
G1 F1020 X145.33 Y164.77 E653.45840
G0 F12000 X145.33 Y165.43
G1 F1020 X146.25 Y166.34 E653.50862
G0 F12000 X146.25 Y167.00
G1 F1020 X145.33 Y166.09 E653.55884
G0 F12000 X145.33 Y166.75
G1 F1020 X145.75 Y167.17 E653.58200
G0 F12000 X158.75 Y166.99
G1 F1020 X158.93 Y167.17 E653.59175
G0 F12000 X159.59 Y167.17
G1 F1020 X158.75 Y166.33 E653.63762
G0 F12000 X158.75 Y165.67
G1 F1020 X159.67 Y166.59 E653.68784
G0 F12000 X159.67 Y165.93
G1 F1020 X158.75 Y165.01 E653.73806
G0 F12000 X158.75 Y164.36
G1 F1020 X159.67 Y165.27 E653.78828
G0 F12000 X159.67 Y164.61
G1 F1020 X158.75 Y163.70 E653.83851
G0 F12000 X158.75 Y163.04
G1 F1020 X159.67 Y163.95 E653.88873
G0 F12000 X159.67 Y163.29
G1 F1020 X158.75 Y162.38 E653.93895
G0 F12000 X158.86 Y161.83
G1 F1020 X159.67 Y162.64 E653.98325
G0 F12000 X159.67 Y161.98
G1 F1020 X159.52 Y161.83 E653.99145
;LAYER:43
G0 F12000 X159.84 Y161.66 Z8.90
;TYPE:WALL-INNER
G1 F1020 X159.84 Y167.34 E654.21115
G1 X145.16 Y167.34 E654.77958
G1 X145.16 Y161.66 E654.99928
G1 X159.84 Y161.66 E655.56772
G0 F12000 X158.59 Y161.84
G1 F1020 X146.41 Y161.84 E656.03975
G1 X146.41 Y167.16 E656.24627
G1 X158.59 Y167.16 E656.71830
G1 X158.59 Y161.84 E656.92483
G0 F12000 X158.12 Y162.30
G1 F1020 X146.88 Y162.30 E657.36075
G1 X146.88 Y166.70 E657.53116
G1 X158.12 Y166.70 E657.96707
G1 X158.12 Y162.30 E658.13749
G0 F12000 X160.30 Y161.20
G1 F1020 X160.30 Y167.80 E658.39330
G1 X144.70 Y167.80 E658.99785
G1 X144.70 Y161.20 E659.25367
G1 X160.30 Y161.20 E659.85821
G0 F12000 X160.77 Y160.73
;TYPE:WALL-OUTER
G1 F1020 X160.77 Y168.27 E660.15014
G1 X144.23 Y168.27 E660.79080
G1 X144.23 Y160.73 E661.08273
G1 X160.77 Y160.73 E661.72339
