;-- START GCODE --
;Sliced for Type A Machines Series 1
;Sliced at: Sun 06-11-2016 20:17:24
;Basic settings: Layer height: 0.2 Walls: 1.4 Fill: 100
;Print Speed: 30 Support: 0
;Retraction Speed: 40 Retraction Distance: 1.2
;Print time: #P_TIME#
;Filament used: #F_AMNT#m #F_WGHT#g
;Filament cost: #F_COST#
M106 S255	 ;start with the fan on
G21        ;metric values
G90        ;absolute positioning
M106 S255    ;start with the fan on
G28     ;move to endstops
G29		;allows for auto-levelling
G1 X150 Y5  Z15.0 F12000 ;center and move the platform down 15mm
M109 S220 ;Heat To temp
G92 E0                  ;zero the extruded length
G1 F200 E30              ;extrude 30mm of feed stock
G92 E0                  ;zero the extruded length again
G1 X175 Y25  Z0 F12000 ;remove bugger
G1 X220 F12000 ;remove bugger
G1 X150 Y150  Z15 F12000 ;recenter and begin
G1 F12000

;Layer count: 25
;LAYER:0
M106 S255
G0 F12000 X127.92 Y132.42 Z0.30
;TYPE:SKIRT
G1 F1800 X177.08 Y132.42 E2.85693
G1 X177.08 Y172.58 E5.19077
G1 X127.92 Y172.58 E8.04770
G1 X127.92 Y132.42 E10.38153
G0 F12000 X128.39 Y132.89
G1 F1800 X176.61 Y132.89 E13.18430
G1 X176.61 Y172.11 E15.46396
G1 X128.39 Y172.11 E18.26673
G1 X128.39 Y132.89 E20.54639
G0 F12000 X128.85 Y133.35
G1 F1800 X176.15 Y133.35 E23.29498
G1 X176.15 Y171.65 E25.52048
G1 X128.85 Y171.65 E28.26907
G1 X128.85 Y133.35 E30.49457
G0 F12000 X129.32 Y133.82
G1 F1800 X175.68 Y133.82 E33.18899
G1 X175.68 Y171.18 E35.36031
G1 X129.32 Y171.18 E38.05474
G1 X129.32 Y133.82 E40.22606
G0 F12000 X129.79 Y134.29
G1 F1800 X175.21 Y134.29 E42.86632
G1 X175.21 Y170.71 E44.98347
G1 X129.79 Y170.71 E47.62373
G1 X129.79 Y134.29 E49.74088
G0 F12000 X130.25 Y134.75
G1 F1800 X174.75 Y134.75 E52.32697
G1 X174.75 Y170.25 E54.38995
G1 X130.25 Y170.25 E56.97603
G1 X130.25 Y134.75 E59.03902
G0 F12000 X130.72 Y135.22
G1 F1800 X174.28 Y135.22 E61.57093
G1 X174.28 Y169.78 E63.57975
G1 X130.72 Y169.78 E66.11166
G1 X130.72 Y135.22 E68.12048
G0 F12000 X131.19 Y135.69
G1 F1800 X173.81 Y135.69 E70.59822
G1 X173.81 Y169.31 E72.55287
G1 X131.19 Y169.31 E75.03061
G1 X131.19 Y135.69 E76.98526
G0 F12000 X131.65 Y136.15
G1 F1800 X173.35 Y136.15 E79.40884
G1 X173.35 Y168.85 E81.30931
G1 X131.65 Y168.85 E83.73289
G1 X131.65 Y136.15 E85.63336
G0 F12000 X132.12 Y136.62
G1 F1800 X172.88 Y136.62 E88.00277
G1 X172.88 Y168.38 E89.84907
G1 X132.12 Y168.38 E92.21848
G1 X132.12 Y136.62 E94.06478
G0 F12000 X132.58 Y137.08
G1 F1800 X172.42 Y137.08 E96.38002
G1 X172.42 Y167.92 E98.17216
G1 X132.58 Y167.92 E100.48739
G1 X132.58 Y137.08 E102.27953
G0 F12000 X133.05 Y137.55
G1 F1800 X171.95 Y137.55 E104.54059
G1 X171.95 Y167.45 E106.27856
G1 X133.05 Y167.45 E108.53962
G1 X133.05 Y137.55 E110.27759
G0 F12000 X133.51 Y138.01
G1 F1800 X171.49 Y138.01 E112.48449
G1 X171.49 Y166.99 E114.16828
G1 X133.51 Y166.99 E116.37518
G1 X133.51 Y138.01 E118.05898
G0 F12000 X133.98 Y138.48
G1 F1800 X171.02 Y138.48 E120.21170
G1 X171.02 Y166.52 E121.84133
G1 X133.98 Y166.52 E123.99405
G1 X133.98 Y138.48 E125.62368
G0 F12000 X134.45 Y138.95
G1 F1800 X170.55 Y138.95 E127.72224
G1 X170.55 Y166.05 E129.29770
G1 X134.45 Y166.05 E131.39625
G1 X134.45 Y138.95 E132.97171
G0 F12000 X134.91 Y139.41
G1 F1800 X170.09 Y139.41 E135.01609
G1 X170.09 Y165.59 E136.53738
G1 X134.91 Y165.59 E138.58177
G1 X134.91 Y139.41 E140.10306
G0 F12000 X135.38 Y139.88
G1 F1800 X169.62 Y139.88 E142.09327
G1 X169.62 Y165.12 E143.56039
G1 X135.38 Y165.12 E145.55061
G1 X135.38 Y139.88 E147.01772
G0 F12000 X135.84 Y140.34
G1 F1800 X169.16 Y140.34 E148.95377
G1 X169.16 Y164.66 E150.36672
G1 X135.84 Y164.66 E152.30277
G1 X135.84 Y140.34 E153.71571
G0 F12000 X136.31 Y140.81
G1 F1800 X168.69 Y140.81 E155.59759
G1 X168.69 Y164.19 E156.95637
G1 X136.31 Y164.19 E158.83825
G1 X136.31 Y140.81 E160.19702
G0 F12000 X136.78 Y141.28
G1 F1800 X168.22 Y141.28 E162.02473
G1 X168.22 Y163.72 E163.32934
G1 X136.78 Y163.72 E165.15705
G1 X136.78 Y141.28 E166.46165
G0 F12000 X137.24 Y141.74
G1 F1800 X167.76 Y141.74 E168.23519
G1 X167.76 Y163.26 E169.48563
G1 X137.24 Y163.26 E171.25917
G1 X137.24 Y141.74 E172.50961
G0 F12000 X137.71 Y142.21
G1 F1800 X167.29 Y142.21 E174.22897
G1 X167.29 Y162.79 E175.42524
G1 X137.71 Y162.79 E177.14461
G1 X137.71 Y142.21 E178.34088
G0 F12000 X138.18 Y142.68
G1 F1800 X166.82 Y142.68 E180.00608
G1 X166.82 Y162.32 E181.14818
G1 X138.18 Y162.32 E182.81337
G1 X138.18 Y142.68 E183.95547
G0 F12000 X138.64 Y143.14
G1 F1800 X166.36 Y143.14 E185.56650
G1 X166.36 Y161.86 E186.65443
G1 X138.64 Y161.86 E188.26546
G1 X138.64 Y143.14 E189.35339
G0 F12000 X139.11 Y143.61
G1 F1800 X165.89 Y143.61 E190.91024
G1 X165.89 Y161.39 E191.94400
G1 X139.11 Y161.39 E193.50086
G1 X139.11 Y143.61 E194.53462
G0 F12000 X139.57 Y144.07
G1 F1800 X165.43 Y144.07 E196.03731
G1 X165.43 Y160.93 E197.01690
G1 X139.57 Y160.93 E198.51959
G1 X139.57 Y144.07 E199.49918
G0 F12000 X140.04 Y144.54
G1 F1800 X164.96 Y144.54 E200.94770
G1 X164.96 Y160.46 E201.87312
G1 X140.04 Y160.46 E203.32164
G1 X140.04 Y144.54 E204.24705
G0 F12000 X140.50 Y145.00
G1 F1800 X164.50 Y145.00 E205.64140
G1 X164.50 Y160.00 E206.51265
G1 X140.50 Y160.00 E207.90700
G1 X140.50 Y145.00 E208.77825
G0 F12000 X140.97 Y145.47
G1 F1800 X164.03 Y145.47 E210.11843
G1 X164.03 Y159.53 E210.93551
G1 X140.97 Y159.53 E212.27569
G1 X140.97 Y145.47 E213.09277
G0 F12000 X141.44 Y145.94
G1 F1800 X163.56 Y145.94 E214.37878
G1 X163.56 Y159.06 E215.14169
G1 X141.44 Y159.06 E216.42770
G1 X141.44 Y145.94 E217.19061
G0 F12000 X141.90 Y146.40
G1 F1800 X163.10 Y146.40 E218.42245
G1 X163.10 Y158.60 E219.13119
G1 X141.90 Y158.60 E220.36303
G1 X141.90 Y146.40 E221.07177
G0 F12000 X142.37 Y146.87
G1 F1800 X162.63 Y146.87 E222.24944
G1 X162.63 Y158.13 E222.90401
G1 X142.37 Y158.13 E224.08168
G1 X142.37 Y146.87 E224.73625
G0 F12000 X142.84 Y147.34
G1 F1800 X162.16 Y147.34 E225.85975
G1 X162.16 Y157.66 E226.46015
G1 X142.84 Y157.66 E227.58365
G1 X142.84 Y147.34 E228.18405
G0 F12000 X143.30 Y147.80
G1 F1800 X161.70 Y147.80 E229.25338
G1 X161.70 Y157.20 E229.79962
G1 X143.30 Y157.20 E230.86895
G1 X143.30 Y147.80 E231.41518
G0 F12000 X143.77 Y148.27
G1 F1800 X161.23 Y148.27 E232.43034
G1 X161.23 Y156.73 E232.92240
G1 X143.77 Y156.73 E233.93756
G1 X143.77 Y148.27 E234.42962
G0 F12000 X145.23 Y149.78
G1 F1800 X145.23 Y155.22 E234.74546
G1 X159.77 Y155.22 E235.59020
G1 X159.77 Y149.78 E235.90604
G1 X145.23 Y149.78 E236.75079
G0 F12000 X145.70 Y150.25
G1 F1800 X145.70 Y154.75 E237.01245
G1 X159.30 Y154.75 E237.80303
G1 X159.30 Y150.25 E238.06469
G1 X145.70 Y150.25 E238.85527
G0 F12000 X146.16 Y150.72
G1 F1800 X146.16 Y154.28 E239.06277
G1 X158.84 Y154.28 E239.79917
G1 X158.84 Y150.72 E240.00667
G1 X146.16 Y150.72 E240.74308
G0 F12000 X146.63 Y151.18
G1 F1800 X146.63 Y153.82 E240.89640
G1 X158.37 Y153.82 E241.57864
G1 X158.37 Y151.18 E241.73196
G1 X146.63 Y151.18 E242.41420
G1 F2400 E241.21420
G0 F12000 X144.77 Y149.32
;TYPE:WALL-OUTER
G1 F2400 E242.41420
G1 F1800 X144.77 Y155.68 E242.78421
G1 X160.23 Y155.68 E243.68312
G1 X160.23 Y149.32 E244.05313
G1 X144.77 Y149.32 E244.95204
G0 F12000 X144.23 Y148.73
G1 F1800 X160.77 Y148.73 E245.91303
G1 X160.77 Y156.27 E246.35093
G1 X144.23 Y156.27 E247.31192
G1 X144.23 Y148.73 E247.74981
G0 F12000 X144.61 Y148.90
;TYPE:FILL
G1 F1800 X144.74 Y149.35 E247.77076
G1 X144.40 Y149.67 E247.78771
G1 X144.50 Y150.43 E247.80461
G1 X144.50 Y151.09 E247.82154
G1 X144.50 Y151.75 E247.83847
G1 X144.50 Y152.41 E247.85541
G1 X144.50 Y153.07 E247.87234
G1 X144.50 Y153.73 E247.88927
G1 X144.50 Y154.38 E247.90620
G1 X144.50 Y155.04 E247.92313
G1 X144.50 Y155.70 E247.94007
G1 X144.77 Y155.97 E247.95424
G1 X145.43 Y155.97 E247.97512
G1 X146.09 Y155.97 E247.99600
G1 X146.75 Y155.97 E248.01687
G1 X147.41 Y155.97 E248.03775
G1 X148.07 Y155.97 E248.05863
G1 X148.72 Y155.97 E248.07951
G1 X149.38 Y155.97 E248.10038
G1 X150.04 Y155.97 E248.12126
G1 X150.70 Y155.97 E248.14214
G1 X151.36 Y155.97 E248.16302
G1 X152.02 Y155.97 E248.18389
G1 X152.68 Y155.97 E248.20477
G1 X153.34 Y155.97 E248.22565
G1 X154.00 Y155.97 E248.24652
G1 X154.66 Y155.97 E248.26740
G1 X155.31 Y155.97 E248.28828
G1 X155.97 Y155.97 E248.30916
G1 X156.63 Y155.97 E248.33003
G1 X157.29 Y155.97 E248.35091
G1 X157.95 Y155.97 E248.37179
G1 X158.61 Y155.97 E248.39267
G1 X159.27 Y155.97 E248.41354
G1 X159.93 Y155.97 E248.43442
G1 X160.49 Y155.88 E248.45535
G1 X160.50 Y155.23 E248.47232
G1 X160.50 Y154.57 E248.48925
G1 X160.50 Y153.91 E248.50618
G1 X160.50 Y153.25 E248.52311
G1 X160.50 Y152.59 E248.54005
G1 X160.50 Y151.93 E248.55698
G1 X160.50 Y151.27 E248.57391
G1 X160.50 Y150.61 E248.59084
G1 X160.50 Y149.95 E248.60777
G1 X160.50 Y149.29 E248.62471
G1 X160.23 Y149.02 E248.63886
G1 X159.57 Y149.02 E248.65982
G1 X158.91 Y149.02 E248.68077
G1 X158.25 Y149.02 E248.70173
G1 X157.59 Y149.02 E248.72269
G1 X156.93 Y149.02 E248.74365
G1 X156.27 Y149.02 E248.76461
G1 X155.61 Y149.02 E248.78557
G1 X154.96 Y149.02 E248.80653
G1 X154.30 Y149.02 E248.82749
G1 X153.64 Y149.02 E248.84845
G1 X152.98 Y149.02 E248.86941
G1 X152.32 Y149.02 E248.89037
G1 X151.66 Y149.02 E248.91133
G1 X151.00 Y149.02 E248.93229
G1 X150.34 Y149.02 E248.95325
G1 X149.68 Y149.02 E248.97421
G1 X149.02 Y149.02 E248.99517
G1 X148.37 Y149.02 E249.01613
G1 X147.71 Y149.02 E249.03709
G1 X147.05 Y149.02 E249.05805
G1 X146.39 Y149.02 E249.07901
G1 X145.73 Y149.02 E249.09996
G1 X145.27 Y148.90 E249.12755
;LAYER:1
G0 F12000 X144.77 Y149.32 Z0.50
;TYPE:WALL-OUTER
G1 F540 X144.77 Y155.68 E249.37422
G1 X160.23 Y155.68 E249.97350
G1 X160.23 Y149.32 E250.22017
G1 X144.77 Y149.32 E250.81944
G0 F12000 X144.23 Y148.73
G1 F540 X160.77 Y148.73 E251.46010
G1 X160.77 Y156.27 E251.75203
G1 X144.23 Y156.27 E252.39269
G1 X144.23 Y148.73 E252.68462
G0 F12000 X144.40 Y149.20
;TYPE:FILL
G1 F540 X144.90 Y149.02 E252.70109
G1 X145.56 Y149.02 E252.71506
G1 X146.22 Y149.02 E252.72903
G1 X146.88 Y149.02 E252.74301
G1 X147.53 Y149.02 E252.75698
G1 X148.19 Y149.02 E252.77095
G1 X148.85 Y149.02 E252.78493
G1 X149.51 Y149.02 E252.79890
G1 X150.17 Y149.02 E252.81287
G1 X150.83 Y149.02 E252.82687
G1 X151.49 Y149.02 E252.84084
G1 X152.15 Y149.02 E252.85481
G1 X152.81 Y149.02 E252.86879
G1 X153.47 Y149.02 E252.88276
G1 X154.13 Y149.02 E252.89673
G1 X154.78 Y149.02 E252.91070
G1 X155.44 Y149.02 E252.92468
G1 X156.10 Y149.02 E252.93865
G1 X156.76 Y149.02 E252.95262
G1 X157.42 Y149.02 E252.96660
G1 X158.08 Y149.02 E252.98057
G1 X158.74 Y149.02 E252.99454
G1 X159.40 Y149.02 E253.00852
G1 X160.06 Y149.02 E253.02249
G1 X160.56 Y149.18 E253.03651
G1 X160.50 Y149.90 E253.04771
G1 X160.50 Y150.56 E253.05895
G1 X160.50 Y151.22 E253.07014
G1 X160.50 Y151.88 E253.08132
G1 X160.50 Y152.54 E253.09250
G1 X160.50 Y153.20 E253.10368
G1 X160.50 Y153.85 E253.11486
G1 X160.50 Y154.51 E253.12603
G1 X160.50 Y155.17 E253.13721
G1 X160.28 Y155.72 E253.14840
G1 X159.70 Y155.97 E253.16242
G1 X159.04 Y155.97 E253.17645
G1 X158.38 Y155.97 E253.19048
G1 X157.72 Y155.97 E253.20451
G1 X157.06 Y155.97 E253.21854
G1 X156.40 Y155.97 E253.23256
G1 X155.74 Y155.97 E253.24659
G1 X155.08 Y155.97 E253.26062
G1 X154.43 Y155.97 E253.27465
G1 X153.77 Y155.97 E253.28867
G1 X153.11 Y155.97 E253.30270
G1 X152.45 Y155.97 E253.31673
G1 X151.79 Y155.97 E253.33076
G1 X151.13 Y155.97 E253.34479
G1 X150.47 Y155.97 E253.35881
G1 X149.81 Y155.97 E253.37284
G1 X149.15 Y155.97 E253.38687
G1 X148.49 Y155.97 E253.40090
G1 X147.83 Y155.97 E253.41495
G1 X147.18 Y155.97 E253.42892
G1 X146.52 Y155.97 E253.44289
G1 X145.86 Y155.97 E253.45687
G1 X145.20 Y155.97 E253.47084
G1 X144.57 Y155.94 E253.48487
G1 X144.50 Y155.35 E253.49604
G1 X144.50 Y154.70 E253.50721
G1 X144.50 Y154.04 E253.51839
G1 X144.50 Y153.38 E253.52957
G1 X144.50 Y152.72 E253.54075
G1 X144.50 Y152.06 E253.55193
G1 X144.50 Y151.40 E253.56311
G1 X144.50 Y150.74 E253.57428
G1 X144.50 Y150.08 E253.58546
G1 X144.60 Y149.65 E253.60267
;LAYER:2
G0 F12000 X144.77 Y149.32 Z0.70
;TYPE:WALL-OUTER
G1 F540 X144.77 Y155.68 E253.84934
G1 X160.23 Y155.68 E254.44862
G1 X160.23 Y149.32 E254.69529
G1 X144.77 Y149.32 E255.29457
G0 F12000 X144.23 Y148.73
G1 F540 X160.77 Y148.73 E255.93523
G1 X160.77 Y156.27 E256.22715
G1 X144.23 Y156.27 E256.86781
G1 X144.23 Y148.73 E257.15974
G0 F12000 X144.61 Y148.90
;TYPE:FILL
G1 F540 X144.74 Y149.35 E257.17371
G1 X144.40 Y149.67 E257.18501
G1 X144.50 Y150.43 E257.19628
G1 X144.50 Y151.09 E257.20757
G1 X144.50 Y151.75 E257.21885
G1 X144.50 Y152.41 E257.23014
G1 X144.50 Y153.07 E257.24143
G1 X144.50 Y153.73 E257.25272
G1 X144.50 Y154.38 E257.26401
G1 X144.50 Y155.04 E257.27529
G1 X144.50 Y155.70 E257.28658
G1 X144.77 Y155.97 E257.29603
G1 X145.43 Y155.97 E257.30995
G1 X146.09 Y155.97 E257.32387
G1 X146.75 Y155.97 E257.33779
G1 X147.41 Y155.97 E257.35170
G1 X148.07 Y155.97 E257.36562
G1 X148.72 Y155.97 E257.37954
G1 X149.38 Y155.97 E257.39346
G1 X150.04 Y155.97 E257.40738
G1 X150.70 Y155.97 E257.42130
G1 X151.36 Y155.97 E257.43521
G1 X152.02 Y155.97 E257.44913
G1 X152.68 Y155.97 E257.46305
G1 X153.34 Y155.97 E257.47697
G1 X154.00 Y155.97 E257.49089
G1 X154.66 Y155.97 E257.50480
G1 X155.31 Y155.97 E257.51872
G1 X155.97 Y155.97 E257.53264
G1 X156.63 Y155.97 E257.54656
G1 X157.29 Y155.97 E257.56048
G1 X157.95 Y155.97 E257.57440
G1 X158.61 Y155.97 E257.58831
G1 X159.27 Y155.97 E257.60223
G1 X159.93 Y155.97 E257.61615
G1 X160.49 Y155.88 E257.63010
G1 X160.50 Y155.23 E257.64142
G1 X160.50 Y154.57 E257.65270
G1 X160.50 Y153.91 E257.66399
G1 X160.50 Y153.25 E257.67528
G1 X160.50 Y152.59 E257.68657
G1 X160.50 Y151.93 E257.69786
G1 X160.50 Y151.27 E257.70914
G1 X160.50 Y150.61 E257.72043
G1 X160.50 Y149.95 E257.73172
G1 X160.50 Y149.29 E257.74301
G1 X160.23 Y149.02 E257.75244
G1 X159.57 Y149.02 E257.76641
G1 X158.91 Y149.02 E257.78039
G1 X158.25 Y149.02 E257.79436
G1 X157.59 Y149.02 E257.80833
G1 X156.93 Y149.02 E257.82231
G1 X156.27 Y149.02 E257.83628
G1 X155.61 Y149.02 E257.85025
G1 X154.96 Y149.02 E257.86422
G1 X154.30 Y149.02 E257.87820
G1 X153.64 Y149.02 E257.89217
G1 X152.98 Y149.02 E257.90614
G1 X152.32 Y149.02 E257.92012
G1 X151.66 Y149.02 E257.93409
G1 X151.00 Y149.02 E257.94806
G1 X150.34 Y149.02 E257.96204
G1 X149.68 Y149.02 E257.97601
G1 X149.02 Y149.02 E257.98998
G1 X148.37 Y149.02 E258.00395
G1 X147.71 Y149.02 E258.01793
G1 X147.05 Y149.02 E258.03190
G1 X146.39 Y149.02 E258.04587
G1 X145.73 Y149.02 E258.05985
G1 X145.27 Y148.90 E258.07824
;LAYER:3
G0 F12000 X144.77 Y149.32 Z0.90
;TYPE:WALL-OUTER
G1 F540 X144.77 Y155.68 E258.32491
G1 X160.23 Y155.68 E258.92418
G1 X160.23 Y149.32 E259.17085
G1 X144.77 Y149.32 E259.77013
G0 F12000 X144.23 Y148.73
G1 F540 X160.77 Y148.73 E260.41079
G1 X160.77 Y156.27 E260.70272
G1 X144.23 Y156.27 E261.34338
G1 X144.23 Y148.73 E261.63531
G0 F12000 X144.40 Y149.20
;TYPE:FILL
G1 F540 X144.90 Y149.02 E261.65178
G1 X145.56 Y149.02 E261.66575
G1 X146.22 Y149.02 E261.67972
G1 X146.88 Y149.02 E261.69369
G1 X147.53 Y149.02 E261.70767
G1 X148.19 Y149.02 E261.72164
G1 X148.85 Y149.02 E261.73561
G1 X149.51 Y149.02 E261.74959
G1 X150.17 Y149.02 E261.76356
G1 X150.83 Y149.02 E261.77755
G1 X151.49 Y149.02 E261.79153
G1 X152.15 Y149.02 E261.80550
G1 X152.81 Y149.02 E261.81947
G1 X153.47 Y149.02 E261.83345
G1 X154.13 Y149.02 E261.84742
G1 X154.78 Y149.02 E261.86139
G1 X155.44 Y149.02 E261.87536
G1 X156.10 Y149.02 E261.88934
G1 X156.76 Y149.02 E261.90331
G1 X157.42 Y149.02 E261.91728
G1 X158.08 Y149.02 E261.93126
G1 X158.74 Y149.02 E261.94523
G1 X159.40 Y149.02 E261.95920
G1 X160.06 Y149.02 E261.97318
G1 X160.56 Y149.18 E261.98720
G1 X160.50 Y149.90 E261.99840
G1 X160.50 Y150.56 E262.00963
G1 X160.50 Y151.22 E262.02083
G1 X160.50 Y151.88 E262.03201
G1 X160.50 Y152.54 E262.04319
G1 X160.50 Y153.20 E262.05436
G1 X160.50 Y153.85 E262.06554
G1 X160.50 Y154.51 E262.07672
G1 X160.50 Y155.17 E262.08790
G1 X160.28 Y155.72 E262.09909
G1 X159.70 Y155.97 E262.11311
G1 X159.04 Y155.97 E262.12714
G1 X158.38 Y155.97 E262.14117
G1 X157.72 Y155.97 E262.15520
G1 X157.06 Y155.97 E262.16922
G1 X156.40 Y155.97 E262.18325
G1 X155.74 Y155.97 E262.19728
G1 X155.08 Y155.97 E262.21131
G1 X154.43 Y155.97 E262.22533
G1 X153.77 Y155.97 E262.23936
G1 X153.11 Y155.97 E262.25339
G1 X152.45 Y155.97 E262.26742
G1 X151.79 Y155.97 E262.28145
G1 X151.13 Y155.97 E262.29547
G1 X150.47 Y155.97 E262.30950
G1 X149.81 Y155.97 E262.32353
G1 X149.15 Y155.97 E262.33756
G1 X148.49 Y155.97 E262.35158
G1 X147.83 Y155.97 E262.36563
G1 X147.18 Y155.97 E262.37961
G1 X146.52 Y155.97 E262.39358
G1 X145.86 Y155.97 E262.40755
G1 X145.20 Y155.97 E262.42153
G1 X144.57 Y155.94 E262.43556
G1 X144.50 Y155.35 E262.44672
G1 X144.50 Y154.70 E262.45790
G1 X144.50 Y154.04 E262.46908
G1 X144.50 Y153.38 E262.48026
G1 X144.50 Y152.72 E262.49144
G1 X144.50 Y152.06 E262.50261
G1 X144.50 Y151.40 E262.51379
G1 X144.50 Y150.74 E262.52497
G1 X144.50 Y150.08 E262.53615
G1 X144.60 Y149.65 E262.55336
;LAYER:4
G0 F12000 X144.77 Y149.32 Z1.10
;TYPE:WALL-OUTER
G1 F540 X144.77 Y155.68 E262.80003
G1 X160.23 Y155.68 E263.39931
G1 X160.23 Y149.32 E263.64598
G1 X144.77 Y149.32 E264.24525
G0 F12000 X144.23 Y148.73
G1 F540 X160.77 Y148.73 E264.88591
G1 X160.77 Y156.27 E265.17784
G1 X144.23 Y156.27 E265.81850
G1 X144.23 Y148.73 E266.11043
G0 F12000 X144.61 Y148.90
;TYPE:FILL
G1 F540 X144.74 Y149.35 E266.12439
G1 X144.40 Y149.67 E266.13570
G1 X144.50 Y150.43 E266.14696
G1 X144.50 Y151.09 E266.15825
G1 X144.50 Y151.75 E266.16954
G1 X144.50 Y152.41 E266.18083
G1 X144.50 Y153.07 E266.19212
G1 X144.50 Y153.73 E266.20340
G1 X144.50 Y154.38 E266.21469
G1 X144.50 Y155.04 E266.22598
G1 X144.50 Y155.70 E266.23727
G1 X144.77 Y155.97 E266.24672
G1 X145.43 Y155.97 E266.26064
G1 X146.09 Y155.97 E266.27455
G1 X146.75 Y155.97 E266.28847
G1 X147.41 Y155.97 E266.30239
G1 X148.07 Y155.97 E266.31631
G1 X148.72 Y155.97 E266.33023
G1 X149.38 Y155.97 E266.34415
G1 X150.04 Y155.97 E266.35806
G1 X150.70 Y155.97 E266.37198
G1 X151.36 Y155.97 E266.38590
G1 X152.02 Y155.97 E266.39982
G1 X152.68 Y155.97 E266.41374
G1 X153.34 Y155.97 E266.42765
G1 X154.00 Y155.97 E266.44157
G1 X154.66 Y155.97 E266.45549
G1 X155.31 Y155.97 E266.46941
G1 X155.97 Y155.97 E266.48333
G1 X156.63 Y155.97 E266.49725
G1 X157.29 Y155.97 E266.51116
G1 X157.95 Y155.97 E266.52508
G1 X158.61 Y155.97 E266.53900
G1 X159.27 Y155.97 E266.55292
G1 X159.93 Y155.97 E266.56684
G1 X160.49 Y155.88 E266.58079
G1 X160.50 Y155.23 E266.59210
G1 X160.50 Y154.57 E266.60339
G1 X160.50 Y153.91 E266.61468
G1 X160.50 Y153.25 E266.62597
G1 X160.50 Y152.59 E266.63725
G1 X160.50 Y151.93 E266.64854
G1 X160.50 Y151.27 E266.65983
G1 X160.50 Y150.61 E266.67112
G1 X160.50 Y149.95 E266.68241
G1 X160.50 Y149.29 E266.69369
G1 X160.23 Y149.02 E266.70313
G1 X159.57 Y149.02 E266.71710
G1 X158.91 Y149.02 E266.73107
G1 X158.25 Y149.02 E266.74505
G1 X157.59 Y149.02 E266.75902
G1 X156.93 Y149.02 E266.77299
G1 X156.27 Y149.02 E266.78697
G1 X155.61 Y149.02 E266.80094
G1 X154.96 Y149.02 E266.81491
G1 X154.30 Y149.02 E266.82888
G1 X153.64 Y149.02 E266.84286
G1 X152.98 Y149.02 E266.85683
G1 X152.32 Y149.02 E266.87080
G1 X151.66 Y149.02 E266.88478
G1 X151.00 Y149.02 E266.89875
G1 X150.34 Y149.02 E266.91272
G1 X149.68 Y149.02 E266.92670
G1 X149.02 Y149.02 E266.94067
G1 X148.37 Y149.02 E266.95464
G1 X147.71 Y149.02 E266.96861
G1 X147.05 Y149.02 E266.98259
G1 X146.39 Y149.02 E266.99656
G1 X145.73 Y149.02 E267.01053
G1 X145.27 Y148.90 E267.02892
;LAYER:5
G0 F12000 X144.77 Y149.32 Z1.30
;TYPE:WALL-OUTER
G1 F540 X144.77 Y155.68 E267.27559
G1 X160.23 Y155.68 E267.87487
G1 X160.23 Y149.32 E268.12154
G1 X144.77 Y149.32 E268.72082
G0 F12000 X144.23 Y148.73
G1 F540 X160.77 Y148.73 E269.36148
G1 X160.77 Y156.27 E269.65341
G1 X144.23 Y156.27 E270.29407
G1 X144.23 Y148.73 E270.58599
G0 F12000 X144.40 Y149.20
;TYPE:FILL
G1 F540 X144.90 Y149.02 E270.60246
G1 X145.56 Y149.02 E270.61644
G1 X146.22 Y149.02 E270.63041
G1 X146.88 Y149.02 E270.64438
G1 X147.53 Y149.02 E270.65835
G1 X148.19 Y149.02 E270.67233
G1 X148.85 Y149.02 E270.68630
G1 X149.51 Y149.02 E270.70027
G1 X150.17 Y149.02 E270.71425
G1 X150.83 Y149.02 E270.72824
G1 X151.49 Y149.02 E270.74221
G1 X152.15 Y149.02 E270.75619
G1 X152.81 Y149.02 E270.77016
G1 X153.47 Y149.02 E270.78413
G1 X154.13 Y149.02 E270.79811
G1 X154.78 Y149.02 E270.81208
G1 X155.44 Y149.02 E270.82605
G1 X156.10 Y149.02 E270.84002
G1 X156.76 Y149.02 E270.85400
G1 X157.42 Y149.02 E270.86797
G1 X158.08 Y149.02 E270.88194
G1 X158.74 Y149.02 E270.89592
G1 X159.40 Y149.02 E270.90989
G1 X160.06 Y149.02 E270.92386
G1 X160.56 Y149.18 E270.93788
G1 X160.50 Y149.90 E270.94909
G1 X160.50 Y150.56 E270.96032
G1 X160.50 Y151.22 E270.97152
G1 X160.50 Y151.88 E270.98269
G1 X160.50 Y152.54 E270.99387
G1 X160.50 Y153.20 E271.00505
G1 X160.50 Y153.85 E271.01623
G1 X160.50 Y154.51 E271.02741
G1 X160.50 Y155.17 E271.03859
G1 X160.28 Y155.72 E271.04977
G1 X159.70 Y155.97 E271.06380
G1 X159.04 Y155.97 E271.07783
G1 X158.38 Y155.97 E271.09185
G1 X157.72 Y155.97 E271.10588
G1 X157.06 Y155.97 E271.11991
G1 X156.40 Y155.97 E271.13394
G1 X155.74 Y155.97 E271.14797
G1 X155.08 Y155.97 E271.16199
G1 X154.43 Y155.97 E271.17602
G1 X153.77 Y155.97 E271.19005
G1 X153.11 Y155.97 E271.20408
G1 X152.45 Y155.97 E271.21810
G1 X151.79 Y155.97 E271.23213
G1 X151.13 Y155.97 E271.24616
G1 X150.47 Y155.97 E271.26019
G1 X149.81 Y155.97 E271.27422
G1 X149.15 Y155.97 E271.28824
G1 X148.49 Y155.97 E271.30227
G1 X147.83 Y155.97 E271.31632
G1 X147.18 Y155.97 E271.33029
G1 X146.52 Y155.97 E271.34427
G1 X145.86 Y155.97 E271.35824
G1 X145.20 Y155.97 E271.37221
G1 X144.57 Y155.94 E271.38624
G1 X144.50 Y155.35 E271.39741
G1 X144.50 Y154.70 E271.40859
G1 X144.50 Y154.04 E271.41977
G1 X144.50 Y153.38 E271.43094
G1 X144.50 Y152.72 E271.44212
G1 X144.50 Y152.06 E271.45330
G1 X144.50 Y151.40 E271.46448
G1 X144.50 Y150.74 E271.47566
G1 X144.50 Y150.08 E271.48684
G1 X144.60 Y149.65 E271.50404
;LAYER:6
G0 F12000 X144.77 Y149.32 Z1.50
;TYPE:WALL-OUTER
G1 F540 X144.77 Y155.68 E271.75071
G1 X160.23 Y155.68 E272.34999
G1 X160.23 Y149.32 E272.59666
G1 X144.77 Y149.32 E273.19594
G0 F12000 X144.23 Y148.73
G1 F540 X160.77 Y148.73 E273.83660
G1 X160.77 Y156.27 E274.12853
G1 X144.23 Y156.27 E274.76919
G1 X144.23 Y148.73 E275.06112
G0 F12000 X144.61 Y148.90
;TYPE:FILL
G1 F540 X144.74 Y149.35 E275.07508
G1 X144.40 Y149.67 E275.08638
G1 X144.50 Y150.43 E275.09765
G1 X144.50 Y151.09 E275.10894
G1 X144.50 Y151.75 E275.12023
G1 X144.50 Y152.41 E275.13151
G1 X144.50 Y153.07 E275.14280
G1 X144.50 Y153.73 E275.15409
G1 X144.50 Y154.38 E275.16538
G1 X144.50 Y155.04 E275.17667
G1 X144.50 Y155.70 E275.18795
G1 X144.77 Y155.97 E275.19741
G1 X145.43 Y155.97 E275.21132
G1 X146.09 Y155.97 E275.22524
G1 X146.75 Y155.97 E275.23916
G1 X147.41 Y155.97 E275.25308
G1 X148.07 Y155.97 E275.26700
G1 X148.72 Y155.97 E275.28091
G1 X149.38 Y155.97 E275.29483
G1 X150.04 Y155.97 E275.30875
G1 X150.70 Y155.97 E275.32267
G1 X151.36 Y155.97 E275.33659
G1 X152.02 Y155.97 E275.35051
G1 X152.68 Y155.97 E275.36442
G1 X153.34 Y155.97 E275.37834
G1 X154.00 Y155.97 E275.39226
G1 X154.66 Y155.97 E275.40618
G1 X155.31 Y155.97 E275.42010
G1 X155.97 Y155.97 E275.43401
G1 X156.63 Y155.97 E275.44793
G1 X157.29 Y155.97 E275.46185
G1 X157.95 Y155.97 E275.47577
G1 X158.61 Y155.97 E275.48969
G1 X159.27 Y155.97 E275.50361
G1 X159.93 Y155.97 E275.51752
G1 X160.49 Y155.88 E275.53148
G1 X160.50 Y155.23 E275.54279
G1 X160.50 Y154.57 E275.55408
G1 X160.50 Y153.91 E275.56537
G1 X160.50 Y153.25 E275.57665
G1 X160.50 Y152.59 E275.58794
G1 X160.50 Y151.93 E275.59923
G1 X160.50 Y151.27 E275.61052
G1 X160.50 Y150.61 E275.62181
G1 X160.50 Y149.95 E275.63309
G1 X160.50 Y149.29 E275.64438
G1 X160.23 Y149.02 E275.65381
G1 X159.57 Y149.02 E275.66779
G1 X158.91 Y149.02 E275.68176
G1 X158.25 Y149.02 E275.69573
G1 X157.59 Y149.02 E275.70971
G1 X156.93 Y149.02 E275.72368
G1 X156.27 Y149.02 E275.73765
G1 X155.61 Y149.02 E275.75163
G1 X154.96 Y149.02 E275.76560
G1 X154.30 Y149.02 E275.77957
G1 X153.64 Y149.02 E275.79354
G1 X152.98 Y149.02 E275.80752
G1 X152.32 Y149.02 E275.82149
G1 X151.66 Y149.02 E275.83546
G1 X151.00 Y149.02 E275.84944
G1 X150.34 Y149.02 E275.86341
G1 X149.68 Y149.02 E275.87738
G1 X149.02 Y149.02 E275.89136
G1 X148.37 Y149.02 E275.90533
G1 X147.71 Y149.02 E275.91930
G1 X147.05 Y149.02 E275.93327
G1 X146.39 Y149.02 E275.94725
G1 X145.73 Y149.02 E275.96122
G1 X145.27 Y148.90 E275.97961
;LAYER:7
G0 F12000 X144.77 Y149.32 Z1.70
;TYPE:WALL-OUTER
G1 F540 X144.77 Y155.68 E276.22628
G1 X160.23 Y155.68 E276.82556
G1 X160.23 Y149.32 E277.07223
G1 X144.77 Y149.32 E277.67150
G0 F12000 X144.23 Y148.73
G1 F540 X160.77 Y148.73 E278.31217
G1 X160.77 Y156.27 E278.60409
G1 X144.23 Y156.27 E279.24475
G1 X144.23 Y148.73 E279.53668
G0 F12000 X144.40 Y149.20
;TYPE:FILL
G1 F540 X144.90 Y149.02 E279.55315
G1 X145.56 Y149.02 E279.56712
G1 X146.22 Y149.02 E279.58110
G1 X146.88 Y149.02 E279.59507
G1 X147.53 Y149.02 E279.60904
G1 X148.19 Y149.02 E279.62301
G1 X148.85 Y149.02 E279.63699
G1 X149.51 Y149.02 E279.65096
G1 X150.17 Y149.02 E279.66493
G1 X150.83 Y149.02 E279.67893
G1 X151.49 Y149.02 E279.69290
G1 X152.15 Y149.02 E279.70687
G1 X152.81 Y149.02 E279.72085
G1 X153.47 Y149.02 E279.73482
G1 X154.13 Y149.02 E279.74879
G1 X154.78 Y149.02 E279.76277
G1 X155.44 Y149.02 E279.77674
G1 X156.10 Y149.02 E279.79071
G1 X156.76 Y149.02 E279.80468
G1 X157.42 Y149.02 E279.81866
G1 X158.08 Y149.02 E279.83263
G1 X158.74 Y149.02 E279.84660
G1 X159.40 Y149.02 E279.86058
G1 X160.06 Y149.02 E279.87455
G1 X160.56 Y149.18 E279.88857
G1 X160.50 Y149.90 E279.89977
G1 X160.50 Y150.56 E279.91101
G1 X160.50 Y151.22 E279.92220
G1 X160.50 Y151.88 E279.93338
G1 X160.50 Y152.54 E279.94456
G1 X160.50 Y153.20 E279.95574
G1 X160.50 Y153.85 E279.96692
G1 X160.50 Y154.51 E279.97809
G1 X160.50 Y155.17 E279.98927
G1 X160.28 Y155.72 E280.00046
G1 X159.70 Y155.97 E280.01449
G1 X159.04 Y155.97 E280.02851
G1 X158.38 Y155.97 E280.04254
G1 X157.72 Y155.97 E280.05657
G1 X157.06 Y155.97 E280.07060
G1 X156.40 Y155.97 E280.08462
G1 X155.74 Y155.97 E280.09865
G1 X155.08 Y155.97 E280.11268
G1 X154.43 Y155.97 E280.12671
G1 X153.77 Y155.97 E280.14074
G1 X153.11 Y155.97 E280.15476
G1 X152.45 Y155.97 E280.16879
G1 X151.79 Y155.97 E280.18282
G1 X151.13 Y155.97 E280.19685
G1 X150.47 Y155.97 E280.21087
G1 X149.81 Y155.97 E280.22490
G1 X149.15 Y155.97 E280.23893
G1 X148.49 Y155.97 E280.25296
G1 X147.83 Y155.97 E280.26701
G1 X147.18 Y155.97 E280.28098
G1 X146.52 Y155.97 E280.29495
G1 X145.86 Y155.97 E280.30893
G1 X145.20 Y155.97 E280.32290
G1 X144.57 Y155.94 E280.33693
G1 X144.50 Y155.35 E280.34810
G1 X144.50 Y154.70 E280.35927
G1 X144.50 Y154.04 E280.37045
G1 X144.50 Y153.38 E280.38163
G1 X144.50 Y152.72 E280.39281
G1 X144.50 Y152.06 E280.40399
G1 X144.50 Y151.40 E280.41517
G1 X144.50 Y150.74 E280.42634
G1 X144.50 Y150.08 E280.43752
G1 X144.60 Y149.65 E280.45473
;LAYER:8
G0 F12000 X144.77 Y149.32 Z1.90
;TYPE:WALL-OUTER
G1 F540 X144.77 Y155.68 E280.70140
G1 X160.23 Y155.68 E281.30068
G1 X160.23 Y149.32 E281.54735
G1 X144.77 Y149.32 E282.14663
G0 F12000 X144.23 Y148.73
G1 F540 X160.77 Y148.73 E282.78729
G1 X160.77 Y156.27 E283.07921
G1 X144.23 Y156.27 E283.71988
G1 X144.23 Y148.73 E284.01180
G0 F12000 X144.61 Y148.90
;TYPE:FILL
G1 F540 X144.74 Y149.35 E284.02577
G1 X144.40 Y149.67 E284.03707
G1 X144.50 Y150.43 E284.04834
G1 X144.50 Y151.09 E284.05963
G1 X144.50 Y151.75 E284.07091
G1 X144.50 Y152.41 E284.08220
G1 X144.50 Y153.07 E284.09349
G1 X144.50 Y153.73 E284.10478
G1 X144.50 Y154.38 E284.11607
G1 X144.50 Y155.04 E284.12735
G1 X144.50 Y155.70 E284.13864
G1 X144.77 Y155.97 E284.14809
G1 X145.43 Y155.97 E284.16201
G1 X146.09 Y155.97 E284.17593
G1 X146.75 Y155.97 E284.18985
G1 X147.41 Y155.97 E284.20376
G1 X148.07 Y155.97 E284.21768
G1 X148.72 Y155.97 E284.23160
G1 X149.38 Y155.97 E284.24552
G1 X150.04 Y155.97 E284.25944
G1 X150.70 Y155.97 E284.27336
G1 X151.36 Y155.97 E284.28727
G1 X152.02 Y155.97 E284.30119
G1 X152.68 Y155.97 E284.31511
G1 X153.34 Y155.97 E284.32903
G1 X154.00 Y155.97 E284.34295
G1 X154.66 Y155.97 E284.35686
G1 X155.31 Y155.97 E284.37078
G1 X155.97 Y155.97 E284.38470
G1 X156.63 Y155.97 E284.39862
G1 X157.29 Y155.97 E284.41254
G1 X157.95 Y155.97 E284.42646
G1 X158.61 Y155.97 E284.44037
G1 X159.27 Y155.97 E284.45429
G1 X159.93 Y155.97 E284.46821
G1 X160.49 Y155.88 E284.48216
G1 X160.50 Y155.23 E284.49348
G1 X160.50 Y154.57 E284.50476
G1 X160.50 Y153.91 E284.51605
G1 X160.50 Y153.25 E284.52734
G1 X160.50 Y152.59 E284.53863
G1 X160.50 Y151.93 E284.54992
G1 X160.50 Y151.27 E284.56120
G1 X160.50 Y150.61 E284.57249
G1 X160.50 Y149.95 E284.58378
G1 X160.50 Y149.29 E284.59507
G1 X160.23 Y149.02 E284.60450
G1 X159.57 Y149.02 E284.61847
G1 X158.91 Y149.02 E284.63245
G1 X158.25 Y149.02 E284.64642
G1 X157.59 Y149.02 E284.66039
G1 X156.93 Y149.02 E284.67437
G1 X156.27 Y149.02 E284.68834
G1 X155.61 Y149.02 E284.70231
G1 X154.96 Y149.02 E284.71629
G1 X154.30 Y149.02 E284.73026
G1 X153.64 Y149.02 E284.74423
G1 X152.98 Y149.02 E284.75820
G1 X152.32 Y149.02 E284.77218
G1 X151.66 Y149.02 E284.78615
G1 X151.00 Y149.02 E284.80012
G1 X150.34 Y149.02 E284.81410
G1 X149.68 Y149.02 E284.82807
G1 X149.02 Y149.02 E284.84204
G1 X148.37 Y149.02 E284.85602
G1 X147.71 Y149.02 E284.86999
G1 X147.05 Y149.02 E284.88396
G1 X146.39 Y149.02 E284.89793
G1 X145.73 Y149.02 E284.91191
G1 X145.27 Y148.90 E284.93030
;LAYER:9
G0 F12000 X144.77 Y149.32 Z2.10
;TYPE:WALL-OUTER
G1 F540 X144.77 Y155.68 E285.17697
G1 X160.23 Y155.68 E285.77624
G1 X160.23 Y149.32 E286.02291
G1 X157.73 Y149.32 E286.11978
G1 X157.73 Y148.73 E286.14241
G1 X160.77 Y148.73 E286.25997
G1 X160.77 Y156.27 E286.55190
G1 X144.23 Y156.27 E287.19256
G1 X144.23 Y148.73 E287.48449
G1 X147.27 Y148.73 E287.60205
G1 X147.27 Y149.32 E287.62468
G1 X144.77 Y149.32 E287.72155
G0 F12000 X144.60 Y149.65
;TYPE:FILL
G1 F540 X144.50 Y150.08 E287.73274
G1 X144.50 Y150.74 E287.74392
G1 X144.50 Y151.40 E287.75510
G1 X144.50 Y152.06 E287.76628
G1 X144.50 Y152.72 E287.77745
G1 X144.50 Y153.38 E287.78863
G1 X144.50 Y154.04 E287.79981
G1 X144.50 Y154.70 E287.81099
G1 X144.50 Y155.35 E287.82217
G1 X144.57 Y155.94 E287.83333
G1 X145.20 Y155.97 E287.84736
G1 X145.86 Y155.97 E287.86134
G1 X146.52 Y155.97 E287.87531
G1 X147.18 Y155.97 E287.88928
G1 X147.83 Y155.97 E287.90326
G1 X148.49 Y155.97 E287.91731
G1 X149.15 Y155.97 E287.93133
G1 X149.81 Y155.97 E287.94536
G1 X150.47 Y155.97 E287.95939
G1 X151.13 Y155.97 E287.97342
G1 X151.79 Y155.97 E287.98744
G1 X152.45 Y155.97 E288.00147
G1 X153.11 Y155.97 E288.01550
G1 X153.77 Y155.97 E288.02953
G1 X154.43 Y155.97 E288.04356
G1 X155.08 Y155.97 E288.05758
G1 X155.74 Y155.97 E288.07161
G1 X156.40 Y155.97 E288.08564
G1 X157.06 Y155.97 E288.09967
G1 X157.72 Y155.97 E288.11369
G1 X158.38 Y155.97 E288.12772
G1 X159.04 Y155.97 E288.14175
G1 X159.70 Y155.97 E288.15578
G1 X160.28 Y155.72 E288.16980
G1 X160.50 Y155.17 E288.18099
G1 X160.50 Y154.51 E288.19217
G1 X160.50 Y153.85 E288.20335
G1 X160.50 Y153.20 E288.21453
G1 X160.50 Y152.54 E288.22570
G1 X160.50 Y151.88 E288.23688
G1 X160.50 Y151.22 E288.24806
G1 X160.50 Y150.56 E288.25926
G1 X160.50 Y149.90 E288.27049
G1 X160.43 Y149.31 E288.28165
G1 X160.18 Y148.90 E288.29569
G1 X159.40 Y149.02 E288.30975
G1 X158.74 Y149.02 E288.32378
G1 X158.28 Y149.15 E288.34221
G1 F2400 E287.14221
G0 F12000 X146.68 Y148.90
G1 F2400 E288.34221
G1 F540 X146.22 Y149.02 E288.35625
G1 X145.56 Y149.02 E288.37022
G1 X144.90 Y149.02 E288.38420
G1 X144.40 Y149.20 E288.40477
;LAYER:10
G0 F12000 X144.77 Y149.32 Z2.30
;TYPE:WALL-OUTER
G1 F540 X144.77 Y155.68 E288.65144
G1 X160.23 Y155.68 E289.25072
G1 X160.23 Y149.32 E289.49739
G1 X157.73 Y149.32 E289.59426
G1 X157.73 Y148.73 E289.61689
G1 X160.77 Y148.73 E289.73445
G1 X160.77 Y156.27 E290.02638
G1 X144.23 Y156.27 E290.66704
G1 X144.23 Y148.73 E290.95896
G1 X147.27 Y148.73 E291.07653
G1 X147.27 Y149.32 E291.09916
G1 X144.77 Y149.32 E291.19603
G0 F12000 X144.87 Y149.15
;TYPE:FILL
G1 F540 X144.50 Y149.12 E291.21007
G1 X144.50 Y149.77 E291.22135
G1 X144.50 Y150.43 E291.23264
G1 X144.50 Y151.09 E291.24392
G1 X144.50 Y151.75 E291.25521
G1 X144.50 Y152.41 E291.26650
G1 X144.50 Y153.07 E291.27779
G1 X144.50 Y153.73 E291.28908
G1 X144.50 Y154.38 E291.30036
G1 X144.50 Y155.04 E291.31165
G1 X144.50 Y155.70 E291.32294
G1 X144.77 Y155.97 E291.33239
G1 X145.43 Y155.97 E291.34631
G1 X146.09 Y155.97 E291.36023
G1 X146.75 Y155.97 E291.37414
G1 X147.41 Y155.97 E291.38806
G1 X148.07 Y155.97 E291.40198
G1 X148.72 Y155.97 E291.41590
G1 X149.38 Y155.97 E291.42982
G1 X150.04 Y155.97 E291.44374
G1 X150.70 Y155.97 E291.45765
G1 X151.36 Y155.97 E291.47157
G1 X152.02 Y155.97 E291.48549
G1 X152.68 Y155.97 E291.49941
G1 X153.34 Y155.97 E291.51333
G1 X154.00 Y155.97 E291.52724
G1 X154.66 Y155.97 E291.54116
G1 X155.31 Y155.97 E291.55508
G1 X155.97 Y155.97 E291.56900
G1 X156.63 Y155.97 E291.58292
G1 X157.29 Y155.97 E291.59684
G1 X157.95 Y155.97 E291.61075
G1 X158.61 Y155.97 E291.62467
G1 X159.27 Y155.97 E291.63859
G1 X159.93 Y155.97 E291.65251
G1 X160.49 Y155.88 E291.66646
G1 X160.50 Y155.23 E291.67777
G1 X160.50 Y154.57 E291.68906
G1 X160.50 Y153.91 E291.70035
G1 X160.50 Y153.25 E291.71164
G1 X160.50 Y152.59 E291.72293
G1 X160.50 Y151.93 E291.73421
G1 X160.50 Y151.27 E291.74550
G1 X160.50 Y150.61 E291.75679
G1 X160.50 Y149.95 E291.76808
G1 X160.50 Y149.29 E291.77937
G1 X160.23 Y149.02 E291.78878
G1 X159.57 Y149.02 E291.80270
G1 X158.91 Y149.02 E291.81662
G1 X158.25 Y149.02 E291.83054
G1 X157.90 Y149.00 E291.84433
G1 F2400 E290.64433
G0 F12000 X146.84 Y149.15
G1 F2400 E291.84433
G1 F540 X146.39 Y149.02 E291.85836
G1 X145.73 Y149.02 E291.87234
G1 X145.27 Y148.90 E291.89073
;LAYER:11
G0 F12000 X144.77 Y149.32 Z2.50
;TYPE:WALL-OUTER
G1 F540 X144.77 Y155.68 E292.13740
G1 X160.23 Y155.68 E292.73667
G1 X160.23 Y149.32 E292.98334
G1 X157.73 Y149.32 E293.08021
G1 X157.73 Y148.73 E293.10284
G1 X160.77 Y148.73 E293.22040
G1 X160.77 Y156.27 E293.51233
G1 X144.23 Y156.27 E294.15299
G1 X144.23 Y148.73 E294.44492
G1 X147.27 Y148.73 E294.56248
G1 X147.27 Y149.32 E294.58511
G1 X144.77 Y149.32 E294.68198
G0 F12000 X144.60 Y149.65
;TYPE:FILL
G1 F540 X144.50 Y150.08 E294.69317
G1 X144.50 Y150.74 E294.70435
G1 X144.50 Y151.40 E294.71553
G1 X144.50 Y152.06 E294.72670
G1 X144.50 Y152.72 E294.73788
G1 X144.50 Y153.38 E294.74906
G1 X144.50 Y154.04 E294.76024
G1 X144.50 Y154.70 E294.77142
G1 X144.50 Y155.35 E294.78260
G1 X144.57 Y155.94 E294.79376
G1 X145.20 Y155.97 E294.80779
G1 X145.86 Y155.97 E294.82177
G1 X146.52 Y155.97 E294.83574
G1 X147.18 Y155.97 E294.84971
G1 X147.83 Y155.97 E294.86369
G1 X148.49 Y155.97 E294.87773
G1 X149.15 Y155.97 E294.89176
G1 X149.81 Y155.97 E294.90579
G1 X150.47 Y155.97 E294.91982
G1 X151.13 Y155.97 E294.93385
G1 X151.79 Y155.97 E294.94787
G1 X152.45 Y155.97 E294.96190
G1 X153.11 Y155.97 E294.97593
G1 X153.77 Y155.97 E294.98996
G1 X154.43 Y155.97 E295.00398
G1 X155.08 Y155.97 E295.01801
G1 X155.74 Y155.97 E295.03204
G1 X156.40 Y155.97 E295.04607
G1 X157.06 Y155.97 E295.06010
G1 X157.72 Y155.97 E295.07412
G1 X158.38 Y155.97 E295.08815
G1 X159.04 Y155.97 E295.10218
G1 X159.70 Y155.97 E295.11621
G1 X160.28 Y155.72 E295.13023
G1 X160.50 Y155.17 E295.14142
G1 X160.50 Y154.51 E295.15260
G1 X160.50 Y153.85 E295.16378
G1 X160.50 Y153.20 E295.17495
G1 X160.50 Y152.54 E295.18613
G1 X160.50 Y151.88 E295.19731
G1 X160.50 Y151.22 E295.20849
G1 X160.50 Y150.56 E295.21969
G1 X160.50 Y149.90 E295.23092
G1 X160.43 Y149.31 E295.24208
G1 X160.18 Y148.90 E295.25612
G1 X159.40 Y149.02 E295.27018
G1 X158.74 Y149.02 E295.28420
G1 X158.28 Y149.15 E295.30264
G1 F2400 E294.10264
G0 F12000 X146.68 Y148.90
G1 F2400 E295.30264
G1 F540 X146.22 Y149.02 E295.31668
G1 X145.56 Y149.02 E295.33065
G1 X144.90 Y149.02 E295.34463
G1 X144.40 Y149.20 E295.36520
;LAYER:12
G0 F12000 X144.77 Y149.32 Z2.70
;TYPE:WALL-OUTER
G1 F540 X144.77 Y155.68 E295.61187
G1 X160.23 Y155.68 E296.21115
G1 X160.23 Y149.32 E296.45782
G1 X157.73 Y149.32 E296.55469
G1 X157.73 Y148.73 E296.57732
G1 X160.77 Y148.73 E296.69488
G1 X160.77 Y156.27 E296.98681
G1 X144.23 Y156.27 E297.62747
G1 X144.23 Y148.73 E297.91939
G1 X147.27 Y148.73 E298.03696
G1 X147.27 Y149.32 E298.05958
G1 X144.77 Y149.32 E298.15645
G0 F12000 X144.87 Y149.15
;TYPE:FILL
G1 F540 X144.50 Y149.12 E298.17050
G1 X144.50 Y149.77 E298.18178
G1 X144.50 Y150.43 E298.19306
G1 X144.50 Y151.09 E298.20435
G1 X144.50 Y151.75 E298.21564
G1 X144.50 Y152.41 E298.22693
G1 X144.50 Y153.07 E298.23822
G1 X144.50 Y153.73 E298.24950
G1 X144.50 Y154.38 E298.26079
G1 X144.50 Y155.04 E298.27208
G1 X144.50 Y155.70 E298.28337
G1 X144.77 Y155.97 E298.29282
G1 X145.43 Y155.97 E298.30674
G1 X146.09 Y155.97 E298.32065
G1 X146.75 Y155.97 E298.33457
G1 X147.41 Y155.97 E298.34849
G1 X148.07 Y155.97 E298.36241
G1 X148.72 Y155.97 E298.37633
G1 X149.38 Y155.97 E298.39025
G1 X150.04 Y155.97 E298.40416
G1 X150.70 Y155.97 E298.41808
G1 X151.36 Y155.97 E298.43200
G1 X152.02 Y155.97 E298.44592
G1 X152.68 Y155.97 E298.45984
G1 X153.34 Y155.97 E298.47376
G1 X154.00 Y155.97 E298.48767
G1 X154.66 Y155.97 E298.50159
G1 X155.31 Y155.97 E298.51551
G1 X155.97 Y155.97 E298.52943
G1 X156.63 Y155.97 E298.54335
G1 X157.29 Y155.97 E298.55726
G1 X157.95 Y155.97 E298.57118
G1 X158.61 Y155.97 E298.58510
G1 X159.27 Y155.97 E298.59902
G1 X159.93 Y155.97 E298.61294
G1 X160.49 Y155.88 E298.62689
G1 X160.50 Y155.23 E298.63820
G1 X160.50 Y154.57 E298.64949
G1 X160.50 Y153.91 E298.66078
G1 X160.50 Y153.25 E298.67207
G1 X160.50 Y152.59 E298.68335
G1 X160.50 Y151.93 E298.69464
G1 X160.50 Y151.27 E298.70593
G1 X160.50 Y150.61 E298.71722
G1 X160.50 Y149.95 E298.72851
G1 X160.50 Y149.29 E298.73979
G1 X160.23 Y149.02 E298.74921
G1 X159.57 Y149.02 E298.76313
G1 X158.91 Y149.02 E298.77705
G1 X158.25 Y149.02 E298.79096
G1 X157.90 Y149.00 E298.80475
G1 F2400 E297.60475
G0 F12000 X146.84 Y149.15
G1 F2400 E298.80475
G1 F540 X146.39 Y149.02 E298.81879
G1 X145.73 Y149.02 E298.83276
G1 X145.27 Y148.90 E298.85115
;LAYER:13
G0 F12000 X144.77 Y149.32 Z2.90
;TYPE:WALL-OUTER
G1 F540 X144.77 Y155.68 E299.09782
G1 X160.23 Y155.68 E299.69710
G1 X160.23 Y149.32 E299.94377
G1 X157.73 Y149.32 E300.04064
G1 X157.73 Y148.73 E300.06327
G1 X160.77 Y148.73 E300.18083
G1 X160.77 Y156.27 E300.47276
G1 X144.23 Y156.27 E301.11342
G1 X144.23 Y148.73 E301.40535
G1 X147.27 Y148.73 E301.52291
G1 X147.27 Y149.32 E301.54554
G1 X144.77 Y149.32 E301.64241
G0 F12000 X144.60 Y149.65
;TYPE:FILL
G1 F540 X144.50 Y150.08 E301.65360
G1 X144.50 Y150.74 E301.66478
G1 X144.50 Y151.40 E301.67596
G1 X144.50 Y152.06 E301.68713
G1 X144.50 Y152.72 E301.69831
G1 X144.50 Y153.38 E301.70949
G1 X144.50 Y154.04 E301.72067
G1 X144.50 Y154.70 E301.73185
G1 X144.50 Y155.35 E301.74303
G1 X144.57 Y155.94 E301.75419
G1 X145.20 Y155.97 E301.76822
G1 X145.86 Y155.97 E301.78220
G1 X146.52 Y155.97 E301.79617
G1 X147.18 Y155.97 E301.81014
G1 X147.83 Y155.97 E301.82411
G1 X148.49 Y155.97 E301.83816
G1 X149.15 Y155.97 E301.85219
G1 X149.81 Y155.97 E301.86622
G1 X150.47 Y155.97 E301.88025
G1 X151.13 Y155.97 E301.89427
G1 X151.79 Y155.97 E301.90830
G1 X152.45 Y155.97 E301.92233
G1 X153.11 Y155.97 E301.93636
G1 X153.77 Y155.97 E301.95039
G1 X154.43 Y155.97 E301.96441
G1 X155.08 Y155.97 E301.97844
G1 X155.74 Y155.97 E301.99247
G1 X156.40 Y155.97 E302.00650
G1 X157.06 Y155.97 E302.02052
G1 X157.72 Y155.97 E302.03455
G1 X158.38 Y155.97 E302.04858
G1 X159.04 Y155.97 E302.06261
G1 X159.70 Y155.97 E302.07664
G1 X160.28 Y155.72 E302.09066
G1 X160.50 Y155.17 E302.10185
G1 X160.50 Y154.51 E302.11303
G1 X160.50 Y153.85 E302.12421
G1 X160.50 Y153.20 E302.13538
G1 X160.50 Y152.54 E302.14656
G1 X160.50 Y151.88 E302.15774
G1 X160.50 Y151.22 E302.16892
G1 X160.50 Y150.56 E302.18011
G1 X160.50 Y149.90 E302.19135
G1 X160.43 Y149.31 E302.20251
G1 X160.18 Y148.90 E302.21655
G1 X159.40 Y149.02 E302.23061
G1 X158.74 Y149.02 E302.24463
G1 X158.28 Y149.15 E302.26307
G1 F2400 E301.06307
G0 F12000 X146.68 Y148.90
G1 F2400 E302.26307
G1 F540 X146.22 Y149.02 E302.27711
G1 X145.56 Y149.02 E302.29108
G1 X144.90 Y149.02 E302.30505
G1 X144.40 Y149.20 E302.32563
;LAYER:14
G0 F12000 X144.77 Y149.32 Z3.10
;TYPE:WALL-OUTER
G1 F540 X144.77 Y155.68 E302.57230
G1 X160.23 Y155.68 E303.17158
G1 X160.23 Y149.32 E303.41825
G1 X157.73 Y149.32 E303.51512
G1 X157.73 Y148.73 E303.53774
G1 X160.77 Y148.73 E303.65531
G1 X160.77 Y156.27 E303.94723
G1 X144.23 Y156.27 E304.58789
G1 X144.23 Y148.73 E304.87982
G1 X147.27 Y148.73 E304.99738
G1 X147.27 Y149.32 E305.02001
G1 X144.77 Y149.32 E305.11688
G0 F12000 X144.87 Y149.15
;TYPE:FILL
G1 F540 X144.50 Y149.12 E305.13093
G1 X144.50 Y149.77 E305.14221
G1 X144.50 Y150.43 E305.15349
G1 X144.50 Y151.09 E305.16478
G1 X144.50 Y151.75 E305.17607
G1 X144.50 Y152.41 E305.18736
G1 X144.50 Y153.07 E305.19865
G1 X144.50 Y153.73 E305.20993
G1 X144.50 Y154.38 E305.22122
G1 X144.50 Y155.04 E305.23251
G1 X144.50 Y155.70 E305.24380
G1 X144.77 Y155.97 E305.25325
G1 X145.43 Y155.97 E305.26717
G1 X146.09 Y155.97 E305.28108
G1 X146.75 Y155.97 E305.29500
G1 X147.41 Y155.97 E305.30892
G1 X148.07 Y155.97 E305.32284
G1 X148.72 Y155.97 E305.33676
G1 X149.38 Y155.97 E305.35067
G1 X150.04 Y155.97 E305.36459
G1 X150.70 Y155.97 E305.37851
G1 X151.36 Y155.97 E305.39243
G1 X152.02 Y155.97 E305.40635
G1 X152.68 Y155.97 E305.42027
G1 X153.34 Y155.97 E305.43418
G1 X154.00 Y155.97 E305.44810
G1 X154.66 Y155.97 E305.46202
G1 X155.31 Y155.97 E305.47594
G1 X155.97 Y155.97 E305.48986
G1 X156.63 Y155.97 E305.50378
G1 X157.29 Y155.97 E305.51769
G1 X157.95 Y155.97 E305.53161
G1 X158.61 Y155.97 E305.54553
G1 X159.27 Y155.97 E305.55945
G1 X159.93 Y155.97 E305.57337
G1 X160.49 Y155.88 E305.58732
G1 X160.50 Y155.23 E305.59863
G1 X160.50 Y154.57 E305.60992
G1 X160.50 Y153.91 E305.62121
G1 X160.50 Y153.25 E305.63250
G1 X160.50 Y152.59 E305.64378
G1 X160.50 Y151.93 E305.65507
G1 X160.50 Y151.27 E305.66636
G1 X160.50 Y150.61 E305.67765
G1 X160.50 Y149.95 E305.68894
G1 X160.50 Y149.29 E305.70022
G1 X160.23 Y149.02 E305.70964
G1 X159.57 Y149.02 E305.72356
G1 X158.91 Y149.02 E305.73748
G1 X158.25 Y149.02 E305.75139
G1 X157.90 Y149.00 E305.76518
G1 F2400 E304.56518
G0 F12000 X146.84 Y149.15
G1 F2400 E305.76518
G1 F540 X146.39 Y149.02 E305.77922
G1 X145.73 Y149.02 E305.79319
G1 X145.27 Y148.90 E305.81158
;LAYER:15
G0 F12000 X144.77 Y149.32 Z3.30
;TYPE:WALL-OUTER
G1 F540 X144.77 Y155.68 E306.05825
G1 X160.23 Y155.68 E306.65753
G1 X160.23 Y149.32 E306.90420
G1 X157.73 Y149.32 E307.00107
G1 X157.73 Y148.73 E307.02370
G1 X160.77 Y148.73 E307.14126
G1 X160.77 Y156.27 E307.43319
G1 X144.23 Y156.27 E308.07385
G1 X144.23 Y148.73 E308.36578
G1 X147.27 Y148.73 E308.48334
G1 X147.27 Y149.32 E308.50597
G1 X144.77 Y149.32 E308.60284
G0 F12000 X144.60 Y149.65
;TYPE:FILL
G1 F540 X144.50 Y150.08 E308.61403
G1 X144.50 Y150.74 E308.62521
G1 X144.50 Y151.40 E308.63638
G1 X144.50 Y152.06 E308.64756
G1 X144.50 Y152.72 E308.65874
G1 X144.50 Y153.38 E308.66992
G1 X144.50 Y154.04 E308.68110
G1 X144.50 Y154.70 E308.69228
G1 X144.50 Y155.35 E308.70345
G1 X144.57 Y155.94 E308.71462
G1 X145.20 Y155.97 E308.72865
G1 X145.86 Y155.97 E308.74262
G1 X146.52 Y155.97 E308.75660
G1 X147.18 Y155.97 E308.77057
G1 X147.83 Y155.97 E308.78454
G1 X148.49 Y155.97 E308.79859
G1 X149.15 Y155.97 E308.81262
G1 X149.81 Y155.97 E308.82665
G1 X150.47 Y155.97 E308.84068
G1 X151.13 Y155.97 E308.85470
G1 X151.79 Y155.97 E308.86873
G1 X152.45 Y155.97 E308.88276
G1 X153.11 Y155.97 E308.89679
G1 X153.77 Y155.97 E308.91081
G1 X154.43 Y155.97 E308.92484
G1 X155.08 Y155.97 E308.93887
G1 X155.74 Y155.97 E308.95290
G1 X156.40 Y155.97 E308.96693
G1 X157.06 Y155.97 E308.98095
G1 X157.72 Y155.97 E308.99498
G1 X158.38 Y155.97 E309.00901
G1 X159.04 Y155.97 E309.02304
G1 X159.70 Y155.97 E309.03706
G1 X160.28 Y155.72 E309.05109
G1 X160.50 Y155.17 E309.06228
G1 X160.50 Y154.51 E309.07346
G1 X160.50 Y153.85 E309.08463
G1 X160.50 Y153.20 E309.09581
G1 X160.50 Y152.54 E309.10699
G1 X160.50 Y151.88 E309.11817
G1 X160.50 Y151.22 E309.12935
G1 X160.50 Y150.56 E309.14054
G1 X160.50 Y149.90 E309.15178
G1 X160.43 Y149.31 E309.16294
G1 X160.18 Y148.90 E309.17698
G1 X159.40 Y149.02 E309.19103
G1 X158.74 Y149.02 E309.20506
G1 X158.28 Y149.15 E309.22350
G1 F2400 E308.02350
G0 F12000 X146.68 Y148.90
G1 F2400 E309.22350
G1 F540 X146.22 Y149.02 E309.23754
G1 X145.56 Y149.02 E309.25151
G1 X144.90 Y149.02 E309.26548
G1 X144.40 Y149.20 E309.28606
;LAYER:16
G0 F12000 X144.77 Y149.32 Z3.50
;TYPE:WALL-OUTER
G1 F540 X144.77 Y155.68 E309.53273
G1 X160.23 Y155.68 E310.13200
G1 X160.23 Y149.32 E310.37867
G1 X157.73 Y149.32 E310.47555
G1 X157.73 Y148.73 E310.49817
G1 X160.77 Y148.73 E310.61574
G1 X160.77 Y156.27 E310.90766
G1 X144.23 Y156.27 E311.54832
G1 X144.23 Y148.73 E311.84025
G1 X147.27 Y148.73 E311.95781
G1 X147.27 Y149.32 E311.98044
G1 X144.77 Y149.32 E312.07731
G0 F12000 X144.87 Y149.15
;TYPE:FILL
G1 F540 X144.50 Y149.12 E312.09136
G1 X144.50 Y149.77 E312.10263
G1 X144.50 Y150.43 E312.11392
G1 X144.50 Y151.09 E312.12521
G1 X144.50 Y151.75 E312.13650
G1 X144.50 Y152.41 E312.14779
G1 X144.50 Y153.07 E312.15907
G1 X144.50 Y153.73 E312.17036
G1 X144.50 Y154.38 E312.18165
G1 X144.50 Y155.04 E312.19294
G1 X144.50 Y155.70 E312.20423
G1 X144.77 Y155.97 E312.21368
G1 X145.43 Y155.97 E312.22759
G1 X146.09 Y155.97 E312.24151
G1 X146.75 Y155.97 E312.25543
G1 X147.41 Y155.97 E312.26935
G1 X148.07 Y155.97 E312.28327
G1 X148.72 Y155.97 E312.29719
G1 X149.38 Y155.97 E312.31110
G1 X150.04 Y155.97 E312.32502
G1 X150.70 Y155.97 E312.33894
G1 X151.36 Y155.97 E312.35286
G1 X152.02 Y155.97 E312.36678
G1 X152.68 Y155.97 E312.38069
G1 X153.34 Y155.97 E312.39461
G1 X154.00 Y155.97 E312.40853
G1 X154.66 Y155.97 E312.42245
G1 X155.31 Y155.97 E312.43637
G1 X155.97 Y155.97 E312.45029
G1 X156.63 Y155.97 E312.46420
G1 X157.29 Y155.97 E312.47812
G1 X157.95 Y155.97 E312.49204
G1 X158.61 Y155.97 E312.50596
G1 X159.27 Y155.97 E312.51988
G1 X159.93 Y155.97 E312.53379
G1 X160.49 Y155.88 E312.54775
G1 X160.50 Y155.23 E312.55906
G1 X160.50 Y154.57 E312.57035
G1 X160.50 Y153.91 E312.58164
G1 X160.50 Y153.25 E312.59292
G1 X160.50 Y152.59 E312.60421
G1 X160.50 Y151.93 E312.61550
G1 X160.50 Y151.27 E312.62679
G1 X160.50 Y150.61 E312.63808
G1 X160.50 Y149.95 E312.64936
G1 X160.50 Y149.29 E312.66065
G1 X160.23 Y149.02 E312.67007
G1 X159.57 Y149.02 E312.68399
G1 X158.91 Y149.02 E312.69790
G1 X158.25 Y149.02 E312.71182
G1 X157.90 Y149.00 E312.72561
G1 F2400 E311.52561
G0 F12000 X146.84 Y149.15
G1 F2400 E312.72561
G1 F540 X146.39 Y149.02 E312.73965
G1 X145.73 Y149.02 E312.75362
G1 X145.27 Y148.90 E312.77201
;LAYER:17
G0 F12000 X144.77 Y149.32 Z3.70
;TYPE:WALL-OUTER
G1 F540 X144.77 Y155.68 E313.01868
G1 X160.23 Y155.68 E313.61796
G1 X160.23 Y149.32 E313.86463
G1 X157.73 Y149.32 E313.96150
G1 X157.73 Y148.73 E313.98413
G1 X160.77 Y148.73 E314.10169
G1 X160.77 Y156.27 E314.39362
G1 X144.23 Y156.27 E315.03428
G1 X144.23 Y148.73 E315.32621
G1 X147.27 Y148.73 E315.44377
G1 X147.27 Y149.32 E315.46640
G1 X144.77 Y149.32 E315.56327
G0 F12000 X144.60 Y149.65
;TYPE:FILL
G1 F540 X144.50 Y150.08 E315.57446
G1 X144.50 Y150.74 E315.58563
G1 X144.50 Y151.40 E315.59681
G1 X144.50 Y152.06 E315.60799
G1 X144.50 Y152.72 E315.61917
G1 X144.50 Y153.38 E315.63035
G1 X144.50 Y154.04 E315.64153
G1 X144.50 Y154.70 E315.65271
G1 X144.50 Y155.35 E315.66388
G1 X144.57 Y155.94 E315.67505
G1 X145.20 Y155.97 E315.68908
G1 X145.86 Y155.97 E315.70305
G1 X146.52 Y155.97 E315.71703
G1 X147.18 Y155.97 E315.73100
G1 X147.83 Y155.97 E315.74497
G1 X148.49 Y155.97 E315.75902
G1 X149.15 Y155.97 E315.77305
G1 X149.81 Y155.97 E315.78708
G1 X150.47 Y155.97 E315.80110
G1 X151.13 Y155.97 E315.81513
G1 X151.79 Y155.97 E315.82916
G1 X152.45 Y155.97 E315.84319
G1 X153.11 Y155.97 E315.85722
G1 X153.77 Y155.97 E315.87124
G1 X154.43 Y155.97 E315.88527
G1 X155.08 Y155.97 E315.89930
G1 X155.74 Y155.97 E315.91333
G1 X156.40 Y155.97 E315.92735
G1 X157.06 Y155.97 E315.94138
G1 X157.72 Y155.97 E315.95541
G1 X158.38 Y155.97 E315.96944
G1 X159.04 Y155.97 E315.98347
G1 X159.70 Y155.97 E315.99749
G1 X160.28 Y155.72 E316.01152
G1 X160.50 Y155.17 E316.02271
G1 X160.50 Y154.51 E316.03388
G1 X160.50 Y153.85 E316.04506
G1 X160.50 Y153.20 E316.05624
G1 X160.50 Y152.54 E316.06742
G1 X160.50 Y151.88 E316.07860
G1 X160.50 Y151.22 E316.08978
G1 X160.50 Y150.56 E316.10097
G1 X160.50 Y149.90 E316.11221
G1 X160.43 Y149.31 E316.12337
G1 X160.18 Y148.90 E316.13741
G1 X159.40 Y149.02 E316.15146
G1 X158.74 Y149.02 E316.16549
G1 X158.28 Y149.15 E316.18393
G1 F2400 E314.98393
G0 F12000 X146.68 Y148.90
G1 F2400 E316.18393
G1 F540 X146.22 Y149.02 E316.19797
G1 X145.56 Y149.02 E316.21194
G1 X144.90 Y149.02 E316.22591
G1 X144.40 Y149.20 E316.24649
;LAYER:18
G0 F12000 X144.77 Y149.32 Z3.90
;TYPE:WALL-OUTER
G1 F540 X144.77 Y155.68 E316.49316
G1 X160.23 Y155.68 E317.09243
G1 X160.23 Y149.32 E317.33910
G1 X157.73 Y149.32 E317.43597
G1 X157.73 Y148.73 E317.45860
G1 X160.77 Y148.73 E317.57616
G1 X160.77 Y156.27 E317.86809
G1 X144.23 Y156.27 E318.50875
G1 X144.23 Y148.73 E318.80068
G1 X147.27 Y148.73 E318.91824
G1 X147.27 Y149.32 E318.94087
G1 X144.77 Y149.32 E319.03774
G0 F12000 X144.87 Y149.15
;TYPE:FILL
G1 F540 X144.50 Y149.12 E319.05179
G1 X144.50 Y149.77 E319.06306
G1 X144.50 Y150.43 E319.07435
G1 X144.50 Y151.09 E319.08564
G1 X144.50 Y151.75 E319.09693
G1 X144.50 Y152.41 E319.10822
G1 X144.50 Y153.07 E319.11950
G1 X144.50 Y153.73 E319.13079
G1 X144.50 Y154.38 E319.14208
G1 X144.50 Y155.04 E319.15337
G1 X144.50 Y155.70 E319.16466
G1 X144.77 Y155.97 E319.17411
G1 X145.43 Y155.97 E319.18802
G1 X146.09 Y155.97 E319.20194
G1 X146.75 Y155.97 E319.21586
G1 X147.41 Y155.97 E319.22978
G1 X148.07 Y155.97 E319.24370
G1 X148.72 Y155.97 E319.25761
G1 X149.38 Y155.97 E319.27153
G1 X150.04 Y155.97 E319.28545
G1 X150.70 Y155.97 E319.29937
G1 X151.36 Y155.97 E319.31329
G1 X152.02 Y155.97 E319.32721
G1 X152.68 Y155.97 E319.34112
G1 X153.34 Y155.97 E319.35504
G1 X154.00 Y155.97 E319.36896
G1 X154.66 Y155.97 E319.38288
G1 X155.31 Y155.97 E319.39680
G1 X155.97 Y155.97 E319.41071
G1 X156.63 Y155.97 E319.42463
G1 X157.29 Y155.97 E319.43855
G1 X157.95 Y155.97 E319.45247
G1 X158.61 Y155.97 E319.46639
G1 X159.27 Y155.97 E319.48031
G1 X159.93 Y155.97 E319.49422
G1 X160.49 Y155.88 E319.50818
G1 X160.50 Y155.23 E319.51949
G1 X160.50 Y154.57 E319.53078
G1 X160.50 Y153.91 E319.54207
G1 X160.50 Y153.25 E319.55335
G1 X160.50 Y152.59 E319.56464
G1 X160.50 Y151.93 E319.57593
G1 X160.50 Y151.27 E319.58722
G1 X160.50 Y150.61 E319.59851
G1 X160.50 Y149.95 E319.60979
G1 X160.50 Y149.29 E319.62108
G1 X160.23 Y149.02 E319.63050
G1 X159.57 Y149.02 E319.64442
G1 X158.91 Y149.02 E319.65833
G1 X158.25 Y149.02 E319.67225
G1 X157.90 Y149.00 E319.68604
G1 F2400 E318.48604
G0 F12000 X146.84 Y149.15
G1 F2400 E319.68604
G1 F540 X146.39 Y149.02 E319.70008
G1 X145.73 Y149.02 E319.71405
G1 X145.27 Y148.90 E319.73244
;LAYER:19
G0 F12000 X144.77 Y149.32 Z4.10
;TYPE:WALL-OUTER
G1 F540 X144.77 Y155.68 E319.97911
G1 X160.23 Y155.68 E320.57839
G1 X160.23 Y149.32 E320.82506
G1 X157.73 Y149.32 E320.92193
G1 X157.73 Y148.73 E320.94456
G1 X160.77 Y148.73 E321.06212
G1 X160.77 Y156.27 E321.35405
G1 X144.23 Y156.27 E321.99471
G1 X144.23 Y148.73 E322.28664
G1 X147.27 Y148.73 E322.40420
G1 X147.27 Y149.32 E322.42683
G1 X144.77 Y149.32 E322.52370
G0 F12000 X144.60 Y149.65
;TYPE:FILL
G1 F540 X144.50 Y150.08 E322.53489
G1 X144.50 Y150.74 E322.54606
G1 X144.50 Y151.40 E322.55724
G1 X144.50 Y152.06 E322.56842
G1 X144.50 Y152.72 E322.57960
G1 X144.50 Y153.38 E322.59078
G1 X144.50 Y154.04 E322.60196
G1 X144.50 Y154.70 E322.61313
G1 X144.50 Y155.35 E322.62431
G1 X144.57 Y155.94 E322.63548
G1 X145.20 Y155.97 E322.64951
G1 X145.86 Y155.97 E322.66348
G1 X146.52 Y155.97 E322.67746
G1 X147.18 Y155.97 E322.69143
G1 X147.83 Y155.97 E322.70540
G1 X148.49 Y155.97 E322.71945
G1 X149.15 Y155.97 E322.73348
G1 X149.81 Y155.97 E322.74751
G1 X150.47 Y155.97 E322.76153
G1 X151.13 Y155.97 E322.77556
G1 X151.79 Y155.97 E322.78959
G1 X152.45 Y155.97 E322.80362
G1 X153.11 Y155.97 E322.81764
G1 X153.77 Y155.97 E322.83167
G1 X154.43 Y155.97 E322.84570
G1 X155.08 Y155.97 E322.85973
G1 X155.74 Y155.97 E322.87376
G1 X156.40 Y155.97 E322.88778
G1 X157.06 Y155.97 E322.90181
G1 X157.72 Y155.97 E322.91584
G1 X158.38 Y155.97 E322.92987
G1 X159.04 Y155.97 E322.94389
G1 X159.70 Y155.97 E322.95792
G1 X160.28 Y155.72 E322.97195
G1 X160.50 Y155.17 E322.98314
G1 X160.50 Y154.51 E322.99431
G1 X160.50 Y153.85 E323.00549
G1 X160.50 Y153.20 E323.01667
G1 X160.50 Y152.54 E323.02785
G1 X160.50 Y151.88 E323.03903
G1 X160.50 Y151.22 E323.05021
G1 X160.50 Y150.56 E323.06140
G1 X160.50 Y149.90 E323.07263
G1 X160.43 Y149.31 E323.08380
G1 X160.18 Y148.90 E323.09784
G1 X159.40 Y149.02 E323.11189
G1 X158.74 Y149.02 E323.12592
G1 X158.28 Y149.15 E323.14436
G1 F2400 E321.94436
G0 F12000 X146.68 Y148.90
G1 F2400 E323.14436
G1 F540 X146.22 Y149.02 E323.15839
G1 X145.56 Y149.02 E323.17237
G1 X144.90 Y149.02 E323.18634
G1 X144.40 Y149.20 E323.20692
;LAYER:20
G0 F12000 X144.77 Y149.32 Z4.30
;TYPE:WALL-OUTER
G1 F540 X144.77 Y155.68 E323.45359
G1 X160.23 Y155.68 E324.05286
G1 X160.23 Y149.32 E324.29953
G1 X157.73 Y149.32 E324.39640
G1 X157.73 Y148.73 E324.41903
G1 X160.77 Y148.73 E324.53659
G1 X160.77 Y156.27 E324.82852
G1 X144.23 Y156.27 E325.46918
G1 X144.23 Y148.73 E325.76111
G1 X147.27 Y148.73 E325.87867
G1 X147.27 Y149.32 E325.90130
G1 X144.77 Y149.32 E325.99817
G0 F12000 X144.87 Y149.15
;TYPE:FILL
G1 F540 X144.50 Y149.12 E326.01222
G1 X144.50 Y149.77 E326.02349
G1 X144.50 Y150.43 E326.03478
G1 X144.50 Y151.09 E326.04607
G1 X144.50 Y151.75 E326.05736
G1 X144.50 Y152.41 E326.06864
G1 X144.50 Y153.07 E326.07993
G1 X144.50 Y153.73 E326.09122
G1 X144.50 Y154.38 E326.10251
G1 X144.50 Y155.04 E326.11380
G1 X144.50 Y155.70 E326.12508
G1 X144.77 Y155.97 E326.13453
G1 X145.43 Y155.97 E326.14845
G1 X146.09 Y155.97 E326.16237
G1 X146.75 Y155.97 E326.17629
G1 X147.41 Y155.97 E326.19021
G1 X148.07 Y155.97 E326.20413
G1 X148.72 Y155.97 E326.21804
G1 X149.38 Y155.97 E326.23196
G1 X150.04 Y155.97 E326.24588
G1 X150.70 Y155.97 E326.25980
G1 X151.36 Y155.97 E326.27372
G1 X152.02 Y155.97 E326.28763
G1 X152.68 Y155.97 E326.30155
G1 X153.34 Y155.97 E326.31547
G1 X154.00 Y155.97 E326.32939
G1 X154.66 Y155.97 E326.34331
G1 X155.31 Y155.97 E326.35723
G1 X155.97 Y155.97 E326.37114
G1 X156.63 Y155.97 E326.38506
G1 X157.29 Y155.97 E326.39898
G1 X157.95 Y155.97 E326.41290
G1 X158.61 Y155.97 E326.42682
G1 X159.27 Y155.97 E326.44073
G1 X159.93 Y155.97 E326.45465
G1 X160.49 Y155.88 E326.46861
G1 X160.50 Y155.23 E326.47992
G1 X160.50 Y154.57 E326.49121
G1 X160.50 Y153.91 E326.50249
G1 X160.50 Y153.25 E326.51378
G1 X160.50 Y152.59 E326.52507
G1 X160.50 Y151.93 E326.53636
G1 X160.50 Y151.27 E326.54765
G1 X160.50 Y150.61 E326.55893
G1 X160.50 Y149.95 E326.57022
G1 X160.50 Y149.29 E326.58151
G1 X160.23 Y149.02 E326.59093
G1 X159.57 Y149.02 E326.60484
G1 X158.91 Y149.02 E326.61876
G1 X158.25 Y149.02 E326.63268
G1 X157.90 Y149.00 E326.64647
G1 F2400 E325.44647
G0 F12000 X146.84 Y149.15
G1 F2400 E326.64647
G1 F540 X146.39 Y149.02 E326.66051
G1 X145.73 Y149.02 E326.67448
G1 X145.27 Y148.90 E326.69287
;LAYER:21
G0 F12000 X144.77 Y149.32 Z4.50
;TYPE:WALL-OUTER
G1 F540 X144.77 Y155.68 E326.93954
G1 X160.23 Y155.68 E327.53882
G1 X160.23 Y149.32 E327.78549
G1 X157.73 Y149.32 E327.88236
G1 X157.73 Y148.73 E327.90499
G1 X160.77 Y148.73 E328.02255
G1 X160.77 Y156.27 E328.31448
G1 X144.23 Y156.27 E328.95514
G1 X144.23 Y148.73 E329.24706
G1 X147.27 Y148.73 E329.36463
G1 X147.27 Y149.32 E329.38725
G1 X144.77 Y149.32 E329.48413
G0 F12000 X144.60 Y149.65
;TYPE:FILL
G1 F540 X144.50 Y150.08 E329.49531
G1 X144.50 Y150.74 E329.50649
G1 X144.50 Y151.40 E329.51767
G1 X144.50 Y152.06 E329.52885
G1 X144.50 Y152.72 E329.54003
G1 X144.50 Y153.38 E329.55121
G1 X144.50 Y154.04 E329.56238
G1 X144.50 Y154.70 E329.57356
G1 X144.50 Y155.35 E329.58474
G1 X144.57 Y155.94 E329.59591
G1 X145.20 Y155.97 E329.60994
G1 X145.86 Y155.97 E329.62391
G1 X146.52 Y155.97 E329.63788
G1 X147.18 Y155.97 E329.65186
G1 X147.83 Y155.97 E329.66583
G1 X148.49 Y155.97 E329.67988
G1 X149.15 Y155.97 E329.69391
G1 X149.81 Y155.97 E329.70793
G1 X150.47 Y155.97 E329.72196
G1 X151.13 Y155.97 E329.73599
G1 X151.79 Y155.97 E329.75002
G1 X152.45 Y155.97 E329.76405
G1 X153.11 Y155.97 E329.77807
G1 X153.77 Y155.97 E329.79210
G1 X154.43 Y155.97 E329.80613
G1 X155.08 Y155.97 E329.82016
G1 X155.74 Y155.97 E329.83418
G1 X156.40 Y155.97 E329.84821
G1 X157.06 Y155.97 E329.86224
G1 X157.72 Y155.97 E329.87627
G1 X158.38 Y155.97 E329.89030
G1 X159.04 Y155.97 E329.90432
G1 X159.70 Y155.97 E329.91835
G1 X160.28 Y155.72 E329.93238
G1 X160.50 Y155.17 E329.94356
G1 X160.50 Y154.51 E329.95474
G1 X160.50 Y153.85 E329.96592
G1 X160.50 Y153.20 E329.97710
G1 X160.50 Y152.54 E329.98828
G1 X160.50 Y151.88 E329.99946
G1 X160.50 Y151.22 E330.01063
G1 X160.50 Y150.56 E330.02183
G1 X160.50 Y149.90 E330.03306
G1 X160.43 Y149.31 E330.04423
G1 X160.18 Y148.90 E330.05827
G1 X159.40 Y149.02 E330.07232
G1 X158.74 Y149.02 E330.08635
G1 X158.28 Y149.15 E330.10479
G1 F2400 E328.90479
G0 F12000 X146.68 Y148.90
G1 F2400 E330.10479
G1 F540 X146.22 Y149.02 E330.11882
G1 X145.56 Y149.02 E330.13280
G1 X144.90 Y149.02 E330.14677
G1 X144.40 Y149.20 E330.16734
;LAYER:22
G0 F12000 X144.77 Y149.32 Z4.70
;TYPE:WALL-OUTER
G1 F540 X144.77 Y155.68 E330.41401
G1 X160.23 Y155.68 E331.01329
G1 X160.23 Y149.32 E331.25996
G1 X157.73 Y149.32 E331.35683
G1 X157.73 Y148.73 E331.37946
G1 X160.77 Y148.73 E331.49702
G1 X160.77 Y156.27 E331.78895
G1 X144.23 Y156.27 E332.42961
G1 X144.23 Y148.73 E332.72154
G1 X147.27 Y148.73 E332.83910
G1 X147.27 Y149.32 E332.86173
G1 X144.77 Y149.32 E332.95860
G0 F12000 X144.87 Y149.15
;TYPE:FILL
G1 F540 X144.50 Y149.12 E332.97265
G1 X144.50 Y149.77 E332.98392
G1 X144.50 Y150.43 E332.99521
G1 X144.50 Y151.09 E333.00650
G1 X144.50 Y151.75 E333.01778
G1 X144.50 Y152.41 E333.02907
G1 X144.50 Y153.07 E333.04036
G1 X144.50 Y153.73 E333.05165
G1 X144.50 Y154.38 E333.06294
G1 X144.50 Y155.04 E333.07422
G1 X144.50 Y155.70 E333.08551
G1 X144.77 Y155.97 E333.09496
G1 X145.43 Y155.97 E333.10888
G1 X146.09 Y155.97 E333.12280
G1 X146.75 Y155.97 E333.13672
G1 X147.41 Y155.97 E333.15064
G1 X148.07 Y155.97 E333.16455
G1 X148.72 Y155.97 E333.17847
G1 X149.38 Y155.97 E333.19239
G1 X150.04 Y155.97 E333.20631
G1 X150.70 Y155.97 E333.22023
G1 X151.36 Y155.97 E333.23415
G1 X152.02 Y155.97 E333.24806
G1 X152.68 Y155.97 E333.26198
G1 X153.34 Y155.97 E333.27590
G1 X154.00 Y155.97 E333.28982
G1 X154.66 Y155.97 E333.30374
G1 X155.31 Y155.97 E333.31765
G1 X155.97 Y155.97 E333.33157
G1 X156.63 Y155.97 E333.34549
G1 X157.29 Y155.97 E333.35941
G1 X157.95 Y155.97 E333.37333
G1 X158.61 Y155.97 E333.38725
G1 X159.27 Y155.97 E333.40116
G1 X159.93 Y155.97 E333.41508
G1 X160.49 Y155.88 E333.42904
G1 X160.50 Y155.23 E333.44035
G1 X160.50 Y154.57 E333.45164
G1 X160.50 Y153.91 E333.46292
G1 X160.50 Y153.25 E333.47421
G1 X160.50 Y152.59 E333.48550
G1 X160.50 Y151.93 E333.49679
G1 X160.50 Y151.27 E333.50808
G1 X160.50 Y150.61 E333.51936
G1 X160.50 Y149.95 E333.53065
G1 X160.50 Y149.29 E333.54194
G1 X160.23 Y149.02 E333.55135
G1 X159.57 Y149.02 E333.56527
G1 X158.91 Y149.02 E333.57919
G1 X158.25 Y149.02 E333.59311
G1 X157.90 Y149.00 E333.60690
G1 F2400 E332.40690
G0 F12000 X146.84 Y149.15
G1 F2400 E333.60690
G1 F540 X146.39 Y149.02 E333.62094
G1 X145.73 Y149.02 E333.63491
G1 X145.27 Y148.90 E333.65330
;LAYER:23
G0 F12000 X144.77 Y149.32 Z4.90
;TYPE:WALL-OUTER
G1 F540 X144.77 Y155.68 E333.89997
G1 X160.23 Y155.68 E334.49925
G1 X160.23 Y149.32 E334.74592
G1 X157.73 Y149.32 E334.84279
G1 X157.73 Y148.73 E334.86542
G1 X160.77 Y148.73 E334.98298
G1 X160.77 Y156.27 E335.27491
G1 X144.23 Y156.27 E335.91557
G1 X144.23 Y148.73 E336.20749
G1 X147.27 Y148.73 E336.32505
G1 X147.27 Y149.32 E336.34768
G1 X144.77 Y149.32 E336.44455
G0 F12000 X144.60 Y149.65
;TYPE:FILL
G1 F540 X144.50 Y150.08 E336.45574
G1 X144.50 Y150.74 E336.46692
G1 X144.50 Y151.40 E336.47810
G1 X144.50 Y152.06 E336.48928
G1 X144.50 Y152.72 E336.50046
G1 X144.50 Y153.38 E336.51164
G1 X144.50 Y154.04 E336.52281
G1 X144.50 Y154.70 E336.53399
G1 X144.50 Y155.35 E336.54517
G1 X144.57 Y155.94 E336.55634
G1 X145.20 Y155.97 E336.57037
G1 X145.86 Y155.97 E336.58434
G1 X146.52 Y155.97 E336.59831
G1 X147.18 Y155.97 E336.61229
G1 X147.83 Y155.97 E336.62626
G1 X148.49 Y155.97 E336.64031
G1 X149.15 Y155.97 E336.65434
G1 X149.81 Y155.97 E336.66836
G1 X150.47 Y155.97 E336.68239
G1 X151.13 Y155.97 E336.69642
G1 X151.79 Y155.97 E336.71045
G1 X152.45 Y155.97 E336.72447
G1 X153.11 Y155.97 E336.73850
G1 X153.77 Y155.97 E336.75253
G1 X154.43 Y155.97 E336.76656
G1 X155.08 Y155.97 E336.78059
G1 X155.74 Y155.97 E336.79461
G1 X156.40 Y155.97 E336.80864
G1 X157.06 Y155.97 E336.82267
G1 X157.72 Y155.97 E336.83670
G1 X158.38 Y155.97 E336.85073
G1 X159.04 Y155.97 E336.86475
G1 X159.70 Y155.97 E336.87878
G1 X160.28 Y155.72 E336.89281
G1 X160.50 Y155.17 E336.90399
G1 X160.50 Y154.51 E336.91517
G1 X160.50 Y153.85 E336.92635
G1 X160.50 Y153.20 E336.93753
G1 X160.50 Y152.54 E336.94871
G1 X160.50 Y151.88 E336.95988
G1 X160.50 Y151.22 E336.97106
G1 X160.50 Y150.56 E336.98226
G1 X160.50 Y149.90 E336.99349
G1 X160.43 Y149.31 E337.00465
G1 X160.18 Y148.90 E337.01869
G1 X159.40 Y149.02 E337.03275
G1 X158.74 Y149.02 E337.04678
G1 X158.28 Y149.15 E337.06522
G1 F2400 E335.86522
G0 F12000 X146.68 Y148.90
G1 F2400 E337.06522
G1 F540 X146.22 Y149.02 E337.07925
G1 X145.56 Y149.02 E337.09323
G1 X144.90 Y149.02 E337.10720
G1 X144.40 Y149.20 E337.12777
;LAYER:24
G0 F12000 X144.77 Y149.32 Z5.10
;TYPE:WALL-OUTER
G1 F540 X144.77 Y155.68 E337.37444
G1 X160.23 Y155.68 E337.97372
G1 X160.23 Y149.32 E338.22039
G1 X157.73 Y149.32 E338.31726
G1 X157.73 Y148.73 E338.33989
G1 X160.77 Y148.73 E338.45745
G1 X160.77 Y156.27 E338.74938
G1 X144.23 Y156.27 E339.39004
G1 X144.23 Y148.73 E339.68197
G1 X147.27 Y148.73 E339.79953
G1 X147.27 Y149.32 E339.82216
G1 X144.77 Y149.32 E339.91903
G0 F12000 X144.87 Y149.15
;TYPE:FILL
G1 F540 X144.50 Y149.12 E339.93308
G1 X144.50 Y149.77 E339.94435
G1 X144.50 Y150.43 E339.95564
G1 X144.50 Y151.09 E339.96693
G1 X144.50 Y151.75 E339.97821
G1 X144.50 Y152.41 E339.98950
G1 X144.50 Y153.07 E340.00079
G1 X144.50 Y153.73 E340.01208
G1 X144.50 Y154.38 E340.02337
G1 X144.50 Y155.04 E340.03465
G1 X144.50 Y155.70 E340.04594
G1 X144.77 Y155.97 E340.05539
G1 X145.43 Y155.97 E340.06931
G1 X146.09 Y155.97 E340.08323
G1 X146.75 Y155.97 E340.09715
G1 X147.41 Y155.97 E340.11106
G1 X148.07 Y155.97 E340.12498
G1 X148.72 Y155.97 E340.13890
G1 X149.38 Y155.97 E340.15282
G1 X150.04 Y155.97 E340.16674
G1 X150.70 Y155.97 E340.18066
G1 X151.36 Y155.97 E340.19457
G1 X152.02 Y155.97 E340.20849
G1 X152.68 Y155.97 E340.22241
G1 X153.34 Y155.97 E340.23633
G1 X154.00 Y155.97 E340.25025
G1 X154.66 Y155.97 E340.26417
G1 X155.31 Y155.97 E340.27808
G1 X155.97 Y155.97 E340.29200
G1 X156.63 Y155.97 E340.30592
G1 X157.29 Y155.97 E340.31984
G1 X157.95 Y155.97 E340.33376
G1 X158.61 Y155.97 E340.34767
G1 X159.27 Y155.97 E340.36159
G1 X159.93 Y155.97 E340.37551
G1 X160.49 Y155.88 E340.38947
G1 X160.50 Y155.23 E340.40078
G1 X160.50 Y154.57 E340.41206
G1 X160.50 Y153.91 E340.42335
G1 X160.50 Y153.25 E340.43464
G1 X160.50 Y152.59 E340.44593
G1 X160.50 Y151.93 E340.45722
G1 X160.50 Y151.27 E340.46850
G1 X160.50 Y150.61 E340.47979
G1 X160.50 Y149.95 E340.49108
G1 X160.50 Y149.29 E340.50237
G1 X160.23 Y149.02 E340.51178
G1 X159.57 Y149.02 E340.52570
G1 X158.91 Y149.02 E340.53962
G1 X158.25 Y149.02 E340.55354
G1 X157.90 Y149.00 E340.56733
G1 F2400 E339.36733
G0 F12000 X146.84 Y149.15
G1 F2400 E340.56733
G1 F540 X146.39 Y149.02 E340.58137
G1 X145.73 Y149.02 E340.59534
G1 X145.27 Y148.90 E340.61373
M107
G1 F2400 E339.41373
G0 F12000 X145.27 Y148.90 Z10.06
;-- END GCODE --
M104 S0     ;extruder heater off
M140 S0     ;heated bed heater off (if you have it)
G91         ;relative positioning
G1 E-1 F300   ;retract the filament a bit before lifting the nozzle, to release some of the pressure
G1 Z+0.5 E-5 X-20 Y-20 F12000 ;move Z up a bit and retract filament even more
G28 X0 Y0     ;move X/Y to min endstops, so the head is out of the way
M84           ;steppers off
G90           ;absolute positioning
;CURA_PROFILE_STRING:eNrtWk1v20gSvTLG/og+JthIS1LSOBmBh0lie7BIZhcjLSbxhWiRLak3JJtoNi3Lhv77vGp+iJLljDMxspOsdLDDYlV1VfWrV2VECV8LHS6FXCxN4PZ9Z8WTJDRLGX3MRFEEXn/oaGE0j4xUWSgyPktEMNWlcAqVyDhMrIOtgdt/4cwlfMQiK6RZB57rOpm6uUlEWMgbAYWhk2uZmbDIhYiDgVs/GpHmQnNTahH4/gGpHxwQDg4Jh61wJuIdx6euU5R5rrQJzq6EXq+WQgsnT7iZK52GPF6KAokGr7RMG80wLnkSimujy+qdMktnJXMRGrUSOjjnSSE6gvBKJWUqAm/kKHWDtJdSJHGthtrwVCCyWOK3gbnXPx3dFVOyd4SDQ8JhVzhP1IpK3ne711ZVergn5akqM4Pz/a7UJtu8+qE/6r5LZRbi4UoksNp5E6l0JrNFhYxdC5nuVA9B7Jy3VDnJnJkyRqU7SBo4Fl1uuJKxWYZzWChtAaVm/xURECSzj9ZY4S4TntvgIUDlqzDrzH23c0KF2LokI0dmFq7VM6nJrBDG3RdcdwSRUomtRQ1+SZc9dOa8aZC47pCPEuhJZCZQH1vPWrTgeTCAo+qpqVEisoVZAjZ0Bjmblwis7c1KVkVBNWifwpRfW0kb1xxSAB5R1cKl4GhVOTc1CqveNSh9p5Wr+lQSW5O6qgTkphXMOhfBW2RUtCKeLUAJg7axQmtrjx9thddrALYwPIuIAk5b+U1XTAflUvOEiKKOVKY5qCNVcSOZoTW7RR0AiHyOMnK9kFkwIpDTs1Upch4RLr1GOuOF2APZVk4mFms2RCsHiQgN5O0a+fsvu5b1Sy413TOea0FR1rqEmiLwUeRrwF9rCciEZWZ7ktgXNQ55cw/3q8xaSunqIA2ViyycSVMcUkAnEjNfoTZGmmhJ1anU8qREAVFVdMQiaHosEpRkeB30vD3RmkRRqTURD6Bi2/tvuExt+ouILmzc67HJ9Kdfp+zi9b/enLFe72Q8SWQkYga6ZVNkwX5i7zhFIQo2EVril9cqcfMju435ekM/jcAv6rXNyfgVL2TE0JYG4Rc/srdUUla1CkySzlTbsN9QMejc7o62DTsHTiHuTiu4/jfNDTahxsLLzqTasEmFWYhr9EL915bJWpt94t2wjtKbGu27ehXftqdTlu3hdcrnNcUz3HBchV1Rfm2bdkSrKvNFxypShela0fPm5J3n/sAm/mj0hI3txbGVNEtmloKBXpjKTi58j9WfMcaNRtmveFKK4uTipdu+4TNQSGkEyxXKiIxwLVvnVuU+9y9q3yAbZhQTWVyAl+Def/nkyRhXplaFRQsvjeolAqyekPcLj70HVbIPcH/poevZ+W2X9DdsXOGU8SxmlXuc24x6FqtVxrxRmlKcL9nk9s4WAQ8/C27YVDGSImGfnbU5bz/jG6GVdW6nXAzgVlROMZ5j9rCzwZ7ZuNZkAzdNmZozYmyGxKOPn38M4wsus6ogpyP2waeKHCiHFrYKs3KxENqqY816iJotM/2gQh8y6BR6JhZVLHtqDi62wwpnv7zZcgIuYMgm7k5lqJs5OVXzORSGbqtg5XRQ3FFhT+WcrVXJljiTSfMMZfS2pdMC1w7O28EngjzrIdCB61Y6th0rdDZtwxl4FGcBMoLRAIWh1ahW2ucEWTgXmB6sUKmgu7Qw06AYYIgOufy72x/hqBF730PBP/QOVd3W/JKVeX0k1bKJqI0G4M8AZXKLvnkPX26ne97/4wOFgwWg7aLnCMrGQwsAkwVTpWlCXPH1ybsXwy7CCiNyoL+wRe/0970tPkbXKIRHwwTts9g4ts395qb/iMfr96/W7HWp+cGhgMnddx80NpjvekN24bOKRH+mlJ/+s0zW9sWzrzA1vhpvj995uJ2Gs/b+yAGa/pNhIbf2AASPY2oN9AkYj9qmo8tocSF31IEHKfB+VwfdvGRT75An/0+5cr88qC8bYKfb1rg7vqhJtn14bxNapctup17eVfHuG2KfmlxTjx38jCcrWu3oFLL0wSUNrX7JFPPcw0PMe9QhVp3Vuz38N+nmZOo+KOm51IX5ltLevXhQCqjaYp9GTgru4QuMl4y9ff2GFZEWIgNAvdOK7aDT7/dpyLbce4Zbv3iNf1bzddpO0DvBHR65ZON9ps3w/kP+xNj+xOchE/1Txt/sqL8/qcfZAfacfmIj2NP8nP1g8ND94DixjxP7+5rY/v/jxD6uKcc1ZW9NGfwv1xSy8Y+rzXG1efzVZnhcbf5Sq43/eKvNcUv6alvS4EGzc4igv6OF4WGr4eD7Svq4Gh5Xw73VcPitrYZkMziuk8d18nHXyfobMt0vVLTC7f+mVl/w2VGyko6GFpixkehHxVXg4BIqmjmrcdkurBX5zIRZoTNt0vWXO1oOshdgLxqSVvqcrZYwaDvdLhNpmRiZJy1d6KJ/Mp4uUVQ6jYqL9cai3KKInE6fZs8c1MT8leLjc2rAJrzfAc26CaY=
;CURA_PROFILE_STRING:eNrtWk1v20gSvTLG/og+JthIS1LSOBmBh0lie7BIZhcjLSbxhWiRLak3JJtoNi3Lhv77vGp+iJLljDMxspOsdLDDYlV1VfWrV2VECV8LHS6FXCxN4PZ9Z8WTJDRLGX3MRFEEXn/oaGE0j4xUWSgyPktEMNWlcAqVyDhMrIOtgdt/4cwlfMQiK6RZB57rOpm6uUlEWMgbAYWhk2uZmbDIhYiDgVs/GpHmQnNTahH4/gGpHxwQDg4Jh61wJuIdx6euU5R5rrQJzq6EXq+WQgsnT7iZK52GPF6KAokGr7RMG80wLnkSimujy+qdMktnJXMRGrUSOjjnSSE6gvBKJWUqAm/kKHWDtJdSJHGthtrwVCCyWOK3gbnXPx3dFVOyd4SDQ8JhVzhP1IpK3ne711ZVergn5akqM4Pz/a7UJtu8+qE/6r5LZRbi4UoksNp5E6l0JrNFhYxdC5nuVA9B7Jy3VDnJnJkyRqU7SBo4Fl1uuJKxWYZzWChtAaVm/xURECSzj9ZY4S4TntvgIUDlqzDrzH23c0KF2LokI0dmFq7VM6nJrBDG3RdcdwSRUomtRQ1+SZc9dOa8aZC47pCPEuhJZCZQH1vPWrTgeTCAo+qpqVEisoVZAjZ0Bjmblwis7c1KVkVBNWifwpRfW0kb1xxSAB5R1cKl4GhVOTc1CqveNSh9p5Wr+lQSW5O6qgTkphXMOhfBW2RUtCKeLUAJg7axQmtrjx9thddrALYwPIuIAk5b+U1XTAflUvOEiKKOVKY5qCNVcSOZoTW7RR0AiHyOMnK9kFkwIpDTs1Upch4RLr1GOuOF2APZVk4mFms2RCsHiQgN5O0a+fsvu5b1Sy413TOea0FR1rqEmiLwUeRrwF9rCciEZWZ7ktgXNQ55cw/3q8xaSunqIA2ViyycSVMcUkAnEjNfoTZGmmhJ1anU8qREAVFVdMQiaHosEpRkeB30vD3RmkRRqTURD6Bi2/tvuExt+ouILmzc67HJ9Kdfp+zi9b/enLFe72Q8SWQkYga6ZVNkwX5i7zhFIQo2EVril9cqcfMju435ekM/jcAv6rXNyfgVL2TE0JYG4Rc/srdUUla1CkySzlTbsN9QMejc7o62DTsHTiHuTiu4/jfNDTahxsLLzqTasEmFWYhr9EL915bJWpt94t2wjtKbGu27ehXftqdTlu3hdcrnNcUz3HBchV1Rfm2bdkSrKvNFxypShela0fPm5J3n/sAm/mj0hI3txbGVNEtmloKBXpjKTi58j9WfMcaNRtmveFKK4uTipdu+4TNQSGkEyxXKiIxwLVvnVuU+9y9q3yAbZhQTWVyAl+Def/nkyRhXplaFRQsvjeolAqyekPcLj70HVbIPcH/poevZ+W2X9DdsXOGU8SxmlXuc24x6FqtVxrxRmlKcL9nk9s4WAQ8/C27YVDGSImGfnbU5bz/jG6GVdW6nXAzgVlROMZ5j9rCzwZ7ZuNZkAzdNmZozYmyGxKOPn38M4wsus6ogpyP2waeKHCiHFrYKs3KxENqqY816iJotM/2gQh8y6BR6JhZVLHtqDi62wwpnv7zZcgIuYMgm7k5lqJs5OVXzORSGbqtg5XRQ3FFhT+WcrVXJljiTSfMMZfS2pdMC1w7O28EngjzrIdCB61Y6th0rdDZtwxl4FGcBMoLRAIWh1ahW2ucEWTgXmB6sUKmgu7Qw06AYYIgOufy72x/hqBF730PBP/QOVd3W/JKVeX0k1bKJqI0G4M8AZXKLvnkPX26ne97/4wOFgwWg7aLnCMrGQwsAkwVTpWlCXPH1ybsXwy7CCiNyoL+wRe/0970tPkbXKIRHwwTts9g4ts395qb/iMfr96/W7HWp+cGhgMnddx80NpjvekN24bOKRH+mlJ/+s0zW9sWzrzA1vhpvj995uJ2Gs/b+yAGa/pNhIbf2AASPY2oN9AkYj9qmo8tocSF31IEHKfB+VwfdvGRT75An/0+5cr88qC8bYKfb1rg7vqhJtn14bxNapctup17eVfHuG2KfmlxTjx38jCcrWu3oFLL0wSUNrX7JFPPcw0PMe9QhVp3Vuz38N+nmZOo+KOm51IX5ltLevXhQCqjaYp9GTgru4QuMl4y9ff2GFZEWIgNAvdOK7aDT7/dpyLbce4Zbv3iNf1bzddpO0DvBHR65ZON9ps3w/kP+xNj+xOchE/1Txt/sqL8/qcfZAfacfmIj2NP8nP1g8ND94DixjxP7+5rY/v/jxD6uKcc1ZW9NGfwv1xSy8Y+rzXG1efzVZnhcbf5Sq43/eKvNcUv6alvS4EGzc4igv6OF4WGr4eD7Svq4Gh5Xw73VcPitrYZkMziuk8d18nHXyfobMt0vVLTC7f+mVl/w2VGyko6GFpixkehHxVXg4BIqmjmrcdkurBX5zIRZoTNt0vWXO1oOshdgLxqSVvqcrZYwaDvdLhNpmRiZJy1d6KJ/Mp4uUVQ6jYqL9cai3KKInE6fZs8c1MT8leLjc2rAJrzfAc26CaY=

