;-- START GCODE --
;Sliced for Type A Machines Series 1
;Sliced at: Mon 21-11-2016 12:05:50
;Basic settings: Layer height: 0.2 Walls: 1.2 Fill: 20
;Print Speed: 40 Support: 0
;Retraction Speed: 40 Retraction Distance: 1.2
;Print time: #P_TIME#
;Filament used: #F_AMNT#m #F_WGHT#g
;Filament cost: #F_COST#
M106 S255	 ;start with the fan on
G21        ;metric values
G90        ;absolute positioning
M106 S255    ;start with the fan on
G28     ;move to endstops
G29		;allows for auto-levelling
G1 X150 Y5  Z15.0 F12000 ;center and move the platform down 15mm
M109 S220 ;Heat To temp
G92 E0                  ;zero the extruded length
G1 F200 E30              ;extrude 30mm of feed stock
G92 E0                  ;zero the extruded length again
G1 X175 Y25  Z0 F12000 ;remove bugger
G1 X220 F12000 ;remove bugger
G1 X150 Y150  Z15 F12000 ;recenter and begin
G1 F12000

;Layer count: 30
;LAYER:0
M106 S255
G0 F12000 X127.47 Y127.45 Z0.30
;TYPE:SKIRT
G1 F2400 X127.37 Y127.56 E0.00727
G1 X127.26 Y127.69 E0.01593
G1 X127.16 Y127.81 E0.02358
G1 X127.09 Y127.91 E0.02988
G1 X126.99 Y128.07 E0.03938
G1 X126.93 Y128.18 E0.04553
G1 X126.86 Y128.32 E0.05336
G1 X126.79 Y128.47 E0.06135
G1 X126.74 Y128.60 E0.06830
G1 X126.70 Y128.73 E0.07534
G1 X126.65 Y128.90 E0.08430
G1 X126.62 Y129.04 E0.09136
G1 X126.59 Y129.18 E0.09856
G1 X126.57 Y129.33 E0.10604
G1 X126.56 Y129.51 E0.11505
G1 X126.56 Y129.66 E0.12259
G1 X126.56 Y129.77 E0.12798
G1 X126.57 Y129.95 E0.13693
G1 X126.59 Y130.10 E0.14437
G1 X126.61 Y130.25 E0.15176
G1 X126.65 Y130.41 E0.16015
G1 X126.68 Y130.53 E0.16634
G1 X126.74 Y130.69 E0.17491
G1 X126.79 Y130.82 E0.18184
G1 X126.85 Y130.96 E0.18941
G1 X126.92 Y131.10 E0.19711
G1 X126.99 Y131.24 E0.20491
G1 X127.08 Y131.37 E0.21312
G1 X127.15 Y131.48 E0.21946
G1 X127.25 Y131.61 E0.22771
G1 X127.36 Y131.73 E0.23556
G1 X127.45 Y131.83 E0.24244
G1 X127.56 Y131.93 E0.24999
G1 X127.70 Y132.06 E0.25929
G1 X127.78 Y132.11 E0.26409
G1 X134.76 Y137.35 E0.69971
G1 X134.76 Y167.42 E2.19975
G1 X127.69 Y172.95 E2.64758
G1 X127.58 Y173.05 E2.65519
G1 X127.47 Y173.15 E2.66250
G1 X127.37 Y173.26 E2.66976
G1 X127.26 Y173.39 E2.67843
G1 X127.16 Y173.51 E2.68607
G1 X127.09 Y173.61 E2.69237
G1 X126.99 Y173.77 E2.70188
G1 X126.93 Y173.88 E2.70802
G1 X126.86 Y174.02 E2.71586
G1 X126.79 Y174.17 E2.72385
G1 X126.74 Y174.30 E2.73080
G1 X126.70 Y174.43 E2.73784
G1 X126.65 Y174.60 E2.74679
G1 X126.62 Y174.74 E2.75386
G1 X126.59 Y174.88 E2.76105
G1 X126.57 Y175.03 E2.76854
G1 X126.56 Y175.21 E2.77755
G1 X126.56 Y175.36 E2.78508
G1 X126.56 Y175.47 E2.79047
G1 X126.57 Y175.65 E2.79943
G1 X126.59 Y175.80 E2.80687
G1 X126.61 Y175.94 E2.81426
G1 X126.65 Y176.11 E2.82264
G1 X126.68 Y176.23 E2.82884
G1 X126.74 Y176.39 E2.83741
G1 X126.79 Y176.52 E2.84434
G1 X126.85 Y176.66 E2.85191
G1 X126.92 Y176.80 E2.85961
G1 X126.99 Y176.93 E2.86740
G1 X127.08 Y177.07 E2.87561
G1 X127.15 Y177.18 E2.88195
G1 X127.25 Y177.31 E2.89020
G1 X127.36 Y177.43 E2.89806
G1 X127.45 Y177.53 E2.90494
G1 X127.56 Y177.63 E2.91249
G1 X127.69 Y177.74 E2.92084
G1 X127.81 Y177.84 E2.92851
G1 X127.91 Y177.91 E2.93481
G1 X128.07 Y178.01 E2.94432
G1 X128.18 Y178.07 E2.95046
G1 X128.33 Y178.15 E2.95868
G1 X128.45 Y178.20 E2.96551
G1 X128.61 Y178.26 E2.97391
G1 X128.73 Y178.30 E2.98043
G1 X128.91 Y178.35 E2.98943
G1 X129.04 Y178.38 E2.99630
G1 X129.18 Y178.41 E3.00349
G1 X129.33 Y178.43 E3.01098
G1 X129.51 Y178.44 E3.01998
G1 X129.67 Y178.44 E3.02792
G1 X129.77 Y178.44 E3.03291
G1 X129.95 Y178.43 E3.04186
G1 X130.10 Y178.41 E3.04960
G1 X130.25 Y178.39 E3.05669
G1 X130.41 Y178.35 E3.06508
G1 X130.53 Y178.32 E3.07127
G1 X130.70 Y178.26 E3.08042
G1 X130.83 Y178.21 E3.08710
G1 X130.96 Y178.15 E3.09434
G1 X131.11 Y178.08 E3.10249
G1 X131.24 Y178.01 E3.10984
G1 X131.37 Y177.92 E3.11805
G1 X131.48 Y177.85 E3.12439
G1 X131.61 Y177.75 E3.13264
G1 X131.73 Y177.64 E3.14049
G1 X131.83 Y177.55 E3.14737
G1 X131.94 Y177.43 E3.15531
G1 X132.06 Y177.30 E3.16422
G1 X132.12 Y177.21 E3.16966
G1 X137.35 Y170.24 E3.60464
G1 X167.42 Y170.24 E5.10468
G1 X172.95 Y177.30 E5.55230
G1 X173.06 Y177.43 E5.56040
G1 X173.15 Y177.53 E5.56743
G1 X173.26 Y177.63 E5.57498
G1 X173.39 Y177.74 E5.58333
G1 X173.51 Y177.84 E5.59100
G1 X173.61 Y177.91 E5.59730
G1 X173.77 Y178.01 E5.60681
G1 X173.88 Y178.07 E5.61295
G1 X174.03 Y178.15 E5.62116
G1 X174.15 Y178.20 E5.62800
G1 X174.31 Y178.26 E5.63640
G1 X174.43 Y178.30 E5.64292
G1 X174.61 Y178.35 E5.65192
G1 X174.74 Y178.38 E5.65878
G1 X174.88 Y178.41 E5.66598
G1 X175.03 Y178.43 E5.67346
G1 X175.21 Y178.44 E5.68247
G1 X175.37 Y178.44 E5.69046
G1 X175.47 Y178.44 E5.69540
G1 X175.65 Y178.43 E5.70435
G1 X175.80 Y178.41 E5.71209
G1 X175.94 Y178.39 E5.71918
G1 X176.11 Y178.35 E5.72757
G1 X176.23 Y178.32 E5.73376
G1 X176.40 Y178.26 E5.74291
G1 X176.53 Y178.21 E5.74959
G1 X176.66 Y178.15 E5.75683
G1 X176.81 Y178.08 E5.76498
G1 X176.93 Y178.01 E5.77233
G1 X177.07 Y177.92 E5.78054
G1 X177.18 Y177.85 E5.78687
G1 X177.31 Y177.75 E5.79513
G1 X177.43 Y177.64 E5.80298
G1 X177.53 Y177.55 E5.80986
G1 X177.64 Y177.43 E5.81780
G1 X177.74 Y177.31 E5.82579
G1 X177.84 Y177.19 E5.83344
G1 X177.91 Y177.09 E5.83974
G1 X178.01 Y176.93 E5.84924
G1 X178.07 Y176.82 E5.85539
G1 X178.15 Y176.67 E5.86360
G1 X178.20 Y176.55 E5.87043
G1 X178.26 Y176.39 E5.87884
G1 X178.30 Y176.27 E5.88535
G1 X178.35 Y176.09 E5.89436
G1 X178.38 Y175.96 E5.90122
G1 X178.41 Y175.82 E5.90841
G1 X178.43 Y175.67 E5.91590
G1 X178.44 Y175.49 E5.92496
G1 X178.44 Y175.32 E5.93329
G1 X178.44 Y175.21 E5.93858
G1 X178.43 Y175.05 E5.94679
G1 X178.41 Y174.89 E5.95493
G1 X178.39 Y174.75 E5.96161
G1 X178.35 Y174.58 E5.97072
G1 X178.31 Y174.45 E5.97724
G1 X178.27 Y174.32 E5.98412
G1 X178.21 Y174.17 E5.99214
G1 X178.15 Y174.04 E5.99927
G1 X178.08 Y173.89 E6.00741
G1 X178.01 Y173.76 E6.01476
G1 X177.92 Y173.63 E6.02297
G1 X177.85 Y173.52 E6.02931
G1 X177.75 Y173.39 E6.03756
G1 X177.64 Y173.27 E6.04574
G1 X177.55 Y173.17 E6.05230
G1 X177.44 Y173.07 E6.05985
G1 X177.30 Y172.94 E6.06915
G1 X177.22 Y172.89 E6.07395
G1 X170.24 Y167.65 E6.50956
G1 X170.24 Y137.58 E8.00961
G1 X177.31 Y132.05 E8.45744
G1 X177.43 Y131.94 E8.46533
G1 X177.53 Y131.85 E8.47235
G1 X177.64 Y131.73 E8.48029
G1 X177.74 Y131.61 E8.48828
G1 X177.84 Y131.49 E8.49593
G1 X177.91 Y131.39 E8.50223
G1 X178.01 Y131.23 E8.51174
G1 X178.07 Y131.12 E8.51788
G1 X178.15 Y130.97 E8.52609
G1 X178.20 Y130.85 E8.53293
G1 X178.26 Y130.69 E8.54133
G1 X178.30 Y130.57 E8.54784
G1 X178.35 Y130.39 E8.55685
G1 X178.38 Y130.26 E8.56371
G1 X178.41 Y130.12 E8.57090
G1 X178.43 Y129.97 E8.57839
G1 X178.44 Y129.79 E8.58745
G1 X178.44 Y129.62 E8.59578
G1 X178.44 Y129.51 E8.60107
G1 X178.43 Y129.35 E8.60928
G1 X178.41 Y129.19 E8.61742
G1 X178.39 Y129.06 E8.62411
G1 X178.35 Y128.88 E8.63321
G1 X178.31 Y128.75 E8.63973
G1 X178.27 Y128.62 E8.64661
G1 X178.21 Y128.47 E8.65463
G1 X178.15 Y128.34 E8.66176
G1 X178.08 Y128.19 E8.66991
G1 X178.01 Y128.07 E8.67726
G1 X177.92 Y127.93 E8.68546
G1 X177.85 Y127.82 E8.69180
G1 X177.75 Y127.69 E8.70006
G1 X177.64 Y127.57 E8.70823
G1 X177.55 Y127.47 E8.71479
G1 X177.44 Y127.37 E8.72234
G1 X177.31 Y127.26 E8.73072
G1 X177.19 Y127.16 E8.73837
G1 X177.09 Y127.09 E8.74467
G1 X176.93 Y126.99 E8.75418
G1 X176.82 Y126.93 E8.76032
G1 X176.67 Y126.85 E8.76853
G1 X176.53 Y126.79 E8.77614
G1 X176.40 Y126.74 E8.78309
G1 X176.27 Y126.70 E8.79024
G1 X176.09 Y126.65 E8.79929
G1 X175.96 Y126.62 E8.80616
G1 X175.82 Y126.59 E8.81335
G1 X175.67 Y126.57 E8.82084
G1 X175.49 Y126.56 E8.82984
G1 X175.33 Y126.56 E8.83778
G1 X175.23 Y126.56 E8.84277
G1 X175.05 Y126.57 E8.85172
G1 X174.90 Y126.59 E8.85946
G1 X174.75 Y126.61 E8.86655
G1 X174.59 Y126.65 E8.87494
G1 X174.47 Y126.68 E8.88113
G1 X174.30 Y126.74 E8.89028
G1 X174.17 Y126.79 E8.89696
G1 X174.04 Y126.85 E8.90420
G1 X173.89 Y126.92 E8.91235
G1 X173.76 Y126.99 E8.91970
G1 X173.63 Y127.08 E8.92791
G1 X173.53 Y127.15 E8.93386
G1 X173.39 Y127.25 E8.94250
G1 X173.27 Y127.36 E8.95021
G1 X173.17 Y127.45 E8.95723
G1 X173.07 Y127.56 E8.96450
G1 X172.95 Y127.70 E8.97373
G1 X172.89 Y127.78 E8.97863
G1 X167.65 Y134.76 E9.41450
G1 X137.58 Y134.76 E10.91454
G1 X132.05 Y127.69 E11.36248
G1 X131.94 Y127.57 E11.37072
G1 X131.85 Y127.47 E11.37729
G1 X131.74 Y127.37 E11.38484
G1 X131.61 Y127.26 E11.39322
G1 X131.49 Y127.16 E11.40086
G1 X131.39 Y127.09 E11.40716
G1 X131.23 Y126.99 E11.41667
G1 X131.12 Y126.93 E11.42282
G1 X130.97 Y126.85 E11.43103
G1 X130.83 Y126.79 E11.43864
G1 X130.70 Y126.74 E11.44559
G1 X130.57 Y126.70 E11.45274
G1 X130.39 Y126.65 E11.46179
G1 X130.26 Y126.62 E11.46865
G1 X130.12 Y126.59 E11.47584
G1 X129.97 Y126.57 E11.48333
G1 X129.79 Y126.56 E11.49234
G1 X129.63 Y126.56 E11.50027
G1 X129.53 Y126.56 E11.50526
G1 X129.35 Y126.57 E11.51422
G1 X129.20 Y126.59 E11.52196
G1 X129.06 Y126.61 E11.52905
G1 X128.89 Y126.65 E11.53743
G1 X128.77 Y126.68 E11.54363
G1 X128.60 Y126.74 E11.55278
G1 X128.47 Y126.79 E11.55946
G1 X128.34 Y126.85 E11.56670
G1 X128.19 Y126.92 E11.57484
G1 X128.07 Y126.99 E11.58220
G1 X127.93 Y127.08 E11.59040
G1 X127.83 Y127.15 E11.59635
G1 X127.69 Y127.25 E11.60500
G1 X127.58 Y127.36 E11.61271
G1 X127.47 Y127.45 E11.61973
G0 F12000 X127.19 Y127.17
G1 F2400 X127.07 Y127.30 E11.62848
G1 X126.95 Y127.43 E11.63732
G1 X126.84 Y127.58 E11.64656
G1 X126.75 Y127.70 E11.65433
G1 X126.66 Y127.85 E11.66290
G1 X126.57 Y128.00 E11.67146
G1 X126.49 Y128.16 E11.68029
G1 X126.42 Y128.31 E11.68902
G1 X126.36 Y128.47 E11.69743
G1 X126.31 Y128.62 E11.70511
G1 X126.26 Y128.79 E11.71427
G1 X126.22 Y128.97 E11.72307
G1 X126.20 Y129.13 E11.73118
G1 X126.17 Y129.29 E11.73952
G1 X126.16 Y129.48 E11.74893
G1 X126.16 Y129.68 E11.75881
G1 X126.16 Y129.79 E11.76435
G1 X126.17 Y129.99 E11.77415
G1 X126.19 Y130.16 E11.78300
G1 X126.22 Y130.32 E11.79085
G1 X126.27 Y130.52 E11.80122
G1 X126.30 Y130.64 E11.80748
G1 X126.36 Y130.82 E11.81688
G1 X126.42 Y131.00 E11.82623
G1 X126.48 Y131.12 E11.83320
G1 X126.57 Y131.30 E11.84286
G1 X126.65 Y131.43 E11.85077
G1 X126.75 Y131.59 E11.86003
G1 X126.85 Y131.74 E11.86887
G1 X126.94 Y131.85 E11.87631
G1 X127.06 Y131.99 E11.88543
G1 X127.17 Y132.11 E11.89351
G1 X127.30 Y132.23 E11.90227
G1 X127.44 Y132.36 E11.91203
G1 X127.55 Y132.44 E11.91863
G1 X134.36 Y137.55 E12.34370
G1 X134.36 Y167.22 E13.82404
G1 X127.43 Y172.65 E14.26313
G1 X127.31 Y172.75 E14.27119
G1 X127.19 Y172.87 E14.27941
G1 X127.07 Y172.99 E14.28795
G1 X126.95 Y173.13 E14.29701
G1 X126.84 Y173.28 E14.30625
G1 X126.75 Y173.40 E14.31401
G1 X126.66 Y173.55 E14.32258
G1 X126.57 Y173.70 E14.33114
G1 X126.49 Y173.85 E14.33998
G1 X126.42 Y174.01 E14.34871
G1 X126.36 Y174.17 E14.35711
G1 X126.31 Y174.32 E14.36480
G1 X126.26 Y174.49 E14.37396
G1 X126.22 Y174.67 E14.38276
G1 X126.20 Y174.83 E14.39086
G1 X126.17 Y174.99 E14.39921
G1 X126.16 Y175.18 E14.40861
G1 X126.16 Y175.38 E14.41849
G1 X126.16 Y175.49 E14.42403
G1 X126.17 Y175.69 E14.43384
G1 X126.19 Y175.86 E14.44268
G1 X126.22 Y176.02 E14.45053
G1 X126.27 Y176.22 E14.46090
G1 X126.30 Y176.34 E14.46716
G1 X126.36 Y176.52 E14.47656
G1 X126.42 Y176.69 E14.48591
G1 X126.48 Y176.82 E14.49288
G1 X126.57 Y177.00 E14.50254
G1 X126.65 Y177.13 E14.51045
G1 X126.75 Y177.29 E14.51971
G1 X126.85 Y177.44 E14.52856
G1 X126.94 Y177.55 E14.53599
G1 X127.06 Y177.69 E14.54512
G1 X127.17 Y177.81 E14.55320
G1 X127.30 Y177.93 E14.56195
G1 X127.43 Y178.05 E14.57079
G1 X127.58 Y178.16 E14.58003
G1 X127.70 Y178.25 E14.58780
G1 X127.85 Y178.34 E14.59637
G1 X127.99 Y178.42 E14.60459
G1 X128.15 Y178.51 E14.61365
G1 X128.32 Y178.58 E14.62256
G1 X128.45 Y178.63 E14.62993
G1 X128.63 Y178.69 E14.63935
G1 X128.79 Y178.74 E14.64774
G1 X128.97 Y178.78 E14.65654
G1 X129.13 Y178.80 E14.66464
G1 X129.29 Y178.82 E14.67299
G1 X129.48 Y178.84 E14.68240
G1 X129.68 Y178.84 E14.69228
G1 X129.79 Y178.84 E14.69782
G1 X129.99 Y178.83 E14.70762
G1 X130.16 Y178.81 E14.71646
G1 X130.32 Y178.78 E14.72431
G1 X130.52 Y178.73 E14.73469
G1 X130.65 Y178.70 E14.74115
G1 X130.82 Y178.64 E14.75035
G1 X131.00 Y178.57 E14.75970
G1 X131.12 Y178.52 E14.76667
G1 X131.30 Y178.43 E14.77633
G1 X131.43 Y178.35 E14.78424
G1 X131.59 Y178.25 E14.79350
G1 X131.74 Y178.15 E14.80234
G1 X131.85 Y178.06 E14.80978
G1 X131.99 Y177.94 E14.81890
G1 X132.11 Y177.83 E14.82698
G1 X132.23 Y177.70 E14.83573
G1 X132.36 Y177.56 E14.84550
G1 X132.44 Y177.45 E14.85235
G1 X137.55 Y170.64 E15.27717
G1 X167.22 Y170.64 E16.75751
G1 X172.65 Y177.57 E17.19660
G1 X172.75 Y177.69 E17.20466
G1 X172.87 Y177.81 E17.21288
G1 X173.00 Y177.93 E17.22163
G1 X173.13 Y178.05 E17.23048
G1 X173.28 Y178.16 E17.23972
G1 X173.40 Y178.25 E17.24748
G1 X173.55 Y178.34 E17.25605
G1 X173.69 Y178.42 E17.26427
G1 X173.85 Y178.51 E17.27333
G1 X174.01 Y178.58 E17.28224
G1 X174.15 Y178.63 E17.28962
G1 X174.33 Y178.69 E17.29904
G1 X174.49 Y178.74 E17.30743
G1 X174.67 Y178.78 E17.31622
G1 X174.83 Y178.80 E17.32433
G1 X174.99 Y178.82 E17.33268
G1 X175.18 Y178.84 E17.34203
G1 X175.38 Y178.84 E17.35201
G1 X175.49 Y178.84 E17.35750
G1 X175.69 Y178.83 E17.36731
G1 X175.86 Y178.81 E17.37615
G1 X176.02 Y178.78 E17.38400
G1 X176.22 Y178.73 E17.39437
G1 X176.34 Y178.70 E17.40083
G1 X176.52 Y178.64 E17.41003
G1 X176.69 Y178.57 E17.41938
G1 X176.82 Y178.52 E17.42635
G1 X177.00 Y178.43 E17.43601
G1 X177.13 Y178.35 E17.44392
G1 X177.29 Y178.25 E17.45318
G1 X177.44 Y178.15 E17.46203
G1 X177.55 Y178.06 E17.46946
G1 X177.69 Y177.94 E17.47858
G1 X177.81 Y177.83 E17.48667
G1 X177.93 Y177.70 E17.49542
G1 X178.05 Y177.57 E17.50426
G1 X178.16 Y177.42 E17.51350
G1 X178.25 Y177.29 E17.52152
G1 X178.34 Y177.15 E17.52984
G1 X178.43 Y177.00 E17.53839
G1 X178.51 Y176.84 E17.54723
G1 X178.58 Y176.68 E17.55614
G1 X178.63 Y176.55 E17.56340
G1 X178.69 Y176.37 E17.57282
G1 X178.74 Y176.21 E17.58121
G1 X178.78 Y176.03 E17.59001
G1 X178.80 Y175.87 E17.59811
G1 X178.82 Y175.71 E17.60646
G1 X178.84 Y175.52 E17.61582
G1 X178.84 Y175.32 E17.62580
G1 X178.84 Y175.21 E17.63129
G1 X178.83 Y175.01 E17.64109
G1 X178.81 Y174.84 E17.64993
G1 X178.78 Y174.68 E17.65778
G1 X178.73 Y174.48 E17.66816
G1 X178.70 Y174.34 E17.67539
G1 X178.65 Y174.20 E17.68290
G1 X178.57 Y174.00 E17.69328
G1 X178.52 Y173.88 E17.70014
G1 X178.43 Y173.70 E17.70980
G1 X178.35 Y173.57 E17.71771
G1 X178.25 Y173.41 E17.72697
G1 X178.15 Y173.26 E17.73581
G1 X178.06 Y173.15 E17.74325
G1 X177.94 Y173.01 E17.75237
G1 X177.83 Y172.89 E17.76052
G1 X177.70 Y172.77 E17.76921
G1 X177.56 Y172.64 E17.77897
G1 X177.45 Y172.56 E17.78582
G1 X170.64 Y167.45 E18.21064
G1 X170.64 Y137.78 E19.69098
G1 X177.57 Y132.35 E20.13007
G1 X177.69 Y132.25 E20.13813
G1 X177.81 Y132.13 E20.14635
G1 X177.93 Y132.00 E20.15511
G1 X178.05 Y131.87 E20.16395
G1 X178.16 Y131.72 E20.17319
G1 X178.25 Y131.60 E20.18096
G1 X178.34 Y131.45 E20.18952
G1 X178.43 Y131.30 E20.19808
G1 X178.51 Y131.15 E20.20692
G1 X178.58 Y130.98 E20.21583
G1 X178.63 Y130.85 E20.22309
G1 X178.69 Y130.67 E20.23251
G1 X178.74 Y130.51 E20.24090
G1 X178.78 Y130.33 E20.24970
G1 X178.80 Y130.17 E20.25780
G1 X178.82 Y130.01 E20.26615
G1 X178.84 Y129.82 E20.27550
G1 X178.84 Y129.62 E20.28548
G1 X178.84 Y129.51 E20.29097
G1 X178.83 Y129.31 E20.30078
G1 X178.81 Y129.14 E20.30962
G1 X178.78 Y128.98 E20.31747
G1 X178.73 Y128.78 E20.32784
G1 X178.70 Y128.64 E20.33508
G1 X178.65 Y128.50 E20.34259
G1 X178.57 Y128.30 E20.35297
G1 X178.52 Y128.18 E20.35983
G1 X178.43 Y128.00 E20.36949
G1 X178.35 Y127.87 E20.37740
G1 X178.25 Y127.71 E20.38684
G1 X178.15 Y127.56 E20.39550
G1 X178.06 Y127.45 E20.40294
G1 X177.94 Y127.31 E20.41206
G1 X177.83 Y127.19 E20.42014
G1 X177.70 Y127.07 E20.42889
G1 X177.57 Y126.95 E20.43774
G1 X177.42 Y126.84 E20.44698
G1 X177.30 Y126.75 E20.45474
G1 X177.15 Y126.66 E20.46331
G1 X177.00 Y126.57 E20.47187
G1 X176.84 Y126.49 E20.48070
G1 X176.69 Y126.42 E20.48944
G1 X176.53 Y126.36 E20.49784
G1 X176.38 Y126.31 E20.50552
G1 X176.21 Y126.26 E20.51469
G1 X176.03 Y126.22 E20.52348
G1 X175.87 Y126.20 E20.53159
G1 X175.71 Y126.17 E20.53994
G1 X175.52 Y126.16 E20.54934
G1 X175.32 Y126.16 E20.55922
G1 X175.21 Y126.16 E20.56476
G1 X175.01 Y126.17 E20.57457
G1 X174.84 Y126.19 E20.58341
G1 X174.68 Y126.22 E20.59126
G1 X174.48 Y126.27 E20.60163
G1 X174.35 Y126.30 E20.60809
G1 X174.18 Y126.36 E20.61729
G1 X174.00 Y126.42 E20.62664
G1 X173.88 Y126.48 E20.63361
G1 X173.70 Y126.57 E20.64327
G1 X173.57 Y126.65 E20.65118
G1 X173.41 Y126.75 E20.66044
G1 X173.26 Y126.85 E20.66929
G1 X173.15 Y126.94 E20.67672
G1 X173.01 Y127.06 E20.68584
G1 X172.89 Y127.17 E20.69393
G1 X172.77 Y127.30 E20.70268
G1 X172.64 Y127.44 E20.71244
G1 X172.56 Y127.55 E20.71930
G1 X167.45 Y134.36 E21.14411
G1 X137.78 Y134.36 E22.62445
G1 X132.35 Y127.43 E23.06354
G1 X132.25 Y127.31 E23.07160
G1 X132.13 Y127.19 E23.07983
G1 X132.00 Y127.07 E23.08858
G1 X131.87 Y126.95 E23.09742
G1 X131.72 Y126.84 E23.10666
G1 X131.60 Y126.75 E23.11443
G1 X131.45 Y126.66 E23.12299
G1 X131.30 Y126.57 E23.13155
G1 X131.15 Y126.49 E23.14039
G1 X130.99 Y126.42 E23.14912
G1 X130.83 Y126.36 E23.15752
G1 X130.68 Y126.31 E23.16521
G1 X130.51 Y126.26 E23.17437
G1 X130.33 Y126.22 E23.18317
G1 X130.17 Y126.20 E23.19127
G1 X130.01 Y126.17 E23.19962
G1 X129.82 Y126.16 E23.20903
G1 X129.62 Y126.16 E23.21891
G1 X129.51 Y126.16 E23.22445
G1 X129.31 Y126.17 E23.23425
G1 X129.14 Y126.19 E23.24309
G1 X128.98 Y126.22 E23.25094
G1 X128.78 Y126.27 E23.26132
G1 X128.66 Y126.30 E23.26778
G1 X128.48 Y126.36 E23.27698
G1 X128.31 Y126.42 E23.28633
G1 X128.18 Y126.48 E23.29330
G1 X128.00 Y126.57 E23.30296
G1 X127.87 Y126.65 E23.31087
G1 X127.71 Y126.75 E23.32013
G1 X127.56 Y126.85 E23.32897
G1 X127.45 Y126.94 E23.33641
G1 X127.31 Y127.06 E23.34553
G1 X127.19 Y127.17 E23.35361
G0 F12000 X126.90 Y126.89
G1 F2400 X126.77 Y127.03 E23.36300
G1 X126.65 Y127.17 E23.37230
G1 X126.53 Y127.33 E23.38204
G1 X126.41 Y127.49 E23.39206
G1 X126.31 Y127.65 E23.40142
G1 X126.22 Y127.80 E23.41009
G1 X126.13 Y127.99 E23.42086
G1 X126.06 Y128.15 E23.42973
G1 X125.99 Y128.32 E23.43872
G1 X125.93 Y128.51 E23.44843
G1 X125.87 Y128.71 E23.45880
G1 X125.83 Y128.89 E23.46810
G1 X125.80 Y129.07 E23.47722
G1 X125.78 Y129.26 E23.48667
G1 X125.76 Y129.46 E23.49693
G1 X125.76 Y129.65 E23.50636
G1 X125.76 Y129.82 E23.51480
G1 X125.77 Y130.02 E23.52500
G1 X125.80 Y130.21 E23.53450
G1 X125.83 Y130.41 E23.54452
G1 X125.87 Y130.58 E23.55331
G1 X125.92 Y130.78 E23.56350
G1 X125.98 Y130.96 E23.57306
G1 X126.05 Y131.13 E23.58198
G1 X126.13 Y131.31 E23.59197
G1 X126.21 Y131.47 E23.60100
G1 X126.31 Y131.65 E23.61097
G1 X126.41 Y131.82 E23.62094
G1 X126.51 Y131.96 E23.62958
G1 X126.63 Y132.10 E23.63886
G1 X126.75 Y132.25 E23.64859
G1 X126.90 Y132.40 E23.65890
G1 X127.03 Y132.53 E23.66814
G1 X127.18 Y132.66 E23.67808
G1 X127.30 Y132.75 E23.68533
G1 X133.96 Y137.75 E24.10123
G1 X133.96 Y167.03 E25.56187
G1 X127.17 Y172.35 E25.99221
G1 X127.06 Y172.44 E25.99967
G1 X126.90 Y172.59 E26.01065
G1 X126.77 Y172.73 E26.01990
G1 X126.65 Y172.87 E26.02920
G1 X126.53 Y173.02 E26.03894
G1 X126.41 Y173.19 E26.04896
G1 X126.31 Y173.35 E26.05832
G1 X126.22 Y173.50 E26.06699
G1 X126.13 Y173.69 E26.07776
G1 X126.06 Y173.85 E26.08663
G1 X125.99 Y174.02 E26.09561
G1 X125.93 Y174.21 E26.10533
G1 X125.87 Y174.41 E26.11569
G1 X125.83 Y174.59 E26.12500
G1 X125.80 Y174.77 E26.13412
G1 X125.78 Y174.96 E26.14357
G1 X125.76 Y175.16 E26.15383
G1 X125.76 Y175.35 E26.16326
G1 X125.76 Y175.52 E26.17169
G1 X125.77 Y175.72 E26.18190
G1 X125.80 Y175.91 E26.19139
G1 X125.83 Y176.11 E26.20142
G1 X125.87 Y176.28 E26.21021
G1 X125.92 Y176.48 E26.22040
G1 X125.98 Y176.66 E26.22996
G1 X126.05 Y176.83 E26.23888
G1 X126.13 Y177.01 E26.24886
G1 X126.21 Y177.17 E26.25790
G1 X126.31 Y177.35 E26.26786
G1 X126.41 Y177.51 E26.27784
G1 X126.51 Y177.66 E26.28648
G1 X126.63 Y177.80 E26.29576
G1 X126.75 Y177.95 E26.30549
G1 X126.90 Y178.10 E26.31579
G1 X127.03 Y178.23 E26.32504
G1 X127.17 Y178.35 E26.33434
G1 X127.33 Y178.47 E26.34408
G1 X127.49 Y178.59 E26.35392
G1 X127.65 Y178.69 E26.36346
G1 X127.80 Y178.78 E26.37213
G1 X128.00 Y178.88 E26.38340
G1 X128.15 Y178.94 E26.39155
G1 X128.33 Y179.01 E26.40116
G1 X128.50 Y179.07 E26.41027
G1 X128.71 Y179.13 E26.42083
G1 X128.89 Y179.17 E26.43014
G1 X129.07 Y179.20 E26.43926
G1 X129.26 Y179.22 E26.44871
G1 X129.46 Y179.24 E26.45897
G1 X129.66 Y179.24 E26.46885
G1 X129.83 Y179.24 E26.47728
G1 X130.02 Y179.23 E26.48704
G1 X130.22 Y179.20 E26.49689
G1 X130.41 Y179.17 E26.50656
G1 X130.59 Y179.13 E26.51555
G1 X130.78 Y179.08 E26.52554
G1 X130.96 Y179.02 E26.53515
G1 X131.13 Y178.95 E26.54402
G1 X131.31 Y178.87 E26.55401
G1 X131.48 Y178.79 E26.56349
G1 X131.65 Y178.69 E26.57301
G1 X131.82 Y178.59 E26.58303
G1 X131.96 Y178.49 E26.59169
G1 X132.11 Y178.37 E26.60129
G1 X132.26 Y178.24 E26.61123
G1 X132.40 Y178.10 E26.62094
G1 X132.53 Y177.97 E26.63029
G1 X132.66 Y177.82 E26.64012
G1 X132.78 Y177.67 E26.64932
G1 X137.75 Y171.04 E27.06327
G1 X167.03 Y171.04 E28.52391
G1 X172.35 Y177.83 E28.95425
G1 X172.44 Y177.94 E28.96172
G1 X172.59 Y178.10 E28.97269
G1 X172.73 Y178.23 E28.98194
G1 X172.87 Y178.35 E28.99124
G1 X173.02 Y178.47 E29.00098
G1 X173.19 Y178.59 E29.01082
G1 X173.35 Y178.69 E29.02036
G1 X173.50 Y178.78 E29.02903
G1 X173.70 Y178.88 E29.04029
G1 X173.85 Y178.94 E29.04844
G1 X174.03 Y179.01 E29.05806
G1 X174.20 Y179.07 E29.06716
G1 X174.41 Y179.13 E29.07773
G1 X174.59 Y179.17 E29.08704
G1 X174.77 Y179.20 E29.09616
G1 X174.96 Y179.22 E29.10561
G1 X175.16 Y179.24 E29.11581
G1 X175.36 Y179.24 E29.12580
G1 X175.53 Y179.24 E29.13413
G1 X175.72 Y179.23 E29.14393
G1 X175.92 Y179.20 E29.15379
G1 X176.11 Y179.17 E29.16346
G1 X176.28 Y179.13 E29.17245
G1 X176.48 Y179.08 E29.18244
G1 X176.66 Y179.02 E29.19204
G1 X176.83 Y178.95 E29.20092
G1 X177.01 Y178.87 E29.21090
G1 X177.18 Y178.79 E29.22039
G1 X177.35 Y178.69 E29.22990
G1 X177.52 Y178.59 E29.23993
G1 X177.66 Y178.49 E29.24859
G1 X177.81 Y178.37 E29.25819
G1 X177.96 Y178.24 E29.26813
G1 X178.10 Y178.10 E29.27784
G1 X178.23 Y177.97 E29.28719
G1 X178.36 Y177.82 E29.29695
G1 X178.47 Y177.67 E29.30619
G1 X178.59 Y177.51 E29.31614
G1 X178.69 Y177.35 E29.32550
G1 X178.78 Y177.20 E29.33417
G1 X178.88 Y177.00 E29.34544
G1 X178.94 Y176.85 E29.35359
G1 X179.01 Y176.67 E29.36320
G1 X179.07 Y176.50 E29.37231
G1 X179.13 Y176.28 E29.38354
G1 X179.17 Y176.11 E29.39218
G1 X179.20 Y175.93 E29.40130
G1 X179.22 Y175.74 E29.41075
G1 X179.24 Y175.54 E29.42096
G1 X179.24 Y175.33 E29.43159
G1 X179.24 Y175.17 E29.43927
G1 X179.23 Y174.98 E29.44908
G1 X179.20 Y174.78 E29.45893
G1 X179.17 Y174.59 E29.46860
G1 X179.13 Y174.41 E29.47800
G1 X179.07 Y174.21 E29.48830
G1 X179.02 Y174.05 E29.49660
G1 X178.95 Y173.87 E29.50617
G1 X178.87 Y173.69 E29.51605
G1 X178.79 Y173.52 E29.52553
G1 X178.68 Y173.34 E29.53592
G1 X178.59 Y173.18 E29.54507
G1 X178.49 Y173.04 E29.55373
G1 X178.37 Y172.89 E29.56333
G1 X178.24 Y172.74 E29.57292
G1 X178.10 Y172.60 E29.58298
G1 X177.97 Y172.47 E29.59222
G1 X177.82 Y172.34 E29.60216
G1 X177.70 Y172.24 E29.60998
G1 X171.04 Y167.25 E30.02532
G1 X171.04 Y137.97 E31.48595
G1 X177.83 Y132.65 E31.91629
G1 X177.94 Y132.56 E31.92376
G1 X178.10 Y132.41 E31.93473
G1 X178.23 Y132.27 E31.94398
G1 X178.36 Y132.12 E31.95385
G1 X178.47 Y131.97 E31.96309
G1 X178.59 Y131.81 E31.97304
G1 X178.69 Y131.65 E31.98240
G1 X178.78 Y131.50 E31.99107
G1 X178.88 Y131.30 E32.00233
G1 X178.94 Y131.15 E32.01048
G1 X179.01 Y130.97 E32.02010
G1 X179.07 Y130.80 E32.02921
G1 X179.13 Y130.58 E32.04044
G1 X179.17 Y130.41 E32.04908
G1 X179.20 Y130.23 E32.05820
G1 X179.22 Y130.04 E32.06765
G1 X179.24 Y129.84 E32.07786
G1 X179.24 Y129.63 E32.08849
G1 X179.24 Y129.47 E32.09617
G1 X179.23 Y129.28 E32.10598
G1 X179.20 Y129.08 E32.11583
G1 X179.17 Y128.89 E32.12550
G1 X179.13 Y128.71 E32.13490
G1 X179.07 Y128.51 E32.14520
G1 X179.02 Y128.35 E32.15350
G1 X178.95 Y128.17 E32.16307
G1 X178.87 Y127.99 E32.17294
G1 X178.79 Y127.82 E32.18243
G1 X178.68 Y127.64 E32.19282
G1 X178.59 Y127.48 E32.20197
G1 X178.49 Y127.34 E32.21063
G1 X178.37 Y127.19 E32.22023
G1 X178.24 Y127.04 E32.22982
G1 X178.10 Y126.90 E32.23988
G1 X177.97 Y126.77 E32.24912
G1 X177.83 Y126.65 E32.25842
G1 X177.68 Y126.53 E32.26816
G1 X177.51 Y126.41 E32.27819
G1 X177.35 Y126.31 E32.28754
G1 X177.20 Y126.22 E32.29621
G1 X177.00 Y126.12 E32.30748
G1 X176.85 Y126.06 E32.31585
G1 X176.68 Y125.99 E32.32484
G1 X176.49 Y125.93 E32.33456
G1 X176.29 Y125.87 E32.34492
G1 X176.11 Y125.83 E32.35423
G1 X175.93 Y125.80 E32.36335
G1 X175.74 Y125.78 E32.37280
G1 X175.54 Y125.76 E32.38305
G1 X175.34 Y125.76 E32.39294
G1 X175.17 Y125.76 E32.40137
G1 X174.98 Y125.77 E32.41112
G1 X174.78 Y125.80 E32.42097
G1 X174.59 Y125.83 E32.43064
G1 X174.41 Y125.87 E32.43964
G1 X174.22 Y125.92 E32.44962
G1 X174.04 Y125.98 E32.45923
G1 X173.87 Y126.05 E32.46811
G1 X173.69 Y126.13 E32.47809
G1 X173.52 Y126.21 E32.48740
G1 X173.35 Y126.31 E32.49709
G1 X173.18 Y126.41 E32.50711
G1 X173.04 Y126.51 E32.51553
G1 X172.89 Y126.63 E32.52538
G1 X172.74 Y126.76 E32.53497
G1 X172.60 Y126.89 E32.54488
G1 X172.47 Y127.03 E32.55427
G1 X172.34 Y127.18 E32.56414
G1 X172.24 Y127.30 E32.57203
G1 X167.25 Y133.96 E32.98736
G1 X137.97 Y133.96 E34.44800
G1 X132.65 Y127.17 E34.87834
G1 X132.56 Y127.06 E34.88580
G1 X132.41 Y126.90 E34.89678
G1 X132.27 Y126.77 E34.90602
G1 X132.13 Y126.65 E34.91533
G1 X131.98 Y126.53 E34.92507
G1 X131.81 Y126.41 E34.93509
G1 X131.65 Y126.31 E34.94444
G1 X131.50 Y126.22 E34.95311
G1 X131.30 Y126.12 E34.96438
G1 X131.15 Y126.06 E34.97275
G1 X130.98 Y125.99 E34.98174
G1 X130.79 Y125.93 E34.99146
G1 X130.59 Y125.87 E35.00182
G1 X130.41 Y125.83 E35.01113
G1 X130.23 Y125.80 E35.02025
G1 X130.04 Y125.78 E35.02970
G1 X129.84 Y125.76 E35.03995
G1 X129.64 Y125.76 E35.04984
G1 X129.47 Y125.76 E35.05827
G1 X129.28 Y125.77 E35.06802
G1 X129.08 Y125.80 E35.07788
G1 X128.89 Y125.83 E35.08755
G1 X128.72 Y125.87 E35.09654
G1 X128.52 Y125.92 E35.10653
G1 X128.34 Y125.98 E35.11613
G1 X128.17 Y126.05 E35.12501
G1 X127.99 Y126.13 E35.13499
G1 X127.82 Y126.21 E35.14430
G1 X127.65 Y126.31 E35.15399
G1 X127.48 Y126.41 E35.16402
G1 X127.35 Y126.51 E35.17243
G1 X127.19 Y126.63 E35.18228
G1 X127.04 Y126.76 E35.19187
G1 X126.90 Y126.89 E35.20179
G0 F12000 X126.64 Y126.59
G1 F2400 X126.48 Y126.75 E35.21276
G1 X126.32 Y126.94 E35.22493
G1 X126.21 Y127.09 E35.23453
G1 X126.10 Y127.24 E35.24401
G1 X125.97 Y127.45 E35.25612
G1 X125.87 Y127.62 E35.26617
G1 X125.77 Y127.82 E35.27708
G1 X125.69 Y127.99 E35.28653
G1 X125.61 Y128.19 E35.29751
G1 X125.55 Y128.39 E35.30770
G1 X125.49 Y128.59 E35.31811
G1 X125.44 Y128.81 E35.32927
G1 X125.40 Y129.01 E35.33961
G1 X125.38 Y129.21 E35.34976
G1 X125.36 Y129.43 E35.36072
G1 X125.36 Y129.66 E35.37200
G1 X125.36 Y129.84 E35.38088
G1 X125.38 Y130.08 E35.39298
G1 X125.40 Y130.27 E35.40258
G1 X125.43 Y130.47 E35.41251
G1 X125.48 Y130.70 E35.42426
G1 X125.53 Y130.88 E35.43368
G1 X125.60 Y131.09 E35.44455
G1 X125.68 Y131.29 E35.45576
G1 X125.76 Y131.48 E35.46574
G1 X125.86 Y131.66 E35.47589
G1 X125.96 Y131.85 E35.48666
G1 X126.08 Y132.03 E35.49762
G1 X126.20 Y132.21 E35.50823
G1 X126.31 Y132.36 E35.51758
G1 X126.48 Y132.54 E35.52989
G1 X126.59 Y132.66 E35.53829
G1 X126.75 Y132.82 E35.54947
G1 X126.95 Y132.99 E35.56210
G1 X127.05 Y133.07 E35.56878
G1 X133.56 Y137.95 E35.97496
G1 X133.56 Y166.84 E37.41589
G1 X126.92 Y172.03 E37.83685
G1 X126.77 Y172.16 E37.84661
G1 X126.64 Y172.29 E37.85589
G1 X126.48 Y172.45 E37.86687
G1 X126.32 Y172.63 E37.87903
G1 X126.21 Y172.79 E37.88863
G1 X126.10 Y172.94 E37.89811
G1 X125.97 Y173.15 E37.91022
G1 X125.87 Y173.32 E37.92028
G1 X125.77 Y173.52 E37.93119
G1 X125.69 Y173.69 E37.94064
G1 X125.61 Y173.89 E37.95162
G1 X125.55 Y174.09 E37.96181
G1 X125.49 Y174.29 E37.97222
G1 X125.44 Y174.51 E37.98338
G1 X125.40 Y174.71 E37.99371
G1 X125.38 Y174.91 E38.00387
G1 X125.36 Y175.13 E38.01482
G1 X125.36 Y175.36 E38.02610
G1 X125.36 Y175.54 E38.03499
G1 X125.38 Y175.78 E38.04709
G1 X125.40 Y175.97 E38.05669
G1 X125.43 Y176.16 E38.06661
G1 X125.48 Y176.40 E38.07837
G1 X125.53 Y176.58 E38.08778
G1 X125.60 Y176.78 E38.09865
G1 X125.68 Y176.99 E38.10986
G1 X125.76 Y177.18 E38.11985
G1 X125.86 Y177.36 E38.13000
G1 X125.96 Y177.55 E38.14077
G1 X126.08 Y177.73 E38.15173
G1 X126.20 Y177.91 E38.16233
G1 X126.31 Y178.06 E38.17168
G1 X126.48 Y178.24 E38.18399
G1 X126.59 Y178.36 E38.19239
G1 X126.75 Y178.52 E38.20358
G1 X126.94 Y178.68 E38.21553
G1 X127.09 Y178.79 E38.22513
G1 X127.25 Y178.91 E38.23490
G1 X127.45 Y179.03 E38.24672
G1 X127.62 Y179.13 E38.25678
G1 X127.82 Y179.23 E38.26774
G1 X128.00 Y179.31 E38.27752
G1 X128.19 Y179.38 E38.28756
G1 X128.41 Y179.46 E38.29925
G1 X128.59 Y179.51 E38.30882
G1 X128.81 Y179.56 E38.32013
G1 X129.01 Y179.60 E38.33021
G1 X129.22 Y179.62 E38.34046
G1 X129.43 Y179.64 E38.35132
G1 X129.67 Y179.64 E38.36315
G1 X129.84 Y179.64 E38.37183
G1 X130.08 Y179.62 E38.38374
G1 X130.27 Y179.60 E38.39319
G1 X130.47 Y179.57 E38.40311
G1 X130.70 Y179.51 E38.41487
G1 X130.89 Y179.46 E38.42501
G1 X131.09 Y179.40 E38.43515
G1 X131.29 Y179.32 E38.44636
G1 X131.48 Y179.23 E38.45657
G1 X131.66 Y179.15 E38.46650
G1 X131.85 Y179.03 E38.47769
G1 X132.03 Y178.92 E38.48823
G1 X132.21 Y178.80 E38.49883
G1 X132.36 Y178.69 E38.50818
G1 X132.54 Y178.52 E38.52049
G1 X132.66 Y178.41 E38.52889
G1 X132.82 Y178.24 E38.54032
G1 X132.99 Y178.05 E38.55271
G1 X133.07 Y177.95 E38.55938
G1 X137.95 Y171.44 E38.96556
G1 X166.84 Y171.44 E40.40649
G1 X172.03 Y178.08 E40.82745
G1 X172.16 Y178.23 E40.83721
G1 X172.29 Y178.36 E40.84649
G1 X172.45 Y178.52 E40.85768
G1 X172.63 Y178.68 E40.86963
G1 X172.79 Y178.79 E40.87923
G1 X172.95 Y178.91 E40.88901
G1 X173.15 Y179.03 E40.90083
G1 X173.32 Y179.13 E40.91088
G1 X173.52 Y179.23 E40.92184
G1 X173.70 Y179.31 E40.93162
G1 X173.88 Y179.38 E40.94166
G1 X174.11 Y179.46 E40.95335
G1 X174.29 Y179.51 E40.96293
G1 X174.51 Y179.56 E40.97423
G1 X174.71 Y179.60 E40.98431
G1 X174.91 Y179.62 E40.99457
G1 X175.13 Y179.64 E41.00542
G1 X175.37 Y179.64 E41.01725
G1 X175.54 Y179.64 E41.02594
G1 X175.78 Y179.62 E41.03784
G1 X175.97 Y179.60 E41.04729
G1 X176.16 Y179.57 E41.05721
G1 X176.40 Y179.51 E41.06897
G1 X176.59 Y179.46 E41.07911
G1 X176.78 Y179.40 E41.08925
G1 X176.99 Y179.32 E41.10047
G1 X177.18 Y179.23 E41.11067
G1 X177.36 Y179.15 E41.12060
G1 X177.55 Y179.03 E41.13180
G1 X177.73 Y178.92 E41.14233
G1 X177.91 Y178.80 E41.15293
G1 X178.06 Y178.69 E41.16228
G1 X178.24 Y178.52 E41.17459
G1 X178.36 Y178.41 E41.18299
G1 X178.52 Y178.24 E41.19443
G1 X178.68 Y178.06 E41.20613
G1 X178.79 Y177.91 E41.21573
G1 X178.91 Y177.75 E41.22550
G1 X179.04 Y177.55 E41.23768
G1 X179.13 Y177.38 E41.24738
G1 X179.23 Y177.18 E41.25834
G1 X179.32 Y177.00 E41.26850
G1 X179.38 Y176.81 E41.27816
G1 X179.46 Y176.59 E41.28985
G1 X179.51 Y176.40 E41.30009
G1 X179.56 Y176.18 E41.31103
G1 X179.60 Y175.99 E41.32081
G1 X179.62 Y175.78 E41.33137
G1 X179.64 Y175.57 E41.34197
G1 X179.64 Y175.32 E41.35415
G1 X179.64 Y175.16 E41.36243
G1 X179.62 Y174.91 E41.37459
G1 X179.60 Y174.73 E41.38379
G1 X179.57 Y174.53 E41.39371
G1 X179.51 Y174.29 E41.40624
G1 X179.46 Y174.09 E41.41665
G1 X179.40 Y173.91 E41.42621
G1 X179.33 Y173.73 E41.43583
G1 X179.23 Y173.52 E41.44728
G1 X179.14 Y173.34 E41.45732
G1 X179.03 Y173.15 E41.46830
G1 X178.92 Y172.97 E41.47883
G1 X178.80 Y172.79 E41.48943
G1 X178.69 Y172.64 E41.49878
G1 X178.52 Y172.46 E41.51109
G1 X178.41 Y172.34 E41.51949
G1 X178.25 Y172.18 E41.53068
G1 X178.04 Y172.01 E41.54391
G1 X177.95 Y171.93 E41.54999
G1 X171.44 Y167.05 E41.95616
G1 X171.44 Y138.16 E43.39709
G1 X178.09 Y132.96 E43.81858
G1 X178.23 Y132.84 E43.82782
G1 X178.36 Y132.71 E43.83710
G1 X178.52 Y132.54 E43.84853
G1 X178.68 Y132.37 E43.86024
G1 X178.79 Y132.21 E43.86984
G1 X178.91 Y132.05 E43.87961
G1 X179.04 Y131.85 E43.89179
G1 X179.13 Y131.68 E43.90148
G1 X179.23 Y131.48 E43.91244
G1 X179.32 Y131.30 E43.92260
G1 X179.38 Y131.12 E43.93227
G1 X179.46 Y130.89 E43.94396
G1 X179.51 Y130.70 E43.95420
G1 X179.56 Y130.48 E43.96514
G1 X179.60 Y130.29 E43.97491
G1 X179.62 Y130.08 E43.98547
G1 X179.64 Y129.87 E43.99608
G1 X179.64 Y129.62 E44.00825
G1 X179.64 Y129.46 E44.01654
G1 X179.62 Y129.21 E44.02870
G1 X179.60 Y129.03 E44.03789
G1 X179.57 Y128.84 E44.04782
G1 X179.51 Y128.59 E44.06034
G1 X179.46 Y128.39 E44.07075
G1 X179.40 Y128.21 E44.08031
G1 X179.33 Y128.03 E44.08993
G1 X179.23 Y127.82 E44.10139
G1 X179.14 Y127.64 E44.11143
G1 X179.03 Y127.45 E44.12240
G1 X178.92 Y127.27 E44.13294
G1 X178.80 Y127.09 E44.14354
G1 X178.69 Y126.94 E44.15289
G1 X178.52 Y126.76 E44.16520
G1 X178.41 Y126.63 E44.17374
G1 X178.24 Y126.48 E44.18517
G1 X178.06 Y126.32 E44.19684
G1 X177.91 Y126.21 E44.20634
G1 X177.75 Y126.09 E44.21611
G1 X177.55 Y125.97 E44.22793
G1 X177.38 Y125.87 E44.23798
G1 X177.18 Y125.77 E44.24894
G1 X177.00 Y125.69 E44.25894
G1 X176.81 Y125.61 E44.26932
G1 X176.61 Y125.54 E44.27973
G1 X176.41 Y125.49 E44.29003
G1 X176.19 Y125.44 E44.30134
G1 X175.99 Y125.40 E44.31142
G1 X175.78 Y125.38 E44.32167
G1 X175.57 Y125.36 E44.33253
G1 X175.33 Y125.36 E44.34436
G1 X175.16 Y125.36 E44.35304
G1 X174.92 Y125.38 E44.36495
G1 X174.73 Y125.40 E44.37440
G1 X174.53 Y125.43 E44.38432
G1 X174.30 Y125.48 E44.39607
G1 X174.11 Y125.54 E44.40611
G1 X173.91 Y125.60 E44.41636
G1 X173.71 Y125.68 E44.42757
G1 X173.52 Y125.77 E44.43778
G1 X173.34 Y125.86 E44.44771
G1 X173.15 Y125.97 E44.45890
G1 X172.97 Y126.08 E44.46944
G1 X172.79 Y126.20 E44.48004
G1 X172.65 Y126.31 E44.48882
G1 X172.46 Y126.48 E44.50170
G1 X172.34 Y126.59 E44.51010
G1 X172.18 Y126.75 E44.52107
G1 X172.01 Y126.95 E44.53391
G1 X171.93 Y127.05 E44.54052
G1 X167.05 Y133.56 E44.94677
G1 X138.16 Y133.56 E46.38770
G1 X132.96 Y126.91 E46.80919
G1 X132.84 Y126.77 E46.81842
G1 X132.71 Y126.63 E46.82784
G1 X132.54 Y126.48 E46.83928
G1 X132.36 Y126.32 E46.85095
G1 X132.21 Y126.21 E46.86044
G1 X132.05 Y126.09 E46.87021
G1 X131.85 Y125.97 E46.88203
G1 X131.68 Y125.87 E46.89209
G1 X131.48 Y125.77 E46.90304
G1 X131.30 Y125.69 E46.91305
G1 X131.11 Y125.61 E46.92342
G1 X130.91 Y125.54 E46.93384
G1 X130.71 Y125.49 E46.94414
G1 X130.49 Y125.44 E46.95544
G1 X130.29 Y125.40 E46.96552
G1 X130.09 Y125.38 E46.97578
G1 X129.87 Y125.36 E46.98663
G1 X129.63 Y125.36 E46.99846
G1 X129.46 Y125.36 E47.00715
G1 X129.22 Y125.38 E47.01905
G1 X129.03 Y125.40 E47.02850
G1 X128.84 Y125.43 E47.03842
G1 X128.60 Y125.48 E47.05018
G1 X128.41 Y125.54 E47.06021
G1 X128.22 Y125.60 E47.07047
G1 X128.01 Y125.68 E47.08168
G1 X127.82 Y125.77 E47.09188
G1 X127.64 Y125.86 E47.10181
G1 X127.45 Y125.97 E47.11301
G1 X127.27 Y126.08 E47.12354
G1 X127.09 Y126.20 E47.13414
G1 X126.95 Y126.31 E47.14293
G1 X126.76 Y126.48 E47.15580
G1 X126.64 Y126.59 E47.16420
G0 F12000 X126.34 Y126.32
G1 F2400 X126.18 Y126.49 E47.17599
G1 X126.03 Y126.66 E47.18752
G1 X125.88 Y126.86 E47.20007
G1 X125.76 Y127.03 E47.21023
G1 X125.62 Y127.24 E47.22256
G1 X125.51 Y127.44 E47.23411
G1 X125.41 Y127.63 E47.24473
G1 X125.31 Y127.85 E47.25681
G1 X125.23 Y128.06 E47.26798
G1 X125.16 Y128.27 E47.27934
G1 X125.10 Y128.50 E47.29125
G1 X125.05 Y128.73 E47.30297
G1 X125.01 Y128.96 E47.31421
G1 X124.98 Y129.17 E47.32522
G1 X124.96 Y129.41 E47.33718
G1 X124.96 Y129.66 E47.34970
G1 X124.96 Y129.86 E47.35959
G1 X124.98 Y130.12 E47.37234
G1 X125.00 Y130.33 E47.38289
G1 X125.04 Y130.56 E47.39459
G1 X125.09 Y130.79 E47.40629
G1 X125.15 Y131.00 E47.41737
G1 X125.23 Y131.23 E47.42918
G1 X125.31 Y131.44 E47.44084
G1 X125.40 Y131.63 E47.45125
G1 X125.51 Y131.87 E47.46446
G1 X125.61 Y132.04 E47.47400
G1 X125.75 Y132.26 E47.48731
G1 X125.87 Y132.44 E47.49803
G1 X126.02 Y132.62 E47.50972
G1 X126.17 Y132.80 E47.52097
G1 X126.32 Y132.96 E47.53205
G1 X126.49 Y133.12 E47.54384
G1 X126.68 Y133.29 E47.55668
G1 X126.80 Y133.38 E47.56425
G1 X133.16 Y138.15 E47.96094
G1 X133.16 Y166.64 E49.38217
G1 X126.67 Y171.72 E49.79357
G1 X126.51 Y171.86 E49.80429
G1 X126.34 Y172.02 E49.81551
G1 X126.18 Y172.19 E49.82730
G1 X126.03 Y172.36 E49.83883
G1 X125.88 Y172.56 E49.85137
G1 X125.76 Y172.73 E49.86153
G1 X125.62 Y172.94 E49.87387
G1 X125.51 Y173.14 E49.88542
G1 X125.41 Y173.33 E49.89604
G1 X125.31 Y173.55 E49.90812
G1 X125.23 Y173.76 E49.91929
G1 X125.16 Y173.97 E49.93064
G1 X125.10 Y174.20 E49.94256
G1 X125.05 Y174.43 E49.95427
G1 X125.01 Y174.65 E49.96552
G1 X124.98 Y174.87 E49.97653
G1 X124.96 Y175.11 E49.98848
G1 X124.96 Y175.36 E50.00101
G1 X124.96 Y175.56 E50.01089
G1 X124.98 Y175.82 E50.02365
G1 X125.00 Y176.03 E50.03420
G1 X125.04 Y176.26 E50.04589
G1 X125.09 Y176.49 E50.05760
G1 X125.15 Y176.70 E50.06867
G1 X125.23 Y176.93 E50.08049
G1 X125.31 Y177.14 E50.09214
G1 X125.40 Y177.33 E50.10255
G1 X125.51 Y177.57 E50.11576
G1 X125.61 Y177.74 E50.12530
G1 X125.75 Y177.96 E50.13862
G1 X125.87 Y178.14 E50.14933
G1 X126.02 Y178.32 E50.16103
G1 X126.17 Y178.50 E50.17228
G1 X126.32 Y178.66 E50.18336
G1 X126.49 Y178.82 E50.19515
G1 X126.66 Y178.97 E50.20657
G1 X126.86 Y179.12 E50.21922
G1 X127.03 Y179.24 E50.22939
G1 X127.24 Y179.38 E50.24172
G1 X127.44 Y179.49 E50.25327
G1 X127.63 Y179.59 E50.26389
G1 X127.84 Y179.68 E50.27575
G1 X128.07 Y179.77 E50.28756
G1 X128.27 Y179.84 E50.29829
G1 X128.50 Y179.90 E50.31041
G1 X128.73 Y179.95 E50.32212
G1 X128.96 Y179.99 E50.33337
G1 X129.18 Y180.02 E50.34448
G1 X129.41 Y180.04 E50.35633
G1 X129.67 Y180.04 E50.36911
G1 X129.86 Y180.04 E50.37874
G1 X130.12 Y180.02 E50.39150
G1 X130.33 Y180.00 E50.40205
G1 X130.56 Y179.96 E50.41374
G1 X130.79 Y179.91 E50.42545
G1 X131.00 Y179.85 E50.43652
G1 X131.23 Y179.77 E50.44834
G1 X131.44 Y179.69 E50.46000
G1 X131.63 Y179.60 E50.47041
G1 X131.87 Y179.49 E50.48361
G1 X132.04 Y179.39 E50.49316
G1 X132.26 Y179.25 E50.50647
G1 X132.44 Y179.13 E50.51718
G1 X132.62 Y178.98 E50.52888
G1 X132.80 Y178.84 E50.54013
G1 X132.96 Y178.68 E50.55121
G1 X133.12 Y178.51 E50.56300
G1 X133.29 Y178.32 E50.57584
G1 X133.38 Y178.20 E50.58340
G1 X138.15 Y171.84 E50.98010
G1 X166.64 Y171.84 E52.40132
G1 X171.72 Y178.33 E52.81280
G1 X171.86 Y178.49 E52.82345
G1 X172.02 Y178.66 E52.83467
G1 X172.19 Y178.82 E52.84645
G1 X172.36 Y178.97 E52.85788
G1 X172.56 Y179.12 E52.87053
G1 X172.73 Y179.24 E52.88069
G1 X172.94 Y179.38 E52.89302
G1 X173.14 Y179.49 E52.90458
G1 X173.33 Y179.59 E52.91520
G1 X173.54 Y179.68 E52.92706
G1 X173.76 Y179.77 E52.93887
G1 X173.97 Y179.84 E52.94960
G1 X174.20 Y179.90 E52.96171
G1 X174.43 Y179.95 E52.97343
G1 X174.65 Y179.99 E52.98468
G1 X174.88 Y180.02 E52.99578
G1 X175.11 Y180.04 E53.00764
G1 X175.37 Y180.04 E53.02042
G1 X175.56 Y180.04 E53.03000
G1 X175.82 Y180.02 E53.04280
G1 X176.03 Y180.00 E53.05335
G1 X176.26 Y179.96 E53.06505
G1 X176.49 Y179.91 E53.07676
G1 X176.70 Y179.85 E53.08783
G1 X176.93 Y179.77 E53.09965
G1 X177.14 Y179.69 E53.11130
G1 X177.33 Y179.60 E53.12171
G1 X177.57 Y179.49 E53.13492
G1 X177.74 Y179.39 E53.14446
G1 X177.96 Y179.25 E53.15778
G1 X178.14 Y179.13 E53.16849
G1 X178.32 Y178.98 E53.18019
G1 X178.50 Y178.84 E53.19144
G1 X178.66 Y178.68 E53.20252
G1 X178.82 Y178.51 E53.21430
G1 X178.97 Y178.34 E53.22584
G1 X179.12 Y178.14 E53.23838
G1 X179.24 Y177.97 E53.24854
G1 X179.38 Y177.76 E53.26087
G1 X179.49 Y177.56 E53.27243
G1 X179.59 Y177.37 E53.28305
G1 X179.68 Y177.16 E53.29491
G1 X179.77 Y176.93 E53.30672
G1 X179.84 Y176.73 E53.31745
G1 X179.90 Y176.50 E53.32956
G1 X179.95 Y176.27 E53.34128
G1 X179.99 Y176.04 E53.35253
G1 X180.02 Y175.82 E53.36363
G1 X180.04 Y175.59 E53.37549
G1 X180.04 Y175.33 E53.38827
G1 X180.04 Y175.14 E53.39785
G1 X180.02 Y174.87 E53.41115
G1 X180.00 Y174.67 E53.42120
G1 X179.96 Y174.44 E53.43290
G1 X179.91 Y174.21 E53.44461
G1 X179.85 Y174.00 E53.45543
G1 X179.77 Y173.76 E53.46797
G1 X179.69 Y173.56 E53.47893
G1 X179.60 Y173.37 E53.48956
G1 X179.49 Y173.13 E53.50277
G1 X179.39 Y172.96 E53.51231
G1 X179.25 Y172.74 E53.52563
G1 X179.13 Y172.56 E53.53634
G1 X178.98 Y172.38 E53.54804
G1 X178.84 Y172.20 E53.55929
G1 X178.68 Y172.04 E53.57065
G1 X178.51 Y171.88 E53.58215
G1 X178.32 Y171.71 E53.59500
G1 X178.20 Y171.62 E53.60256
G1 X171.84 Y166.85 E53.99926
G1 X171.84 Y138.36 E55.42048
G1 X178.33 Y133.28 E55.83195
G1 X178.49 Y133.14 E55.84260
G1 X178.66 Y132.98 E55.85382
G1 X178.82 Y132.81 E55.86561
G1 X178.97 Y132.64 E55.87714
G1 X179.12 Y132.44 E55.88969
G1 X179.24 Y132.27 E55.89985
G1 X179.38 Y132.06 E55.91218
G1 X179.49 Y131.86 E55.92373
G1 X179.59 Y131.67 E55.93435
G1 X179.68 Y131.46 E55.94621
G1 X179.77 Y131.24 E55.95803
G1 X179.84 Y131.03 E55.96875
G1 X179.90 Y130.80 E55.98087
G1 X179.95 Y130.57 E55.99259
G1 X179.99 Y130.35 E56.00383
G1 X180.02 Y130.12 E56.01494
G1 X180.04 Y129.89 E56.02680
G1 X180.04 Y129.63 E56.03957
G1 X180.04 Y129.44 E56.04916
G1 X180.02 Y129.17 E56.06246
G1 X180.00 Y128.97 E56.07251
G1 X179.96 Y128.74 E56.08421
G1 X179.91 Y128.51 E56.09591
G1 X179.85 Y128.31 E56.10673
G1 X179.77 Y128.07 E56.11927
G1 X179.69 Y127.86 E56.13023
G1 X179.60 Y127.67 E56.14087
G1 X179.49 Y127.43 E56.15408
G1 X179.39 Y127.26 E56.16362
G1 X179.25 Y127.04 E56.17693
G1 X179.13 Y126.86 E56.18765
G1 X178.98 Y126.68 E56.19934
G1 X178.84 Y126.50 E56.21059
G1 X178.68 Y126.34 E56.22167
G1 X178.51 Y126.18 E56.23346
G1 X178.34 Y126.03 E56.24499
G1 X178.14 Y125.88 E56.25754
G1 X177.97 Y125.76 E56.26781
G1 X177.76 Y125.62 E56.28003
G1 X177.56 Y125.51 E56.29158
G1 X177.37 Y125.41 E56.30231
G1 X177.15 Y125.31 E56.31428
G1 X176.94 Y125.23 E56.32545
G1 X176.73 Y125.16 E56.33681
G1 X176.50 Y125.10 E56.34872
G1 X176.27 Y125.05 E56.36044
G1 X176.04 Y125.01 E56.37168
G1 X175.82 Y124.98 E56.38279
G1 X175.59 Y124.96 E56.39465
G1 X175.33 Y124.96 E56.40742
G1 X175.14 Y124.96 E56.41705
G1 X174.88 Y124.98 E56.42981
G1 X174.67 Y125.00 E56.44036
G1 X174.44 Y125.04 E56.45206
G1 X174.21 Y125.09 E56.46376
G1 X174.00 Y125.15 E56.47484
G1 X173.77 Y125.23 E56.48665
G1 X173.56 Y125.31 E56.49831
G1 X173.37 Y125.40 E56.50872
G1 X173.13 Y125.51 E56.52193
G1 X172.96 Y125.61 E56.53133
G1 X172.74 Y125.75 E56.54479
G1 X172.56 Y125.87 E56.55550
G1 X172.38 Y126.02 E56.56719
G1 X172.20 Y126.17 E56.57844
G1 X172.04 Y126.32 E56.58953
G1 X171.88 Y126.49 E56.60131
G1 X171.71 Y126.68 E56.61415
G1 X171.63 Y126.79 E56.62104
G1 X166.85 Y133.16 E57.01842
G1 X138.36 Y133.16 E58.43964
G1 X133.27 Y126.66 E58.85143
G1 X133.14 Y126.51 E58.86176
G1 X132.98 Y126.34 E58.87298
G1 X132.81 Y126.18 E58.88477
G1 X132.64 Y126.03 E58.89630
G1 X132.44 Y125.88 E58.90884
G1 X132.27 Y125.76 E58.91911
G1 X132.06 Y125.62 E58.93134
G1 X131.86 Y125.51 E58.94289
G1 X131.67 Y125.41 E58.95362
G1 X131.45 Y125.31 E58.96559
G1 X131.24 Y125.23 E58.97676
G1 X131.03 Y125.16 E58.98812
G1 X130.80 Y125.10 E59.00003
G1 X130.57 Y125.05 E59.01174
G1 X130.35 Y125.01 E59.02299
G1 X130.12 Y124.98 E59.03410
G1 X129.89 Y124.96 E59.04595
G1 X129.63 Y124.96 E59.05873
G1 X129.44 Y124.96 E59.06836
G1 X129.18 Y124.98 E59.08112
G1 X128.97 Y125.00 E59.09167
G1 X128.74 Y125.04 E59.10336
G1 X128.51 Y125.09 E59.11507
G1 X128.30 Y125.15 E59.12614
G1 X128.07 Y125.23 E59.13796
G1 X127.86 Y125.31 E59.14961
G1 X127.67 Y125.40 E59.16002
G1 X127.43 Y125.51 E59.17323
G1 X127.27 Y125.61 E59.18264
G1 X127.04 Y125.75 E59.19609
G1 X126.86 Y125.87 E59.20680
G1 X126.68 Y126.02 E59.21850
G1 X126.50 Y126.17 E59.22975
G1 X126.34 Y126.32 E59.24083
G0 F12000 X126.05 Y126.04
G1 F2400 X125.89 Y126.21 E59.25241
G1 X125.71 Y126.42 E59.26595
G1 X125.56 Y126.61 E59.27822
G1 X125.42 Y126.81 E59.29063
G1 X125.29 Y127.02 E59.30286
G1 X125.16 Y127.25 E59.31624
G1 X125.05 Y127.45 E59.32746
G1 X124.95 Y127.70 E59.34068
G1 X124.85 Y127.93 E59.35332
G1 X124.78 Y128.16 E59.36531
G1 X124.72 Y128.39 E59.37716
G1 X124.65 Y128.66 E59.39087
G1 X124.61 Y128.90 E59.40293
G1 X124.58 Y129.14 E59.41510
G1 X124.56 Y129.39 E59.42785
G1 X124.56 Y129.67 E59.44158
G1 X124.56 Y129.88 E59.45201
G1 X124.58 Y130.15 E59.46581
G1 X124.61 Y130.38 E59.47737
G1 X124.65 Y130.63 E59.48993
G1 X124.71 Y130.89 E59.50332
G1 X124.77 Y131.12 E59.51486
G1 X124.85 Y131.37 E59.52810
G1 X124.94 Y131.59 E59.54017
G1 X125.03 Y131.81 E59.55174
G1 X125.15 Y132.04 E59.56508
G1 X125.28 Y132.26 E59.57745
G1 X125.41 Y132.48 E59.59012
G1 X125.55 Y132.68 E59.60248
G1 X125.70 Y132.87 E59.61449
G1 X125.87 Y133.07 E59.62773
G1 X126.04 Y133.25 E59.64004
G1 X126.21 Y133.41 E59.65162
G1 X126.42 Y133.59 E59.66559
G1 X126.58 Y133.71 E59.67525
G1 X132.76 Y138.35 E60.06115
G1 X132.76 Y166.44 E61.46267
G1 X126.41 Y171.42 E61.86536
G1 X126.24 Y171.56 E61.87622
G1 X126.05 Y171.74 E61.88934
G1 X125.89 Y171.91 E61.90092
G1 X125.71 Y172.12 E61.91446
G1 X125.56 Y172.31 E61.92673
G1 X125.42 Y172.51 E61.93915
G1 X125.29 Y172.72 E61.95137
G1 X125.16 Y172.95 E61.96475
G1 X125.05 Y173.15 E61.97598
G1 X124.95 Y173.40 E61.98920
G1 X124.85 Y173.63 E62.00183
G1 X124.78 Y173.86 E62.01382
G1 X124.72 Y174.09 E62.02567
G1 X124.65 Y174.36 E62.03939
G1 X124.61 Y174.59 E62.05144
G1 X124.58 Y174.84 E62.06361
G1 X124.56 Y175.09 E62.07637
G1 X124.56 Y175.37 E62.09009
G1 X124.56 Y175.58 E62.10052
G1 X124.58 Y175.85 E62.11433
G1 X124.61 Y176.08 E62.12588
G1 X124.65 Y176.33 E62.13844
G1 X124.71 Y176.59 E62.15183
G1 X124.77 Y176.81 E62.16338
G1 X124.85 Y177.07 E62.17661
G1 X124.94 Y177.29 E62.18868
G1 X125.03 Y177.50 E62.20025
G1 X125.15 Y177.74 E62.21359
G1 X125.28 Y177.96 E62.22597
G1 X125.41 Y178.18 E62.23863
G1 X125.55 Y178.38 E62.25099
G1 X125.70 Y178.57 E62.26301
G1 X125.87 Y178.77 E62.27624
G1 X126.04 Y178.95 E62.28855
G1 X126.21 Y179.11 E62.30013
G1 X126.42 Y179.29 E62.31367
G1 X126.61 Y179.44 E62.32594
G1 X126.81 Y179.58 E62.33836
G1 X127.02 Y179.71 E62.35058
G1 X127.25 Y179.84 E62.36396
G1 X127.45 Y179.95 E62.37518
G1 X127.70 Y180.06 E62.38854
G1 X127.92 Y180.14 E62.40008
G1 X128.18 Y180.23 E62.41376
G1 X128.39 Y180.28 E62.42488
G1 X128.66 Y180.35 E62.43860
G1 X128.90 Y180.39 E62.45065
G1 X129.14 Y180.42 E62.46282
G1 X129.39 Y180.44 E62.47558
G1 X129.67 Y180.44 E62.48930
G1 X129.88 Y180.44 E62.49973
G1 X130.15 Y180.42 E62.51354
G1 X130.38 Y180.39 E62.52510
G1 X130.63 Y180.35 E62.53765
G1 X130.89 Y180.29 E62.55104
G1 X131.12 Y180.23 E62.56259
G1 X131.37 Y180.15 E62.57582
G1 X131.59 Y180.06 E62.58789
G1 X131.81 Y179.97 E62.59946
G1 X132.04 Y179.85 E62.61280
G1 X132.26 Y179.72 E62.62518
G1 X132.48 Y179.59 E62.63784
G1 X132.68 Y179.45 E62.65020
G1 X132.87 Y179.30 E62.66222
G1 X133.07 Y179.13 E62.67545
G1 X133.25 Y178.96 E62.68776
G1 X133.41 Y178.79 E62.69934
G1 X133.59 Y178.58 E62.71331
G1 X133.71 Y178.42 E62.72297
G1 X138.35 Y172.24 E63.10887
G1 X166.44 Y172.24 E64.51039
G1 X171.42 Y178.59 E64.91308
G1 X171.56 Y178.76 E64.92394
G1 X171.74 Y178.95 E64.93707
G1 X171.91 Y179.11 E64.94864
G1 X172.12 Y179.29 E64.96219
G1 X172.31 Y179.44 E64.97445
G1 X172.51 Y179.58 E64.98687
G1 X172.72 Y179.71 E64.99909
G1 X172.95 Y179.84 E65.01248
G1 X173.15 Y179.95 E65.02370
G1 X173.40 Y180.06 E65.03705
G1 X173.61 Y180.14 E65.04860
G1 X173.87 Y180.23 E65.06227
G1 X174.09 Y180.28 E65.07340
G1 X174.36 Y180.35 E65.08711
G1 X174.59 Y180.39 E65.09917
G1 X174.84 Y180.42 E65.11133
G1 X175.09 Y180.44 E65.12409
G1 X175.37 Y180.44 E65.13781
G1 X175.58 Y180.44 E65.14824
G1 X175.85 Y180.42 E65.16205
G1 X176.08 Y180.39 E65.17361
G1 X176.33 Y180.35 E65.18616
G1 X176.59 Y180.29 E65.19955
G1 X176.81 Y180.23 E65.21110
G1 X177.07 Y180.15 E65.22434
G1 X177.29 Y180.06 E65.23640
G1 X177.50 Y179.97 E65.24797
G1 X177.74 Y179.85 E65.26131
G1 X177.96 Y179.72 E65.27369
G1 X178.18 Y179.59 E65.28635
G1 X178.38 Y179.45 E65.29871
G1 X178.57 Y179.30 E65.31073
G1 X178.77 Y179.13 E65.32396
G1 X178.95 Y178.96 E65.33628
G1 X179.11 Y178.79 E65.34785
G1 X179.29 Y178.58 E65.36182
G1 X179.44 Y178.39 E65.37366
G1 X179.58 Y178.19 E65.38608
G1 X179.71 Y177.98 E65.39830
G1 X179.84 Y177.75 E65.41168
G1 X179.95 Y177.54 E65.42290
G1 X180.06 Y177.30 E65.43641
G1 X180.14 Y177.09 E65.44780
G1 X180.23 Y176.82 E65.46148
G1 X180.28 Y176.61 E65.47260
G1 X180.35 Y176.34 E65.48641
G1 X180.39 Y176.10 E65.49837
G1 X180.42 Y175.86 E65.51054
G1 X180.44 Y175.61 E65.52329
G1 X180.44 Y175.33 E65.53702
G1 X180.44 Y175.12 E65.54745
G1 X180.42 Y174.85 E65.56125
G1 X180.39 Y174.62 E65.57281
G1 X180.35 Y174.36 E65.58588
G1 X180.29 Y174.11 E65.59876
G1 X180.23 Y173.89 E65.61010
G1 X180.14 Y173.62 E65.62401
G1 X180.06 Y173.40 E65.63598
G1 X179.97 Y173.19 E65.64717
G1 X179.85 Y172.96 E65.66052
G1 X179.72 Y172.74 E65.67289
G1 X179.59 Y172.52 E65.68556
G1 X179.45 Y172.32 E65.69792
G1 X179.30 Y172.13 E65.70993
G1 X179.13 Y171.93 E65.72316
G1 X178.96 Y171.75 E65.73548
G1 X178.79 Y171.59 E65.74705
G1 X178.57 Y171.40 E65.76149
G1 X178.42 Y171.29 E65.77069
G1 X172.24 Y166.65 E66.15659
G1 X172.24 Y138.56 E67.55811
G1 X178.59 Y133.58 E67.96079
G1 X178.76 Y133.44 E67.97166
G1 X178.95 Y133.26 E67.98478
G1 X179.11 Y133.09 E67.99636
G1 X179.29 Y132.88 E68.00990
G1 X179.44 Y132.69 E68.02217
G1 X179.58 Y132.49 E68.03458
G1 X179.71 Y132.28 E68.04681
G1 X179.84 Y132.05 E68.06019
G1 X179.95 Y131.85 E68.07141
G1 X180.06 Y131.60 E68.08492
G1 X180.14 Y131.39 E68.09631
G1 X180.23 Y131.13 E68.10999
G1 X180.28 Y130.91 E68.12111
G1 X180.35 Y130.64 E68.13492
G1 X180.39 Y130.41 E68.14688
G1 X180.42 Y130.16 E68.15905
G1 X180.44 Y129.91 E68.17180
G1 X180.44 Y129.63 E68.18553
G1 X180.44 Y129.42 E68.19596
G1 X180.42 Y129.15 E68.20976
G1 X180.39 Y128.92 E68.22132
G1 X180.35 Y128.66 E68.23439
G1 X180.29 Y128.41 E68.24727
G1 X180.23 Y128.19 E68.25861
G1 X180.14 Y127.92 E68.27252
G1 X180.06 Y127.70 E68.28449
G1 X179.97 Y127.50 E68.29568
G1 X179.85 Y127.26 E68.30903
G1 X179.72 Y127.04 E68.32140
G1 X179.59 Y126.83 E68.33407
G1 X179.45 Y126.62 E68.34643
G1 X179.29 Y126.42 E68.35897
G1 X179.13 Y126.23 E68.37167
G1 X178.96 Y126.05 E68.38399
G1 X178.79 Y125.89 E68.39556
G1 X178.58 Y125.71 E68.40911
G1 X178.39 Y125.56 E68.42137
G1 X178.19 Y125.42 E68.43379
G1 X177.98 Y125.29 E68.44601
G1 X177.75 Y125.16 E68.45940
G1 X177.54 Y125.05 E68.47062
G1 X177.30 Y124.95 E68.48384
G1 X177.07 Y124.85 E68.49648
G1 X176.84 Y124.78 E68.50847
G1 X176.61 Y124.72 E68.52032
G1 X176.34 Y124.65 E68.53403
G1 X176.10 Y124.61 E68.54609
G1 X175.86 Y124.58 E68.55825
G1 X175.61 Y124.56 E68.57101
G1 X175.33 Y124.56 E68.58474
G1 X175.12 Y124.56 E68.59517
G1 X174.85 Y124.58 E68.60897
G1 X174.62 Y124.61 E68.62053
G1 X174.37 Y124.65 E68.63309
G1 X174.11 Y124.71 E68.64647
G1 X173.88 Y124.77 E68.65802
G1 X173.63 Y124.85 E68.67126
G1 X173.41 Y124.94 E68.68332
G1 X173.19 Y125.03 E68.69489
G1 X172.96 Y125.15 E68.70823
G1 X172.74 Y125.28 E68.72061
G1 X172.52 Y125.41 E68.73328
G1 X172.32 Y125.55 E68.74564
G1 X172.13 Y125.70 E68.75765
G1 X171.93 Y125.87 E68.77070
G1 X171.75 Y126.04 E68.78320
G1 X171.59 Y126.21 E68.79477
G1 X171.41 Y126.42 E68.80874
G1 X171.31 Y126.55 E68.81677
G1 X166.65 Y132.76 E69.20431
G1 X138.56 Y132.76 E70.60582
G1 X133.58 Y126.41 E71.00851
G1 X133.44 Y126.24 E71.01937
G1 X133.26 Y126.05 E71.03250
G1 X133.09 Y125.89 E71.04407
G1 X132.88 Y125.71 E71.05762
G1 X132.69 Y125.56 E71.06988
G1 X132.49 Y125.42 E71.08230
G1 X132.28 Y125.29 E71.09452
G1 X132.05 Y125.16 E71.10791
G1 X131.85 Y125.05 E71.11913
G1 X131.60 Y124.95 E71.13235
G1 X131.37 Y124.85 E71.14499
G1 X131.14 Y124.78 E71.15698
G1 X130.91 Y124.72 E71.16883
G1 X130.64 Y124.65 E71.18254
G1 X130.41 Y124.61 E71.19460
G1 X130.16 Y124.58 E71.20676
G1 X129.91 Y124.56 E71.21952
G1 X129.63 Y124.56 E71.23325
G1 X129.42 Y124.56 E71.24368
G1 X129.15 Y124.58 E71.25748
G1 X128.92 Y124.61 E71.26904
G1 X128.67 Y124.65 E71.28160
G1 X128.41 Y124.71 E71.29498
G1 X128.19 Y124.77 E71.30653
G1 X127.93 Y124.85 E71.31977
G1 X127.71 Y124.94 E71.33183
G1 X127.50 Y125.03 E71.34340
G1 X127.26 Y125.15 E71.35675
G1 X127.04 Y125.28 E71.36912
G1 X126.83 Y125.41 E71.38179
G1 X126.62 Y125.55 E71.39415
G1 X126.43 Y125.70 E71.40616
G1 X126.23 Y125.87 E71.41921
G1 X126.05 Y126.04 E71.43171
G0 F12000 X125.78 Y125.75
G1 F2400 X125.59 Y125.95 E71.44526
G1 X125.41 Y126.16 E71.45923
G1 X125.24 Y126.37 E71.47284
G1 X125.09 Y126.59 E71.48605
G1 X124.94 Y126.83 E71.50000
G1 X124.81 Y127.05 E71.51309
G1 X124.69 Y127.28 E71.52583
G1 X124.57 Y127.55 E71.54053
G1 X124.48 Y127.78 E71.55288
G1 X124.40 Y128.04 E71.56660
G1 X124.32 Y128.31 E71.58028
G1 X124.26 Y128.58 E71.59419
G1 X124.22 Y128.82 E71.60640
G1 X124.18 Y129.12 E71.62138
G1 X124.16 Y129.37 E71.63414
G1 X124.16 Y129.66 E71.64861
G1 X124.16 Y129.90 E71.66019
G1 X124.18 Y130.19 E71.67500
G1 X124.21 Y130.44 E71.68741
G1 X124.26 Y130.70 E71.70083
G1 X124.32 Y130.98 E71.71519
G1 X124.39 Y131.25 E71.72900
G1 X124.47 Y131.49 E71.74130
G1 X124.57 Y131.74 E71.75513
G1 X124.68 Y131.99 E71.76876
G1 X124.80 Y132.23 E71.78177
G1 X124.93 Y132.47 E71.79564
G1 X125.08 Y132.71 E71.80968
G1 X125.23 Y132.91 E71.82236
G1 X125.38 Y133.11 E71.83487
G1 X125.58 Y133.34 E71.85008
G1 X125.75 Y133.52 E71.86226
G1 X125.95 Y133.71 E71.87581
G1 X126.16 Y133.90 E71.89003
G1 X126.35 Y134.04 E71.90186
G1 X132.36 Y138.55 E72.27696
G1 X132.36 Y166.25 E73.65877
G1 X126.16 Y171.11 E74.05194
G1 X125.97 Y171.27 E74.06446
G1 X125.78 Y171.45 E74.07741
G1 X125.59 Y171.65 E74.09096
G1 X125.41 Y171.86 E74.10493
G1 X125.24 Y172.07 E74.11854
G1 X125.09 Y172.29 E74.13175
G1 X124.94 Y172.53 E74.14570
G1 X124.81 Y172.75 E74.15879
G1 X124.69 Y172.98 E74.17153
G1 X124.57 Y173.25 E74.18623
G1 X124.48 Y173.48 E74.19858
G1 X124.40 Y173.74 E74.21231
G1 X124.32 Y174.01 E74.22598
G1 X124.26 Y174.28 E74.23989
G1 X124.22 Y174.52 E74.25210
G1 X124.18 Y174.82 E74.26708
G1 X124.16 Y175.07 E74.27984
G1 X124.16 Y175.36 E74.29432
G1 X124.16 Y175.59 E74.30589
G1 X124.18 Y175.89 E74.32070
G1 X124.21 Y176.14 E74.33311
G1 X124.26 Y176.40 E74.34653
G1 X124.32 Y176.68 E74.36089
G1 X124.39 Y176.95 E74.37470
G1 X124.47 Y177.18 E74.38700
G1 X124.57 Y177.44 E74.40084
G1 X124.68 Y177.69 E74.41446
G1 X124.80 Y177.93 E74.42747
G1 X124.93 Y178.17 E74.44134
G1 X125.08 Y178.41 E74.45538
G1 X125.23 Y178.61 E74.46806
G1 X125.38 Y178.81 E74.48057
G1 X125.58 Y179.04 E74.49578
G1 X125.75 Y179.22 E74.50796
G1 X125.95 Y179.41 E74.52151
G1 X126.16 Y179.59 E74.53548
G1 X126.37 Y179.76 E74.54909
G1 X126.59 Y179.91 E74.56230
G1 X126.83 Y180.06 E74.57625
G1 X127.05 Y180.19 E74.58934
G1 X127.28 Y180.31 E74.60208
G1 X127.55 Y180.43 E74.61658
G1 X127.80 Y180.52 E74.62989
G1 X128.03 Y180.60 E74.64240
G1 X128.31 Y180.68 E74.65654
G1 X128.58 Y180.74 E74.67045
G1 X128.82 Y180.78 E74.68265
G1 X129.12 Y180.82 E74.69764
G1 X129.37 Y180.84 E74.71040
G1 X129.67 Y180.84 E74.72507
G1 X129.90 Y180.84 E74.73645
G1 X130.19 Y180.82 E74.75125
G1 X130.44 Y180.79 E74.76367
G1 X130.70 Y180.74 E74.77708
G1 X130.98 Y180.68 E74.79144
G1 X131.25 Y180.61 E74.80525
G1 X131.49 Y180.53 E74.81756
G1 X131.74 Y180.43 E74.83139
G1 X131.99 Y180.32 E74.84502
G1 X132.23 Y180.20 E74.85802
G1 X132.47 Y180.07 E74.87190
G1 X132.71 Y179.92 E74.88593
G1 X132.91 Y179.77 E74.89861
G1 X133.11 Y179.62 E74.91113
G1 X133.34 Y179.42 E74.92634
G1 X133.52 Y179.25 E74.93851
G1 X133.71 Y179.05 E74.95206
G1 X133.90 Y178.84 E74.96628
G1 X134.04 Y178.65 E74.97811
G1 X138.55 Y172.64 E75.35322
G1 X166.25 Y172.64 E76.73502
G1 X171.11 Y178.84 E77.12819
G1 X171.27 Y179.03 E77.14071
G1 X171.45 Y179.22 E77.15366
G1 X171.65 Y179.41 E77.16721
G1 X171.86 Y179.59 E77.18119
G1 X172.07 Y179.76 E77.19480
G1 X172.29 Y179.91 E77.20801
G1 X172.53 Y180.06 E77.22196
G1 X172.75 Y180.19 E77.23505
G1 X172.98 Y180.31 E77.24779
G1 X173.25 Y180.43 E77.26228
G1 X173.50 Y180.52 E77.27560
G1 X173.73 Y180.60 E77.28811
G1 X174.01 Y180.68 E77.30225
G1 X174.28 Y180.74 E77.31615
G1 X174.52 Y180.78 E77.32836
G1 X174.82 Y180.82 E77.34335
G1 X175.07 Y180.84 E77.35610
G1 X175.37 Y180.84 E77.37078
G1 X175.59 Y180.84 E77.38215
G1 X175.89 Y180.82 E77.39696
G1 X176.14 Y180.79 E77.40937
G1 X176.40 Y180.74 E77.42279
G1 X176.68 Y180.68 E77.43715
G1 X176.95 Y180.61 E77.45096
G1 X177.18 Y180.53 E77.46326
G1 X177.44 Y180.43 E77.47710
G1 X177.69 Y180.32 E77.49072
G1 X177.93 Y180.20 E77.50373
G1 X178.17 Y180.07 E77.51760
G1 X178.41 Y179.92 E77.53164
G1 X178.61 Y179.77 E77.54432
G1 X178.81 Y179.62 E77.55683
G1 X179.04 Y179.42 E77.57204
G1 X179.22 Y179.25 E77.58422
G1 X179.41 Y179.05 E77.59777
G1 X179.59 Y178.84 E77.61174
G1 X179.76 Y178.63 E77.62535
G1 X179.91 Y178.41 E77.63856
G1 X180.06 Y178.17 E77.65251
G1 X180.19 Y177.95 E77.66560
G1 X180.31 Y177.72 E77.67834
G1 X180.43 Y177.45 E77.69284
G1 X180.52 Y177.20 E77.70615
G1 X180.60 Y176.97 E77.71866
G1 X180.68 Y176.69 E77.73280
G1 X180.74 Y176.42 E77.74671
G1 X180.78 Y176.18 E77.75891
G1 X180.82 Y175.88 E77.77390
G1 X180.84 Y175.63 E77.78666
G1 X180.84 Y175.33 E77.80133
G1 X180.84 Y175.10 E77.81271
G1 X180.82 Y174.81 E77.82751
G1 X180.79 Y174.56 E77.83993
G1 X180.74 Y174.30 E77.85335
G1 X180.68 Y174.02 E77.86770
G1 X180.61 Y173.76 E77.88100
G1 X180.52 Y173.50 E77.89460
G1 X180.43 Y173.26 E77.90743
G1 X180.32 Y173.01 E77.92128
G1 X180.20 Y172.77 E77.93428
G1 X180.07 Y172.53 E77.94816
G1 X179.92 Y172.29 E77.96219
G1 X179.77 Y172.09 E77.97487
G1 X179.62 Y171.89 E77.98739
G1 X179.42 Y171.66 E78.00260
G1 X179.25 Y171.48 E78.01477
G1 X179.05 Y171.29 E78.02832
G1 X178.84 Y171.10 E78.04254
G1 X178.65 Y170.96 E78.05437
G1 X172.64 Y166.45 E78.42948
G1 X172.64 Y138.75 E79.81128
G1 X178.84 Y133.89 E80.20445
G1 X179.03 Y133.73 E80.21697
G1 X179.22 Y133.55 E80.22992
G1 X179.41 Y133.35 E80.24347
G1 X179.59 Y133.14 E80.25745
G1 X179.76 Y132.93 E80.27106
G1 X179.91 Y132.71 E80.28427
G1 X180.06 Y132.47 E80.29822
G1 X180.19 Y132.25 E80.31131
G1 X180.31 Y132.02 E80.32405
G1 X180.43 Y131.75 E80.33854
G1 X180.52 Y131.50 E80.35186
G1 X180.60 Y131.27 E80.36437
G1 X180.68 Y130.99 E80.37851
G1 X180.74 Y130.72 E80.39241
G1 X180.78 Y130.48 E80.40462
G1 X180.82 Y130.18 E80.41961
G1 X180.84 Y129.93 E80.43236
G1 X180.84 Y129.63 E80.44704
G1 X180.84 Y129.41 E80.45841
G1 X180.82 Y129.11 E80.47322
G1 X180.79 Y128.86 E80.48563
G1 X180.74 Y128.60 E80.49905
G1 X180.68 Y128.32 E80.51341
G1 X180.61 Y128.06 E80.52671
G1 X180.52 Y127.80 E80.54031
G1 X180.43 Y127.56 E80.55313
G1 X180.32 Y127.31 E80.56698
G1 X180.20 Y127.07 E80.57999
G1 X180.07 Y126.83 E80.59386
G1 X179.92 Y126.59 E80.60790
G1 X179.77 Y126.39 E80.62058
G1 X179.61 Y126.18 E80.63334
G1 X179.42 Y125.96 E80.64830
G1 X179.25 Y125.78 E80.66051
G1 X179.05 Y125.59 E80.67403
G1 X178.84 Y125.41 E80.68800
G1 X178.63 Y125.24 E80.70161
G1 X178.41 Y125.09 E80.71482
G1 X178.17 Y124.94 E80.72877
G1 X177.95 Y124.81 E80.74187
G1 X177.72 Y124.69 E80.75461
G1 X177.45 Y124.57 E80.76930
G1 X177.22 Y124.48 E80.78165
G1 X176.96 Y124.40 E80.79538
G1 X176.69 Y124.32 E80.80906
G1 X176.42 Y124.26 E80.82296
G1 X176.18 Y124.22 E80.83517
G1 X175.88 Y124.18 E80.85016
G1 X175.63 Y124.16 E80.86291
G1 X175.33 Y124.16 E80.87759
G1 X175.10 Y124.16 E80.88896
G1 X174.81 Y124.18 E80.90377
G1 X174.56 Y124.21 E80.91618
G1 X174.30 Y124.26 E80.92960
G1 X174.02 Y124.32 E80.94396
G1 X173.75 Y124.39 E80.95777
G1 X173.51 Y124.47 E80.97007
G1 X173.26 Y124.57 E80.98391
G1 X173.01 Y124.68 E80.99753
G1 X172.77 Y124.80 E81.01054
G1 X172.53 Y124.93 E81.02441
G1 X172.29 Y125.08 E81.03845
G1 X172.09 Y125.23 E81.05113
G1 X171.89 Y125.38 E81.06364
G1 X171.66 Y125.58 E81.07885
G1 X171.48 Y125.75 E81.09103
G1 X171.29 Y125.95 E81.10458
G1 X171.10 Y126.16 E81.11880
G1 X170.96 Y126.35 E81.13063
G1 X166.45 Y132.36 E81.50573
G1 X138.75 Y132.36 E82.88754
G1 X133.89 Y126.16 E83.28071
G1 X133.73 Y125.97 E83.29323
G1 X133.55 Y125.78 E83.30622
G1 X133.35 Y125.59 E83.31973
G1 X133.14 Y125.41 E83.33371
G1 X132.93 Y125.24 E83.34732
G1 X132.71 Y125.09 E83.36052
G1 X132.47 Y124.94 E83.37447
G1 X132.25 Y124.81 E83.38757
G1 X132.02 Y124.69 E83.40031
G1 X131.75 Y124.57 E83.41500
G1 X131.52 Y124.48 E83.42735
G1 X131.26 Y124.40 E83.44108
G1 X130.99 Y124.32 E83.45476
G1 X130.72 Y124.26 E83.46867
G1 X130.48 Y124.22 E83.48087
G1 X130.18 Y124.18 E83.49586
G1 X129.93 Y124.16 E83.50862
G1 X129.63 Y124.16 E83.52329
G1 X129.41 Y124.16 E83.53467
G1 X129.11 Y124.18 E83.54947
G1 X128.86 Y124.21 E83.56189
G1 X128.60 Y124.26 E83.57530
G1 X128.32 Y124.32 E83.58966
G1 X128.05 Y124.39 E83.60347
G1 X127.82 Y124.47 E83.61578
G1 X127.56 Y124.57 E83.62961
G1 X127.31 Y124.68 E83.64324
G1 X127.07 Y124.80 E83.65624
G1 X126.83 Y124.93 E83.67012
G1 X126.59 Y125.08 E83.68415
G1 X126.39 Y125.23 E83.69683
G1 X126.19 Y125.38 E83.70935
G1 X125.96 Y125.58 E83.72456
G1 X125.78 Y125.75 E83.73673
G0 F12000 X125.49 Y125.48
G1 F2400 X125.29 Y125.68 E83.75078
G1 X125.10 Y125.90 E83.76524
G1 X124.92 Y126.14 E83.78017
G1 X124.76 Y126.36 E83.79399
G1 X124.60 Y126.62 E83.80913
G1 X124.46 Y126.86 E83.82314
G1 X124.32 Y127.13 E83.83789
G1 X124.21 Y127.38 E83.85189
G1 X124.10 Y127.66 E83.86654
G1 X124.01 Y127.93 E83.88100
G1 X123.94 Y128.19 E83.89461
G1 X123.87 Y128.50 E83.91047
G1 X123.82 Y128.76 E83.92348
G1 X123.79 Y129.06 E83.93857
G1 X123.76 Y129.37 E83.95418
G1 X123.75 Y129.65 E83.96800
G1 X123.76 Y129.91 E83.98103
G1 X123.78 Y130.23 E83.99689
G1 X123.82 Y130.50 E84.01030
G1 X123.87 Y130.80 E84.02554
G1 X123.93 Y131.07 E84.03980
G1 X124.01 Y131.36 E84.05465
G1 X124.10 Y131.63 E84.06857
G1 X124.20 Y131.89 E84.08284
G1 X124.32 Y132.16 E84.09761
G1 X124.44 Y132.41 E84.11122
G1 X124.59 Y132.68 E84.12693
G1 X124.74 Y132.91 E84.14027
G1 X124.91 Y133.16 E84.15556
G1 X125.09 Y133.38 E84.16964
G1 X125.27 Y133.60 E84.18376
G1 X125.48 Y133.81 E84.19865
G1 X125.68 Y134.01 E84.21270
G1 X125.91 Y134.21 E84.22801
G1 X126.07 Y134.34 E84.23824
G1 X131.96 Y138.75 E84.60554
G1 X131.96 Y166.06 E85.96764
G1 X125.91 Y170.80 E86.35143
G1 X125.70 Y170.97 E86.36480
G1 X125.49 Y171.18 E86.37966
G1 X125.29 Y171.38 E86.39370
G1 X125.10 Y171.60 E86.40817
G1 X124.92 Y171.84 E86.42310
G1 X124.76 Y172.06 E86.43691
G1 X124.60 Y172.32 E86.45205
G1 X124.46 Y172.56 E86.46606
G1 X124.32 Y172.82 E86.48081
G1 X124.21 Y173.08 E86.49481
G1 X124.10 Y173.35 E86.50947
G1 X124.01 Y173.63 E86.52392
G1 X123.94 Y173.89 E86.53754
G1 X123.87 Y174.20 E86.55340
G1 X123.82 Y174.46 E86.56641
G1 X123.79 Y174.76 E86.58150
G1 X123.76 Y175.07 E86.59711
G1 X123.75 Y175.35 E86.61093
G1 X123.76 Y175.61 E86.62396
G1 X123.78 Y175.93 E86.63981
G1 X123.82 Y176.19 E86.65323
G1 X123.87 Y176.50 E86.66847
G1 X123.93 Y176.77 E86.68273
G1 X124.01 Y177.06 E86.69758
G1 X124.10 Y177.33 E86.71149
G1 X124.20 Y177.59 E86.72577
G1 X124.32 Y177.86 E86.74054
G1 X124.44 Y178.11 E86.75415
G1 X124.59 Y178.38 E86.76985
G1 X124.74 Y178.61 E86.78320
G1 X124.91 Y178.86 E86.79849
G1 X125.09 Y179.08 E86.81257
G1 X125.27 Y179.30 E86.82668
G1 X125.48 Y179.51 E86.84158
G1 X125.68 Y179.71 E86.85562
G1 X125.90 Y179.90 E86.87009
G1 X126.14 Y180.08 E86.88502
G1 X126.36 Y180.24 E86.89883
G1 X126.62 Y180.40 E86.91401
G1 X126.86 Y180.54 E86.92787
G1 X127.13 Y180.68 E86.94273
G1 X127.38 Y180.79 E86.95655
G1 X127.65 Y180.90 E86.97116
G1 X127.94 Y180.99 E86.98625
G1 X128.19 Y181.06 E86.99945
G1 X128.50 Y181.13 E87.01531
G1 X128.76 Y181.18 E87.02832
G1 X129.06 Y181.21 E87.04341
G1 X129.37 Y181.24 E87.05902
G1 X129.67 Y181.25 E87.07364
G1 X129.91 Y181.24 E87.08587
G1 X130.23 Y181.22 E87.10173
G1 X130.50 Y181.18 E87.11514
G1 X130.80 Y181.13 E87.13038
G1 X131.07 Y181.07 E87.14464
G1 X131.36 Y180.99 E87.15949
G1 X131.63 Y180.90 E87.17341
G1 X131.89 Y180.80 E87.18768
G1 X132.16 Y180.68 E87.20245
G1 X132.41 Y180.56 E87.21606
G1 X132.68 Y180.41 E87.23177
G1 X132.91 Y180.26 E87.24511
G1 X133.16 Y180.09 E87.26040
G1 X133.38 Y179.91 E87.27448
G1 X133.60 Y179.73 E87.28860
G1 X133.81 Y179.52 E87.30349
G1 X134.01 Y179.32 E87.31754
G1 X134.21 Y179.09 E87.33292
G1 X134.34 Y178.93 E87.34308
G1 X138.75 Y173.04 E87.71038
G1 X166.06 Y173.04 E89.07248
G1 X170.79 Y179.09 E89.45577
G1 X170.97 Y179.30 E89.46964
G1 X171.18 Y179.51 E89.48450
G1 X171.38 Y179.71 E89.49854
G1 X171.60 Y179.90 E89.51301
G1 X171.84 Y180.08 E89.52794
G1 X172.06 Y180.24 E89.54175
G1 X172.32 Y180.40 E89.55694
G1 X172.56 Y180.54 E89.57079
G1 X172.82 Y180.68 E89.58565
G1 X173.08 Y180.79 E89.59947
G1 X173.35 Y180.90 E89.61409
G1 X173.64 Y180.99 E89.62917
G1 X173.89 Y181.06 E89.64237
G1 X174.20 Y181.13 E89.65823
G1 X174.46 Y181.18 E89.67125
G1 X174.76 Y181.21 E89.68633
G1 X175.07 Y181.24 E89.70199
G1 X175.37 Y181.25 E89.71656
G1 X175.61 Y181.24 E89.72879
G1 X175.93 Y181.22 E89.74465
G1 X176.19 Y181.18 E89.75806
G1 X176.50 Y181.13 E89.77330
G1 X176.77 Y181.07 E89.78756
G1 X177.06 Y180.99 E89.80241
G1 X177.33 Y180.90 E89.81633
G1 X177.59 Y180.80 E89.83061
G1 X177.86 Y180.68 E89.84537
G1 X178.11 Y180.56 E89.85898
G1 X178.38 Y180.41 E89.87469
G1 X178.61 Y180.26 E89.88803
G1 X178.86 Y180.09 E89.90332
G1 X179.08 Y179.91 E89.91741
G1 X179.30 Y179.73 E89.93152
G1 X179.51 Y179.52 E89.94641
G1 X179.71 Y179.32 E89.96046
G1 X179.90 Y179.10 E89.97492
G1 X180.08 Y178.86 E89.98985
G1 X180.24 Y178.64 E90.00367
G1 X180.40 Y178.38 E90.01885
G1 X180.54 Y178.14 E90.03282
G1 X180.68 Y177.87 E90.04756
G1 X180.79 Y177.62 E90.06139
G1 X180.90 Y177.35 E90.07600
G1 X180.99 Y177.06 E90.09108
G1 X181.06 Y176.81 E90.10429
G1 X181.13 Y176.50 E90.12014
G1 X181.18 Y176.24 E90.13316
G1 X181.21 Y175.94 E90.14825
G1 X181.24 Y175.63 E90.16390
G1 X181.25 Y175.33 E90.17848
G1 X181.24 Y175.09 E90.19070
G1 X181.22 Y174.77 E90.20656
G1 X181.18 Y174.50 E90.21998
G1 X181.13 Y174.20 E90.23522
G1 X181.07 Y173.93 E90.24947
G1 X180.99 Y173.65 E90.26376
G1 X180.90 Y173.36 E90.27900
G1 X180.80 Y173.11 E90.29229
G1 X180.68 Y172.84 E90.30728
G1 X180.56 Y172.59 E90.32089
G1 X180.41 Y172.32 E90.33660
G1 X180.26 Y172.09 E90.34994
G1 X180.09 Y171.84 E90.36523
G1 X179.91 Y171.61 E90.37967
G1 X179.73 Y171.40 E90.39343
G1 X179.52 Y171.19 E90.40832
G1 X179.32 Y170.99 E90.42236
G1 X179.09 Y170.79 E90.43768
G1 X178.93 Y170.66 E90.44791
G1 X173.04 Y166.25 E90.81521
G1 X173.04 Y138.94 E92.17731
G1 X179.09 Y134.20 E92.56110
G1 X179.30 Y134.03 E92.57447
G1 X179.51 Y133.82 E92.58933
G1 X179.71 Y133.62 E92.60337
G1 X179.90 Y133.40 E92.61784
G1 X180.08 Y133.16 E92.63277
G1 X180.24 Y132.94 E92.64658
G1 X180.40 Y132.68 E92.66177
G1 X180.54 Y132.44 E92.67573
G1 X180.68 Y132.18 E92.69048
G1 X180.79 Y131.92 E92.70430
G1 X180.90 Y131.65 E92.71892
G1 X180.99 Y131.36 E92.73400
G1 X181.06 Y131.11 E92.74720
G1 X181.13 Y130.80 E92.76306
G1 X181.18 Y130.54 E92.77608
G1 X181.21 Y130.24 E92.79116
G1 X181.24 Y129.93 E92.80682
G1 X181.25 Y129.63 E92.82139
G1 X181.24 Y129.39 E92.83362
G1 X181.22 Y129.07 E92.84948
G1 X181.18 Y128.81 E92.86289
G1 X181.13 Y128.50 E92.87813
G1 X181.07 Y128.23 E92.89239
G1 X180.99 Y127.95 E92.90667
G1 X180.90 Y127.66 E92.92191
G1 X180.80 Y127.41 E92.93521
G1 X180.68 Y127.14 E92.95020
G1 X180.56 Y126.89 E92.96381
G1 X180.41 Y126.62 E92.97952
G1 X180.26 Y126.39 E92.99286
G1 X180.09 Y126.14 E93.00815
G1 X179.91 Y125.91 E93.02258
G1 X179.73 Y125.70 E93.03634
G1 X179.52 Y125.49 E93.05124
G1 X179.32 Y125.29 E93.06528
G1 X179.10 Y125.10 E93.07975
G1 X178.86 Y124.92 E93.09468
G1 X178.64 Y124.76 E93.10849
G1 X178.38 Y124.60 E93.12367
G1 X178.14 Y124.46 E93.13764
G1 X177.87 Y124.32 E93.15239
G1 X177.62 Y124.21 E93.16639
G1 X177.34 Y124.10 E93.18105
G1 X177.07 Y124.01 E93.19550
G1 X176.81 Y123.94 E93.20912
G1 X176.50 Y123.87 E93.22497
G1 X176.24 Y123.82 E93.23799
G1 X175.94 Y123.79 E93.25308
G1 X175.63 Y123.76 E93.26868
G1 X175.33 Y123.75 E93.28331
G1 X175.09 Y123.76 E93.29553
G1 X174.77 Y123.78 E93.31139
G1 X174.50 Y123.82 E93.32481
G1 X174.20 Y123.87 E93.34005
G1 X173.93 Y123.93 E93.35430
G1 X173.64 Y124.01 E93.36916
G1 X173.37 Y124.10 E93.38307
G1 X173.11 Y124.20 E93.39735
G1 X172.84 Y124.32 E93.41211
G1 X172.59 Y124.44 E93.42572
G1 X172.32 Y124.59 E93.44143
G1 X172.09 Y124.74 E93.45477
G1 X171.84 Y124.91 E93.47007
G1 X171.62 Y125.09 E93.48415
G1 X171.40 Y125.27 E93.49826
G1 X171.19 Y125.48 E93.51315
G1 X170.99 Y125.68 E93.52720
G1 X170.79 Y125.91 E93.54251
G1 X170.66 Y126.07 E93.55274
G1 X166.25 Y131.96 E93.92005
G1 X138.94 Y131.96 E95.28215
G1 X134.20 Y125.91 E95.66593
G1 X134.03 Y125.70 E95.67931
G1 X133.82 Y125.49 E95.69416
G1 X133.62 Y125.29 E95.70821
G1 X133.40 Y125.10 E95.72267
G1 X133.16 Y124.92 E95.73760
G1 X132.94 Y124.76 E95.75142
G1 X132.68 Y124.60 E95.76660
G1 X132.44 Y124.46 E95.78057
G1 X132.18 Y124.32 E95.79532
G1 X131.92 Y124.21 E95.80932
G1 X131.65 Y124.10 E95.82397
G1 X131.37 Y124.01 E95.83843
G1 X131.11 Y123.94 E95.85204
G1 X130.80 Y123.87 E95.86790
G1 X130.54 Y123.82 E95.88091
G1 X130.24 Y123.79 E95.89600
G1 X129.93 Y123.76 E95.91161
G1 X129.63 Y123.75 E95.92623
G1 X129.39 Y123.76 E95.93846
G1 X129.07 Y123.78 E95.95432
G1 X128.81 Y123.82 E95.96773
G1 X128.50 Y123.87 E95.98297
G1 X128.23 Y123.93 E95.99723
G1 X127.94 Y124.01 E96.01208
G1 X127.67 Y124.10 E96.02600
G1 X127.41 Y124.20 E96.04027
G1 X127.14 Y124.32 E96.05504
G1 X126.89 Y124.44 E96.06865
G1 X126.62 Y124.59 E96.08436
G1 X126.39 Y124.74 E96.09770
G1 X126.14 Y124.91 E96.11299
G1 X125.92 Y125.09 E96.12707
G1 X125.70 Y125.27 E96.14119
G1 X125.49 Y125.48 E96.15608
G0 F12000 X125.21 Y125.19
G1 F2400 X125.00 Y125.41 E96.17072
G1 X124.79 Y125.65 E96.18696
G1 X124.60 Y125.90 E96.20253
G1 X124.41 Y126.16 E96.21838
G1 X124.25 Y126.41 E96.23324
G1 X124.11 Y126.66 E96.24761
G1 X123.96 Y126.96 E96.26450
G1 X123.84 Y127.22 E96.27882
G1 X123.73 Y127.52 E96.29464
G1 X123.63 Y127.81 E96.31006
G1 X123.55 Y128.10 E96.32522
G1 X123.48 Y128.42 E96.34154
G1 X123.43 Y128.70 E96.35572
G1 X123.39 Y129.02 E96.37166
G1 X123.36 Y129.34 E96.38762
G1 X123.36 Y129.66 E96.40374
G1 X123.36 Y129.93 E96.41686
G1 X123.39 Y130.26 E96.43372
G1 X123.42 Y130.57 E96.44920
G1 X123.47 Y130.84 E96.46266
G1 X123.55 Y131.19 E96.48044
G1 X123.62 Y131.47 E96.49529
G1 X123.72 Y131.75 E96.50984
G1 X123.83 Y132.06 E96.52652
G1 X123.95 Y132.32 E96.54052
G1 X124.09 Y132.61 E96.55659
G1 X124.25 Y132.88 E96.57236
G1 X124.42 Y133.15 E96.58817
G1 X124.58 Y133.38 E96.60254
G1 X124.77 Y133.63 E96.61789
G1 X124.97 Y133.86 E96.63328
G1 X125.19 Y134.09 E96.64934
G1 X125.41 Y134.30 E96.66398
G1 X125.67 Y134.52 E96.68107
G1 X125.85 Y134.66 E96.69262
G1 X131.56 Y138.95 E97.04915
G1 X131.56 Y165.86 E98.39155
G1 X125.65 Y170.49 E98.76648
G1 X125.45 Y170.66 E98.77946
G1 X125.21 Y170.89 E98.79619
G1 X125.00 Y171.10 E98.81083
G1 X124.79 Y171.35 E98.82707
G1 X124.60 Y171.60 E98.84264
G1 X124.41 Y171.86 E98.85849
G1 X124.25 Y172.11 E98.87335
G1 X124.11 Y172.36 E98.88772
G1 X123.96 Y172.66 E98.90461
G1 X123.84 Y172.92 E98.91893
G1 X123.73 Y173.22 E98.93475
G1 X123.63 Y173.51 E98.95017
G1 X123.55 Y173.80 E98.96533
G1 X123.48 Y174.12 E98.98165
G1 X123.43 Y174.40 E98.99583
G1 X123.39 Y174.72 E99.01177
G1 X123.36 Y175.04 E99.02773
G1 X123.36 Y175.36 E99.04385
G1 X123.36 Y175.62 E99.05697
G1 X123.39 Y175.96 E99.07383
G1 X123.42 Y176.27 E99.08931
G1 X123.47 Y176.54 E99.10277
G1 X123.55 Y176.88 E99.12055
G1 X123.62 Y177.17 E99.13540
G1 X123.72 Y177.45 E99.14995
G1 X123.83 Y177.76 E99.16663
G1 X123.95 Y178.02 E99.18064
G1 X124.09 Y178.31 E99.19670
G1 X124.25 Y178.58 E99.21247
G1 X124.42 Y178.85 E99.22828
G1 X124.58 Y179.08 E99.24265
G1 X124.77 Y179.33 E99.25800
G1 X124.97 Y179.56 E99.27339
G1 X125.19 Y179.79 E99.28945
G1 X125.40 Y179.99 E99.30388
G1 X125.65 Y180.21 E99.32033
G1 X125.90 Y180.40 E99.33590
G1 X126.16 Y180.59 E99.35175
G1 X126.41 Y180.75 E99.36661
G1 X126.66 Y180.89 E99.38116
G1 X126.96 Y181.04 E99.39787
G1 X127.22 Y181.16 E99.41197
G1 X127.53 Y181.28 E99.42844
G1 X127.81 Y181.37 E99.44321
G1 X128.10 Y181.45 E99.45859
G1 X128.42 Y181.52 E99.47491
G1 X128.70 Y181.57 E99.48909
G1 X129.02 Y181.61 E99.50503
G1 X129.34 Y181.64 E99.52099
G1 X129.67 Y181.65 E99.53756
G1 X129.93 Y181.64 E99.55038
G1 X130.26 Y181.62 E99.56709
G1 X130.57 Y181.58 E99.58257
G1 X130.85 Y181.53 E99.59664
G1 X131.19 Y181.46 E99.61381
G1 X131.47 Y181.38 E99.62866
G1 X131.75 Y181.28 E99.64321
G1 X132.06 Y181.16 E99.65989
G1 X132.32 Y181.05 E99.67389
G1 X132.61 Y180.91 E99.68996
G1 X132.88 Y180.75 E99.70573
G1 X133.15 Y180.58 E99.72154
G1 X133.40 Y180.41 E99.73658
G1 X133.63 Y180.23 E99.75127
G1 X133.86 Y180.03 E99.76665
G1 X134.09 Y179.81 E99.78271
G1 X134.30 Y179.59 E99.79735
G1 X134.53 Y179.33 E99.81469
G1 X134.67 Y179.15 E99.82630
G1 X138.95 Y173.44 E100.18252
G1 X165.86 Y173.44 E101.52492
G1 X170.49 Y179.35 E101.89985
G1 X170.66 Y179.55 E101.91283
G1 X170.89 Y179.79 E101.92956
G1 X171.10 Y179.99 E101.94399
G1 X171.35 Y180.21 E101.96044
G1 X171.60 Y180.40 E101.97601
G1 X171.86 Y180.59 E101.99186
G1 X172.11 Y180.75 E102.00672
G1 X172.36 Y180.89 E102.02127
G1 X172.66 Y181.04 E102.03798
G1 X172.92 Y181.16 E102.05207
G1 X173.23 Y181.28 E102.06855
G1 X173.51 Y181.37 E102.08331
G1 X173.80 Y181.45 E102.09870
G1 X174.12 Y181.52 E102.11502
G1 X174.40 Y181.57 E102.12920
G1 X174.72 Y181.61 E102.14514
G1 X175.04 Y181.64 E102.16110
G1 X175.37 Y181.65 E102.17767
G1 X175.63 Y181.64 E102.19049
G1 X175.96 Y181.62 E102.20720
G1 X176.27 Y181.58 E102.22268
G1 X176.55 Y181.53 E102.23675
G1 X176.88 Y181.46 E102.25392
G1 X177.17 Y181.38 E102.26877
G1 X177.45 Y181.28 E102.28332
G1 X177.76 Y181.16 E102.30000
G1 X178.02 Y181.05 E102.31400
G1 X178.31 Y180.91 E102.33007
G1 X178.58 Y180.75 E102.34584
G1 X178.85 Y180.58 E102.36165
G1 X179.09 Y180.41 E102.37669
G1 X179.33 Y180.23 E102.39137
G1 X179.56 Y180.03 E102.40676
G1 X179.79 Y179.81 E102.42282
G1 X180.00 Y179.59 E102.43746
G1 X180.21 Y179.35 E102.45370
G1 X180.40 Y179.10 E102.46927
G1 X180.59 Y178.84 E102.48512
G1 X180.75 Y178.59 E102.49998
G1 X180.89 Y178.34 E102.51453
G1 X181.04 Y178.04 E102.53124
G1 X181.16 Y177.78 E102.54534
G1 X181.28 Y177.47 E102.56181
G1 X181.37 Y177.19 E102.57658
G1 X181.45 Y176.90 E102.59196
G1 X181.52 Y176.58 E102.60828
G1 X181.57 Y176.30 E102.62246
G1 X181.61 Y175.98 E102.63840
G1 X181.64 Y175.66 E102.65436
G1 X181.65 Y175.33 E102.67093
G1 X181.64 Y175.07 E102.68375
G1 X181.61 Y174.73 E102.70091
G1 X181.58 Y174.43 E102.71594
G1 X181.53 Y174.15 E102.73001
G1 X181.46 Y173.81 E102.74718
G1 X181.38 Y173.54 E102.76151
G1 X181.28 Y173.24 E102.77743
G1 X181.17 Y172.94 E102.79304
G1 X181.05 Y172.68 E102.80726
G1 X180.91 Y172.39 E102.82333
G1 X180.75 Y172.12 E102.83910
G1 X180.58 Y171.85 E102.85491
G1 X180.41 Y171.60 E102.86995
G1 X180.23 Y171.37 E102.88488
G1 X180.03 Y171.14 E102.90003
G1 X179.80 Y170.90 E102.91626
G1 X179.59 Y170.70 E102.93073
G1 X179.34 Y170.48 E102.94781
G1 X179.15 Y170.34 E102.95936
G1 X173.44 Y166.05 E103.31589
G1 X173.44 Y139.14 E104.65829
G1 X179.35 Y134.51 E105.03322
G1 X179.55 Y134.34 E105.04621
G1 X179.79 Y134.11 E105.06293
G1 X180.00 Y133.90 E105.07758
G1 X180.21 Y133.65 E105.09381
G1 X180.40 Y133.40 E105.10938
G1 X180.59 Y133.14 E105.12523
G1 X180.75 Y132.89 E105.14009
G1 X180.89 Y132.64 E105.15464
G1 X181.04 Y132.34 E105.17135
G1 X181.16 Y132.08 E105.18545
G1 X181.28 Y131.77 E105.20192
G1 X181.37 Y131.49 E105.21669
G1 X181.45 Y131.20 E105.23207
G1 X181.52 Y130.88 E105.24839
G1 X181.57 Y130.60 E105.26257
G1 X181.61 Y130.28 E105.27851
G1 X181.64 Y129.96 E105.29447
G1 X181.65 Y129.63 E105.31104
G1 X181.64 Y129.37 E105.32386
G1 X181.61 Y129.03 E105.34102
G1 X181.58 Y128.73 E105.35605
G1 X181.53 Y128.45 E105.37012
G1 X181.46 Y128.12 E105.38730
G1 X181.38 Y127.84 E105.40163
G1 X181.28 Y127.54 E105.41754
G1 X181.17 Y127.24 E105.43315
G1 X181.05 Y126.98 E105.44738
G1 X180.91 Y126.69 E105.46344
G1 X180.75 Y126.42 E105.47921
G1 X180.58 Y126.15 E105.49502
G1 X180.41 Y125.91 E105.51007
G1 X180.23 Y125.67 E105.52500
G1 X180.03 Y125.44 E105.54014
G1 X179.81 Y125.21 E105.55619
G1 X179.59 Y125.00 E105.57084
G1 X179.35 Y124.79 E105.58707
G1 X179.10 Y124.60 E105.60264
G1 X178.84 Y124.41 E105.61849
G1 X178.59 Y124.25 E105.63336
G1 X178.34 Y124.11 E105.64790
G1 X178.04 Y123.96 E105.66462
G1 X177.78 Y123.84 E105.67893
G1 X177.48 Y123.73 E105.69476
G1 X177.19 Y123.63 E105.71017
G1 X176.90 Y123.55 E105.72534
G1 X176.58 Y123.48 E105.74165
G1 X176.30 Y123.43 E105.75583
G1 X175.98 Y123.39 E105.77177
G1 X175.66 Y123.36 E105.78773
G1 X175.33 Y123.36 E105.80430
G1 X175.07 Y123.36 E105.81713
G1 X174.74 Y123.39 E105.83383
G1 X174.43 Y123.42 E105.84932
G1 X174.15 Y123.47 E105.86338
G1 X173.81 Y123.55 E105.88056
G1 X173.53 Y123.62 E105.89541
G1 X173.25 Y123.72 E105.90996
G1 X172.94 Y123.83 E105.92663
G1 X172.68 Y123.95 E105.94064
G1 X172.39 Y124.09 E105.95670
G1 X172.12 Y124.25 E105.97248
G1 X171.85 Y124.42 E105.98822
G1 X171.60 Y124.59 E106.00333
G1 X171.37 Y124.77 E106.01801
G1 X171.14 Y124.97 E106.03340
G1 X170.91 Y125.19 E106.04946
G1 X170.70 Y125.41 E106.06410
G1 X170.48 Y125.67 E106.08118
G1 X170.34 Y125.84 E106.09216
G1 X166.05 Y131.56 E106.44927
G1 X139.14 Y131.56 E107.79166
G1 X134.51 Y125.65 E108.16660
G1 X134.34 Y125.45 E108.17958
G1 X134.11 Y125.21 E108.19631
G1 X133.90 Y125.00 E108.21095
G1 X133.65 Y124.79 E108.22718
G1 X133.40 Y124.60 E108.24275
G1 X133.14 Y124.41 E108.25860
G1 X132.89 Y124.25 E108.27347
G1 X132.64 Y124.11 E108.28802
G1 X132.34 Y123.96 E108.30473
G1 X132.08 Y123.84 E108.31904
G1 X131.78 Y123.73 E108.33487
G1 X131.49 Y123.63 E108.35028
G1 X131.20 Y123.55 E108.36545
G1 X130.88 Y123.48 E108.38176
G1 X130.60 Y123.43 E108.39595
G1 X130.28 Y123.39 E108.41189
G1 X129.96 Y123.36 E108.42785
G1 X129.63 Y123.36 E108.44442
G1 X129.37 Y123.36 E108.45724
G1 X129.04 Y123.39 E108.47395
G1 X128.73 Y123.42 E108.48943
G1 X128.45 Y123.47 E108.50350
G1 X128.12 Y123.55 E108.52067
G1 X127.83 Y123.62 E108.53552
G1 X127.55 Y123.72 E108.55007
G1 X127.24 Y123.83 E108.56675
G1 X126.98 Y123.95 E108.58075
G1 X126.69 Y124.09 E108.59682
G1 X126.42 Y124.25 E108.61259
G1 X126.15 Y124.42 E108.62833
G1 X125.91 Y124.59 E108.64344
G1 X125.67 Y124.77 E108.65812
G1 X125.44 Y124.97 E108.67351
G1 X125.21 Y125.19 E108.68957
G0 F12000 X124.93 Y124.90
G1 F2400 X124.70 Y125.15 E108.70679
G1 X124.48 Y125.39 E108.72288
G1 X124.28 Y125.65 E108.73944
G1 X124.09 Y125.92 E108.75540
G1 X123.91 Y126.21 E108.77272
G1 X123.76 Y126.47 E108.78800
G1 X123.60 Y126.79 E108.80554
G1 X123.47 Y127.07 E108.82099
G1 X123.35 Y127.39 E108.83823
G1 X123.25 Y127.68 E108.85337
G1 X123.16 Y128.02 E108.87072
G1 X123.08 Y128.34 E108.88755
G1 X123.03 Y128.65 E108.90274
G1 X122.99 Y128.98 E108.91949
G1 X122.96 Y129.32 E108.93660
G1 X122.95 Y129.67 E108.95412
G1 X122.96 Y129.94 E108.96779
G1 X122.99 Y130.30 E108.98565
G1 X123.03 Y130.62 E109.00173
G1 X123.08 Y130.94 E109.01793
G1 X123.15 Y131.27 E109.03474
G1 X123.24 Y131.59 E109.05114
G1 X123.34 Y131.89 E109.06706
G1 X123.46 Y132.19 E109.08325
G1 X123.59 Y132.50 E109.09993
G1 X123.74 Y132.80 E109.11682
G1 X123.89 Y133.06 E109.13179
G1 X124.09 Y133.38 E109.15013
G1 X124.26 Y133.62 E109.16518
G1 X124.47 Y133.89 E109.18238
G1 X124.67 Y134.13 E109.19791
G1 X124.90 Y134.37 E109.21425
G1 X125.15 Y134.61 E109.23155
G1 X125.40 Y134.82 E109.24817
G1 X125.59 Y134.97 E109.26018
G1 X131.16 Y139.15 E109.60766
G1 X131.16 Y165.67 E110.93040
G1 X125.40 Y170.18 E111.29581
G1 X125.17 Y170.37 E111.31035
G1 X124.93 Y170.60 E111.32691
G1 X124.70 Y170.85 E111.34413
G1 X124.48 Y171.09 E111.36022
G1 X124.28 Y171.35 E111.37678
G1 X124.09 Y171.61 E111.39274
G1 X123.91 Y171.91 E111.41005
G1 X123.76 Y172.17 E111.42534
G1 X123.60 Y172.49 E111.44287
G1 X123.47 Y172.77 E111.45833
G1 X123.35 Y173.09 E111.47556
G1 X123.25 Y173.38 E111.49071
G1 X123.16 Y173.72 E111.50805
G1 X123.08 Y174.04 E111.52489
G1 X123.03 Y174.34 E111.54008
G1 X122.99 Y174.68 E111.55682
G1 X122.96 Y175.02 E111.57393
G1 X122.95 Y175.37 E111.59145
G1 X122.96 Y175.64 E111.60512
G1 X122.99 Y176.00 E111.62298
G1 X123.03 Y176.32 E111.63907
G1 X123.08 Y176.64 E111.65526
G1 X123.15 Y176.97 E111.67208
G1 X123.24 Y177.29 E111.68848
G1 X123.34 Y177.59 E111.70440
G1 X123.46 Y177.89 E111.72058
G1 X123.59 Y178.20 E111.73727
G1 X123.74 Y178.50 E111.75416
G1 X123.89 Y178.76 E111.76913
G1 X124.09 Y179.07 E111.78747
G1 X124.26 Y179.32 E111.80251
G1 X124.47 Y179.59 E111.81972
G1 X124.67 Y179.83 E111.83525
G1 X124.90 Y180.07 E111.85159
G1 X125.15 Y180.31 E111.86888
G1 X125.39 Y180.51 E111.88483
G1 X125.66 Y180.72 E111.90175
G1 X125.92 Y180.91 E111.91735
G1 X126.21 Y181.09 E111.93467
G1 X126.48 Y181.25 E111.95017
G1 X126.79 Y181.40 E111.96749
G1 X127.08 Y181.53 E111.98366
G1 X127.37 Y181.64 E111.99901
G1 X127.69 Y181.75 E112.01573
G1 X128.02 Y181.84 E112.03267
G1 X128.34 Y181.92 E112.04950
G1 X128.65 Y181.97 E112.06469
G1 X128.98 Y182.01 E112.08168
G1 X129.32 Y182.04 E112.09855
G1 X129.67 Y182.04 E112.11606
G1 X129.94 Y182.04 E112.12974
G1 X130.30 Y182.01 E112.14759
G1 X130.62 Y181.97 E112.16368
G1 X130.94 Y181.92 E112.17997
G1 X131.27 Y181.85 E112.19669
G1 X131.59 Y181.76 E112.21309
G1 X131.89 Y181.66 E112.22901
G1 X132.20 Y181.54 E112.24535
G1 X132.51 Y181.41 E112.26222
G1 X132.80 Y181.26 E112.27877
G1 X133.06 Y181.11 E112.29374
G1 X133.38 Y180.91 E112.31208
G1 X133.62 Y180.74 E112.32713
G1 X133.89 Y180.53 E112.34433
G1 X134.14 Y180.32 E112.36028
G1 X134.37 Y180.10 E112.37620
G1 X134.61 Y179.85 E112.39349
G1 X134.82 Y179.60 E112.41012
G1 X134.98 Y179.40 E112.42255
G1 X139.15 Y173.84 E112.76961
G1 X165.67 Y173.84 E114.09235
G1 X170.18 Y179.60 E114.45776
G1 X170.37 Y179.83 E114.47237
G1 X170.60 Y180.07 E114.48892
G1 X170.85 Y180.31 E114.50621
G1 X171.09 Y180.51 E114.52217
G1 X171.36 Y180.72 E114.53908
G1 X171.61 Y180.91 E114.55468
G1 X171.91 Y181.09 E114.57200
G1 X172.18 Y181.25 E114.58751
G1 X172.49 Y181.40 E114.60482
G1 X172.78 Y181.53 E114.62099
G1 X173.07 Y181.64 E114.63634
G1 X173.39 Y181.75 E114.65306
G1 X173.72 Y181.84 E114.67000
G1 X174.04 Y181.92 E114.68683
G1 X174.34 Y181.97 E114.70202
G1 X174.68 Y182.01 E114.71902
G1 X175.02 Y182.04 E114.73588
G1 X175.37 Y182.04 E114.75340
G1 X175.64 Y182.04 E114.76707
G1 X176.00 Y182.01 E114.78493
G1 X176.32 Y181.97 E114.80101
G1 X176.64 Y181.92 E114.81731
G1 X176.97 Y181.85 E114.83402
G1 X177.29 Y181.76 E114.85042
G1 X177.59 Y181.66 E114.86634
G1 X177.90 Y181.54 E114.88269
G1 X178.21 Y181.41 E114.89955
G1 X178.50 Y181.26 E114.91610
G1 X178.76 Y181.11 E114.93107
G1 X179.07 Y180.91 E114.94941
G1 X179.32 Y180.74 E114.96446
G1 X179.59 Y180.53 E114.98166
G1 X179.84 Y180.32 E114.99762
G1 X180.07 Y180.10 E115.01353
G1 X180.31 Y179.85 E115.03082
G1 X180.51 Y179.61 E115.04678
G1 X180.72 Y179.34 E115.06369
G1 X180.91 Y179.09 E115.07929
G1 X181.09 Y178.79 E115.09661
G1 X181.25 Y178.52 E115.11212
G1 X181.40 Y178.21 E115.12943
G1 X181.53 Y177.91 E115.14582
G1 X181.64 Y177.63 E115.16095
G1 X181.75 Y177.31 E115.17794
G1 X181.84 Y176.98 E115.19461
G1 X181.92 Y176.66 E115.21145
G1 X181.97 Y176.35 E115.22664
G1 X182.01 Y176.02 E115.24363
G1 X182.04 Y175.67 E115.26079
G1 X182.04 Y175.33 E115.27801
G1 X182.04 Y175.05 E115.29188
G1 X182.01 Y174.70 E115.30954
G1 X181.97 Y174.38 E115.32562
G1 X181.92 Y174.06 E115.34192
G1 X181.85 Y173.73 E115.35863
G1 X181.76 Y173.42 E115.37457
G1 X181.65 Y173.09 E115.39174
G1 X181.54 Y172.81 E115.40692
G1 X181.41 Y172.49 E115.42416
G1 X181.25 Y172.19 E115.44118
G1 X181.11 Y171.94 E115.45568
G1 X180.91 Y171.62 E115.47402
G1 X180.74 Y171.38 E115.48921
G1 X180.53 Y171.11 E115.50627
G1 X180.32 Y170.86 E115.52222
G1 X180.10 Y170.63 E115.53814
G1 X179.85 Y170.39 E115.55543
G1 X179.60 Y170.18 E115.57206
G1 X179.40 Y170.02 E115.58449
G1 X173.84 Y165.85 E115.93155
G1 X173.84 Y139.33 E117.25429
G1 X179.60 Y134.82 E117.61970
G1 X179.83 Y134.62 E117.63463
G1 X180.07 Y134.40 E117.65086
G1 X180.31 Y134.15 E117.66815
G1 X180.51 Y133.91 E117.68411
G1 X180.72 Y133.64 E117.70102
G1 X180.91 Y133.39 E117.71662
G1 X181.09 Y133.09 E117.73394
G1 X181.25 Y132.82 E117.74945
G1 X181.40 Y132.51 E117.76676
G1 X181.53 Y132.21 E117.78315
G1 X181.64 Y131.93 E117.79828
G1 X181.75 Y131.61 E117.81527
G1 X181.84 Y131.28 E117.83194
G1 X181.92 Y130.96 E117.84878
G1 X181.97 Y130.66 E117.86397
G1 X182.01 Y130.32 E117.88096
G1 X182.04 Y129.97 E117.89812
G1 X182.04 Y129.63 E117.91534
G1 X182.04 Y129.35 E117.92921
G1 X182.01 Y129.00 E117.94687
G1 X181.97 Y128.68 E117.96295
G1 X181.92 Y128.36 E117.97925
G1 X181.85 Y128.03 E117.99596
G1 X181.76 Y127.72 E118.01190
G1 X181.65 Y127.39 E118.02907
G1 X181.54 Y127.11 E118.04425
G1 X181.41 Y126.80 E118.06149
G1 X181.25 Y126.49 E118.07851
G1 X181.11 Y126.24 E118.09301
G1 X180.91 Y125.93 E118.11135
G1 X180.74 Y125.68 E118.12654
G1 X180.53 Y125.41 E118.14360
G1 X180.32 Y125.17 E118.15955
G1 X180.10 Y124.93 E118.17547
G1 X179.85 Y124.69 E118.19297
G1 X179.60 Y124.48 E118.20886
G1 X179.34 Y124.28 E118.22563
G1 X179.09 Y124.09 E118.24123
G1 X178.79 Y123.91 E118.25855
G1 X178.52 Y123.75 E118.27405
G1 X178.21 Y123.60 E118.29137
G1 X177.93 Y123.47 E118.30682
G1 X177.61 Y123.35 E118.32406
G1 X177.32 Y123.25 E118.33920
G1 X176.98 Y123.16 E118.35655
G1 X176.66 Y123.08 E118.37338
G1 X176.35 Y123.03 E118.38857
G1 X176.02 Y122.99 E118.40556
G1 X175.68 Y122.96 E118.42243
G1 X175.33 Y122.95 E118.43995
G1 X175.06 Y122.96 E118.45362
G1 X174.70 Y122.99 E118.47148
G1 X174.38 Y123.03 E118.48756
G1 X174.06 Y123.08 E118.50386
G1 X173.73 Y123.15 E118.52057
G1 X173.41 Y123.24 E118.53697
G1 X173.11 Y123.34 E118.55289
G1 X172.81 Y123.46 E118.56908
G1 X172.49 Y123.59 E118.58610
G1 X172.20 Y123.74 E118.60265
G1 X171.94 Y123.89 E118.61762
G1 X171.62 Y124.09 E118.63596
G1 X171.38 Y124.26 E118.65090
G1 X171.11 Y124.47 E118.66803
G1 X170.86 Y124.68 E118.68416
G1 X170.63 Y124.90 E118.70001
G1 X170.40 Y125.15 E118.71723
G1 X170.18 Y125.40 E118.73400
G1 X170.02 Y125.60 E118.74643
G1 X165.85 Y131.16 E119.09349
G1 X139.33 Y131.16 E120.41623
G1 X134.82 Y125.39 E120.78182
G1 X134.63 Y125.17 E120.79625
G1 X134.40 Y124.93 E120.81280
G1 X134.15 Y124.69 E120.83031
G1 X133.91 Y124.48 E120.84619
G1 X133.64 Y124.28 E120.86296
G1 X133.39 Y124.09 E120.87856
G1 X133.09 Y123.91 E120.89588
G1 X132.82 Y123.75 E120.91139
G1 X132.51 Y123.60 E120.92870
G1 X132.23 Y123.47 E120.94416
G1 X131.91 Y123.35 E120.96139
G1 X131.62 Y123.25 E120.97653
G1 X131.28 Y123.16 E120.99388
G1 X130.96 Y123.08 E121.01071
G1 X130.66 Y123.03 E121.02590
G1 X130.32 Y122.99 E121.04290
G1 X129.98 Y122.96 E121.05976
G1 X129.63 Y122.95 E121.07728
G1 X129.36 Y122.96 E121.09095
G1 X129.00 Y122.99 E121.10881
G1 X128.68 Y123.03 E121.12489
G1 X128.36 Y123.08 E121.14119
G1 X128.03 Y123.15 E121.15790
G1 X127.71 Y123.24 E121.17430
G1 X127.41 Y123.34 E121.19022
G1 X127.11 Y123.46 E121.20641
G1 X126.80 Y123.59 E121.22343
G1 X126.50 Y123.74 E121.23999
G1 X126.24 Y123.89 E121.25495
G1 X125.93 Y124.09 E121.27329
G1 X125.68 Y124.26 E121.28823
G1 X125.41 Y124.47 E121.30536
G1 X125.17 Y124.68 E121.32150
G1 X124.93 Y124.90 E121.33734
G0 F12000 X124.65 Y124.62
G1 F2400 X124.41 Y124.87 E121.35513
G1 X124.17 Y125.15 E121.37306
G1 X123.96 Y125.42 E121.39026
G1 X123.76 Y125.69 E121.40694
G1 X123.57 Y125.99 E121.42475
G1 X123.40 Y126.29 E121.44209
G1 X123.25 Y126.60 E121.45902
G1 X123.10 Y126.93 E121.47745
G1 X122.98 Y127.22 E121.49302
G1 X122.86 Y127.58 E121.51168
G1 X122.78 Y127.90 E121.52846
G1 X122.69 Y128.25 E121.54637
G1 X122.64 Y128.59 E121.56339
G1 X122.59 Y128.93 E121.58054
G1 X122.57 Y129.28 E121.59785
G1 X122.56 Y129.65 E121.61652
G1 X122.56 Y129.98 E121.63319
G1 X122.59 Y130.34 E121.65074
G1 X122.63 Y130.68 E121.66803
G1 X122.69 Y131.02 E121.68509
G1 X122.77 Y131.36 E121.70288
G1 X122.85 Y131.68 E121.71926
G1 X122.97 Y132.05 E121.73876
G1 X123.08 Y132.34 E121.75403
G1 X123.23 Y132.67 E121.77204
G1 X123.39 Y132.99 E121.79000
G1 X123.56 Y133.29 E121.80702
G1 X123.74 Y133.57 E121.82381
G1 X123.94 Y133.87 E121.84176
G1 X124.16 Y134.14 E121.85911
G1 X124.38 Y134.40 E121.87634
G1 X124.62 Y134.65 E121.89331
G1 X124.87 Y134.90 E121.91110
G1 X125.16 Y135.14 E121.92970
G1 X125.35 Y135.29 E121.94175
G1 X130.76 Y139.35 E122.27964
G1 X130.76 Y165.47 E123.58268
G1 X125.14 Y169.87 E123.93875
G1 X124.90 Y170.08 E123.95488
G1 X124.65 Y170.31 E123.97189
G1 X124.41 Y170.57 E123.98967
G1 X124.17 Y170.84 E124.00761
G1 X123.96 Y171.12 E124.02480
G1 X123.76 Y171.39 E124.04148
G1 X123.57 Y171.69 E124.05929
G1 X123.40 Y171.99 E124.07663
G1 X123.25 Y172.29 E124.09357
G1 X123.10 Y172.63 E124.11199
G1 X122.98 Y172.92 E124.12757
G1 X122.86 Y173.28 E124.14623
G1 X122.78 Y173.60 E124.16301
G1 X122.69 Y173.95 E124.18092
G1 X122.64 Y174.29 E124.19794
G1 X122.59 Y174.63 E124.21508
G1 X122.57 Y174.97 E124.23240
G1 X122.56 Y175.35 E124.25107
G1 X122.56 Y175.68 E124.26773
G1 X122.59 Y176.03 E124.28529
G1 X122.63 Y176.38 E124.30258
G1 X122.69 Y176.72 E124.31964
G1 X122.77 Y177.06 E124.33742
G1 X122.85 Y177.38 E124.35381
G1 X122.97 Y177.75 E124.37331
G1 X123.08 Y178.04 E124.38858
G1 X123.23 Y178.37 E124.40658
G1 X123.39 Y178.69 E124.42454
G1 X123.56 Y178.99 E124.44157
G1 X123.74 Y179.27 E124.45836
G1 X123.94 Y179.57 E124.47631
G1 X124.16 Y179.84 E124.49365
G1 X124.38 Y180.10 E124.51088
G1 X124.62 Y180.35 E124.52786
G1 X124.87 Y180.59 E124.54564
G1 X125.14 Y180.83 E124.56333
G1 X125.42 Y181.04 E124.58077
G1 X125.69 Y181.24 E124.59777
G1 X126.00 Y181.43 E124.61567
G1 X126.30 Y181.60 E124.63272
G1 X126.60 Y181.75 E124.64965
G1 X126.93 Y181.90 E124.66790
G1 X127.25 Y182.02 E124.68464
G1 X127.58 Y182.13 E124.70206
G1 X127.90 Y182.22 E124.71898
G1 X128.27 Y182.31 E124.73775
G1 X128.59 Y182.36 E124.75391
G1 X128.94 Y182.41 E124.77170
G1 X129.29 Y182.44 E124.78922
G1 X129.66 Y182.44 E124.80773
G1 X129.98 Y182.44 E124.82370
G1 X130.34 Y182.41 E124.84136
G1 X130.68 Y182.37 E124.85855
G1 X131.02 Y182.31 E124.87566
G1 X131.38 Y182.23 E124.89426
G1 X131.68 Y182.15 E124.90978
G1 X132.05 Y182.03 E124.92928
G1 X132.34 Y181.91 E124.94493
G1 X132.67 Y181.77 E124.96255
G1 X132.99 Y181.61 E124.98074
G1 X133.29 Y181.44 E124.99754
G1 X133.58 Y181.26 E125.01493
G1 X133.87 Y181.06 E125.03228
G1 X134.14 Y180.84 E125.04962
G1 X134.41 Y180.61 E125.06734
G1 X134.65 Y180.38 E125.08383
G1 X134.90 Y180.13 E125.10161
G1 X135.14 Y179.84 E125.12021
G1 X135.29 Y179.65 E125.13226
G1 X139.35 Y174.24 E125.47016
G1 X165.47 Y174.24 E126.77319
G1 X169.86 Y179.85 E127.12876
G1 X170.08 Y180.10 E127.14514
G1 X170.31 Y180.35 E127.16240
G1 X170.57 Y180.59 E127.18018
G1 X170.84 Y180.83 E127.19787
G1 X171.12 Y181.04 E127.21531
G1 X171.39 Y181.24 E127.23231
G1 X171.70 Y181.43 E127.25021
G1 X171.99 Y181.60 E127.26726
G1 X172.30 Y181.75 E127.28419
G1 X172.63 Y181.90 E127.30244
G1 X172.94 Y182.02 E127.31918
G1 X173.28 Y182.13 E127.33660
G1 X173.60 Y182.22 E127.35352
G1 X173.97 Y182.31 E127.37229
G1 X174.29 Y182.36 E127.38845
G1 X174.64 Y182.41 E127.40625
G1 X174.99 Y182.44 E127.42376
G1 X175.36 Y182.44 E127.44228
G1 X175.68 Y182.44 E127.45825
G1 X176.04 Y182.41 E127.47590
G1 X176.38 Y182.37 E127.49309
G1 X176.72 Y182.31 E127.51020
G1 X177.08 Y182.23 E127.52880
G1 X177.38 Y182.15 E127.54432
G1 X177.75 Y182.03 E127.56382
G1 X178.04 Y181.91 E127.57947
G1 X178.37 Y181.77 E127.59709
G1 X178.69 Y181.61 E127.61528
G1 X178.99 Y181.44 E127.63208
G1 X179.28 Y181.26 E127.64948
G1 X179.57 Y181.06 E127.66682
G1 X179.84 Y180.84 E127.68416
G1 X180.11 Y180.61 E127.70189
G1 X180.35 Y180.38 E127.71837
G1 X180.59 Y180.13 E127.73615
G1 X180.83 Y179.85 E127.75409
G1 X181.05 Y179.57 E127.77178
G1 X181.24 Y179.31 E127.78828
G1 X181.43 Y179.00 E127.80636
G1 X181.60 Y178.71 E127.82323
G1 X181.75 Y178.40 E127.84016
G1 X181.91 Y178.06 E127.85874
G1 X182.03 Y177.75 E127.87526
G1 X182.13 Y177.42 E127.89257
G1 X182.23 Y177.09 E127.91006
G1 X182.31 Y176.73 E127.92826
G1 X182.37 Y176.41 E127.94467
G1 X182.41 Y176.04 E127.96302
G1 X182.44 Y175.70 E127.98013
G1 X182.44 Y175.33 E127.99875
G1 X182.44 Y175.00 E128.01507
G1 X182.41 Y174.66 E128.03212
G1 X182.37 Y174.32 E128.04906
G1 X182.31 Y173.98 E128.06617
G1 X182.23 Y173.62 E128.08477
G1 X182.15 Y173.31 E128.10097
G1 X182.03 Y172.97 E128.11858
G1 X181.91 Y172.64 E128.13609
G1 X181.77 Y172.33 E128.15306
G1 X181.61 Y172.01 E128.17113
G1 X181.44 Y171.71 E128.18805
G1 X181.26 Y171.42 E128.20545
G1 X181.06 Y171.13 E128.22279
G1 X180.84 Y170.86 E128.24013
G1 X180.61 Y170.59 E128.25786
G1 X180.38 Y170.35 E128.27434
G1 X180.13 Y170.10 E128.29212
G1 X179.84 Y169.86 E128.31073
G1 X179.65 Y169.71 E128.32277
G1 X174.24 Y165.65 E128.66067
G1 X174.24 Y139.53 E129.96370
G1 X179.86 Y135.13 E130.31998
G1 X180.11 Y134.92 E130.33618
G1 X180.35 Y134.69 E130.35291
G1 X180.59 Y134.43 E130.37070
G1 X180.83 Y134.16 E130.38863
G1 X181.05 Y133.88 E130.40632
G1 X181.24 Y133.61 E130.42282
G1 X181.43 Y133.30 E130.44090
G1 X181.60 Y133.01 E130.45777
G1 X181.75 Y132.70 E130.47470
G1 X181.91 Y132.36 E130.49328
G1 X182.03 Y132.05 E130.50980
G1 X182.13 Y131.72 E130.52711
G1 X182.23 Y131.39 E130.54460
G1 X182.31 Y131.03 E130.56280
G1 X182.37 Y130.71 E130.57922
G1 X182.41 Y130.34 E130.59756
G1 X182.44 Y130.00 E130.61467
G1 X182.44 Y129.63 E130.63329
G1 X182.44 Y129.30 E130.64961
G1 X182.41 Y128.96 E130.66667
G1 X182.37 Y128.62 E130.68360
G1 X182.31 Y128.28 E130.70071
G1 X182.23 Y127.92 E130.71932
G1 X182.15 Y127.61 E130.73551
G1 X182.03 Y127.27 E130.75312
G1 X181.91 Y126.94 E130.77063
G1 X181.77 Y126.63 E130.78761
G1 X181.61 Y126.31 E130.80568
G1 X181.44 Y126.01 E130.82259
G1 X181.26 Y125.72 E130.83999
G1 X181.06 Y125.43 E130.85733
G1 X180.84 Y125.16 E130.87468
G1 X180.61 Y124.89 E130.89240
G1 X180.38 Y124.65 E130.90909
G1 X180.13 Y124.41 E130.92666
G1 X179.85 Y124.17 E130.94460
G1 X179.58 Y123.95 E130.96208
G1 X179.31 Y123.76 E130.97879
G1 X179.00 Y123.57 E130.99669
G1 X178.71 Y123.40 E131.01374
G1 X178.40 Y123.25 E131.03067
G1 X178.06 Y123.09 E131.04947
G1 X177.78 Y122.98 E131.06456
G1 X177.41 Y122.86 E131.08358
G1 X177.10 Y122.78 E131.10000
G1 X176.73 Y122.69 E131.11877
G1 X176.41 Y122.64 E131.13493
G1 X176.06 Y122.59 E131.15272
G1 X175.71 Y122.56 E131.17024
G1 X175.34 Y122.56 E131.18875
G1 X175.02 Y122.56 E131.20472
G1 X174.66 Y122.59 E131.22238
G1 X174.32 Y122.63 E131.23957
G1 X173.98 Y122.69 E131.25668
G1 X173.62 Y122.77 E131.27528
G1 X173.32 Y122.85 E131.29080
G1 X172.95 Y122.97 E131.31030
G1 X172.66 Y123.08 E131.32588
G1 X172.33 Y123.23 E131.34357
G1 X172.01 Y123.39 E131.36165
G1 X171.72 Y123.56 E131.37838
G1 X171.42 Y123.74 E131.39589
G1 X171.13 Y123.94 E131.41319
G1 X170.87 Y124.15 E131.43025
G1 X170.59 Y124.39 E131.44837
G1 X170.35 Y124.62 E131.46485
G1 X170.10 Y124.87 E131.48263
G1 X169.86 Y125.15 E131.50092
G1 X169.71 Y125.35 E131.51328
G1 X165.65 Y130.76 E131.85118
G1 X139.53 Y130.76 E133.15421
G1 X135.12 Y125.14 E133.51081
G1 X134.92 Y124.90 E133.52641
G1 X134.68 Y124.65 E133.54363
G1 X134.43 Y124.41 E133.56121
G1 X134.16 Y124.17 E133.57914
G1 X133.88 Y123.95 E133.59663
G1 X133.61 Y123.76 E133.61334
G1 X133.30 Y123.57 E133.63123
G1 X133.01 Y123.40 E133.64828
G1 X132.70 Y123.25 E133.66521
G1 X132.36 Y123.09 E133.68402
G1 X132.08 Y122.98 E133.69910
G1 X131.72 Y122.86 E133.71813
G1 X131.40 Y122.78 E133.73454
G1 X131.03 Y122.69 E133.75331
G1 X130.71 Y122.64 E133.76947
G1 X130.36 Y122.59 E133.78727
G1 X130.01 Y122.56 E133.80478
G1 X129.64 Y122.56 E133.82330
G1 X129.32 Y122.56 E133.83927
G1 X128.96 Y122.59 E133.85692
G1 X128.62 Y122.63 E133.87411
G1 X128.28 Y122.69 E133.89122
G1 X127.92 Y122.77 E133.90983
G1 X127.62 Y122.85 E133.92534
G1 X127.25 Y122.97 E133.94484
G1 X126.96 Y123.08 E133.96043
G1 X126.63 Y123.23 E133.97812
G1 X126.31 Y123.39 E133.99619
G1 X126.02 Y123.56 E134.01292
G1 X125.72 Y123.74 E134.03043
G1 X125.44 Y123.94 E134.04773
G1 X125.17 Y124.15 E134.06480
G1 X124.89 Y124.39 E134.08291
G1 X124.65 Y124.62 E134.09939
G0 F12000 X124.37 Y124.33
G1 F2400 X124.11 Y124.61 E134.11827
G1 X123.86 Y124.90 E134.13751
G1 X123.64 Y125.17 E134.15503
G1 X123.44 Y125.46 E134.17257
G1 X123.22 Y125.80 E134.19244
G1 X123.04 Y126.12 E134.21085
G1 X122.88 Y126.43 E134.22846
G1 X122.73 Y126.77 E134.24704
G1 X122.60 Y127.10 E134.26447
G1 X122.48 Y127.45 E134.28320
G1 X122.39 Y127.81 E134.30178
G1 X122.30 Y128.19 E134.32107
G1 X122.24 Y128.53 E134.33824
G1 X122.19 Y128.91 E134.35714
G1 X122.17 Y129.27 E134.37520
G1 X122.16 Y129.65 E134.39432
G1 X122.16 Y129.99 E134.41124
G1 X122.19 Y130.36 E134.42999
G1 X122.23 Y130.74 E134.44868
G1 X122.30 Y131.09 E134.46670
G1 X122.37 Y131.45 E134.48504
G1 X122.47 Y131.81 E134.50388
G1 X122.59 Y132.17 E134.52243
G1 X122.72 Y132.51 E134.54068
G1 X122.87 Y132.84 E134.55864
G1 X123.03 Y133.17 E134.57732
G1 X123.21 Y133.48 E134.59481
G1 X123.41 Y133.81 E134.61420
G1 X123.63 Y134.12 E134.63290
G1 X123.84 Y134.38 E134.65000
G1 X124.09 Y134.67 E134.66900
G1 X124.33 Y134.93 E134.68671
G1 X124.61 Y135.20 E134.70580
G1 X124.91 Y135.45 E134.72533
G1 X125.10 Y135.60 E134.73755
G1 X130.36 Y139.55 E135.06597
G1 X130.36 Y165.28 E136.34930
G1 X124.89 Y169.56 E136.69581
G1 X124.63 Y169.78 E136.71293
G1 X124.37 Y170.03 E136.73114
G1 X124.11 Y170.31 E136.75002
G1 X123.86 Y170.60 E136.76926
G1 X123.64 Y170.87 E136.78678
G1 X123.44 Y171.16 E136.80431
G1 X123.22 Y171.50 E136.82419
G1 X123.04 Y171.82 E136.84260
G1 X122.88 Y172.13 E136.86020
G1 X122.73 Y172.47 E136.87878
G1 X122.60 Y172.80 E136.89622
G1 X122.48 Y173.15 E136.91495
G1 X122.39 Y173.51 E136.93353
G1 X122.30 Y173.89 E136.95282
G1 X122.24 Y174.23 E136.96998
G1 X122.19 Y174.60 E136.98889
G1 X122.17 Y174.97 E137.00695
G1 X122.16 Y175.35 E137.02607
G1 X122.16 Y175.69 E137.04298
G1 X122.19 Y176.07 E137.06224
G1 X122.23 Y176.44 E137.08043
G1 X122.30 Y176.79 E137.09845
G1 X122.37 Y177.15 E137.11679
G1 X122.47 Y177.51 E137.13562
G1 X122.59 Y177.87 E137.15418
G1 X122.72 Y178.21 E137.17243
G1 X122.87 Y178.54 E137.19039
G1 X123.03 Y178.87 E137.20906
G1 X123.21 Y179.18 E137.22656
G1 X123.41 Y179.51 E137.24595
G1 X123.63 Y179.81 E137.26465
G1 X123.84 Y180.08 E137.28174
G1 X124.09 Y180.37 E137.30074
G1 X124.33 Y180.63 E137.31846
G1 X124.61 Y180.90 E137.33755
G1 X124.89 Y181.14 E137.35608
G1 X125.17 Y181.36 E137.37410
G1 X125.46 Y181.56 E137.39175
G1 X125.80 Y181.78 E137.41151
G1 X126.12 Y181.96 E137.42992
G1 X126.43 Y182.12 E137.44752
G1 X126.76 Y182.27 E137.46557
G1 X127.10 Y182.40 E137.48368
G1 X127.46 Y182.52 E137.50268
G1 X127.81 Y182.62 E137.52084
G1 X128.19 Y182.70 E137.54014
G1 X128.53 Y182.76 E137.55730
G1 X128.91 Y182.81 E137.57621
G1 X129.27 Y182.84 E137.59457
G1 X129.66 Y182.84 E137.61403
G1 X130.00 Y182.84 E137.63085
G1 X130.37 Y182.81 E137.64956
G1 X130.74 Y182.77 E137.66775
G1 X131.11 Y182.70 E137.68663
G1 X131.45 Y182.62 E137.70422
G1 X131.81 Y182.53 E137.72294
G1 X132.17 Y182.41 E137.74150
G1 X132.51 Y182.28 E137.75975
G1 X132.84 Y182.13 E137.77771
G1 X133.17 Y181.97 E137.79638
G1 X133.49 Y181.79 E137.81424
G1 X133.81 Y181.59 E137.83338
G1 X134.12 Y181.37 E137.85229
G1 X134.38 Y181.16 E137.86906
G1 X134.67 Y180.91 E137.88806
G1 X134.93 Y180.67 E137.90578
G1 X135.20 Y180.39 E137.92487
G1 X135.45 Y180.09 E137.94439
G1 X135.60 Y179.90 E137.95662
G1 X139.55 Y174.64 E138.28504
G1 X165.28 Y174.64 E139.56836
G1 X169.56 Y180.11 E139.91487
G1 X169.78 Y180.36 E139.93185
G1 X170.03 Y180.63 E139.95020
G1 X170.31 Y180.90 E139.96929
G1 X170.59 Y181.14 E139.98783
G1 X170.87 Y181.36 E140.00584
G1 X171.16 Y181.56 E140.02349
G1 X171.50 Y181.78 E140.04326
G1 X171.82 Y181.96 E140.06167
G1 X172.13 Y182.12 E140.07927
G1 X172.46 Y182.27 E140.09731
G1 X172.80 Y182.40 E140.11543
G1 X173.16 Y182.52 E140.13442
G1 X173.51 Y182.62 E140.15259
G1 X173.89 Y182.70 E140.17188
G1 X174.23 Y182.76 E140.18905
G1 X174.60 Y182.81 E140.20795
G1 X174.97 Y182.84 E140.22632
G1 X175.36 Y182.84 E140.24578
G1 X175.70 Y182.84 E140.26260
G1 X176.07 Y182.81 E140.28130
G1 X176.44 Y182.77 E140.29950
G1 X176.81 Y182.70 E140.31838
G1 X177.15 Y182.62 E140.33597
G1 X177.51 Y182.53 E140.35469
G1 X177.87 Y182.41 E140.37324
G1 X178.21 Y182.28 E140.39150
G1 X178.54 Y182.13 E140.40945
G1 X178.87 Y181.97 E140.42813
G1 X179.18 Y181.79 E140.44598
G1 X179.51 Y181.59 E140.46513
G1 X179.82 Y181.37 E140.48403
G1 X180.08 Y181.16 E140.50081
G1 X180.37 Y180.91 E140.51981
G1 X180.63 Y180.67 E140.53752
G1 X180.90 Y180.39 E140.55662
G1 X181.14 Y180.10 E140.57565
G1 X181.36 Y179.83 E140.59316
G1 X181.56 Y179.54 E140.61081
G1 X181.78 Y179.20 E140.63057
G1 X181.96 Y178.88 E140.64898
G1 X182.12 Y178.57 E140.66659
G1 X182.27 Y178.24 E140.68463
G1 X182.40 Y177.90 E140.70275
G1 X182.52 Y177.54 E140.72174
G1 X182.62 Y177.19 E140.73991
G1 X182.70 Y176.81 E140.75920
G1 X182.76 Y176.47 E140.77637
G1 X182.81 Y176.09 E140.79527
G1 X182.84 Y175.73 E140.81364
G1 X182.84 Y175.34 E140.83310
G1 X182.84 Y175.00 E140.84992
G1 X182.81 Y174.63 E140.86862
G1 X182.77 Y174.26 E140.88682
G1 X182.70 Y173.89 E140.90570
G1 X182.62 Y173.55 E140.92329
G1 X182.52 Y173.18 E140.94242
G1 X182.41 Y172.83 E140.96059
G1 X182.28 Y172.49 E140.97866
G1 X182.13 Y172.16 E140.99678
G1 X181.97 Y171.83 E141.01545
G1 X181.79 Y171.51 E141.03330
G1 X181.59 Y171.19 E141.05234
G1 X181.37 Y170.88 E141.07104
G1 X181.16 Y170.62 E141.08813
G1 X180.91 Y170.33 E141.10713
G1 X180.67 Y170.07 E141.12485
G1 X180.38 Y169.80 E141.14440
G1 X180.09 Y169.55 E141.16346
G1 X179.90 Y169.40 E141.17569
G1 X174.64 Y165.45 E141.50410
G1 X174.64 Y139.72 E142.78743
G1 X180.11 Y135.44 E143.13433
G1 X180.37 Y135.22 E143.15106
G1 X180.63 Y134.97 E143.16927
G1 X180.90 Y134.69 E143.18836
G1 X181.14 Y134.40 E143.20739
G1 X181.36 Y134.13 E143.22491
G1 X181.56 Y133.84 E143.24256
G1 X181.78 Y133.50 E143.26232
G1 X181.96 Y133.18 E143.28073
G1 X182.12 Y132.87 E143.29834
G1 X182.27 Y132.54 E143.31638
G1 X182.40 Y132.20 E143.33449
G1 X182.52 Y131.84 E143.35349
G1 X182.62 Y131.49 E143.37166
G1 X182.70 Y131.11 E143.39095
G1 X182.76 Y130.77 E143.40811
G1 X182.81 Y130.40 E143.42702
G1 X182.84 Y130.03 E143.44538
G1 X182.84 Y129.64 E143.46485
G1 X182.84 Y129.30 E143.48166
G1 X182.81 Y128.93 E143.50037
G1 X182.77 Y128.56 E143.51856
G1 X182.70 Y128.19 E143.53745
G1 X182.62 Y127.85 E143.55503
G1 X182.52 Y127.48 E143.57417
G1 X182.41 Y127.13 E143.59234
G1 X182.28 Y126.79 E143.61041
G1 X182.13 Y126.46 E143.62852
G1 X181.97 Y126.13 E143.64720
