;-- START GCODE --
;Sliced for Type A Machines Series 1
;Sliced at: Thu 17-11-2016 10:06:40
;Basic settings: Layer height: 0.2 Walls: 1.2 Fill: 20
;Print Speed: 40 Support: 0
;Retraction Speed: 40 Retraction Distance: 1.2
;Print time: #P_TIME#
;Filament used: #F_AMNT#m #F_WGHT#g
;Filament cost: #F_COST#
M106 S255	 ;start with the fan on
G21        ;metric values
G90        ;absolute positioning
M106 S255    ;start with the fan on
G28     ;move to endstops
G29		;allows for auto-levelling
G1 X150 Y5  Z15.0 F12000 ;center and move the platform down 15mm
M109 S220 ;Heat To temp
G92 E0                  ;zero the extruded length
G1 F200 E30              ;extrude 30mm of feed stock
G92 E0                  ;zero the extruded length again
G1 X175 Y25  Z0 F12000 ;remove bugger
G1 X220 F12000 ;remove bugger
G1 X150 Y150  Z15 F12000 ;recenter and begin
G1 F12000

;Layer count: 37
;LAYER:0
M106 S255
G0 F12000 X114.89 Y121.61 Z0.30
;TYPE:SKIRT
G1 F2400 X190.11 Y121.61 E3.75274
G1 X190.11 Y183.39 E6.83526
G1 X114.89 Y183.39 E10.58800
G1 X114.89 Y121.61 E13.67051
G0 F12000 X115.29 Y122.01
G1 F2400 X189.71 Y122.01 E17.38334
G1 X189.71 Y182.99 E20.42595
G1 X115.29 Y182.99 E24.13878
G1 X115.29 Y122.01 E27.18138
G0 F12000 X115.69 Y122.41
G1 F2400 X189.31 Y122.41 E30.85430
G1 X189.31 Y182.59 E33.85699
G1 X115.69 Y182.59 E37.52990
G1 X115.69 Y122.41 E40.53260
G0 F12000 X116.09 Y122.81
G1 F2400 X188.91 Y122.81 E44.16560
G1 X188.91 Y182.19 E47.12838
G1 X116.09 Y182.19 E50.76139
G1 X116.09 Y122.81 E53.72416
G0 F12000 X116.49 Y123.21
G1 F2400 X188.51 Y123.21 E57.31726
G1 X188.51 Y181.79 E60.24012
G1 X116.49 Y181.79 E63.83322
G1 X116.49 Y123.21 E66.75608
G0 F12000 X116.89 Y123.61
G1 F2400 X188.11 Y123.61 E70.30926
G1 X188.11 Y181.39 E73.19222
G1 X116.89 Y181.39 E76.74540
G1 X116.89 Y123.61 E79.62836
G0 F12000 X117.29 Y124.01
G1 F2400 X187.71 Y124.01 E83.14162
G1 X187.71 Y180.99 E85.98467
G1 X117.29 Y180.99 E89.49793
G1 X117.29 Y124.01 E92.34098
G0 F12000 X117.69 Y124.41
G1 F2400 X187.31 Y124.41 E95.81433
G1 X187.31 Y180.59 E98.61746
G1 X117.69 Y180.59 E102.09082
G1 X117.69 Y124.41 E104.89395
G0 F12000 X118.09 Y124.81
G1 F2400 X186.91 Y124.81 E108.32740
G1 X186.91 Y180.19 E111.09061
G1 X118.09 Y180.19 E114.52406
G1 X118.09 Y124.81 E117.28728
G0 F12000 X118.49 Y125.21
G1 F2400 X186.51 Y125.21 E120.68081
G1 X186.51 Y179.79 E123.40411
G1 X118.49 Y179.79 E126.79765
G1 X118.49 Y125.21 E129.52095
G0 F12000 X118.89 Y125.61
G1 F2400 X186.11 Y125.61 E132.87457
G1 X186.11 Y179.39 E135.55797
G1 X118.89 Y179.39 E138.91159
G1 X118.89 Y125.61 E141.59498
G0 F12000 X119.29 Y126.01
G1 F2400 X185.71 Y126.01 E144.90869
G1 X185.71 Y178.99 E147.55217
G1 X119.29 Y178.99 E150.86588
G1 X119.29 Y126.01 E153.50936
G0 F12000 X119.69 Y126.41
G1 F2400 X185.31 Y126.41 E156.78315
G1 X185.31 Y178.59 E159.38672
G1 X119.69 Y178.59 E162.66052
G1 X119.69 Y126.41 E165.26409
G0 F12000 X120.09 Y126.81
G1 F2400 X184.91 Y126.81 E168.49797
G1 X184.91 Y178.19 E171.06163
G1 X120.09 Y178.19 E174.29551
G1 X120.09 Y126.81 E176.85917
G0 F12000 X120.49 Y127.21
G1 F2400 X184.51 Y127.21 E180.05314
G1 X184.51 Y177.79 E182.57689
G1 X120.49 Y177.79 E185.77086
G1 X120.49 Y127.21 E188.29460
G0 F12000 X120.89 Y127.61
G1 F2400 X184.11 Y127.61 E191.44866
G1 X184.11 Y177.39 E193.93250
G1 X120.89 Y177.39 E197.08656
G1 X120.89 Y127.61 E199.57039
G0 F12000 X121.29 Y128.01
G1 F2400 X183.71 Y128.01 E202.68454
G1 X183.71 Y176.99 E205.12846
G1 X121.29 Y176.99 E208.24260
G1 X121.29 Y128.01 E210.68653
G0 F12000 X121.69 Y128.41
G1 F2400 X183.31 Y128.41 E213.76076
G1 X183.31 Y176.59 E216.16477
G1 X121.69 Y176.59 E219.23900
G1 X121.69 Y128.41 E221.64301
G0 F12000 X122.09 Y128.81
G1 F2400 X182.91 Y128.81 E224.67733
G1 X182.91 Y176.19 E227.04143
G1 X122.09 Y176.19 E230.07575
G1 X122.09 Y128.81 E232.43985
G0 F12000 X122.49 Y129.21
G1 F2400 X182.51 Y129.21 E235.43426
G1 X182.51 Y175.79 E237.75845
G1 X122.49 Y175.79 E240.75286
G1 X122.49 Y129.21 E243.07704
G0 F12000 X122.89 Y129.61
G1 F2400 X182.11 Y129.61 E246.03154
G1 X182.11 Y175.39 E248.31581
G1 X122.89 Y175.39 E251.27031
G1 X122.89 Y129.61 E253.55458
G0 F12000 X123.29 Y130.01
G1 F2400 X181.71 Y130.01 E256.46917
G1 X181.71 Y174.99 E258.71353
G1 X123.29 Y174.99 E261.62811
G1 X123.29 Y130.01 E263.87247
G0 F12000 X123.69 Y130.41
G1 F2400 X181.31 Y130.41 E266.74715
G1 X181.31 Y174.59 E268.95160
G1 X123.69 Y174.59 E271.82627
G1 X123.69 Y130.41 E274.03072
G0 F12000 X124.09 Y130.81
G1 F2400 X180.91 Y130.81 E276.86548
G1 X180.91 Y174.19 E279.03002
G1 X124.09 Y174.19 E281.86478
G1 X124.09 Y130.81 E284.02931
G0 F12000 X124.49 Y131.21
G1 F2400 X180.51 Y131.21 E286.82416
G1 X180.51 Y173.79 E288.94879
G1 X124.49 Y173.79 E291.74364
G1 X124.49 Y131.21 E293.86826
G0 F12000 X124.89 Y131.61
G1 F2400 X180.11 Y131.61 E296.62320
G1 X180.11 Y173.39 E298.70791
G1 X124.89 Y173.39 E301.46285
G1 X124.89 Y131.61 E303.54756
G0 F12000 X125.29 Y132.01
G1 F2400 X179.71 Y132.01 E306.26258
G1 X179.71 Y172.99 E308.30738
G1 X125.29 Y172.99 E311.02241
G1 X125.29 Y132.01 E313.06721
G0 F12000 X125.69 Y132.41
G1 F2400 X179.31 Y132.41 E315.74232
G1 X179.31 Y172.59 E317.74721
G1 X125.69 Y172.59 E320.42232
G1 X125.69 Y132.41 E322.42721
G0 F12000 X126.09 Y132.81
G1 F2400 X178.91 Y132.81 E325.06241
G1 X178.91 Y172.19 E327.02738
G1 X126.09 Y172.19 E329.66258
G1 X126.09 Y132.81 E331.62756
G0 F12000 X126.49 Y133.21
G1 F2400 X178.51 Y133.21 E334.22285
G1 X178.51 Y171.79 E336.14791
G1 X126.49 Y171.79 E338.74320
G1 X126.49 Y133.21 E340.66826
G0 F12000 X126.89 Y133.61
G1 F2400 X178.11 Y133.61 E343.22364
G1 X178.11 Y171.39 E345.10879
G1 X126.89 Y171.39 E347.66417
G1 X126.89 Y133.61 E349.54932
G0 F12000 X127.29 Y134.01
G1 F2400 X177.71 Y134.01 E352.06478
G1 X177.71 Y170.99 E353.91002
G1 X127.29 Y170.99 E356.42549
G1 X127.29 Y134.01 E358.27072
G0 F12000 X127.69 Y134.41
G1 F2400 X177.31 Y134.41 E360.74628
G1 X177.31 Y170.59 E362.55160
G1 X127.69 Y170.59 E365.02716
G1 X127.69 Y134.41 E366.83248
G0 F12000 X128.09 Y134.81
G1 F2400 X176.91 Y134.81 E369.26812
G1 X176.91 Y170.19 E371.03354
G1 X128.09 Y170.19 E373.46918
G1 X128.09 Y134.81 E375.23459
G0 F12000 X128.49 Y135.21
G1 F2400 X176.51 Y135.21 E377.63032
G1 X176.51 Y169.79 E379.35582
G1 X128.49 Y169.79 E381.75155
G1 X128.49 Y135.21 E383.47705
G0 F12000 X128.89 Y135.61
G1 F2400 X176.11 Y135.61 E385.83287
G1 X176.11 Y169.39 E387.51846
G1 X128.89 Y169.39 E389.87427
G1 X128.89 Y135.61 E391.55986
G0 F12000 X129.29 Y136.01
G1 F2400 X175.71 Y136.01 E393.87577
G1 X175.71 Y168.99 E395.52144
G1 X129.29 Y168.99 E397.83735
G1 X129.29 Y136.01 E399.48303
G0 F12000 X129.69 Y136.41
G1 F2400 X175.31 Y136.41 E401.75902
G1 X175.31 Y168.59 E403.36478
G1 X129.69 Y168.59 E405.64077
G1 X129.69 Y136.41 E407.24654
G0 F12000 X130.09 Y136.81
G1 F2400 X174.91 Y136.81 E409.48262
G1 X174.91 Y168.19 E411.04847
G1 X130.09 Y168.19 E413.28455
G1 X130.09 Y136.81 E414.85040
G0 F12000 X130.49 Y137.21
G1 F2400 X174.51 Y137.21 E417.04657
G1 X174.51 Y167.79 E418.57251
G1 X130.49 Y167.79 E420.76868
G1 X130.49 Y137.21 E422.29462
G0 F12000 X130.89 Y137.61
G1 F2400 X174.11 Y137.61 E424.45088
G1 X174.11 Y167.39 E425.93691
G1 X130.89 Y167.39 E428.09316
G1 X130.89 Y137.61 E429.57919
G0 F12000 X131.29 Y138.01
G1 F2400 X173.71 Y138.01 E431.69553
G1 X173.71 Y166.99 E433.14165
G1 X131.29 Y166.99 E435.25799
G1 X131.29 Y138.01 E436.70411
G0 F12000 X131.69 Y138.41
G1 F2400 X173.31 Y138.41 E438.78054
G1 X173.31 Y166.59 E440.18675
G1 X131.69 Y166.59 E442.26318
G1 X131.69 Y138.41 E443.66938
G0 F12000 X132.09 Y138.81
G1 F2400 X172.91 Y138.81 E445.70590
G1 X172.91 Y166.19 E447.07219
G1 X132.09 Y166.19 E449.10871
G1 X132.09 Y138.81 E450.47500
G0 F12000 X132.49 Y139.21
G1 F2400 X172.51 Y139.21 E452.47161
G1 X172.51 Y165.79 E453.79799
G1 X132.49 Y165.79 E455.79460
G1 X132.49 Y139.21 E457.12098
G0 F12000 X134.96 Y141.63
G1 F2400 X134.96 Y163.37 E458.20569
G1 X170.04 Y163.37 E459.95624
G1 X170.04 Y141.63 E461.04095
G1 X134.96 Y141.63 E462.79150
G0 F12000 X135.36 Y142.03
G1 F2400 X135.36 Y162.97 E463.83630
G1 X169.64 Y162.97 E465.54693
G1 X169.64 Y142.03 E466.59173
G1 X135.36 Y142.03 E468.30237
G0 F12000 X135.76 Y142.43
G1 F2400 X135.76 Y162.57 E469.30726
G1 X169.24 Y162.57 E470.97798
G1 X169.24 Y142.43 E471.98287
G1 X135.76 Y142.43 E473.65359
G0 F12000 X136.16 Y142.83
G1 F2400 X136.16 Y162.17 E474.61857
G1 X168.84 Y162.17 E476.24938
G1 X168.84 Y142.83 E477.21436
G1 X136.16 Y142.83 E478.84517
G0 F12000 X136.56 Y143.23
G1 F2400 X136.56 Y161.77 E479.77023
G1 X168.44 Y161.77 E481.36113
G1 X168.44 Y143.23 E482.28619
G1 X136.56 Y143.23 E483.87709
G0 F12000 X136.96 Y143.63
G1 F2400 X136.96 Y161.37 E484.76224
G1 X168.04 Y161.37 E486.31323
G1 X168.04 Y143.63 E487.19838
G1 X136.96 Y143.63 E488.74937
G0 F12000 X137.36 Y144.03
G1 F2400 X137.36 Y160.97 E489.59461
G1 X167.64 Y160.97 E491.10568
G1 X167.64 Y144.03 E491.95092
G1 X137.36 Y144.03 E493.46200
G0 F12000 X137.76 Y144.43
G1 F2400 X137.76 Y160.57 E494.26733
G1 X167.24 Y160.57 E495.73849
G1 X167.24 Y144.43 E496.54382
G1 X137.76 Y144.43 E498.01498
G0 F12000 X138.16 Y144.83
G1 F2400 X138.16 Y160.17 E498.78039
G1 X166.84 Y160.17 E500.21164
G1 X166.84 Y144.83 E500.97706
G1 X138.16 Y144.83 E502.40831
G0 F12000 X138.56 Y145.23
G1 F2400 X138.56 Y159.77 E503.13381
G1 X166.44 Y159.77 E504.52515
G1 X166.44 Y145.23 E505.25065
G1 X138.56 Y145.23 E506.64199
G0 F12000 X138.96 Y145.63
G1 F2400 X138.96 Y159.37 E507.32758
G1 X166.04 Y159.37 E508.67901
G1 X166.04 Y145.63 E509.36460
G1 X138.96 Y145.63 E510.71603
G0 F12000 X139.36 Y146.03
G1 F2400 X139.36 Y158.97 E511.36170
G1 X165.64 Y158.97 E512.67322
G1 X165.64 Y146.03 E513.31890
G1 X139.36 Y146.03 E514.63041
G0 F12000 X139.76 Y146.43
G1 F2400 X139.76 Y158.57 E515.23618
G1 X165.24 Y158.57 E516.50778
G1 X165.24 Y146.43 E517.11355
G1 X139.76 Y146.43 E518.38515
G0 F12000 X140.16 Y146.83
G1 F2400 X140.16 Y158.17 E518.95100
G1 X164.84 Y158.17 E520.18269
G1 X164.84 Y146.83 E520.74855
G1 X140.16 Y146.83 E521.98024
G0 F12000 X140.56 Y147.23
G1 F2400 X140.56 Y157.77 E522.50618
G1 X164.44 Y157.77 E523.69796
G1 X164.44 Y147.23 E524.22390
G1 X140.56 Y147.23 E525.41567
G0 F12000 X140.96 Y147.63
G1 F2400 X140.96 Y157.37 E525.90171
G1 X164.04 Y157.37 E527.05357
G1 X164.04 Y147.63 E527.53960
G1 X140.96 Y147.63 E528.69147
G0 F12000 X141.36 Y148.03
G1 F2400 X141.36 Y156.97 E529.13758
G1 X163.64 Y156.97 E530.24954
G1 X163.64 Y148.03 E530.69565
G1 X141.36 Y148.03 E531.80761
G0 F12000 X141.76 Y148.43
G1 F2400 X141.76 Y156.57 E532.21381
G1 X163.24 Y156.57 E533.28585
G1 X163.24 Y148.43 E533.69206
G1 X141.76 Y148.43 E534.76410
G0 F12000 X142.16 Y148.83
G1 F2400 X142.16 Y156.17 E535.13039
G1 X162.84 Y156.17 E536.16252
G1 X162.84 Y148.83 E536.52882
G1 X142.16 Y148.83 E537.56095
G0 F12000 X142.56 Y149.23
G1 F2400 X142.56 Y155.77 E537.88733
G1 X162.44 Y155.77 E538.87954
G1 X162.44 Y149.23 E539.20593
G1 X142.56 Y149.23 E540.19814
G0 F12000 X142.96 Y149.63
G1 F2400 X142.96 Y155.37 E540.48461
G1 X162.04 Y155.37 E541.43692
G1 X162.04 Y149.63 E541.72339
G1 X142.96 Y149.63 E542.67569
G0 F12000 X143.36 Y150.03
G1 F2400 X143.36 Y154.97 E542.92225
G1 X161.64 Y154.97 E543.83464
G1 X161.64 Y150.03 E544.08120
G1 X143.36 Y150.03 E544.99359
G0 F12000 X143.76 Y150.43
G1 F2400 X143.76 Y154.57 E545.20023
G1 X161.24 Y154.57 E546.07271
G1 X161.24 Y150.43 E546.27936
G1 X143.76 Y150.43 E547.15184
G0 F12000 X144.16 Y150.83
G1 F2400 X144.16 Y154.17 E547.31857
G1 X160.84 Y154.17 E548.15114
G1 X160.84 Y150.83 E548.31787
G1 X144.16 Y150.83 E549.15044
G0 F12000 X144.56 Y151.23
G1 F2400 X144.56 Y153.77 E549.27726
G1 X160.44 Y153.77 E550.06992
G1 X160.44 Y151.23 E550.19674
G1 X144.56 Y151.23 E550.98939
G0 F12000 X144.96 Y151.63
G1 F2400 X144.96 Y153.37 E551.07630
G1 X160.04 Y153.37 E551.82904
G1 X160.04 Y151.63 E551.91595
G1 X144.96 Y151.63 E552.66870
G1 F2400 E551.46870
G0 F12000 X133.76 Y140.43
;TYPE:WALL-INNER
G1 F2400 E552.66870
G1 X133.76 Y164.57 E553.87315
G1 X171.24 Y164.57 E555.74343
G1 X171.24 Y140.43 E556.94788
G1 X133.76 Y140.43 E558.81816
G0 F12000 X133.69 Y140.41
G1 F2400 X171.31 Y140.41 E560.69503
G1 X171.31 Y164.59 E561.90168
G1 X133.69 Y164.59 E563.77855
G1 X133.69 Y140.41 E564.98519
G0 F12000 X133.29 Y140.01
G1 F2400 X171.71 Y140.01 E566.90197
G1 X171.71 Y164.99 E568.14853
G1 X133.29 Y164.99 E570.06531
G1 X133.29 Y140.01 E571.31187
G0 F12000 X134.16 Y140.83
G1 F2400 X134.16 Y164.17 E572.47640
G1 X170.84 Y164.17 E574.30678
G1 X170.84 Y140.83 E575.47131
G1 X134.16 Y140.83 E577.30169
G0 F12000 X134.56 Y141.23
;TYPE:WALL-OUTER
G1 F2400 X134.56 Y163.77 E578.42631
G1 X170.44 Y163.77 E580.21677
G1 X170.44 Y141.23 E581.34139
G1 X134.56 Y141.23 E583.13185
G0 F12000 X134.56 Y140.93
G0 X133.19 Y139.82
G0 X132.89 Y139.61
G1 F2400 X172.11 Y139.61 E585.08855
G1 X172.11 Y165.39 E586.37502
G1 X132.89 Y165.39 E588.33171
G1 X132.89 Y139.61 E589.61818
G0 F12000 X133.89 Y140.60
;LAYER:1
G0 X133.76 Y140.43 Z0.50
;TYPE:WALL-INNER
G1 F2400 X133.76 Y164.57 E590.41894
G1 X171.24 Y164.57 E591.66248
G1 X171.24 Y140.43 E592.46324
G1 X133.76 Y140.43 E593.70678
G0 F12000 X133.69 Y140.40
G1 F2400 X171.31 Y140.40 E594.95510
G1 X171.31 Y164.60 E595.75771
G1 X133.69 Y164.60 E597.00603
G1 X133.69 Y140.40 E597.80865
G0 F12000 X133.29 Y140.00
G1 F2400 X171.71 Y140.00 E599.08344
G1 X171.71 Y165.00 E599.91253
G1 X133.29 Y165.00 E601.18733
G1 X133.29 Y140.00 E602.01642
G0 F12000 X134.16 Y140.83
G1 F2400 X134.16 Y164.17 E602.79070
G1 X170.84 Y164.17 E604.00777
G1 X170.84 Y140.83 E604.78205
G1 X134.16 Y140.83 E605.99912
G0 F12000 X134.56 Y141.23
;TYPE:WALL-OUTER
G1 F2400 X134.56 Y163.77 E606.74693
G1 X170.44 Y163.77 E607.93751
G1 X170.44 Y141.23 E608.68532
G1 X134.56 Y141.23 E609.87591
G0 F12000 X134.56 Y140.93
G0 X133.19 Y139.82
G0 X132.89 Y139.61
G1 F2400 X172.11 Y139.61 E611.17718
G1 X172.11 Y165.39 E612.03275
G1 X132.89 Y165.39 E613.33402
G1 X132.89 Y139.61 E614.18958
G0 F12000 X133.89 Y140.60
;LAYER:2
G0 X133.76 Y140.43 Z0.70
;TYPE:WALL-INNER
G1 F2400 X133.76 Y164.57 E614.99034
G1 X171.24 Y164.57 E616.23388
G1 X171.24 Y140.43 E617.03464
G1 X133.76 Y140.43 E618.27818
G0 F12000 X133.69 Y140.40
G1 F2400 X171.31 Y140.40 E619.52650
G1 X171.31 Y164.60 E620.32912
G1 X133.69 Y164.60 E621.57744
G1 X133.69 Y140.40 E622.38005
G0 F12000 X133.29 Y140.00
G1 F2400 X171.71 Y140.00 E623.65485
G1 X171.71 Y165.00 E624.48394
G1 X133.29 Y165.00 E625.75873
G1 X133.29 Y140.00 E626.58782
G0 F12000 X134.16 Y140.83
G1 F2400 X134.16 Y164.17 E627.36211
G1 X170.84 Y164.17 E628.57917
G1 X170.84 Y140.83 E629.35346
G1 X134.16 Y140.83 E630.57052
G0 F12000 X134.56 Y141.23
;TYPE:WALL-OUTER
G1 F2400 X134.56 Y163.77 E631.31833
G1 X170.44 Y163.77 E632.50892
G1 X170.44 Y141.23 E633.25673
G1 X134.56 Y141.23 E634.44732
G0 F12000 X134.56 Y140.93
G0 X133.19 Y139.82
G0 X132.89 Y139.61
G1 F2400 X172.11 Y139.61 E635.74859
G1 X172.11 Y165.39 E636.60415
G1 X132.89 Y165.39 E637.90542
G1 X132.89 Y139.61 E638.76099
G0 F12000 X133.89 Y140.60
;LAYER:3
G0 X133.76 Y140.43 Z0.90
;TYPE:WALL-INNER
G1 F2400 X133.76 Y164.57 E639.56175
G1 X171.24 Y164.57 E640.80529
G1 X171.24 Y140.43 E641.60605
G1 X133.76 Y140.43 E642.84959
G0 F12000 X133.69 Y140.40
G1 F2400 X171.31 Y140.40 E644.09791
G1 X171.31 Y164.60 E644.90052
G1 X133.69 Y164.60 E646.14884
G1 X133.69 Y140.40 E646.95146
G0 F12000 X133.29 Y140.00
G1 F2400 X171.71 Y140.00 E648.22625
G1 X171.71 Y165.00 E649.05534
G1 X133.29 Y165.00 E650.33014
G1 X133.29 Y140.00 E651.15923
G0 F12000 X134.16 Y140.83
G1 F2400 X134.16 Y164.17 E651.93351
G1 X170.84 Y164.17 E653.15058
G1 X170.84 Y140.83 E653.92486
G1 X134.16 Y140.83 E655.14193
G0 F12000 X134.56 Y141.23
;TYPE:WALL-OUTER
G1 F2400 X134.56 Y163.77 E655.88974
G1 X170.44 Y163.77 E657.08033
G1 X170.44 Y141.23 E657.82814
G1 X134.56 Y141.23 E659.01872
G0 F12000 X134.56 Y140.93
G0 X133.19 Y139.82
G0 X132.89 Y139.61
G1 F2400 X172.11 Y139.61 E660.31999
G1 X172.11 Y165.39 E661.17556
G1 X132.89 Y165.39 E662.47683
G1 X132.89 Y139.61 E663.33240
G0 F12000 X133.89 Y140.60
;LAYER:4
G0 X133.76 Y140.43 Z1.10
;TYPE:WALL-INNER
G1 F2400 X133.76 Y164.57 E664.13316
G1 X171.24 Y164.57 E665.37670
G1 X171.24 Y140.43 E666.17746
G1 X133.76 Y140.43 E667.42100
G0 F12000 X133.69 Y140.40
G1 F2400 X171.31 Y140.40 E668.66931
G1 X171.31 Y164.60 E669.47193
G1 X133.69 Y164.60 E670.72025
G1 X133.69 Y140.40 E671.52286
G0 F12000 X133.29 Y140.00
G1 F2400 X171.71 Y140.00 E672.79766
G1 X171.71 Y165.00 E673.62675
G1 X133.29 Y165.00 E674.90154
G1 X133.29 Y140.00 E675.73064
G0 F12000 X134.16 Y140.83
G1 F2400 X134.16 Y164.17 E676.50492
G1 X170.84 Y164.17 E677.72198
G1 X170.84 Y140.83 E678.49627
G1 X134.16 Y140.83 E679.71333
G0 F12000 X134.56 Y141.23
;TYPE:WALL-OUTER
G1 F2400 X134.56 Y163.77 E680.46114
G1 X170.44 Y163.77 E681.65173
G1 X170.44 Y141.23 E682.39954
G1 X134.56 Y141.23 E683.59013
G0 F12000 X134.56 Y140.93
G0 X133.19 Y139.82
G0 X132.89 Y139.61
G1 F2400 X172.11 Y139.61 E684.89140
G1 X172.11 Y165.39 E685.74697
G1 X132.89 Y165.39 E687.04823
G1 X132.89 Y139.61 E687.90380
G0 F12000 X133.89 Y140.60
;LAYER:5
G0 X133.76 Y140.43 Z1.30
;TYPE:WALL-INNER
G1 F2400 X133.76 Y164.57 E688.70456
G1 X171.24 Y164.57 E689.94810
G1 X171.24 Y140.43 E690.74886
G1 X133.76 Y140.43 E691.99240
G0 F12000 X133.69 Y140.40
G1 F2400 X171.31 Y140.40 E693.24072
G1 X171.31 Y164.60 E694.04334
G1 X133.69 Y164.60 E695.29165
G1 X133.69 Y140.40 E696.09427
G0 F12000 X133.29 Y140.00
G1 F2400 X171.71 Y140.00 E697.36906
G1 X171.71 Y165.00 E698.19816
G1 X133.29 Y165.00 E699.47295
G1 X133.29 Y140.00 E700.30204
G0 F12000 X134.16 Y140.83
G1 F2400 X134.16 Y164.17 E701.07633
G1 X170.84 Y164.17 E702.29339
G1 X170.84 Y140.83 E703.06767
G1 X134.16 Y140.83 E704.28474
G0 F12000 X134.56 Y141.23
;TYPE:WALL-OUTER
G1 F2400 X134.56 Y163.77 E705.03255
G1 X170.44 Y163.77 E706.22314
G1 X170.44 Y141.23 E706.97095
G1 X134.56 Y141.23 E708.16154
G0 F12000 X134.56 Y140.93
G0 X133.19 Y139.82
G0 X132.89 Y139.61
G1 F2400 X172.11 Y139.61 E709.46280
G1 X172.11 Y165.39 E710.31837
G1 X132.89 Y165.39 E711.61964
G1 X132.89 Y139.61 E712.47521
G0 F12000 X133.89 Y140.60
;LAYER:6
G0 X133.76 Y140.43 Z1.50
;TYPE:WALL-INNER
G1 F2400 X133.76 Y164.57 E713.27597
G1 X171.24 Y164.57 E714.51951
G1 X171.24 Y140.43 E715.32027
G1 X133.76 Y140.43 E716.56381
G0 F12000 X133.69 Y140.40
G1 F2400 X171.31 Y140.40 E717.81212
G1 X171.31 Y164.60 E718.61474
G1 X133.69 Y164.60 E719.86306
G1 X133.69 Y140.40 E720.66568
G0 F12000 X133.29 Y140.00
G1 F2400 X171.71 Y140.00 E721.94047
G1 X171.71 Y165.00 E722.76956
G1 X133.29 Y165.00 E724.04435
G1 X133.29 Y140.00 E724.87345
G0 F12000 X134.16 Y140.83
G1 F2400 X134.16 Y164.17 E725.64773
G1 X170.84 Y164.17 E726.86480
G1 X170.84 Y140.83 E727.63908
G1 X134.16 Y140.83 E728.85614
G0 F12000 X134.56 Y141.23
;TYPE:WALL-OUTER
G1 F2400 X134.56 Y163.77 E729.60395
G1 X170.44 Y163.77 E730.79454
G1 X170.44 Y141.23 E731.54235
G1 X134.56 Y141.23 E732.73294
G0 F12000 X134.56 Y140.93
G0 X133.19 Y139.82
G0 X132.89 Y139.61
G1 F2400 X172.11 Y139.61 E734.03421
G1 X172.11 Y165.39 E734.88978
G1 X132.89 Y165.39 E736.19105
G1 X132.89 Y139.61 E737.04661
G0 F12000 X133.89 Y140.60
;LAYER:7
G0 X133.76 Y140.43 Z1.70
;TYPE:WALL-INNER
G1 F2400 X133.76 Y164.57 E737.84737
G1 X171.24 Y164.57 E739.09091
G1 X171.24 Y140.43 E739.89167
G1 X133.76 Y140.43 E741.13521
G0 F12000 X133.69 Y140.40
G1 F2400 X171.31 Y140.40 E742.38353
G1 X171.31 Y164.60 E743.18615
G1 X133.69 Y164.60 E744.43446
G1 X133.69 Y140.40 E745.23708
G0 F12000 X133.29 Y140.00
G1 F2400 X171.71 Y140.00 E746.51187
G1 X171.71 Y165.00 E747.34097
G1 X133.29 Y165.00 E748.61576
G1 X133.29 Y140.00 E749.44485
G0 F12000 X134.16 Y140.83
G1 F2400 X134.16 Y164.17 E750.21914
G1 X170.84 Y164.17 E751.43620
G1 X170.84 Y140.83 E752.21049
G1 X134.16 Y140.83 E753.42755
G0 F12000 X134.56 Y141.23
;TYPE:WALL-OUTER
G1 F2400 X134.56 Y163.77 E754.17536
G1 X170.44 Y163.77 E755.36595
G1 X170.44 Y141.23 E756.11376
G1 X134.56 Y141.23 E757.30435
G0 F12000 X134.56 Y140.93
G0 X133.19 Y139.82
G0 X132.89 Y139.61
G1 F2400 X172.11 Y139.61 E758.60562
G1 X172.11 Y165.39 E759.46118
G1 X132.89 Y165.39 E760.76245
G1 X132.89 Y139.61 E761.61802
G0 F12000 X133.89 Y140.60
;LAYER:8
G0 X133.76 Y140.43 Z1.90
;TYPE:WALL-INNER
G1 F2400 X133.76 Y164.57 E762.41878
G1 X171.24 Y164.57 E763.66232
G1 X171.24 Y140.43 E764.46308
G1 X133.76 Y140.43 E765.70662
G0 F12000 X133.69 Y140.40
G1 F2400 X171.31 Y140.40 E766.95494
G1 X171.31 Y164.60 E767.75755
G1 X133.69 Y164.60 E769.00587
G1 X133.69 Y140.40 E769.80849
G0 F12000 X133.29 Y140.00
G1 F2400 X171.71 Y140.00 E771.08328
G1 X171.71 Y165.00 E771.91237
G1 X133.29 Y165.00 E773.18717
G1 X133.29 Y140.00 E774.01626
G0 F12000 X134.16 Y140.83
G1 F2400 X134.16 Y164.17 E774.79054
G1 X170.84 Y164.17 E776.00761
G1 X170.84 Y140.83 E776.78189
G1 X134.16 Y140.83 E777.99896
G0 F12000 X134.56 Y141.23
;TYPE:WALL-OUTER
G1 F2400 X134.56 Y163.77 E778.74677
G1 X170.44 Y163.77 E779.93735
G1 X170.44 Y141.23 E780.68516
G1 X134.56 Y141.23 E781.87575
G0 F12000 X134.56 Y140.93
G0 X133.19 Y139.82
G0 X132.89 Y139.61
G1 F2400 X172.11 Y139.61 E783.17702
G1 X172.11 Y165.39 E784.03259
G1 X132.89 Y165.39 E785.33386
G1 X132.89 Y139.61 E786.18942
G0 F12000 X133.89 Y140.60
;LAYER:9
G0 X133.76 Y140.43 Z2.10
;TYPE:WALL-INNER
G1 F2400 X133.76 Y164.57 E786.99018
G1 X171.24 Y164.57 E788.23372
G1 X171.24 Y140.43 E789.03448
G1 X133.76 Y140.43 E790.27802
G0 F12000 X133.69 Y140.40
G1 F2400 X171.31 Y140.40 E791.52634
G1 X171.31 Y164.60 E792.32896
G1 X133.69 Y164.60 E793.57728
G1 X133.69 Y140.40 E794.37989
G0 F12000 X133.29 Y140.00
G1 F2400 X171.71 Y140.00 E795.65469
G1 X171.71 Y165.00 E796.48378
G1 X133.29 Y165.00 E797.75857
G1 X133.29 Y140.00 E798.58766
G0 F12000 X134.16 Y140.83
G1 F2400 X134.16 Y164.17 E799.36195
G1 X170.84 Y164.17 E800.57901
G1 X170.84 Y140.83 E801.35330
G1 X134.16 Y140.83 E802.57036
G0 F12000 X134.56 Y141.23
;TYPE:WALL-OUTER
G1 F2400 X134.56 Y163.77 E803.31817
G1 X170.44 Y163.77 E804.50876
G1 X170.44 Y141.23 E805.25657
G1 X134.56 Y141.23 E806.44716
G0 F12000 X134.56 Y140.93
G0 X133.19 Y139.82
G0 X132.89 Y139.61
G1 F2400 X172.11 Y139.61 E807.74843
G1 X172.11 Y165.39 E808.60399
G1 X132.89 Y165.39 E809.90526
G1 X132.89 Y139.61 E810.76083
G0 F12000 X133.89 Y140.60
;LAYER:10
G0 X133.76 Y140.43 Z2.30
;TYPE:WALL-INNER
G1 F2400 X133.76 Y164.57 E811.56159
G1 X171.24 Y164.57 E812.80513
G1 X171.24 Y140.43 E813.60589
G1 X133.76 Y140.43 E814.84943
G0 F12000 X133.69 Y140.40
G1 F2400 X171.31 Y140.40 E816.09775
G1 X171.31 Y164.60 E816.90036
G1 X133.69 Y164.60 E818.14868
G1 X133.69 Y140.40 E818.95130
G0 F12000 X133.29 Y140.00
G1 F2400 X171.71 Y140.00 E820.22609
G1 X171.71 Y165.00 E821.05518
G1 X133.29 Y165.00 E822.32998
G1 X133.29 Y140.00 E823.15907
G0 F12000 X134.16 Y140.83
G1 F2400 X134.16 Y164.17 E823.93335
G1 X170.84 Y164.17 E825.15042
G1 X170.84 Y140.83 E825.92470
G1 X134.16 Y140.83 E827.14177
G0 F12000 X134.56 Y141.23
;TYPE:WALL-OUTER
G1 F2400 X134.56 Y163.77 E827.88958
G1 X170.44 Y163.77 E829.08017
G1 X170.44 Y141.23 E829.82798
G1 X134.56 Y141.23 E831.01856
G0 F12000 X134.56 Y140.93
G0 X133.19 Y139.82
G0 X132.89 Y139.61
G1 F2400 X172.11 Y139.61 E832.31983
G1 X172.11 Y165.39 E833.17540
G1 X132.89 Y165.39 E834.47667
G1 X132.89 Y139.61 E835.33224
G0 F12000 X133.89 Y140.60
;LAYER:11
G0 X133.76 Y140.43 Z2.50
;TYPE:WALL-INNER
G1 F2400 X133.76 Y164.57 E836.13300
G1 X171.24 Y164.57 E837.37654
G1 X171.24 Y140.43 E838.17730
G1 X133.76 Y140.43 E839.42084
G0 F12000 X133.69 Y140.40
G1 F2400 X171.31 Y140.40 E840.66915
G1 X171.31 Y164.60 E841.47177
G1 X133.69 Y164.60 E842.72009
G1 X133.69 Y140.40 E843.52270
G0 F12000 X133.29 Y140.00
G1 F2400 X171.71 Y140.00 E844.79750
G1 X171.71 Y165.00 E845.62659
G1 X133.29 Y165.00 E846.90138
G1 X133.29 Y140.00 E847.73048
G0 F12000 X134.16 Y140.83
G1 F2400 X134.16 Y164.17 E848.50476
G1 X170.84 Y164.17 E849.72182
G1 X170.84 Y140.83 E850.49611
G1 X134.16 Y140.83 E851.71317
G0 F12000 X134.56 Y141.23
;TYPE:WALL-OUTER
G1 F2400 X134.56 Y163.77 E852.46098
G1 X170.44 Y163.77 E853.65157
G1 X170.44 Y141.23 E854.39938
G1 X134.56 Y141.23 E855.58997
G0 F12000 X134.56 Y140.93
G0 X133.19 Y139.82
G0 X132.89 Y139.61
G1 F2400 X172.11 Y139.61 E856.89124
G1 X172.11 Y165.39 E857.74681
G1 X132.89 Y165.39 E859.04807
G1 X132.89 Y139.61 E859.90364
G0 F12000 X133.89 Y140.60
;LAYER:12
G0 X133.76 Y140.43 Z2.70
;TYPE:WALL-INNER
G1 F2400 X133.76 Y164.57 E860.70440
G1 X171.24 Y164.57 E861.94794
G1 X171.24 Y140.43 E862.74870
G1 X133.76 Y140.43 E863.99224
G0 F12000 X133.69 Y140.40
G1 F2400 X171.31 Y140.40 E865.24056
G1 X171.31 Y164.60 E866.04318
G1 X133.69 Y164.60 E867.29149
G1 X133.69 Y140.40 E868.09411
G0 F12000 X133.29 Y140.00
G1 F2400 X171.71 Y140.00 E869.36890
G1 X171.71 Y165.00 E870.19800
G1 X133.29 Y165.00 E871.47279
G1 X133.29 Y140.00 E872.30188
G0 F12000 X134.16 Y140.83
G1 F2400 X134.16 Y164.17 E873.07617
G1 X170.84 Y164.17 E874.29323
G1 X170.84 Y140.83 E875.06751
G1 X134.16 Y140.83 E876.28458
G0 F12000 X134.56 Y141.23
;TYPE:WALL-OUTER
G1 F2400 X134.56 Y163.77 E877.03239
G1 X170.44 Y163.77 E878.22298
G1 X170.44 Y141.23 E878.97079
G1 X134.56 Y141.23 E880.16138
G0 F12000 X134.56 Y140.93
G0 X133.19 Y139.82
G0 X132.89 Y139.61
G1 F2400 X172.11 Y139.61 E881.46264
G1 X172.11 Y165.39 E882.31821
G1 X132.89 Y165.39 E883.61948
G1 X132.89 Y139.61 E884.47505
G0 F12000 X133.89 Y140.60
;LAYER:13
G0 X133.76 Y140.43 Z2.90
;TYPE:WALL-INNER
G1 F2400 X133.76 Y164.57 E885.27581
G1 X171.24 Y164.57 E886.51935
G1 X171.24 Y140.43 E887.32011
G1 X133.76 Y140.43 E888.56365
G0 F12000 X133.69 Y140.40
G1 F2400 X171.31 Y140.40 E889.81196
G1 X171.31 Y164.60 E890.61458
G1 X133.69 Y164.60 E891.86290
G1 X133.69 Y140.40 E892.66552
G0 F12000 X133.29 Y140.00
G1 F2400 X171.71 Y140.00 E893.94031
G1 X171.71 Y165.00 E894.76940
G1 X133.29 Y165.00 E896.04419
G1 X133.29 Y140.00 E896.87329
G0 F12000 X134.16 Y140.83
G1 F2400 X134.16 Y164.17 E897.64757
G1 X170.84 Y164.17 E898.86464
G1 X170.84 Y140.83 E899.63892
G1 X134.16 Y140.83 E900.85598
G0 F12000 X134.56 Y141.23
;TYPE:WALL-OUTER
G1 F2400 X134.56 Y163.77 E901.60379
G1 X170.44 Y163.77 E902.79438
G1 X170.44 Y141.23 E903.54219
G1 X134.56 Y141.23 E904.73278
G0 F12000 X134.56 Y140.93
G0 X133.19 Y139.82
G0 X132.89 Y139.61
G1 F2400 X172.11 Y139.61 E906.03405
G1 X172.11 Y165.39 E906.88962
G1 X132.89 Y165.39 E908.19089
G1 X132.89 Y139.61 E909.04645
G0 F12000 X133.89 Y140.60
;LAYER:14
G0 X133.76 Y140.43 Z3.10
;TYPE:WALL-INNER
G1 F2400 X133.76 Y164.57 E909.84721
G1 X171.24 Y164.57 E911.09075
G1 X171.24 Y140.43 E911.89151
G1 X133.76 Y140.43 E913.13505
G0 F12000 X133.69 Y140.40
G1 F2400 X171.31 Y140.40 E914.38337
G1 X171.31 Y164.60 E915.18599
G1 X133.69 Y164.60 E916.43430
G1 X133.69 Y140.40 E917.23692
G0 F12000 X133.29 Y140.00
G1 F2400 X171.71 Y140.00 E918.51171
G1 X171.71 Y165.00 E919.34081
G1 X133.29 Y165.00 E920.61560
G1 X133.29 Y140.00 E921.44469
G0 F12000 X134.16 Y140.83
G1 F2400 X134.16 Y164.17 E922.21898
G1 X170.84 Y164.17 E923.43604
G1 X170.84 Y140.83 E924.21033
G1 X134.16 Y140.83 E925.42739
G0 F12000 X134.56 Y141.23
;TYPE:WALL-OUTER
G1 F2400 X134.56 Y163.77 E926.17520
G1 X170.44 Y163.77 E927.36579
G1 X170.44 Y141.23 E928.11360
G1 X134.56 Y141.23 E929.30419
G0 F12000 X134.56 Y140.93
G0 X133.19 Y139.82
G0 X132.89 Y139.61
G1 F2400 X172.11 Y139.61 E930.60546
G1 X172.11 Y165.39 E931.46102
G1 X132.89 Y165.39 E932.76229
G1 X132.89 Y139.61 E933.61786
G0 F12000 X133.89 Y140.60
;LAYER:15
G0 X133.76 Y140.43 Z3.30
;TYPE:WALL-INNER
G1 F2400 X133.76 Y164.57 E934.41862
G1 X171.24 Y164.57 E935.66216
G1 X171.24 Y140.43 E936.46292
G1 X133.76 Y140.43 E937.70646
G0 F12000 X133.69 Y140.40
G1 F2400 X171.31 Y140.40 E938.95478
G1 X171.31 Y164.60 E939.75739
G1 X133.69 Y164.60 E941.00571
G1 X133.69 Y140.40 E941.80833
G0 F12000 X133.29 Y140.00
G1 F2400 X171.71 Y140.00 E943.08312
G1 X171.71 Y165.00 E943.91221
G1 X133.29 Y165.00 E945.18701
G1 X133.29 Y140.00 E946.01610
G0 F12000 X134.16 Y140.83
G1 F2400 X134.16 Y164.17 E946.79038
G1 X170.84 Y164.17 E948.00745
G1 X170.84 Y140.83 E948.78173
G1 X134.16 Y140.83 E949.99880
G0 F12000 X134.56 Y141.23
;TYPE:WALL-OUTER
G1 F2400 X134.56 Y163.77 E950.74661
G1 X170.44 Y163.77 E951.93719
G1 X170.44 Y141.23 E952.68500
G1 X134.56 Y141.23 E953.87559
G0 F12000 X134.56 Y140.93
G0 X133.19 Y139.82
G0 X132.89 Y139.61
G1 F2400 X172.11 Y139.61 E955.17686
G1 X172.11 Y165.39 E956.03243
G1 X132.89 Y165.39 E957.33370
G1 X132.89 Y139.61 E958.18926
G0 F12000 X133.89 Y140.60
;LAYER:16
G0 X133.76 Y140.43 Z3.50
;TYPE:WALL-INNER
G1 F2400 X133.76 Y164.57 E958.99002
G1 X171.24 Y164.57 E960.23356
G1 X171.24 Y140.43 E961.03432
G1 X133.76 Y140.43 E962.27786
G0 F12000 X133.69 Y140.40
G1 F2400 X171.31 Y140.40 E963.52618
G1 X171.31 Y164.60 E964.32880
G1 X133.69 Y164.60 E965.57712
G1 X133.69 Y140.40 E966.37973
G0 F12000 X133.29 Y140.00
G1 F2400 X171.71 Y140.00 E967.65453
G1 X171.71 Y165.00 E968.48362
G1 X133.29 Y165.00 E969.75841
G1 X133.29 Y140.00 E970.58750
G0 F12000 X134.16 Y140.83
G1 F2400 X134.16 Y164.17 E971.36179
G1 X170.84 Y164.17 E972.57885
G1 X170.84 Y140.83 E973.35314
G1 X134.16 Y140.83 E974.57020
G0 F12000 X134.56 Y141.23
;TYPE:WALL-OUTER
G1 F2400 X134.56 Y163.77 E975.31801
G1 X170.44 Y163.77 E976.50860
G1 X170.44 Y141.23 E977.25641
G1 X134.56 Y141.23 E978.44700
G0 F12000 X134.56 Y140.93
G0 X133.19 Y139.82
G0 X132.89 Y139.61
G1 F2400 X172.11 Y139.61 E979.74827
G1 X172.11 Y165.39 E980.60383
G1 X132.89 Y165.39 E981.90510
G1 X132.89 Y139.61 E982.76067
G0 F12000 X133.89 Y140.60
;LAYER:17
G0 X133.76 Y140.43 Z3.70
;TYPE:WALL-INNER
G1 F2400 X133.76 Y164.57 E983.56143
G1 X171.24 Y164.57 E984.80497
G1 X171.24 Y140.43 E985.60573
G1 X133.76 Y140.43 E986.84927
G0 F12000 X133.69 Y140.40
G1 F2400 X171.31 Y140.40 E988.09759
G1 X171.31 Y164.60 E988.90020
G1 X133.69 Y164.60 E990.14852
G1 X133.69 Y140.40 E990.95114
G0 F12000 X133.29 Y140.00
G1 F2400 X171.71 Y140.00 E992.22593
G1 X171.71 Y165.00 E993.05502
G1 X133.29 Y165.00 E994.32982
G1 X133.29 Y140.00 E995.15891
G0 F12000 X134.16 Y140.83
G1 F2400 X134.16 Y164.17 E995.93319
G1 X170.84 Y164.17 E997.15026
G1 X170.84 Y140.83 E997.92454
G1 X134.16 Y140.83 E999.14161
G0 F12000 X134.56 Y141.23
;TYPE:WALL-OUTER
G1 F2400 X134.56 Y163.77 E999.88942
G1 X170.44 Y163.77 E1001.08001
G1 X170.44 Y141.23 E1001.82782
G1 X134.56 Y141.23 E1003.01840
G0 F12000 X134.56 Y140.93
G0 X133.19 Y139.82
G0 X132.89 Y139.61
G1 F2400 X172.11 Y139.61 E1004.31967
G1 X172.11 Y165.39 E1005.17524
G1 X132.89 Y165.39 E1006.47651
G1 X132.89 Y139.61 E1007.33208
G0 F12000 X133.89 Y140.60
;LAYER:18
G0 X133.76 Y140.43 Z3.90
;TYPE:WALL-INNER
G1 F2400 X133.76 Y164.57 E1008.13284
G1 X171.24 Y164.57 E1009.37638
G1 X171.24 Y140.43 E1010.17714
G1 X133.76 Y140.43 E1011.42068
G0 F12000 X133.69 Y140.40
G1 F2400 X171.31 Y140.40 E1012.66899
G1 X171.31 Y164.60 E1013.47161
G1 X133.69 Y164.60 E1014.71993
G1 X133.69 Y140.40 E1015.52254
G0 F12000 X133.29 Y140.00
G1 F2400 X171.71 Y140.00 E1016.79734
G1 X171.71 Y165.00 E1017.62643
G1 X133.29 Y165.00 E1018.90122
G1 X133.29 Y140.00 E1019.73032
G0 F12000 X134.16 Y140.83
G1 F2400 X134.16 Y164.17 E1020.50460
G1 X170.84 Y164.17 E1021.72166
G1 X170.84 Y140.83 E1022.49595
G1 X134.16 Y140.83 E1023.71301
G0 F12000 X134.56 Y141.23
;TYPE:WALL-OUTER
G1 F2400 X134.56 Y163.77 E1024.46082
G1 X170.44 Y163.77 E1025.65141
G1 X170.44 Y141.23 E1026.39922
G1 X134.56 Y141.23 E1027.58981
G0 F12000 X134.56 Y140.93
G0 X133.19 Y139.82
G0 X132.89 Y139.61
G1 F2400 X172.11 Y139.61 E1028.89108
G1 X172.11 Y165.39 E1029.74665
G1 X132.89 Y165.39 E1031.04791
G1 X132.89 Y139.61 E1031.90348
G0 F12000 X133.89 Y140.60
;LAYER:19
G0 X133.76 Y140.43 Z4.10
;TYPE:WALL-INNER
G1 F2400 X133.76 Y164.57 E1032.70424
G1 X171.24 Y164.57 E1033.94778
G1 X171.24 Y140.43 E1034.74854
G1 X133.76 Y140.43 E1035.99208
G0 F12000 X133.69 Y140.40
G1 F2400 X171.31 Y140.40 E1037.24040
G1 X171.31 Y164.60 E1038.04302
G1 X133.69 Y164.60 E1039.29133
G1 X133.69 Y140.40 E1040.09395
G0 F12000 X133.29 Y140.00
G1 F2400 X171.71 Y140.00 E1041.36874
G1 X171.71 Y165.00 E1042.19784
G1 X133.29 Y165.00 E1043.47263
G1 X133.29 Y140.00 E1044.30172
G0 F12000 X134.16 Y140.83
G1 F2400 X134.16 Y164.17 E1045.07601
G1 X170.84 Y164.17 E1046.29307
G1 X170.84 Y140.83 E1047.06735
G1 X134.16 Y140.83 E1048.28442
G0 F12000 X134.56 Y141.23
;TYPE:WALL-OUTER
G1 F2400 X134.56 Y163.77 E1049.03223
G1 X170.44 Y163.77 E1050.22282
G1 X170.44 Y141.23 E1050.97063
G1 X134.56 Y141.23 E1052.16122
G0 F12000 X134.56 Y140.93
G0 X133.19 Y139.82
G0 X132.89 Y139.61
G1 F2400 X172.11 Y139.61 E1053.46248
G1 X172.11 Y165.39 E1054.31805
G1 X132.89 Y165.39 E1055.61932
G1 X132.89 Y139.61 E1056.47489
G0 F12000 X133.89 Y140.60
;LAYER:20
G0 X133.76 Y140.43 Z4.30
;TYPE:WALL-INNER
G1 F2400 X133.76 Y164.57 E1057.27565
G1 X171.24 Y164.57 E1058.51919
G1 X171.24 Y140.43 E1059.31995
G1 X133.76 Y140.43 E1060.56349
G0 F12000 X133.69 Y140.40
G1 F2400 X171.31 Y140.40 E1061.81180
G1 X171.31 Y164.60 E1062.61442
G1 X133.69 Y164.60 E1063.86274
G1 X133.69 Y140.40 E1064.66536
G0 F12000 X133.29 Y140.00
G1 F2400 X171.71 Y140.00 E1065.94015
G1 X171.71 Y165.00 E1066.76924
G1 X133.29 Y165.00 E1068.04403
G1 X133.29 Y140.00 E1068.87313
G0 F12000 X134.16 Y140.83
G1 F2400 X134.16 Y164.17 E1069.64741
G1 X170.84 Y164.17 E1070.86448
G1 X170.84 Y140.83 E1071.63876
G1 X134.16 Y140.83 E1072.85582
G0 F12000 X134.56 Y141.23
;TYPE:WALL-OUTER
G1 F2400 X134.56 Y163.77 E1073.60363
G1 X170.44 Y163.77 E1074.79422
G1 X170.44 Y141.23 E1075.54203
G1 X134.56 Y141.23 E1076.73262
G0 F12000 X134.56 Y140.93
G0 X133.19 Y139.82
G0 X132.89 Y139.61
G1 F2400 X172.11 Y139.61 E1078.03389
G1 X172.11 Y165.39 E1078.88946
G1 X132.89 Y165.39 E1080.19073
G1 X132.89 Y139.61 E1081.04629
G0 F12000 X133.89 Y140.60
;LAYER:21
G0 X133.76 Y140.43 Z4.50
;TYPE:WALL-INNER
G1 F2400 X133.76 Y164.57 E1081.84705
G1 X171.24 Y164.57 E1083.09059
G1 X171.24 Y140.43 E1083.89135
G1 X133.76 Y140.43 E1085.13489
G0 F12000 X133.69 Y140.40
G1 F2400 X171.31 Y140.40 E1086.38321
G1 X171.31 Y164.60 E1087.18583
G1 X133.69 Y164.60 E1088.43414
G1 X133.69 Y140.40 E1089.23676
G0 F12000 X133.29 Y140.00
G1 F2400 X171.71 Y140.00 E1090.51155
G1 X171.71 Y165.00 E1091.34065
G1 X133.29 Y165.00 E1092.61544
G1 X133.29 Y140.00 E1093.44453
G0 F12000 X134.16 Y140.83
G1 F2400 X134.16 Y164.17 E1094.21882
G1 X170.84 Y164.17 E1095.43588
G1 X170.84 Y140.83 E1096.21017
G1 X134.16 Y140.83 E1097.42723
G0 F12000 X134.56 Y141.23
;TYPE:WALL-OUTER
G1 F2400 X134.56 Y163.77 E1098.17504
G1 X170.44 Y163.77 E1099.36563
G1 X170.44 Y141.23 E1100.11344
G1 X134.56 Y141.23 E1101.30403
G0 F12000 X134.56 Y140.93
G0 X133.19 Y139.82
G0 X132.89 Y139.61
G1 F2400 X172.11 Y139.61 E1102.60530
G1 X172.11 Y165.39 E1103.46086
G1 X132.89 Y165.39 E1104.76213
G1 X132.89 Y139.61 E1105.61770
G0 F12000 X133.89 Y140.60
;LAYER:22
G0 X133.76 Y140.43 Z4.70
;TYPE:WALL-INNER
G1 F2400 X133.76 Y164.57 E1106.41846
G1 X171.24 Y164.57 E1107.66200
G1 X171.24 Y140.43 E1108.46276
G1 X133.76 Y140.43 E1109.70630
G0 F12000 X133.69 Y140.40
G1 F2400 X171.31 Y140.40 E1110.95462
G1 X171.31 Y164.60 E1111.75723
G1 X133.69 Y164.60 E1113.00555
G1 X133.69 Y140.40 E1113.80817
G0 F12000 X133.29 Y140.00
G1 F2400 X171.71 Y140.00 E1115.08296
G1 X171.71 Y165.00 E1115.91205
G1 X133.29 Y165.00 E1117.18685
G1 X133.29 Y140.00 E1118.01594
G0 F12000 X134.16 Y140.83
G1 F2400 X134.16 Y164.17 E1118.79022
G1 X170.84 Y164.17 E1120.00729
G1 X170.84 Y140.83 E1120.78157
G1 X134.16 Y140.83 E1121.99864
G0 F12000 X134.56 Y141.23
;TYPE:WALL-OUTER
G1 F2400 X134.56 Y163.77 E1122.74645
G1 X170.44 Y163.77 E1123.93703
G1 X170.44 Y141.23 E1124.68484
G1 X134.56 Y141.23 E1125.87543
G0 F12000 X134.56 Y140.93
G0 X133.19 Y139.82
G0 X132.89 Y139.61
G1 F2400 X172.11 Y139.61 E1127.17670
G1 X172.11 Y165.39 E1128.03227
G1 X132.89 Y165.39 E1129.33354
G1 X132.89 Y139.61 E1130.18910
G0 F12000 X133.89 Y140.60
;LAYER:23
G0 X133.76 Y140.43 Z4.90
;TYPE:WALL-INNER
G1 F2400 X133.76 Y164.57 E1130.98986
G1 X171.24 Y164.57 E1132.23340
G1 X171.24 Y140.43 E1133.03416
G1 X133.76 Y140.43 E1134.27770
G0 F12000 X133.69 Y140.40
G1 F2400 X171.31 Y140.40 E1135.52602
G1 X171.31 Y164.60 E1136.32864
G1 X133.69 Y164.60 E1137.57696
G1 X133.69 Y140.40 E1138.37957
G0 F12000 X133.29 Y140.00
G1 F2400 X171.71 Y140.00 E1139.65437
G1 X171.71 Y165.00 E1140.48346
G1 X133.29 Y165.00 E1141.75825
G1 X133.29 Y140.00 E1142.58734
G0 F12000 X134.16 Y140.83
G1 F2400 X134.16 Y164.17 E1143.36163
G1 X170.84 Y164.17 E1144.57869
G1 X170.84 Y140.83 E1145.35298
G1 X134.16 Y140.83 E1146.57004
G0 F12000 X134.56 Y141.23
;TYPE:WALL-OUTER
G1 F2400 X134.56 Y163.77 E1147.31785
G1 X170.44 Y163.77 E1148.50844
G1 X170.44 Y141.23 E1149.25625
G1 X134.56 Y141.23 E1150.44684
G0 F12000 X134.56 Y140.93
G0 X133.19 Y139.82
G0 X132.89 Y139.61
G1 F2400 X172.11 Y139.61 E1151.74811
G1 X172.11 Y165.39 E1152.60367
G1 X132.89 Y165.39 E1153.90494
G1 X132.89 Y139.61 E1154.76051
G0 F12000 X133.89 Y140.60
;LAYER:24
G0 X133.76 Y140.43 Z5.10
;TYPE:WALL-INNER
G1 F2400 X133.76 Y164.57 E1155.56127
G1 X171.24 Y164.57 E1156.80481
G1 X171.24 Y140.43 E1157.60557
G1 X133.76 Y140.43 E1158.84911
G0 F12000 X133.69 Y140.40
G1 F2400 X171.31 Y140.40 E1160.09743
G1 X171.31 Y164.60 E1160.90004
G1 X133.69 Y164.60 E1162.14836
G1 X133.69 Y140.40 E1162.95098
G0 F12000 X133.29 Y140.00
G1 F2400 X171.71 Y140.00 E1164.22577
G1 X171.71 Y165.00 E1165.05486
G1 X133.29 Y165.00 E1166.32966
G1 X133.29 Y140.00 E1167.15875
G0 F12000 X134.16 Y140.83
G1 F2400 X134.16 Y164.17 E1167.93303
G1 X170.84 Y164.17 E1169.15010
G1 X170.84 Y140.83 E1169.92438
G1 X134.16 Y140.83 E1171.14145
G0 F12000 X134.56 Y141.23
;TYPE:WALL-OUTER
G1 F2400 X134.56 Y163.77 E1171.88926
G1 X170.44 Y163.77 E1173.07985
G1 X170.44 Y141.23 E1173.82766
G1 X134.56 Y141.23 E1175.01824
G0 F12000 X134.56 Y140.93
G0 X133.19 Y139.82
G0 X132.89 Y139.61
G1 F2400 X172.11 Y139.61 E1176.31951
G1 X172.11 Y165.39 E1177.17508
G1 X132.89 Y165.39 E1178.47635
G1 X132.89 Y139.61 E1179.33192
G0 F12000 X133.89 Y140.60
;LAYER:25
G0 X133.76 Y140.43 Z5.30
;TYPE:WALL-INNER
G1 F2400 X133.76 Y164.57 E1180.13268
G1 X171.24 Y164.57 E1181.37622
G1 X171.24 Y140.43 E1182.17698
G1 X133.76 Y140.43 E1183.42052
G0 F12000 X133.69 Y140.40
G1 F2400 X171.31 Y140.40 E1184.66883
G1 X171.31 Y164.60 E1185.47145
G1 X133.69 Y164.60 E1186.71977
G1 X133.69 Y140.40 E1187.52238
G0 F12000 X133.29 Y140.00
G1 F2400 X171.71 Y140.00 E1188.79718
G1 X171.71 Y165.00 E1189.62627
G1 X133.29 Y165.00 E1190.90106
G1 X133.29 Y140.00 E1191.73016
G0 F12000 X134.16 Y140.83
G1 F2400 X134.16 Y164.17 E1192.50444
G1 X170.84 Y164.17 E1193.72150
G1 X170.84 Y140.83 E1194.49579
G1 X134.16 Y140.83 E1195.71285
G0 F12000 X134.56 Y141.23
;TYPE:WALL-OUTER
G1 F2400 X134.56 Y163.77 E1196.46066
G1 X170.44 Y163.77 E1197.65125
G1 X170.44 Y141.23 E1198.39906
G1 X134.56 Y141.23 E1199.58965
G0 F12000 X134.56 Y140.93
G0 X133.19 Y139.82
G0 X132.89 Y139.61
G1 F2400 X172.11 Y139.61 E1200.89092
G1 X172.11 Y165.39 E1201.74649
G1 X132.89 Y165.39 E1203.04775
G1 X132.89 Y139.61 E1203.90332
G0 F12000 X133.89 Y140.60
;LAYER:26
G0 X133.76 Y140.43 Z5.50
;TYPE:WALL-INNER
G1 F2400 X133.76 Y164.57 E1204.70408
G1 X171.24 Y164.57 E1205.94762
G1 X171.24 Y140.43 E1206.74838
G1 X133.76 Y140.43 E1207.99192
G0 F12000 X133.69 Y140.40
G1 F2400 X171.31 Y140.40 E1209.24024
G1 X171.31 Y164.60 E1210.04286
G1 X133.69 Y164.60 E1211.29117
G1 X133.69 Y140.40 E1212.09379
G0 F12000 X133.29 Y140.00
G1 F2400 X171.71 Y140.00 E1213.36858
G1 X171.71 Y165.00 E1214.19768
G1 X133.29 Y165.00 E1215.47247
G1 X133.29 Y140.00 E1216.30156
G0 F12000 X134.16 Y140.83
G1 F2400 X134.16 Y164.17 E1217.07585
G1 X170.84 Y164.17 E1218.29291
G1 X170.84 Y140.83 E1219.06719
G1 X134.16 Y140.83 E1220.28426
G0 F12000 X134.56 Y141.23
;TYPE:WALL-OUTER
G1 F2400 X134.56 Y163.77 E1221.03207
G1 X170.44 Y163.77 E1222.22266
G1 X170.44 Y141.23 E1222.97047
G1 X134.56 Y141.23 E1224.16106
G0 F12000 X134.56 Y140.93
G0 X133.19 Y139.82
G0 X132.89 Y139.61
G1 F2400 X172.11 Y139.61 E1225.46232
G1 X172.11 Y165.39 E1226.31789
G1 X132.89 Y165.39 E1227.61916
G1 X132.89 Y139.61 E1228.47473
G0 F12000 X133.89 Y140.60
;LAYER:27
G0 X133.76 Y140.43 Z5.70
;TYPE:WALL-INNER
G1 F2400 X133.76 Y164.57 E1229.27549
G1 X171.24 Y164.57 E1230.51903
G1 X171.24 Y140.43 E1231.31979
G1 X133.76 Y140.43 E1232.56333
G0 F12000 X133.69 Y140.40
G1 F2400 X171.31 Y140.40 E1233.81164
G1 X171.31 Y164.60 E1234.61426
G1 X133.69 Y164.60 E1235.86258
G1 X133.69 Y140.40 E1236.66520
G0 F12000 X133.29 Y140.00
G1 F2400 X171.71 Y140.00 E1237.93999
G1 X171.71 Y165.00 E1238.76908
G1 X133.29 Y165.00 E1240.04387
G1 X133.29 Y140.00 E1240.87297
G0 F12000 X134.16 Y140.83
G1 F2400 X134.16 Y164.17 E1241.64725
G1 X170.84 Y164.17 E1242.86432
G1 X170.84 Y140.83 E1243.63860
G1 X134.16 Y140.83 E1244.85566
G0 F12000 X134.56 Y141.23
;TYPE:WALL-OUTER
G1 F2400 X134.56 Y163.77 E1245.60347
G1 X170.44 Y163.77 E1246.79406
G1 X170.44 Y141.23 E1247.54187
G1 X134.56 Y141.23 E1248.73246
G0 F12000 X134.56 Y140.93
G0 X133.19 Y139.82
G0 X132.89 Y139.61
G1 F2400 X172.11 Y139.61 E1250.03373
G1 X172.11 Y165.39 E1250.88930
G1 X132.89 Y165.39 E1252.19057
G1 X132.89 Y139.61 E1253.04613
G0 F12000 X133.89 Y140.60
;LAYER:28
G0 X133.76 Y140.43 Z5.90
;TYPE:WALL-INNER
G1 F2400 X133.76 Y164.57 E1253.84689
G1 X171.24 Y164.57 E1255.09043
G1 X171.24 Y140.43 E1255.89119
G1 X133.76 Y140.43 E1257.13473
G0 F12000 X133.69 Y140.40
G1 F2400 X171.31 Y140.40 E1258.38305
G1 X171.31 Y164.60 E1259.18567
G1 X133.69 Y164.60 E1260.43398
G1 X133.69 Y140.40 E1261.23660
G0 F12000 X133.29 Y140.00
G1 F2400 X171.71 Y140.00 E1262.51139
G1 X171.71 Y165.00 E1263.34049
G1 X133.29 Y165.00 E1264.61528
G1 X133.29 Y140.00 E1265.44437
G0 F12000 X134.16 Y140.83
G1 F2400 X134.16 Y164.17 E1266.21866
G1 X170.84 Y164.17 E1267.43572
G1 X170.84 Y140.83 E1268.21001
G1 X134.16 Y140.83 E1269.42707
G0 F12000 X134.56 Y141.23
;TYPE:WALL-OUTER
G1 F2400 X134.56 Y163.77 E1270.17488
G1 X170.44 Y163.77 E1271.36547
G1 X170.44 Y141.23 E1272.11328
G1 X134.56 Y141.23 E1273.30387
G0 F12000 X134.56 Y140.93
G0 X133.19 Y139.82
G0 X132.89 Y139.61
G1 F2400 X172.11 Y139.61 E1274.60514
G1 X172.11 Y165.39 E1275.46070
G1 X132.89 Y165.39 E1276.76197
G1 X132.89 Y139.61 E1277.61754
G0 F12000 X133.89 Y140.60
;LAYER:29
G0 X133.76 Y140.43 Z6.10
;TYPE:WALL-INNER
G1 F2400 X133.76 Y164.57 E1278.41830
G1 X171.24 Y164.57 E1279.66184
G1 X171.24 Y140.43 E1280.46260
G1 X133.76 Y140.43 E1281.70614
G0 F12000 X133.69 Y140.40
G1 F2400 X171.31 Y140.40 E1282.95446
G1 X171.31 Y164.60 E1283.75707
G1 X133.69 Y164.60 E1285.00539
G1 X133.69 Y140.40 E1285.80801
G0 F12000 X133.29 Y140.00
G1 F2400 X171.71 Y140.00 E1287.08280
G1 X171.71 Y165.00 E1287.91189
G1 X133.29 Y165.00 E1289.18669
G1 X133.29 Y140.00 E1290.01578
G0 F12000 X134.16 Y140.83
G1 F2400 X134.16 Y164.17 E1290.79006
G1 X170.84 Y164.17 E1292.00713
G1 X170.84 Y140.83 E1292.78141
G1 X134.16 Y140.83 E1293.99848
G0 F12000 X134.56 Y141.23
;TYPE:WALL-OUTER
G1 F2400 X134.56 Y163.77 E1294.74629
G1 X170.44 Y163.77 E1295.93687
G1 X170.44 Y141.23 E1296.68468
G1 X134.56 Y141.23 E1297.87527
G0 F12000 X134.56 Y140.93
G0 X133.19 Y139.82
G0 X132.89 Y139.61
G1 F2400 X172.11 Y139.61 E1299.17654
G1 X172.11 Y165.39 E1300.03211
G1 X132.89 Y165.39 E1301.33338
G1 X132.89 Y139.61 E1302.18894
G0 F12000 X133.89 Y140.60
;LAYER:30
G0 X133.76 Y140.43 Z6.30
;TYPE:WALL-INNER
G1 F2400 X133.76 Y164.57 E1302.98970
G1 X171.24 Y164.57 E1304.23324
G1 X171.24 Y140.43 E1305.03400
G1 X133.76 Y140.43 E1306.27754
G0 F12000 X133.69 Y140.40
G1 F2400 X171.31 Y140.40 E1307.52586
G1 X171.31 Y164.60 E1308.32848
G1 X133.69 Y164.60 E1309.57680
G1 X133.69 Y140.40 E1310.37941
G0 F12000 X133.29 Y140.00
G1 F2400 X171.71 Y140.00 E1311.65421
G1 X171.71 Y165.00 E1312.48330
G1 X133.29 Y165.00 E1313.75809
G1 X133.29 Y140.00 E1314.58718
G0 F12000 X134.16 Y140.83
G1 F2400 X134.16 Y164.17 E1315.36147
G1 X170.84 Y164.17 E1316.57853
G1 X170.84 Y140.83 E1317.35282
G1 X134.16 Y140.83 E1318.56988
G0 F12000 X134.56 Y141.23
;TYPE:WALL-OUTER
G1 F2400 X134.56 Y163.77 E1319.31769
G1 X170.44 Y163.77 E1320.50828
G1 X170.44 Y141.23 E1321.25609
G1 X134.56 Y141.23 E1322.44668
G0 F12000 X134.56 Y140.93
G0 X133.19 Y139.82
G0 X132.89 Y139.61
G1 F2400 X172.11 Y139.61 E1323.74795
G1 X172.11 Y165.39 E1324.60351
G1 X132.89 Y165.39 E1325.90478
G1 X132.89 Y139.61 E1326.76035
G0 F12000 X133.89 Y140.60
;LAYER:31
G0 X133.76 Y140.43 Z6.50
;TYPE:WALL-INNER
G1 F2400 X133.76 Y164.57 E1327.56111
G1 X171.24 Y164.57 E1328.80465
G1 X171.24 Y140.43 E1329.60541
G1 X133.76 Y140.43 E1330.84895
G0 F12000 X133.69 Y140.40
G1 F2400 X171.31 Y140.40 E1332.09727
G1 X171.31 Y164.60 E1332.89988
G1 X133.69 Y164.60 E1334.14820
G1 X133.69 Y140.40 E1334.95082
G0 F12000 X133.29 Y140.00
G1 F2400 X171.71 Y140.00 E1336.22561
G1 X171.71 Y165.00 E1337.05470
G1 X133.29 Y165.00 E1338.32950
G1 X133.29 Y140.00 E1339.15859
G0 F12000 X134.16 Y140.83
G1 F2400 X134.16 Y164.17 E1339.93287
G1 X170.84 Y164.17 E1341.14994
G1 X170.84 Y140.83 E1341.92422
G1 X134.16 Y140.83 E1343.14129
G0 F12000 X134.56 Y141.23
;TYPE:WALL-OUTER
G1 F2400 X134.56 Y163.77 E1343.88910
G1 X170.44 Y163.77 E1345.07969
G1 X170.44 Y141.23 E1345.82750
G1 X134.56 Y141.23 E1347.01808
G0 F12000 X134.56 Y140.93
G0 X133.19 Y139.82
G0 X132.89 Y139.61
G1 F2400 X172.11 Y139.61 E1348.31935
G1 X172.11 Y165.39 E1349.17492
G1 X132.89 Y165.39 E1350.47619
G1 X132.89 Y139.61 E1351.33176
G0 F12000 X133.89 Y140.60
;LAYER:32
G0 X133.76 Y140.43 Z6.70
;TYPE:WALL-INNER
G1 F2400 X133.76 Y164.57 E1352.13252
G1 X171.24 Y164.57 E1353.37606
G1 X171.24 Y140.43 E1354.17682
G1 X133.76 Y140.43 E1355.42036
G0 F12000 X133.69 Y140.40
G1 F2400 X171.31 Y140.40 E1356.66867
G1 X171.31 Y164.60 E1357.47129
G1 X133.69 Y164.60 E1358.71961
G1 X133.69 Y140.40 E1359.52222
G0 F12000 X133.29 Y140.00
G1 F2400 X171.71 Y140.00 E1360.79702
G1 X171.71 Y165.00 E1361.62611
G1 X133.29 Y165.00 E1362.90090
G1 X133.29 Y140.00 E1363.73000
G0 F12000 X134.16 Y140.83
G1 F2400 X134.16 Y164.17 E1364.50428
G1 X170.84 Y164.17 E1365.72134
G1 X170.84 Y140.83 E1366.49563
G1 X134.16 Y140.83 E1367.71269
G0 F12000 X134.56 Y141.23
;TYPE:WALL-OUTER
G1 F2400 X134.56 Y163.77 E1368.46050
G1 X170.44 Y163.77 E1369.65109
G1 X170.44 Y141.23 E1370.39890
G1 X134.56 Y141.23 E1371.58949
G0 F12000 X134.56 Y140.93
G0 X133.19 Y139.82
G0 X132.89 Y139.61
G1 F2400 X172.11 Y139.61 E1372.89076
G1 X172.11 Y165.39 E1373.74633
G1 X132.89 Y165.39 E1375.04759
G1 X132.89 Y139.61 E1375.90316
G0 F12000 X133.89 Y140.60
;LAYER:33
G0 X133.76 Y140.43 Z6.90
;TYPE:WALL-INNER
G1 F2400 X133.76 Y164.57 E1376.70392
G1 X171.24 Y164.57 E1377.94746
G1 X171.24 Y140.43 E1378.74822
G1 X133.76 Y140.43 E1379.99176
G0 F12000 X133.69 Y140.40
G1 F2400 X171.31 Y140.40 E1381.24008
G1 X171.31 Y164.60 E1382.04270
G1 X133.69 Y164.60 E1383.29101
G1 X133.69 Y140.40 E1384.09363
G0 F12000 X133.29 Y140.00
G1 F2400 X171.71 Y140.00 E1385.36842
G1 X171.71 Y165.00 E1386.19752
G1 X133.29 Y165.00 E1387.47231
G1 X133.29 Y140.00 E1388.30140
G0 F12000 X134.16 Y140.83
G1 F2400 X134.16 Y164.17 E1389.07569
G1 X170.84 Y164.17 E1390.29275
G1 X170.84 Y140.83 E1391.06703
G1 X134.16 Y140.83 E1392.28410
G0 F12000 X134.56 Y141.23
;TYPE:WALL-OUTER
G1 F2400 X134.56 Y163.77 E1393.03191
G1 X170.44 Y163.77 E1394.22250
G1 X170.44 Y141.23 E1394.97031
G1 X134.56 Y141.23 E1396.16090
G0 F12000 X134.56 Y140.93
G0 X133.19 Y139.82
G0 X132.89 Y139.61
G1 F2400 X172.11 Y139.61 E1397.46216
G1 X172.11 Y165.39 E1398.31773
G1 X132.89 Y165.39 E1399.61900
G1 X132.89 Y139.61 E1400.47457
G0 F12000 X133.89 Y140.60
;LAYER:34
G0 X133.76 Y140.43 Z7.10
;TYPE:WALL-INNER
G1 F2400 X133.76 Y164.57 E1401.27533
G1 X171.24 Y164.57 E1402.51887
G1 X171.24 Y140.43 E1403.31963
G1 X133.76 Y140.43 E1404.56317
G0 F12000 X133.69 Y140.40
G1 F2400 X171.31 Y140.40 E1405.81148
G1 X171.31 Y164.60 E1406.61410
G1 X133.69 Y164.60 E1407.86242
G1 X133.69 Y140.40 E1408.66504
G0 F12000 X133.29 Y140.00
G1 F2400 X171.71 Y140.00 E1409.93983
G1 X171.71 Y165.00 E1410.76892
G1 X133.29 Y165.00 E1412.04371
G1 X133.29 Y140.00 E1412.87281
G0 F12000 X134.16 Y140.83
G1 F2400 X134.16 Y164.17 E1413.64709
G1 X170.84 Y164.17 E1414.86416
G1 X170.84 Y140.83 E1415.63844
G1 X134.16 Y140.83 E1416.85550
G0 F12000 X134.56 Y141.23
;TYPE:WALL-OUTER
G1 F2400 X134.56 Y163.77 E1417.60331
G1 X170.44 Y163.77 E1418.79390
G1 X170.44 Y141.23 E1419.54171
G1 X134.56 Y141.23 E1420.73230
G0 F12000 X134.56 Y140.93
G0 X133.19 Y139.82
G0 X132.89 Y139.61
G1 F2400 X172.11 Y139.61 E1422.03357
G1 X172.11 Y165.39 E1422.88914
G1 X132.89 Y165.39 E1424.19041
G1 X132.89 Y139.61 E1425.04597
G0 F12000 X133.89 Y140.60
;LAYER:35
G0 X133.76 Y140.43 Z7.30
;TYPE:WALL-INNER
G1 F2400 X133.76 Y164.57 E1425.84673
G1 X171.24 Y164.57 E1427.09027
G1 X171.24 Y140.43 E1427.89103
G1 X133.76 Y140.43 E1429.13457
G0 F12000 X133.69 Y140.40
G1 F2400 X171.31 Y140.40 E1430.38289
G1 X171.31 Y164.60 E1431.18551
G1 X133.69 Y164.60 E1432.43382
G1 X133.69 Y140.40 E1433.23644
G0 F12000 X133.29 Y140.00
G1 F2400 X171.71 Y140.00 E1434.51123
G1 X171.71 Y165.00 E1435.34033
G1 X133.29 Y165.00 E1436.61512
G1 X133.29 Y140.00 E1437.44421
G0 F12000 X134.16 Y140.83
G1 F2400 X134.16 Y164.17 E1438.21850
G1 X170.84 Y164.17 E1439.43556
G1 X170.84 Y140.83 E1440.20985
G1 X134.16 Y140.83 E1441.42691
G0 F12000 X134.56 Y141.23
;TYPE:WALL-OUTER
G1 F2400 X134.56 Y163.77 E1442.17472
G1 X170.44 Y163.77 E1443.36531
G1 X170.44 Y141.23 E1444.11312
G1 X134.56 Y141.23 E1445.30371
G0 F12000 X134.56 Y140.93
G0 X133.19 Y139.82
G0 X132.89 Y139.61
G1 F2400 X172.11 Y139.61 E1446.60498
G1 X172.11 Y165.39 E1447.46054
G1 X132.89 Y165.39 E1448.76181
G1 X132.89 Y139.61 E1449.61738
G0 F12000 X133.89 Y140.60
;LAYER:36
G0 X133.76 Y140.43 Z7.50
;TYPE:WALL-INNER
G1 F2400 X133.76 Y164.57 E1450.41814
G1 X171.24 Y164.57 E1451.66168
G1 X171.24 Y140.43 E1452.46244
G1 X133.76 Y140.43 E1453.70598
G0 F12000 X133.69 Y140.40
G1 F2400 X171.31 Y140.40 E1454.95430
G1 X171.31 Y164.60 E1455.75691
G1 X133.69 Y164.60 E1457.00523
G1 X133.69 Y140.40 E1457.80785
G0 F12000 X133.29 Y140.00
G1 F2400 X171.71 Y140.00 E1459.08264
G1 X171.71 Y165.00 E1459.91173
G1 X133.29 Y165.00 E1461.18653
G1 X133.29 Y140.00 E1462.01562
G0 F12000 X134.16 Y140.83
G1 F2400 X134.16 Y164.17 E1462.78990
G1 X170.84 Y164.17 E1464.00697
G1 X170.84 Y140.83 E1464.78125
G1 X134.16 Y140.83 E1465.99832
G0 F12000 X134.56 Y141.23
;TYPE:WALL-OUTER
G1 F2400 X134.56 Y163.77 E1466.74613
G1 X170.44 Y163.77 E1467.93671
G1 X170.44 Y141.23 E1468.68452
G1 X134.56 Y141.23 E1469.87511
G0 F12000 X134.56 Y140.93
G0 X133.19 Y139.82
G0 X132.89 Y139.61
G1 F2400 X172.11 Y139.61 E1471.17638
G1 X172.11 Y165.39 E1472.03195
G1 X132.89 Y165.39 E1473.33322
G1 X132.89 Y139.61 E1474.18878
G0 F12000 X133.89 Y140.60
M107
G1 F2400 E1472.98878
G0 F12000 X133.89 Y140.60 Z12.41
;-- END GCODE --
M104 S0     ;extruder heater off
M140 S0     ;heated bed heater off (if you have it)
G91         ;relative positioning
G1 E-1 F300   ;retract the filament a bit before lifting the nozzle, to release some of the pressure
G1 Z+0.5 E-5 X-20 Y-20 F12000 ;move Z up a bit and retract filament even more
G28 X0 Y0     ;move X/Y to min endstops, so the head is out of the way
M84           ;steppers off
G90           ;absolute positioning
;CURA_PROFILE_STRING:eNrtWk1v20gSvTLG/og+JthIS1LSOBmBh0liezBIZgYjLTbxhWiRLak3JJtoNi3Lhv77vmp+iJLlrDMxspOsdLDDYlV1VfWrV2VECV8LHS6FXCxN4PZ9Z8WTJDRLGX3MRFEEHkRaGM0jI1UWiozPEhFMdSmcQiUyDhPrYGvg9l84cwkfscgKadaB7zqZurlJRFjIG4H3QyfXMjNhkQsRB0O3fjQizYXmptQi8P0DUj84IBwcEg5b4UzEO45PXaco81xpE/yqMuHkCTdzpdOQx0tRIMPglZZpoxPGJU9CcW10Wb1TZumsZC5Co1ZCB+c8KURHEF6ppExF4I0cpW6Q8FKKJK7VUBSeCsQUS/w2MPf6p6O7YkrzjnBwSDjsCueJWgWe6/bd7n01Nd6V8lSVmdm/W5ts8+qH/qj7LpVZiIcrkcBq502k0pnMFhUkdi1kulM9BLFz3lLlJHNmyhiV7kBo4FhYueFKxmYZzmGhNGXnqNm/RQTsyOyjNVZXQic8t8FDgMpXYdaZ+27nhAqqdUlGjswsTqtnUpNZIYy7L7juCCKlEluLGvWSLnvozHnTGXHdGh8l0JPITKA+tp61aMHzYABH1VNTo0RkC7MEbOgMcjYvEVjblJWsioJq0D6FKb+2kjauOaSAOqKqhUvB0aNybmoUVk1rUPpOD1f1qSS2JnVVCchNK5h1LoK3yKhoRTxbgAsGbUuF1tYeP9oKr9cAbGF4FlHzn7bym66YDsql5glRRB2pTHOQRqriRjJDa3aLijvUfI4ycr2QWTAikNOzVSlyHhEuvUY644XYA9lWTiYWazZEKwd9CA3k7Rr5+y+7lvVLLjXdM55rQVHWuoSaIvBR5GvAX2sJyIRlZnuSaBc1DnlzD/erzFpK6eogDZWLLJxJUxxSQCcSJV+hNkaaaEnVqdTypEQBUVV0xCJoeiwSlGR4HfS8PdGaRFGpNREPoGLb+2+4TG36i4gubNzrscn0pz+m7OL1b2/OWK93Mp4kMhIxA92yKbJgP7F3nKIQBZsILfHLa5W4+ZHdxny9oZ9G4Bf12uZk/IoXMmJoS4Pwix/ZWyopq1oFJklnnG3Yv1Ax6NzuzrQNOwdOIe6OKbj+nSYGm1Bj4WVnRm3YpMIsxDV6of5Hy2StzT7xblhH6U2N9l29im/b0ynL9vA65fOa4hluOK7Crii/tk07olWV+aJjFanCdK3oeXPyznN/YBN/NHrCxvbi2EqaJTNLwUAvTGUnF77H6s8Y40aj7Fc8KUVxcvHSbd/wGSikNILlCmVERriWrXOrcp/7F7VvkA0zioksLsBLcO+/fPJkjCtTq8KihZdG9RIBVk/I+4XH3oMq2Qe4v/TQ9ez8tkv6GzaucMp4FrPKPc5tRj2L1Spj3ihNKc6XbHJ7Z3+Ah58FN2yqGEmRsM/O2py3n/GN0Mo6t1MuBnArKqcYzzF72Nlgz2xca7KBm6ZMzRkxNkPi0cfPP4bxBZdZVZDTEfvgU0UOlEMLW4VZuVgIbdWxYD1EzZaZflChDxl0Cj0TiyqWPTUHF9thhbNf32w5ARcwZBN3pzLUzZycqvkcCkO3VbByOijuqLCncs7WqmRLnMmkeYYyetvSaYFrB+ft4BNBnvUQ6MB1Kx3bjhU6m7bhDDyKswAZwWiAwtBqVMvsc4IsnAtMD1aoVNBdWphpUAwwRIdc/t3tj3DUiL3voeAfeoeqbmt+ycq8PpJq2UTURgPwZ4AyuUXfvIcvt9M97//xgcLBAtB20XMEZeOhBYDJgqnSNCGu+Prk3YthF2GFETnQX9iid/r73hYfo2sUwqNhgvZZbBzb5n5z0/+Nx+v3r9bsdan5waGAyd13HzQ2mO96Q3bhs4pEf6aUn/5SJmv74tlXmBpfjbfH7zzcTsNZe3/eAE3/zLCQW3sAgscxtQb6BIxHbdPRZbS4kDvqwIMUeL+rg25esql3yJP/p1y5Xx7Ulw2w021r3B1f1CTbPry3Ca3SZbdTL++qePcNsU9NrqnHDn7GkxWtdnQKWfrgkoZWv2SKee7hIeY96hCrzurdHv6bdHMydR+U9FzqwnxLae9ePCgFVG2xTyMnBffwBcZLxt6+fsOKSAuRAaDeacV20On3+zRkW+49w61fvMY/q/k6bSfoneAOj1yy8T7TZnj/IX9ibH/i85CJ/injb3bU35/U4+wAe04/sRHsaX7OfjB46H5wnNjHif19TWz//3FiH9eU45qyt6YM/pdrCtn4x9XmuNo8/mozPK42f6nVxn+81ea4JX21LWnwoNk5RNDf0cLwsNVw8H0lfVwNj6vh3mo4/NZWQ7IZHNfJ4zr5uOtk/Q2Z7hcqWuH2f1OrL/jsKFlJR0MLzNhI9KPiKnBwCRXNnNW4bBfWinxmwqzQmTbp+ssdLQfZC7AXDUkrfc5WSxi0nW6XibRMjMyTli500T8ZT5coKp1GxcV6Y1FuUUROp0+zZw5qYv5K8fE5NWAT3n8ACM4G4Q==
;CURA_PROFILE_STRING:eNrtWk1v20gSvTLG/og+JthIS1LSOBmBh0liezBIZgYjLTbxhWiRLak3JJtoNi3Lhv77vmp+iJLlrDMxspOsdLDDYlV1VfWrV2VECV8LHS6FXCxN4PZ9Z8WTJDRLGX3MRFEEHkRaGM0jI1UWiozPEhFMdSmcQiUyDhPrYGvg9l84cwkfscgKadaB7zqZurlJRFjIG4H3QyfXMjNhkQsRB0O3fjQizYXmptQi8P0DUj84IBwcEg5b4UzEO45PXaco81xpE/yqMuHkCTdzpdOQx0tRIMPglZZpoxPGJU9CcW10Wb1TZumsZC5Co1ZCB+c8KURHEF6ppExF4I0cpW6Q8FKKJK7VUBSeCsQUS/w2MPf6p6O7YkrzjnBwSDjsCueJWgWe6/bd7n01Nd6V8lSVmdm/W5ts8+qH/qj7LpVZiIcrkcBq502k0pnMFhUkdi1kulM9BLFz3lLlJHNmyhiV7kBo4FhYueFKxmYZzmGhNGXnqNm/RQTsyOyjNVZXQic8t8FDgMpXYdaZ+27nhAqqdUlGjswsTqtnUpNZIYy7L7juCCKlEluLGvWSLnvozHnTGXHdGh8l0JPITKA+tp61aMHzYABH1VNTo0RkC7MEbOgMcjYvEVjblJWsioJq0D6FKb+2kjauOaSAOqKqhUvB0aNybmoUVk1rUPpOD1f1qSS2JnVVCchNK5h1LoK3yKhoRTxbgAsGbUuF1tYeP9oKr9cAbGF4FlHzn7bym66YDsql5glRRB2pTHOQRqriRjJDa3aLijvUfI4ycr2QWTAikNOzVSlyHhEuvUY644XYA9lWTiYWazZEKwd9CA3k7Rr5+y+7lvVLLjXdM55rQVHWuoSaIvBR5GvAX2sJyIRlZnuSaBc1DnlzD/erzFpK6eogDZWLLJxJUxxSQCcSJV+hNkaaaEnVqdTypEQBUVV0xCJoeiwSlGR4HfS8PdGaRFGpNREPoGLb+2+4TG36i4gubNzrscn0pz+m7OL1b2/OWK93Mp4kMhIxA92yKbJgP7F3nKIQBZsILfHLa5W4+ZHdxny9oZ9G4Bf12uZk/IoXMmJoS4Pwix/ZWyopq1oFJklnnG3Yv1Ax6NzuzrQNOwdOIe6OKbj+nSYGm1Bj4WVnRm3YpMIsxDV6of5Hy2StzT7xblhH6U2N9l29im/b0ynL9vA65fOa4hluOK7Crii/tk07olWV+aJjFanCdK3oeXPyznN/YBN/NHrCxvbi2EqaJTNLwUAvTGUnF77H6s8Y40aj7Fc8KUVxcvHSbd/wGSikNILlCmVERriWrXOrcp/7F7VvkA0zioksLsBLcO+/fPJkjCtTq8KihZdG9RIBVk/I+4XH3oMq2Qe4v/TQ9ez8tkv6GzaucMp4FrPKPc5tRj2L1Spj3ihNKc6XbHJ7Z3+Ah58FN2yqGEmRsM/O2py3n/GN0Mo6t1MuBnArKqcYzzF72Nlgz2xca7KBm6ZMzRkxNkPi0cfPP4bxBZdZVZDTEfvgU0UOlEMLW4VZuVgIbdWxYD1EzZaZflChDxl0Cj0TiyqWPTUHF9thhbNf32w5ARcwZBN3pzLUzZycqvkcCkO3VbByOijuqLCncs7WqmRLnMmkeYYyetvSaYFrB+ft4BNBnvUQ6MB1Kx3bjhU6m7bhDDyKswAZwWiAwtBqVMvsc4IsnAtMD1aoVNBdWphpUAwwRIdc/t3tj3DUiL3voeAfeoeqbmt+ycq8PpJq2UTURgPwZ4AyuUXfvIcvt9M97//xgcLBAtB20XMEZeOhBYDJgqnSNCGu+Prk3YthF2GFETnQX9iid/r73hYfo2sUwqNhgvZZbBzb5n5z0/+Nx+v3r9bsdan5waGAyd13HzQ2mO96Q3bhs4pEf6aUn/5SJmv74tlXmBpfjbfH7zzcTsNZe3/eAE3/zLCQW3sAgscxtQb6BIxHbdPRZbS4kDvqwIMUeL+rg25esql3yJP/p1y5Xx7Ulw2w021r3B1f1CTbPry3Ca3SZbdTL++qePcNsU9NrqnHDn7GkxWtdnQKWfrgkoZWv2SKee7hIeY96hCrzurdHv6bdHMydR+U9FzqwnxLae9ePCgFVG2xTyMnBffwBcZLxt6+fsOKSAuRAaDeacV20On3+zRkW+49w61fvMY/q/k6bSfoneAOj1yy8T7TZnj/IX9ibH/i85CJ/injb3bU35/U4+wAe04/sRHsaX7OfjB46H5wnNjHif19TWz//3FiH9eU45qyt6YM/pdrCtn4x9XmuNo8/mozPK42f6nVxn+81ea4JX21LWnwoNk5RNDf0cLwsNVw8H0lfVwNj6vh3mo4/NZWQ7IZHNfJ4zr5uOtk/Q2Z7hcqWuH2f1OrL/jsKFlJR0MLzNhI9KPiKnBwCRXNnNW4bBfWinxmwqzQmTbp+ssdLQfZC7AXDUkrfc5WSxi0nW6XibRMjMyTli500T8ZT5coKp1GxcV6Y1FuUUROp0+zZw5qYv5K8fE5NWAT3n8ACM4G4Q==

