;-- START GCODE --
;Sliced for Type A Machines Series 1
;Sliced at: Mon 31-10-2016 00:13:50
;Basic settings: Layer height: 0.2 Walls: 1.4 Fill: 100
;Print Speed: 30 Support: 0
;Retraction Speed: 40 Retraction Distance: 1.2
;Print time: #P_TIME#
;Filament used: #F_AMNT#m #F_WGHT#g
;Filament cost: #F_COST#
M106 S255	 ;start with the fan on
G21        ;metric values
G90        ;absolute positioning
M106 S255    ;start with the fan on
G28     ;move to endstops
G29		;allows for auto-levelling
G1 X150 Y5  Z15.0 F12000 ;center and move the platform down 15mm
M109 S220 ;Heat To temp
G92 E0                  ;zero the extruded length
G1 F200 E30              ;extrude 30mm of feed stock
G92 E0                  ;zero the extruded length again
G1 X175 Y25  Z0 F12000 ;remove bugger
G1 X220 F12000 ;remove bugger
G1 X150 Y150  Z15 F12000 ;recenter and begin
G1 F12000

;Layer count: 120
;LAYER:0
M106 S255
G0 F12000 X190.83 Y109.30 Z0.30
;TYPE:SKIRT
G1 F1800 X238.99 Y109.30 E2.79881
G1 X238.99 Y111.30 E2.91506
G1 X270.99 Y111.30 E4.77496
G1 X270.99 Y121.30 E5.35618
G1 X272.99 Y121.30 E5.47243
G1 X272.99 Y187.45 E9.31738
G1 X256.99 Y187.45 E10.24733
G1 X256.99 Y195.45 E10.71231
G1 X246.99 Y195.45 E11.29353
G1 X246.99 Y197.45 E11.40977
G1 X198.83 Y197.45 E14.20858
G1 X198.83 Y185.45 E14.90605
G1 X178.83 Y185.45 E16.06849
G1 X178.83 Y137.30 E18.86730
G1 X180.83 Y137.30 E18.98355
G1 X180.83 Y127.30 E19.56471
G1 X188.83 Y127.30 E20.02968
G1 X188.83 Y119.30 E20.49466
G1 X190.83 Y119.30 E20.61091
G1 X190.83 Y109.30 E21.19213
G0 F12000 X191.30 Y109.77
G1 F1800 X238.52 Y109.77 E23.93677
G1 X238.52 Y111.77 E24.05301
G1 X270.52 Y111.77 E25.91292
G1 X270.52 Y121.77 E26.49414
G1 X272.52 Y121.77 E26.61038
G1 X272.52 Y186.99 E30.40116
G1 X256.52 Y186.99 E31.33112
G1 X256.52 Y194.99 E31.79609
G1 X246.52 Y194.99 E32.37731
G1 X246.52 Y196.99 E32.49356
G1 X199.30 Y196.99 E35.23820
G1 X199.30 Y184.99 E35.93567
G1 X179.30 Y184.99 E37.09811
G1 X179.30 Y137.76 E39.84275
G1 X181.30 Y137.76 E39.95899
G1 X181.30 Y127.77 E40.54015
G1 X189.30 Y127.77 E41.00513
G1 X189.30 Y119.77 E41.47011
G1 X191.30 Y119.77 E41.58635
G1 X191.30 Y109.77 E42.16757
G0 F12000 X191.76 Y110.23
G1 F1800 X238.06 Y110.23 E44.85804
G1 X238.06 Y112.23 E44.97429
G1 X270.06 Y112.23 E46.83420
G1 X270.06 Y122.23 E47.41542
G1 X272.06 Y122.23 E47.53166
G1 X272.06 Y186.52 E51.26827
G1 X256.06 Y186.52 E52.19822
G1 X256.06 Y194.52 E52.66320
G1 X246.06 Y194.52 E53.24442
G1 X246.06 Y196.52 E53.36067
G1 X199.76 Y196.52 E56.05114
G1 X199.76 Y184.52 E56.74860
G1 X179.76 Y184.52 E57.91104
G1 X179.76 Y138.23 E60.60152
G1 X181.76 Y138.23 E60.71776
G1 X181.76 Y128.23 E61.29892
G1 X189.76 Y128.23 E61.76390
G1 X189.76 Y120.23 E62.22888
G1 X191.76 Y120.23 E62.34512
G1 X191.76 Y110.23 E62.92634
G0 F12000 X192.23 Y110.70
G1 F1800 X237.59 Y110.70 E65.56264
G1 X237.59 Y112.70 E65.67889
G1 X269.59 Y112.70 E67.53879
G1 X269.59 Y122.70 E68.12001
G1 X271.59 Y122.70 E68.23626
G1 X271.59 Y186.06 E71.91870
G1 X255.59 Y186.06 E72.84865
G1 X255.59 Y194.06 E73.31363
G1 X245.59 Y194.06 E73.89485
G1 X245.59 Y196.06 E74.01110
G1 X200.23 Y196.06 E76.64740
G1 X200.23 Y184.06 E77.34486
G1 X180.23 Y184.06 E78.50730
G1 X180.23 Y138.70 E81.14360
G1 X182.23 Y138.70 E81.25985
G1 X182.23 Y128.70 E81.84101
G1 X190.23 Y128.70 E82.30599
G1 X190.23 Y120.70 E82.77097
G1 X192.23 Y120.70 E82.88721
G1 X192.23 Y110.70 E83.46843
G0 F12000 X192.70 Y111.16
G1 F1800 X237.12 Y111.16 E86.05056
G1 X237.12 Y113.16 E86.16681
G1 X269.12 Y113.16 E88.02671
G1 X269.12 Y123.16 E88.60793
G1 X271.12 Y123.16 E88.72418
G1 X271.12 Y185.59 E92.35245
G1 X255.12 Y185.59 E93.28240
G1 X255.12 Y193.59 E93.74738
G1 X245.12 Y193.59 E94.32860
G1 X245.12 Y195.59 E94.44484
G1 X200.70 Y195.59 E97.02698
G1 X200.70 Y183.59 E97.72444
G1 X180.70 Y183.59 E98.88688
G1 X180.70 Y139.16 E101.46901
G1 X182.70 Y139.16 E101.58526
G1 X182.70 Y129.16 E102.16642
G1 X190.70 Y129.16 E102.63140
G1 X190.70 Y121.16 E103.09637
G1 X192.70 Y121.16 E103.21262
G1 X192.70 Y111.16 E103.79384
G0 F12000 X193.16 Y111.63
G1 F1800 X236.66 Y111.63 E106.32180
G1 X236.66 Y113.63 E106.43805
G1 X268.66 Y113.63 E108.29795
G1 X268.66 Y123.63 E108.87917
G1 X270.66 Y123.63 E108.99542
G1 X270.66 Y185.12 E112.56952
G1 X254.66 Y185.12 E113.49947
G1 X254.66 Y193.12 E113.96445
G1 X244.66 Y193.12 E114.54567
G1 X244.66 Y195.12 E114.66191
G1 X201.16 Y195.12 E117.18988
G1 X201.16 Y183.12 E117.88734
G1 X181.16 Y183.12 E119.04978
G1 X181.16 Y139.63 E121.57775
G1 X183.16 Y139.63 E121.69399
G1 X183.16 Y129.63 E122.27515
G1 X191.16 Y129.63 E122.74013
G1 X191.16 Y121.63 E123.20511
G1 X193.16 Y121.63 E123.32135
G1 X193.16 Y111.63 E123.90257
G0 F12000 X193.63 Y112.10
G1 F1800 X236.19 Y112.10 E126.37636
G1 X236.19 Y114.10 E126.49261
G1 X268.19 Y114.10 E128.35251
G1 X268.19 Y124.10 E128.93373
G1 X270.19 Y124.10 E129.04998
G1 X270.19 Y184.66 E132.56991
G1 X254.19 Y184.66 E133.49986
G1 X254.19 Y192.66 E133.96484
G1 X244.19 Y192.66 E134.54606
G1 X244.19 Y194.66 E134.66231
G1 X201.63 Y194.66 E137.13610
G1 X201.63 Y182.66 E137.83356
G1 X181.63 Y182.66 E138.99600
G1 X181.63 Y140.09 E141.46980
G1 X183.63 Y140.09 E141.58604
G1 X183.63 Y130.10 E142.16720
G1 X191.63 Y130.10 E142.63218
G1 X191.63 Y122.10 E143.09716
G1 X193.63 Y122.10 E143.21340
G1 X193.63 Y112.10 E143.79462
G0 F12000 X194.09 Y112.56
G1 F1800 X235.72 Y112.56 E146.21424
G1 X235.72 Y114.56 E146.33049
G1 X267.73 Y114.56 E148.19040
G1 X267.73 Y124.56 E148.77162
G1 X269.73 Y124.56 E148.88786
G1 X269.73 Y184.19 E152.35362
G1 X253.72 Y184.19 E153.28358
G1 X253.72 Y192.19 E153.74855
G1 X243.72 Y192.19 E154.32977
G1 X243.72 Y194.19 E154.44602
G1 X202.09 Y194.19 E156.86564
G1 X202.09 Y182.19 E157.56310
G1 X182.09 Y182.19 E158.72555
G1 X182.09 Y140.56 E161.14517
G1 X184.09 Y140.56 E161.26141
G1 X184.09 Y130.56 E161.84258
G1 X192.09 Y130.56 E162.30755
G1 X192.09 Y122.56 E162.77253
G1 X194.09 Y122.56 E162.88877
G1 X194.09 Y112.56 E163.46999
G0 F12000 X194.56 Y113.03
G1 F1800 X235.26 Y113.03 E165.83545
G1 X235.26 Y115.03 E165.95169
G1 X267.26 Y115.03 E167.81160
G1 X267.26 Y125.03 E168.39282
G1 X269.26 Y125.03 E168.50906
G1 X269.26 Y183.72 E171.92065
G1 X253.26 Y183.72 E172.85061
G1 X253.26 Y191.72 E173.31559
G1 X243.26 Y191.72 E173.89681
G1 X243.26 Y193.72 E174.01305
G1 X202.56 Y193.72 E176.37850
G1 X202.56 Y181.72 E177.07597
G1 X182.56 Y181.72 E178.23841
G1 X182.56 Y141.03 E180.60386
G1 X184.56 Y141.03 E180.72011
G1 X184.56 Y131.03 E181.30127
G1 X192.56 Y131.03 E181.76625
G1 X192.56 Y123.03 E182.23122
G1 X194.56 Y123.03 E182.34747
G1 X194.56 Y113.03 E182.92869
G0 F12000 X195.03 Y113.49
G1 F1800 X234.79 Y113.49 E185.23997
G1 X234.79 Y115.49 E185.35621
G1 X266.79 Y115.49 E187.21612
G1 X266.79 Y125.49 E187.79734
G1 X268.79 Y125.49 E187.91359
G1 X268.79 Y183.26 E191.27101
G1 X252.79 Y183.26 E192.20096
G1 X252.79 Y191.26 E192.66594
G1 X242.79 Y191.26 E193.24716
G1 X242.79 Y193.26 E193.36340
G1 X203.03 Y193.26 E195.67469
G1 X203.03 Y181.26 E196.37215
G1 X183.03 Y181.26 E197.53459
G1 X183.03 Y141.49 E199.84588
G1 X185.03 Y141.49 E199.96212
G1 X185.03 Y131.49 E200.54328
G1 X193.03 Y131.49 E201.00826
G1 X193.03 Y123.49 E201.47324
G1 X195.03 Y123.49 E201.58948
G1 X195.03 Y113.49 E202.17070
G0 F12000 X195.49 Y113.96
G1 F1800 X234.33 Y113.96 E204.42781
G1 X234.33 Y115.96 E204.54406
G1 X266.33 Y115.96 E206.40397
G1 X266.33 Y125.96 E206.98519
G1 X268.33 Y125.96 E207.10143
G1 X268.33 Y182.79 E210.40468
G1 X252.33 Y182.79 E211.33464
G1 X252.33 Y190.79 E211.79961
G1 X242.33 Y190.79 E212.38083
G1 X242.33 Y192.79 E212.49708
G1 X203.49 Y192.79 E214.75419
G1 X203.49 Y180.79 E215.45166
G1 X183.49 Y180.79 E216.61410
G1 X183.49 Y141.96 E218.87121
G1 X185.49 Y141.96 E218.98746
G1 X185.49 Y131.96 E219.56862
G1 X193.49 Y131.96 E220.03359
G1 X193.49 Y123.96 E220.49857
G1 X195.49 Y123.96 E220.61482
G1 X195.49 Y113.96 E221.19604
G0 F12000 X195.96 Y114.43
G1 F1800 X233.86 Y114.43 E223.39898
G1 X233.86 Y116.43 E223.51522
G1 X265.86 Y116.43 E225.37513
G1 X265.86 Y126.43 E225.95635
G1 X267.86 Y126.43 E226.07260
G1 X267.86 Y182.33 E229.32168
G1 X251.86 Y182.33 E230.25163
G1 X251.86 Y190.33 E230.71661
G1 X241.86 Y190.33 E231.29783
G1 X241.86 Y192.33 E231.41407
G1 X203.96 Y192.33 E233.61702
G1 X203.96 Y180.33 E234.31448
G1 X183.96 Y180.33 E235.47692
G1 X183.96 Y142.43 E237.67987
G1 X185.96 Y142.43 E237.79611
G1 X185.96 Y132.43 E238.37727
G1 X193.96 Y132.43 E238.84225
G1 X193.96 Y124.43 E239.30723
G1 X195.96 Y124.43 E239.42347
G1 X195.96 Y114.43 E240.00469
G0 F12000 X196.43 Y114.89
G1 F1800 X233.40 Y114.89 E242.15347
G1 X233.40 Y116.89 E242.26971
G1 X265.39 Y116.89 E244.12962
G1 X265.39 Y126.89 E244.71084
G1 X267.39 Y126.89 E244.82708
G1 X267.39 Y181.86 E248.02199
G1 X251.40 Y181.86 E248.95195
G1 X251.40 Y189.86 E249.41692
G1 X241.40 Y189.86 E249.99815
G1 X241.40 Y191.86 E250.11439
G1 X204.43 Y191.86 E252.26316
G1 X204.43 Y179.86 E252.96063
G1 X184.43 Y179.86 E254.12307
G1 X184.43 Y142.89 E256.27184
G1 X186.43 Y142.89 E256.38809
G1 X186.43 Y132.89 E256.96925
G1 X194.43 Y132.89 E257.43423
G1 X194.43 Y124.89 E257.89920
G1 X196.43 Y124.89 E258.01545
G1 X196.43 Y114.89 E258.59667
G0 F12000 X196.89 Y115.36
G1 F1800 X232.93 Y115.36 E260.69127
G1 X232.93 Y117.36 E260.80752
G1 X264.93 Y117.36 E262.66742
G1 X264.93 Y127.36 E263.24864
G1 X266.93 Y127.36 E263.36489
G1 X266.93 Y181.40 E266.50563
G1 X250.93 Y181.40 E267.43558
G1 X250.93 Y189.40 E267.90056
G1 X240.93 Y189.40 E268.48178
G1 X240.93 Y191.40 E268.59803
G1 X204.89 Y191.40 E270.69263
G1 X204.89 Y179.40 E271.39010
G1 X184.89 Y179.40 E272.55254
G1 X184.89 Y143.36 E274.64714
G1 X186.89 Y143.36 E274.76339
G1 X186.89 Y133.36 E275.34455
G1 X194.89 Y133.36 E275.80952
G1 X194.89 Y125.36 E276.27450
G1 X196.89 Y125.36 E276.39075
G1 X196.89 Y115.36 E276.97197
G0 F12000 X197.36 Y115.82
G1 F1800 X232.46 Y115.82 E279.01240
G1 X232.46 Y117.82 E279.12864
G1 X264.46 Y117.82 E280.98855
G1 X264.46 Y127.82 E281.56977
G1 X266.46 Y127.82 E281.68602
G1 X266.46 Y180.93 E284.77259
G1 X250.46 Y180.93 E285.70254
G1 X250.46 Y188.93 E286.16752
G1 X240.46 Y188.93 E286.74874
G1 X240.46 Y190.93 E286.86498
G1 X205.36 Y190.93 E288.90542
G1 X205.36 Y178.93 E289.60288
G1 X185.36 Y178.93 E290.76533
G1 X185.36 Y143.82 E292.80576
G1 X187.36 Y143.82 E292.92200
G1 X187.36 Y133.82 E293.50317
G1 X195.36 Y133.82 E293.96814
G1 X195.36 Y125.82 E294.43312
G1 X197.36 Y125.82 E294.54936
G1 X197.36 Y115.82 E295.13058
G0 F12000 X197.82 Y116.29
G1 F1800 X232.00 Y116.29 E297.11685
G1 X232.00 Y118.29 E297.23309
G1 X264.00 Y118.29 E299.09300
G1 X264.00 Y128.29 E299.67422
G1 X266.00 Y128.29 E299.79046
G1 X266.00 Y180.46 E302.82287
G1 X250.00 Y180.46 E303.75282
G1 X250.00 Y188.46 E304.21780
G1 X240.00 Y188.46 E304.79902
G1 X240.00 Y190.46 E304.91526
G1 X205.82 Y190.46 E306.90153
G1 X205.82 Y178.46 E307.59899
G1 X185.82 Y178.46 E308.76143
G1 X185.82 Y144.29 E310.74770
G1 X187.82 Y144.29 E310.86394
G1 X187.82 Y134.29 E311.44511
G1 X195.82 Y134.29 E311.91008
G1 X195.82 Y126.29 E312.37506
G1 X197.82 Y126.29 E312.49130
G1 X197.82 Y116.29 E313.07252
G0 F12000 X198.29 Y116.76
G1 F1800 X231.53 Y116.76 E315.00462
G1 X231.53 Y118.76 E315.12086
G1 X263.53 Y118.76 E316.98077
G1 X263.53 Y128.76 E317.56199
G1 X265.53 Y128.76 E317.67823
G1 X265.53 Y180.00 E320.65647
G1 X249.53 Y180.00 E321.58642
G1 X249.53 Y188.00 E322.05140
G1 X239.53 Y188.00 E322.63262
G1 X239.53 Y190.00 E322.74886
G1 X206.29 Y190.00 E324.68096
G1 X206.29 Y178.00 E325.37842
G1 X186.29 Y178.00 E326.54086
G1 X186.29 Y144.75 E328.47296
G1 X188.29 Y144.75 E328.58920
G1 X188.29 Y134.76 E329.17037
G1 X196.29 Y134.76 E329.63534
G1 X196.29 Y126.76 E330.10032
G1 X198.29 Y126.76 E330.21656
G1 X198.29 Y116.76 E330.79778
G0 F12000 X198.75 Y117.22
G1 F1800 X231.06 Y117.22 E332.67571
G1 X231.06 Y119.22 E332.79195
G1 X263.06 Y119.22 E334.65186
G1 X263.06 Y129.22 E335.23308
G1 X265.06 Y129.22 E335.34932
G1 X265.06 Y179.53 E338.27339
G1 X249.06 Y179.53 E339.20334
G1 X249.06 Y187.53 E339.66832
G1 X239.06 Y187.53 E340.24954
G1 X239.06 Y189.53 E340.36578
G1 X206.75 Y189.53 E342.24371
G1 X206.75 Y177.53 E342.94117
G1 X186.75 Y177.53 E344.10361
G1 X186.75 Y145.22 E345.98154
G1 X188.75 Y145.22 E346.09778
G1 X188.75 Y135.22 E346.67895
G1 X196.75 Y135.22 E347.14392
G1 X196.75 Y127.22 E347.60890
G1 X198.75 Y127.22 E347.72514
G1 X198.75 Y117.22 E348.30636
G0 F12000 X199.22 Y117.69
G1 F1800 X230.60 Y117.69 E350.13012
G1 X230.60 Y119.69 E350.24636
G1 X262.60 Y119.69 E352.10627
G1 X262.60 Y129.69 E352.68749
G1 X264.60 Y129.69 E352.80374
G1 X264.60 Y179.06 E355.67363
G1 X248.60 Y179.06 E356.60358
G1 X248.60 Y187.06 E357.06856
G1 X238.60 Y187.06 E357.64978
G1 X238.60 Y189.06 E357.76602
G1 X207.22 Y189.06 E359.58978
G1 X207.22 Y177.06 E360.28724
G1 X187.22 Y177.06 E361.44969
G1 X187.22 Y145.69 E363.27344
G1 X189.22 Y145.69 E363.38969
G1 X189.22 Y135.69 E363.97085
G1 X197.22 Y135.69 E364.43582
G1 X197.22 Y127.69 E364.90080
G1 X199.22 Y127.69 E365.01705
G1 X199.22 Y117.69 E365.59827
G0 F12000 X199.69 Y118.15
G1 F1800 X230.13 Y118.15 E367.36785
G1 X230.13 Y120.15 E367.48410
G1 X262.13 Y120.15 E369.34400
G1 X262.13 Y130.15 E369.92522
G1 X264.13 Y130.15 E370.04147
G1 X264.13 Y178.60 E372.85719
G1 X248.13 Y178.60 E373.78715
G1 X248.13 Y186.60 E374.25212
G1 X238.13 Y186.60 E374.83334
G1 X238.13 Y188.60 E374.94959
G1 X207.69 Y188.60 E376.71917
G1 X207.69 Y176.60 E377.41664
G1 X187.69 Y176.60 E378.57908
G1 X187.69 Y146.15 E380.34866
G1 X189.69 Y146.15 E380.46491
G1 X189.69 Y136.15 E381.04607
G1 X197.69 Y136.15 E381.51105
G1 X197.69 Y128.15 E381.97602
G1 X199.69 Y128.15 E382.09227
G1 X199.69 Y118.15 E382.67349
G0 F12000 X200.15 Y118.62
G1 F1800 X229.67 Y118.62 E384.38890
G1 X229.67 Y120.62 E384.50515
G1 X261.67 Y120.62 E386.36506
G1 X261.67 Y130.62 E386.94628
G1 X263.67 Y130.62 E387.06252
G1 X263.67 Y178.13 E389.82408
G1 X247.67 Y178.13 E390.75403
G1 X247.67 Y186.13 E391.21901
G1 X237.67 Y186.13 E391.80023
G1 X237.67 Y188.13 E391.91647
G1 X208.15 Y188.13 E393.63189
G1 X208.15 Y176.13 E394.32935
G1 X188.15 Y176.13 E395.49179
G1 X188.15 Y146.62 E397.20721
G1 X190.15 Y146.62 E397.32345
G1 X190.15 Y136.62 E397.90461
G1 X198.15 Y136.62 E398.36959
G1 X198.15 Y128.62 E398.83457
G1 X200.15 Y128.62 E398.95081
G1 X200.15 Y118.62 E399.53203
G0 F12000 X200.62 Y119.09
G1 F1800 X229.20 Y119.09 E401.19328
G1 X229.20 Y121.09 E401.30952
G1 X261.20 Y121.09 E403.16943
G1 X261.20 Y131.09 E403.75065
G1 X263.20 Y131.09 E403.86689
G1 X263.20 Y177.67 E406.57428
G1 X247.20 Y177.67 E407.50423
G1 X247.20 Y185.67 E407.96921
G1 X237.20 Y185.67 E408.55043
G1 X237.20 Y187.67 E408.66667
G1 X208.62 Y187.67 E410.32792
G1 X208.62 Y175.67 E411.02538
G1 X188.62 Y175.67 E412.18783
G1 X188.62 Y147.09 E413.84907
G1 X190.62 Y147.09 E413.96532
G1 X190.62 Y137.09 E414.54648
G1 X198.62 Y137.09 E415.01146
G1 X198.62 Y129.09 E415.47643
G1 X200.62 Y129.09 E415.59268
G1 X200.62 Y119.09 E416.17390
G0 F12000 X201.09 Y119.55
G1 F1800 X228.74 Y119.55 E417.78097
G1 X228.74 Y121.55 E417.89722
G1 X260.74 Y121.55 E419.75712
G1 X260.74 Y131.55 E420.33834
G1 X262.74 Y131.55 E420.45459
G1 X262.74 Y177.20 E423.10780
G1 X246.74 Y177.20 E424.03776
G1 X246.74 Y185.20 E424.50273
G1 X236.74 Y185.20 E425.08395
G1 X236.74 Y187.20 E425.20020
G1 X209.09 Y187.20 E426.80727
G1 X209.09 Y175.20 E427.50474
G1 X189.09 Y175.20 E428.66718
G1 X189.09 Y147.55 E430.27426
G1 X191.09 Y147.55 E430.39050
G1 X191.09 Y137.55 E430.97166
G1 X199.09 Y137.55 E431.43664
G1 X199.09 Y129.55 E431.90162
G1 X201.09 Y129.55 E432.01786
G1 X201.09 Y119.55 E432.59908
G0 F12000 X201.55 Y120.02
G1 F1800 X228.27 Y120.02 E434.15199
G1 X228.27 Y122.02 E434.26823
G1 X260.27 Y122.02 E436.12814
G1 X260.27 Y132.02 E436.70936
G1 X262.27 Y132.02 E436.82560
G1 X262.27 Y176.74 E439.42465
G1 X246.27 Y176.74 E440.35460
G1 X246.27 Y184.74 E440.81958
G1 X236.27 Y184.74 E441.40080
G1 X236.27 Y186.74 E441.51704
G1 X209.55 Y186.74 E443.06995
G1 X209.55 Y174.74 E443.76742
G1 X189.55 Y174.74 E444.92986
G1 X189.55 Y148.02 E446.48276
G1 X191.55 Y148.02 E446.59901
G1 X191.55 Y138.02 E447.18017
G1 X199.55 Y138.02 E447.64515
G1 X199.55 Y130.02 E448.11012
G1 X201.55 Y130.02 E448.22637
G1 X201.55 Y120.02 E448.80759
G0 F12000 X202.02 Y120.48
G1 F1800 X227.80 Y120.48 E450.30632
G1 X227.80 Y122.48 E450.42257
G1 X259.80 Y122.48 E452.28248
G1 X259.80 Y132.48 E452.86370
G1 X261.80 Y132.48 E452.97994
G1 X261.80 Y176.27 E455.52482
G1 X245.80 Y176.27 E456.45477
G1 X245.80 Y184.27 E456.91975
G1 X235.80 Y184.27 E457.50097
G1 X235.80 Y186.27 E457.61721
G1 X210.02 Y186.27 E459.11595
G1 X210.02 Y174.27 E459.81341
G1 X190.02 Y174.27 E460.97585
G1 X190.02 Y148.48 E462.47459
G1 X192.02 Y148.48 E462.59083
G1 X192.02 Y138.48 E463.17200
G1 X200.02 Y138.48 E463.63697
G1 X200.02 Y130.48 E464.10195
G1 X202.02 Y130.48 E464.21819
G1 X202.02 Y120.48 E464.79942
G0 F12000 X202.48 Y120.95
G1 F1800 X227.34 Y120.95 E466.24398
G1 X227.34 Y122.95 E466.36023
G1 X259.34 Y122.95 E468.22013
G1 X259.34 Y132.95 E468.80135
G1 X261.34 Y132.95 E468.91760
G1 X261.34 Y175.80 E471.40830
G1 X245.34 Y175.80 E472.33826
G1 X245.34 Y183.80 E472.80323
G1 X235.34 Y183.80 E473.38445
G1 X235.34 Y185.80 E473.50070
G1 X210.48 Y185.80 E474.94527
G1 X210.48 Y173.80 E475.64273
G1 X190.48 Y173.80 E476.80517
G1 X190.48 Y148.95 E478.24974
G1 X192.48 Y148.95 E478.36598
G1 X192.48 Y138.95 E478.94715
G1 X200.48 Y138.95 E479.41212
G1 X200.48 Y130.95 E479.87710
G1 X202.48 Y130.95 E479.99334
G1 X202.48 Y120.95 E480.57456
G0 F12000 X202.95 Y121.42
G1 F1800 X226.87 Y121.42 E481.96496
G1 X226.87 Y139.42 E483.01116
G1 X226.95 Y139.42 E483.01569
G1 X226.95 Y123.42 E483.94564
G1 X258.87 Y123.42 E485.80102
G1 X258.87 Y133.42 E486.38224
G1 X260.87 Y133.42 E486.49848
G1 X260.87 Y175.34 E488.93502
G1 X244.87 Y175.34 E489.86497
G1 X244.87 Y183.34 E490.32995
G1 X234.87 Y183.34 E490.91117
G1 X234.87 Y185.34 E491.02741
G1 X210.95 Y185.34 E492.41781
G1 X210.95 Y173.34 E493.11528
G1 X190.95 Y173.34 E494.27772
G1 X190.95 Y149.41 E495.66811
G1 X192.95 Y149.41 E495.78436
G1 X192.95 Y139.42 E496.36552
G1 X200.95 Y139.42 E496.83050
G1 X200.95 Y131.42 E497.29547
G1 X202.95 Y131.42 E497.41172
G1 X202.95 Y121.42 E497.99294
G0 F12000 X203.41 Y121.88
G1 F1800 X226.41 Y121.88 E499.32917
G1 X226.41 Y139.88 E500.37536
G1 X227.41 Y139.88 E500.43407
G1 X227.41 Y123.88 E501.36402
G1 X258.40 Y123.88 E503.16522
G1 X258.40 Y133.88 E503.74644
G1 X260.40 Y133.88 E503.86269
G1 X260.40 Y174.87 E506.24505
G1 X244.41 Y174.87 E507.17501
G1 X244.41 Y182.87 E507.63998
G1 X234.41 Y182.87 E508.22121
G1 X234.41 Y184.87 E508.33745
G1 X211.41 Y184.87 E509.67368
G1 X211.41 Y172.87 E510.37114
G1 X191.41 Y172.87 E511.53358
G1 X191.41 Y149.88 E512.86981
G1 X193.41 Y149.88 E512.98605
G1 X193.41 Y139.88 E513.56722
G1 X201.41 Y139.88 E514.03219
G1 X201.41 Y131.88 E514.49717
G1 X203.41 Y131.88 E514.61341
G1 X203.41 Y121.88 E515.19464
G0 F12000 X203.88 Y122.35
G1 F1800 X225.94 Y122.35 E516.47669
G1 X225.94 Y140.35 E517.52289
G1 X227.88 Y140.35 E517.63576
G1 X227.88 Y124.35 E518.56572
G1 X257.94 Y124.35 E520.31275
G1 X257.94 Y134.35 E520.89397
G1 X259.94 Y134.35 E521.01021
G1 X259.94 Y174.41 E523.33841
G1 X243.94 Y174.41 E524.26836
G1 X243.94 Y182.41 E524.73334
G1 X233.94 Y182.41 E525.31456
G1 X233.94 Y184.41 E525.43081
G1 X211.88 Y184.41 E526.71286
G1 X211.88 Y172.41 E527.41033
G1 X191.88 Y172.41 E528.57277
G1 X191.88 Y150.35 E529.85483
G1 X193.88 Y150.35 E529.97107
G1 X193.88 Y140.35 E530.55223
G1 X201.88 Y140.35 E531.01721
G1 X201.88 Y132.35 E531.48219
G1 X203.88 Y132.35 E531.59843
G1 X203.88 Y122.35 E532.17965
G0 F12000 X204.35 Y122.81
G1 F1800 X225.47 Y122.81 E533.40754
G1 X225.47 Y140.81 E534.45374
G1 X228.35 Y140.81 E534.62078
G1 X228.35 Y124.81 E535.55073
G1 X257.47 Y124.81 E537.24360
G1 X257.47 Y134.81 E537.82482
G1 X259.47 Y134.81 E537.94106
G1 X259.47 Y173.94 E540.21509
G1 X243.47 Y173.94 E541.14504
G1 X243.47 Y181.94 E541.61002
G1 X233.47 Y181.94 E542.19124
G1 X233.47 Y183.94 E542.30748
G1 X212.35 Y183.94 E543.53537
G1 X212.35 Y171.94 E544.23284
G1 X192.35 Y171.94 E545.39528
G1 X192.35 Y150.81 E546.62317
G1 X194.35 Y150.81 E546.73941
G1 X194.35 Y140.81 E547.32057
G1 X202.35 Y140.81 E547.78555
G1 X202.35 Y132.81 E548.25053
G1 X204.35 Y132.81 E548.36677
G1 X204.35 Y122.81 E548.94799
G0 F12000 X204.81 Y123.28
G1 F1800 X225.01 Y123.28 E550.12171
G1 X225.01 Y141.28 E551.16791
G1 X228.81 Y141.28 E551.38912
G1 X228.81 Y125.28 E552.31907
G1 X257.01 Y125.28 E553.95777
G1 X257.01 Y135.28 E554.53899
G1 X259.01 Y135.28 E554.65523
G1 X259.01 Y173.47 E556.87509
G1 X243.01 Y173.47 E557.80504
G1 X243.01 Y181.47 E558.27002
G1 X233.01 Y181.47 E558.85124
G1 X233.01 Y183.47 E558.96748
G1 X212.81 Y183.47 E560.14120
G1 X212.81 Y171.47 E560.83866
G1 X192.81 Y171.47 E562.00111
G1 X192.81 Y151.28 E563.17482
G1 X194.81 Y151.28 E563.29107
G1 X194.81 Y141.28 E563.87223
G1 X202.81 Y141.28 E564.33721
G1 X202.81 Y133.28 E564.80218
G1 X204.81 Y133.28 E564.91843
G1 X204.81 Y123.28 E565.49965
G0 F12000 X205.28 Y123.75
G1 F1800 X224.54 Y123.75 E566.61920
G1 X224.54 Y141.75 E567.66539
G1 X229.28 Y141.75 E567.94078
G1 X229.28 Y125.75 E568.87073
G1 X256.54 Y125.75 E570.45525
G1 X256.54 Y135.75 E571.03648
G1 X258.54 Y135.75 E571.15272
G1 X258.54 Y173.01 E573.31841
G1 X242.54 Y173.01 E574.24836
G1 X242.54 Y181.01 E574.71334
G1 X232.54 Y181.01 E575.29456
G1 X232.54 Y183.01 E575.41080
G1 X213.28 Y183.01 E576.53035
G1 X213.28 Y161.01 E577.80904
G1 X212.54 Y161.01 E577.85193
G1 X212.54 Y171.01 E578.43315
G1 X193.28 Y171.01 E579.55270
G1 X193.28 Y151.75 E580.67225
G1 X195.28 Y151.75 E580.78849
G1 X195.28 Y141.75 E581.36965
G1 X203.28 Y141.75 E581.83463
G1 X203.28 Y133.75 E582.29961
G1 X205.28 Y133.75 E582.41585
G1 X205.28 Y123.75 E582.99707
G0 F12000 X205.75 Y124.21
G1 F1800 X224.07 Y124.21 E584.06245
G1 X224.07 Y142.21 E585.10865
G1 X229.75 Y142.21 E585.43820
G1 X229.75 Y126.21 E586.36815
G1 X256.07 Y126.21 E587.89851
G1 X256.07 Y136.21 E588.47973
G1 X258.07 Y136.21 E588.59597
G1 X258.07 Y172.54 E590.70749
G1 X242.07 Y172.54 E591.63744
G1 X242.07 Y180.54 E592.10242
G1 X232.07 Y180.54 E592.68364
G1 X232.07 Y182.54 E592.79988
G1 X213.75 Y182.54 E593.86526
G1 X213.75 Y160.54 E595.14395
G1 X212.07 Y160.54 E595.24101
G1 X212.07 Y170.54 E595.82223
G1 X193.75 Y170.54 E596.88761
G1 X193.75 Y152.21 E597.95299
G1 X195.75 Y152.21 E598.06923
G1 X195.75 Y142.21 E598.65039
G1 X203.75 Y142.21 E599.11537
G1 X203.75 Y134.21 E599.58035
G1 X205.75 Y134.21 E599.69659
G1 X205.75 Y124.21 E600.27781
G0 F12000 X206.21 Y124.68
G1 F1800 X223.61 Y124.68 E601.28902
G1 X223.61 Y142.08 E602.30023
G1 X214.21 Y142.08 E602.84646
G1 X214.21 Y134.08 E603.31144
G1 X206.21 Y134.08 E603.77641
G1 X206.21 Y124.68 E604.32265
G0 F12000 X206.68 Y125.14
G1 F1800 X223.14 Y125.14 E605.27968
G1 X223.14 Y141.61 E606.23672
G1 X214.68 Y141.61 E606.72878
G1 X214.68 Y133.61 E607.19376
G1 X206.68 Y133.61 E607.65874
G1 X206.68 Y125.14 E608.15080
G0 F12000 X204.21 Y134.68
G1 F1800 X213.61 Y134.68 E608.69703
G1 X213.61 Y142.68 E609.16201
G1 X221.61 Y142.68 E609.62698
G1 X221.61 Y152.08 E610.17321
G1 X213.61 Y152.08 E610.63819
G1 X213.61 Y160.07 E611.10311
G1 X204.21 Y160.07 E611.64934
G1 X204.21 Y152.08 E612.11426
G1 X196.21 Y152.08 E612.57924
G1 X196.21 Y142.68 E613.12547
G1 X204.21 Y142.68 E613.59044
G1 X204.21 Y134.68 E614.05542
G0 F12000 X204.68 Y135.14
G1 F1800 X213.14 Y135.14 E614.54748
G1 X213.14 Y143.14 E615.01246
G1 X221.14 Y143.14 E615.47744
G1 X221.14 Y151.61 E615.96950
G1 X213.14 Y151.61 E616.43447
G1 X213.14 Y159.61 E616.89939
G1 X204.68 Y159.61 E617.39145
G1 X204.68 Y151.61 E617.85637
G1 X196.68 Y151.61 E618.32135
G1 X196.68 Y143.14 E618.81341
G1 X204.68 Y143.14 E619.27839
G1 X204.68 Y135.14 E619.74336
G0 F12000 X214.07 Y152.54
G1 F1800 X214.07 Y156.21 E619.95661
G1 X223.75 Y156.21 E620.51866
G1 X223.75 Y152.54 E620.73191
G1 X214.07 Y152.54 E621.29395
G0 F12000 X214.54 Y153.01
G1 F1800 X214.54 Y155.75 E621.45303
G1 X223.28 Y155.75 E621.96090
G1 X223.28 Y153.01 E622.11998
G1 X214.54 Y153.01 E622.62785
G0 F12000 X214.21 Y156.68
G1 F1800 X223.61 Y156.68 E623.17408
G1 X223.61 Y172.68 E624.10403
G1 X231.61 Y172.68 E624.56901
G1 X231.61 Y182.07 E625.11524
G1 X214.21 Y182.07 E626.12645
G1 X214.21 Y156.68 E627.60263
G0 F12000 X214.68 Y157.14
G1 F1800 X223.14 Y157.14 E628.09469
G1 X223.14 Y173.14 E629.02465
G1 X231.14 Y173.14 E629.48962
G1 X231.14 Y181.61 E629.98169
G1 X214.68 Y181.61 E630.93872
G1 X214.68 Y157.14 E632.36074
G0 F12000 X224.21 Y152.68
G1 F1800 X248.21 Y152.68 E633.75567
G1 X248.21 Y136.68 E634.68557
G1 X257.61 Y136.68 E635.23180
G1 X257.61 Y162.07 E636.70792
G1 X224.21 Y162.07 E638.64908
G1 X224.21 Y152.68 E639.19532
G0 F12000 X224.68 Y153.14
G1 F1800 X248.68 Y153.14 E640.59025
G1 X248.68 Y137.14 E641.52014
G1 X257.14 Y137.14 E642.01220
G1 X257.14 Y161.61 E643.43416
G1 X224.68 Y161.61 E645.32115
G1 X224.68 Y153.14 E645.81321
G0 F12000 X224.21 Y162.68
G1 F1800 X257.61 Y162.68 E647.75437
G1 X257.61 Y172.07 E648.30061
G1 X241.61 Y172.07 E649.23056
G1 X241.61 Y180.07 E649.69554
G1 X232.21 Y180.07 E650.24177
G1 X232.21 Y172.07 E650.70674
G1 X224.21 Y172.07 E651.17172
G1 X224.21 Y162.68 E651.71795
G0 F12000 X224.68 Y163.14
G1 F1800 X257.14 Y163.14 E653.60494
G1 X257.14 Y171.61 E654.09700
G1 X241.14 Y171.61 E655.02696
G1 X241.14 Y179.61 E655.49194
G1 X232.68 Y179.61 E655.98400
G1 X232.68 Y171.61 E656.44897
G1 X224.68 Y171.61 E656.91395
G1 X224.68 Y163.14 E657.40601
G0 F12000 X211.14 Y161.14
G1 F1800 X211.14 Y169.61 E657.89807
G1 X194.68 Y169.61 E658.85511
G1 X194.68 Y153.14 E659.81215
G1 X203.14 Y153.14 E660.30421
G1 X203.14 Y161.14 E660.76919
G1 X211.14 Y161.14 E661.23416
G0 F12000 X211.61 Y160.68
G1 F1800 X211.61 Y170.07 E661.78040
G1 X194.21 Y170.07 E662.79160
G1 X194.21 Y152.68 E663.80281
G1 X203.61 Y152.68 E664.34904
G1 X203.61 Y160.68 E664.81402
G1 X211.61 Y160.68 E665.27900
G0 F12000 X222.21 Y152.08
G1 F1800 X222.21 Y142.68 E665.82523
G1 X230.21 Y142.68 E666.29020
G1 X230.21 Y126.68 E667.22016
G1 X255.61 Y126.68 E668.69634
G1 X255.61 Y136.08 E669.24257
G1 X247.61 Y136.08 E669.70755
G1 X247.61 Y152.08 E670.63750
G1 X222.21 Y152.08 E672.11369
G0 F12000 X222.68 Y151.61
G1 F1800 X222.68 Y143.14 E672.60575
G1 X230.68 Y143.14 E673.07073
G1 X230.68 Y127.14 E674.00068
G1 X255.14 Y127.14 E675.42270
G1 X255.14 Y135.61 E675.91476
G1 X247.14 Y135.61 E676.37973
G1 X247.14 Y151.61 E677.30969
G1 X222.68 Y151.61 E678.73170
G1 F2400 E677.53170
G0 F12000 X221.75 Y140.21
;TYPE:WALL-INNER
G1 F2400 E678.73170
G1 F1800 X216.07 Y140.21 E679.06125
G1 X216.07 Y132.21 E679.52623
G1 X208.07 Y132.21 E679.99121
G1 X208.07 Y126.54 E680.32076
G1 X221.75 Y126.54 E681.11529
G1 X221.75 Y140.21 E681.90982
G0 F12000 X222.21 Y140.68
G1 F1800 X215.61 Y140.68 E682.29354
G1 X215.61 Y132.68 E682.75852
G1 X207.61 Y132.68 E683.22349
G1 X207.61 Y126.08 E683.60722
G1 X222.21 Y126.08 E684.45591
G1 X222.21 Y140.68 E685.30461
G0 F12000 X222.68 Y141.14
;TYPE:WALL-OUTER
G1 F1800 X215.14 Y141.14 E685.74250
G1 X215.14 Y133.14 E686.20748
G1 X207.14 Y133.14 E686.67246
G1 X207.14 Y125.61 E687.11035
G1 X222.68 Y125.61 E688.01322
G1 X222.68 Y141.14 E688.91609
G0 F12000 X222.34 Y140.90
G0 X221.44 Y140.05
;TYPE:FILL
G1 F1800 X216.24 Y134.85 E689.34339
G0 F12000 X216.24 Y135.51
G1 F1800 X220.78 Y140.05 E689.71652
G0 F12000 X220.12 Y140.05
G1 F1800 X216.24 Y136.17 E690.03549
G0 F12000 X216.24 Y136.82
G1 F1800 X219.46 Y140.05 E690.30028
G0 F12000 X218.80 Y140.05
G1 F1800 X216.24 Y137.48 E690.51091
G0 F12000 X216.24 Y138.14
G1 F1800 X218.14 Y140.05 E690.66738
G0 F12000 X217.48 Y140.05
G1 F1800 X216.24 Y138.80 E690.76967
G0 F12000 X216.24 Y139.46
G1 F1800 X216.82 Y140.05 E690.81780
G0 F12000 X221.58 Y139.53
G1 F1800 X216.24 Y134.19 E691.25689
G0 F12000 X216.24 Y133.53
G1 F1800 X221.58 Y138.87 E691.69599
G0 F12000 X221.58 Y138.21
G1 F1800 X216.24 Y132.87 E692.13509
G0 F12000 X216.24 Y132.21
G1 F1800 X221.58 Y137.55 E692.57418
G0 F12000 X221.58 Y136.90
G1 F1800 X211.39 Y126.71 E693.41173
G0 F12000 X210.73 Y126.71
G1 F1800 X216.07 Y132.05 E693.85079
G0 F12000 X215.41 Y132.05
G1 F1800 X210.07 Y126.71 E694.28984
G0 F12000 X209.41 Y126.71
G1 F1800 X214.75 Y132.05 E694.72890
G0 F12000 X214.10 Y132.05
G1 F1800 X208.75 Y126.71 E695.16795
G0 F12000 X208.24 Y126.85
G1 F1800 X213.44 Y132.05 E695.59534
G0 F12000 X212.78 Y132.05
G1 F1800 X208.24 Y127.51 E695.96855
G0 F12000 X208.24 Y128.17
G1 F1800 X212.12 Y132.05 E696.28760
G0 F12000 X211.46 Y132.05
G1 F1800 X208.24 Y128.82 E696.55248
G0 F12000 X208.24 Y129.48
G1 F1800 X210.80 Y132.05 E696.76319
G0 F12000 X210.14 Y132.05
G1 F1800 X208.24 Y130.14 E696.91974
G0 F12000 X208.24 Y130.80
G1 F1800 X209.48 Y132.05 E697.02211
G0 F12000 X208.82 Y132.05
G1 F1800 X208.24 Y131.46 E697.07032
G0 F12000 X212.05 Y126.71
G1 F1800 X221.58 Y136.24 E697.85366
G0 F12000 X221.58 Y135.58
G1 F1800 X212.71 Y126.71 E698.58283
G0 F12000 X213.37 Y126.71
G1 F1800 X221.58 Y134.92 E699.25783
G0 F12000 X221.58 Y134.26
G1 F1800 X214.03 Y126.71 E699.87867
G0 F12000 X214.69 Y126.71
G1 F1800 X221.58 Y133.60 E700.44533
G0 F12000 X221.58 Y132.94
G1 F1800 X215.34 Y126.71 E700.95783
G0 F12000 X216.00 Y126.71
G1 F1800 X221.58 Y132.28 E701.41616
G0 F12000 X221.58 Y131.62
G1 F1800 X216.66 Y126.71 E701.82032
G0 F12000 X217.32 Y126.71
G1 F1800 X221.58 Y130.96 E702.17032
G0 F12000 X221.58 Y130.31
G1 F1800 X217.98 Y126.71 E702.46615
G0 F12000 X218.64 Y126.71
G1 F1800 X221.58 Y129.65 E702.70781
G0 F12000 X221.58 Y128.99
G1 F1800 X219.30 Y126.71 E702.89530
G0 F12000 X219.96 Y126.71
G1 F1800 X221.58 Y128.33 E703.02862
G0 F12000 X221.58 Y127.67
G1 F1800 X220.62 Y126.71 E703.10778
G0 F12000 X221.28 Y126.71
G1 F1800 X221.58 Y127.01 E703.13276
G1 F2400 E701.93276
G0 F12000 X211.75 Y136.54
;TYPE:WALL-INNER
G1 F2400 E703.13276
G1 F1800 X211.75 Y144.54 E703.59774
G1 X219.75 Y144.54 E704.06272
G1 X219.75 Y150.21 E704.39227
G1 X211.75 Y150.21 E704.85725
G1 X211.75 Y158.21 E705.32216
G1 X206.07 Y158.21 E705.65172
G1 X206.07 Y150.21 E706.11664
G1 X198.07 Y150.21 E706.58161
G1 X198.07 Y144.54 E706.91116
G1 X206.07 Y144.54 E707.37614
G1 X206.07 Y136.54 E707.84112
G1 X211.75 Y136.54 E708.17067
G0 F12000 X212.21 Y136.08
G1 F1800 X212.21 Y144.08 E708.63565
G1 X220.21 Y144.08 E709.10062
G1 X220.21 Y150.68 E709.48435
G1 X212.21 Y150.68 E709.94932
G1 X212.21 Y158.68 E710.41424
G1 X205.61 Y158.68 E710.79796
G1 X205.61 Y150.68 E711.26288
G1 X197.61 Y150.68 E711.72786
G1 X197.61 Y144.08 E712.11158
G1 X205.61 Y144.08 E712.57656
G1 X205.61 Y136.08 E713.04153
G1 X212.21 Y136.08 E713.42526
G0 F12000 X212.68 Y135.61
;TYPE:WALL-OUTER
G1 F1800 X212.68 Y143.61 E713.89023
G1 X220.68 Y143.61 E714.35521
G1 X220.68 Y151.14 E714.79310
G1 X212.68 Y151.14 E715.25808
G1 X212.68 Y159.14 E715.72300
G1 X205.14 Y159.14 E716.16089
G1 X205.14 Y151.14 E716.62581
G1 X197.14 Y151.14 E717.09078
G1 X197.14 Y143.61 E717.52867
G1 X205.14 Y143.61 E717.99365
G1 X205.14 Y135.61 E718.45863
G1 X212.68 Y135.61 E718.89652
G0 F12000 X212.34 Y135.85
G0 X211.58 Y136.78
;TYPE:FILL
G1 F1800 X211.50 Y136.71 E718.90268
G0 F12000 X210.85 Y136.71
G1 F1800 X211.58 Y137.44 E718.96302
G0 F12000 X211.58 Y138.10
G1 F1800 X210.19 Y136.71 E719.07752
G0 F12000 X209.53 Y136.71
G1 F1800 X211.58 Y138.76 E719.24619
G0 F12000 X211.58 Y139.42
G1 F1800 X208.87 Y136.71 E719.46902
G0 F12000 X208.21 Y136.71
G1 F1800 X211.58 Y140.08 E719.74603
G0 F12000 X211.58 Y140.74
G1 F1800 X207.55 Y136.71 E720.07720
G0 F12000 X206.89 Y136.71
G1 F1800 X211.58 Y141.39 E720.46254
G0 F12000 X211.58 Y142.05
G1 F1800 X206.24 Y136.71 E720.90163
G0 F12000 X206.24 Y137.37
G1 F1800 X211.58 Y142.71 E721.34073
G0 F12000 X211.58 Y143.37
G1 F1800 X206.24 Y138.03 E721.77983
G0 F12000 X206.24 Y138.69
G1 F1800 X211.58 Y144.03 E722.21892
G0 F12000 X211.58 Y144.69
G1 F1800 X206.24 Y139.35 E722.65802
G0 F12000 X206.24 Y140.01
G1 F1800 X216.28 Y150.05 E723.48340
G0 F12000 X215.62 Y150.05
G1 F1800 X206.24 Y140.66 E724.25462
G0 F12000 X206.24 Y141.32
G1 F1800 X214.96 Y150.05 E724.97166
G0 F12000 X214.30 Y150.05
G1 F1800 X206.24 Y141.98 E725.63454
G0 F12000 X206.24 Y142.64
G1 F1800 X213.64 Y150.05 E726.24325
G0 F12000 X212.98 Y150.05
G1 F1800 X206.24 Y143.30 E726.79779
G0 F12000 X206.24 Y143.96
G1 F1800 X212.32 Y150.05 E727.29817
G0 F12000 X211.67 Y150.05
G1 F1800 X206.24 Y144.62 E727.74437
G0 F12000 X205.66 Y144.71
G1 F1800 X211.58 Y150.62 E728.23057
G0 F12000 X211.58 Y151.28
G1 F1800 X205.01 Y144.71 E728.77093
G0 F12000 X204.35 Y144.71
G1 F1800 X211.58 Y151.94 E729.36546
G0 F12000 X211.58 Y152.60
G1 F1800 X203.69 Y144.71 E730.01416
G0 F12000 X203.03 Y144.71
G1 F1800 X211.58 Y153.26 E730.71703
G0 F12000 X211.58 Y153.91
G1 F1800 X202.37 Y144.71 E731.47406
G0 F12000 X201.71 Y144.71
G1 F1800 X211.58 Y154.57 E732.28527
G0 F12000 X211.58 Y155.23
G1 F1800 X201.05 Y144.71 E733.15064
G0 F12000 X200.39 Y144.71
G1 F1800 X205.73 Y150.05 E733.58969
G0 F12000 X205.07 Y150.05
G1 F1800 X199.73 Y144.71 E734.02875
G0 F12000 X199.07 Y144.71
G1 F1800 X204.42 Y150.05 E734.46780
G0 F12000 X203.76 Y150.05
G1 F1800 X198.42 Y144.71 E734.90686
G0 F12000 X198.24 Y145.19
G1 F1800 X203.10 Y150.05 E735.30638
G0 F12000 X202.44 Y150.05
G1 F1800 X198.24 Y145.84 E735.65173
G0 F12000 X198.24 Y146.50
G1 F1800 X201.78 Y150.05 E735.94291
G0 F12000 X201.12 Y150.05
G1 F1800 X198.24 Y147.16 E736.17993
G0 F12000 X198.24 Y147.82
G1 F1800 X200.46 Y150.05 E736.36277
G0 F12000 X199.80 Y150.05
G1 F1800 X198.24 Y148.48 E736.49145
G0 F12000 X198.24 Y149.14
G1 F1800 X199.14 Y150.05 E736.56597
G0 F12000 X198.49 Y150.05
G1 F1800 X198.24 Y149.80 E736.58631
G0 F12000 X206.24 Y150.55
G1 F1800 X211.58 Y155.89 E737.02545
G0 F12000 X211.58 Y156.55
G1 F1800 X206.24 Y151.21 E737.46459
G0 F12000 X206.24 Y151.87
G1 F1800 X211.58 Y157.21 E737.90372
G0 F12000 X211.58 Y157.87
G1 F1800 X206.24 Y152.53 E738.34286
G0 F12000 X206.24 Y153.19
G1 F1800 X211.10 Y158.05 E738.74234
G0 F12000 X210.44 Y158.05
G1 F1800 X206.24 Y153.84 E739.08765
G0 F12000 X206.24 Y154.50
G1 F1800 X209.78 Y158.05 E739.37879
G0 F12000 X209.12 Y158.05
G1 F1800 X206.24 Y155.16 E739.61576
G0 F12000 X206.24 Y155.82
G1 F1800 X208.46 Y158.05 E739.79853
G0 F12000 X207.80 Y158.05
G1 F1800 X206.24 Y156.48 E739.92713
G0 F12000 X206.24 Y157.14
G1 F1800 X207.14 Y158.05 E740.00156
G0 F12000 X206.49 Y158.05
G1 F1800 X206.24 Y157.80 E740.02182
G0 F12000 X212.30 Y150.77
G0 X216.94 Y150.05
G1 F1800 X211.60 Y144.71 E740.46096
G0 F12000 X212.25 Y144.71
G1 F1800 X217.60 Y150.05 E740.90009
G0 F12000 X218.26 Y150.05
G1 F1800 X212.91 Y144.71 E741.33923
G0 F12000 X213.57 Y144.71
G1 F1800 X218.92 Y150.05 E741.77841
G0 F12000 X219.57 Y150.05
G1 F1800 X214.23 Y144.71 E742.21759
G0 F12000 X214.89 Y144.71
G1 F1800 X219.58 Y149.39 E742.60301
G0 F12000 X219.58 Y148.74
G1 F1800 X215.55 Y144.71 E742.93426
G0 F12000 X216.21 Y144.71
G1 F1800 X219.58 Y148.08 E743.21135
G0 F12000 X219.58 Y147.42
G1 F1800 X216.87 Y144.71 E743.43427
G0 F12000 X217.53 Y144.71
G1 F1800 X219.58 Y146.76 E743.60302
G0 F12000 X219.58 Y146.10
G1 F1800 X218.19 Y144.71 E743.71760
G0 F12000 X218.85 Y144.71
G1 F1800 X219.58 Y145.44 E743.77798
G0 F12000 X219.58 Y144.78
G1 F1800 X219.50 Y144.71 E743.78418
G1 F2400 E742.58418
G0 F12000 X201.75 Y154.54
;TYPE:WALL-INNER
G1 F2400 E743.78418
G1 F1800 X201.75 Y162.54 E744.24916
G1 X209.75 Y162.54 E744.71414
G1 X209.75 Y168.21 E745.04369
G1 X196.07 Y168.21 E745.83822
G1 X196.07 Y154.54 E746.63275
G1 X201.75 Y154.54 E746.96230
G0 F12000 X202.21 Y154.07
G1 F1800 X202.21 Y162.07 E747.42727
G1 X210.21 Y162.07 E747.89225
G1 X210.21 Y168.68 E748.27597
G1 X195.61 Y168.68 E749.12467
G1 X195.61 Y154.07 E749.97337
G1 X202.21 Y154.07 E750.35709
G0 F12000 X202.68 Y153.61
;TYPE:WALL-OUTER
G1 F1800 X202.68 Y161.61 E750.82207
G1 X210.68 Y161.61 E751.28705
G1 X210.68 Y169.14 E751.72494
G1 X195.14 Y169.14 E752.62781
G1 X195.14 Y153.61 E753.53067
G1 X202.68 Y153.61 E753.96857
G0 F12000 X202.34 Y153.85
G0 X201.58 Y155.12
;TYPE:FILL
G1 F1800 X201.17 Y154.71 E754.00260
G0 F12000 X200.51 Y154.71
G1 F1800 X201.58 Y155.78 E754.09079
G0 F12000 X201.58 Y156.44
G1 F1800 X199.85 Y154.71 E754.23316
G0 F12000 X199.19 Y154.71
G1 F1800 X201.58 Y157.10 E754.42969
G0 F12000 X201.58 Y157.75
G1 F1800 X198.53 Y154.71 E754.68039
G0 F12000 X197.87 Y154.71
G1 F1800 X201.58 Y158.41 E754.98526
G0 F12000 X201.58 Y159.07
G1 F1800 X197.21 Y154.71 E755.34430
G0 F12000 X196.55 Y154.71
G1 F1800 X201.58 Y159.73 E755.75750
G0 F12000 X201.58 Y160.39
G1 F1800 X196.24 Y155.05 E756.19668
G0 F12000 X196.24 Y155.71
G1 F1800 X201.58 Y161.05 E756.63586
G0 F12000 X201.58 Y161.71
G1 F1800 X196.24 Y156.37 E757.07504
G0 F12000 X196.24 Y157.03
G1 F1800 X201.58 Y162.37 E757.51422
G0 F12000 X201.92 Y162.71
G1 F1800 X207.26 Y168.05 E757.95331
G0 F12000 X206.60 Y168.05
G1 F1800 X196.24 Y157.68 E758.80512
G0 F12000 X196.24 Y158.34
G1 F1800 X205.94 Y168.05 E759.60276
G0 F12000 X205.28 Y168.05
G1 F1800 X196.24 Y159.00 E760.34623
G0 F12000 X196.24 Y159.66
G1 F1800 X204.62 Y168.05 E761.03554
G0 F12000 X203.96 Y168.05
G1 F1800 X196.24 Y160.32 E761.67068
G0 F12000 X196.24 Y160.98
G1 F1800 X203.31 Y168.05 E762.25164
G0 F12000 X202.65 Y168.05
G1 F1800 X196.24 Y161.64 E762.77845
G0 F12000 X196.24 Y162.30
G1 F1800 X201.99 Y168.05 E763.25108
G0 F12000 X201.33 Y168.05
G1 F1800 X196.24 Y162.96 E763.66950
G0 F12000 X196.24 Y163.62
G1 F1800 X200.67 Y168.05 E764.03376
G0 F12000 X200.01 Y168.05
G1 F1800 X196.24 Y164.28 E764.34385
G0 F12000 X196.24 Y164.93
G1 F1800 X199.35 Y168.05 E764.59977
G0 F12000 X198.69 Y168.05
G1 F1800 X196.24 Y165.59 E764.80152
G0 F12000 X196.24 Y166.25
G1 F1800 X198.03 Y168.05 E764.94910
G0 F12000 X197.37 Y168.05
G1 F1800 X196.24 Y166.91 E765.04252
G0 F12000 X196.24 Y167.57
G1 F1800 X196.71 Y168.05 E765.08173
G0 F12000 X202.58 Y162.71
G1 F1800 X207.92 Y168.05 E765.52083
G0 F12000 X208.58 Y168.05
G1 F1800 X203.24 Y162.71 E765.95992
G0 F12000 X203.89 Y162.71
G1 F1800 X209.24 Y168.05 E766.39902
G0 F12000 X209.58 Y167.73
G1 F1800 X204.55 Y162.71 E766.81222
G0 F12000 X205.21 Y162.71
G1 F1800 X209.58 Y167.07 E767.17126
G0 F12000 X209.58 Y166.41
G1 F1800 X205.87 Y162.71 E767.47613
G0 F12000 X206.53 Y162.71
G1 F1800 X209.58 Y165.75 E767.72683
G0 F12000 X209.58 Y165.09
G1 F1800 X207.19 Y162.71 E767.92332
G0 F12000 X207.85 Y162.71
G1 F1800 X209.58 Y164.44 E768.06565
G0 F12000 X209.58 Y163.78
G1 F1800 X208.51 Y162.71 E768.15380
G0 F12000 X209.17 Y162.71
G1 F1800 X209.58 Y163.12 E768.18779
G1 F2400 E766.98779
G0 F12000 X216.07 Y158.54
;TYPE:WALL-INNER
G1 F2400 E768.18779
G1 F1800 X221.75 Y158.54 E768.51734
G1 X221.75 Y174.54 E769.44730
G1 X229.75 Y174.54 E769.91227
G1 X229.75 Y180.21 E770.24183
G1 X216.07 Y180.21 E771.03635
G1 X216.07 Y158.54 E772.29586
G0 F12000 X215.61 Y158.07
G1 F1800 X222.21 Y158.07 E772.67958
G1 X222.21 Y174.07 E773.60954
G1 X230.21 Y174.07 E774.07451
G1 X230.21 Y180.68 E774.45823
G1 X215.61 Y180.68 E775.30693
G1 X215.61 Y158.07 E776.62061
G0 F12000 X215.14 Y157.61
;TYPE:WALL-OUTER
G1 F1800 X222.68 Y157.61 E777.05850
G1 X222.68 Y173.61 E777.98845
G1 X230.68 Y173.61 E778.45343
G1 X230.68 Y181.14 E778.89132
G1 X215.14 Y181.14 E779.79419
G1 X215.14 Y157.61 E781.16204
G0 F12000 X215.48 Y157.85
G0 X216.37 Y158.71
;TYPE:FILL
G1 F1800 X221.58 Y163.91 E781.59032
G0 F12000 X221.58 Y164.57
G1 F1800 X216.24 Y159.23 E782.02942
G0 F12000 X216.24 Y159.89
G1 F1800 X221.58 Y165.23 E782.46852
G0 F12000 X221.58 Y165.89
G1 F1800 X216.24 Y160.55 E782.90761
G0 F12000 X216.24 Y161.21
G1 F1800 X221.58 Y166.55 E783.34671
G0 F12000 X221.58 Y167.21
G1 F1800 X216.24 Y161.87 E783.78581
G0 F12000 X216.24 Y162.53
G1 F1800 X221.58 Y167.87 E784.22490
G0 F12000 X221.58 Y168.53
G1 F1800 X216.24 Y163.19 E784.66404
G0 F12000 X216.24 Y163.84
G1 F1800 X221.58 Y169.19 E785.10318
G0 F12000 X221.58 Y169.85
G1 F1800 X216.24 Y164.50 E785.54232
G0 F12000 X216.24 Y165.16
G1 F1800 X221.58 Y170.51 E785.98145
G0 F12000 X221.58 Y171.16
G1 F1800 X216.24 Y165.82 E786.42059
G0 F12000 X216.24 Y166.48
G1 F1800 X221.58 Y171.82 E786.85973
G0 F12000 X221.58 Y172.48
G1 F1800 X216.24 Y167.14 E787.29887
G0 F12000 X216.24 Y167.80
G1 F1800 X221.58 Y173.14 E787.73800
G0 F12000 X221.58 Y173.80
G1 F1800 X216.24 Y168.46 E788.17714
G0 F12000 X216.24 Y169.12
G1 F1800 X221.58 Y174.46 E788.61624
G0 F12000 X221.82 Y174.70
G1 F1800 X227.17 Y180.05 E789.05538
G0 F12000 X226.51 Y180.05
G1 F1800 X216.24 Y169.78 E789.89954
G0 F12000 X216.24 Y170.44
G1 F1800 X225.85 Y180.05 E790.68954
G0 F12000 X225.19 Y180.05
G1 F1800 X216.24 Y171.09 E791.42536
G0 F12000 X216.24 Y171.75
G1 F1800 X224.53 Y180.05 E792.10702
G0 F12000 X223.87 Y180.05
G1 F1800 X216.24 Y172.41 E792.73452
G0 F12000 X216.24 Y173.07
G1 F1800 X223.21 Y180.05 E793.30784
G0 F12000 X222.55 Y180.05
G1 F1800 X216.24 Y173.73 E793.82700
G0 F12000 X216.24 Y174.39
G1 F1800 X221.90 Y180.05 E794.29199
G0 F12000 X221.24 Y180.05
G1 F1800 X216.24 Y175.05 E794.70281
G0 F12000 X216.24 Y175.71
G1 F1800 X220.58 Y180.05 E795.05946
G0 F12000 X219.92 Y180.05
G1 F1800 X216.24 Y176.37 E795.36190
G0 F12000 X216.24 Y177.03
G1 F1800 X219.26 Y180.05 E795.61018
G0 F12000 X218.60 Y180.05
G1 F1800 X216.24 Y177.69 E795.80429
G0 F12000 X216.24 Y178.34
G1 F1800 X217.94 Y180.05 E795.94423
G0 F12000 X217.28 Y180.05
G1 F1800 X216.24 Y179.00 E796.03000
G0 F12000 X216.24 Y179.66
G1 F1800 X216.62 Y180.05 E796.06161
G0 F12000 X222.48 Y174.70
G1 F1800 X227.83 Y180.05 E796.50074
G0 F12000 X228.49 Y180.05
G1 F1800 X223.14 Y174.70 E796.93988
G0 F12000 X223.80 Y174.70
G1 F1800 X229.14 Y180.05 E797.37902
G0 F12000 X229.58 Y179.82
G1 F1800 X224.46 Y174.70 E797.79983
G0 F12000 X225.12 Y174.70
G1 F1800 X229.58 Y179.16 E798.16647
G0 F12000 X229.58 Y178.51
G1 F1800 X225.78 Y174.70 E798.47894
G0 F12000 X226.44 Y174.70
G1 F1800 X229.58 Y177.85 E798.73724
G0 F12000 X229.58 Y177.19
G1 F1800 X227.10 Y174.70 E798.94138
G0 F12000 X227.76 Y174.70
G1 F1800 X229.58 Y176.53 E799.09135
G0 F12000 X229.58 Y175.87
G1 F1800 X228.41 Y174.70 E799.18715
G0 F12000 X229.07 Y174.70
G1 F1800 X229.58 Y175.21 E799.22878
G0 F12000 X222.30 Y173.98
G0 X221.58 Y163.26
G1 F1800 X217.03 Y158.71 E799.60290
G0 F12000 X217.69 Y158.71
G1 F1800 X221.58 Y162.60 E799.92285
G0 F12000 X221.58 Y161.94
G1 F1800 X218.35 Y158.71 E800.18864
G0 F12000 X219.00 Y158.71
G1 F1800 X221.58 Y161.28 E800.40025
G0 F12000 X221.58 Y160.62
G1 F1800 X219.66 Y158.71 E800.55770
G0 F12000 X220.32 Y158.71
G1 F1800 X221.58 Y159.96 E800.66098
G0 F12000 X221.58 Y159.30
G1 F1800 X220.98 Y158.71 E800.71010
G1 F2400 E799.51010
G0 F12000 X226.07 Y160.21
;TYPE:WALL-INNER
G1 F2400 E800.71010
G1 F1800 X226.07 Y154.54 E801.03965
G1 X250.07 Y154.54 E802.43458
G1 X250.07 Y138.54 E803.36447
G1 X255.75 Y138.54 E803.69403
G1 X255.75 Y160.21 E804.95347
G1 X226.07 Y160.21 E806.67796
G0 F12000 X225.61 Y160.68
G1 F1800 X225.61 Y154.07 E807.06168
G1 X249.61 Y154.07 E808.45661
G1 X249.61 Y138.08 E809.38650
G1 X256.21 Y138.08 E809.77022
G1 X256.21 Y160.68 E811.08384
G1 X225.61 Y160.68 E812.86249
G0 F12000 X225.14 Y161.14
;TYPE:WALL-OUTER
G1 F1800 X225.14 Y153.61 E813.30039
G1 X249.14 Y153.61 E814.69532
G1 X249.14 Y137.61 E815.62521
G1 X256.68 Y137.61 E816.06310
G1 X256.68 Y161.14 E817.43089
G1 X225.14 Y161.14 E819.26371
G0 F12000 X225.39 Y160.81
G0 X226.94 Y160.05
;TYPE:FILL
G1 F1800 X226.24 Y159.35 E819.32125
G0 F12000 X226.24 Y158.69
G1 F1800 X227.60 Y160.05 E819.43296
G0 F12000 X228.26 Y160.05
G1 F1800 X226.24 Y158.03 E819.59883
G0 F12000 X226.24 Y157.37
G1 F1800 X228.91 Y160.05 E819.81887
G0 F12000 X229.57 Y160.05
G1 F1800 X226.24 Y156.71 E820.09308
G0 F12000 X226.24 Y156.05
G1 F1800 X230.23 Y160.05 E820.42146
G0 F12000 X230.89 Y160.05
G1 F1800 X226.24 Y155.39 E820.80400
G0 F12000 X226.24 Y154.73
G1 F1800 X231.55 Y160.05 E821.24072
G0 F12000 X232.21 Y160.05
G1 F1800 X226.87 Y154.71 E821.67981
G0 F12000 X227.53 Y154.71
G1 F1800 X232.87 Y160.05 E822.11891
G0 F12000 X233.53 Y160.05
G1 F1800 X228.19 Y154.71 E822.55800
G0 F12000 X228.84 Y154.71
G1 F1800 X234.19 Y160.05 E822.99710
G0 F12000 X234.85 Y160.05
G1 F1800 X229.50 Y154.71 E823.43620
G0 F12000 X230.16 Y154.71
G1 F1800 X235.50 Y160.05 E823.87529
G0 F12000 X236.16 Y160.05
G1 F1800 X230.82 Y154.71 E824.31439
G0 F12000 X231.48 Y154.71
G1 F1800 X236.82 Y160.05 E824.75349
G0 F12000 X237.48 Y160.05
G1 F1800 X232.14 Y154.71 E825.19258
G0 F12000 X232.80 Y154.71
G1 F1800 X238.14 Y160.05 E825.63168
G0 F12000 X238.80 Y160.05
G1 F1800 X233.46 Y154.71 E826.07078
G0 F12000 X234.12 Y154.71
G1 F1800 X239.46 Y160.05 E826.50987
G0 F12000 X240.12 Y160.05
G1 F1800 X234.78 Y154.71 E826.94897
G0 F12000 X235.44 Y154.71
G1 F1800 X240.78 Y160.05 E827.38807
G0 F12000 X241.44 Y160.05
G1 F1800 X236.09 Y154.71 E827.82716
G0 F12000 X236.75 Y154.71
G1 F1800 X242.09 Y160.05 E828.26626
G0 F12000 X242.75 Y160.05
G1 F1800 X237.41 Y154.71 E828.70536
G0 F12000 X238.07 Y154.71
G1 F1800 X243.41 Y160.05 E829.14445
G0 F12000 X244.07 Y160.05
G1 F1800 X238.73 Y154.71 E829.58355
G0 F12000 X239.39 Y154.71
G1 F1800 X244.73 Y160.05 E830.02265
G0 F12000 X245.39 Y160.05
G1 F1800 X240.05 Y154.71 E830.46174
G0 F12000 X240.71 Y154.71
G1 F1800 X246.05 Y160.05 E830.90084
G0 F12000 X246.71 Y160.05
G1 F1800 X241.37 Y154.71 E831.33994
G0 F12000 X242.03 Y154.71
G1 F1800 X247.37 Y160.05 E831.77903
G0 F12000 X248.03 Y160.05
G1 F1800 X242.68 Y154.71 E832.21813
G0 F12000 X243.34 Y154.71
G1 F1800 X248.69 Y160.05 E832.65723
G0 F12000 X249.34 Y160.05
G1 F1800 X244.00 Y154.71 E833.09632
G0 F12000 X244.66 Y154.71
G1 F1800 X250.00 Y160.05 E833.53542
G0 F12000 X250.66 Y160.05
G1 F1800 X245.32 Y154.71 E833.97452
G0 F12000 X245.98 Y154.71
G1 F1800 X251.32 Y160.05 E834.41365
G0 F12000 X251.98 Y160.05
G1 F1800 X246.64 Y154.71 E834.85279
G0 F12000 X247.30 Y154.71
G1 F1800 X252.64 Y160.05 E835.29193
G0 F12000 X253.30 Y160.05
G1 F1800 X247.96 Y154.71 E835.73107
G0 F12000 X248.62 Y154.71
G1 F1800 X253.96 Y160.05 E836.17020
G0 F12000 X254.62 Y160.05
G1 F1800 X249.27 Y154.71 E836.60934
G0 F12000 X249.93 Y154.71
G1 F1800 X255.28 Y160.05 E837.04848
G0 F12000 X255.58 Y159.69
G1 F1800 X250.24 Y154.35 E837.48758
G0 F12000 X250.24 Y153.69
G1 F1800 X255.58 Y159.03 E837.92667
G0 F12000 X255.58 Y158.37
G1 F1800 X250.24 Y153.03 E838.36577
G0 F12000 X250.24 Y152.37
G1 F1800 X255.58 Y157.72 E838.80487
G0 F12000 X255.58 Y157.06
G1 F1800 X250.24 Y151.71 E839.24396
G0 F12000 X250.24 Y151.05
G1 F1800 X255.58 Y156.40 E839.68310
G0 F12000 X255.58 Y155.74
G1 F1800 X250.24 Y150.40 E840.12224
G0 F12000 X250.24 Y149.74
G1 F1800 X255.58 Y155.08 E840.56138
G0 F12000 X255.58 Y154.42
G1 F1800 X250.24 Y149.08 E841.00051
G0 F12000 X250.24 Y148.42
G1 F1800 X255.58 Y153.76 E841.43965
G0 F12000 X255.58 Y153.10
G1 F1800 X250.24 Y147.76 E841.87879
G0 F12000 X250.24 Y147.10
G1 F1800 X255.58 Y152.44 E842.31793
G0 F12000 X255.58 Y151.78
G1 F1800 X250.24 Y146.44 E842.75706
G0 F12000 X250.24 Y145.78
G1 F1800 X255.58 Y151.12 E843.19620
G0 F12000 X255.58 Y150.47
G1 F1800 X250.24 Y145.12 E843.63534
G0 F12000 X250.24 Y144.46
G1 F1800 X255.58 Y149.81 E844.07448
G0 F12000 X255.58 Y149.15
G1 F1800 X250.24 Y143.81 E844.51362
G0 F12000 X250.24 Y143.15
G1 F1800 X255.58 Y148.49 E844.95275
G0 F12000 X255.58 Y147.83
G1 F1800 X250.24 Y142.49 E845.39189
G0 F12000 X250.24 Y141.83
G1 F1800 X255.58 Y147.17 E845.83103
G0 F12000 X255.58 Y146.51
G1 F1800 X250.24 Y141.17 E846.27017
G0 F12000 X250.24 Y140.51
G1 F1800 X255.58 Y145.85 E846.70930
G0 F12000 X255.58 Y145.19
G1 F1800 X250.24 Y139.85 E847.14844
G0 F12000 X250.24 Y139.19
G1 F1800 X255.58 Y144.53 E847.58758
G0 F12000 X255.58 Y143.88
G1 F1800 X250.41 Y138.71 E848.01254
G0 F12000 X251.07 Y138.71
G1 F1800 X255.58 Y143.22 E848.38333
G0 F12000 X255.58 Y142.56
G1 F1800 X251.73 Y138.71 E848.69995
G0 F12000 X252.39 Y138.71
G1 F1800 X255.58 Y141.90 E848.96241
G0 F12000 X255.58 Y141.24
G1 F1800 X253.05 Y138.71 E849.17069
G0 F12000 X253.71 Y138.71
G1 F1800 X255.58 Y140.58 E849.32481
G0 F12000 X255.58 Y139.92
G1 F1800 X254.36 Y138.71 E849.42477
G0 F12000 X255.02 Y138.71
G1 F1800 X255.58 Y139.26 E849.47055
G1 F2400 E848.27055
G0 F12000 X255.75 Y164.54
;TYPE:WALL-INNER
G1 F2400 E849.47055
G1 F1800 X255.75 Y170.21 E849.80010
G1 X239.75 Y170.21 E850.73006
G1 X239.75 Y178.21 E851.19503
G1 X234.07 Y178.21 E851.52458
G1 X234.07 Y170.21 E851.98956
G1 X226.07 Y170.21 E852.45454
G1 X226.07 Y164.54 E852.78409
G1 X255.75 Y164.54 E854.50857
G0 F12000 X256.21 Y164.07
G1 F1800 X256.21 Y170.68 E854.89229
G1 X240.21 Y170.68 E855.82225
G1 X240.21 Y178.68 E856.28722
G1 X233.61 Y178.68 E856.67095
G1 X233.61 Y170.68 E857.13592
G1 X225.61 Y170.68 E857.60090
G1 X225.61 Y164.07 E857.98462
G1 X256.21 Y164.07 E859.76327
G0 F12000 X256.68 Y163.61
;TYPE:WALL-OUTER
G1 F1800 X256.68 Y171.14 E860.20117
G1 X240.68 Y171.14 E861.13112
G1 X240.68 Y179.14 E861.59610
G1 X233.14 Y179.14 E862.03399
G1 X233.14 Y171.14 E862.49896
G1 X225.14 Y171.14 E862.96394
G1 X225.14 Y163.61 E863.40183
G1 X256.68 Y163.61 E865.23465
G0 F12000 X256.34 Y163.85
G0 X255.32 Y164.70
;TYPE:FILL
G1 F1800 X255.58 Y164.97 E865.25607
G0 F12000 X255.58 Y165.62
G1 F1800 X254.66 Y164.70 E865.33165
G0 F12000 X254.00 Y164.70
G1 F1800 X255.58 Y166.28 E865.46139
G0 F12000 X255.58 Y166.94
G1 F1800 X253.34 Y164.70 E865.64531
G0 F12000 X252.68 Y164.70
G1 F1800 X255.58 Y167.60 E865.88339
G0 F12000 X255.58 Y168.26
G1 F1800 X252.03 Y164.70 E866.17565
G0 F12000 X251.37 Y164.70
G1 F1800 X255.58 Y168.92 E866.52207
G0 F12000 X255.58 Y169.58
G1 F1800 X250.71 Y164.70 E866.92265
G0 F12000 X250.05 Y164.70
G1 F1800 X255.39 Y170.05 E867.36179
G0 F12000 X254.73 Y170.05
G1 F1800 X249.39 Y164.70 E867.80093
G0 F12000 X248.73 Y164.70
G1 F1800 X254.07 Y170.05 E868.24007
G0 F12000 X253.41 Y170.05
G1 F1800 X248.07 Y164.70 E868.67920
G0 F12000 X247.41 Y164.70
G1 F1800 X252.75 Y170.05 E869.11834
G0 F12000 X252.09 Y170.05
G1 F1800 X246.75 Y164.70 E869.55748
G0 F12000 X246.09 Y164.70
G1 F1800 X251.44 Y170.05 E869.99662
G0 F12000 X250.78 Y170.05
G1 F1800 X245.44 Y164.70 E870.43575
G0 F12000 X244.78 Y164.70
G1 F1800 X250.12 Y170.05 E870.87489
G0 F12000 X249.46 Y170.05
G1 F1800 X244.12 Y164.70 E871.31403
G0 F12000 X243.46 Y164.70
G1 F1800 X248.80 Y170.05 E871.75317
G0 F12000 X248.14 Y170.05
G1 F1800 X242.80 Y164.70 E872.19231
G0 F12000 X242.14 Y164.70
G1 F1800 X247.48 Y170.05 E872.63144
G0 F12000 X246.82 Y170.05
G1 F1800 X241.48 Y164.70 E873.07058
G0 F12000 X240.82 Y164.70
G1 F1800 X246.16 Y170.05 E873.50972
G0 F12000 X245.50 Y170.05
G1 F1800 X240.16 Y164.70 E873.94886
G0 F12000 X239.50 Y164.70
G1 F1800 X244.85 Y170.05 E874.38799
G0 F12000 X244.19 Y170.05
G1 F1800 X238.84 Y164.70 E874.82713
G0 F12000 X238.19 Y164.70
G1 F1800 X243.53 Y170.05 E875.26627
G0 F12000 X242.87 Y170.05
G1 F1800 X237.53 Y164.70 E875.70541
G0 F12000 X236.87 Y164.70
G1 F1800 X242.21 Y170.05 E876.14454
G0 F12000 X241.55 Y170.05
G1 F1800 X236.21 Y164.70 E876.58368
G0 F12000 X235.55 Y164.70
G1 F1800 X240.89 Y170.05 E877.02286
G0 F12000 X240.23 Y170.05
G1 F1800 X234.89 Y164.70 E877.46204
G0 F12000 X234.23 Y164.70
G1 F1800 X239.58 Y170.05 E877.90171
G0 F12000 X239.58 Y170.71
G1 F1800 X233.57 Y164.70 E878.39555
G0 F12000 X232.91 Y164.70
G1 F1800 X239.58 Y171.37 E878.94356
G0 F12000 X239.58 Y172.03
G1 F1800 X232.25 Y164.70 E879.54573
G0 F12000 X231.59 Y164.70
G1 F1800 X239.58 Y172.69 E880.20208
G0 F12000 X239.58 Y173.35
G1 F1800 X230.94 Y164.70 E880.91259
G0 F12000 X230.28 Y164.70
G1 F1800 X239.58 Y174.01 E881.67727
G0 F12000 X239.58 Y174.67
G1 F1800 X229.62 Y164.70 E882.49612
G0 F12000 X228.96 Y164.70
G1 F1800 X239.58 Y175.32 E883.36913
G0 F12000 X239.58 Y175.98
G1 F1800 X234.24 Y170.64 E883.80823
G0 F12000 X234.24 Y171.30
G1 F1800 X239.58 Y176.64 E884.24732
G0 F12000 X239.58 Y177.30
G1 F1800 X234.24 Y171.96 E884.68642
G0 F12000 X234.24 Y172.62
G1 F1800 X239.58 Y177.96 E885.12552
G0 F12000 X239.01 Y178.05
G1 F1800 X234.24 Y173.28 E885.51743
G0 F12000 X234.24 Y173.94
G1 F1800 X238.35 Y178.05 E885.85518
G0 F12000 X237.69 Y178.05
G1 F1800 X234.24 Y174.60 E886.13876
G0 F12000 X234.24 Y175.25
G1 F1800 X237.03 Y178.05 E886.36817
G0 F12000 X236.37 Y178.05
G1 F1800 X234.24 Y175.91 E886.54342
G0 F12000 X234.24 Y176.57
G1 F1800 X235.71 Y178.05 E886.66449
G0 F12000 X235.05 Y178.05
G1 F1800 X234.24 Y177.23 E886.73140
G0 F12000 X234.24 Y177.89
G1 F1800 X234.39 Y178.05 E886.74414
G0 F12000 X233.64 Y170.05
G1 F1800 X228.30 Y164.70 E887.18328
G0 F12000 X227.64 Y164.70
G1 F1800 X232.98 Y170.05 E887.62242
G0 F12000 X232.32 Y170.05
G1 F1800 X226.98 Y164.70 E888.06155
G0 F12000 X226.32 Y164.70
G1 F1800 X231.66 Y170.05 E888.50069
G0 F12000 X231.01 Y170.05
G1 F1800 X226.24 Y165.28 E888.89265
G0 F12000 X226.24 Y165.94
G1 F1800 X230.35 Y170.05 E889.23044
G0 F12000 X229.69 Y170.05
G1 F1800 X226.24 Y166.60 E889.51406
G0 F12000 X226.24 Y167.25
G1 F1800 X229.03 Y170.05 E889.74351
G0 F12000 X228.37 Y170.05
G1 F1800 X226.24 Y167.91 E889.91880
G0 F12000 X226.24 Y168.57
G1 F1800 X227.71 Y170.05 E890.03991
G0 F12000 X227.05 Y170.05
G1 F1800 X226.24 Y169.23 E890.10686
G0 F12000 X226.24 Y169.89
G1 F1800 X226.39 Y170.05 E890.11964
G1 F2400 E888.91964
G0 F12000 X224.07 Y150.21
;TYPE:WALL-INNER
G1 F2400 E890.11964
G1 F1800 X224.07 Y144.54 E890.44920
G1 X232.07 Y144.54 E890.91417
G1 X232.07 Y128.54 E891.84413
G1 X253.75 Y128.54 E893.10363
G1 X253.75 Y134.21 E893.43318
G1 X245.75 Y134.21 E893.89816
G1 X245.75 Y150.21 E894.82811
G1 X224.07 Y150.21 E896.08762
G0 F12000 X223.61 Y150.68
G1 F1800 X223.61 Y144.08 E896.47134
G1 X231.61 Y144.08 E896.93632
G1 X231.61 Y128.08 E897.86627
G1 X254.21 Y128.08 E899.17995
G1 X254.21 Y134.68 E899.56367
G1 X246.21 Y134.68 E900.02865
G1 X246.21 Y150.68 E900.95860
G1 X223.61 Y150.68 E902.27228
G0 F12000 X223.14 Y151.14
;TYPE:WALL-OUTER
G1 F1800 X223.14 Y143.61 E902.71017
G1 X231.14 Y143.61 E903.17514
G1 X231.14 Y127.61 E904.10510
G1 X254.68 Y127.61 E905.47294
G1 X254.68 Y135.14 E905.91083
G1 X246.68 Y135.14 E906.37581
G1 X246.68 Y151.14 E907.30576
G1 X223.14 Y151.14 E908.67361
G0 F12000 X223.39 Y150.81
G0 X224.85 Y150.05
;TYPE:FILL
G1 F1800 X224.24 Y149.44 E908.72367
G0 F12000 X224.24 Y148.78
G1 F1800 X225.50 Y150.05 E908.82789
G0 F12000 X226.16 Y150.05
G1 F1800 X224.24 Y148.12 E908.98629
G0 F12000 X224.24 Y147.46
G1 F1800 X226.82 Y150.05 E909.19885
G0 F12000 X227.48 Y150.05
G1 F1800 X224.24 Y146.80 E909.46558
G0 F12000 X224.24 Y146.14
G1 F1800 X228.14 Y150.05 E909.78648
G0 F12000 X228.80 Y150.05
G1 F1800 X224.24 Y145.48 E910.16154
G0 F12000 X224.24 Y144.82
G1 F1800 X229.46 Y150.05 E910.59077
G0 F12000 X230.12 Y150.05
G1 F1800 X224.78 Y144.71 E911.02983
G0 F12000 X225.44 Y144.71
G1 F1800 X230.78 Y150.05 E911.46888
G0 F12000 X231.44 Y150.05
G1 F1800 X226.09 Y144.71 E911.90794
G0 F12000 X226.75 Y144.71
G1 F1800 X232.09 Y150.05 E912.34700
G0 F12000 X232.75 Y150.05
G1 F1800 X227.41 Y144.71 E912.78605
G0 F12000 X228.07 Y144.71
G1 F1800 X233.41 Y150.05 E913.22511
G0 F12000 X234.07 Y150.05
G1 F1800 X228.73 Y144.71 E913.66416
G0 F12000 X229.39 Y144.71
G1 F1800 X234.73 Y150.05 E914.10322
G0 F12000 X235.39 Y150.05
G1 F1800 X230.05 Y144.71 E914.54227
G0 F12000 X230.71 Y144.71
G1 F1800 X236.05 Y150.05 E914.98133
G0 F12000 X236.71 Y150.05
G1 F1800 X231.37 Y144.71 E915.42038
G0 F12000 X232.03 Y144.71
G1 F1800 X237.37 Y150.05 E915.85944
G0 F12000 X238.03 Y150.05
G1 F1800 X232.24 Y144.26 E916.33528
G0 F12000 X232.24 Y143.60
G1 F1800 X238.69 Y150.05 E916.86533
G0 F12000 X239.34 Y150.05
G1 F1800 X232.24 Y142.94 E917.44954
G0 F12000 X232.24 Y142.28
G1 F1800 X240.00 Y150.05 E918.08792
G0 F12000 X240.66 Y150.05
G1 F1800 X232.24 Y141.62 E918.78048
G0 F12000 X232.24 Y140.96
G1 F1800 X241.32 Y150.05 E919.52719
G0 F12000 X241.98 Y150.05
G1 F1800 X232.24 Y140.30 E920.32808
G0 F12000 X232.24 Y139.65
G1 F1800 X242.64 Y150.05 E921.18314
G0 F12000 X243.30 Y150.05
G1 F1800 X232.24 Y138.99 E922.09236
G0 F12000 X232.24 Y138.33
G1 F1800 X243.96 Y150.05 E923.05575
G0 F12000 X244.62 Y150.05
G1 F1800 X232.24 Y137.67 E924.07331
G0 F12000 X232.24 Y137.01
G1 F1800 X245.28 Y150.05 E925.14503
G0 F12000 X245.58 Y149.69
G1 F1800 X232.24 Y136.35 E926.24179
G0 F12000 X232.24 Y135.69
G1 F1800 X245.58 Y149.03 E927.33854
G0 F12000 X245.58 Y148.37
G1 F1800 X232.24 Y135.03 E928.43530
G0 F12000 X232.24 Y134.37
G1 F1800 X245.58 Y147.72 E929.53205
G0 F12000 X245.58 Y147.06
G1 F1800 X232.24 Y133.71 E930.62881
G0 F12000 X232.24 Y133.05
G1 F1800 X245.58 Y146.40 E931.72556
G0 F12000 X245.58 Y145.74
G1 F1800 X232.24 Y132.40 E932.82232
G0 F12000 X232.24 Y131.74
G1 F1800 X245.58 Y145.08 E933.91907
G0 F12000 X245.58 Y144.42
G1 F1800 X232.24 Y131.08 E935.01583
G0 F12000 X232.24 Y130.42
G1 F1800 X245.58 Y143.76 E936.11258
G0 F12000 X245.58 Y143.10
G1 F1800 X232.24 Y129.76 E937.20934
G0 F12000 X232.24 Y129.10
G1 F1800 X245.58 Y142.44 E938.30610
G0 F12000 X245.58 Y141.78
G1 F1800 X232.50 Y128.71 E939.38107
G0 F12000 X233.16 Y128.71
G1 F1800 X245.58 Y141.12 E940.40187
G0 F12000 X245.58 Y140.47
G1 F1800 X233.82 Y128.71 E941.36851
G0 F12000 X234.48 Y128.71
G1 F1800 X245.58 Y139.81 E942.28098
G0 F12000 X245.58 Y139.15
G1 F1800 X235.14 Y128.71 E943.13928
G0 F12000 X235.80 Y128.71
G1 F1800 X245.58 Y138.49 E943.94337
G0 F12000 X245.58 Y137.83
G1 F1800 X236.46 Y128.71 E944.69330
G0 F12000 X237.12 Y128.71
G1 F1800 X245.58 Y137.17 E945.38906
G0 F12000 X245.58 Y136.51
G1 F1800 X237.77 Y128.71 E946.03064
G0 F12000 X238.43 Y128.71
G1 F1800 X245.58 Y135.85 E946.61807
G0 F12000 X245.58 Y135.19
G1 F1800 X239.09 Y128.71 E947.15132
G0 F12000 X239.75 Y128.71
G1 F1800 X245.58 Y134.53 E947.63040
G0 F12000 X245.75 Y134.05
G1 F1800 X240.41 Y128.71 E948.06950
G0 F12000 X241.07 Y128.71
G1 F1800 X246.41 Y134.05 E948.50860
G0 F12000 X247.07 Y134.05
G1 F1800 X241.73 Y128.71 E948.94769
G0 F12000 X242.39 Y128.71
G1 F1800 X247.73 Y134.05 E949.38679
G0 F12000 X248.39 Y134.05
G1 F1800 X243.05 Y128.71 E949.82589
G0 F12000 X243.71 Y128.71
G1 F1800 X249.05 Y134.05 E950.26498
G0 F12000 X249.71 Y134.05
G1 F1800 X244.36 Y128.71 E950.70408
G0 F12000 X245.02 Y128.71
G1 F1800 X250.37 Y134.05 E951.14322
G0 F12000 X251.03 Y134.05
G1 F1800 X245.68 Y128.71 E951.58236
G0 F12000 X246.34 Y128.71
G1 F1800 X251.68 Y134.05 E952.02149
G0 F12000 X252.34 Y134.05
G1 F1800 X247.00 Y128.71 E952.46063
G0 F12000 X247.66 Y128.71
G1 F1800 X253.00 Y134.05 E952.89977
G0 F12000 X253.58 Y133.97
G1 F1800 X248.32 Y128.71 E953.33225
G0 F12000 X248.98 Y128.71
G1 F1800 X253.58 Y133.31 E953.71056
G0 F12000 X253.58 Y132.65
G1 F1800 X249.64 Y128.71 E954.03470
G0 F12000 X250.30 Y128.71
G1 F1800 X253.58 Y131.99 E954.30464
G0 F12000 X253.58 Y131.33
G1 F1800 X250.96 Y128.71 E954.52041
G0 F12000 X251.61 Y128.71
G1 F1800 X253.58 Y130.67 E954.68201
G0 F12000 X253.58 Y130.01
G1 F1800 X252.27 Y128.71 E954.78944
G0 F12000 X252.93 Y128.71
G1 F1800 X253.58 Y129.35 E954.84270
;LAYER:1
G0 F12000 X253.75 Y128.54 Z0.50
;TYPE:WALL-INNER
G1 F1800 X253.75 Y134.21 E955.06240
G1 X245.75 Y134.21 E955.37239
G1 X245.75 Y150.21 E955.99236
G1 X224.07 Y150.21 E956.83203
G1 X224.07 Y144.54 E957.05173
G1 X232.07 Y144.54 E957.36171
G1 X232.07 Y128.54 E957.98168
G1 X253.75 Y128.54 E958.82135
G0 F12000 X254.21 Y128.08
G1 F1800 X254.21 Y134.68 E959.07717
G1 X246.21 Y134.68 E959.38715
G1 X246.21 Y150.68 E960.00712
G1 X223.61 Y150.68 E960.88290
G1 X223.61 Y144.08 E961.13872
G1 X231.61 Y144.08 E961.44870
G1 X231.61 Y128.08 E962.06867
G1 X254.21 Y128.08 E962.94446
G0 F12000 X254.68 Y127.61
;TYPE:WALL-OUTER
G1 F1800 X254.68 Y135.14 E963.23638
G1 X246.68 Y135.14 E963.54637
G1 X246.68 Y151.14 E964.16634
G1 X223.14 Y151.14 E965.07823
G1 X223.14 Y143.61 E965.37016
G1 X231.14 Y143.61 E965.68015
G1 X231.14 Y127.61 E966.30011
G1 X254.68 Y127.61 E967.21201
G0 F12000 X254.34 Y127.85
G0 X253.58 Y128.98
;TYPE:FILL
G1 F1800 X248.51 Y134.05 E967.48956
G0 F12000 X249.17 Y134.05
G1 F1800 X253.58 Y129.64 E967.73100
G0 F12000 X253.58 Y130.30
G1 F1800 X249.83 Y134.05 E967.93633
G0 F12000 X250.49 Y134.05
G1 F1800 X253.58 Y130.96 E968.10555
G0 F12000 X253.58 Y131.62
G1 F1800 X251.15 Y134.05 E968.23865
G0 F12000 X251.81 Y134.05
G1 F1800 X253.58 Y132.28 E968.33565
G0 F12000 X253.58 Y132.94
G1 F1800 X252.47 Y134.05 E968.39653
G0 F12000 X253.13 Y134.05
G1 F1800 X253.58 Y133.60 E968.42129
G0 F12000 X253.20 Y128.71
G1 F1800 X247.85 Y134.05 E968.71403
G0 F12000 X247.20 Y134.05
G1 F1800 X252.54 Y128.71 E969.00676
G0 F12000 X251.88 Y128.71
G1 F1800 X246.54 Y134.05 E969.29949
G0 F12000 X245.88 Y134.05
G1 F1800 X251.22 Y128.71 E969.59222
G0 F12000 X250.56 Y128.71
G1 F1800 X229.22 Y150.05 E970.76172
G0 F12000 X228.56 Y150.05
G1 F1800 X249.90 Y128.71 E971.93122
G0 F12000 X249.24 Y128.71
G1 F1800 X227.90 Y150.05 E973.10072
G0 F12000 X227.24 Y150.05
G1 F1800 X248.58 Y128.71 E974.27022
G0 F12000 X247.93 Y128.71
G1 F1800 X232.24 Y144.39 E975.12983
G0 F12000 X231.93 Y144.71
G1 F1800 X226.58 Y150.05 E975.42262
G0 F12000 X225.92 Y150.05
G1 F1800 X231.27 Y144.71 E975.71541
G0 F12000 X230.61 Y144.71
G1 F1800 X225.26 Y150.05 E976.00819
G0 F12000 X224.61 Y150.05
G1 F1800 X229.95 Y144.71 E976.30098
G0 F12000 X229.29 Y144.71
G1 F1800 X224.24 Y149.76 E976.57779
G0 F12000 X224.24 Y149.10
G1 F1800 X228.63 Y144.71 E976.81849
G0 F12000 X227.97 Y144.71
G1 F1800 X224.24 Y148.44 E977.02308
G0 F12000 X224.24 Y147.78
G1 F1800 X227.31 Y144.71 E977.19155
G0 F12000 X226.65 Y144.71
G1 F1800 X224.24 Y147.12 E977.32392
G0 F12000 X224.24 Y146.46
G1 F1800 X225.99 Y144.71 E977.42017
G0 F12000 X225.34 Y144.71
G1 F1800 X224.24 Y145.80 E977.48031
G0 F12000 X224.24 Y145.14
G1 F1800 X224.68 Y144.71 E977.50434
G0 F12000 X229.88 Y150.05
G1 F1800 X245.58 Y134.35 E978.36475
G0 F12000 X245.58 Y135.00
G1 F1800 X230.54 Y150.05 E979.18905
G0 F12000 X231.20 Y150.05
G1 F1800 X245.58 Y135.66 E979.97724
G0 F12000 X245.58 Y136.32
G1 F1800 X231.86 Y150.05 E980.72932
G0 F12000 X232.51 Y150.05
G1 F1800 X245.58 Y136.98 E981.44528
G0 F12000 X245.58 Y137.64
G1 F1800 X233.17 Y150.05 E982.12513
G0 F12000 X233.83 Y150.05
G1 F1800 X245.58 Y138.30 E982.76887
G0 F12000 X245.58 Y138.96
G1 F1800 X234.49 Y150.05 E983.37650
G0 F12000 X235.15 Y150.05
G1 F1800 X245.58 Y139.62 E983.94801
G0 F12000 X245.58 Y140.28
G1 F1800 X235.81 Y150.05 E984.48342
G0 F12000 X236.47 Y150.05
G1 F1800 X245.58 Y140.94 E984.98271
G0 F12000 X245.58 Y141.60
G1 F1800 X237.13 Y150.05 E985.44586
G0 F12000 X237.79 Y150.05
G1 F1800 X245.58 Y142.25 E985.87290
G0 F12000 X245.58 Y142.91
G1 F1800 X238.45 Y150.05 E986.26383
G0 F12000 X239.10 Y150.05
G1 F1800 X245.58 Y143.57 E986.61865
G0 F12000 X245.58 Y144.23
G1 F1800 X239.76 Y150.05 E986.93736
G0 F12000 X240.42 Y150.05
G1 F1800 X245.58 Y144.89 E987.21995
G0 F12000 X245.58 Y145.55
G1 F1800 X241.08 Y150.05 E987.46643
G0 F12000 X241.74 Y150.05
G1 F1800 X245.58 Y146.21 E987.67680
G0 F12000 X245.58 Y146.87
G1 F1800 X242.40 Y150.05 E987.85106
G0 F12000 X243.06 Y150.05
G1 F1800 X245.58 Y147.53 E987.98920
G0 F12000 X245.58 Y148.19
G1 F1800 X243.72 Y150.05 E988.09124
G0 F12000 X244.38 Y150.05
G1 F1800 X245.58 Y148.84 E988.15716
G0 F12000 X245.58 Y149.50
G1 F1800 X245.04 Y150.05 E988.18697
G0 F12000 X232.24 Y143.73
G1 F1800 X247.27 Y128.71 E989.01048
G0 F12000 X246.61 Y128.71
G1 F1800 X232.24 Y143.07 E989.79787
G0 F12000 X232.24 Y142.42
G1 F1800 X245.95 Y128.71 E990.54915
G0 F12000 X245.29 Y128.71
G1 F1800 X232.24 Y141.76 E991.26432
G0 F12000 X232.24 Y141.10
G1 F1800 X244.63 Y128.71 E991.94338
G0 F12000 X243.97 Y128.71
G1 F1800 X232.24 Y140.44 E992.58632
G0 F12000 X232.24 Y139.78
G1 F1800 X243.31 Y128.71 E993.19315
G0 F12000 X242.65 Y128.71
G1 F1800 X232.24 Y139.12 E993.76388
G0 F12000 X232.24 Y138.46
G1 F1800 X241.99 Y128.71 E994.29849
G0 F12000 X241.34 Y128.71
G1 F1800 X232.24 Y137.80 E994.79698
G0 F12000 X232.24 Y137.14
G1 F1800 X240.68 Y128.71 E995.25937
G0 F12000 X240.02 Y128.71
G1 F1800 X232.24 Y136.49 E995.68564
G0 F12000 X232.24 Y135.83
G1 F1800 X239.36 Y128.71 E996.07580
G0 F12000 X238.70 Y128.71
G1 F1800 X232.24 Y135.17 E996.42983
G0 F12000 X232.24 Y134.51
G1 F1800 X238.04 Y128.71 E996.74774
G0 F12000 X237.38 Y128.71
G1 F1800 X232.24 Y133.85 E997.02954
G0 F12000 X232.24 Y133.19
G1 F1800 X236.72 Y128.71 E997.27522
G0 F12000 X236.06 Y128.71
G1 F1800 X232.24 Y132.53 E997.48480
G0 F12000 X232.24 Y131.87
G1 F1800 X235.40 Y128.71 E997.65826
G0 F12000 X234.75 Y128.71
G1 F1800 X232.24 Y131.21 E997.79561
G0 F12000 X232.24 Y130.55
G1 F1800 X234.09 Y128.71 E997.89685
G0 F12000 X233.43 Y128.71
G1 F1800 X232.24 Y129.89 E997.96198
G0 F12000 X232.24 Y129.24
G1 F1800 X232.77 Y128.71 E997.99100
G1 F2400 E996.79100
G0 F12000 X250.07 Y138.54
;TYPE:WALL-INNER
G1 F2400 E997.99100
G1 F1800 X255.75 Y138.54 E998.21070
G1 X255.75 Y160.21 E999.05033
G1 X226.07 Y160.21 E1000.19998
G1 X226.07 Y154.54 E1000.41968
G1 X250.07 Y154.54 E1001.34964
G1 X250.07 Y138.54 E1001.96957
G0 F12000 X249.61 Y138.08
G1 F1800 X256.21 Y138.08 E1002.22538
G1 X256.21 Y160.68 E1003.10113
G1 X225.61 Y160.68 E1004.28690
G1 X225.61 Y154.07 E1004.54271
G1 X249.61 Y154.07 E1005.47266
G1 X249.61 Y138.08 E1006.09259
G0 F12000 X249.14 Y137.61
;TYPE:WALL-OUTER
G1 F1800 X256.68 Y137.61 E1006.38452
G1 X256.68 Y161.14 E1007.29638
G1 X225.14 Y161.14 E1008.51826
G1 X225.14 Y153.61 E1008.81019
G1 X249.14 Y153.61 E1009.74014
G1 X249.14 Y137.61 E1010.36007
G0 F12000 X249.48 Y137.85
G0 X250.45 Y138.71
;TYPE:FILL
G1 F1800 X250.24 Y138.91 E1010.37153
G0 F12000 X250.24 Y139.57
G1 F1800 X251.11 Y138.71 E1010.41909
G0 F12000 X251.76 Y138.71
G1 F1800 X250.24 Y140.23 E1010.50277
G0 F12000 X250.24 Y140.89
G1 F1800 X252.42 Y138.71 E1010.62256
G0 F12000 X253.08 Y138.71
G1 F1800 X250.24 Y141.55 E1010.77846
G0 F12000 X250.24 Y142.21
G1 F1800 X253.74 Y138.71 E1010.97047
G0 F12000 X254.40 Y138.71
G1 F1800 X250.24 Y142.87 E1011.19859
G0 F12000 X250.24 Y143.53
G1 F1800 X255.06 Y138.71 E1011.46283
G0 F12000 X255.58 Y138.84
G1 F1800 X250.24 Y144.19 E1011.75556
G0 F12000 X250.24 Y144.85
G1 F1800 X255.58 Y139.50 E1012.04829
G0 F12000 X255.58 Y140.16
G1 F1800 X250.24 Y145.50 E1012.34102
G0 F12000 X250.24 Y146.16
G1 F1800 X255.58 Y140.82 E1012.63375
G0 F12000 X255.58 Y141.48
G1 F1800 X250.24 Y146.82 E1012.92648
G0 F12000 X250.24 Y147.48
G1 F1800 X255.58 Y142.14 E1013.21921
G0 F12000 X255.58 Y142.80
G1 F1800 X250.24 Y148.14 E1013.51195
G0 F12000 X250.24 Y148.80
G1 F1800 X255.58 Y143.46 E1013.80468
G0 F12000 X255.58 Y144.12
G1 F1800 X250.24 Y149.46 E1014.09741
G0 F12000 X250.24 Y150.12
G1 F1800 X255.58 Y144.78 E1014.39014
G0 F12000 X255.58 Y145.44
G1 F1800 X250.24 Y150.78 E1014.68287
G0 F12000 X250.24 Y151.44
G1 F1800 X255.58 Y146.09 E1014.97560
G0 F12000 X255.58 Y146.75
G1 F1800 X250.24 Y152.09 E1015.26833
G0 F12000 X250.24 Y152.75
G1 F1800 X255.58 Y147.41 E1015.56106
G0 F12000 X255.58 Y148.07
G1 F1800 X250.24 Y153.41 E1015.85379
G0 F12000 X250.24 Y154.07
G1 F1800 X255.58 Y148.73 E1016.14653
G0 F12000 X255.58 Y149.39
G1 F1800 X244.92 Y160.05 E1016.73056
G0 F12000 X245.58 Y160.05
G1 F1800 X255.58 Y150.05 E1017.27849
G0 F12000 X255.58 Y150.71
G1 F1800 X246.24 Y160.05 E1017.79030
G0 F12000 X246.90 Y160.05
G1 F1800 X255.58 Y151.37 E1018.26600
G0 F12000 X255.58 Y152.03
G1 F1800 X247.56 Y160.05 E1018.70559
G0 F12000 X248.22 Y160.05
G1 F1800 X255.58 Y152.68 E1019.10907
G0 F12000 X255.58 Y153.34
G1 F1800 X248.88 Y160.05 E1019.47644
G0 F12000 X249.53 Y160.05
G1 F1800 X255.58 Y154.00 E1019.80769
G0 F12000 X255.58 Y154.66
G1 F1800 X250.19 Y160.05 E1020.10283
G0 F12000 X250.85 Y160.05
G1 F1800 X255.58 Y155.32 E1020.36186
G0 F12000 X255.58 Y155.98
G1 F1800 X251.51 Y160.05 E1020.58478
G0 F12000 X252.17 Y160.05
G1 F1800 X255.58 Y156.64 E1020.77156
G0 F12000 X255.58 Y157.30
G1 F1800 X252.83 Y160.05 E1020.92223
G0 F12000 X253.49 Y160.05
G1 F1800 X255.58 Y157.96 E1021.03676
G0 F12000 X255.58 Y158.62
G1 F1800 X254.15 Y160.05 E1021.11517
G0 F12000 X254.81 Y160.05
G1 F1800 X255.58 Y159.28 E1021.15748
G0 F12000 X255.58 Y159.93
G1 F1800 X255.47 Y160.05 E1021.16367
G0 F12000 X249.60 Y154.71
G1 F1800 X244.26 Y160.05 E1021.45640
G0 F12000 X243.60 Y160.05
G1 F1800 X248.95 Y154.71 E1021.74913
G0 F12000 X248.29 Y154.71
G1 F1800 X242.94 Y160.05 E1022.04186
G0 F12000 X242.29 Y160.05
G1 F1800 X247.63 Y154.71 E1022.33459
G0 F12000 X246.97 Y154.71
G1 F1800 X241.63 Y160.05 E1022.62732
G0 F12000 X240.97 Y160.05
G1 F1800 X246.31 Y154.71 E1022.92005
G0 F12000 X245.65 Y154.71
G1 F1800 X240.31 Y160.05 E1023.21279
G0 F12000 X239.65 Y160.05
G1 F1800 X244.99 Y154.71 E1023.50552
G0 F12000 X244.33 Y154.71
G1 F1800 X238.99 Y160.05 E1023.79825
G0 F12000 X238.33 Y160.05
G1 F1800 X243.67 Y154.71 E1024.09098
G0 F12000 X243.01 Y154.71
G1 F1800 X237.67 Y160.05 E1024.38371
G0 F12000 X237.01 Y160.05
G1 F1800 X242.36 Y154.71 E1024.67644
G0 F12000 X241.70 Y154.71
G1 F1800 X236.35 Y160.05 E1024.96917
G0 F12000 X235.70 Y160.05
G1 F1800 X241.04 Y154.71 E1025.26190
G0 F12000 X240.38 Y154.71
G1 F1800 X235.04 Y160.05 E1025.55463
G0 F12000 X234.38 Y160.05
G1 F1800 X239.72 Y154.71 E1025.84737
G0 F12000 X239.06 Y154.71
G1 F1800 X233.72 Y160.05 E1026.14010
G0 F12000 X233.06 Y160.05
G1 F1800 X238.40 Y154.71 E1026.43283
G0 F12000 X237.74 Y154.71
G1 F1800 X232.40 Y160.05 E1026.72556
G0 F12000 X231.74 Y160.05
G1 F1800 X237.08 Y154.71 E1027.01829
G0 F12000 X236.43 Y154.71
G1 F1800 X231.08 Y160.05 E1027.31102
G0 F12000 X230.42 Y160.05
G1 F1800 X235.77 Y154.71 E1027.60375
G0 F12000 X235.11 Y154.71
G1 F1800 X229.76 Y160.05 E1027.89648
G0 F12000 X229.11 Y160.05
G1 F1800 X234.45 Y154.71 E1028.18921
G0 F12000 X233.79 Y154.71
G1 F1800 X228.45 Y160.05 E1028.48195
G0 F12000 X227.79 Y160.05
G1 F1800 X233.13 Y154.71 E1028.77468
G0 F12000 X232.47 Y154.71
G1 F1800 X227.13 Y160.05 E1029.06741
G0 F12000 X226.47 Y160.05
G1 F1800 X231.81 Y154.71 E1029.36014
G0 F12000 X231.15 Y154.71
G1 F1800 X226.24 Y159.62 E1029.62944
G0 F12000 X226.24 Y158.96
G1 F1800 X230.49 Y154.71 E1029.86264
G0 F12000 X229.84 Y154.71
G1 F1800 X226.24 Y158.30 E1030.05972
G0 F12000 X226.24 Y157.64
G1 F1800 X229.18 Y154.71 E1030.22069
G0 F12000 X228.52 Y154.71
G1 F1800 X226.24 Y156.98 E1030.34554
G0 F12000 X226.24 Y156.32
G1 F1800 X227.86 Y154.71 E1030.43429
G0 F12000 X227.20 Y154.71
G1 F1800 X226.24 Y155.66 E1030.48692
G0 F12000 X226.24 Y155.01
G1 F1800 X226.54 Y154.71 E1030.50344
G1 F2400 E1029.30344
G0 F12000 X226.07 Y164.54
;TYPE:WALL-INNER
G1 F2400 E1030.50344
G1 F1800 X255.75 Y164.54 E1031.65310
G1 X255.75 Y170.21 E1031.87280
G1 X239.75 Y170.21 E1032.49277
G1 X239.75 Y178.21 E1032.80275
G1 X234.07 Y178.21 E1033.02246
G1 X234.07 Y170.21 E1033.33244
G1 X226.07 Y170.21 E1033.64242
G1 X226.07 Y164.54 E1033.86213
G0 F12000 X225.61 Y164.07
G1 F1800 X256.21 Y164.07 E1035.04789
G1 X256.21 Y170.68 E1035.30371
G1 X240.21 Y170.68 E1035.92368
G1 X240.21 Y178.68 E1036.23366
G1 X233.61 Y178.68 E1036.48948
G1 X233.61 Y170.68 E1036.79946
G1 X225.61 Y170.68 E1037.10945
G1 X225.61 Y164.07 E1037.36526
G0 F12000 X225.14 Y163.61
;TYPE:WALL-OUTER
G1 F1800 X256.68 Y163.61 E1038.58714
G1 X256.68 Y171.14 E1038.87907
G1 X240.68 Y171.14 E1039.49904
G1 X240.68 Y179.14 E1039.80902
G1 X233.14 Y179.14 E1040.10095
G1 X233.14 Y171.14 E1040.41094
G1 X225.14 Y171.14 E1040.72092
G1 X225.14 Y163.61 E1041.01285
G0 F12000 X225.48 Y163.85
G0 X226.24 Y164.89
;TYPE:FILL
G1 F1800 X226.43 Y164.70 E1041.02309
G0 F12000 X227.08 Y164.70
G1 F1800 X226.24 Y165.55 E1041.06945
G0 F12000 X226.24 Y166.21
G1 F1800 X227.74 Y164.70 E1041.15192
G0 F12000 X228.40 Y164.70
G1 F1800 X226.24 Y166.87 E1041.27051
G0 F12000 X226.24 Y167.53
G1 F1800 X229.06 Y164.70 E1041.42520
G0 F12000 X229.72 Y164.70
G1 F1800 X226.24 Y168.19 E1041.61601
G0 F12000 X226.24 Y168.84
G1 F1800 X230.38 Y164.70 E1041.84293
G0 F12000 X231.04 Y164.70
G1 F1800 X226.24 Y169.50 E1042.10596
G0 F12000 X226.35 Y170.05
G1 F1800 X231.70 Y164.70 E1042.39872
G0 F12000 X232.36 Y164.70
G1 F1800 X227.01 Y170.05 E1042.69148
G0 F12000 X227.67 Y170.05
G1 F1800 X233.01 Y164.70 E1042.98423
G0 F12000 X233.67 Y164.70
G1 F1800 X228.33 Y170.05 E1043.27699
G0 F12000 X228.99 Y170.05
G1 F1800 X234.33 Y164.70 E1043.56975
G0 F12000 X234.99 Y164.70
G1 F1800 X229.65 Y170.05 E1043.86251
G0 F12000 X230.31 Y170.05
G1 F1800 X235.65 Y164.70 E1044.15527
G0 F12000 X236.31 Y164.70
G1 F1800 X230.97 Y170.05 E1044.44803
G0 F12000 X231.63 Y170.05
G1 F1800 X236.97 Y164.70 E1044.74078
G0 F12000 X237.63 Y164.70
G1 F1800 X232.29 Y170.05 E1045.03354
G0 F12000 X232.94 Y170.05
G1 F1800 X238.29 Y164.70 E1045.32630
G0 F12000 X238.95 Y164.70
G1 F1800 X233.60 Y170.05 E1045.61906
G0 F12000 X234.24 Y170.07
G1 F1800 X239.60 Y164.70 E1045.91319
G0 F12000 X240.26 Y164.70
G1 F1800 X234.24 Y170.73 E1046.24343
G0 F12000 X234.24 Y171.39
G1 F1800 X240.92 Y164.70 E1046.60981
G0 F12000 X241.58 Y164.70
G1 F1800 X234.24 Y172.05 E1047.01230
G0 F12000 X234.24 Y172.71
G1 F1800 X242.24 Y164.70 E1047.45090
G0 F12000 X242.90 Y164.70
G1 F1800 X234.24 Y173.37 E1047.92562
G0 F12000 X234.24 Y174.03
G1 F1800 X243.56 Y164.70 E1048.43645
G0 F12000 X244.22 Y164.70
G1 F1800 X234.24 Y174.69 E1048.98339
G0 F12000 X234.24 Y175.34
G1 F1800 X244.88 Y164.70 E1049.56644
G0 F12000 X245.54 Y164.70
G1 F1800 X240.19 Y170.05 E1049.85922
G0 F12000 X240.85 Y170.05
G1 F1800 X246.20 Y164.70 E1050.15198
G0 F12000 X246.85 Y164.70
G1 F1800 X241.51 Y170.05 E1050.44474
G0 F12000 X242.17 Y170.05
G1 F1800 X247.51 Y164.70 E1050.73750
G0 F12000 X248.17 Y164.70
G1 F1800 X242.83 Y170.05 E1051.03026
G0 F12000 X243.49 Y170.05
G1 F1800 X248.83 Y164.70 E1051.32301
G0 F12000 X249.49 Y164.70
G1 F1800 X244.15 Y170.05 E1051.61577
G0 F12000 X244.81 Y170.05
G1 F1800 X250.15 Y164.70 E1051.90853
G0 F12000 X250.81 Y164.70
G1 F1800 X245.47 Y170.05 E1052.20129
G0 F12000 X246.13 Y170.05
G1 F1800 X251.47 Y164.70 E1052.49405
G0 F12000 X252.13 Y164.70
G1 F1800 X246.78 Y170.05 E1052.78681
G0 F12000 X247.44 Y170.05
G1 F1800 X252.79 Y164.70 E1053.07957
G0 F12000 X253.44 Y164.70
G1 F1800 X248.10 Y170.05 E1053.37232
G0 F12000 X248.76 Y170.05
G1 F1800 X254.10 Y164.70 E1053.66508
G0 F12000 X254.76 Y164.70
G1 F1800 X249.42 Y170.05 E1053.95784
G0 F12000 X250.08 Y170.05
G1 F1800 X255.42 Y164.70 E1054.25060
G0 F12000 X255.58 Y165.21
G1 F1800 X250.74 Y170.05 E1054.51588
G0 F12000 X251.40 Y170.05
G1 F1800 X255.58 Y165.87 E1054.74504
G0 F12000 X255.58 Y166.52
G1 F1800 X252.06 Y170.05 E1054.93810
G0 F12000 X252.72 Y170.05
G1 F1800 X255.58 Y167.18 E1055.09504
G0 F12000 X255.58 Y167.84
G1 F1800 X253.38 Y170.05 E1055.21587
G0 F12000 X254.03 Y170.05
G1 F1800 X255.58 Y168.50 E1055.30058
G0 F12000 X255.58 Y169.16
G1 F1800 X254.69 Y170.05 E1055.34919
G0 F12000 X255.35 Y170.05
G1 F1800 X255.58 Y169.82 E1055.36168
G0 F12000 X239.58 Y170.66
G1 F1800 X234.24 Y176.00 E1055.65436
G0 F12000 X234.24 Y176.66
G1 F1800 X239.58 Y171.32 E1055.94704
G0 F12000 X239.58 Y171.98
G1 F1800 X234.24 Y177.32 E1056.23971
G0 F12000 X234.24 Y177.98
G1 F1800 X239.58 Y172.64 E1056.53239
G0 F12000 X239.58 Y173.30
G1 F1800 X234.83 Y178.05 E1056.79262
G0 F12000 X235.49 Y178.05
G1 F1800 X239.58 Y173.96 E1057.01675
G0 F12000 X239.58 Y174.62
G1 F1800 X236.15 Y178.05 E1057.20476
G0 F12000 X236.81 Y178.05
G1 F1800 X239.58 Y175.28 E1057.35666
G0 F12000 X239.58 Y175.93
G1 F1800 X237.47 Y178.05 E1057.47245
G0 F12000 X238.12 Y178.05
G1 F1800 X239.58 Y176.59 E1057.55213
G0 F12000 X239.58 Y177.25
G1 F1800 X238.78 Y178.05 E1057.59566
G0 F12000 X239.44 Y178.05
G1 F1800 X239.58 Y177.91 E1057.60309
G1 F2400 E1056.40309
G0 F12000 X229.75 Y180.21
;TYPE:WALL-INNER
G1 F2400 E1057.60309
G1 F1800 X216.07 Y180.21 E1058.13277
G1 X216.07 Y158.54 E1058.97244
G1 X221.75 Y158.54 E1059.19215
G1 X221.75 Y174.54 E1059.81211
G1 X229.75 Y174.54 E1060.12210
G1 X229.75 Y180.21 E1060.34180
G0 F12000 X230.21 Y180.68
G1 F1800 X215.61 Y180.68 E1060.90760
G1 X215.61 Y158.07 E1061.78338
G1 X222.21 Y158.07 E1062.03920
G1 X222.21 Y174.07 E1062.65917
G1 X230.21 Y174.07 E1062.96915
G1 X230.21 Y180.68 E1063.22497
G0 F12000 X230.68 Y181.14
;TYPE:WALL-OUTER
G1 F1800 X215.14 Y181.14 E1063.82688
G1 X215.14 Y157.61 E1064.73877
G1 X222.68 Y157.61 E1065.03070
G1 X222.68 Y173.61 E1065.65067
G1 X230.68 Y173.61 E1065.96066
G1 X230.68 Y181.14 E1066.25258
G0 F12000 X230.34 Y180.90
G0 X228.88 Y180.05
;TYPE:FILL
G1 F1800 X229.58 Y179.34 E1066.29108
G0 F12000 X229.58 Y178.69
G1 F1800 X228.22 Y180.05 E1066.36569
G0 F12000 X227.56 Y180.05
G1 F1800 X229.58 Y178.03 E1066.47643
G0 F12000 X229.58 Y177.37
G1 F1800 X226.90 Y180.05 E1066.62329
G0 F12000 X226.24 Y180.05
G1 F1800 X229.58 Y176.71 E1066.80626
G0 F12000 X229.58 Y176.05
G1 F1800 X225.58 Y180.05 E1067.02535
G0 F12000 X224.92 Y180.05
G1 F1800 X229.58 Y175.39 E1067.28054
G0 F12000 X229.58 Y174.73
G1 F1800 X224.26 Y180.05 E1067.57185
G0 F12000 X223.60 Y180.05
G1 F1800 X228.95 Y174.70 E1067.86463
G0 F12000 X228.29 Y174.70
G1 F1800 X222.94 Y180.05 E1068.15742
G0 F12000 X222.29 Y180.05
G1 F1800 X227.63 Y174.70 E1068.45018
G0 F12000 X226.97 Y174.70
G1 F1800 X221.63 Y180.05 E1068.74294
G0 F12000 X220.97 Y180.05
G1 F1800 X226.31 Y174.70 E1069.03569
G0 F12000 X225.65 Y174.70
G1 F1800 X220.31 Y180.05 E1069.32845
G0 F12000 X219.65 Y180.05
G1 F1800 X224.99 Y174.70 E1069.62121
G0 F12000 X224.33 Y174.70
G1 F1800 X218.99 Y180.05 E1069.91397
G0 F12000 X218.33 Y180.05
G1 F1800 X223.67 Y174.70 E1070.20673
G0 F12000 X223.01 Y174.70
G1 F1800 X217.67 Y180.05 E1070.49949
G0 F12000 X217.01 Y180.05
G1 F1800 X222.36 Y174.70 E1070.79224
G0 F12000 X221.70 Y174.70
G1 F1800 X216.35 Y180.05 E1071.08500
G0 F12000 X216.24 Y179.50
G1 F1800 X221.58 Y174.16 E1071.37773
G0 F12000 X221.58 Y173.50
G1 F1800 X216.24 Y178.85 E1071.67047
G0 F12000 X216.24 Y178.19
G1 F1800 X221.58 Y172.84 E1071.96320
G0 F12000 X221.58 Y172.19
G1 F1800 X216.24 Y177.53 E1072.25593
G0 F12000 X216.24 Y176.87
G1 F1800 X221.58 Y171.53 E1072.54866
G0 F12000 X221.58 Y170.87
G1 F1800 X216.24 Y176.21 E1072.84139
G0 F12000 X216.24 Y175.55
G1 F1800 X221.58 Y170.21 E1073.13412
G0 F12000 X221.58 Y169.55
G1 F1800 X216.24 Y174.89 E1073.42685
G0 F12000 X216.24 Y174.23
G1 F1800 X221.58 Y168.89 E1073.71958
G0 F12000 X221.58 Y168.23
G1 F1800 X216.24 Y173.57 E1074.01231
G0 F12000 X216.24 Y172.91
G1 F1800 X221.58 Y167.57 E1074.30507
G0 F12000 X221.58 Y166.91
G1 F1800 X216.24 Y172.26 E1074.59783
G0 F12000 X216.24 Y171.60
G1 F1800 X221.58 Y166.25 E1074.89059
G0 F12000 X221.58 Y165.59
G1 F1800 X216.24 Y170.94 E1075.18335
G0 F12000 X216.24 Y170.28
G1 F1800 X221.58 Y164.94 E1075.47611
G0 F12000 X221.58 Y164.28
G1 F1800 X216.24 Y169.62 E1075.76886
G0 F12000 X216.24 Y168.96
G1 F1800 X221.58 Y163.62 E1076.06162
G0 F12000 X221.58 Y162.96
G1 F1800 X216.24 Y168.30 E1076.35438
G0 F12000 X216.24 Y167.64
G1 F1800 X221.58 Y162.30 E1076.64711
G0 F12000 X221.58 Y161.64
G1 F1800 X216.24 Y166.98 E1076.93984
G0 F12000 X216.24 Y166.32
G1 F1800 X221.58 Y160.98 E1077.23257
G0 F12000 X221.58 Y160.32
G1 F1800 X216.24 Y165.66 E1077.52531
G0 F12000 X216.24 Y165.01
G1 F1800 X221.58 Y159.66 E1077.81804
G0 F12000 X221.58 Y159.00
G1 F1800 X216.24 Y164.35 E1078.11077
G0 F12000 X216.24 Y163.69
G1 F1800 X221.22 Y158.70 E1078.38388
G0 F12000 X220.56 Y158.70
G1 F1800 X216.24 Y163.03 E1078.62088
G0 F12000 X216.24 Y162.37
G1 F1800 X219.90 Y158.70 E1078.82177
G0 F12000 X219.25 Y158.70
G1 F1800 X216.24 Y161.71 E1078.98655
G0 F12000 X216.24 Y161.05
G1 F1800 X218.59 Y158.70 E1079.11522
G0 F12000 X217.93 Y158.70
G1 F1800 X216.24 Y160.39 E1079.20777
G0 F12000 X216.24 Y159.73
G1 F1800 X217.27 Y158.70 E1079.26421
G0 F12000 X216.61 Y158.70
G1 F1800 X216.24 Y159.07 E1079.28454
G1 F2400 E1078.08454
G0 F12000 X209.75 Y162.54
;TYPE:WALL-INNER
G1 F2400 E1079.28454
G1 F1800 X209.75 Y168.21 E1079.50424
G1 X196.07 Y168.21 E1080.03393
G1 X196.07 Y154.54 E1080.56361
G1 X201.75 Y154.54 E1080.78332
G1 X201.75 Y162.54 E1081.09330
G1 X209.75 Y162.54 E1081.40329
G0 F12000 X210.21 Y162.07
G1 F1800 X210.21 Y168.68 E1081.65910
G1 X195.61 Y168.68 E1082.22490
G1 X195.61 Y154.07 E1082.79070
G1 X202.21 Y154.07 E1083.04651
G1 X202.21 Y162.07 E1083.35650
G1 X210.21 Y162.07 E1083.66648
G0 F12000 X210.68 Y161.61
;TYPE:WALL-OUTER
G1 F1800 X210.68 Y169.14 E1083.95841
G1 X195.14 Y169.14 E1084.56032
G1 X195.14 Y153.61 E1085.16223
G1 X202.68 Y153.61 E1085.45416
G1 X202.68 Y161.61 E1085.76415
G1 X210.68 Y161.61 E1086.07413
G0 F12000 X210.43 Y161.94
G0 X209.31 Y162.70
;TYPE:FILL
G1 F1800 X203.97 Y168.05 E1086.36692
G0 F12000 X204.63 Y168.05
G1 F1800 X209.58 Y163.10 E1086.63817
G0 F12000 X209.58 Y163.76
G1 F1800 X205.29 Y168.05 E1086.87331
G0 F12000 X205.95 Y168.05
G1 F1800 X209.58 Y164.41 E1087.07233
G0 F12000 X209.58 Y165.07
G1 F1800 X206.61 Y168.05 E1087.23525
G0 F12000 X207.27 Y168.05
G1 F1800 X209.58 Y165.73 E1087.36205
G0 F12000 X209.58 Y166.39
G1 F1800 X207.93 Y168.05 E1087.45274
G0 F12000 X208.58 Y168.05
G1 F1800 X209.58 Y167.05 E1087.50732
G0 F12000 X209.58 Y167.71
G1 F1800 X209.24 Y168.05 E1087.52579
G0 F12000 X208.66 Y162.70
G1 F1800 X203.31 Y168.05 E1087.81857
G0 F12000 X202.65 Y168.05
G1 F1800 X208.00 Y162.70 E1088.11136
G0 F12000 X207.34 Y162.70
G1 F1800 X201.99 Y168.05 E1088.40414
G0 F12000 X201.34 Y168.05
G1 F1800 X206.68 Y162.70 E1088.69693
G0 F12000 X206.02 Y162.70
G1 F1800 X200.68 Y168.05 E1088.98972
G0 F12000 X200.02 Y168.05
G1 F1800 X205.36 Y162.70 E1089.28250
G0 F12000 X204.70 Y162.70
G1 F1800 X199.36 Y168.05 E1089.57529
G0 F12000 X198.70 Y168.05
G1 F1800 X204.04 Y162.70 E1089.86807
G0 F12000 X203.38 Y162.70
G1 F1800 X198.04 Y168.05 E1090.16086
G0 F12000 X197.38 Y168.05
G1 F1800 X202.72 Y162.70 E1090.45362
G0 F12000 X202.06 Y162.70
G1 F1800 X196.72 Y168.05 E1090.74638
G0 F12000 X196.24 Y167.87
G1 F1800 X201.58 Y162.53 E1091.03913
G0 F12000 X201.58 Y161.87
G1 F1800 X196.24 Y167.21 E1091.33189
G0 F12000 X196.24 Y166.55
G1 F1800 X201.58 Y161.21 E1091.62465
G0 F12000 X201.58 Y160.55
G1 F1800 X196.24 Y165.90 E1091.91741
G0 F12000 X196.24 Y165.24
G1 F1800 X201.58 Y159.89 E1092.21017
G0 F12000 X201.58 Y159.23
G1 F1800 X196.24 Y164.58 E1092.50290
G0 F12000 X196.24 Y163.92
G1 F1800 X201.58 Y158.57 E1092.79563
G0 F12000 X201.58 Y157.92
G1 F1800 X196.24 Y163.26 E1093.08836
G0 F12000 X196.24 Y162.60
G1 F1800 X201.58 Y157.26 E1093.38109
G0 F12000 X201.58 Y156.60
G1 F1800 X196.24 Y161.94 E1093.67382
G0 F12000 X196.24 Y161.28
G1 F1800 X201.58 Y155.94 E1093.96655
G0 F12000 X201.58 Y155.28
G1 F1800 X196.24 Y160.62 E1094.25929
G0 F12000 X196.24 Y159.96
G1 F1800 X201.50 Y154.71 E1094.54744
G0 F12000 X200.84 Y154.71
G1 F1800 X196.24 Y159.30 E1094.79948
G0 F12000 X196.24 Y158.65
G1 F1800 X200.18 Y154.71 E1095.01542
G0 F12000 X199.52 Y154.71
G1 F1800 X196.24 Y157.99 E1095.19524
G0 F12000 X196.24 Y157.33
G1 F1800 X198.86 Y154.71 E1095.33894
G0 F12000 X198.20 Y154.71
G1 F1800 X196.24 Y156.67 E1095.44654
G0 F12000 X196.24 Y156.01
G1 F1800 X197.54 Y154.71 E1095.51802
G0 F12000 X196.88 Y154.71
G1 F1800 X196.24 Y155.35 E1095.55337
G1 F2400 E1094.35337
G0 F12000 X198.07 Y150.21
;TYPE:WALL-INNER
G1 F2400 E1095.55337
G1 F1800 X198.07 Y144.54 E1095.77307
G1 X206.07 Y144.54 E1096.08305
G1 X206.07 Y136.54 E1096.39304
G1 X211.75 Y136.54 E1096.61274
G1 X211.75 Y144.54 E1096.92272
G1 X219.75 Y144.54 E1097.23271
G1 X219.75 Y150.21 E1097.45241
G1 X211.75 Y150.21 E1097.76239
G1 X211.75 Y158.21 E1098.07234
G1 X206.07 Y158.21 E1098.29204
G1 X206.07 Y150.21 E1098.60199
G1 X198.07 Y150.21 E1098.91197
G0 F12000 X197.61 Y150.68
G1 F1800 X197.61 Y144.08 E1099.16779
G1 X205.61 Y144.08 E1099.47777
G1 X205.61 Y136.08 E1099.78776
G1 X212.21 Y136.08 E1100.04357
G1 X212.21 Y144.08 E1100.35355
G1 X220.21 Y144.08 E1100.66354
G1 X220.21 Y150.68 E1100.91935
G1 X212.21 Y150.68 E1101.22934
G1 X212.21 Y158.68 E1101.53928
G1 X205.61 Y158.68 E1101.79510
G1 X205.61 Y150.68 E1102.10504
G1 X197.61 Y150.68 E1102.41503
G0 F12000 X197.14 Y151.14
;TYPE:WALL-OUTER
G1 F1800 X197.14 Y143.61 E1102.70696
G1 X205.14 Y143.61 E1103.01694
G1 X205.14 Y135.61 E1103.32693
G1 X212.68 Y135.61 E1103.61885
G1 X212.68 Y143.61 E1103.92884
G1 X220.68 Y143.61 E1104.23882
G1 X220.68 Y151.14 E1104.53075
G1 X212.68 Y151.14 E1104.84073
G1 X212.68 Y159.14 E1105.15068
G1 X205.14 Y159.14 E1105.44261
G1 X205.14 Y151.14 E1105.75255
G1 X197.14 Y151.14 E1106.06254
G0 F12000 X197.39 Y150.81
G0 X198.25 Y150.05
;TYPE:FILL
G1 F1800 X203.59 Y144.71 E1106.35532
G0 F12000 X204.25 Y144.71
G1 F1800 X198.90 Y150.05 E1106.64811
G0 F12000 X199.56 Y150.05
G1 F1800 X204.91 Y144.71 E1106.94090
G0 F12000 X205.56 Y144.71
G1 F1800 X200.22 Y150.05 E1107.23368
G0 F12000 X200.88 Y150.05
G1 F1800 X206.22 Y144.71 E1107.52647
G0 F12000 X206.24 Y144.69
G1 F1800 X211.58 Y139.35 E1107.81914
G0 F12000 X211.58 Y140.01
G1 F1800 X201.54 Y150.05 E1108.36926
G0 F12000 X202.20 Y150.05
G1 F1800 X211.58 Y140.67 E1108.88324
G0 F12000 X211.58 Y141.33
G1 F1800 X202.86 Y150.05 E1109.36111
G0 F12000 X203.52 Y150.05
G1 F1800 X211.58 Y141.99 E1109.80286
G0 F12000 X211.58 Y142.65
G1 F1800 X204.18 Y150.05 E1110.20850
G0 F12000 X204.84 Y150.05
G1 F1800 X211.58 Y143.30 E1110.57803
G0 F12000 X211.58 Y143.96
G1 F1800 X205.50 Y150.05 E1110.91145
G0 F12000 X206.15 Y150.05
G1 F1800 X211.58 Y144.62 E1111.20876
G0 F12000 X212.16 Y144.71
G1 F1800 X206.24 Y150.62 E1111.53300
G0 F12000 X206.24 Y151.28
G1 F1800 X212.81 Y144.71 E1111.89335
G0 F12000 X213.47 Y144.71
G1 F1800 X206.24 Y151.94 E1112.28981
G0 F12000 X206.24 Y152.60
G1 F1800 X214.13 Y144.71 E1112.72242
G0 F12000 X214.79 Y144.71
G1 F1800 X206.24 Y153.26 E1113.19113
G0 F12000 X206.24 Y153.92
G1 F1800 X215.45 Y144.71 E1113.69596
G0 F12000 X216.11 Y144.71
G1 F1800 X206.24 Y154.58 E1114.23690
G0 F12000 X206.24 Y155.24
G1 F1800 X216.77 Y144.71 E1114.81395
G0 F12000 X217.43 Y144.71
G1 F1800 X212.09 Y150.05 E1115.10671
G0 F12000 X212.74 Y150.05
G1 F1800 X218.09 Y144.71 E1115.39947
G0 F12000 X218.75 Y144.71
G1 F1800 X213.40 Y150.05 E1115.69222
G0 F12000 X214.06 Y150.05
G1 F1800 X219.40 Y144.71 E1115.98498
G0 F12000 X219.58 Y145.19
G1 F1800 X214.72 Y150.05 E1116.25122
G0 F12000 X215.38 Y150.05
G1 F1800 X219.58 Y145.85 E1116.48134
G0 F12000 X219.58 Y146.51
G1 F1800 X216.04 Y150.05 E1116.67535
G0 F12000 X216.70 Y150.05
G1 F1800 X219.58 Y147.17 E1116.83326
G0 F12000 X219.58 Y147.82
G1 F1800 X217.36 Y150.05 E1116.95504
G0 F12000 X218.02 Y150.05
G1 F1800 X219.58 Y148.48 E1117.04072
G0 F12000 X219.58 Y149.14
G1 F1800 X218.68 Y150.05 E1117.09029
G0 F12000 X219.33 Y150.05
G1 F1800 X219.58 Y149.80 E1117.10374
G0 F12000 X211.58 Y150.55
G1 F1800 X206.24 Y155.90 E1117.39650
G0 F12000 X206.24 Y156.55
G1 F1800 X211.58 Y151.21 E1117.68926
G0 F12000 X211.58 Y151.87
G1 F1800 X206.24 Y157.21 E1117.98201
G0 F12000 X206.24 Y157.87
G1 F1800 X211.58 Y152.53 E1118.27475
G0 F12000 X211.58 Y153.19
G1 F1800 X206.72 Y158.05 E1118.54098
G0 F12000 X207.38 Y158.05
G1 F1800 X211.58 Y153.85 E1118.77111
G0 F12000 X211.58 Y154.51
G1 F1800 X208.04 Y158.05 E1118.96509
G0 F12000 X208.70 Y158.05
G1 F1800 X211.58 Y155.17 E1119.12296
G0 F12000 X211.58 Y155.82
G1 F1800 X209.36 Y158.05 E1119.24472
G0 F12000 X210.02 Y158.05
G1 F1800 X211.58 Y156.48 E1119.33037
G0 F12000 X211.58 Y157.14
G1 F1800 X210.68 Y158.05 E1119.37991
G0 F12000 X211.34 Y158.05
G1 F1800 X211.58 Y157.80 E1119.39334
G0 F12000 X206.24 Y144.03
G1 F1800 X211.58 Y138.69 E1119.68601
G0 F12000 X211.58 Y138.03
G1 F1800 X206.24 Y143.37 E1119.97869
G0 F12000 X206.24 Y142.71
G1 F1800 X211.58 Y137.37 E1120.27137
G0 F12000 X211.58 Y136.71
G1 F1800 X206.24 Y142.06 E1120.56404
G0 F12000 X206.24 Y141.40
G1 F1800 X210.93 Y136.71 E1120.82110
G0 F12000 X210.27 Y136.71
G1 F1800 X206.24 Y140.74 E1121.04205
G0 F12000 X206.24 Y140.08
G1 F1800 X209.61 Y136.71 E1121.22688
G0 F12000 X208.95 Y136.71
G1 F1800 X206.24 Y139.42 E1121.37560
G0 F12000 X206.24 Y138.76
G1 F1800 X208.29 Y136.71 E1121.48821
G0 F12000 X207.63 Y136.71
G1 F1800 X206.24 Y138.10 E1121.56471
G0 F12000 X206.24 Y137.44
G1 F1800 X206.97 Y136.71 E1121.60510
G0 F12000 X206.32 Y136.71
G1 F1800 X206.24 Y136.78 E1121.60937
G0 F12000 X205.52 Y143.98
G0 X202.93 Y144.71
G1 F1800 X198.24 Y149.40 E1121.86643
G0 F12000 X198.24 Y148.74
G1 F1800 X202.27 Y144.71 E1122.08737
G0 F12000 X201.61 Y144.71
G1 F1800 X198.24 Y148.08 E1122.27218
G0 F12000 X198.24 Y147.42
G1 F1800 X200.95 Y144.71 E1122.42087
G0 F12000 X200.29 Y144.71
G1 F1800 X198.24 Y146.76 E1122.53346
G0 F12000 X198.24 Y146.10
G1 F1800 X199.63 Y144.71 E1122.60990
G0 F12000 X198.97 Y144.71
G1 F1800 X198.24 Y145.44 E1122.65023
G0 F12000 X198.24 Y144.78
G1 F1800 X198.31 Y144.71 E1122.65445
G1 F2400 E1121.45445
G0 F12000 X208.07 Y132.21
;TYPE:WALL-INNER
G1 F2400 E1122.65445
G1 F1800 X208.07 Y126.54 E1122.87415
G1 X221.75 Y126.54 E1123.40384
G1 X221.75 Y140.21 E1123.93352
G1 X216.07 Y140.21 E1124.15322
G1 X216.07 Y132.21 E1124.46321
G1 X208.07 Y132.21 E1124.77319
G0 F12000 X207.61 Y132.68
G1 F1800 X207.61 Y126.08 E1125.02901
G1 X222.21 Y126.08 E1125.59481
G1 X222.21 Y140.68 E1126.16061
G1 X215.61 Y140.68 E1126.41642
G1 X215.61 Y132.68 E1126.72641
G1 X207.61 Y132.68 E1127.03639
G0 F12000 X207.14 Y133.14
;TYPE:WALL-OUTER
G1 F1800 X207.14 Y125.61 E1127.32832
G1 X222.68 Y125.61 E1127.93023
G1 X222.68 Y141.14 E1128.53214
G1 X215.14 Y141.14 E1128.82407
G1 X215.14 Y133.14 E1129.13406
G1 X207.14 Y133.14 E1129.44404
G0 F12000 X207.39 Y132.81
G0 X208.34 Y132.05
;TYPE:FILL
G1 F1800 X213.68 Y126.70 E1129.73677
G0 F12000 X214.34 Y126.70
G1 F1800 X209.00 Y132.05 E1130.02950
G0 F12000 X209.66 Y132.05
G1 F1800 X215.00 Y126.70 E1130.32223
G0 F12000 X215.66 Y126.70
G1 F1800 X210.31 Y132.05 E1130.61496
G0 F12000 X210.97 Y132.05
G1 F1800 X216.31 Y126.70 E1130.90770
G0 F12000 X216.97 Y126.70
G1 F1800 X211.63 Y132.05 E1131.20045
G0 F12000 X212.29 Y132.05
G1 F1800 X217.63 Y126.70 E1131.49321
G0 F12000 X218.29 Y126.70
G1 F1800 X212.95 Y132.05 E1131.78597
G0 F12000 X213.61 Y132.05
G1 F1800 X218.95 Y126.70 E1132.07873
G0 F12000 X219.61 Y126.70
G1 F1800 X214.27 Y132.05 E1132.37149
G0 F12000 X214.93 Y132.05
G1 F1800 X220.27 Y126.70 E1132.66425
G0 F12000 X220.93 Y126.70
G1 F1800 X215.59 Y132.05 E1132.95700
G0 F12000 X216.24 Y132.06
G1 F1800 X221.58 Y126.71 E1133.24974
G0 F12000 X221.58 Y127.37
G1 F1800 X216.24 Y132.71 E1133.54247
G0 F12000 X216.24 Y133.37
G1 F1800 X221.58 Y128.03 E1133.83520
G0 F12000 X221.58 Y128.69
G1 F1800 X216.24 Y134.03 E1134.12793
G0 F12000 X216.24 Y134.69
G1 F1800 X221.58 Y129.35 E1134.42066
G0 F12000 X221.58 Y130.01
G1 F1800 X216.24 Y135.35 E1134.71339
G0 F12000 X216.24 Y136.01
G1 F1800 X221.58 Y130.67 E1135.00612
G0 F12000 X221.58 Y131.33
G1 F1800 X216.24 Y136.67 E1135.29885
G0 F12000 X216.24 Y137.33
G1 F1800 X221.58 Y131.99 E1135.59158
G0 F12000 X221.58 Y132.64
G1 F1800 X216.24 Y137.99 E1135.88431
G0 F12000 X216.24 Y138.65
G1 F1800 X221.58 Y133.30 E1136.17705
G0 F12000 X221.58 Y133.96
G1 F1800 X216.24 Y139.30 E1136.46978
G0 F12000 X216.24 Y139.96
G1 F1800 X221.58 Y134.62 E1136.76251
G0 F12000 X221.58 Y135.28
G1 F1800 X216.81 Y140.05 E1137.02376
G0 F12000 X217.47 Y140.05
G1 F1800 X221.58 Y135.94 E1137.24890
G0 F12000 X221.58 Y136.60
G1 F1800 X218.13 Y140.05 E1137.43792
G0 F12000 X218.79 Y140.05
G1 F1800 X221.58 Y137.26 E1137.59084
G0 F12000 X221.58 Y137.92
G1 F1800 X219.45 Y140.05 E1137.70764
G0 F12000 X220.11 Y140.05
G1 F1800 X221.58 Y138.57 E1137.78833
G0 F12000 X221.58 Y139.23
G1 F1800 X220.77 Y140.05 E1137.83291
G0 F12000 X221.43 Y140.05
G1 F1800 X221.58 Y139.89 E1137.84134
G0 F12000 X213.02 Y126.70
G1 F1800 X208.24 Y131.49 E1138.10339
G0 F12000 X208.24 Y130.83
G1 F1800 X212.36 Y126.70 E1138.32932
G0 F12000 X211.70 Y126.70
G1 F1800 X208.24 Y130.17 E1138.51914
G0 F12000 X208.24 Y129.51
G1 F1800 X211.04 Y126.70 E1138.67285
G0 F12000 X210.38 Y126.70
G1 F1800 X208.24 Y128.85 E1138.79045
G0 F12000 X208.24 Y128.19
G1 F1800 X209.72 Y126.70 E1138.87193
G0 F12000 X209.07 Y126.70
G1 F1800 X208.24 Y127.53 E1138.91730
G0 F12000 X208.24 Y126.87
G1 F1800 X208.41 Y126.70 E1138.92656
;LAYER:2
G0 F12000 X208.07 Y126.54 Z0.70
;TYPE:WALL-INNER
G1 F1800 X221.75 Y126.54 E1139.45625
G1 X221.75 Y140.21 E1139.98594
G1 X216.07 Y140.21 E1140.20564
G1 X216.07 Y132.21 E1140.51562
G1 X208.07 Y132.21 E1140.82561
G1 X208.07 Y126.54 E1141.04531
G0 F12000 X207.61 Y126.08
G1 F1800 X222.21 Y126.08 E1141.61111
G1 X222.21 Y140.68 E1142.17691
G1 X215.61 Y140.68 E1142.43272
G1 X215.61 Y132.68 E1142.74271
G1 X207.61 Y132.68 E1143.05269
G1 X207.61 Y126.08 E1143.30850
G0 F12000 X207.14 Y125.61
;TYPE:WALL-OUTER
G1 F1800 X222.68 Y125.61 E1143.91042
G1 X222.68 Y141.14 E1144.51233
G1 X215.14 Y141.14 E1144.80426
G1 X215.14 Y133.14 E1145.11424
G1 X207.14 Y133.14 E1145.42423
G1 X207.14 Y125.61 E1145.71615
G0 F12000 X207.48 Y125.85
G0 X208.24 Y126.85
;TYPE:FILL
G1 F1800 X213.44 Y132.05 E1146.00108
G0 F12000 X212.78 Y132.05
G1 F1800 X208.24 Y127.51 E1146.24989
G0 F12000 X208.24 Y128.17
G1 F1800 X212.12 Y132.05 E1146.46259
G0 F12000 X211.46 Y132.05
G1 F1800 X208.24 Y128.82 E1146.63917
G0 F12000 X208.24 Y129.48
G1 F1800 X210.80 Y132.05 E1146.77965
G0 F12000 X210.14 Y132.05
G1 F1800 X208.24 Y130.14 E1146.88401
G0 F12000 X208.24 Y130.80
G1 F1800 X209.48 Y132.05 E1146.95226
G0 F12000 X208.82 Y132.05
G1 F1800 X208.24 Y131.46 E1146.98440
G0 F12000 X208.75 Y126.71
G1 F1800 X214.10 Y132.05 E1147.27710
G0 F12000 X214.75 Y132.05
G1 F1800 X209.41 Y126.71 E1147.56981
G0 F12000 X210.07 Y126.71
G1 F1800 X215.41 Y132.05 E1147.86251
G0 F12000 X216.07 Y132.05
G1 F1800 X210.73 Y126.71 E1148.15521
G0 F12000 X211.39 Y126.71
G1 F1800 X221.58 Y136.90 E1148.71358
G0 F12000 X221.58 Y137.55
G1 F1800 X216.24 Y132.21 E1149.00631
G0 F12000 X216.24 Y132.87
G1 F1800 X221.58 Y138.21 E1149.29904
G0 F12000 X221.58 Y138.87
G1 F1800 X216.24 Y133.53 E1149.59177
G0 F12000 X216.24 Y134.19
G1 F1800 X221.58 Y139.53 E1149.88450
G0 F12000 X221.44 Y140.05
G1 F1800 X216.24 Y134.85 E1150.16937
G0 F12000 X216.24 Y135.51
G1 F1800 X220.78 Y140.05 E1150.41813
G0 F12000 X220.12 Y140.05
G1 F1800 X216.24 Y136.17 E1150.63077
G0 F12000 X216.24 Y136.82
G1 F1800 X219.46 Y140.05 E1150.80730
G0 F12000 X218.80 Y140.05
G1 F1800 X216.24 Y137.48 E1150.94772
G0 F12000 X216.24 Y138.14
G1 F1800 X218.14 Y140.05 E1151.05203
G0 F12000 X217.48 Y140.05
G1 F1800 X216.24 Y138.80 E1151.12023
G0 F12000 X216.24 Y139.46
G1 F1800 X216.82 Y140.05 E1151.15231
G0 F12000 X221.58 Y136.24
G1 F1800 X212.05 Y126.71 E1151.67454
G0 F12000 X212.71 Y126.71
G1 F1800 X221.58 Y135.58 E1152.16065
G0 F12000 X221.58 Y134.92
G1 F1800 X213.37 Y126.71 E1152.61065
G0 F12000 X214.03 Y126.71
G1 F1800 X221.58 Y134.26 E1153.02454
G0 F12000 X221.58 Y133.60
G1 F1800 X214.69 Y126.71 E1153.40232
G0 F12000 X215.34 Y126.71
G1 F1800 X221.58 Y132.94 E1153.74398
G0 F12000 X221.58 Y132.28
G1 F1800 X216.00 Y126.71 E1154.04954
G0 F12000 X216.66 Y126.71
G1 F1800 X221.58 Y131.62 E1154.31898
G0 F12000 X221.58 Y130.96
G1 F1800 X217.32 Y126.71 E1154.55231
G0 F12000 X217.98 Y126.71
G1 F1800 X221.58 Y130.31 E1154.74953
G0 F12000 X221.58 Y129.65
G1 F1800 X218.64 Y126.71 E1154.91063
G0 F12000 X219.30 Y126.71
G1 F1800 X221.58 Y128.99 E1155.03563
G0 F12000 X221.58 Y128.33
G1 F1800 X219.96 Y126.71 E1155.12451
G0 F12000 X220.62 Y126.71
G1 F1800 X221.58 Y127.67 E1155.17728
G0 F12000 X221.58 Y127.01
G1 F1800 X221.28 Y126.71 E1155.19394
G1 F2400 E1153.99394
G0 F12000 X211.75 Y136.54
;TYPE:WALL-INNER
G1 F2400 E1155.19394
G1 F1800 X211.75 Y144.54 E1155.50392
G1 X219.75 Y144.54 E1155.81391
G1 X219.75 Y150.21 E1156.03361
G1 X211.75 Y150.21 E1156.34359
G1 X211.75 Y158.21 E1156.65354
G1 X206.07 Y158.21 E1156.87324
G1 X206.07 Y150.21 E1157.18319
G1 X198.07 Y150.21 E1157.49317
G1 X198.07 Y144.54 E1157.71287
G1 X206.07 Y144.54 E1158.02286
G1 X206.07 Y136.54 E1158.33284
G1 X211.75 Y136.54 E1158.55254
G0 F12000 X212.21 Y136.08
G1 F1800 X212.21 Y144.08 E1158.86253
G1 X220.21 Y144.08 E1159.17251
G1 X220.21 Y150.68 E1159.42833
G1 X212.21 Y150.68 E1159.73831
G1 X212.21 Y158.68 E1160.04826
G1 X205.61 Y158.68 E1160.30407
G1 X205.61 Y150.68 E1160.61402
G1 X197.61 Y150.68 E1160.92400
G1 X197.61 Y144.08 E1161.17982
G1 X205.61 Y144.08 E1161.48980
G1 X205.61 Y136.08 E1161.79979
G1 X212.21 Y136.08 E1162.05560
G0 F12000 X212.68 Y135.61
;TYPE:WALL-OUTER
G1 F1800 X212.68 Y143.61 E1162.36558
G1 X220.68 Y143.61 E1162.67557
G1 X220.68 Y151.14 E1162.96750
G1 X212.68 Y151.14 E1163.27748
G1 X212.68 Y159.14 E1163.58743
G1 X205.14 Y159.14 E1163.87935
G1 X205.14 Y151.14 E1164.18930
G1 X197.14 Y151.14 E1164.49928
G1 X197.14 Y143.61 E1164.79121
G1 X205.14 Y143.61 E1165.10120
G1 X205.14 Y135.61 E1165.41118
G1 X212.68 Y135.61 E1165.70311
G0 F12000 X212.34 Y135.85
G0 X211.58 Y136.78
;TYPE:FILL
G1 F1800 X211.50 Y136.71 E1165.70722
G0 F12000 X210.85 Y136.71
G1 F1800 X211.58 Y137.44 E1165.74744
G0 F12000 X211.58 Y138.10
G1 F1800 X210.19 Y136.71 E1165.82377
G0 F12000 X209.53 Y136.71
G1 F1800 X211.58 Y138.76 E1165.93622
G0 F12000 X211.58 Y139.42
G1 F1800 X208.87 Y136.71 E1166.08478
G0 F12000 X208.21 Y136.71
G1 F1800 X211.58 Y140.08 E1166.26945
G0 F12000 X211.58 Y140.74
G1 F1800 X207.55 Y136.71 E1166.49023
G0 F12000 X206.89 Y136.71
G1 F1800 X211.58 Y141.39 E1166.74712
G0 F12000 X211.58 Y142.05
G1 F1800 X206.24 Y136.71 E1167.03985
G0 F12000 X206.24 Y137.37
G1 F1800 X211.58 Y142.71 E1167.33258
G0 F12000 X211.58 Y143.37
G1 F1800 X206.24 Y138.03 E1167.62531
G0 F12000 X206.24 Y138.69
G1 F1800 X211.58 Y144.03 E1167.91805
G0 F12000 X211.58 Y144.69
G1 F1800 X206.24 Y139.35 E1168.21078
G0 F12000 X206.24 Y140.01
G1 F1800 X216.28 Y150.05 E1168.76103
G0 F12000 X215.62 Y150.05
G1 F1800 X206.24 Y140.66 E1169.27517
G0 F12000 X206.24 Y141.32
G1 F1800 X214.96 Y150.05 E1169.75320
G0 F12000 X214.30 Y150.05
G1 F1800 X206.24 Y141.98 E1170.19512
G0 F12000 X206.24 Y142.64
G1 F1800 X213.64 Y150.05 E1170.60093
G0 F12000 X212.98 Y150.05
G1 F1800 X206.24 Y143.30 E1170.97062
G0 F12000 X206.24 Y143.96
G1 F1800 X212.32 Y150.05 E1171.30421
G0 F12000 X211.67 Y150.05
G1 F1800 X206.24 Y144.62 E1171.60168
G0 F12000 X205.66 Y144.71
G1 F1800 X211.58 Y150.62 E1171.92581
G0 F12000 X211.58 Y151.28
G1 F1800 X205.01 Y144.71 E1172.28605
G0 F12000 X204.35 Y144.71
G1 F1800 X211.58 Y151.94 E1172.68241
G0 F12000 X211.58 Y152.60
G1 F1800 X203.69 Y144.71 E1173.11487
G0 F12000 X203.03 Y144.71
G1 F1800 X211.58 Y153.26 E1173.58345
G0 F12000 X211.58 Y153.91
G1 F1800 X202.37 Y144.71 E1174.08814
G0 F12000 X201.71 Y144.71
G1 F1800 X211.58 Y154.57 E1174.62894
G0 F12000 X211.58 Y155.23
G1 F1800 X201.05 Y144.71 E1175.20585
G0 F12000 X200.39 Y144.71
G1 F1800 X205.73 Y150.05 E1175.49856
G0 F12000 X205.07 Y150.05
G1 F1800 X199.73 Y144.71 E1175.79126
G0 F12000 X199.07 Y144.71
G1 F1800 X204.42 Y150.05 E1176.08397
G0 F12000 X203.76 Y150.05
G1 F1800 X198.42 Y144.71 E1176.37667
G0 F12000 X198.24 Y145.19
G1 F1800 X203.10 Y150.05 E1176.64302
G0 F12000 X202.44 Y150.05
G1 F1800 X198.24 Y145.84 E1176.87325
G0 F12000 X198.24 Y146.50
G1 F1800 X201.78 Y150.05 E1177.06737
G0 F12000 X201.12 Y150.05
G1 F1800 X198.24 Y147.16 E1177.22538
G0 F12000 X198.24 Y147.82
G1 F1800 X200.46 Y150.05 E1177.34728
G0 F12000 X199.80 Y150.05
G1 F1800 X198.24 Y148.48 E1177.43307
G0 F12000 X198.24 Y149.14
G1 F1800 X199.14 Y150.05 E1177.48274
G0 F12000 X198.49 Y150.05
G1 F1800 X198.24 Y149.80 E1177.49630
G0 F12000 X206.24 Y150.55
G1 F1800 X211.58 Y155.89 E1177.78906
G0 F12000 X211.58 Y156.55
G1 F1800 X206.24 Y151.21 E1178.08182
G0 F12000 X206.24 Y151.87
G1 F1800 X211.58 Y157.21 E1178.37458
G0 F12000 X211.58 Y157.87
G1 F1800 X206.24 Y152.53 E1178.66734
G0 F12000 X206.24 Y153.19
G1 F1800 X211.10 Y158.05 E1178.93366
G0 F12000 X210.44 Y158.05
G1 F1800 X206.24 Y153.84 E1179.16386
G0 F12000 X206.24 Y154.50
G1 F1800 X209.78 Y158.05 E1179.35796
G0 F12000 X209.12 Y158.05
G1 F1800 X206.24 Y155.16 E1179.51594
G0 F12000 X206.24 Y155.82
G1 F1800 X208.46 Y158.05 E1179.63778
G0 F12000 X207.80 Y158.05
G1 F1800 X206.24 Y156.48 E1179.72351
G0 F12000 X206.24 Y157.14
G1 F1800 X207.14 Y158.05 E1179.77313
G0 F12000 X206.49 Y158.05
G1 F1800 X206.24 Y157.80 E1179.78664
G0 F12000 X212.30 Y150.77
G0 X216.94 Y150.05
G1 F1800 X211.60 Y144.71 E1180.07940
G0 F12000 X212.25 Y144.71
G1 F1800 X217.60 Y150.05 E1180.37216
G0 F12000 X218.26 Y150.05
G1 F1800 X212.91 Y144.71 E1180.66492
G0 F12000 X213.57 Y144.71
G1 F1800 X218.92 Y150.05 E1180.95770
G0 F12000 X219.57 Y150.05
G1 F1800 X214.23 Y144.71 E1181.25049
G0 F12000 X214.89 Y144.71
G1 F1800 X219.58 Y149.39 E1181.50744
G0 F12000 X219.58 Y148.74
G1 F1800 X215.55 Y144.71 E1181.72827
G0 F12000 X216.21 Y144.71
G1 F1800 X219.58 Y148.08 E1181.91300
G0 F12000 X219.58 Y147.42
G1 F1800 X216.87 Y144.71 E1182.06161
G0 F12000 X217.53 Y144.71
G1 F1800 X219.58 Y146.76 E1182.17411
G0 F12000 X219.58 Y146.10
G1 F1800 X218.19 Y144.71 E1182.25050
G0 F12000 X218.85 Y144.71
G1 F1800 X219.58 Y145.44 E1182.29075
G0 F12000 X219.58 Y144.78
G1 F1800 X219.50 Y144.71 E1182.29488
G1 F2400 E1181.09488
G0 F12000 X201.75 Y154.54
;TYPE:WALL-INNER
G1 F2400 E1182.29488
G1 F1800 X201.75 Y162.54 E1182.60487
G1 X209.75 Y162.54 E1182.91485
G1 X209.75 Y168.21 E1183.13455
G1 X196.07 Y168.21 E1183.66424
G1 X196.07 Y154.54 E1184.19393
G1 X201.75 Y154.54 E1184.41363
G0 F12000 X202.21 Y154.07
G1 F1800 X202.21 Y162.07 E1184.72361
G1 X210.21 Y162.07 E1185.03360
G1 X210.21 Y168.68 E1185.28941
G1 X195.61 Y168.68 E1185.85521
G1 X195.61 Y154.07 E1186.42101
G1 X202.21 Y154.07 E1186.67682
G0 F12000 X202.68 Y153.61
;TYPE:WALL-OUTER
G1 F1800 X202.68 Y161.61 E1186.98681
G1 X210.68 Y161.61 E1187.29679
G1 X210.68 Y169.14 E1187.58872
G1 X195.14 Y169.14 E1188.19063
G1 X195.14 Y153.61 E1188.79255
G1 X202.68 Y153.61 E1189.08447
G0 F12000 X202.34 Y153.85
G0 X201.58 Y155.12
;TYPE:FILL
G1 F1800 X201.17 Y154.71 E1189.10716
G0 F12000 X200.51 Y154.71
G1 F1800 X201.58 Y155.78 E1189.16596
