;-- START GCODE --
;Sliced for Type A Machines Series 1
;Sliced at: Sun 30-10-2016 21:48:52
;Basic settings: Layer height: 0.2 Walls: 1.4 Fill: 100
;Print Speed: 30 Support: 0
;Retraction Speed: 40 Retraction Distance: 1.2
;Print time: #P_TIME#
;Filament used: #F_AMNT#m #F_WGHT#g
;Filament cost: #F_COST#
M106 S255	 ;start with the fan on
G21        ;metric values
G90        ;absolute positioning
M106 S255    ;start with the fan on
G28     ;move to endstops
G29		;allows for auto-levelling
G1 X150 Y5  Z15.0 F12000 ;center and move the platform down 15mm
M109 S220 ;Heat To temp
G92 E0                  ;zero the extruded length
G1 F200 E30              ;extrude 30mm of feed stock
G92 E0                  ;zero the extruded length again
G1 X175 Y25  Z0 F12000 ;remove bugger
G1 X220 F12000 ;remove bugger
G1 X150 Y150  Z15 F12000 ;recenter and begin
G1 F12000

;Layer count: 120
;LAYER:0
M106 S255
G0 F12000 X51.06 Y112.42 Z0.30
;TYPE:SKIRT
G1 F1800 X61.06 Y112.42 E0.58122
G1 X61.06 Y110.42 E0.69747
G1 X137.21 Y110.42 E5.12369
G1 X137.21 Y196.57 E10.13109
G1 X53.06 Y196.57 E15.02229
G1 X53.06 Y186.57 E15.60351
G1 X49.06 Y186.57 E15.83600
G1 X49.06 Y138.42 E18.63481
G1 X51.06 Y138.42 E18.75106
G1 X51.06 Y112.42 E20.26217
G0 F12000 X51.53 Y112.88
G1 F1800 X61.53 Y112.88 E20.84339
G1 X61.53 Y110.88 E20.95964
G1 X136.75 Y110.88 E25.33170
G1 X136.75 Y196.10 E30.28492
G1 X53.53 Y196.10 E35.12196
G1 X53.53 Y186.10 E35.70318
G1 X49.53 Y186.10 E35.93567
G1 X49.53 Y138.88 E38.68031
G1 X51.53 Y138.88 E38.79655
G1 X51.53 Y112.88 E40.30767
G0 F12000 X51.99 Y113.35
G1 F1800 X61.99 Y113.35 E40.88889
G1 X61.99 Y111.35 E41.00513
G1 X136.28 Y111.35 E45.32302
G1 X136.28 Y195.64 E50.22207
G1 X53.99 Y195.64 E55.00494
G1 X53.99 Y185.64 E55.58616
G1 X49.99 Y185.64 E55.81865
G1 X49.99 Y139.35 E58.50912
G1 X51.99 Y139.35 E58.62537
G1 X51.99 Y113.35 E60.13648
G0 F12000 X52.46 Y113.82
G1 F1800 X62.46 Y113.82 E60.71770
G1 X62.46 Y111.82 E60.83395
G1 X135.82 Y111.82 E65.09767
G1 X135.82 Y195.17 E69.94255
G1 X54.46 Y195.17 E74.67125
G1 X54.46 Y185.17 E75.25247
G1 X50.46 Y185.17 E75.48495
G1 X50.46 Y139.81 E78.12126
G1 X52.46 Y139.81 E78.23750
G1 X52.46 Y113.82 E79.74862
G0 F12000 X52.92 Y114.28
G1 F1800 X62.92 Y114.28 E80.32984
G1 X62.92 Y112.28 E80.44608
G1 X135.35 Y112.28 E84.65563
G1 X135.35 Y194.71 E89.44634
G1 X54.92 Y194.71 E94.12087
G1 X54.92 Y184.71 E94.70209
G1 X50.92 Y184.71 E94.93458
G1 X50.92 Y140.28 E97.51671
G1 X52.92 Y140.28 E97.63296
G1 X52.92 Y114.28 E99.14407
G0 F12000 X53.39 Y114.75
G1 F1800 X63.39 Y114.75 E99.72529
G1 X63.39 Y112.75 E99.84154
G1 X134.88 Y112.75 E103.99692
G1 X134.88 Y194.24 E108.73346
G1 X55.39 Y194.24 E113.35382
G1 X55.39 Y184.24 E113.93504
G1 X51.39 Y184.24 E114.16753
G1 X51.39 Y140.75 E116.69549
G1 X53.39 Y140.75 E116.81173
G1 X53.39 Y114.75 E118.32285
G0 F12000 X53.86 Y115.21
G1 F1800 X63.86 Y115.21 E118.90407
G1 X63.86 Y113.21 E119.02032
G1 X134.42 Y113.21 E123.12153
G1 X134.42 Y193.78 E127.80390
G1 X55.86 Y193.78 E132.37009
G1 X55.86 Y183.78 E132.95131
G1 X51.86 Y183.78 E133.18380
G1 X51.86 Y141.21 E135.65759
G1 X53.86 Y141.21 E135.77383
G1 X53.86 Y115.21 E137.28495
G0 F12000 X54.32 Y115.68
G1 F1800 X64.32 Y115.68 E137.86617
G1 X64.32 Y113.68 E137.98241
G1 X133.95 Y113.68 E142.02945
G1 X133.95 Y193.31 E146.65766
G1 X56.32 Y193.31 E151.16968
G1 X56.32 Y183.31 E151.75090
G1 X52.32 Y183.31 E151.98338
G1 X52.32 Y141.68 E154.40301
G1 X54.32 Y141.68 E154.51925
G1 X54.32 Y115.68 E156.03037
G0 F12000 X54.79 Y116.15
G1 F1800 X64.79 Y116.15 E156.61159
G1 X64.79 Y114.15 E156.72783
G1 X133.49 Y114.15 E160.72070
G1 X133.49 Y192.84 E165.29474
G1 X56.79 Y192.84 E169.75258
G1 X56.79 Y182.84 E170.33381
G1 X52.79 Y182.84 E170.56629
G1 X52.79 Y142.15 E172.93175
G1 X54.79 Y142.15 E173.04799
G1 X54.79 Y116.15 E174.55911
G0 F12000 X55.25 Y116.61
G1 F1800 X65.25 Y116.61 E175.14033
G1 X65.25 Y114.61 E175.25657
G1 X133.02 Y114.61 E179.19527
G1 X133.02 Y192.38 E183.71514
G1 X57.25 Y192.38 E188.11882
G1 X57.25 Y182.38 E188.70004
G1 X53.25 Y182.38 E188.93252
G1 X53.25 Y142.61 E191.24381
G1 X55.25 Y142.61 E191.36005
G1 X55.25 Y116.61 E192.87117
G0 F12000 X55.72 Y117.08
G1 F1800 X65.72 Y117.08 E193.45239
G1 X65.72 Y115.08 E193.56863
G1 X132.55 Y115.08 E197.45316
G1 X132.55 Y191.91 E201.91886
G1 X57.72 Y191.91 E206.26837
G1 X57.72 Y181.91 E206.84959
G1 X53.72 Y181.91 E207.08208
G1 X53.72 Y143.08 E209.33919
G1 X55.72 Y143.08 E209.45543
G1 X55.72 Y117.08 E210.96655
G0 F12000 X56.19 Y117.54
G1 F1800 X66.19 Y117.54 E211.54777
G1 X66.19 Y115.54 E211.66401
G1 X132.09 Y115.54 E215.49438
G1 X132.09 Y191.44 E219.90590
G1 X58.19 Y191.44 E224.20124
G1 X58.19 Y181.44 E224.78246
G1 X54.19 Y181.44 E225.01495
G1 X54.19 Y143.54 E227.21789
G1 X56.19 Y143.54 E227.33414
G1 X56.19 Y117.54 E228.84525
G0 F12000 X56.65 Y118.01
G1 F1800 X66.65 Y118.01 E229.42647
G1 X66.65 Y116.01 E229.54272
G1 X131.62 Y116.01 E233.31891
G1 X131.62 Y190.98 E237.67626
G1 X58.65 Y190.98 E241.91743
G1 X58.65 Y180.98 E242.49865
G1 X54.65 Y180.98 E242.73114
G1 X54.65 Y144.01 E244.87991
G1 X56.65 Y144.01 E244.99616
G1 X56.65 Y118.01 E246.50727
G0 F12000 X57.12 Y118.48
G1 F1800 X67.12 Y118.48 E247.08850
G1 X67.12 Y116.48 E247.20474
G1 X131.16 Y116.48 E250.92676
G1 X131.16 Y190.51 E255.22995
G1 X59.12 Y190.51 E259.41695
G1 X59.12 Y180.51 E259.99817
G1 X55.12 Y180.51 E260.23065
G1 X55.12 Y144.47 E262.32526
G1 X57.12 Y144.47 E262.44150
G1 X57.12 Y118.48 E263.95262
G0 F12000 X57.58 Y118.94
G1 F1800 X67.58 Y118.94 E264.53384
G1 X67.58 Y116.94 E264.65008
G1 X130.69 Y116.94 E268.31794
G1 X130.69 Y190.05 E272.56695
G1 X59.58 Y190.05 E276.69978
G1 X59.58 Y180.05 E277.28100
G1 X55.58 Y180.05 E277.51349
G1 X55.58 Y144.94 E279.55392
G1 X57.58 Y144.94 E279.67017
G1 X57.58 Y118.94 E281.18128
G0 F12000 X58.05 Y119.41
G1 F1800 X68.05 Y119.41 E281.76250
G1 X68.05 Y117.41 E281.87875
G1 X130.22 Y117.41 E285.49243
G1 X130.22 Y189.58 E289.68728
G1 X60.05 Y189.58 E293.76594
G1 X60.05 Y179.58 E294.34716
G1 X56.05 Y179.58 E294.57965
G1 X56.05 Y145.41 E296.56591
G1 X58.05 Y145.41 E296.68215
G1 X58.05 Y119.41 E298.19327
G0 F12000 X58.52 Y119.87
G1 F1800 X68.52 Y119.87 E298.77449
G1 X68.52 Y117.87 E298.89073
G1 X129.76 Y117.87 E302.45025
G1 X129.76 Y189.12 E306.59092
G1 X60.52 Y189.12 E310.61541
G1 X60.52 Y179.12 E311.19663
G1 X56.52 Y179.12 E311.42912
G1 X56.52 Y145.87 E313.36122
G1 X58.52 Y145.87 E313.47746
G1 X58.52 Y119.87 E314.98858
G0 F12000 X58.98 Y120.34
G1 F1800 X68.98 Y120.34 E315.56980
G1 X68.98 Y118.34 E315.68604
G1 X129.29 Y118.34 E319.19138
G1 X129.29 Y188.65 E323.27789
G1 X60.98 Y188.65 E327.24821
G1 X60.98 Y178.65 E327.82943
G1 X56.98 Y178.65 E328.06192
G1 X56.98 Y146.34 E329.93984
G1 X58.98 Y146.34 E330.05609
G1 X58.98 Y120.34 E331.56720
G0 F12000 X59.45 Y120.81
G1 F1800 X69.45 Y120.81 E332.14842
G1 X69.45 Y118.81 E332.26467
G1 X128.83 Y118.81 E335.71584
G1 X128.83 Y188.18 E339.74818
G1 X61.45 Y188.18 E343.66433
G1 X61.45 Y178.18 E344.24555
G1 X57.45 Y178.18 E344.47804
G1 X57.45 Y146.81 E346.30179
G1 X59.45 Y146.81 E346.41804
G1 X59.45 Y120.81 E347.92915
G0 F12000 X59.91 Y121.27
G1 F1800 X69.91 Y121.27 E348.51037
G1 X69.91 Y119.27 E348.62662
G1 X128.36 Y119.27 E352.02362
G1 X128.36 Y187.72 E356.00179
G1 X61.91 Y187.72 E359.86377
G1 X61.91 Y177.72 E360.44499
G1 X57.91 Y177.72 E360.67748
G1 X57.91 Y147.27 E362.44706
G1 X59.91 Y147.27 E362.56331
G1 X59.91 Y121.27 E364.07442
G0 F12000 X60.38 Y121.74
G1 F1800 X70.38 Y121.74 E364.65564
G1 X70.38 Y119.74 E364.77189
G1 X127.89 Y119.74 E368.11472
G1 X127.89 Y187.25 E372.03872
G1 X62.38 Y187.25 E375.84653
G1 X62.38 Y177.25 E376.42775
G1 X58.38 Y177.25 E376.66024
G1 X58.38 Y147.74 E378.37565
G1 X60.38 Y147.74 E378.49190
G1 X60.38 Y121.74 E380.00301
G0 F12000 X60.85 Y122.20
G1 F1800 X70.85 Y122.20 E380.58423
G1 X70.85 Y120.20 E380.70048
G1 X127.43 Y120.20 E383.98914
G1 X127.43 Y186.78 E387.85897
G1 X62.85 Y186.78 E391.61261
G1 X62.85 Y176.78 E392.19383
G1 X58.85 Y176.78 E392.42632
G1 X58.85 Y148.20 E394.08756
G1 X60.85 Y148.20 E394.20381
G1 X60.85 Y122.20 E395.71492
G0 F12000 X61.31 Y122.67
G1 F1800 X71.31 Y122.67 E396.29614
G1 X71.31 Y120.67 E396.41239
G1 X126.96 Y120.67 E399.64688
G1 X126.96 Y186.32 E403.46254
G1 X99.31 Y186.32 E405.06961
G1 X99.31 Y178.72 E405.51128
G1 X98.96 Y178.72 E405.53163
G1 X98.96 Y186.32 E405.97330
G1 X63.31 Y186.32 E408.04535
G1 X63.31 Y176.32 E408.62657
G1 X59.31 Y176.32 E408.85906
G1 X59.31 Y148.67 E410.46613
G1 X61.31 Y148.67 E410.58238
G1 X61.31 Y122.67 E412.09349
G0 F12000 X61.78 Y123.14
G1 F1800 X71.78 Y123.14 E412.67472
G1 X71.78 Y121.14 E412.79096
G1 X126.50 Y121.14 E415.97128
G1 X126.50 Y185.85 E419.73277
G1 X99.78 Y185.85 E421.28568
G1 X99.78 Y178.25 E421.72735
G1 X98.50 Y178.25 E421.80186
G1 X98.50 Y185.85 E422.24353
G1 X63.78 Y185.85 E424.26141
G1 X63.78 Y175.85 E424.84263
G1 X59.78 Y175.85 E425.07512
G1 X59.78 Y149.13 E426.62803
G1 X61.78 Y149.13 E426.74427
G1 X61.78 Y123.14 E428.25539
G0 F12000 X62.24 Y123.60
G1 F1800 X72.24 Y123.60 E428.83661
G1 X72.24 Y121.60 E428.95285
G1 X126.03 Y121.60 E432.07901
G1 X126.03 Y185.39 E435.78632
G1 X100.24 Y185.39 E437.28506
G1 X100.24 Y177.79 E437.72673
G1 X98.03 Y177.79 E437.85541
G1 X98.03 Y185.39 E438.29708
G1 X64.24 Y185.39 E440.26079
G1 X64.24 Y175.39 E440.84201
G1 X60.24 Y175.39 E441.07450
G1 X60.24 Y149.60 E442.57324
G1 X62.24 Y149.60 E442.68948
G1 X62.24 Y123.60 E444.20060
G0 F12000 X62.71 Y124.07
G1 F1800 X72.71 Y124.07 E444.78182
G1 X72.71 Y122.07 E444.89806
G1 X125.56 Y122.07 E447.97005
G1 X125.56 Y184.92 E451.62320
G1 X100.71 Y184.92 E453.06776
G1 X100.71 Y177.32 E453.50943
G1 X97.56 Y177.32 E453.69228
G1 X97.56 Y184.92 E454.13395
G1 X64.71 Y184.92 E456.04350
G1 X64.71 Y174.92 E456.62472
G1 X60.71 Y174.92 E456.85721
G1 X60.71 Y150.07 E458.30177
G1 X62.71 Y150.07 E458.41802
G1 X62.71 Y124.07 E459.92913
G0 F12000 X63.18 Y124.53
G1 F1800 X73.18 Y124.53 E460.51035
G1 X73.18 Y122.53 E460.62660
G1 X125.10 Y122.53 E463.64441
G1 X125.10 Y184.46 E467.24339
G1 X101.18 Y184.46 E468.63379
G1 X101.18 Y176.86 E469.07546
G1 X97.10 Y176.86 E469.31248
G1 X97.10 Y184.46 E469.75415
G1 X65.18 Y184.46 E471.60952
G1 X65.18 Y174.46 E472.19074
G1 X61.18 Y174.46 E472.42323
G1 X61.18 Y150.53 E473.81363
G1 X63.18 Y150.53 E473.92987
G1 X63.18 Y124.53 E475.44099
G0 F12000 X63.64 Y125.00
G1 F1800 X73.64 Y125.00 E476.02221
G1 X73.64 Y123.00 E476.13845
G1 X124.63 Y123.00 E479.10210
G1 X124.63 Y183.99 E482.64691
G1 X101.64 Y183.99 E483.98313
G1 X101.64 Y176.39 E484.42480
G1 X96.63 Y176.39 E484.71599
G1 X96.63 Y183.99 E485.15766
G1 X65.64 Y183.99 E486.95887
G1 X65.64 Y173.99 E487.54009
G1 X61.64 Y173.99 E487.77258
G1 X61.64 Y151.00 E489.10880
G1 X63.64 Y151.00 E489.22505
G1 X63.64 Y125.00 E490.73616
G0 F12000 X64.11 Y125.47
G1 F1800 X74.11 Y125.47 E491.31738
G1 X74.11 Y123.47 E491.43363
G1 X124.17 Y123.47 E494.34310
G1 X124.17 Y183.52 E497.83374
G1 X102.11 Y183.52 E499.11580
G1 X102.11 Y175.92 E499.55747
G1 X96.17 Y175.92 E499.90283
G1 X96.17 Y183.52 E500.34450
G1 X66.11 Y183.52 E502.09153
G1 X66.11 Y173.52 E502.67275
G1 X62.11 Y173.52 E502.90524
G1 X62.11 Y151.47 E504.18730
G1 X64.11 Y151.47 E504.30354
G1 X64.11 Y125.47 E505.81466
G0 F12000 X64.57 Y125.93
G1 F1800 X74.57 Y125.93 E506.39588
G1 X74.57 Y123.93 E506.51213
G1 X123.70 Y123.93 E509.36743
G1 X123.70 Y153.06 E511.06029
G1 X113.70 Y153.06 E511.64152
G1 X113.70 Y153.93 E511.69226
G1 X123.70 Y153.93 E512.27348
G1 X123.70 Y183.06 E513.96634
G1 X102.57 Y183.06 E515.19423
G1 X102.57 Y175.46 E515.63590
G1 X95.70 Y175.46 E516.03543
G1 X95.70 Y183.06 E516.47710
G1 X66.57 Y183.06 E518.16996
G1 X66.57 Y173.06 E518.75118
G1 X62.57 Y173.06 E518.98367
G1 X62.57 Y151.93 E520.21156
G1 X64.57 Y151.93 E520.32780
G1 X64.57 Y125.93 E521.83892
G0 F12000 X65.04 Y126.40
G1 F1800 X75.04 Y126.40 E522.42014
G1 X75.04 Y124.40 E522.53638
G1 X123.23 Y124.40 E525.33752
G1 X123.23 Y152.59 E526.97621
G1 X113.23 Y152.59 E527.55744
G1 X113.23 Y154.40 E527.66235
G1 X123.23 Y154.40 E528.24357
G1 X123.23 Y182.59 E529.88226
G1 X103.04 Y182.59 E531.05598
G1 X103.04 Y174.99 E531.49765
G1 X95.23 Y174.99 E531.95135
G1 X95.23 Y182.59 E532.39302
G1 X67.04 Y182.59 E534.03171
G1 X67.04 Y172.59 E534.61293
G1 X63.04 Y172.59 E534.84542
G1 X63.04 Y152.40 E536.01914
G1 X65.04 Y152.40 E536.13538
G1 X65.04 Y126.40 E537.64650
G0 F12000 X65.51 Y126.86
G1 F1800 X75.51 Y126.86 E538.22772
G1 X75.51 Y124.86 E538.34396
G1 X94.77 Y124.86 E539.46351
G1 X94.77 Y136.86 E540.16098
G1 X111.51 Y136.86 E541.13382
G1 X111.51 Y136.13 E541.17672
G1 X95.51 Y136.13 E542.10667
G1 X95.51 Y124.86 E542.76124
G1 X122.77 Y124.86 E544.34577
G1 X122.77 Y152.13 E545.93029
G1 X112.77 Y152.13 E546.51151
G1 X112.77 Y154.86 E546.67059
G1 X122.77 Y154.86 E547.25181
G1 X122.77 Y182.12 E548.83634
G1 X103.51 Y182.12 E549.95589
G1 X103.51 Y164.12 E551.00208
G1 X103.37 Y164.12 E551.01010
G1 X103.37 Y174.53 E551.61463
G1 X94.77 Y174.53 E552.11448
G1 X94.77 Y182.12 E552.55615
G1 X67.51 Y182.12 E554.14068
G1 X67.51 Y172.12 E554.72190
G1 X63.51 Y172.12 E554.95438
G1 X63.51 Y152.86 E556.07393
G1 X65.51 Y152.86 E556.19018
G1 X65.51 Y126.86 E557.70129
G0 F12000 X65.97 Y127.33
G1 F1800 X75.97 Y127.33 E558.28251
G1 X75.97 Y125.33 E558.39876
G1 X94.30 Y125.33 E559.46414
G1 X94.30 Y137.33 E560.16160
G1 X111.97 Y137.33 E561.18862
G1 X111.97 Y135.66 E561.28568
G1 X95.97 Y135.66 E562.21564
G1 X95.97 Y125.33 E562.81604
G1 X122.30 Y125.33 E564.34639
G1 X122.30 Y151.66 E565.87675
G1 X112.30 Y151.66 E566.45797
G1 X112.30 Y155.33 E566.67122
G1 X122.30 Y155.33 E567.25244
G1 X122.30 Y181.66 E568.78279
G1 X103.97 Y181.66 E569.84817
G1 X103.97 Y163.66 E570.89437
G1 X102.90 Y163.66 E570.95656
G1 X102.90 Y174.06 E571.56109
G1 X94.30 Y174.06 E572.06094
G1 X94.30 Y181.66 E572.50261
G1 X67.97 Y181.66 E574.03296
G1 X67.97 Y171.66 E574.61418
G1 X63.97 Y171.66 E574.84667
G1 X63.97 Y153.33 E575.91205
G1 X65.97 Y153.33 E576.02829
G1 X65.97 Y127.33 E577.53941
G0 F12000 X66.44 Y127.80
G1 F1800 X75.84 Y127.80 E578.08564
G1 X75.84 Y143.80 E579.01559
G1 X91.84 Y143.80 E579.94555
G1 X91.84 Y153.19 E580.49178
G1 X83.84 Y153.19 E580.95675
G1 X83.84 Y161.19 E581.42167
G1 X74.44 Y161.19 E581.96790
G1 X74.44 Y153.19 E582.43282
G1 X66.44 Y153.19 E582.89780
G1 X66.44 Y127.80 E584.37398
G0 F12000 X66.90 Y128.26
G1 F1800 X75.37 Y128.26 E584.86604
G1 X75.37 Y144.26 E585.79600
G1 X91.37 Y144.26 E586.72595
G1 X91.37 Y152.73 E587.21801
G1 X83.37 Y152.73 E587.68299
G1 X83.37 Y160.73 E588.14791
G1 X74.90 Y160.73 E588.63997
G1 X74.90 Y152.73 E589.10489
G1 X66.90 Y152.73 E589.56987
G1 X66.90 Y128.26 E590.99188
G0 F12000 X76.44 Y125.80
G1 F1800 X93.84 Y125.80 E592.00309
G1 X93.84 Y143.19 E593.01430
G1 X76.44 Y143.19 E594.02550
G1 X76.44 Y125.80 E595.03671
G0 F12000 X76.90 Y126.26
G1 F1800 X93.37 Y126.26 E595.99375
G1 X93.37 Y142.73 E596.95079
G1 X76.90 Y142.73 E597.90783
G1 X76.90 Y126.26 E598.86487
G0 F12000 X96.44 Y125.80
G1 F1800 X121.84 Y125.80 E600.34105
G1 X121.84 Y151.19 E601.81723
G1 X112.44 Y151.19 E602.36347
G1 X112.44 Y135.19 E603.29342
G1 X96.44 Y135.19 E604.22337
G1 X96.44 Y125.80 E604.76960
G0 F12000 X96.90 Y126.26
G1 F1800 X121.37 Y126.26 E606.19162
G1 X121.37 Y150.73 E607.61363
G1 X112.90 Y150.73 E608.10570
G1 X112.90 Y134.73 E609.03565
G1 X96.90 Y134.73 E609.96560
G1 X96.90 Y126.26 E610.45766
G0 F12000 X94.44 Y137.80
G1 F1800 X111.84 Y137.80 E611.46887
G1 X111.84 Y163.19 E612.94500
G1 X102.44 Y163.19 E613.49135
G1 X102.44 Y173.59 E614.09587
G1 X93.84 Y173.59 E614.59572
G1 X93.84 Y181.19 E615.03739
G1 X68.44 Y181.19 E616.51358
G1 X68.44 Y171.79 E617.05981
G1 X84.44 Y171.79 E617.98976
G1 X84.44 Y155.79 E618.91972
G1 X93.84 Y155.79 E619.46595
G1 X93.84 Y163.00 E619.88449
G1 X94.44 Y163.00 E619.91947
G1 X94.44 Y137.80 E621.38415
G0 F12000 X94.90 Y138.26
G1 F1800 X111.37 Y138.26 E622.34119
G1 X111.37 Y162.73 E623.76315
G1 X94.90 Y162.73 E624.72018
G1 X94.90 Y138.26 E626.14214
G0 F12000 X93.97 Y143.66
G1 F1800 X92.30 Y143.66 E626.23921
G1 X92.30 Y153.66 E626.82043
G1 X84.30 Y153.66 E627.28540
G1 X84.30 Y155.33 E627.38241
G1 X93.97 Y155.33 E627.94445
G1 X93.97 Y143.66 E628.62268
G0 F12000 X93.37 Y156.26
G1 F1800 X93.37 Y163.46 E629.04121
G1 X101.97 Y163.46 E629.54106
G1 X101.97 Y173.13 E630.10287
G1 X93.37 Y173.13 E630.60272
G1 X93.37 Y180.73 E631.04439
G1 X68.90 Y180.73 E632.46641
G1 X68.90 Y172.26 E632.95847
G1 X84.90 Y172.26 E633.88842
G1 X84.90 Y156.26 E634.81837
G1 X93.37 Y156.26 E635.31044
G0 F12000 X81.37 Y162.26
G1 F1800 X81.37 Y170.73 E635.80250
G1 X64.90 Y170.73 E636.75954
G1 X64.90 Y154.26 E637.71657
G1 X73.37 Y154.26 E638.20864
G1 X73.37 Y162.26 E638.67361
G1 X81.37 Y162.26 E639.13859
G0 F12000 X81.84 Y161.79
G1 F1800 X81.84 Y171.19 E639.68482
G1 X64.44 Y171.19 E640.69603
G1 X64.44 Y153.79 E641.70724
G1 X73.84 Y153.79 E642.25347
G1 X73.84 Y161.79 E642.71844
G1 X81.84 Y161.79 E643.18342
G0 F12000 X104.44 Y163.79
G1 F1800 X112.44 Y163.79 E643.64840
G1 X112.44 Y155.79 E644.11337
G1 X121.84 Y155.79 E644.65961
G1 X121.84 Y181.19 E646.13579
G1 X104.44 Y181.19 E647.14700
G1 X104.44 Y163.79 E648.15821
G0 F12000 X104.90 Y164.26
G1 F1800 X112.90 Y164.26 E648.62318
G1 X112.90 Y156.26 E649.08816
G1 X121.37 Y156.26 E649.58022
G1 X121.37 Y180.73 E651.00224
G1 X104.90 Y180.73 E651.95927
G1 X104.90 Y164.26 E652.91631
G1 F2400 E651.71631
G0 F12000 X89.97 Y151.33
;TYPE:WALL-INNER
G1 F2400 E652.91631
G1 F1800 X81.97 Y151.33 E653.38129
G1 X81.97 Y159.33 E653.84621
G1 X76.30 Y159.33 E654.17576
G1 X76.30 Y151.33 E654.64068
G1 X68.30 Y151.33 E655.10566
G1 X68.30 Y129.66 E656.36516
G1 X73.97 Y129.66 E656.69471
G1 X73.97 Y145.66 E657.62467
G1 X89.97 Y145.66 E658.55462
G1 X89.97 Y151.33 E658.88417
G0 F12000 X90.44 Y151.80
G1 F1800 X82.44 Y151.80 E659.34915
G1 X82.44 Y159.79 E659.81407
G1 X75.84 Y159.79 E660.19779
G1 X75.84 Y151.80 E660.66271
G1 X67.84 Y151.80 E661.12768
G1 X67.84 Y129.19 E662.44136
G1 X74.44 Y129.19 E662.82508
G1 X74.44 Y145.19 E663.75504
G1 X90.44 Y145.19 E664.68499
G1 X90.44 Y151.80 E665.06871
G0 F12000 X90.90 Y152.26
;TYPE:WALL-OUTER
G1 F1800 X82.90 Y152.26 E665.53369
G1 X82.90 Y160.26 E665.99861
G1 X75.37 Y160.26 E666.43650
G1 X75.37 Y152.26 E666.90142
G1 X67.37 Y152.26 E667.36639
G1 X67.37 Y128.73 E668.73424
G1 X74.90 Y128.73 E669.17213
G1 X74.90 Y144.73 E670.10208
G1 X90.90 Y144.73 E671.03204
G1 X90.90 Y152.26 E671.46993
G0 F12000 X90.57 Y152.02
G0 X89.55 Y151.16
;TYPE:FILL
G1 F1800 X84.20 Y145.82 E671.90898
G0 F12000 X83.55 Y145.82
G1 F1800 X88.89 Y151.16 E672.34804
G0 F12000 X88.23 Y151.16
G1 F1800 X82.89 Y145.82 E672.78710
G0 F12000 X82.23 Y145.82
G1 F1800 X87.57 Y151.16 E673.22615
G0 F12000 X86.91 Y151.16
G1 F1800 X81.57 Y145.82 E673.66521
G0 F12000 X80.91 Y145.82
G1 F1800 X86.25 Y151.16 E674.10430
G0 F12000 X85.59 Y151.16
G1 F1800 X80.25 Y145.82 E674.54340
G0 F12000 X79.59 Y145.82
G1 F1800 X84.93 Y151.16 E674.98250
G0 F12000 X84.27 Y151.16
G1 F1800 X78.93 Y145.82 E675.42159
G0 F12000 X78.27 Y145.82
G1 F1800 X83.61 Y151.16 E675.86069
G0 F12000 X82.96 Y151.16
G1 F1800 X77.61 Y145.82 E676.29979
G0 F12000 X76.95 Y145.82
G1 F1800 X82.30 Y151.16 E676.73888
G0 F12000 X81.81 Y151.33
G1 F1800 X76.30 Y145.82 E677.19191
G0 F12000 X75.64 Y145.82
G1 F1800 X81.81 Y151.99 E677.69915
G0 F12000 X81.81 Y152.65
G1 F1800 X74.98 Y145.82 E678.26056
G0 F12000 X74.32 Y145.82
G1 F1800 X81.81 Y153.31 E678.87613
G0 F12000 X81.81 Y153.97
G1 F1800 X68.47 Y140.63 E679.97280
G0 F12000 X68.47 Y141.29
G1 F1800 X81.81 Y154.63 E681.06947
G0 F12000 X81.81 Y155.29
G1 F1800 X68.47 Y141.95 E682.16615
G0 F12000 X68.47 Y142.61
G1 F1800 X81.81 Y155.95 E683.26282
G0 F12000 X81.81 Y156.61
G1 F1800 X76.47 Y151.26 E683.70200
G0 F12000 X76.37 Y151.16
G1 F1800 X68.47 Y143.26 E684.35136
G0 F12000 X68.47 Y143.92
G1 F1800 X75.71 Y151.16 E684.94655
G0 F12000 X75.05 Y151.16
G1 F1800 X68.47 Y144.58 E685.48757
G0 F12000 X68.47 Y145.24
G1 F1800 X74.39 Y151.16 E685.97442
G0 F12000 X73.73 Y151.16
G1 F1800 X68.47 Y145.90 E686.40710
G0 F12000 X68.47 Y146.56
G1 F1800 X73.07 Y151.16 E686.78562
G0 F12000 X72.41 Y151.16
G1 F1800 X68.47 Y147.22 E687.10993
G0 F12000 X68.47 Y147.88
G1 F1800 X71.75 Y151.16 E687.38007
G0 F12000 X71.09 Y151.16
G1 F1800 X68.47 Y148.54 E687.59604
G0 F12000 X68.47 Y149.20
G1 F1800 X70.43 Y151.16 E687.75785
G0 F12000 X69.78 Y151.16
G1 F1800 X68.47 Y149.85 E687.86549
G0 F12000 X68.47 Y150.51
G1 F1800 X69.12 Y151.16 E687.91895
G0 F12000 X76.47 Y151.92
G1 F1800 X81.81 Y157.27 E688.35809
G0 F12000 X81.81 Y157.93
G1 F1800 X76.47 Y152.58 E688.79723
G0 F12000 X76.47 Y153.24
G1 F1800 X81.81 Y158.58 E689.23637
G0 F12000 X81.73 Y159.16
G1 F1800 X76.47 Y153.90 E689.66897
G0 F12000 X76.47 Y154.56
G1 F1800 X81.07 Y159.16 E690.04741
G0 F12000 X80.41 Y159.16
G1 F1800 X76.47 Y155.22 E690.37167
G0 F12000 X76.47 Y155.88
G1 F1800 X79.75 Y159.16 E690.64177
G0 F12000 X79.09 Y159.16
G1 F1800 X76.47 Y156.54 E690.85770
G0 F12000 X76.47 Y157.20
G1 F1800 X78.43 Y159.16 E691.01947
G0 F12000 X77.77 Y159.16
G1 F1800 X76.47 Y157.85 E691.12706
G0 F12000 X76.47 Y158.51
G1 F1800 X77.11 Y159.16 E691.18049
G0 F12000 X75.74 Y151.89
G0 X73.81 Y145.31
G1 F1800 X68.47 Y139.97 E691.61951
G0 F12000 X68.47 Y139.31
G1 F1800 X73.81 Y144.65 E692.05852
G0 F12000 X73.81 Y143.99
G1 F1800 X68.47 Y138.65 E692.49754
G0 F12000 X68.47 Y137.99
G1 F1800 X73.81 Y143.33 E692.93655
G0 F12000 X73.81 Y142.68
G1 F1800 X68.47 Y137.33 E693.37556
G0 F12000 X68.47 Y136.68
G1 F1800 X73.81 Y142.02 E693.81458
G0 F12000 X73.81 Y141.36
G1 F1800 X68.47 Y136.02 E694.25359
G0 F12000 X68.47 Y135.36
G1 F1800 X73.81 Y140.70 E694.69261
G0 F12000 X73.81 Y140.04
G1 F1800 X68.47 Y134.70 E695.13162
G0 F12000 X68.47 Y134.04
G1 F1800 X73.81 Y139.38 E695.57064
G0 F12000 X73.81 Y138.72
G1 F1800 X68.47 Y133.38 E696.00965
G0 F12000 X68.47 Y132.72
G1 F1800 X73.81 Y138.06 E696.44866
G0 F12000 X73.81 Y137.40
G1 F1800 X68.47 Y132.06 E696.88768
G0 F12000 X68.47 Y131.40
G1 F1800 X73.81 Y136.74 E697.32669
G0 F12000 X73.81 Y136.09
G1 F1800 X68.47 Y130.74 E697.76571
G0 F12000 X68.47 Y130.09
G1 F1800 X73.81 Y135.43 E698.20472
G0 F12000 X73.81 Y134.77
G1 F1800 X68.86 Y129.82 E698.61110
G0 F12000 X69.52 Y129.82
G1 F1800 X73.81 Y134.11 E698.96332
G0 F12000 X73.81 Y133.45
G1 F1800 X70.18 Y129.82 E699.26137
G0 F12000 X70.84 Y129.82
G1 F1800 X73.81 Y132.79 E699.50524
G0 F12000 X73.81 Y132.13
G1 F1800 X71.50 Y129.82 E699.69495
G0 F12000 X72.16 Y129.82
G1 F1800 X73.81 Y131.47 E699.83050
G0 F12000 X73.81 Y130.81
G1 F1800 X72.82 Y129.82 E699.91187
G0 F12000 X73.48 Y129.82
G1 F1800 X73.81 Y130.15 E699.93908
G0 F12000 X74.53 Y145.10
G0 X84.86 Y145.82
G1 F1800 X89.81 Y150.77 E700.34546
G0 F12000 X89.81 Y150.11
G1 F1800 X85.52 Y145.82 E700.69768
G0 F12000 X86.18 Y145.82
G1 F1800 X89.81 Y149.45 E700.99572
G0 F12000 X89.81 Y148.79
G1 F1800 X86.84 Y145.82 E701.23960
G0 F12000 X87.50 Y145.82
G1 F1800 X89.81 Y148.13 E701.42931
G0 F12000 X89.81 Y147.47
G1 F1800 X88.16 Y145.82 E701.56486
G0 F12000 X88.82 Y145.82
G1 F1800 X89.81 Y146.81 E701.64623
G0 F12000 X89.81 Y146.15
G1 F1800 X89.48 Y145.82 E701.67344
G1 F2400 E700.47344
G0 F12000 X91.97 Y141.33
;TYPE:WALL-INNER
G1 F2400 E701.67344
G1 F1800 X78.30 Y141.33 E702.46797
G1 X78.30 Y127.66 E703.26250
G1 X91.97 Y127.66 E704.05702
G1 X91.97 Y141.33 E704.85155
G0 F12000 X92.44 Y141.80
G1 F1800 X77.84 Y141.80 E705.70025
G1 X77.84 Y127.19 E706.54895
G1 X92.44 Y127.19 E707.39765
G1 X92.44 Y141.80 E708.24635
G0 F12000 X92.90 Y142.26
;TYPE:WALL-OUTER
G1 F1800 X77.37 Y142.26 E709.14922
G1 X77.37 Y126.73 E710.05209
G1 X92.90 Y126.73 E710.95495
G1 X92.90 Y142.26 E711.85782
G0 F12000 X92.57 Y142.02
G0 X91.81 Y140.91
;TYPE:FILL
G1 F1800 X78.73 Y127.82 E712.93308
G0 F12000 X78.47 Y128.22
G1 F1800 X91.41 Y141.16 E713.99696
G0 F12000 X90.75 Y141.16
G1 F1800 X78.47 Y128.88 E715.00667
G0 F12000 X78.47 Y129.54
G1 F1800 X90.09 Y141.16 E715.96221
G0 F12000 X89.43 Y141.16
G1 F1800 X78.47 Y130.20 E716.86358
G0 F12000 X78.47 Y130.86
G1 F1800 X88.77 Y141.16 E717.71079
G0 F12000 X88.11 Y141.16
G1 F1800 X78.47 Y131.52 E718.50378
G0 F12000 X78.47 Y132.18
G1 F1800 X87.45 Y141.16 E719.24261
G0 F12000 X86.80 Y141.16
G1 F1800 X78.47 Y132.84 E719.92727
G0 F12000 X78.47 Y133.49
G1 F1800 X86.14 Y141.16 E720.55776
G0 F12000 X85.48 Y141.16
G1 F1800 X78.47 Y134.15 E721.13409
G0 F12000 X78.47 Y134.81
G1 F1800 X84.82 Y141.16 E721.65624
G0 F12000 X84.16 Y141.16
G1 F1800 X78.47 Y135.47 E722.12423
G0 F12000 X78.47 Y136.13
G1 F1800 X83.50 Y141.16 E722.53805
G0 F12000 X82.84 Y141.16
G1 F1800 X78.47 Y136.79 E722.89771
G0 F12000 X78.47 Y137.45
G1 F1800 X82.18 Y141.16 E723.20319
G0 F12000 X81.52 Y141.16
G1 F1800 X78.47 Y138.11 E723.45451
G0 F12000 X78.47 Y138.77
G1 F1800 X80.86 Y141.16 E723.65166
G0 F12000 X80.20 Y141.16
G1 F1800 X78.47 Y139.43 E723.79464
G0 F12000 X78.47 Y140.08
G1 F1800 X79.55 Y141.16 E723.88345
G0 F12000 X78.89 Y141.16
G1 F1800 X78.47 Y140.74 E723.91810
G0 F12000 X79.39 Y127.82
G1 F1800 X91.81 Y140.25 E724.93919
G0 F12000 X91.81 Y139.59
G1 F1800 X80.04 Y127.82 E725.90612
G0 F12000 X80.70 Y127.82
G1 F1800 X91.81 Y138.93 E726.81888
G0 F12000 X91.81 Y138.27
G1 F1800 X81.36 Y127.82 E727.67746
G0 F12000 X82.02 Y127.82
G1 F1800 X91.81 Y137.61 E728.48189
G0 F12000 X91.81 Y136.95
G1 F1800 X82.68 Y127.82 E729.23214
G0 F12000 X83.34 Y127.82
G1 F1800 X91.81 Y136.29 E729.92823
G0 F12000 X91.81 Y135.63
G1 F1800 X84.00 Y127.82 E730.57010
G0 F12000 X84.66 Y127.82
G1 F1800 X91.81 Y134.97 E731.15781
G0 F12000 X91.81 Y134.31
G1 F1800 X85.32 Y127.82 E731.69135
G0 F12000 X85.97 Y127.82
G1 F1800 X91.81 Y133.66 E732.17073
G0 F12000 X91.81 Y133.00
G1 F1800 X86.63 Y127.82 E732.59593
G0 F12000 X87.29 Y127.82
G1 F1800 X91.81 Y132.34 E732.96697
G0 F12000 X91.81 Y131.68
G1 F1800 X87.95 Y127.82 E733.28384
G0 F12000 X88.61 Y127.82
G1 F1800 X91.81 Y131.02 E733.54654
G0 F12000 X91.81 Y130.36
G1 F1800 X89.27 Y127.82 E733.75507
G0 F12000 X89.93 Y127.82
G1 F1800 X91.81 Y129.70 E733.90944
G0 F12000 X91.81 Y129.04
G1 F1800 X90.59 Y127.82 E734.00964
G0 F12000 X91.25 Y127.82
G1 F1800 X91.81 Y128.38 E734.05567
G1 F2400 E732.85567
G0 F12000 X98.30 Y127.66
;TYPE:WALL-INNER
G1 F2400 E734.05567
G1 F1800 X119.97 Y127.66 E735.31517
G1 X119.97 Y149.33 E736.57468
G1 X114.30 Y149.33 E736.90423
G1 X114.30 Y133.33 E737.83418
G1 X98.30 Y133.33 E738.76414
G1 X98.30 Y127.66 E739.09369
G0 F12000 X97.84 Y127.19
G1 F1800 X120.44 Y127.19 E740.40737
G1 X120.44 Y149.80 E741.72104
G1 X113.84 Y149.80 E742.10476
G1 X113.84 Y133.80 E743.03472
G1 X97.84 Y133.80 E743.96467
G1 X97.84 Y127.19 E744.34839
G0 F12000 X97.37 Y126.73
;TYPE:WALL-OUTER
G1 F1800 X120.90 Y126.73 E745.71624
G1 X120.90 Y150.26 E747.08408
G1 X113.37 Y150.26 E747.52197
G1 X113.37 Y134.26 E748.45193
G1 X97.37 Y134.26 E749.38188
G1 X97.37 Y126.73 E749.81977
G0 F12000 X97.70 Y126.97
G0 X98.50 Y127.82
;TYPE:FILL
G1 F1800 X103.84 Y133.16 E750.25883
G0 F12000 X103.18 Y133.16
G1 F1800 X98.47 Y128.45 E750.64626
G0 F12000 X98.47 Y129.11
G1 F1800 X102.52 Y133.16 E750.97953
G0 F12000 X101.86 Y133.16
G1 F1800 X98.47 Y129.77 E751.25863
G0 F12000 X98.47 Y130.43
G1 F1800 X101.20 Y133.16 E751.48356
G0 F12000 X100.54 Y133.16
G1 F1800 X98.47 Y131.09 E751.65433
G0 F12000 X98.47 Y131.75
G1 F1800 X99.88 Y133.16 E751.77092
G0 F12000 X99.22 Y133.16
G1 F1800 X98.47 Y132.41 E751.83335
G0 F12000 X98.47 Y133.06
G1 F1800 X98.57 Y133.16 E751.84161
G0 F12000 X99.16 Y127.82
G1 F1800 X104.50 Y133.16 E752.28067
G0 F12000 X105.16 Y133.16
G1 F1800 X99.81 Y127.82 E752.71973
G0 F12000 X100.47 Y127.82
G1 F1800 X105.81 Y133.16 E753.15878
G0 F12000 X106.47 Y133.16
G1 F1800 X101.13 Y127.82 E753.59784
G0 F12000 X101.79 Y127.82
G1 F1800 X107.13 Y133.16 E754.03689
G0 F12000 X107.79 Y133.16
G1 F1800 X102.45 Y127.82 E754.47595
G0 F12000 X103.11 Y127.82
G1 F1800 X108.45 Y133.16 E754.91500
G0 F12000 X109.11 Y133.16
G1 F1800 X103.77 Y127.82 E755.35406
G0 F12000 X104.43 Y127.82
G1 F1800 X109.77 Y133.16 E755.79311
G0 F12000 X110.43 Y133.16
G1 F1800 X105.09 Y127.82 E756.23217
G0 F12000 X105.75 Y127.82
G1 F1800 X111.09 Y133.16 E756.67122
G0 F12000 X111.75 Y133.16
G1 F1800 X106.41 Y127.82 E757.11028
G0 F12000 X107.06 Y127.82
G1 F1800 X112.41 Y133.16 E757.54934
G0 F12000 X113.06 Y133.16
G1 F1800 X107.72 Y127.82 E757.98839
G0 F12000 X108.38 Y127.82
G1 F1800 X113.72 Y133.16 E758.42745
G0 F12000 X114.38 Y133.16
G1 F1800 X109.04 Y127.82 E758.86654
G0 F12000 X109.70 Y127.82
G1 F1800 X119.81 Y137.93 E759.69735
G0 F12000 X119.81 Y138.59
G1 F1800 X114.47 Y133.25 E760.13649
G0 F12000 X114.47 Y133.91
G1 F1800 X119.81 Y139.25 E760.57563
G0 F12000 X119.81 Y139.91
G1 F1800 X114.47 Y134.56 E761.01476
G0 F12000 X114.47 Y135.22
G1 F1800 X119.81 Y140.57 E761.45390
G0 F12000 X119.81 Y141.23
G1 F1800 X114.47 Y135.88 E761.89300
G0 F12000 X114.47 Y136.54
G1 F1800 X119.81 Y141.88 E762.33209
G0 F12000 X119.81 Y142.54
G1 F1800 X114.47 Y137.20 E762.77119
G0 F12000 X114.47 Y137.86
G1 F1800 X119.81 Y143.20 E763.21029
G0 F12000 X119.81 Y143.86
G1 F1800 X114.47 Y138.52 E763.64938
G0 F12000 X114.47 Y139.18
G1 F1800 X119.81 Y144.52 E764.08848
G0 F12000 X119.81 Y145.18
G1 F1800 X114.47 Y139.84 E764.52758
G0 F12000 X114.47 Y140.50
G1 F1800 X119.81 Y145.84 E764.96667
G0 F12000 X119.81 Y146.50
G1 F1800 X114.47 Y141.16 E765.40577
G0 F12000 X114.47 Y141.81
G1 F1800 X119.81 Y147.16 E765.84487
G0 F12000 X119.81 Y147.82
G1 F1800 X114.47 Y142.47 E766.28396
G0 F12000 X114.47 Y143.13
G1 F1800 X119.81 Y148.47 E766.72306
G0 F12000 X119.81 Y149.13
G1 F1800 X114.47 Y143.79 E767.16216
G0 F12000 X114.47 Y144.45
G1 F1800 X119.18 Y149.16 E767.54959
G0 F12000 X118.52 Y149.16
G1 F1800 X114.47 Y145.11 E767.88286
G0 F12000 X114.47 Y145.77
G1 F1800 X117.86 Y149.16 E768.16196
G0 F12000 X117.20 Y149.16
G1 F1800 X114.47 Y146.43 E768.38689
G0 F12000 X114.47 Y147.09
G1 F1800 X116.54 Y149.16 E768.55766
G0 F12000 X115.88 Y149.16
G1 F1800 X114.47 Y147.75 E768.67425
G0 F12000 X114.47 Y148.41
G1 F1800 X115.22 Y149.16 E768.73668
G0 F12000 X114.57 Y149.16
G1 F1800 X114.47 Y149.06 E768.74494
G0 F12000 X119.81 Y137.27
G1 F1800 X110.36 Y127.82 E769.52158
G0 F12000 X111.02 Y127.82
G1 F1800 X119.81 Y136.61 E770.24405
G0 F12000 X119.81 Y135.95
G1 F1800 X111.68 Y127.82 E770.91236
G0 F12000 X112.34 Y127.82
G1 F1800 X119.81 Y135.29 E771.52645
G0 F12000 X119.81 Y134.63
G1 F1800 X113.00 Y127.82 E772.08638
G0 F12000 X113.65 Y127.82
G1 F1800 X119.81 Y133.98 E772.59213
G0 F12000 X119.81 Y133.32
G1 F1800 X114.31 Y127.82 E773.04373
G0 F12000 X114.97 Y127.82
G1 F1800 X119.81 Y132.66 E773.44115
G0 F12000 X119.81 Y132.00
G1 F1800 X115.63 Y127.82 E773.78440
G0 F12000 X116.29 Y127.82
G1 F1800 X119.81 Y131.34 E774.07349
G0 F12000 X119.81 Y130.68
G1 F1800 X116.95 Y127.82 E774.30841
G0 F12000 X117.61 Y127.82
G1 F1800 X119.81 Y130.02 E774.48916
G0 F12000 X119.81 Y129.36
G1 F1800 X118.27 Y127.82 E774.61574
G0 F12000 X118.93 Y127.82
G1 F1800 X119.81 Y128.70 E774.68816
G0 F12000 X119.81 Y128.04
G1 F1800 X119.58 Y127.82 E774.70641
G1 F2400 E773.50641
G0 F12000 X109.97 Y139.66
;TYPE:WALL-INNER
G1 F2400 E774.70641
G1 F1800 X109.97 Y161.33 E775.96585
G1 X96.30 Y161.33 E776.76038
G1 X96.30 Y139.66 E778.01983
G1 X109.97 Y139.66 E778.81436
G0 F12000 X110.44 Y139.19
G1 F1800 X110.44 Y161.79 E780.12798
G1 X95.84 Y161.79 E780.97668
G1 X95.84 Y139.19 E782.29029
G1 X110.44 Y139.19 E783.13899
G0 F12000 X110.90 Y138.73
;TYPE:WALL-OUTER
G1 F1800 X110.90 Y162.26 E784.50678
G1 X95.37 Y162.26 E785.40965
G1 X95.37 Y138.73 E786.77743
G1 X110.90 Y138.73 E787.68030
G0 F12000 X110.57 Y138.97
G0 X109.81 Y140.45
;TYPE:FILL
G1 F1800 X109.18 Y139.82 E787.73205
G0 F12000 X108.52 Y139.82
G1 F1800 X109.81 Y141.11 E787.83796
G0 F12000 X109.81 Y141.77
G1 F1800 X107.86 Y139.82 E787.99804
G0 F12000 X107.20 Y139.82
G1 F1800 X109.81 Y142.43 E788.21228
G0 F12000 X109.81 Y143.09
G1 F1800 X106.54 Y139.82 E788.48070
G0 F12000 X105.88 Y139.82
G1 F1800 X109.81 Y143.75 E788.80328
G0 F12000 X109.81 Y144.41
G1 F1800 X105.22 Y139.82 E789.18003
G0 F12000 X104.56 Y139.82
G1 F1800 X109.81 Y145.06 E789.61095
G0 F12000 X109.81 Y145.72
G1 F1800 X103.91 Y139.82 E790.09603
G0 F12000 X103.25 Y139.82
G1 F1800 X109.81 Y146.38 E790.63529
G0 F12000 X109.81 Y147.04
G1 F1800 X102.59 Y139.82 E791.22871
G0 F12000 X101.93 Y139.82
G1 F1800 X109.81 Y147.70 E791.87630
G0 F12000 X109.81 Y148.36
G1 F1800 X101.27 Y139.82 E792.57805
G0 F12000 X100.61 Y139.82
G1 F1800 X109.81 Y149.02 E793.33398
G0 F12000 X109.81 Y149.68
G1 F1800 X99.95 Y139.82 E794.14407
G0 F12000 X99.29 Y139.82
G1 F1800 X109.81 Y150.34 E795.00833
G0 F12000 X109.81 Y151.00
G1 F1800 X98.63 Y139.82 E795.92676
G0 F12000 X97.97 Y139.82
G1 F1800 X109.81 Y151.66 E796.89940
G0 F12000 X109.81 Y152.31
G1 F1800 X97.32 Y139.82 E797.92621
G0 F12000 X96.66 Y139.82
G1 F1800 X109.81 Y152.97 E799.00718
G0 F12000 X109.81 Y153.63
G1 F1800 X96.47 Y140.29 E800.10393
G0 F12000 X96.47 Y140.95
G1 F1800 X109.81 Y154.29 E801.20069
G0 F12000 X109.81 Y154.95
G1 F1800 X96.47 Y141.61 E802.29744
G0 F12000 X96.47 Y142.27
G1 F1800 X109.81 Y155.61 E803.39420
G0 F12000 X109.81 Y156.27
G1 F1800 X96.47 Y142.93 E804.49095
G0 F12000 X96.47 Y143.59
G1 F1800 X109.81 Y156.93 E805.58771
G0 F12000 X109.81 Y157.59
G1 F1800 X96.47 Y144.24 E806.68446
G0 F12000 X96.47 Y144.90
G1 F1800 X109.81 Y158.25 E807.78122
G0 F12000 X109.81 Y158.91
G1 F1800 X96.47 Y145.56 E808.87797
G0 F12000 X96.47 Y146.22
G1 F1800 X109.81 Y159.56 E809.97473
G0 F12000 X109.81 Y160.22
G1 F1800 X96.47 Y146.88 E811.07148
G0 F12000 X96.47 Y147.54
G1 F1800 X109.81 Y160.88 E812.16824
G0 F12000 X109.43 Y161.16
G1 F1800 X96.47 Y148.20 E813.23392
G0 F12000 X96.47 Y148.86
G1 F1800 X108.77 Y161.16 E814.24544
G0 F12000 X108.11 Y161.16
G1 F1800 X96.47 Y149.52 E815.20275
G0 F12000 X96.47 Y150.18
G1 F1800 X107.45 Y161.16 E816.10589
G0 F12000 X106.79 Y161.16
G1 F1800 X96.47 Y150.84 E816.95486
G0 F12000 X96.47 Y151.49
G1 F1800 X106.14 Y161.16 E817.74967
G0 F12000 X105.48 Y161.16
G1 F1800 X96.47 Y152.15 E818.49030
G0 F12000 X96.47 Y152.81
G1 F1800 X104.82 Y161.16 E819.17677
G0 F12000 X104.16 Y161.16
G1 F1800 X96.47 Y153.47 E819.80907
G0 F12000 X96.47 Y154.13
G1 F1800 X103.50 Y161.16 E820.38720
G0 F12000 X102.84 Y161.16
G1 F1800 X96.47 Y154.79 E820.91117
G0 F12000 X96.47 Y155.45
G1 F1800 X102.18 Y161.16 E821.38097
G0 F12000 X101.52 Y161.16
G1 F1800 X96.47 Y156.11 E821.79660
G0 F12000 X96.47 Y156.77
G1 F1800 X100.86 Y161.16 E822.15806
G0 F12000 X100.20 Y161.16
G1 F1800 X96.47 Y157.43 E822.46535
G0 F12000 X96.47 Y158.08
G1 F1800 X99.55 Y161.16 E822.71848
G0 F12000 X98.89 Y161.16
G1 F1800 X96.47 Y158.74 E822.91743
G0 F12000 X96.47 Y159.40
G1 F1800 X98.23 Y161.16 E823.06223
G0 F12000 X97.57 Y161.16
G1 F1800 X96.47 Y160.06 E823.15285
G0 F12000 X96.47 Y160.72
G1 F1800 X96.91 Y161.16 E823.18926
G1 F2400 E821.98926
G0 F12000 X91.97 Y157.66
;TYPE:WALL-INNER
G1 F2400 E823.18926
G1 F1800 X91.97 Y179.33 E824.44877
G1 X70.30 Y179.33 E825.70827
G1 X70.30 Y173.66 E826.03782
G1 X86.30 Y173.66 E826.96778
G1 X86.30 Y157.66 E827.89773
G1 X91.97 Y157.66 E828.22728
G0 F12000 X92.44 Y157.19
G1 F1800 X92.44 Y179.79 E829.54096
G1 X69.84 Y179.79 E830.85463
G1 X69.84 Y173.19 E831.23836
G1 X85.84 Y173.19 E832.16831
G1 X85.84 Y157.19 E833.09826
G1 X92.44 Y157.19 E833.48198
G0 F12000 X92.90 Y156.73
;TYPE:WALL-OUTER
G1 F1800 X92.90 Y180.26 E834.84983
G1 X69.37 Y180.26 E836.21767
G1 X69.37 Y172.73 E836.65557
G1 X85.37 Y172.73 E837.58552
G1 X85.37 Y156.73 E838.51547
G1 X92.90 Y156.73 E838.95337
G0 F12000 X92.57 Y156.97
G0 X91.81 Y158.04
;TYPE:FILL
G1 F1800 X91.59 Y157.82 E838.97120
G0 F12000 X90.93 Y157.82
G1 F1800 X91.81 Y158.70 E839.04321
G0 F12000 X91.81 Y159.36
G1 F1800 X90.27 Y157.82 E839.16938
G0 F12000 X89.61 Y157.82
G1 F1800 X91.81 Y160.02 E839.34972
G0 F12000 X91.81 Y160.68
G1 F1800 X88.95 Y157.82 E839.58423
G0 F12000 X88.30 Y157.82
G1 F1800 X91.81 Y161.33 E839.87290
G0 F12000 X91.81 Y161.99
G1 F1800 X87.64 Y157.82 E840.21575
G0 F12000 X86.98 Y157.82
G1 F1800 X91.81 Y162.65 E840.61276
G0 F12000 X91.81 Y163.31
G1 F1800 X86.47 Y157.97 E841.05186
G0 F12000 X86.47 Y158.63
G1 F1800 X91.81 Y163.97 E841.49095
G0 F12000 X91.81 Y164.63
G1 F1800 X86.47 Y159.29 E841.93009
G0 F12000 X86.47 Y159.95
G1 F1800 X91.81 Y165.29 E842.36923
G0 F12000 X91.81 Y165.95
G1 F1800 X86.47 Y160.60 E842.80837
G0 F12000 X86.47 Y161.26
G1 F1800 X91.81 Y166.61 E843.24750
G0 F12000 X91.81 Y167.27
G1 F1800 X86.47 Y161.92 E843.68664
G0 F12000 X86.47 Y162.58
G1 F1800 X91.81 Y167.93 E844.12578
G0 F12000 X91.81 Y168.58
G1 F1800 X86.47 Y163.24 E844.56492
G0 F12000 X86.47 Y163.90
G1 F1800 X91.81 Y169.24 E845.00405
G0 F12000 X91.81 Y169.90
G1 F1800 X86.47 Y164.56 E845.44315
G0 F12000 X86.47 Y165.22
G1 F1800 X91.81 Y170.56 E845.88225
G0 F12000 X91.81 Y171.22
G1 F1800 X86.47 Y165.88 E846.32134
G0 F12000 X86.47 Y166.54
G1 F1800 X91.81 Y171.88 E846.76044
G0 F12000 X91.81 Y172.54
G1 F1800 X86.47 Y167.20 E847.19954
G0 F12000 X86.47 Y167.85
G1 F1800 X91.81 Y173.20 E847.63863
G0 F12000 X91.81 Y173.86
G1 F1800 X86.47 Y168.51 E848.07773
G0 F12000 X86.47 Y169.17
G1 F1800 X91.81 Y174.51 E848.51683
G0 F12000 X91.81 Y175.17
G1 F1800 X86.47 Y169.83 E848.95592
G0 F12000 X86.47 Y170.49
G1 F1800 X91.81 Y175.83 E849.39502
G0 F12000 X91.81 Y176.49
G1 F1800 X86.47 Y171.15 E849.83412
G0 F12000 X86.47 Y171.81
G1 F1800 X91.81 Y177.15 E850.27321
G0 F12000 X91.81 Y177.81
G1 F1800 X86.47 Y172.47 E850.71231
G0 F12000 X86.47 Y173.13
G1 F1800 X91.81 Y178.47 E851.15141
G0 F12000 X91.81 Y179.13
G1 F1800 X86.47 Y173.79 E851.59050
G0 F12000 X85.84 Y173.82
G1 F1800 X91.18 Y179.16 E852.02956
G0 F12000 X90.53 Y179.16
G1 F1800 X85.18 Y173.82 E852.46861
G0 F12000 X84.52 Y173.82
G1 F1800 X89.87 Y179.16 E852.90767
G0 F12000 X89.21 Y179.16
G1 F1800 X83.86 Y173.82 E853.34672
G0 F12000 X83.21 Y173.82
G1 F1800 X88.55 Y179.16 E853.78578
G0 F12000 X87.89 Y179.16
G1 F1800 X82.55 Y173.82 E854.22484
G0 F12000 X81.89 Y173.82
G1 F1800 X87.23 Y179.16 E854.66389
G0 F12000 X86.57 Y179.16
G1 F1800 X81.23 Y173.82 E855.10295
G0 F12000 X80.57 Y173.82
G1 F1800 X85.91 Y179.16 E855.54200
G0 F12000 X85.25 Y179.16
G1 F1800 X79.91 Y173.82 E855.98106
G0 F12000 X79.25 Y173.82
G1 F1800 X84.59 Y179.16 E856.42011
G0 F12000 X83.93 Y179.16
G1 F1800 X78.59 Y173.82 E856.85913
G0 F12000 X77.93 Y173.82
G1 F1800 X83.28 Y179.16 E857.29814
G0 F12000 X82.62 Y179.16
G1 F1800 X77.28 Y173.82 E857.73716
G0 F12000 X76.62 Y173.82
G1 F1800 X81.96 Y179.16 E858.17617
G0 F12000 X81.30 Y179.16
G1 F1800 X75.96 Y173.82 E858.61519
G0 F12000 X75.30 Y173.82
G1 F1800 X80.64 Y179.16 E859.05420
G0 F12000 X79.98 Y179.16
G1 F1800 X74.64 Y173.82 E859.49321
G0 F12000 X73.98 Y173.82
G1 F1800 X79.32 Y179.16 E859.93223
G0 F12000 X78.66 Y179.16
G1 F1800 X73.32 Y173.82 E860.37124
G0 F12000 X72.66 Y173.82
G1 F1800 X78.00 Y179.16 E860.81026
G0 F12000 X77.34 Y179.16
G1 F1800 X72.00 Y173.82 E861.24927
G0 F12000 X71.34 Y173.82
G1 F1800 X76.69 Y179.16 E861.68829
G0 F12000 X76.03 Y179.16
G1 F1800 X70.69 Y173.82 E862.12730
G0 F12000 X70.47 Y174.26
G1 F1800 X75.37 Y179.16 E862.53015
G0 F12000 X74.71 Y179.16
G1 F1800 X70.47 Y174.92 E862.87883
G0 F12000 X70.47 Y175.58
G1 F1800 X74.05 Y179.16 E863.17334
G0 F12000 X73.39 Y179.16
G1 F1800 X70.47 Y176.24 E863.41368
G0 F12000 X70.47 Y176.90
G1 F1800 X72.73 Y179.16 E863.59986
G0 F12000 X72.07 Y179.16
G1 F1800 X70.47 Y177.56 E863.73187
G0 F12000 X70.47 Y178.22
G1 F1800 X71.41 Y179.16 E863.80971
G0 F12000 X70.75 Y179.16
G1 F1800 X70.47 Y178.88 E863.83338
G1 F2400 E862.63338
G0 F12000 X66.30 Y169.33
;TYPE:WALL-INNER
G1 F2400 E863.83338
G1 F1800 X66.30 Y155.66 E864.62791
G1 X71.97 Y155.66 E864.95746
G1 X71.97 Y163.66 E865.42244
G1 X79.97 Y163.66 E865.88742
G1 X79.97 Y169.33 E866.21697
G1 X66.30 Y169.33 E867.01150
G0 F12000 X65.84 Y169.79
G1 F1800 X65.84 Y155.19 E867.86020
G1 X72.44 Y155.19 E868.24392
G1 X72.44 Y163.19 E868.70890
G1 X80.44 Y163.19 E869.17387
G1 X80.44 Y169.79 E869.55759
G1 X65.84 Y169.79 E870.40629
G0 F12000 X65.37 Y170.26
;TYPE:WALL-OUTER
G1 F1800 X65.37 Y154.73 E871.30916
G1 X72.90 Y154.73 E871.74705
G1 X72.90 Y162.73 E872.21203
G1 X80.90 Y162.73 E872.67701
G1 X80.90 Y170.26 E873.11490
G1 X65.37 Y170.26 E874.01777
G0 F12000 X65.61 Y169.93
G0 X66.47 Y168.94
;TYPE:FILL
G1 F1800 X66.69 Y169.16 E874.03581
G0 F12000 X67.34 Y169.16
G1 F1800 X66.47 Y168.28 E874.10802
G0 F12000 X66.47 Y167.63
G1 F1800 X68.00 Y169.16 E874.23440
G0 F12000 X68.66 Y169.16
G1 F1800 X66.47 Y166.97 E874.41494
G0 F12000 X66.47 Y166.31
G1 F1800 X69.32 Y169.16 E874.64970
G0 F12000 X69.98 Y169.16
G1 F1800 X66.47 Y165.65 E874.93862
G0 F12000 X66.47 Y164.99
G1 F1800 X70.64 Y169.16 E875.28171
G0 F12000 X71.30 Y169.16
G1 F1800 X66.47 Y164.33 E875.67897
G0 F12000 X66.47 Y163.67
G1 F1800 X71.96 Y169.16 E876.13044
G0 F12000 X72.62 Y169.16
G1 F1800 X66.47 Y163.01 E876.63607
G0 F12000 X66.47 Y162.35
G1 F1800 X73.28 Y169.16 E877.19587
G0 F12000 X73.94 Y169.16
G1 F1800 X66.47 Y161.69 E877.80985
G0 F12000 X66.47 Y161.03
G1 F1800 X74.59 Y169.16 E878.47798
G0 F12000 X75.25 Y169.16
G1 F1800 X66.47 Y160.38 E879.20029
G0 F12000 X66.47 Y159.72
G1 F1800 X75.91 Y169.16 E879.97676
G0 F12000 X76.57 Y169.16
G1 F1800 X66.47 Y159.06 E880.80741
G0 F12000 X66.47 Y158.40
G1 F1800 X71.81 Y163.74 E881.24654
G0 F12000 X71.89 Y163.82
G1 F1800 X77.23 Y169.16 E881.68560
G0 F12000 X77.89 Y169.16
G1 F1800 X72.55 Y163.82 E882.12466
G0 F12000 X73.21 Y163.82
G1 F1800 X78.55 Y169.16 E882.56371
G0 F12000 X79.21 Y169.16
G1 F1800 X73.86 Y163.82 E883.00277
G0 F12000 X74.52 Y163.82
G1 F1800 X79.81 Y169.11 E883.43710
G0 F12000 X79.81 Y168.45
G1 F1800 X75.18 Y163.82 E883.81722
G0 F12000 X75.84 Y163.82
G1 F1800 X79.81 Y167.79 E884.14317
G0 F12000 X79.81 Y167.13
G1 F1800 X76.50 Y163.82 E884.41495
G0 F12000 X77.16 Y163.82
G1 F1800 X79.81 Y166.47 E884.63257
G0 F12000 X79.81 Y165.81
G1 F1800 X77.82 Y163.82 E884.79602
G0 F12000 X78.48 Y163.82
G1 F1800 X79.81 Y165.15 E884.90530
G0 F12000 X79.81 Y164.49
G1 F1800 X79.14 Y163.82 E884.96041
G0 F12000 X71.81 Y163.08
G1 F1800 X66.47 Y157.74 E885.39955
G0 F12000 X66.47 Y157.08
G1 F1800 X71.81 Y162.42 E885.83869
G0 F12000 X71.81 Y161.76
G1 F1800 X66.47 Y156.42 E886.27783
G0 F12000 X66.52 Y155.82
G1 F1800 X71.81 Y161.10 E886.71211
G0 F12000 X71.81 Y160.45
G1 F1800 X67.18 Y155.82 E887.09223
G0 F12000 X67.84 Y155.82
G1 F1800 X71.81 Y159.79 E887.41819
G0 F12000 X71.81 Y159.13
G1 F1800 X68.50 Y155.82 E887.68997
G0 F12000 X69.16 Y155.82
G1 F1800 X71.81 Y158.47 E887.90759
G0 F12000 X71.81 Y157.81
G1 F1800 X69.82 Y155.82 E888.07104
G0 F12000 X70.48 Y155.82
G1 F1800 X71.81 Y157.15 E888.18032
G0 F12000 X71.81 Y156.49
G1 F1800 X71.14 Y155.82 E888.23543
G1 F2400 E887.03543
G0 F12000 X106.30 Y165.66
;TYPE:WALL-INNER
G1 F2400 E888.23543
G1 F1800 X114.30 Y165.66 E888.70041
G1 X114.30 Y157.66 E889.16538
G1 X119.97 Y157.66 E889.49494
G1 X119.97 Y179.33 E890.75444
G1 X106.30 Y179.33 E891.54897
G1 X106.30 Y165.66 E892.34350
G0 F12000 X105.84 Y165.19
G1 F1800 X113.84 Y165.19 E892.80848
G1 X113.84 Y157.19 E893.27345
G1 X120.44 Y157.19 E893.65717
G1 X120.44 Y179.79 E894.97085
G1 X105.84 Y179.79 E895.81955
G1 X105.84 Y165.19 E896.66825
G0 F12000 X105.37 Y164.73
;TYPE:WALL-OUTER
G1 F1800 X113.37 Y164.73 E897.13322
G1 X113.37 Y156.73 E897.59820
G1 X120.90 Y156.73 E898.03609
G1 X120.90 Y180.26 E899.40394
G1 X105.37 Y180.26 E900.30681
G1 X105.37 Y164.73 E901.20968
G0 F12000 X105.70 Y164.97
G0 X106.47 Y166.11
;TYPE:FILL
G1 F1800 X119.52 Y179.16 E902.28284
G0 F12000 X119.81 Y178.79
G1 F1800 X106.84 Y165.82 E903.34877
G0 F12000 X107.50 Y165.82
G1 F1800 X119.81 Y178.13 E904.36053
G0 F12000 X119.81 Y177.47
G1 F1800 X108.16 Y165.82 E905.31813
G0 F12000 X108.82 Y165.82
G1 F1800 X119.81 Y176.81 E906.22156
G0 F12000 X119.81 Y176.15
G1 F1800 X109.47 Y165.82 E907.07082
G0 F12000 X110.13 Y165.82
G1 F1800 X119.81 Y175.50 E907.86591
G0 F12000 X119.81 Y174.84
G1 F1800 X110.79 Y165.82 E908.60683
G0 F12000 X111.45 Y165.82
G1 F1800 X119.81 Y174.18 E909.29359
G0 F12000 X119.81 Y173.52
G1 F1800 X112.11 Y165.82 E909.92618
G0 F12000 X112.77 Y165.82
G1 F1800 X119.81 Y172.86 E910.50460
G0 F12000 X119.81 Y172.20
G1 F1800 X113.43 Y165.82 E911.02885
G0 F12000 X114.09 Y165.82
G1 F1800 X119.81 Y171.54 E911.49894
G0 F12000 X119.81 Y170.88
G1 F1800 X114.47 Y165.54 E911.93803
G0 F12000 X114.47 Y164.88
G1 F1800 X119.81 Y170.22 E912.37713
G0 F12000 X119.81 Y169.56
G1 F1800 X114.47 Y164.22 E912.81623
G0 F12000 X114.47 Y163.56
G1 F1800 X119.81 Y168.91 E913.25536
G0 F12000 X119.81 Y168.25
G1 F1800 X114.47 Y162.90 E913.69450
G0 F12000 X114.47 Y162.24
G1 F1800 X119.81 Y167.59 E914.13364
G0 F12000 X119.81 Y166.93
G1 F1800 X114.47 Y161.59 E914.57278
G0 F12000 X114.47 Y160.93
G1 F1800 X119.81 Y166.27 E915.01191
G0 F12000 X119.81 Y165.61
G1 F1800 X114.47 Y160.27 E915.45105
G0 F12000 X114.47 Y159.61
G1 F1800 X119.81 Y164.95 E915.89019
G0 F12000 X119.81 Y164.29
G1 F1800 X114.47 Y158.95 E916.32933
G0 F12000 X114.47 Y158.29
G1 F1800 X119.81 Y163.63 E916.76842
G0 F12000 X119.81 Y162.97
G1 F1800 X114.66 Y157.82 E917.19182
G0 F12000 X115.31 Y157.82
G1 F1800 X119.81 Y162.31 E917.56105
G0 F12000 X119.81 Y161.66
G1 F1800 X115.97 Y157.82 E917.87611
G0 F12000 X116.63 Y157.82
G1 F1800 X119.81 Y161.00 E918.13701
G0 F12000 X119.81 Y160.34
G1 F1800 X117.29 Y157.82 E918.34373
G0 F12000 X117.95 Y157.82
G1 F1800 X119.81 Y159.68 E918.49629
G0 F12000 X119.81 Y159.02
G1 F1800 X118.61 Y157.82 E918.59468
G0 F12000 X119.27 Y157.82
G1 F1800 X119.81 Y158.36 E918.63890
G0 F12000 X113.74 Y165.10
G0 X106.47 Y166.77
G1 F1800 X118.86 Y179.16 E919.65790
G0 F12000 X118.20 Y179.16
G1 F1800 X106.47 Y167.43 E920.62273
G0 F12000 X106.47 Y168.08
G1 F1800 X117.55 Y179.16 E921.53339
G0 F12000 X116.89 Y179.16
G1 F1800 X106.47 Y168.74 E922.38988
G0 F12000 X106.47 Y169.40
G1 F1800 X116.23 Y179.16 E923.19221
G0 F12000 X115.57 Y179.16
G1 F1800 X106.47 Y170.06 E923.94032
G0 F12000 X106.47 Y170.72
G1 F1800 X114.91 Y179.16 E924.63427
G0 F12000 X114.25 Y179.16
G1 F1800 X106.47 Y171.38 E925.27405
G0 F12000 X106.47 Y172.04
G1 F1800 X113.59 Y179.16 E925.85966
G0 F12000 X112.93 Y179.16
G1 F1800 X106.47 Y172.70 E926.39111
G0 F12000 X106.47 Y173.36
G1 F1800 X112.27 Y179.16 E926.86839
G0 F12000 X111.61 Y179.16
G1 F1800 X106.47 Y174.02 E927.29145
G0 F12000 X106.47 Y174.68
G1 F1800 X110.95 Y179.16 E927.66035
G0 F12000 X110.30 Y179.16
G1 F1800 X106.47 Y175.33 E927.97509
G0 F12000 X106.47 Y175.99
G1 F1800 X109.64 Y179.16 E928.23565
G0 F12000 X108.98 Y179.16
G1 F1800 X106.47 Y176.65 E928.44205
G0 F12000 X106.47 Y177.31
G1 F1800 X108.32 Y179.16 E928.59428
G0 F12000 X107.66 Y179.16
G1 F1800 X106.47 Y177.97 E928.69234
G0 F12000 X106.47 Y178.63
G1 F1800 X107.00 Y179.16 E928.73623
G1 F2400 E927.53623
G0 F12000 X101.23 Y172.96
;TYPE:SUPPORT
G1 F2400 E928.73623
G1 F1800 X101.23 Y163.63 E929.27898
G0 F12000 X100.30 Y163.63
G1 F1800 X100.30 Y172.96 E929.82172
G0 F12000 X99.36 Y172.96
G1 F1800 X99.36 Y163.63 E930.36446
G0 F12000 X98.43 Y163.63
G1 F1800 X98.43 Y172.96 E930.90721
G0 F12000 X97.50 Y172.96
G1 F1800 X97.50 Y163.63 E931.44995
G0 F12000 X96.56 Y163.63
G1 F1800 X96.56 Y172.96 E931.99270
G0 F12000 X95.63 Y172.96
G1 F1800 X95.63 Y163.63 E932.53544
G0 F12000 X94.70 Y163.63
G1 F1800 X94.70 Y172.96 E933.07818
;LAYER:1
G1 F2400 E931.87818
G0 F12000 X91.97 Y179.33 Z0.50
;TYPE:WALL-INNER
G1 F2400 E933.07818
G1 F1800 X70.30 Y179.33 E933.91785
G1 X70.30 Y173.66 E934.13756
G1 X86.30 Y173.66 E934.75752
G1 X86.30 Y157.66 E935.37749
G1 X91.97 Y157.66 E935.59720
G1 X91.97 Y179.33 E936.43687
G0 F12000 X92.44 Y179.79
G1 F1800 X69.84 Y179.79 E937.31265
G1 X69.84 Y173.19 E937.56846
G1 X85.84 Y173.19 E938.18843
G1 X85.84 Y157.19 E938.80840
G1 X92.44 Y157.19 E939.06422
G1 X92.44 Y179.79 E939.94000
G0 F12000 X92.90 Y180.26
;TYPE:WALL-OUTER
G1 F1800 X69.37 Y180.26 E940.85190
G1 X69.37 Y172.73 E941.14382
G1 X85.37 Y172.73 E941.76379
G1 X85.37 Y156.73 E942.38376
G1 X92.90 Y156.73 E942.67569
G1 X92.90 Y180.26 E943.58759
G0 F12000 X92.57 Y180.02
G0 X91.36 Y179.16
;TYPE:FILL
G1 F1800 X91.81 Y178.72 E943.61181
G0 F12000 X91.81 Y178.06
G1 F1800 X90.71 Y179.16 E943.67214
G0 F12000 X90.05 Y179.16
G1 F1800 X91.81 Y177.40 E943.76858
G0 F12000 X91.81 Y176.74
G1 F1800 X89.39 Y179.16 E943.90114
G0 F12000 X88.73 Y179.16
G1 F1800 X91.81 Y176.09 E944.06981
G0 F12000 X91.81 Y175.43
G1 F1800 X88.07 Y179.16 E944.27459
G0 F12000 X87.41 Y179.16
G1 F1800 X91.81 Y174.77 E944.51548
G0 F12000 X91.81 Y174.11
G1 F1800 X86.75 Y179.16 E944.79249
G0 F12000 X86.09 Y179.16
G1 F1800 X91.81 Y173.45 E945.10560
G0 F12000 X91.81 Y172.79
G1 F1800 X85.43 Y179.16 E945.45483
G0 F12000 X84.78 Y179.16
G1 F1800 X91.81 Y172.13 E945.84017
G0 F12000 X91.81 Y171.47
G1 F1800 X84.12 Y179.16 E946.26165
G0 F12000 X83.46 Y179.16
G1 F1800 X91.81 Y170.81 E946.71927
G0 F12000 X91.81 Y170.15
G1 F1800 X82.80 Y179.16 E947.21300
G0 F12000 X82.14 Y179.16
G1 F1800 X91.81 Y169.49 E947.74284
G0 F12000 X91.81 Y168.84
G1 F1800 X81.48 Y179.16 E948.30879
G0 F12000 X80.82 Y179.16
G1 F1800 X86.16 Y173.82 E948.60150
G0 F12000 X86.47 Y173.52
G1 F1800 X91.81 Y168.18 E948.89420
G0 F12000 X91.81 Y167.52
G1 F1800 X86.47 Y172.86 E949.18690
G0 F12000 X86.47 Y172.20
G1 F1800 X91.81 Y166.86 E949.47961
G0 F12000 X91.81 Y166.20
G1 F1800 X86.47 Y171.54 E949.77231
G0 F12000 X86.47 Y170.88
G1 F1800 X91.81 Y165.54 E950.06502
G0 F12000 X91.81 Y164.88
G1 F1800 X86.47 Y170.22 E950.35772
G0 F12000 X86.47 Y169.56
G1 F1800 X91.81 Y164.22 E950.65042
G0 F12000 X91.81 Y163.56
G1 F1800 X86.47 Y168.91 E950.94313
G0 F12000 X86.47 Y168.25
G1 F1800 X91.81 Y162.90 E951.23583
G0 F12000 X91.81 Y162.25
G1 F1800 X86.47 Y167.59 E951.52853
G0 F12000 X86.47 Y166.93
G1 F1800 X91.81 Y161.59 E951.82124
G0 F12000 X91.81 Y160.93
G1 F1800 X86.47 Y166.27 E952.11394
G0 F12000 X86.47 Y165.61
G1 F1800 X91.81 Y160.27 E952.40664
G0 F12000 X91.81 Y159.61
G1 F1800 X86.47 Y164.95 E952.69935
G0 F12000 X86.47 Y164.29
G1 F1800 X91.81 Y158.95 E952.99205
G0 F12000 X91.81 Y158.29
G1 F1800 X86.47 Y163.63 E953.28473
G0 F12000 X86.47 Y162.97
G1 F1800 X91.62 Y157.82 E953.56705
G0 F12000 X90.96 Y157.82
G1 F1800 X86.47 Y162.31 E953.81326
G0 F12000 X86.47 Y161.66
G1 F1800 X90.30 Y157.82 E954.02335
G0 F12000 X89.64 Y157.82
G1 F1800 X86.47 Y161.00 E954.19733
G0 F12000 X86.47 Y160.34
G1 F1800 X88.98 Y157.82 E954.33521
G0 F12000 X88.32 Y157.82
G1 F1800 X86.47 Y159.68 E954.43697
G0 F12000 X86.47 Y159.02
G1 F1800 X87.66 Y157.82 E954.50261
G0 F12000 X87.00 Y157.82
G1 F1800 X86.47 Y158.36 E954.53215
G0 F12000 X85.74 Y173.10
G0 X85.50 Y173.82
G1 F1800 X80.16 Y179.16 E954.82485
G0 F12000 X79.50 Y179.16
G1 F1800 X84.84 Y173.82 E955.11756
G0 F12000 X84.19 Y173.82
G1 F1800 X78.84 Y179.16 E955.41026
G0 F12000 X78.18 Y179.16
G1 F1800 X83.53 Y173.82 E955.70297
G0 F12000 X82.87 Y173.82
G1 F1800 X77.53 Y179.16 E955.99567
G0 F12000 X76.87 Y179.16
G1 F1800 X82.21 Y173.82 E956.28837
G0 F12000 X81.55 Y173.82
G1 F1800 X76.21 Y179.16 E956.58108
G0 F12000 X75.55 Y179.16
G1 F1800 X80.89 Y173.82 E956.87378
G0 F12000 X80.23 Y173.82
G1 F1800 X74.89 Y179.16 E957.16648
G0 F12000 X74.23 Y179.16
G1 F1800 X79.57 Y173.82 E957.45919
G0 F12000 X78.91 Y173.82
G1 F1800 X73.57 Y179.16 E957.75189
G0 F12000 X72.91 Y179.16
G1 F1800 X78.25 Y173.82 E958.04459
G0 F12000 X77.59 Y173.82
G1 F1800 X72.25 Y179.16 E958.33730
G0 F12000 X71.59 Y179.16
G1 F1800 X76.94 Y173.82 E958.63000
G0 F12000 X76.28 Y173.82
G1 F1800 X70.94 Y179.16 E958.92271
G0 F12000 X70.47 Y178.97
G1 F1800 X75.62 Y173.82 E959.20500
G0 F12000 X74.96 Y173.82
G1 F1800 X70.47 Y178.31 E959.45118
G0 F12000 X70.47 Y177.66
G1 F1800 X74.30 Y173.82 E959.66125
G0 F12000 X73.64 Y173.82
G1 F1800 X70.47 Y177.00 E959.83520
G0 F12000 X70.47 Y176.34
G1 F1800 X72.98 Y173.82 E959.97305
G0 F12000 X72.32 Y173.82
G1 F1800 X70.47 Y175.68 E960.07478
G0 F12000 X70.47 Y175.02
G1 F1800 X71.66 Y173.82 E960.14040
G0 F12000 X71.00 Y173.82
G1 F1800 X70.47 Y174.36 E960.16991
G1 F2400 E958.96991
G0 F12000 X106.30 Y179.33
;TYPE:WALL-INNER
G1 F2400 E960.16991
G1 F1800 X106.30 Y165.66 E960.69959
G1 X114.30 Y165.66 E961.00958
G1 X114.30 Y157.66 E961.31956
G1 X119.97 Y157.66 E961.53927
G1 X119.97 Y179.33 E962.37894
G1 X106.30 Y179.33 E962.90862
G0 F12000 X105.84 Y179.79
G1 F1800 X105.84 Y165.19 E963.47442
G1 X113.84 Y165.19 E963.78441
G1 X113.84 Y157.19 E964.09439
G1 X120.44 Y157.19 E964.35020
G1 X120.44 Y179.79 E965.22599
G1 X105.84 Y179.79 E965.79179
G0 F12000 X105.37 Y180.26
;TYPE:WALL-OUTER
G1 F1800 X105.37 Y164.73 E966.39370
G1 X113.37 Y164.73 E966.70368
G1 X113.37 Y156.73 E967.01367
G1 X120.90 Y156.73 E967.30560
G1 X120.90 Y180.26 E968.21749
G1 X105.37 Y180.26 E968.81941
G0 F12000 X105.61 Y179.93
G0 X106.52 Y179.16
;TYPE:FILL
G1 F1800 X119.81 Y165.88 E969.54740
G0 F12000 X119.81 Y166.54
G1 F1800 X107.18 Y179.16 E970.23928
G0 F12000 X107.84 Y179.16
G1 F1800 X119.81 Y167.20 E970.89504
G0 F12000 X119.81 Y167.85
G1 F1800 X108.50 Y179.16 E971.51470
G0 F12000 X109.16 Y179.16
G1 F1800 X119.81 Y168.51 E972.09825
G0 F12000 X119.81 Y169.17
G1 F1800 X109.82 Y179.16 E972.64568
G0 F12000 X110.48 Y179.16
G1 F1800 X119.81 Y169.83 E973.15700
G0 F12000 X119.81 Y170.49
G1 F1800 X111.14 Y179.16 E973.63221
G0 F12000 X111.79 Y179.16
G1 F1800 X119.81 Y171.15 E974.07130
G0 F12000 X119.81 Y171.81
G1 F1800 X112.45 Y179.16 E974.47426
G0 F12000 X113.11 Y179.16
G1 F1800 X119.81 Y172.47 E974.84108
G0 F12000 X119.81 Y173.13
G1 F1800 X113.77 Y179.16 E975.17178
G0 F12000 X114.43 Y179.16
G1 F1800 X119.81 Y173.79 E975.46638
G0 F12000 X119.81 Y174.45
G1 F1800 X115.09 Y179.16 E975.72486
G0 F12000 X115.75 Y179.16
G1 F1800 X119.81 Y175.10 E975.94723
G0 F12000 X119.81 Y175.76
G1 F1800 X116.41 Y179.16 E976.13349
G0 F12000 X117.07 Y179.16
G1 F1800 X119.81 Y176.42 E976.28364
G0 F12000 X119.81 Y177.08
G1 F1800 X117.73 Y179.16 E976.39767
G0 F12000 X118.39 Y179.16
G1 F1800 X119.81 Y177.74 E976.47559
G0 F12000 X119.81 Y178.40
G1 F1800 X119.04 Y179.16 E976.51740
G0 F12000 X119.70 Y179.16
G1 F1800 X119.81 Y179.06 E976.52310
G0 F12000 X106.47 Y178.56
G1 F1800 X119.81 Y165.22 E977.25419
G0 F12000 X119.81 Y164.56
G1 F1800 X106.47 Y177.90 E977.98528
G0 F12000 X106.47 Y177.24
G1 F1800 X119.81 Y163.90 E978.71637
G0 F12000 X119.81 Y163.24
G1 F1800 X106.47 Y176.58 E979.44746
G0 F12000 X106.47 Y175.93
G1 F1800 X119.81 Y162.58 E980.17854
G0 F12000 X119.81 Y161.92
G1 F1800 X106.47 Y175.27 E980.90963
G0 F12000 X106.47 Y174.61
G1 F1800 X119.81 Y161.26 E981.64072
G0 F12000 X119.81 Y160.61
G1 F1800 X106.47 Y173.95 E982.37181
G0 F12000 X106.47 Y173.29
G1 F1800 X113.93 Y165.82 E982.78098
G0 F12000 X113.27 Y165.82
G1 F1800 X106.47 Y172.63 E983.15405
G0 F12000 X106.47 Y171.97
G1 F1800 X112.61 Y165.82 E983.49100
G0 F12000 X111.96 Y165.82
G1 F1800 X106.47 Y171.31 E983.79184
G0 F12000 X106.47 Y170.65
G1 F1800 X111.30 Y165.82 E984.05657
G0 F12000 X110.64 Y165.82
G1 F1800 X106.47 Y169.99 E984.28519
G0 F12000 X106.47 Y169.34
G1 F1800 X109.98 Y165.82 E984.47770
G0 F12000 X109.32 Y165.82
G1 F1800 X106.47 Y168.68 E984.63409
G0 F12000 X106.47 Y168.02
G1 F1800 X108.66 Y165.82 E984.75437
G0 F12000 X108.00 Y165.82
G1 F1800 X106.47 Y167.36 E984.83854
G0 F12000 X106.47 Y166.70
G1 F1800 X107.34 Y165.82 E984.88660
G0 F12000 X106.68 Y165.82
G1 F1800 X106.47 Y166.04 E984.89852
G0 F12000 X114.47 Y165.29
G1 F1800 X119.81 Y159.95 E985.19122
G0 F12000 X119.81 Y159.29
G1 F1800 X114.47 Y164.63 E985.48392
G0 F12000 X114.47 Y163.97
G1 F1800 X119.81 Y158.63 E985.77660
G0 F12000 X119.81 Y157.97
G1 F1800 X114.47 Y163.31 E986.06928
G0 F12000 X114.47 Y162.65
G1 F1800 X119.30 Y157.82 E986.33401
G0 F12000 X118.64 Y157.82
G1 F1800 X114.47 Y161.99 E986.56262
G0 F12000 X114.47 Y161.33
G1 F1800 X117.98 Y157.82 E986.75513
G0 F12000 X117.32 Y157.82
G1 F1800 X114.47 Y160.68 E986.91152
G0 F12000 X114.47 Y160.02
G1 F1800 X116.66 Y157.82 E987.03180
G0 F12000 X116.00 Y157.82
G1 F1800 X114.47 Y159.36 E987.11597
G0 F12000 X114.47 Y158.70
G1 F1800 X115.34 Y157.82 E987.16403
G0 F12000 X114.68 Y157.82
G1 F1800 X114.47 Y158.04 E987.17598
G1 F2400 E985.97598
G0 F12000 X109.97 Y161.33
;TYPE:WALL-INNER
G1 F2400 E987.17598
G1 F1800 X96.30 Y161.33 E987.70566
G1 X96.30 Y139.66 E988.54530
G1 X109.97 Y139.66 E989.07498
G1 X109.97 Y161.33 E989.91461
G0 F12000 X110.44 Y161.79
G1 F1800 X95.84 Y161.79 E990.48041
G1 X95.84 Y139.19 E991.35616
G1 X110.44 Y139.19 E991.92196
G1 X110.44 Y161.79 E992.79770
G0 F12000 X110.90 Y162.26
;TYPE:WALL-OUTER
G1 F1800 X95.37 Y162.26 E993.39961
G1 X95.37 Y138.73 E994.31147
G1 X110.90 Y138.73 E994.91338
G1 X110.90 Y162.26 E995.82524
G0 F12000 X110.57 Y162.02
G0 X109.81 Y160.72
;TYPE:FILL
G1 F1800 X109.36 Y161.16 E995.84954
G0 F12000 X108.70 Y161.16
G1 F1800 X109.81 Y160.06 E995.90996
G0 F12000 X109.81 Y159.40
G1 F1800 X108.05 Y161.16 E996.00649
G0 F12000 X107.39 Y161.16
G1 F1800 X109.81 Y158.74 E996.13912
G0 F12000 X109.81 Y158.09
G1 F1800 X106.73 Y161.16 E996.30787
G0 F12000 X106.07 Y161.16
G1 F1800 X109.81 Y157.43 E996.51274
G0 F12000 X109.81 Y156.77
G1 F1800 X105.41 Y161.16 E996.75374
G0 F12000 X104.75 Y161.16
G1 F1800 X109.81 Y156.11 E997.03085
G0 F12000 X109.81 Y155.45
G1 F1800 X104.09 Y161.16 E997.34408
G0 F12000 X103.43 Y161.16
G1 F1800 X109.81 Y154.79 E997.69342
G0 F12000 X109.81 Y154.13
G1 F1800 X102.77 Y161.16 E998.07887
G0 F12000 X102.11 Y161.16
G1 F1800 X109.81 Y153.47 E998.50043
G0 F12000 X109.81 Y152.81
G1 F1800 X101.46 Y161.16 E998.95810
G0 F12000 X100.80 Y161.16
G1 F1800 X109.81 Y152.15 E999.45188
G0 F12000 X109.81 Y151.49
G1 F1800 X100.14 Y161.16 E999.98178
G0 F12000 X99.48 Y161.16
G1 F1800 X109.81 Y150.84 E1000.54779
G0 F12000 X109.81 Y150.18
G1 F1800 X98.82 Y161.16 E1001.14991
G0 F12000 X98.16 Y161.16
G1 F1800 X109.81 Y149.52 E1001.78814
G0 F12000 X109.81 Y148.86
G1 F1800 X97.50 Y161.16 E1002.46249
G0 F12000 X96.84 Y161.16
G1 F1800 X109.81 Y148.20 E1003.17294
G0 F12000 X109.81 Y147.54
G1 F1800 X96.47 Y160.88 E1003.90406
G0 F12000 X96.47 Y160.22
G1 F1800 X109.81 Y146.88 E1004.63518
G0 F12000 X109.81 Y146.22
G1 F1800 X96.47 Y159.56 E1005.36629
G0 F12000 X96.47 Y158.91
G1 F1800 X109.81 Y145.56 E1006.09741
G0 F12000 X109.81 Y144.90
G1 F1800 X96.47 Y158.25 E1006.82852
G0 F12000 X96.47 Y157.59
G1 F1800 X109.81 Y144.25 E1007.55964
G0 F12000 X109.81 Y143.59
G1 F1800 X96.47 Y156.93 E1008.29075
G0 F12000 X96.47 Y156.27
G1 F1800 X109.81 Y142.93 E1009.02187
G0 F12000 X109.81 Y142.27
G1 F1800 X96.47 Y155.61 E1009.75298
G0 F12000 X96.47 Y154.95
G1 F1800 X109.81 Y141.61 E1010.48410
G0 F12000 X109.81 Y140.95
G1 F1800 X96.47 Y154.29 E1011.21521
G0 F12000 X96.47 Y153.63
G1 F1800 X109.81 Y140.29 E1011.94633
G0 F12000 X109.62 Y139.82
G1 F1800 X96.47 Y152.97 E1012.66698
G0 F12000 X96.47 Y152.31
G1 F1800 X108.96 Y139.82 E1013.35151
G0 F12000 X108.30 Y139.82
G1 F1800 X96.47 Y151.66 E1013.99994
G0 F12000 X96.47 Y151.00
G1 F1800 X107.64 Y139.82 E1014.61222
G0 F12000 X106.98 Y139.82
G1 F1800 X96.47 Y150.34 E1015.18840
G0 F12000 X96.47 Y149.68
G1 F1800 X106.32 Y139.82 E1015.72843
G0 F12000 X105.66 Y139.82
G1 F1800 X96.47 Y149.02 E1016.23236
G0 F12000 X96.47 Y148.36
G1 F1800 X105.00 Y139.82 E1016.70017
G0 F12000 X104.34 Y139.82
G1 F1800 X96.47 Y147.70 E1017.13187
G0 F12000 X96.47 Y147.04
G1 F1800 X103.69 Y139.82 E1017.52745
G0 F12000 X103.03 Y139.82
G1 F1800 X96.47 Y146.38 E1017.88693
G0 F12000 X96.47 Y145.72
G1 F1800 X102.37 Y139.82 E1018.21029
G0 F12000 X101.71 Y139.82
G1 F1800 X96.47 Y145.06 E1018.49754
G0 F12000 X96.47 Y144.41
G1 F1800 X101.05 Y139.82 E1018.74868
G0 F12000 X100.39 Y139.82
G1 F1800 X96.47 Y143.75 E1018.96371
G0 F12000 X96.47 Y143.09
G1 F1800 X99.73 Y139.82 E1019.14262
G0 F12000 X99.07 Y139.82
G1 F1800 X96.47 Y142.43 E1019.28543
G0 F12000 X96.47 Y141.77
G1 F1800 X98.41 Y139.82 E1019.39212
G0 F12000 X97.75 Y139.82
G1 F1800 X96.47 Y141.11 E1019.46270
G0 F12000 X96.47 Y140.45
G1 F1800 X97.09 Y139.82 E1019.49717
G1 F2400 E1018.29717
G0 F12000 X89.97 Y145.66
;TYPE:WALL-INNER
G1 F2400 E1019.49717
G1 F1800 X89.97 Y151.33 E1019.71687
G1 X81.97 Y151.33 E1020.02685
G1 X81.97 Y159.33 E1020.33680
G1 X76.30 Y159.33 E1020.55650
G1 X76.30 Y151.33 E1020.86645
G1 X68.30 Y151.33 E1021.17643
G1 X68.30 Y129.66 E1022.01610
G1 X73.97 Y129.66 E1022.23580
G1 X73.97 Y145.66 E1022.85577
G1 X89.97 Y145.66 E1023.47574
G0 F12000 X90.44 Y145.19
G1 F1800 X90.44 Y151.80 E1023.73156
G1 X82.44 Y151.80 E1024.04154
G1 X82.44 Y159.79 E1024.35149
G1 X75.84 Y159.79 E1024.60730
G1 X75.84 Y151.80 E1024.91725
G1 X67.84 Y151.80 E1025.22723
G1 X67.84 Y129.19 E1026.10301
G1 X74.44 Y129.19 E1026.35883
G1 X74.44 Y145.19 E1026.97880
G1 X90.44 Y145.19 E1027.59877
G0 F12000 X90.90 Y144.73
;TYPE:WALL-OUTER
G1 F1800 X90.90 Y152.26 E1027.89069
G1 X82.90 Y152.26 E1028.20068
G1 X82.90 Y160.26 E1028.51062
G1 X75.37 Y160.26 E1028.80255
G1 X75.37 Y152.26 E1029.11250
G1 X67.37 Y152.26 E1029.42248
G1 X67.37 Y128.73 E1030.33438
G1 X74.90 Y128.73 E1030.62631
G1 X74.90 Y144.73 E1031.24628
G1 X90.90 Y144.73 E1031.86624
G0 F12000 X90.66 Y145.06
G0 X89.78 Y145.82
;TYPE:FILL
G1 F1800 X84.44 Y151.16 E1032.15898
G0 F12000 X85.09 Y151.16
G1 F1800 X89.81 Y146.45 E1032.41724
G0 F12000 X89.81 Y147.11
G1 F1800 X85.75 Y151.16 E1032.63939
G0 F12000 X86.41 Y151.16
G1 F1800 X89.81 Y147.77 E1032.82543
G0 F12000 X89.81 Y148.43
G1 F1800 X87.07 Y151.16 E1032.97536
G0 F12000 X87.73 Y151.16
G1 F1800 X89.81 Y149.09 E1033.08917
G0 F12000 X89.81 Y149.75
G1 F1800 X88.39 Y151.16 E1033.16688
G0 F12000 X89.05 Y151.16
G1 F1800 X89.81 Y150.41 E1033.20847
G0 F12000 X89.81 Y151.06
G1 F1800 X89.71 Y151.16 E1033.21395
G0 F12000 X89.12 Y145.82
G1 F1800 X83.78 Y151.16 E1033.50668
G0 F12000 X83.12 Y151.16
G1 F1800 X88.46 Y145.82 E1033.79941
G0 F12000 X87.80 Y145.82
G1 F1800 X82.46 Y151.16 E1034.09214
G0 F12000 X81.81 Y151.81
G1 F1800 X76.47 Y157.16 E1034.38487
G0 F12000 X76.47 Y157.82
G1 F1800 X81.81 Y152.47 E1034.67760
G0 F12000 X81.81 Y153.13
G1 F1800 X76.47 Y158.47 E1034.97033
G0 F12000 X76.47 Y159.13
G1 F1800 X81.81 Y153.79 E1035.26307
G0 F12000 X81.81 Y154.45
G1 F1800 X77.09 Y159.16 E1035.52133
G0 F12000 X77.75 Y159.16
G1 F1800 X81.81 Y155.11 E1035.74348
G0 F12000 X81.81 Y155.77
G1 F1800 X78.41 Y159.16 E1035.92952
G0 F12000 X79.07 Y159.16
G1 F1800 X81.81 Y156.43 E1036.07945
G0 F12000 X81.81 Y157.09
G1 F1800 X79.73 Y159.16 E1036.19323
G0 F12000 X80.39 Y159.16
G1 F1800 X81.81 Y157.75 E1036.27091
G0 F12000 X81.81 Y158.41
G1 F1800 X81.05 Y159.16 E1036.31247
G0 F12000 X81.71 Y159.16
G1 F1800 X81.81 Y159.06 E1036.31793
G0 F12000 X76.47 Y156.50
G1 F1800 X87.14 Y145.82 E1036.90290
G0 F12000 X86.48 Y145.82
G1 F1800 X76.47 Y155.84 E1037.45175
G0 F12000 X76.47 Y155.18
G1 F1800 X85.82 Y145.82 E1037.96450
G0 F12000 X85.16 Y145.82
G1 F1800 X76.47 Y154.52 E1038.44113
G0 F12000 X76.47 Y153.86
G1 F1800 X84.50 Y145.82 E1038.88165
G0 F12000 X83.85 Y145.82
G1 F1800 X76.47 Y153.20 E1039.28606
G0 F12000 X76.47 Y152.54
G1 F1800 X83.19 Y145.82 E1039.65436
G0 F12000 X82.53 Y145.82
G1 F1800 X76.47 Y151.88 E1039.98655
G0 F12000 X76.47 Y151.23
G1 F1800 X81.87 Y145.82 E1040.28262
G0 F12000 X81.21 Y145.82
G1 F1800 X75.87 Y151.16 E1040.57535
G0 F12000 X75.21 Y151.16
G1 F1800 X80.55 Y145.82 E1040.86808
G0 F12000 X79.89 Y145.82
G1 F1800 X74.55 Y151.16 E1041.16081
G0 F12000 X73.89 Y151.16
G1 F1800 X79.23 Y145.82 E1041.45354
G0 F12000 X78.57 Y145.82
G1 F1800 X73.23 Y151.16 E1041.74627
G0 F12000 X72.57 Y151.16
G1 F1800 X77.92 Y145.82 E1042.03901
G0 F12000 X77.26 Y145.82
G1 F1800 X71.91 Y151.16 E1042.33174
G0 F12000 X71.25 Y151.16
G1 F1800 X76.60 Y145.82 E1042.62447
G0 F12000 X75.94 Y145.82
G1 F1800 X70.60 Y151.16 E1042.91720
G0 F12000 X69.94 Y151.16
G1 F1800 X75.28 Y145.82 E1043.20993
G0 F12000 X74.62 Y145.82
G1 F1800 X69.28 Y151.16 E1043.50266
G0 F12000 X68.62 Y151.16
G1 F1800 X73.96 Y145.82 E1043.79539
G0 F12000 X73.81 Y145.32
G1 F1800 X68.47 Y150.66 E1044.08807
G0 F12000 X68.47 Y150.00
G1 F1800 X73.81 Y144.66 E1044.38074
G0 F12000 X73.81 Y144.00
G1 F1800 X68.47 Y149.34 E1044.67342
G0 F12000 X68.47 Y148.68
G1 F1800 X73.81 Y143.34 E1044.96610
G0 F12000 X73.81 Y142.68
G1 F1800 X68.47 Y148.02 E1045.25877
G0 F12000 X68.47 Y147.36
G1 F1800 X73.81 Y142.02 E1045.55145
G0 F12000 X73.81 Y141.36
G1 F1800 X68.47 Y146.70 E1045.84413
G0 F12000 X68.47 Y146.04
G1 F1800 X73.81 Y140.70 E1046.13680
G0 F12000 X73.81 Y140.04
G1 F1800 X68.47 Y145.39 E1046.42948
G0 F12000 X68.47 Y144.73
G1 F1800 X73.81 Y139.39 E1046.72215
G0 F12000 X73.81 Y138.73
G1 F1800 X68.47 Y144.07 E1047.01483
G0 F12000 X68.47 Y143.41
G1 F1800 X73.81 Y138.07 E1047.30751
G0 F12000 X73.81 Y137.41
G1 F1800 X68.47 Y142.75 E1047.60018
G0 F12000 X68.47 Y142.09
G1 F1800 X73.81 Y136.75 E1047.89286
G0 F12000 X73.81 Y136.09
G1 F1800 X68.47 Y141.43 E1048.18554
G0 F12000 X68.47 Y140.77
G1 F1800 X73.81 Y135.43 E1048.47821
G0 F12000 X73.81 Y134.77
G1 F1800 X68.47 Y140.11 E1048.77089
G0 F12000 X68.47 Y139.46
G1 F1800 X73.81 Y134.11 E1049.06356
G0 F12000 X73.81 Y133.46
G1 F1800 X68.47 Y138.80 E1049.35624
G0 F12000 X68.47 Y138.14
G1 F1800 X73.81 Y132.80 E1049.64892
G0 F12000 X73.81 Y132.14
G1 F1800 X68.47 Y137.48 E1049.94159
G0 F12000 X68.47 Y136.82
G1 F1800 X73.81 Y131.48 E1050.23427
G0 F12000 X73.81 Y130.82
G1 F1800 X68.47 Y136.16 E1050.52697
G0 F12000 X68.47 Y135.50
G1 F1800 X73.81 Y130.16 E1050.81968
G0 F12000 X73.48 Y129.82
G1 F1800 X68.47 Y134.84 E1051.09471
G0 F12000 X68.47 Y134.18
G1 F1800 X72.83 Y129.82 E1051.33363
G0 F12000 X72.17 Y129.82
G1 F1800 X68.47 Y133.52 E1051.53644
G0 F12000 X68.47 Y132.87
G1 F1800 X71.51 Y129.82 E1051.70313
G0 F12000 X70.85 Y129.82
G1 F1800 X68.47 Y132.21 E1051.83371
G0 F12000 X68.47 Y131.55
G1 F1800 X70.19 Y129.82 E1051.92819
G0 F12000 X69.53 Y129.82
G1 F1800 X68.47 Y130.89 E1051.98655
G0 F12000 X68.47 Y130.23
G1 F1800 X68.87 Y129.82 E1052.00879
G1 F2400 E1050.80879
G0 F12000 X66.30 Y155.66
;TYPE:WALL-INNER
G1 F2400 E1052.00879
G1 F1800 X71.97 Y155.66 E1052.22850
G1 X71.97 Y163.66 E1052.53848
G1 X79.97 Y163.66 E1052.84847
G1 X79.97 Y169.33 E1053.06817
G1 X66.30 Y169.33 E1053.59785
G1 X66.30 Y155.66 E1054.12754
G0 F12000 X65.84 Y155.19
G1 F1800 X72.44 Y155.19 E1054.38335
G1 X72.44 Y163.19 E1054.69334
G1 X80.44 Y163.19 E1055.00332
G1 X80.44 Y169.79 E1055.25914
G1 X65.84 Y169.79 E1055.82494
G1 X65.84 Y155.19 E1056.39073
G0 F12000 X65.37 Y154.73
;TYPE:WALL-OUTER
G1 F1800 X72.90 Y154.73 E1056.68266
G1 X72.90 Y162.73 E1056.99265
G1 X80.90 Y162.73 E1057.30263
G1 X80.90 Y170.26 E1057.59456
G1 X65.37 Y170.26 E1058.19647
G1 X65.37 Y154.73 E1058.79838
G0 F12000 X65.70 Y154.97
G0 X66.47 Y155.95
;TYPE:FILL
G1 F1800 X66.60 Y155.82 E1058.80559
G0 F12000 X67.26 Y155.82
G1 F1800 X66.47 Y156.61 E1058.84891
G0 F12000 X66.47 Y157.27
G1 F1800 X67.92 Y155.82 E1058.92834
G0 F12000 X68.58 Y155.82
G1 F1800 X66.47 Y157.93 E1059.04388
G0 F12000 X66.47 Y158.59
G1 F1800 X69.23 Y155.82 E1059.19553
G0 F12000 X69.89 Y155.82
G1 F1800 X66.47 Y159.25 E1059.38330
G0 F12000 X66.47 Y159.91
G1 F1800 X70.55 Y155.82 E1059.60718
G0 F12000 X71.21 Y155.82
G1 F1800 X66.47 Y160.57 E1059.86717
G0 F12000 X66.47 Y161.23
G1 F1800 X71.81 Y155.88 E1060.15990
G0 F12000 X71.81 Y156.54
G1 F1800 X66.47 Y161.88 E1060.45263
G0 F12000 X66.47 Y162.54
G1 F1800 X71.81 Y157.20 E1060.74536
G0 F12000 X71.81 Y157.86
G1 F1800 X66.47 Y163.20 E1061.03809
G0 F12000 X66.47 Y163.86
G1 F1800 X71.81 Y158.52 E1061.33082
G0 F12000 X71.81 Y159.18
G1 F1800 X66.47 Y164.52 E1061.62355
G0 F12000 X66.47 Y165.18
G1 F1800 X71.81 Y159.84 E1061.91628
G0 F12000 X71.81 Y160.50
G1 F1800 X66.47 Y165.84 E1062.20901
G0 F12000 X66.47 Y166.50
G1 F1800 X71.81 Y161.16 E1062.50174
G0 F12000 X71.81 Y161.81
G1 F1800 X66.47 Y167.16 E1062.79448
G0 F12000 X66.47 Y167.82
G1 F1800 X71.81 Y162.47 E1063.08721
G0 F12000 X71.81 Y163.13
G1 F1800 X66.47 Y168.47 E1063.37994
G0 F12000 X66.47 Y169.13
G1 F1800 X71.81 Y163.79 E1063.67267
G0 F12000 X72.44 Y163.82
G1 F1800 X67.09 Y169.16 E1063.96540
G0 F12000 X67.75 Y169.16
G1 F1800 X73.10 Y163.82 E1064.25813
G0 F12000 X73.75 Y163.82
G1 F1800 X68.41 Y169.16 E1064.55086
G0 F12000 X69.07 Y169.16
G1 F1800 X74.41 Y163.82 E1064.84359
G0 F12000 X75.07 Y163.82
G1 F1800 X69.73 Y169.16 E1065.13632
G0 F12000 X70.39 Y169.16
G1 F1800 X75.73 Y163.82 E1065.42906
G0 F12000 X76.39 Y163.82
G1 F1800 X71.05 Y169.16 E1065.72179
G0 F12000 X71.71 Y169.16
G1 F1800 X77.05 Y163.82 E1066.01452
G0 F12000 X77.71 Y163.82
G1 F1800 X72.37 Y169.16 E1066.30725
G0 F12000 X73.03 Y169.16
G1 F1800 X78.37 Y163.82 E1066.59998
G0 F12000 X79.03 Y163.82
G1 F1800 X73.69 Y169.16 E1066.89271
G0 F12000 X74.34 Y169.16
G1 F1800 X79.69 Y163.82 E1067.18544
G0 F12000 X79.81 Y164.36
G1 F1800 X75.00 Y169.16 E1067.44875
G0 F12000 X75.66 Y169.16
G1 F1800 X79.81 Y165.02 E1067.67594
G0 F12000 X79.81 Y165.68
G1 F1800 X76.32 Y169.16 E1067.86702
G0 F12000 X76.98 Y169.16
G1 F1800 X79.81 Y166.34 E1068.02199
G0 F12000 X79.81 Y167.00
G1 F1800 X77.64 Y169.16 E1068.14085
G0 F12000 X78.30 Y169.16
G1 F1800 X79.81 Y167.66 E1068.22356
G0 F12000 X79.81 Y168.31
G1 F1800 X78.96 Y169.16 E1068.27017
G0 F12000 X79.62 Y169.16
G1 F1800 X79.81 Y168.97 E1068.28066
G1 F2400 E1067.08066
G0 F12000 X78.30 Y141.33
;TYPE:WALL-INNER
G1 F2400 E1068.28066
G1 F1800 X78.30 Y127.66 E1068.81035
G1 X91.97 Y127.66 E1069.34003
G1 X91.97 Y141.33 E1069.86972
G1 X78.30 Y141.33 E1070.39941
G0 F12000 X77.84 Y141.80
G1 F1800 X77.84 Y127.19 E1070.96521
G1 X92.44 Y127.19 E1071.53100
G1 X92.44 Y141.80 E1072.09680
G1 X77.84 Y141.80 E1072.66260
G0 F12000 X77.37 Y142.26
;TYPE:WALL-OUTER
G1 F1800 X77.37 Y126.73 E1073.26452
G1 X92.90 Y126.73 E1073.86643
G1 X92.90 Y142.26 E1074.46834
G1 X77.37 Y142.26 E1075.07025
G0 F12000 X77.61 Y141.93
G0 X78.62 Y141.16
;TYPE:FILL
G1 F1800 X91.81 Y127.98 E1075.79298
G0 F12000 X91.30 Y127.82
G1 F1800 X78.47 Y140.66 E1076.49634
G0 F12000 X78.47 Y140.00
G1 F1800 X90.64 Y127.82 E1077.16359
G0 F12000 X89.98 Y127.82
G1 F1800 X78.47 Y139.34 E1077.79473
G0 F12000 X78.47 Y138.68
G1 F1800 X89.32 Y127.82 E1078.38975
G0 F12000 X88.67 Y127.82
G1 F1800 X78.47 Y138.02 E1078.94866
G0 F12000 X78.47 Y137.36
G1 F1800 X88.01 Y127.82 E1079.47144
G0 F12000 X87.35 Y127.82
G1 F1800 X78.47 Y136.70 E1079.95810
G0 F12000 X78.47 Y136.04
G1 F1800 X86.69 Y127.82 E1080.40865
G0 F12000 X86.03 Y127.82
G1 F1800 X78.47 Y135.39 E1080.82309
G0 F12000 X78.47 Y134.73
G1 F1800 X85.37 Y127.82 E1081.20141
G0 F12000 X84.71 Y127.82
G1 F1800 X78.47 Y134.07 E1081.54363
G0 F12000 X78.47 Y133.41
G1 F1800 X84.05 Y127.82 E1081.84973
G0 F12000 X83.39 Y127.82
G1 F1800 X78.47 Y132.75 E1082.11972
G0 F12000 X78.47 Y132.09
G1 F1800 X82.73 Y127.82 E1082.35360
G0 F12000 X82.08 Y127.82
G1 F1800 X78.47 Y131.43 E1082.55136
G0 F12000 X78.47 Y130.77
G1 F1800 X81.42 Y127.82 E1082.71302
G0 F12000 X80.76 Y127.82
G1 F1800 X78.47 Y130.11 E1082.83856
G0 F12000 X78.47 Y129.46
G1 F1800 X80.10 Y127.82 E1082.92799
G0 F12000 X79.44 Y127.82
G1 F1800 X78.47 Y128.80 E1082.98131
G0 F12000 X78.47 Y128.14
G1 F1800 X78.78 Y127.82 E1082.99851
G0 F12000 X91.81 Y128.63
G1 F1800 X79.28 Y141.16 E1083.68513
G0 F12000 X79.94 Y141.16
G1 F1800 X91.81 Y129.29 E1084.33561
G0 F12000 X91.81 Y129.95
G1 F1800 X80.60 Y141.16 E1084.94998
G0 F12000 X81.25 Y141.16
G1 F1800 X91.81 Y130.61 E1085.52824
G0 F12000 X91.81 Y131.27
G1 F1800 X81.91 Y141.16 E1086.07038
G0 F12000 X82.57 Y141.16
G1 F1800 X91.81 Y131.93 E1086.57641
G0 F12000 X91.81 Y132.59
G1 F1800 X83.23 Y141.16 E1087.04633
G0 F12000 X83.89 Y141.16
G1 F1800 X91.81 Y133.25 E1087.48014
G0 F12000 X91.81 Y133.91
G1 F1800 X84.55 Y141.16 E1087.87784
G0 F12000 X85.21 Y141.16
G1 F1800 X91.81 Y134.57 E1088.23942
G0 F12000 X91.81 Y135.22
G1 F1800 X85.87 Y141.16 E1088.56490
G0 F12000 X86.53 Y141.16
G1 F1800 X91.81 Y135.88 E1088.85426
G0 F12000 X91.81 Y136.54
G1 F1800 X87.19 Y141.16 E1089.10751
G0 F12000 X87.84 Y141.16
G1 F1800 X91.81 Y137.20 E1089.32464
G0 F12000 X91.81 Y137.86
G1 F1800 X88.50 Y141.16 E1089.50567
G0 F12000 X89.16 Y141.16
G1 F1800 X91.81 Y138.52 E1089.65058
G0 F12000 X91.81 Y139.18
G1 F1800 X89.82 Y141.16 E1089.75938
G0 F12000 X90.48 Y141.16
G1 F1800 X91.81 Y139.84 E1089.83207
G0 F12000 X91.81 Y140.50
G1 F1800 X91.14 Y141.16 E1089.86865
G1 F2400 E1088.66865
G0 F12000 X98.30 Y133.33
;TYPE:WALL-INNER
G1 F2400 E1089.86865
G1 F1800 X98.30 Y127.66 E1090.08835
G1 X119.97 Y127.66 E1090.92802
G1 X119.97 Y149.33 E1091.76769
G1 X114.30 Y149.33 E1091.98740
G1 X114.30 Y133.33 E1092.60736
G1 X98.30 Y133.33 E1093.22733
G0 F12000 X97.84 Y133.80
G1 F1800 X97.84 Y127.19 E1093.48315
G1 X120.44 Y127.19 E1094.35893
G1 X120.44 Y149.80 E1095.23471
G1 X113.84 Y149.80 E1095.49053
G1 X113.84 Y133.80 E1096.11050
G1 X97.84 Y133.80 E1096.73047
G0 F12000 X97.37 Y134.26
;TYPE:WALL-OUTER
G1 F1800 X97.37 Y126.73 E1097.02240
G1 X120.90 Y126.73 E1097.93429
G1 X120.90 Y150.26 E1098.84619
G1 X113.37 Y150.26 E1099.13812
G1 X113.37 Y134.26 E1099.75809
G1 X97.37 Y134.26 E1100.37805
G0 F12000 X97.61 Y133.93
G0 X98.48 Y133.16
;TYPE:FILL
G1 F1800 X103.82 Y127.82 E1100.67079
G0 F12000 X104.48 Y127.82
G1 F1800 X99.14 Y133.16 E1100.96352
G0 F12000 X99.80 Y133.16
G1 F1800 X105.14 Y127.82 E1101.25625
G0 F12000 X105.80 Y127.82
G1 F1800 X100.46 Y133.16 E1101.54898
G0 F12000 X101.12 Y133.16
G1 F1800 X106.46 Y127.82 E1101.84171
G0 F12000 X107.12 Y127.82
G1 F1800 X101.78 Y133.16 E1102.13444
G0 F12000 X102.44 Y133.16
G1 F1800 X107.78 Y127.82 E1102.42717
G0 F12000 X108.44 Y127.82
G1 F1800 X103.09 Y133.16 E1102.71990
G0 F12000 X103.75 Y133.16
G1 F1800 X109.09 Y127.82 E1103.01263
G0 F12000 X109.75 Y127.82
G1 F1800 X104.41 Y133.16 E1103.30537
G0 F12000 X105.07 Y133.16
G1 F1800 X110.41 Y127.82 E1103.59810
G0 F12000 X111.07 Y127.82
G1 F1800 X105.73 Y133.16 E1103.89083
G0 F12000 X106.39 Y133.16
G1 F1800 X111.73 Y127.82 E1104.18356
G0 F12000 X112.39 Y127.82
G1 F1800 X107.05 Y133.16 E1104.47629
G0 F12000 X107.71 Y133.16
G1 F1800 X113.05 Y127.82 E1104.76902
G0 F12000 X113.71 Y127.82
G1 F1800 X108.37 Y133.16 E1105.06175
G0 F12000 X109.03 Y133.16
G1 F1800 X114.37 Y127.82 E1105.35448
G0 F12000 X115.03 Y127.82
G1 F1800 X109.68 Y133.16 E1105.64721
G0 F12000 X110.34 Y133.16
G1 F1800 X115.69 Y127.82 E1105.93992
G0 F12000 X116.34 Y127.82
G1 F1800 X111.00 Y133.16 E1106.23262
G0 F12000 X111.66 Y133.16
G1 F1800 X117.00 Y127.82 E1106.52532
G0 F12000 X117.66 Y127.82
G1 F1800 X112.32 Y133.16 E1106.81803
G0 F12000 X112.98 Y133.16
G1 F1800 X118.32 Y127.82 E1107.11073
G0 F12000 X118.98 Y127.82
G1 F1800 X113.64 Y133.16 E1107.40344
G0 F12000 X114.30 Y133.16
G1 F1800 X119.64 Y127.82 E1107.69614
G0 F12000 X119.81 Y128.31
G1 F1800 X114.47 Y133.66 E1107.98882
G0 F12000 X114.47 Y134.31
G1 F1800 X119.81 Y128.97 E1108.28149
G0 F12000 X119.81 Y129.63
G1 F1800 X114.47 Y134.97 E1108.57417
G0 F12000 X114.47 Y135.63
G1 F1800 X119.81 Y130.29 E1108.86684
G0 F12000 X119.81 Y130.95
G1 F1800 X114.47 Y136.29 E1109.15955
G0 F12000 X114.47 Y136.95
G1 F1800 X119.81 Y131.61 E1109.45225
G0 F12000 X119.81 Y132.27
G1 F1800 X114.47 Y137.61 E1109.74496
G0 F12000 X114.47 Y138.27
G1 F1800 X119.81 Y132.93 E1110.03766
G0 F12000 X119.81 Y133.59
G1 F1800 X114.47 Y138.93 E1110.33036
G0 F12000 X114.47 Y139.59
G1 F1800 X119.81 Y134.25 E1110.62307
G0 F12000 X119.81 Y134.90
G1 F1800 X114.47 Y140.25 E1110.91577
G0 F12000 X114.47 Y140.91
G1 F1800 X119.81 Y135.56 E1111.20847
G0 F12000 X119.81 Y136.22
G1 F1800 X114.47 Y141.56 E1111.50118
G0 F12000 X114.47 Y142.22
G1 F1800 X119.81 Y136.88 E1111.79388
G0 F12000 X119.81 Y137.54
G1 F1800 X114.47 Y142.88 E1112.08658
G0 F12000 X114.47 Y143.54
G1 F1800 X119.81 Y138.20 E1112.37929
G0 F12000 X119.81 Y138.86
G1 F1800 X114.47 Y144.20 E1112.67199
G0 F12000 X114.47 Y144.86
G1 F1800 X119.81 Y139.52 E1112.96470
G0 F12000 X119.81 Y140.18
G1 F1800 X114.47 Y145.52 E1113.25740
G0 F12000 X114.47 Y146.18
G1 F1800 X119.81 Y140.84 E1113.55010
G0 F12000 X119.81 Y141.49
G1 F1800 X114.47 Y146.84 E1113.84281
G0 F12000 X114.47 Y147.50
G1 F1800 X119.81 Y142.15 E1114.13551
G0 F12000 X119.81 Y142.81
G1 F1800 X114.47 Y148.15 E1114.42821
G0 F12000 X114.47 Y148.81
G1 F1800 X119.81 Y143.47 E1114.72092
G0 F12000 X119.81 Y144.13
G1 F1800 X114.77 Y149.16 E1114.99680
G0 F12000 X115.43 Y149.16
G1 F1800 X119.81 Y144.79 E1115.23654
G0 F12000 X119.81 Y145.45
G1 F1800 X116.09 Y149.16 E1115.44017
G0 F12000 X116.75 Y149.16
G1 F1800 X119.81 Y146.11 E1115.60769
G0 F12000 X119.81 Y146.77
G1 F1800 X117.41 Y149.16 E1115.73909
G0 F12000 X118.07 Y149.16
G1 F1800 X119.81 Y147.43 E1115.83439
G0 F12000 X119.81 Y148.09
G1 F1800 X118.73 Y149.16 E1115.89357
G0 F12000 X119.39 Y149.16
G1 F1800 X119.81 Y148.74 E1115.91664
G0 F12000 X113.74 Y133.89
G0 X103.16 Y127.82
G1 F1800 X98.47 Y132.52 E1116.17408
G0 F12000 X98.47 Y131.86
G1 F1800 X102.50 Y127.82 E1116.39541
G0 F12000 X101.85 Y127.82
G1 F1800 X98.47 Y131.20 E1116.58063
G0 F12000 X98.47 Y130.54
G1 F1800 X101.19 Y127.82 E1116.72970
G0 F12000 X100.53 Y127.82
G1 F1800 X98.47 Y129.88 E1116.84267
G0 F12000 X98.47 Y129.23
G1 F1800 X99.87 Y127.82 E1116.91952
G0 F12000 X99.21 Y127.82
G1 F1800 X98.47 Y128.57 E1116.96027
G0 F12000 X98.47 Y127.91
G1 F1800 X98.55 Y127.82 E1116.96490
G1 F2400 E1115.76490
G0 F12000 X98.43 Y163.63
;TYPE:SUPPORT
G1 F2400 E1116.96490
G1 F1800 X98.43 Y172.96 E1117.32673
G0 F12000 X97.50 Y172.96
G1 F1800 X97.50 Y163.63 E1117.68856
G0 F12000 X96.56 Y163.63
G1 F1800 X96.56 Y172.96 E1118.05039
G0 F12000 X95.63 Y172.96
G1 F1800 X95.63 Y163.63 E1118.41221
G0 F12000 X94.70 Y163.63
G1 F1800 X94.70 Y172.96 E1118.77404
G0 F12000 X94.70 Y172.79
G0 X99.36 Y172.79
G0 X99.36 Y172.96
G1 F1800 X99.36 Y163.63 E1119.13587
G0 F12000 X100.30 Y163.63
G1 F1800 X100.30 Y172.96 E1119.49770
G0 F12000 X101.23 Y172.96
G1 F1800 X101.23 Y163.63 E1119.85953
;LAYER:2
G1 F2400 E1118.65953
G0 F12000 X106.30 Y165.66 Z0.70
;TYPE:WALL-INNER
G1 F2400 E1119.85953
G1 F1800 X114.30 Y165.66 E1120.16952
G1 X114.30 Y157.66 E1120.47950
G1 X119.97 Y157.66 E1120.69920
G1 X119.97 Y179.33 E1121.53887
G1 X106.30 Y179.33 E1122.06856
G1 X106.30 Y165.66 E1122.59824
G0 F12000 X105.84 Y165.19
G1 F1800 X113.84 Y165.19 E1122.90823
G1 X113.84 Y157.19 E1123.21821
G1 X120.44 Y157.19 E1123.47403
G1 X120.44 Y179.79 E1124.34981
G1 X105.84 Y179.79 E1124.91561
G1 X105.84 Y165.19 E1125.48141
G0 F12000 X105.37 Y164.73
;TYPE:WALL-OUTER
G1 F1800 X113.37 Y164.73 E1125.79139
G1 X113.37 Y156.73 E1126.10138
G1 X120.90 Y156.73 E1126.39331
G1 X120.90 Y180.26 E1127.30520
G1 X105.37 Y180.26 E1127.90712
G1 X105.37 Y164.73 E1128.50903
G0 F12000 X105.70 Y164.97
G0 X106.47 Y166.11
;TYPE:FILL
G1 F1800 X119.52 Y179.16 E1129.22447
G0 F12000 X119.81 Y178.79
G1 F1800 X106.84 Y165.82 E1129.93509
G0 F12000 X107.50 Y165.82
G1 F1800 X119.81 Y178.13 E1130.60960
G0 F12000 X119.81 Y177.47
G1 F1800 X108.16 Y165.82 E1131.24800
G0 F12000 X108.82 Y165.82
G1 F1800 X119.81 Y176.81 E1131.85028
G0 F12000 X119.81 Y176.15
G1 F1800 X109.47 Y165.82 E1132.41646
G0 F12000 X110.13 Y165.82
G1 F1800 X119.81 Y175.50 E1132.94652
G0 F12000 X119.81 Y174.84
G1 F1800 X110.79 Y165.82 E1133.44047
G0 F12000 X111.45 Y165.82
G1 F1800 X119.81 Y174.18 E1133.89830
G0 F12000 X119.81 Y173.52
G1 F1800 X112.11 Y165.82 E1134.32003
G0 F12000 X112.77 Y165.82
G1 F1800 X119.81 Y172.86 E1134.70564
G0 F12000 X119.81 Y172.20
G1 F1800 X113.43 Y165.82 E1135.05515
G0 F12000 X114.09 Y165.82
G1 F1800 X119.81 Y171.54 E1135.36854
G0 F12000 X119.81 Y170.88
G1 F1800 X114.47 Y165.54 E1135.66127
G0 F12000 X114.47 Y164.88
G1 F1800 X119.81 Y170.22 E1135.95400
G0 F12000 X119.81 Y169.56
G1 F1800 X114.47 Y164.22 E1136.24673
G0 F12000 X114.47 Y163.56
G1 F1800 X119.81 Y168.91 E1136.53949
G0 F12000 X119.81 Y168.25
G1 F1800 X114.47 Y162.90 E1136.83225
G0 F12000 X114.47 Y162.24
G1 F1800 X119.81 Y167.59 E1137.12500
G0 F12000 X119.81 Y166.93
G1 F1800 X114.47 Y161.59 E1137.41776
G0 F12000 X114.47 Y160.93
G1 F1800 X119.81 Y166.27 E1137.71052
G0 F12000 X119.81 Y165.61
G1 F1800 X114.47 Y160.27 E1138.00328
G0 F12000 X114.47 Y159.61
G1 F1800 X119.81 Y164.95 E1138.29604
G0 F12000 X119.81 Y164.29
G1 F1800 X114.47 Y158.95 E1138.58880
G0 F12000 X114.47 Y158.29
G1 F1800 X119.81 Y163.63 E1138.88153
G0 F12000 X119.81 Y162.97
G1 F1800 X114.66 Y157.82 E1139.16379
G0 F12000 X115.31 Y157.82
G1 F1800 X119.81 Y162.31 E1139.40995
G0 F12000 X119.81 Y161.66
G1 F1800 X115.97 Y157.82 E1139.61999
G0 F12000 X116.63 Y157.82
G1 F1800 X119.81 Y161.00 E1139.79392
G0 F12000 X119.81 Y160.34
G1 F1800 X117.29 Y157.82 E1139.93173
G0 F12000 X117.95 Y157.82
G1 F1800 X119.81 Y159.68 E1140.03344
G0 F12000 X119.81 Y159.02
G1 F1800 X118.61 Y157.82 E1140.09903
G0 F12000 X119.27 Y157.82
G1 F1800 X119.81 Y158.36 E1140.12851
G0 F12000 X113.74 Y165.10
G0 X106.47 Y166.77
G1 F1800 X118.86 Y179.16 E1140.80784
G0 F12000 X118.20 Y179.16
G1 F1800 X106.47 Y167.43 E1141.45106
G0 F12000 X106.47 Y168.08
G1 F1800 X117.55 Y179.16 E1142.05817
G0 F12000 X116.89 Y179.16
G1 F1800 X106.47 Y168.74 E1142.62917
G0 F12000 X106.47 Y169.40
G1 F1800 X116.23 Y179.16 E1143.16405
G0 F12000 X115.57 Y179.16
G1 F1800 X106.47 Y170.06 E1143.66279
G0 F12000 X106.47 Y170.72
G1 F1800 X114.91 Y179.16 E1144.12543
G0 F12000 X114.25 Y179.16
G1 F1800 X106.47 Y171.38 E1144.55195
G0 F12000 X106.47 Y172.04
G1 F1800 X113.59 Y179.16 E1144.94235
G0 F12000 X112.93 Y179.16
G1 F1800 X106.47 Y172.70 E1145.29665
G0 F12000 X106.47 Y173.36
G1 F1800 X112.27 Y179.16 E1145.61484
G0 F12000 X111.61 Y179.16
G1 F1800 X106.47 Y174.02 E1145.89688
G0 F12000 X106.47 Y174.68
G1 F1800 X110.95 Y179.16 E1146.14281
G0 F12000 X110.30 Y179.16
G1 F1800 X106.47 Y175.33 E1146.35264
G0 F12000 X106.47 Y175.99
G1 F1800 X109.64 Y179.16 E1146.52635
G0 F12000 X108.98 Y179.16
G1 F1800 X106.47 Y176.65 E1146.66394
G0 F12000 X106.47 Y177.31
G1 F1800 X108.32 Y179.16 E1146.76543
G0 F12000 X107.66 Y179.16
G1 F1800 X106.47 Y177.97 E1146.83080
G0 F12000 X106.47 Y178.63
G1 F1800 X107.00 Y179.16 E1146.86007
G1 F2400 E1145.66007
G0 F12000 X109.97 Y161.33
;TYPE:WALL-INNER
G1 F2400 E1146.86007
G1 F1800 X96.30 Y161.33 E1147.38975
G1 X96.30 Y139.66 E1148.22938
G1 X109.97 Y139.66 E1148.75907
G1 X109.97 Y161.33 E1149.59870
G0 F12000 X110.44 Y161.79
G1 F1800 X95.84 Y161.79 E1150.16450
G1 X95.84 Y139.19 E1151.04025
G1 X110.44 Y139.19 E1151.60604
G1 X110.44 Y161.79 E1152.48179
G0 F12000 X110.90 Y162.26
;TYPE:WALL-OUTER
G1 F1800 X95.37 Y162.26 E1153.08370
G1 X95.37 Y138.73 E1153.99556
G1 X110.90 Y138.73 E1154.59747
G1 X110.90 Y162.26 E1155.50933
G0 F12000 X110.57 Y162.02
G0 X109.81 Y160.88
;TYPE:FILL
G1 F1800 X96.47 Y147.54 E1156.24050
G0 F12000 X96.47 Y148.20
G1 F1800 X109.43 Y161.16 E1156.95096
G0 F12000 X108.77 Y161.16
G1 F1800 X96.47 Y148.86 E1157.62530
G0 F12000 X96.47 Y149.52
G1 F1800 X108.11 Y161.16 E1158.26351
G0 F12000 X107.45 Y161.16
G1 F1800 X96.47 Y150.18 E1158.86560
G0 F12000 X96.47 Y150.84
G1 F1800 X106.79 Y161.16 E1159.43158
G0 F12000 X106.14 Y161.16
G1 F1800 X96.47 Y151.49 E1159.96145
G0 F12000 X96.47 Y152.15
G1 F1800 X105.48 Y161.16 E1160.45521
G0 F12000 X104.82 Y161.16
G1 F1800 X96.47 Y152.81 E1160.91285
G0 F12000 X96.47 Y153.47
G1 F1800 X104.16 Y161.16 E1161.33439
G0 F12000 X103.50 Y161.16
G1 F1800 X96.47 Y154.13 E1161.71981
G0 F12000 X96.47 Y154.79
G1 F1800 X102.84 Y161.16 E1162.06912
G0 F12000 X102.18 Y161.16
G1 F1800 X96.47 Y155.45 E1162.38232
G0 F12000 X96.47 Y156.11
G1 F1800 X101.52 Y161.16 E1162.65940
G0 F12000 X100.86 Y161.16
G1 F1800 X96.47 Y156.77 E1162.90038
G0 F12000 X96.47 Y157.43
G1 F1800 X100.20 Y161.16 E1163.10524
G0 F12000 X99.55 Y161.16
G1 F1800 X96.47 Y158.08 E1163.27399
G0 F12000 X96.47 Y158.74
G1 F1800 X98.89 Y161.16 E1163.40663
G0 F12000 X98.23 Y161.16
G1 F1800 X96.47 Y159.40 E1163.50316
G0 F12000 X96.47 Y160.06
G1 F1800 X97.57 Y161.16 E1163.56357
G0 F12000 X96.91 Y161.16
G1 F1800 X96.47 Y160.72 E1163.58785
G0 F12000 X109.81 Y160.22
G1 F1800 X96.47 Y146.88 E1164.31902
G0 F12000 X96.47 Y146.22
G1 F1800 X109.81 Y159.56 E1165.05019
G0 F12000 X109.81 Y158.91
G1 F1800 X96.47 Y145.56 E1165.78136
G0 F12000 X96.47 Y144.90
G1 F1800 X109.81 Y158.25 E1166.51253
G0 F12000 X109.81 Y157.59
G1 F1800 X96.47 Y144.24 E1167.24370
G0 F12000 X96.47 Y143.59
G1 F1800 X109.81 Y156.93 E1167.97487
G0 F12000 X109.81 Y156.27
G1 F1800 X96.47 Y142.93 E1168.70604
G0 F12000 X96.47 Y142.27
G1 F1800 X109.81 Y155.61 E1169.43721
G0 F12000 X109.81 Y154.95
G1 F1800 X96.47 Y141.61 E1170.16838
G0 F12000 X96.47 Y140.95
G1 F1800 X109.81 Y154.29 E1170.89955
G0 F12000 X109.81 Y153.63
G1 F1800 X96.47 Y140.29 E1171.63072
G0 F12000 X96.66 Y139.82
G1 F1800 X109.81 Y152.97 E1172.35137
G0 F12000 X109.81 Y152.31
G1 F1800 X97.32 Y139.82 E1173.03590
G0 F12000 X97.97 Y139.82
G1 F1800 X109.81 Y151.66 E1173.68433
G0 F12000 X109.81 Y151.00
G1 F1800 X98.63 Y139.82 E1174.29661
G0 F12000 X99.29 Y139.82
G1 F1800 X109.81 Y150.34 E1174.87279
G0 F12000 X109.81 Y149.68
G1 F1800 X99.95 Y139.82 E1175.41285
G0 F12000 X100.61 Y139.82
G1 F1800 X109.81 Y149.02 E1175.91680
G0 F12000 X109.81 Y148.36
G1 F1800 X101.27 Y139.82 E1176.38464
G0 F12000 X101.93 Y139.82
G1 F1800 X109.81 Y147.70 E1176.81637
G0 F12000 X109.81 Y147.04
G1 F1800 X102.59 Y139.82 E1177.21198
G0 F12000 X103.25 Y139.82
G1 F1800 X109.81 Y146.38 E1177.57148
G0 F12000 X109.81 Y145.72
G1 F1800 X103.91 Y139.82 E1177.89487
G0 F12000 X104.56 Y139.82
G1 F1800 X109.81 Y145.06 E1178.18215
G0 F12000 X109.81 Y144.41
G1 F1800 X105.22 Y139.82 E1178.43332
G0 F12000 X105.88 Y139.82
G1 F1800 X109.81 Y143.75 E1178.64837
G0 F12000 X109.81 Y143.09
G1 F1800 X106.54 Y139.82 E1178.82732
G0 F12000 X107.20 Y139.82
G1 F1800 X109.81 Y142.43 E1178.97015
G0 F12000 X109.81 Y141.77
G1 F1800 X107.86 Y139.82 E1179.07687
G0 F12000 X108.52 Y139.82
G1 F1800 X109.81 Y141.11 E1179.14747
G0 F12000 X109.81 Y140.45
G1 F1800 X109.18 Y139.82 E1179.18197
G1 F2400 E1177.98197
G0 F12000 X91.97 Y157.66
;TYPE:WALL-INNER
G1 F2400 E1179.18197
G1 F1800 X91.97 Y179.33 E1180.02164
G1 X70.30 Y179.33 E1180.86131
G1 X70.30 Y173.66 E1181.08101
G1 X86.30 Y173.66 E1181.70098
G1 X86.30 Y157.66 E1182.32095
G1 X91.97 Y157.66 E1182.54065
G0 F12000 X92.44 Y157.19
G1 F1800 X92.44 Y179.79 E1183.41643
G1 X69.84 Y179.79 E1184.29222
G1 X69.84 Y173.19 E1184.54803
G1 X85.84 Y173.19 E1185.16800
G1 X85.84 Y157.19 E1185.78797
G1 X92.44 Y157.19 E1186.04378
G0 F12000 X92.90 Y156.73
;TYPE:WALL-OUTER
G1 F1800 X92.90 Y180.26 E1186.95568
G1 X69.37 Y180.26 E1187.86758
G1 X69.37 Y172.73 E1188.15951
G1 X85.37 Y172.73 E1188.77948
G1 X85.37 Y156.73 E1189.39944
G1 X92.90 Y156.73 E1189.69137
G0 F12000 X92.57 Y156.97
G0 X91.81 Y158.04
;TYPE:FILL
G1 F1800 X91.59 Y157.82 E1189.70326
G0 F12000 X90.93 Y157.82
G1 F1800 X91.81 Y158.70 E1189.75127
G0 F12000 X91.81 Y159.36
G1 F1800 X90.27 Y157.82 E1189.83538
G0 F12000 X89.61 Y157.82
G1 F1800 X91.81 Y160.02 E1189.95561
G0 F12000 X91.81 Y160.68
G1 F1800 X88.95 Y157.82 E1190.11195
G0 F12000 X88.30 Y157.82
G1 F1800 X91.81 Y161.33 E1190.30440
G0 F12000 X91.81 Y161.99
G1 F1800 X87.64 Y157.82 E1190.53296
G0 F12000 X86.98 Y157.82
G1 F1800 X91.81 Y162.65 E1190.79763
G0 F12000 X91.81 Y163.31
G1 F1800 X86.47 Y157.97 E1191.09037
G0 F12000 X86.47 Y158.63
G1 F1800 X91.81 Y163.97 E1191.38310
G0 F12000 X91.81 Y164.63
G1 F1800 X86.47 Y159.29 E1191.67585
G0 F12000 X86.47 Y159.95
G1 F1800 X91.81 Y165.29 E1191.96861
G0 F12000 X91.81 Y165.95
G1 F1800 X86.47 Y160.60 E1192.26137
G0 F12000 X86.47 Y161.26
G1 F1800 X91.81 Y166.61 E1192.55413
G0 F12000 X91.81 Y167.27
G1 F1800 X86.47 Y161.92 E1192.84689
G0 F12000 X86.47 Y162.58
G1 F1800 X91.81 Y167.93 E1193.13965
G0 F12000 X91.81 Y168.58
G1 F1800 X86.47 Y163.24 E1193.43241
G0 F12000 X86.47 Y163.90
G1 F1800 X91.81 Y169.24 E1193.72516
G0 F12000 X91.81 Y169.90
G1 F1800 X86.47 Y164.56 E1194.01790
G0 F12000 X86.47 Y165.22
G1 F1800 X91.81 Y170.56 E1194.31063
G0 F12000 X91.81 Y171.22
G1 F1800 X86.47 Y165.88 E1194.60336
G0 F12000 X86.47 Y166.54
G1 F1800 X91.81 Y171.88 E1194.89609
G0 F12000 X91.81 Y172.54
G1 F1800 X86.47 Y167.20 E1195.18882
G0 F12000 X86.47 Y167.85
G1 F1800 X91.81 Y173.20 E1195.48155
G0 F12000 X91.81 Y173.86
G1 F1800 X86.47 Y168.51 E1195.77428
G0 F12000 X86.47 Y169.17
G1 F1800 X91.81 Y174.51 E1196.06701
G0 F12000 X91.81 Y175.17
G1 F1800 X86.47 Y169.83 E1196.35974
G0 F12000 X86.47 Y170.49
G1 F1800 X91.81 Y175.83 E1196.65247
G0 F12000 X91.81 Y176.49
G1 F1800 X86.47 Y171.15 E1196.94521
G0 F12000 X86.47 Y171.81
G1 F1800 X91.81 Y177.15 E1197.23794
G0 F12000 X91.81 Y177.81
G1 F1800 X86.47 Y172.47 E1197.53067
G0 F12000 X86.47 Y173.13
G1 F1800 X91.81 Y178.47 E1197.82340
G0 F12000 X91.81 Y179.13
G1 F1800 X86.47 Y173.79 E1198.11613
G0 F12000 X85.84 Y173.82
G1 F1800 X91.18 Y179.16 E1198.40883
G0 F12000 X90.53 Y179.16
G1 F1800 X85.18 Y173.82 E1198.70154
G0 F12000 X84.52 Y173.82
G1 F1800 X89.87 Y179.16 E1198.99424
G0 F12000 X89.21 Y179.16
G1 F1800 X83.86 Y173.82 E1199.28694
G0 F12000 X83.21 Y173.82
G1 F1800 X88.55 Y179.16 E1199.57965
G0 F12000 X87.89 Y179.16
G1 F1800 X82.55 Y173.82 E1199.87235
G0 F12000 X81.89 Y173.82
G1 F1800 X87.23 Y179.16 E1200.16506
G0 F12000 X86.57 Y179.16
G1 F1800 X81.23 Y173.82 E1200.45776
G0 F12000 X80.57 Y173.82
G1 F1800 X85.91 Y179.16 E1200.75046
G0 F12000 X85.25 Y179.16
G1 F1800 X79.91 Y173.82 E1201.04317
G0 F12000 X79.25 Y173.82
G1 F1800 X84.59 Y179.16 E1201.33587
G0 F12000 X83.93 Y179.16
G1 F1800 X78.59 Y173.82 E1201.62855
G0 F12000 X77.93 Y173.82
G1 F1800 X83.28 Y179.16 E1201.92122
G0 F12000 X82.62 Y179.16
G1 F1800 X77.28 Y173.82 E1202.21390
G0 F12000 X76.62 Y173.82
G1 F1800 X81.96 Y179.16 E1202.50658
G0 F12000 X81.30 Y179.16
G1 F1800 X75.96 Y173.82 E1202.79925
G0 F12000 X75.30 Y173.82
G1 F1800 X80.64 Y179.16 E1203.09193
G0 F12000 X79.98 Y179.16
G1 F1800 X74.64 Y173.82 E1203.38460
G0 F12000 X73.98 Y173.82
G1 F1800 X79.32 Y179.16 E1203.67728
G0 F12000 X78.66 Y179.16
G1 F1800 X73.32 Y173.82 E1203.96996
G0 F12000 X72.66 Y173.82
G1 F1800 X78.00 Y179.16 E1204.26263
G0 F12000 X77.34 Y179.16
G1 F1800 X72.00 Y173.82 E1204.55531
G0 F12000 X71.34 Y173.82
G1 F1800 X76.69 Y179.16 E1204.84799
G0 F12000 X76.03 Y179.16
G1 F1800 X70.69 Y173.82 E1205.14066
G0 F12000 X70.47 Y174.26
G1 F1800 X75.37 Y179.16 E1205.40923
G0 F12000 X74.71 Y179.16
G1 F1800 X70.47 Y174.92 E1205.64168
G0 F12000 X70.47 Y175.58
G1 F1800 X74.05 Y179.16 E1205.83802
G0 F12000 X73.39 Y179.16
G1 F1800 X70.47 Y176.24 E1205.99825
G0 F12000 X70.47 Y176.90
G1 F1800 X72.73 Y179.16 E1206.12237
G0 F12000 X72.07 Y179.16
G1 F1800 X70.47 Y177.56 E1206.21037
G0 F12000 X70.47 Y178.22
G1 F1800 X71.41 Y179.16 E1206.26227
G0 F12000 X70.75 Y179.16
G1 F1800 X70.47 Y178.88 E1206.27805
G1 F2400 E1205.07805
G0 F12000 X76.30 Y159.33
;TYPE:WALL-INNER
G1 F2400 E1206.27805
G1 F1800 X76.30 Y151.33 E1206.58800
G1 X68.30 Y151.33 E1206.89798
G1 X68.30 Y129.66 E1207.73765
G1 X73.97 Y129.66 E1207.95735
G1 X73.97 Y145.66 E1208.57732
G1 X89.97 Y145.66 E1209.19729
G1 X89.97 Y151.33 E1209.41699
G1 X81.97 Y151.33 E1209.72698
G1 X81.97 Y159.33 E1210.03692
G1 X76.30 Y159.33 E1210.25662
G0 F12000 X75.84 Y159.79
G1 F1800 X75.84 Y151.80 E1210.56657
G1 X67.84 Y151.80 E1210.87655
G1 X67.84 Y129.19 E1211.75234
G1 X74.44 Y129.19 E1212.00815
G1 X74.44 Y145.19 E1212.62812
G1 X90.44 Y145.19 E1213.24809
G1 X90.44 Y151.80 E1213.50390
G1 X82.44 Y151.80 E1213.81389
G1 X82.44 Y159.79 E1214.12383
G1 X75.84 Y159.79 E1214.37965
G0 F12000 X75.37 Y160.26
;TYPE:WALL-OUTER
G1 F1800 X75.37 Y152.26 E1214.68959
G1 X67.37 Y152.26 E1214.99958
G1 X67.37 Y128.73 E1215.91148
G1 X74.90 Y128.73 E1216.20340
G1 X74.90 Y144.73 E1216.82337
G1 X90.90 Y144.73 E1217.44334
G1 X90.90 Y152.26 E1217.73527
G1 X82.90 Y152.26 E1218.04525
G1 X82.90 Y160.26 E1218.35520
G1 X75.37 Y160.26 E1218.64713
G0 F12000 X75.61 Y159.93
G0 X77.11 Y159.16
;TYPE:FILL
G1 F1800 X76.47 Y158.51 E1218.68275
G0 F12000 X76.47 Y157.85
G1 F1800 X77.77 Y159.16 E1218.75448
G0 F12000 X78.43 Y159.16
G1 F1800 X76.47 Y157.20 E1218.86232
G0 F12000 X76.47 Y156.54
G1 F1800 X79.09 Y159.16 E1219.00627
G0 F12000 X79.75 Y159.16
G1 F1800 X76.47 Y155.88 E1219.18634
G0 F12000 X76.47 Y155.22
G1 F1800 X80.41 Y159.16 E1219.40252
G0 F12000 X81.07 Y159.16
G1 F1800 X76.47 Y154.56 E1219.65481
G0 F12000 X76.47 Y153.90
G1 F1800 X81.73 Y159.16 E1219.94321
G0 F12000 X81.81 Y158.58
G1 F1800 X76.47 Y153.24 E1220.23597
G0 F12000 X76.47 Y152.58
G1 F1800 X81.81 Y157.93 E1220.52873
G0 F12000 X81.81 Y157.27
G1 F1800 X76.47 Y151.92 E1220.82149
G0 F12000 X76.47 Y151.26
G1 F1800 X81.81 Y156.61 E1221.11427
G0 F12000 X81.81 Y155.95
G1 F1800 X68.47 Y142.61 E1221.84539
G0 F12000 X68.47 Y143.26
G1 F1800 X76.37 Y151.16 E1222.27829
G0 F12000 X75.71 Y151.16
G1 F1800 X68.47 Y143.92 E1222.67508
G0 F12000 X68.47 Y144.58
G1 F1800 X75.05 Y151.16 E1223.03576
G0 F12000 X74.39 Y151.16
G1 F1800 X68.47 Y145.24 E1223.36033
G0 F12000 X68.47 Y145.90
G1 F1800 X73.73 Y151.16 E1223.64879
G0 F12000 X73.07 Y151.16
G1 F1800 X68.47 Y146.56 E1223.90113
G0 F12000 X68.47 Y147.22
G1 F1800 X72.41 Y151.16 E1224.11734
G0 F12000 X71.75 Y151.16
G1 F1800 X68.47 Y147.88 E1224.29743
G0 F12000 X68.47 Y148.54
G1 F1800 X71.09 Y151.16 E1224.44142
G0 F12000 X70.43 Y151.16
G1 F1800 X68.47 Y149.20 E1224.54929
G0 F12000 X68.47 Y149.85
G1 F1800 X69.78 Y151.16 E1224.62104
G0 F12000 X69.12 Y151.16
G1 F1800 X68.47 Y150.51 E1224.65669
G0 F12000 X73.81 Y145.31
G1 F1800 X68.47 Y139.97 E1224.94937
G0 F12000 X68.47 Y140.63
G1 F1800 X81.81 Y153.97 E1225.68048
G0 F12000 X81.81 Y154.63
G1 F1800 X68.47 Y141.29 E1226.41160
G0 F12000 X68.47 Y141.95
G1 F1800 X81.81 Y155.29 E1227.14271
G0 F12000 X81.81 Y153.31
G1 F1800 X74.32 Y145.82 E1227.55309
G0 F12000 X74.98 Y145.82
G1 F1800 X81.81 Y152.65 E1227.92737
G0 F12000 X81.81 Y151.99
G1 F1800 X75.64 Y145.82 E1228.26552
G0 F12000 X76.30 Y145.82
G1 F1800 X81.81 Y151.33 E1228.56754
G0 F12000 X82.30 Y151.16
G1 F1800 X76.95 Y145.82 E1228.86027
G0 F12000 X77.61 Y145.82
G1 F1800 X82.96 Y151.16 E1229.15301
G0 F12000 X83.61 Y151.16
G1 F1800 X78.27 Y145.82 E1229.44574
G0 F12000 X78.93 Y145.82
G1 F1800 X84.27 Y151.16 E1229.73847
G0 F12000 X84.93 Y151.16
G1 F1800 X79.59 Y145.82 E1230.03120
G0 F12000 X80.25 Y145.82
G1 F1800 X85.59 Y151.16 E1230.32393
G0 F12000 X86.25 Y151.16
G1 F1800 X80.91 Y145.82 E1230.61666
G0 F12000 X81.57 Y145.82
G1 F1800 X86.91 Y151.16 E1230.90936
G0 F12000 X87.57 Y151.16
G1 F1800 X82.23 Y145.82 E1231.20207
G0 F12000 X82.89 Y145.82
G1 F1800 X88.23 Y151.16 E1231.49477
G0 F12000 X88.89 Y151.16
G1 F1800 X83.55 Y145.82 E1231.78748
G0 F12000 X84.20 Y145.82
G1 F1800 X89.55 Y151.16 E1232.08018
G0 F12000 X89.81 Y150.77
G1 F1800 X84.86 Y145.82 E1232.35110
G0 F12000 X85.52 Y145.82
G1 F1800 X89.81 Y150.11 E1232.58591
G0 F12000 X89.81 Y149.45
G1 F1800 X86.18 Y145.82 E1232.78461
G0 F12000 X86.84 Y145.82
G1 F1800 X89.81 Y148.79 E1232.94719
G0 F12000 X89.81 Y148.13
G1 F1800 X87.50 Y145.82 E1233.07367
G0 F12000 X88.16 Y145.82
G1 F1800 X89.81 Y147.47 E1233.16403
G0 F12000 X89.81 Y146.81
G1 F1800 X88.82 Y145.82 E1233.21828
G0 F12000 X89.48 Y145.82
G1 F1800 X89.81 Y146.15 E1233.23642
G0 F12000 X74.53 Y145.10
G0 X73.81 Y144.65
G1 F1800 X68.47 Y139.31 E1233.52909
G0 F12000 X68.47 Y138.65
G1 F1800 X73.81 Y143.99 E1233.82177
G0 F12000 X73.81 Y143.33
G1 F1800 X68.47 Y137.99 E1234.11445
G0 F12000 X68.47 Y137.33
G1 F1800 X73.81 Y142.68 E1234.40712
G0 F12000 X73.81 Y142.02
G1 F1800 X68.47 Y136.68 E1234.69980
G0 F12000 X68.47 Y136.02
G1 F1800 X73.81 Y141.36 E1234.99248
G0 F12000 X73.81 Y140.70
G1 F1800 X68.47 Y135.36 E1235.28515
G0 F12000 X68.47 Y134.70
G1 F1800 X73.81 Y140.04 E1235.57783
G0 F12000 X73.81 Y139.38
G1 F1800 X68.47 Y134.04 E1235.87050
G0 F12000 X68.47 Y133.38
G1 F1800 X73.81 Y138.72 E1236.16318
G0 F12000 X73.81 Y138.06
G1 F1800 X68.47 Y132.72 E1236.45586
G0 F12000 X68.47 Y132.06
G1 F1800 X73.81 Y137.40 E1236.74853
G0 F12000 X73.81 Y136.74
G1 F1800 X68.47 Y131.40 E1237.04121
G0 F12000 X68.47 Y130.74
G1 F1800 X73.81 Y136.09 E1237.33389
G0 F12000 X73.81 Y135.43
G1 F1800 X68.47 Y130.09 E1237.62656
G0 F12000 X68.86 Y129.82
G1 F1800 X73.81 Y134.77 E1237.89748
G0 F12000 X73.81 Y134.11
G1 F1800 X69.52 Y129.82 E1238.13229
G0 F12000 X70.18 Y129.82
G1 F1800 X73.81 Y133.45 E1238.33099
G0 F12000 X73.81 Y132.79
G1 F1800 X70.84 Y129.82 E1238.49358
G0 F12000 X71.50 Y129.82
G1 F1800 X73.81 Y132.13 E1238.62005
G0 F12000 X73.81 Y131.47
G1 F1800 X72.16 Y129.82 E1238.71041
G0 F12000 X72.82 Y129.82
G1 F1800 X73.81 Y130.81 E1238.76466
G0 F12000 X73.81 Y130.15
G1 F1800 X73.48 Y129.82 E1238.78280
G1 F2400 E1237.58280
G0 F12000 X78.30 Y127.66
;TYPE:WALL-INNER
G1 F2400 E1238.78280
G1 F1800 X91.97 Y127.66 E1239.31249
G1 X91.97 Y141.33 E1239.84217
G1 X78.30 Y141.33 E1240.37186
G1 X78.30 Y127.66 E1240.90154
G0 F12000 X77.84 Y127.19
G1 F1800 X92.44 Y127.19 E1241.46734
G1 X92.44 Y141.80 E1242.03314
G1 X77.84 Y141.80 E1242.59894
G1 X77.84 Y127.19 E1243.16474
G0 F12000 X77.37 Y126.73
;TYPE:WALL-OUTER
G1 F1800 X92.90 Y126.73 E1243.76665
G1 X92.90 Y142.26 E1244.36856
G1 X77.37 Y142.26 E1244.97048
G1 X77.37 Y126.73 E1245.57239
G0 F12000 X77.70 Y126.97
G0 X78.73 Y127.82
;TYPE:FILL
G1 F1800 X91.81 Y140.91 E1246.28923
G0 F12000 X91.41 Y141.16
G1 F1800 X78.47 Y128.22 E1246.99848
G0 F12000 X78.47 Y128.88
G1 F1800 X90.75 Y141.16 E1247.67162
G0 F12000 X90.09 Y141.16
G1 F1800 X78.47 Y129.54 E1248.30865
G0 F12000 X78.47 Y130.20
G1 F1800 X89.43 Y141.16 E1248.90956
G0 F12000 X88.77 Y141.16
G1 F1800 X78.47 Y130.86 E1249.47437
G0 F12000 X78.47 Y131.52
G1 F1800 X88.11 Y141.16 E1250.00303
G0 F12000 X87.45 Y141.16
G1 F1800 X78.47 Y132.18 E1250.49558
G0 F12000 X78.47 Y132.84
G1 F1800 X86.80 Y141.16 E1250.95202
G0 F12000 X86.14 Y141.16
G1 F1800 X78.47 Y133.49 E1251.37235
G0 F12000 X78.47 Y134.15
G1 F1800 X85.48 Y141.16 E1251.75657
G0 F12000 X84.82 Y141.16
G1 F1800 X78.47 Y134.81 E1252.10467
G0 F12000 X78.47 Y135.47
G1 F1800 X84.16 Y141.16 E1252.41666
G0 F12000 X83.50 Y141.16
G1 F1800 X78.47 Y136.13 E1252.69254
G0 F12000 X78.47 Y136.79
G1 F1800 X82.84 Y141.16 E1252.93231
G0 F12000 X82.18 Y141.16
G1 F1800 X78.47 Y137.45 E1253.13597
G0 F12000 X78.47 Y138.11
G1 F1800 X81.52 Y141.16 E1253.30351
G0 F12000 X80.86 Y141.16
G1 F1800 X78.47 Y138.77 E1253.43495
G0 F12000 X78.47 Y139.43
G1 F1800 X80.20 Y141.16 E1253.53027
G0 F12000 X79.55 Y141.16
G1 F1800 X78.47 Y140.08 E1253.58948
G0 F12000 X78.47 Y140.74
G1 F1800 X78.89 Y141.16 E1253.61258
G0 F12000 X91.81 Y140.25
G1 F1800 X79.39 Y127.82 E1254.29330
G0 F12000 X80.04 Y127.82
G1 F1800 X91.81 Y139.59 E1254.93792
G0 F12000 X91.81 Y138.93
G1 F1800 X80.70 Y127.82 E1255.54643
G0 F12000 X81.36 Y127.82
G1 F1800 X91.81 Y138.27 E1256.11882
G0 F12000 X91.81 Y137.61
G1 F1800 X82.02 Y127.82 E1256.65510
G0 F12000 X82.68 Y127.82
G1 F1800 X91.81 Y136.95 E1257.15527
G0 F12000 X91.81 Y136.29
G1 F1800 X83.34 Y127.82 E1257.61932
G0 F12000 X84.00 Y127.82
G1 F1800 X91.81 Y135.63 E1258.04724
G0 F12000 X91.81 Y134.97
G1 F1800 X84.66 Y127.82 E1258.43905
G0 F12000 X85.32 Y127.82
G1 F1800 X91.81 Y134.31 E1258.79474
G0 F12000 X91.81 Y133.66
G1 F1800 X85.97 Y127.82 E1259.11432
G0 F12000 X86.63 Y127.82
G1 F1800 X91.81 Y133.00 E1259.39779
G0 F12000 X91.81 Y132.34
G1 F1800 X87.29 Y127.82 E1259.64515
G0 F12000 X87.95 Y127.82
G1 F1800 X91.81 Y131.68 E1259.85640
G0 F12000 X91.81 Y131.02
G1 F1800 X88.61 Y127.82 E1260.03153
G0 F12000 X89.27 Y127.82
G1 F1800 X91.81 Y130.36 E1260.17056
G0 F12000 X91.81 Y129.70
G1 F1800 X89.93 Y127.82 E1260.27347
G0 F12000 X90.59 Y127.82
G1 F1800 X91.81 Y129.04 E1260.34027
G0 F12000 X91.81 Y128.38
G1 F1800 X91.25 Y127.82 E1260.37095
G1 F2400 E1259.17095
G0 F12000 X98.30 Y127.66
;TYPE:WALL-INNER
G1 F2400 E1260.37095
G1 F1800 X119.97 Y127.66 E1261.21062
G1 X119.97 Y149.33 E1262.05029
G1 X114.30 Y149.33 E1262.27000
G1 X114.30 Y133.33 E1262.88996
G1 X98.30 Y133.33 E1263.50993
G1 X98.30 Y127.66 E1263.72963
G0 F12000 X97.84 Y127.19
G1 F1800 X120.44 Y127.19 E1264.60542
G1 X120.44 Y149.80 E1265.48120
G1 X113.84 Y149.80 E1265.73702
G1 X113.84 Y133.80 E1266.35699
G1 X97.84 Y133.80 E1266.97695
G1 X97.84 Y127.19 E1267.23277
G0 F12000 X97.37 Y126.73
;TYPE:WALL-OUTER
G1 F1800 X120.90 Y126.73 E1268.14467
G1 X120.90 Y150.26 E1269.05656
G1 X113.37 Y150.26 E1269.34849
G1 X113.37 Y134.26 E1269.96846
G1 X97.37 Y134.26 E1270.58843
G1 X97.37 Y126.73 E1270.88036
G0 F12000 X97.70 Y126.97
G0 X98.50 Y127.82
;TYPE:FILL
G1 F1800 X103.84 Y133.16 E1271.17306
G0 F12000 X103.18 Y133.16
G1 F1800 X98.47 Y128.45 E1271.43135
G0 F12000 X98.47 Y129.11
G1 F1800 X102.52 Y133.16 E1271.65353
G0 F12000 X101.86 Y133.16
G1 F1800 X98.47 Y129.77 E1271.83960
G0 F12000 X98.47 Y130.43
G1 F1800 X101.20 Y133.16 E1271.98955
G0 F12000 X100.54 Y133.16
G1 F1800 X98.47 Y131.09 E1272.10339
G0 F12000 X98.47 Y131.75
G1 F1800 X99.88 Y133.16 E1272.18112
G0 F12000 X99.22 Y133.16
G1 F1800 X98.47 Y132.41 E1272.22274
G0 F12000 X98.47 Y133.06
G1 F1800 X98.57 Y133.16 E1272.22825
G0 F12000 X99.16 Y127.82
G1 F1800 X104.50 Y133.16 E1272.52095
G0 F12000 X105.16 Y133.16
G1 F1800 X99.81 Y127.82 E1272.81366
G0 F12000 X100.47 Y127.82
G1 F1800 X105.81 Y133.16 E1273.10636
G0 F12000 X106.47 Y133.16
G1 F1800 X101.13 Y127.82 E1273.39907
G0 F12000 X101.79 Y127.82
G1 F1800 X107.13 Y133.16 E1273.69177
G0 F12000 X107.79 Y133.16
G1 F1800 X102.45 Y127.82 E1273.98447
G0 F12000 X103.11 Y127.82
G1 F1800 X108.45 Y133.16 E1274.27718
G0 F12000 X109.11 Y133.16
G1 F1800 X103.77 Y127.82 E1274.56988
G0 F12000 X104.43 Y127.82
G1 F1800 X109.77 Y133.16 E1274.86258
G0 F12000 X110.43 Y133.16
G1 F1800 X105.09 Y127.82 E1275.15529
G0 F12000 X105.75 Y127.82
G1 F1800 X111.09 Y133.16 E1275.44799
G0 F12000 X111.75 Y133.16
G1 F1800 X106.41 Y127.82 E1275.74069
G0 F12000 X107.06 Y127.82
G1 F1800 X112.41 Y133.16 E1276.03340
G0 F12000 X113.06 Y133.16
G1 F1800 X107.72 Y127.82 E1276.32610
G0 F12000 X108.38 Y127.82
G1 F1800 X113.72 Y133.16 E1276.61881
G0 F12000 X114.38 Y133.16
G1 F1800 X109.04 Y127.82 E1276.91154
G0 F12000 X109.70 Y127.82
