;-- START GCODE --
;Sliced for Type A Machines Series 1
;Sliced at: Sun 30-10-2016 19:45:18
;Basic settings: Layer height: 0.2 Walls: 1.4 Fill: 100
;Print Speed: 30 Support: 0
;Retraction Speed: 40 Retraction Distance: 1.2
;Print time: #P_TIME#
;Filament used: #F_AMNT#m #F_WGHT#g
;Filament cost: #F_COST#
M106 S255	 ;start with the fan on
G21        ;metric values
G90        ;absolute positioning
M106 S255    ;start with the fan on
G28     ;move to endstops
G29		;allows for auto-levelling
G1 X150 Y5  Z15.0 F12000 ;center and move the platform down 15mm
M109 S220 ;Heat To temp
G92 E0                  ;zero the extruded length
G1 F200 E30              ;extrude 30mm of feed stock
G92 E0                  ;zero the extruded length again
G1 X175 Y25  Z0 F12000 ;remove bugger
G1 X220 F12000 ;remove bugger
G1 X150 Y150  Z15 F12000 ;recenter and begin
G1 F12000

;Layer count: 80
;LAYER:0
M106 S255
G0 F12000 X110.42 Y111.42 Z0.30
;TYPE:SKIRT
G1 F1800 X130.42 Y111.42 E1.16250
G1 X130.42 Y109.42 E1.27874
G1 X194.58 Y109.42 E5.00745
G1 X194.58 Y149.58 E7.34128
G1 X191.18 Y149.58 E7.53890
G1 X191.18 Y184.18 E9.54992
G1 X188.58 Y184.18 E9.70104
G1 X188.58 Y195.58 E10.36363
G1 X112.42 Y195.58 E14.78986
G1 X112.42 Y183.58 E15.48733
G1 X110.42 Y183.58 E15.60357
G1 X110.42 Y111.42 E19.79731
G0 F12000 X110.89 Y111.89
G1 F1800 X130.89 Y111.89 E20.95981
G1 X130.89 Y109.89 E21.07606
G1 X194.11 Y109.89 E24.75059
G1 X194.11 Y149.11 E27.03026
G1 X190.71 Y149.11 E27.22787
G1 X190.71 Y183.71 E29.23890
G1 X188.11 Y183.71 E29.39001
G1 X188.11 Y195.11 E30.05261
G1 X112.89 Y195.11 E34.42467
G1 X112.89 Y183.11 E35.12213
G1 X110.89 Y183.11 E35.23837
G1 X110.89 Y111.89 E39.37795
G0 F12000 X111.36 Y112.36
G1 F1800 X131.36 Y112.36 E40.54045
G1 X131.36 Y110.36 E40.65669
G1 X193.65 Y110.36 E44.27706
G1 X193.65 Y148.65 E46.50255
G1 X190.25 Y148.65 E46.70017
G1 X190.25 Y183.25 E48.71119
G1 X187.65 Y183.25 E48.86231
G1 X187.65 Y194.65 E49.52490
G1 X113.36 Y194.65 E53.84279
G1 X113.36 Y182.65 E54.54025
G1 X111.36 Y182.65 E54.65650
G1 X111.36 Y112.36 E58.74190
G0 F12000 X111.82 Y112.82
G1 F1800 X131.82 Y112.82 E59.90440
G1 X131.82 Y110.82 E60.02064
G1 X193.18 Y110.82 E63.58684
G1 X193.18 Y148.18 E65.75817
G1 X189.78 Y148.18 E65.95578
G1 X189.78 Y182.78 E67.96680
G1 X187.18 Y182.78 E68.11792
G1 X187.18 Y194.18 E68.78051
G1 X113.82 Y194.18 E73.04423
G1 X113.82 Y182.18 E73.74170
G1 X111.82 Y182.18 E73.85794
G1 X111.82 Y112.82 E77.88917
G0 F12000 X112.29 Y113.29
G1 F1800 X132.29 Y113.29 E79.05167
G1 X132.29 Y111.29 E79.16792
G1 X192.71 Y111.29 E82.67995
G1 X192.71 Y147.71 E84.79710
G1 X189.31 Y147.71 E84.99472
G1 X189.31 Y182.31 E87.00574
G1 X186.71 Y182.31 E87.15686
G1 X186.71 Y193.71 E87.81945
G1 X114.29 Y193.71 E92.02900
G1 X114.29 Y181.71 E92.72646
G1 X112.29 Y181.71 E92.84271
G1 X112.29 Y113.29 E96.81977
G0 F12000 X112.75 Y113.75
G1 F1800 X132.75 Y113.75 E97.98227
G1 X132.75 Y111.75 E98.09851
G1 X192.25 Y111.75 E101.55637
G1 X192.25 Y147.25 E103.61936
G1 X188.85 Y147.25 E103.81697
G1 X188.85 Y181.85 E105.82800
G1 X186.25 Y181.85 E105.97911
G1 X186.25 Y193.25 E106.64171
G1 X114.75 Y193.25 E110.79709
G1 X114.75 Y181.25 E111.49455
G1 X112.75 Y181.25 E111.61080
G1 X112.75 Y113.75 E115.53369
G0 F12000 X113.22 Y114.22
G1 F1800 X133.22 Y114.22 E116.69619
G1 X133.22 Y112.22 E116.81243
G1 X191.78 Y112.22 E120.21612
G1 X191.78 Y146.78 E122.22493
G1 X188.38 Y146.78 E122.42255
G1 X188.38 Y181.38 E124.43357
G1 X185.78 Y181.38 E124.58469
G1 X185.78 Y192.78 E125.24728
G1 X115.22 Y192.78 E129.34849
G1 X115.22 Y180.78 E130.04596
G1 X113.22 Y180.78 E130.16220
G1 X113.22 Y114.22 E134.03093
G0 F12000 X113.69 Y114.69
G1 F1800 X133.69 Y114.69 E135.19343
G1 X133.69 Y112.69 E135.30967
G1 X191.31 Y112.69 E138.65919
G1 X191.31 Y146.31 E140.61383
G1 X187.91 Y146.31 E140.81145
G1 X187.91 Y180.91 E142.82247
G1 X185.31 Y180.91 E142.97359
G1 X185.31 Y192.31 E143.63618
G1 X115.69 Y192.31 E147.68322
G1 X115.69 Y180.31 E148.38069
G1 X113.69 Y180.31 E148.49693
G1 X113.69 Y114.69 E152.31148
G0 F12000 X114.15 Y115.15
G1 F1800 X134.15 Y115.15 E153.47398
G1 X134.15 Y113.15 E153.59023
G1 X190.85 Y113.15 E156.88558
G1 X190.85 Y145.85 E158.78605
G1 X186.85 Y145.85 E159.01854
G1 X186.85 Y146.55 E159.05934
G1 X187.45 Y146.55 E159.09421
G1 X187.45 Y180.45 E161.06444
G1 X184.85 Y180.45 E161.21555
G1 X184.85 Y191.85 E161.87815
G1 X116.15 Y191.85 E165.87102
G1 X116.15 Y179.85 E166.56848
G1 X114.15 Y179.85 E166.68473
G1 X114.15 Y115.15 E170.44511
G0 F12000 X114.62 Y115.62
G1 F1800 X134.62 Y115.62 E171.60761
G1 X134.62 Y113.62 E171.72385
G1 X190.38 Y113.62 E174.96503
G1 X190.38 Y145.38 E176.81134
G1 X186.38 Y145.38 E177.04383
G1 X186.38 Y147.02 E177.13880
G1 X186.98 Y147.02 E177.17367
G1 X186.98 Y179.98 E179.08972
G1 X184.38 Y179.98 E179.24084
G1 X184.38 Y191.38 E179.90343
G1 X116.62 Y191.38 E183.84213
G1 X116.62 Y179.38 E184.53960
G1 X114.62 Y179.38 E184.65584
G1 X114.62 Y115.62 E188.36206
G0 F12000 X115.08 Y116.08
G1 F1800 X135.08 Y116.08 E189.52456
G1 X135.08 Y114.08 E189.64080
G1 X189.92 Y114.08 E192.82781
G1 X189.92 Y144.92 E194.61995
G1 X185.92 Y144.92 E194.85243
G1 X185.92 Y147.48 E195.00157
G1 X186.52 Y147.48 E195.03645
G1 X186.52 Y179.52 E196.89833
G1 X183.92 Y179.52 E197.04945
G1 X183.92 Y190.92 E197.71204
G1 X117.08 Y190.92 E201.59657
G1 X117.08 Y178.92 E202.29404
G1 X115.08 Y178.92 E202.41028
G1 X115.08 Y116.08 E206.06232
G0 F12000 X115.55 Y116.55
G1 F1800 X135.55 Y116.55 E207.22482
G1 X135.55 Y114.55 E207.34107
G1 X189.45 Y114.55 E210.47391
G1 X189.45 Y144.45 E212.21187
G1 X185.45 Y144.45 E212.44436
G1 X185.45 Y147.95 E212.64767
G1 X186.05 Y147.95 E212.68255
G1 X186.05 Y179.05 E214.49026
G1 X183.45 Y179.05 E214.64138
G1 X183.45 Y190.45 E215.30397
G1 X117.55 Y190.45 E219.13433
G1 X117.55 Y178.45 E219.83179
G1 X115.55 Y178.45 E219.94804
G1 X115.55 Y116.55 E223.54591
G0 F12000 X116.02 Y117.02
G1 F1800 X136.02 Y117.02 E224.70841
G1 X136.02 Y115.02 E224.82466
G1 X188.99 Y115.02 E227.90333
G1 X188.99 Y143.99 E229.58712
G1 X184.99 Y143.99 E229.81961
G1 X184.99 Y148.41 E230.07709
G1 X185.59 Y148.41 E230.11196
G1 X185.59 Y178.59 E231.86551
G1 X182.99 Y178.59 E232.01663
G1 X182.99 Y189.99 E232.67922
G1 X118.02 Y189.99 E236.45541
G1 X118.02 Y177.99 E237.15287
G1 X116.02 Y177.99 E237.26912
G1 X116.02 Y117.02 E240.81282
G0 F12000 X116.48 Y117.48
G1 F1800 X136.48 Y117.48 E241.97532
G1 X136.48 Y115.48 E242.09157
G1 X188.52 Y115.48 E245.11606
G1 X188.52 Y143.52 E246.74569
G1 X184.52 Y143.52 E246.97818
G1 X184.52 Y148.88 E247.28983
G1 X185.12 Y148.88 E247.32470
G1 X185.12 Y178.12 E249.02408
G1 X182.52 Y178.12 E249.17519
G1 X182.52 Y189.52 E249.83779
G1 X118.48 Y189.52 E253.55981
G1 X118.48 Y177.52 E254.25727
G1 X116.48 Y177.52 E254.37352
G1 X116.48 Y117.48 E257.86305
G0 F12000 X116.95 Y117.95
G1 F1800 X136.95 Y117.95 E259.02555
G1 X136.95 Y115.95 E259.14180
G1 X188.05 Y115.95 E262.11213
G1 X188.05 Y143.05 E263.68758
G1 X184.05 Y143.05 E263.92007
G1 X184.05 Y149.35 E264.28589
G1 X184.65 Y149.35 E264.32076
G1 X184.65 Y177.65 E265.96597
G1 X182.05 Y177.65 E266.11709
G1 X182.05 Y189.05 E266.77968
G1 X118.95 Y189.05 E270.44753
G1 X118.95 Y177.05 E271.14499
G1 X116.95 Y177.05 E271.26124
G1 X116.95 Y117.95 E274.69660
G0 F12000 X117.41 Y118.41
G1 F1800 X137.41 Y118.41 E275.85910
G1 X137.41 Y116.41 E275.97535
G1 X187.59 Y116.41 E278.89151
G1 X187.59 Y142.59 E280.41279
G1 X183.59 Y142.59 E280.64528
G1 X183.59 Y149.81 E281.06527
G1 X184.19 Y149.81 E281.10015
G1 X184.19 Y177.19 E282.69118
G1 X181.59 Y177.19 E282.84230
G1 X181.59 Y188.59 E283.50489
G1 X119.41 Y188.59 E287.11857
G1 X119.41 Y176.59 E287.81604
G1 X117.41 Y176.59 E287.93228
G1 X117.41 Y118.41 E291.31347
G0 F12000 X117.88 Y118.88
G1 F1800 X137.88 Y118.88 E292.47597
G1 X137.88 Y116.88 E292.59222
G1 X187.12 Y116.88 E295.45421
G1 X187.12 Y142.12 E296.92133
G1 X183.12 Y142.12 E297.15381
G1 X183.12 Y150.28 E297.62797
G1 X183.72 Y150.28 E297.66285
G1 X183.72 Y176.72 E299.19971
G1 X181.12 Y176.72 E299.35083
G1 X181.12 Y188.12 E300.01342
G1 X119.88 Y188.12 E303.57293
G1 X119.88 Y176.12 E304.27040
G1 X117.88 Y176.12 E304.38664
G1 X117.88 Y118.88 E307.71367
G0 F12000 X118.34 Y119.34
G1 F1800 X138.35 Y119.34 E308.87617
G1 X138.35 Y117.34 E308.99241
G1 X186.66 Y117.34 E311.80023
G1 X186.66 Y141.66 E313.21318
G1 X182.66 Y141.66 E313.44567
G1 X182.66 Y150.75 E313.97400
G1 X183.25 Y150.75 E314.00887
G1 X183.25 Y176.25 E315.49157
G1 X180.66 Y176.25 E315.64268
G1 X180.66 Y187.66 E316.30527
G1 X120.34 Y187.66 E319.81062
G1 X120.34 Y175.66 E320.50808
G1 X118.34 Y175.66 E320.62433
G1 X118.34 Y119.34 E323.89718
G0 F12000 X118.81 Y119.81
G1 F1800 X138.81 Y119.81 E325.05968
G1 X138.81 Y117.81 E325.17593
G1 X186.19 Y117.81 E327.92958
G1 X186.19 Y141.19 E329.28835
G1 X182.19 Y141.19 E329.52084
G1 X182.19 Y151.21 E330.10334
G1 X182.79 Y151.21 E330.13821
G1 X182.79 Y175.79 E331.56674
G1 X180.19 Y175.79 E331.71786
G1 X180.19 Y187.19 E332.38045
G1 X120.81 Y187.19 E335.83162
G1 X120.81 Y175.19 E336.52909
G1 X118.81 Y175.19 E336.64533
G1 X118.81 Y119.81 E339.86402
G0 F12000 X119.28 Y120.28
G1 F1800 X139.28 Y120.28 E341.02652
G1 X139.28 Y118.28 E341.14276
G1 X185.72 Y118.28 E343.84224
G1 X185.72 Y140.72 E345.14685
G1 X181.72 Y140.72 E345.37934
G1 X181.72 Y151.68 E346.01601
G1 X182.32 Y151.68 E346.05088
G1 X182.32 Y175.32 E347.42523
G1 X179.72 Y175.32 E347.57635
G1 X179.72 Y186.72 E348.23894
G1 X121.28 Y186.72 E351.63595
G1 X121.28 Y174.72 E352.33341
G1 X119.28 Y174.72 E352.44966
G1 X119.28 Y120.28 E355.61417
G0 F12000 X119.74 Y120.74
G1 F1800 X139.74 Y120.74 E356.77667
G1 X139.74 Y118.74 E356.89291
G1 X185.26 Y118.74 E359.53823
G1 X185.26 Y140.26 E360.78866
G1 X181.26 Y140.26 E361.02115
G1 X181.26 Y152.14 E361.71199
G1 X181.86 Y152.14 E361.74686
G1 X181.86 Y174.86 E363.06705
G1 X179.26 Y174.86 E363.21817
G1 X179.26 Y186.26 E363.88076
G1 X121.74 Y186.26 E367.22359
G1 X121.74 Y174.26 E367.92106
G1 X119.74 Y174.26 E368.03730
G1 X119.74 Y120.74 E371.14765
G0 F12000 X120.21 Y121.21
G1 F1800 X140.21 Y121.21 E372.31015
G1 X140.21 Y119.21 E372.42639
G1 X184.79 Y119.21 E375.01753
G1 X184.79 Y139.79 E376.21380
G1 X180.79 Y139.79 E376.44629
G1 X180.79 Y152.61 E377.19130
G1 X181.39 Y152.61 E377.22617
G1 X181.39 Y174.39 E378.49219
G1 X178.79 Y174.39 E378.64330
G1 X178.79 Y185.79 E379.30590
G1 X122.21 Y185.79 E382.59456
G1 X122.21 Y173.79 E383.29202
G1 X120.21 Y173.79 E383.40827
G1 X120.21 Y121.21 E386.46444
G0 F12000 X120.67 Y121.67
G1 F1800 X140.68 Y121.67 E387.62694
G1 X140.68 Y119.67 E387.74319
G1 X184.32 Y119.67 E390.28016
G1 X184.32 Y139.32 E391.42226
G1 X180.32 Y139.32 E391.65475
G1 X180.32 Y153.07 E392.45393
G1 X180.93 Y153.07 E392.48880
G1 X180.93 Y173.93 E393.70064
G1 X178.32 Y173.93 E393.85176
G1 X178.32 Y185.32 E394.51435
G1 X122.67 Y185.32 E397.74885
G1 X122.67 Y173.32 E398.44631
G1 X120.67 Y173.32 E398.56256
G1 X120.67 Y121.67 E401.56456
G0 F12000 X121.14 Y122.14
G1 F1800 X141.14 Y122.14 E402.72706
G1 X141.14 Y120.14 E402.84331
G1 X183.86 Y120.14 E405.32611
G1 X183.86 Y138.86 E406.41404
G1 X179.86 Y138.86 E406.64652
G1 X179.86 Y153.54 E407.49987
G1 X180.46 Y153.54 E407.53475
G1 X180.46 Y173.46 E408.69242
G1 X177.86 Y173.46 E408.84354
G1 X177.86 Y184.86 E409.50613
G1 X123.14 Y184.86 E412.68646
G1 X123.14 Y172.86 E413.38392
G1 X121.14 Y172.86 E413.50017
G1 X121.14 Y122.14 E416.44800
G0 F12000 X121.61 Y122.61
G1 F1800 X141.61 Y122.61 E417.61050
G1 X141.61 Y120.61 E417.72674
G1 X183.39 Y120.61 E420.15538
G1 X183.39 Y138.39 E421.18914
G1 X175.39 Y138.39 E421.65411
G1 X175.39 Y138.61 E421.66655
G1 X179.39 Y138.61 E421.89904
G1 X179.39 Y154.01 E422.79412
G1 X179.99 Y154.01 E422.82899
G1 X179.99 Y172.99 E423.93250
G1 X177.39 Y172.99 E424.08362
G1 X177.39 Y184.39 E424.74621
G1 X123.61 Y184.39 E427.87236
G1 X123.61 Y172.39 E428.56983
G1 X121.61 Y172.39 E428.68607
G1 X121.61 Y122.61 E431.57974
G0 F12000 X122.07 Y123.07
G1 F1800 X142.07 Y123.07 E432.74224
G1 X142.07 Y121.07 E432.85848
G1 X182.93 Y121.07 E435.23294
G1 X182.93 Y137.93 E436.21253
G1 X174.93 Y137.93 E436.67751
G1 X174.93 Y139.07 E436.74412
G1 X178.93 Y139.07 E436.97661
G1 X178.93 Y154.47 E437.87169
G1 X179.53 Y154.47 E437.90656
G1 X179.53 Y172.53 E438.95590
G1 X176.93 Y172.53 E439.10701
G1 X176.93 Y183.93 E439.76960
G1 X124.07 Y183.93 E442.84159
G1 X124.07 Y171.93 E443.53905
G1 X122.07 Y171.93 E443.65530
G1 X122.07 Y123.07 E446.49479
G0 F12000 X122.54 Y123.54
G1 F1800 X142.54 Y123.54 E447.65729
G1 X142.54 Y121.54 E447.77354
G1 X182.46 Y121.54 E450.09383
G1 X182.46 Y137.46 E451.01925
G1 X174.46 Y137.46 E451.48423
G1 X174.46 Y139.54 E451.60500
G1 X178.46 Y139.54 E451.83749
G1 X178.46 Y154.94 E452.73257
G1 X179.06 Y154.94 E452.76745
G1 X179.06 Y172.06 E453.76261
G1 X176.46 Y172.06 E453.91373
G1 X176.46 Y183.46 E454.57632
G1 X124.54 Y183.46 E457.59414
G1 X124.54 Y171.46 E458.29160
G1 X122.54 Y171.46 E458.40785
G1 X122.54 Y123.54 E461.19317
G0 F12000 X123.00 Y124.00
G1 F1800 X143.01 Y124.00 E462.35567
G1 X143.01 Y122.00 E462.47192
G1 X182.00 Y122.00 E464.73804
G1 X182.00 Y137.00 E465.60929
G1 X174.00 Y137.00 E466.07427
G1 X174.00 Y140.00 E466.24921
G1 X178.00 Y140.00 E466.48170
G1 X178.00 Y155.41 E467.37678
G1 X178.59 Y155.41 E467.41165
G1 X178.59 Y171.59 E468.35265
G1 X176.00 Y171.59 E468.50377
G1 X176.00 Y183.00 E469.16636
G1 X125.00 Y183.00 E472.13001
G1 X125.00 Y171.00 E472.82747
G1 X123.00 Y171.00 E472.94371
G1 X123.00 Y124.00 E475.67487
G0 F12000 X123.47 Y124.47
G1 F1800 X143.47 Y124.47 E476.83737
G1 X143.47 Y122.47 E476.95362
G1 X181.53 Y122.47 E479.16557
G1 X181.53 Y136.53 E479.98265
G1 X173.53 Y136.53 E480.44762
G1 X173.53 Y140.47 E480.67674
G1 X177.53 Y140.47 E480.90923
G1 X177.53 Y155.87 E481.80431
G1 X178.13 Y155.87 E481.83918
G1 X178.13 Y171.13 E482.72601
G1 X175.53 Y171.13 E482.87713
G1 X175.53 Y182.53 E483.53972
G1 X125.47 Y182.53 E486.44920
G1 X125.47 Y170.53 E487.14666
G1 X123.47 Y170.53 E487.26290
G1 X123.47 Y124.47 E489.93989
G0 F12000 X123.94 Y124.94
G1 F1800 X143.94 Y124.94 E491.10239
G1 X143.94 Y122.94 E491.21864
G1 X181.06 Y122.94 E493.37642
G1 X181.06 Y136.06 E494.13933
G1 X173.06 Y136.06 E494.60431
G1 X173.06 Y140.94 E494.88759
G1 X177.06 Y140.94 E495.12008
G1 X177.06 Y156.34 E496.01516
G1 X177.66 Y156.34 E496.05003
G1 X177.66 Y170.66 E496.88269
G1 X175.06 Y170.66 E497.03381
G1 X175.06 Y182.06 E497.69640
G1 X125.94 Y182.06 E500.55171
G1 X125.94 Y170.06 E501.24917
G1 X123.94 Y170.06 E501.36541
G1 X123.94 Y124.94 E503.98823
G0 F12000 X124.40 Y125.40
G1 F1800 X144.40 Y125.40 E505.15073
G1 X144.40 Y123.40 E505.26698
G1 X180.60 Y123.40 E507.37059
G1 X180.60 Y135.60 E508.07933
G1 X172.60 Y135.60 E508.54431
G1 X172.60 Y141.40 E508.88176
G1 X176.60 Y141.40 E509.11425
G1 X176.60 Y156.80 E510.00933
G1 X177.20 Y156.80 E510.04420
G1 X177.20 Y170.20 E510.82269
G1 X174.60 Y170.20 E510.97381
G1 X174.60 Y181.60 E511.63640
G1 X126.40 Y181.60 E514.43754
G1 X126.40 Y169.60 E515.13500
G1 X124.40 Y169.60 E515.25125
G1 X124.40 Y125.40 E517.81989
G0 F12000 X124.87 Y125.87
G1 F1800 X144.87 Y125.87 E518.98239
G1 X144.87 Y123.87 E519.09864
G1 X180.13 Y123.87 E521.14808
G1 X180.13 Y135.13 E521.80265
G1 X172.13 Y135.13 E522.26763
G1 X172.13 Y141.87 E522.65925
G1 X176.13 Y141.87 E522.89174
G1 X176.13 Y157.27 E523.78682
G1 X176.73 Y157.27 E523.82170
G1 X176.73 Y169.73 E524.54601
G1 X166.13 Y169.73 E525.16211
G1 X166.13 Y169.87 E525.17013
G1 X174.13 Y169.87 E525.63511
G1 X174.13 Y181.13 E526.28968
G1 X154.87 Y181.13 E527.40922
G1 X154.87 Y171.13 E527.99044
G1 X154.13 Y171.13 E528.03334
G1 X154.13 Y181.13 E528.61456
G1 X126.87 Y181.13 E530.19908
G1 X126.87 Y169.87 E530.85366
G1 X134.87 Y169.87 E531.31863
G1 X134.87 Y169.13 E531.36153
G1 X124.87 Y169.13 E531.94275
G1 X124.87 Y125.87 E534.45722
G0 F12000 X125.33 Y126.33
G1 F1800 X145.34 Y126.33 E535.61972
G1 X145.34 Y124.33 E535.73597
G1 X179.66 Y124.33 E537.73124
G1 X179.66 Y134.66 E538.33164
G1 X171.66 Y134.66 E538.79662
G1 X171.66 Y142.34 E539.24242
G1 X175.66 Y142.34 E539.47490
G1 X175.66 Y157.74 E540.36998
G1 X176.26 Y157.74 E540.40486
G1 X176.26 Y169.26 E541.07501
G1 X165.66 Y169.26 E541.69110
G1 X165.66 Y170.34 E541.75329
G1 X173.66 Y170.34 E542.21827
G1 X173.66 Y180.66 E542.81867
G1 X155.34 Y180.66 E543.88405
G1 X155.34 Y170.66 E544.46527
G1 X153.66 Y170.66 E544.56233
G1 X153.66 Y180.66 E545.14355
G1 X127.33 Y180.66 E546.67391
G1 X127.33 Y170.34 E547.27431
G1 X135.34 Y170.34 E547.73928
G1 X135.34 Y168.66 E547.83635
G1 X125.33 Y168.66 E548.41757
G1 X125.33 Y126.33 E550.87788
G0 F12000 X125.80 Y126.80
G1 F1800 X135.20 Y126.80 E551.42411
G1 X135.20 Y168.20 E553.83025
G1 X125.80 Y168.20 E554.37648
G1 X125.80 Y126.80 E556.78262
G0 F12000 X126.27 Y127.27
G1 F1800 X134.73 Y127.27 E557.27468
G1 X134.73 Y167.73 E559.62665
G1 X126.27 Y167.73 E560.11871
G1 X126.27 Y127.27 E562.47067
G0 F12000 X135.80 Y126.80
G1 F1800 X145.20 Y126.80 E563.01696
G1 X145.20 Y134.80 E563.48194
G1 X161.20 Y134.80 E564.41184
G1 X161.20 Y144.20 E564.95807
G1 X145.20 Y144.20 E565.88796
G1 X145.20 Y152.20 E566.35294
G1 X135.80 Y152.20 E566.89923
G1 X135.80 Y126.80 E568.37541
G0 F12000 X136.27 Y127.27
G1 F1800 X144.73 Y127.27 E568.86753
G1 X144.73 Y135.27 E569.33251
G1 X160.73 Y135.27 E570.26241
G1 X160.73 Y143.73 E570.75447
G1 X144.73 Y143.73 E571.68436
G1 X144.73 Y151.73 E572.14934
G1 X136.27 Y151.73 E572.64146
G1 X136.27 Y127.27 E574.06347
G0 F12000 X145.80 Y124.80
G1 F1800 X179.20 Y124.80 E576.00458
G1 X179.20 Y134.20 E576.55081
G1 X171.20 Y134.20 E577.01579
G1 X171.20 Y142.20 E577.48076
G1 X161.80 Y142.20 E578.02699
G1 X161.80 Y134.20 E578.49197
G1 X145.80 Y134.20 E579.42187
G1 X145.80 Y124.80 E579.96810
G0 F12000 X146.27 Y125.27
G1 F1800 X178.73 Y125.27 E581.85503
G1 X178.73 Y133.73 E582.34709
G1 X170.73 Y133.73 E582.81207
G1 X170.73 Y141.73 E583.27704
G1 X162.27 Y141.73 E583.76911
G1 X162.27 Y133.73 E584.23408
G1 X146.27 Y133.73 E585.16398
G1 X146.27 Y125.27 E585.65604
G0 F12000 X145.80 Y144.80
G1 F1800 X163.20 Y144.80 E586.66725
G1 X163.20 Y154.20 E587.21348
G1 X155.20 Y154.20 E587.67846
G1 X155.20 Y170.20 E588.60841
G1 X145.80 Y170.20 E589.15464
G1 X145.80 Y162.20 E589.61962
G1 X137.80 Y162.20 E590.08459
G1 X137.80 Y152.80 E590.63083
G1 X145.80 Y152.80 E591.09580
G1 X145.80 Y144.80 E591.56078
G0 F12000 X146.27 Y145.27
G1 F1800 X162.73 Y145.27 E592.51782
G1 X162.73 Y153.73 E593.00988
G1 X154.73 Y153.73 E593.47486
G1 X154.73 Y169.73 E594.40481
G1 X146.27 Y169.73 E594.89687
G1 X146.27 Y161.73 E595.36185
G1 X138.27 Y161.73 E595.82682
G1 X138.27 Y153.27 E596.31889
G1 X146.27 Y153.27 E596.78386
G1 X146.27 Y145.27 E597.24884
G0 F12000 X155.80 Y154.80
G1 F1800 X165.20 Y154.80 E597.79507
G1 X165.20 Y158.20 E597.99269
G1 X165.80 Y158.20 E598.02767
G1 X165.80 Y142.80 E598.92275
G1 X175.20 Y142.80 E599.46899
G1 X175.20 Y158.20 E600.36407
G1 X175.80 Y158.20 E600.39894
G1 X175.80 Y168.80 E601.01492
G1 X165.20 Y168.80 E601.63101
G1 X165.20 Y170.80 E601.74737
G1 X173.20 Y170.80 E602.21235
G1 X173.20 Y180.20 E602.75858
G1 X155.80 Y180.20 E603.76979
G1 X155.80 Y154.80 E605.24597
G0 F12000 X156.27 Y155.27
G1 F1800 X164.73 Y155.27 E605.73803
G1 X164.73 Y171.27 E606.66799
G1 X172.73 Y171.27 E607.13296
G1 X172.73 Y179.73 E607.62503
G1 X156.27 Y179.73 E608.58206
G1 X156.27 Y155.27 E610.00408
G0 F12000 X163.66 Y154.34
G1 F1800 X165.34 Y154.34 E610.10114
G1 X165.34 Y142.66 E610.77943
G1 X161.66 Y142.66 E610.99274
G1 X161.66 Y144.34 E611.08980
G1 X163.66 Y144.34 E611.20604
G1 X163.66 Y154.34 E611.78726
G0 F12000 X165.57 Y158.67
G1 F1800 X166.27 Y158.67 E611.82795
G1 X166.27 Y143.27 E612.72303
G1 X174.73 Y143.27 E613.21509
G1 X174.73 Y158.67 E614.11017
G1 X175.33 Y158.67 E614.14505
G1 X175.33 Y168.33 E614.70685
G1 X165.57 Y168.33 E615.27447
G1 X165.57 Y158.67 E615.83628
G0 F12000 X152.73 Y171.27
G1 F1800 X152.73 Y179.73 E616.32834
G1 X128.27 Y179.73 E617.75036
G1 X128.27 Y171.27 E618.24242
G1 X136.27 Y171.27 E618.70740
G1 X136.27 Y163.27 E619.17237
G1 X144.73 Y163.27 E619.66444
G1 X144.73 Y171.27 E620.12941
G1 X152.73 Y171.27 E620.59439
G0 F12000 X153.20 Y170.80
G1 F1800 X153.20 Y180.20 E621.14062
G1 X127.80 Y180.20 E622.61680
G1 X127.80 Y170.80 E623.16304
G1 X135.80 Y170.80 E623.62801
G1 X135.80 Y162.80 E624.09299
G1 X145.20 Y162.80 E624.63922
G1 X145.20 Y170.80 E625.10420
G1 X153.20 Y170.80 E625.56917
G1 F2400 E624.36917
G0 F12000 X133.34 Y166.34
;TYPE:WALL-INNER
G1 F2400 E625.56917
G1 F1800 X127.67 Y166.34 E625.89873
G1 X127.67 Y128.66 E628.08819
G1 X133.34 Y128.66 E628.41774
G1 X133.34 Y166.34 E630.60720
G0 F12000 X133.80 Y166.80
G1 F1800 X127.20 Y166.80 E630.99092
G1 X127.20 Y128.20 E633.23455
G1 X133.80 Y128.20 E633.61827
G1 X133.80 Y166.80 E635.86190
G0 F12000 X134.27 Y167.27
;TYPE:WALL-OUTER
G1 F1800 X126.73 Y167.27 E636.29979
G1 X126.73 Y127.73 E638.59759
G1 X134.27 Y127.73 E639.03548
G1 X134.27 Y167.27 E641.33328
G0 F12000 X133.93 Y167.02
G0 X132.89 Y166.17
;TYPE:FILL
G1 F1800 X127.83 Y161.11 E641.74928
G0 F12000 X127.83 Y161.77
G1 F1800 X132.23 Y166.17 E642.11111
G0 F12000 X131.57 Y166.17
G1 F1800 X127.83 Y162.43 E642.41877
G0 F12000 X127.83 Y163.09
G1 F1800 X130.91 Y166.17 E642.67227
G0 F12000 X130.25 Y166.17
G1 F1800 X127.83 Y163.75 E642.87160
G0 F12000 X127.83 Y164.40
G1 F1800 X129.59 Y166.17 E643.01676
G0 F12000 X128.94 Y166.17
G1 F1800 X127.83 Y165.06 E643.10775
G0 F12000 X127.83 Y165.72
G1 F1800 X128.28 Y166.17 E643.14457
G0 F12000 X133.17 Y165.79
G1 F1800 X127.83 Y160.45 E643.58367
G0 F12000 X127.83 Y159.79
G1 F1800 X133.17 Y165.13 E644.02277
G0 F12000 X133.17 Y164.47
G1 F1800 X127.83 Y159.13 E644.46186
G0 F12000 X127.83 Y158.47
G1 F1800 X133.17 Y163.81 E644.90096
G0 F12000 X133.17 Y163.16
G1 F1800 X127.83 Y157.81 E645.34006
G0 F12000 X127.83 Y157.16
G1 F1800 X133.17 Y162.50 E645.77915
G0 F12000 X133.17 Y161.84
G1 F1800 X127.83 Y156.50 E646.21825
G0 F12000 X127.83 Y155.84
G1 F1800 X133.17 Y161.18 E646.65735
G0 F12000 X133.17 Y160.52
G1 F1800 X127.83 Y155.18 E647.09644
G0 F12000 X127.83 Y154.52
G1 F1800 X133.17 Y159.86 E647.53554
G0 F12000 X133.17 Y159.20
G1 F1800 X127.83 Y153.86 E647.97464
G0 F12000 X127.83 Y153.20
G1 F1800 X133.17 Y158.54 E648.41373
G0 F12000 X133.17 Y157.88
G1 F1800 X127.83 Y152.54 E648.85283
G0 F12000 X127.83 Y151.88
G1 F1800 X133.17 Y157.22 E649.29193
G0 F12000 X133.17 Y156.57
G1 F1800 X127.83 Y151.22 E649.73106
G0 F12000 X127.83 Y150.56
G1 F1800 X133.17 Y155.91 E650.17020
G0 F12000 X133.17 Y155.25
G1 F1800 X127.83 Y149.91 E650.60934
G0 F12000 X127.83 Y149.25
G1 F1800 X133.17 Y154.59 E651.04848
G0 F12000 X133.17 Y153.93
G1 F1800 X127.83 Y148.59 E651.48761
G0 F12000 X127.83 Y147.93
G1 F1800 X133.17 Y153.27 E651.92675
G0 F12000 X133.17 Y152.61
G1 F1800 X127.83 Y147.27 E652.36589
G0 F12000 X127.83 Y146.61
G1 F1800 X133.17 Y151.95 E652.80503
G0 F12000 X133.17 Y151.29
G1 F1800 X127.83 Y145.95 E653.24412
G0 F12000 X127.83 Y145.29
G1 F1800 X133.17 Y150.63 E653.68322
G0 F12000 X133.17 Y149.97
G1 F1800 X127.83 Y144.63 E654.12232
G0 F12000 X127.83 Y143.97
G1 F1800 X133.17 Y149.32 E654.56141
G0 F12000 X133.17 Y148.66
G1 F1800 X127.83 Y143.31 E655.00051
G0 F12000 X127.83 Y142.66
G1 F1800 X133.17 Y148.00 E655.43961
G0 F12000 X133.17 Y147.34
G1 F1800 X127.83 Y142.00 E655.87870
G0 F12000 X127.83 Y141.34
G1 F1800 X133.17 Y146.68 E656.31780
G0 F12000 X133.17 Y146.02
G1 F1800 X127.83 Y140.68 E656.75690
G0 F12000 X127.83 Y140.02
G1 F1800 X133.17 Y145.36 E657.19599
G0 F12000 X133.17 Y144.70
G1 F1800 X127.83 Y139.36 E657.63509
G0 F12000 X127.83 Y138.70
G1 F1800 X133.17 Y144.04 E658.07419
G0 F12000 X133.17 Y143.38
G1 F1800 X127.83 Y138.04 E658.51328
G0 F12000 X127.83 Y137.38
G1 F1800 X133.17 Y142.73 E658.95238
G0 F12000 X133.17 Y142.07
G1 F1800 X127.83 Y136.72 E659.39148
G0 F12000 X127.83 Y136.07
G1 F1800 X133.17 Y141.41 E659.83057
G0 F12000 X133.17 Y140.75
G1 F1800 X127.83 Y135.41 E660.26967
G0 F12000 X127.83 Y134.75
G1 F1800 X133.17 Y140.09 E660.70877
G0 F12000 X133.17 Y139.43
G1 F1800 X127.83 Y134.09 E661.14786
G0 F12000 X127.83 Y133.43
G1 F1800 X133.17 Y138.77 E661.58696
G0 F12000 X133.17 Y138.11
G1 F1800 X127.83 Y132.77 E662.02606
G0 F12000 X127.83 Y132.11
G1 F1800 X133.17 Y137.45 E662.46515
G0 F12000 X133.17 Y136.79
G1 F1800 X127.83 Y131.45 E662.90425
G0 F12000 X127.83 Y130.79
G1 F1800 X133.17 Y136.14 E663.34335
G0 F12000 X133.17 Y135.48
G1 F1800 X127.83 Y130.13 E663.78244
G0 F12000 X127.83 Y129.48
G1 F1800 X133.17 Y134.82 E664.22154
G0 F12000 X133.17 Y134.16
G1 F1800 X127.84 Y128.83 E664.65973
G0 F12000 X128.50 Y128.83
G1 F1800 X133.17 Y133.50 E665.04376
G0 F12000 X133.17 Y132.84
G1 F1800 X129.16 Y128.83 E665.37357
G0 F12000 X129.82 Y128.83
G1 F1800 X133.17 Y132.18 E665.64922
G0 F12000 X133.17 Y131.52
G1 F1800 X130.48 Y128.83 E665.87070
G0 F12000 X131.13 Y128.83
G1 F1800 X133.17 Y130.86 E666.03801
G0 F12000 X133.17 Y130.21
G1 F1800 X131.79 Y128.83 E666.15115
G0 F12000 X132.45 Y128.83
G1 F1800 X133.17 Y129.55 E666.21013
G1 F2400 E665.01013
G0 F12000 X137.66 Y128.66
;TYPE:WALL-INNER
G1 F2400 E666.21013
G1 F1800 X143.34 Y128.66 E666.53974
G1 X143.34 Y136.66 E667.00472
G1 X159.34 Y136.66 E667.93461
G1 X159.34 Y142.34 E668.26417
G1 X143.34 Y142.34 E669.19406
G1 X143.34 Y150.34 E669.65904
G1 X137.66 Y150.34 E669.98865
G1 X137.66 Y128.66 E671.24815
G0 F12000 X137.20 Y128.20
G1 F1800 X143.80 Y128.20 E671.63193
G1 X143.80 Y136.20 E672.09691
G1 X159.80 Y136.20 E673.02681
G1 X159.80 Y142.80 E673.41053
G1 X143.80 Y142.80 E674.34042
G1 X143.80 Y150.80 E674.80540
G1 X137.20 Y150.80 E675.18918
G1 X137.20 Y128.20 E676.50286
G0 F12000 X136.73 Y127.73
;TYPE:WALL-OUTER
G1 F1800 X144.27 Y127.73 E676.94081
G1 X144.27 Y135.73 E677.40578
G1 X160.27 Y135.73 E678.33568
G1 X160.27 Y143.27 E678.77357
G1 X144.27 Y143.27 E679.70346
G1 X144.27 Y151.27 E680.16844
G1 X136.73 Y151.27 E680.60639
G1 X136.73 Y127.73 E681.97424
G0 F12000 X137.07 Y127.98
G0 X137.83 Y128.93
;TYPE:FILL
G1 F1800 X143.17 Y134.27 E682.41346
G0 F12000 X143.17 Y134.93
G1 F1800 X137.83 Y129.59 E682.85268
G0 F12000 X137.83 Y130.25
G1 F1800 X143.17 Y135.59 E683.29190
G0 F12000 X143.17 Y136.25
G1 F1800 X137.83 Y130.91 E683.73112
G0 F12000 X137.83 Y131.57
G1 F1800 X148.43 Y142.17 E684.60269
G0 F12000 X147.77 Y142.17
G1 F1800 X137.83 Y132.23 E685.42010
G0 F12000 X137.83 Y132.88
G1 F1800 X147.11 Y142.17 E686.18334
G0 F12000 X146.45 Y142.17
G1 F1800 X137.83 Y133.54 E686.89241
G0 F12000 X137.83 Y134.20
G1 F1800 X145.79 Y142.17 E687.54732
G0 F12000 X145.14 Y142.17
G1 F1800 X137.83 Y134.86 E688.14806
G0 F12000 X137.83 Y135.52
G1 F1800 X144.48 Y142.17 E688.69463
G0 F12000 X143.82 Y142.17
G1 F1800 X137.83 Y136.18 E689.18703
G0 F12000 X137.83 Y136.84
G1 F1800 X143.17 Y142.18 E689.62625
G0 F12000 X143.17 Y142.84
G1 F1800 X137.83 Y137.50 E690.06547
G0 F12000 X137.83 Y138.16
G1 F1800 X143.17 Y143.50 E690.50469
G0 F12000 X143.17 Y144.16
G1 F1800 X137.83 Y138.82 E690.94391
G0 F12000 X137.83 Y139.47
G1 F1800 X143.17 Y144.82 E691.38317
G0 F12000 X143.17 Y145.48
G1 F1800 X137.83 Y140.13 E691.82243
G0 F12000 X137.83 Y140.79
G1 F1800 X143.17 Y146.14 E692.26169
G0 F12000 X143.17 Y146.80
G1 F1800 X137.83 Y141.45 E692.70095
G0 F12000 X137.83 Y142.11
G1 F1800 X143.17 Y147.46 E693.14021
G0 F12000 X143.17 Y148.11
G1 F1800 X137.83 Y142.77 E693.57947
G0 F12000 X137.83 Y143.43
G1 F1800 X143.17 Y148.77 E694.01873
G0 F12000 X143.17 Y149.43
G1 F1800 X137.83 Y144.09 E694.45799
G0 F12000 X137.83 Y144.75
G1 F1800 X143.17 Y150.09 E694.89726
G0 F12000 X142.59 Y150.17
G1 F1800 X137.83 Y145.41 E695.28884
G0 F12000 X137.83 Y146.06
G1 F1800 X141.93 Y150.17 E695.62626
G0 F12000 X141.27 Y150.17
G1 F1800 X137.83 Y146.72 E695.90951
G0 F12000 X137.83 Y147.38
G1 F1800 X140.61 Y150.17 E696.13859
G0 F12000 X139.96 Y150.17
G1 F1800 X137.83 Y148.04 E696.31351
G0 F12000 X137.83 Y148.70
G1 F1800 X139.30 Y150.17 E696.43426
G0 F12000 X138.64 Y150.17
G1 F1800 X137.83 Y149.36 E696.50084
G0 F12000 X137.83 Y150.02
G1 F1800 X137.98 Y150.17 E696.51325
G0 F12000 X143.89 Y142.89
G0 X149.09 Y142.17
G1 F1800 X143.75 Y136.83 E696.95235
G0 F12000 X144.41 Y136.83
G1 F1800 X149.75 Y142.17 E697.39144
G0 F12000 X150.41 Y142.17
G1 F1800 X145.07 Y136.83 E697.83054
G0 F12000 X145.72 Y136.83
G1 F1800 X151.07 Y142.17 E698.26964
G0 F12000 X151.73 Y142.17
G1 F1800 X146.38 Y136.83 E698.70873
G0 F12000 X147.04 Y136.83
G1 F1800 X152.38 Y142.17 E699.14783
G0 F12000 X153.04 Y142.17
G1 F1800 X147.70 Y136.83 E699.58693
G0 F12000 X148.36 Y136.83
G1 F1800 X153.70 Y142.17 E700.02602
G0 F12000 X154.36 Y142.17
G1 F1800 X149.02 Y136.83 E700.46512
G0 F12000 X149.68 Y136.83
G1 F1800 X155.02 Y142.17 E700.90421
G0 F12000 X155.68 Y142.17
G1 F1800 X150.34 Y136.83 E701.34331
G0 F12000 X151.00 Y136.83
G1 F1800 X156.34 Y142.17 E701.78241
G0 F12000 X157.00 Y142.17
G1 F1800 X151.66 Y136.83 E702.22150
G0 F12000 X152.31 Y136.83
G1 F1800 X157.66 Y142.17 E702.66060
G0 F12000 X158.32 Y142.17
G1 F1800 X152.97 Y136.83 E703.09970
G0 F12000 X153.63 Y136.83
G1 F1800 X158.97 Y142.17 E703.53879
G0 F12000 X159.17 Y141.71
G1 F1800 X154.29 Y136.83 E703.93975
G0 F12000 X154.95 Y136.83
G1 F1800 X159.17 Y141.05 E704.28654
G0 F12000 X159.17 Y140.39
G1 F1800 X155.61 Y136.83 E704.57916
G0 F12000 X156.27 Y136.83
G1 F1800 X159.17 Y139.73 E704.81762
G0 F12000 X159.17 Y139.07
G1 F1800 X156.93 Y136.83 E705.00190
G0 F12000 X157.59 Y136.83
G1 F1800 X159.17 Y138.41 E705.13202
G0 F12000 X159.17 Y137.75
G1 F1800 X158.25 Y136.83 E705.20797
G0 F12000 X158.91 Y136.83
G1 F1800 X159.17 Y137.09 E705.22975
G0 F12000 X143.89 Y136.11
G0 X143.17 Y133.62
G1 F1800 X138.38 Y128.83 E705.62315
G0 F12000 X139.04 Y128.83
G1 F1800 X143.17 Y132.96 E705.96237
G0 F12000 X143.17 Y132.30
G1 F1800 X139.70 Y128.83 E706.24743
G0 F12000 X140.36 Y128.83
G1 F1800 X143.17 Y131.64 E706.47833
G0 F12000 X143.17 Y130.98
G1 F1800 X141.02 Y128.83 E706.65505
G0 F12000 X141.68 Y128.83
G1 F1800 X143.17 Y130.32 E706.77760
G0 F12000 X143.17 Y129.66
G1 F1800 X142.34 Y128.83 E706.84599
G0 F12000 X143.00 Y128.83
G1 F1800 X143.17 Y129.00 E706.86021
G1 F2400 E705.66021
G0 F12000 X147.67 Y126.67
;TYPE:WALL-INNER
G1 F2400 E706.86021
G1 F1800 X177.34 Y126.67 E708.58464
G1 X177.34 Y132.34 E708.91419
G1 X169.34 Y132.34 E709.37917
G1 X169.34 Y140.34 E709.84414
G1 X163.66 Y140.34 E710.17369
G1 X163.66 Y132.34 E710.63867
G1 X147.67 Y132.34 E711.56857
G1 X147.67 Y126.67 E711.89812
G0 F12000 X147.20 Y126.20
G1 F1800 X177.80 Y126.20 E713.67671
G1 X177.80 Y132.80 E714.06043
G1 X169.80 Y132.80 E714.52541
G1 X169.80 Y140.80 E714.99039
G1 X163.20 Y140.80 E715.37411
G1 X163.20 Y132.80 E715.83909
G1 X147.20 Y132.80 E716.76898
G1 X147.20 Y126.20 E717.15270
G0 F12000 X146.73 Y125.73
;TYPE:WALL-OUTER
G1 F1800 X178.27 Y125.73 E718.98547
G1 X178.27 Y133.27 E719.42336
G1 X170.27 Y133.27 E719.88834
G1 X170.27 Y141.27 E720.35331
G1 X162.73 Y141.27 E720.79120
G1 X162.73 Y133.27 E721.25618
G1 X146.73 Y133.27 E722.18608
G1 X146.73 Y125.73 E722.62397
G0 F12000 X147.07 Y125.98
G0 X147.83 Y127.07
;TYPE:FILL
G1 F1800 X152.93 Y132.17 E723.04326
G0 F12000 X152.27 Y132.17
G1 F1800 X147.83 Y127.73 E723.40837
G0 F12000 X147.83 Y128.39
G1 F1800 X151.61 Y132.17 E723.71933
G0 F12000 X150.95 Y132.17
G1 F1800 X147.83 Y129.05 E723.97611
G0 F12000 X147.83 Y129.71
G1 F1800 X150.29 Y132.17 E724.17868
G0 F12000 X149.63 Y132.17
G1 F1800 X147.83 Y130.37 E724.32709
G0 F12000 X147.83 Y131.02
G1 F1800 X148.98 Y132.17 E724.42133
G0 F12000 X148.32 Y132.17
G1 F1800 X147.83 Y131.68 E724.46140
G0 F12000 X148.25 Y126.83
G1 F1800 X153.59 Y132.17 E724.90046
G0 F12000 X154.25 Y132.17
G1 F1800 X148.91 Y126.83 E725.33951
G0 F12000 X149.56 Y126.83
G1 F1800 X154.91 Y132.17 E725.77857
G0 F12000 X155.57 Y132.17
G1 F1800 X150.22 Y126.83 E726.21762
G0 F12000 X150.88 Y126.83
G1 F1800 X156.22 Y132.17 E726.65668
G0 F12000 X156.88 Y132.17
G1 F1800 X151.54 Y126.83 E727.09573
G0 F12000 X152.20 Y126.83
G1 F1800 X157.54 Y132.17 E727.53479
G0 F12000 X158.20 Y132.17
G1 F1800 X152.86 Y126.83 E727.97385
G0 F12000 X153.52 Y126.83
G1 F1800 X158.86 Y132.17 E728.41290
G0 F12000 X159.52 Y132.17
G1 F1800 X154.18 Y126.83 E728.85196
G0 F12000 X154.84 Y126.83
G1 F1800 X160.18 Y132.17 E729.29097
G0 F12000 X160.84 Y132.17
G1 F1800 X155.50 Y126.83 E729.72999
G0 F12000 X156.16 Y126.83
G1 F1800 X161.50 Y132.17 E730.16900
G0 F12000 X162.16 Y132.17
G1 F1800 X156.81 Y126.83 E730.60801
G0 F12000 X157.47 Y126.83
G1 F1800 X162.81 Y132.17 E731.04703
G0 F12000 X163.47 Y132.17
G1 F1800 X158.13 Y126.83 E731.48604
G0 F12000 X158.79 Y126.83
G1 F1800 X169.17 Y137.21 E732.33908
G0 F12000 X169.17 Y137.87
G1 F1800 X163.83 Y132.52 E732.77818
G0 F12000 X163.83 Y133.18
G1 F1800 X169.17 Y138.53 E733.21728
G0 F12000 X169.17 Y139.18
G1 F1800 X163.83 Y133.84 E733.65637
G0 F12000 X163.83 Y134.50
G1 F1800 X169.17 Y139.84 E734.09547
G0 F12000 X168.84 Y140.17
G1 F1800 X163.83 Y135.16 E734.50728
G0 F12000 X163.83 Y135.82
G1 F1800 X168.18 Y140.17 E734.86488
G0 F12000 X167.52 Y140.17
G1 F1800 X163.83 Y136.48 E735.16831
G0 F12000 X163.83 Y137.14
G1 F1800 X166.86 Y140.17 E735.41757
G0 F12000 X166.20 Y140.17
G1 F1800 X163.83 Y137.80 E735.61266
G0 F12000 X163.83 Y138.46
G1 F1800 X165.54 Y140.17 E735.75359
G0 F12000 X164.88 Y140.17
G1 F1800 X163.83 Y139.11 E735.84035
G0 F12000 X163.83 Y139.77
G1 F1800 X164.22 Y140.17 E735.87294
G0 F12000 X169.17 Y136.55
G1 F1800 X159.45 Y126.83 E736.67181
G0 F12000 X160.11 Y126.83
G1 F1800 X169.17 Y135.89 E737.41652
G0 F12000 X169.17 Y135.23
G1 F1800 X160.77 Y126.83 E738.10706
G0 F12000 X161.43 Y126.83
G1 F1800 X169.17 Y134.57 E738.74343
G0 F12000 X169.17 Y133.91
G1 F1800 X162.09 Y126.83 E739.32563
G0 F12000 X162.75 Y126.83
G1 F1800 X169.17 Y133.25 E739.85366
G0 F12000 X169.17 Y132.59
G1 F1800 X163.41 Y126.83 E740.32753
G0 F12000 X164.06 Y126.83
G1 F1800 X169.41 Y132.17 E740.76654
G0 F12000 X170.06 Y132.17
G1 F1800 X164.72 Y126.83 E741.20556
G0 F12000 X165.38 Y126.83
G1 F1800 X170.72 Y132.17 E741.64457
G0 F12000 X171.38 Y132.17
G1 F1800 X166.04 Y126.83 E742.08358
G0 F12000 X166.70 Y126.83
G1 F1800 X172.04 Y132.17 E742.52260
G0 F12000 X172.70 Y132.17
G1 F1800 X167.36 Y126.83 E742.96161
G0 F12000 X168.02 Y126.83
G1 F1800 X173.36 Y132.17 E743.40063
G0 F12000 X174.02 Y132.17
G1 F1800 X168.68 Y126.83 E743.83964
G0 F12000 X169.34 Y126.83
G1 F1800 X174.68 Y132.17 E744.27870
G0 F12000 X175.34 Y132.17
G1 F1800 X170.00 Y126.83 E744.71775
G0 F12000 X170.65 Y126.83
G1 F1800 X176.00 Y132.17 E745.15681
G0 F12000 X176.66 Y132.17
G1 F1800 X171.31 Y126.83 E745.59586
G0 F12000 X171.97 Y126.83
G1 F1800 X177.17 Y132.03 E746.02312
G0 F12000 X177.17 Y131.37
G1 F1800 X172.63 Y126.83 E746.39622
G0 F12000 X173.29 Y126.83
G1 F1800 X177.17 Y130.71 E746.71514
G0 F12000 X177.17 Y130.05
G1 F1800 X173.95 Y126.83 E746.97990
G0 F12000 X174.61 Y126.83
G1 F1800 X177.17 Y129.39 E747.19049
G0 F12000 X177.17 Y128.73
G1 F1800 X175.27 Y126.83 E747.34691
G0 F12000 X175.93 Y126.83
G1 F1800 X177.17 Y128.07 E747.44916
G0 F12000 X177.17 Y127.41
G1 F1800 X176.59 Y126.83 E747.49725
G1 F2400 E746.29725
G0 F12000 X161.34 Y146.66
;TYPE:WALL-INNER
G1 F2400 E747.49725
G1 F1800 X161.34 Y152.34 E747.82680
G1 X153.34 Y152.34 E748.29177
G1 X153.34 Y168.34 E749.22173
G1 X147.66 Y168.34 E749.55128
G1 X147.66 Y160.34 E750.01626
G1 X139.66 Y160.34 E750.48123
G1 X139.66 Y154.66 E750.81079
G1 X147.66 Y154.66 E751.27576
G1 X147.66 Y146.66 E751.74074
G1 X161.34 Y146.66 E752.53527
G0 F12000 X161.80 Y146.20
G1 F1800 X161.80 Y152.80 E752.91899
G1 X153.80 Y152.80 E753.38397
G1 X153.80 Y168.80 E754.31392
G1 X147.20 Y168.80 E754.69764
G1 X147.20 Y160.80 E755.16262
G1 X139.20 Y160.80 E755.62760
G1 X139.20 Y154.20 E756.01132
G1 X147.20 Y154.20 E756.47629
G1 X147.20 Y146.20 E756.94127
G1 X161.80 Y146.20 E757.78997
G0 F12000 X162.27 Y145.73
;TYPE:WALL-OUTER
G1 F1800 X162.27 Y153.27 E758.22786
G1 X154.27 Y153.27 E758.69284
G1 X154.27 Y169.27 E759.62279
G1 X146.73 Y169.27 E760.06068
G1 X146.73 Y161.27 E760.52566
G1 X138.73 Y161.27 E760.99064
G1 X138.73 Y153.73 E761.42853
G1 X146.73 Y153.73 E761.89351
G1 X146.73 Y145.73 E762.35848
G1 X162.27 Y145.73 E763.26135
G0 F12000 X161.93 Y145.98
G0 X161.17 Y147.00
;TYPE:FILL
G1 F1800 X161.00 Y146.83 E763.27557
G0 F12000 X160.34 Y146.83
G1 F1800 X161.17 Y147.66 E763.34396
G0 F12000 X161.17 Y148.32
G1 F1800 X159.68 Y146.83 E763.46651
G0 F12000 X159.02 Y146.83
G1 F1800 X161.17 Y148.98 E763.64324
G0 F12000 X161.17 Y149.64
G1 F1800 X158.36 Y146.83 E763.87413
G0 F12000 X157.70 Y146.83
G1 F1800 X161.17 Y150.30 E764.15919
G0 F12000 X161.17 Y150.96
G1 F1800 X157.04 Y146.83 E764.49842
G0 F12000 X156.38 Y146.83
G1 F1800 X161.17 Y151.61 E764.89181
G0 F12000 X161.07 Y152.17
G1 F1800 X155.72 Y146.83 E765.33091
G0 F12000 X155.07 Y146.83
G1 F1800 X160.41 Y152.17 E765.77000
G0 F12000 X159.75 Y152.17
G1 F1800 X154.41 Y146.83 E766.20910
G0 F12000 X153.75 Y146.83
G1 F1800 X159.09 Y152.17 E766.64820
G0 F12000 X158.43 Y152.17
G1 F1800 X153.09 Y146.83 E767.08729
G0 F12000 X152.43 Y146.83
G1 F1800 X157.77 Y152.17 E767.52639
G0 F12000 X157.11 Y152.17
G1 F1800 X151.77 Y146.83 E767.96549
G0 F12000 X151.11 Y146.83
G1 F1800 X156.45 Y152.17 E768.40458
G0 F12000 X155.79 Y152.17
G1 F1800 X150.45 Y146.83 E768.84368
G0 F12000 X149.79 Y146.83
G1 F1800 X155.14 Y152.17 E769.28278
G0 F12000 X154.48 Y152.17
G1 F1800 X149.13 Y146.83 E769.72187
G0 F12000 X148.48 Y146.83
G1 F1800 X153.82 Y152.17 E770.16097
G0 F12000 X153.17 Y152.18
G1 F1800 X147.83 Y146.84 E770.60015
G0 F12000 X147.83 Y147.50
G1 F1800 X153.17 Y152.84 E771.03933
G0 F12000 X153.17 Y153.50
G1 F1800 X147.83 Y148.16 E771.47851
G0 F12000 X147.83 Y148.82
G1 F1800 X153.17 Y154.16 E771.91769
G0 F12000 X153.17 Y154.82
G1 F1800 X147.83 Y149.48 E772.35682
G0 F12000 X147.83 Y150.13
G1 F1800 X153.17 Y155.48 E772.79596
G0 F12000 X153.17 Y156.14
G1 F1800 X147.83 Y150.79 E773.23510
G0 F12000 X147.83 Y151.45
G1 F1800 X153.17 Y156.79 E773.67424
G0 F12000 X153.17 Y157.46
G1 F1800 X147.83 Y152.11 E774.11341
G0 F12000 X147.83 Y152.77
G1 F1800 X153.17 Y158.11 E774.55259
G0 F12000 X153.17 Y158.77
G1 F1800 X147.83 Y153.43 E774.99177
G0 F12000 X147.83 Y154.09
G1 F1800 X153.17 Y159.43 E775.43095
G0 F12000 X153.17 Y160.09
G1 F1800 X147.83 Y154.75 E775.87013
G0 F12000 X147.25 Y154.83
G1 F1800 X153.17 Y160.75 E776.35690
G0 F12000 X153.17 Y161.41
G1 F1800 X146.59 Y154.83 E776.89784
G0 F12000 X145.93 Y154.83
G1 F1800 X153.17 Y162.07 E777.49295
G0 F12000 X153.17 Y162.73
G1 F1800 X145.27 Y154.83 E778.14222
G0 F12000 X144.61 Y154.83
G1 F1800 X153.17 Y163.39 E778.84566
G0 F12000 X153.17 Y164.04
G1 F1800 X143.95 Y154.83 E779.60327
G0 F12000 X143.29 Y154.83
G1 F1800 X153.17 Y164.70 E780.41505
G0 F12000 X153.17 Y165.36
G1 F1800 X142.64 Y154.83 E781.28100
G0 F12000 X141.98 Y154.83
G1 F1800 X147.32 Y160.17 E781.72009
G0 F12000 X146.66 Y160.17
G1 F1800 X141.32 Y154.83 E782.15919
G0 F12000 X140.66 Y154.83
G1 F1800 X146.00 Y160.17 E782.59829
G0 F12000 X145.34 Y160.17
G1 F1800 X140.00 Y154.83 E783.03738
G0 F12000 X139.83 Y155.32
G1 F1800 X144.68 Y160.17 E783.43641
G0 F12000 X144.02 Y160.17
G1 F1800 X139.83 Y155.97 E783.78127
G0 F12000 X139.83 Y156.63
G1 F1800 X143.37 Y160.17 E784.07196
G0 F12000 X142.71 Y160.17
G1 F1800 X139.83 Y157.29 E784.30848
G0 F12000 X139.83 Y157.95
G1 F1800 X142.05 Y160.17 E784.49083
G0 F12000 X141.39 Y160.17
G1 F1800 X139.83 Y158.61 E784.61902
G0 F12000 X139.83 Y159.27
G1 F1800 X140.73 Y160.17 E784.69304
G0 F12000 X140.07 Y160.17
G1 F1800 X139.83 Y159.93 E784.71289
G0 F12000 X147.83 Y160.68
G1 F1800 X153.17 Y166.02 E785.15207
G0 F12000 X153.17 Y166.68
G1 F1800 X147.83 Y161.34 E785.59125
G0 F12000 X147.83 Y162.00
G1 F1800 X153.17 Y167.34 E786.03042
G0 F12000 X153.17 Y168.00
G1 F1800 X147.83 Y162.66 E786.46960
G0 F12000 X147.83 Y163.31
G1 F1800 X152.68 Y168.17 E786.86859
G0 F12000 X152.02 Y168.17
G1 F1800 X147.83 Y163.97 E787.21340
G0 F12000 X147.83 Y164.63
G1 F1800 X151.36 Y168.17 E787.50405
G0 F12000 X150.71 Y168.17
G1 F1800 X147.83 Y165.29 E787.74053
G0 F12000 X147.83 Y165.95
G1 F1800 X150.05 Y168.17 E787.92285
G0 F12000 X149.39 Y168.17
G1 F1800 X147.83 Y166.61 E788.05099
G0 F12000 X147.83 Y167.27
G1 F1800 X148.73 Y168.17 E788.12497
G0 F12000 X148.07 Y168.17
G1 F1800 X147.83 Y167.93 E788.14478
G1 F2400 E786.94478
G0 F12000 X157.66 Y178.34
;TYPE:WALL-INNER
G1 F2400 E788.14478
G1 F1800 X157.66 Y156.66 E789.40428
G1 X163.34 Y156.66 E789.73384
G1 X163.34 Y172.66 E790.66379
G1 X171.34 Y172.66 E791.12877
G1 X171.34 Y178.34 E791.45832
G1 X157.66 Y178.34 E792.25285
G0 F12000 X157.20 Y178.80
G1 F1800 X157.20 Y156.20 E793.56652
G1 X163.80 Y156.20 E793.95025
G1 X163.80 Y172.20 E794.88020
G1 X171.80 Y172.20 E795.34518
G1 X171.80 Y178.80 E795.72890
G1 X157.20 Y178.80 E796.57760
G0 F12000 X156.73 Y179.27
;TYPE:WALL-OUTER
G1 F1800 X156.73 Y155.73 E797.94544
G1 X164.27 Y155.73 E798.38333
G1 X164.27 Y171.73 E799.31329
G1 X172.27 Y171.73 E799.77826
G1 X172.27 Y179.27 E800.21615
G1 X156.73 Y179.27 E801.11902
G0 F12000 X156.98 Y178.93
G0 X158.07 Y178.17
;TYPE:FILL
G1 F1800 X157.83 Y177.93 E801.13883
G0 F12000 X157.83 Y177.27
G1 F1800 X158.73 Y178.17 E801.21281
G0 F12000 X159.39 Y178.17
G1 F1800 X157.83 Y176.61 E801.34096
G0 F12000 X157.83 Y175.95
G1 F1800 X160.05 Y178.17 E801.52327
G0 F12000 X160.71 Y178.17
G1 F1800 X157.83 Y175.29 E801.75975
G0 F12000 X157.83 Y174.63
G1 F1800 X161.36 Y178.17 E802.05040
G0 F12000 X162.02 Y178.17
G1 F1800 X157.83 Y173.97 E802.39521
G0 F12000 X157.83 Y173.31
G1 F1800 X162.68 Y178.17 E802.79420
G0 F12000 X163.34 Y178.17
G1 F1800 X157.83 Y172.66 E803.24735
G0 F12000 X157.83 Y172.00
G1 F1800 X164.00 Y178.17 E803.75467
G0 F12000 X164.66 Y178.17
G1 F1800 X157.83 Y171.34 E804.31616
G0 F12000 X157.83 Y170.68
G1 F1800 X165.32 Y178.17 E804.93182
G0 F12000 X165.98 Y178.17
G1 F1800 X157.83 Y170.02 E805.60164
G0 F12000 X157.83 Y169.36
G1 F1800 X166.64 Y178.17 E806.32563
G0 F12000 X167.29 Y178.17
G1 F1800 X157.83 Y168.70 E807.10379
G0 F12000 X157.83 Y168.04
G1 F1800 X167.95 Y178.17 E807.93612
G0 F12000 X168.61 Y178.17
G1 F1800 X163.27 Y172.83 E808.37513
G0 F12000 X163.17 Y172.73
G1 F1800 X157.83 Y167.38 E808.81423
G0 F12000 X157.83 Y166.72
G1 F1800 X163.17 Y172.07 E809.25332
G0 F12000 X163.17 Y171.41
G1 F1800 X157.83 Y166.07 E809.69242
G0 F12000 X157.83 Y165.41
G1 F1800 X163.17 Y170.75 E810.13152
G0 F12000 X163.17 Y170.09
G1 F1800 X157.83 Y164.75 E810.57061
G0 F12000 X157.83 Y164.09
G1 F1800 X163.17 Y169.43 E811.00971
G0 F12000 X163.17 Y168.77
G1 F1800 X157.83 Y163.43 E811.44881
G0 F12000 X157.83 Y162.77
G1 F1800 X163.17 Y168.11 E811.88790
G0 F12000 X163.17 Y167.45
G1 F1800 X157.83 Y162.11 E812.32700
G0 F12000 X157.83 Y161.45
G1 F1800 X163.17 Y166.79 E812.76614
G0 F12000 X163.17 Y166.14
G1 F1800 X157.83 Y160.79 E813.20528
G0 F12000 X157.83 Y160.13
G1 F1800 X163.17 Y165.48 E813.64441
G0 F12000 X163.17 Y164.82
G1 F1800 X157.83 Y159.47 E814.08355
G0 F12000 X157.83 Y158.82
G1 F1800 X163.17 Y164.16 E814.52269
G0 F12000 X163.17 Y163.50
G1 F1800 X157.83 Y158.16 E814.96183
G0 F12000 X157.83 Y157.50
G1 F1800 X163.17 Y162.84 E815.40096
G0 F12000 X163.17 Y162.18
G1 F1800 X157.83 Y156.84 E815.84010
G0 F12000 X158.48 Y156.83
G1 F1800 X163.17 Y161.52 E816.22589
G0 F12000 X163.17 Y160.86
G1 F1800 X159.13 Y156.83 E816.55752
G0 F12000 X159.79 Y156.83
G1 F1800 X163.17 Y160.20 E816.83497
G0 F12000 X163.17 Y159.54
G1 F1800 X160.45 Y156.83 E817.05826
G0 F12000 X161.11 Y156.83
G1 F1800 X163.17 Y158.89 E817.22738
G0 F12000 X163.17 Y158.23
G1 F1800 X161.77 Y156.83 E817.34234
G0 F12000 X162.43 Y156.83
G1 F1800 X163.17 Y157.57 E817.40312
G0 F12000 X163.17 Y156.91
G1 F1800 X163.09 Y156.83 E817.40974
G0 F12000 X163.93 Y172.83
G1 F1800 X169.27 Y178.17 E817.84875
G0 F12000 X169.93 Y178.17
G1 F1800 X164.59 Y172.83 E818.28777
G0 F12000 X165.25 Y172.83
G1 F1800 X170.59 Y178.17 E818.72678
G0 F12000 X171.17 Y178.09
G1 F1800 X165.91 Y172.83 E819.15938
G0 F12000 X166.57 Y172.83
G1 F1800 X171.17 Y177.43 E819.53782
G0 F12000 X171.17 Y176.77
G1 F1800 X167.23 Y172.83 E819.86209
G0 F12000 X167.88 Y172.83
G1 F1800 X171.17 Y176.11 E820.13219
G0 F12000 X171.17 Y175.46
G1 F1800 X168.54 Y172.83 E820.34812
G0 F12000 X169.20 Y172.83
G1 F1800 X171.17 Y174.80 E820.50988
G0 F12000 X171.17 Y174.14
G1 F1800 X169.86 Y172.83 E820.61748
G0 F12000 X170.52 Y172.83
G1 F1800 X171.17 Y173.48 E820.67091
G1 F2400 E819.47091
G0 F12000 X173.34 Y158.34
;TYPE:WALL-INNER
G1 F2400 E820.67091
G1 F1800 X167.66 Y158.34 E821.00046
G1 X167.66 Y144.66 E821.79499
G1 X173.34 Y144.66 E822.12454
G1 X173.34 Y158.34 E822.91907
G0 F12000 X173.80 Y158.80
G1 F1800 X167.20 Y158.80 E823.30279
G1 X167.20 Y144.20 E824.15149
G1 X173.80 Y144.20 E824.53521
G1 X173.80 Y158.80 E825.38391
G0 F12000 X174.27 Y159.27
;TYPE:WALL-OUTER
G1 F1800 X166.73 Y159.27 E825.82180
G1 X166.73 Y143.73 E826.72467
G1 X174.27 Y143.73 E827.16256
G1 X174.27 Y159.27 E828.06543
G0 F12000 X173.93 Y159.02
G0 X173.00 Y158.17
;TYPE:FILL
G1 F1800 X167.83 Y153.00 E828.49039
G0 F12000 X167.83 Y153.66
G1 F1800 X172.34 Y158.17 E828.86118
G0 F12000 X171.68 Y158.17
G1 F1800 X167.83 Y154.32 E829.17780
G0 F12000 X167.83 Y154.98
G1 F1800 X171.02 Y158.17 E829.44026
G0 F12000 X170.36 Y158.17
G1 F1800 X167.83 Y155.64 E829.64854
G0 F12000 X167.83 Y156.29
G1 F1800 X169.70 Y158.17 E829.80266
G0 F12000 X169.04 Y158.17
G1 F1800 X167.83 Y156.95 E829.90262
G0 F12000 X167.83 Y157.61
G1 F1800 X168.38 Y158.17 E829.94840
G0 F12000 X173.17 Y157.68
G1 F1800 X167.83 Y152.34 E830.38750
G0 F12000 X167.83 Y151.68
G1 F1800 X173.17 Y157.02 E830.82659
G0 F12000 X173.17 Y156.37
G1 F1800 X167.83 Y151.02 E831.26569
G0 F12000 X167.83 Y150.36
G1 F1800 X173.17 Y155.71 E831.70479
G0 F12000 X173.17 Y155.05
G1 F1800 X167.83 Y149.71 E832.14388
G0 F12000 X167.83 Y149.05
G1 F1800 X173.17 Y154.39 E832.58298
G0 F12000 X173.17 Y153.73
G1 F1800 X167.83 Y148.39 E833.02208
G0 F12000 X167.83 Y147.73
G1 F1800 X173.17 Y153.07 E833.46117
G0 F12000 X173.17 Y152.41
G1 F1800 X167.83 Y147.07 E833.90027
G0 F12000 X167.83 Y146.41
G1 F1800 X173.17 Y151.75 E834.33941
G0 F12000 X173.17 Y151.09
G1 F1800 X167.83 Y145.75 E834.77854
G0 F12000 X167.83 Y145.09
G1 F1800 X173.17 Y150.43 E835.21768
G0 F12000 X173.17 Y149.78
G1 F1800 X168.22 Y144.83 E835.62427
G0 F12000 X168.88 Y144.83
G1 F1800 X173.17 Y149.12 E835.97669
G0 F12000 X173.17 Y148.46
G1 F1800 X169.54 Y144.83 E836.27494
G0 F12000 X170.20 Y144.83
G1 F1800 X173.17 Y147.80 E836.51903
G0 F12000 X173.17 Y147.14
G1 F1800 X170.86 Y144.83 E836.70894
G0 F12000 X171.52 Y144.83
G1 F1800 X173.17 Y146.48 E836.84465
G0 F12000 X173.17 Y145.82
G1 F1800 X172.18 Y144.83 E836.92619
G0 F12000 X172.84 Y144.83
G1 F1800 X173.17 Y145.16 E836.95356
G1 F2400 E835.75356
G0 F12000 X151.34 Y172.66
;TYPE:WALL-INNER
G1 F2400 E836.95356
G1 F1800 X151.34 Y178.34 E837.28311
G1 X129.66 Y178.34 E838.54262
G1 X129.66 Y172.66 E838.87217
G1 X137.66 Y172.66 E839.33715
G1 X137.66 Y164.66 E839.80212
G1 X143.34 Y164.66 E840.13168
G1 X143.34 Y172.66 E840.59665
G1 X151.34 Y172.66 E841.06163
G0 F12000 X151.80 Y172.20
G1 F1800 X151.80 Y178.80 E841.44535
G1 X129.20 Y178.80 E842.75903
G1 X129.20 Y172.20 E843.14275
G1 X137.20 Y172.20 E843.60773
G1 X137.20 Y164.20 E844.07270
G1 X143.80 Y164.20 E844.45642
G1 X143.80 Y172.20 E844.92140
G1 X151.80 Y172.20 E845.38638
G0 F12000 X152.27 Y171.73
;TYPE:WALL-OUTER
G1 F1800 X152.27 Y179.27 E845.82427
G1 X128.73 Y179.27 E847.19211
G1 X128.73 Y171.73 E847.63001
G1 X136.73 Y171.73 E848.09498
G1 X136.73 Y163.73 E848.55996
G1 X144.27 Y163.73 E848.99785
G1 X144.27 Y171.73 E849.46283
G1 X152.27 Y171.73 E849.92780
G0 F12000 X152.02 Y172.07
G0 X151.17 Y173.25
;TYPE:FILL
G1 F1800 X150.75 Y172.83 E849.96233
G0 F12000 X150.09 Y172.83
G1 F1800 X151.17 Y173.91 E850.05102
G0 F12000 X151.17 Y174.57
G1 F1800 X149.43 Y172.83 E850.19388
G0 F12000 X148.77 Y172.83
G1 F1800 X151.17 Y175.22 E850.39090
G0 F12000 X151.17 Y175.88
G1 F1800 X148.11 Y172.83 E850.64210
G0 F12000 X147.46 Y172.83
G1 F1800 X151.17 Y176.54 E850.94746
G0 F12000 X151.17 Y177.20
G1 F1800 X146.80 Y172.83 E851.30699
G0 F12000 X146.14 Y172.83
G1 F1800 X151.17 Y177.86 E851.72069
G0 F12000 X150.82 Y178.17
G1 F1800 X145.48 Y172.83 E852.15974
G0 F12000 X144.82 Y172.83
G1 F1800 X150.16 Y178.17 E852.59880
G0 F12000 X149.50 Y178.17
G1 F1800 X144.16 Y172.83 E853.03785
G0 F12000 X143.50 Y172.83
G1 F1800 X148.84 Y178.17 E853.47691
G0 F12000 X148.18 Y178.17
G1 F1800 X137.83 Y167.81 E854.32806
G0 F12000 X137.83 Y168.47
G1 F1800 X147.53 Y178.17 E855.12504
G0 F12000 X146.87 Y178.17
G1 F1800 X137.83 Y169.13 E855.86786
G0 F12000 X137.83 Y169.79
G1 F1800 X146.21 Y178.17 E856.55650
G0 F12000 X145.55 Y178.17
G1 F1800 X137.83 Y170.45 E857.19098
G0 F12000 X137.83 Y171.11
G1 F1800 X144.89 Y178.17 E857.77129
G0 F12000 X144.23 Y178.17
G1 F1800 X137.83 Y171.77 E858.29740
G0 F12000 X137.83 Y172.43
G1 F1800 X143.57 Y178.17 E858.76933
G0 F12000 X142.91 Y178.17
G1 F1800 X137.57 Y172.83 E859.20834
G0 F12000 X136.91 Y172.83
G1 F1800 X142.25 Y178.17 E859.64736
G0 F12000 X141.59 Y178.17
G1 F1800 X136.25 Y172.83 E860.08637
G0 F12000 X135.59 Y172.83
G1 F1800 X140.93 Y178.17 E860.52539
G0 F12000 X140.28 Y178.17
G1 F1800 X134.93 Y172.83 E860.96440
G0 F12000 X134.28 Y172.83
G1 F1800 X139.62 Y178.17 E861.40342
G0 F12000 X138.96 Y178.17
G1 F1800 X133.62 Y172.83 E861.84243
G0 F12000 X132.96 Y172.83
G1 F1800 X138.30 Y178.17 E862.28144
G0 F12000 X137.64 Y178.17
G1 F1800 X132.30 Y172.83 E862.72046
G0 F12000 X131.64 Y172.83
G1 F1800 X136.98 Y178.17 E863.15947
G0 F12000 X136.32 Y178.17
G1 F1800 X130.98 Y172.83 E863.59849
G0 F12000 X130.32 Y172.83
G1 F1800 X135.66 Y178.17 E864.03750
G0 F12000 X135.00 Y178.17
G1 F1800 X129.83 Y173.00 E864.46279
G0 F12000 X129.83 Y173.65
G1 F1800 X134.34 Y178.17 E864.83391
G0 F12000 X133.69 Y178.17
G1 F1800 X129.83 Y174.31 E865.15086
G0 F12000 X129.83 Y174.97
G1 F1800 X133.03 Y178.17 E865.41365
G0 F12000 X132.37 Y178.17
G1 F1800 X129.83 Y175.63 E865.62226
G0 F12000 X129.83 Y176.29
G1 F1800 X131.71 Y178.17 E865.77671
G0 F12000 X131.05 Y178.17
G1 F1800 X129.83 Y176.95 E865.87699
G0 F12000 X129.83 Y177.61
G1 F1800 X130.39 Y178.17 E865.92310
G0 F12000 X137.11 Y172.11
G0 X137.83 Y167.16
G1 F1800 X143.17 Y172.50 E866.36216
G0 F12000 X143.17 Y171.84
G1 F1800 X137.83 Y166.50 E866.80121
G0 F12000 X137.83 Y165.84
G1 F1800 X143.17 Y171.18 E867.24027
G0 F12000 X143.17 Y170.52
G1 F1800 X137.83 Y165.18 E867.67932
G0 F12000 X138.14 Y164.83
G1 F1800 X143.17 Y169.86 E868.09302
G0 F12000 X143.17 Y169.20
G1 F1800 X138.80 Y164.83 E868.45255
G0 F12000 X139.46 Y164.83
G1 F1800 X143.17 Y168.54 E868.75791
G0 F12000 X143.17 Y167.88
G1 F1800 X140.11 Y164.83 E869.00911
G0 F12000 X140.77 Y164.83
G1 F1800 X143.17 Y167.22 E869.20613
G0 F12000 X143.17 Y166.57
G1 F1800 X141.43 Y164.83 E869.34899
G0 F12000 X142.09 Y164.83
G1 F1800 X143.17 Y165.91 E869.43768
G0 F12000 X143.17 Y165.25
G1 F1800 X142.75 Y164.83 E869.47221
G1 F2400 E868.27221
G0 F12000 X166.54 Y168.17
;TYPE:SUPPORT
G1 F2400 E869.47221
G1 F1800 X166.54 Y160.13 E869.93939
G0 F12000 X167.47 Y160.13
G1 F1800 X167.47 Y168.17 E870.40658
G0 F12000 X168.41 Y168.17
G1 F1800 X168.41 Y160.13 E870.87376
G0 F12000 X169.34 Y160.13
G1 F1800 X169.34 Y168.17 E871.34095
G0 F12000 X170.27 Y168.17
G1 F1800 X170.27 Y160.13 E871.80813
G0 F12000 X171.21 Y160.13
G1 F1800 X171.21 Y168.17 E872.27532
G0 F12000 X172.14 Y168.17
G1 F1800 X172.14 Y160.13 E872.74250
G0 F12000 X173.07 Y160.13
G1 F1800 X173.07 Y168.17 E873.20969
G0 F12000 X174.00 Y168.17
G1 F1800 X174.00 Y160.13 E873.67687
G0 F12000 X174.94 Y160.13
G1 F1800 X174.94 Y168.17 E874.14406
;LAYER:1
G1 F2400 E872.94406
G0 F12000 X171.34 Y172.66 Z0.50
;TYPE:WALL-INNER
G1 F2400 E874.14406
G1 F1800 X171.34 Y178.34 E874.36376
G1 X157.66 Y178.34 E874.89345
G1 X157.66 Y156.66 E875.73312
G1 X163.34 Y156.66 E875.95282
G1 X163.34 Y172.66 E876.57279
G1 X171.34 Y172.66 E876.88277
G0 F12000 X171.80 Y172.20
G1 F1800 X171.80 Y178.80 E877.13859
G1 X157.20 Y178.80 E877.70439
G1 X157.20 Y156.20 E878.58017
G1 X163.80 Y156.20 E878.83598
G1 X163.80 Y172.20 E879.45595
G1 X171.80 Y172.20 E879.76594
G0 F12000 X172.27 Y171.73
;TYPE:WALL-OUTER
G1 F1800 X172.27 Y179.27 E880.05787
G1 X156.73 Y179.27 E880.65978
G1 X156.73 Y155.73 E881.57167
G1 X164.27 Y155.73 E881.86360
G1 X164.27 Y171.73 E882.48357
G1 X172.27 Y171.73 E882.79356
G0 F12000 X172.02 Y172.07
G0 X170.85 Y172.83
;TYPE:FILL
G1 F1800 X165.51 Y178.17 E883.08629
G0 F12000 X166.17 Y178.17
G1 F1800 X171.17 Y173.17 E883.36033
G0 F12000 X171.17 Y173.83
G1 F1800 X166.83 Y178.17 E883.59826
G0 F12000 X167.49 Y178.17
G1 F1800 X171.17 Y174.49 E883.80009
G0 F12000 X171.17 Y175.15
G1 F1800 X168.15 Y178.17 E883.96580
G0 F12000 X168.81 Y178.17
G1 F1800 X171.17 Y175.81 E884.09539
G0 F12000 X171.17 Y176.46
G1 F1800 X169.46 Y178.17 E884.18888
G0 F12000 X170.12 Y178.17
G1 F1800 X171.17 Y177.12 E884.24625
G0 F12000 X171.17 Y177.78
G1 F1800 X170.78 Y178.17 E884.26751
G0 F12000 X170.19 Y172.83
G1 F1800 X164.85 Y178.17 E884.56024
G0 F12000 X164.19 Y178.17
G1 F1800 X169.53 Y172.83 E884.85298
G0 F12000 X168.88 Y172.83
G1 F1800 X163.53 Y178.17 E885.14571
G0 F12000 X162.87 Y178.17
G1 F1800 X168.22 Y172.83 E885.43844
G0 F12000 X167.56 Y172.83
G1 F1800 X162.22 Y178.17 E885.73117
G0 F12000 X161.56 Y178.17
G1 F1800 X166.90 Y172.83 E886.02390
G0 F12000 X166.24 Y172.83
G1 F1800 X160.90 Y178.17 E886.31663
G0 F12000 X160.24 Y178.17
G1 F1800 X165.58 Y172.83 E886.60936
G0 F12000 X164.92 Y172.83
G1 F1800 X159.58 Y178.17 E886.90209
G0 F12000 X158.92 Y178.17
G1 F1800 X164.26 Y172.83 E887.19482
G0 F12000 X163.60 Y172.83
G1 F1800 X158.26 Y178.17 E887.48756
G0 F12000 X157.83 Y177.94
G1 F1800 X163.17 Y172.60 E887.78026
G0 F12000 X163.17 Y171.94
G1 F1800 X157.83 Y177.28 E888.07296
G0 F12000 X157.83 Y176.62
G1 F1800 X163.17 Y171.28 E888.36567
G0 F12000 X163.17 Y170.62
G1 F1800 X157.83 Y175.97 E888.65837
G0 F12000 X157.83 Y175.31
G1 F1800 X163.17 Y169.97 E888.95107
G0 F12000 X163.17 Y169.31
G1 F1800 X157.83 Y174.65 E889.24378
G0 F12000 X157.83 Y173.99
G1 F1800 X163.17 Y168.65 E889.53648
G0 F12000 X163.17 Y167.99
G1 F1800 X157.83 Y173.33 E889.82918
G0 F12000 X157.83 Y172.67
G1 F1800 X163.17 Y167.33 E890.12189
G0 F12000 X163.17 Y166.67
G1 F1800 X157.83 Y172.01 E890.41459
G0 F12000 X157.83 Y171.35
G1 F1800 X163.17 Y166.01 E890.70730
G0 F12000 X163.17 Y165.35
G1 F1800 X157.83 Y170.69 E891.00000
G0 F12000 X157.83 Y170.03
G1 F1800 X163.17 Y164.69 E891.29270
G0 F12000 X163.17 Y164.03
G1 F1800 X157.83 Y169.38 E891.58541
G0 F12000 X157.83 Y168.72
G1 F1800 X163.17 Y163.38 E891.87811
G0 F12000 X163.17 Y162.72
G1 F1800 X157.83 Y168.06 E892.17081
G0 F12000 X157.83 Y167.40
G1 F1800 X163.17 Y162.06 E892.46352
G0 F12000 X163.17 Y161.40
G1 F1800 X157.83 Y166.74 E892.75622
G0 F12000 X157.83 Y166.08
G1 F1800 X163.17 Y160.74 E893.04890
G0 F12000 X163.17 Y160.08
G1 F1800 X157.83 Y165.42 E893.34157
G0 F12000 X157.83 Y164.76
G1 F1800 X163.17 Y159.42 E893.63425
G0 F12000 X163.17 Y158.76
G1 F1800 X157.83 Y164.10 E893.92693
G0 F12000 X157.83 Y163.44
G1 F1800 X163.17 Y158.10 E894.21960
G0 F12000 X163.17 Y157.44
G1 F1800 X157.83 Y162.78 E894.51228
G0 F12000 X157.83 Y162.13
G1 F1800 X163.13 Y156.83 E894.80260
G0 F12000 X162.47 Y156.83
G1 F1800 X157.83 Y161.47 E895.05681
G0 F12000 X157.83 Y160.81
G1 F1800 X161.81 Y156.83 E895.27490
G0 F12000 X161.15 Y156.83
G1 F1800 X157.83 Y160.15 E895.45689
G0 F12000 X157.83 Y159.49
G1 F1800 X160.49 Y156.83 E895.60276
G0 F12000 X159.83 Y156.83
G1 F1800 X157.83 Y158.83 E895.71252
G0 F12000 X157.83 Y158.17
G1 F1800 X159.17 Y156.83 E895.78617
G0 F12000 X158.51 Y156.83
G1 F1800 X157.83 Y157.51 E895.82371
G1 F2400 E894.62371
G0 F12000 X167.66 Y158.34
;TYPE:WALL-INNER
G1 F2400 E895.82371
G1 F1800 X167.66 Y144.66 E896.35339
G1 X173.34 Y144.66 E896.57309
G1 X173.34 Y158.34 E897.10278
G1 X167.66 Y158.34 E897.32248
G0 F12000 X167.20 Y158.80
G1 F1800 X167.20 Y144.20 E897.88828
G1 X173.80 Y144.20 E898.14409
G1 X173.80 Y158.80 E898.70989
G1 X167.20 Y158.80 E898.96571
G0 F12000 X166.73 Y159.27
;TYPE:WALL-OUTER
G1 F1800 X166.73 Y143.73 E899.56762
G1 X174.27 Y143.73 E899.85955
G1 X174.27 Y159.27 E900.46146
G1 X166.73 Y159.27 E900.75339
G0 F12000 X166.98 Y158.93
G0 X167.83 Y158.06
;TYPE:FILL
G1 F1800 X173.17 Y152.72 E901.04606
G0 F12000 X173.17 Y153.38
G1 F1800 X168.37 Y158.17 E901.30882
G0 F12000 X169.03 Y158.17
G1 F1800 X173.17 Y154.03 E901.53547
G0 F12000 X173.17 Y154.69
G1 F1800 X169.69 Y158.17 E901.72600
G0 F12000 X170.35 Y158.17
G1 F1800 X173.17 Y155.35 E901.88042
G0 F12000 X173.17 Y156.01
G1 F1800 X171.01 Y158.17 E901.99873
G0 F12000 X171.67 Y158.17
G1 F1800 X173.17 Y156.67 E902.08092
G0 F12000 X173.17 Y157.33
G1 F1800 X172.33 Y158.17 E902.12701
G0 F12000 X172.99 Y158.17
G1 F1800 X173.17 Y157.99 E902.13696
G0 F12000 X167.83 Y157.40
G1 F1800 X173.17 Y152.06 E902.42963
G0 F12000 X173.17 Y151.40
G1 F1800 X167.83 Y156.74 E902.72231
G0 F12000 X167.83 Y156.08
G1 F1800 X173.17 Y150.74 E903.01498
G0 F12000 X173.17 Y150.08
G1 F1800 X167.83 Y155.42 E903.30766
G0 F12000 X167.83 Y154.76
G1 F1800 X173.17 Y149.42 E903.60034
G0 F12000 X173.17 Y148.76
G1 F1800 X167.83 Y154.10 E903.89301
G0 F12000 X167.83 Y153.44
G1 F1800 X173.17 Y148.10 E904.18569
G0 F12000 X173.17 Y147.44
G1 F1800 X167.83 Y152.79 E904.47837
G0 F12000 X167.83 Y152.13
G1 F1800 X173.17 Y146.79 E904.77104
G0 F12000 X173.17 Y146.13
G1 F1800 X167.83 Y151.47 E905.06372
G0 F12000 X167.83 Y150.81
G1 F1800 X173.17 Y145.47 E905.35639
G0 F12000 X173.15 Y144.83
G1 F1800 X167.83 Y150.15 E905.64800
G0 F12000 X167.83 Y149.49
G1 F1800 X172.49 Y144.83 E905.90350
G0 F12000 X171.83 Y144.83
G1 F1800 X167.83 Y148.83 E906.12288
G0 F12000 X167.83 Y148.17
G1 F1800 X171.17 Y144.83 E906.30615
G0 F12000 X170.51 Y144.83
G1 F1800 X167.83 Y147.51 E906.45331
G0 F12000 X167.83 Y146.85
G1 F1800 X169.85 Y144.83 E906.56436
G0 F12000 X169.19 Y144.83
G1 F1800 X167.83 Y146.20 E906.63930
G0 F12000 X167.83 Y145.54
G1 F1800 X168.54 Y144.83 E906.67812
G1 F2400 E905.47812
G0 F12000 X161.34 Y146.66
;TYPE:WALL-INNER
G1 F2400 E906.67812
G1 F1800 X161.34 Y152.34 E906.89782
G1 X153.34 Y152.34 E907.20781
G1 X153.34 Y168.34 E907.82778
G1 X147.66 Y168.34 E908.04748
G1 X147.66 Y160.34 E908.35746
G1 X139.66 Y160.34 E908.66745
G1 X139.66 Y154.66 E908.88715
G1 X147.66 Y154.66 E909.19713
G1 X147.66 Y146.66 E909.50712
G1 X161.34 Y146.66 E910.03681
G0 F12000 X161.80 Y146.20
G1 F1800 X161.80 Y152.80 E910.29262
G1 X153.80 Y152.80 E910.60260
G1 X153.80 Y168.80 E911.22257
G1 X147.20 Y168.80 E911.47839
G1 X147.20 Y160.80 E911.78837
G1 X139.20 Y160.80 E912.09836
G1 X139.20 Y154.20 E912.35417
G1 X147.20 Y154.20 E912.66416
G1 X147.20 Y146.20 E912.97414
G1 X161.80 Y146.20 E913.53994
G0 F12000 X162.27 Y145.73
;TYPE:WALL-OUTER
G1 F1800 X162.27 Y153.27 E913.83187
G1 X154.27 Y153.27 E914.14185
G1 X154.27 Y169.27 E914.76182
G1 X146.73 Y169.27 E915.05375
G1 X146.73 Y161.27 E915.36373
G1 X138.73 Y161.27 E915.67372
G1 X138.73 Y153.73 E915.96565
G1 X146.73 Y153.73 E916.27563
G1 X146.73 Y145.73 E916.58561
G1 X162.27 Y145.73 E917.18753
G0 F12000 X161.93 Y145.98
G0 X161.17 Y146.92
;TYPE:FILL
G1 F1800 X155.92 Y152.17 E917.47513
G0 F12000 X155.26 Y152.17
G1 F1800 X160.60 Y146.83 E917.76792
G0 F12000 X159.95 Y146.83
G1 F1800 X154.60 Y152.17 E918.06071
G0 F12000 X153.94 Y152.17
G1 F1800 X159.29 Y146.83 E918.35349
G0 F12000 X158.63 Y146.83
G1 F1800 X153.28 Y152.17 E918.64628
G0 F12000 X153.17 Y152.29
G1 F1800 X145.29 Y160.17 E919.07828
G0 F12000 X145.95 Y160.17
G1 F1800 X153.17 Y152.94 E919.47417
G0 F12000 X153.17 Y153.60
G1 F1800 X146.60 Y160.17 E919.83394
G0 F12000 X147.26 Y160.17
G1 F1800 X153.17 Y154.26 E920.15761
G0 F12000 X153.17 Y154.92
G1 F1800 X147.83 Y160.26 E920.45031
G0 F12000 X147.83 Y160.92
G1 F1800 X153.17 Y155.58 E920.74301
G0 F12000 X153.17 Y156.24
G1 F1800 X147.83 Y161.58 E921.03572
G0 F12000 X147.83 Y162.24
G1 F1800 X153.17 Y156.90 E921.32842
G0 F12000 X153.17 Y157.56
G1 F1800 X147.83 Y162.90 E921.62113
G0 F12000 X147.83 Y163.56
G1 F1800 X153.17 Y158.22 E921.91383
G0 F12000 X153.17 Y158.88
G1 F1800 X147.83 Y164.22 E922.20653
G0 F12000 X147.83 Y164.88
G1 F1800 X153.17 Y159.54 E922.49921
G0 F12000 X153.17 Y160.19
G1 F1800 X147.83 Y165.54 E922.79189
G0 F12000 X147.83 Y166.19
G1 F1800 X153.17 Y160.85 E923.08456
G0 F12000 X153.17 Y161.51
G1 F1800 X147.83 Y166.85 E923.37724
G0 F12000 X147.83 Y167.51
G1 F1800 X153.17 Y162.17 E923.66991
G0 F12000 X153.17 Y162.83
G1 F1800 X147.83 Y168.17 E923.96248
G0 F12000 X148.49 Y168.17
G1 F1800 X153.17 Y163.49 E924.21894
G0 F12000 X153.17 Y164.15
G1 F1800 X149.15 Y168.17 E924.43928
G0 F12000 X149.81 Y168.17
G1 F1800 X153.17 Y164.81 E924.62351
G0 F12000 X153.17 Y165.47
G1 F1800 X150.47 Y168.17 E924.77163
G0 F12000 X151.13 Y168.17
G1 F1800 X153.17 Y166.13 E924.88364
G0 F12000 X153.17 Y166.78
G1 F1800 X151.78 Y168.17 E924.95953
G0 F12000 X152.44 Y168.17
G1 F1800 X153.17 Y167.44 E924.99931
G0 F12000 X153.17 Y168.10
G1 F1800 X153.10 Y168.17 E925.00299
G0 F12000 X147.11 Y160.89
G0 X144.63 Y160.17
G1 F1800 X157.97 Y146.83 E925.73407
G0 F12000 X157.31 Y146.83
G1 F1800 X143.97 Y160.17 E926.46516
G0 F12000 X143.31 Y160.17
G1 F1800 X156.65 Y146.83 E927.19625
G0 F12000 X155.99 Y146.83
G1 F1800 X142.65 Y160.17 E927.92734
G0 F12000 X141.99 Y160.17
G1 F1800 X147.33 Y154.83 E928.22010
G0 F12000 X146.68 Y154.83
G1 F1800 X141.33 Y160.17 E928.51285
G0 F12000 X140.67 Y160.17
G1 F1800 X146.02 Y154.83 E928.80561
G0 F12000 X145.36 Y154.83
G1 F1800 X140.01 Y160.17 E929.09837
G0 F12000 X139.83 Y159.70
G1 F1800 X144.70 Y154.83 E929.36516
G0 F12000 X144.04 Y154.83
G1 F1800 X139.83 Y159.04 E929.59583
G0 F12000 X139.83 Y158.38
G1 F1800 X143.38 Y154.83 E929.79039
G0 F12000 X142.72 Y154.83
G1 F1800 X139.83 Y157.72 E929.94884
G0 F12000 X139.83 Y157.06
G1 F1800 X142.06 Y154.83 E930.07115
G0 F12000 X141.40 Y154.83
G1 F1800 X139.83 Y156.40 E930.15734
G0 F12000 X139.83 Y155.74
G1 F1800 X140.74 Y154.83 E930.20743
G0 F12000 X140.08 Y154.83
G1 F1800 X139.83 Y155.08 E930.22140
G0 F12000 X147.83 Y154.33
G1 F1800 X155.33 Y146.83 E930.63263
G0 F12000 X154.67 Y146.83
G1 F1800 X147.83 Y153.67 E931.00775
G0 F12000 X147.83 Y153.01
G1 F1800 X154.01 Y146.83 E931.34676
G0 F12000 X153.36 Y146.83
G1 F1800 X147.83 Y152.36 E931.64966
G0 F12000 X147.83 Y151.70
G1 F1800 X152.70 Y146.83 E931.91644
G0 F12000 X152.04 Y146.83
G1 F1800 X147.83 Y151.04 E932.14711
G0 F12000 X147.83 Y150.38
G1 F1800 X151.38 Y146.83 E932.34165
G0 F12000 X150.72 Y146.83
G1 F1800 X147.83 Y149.72 E932.50007
G0 F12000 X147.83 Y149.06
G1 F1800 X150.06 Y146.83 E932.62238
G0 F12000 X149.40 Y146.83
G1 F1800 X147.83 Y148.40 E932.70857
G0 F12000 X147.83 Y147.74
G1 F1800 X148.74 Y146.83 E932.75866
G0 F12000 X148.08 Y146.83
G1 F1800 X147.83 Y147.08 E932.77263
G0 F12000 X156.58 Y152.17
G1 F1800 X161.17 Y147.58 E933.02410
G0 F12000 X161.17 Y148.24
G1 F1800 X157.24 Y152.17 E933.23946
G0 F12000 X157.90 Y152.17
G1 F1800 X161.17 Y148.90 E933.41870
G0 F12000 X161.17 Y149.56
G1 F1800 X158.56 Y152.17 E933.56183
G0 F12000 X159.22 Y152.17
G1 F1800 X161.17 Y150.22 E933.66886
G0 F12000 X161.17 Y150.88
G1 F1800 X159.88 Y152.17 E933.73976
G0 F12000 X160.53 Y152.17
G1 F1800 X161.17 Y151.54 E933.77456
G1 F2400 E932.57456
G0 F12000 X159.34 Y142.34
;TYPE:WALL-INNER
G1 F2400 E933.77456
G1 F1800 X143.34 Y142.34 E934.39449
G1 X143.34 Y150.34 E934.70448
G1 X137.66 Y150.34 E934.92422
G1 X137.66 Y128.66 E935.76389
G1 X143.34 Y128.66 E935.98363
G1 X143.34 Y136.66 E936.29361
G1 X159.34 Y136.66 E936.91354
G1 X159.34 Y142.34 E937.13324
G0 F12000 X159.80 Y142.80
G1 F1800 X143.80 Y142.80 E937.75317
G1 X143.80 Y150.80 E938.06316
G1 X137.20 Y150.80 E938.31901
G1 X137.20 Y128.20 E939.19479
G1 X143.80 Y128.20 E939.45065
G1 X143.80 Y136.20 E939.76063
G1 X159.80 Y136.20 E940.38056
G1 X159.80 Y142.80 E940.63638
G0 F12000 X160.27 Y143.27
;TYPE:WALL-OUTER
G1 F1800 X144.27 Y143.27 E941.25631
G1 X144.27 Y151.27 E941.56629
G1 X136.73 Y151.27 E941.85826
G1 X136.73 Y127.73 E942.77015
G1 X144.27 Y127.73 E943.06212
G1 X144.27 Y135.73 E943.37211
G1 X160.27 Y135.73 E943.99204
G1 X160.27 Y143.27 E944.28396
G0 F12000 X159.93 Y143.02
G0 X159.17 Y141.67
;TYPE:FILL
G1 F1800 X158.67 Y142.17 E944.31114
G0 F12000 X158.01 Y142.17
G1 F1800 X159.17 Y141.01 E944.37444
G0 F12000 X159.17 Y140.36
G1 F1800 X157.35 Y142.17 E944.47384
G0 F12000 X156.70 Y142.17
G1 F1800 X159.17 Y139.70 E944.60935
G0 F12000 X159.17 Y139.04
G1 F1800 X156.04 Y142.17 E944.78098
G0 F12000 X155.38 Y142.17
G1 F1800 X159.17 Y138.38 E944.98872
G0 F12000 X159.17 Y137.72
G1 F1800 X154.72 Y142.17 E945.23257
G0 F12000 X154.06 Y142.17
G1 F1800 X159.17 Y137.06 E945.51254
G0 F12000 X158.74 Y136.83
G1 F1800 X153.40 Y142.17 E945.80527
G0 F12000 X152.74 Y142.17
G1 F1800 X158.08 Y136.83 E946.09800
G0 F12000 X157.43 Y136.83
G1 F1800 X152.08 Y142.17 E946.39073
G0 F12000 X151.42 Y142.17
G1 F1800 X156.77 Y136.83 E946.68346
G0 F12000 X156.11 Y136.83
G1 F1800 X150.76 Y142.17 E946.97619
G0 F12000 X150.11 Y142.17
G1 F1800 X155.45 Y136.83 E947.26892
G0 F12000 X154.79 Y136.83
G1 F1800 X149.45 Y142.17 E947.56165
G0 F12000 X148.79 Y142.17
G1 F1800 X154.13 Y136.83 E947.85441
G0 F12000 X153.47 Y136.83
G1 F1800 X148.13 Y142.17 E948.14717
G0 F12000 X147.47 Y142.17
G1 F1800 X152.81 Y136.83 E948.43993
G0 F12000 X152.15 Y136.83
G1 F1800 X146.81 Y142.17 E948.73269
G0 F12000 X146.15 Y142.17
G1 F1800 X151.49 Y136.83 E949.02545
G0 F12000 X150.84 Y136.83
G1 F1800 X145.49 Y142.17 E949.31820
G0 F12000 X144.83 Y142.17
G1 F1800 X150.18 Y136.83 E949.61096
G0 F12000 X149.52 Y136.83
G1 F1800 X144.17 Y142.17 E949.90372
G0 F12000 X143.51 Y142.17
G1 F1800 X148.86 Y136.83 E950.19645
G0 F12000 X148.20 Y136.83
G1 F1800 X137.83 Y147.20 E950.76474
G0 F12000 X137.83 Y147.86
G1 F1800 X143.17 Y142.51 E951.05749
G0 F12000 X143.17 Y143.17
G1 F1800 X137.83 Y148.52 E951.35025
G0 F12000 X137.83 Y149.18
G1 F1800 X143.17 Y143.83 E951.64298
G0 F12000 X143.17 Y144.49
G1 F1800 X137.83 Y149.84 E951.93571
G0 F12000 X138.15 Y150.17
G1 F1800 X143.17 Y145.15 E952.21069
G0 F12000 X143.17 Y145.81
G1 F1800 X138.81 Y150.17 E952.44956
G0 F12000 X139.47 Y150.17
G1 F1800 X143.17 Y146.47 E952.65231
G0 F12000 X143.17 Y147.13
G1 F1800 X140.13 Y150.17 E952.81895
G0 F12000 X140.79 Y150.17
G1 F1800 X143.17 Y147.79 E952.94948
G0 F12000 X143.17 Y148.45
G1 F1800 X141.45 Y150.17 E953.04389
G0 F12000 X142.11 Y150.17
G1 F1800 X143.17 Y149.11 E953.10220
G0 F12000 X143.17 Y149.76
G1 F1800 X142.76 Y150.17 E953.12439
G0 F12000 X137.83 Y146.54
G1 F1800 X147.54 Y136.83 E953.65656
G0 F12000 X146.88 Y136.83
G1 F1800 X137.83 Y145.88 E954.15262
G0 F12000 X137.83 Y145.22
G1 F1800 X146.22 Y136.83 E954.61257
G0 F12000 X145.56 Y136.83
G1 F1800 X137.83 Y144.56 E955.03641
G0 F12000 X137.83 Y143.90
G1 F1800 X144.90 Y136.83 E955.42413
G0 F12000 X144.24 Y136.83
G1 F1800 X137.83 Y143.24 E955.77571
G0 F12000 X137.83 Y142.59
G1 F1800 X143.59 Y136.83 E956.09119
G0 F12000 X143.17 Y136.58
G1 F1800 X137.83 Y141.93 E956.38394
G0 F12000 X137.83 Y141.27
G1 F1800 X143.17 Y135.93 E956.67670
G0 F12000 X143.17 Y135.26
G1 F1800 X137.83 Y140.61 E956.96949
G0 F12000 X137.83 Y139.95
G1 F1800 X143.17 Y134.61 E957.26227
G0 F12000 X143.17 Y133.95
G1 F1800 X137.83 Y139.29 E957.55506
G0 F12000 X137.83 Y138.63
G1 F1800 X143.17 Y133.29 E957.84785
G0 F12000 X143.17 Y132.63
G1 F1800 X137.83 Y137.97 E958.14063
G0 F12000 X137.83 Y137.31
G1 F1800 X143.17 Y131.97 E958.43342
G0 F12000 X143.17 Y131.31
G1 F1800 X137.83 Y136.65 E958.72620
G0 F12000 X137.83 Y136.00
G1 F1800 X143.17 Y130.65 E959.01899
G0 F12000 X143.17 Y129.99
G1 F1800 X137.83 Y135.34 E959.31178
G0 F12000 X137.83 Y134.68
G1 F1800 X143.17 Y129.33 E959.60456
G0 F12000 X143.02 Y128.83
G1 F1800 X137.83 Y134.02 E959.88896
G0 F12000 X137.83 Y133.36
G1 F1800 X142.36 Y128.83 E960.13725
G0 F12000 X141.70 Y128.83
G1 F1800 X137.83 Y132.70 E960.34943
G0 F12000 X137.83 Y132.04
G1 F1800 X141.04 Y128.83 E960.52550
G0 F12000 X140.38 Y128.83
G1 F1800 X137.83 Y131.38 E960.66545
G0 F12000 X137.83 Y130.72
G1 F1800 X139.72 Y128.83 E960.76929
G0 F12000 X139.06 Y128.83
G1 F1800 X137.83 Y130.06 E960.83702
G0 F12000 X137.83 Y129.41
G1 F1800 X138.41 Y128.83 E960.86864
G1 F2400 E959.66864
G0 F12000 X147.67 Y126.67
;TYPE:WALL-INNER
G1 F2400 E960.86864
G1 F1800 X177.34 Y126.67 E962.01826
G1 X177.34 Y132.34 E962.23796
G1 X169.34 Y132.34 E962.54794
G1 X169.34 Y140.34 E962.85793
G1 X163.66 Y140.34 E963.07763
G1 X163.66 Y132.34 E963.38761
G1 X147.67 Y132.34 E964.00754
G1 X147.67 Y126.67 E964.22725
G0 F12000 X147.20 Y126.20
G1 F1800 X177.80 Y126.20 E965.41298
G1 X177.80 Y132.80 E965.66879
G1 X169.80 Y132.80 E965.97877
G1 X169.80 Y140.80 E966.28876
G1 X163.20 Y140.80 E966.54457
G1 X163.20 Y132.80 E966.85456
G1 X147.20 Y132.80 E967.47449
G1 X147.20 Y126.20 E967.73030
G0 F12000 X146.73 Y125.73
;TYPE:WALL-OUTER
G1 F1800 X178.27 Y125.73 E968.95215
G1 X178.27 Y133.27 E969.24407
G1 X170.27 Y133.27 E969.55406
G1 X170.27 Y141.27 E969.86404
G1 X162.73 Y141.27 E970.15597
G1 X162.73 Y133.27 E970.46595
G1 X146.73 Y133.27 E971.08588
G1 X146.73 Y125.73 E971.37781
G0 F12000 X147.07 Y125.98
G0 X148.31 Y126.83
;TYPE:FILL
G1 F1800 X147.83 Y127.31 E971.40436
G0 F12000 X147.83 Y127.97
G1 F1800 X148.97 Y126.83 E971.46702
G0 F12000 X149.63 Y126.83
G1 F1800 X147.83 Y128.63 E971.56580
G0 F12000 X147.83 Y129.29
G1 F1800 X150.29 Y126.83 E971.70068
G0 F12000 X150.95 Y126.83
G1 F1800 X147.83 Y129.95 E971.87168
G0 F12000 X147.83 Y130.61
G1 F1800 X151.61 Y126.83 E972.07879
G0 F12000 X152.27 Y126.83
G1 F1800 X147.83 Y131.27 E972.32201
G0 F12000 X147.83 Y131.93
G1 F1800 X152.93 Y126.83 E972.60134
G0 F12000 X153.59 Y126.83
G1 F1800 X148.24 Y132.17 E972.89407
G0 F12000 X148.90 Y132.17
G1 F1800 X154.24 Y126.83 E973.18681
G0 F12000 X154.90 Y126.83
G1 F1800 X149.56 Y132.17 E973.47954
G0 F12000 X150.22 Y132.17
G1 F1800 X155.56 Y126.83 E973.77227
G0 F12000 X156.22 Y126.83
G1 F1800 X150.88 Y132.17 E974.06500
G0 F12000 X151.54 Y132.17
G1 F1800 X156.88 Y126.83 E974.35773
G0 F12000 X157.54 Y126.83
G1 F1800 X152.20 Y132.17 E974.65046
G0 F12000 X152.86 Y132.17
G1 F1800 X158.20 Y126.83 E974.94319
G0 F12000 X158.86 Y126.83
G1 F1800 X153.51 Y132.17 E975.23592
G0 F12000 X154.17 Y132.17
G1 F1800 X159.52 Y126.83 E975.52865
G0 F12000 X160.18 Y126.83
G1 F1800 X154.83 Y132.17 E975.82138
G0 F12000 X155.49 Y132.17
G1 F1800 X160.83 Y126.83 E976.11412
G0 F12000 X161.49 Y126.83
G1 F1800 X156.15 Y132.17 E976.40685
G0 F12000 X156.81 Y132.17
G1 F1800 X162.15 Y126.83 E976.69961
G0 F12000 X162.81 Y126.83
G1 F1800 X157.47 Y132.17 E976.99236
G0 F12000 X158.13 Y132.17
G1 F1800 X163.47 Y126.83 E977.28512
G0 F12000 X164.13 Y126.83
G1 F1800 X158.79 Y132.17 E977.57788
G0 F12000 X159.45 Y132.17
G1 F1800 X164.79 Y126.83 E977.87064
G0 F12000 X165.45 Y126.83
G1 F1800 X160.10 Y132.17 E978.16340
G0 F12000 X160.76 Y132.17
G1 F1800 X166.11 Y126.83 E978.45616
G0 F12000 X166.77 Y126.83
G1 F1800 X161.42 Y132.17 E978.74891
G0 F12000 X162.08 Y132.17
G1 F1800 X167.43 Y126.83 E979.04165
G0 F12000 X168.08 Y126.83
G1 F1800 X162.74 Y132.17 E979.33438
G0 F12000 X163.40 Y132.17
G1 F1800 X168.74 Y126.83 E979.62711
G0 F12000 X169.40 Y126.83
G1 F1800 X163.83 Y132.40 E979.93255
G0 F12000 X163.83 Y133.06
G1 F1800 X170.06 Y126.83 E980.27411
G0 F12000 X170.72 Y126.83
G1 F1800 X163.83 Y133.72 E980.65178
G0 F12000 X163.83 Y134.38
G1 F1800 X171.38 Y126.83 E981.06556
G0 F12000 X172.04 Y126.83
G1 F1800 X163.83 Y135.04 E981.51548
G0 F12000 X163.83 Y135.70
G1 F1800 X172.70 Y126.83 E982.00151
G0 F12000 X173.36 Y126.83
G1 F1800 X163.83 Y136.36 E982.52365
G0 F12000 X163.83 Y137.02
G1 F1800 X174.01 Y126.83 E983.08190
G0 F12000 X174.67 Y126.83
G1 F1800 X169.33 Y132.17 E983.37464
G0 F12000 X169.17 Y132.33
G1 F1800 X163.83 Y137.68 E983.66734
G0 F12000 X163.83 Y138.33
G1 F1800 X169.17 Y132.99 E983.96004
G0 F12000 X169.17 Y133.65
G1 F1800 X163.83 Y138.99 E984.25275
G0 F12000 X163.83 Y139.65
G1 F1800 X169.17 Y134.31 E984.54545
G0 F12000 X169.17 Y134.97
G1 F1800 X163.97 Y140.17 E984.83048
G0 F12000 X164.63 Y140.17
G1 F1800 X169.17 Y135.63 E985.07940
G0 F12000 X169.17 Y136.29
G1 F1800 X165.29 Y140.17 E985.29221
G0 F12000 X165.94 Y140.17
G1 F1800 X169.17 Y136.95 E985.46891
G0 F12000 X169.17 Y137.60
G1 F1800 X166.60 Y140.17 E985.60949
G0 F12000 X167.26 Y140.17
G1 F1800 X169.17 Y138.26 E985.71396
G0 F12000 X169.17 Y138.92
G1 F1800 X167.92 Y140.17 E985.78232
G0 F12000 X168.58 Y140.17
G1 F1800 X169.17 Y139.58 E985.81457
G0 F12000 X169.99 Y132.17
G1 F1800 X175.33 Y126.83 E986.10730
G0 F12000 X175.99 Y126.83
G1 F1800 X170.65 Y132.17 E986.40003
G0 F12000 X171.31 Y132.17
G1 F1800 X176.65 Y126.83 E986.69277
G0 F12000 X177.17 Y126.97
G1 F1800 X171.97 Y132.17 E986.97777
G0 F12000 X172.63 Y132.17
G1 F1800 X177.17 Y127.63 E987.22666
G0 F12000 X177.17 Y128.29
G1 F1800 X173.29 Y132.17 E987.43944
G0 F12000 X173.94 Y132.17
G1 F1800 X177.17 Y128.95 E987.61611
G0 F12000 X177.17 Y129.60
G1 F1800 X174.60 Y132.17 E987.75667
G0 F12000 X175.26 Y132.17
G1 F1800 X177.17 Y130.26 E987.86111
G0 F12000 X177.17 Y130.92
G1 F1800 X175.92 Y132.17 E987.92945
G0 F12000 X176.58 Y132.17
G1 F1800 X177.17 Y131.58 E987.96167
G1 F2400 E986.76167
G0 F12000 X143.34 Y164.66
;TYPE:WALL-INNER
G1 F2400 E987.96167
G1 F1800 X143.34 Y172.66 E988.27165
G1 X151.34 Y172.66 E988.58164
G1 X151.34 Y178.34 E988.80134
G1 X129.66 Y178.34 E989.64101
G1 X129.66 Y172.66 E989.86071
G1 X137.66 Y172.66 E990.17070
G1 X137.66 Y164.66 E990.48068
G1 X143.34 Y164.66 E990.70038
G0 F12000 X143.80 Y164.20
G1 F1800 X143.80 Y172.20 E991.01037
G1 X151.80 Y172.20 E991.32035
G1 X151.80 Y178.80 E991.57617
G1 X129.20 Y178.80 E992.45195
G1 X129.20 Y172.20 E992.70776
G1 X137.20 Y172.20 E993.01775
G1 X137.20 Y164.20 E993.32773
G1 X143.80 Y164.20 E993.58355
G0 F12000 X144.27 Y163.73
;TYPE:WALL-OUTER
G1 F1800 X144.27 Y171.73 E993.89353
G1 X152.27 Y171.73 E994.20352
G1 X152.27 Y179.27 E994.49544
G1 X128.73 Y179.27 E995.40734
G1 X128.73 Y171.73 E995.69927
G1 X136.73 Y171.73 E996.00925
G1 X136.73 Y163.73 E996.31924
G1 X144.27 Y163.73 E996.61117
G0 F12000 X143.93 Y163.98
G0 X143.17 Y164.92
;TYPE:FILL
G1 F1800 X137.83 Y170.26 E996.90387
G0 F12000 X137.83 Y170.92
G1 F1800 X143.17 Y165.58 E997.19657
G0 F12000 X143.17 Y166.24
G1 F1800 X137.83 Y171.58 E997.48928
G0 F12000 X137.83 Y172.24
G1 F1800 X143.17 Y166.90 E997.78198
G0 F12000 X143.17 Y167.56
G1 F1800 X132.56 Y178.17 E998.36344
G0 F12000 X133.22 Y178.17
G1 F1800 X143.17 Y168.22 E998.90879
G0 F12000 X143.17 Y168.88
G1 F1800 X133.88 Y178.17 E999.41803
G0 F12000 X134.54 Y178.17
G1 F1800 X143.17 Y169.53 E999.89116
G0 F12000 X143.17 Y170.19
G1 F1800 X135.19 Y178.17 E1000.32817
G0 F12000 X135.85 Y178.17
G1 F1800 X143.17 Y170.85 E1000.72905
G0 F12000 X143.17 Y171.51
G1 F1800 X136.51 Y178.17 E1001.09381
G0 F12000 X137.17 Y178.17
G1 F1800 X143.17 Y172.17 E1001.42243
G0 F12000 X143.17 Y172.83
G1 F1800 X137.83 Y178.17 E1001.71511
G0 F12000 X138.49 Y178.17
G1 F1800 X143.83 Y172.83 E1002.00778
G0 F12000 X144.49 Y172.83
G1 F1800 X139.15 Y178.17 E1002.30046
G0 F12000 X139.81 Y178.17
G1 F1800 X145.15 Y172.83 E1002.59314
G0 F12000 X145.81 Y172.83
G1 F1800 X140.47 Y178.17 E1002.88581
G0 F12000 X141.13 Y178.17
G1 F1800 X146.47 Y172.83 E1003.17849
G0 F12000 X147.13 Y172.83
G1 F1800 X141.79 Y178.17 E1003.47117
G0 F12000 X142.44 Y178.17
G1 F1800 X147.79 Y172.83 E1003.76384
G0 F12000 X148.44 Y172.83
G1 F1800 X143.10 Y178.17 E1004.05652
G0 F12000 X143.76 Y178.17
G1 F1800 X149.10 Y172.83 E1004.34919
G0 F12000 X149.76 Y172.83
G1 F1800 X144.42 Y178.17 E1004.64187
G0 F12000 X145.08 Y178.17
G1 F1800 X150.42 Y172.83 E1004.93455
G0 F12000 X151.08 Y172.83
G1 F1800 X145.74 Y178.17 E1005.22722
G0 F12000 X146.40 Y178.17
G1 F1800 X151.17 Y173.40 E1005.48866
G0 F12000 X151.17 Y174.06
G1 F1800 X147.06 Y178.17 E1005.71399
G0 F12000 X147.72 Y178.17
G1 F1800 X151.17 Y174.72 E1005.90321
G0 F12000 X151.17 Y175.38
G1 F1800 X148.38 Y178.17 E1006.05632
G0 F12000 X149.03 Y178.17
G1 F1800 X151.17 Y176.03 E1006.17331
G0 F12000 X151.17 Y176.69
G1 F1800 X149.69 Y178.17 E1006.25419
G0 F12000 X150.35 Y178.17
G1 F1800 X151.17 Y177.35 E1006.29896
G0 F12000 X151.17 Y178.01
G1 F1800 X151.01 Y178.17 E1006.30762
G0 F12000 X137.24 Y172.83
G1 F1800 X131.90 Y178.17 E1006.60033
G0 F12000 X131.24 Y178.17
G1 F1800 X136.58 Y172.83 E1006.89303
G0 F12000 X135.92 Y172.83
G1 F1800 X130.58 Y178.17 E1007.18573
G0 F12000 X129.92 Y178.17
G1 F1800 X135.26 Y172.83 E1007.47844
G0 F12000 X134.61 Y172.83
G1 F1800 X129.83 Y177.60 E1007.74021
G0 F12000 X129.83 Y176.95
G1 F1800 X133.95 Y172.83 E1007.96586
G0 F12000 X133.29 Y172.83
G1 F1800 X129.83 Y176.29 E1008.15541
G0 F12000 X129.83 Y175.63
G1 F1800 X132.63 Y172.83 E1008.30885
G0 F12000 X131.97 Y172.83
G1 F1800 X129.83 Y174.97 E1008.42617
G0 F12000 X129.83 Y174.31
G1 F1800 X131.31 Y172.83 E1008.50738
G0 F12000 X130.65 Y172.83
G1 F1800 X129.83 Y173.65 E1008.55248
G0 F12000 X129.83 Y172.99
G1 F1800 X129.99 Y172.83 E1008.56146
G0 F12000 X137.11 Y172.11
G0 X137.83 Y169.60
G1 F1800 X142.61 Y164.83 E1008.82323
G0 F12000 X141.95 Y164.83
G1 F1800 X137.83 Y168.95 E1009.04889
G0 F12000 X137.83 Y168.29
G1 F1800 X141.29 Y164.83 E1009.23844
G0 F12000 X140.63 Y164.83
G1 F1800 X137.83 Y167.63 E1009.39187
G0 F12000 X137.83 Y166.97
G1 F1800 X139.97 Y164.83 E1009.50920
G0 F12000 X139.31 Y164.83
G1 F1800 X137.83 Y166.31 E1009.59041
G0 F12000 X137.83 Y165.65
G1 F1800 X138.65 Y164.83 E1009.63551
G0 F12000 X137.99 Y164.83
G1 F1800 X137.83 Y164.99 E1009.64449
G1 F2400 E1008.44449
G0 F12000 X133.34 Y166.34
;TYPE:WALL-INNER
G1 F2400 E1009.64449
G1 F1800 X127.67 Y166.34 E1009.86419
G1 X127.67 Y128.66 E1011.32383
G1 X133.34 Y128.66 E1011.54353
G1 X133.34 Y166.34 E1013.00317
G0 F12000 X133.80 Y166.80
G1 F1800 X127.20 Y166.80 E1013.25899
G1 X127.20 Y128.20 E1014.75474
G1 X133.80 Y128.20 E1015.01056
G1 X133.80 Y166.80 E1016.50631
G0 F12000 X134.27 Y167.27
;TYPE:WALL-OUTER
G1 F1800 X126.73 Y167.27 E1016.79824
G1 X126.73 Y127.73 E1018.33010
G1 X134.27 Y127.73 E1018.62203
G1 X134.27 Y167.27 E1020.15390
G0 F12000 X133.93 Y167.02
G0 X132.70 Y166.17
;TYPE:FILL
G1 F1800 X133.17 Y165.70 E1020.17982
G0 F12000 X133.17 Y165.04
G1 F1800 X132.04 Y166.17 E1020.24185
G0 F12000 X131.38 Y166.17
G1 F1800 X133.17 Y164.38 E1020.34002
G0 F12000 X133.17 Y163.72
G1 F1800 X130.72 Y166.17 E1020.47430
G0 F12000 X130.06 Y166.17
G1 F1800 X133.17 Y163.06 E1020.64472
G0 F12000 X133.17 Y162.40
G1 F1800 X129.40 Y166.17 E1020.85126
G0 F12000 X128.74 Y166.17
G1 F1800 X133.17 Y161.74 E1021.09390
G0 F12000 X133.17 Y161.08
G1 F1800 X128.08 Y166.17 E1021.37266
G0 F12000 X127.83 Y165.76
G1 F1800 X133.17 Y160.42 E1021.66533
G0 F12000 X133.17 Y159.76
G1 F1800 X127.83 Y165.11 E1021.95801
G0 F12000 X127.83 Y164.45
G1 F1800 X133.17 Y159.11 E1022.25069
G0 F12000 X133.17 Y158.45
G1 F1800 X127.83 Y163.79 E1022.54336
G0 F12000 X127.83 Y163.13
G1 F1800 X133.17 Y157.79 E1022.83604
G0 F12000 X133.17 Y157.13
G1 F1800 X127.83 Y162.47 E1023.12872
G0 F12000 X127.83 Y161.81
G1 F1800 X133.17 Y156.47 E1023.42139
G0 F12000 X133.17 Y155.81
G1 F1800 X127.83 Y161.15 E1023.71407
G0 F12000 X127.83 Y160.49
G1 F1800 X133.17 Y155.15 E1024.00675
G0 F12000 X133.17 Y154.49
G1 F1800 X127.83 Y159.83 E1024.29942
G0 F12000 X127.83 Y159.18
G1 F1800 X133.17 Y153.83 E1024.59210
G0 F12000 X133.17 Y153.18
G1 F1800 X127.83 Y158.52 E1024.88477
G0 F12000 X127.83 Y157.86
G1 F1800 X133.17 Y152.52 E1025.17745
G0 F12000 X133.17 Y151.86
G1 F1800 X127.83 Y157.20 E1025.47013
G0 F12000 X127.83 Y156.54
G1 F1800 X133.17 Y151.20 E1025.76280
G0 F12000 X133.17 Y150.54
G1 F1800 X127.83 Y155.88 E1026.05548
G0 F12000 X127.83 Y155.22
G1 F1800 X133.17 Y149.88 E1026.34816
G0 F12000 X133.17 Y149.22
G1 F1800 X127.83 Y154.56 E1026.64083
G0 F12000 X127.83 Y153.90
G1 F1800 X133.17 Y148.56 E1026.93351
G0 F12000 X133.17 Y147.90
G1 F1800 X127.83 Y153.24 E1027.22618
G0 F12000 X127.83 Y152.59
G1 F1800 X133.17 Y147.24 E1027.51886
G0 F12000 X133.17 Y146.59
G1 F1800 X127.83 Y151.93 E1027.81154
G0 F12000 X127.83 Y151.27
G1 F1800 X133.17 Y145.93 E1028.10421
G0 F12000 X133.17 Y145.27
G1 F1800 X127.83 Y150.61 E1028.39689
G0 F12000 X127.83 Y149.95
G1 F1800 X133.17 Y144.61 E1028.68957
G0 F12000 X133.17 Y143.95
G1 F1800 X127.83 Y149.29 E1028.98224
G0 F12000 X127.83 Y148.63
G1 F1800 X133.17 Y143.29 E1029.27492
G0 F12000 X133.17 Y142.63
G1 F1800 X127.83 Y147.97 E1029.56757
G0 F12000 X127.83 Y147.31
G1 F1800 X133.17 Y141.97 E1029.86022
G0 F12000 X133.17 Y141.31
G1 F1800 X127.83 Y146.65 E1030.15286
G0 F12000 X127.83 Y145.99
G1 F1800 X133.17 Y140.65 E1030.44551
G0 F12000 X133.17 Y140.00
G1 F1800 X127.83 Y145.34 E1030.73816
G0 F12000 X127.83 Y144.68
G1 F1800 X133.17 Y139.34 E1031.03081
G0 F12000 X133.17 Y138.68
G1 F1800 X127.83 Y144.02 E1031.32346
G0 F12000 X127.83 Y143.36
G1 F1800 X133.17 Y138.02 E1031.61611
G0 F12000 X133.17 Y137.36
G1 F1800 X127.83 Y142.70 E1031.90876
G0 F12000 X127.83 Y142.04
G1 F1800 X133.17 Y136.70 E1032.20141
G0 F12000 X133.17 Y136.04
G1 F1800 X127.83 Y141.38 E1032.49408
G0 F12000 X127.83 Y140.72
G1 F1800 X133.17 Y135.38 E1032.78676
G0 F12000 X133.17 Y134.72
G1 F1800 X127.83 Y140.06 E1033.07944
G0 F12000 X127.83 Y139.40
G1 F1800 X133.17 Y134.06 E1033.37211
G0 F12000 X133.17 Y133.40
G1 F1800 X127.83 Y138.75 E1033.66479
G0 F12000 X127.83 Y138.09
G1 F1800 X133.17 Y132.75 E1033.95746
G0 F12000 X133.17 Y132.09
G1 F1800 X127.83 Y137.43 E1034.25014
G0 F12000 X127.83 Y136.77
G1 F1800 X133.17 Y131.43 E1034.54282
G0 F12000 X133.17 Y130.77
G1 F1800 X127.83 Y136.11 E1034.83549
G0 F12000 X127.83 Y135.45
G1 F1800 X133.17 Y130.11 E1035.12817
G0 F12000 X133.17 Y129.45
G1 F1800 X127.83 Y134.79 E1035.42085
G0 F12000 X127.83 Y134.13
G1 F1800 X133.13 Y128.83 E1035.71149
G0 F12000 X132.47 Y128.83
G1 F1800 X127.83 Y133.47 E1035.96603
G0 F12000 X127.83 Y132.81
G1 F1800 X131.81 Y128.83 E1036.18446
G0 F12000 X131.16 Y128.83
G1 F1800 X127.83 Y132.16 E1036.36677
G0 F12000 X127.83 Y131.50
G1 F1800 X130.50 Y128.83 E1036.51297
G0 F12000 X129.84 Y128.83
G1 F1800 X127.83 Y130.84 E1036.62306
G0 F12000 X127.83 Y130.18
G1 F1800 X129.18 Y128.83 E1036.69704
G0 F12000 X128.52 Y128.83
G1 F1800 X127.83 Y129.52 E1036.73490
G1 F2400 E1035.53490
G0 F12000 X166.54 Y160.13
;TYPE:SUPPORT
G1 F2400 E1036.73490
G1 F1800 X166.54 Y168.17 E1037.04636
G0 F12000 X167.47 Y168.17
G1 F1800 X167.47 Y160.13 E1037.35782
G0 F12000 X168.41 Y160.13
G1 F1800 X168.41 Y168.17 E1037.66927
G0 F12000 X169.34 Y168.17
G1 F1800 X169.34 Y160.13 E1037.98073
G0 F12000 X170.27 Y160.13
G1 F1800 X170.27 Y168.17 E1038.29219
G0 F12000 X171.21 Y168.17
G1 F1800 X171.21 Y160.13 E1038.60364
G0 F12000 X172.14 Y160.13
G1 F1800 X172.14 Y168.17 E1038.91510
G0 F12000 X173.07 Y168.17
G1 F1800 X173.07 Y160.13 E1039.22656
G0 F12000 X174.00 Y160.13
G1 F1800 X174.00 Y168.17 E1039.53801
G0 F12000 X174.94 Y168.17
G1 F1800 X174.94 Y160.13 E1039.84947
;LAYER:2
G0 F12000 X174.02 Y158.93 Z0.70
G0 X173.34 Y158.34
;TYPE:WALL-INNER
G1 F1800 X167.66 Y158.34 E1040.06917
G1 X167.66 Y144.66 E1040.59886
G1 X173.34 Y144.66 E1040.81856
G1 X173.34 Y158.34 E1041.34825
G0 F12000 X173.80 Y158.80
G1 F1800 X167.20 Y158.80 E1041.60406
G1 X167.20 Y144.20 E1042.16986
G1 X173.80 Y144.20 E1042.42567
G1 X173.80 Y158.80 E1042.99147
G0 F12000 X174.27 Y159.27
;TYPE:WALL-OUTER
G1 F1800 X166.73 Y159.27 E1043.28340
G1 X166.73 Y143.73 E1043.88531
G1 X174.27 Y143.73 E1044.17724
G1 X174.27 Y159.27 E1044.77915
G0 F12000 X173.93 Y159.02
G0 X173.00 Y158.17
;TYPE:FILL
G1 F1800 X167.83 Y153.00 E1045.06246
G0 F12000 X167.83 Y153.66
G1 F1800 X172.34 Y158.17 E1045.30965
G0 F12000 X171.68 Y158.17
G1 F1800 X167.83 Y154.32 E1045.52074
G0 F12000 X167.83 Y154.98
G1 F1800 X171.02 Y158.17 E1045.69571
G0 F12000 X170.36 Y158.17
G1 F1800 X167.83 Y155.64 E1045.83456
G0 F12000 X167.83 Y156.29
G1 F1800 X169.70 Y158.17 E1045.93731
G0 F12000 X169.04 Y158.17
G1 F1800 X167.83 Y156.95 E1046.00394
G0 F12000 X167.83 Y157.61
G1 F1800 X168.38 Y158.17 E1046.03447
G0 F12000 X173.17 Y157.68
G1 F1800 X167.83 Y152.34 E1046.32720
G0 F12000 X167.83 Y151.68
G1 F1800 X173.17 Y157.02 E1046.61993
G0 F12000 X173.17 Y156.37
G1 F1800 X167.83 Y151.02 E1046.91266
G0 F12000 X167.83 Y150.36
G1 F1800 X173.17 Y155.71 E1047.20539
G0 F12000 X173.17 Y155.05
G1 F1800 X167.83 Y149.71 E1047.49812
G0 F12000 X167.83 Y149.05
G1 F1800 X173.17 Y154.39 E1047.79085
G0 F12000 X173.17 Y153.73
G1 F1800 X167.83 Y148.39 E1048.08358
G0 F12000 X167.83 Y147.73
G1 F1800 X173.17 Y153.07 E1048.37632
G0 F12000 X173.17 Y152.41
G1 F1800 X167.83 Y147.07 E1048.66905
G0 F12000 X167.83 Y146.41
G1 F1800 X173.17 Y151.75 E1048.96181
G0 F12000 X173.17 Y151.09
G1 F1800 X167.83 Y145.75 E1049.25456
G0 F12000 X167.83 Y145.09
G1 F1800 X173.17 Y150.43 E1049.54732
G0 F12000 X173.17 Y149.78
G1 F1800 X168.22 Y144.83 E1049.81838
G0 F12000 X168.88 Y144.83
G1 F1800 X173.17 Y149.12 E1050.05333
G0 F12000 X173.17 Y148.46
G1 F1800 X169.54 Y144.83 E1050.25216
G0 F12000 X170.20 Y144.83
G1 F1800 X173.17 Y147.80 E1050.41488
G0 F12000 X173.17 Y147.14
G1 F1800 X170.86 Y144.83 E1050.54150
G0 F12000 X171.52 Y144.83
G1 F1800 X173.17 Y146.48 E1050.63197
G0 F12000 X173.17 Y145.82
G1 F1800 X172.18 Y144.83 E1050.68633
G0 F12000 X172.84 Y144.83
G1 F1800 X173.17 Y145.16 E1050.70457
G1 F2400 E1049.50457
G0 F12000 X163.34 Y156.66
;TYPE:WALL-INNER
G1 F2400 E1050.70457
G1 F1800 X163.34 Y172.66 E1051.32454
G1 X171.34 Y172.66 E1051.63453
G1 X171.34 Y178.34 E1051.85423
G1 X157.66 Y178.34 E1052.38392
G1 X157.66 Y156.66 E1053.22359
G1 X163.34 Y156.66 E1053.44329
G0 F12000 X163.80 Y156.20
G1 F1800 X163.80 Y172.20 E1054.06326
G1 X171.80 Y172.20 E1054.37324
G1 X171.80 Y178.80 E1054.62906
G1 X157.20 Y178.80 E1055.19485
G1 X157.20 Y156.20 E1056.07064
G1 X163.80 Y156.20 E1056.32645
G0 F12000 X164.27 Y155.73
;TYPE:WALL-OUTER
G1 F1800 X164.27 Y171.73 E1056.94642
G1 X172.27 Y171.73 E1057.25641
G1 X172.27 Y179.27 E1057.54833
G1 X156.73 Y179.27 E1058.15025
G1 X156.73 Y155.73 E1059.06214
G1 X164.27 Y155.73 E1059.35407
G0 F12000 X163.93 Y155.98
G0 X163.17 Y156.91
;TYPE:FILL
G1 F1800 X163.09 Y156.83 E1059.35848
G0 F12000 X162.43 Y156.83
G1 F1800 X163.17 Y157.57 E1059.39901
G0 F12000 X163.17 Y158.23
G1 F1800 X161.77 Y156.83 E1059.47564
G0 F12000 X161.11 Y156.83
G1 F1800 X163.17 Y158.89 E1059.58839
G0 F12000 X163.17 Y159.54
G1 F1800 X160.45 Y156.83 E1059.73725
G0 F12000 X159.79 Y156.83
G1 F1800 X163.17 Y160.20 E1059.92222
G0 F12000 X163.17 Y160.86
G1 F1800 X159.13 Y156.83 E1060.14330
G0 F12000 X158.48 Y156.83
G1 F1800 X163.17 Y161.52 E1060.40049
G0 F12000 X163.17 Y162.18
G1 F1800 X157.83 Y156.84 E1060.69325
G0 F12000 X157.83 Y157.50
G1 F1800 X163.17 Y162.84 E1060.98601
G0 F12000 X163.17 Y163.50
G1 F1800 X157.83 Y158.16 E1061.27877
G0 F12000 X157.83 Y158.82
G1 F1800 X163.17 Y164.16 E1061.57153
G0 F12000 X163.17 Y164.82
G1 F1800 X157.83 Y159.47 E1061.86429
G0 F12000 X157.83 Y160.13
G1 F1800 X163.17 Y165.48 E1062.15704
G0 F12000 X163.17 Y166.14
G1 F1800 X157.83 Y160.79 E1062.44980
G0 F12000 X157.83 Y161.45
G1 F1800 X163.17 Y166.79 E1062.74256
G0 F12000 X163.17 Y167.45
G1 F1800 X157.83 Y162.11 E1063.03529
G0 F12000 X157.83 Y162.77
G1 F1800 X163.17 Y168.11 E1063.32802
G0 F12000 X163.17 Y168.77
G1 F1800 X157.83 Y163.43 E1063.62075
G0 F12000 X157.83 Y164.09
G1 F1800 X163.17 Y169.43 E1063.91349
G0 F12000 X163.17 Y170.09
G1 F1800 X157.83 Y164.75 E1064.20622
G0 F12000 X157.83 Y165.41
G1 F1800 X163.17 Y170.75 E1064.49895
G0 F12000 X163.17 Y171.41
G1 F1800 X157.83 Y166.07 E1064.79168
G0 F12000 X157.83 Y166.72
G1 F1800 X163.17 Y172.07 E1065.08441
G0 F12000 X163.17 Y172.73
G1 F1800 X157.83 Y167.38 E1065.37714
G0 F12000 X157.83 Y168.04
G1 F1800 X167.95 Y178.17 E1065.93203
G0 F12000 X167.29 Y178.17
G1 F1800 X157.83 Y168.70 E1066.45080
G0 F12000 X157.83 Y169.36
G1 F1800 X166.64 Y178.17 E1066.93346
G0 F12000 X165.98 Y178.17
G1 F1800 X157.83 Y170.02 E1067.38001
G0 F12000 X157.83 Y170.68
G1 F1800 X165.32 Y178.17 E1067.79045
G0 F12000 X164.66 Y178.17
G1 F1800 X157.83 Y171.34 E1068.16477
G0 F12000 X157.83 Y172.00
G1 F1800 X164.00 Y178.17 E1068.50299
G0 F12000 X163.34 Y178.17
G1 F1800 X157.83 Y172.66 E1068.80509
G0 F12000 X157.83 Y173.31
G1 F1800 X162.68 Y178.17 E1069.07108
G0 F12000 X162.02 Y178.17
G1 F1800 X157.83 Y173.97 E1069.30095
G0 F12000 X157.83 Y174.63
G1 F1800 X161.36 Y178.17 E1069.49472
G0 F12000 X160.71 Y178.17
G1 F1800 X157.83 Y175.29 E1069.65237
G0 F12000 X157.83 Y175.95
G1 F1800 X160.05 Y178.17 E1069.77392
G0 F12000 X159.39 Y178.17
G1 F1800 X157.83 Y176.61 E1069.85935
G0 F12000 X157.83 Y177.27
G1 F1800 X158.73 Y178.17 E1069.90866
G0 F12000 X158.07 Y178.17
G1 F1800 X157.83 Y177.93 E1069.92187
G0 F12000 X163.27 Y172.83
G1 F1800 X168.61 Y178.17 E1070.21455
G0 F12000 X169.27 Y178.17
G1 F1800 X163.93 Y172.83 E1070.50722
G0 F12000 X164.59 Y172.83
G1 F1800 X169.93 Y178.17 E1070.79990
G0 F12000 X170.59 Y178.17
G1 F1800 X165.25 Y172.83 E1071.09258
G0 F12000 X165.91 Y172.83
G1 F1800 X171.17 Y178.09 E1071.38098
G0 F12000 X171.17 Y177.43
G1 F1800 X166.57 Y172.83 E1071.63327
G0 F12000 X167.23 Y172.83
G1 F1800 X171.17 Y176.77 E1071.84945
G0 F12000 X171.17 Y176.11
G1 F1800 X167.88 Y172.83 E1072.02951
G0 F12000 X168.54 Y172.83
G1 F1800 X171.17 Y175.46 E1072.17347
G0 F12000 X171.17 Y174.80
G1 F1800 X169.20 Y172.83 E1072.28131
G0 F12000 X169.86 Y172.83
G1 F1800 X171.17 Y174.14 E1072.35304
G0 F12000 X171.17 Y173.48
G1 F1800 X170.52 Y172.83 E1072.38866
G1 F2400 E1071.18866
G0 F12000 X153.34 Y168.34
;TYPE:WALL-INNER
G1 F2400 E1072.38866
G1 F1800 X147.66 Y168.34 E1072.60836
G1 X147.66 Y160.34 E1072.91834
G1 X139.66 Y160.34 E1073.22833
G1 X139.66 Y154.66 E1073.44803
G1 X147.66 Y154.66 E1073.75801
G1 X147.66 Y146.66 E1074.06800
G1 X161.34 Y146.66 E1074.59769
G1 X161.34 Y152.34 E1074.81739
G1 X153.34 Y152.34 E1075.12737
G1 X153.34 Y168.34 E1075.74734
G0 F12000 X153.80 Y168.80
G1 F1800 X147.20 Y168.80 E1076.00315
G1 X147.20 Y160.80 E1076.31314
G1 X139.20 Y160.80 E1076.62312
G1 X139.20 Y154.20 E1076.87894
G1 X147.20 Y154.20 E1077.18892
G1 X147.20 Y146.20 E1077.49891
G1 X161.80 Y146.20 E1078.06471
G1 X161.80 Y152.80 E1078.32052
G1 X153.80 Y152.80 E1078.63051
G1 X153.80 Y168.80 E1079.25047
G0 F12000 X154.27 Y169.27
;TYPE:WALL-OUTER
G1 F1800 X146.73 Y169.27 E1079.54240
G1 X146.73 Y161.27 E1079.85239
G1 X138.73 Y161.27 E1080.16237
G1 X138.73 Y153.73 E1080.45430
G1 X146.73 Y153.73 E1080.76428
G1 X146.73 Y145.73 E1081.07427
G1 X162.27 Y145.73 E1081.67618
G1 X162.27 Y153.27 E1081.96811
G1 X154.27 Y153.27 E1082.27809
G1 X154.27 Y169.27 E1082.89806
G0 F12000 X153.93 Y169.02
G0 X153.17 Y168.00
;TYPE:FILL
G1 F1800 X147.83 Y162.66 E1083.19085
G0 F12000 X147.83 Y163.31
G1 F1800 X152.68 Y168.17 E1083.45684
G0 F12000 X152.02 Y168.17
G1 F1800 X147.83 Y163.97 E1083.68671
G0 F12000 X147.83 Y164.63
G1 F1800 X151.36 Y168.17 E1083.88048
G0 F12000 X150.71 Y168.17
G1 F1800 X147.83 Y165.29 E1084.03813
G0 F12000 X147.83 Y165.95
G1 F1800 X150.05 Y168.17 E1084.15968
G0 F12000 X149.39 Y168.17
G1 F1800 X147.83 Y166.61 E1084.24511
G0 F12000 X147.83 Y167.27
G1 F1800 X148.73 Y168.17 E1084.29443
G0 F12000 X148.07 Y168.17
G1 F1800 X147.83 Y167.93 E1084.30763
G0 F12000 X153.17 Y167.34
G1 F1800 X147.83 Y162.00 E1084.60042
G0 F12000 X147.83 Y161.34
G1 F1800 X153.17 Y166.68 E1084.89320
G0 F12000 X153.17 Y166.02
G1 F1800 X147.83 Y160.68 E1085.18599
G0 F12000 X147.32 Y160.17
G1 F1800 X141.98 Y154.83 E1085.47872
G0 F12000 X141.32 Y154.83
G1 F1800 X146.66 Y160.17 E1085.77145
G0 F12000 X146.00 Y160.17
G1 F1800 X140.66 Y154.83 E1086.06418
G0 F12000 X140.00 Y154.83
G1 F1800 X145.34 Y160.17 E1086.35691
G0 F12000 X144.68 Y160.17
G1 F1800 X139.83 Y155.32 E1086.62293
G0 F12000 X139.83 Y155.97
G1 F1800 X144.02 Y160.17 E1086.85284
G0 F12000 X143.37 Y160.17
G1 F1800 X139.83 Y156.63 E1087.04663
G0 F12000 X139.83 Y157.29
G1 F1800 X142.71 Y160.17 E1087.20431
G0 F12000 X142.05 Y160.17
G1 F1800 X139.83 Y157.95 E1087.32588
G0 F12000 X139.83 Y158.61
G1 F1800 X141.39 Y160.17 E1087.41134
G0 F12000 X140.73 Y160.17
G1 F1800 X139.83 Y159.27 E1087.46068
G0 F12000 X139.83 Y159.93
G1 F1800 X140.07 Y160.17 E1087.47392
G0 F12000 X142.64 Y154.83
G1 F1800 X153.17 Y165.36 E1088.05121
G0 F12000 X153.17 Y164.70
G1 F1800 X143.29 Y154.83 E1088.59240
G0 F12000 X143.95 Y154.83
G1 F1800 X153.17 Y164.04 E1089.09747
G0 F12000 X153.17 Y163.39
G1 F1800 X144.61 Y154.83 E1089.56643
G0 F12000 X145.27 Y154.83
G1 F1800 X153.17 Y162.73 E1089.99928
G0 F12000 X153.17 Y162.07
G1 F1800 X145.93 Y154.83 E1090.39602
G0 F12000 X146.59 Y154.83
G1 F1800 X153.17 Y161.41 E1090.75665
G0 F12000 X153.17 Y160.75
G1 F1800 X147.25 Y154.83 E1091.08116
G0 F12000 X147.83 Y154.75
G1 F1800 X153.17 Y160.09 E1091.37395
G0 F12000 X153.17 Y159.43
G1 F1800 X147.83 Y154.09 E1091.66673
G0 F12000 X147.83 Y153.43
G1 F1800 X153.17 Y158.77 E1091.95952
G0 F12000 X153.17 Y158.11
G1 F1800 X147.83 Y152.77 E1092.25230
G0 F12000 X147.83 Y152.11
G1 F1800 X153.17 Y157.46 E1092.54509
G0 F12000 X153.17 Y156.79
G1 F1800 X147.83 Y151.45 E1092.83785
G0 F12000 X147.83 Y150.79
G1 F1800 X153.17 Y156.14 E1093.13061
G0 F12000 X153.17 Y155.48
G1 F1800 X147.83 Y150.13 E1093.42337
G0 F12000 X147.83 Y149.48
G1 F1800 X153.17 Y154.82 E1093.71612
G0 F12000 X153.17 Y154.16
G1 F1800 X147.83 Y148.82 E1094.00891
G0 F12000 X147.83 Y148.16
G1 F1800 X153.17 Y153.50 E1094.30170
G0 F12000 X153.17 Y152.84
G1 F1800 X147.83 Y147.50 E1094.59448
G0 F12000 X147.83 Y146.84
G1 F1800 X153.17 Y152.18 E1094.88727
G0 F12000 X153.82 Y152.17
G1 F1800 X148.48 Y146.83 E1095.18000
G0 F12000 X149.13 Y146.83
G1 F1800 X154.48 Y152.17 E1095.47273
G0 F12000 X155.14 Y152.17
G1 F1800 X149.79 Y146.83 E1095.76546
G0 F12000 X150.45 Y146.83
G1 F1800 X155.79 Y152.17 E1096.05819
G0 F12000 X156.45 Y152.17
G1 F1800 X151.11 Y146.83 E1096.35092
G0 F12000 X151.77 Y146.83
G1 F1800 X157.11 Y152.17 E1096.64365
G0 F12000 X157.77 Y152.17
G1 F1800 X152.43 Y146.83 E1096.93639
G0 F12000 X153.09 Y146.83
G1 F1800 X158.43 Y152.17 E1097.22912
G0 F12000 X159.09 Y152.17
G1 F1800 X153.75 Y146.83 E1097.52185
G0 F12000 X154.41 Y146.83
G1 F1800 X159.75 Y152.17 E1097.81458
G0 F12000 X160.41 Y152.17
G1 F1800 X155.07 Y146.83 E1098.10731
G0 F12000 X155.72 Y146.83
G1 F1800 X161.07 Y152.17 E1098.40004
G0 F12000 X161.17 Y151.61
G1 F1800 X156.38 Y146.83 E1098.66230
G0 F12000 X157.04 Y146.83
G1 F1800 X161.17 Y150.96 E1098.88846
G0 F12000 X161.17 Y150.30
G1 F1800 X157.70 Y146.83 E1099.07849
G0 F12000 X158.36 Y146.83
G1 F1800 X161.17 Y149.64 E1099.23242
G0 F12000 X161.17 Y148.98
G1 F1800 X159.02 Y146.83 E1099.35024
G0 F12000 X159.68 Y146.83
G1 F1800 X161.17 Y148.32 E1099.43194
G0 F12000 X161.17 Y147.66
G1 F1800 X160.34 Y146.83 E1099.47753
G0 F12000 X161.00 Y146.83
G1 F1800 X161.17 Y147.00 E1099.48701
G1 F2400 E1098.28701
G0 F12000 X159.34 Y142.34
;TYPE:WALL-INNER
G1 F2400 E1099.48701
G1 F1800 X143.34 Y142.34 E1100.10694
G1 X143.34 Y150.34 E1100.41693
G1 X137.66 Y150.34 E1100.63667
G1 X137.66 Y128.66 E1101.47634
G1 X143.34 Y128.66 E1101.69608
G1 X143.34 Y136.66 E1102.00606
G1 X159.34 Y136.66 E1102.62599
G1 X159.34 Y142.34 E1102.84570
G0 F12000 X159.80 Y142.80
G1 F1800 X143.80 Y142.80 E1103.46563
G1 X143.80 Y150.80 E1103.77561
G1 X137.20 Y150.80 E1104.03146
G1 X137.20 Y128.20 E1104.90725
G1 X143.80 Y128.20 E1105.16310
G1 X143.80 Y136.20 E1105.47309
G1 X159.80 Y136.20 E1106.09302
G1 X159.80 Y142.80 E1106.34883
G0 F12000 X160.27 Y143.27
;TYPE:WALL-OUTER
G1 F1800 X144.27 Y143.27 E1106.96876
G1 X144.27 Y151.27 E1107.27874
G1 X136.73 Y151.27 E1107.57071
G1 X136.73 Y127.73 E1108.48261
G1 X144.27 Y127.73 E1108.77457
G1 X144.27 Y135.73 E1109.08456
G1 X160.27 Y135.73 E1109.70449
G1 X160.27 Y143.27 E1109.99642
G0 F12000 X159.93 Y143.02
G0 X158.97 Y142.17
;TYPE:FILL
G1 F1800 X153.63 Y136.83 E1110.28915
G0 F12000 X152.97 Y136.83
G1 F1800 X158.32 Y142.17 E1110.58188
G0 F12000 X157.66 Y142.17
G1 F1800 X152.31 Y136.83 E1110.87461
G0 F12000 X151.66 Y136.83
G1 F1800 X157.00 Y142.17 E1111.16734
G0 F12000 X156.34 Y142.17
G1 F1800 X151.00 Y136.83 E1111.46007
G0 F12000 X150.34 Y136.83
G1 F1800 X155.68 Y142.17 E1111.75280
G0 F12000 X155.02 Y142.17
G1 F1800 X149.68 Y136.83 E1112.04553
G0 F12000 X149.02 Y136.83
G1 F1800 X154.36 Y142.17 E1112.33827
G0 F12000 X153.70 Y142.17
G1 F1800 X148.36 Y136.83 E1112.63100
G0 F12000 X147.70 Y136.83
G1 F1800 X153.04 Y142.17 E1112.92373
G0 F12000 X152.38 Y142.17
G1 F1800 X147.04 Y136.83 E1113.21646
G0 F12000 X146.38 Y136.83
G1 F1800 X151.73 Y142.17 E1113.50919
G0 F12000 X151.07 Y142.17
G1 F1800 X145.72 Y136.83 E1113.80192
G0 F12000 X145.07 Y136.83
G1 F1800 X150.41 Y142.17 E1114.09465
G0 F12000 X149.75 Y142.17
G1 F1800 X144.41 Y136.83 E1114.38738
G0 F12000 X143.75 Y136.83
G1 F1800 X149.09 Y142.17 E1114.68011
G0 F12000 X148.43 Y142.17
G1 F1800 X137.83 Y131.57 E1115.26117
G0 F12000 X137.83 Y132.23
G1 F1800 X147.77 Y142.17 E1115.80610
G0 F12000 X147.11 Y142.17
G1 F1800 X137.83 Y132.88 E1116.31493
G0 F12000 X137.83 Y133.54
G1 F1800 X146.45 Y142.17 E1116.78765
G0 F12000 X145.79 Y142.17
G1 F1800 X137.83 Y134.20 E1117.22425
G0 F12000 X137.83 Y134.86
G1 F1800 X145.14 Y142.17 E1117.62474
G0 F12000 X144.48 Y142.17
G1 F1800 X137.83 Y135.52 E1117.98912
G0 F12000 X137.83 Y136.18
G1 F1800 X143.82 Y142.17 E1118.31739
G0 F12000 X143.17 Y142.18
G1 F1800 X137.83 Y136.84 E1118.61020
G0 F12000 X137.83 Y137.50
G1 F1800 X143.17 Y142.84 E1118.90301
G0 F12000 X143.17 Y143.50
G1 F1800 X137.83 Y138.16 E1119.19583
G0 F12000 X137.83 Y138.82
G1 F1800 X143.17 Y144.16 E1119.48864
G0 F12000 X143.17 Y144.82
G1 F1800 X137.83 Y139.47 E1119.78148
G0 F12000 X137.83 Y140.13
G1 F1800 X143.17 Y145.48 E1120.07432
G0 F12000 X143.17 Y146.14
G1 F1800 X137.83 Y140.79 E1120.36716
G0 F12000 X137.83 Y141.45
G1 F1800 X143.17 Y146.80 E1120.66000
G0 F12000 X143.17 Y147.46
G1 F1800 X137.83 Y142.11 E1120.95284
G0 F12000 X137.83 Y142.77
G1 F1800 X143.17 Y148.11 E1121.24569
G0 F12000 X143.17 Y148.77
G1 F1800 X137.83 Y143.43 E1121.53853
G0 F12000 X137.83 Y144.09
G1 F1800 X143.17 Y149.43 E1121.83137
G0 F12000 X143.17 Y150.09
G1 F1800 X137.83 Y144.75 E1122.12421
G0 F12000 X137.83 Y145.41
G1 F1800 X142.59 Y150.17 E1122.38526
G0 F12000 X141.93 Y150.17
G1 F1800 X137.83 Y146.06 E1122.61021
G0 F12000 X137.83 Y146.72
G1 F1800 X141.27 Y150.17 E1122.79904
G0 F12000 X140.61 Y150.17
G1 F1800 X137.83 Y147.38 E1122.95177
G0 F12000 X137.83 Y148.04
G1 F1800 X139.96 Y150.17 E1123.06838
G0 F12000 X139.30 Y150.17
G1 F1800 X137.83 Y148.70 E1123.14888
G0 F12000 X137.83 Y149.36
G1 F1800 X138.64 Y150.17 E1123.19326
G0 F12000 X137.98 Y150.17
G1 F1800 X137.83 Y150.02 E1123.20154
G0 F12000 X143.17 Y136.25
G1 F1800 X137.83 Y130.91 E1123.49435
G0 F12000 X137.83 Y130.25
G1 F1800 X143.17 Y135.59 E1123.78716
G0 F12000 X143.17 Y134.93
G1 F1800 X137.83 Y129.59 E1124.07998
G0 F12000 X137.83 Y128.93
G1 F1800 X143.17 Y134.27 E1124.37279
G0 F12000 X143.17 Y133.62
G1 F1800 X138.38 Y128.83 E1124.63505
G0 F12000 X139.04 Y128.83
G1 F1800 X143.17 Y132.96 E1124.86120
G0 F12000 X143.17 Y132.30
G1 F1800 X139.70 Y128.83 E1125.05124
G0 F12000 X140.36 Y128.83
G1 F1800 X143.17 Y131.64 E1125.20517
G0 F12000 X143.17 Y130.98
G1 F1800 X141.02 Y128.83 E1125.32299
G0 F12000 X141.68 Y128.83
G1 F1800 X143.17 Y130.32 E1125.40469
G0 F12000 X143.17 Y129.66
G1 F1800 X142.34 Y128.83 E1125.45028
G0 F12000 X143.00 Y128.83
G1 F1800 X143.17 Y129.00 E1125.45976
G0 F12000 X143.89 Y136.11
G0 X154.29 Y136.83
G1 F1800 X159.17 Y141.71 E1125.72707
G0 F12000 X159.17 Y141.05
G1 F1800 X154.95 Y136.83 E1125.95826
G0 F12000 X155.61 Y136.83
G1 F1800 X159.17 Y140.39 E1126.15334
G0 F12000 X159.17 Y139.73
G1 F1800 X156.27 Y136.83 E1126.31231
G0 F12000 X156.93 Y136.83
G1 F1800 X159.17 Y139.07 E1126.43517
G0 F12000 X159.17 Y138.41
G1 F1800 X157.59 Y136.83 E1126.52191
G0 F12000 X158.25 Y136.83
G1 F1800 X159.17 Y137.75 E1126.57255
G0 F12000 X159.17 Y137.09
G1 F1800 X158.91 Y136.83 E1126.58707
G1 F2400 E1125.38707
G0 F12000 X163.66 Y140.34
;TYPE:WALL-INNER
G1 F2400 E1126.58707
G1 F1800 X163.66 Y132.34 E1126.89705
G1 X147.67 Y132.34 E1127.51698
G1 X147.67 Y126.67 E1127.73668
G1 X177.34 Y126.67 E1128.88630
G1 X177.34 Y132.34 E1129.10600
G1 X169.34 Y132.34 E1129.41599
G1 X169.34 Y140.34 E1129.72597
G1 X163.66 Y140.34 E1129.94567
G0 F12000 X163.20 Y140.80
G1 F1800 X163.20 Y132.80 E1130.25566
G1 X147.20 Y132.80 E1130.87559
G1 X147.20 Y126.20 E1131.13140
G1 X177.80 Y126.20 E1132.31713
G1 X177.80 Y132.80 E1132.57295
G1 X169.80 Y132.80 E1132.88293
G1 X169.80 Y140.80 E1133.19291
G1 X163.20 Y140.80 E1133.44873
G0 F12000 X162.73 Y141.27
;TYPE:WALL-OUTER
G1 F1800 X162.73 Y133.27 E1133.75871
G1 X146.73 Y133.27 E1134.37864
G1 X146.73 Y125.73 E1134.67057
G1 X178.27 Y125.73 E1135.89241
G1 X178.27 Y133.27 E1136.18434
G1 X170.27 Y133.27 E1136.49433
G1 X170.27 Y141.27 E1136.80431
G1 X162.73 Y141.27 E1137.09624
G0 F12000 X162.98 Y140.93
G0 X164.22 Y140.17
;TYPE:FILL
G1 F1800 X163.83 Y139.77 E1137.11797
G0 F12000 X163.83 Y139.11
G1 F1800 X164.88 Y140.17 E1137.17581
G0 F12000 X165.54 Y140.17
G1 F1800 X163.83 Y138.46 E1137.26976
G0 F12000 X163.83 Y137.80
G1 F1800 X166.20 Y140.17 E1137.39982
G0 F12000 X166.86 Y140.17
G1 F1800 X163.83 Y137.14 E1137.56599
G0 F12000 X163.83 Y136.48
G1 F1800 X167.52 Y140.17 E1137.76828
G0 F12000 X168.18 Y140.17
G1 F1800 X163.83 Y135.82 E1138.00668
G0 F12000 X163.83 Y135.16
G1 F1800 X168.84 Y140.17 E1138.28122
G0 F12000 X169.17 Y139.84
G1 F1800 X163.83 Y134.50 E1138.57395
G0 F12000 X163.83 Y133.84
G1 F1800 X169.17 Y139.18 E1138.86668
G0 F12000 X169.17 Y138.53
G1 F1800 X163.83 Y133.18 E1139.15941
G0 F12000 X163.83 Y132.52
G1 F1800 X169.17 Y137.87 E1139.45214
G0 F12000 X169.17 Y137.21
G1 F1800 X158.79 Y126.83 E1140.02084
