;-- START GCODE --
;Sliced for Type A Machines Series 1
;Sliced at: Fri 18-11-2016 10:29:50
;Basic settings: Layer height: 0.2 Walls: 1.2 Fill: 3
;Print Speed: 40 Support: 0
;Retraction Speed: 40 Retraction Distance: 1.2
;Print time: #P_TIME#
;Filament used: #F_AMNT#m #F_WGHT#g
;Filament cost: #F_COST#
M106 S255	 ;start with the fan on
G21        ;metric values
G90        ;absolute positioning
M106 S255    ;start with the fan on
G28     ;move to endstops
G29		;allows for auto-levelling
G1 X150 Y5  Z15.0 F12000 ;center and move the platform down 15mm
M109 S220 ;Heat To temp
G92 E0                  ;zero the extruded length
G1 F200 E30              ;extrude 30mm of feed stock
G92 E0                  ;zero the extruded length again
G1 X175 Y25  Z0 F12000 ;remove bugger
G1 X220 F12000 ;remove bugger
G1 X150 Y150  Z15 F12000 ;recenter and begin
G1 F12000

;Layer count: 30
;LAYER:0
M106 S255
G0 F12000 X101.45 Y101.56 Z0.30
;TYPE:SKIRT
G1 F2400 X102.87 Y100.20 E0.09750
G1 X104.35 Y98.92 E0.19547
G1 X105.48 Y98.04 E0.26698
G1 X105.88 Y97.72 E0.29244
G1 X107.49 Y96.58 E0.39083
G1 X109.13 Y95.54 E0.48765
G1 X110.83 Y94.57 E0.58541
G1 X112.57 Y93.70 E0.68264
G1 X114.36 Y92.90 E0.78002
G1 X116.18 Y92.19 E0.87777
G1 X117.51 Y91.75 E0.94747
G1 X118.00 Y91.58 E0.97347
G1 X119.92 Y91.05 E1.07302
G1 X121.82 Y90.62 E1.17012
G1 X123.75 Y90.29 E1.26759
G1 X125.68 Y90.05 E1.36459
G1 X127.64 Y89.90 E1.46261
G1 X129.15 Y89.86 E1.53826
G1 X129.62 Y89.84 E1.56142
G1 X131.54 Y89.89 E1.65754
G1 X133.49 Y90.03 E1.75477
G1 X135.43 Y90.27 E1.85228
G1 X137.35 Y90.60 E1.94991
G1 X139.26 Y91.03 E2.04747
G1 X141.14 Y91.54 E2.14462
G1 X143.00 Y92.15 E2.24227
G1 X144.82 Y92.85 E2.33947
G1 X146.61 Y93.64 E2.43689
G1 X148.35 Y94.51 E2.53443
G1 X150.06 Y95.47 E2.63201
G1 X151.71 Y96.52 E2.72968
G1 X152.50 Y97.07 E2.77760
G1 X153.19 Y96.58 E2.81981
G1 X154.83 Y95.54 E2.91664
G1 X156.53 Y94.57 E3.01439
G1 X158.27 Y93.70 E3.11163
G1 X160.06 Y92.90 E3.20900
G1 X161.88 Y92.19 E3.30676
G1 X163.21 Y91.75 E3.37646
G1 X163.70 Y91.58 E3.40246
G1 X165.62 Y91.05 E3.50200
G1 X167.52 Y90.62 E3.59911
G1 X169.45 Y90.29 E3.69658
G1 X171.38 Y90.05 E3.79358
G1 X173.34 Y89.90 E3.89159
G1 X174.85 Y89.86 E3.96725
G1 X175.31 Y89.84 E3.99041
G1 X177.24 Y89.89 E4.08652
G1 X179.19 Y90.03 E4.18376
G1 X181.12 Y90.27 E4.28127
G1 X183.05 Y90.60 E4.37890
G1 X184.96 Y91.03 E4.47646
G1 X186.84 Y91.54 E4.57361
G1 X188.70 Y92.15 E4.67125
G1 X190.52 Y92.85 E4.76846
G1 X192.31 Y93.64 E4.86587
G1 X194.05 Y94.51 E4.96342
G1 X195.76 Y95.47 E5.06100
G1 X197.41 Y96.52 E5.15867
G1 X199.01 Y97.64 E5.25597
G1 X200.55 Y98.84 E5.35346
G1 X202.03 Y100.12 E5.45117
G1 X203.44 Y101.45 E5.54807
G1 X204.79 Y102.87 E5.64557
G1 X206.08 Y104.35 E5.74354
G1 X206.94 Y105.45 E5.81345
G1 X207.28 Y105.88 E5.84051
G1 X208.42 Y107.50 E5.93926
G1 X209.46 Y109.13 E6.03570
G1 X210.42 Y110.83 E6.13312
G1 X211.30 Y112.57 E6.23071
G1 X212.10 Y114.36 E6.32809
G1 X212.81 Y116.18 E6.42584
G1 X213.25 Y117.51 E6.49554
G1 X213.41 Y118.00 E6.52154
G1 X213.95 Y119.92 E6.62109
G1 X214.38 Y121.82 E6.71819
G1 X214.71 Y123.75 E6.81566
G1 X214.96 Y125.68 E6.91266
G1 X215.10 Y127.64 E7.01067
G1 X215.14 Y129.12 E7.08473
G1 X215.16 Y129.62 E7.10949
G1 X215.11 Y131.54 E7.20561
G1 X214.97 Y133.49 E7.30284
G1 X214.73 Y135.43 E7.40035
G1 X214.40 Y137.35 E7.49798
G1 X213.97 Y139.26 E7.59554
G1 X213.46 Y141.14 E7.69269
G1 X212.95 Y142.69 E7.77421
G1 X212.79 Y143.15 E7.79821
G1 X212.15 Y144.83 E7.88816
G1 X211.36 Y146.61 E7.98513
G1 X210.49 Y148.35 E8.08250
G1 X209.53 Y150.06 E8.18008
G1 X208.48 Y151.71 E8.27774
G1 X207.93 Y152.50 E8.32570
G1 X208.42 Y153.20 E8.36824
G1 X209.46 Y154.83 E8.46468
G1 X210.42 Y156.53 E8.56210
G1 X211.30 Y158.27 E8.65969
G1 X212.10 Y160.06 E8.75707
G1 X212.81 Y161.88 E8.85482
G1 X213.25 Y163.21 E8.92452
G1 X213.41 Y163.70 E8.95052
G1 X213.95 Y165.62 E9.05007
G1 X214.38 Y167.52 E9.14717
G1 X214.71 Y169.45 E9.24464
G1 X214.96 Y171.38 E9.34164
G1 X215.10 Y173.34 E9.43965
G1 X215.14 Y174.82 E9.51372
G1 X215.16 Y175.31 E9.53847
G1 X215.11 Y177.24 E9.63459
G1 X214.97 Y179.19 E9.73182
G1 X214.73 Y181.12 E9.82933
G1 X214.40 Y183.05 E9.92696
G1 X213.97 Y184.96 E10.02452
G1 X213.46 Y186.84 E10.12167
G1 X212.95 Y188.39 E10.20319
G1 X212.79 Y188.85 E10.22719
G1 X212.15 Y190.53 E10.31714
G1 X211.36 Y192.31 E10.41411
G1 X210.49 Y194.05 E10.51148
G1 X209.53 Y195.76 E10.60906
G1 X208.48 Y197.41 E10.70673
G1 X207.36 Y199.01 E10.80403
G1 X206.16 Y200.55 E10.90152
G1 X204.88 Y202.03 E10.99923
G1 X203.55 Y203.44 E11.09613
G1 X202.13 Y204.79 E11.19363
G1 X200.65 Y206.08 E11.29160
G1 X199.54 Y206.94 E11.36151
G1 X199.12 Y207.28 E11.38857
G1 X197.51 Y208.42 E11.48696
G1 X195.87 Y209.46 E11.58379
G1 X194.17 Y210.43 E11.68154
G1 X192.42 Y211.31 E11.77893
G1 X190.65 Y212.09 E11.87581
G1 X188.82 Y212.81 E11.97376
G1 X187.48 Y213.25 E12.04413
G1 X187.00 Y213.41 E12.06961
G1 X185.07 Y213.95 E12.16925
G1 X183.18 Y214.38 E12.26635
G1 X181.25 Y214.71 E12.36367
G1 X179.32 Y214.96 E12.46072
G1 X177.36 Y215.10 E12.55874
G1 X175.85 Y215.14 E12.63439
G1 X175.38 Y215.16 E12.65755
G1 X173.46 Y215.11 E12.75367
G1 X171.51 Y214.97 E12.85090
G1 X169.57 Y214.73 E12.94841
G1 X167.65 Y214.40 E13.04605
G1 X165.74 Y213.97 E13.14360
G1 X163.86 Y213.46 E13.24075
G1 X162.31 Y212.95 E13.32227
G1 X161.85 Y212.79 E13.34627
G1 X160.17 Y212.15 E13.43623
G1 X158.39 Y211.36 E13.53319
G1 X156.65 Y210.49 E13.63056
G1 X154.94 Y209.53 E13.72814
G1 X153.29 Y208.48 E13.82581
G1 X152.50 Y207.93 E13.87373
G1 X151.81 Y208.42 E13.91594
G1 X150.17 Y209.46 E14.01277
G1 X148.47 Y210.43 E14.11052
G1 X146.72 Y211.31 E14.20791
G1 X144.94 Y212.10 E14.30518
G1 X143.12 Y212.81 E14.40273
G1 X141.79 Y213.25 E14.47259
G1 X141.30 Y213.41 E14.49859
G1 X139.37 Y213.95 E14.59823
G1 X137.48 Y214.38 E14.69533
G1 X135.55 Y214.71 E14.79265
G1 X133.62 Y214.96 E14.88970
G1 X131.66 Y215.10 E14.98772
G1 X130.15 Y215.14 E15.06347
G1 X129.68 Y215.16 E15.08658
G1 X127.76 Y215.11 E15.18265
G1 X125.81 Y214.97 E15.27988
G1 X123.88 Y214.73 E15.37739
G1 X121.95 Y214.40 E15.47503
G1 X120.04 Y213.97 E15.57258
G1 X118.16 Y213.46 E15.66974
G1 X116.61 Y212.95 E15.75125
G1 X116.15 Y212.79 E15.77525
G1 X114.47 Y212.15 E15.86521
G1 X112.69 Y211.36 E15.96217
G1 X110.95 Y210.49 E16.05954
G1 X109.24 Y209.53 E16.15712
G1 X107.59 Y208.48 E16.25479
G1 X105.99 Y207.36 E16.35209
G1 X104.45 Y206.16 E16.44958
G1 X102.97 Y204.88 E16.54729
G1 X101.56 Y203.55 E16.64419
G1 X100.20 Y202.13 E16.74169
G1 X98.92 Y200.65 E16.83966
G1 X98.06 Y199.54 E16.90957
G1 X97.72 Y199.12 E16.93663
G1 X96.58 Y197.51 E17.03502
G1 X95.54 Y195.87 E17.13185
G1 X94.57 Y194.17 E17.22960
G1 X93.70 Y192.43 E17.32684
G1 X92.90 Y190.64 E17.42421
G1 X92.19 Y188.82 E17.52197
G1 X91.75 Y187.49 E17.59167
G1 X91.58 Y187.00 E17.61767
G1 X91.05 Y185.07 E17.71731
G1 X90.62 Y183.18 E17.81441
G1 X90.29 Y181.25 E17.91174
G1 X90.05 Y179.32 E18.00878
G1 X89.90 Y177.36 E18.10680
G1 X89.86 Y175.85 E18.18256
G1 X89.84 Y175.38 E18.20566
G1 X89.89 Y173.46 E18.30173
G1 X90.03 Y171.51 E18.39896
G1 X90.27 Y169.57 E18.49647
G1 X90.60 Y167.65 E18.59411
G1 X91.03 Y165.74 E18.69166
G1 X91.54 Y163.86 E18.78882
G1 X92.05 Y162.31 E18.87034
G1 X92.21 Y161.85 E18.89433
G1 X92.85 Y160.17 E18.98429
G1 X93.64 Y158.39 E19.08125
G1 X94.51 Y156.65 E19.17862
G1 X95.47 Y154.94 E19.27620
G1 X96.52 Y153.29 E19.37387
G1 X97.07 Y152.50 E19.42179
G1 X96.58 Y151.81 E19.46400
G1 X95.54 Y150.17 E19.56083
G1 X94.57 Y148.47 E19.65858
G1 X93.70 Y146.73 E19.75582
G1 X92.90 Y144.94 E19.85319
G1 X92.19 Y143.12 E19.95095
G1 X91.75 Y141.79 E20.02065
G1 X91.58 Y141.30 E20.04665
G1 X91.05 Y139.37 E20.14629
G1 X90.62 Y137.48 E20.24339
G1 X90.29 Y135.55 E20.34072
G1 X90.05 Y133.62 E20.43777
G1 X89.90 Y131.66 E20.53578
G1 X89.86 Y130.15 E20.61154
G1 X89.84 Y129.68 E20.63465
G1 X89.89 Y127.76 E20.73071
G1 X90.03 Y125.81 E20.82795
G1 X90.27 Y123.88 E20.92540
G1 X90.60 Y121.94 E21.02314
G1 X91.03 Y120.04 E21.12069
G1 X91.54 Y118.16 E21.21780
G1 X92.05 Y116.61 E21.29932
G1 X92.21 Y116.15 E21.32332
G1 X92.85 Y114.47 E21.41327
G1 X93.64 Y112.69 E21.51024
G1 X94.51 Y110.95 E21.60760
G1 X95.47 Y109.24 E21.70519
G1 X96.52 Y107.59 E21.80285
G1 X97.64 Y105.99 E21.90016
G1 X98.84 Y104.45 E21.99765
G1 X100.12 Y102.97 E22.09535
G1 X101.45 Y101.56 E22.19226
G0 F12000 X101.74 Y101.84
G1 F2400 X103.14 Y100.50 E22.28873
G1 X104.61 Y99.23 E22.38571
G1 X105.79 Y98.30 E22.46102
G1 X106.12 Y98.04 E22.48180
G1 X107.72 Y96.92 E22.57915
G1 X109.34 Y95.89 E22.67496
G1 X111.02 Y94.93 E22.77173
G1 X112.75 Y94.06 E22.86801
G1 X114.51 Y93.27 E22.96438
G1 X116.32 Y92.57 E23.06115
G1 X117.75 Y92.10 E23.13623
G1 X118.12 Y91.97 E23.15597
G1 X120.02 Y91.44 E23.25447
G1 X121.90 Y91.02 E23.35059
G1 X123.81 Y90.68 E23.44706
G1 X125.72 Y90.44 E23.54310
G1 X127.66 Y90.30 E23.64011
G1 X129.16 Y90.26 E23.71532
G1 X129.62 Y90.25 E23.73798
G1 X131.52 Y90.29 E23.83310
G1 X133.45 Y90.43 E23.92938
G1 X135.37 Y90.66 E24.02589
G1 X137.28 Y90.99 E24.12251
G1 X139.17 Y91.41 E24.21909
G1 X141.03 Y91.92 E24.31526
G1 X142.87 Y92.53 E24.41194
G1 X144.67 Y93.22 E24.50820
G1 X146.44 Y94.00 E24.60459
G1 X148.17 Y94.87 E24.70118
G1 X149.85 Y95.82 E24.79777
G1 X151.49 Y96.85 E24.89446
G1 X152.50 Y97.56 E24.95591
G1 X153.41 Y96.92 E25.01173
G1 X155.03 Y95.89 E25.10755
G1 X156.72 Y94.93 E25.20432
G1 X158.44 Y94.06 E25.30060
G1 X160.21 Y93.27 E25.39696
G1 X162.02 Y92.57 E25.49374
G1 X163.44 Y92.10 E25.56882
G1 X163.82 Y91.97 E25.58856
G1 X165.72 Y91.44 E25.68706
G1 X167.60 Y91.02 E25.78318
G1 X169.51 Y90.68 E25.87965
G1 X171.42 Y90.44 E25.97569
G1 X173.35 Y90.30 E26.07270
G1 X174.86 Y90.26 E26.14791
G1 X175.32 Y90.25 E26.17057
G1 X177.22 Y90.29 E26.26569
G1 X179.15 Y90.43 E26.36197
G1 X181.07 Y90.66 E26.45848
G1 X182.98 Y90.99 E26.55510
G1 X184.87 Y91.41 E26.65168
G1 X186.72 Y91.92 E26.74785
G1 X188.56 Y92.53 E26.84453
G1 X190.37 Y93.22 E26.94079
G1 X192.13 Y94.00 E27.03718
G1 X193.87 Y94.87 E27.13377
G1 X195.55 Y95.82 E27.23036
G1 X197.19 Y96.85 E27.32705
G1 X198.77 Y97.96 E27.42338
G1 X200.30 Y99.15 E27.51991
G1 X201.77 Y100.41 E27.61663
G1 X203.16 Y101.74 E27.71258
G1 X204.50 Y103.14 E27.80905
G1 X205.77 Y104.61 E27.90604
G1 X206.67 Y105.76 E27.97907
G1 X206.96 Y106.12 E28.00212
G1 X208.09 Y107.72 E28.09983
G1 X209.11 Y109.34 E28.19526
G1 X210.07 Y111.02 E28.29172
G1 X210.94 Y112.75 E28.38833
G1 X211.73 Y114.51 E28.48470
G1 X212.43 Y116.32 E28.58147
G1 X212.90 Y117.73 E28.65597
G1 X213.03 Y118.12 E28.67629
G1 X213.56 Y120.02 E28.77479
G1 X213.99 Y121.90 E28.87091
G1 X214.32 Y123.81 E28.96738
G1 X214.56 Y125.72 E29.06342
G1 X214.70 Y127.66 E29.16044
G1 X214.74 Y129.13 E29.23405
G1 X214.75 Y129.62 E29.25830
G1 X214.71 Y131.52 E29.35342
G1 X214.57 Y133.45 E29.44970
G1 X214.34 Y135.37 E29.54621
G1 X214.01 Y137.28 E29.64284
G1 X213.59 Y139.17 E29.73941
G1 X213.08 Y141.03 E29.83559
G1 X212.57 Y142.57 E29.91652
G1 X212.42 Y143.01 E29.94004
G1 X211.78 Y144.68 E30.02910
G1 X211.00 Y146.44 E30.12508
G1 X210.13 Y148.17 E30.22149
G1 X209.18 Y149.85 E30.31809
G1 X208.15 Y151.49 E30.41477
G1 X207.44 Y152.50 E30.47630
G1 X208.09 Y153.42 E30.53247
G1 X209.11 Y155.03 E30.62790
G1 X210.07 Y156.72 E30.72436
G1 X210.94 Y158.44 E30.82097
G1 X211.73 Y160.21 E30.91734
G1 X212.43 Y162.02 E31.01411
G1 X212.90 Y163.42 E31.08777
G1 X213.03 Y163.82 E31.10893
G1 X213.56 Y165.72 E31.20743
G1 X213.99 Y167.60 E31.30355
G1 X214.32 Y169.51 E31.40002
G1 X214.56 Y171.42 E31.49606
G1 X214.70 Y173.35 E31.59307
G1 X214.74 Y174.83 E31.66669
G1 X214.75 Y175.32 E31.69094
G1 X214.71 Y177.22 E31.78606
G1 X214.57 Y179.15 E31.88234
G1 X214.34 Y181.07 E31.97885
G1 X214.01 Y182.98 E32.07548
G1 X213.59 Y184.87 E32.17205
G1 X213.08 Y186.72 E32.26822
G1 X212.57 Y188.26 E32.34916
G1 X212.42 Y188.71 E32.37268
G1 X211.78 Y190.38 E32.46174
G1 X211.00 Y192.14 E32.55772
G1 X210.13 Y193.87 E32.65413
G1 X209.18 Y195.55 E32.75073
G1 X208.15 Y197.19 E32.84741
G1 X207.04 Y198.77 E32.94375
G1 X205.85 Y200.30 E33.04028
G1 X204.59 Y201.77 E33.13700
G1 X203.26 Y203.16 E33.23295
G1 X201.87 Y204.50 E33.32942
G1 X200.40 Y205.77 E33.42640
G1 X199.21 Y206.70 E33.50171
G1 X198.88 Y206.96 E33.52249
G1 X197.28 Y208.08 E33.61983
G1 X195.66 Y209.11 E33.71565
G1 X193.98 Y210.07 E33.81242
G1 X192.25 Y210.94 E33.90883
G1 X190.50 Y211.73 E34.00478
G1 X188.69 Y212.43 E34.10172
G1 X187.33 Y212.88 E34.17281
G1 X186.88 Y213.03 E34.19666
G1 X184.97 Y213.56 E34.29526
G1 X183.10 Y213.99 E34.39133
G1 X181.19 Y214.32 E34.48771
G1 X179.28 Y214.56 E34.58380
G1 X177.34 Y214.70 E34.68081
G1 X175.84 Y214.74 E34.75602
G1 X175.38 Y214.75 E34.77868
G1 X173.48 Y214.71 E34.87380
G1 X171.55 Y214.57 E34.97008
G1 X169.63 Y214.34 E35.06658
G1 X167.72 Y214.01 E35.16321
G1 X165.83 Y213.59 E35.25979
G1 X163.97 Y213.08 E35.35596
G1 X162.43 Y212.57 E35.43689
G1 X161.99 Y212.42 E35.46042
G1 X160.32 Y211.78 E35.54947
G1 X158.56 Y211.00 E35.64546
G1 X156.83 Y210.13 E35.74186
G1 X155.15 Y209.18 E35.83846
G1 X153.51 Y208.15 E35.93515
G1 X152.50 Y207.44 E35.99660
G1 X151.59 Y208.08 E36.05242
G1 X149.97 Y209.11 E36.14824
G1 X148.28 Y210.07 E36.24501
G1 X146.55 Y210.94 E36.34142
G1 X144.79 Y211.73 E36.43775
G1 X142.99 Y212.43 E36.53427
G1 X141.56 Y212.90 E36.60951
G1 X141.18 Y213.03 E36.62924
G1 X139.28 Y213.56 E36.72784
G1 X137.40 Y213.99 E36.82392
G1 X135.50 Y214.32 E36.92029
G1 X133.58 Y214.56 E37.01638
G1 X131.64 Y214.70 E37.11344
G1 X130.14 Y214.74 E37.18865
G1 X129.68 Y214.75 E37.21131
G1 X127.78 Y214.71 E37.30638
G1 X125.85 Y214.57 E37.40266
G1 X123.93 Y214.34 E37.49916
G1 X122.02 Y214.01 E37.59579
G1 X120.14 Y213.59 E37.69237
G1 X118.28 Y213.08 E37.78854
G1 X116.73 Y212.57 E37.86948
G1 X116.29 Y212.42 E37.89300
G1 X114.62 Y211.78 E37.98206
G1 X112.86 Y211.00 E38.07804
G1 X111.14 Y210.13 E38.17445
G1 X109.45 Y209.18 E38.27105
G1 X107.81 Y208.15 E38.36773
G1 X106.23 Y207.04 E38.46406
G1 X104.70 Y205.85 E38.56059
G1 X103.23 Y204.59 E38.65731
G1 X101.84 Y203.26 E38.75326
G1 X100.50 Y201.87 E38.84974
G1 X99.23 Y200.40 E38.94672
G1 X98.30 Y199.21 E39.02203
G1 X98.04 Y198.88 E39.04280
G1 X96.92 Y197.28 E39.14015
G1 X95.89 Y195.66 E39.23597
G1 X94.93 Y193.98 E39.33274
G1 X94.06 Y192.25 E39.42901
G1 X93.27 Y190.49 E39.52538
G1 X92.57 Y188.68 E39.62215
G1 X92.10 Y187.25 E39.69723
G1 X91.97 Y186.88 E39.71697
G1 X91.44 Y184.97 E39.81557
G1 X91.02 Y183.10 E39.91164
G1 X90.68 Y181.19 E40.00802
G1 X90.44 Y179.28 E40.10411
G1 X90.30 Y177.34 E40.20117
G1 X90.26 Y175.84 E40.27638
G1 X90.25 Y175.38 E40.29904
G1 X90.29 Y173.48 E40.39411
G1 X90.43 Y171.55 E40.49039
G1 X90.66 Y169.63 E40.58689
G1 X90.99 Y167.72 E40.68352
G1 X91.41 Y165.83 E40.78010
G1 X91.92 Y163.97 E40.87627
G1 X92.43 Y162.43 E40.95720
G1 X92.58 Y161.99 E40.98073
G1 X93.22 Y160.32 E41.06978
G1 X94.00 Y158.56 E41.16577
G1 X94.87 Y156.83 E41.26218
G1 X95.82 Y155.15 E41.35877
G1 X96.85 Y153.51 E41.45546
G1 X97.56 Y152.50 E41.51691
G1 X96.92 Y151.59 E41.57273
G1 X95.89 Y149.97 E41.66855
G1 X94.93 Y148.28 E41.76532
G1 X94.06 Y146.56 E41.86159
G1 X93.27 Y144.79 E41.95796
G1 X92.57 Y142.98 E42.05474
G1 X92.10 Y141.56 E42.12982
G1 X91.97 Y141.18 E42.14955
G1 X91.44 Y139.28 E42.24815
G1 X91.02 Y137.40 E42.34423
G1 X90.68 Y135.50 E42.44060
G1 X90.44 Y133.58 E42.53669
G1 X90.30 Y131.64 E42.63375
G1 X90.26 Y130.14 E42.70896
G1 X90.25 Y129.68 E42.73162
G1 X90.29 Y127.78 E42.82669
G1 X90.43 Y125.85 E42.92297
G1 X90.66 Y123.93 E43.01942
G1 X90.99 Y122.02 E43.11620
G1 X91.41 Y120.13 E43.21278
G1 X91.92 Y118.28 E43.30885
G1 X92.43 Y116.73 E43.38979
G1 X92.58 Y116.29 E43.41331
G1 X93.22 Y114.62 E43.50237
G1 X94.00 Y112.86 E43.59835
G1 X94.87 Y111.14 E43.69476
G1 X95.82 Y109.45 E43.79136
G1 X96.85 Y107.81 E43.88804
G1 X97.96 Y106.23 E43.98437
G1 X99.15 Y104.70 E44.08091
G1 X100.41 Y103.23 E44.17762
G1 X101.74 Y101.84 E44.27358
G0 F12000 X102.02 Y102.12
G1 F2400 X103.41 Y100.80 E44.36910
G1 X104.86 Y99.54 E44.46509
G1 X105.98 Y98.66 E44.53635
G1 X106.36 Y98.36 E44.56017
G1 X107.94 Y97.25 E44.65653
G1 X109.54 Y96.23 E44.75136
G1 X111.21 Y95.28 E44.84715
G1 X112.92 Y94.42 E44.94244
G1 X114.66 Y93.64 E45.03787
G1 X116.45 Y92.95 E45.13363
G1 X117.81 Y92.50 E45.20480
G1 X118.24 Y92.35 E45.22758
G1 X120.12 Y91.83 E45.32501
G1 X121.98 Y91.41 E45.42016
G1 X123.87 Y91.08 E45.51567
G1 X125.76 Y90.84 E45.61070
G1 X127.68 Y90.70 E45.70676
G1 X129.17 Y90.66 E45.78142
G1 X129.62 Y90.64 E45.80358
G1 X131.50 Y90.69 E45.89775
G1 X133.41 Y90.83 E45.99304
G1 X135.31 Y91.06 E46.08858
G1 X137.20 Y91.38 E46.18425
G1 X139.07 Y91.80 E46.27980
G1 X140.91 Y92.31 E46.37504
G1 X142.73 Y92.91 E46.47073
G1 X144.51 Y93.59 E46.56597
G1 X146.26 Y94.36 E46.66142
G1 X147.98 Y95.22 E46.75703
G1 X149.65 Y96.16 E46.85264
G1 X151.27 Y97.19 E46.94832
G1 X152.50 Y98.05 E47.02338
G1 X153.64 Y97.25 E47.09276
G1 X155.24 Y96.23 E47.18760
G1 X156.91 Y95.28 E47.28338
G1 X158.62 Y94.42 E47.37868
G1 X160.36 Y93.64 E47.47411
G1 X162.15 Y92.95 E47.56987
G1 X163.51 Y92.50 E47.64104
G1 X163.94 Y92.35 E47.66382
G1 X165.82 Y91.83 E47.76125
G1 X167.68 Y91.41 E47.85640
G1 X169.57 Y91.08 E47.95191
G1 X171.46 Y90.84 E48.04694
G1 X173.38 Y90.70 E48.14300
G1 X174.87 Y90.66 E48.21766
G1 X175.32 Y90.64 E48.23982
G1 X177.20 Y90.69 E48.33399
G1 X179.11 Y90.83 E48.42928
G1 X181.01 Y91.06 E48.52482
G1 X182.90 Y91.38 E48.62049
G1 X184.77 Y91.80 E48.71604
G1 X186.61 Y92.31 E48.81128
G1 X188.43 Y92.91 E48.90696
G1 X190.21 Y93.59 E49.00221
G1 X191.96 Y94.36 E49.09766
G1 X193.68 Y95.22 E49.19327
G1 X195.35 Y96.16 E49.28888
G1 X196.97 Y97.19 E49.38455
G1 X198.53 Y98.28 E49.47992
G1 X200.04 Y99.46 E49.57545
G1 X201.50 Y100.71 E49.67122
G1 X202.88 Y102.02 E49.76618
G1 X204.20 Y103.41 E49.86170
G1 X205.46 Y104.86 E49.95770
G1 X206.32 Y105.95 E50.02686
G1 X206.64 Y106.36 E50.05278
G1 X207.75 Y107.94 E50.14945
G1 X208.77 Y109.54 E50.24394
G1 X209.72 Y111.20 E50.33942
G1 X210.58 Y112.92 E50.43505
G1 X211.36 Y114.66 E50.53048
G1 X212.05 Y116.45 E50.62624
G1 X212.50 Y117.81 E50.69741
G1 X212.65 Y118.24 E50.72019
G1 X213.17 Y120.12 E50.81762
G1 X213.59 Y121.98 E50.91277
G1 X213.92 Y123.87 E51.00827
G1 X214.16 Y125.76 E51.10331
G1 X214.30 Y127.68 E51.19937
G1 X214.34 Y129.14 E51.27248
G1 X214.35 Y129.62 E51.29619
G1 X214.31 Y131.50 E51.39036
G1 X214.17 Y133.41 E51.48565
G1 X213.94 Y135.31 E51.58119
G1 X213.62 Y137.20 E51.67686
G1 X213.20 Y139.07 E51.77241
G1 X212.69 Y140.91 E51.86765
G1 X212.19 Y142.44 E51.94795
G1 X212.04 Y142.88 E51.97095
G1 X211.41 Y144.53 E52.05921
G1 X210.64 Y146.27 E52.15421
G1 X209.78 Y147.98 E52.24963
G1 X208.84 Y149.65 E52.34525
G1 X207.81 Y151.27 E52.44092
G1 X206.95 Y152.50 E52.51598
G1 X207.75 Y153.64 E52.58569
G1 X208.77 Y155.24 E52.68018
G1 X209.72 Y156.90 E52.77565
G1 X210.58 Y158.62 E52.87128
G1 X211.36 Y160.36 E52.96671
G1 X212.05 Y162.15 E53.06247
G1 X212.50 Y163.51 E53.13364
G1 X212.65 Y163.94 E53.15643
G1 X213.17 Y165.82 E53.25385
G1 X213.59 Y167.68 E53.34900
G1 X213.92 Y169.57 E53.44451
G1 X214.16 Y171.46 E53.53955
G1 X214.30 Y173.38 E53.63560
G1 X214.34 Y174.84 E53.70872
G1 X214.35 Y175.32 E53.73243
G1 X214.31 Y177.20 E53.82660
G1 X214.17 Y179.11 E53.92188
G1 X213.94 Y181.01 E54.01743
G1 X213.62 Y182.90 E54.11309
G1 X213.20 Y184.77 E54.20864
G1 X212.69 Y186.61 E54.30388
G1 X212.19 Y188.14 E54.38419
G1 X212.04 Y188.57 E54.40719
G1 X211.41 Y190.22 E54.49544
G1 X210.64 Y191.97 E54.59044
G1 X209.78 Y193.68 E54.68587
G1 X208.84 Y195.35 E54.78148
G1 X207.81 Y196.97 E54.87715
G1 X206.72 Y198.53 E54.97252
G1 X205.54 Y200.04 E55.06805
G1 X204.29 Y201.50 E55.16382
G1 X202.98 Y202.88 E55.25878
G1 X201.59 Y204.20 E55.35430
G1 X200.14 Y205.46 E55.45030
G1 X199.05 Y206.32 E55.51946
G1 X198.64 Y206.64 E55.54538
G1 X197.06 Y207.75 E55.64173
G1 X195.46 Y208.77 E55.73657
G1 X193.79 Y209.72 E55.83235
G1 X192.08 Y210.58 E55.92780
G1 X190.34 Y211.36 E56.02279
G1 X188.55 Y212.05 E56.11874
G1 X187.16 Y212.51 E56.19196
G1 X186.76 Y212.65 E56.21279
G1 X184.88 Y213.17 E56.31026
G1 X183.02 Y213.59 E56.40542
G1 X181.13 Y213.92 E56.50077
G1 X179.24 Y214.16 E56.59591
G1 X177.32 Y214.30 E56.69197
G1 X175.83 Y214.34 E56.76663
G1 X175.38 Y214.35 E56.78879
G1 X173.50 Y214.31 E56.88296
G1 X171.59 Y214.17 E56.97824
G1 X169.69 Y213.94 E57.07379
G1 X167.80 Y213.62 E57.16946
G1 X165.93 Y213.20 E57.26500
G1 X164.09 Y212.69 E57.36025
G1 X162.56 Y212.19 E57.44055
G1 X162.12 Y212.04 E57.46355
G1 X160.47 Y211.41 E57.55180
G1 X158.73 Y210.64 E57.64680
G1 X157.02 Y209.78 E57.74223
G1 X155.35 Y208.84 E57.83784
G1 X153.73 Y207.81 E57.93352
G1 X152.50 Y206.95 E58.00858
G1 X151.36 Y207.75 E58.07797
G1 X149.76 Y208.77 E58.17280
G1 X148.09 Y209.72 E58.26859
G1 X146.38 Y210.58 E58.36404
G1 X144.64 Y211.36 E58.45940
G1 X142.85 Y212.05 E58.55496
G1 X141.50 Y212.50 E58.62614
G1 X141.06 Y212.65 E58.64902
G1 X139.18 Y213.17 E58.74649
G1 X137.32 Y213.59 E58.84165
G1 X135.44 Y213.92 E58.93700
G1 X133.54 Y214.16 E59.03214
G1 X131.62 Y214.30 E59.12820
G1 X130.13 Y214.34 E59.20291
G1 X129.68 Y214.35 E59.22512
G1 X127.80 Y214.31 E59.31919
G1 X125.89 Y214.17 E59.41447
G1 X123.99 Y213.94 E59.51002
G1 X122.10 Y213.62 E59.60569
G1 X120.23 Y213.20 E59.70124
G1 X118.39 Y212.69 E59.79648
G1 X116.86 Y212.19 E59.87678
G1 X116.43 Y212.04 E59.89978
G1 X114.78 Y211.41 E59.98803
G1 X113.03 Y210.64 E60.08303
G1 X111.32 Y209.78 E60.17846
G1 X109.65 Y208.84 E60.27408
G1 X108.03 Y207.81 E60.36975
G1 X106.47 Y206.72 E60.46511
G1 X104.96 Y205.54 E60.56065
G1 X103.50 Y204.29 E60.65641
G1 X102.12 Y202.98 E60.75138
G1 X100.80 Y201.59 E60.84690
G1 X99.54 Y200.14 E60.94289
G1 X98.68 Y199.05 E61.01205
G1 X98.36 Y198.64 E61.03798
G1 X97.25 Y197.06 E61.13433
G1 X96.23 Y195.46 E61.22916
G1 X95.28 Y193.79 E61.32495
G1 X94.42 Y192.08 E61.42024
G1 X93.64 Y190.34 E61.51567
G1 X92.95 Y188.55 E61.61143
G1 X92.50 Y187.19 E61.68260
G1 X92.35 Y186.76 E61.70538
G1 X91.83 Y184.88 E61.80286
G1 X91.41 Y183.02 E61.89801
G1 X91.08 Y181.13 E61.99337
G1 X90.84 Y179.24 E62.08851
G1 X90.70 Y177.32 E62.18456
G1 X90.66 Y175.83 E62.25927
G1 X90.64 Y175.38 E62.28149
G1 X90.69 Y173.50 E62.37556
G1 X90.83 Y171.59 E62.47084
G1 X91.06 Y169.69 E62.56638
G1 X91.38 Y167.80 E62.66205
G1 X91.80 Y165.93 E62.75760
G1 X92.31 Y164.09 E62.85284
G1 X92.81 Y162.56 E62.93315
G1 X92.96 Y162.12 E62.95615
G1 X93.59 Y160.47 E63.04440
G1 X94.36 Y158.73 E63.13940
G1 X95.22 Y157.02 E63.23483
G1 X96.16 Y155.35 E63.33044
G1 X97.19 Y153.73 E63.42611
G1 X98.05 Y152.50 E63.50117
G1 X97.25 Y151.36 E63.57056
G1 X96.23 Y149.76 E63.66540
G1 X95.28 Y148.09 E63.76118
G1 X94.42 Y146.38 E63.85648
G1 X93.64 Y144.64 E63.95191
G1 X92.95 Y142.85 E64.04767
G1 X92.50 Y141.49 E64.11884
G1 X92.35 Y141.06 E64.14162
G1 X91.83 Y139.18 E64.23909
G1 X91.41 Y137.32 E64.33425
G1 X91.08 Y135.44 E64.42960
G1 X90.84 Y133.54 E64.52474
G1 X90.70 Y131.62 E64.62080
G1 X90.66 Y130.13 E64.69551
G1 X90.64 Y129.68 E64.71772
G1 X90.69 Y127.80 E64.81179
G1 X90.83 Y125.89 E64.90707
G1 X91.06 Y123.99 E65.00257
G1 X91.38 Y122.10 E65.09834
G1 X91.80 Y120.23 E65.19394
G1 X92.31 Y118.39 E65.28907
G1 X92.81 Y116.86 E65.36938
G1 X92.96 Y116.43 E65.39238
G1 X93.59 Y114.78 E65.48063
G1 X94.36 Y113.03 E65.57563
G1 X95.22 Y111.32 E65.67106
G1 X96.16 Y109.65 E65.76667
G1 X97.19 Y108.03 E65.86235
G1 X98.28 Y106.47 E65.95771
G1 X99.46 Y104.96 E66.05325
G1 X100.71 Y103.50 E66.14901
G1 X102.02 Y102.12 E66.24398
G0 F12000 X102.31 Y102.40
G1 F2400 X103.67 Y101.09 E66.33851
G1 X105.11 Y99.85 E66.43351
G1 X106.29 Y98.93 E66.50782
G1 X106.60 Y98.68 E66.52771
G1 X108.16 Y97.58 E66.62298
G1 X109.75 Y96.57 E66.71689
G1 X111.40 Y95.63 E66.81171
G1 X113.09 Y94.78 E66.90598
G1 X114.82 Y94.01 E67.00043
G1 X116.59 Y93.32 E67.09523
G1 X117.86 Y92.90 E67.16225
G1 X118.36 Y92.73 E67.18825
G1 X120.22 Y92.22 E67.28458
G1 X122.06 Y91.80 E67.37877
G1 X123.93 Y91.47 E67.47331
G1 X125.80 Y91.24 E67.56739
G1 X127.70 Y91.10 E67.66245
G1 X129.15 Y91.06 E67.73511
G1 X129.15 Y91.06 E67.73516
G1 X129.62 Y91.05 E67.75837
G1 X131.49 Y91.09 E67.85154
G1 X133.37 Y91.22 E67.94588
G1 X135.25 Y91.45 E68.04042
G1 X137.12 Y91.78 E68.13507
G1 X138.97 Y92.19 E68.22970
G1 X140.79 Y92.69 E68.32391
G1 X142.60 Y93.28 E68.41865
G1 X144.36 Y93.96 E68.51293
G1 X146.09 Y94.72 E68.60736
G1 X147.79 Y95.57 E68.70200
G1 X149.44 Y96.50 E68.79663
G1 X151.05 Y97.52 E68.89132
G1 X152.50 Y98.54 E68.97989
G1 X153.86 Y97.58 E69.06282
G1 X155.45 Y96.57 E69.15672
G1 X157.10 Y95.63 E69.25155
G1 X158.79 Y94.78 E69.34582
G1 X160.52 Y94.01 E69.44026
G1 X162.29 Y93.32 E69.53506
G1 X163.56 Y92.90 E69.60208
G1 X164.06 Y92.73 E69.62808
G1 X165.92 Y92.22 E69.72442
G1 X167.76 Y91.80 E69.81860
G1 X169.62 Y91.47 E69.91314
G1 X171.50 Y91.24 E70.00723
G1 X173.40 Y91.10 E70.10229
G1 X174.85 Y91.06 E70.17495
G1 X174.85 Y91.06 E70.17500
G1 X175.32 Y91.05 E70.19821
G1 X177.18 Y91.09 E70.29138
G1 X179.07 Y91.22 E70.38571
G1 X180.95 Y91.45 E70.48025
G1 X182.82 Y91.78 E70.57491
G1 X184.67 Y92.19 E70.66953
G1 X186.49 Y92.69 E70.76375
G1 X188.30 Y93.28 E70.85849
G1 X190.06 Y93.96 E70.95277
G1 X191.79 Y94.72 E71.04719
G1 X193.49 Y95.57 E71.14184
G1 X195.14 Y96.50 E71.23647
G1 X196.75 Y97.52 E71.33116
G1 X198.29 Y98.61 E71.42553
G1 X199.79 Y99.77 E71.52010
G1 X201.23 Y101.01 E71.61491
G1 X202.60 Y102.31 E71.70888
G1 X203.91 Y103.67 E71.80342
G1 X205.15 Y105.11 E71.89842
G1 X206.05 Y106.26 E71.97116
G1 X206.32 Y106.60 E71.99262
G1 X207.42 Y108.17 E72.08821
G1 X208.43 Y109.75 E72.18177
G1 X209.37 Y111.39 E72.27629
G1 X210.22 Y113.09 E72.37089
G1 X210.99 Y114.82 E72.46534
G1 X211.68 Y116.59 E72.56014
G1 X212.09 Y117.84 E72.62616
G1 X212.27 Y118.36 E72.65316
G1 X212.78 Y120.22 E72.74949
G1 X213.20 Y122.06 E72.84368
G1 X213.53 Y123.93 E72.93821
G1 X213.76 Y125.80 E73.03230
G1 X213.90 Y127.70 E73.12736
G1 X213.94 Y129.15 E73.20002
G1 X213.94 Y129.15 E73.20007
G1 X213.96 Y129.62 E73.22328
G1 X213.91 Y131.49 E73.31645
G1 X213.78 Y133.37 E73.41078
G1 X213.54 Y135.25 E73.50533
G1 X213.22 Y137.12 E73.59998
G1 X212.81 Y138.97 E73.69461
G1 X212.31 Y140.79 E73.78882
G1 X211.81 Y142.31 E73.86849
G1 X211.66 Y142.74 E73.89102
G1 X211.04 Y144.37 E73.97842
G1 X210.28 Y146.10 E74.07244
G1 X209.43 Y147.79 E74.16690
G1 X208.50 Y149.44 E74.26153
G1 X207.48 Y151.05 E74.35622
G1 X206.46 Y152.50 E74.44479
G1 X207.42 Y153.86 E74.52804
G1 X208.43 Y155.45 E74.62160
G1 X209.37 Y157.09 E74.71612
G1 X210.22 Y158.79 E74.81072
G1 X210.99 Y160.52 E74.90517
G1 X211.68 Y162.29 E74.99997
G1 X212.09 Y163.54 E75.06599
G1 X212.27 Y164.06 E75.09299
G1 X212.78 Y165.92 E75.18932
G1 X213.20 Y167.76 E75.28351
G1 X213.53 Y169.62 E75.37804
G1 X213.76 Y171.50 E75.47213
G1 X213.90 Y173.40 E75.56719
G1 X213.94 Y174.85 E75.63985
G1 X213.94 Y174.85 E75.63990
G1 X213.96 Y175.32 E75.66311
G1 X213.91 Y177.18 E75.75628
G1 X213.78 Y179.07 E75.85061
G1 X213.54 Y180.95 E75.94516
G1 X213.22 Y182.82 E76.03981
G1 X212.81 Y184.67 E76.13444
G1 X212.31 Y186.49 E76.22865
G1 X211.81 Y188.01 E76.30832
G1 X211.66 Y188.44 E76.33085
G1 X211.04 Y190.07 E76.41825
G1 X210.28 Y191.80 E76.51227
G1 X209.43 Y193.49 E76.60673
G1 X208.50 Y195.14 E76.70137
G1 X207.48 Y196.75 E76.79605
G1 X206.40 Y198.29 E76.89042
G1 X205.23 Y199.79 E76.98500
G1 X203.99 Y201.23 E77.07981
G1 X202.69 Y202.60 E77.17378
G1 X201.33 Y203.91 E77.26831
G1 X199.89 Y205.15 E77.36332
G1 X198.71 Y206.07 E77.43763
G1 X198.40 Y206.32 E77.45751
G1 X196.84 Y207.42 E77.55278
G1 X195.25 Y208.43 E77.64669
G1 X193.60 Y209.37 E77.74152
G1 X191.91 Y210.22 E77.83596
G1 X190.19 Y210.99 E77.92995
G1 X188.41 Y211.68 E78.02491
G1 X187.09 Y212.12 E78.09460
G1 X186.64 Y212.27 E78.11806
G1 X184.78 Y212.78 E78.21449
G1 X182.94 Y213.20 E78.30867
G1 X181.08 Y213.53 E78.40301
G1 X179.20 Y213.76 E78.49720
G1 X177.30 Y213.90 E78.59226
G1 X175.85 Y213.94 E78.66492
G1 X175.85 Y213.94 E78.66497
G1 X175.38 Y213.96 E78.68818
G1 X173.51 Y213.91 E78.78135
G1 X171.63 Y213.78 E78.87568
G1 X169.75 Y213.54 E78.97023
G1 X167.88 Y213.22 E79.06488
G1 X166.03 Y212.81 E79.15951
G1 X164.21 Y212.31 E79.25372
G1 X162.69 Y211.81 E79.33339
G1 X162.26 Y211.66 E79.35592
G1 X160.63 Y211.04 E79.44332
G1 X158.90 Y210.28 E79.53734
G1 X157.21 Y209.43 E79.63180
G1 X155.56 Y208.50 E79.72643
G1 X153.95 Y207.48 E79.82112
G1 X152.50 Y206.46 E79.90969
G1 X151.14 Y207.42 E79.99262
G1 X149.55 Y208.43 E80.08652
G1 X147.90 Y209.37 E80.18135
G1 X146.21 Y210.22 E80.27580
G1 X144.48 Y210.99 E80.37011
G1 X142.72 Y211.68 E80.46471
G1 X141.44 Y212.10 E80.53189
G1 X140.94 Y212.27 E80.55789
G1 X139.08 Y212.78 E80.65432
G1 X137.24 Y213.20 E80.74850
G1 X135.38 Y213.53 E80.84284
G1 X133.50 Y213.76 E80.93703
G1 X131.60 Y213.90 E81.03209
G1 X130.15 Y213.94 E81.10480
G1 X130.15 Y213.94 E81.10485
G1 X129.68 Y213.96 E81.12806
G1 X127.82 Y213.91 E81.22118
G1 X125.93 Y213.78 E81.31551
G1 X124.05 Y213.54 E81.41006
G1 X122.18 Y213.22 E81.50471
G1 X120.33 Y212.81 E81.59934
G1 X118.51 Y212.31 E81.69355
G1 X116.99 Y211.81 E81.77322
G1 X116.56 Y211.66 E81.79575
G1 X114.93 Y211.04 E81.88315
G1 X113.20 Y210.28 E81.97717
G1 X111.51 Y209.43 E82.07163
G1 X109.86 Y208.50 E82.16626
G1 X108.25 Y207.48 E82.26095
G1 X106.71 Y206.40 E82.35532
G1 X105.21 Y205.23 E82.44990
G1 X103.77 Y203.99 E82.54470
G1 X102.40 Y202.69 E82.63868
G1 X101.09 Y201.33 E82.73321
G1 X99.85 Y199.89 E82.82822
G1 X98.93 Y198.71 E82.90253
G1 X98.68 Y198.40 E82.92241
G1 X97.58 Y196.84 E83.01768
G1 X96.57 Y195.25 E83.11159
G1 X95.63 Y193.60 E83.20642
G1 X94.78 Y191.91 E83.30069
G1 X94.01 Y190.18 E83.39513
G1 X93.32 Y188.41 E83.48993
G1 X92.91 Y187.16 E83.55596
G1 X92.73 Y186.64 E83.58295
G1 X92.22 Y184.78 E83.67938
G1 X91.80 Y182.94 E83.77357
G1 X91.47 Y181.08 E83.86791
G1 X91.24 Y179.20 E83.96209
G1 X91.10 Y177.30 E84.05715
G1 X91.06 Y175.85 E84.12987
G1 X91.06 Y175.85 E84.12992
G1 X91.05 Y175.38 E84.15312
G1 X91.09 Y173.51 E84.24625
G1 X91.22 Y171.63 E84.34058
G1 X91.45 Y169.75 E84.43512
G1 X91.78 Y167.88 E84.52977
G1 X92.19 Y166.03 E84.62440
G1 X92.69 Y164.21 E84.71861
G1 X93.19 Y162.69 E84.79829
G1 X93.33 Y162.26 E84.82082
G1 X93.96 Y160.63 E84.90822
G1 X94.72 Y158.90 E85.00223
G1 X95.57 Y157.21 E85.09670
G1 X96.50 Y155.56 E85.19133
G1 X97.52 Y153.95 E85.28602
G1 X98.54 Y152.50 E85.37459
G1 X97.58 Y151.14 E85.45751
G1 X96.57 Y149.55 E85.55142
G1 X95.63 Y147.90 E85.64625
G1 X94.78 Y146.21 E85.74051
G1 X94.01 Y144.48 E85.83496
G1 X93.32 Y142.71 E85.92976
G1 X92.91 Y141.46 E85.99579
G1 X92.73 Y140.94 E86.02278
G1 X92.22 Y139.08 E86.11921
G1 X91.80 Y137.24 E86.21340
G1 X91.47 Y135.38 E86.30774
G1 X91.24 Y133.50 E86.40192
G1 X91.10 Y131.60 E86.49698
G1 X91.06 Y130.15 E86.56969
G1 X91.06 Y130.15 E86.56974
G1 X91.05 Y129.68 E86.59295
G1 X91.09 Y127.82 E86.68607
G1 X91.22 Y125.93 E86.78041
G1 X91.45 Y124.05 E86.87490
G1 X91.78 Y122.18 E86.96970
G1 X92.19 Y120.33 E87.06429
G1 X92.69 Y118.51 E87.15844
G1 X93.19 Y116.99 E87.23811
G1 X93.33 Y116.56 E87.26064
G1 X93.96 Y114.93 E87.34804
G1 X94.72 Y113.20 E87.44206
G1 X95.57 Y111.51 E87.53653
G1 X96.50 Y109.86 E87.63116
G1 X97.52 Y108.25 E87.72585
G1 X98.61 Y106.71 E87.82022
G1 X99.77 Y105.21 E87.91479
G1 X101.01 Y103.77 E88.00960
G1 X102.31 Y102.40 E88.10357
G0 F12000 X102.59 Y102.69
G1 F2400 X103.94 Y101.39 E88.19712
G1 X105.37 Y100.16 E88.29113
G1 X106.45 Y99.31 E88.35961
G1 X106.84 Y99.00 E88.38441
G1 X108.38 Y97.91 E88.47864
G1 X109.95 Y96.91 E88.57159
G1 X111.59 Y95.98 E88.66541
G1 X113.26 Y95.14 E88.75870
G1 X114.97 Y94.38 E88.85221
G1 X116.72 Y93.70 E88.94600
G1 X118.10 Y93.24 E89.01844
G1 X118.47 Y93.11 E89.03812
G1 X120.32 Y92.61 E89.13340
G1 X122.14 Y92.19 E89.22661
G1 X123.98 Y91.87 E89.32015
G1 X125.84 Y91.64 E89.41328
G1 X127.72 Y91.50 E89.50733
G1 X129.19 Y91.46 E89.58105
G1 X129.62 Y91.45 E89.60226
G1 X131.47 Y91.49 E89.69443
G1 X133.33 Y91.62 E89.78776
G1 X135.19 Y91.85 E89.88135
G1 X137.04 Y92.17 E89.97504
G1 X138.88 Y92.58 E90.06865
G1 X140.68 Y93.07 E90.16192
G1 X142.46 Y93.66 E90.25562
G1 X144.21 Y94.33 E90.34894
G1 X145.92 Y95.09 E90.44245
G1 X147.60 Y95.93 E90.53606
G1 X149.24 Y96.85 E90.62974
G1 X150.83 Y97.85 E90.72346
G1 X152.36 Y98.93 E90.81682
G1 X152.50 Y99.03 E90.82560
G1 X152.54 Y99.00 E90.82826
G1 X154.08 Y97.91 E90.92250
G1 X155.65 Y96.91 E91.01545
G1 X157.29 Y95.98 E91.10927
G1 X158.96 Y95.14 E91.20255
G1 X160.67 Y94.38 E91.29606
G1 X162.42 Y93.70 E91.38985
G1 X163.80 Y93.24 E91.46230
G1 X164.17 Y93.11 E91.48197
G1 X166.01 Y92.61 E91.57725
G1 X167.84 Y92.19 E91.67047
G1 X169.68 Y91.87 E91.76401
G1 X171.54 Y91.64 E91.85713
G1 X173.42 Y91.50 E91.95119
G1 X174.89 Y91.46 E92.02490
G1 X175.32 Y91.45 E92.04611
G1 X177.16 Y91.49 E92.13829
G1 X179.03 Y91.62 E92.23162
G1 X180.89 Y91.85 E92.32521
G1 X182.74 Y92.17 E92.41890
G1 X184.57 Y92.58 E92.51251
G1 X186.38 Y93.07 E92.60578
G1 X188.16 Y93.66 E92.69947
G1 X189.91 Y94.33 E92.79279
G1 X191.62 Y95.09 E92.88630
G1 X193.30 Y95.93 E92.97992
G1 X194.94 Y96.85 E93.07359
G1 X196.53 Y97.85 E93.16731
G1 X198.06 Y98.93 E93.26067
G1 X199.54 Y100.08 E93.35429
G1 X200.96 Y101.30 E93.44803
G1 X202.31 Y102.59 E93.54109
G1 X203.61 Y103.94 E93.63464
G1 X204.84 Y105.37 E93.72865
G1 X205.69 Y106.45 E93.79713
G1 X206.00 Y106.84 E93.82193
G1 X207.09 Y108.39 E93.91648
G1 X208.08 Y109.95 E94.00906
G1 X209.01 Y111.58 E94.10259
G1 X209.86 Y113.26 E94.19621
G1 X210.62 Y114.97 E94.28972
G1 X211.30 Y116.72 E94.38351
G1 X211.76 Y118.10 E94.45596
G1 X211.89 Y118.47 E94.47563
G1 X212.39 Y120.32 E94.57091
G1 X212.81 Y122.14 E94.66413
G1 X213.13 Y123.98 E94.75767
G1 X213.36 Y125.84 E94.85079
G1 X213.50 Y127.72 E94.94485
G1 X213.54 Y129.16 E95.01707
G1 X213.55 Y129.62 E95.03977
G1 X213.51 Y131.47 E95.13195
G1 X213.38 Y133.33 E95.22528
G1 X213.15 Y135.19 E95.31887
G1 X212.83 Y137.04 E95.41256
G1 X212.42 Y138.88 E95.50617
G1 X211.93 Y140.68 E95.59944
G1 X211.43 Y142.18 E95.67848
G1 X211.29 Y142.60 E95.70047
G1 X210.67 Y144.22 E95.78704
G1 X209.91 Y145.93 E95.88012
G1 X209.07 Y147.60 E95.97358
G1 X208.15 Y149.24 E96.06725
G1 X207.15 Y150.83 E96.16097
G1 X206.07 Y152.36 E96.25433
G1 X205.97 Y152.50 E96.26311
G1 X206.00 Y152.54 E96.26578
G1 X207.09 Y154.09 E96.36033
G1 X208.08 Y155.65 E96.45291
G1 X209.01 Y157.28 E96.54644
G1 X209.86 Y158.96 E96.64006
G1 X210.62 Y160.67 E96.73358
G1 X211.30 Y162.42 E96.82736
G1 X211.76 Y163.80 E96.89981
G1 X211.89 Y164.17 E96.91948
G1 X212.39 Y166.01 E97.01477
G1 X212.81 Y167.84 E97.10798
G1 X213.13 Y169.68 E97.20152
G1 X213.36 Y171.54 E97.29464
G1 X213.50 Y173.42 E97.38870
G1 X213.54 Y174.86 E97.46092
G1 X213.55 Y175.32 E97.48363
G1 X213.51 Y177.16 E97.57580
G1 X213.38 Y179.03 E97.66913
G1 X213.15 Y180.89 E97.76272
G1 X212.83 Y182.74 E97.85641
G1 X212.42 Y184.57 E97.95002
G1 X211.93 Y186.38 E98.04329
G1 X211.43 Y187.88 E98.12233
G1 X211.29 Y188.30 E98.14432
G1 X210.67 Y189.92 E98.23089
G1 X209.91 Y191.63 E98.32397
G1 X209.07 Y193.30 E98.41743
G1 X208.15 Y194.94 E98.51110
G1 X207.15 Y196.53 E98.60482
G1 X206.07 Y198.06 E98.69818
G1 X204.92 Y199.54 E98.79180
G1 X203.70 Y200.96 E98.88555
G1 X202.41 Y202.31 E98.97861
G1 X201.06 Y203.61 E99.07215
G1 X199.63 Y204.84 E99.16616
G1 X198.55 Y205.69 E99.23465
G1 X198.16 Y206.00 E99.25944
G1 X196.62 Y207.09 E99.35367
G1 X195.04 Y208.09 E99.44662
G1 X193.41 Y209.01 E99.54044
G1 X191.74 Y209.86 E99.63388
G1 X190.03 Y210.62 E99.72695
G1 X188.28 Y211.30 E99.82089
G1 X186.94 Y211.74 E99.89104
G1 X186.53 Y211.89 E99.91315
G1 X184.68 Y212.40 E100.00854
G1 X182.86 Y212.81 E100.10170
G1 X181.02 Y213.13 E100.19513
G1 X179.16 Y213.36 E100.28831
G1 X177.28 Y213.50 E100.38236
G1 X175.81 Y213.54 E100.45608
G1 X175.38 Y213.55 E100.47729
G1 X173.53 Y213.51 E100.56946
G1 X171.67 Y213.38 E100.66279
G1 X169.81 Y213.15 E100.75638
G1 X167.96 Y212.83 E100.85007
G1 X166.12 Y212.42 E100.94368
G1 X164.32 Y211.93 E101.03695
G1 X162.82 Y211.43 E101.11599
G1 X162.40 Y211.29 E101.13799
G1 X160.78 Y210.67 E101.22455
G1 X159.07 Y209.91 E101.31763
G1 X157.40 Y209.07 E101.41109
G1 X155.76 Y208.15 E101.50476
G1 X154.17 Y207.15 E101.59849
G1 X152.64 Y206.07 E101.69184
G1 X152.50 Y205.97 E101.70063
G1 X152.46 Y206.00 E101.70329
G1 X150.92 Y207.09 E101.79753
G1 X149.35 Y208.09 E101.89048
G1 X147.71 Y209.01 E101.98430
G1 X146.04 Y209.86 E102.07774
G1 X144.33 Y210.62 E102.17114
G1 X142.58 Y211.30 E102.26472
G1 X141.20 Y211.76 E102.33732
G1 X140.83 Y211.89 E102.35700
G1 X138.98 Y212.40 E102.45239
G1 X137.16 Y212.81 E102.54555
G1 X135.32 Y213.13 E102.63898
G1 X133.46 Y213.36 E102.73216
G1 X131.58 Y213.50 E102.82621
G1 X130.11 Y213.54 E102.89998
G1 X129.68 Y213.55 E102.92119
G1 X127.83 Y213.51 E103.01331
G1 X125.97 Y213.38 E103.10664
G1 X124.11 Y213.15 E103.20023
G1 X122.26 Y212.83 E103.29392
G1 X120.42 Y212.42 E103.38753
G1 X118.62 Y211.93 E103.48080
G1 X117.12 Y211.43 E103.55984
G1 X116.70 Y211.29 E103.58184
G1 X115.08 Y210.67 E103.66840
G1 X113.37 Y209.91 E103.76148
G1 X111.70 Y209.07 E103.85494
G1 X110.06 Y208.15 E103.94862
G1 X108.47 Y207.15 E104.04234
G1 X106.94 Y206.07 E104.13570
G1 X105.46 Y204.92 E104.22931
G1 X104.04 Y203.70 E104.32306
G1 X102.69 Y202.41 E104.41612
G1 X101.39 Y201.06 E104.50966
G1 X100.16 Y199.63 E104.60368
G1 X99.31 Y198.55 E104.67216
G1 X99.00 Y198.16 E104.69695
G1 X97.91 Y196.62 E104.79119
G1 X96.91 Y195.04 E104.88414
G1 X95.98 Y193.41 E104.97796
G1 X95.14 Y191.74 E105.07124
G1 X94.38 Y190.03 E105.16475
G1 X93.70 Y188.28 E105.25854
G1 X93.23 Y186.88 E105.33214
G1 X93.11 Y186.53 E105.35066
G1 X92.61 Y184.68 E105.44605
G1 X92.19 Y182.86 E105.53921
G1 X91.87 Y181.02 E105.63264
G1 X91.64 Y179.16 E105.72582
G1 X91.50 Y177.28 E105.81988
G1 X91.46 Y175.81 E105.89364
G1 X91.45 Y175.38 E105.91485
G1 X91.49 Y173.53 E106.00697
G1 X91.62 Y171.67 E106.10031
G1 X91.85 Y169.81 E106.19390
G1 X92.17 Y167.96 E106.28759
G1 X92.58 Y166.12 E106.38120
G1 X93.07 Y164.32 E106.47446
G1 X93.57 Y162.82 E106.55351
G1 X93.71 Y162.40 E106.57550
G1 X94.33 Y160.78 E106.66206
G1 X95.09 Y159.07 E106.75514
G1 X95.93 Y157.40 E106.84861
G1 X96.85 Y155.76 E106.94228
G1 X97.85 Y154.17 E107.03600
G1 X98.93 Y152.64 E107.12936
G1 X99.03 Y152.50 E107.13814
G1 X99.00 Y152.46 E107.14081
G1 X97.91 Y150.92 E107.23504
G1 X96.91 Y149.35 E107.32799
G1 X95.98 Y147.71 E107.42181
G1 X95.14 Y146.04 E107.51509
G1 X94.38 Y144.33 E107.60860
G1 X93.70 Y142.58 E107.70239
G1 X93.23 Y141.18 E107.77599
G1 X93.11 Y140.83 E107.79451
G1 X92.61 Y138.98 E107.88990
G1 X92.19 Y137.16 E107.98306
G1 X91.87 Y135.32 E108.07649
G1 X91.64 Y133.46 E108.16967
G1 X91.50 Y131.58 E108.26373
G1 X91.46 Y130.11 E108.33749
G1 X91.45 Y129.68 E108.35870
G1 X91.49 Y127.83 E108.45083
G1 X91.62 Y125.97 E108.54416
G1 X91.85 Y124.11 E108.63770
G1 X92.17 Y122.25 E108.73149
G1 X92.58 Y120.42 E108.82515
G1 X93.07 Y118.62 E108.91832
G1 X93.57 Y117.12 E108.99736
G1 X93.71 Y116.70 E109.01935
G1 X94.33 Y115.08 E109.10592
G1 X95.09 Y113.37 E109.19900
G1 X95.93 Y111.70 E109.29246
G1 X96.85 Y110.06 E109.38613
G1 X97.85 Y108.47 E109.47985
G1 X98.93 Y106.94 E109.57321
G1 X100.08 Y105.46 E109.66683
G1 X101.30 Y104.04 E109.76058
G1 X102.59 Y102.69 E109.85364
G0 F12000 X102.87 Y102.97
G1 F2400 X104.21 Y101.69 E109.94623
G1 X105.62 Y100.47 E110.03925
G1 X106.78 Y99.56 E110.11257
G1 X107.08 Y99.32 E110.13156
G1 X108.61 Y98.25 E110.22476
G1 X110.16 Y97.26 E110.31674
G1 X111.78 Y96.34 E110.40960
G1 X113.43 Y95.50 E110.50190
G1 X115.12 Y94.75 E110.59443
G1 X116.86 Y94.08 E110.68721
G1 X118.19 Y93.64 E110.75708
G1 X118.59 Y93.50 E110.77843
G1 X120.41 Y92.99 E110.87268
G1 X122.22 Y92.58 E110.96493
G1 X124.04 Y92.27 E111.05745
G1 X125.88 Y92.03 E111.14962
G1 X127.74 Y91.89 E111.24268
G1 X129.20 Y91.86 E111.31589
G1 X129.62 Y91.85 E111.33666
G1 X131.45 Y91.89 E111.42783
G1 X133.29 Y92.02 E111.52021
G1 X135.14 Y92.25 E111.61280
G1 X136.97 Y92.56 E111.70547
G1 X138.78 Y92.97 E111.79811
G1 X140.56 Y93.46 E111.89041
G1 X142.33 Y94.04 E111.98315
G1 X144.06 Y94.70 E112.07550
G1 X145.75 Y95.45 E112.16803
G1 X147.41 Y96.28 E112.26064
G1 X149.03 Y97.19 E112.35333
G1 X150.60 Y98.18 E112.44607
G1 X152.12 Y99.25 E112.53850
G1 X152.50 Y99.54 E112.56243
G1 X152.78 Y99.32 E112.58015
G1 X154.30 Y98.25 E112.67334
G1 X155.86 Y97.26 E112.76533
G1 X157.48 Y96.34 E112.85819
G1 X159.13 Y95.50 E112.95049
G1 X160.82 Y94.75 E113.04302
G1 X162.56 Y94.08 E113.13580
G1 X163.89 Y93.64 E113.20567
G1 X164.29 Y93.50 E113.22702
G1 X166.11 Y92.99 E113.32127
G1 X167.92 Y92.58 E113.41352
G1 X169.74 Y92.27 E113.50604
G1 X171.58 Y92.03 E113.59821
G1 X173.44 Y91.89 E113.69127
G1 X174.90 Y91.86 E113.76448
G1 X175.32 Y91.85 E113.78524
G1 X177.15 Y91.89 E113.87642
G1 X178.99 Y92.02 E113.96880
G1 X180.84 Y92.25 E114.06138
G1 X182.67 Y92.56 E114.15406
G1 X184.48 Y92.97 E114.24670
G1 X186.26 Y93.46 E114.33900
G1 X188.03 Y94.04 E114.43173
G1 X189.76 Y94.70 E114.52409
G1 X191.45 Y95.45 E114.61661
G1 X193.11 Y96.28 E114.70923
G1 X194.73 Y97.19 E114.80192
G1 X196.30 Y98.18 E114.89465
G1 X197.82 Y99.25 E114.98708
G1 X199.28 Y100.39 E115.07966
G1 X200.69 Y101.60 E115.17246
G1 X202.03 Y102.87 E115.26453
G1 X203.31 Y104.21 E115.35712
G1 X204.53 Y105.62 E115.45015
G1 X205.43 Y106.77 E115.52257
G1 X205.68 Y107.08 E115.54246
G1 X206.76 Y108.61 E115.63594
G1 X207.74 Y110.16 E115.72758
G1 X208.66 Y111.77 E115.82016
G1 X209.50 Y113.43 E115.91279
G1 X210.25 Y115.12 E116.00532
G1 X210.92 Y116.86 E116.09810
G1 X211.37 Y118.19 E116.16798
G1 X211.50 Y118.59 E116.18932
G1 X212.01 Y120.41 E116.28357
G1 X212.42 Y122.22 E116.37582
G1 X212.73 Y124.04 E116.46834
G1 X212.97 Y125.88 E116.56051
G1 X213.10 Y127.74 E116.65357
G1 X213.14 Y129.18 E116.72534
G1 X213.15 Y129.62 E116.74755
G1 X213.11 Y131.45 E116.83872
G1 X212.98 Y133.29 E116.93111
G1 X212.75 Y135.14 E117.02369
G1 X212.44 Y136.97 E117.11636
G1 X212.03 Y138.78 E117.20900
G1 X211.54 Y140.56 E117.30130
G1 X211.05 Y142.06 E117.37976
G1 X210.91 Y142.47 E117.40127
G1 X210.30 Y144.07 E117.48693
G1 X209.55 Y145.76 E117.57903
G1 X208.72 Y147.41 E117.67153
G1 X207.81 Y149.03 E117.76422
G1 X206.82 Y150.60 E117.85696
G1 X205.75 Y152.12 E117.94939
G1 X205.46 Y152.50 E117.97332
G1 X205.68 Y152.78 E117.99104
G1 X206.76 Y154.31 E118.08452
G1 X207.74 Y155.86 E118.17616
G1 X208.66 Y157.47 E118.26873
G1 X209.50 Y159.13 E118.36137
G1 X210.25 Y160.82 E118.45390
G1 X210.92 Y162.56 E118.54668
G1 X211.37 Y163.89 E118.61655
G1 X211.50 Y164.29 E118.63790
G1 X212.01 Y166.11 E118.73215
G1 X212.42 Y167.92 E118.82440
G1 X212.73 Y169.74 E118.91692
G1 X212.97 Y171.58 E119.00909
G1 X213.10 Y173.44 E119.10215
G1 X213.14 Y174.87 E119.17392
G1 X213.15 Y175.32 E119.19613
G1 X213.11 Y177.15 E119.28730
G1 X212.98 Y178.99 E119.37969
G1 X212.75 Y180.84 E119.47227
G1 X212.44 Y182.67 E119.56494
G1 X212.03 Y184.48 E119.65758
G1 X211.54 Y186.26 E119.74988
G1 X211.05 Y187.76 E119.82834
G1 X210.91 Y188.16 E119.84984
G1 X210.30 Y189.77 E119.93551
G1 X209.55 Y191.46 E120.02761
G1 X208.72 Y193.11 E120.12011
G1 X207.81 Y194.73 E120.21280
G1 X206.82 Y196.30 E120.30554
G1 X205.75 Y197.82 E120.39797
G1 X204.61 Y199.28 E120.49055
G1 X203.40 Y200.69 E120.58334
G1 X202.13 Y202.03 E120.67541
G1 X200.79 Y203.31 E120.76801
G1 X199.38 Y204.53 E120.86103
G1 X198.22 Y205.44 E120.93434
G1 X197.92 Y205.68 E120.95334
G1 X196.40 Y206.75 E121.04653
G1 X194.84 Y207.74 E121.13852
G1 X193.22 Y208.66 E121.23138
G1 X191.57 Y209.50 E121.32386
G1 X189.88 Y210.25 E121.41594
G1 X188.14 Y210.92 E121.50891
G1 X186.83 Y211.36 E121.57790
G1 X186.41 Y211.50 E121.60021
G1 X184.59 Y212.01 E121.69453
G1 X182.78 Y212.42 E121.78676
G1 X180.96 Y212.73 E121.87919
G1 X179.12 Y212.97 E121.97141
G1 X177.26 Y213.10 E122.06447
G1 X175.80 Y213.14 E122.13768
G1 X175.38 Y213.15 E122.15844
G1 X173.55 Y213.11 E122.24962
G1 X171.71 Y212.98 E122.34200
G1 X169.86 Y212.75 E122.43458
G1 X168.03 Y212.44 E122.52725
G1 X166.22 Y212.03 E122.61990
G1 X164.44 Y211.54 E122.71220
G1 X162.94 Y211.05 E122.79066
G1 X162.53 Y210.91 E122.81216
G1 X160.93 Y210.30 E122.89782
G1 X159.24 Y209.55 E122.98992
G1 X157.59 Y208.72 E123.08243
G1 X155.97 Y207.81 E123.17511
G1 X154.40 Y206.82 E123.26785
G1 X152.88 Y205.75 E123.36028
G1 X152.50 Y205.46 E123.38421
G1 X152.22 Y205.68 E123.40193
G1 X150.70 Y206.75 E123.49513
G1 X149.14 Y207.74 E123.58711
G1 X147.52 Y208.66 E123.67997
G1 X145.87 Y209.50 E123.77245
G1 X144.18 Y210.25 E123.86485
G1 X142.44 Y210.92 E123.95747
G1 X141.11 Y211.36 E124.02739
G1 X140.71 Y211.50 E124.04880
G1 X138.89 Y212.01 E124.14311
G1 X137.08 Y212.42 E124.23535
G1 X135.26 Y212.73 E124.32777
G1 X133.42 Y212.97 E124.41999
G1 X131.56 Y213.10 E124.51305
G1 X130.09 Y213.14 E124.58637
G1 X129.68 Y213.15 E124.60708
G1 X127.85 Y213.11 E124.69820
G1 X126.01 Y212.98 E124.79058
G1 X124.17 Y212.75 E124.88317
G1 X122.33 Y212.44 E124.97584
G1 X120.52 Y212.03 E125.06848
G1 X118.74 Y211.54 E125.16078
G1 X117.24 Y211.05 E125.23924
G1 X116.84 Y210.91 E125.26074
G1 X115.23 Y210.30 E125.34641
G1 X113.55 Y209.55 E125.43851
G1 X111.89 Y208.72 E125.53101
G1 X110.27 Y207.81 E125.62370
G1 X108.70 Y206.82 E125.71644
G1 X107.18 Y205.75 E125.80887
G1 X105.72 Y204.61 E125.90145
G1 X104.31 Y203.40 E125.99424
G1 X102.97 Y202.13 E126.08631
G1 X101.69 Y200.79 E126.17891
G1 X100.47 Y199.38 E126.27193
G1 X99.56 Y198.22 E126.34524
G1 X99.32 Y197.92 E126.36424
G1 X98.25 Y196.40 E126.45743
G1 X97.26 Y194.84 E126.54942
G1 X96.34 Y193.22 E126.64228
G1 X95.50 Y191.57 E126.73458
G1 X94.75 Y189.88 E126.82711
G1 X94.08 Y188.14 E126.91989
G1 X93.64 Y186.81 E126.98976
G1 X93.50 Y186.41 E127.01111
G1 X92.99 Y184.59 E127.10542
G1 X92.58 Y182.78 E127.19766
G1 X92.27 Y180.96 E127.29008
G1 X92.03 Y179.12 E127.38230
G1 X91.89 Y177.26 E127.47536
G1 X91.86 Y175.79 E127.54867
G1 X91.85 Y175.38 E127.56939
G1 X91.89 Y173.55 E127.66051
G1 X92.02 Y171.71 E127.75289
G1 X92.25 Y169.86 E127.84547
G1 X92.56 Y168.03 E127.93815
G1 X92.97 Y166.22 E128.03079
G1 X93.46 Y164.44 E128.12309
G1 X93.95 Y162.94 E128.20155
G1 X94.09 Y162.53 E128.22305
G1 X94.70 Y160.93 E128.30872
G1 X95.45 Y159.24 E128.40082
G1 X96.28 Y157.59 E128.49332
G1 X97.19 Y155.97 E128.58601
G1 X98.18 Y154.40 E128.67874
G1 X99.25 Y152.88 E128.77118
G1 X99.54 Y152.50 E128.79511
G1 X99.32 Y152.22 E128.81282
G1 X98.25 Y150.70 E128.90602
G1 X97.26 Y149.14 E128.99800
G1 X96.34 Y147.52 E129.09086
G1 X95.50 Y145.87 E129.18317
G1 X94.75 Y144.18 E129.27569
G1 X94.08 Y142.44 E129.36847
G1 X93.64 Y141.11 E129.43835
G1 X93.50 Y140.71 E129.45969
G1 X92.99 Y138.89 E129.55401
G1 X92.58 Y137.08 E129.64624
G1 X92.27 Y135.26 E129.73867
G1 X92.03 Y133.42 E129.83089
G1 X91.89 Y131.56 E129.92395
G1 X91.86 Y130.09 E129.99726
G1 X91.85 Y129.68 E130.01797
G1 X91.89 Y127.85 E130.10910
G1 X92.02 Y126.01 E130.20148
G1 X92.25 Y124.17 E130.29400
G1 X92.56 Y122.33 E130.38683
G1 X92.97 Y120.52 E130.47948
G1 X93.46 Y118.74 E130.57168
G1 X93.95 Y117.24 E130.65014
G1 X94.09 Y116.84 E130.67164
G1 X94.70 Y115.23 E130.75731
G1 X95.45 Y113.55 E130.84941
G1 X96.28 Y111.89 E130.94191
G1 X97.19 Y110.27 E131.03460
G1 X98.18 Y108.70 E131.12733
G1 X99.25 Y107.18 E131.21977
G1 X100.39 Y105.72 E131.31235
G1 X101.60 Y104.31 E131.40514
G1 X102.87 Y102.97 E131.49721
G0 F12000 X103.16 Y103.25
G1 F2400 X104.48 Y101.98 E131.58881
G1 X105.88 Y100.77 E131.68085
G1 X107.03 Y99.87 E131.75370
G1 X107.32 Y99.64 E131.77224
G1 X108.83 Y98.58 E131.86440
G1 X110.37 Y97.60 E131.95544
G1 X111.97 Y96.69 E132.04727
G1 X113.60 Y95.86 E132.13864
G1 X115.28 Y95.12 E132.23014
G1 X117.00 Y94.45 E132.32200
G1 X118.23 Y94.04 E132.38712
G1 X118.71 Y93.88 E132.41232
G1 X120.51 Y93.38 E132.50543
G1 X122.30 Y92.98 E132.59671
G1 X124.10 Y92.66 E132.68831
G1 X125.92 Y92.43 E132.77948
G1 X127.76 Y92.30 E132.87154
G1 X129.22 Y92.26 E132.94430
G1 X129.62 Y92.25 E132.96457
G1 X131.43 Y92.29 E133.05474
G1 X133.25 Y92.42 E133.14613
G1 X135.08 Y92.64 E133.23776
G1 X136.89 Y92.95 E133.32947
G1 X138.68 Y93.35 E133.42113
G1 X140.45 Y93.84 E133.51245
G1 X142.19 Y94.41 E133.60420
G1 X143.90 Y95.07 E133.69552
G1 X145.58 Y95.81 E133.78708
G1 X147.23 Y96.63 E133.87876
G1 X148.83 Y97.54 E133.97042
G1 X150.38 Y98.52 E134.06219
G1 X151.88 Y99.57 E134.15365
G1 X152.50 Y100.05 E134.19269
G1 X152.73 Y99.87 E134.20702
G1 X153.02 Y99.64 E134.22555
G1 X154.53 Y98.58 E134.31771
G1 X156.07 Y97.60 E134.40875
G1 X157.67 Y96.69 E134.50058
G1 X159.30 Y95.86 E134.59195
G1 X160.98 Y95.12 E134.68345
G1 X162.69 Y94.45 E134.77531
G1 X163.93 Y94.04 E134.84044
G1 X164.41 Y93.88 E134.86563
G1 X166.21 Y93.38 E134.95875
G1 X167.99 Y92.98 E135.05003
G1 X169.80 Y92.66 E135.14163
G1 X171.62 Y92.43 E135.23280
G1 X173.46 Y92.30 E135.32485
G1 X174.91 Y92.26 E135.39762
G1 X175.32 Y92.25 E135.41788
G1 X177.13 Y92.29 E135.50806
G1 X178.95 Y92.42 E135.59944
G1 X180.78 Y92.64 E135.69107
G1 X182.59 Y92.95 E135.78278
G1 X184.38 Y93.35 E135.87445
G1 X186.15 Y93.84 E135.96577
G1 X187.89 Y94.41 E136.05751
G1 X189.60 Y95.07 E136.14884
G1 X191.28 Y95.81 E136.24040
G1 X192.93 Y96.63 E136.33208
G1 X194.53 Y97.54 E136.42374
G1 X196.08 Y98.52 E136.51551
G1 X197.58 Y99.57 E136.60697
G1 X199.03 Y100.70 E136.69856
G1 X200.43 Y101.90 E136.79040
G1 X201.75 Y103.16 E136.88148
G1 X203.02 Y104.48 E136.97308
G1 X204.23 Y105.88 E137.06511
G1 X205.06 Y106.95 E137.13289
G1 X205.36 Y107.32 E137.15651
G1 X206.43 Y108.83 E137.24898
G1 X207.40 Y110.37 E137.33968
G1 X208.31 Y111.96 E137.43120
G1 X209.13 Y113.60 E137.52290
G1 X209.88 Y115.28 E137.61440
G1 X210.55 Y117.00 E137.70626
G1 X210.96 Y118.23 E137.77139
G1 X211.12 Y118.71 E137.79659
G1 X211.62 Y120.51 E137.88970
G1 X212.02 Y122.30 E137.98098
G1 X212.34 Y124.10 E138.07258
G1 X212.57 Y125.92 E138.16375
G1 X212.71 Y127.76 E138.25581
G1 X212.74 Y129.19 E138.32712
G1 X212.75 Y129.62 E138.34884
G1 X212.71 Y131.43 E138.43901
G1 X212.58 Y133.25 E138.53040
G1 X212.36 Y135.08 E138.62202
G1 X212.05 Y136.89 E138.71374
G1 X211.65 Y138.68 E138.80540
G1 X211.16 Y140.45 E138.89672
G1 X210.67 Y141.93 E138.97450
G1 X210.54 Y142.33 E138.99553
G1 X209.93 Y143.91 E139.08037
G1 X209.19 Y145.59 E139.17151
G1 X208.37 Y147.23 E139.26303
G1 X207.46 Y148.83 E139.35469
G1 X206.48 Y150.38 E139.44646
G1 X205.43 Y151.88 E139.53792
G1 X204.95 Y152.50 E139.57696
G1 X205.06 Y152.65 E139.58620
G1 X205.36 Y153.02 E139.60982
G1 X206.43 Y154.53 E139.70230
G1 X207.40 Y156.07 E139.79299
G1 X208.31 Y157.66 E139.88452
G1 X209.13 Y159.30 E139.97622
G1 X209.88 Y160.98 E140.06772
G1 X210.55 Y162.69 E140.15958
G1 X210.96 Y163.93 E140.22470
G1 X211.12 Y164.41 E140.24990
G1 X211.62 Y166.21 E140.34301
G1 X212.02 Y167.99 E140.43429
G1 X212.34 Y169.80 E140.52590
G1 X212.57 Y171.62 E140.61707
G1 X212.71 Y173.46 E140.70912
G1 X212.74 Y174.88 E140.78044
G1 X212.75 Y175.32 E140.80215
G1 X212.71 Y177.13 E140.89233
G1 X212.58 Y178.95 E140.98371
G1 X212.36 Y180.78 E141.07534
G1 X212.05 Y182.59 E141.16705
G1 X211.65 Y184.38 E141.25871
G1 X211.16 Y186.15 E141.35003
G1 X210.67 Y187.63 E141.42781
G1 X210.54 Y188.03 E141.44884
G1 X209.93 Y189.61 E141.53369
G1 X209.19 Y191.28 E141.62482
G1 X208.37 Y192.93 E141.71634
G1 X207.46 Y194.53 E141.80800
G1 X206.48 Y196.08 E141.89977
G1 X205.43 Y197.58 E141.99124
G1 X204.30 Y199.03 E142.08283
G1 X203.10 Y200.43 E142.17466
G1 X201.84 Y201.75 E142.26575
G1 X200.52 Y203.02 E142.35735
G1 X199.12 Y204.23 E142.44938
G1 X198.01 Y205.09 E142.51968
G1 X197.68 Y205.36 E142.54077
G1 X196.17 Y206.42 E142.63293
G1 X194.63 Y207.40 E142.72397
G1 X193.03 Y208.31 E142.81580
G1 X191.40 Y209.14 E142.90728
G1 X189.73 Y209.88 E142.99843
G1 X188.01 Y210.55 E143.09039
G1 X186.70 Y210.98 E143.15913
G1 X186.29 Y211.12 E143.18085
G1 X184.49 Y211.62 E143.27408
G1 X182.70 Y212.02 E143.36530
G1 X180.90 Y212.34 E143.45675
G1 X179.08 Y212.57 E143.54802
G1 X177.24 Y212.71 E143.64008
G1 X175.78 Y212.74 E143.71284
G1 X175.38 Y212.75 E143.73310
G1 X173.57 Y212.71 E143.82328
G1 X171.75 Y212.58 E143.91466
G1 X169.92 Y212.36 E144.00629
G1 X168.11 Y212.05 E144.09801
G1 X166.32 Y211.65 E144.18967
G1 X164.55 Y211.16 E144.28099
G1 X163.07 Y210.67 E144.35877
G1 X162.67 Y210.54 E144.37980
G1 X161.09 Y209.93 E144.46464
G1 X159.41 Y209.19 E144.55578
G1 X157.77 Y208.37 E144.64730
G1 X156.17 Y207.46 E144.73896
G1 X154.62 Y206.48 E144.83073
G1 X153.12 Y205.43 E144.92219
G1 X152.50 Y204.95 E144.96123
G1 X152.31 Y205.09 E144.97300
G1 X151.98 Y205.36 E144.99409
G1 X150.47 Y206.42 E145.08624
G1 X148.93 Y207.40 E145.17729
G1 X147.33 Y208.31 E145.26912
G1 X145.70 Y209.14 E145.36060
G1 X144.02 Y209.88 E145.45208
G1 X142.31 Y210.55 E145.54369
G1 X141.07 Y210.96 E145.60897
G1 X140.59 Y211.12 E145.63417
G1 X138.79 Y211.62 E145.72739
G1 X137.00 Y212.02 E145.81861
G1 X135.20 Y212.34 E145.91006
G1 X133.38 Y212.57 E146.00133
G1 X131.54 Y212.71 E146.09339
G1 X130.09 Y212.74 E146.16620
G1 X129.68 Y212.75 E146.18647
G1 X127.87 Y212.71 E146.27659
G1 X126.05 Y212.58 E146.36798
G1 X124.22 Y212.36 E146.45960
G1 X122.41 Y212.05 E146.55132
G1 X120.62 Y211.65 E146.64298
G1 X118.85 Y211.16 E146.73430
G1 X117.37 Y210.67 E146.81208
G1 X116.97 Y210.54 E146.83311
G1 X115.39 Y209.93 E146.91795
G1 X113.72 Y209.19 E147.00909
G1 X112.08 Y208.37 E147.10061
G1 X110.47 Y207.46 E147.19227
G1 X108.92 Y206.48 E147.28404
G1 X107.42 Y205.43 E147.37550
G1 X105.97 Y204.30 E147.46709
G1 X104.57 Y203.10 E147.55893
G1 X103.25 Y201.84 E147.65001
G1 X101.98 Y200.52 E147.74162
G1 X100.77 Y199.12 E147.83365
G1 X99.87 Y197.97 E147.90650
G1 X99.64 Y197.68 E147.92504
G1 X98.58 Y196.17 E148.01720
G1 X97.60 Y194.63 E148.10824
G1 X96.69 Y193.03 E148.20007
G1 X95.86 Y191.40 E148.29144
G1 X95.12 Y189.72 E148.38294
G1 X94.45 Y188.00 E148.47480
G1 X94.04 Y186.77 E148.53993
G1 X93.88 Y186.29 E148.56512
G1 X93.38 Y184.49 E148.65835
G1 X92.98 Y182.70 E148.74957
G1 X92.66 Y180.90 E148.84102
G1 X92.43 Y179.08 E148.93229
G1 X92.30 Y177.24 E149.02434
G1 X92.26 Y175.78 E149.09716
G1 X92.25 Y175.38 E149.11742
G1 X92.29 Y173.57 E149.20755
G1 X92.42 Y171.75 E149.29893
G1 X92.64 Y169.92 E149.39056
G1 X92.95 Y168.11 E149.48227
G1 X93.35 Y166.32 E149.57394
G1 X93.84 Y164.55 E149.66526
G1 X94.33 Y163.07 E149.74304
G1 X94.46 Y162.67 E149.76407
G1 X95.07 Y161.09 E149.84891
G1 X95.81 Y159.41 E149.94004
G1 X96.63 Y157.77 E150.03157
G1 X97.54 Y156.17 E150.12323
G1 X98.52 Y154.62 E150.21499
G1 X99.57 Y153.12 E150.30646
G1 X100.05 Y152.50 E150.34550
G1 X99.87 Y152.27 E150.35982
G1 X99.64 Y151.98 E150.37835
G1 X98.58 Y150.47 E150.47051
G1 X97.60 Y148.93 E150.56155
G1 X96.69 Y147.33 E150.65339
G1 X95.86 Y145.70 E150.74475
G1 X95.12 Y144.02 E150.83625
G1 X94.45 Y142.31 E150.92811
G1 X94.04 Y141.07 E150.99324
G1 X93.88 Y140.59 E151.01844
G1 X93.38 Y138.79 E151.11166
G1 X92.98 Y137.00 E151.20288
G1 X92.66 Y135.20 E151.29433
G1 X92.43 Y133.38 E151.38560
G1 X92.30 Y131.54 E151.47766
G1 X92.26 Y130.09 E151.55047
G1 X92.25 Y129.68 E151.57074
G1 X92.29 Y127.87 E151.66086
G1 X92.42 Y126.05 E151.75225
G1 X92.64 Y124.22 E151.84382
G1 X92.95 Y122.41 E151.93564
G1 X93.36 Y120.62 E152.02731
G1 X93.84 Y118.85 E152.11857
G1 X94.33 Y117.37 E152.19635
G1 X94.46 Y116.97 E152.21738
G1 X95.07 Y115.39 E152.30222
G1 X95.81 Y113.72 E152.39336
G1 X96.63 Y112.08 E152.48488
G1 X97.54 Y110.47 E152.57654
G1 X98.52 Y108.92 E152.66831
G1 X99.57 Y107.42 E152.75977
G1 X100.70 Y105.97 E152.85136
G1 X101.90 Y104.57 E152.94320
G1 X103.16 Y103.25 E153.03428
G0 F12000 X103.44 Y103.53
G1 F2400 X104.75 Y102.28 E153.12490
G1 X106.13 Y101.08 E153.21594
G1 X107.27 Y100.19 E153.28830
G1 X107.56 Y99.96 E153.30644
G1 X109.05 Y98.91 E153.39756
G1 X110.57 Y97.94 E153.48760
G1 X112.16 Y97.04 E153.57844
G1 X113.77 Y96.23 E153.66883
G1 X115.43 Y95.49 E153.75939
G1 X117.13 Y94.83 E153.85022
G1 X118.47 Y94.39 E153.92051
G1 X118.83 Y94.26 E153.93966
G1 X120.61 Y93.77 E154.03174
G1 X122.37 Y93.37 E154.12204
G1 X124.16 Y93.06 E154.21264
G1 X125.96 Y92.83 E154.30285
G1 X127.78 Y92.69 E154.39395
G1 X129.22 Y92.66 E154.46617
G1 X129.62 Y92.65 E154.48593
G1 X131.41 Y92.69 E154.57516
G1 X133.22 Y92.82 E154.66559
G1 X135.02 Y93.04 E154.75621
G1 X136.81 Y93.34 E154.84692
G1 X138.59 Y93.74 E154.93761
G1 X140.33 Y94.22 E155.02795
G1 X142.06 Y94.79 E155.11875
G1 X143.75 Y95.44 E155.20911
G1 X145.41 Y96.17 E155.29969
G1 X147.04 Y96.99 E155.39036
G1 X148.62 Y97.88 E155.48104
G1 X150.16 Y98.85 E155.57182
G1 X151.64 Y99.89 E155.66232
G1 X152.50 Y100.56 E155.71644
G1 X152.97 Y100.19 E155.74629
G1 X153.26 Y99.96 E155.76443
G1 X154.75 Y98.91 E155.85555
G1 X156.27 Y97.94 E155.94559
G1 X157.86 Y97.04 E156.03643
G1 X159.47 Y96.23 E156.12682
G1 X161.13 Y95.49 E156.21738
G1 X162.83 Y94.83 E156.30822
G1 X164.17 Y94.39 E156.37850
G1 X164.53 Y94.26 E156.39765
G1 X166.31 Y93.77 E156.48973
G1 X168.07 Y93.37 E156.58003
G1 X169.86 Y93.06 E156.67063
G1 X171.66 Y92.83 E156.76084
G1 X173.48 Y92.69 E156.85194
G1 X174.92 Y92.66 E156.92416
G1 X175.32 Y92.65 E156.94392
G1 X177.11 Y92.69 E157.03315
G1 X178.92 Y92.82 E157.12358
G1 X180.72 Y93.04 E157.21420
G1 X182.51 Y93.34 E157.30491
G1 X184.28 Y93.74 E157.39560
G1 X186.03 Y94.22 E157.48594
G1 X187.76 Y94.79 E157.57674
G1 X189.45 Y95.44 E157.66710
G1 X191.11 Y96.17 E157.75768
G1 X192.74 Y96.99 E157.84835
G1 X194.32 Y97.88 E157.93903
G1 X195.86 Y98.85 E158.02982
G1 X197.34 Y99.89 E158.12031
G1 X198.78 Y101.01 E158.21094
G1 X200.16 Y102.19 E158.30175
G1 X201.47 Y103.44 E158.39188
G1 X202.72 Y104.75 E158.48250
G1 X203.92 Y106.13 E158.57354
G1 X204.81 Y107.27 E158.64590
G1 X205.04 Y107.56 E158.66404
G1 X206.09 Y109.06 E158.75541
G1 X207.06 Y110.57 E158.84517
G1 X207.96 Y112.15 E158.93577
G1 X208.77 Y113.77 E159.02643
G1 X209.51 Y115.43 E159.11699
G1 X210.17 Y117.13 E159.20782
G1 X210.61 Y118.47 E159.27811
G1 X210.74 Y118.83 E159.29726
G1 X211.23 Y120.61 E159.38934
G1 X211.63 Y122.37 E159.47964
G1 X211.94 Y124.16 E159.57024
G1 X212.17 Y125.96 E159.66045
G1 X212.31 Y127.78 E159.75155
G1 X212.34 Y129.20 E159.82237
G1 X212.35 Y129.62 E159.84353
G1 X212.31 Y131.41 E159.93276
G1 X212.18 Y133.22 E160.02319
G1 X211.96 Y135.02 E160.11381
G1 X211.66 Y136.81 E160.20452
G1 X211.26 Y138.59 E160.29521
G1 X210.78 Y140.33 E160.38555
G1 X210.29 Y141.80 E160.46275
G1 X210.16 Y142.19 E160.48326
G1 X209.56 Y143.76 E160.56724
G1 X208.83 Y145.41 E160.65740
G1 X208.01 Y147.04 E160.74796
G1 X207.12 Y148.62 E160.83864
G1 X206.15 Y150.16 E160.92942
G1 X205.11 Y151.64 E161.01992
G1 X204.44 Y152.50 E161.07403
G1 X204.81 Y152.97 E161.10388
G1 X205.04 Y153.26 E161.12203
G1 X206.09 Y154.75 E161.21340
G1 X207.06 Y156.27 E161.30316
G1 X207.96 Y157.85 E161.39376
G1 X208.77 Y159.47 E161.48442
G1 X209.51 Y161.13 E161.57498
G1 X210.17 Y162.83 E161.66581
G1 X210.61 Y164.17 E161.73610
G1 X210.74 Y164.53 E161.75525
G1 X211.23 Y166.31 E161.84732
G1 X211.63 Y168.07 E161.93762
G1 X211.94 Y169.86 E162.02822
G1 X212.17 Y171.66 E162.11843
G1 X212.31 Y173.48 E162.20954
G1 X212.34 Y174.90 E162.28036
G1 X212.35 Y175.32 E162.30152
G1 X212.31 Y177.11 E162.39075
G1 X212.18 Y178.92 E162.48118
G1 X211.96 Y180.72 E162.57180
G1 X211.66 Y182.51 E162.66250
G1 X211.26 Y184.28 E162.75320
G1 X210.78 Y186.03 E162.84354
G1 X210.29 Y187.50 E162.92073
G1 X210.16 Y187.89 E162.94124
G1 X209.56 Y189.46 E163.02523
G1 X208.83 Y191.11 E163.11539
G1 X208.01 Y192.74 E163.20595
G1 X207.12 Y194.32 E163.29662
G1 X206.15 Y195.86 E163.38741
G1 X205.11 Y197.34 E163.47790
G1 X203.99 Y198.78 E163.56854
G1 X202.81 Y200.16 E163.65934
G1 X201.56 Y201.47 E163.74948
G1 X200.25 Y202.72 E163.84009
G1 X198.87 Y203.92 E163.93113
G1 X197.73 Y204.81 E164.00349
G1 X197.44 Y205.04 E164.02164
G1 X195.95 Y206.09 E164.11276
G1 X194.43 Y207.06 E164.20279
G1 X192.84 Y207.96 E164.29364
G1 X191.22 Y208.78 E164.38418
G1 X189.57 Y209.51 E164.47429
G1 X187.87 Y210.17 E164.56534
G1 X186.55 Y210.61 E164.63465
G1 X186.17 Y210.74 E164.65486
G1 X184.39 Y211.23 E164.74699
G1 X182.62 Y211.63 E164.83728
G1 X180.84 Y211.94 E164.92777
G1 X179.04 Y212.17 E165.01804
G1 X177.22 Y212.31 E165.10914
G1 X175.78 Y212.34 E165.18136
G1 X175.38 Y212.35 E165.20112
G1 X173.59 Y212.31 E165.29035
G1 X171.78 Y212.18 E165.38078
G1 X169.98 Y211.96 E165.47140
G1 X168.19 Y211.66 E165.56211
G1 X166.41 Y211.26 E165.65280
G1 X164.67 Y210.78 E165.74314
G1 X163.20 Y210.29 E165.82034
G1 X162.81 Y210.16 E165.84085
G1 X161.24 Y209.56 E165.92484
G1 X159.59 Y208.83 E166.01499
G1 X157.96 Y208.01 E166.10555
G1 X156.38 Y207.12 E166.19623
G1 X154.84 Y206.15 E166.28702
G1 X153.36 Y205.11 E166.37751
G1 X152.50 Y204.44 E166.43163
G1 X152.03 Y204.81 E166.46148
G1 X151.74 Y205.04 E166.47963
G1 X150.25 Y206.09 E166.57075
G1 X148.73 Y207.06 E166.66078
G1 X147.14 Y207.96 E166.75162
G1 X145.52 Y208.78 E166.84217
G1 X143.87 Y209.51 E166.93262
G1 X142.17 Y210.17 E167.02329
G1 X140.84 Y210.61 E167.09364
G1 X140.47 Y210.74 E167.11284
G1 X138.69 Y211.23 E167.20498
G1 X136.93 Y211.63 E167.29527
G1 X135.14 Y211.94 E167.38576
G1 X133.34 Y212.17 E167.47603
G1 X131.52 Y212.31 E167.56713
G1 X130.07 Y212.34 E167.63939
G1 X129.68 Y212.35 E167.65916
G1 X127.89 Y212.31 E167.74834
G1 X126.08 Y212.18 E167.83877
G1 X124.28 Y211.96 E167.92939
G1 X122.49 Y211.66 E168.02009
G1 X120.72 Y211.26 E168.11079
G1 X118.97 Y210.78 E168.20113
G1 X117.50 Y210.29 E168.27832
G1 X117.11 Y210.16 E168.29883
G1 X115.54 Y209.56 E168.38282
G1 X113.89 Y208.83 E168.47298
G1 X112.26 Y208.01 E168.56354
G1 X110.68 Y207.12 E168.65421
G1 X109.14 Y206.15 E168.74500
G1 X107.66 Y205.11 E168.83549
G1 X106.22 Y203.99 E168.92613
G1 X104.84 Y202.81 E169.01694
G1 X103.53 Y201.56 E169.10707
G1 X102.28 Y200.25 E169.19768
G1 X101.08 Y198.87 E169.28872
G1 X100.19 Y197.73 E169.36108
G1 X99.96 Y197.44 E169.37923
G1 X98.91 Y195.95 E169.47035
G1 X97.94 Y194.43 E169.56038
G1 X97.04 Y192.84 E169.65123
G1 X96.23 Y191.23 E169.74161
G1 X95.49 Y189.57 E169.83217
G1 X94.83 Y187.87 E169.92301
G1 X94.37 Y186.50 E169.99514
G1 X94.26 Y186.17 E170.01245
G1 X93.77 Y184.39 E170.10458
G1 X93.37 Y182.62 E170.19487
G1 X93.06 Y180.84 E170.28536
G1 X92.83 Y179.04 E170.37563
G1 X92.69 Y177.22 E170.46673
G1 X92.66 Y175.77 E170.53900
G1 X92.65 Y175.38 E170.55876
G1 X92.69 Y173.59 E170.64794
G1 X92.82 Y171.78 E170.73837
G1 X93.04 Y169.98 E170.82899
G1 X93.34 Y168.19 E170.91970
G1 X93.74 Y166.41 E171.01039
G1 X94.22 Y164.67 E171.10073
G1 X94.70 Y163.20 E171.17793
G1 X94.84 Y162.81 E171.19844
G1 X95.44 Y161.24 E171.28243
G1 X96.17 Y159.59 E171.37258
G1 X96.99 Y157.96 E171.46314
G1 X97.88 Y156.38 E171.55382
G1 X98.85 Y154.84 E171.64461
G1 X99.89 Y153.36 E171.73510
G1 X100.56 Y152.50 E171.78922
G1 X100.19 Y152.03 E171.81907
G1 X99.96 Y151.74 E171.83722
G1 X98.91 Y150.25 E171.92833
G1 X97.94 Y148.73 E172.01837
G1 X97.04 Y147.14 E172.10921
G1 X96.23 Y145.53 E172.19960
G1 X95.49 Y143.87 E172.29016
G1 X94.83 Y142.17 E172.38100
G1 X94.37 Y140.80 E172.45313
G1 X94.26 Y140.47 E172.47043
G1 X93.77 Y138.69 E172.56257
G1 X93.37 Y136.93 E172.65286
G1 X93.06 Y135.14 E172.74335
G1 X92.83 Y133.34 E172.83362
G1 X92.69 Y131.52 E172.92472
G1 X92.66 Y130.07 E172.99699
G1 X92.65 Y129.68 E173.01675
G1 X92.69 Y127.89 E173.10593
G1 X92.82 Y126.08 E173.19636
G1 X93.04 Y124.28 E173.28693
G1 X93.34 Y122.49 E173.37778
G1 X93.74 Y120.71 E173.46844
G1 X94.22 Y118.97 E173.55872
G1 X94.70 Y117.50 E173.63592
G1 X94.84 Y117.11 E173.65643
G1 X95.44 Y115.54 E173.74041
G1 X96.17 Y113.89 E173.83057
G1 X96.99 Y112.26 E173.92113
G1 X97.88 Y110.68 E174.01181
G1 X98.85 Y109.14 E174.10259
G1 X99.89 Y107.66 E174.19309
G1 X101.01 Y106.22 E174.28372
G1 X102.19 Y104.84 E174.37453
G1 X103.44 Y103.53 E174.46466
G0 F12000 X103.72 Y103.81
G1 F2400 X105.02 Y102.57 E174.55429
G1 X106.39 Y101.39 E174.64434
G1 X107.52 Y100.50 E174.71623
G1 X107.80 Y100.28 E174.73388
G1 X109.27 Y99.24 E174.82396
G1 X110.78 Y98.29 E174.91305
G1 X112.35 Y97.39 E175.00294
G1 X113.95 Y96.59 E175.09234
G1 X115.59 Y95.86 E175.18192
G1 X117.27 Y95.21 E175.27177
G1 X118.54 Y94.78 E175.33883
G1 X118.95 Y94.64 E175.36031
G1 X120.71 Y94.16 E175.45129
G1 X122.45 Y93.76 E175.54062
G1 X124.22 Y93.45 E175.63025
G1 X126.00 Y93.23 E175.71951
G1 X127.80 Y93.09 E175.80961
G1 X129.24 Y93.06 E175.88133
G1 X129.62 Y93.05 E175.90064
G1 X131.39 Y93.09 E175.98888
G1 X133.18 Y93.22 E176.07831
G1 X134.96 Y93.43 E176.16797
G1 X136.74 Y93.74 E176.25772
G1 X138.49 Y94.13 E176.34740
G1 X140.22 Y94.61 E176.43679
G1 X141.93 Y95.17 E176.52655
G1 X143.60 Y95.81 E176.61599
G1 X145.24 Y96.53 E176.70559
G1 X146.85 Y97.34 E176.79526
G1 X148.42 Y98.22 E176.88498
G1 X149.94 Y99.18 E176.97475
G1 X151.41 Y100.21 E177.06425
G1 X152.50 Y101.06 E177.13344
G1 X153.22 Y100.50 E177.17889
G1 X153.50 Y100.28 E177.19654
G1 X154.97 Y99.24 E177.28662
G1 X156.48 Y98.29 E177.37571
G1 X158.04 Y97.39 E177.46560
G1 X159.65 Y96.59 E177.55501
G1 X161.28 Y95.86 E177.64459
G1 X162.96 Y95.21 E177.73443
G1 X164.24 Y94.78 E177.80149
G1 X164.65 Y94.64 E177.82297
G1 X166.41 Y94.16 E177.91395
G1 X168.15 Y93.76 E178.00328
G1 X169.92 Y93.45 E178.09292
G1 X171.70 Y93.23 E178.18217
G1 X173.50 Y93.09 E178.27227
G1 X174.93 Y93.06 E178.34399
G1 X175.32 Y93.05 E178.36331
G1 X177.09 Y93.09 E178.45154
G1 X178.88 Y93.22 E178.54097
G1 X180.66 Y93.43 E178.63063
G1 X182.43 Y93.74 E178.72038
G1 X184.19 Y94.13 E178.81006
G1 X185.92 Y94.61 E178.89945
G1 X187.62 Y95.17 E178.98921
G1 X189.30 Y95.81 E179.07865
G1 X190.94 Y96.53 E179.16825
G1 X192.55 Y97.34 E179.25792
G1 X194.12 Y98.22 E179.34764
G1 X195.64 Y99.18 E179.43741
G1 X197.10 Y100.21 E179.52691
G1 X198.52 Y101.32 E179.61657
G1 X199.89 Y102.49 E179.70643
G1 X201.19 Y103.72 E179.79557
G1 X202.43 Y105.02 E179.88520
G1 X203.61 Y106.39 E179.97525
G1 X204.48 Y107.49 E180.04551
G1 X204.72 Y107.80 E180.06480
G1 X205.76 Y109.28 E180.15520
G1 X206.71 Y110.78 E180.24394
G1 X207.60 Y112.34 E180.33356
G1 X208.41 Y113.95 E180.42326
G1 X209.14 Y115.59 E180.51284
G1 X209.79 Y117.27 E180.60268
G1 X210.22 Y118.54 E180.66975
G1 X210.36 Y118.95 E180.69122
G1 X210.84 Y120.71 E180.78220
G1 X211.24 Y122.45 E180.87153
G1 X211.55 Y124.22 E180.96117
G1 X211.77 Y126.00 E181.05042
G1 X211.91 Y127.80 E181.14053
G1 X211.94 Y129.21 E181.21094
G1 X211.95 Y129.62 E181.23156
G1 X211.91 Y131.39 E181.31979
G1 X211.78 Y133.18 E181.40922
G1 X211.57 Y134.96 E181.49889
G1 X211.26 Y136.74 E181.58863
G1 X210.87 Y138.49 E181.67831
G1 X210.40 Y140.22 E181.76770
G1 X209.92 Y141.68 E181.84427
G1 X209.79 Y142.05 E181.86426
G1 X209.19 Y143.61 E181.94740
G1 X208.47 Y145.25 E182.03661
G1 X207.66 Y146.85 E182.12617
G1 X206.78 Y148.42 E182.21589
G1 X205.82 Y149.94 E182.30566
G1 X204.79 Y151.41 E182.39516
G1 X203.94 Y152.50 E182.46435
G1 X204.48 Y153.19 E182.50817
G1 X204.72 Y153.50 E182.52745
G1 X205.76 Y154.98 E182.61785
G1 X206.71 Y156.48 E182.70660
G1 X207.60 Y158.04 E182.79622
G1 X208.41 Y159.65 E182.88591
G1 X209.14 Y161.28 E182.97549
G1 X209.79 Y162.96 E183.06534
G1 X210.22 Y164.24 E183.13240
G1 X210.36 Y164.65 E183.15388
G1 X210.84 Y166.41 E183.24486
G1 X211.24 Y168.15 E183.33419
G1 X211.55 Y169.92 E183.42382
G1 X211.77 Y171.70 E183.51308
G1 X211.91 Y173.50 E183.60318
G1 X211.94 Y174.91 E183.67360
G1 X211.95 Y175.32 E183.69421
G1 X211.91 Y177.09 E183.78245
G1 X211.78 Y178.88 E183.87188
G1 X211.57 Y180.66 E183.96154
G1 X211.26 Y182.43 E184.05129
G1 X210.87 Y184.19 E184.14097
G1 X210.40 Y185.92 E184.23036
G1 X209.92 Y187.37 E184.30693
G1 X209.79 Y187.75 E184.32692
G1 X209.19 Y189.31 E184.41005
G1 X208.47 Y190.94 E184.49927
G1 X207.66 Y192.55 E184.58883
G1 X206.78 Y194.12 E184.67854
G1 X205.82 Y195.64 E184.76832
G1 X204.79 Y197.10 E184.85782
G1 X203.68 Y198.52 E184.94748
G1 X202.51 Y199.89 E185.03734
G1 X201.28 Y201.19 E185.12648
G1 X199.98 Y202.43 E185.21611
G1 X198.62 Y203.61 E185.30616
G1 X197.48 Y204.50 E185.37805
G1 X197.20 Y204.72 E185.39570
G1 X195.73 Y205.76 E185.48578
G1 X194.22 Y206.71 E185.57487
G1 X192.65 Y207.60 E185.66476
G1 X191.05 Y208.41 E185.75432
G1 X189.42 Y209.14 E185.84348
G1 X187.74 Y209.79 E185.93349
G1 X186.48 Y210.21 E185.99966
G1 X186.05 Y210.36 E186.02213
G1 X184.29 Y210.84 E186.11322
G1 X182.55 Y211.24 E186.20254
G1 X180.78 Y211.55 E186.29203
G1 X179.00 Y211.77 E186.38133
G1 X177.20 Y211.91 E186.47144
G1 X175.76 Y211.94 E186.54315
G1 X175.38 Y211.95 E186.56247
G1 X173.61 Y211.91 E186.65070
G1 X171.82 Y211.78 E186.74013
G1 X170.04 Y211.57 E186.82980
G1 X168.26 Y211.26 E186.91954
G1 X166.51 Y210.87 E187.00922
G1 X164.78 Y210.40 E187.09861
G1 X163.32 Y209.92 E187.17518
G1 X162.95 Y209.79 E187.19517
G1 X161.39 Y209.19 E187.27830
G1 X159.75 Y208.47 E187.36752
G1 X158.15 Y207.66 E187.45708
G1 X156.58 Y206.78 E187.54680
G1 X155.06 Y205.82 E187.63657
G1 X153.59 Y204.79 E187.72607
G1 X152.50 Y203.94 E187.79526
G1 X151.78 Y204.50 E187.84071
G1 X151.50 Y204.72 E187.85836
G1 X150.03 Y205.76 E187.94844
G1 X148.52 Y206.71 E188.03753
G1 X146.96 Y207.60 E188.12742
G1 X145.35 Y208.41 E188.21698
G1 X143.71 Y209.14 E188.30645
G1 X142.04 Y209.79 E188.39613
G1 X140.76 Y210.22 E188.46320
G1 X140.35 Y210.36 E188.48478
G1 X138.59 Y210.84 E188.57588
G1 X136.85 Y211.24 E188.66520
G1 X135.08 Y211.55 E188.75468
G1 X133.30 Y211.77 E188.84398
G1 X131.50 Y211.91 E188.93409
G1 X130.06 Y211.94 E189.00591
G1 X129.68 Y211.95 E189.02517
G1 X127.91 Y211.91 E189.11335
G1 X126.12 Y211.78 E189.20279
G1 X124.34 Y211.57 E189.29245
G1 X122.57 Y211.26 E189.38220
G1 X120.81 Y210.87 E189.47188
G1 X119.08 Y210.40 E189.56127
G1 X117.63 Y209.92 E189.63784
G1 X117.25 Y209.79 E189.65783
G1 X115.69 Y209.19 E189.74096
G1 X114.06 Y208.47 E189.83018
G1 X112.45 Y207.66 E189.91974
G1 X110.89 Y206.78 E190.00945
G1 X109.36 Y205.82 E190.09923
G1 X107.89 Y204.79 E190.18872
G1 X106.48 Y203.68 E190.27839
G1 X105.11 Y202.51 E190.36825
G1 X103.81 Y201.28 E190.45739
G1 X102.57 Y199.98 E190.54702
G1 X101.39 Y198.62 E190.63707
G1 X100.50 Y197.48 E190.70896
G1 X100.28 Y197.20 E190.72661
G1 X99.24 Y195.73 E190.81669
G1 X98.29 Y194.22 E190.90578
G1 X97.39 Y192.65 E190.99567
G1 X96.59 Y191.05 E191.08507
G1 X95.86 Y189.41 E191.17465
G1 X95.21 Y187.74 E191.26450
G1 X94.78 Y186.46 E191.33156
G1 X94.64 Y186.05 E191.35304
G1 X94.16 Y184.29 E191.44413
G1 X93.76 Y182.55 E191.53345
G1 X93.45 Y180.78 E191.62293
G1 X93.23 Y179.00 E191.71224
G1 X93.09 Y177.20 E191.80234
G1 X93.06 Y175.76 E191.87416
G1 X93.05 Y175.38 E191.89342
G1 X93.09 Y173.61 E191.98161
G1 X93.22 Y171.82 E192.07104
G1 X93.43 Y170.04 E192.16070
G1 X93.74 Y168.26 E192.25045
G1 X94.13 Y166.51 E192.34013
G1 X94.61 Y164.78 E192.42952
G1 X95.08 Y163.32 E192.50609
G1 X95.21 Y162.95 E192.52608
G1 X95.81 Y161.39 E192.60921
G1 X96.53 Y159.75 E192.69843
G1 X97.34 Y158.15 E192.78799
G1 X98.22 Y156.58 E192.87770
G1 X99.18 Y155.06 E192.96748
G1 X100.21 Y153.59 E193.05698
G1 X101.06 Y152.50 E193.12616
G1 X100.50 Y151.78 E193.17162
G1 X100.28 Y151.50 E193.18927
G1 X99.24 Y150.03 E193.27935
G1 X98.29 Y148.52 E193.36844
G1 X97.39 Y146.96 E193.45833
G1 X96.59 Y145.35 E193.54773
G1 X95.86 Y143.72 E193.63731
G1 X95.21 Y142.04 E193.72716
G1 X94.78 Y140.76 E193.79422
G1 X94.64 Y140.35 E193.81570
G1 X94.16 Y138.59 E193.90679
G1 X93.76 Y136.85 E193.99611
G1 X93.45 Y135.08 E194.08559
G1 X93.23 Y133.30 E194.17489
G1 X93.09 Y131.50 E194.26500
G1 X93.06 Y130.06 E194.33682
G1 X93.05 Y129.68 E194.35608
G1 X93.09 Y127.91 E194.44426
G1 X93.22 Y126.12 E194.53370
G1 X93.43 Y124.34 E194.62331
G1 X93.74 Y122.56 E194.71316
G1 X94.13 Y120.81 E194.80288
G1 X94.61 Y119.08 E194.89218
G1 X95.08 Y117.63 E194.96875
G1 X95.21 Y117.25 E194.98874
G1 X95.81 Y115.69 E195.07187
G1 X96.53 Y114.06 E195.16109
G1 X97.34 Y112.45 E195.25065
G1 X98.22 Y110.89 E195.34036
G1 X99.18 Y109.36 E195.43014
G1 X100.21 Y107.89 E195.51964
G1 X101.32 Y106.48 E195.60930
G1 X102.49 Y105.11 E195.69916
G1 X103.72 Y103.81 E195.78830
G0 F12000 X104.00 Y104.10
G1 F2400 X105.29 Y102.87 E195.87698
G1 X106.64 Y101.70 E195.96607
G1 X107.70 Y100.87 E196.03342
G1 X108.04 Y100.60 E196.05466
G1 X109.50 Y99.58 E196.14370
G1 X110.99 Y98.63 E196.23178
G1 X112.53 Y97.75 E196.32068
G1 X114.12 Y96.95 E196.40915
G1 X115.74 Y96.23 E196.49775
G1 X117.40 Y95.58 E196.58661
G1 X118.75 Y95.13 E196.65774
G1 X119.07 Y95.03 E196.67420
G1 X120.80 Y94.55 E196.76416
G1 X122.53 Y94.15 E196.85252
G1 X124.28 Y93.85 E196.94113
G1 X126.04 Y93.63 E197.02948
G1 X127.82 Y93.49 E197.11854
G1 X129.22 Y93.46 E197.18851
G1 X129.22 Y93.46 E197.18856
G1 X129.62 Y93.45 E197.20867
G1 X131.37 Y93.49 E197.29590
G1 X133.14 Y93.61 E197.38434
G1 X134.90 Y93.83 E197.47304
G1 X136.66 Y94.13 E197.56177
G1 X138.39 Y94.52 E197.65053
G1 X140.10 Y94.99 E197.73890
G1 X141.79 Y95.54 E197.82770
G1 X143.45 Y96.18 E197.91614
G1 X145.07 Y96.90 E198.00475
G1 X146.66 Y97.69 E198.09346
G1 X148.21 Y98.57 E198.18220
G1 X149.72 Y99.52 E198.27099
G1 X151.17 Y100.54 E198.35952
G1 X152.50 Y101.57 E198.44381
G1 X153.40 Y100.87 E198.50085
G1 X153.74 Y100.60 E198.52209
G1 X155.19 Y99.58 E198.61113
G1 X156.69 Y98.63 E198.69921
G1 X158.23 Y97.75 E198.78812
G1 X159.82 Y96.95 E198.87659
G1 X161.44 Y96.23 E198.96518
G1 X163.10 Y95.58 E199.05404
G1 X164.45 Y95.13 E199.12518
G1 X164.76 Y95.03 E199.14164
G1 X166.50 Y94.55 E199.23159
G1 X168.23 Y94.15 E199.31995
G1 X169.98 Y93.85 E199.40857
G1 X171.74 Y93.63 E199.49692
G1 X173.52 Y93.49 E199.58597
G1 X174.92 Y93.46 E199.65594
G1 X174.92 Y93.46 E199.65599
G1 X175.32 Y93.45 E199.67611
G1 X177.07 Y93.49 E199.76334
G1 X178.84 Y93.61 E199.85177
G1 X180.60 Y93.83 E199.94048
G1 X182.36 Y94.13 E200.02921
G1 X184.09 Y94.52 E200.11796
G1 X185.80 Y94.99 E200.20633
G1 X187.49 Y95.54 E200.29514
G1 X189.15 Y96.18 E200.38358
G1 X190.77 Y96.90 E200.47219
G1 X192.36 Y97.69 E200.56090
G1 X193.91 Y98.57 E200.64963
G1 X195.41 Y99.52 E200.73842
G1 X196.87 Y100.54 E200.82695
G1 X198.27 Y101.63 E200.91566
G1 X199.62 Y102.79 E201.00453
G1 X200.90 Y104.00 E201.09268
G1 X202.13 Y105.29 E201.18136
G1 X203.30 Y106.64 E201.27045
G1 X204.12 Y107.69 E201.33709
G1 X204.40 Y108.04 E201.35904
G1 X205.43 Y109.50 E201.44833
G1 X206.37 Y110.99 E201.53613
G1 X207.25 Y112.53 E201.62477
G1 X208.05 Y114.12 E201.71353
G1 X208.77 Y115.74 E201.80213
G1 X209.42 Y117.40 E201.89099
G1 X209.87 Y118.75 E201.96212
G1 X209.97 Y119.07 E201.97858
G1 X210.45 Y120.80 E202.06853
G1 X210.85 Y122.53 E202.15690
G1 X211.15 Y124.28 E202.24551
G1 X211.37 Y126.04 E202.33386
G1 X211.51 Y127.82 E202.42292
G1 X211.54 Y129.22 E202.49288
G1 X211.54 Y129.22 E202.49293
G1 X211.55 Y129.62 E202.51305
G1 X211.51 Y131.37 E202.60028
G1 X211.38 Y133.14 E202.68871
G1 X211.17 Y134.90 E202.77742
G1 X210.87 Y136.66 E202.86615
G1 X210.48 Y138.39 E202.95491
G1 X210.01 Y140.10 E203.04327
G1 X209.54 Y141.55 E203.11921
G1 X209.41 Y141.92 E203.13872
G1 X208.82 Y143.46 E203.22105
G1 X208.10 Y145.07 E203.30929
G1 X207.31 Y146.66 E203.39784
G1 X206.43 Y148.21 E203.48657
G1 X205.48 Y149.72 E203.57537
G1 X204.46 Y151.17 E203.66390
G1 X203.43 Y152.50 E203.74819
G1 X204.12 Y153.39 E203.80452
G1 X204.40 Y153.74 E203.82647
G1 X205.43 Y155.20 E203.91576
G1 X206.37 Y156.69 E204.00357
G1 X207.25 Y158.23 E204.09221
G1 X208.05 Y159.82 E204.18096
G1 X208.77 Y161.44 E204.26956
G1 X209.42 Y163.10 E204.35842
G1 X209.87 Y164.45 E204.42956
G1 X209.97 Y164.76 E204.44601
G1 X210.45 Y166.50 E204.53597
G1 X210.85 Y168.23 E204.62433
G1 X211.15 Y169.98 E204.71295
G1 X211.37 Y171.74 E204.80129
G1 X211.51 Y173.52 E204.89035
G1 X211.54 Y174.92 E204.96032
G1 X211.54 Y174.92 E204.96037
G1 X211.55 Y175.32 E204.98048
G1 X211.51 Y177.07 E205.06771
G1 X211.38 Y178.84 E205.15615
G1 X211.17 Y180.60 E205.24485
G1 X210.87 Y182.36 E205.33358
G1 X210.48 Y184.09 E205.42234
G1 X210.01 Y185.80 E205.51071
G1 X209.54 Y187.25 E205.58664
G1 X209.41 Y187.62 E205.60616
G1 X208.82 Y189.16 E205.68849
G1 X208.10 Y190.77 E205.77672
G1 X207.31 Y192.36 E205.86528
G1 X206.43 Y193.91 E205.95401
G1 X205.48 Y195.41 E206.04280
G1 X204.46 Y196.87 E206.13133
G1 X203.37 Y198.27 E206.22004
G1 X202.21 Y199.62 E206.30890
G1 X201.00 Y200.90 E206.39706
G1 X199.71 Y202.13 E206.48573
G1 X198.36 Y203.30 E206.57483
G1 X197.31 Y204.12 E206.64146
G1 X196.96 Y204.40 E206.66341
G1 X195.50 Y205.42 E206.75246
G1 X194.01 Y206.37 E206.84054
G1 X192.47 Y207.25 E206.92944
G1 X190.88 Y208.05 E207.01802
G1 X189.26 Y208.77 E207.10621
G1 X187.60 Y209.42 E207.19524
G1 X186.30 Y209.85 E207.26387
G1 X185.93 Y209.97 E207.28296
G1 X184.19 Y210.46 E207.37298
G1 X182.47 Y210.85 E207.46133
G1 X180.72 Y211.15 E207.54984
G1 X178.96 Y211.37 E207.63824
G1 X177.18 Y211.51 E207.72730
G1 X175.78 Y211.54 E207.79727
G1 X175.78 Y211.54 E207.79732
G1 X175.38 Y211.55 E207.81743
G1 X173.63 Y211.51 E207.90466
G1 X171.86 Y211.38 E207.99310
G1 X170.10 Y211.17 E208.08180
G1 X168.34 Y210.87 E208.17053
G1 X166.61 Y210.48 E208.25929
G1 X164.90 Y210.01 E208.34766
G1 X163.45 Y209.54 E208.42359
G1 X163.08 Y209.41 E208.44311
G1 X161.54 Y208.82 E208.52544
G1 X159.93 Y208.10 E208.61367
G1 X158.34 Y207.31 E208.70222
G1 X156.79 Y206.43 E208.79096
G1 X155.28 Y205.48 E208.87975
G1 X153.83 Y204.46 E208.96828
G1 X152.50 Y203.43 E209.05257
G1 X151.61 Y204.12 E209.10890
G1 X151.26 Y204.40 E209.13085
G1 X149.81 Y205.42 E209.21989
G1 X148.31 Y206.37 E209.30797
G1 X146.77 Y207.25 E209.39688
G1 X145.18 Y208.05 E209.48546
G1 X143.56 Y208.77 E209.57399
G1 X141.90 Y209.42 E209.66264
G1 X140.55 Y209.87 E209.73394
G1 X140.24 Y209.97 E209.75040
G1 X138.50 Y210.46 E209.84041
G1 X136.77 Y210.85 E209.92876
G1 X135.02 Y211.15 E210.01728
G1 X133.26 Y211.37 E210.10568
G1 X131.48 Y211.51 E210.19473
G1 X130.08 Y211.54 E210.26475
G1 X130.08 Y211.54 E210.26480
G1 X129.68 Y211.55 E210.28492
G1 X127.93 Y211.51 E210.37210
G1 X126.16 Y211.38 E210.46053
G1 X124.40 Y211.17 E210.54924
G1 X122.64 Y210.87 E210.63797
G1 X120.91 Y210.48 E210.72673
G1 X119.20 Y210.01 E210.81509
G1 X117.75 Y209.54 E210.89103
G1 X117.38 Y209.41 E210.91054
G1 X115.84 Y208.82 E210.99287
G1 X114.23 Y208.10 E211.08111
G1 X112.64 Y207.31 E211.16966
G1 X111.09 Y206.43 E211.25839
G1 X109.58 Y205.48 E211.34719
G1 X108.13 Y204.46 E211.43571
G1 X106.73 Y203.37 E211.52442
G1 X105.38 Y202.21 E211.61329
G1 X104.10 Y201.00 E211.70144
G1 X102.87 Y199.71 E211.79012
G1 X101.70 Y198.36 E211.87921
G1 X100.88 Y197.31 E211.94585
G1 X100.60 Y196.96 E211.96780
G1 X99.58 Y195.50 E212.05684
G1 X98.63 Y194.01 E212.14492
G1 X97.75 Y192.47 E212.23382
G1 X96.95 Y190.88 E212.32229
G1 X96.23 Y189.26 E212.41089
G1 X95.58 Y187.60 E212.49975
G1 X95.13 Y186.25 E212.57089
G1 X95.03 Y185.93 E212.58734
G1 X94.55 Y184.19 E212.67736
G1 X94.15 Y182.47 E212.76571
G1 X93.85 Y180.72 E212.85423
G1 X93.63 Y178.96 E212.94262
G1 X93.49 Y177.18 E213.03168
G1 X93.46 Y175.78 E213.10170
G1 X93.46 Y175.78 E213.10175
G1 X93.45 Y175.38 E213.12186
G1 X93.49 Y173.63 E213.20905
G1 X93.61 Y171.86 E213.29748
G1 X93.83 Y170.10 E213.38619
G1 X94.13 Y168.34 E213.47491
G1 X94.52 Y166.61 E213.56367
G1 X94.99 Y164.90 E213.65204
G1 X95.46 Y163.45 E213.72797
G1 X95.59 Y163.08 E213.74749
G1 X96.18 Y161.54 E213.82982
G1 X96.90 Y159.93 E213.91805
G1 X97.69 Y158.34 E214.00661
G1 X98.57 Y156.79 E214.09534
G1 X99.52 Y155.28 E214.18413
G1 X100.54 Y153.83 E214.27266
G1 X101.57 Y152.50 E214.35696
G1 X100.88 Y151.61 E214.41328
G1 X100.60 Y151.26 E214.43523
G1 X99.58 Y149.81 E214.52428
G1 X98.63 Y148.31 E214.61236
G1 X97.75 Y146.77 E214.70126
G1 X96.95 Y145.18 E214.78973
G1 X96.23 Y143.56 E214.87833
G1 X95.58 Y141.90 E214.96719
G1 X95.13 Y140.55 E215.03832
G1 X95.03 Y140.24 E215.05478
G1 X94.55 Y138.50 E215.14479
G1 X94.15 Y136.77 E215.23315
G1 X93.85 Y135.02 E215.32166
G1 X93.63 Y133.26 E215.41006
G1 X93.49 Y131.48 E215.49912
G1 X93.46 Y130.08 E215.56914
G1 X93.46 Y130.08 E215.56919
G1 X93.45 Y129.68 E215.58930
G1 X93.49 Y127.93 E215.67648
G1 X93.61 Y126.16 E215.76492
G1 X93.83 Y124.40 E215.85352
G1 X94.13 Y122.64 E215.94245
G1 X94.52 Y120.91 E216.03116
G1 X94.99 Y119.20 E216.11948
G1 X95.46 Y117.75 E216.19541
G1 X95.59 Y117.38 E216.21493
G1 X96.18 Y115.84 E216.29726
G1 X96.90 Y114.23 E216.38549
G1 X97.69 Y112.64 E216.47404
G1 X98.57 Y111.09 E216.56278
G1 X99.52 Y109.58 E216.65157
G1 X100.54 Y108.13 E216.74010
G1 X101.63 Y106.73 E216.82880
G1 X102.79 Y105.38 E216.91767
G1 X104.00 Y104.10 E217.00582
G0 F12000 X104.29 Y104.38
G1 F2400 X105.56 Y103.17 E217.09348
G1 X106.89 Y102.01 E217.18158
G1 X108.01 Y101.13 E217.25245
G1 X108.28 Y100.92 E217.26928
G1 X109.72 Y99.91 E217.35721
G1 X111.19 Y98.97 E217.44439
G1 X112.72 Y98.10 E217.53227
G1 X114.29 Y97.31 E217.61973
G1 X115.89 Y96.60 E217.70735
G1 X117.54 Y95.96 E217.79526
G1 X118.83 Y95.53 E217.86343
G1 X119.19 Y95.41 E217.88200
G1 X120.90 Y94.93 E217.97087
G1 X122.61 Y94.55 E218.05825
G1 X124.34 Y94.25 E218.14591
G1 X126.08 Y94.03 E218.23325
G1 X127.84 Y93.89 E218.32131
G1 X129.23 Y93.86 E218.39083
G1 X129.23 Y93.86 E218.39088
G1 X129.62 Y93.85 E218.41050
G1 X131.35 Y93.89 E218.49673
G1 X133.10 Y94.01 E218.58421
G1 X134.85 Y94.23 E218.67192
G1 X136.58 Y94.52 E218.75969
G1 X138.30 Y94.91 E218.84741
G1 X139.99 Y95.37 E218.93485
G1 X141.66 Y95.92 E219.02266
G1 X143.29 Y96.55 E219.11014
G1 X144.90 Y97.26 E219.19777
G1 X146.47 Y98.05 E219.28547
G1 X148.01 Y98.91 E219.37325
G1 X149.50 Y99.85 E219.46107
G1 X150.93 Y100.86 E219.54863
G1 X152.32 Y101.94 E219.63631
G1 X152.50 Y102.09 E219.64816
G1 X152.59 Y102.01 E219.65438
G1 X153.71 Y101.13 E219.72525
G1 X153.98 Y100.92 E219.74208
G1 X155.42 Y99.91 E219.83002
G1 X156.89 Y98.97 E219.91720
G1 X158.42 Y98.10 E220.00508
G1 X159.99 Y97.31 E220.09254
G1 X161.59 Y96.60 E220.18015
G1 X163.24 Y95.96 E220.26807
G1 X164.53 Y95.53 E220.33624
G1 X164.88 Y95.41 E220.35481
G1 X166.60 Y94.93 E220.44367
G1 X168.31 Y94.55 E220.53106
G1 X170.04 Y94.25 E220.61871
G1 X171.78 Y94.03 E220.70606
G1 X173.54 Y93.89 E220.79412
G1 X174.93 Y93.86 E220.86364
G1 X174.93 Y93.86 E220.86369
G1 X175.32 Y93.85 E220.88330
G1 X177.05 Y93.89 E220.96954
G1 X178.80 Y94.01 E221.05702
G1 X180.54 Y94.23 E221.14472
G1 X182.28 Y94.52 E221.23249
G1 X184.00 Y94.91 E221.32022
G1 X185.69 Y95.37 E221.40765
G1 X187.36 Y95.92 E221.49547
G1 X188.99 Y96.55 E221.58294
G1 X190.60 Y97.26 E221.67057
G1 X192.17 Y98.05 E221.75828
G1 X193.71 Y98.91 E221.84605
G1 X195.19 Y99.85 E221.93388
G1 X196.63 Y100.86 E222.02143
G1 X198.02 Y101.94 E222.10911
G1 X199.35 Y103.08 E222.19695
G1 X200.62 Y104.29 E222.28422
G1 X201.84 Y105.56 E222.37188
G1 X202.99 Y106.89 E222.45998
G1 X203.85 Y108.00 E222.52978
G1 X204.08 Y108.28 E222.54768
G1 X205.09 Y109.72 E222.63593
G1 X206.03 Y111.19 E222.72277
G1 X206.90 Y112.72 E222.81040
G1 X207.69 Y114.29 E222.89813
G1 X208.40 Y115.89 E222.98575
G1 X209.04 Y117.54 E223.07366
G1 X209.47 Y118.83 E223.14183
G1 X209.59 Y119.19 E223.16040
G1 X210.07 Y120.90 E223.24927
G1 X210.45 Y122.61 E223.33665
G1 X210.75 Y124.34 E223.42431
G1 X210.97 Y126.08 E223.51165
G1 X211.11 Y127.84 E223.59971
G1 X211.14 Y129.23 E223.66923
G1 X211.14 Y129.23 E223.66928
G1 X211.15 Y129.62 E223.68889
G1 X211.11 Y131.35 E223.77513
G1 X210.99 Y133.10 E223.86261
G1 X210.77 Y134.85 E223.95032
G1 X210.48 Y136.58 E224.03809
G1 X210.09 Y138.30 E224.12581
G1 X209.63 Y139.99 E224.21325
G1 X209.16 Y141.42 E224.28857
G1 X209.03 Y141.78 E224.30759
G1 X208.45 Y143.30 E224.38903
G1 X207.74 Y144.90 E224.47627
G1 X206.96 Y146.47 E224.56387
G1 X206.09 Y148.01 E224.65164
G1 X205.15 Y149.50 E224.73947
G1 X204.14 Y150.93 E224.82703
G1 X203.06 Y152.32 E224.91471
G1 X202.91 Y152.50 E224.92656
G1 X202.99 Y152.59 E224.93278
G1 X203.85 Y153.69 E225.00258
G1 X204.08 Y153.98 E225.02048
G1 X205.09 Y155.42 E225.10873
G1 X206.03 Y156.89 E225.19557
G1 X206.90 Y158.42 E225.28321
G1 X207.69 Y159.99 E225.37094
G1 X208.40 Y161.59 E225.45855
G1 X209.04 Y163.24 E225.54647
G1 X209.47 Y164.53 E225.61464
G1 X209.59 Y164.88 E225.63321
G1 X210.07 Y166.60 E225.72207
G1 X210.45 Y168.31 E225.80946
G1 X210.75 Y170.04 E225.89711
G1 X210.97 Y171.78 E225.98446
G1 X211.11 Y173.54 E226.07251
G1 X211.14 Y174.93 E226.14203
G1 X211.14 Y174.93 E226.14208
G1 X211.15 Y175.32 E226.16170
G1 X211.11 Y177.05 E226.24793
G1 X210.99 Y178.80 E226.33541
G1 X210.77 Y180.54 E226.42312
G1 X210.48 Y182.28 E226.51089
G1 X210.09 Y184.00 E226.59862
G1 X209.63 Y185.69 E226.68605
G1 X209.16 Y187.12 E226.76137
G1 X209.03 Y187.48 E226.78040
G1 X208.45 Y189.00 E226.86183
G1 X207.74 Y190.60 E226.94908
G1 X206.96 Y192.17 E227.03667
G1 X206.09 Y193.71 E227.12445
G1 X205.15 Y195.19 E227.21227
G1 X204.14 Y196.63 E227.29983
G1 X203.06 Y198.02 E227.38751
G1 X201.91 Y199.35 E227.47535
G1 X200.71 Y200.62 E227.56262
G1 X199.44 Y201.84 E227.65027
G1 X198.11 Y202.99 E227.73837
G1 X196.99 Y203.87 E227.80924
G1 X196.72 Y204.08 E227.82607
G1 X195.28 Y205.09 E227.91401
G1 X193.81 Y206.03 E228.00119
G1 X192.28 Y206.90 E228.08907
G1 X190.71 Y207.69 E228.17668
G1 X189.11 Y208.40 E228.26392
G1 X187.47 Y209.04 E228.35196
G1 X186.16 Y209.47 E228.42045
G1 X185.81 Y209.59 E228.43880
G1 X184.10 Y210.07 E228.52773
G1 X182.39 Y210.45 E228.61510
G1 X180.66 Y210.75 E228.70266
G1 X178.92 Y210.97 E228.79005
G1 X177.16 Y211.11 E228.87811
G1 X175.77 Y211.14 E228.94763
G1 X175.77 Y211.14 E228.94768
G1 X175.38 Y211.15 E228.96729
G1 X173.65 Y211.11 E229.05353
G1 X171.90 Y210.99 E229.14101
G1 X170.15 Y210.77 E229.22871
G1 X168.42 Y210.48 E229.31648
G1 X166.70 Y210.09 E229.40421
G1 X165.01 Y209.63 E229.49164
G1 X163.58 Y209.16 E229.56696
G1 X163.22 Y209.03 E229.58599
G1 X161.70 Y208.45 E229.66742
G1 X160.10 Y207.74 E229.75467
G1 X158.53 Y206.96 E229.84227
G1 X156.99 Y206.09 E229.93004
G1 X155.50 Y205.15 E230.01786
G1 X154.07 Y204.14 E230.10542
G1 X152.68 Y203.06 E230.19310
G1 X152.50 Y202.91 E230.20495
G1 X152.41 Y202.99 E230.21118
G1 X151.29 Y203.87 E230.28205
G1 X151.02 Y204.08 E230.29888
G1 X149.58 Y205.09 E230.38681
G1 X148.11 Y206.03 E230.47399
G1 X146.58 Y206.90 E230.56187
G1 X145.01 Y207.69 E230.64949
G1 X143.41 Y208.40 E230.73704
G1 X141.77 Y209.04 E230.82475
G1 X140.47 Y209.47 E230.89293
G1 X140.12 Y209.59 E230.91160
G1 X138.40 Y210.07 E231.00052
G1 X136.69 Y210.45 E231.08790
G1 X134.96 Y210.75 E231.17545
G1 X133.22 Y210.97 E231.26285
G1 X131.46 Y211.11 E231.35091
G1 X130.07 Y211.14 E231.42048
G1 X130.07 Y211.14 E231.42053
G1 X129.68 Y211.15 E231.44014
G1 X127.95 Y211.11 E231.52633
G1 X126.20 Y210.99 E231.61381
G1 X124.45 Y210.77 E231.70151
G1 X122.72 Y210.48 E231.78928
G1 X121.00 Y210.09 E231.87701
G1 X119.31 Y209.63 E231.96444
G1 X117.88 Y209.16 E232.03976
G1 X117.52 Y209.03 E232.05879
G1 X116.00 Y208.45 E232.14022
G1 X114.40 Y207.74 E232.22747
G1 X112.83 Y206.96 E232.31507
G1 X111.30 Y206.09 E232.40284
G1 X109.81 Y205.15 E232.49066
G1 X108.37 Y204.14 E232.57822
G1 X106.98 Y203.06 E232.66590
G1 X105.65 Y201.91 E232.75374
G1 X104.38 Y200.71 E232.84101
G1 X103.17 Y199.44 E232.92866
G1 X102.01 Y198.11 E233.01677
G1 X101.13 Y196.99 E233.08764
G1 X100.92 Y196.72 E233.10447
G1 X99.91 Y195.28 E233.19240
G1 X98.97 Y193.81 E233.27958
G1 X98.10 Y192.28 E233.36746
G1 X97.31 Y190.71 E233.45492
G1 X96.60 Y189.11 E233.54254
G1 X95.96 Y187.46 E233.63045
G1 X95.53 Y186.17 E233.69862
G1 X95.41 Y185.81 E233.71719
G1 X94.93 Y184.10 E233.80612
G1 X94.55 Y182.39 E233.89349
G1 X94.25 Y180.66 E233.98105
G1 X94.03 Y178.92 E234.06844
G1 X93.89 Y177.16 E234.15650
G1 X93.86 Y175.77 E234.22607
G1 X93.86 Y175.77 E234.22612
G1 X93.85 Y175.38 E234.24573
G1 X93.89 Y173.65 E234.33192
G1 X94.01 Y171.90 E234.41940
G1 X94.23 Y170.15 E234.50710
G1 X94.52 Y168.42 E234.59487
G1 X94.91 Y166.70 E234.68260
G1 X95.37 Y165.01 E234.77004
G1 X95.84 Y163.58 E234.84536
G1 X95.97 Y163.22 E234.86438
G1 X96.55 Y161.70 E234.94581
G1 X97.26 Y160.10 E235.03306
G1 X98.05 Y158.53 E235.12066
G1 X98.91 Y156.99 E235.20843
G1 X99.85 Y155.50 E235.29626
G1 X100.86 Y154.07 E235.38382
G1 X101.94 Y152.68 E235.47150
G1 X102.09 Y152.50 E235.48335
G1 X102.01 Y152.41 E235.48957
G1 X101.13 Y151.29 E235.56044
G1 X100.92 Y151.02 E235.57727
G1 X99.91 Y149.58 E235.66520
G1 X98.97 Y148.11 E235.75238
G1 X98.10 Y146.58 E235.84026
G1 X97.31 Y145.01 E235.92772
G1 X96.60 Y143.41 E236.01534
G1 X95.96 Y141.76 E236.10325
G1 X95.53 Y140.47 E236.17142
G1 X95.41 Y140.12 E236.18999
G1 X94.93 Y138.40 E236.27892
G1 X94.55 Y136.69 E236.36629
G1 X94.25 Y134.96 E236.45385
G1 X94.03 Y133.22 E236.54125
G1 X93.89 Y131.46 E236.62930
G1 X93.86 Y130.07 E236.69887
G1 X93.86 Y130.07 E236.69892
G1 X93.85 Y129.68 E236.71854
G1 X93.89 Y127.95 E236.80472
G1 X94.01 Y126.20 E236.89220
G1 X94.23 Y124.46 E236.97981
G1 X94.52 Y122.72 E237.06773
G1 X94.91 Y121.00 E237.15547
G1 X95.37 Y119.31 E237.24284
G1 X95.84 Y117.88 E237.31816
G1 X95.97 Y117.52 E237.33718
G1 X96.55 Y116.00 E237.41862
G1 X97.26 Y114.40 E237.50587
G1 X98.05 Y112.83 E237.59346
G1 X98.91 Y111.30 E237.68123
G1 X99.85 Y109.81 E237.76906
G1 X100.86 Y108.37 E237.85662
G1 X101.94 Y106.98 E237.94430
G1 X103.08 Y105.65 E238.03213
G1 X104.29 Y104.38 E238.11941
G0 F12000 X104.57 Y104.66
G1 F2400 X105.83 Y103.46 E238.20611
G1 X107.15 Y102.32 E238.29322
G1 X108.21 Y101.48 E238.36074
G1 X108.52 Y101.25 E238.37996
G1 X109.94 Y100.24 E238.46693
G1 X111.40 Y99.31 E238.55312
G1 X112.91 Y98.45 E238.64002
G1 X114.46 Y97.67 E238.72652
G1 X116.05 Y96.97 E238.81315
G1 X117.67 Y96.34 E238.90004
G1 X118.90 Y95.93 E238.96464
G1 X119.30 Y95.79 E238.98589
G1 X121.00 Y95.32 E239.07367
G1 X122.69 Y94.94 E239.16009
G1 X124.40 Y94.64 E239.24678
G1 X126.12 Y94.42 E239.33317
G1 X127.86 Y94.29 E239.42022
G1 X129.24 Y94.26 E239.48929
G1 X129.24 Y94.26 E239.48934
G1 X129.62 Y94.25 E239.50841
G1 X131.33 Y94.29 E239.59369
G1 X133.06 Y94.41 E239.68017
G1 X134.79 Y94.62 E239.76693
G1 X136.50 Y94.92 E239.85369
G1 X138.20 Y95.30 E239.94044
G1 X139.87 Y95.75 E240.02689
G1 X141.52 Y96.30 E240.11376
G1 X143.14 Y96.92 E240.20022
G1 X144.73 Y97.62 E240.28687
G1 X146.29 Y98.40 E240.37364
G1 X147.80 Y99.25 E240.46040
G1 X149.27 Y100.18 E240.54724
G1 X150.69 Y101.18 E240.63384
G1 X152.06 Y102.25 E240.72052
G1 X152.50 Y102.62 E240.74907
G1 X152.85 Y102.32 E240.77202
G1 X153.91 Y101.48 E240.83955
G1 X154.22 Y101.25 E240.85876
G1 X155.64 Y100.24 E240.94573
G1 X157.10 Y99.31 E241.03193
G1 X158.61 Y98.45 E241.11882
G1 X160.16 Y97.67 E241.20532
G1 X161.75 Y96.97 E241.29195
G1 X163.37 Y96.34 E241.37884
G1 X164.60 Y95.93 E241.44345
G1 X165.00 Y95.79 E241.46470
G1 X166.70 Y95.32 E241.55247
G1 X168.39 Y94.94 E241.63889
G1 X170.10 Y94.64 E241.72559
G1 X171.82 Y94.42 E241.81197
G1 X173.56 Y94.29 E241.89903
G1 X174.94 Y94.26 E241.96810
G1 X174.94 Y94.26 E241.96815
G1 X175.32 Y94.25 E241.98721
G1 X177.03 Y94.29 E242.07250
G1 X178.76 Y94.41 E242.15898
G1 X180.49 Y94.62 E242.24573
G1 X182.20 Y94.92 E242.33249
G1 X183.90 Y95.30 E242.41924
G1 X185.57 Y95.75 E242.50569
G1 X187.22 Y96.30 E242.59256
G1 X188.84 Y96.92 E242.67903
G1 X190.43 Y97.62 E242.76567
G1 X191.99 Y98.40 E242.85244
G1 X193.50 Y99.25 E242.93921
G1 X194.97 Y100.18 E243.02605
G1 X196.39 Y101.18 E243.11264
G1 X197.76 Y102.25 E243.19932
G1 X199.08 Y103.38 E243.28621
G1 X200.34 Y104.57 E243.37245
G1 X201.54 Y105.83 E243.45915
G1 X202.68 Y107.15 E243.54627
G1 X203.50 Y108.19 E243.61219
G1 X203.75 Y108.52 E243.63301
G1 X204.76 Y109.94 E243.72022
G1 X205.68 Y111.40 E243.80612
G1 X206.54 Y112.91 E243.89281
G1 X207.33 Y114.46 E243.97956
G1 X208.03 Y116.05 E244.06619
G1 X208.66 Y117.67 E244.15308
G1 X209.07 Y118.88 E244.21679
G1 X209.21 Y119.30 E244.23894
G1 X209.68 Y121.00 E244.32671
G1 X210.06 Y122.69 E244.41313
G1 X210.36 Y124.40 E244.49982
G1 X210.58 Y126.12 E244.58621
G1 X210.71 Y127.86 E244.67327
G1 X210.74 Y129.24 E244.74234
G1 X210.74 Y129.24 E244.74239
G1 X210.75 Y129.62 E244.76145
G1 X210.71 Y131.33 E244.84674
G1 X210.59 Y133.06 E244.93322
G1 X210.38 Y134.79 E245.01997
G1 X210.08 Y136.50 E245.10673
G1 X209.71 Y138.20 E245.19348
G1 X209.25 Y139.87 E245.27993
G1 X208.78 Y141.29 E245.35467
G1 X208.66 Y141.64 E245.37317
G1 X208.08 Y143.15 E245.45375
G1 X207.38 Y144.73 E245.54007
G1 X206.60 Y146.29 E245.62668
G1 X205.75 Y147.80 E245.71344
G1 X204.82 Y149.27 E245.80029
G1 X203.82 Y150.69 E245.88688
G1 X202.75 Y152.06 E245.97356
G1 X202.38 Y152.50 E246.00211
G1 X202.68 Y152.85 E246.02506
G1 X203.50 Y153.89 E246.09099
G1 X203.75 Y154.22 E246.11180
G1 X204.76 Y155.64 E246.19902
G1 X205.68 Y157.10 E246.28492
G1 X206.54 Y158.61 E246.37161
G1 X207.33 Y160.16 E246.45836
G1 X208.03 Y161.75 E246.54499
G1 X208.66 Y163.37 E246.63188
G1 X209.07 Y164.58 E246.69558
G1 X209.21 Y165.00 E246.71773
G1 X209.68 Y166.70 E246.80551
G1 X210.06 Y168.39 E246.89193
G1 X210.36 Y170.10 E246.97862
G1 X210.58 Y171.82 E247.06501
G1 X210.71 Y173.56 E247.15206
G1 X210.74 Y174.94 E247.22113
G1 X210.74 Y174.94 E247.22118
G1 X210.75 Y175.32 E247.24025
G1 X210.71 Y177.03 E247.32553
G1 X210.59 Y178.76 E247.41201
G1 X210.38 Y180.49 E247.49877
G1 X210.08 Y182.20 E247.58553
G1 X209.71 Y183.90 E247.67228
G1 X209.25 Y185.57 E247.75873
G1 X208.78 Y186.99 E247.83347
G1 X208.66 Y187.34 E247.85197
G1 X208.08 Y188.85 E247.93255
G1 X207.38 Y190.43 E248.01886
G1 X206.60 Y191.99 E248.10548
G1 X205.75 Y193.50 E248.19224
G1 X204.82 Y194.97 E248.27908
G1 X203.82 Y196.39 E248.36567
G1 X202.75 Y197.76 E248.45236
G1 X201.62 Y199.08 E248.53924
G1 X200.43 Y200.34 E248.62549
G1 X199.17 Y201.54 E248.71219
G1 X197.85 Y202.68 E248.79930
G1 X196.81 Y203.50 E248.86523
G1 X196.48 Y203.75 E248.88604
G1 X195.06 Y204.76 E248.97301
G1 X193.60 Y205.69 E249.05921
G1 X192.09 Y206.55 E249.14610
G1 X190.54 Y207.33 E249.23271
G1 X188.96 Y208.03 E249.31901
G1 X187.33 Y208.66 E249.40604
G1 X186.09 Y209.08 E249.47141
G1 X185.70 Y209.21 E249.49198
G1 X184.00 Y209.68 E249.57987
G1 X182.31 Y210.06 E249.66627
G1 X180.60 Y210.36 E249.75282
G1 X178.88 Y210.58 E249.83925
G1 X177.14 Y210.71 E249.92631
G1 X175.76 Y210.74 E249.99538
G1 X175.76 Y210.74 E249.99543
G1 X175.38 Y210.75 E250.01449
G1 X173.67 Y210.71 E250.09978
G1 X171.94 Y210.59 E250.18626
G1 X170.21 Y210.38 E250.27301
G1 X168.50 Y210.08 E250.35977
G1 X166.80 Y209.71 E250.44652
G1 X165.13 Y209.25 E250.53298
G1 X163.71 Y208.78 E250.60771
G1 X163.36 Y208.66 E250.62622
G1 X161.85 Y208.08 E250.70680
G1 X160.27 Y207.38 E250.79311
G1 X158.71 Y206.60 E250.87972
G1 X157.20 Y205.75 E250.96649
G1 X155.73 Y204.82 E251.05333
G1 X154.31 Y203.82 E251.13992
G1 X152.94 Y202.75 E251.22660
G1 X152.50 Y202.38 E251.25515
G1 X152.15 Y202.68 E251.27811
G1 X151.11 Y203.50 E251.34404
G1 X150.78 Y203.75 E251.36485
G1 X149.36 Y204.76 E251.45181
G1 X147.90 Y205.69 E251.53801
G1 X146.39 Y206.55 E251.62491
G1 X144.84 Y207.33 E251.71152
G1 X143.25 Y208.03 E251.79809
G1 X141.63 Y208.66 E251.88481
G1 X140.42 Y209.07 E251.94863
G1 X140.00 Y209.21 E251.97078
G1 X138.30 Y209.68 E252.05867
G1 X136.61 Y210.06 E252.14507
G1 X134.90 Y210.36 E252.23162
G1 X133.18 Y210.58 E252.31806
G1 X131.44 Y210.71 E252.40511
G1 X130.06 Y210.74 E252.47423
G1 X130.06 Y210.74 E252.47428
G1 X129.68 Y210.75 E252.49335
G1 X127.97 Y210.71 E252.57858
G1 X126.24 Y210.59 E252.66506
G1 X124.51 Y210.38 E252.75181
G1 X122.80 Y210.08 E252.83858
G1 X121.10 Y209.71 E252.92532
G1 X119.43 Y209.25 E253.01178
G1 X118.01 Y208.78 E253.08651
G1 X117.66 Y208.66 E253.10502
G1 X116.15 Y208.08 E253.18560
G1 X114.57 Y207.38 E253.27191
G1 X113.02 Y206.60 E253.35853
G1 X111.50 Y205.75 E253.44529
G1 X110.03 Y204.82 E253.53213
G1 X108.61 Y203.82 E253.61872
G1 X107.24 Y202.75 E253.70540
G1 X105.92 Y201.62 E253.79229
G1 X104.66 Y200.43 E253.87854
G1 X103.46 Y199.17 E253.96524
G1 X102.32 Y197.85 E254.05235
G1 X101.45 Y196.74 E254.12272
G1 X101.25 Y196.48 E254.13909
G1 X100.24 Y195.06 E254.22606
G1 X99.31 Y193.60 E254.31225
G1 X98.45 Y192.09 E254.39915
G1 X97.67 Y190.54 E254.48565
G1 X96.97 Y188.95 E254.57228
G1 X96.34 Y187.33 E254.65917
G1 X95.93 Y186.12 E254.72287
G1 X95.79 Y185.70 E254.74503
G1 X95.32 Y184.00 E254.83291
G1 X94.94 Y182.31 E254.91932
G1 X94.64 Y180.60 E255.00586
G1 X94.42 Y178.88 E255.09230
G1 X94.29 Y177.14 E255.17935
G1 X94.26 Y175.76 E255.24847
G1 X94.26 Y175.76 E255.24852
G1 X94.25 Y175.38 E255.26759
G1 X94.29 Y173.67 E255.35282
G1 X94.41 Y171.94 E255.43931
G1 X94.62 Y170.21 E255.52606
G1 X94.92 Y168.50 E255.61282
G1 X95.30 Y166.80 E255.69957
G1 X95.75 Y165.13 E255.78602
G1 X96.22 Y163.71 E255.86076
G1 X96.34 Y163.36 E255.87926
G1 X96.92 Y161.85 E255.95984
G1 X97.62 Y160.27 E256.04615
G1 X98.40 Y158.71 E256.13277
G1 X99.25 Y157.20 E256.21953
G1 X100.18 Y155.73 E256.30637
G1 X101.18 Y154.31 E256.39297
G1 X102.25 Y152.94 E256.47965
G1 X102.62 Y152.50 E256.50820
G1 X102.32 Y152.15 E256.53115
G1 X101.45 Y151.04 E256.60152
G1 X101.25 Y150.78 E256.61789
G1 X100.24 Y149.36 E256.70486
G1 X99.31 Y147.90 E256.79106
G1 X98.45 Y146.39 E256.87795
G1 X97.67 Y144.84 E256.96445
G1 X96.97 Y143.25 E257.05108
G1 X96.34 Y141.63 E257.13797
G1 X95.93 Y140.42 E257.20168
G1 X95.79 Y140.00 E257.22383
G1 X95.32 Y138.30 E257.31171
G1 X94.94 Y136.61 E257.39812
G1 X94.64 Y134.90 E257.48467
G1 X94.42 Y133.18 E257.57110
G1 X94.29 Y131.44 E257.65816
G1 X94.26 Y130.06 E257.72728
G1 X94.26 Y130.06 E257.72733
G1 X94.25 Y129.68 E257.74639
G1 X94.29 Y127.97 E257.83163
G1 X94.41 Y126.24 E257.91811
G1 X94.62 Y124.52 E258.00476
G1 X94.92 Y122.80 E258.09172
G1 X95.30 Y121.10 E258.17843
G1 X95.75 Y119.43 E258.26482
G1 X96.22 Y118.01 E258.33956
G1 X96.34 Y117.66 E258.35807
G1 X96.92 Y116.15 E258.43864
G1 X97.62 Y114.57 E258.52496
G1 X98.40 Y113.02 E258.61157
G1 X99.25 Y111.50 E258.69834
G1 X100.18 Y110.03 E258.78518
G1 X101.18 Y108.61 E258.87177
G1 X102.25 Y107.24 E258.95845
G1 X103.38 Y105.92 E259.04533
G1 X104.57 Y104.66 E259.13158
G0 F12000 X104.86 Y104.94
G1 F2400 X106.10 Y103.76 E259.21733
G1 X107.40 Y102.63 E259.30338
G1 X108.51 Y101.76 E259.37329
G1 X108.76 Y101.56 E259.38923
G1 X110.16 Y100.57 E259.47513
G1 X111.61 Y99.66 E259.56035
G1 X113.10 Y98.81 E259.64626
G1 X114.63 Y98.03 E259.73180
G1 X116.20 Y97.33 E259.81747
G1 X117.81 Y96.71 E259.90337
G1 X119.12 Y96.28 E259.97219
G1 X119.42 Y96.17 E259.98828
G1 X121.10 Y95.71 E260.07503
G1 X122.77 Y95.33 E260.16048
G1 X124.46 Y95.04 E260.24616
G1 X126.16 Y94.82 E260.33159
G1 X127.88 Y94.69 E260.41769
G1 X129.28 Y94.66 E260.48746
G1 X129.62 Y94.65 E260.50483
G1 X131.31 Y94.69 E260.58907
G1 X133.02 Y94.81 E260.67465
G1 X134.73 Y95.02 E260.76035
G1 X136.43 Y95.31 E260.84619
G1 X138.10 Y95.68 E260.93193
G1 X139.75 Y96.14 E261.01744
G1 X141.39 Y96.67 E261.10332
G1 X142.99 Y97.29 E261.18882
G1 X144.56 Y97.98 E261.27448
G1 X146.10 Y98.75 E261.36025
G1 X147.60 Y99.60 E261.44605
G1 X149.05 Y100.52 E261.53188
G1 X150.46 Y101.50 E261.61748
G1 X151.81 Y102.56 E261.70323
G1 X152.50 Y103.15 E261.74851
G1 X153.10 Y102.63 E261.78819
G1 X154.21 Y101.76 E261.85810
G1 X154.46 Y101.56 E261.87405
G1 X155.86 Y100.57 E261.95995
G1 X157.30 Y99.66 E262.04516
G1 X158.80 Y98.81 E262.13107
G1 X160.33 Y98.03 E262.21661
G1 X161.90 Y97.33 E262.30228
G1 X163.51 Y96.71 E262.38819
G1 X164.81 Y96.28 E262.45701
G1 X165.12 Y96.17 E262.47310
G1 X166.80 Y95.71 E262.55985
G1 X168.47 Y95.33 E262.64529
G1 X170.16 Y95.04 E262.73097
G1 X171.86 Y94.82 E262.81640
G1 X173.58 Y94.69 E262.90251
G1 X174.98 Y94.66 E262.97228
G1 X175.32 Y94.65 E262.98964
G1 X177.01 Y94.69 E263.07388
G1 X178.72 Y94.81 E263.15946
G1 X180.43 Y95.02 E263.24516
G1 X182.12 Y95.31 E263.33100
G1 X183.80 Y95.68 E263.41675
G1 X185.45 Y96.14 E263.50226
G1 X187.09 Y96.67 E263.58813
G1 X188.69 Y97.29 E263.67363
G1 X190.26 Y97.98 E263.75929
G1 X191.80 Y98.75 E263.84506
G1 X193.29 Y99.60 E263.93086
G1 X194.75 Y100.52 E264.01670
G1 X196.15 Y101.50 E264.10229
G1 X197.51 Y102.56 E264.18804
G1 X198.82 Y103.68 E264.27394
G1 X200.06 Y104.86 E264.35923
G1 X201.24 Y106.10 E264.44498
G1 X202.37 Y107.40 E264.53103
G1 X203.23 Y108.50 E264.60048
G1 X203.44 Y108.76 E264.61688
G1 X204.43 Y110.17 E264.70303
G1 X205.34 Y111.61 E264.78794
G1 X206.19 Y113.10 E264.87368
G1 X206.97 Y114.63 E264.95945
G1 X207.67 Y116.20 E265.04512
G1 X208.29 Y117.81 E265.13102
G1 X208.72 Y119.12 E265.19984
G1 X208.83 Y119.42 E265.21593
G1 X209.29 Y121.10 E265.30268
G1 X209.67 Y122.77 E265.38813
G1 X209.96 Y124.46 E265.47381
G1 X210.18 Y126.16 E265.55924
G1 X210.31 Y127.88 E265.64534
G1 X210.34 Y129.25 E265.71391
G1 X210.35 Y129.62 E265.73248
G1 X210.31 Y131.31 E265.81672
G1 X210.19 Y133.02 E265.90230
G1 X209.98 Y134.73 E265.98800
G1 X209.69 Y136.43 E266.07384
G1 X209.32 Y138.10 E266.15958
G1 X208.86 Y139.75 E266.24509
G1 X208.40 Y141.16 E266.31915
G1 X208.28 Y141.51 E266.33718
G1 X207.71 Y143.00 E266.41693
G1 X207.02 Y144.56 E266.50224
G1 X206.25 Y146.10 E266.58789
G1 X205.40 Y147.60 E266.67370
G1 X204.49 Y149.05 E266.75953
G1 X203.50 Y150.46 E266.84512
G1 X202.44 Y151.81 E266.93088
G1 X201.85 Y152.50 E266.97616
G1 X202.37 Y153.10 E267.01584
G1 X203.23 Y154.20 E267.08529
G1 X203.44 Y154.46 E267.10169
G1 X204.43 Y155.87 E267.18784
G1 X205.34 Y157.30 E267.27275
G1 X206.19 Y158.80 E267.35849
G1 X206.97 Y160.33 E267.44426
G1 X207.67 Y161.90 E267.52993
G1 X208.29 Y163.51 E267.61583
G1 X208.72 Y164.81 E267.68465
G1 X208.83 Y165.12 E267.70074
G1 X209.29 Y166.80 E267.78749
G1 X209.67 Y168.47 E267.87294
G1 X209.96 Y170.16 E267.95862
G1 X210.18 Y171.86 E268.04405
G1 X210.31 Y173.58 E268.13015
G1 X210.34 Y174.95 E268.19872
G1 X210.35 Y175.32 E268.21729
G1 X210.31 Y177.01 E268.30153
G1 X210.19 Y178.72 E268.38711
G1 X209.98 Y180.43 E268.47281
G1 X209.69 Y182.12 E268.55865
G1 X209.32 Y183.80 E268.64439
G1 X208.86 Y185.45 E268.72990
G1 X208.40 Y186.86 E268.80396
G1 X208.28 Y187.21 E268.82199
G1 X207.71 Y188.70 E268.90174
G1 X207.02 Y190.26 E268.98705
G1 X206.25 Y191.80 E269.07270
G1 X205.40 Y193.29 E269.15851
G1 X204.49 Y194.75 E269.24434
G1 X203.50 Y196.15 E269.32993
G1 X202.44 Y197.51 E269.41569
G1 X201.32 Y198.82 E269.50158
G1 X200.14 Y200.06 E269.58688
G1 X198.90 Y201.24 E269.67262
G1 X197.60 Y202.37 E269.75868
G1 X196.49 Y203.24 E269.82859
G1 X196.24 Y203.44 E269.84453
G1 X194.84 Y204.43 E269.93043
G1 X193.40 Y205.34 E270.01564
G1 X191.90 Y206.19 E270.10155
G1 X190.37 Y206.97 E270.18723
G1 X188.80 Y207.66 E270.27252
G1 X187.19 Y208.29 E270.35859
G1 X185.91 Y208.71 E270.42627
