;-- START GCODE --
;Sliced for Type A Machines Series 1
;Sliced at: Sun 23-10-2016 21:55:42
;Basic settings: Layer height: 0.2 Walls: 1.4 Fill: 34
;Print Speed: 10 Support: 0
;Retraction Speed: 40 Retraction Distance: 1.2
;Print time: #P_TIME#
;Filament used: #F_AMNT#m #F_WGHT#g
;Filament cost: #F_COST#
M106 S255	 ;start with the fan on
G21        ;metric values
G90        ;absolute positioning
M106 S255    ;start with the fan on
G28     ;move to endstops
G29		;allows for auto-levelling
G1 X150 Y5  Z15.0 F12000 ;center and move the platform down 15mm
M109 S220 ;Heat To temp
G92 E0                  ;zero the extruded length
G1 F200 E30              ;extrude 30mm of feed stock
G92 E0                  ;zero the extruded length again
G1 X175 Y25  Z0 F12000 ;remove bugger
G1 X220 F12000 ;remove bugger
G1 X150 Y150  Z15 F12000 ;recenter and begin
G1 F12000

;Layer count: 187
;LAYER:0
M106 S255
G0 F12000 X19.52 Y20.46 Z0.30
;TYPE:SKIRT
G1 F600 X34.41 Y20.46 E0.86561
G1 X36.47 Y19.36 E1.00142
G1 X39.34 Y18.49 E1.17565
G1 X41.70 Y18.26 E1.31331
G1 X67.44 Y18.26 E2.80978
G1 X69.80 Y18.49 E2.94720
G1 X72.67 Y19.36 E3.12177
G1 X74.73 Y20.46 E3.25732
G1 X89.25 Y20.46 E4.10108
G1 X89.25 Y31.02 E4.71497
G1 X90.05 Y31.22 E4.76289
G1 X90.05 Y47.58 E5.71325
G1 X89.94 Y47.68 E5.72163
G1 X90.05 Y47.78 E5.73002
G1 X90.05 Y67.09 E6.85253
G1 X60.40 Y67.09 E8.57556
G1 X58.45 Y62.39 E8.87156
G1 X53.05 Y62.42 E9.18577
G1 X53.05 Y67.09 E9.45755
G1 X19.12 Y67.09 E11.42963
G1 X19.12 Y47.78 E12.55214
G1 X19.22 Y47.68 E12.56053
G1 X19.12 Y47.58 E12.56891
G1 X19.12 Y33.42 E13.39140
G1 X19.52 Y33.22 E13.41739
G1 X19.52 Y20.46 E14.15914
G0 F12000 X19.98 Y20.93
G1 F600 X34.52 Y20.93 E15.00435
G1 X36.65 Y19.80 E15.14437
G1 X39.43 Y18.95 E15.31326
G1 X41.72 Y18.73 E15.44694
G1 X67.42 Y18.73 E16.94074
G1 X69.70 Y18.95 E17.07413
G1 X72.49 Y19.80 E17.24340
G1 X74.61 Y20.93 E17.38311
G1 X88.78 Y20.93 E18.20653
G1 X88.78 Y31.39 E18.81449
G1 X89.58 Y31.59 E18.86242
G1 X89.58 Y47.38 E19.78040
G1 X89.28 Y47.68 E19.80464
G1 X89.58 Y47.97 E19.82889
G1 X89.58 Y66.63 E20.91310
G1 X60.71 Y66.63 E22.59091
G1 X58.76 Y61.92 E22.88704
G1 X52.58 Y61.95 E23.24641
G1 X52.58 Y66.63 E23.51802
G1 X19.58 Y66.63 E25.43593
G1 X19.58 Y47.97 E26.52014
G1 X19.78 Y47.77 E26.53658
G1 X19.78 Y47.58 E26.54762
G1 X19.58 Y47.38 E26.56406
G1 X19.58 Y33.71 E27.35859
G1 X19.98 Y33.51 E27.38458
G1 X19.98 Y20.93 E28.11599
G0 F12000 X20.45 Y21.39
G1 F600 X34.64 Y21.39 E28.94098
G1 X36.83 Y20.23 E29.08503
G1 X39.52 Y19.41 E29.24858
G1 X41.74 Y19.19 E29.37829
G1 X67.40 Y19.19 E30.86941
G1 X69.61 Y19.41 E30.99883
G1 X72.31 Y20.23 E31.16277
G1 X74.50 Y21.39 E31.30651
G1 X88.31 Y21.39 E32.10970
G1 X88.31 Y31.75 E32.71173
G1 X89.11 Y31.95 E32.75966
G1 X89.11 Y47.19 E33.64527
G1 X88.63 Y47.68 E33.68538
G1 X89.11 Y48.16 E33.72549
G1 X89.11 Y66.16 E34.77140
G1 X61.02 Y66.16 E36.40405
G1 X59.07 Y61.45 E36.70025
G1 X52.11 Y61.49 E37.10473
G1 X52.11 Y66.16 E37.37622
G1 X20.05 Y66.16 E39.23996
G1 X20.05 Y48.16 E40.28587
G1 X20.25 Y47.97 E40.30230
G1 X20.25 Y47.39 E40.33578
G1 X20.05 Y47.19 E40.35222
G1 X20.05 Y34.00 E41.11879
G1 X20.45 Y33.80 E41.14479
G1 X20.45 Y21.39 E41.86585
G0 F12000 X20.91 Y21.86
G1 F600 X34.76 Y21.86 E42.67043
G1 X37.01 Y20.66 E42.81867
G1 X39.61 Y19.87 E42.97687
G1 X41.77 Y19.66 E43.10261
G1 X67.38 Y19.66 E44.59106
G1 X69.52 Y19.87 E44.71651
G1 X72.14 Y20.66 E44.87510
G1 X74.38 Y21.86 E45.02298
G1 X87.85 Y21.86 E45.80583
G1 X87.85 Y32.12 E46.40193
G1 X88.65 Y32.32 E46.44985
G1 X88.65 Y47.00 E47.30309
G1 X88.05 Y47.60 E47.35241
G1 X88.05 Y47.76 E47.36182
G1 X88.65 Y48.36 E47.41114
G1 X88.65 Y65.69 E48.41874
G1 X61.34 Y65.69 E50.00623
G1 X59.38 Y60.98 E50.30257
G1 X51.65 Y61.03 E50.75215
G1 X51.65 Y65.69 E51.02346
G1 X20.51 Y65.69 E52.83303
G1 X20.51 Y48.36 E53.84064
G1 X20.71 Y48.16 E53.85708
G1 X20.71 Y47.20 E53.91299
G1 X20.51 Y47.00 E53.92943
G1 X20.51 Y34.29 E54.66805
G1 X20.91 Y34.09 E54.69404
G1 X20.91 Y21.86 E55.40476
G0 F12000 X21.38 Y22.33
G1 F600 X34.88 Y22.33 E56.18911
G1 X37.19 Y21.09 E56.34133
G1 X39.70 Y20.33 E56.49431
G1 X41.79 Y20.13 E56.61602
G1 X67.35 Y20.13 E58.10179
G1 X69.43 Y20.33 E58.22327
G1 X71.96 Y21.09 E58.37653
G1 X74.26 Y22.33 E58.52854
G1 X87.38 Y22.33 E59.29104
G1 X87.38 Y32.48 E59.88121
G1 X88.18 Y32.68 E59.92914
G1 X88.18 Y46.80 E60.75000
G1 X87.58 Y47.40 E60.79932
G1 X87.58 Y47.95 E60.83117
G1 X88.18 Y48.55 E60.88049
G1 X88.18 Y65.23 E61.84979
G1 X61.65 Y65.23 E63.39206
G1 X59.70 Y60.52 E63.68850
G1 X51.18 Y60.56 E64.18330
G1 X51.18 Y65.23 E64.45450
G1 X20.98 Y65.23 E66.20990
G1 X20.98 Y48.55 E67.17920
G1 X21.18 Y48.35 E67.19564
G1 X21.18 Y47.00 E67.27399
G1 X20.98 Y46.80 E67.29043
G1 X20.98 Y34.58 E68.00109
G1 X21.38 Y34.38 E68.02708
G1 X21.38 Y22.33 E68.72746
G0 F12000 X21.85 Y22.79
G1 F600 X35.03 Y22.79 E69.49391
G1 X35.11 Y22.73 E69.49986
G1 X37.37 Y21.53 E69.64825
G1 X39.80 Y20.79 E69.79588
G1 X41.81 Y20.59 E69.91362
G1 X67.33 Y20.59 E71.39672
G1 X69.34 Y20.79 E71.51422
G1 X71.78 Y21.53 E71.66213
G1 X74.03 Y22.73 E71.81066
G1 X74.11 Y22.79 E71.81631
G1 X86.92 Y22.79 E72.56086
G1 X86.92 Y32.84 E73.14510
G1 X87.72 Y33.04 E73.19303
G1 X87.72 Y46.61 E73.98151
G1 X87.12 Y47.21 E74.03083
G1 X87.12 Y48.14 E74.08512
G1 X87.72 Y48.74 E74.13443
G1 X87.72 Y64.76 E75.06543
G1 X61.96 Y64.76 E76.56254
G1 X60.01 Y60.05 E76.85911
G1 X50.72 Y60.10 E77.39902
G1 X50.72 Y64.76 E77.67004
G1 X21.45 Y64.76 E79.37127
G1 X21.45 Y48.74 E80.30227
G1 X21.65 Y48.54 E80.31871
G1 X21.65 Y46.81 E80.41950
G1 X21.45 Y46.61 E80.43594
G1 X21.45 Y34.86 E81.11864
G1 X21.85 Y34.66 E81.14463
G1 X21.85 Y22.79 E81.83466
G0 F12000 X22.31 Y23.26
G1 F600 X35.20 Y23.26 E82.58373
G1 X35.37 Y23.12 E82.59674
G1 X37.54 Y21.96 E82.73973
G1 X39.89 Y21.25 E82.88202
G1 X41.84 Y21.06 E82.99579
G1 X67.31 Y21.06 E84.47621
G1 X69.25 Y21.25 E84.58975
G1 X71.60 Y21.96 E84.73232
G1 X73.77 Y23.12 E84.87547
G1 X73.94 Y23.26 E84.88810
G1 X86.45 Y23.26 E85.61533
G1 X86.45 Y33.21 E86.19358
G1 X87.25 Y33.41 E86.24151
G1 X87.25 Y46.42 E86.99768
G1 X86.65 Y47.02 E87.04700
G1 X86.65 Y48.34 E87.12372
G1 X87.25 Y48.94 E87.17304
G1 X87.25 Y64.30 E88.06573
G1 X62.27 Y64.30 E89.51768
G1 X60.31 Y59.58 E89.81433
G1 X50.25 Y59.63 E90.39934
G1 X50.25 Y64.30 E90.67024
G1 X21.91 Y64.30 E92.31731
G1 X21.91 Y48.94 E93.21000
G1 X22.11 Y48.74 E93.22644
G1 X22.11 Y46.62 E93.34966
G1 X21.91 Y46.42 E93.36610
G1 X21.91 Y35.15 E94.02085
G1 X22.31 Y34.95 E94.04684
G1 X22.31 Y23.26 E94.72652
G0 F12000 X22.78 Y23.72
G1 F600 X35.37 Y23.72 E95.45828
G1 X35.63 Y23.51 E95.47822
G1 X37.72 Y22.39 E95.61587
G1 X39.98 Y21.71 E95.75282
G1 X41.86 Y21.52 E95.86256
G1 X67.28 Y21.52 E97.34043
G1 X69.16 Y21.71 E97.44994
G1 X71.42 Y22.39 E97.58716
G1 X73.51 Y23.51 E97.72495
G1 X73.77 Y23.72 E97.74465
G1 X85.98 Y23.72 E98.45443
G1 X85.98 Y33.57 E99.02676
G1 X86.78 Y33.77 E99.07469
G1 X86.78 Y46.22 E99.79849
G1 X86.18 Y46.82 E99.84780
G1 X86.18 Y48.53 E99.94696
G1 X86.78 Y49.13 E99.99628
G1 X86.78 Y63.83 E100.85067
G1 X62.58 Y63.83 E102.25740
G1 X60.63 Y59.11 E102.55418
G1 X49.78 Y59.17 E103.18435
G1 X49.78 Y63.83 E103.45508
G1 X22.38 Y63.83 E105.04797
G1 X22.38 Y49.13 E105.90237
G1 X22.58 Y48.93 E105.91881
G1 X22.58 Y46.42 E106.06446
G1 X22.38 Y46.22 E106.08090
G1 X22.38 Y35.44 E106.70769
G1 X22.78 Y35.24 E106.73368
G1 X22.78 Y23.72 E107.40302
G0 F12000 X23.24 Y24.19
G1 F600 X35.53 Y24.19 E108.11734
G1 X35.89 Y23.89 E108.14434
G1 X37.90 Y22.82 E108.27664
G1 X40.07 Y22.17 E108.40831
G1 X41.88 Y21.99 E108.51402
G1 X67.26 Y21.99 E109.98921
G1 X69.07 Y22.17 E110.09475
G1 X71.24 Y22.82 E110.22664
G1 X73.25 Y23.90 E110.35907
G1 X73.61 Y24.19 E110.38578
G1 X85.52 Y24.19 E111.07819
G1 X85.52 Y33.94 E111.64459
G1 X86.32 Y34.13 E111.69252
G1 X86.32 Y46.03 E112.38394
G1 X85.72 Y46.63 E112.43326
G1 X85.72 Y48.72 E112.55485
G1 X86.32 Y49.32 E112.60417
G1 X86.32 Y63.36 E113.42026
G1 X62.89 Y63.36 E114.78183
G1 X60.94 Y58.65 E115.07871
G1 X49.32 Y58.71 E115.75404
G1 X49.32 Y63.36 E116.02466
G1 X22.84 Y63.36 E117.56338
G1 X22.84 Y49.32 E118.37948
G1 X23.04 Y49.12 E118.39592
G1 X23.04 Y46.23 E118.56400
G1 X22.84 Y46.03 E118.58044
G1 X22.84 Y35.73 E119.17928
G1 X23.24 Y35.53 E119.20527
G1 X23.24 Y24.19 E119.86426
G0 F12000 X23.71 Y24.66
G1 F600 X35.70 Y24.66 E120.56126
G1 X36.15 Y24.29 E120.59520
G1 X38.08 Y23.26 E120.72219
G1 X40.16 Y22.63 E120.84851
G1 X41.90 Y22.46 E120.95025
G1 X67.24 Y22.46 E122.42277
G1 X68.98 Y22.63 E122.52433
G1 X71.06 Y23.26 E122.65087
G1 X72.99 Y24.29 E122.77792
G1 X73.44 Y24.66 E122.81170
G1 X85.05 Y24.66 E123.48673
G1 X85.05 Y34.30 E124.04720
G1 X85.85 Y34.50 E124.09513
G1 X85.85 Y45.84 E124.75417
G1 X85.25 Y46.44 E124.80349
G1 X85.25 Y48.92 E124.94752
G1 X85.85 Y49.52 E124.99684
G1 X85.85 Y62.90 E125.77463
G1 X63.20 Y62.90 E127.09103
G1 X61.25 Y58.18 E127.38799
G1 X48.85 Y58.24 E128.10843
G1 X48.85 Y62.90 E128.37887
G1 X23.31 Y62.90 E129.86342
G1 X23.31 Y49.52 E130.64121
G1 X23.51 Y49.32 E130.65765
G1 X23.51 Y46.04 E130.84818
G1 X23.31 Y45.84 E130.86462
G1 X23.31 Y36.02 E131.43549
G1 X23.71 Y35.82 E131.46148
G1 X23.71 Y24.66 E132.11013
G0 F12000 X24.18 Y25.12
G1 F600 X35.87 Y25.12 E132.78969
G1 X36.41 Y24.67 E132.83070
G1 X38.26 Y23.69 E132.95228
G1 X40.25 Y23.09 E133.07330
G1 X41.93 Y22.92 E133.17107
G1 X67.22 Y22.92 E134.64092
G1 X68.89 Y23.09 E134.73846
G1 X70.88 Y23.69 E134.85970
G1 X72.73 Y24.68 E134.98142
G1 X73.27 Y25.12 E135.02218
G1 X84.59 Y25.12 E135.67983
G1 X84.59 Y34.66 E136.23437
G1 X85.39 Y34.86 E136.28230
G1 X85.39 Y45.65 E136.90898
G1 X84.79 Y46.24 E136.95829
G1 X84.79 Y49.11 E137.12476
G1 X85.39 Y49.71 E137.17407
G1 X85.39 Y62.43 E137.91356
G1 X63.52 Y62.43 E139.18475
G1 X61.56 Y57.71 E139.48184
G1 X48.39 Y57.78 E140.24743
G1 X48.39 Y62.43 E140.51776
G1 X23.78 Y62.43 E141.94814
G1 X23.78 Y49.71 E142.68763
G1 X23.98 Y49.51 E142.70407
G1 X23.98 Y45.84 E142.91703
G1 X23.78 Y45.65 E142.93347
G1 X23.78 Y36.30 E143.47639
G1 X24.18 Y36.10 E143.50238
G1 X24.18 Y25.12 E144.14068
G0 F12000 X24.64 Y25.59
G1 F600 X36.03 Y25.59 E144.80286
G1 X36.67 Y25.06 E144.85085
G1 X38.44 Y24.12 E144.96710
G1 X40.34 Y23.55 E145.08279
G1 X41.95 Y23.39 E145.17659
G1 X67.19 Y23.39 E146.64376
G1 X68.79 Y23.55 E146.73733
G1 X70.70 Y24.12 E146.85324
G1 X72.47 Y25.07 E146.96960
G1 X73.10 Y25.59 E147.01738
G1 X84.12 Y25.59 E147.65765
G1 X84.12 Y35.03 E148.20626
G1 X84.92 Y35.23 E148.25419
G1 X84.92 Y45.45 E148.84849
G1 X84.32 Y46.05 E148.89781
G1 X84.32 Y49.30 E149.08671
G1 X84.92 Y49.90 E149.13602
G1 X84.92 Y61.97 E149.83721
G1 X63.83 Y61.97 E151.06324
G1 X61.87 Y57.24 E151.36043
G1 X47.92 Y57.32 E152.17119
G1 X47.92 Y61.97 E152.44134
G1 X24.24 Y61.97 E153.81756
G1 X24.24 Y49.90 E154.51874
G1 X24.44 Y49.70 E154.53518
G1 X24.44 Y45.65 E154.77058
G1 X24.24 Y45.45 E154.78701
G1 X24.24 Y36.59 E155.30198
G1 X24.64 Y36.39 E155.32797
G1 X24.64 Y25.59 E155.95592
G0 F12000 X25.11 Y26.05
G1 F600 X36.20 Y26.05 E156.60073
G1 X36.93 Y25.45 E156.65573
G1 X38.62 Y24.55 E156.76665
G1 X40.43 Y24.00 E156.87699
G1 X41.97 Y23.85 E156.96682
G1 X67.17 Y23.85 E158.43132
G1 X68.70 Y24.00 E158.52091
G1 X70.52 Y24.55 E158.63147
G1 X72.21 Y25.45 E158.74250
G1 X72.94 Y26.05 E158.79734
G1 X83.65 Y26.05 E159.42018
G1 X83.65 Y35.39 E159.96280
G1 X84.45 Y35.59 E160.01073
G1 X84.45 Y45.26 E160.57272
G1 X83.85 Y45.86 E160.62203
G1 X83.85 Y49.49 E160.83337
G1 X84.45 Y50.09 E160.88268
G1 X84.45 Y61.50 E161.54557
G1 X64.14 Y61.50 E162.72643
G1 X62.18 Y56.77 E163.02371
G1 X47.45 Y56.85 E163.87957
G1 X47.45 Y61.50 E164.14960
G1 X24.71 Y61.50 E165.47165
G1 X24.71 Y50.09 E166.13453
G1 X24.91 Y49.90 E166.15097
G1 X24.91 Y45.46 E166.40880
G1 X24.71 Y45.26 E166.42524
G1 X24.71 Y36.88 E166.91224
G1 X25.11 Y36.68 E166.93823
G1 X25.11 Y26.05 E167.55584
G0 F12000 X25.57 Y26.52
G1 F600 X36.37 Y26.52 E168.18327
G1 X37.19 Y25.84 E168.24529
G1 X38.80 Y24.99 E168.35086
G1 X40.53 Y24.46 E168.45592
G1 X41.99 Y24.32 E168.54171
G1 X67.15 Y24.32 E170.00354
G1 X68.61 Y24.46 E170.08915
G1 X70.34 Y24.99 E170.19438
G1 X71.95 Y25.84 E170.30003
G1 X72.77 Y26.52 E170.36185
G1 X83.19 Y26.52 E170.96737
G1 X83.19 Y35.75 E171.50407
G1 X83.99 Y35.95 E171.55200
G1 X83.99 Y45.07 E172.08161
G1 X83.39 Y45.67 E172.13092
G1 X83.39 Y49.69 E172.36469
G1 X83.99 Y50.29 E172.41401
G1 X83.99 Y61.03 E173.03859
G1 X64.45 Y61.03 E174.17424
G1 X62.49 Y56.31 E174.47164
G1 X46.99 Y56.39 E175.37266
G1 X46.99 Y61.03 E175.64252
G1 X25.17 Y61.03 E176.91040
G1 X25.17 Y50.29 E177.53498
G1 X25.37 Y50.09 E177.55142
G1 X25.37 Y45.27 E177.83168
G1 X25.17 Y45.07 E177.84812
G1 X25.17 Y37.17 E178.30717
G1 X25.57 Y36.97 E178.33316
G1 X25.57 Y26.52 E178.94042
G0 F12000 X26.04 Y26.99
G1 F600 X36.54 Y26.99 E179.55047
G1 X37.45 Y26.23 E179.61947
G1 X38.98 Y25.42 E179.71971
G1 X40.62 Y24.92 E179.81942
G1 X42.02 Y24.79 E179.90119
G1 X67.12 Y24.79 E181.36040
G1 X68.52 Y24.92 E181.44205
G1 X70.17 Y25.42 E181.54198
G1 X71.69 Y26.23 E181.64222
G1 X72.60 Y26.99 E181.71111
G1 X82.72 Y26.99 E182.29919
G1 X82.72 Y36.12 E182.82996
G1 X83.52 Y36.32 E182.87789
G1 X83.52 Y44.87 E183.37512
G1 X82.92 Y45.47 E183.42444
G1 X82.92 Y49.88 E183.68064
G1 X83.52 Y50.48 E183.72996
G1 X83.52 Y60.57 E184.31624
G1 X64.76 Y60.57 E185.40672
G1 X62.80 Y55.84 E185.70423
G1 X46.52 Y55.93 E186.65042
G1 X46.52 Y60.57 E186.92016
G1 X25.64 Y60.57 E188.13387
G1 X25.64 Y50.48 E188.72014
G1 X25.84 Y50.28 E188.73658
G1 X25.84 Y45.07 E189.03928
G1 X25.64 Y44.87 E189.05572
G1 X25.64 Y37.46 E189.48681
G1 X26.04 Y37.26 E189.51281
G1 X26.04 Y26.99 E190.10972
G0 F12000 X26.51 Y27.45
G1 F600 X36.70 Y27.45 E190.70245
G1 X37.71 Y26.62 E190.77847
G1 X39.15 Y25.85 E190.87330
G1 X40.71 Y25.38 E190.96768
G1 X42.04 Y25.25 E191.04547
G1 X67.10 Y25.25 E192.50201
G1 X68.43 Y25.38 E192.57968
G1 X69.99 Y25.85 E192.67429
G1 X71.43 Y26.62 E192.76917
G1 X72.44 Y27.45 E192.84498
G1 X82.26 Y27.45 E193.41580
G1 X82.26 Y36.48 E193.94064
G1 X83.06 Y36.68 E193.98857
G1 X83.06 Y44.68 E194.45343
G1 X82.46 Y45.28 E194.50275
G1 X82.46 Y50.07 E194.78138
G1 X83.06 Y50.67 E194.83070
G1 X83.06 Y60.10 E195.37868
G1 X65.07 Y60.10 E196.42400
G1 X63.11 Y55.37 E196.72159
G1 X46.06 Y55.46 E197.71287
G1 X46.06 Y60.10 E197.98244
G1 X26.11 Y60.10 E199.14198
G1 X26.11 Y50.67 E199.68995
G1 X26.31 Y50.47 E199.70639
G1 X26.31 Y44.88 E200.03153
G1 X26.11 Y44.68 E200.04797
G1 X26.11 Y37.74 E200.45110
G1 X26.51 Y37.54 E200.47710
G1 X26.51 Y27.45 E201.06366
G0 F12000 X26.97 Y27.92
G1 F600 X36.87 Y27.92 E201.63890
G1 X37.97 Y27.01 E201.72199
G1 X39.33 Y26.29 E201.81146
G1 X40.80 Y25.84 E201.90055
G1 X42.06 Y25.72 E201.97437
G1 X67.08 Y25.72 E203.42823
G1 X68.34 Y25.84 E203.50193
G1 X69.81 Y26.29 E203.59119
G1 X71.17 Y27.01 E203.68069
G1 X72.27 Y27.92 E203.76356
G1 X81.79 Y27.92 E204.31700
G1 X81.79 Y36.85 E204.83591
G1 X82.59 Y37.05 E204.88384
G1 X82.59 Y44.49 E205.31633
G1 X81.99 Y45.09 E205.36565
G1 X81.99 Y50.27 E205.66672
G1 X82.59 Y50.87 E205.71604
G1 X82.59 Y59.64 E206.22571
G1 X65.38 Y59.64 E207.22582
G1 X63.42 Y54.90 E207.52353
G1 X45.59 Y55.00 E208.55998
G1 X45.59 Y59.64 E208.82943
G1 X26.57 Y59.64 E209.93480
G1 X26.57 Y50.87 E210.44447
G1 X26.77 Y50.67 E210.46091
G1 X26.77 Y44.69 E210.80848
G1 X26.57 Y44.49 E210.82492
G1 X26.57 Y38.03 E211.20010
G1 X26.97 Y37.83 E211.22609
G1 X26.97 Y27.92 E211.80231
G0 F12000 X27.44 Y28.38
G1 F600 X37.06 Y28.38 E212.36174
G1 X37.12 Y28.32 E212.36653
G1 X38.23 Y27.40 E212.45073
G1 X39.51 Y26.72 E212.53485
G1 X40.89 Y26.30 E212.61858
G1 X42.09 Y26.18 E212.68843
G1 X67.05 Y26.18 E214.13963
G1 X68.25 Y26.30 E214.20936
G1 X69.63 Y26.72 E214.29326
G1 X70.91 Y27.40 E214.37743
G1 X72.02 Y28.32 E214.46126
G1 X72.08 Y28.38 E214.46622
G1 X81.32 Y28.38 E215.00379
G1 X81.32 Y37.21 E215.51677
G1 X82.12 Y37.41 E215.56470
G1 X82.12 Y44.29 E215.96481
G1 X81.52 Y44.89 E216.01413
G1 X81.52 Y50.46 E216.33764
G1 X82.12 Y51.06 E216.38696
G1 X82.12 Y59.17 E216.85833
G1 X65.69 Y59.17 E217.81327
G1 X63.73 Y54.44 E218.11110
G1 X45.12 Y54.54 E219.19271
G1 X45.12 Y59.17 E219.46199
G1 X27.04 Y59.17 E220.51318
G1 X27.04 Y51.06 E220.98455
G1 X27.24 Y50.86 E221.00099
G1 X27.24 Y44.49 E221.37100
G1 X27.04 Y44.29 E221.38744
G1 X27.04 Y38.32 E221.73466
G1 X27.44 Y38.12 E221.76065
G1 X27.44 Y28.38 E222.32653
G0 F12000 X27.90 Y28.85
G1 F600 X37.28 Y28.85 E222.87165
G1 X37.45 Y28.65 E222.88661
G1 X38.49 Y27.79 E222.96544
G1 X39.69 Y27.15 E223.04422
G1 X40.98 Y26.76 E223.12268
G1 X42.11 Y26.65 E223.18850
G1 X67.03 Y26.65 E224.63708
G1 X68.16 Y26.76 E224.70278
G1 X69.45 Y27.15 E224.78135
G1 X70.65 Y27.79 E224.86017
G1 X71.69 Y28.65 E224.93866
G1 X71.86 Y28.85 E224.95378
G1 X80.86 Y28.85 E225.47705
G1 X80.86 Y37.57 E225.98411
G1 X81.66 Y37.77 E226.03204
G1 X81.66 Y44.10 E226.39978
G1 X81.06 Y44.70 E226.44909
G1 X81.06 Y50.65 E226.79504
G1 X81.66 Y51.25 E226.84435
G1 X81.66 Y58.70 E227.27742
G1 X66.00 Y58.70 E228.18721
G1 X64.04 Y53.97 E228.48511
G1 X44.66 Y54.07 E229.61182
G1 X44.66 Y58.70 E229.88098
G1 X27.50 Y58.70 E230.87801
G1 X27.50 Y51.25 E231.31108
G1 X27.70 Y51.05 E231.32752
G1 X27.70 Y44.30 E231.71996
G1 X27.50 Y44.10 E231.73639
G1 X27.50 Y38.61 E232.05566
G1 X27.90 Y38.41 E232.08165
G1 X27.90 Y28.85 E232.63718
G0 F12000 X28.37 Y29.32
G1 F600 X37.50 Y29.32 E233.16801
G1 X37.78 Y28.98 E233.19312
G1 X38.75 Y28.18 E233.26663
G1 X39.87 Y27.59 E233.34005
G1 X41.07 Y27.22 E233.41318
G1 X42.13 Y27.12 E233.47503
G1 X67.01 Y27.12 E234.92093
G1 X68.06 Y27.22 E234.98260
G1 X69.27 Y27.59 E235.05589
G1 X70.39 Y28.18 E235.12930
G1 X71.36 Y28.98 E235.20251
G1 X71.64 Y29.32 E235.22779
G1 X80.39 Y29.32 E235.73676
G1 X80.39 Y37.94 E236.23783
G1 X81.19 Y38.14 E236.28576
G1 X81.19 Y43.91 E236.62118
G1 X80.59 Y44.51 E236.67050
G1 X80.59 Y50.85 E237.03888
G1 X81.19 Y51.45 E237.08820
G1 X81.19 Y58.24 E237.48296
G1 X66.32 Y58.24 E238.34753
G1 X64.35 Y53.50 E238.64558
G1 X44.19 Y53.61 E239.81739
G1 X44.19 Y58.24 E240.08638
G1 X27.97 Y58.24 E241.02924
G1 X27.97 Y51.45 E241.42401
G1 X28.17 Y51.25 E241.44044
G1 X28.17 Y44.11 E241.85532
G1 X27.97 Y43.91 E241.87176
G1 X27.97 Y38.90 E242.16307
G1 X28.37 Y38.70 E242.18906
G1 X28.37 Y29.32 E242.73425
G0 F12000 X28.84 Y29.78
G1 F600 X37.72 Y29.78 E243.25083
G1 X38.11 Y29.31 E243.28610
G1 X39.01 Y28.57 E243.35423
G1 X40.05 Y28.02 E243.42233
G1 X41.16 Y27.68 E243.49011
G1 X42.16 Y27.58 E243.54798
G1 X66.99 Y27.58 E244.99121
G1 X67.97 Y27.68 E245.04891
G1 X69.09 Y28.02 E245.11685
G1 X70.13 Y28.57 E245.18493
G1 X71.03 Y29.31 E245.25281
G1 X71.42 Y29.78 E245.28824
G1 X79.93 Y29.78 E245.78292
G1 X79.93 Y38.30 E246.27806
G1 X80.73 Y38.50 E246.32599
G1 X80.73 Y43.72 E246.62904
G1 X80.13 Y44.31 E246.67836
G1 X80.13 Y51.04 E247.06917
G1 X80.73 Y51.64 E247.11849
G1 X80.73 Y57.77 E247.47495
G1 X66.63 Y57.77 E248.29436
G1 X64.66 Y53.03 E248.59251
G1 X43.73 Y53.15 E249.80949
G1 X43.73 Y57.77 E250.07836
G1 X28.44 Y57.77 E250.96705
G1 X28.44 Y51.64 E251.32351
G1 X28.64 Y51.44 E251.33995
G1 X28.64 Y43.91 E251.77726
G1 X28.44 Y43.72 E251.79370
G1 X28.44 Y39.18 E252.05705
G1 X28.84 Y38.98 E252.08305
G1 X28.84 Y29.78 E252.61789
G0 F12000 X29.30 Y30.25
G1 F600 X37.95 Y30.25 E253.12024
G1 X38.44 Y29.64 E253.16562
G1 X39.27 Y28.96 E253.22839
G1 X40.23 Y28.45 E253.29116
G1 X41.26 Y28.14 E253.35358
G1 X42.18 Y28.05 E253.40743
G1 X66.96 Y28.05 E254.84804
G1 X67.88 Y28.14 E254.90178
G1 X68.91 Y28.45 E254.96437
G1 X69.87 Y28.96 E255.02711
G1 X70.70 Y29.64 E255.08963
G1 X71.19 Y30.25 E255.13522
G1 X79.46 Y30.25 E255.61560
G1 X79.46 Y38.66 E256.10482
G1 X80.26 Y38.87 E256.15274
G1 X80.26 Y43.52 E256.42342
G1 X79.66 Y44.12 E256.47274
G1 X79.66 Y51.23 E256.88598
G1 X80.26 Y51.83 E256.93530
G1 X80.26 Y57.31 E257.25346
G1 X66.94 Y57.31 E258.02771
G1 X65.03 Y52.70 E258.31735
G1 X65.17 Y52.56 E258.32869
G1 X43.26 Y52.68 E259.60217
G1 X43.26 Y57.31 E259.87086
G1 X28.90 Y57.31 E260.70538
G1 X28.90 Y51.83 E261.02354
G1 X29.10 Y51.63 E261.03998
G1 X29.10 Y43.72 E261.49973
G1 X28.90 Y43.52 E261.51617
G1 X28.90 Y39.47 E261.75156
G1 X29.30 Y39.27 E261.77755
G1 X29.30 Y30.25 E262.30205
G0 F12000 X29.77 Y30.71
G1 F600 X38.16 Y30.71 E262.79010
G1 X38.77 Y29.97 E262.84569
G1 X39.53 Y29.35 E262.90309
G1 X40.41 Y28.88 E262.96045
G1 X41.35 Y28.60 E263.01760
G1 X42.20 Y28.51 E263.06747
G1 X66.94 Y28.51 E264.50541
G1 X67.79 Y28.60 E264.55517
G1 X68.73 Y28.88 E264.61243
G1 X69.61 Y29.35 E264.66982
G1 X70.37 Y29.97 E264.72701
G1 X70.97 Y30.71 E264.78276
G1 X78.99 Y30.71 E265.24884
G1 X78.99 Y39.03 E265.73212
G1 X79.79 Y39.23 E265.78005
G1 X79.79 Y43.33 E266.01835
G1 X79.19 Y43.93 E266.06767
G1 X79.19 Y51.42 E266.50335
G1 X79.79 Y52.02 E266.55267
G1 X79.79 Y56.84 E266.83253
G1 X67.25 Y56.84 E267.56155
G1 X65.58 Y52.81 E267.81497
G1 X66.30 Y52.09 E267.87415
G1 X42.79 Y52.22 E269.24051
G1 X42.79 Y56.84 E269.50909
G1 X29.37 Y56.84 E270.28944
G1 X29.37 Y52.02 E270.56929
G1 X29.57 Y51.83 E270.58573
G1 X29.57 Y43.53 E271.06791
G1 X29.37 Y43.33 E271.08435
G1 X29.37 Y39.76 E271.29179
G1 X29.77 Y39.56 E271.31778
G1 X29.77 Y30.71 E271.83193
G0 F12000 X30.23 Y31.18
G1 F600 X38.44 Y31.18 E272.30877
G1 X38.54 Y31.00 E272.32096
G1 X39.10 Y30.30 E272.37283
G1 X39.79 Y29.74 E272.42482
G1 X40.58 Y29.32 E272.47685
G1 X41.44 Y29.06 E272.52872
G1 X42.22 Y28.98 E272.57456
G1 X66.92 Y28.98 E274.00983
G1 X67.70 Y29.06 E274.05562
G1 X68.56 Y29.32 E274.10754
G1 X69.34 Y29.74 E274.15952
G1 X70.03 Y30.30 E274.21143
G1 X70.60 Y30.99 E274.26334
G1 X70.70 Y31.18 E274.27558
G1 X78.53 Y31.18 E274.73050
G1 X78.53 Y39.39 E275.20786
G1 X79.33 Y39.59 E275.25579
G1 X79.33 Y43.14 E275.46172
G1 X78.73 Y43.74 E275.51103
G1 X78.73 Y51.62 E275.96915
G1 X79.33 Y52.22 E276.01847
G1 X79.33 Y56.37 E276.26003
G1 X67.56 Y56.37 E276.94389
G1 X66.13 Y52.92 E277.16114
G1 X67.03 Y52.02 E277.23536
G1 X67.03 Y51.62 E277.25838
G1 X41.87 Y51.76 E278.72110
G1 X42.33 Y52.22 E278.75891
G1 X42.33 Y56.37 E279.00047
G1 X29.83 Y56.37 E279.72664
G1 X29.83 Y52.22 E279.96820
G1 X30.03 Y52.02 E279.98464
G1 X30.03 Y43.34 E280.48925
G1 X29.83 Y43.14 E280.50569
G1 X29.83 Y40.05 E280.68517
G1 X30.23 Y39.85 E280.71117
G1 X30.23 Y31.18 E281.21497
G0 F12000 X30.70 Y31.65
G1 F600 X38.72 Y31.65 E281.68099
G1 X38.93 Y31.25 E281.70676
G1 X39.43 Y30.64 E281.75327
G1 X40.05 Y30.13 E281.79997
G1 X40.76 Y29.75 E281.84662
G1 X41.53 Y29.52 E281.89312
G1 X42.25 Y29.45 E281.93500
G1 X66.89 Y29.45 E283.36759
G1 X67.61 Y29.52 E283.40941
G1 X68.38 Y29.75 E283.45597
G1 X69.08 Y30.13 E283.50265
G1 X69.70 Y30.64 E283.54919
G1 X70.21 Y31.25 E283.59573
G1 X70.42 Y31.65 E283.62158
G1 X78.06 Y31.65 E284.06563
G1 X78.06 Y39.76 E284.53706
G1 X78.86 Y39.96 E284.58499
G1 X78.86 Y42.94 E284.75854
G1 X78.26 Y43.54 E284.80782
G1 X78.26 Y51.81 E285.28849
G1 X78.86 Y52.41 E285.33776
G1 X78.86 Y55.91 E285.54102
G1 X67.87 Y55.91 E286.17972
G1 X66.68 Y53.03 E286.36077
G1 X67.50 Y52.21 E286.42805
G1 X67.50 Y51.15 E286.48955
G1 X41.26 Y51.30 E288.01458
G1 X41.26 Y51.81 E288.04462
G1 X41.86 Y52.41 E288.09390
G1 X41.86 Y55.91 E288.29715
G1 X30.30 Y55.91 E288.96916
G1 X30.30 Y52.41 E289.17242
G1 X30.50 Y52.21 E289.18885
G1 X30.50 Y43.14 E289.71591
G1 X30.30 Y42.94 E289.73235
G1 X30.30 Y40.34 E289.88387
G1 X30.70 Y40.14 E289.90986
G1 X30.70 Y31.65 E290.40332
G0 F12000 X31.17 Y32.11
G1 F600 X39.00 Y32.11 E290.85853
G1 X39.32 Y31.52 E290.89785
G1 X39.77 Y30.97 E290.93906
G1 X40.31 Y30.52 E290.98039
G1 X40.94 Y30.18 E291.02168
G1 X41.62 Y29.98 E291.06285
G1 X42.27 Y29.91 E291.10075
G1 X66.87 Y29.91 E292.53067
G1 X67.52 Y29.98 E292.56852
G1 X68.20 Y30.18 E292.60975
G1 X68.83 Y30.52 E292.65106
G1 X69.37 Y30.97 E292.69228
G1 X69.82 Y31.51 E292.73349
G1 X70.14 Y32.11 E292.77291
G1 X77.60 Y32.11 E293.20609
G1 X77.60 Y40.12 E293.67154
G1 X78.40 Y40.32 E293.71947
G1 X78.40 Y42.75 E293.86070
G1 X77.80 Y43.35 E293.91002
G1 X77.80 Y52.00 E294.41301
G1 X78.40 Y52.60 E294.46233
G1 X78.40 Y55.44 E294.62728
G1 X68.19 Y55.44 E295.22076
G1 X67.23 Y53.14 E295.36559
G1 X67.97 Y52.40 E295.42605
G1 X67.97 Y50.69 E295.52596
G1 X40.80 Y50.83 E297.10516
G1 X40.80 Y52.00 E297.17328
G1 X41.40 Y52.60 E297.22260
G1 X41.40 Y55.44 E297.38755
G1 X30.77 Y55.44 E298.00539
G1 X30.77 Y52.60 E298.17034
G1 X30.97 Y52.40 E298.18678
G1 X30.97 Y42.95 E298.73626
G1 X30.77 Y42.75 E298.75270
G1 X30.77 Y40.62 E298.87627
G1 X31.17 Y40.42 E298.90226
G1 X31.17 Y32.11 E299.38537
G0 F12000 X31.63 Y32.58
G1 F600 X39.34 Y32.58 E299.83315
G1 X39.41 Y32.32 E299.84888
G1 X39.71 Y31.77 E299.88474
G1 X40.10 Y31.30 E299.92059
G1 X40.58 Y30.91 E299.95656
G1 X41.12 Y30.61 E299.99252
G1 X41.71 Y30.43 E300.02835
G1 X42.29 Y30.38 E300.06228
G1 X66.85 Y30.38 E301.48953
G1 X67.43 Y30.43 E301.52340
G1 X68.02 Y30.61 E301.55930
G1 X68.56 Y30.91 E301.59520
G1 X69.04 Y31.30 E301.63113
G1 X69.43 Y31.77 E301.66706
G1 X69.72 Y32.32 E301.70297
G1 X69.80 Y32.58 E301.71864
G1 X77.13 Y32.58 E302.14450
G1 X77.13 Y40.48 E302.60401
G1 X77.93 Y40.68 E302.65194
G1 X77.93 Y42.56 E302.76080
G1 X77.33 Y43.16 E302.81008
G1 X77.33 Y52.20 E303.33562
G1 X77.93 Y52.80 E303.38490
G1 X77.93 Y54.98 E303.51155
G1 X68.50 Y54.98 E304.05987
G1 X67.78 Y53.25 E304.16853
G1 X68.43 Y52.60 E304.22208
G1 X68.43 Y50.22 E304.36047
G1 X40.33 Y50.37 E305.99384
G1 X40.33 Y52.20 E306.10021
G1 X40.93 Y52.80 E306.14948
G1 X40.93 Y54.98 E306.27613
G1 X31.23 Y54.98 E306.83980
G1 X31.23 Y52.80 E306.96645
G1 X31.43 Y52.60 E306.98289
G1 X31.43 Y42.76 E307.55481
G1 X31.23 Y42.56 E307.57125
G1 X31.23 Y40.91 E307.66686
G1 X31.63 Y40.71 E307.69285
G1 X31.63 Y32.58 E308.16562
G0 F12000 X32.10 Y33.04
G1 F600 X39.69 Y33.04 E308.60688
G1 X39.69 Y33.00 E308.60933
G1 X39.85 Y32.50 E308.63996
G1 X40.09 Y32.03 E308.67046
G1 X40.43 Y31.63 E308.70098
G1 X40.84 Y31.29 E308.73162
G1 X41.30 Y31.05 E308.76222
G1 X41.80 Y30.89 E308.79273
G1 X42.31 Y30.84 E308.82268
G1 X66.83 Y30.84 E310.24726
G1 X67.34 Y30.89 E310.27716
G1 X67.84 Y31.05 E310.30771
G1 X68.30 Y31.29 E310.33827
G1 X68.71 Y31.63 E310.36887
G1 X69.05 Y32.03 E310.39947
G1 X69.29 Y32.50 E310.43002
G1 X69.44 Y33.00 E310.46058
G1 X69.45 Y33.04 E310.46303
G1 X76.66 Y33.04 E310.88238
G1 X76.66 Y40.85 E311.33597
G1 X77.46 Y41.05 E311.38389
G1 X77.46 Y42.36 E311.46038
G1 X76.86 Y42.96 E311.50970
G1 X76.86 Y52.39 E312.05756
G1 X77.46 Y52.99 E312.10688
G1 X77.46 Y54.51 E312.19522
G1 X68.81 Y54.51 E312.69839
G1 X68.33 Y53.36 E312.77086
G1 X68.90 Y52.79 E312.81754
G1 X68.90 Y49.75 E312.99435
G1 X39.86 Y49.91 E314.68189
G1 X39.86 Y52.39 E314.82633
G1 X40.46 Y52.99 E314.87564
G1 X40.46 Y54.51 E314.96399
G1 X31.70 Y54.51 E315.47349
G1 X31.70 Y52.99 E315.56183
G1 X31.90 Y52.79 E315.57827
G1 X31.90 Y42.56 E316.17263
G1 X31.70 Y42.36 E316.18907
G1 X31.70 Y41.20 E316.25672
G1 X32.10 Y41.00 E316.28272
G1 X32.10 Y33.04 E316.74514
G1 F2400 E315.54514
G0 F12000 X41.04 Y33.58
;TYPE:WALL-INNER
G1 F2400 E316.74514
G1 F600 X41.07 Y33.28 E316.76248
G1 X41.15 Y33.04 E316.77732
G1 X41.27 Y32.81 E316.79214
G1 X41.42 Y32.62 E316.80634
G1 X41.62 Y32.46 E316.82104
G1 X41.84 Y32.34 E316.83547
G1 X42.08 Y32.27 E316.85028
G1 X42.38 Y32.24 E316.86780
G1 X66.76 Y32.24 E318.28493
G1 X67.06 Y32.27 E318.30251
G1 X67.30 Y32.34 E318.31702
G1 X67.52 Y32.46 E318.33171
G1 X67.72 Y32.62 E318.34625
G1 X67.88 Y32.81 E318.36078
G1 X68.00 Y33.04 E318.37547
G1 X68.07 Y33.28 E318.38998
G1 X68.10 Y33.58 E318.40756
G1 X68.10 Y44.25 E319.02767
G1 X68.07 Y44.55 E319.04519
G1 X68.00 Y44.79 E319.05981
G1 X67.88 Y45.01 E319.07445
G1 X67.72 Y45.21 E319.08919
G1 X67.53 Y45.36 E319.10332
G1 X67.30 Y45.48 E319.11814
G1 X67.06 Y45.55 E319.13297
G1 X66.76 Y45.58 E319.15032
G1 X42.38 Y45.58 E320.56745
G1 X42.08 Y45.55 E320.58503
G1 X41.84 Y45.48 E320.59961
G1 X41.61 Y45.36 E320.61443
G1 X41.42 Y45.20 E320.62872
G1 X41.27 Y45.01 E320.64314
G1 X41.14 Y44.78 E320.65817
G1 X41.07 Y44.55 E320.67256
G1 X41.04 Y44.25 E320.69015
G1 X41.04 Y33.58 E321.31025
G0 F12000 X40.58 Y33.56
G1 F600 X40.61 Y33.19 E321.33238
G1 X40.71 Y32.86 E321.35237
G1 X40.87 Y32.55 E321.37221
G1 X41.09 Y32.29 E321.39215
G1 X41.35 Y32.07 E321.41193
G1 X41.66 Y31.91 E321.43190
G1 X41.98 Y31.81 E321.45171
G1 X42.36 Y31.78 E321.47384
G1 X66.78 Y31.78 E322.89272
G1 X67.16 Y31.81 E322.91503
G1 X67.48 Y31.91 E322.93469
G1 X67.78 Y32.07 E322.95466
G1 X68.05 Y32.29 E322.97456
G1 X68.27 Y32.55 E322.99445
G1 X68.43 Y32.86 E323.01442
G1 X68.53 Y33.18 E323.03408
G1 X68.56 Y33.56 E323.05639
G1 X68.56 Y44.26 E323.67824
G1 X68.53 Y44.64 E323.70038
G1 X68.43 Y44.97 E323.72018
G1 X68.27 Y45.27 E323.74007
G1 X68.05 Y45.53 E323.76001
G1 X67.78 Y45.75 E323.77988
G1 X67.48 Y45.91 E323.79972
G1 X67.15 Y46.01 E323.81970
G1 X66.78 Y46.05 E323.84184
G1 X42.36 Y46.05 E325.26071
G1 X41.99 Y46.01 E325.28273
G1 X41.66 Y45.91 E325.30271
G1 X41.35 Y45.75 E325.32263
G1 X41.09 Y45.53 E325.34262
G1 X40.88 Y45.27 E325.36216
G1 X40.71 Y44.97 E325.38221
G1 X40.61 Y44.64 E325.40219
G1 X40.58 Y44.26 E325.42421
G1 X40.58 Y33.56 E326.04606
G0 F12000 X40.11 Y33.54
;TYPE:WALL-OUTER
G1 F600 X40.15 Y33.09 E326.07199
G1 X40.28 Y32.68 E326.09714
G1 X40.49 Y32.29 E326.12262
G1 X40.76 Y31.96 E326.14773
G1 X41.09 Y31.68 E326.17280
G1 X41.48 Y31.48 E326.19828
G1 X41.89 Y31.35 E326.22342
G1 X42.34 Y31.31 E326.24941
G1 X66.80 Y31.31 E327.67119
G1 X67.25 Y31.35 E327.69724
G1 X67.66 Y31.48 E327.72219
G1 X68.05 Y31.68 E327.74775
G1 X68.38 Y31.96 E327.77285
G1 X68.65 Y32.29 E327.79795
G1 X68.86 Y32.68 E327.82351
G1 X68.98 Y33.09 E327.84846
G1 X69.03 Y33.54 E327.87451
G1 X69.03 Y44.29 E328.49927
G1 X68.98 Y44.73 E328.52526
G1 X68.86 Y45.15 E328.55034
G1 X68.65 Y45.53 E328.57582
G1 X68.38 Y45.87 E328.60096
G1 X68.05 Y46.14 E328.62603
G1 X67.66 Y46.35 E328.65151
G1 X67.25 Y46.47 E328.67666
G1 X66.80 Y46.52 E328.70259
G1 X42.34 Y46.52 E330.12438
G1 X41.89 Y46.47 E330.15037
G1 X41.48 Y46.35 E330.17546
G1 X41.09 Y46.14 E330.20100
G1 X40.76 Y45.86 E330.22627
G1 X40.49 Y45.53 E330.25097
G1 X40.28 Y45.15 E330.27666
G1 X40.15 Y44.73 E330.30176
G1 X40.11 Y44.29 E330.32775
G1 X40.11 Y33.54 E330.95250
G0 F12000 X41.20 Y33.63
;TYPE:FILL
G1 F600 X53.00 Y45.42 E331.92185
G0 F12000 X52.34 Y45.42
G1 F600 X41.20 Y34.28 E332.83703
G0 F12000 X41.20 Y34.94
G1 F600 X51.68 Y45.42 E333.69805
G0 F12000 X51.02 Y45.42
G1 F600 X41.20 Y35.60 E334.50489
G0 F12000 X41.20 Y36.26
G1 F600 X50.36 Y45.42 E335.25757
G0 F12000 X49.70 Y45.42
G1 F600 X41.20 Y36.92 E335.95608
G0 F12000 X41.20 Y37.58
G1 F600 X49.04 Y45.42 E336.60042
G0 F12000 X48.38 Y45.42
G1 F600 X41.20 Y38.24 E337.19060
G0 F12000 X41.20 Y38.90
G1 F600 X47.73 Y45.42 E337.72661
G0 F12000 X47.07 Y45.42
G1 F600 X41.20 Y39.56 E338.20844
G0 F12000 X41.20 Y40.22
G1 F600 X46.41 Y45.42 E338.63612
G0 F12000 X45.75 Y45.42
G1 F600 X41.20 Y40.88 E339.00962
G0 F12000 X41.20 Y41.53
G1 F600 X45.09 Y45.42 E339.32895
G0 F12000 X44.43 Y45.42
G1 F600 X41.20 Y42.19 E339.59412
G0 F12000 X41.20 Y42.85
G1 F600 X43.77 Y45.42 E339.80512
G0 F12000 X43.11 Y45.42
G1 F600 X41.20 Y43.51 E339.96195
G0 F12000 X41.20 Y44.17
G1 F600 X42.45 Y45.42 E340.06458
G0 F12000 X53.66 Y45.42
G1 F600 X41.31 Y33.07 E341.07938
G0 F12000 X41.59 Y32.69
G1 F600 X54.32 Y45.42 E342.12534
G0 F12000 X54.98 Y45.42
G1 F600 X42.02 Y32.46 E343.19045
G0 F12000 X42.62 Y32.41
G1 F600 X55.63 Y45.42 E344.26016
G0 F12000 X56.29 Y45.42
G1 F600 X43.28 Y32.41 E345.32987
G0 F12000 X43.94 Y32.41
G1 F600 X56.95 Y45.42 E346.39959
G0 F12000 X57.61 Y45.42
G1 F600 X44.60 Y32.41 E347.46930
G0 F12000 X45.26 Y32.41
G1 F600 X58.27 Y45.42 E348.53901
G0 F12000 X58.93 Y45.42
G1 F600 X45.91 Y32.41 E349.60872
G0 F12000 X46.58 Y32.41
G1 F600 X59.59 Y45.42 E350.67839
G0 F12000 X60.25 Y45.42
G1 F600 X47.23 Y32.41 E351.74806
G0 F12000 X47.89 Y32.41
G1 F600 X60.91 Y45.42 E352.81774
G0 F12000 X61.56 Y45.42
G1 F600 X48.55 Y32.41 E353.88741
G0 F12000 X49.21 Y32.41
G1 F600 X62.22 Y45.42 E354.95708
G0 F12000 X62.88 Y45.42
G1 F600 X49.87 Y32.41 E356.02675
G0 F12000 X50.53 Y32.41
G1 F600 X63.54 Y45.42 E357.09642
G0 F12000 X64.20 Y45.42
G1 F600 X51.19 Y32.41 E358.16609
G0 F12000 X51.85 Y32.41
G1 F600 X64.86 Y45.42 E359.23576
G0 F12000 X65.52 Y45.42
G1 F600 X52.51 Y32.41 E360.30543
G0 F12000 X53.16 Y32.41
G1 F600 X66.18 Y45.42 E361.37511
G0 F12000 X66.83 Y45.41
G1 F600 X53.82 Y32.41 E362.44416
G0 F12000 X54.48 Y32.41
G1 F600 X67.35 Y45.27 E363.50146
G0 F12000 X67.70 Y44.96
G1 F600 X55.14 Y32.41 E364.53377
G0 F12000 X55.80 Y32.41
G1 F600 X67.90 Y44.51 E365.52865
G0 F12000 X67.93 Y43.88
G1 F600 X56.46 Y32.41 E366.47165
G0 F12000 X57.12 Y32.41
G1 F600 X67.93 Y43.22 E367.36049
G0 F12000 X67.93 Y42.56
G1 F600 X57.78 Y32.41 E368.19516
G0 F12000 X58.44 Y32.41
G1 F600 X67.93 Y41.90 E368.97566
G0 F12000 X67.93 Y41.24
G1 F600 X59.10 Y32.41 E369.70199
G0 F12000 X59.76 Y32.41
G1 F600 X67.93 Y40.58 E370.37412
G0 F12000 X67.93 Y39.92
G1 F600 X60.41 Y32.41 E370.99208
G0 F12000 X61.07 Y32.41
G1 F600 X67.93 Y39.26 E371.55587
G0 F12000 X67.93 Y38.60
G1 F600 X61.73 Y32.41 E372.06549
G0 F12000 X62.39 Y32.41
G1 F600 X67.93 Y37.95 E372.52094
G0 F12000 X67.93 Y37.29
G1 F600 X63.05 Y32.41 E372.92223
G0 F12000 X63.71 Y32.41
G1 F600 X67.93 Y36.63 E373.26935
G0 F12000 X67.93 Y35.97
G1 F600 X64.37 Y32.41 E373.56230
G0 F12000 X65.03 Y32.41
G1 F600 X67.93 Y35.31 E373.80108
G0 F12000 X67.93 Y34.65
G1 F600 X65.69 Y32.41 E373.98569
G0 F12000 X66.34 Y32.41
G1 F600 X67.93 Y33.99 E374.11614
G0 F12000 X67.90 Y33.30
G1 F600 X67.03 Y32.44 E374.18757
G1 F2400 E372.98757
G0 F12000 X38.72 Y33.21
;TYPE:SUPPORT
G1 F2400 E374.18757
G1 F600 X38.72 Y54.35 E375.41615
G0 F12000 X37.79 Y54.35
G1 F600 X37.79 Y33.21 E376.64474
G0 F12000 X36.85 Y33.21
G1 F600 X36.85 Y54.35 E377.87332
G0 F12000 X35.92 Y54.35
G1 F600 X35.92 Y33.21 E379.10191
G0 F12000 X34.99 Y33.21
G1 F600 X34.99 Y54.35 E380.33049
G0 F12000 X34.05 Y54.35
G1 F600 X34.05 Y33.21 E381.55908
G0 F12000 X33.12 Y33.21
G1 F600 X33.12 Y54.35 E382.78766
G0 F12000 X32.19 Y54.35
G1 F600 X32.19 Y41.14 E383.55534
G0 F12000 X32.26 Y41.29
G0 X39.50 Y45.88
G0 X39.65 Y45.80
G1 F600 X39.65 Y54.35 E384.05188
G0 F12000 X39.62 Y54.18
G0 X39.49 Y49.53
G0 X40.59 Y49.57
G0 X40.59 Y49.74
G1 F600 X40.59 Y46.84 E384.22026
G0 F12000 X41.52 Y47.35
G1 F600 X41.52 Y48.81 E384.30523
G1 F2400 E383.10523
G0 F12000 X67.64 Y47.57
G1 F2400 E384.30523
G1 F600 X67.64 Y47.34 E384.31837
G0 F12000 X68.58 Y46.82
G1 F600 X68.58 Y49.59 E384.47902
G0 F12000 X68.58 Y49.42
G0 X69.66 Y45.85
G0 X69.51 Y45.77
G1 F600 X69.51 Y54.35 E384.97753
G0 F12000 X70.44 Y54.35
G1 F600 X70.44 Y33.21 E386.20611
G0 F12000 X71.37 Y33.21
G1 F600 X71.37 Y54.35 E387.43470
G0 F12000 X72.31 Y54.35
G1 F600 X72.31 Y33.21 E388.66328
G0 F12000 X73.24 Y33.21
G1 F600 X73.24 Y54.35 E389.89187
G0 F12000 X74.17 Y54.35
G1 F600 X74.17 Y33.21 E391.12045
G0 F12000 X75.11 Y33.21
G1 F600 X75.11 Y54.35 E392.34904
G0 F12000 X76.04 Y54.35
G1 F600 X76.04 Y33.21 E393.57762
;LAYER:1
G1 F2400 E392.37762
G0 F12000 X68.10 Y33.58 Z0.50
;TYPE:WALL-INNER
G1 F2400 E393.57762
G1 F600 X68.10 Y44.25 E393.99102
G1 X68.07 Y44.55 E394.00271
G1 X68.00 Y44.79 E394.01245
G1 X67.88 Y45.01 E394.02221
G1 X67.72 Y45.21 E394.03204
G1 X67.53 Y45.36 E394.04146
G1 X67.30 Y45.48 E394.05134
G1 X67.06 Y45.55 E394.06123
G1 X66.76 Y45.58 E394.07279
G1 X42.38 Y45.58 E395.01755
G1 X42.08 Y45.55 E395.02927
G1 X41.84 Y45.48 E395.03899
G1 X41.61 Y45.36 E395.04887
G1 X41.42 Y45.20 E395.05839
G1 X41.27 Y45.01 E395.06800
G1 X41.14 Y44.78 E395.07802
G1 X41.07 Y44.55 E395.08762
G1 X41.04 Y44.25 E395.09934
G1 X41.04 Y33.58 E395.51275
G1 X41.07 Y33.28 E395.52431
G1 X41.15 Y33.04 E395.53420
G1 X41.27 Y32.81 E395.54408
G1 X41.42 Y32.62 E395.55355
G1 X41.62 Y32.46 E395.56335
G1 X41.84 Y32.34 E395.57297
G1 X42.08 Y32.27 E395.58284
G1 X42.38 Y32.24 E395.59452
G1 X66.76 Y32.24 E396.53928
G1 X67.06 Y32.27 E396.55100
G1 X67.30 Y32.34 E396.56067
G1 X67.52 Y32.46 E396.57046
G1 X67.72 Y32.62 E396.58015
G1 X67.88 Y32.81 E396.58984
G1 X68.00 Y33.04 E396.59964
G1 X68.07 Y33.28 E396.60931
G1 X68.10 Y33.58 E396.62103
G0 F12000 X68.56 Y33.56
G1 F600 X68.56 Y44.26 E397.03560
G1 X68.53 Y44.64 E397.05035
G1 X68.43 Y44.97 E397.06355
G1 X68.27 Y45.27 E397.07681
G1 X68.05 Y45.53 E397.09011
G1 X67.78 Y45.75 E397.10335
G1 X67.48 Y45.91 E397.11658
G1 X67.15 Y46.01 E397.12990
G1 X66.78 Y46.05 E397.14466
G1 X42.36 Y46.05 E398.09058
G1 X41.99 Y46.01 E398.10525
G1 X41.66 Y45.91 E398.11858
G1 X41.35 Y45.75 E398.13186
G1 X41.09 Y45.53 E398.14518
G1 X40.88 Y45.27 E398.15821
G1 X40.71 Y44.97 E398.17157
G1 X40.61 Y44.64 E398.18490
G1 X40.58 Y44.26 E398.19957
G1 X40.58 Y33.56 E398.61414
G1 X40.61 Y33.19 E398.62890
G1 X40.71 Y32.86 E398.64222
G1 X40.87 Y32.55 E398.65545
G1 X41.09 Y32.29 E398.66874
G1 X41.35 Y32.07 E398.68193
G1 X41.66 Y31.91 E398.69524
G1 X41.98 Y31.81 E398.70844
G1 X42.36 Y31.78 E398.72320
G1 X66.78 Y31.78 E399.66912
G1 X67.16 Y31.81 E399.68399
G1 X67.48 Y31.91 E399.69710
G1 X67.78 Y32.07 E399.71041
G1 X68.05 Y32.29 E399.72368
G1 X68.27 Y32.55 E399.73694
G1 X68.43 Y32.86 E399.75026
G1 X68.53 Y33.18 E399.76336
G1 X68.56 Y33.56 E399.77824
G0 F12000 X69.03 Y33.54
;TYPE:WALL-OUTER
G1 F600 X69.03 Y44.29 E400.19474
G1 X68.98 Y44.73 E400.21207
G1 X68.86 Y45.15 E400.22879
G1 X68.65 Y45.53 E400.24577
G1 X68.38 Y45.87 E400.26254
G1 X68.05 Y46.14 E400.27925
G1 X67.66 Y46.35 E400.29623
G1 X67.25 Y46.47 E400.31300
G1 X66.80 Y46.52 E400.33029
G1 X42.34 Y46.52 E401.27815
G1 X41.89 Y46.47 E401.29547
G1 X41.48 Y46.35 E401.31220
G1 X41.09 Y46.14 E401.32923
G1 X40.76 Y45.86 E401.34607
G1 X40.49 Y45.53 E401.36254
G1 X40.28 Y45.15 E401.37967
G1 X40.15 Y44.73 E401.39640
G1 X40.11 Y44.29 E401.41373
G1 X40.11 Y33.54 E401.83023
G1 X40.15 Y33.09 E401.84752
G1 X40.28 Y32.68 E401.86429
G1 X40.49 Y32.29 E401.88127
G1 X40.76 Y31.96 E401.89801
G1 X41.09 Y31.68 E401.91472
G1 X41.48 Y31.48 E401.93171
G1 X41.89 Y31.35 E401.94847
G1 X42.34 Y31.31 E401.96579
G1 X66.80 Y31.31 E402.91365
G1 X67.25 Y31.35 E402.93101
G1 X67.66 Y31.48 E402.94765
G1 X68.05 Y31.68 E402.96469
G1 X68.38 Y31.96 E402.98142
G1 X68.65 Y32.29 E402.99816
G1 X68.86 Y32.68 E403.01520
G1 X68.98 Y33.09 E403.03183
G1 X69.03 Y33.54 E403.04920
G0 F12000 X67.93 Y33.89
;TYPE:FILL
G1 F600 X56.40 Y45.42 E403.68118
G0 F12000 X57.06 Y45.42
G1 F600 X67.93 Y34.55 E404.27706
G0 F12000 X67.93 Y35.20
G1 F600 X57.72 Y45.42 E404.83682
G0 F12000 X58.38 Y45.42
G1 F600 X67.93 Y35.86 E405.36047
G0 F12000 X67.93 Y36.52
G1 F600 X59.03 Y45.42 E405.84801
G0 F12000 X59.69 Y45.42
G1 F600 X67.93 Y37.18 E406.29943
G0 F12000 X67.93 Y37.84
G1 F600 X60.35 Y45.42 E406.71475
G0 F12000 X61.01 Y45.42
G1 F600 X67.93 Y38.50 E407.09395
G0 F12000 X67.93 Y39.16
G1 F600 X61.67 Y45.42 E407.43704
G0 F12000 X62.33 Y45.42
G1 F600 X67.93 Y39.82 E407.74402
G0 F12000 X67.93 Y40.48
G1 F600 X62.99 Y45.42 E408.01489
G0 F12000 X63.65 Y45.42
G1 F600 X67.93 Y41.13 E408.24964
G0 F12000 X67.93 Y41.79
G1 F600 X64.31 Y45.42 E408.44828
G0 F12000 X64.97 Y45.42
G1 F600 X67.93 Y42.45 E408.61081
G0 F12000 X67.93 Y43.11
G1 F600 X65.62 Y45.42 E408.73721
G0 F12000 X66.28 Y45.42
G1 F600 X67.93 Y43.77 E408.82749
G0 F12000 X67.91 Y44.45
G1 F600 X66.96 Y45.40 E408.87938
G0 F12000 X55.74 Y45.42
G1 F600 X67.89 Y33.27 E409.54523
G0 F12000 X67.67 Y32.83
G1 F600 X55.08 Y45.42 E410.23519
G0 F12000 X54.42 Y45.42
G1 F600 X67.31 Y32.53 E410.94132
G0 F12000 X66.77 Y32.41
G1 F600 X53.76 Y45.42 E411.65430
G0 F12000 X53.10 Y45.42
G1 F600 X66.12 Y32.41 E412.36744
G0 F12000 X65.46 Y32.41
G1 F600 X52.45 Y45.42 E413.08055
G0 F12000 X51.79 Y45.42
G1 F600 X64.80 Y32.41 E413.79367
G0 F12000 X64.14 Y32.41
G1 F600 X51.13 Y45.42 E414.50678
G0 F12000 X50.47 Y45.42
G1 F600 X63.48 Y32.41 E415.21989
G0 F12000 X62.82 Y32.41
G1 F600 X49.81 Y45.42 E415.93301
G0 F12000 X49.15 Y45.42
G1 F600 X62.16 Y32.41 E416.64612
G0 F12000 X61.50 Y32.41
G1 F600 X48.49 Y45.42 E417.35924
G0 F12000 X47.83 Y45.42
G1 F600 X60.84 Y32.41 E418.07235
G0 F12000 X60.19 Y32.41
G1 F600 X47.17 Y45.42 E418.78547
G0 F12000 X46.51 Y45.42
G1 F600 X59.53 Y32.41 E419.49858
G0 F12000 X58.87 Y32.41
G1 F600 X45.85 Y45.42 E420.21169
G0 F12000 X45.20 Y45.42
G1 F600 X58.21 Y32.41 E420.92481
G0 F12000 X57.55 Y32.41
G1 F600 X44.54 Y45.42 E421.63792
G0 F12000 X43.88 Y45.42
G1 F600 X56.89 Y32.41 E422.35104
G0 F12000 X56.23 Y32.41
G1 F600 X43.22 Y45.42 E423.06415
G0 F12000 X42.56 Y45.42
G1 F600 X55.57 Y32.41 E423.77726
G0 F12000 X54.91 Y32.41
G1 F600 X41.97 Y45.35 E424.48654
G0 F12000 X41.56 Y45.10
G1 F600 X54.26 Y32.41 E425.18240
G0 F12000 X53.60 Y32.41
G1 F600 X41.29 Y44.71 E425.85663
G0 F12000 X41.20 Y44.14
G1 F600 X52.94 Y32.41 E426.49952
G0 F12000 X52.28 Y32.41
G1 F600 X41.20 Y43.48 E427.10630
G0 F12000 X41.20 Y42.82
G1 F600 X51.62 Y32.41 E427.67697
G0 F12000 X50.96 Y32.41
G1 F600 X41.20 Y42.16 E428.21152
G0 F12000 X41.20 Y41.50
G1 F600 X50.30 Y32.41 E428.70996
G0 F12000 X49.64 Y32.41
G1 F600 X41.20 Y40.84 E429.17229
G0 F12000 X41.20 Y40.18
G1 F600 X48.98 Y32.41 E429.59851
G0 F12000 X48.32 Y32.41
G1 F600 X41.20 Y39.52 E429.98862
G0 F12000 X41.20 Y38.87
G1 F600 X47.66 Y32.41 E430.34262
G0 F12000 X47.01 Y32.41
G1 F600 X41.20 Y38.21 E430.66050
G0 F12000 X41.20 Y37.55
G1 F600 X46.35 Y32.41 E430.94227
G0 F12000 X45.69 Y32.41
G1 F600 X41.20 Y36.89 E431.18793
G0 F12000 X41.20 Y36.23
G1 F600 X45.03 Y32.41 E431.39748
G0 F12000 X44.37 Y32.41
G1 F600 X41.20 Y35.57 E431.57091
G0 F12000 X41.20 Y34.91
G1 F600 X43.71 Y32.41 E431.70824
G0 F12000 X43.05 Y32.41
G1 F600 X41.20 Y34.25 E431.80945
G0 F12000 X41.20 Y33.59
G1 F600 X42.39 Y32.41 E431.87455
G1 F2400 E430.67455
G0 F12000 X70.44 Y33.21
;TYPE:SUPPORT
G1 F2400 E431.87455
G1 F600 X70.44 Y54.35 E432.69361
G0 F12000 X69.51 Y54.35
G1 F600 X69.51 Y45.77 E433.02595
G0 F12000 X68.58 Y46.82
G1 F600 X68.58 Y49.59 E433.13305
G0 F12000 X68.58 Y49.42
G0 X67.81 Y47.53
G0 X67.64 Y47.57
G1 F600 X67.64 Y47.34 E433.14180
G0 F12000 X67.73 Y47.49
G0 X69.27 Y49.37
G0 X71.37 Y54.18
G0 X71.37 Y54.35
G1 F600 X71.37 Y33.21 E433.96086
G0 F12000 X72.31 Y33.21
G1 F600 X72.31 Y54.35 E434.77992
G0 F12000 X73.24 Y54.35
G1 F600 X73.24 Y33.21 E435.59897
G0 F12000 X74.17 Y33.21
G1 F600 X74.17 Y54.35 E436.41803
G0 F12000 X75.11 Y54.35
G1 F600 X75.11 Y33.21 E437.23709
G0 F12000 X76.04 Y33.21
G1 F600 X76.04 Y54.35 E438.05614
G1 F2400 E436.85614
G0 F12000 X41.52 Y48.81
G1 F2400 E438.05614
G1 F600 X41.52 Y47.35 E438.11279
G0 F12000 X40.59 Y46.84
G1 F600 X40.59 Y49.74 E438.22505
G0 F12000 X40.59 Y49.57
G0 X39.50 Y45.88
G0 X39.65 Y45.80
G1 F600 X39.65 Y54.35 E438.55607
G0 F12000 X38.72 Y54.35
G1 F600 X38.72 Y33.21 E439.37513
G0 F12000 X37.79 Y33.21
G1 F600 X37.79 Y54.35 E440.19418
G0 F12000 X36.85 Y54.35
G1 F600 X36.85 Y33.21 E441.01324
G0 F12000 X35.92 Y33.21
G1 F600 X35.92 Y54.35 E441.83230
G0 F12000 X34.99 Y54.35
G1 F600 X34.99 Y33.21 E442.65135
G0 F12000 X34.05 Y33.21
G1 F600 X34.05 Y54.35 E443.47041
G0 F12000 X33.12 Y54.35
G1 F600 X33.12 Y33.21 E444.28947
G0 F12000 X33.12 Y33.38
G0 X32.50 Y41.25
G0 X32.26 Y41.29
G0 X32.19 Y41.14
G1 F600 X32.19 Y54.35 E444.80125
;LAYER:2
G1 F2400 E443.60125
G0 F12000 X41.42 Y45.20 Z0.70
;TYPE:WALL-INNER
G1 F2400 E444.80125
G1 F600 X41.27 Y45.01 E444.81086
G1 X41.14 Y44.78 E444.82088
G1 X41.07 Y44.55 E444.83048
G1 X41.04 Y44.25 E444.84220
G1 X41.04 Y33.58 E445.25560
G1 X41.07 Y33.28 E445.26716
G1 X41.15 Y33.04 E445.27706
G1 X41.27 Y32.81 E445.28694
G1 X41.42 Y32.62 E445.29641
G1 X41.62 Y32.46 E445.30621
G1 X41.84 Y32.34 E445.31583
G1 X42.08 Y32.27 E445.32570
G1 X42.38 Y32.24 E445.33738
G1 X66.76 Y32.24 E446.28213
G1 X67.06 Y32.27 E446.29385
G1 X67.30 Y32.34 E446.30353
G1 X67.52 Y32.46 E446.31332
G1 X67.72 Y32.62 E446.32301
G1 X67.88 Y32.81 E446.33270
G1 X68.00 Y33.04 E446.34249
G1 X68.07 Y33.28 E446.35217
G1 X68.10 Y33.58 E446.36389
G1 X68.10 Y44.25 E446.77729
G1 X68.07 Y44.55 E446.78897
G1 X68.00 Y44.79 E446.79872
G1 X67.88 Y45.01 E446.80848
G1 X67.72 Y45.21 E446.81831
G1 X67.53 Y45.36 E446.82772
G1 X67.30 Y45.48 E446.83760
G1 X67.06 Y45.55 E446.84749
G1 X66.76 Y45.58 E446.85906
G1 X42.38 Y45.58 E447.80381
G1 X42.08 Y45.55 E447.81553
G1 X41.84 Y45.48 E447.82525
G1 X41.61 Y45.36 E447.83513
G1 X41.42 Y45.20 E447.84466
G0 F12000 X41.09 Y45.53
G1 F600 X40.88 Y45.27 E447.85768
G1 X40.71 Y44.97 E447.87105
G1 X40.61 Y44.64 E447.88437
G1 X40.58 Y44.26 E447.89905
G1 X40.58 Y33.56 E448.31362
G1 X40.61 Y33.19 E448.32837
G1 X40.71 Y32.86 E448.34170
G1 X40.87 Y32.55 E448.35492
G1 X41.09 Y32.29 E448.36822
G1 X41.35 Y32.07 E448.38141
G1 X41.66 Y31.91 E448.39472
G1 X41.98 Y31.81 E448.40792
G1 X42.36 Y31.78 E448.42268
G1 X66.78 Y31.78 E449.36859
G1 X67.16 Y31.81 E449.38347
G1 X67.48 Y31.91 E449.39657
G1 X67.78 Y32.07 E449.40989
G1 X68.05 Y32.29 E449.42315
G1 X68.27 Y32.55 E449.43642
G1 X68.43 Y32.86 E449.44973
G1 X68.53 Y33.18 E449.46284
G1 X68.56 Y33.56 E449.47771
G1 X68.56 Y44.26 E449.89228
G1 X68.53 Y44.64 E449.90703
G1 X68.43 Y44.97 E449.92024
G1 X68.27 Y45.27 E449.93350
G1 X68.05 Y45.53 E449.94679
G1 X67.78 Y45.75 E449.96003
G1 X67.48 Y45.91 E449.97326
G1 X67.15 Y46.01 E449.98659
G1 X66.78 Y46.05 E450.00134
G1 X42.36 Y46.05 E450.94726
G1 X41.99 Y46.01 E450.96194
G1 X41.66 Y45.91 E450.97526
G1 X41.35 Y45.75 E450.98854
G1 X41.09 Y45.53 E451.00187
G0 F12000 X40.76 Y45.86
;TYPE:WALL-OUTER
G1 F600 X40.49 Y45.53 E451.01833
G1 X40.28 Y45.15 E451.03546
G1 X40.15 Y44.73 E451.05219
G1 X40.11 Y44.29 E451.06952
G1 X40.11 Y33.54 E451.48602
G1 X40.15 Y33.09 E451.50331
G1 X40.28 Y32.68 E451.52008
G1 X40.49 Y32.29 E451.53706
G1 X40.76 Y31.96 E451.55380
G1 X41.09 Y31.68 E451.57051
G1 X41.48 Y31.48 E451.58750
G1 X41.89 Y31.35 E451.60426
G1 X42.34 Y31.31 E451.62158
G1 X66.80 Y31.31 E452.56944
G1 X67.25 Y31.35 E452.58681
G1 X67.66 Y31.48 E452.60344
G1 X68.05 Y31.68 E452.62048
G1 X68.38 Y31.96 E452.63721
G1 X68.65 Y32.29 E452.65395
G1 X68.86 Y32.68 E452.67099
G1 X68.98 Y33.09 E452.68762
G1 X69.03 Y33.54 E452.70499
G1 X69.03 Y44.29 E453.12149
G1 X68.98 Y44.73 E453.13882
G1 X68.86 Y45.15 E453.15554
G1 X68.65 Y45.53 E453.17253
G1 X68.38 Y45.87 E453.18929
G1 X68.05 Y46.14 E453.20600
G1 X67.66 Y46.35 E453.22299
G1 X67.25 Y46.47 E453.23976
G1 X66.80 Y46.52 E453.25704
G1 X42.34 Y46.52 E454.20490
G1 X41.89 Y46.47 E454.22223
G1 X41.48 Y46.35 E454.23896
G1 X41.09 Y46.14 E454.25598
G1 X40.76 Y45.86 E454.27283
G0 F12000 X41.00 Y45.63
G0 X41.20 Y44.17
;TYPE:FILL
G1 F600 X42.45 Y45.42 E454.34124
G0 F12000 X43.11 Y45.42
G1 F600 X41.20 Y43.51 E454.44580
G0 F12000 X41.20 Y42.85
G1 F600 X43.77 Y45.42 E454.58646
G0 F12000 X44.43 Y45.42
G1 F600 X41.20 Y42.19 E454.76324
G0 F12000 X41.20 Y41.53
G1 F600 X45.09 Y45.42 E454.97613
G0 F12000 X45.75 Y45.42
G1 F600 X41.20 Y40.88 E455.22513
G0 F12000 X41.20 Y40.22
G1 F600 X46.41 Y45.42 E455.51025
G0 F12000 X47.07 Y45.42
G1 F600 X41.20 Y39.56 E455.83147
G0 F12000 X41.20 Y38.90
G1 F600 X47.73 Y45.42 E456.18881
G0 F12000 X48.38 Y45.42
G1 F600 X41.20 Y38.24 E456.58226
G0 F12000 X41.20 Y37.58
G1 F600 X49.04 Y45.42 E457.01182
G0 F12000 X49.70 Y45.42
G1 F600 X41.20 Y36.92 E457.47750
G0 F12000 X41.20 Y36.26
G1 F600 X50.36 Y45.42 E457.97928
G0 F12000 X51.02 Y45.42
G1 F600 X41.20 Y35.60 E458.51718
G0 F12000 X41.20 Y34.94
G1 F600 X51.68 Y45.42 E459.09119
G0 F12000 X52.34 Y45.42
G1 F600 X41.20 Y34.28 E459.70131
G0 F12000 X41.20 Y33.63
G1 F600 X53.00 Y45.42 E460.34754
G0 F12000 X53.66 Y45.42
G1 F600 X41.31 Y33.07 E461.02408
G0 F12000 X41.59 Y32.69
G1 F600 X54.32 Y45.42 E461.72139
G0 F12000 X54.98 Y45.42
G1 F600 X42.02 Y32.46 E462.43146
G0 F12000 X42.62 Y32.41
G1 F600 X55.63 Y45.42 E463.14460
G0 F12000 X56.29 Y45.42
G1 F600 X43.28 Y32.41 E463.85774
G0 F12000 X43.94 Y32.41
G1 F600 X56.95 Y45.42 E464.57088
G0 F12000 X57.61 Y45.42
G1 F600 X44.60 Y32.41 E465.28403
G0 F12000 X45.26 Y32.41
G1 F600 X58.27 Y45.42 E465.99717
G0 F12000 X58.93 Y45.42
G1 F600 X45.91 Y32.41 E466.71031
G0 F12000 X46.58 Y32.41
G1 F600 X59.59 Y45.42 E467.42342
G0 F12000 X60.25 Y45.42
G1 F600 X47.23 Y32.41 E468.13654
G0 F12000 X47.89 Y32.41
G1 F600 X60.91 Y45.42 E468.84965
G0 F12000 X61.56 Y45.42
G1 F600 X48.55 Y32.41 E469.56276
G0 F12000 X49.21 Y32.41
G1 F600 X62.22 Y45.42 E470.27588
G0 F12000 X62.88 Y45.42
G1 F600 X49.87 Y32.41 E470.98899
G0 F12000 X50.53 Y32.41
G1 F600 X63.54 Y45.42 E471.70211
G0 F12000 X64.20 Y45.42
G1 F600 X51.19 Y32.41 E472.41522
G0 F12000 X51.85 Y32.41
G1 F600 X64.86 Y45.42 E473.12834
G0 F12000 X65.52 Y45.42
G1 F600 X52.51 Y32.41 E473.84145
G0 F12000 X53.16 Y32.41
G1 F600 X66.18 Y45.42 E474.55456
G0 F12000 X66.83 Y45.41
G1 F600 X53.82 Y32.41 E475.26727
G0 F12000 X54.48 Y32.41
G1 F600 X67.35 Y45.27 E475.97213
G0 F12000 X67.70 Y44.96
G1 F600 X55.14 Y32.41 E476.66034
G0 F12000 X55.80 Y32.41
G1 F600 X67.90 Y44.51 E477.32359
G0 F12000 X67.93 Y43.88
G1 F600 X56.46 Y32.41 E477.95226
G0 F12000 X57.12 Y32.41
G1 F600 X67.93 Y43.22 E478.54482
G0 F12000 X67.93 Y42.56
G1 F600 X57.78 Y32.41 E479.10127
G0 F12000 X58.44 Y32.41
G1 F600 X67.93 Y41.90 E479.62160
G0 F12000 X67.93 Y41.24
G1 F600 X59.10 Y32.41 E480.10582
G0 F12000 X59.76 Y32.41
G1 F600 X67.93 Y40.58 E480.55391
G0 F12000 X67.93 Y39.92
G1 F600 X60.41 Y32.41 E480.96588
G0 F12000 X61.07 Y32.41
G1 F600 X67.93 Y39.26 E481.34174
G0 F12000 X67.93 Y38.60
G1 F600 X61.73 Y32.41 E481.68149
G0 F12000 X62.39 Y32.41
G1 F600 X67.93 Y37.95 E481.98512
G0 F12000 X67.93 Y37.29
G1 F600 X63.05 Y32.41 E482.25265
G0 F12000 X63.71 Y32.41
G1 F600 X67.93 Y36.63 E482.48406
G0 F12000 X67.93 Y35.97
G1 F600 X64.37 Y32.41 E482.67936
G0 F12000 X65.03 Y32.41
G1 F600 X67.93 Y35.31 E482.83855
G0 F12000 X67.93 Y34.65
G1 F600 X65.69 Y32.41 E482.96162
G0 F12000 X66.34 Y32.41
G1 F600 X67.93 Y33.99 E483.04859
G0 F12000 X67.90 Y33.30
G1 F600 X67.03 Y32.44 E483.09621
G1 F2400 E481.89621
G0 F12000 X38.72 Y33.21
;TYPE:SUPPORT
G1 F2400 E483.09621
G1 F600 X38.72 Y54.35 E483.91526
G0 F12000 X37.79 Y54.35
G1 F600 X37.79 Y33.21 E484.73432
G0 F12000 X36.85 Y33.21
G1 F600 X36.85 Y54.35 E485.55338
G0 F12000 X35.92 Y54.35
G1 F600 X35.92 Y33.21 E486.37243
G0 F12000 X34.99 Y33.21
G1 F600 X34.99 Y54.35 E487.19149
G0 F12000 X34.05 Y54.35
G1 F600 X34.05 Y33.21 E488.01055
G0 F12000 X33.12 Y33.21
G1 F600 X33.12 Y54.35 E488.82960
G0 F12000 X32.19 Y54.35
G1 F600 X32.19 Y41.14 E489.34139
G0 F12000 X32.26 Y41.29
G0 X39.50 Y45.88
G0 X39.65 Y45.80
G1 F600 X39.65 Y54.35 E489.67241
G0 F12000 X39.62 Y54.18
G0 X39.49 Y49.53
G0 X40.59 Y49.57
G0 X40.59 Y49.74
G1 F600 X40.59 Y46.84 E489.78466
G0 F12000 X41.52 Y47.35
G1 F600 X41.52 Y48.81 E489.84131
G1 F2400 E488.64131
G0 F12000 X67.64 Y47.57
G1 F2400 E489.84131
G1 F600 X67.64 Y47.34 E489.85007
G0 F12000 X68.58 Y46.82
G1 F600 X68.58 Y49.59 E489.95717
G0 F12000 X68.58 Y49.42
G0 X69.66 Y45.85
G0 X69.51 Y45.77
G1 F600 X69.51 Y54.35 E490.28951
G0 F12000 X70.44 Y54.35
G1 F600 X70.44 Y33.21 E491.10857
G0 F12000 X71.37 Y33.21
G1 F600 X71.37 Y54.35 E491.92762
G0 F12000 X72.31 Y54.35
G1 F600 X72.31 Y33.21 E492.74668
G0 F12000 X73.24 Y33.21
G1 F600 X73.24 Y54.35 E493.56574
G0 F12000 X74.17 Y54.35
G1 F600 X74.17 Y33.21 E494.38479
G0 F12000 X75.11 Y33.21
G1 F600 X75.11 Y54.35 E495.20385
G0 F12000 X76.04 Y54.35
G1 F600 X76.04 Y33.21 E496.02291
;LAYER:3
G1 F2400 E494.82291
G0 F12000 X68.10 Y33.58 Z0.90
;TYPE:WALL-INNER
G1 F2400 E496.02291
G1 F600 X68.10 Y44.25 E496.43631
G1 X68.07 Y44.55 E496.44799
G1 X68.00 Y44.79 E496.45774
G1 X67.88 Y45.01 E496.46750
G1 X67.72 Y45.21 E496.47733
G1 X67.53 Y45.36 E496.48674
G1 X67.30 Y45.48 E496.49662
G1 X67.06 Y45.55 E496.50652
G1 X66.76 Y45.58 E496.51808
G1 X42.38 Y45.58 E497.46283
G1 X42.08 Y45.55 E497.47455
G1 X41.84 Y45.48 E497.48427
G1 X41.61 Y45.36 E497.49416
G1 X41.42 Y45.20 E497.50368
G1 X41.27 Y45.01 E497.51329
G1 X41.14 Y44.78 E497.52331
G1 X41.07 Y44.55 E497.53291
G1 X41.04 Y44.25 E497.54463
G1 X41.04 Y33.58 E497.95803
G1 X41.07 Y33.28 E497.96960
G1 X41.15 Y33.04 E497.97949
G1 X41.27 Y32.81 E497.98937
G1 X41.42 Y32.62 E497.99884
G1 X41.62 Y32.46 E498.00864
G1 X41.84 Y32.34 E498.01826
G1 X42.08 Y32.27 E498.02813
G1 X42.38 Y32.24 E498.03981
G1 X66.76 Y32.24 E498.98456
G1 X67.06 Y32.27 E498.99629
G1 X67.30 Y32.34 E499.00596
G1 X67.52 Y32.46 E499.01575
G1 X67.72 Y32.62 E499.02544
G1 X67.88 Y32.81 E499.03513
G1 X68.00 Y33.04 E499.04492
G1 X68.07 Y33.28 E499.05460
G1 X68.10 Y33.58 E499.06632
G0 F12000 X68.56 Y33.56
G1 F600 X68.56 Y44.26 E499.48088
G1 X68.53 Y44.64 E499.49564
G1 X68.43 Y44.97 E499.50884
G1 X68.27 Y45.27 E499.52210
G1 X68.05 Y45.53 E499.53540
G1 X67.78 Y45.75 E499.54864
G1 X67.48 Y45.91 E499.56186
G1 X67.15 Y46.01 E499.57519
G1 X66.78 Y46.05 E499.58994
G1 X42.36 Y46.05 E500.53586
G1 X41.99 Y46.01 E500.55054
G1 X41.66 Y45.91 E500.56386
G1 X41.35 Y45.75 E500.57714
G1 X41.09 Y45.53 E500.59047
G1 X40.88 Y45.27 E500.60349
G1 X40.71 Y44.97 E500.61686
G1 X40.61 Y44.64 E500.63018
G1 X40.58 Y44.26 E500.64486
G1 X40.58 Y33.56 E501.05943
G1 X40.61 Y33.19 E501.07418
G1 X40.71 Y32.86 E501.08751
G1 X40.87 Y32.55 E501.10073
G1 X41.09 Y32.29 E501.11403
G1 X41.35 Y32.07 E501.12722
G1 X41.66 Y31.91 E501.14053
G1 X41.98 Y31.81 E501.15373
G1 X42.36 Y31.78 E501.16849
G1 X66.78 Y31.78 E502.11440
G1 X67.16 Y31.81 E502.12928
G1 X67.48 Y31.91 E502.14238
G1 X67.78 Y32.07 E502.15570
G1 X68.05 Y32.29 E502.16896
G1 X68.27 Y32.55 E502.18223
G1 X68.43 Y32.86 E502.19554
G1 X68.53 Y33.18 E502.20865
G1 X68.56 Y33.56 E502.22352
G0 F12000 X69.03 Y33.54
;TYPE:WALL-OUTER
G1 F600 X69.03 Y44.29 E502.64003
G1 X68.98 Y44.73 E502.65735
G1 X68.86 Y45.15 E502.67407
G1 X68.65 Y45.53 E502.69106
G1 X68.38 Y45.87 E502.70782
G1 X68.05 Y46.14 E502.72453
G1 X67.66 Y46.35 E502.74152
G1 X67.25 Y46.47 E502.75829
G1 X66.80 Y46.52 E502.77558
G1 X42.34 Y46.52 E503.72343
G1 X41.89 Y46.47 E503.74076
G1 X41.48 Y46.35 E503.75749
G1 X41.09 Y46.14 E503.77451
G1 X40.76 Y45.86 E503.79136
G1 X40.49 Y45.53 E503.80783
G1 X40.28 Y45.15 E503.82495
G1 X40.15 Y44.73 E503.84169
G1 X40.11 Y44.29 E503.85901
G1 X40.11 Y33.54 E504.27552
G1 X40.15 Y33.09 E504.29280
G1 X40.28 Y32.68 E504.30957
G1 X40.49 Y32.29 E504.32656
G1 X40.76 Y31.96 E504.34330
G1 X41.09 Y31.68 E504.36001
G1 X41.48 Y31.48 E504.37700
G1 X41.89 Y31.35 E504.39375
G1 X42.34 Y31.31 E504.41108
G1 X66.80 Y31.31 E505.35894
G1 X67.25 Y31.35 E505.37630
G1 X67.66 Y31.48 E505.39294
G1 X68.05 Y31.68 E505.40998
G1 X68.38 Y31.96 E505.42671
G1 X68.65 Y32.29 E505.44344
G1 X68.86 Y32.68 E505.46048
G1 X68.98 Y33.09 E505.47712
G1 X69.03 Y33.54 E505.49448
G0 F12000 X67.93 Y33.89
;TYPE:FILL
G1 F600 X56.40 Y45.42 E506.12647
G0 F12000 X57.06 Y45.42
G1 F600 X67.93 Y34.55 E506.72234
G0 F12000 X67.93 Y35.20
G1 F600 X57.72 Y45.42 E507.28211
G0 F12000 X58.38 Y45.42
G1 F600 X67.93 Y35.86 E507.80576
G0 F12000 X67.93 Y36.52
G1 F600 X59.03 Y45.42 E508.29329
G0 F12000 X59.69 Y45.42
G1 F600 X67.93 Y37.18 E508.74472
G0 F12000 X67.93 Y37.84
G1 F600 X60.35 Y45.42 E509.16003
G0 F12000 X61.01 Y45.42
G1 F600 X67.93 Y38.50 E509.53924
G0 F12000 X67.93 Y39.16
G1 F600 X61.67 Y45.42 E509.88233
G0 F12000 X62.33 Y45.42
G1 F600 X67.93 Y39.82 E510.18931
G0 F12000 X67.93 Y40.48
G1 F600 X62.99 Y45.42 E510.46017
G0 F12000 X63.65 Y45.42
G1 F600 X67.93 Y41.13 E510.69493
G0 F12000 X67.93 Y41.79
G1 F600 X64.31 Y45.42 E510.89357
G0 F12000 X64.97 Y45.42
G1 F600 X67.93 Y42.45 E511.05610
G0 F12000 X67.93 Y43.11
G1 F600 X65.62 Y45.42 E511.18249
G0 F12000 X66.28 Y45.42
G1 F600 X67.93 Y43.77 E511.27277
G0 F12000 X67.91 Y44.45
G1 F600 X66.96 Y45.40 E511.32467
G0 F12000 X55.74 Y45.42
G1 F600 X67.89 Y33.27 E511.99052
G0 F12000 X67.67 Y32.83
G1 F600 X55.08 Y45.42 E512.68048
G0 F12000 X54.42 Y45.42
G1 F600 X67.31 Y32.53 E513.38661
G0 F12000 X66.77 Y32.41
G1 F600 X53.76 Y45.42 E514.09958
G0 F12000 X53.10 Y45.42
G1 F600 X66.12 Y32.41 E514.81272
G0 F12000 X65.46 Y32.41
G1 F600 X52.45 Y45.42 E515.52584
G0 F12000 X51.79 Y45.42
G1 F600 X64.80 Y32.41 E516.23895
G0 F12000 X64.14 Y32.41
G1 F600 X51.13 Y45.42 E516.95207
G0 F12000 X50.47 Y45.42
G1 F600 X63.48 Y32.41 E517.66518
G0 F12000 X62.82 Y32.41
G1 F600 X49.81 Y45.42 E518.37830
G0 F12000 X49.15 Y45.42
G1 F600 X62.16 Y32.41 E519.09141
G0 F12000 X61.50 Y32.41
G1 F600 X48.49 Y45.42 E519.80452
G0 F12000 X47.83 Y45.42
G1 F600 X60.84 Y32.41 E520.51764
G0 F12000 X60.19 Y32.41
G1 F600 X47.17 Y45.42 E521.23075
G0 F12000 X46.51 Y45.42
G1 F600 X59.53 Y32.41 E521.94387
G0 F12000 X58.87 Y32.41
G1 F600 X45.85 Y45.42 E522.65698
G0 F12000 X45.20 Y45.42
G1 F600 X58.21 Y32.41 E523.37009
G0 F12000 X57.55 Y32.41
G1 F600 X44.54 Y45.42 E524.08321
G0 F12000 X43.88 Y45.42
G1 F600 X56.89 Y32.41 E524.79632
G0 F12000 X56.23 Y32.41
G1 F600 X43.22 Y45.42 E525.50944
G0 F12000 X42.56 Y45.42
G1 F600 X55.57 Y32.41 E526.22255
G0 F12000 X54.91 Y32.41
G1 F600 X41.97 Y45.35 E526.93183
G0 F12000 X41.56 Y45.10
G1 F600 X54.26 Y32.41 E527.62768
G0 F12000 X53.60 Y32.41
G1 F600 X41.29 Y44.71 E528.30192
G0 F12000 X41.20 Y44.14
G1 F600 X52.94 Y32.41 E528.94481
G0 F12000 X52.28 Y32.41
G1 F600 X41.20 Y43.48 E529.55159
G0 F12000 X41.20 Y42.82
G1 F600 X51.62 Y32.41 E530.12225
G0 F12000 X50.96 Y32.41
G1 F600 X41.20 Y42.16 E530.65681
G0 F12000 X41.20 Y41.50
G1 F600 X50.30 Y32.41 E531.15525
G0 F12000 X49.64 Y32.41
G1 F600 X41.20 Y40.84 E531.61758
G0 F12000 X41.20 Y40.18
G1 F600 X48.98 Y32.41 E532.04380
G0 F12000 X48.32 Y32.41
G1 F600 X41.20 Y39.52 E532.43391
G0 F12000 X41.20 Y38.87
G1 F600 X47.66 Y32.41 E532.78790
G0 F12000 X47.01 Y32.41
G1 F600 X41.20 Y38.21 E533.10579
G0 F12000 X41.20 Y37.55
G1 F600 X46.35 Y32.41 E533.38756
G0 F12000 X45.69 Y32.41
G1 F600 X41.20 Y36.89 E533.63322
G0 F12000 X41.20 Y36.23
G1 F600 X45.03 Y32.41 E533.84276
G0 F12000 X44.37 Y32.41
G1 F600 X41.20 Y35.57 E534.01620
G0 F12000 X41.20 Y34.91
G1 F600 X43.71 Y32.41 E534.15352
G0 F12000 X43.05 Y32.41
G1 F600 X41.20 Y34.25 E534.25474
G0 F12000 X41.20 Y33.59
G1 F600 X42.39 Y32.41 E534.31984
G1 F2400 E533.11984
G0 F12000 X70.44 Y33.21
;TYPE:SUPPORT
G1 F2400 E534.31984
G1 F600 X70.44 Y54.35 E535.13889
G0 F12000 X69.51 Y54.35
G1 F600 X69.51 Y45.77 E535.47123
G0 F12000 X68.58 Y46.82
G1 F600 X68.58 Y49.59 E535.57833
G0 F12000 X68.58 Y49.42
G0 X67.81 Y47.53
G0 X67.64 Y47.57
G1 F600 X67.64 Y47.34 E535.58709
G0 F12000 X67.73 Y47.49
G0 X69.27 Y49.37
G0 X71.37 Y54.18
G0 X71.37 Y54.35
G1 F600 X71.37 Y33.21 E536.40615
G0 F12000 X72.31 Y33.21
G1 F600 X72.31 Y54.35 E537.22520
G0 F12000 X73.24 Y54.35
G1 F600 X73.24 Y33.21 E538.04426
G0 F12000 X74.17 Y33.21
G1 F600 X74.17 Y54.35 E538.86332
G0 F12000 X75.11 Y54.35
G1 F600 X75.11 Y33.21 E539.68237
G0 F12000 X76.04 Y33.21
G1 F600 X76.04 Y54.35 E540.50143
G1 F2400 E539.30143
G0 F12000 X41.52 Y48.81
G1 F2400 E540.50143
G1 F600 X41.52 Y47.35 E540.55808
G0 F12000 X40.59 Y46.84
G1 F600 X40.59 Y49.74 E540.67033
G0 F12000 X40.59 Y49.57
G0 X39.50 Y45.88
G0 X39.65 Y45.80
G1 F600 X39.65 Y54.35 E541.00136
G0 F12000 X38.72 Y54.35
G1 F600 X38.72 Y33.21 E541.82041
G0 F12000 X37.79 Y33.21
G1 F600 X37.79 Y54.35 E542.63947
G0 F12000 X36.85 Y54.35
G1 F600 X36.85 Y33.21 E543.45853
G0 F12000 X35.92 Y33.21
G1 F600 X35.92 Y54.35 E544.27758
G0 F12000 X34.99 Y54.35
G1 F600 X34.99 Y33.21 E545.09664
G0 F12000 X34.05 Y33.21
G1 F600 X34.05 Y54.35 E545.91570
G0 F12000 X33.12 Y54.35
G1 F600 X33.12 Y33.21 E546.73475
G0 F12000 X33.12 Y33.38
G0 X32.50 Y41.25
G0 X32.26 Y41.29
G0 X32.19 Y41.14
G1 F600 X32.19 Y54.35 E547.24654
;LAYER:4
G1 F2400 E546.04654
G0 F12000 X41.42 Y45.20 Z1.10
;TYPE:WALL-INNER
G1 F2400 E547.24654
G1 F600 X41.27 Y45.01 E547.25615
G1 X41.14 Y44.78 E547.26617
G1 X41.07 Y44.55 E547.27576
G1 X41.04 Y44.25 E547.28749
G1 X41.04 Y33.58 E547.70089
G1 X41.07 Y33.28 E547.71245
G1 X41.15 Y33.04 E547.72234
G1 X41.27 Y32.81 E547.73222
G1 X41.42 Y32.62 E547.74169
G1 X41.62 Y32.46 E547.75149
G1 X41.84 Y32.34 E547.76111
G1 X42.08 Y32.27 E547.77098
G1 X42.38 Y32.24 E547.78266
G1 X66.76 Y32.24 E548.72742
G1 X67.06 Y32.27 E548.73914
G1 X67.30 Y32.34 E548.74881
G1 X67.52 Y32.46 E548.75861
G1 X67.72 Y32.62 E548.76830
G1 X67.88 Y32.81 E548.77799
G1 X68.00 Y33.04 E548.78778
G1 X68.07 Y33.28 E548.79745
G1 X68.10 Y33.58 E548.80917
G1 X68.10 Y44.25 E549.22258
G1 X68.07 Y44.55 E549.23426
G1 X68.00 Y44.79 E549.24400
G1 X67.88 Y45.01 E549.25376
G1 X67.72 Y45.21 E549.26359
G1 X67.53 Y45.36 E549.27301
G1 X67.30 Y45.48 E549.28289
G1 X67.06 Y45.55 E549.29278
G1 X66.76 Y45.58 E549.30434
G1 X42.38 Y45.58 E550.24910
G1 X42.08 Y45.55 E550.26082
G1 X41.84 Y45.48 E550.27054
G1 X41.61 Y45.36 E550.28042
G1 X41.42 Y45.20 E550.28995
G0 F12000 X41.09 Y45.53
G1 F600 X40.88 Y45.27 E550.30297
G1 X40.71 Y44.97 E550.31634
G1 X40.61 Y44.64 E550.32966
G1 X40.58 Y44.26 E550.34434
G1 X40.58 Y33.56 E550.75890
G1 X40.61 Y33.19 E550.77366
G1 X40.71 Y32.86 E550.78698
G1 X40.87 Y32.55 E550.80021
G1 X41.09 Y32.29 E550.81351
G1 X41.35 Y32.07 E550.82669
G1 X41.66 Y31.91 E550.84001
G1 X41.98 Y31.81 E550.85321
G1 X42.36 Y31.78 E550.86796
G1 X66.78 Y31.78 E551.81388
G1 X67.16 Y31.81 E551.82876
G1 X67.48 Y31.91 E551.84186
G1 X67.78 Y32.07 E551.85517
G1 X68.05 Y32.29 E551.86844
G1 X68.27 Y32.55 E551.88171
G1 X68.43 Y32.86 E551.89502
G1 X68.53 Y33.18 E551.90812
G1 X68.56 Y33.56 E551.92300
G1 X68.56 Y44.26 E552.33757
G1 X68.53 Y44.64 E552.35232
G1 X68.43 Y44.97 E552.36552
G1 X68.27 Y45.27 E552.37878
G1 X68.05 Y45.53 E552.39208
G1 X67.78 Y45.75 E552.40532
G1 X67.48 Y45.91 E552.41855
G1 X67.15 Y46.01 E552.43187
G1 X66.78 Y46.05 E552.44663
G1 X42.36 Y46.05 E553.39254
G1 X41.99 Y46.01 E553.40722
G1 X41.66 Y45.91 E553.42055
G1 X41.35 Y45.75 E553.43383
G1 X41.09 Y45.53 E553.44715
G0 F12000 X40.76 Y45.86
;TYPE:WALL-OUTER
G1 F600 X40.49 Y45.53 E553.46362
G1 X40.28 Y45.15 E553.48075
G1 X40.15 Y44.73 E553.49748
G1 X40.11 Y44.29 E553.51480
G1 X40.11 Y33.54 E553.93131
G1 X40.15 Y33.09 E553.94859
G1 X40.28 Y32.68 E553.96536
G1 X40.49 Y32.29 E553.98235
G1 X40.76 Y31.96 E553.99909
G1 X41.09 Y31.68 E554.01580
G1 X41.48 Y31.48 E554.03279
G1 X41.89 Y31.35 E554.04954
G1 X42.34 Y31.31 E554.06687
G1 X66.80 Y31.31 E555.01473
G1 X67.25 Y31.35 E555.03209
G1 X67.66 Y31.48 E555.04873
G1 X68.05 Y31.68 E555.06577
G1 X68.38 Y31.96 E555.08250
G1 X68.65 Y32.29 E555.09923
G1 X68.86 Y32.68 E555.11627
G1 X68.98 Y33.09 E555.13291
G1 X69.03 Y33.54 E555.15027
G1 X69.03 Y44.29 E555.56678
G1 X68.98 Y44.73 E555.58410
G1 X68.86 Y45.15 E555.60082
G1 X68.65 Y45.53 E555.61781
G1 X68.38 Y45.87 E555.63458
G1 X68.05 Y46.14 E555.65129
G1 X67.66 Y46.35 E555.66827
G1 X67.25 Y46.47 E555.68504
G1 X66.80 Y46.52 E555.70233
G1 X42.34 Y46.52 E556.65019
G1 X41.89 Y46.47 E556.66751
G1 X41.48 Y46.35 E556.68424
G1 X41.09 Y46.14 E556.70126
G1 X40.76 Y45.86 E556.71811
G0 F12000 X41.00 Y45.63
G0 X41.20 Y44.17
;TYPE:FILL
G1 F600 X42.45 Y45.42 E556.78653
G0 F12000 X43.11 Y45.42
G1 F600 X41.20 Y43.51 E556.89108
G0 F12000 X41.20 Y42.85
G1 F600 X43.77 Y45.42 E557.03175
G0 F12000 X44.43 Y45.42
G1 F600 X41.20 Y42.19 E557.20853
G0 F12000 X41.20 Y41.53
G1 F600 X45.09 Y45.42 E557.42142
G0 F12000 X45.75 Y45.42
G1 F600 X41.20 Y40.88 E557.67042
G0 F12000 X41.20 Y40.22
G1 F600 X46.41 Y45.42 E557.95554
G0 F12000 X47.07 Y45.42
G1 F600 X41.20 Y39.56 E558.27676
G0 F12000 X41.20 Y38.90
G1 F600 X47.73 Y45.42 E558.63410
G0 F12000 X48.38 Y45.42
G1 F600 X41.20 Y38.24 E559.02755
G0 F12000 X41.20 Y37.58
G1 F600 X49.04 Y45.42 E559.45711
G0 F12000 X49.70 Y45.42
G1 F600 X41.20 Y36.92 E559.92278
G0 F12000 X41.20 Y36.26
G1 F600 X50.36 Y45.42 E560.42457
G0 F12000 X51.02 Y45.42
G1 F600 X41.20 Y35.60 E560.96247
G0 F12000 X41.20 Y34.94
G1 F600 X51.68 Y45.42 E561.53648
G0 F12000 X52.34 Y45.42
G1 F600 X41.20 Y34.28 E562.14660
G0 F12000 X41.20 Y33.63
G1 F600 X53.00 Y45.42 E562.79283
G0 F12000 X53.66 Y45.42
G1 F600 X41.31 Y33.07 E563.46937
G0 F12000 X41.59 Y32.69
G1 F600 X54.32 Y45.42 E564.16667
G0 F12000 X54.98 Y45.42
G1 F600 X42.02 Y32.46 E564.87675
G0 F12000 X42.62 Y32.41
G1 F600 X55.63 Y45.42 E565.58989
G0 F12000 X56.29 Y45.42
G1 F600 X43.28 Y32.41 E566.30303
G0 F12000 X43.94 Y32.41
G1 F600 X56.95 Y45.42 E567.01617
G0 F12000 X57.61 Y45.42
G1 F600 X44.60 Y32.41 E567.72931
G0 F12000 X45.26 Y32.41
G1 F600 X58.27 Y45.42 E568.44245
G0 F12000 X58.93 Y45.42
G1 F600 X45.91 Y32.41 E569.15559
G0 F12000 X46.58 Y32.41
G1 F600 X59.59 Y45.42 E569.86871
G0 F12000 X60.25 Y45.42
G1 F600 X47.23 Y32.41 E570.58182
G0 F12000 X47.89 Y32.41
G1 F600 X60.91 Y45.42 E571.29494
G0 F12000 X61.56 Y45.42
G1 F600 X48.55 Y32.41 E572.00805
G0 F12000 X49.21 Y32.41
G1 F600 X62.22 Y45.42 E572.72117
G0 F12000 X62.88 Y45.42
G1 F600 X49.87 Y32.41 E573.43428
G0 F12000 X50.53 Y32.41
G1 F600 X63.54 Y45.42 E574.14739
G0 F12000 X64.20 Y45.42
G1 F600 X51.19 Y32.41 E574.86051
G0 F12000 X51.85 Y32.41
G1 F600 X64.86 Y45.42 E575.57362
G0 F12000 X65.52 Y45.42
G1 F600 X52.51 Y32.41 E576.28674
G0 F12000 X53.16 Y32.41
G1 F600 X66.18 Y45.42 E576.99985
G0 F12000 X66.83 Y45.41
G1 F600 X53.82 Y32.41 E577.71255
G0 F12000 X54.48 Y32.41
G1 F600 X67.35 Y45.27 E578.41742
G0 F12000 X67.70 Y44.96
G1 F600 X55.14 Y32.41 E579.10563
G0 F12000 X55.80 Y32.41
G1 F600 X67.90 Y44.51 E579.76888
G0 F12000 X67.93 Y43.88
G1 F600 X56.46 Y32.41 E580.39755
G0 F12000 X57.12 Y32.41
G1 F600 X67.93 Y43.22 E580.99011
G0 F12000 X67.93 Y42.56
G1 F600 X57.78 Y32.41 E581.54655
G0 F12000 X58.44 Y32.41
G1 F600 X67.93 Y41.90 E582.06689
G0 F12000 X67.93 Y41.24
G1 F600 X59.10 Y32.41 E582.55111
G0 F12000 X59.76 Y32.41
G1 F600 X67.93 Y40.58 E582.99919
G0 F12000 X67.93 Y39.92
G1 F600 X60.41 Y32.41 E583.41116
G0 F12000 X61.07 Y32.41
G1 F600 X67.93 Y39.26 E583.78702
G0 F12000 X67.93 Y38.60
G1 F600 X61.73 Y32.41 E584.12677
G0 F12000 X62.39 Y32.41
G1 F600 X67.93 Y37.95 E584.43041
G0 F12000 X67.93 Y37.29
G1 F600 X63.05 Y32.41 E584.69793
G0 F12000 X63.71 Y32.41
G1 F600 X67.93 Y36.63 E584.92934
G0 F12000 X67.93 Y35.97
G1 F600 X64.37 Y32.41 E585.12464
G0 F12000 X65.03 Y32.41
G1 F600 X67.93 Y35.31 E585.28383
G0 F12000 X67.93 Y34.65
G1 F600 X65.69 Y32.41 E585.40691
G0 F12000 X66.34 Y32.41
G1 F600 X67.93 Y33.99 E585.49387
G0 F12000 X67.90 Y33.30
G1 F600 X67.03 Y32.44 E585.54149
G1 F2400 E584.34149
G0 F12000 X38.72 Y33.21
;TYPE:SUPPORT
G1 F2400 E585.54149
G1 F600 X38.72 Y54.35 E586.36055
G0 F12000 X37.79 Y54.35
G1 F600 X37.79 Y33.21 E587.17961
G0 F12000 X36.85 Y33.21
G1 F600 X36.85 Y54.35 E587.99866
G0 F12000 X35.92 Y54.35
G1 F600 X35.92 Y33.21 E588.81772
G0 F12000 X34.99 Y33.21
G1 F600 X34.99 Y54.35 E589.63677
G0 F12000 X34.05 Y54.35
G1 F600 X34.05 Y33.21 E590.45583
G0 F12000 X33.12 Y33.21
G1 F600 X33.12 Y54.35 E591.27489
G0 F12000 X32.19 Y54.35
G1 F600 X32.19 Y41.14 E591.78667
G0 F12000 X32.26 Y41.29
G0 X39.50 Y45.88
G0 X39.65 Y45.80
G1 F600 X39.65 Y54.35 E592.11770
G0 F12000 X39.62 Y54.18
G0 X39.49 Y49.53
G0 X40.59 Y49.57
G0 X40.59 Y49.74
G1 F600 X40.59 Y46.84 E592.22995
G0 F12000 X41.52 Y47.35
G1 F600 X41.52 Y48.81 E592.28660
G1 F2400 E591.08660
G0 F12000 X67.64 Y47.57
G1 F2400 E592.28660
G1 F600 X67.64 Y47.34 E592.29536
G0 F12000 X68.58 Y46.82
G1 F600 X68.58 Y49.59 E592.40246
G0 F12000 X68.58 Y49.42
G0 X69.66 Y45.85
G0 X69.51 Y45.77
G1 F600 X69.51 Y54.35 E592.73480
G0 F12000 X70.44 Y54.35
G1 F600 X70.44 Y33.21 E593.55385
G0 F12000 X71.37 Y33.21
G1 F600 X71.37 Y54.35 E594.37291
G0 F12000 X72.31 Y54.35
G1 F600 X72.31 Y33.21 E595.19197
G0 F12000 X73.24 Y33.21
G1 F600 X73.24 Y54.35 E596.01102
G0 F12000 X74.17 Y54.35
G1 F600 X74.17 Y33.21 E596.83008
G0 F12000 X75.11 Y33.21
G1 F600 X75.11 Y54.35 E597.64914
G0 F12000 X76.04 Y54.35
G1 F600 X76.04 Y33.21 E598.46819
;LAYER:5
G1 F2400 E597.26819
G0 F12000 X68.10 Y33.58 Z1.30
;TYPE:WALL-INNER
G1 F2400 E598.46819
G1 F600 X68.10 Y44.25 E598.88160
G1 X68.07 Y44.55 E598.89328
G1 X68.00 Y44.79 E598.90302
G1 X67.88 Y45.01 E598.91278
G1 X67.72 Y45.21 E598.92261
G1 X67.53 Y45.36 E598.93203
G1 X67.30 Y45.48 E598.94191
G1 X67.06 Y45.55 E598.95180
G1 X66.76 Y45.58 E598.96336
G1 X42.38 Y45.58 E599.90812
G1 X42.08 Y45.55 E599.91984
G1 X41.84 Y45.48 E599.92956
G1 X41.61 Y45.36 E599.93944
G1 X41.42 Y45.20 E599.94897
G1 X41.27 Y45.01 E599.95858
G1 X41.14 Y44.78 E599.96860
G1 X41.07 Y44.55 E599.97820
G1 X41.04 Y44.25 E599.98992
G1 X41.04 Y33.58 E600.40332
G1 X41.07 Y33.28 E600.41488
G1 X41.15 Y33.04 E600.42477
G1 X41.27 Y32.81 E600.43465
G1 X41.42 Y32.62 E600.44413
G1 X41.62 Y32.46 E600.45392
G1 X41.84 Y32.34 E600.46354
G1 X42.08 Y32.27 E600.47341
G1 X42.38 Y32.24 E600.48510
G1 X66.76 Y32.24 E601.42985
G1 X67.06 Y32.27 E601.44157
G1 X67.30 Y32.34 E601.45124
G1 X67.52 Y32.46 E601.46104
G1 X67.72 Y32.62 E601.47073
G1 X67.88 Y32.81 E601.48042
G1 X68.00 Y33.04 E601.49021
G1 X68.07 Y33.28 E601.49988
G1 X68.10 Y33.58 E601.51160
G0 F12000 X68.56 Y33.56
G1 F600 X68.56 Y44.26 E601.92617
G1 X68.53 Y44.64 E601.94092
G1 X68.43 Y44.97 E601.95413
G1 X68.27 Y45.27 E601.96739
G1 X68.05 Y45.53 E601.98068
G1 X67.78 Y45.75 E601.99392
G1 X67.48 Y45.91 E602.00715
G1 X67.15 Y46.01 E602.02048
G1 X66.78 Y46.05 E602.03523
G1 X42.36 Y46.05 E602.98115
G1 X41.99 Y46.01 E602.99583
G1 X41.66 Y45.91 E603.00915
G1 X41.35 Y45.75 E603.02243
G1 X41.09 Y45.53 E603.03576
G1 X40.88 Y45.27 E603.04878
G1 X40.71 Y44.97 E603.06215
G1 X40.61 Y44.64 E603.07547
G1 X40.58 Y44.26 E603.09015
G1 X40.58 Y33.56 E603.50471
G1 X40.61 Y33.19 E603.51947
G1 X40.71 Y32.86 E603.53279
G1 X40.87 Y32.55 E603.54602
G1 X41.09 Y32.29 E603.55931
G1 X41.35 Y32.07 E603.57250
G1 X41.66 Y31.91 E603.58582
G1 X41.98 Y31.81 E603.59902
G1 X42.36 Y31.78 E603.61377
G1 X66.78 Y31.78 E604.55969
G1 X67.16 Y31.81 E604.57456
G1 X67.48 Y31.91 E604.58767
G1 X67.78 Y32.07 E604.60098
G1 X68.05 Y32.29 E604.61425
G1 X68.27 Y32.55 E604.62752
G1 X68.43 Y32.86 E604.64083
G1 X68.53 Y33.18 E604.65393
G1 X68.56 Y33.56 E604.66881
G0 F12000 X69.03 Y33.54
;TYPE:WALL-OUTER
G1 F600 X69.03 Y44.29 E605.08531
G1 X68.98 Y44.73 E605.10264
G1 X68.86 Y45.15 E605.11936
G1 X68.65 Y45.53 E605.13635
G1 X68.38 Y45.87 E605.15311
G1 X68.05 Y46.14 E605.16982
G1 X67.66 Y46.35 E605.18681
G1 X67.25 Y46.47 E605.20358
G1 X66.80 Y46.52 E605.22086
G1 X42.34 Y46.52 E606.16872
G1 X41.89 Y46.47 E606.18605
G1 X41.48 Y46.35 E606.20278
G1 X41.09 Y46.14 E606.21980
G1 X40.76 Y45.86 E606.23665
G1 X40.49 Y45.53 E606.25311
G1 X40.28 Y45.15 E606.27024
G1 X40.15 Y44.73 E606.28697
G1 X40.11 Y44.29 E606.30430
G1 X40.11 Y33.54 E606.72080
G1 X40.15 Y33.09 E606.73809
G1 X40.28 Y32.68 E606.75486
G1 X40.49 Y32.29 E606.77185
G1 X40.76 Y31.96 E606.78859
G1 X41.09 Y31.68 E606.80530
G1 X41.48 Y31.48 E606.82228
G1 X41.89 Y31.35 E606.83904
G1 X42.34 Y31.31 E606.85637
G1 X66.80 Y31.31 E607.80422
G1 X67.25 Y31.35 E607.82159
G1 X67.66 Y31.48 E607.83822
G1 X68.05 Y31.68 E607.85526
G1 X68.38 Y31.96 E607.87200
G1 X68.65 Y32.29 E607.88873
G1 X68.86 Y32.68 E607.90577
G1 X68.98 Y33.09 E607.92240
G1 X69.03 Y33.54 E607.93977
G0 F12000 X67.93 Y33.93
;TYPE:FILL
G1 F600 X65.67 Y36.20 E608.06372
G0 F12000 X66.27 Y36.20
G1 F600 X57.06 Y45.42 E608.56880
G0 F12000 X56.85 Y45.02
G1 F600 X56.45 Y45.42 E608.59080
G0 F12000 X56.40 Y45.42
G1 F600 X66.27 Y35.54 E609.13198
G0 F12000 X66.27 Y34.88
G1 F600 X55.74 Y45.42 E609.70928
G0 F12000 X55.08 Y45.42
G1 F600 X66.27 Y34.23 E610.32269
G0 F12000 X65.67 Y34.26
G1 F600 X67.36 Y32.56 E610.41544
G0 F12000 X66.27 Y32.91
G1 F600 X53.76 Y45.42 E611.10107
G0 F12000 X54.42 Y45.42
G1 F600 X66.27 Y33.57 E611.75059
G0 F12000 X66.12 Y32.41
G1 F600 X53.10 Y45.42 E612.46379
G0 F12000 X52.97 Y45.02
G1 F600 X52.56 Y45.42 E612.48581
G0 F12000 X52.44 Y45.42
G1 F600 X65.46 Y32.41 E613.19898
G0 F12000 X65.58 Y32.41
G1 F600 X65.15 Y32.84 E613.22255
G0 F12000 X64.80 Y32.41
G1 F600 X51.78 Y45.42 E613.93572
G0 F12000 X51.13 Y45.42
G1 F600 X64.14 Y32.41 E614.64888
G0 F12000 X63.64 Y32.41
G1 F600 X63.21 Y32.84 E614.67242
G0 F12000 X63.48 Y32.41
G1 F600 X50.47 Y45.42 E615.38559
G0 F12000 X50.62 Y45.42
G1 F600 X51.03 Y45.02 E615.40759
G0 F12000 X49.81 Y45.42
G1 F600 X62.82 Y32.41 E616.12076
G0 F12000 X62.16 Y32.41
G1 F600 X49.15 Y45.42 E616.83393
G0 F12000 X49.09 Y45.02
G1 F600 X48.69 Y45.42 E616.85593
G0 F12000 X48.49 Y45.42
G1 F600 X61.50 Y32.41 E617.56910
G0 F12000 X61.70 Y32.41
G1 F600 X61.27 Y32.84 E617.59263
G0 F12000 X60.84 Y32.41
G1 F600 X47.83 Y45.42 E618.30580
G0 F12000 X47.17 Y45.42
G1 F600 X60.19 Y32.41 E619.01897
G0 F12000 X59.76 Y32.41
G1 F600 X59.33 Y32.84 E619.04251
G0 F12000 X59.53 Y32.41
G1 F600 X46.51 Y45.42 E619.75568
G0 F12000 X46.74 Y45.42
G1 F600 X47.15 Y45.02 E619.77771
G0 F12000 X45.85 Y45.42
G1 F600 X58.87 Y32.41 E620.49088
G0 F12000 X58.21 Y32.41
G1 F600 X45.20 Y45.42 E621.20404
G0 F12000 X44.80 Y45.42
G1 F600 X45.21 Y45.02 E621.22607
G0 F12000 X44.54 Y45.42
G1 F600 X57.55 Y32.41 E621.93924
G0 F12000 X57.82 Y32.41
G1 F600 X57.39 Y32.84 E621.96281
G0 F12000 X56.89 Y32.41
G1 F600 X43.88 Y45.42 E622.67597
G0 F12000 X43.22 Y45.42
G1 F600 X56.23 Y32.41 E623.38914
G0 F12000 X55.88 Y32.41
G1 F600 X55.45 Y32.84 E623.41268
G0 F12000 X55.57 Y32.41
G1 F600 X42.89 Y45.09 E624.10752
G0 F12000 X42.86 Y45.42
G1 F600 X43.50 Y44.79 E624.14218
G0 F12000 X42.89 Y44.43
G1 F600 X54.91 Y32.41 E624.80090
G0 F12000 X54.26 Y32.41
G1 F600 X42.89 Y43.77 E625.42352
G0 F12000 X42.89 Y43.11
G1 F600 X53.60 Y32.41 E626.01002
G0 F12000 X53.94 Y32.41
G1 F600 X53.51 Y32.84 E626.03356
G0 F12000 X52.94 Y32.41
G1 F600 X42.89 Y42.45 E626.58395
G0 F12000 X42.89 Y41.79
G1 F600 X52.28 Y32.41 E627.09823
G0 F12000 X52.00 Y32.41
G1 F600 X51.57 Y32.84 E627.12179
G0 F12000 X51.62 Y32.41
G1 F600 X42.89 Y41.13 E627.59996
G0 F12000 X43.50 Y40.91
G1 F600 X41.20 Y43.20 E627.72550
G0 F12000 X41.41 Y44.93
G1 F600 X43.50 Y42.85 E627.83976
G0 F12000 X42.89 Y40.47
G1 F600 X50.96 Y32.41 E628.28181
G0 F12000 X50.30 Y32.41
G1 F600 X42.89 Y39.81 E628.68776
G0 F12000 X42.89 Y39.15
G1 F600 X49.64 Y32.41 E629.05759
G0 F12000 X50.06 Y32.41
G1 F600 X49.63 Y32.84 E629.08112
G0 F12000 X48.98 Y32.41
G1 F600 X42.89 Y38.49 E629.41484
G0 F12000 X42.89 Y37.84
G1 F600 X48.32 Y32.41 E629.71245
G0 F12000 X48.12 Y32.41
G1 F600 X47.69 Y32.84 E629.73599
G0 F12000 X47.66 Y32.41
G1 F600 X42.89 Y37.18 E629.99748
G0 F12000 X43.50 Y37.02
G1 F600 X41.20 Y39.32 E630.12303
G0 F12000 X41.20 Y41.26
G1 F600 X43.50 Y38.97 E630.24857
G0 F12000 X42.89 Y36.52
G1 F600 X47.01 Y32.41 E630.47395
G0 F12000 X46.35 Y32.41
G1 F600 X42.89 Y35.86 E630.66323
G0 F12000 X42.89 Y35.20
G1 F600 X45.69 Y32.41 E630.81639
G0 F12000 X45.75 Y32.84
G1 F600 X46.18 Y32.41 E630.83995
G0 F12000 X45.03 Y32.41
G1 F600 X42.89 Y34.54 E630.95700
G0 F12000 X42.89 Y33.88
G1 F600 X44.37 Y32.41 E631.03793
G0 F12000 X44.23 Y32.41
G1 F600 X43.81 Y32.84 E631.06147
G0 F12000 X43.50 Y33.14
G1 F600 X41.20 Y35.44 E631.18701
G0 F12000 X41.20 Y37.38
G1 F600 X43.50 Y35.09 E631.31255
G0 F12000 X42.89 Y33.22
G1 F600 X43.71 Y32.41 E631.35738
G0 F12000 X43.05 Y32.41
G1 F600 X42.89 Y32.56 E631.36609
G0 F12000 X42.28 Y32.41
G1 F600 X41.22 Y33.48 E631.42473
G0 F12000 X54.51 Y45.42
G1 F600 X54.91 Y45.02 E631.44675
G0 F12000 X57.72 Y45.42
G1 F600 X66.27 Y36.86 E631.91572
G0 F12000 X66.27 Y37.52
G1 F600 X58.38 Y45.42 E632.34857
G0 F12000 X58.39 Y45.42
G1 F600 X58.79 Y45.02 E632.37059
G0 F12000 X59.03 Y45.42
G1 F600 X66.27 Y38.18 E632.76733
G0 F12000 X65.67 Y38.13
G1 F600 X67.93 Y35.87 E632.89129
G0 F12000 X67.93 Y37.81
G1 F600 X65.67 Y40.08 E633.01524
G0 F12000 X66.27 Y40.16
G1 F600 X61.01 Y45.42 E633.30359
G0 F12000 X60.73 Y45.02
G1 F600 X60.33 Y45.42 E633.32561
G0 F12000 X60.35 Y45.42
G1 F600 X66.27 Y39.50 E633.65013
G0 F12000 X66.27 Y38.84
G1 F600 X59.69 Y45.42 E634.01075
G0 F12000 X61.67 Y45.42
G1 F600 X66.27 Y40.82 E634.26299
G0 F12000 X66.27 Y41.48
G1 F600 X62.33 Y45.42 E634.47911
G0 F12000 X62.27 Y45.42
G1 F600 X62.67 Y45.02 E634.50111
G0 F12000 X62.99 Y45.42
G1 F600 X66.27 Y42.13 E634.68113
G0 F12000 X65.67 Y42.02
G1 F600 X67.93 Y39.75 E634.80508
G0 F12000 X67.93 Y41.69
G1 F600 X65.67 Y43.96 E634.92903
G0 F12000 X66.27 Y44.11
G1 F600 X64.97 Y45.42 E635.00071
G0 F12000 X64.61 Y45.02
G1 F600 X64.21 Y45.42 E635.02274
G0 F12000 X64.31 Y45.42
G1 F600 X66.27 Y43.45 E635.13052
G0 F12000 X66.27 Y42.79
G1 F600 X63.65 Y45.42 E635.27442
G0 F12000 X65.62 Y45.42
G1 F600 X66.27 Y44.77 E635.30999
G0 F12000 X66.15 Y45.42
G1 F600 X67.93 Y43.63 E635.40780
G1 F2400 E634.20780
G0 F12000 X69.51 Y45.77
;TYPE:SUPPORT
G1 F2400 E635.40780
G1 F600 X69.51 Y54.35 E635.74014
G0 F12000 X70.44 Y54.35
G1 F600 X70.44 Y33.21 E636.55920
G0 F12000 X71.37 Y33.21
G1 F600 X71.37 Y54.35 E637.37826
G0 F12000 X72.31 Y54.35
G1 F600 X72.31 Y33.21 E638.19731
G0 F12000 X73.24 Y33.21
G1 F600 X73.24 Y54.35 E639.01637
G0 F12000 X74.17 Y54.35
G1 F600 X74.17 Y33.21 E639.83543
G0 F12000 X75.11 Y33.21
G1 F600 X75.11 Y54.35 E640.65448
G0 F12000 X76.04 Y54.35
G1 F600 X76.04 Y33.21 E641.47354
G0 F12000 X76.04 Y33.38
G0 X69.18 Y46.67
G0 X68.68 Y46.95
G0 X68.58 Y46.82
G1 F600 X68.58 Y49.59 E641.58064
G0 F12000 X68.58 Y49.42
G0 X67.81 Y47.53
G0 X67.64 Y47.57
G1 F600 X67.64 Y47.34 E641.58940
G1 F2400 E640.38940
G0 F12000 X41.52 Y47.35
G1 F2400 E641.58940
G1 F600 X41.52 Y48.81 E641.64605
G0 F12000 X40.59 Y49.74
G1 F600 X40.59 Y46.84 E641.75830
G0 F12000 X39.65 Y45.80
G1 F600 X39.65 Y54.35 E642.08932
G0 F12000 X38.72 Y54.35
G1 F600 X38.72 Y33.21 E642.90838
G0 F12000 X37.79 Y33.21
G1 F600 X37.79 Y54.35 E643.72744
G0 F12000 X36.85 Y54.35
G1 F600 X36.85 Y33.21 E644.54649
G0 F12000 X35.92 Y33.21
G1 F600 X35.92 Y54.35 E645.36555
G0 F12000 X34.99 Y54.35
G1 F600 X34.99 Y33.21 E646.18461
G0 F12000 X34.05 Y33.21
G1 F600 X34.05 Y54.35 E647.00366
G0 F12000 X33.12 Y54.35
G1 F600 X33.12 Y33.21 E647.82272
G0 F12000 X33.12 Y33.38
G0 X32.50 Y41.25
G0 X32.26 Y41.29
G0 X32.19 Y41.14
G1 F600 X32.19 Y54.35 E648.33450
;LAYER:6
G1 F2400 E647.13450
G0 F12000 X41.42 Y45.20 Z1.50
;TYPE:WALL-INNER
G1 F2400 E648.33450
G1 F600 X41.27 Y45.01 E648.34411
G1 X41.14 Y44.78 E648.35413
G1 X41.07 Y44.55 E648.36373
G1 X41.04 Y44.25 E648.37545
G1 X41.04 Y33.58 E648.78886
G1 X41.07 Y33.28 E648.80042
G1 X41.15 Y33.04 E648.81031
G1 X41.27 Y32.81 E648.82019
G1 X41.42 Y32.62 E648.82966
G1 X41.62 Y32.46 E648.83946
G1 X41.84 Y32.34 E648.84908
G1 X42.08 Y32.27 E648.85895
G1 X42.38 Y32.24 E648.87063
G1 X66.76 Y32.24 E649.81539
G1 X67.06 Y32.27 E649.82711
G1 X67.30 Y32.34 E649.83678
G1 X67.52 Y32.46 E649.84657
G1 X67.72 Y32.62 E649.85626
G1 X67.88 Y32.81 E649.86595
G1 X68.00 Y33.04 E649.87575
G1 X68.07 Y33.28 E649.88542
G1 X68.10 Y33.58 E649.89714
G1 X68.10 Y44.25 E650.31054
G1 X68.07 Y44.55 E650.32222
G1 X68.00 Y44.79 E650.33197
G1 X67.88 Y45.01 E650.34173
G1 X67.72 Y45.21 E650.35156
G1 X67.53 Y45.36 E650.36098
G1 X67.30 Y45.48 E650.37086
G1 X67.06 Y45.55 E650.38075
G1 X66.76 Y45.58 E650.39231
G1 X42.38 Y45.58 E651.33707
G1 X42.08 Y45.55 E651.34879
G1 X41.84 Y45.48 E651.35851
G1 X41.61 Y45.36 E651.36839
G1 X41.42 Y45.20 E651.37791
G0 F12000 X41.09 Y45.53
G1 F600 X40.88 Y45.27 E651.39094
G1 X40.71 Y44.97 E651.40430
G1 X40.61 Y44.64 E651.41763
G1 X40.58 Y44.26 E651.43230
G1 X40.58 Y33.56 E651.84687
G1 X40.61 Y33.19 E651.86163
G1 X40.71 Y32.86 E651.87495
G1 X40.87 Y32.55 E651.88818
G1 X41.09 Y32.29 E651.90147
G1 X41.35 Y32.07 E651.91466
G1 X41.66 Y31.91 E651.92797
G1 X41.98 Y31.81 E651.94117
G1 X42.36 Y31.78 E651.95593
G1 X66.78 Y31.78 E652.90185
G1 X67.16 Y31.81 E652.91672
G1 X67.48 Y31.91 E652.92983
G1 X67.78 Y32.07 E652.94314
G1 X68.05 Y32.29 E652.95641
G1 X68.27 Y32.55 E652.96967
G1 X68.43 Y32.86 E652.98299
G1 X68.53 Y33.18 E652.99609
G1 X68.56 Y33.56 E653.01097
G1 X68.56 Y44.26 E653.42553
G1 X68.53 Y44.64 E653.44029
G1 X68.43 Y44.97 E653.45349
G1 X68.27 Y45.27 E653.46675
G1 X68.05 Y45.53 E653.48005
G1 X67.78 Y45.75 E653.49329
G1 X67.48 Y45.91 E653.50651
G1 X67.15 Y46.01 E653.51984
G1 X66.78 Y46.05 E653.53459
G1 X42.36 Y46.05 E654.48051
G1 X41.99 Y46.01 E654.49519
G1 X41.66 Y45.91 E654.50851
G1 X41.35 Y45.75 E654.52179
G1 X41.09 Y45.53 E654.53512
G0 F12000 X40.76 Y45.86
;TYPE:WALL-OUTER
G1 F600 X40.49 Y45.53 E654.55159
G1 X40.28 Y45.15 E654.56871
G1 X40.15 Y44.73 E654.58544
G1 X40.11 Y44.29 E654.60277
G1 X40.11 Y33.54 E655.01927
G1 X40.15 Y33.09 E655.03656
G1 X40.28 Y32.68 E655.05333
G1 X40.49 Y32.29 E655.07032
G1 X40.76 Y31.96 E655.08706
G1 X41.09 Y31.68 E655.10377
G1 X41.48 Y31.48 E655.12075
G1 X41.89 Y31.35 E655.13751
G1 X42.34 Y31.31 E655.15484
G1 X66.80 Y31.31 E656.10269
G1 X67.25 Y31.35 E656.12006
G1 X67.66 Y31.48 E656.13669
G1 X68.05 Y31.68 E656.15373
G1 X68.38 Y31.96 E656.17047
G1 X68.65 Y32.29 E656.18720
G1 X68.86 Y32.68 E656.20424
G1 X68.98 Y33.09 E656.22088
G1 X69.03 Y33.54 E656.23824
G1 X69.03 Y44.29 E656.65474
G1 X68.98 Y44.73 E656.67207
G1 X68.86 Y45.15 E656.68879
G1 X68.65 Y45.53 E656.70578
G1 X68.38 Y45.87 E656.72254
G1 X68.05 Y46.14 E656.73925
G1 X67.66 Y46.35 E656.75624
G1 X67.25 Y46.47 E656.77301
G1 X66.80 Y46.52 E656.79030
G1 X42.34 Y46.52 E657.73815
G1 X41.89 Y46.47 E657.75548
G1 X41.48 Y46.35 E657.77221
G1 X41.09 Y46.14 E657.78923
G1 X40.76 Y45.86 E657.80608
G0 F12000 X41.00 Y45.63
G0 X41.20 Y44.12
;TYPE:FILL
G1 F600 X42.51 Y45.42 E657.87754
G0 F12000 X42.89 Y45.20
G1 F600 X43.11 Y45.42 E657.88957
G0 F12000 X43.77 Y45.42
G1 F600 X42.89 Y44.54 E657.93771
G0 F12000 X43.50 Y44.47
G1 F600 X41.20 Y42.17 E658.06330
G0 F12000 X42.89 Y41.91
G1 F600 X46.41 Y45.42 E658.25589
G0 F12000 X46.39 Y45.42
G1 F600 X45.99 Y45.02 E658.27786
G0 F12000 X45.75 Y45.42
G1 F600 X42.89 Y42.56 E658.43434
G0 F12000 X43.50 Y42.53
G1 F600 X41.20 Y40.23 E658.55994
G0 F12000 X42.89 Y39.93
G1 F600 X48.38 Y45.42 E658.86086
G0 F12000 X48.33 Y45.42
G1 F600 X47.93 Y45.02 E658.88283
G0 F12000 X47.73 Y45.42
G1 F600 X42.89 Y40.59 E659.14765
G0 F12000 X43.50 Y40.59
G1 F600 X41.20 Y38.29 E659.27327
G0 F12000 X42.89 Y38.61
G1 F600 X49.70 Y45.42 E659.64642
G0 F12000 X49.87 Y45.02
G1 F600 X50.27 Y45.42 E659.66839
G0 F12000 X50.36 Y45.42
G1 F600 X42.89 Y37.95 E660.07765
G0 F12000 X42.89 Y37.29
G1 F600 X51.02 Y45.42 E660.52302
G0 F12000 X51.68 Y45.42
G1 F600 X42.89 Y36.63 E661.00450
G0 F12000 X43.50 Y36.71
G1 F600 X41.20 Y34.41 E661.13010
G0 F12000 X41.51 Y32.77
G1 F600 X43.50 Y34.77 E661.23920
G0 F12000 X42.89 Y34.66
G1 F600 X53.66 Y45.42 E661.82902
G0 F12000 X53.75 Y45.02
G1 F600 X54.15 Y45.42 E661.85097
G0 F12000 X54.32 Y45.42
G1 F600 X42.89 Y34.00 E662.47693
G0 F12000 X42.89 Y33.34
G1 F600 X54.98 Y45.42 E663.13900
G0 F12000 X55.63 Y45.42
G1 F600 X42.89 Y32.68 E663.83718
G0 F12000 X43.08 Y32.41
G1 F600 X43.51 Y32.84 E663.86071
G0 F12000 X43.28 Y32.41
G1 F600 X56.29 Y45.42 E664.57380
G0 F12000 X56.09 Y45.42
G1 F600 X55.69 Y45.02 E664.59578
G0 F12000 X56.95 Y45.42
G1 F600 X43.94 Y32.41 E665.30886
G0 F12000 X44.60 Y32.41
G1 F600 X57.61 Y45.42 E666.02195
G0 F12000 X57.63 Y45.02
G1 F600 X58.03 Y45.42 E666.04392
G0 F12000 X58.27 Y45.42
G1 F600 X45.26 Y32.41 E666.75701
G0 F12000 X45.02 Y32.41
G1 F600 X45.45 Y32.84 E666.78057
G0 F12000 X45.92 Y32.41
G1 F600 X58.93 Y45.42 E667.49366
G0 F12000 X59.59 Y45.42
G1 F600 X46.58 Y32.41 E668.20675
G0 F12000 X46.96 Y32.41
G1 F600 X47.39 Y32.84 E668.23028
G0 F12000 X47.23 Y32.41
G1 F600 X60.25 Y45.42 E668.94337
G0 F12000 X59.97 Y45.42
G1 F600 X59.57 Y45.02 E668.96534
G0 F12000 X60.91 Y45.42
G1 F600 X47.89 Y32.41 E669.67843
G0 F12000 X48.55 Y32.41
G1 F600 X61.56 Y45.42 E670.39152
G0 F12000 X61.91 Y45.42
G1 F600 X61.51 Y45.02 E670.41349
G0 F12000 X62.22 Y45.42
G1 F600 X49.21 Y32.41 E671.12658
G0 F12000 X48.90 Y32.41
G1 F600 X49.33 Y32.84 E671.15011
G0 F12000 X49.87 Y32.41
G1 F600 X62.88 Y45.42 E671.86320
G0 F12000 X63.54 Y45.42
G1 F600 X50.53 Y32.41 E672.57629
G0 F12000 X50.84 Y32.41
G1 F600 X51.27 Y32.84 E672.59985
G0 F12000 X51.19 Y32.41
G1 F600 X64.20 Y45.42 E673.31294
G0 F12000 X63.85 Y45.42
G1 F600 X63.45 Y45.02 E673.33491
G0 F12000 X64.86 Y45.42
G1 F600 X51.85 Y32.41 E674.04800
G0 F12000 X52.51 Y32.41
G1 F600 X65.52 Y45.42 E674.76108
G0 F12000 X65.79 Y45.42
G1 F600 X65.39 Y45.02 E674.78306
G0 F12000 X66.18 Y45.42
G1 F600 X53.16 Y32.41 E675.49614
G0 F12000 X52.78 Y32.41
G1 F600 X53.21 Y32.84 E675.51968
G0 F12000 X53.82 Y32.41
G1 F600 X66.27 Y44.86 E676.20192
G0 F12000 X66.27 Y44.20
G1 F600 X54.48 Y32.41 E676.84804
G0 F12000 X54.72 Y32.41
G1 F600 X55.15 Y32.84 E676.87157
G0 F12000 X55.14 Y32.41
G1 F600 X66.27 Y43.54 E677.48153
G0 F12000 X65.67 Y43.36
G1 F600 X67.49 Y45.18 E677.58129
G0 F12000 X67.93 Y43.68
G1 F600 X65.67 Y41.42 E677.70524
G0 F12000 X66.27 Y41.56
G1 F600 X57.12 Y32.41 E678.20687
G0 F12000 X57.09 Y32.84
G1 F600 X56.66 Y32.41 E678.23040
G0 F12000 X56.46 Y32.41
G1 F600 X66.27 Y42.22 E678.76813
G0 F12000 X66.27 Y42.88
G1 F600 X55.80 Y32.41 E679.34198
G0 F12000 X57.78 Y32.41
G1 F600 X66.27 Y40.90 E679.80749
G0 F12000 X66.27 Y40.24
G1 F600 X58.44 Y32.41 E680.23689
G0 F12000 X58.60 Y32.41
G1 F600 X59.03 Y32.84 E680.26042
G0 F12000 X59.10 Y32.41
G1 F600 X66.27 Y39.58 E680.65371
G0 F12000 X65.67 Y39.48
G1 F600 X67.93 Y41.74 E680.77766
G0 F12000 X67.93 Y39.80
G1 F600 X65.67 Y37.54 E680.90161
G0 F12000 X66.27 Y37.61
G1 F600 X61.07 Y32.41 E681.18656
G0 F12000 X60.97 Y32.84
G1 F600 X60.54 Y32.41 E681.21010
G0 F12000 X60.41 Y32.41
G1 F600 X66.27 Y38.27 E681.53116
G0 F12000 X66.27 Y38.92
G1 F600 X59.76 Y32.41 E681.88833
G0 F12000 X61.73 Y32.41
G1 F600 X66.27 Y36.95 E682.13717
G0 F12000 X66.27 Y36.29
G1 F600 X62.39 Y32.41 E682.34990
G0 F12000 X62.48 Y32.41
G1 F600 X62.91 Y32.84 E682.37343
G0 F12000 X63.05 Y32.41
G1 F600 X66.27 Y35.63 E682.55005
G0 F12000 X65.67 Y35.59
G1 F600 X67.93 Y37.86 E682.67400
G0 F12000 X67.93 Y35.92
G1 F600 X65.67 Y33.66 E682.79795
G0 F12000 X66.27 Y33.65
G1 F600 X65.03 Y32.41 E682.86623
G0 F12000 X64.85 Y32.84
G1 F600 X64.42 Y32.41 E682.88980
G0 F12000 X64.37 Y32.41
G1 F600 X66.27 Y34.31 E682.99419
G0 F12000 X66.27 Y34.97
G1 F600 X63.71 Y32.41 E683.13469
G0 F12000 X65.69 Y32.41
G1 F600 X66.27 Y32.99 E683.16685
G0 F12000 X66.36 Y32.41
G1 F600 X67.93 Y33.98 E683.25297
G0 F12000 X53.00 Y45.42
G1 F600 X42.89 Y35.31 E683.80668
G0 F12000 X42.89 Y35.97
G1 F600 X52.34 Y45.42 E684.32427
G0 F12000 X52.21 Y45.42
G1 F600 X51.81 Y45.02 E684.34625
G0 F12000 X49.04 Y45.42
G1 F600 X42.89 Y39.27 E684.68328
G0 F12000 X43.50 Y38.65
G1 F600 X41.20 Y36.35 E684.80888
G0 F12000 X42.89 Y41.25
G1 F600 X47.07 Y45.42 E685.03758
G0 F12000 X45.09 Y45.42
G1 F600 X42.89 Y43.22 E685.15794
G0 F12000 X42.89 Y43.88
G1 F600 X44.43 Y45.42 E685.24219
G0 F12000 X44.45 Y45.42
G1 F600 X44.05 Y45.02 E685.26417
G1 F2400 E684.06417
G0 F12000 X41.52 Y47.35
;TYPE:SUPPORT
G1 F2400 E685.26417
G1 F600 X41.52 Y48.81 E685.32082
G0 F12000 X40.59 Y49.74
G1 F600 X40.59 Y46.84 E685.43307
G0 F12000 X39.65 Y45.80
G1 F600 X39.65 Y54.35 E685.76409
G0 F12000 X38.72 Y54.35
G1 F600 X38.72 Y33.21 E686.58315
G0 F12000 X37.79 Y33.21
G1 F600 X37.79 Y54.35 E687.40221
G0 F12000 X36.85 Y54.35
G1 F600 X36.85 Y33.21 E688.22126
G0 F12000 X35.92 Y33.21
G1 F600 X35.92 Y54.35 E689.04032
G0 F12000 X34.99 Y54.35
G1 F600 X34.99 Y33.21 E689.85938
G0 F12000 X34.05 Y33.21
G1 F600 X34.05 Y54.35 E690.67843
G0 F12000 X33.12 Y54.35
G1 F600 X33.12 Y33.21 E691.49749
G0 F12000 X33.12 Y33.38
G0 X32.50 Y41.25
G0 X32.26 Y41.29
G0 X32.19 Y41.14
G1 F600 X32.19 Y54.35 E692.00927
G1 F2400 E690.80927
G0 F12000 X67.64 Y47.57
G1 F2400 E692.00927
G1 F600 X67.64 Y47.34 E692.01803
G0 F12000 X68.58 Y46.82
G1 F600 X68.58 Y49.59 E692.12513
G0 F12000 X68.58 Y49.42
G0 X69.66 Y45.85
G0 X69.51 Y45.77
G1 F600 X69.51 Y54.35 E692.45747
G0 F12000 X70.44 Y54.35
G1 F600 X70.44 Y33.21 E693.27653
G0 F12000 X71.37 Y33.21
G1 F600 X71.37 Y54.35 E694.09559
G0 F12000 X72.31 Y54.35
G1 F600 X72.31 Y33.21 E694.91464
G0 F12000 X73.24 Y33.21
G1 F600 X73.24 Y54.35 E695.73370
G0 F12000 X74.17 Y54.35
G1 F600 X74.17 Y33.21 E696.55275
G0 F12000 X75.11 Y33.21
G1 F600 X75.11 Y54.35 E697.37181
G0 F12000 X76.04 Y54.35
G1 F600 X76.04 Y33.21 E698.19087
;LAYER:7
G1 F2400 E696.99087
G0 F12000 X68.10 Y33.58 Z1.70
;TYPE:WALL-INNER
G1 F2400 E698.19087
G1 F600 X68.10 Y44.25 E698.60427
G1 X68.07 Y44.55 E698.61595
G1 X68.00 Y44.79 E698.62570
G1 X67.88 Y45.01 E698.63546
G1 X67.72 Y45.21 E698.64529
G1 X67.53 Y45.36 E698.65470
G1 X67.30 Y45.48 E698.66458
G1 X67.06 Y45.55 E698.67448
G1 X66.76 Y45.58 E698.68604
G1 X42.38 Y45.58 E699.63079
G1 X42.08 Y45.55 E699.64251
G1 X41.84 Y45.48 E699.65224
G1 X41.61 Y45.36 E699.66212
G1 X41.42 Y45.20 E699.67164
G1 X41.27 Y45.01 E699.68125
G1 X41.14 Y44.78 E699.69127
G1 X41.07 Y44.55 E699.70087
G1 X41.04 Y44.25 E699.71259
G1 X41.04 Y33.58 E700.12599
G1 X41.07 Y33.28 E700.13756
G1 X41.15 Y33.04 E700.14745
G1 X41.27 Y32.81 E700.15733
G1 X41.42 Y32.62 E700.16680
G1 X41.62 Y32.46 E700.17660
G1 X41.84 Y32.34 E700.18622
G1 X42.08 Y32.27 E700.19609
G1 X42.38 Y32.24 E700.20777
G1 X66.76 Y32.24 E701.15252
G1 X67.06 Y32.27 E701.16425
G1 X67.30 Y32.34 E701.17392
G1 X67.52 Y32.46 E701.18371
G1 X67.72 Y32.62 E701.19340
G1 X67.88 Y32.81 E701.20309
G1 X68.00 Y33.04 E701.21288
G1 X68.07 Y33.28 E701.22256
G1 X68.10 Y33.58 E701.23428
G0 F12000 X68.56 Y33.56
G1 F600 X68.56 Y44.26 E701.64884
G1 X68.53 Y44.64 E701.66360
G1 X68.43 Y44.97 E701.67680
G1 X68.27 Y45.27 E701.69006
G1 X68.05 Y45.53 E701.70336
G1 X67.78 Y45.75 E701.71660
G1 X67.48 Y45.91 E701.72983
G1 X67.15 Y46.01 E701.74315
G1 X66.78 Y46.05 E701.75790
G1 X42.36 Y46.05 E702.70382
G1 X41.99 Y46.01 E702.71850
G1 X41.66 Y45.91 E702.73182
G1 X41.35 Y45.75 E702.74510
G1 X41.09 Y45.53 E702.75843
G1 X40.88 Y45.27 E702.77145
G1 X40.71 Y44.97 E702.78482
G1 X40.61 Y44.64 E702.79814
G1 X40.58 Y44.26 E702.81282
G1 X40.58 Y33.56 E703.22739
G1 X40.61 Y33.19 E703.24214
G1 X40.71 Y32.86 E703.25547
G1 X40.87 Y32.55 E703.26869
G1 X41.09 Y32.29 E703.28199
G1 X41.35 Y32.07 E703.29518
G1 X41.66 Y31.91 E703.30849
G1 X41.98 Y31.81 E703.32169
G1 X42.36 Y31.78 E703.33645
G1 X66.78 Y31.78 E704.28236
G1 X67.16 Y31.81 E704.29724
G1 X67.48 Y31.91 E704.31034
G1 X67.78 Y32.07 E704.32366
G1 X68.05 Y32.29 E704.33692
G1 X68.27 Y32.55 E704.35019
G1 X68.43 Y32.86 E704.36350
G1 X68.53 Y33.18 E704.37661
G1 X68.56 Y33.56 E704.39148
G0 F12000 X69.03 Y33.54
;TYPE:WALL-OUTER
G1 F600 X69.03 Y44.29 E704.80799
G1 X68.98 Y44.73 E704.82531
G1 X68.86 Y45.15 E704.84203
G1 X68.65 Y45.53 E704.85902
G1 X68.38 Y45.87 E704.87578
G1 X68.05 Y46.14 E704.89249
G1 X67.66 Y46.35 E704.90948
G1 X67.25 Y46.47 E704.92625
G1 X66.80 Y46.52 E704.94354
G1 X42.34 Y46.52 E705.89139
G1 X41.89 Y46.47 E705.90872
G1 X41.48 Y46.35 E705.92545
G1 X41.09 Y46.14 E705.94247
G1 X40.76 Y45.86 E705.95932
G1 X40.49 Y45.53 E705.97579
G1 X40.28 Y45.15 E705.99292
G1 X40.15 Y44.73 E706.00965
G1 X40.11 Y44.29 E706.02697
G1 X40.11 Y33.54 E706.44348
G1 X40.15 Y33.09 E706.46076
G1 X40.28 Y32.68 E706.47753
G1 X40.49 Y32.29 E706.49452
G1 X40.76 Y31.96 E706.51126
G1 X41.09 Y31.68 E706.52797
G1 X41.48 Y31.48 E706.54496
G1 X41.89 Y31.35 E706.56171
G1 X42.34 Y31.31 E706.57904
G1 X66.80 Y31.31 E707.52690
G1 X67.25 Y31.35 E707.54426
G1 X67.66 Y31.48 E707.56090
G1 X68.05 Y31.68 E707.57794
G1 X68.38 Y31.96 E707.59467
G1 X68.65 Y32.29 E707.61140
G1 X68.86 Y32.68 E707.62844
G1 X68.98 Y33.09 E707.64508
G1 X69.03 Y33.54 E707.66244
G0 F12000 X67.93 Y33.93
;TYPE:FILL
G1 F600 X65.67 Y36.20 E707.78640
G0 F12000 X66.27 Y36.20
G1 F600 X57.06 Y45.42 E708.29147
G0 F12000 X56.85 Y45.02
G1 F600 X56.45 Y45.42 E708.31347
G0 F12000 X56.40 Y45.42
G1 F600 X66.27 Y35.54 E708.85466
G0 F12000 X66.27 Y34.88
G1 F600 X55.74 Y45.42 E709.43196
G0 F12000 X55.08 Y45.42
G1 F600 X66.27 Y34.23 E710.04536
G0 F12000 X65.67 Y34.26
G1 F600 X67.36 Y32.56 E710.13811
G0 F12000 X66.27 Y32.91
G1 F600 X53.76 Y45.42 E710.82374
G0 F12000 X54.42 Y45.42
G1 F600 X66.27 Y33.57 E711.47326
G0 F12000 X66.12 Y32.41
G1 F600 X53.10 Y45.42 E712.18646
G0 F12000 X52.97 Y45.02
G1 F600 X52.56 Y45.42 E712.20849
G0 F12000 X52.44 Y45.42
G1 F600 X65.46 Y32.41 E712.92166
G0 F12000 X65.58 Y32.41
G1 F600 X65.15 Y32.84 E712.94522
G0 F12000 X64.80 Y32.41
G1 F600 X51.78 Y45.42 E713.65839
G0 F12000 X51.13 Y45.42
G1 F600 X64.14 Y32.41 E714.37156
G0 F12000 X63.64 Y32.41
G1 F600 X63.21 Y32.84 E714.39509
G0 F12000 X63.48 Y32.41
G1 F600 X50.47 Y45.42 E715.10826
G0 F12000 X50.62 Y45.42
G1 F600 X51.03 Y45.02 E715.13027
G0 F12000 X49.81 Y45.42
G1 F600 X62.82 Y32.41 E715.84343
G0 F12000 X62.16 Y32.41
G1 F600 X49.15 Y45.42 E716.55660
G0 F12000 X49.09 Y45.02
G1 F600 X48.69 Y45.42 E716.57860
G0 F12000 X48.49 Y45.42
G1 F600 X61.50 Y32.41 E717.29177
G0 F12000 X61.70 Y32.41
G1 F600 X61.27 Y32.84 E717.31531
G0 F12000 X60.84 Y32.41
G1 F600 X47.83 Y45.42 E718.02848
G0 F12000 X47.17 Y45.42
G1 F600 X60.19 Y32.41 E718.74165
G0 F12000 X59.76 Y32.41
G1 F600 X59.33 Y32.84 E718.76518
G0 F12000 X59.53 Y32.41
G1 F600 X46.51 Y45.42 E719.47835
G0 F12000 X46.74 Y45.42
G1 F600 X47.15 Y45.02 E719.50038
G0 F12000 X45.85 Y45.42
G1 F600 X58.87 Y32.41 E720.21355
G0 F12000 X58.21 Y32.41
G1 F600 X45.20 Y45.42 E720.92672
G0 F12000 X44.80 Y45.42
G1 F600 X45.21 Y45.02 E720.94875
G0 F12000 X44.54 Y45.42
G1 F600 X57.55 Y32.41 E721.66192
G0 F12000 X57.82 Y32.41
G1 F600 X57.39 Y32.84 E721.68548
G0 F12000 X56.89 Y32.41
G1 F600 X43.88 Y45.42 E722.39865
G0 F12000 X43.22 Y45.42
G1 F600 X56.23 Y32.41 E723.11182
G0 F12000 X55.88 Y32.41
G1 F600 X55.45 Y32.84 E723.13535
G0 F12000 X55.57 Y32.41
G1 F600 X42.89 Y45.09 E723.83019
G0 F12000 X42.86 Y45.42
G1 F600 X43.50 Y44.79 E723.86485
G0 F12000 X42.89 Y44.43
G1 F600 X54.91 Y32.41 E724.52358
G0 F12000 X54.26 Y32.41
G1 F600 X42.89 Y43.77 E725.14619
G0 F12000 X42.89 Y43.11
G1 F600 X53.60 Y32.41 E725.73270
G0 F12000 X53.94 Y32.41
G1 F600 X53.51 Y32.84 E725.75623
G0 F12000 X52.94 Y32.41
G1 F600 X42.89 Y42.45 E726.30662
G0 F12000 X42.89 Y41.79
G1 F600 X52.28 Y32.41 E726.82090
G0 F12000 X52.00 Y32.41
G1 F600 X51.57 Y32.84 E726.84447
G0 F12000 X51.62 Y32.41
G1 F600 X42.89 Y41.13 E727.32263
G0 F12000 X43.50 Y40.91
G1 F600 X41.20 Y43.20 E727.44818
G0 F12000 X41.41 Y44.93
G1 F600 X43.50 Y42.85 E727.56243
G0 F12000 X42.89 Y40.47
G1 F600 X50.96 Y32.41 E728.00449
G0 F12000 X50.30 Y32.41
G1 F600 X42.89 Y39.81 E728.41043
G0 F12000 X42.89 Y39.15
G1 F600 X49.64 Y32.41 E728.78026
G0 F12000 X50.06 Y32.41
G1 F600 X49.63 Y32.84 E728.80380
G0 F12000 X48.98 Y32.41
G1 F600 X42.89 Y38.49 E729.13752
G0 F12000 X42.89 Y37.84
G1 F600 X48.32 Y32.41 E729.43513
G0 F12000 X48.12 Y32.41
G1 F600 X47.69 Y32.84 E729.45866
G0 F12000 X47.66 Y32.41
G1 F600 X42.89 Y37.18 E729.72016
G0 F12000 X43.50 Y37.02
G1 F600 X41.20 Y39.32 E729.84570
G0 F12000 X41.20 Y41.26
G1 F600 X43.50 Y38.97 E729.97124
G0 F12000 X42.89 Y36.52
G1 F600 X47.01 Y32.41 E730.19663
G0 F12000 X46.35 Y32.41
G1 F600 X42.89 Y35.86 E730.38590
G0 F12000 X42.89 Y35.20
G1 F600 X45.69 Y32.41 E730.53906
G0 F12000 X45.75 Y32.84
G1 F600 X46.18 Y32.41 E730.56262
G0 F12000 X45.03 Y32.41
G1 F600 X42.89 Y34.54 E730.67967
G0 F12000 X42.89 Y33.88
G1 F600 X44.37 Y32.41 E730.76061
G0 F12000 X44.23 Y32.41
G1 F600 X43.81 Y32.84 E730.78414
G0 F12000 X43.50 Y33.14
G1 F600 X41.20 Y35.44 E730.90969
G0 F12000 X41.20 Y37.38
G1 F600 X43.50 Y35.09 E731.03523
G0 F12000 X42.89 Y33.22
G1 F600 X43.71 Y32.41 E731.08005
G0 F12000 X43.05 Y32.41
G1 F600 X42.89 Y32.56 E731.08877
G0 F12000 X42.28 Y32.41
G1 F600 X41.22 Y33.48 E731.14740
G0 F12000 X54.51 Y45.42
G1 F600 X54.91 Y45.02 E731.16943
G0 F12000 X57.72 Y45.42
G1 F600 X66.27 Y36.86 E731.63839
G0 F12000 X66.27 Y37.52
G1 F600 X58.38 Y45.42 E732.07124
G0 F12000 X58.39 Y45.42
G1 F600 X58.79 Y45.02 E732.09327
G0 F12000 X59.03 Y45.42
G1 F600 X66.27 Y38.18 E732.49001
G0 F12000 X65.67 Y38.13
G1 F600 X67.93 Y35.87 E732.61396
G0 F12000 X67.93 Y37.81
G1 F600 X65.67 Y40.08 E732.73791
G0 F12000 X66.27 Y40.16
G1 F600 X61.01 Y45.42 E733.02626
G0 F12000 X60.73 Y45.02
G1 F600 X60.33 Y45.42 E733.04829
G0 F12000 X60.35 Y45.42
G1 F600 X66.27 Y39.50 E733.37280
G0 F12000 X66.27 Y38.84
G1 F600 X59.69 Y45.42 E733.73343
G0 F12000 X61.67 Y45.42
G1 F600 X66.27 Y40.82 E733.98566
G0 F12000 X66.27 Y41.48
G1 F600 X62.33 Y45.42 E734.20179
G0 F12000 X62.27 Y45.42
G1 F600 X62.67 Y45.02 E734.22379
G0 F12000 X62.99 Y45.42
G1 F600 X66.27 Y42.13 E734.40380
G0 F12000 X65.67 Y42.02
G1 F600 X67.93 Y39.75 E734.52775
G0 F12000 X67.93 Y41.69
G1 F600 X65.67 Y43.96 E734.65171
G0 F12000 X66.27 Y44.11
G1 F600 X64.97 Y45.42 E734.72338
G0 F12000 X64.61 Y45.02
G1 F600 X64.21 Y45.42 E734.74541
G0 F12000 X64.31 Y45.42
G1 F600 X66.27 Y43.45 E734.85320
G0 F12000 X66.27 Y42.79
G1 F600 X63.65 Y45.42 E734.99710
G0 F12000 X65.62 Y45.42
G1 F600 X66.27 Y44.77 E735.03266
G0 F12000 X66.15 Y45.42
G1 F600 X67.93 Y43.63 E735.13048
G1 F2400 E733.93048
G0 F12000 X69.51 Y45.77
;TYPE:SUPPORT
G1 F2400 E735.13048
G1 F600 X69.51 Y54.35 E735.46282
G0 F12000 X70.44 Y54.35
G1 F600 X70.44 Y33.21 E736.28188
G0 F12000 X71.37 Y33.21
G1 F600 X71.37 Y54.35 E737.10093
G0 F12000 X72.31 Y54.35
G1 F600 X72.31 Y33.21 E737.91999
G0 F12000 X73.24 Y33.21
G1 F600 X73.24 Y54.35 E738.73904
G0 F12000 X74.17 Y54.35
G1 F600 X74.17 Y33.21 E739.55810
G0 F12000 X75.11 Y33.21
G1 F600 X75.11 Y54.35 E740.37716
G0 F12000 X76.04 Y54.35
G1 F600 X76.04 Y33.21 E741.19621
G0 F12000 X76.04 Y33.38
G0 X69.18 Y46.67
G0 X68.68 Y46.95
G0 X68.58 Y46.82
G1 F600 X68.58 Y49.59 E741.30331
G0 F12000 X68.58 Y49.42
G0 X67.81 Y47.53
G0 X67.64 Y47.57
G1 F600 X67.64 Y47.34 E741.31207
G1 F2400 E740.11207
G0 F12000 X41.52 Y47.35
G1 F2400 E741.31207
G1 F600 X41.52 Y48.81 E741.36872
G0 F12000 X40.59 Y49.74
G1 F600 X40.59 Y46.84 E741.48097
G0 F12000 X39.65 Y45.80
G1 F600 X39.65 Y54.35 E741.81200
G0 F12000 X38.72 Y54.35
G1 F600 X38.72 Y33.21 E742.63105
G0 F12000 X37.79 Y33.21
G1 F600 X37.79 Y54.35 E743.45011
G0 F12000 X36.85 Y54.35
G1 F600 X36.85 Y33.21 E744.26917
G0 F12000 X35.92 Y33.21
G1 F600 X35.92 Y54.35 E745.08822
G0 F12000 X34.99 Y54.35
G1 F600 X34.99 Y33.21 E745.90728
G0 F12000 X34.05 Y33.21
G1 F600 X34.05 Y54.35 E746.72634
G0 F12000 X33.12 Y54.35
G1 F600 X33.12 Y33.21 E747.54539
G0 F12000 X33.12 Y33.38
G0 X32.50 Y41.25
G0 X32.26 Y41.29
G0 X32.19 Y41.14
G1 F600 X32.19 Y54.35 E748.05718
;LAYER:8
G1 F2400 E746.85718
G0 F12000 X41.42 Y45.20 Z1.90
;TYPE:WALL-INNER
G1 F2400 E748.05718
G1 F600 X41.27 Y45.01 E748.06679
G1 X41.14 Y44.78 E748.07681
G1 X41.07 Y44.55 E748.08641
G1 X41.04 Y44.25 E748.09813
G1 X41.04 Y33.58 E748.51153
G1 X41.07 Y33.28 E748.52309
G1 X41.15 Y33.04 E748.53298
G1 X41.27 Y32.81 E748.54286
G1 X41.42 Y32.62 E748.55234
G1 X41.62 Y32.46 E748.56213
G1 X41.84 Y32.34 E748.57175
G1 X42.08 Y32.27 E748.58162
G1 X42.38 Y32.24 E748.59331
G1 X66.76 Y32.24 E749.53806
G1 X67.06 Y32.27 E749.54978
G1 X67.30 Y32.34 E749.55945
G1 X67.52 Y32.46 E749.56925
G1 X67.72 Y32.62 E749.57894
G1 X67.88 Y32.81 E749.58863
G1 X68.00 Y33.04 E749.59842
G1 X68.07 Y33.28 E749.60809
G1 X68.10 Y33.58 E749.61981
G1 X68.10 Y44.25 E750.03322
G1 X68.07 Y44.55 E750.04490
G1 X68.00 Y44.79 E750.05464
G1 X67.88 Y45.01 E750.06440
G1 X67.72 Y45.21 E750.07423
G1 X67.53 Y45.36 E750.08365
G1 X67.30 Y45.48 E750.09353
G1 X67.06 Y45.55 E750.10342
G1 X66.76 Y45.58 E750.11498
G1 X42.38 Y45.58 E751.05974
G1 X42.08 Y45.55 E751.07146
G1 X41.84 Y45.48 E751.08118
G1 X41.61 Y45.36 E751.09106
G1 X41.42 Y45.20 E751.10059
G0 F12000 X41.09 Y45.53
G1 F600 X40.88 Y45.27 E751.11361
G1 X40.71 Y44.97 E751.12698
G1 X40.61 Y44.64 E751.14030
G1 X40.58 Y44.26 E751.15498
G1 X40.58 Y33.56 E751.56954
G1 X40.61 Y33.19 E751.58430
G1 X40.71 Y32.86 E751.59762
G1 X40.87 Y32.55 E751.61085
G1 X41.09 Y32.29 E751.62415
G1 X41.35 Y32.07 E751.63733
G1 X41.66 Y31.91 E751.65065
G1 X41.98 Y31.81 E751.66385
G1 X42.36 Y31.78 E751.67860
G1 X66.78 Y31.78 E752.62452
G1 X67.16 Y31.81 E752.63940
G1 X67.48 Y31.91 E752.65250
G1 X67.78 Y32.07 E752.66581
G1 X68.05 Y32.29 E752.67908
G1 X68.27 Y32.55 E752.69235
G1 X68.43 Y32.86 E752.70566
G1 X68.53 Y33.18 E752.71877
G1 X68.56 Y33.56 E752.73364
G1 X68.56 Y44.26 E753.14821
G1 X68.53 Y44.64 E753.16296
G1 X68.43 Y44.97 E753.17616
G1 X68.27 Y45.27 E753.18942
G1 X68.05 Y45.53 E753.20272
G1 X67.78 Y45.75 E753.21596
G1 X67.48 Y45.91 E753.22919
G1 X67.15 Y46.01 E753.24251
G1 X66.78 Y46.05 E753.25727
G1 X42.36 Y46.05 E754.20319
G1 X41.99 Y46.01 E754.21786
G1 X41.66 Y45.91 E754.23119
G1 X41.35 Y45.75 E754.24447
G1 X41.09 Y45.53 E754.25779
G0 F12000 X40.76 Y45.86
;TYPE:WALL-OUTER
G1 F600 X40.49 Y45.53 E754.27426
G1 X40.28 Y45.15 E754.29139
G1 X40.15 Y44.73 E754.30812
G1 X40.11 Y44.29 E754.32544
G1 X40.11 Y33.54 E754.74195
G1 X40.15 Y33.09 E754.75924
G1 X40.28 Y32.68 E754.77600
G1 X40.49 Y32.29 E754.79299
G1 X40.76 Y31.96 E754.80973
G1 X41.09 Y31.68 E754.82644
G1 X41.48 Y31.48 E754.84343
G1 X41.89 Y31.35 E754.86019
G1 X42.34 Y31.31 E754.87751
G1 X66.80 Y31.31 E755.82537
G1 X67.25 Y31.35 E755.84273
G1 X67.66 Y31.48 E755.85937
G1 X68.05 Y31.68 E755.87641
G1 X68.38 Y31.96 E755.89314
G1 X68.65 Y32.29 E755.90988
G1 X68.86 Y32.68 E755.92692
G1 X68.98 Y33.09 E755.94355
G1 X69.03 Y33.54 E755.96092
G1 X69.03 Y44.29 E756.37742
G1 X68.98 Y44.73 E756.39475
G1 X68.86 Y45.15 E756.41147
G1 X68.65 Y45.53 E756.42845
G1 X68.38 Y45.87 E756.44522
G1 X68.05 Y46.14 E756.46193
G1 X67.66 Y46.35 E756.47891
G1 X67.25 Y46.47 E756.49568
G1 X66.80 Y46.52 E756.51297
G1 X42.34 Y46.52 E757.46083
G1 X41.89 Y46.47 E757.47815
G1 X41.48 Y46.35 E757.49488
G1 X41.09 Y46.14 E757.51191
G1 X40.76 Y45.86 E757.52875
G0 F12000 X41.00 Y45.63
G0 X41.20 Y44.12
;TYPE:FILL
G1 F600 X42.51 Y45.42 E757.60021
G0 F12000 X42.89 Y45.20
G1 F600 X43.11 Y45.42 E757.61224
G0 F12000 X43.77 Y45.42
G1 F600 X42.89 Y44.54 E757.66038
G0 F12000 X43.50 Y44.47
G1 F600 X41.20 Y42.17 E757.78598
G0 F12000 X42.89 Y41.91
G1 F600 X46.41 Y45.42 E757.97856
G0 F12000 X46.39 Y45.42
G1 F600 X45.99 Y45.02 E758.00054
G0 F12000 X45.75 Y45.42
G1 F600 X42.89 Y42.56 E758.15701
G0 F12000 X43.50 Y42.53
G1 F600 X41.20 Y40.23 E758.28261
G0 F12000 X42.89 Y39.93
G1 F600 X48.38 Y45.42 E758.58353
G0 F12000 X48.33 Y45.42
G1 F600 X47.93 Y45.02 E758.60551
G0 F12000 X47.73 Y45.42
G1 F600 X42.89 Y40.59 E758.87032
G0 F12000 X43.50 Y40.59
G1 F600 X41.20 Y38.29 E758.99594
G0 F12000 X42.89 Y38.61
G1 F600 X49.70 Y45.42 E759.36909
G0 F12000 X49.87 Y45.02
G1 F600 X50.27 Y45.42 E759.39107
G0 F12000 X50.36 Y45.42
G1 F600 X42.89 Y37.95 E759.80032
G0 F12000 X42.89 Y37.29
G1 F600 X51.02 Y45.42 E760.24570
G0 F12000 X51.68 Y45.42
