;-- START GCODE --
;Sliced for Type A Machines Series 1
;Sliced at: Wed 16-12-2015 23:44:28
;Basic settings: Layer height: 0.2 Walls: 1 Fill: 40
;Print Speed: 140 Support: 0
;Retraction Speed: 40 Retraction Distance: 1.2
;Print time: #P_TIME#
;Filament used: #F_AMNT#m #F_WGHT#g
;Filament cost: #F_COST#
M106 S255	 ;start with the fan on
G21        ;metric values
G90        ;absolute positioning
M106 S255    ;start with the fan on
G28     ;move to endstops
G29		;allows for auto-levelling
G1 X150 Y5  Z15.0 F6000 ;center and move the platform down 15mm
M109 S220 ;Heat To temp
G92 E0                  ;zero the extruded length
G1 F200 E30              ;extrude 30mm of feed stock
G92 E0                  ;zero the extruded length again
G1 X175 Y25  Z0 F6000 ;remove bugger
G1 X220 F6000 ;remove bugger
G1 X150 Y150  Z15 F6000 ;recenter and begin
G1 F6000

;Layer count: 8
;LAYER:0
M106 S255
G0 F6000 X121.75 Y93.90 Z0.30
;TYPE:SKIRT
G1 F2700 X122.74 Y92.73 E0.09568
G1 X123.30 Y92.08 E0.14969
G1 X124.48 Y91.07 E0.24603
G1 X125.14 Y90.51 E0.29978
G1 X126.44 Y89.71 E0.39564
G1 X127.19 Y89.25 E0.44995
G1 X128.62 Y88.66 E0.54684
G1 X129.40 Y88.34 E0.59908
G1 X130.91 Y87.97 E0.69600
G1 X131.73 Y87.77 E0.74906
G1 X131.73 Y86.28 E0.84241
G1 X131.92 Y84.08 E0.97987
G1 X132.02 Y83.02 E1.04605
G1 X132.68 Y80.52 E1.20748
G1 X132.95 Y79.49 E1.27386
G1 X134.04 Y77.12 E1.43638
G1 X134.48 Y76.16 E1.50265
G1 X135.95 Y74.01 E1.66483
G1 X136.56 Y73.14 E1.73119
G1 X138.37 Y71.29 E1.89242
G1 X138.36 Y71.29 E1.89251
G1 X139.11 Y70.52 E1.95923
G1 X141.23 Y69.00 E2.12206
G1 X142.09 Y68.38 E2.18804
G1 X144.44 Y67.23 E2.35095
G1 X145.39 Y66.77 E2.41714
G1 X147.89 Y66.05 E2.57910
G1 X148.91 Y65.75 E2.64532
G1 X151.30 Y65.49 E2.79575
G1 X151.30 Y65.50 E2.79581
G1 X152.77 Y65.33 E2.88767
G1 X155.60 Y65.64 E3.06544
G1 X156.66 Y65.76 E3.13209
G1 X159.15 Y66.48 E3.29366
G1 X160.17 Y66.77 E3.35987
G1 X162.50 Y67.91 E3.52111
G1 X163.46 Y68.37 E3.58772
G1 X165.58 Y69.90 E3.75067
G1 X166.44 Y70.52 E3.81696
G1 X168.26 Y72.39 E3.97952
G1 X169.00 Y73.15 E4.04589
G1 X170.47 Y75.28 E4.20721
G1 X171.07 Y76.16 E4.27375
G1 X172.16 Y78.53 E4.43650
G1 X172.16 Y78.53 E4.43656
G1 X172.60 Y79.49 E4.50255
G1 X173.27 Y82.02 E4.66552
G1 X173.27 Y82.02 E4.66559
G1 X173.54 Y83.04 E4.73134
G1 X173.80 Y86.05 E4.92012
G1 X173.80 Y87.77 E5.02739
G1 X173.82 Y87.78 E5.02845
G1 X175.31 Y88.13 E5.12427
G1 X176.15 Y88.34 E5.17772
G1 X177.57 Y88.92 E5.27411
G1 X178.38 Y89.26 E5.32871
G1 X179.69 Y90.06 E5.42434
G1 X180.42 Y90.52 E5.47801
G1 X181.59 Y91.51 E5.57351
G1 X182.25 Y92.07 E5.62770
G1 X183.25 Y93.25 E5.72404
G1 X183.81 Y93.90 E5.77779
G1 X184.61 Y95.21 E5.87328
G1 X185.07 Y95.96 E5.92796
G1 X185.65 Y97.35 E6.02228
G1 X185.99 Y98.17 E6.07709
G1 X186.34 Y99.66 E6.17304
G1 X186.55 Y100.52 E6.22784
G1 X186.70 Y102.44 E6.34831
G1 X186.71 Y145.37 E9.02517
G1 X186.71 Y151.08 E9.38170
G1 X186.58 Y152.72 E9.48416
G1 X186.50 Y153.65 E9.54205
G1 X186.04 Y155.59 E9.66665
G1 X185.82 Y156.49 E9.72422
G1 X185.06 Y158.33 E9.84903
G1 X184.70 Y159.18 E9.90640
G1 X183.65 Y160.90 E10.03163
G1 X183.17 Y161.68 E10.08933
G1 X181.87 Y163.21 E10.21416
G1 X181.26 Y163.91 E10.27197
G1 X179.75 Y165.21 E10.39662
G1 X179.34 Y165.56 E10.42988
G1 X179.41 Y165.58 E10.43467
G1 X180.21 Y165.85 E10.48685
G1 X181.40 Y166.45 E10.57022
G1 X182.20 Y166.86 E10.62658
G1 X183.41 Y167.75 E10.72008
G1 X184.17 Y168.31 E10.77909
G1 X184.28 Y168.43 E10.78910
G1 X185.15 Y168.02 E10.84902
G1 X185.88 Y167.68 E10.89907
G1 X187.33 Y167.25 E10.99396
G1 X188.18 Y166.99 E11.04889
G1 X190.93 Y166.64 E11.22164
G1 X192.88 Y166.65 E11.34344
G1 X193.75 Y166.66 E11.39814
G1 X195.20 Y166.89 E11.48927
G1 X196.00 Y167.01 E11.53953
G1 X197.25 Y167.40 E11.62159
G1 X198.03 Y167.65 E11.67266
G1 X199.76 Y168.49 E11.79240
G1 X200.84 Y169.21 E11.87317
G1 X200.98 Y169.31 E11.88391
G1 X201.46 Y169.37 E11.91422
G1 X203.08 Y169.89 E12.02007
G1 X204.59 Y170.64 E12.12535
G1 X205.96 Y171.64 E12.23147
G1 X207.12 Y172.81 E12.33386
G1 X208.06 Y174.12 E12.43474
G1 X208.85 Y175.67 E12.54312
G1 X209.38 Y177.38 E12.65478
G1 X209.66 Y179.24 E12.77188
G1 X209.63 Y181.24 E12.89644
G1 X209.30 Y183.13 E13.01669
G1 X208.75 Y184.81 E13.12669
G1 X208.22 Y185.84 E13.19887
G1 X208.46 Y186.21 E13.22594
G1 X209.42 Y189.09 E13.41578
G1 X209.33 Y191.40 E13.55957
G1 X208.92 Y194.26 E13.74012
G1 X206.80 Y197.24 E13.96803
G1 X205.18 Y198.60 E14.09971
G1 X204.44 Y199.03 E14.15328
G1 X204.46 Y199.15 E14.16058
G1 X204.44 Y200.75 E14.26005
G1 X204.15 Y202.63 E14.37907
G1 X203.53 Y204.57 E14.50627
G1 X202.67 Y206.24 E14.62303
G1 X201.61 Y207.69 E14.73515
G1 X200.32 Y208.96 E14.84782
G1 X198.85 Y210.01 E14.96108
G1 X197.21 Y210.82 E15.07476
G1 X195.49 Y211.34 E15.18689
G1 X193.58 Y211.62 E15.30703
G1 X191.49 Y211.58 E15.43739
G1 X190.17 Y211.34 E15.52096
G1 X189.36 Y214.45 E15.72117
G1 X186.14 Y217.67 E16.00538
G1 X182.88 Y219.08 E16.22682
G1 X181.95 Y219.15 E16.28516
G1 X181.52 Y220.01 E16.34484
G1 X179.97 Y221.82 E16.49395
G1 X178.34 Y223.03 E16.62007
G1 X177.26 Y223.56 E16.69501
G1 X177.08 Y224.14 E16.73264
G1 X174.81 Y226.55 E16.93872
G1 X173.20 Y227.66 E17.06098
G1 X171.63 Y228.37 E17.16830
G1 X169.97 Y228.83 E17.27557
G1 X168.11 Y229.05 E17.39258
G1 X167.19 Y229.02 E17.45010
G1 X166.09 Y230.18 E17.54967
G1 X164.87 Y231.12 E17.64570
G1 X164.19 Y231.64 E17.69882
G1 X162.40 Y232.61 E17.82602
G1 X161.74 Y232.97 E17.87311
G1 X159.59 Y239.61 E18.30826
G1 X145.39 Y239.60 E19.19375
G1 X143.25 Y232.94 E19.63004
G1 X142.84 Y232.78 E19.65790
G1 X141.30 Y231.90 E19.76865
G1 X140.58 Y231.48 E19.82017
G1 X139.47 Y230.61 E19.90804
G1 X138.83 Y230.11 E19.95893
G1 X137.81 Y229.03 E20.05152
G1 X137.37 Y229.03 E20.07934
G1 X136.61 Y229.04 E20.12649
G1 X134.59 Y228.75 E20.25340
G1 X133.18 Y228.27 E20.34651
G1 X131.81 Y227.70 E20.43952
G1 X129.55 Y226.04 E20.61361
G1 X127.76 Y223.58 E20.80381
G1 X127.18 Y223.34 E20.84257
G1 X125.08 Y221.92 E21.00120
G1 X123.26 Y219.71 E21.17974
G1 X123.01 Y219.12 E21.21963
G1 X121.27 Y218.88 E21.32918
G1 X117.36 Y216.63 E21.61053
G1 X115.02 Y212.73 E21.89416
G1 X114.82 Y211.35 E21.98129
G1 X114.35 Y211.43 E22.01109
G1 X113.54 Y211.57 E22.06245
G1 X111.65 Y211.62 E22.18005
G1 X109.87 Y211.42 E22.29177
G1 X108.12 Y210.94 E22.40492
G1 X106.43 Y210.18 E22.52076
G1 X104.92 Y209.16 E22.63397
G1 X103.58 Y207.91 E22.74882
G1 X102.47 Y206.46 E22.86258
G1 X101.60 Y204.87 E22.97563
G1 X100.96 Y203.05 E23.09563
G1 X100.58 Y201.09 E23.21988
G1 X100.53 Y199.18 E23.33954
G1 X100.55 Y199.06 E23.34671
G1 X100.34 Y198.96 E23.36143
G1 X97.97 Y197.16 E23.54684
G1 X95.83 Y193.49 E23.81150
G1 X95.47 Y188.52 E24.12203
G1 X96.79 Y185.89 E24.30582
G1 X96.13 Y184.52 E24.40032
G1 X95.60 Y182.73 E24.51694
G1 X95.35 Y180.92 E24.63101
G1 X95.36 Y179.06 E24.74682
G1 X95.62 Y177.37 E24.85390
G1 X96.19 Y175.53 E24.97372
G1 X97.40 Y173.36 E25.12862
G1 X98.82 Y171.83 E25.25861
G1 X100.32 Y170.68 E25.37682
G1 X102.12 Y169.80 E25.50141
G1 X103.80 Y169.32 E25.61028
G1 X104.02 Y169.30 E25.62435
G1 X105.32 Y168.43 E25.72177
G1 X107.19 Y167.56 E25.85019
G1 X108.57 Y167.16 E25.93994
G1 X109.41 Y166.92 E25.99467
G1 X112.03 Y166.61 E26.15895
G1 X114.33 Y166.70 E26.30294
G1 X115.24 Y166.74 E26.35955
G1 X116.82 Y167.04 E26.45983
G1 X117.61 Y167.19 E26.51029
G1 X118.87 Y167.62 E26.59330
G1 X119.66 Y167.90 E26.64517
G1 X120.72 Y168.46 E26.72002
G1 X120.97 Y168.21 E26.74202
G1 X122.06 Y167.40 E26.82656
G1 X122.76 Y166.88 E26.88084
G1 X124.12 Y166.19 E26.97592
G1 X124.91 Y165.79 E27.03114
G1 X126.06 Y165.43 E27.10662
G1 X124.98 Y164.50 E27.19562
G1 X124.28 Y163.90 E27.25342
G1 X122.98 Y162.38 E27.37808
G1 X122.38 Y161.68 E27.43522
G1 X121.33 Y159.96 E27.56104
G1 X120.85 Y159.19 E27.61741
G1 X120.08 Y157.32 E27.74348
G1 X119.73 Y156.48 E27.80029
G1 X119.26 Y154.52 E27.92600
G1 X119.26 Y154.52 E27.92606
G1 X119.04 Y153.63 E27.98301
G1 X118.86 Y151.24 E28.13282
G1 X118.84 Y108.26 E30.81330
G1 X118.84 Y102.54 E31.16982
G1 X118.94 Y101.37 E31.24282
G1 X119.01 Y100.50 E31.29713
G1 X119.36 Y99.01 E31.39296
G1 X119.57 Y98.18 E31.44641
G1 X120.16 Y96.75 E31.54280
G1 X120.49 Y95.94 E31.59740
G1 X121.30 Y94.63 E31.69302
G1 X121.75 Y93.90 E31.74670
G0 F6000 X122.15 Y94.20
G1 F2700 X123.12 Y93.06 E31.83990
G1 X123.66 Y92.43 E31.89148
G1 X124.80 Y91.45 E31.98538
G1 X125.43 Y90.92 E32.03670
G1 X126.71 Y90.14 E32.13006
G1 X127.42 Y89.70 E32.18197
G1 X128.81 Y89.12 E32.27634
G1 X129.55 Y88.81 E32.32621
G1 X131.02 Y88.46 E32.42063
G1 X131.82 Y88.27 E32.47202
G1 X132.23 Y88.23 E32.49761
G1 X132.23 Y86.30 E32.61834
G1 X132.42 Y84.12 E32.75436
G1 X132.51 Y83.11 E32.81785
G1 X133.16 Y80.65 E32.97662
G1 X133.42 Y79.66 E33.04036
G1 X134.49 Y77.33 E33.20015
G1 X134.92 Y76.41 E33.26372
G1 X136.37 Y74.30 E33.42320
G1 X136.94 Y73.46 E33.48688
G1 X138.73 Y71.63 E33.64639
G1 X139.44 Y70.90 E33.70954
G1 X141.52 Y69.40 E33.86960
G1 X142.34 Y68.81 E33.93299
G1 X144.66 Y67.68 E34.09317
G1 X145.57 Y67.24 E34.15667
G1 X148.02 Y66.53 E34.31536
G1 X148.02 Y66.53 E34.31543
G1 X149.00 Y66.25 E34.37951
G1 X151.36 Y65.99 E34.52724
G1 X151.36 Y65.99 E34.52730
G1 X152.77 Y65.84 E34.61577
G1 X155.55 Y66.14 E34.79009
G1 X156.56 Y66.25 E34.85398
G1 X159.01 Y66.96 E35.01294
G1 X159.99 Y67.24 E35.07645
G1 X162.28 Y68.36 E35.23512
G1 X162.28 Y68.36 E35.23519
G1 X163.20 Y68.80 E35.29909
G1 X165.29 Y70.31 E35.45932
G1 X166.11 Y70.90 E35.52288
G1 X167.91 Y72.73 E35.68279
G1 X168.62 Y73.47 E35.74643
G1 X170.06 Y75.56 E35.90510
G1 X170.64 Y76.41 E35.96900
G1 X171.70 Y78.73 E36.12815
G1 X172.13 Y79.66 E36.19230
G1 X172.78 Y82.13 E36.35164
G1 X173.05 Y83.12 E36.41564
G1 X173.30 Y86.08 E36.60041
G1 X173.30 Y88.23 E36.73499
G1 X173.74 Y88.27 E36.76240
G1 X175.19 Y88.62 E36.85578
G1 X175.99 Y88.81 E36.90679
G1 X177.38 Y89.39 E37.00071
G1 X178.15 Y89.71 E37.05282
G1 X179.43 Y90.49 E37.14601
G1 X180.13 Y90.92 E37.19727
G1 X181.26 Y91.89 E37.29048
G1 X181.89 Y92.43 E37.34206
G1 X182.87 Y93.57 E37.43596
G1 X183.41 Y94.20 E37.48728
G1 X184.19 Y95.47 E37.58027
G1 X184.62 Y96.18 E37.63254
G1 X185.19 Y97.55 E37.72449
G1 X185.51 Y98.32 E37.77679
G1 X185.86 Y99.78 E37.87024
G1 X186.06 Y100.59 E37.92260
G1 X186.20 Y102.46 E38.03938
G1 X186.21 Y145.37 E40.71500
G1 X186.21 Y151.06 E41.07028
G1 X186.08 Y152.68 E41.17149
G1 X186.01 Y153.56 E41.22687
G1 X185.55 Y155.47 E41.34904
G1 X185.34 Y156.33 E41.40417
G1 X184.59 Y158.14 E41.52653
G1 X184.25 Y158.96 E41.58146
G1 X183.23 Y160.63 E41.70429
G1 X182.76 Y161.39 E41.75953
G1 X181.49 Y162.88 E41.88188
G1 X180.91 Y163.56 E41.93721
G1 X179.42 Y164.83 E42.05948
G1 X178.75 Y165.40 E42.11410
G1 X178.24 Y165.72 E42.15202
G1 X179.25 Y166.05 E42.21900
G1 X180.01 Y166.31 E42.26879
G1 X181.17 Y166.90 E42.34992
G1 X181.94 Y167.29 E42.40364
G1 X183.13 Y168.17 E42.49616
G1 X183.84 Y168.69 E42.55088
G1 X184.18 Y169.05 E42.58189
G1 X184.29 Y168.98 E42.58976
G1 X185.36 Y168.47 E42.66405
G1 X186.05 Y168.15 E42.71175
G1 X187.48 Y167.72 E42.80424
G1 X188.28 Y167.48 E42.85668
G1 X190.96 Y167.14 E43.02485
G1 X192.87 Y167.15 E43.14440
G1 X193.71 Y167.16 E43.19679
G1 X195.12 Y167.38 E43.28566
G1 X195.88 Y167.50 E43.33370
G1 X197.10 Y167.88 E43.41343
G1 X197.85 Y168.11 E43.46214
G1 X199.51 Y168.92 E43.57744
G1 X200.55 Y169.62 E43.65565
G1 X200.79 Y169.78 E43.67356
G1 X201.35 Y169.86 E43.70871
G1 X202.89 Y170.35 E43.80960
G1 X204.33 Y171.07 E43.90980
G1 X205.64 Y172.02 E44.01079
G1 X206.73 Y173.14 E44.10829
G1 X207.64 Y174.38 E44.20436
G1 X208.39 Y175.86 E44.30763
G1 X208.90 Y177.49 E44.41428
G1 X209.16 Y179.27 E44.52639
G1 X209.13 Y181.19 E44.64595
G1 X208.82 Y183.01 E44.76145
G1 X208.28 Y184.62 E44.86686
G1 X207.65 Y185.87 E44.95454
G1 X208.00 Y186.43 E44.99552
G1 X208.92 Y189.17 E45.17577
G1 X208.83 Y191.35 E45.31220
G1 X208.44 Y194.07 E45.48362
G1 X206.43 Y196.90 E45.70004
G1 X204.89 Y198.19 E45.82509
G1 X203.90 Y198.77 E45.89649
G1 X203.96 Y199.18 E45.92239
G1 X203.94 Y200.71 E46.01749
G1 X203.66 Y202.52 E46.13177
G1 X203.06 Y204.38 E46.25393
G1 X202.24 Y205.97 E46.36567
G1 X201.23 Y207.36 E46.47289
G1 X200.00 Y208.58 E46.58053
G1 X198.59 Y209.58 E46.68874
G1 X197.03 Y210.35 E46.79740
G1 X195.38 Y210.85 E46.90463
G1 X193.55 Y211.12 E47.01974
G1 X191.54 Y211.08 E47.14517
G1 X189.99 Y210.80 E47.24363
G1 X189.81 Y210.77 E47.25510
G1 X188.91 Y214.19 E47.47569
G1 X185.85 Y217.25 E47.74547
G1 X182.76 Y218.59 E47.95569
G1 X181.63 Y218.67 E48.02654
G1 X181.10 Y219.73 E48.10008
G1 X179.62 Y221.46 E48.24185
G1 X178.08 Y222.60 E48.36174
G1 X176.86 Y223.21 E48.44688
G1 X176.64 Y223.88 E48.49057
G1 X174.49 Y226.17 E48.68641
G1 X172.95 Y227.22 E48.80262
G1 X171.46 Y227.90 E48.90480
G1 X169.88 Y228.34 E49.00710
G1 X168.09 Y228.55 E49.11945
G1 X166.98 Y228.51 E49.18865
G1 X165.76 Y229.81 E49.29973
G1 X164.57 Y230.72 E49.39332
G1 X163.92 Y231.22 E49.44399
G1 X162.14 Y232.18 E49.57013
G1 X161.38 Y232.60 E49.62416
G1 X161.33 Y232.62 E49.62781
G1 X159.23 Y239.11 E50.05352
G1 X145.76 Y239.10 E50.89355
G1 X143.65 Y232.56 E51.32193
G1 X143.05 Y232.33 E51.36220
G1 X141.55 Y231.46 E51.47062
G1 X140.86 Y231.07 E51.51991
G1 X139.78 Y230.22 E51.60555
G1 X139.17 Y229.74 E51.65409
G1 X138.03 Y228.53 E51.75784
G1 X137.36 Y228.53 E51.79969
G1 X136.64 Y228.54 E51.84428
G1 X134.71 Y228.27 E51.96583
G1 X133.36 Y227.80 E52.05497
G1 X132.05 Y227.26 E52.14323
G1 X129.91 Y225.69 E52.30880
G1 X128.16 Y223.29 E52.49372
G1 X128.13 Y223.19 E52.50009
G1 X127.42 Y222.90 E52.54810
G1 X125.42 Y221.54 E52.69905
G1 X123.69 Y219.44 E52.86860
G1 X123.35 Y218.66 E52.92174
G1 X121.43 Y218.40 E53.04286
G1 X117.72 Y216.26 E53.30999
G1 X115.50 Y212.56 E53.57922
G1 X115.24 Y210.77 E53.69217
G1 X114.23 Y210.94 E53.75634
G1 X113.49 Y211.07 E53.80333
G1 X111.67 Y211.12 E53.91643
G1 X109.97 Y210.93 E54.02351
G1 X108.29 Y210.47 E54.13181
G1 X106.67 Y209.74 E54.24258
G1 X105.23 Y208.77 E54.35070
G1 X103.95 Y207.57 E54.46044
G1 X102.89 Y206.18 E54.56916
G1 X102.06 Y204.66 E54.67733
G1 X101.44 Y202.92 E54.79256
G1 X101.08 Y201.04 E54.91181
G1 X101.03 Y199.20 E55.02653
G1 X101.09 Y198.77 E55.05377
G1 X100.60 Y198.53 E55.08777
G1 X98.36 Y196.82 E55.26389
G1 X96.33 Y193.34 E55.51519
G1 X95.98 Y188.62 E55.80995
G1 X97.35 Y185.89 E56.00044
G1 X96.60 Y184.34 E56.10771
G1 X96.09 Y182.62 E56.21954
G1 X95.85 Y180.88 E56.32902
G1 X95.86 Y179.10 E56.44021
G1 X96.11 Y177.48 E56.54268
G1 X96.65 Y175.72 E56.65701
G1 X97.81 Y173.66 E56.80485
G1 X99.16 Y172.21 E56.92844
G1 X100.59 Y171.11 E57.04096
G1 X102.30 Y170.27 E57.15967
G1 X103.89 Y169.82 E57.26327
G1 X104.20 Y169.78 E57.28231
G1 X105.56 Y168.87 E57.38481
G1 X107.36 Y168.03 E57.50840
G1 X108.71 Y167.64 E57.59570
G1 X109.51 Y167.41 E57.64789
G1 X112.05 Y167.11 E57.80721
G1 X114.31 Y167.20 E57.94864
G1 X115.18 Y167.24 E58.00301
G1 X116.73 Y167.53 E58.10088
G1 X117.48 Y167.68 E58.14911
G1 X118.71 Y168.10 E58.22995
G1 X119.46 Y168.36 E58.27944
G1 X120.54 Y168.93 E58.35567
G1 X120.81 Y169.07 E58.37470
G1 X121.30 Y168.59 E58.41730
G1 X122.36 Y167.81 E58.49953
G1 X123.03 Y167.31 E58.55135
G1 X124.35 Y166.64 E58.64370
G1 X125.10 Y166.25 E58.69641
G1 X126.67 Y165.76 E58.79944
G1 X127.14 Y165.61 E58.83011
G1 X126.80 Y165.39 E58.85562
G1 X125.30 Y164.12 E58.97797
G1 X124.63 Y163.54 E59.03331
G1 X123.36 Y162.05 E59.15557
G1 X122.79 Y161.38 E59.21028
G1 X121.75 Y159.70 E59.33361
G1 X121.30 Y158.96 E59.38759
G1 X120.54 Y157.13 E59.51112
G1 X120.54 Y157.13 E59.51118
G1 X120.21 Y156.33 E59.56558
G1 X119.75 Y154.40 E59.68885
G1 X119.54 Y153.56 E59.74334
G1 X119.36 Y151.22 E59.88939
G1 X119.34 Y108.26 E62.56869
G1 X119.34 Y102.56 E62.92397
G1 X119.43 Y101.41 E62.99571
G1 X119.50 Y100.58 E63.04758
G1 X119.85 Y99.13 E63.14097
G1 X120.04 Y98.33 E63.19197
G1 X120.62 Y96.94 E63.28590
G1 X120.94 Y96.17 E63.33800
G1 X121.72 Y94.90 E63.43119
G1 X122.15 Y94.20 E63.48246
G0 F6000 X122.56 Y94.49
G1 F2700 X123.50 Y93.38 E63.57323
G1 X124.01 Y92.78 E63.62242
G1 X125.13 Y91.83 E63.71376
G1 X125.72 Y91.32 E63.76269
G1 X126.97 Y90.56 E63.85364
G1 X127.64 Y90.15 E63.90306
G1 X129.00 Y89.58 E63.99494
G1 X129.71 Y89.29 E64.04238
G1 X131.14 Y88.95 E64.13436
G1 X131.14 Y88.95 E64.13442
G1 X131.90 Y88.76 E64.18332
G1 X132.73 Y88.70 E64.23531
G1 X132.73 Y86.32 E64.38354
G1 X132.92 Y84.17 E64.51818
G1 X133.01 Y83.20 E64.57898
G1 X133.64 Y80.78 E64.73510
G1 X133.90 Y79.83 E64.79614
G1 X134.94 Y77.54 E64.95325
G1 X135.35 Y76.65 E65.01413
G1 X136.78 Y74.58 E65.17097
G1 X137.33 Y73.78 E65.23200
G1 X139.09 Y71.98 E65.38878
G1 X139.77 Y71.28 E65.44928
G1 X141.81 Y69.81 E65.60666
G1 X142.60 Y69.24 E65.66728
G1 X144.87 Y68.13 E65.82478
G1 X145.75 Y67.71 E65.88561
G1 X148.16 Y67.01 E66.04218
G1 X148.16 Y67.01 E66.04225
G1 X149.10 Y66.74 E66.10315
G1 X151.41 Y66.49 E66.24813
G1 X151.41 Y66.49 E66.24819
G1 X152.77 Y66.34 E66.33333
G1 X155.49 Y66.63 E66.50414
G1 X156.47 Y66.74 E66.56533
G1 X158.88 Y67.44 E66.72163
G1 X159.81 Y67.71 E66.78247
G1 X162.06 Y68.81 E66.93847
G1 X162.06 Y68.81 E66.93853
G1 X162.94 Y69.23 E66.99972
G1 X164.99 Y70.71 E67.15724
G1 X165.78 Y71.28 E67.21817
G1 X167.55 Y73.08 E67.37534
G1 X168.23 Y73.78 E67.43633
G1 X169.65 Y75.86 E67.59298
G1 X170.20 Y76.66 E67.65353
G1 X171.25 Y78.94 E67.81002
G1 X171.66 Y79.83 E67.87147
G1 X172.30 Y82.26 E68.02811
G1 X172.55 Y83.21 E68.08941
G1 X172.80 Y86.10 E68.27011
G1 X172.80 Y88.70 E68.43219
G1 X172.87 Y88.70 E68.43651
G1 X173.66 Y88.77 E68.48594
G1 X175.08 Y89.11 E68.57689
G1 X175.84 Y89.29 E68.62546
G1 X177.19 Y89.85 E68.71689
G1 X177.93 Y90.16 E68.76654
G1 X179.17 Y90.92 E68.85736
G1 X179.83 Y91.33 E68.90610
G1 X180.94 Y92.27 E68.99678
G1 X181.54 Y92.78 E69.04606
G1 X182.49 Y93.90 E69.13740
G1 X183.00 Y94.49 E69.18632
G1 X183.76 Y95.73 E69.27692
G1 X184.18 Y96.41 E69.32669
G1 X184.74 Y97.77 E69.41858
G1 X185.03 Y98.48 E69.46602
G1 X185.38 Y99.91 E69.55800
G1 X185.38 Y99.91 E69.55806
G1 X185.56 Y100.67 E69.60696
G1 X185.70 Y102.48 E69.72006
G1 X185.71 Y145.37 E72.39448
G1 X185.71 Y151.04 E72.74858
G1 X185.59 Y152.64 E72.84847
G1 X185.51 Y153.49 E72.90142
G1 X185.07 Y155.35 E73.02115
G1 X184.87 Y156.17 E73.07379
G1 X184.13 Y157.95 E73.19371
G1 X183.81 Y158.73 E73.24621
G1 X182.80 Y160.37 E73.36655
G1 X182.36 Y161.09 E73.41935
G1 X181.11 Y162.56 E73.53927
G1 X180.56 Y163.20 E73.59216
G1 X179.09 Y164.45 E73.71195
G1 X178.46 Y164.99 E73.76414
G1 X176.93 Y165.93 E73.87630
G1 X177.72 Y166.07 E73.92631
G1 X179.10 Y166.53 E74.01701
G1 X179.82 Y166.77 E74.06446
G1 X180.94 Y167.34 E74.14339
G1 X181.68 Y167.72 E74.19451
G1 X182.81 Y168.56 E74.28288
G1 X183.51 Y169.07 E74.33640
G1 X184.11 Y169.70 E74.39083
G1 X184.53 Y169.42 E74.42259
G1 X185.58 Y168.93 E74.49459
G1 X186.23 Y168.61 E74.53998
G1 X187.63 Y168.20 E74.63092
G1 X188.39 Y167.97 E74.67997
G1 X190.99 Y167.64 E74.84348
G1 X192.87 Y167.65 E74.96085
G1 X193.67 Y167.66 E75.01093
G1 X195.04 Y167.88 E75.09759
G1 X195.77 Y167.99 E75.14330
G1 X196.96 Y168.36 E75.22080
G1 X197.66 Y168.58 E75.26717
G1 X199.26 Y169.35 E75.37790
G1 X200.27 Y170.03 E75.45364
G1 X200.60 Y170.26 E75.47862
G1 X201.24 Y170.35 E75.51869
G1 X202.70 Y170.82 E75.61454
G1 X204.07 Y171.50 E75.70979
G1 X205.31 Y172.40 E75.80555
G1 X206.35 Y173.46 E75.89815
G1 X207.21 Y174.65 E75.98939
G1 X207.92 Y176.05 E76.08762
G1 X208.41 Y177.61 E76.18930
G1 X208.66 Y179.31 E76.29642
G1 X208.63 Y181.14 E76.41093
G1 X208.33 Y182.89 E76.52168
G1 X207.82 Y184.42 E76.62243
G1 X207.12 Y185.81 E76.71891
G1 X207.06 Y185.89 E76.72521
G1 X207.55 Y186.64 E76.78125
G1 X208.41 Y189.24 E76.95184
G1 X208.33 Y191.31 E77.08103
G1 X207.96 Y193.88 E77.24325
G1 X206.06 Y196.56 E77.44809
G1 X204.60 Y197.78 E77.56655
G1 X203.37 Y198.50 E77.65580
G1 X203.46 Y199.21 E77.70030
G1 X203.44 Y200.66 E77.79104
G1 X203.18 Y202.40 E77.90065
G1 X202.60 Y204.19 E78.01770
G1 X201.81 Y205.71 E78.12452
G1 X200.85 Y207.04 E78.22683
G1 X199.68 Y208.19 E78.32940
G1 X198.33 Y209.15 E78.43256
G1 X196.84 Y209.88 E78.53622
G1 X195.27 Y210.37 E78.63851
G1 X193.52 Y210.62 E78.74870
G1 X191.59 Y210.58 E78.86921
G1 X190.08 Y210.31 E78.96513
G1 X189.42 Y210.19 E79.00665
G1 X189.39 Y210.18 E79.00854
G1 X189.40 Y210.36 E79.01971
G1 X188.46 Y213.94 E79.24996
G1 X185.57 Y216.83 E79.50537
G1 X182.64 Y218.10 E79.70433
G1 X181.31 Y218.20 E79.78768
G1 X180.68 Y219.45 E79.87512
G1 X179.28 Y221.09 E80.00949
G1 X177.81 Y222.17 E80.12314
G1 X176.45 Y222.86 E80.21847
G1 X176.20 Y223.62 E80.26833
G1 X174.16 Y225.78 E80.45385
G1 X172.70 Y226.78 E80.56400
G1 X171.29 Y227.43 E80.66105
G1 X169.78 Y227.85 E80.75848
G1 X168.07 Y228.05 E80.86607
G1 X166.76 Y228.01 E80.94749
G1 X166.74 Y228.04 E80.95019
G1 X165.42 Y229.44 E81.06983
G1 X164.26 Y230.32 E81.16088
G1 X163.65 Y230.79 E81.20912
G1 X161.92 Y231.74 E81.33166
G1 X161.18 Y232.14 E81.38454
G1 X160.93 Y232.23 E81.40105
G1 X160.92 Y232.25 E81.40198
G1 X158.87 Y238.61 E81.81935
G1 X146.12 Y238.60 E82.61404
G1 X144.06 Y232.19 E83.03441
G1 X143.27 Y231.88 E83.08720
G1 X141.80 Y231.03 E83.19328
G1 X141.14 Y230.65 E83.24036
G1 X140.09 Y229.83 E83.32375
G1 X139.51 Y229.37 E83.36997
G1 X138.32 Y228.11 E83.47770
G1 X138.26 Y228.03 E83.48410
G1 X137.35 Y228.03 E83.54085
G1 X136.67 Y228.04 E83.58320
G1 X134.83 Y227.78 E83.69940
G1 X133.54 Y227.33 E83.78452
G1 X132.30 Y226.82 E83.86808
G1 X130.27 Y225.33 E84.02508
G1 X128.62 Y223.06 E84.20024
G1 X128.54 Y222.82 E84.21600
G1 X127.66 Y222.46 E84.27522
G1 X125.76 Y221.17 E84.41841
G1 X124.12 Y219.18 E84.57905
G1 X123.70 Y218.20 E84.64546
G1 X121.59 Y217.92 E84.77816
G1 X118.08 Y215.89 E85.03101
G1 X115.98 Y212.39 E85.28583
G1 X115.66 Y210.16 E85.42593
G1 X115.50 Y210.21 E85.43611
G1 X114.17 Y210.44 E85.52028
G1 X114.17 Y210.44 E85.52034
G1 X113.44 Y210.57 E85.56713
G1 X111.69 Y210.62 E85.67575
G1 X110.06 Y210.43 E85.77830
G1 X108.46 Y210.00 E85.88169
G1 X106.92 Y209.30 E85.98732
G1 X105.55 Y208.38 E86.09038
G1 X104.32 Y207.23 E86.19503
G1 X103.31 Y205.91 E86.29877
G1 X102.52 Y204.46 E86.40208
G1 X101.92 Y202.79 E86.51242
G1 X101.58 Y200.99 E86.62678
G1 X101.53 Y199.23 E86.73645
G1 X101.64 Y198.48 E86.78370
G1 X100.86 Y198.10 E86.83711
G1 X98.74 Y196.48 E87.00401
G1 X96.81 Y193.19 E87.24190
G1 X96.49 Y188.72 E87.52084
G1 X97.90 Y185.90 E87.71802
G1 X97.07 Y184.16 E87.83810
G1 X96.58 Y182.52 E87.94511
G1 X96.35 Y180.85 E88.05005
G1 X96.35 Y179.14 E88.15657
G1 X96.60 Y177.59 E88.25449
G1 X97.11 Y175.92 E88.36330
G1 X98.21 Y173.95 E88.50404
G1 X99.49 Y172.58 E88.62128
G1 X100.85 Y171.53 E88.72811
G1 X102.47 Y170.74 E88.84084
G1 X103.99 Y170.31 E88.93933
G1 X104.38 Y170.26 E88.96340
G1 X105.81 Y169.30 E89.07079
G1 X107.54 Y168.50 E89.18962
G1 X108.84 Y168.12 E89.27405
G1 X108.84 Y168.12 E89.27412
G1 X109.61 Y167.90 E89.32423
G1 X112.07 Y167.61 E89.47846
G1 X114.29 Y167.70 E89.61746
G1 X115.13 Y167.73 E89.66951
G1 X116.63 Y168.02 E89.76504
G1 X117.36 Y168.16 E89.81099
G1 X118.55 Y168.57 E89.88964
G1 X119.26 Y168.82 E89.93677
G1 X120.31 Y169.37 E90.01067
G1 X120.91 Y169.68 E90.05273
G1 X121.05 Y169.54 E90.06513
G1 X121.62 Y168.97 E90.11584
G1 X122.64 Y168.22 E90.19477
G1 X123.29 Y167.73 E90.24512
G1 X124.57 Y167.08 E90.33478
G1 X125.29 Y166.72 E90.38490
G1 X126.84 Y166.23 E90.48636
G1 X127.59 Y165.99 E90.53570
G1 X128.50 Y165.85 E90.59266
G1 X127.81 Y165.43 E90.64282
G1 X127.09 Y164.99 E90.69558
G1 X125.63 Y163.74 E90.81549
G1 X124.98 Y163.19 E90.86839
G1 X123.74 Y161.73 E90.98818
G1 X123.19 Y161.09 E91.04045
G1 X122.18 Y159.44 E91.16129
G1 X121.75 Y158.73 E91.21286
G1 X121.00 Y156.94 E91.33390
G1 X120.68 Y156.17 E91.38590
G1 X120.24 Y154.31 E91.50487
G1 X120.24 Y154.31 E91.50493
G1 X120.03 Y153.48 E91.55877
G1 X119.86 Y151.20 E91.70114
G1 X119.84 Y108.26 E94.37918
G1 X119.84 Y102.58 E94.73328
G1 X119.93 Y101.45 E94.80371
G1 X120.00 Y100.66 E94.85314
G1 X120.34 Y99.25 E94.94409
G1 X120.52 Y98.49 E94.99266
G1 X121.08 Y97.13 E95.08410
G1 X121.39 Y96.40 E95.13375
G1 X122.15 Y95.16 E95.22456
G1 X122.56 Y94.49 E95.27330
G0 F6000 X122.96 Y94.79
G1 F2700 X123.88 Y93.71 E95.36169
G1 X124.37 Y93.14 E95.40831
G1 X125.45 Y92.21 E95.49727
G1 X126.02 Y91.73 E95.54367
G1 X127.23 Y90.99 E95.63222
G1 X127.87 Y90.59 E95.67914
G1 X129.16 Y90.06 E95.76636
G1 X129.86 Y89.77 E95.81366
G1 X131.26 Y89.43 E95.90314
G1 X131.26 Y89.43 E95.90320
G1 X131.98 Y89.26 E95.94967
G1 X133.23 Y89.16 E96.02798
G1 X133.23 Y86.34 E96.20378
G1 X133.42 Y84.21 E96.33698
G1 X133.50 Y83.28 E96.39509
G1 X134.13 Y80.90 E96.54864
G1 X134.37 Y80.00 E96.60695
G1 X135.40 Y77.75 E96.76132
G1 X135.79 Y76.90 E96.81956
G1 X137.19 Y74.86 E96.97372
G1 X137.72 Y74.09 E97.03201
G1 X139.45 Y72.33 E97.18614
G1 X140.09 Y71.66 E97.24396
G1 X142.11 Y70.21 E97.39862
G1 X142.86 Y69.67 E97.45660
G1 X145.09 Y68.58 E97.61140
G1 X145.93 Y68.18 E97.66949
G1 X148.29 Y67.49 E97.82293
G1 X149.20 Y67.23 E97.88163
G1 X151.47 Y66.98 E98.02390
G1 X151.47 Y66.99 E98.02397
G1 X152.77 Y66.84 E98.10572
G1 X155.44 Y67.13 E98.27308
G1 X156.37 Y67.24 E98.33157
G1 X158.74 Y67.92 E98.48521
G1 X159.63 Y68.18 E98.54337
G1 X161.85 Y69.26 E98.69733
G1 X162.69 Y69.66 E98.75521
G1 X164.70 Y71.12 E98.91004
G1 X165.46 Y71.66 E98.96820
G1 X167.19 Y73.43 E99.12273
G1 X167.84 Y74.10 E99.18103
G1 X169.23 Y76.13 E99.33437
G1 X169.77 Y76.90 E99.39289
G1 X170.79 Y79.14 E99.54671
G1 X171.19 Y80.00 E99.60542
G1 X171.82 Y82.39 E99.75942
G1 X172.06 Y83.30 E99.81799
G1 X172.30 Y86.12 E99.99469
G1 X172.30 Y89.16 E100.18421
G1 X172.83 Y89.20 E100.21736
G1 X173.58 Y89.26 E100.26423
G1 X174.96 Y89.59 E100.35280
G1 X175.68 Y89.77 E100.39894
G1 X177.00 Y90.31 E100.48791
G1 X177.70 Y90.60 E100.53504
G1 X178.90 Y91.34 E100.62342
G1 X179.54 Y91.73 E100.66975
G1 X180.61 Y92.65 E100.75796
G1 X181.18 Y93.14 E100.80476
G1 X182.11 Y94.22 E100.89371
G1 X182.59 Y94.79 E100.94012
G1 X183.34 Y96.00 E101.02867
G1 X183.73 Y96.64 E101.07559
G1 X184.26 Y97.93 E101.16281
G1 X184.56 Y98.63 E101.21011
G1 X184.89 Y100.03 E101.29959
G1 X184.89 Y100.03 E101.29965
G1 X185.07 Y100.75 E101.34612
G1 X185.20 Y102.50 E101.45552
G1 X185.21 Y145.37 E104.12870
G1 X185.21 Y151.02 E104.48155
G1 X185.09 Y152.60 E104.58019
G1 X185.02 Y153.41 E104.63063
G1 X184.58 Y155.24 E104.74793
G1 X184.39 Y156.02 E104.79818
G1 X183.67 Y157.76 E104.91564
G1 X183.36 Y158.50 E104.96570
G1 X182.38 Y160.11 E105.08355
G1 X181.95 Y160.80 E105.13395
G1 X180.73 Y162.23 E105.25135
G1 X180.20 Y162.84 E105.30181
G1 X178.77 Y164.07 E105.41916
G1 X178.16 Y164.59 E105.46896
G1 X176.57 Y165.56 E105.58562
G1 X176.57 Y165.56 E105.58569
G1 X175.87 Y165.99 E105.63659
G1 X175.42 Y166.18 E105.66729
G1 X176.79 Y166.41 E105.75434
G1 X177.59 Y166.56 E105.80487
G1 X178.94 Y167.00 E105.89326
G1 X179.62 Y167.23 E105.93834
G1 X180.72 Y167.79 E106.01504
G1 X181.41 Y168.14 E106.06351
G1 X182.54 Y168.97 E106.15077
G1 X183.18 Y169.44 E106.20019
G1 X184.04 Y170.35 E106.27804
G1 X184.78 Y169.85 E106.33368
G1 X185.79 Y169.38 E106.40340
G1 X186.41 Y169.08 E106.44641
G1 X187.76 Y168.68 E106.53414
G1 X187.76 Y168.68 E106.53421
G1 X188.49 Y168.47 E106.58158
G1 X191.02 Y168.14 E106.74043
G1 X192.86 Y168.15 E106.85562
G1 X193.63 Y168.16 E106.90339
G1 X194.97 Y168.37 E106.98778
G1 X195.66 Y168.48 E107.03129
G1 X196.81 Y168.84 E107.10650
G1 X197.48 Y169.04 E107.15045
G1 X199.01 Y169.79 E107.25671
G1 X199.99 Y170.44 E107.32993
G1 X200.41 Y170.74 E107.36207
G1 X201.12 Y170.84 E107.40699
G1 X202.51 Y171.28 E107.49785
G1 X203.81 Y171.93 E107.58802
G1 X204.98 Y172.78 E107.67869
G1 X205.97 Y173.78 E107.76636
G1 X206.78 Y174.91 E107.85277
G1 X207.46 Y176.24 E107.94598
G1 X207.92 Y177.72 E108.04261
G1 X208.16 Y179.34 E108.14476
G1 X208.13 Y181.09 E108.25428
G1 X207.84 Y182.77 E108.36029
G1 X207.36 Y184.23 E108.45637
G1 X206.69 Y185.54 E108.54810
G1 X206.46 Y185.87 E108.57320
G1 X207.09 Y186.86 E108.64661
G1 X207.91 Y189.31 E108.80761
G1 X207.83 Y191.26 E108.92951
G1 X207.49 Y193.69 E109.08252
G1 X205.68 Y196.22 E109.27596
G1 X204.32 Y197.37 E109.38774
G1 X203.04 Y198.11 E109.47959
G1 X202.82 Y198.19 E109.49413
G1 X202.96 Y199.24 E109.55969
G1 X202.94 Y200.62 E109.64613
G1 X202.69 Y202.28 E109.75094
G1 X202.14 Y204.00 E109.86302
G1 X201.39 Y205.45 E109.96477
G1 X200.47 Y206.71 E110.06222
G1 X199.36 Y207.81 E110.15976
G1 X198.07 Y208.72 E110.25786
G1 X196.66 Y209.42 E110.35654
G1 X195.16 Y209.88 E110.45387
G1 X193.49 Y210.12 E110.55914
G1 X191.64 Y210.08 E110.67465
G1 X190.16 Y209.82 E110.76811
G1 X189.54 Y209.71 E110.80761
G1 X188.87 Y209.50 E110.85130
G1 X188.90 Y210.31 E110.90171
G1 X188.01 Y213.68 E111.11907
G1 X185.28 Y216.41 E111.36001
G1 X182.52 Y217.60 E111.54775
G1 X180.99 Y217.72 E111.64354
G1 X180.26 Y219.17 E111.74492
G1 X178.94 Y220.72 E111.87200
G1 X177.55 Y221.74 E111.97932
G1 X176.25 Y222.39 E112.06990
G1 X176.05 Y222.46 E112.08313
G1 X175.76 Y223.35 E112.14184
G1 X173.83 Y225.40 E112.31709
G1 X172.46 Y226.34 E112.42122
G1 X171.12 Y226.96 E112.51308
G1 X169.69 Y227.35 E112.60568
G1 X168.05 Y227.55 E112.70855
G1 X166.65 Y227.50 E112.79559
G1 X166.51 Y227.50 E112.80464
G1 X166.35 Y227.73 E112.82209
G1 X165.09 Y229.06 E112.93675
G1 X163.96 Y229.93 E113.02522
G1 X163.37 Y230.37 E113.07113
G1 X161.66 Y231.31 E113.19250
G1 X160.97 Y231.69 E113.24179
G1 X160.53 Y231.84 E113.27122
G1 X160.45 Y232.09 E113.28747
G1 X158.50 Y238.11 E113.68204
G1 X146.49 Y238.10 E114.43127
G1 X144.46 Y231.81 E114.84379
G1 X144.28 Y231.74 E114.85586
G1 X144.28 Y231.74 E114.85592
G1 X143.49 Y231.43 E114.90906
G1 X142.05 Y230.60 E115.01282
G1 X141.42 Y230.24 E115.05773
G1 X140.40 Y229.43 E115.13884
G1 X139.85 Y229.00 E115.18279
G1 X138.71 Y227.79 E115.28593
G1 X138.52 Y227.52 E115.30688
G1 X138.46 Y227.53 E115.31041
G1 X137.34 Y227.53 E115.38013
G1 X136.70 Y227.54 E115.41992
G1 X134.95 Y227.29 E115.53064
G1 X133.71 Y226.87 E115.61188
G1 X132.55 Y226.38 E115.69066
G1 X130.63 Y224.97 E115.83905
G1 X129.07 Y222.83 E116.00451
G1 X128.94 Y222.44 E116.02972
G1 X127.90 Y222.02 E116.10005
G1 X126.10 Y220.79 E116.23559
G1 X124.55 Y218.92 E116.38724
G1 X124.05 Y217.75 E116.46683
G1 X121.76 Y217.44 E116.61105
G1 X118.44 Y215.53 E116.84965
G1 X116.46 Y212.22 E117.09015
G1 X116.07 Y209.51 E117.26050
G1 X115.39 Y209.73 E117.30522
G1 X114.06 Y209.96 E117.38939
G1 X114.06 Y209.96 E117.38945
G1 X113.39 Y210.07 E117.43207
G1 X111.72 Y210.12 E117.53620
G1 X110.16 Y209.94 E117.63411
G1 X108.63 Y209.53 E117.73266
G1 X107.16 Y208.86 E117.83321
G1 X105.86 Y207.99 E117.93113
G1 X104.69 Y206.90 E118.03071
G1 X103.73 Y205.64 E118.12943
G1 X102.98 Y204.25 E118.22791
G1 X102.41 Y202.66 E118.33342
G1 X102.08 Y200.93 E118.44282
G1 X102.04 Y199.26 E118.54744
G1 X102.18 Y198.19 E118.61469
G1 X101.13 Y197.68 E118.68754
G1 X99.12 Y196.14 E118.84510
G1 X97.31 Y193.03 E119.06963
G1 X97.00 Y188.83 E119.33275
G1 X98.49 Y185.84 E119.54097
G1 X98.34 Y185.65 E119.55601
G1 X97.54 Y183.98 E119.67160
G1 X97.07 Y182.41 E119.77380
G1 X96.85 Y180.82 E119.87421
G1 X96.85 Y179.18 E119.97611
G1 X97.09 Y177.70 E120.06943
G1 X97.57 Y176.12 E120.17274
G1 X98.62 Y174.25 E120.30641
G1 X99.83 Y172.95 E120.41730
G1 X101.11 Y171.96 E120.51830
G1 X102.66 Y171.21 E120.62520
G1 X104.09 Y170.80 E120.71851
G1 X104.56 Y170.74 E120.74805
G1 X104.58 Y170.72 E120.74941
G1 X106.06 Y169.74 E120.86004
G1 X107.71 Y168.97 E120.97407
G1 X108.98 Y168.60 E121.05649
G1 X109.71 Y168.39 E121.10362
G1 X112.09 Y168.11 E121.25290
G1 X114.27 Y168.20 E121.38934
G1 X115.07 Y168.23 E121.43908
G1 X116.54 Y168.51 E121.53226
G1 X117.22 Y168.65 E121.57598
G1 X118.39 Y169.04 E121.65246
G1 X119.06 Y169.28 E121.69721
G1 X120.08 Y169.81 E121.76874
G1 X120.70 Y170.14 E121.81247
G1 X120.97 Y170.34 E121.83325
G1 X121.40 Y169.89 E121.87193
G1 X121.95 Y169.35 E121.92013
G1 X122.95 Y168.61 E121.99790
G1 X123.56 Y168.16 E122.04464
G1 X124.80 Y167.53 E122.13161
G1 X125.48 Y167.18 E122.17921
G1 X126.98 Y166.71 E122.27734
G1 X127.71 Y166.48 E122.32505
G1 X129.91 Y166.14 E122.46375
G1 X130.01 Y166.13 E122.47012
G1 X129.69 Y165.99 E122.49190
G1 X128.07 Y165.01 E122.60983
G1 X127.39 Y164.58 E122.66017
G1 X125.95 Y163.36 E122.77757
G1 X125.34 Y162.83 E122.82803
G1 X124.12 Y161.40 E122.94538
G1 X123.60 Y160.79 E122.99523
G1 X122.61 Y159.18 E123.11361
G1 X122.19 Y158.50 E123.16278
G1 X121.47 Y156.75 E123.28130
G1 X121.47 Y156.75 E123.28136
G1 X121.16 Y156.01 E123.33098
G1 X120.72 Y154.17 E123.44923
G1 X120.53 Y153.40 E123.49891
G1 X120.36 Y151.18 E123.63752
G1 X120.34 Y108.26 E126.31438
G1 X120.34 Y102.60 E126.66729
G1 X120.43 Y101.49 E126.73647
G1 X120.49 Y100.74 E126.78334
G1 X120.82 Y99.36 E126.87191
G1 X121.00 Y98.64 E126.91805
G1 X121.54 Y97.32 E127.00702
G1 X121.83 Y96.63 E127.05415
G1 X122.57 Y95.42 E127.14253
G1 X122.96 Y94.79 E127.18886
G0 F6000 X123.37 Y95.08
G1 F2700 X124.26 Y94.03 E127.27481
G1 X124.72 Y93.49 E127.31905
G1 X125.78 Y92.59 E127.40553
G1 X126.31 Y92.14 E127.44950
G1 X127.49 Y91.41 E127.53561
G1 X128.10 Y91.04 E127.58004
G1 X129.36 Y90.52 E127.66490
G1 X130.02 Y90.25 E127.70969
G1 X131.36 Y89.92 E127.79583
G1 X132.06 Y89.75 E127.84068
G1 X133.45 Y89.64 E127.92763
G1 X133.45 Y89.64 E127.92769
G1 X133.73 Y89.62 E127.94540
G1 X133.73 Y86.36 E128.14858
G1 X133.91 Y84.26 E128.28040
G1 X134.00 Y83.37 E128.33582
G1 X134.61 Y81.03 E128.48672
G1 X134.84 Y80.17 E128.54234
G1 X135.85 Y77.96 E128.69409
G1 X136.23 Y77.15 E128.74956
G1 X137.60 Y75.15 E128.90102
G1 X138.11 Y74.41 E128.95667
G1 X139.81 Y72.68 E129.10811
G1 X140.42 Y72.04 E129.16324
G1 X142.39 Y70.62 E129.31482
G1 X142.39 Y70.62 E129.31491
G1 X143.12 Y70.10 E129.37060
G1 X145.31 Y69.03 E129.52267
G1 X146.11 Y68.64 E129.57812
G1 X148.43 Y67.97 E129.72891
G1 X149.29 Y67.72 E129.78488
G1 X151.52 Y67.48 E129.92445
G1 X151.52 Y67.48 E129.92452
G1 X152.77 Y67.34 E130.00294
G1 X155.38 Y67.63 E130.16679
G1 X156.27 Y67.73 E130.22258
G1 X158.60 Y68.40 E130.37356
G1 X159.45 Y68.65 E130.42907
G1 X161.62 Y69.70 E130.57977
G1 X162.43 Y70.09 E130.63555
G1 X164.41 Y71.52 E130.78762
G1 X165.13 Y72.04 E130.84309
G1 X166.83 Y73.78 E130.99493
G1 X167.45 Y74.42 E131.05054
G1 X168.82 Y76.41 E131.20129
G1 X169.33 Y77.15 E131.25711
G1 X170.34 Y79.35 E131.40825
G1 X170.72 Y80.17 E131.46425
G1 X171.33 Y82.52 E131.61555
G1 X171.56 Y83.38 E131.67143
G1 X171.80 Y86.14 E131.84406
G1 X171.80 Y89.62 E132.06108
G1 X172.79 Y89.70 E132.12301
G1 X173.50 Y89.75 E132.16743
G1 X174.84 Y90.08 E132.25351
G1 X175.53 Y90.24 E132.29727
G1 X176.81 Y90.77 E132.38376
G1 X177.47 Y91.05 E132.42843
G1 X178.64 Y91.77 E132.51435
G1 X179.24 Y92.14 E132.55824
G1 X180.29 Y93.03 E132.64410
G1 X180.83 Y93.49 E132.68843
G1 X181.73 Y94.55 E132.77491
G1 X182.19 Y95.08 E132.81887
G1 X182.91 Y96.26 E132.90498
G1 X183.28 Y96.87 E132.94941
G1 X183.80 Y98.12 E133.03428
G1 X184.08 Y98.79 E133.07907
G1 X184.40 Y100.13 E133.16521
G1 X184.57 Y100.83 E133.21006
G1 X184.70 Y102.52 E133.31571
G1 X184.71 Y145.37 E135.98770
G1 X184.71 Y151.00 E136.33937
G1 X184.59 Y152.56 E136.43663
G1 X184.53 Y153.33 E136.48463
G1 X184.09 Y155.12 E136.59956
G1 X183.91 Y155.86 E136.64731
G1 X183.21 Y157.57 E136.76239
G1 X182.91 Y158.27 E136.80995
G1 X181.95 Y159.85 E136.92538
G1 X181.55 Y160.50 E136.97324
G1 X180.35 Y161.91 E137.08825
G1 X179.85 Y162.49 E137.13623
G1 X178.45 Y163.69 E137.25120
G1 X177.87 Y164.18 E137.29852
G1 X176.28 Y165.15 E137.41441
G1 X175.65 Y165.54 E137.46128
G1 X173.93 Y166.26 E137.57714
G1 X173.41 Y166.47 E137.61233
G1 X173.99 Y166.52 E137.64857
G1 X174.93 Y166.60 E137.70766
G1 X176.71 Y166.91 E137.82021
G1 X177.47 Y167.04 E137.86833
G1 X178.78 Y167.48 E137.95434
G1 X179.43 Y167.69 E137.99705
G1 X180.49 Y168.24 E138.07158
G1 X181.15 Y168.57 E138.11737
G1 X182.24 Y169.38 E138.20204
G1 X182.84 Y169.82 E138.24879
G1 X183.96 Y171.00 E138.35011
G1 X185.03 Y170.29 E138.42967
G1 X185.99 Y169.84 E138.49615
G1 X186.59 Y169.55 E138.53777
G1 X187.92 Y169.16 E138.62388
G1 X187.92 Y169.16 E138.62394
G1 X188.59 Y168.96 E138.66814
G1 X191.05 Y168.64 E138.82234
G1 X192.86 Y168.65 E138.93522
G1 X193.59 Y168.66 E138.98075
G1 X194.89 Y168.86 E139.06287
G1 X195.54 Y168.97 E139.10409
G1 X196.66 Y169.31 E139.17708
G1 X197.30 Y169.51 E139.21868
G1 X198.76 Y170.22 E139.32039
G1 X199.71 Y170.85 E139.39115
G1 X200.22 Y171.22 E139.43036
G1 X201.01 Y171.33 E139.48025
G1 X202.32 Y171.75 E139.56603
G1 X203.54 Y172.36 E139.65123
G1 X204.65 Y173.16 E139.73676
G1 X205.59 Y174.11 E139.81945
G1 X206.35 Y175.17 E139.90108
G1 X206.99 Y176.43 E139.98918
G1 X207.43 Y177.83 E140.08078
G1 X207.66 Y179.37 E140.17795
G1 X207.63 Y181.05 E140.28248
G1 X207.36 Y182.65 E140.38374
G1 X206.90 Y184.04 E140.47520
G1 X206.27 Y185.28 E140.56213
G1 X205.85 Y185.85 E140.60603
G1 X206.64 Y187.08 E140.69686
G1 X207.41 Y189.38 E140.84824
G1 X207.34 Y191.22 E140.96283
G1 X207.01 Y193.50 E141.10665
G1 X205.31 Y195.87 E141.28860
G1 X204.03 Y196.96 E141.39365
G1 X202.83 Y197.66 E141.48028
G1 X202.27 Y197.87 E141.51717
G1 X202.28 Y197.91 E141.51989
G1 X202.46 Y199.27 E141.60505
G1 X202.44 Y200.58 E141.68713
G1 X202.20 Y202.17 E141.78727
G1 X201.67 Y203.80 E141.89430
G1 X200.96 Y205.18 E141.99108
G1 X200.09 Y206.38 E142.08358
G1 X199.03 Y207.42 E142.17605
G1 X197.82 Y208.29 E142.26918
G1 X196.47 Y208.95 E142.36276
G1 X195.05 Y209.39 E142.45525
G1 X193.46 Y209.62 E142.55549
G1 X191.69 Y209.58 E142.66614
G1 X190.25 Y209.33 E142.75705
G1 X189.66 Y209.22 E142.79458
G1 X188.35 Y208.81 E142.87993
G1 X188.39 Y210.25 E142.96946
G1 X187.56 Y213.42 E143.17387
G1 X185.00 Y215.99 E143.40044
G1 X182.40 Y217.11 E143.57697
G1 X180.67 Y217.24 E143.68521
G1 X179.84 Y218.89 E143.80053
G1 X178.59 Y220.35 E143.92018
G1 X177.29 Y221.32 E144.02133
G1 X176.06 Y221.93 E144.10673
G1 X175.66 Y222.06 E144.13345
G1 X175.32 Y223.09 E144.20115
G1 X173.50 Y225.02 E144.36616
G1 X172.21 Y225.91 E144.46419
G1 X170.94 Y226.49 E144.55091
G1 X169.59 Y226.86 E144.63865
G1 X168.03 Y227.05 E144.73675
G1 X166.67 Y227.00 E144.82130
G1 X166.25 Y226.99 E144.84758
G1 X165.96 Y227.41 E144.87994
G1 X164.75 Y228.69 E144.98952
G1 X163.66 Y229.53 E145.07555
G1 X163.10 Y229.95 E145.11902
G1 X161.43 Y230.87 E145.23798
G1 X160.76 Y231.23 E145.28498
G1 X160.13 Y231.46 E145.32720
G1 X159.97 Y231.94 E145.35877
G1 X158.14 Y237.61 E145.73068
G1 X146.85 Y237.60 E146.43451
G1 X144.90 Y231.54 E146.83169
G1 X144.90 Y231.54 E146.83175
G1 X144.86 Y231.43 E146.83909
G1 X144.45 Y231.27 E146.86664
G1 X143.71 Y230.97 E146.91676
G1 X142.30 Y230.16 E147.01814
G1 X141.70 Y229.82 E147.06081
G1 X140.71 Y229.04 E147.13970
G1 X140.18 Y228.63 E147.18135
G1 X139.10 Y227.48 E147.27999
G1 X138.75 Y226.98 E147.31781
G1 X138.42 Y227.03 E147.33823
G1 X137.34 Y227.03 E147.40589
G1 X136.74 Y227.04 E147.44350
G1 X135.06 Y226.80 E147.54888
G1 X133.89 Y226.40 E147.62607
G1 X132.79 Y225.94 E147.70018
G1 X130.99 Y224.62 E147.84000
G1 X129.52 Y222.60 E147.99570
G1 X129.34 Y222.07 E148.03029
G1 X128.13 Y221.57 E148.11183
G1 X126.44 Y220.42 E148.23966
G1 X124.98 Y218.66 E148.38240
G1 X124.39 Y217.28 E148.47563
G1 X124.37 Y217.28 E148.47719
G1 X121.92 Y216.95 E148.63123
G1 X118.81 Y215.16 E148.85558
G1 X116.94 Y212.05 E149.08171
G1 X116.54 Y209.24 E149.25834
G1 X116.61 Y208.83 E149.28472
G1 X116.00 Y209.01 E149.32465
G1 X115.27 Y209.24 E149.37217
G1 X113.97 Y209.46 E149.45431
G1 X113.33 Y209.58 E149.49472
G1 X111.74 Y209.62 E149.59435
G1 X110.25 Y209.45 E149.68775
G1 X108.80 Y209.06 E149.78138
G1 X107.41 Y208.42 E149.87680
G1 X106.17 Y207.59 E149.96968
G1 X105.06 Y206.56 E150.06419
G1 X104.15 Y205.37 E150.15788
G1 X103.43 Y204.05 E150.25148
G1 X102.89 Y202.53 E150.35215
G1 X102.58 Y200.88 E150.45659
G1 X102.54 Y199.28 E150.55628
G1 X102.72 Y197.93 E150.64171
G1 X102.72 Y197.90 E150.64346
G1 X101.39 Y197.25 E150.73595
G1 X99.50 Y195.81 E150.88425
G1 X97.80 Y192.88 E151.09534
G1 X97.51 Y188.93 E151.34271
G1 X98.98 Y185.98 E151.54792
G1 X99.12 Y185.83 E151.56120
G1 X98.77 Y185.38 E151.59665
G1 X98.00 Y183.80 E151.70615
G1 X97.56 Y182.30 E151.80353
G1 X97.35 Y180.78 E151.89935
G1 X97.35 Y179.22 E151.99657
G1 X97.58 Y177.82 E152.08534
G1 X98.03 Y176.32 E152.18311
G1 X99.03 Y174.55 E152.30972
G1 X100.17 Y173.32 E152.41426
G1 X101.38 Y172.39 E152.50956
G1 X102.83 Y171.68 E152.61056
G1 X104.19 Y171.29 E152.69868
G1 X104.78 Y171.22 E152.73563
G1 X104.89 Y171.12 E152.74459
G1 X106.30 Y170.18 E152.85055
G1 X107.89 Y169.44 E152.95975
G1 X109.12 Y169.08 E153.03978
G1 X109.81 Y168.88 E153.08437
G1 X112.11 Y168.61 E153.22856
G1 X114.25 Y168.70 E153.36257
G1 X115.01 Y168.73 E153.41000
G1 X116.44 Y169.00 E153.50077
G1 X117.09 Y169.13 E153.54226
G1 X118.22 Y169.52 E153.61658
G1 X118.86 Y169.74 E153.65888
G1 X119.85 Y170.25 E153.72811
G1 X120.43 Y170.56 E153.76943
G1 X121.02 Y171.00 E153.81495
G1 X121.75 Y170.25 E153.88053
G1 X122.28 Y169.73 E153.92626
G1 X123.25 Y169.01 E154.00180
G1 X123.82 Y168.59 E154.04605
G1 X125.02 Y167.97 E154.13028
G1 X125.67 Y167.65 E154.17532
G1 X127.14 Y167.18 E154.27167
G1 X127.82 Y166.97 E154.31622
G1 X129.98 Y166.64 E154.45248
G1 X130.42 Y166.57 E154.48036
G1 X132.04 Y166.43 E154.58146
G1 X130.62 Y165.84 E154.67738
G1 X129.91 Y165.55 E154.72496
G1 X128.33 Y164.58 E154.84049
G1 X127.68 Y164.18 E154.88825
G1 X126.28 Y162.98 E155.00326
G1 X125.69 Y162.48 E155.05125
G1 X124.50 Y161.08 E155.16621
G1 X124.00 Y160.50 E155.21362
G1 X123.03 Y158.91 E155.32948
G1 X122.64 Y158.28 E155.37629
G1 X121.93 Y156.56 E155.49233
G1 X121.64 Y155.86 E155.53949
G1 X121.20 Y154.05 E155.65525
G1 X121.03 Y153.32 E155.70248
G1 X120.86 Y151.16 E155.83741
G1 X120.84 Y108.26 E158.51302
G1 X120.84 Y102.62 E158.86468
G1 X120.93 Y101.53 E158.93262
G1 X120.99 Y100.82 E158.97704
G1 X121.31 Y99.48 E159.06312
G1 X121.47 Y98.80 E159.10687
G1 X122.00 Y97.52 E159.19336
G1 X122.28 Y96.86 E159.23803
G1 X123.00 Y95.68 E159.32395
G1 X123.37 Y95.08 E159.36785
G0 F6000 X123.77 Y95.38
G1 F2700 X124.64 Y94.36 E159.45132
G1 X125.08 Y93.85 E159.49312
G1 X126.10 Y92.97 E159.57708
G1 X126.61 Y92.54 E159.61866
G1 X127.75 Y91.84 E159.70200
G1 X128.33 Y91.49 E159.74430
G1 X129.58 Y90.97 E159.82869
G1 X130.18 Y90.72 E159.86911
G1 X131.49 Y90.41 E159.95357
G1 X132.14 Y90.25 E159.99509
G1 X133.46 Y90.14 E160.07785
G1 X134.14 Y90.09 E160.12002
G1 X134.23 Y90.10 E160.12615
G1 X134.23 Y86.38 E160.35777
G1 X134.41 Y84.30 E160.48815
G1 X134.49 Y83.46 E160.54093
G1 X135.09 Y81.16 E160.68914
G1 X135.31 Y80.34 E160.74210
G1 X136.31 Y78.17 E160.89112
G1 X136.66 Y77.40 E160.94391
G1 X138.01 Y75.43 E161.09272
G1 X138.49 Y74.73 E161.14564
G1 X140.16 Y73.03 E161.29443
G1 X140.75 Y72.42 E161.34691
G1 X142.69 Y71.02 E161.49616
G1 X143.38 Y70.53 E161.54878
G1 X145.53 Y69.48 E161.69808
G1 X146.29 Y69.11 E161.75090
G1 X148.58 Y68.45 E161.89949
G1 X149.39 Y68.22 E161.95232
G1 X151.57 Y67.98 E162.08914
G1 X151.57 Y67.98 E162.08921
G1 X152.77 Y67.85 E162.16424
G1 X155.33 Y68.12 E162.32464
G1 X156.17 Y68.22 E162.37774
G1 X158.46 Y68.88 E162.52604
G1 X159.27 Y69.12 E162.57884
G1 X161.41 Y70.16 E162.72744
G1 X162.17 Y70.53 E162.78004
G1 X164.12 Y71.93 E162.92938
G1 X164.80 Y72.42 E162.98222
G1 X166.47 Y74.13 E163.13132
G1 X167.07 Y74.74 E163.18424
G1 X168.41 Y76.70 E163.33283
G1 X168.41 Y76.70 E163.33290
G1 X168.89 Y77.40 E163.38553
G1 X169.89 Y79.56 E163.53402
G1 X170.24 Y80.34 E163.58729
G1 X170.85 Y82.64 E163.73593
G1 X171.07 Y83.47 E163.78909
G1 X171.30 Y86.16 E163.95772
G1 X171.30 Y90.10 E164.20311
G1 X171.39 Y90.09 E164.20868
G1 X172.75 Y90.20 E164.29381
G1 X173.42 Y90.25 E164.33580
G1 X174.73 Y90.56 E164.41943
G1 X175.37 Y90.72 E164.46075
G1 X176.62 Y91.23 E164.54475
G1 X177.24 Y91.50 E164.58699
G1 X178.38 Y92.19 E164.67047
G1 X178.95 Y92.54 E164.71191
G1 X179.96 Y93.41 E164.79529
G1 X180.47 Y93.85 E164.83718
G1 X181.35 Y94.87 E164.92114
G1 X181.78 Y95.38 E164.96271
G1 X182.48 Y96.52 E165.04606
G1 X182.84 Y97.09 E165.08836
G1 X183.34 Y98.32 E165.17079
G1 X183.60 Y98.94 E165.21317
G1 X183.91 Y100.25 E165.29686
G1 X184.07 Y100.91 E165.33915
G1 X184.20 Y102.54 E165.44117
G1 X184.21 Y145.37 E168.11192
G1 X184.21 Y150.99 E168.46240
G1 X184.09 Y152.52 E168.55835
G1 X184.03 Y153.25 E168.60391
G1 X183.61 Y155.00 E168.71634
G1 X183.44 Y155.71 E168.76166
G1 X182.75 Y157.38 E168.87428
G1 X182.47 Y158.04 E168.91949
G1 X181.52 Y159.59 E169.03238
G1 X181.14 Y160.21 E169.07779
G1 X179.97 Y161.58 E169.19037
G1 X179.49 Y162.13 E169.23588
G1 X178.12 Y163.31 E169.34841
G1 X177.57 Y163.78 E169.39330
G1 X176.02 Y164.72 E169.50673
G1 X175.42 Y165.10 E169.55119
G1 X173.74 Y165.79 E169.66460
G1 X173.07 Y166.07 E169.70972
G1 X171.33 Y166.49 E169.82135
G1 X170.61 Y166.66 E169.86744
G1 X170.16 Y166.70 E169.89590
G1 X173.94 Y167.02 E170.13304
G1 X174.87 Y167.10 E170.19087
G1 X176.62 Y167.40 E170.30197
G1 X177.35 Y167.53 E170.34776
G1 X178.62 Y167.95 E170.43139
G1 X179.23 Y168.16 E170.47180
G1 X180.27 Y168.68 E170.54409
G1 X180.88 Y169.00 E170.58729
G1 X181.93 Y169.77 E170.66808
G1 X182.51 Y170.20 E170.71339
G1 X183.90 Y171.65 E170.83867
G1 X183.93 Y171.62 E170.84189
G1 X185.27 Y170.73 E170.94211
G1 X186.22 Y170.28 E171.00727
G1 X186.77 Y170.02 E171.04557
G1 X188.05 Y169.64 E171.12851
G1 X188.70 Y169.45 E171.17093
G1 X191.08 Y169.14 E171.32048
G1 X192.85 Y169.15 E171.43118
G1 X193.54 Y169.16 E171.47440
G1 X194.81 Y169.36 E171.55431
G1 X195.43 Y169.46 E171.59326
G1 X196.51 Y169.79 E171.66398
G1 X197.11 Y169.98 E171.70315
G1 X198.51 Y170.66 E171.80044
G1 X199.42 Y171.27 E171.86867
G1 X200.01 Y171.68 E171.91357
G1 X200.02 Y171.69 E171.91463
G1 X200.90 Y171.82 E171.96981
G1 X202.13 Y172.21 E172.05061
G1 X203.28 Y172.79 E172.13074
G1 X204.33 Y173.54 E172.21115
G1 X205.20 Y174.43 E172.28894
G1 X205.92 Y175.43 E172.36567
G1 X206.53 Y176.62 E172.44875
G1 X206.94 Y177.94 E172.53534
G1 X207.16 Y179.40 E172.62752
G1 X207.13 Y181.00 E172.72707
G1 X206.87 Y182.53 E172.82357
G1 X206.43 Y183.85 E172.91038
G1 X205.84 Y185.02 E172.99255
G1 X205.25 Y185.84 E173.05524
G1 X206.19 Y187.30 E173.16346
G1 X206.91 Y189.45 E173.30520
G1 X206.84 Y191.17 E173.41249
G1 X206.53 Y193.31 E173.54710
G1 X204.94 Y195.53 E173.71753
G1 X203.74 Y196.55 E173.81603
G1 X202.61 Y197.21 E173.89732
G1 X201.66 Y197.57 E173.96056
G1 X201.79 Y198.01 E173.98963
G1 X201.96 Y199.30 E174.07020
G1 X201.94 Y200.54 E174.14797
G1 X201.71 Y202.06 E174.24338
G1 X201.21 Y203.61 E174.34530
G1 X200.53 Y204.92 E174.43718
G1 X199.71 Y206.05 E174.52467
G1 X198.71 Y207.04 E174.61216
G1 X197.56 Y207.86 E174.70024
G1 X196.29 Y208.49 E174.78882
G1 X194.94 Y208.90 E174.87636
G1 X193.43 Y209.11 E174.97168
G1 X191.74 Y209.08 E175.07734
G1 X190.34 Y208.84 E175.16578
G1 X189.78 Y208.73 E175.20129
G1 X187.76 Y208.11 E175.33313
G1 X187.84 Y208.56 E175.36180
G1 X187.89 Y210.19 E175.46368
G1 X187.12 Y213.16 E175.65519
G1 X184.71 Y215.57 E175.86739
G1 X182.28 Y216.62 E176.03269
G1 X180.29 Y216.77 E176.15657
G1 X180.26 Y216.93 E176.16727
G1 X179.42 Y218.62 E176.28449
G1 X178.25 Y219.98 E176.39675
G1 X177.03 Y220.89 E176.49162
G1 X175.88 Y221.47 E176.57194
G1 X175.26 Y221.66 E176.61215
G1 X174.88 Y222.83 E176.68887
G1 X173.18 Y224.64 E176.84350
G1 X171.96 Y225.47 E176.93553
G1 X170.77 Y226.02 E177.01706
G1 X169.49 Y226.37 E177.09988
G1 X168.00 Y226.55 E177.19333
G1 X166.69 Y226.50 E177.27532
G1 X166.08 Y226.48 E177.31359
G1 X166.00 Y226.46 E177.31847
G1 X165.57 Y227.10 E177.36642
G1 X164.41 Y228.32 E177.47110
G1 X163.35 Y229.13 E177.55459
G1 X162.83 Y229.53 E177.59562
G1 X161.19 Y230.43 E177.71219
G1 X160.56 Y230.77 E177.75684
G1 X159.73 Y231.07 E177.81197
G1 X159.50 Y231.78 E177.85881
G1 X157.77 Y237.11 E178.20802
G1 X147.22 Y237.10 E178.86645
G1 X145.38 Y231.39 E179.24091
G1 X145.38 Y231.39 E179.24097
G1 X145.27 Y231.05 E179.26306
G1 X144.64 Y230.80 E179.30531
G1 X143.92 Y230.52 E179.35322
G1 X142.55 Y229.73 E179.45223
G1 X141.99 Y229.41 E179.49266
G1 X141.02 Y228.65 E179.56933
G1 X140.52 Y228.26 E179.60862
G1 X139.49 Y227.16 E179.70272
G1 X138.98 Y226.44 E179.75755
G1 X138.39 Y226.53 E179.79492
G1 X137.33 Y226.53 E179.86090
G1 X136.77 Y226.54 E179.89595
G1 X135.18 Y226.31 E179.99591
G1 X134.07 Y225.93 E180.06915
G1 X133.04 Y225.50 E180.13848
G1 X131.34 Y224.26 E180.26979
G1 X129.97 Y222.37 E180.41570
G1 X129.74 Y221.68 E180.46100
G1 X129.64 Y221.65 E180.46757
G1 X128.37 Y221.13 E180.55288
G1 X126.78 Y220.05 E180.67299
G1 X125.42 Y218.39 E180.80675
G1 X124.71 Y216.75 E180.91825
G1 X124.38 Y216.78 E180.93891
G1 X122.09 Y216.47 E181.08325
G1 X119.17 Y214.79 E181.29341
G1 X117.42 Y211.88 E181.50513
G1 X117.05 Y209.25 E181.67062
G1 X117.24 Y208.11 E181.74282
G1 X115.85 Y208.54 E181.83350
G1 X115.15 Y208.75 E181.87907
G1 X113.91 Y208.97 E181.95754
G1 X113.28 Y209.08 E181.99743
G1 X111.76 Y209.12 E182.09251
G1 X110.34 Y208.96 E182.18138
G1 X108.97 Y208.58 E182.27011
G1 X107.65 Y207.99 E182.36045
G1 X106.48 Y207.20 E182.44821
G1 X105.44 Y206.22 E182.53761
G1 X104.57 Y205.09 E182.62632
G1 X103.89 Y203.84 E182.71509
G1 X103.38 Y202.39 E182.81093
G1 X103.08 Y200.83 E182.91042
G1 X103.04 Y199.31 E183.00505
G1 X103.21 Y198.03 E183.08576
G1 X103.34 Y197.56 E183.11592
G1 X102.91 Y197.43 E183.14378
G1 X101.66 Y196.82 E183.23100
G1 X99.88 Y195.47 E183.37005
G1 X98.29 Y192.73 E183.56777
G1 X98.02 Y189.03 E183.79932
G1 X99.39 Y186.27 E183.99156
G1 X99.78 Y185.85 E184.02718
G1 X99.19 Y185.12 E184.08587
G1 X98.47 Y183.62 E184.18927
G1 X98.05 Y182.20 E184.28185
G1 X97.85 Y180.75 E184.37313
G1 X97.85 Y179.26 E184.46574
G1 X98.06 Y177.93 E184.54995
G1 X98.50 Y176.51 E184.64219
G1 X99.43 Y174.84 E184.76166
G1 X100.51 Y173.69 E184.85988
G1 X101.64 Y172.81 E184.94946
G1 X103.01 Y172.15 E185.04451
G1 X104.29 Y171.78 E185.12750
G1 X105.00 Y171.69 E185.17199
G1 X105.20 Y171.51 E185.18845
G1 X106.55 Y170.62 E185.28969
G1 X108.06 Y169.91 E185.39409
G1 X109.25 Y169.56 E185.47132
G1 X109.91 Y169.38 E185.51378
G1 X112.12 Y169.11 E185.65287
G1 X114.23 Y169.20 E185.78438
G1 X114.95 Y169.23 E185.82957
G1 X116.35 Y169.49 E185.91799
G1 X116.97 Y169.61 E185.95720
G1 X118.06 Y169.99 E186.02934
G1 X118.66 Y170.20 E186.06926
G1 X119.61 Y170.70 E186.13612
G1 X120.17 Y170.99 E186.17506
G1 X121.08 Y171.66 E186.24568
G1 X121.14 Y171.59 E186.25151
G1 X122.11 Y170.60 E186.33808
G1 X122.60 Y170.11 E186.38134
G1 X123.55 Y169.41 E186.45469
G1 X124.08 Y169.01 E186.49640
G1 X125.25 Y168.42 E186.57795
G1 X125.86 Y168.11 E186.62040
G1 X127.28 Y167.66 E186.71355
G1 X127.94 Y167.45 E186.75635
G1 X130.06 Y167.13 E186.89027
G1 X130.06 Y167.13 E186.89033
G1 X130.48 Y167.07 E186.91715
G1 X134.62 Y166.71 E187.17594
G1 X135.20 Y166.68 E187.21214
G1 X134.94 Y166.66 E187.22810
G1 X133.19 Y166.24 E187.34062
G1 X132.48 Y166.07 E187.38619
G1 X130.81 Y165.38 E187.49879
G1 X130.14 Y165.10 E187.54393
G1 X128.60 Y164.15 E187.65696
G1 X127.98 Y163.77 E187.70229
G1 X126.60 Y162.60 E187.81487
G1 X126.05 Y162.12 E187.86038
G1 X124.88 Y160.75 E187.97291
G1 X124.41 Y160.21 E188.01789
G1 X123.46 Y158.65 E188.13128
G1 X123.09 Y158.05 E188.17566
G1 X122.39 Y156.37 E188.28920
G1 X122.39 Y156.37 E188.28926
G1 X122.11 Y155.70 E188.33402
G1 X121.69 Y153.94 E188.44734
G1 X121.52 Y153.24 E188.49214
G1 X121.36 Y151.14 E188.62331
G1 X121.34 Y108.26 E191.29774
G1 X121.34 Y102.64 E191.64822
G1 X121.43 Y101.57 E191.71483
G1 X121.48 Y100.90 E191.75682
G1 X121.80 Y99.60 E191.84045
G1 X121.95 Y98.95 E191.88177
G1 X122.47 Y97.71 E191.96577
G1 X122.73 Y97.08 E192.00801
G1 X123.43 Y95.94 E192.09149
G1 X123.77 Y95.38 E192.13293
G0 F6000 X124.18 Y95.67
G1 F2700 X125.02 Y94.68 E192.21397
G1 X125.43 Y94.20 E192.25329
G1 X126.43 Y93.35 E192.33481
G1 X126.90 Y92.95 E192.37391
G1 X128.01 Y92.27 E192.45485
G1 X128.55 Y91.93 E192.49460
G1 X129.74 Y91.44 E192.57475
G1 X130.33 Y91.20 E192.61455
G1 X131.61 Y90.89 E192.69652
G1 X131.61 Y90.89 E192.69658
G1 X132.22 Y90.74 E192.73574
G1 X133.53 Y90.64 E192.81768
G1 X134.14 Y90.59 E192.85579
G1 X134.73 Y90.64 E192.89313
G1 X134.73 Y86.41 E193.15711
G1 X134.91 Y84.34 E193.28605
G1 X134.98 Y83.55 E193.33614
G1 X135.58 Y81.29 E193.48170
G1 X135.78 Y80.51 E193.53195
G1 X136.76 Y78.38 E193.67829
G1 X137.10 Y77.65 E193.72843
G1 X138.43 Y75.71 E193.87456
G1 X138.88 Y75.05 E193.92478
G1 X140.52 Y73.38 E194.07088
G1 X141.08 Y72.80 E194.12067
G1 X142.98 Y71.43 E194.26720
G1 X143.63 Y70.96 E194.31719
G1 X145.75 Y69.93 E194.46381
G1 X146.47 Y69.58 E194.51390
G1 X148.72 Y68.93 E194.65982
G1 X149.49 Y68.71 E194.70995
G1 X151.63 Y68.48 E194.84407
G1 X152.77 Y68.35 E194.91572
G1 X155.27 Y68.62 E195.07266
G1 X156.07 Y68.71 E195.12306
G1 X158.32 Y69.36 E195.26872
G1 X159.09 Y69.58 E195.31883
G1 X161.20 Y70.61 E195.46481
G1 X161.92 Y70.96 E195.51471
G1 X163.82 Y72.33 E195.66133
G1 X164.47 Y72.80 E195.71144
G1 X166.12 Y74.48 E195.85789
G1 X166.68 Y75.06 E195.90808
G1 X168.00 Y76.98 E196.05357
G1 X168.46 Y77.65 E196.10393
G1 X169.43 Y79.77 E196.24976
G1 X169.77 Y80.51 E196.30038
G1 X170.37 Y82.77 E196.44630
G1 X170.37 Y82.77 E196.44636
G1 X170.57 Y83.55 E196.49681
G1 X170.80 Y86.18 E196.66137
G1 X170.80 Y90.64 E196.93926
G1 X171.39 Y90.59 E196.97610
G1 X172.71 Y90.69 E197.05867
G1 X173.34 Y90.75 E197.09821
G1 X174.61 Y91.05 E197.17941
G1 X175.22 Y91.20 E197.21830
G1 X176.42 Y91.70 E197.29986
G1 X177.01 Y91.94 E197.33953
G1 X178.12 Y92.62 E197.42061
G1 X178.65 Y92.95 E197.45963
G1 X179.64 Y93.79 E197.54059
G1 X180.12 Y94.20 E197.58000
G1 X180.97 Y95.20 E197.66152
G1 X181.38 Y95.67 E197.70062
G1 X182.06 Y96.78 E197.78156
G1 X182.39 Y97.32 E197.82131
G1 X182.88 Y98.51 E197.90145
G1 X183.12 Y99.10 E197.94126
G1 X183.43 Y100.38 E198.02323
G1 X183.43 Y100.38 E198.02329
G1 X183.58 Y100.99 E198.06245
G1 X183.70 Y102.56 E198.16072
G1 X183.71 Y145.37 E200.83028
G1 X183.71 Y150.97 E201.17951
G1 X183.59 Y152.48 E201.27421
G1 X183.53 Y153.17 E201.31727
G1 X183.12 Y154.88 E201.42732
G1 X182.96 Y155.55 E201.47019
G1 X182.28 Y157.18 E201.58035
G1 X182.02 Y157.82 E201.62312
G1 X181.10 Y159.33 E201.73352
G1 X180.74 Y159.91 E201.77653
G1 X179.59 Y161.26 E201.88663
G1 X179.14 Y161.78 E201.92970
G1 X177.81 Y162.92 E202.03887
G1 X177.28 Y163.37 E202.08226
G1 X175.76 Y164.30 E202.19316
G1 X175.19 Y164.65 E202.23522
G1 X173.55 Y165.33 E202.34613
G1 X172.91 Y165.60 E202.38882
G1 X171.18 Y166.01 E202.49987
G1 X170.53 Y166.17 E202.54173
G1 X168.50 Y166.33 E202.66877
G1 X164.85 Y166.34 E202.89602
G1 X164.85 Y167.25 E202.95259
G1 X165.49 Y167.12 E202.99312
G1 X168.06 Y167.08 E203.15297
G1 X168.64 Y167.07 E203.18971
G1 X173.90 Y167.52 E203.51879
G1 X174.80 Y167.60 E203.57525
G1 X176.54 Y167.89 E203.68501
G1 X177.22 Y168.01 E203.72845
G1 X178.46 Y168.42 E203.80972
G1 X179.04 Y168.62 E203.84777
G1 X180.04 Y169.13 E203.91783
G1 X180.62 Y169.42 E203.95838
G1 X181.63 Y170.17 E204.03667
G1 X182.18 Y170.57 E204.07922
G1 X183.60 Y172.07 E204.20815
G1 X183.87 Y172.36 E204.23229
G1 X184.24 Y172.01 E204.26416
G1 X185.52 Y171.16 E204.35957
G1 X186.43 Y170.73 E204.42247
G1 X186.95 Y170.49 E204.45843
G1 X188.20 Y170.12 E204.53967
G1 X188.80 Y169.94 E204.57891
G1 X191.11 Y169.64 E204.72386
G1 X192.85 Y169.65 E204.83232
G1 X193.50 Y169.66 E204.87323
G1 X194.73 Y169.85 E204.95086
G1 X195.31 Y169.94 E204.98754
G1 X196.36 Y170.27 E205.05597
G1 X196.93 Y170.44 E205.09287
G1 X198.26 Y171.09 E205.18555
G1 X199.14 Y171.68 E205.25131
G1 X199.69 Y172.07 E205.29339
G1 X199.79 Y172.17 E205.30212
G1 X200.79 Y172.31 E205.36487
G1 X201.95 Y172.68 E205.44063
G1 X203.02 Y173.21 E205.51571
G1 X204.00 Y173.92 E205.59098
G1 X204.82 Y174.76 E205.66387
G1 X205.50 Y175.69 E205.73577
G1 X206.06 Y176.81 E205.81381
G1 X206.45 Y178.05 E205.89537
G1 X206.66 Y179.44 E205.98257
G1 X206.63 Y180.95 E206.07718
G1 X206.38 Y182.40 E206.16889
G1 X205.97 Y183.65 E206.25109
G1 X205.41 Y184.76 E206.32845
G1 X204.66 Y185.80 E206.40822
G1 X204.60 Y185.85 E206.41337
G1 X204.75 Y185.99 E206.42614
G1 X205.73 Y187.51 E206.53900
G1 X206.40 Y189.52 E206.67113
G1 X206.34 Y191.13 E206.77117
G1 X206.05 Y193.12 E206.89660
G1 X204.57 Y195.19 E207.05553
G1 X203.45 Y196.14 E207.14735
G1 X202.39 Y196.75 E207.22336
G1 X201.27 Y197.18 E207.29829
G1 X201.04 Y197.23 E207.31295
G1 X201.30 Y198.12 E207.37063
G1 X201.46 Y199.32 E207.44656
G1 X201.44 Y200.50 E207.51996
G1 X201.22 Y201.94 E207.61065
G1 X200.75 Y203.42 E207.70758
G1 X200.11 Y204.66 E207.79438
G1 X199.33 Y205.73 E207.87705
G1 X198.39 Y206.66 E207.95946
G1 X197.30 Y207.43 E208.04249
G1 X196.10 Y208.02 E208.12608
G1 X194.83 Y208.41 E208.20872
G1 X193.40 Y208.61 E208.29900
G1 X191.78 Y208.58 E208.39980
G1 X190.43 Y208.34 E208.48571
G1 X189.90 Y208.25 E208.51925
G1 X187.12 Y207.38 E208.70080
G1 X187.35 Y208.61 E208.77867
G1 X187.39 Y210.13 E208.87369
G1 X186.66 Y212.91 E209.05232
G1 X184.42 Y215.15 E209.25005
G1 X182.16 Y216.13 E209.40415
G1 X180.20 Y216.27 E209.52658
G1 X179.89 Y216.23 E209.54568
G1 X179.78 Y216.77 E209.58018
G1 X179.00 Y218.34 E209.68942
G1 X177.91 Y219.62 E209.79438
G1 X176.76 Y220.46 E209.88301
G1 X175.69 Y221.00 E209.95823
G1 X174.87 Y221.26 E210.01187
G1 X174.44 Y222.57 E210.09758
G1 X172.85 Y224.26 E210.24194
G1 X171.71 Y225.03 E210.32794
G1 X170.60 Y225.55 E210.40432
G1 X169.40 Y225.88 E210.48228
G1 X167.98 Y226.05 E210.57096
G1 X166.71 Y226.00 E210.65045
G1 X166.13 Y225.98 E210.68647
G1 X165.77 Y225.91 E210.70947
G1 X165.18 Y226.79 E210.77515
G1 X164.08 Y227.95 E210.87480
G1 X163.05 Y228.74 E210.95580
G1 X162.56 Y229.11 E210.99438
G1 X160.96 Y229.98 E211.10763
G1 X160.35 Y230.31 E211.15083
G1 X159.33 Y230.68 E211.21884
G1 X159.02 Y231.63 E211.28097
G1 X157.41 Y236.61 E211.60750
G1 X147.58 Y236.60 E212.22053
G1 X145.85 Y231.23 E212.57240
G1 X145.85 Y231.23 E212.57247
G1 X145.67 Y230.67 E212.60917
G1 X144.82 Y230.34 E212.66622
G1 X144.14 Y230.07 E212.71181
G1 X142.80 Y229.30 E212.80850
G1 X142.27 Y228.99 E212.84669
G1 X141.33 Y228.25 E212.92115
G1 X140.86 Y227.89 E212.95813
G1 X139.87 Y226.84 E213.04768
G1 X139.21 Y225.90 E213.11943
G1 X138.95 Y225.94 E213.13569
G1 X138.35 Y226.03 E213.17369
G1 X137.33 Y226.03 E213.23762
G1 X136.80 Y226.04 E213.27048
G1 X135.30 Y225.82 E213.36508
G1 X134.25 Y225.46 E213.43432
G1 X133.29 Y225.06 E213.49899
G1 X131.70 Y223.90 E213.62164
G1 X130.42 Y222.14 E213.75786
G1 X130.13 Y221.26 E213.81531
G1 X129.79 Y221.18 E213.83682
G1 X128.61 Y220.69 E213.91668
G1 X127.12 Y219.68 E214.02906
G1 X125.85 Y218.13 E214.15390
G1 X125.03 Y216.22 E214.28356
G1 X124.39 Y216.28 E214.32345
G1 X122.25 Y215.99 E214.45810
G1 X119.53 Y214.42 E214.65401
G1 X117.90 Y211.71 E214.85138
G1 X117.55 Y209.26 E215.00566
G1 X117.87 Y207.39 E215.12359
G1 X115.70 Y208.06 E215.26489
G1 X115.70 Y208.06 E215.26495
G1 X115.04 Y208.26 E215.30851
G1 X113.80 Y208.48 E215.38667
G1 X113.80 Y208.48 E215.38673
G1 X113.23 Y208.58 E215.42277
G1 X111.78 Y208.62 E215.51342
G1 X110.44 Y208.47 E215.59764
G1 X109.14 Y208.11 E215.68147
G1 X107.90 Y207.55 E215.76673
G1 X106.80 Y206.81 E215.84946
G1 X105.81 Y205.88 E215.93374
G1 X104.99 Y204.82 E216.01747
G1 X104.35 Y203.64 E216.10136
G1 X103.86 Y202.26 E216.19231
G1 X103.58 Y200.77 E216.28692
G1 X103.54 Y199.34 E216.37656
G1 X103.70 Y198.13 E216.45248
G1 X103.96 Y197.22 E216.51111
G1 X103.10 Y196.97 E216.56710
G1 X101.92 Y196.39 E216.64871
G1 X100.27 Y195.13 E216.77850
G1 X98.78 Y192.58 E216.96282
G1 X98.52 Y189.13 E217.17860
G1 X99.81 Y186.56 E217.35785
G1 X100.44 Y185.87 E217.41589
G1 X99.62 Y184.85 E217.49769
G1 X98.94 Y183.44 E217.59501
G1 X98.54 Y182.09 E217.68284
G1 X98.35 Y180.71 E217.76951
G1 X98.35 Y179.30 E217.85744
G1 X98.55 Y178.04 E217.93712
G1 X98.96 Y176.71 E218.02380
G1 X99.84 Y175.14 E218.13625
G1 X100.84 Y174.06 E218.22812
G1 X101.91 Y173.24 E218.31196
G1 X103.19 Y172.61 E218.40109
G1 X104.39 Y172.27 E218.47889
G1 X105.22 Y172.17 E218.53093
G1 X105.51 Y171.91 E218.55494
G1 X106.79 Y171.05 E218.65140
G1 X108.24 Y170.38 E218.75103
G1 X109.40 Y170.04 E218.82619
G1 X109.40 Y170.04 E218.82625
G1 X110.01 Y169.87 E218.86580
G1 X112.14 Y169.61 E218.99994
G1 X114.21 Y169.70 E219.12889
G1 X114.90 Y169.73 E219.17183
G1 X116.25 Y169.98 E219.25784
G1 X116.83 Y170.10 E219.29482
G1 X117.90 Y170.46 E219.36478
G1 X118.47 Y170.66 E219.40233
G1 X119.38 Y171.14 E219.46693
G1 X119.90 Y171.41 E219.50336
G1 X121.15 Y172.34 E219.60029
G1 X121.50 Y171.93 E219.63396
G1 X122.46 Y170.95 E219.71947
G1 X122.93 Y170.49 E219.76022
G1 X123.82 Y169.84 E219.82921
G1 X123.82 Y169.84 E219.82927
G1 X124.35 Y169.44 E219.87049
G1 X125.48 Y168.87 E219.94942
G1 X126.05 Y168.58 E219.98933
G1 X127.43 Y168.14 E220.07992
G1 X128.05 Y167.94 E220.12029
G1 X130.13 Y167.63 E220.25169
G1 X130.54 Y167.56 E220.27756
G1 X134.65 Y167.21 E220.53465
G1 X137.69 Y167.08 E220.72439
G1 X138.58 Y167.06 E220.77998
G1 X140.15 Y167.27 E220.87860
G1 X140.15 Y166.34 E220.93616
G1 X138.03 Y166.34 E221.06837
G1 X137.22 Y166.34 E221.11882
G1 X135.70 Y166.22 E221.21359
G1 X135.02 Y166.17 E221.25627
G1 X133.31 Y165.76 E221.36636
G1 X132.63 Y165.59 E221.40950
G1 X131.00 Y164.92 E221.51960
G1 X130.37 Y164.65 E221.56229
G1 X128.86 Y163.73 E221.67286
G1 X128.27 Y163.37 E221.71579
G1 X126.93 Y162.22 E221.82589
G1 X126.41 Y161.77 E221.86896
G1 X125.26 Y160.43 E221.97901
G1 X124.81 Y159.91 E222.02156
G1 X123.89 Y158.39 E222.13246
G1 X123.53 Y157.82 E222.17447
G1 X122.85 Y156.18 E222.28550
G1 X122.59 Y155.55 E222.32785
G1 X122.18 Y153.82 E222.43868
G1 X122.18 Y153.82 E222.43874
G1 X122.02 Y153.16 E222.48111
G1 X121.86 Y151.12 E222.60859
G1 X121.84 Y108.26 E225.28177
G1 X121.84 Y102.66 E225.63100
G1 X121.92 Y101.61 E225.69636
G1 X121.98 Y100.98 E225.73591
G1 X122.28 Y99.71 E225.81711
G1 X122.43 Y99.11 E225.85599
G1 X122.93 Y97.90 E225.93756
G1 X123.17 Y97.31 E225.97723
G1 X123.85 Y96.20 E226.05830
G1 X124.18 Y95.67 E226.09733
G0 F6000 X124.58 Y95.97
G1 F2700 X125.40 Y95.01 E226.17598
G1 X125.79 Y94.56 E226.21283
G1 X126.75 Y93.73 E226.29187
G1 X127.20 Y93.35 E226.32855
G1 X128.28 Y92.69 E226.40730
G1 X128.78 Y92.38 E226.44434
G1 X129.96 Y91.89 E226.52375
G1 X129.96 Y91.90 E226.52382
G1 X130.49 Y91.67 E226.55951
G1 X131.72 Y91.38 E226.63835
G1 X132.30 Y91.24 E226.67568
G1 X133.57 Y91.14 E226.75512
G1 X134.14 Y91.09 E226.79085
G1 X135.23 Y91.18 E226.85941
G1 X135.23 Y86.43 E227.15576
G1 X135.41 Y84.39 E227.28332
G1 X135.48 Y83.63 E227.33072
G1 X136.06 Y81.42 E227.47368
G1 X136.26 Y80.68 E227.52124
G1 X137.22 Y78.58 E227.66484
G1 X137.53 Y77.89 E227.71233
G1 X138.84 Y76.00 E227.85572
G1 X139.27 Y75.37 E227.90325
G1 X140.88 Y73.72 E228.04671
G1 X141.41 Y73.18 E228.09385
G1 X143.28 Y71.83 E228.23770
G1 X143.89 Y71.39 E228.28495
G1 X145.97 Y70.38 E228.42884
G1 X146.65 Y70.05 E228.47626
G1 X148.86 Y69.41 E228.61957
G1 X149.59 Y69.20 E228.66698
G1 X151.68 Y68.97 E228.79839
G1 X152.77 Y68.85 E228.86672
G1 X155.22 Y69.12 E229.02015
G1 X155.98 Y69.20 E229.06785
G1 X158.18 Y69.84 E229.21084
G1 X158.91 Y70.05 E229.25831
G1 X160.97 Y71.05 E229.40108
G1 X161.66 Y71.39 E229.44878
G1 X163.53 Y72.74 E229.59271
G1 X164.15 Y73.18 E229.64015
G1 X165.76 Y74.83 E229.78387
G1 X166.29 Y75.38 E229.83137
G1 X167.59 Y77.27 E229.97467
G1 X168.02 Y77.89 E230.02189
G1 X168.98 Y79.98 E230.16507
G1 X169.30 Y80.68 E230.21293
G1 X169.88 Y82.90 E230.35622
G1 X170.08 Y83.64 E230.40404
G1 X170.30 Y86.20 E230.56452
G1 X170.30 Y91.18 E230.87478
G1 X170.82 Y91.14 E230.90724
G1 X171.39 Y91.09 E230.94297
G1 X172.67 Y91.19 E231.02304
G1 X173.26 Y91.24 E231.06007
G1 X174.49 Y91.54 E231.13884
G1 X175.06 Y91.67 E231.17529
G1 X176.23 Y92.16 E231.25436
G1 X176.78 Y92.39 E231.29158
G1 X177.86 Y93.05 E231.37019
G1 X178.36 Y93.35 E231.40678
G1 X179.31 Y94.17 E231.48534
G1 X179.77 Y94.56 E231.52228
G1 X180.59 Y95.52 E231.60132
G1 X180.97 Y95.97 E231.63800
G1 X181.63 Y97.04 E231.71653
G1 X181.94 Y97.55 E231.75379
G1 X182.43 Y98.73 E231.83320
G1 X182.43 Y98.73 E231.83327
G1 X182.65 Y99.25 E231.86896
G1 X182.94 Y100.48 E231.94780
G1 X183.08 Y101.07 E231.98513
G1 X183.20 Y102.58 E232.07971
G1 X183.21 Y145.37 E234.74802
G1 X183.21 Y150.95 E235.09607
G1 X183.09 Y152.44 E235.18946
G1 X183.04 Y153.09 E235.23007
G1 X182.64 Y154.76 E235.33763
G1 X182.48 Y155.40 E235.37806
G1 X181.82 Y156.99 E235.48579
G1 X181.57 Y157.59 E235.52611
G1 X180.67 Y159.06 E235.63410
G1 X180.33 Y159.62 E235.67461
G1 X179.21 Y160.93 E235.78228
G1 X178.78 Y161.43 E235.82288
G1 X177.47 Y162.55 E235.93054
G1 X176.99 Y162.96 E235.97057
G1 X175.50 Y163.87 E236.07901
G1 X174.96 Y164.21 E236.11871
G1 X173.35 Y164.87 E236.22711
G1 X172.76 Y165.12 E236.26731
G1 X171.07 Y165.52 E236.37587
G1 X170.45 Y165.67 E236.41534
G1 X168.48 Y165.83 E236.53869
G1 X164.36 Y165.84 E236.79582
G1 X164.35 Y167.85 E236.92123
G1 X164.69 Y167.78 E236.94288
G1 X164.69 Y167.78 E236.94294
G1 X165.54 Y167.62 E236.99686
G1 X168.06 Y167.58 E237.15397
G1 X168.63 Y167.57 E237.18909
G1 X173.86 Y168.02 E237.51661
G1 X174.74 Y168.09 E237.57181
G1 X176.45 Y168.39 E237.68012
G1 X177.10 Y168.50 E237.72122
G1 X178.30 Y168.90 E237.80014
G1 X178.84 Y169.08 E237.83580
G1 X179.81 Y169.57 E237.90368
G1 X180.36 Y169.85 E237.94158
G1 X181.33 Y170.57 E238.01733
G1 X181.85 Y170.95 E238.05712
G1 X183.24 Y172.41 E238.18310
G1 X183.84 Y173.06 E238.23809
G1 X184.55 Y172.41 E238.29865
G1 X185.76 Y171.60 E238.38942
G1 X186.64 Y171.19 E238.45004
G1 X187.13 Y170.96 E238.48360
G1 X188.34 Y170.60 E238.56243
G1 X188.91 Y170.43 E238.59919
G1 X191.14 Y170.14 E238.73949
G1 X192.84 Y170.15 E238.84576
G1 X193.46 Y170.16 E238.88436
G1 X194.66 Y170.35 E238.95980
G1 X195.20 Y170.43 E238.99420
G1 X196.21 Y170.75 E239.06034
G1 X196.74 Y170.91 E239.09482
G1 X198.01 Y171.53 E239.18301
G1 X198.86 Y172.09 E239.24627
G1 X199.37 Y172.45 E239.28552
G1 X199.56 Y172.64 E239.30193
G1 X200.68 Y172.80 E239.37224
G1 X201.76 Y173.14 E239.44296
G1 X202.76 Y173.64 E239.51308
G1 X203.67 Y174.31 E239.58321
G1 X204.44 Y175.08 E239.65112
G1 X205.07 Y175.95 E239.71824
G1 X205.60 Y177.00 E239.79120
G1 X205.96 Y178.17 E239.86777
G1 X206.16 Y179.47 E239.94993
G1 X206.13 Y180.91 E240.03955
G1 X205.90 Y182.28 E240.12650
G1 X205.51 Y183.46 E240.20405
G1 X204.98 Y184.50 E240.27664
G1 X204.28 Y185.47 E240.35127
G1 X203.87 Y185.87 E240.38725
G1 X204.37 Y186.32 E240.42926
G1 X205.28 Y187.73 E240.53392
G1 X205.90 Y189.59 E240.65647
G1 X205.84 Y191.08 E240.74915
G1 X205.58 Y192.93 E240.86543
G1 X204.20 Y194.85 E241.01282
G1 X203.16 Y195.73 E241.09805
G1 X202.18 Y196.30 E241.16877
G1 X201.13 Y196.70 E241.23876
G1 X200.36 Y196.86 E241.28753
G1 X200.49 Y197.12 E241.30516
G1 X200.81 Y198.22 E241.37688
G1 X200.95 Y199.35 E241.44816
G1 X200.94 Y200.46 E241.51719
G1 X200.73 Y201.82 E241.60321
G1 X200.28 Y203.23 E241.69503
G1 X199.68 Y204.39 E241.77692
G1 X198.95 Y205.40 E241.85463
G1 X198.06 Y206.27 E241.93203
G1 X197.05 Y207.00 E242.01000
G1 X195.92 Y207.55 E242.08851
G1 X194.72 Y207.92 E242.16627
G1 X193.37 Y208.11 E242.25164
G1 X191.83 Y208.08 E242.34751
G1 X190.52 Y207.85 E242.43089
G1 X190.02 Y207.76 E242.46240
G1 X186.91 Y206.80 E242.66522
G1 X186.64 Y206.71 E242.68301
G1 X186.51 Y207.12 E242.70944
G1 X186.49 Y207.14 E242.71125
G1 X186.63 Y207.47 E242.73309
G1 X186.85 Y208.66 E242.80914
G1 X186.89 Y210.08 E242.89729
G1 X186.22 Y212.65 E243.06295
G1 X184.14 Y214.73 E243.24631
G1 X182.03 Y215.63 E243.38918
G1 X180.22 Y215.77 E243.50292
G1 X179.50 Y215.66 E243.54805
G1 X179.31 Y216.60 E243.60796
G1 X178.58 Y218.06 E243.70931
G1 X177.56 Y219.25 E243.80688
G1 X176.50 Y220.03 E243.88931
G1 X175.50 Y220.54 E243.95937
G1 X174.47 Y220.86 E244.02649
G1 X174.00 Y222.31 E244.12119
G1 X172.52 Y223.88 E244.25535
G1 X171.47 Y224.60 E244.33522
G1 X170.43 Y225.07 E244.40646
G1 X169.30 Y225.39 E244.47956
G1 X167.96 Y225.55 E244.56347
G1 X166.73 Y225.51 E244.64046
G1 X166.19 Y225.48 E244.67424
G1 X165.54 Y225.37 E244.71541
G1 X164.79 Y226.47 E244.79873
G1 X163.74 Y227.57 E244.89340
G1 X162.74 Y228.34 E244.97186
G1 X162.28 Y228.69 E245.00808
G1 X160.71 Y229.55 E245.11987
G1 X160.15 Y229.86 E245.15975
G1 X158.93 Y230.30 E245.24063
G1 X158.54 Y231.48 E245.31810
G1 X157.05 Y236.11 E245.62183
G1 X147.94 Y236.11 E246.18946
G1 X146.33 Y231.08 E246.51866
G1 X146.33 Y231.08 E246.51872
G1 X146.07 Y230.30 E246.57015
G1 X145.00 Y229.87 E246.64197
G1 X144.36 Y229.62 E246.68531
G1 X143.05 Y228.86 E246.77966
G1 X142.55 Y228.57 E246.81562
G1 X141.63 Y227.86 E246.88789
G1 X141.20 Y227.52 E246.92252
G1 X140.26 Y226.53 E247.00758
G1 X139.54 Y225.50 E247.08590
G1 X139.47 Y225.36 E247.09552
G1 X138.88 Y225.44 E247.13264
G1 X138.31 Y225.53 E247.16831
G1 X137.32 Y225.53 E247.23061
G1 X136.83 Y225.53 E247.26086
G1 X135.41 Y225.34 E247.35010
G1 X134.42 Y225.00 E247.41538
G1 X133.54 Y224.63 E247.47529
G1 X132.06 Y223.54 E247.58937
G1 X130.87 Y221.91 E247.71583
G1 X130.52 Y220.84 E247.78549
G1 X129.95 Y220.70 E247.82193
G1 X128.85 Y220.25 E247.89637
G1 X127.46 Y219.30 E248.00107
G1 X126.28 Y217.87 E248.11701
G1 X125.51 Y216.07 E248.23873
G1 X125.47 Y215.68 E248.26353
G1 X124.40 Y215.77 E248.33054
G1 X122.42 Y215.51 E248.45556
G1 X119.89 Y214.05 E248.63723
G1 X118.38 Y211.53 E248.82022
G1 X118.06 Y209.26 E248.96328
G1 X118.36 Y207.49 E249.07566
G1 X118.53 Y207.08 E249.10321
G1 X118.39 Y206.76 E249.12488
G1 X118.37 Y206.72 E249.12787
G1 X118.10 Y206.80 E249.14580
G1 X115.57 Y207.58 E249.31060
G1 X114.92 Y207.78 E249.35309
G1 X113.72 Y207.99 E249.42928
G1 X113.18 Y208.08 E249.46310
G1 X111.80 Y208.12 E249.54919
G1 X110.53 Y207.97 E249.62891
G1 X109.31 Y207.64 E249.70782
G1 X108.14 Y207.11 E249.78803
G1 X107.11 Y206.41 E249.86563
G1 X106.18 Y205.55 E249.94479
G1 X105.41 Y204.54 E250.02353
G1 X104.81 Y203.43 E250.10251
G1 X104.34 Y202.13 E250.18869
G1 X104.07 Y200.72 E250.27834
G1 X104.04 Y199.36 E250.36293
G1 X104.19 Y198.23 E250.43414
G1 X104.54 Y197.01 E250.51308
G1 X104.62 Y196.86 E250.52382
G1 X104.33 Y196.82 E250.54175
G1 X103.28 Y196.50 E250.61053
G1 X102.18 Y195.97 E250.68645
G1 X100.65 Y194.79 E250.80695
G1 X99.27 Y192.43 E250.97790
G1 X99.03 Y189.23 E251.17787
G1 X100.22 Y186.84 E251.34423
G1 X101.10 Y185.89 E251.42470
G1 X100.04 Y184.58 E251.52970
G1 X99.41 Y183.26 E251.62088
G1 X99.03 Y181.98 E251.70390
G1 X98.85 Y180.68 E251.78603
G1 X98.85 Y179.34 E251.86935
G1 X99.04 Y178.16 E251.94442
G1 X99.42 Y176.91 E252.02563
G1 X100.25 Y175.44 E252.13094
G1 X101.18 Y174.43 E252.21646
G1 X102.17 Y173.67 E252.29456
G1 X103.37 Y173.08 E252.37784
G1 X104.49 Y172.76 E252.45046
G1 X105.44 Y172.65 E252.50998
G1 X105.81 Y172.31 E252.54154
G1 X107.04 Y171.49 E252.63328
G1 X108.42 Y170.85 E252.72808
G1 X109.53 Y170.53 E252.80052
G1 X110.11 Y170.36 E252.83784
G1 X112.16 Y170.12 E252.96690
G1 X114.19 Y170.20 E253.09341
G1 X114.84 Y170.22 E253.13398
G1 X116.16 Y170.47 E253.21764
G1 X116.71 Y170.58 E253.25246
G1 X117.73 Y170.93 E253.32019
G1 X118.27 Y171.12 E253.35535
G1 X119.15 Y171.58 E253.41750
G1 X119.63 Y171.84 E253.45162
G1 X120.82 Y172.72 E253.54392
G1 X121.17 Y173.07 E253.57483
G1 X121.87 Y172.27 E253.64112
G1 X122.82 Y171.31 E253.72548
G1 X123.25 Y170.87 E253.76371
G1 X124.12 Y170.24 E253.83069
G1 X124.61 Y169.87 E253.86928
G1 X125.70 Y169.31 E253.94548
G1 X126.24 Y169.04 E253.98279
G1 X127.59 Y168.61 E254.07157
G1 X128.16 Y168.43 E254.10886
G1 X130.21 Y168.12 E254.23780
G1 X130.60 Y168.06 E254.26271
G1 X134.68 Y167.70 E254.51800
G1 X137.71 Y167.58 E254.70692
G1 X138.56 Y167.56 E254.75977
G1 X140.65 Y167.84 E254.89149
G1 X140.65 Y165.85 E255.01584
G1 X138.03 Y165.84 E255.17917
G1 X137.24 Y165.84 E255.22844
G1 X135.75 Y165.72 E255.32189
G1 X135.10 Y165.67 E255.36219
G1 X133.42 Y165.27 E255.46984
G1 X132.79 Y165.12 E255.51047
G1 X131.19 Y164.46 E255.61814
G1 X130.60 Y164.21 E255.65843
G1 X129.12 Y163.30 E255.76656
G1 X128.57 Y162.96 E255.80699
G1 X127.25 Y161.84 E255.91465
G1 X126.76 Y161.42 E255.95525
G1 X125.64 Y160.10 E256.06292
G1 X125.22 Y159.62 E256.10303
G1 X124.31 Y158.13 E256.21139
G1 X124.31 Y158.13 E256.21145
G1 X123.98 Y157.59 E256.25110
G1 X123.31 Y155.98 E256.35964
G1 X123.07 Y155.39 E256.39956
G1 X122.67 Y153.72 E256.50665
G1 X122.67 Y153.72 E256.50671
G1 X122.51 Y153.08 E256.54792
G1 X122.36 Y151.10 E256.67164
G1 X122.34 Y108.26 E259.34364
G1 X122.34 Y102.68 E259.69168
G1 X122.42 Y101.65 E259.75580
G1 X122.47 Y101.06 E259.79284
G1 X122.77 Y99.83 E259.87160
G1 X122.91 Y99.26 E259.90805
G1 X123.39 Y98.09 E259.98713
G1 X123.62 Y97.54 E260.02434
G1 X124.28 Y96.47 E260.10295
G1 X124.58 Y95.97 E260.13954
G0 F6000 X124.99 Y96.26
G1 F2700 X125.78 Y95.33 E260.21572
G1 X126.14 Y94.91 E260.25013
G1 X127.08 Y94.11 E260.32674
G1 X127.49 Y93.76 E260.36098
G1 X128.54 Y93.12 E260.43730
G1 X129.01 Y92.83 E260.47184
G1 X130.13 Y92.37 E260.54720
G1 X130.64 Y92.15 E260.58206
G1 X131.83 Y91.86 E260.65846
G1 X132.38 Y91.73 E260.69330
G1 X133.61 Y91.64 E260.77024
G1 X134.14 Y91.59 E260.80359
G1 X135.38 Y91.69 E260.88108
G1 X135.73 Y91.72 E260.90336
G1 X135.73 Y86.45 E261.23214
G1 X135.91 Y84.43 E261.35826
G1 X135.97 Y83.72 E261.40297
G1 X136.54 Y81.54 E261.54330
G1 X136.73 Y80.85 E261.58813
G1 X137.67 Y78.79 E261.72911
G1 X137.97 Y78.14 E261.77387
G1 X139.25 Y76.28 E261.91461
G1 X139.66 Y75.69 E261.95944
G1 X141.24 Y74.08 E262.10021
G1 X141.73 Y73.56 E262.14471
G1 X143.57 Y72.24 E262.28579
G1 X144.15 Y71.82 E262.33041
G1 X146.18 Y70.83 E262.47159
G1 X146.83 Y70.52 E262.51630
G1 X148.99 Y69.89 E262.65657
G1 X149.69 Y69.69 E262.70169
G1 X151.74 Y69.47 E262.83035
G1 X152.77 Y69.36 E262.89529
G1 X155.16 Y69.62 E263.04527
G1 X155.88 Y69.70 E263.09027
G1 X158.04 Y70.32 E263.23060
G1 X158.73 Y70.52 E263.27540
G1 X160.75 Y71.50 E263.41555
G1 X161.40 Y71.82 E263.46054
G1 X163.24 Y73.14 E263.60176
G1 X163.82 Y73.56 E263.64647
G1 X165.40 Y75.18 E263.78750
G1 X165.90 Y75.69 E263.83235
G1 X167.18 Y77.55 E263.97255
G1 X167.58 Y78.14 E264.01752
G1 X168.52 Y80.19 E264.15803
G1 X168.83 Y80.85 E264.20320
G1 X169.40 Y83.03 E264.34377
G1 X169.40 Y83.03 E264.34383
G1 X169.59 Y83.73 E264.38893
G1 X169.80 Y86.23 E264.54535
G1 X169.80 Y91.72 E264.88803
G1 X170.86 Y91.64 E264.95421
G1 X171.39 Y91.59 E264.98756
G1 X172.63 Y91.69 E265.06506
G1 X173.18 Y91.74 E265.09960
G1 X174.37 Y92.02 E265.17592
G1 X174.91 Y92.15 E265.21000
G1 X176.04 Y92.62 E265.28656
G1 X176.55 Y92.83 E265.32131
G1 X177.60 Y93.47 E265.39754
G1 X178.06 Y93.76 E265.43167
G1 X178.99 Y94.55 E265.50775
G1 X179.41 Y94.91 E265.54226
G1 X180.21 Y95.84 E265.61887
G1 X180.56 Y96.26 E265.65311
G1 X181.20 Y97.30 E265.72920
G1 X181.50 Y97.78 E265.76397
G1 X181.96 Y98.89 E265.83933
G1 X182.17 Y99.41 E265.87419
G1 X182.46 Y100.60 E265.95059
G1 X182.59 Y101.14 E265.98542
G1 X182.70 Y102.60 E266.07625
G1 X182.71 Y145.37 E268.74338
G1 X182.71 Y150.93 E269.09018
G1 X182.59 Y152.40 E269.18232
G1 X182.54 Y153.01 E269.22042
G1 X182.15 Y154.65 E269.32561
G1 X182.01 Y155.24 E269.36354
G1 X181.36 Y156.80 E269.46884
G1 X181.13 Y157.36 E269.50672
G1 X180.25 Y158.80 E269.61222
G1 X179.93 Y159.32 E269.65025
G1 X178.83 Y160.61 E269.75552
G1 X178.43 Y161.07 E269.79365
G1 X177.15 Y162.17 E269.89888
G1 X176.69 Y162.56 E269.93656
G1 X175.26 Y163.44 E270.04125
G1 X175.26 Y163.44 E270.04131
G1 X174.73 Y163.76 E270.07975
G1 X173.17 Y164.41 E270.18493
G1 X172.60 Y164.64 E270.22343
G1 X170.97 Y165.03 E270.32801
G1 X170.37 Y165.18 E270.36658
G1 X168.46 Y165.33 E270.48625
G1 X163.86 Y165.34 E270.77331
G1 X163.85 Y168.46 E270.96763
G1 X164.79 Y168.28 E271.02713
G1 X164.79 Y168.28 E271.02719
G1 X165.59 Y168.12 E271.07833
G1 X168.07 Y168.08 E271.23276
G1 X168.61 Y168.07 E271.26631
G1 X173.82 Y168.52 E271.59226
G1 X174.68 Y168.59 E271.64609
G1 X176.37 Y168.88 E271.75307
G1 X176.98 Y168.99 E271.79176
G1 X178.15 Y169.37 E271.86838
G1 X178.65 Y169.54 E271.90167
G1 X179.59 Y170.02 E271.96732
G1 X180.09 Y170.28 E272.00263
G1 X181.04 Y170.98 E272.07578
G1 X181.04 Y170.97 E272.07587
G1 X181.52 Y171.33 E272.11298
G1 X182.88 Y172.76 E272.23591
G1 X183.81 Y173.77 E272.32211
G1 X183.83 Y173.75 E272.32437
G1 X184.86 Y172.80 E272.41137
G1 X186.01 Y172.04 E272.49741
G1 X186.86 Y171.64 E272.55577
G1 X187.31 Y171.42 E272.58696
G1 X188.48 Y171.08 E272.66287
G1 X189.01 Y170.92 E272.69774
G1 X191.17 Y170.64 E272.83333
G1 X192.84 Y170.65 E272.93741
G1 X193.42 Y170.66 E272.97371
G1 X194.58 Y170.84 E273.04687
G1 X195.09 Y170.92 E273.07900
G1 X196.07 Y171.22 E273.14291
G1 X196.56 Y171.38 E273.17504
G1 X197.76 Y171.96 E273.25874
G1 X198.57 Y172.50 E273.31947
G1 X199.05 Y172.84 E273.35587
G1 X199.34 Y173.12 E273.38114
G1 X199.41 Y173.12 E273.38532
G1 X200.56 Y173.29 E273.45809
G1 X201.57 Y173.60 E273.52383
G1 X202.50 Y174.07 E273.58889
G1 X203.34 Y174.69 E273.65389
G1 X204.06 Y175.41 E273.71696
G1 X204.64 Y176.21 E273.77916
G1 X205.13 Y177.18 E273.84708
G1 X205.47 Y178.28 E273.91862
G1 X205.66 Y179.50 E273.99580
G1 X205.64 Y180.86 E274.08044
G1 X205.41 Y182.16 E274.16264
G1 X205.04 Y183.27 E274.23553
G1 X204.55 Y184.24 E274.30336
G1 X203.90 Y185.14 E274.37284
G1 X203.14 Y185.88 E274.43908
G1 X203.13 Y185.89 E274.43970
G1 X203.99 Y186.65 E274.51100
G1 X204.82 Y187.95 E274.60744
G1 X205.40 Y189.67 E274.72037
G1 X205.34 Y191.03 E274.80581
G1 X205.10 Y192.73 E274.91284
G1 X203.83 Y194.51 E275.04879
G1 X202.87 Y195.32 E275.12738
G1 X201.96 Y195.85 E275.19271
G1 X200.99 Y196.22 E275.25777
G1 X199.84 Y196.46 E275.33076
G1 X199.63 Y196.47 E275.34432
G1 X200.02 Y197.30 E275.40109
G1 X200.32 Y198.32 E275.46782
G1 X200.45 Y199.38 E275.53450
G1 X200.44 Y200.42 E275.59918
G1 X200.25 Y201.71 E275.68045
G1 X199.82 Y203.03 E275.76723
G1 X199.25 Y204.13 E275.84410
G1 X198.57 Y205.07 E275.91691
G1 X197.74 Y205.89 E275.98932
G1 X196.79 Y206.57 E276.06221
G1 X195.73 Y207.09 E276.13572
G1 X194.62 Y207.43 E276.20858
G1 X193.34 Y207.61 E276.28896
G1 X191.88 Y207.58 E276.37984
G1 X190.60 Y207.36 E276.46076
G1 X190.14 Y207.27 E276.49030
G1 X187.09 Y206.33 E276.68915
G1 X186.32 Y206.09 E276.73953
G1 X186.04 Y206.92 E276.79410
G1 X185.94 Y207.12 E276.80793
G1 X186.14 Y207.61 E276.84079
G1 X186.35 Y208.72 E276.91112
G1 X186.39 Y210.02 E276.99241
G1 X185.77 Y212.39 E277.14513
G1 X183.85 Y214.31 E277.31406
G1 X181.91 Y215.14 E277.44568
G1 X180.23 Y215.27 E277.55079
G1 X179.10 Y215.10 E277.62188
G1 X178.83 Y216.44 E277.70713
G1 X178.16 Y217.78 E277.80050
G1 X177.22 Y218.88 E277.89078
G1 X176.24 Y219.61 E277.96688
G1 X175.31 Y220.07 E278.03186
G1 X174.29 Y220.40 E278.09812
G1 X174.09 Y220.43 E278.11113
G1 X173.56 Y222.04 E278.21732
G1 X172.20 Y223.49 E278.34117
G1 X171.22 Y224.16 E278.41497
G1 X170.26 Y224.60 E278.48108
G1 X169.20 Y224.90 E278.54933
G1 X167.94 Y225.04 E278.62852
G1 X166.75 Y225.01 E278.70296
G1 X166.24 Y224.98 E278.73448
G1 X165.25 Y224.81 E278.79732
G1 X165.11 Y225.11 E278.81842
G1 X164.40 Y226.16 E278.89714
G1 X163.41 Y227.20 E278.98682
G1 X162.44 Y227.94 E279.06279
G1 X162.01 Y228.27 E279.09657
G1 X160.47 Y229.11 E279.20597
G1 X159.94 Y229.40 E279.24350
G1 X158.53 Y229.91 E279.33730
G1 X158.07 Y231.32 E279.43004
G1 X156.68 Y235.61 E279.71107
G1 X148.31 Y235.61 E280.23330
G1 X146.80 Y230.93 E280.53983
G1 X146.48 Y229.92 E280.60600
G1 X145.19 Y229.41 E280.69254
G1 X144.57 Y229.17 E280.73362
G1 X143.30 Y228.43 E280.82559
G1 X142.83 Y228.16 E280.85935
G1 X141.94 Y227.47 E280.92936
G1 X141.54 Y227.15 E280.96168
G1 X140.65 Y226.21 E281.04219
G1 X139.97 Y225.24 E281.11586
G1 X139.76 Y224.81 E281.14568
G1 X138.79 Y224.95 E281.20628
G1 X138.28 Y225.03 E281.23887
G1 X137.31 Y225.03 E281.29899
G1 X136.86 Y225.03 E281.32718
G1 X135.53 Y224.85 E281.41095
G1 X134.60 Y224.53 E281.47226
G1 X133.78 Y224.19 E281.52747
G1 X132.42 Y223.19 E281.63300
G1 X131.32 Y221.67 E281.74973
G1 X130.91 Y220.43 E281.83153
G1 X130.11 Y220.22 E281.88284
G1 X129.09 Y219.80 E281.95190
G1 X127.80 Y218.93 E282.04889
G1 X126.71 Y217.60 E282.15584
G1 X126.00 Y215.95 E282.26826
G1 X125.92 Y215.08 E282.32275
G1 X125.52 Y215.17 E282.34854
G1 X124.41 Y215.27 E282.41761
G1 X122.58 Y215.03 E282.53295
G1 X120.25 Y213.68 E282.70041
G1 X118.86 Y211.37 E282.86900
G1 X118.56 Y209.27 E283.00091
G1 X118.85 Y207.63 E283.10500
G1 X119.07 Y207.07 E283.14225
G1 X118.85 Y206.56 E283.17697
G1 X118.66 Y206.11 E283.20787
G1 X117.95 Y206.32 E283.25371
G1 X115.41 Y207.10 E283.41942
G1 X114.80 Y207.29 E283.45910
G1 X113.65 Y207.49 E283.53194
G1 X113.65 Y207.49 E283.53200
G1 X113.13 Y207.58 E283.56492
G1 X111.82 Y207.62 E283.64658
G1 X110.63 Y207.48 E283.72165
G1 X109.48 Y207.17 E283.79572
G1 X108.39 Y206.67 E283.87085
G1 X107.42 Y206.02 E283.94338
G1 X106.55 Y205.21 E284.01746
G1 X105.83 Y204.27 E284.09114
G1 X105.27 Y203.23 E284.16529
G1 X104.83 Y202.00 E284.24657
G1 X104.57 Y200.67 E284.33127
G1 X104.54 Y199.39 E284.41093
G1 X104.68 Y198.33 E284.47737
G1 X105.00 Y197.20 E284.55072
G1 X105.39 Y196.48 E284.60200
G1 X104.44 Y196.33 E284.66172
G1 X103.46 Y196.03 E284.72580
G1 X102.45 Y195.54 E284.79614
G1 X101.03 Y194.46 E284.90738
G1 X99.76 Y192.27 E285.06492
G1 X99.54 Y189.33 E285.24907
G1 X100.64 Y187.13 E285.40251
G1 X101.56 Y186.12 E285.48757
G1 X101.84 Y185.91 E285.50940
G1 X101.66 Y185.80 E285.52234
G1 X100.47 Y184.31 E285.64144
G1 X99.88 Y183.08 E285.72657
G1 X99.52 Y181.88 E285.80471
G1 X99.35 Y180.65 E285.88238
G1 X99.35 Y179.38 E285.96096
G1 X99.53 Y178.27 E286.03148
G1 X99.89 Y177.11 E286.10714
G1 X100.65 Y175.73 E286.20544
G1 X101.52 Y174.80 E286.28460
G1 X102.44 Y174.10 E286.35696
G1 X103.55 Y173.55 E286.43427
G1 X104.59 Y173.26 E286.50170
G1 X105.66 Y173.12 E286.56876
G1 X106.12 Y172.70 E286.60792
G1 X107.28 Y171.93 E286.69493
G1 X108.59 Y171.32 E286.78494
G1 X109.67 Y171.00 E286.85497
G1 X110.21 Y170.85 E286.88970
G1 X112.18 Y170.62 E287.01379
G1 X114.17 Y170.70 E287.13775
G1 X114.78 Y170.72 E287.17607
G1 X116.06 Y170.97 E287.25738
G1 X116.58 Y171.06 E287.28992
G1 X117.57 Y171.41 E287.35547
G1 X118.07 Y171.58 E287.38819
G1 X118.92 Y172.03 E287.44803
G1 X119.37 Y172.26 E287.47977
G1 X120.49 Y173.10 E287.56724
G1 X121.19 Y173.80 E287.62920
G1 X121.19 Y173.80 E287.62938
G1 X122.24 Y172.61 E287.72814
G1 X123.17 Y171.66 E287.81136
G1 X123.58 Y171.25 E287.84712
G1 X124.44 Y170.62 E287.91379
G1 X124.88 Y170.29 E287.94796
G1 X125.93 Y169.76 E288.02142
G1 X126.43 Y169.51 E288.05623
G1 X127.75 Y169.09 E288.14244
G1 X128.28 Y168.92 E288.17733
G1 X130.28 Y168.61 E288.30393
G1 X130.28 Y168.62 E288.30399
G1 X130.66 Y168.56 E288.32778
G1 X134.71 Y168.20 E288.58137
G1 X137.73 Y168.08 E288.76942
G1 X138.53 Y168.06 E288.81952
G1 X140.87 Y168.38 E288.96710
G1 X141.15 Y168.41 E288.98434
G1 X141.15 Y165.35 E289.17549
G1 X138.03 Y165.34 E289.36993
G1 X137.26 Y165.34 E289.41802
G1 X135.78 Y165.23 E289.51022
G1 X135.18 Y165.18 E289.54802
G1 X133.54 Y164.78 E289.65324
G1 X132.94 Y164.64 E289.69143
G1 X131.39 Y163.99 E289.79667
G1 X130.83 Y163.76 E289.83449
G1 X129.38 Y162.88 E289.94016
G1 X128.86 Y162.56 E289.97810
G1 X127.58 Y161.46 E290.08338
G1 X127.11 Y161.06 E290.12150
G1 X126.02 Y159.78 E290.22673
G1 X125.63 Y159.32 E290.26442
G1 X124.74 Y157.87 E290.37028
G1 X124.43 Y157.36 E290.40755
G1 X123.78 Y155.79 E290.51360
G1 X123.55 Y155.24 E290.55109
G1 X123.15 Y153.59 E290.65691
G1 X123.01 Y153.00 E290.69446
G1 X122.86 Y151.08 E290.81450
G1 X122.84 Y108.26 E293.48524
G1 X122.84 Y102.70 E293.83204
G1 X122.92 Y101.69 E293.89491
G1 X122.97 Y101.14 E293.92945
G1 X123.25 Y99.95 E294.00577
G1 X123.38 Y99.42 E294.03985
G1 X123.85 Y98.28 E294.11641
G1 X124.06 Y97.77 E294.15116
G1 X124.70 Y96.73 E294.22738
G1 X124.99 Y96.26 E294.26151
G0 F6000 X125.40 Y96.56
G1 F2700 X126.16 Y95.66 E294.33530
G1 X126.50 Y95.27 E294.36723
G1 X127.40 Y94.50 E294.44137
G1 X127.79 Y94.16 E294.47313
G1 X128.80 Y93.54 E294.54703
G1 X129.24 Y93.28 E294.57909
G1 X130.32 Y92.83 E294.65213
G1 X130.32 Y92.83 E294.65219
G1 X130.80 Y92.63 E294.68454
G1 X131.96 Y92.35 E294.75902
G1 X132.45 Y92.23 E294.79078
G1 X133.62 Y92.14 E294.86402
G1 X133.62 Y92.14 E294.86409
G1 X134.14 Y92.10 E294.89631
G1 X135.34 Y92.19 E294.97125
G1 X135.85 Y92.23 E295.00334
G1 X136.23 Y92.32 E295.02791
G1 X136.23 Y86.47 E295.39292
G1 X136.41 Y84.48 E295.51766
G1 X136.47 Y83.81 E295.55968
G1 X137.03 Y81.67 E295.69736
G1 X137.20 Y81.02 E295.73955
G1 X138.12 Y79.00 E295.87779
G1 X138.41 Y78.39 E295.91990
G1 X139.66 Y76.56 E296.05795
G1 X140.04 Y76.01 E296.10006
G1 X141.59 Y74.42 E296.23813
G1 X142.06 Y73.94 E296.27999
G1 X143.86 Y72.65 E296.41843
G1 X144.41 Y72.25 E296.46033
G1 X146.40 Y71.28 E296.59876
G1 X147.01 Y70.99 E296.64085
G1 X149.13 Y70.38 E296.77845
G1 X149.78 Y70.19 E296.82085
G1 X151.79 Y69.97 E296.94681
G1 X152.77 Y69.86 E297.00842
G1 X155.11 Y70.11 E297.15489
G1 X155.78 Y70.19 E297.19712
G1 X157.90 Y70.80 E297.33487
G1 X158.55 Y70.99 E297.37693
G1 X160.53 Y71.95 E297.51452
G1 X161.14 Y72.25 E297.55680
G1 X162.94 Y73.55 E297.69528
G1 X163.49 Y73.94 E297.73736
G1 X165.04 Y75.53 E297.87565
G1 X165.51 Y76.01 E297.91777
G1 X166.77 Y77.84 E298.05577
G1 X167.15 Y78.39 E298.09762
G1 X168.07 Y80.40 E298.23544
G1 X168.07 Y80.40 E298.23551
G1 X168.35 Y81.02 E298.27792
G1 X168.92 Y83.16 E298.41593
G1 X169.09 Y83.81 E298.45826
G1 X169.30 Y86.25 E298.61067
G1 X169.30 Y92.33 E298.98977
G1 X169.71 Y92.23 E299.01582
G1 X170.88 Y92.14 E299.08906
G1 X170.88 Y92.14 E299.08912
G1 X171.39 Y92.10 E299.12135
G1 X172.59 Y92.19 E299.19629
G1 X173.10 Y92.23 E299.22838
G1 X174.26 Y92.51 E299.30227
G1 X174.75 Y92.63 E299.33385
G1 X175.85 Y93.08 E299.40804
G1 X176.33 Y93.28 E299.44027
G1 X177.33 Y93.90 E299.51404
G1 X177.77 Y94.17 E299.54573
G1 X178.67 Y94.93 E299.61943
G1 X179.06 Y95.27 E299.65145
G1 X179.83 Y96.17 E299.72559
G1 X180.16 Y96.56 E299.75734
G1 X180.78 Y97.56 E299.83103
G1 X181.05 Y98.00 E299.86331
G1 X181.49 Y99.09 E299.93635
G1 X181.50 Y99.09 E299.93641
G1 X181.69 Y99.57 E299.96876
G1 X181.97 Y100.72 E300.04272
G1 X182.09 Y101.22 E300.07500
G1 X182.20 Y102.62 E300.16219
G1 X182.21 Y150.91 E303.17363
G1 X182.10 Y152.36 E303.26452
G1 X182.05 Y152.93 E303.30018
G1 X181.66 Y154.53 E303.40293
G1 X181.53 Y155.08 E303.43843
G1 X180.90 Y156.61 E303.54130
G1 X180.68 Y157.13 E303.57669
G1 X179.82 Y158.54 E303.67970
G1 X179.52 Y159.03 E303.71532
G1 X178.45 Y160.28 E303.81812
G1 X178.08 Y160.72 E303.85377
G1 X176.83 Y161.78 E303.95586
G1 X176.39 Y162.15 E303.99182
G1 X174.98 Y163.02 E304.09522
G1 X174.50 Y163.31 E304.13008
G1 X172.97 Y163.95 E304.23350
G1 X172.45 Y164.16 E304.26889
G1 X170.85 Y164.55 E304.37104
G1 X170.29 Y164.68 E304.40711
G1 X168.44 Y164.83 E304.52309
G1 X163.36 Y164.84 E304.84002
G1 X163.35 Y169.06 E305.10319
G1 X164.89 Y168.77 E305.20061
G1 X164.89 Y168.77 E305.20067
G1 X165.65 Y168.62 E305.24901
G1 X168.08 Y168.58 E305.40070
G1 X168.59 Y168.57 E305.43269
G1 X173.77 Y169.01 E305.75702
G1 X174.61 Y169.09 E305.80954
G1 X176.28 Y169.37 E305.91519
G1 X176.86 Y169.47 E305.95153
G1 X177.99 Y169.85 E306.02572
G1 X178.46 Y170.01 E306.05672
G1 X179.37 Y170.47 E306.12082
G1 X179.83 Y170.70 E306.15278
G1 X180.75 Y171.39 E306.22430
G1 X180.75 Y171.39 E306.22436
G1 X181.18 Y171.70 E306.25777
G1 X182.51 Y173.10 E306.37771
G1 X183.66 Y174.34 E306.48346
G1 X183.81 Y174.46 E306.49551
G1 X183.88 Y174.50 E306.50009
G1 X184.20 Y174.09 E306.53285
G1 X185.17 Y173.20 E306.61495
G1 X186.26 Y172.47 E306.69636
G1 X187.07 Y172.09 E306.75243
G1 X187.49 Y171.89 E306.78128
G1 X188.62 Y171.56 E306.85472
G1 X189.12 Y171.41 E306.88712
G1 X191.20 Y171.14 E307.01812
G1 X192.83 Y171.15 E307.11996
G1 X193.38 Y171.16 E307.15395
G1 X194.50 Y171.33 E307.22490
G1 X194.97 Y171.41 E307.25469
G1 X195.92 Y171.70 E307.31639
G1 X196.37 Y171.84 E307.34610
G1 X197.51 Y172.40 E307.42528
G1 X198.29 Y172.92 E307.48359
G1 X198.73 Y173.23 E307.51707
G1 X199.14 Y173.63 E307.55301
G1 X199.38 Y173.62 E307.56773
G1 X200.45 Y173.78 E307.63527
G1 X201.38 Y174.07 E307.69598
G1 X202.24 Y174.50 E307.75608
G1 X203.02 Y175.06 E307.81591
G1 X203.67 Y175.73 E307.87403
G1 X204.21 Y176.47 E307.93141
G1 X204.67 Y177.37 E307.99427
G1 X204.99 Y178.39 E308.06078
G1 X205.16 Y179.54 E308.13298
G1 X205.14 Y180.81 E308.21263
G1 X204.93 Y182.04 E308.29010
G1 X204.58 Y183.08 E308.35837
G1 X204.12 Y183.98 E308.42140
G1 X203.52 Y184.81 E308.48571
G1 X202.82 Y185.50 E308.54683
G1 X202.31 Y185.86 E308.58556
G1 X202.38 Y185.89 E308.59033
G1 X203.60 Y186.98 E308.69224
G1 X204.37 Y188.17 E308.78046
G1 X204.89 Y189.74 E308.88380
G1 X204.84 Y190.99 E308.96188
G1 X204.62 Y192.54 E309.05977
G1 X203.46 Y194.17 E309.18423
G1 X202.58 Y194.91 E309.25610
G1 X201.75 Y195.40 E309.31618
G1 X200.85 Y195.74 E309.37630
G1 X199.78 Y195.97 E309.44457
G1 X198.94 Y196.02 E309.49700
G1 X198.88 Y196.24 E309.51143
G1 X199.17 Y196.68 E309.54408
G1 X199.55 Y197.48 E309.59928
G1 X199.83 Y198.43 E309.66101
G1 X199.95 Y199.41 E309.72310
G1 X199.95 Y200.38 E309.78341
G1 X199.76 Y201.59 E309.85996
G1 X199.36 Y202.84 E309.94171
G1 X198.83 Y203.87 E310.01364
G1 X198.19 Y204.75 E310.08150
G1 X197.42 Y205.50 E310.14888
G1 X196.53 Y206.14 E310.21675
G1 X195.55 Y206.62 E310.28525
G1 X194.51 Y206.94 E310.35315
G1 X193.31 Y207.11 E310.42856
G1 X191.93 Y207.08 E310.51458
G1 X190.69 Y206.87 E310.59296
G1 X190.26 Y206.79 E310.62047
G1 X187.24 Y205.85 E310.81768
G1 X186.00 Y205.47 E310.89870
G1 X185.85 Y205.92 E310.92813
G1 X185.58 Y206.73 E310.98132
G1 X185.39 Y207.10 E311.00717
G1 X185.66 Y207.75 E311.05102
G1 X185.85 Y208.77 E311.11571
G1 X185.88 Y209.96 E311.19008
G1 X185.32 Y212.13 E311.32995
G1 X183.56 Y213.88 E311.48446
G1 X181.79 Y214.65 E311.60485
G1 X180.25 Y214.76 E311.70127
G1 X179.19 Y214.61 E311.76796
G1 X178.62 Y214.43 E311.80571
G1 X178.63 Y214.94 E311.83752
G1 X178.35 Y216.28 E311.92264
G1 X177.74 Y217.50 E312.00812
G1 X176.88 Y218.51 E312.09101
G1 X175.98 Y219.18 E312.16087
G1 X175.12 Y219.61 E312.22069
G1 X174.18 Y219.91 E312.28212
G1 X173.71 Y219.98 E312.31178
G1 X173.12 Y221.78 E312.43018
G1 X171.87 Y223.11 E312.54374
G1 X170.97 Y223.72 E312.61158
G1 X170.08 Y224.13 E312.67244
G1 X169.10 Y224.40 E312.73579
G1 X167.92 Y224.54 E312.81028
G1 X166.77 Y224.51 E312.88222
G1 X166.30 Y224.49 E312.91150
G1 X165.12 Y224.28 E312.98606
G1 X164.96 Y224.25 E312.99613
G1 X164.67 Y224.86 E313.03868
G1 X164.00 Y225.84 E313.11243
G1 X163.07 Y226.83 E313.19713
G1 X162.14 Y227.54 E313.27057
G1 X161.74 Y227.85 E313.30189
G1 X160.23 Y228.67 E313.40894
G1 X159.74 Y228.94 E313.44414
G1 X158.13 Y229.52 E313.55080
G1 X157.59 Y231.17 E313.65879
G1 X156.32 Y235.11 E313.91717
G1 X148.67 Y235.11 E314.39399
G1 X147.28 Y230.77 E314.67779
G1 X146.88 Y229.54 E314.75877
G1 X145.37 Y228.94 E314.85998
G1 X145.37 Y228.94 E314.86005
G1 X144.79 Y228.72 E314.89883
G1 X143.55 Y228.00 E314.98848
G1 X143.11 Y227.74 E315.02006
G1 X142.25 Y227.07 E315.08780
G1 X141.88 Y226.78 E315.11782
G1 X141.04 Y225.89 E315.19378
G1 X140.40 Y224.99 E315.26288
G1 X140.04 Y224.27 E315.31289
G1 X138.74 Y224.46 E315.39524
G1 X138.74 Y224.46 E315.39530
G1 X138.24 Y224.53 E315.42643
G1 X137.30 Y224.53 E315.48499
G1 X136.89 Y224.53 E315.51050
G1 X135.65 Y224.36 E315.58891
G1 X134.78 Y224.06 E315.64626
G1 X134.03 Y223.75 E315.69672
G1 X132.78 Y222.83 E315.79367
G1 X131.77 Y221.44 E315.90057
G1 X131.29 Y219.99 E315.99576
G1 X131.19 Y219.98 E316.00203
G1 X130.27 Y219.75 E316.06144
G1 X129.32 Y219.36 E316.12511
G1 X128.14 Y218.56 E316.21442
G1 X127.14 Y217.34 E316.31241
G1 X126.49 Y215.82 E316.41542
G1 X126.36 Y214.44 E316.50198
G1 X126.23 Y214.49 E316.51047
G1 X125.44 Y214.68 E316.56149
G1 X124.42 Y214.77 E316.62493
G1 X122.74 Y214.54 E316.73064
G1 X120.62 Y213.31 E316.88383
G1 X119.34 Y211.19 E317.03806
G1 X119.07 Y209.28 E317.15876
G1 X119.33 Y207.76 E317.25450
G1 X119.61 Y207.07 E317.30144
G1 X119.31 Y206.36 E317.34926
G1 X119.08 Y205.82 E317.38619
G1 X118.99 Y205.48 E317.40794
G1 X117.81 Y205.84 E317.48490
G1 X115.27 Y206.62 E317.65066
G1 X115.27 Y206.62 E317.65072
G1 X114.69 Y206.80 E317.68848
G1 X113.57 Y207.00 E317.75941
G1 X113.08 Y207.08 E317.79007
G1 X111.85 Y207.12 E317.86718
G1 X110.72 Y206.99 E317.93773
G1 X109.65 Y206.70 E318.00688
G1 X108.63 Y206.23 E318.07687
G1 X107.73 Y205.63 E318.14433
G1 X106.92 Y204.87 E318.21334
G1 X106.25 Y204.00 E318.28199
G1 X105.72 Y203.02 E318.35126
G1 X105.31 Y201.87 E318.42777
G1 X105.07 Y200.61 E318.50751
G1 X105.04 Y199.42 E318.58212
G1 X105.17 Y198.44 E318.64384
G1 X105.47 Y197.39 E318.71154
G1 X106.11 Y196.20 E318.79566
G1 X106.05 Y196.02 E318.80740
G1 X105.65 Y196.01 E318.83254
G1 X104.56 Y195.84 E318.90141
G1 X103.64 Y195.56 E318.96088
G1 X102.71 Y195.11 E319.02561
G1 X101.41 Y194.12 E319.12755
G1 X100.25 Y192.12 E319.27170
G1 X100.05 Y189.43 E319.44009
G1 X101.06 Y187.41 E319.58057
G1 X101.90 Y186.49 E319.65857
G1 X102.70 Y185.88 E319.72121
G1 X102.72 Y185.87 E319.72255
G1 X102.00 Y185.42 E319.77517
G1 X100.89 Y184.04 E319.88545
G1 X100.34 Y182.90 E319.96441
G1 X100.01 Y181.77 E320.03782
G1 X99.85 Y180.61 E320.11089
G1 X99.85 Y179.43 E320.18485
G1 X100.02 Y178.38 E320.25076
G1 X100.35 Y177.31 E320.32095
G1 X101.06 Y176.03 E320.41211
G1 X101.86 Y175.17 E320.48496
G1 X102.70 Y174.52 E320.55158
G1 X103.73 Y174.02 E320.62301
G1 X104.69 Y173.75 E320.68525
G1 X105.70 Y173.62 E320.74847
G1 X105.85 Y173.63 E320.75789
G1 X106.43 Y173.09 E320.80706
G1 X107.53 Y172.36 E320.88933
G1 X108.77 Y171.79 E320.97453
G1 X109.81 Y171.49 E321.04235
G1 X110.31 Y171.34 E321.07436
G1 X112.20 Y171.12 E321.19337
G1 X114.15 Y171.20 E321.31489
G1 X114.73 Y171.22 E321.35090
G1 X115.97 Y171.46 E321.42981
G1 X116.45 Y171.55 E321.46013
G1 X117.41 Y171.88 E321.52353
G1 X117.87 Y172.04 E321.55384
G1 X118.68 Y172.47 E321.61131
G1 X119.10 Y172.69 E321.64062
G1 X120.17 Y173.47 E321.72333
G1 X121.09 Y174.41 E321.80562
G1 X121.14 Y174.49 E321.81095
G1 X121.28 Y174.39 E321.82152
G1 X121.55 Y174.16 E321.84368
G1 X122.61 Y172.95 E321.94369
G1 X123.53 Y172.01 E322.02576
G1 X123.91 Y171.64 E322.05905
G1 X124.72 Y171.04 E322.12188
G1 X125.14 Y170.72 E322.15508
G1 X126.16 Y170.20 E322.22595
G1 X126.62 Y169.97 E322.25816
G1 X127.89 Y169.57 E322.34131
G1 X128.39 Y169.41 E322.37429
G1 X130.36 Y169.11 E322.49836
G1 X130.72 Y169.05 E322.52126
G1 X134.75 Y168.70 E322.77310
G1 X137.74 Y168.58 E322.96028
G1 X138.50 Y168.56 E323.00770
G1 X140.81 Y168.87 E323.15258
G1 X141.28 Y168.94 E323.18248
G1 X141.65 Y169.02 E323.20597
G1 X141.65 Y164.85 E323.46621
G1 X138.03 Y164.84 E323.69178
G1 X137.28 Y164.84 E323.73874
G1 X135.82 Y164.73 E323.82963
G1 X135.26 Y164.68 E323.86498
G1 X133.66 Y164.30 E323.96776
G1 X133.10 Y164.16 E324.00346
G1 X131.58 Y163.53 E324.10627
G1 X131.05 Y163.31 E324.14166
G1 X129.64 Y162.45 E324.24484
G1 X129.16 Y162.15 E324.28037
G1 X127.90 Y161.08 E324.38318
G1 X127.47 Y160.71 E324.41882
G1 X126.41 Y159.46 E324.52092
G1 X126.03 Y159.03 E324.55687
G1 X125.17 Y157.61 E324.66025
G1 X124.87 Y157.13 E324.69514
G1 X124.24 Y155.60 E324.79867
G1 X124.02 Y155.08 E324.83373
G1 X123.64 Y153.47 E324.93712
G1 X123.50 Y152.92 E324.97222
G1 X123.36 Y151.06 E325.08851
G1 X123.34 Y108.26 E327.75807
G1 X123.34 Y102.72 E328.10368
G1 X123.42 Y101.73 E328.16524
G1 X123.46 Y101.22 E328.19733
G1 X123.74 Y100.07 E328.27122
G1 X123.86 Y99.57 E328.30280
G1 X124.31 Y98.47 E328.37699
G1 X124.51 Y98.00 E328.40922
G1 X125.13 Y96.99 E328.48299
G1 X125.40 Y96.56 E328.51468
G0 F6000 X125.80 Y96.85
G1 F2700 X126.54 Y95.98 E328.58599
G1 X126.85 Y95.62 E328.61550
G1 X127.72 Y94.88 E328.68716
G1 X128.08 Y94.57 E328.71648
G1 X129.06 Y93.97 E328.78799
G1 X129.46 Y93.72 E328.81755
G1 X130.53 Y93.28 E328.88947
G1 X130.95 Y93.11 E328.91806
G1 X132.07 Y92.84 E328.98956
G1 X132.07 Y92.84 E328.98963
G1 X132.53 Y92.72 E329.01945
G1 X133.68 Y92.64 E329.09139
G1 X133.68 Y92.64 E329.09145
G1 X134.14 Y92.60 E329.12011
G1 X135.30 Y92.69 E329.19255
G1 X135.77 Y92.73 E329.22214
G1 X136.73 Y92.96 E329.28384
G1 X136.73 Y86.49 E329.68714
G1 X136.90 Y84.52 E329.81045
G1 X136.96 Y83.89 E329.84984
G1 X137.51 Y81.80 E329.98482
G1 X137.67 Y81.19 E330.02430
G1 X138.58 Y79.21 E330.15987
G1 X138.84 Y78.64 E330.19927
G1 X140.07 Y76.85 E330.33468
G1 X140.43 Y76.33 E330.37408
G1 X141.95 Y74.77 E330.50952
G1 X142.39 Y74.33 E330.54863
G1 X144.15 Y73.05 E330.68434
G1 X144.66 Y72.68 E330.72360
G1 X146.62 Y71.73 E330.85938
G1 X147.19 Y71.46 E330.89873
G1 X149.27 Y70.85 E331.03401
G1 X149.27 Y70.86 E331.03407
G1 X149.88 Y70.68 E331.07342
G1 X151.84 Y70.47 E331.19669
G1 X152.77 Y70.36 E331.25491
G1 X155.05 Y70.61 E331.39793
G1 X155.68 Y70.68 E331.43747
G1 X157.76 Y71.28 E331.57261
G1 X158.37 Y71.46 E331.61196
G1 X160.32 Y72.40 E331.74690
G1 X160.89 Y72.68 E331.78648
G1 X162.65 Y73.95 E331.92224
G1 X163.16 Y74.32 E331.96159
G1 X164.69 Y75.88 E332.09724
G1 X165.13 Y76.33 E332.13662
G1 X166.35 Y78.11 E332.27158
G1 X166.71 Y78.64 E332.31117
G1 X167.62 Y80.61 E332.44640
G1 X167.88 Y81.19 E332.48608
G1 X168.43 Y83.28 E332.62137
G1 X168.60 Y83.90 E332.66099
G1 X168.80 Y86.27 E332.80933
G1 X168.80 Y92.96 E333.22679
G1 X169.32 Y92.84 E333.26008
G1 X169.32 Y92.84 E333.26015
G1 X169.79 Y92.72 E333.28997
G1 X170.94 Y92.64 E333.36191
G1 X170.94 Y92.64 E333.36197
G1 X171.40 Y92.60 E333.39063
G1 X172.55 Y92.69 E333.46307
G1 X173.03 Y92.73 E333.49266
G1 X174.14 Y92.99 E333.56410
G1 X174.59 Y93.10 E333.59324
G1 X175.66 Y93.54 E333.66496
G1 X176.10 Y93.73 E333.69470
G1 X177.07 Y94.33 E333.76608
G1 X177.47 Y94.57 E333.79531
G1 X178.34 Y95.31 E333.86662
G1 X178.70 Y95.62 E333.89613
G1 X179.45 Y96.49 E333.96779
G1 X179.75 Y96.85 E333.99712
G1 X180.35 Y97.83 E334.06839
G1 X180.60 Y98.23 E334.09818
G1 X181.04 Y99.30 E334.17010
G1 X181.22 Y99.72 E334.19870
G1 X181.49 Y100.84 E334.27020
G1 X181.49 Y100.84 E334.27026
G1 X181.60 Y101.30 E334.30009
G1 X181.70 Y102.64 E334.38353
G1 X181.71 Y150.89 E337.39260
G1 X181.60 Y152.32 E337.48211
G1 X181.55 Y152.85 E337.51534
G1 X181.18 Y154.41 E337.61564
G1 X181.05 Y154.93 E337.64869
G1 X180.44 Y156.42 E337.74912
G1 X180.23 Y156.90 E337.78211
G1 X179.39 Y158.28 E337.88268
G1 X179.11 Y158.73 E337.91580
G1 X178.07 Y159.96 E338.01617
G1 X177.72 Y160.36 E338.04938
G1 X176.50 Y161.41 E338.14970
G1 X176.50 Y161.40 E338.14976
G1 X176.10 Y161.75 E338.18262
G1 X174.72 Y162.59 E338.28354
G1 X174.28 Y162.87 E338.31607
G1 X172.79 Y163.48 E338.41637
G1 X172.79 Y163.48 E338.41643
G1 X172.29 Y163.69 E338.44992
G1 X170.72 Y164.06 E338.55098
G1 X170.21 Y164.19 E338.58327
G1 X168.42 Y164.33 E338.69562
G1 X163.17 Y164.34 E339.02296
G1 X162.86 Y164.34 E339.04236
G1 X162.85 Y169.67 E339.37444
G1 X164.98 Y169.26 E339.50965
G1 X165.70 Y169.12 E339.55526
G1 X168.09 Y169.08 E339.70420
G1 X168.57 Y169.07 E339.73463
G1 X173.73 Y169.51 E340.05739
G1 X174.55 Y169.58 E340.10859
G1 X176.20 Y169.86 E340.21280
G1 X176.73 Y169.96 E340.24679
G1 X177.83 Y170.32 E340.31862
G1 X178.26 Y170.47 E340.34725
G1 X179.14 Y170.91 E340.40842
G1 X179.57 Y171.13 E340.43848
G1 X180.45 Y171.79 E340.50737
G1 X180.85 Y172.08 E340.53819
G1 X182.15 Y173.44 E340.65513
G1 X183.32 Y174.72 E340.76326
G1 X183.54 Y174.88 E340.78033
G1 X184.00 Y175.14 E340.81366
G1 X184.57 Y174.43 E340.87031
G1 X185.48 Y173.59 E340.94751
G1 X186.50 Y172.91 E341.02415
G1 X187.28 Y172.55 E341.07732
G1 X187.67 Y172.36 E341.10446
G1 X188.77 Y172.03 E341.17599
G1 X189.22 Y171.90 E341.20541
G1 X191.23 Y171.64 E341.33175
G1 X192.83 Y171.65 E341.43141
G1 X193.34 Y171.66 E341.46309
G1 X194.42 Y171.83 E341.53176
G1 X194.86 Y171.90 E341.55934
G1 X195.77 Y172.18 E341.61876
G1 X196.19 Y172.31 E341.64613
G1 X197.27 Y172.83 E341.72080
G1 X198.01 Y173.33 E341.77658
G1 X198.41 Y173.61 E341.80720
G1 X198.95 Y174.13 E341.85382
G1 X199.35 Y174.12 E341.87908
G1 X200.34 Y174.26 E341.94145
G1 X201.19 Y174.53 E341.99713
G1 X201.98 Y174.93 E342.05213
G1 X202.69 Y175.44 E342.10686
G1 X203.29 Y176.05 E342.16005
G1 X203.78 Y176.74 E342.21260
G1 X204.20 Y177.56 E342.27042
G1 X204.50 Y178.50 E342.33192
G1 X204.66 Y179.57 E342.39913
G1 X204.64 Y180.77 E342.47379
G1 X204.44 Y181.91 E342.54650
G1 X204.12 Y182.88 E342.61012
G1 X203.70 Y183.72 E342.66838
G1 X203.14 Y184.49 E342.72760
G1 X202.50 Y185.11 E342.78356
G1 X201.80 Y185.61 E342.83675
G1 X201.23 Y185.89 E342.87677
G1 X201.29 Y185.92 E342.88154
G1 X202.10 Y186.31 E342.93733
G1 X203.22 Y187.30 E343.03058
G1 X203.91 Y188.38 E343.11064
G1 X204.39 Y189.81 E343.20432
G1 X204.34 Y190.94 E343.27515
G1 X204.14 Y192.35 E343.36380
G1 X203.09 Y193.82 E343.47673
G1 X202.29 Y194.50 E343.54200
G1 X201.53 Y194.94 E343.59680
G1 X200.71 Y195.26 E343.65190
G1 X199.71 Y195.47 E343.71553
G1 X198.65 Y195.53 E343.78133
G1 X198.54 Y195.54 E343.78826
G1 X198.34 Y196.33 E343.83930
G1 X198.73 Y196.93 E343.88368
G1 X199.08 Y197.66 E343.93420
G1 X199.34 Y198.53 E343.99091
G1 X199.45 Y199.44 E344.04836
G1 X199.45 Y200.34 E344.10436
G1 X199.27 Y201.48 E344.17617
G1 X198.89 Y202.65 E344.25287
G1 X198.40 Y203.60 E344.31976
G1 X197.81 Y204.42 E344.38274
G1 X197.10 Y205.12 E344.44509
G1 X196.28 Y205.71 E344.50791
G1 X195.36 Y206.15 E344.57133
G1 X194.40 Y206.45 E344.63436
G1 X193.28 Y206.61 E344.70485
G1 X191.98 Y206.59 E344.78588
G1 X190.78 Y206.38 E344.86179
G1 X190.38 Y206.30 E344.88728
G1 X187.36 Y205.36 E345.08449
G1 X185.67 Y204.85 E345.19453
G1 X185.38 Y205.76 E345.25454
G1 X185.12 Y206.54 E345.30530
G1 X184.84 Y207.08 E345.34309
G1 X185.18 Y207.89 E345.39799
G1 X185.35 Y208.82 E345.45704
G1 X185.38 Y209.91 E345.52454
G1 X184.87 Y211.87 E345.65145
G1 X183.28 Y213.46 E345.79159
G1 X181.67 Y214.16 E345.90078
G1 X180.27 Y214.26 E345.98851
G1 X179.30 Y214.12 E346.04933
G1 X178.45 Y213.85 E346.10491
G1 X178.10 Y213.68 E346.12951
G1 X178.13 Y214.89 E346.20505
G1 X177.88 Y216.11 E346.28252
G1 X177.32 Y217.22 E346.36014
G1 X176.53 Y218.14 E346.43564
G1 X175.71 Y218.75 E346.49921
G1 X174.93 Y219.14 E346.55396
G1 X174.07 Y219.42 E346.61046
G1 X173.33 Y219.53 E346.65684
G1 X172.68 Y221.52 E346.78751
G1 X171.54 Y222.73 E346.89079
G1 X170.72 Y223.29 E346.95253
G1 X169.91 Y223.66 E347.00825
G1 X169.01 Y223.91 E347.06674
G1 X167.90 Y224.04 E347.13652
G1 X166.78 Y224.01 E347.20590
G1 X166.35 Y223.99 E347.23293
G1 X165.21 Y223.78 E347.30534
G1 X164.75 Y223.70 E347.33476
G1 X164.67 Y223.67 E347.33964
