;-- START GCODE --
;Sliced for Type A Machines Series 1
;Sliced at: Sun 24-01-2016 13:30:40
;Basic settings: Layer height: 0.2 Walls: 1 Fill: 100
;Print Speed: 120 Support: 0
;Retraction Speed: 40 Retraction Distance: 1.2
;Print time: #P_TIME#
;Filament used: #F_AMNT#m #F_WGHT#g
;Filament cost: #F_COST#
M106 S255	 ;start with the fan on
G21        ;metric values
G90        ;absolute positioning
M106 S255    ;start with the fan on
G28     ;move to endstops
G29		;allows for auto-levelling
G1 X150 Y5  Z15.0 F6000 ;center and move the platform down 15mm
M109 S220 ;Heat To temp
G92 E0                  ;zero the extruded length
G1 F200 E30              ;extrude 30mm of feed stock
G92 E0                  ;zero the extruded length again
G1 X175 Y25  Z0 F6000 ;remove bugger
G1 X220 F6000 ;remove bugger
G1 X150 Y150  Z15 F6000 ;recenter and begin
G1 F6000

;Layer count: 15
;LAYER:0
M106 S255
G0 F6000 X130.10 Y126.29 Z0.30
;TYPE:SKIRT
G1 F2700 X130.75 Y125.67 E0.05602
G1 X131.59 Y124.91 E0.12675
G1 X132.28 Y124.33 E0.18289
G1 X133.17 Y123.62 E0.25372
G1 X133.88 Y123.10 E0.30887
G1 X134.81 Y122.45 E0.37967
G1 X135.57 Y121.96 E0.43575
G1 X136.54 Y121.38 E0.50653
G1 X137.32 Y120.94 E0.56246
G1 X138.32 Y120.42 E0.63276
G1 X139.14 Y120.03 E0.68910
G1 X140.18 Y119.57 E0.75980
G1 X141.00 Y119.24 E0.81535
G1 X142.07 Y118.85 E0.88634
G1 X142.92 Y118.57 E0.94217
G1 X144.01 Y118.25 E1.01291
G1 X144.88 Y118.02 E1.06881
G1 X145.98 Y117.77 E1.13945
G1 X146.86 Y117.60 E1.19539
G1 X147.98 Y117.42 E1.26577
G1 X148.87 Y117.30 E1.32192
G1 X150.00 Y117.19 E1.39284
G1 X150.89 Y117.14 E1.44840
G1 X152.03 Y117.10 E1.51922
G1 X152.92 Y117.10 E1.57479
G1 X154.05 Y117.13 E1.64554
G1 X154.95 Y117.19 E1.70159
G1 X156.08 Y117.30 E1.77237
G1 X156.97 Y117.41 E1.82871
G1 X158.09 Y117.59 E1.89894
G1 X158.97 Y117.76 E1.95487
G1 X160.07 Y118.01 E2.02566
G1 X160.93 Y118.23 E2.08092
G1 X162.03 Y118.55 E2.15242
G1 X162.89 Y118.84 E2.20888
G1 X163.94 Y119.22 E2.27880
G1 X164.77 Y119.55 E2.33445
G1 X165.81 Y120.01 E2.40501
G1 X166.62 Y120.39 E2.46077
G1 X167.63 Y120.92 E2.53204
G1 X168.42 Y121.35 E2.58826
G1 X169.39 Y121.94 E2.65882
G1 X170.14 Y122.42 E2.71438
G1 X171.07 Y123.06 E2.78517
G1 X171.80 Y123.60 E2.84159
G1 X172.68 Y124.30 E2.91178
G1 X173.37 Y124.87 E2.96734
G1 X174.22 Y125.63 E3.03848
G1 X174.87 Y126.25 E3.09463
G1 X175.65 Y127.06 E3.16466
G1 X176.27 Y127.72 E3.22088
G1 X177.00 Y128.57 E3.29094
G1 X177.57 Y129.27 E3.34717
G1 X178.26 Y130.18 E3.41857
G1 X178.78 Y130.91 E3.47430
G1 X179.39 Y131.85 E3.54439
G1 X179.87 Y132.60 E3.59995
G1 X180.43 Y133.59 E3.67092
G1 X180.86 Y134.38 E3.72687
G1 X181.36 Y135.41 E3.79824
G1 X181.73 Y136.22 E3.85399
G1 X182.16 Y137.27 E3.92455
G1 X182.49 Y138.11 E3.98066
G1 X182.84 Y139.18 E4.05113
G1 X183.12 Y140.04 E4.10718
G1 X183.41 Y141.14 E4.17817
G1 X183.62 Y142.00 E4.23335
G1 X183.84 Y143.10 E4.30383
G1 X184.00 Y143.99 E4.36011
G1 X184.16 Y145.12 E4.43127
G1 X184.26 Y146.01 E4.48696
G1 X184.34 Y147.13 E4.55697
G1 X184.38 Y148.03 E4.61305
G1 X184.39 Y149.18 E4.68459
G1 X184.38 Y150.07 E4.74065
G1 X184.31 Y151.19 E4.81069
G1 X184.25 Y152.09 E4.86634
G1 X184.11 Y153.22 E4.93734
G1 X183.99 Y154.10 E4.99325
G1 X183.78 Y155.22 E5.06406
G1 X183.60 Y156.10 E5.12014
G1 X183.32 Y157.20 E5.19088
G1 X183.08 Y158.06 E5.24645
G1 X182.74 Y159.13 E5.31666
G1 X182.45 Y159.98 E5.37290
G1 X182.03 Y161.04 E5.44369
G1 X181.69 Y161.87 E5.49968
G1 X181.20 Y162.89 E5.57014
G1 X180.81 Y163.69 E5.62589
G1 X180.26 Y164.69 E5.69655
G1 X179.82 Y165.47 E5.75263
G1 X179.21 Y166.42 E5.82331
G1 X178.72 Y167.17 E5.87904
G1 X178.03 Y168.09 E5.95072
G1 X177.50 Y168.81 E6.00670
G1 X176.77 Y169.67 E6.07677
G1 X176.19 Y170.35 E6.13255
G1 X175.41 Y171.17 E6.20322
G1 X174.79 Y171.81 E6.25892
G1 X173.96 Y172.58 E6.32953
G1 X173.29 Y173.19 E6.38577
G1 X172.40 Y173.91 E6.45694
G1 X171.70 Y174.47 E6.51325
G1 X170.78 Y175.12 E6.58309
G1 X170.05 Y175.63 E6.63904
G1 X169.09 Y176.22 E6.70943
G1 X168.45 Y176.61 E6.75592
G1 X168.23 Y177.29 E6.80002
G1 X167.29 Y179.26 E6.93639
G1 X166.10 Y181.10 E7.07329
G1 X164.67 Y182.78 E7.21029
G1 X163.06 Y184.24 E7.34653
G1 X161.25 Y185.50 E7.48337
G1 X159.31 Y186.50 E7.61996
G1 X157.25 Y187.25 E7.75644
G1 X155.11 Y187.73 E7.89299
G1 X152.93 Y187.92 E8.02967
G1 X150.74 Y187.84 E8.16654
G1 X148.58 Y187.47 E8.30290
G1 X146.76 Y186.90 E8.42209
G1 X145.48 Y186.39 E8.50782
G1 X143.71 Y185.46 E8.63278
G1 X141.92 Y184.21 E8.76910
G1 X140.31 Y182.74 E8.90484
G1 X138.89 Y181.06 E9.04184
G1 X137.70 Y179.22 E9.17862
G1 X136.76 Y177.23 E9.31550
G1 X136.56 Y176.62 E9.35560
G1 X135.97 Y176.26 E9.39898
G1 X134.99 Y175.66 E9.47041
G1 X134.26 Y175.15 E9.52624
G1 X133.33 Y174.49 E9.59710
G1 X132.63 Y173.93 E9.65299
G1 X131.75 Y173.23 E9.72325
G1 X131.09 Y172.63 E9.77901
G1 X130.25 Y171.85 E9.85021
G1 X129.62 Y171.21 E9.90662
G1 X128.84 Y170.39 E9.97679
G1 X128.27 Y169.72 E10.03213
G1 X127.53 Y168.84 E10.10342
G1 X126.99 Y168.13 E10.15924
G1 X126.32 Y167.22 E10.22981
G1 X125.83 Y166.47 E10.28594
G1 X125.21 Y165.52 E10.35631
G1 X124.77 Y164.74 E10.41228
G1 X124.22 Y163.75 E10.48292
G1 X123.83 Y162.95 E10.53864
G1 X123.33 Y161.91 E10.61030
G1 X122.99 Y161.08 E10.66610
G1 X122.57 Y160.04 E10.73606
G1 X122.29 Y159.19 E10.79169
G1 X121.93 Y158.10 E10.86347
G1 X121.70 Y157.24 E10.91937
G1 X121.41 Y156.15 E10.98924
G1 X121.23 Y155.27 E11.04541
G1 X121.02 Y154.16 E11.11585
G1 X120.90 Y153.27 E11.17168
G1 X120.75 Y152.13 E11.24329
G1 X120.69 Y151.24 E11.29943
G1 X120.62 Y150.13 E11.36872
G1 X120.61 Y149.24 E11.42423
G1 X120.61 Y148.08 E11.49657
G1 X120.66 Y147.18 E11.55266
G1 X120.73 Y146.07 E11.62203
G1 X120.84 Y145.18 E11.67816
G1 X120.99 Y144.05 E11.74911
G1 X121.14 Y143.17 E11.80450
G1 X121.36 Y142.05 E11.87579
G1 X121.58 Y141.18 E11.93202
G1 X121.87 Y140.09 E12.00220
G1 X122.14 Y139.23 E12.05817
G1 X122.50 Y138.15 E12.12936
G1 X122.82 Y137.32 E12.18504
G1 X123.25 Y136.27 E12.25555
G1 X123.63 Y135.45 E12.31157
G1 X124.11 Y134.44 E12.38183
G1 X124.54 Y133.65 E12.43798
G1 X125.10 Y132.66 E12.50832
G1 X125.57 Y131.90 E12.56437
G1 X126.20 Y130.95 E12.63551
G1 X126.72 Y130.22 E12.69152
G1 X127.39 Y129.32 E12.76124
G1 X127.96 Y128.63 E12.81713
G1 X128.70 Y127.76 E12.88844
G1 X129.30 Y127.11 E12.94382
G1 X130.10 Y126.29 E13.01500
G0 F6000 X130.45 Y126.64
G1 F2700 X131.09 Y126.03 E13.07006
G1 X131.92 Y125.28 E13.13981
G1 X132.59 Y124.72 E13.19498
G1 X133.47 Y124.02 E13.26479
G1 X134.17 Y123.50 E13.31900
G1 X135.09 Y122.86 E13.38877
G1 X135.83 Y122.39 E13.44382
G1 X136.79 Y121.81 E13.51367
G1 X137.56 Y121.38 E13.56861
G1 X138.55 Y120.87 E13.63792
G1 X139.35 Y120.49 E13.69327
G1 X140.37 Y120.03 E13.76296
G1 X141.18 Y119.71 E13.81756
G1 X142.24 Y119.32 E13.88754
G1 X143.07 Y119.05 E13.94233
G1 X144.14 Y118.73 E14.01210
G1 X145.00 Y118.51 E14.06697
G1 X146.08 Y118.26 E14.13665
G1 X146.95 Y118.09 E14.19158
G1 X148.05 Y117.91 E14.26095
G1 X148.93 Y117.80 E14.31615
G1 X150.04 Y117.69 E14.38608
G1 X150.91 Y117.64 E14.44063
G1 X152.03 Y117.60 E14.51045
G1 X152.91 Y117.60 E14.56502
G1 X154.03 Y117.63 E14.63483
G1 X154.91 Y117.69 E14.68982
G1 X156.02 Y117.79 E14.75966
G1 X156.90 Y117.91 E14.81499
G1 X158.00 Y118.08 E14.88427
G1 X158.86 Y118.25 E14.93914
G1 X159.96 Y118.50 E15.00896
G1 X160.80 Y118.71 E15.06326
G1 X161.88 Y119.03 E15.13371
G1 X162.73 Y119.31 E15.18919
G1 X163.77 Y119.69 E15.25818
G1 X164.58 Y120.01 E15.31284
G1 X165.60 Y120.46 E15.38243
G1 X166.40 Y120.84 E15.43716
G1 X167.40 Y121.36 E15.50745
G1 X168.17 Y121.79 E15.56267
G1 X169.12 Y122.36 E15.63218
G1 X169.86 Y122.83 E15.68680
G1 X170.78 Y123.47 E15.75663
G1 X171.50 Y124.00 E15.81200
G1 X172.37 Y124.69 E15.88125
G1 X173.04 Y125.25 E15.93579
G1 X173.88 Y126.00 E16.00596
G1 X174.52 Y126.61 E16.06105
G1 X175.29 Y127.40 E16.13016
G1 X175.89 Y128.05 E16.18532
G1 X176.61 Y128.89 E16.25449
G1 X177.18 Y129.58 E16.30966
G1 X177.85 Y130.48 E16.38003
G1 X178.36 Y131.19 E16.43478
G1 X178.97 Y132.12 E16.50392
G1 X179.44 Y132.86 E16.55847
G1 X179.99 Y133.84 E16.62849
G1 X180.41 Y134.61 E16.68338
G1 X180.91 Y135.62 E16.75378
G1 X181.27 Y136.42 E16.80850
G1 X181.70 Y137.46 E16.87813
G1 X182.01 Y138.28 E16.93321
G1 X182.37 Y139.34 E17.00271
G1 X182.64 Y140.18 E17.05778
G1 X182.93 Y141.26 E17.12774
G1 X183.13 Y142.11 E17.18201
G1 X183.35 Y143.20 E17.25148
G1 X183.51 Y144.07 E17.30674
G1 X183.66 Y145.19 E17.37690
G1 X183.76 Y146.06 E17.43164
G1 X183.84 Y147.16 E17.50066
G1 X183.88 Y148.04 E17.55574
G1 X183.89 Y149.17 E17.62621
G1 X183.88 Y150.06 E17.68128
G1 X183.82 Y151.16 E17.75037
G1 X183.75 Y152.04 E17.80503
G1 X183.61 Y153.15 E17.87502
G1 X183.49 Y154.02 E17.92991
G1 X183.29 Y155.12 E17.99979
G1 X183.11 Y155.99 E18.05478
G1 X182.83 Y157.07 E18.12455
G1 X182.60 Y157.92 E18.17923
G1 X182.26 Y158.97 E18.24845
G1 X181.98 Y159.81 E18.30369
G1 X181.56 Y160.85 E18.37344
G1 X181.23 Y161.67 E18.42845
G1 X180.75 Y162.67 E18.49796
G1 X180.37 Y163.46 E18.55274
G1 X179.82 Y164.44 E18.62233
G1 X179.39 Y165.21 E18.67740
G1 X178.78 Y166.15 E18.74714
G1 X178.31 Y166.88 E18.80188
G1 X177.63 Y167.80 E18.87249
G1 X177.10 Y168.50 E18.92745
G1 X176.39 Y169.35 E18.99663
G1 X175.82 Y170.02 E19.05144
G1 X175.05 Y170.83 E19.12109
G1 X174.44 Y171.46 E19.17577
G1 X173.62 Y172.21 E19.24541
G1 X172.96 Y172.81 E19.30069
G1 X172.09 Y173.52 E19.37083
G1 X171.40 Y174.07 E19.42612
G1 X170.49 Y174.71 E19.49502
G1 X169.77 Y175.22 E19.54995
G1 X168.82 Y175.80 E19.61939
G1 X168.08 Y176.26 E19.67400
G1 X168.03 Y176.28 E19.67713
G1 X167.77 Y177.10 E19.73093
G1 X166.85 Y179.01 E19.86328
G1 X165.69 Y180.80 E19.99612
G1 X164.31 Y182.43 E20.12909
G1 X162.74 Y183.85 E20.26127
G1 X160.99 Y185.07 E20.39408
G1 X159.11 Y186.04 E20.52660
G1 X157.11 Y186.77 E20.65909
G1 X155.04 Y187.23 E20.79154
G1 X152.92 Y187.42 E20.92422
G1 X150.79 Y187.34 E21.05703
G1 X148.70 Y186.98 E21.18934
G1 X146.92 Y186.43 E21.30521
G1 X145.69 Y185.94 E21.38806
G1 X143.97 Y185.03 E21.50948
G1 X142.23 Y183.81 E21.64177
G1 X140.67 Y182.39 E21.77345
G1 X139.29 Y180.76 E21.90642
G1 X138.14 Y178.97 E22.03914
G1 X137.23 Y177.05 E22.17201
G1 X136.98 Y176.29 E22.22161
G1 X136.98 Y176.29 E22.22211
G1 X136.23 Y175.83 E22.27657
G1 X135.27 Y175.24 E22.34695
G1 X134.55 Y174.74 E22.40179
G1 X133.63 Y174.09 E22.47166
G1 X132.95 Y173.54 E22.52654
G1 X132.08 Y172.85 E22.59586
G1 X131.43 Y172.26 E22.65061
G1 X130.60 Y171.50 E22.72084
G1 X129.98 Y170.86 E22.77619
G1 X129.21 Y170.06 E22.84543
G1 X128.65 Y169.39 E22.89980
G1 X127.92 Y168.53 E22.97007
G1 X127.39 Y167.83 E23.02492
G1 X126.73 Y166.93 E23.09451
G1 X126.25 Y166.19 E23.14965
G1 X125.64 Y165.26 E23.21898
G1 X125.21 Y164.49 E23.27400
G1 X124.66 Y163.52 E23.34366
G1 X124.28 Y162.73 E23.39832
G1 X123.79 Y161.71 E23.46898
G1 X123.46 Y160.89 E23.52380
G1 X123.04 Y159.87 E23.59283
G1 X122.76 Y159.04 E23.64748
G1 X122.41 Y157.96 E23.71822
G1 X122.18 Y157.11 E23.77309
G1 X121.90 Y156.04 E23.84203
G1 X121.72 Y155.17 E23.89720
G1 X121.52 Y154.08 E23.96667
G1 X121.39 Y153.21 E24.02144
G1 X121.25 Y152.09 E24.09204
G1 X121.19 Y151.20 E24.14724
G1 X121.12 Y150.11 E24.21560
G1 X121.11 Y149.23 E24.27011
G1 X121.11 Y148.09 E24.34139
G1 X121.16 Y147.21 E24.39648
G1 X121.23 Y146.12 E24.46486
G1 X121.33 Y145.24 E24.51997
G1 X121.48 Y144.12 E24.58998
G1 X121.64 Y143.27 E24.64435
G1 X121.85 Y142.16 E24.71470
G1 X122.07 Y141.30 E24.76989
G1 X122.35 Y140.23 E24.83909
G1 X122.61 Y139.39 E24.89404
G1 X122.97 Y138.32 E24.96425
G1 X123.29 Y137.50 E25.01890
G1 X123.71 Y136.47 E25.08848
G1 X124.08 Y135.67 E25.14353
G1 X124.56 Y134.67 E25.21276
G1 X124.98 Y133.89 E25.26798
G1 X125.53 Y132.92 E25.33732
G1 X126.00 Y132.17 E25.39236
G1 X126.61 Y131.23 E25.46243
G1 X127.12 Y130.51 E25.51754
G1 X127.78 Y129.63 E25.58627
G1 X128.34 Y128.95 E25.64115
G1 X129.07 Y128.09 E25.71144
G1 X129.66 Y127.45 E25.76585
G1 X130.45 Y126.64 E25.83598
G0 F6000 X130.80 Y127.00
G1 F2700 X131.43 Y126.40 E25.89002
G1 X132.25 Y125.66 E25.95880
G1 X132.91 Y125.10 E26.01290
G1 X133.77 Y124.42 E26.08173
G1 X134.46 Y123.91 E26.13497
G1 X135.37 Y123.28 E26.20376
G1 X136.10 Y122.81 E26.25780
G1 X137.04 Y122.24 E26.32667
G1 X137.80 Y121.82 E26.38059
G1 X138.77 Y121.31 E26.44894
G1 X139.56 Y120.94 E26.50328
G1 X140.56 Y120.50 E26.57199
G1 X141.36 Y120.18 E26.62558
G1 X142.40 Y119.79 E26.69458
G1 X143.22 Y119.53 E26.74838
G1 X144.28 Y119.21 E26.81716
G1 X145.11 Y118.99 E26.87107
G1 X146.19 Y118.75 E26.93972
G1 X147.04 Y118.58 E26.99364
G1 X148.12 Y118.41 E27.06207
G1 X148.98 Y118.30 E27.11626
G1 X150.08 Y118.19 E27.18518
G1 X150.94 Y118.14 E27.23874
G1 X152.04 Y118.10 E27.30762
G1 X152.90 Y118.10 E27.36119
G1 X154.00 Y118.13 E27.42995
G1 X154.87 Y118.19 E27.48400
G1 X155.97 Y118.29 E27.55284
G1 X156.83 Y118.40 E27.60715
G1 X157.91 Y118.58 E27.67543
G1 X158.76 Y118.74 E27.72934
G1 X159.84 Y118.98 E27.79814
G1 X160.66 Y119.19 E27.85148
G1 X161.73 Y119.51 E27.92096
G1 X162.56 Y119.78 E27.97537
G1 X163.59 Y120.16 E28.04337
G1 X164.39 Y120.47 E28.09708
G1 X165.39 Y120.92 E28.16567
G1 X166.17 Y121.29 E28.21942
G1 X167.16 Y121.80 E28.28873
G1 X167.92 Y122.22 E28.34289
G1 X168.86 Y122.79 E28.41146
G1 X169.59 Y123.25 E28.46509
G1 X170.49 Y123.88 E28.53388
G1 X171.19 Y124.39 E28.58827
G1 X172.05 Y125.07 E28.65654
G1 X172.71 Y125.62 E28.71016
G1 X173.54 Y126.37 E28.77926
G1 X174.16 Y126.97 E28.83339
G1 X174.93 Y127.75 E28.90152
G1 X175.52 Y128.38 E28.95567
G1 X176.23 Y129.21 E29.02386
G1 X176.78 Y129.88 E29.07801
G1 X177.45 Y130.77 E29.14737
G1 X177.95 Y131.47 E29.20117
G1 X178.55 Y132.39 E29.26932
G1 X179.01 Y133.12 E29.32293
G1 X179.56 Y134.08 E29.39194
G1 X179.97 Y134.84 E29.44585
G1 X180.45 Y135.84 E29.51519
G1 X180.81 Y136.62 E29.56896
G1 X181.23 Y137.64 E29.63757
G1 X181.54 Y138.45 E29.69166
G1 X181.90 Y139.49 E29.76017
G1 X182.16 Y140.32 E29.81425
G1 X182.44 Y141.39 E29.88323
G1 X182.65 Y142.22 E29.93649
G1 X182.86 Y143.29 E30.00499
G1 X183.02 Y144.15 E30.05925
G1 X183.16 Y145.25 E30.12834
G1 X183.26 Y146.10 E30.18214
G1 X183.34 Y147.19 E30.25022
G1 X183.38 Y148.06 E30.30430
G1 X183.39 Y149.17 E30.37377
G1 X183.38 Y150.04 E30.42784
G1 X183.32 Y151.13 E30.49594
G1 X183.25 Y151.99 E30.54959
G1 X183.12 Y153.09 E30.61858
G1 X183.00 Y153.94 E30.67254
G1 X182.80 Y155.03 E30.74138
G1 X182.62 Y155.88 E30.79536
G1 X182.35 Y156.94 E30.86418
G1 X182.12 Y157.77 E30.91781
G1 X181.79 Y158.81 E30.98606
G1 X181.51 Y159.64 E31.04032
G1 X181.10 Y160.66 E31.10909
G1 X180.77 Y161.46 E31.16306
G1 X180.30 Y162.46 E31.23157
G1 X179.92 Y163.23 E31.28540
G1 X179.39 Y164.20 E31.35404
G1 X178.96 Y164.95 E31.40806
G1 X178.37 Y165.88 E31.47680
G1 X177.89 Y166.60 E31.53055
G1 X177.23 Y167.50 E31.60022
G1 X176.71 Y168.19 E31.65415
G1 X176.01 Y169.03 E31.72233
G1 X175.45 Y169.68 E31.77616
G1 X174.69 Y170.48 E31.84483
G1 X174.09 Y171.10 E31.89855
G1 X173.28 Y171.84 E31.96717
G1 X172.64 Y172.43 E32.02143
G1 X171.78 Y173.13 E32.09055
G1 X171.09 Y173.67 E32.14487
G1 X170.21 Y174.30 E32.21278
G1 X169.50 Y174.80 E32.26673
G1 X168.56 Y175.37 E32.33518
G1 X167.83 Y175.82 E32.38882
G1 X167.62 Y175.93 E32.40358
G1 X167.30 Y176.91 E32.46793
G1 X166.41 Y178.77 E32.59621
G1 X165.29 Y180.50 E32.72503
G1 X163.95 Y182.08 E32.85390
G1 X162.43 Y183.46 E32.98211
G1 X160.74 Y184.64 E33.11083
G1 X158.91 Y185.59 E33.23933
G1 X156.97 Y186.29 E33.36778
G1 X154.96 Y186.74 E33.49620
G1 X152.91 Y186.92 E33.62481
G1 X150.84 Y186.84 E33.75357
G1 X148.81 Y186.49 E33.88189
G1 X147.09 Y185.96 E33.99443
G1 X145.90 Y185.48 E34.07445
G1 X144.23 Y184.61 E34.19225
G1 X142.54 Y183.42 E34.32050
G1 X141.03 Y182.04 E34.44821
G1 X139.69 Y180.47 E34.57711
G1 X138.58 Y178.73 E34.70581
G1 X137.69 Y176.87 E34.83455
G1 X137.40 Y175.94 E34.89490
G1 X137.22 Y175.85 E34.90703
G1 X136.49 Y175.41 E34.96054
G1 X135.54 Y174.83 E35.02994
G1 X134.84 Y174.33 E35.08383
G1 X133.93 Y173.69 E35.15267
G1 X133.26 Y173.15 E35.20653
G1 X132.41 Y172.47 E35.27488
G1 X131.77 Y171.89 E35.32866
G1 X130.95 Y171.14 E35.39787
G1 X130.34 Y170.51 E35.45216
G1 X129.59 Y169.72 E35.52044
G1 X129.03 Y169.07 E35.57383
G1 X128.31 Y168.22 E35.64313
G1 X127.80 Y167.53 E35.69695
G1 X127.14 Y166.65 E35.76560
G1 X126.66 Y165.92 E35.81970
G1 X126.07 Y165.00 E35.88808
G1 X125.64 Y164.25 E35.94210
G1 X125.10 Y163.28 E36.01080
G1 X124.73 Y162.51 E36.06449
G1 X124.25 Y161.50 E36.13409
G1 X123.92 Y160.71 E36.18793
G1 X123.51 Y159.69 E36.25601
G1 X123.24 Y158.88 E36.30961
G1 X122.89 Y157.82 E36.37935
G1 X122.66 Y156.98 E36.43324
G1 X122.39 Y155.93 E36.50123
G1 X122.22 Y155.08 E36.55532
G1 X122.01 Y154.00 E36.62385
G1 X121.89 Y153.14 E36.67767
G1 X121.75 Y152.03 E36.74726
G1 X121.69 Y151.17 E36.80140
G1 X121.62 Y150.09 E36.86882
G1 X121.61 Y149.23 E36.92239
G1 X121.61 Y148.10 E36.99261
G1 X121.66 Y147.24 E37.04671
G1 X121.73 Y146.16 E37.11414
G1 X121.83 Y145.30 E37.16825
G1 X121.97 Y144.20 E37.23719
G1 X122.13 Y143.36 E37.29068
G1 X122.34 Y142.27 E37.35994
G1 X122.55 Y141.42 E37.41418
G1 X122.83 Y140.37 E37.48242
G1 X123.09 Y139.54 E37.53636
G1 X123.44 Y138.49 E37.60552
G1 X123.75 Y137.69 E37.65924
G1 X124.17 Y136.67 E37.72781
G1 X124.53 Y135.88 E37.78183
G1 X125.00 Y134.90 E37.85008
G1 X125.42 Y134.13 E37.90433
G1 X125.96 Y133.18 E37.97272
G1 X126.42 Y132.44 E38.02672
G1 X127.02 Y131.51 E38.09584
G1 X127.53 Y130.81 E38.14987
G1 X128.18 Y129.94 E38.21768
G1 X128.72 Y129.27 E38.27158
G1 X129.45 Y128.42 E38.34090
G1 X130.03 Y127.79 E38.39429
G1 X130.80 Y127.00 E38.46345
G0 F6000 X131.15 Y127.35
G1 F2700 X131.77 Y126.77 E38.51647
G1 X132.57 Y126.04 E38.58428
G1 X133.23 Y125.49 E38.63741
G1 X134.08 Y124.81 E38.70523
G1 X134.75 Y124.32 E38.75752
G1 X135.65 Y123.69 E38.82532
G1 X136.36 Y123.24 E38.87838
G1 X137.29 Y122.67 E38.94620
G1 X138.03 Y122.26 E38.99910
G1 X138.99 Y121.76 E39.06652
G1 X139.76 Y121.39 E39.11980
G1 X140.76 Y120.96 E39.18757
G1 X141.54 Y120.64 E39.24015
G1 X142.56 Y120.27 E39.30815
G1 X143.37 Y120.00 E39.36098
G1 X144.41 Y119.69 E39.42878
G1 X145.23 Y119.48 E39.48166
G1 X146.29 Y119.24 E39.54935
G1 X147.12 Y119.08 E39.60231
G1 X148.19 Y118.90 E39.66973
G1 X149.04 Y118.80 E39.72292
G1 X150.12 Y118.69 E39.79084
G1 X150.96 Y118.64 E39.84345
G1 X152.05 Y118.60 E39.91128
G1 X152.89 Y118.60 E39.96391
G1 X153.98 Y118.63 E40.03167
G1 X154.83 Y118.69 E40.08472
G1 X155.91 Y118.79 E40.15256
G1 X156.76 Y118.90 E40.20581
G1 X157.82 Y119.07 E40.27314
G1 X158.66 Y119.23 E40.32610
G1 X159.72 Y119.47 E40.39387
G1 X160.53 Y119.68 E40.44624
G1 X161.59 Y119.99 E40.51468
G1 X162.40 Y120.25 E40.56812
G1 X163.41 Y120.62 E40.63518
G1 X164.19 Y120.94 E40.68788
G1 X165.19 Y121.37 E40.75546
G1 X165.95 Y121.73 E40.80824
G1 X166.92 Y122.24 E40.87649
G1 X167.67 Y122.65 E40.92972
G1 X168.60 Y123.21 E40.99729
G1 X169.31 Y123.67 E41.04993
G1 X170.20 Y124.28 E41.11774
G1 X170.89 Y124.79 E41.17110
G1 X171.74 Y125.46 E41.23844
G1 X172.38 Y126.00 E41.29103
G1 X173.20 Y126.73 E41.35912
G1 X173.81 Y127.32 E41.41224
G1 X174.57 Y128.09 E41.47940
G1 X175.15 Y128.72 E41.53257
G1 X175.85 Y129.53 E41.59980
G1 X176.39 Y130.19 E41.65293
G1 X177.05 Y131.07 E41.72130
G1 X177.54 Y131.76 E41.77409
G1 X178.13 Y132.66 E41.84129
G1 X178.58 Y133.37 E41.89389
G1 X179.12 Y134.32 E41.96189
G1 X179.52 Y135.07 E42.01480
G1 X180.00 Y136.05 E42.08316
G1 X180.35 Y136.82 E42.13590
G1 X180.77 Y137.82 E42.20358
G1 X181.07 Y138.62 E42.25667
G1 X181.42 Y139.65 E42.32417
G1 X181.68 Y140.46 E42.37729
G1 X181.96 Y141.51 E42.44524
G1 X182.16 Y142.32 E42.49752
G1 X182.37 Y143.39 E42.56507
G1 X182.52 Y144.23 E42.61832
G1 X182.67 Y145.31 E42.68640
G1 X182.76 Y146.15 E42.73919
G1 X182.84 Y147.22 E42.80633
G1 X182.88 Y148.07 E42.85935
G1 X182.89 Y149.17 E42.92783
G1 X182.88 Y150.02 E42.98090
G1 X182.82 Y151.10 E43.04806
G1 X182.76 Y151.94 E43.10071
G1 X182.62 Y153.02 E43.16869
G1 X182.51 Y153.86 E43.22164
G1 X182.31 Y154.93 E43.28948
G1 X182.13 Y155.76 E43.34250
G1 X181.87 Y156.82 E43.41034
G1 X181.65 Y157.63 E43.46300
G1 X181.31 Y158.66 E43.53027
G1 X181.04 Y159.47 E43.58348
G1 X180.64 Y160.48 E43.65127
G1 X180.31 Y161.26 E43.70426
G1 X179.85 Y162.24 E43.77183
G1 X179.48 Y163.00 E43.82460
G1 X178.95 Y163.95 E43.89229
G1 X178.53 Y164.69 E43.94533
G1 X177.95 Y165.60 E44.01307
G1 X177.48 Y166.31 E44.06582
G1 X176.83 Y167.20 E44.13448
G1 X176.32 Y167.88 E44.18739
G1 X175.63 Y168.70 E44.25462
G1 X175.08 Y169.35 E44.30744
G1 X174.33 Y170.13 E44.37510
G1 X173.74 Y170.74 E44.42789
G1 X172.94 Y171.48 E44.49551
G1 X172.31 Y172.05 E44.54875
G1 X171.46 Y172.74 E44.61685
G1 X170.79 Y173.27 E44.67014
G1 X169.92 Y173.89 E44.73712
G1 X169.22 Y174.38 E44.79008
G1 X168.30 Y174.95 E44.85753
G1 X167.58 Y175.39 E44.91022
G1 X167.21 Y175.59 E44.93661
G1 X166.84 Y176.73 E45.01145
G1 X165.98 Y178.53 E45.13580
G1 X164.89 Y180.21 E45.26052
G1 X163.59 Y181.73 E45.38531
G1 X162.12 Y183.07 E45.50950
G1 X160.48 Y184.21 E45.63420
G1 X158.71 Y185.13 E45.75862
G1 X156.83 Y185.81 E45.88303
G1 X154.88 Y186.24 E46.00743
G1 X152.89 Y186.42 E46.13203
G1 X150.90 Y186.34 E46.25673
G1 X148.93 Y186.00 E46.38100
G1 X147.26 Y185.49 E46.49015
G1 X146.11 Y185.03 E46.56734
G1 X144.49 Y184.18 E46.68159
G1 X142.86 Y183.03 E46.80582
G1 X141.39 Y181.70 E46.92955
G1 X140.10 Y180.17 E47.05438
G1 X139.02 Y178.49 E47.17899
G1 X138.16 Y176.68 E47.30371
G1 X137.81 Y175.60 E47.37467
G1 X137.47 Y175.42 E47.39857
G1 X136.75 Y174.98 E47.45108
G1 X135.82 Y174.41 E47.51943
G1 X135.12 Y173.92 E47.57234
G1 X134.23 Y173.29 E47.64020
G1 X133.57 Y172.76 E47.69308
G1 X132.73 Y172.09 E47.76046
G1 X132.10 Y171.52 E47.81322
G1 X131.30 Y170.78 E47.88146
G1 X130.70 Y170.16 E47.93473
G1 X129.96 Y169.39 E48.00204
G1 X129.41 Y168.75 E48.05446
G1 X128.70 Y167.91 E48.12274
G1 X128.20 Y167.23 E48.17558
G1 X127.55 Y166.36 E48.24321
G1 X127.08 Y165.65 E48.29633
G1 X126.50 Y164.74 E48.36376
G1 X126.08 Y164.00 E48.41671
G1 X125.55 Y163.05 E48.48441
G1 X125.18 Y162.29 E48.53715
G1 X124.70 Y161.30 E48.60577
G1 X124.38 Y160.52 E48.65860
G1 X123.98 Y159.52 E48.72568
G1 X123.71 Y158.72 E48.77835
G1 X123.36 Y157.67 E48.84704
G1 X123.15 Y156.85 E48.89991
G1 X122.88 Y155.81 E48.96693
G1 X122.71 Y154.98 E49.02006
G1 X122.50 Y153.91 E49.08763
G1 X122.39 Y153.08 E49.14045
G1 X122.25 Y151.99 E49.20897
G1 X122.19 Y151.14 E49.26211
G1 X122.12 Y150.07 E49.32866
G1 X122.11 Y149.23 E49.38117
G1 X122.11 Y148.12 E49.45039
G1 X122.16 Y147.27 E49.50342
G1 X122.23 Y146.21 E49.56998
G1 X122.33 Y145.36 E49.62309
G1 X122.47 Y144.28 E49.69102
G1 X122.62 Y143.45 E49.74349
G1 X122.83 Y142.38 E49.81180
G1 X123.03 Y141.55 E49.86495
G1 X123.31 Y140.50 E49.93228
G1 X123.57 Y139.69 E49.98526
G1 X123.91 Y138.66 E50.05343
G1 X124.22 Y137.87 E50.10609
G1 X124.62 Y136.87 E50.17371
G1 X124.98 Y136.09 E50.22669
G1 X125.45 Y135.12 E50.29405
G1 X125.86 Y134.37 E50.34721
G1 X126.39 Y133.43 E50.41462
G1 X126.84 Y132.71 E50.46768
G1 X127.44 Y131.79 E50.53576
G1 X127.93 Y131.10 E50.58877
G1 X128.57 Y130.25 E50.65568
G1 X129.11 Y129.59 E50.70857
G1 X129.82 Y128.75 E50.77682
G1 X130.39 Y128.14 E50.82929
G1 X131.15 Y127.35 E50.89743
G0 F6000 X131.50 Y127.71
G1 F2700 X132.11 Y127.13 E50.94944
G1 X132.90 Y126.41 E51.01623
G1 X133.54 Y125.88 E51.06835
G1 X134.38 Y125.21 E51.13518
G1 X135.04 Y124.72 E51.18650
G1 X135.92 Y124.11 E51.25331
G1 X136.63 Y123.66 E51.30533
G1 X137.54 Y123.11 E51.37224
G1 X138.27 Y122.70 E51.42413
G1 X139.22 Y122.21 E51.49060
G1 X139.97 Y121.85 E51.54288
G1 X140.95 Y121.42 E51.60961
G1 X141.72 Y121.11 E51.66122
G1 X142.73 Y120.74 E51.72820
G1 X143.52 Y120.48 E51.78003
G1 X144.54 Y120.17 E51.84686
G1 X145.35 Y119.97 E51.89871
G1 X146.39 Y119.73 E51.96545
G1 X147.21 Y119.57 E52.01739
G1 X148.26 Y119.40 E52.08386
G1 X149.09 Y119.29 E52.13604
G1 X150.16 Y119.19 E52.20296
G1 X150.99 Y119.14 E52.25457
G1 X152.06 Y119.10 E52.32140
G1 X152.89 Y119.10 E52.37304
G1 X153.96 Y119.13 E52.43986
G1 X154.79 Y119.19 E52.49185
G1 X155.86 Y119.28 E52.55868
G1 X156.69 Y119.39 E52.61099
G1 X157.74 Y119.56 E52.67737
G1 X158.56 Y119.72 E52.72931
G1 X159.60 Y119.95 E52.79613
G1 X160.40 Y120.16 E52.84747
G1 X161.44 Y120.46 E52.91492
G1 X162.24 Y120.73 E52.96732
G1 X163.23 Y121.09 E53.03339
G1 X164.00 Y121.40 E53.08508
G1 X164.98 Y121.83 E53.15177
G1 X165.73 Y122.18 E53.20354
G1 X166.69 Y122.68 E53.27079
G1 X167.42 Y123.08 E53.32293
G1 X168.33 Y123.64 E53.38958
G1 X169.03 Y124.08 E53.44118
G1 X169.91 Y124.69 E53.50806
G1 X170.59 Y125.19 E53.56038
G1 X171.42 Y125.85 E53.62675
G1 X172.06 Y126.38 E53.67833
G1 X172.86 Y127.10 E53.74549
G1 X173.46 Y127.68 E53.79754
G1 X174.20 Y128.44 E53.86378
G1 X174.77 Y129.05 E53.91594
G1 X175.47 Y129.86 E53.98224
G1 X176.00 Y130.50 E54.03435
G1 X176.64 Y131.37 E54.10170
G1 X177.13 Y132.04 E54.15344
G1 X177.71 Y132.93 E54.21971
G1 X178.15 Y133.63 E54.27132
G1 X178.68 Y134.56 E54.33833
G1 X179.08 Y135.30 E54.39026
G1 X179.55 Y136.27 E54.45759
G1 X179.90 Y137.02 E54.50937
G1 X180.30 Y138.01 E54.57602
G1 X180.60 Y138.79 E54.62810
G1 X180.94 Y139.80 E54.69464
G1 X181.19 Y140.60 E54.74669
G1 X181.47 Y141.63 E54.81369
G1 X181.67 Y142.43 E54.86501
G1 X181.88 Y143.48 E54.93160
G1 X182.03 Y144.30 E54.98384
G1 X182.17 Y145.37 E55.05091
G1 X182.27 Y146.19 E55.10270
G1 X182.34 Y147.25 E55.16884
G1 X182.39 Y148.09 E55.22093
G1 X182.39 Y149.17 E55.28834
G1 X182.38 Y150.00 E55.34042
G1 X182.32 Y151.06 E55.40663
G1 X182.26 Y151.89 E55.45829
G1 X182.13 Y152.96 E55.52533
G1 X182.01 Y153.78 E55.57720
G1 X181.81 Y154.83 E55.64410
G1 X181.65 Y155.65 E55.69609
G1 X181.38 Y156.69 E55.76291
G1 X181.16 Y157.49 E55.81460
G1 X180.84 Y158.50 E55.88095
G1 X180.57 Y159.29 E55.93311
G1 X180.17 Y160.29 E55.99993
G1 X179.86 Y161.06 E56.05192
G1 X179.40 Y162.02 E56.11847
G1 X179.03 Y162.77 E56.17027
G1 X178.52 Y163.71 E56.23696
G1 X178.10 Y164.43 E56.28899
G1 X177.53 Y165.33 E56.35574
G1 X177.07 Y166.03 E56.40755
G1 X176.43 Y166.90 E56.47513
G1 X175.93 Y167.57 E56.52710
G1 X175.25 Y168.38 E56.59336
G1 X174.71 Y169.01 E56.64521
G1 X173.97 Y169.79 E56.71190
G1 X173.39 Y170.38 E56.76363
G1 X172.60 Y171.11 E56.83032
G1 X171.99 Y171.67 E56.88250
G1 X171.15 Y172.35 E56.94963
G1 X170.49 Y172.87 E57.00190
G1 X169.63 Y173.48 E57.06793
G1 X168.95 Y173.96 E57.11987
G1 X168.04 Y174.52 E57.18637
G1 X167.33 Y174.95 E57.23807
G1 X166.79 Y175.24 E57.27607
G1 X166.37 Y176.54 E57.36146
G1 X165.54 Y178.28 E57.48174
G1 X164.49 Y179.91 E57.60244
G1 X163.23 Y181.38 E57.72321
G1 X161.81 Y182.68 E57.84334
G1 X160.22 Y183.78 E57.96400
G1 X158.50 Y184.67 E58.08436
G1 X156.69 Y185.33 E58.20472
G1 X154.81 Y185.75 E58.32516
G1 X152.88 Y185.92 E58.44563
G1 X150.95 Y185.84 E58.56627
G1 X149.05 Y185.52 E58.68655
G1 X147.43 Y185.02 E58.79238
G1 X146.32 Y184.57 E58.86667
G1 X144.75 Y183.75 E58.97735
G1 X143.17 Y182.64 E59.09751
G1 X141.75 Y181.35 E59.21727
G1 X140.50 Y179.87 E59.33808
G1 X139.46 Y178.24 E59.45862
G1 X138.63 Y176.50 E59.57926
G1 X138.22 Y175.25 E59.66085
G1 X137.72 Y174.98 E59.69651
G1 X137.01 Y174.55 E59.74806
G1 X136.09 Y173.99 E59.81537
G1 X135.41 Y173.51 E59.86730
G1 X134.53 Y172.89 E59.93417
G1 X133.88 Y172.37 E59.98603
G1 X133.06 Y171.71 E60.05243
G1 X132.44 Y171.15 E60.10422
G1 X131.65 Y170.42 E60.17140
G1 X131.06 Y169.82 E60.22371
G1 X130.33 Y169.05 E60.29009
G1 X129.79 Y168.42 E60.34149
G1 X129.09 Y167.60 E60.40875
G1 X128.60 Y166.93 E60.46056
G1 X127.96 Y166.07 E60.52726
G1 X127.50 Y165.38 E60.57934
G1 X126.92 Y164.48 E60.64578
G1 X126.51 Y163.76 E60.69778
G1 X125.99 Y162.82 E60.76451
G1 X125.63 Y162.08 E60.81627
G1 X125.16 Y161.10 E60.88381
G1 X124.85 Y160.33 E60.93561
G1 X124.45 Y159.34 E61.00181
G1 X124.18 Y158.56 E61.05350
G1 X123.84 Y157.53 E61.12114
G1 X123.63 Y156.73 E61.17303
G1 X123.36 Y155.70 E61.23908
G1 X123.20 Y154.88 E61.29120
G1 X123.00 Y153.83 E61.35776
G1 X122.88 Y153.01 E61.40962
G1 X122.75 Y151.94 E61.47714
G1 X122.69 Y151.10 E61.52922
G1 X122.62 Y150.05 E61.59483
G1 X122.61 Y149.23 E61.64641
G1 X122.61 Y148.13 E61.71451
G1 X122.66 Y147.30 E61.76660
G1 X122.73 Y146.25 E61.83222
G1 X122.82 Y145.42 E61.88433
G1 X122.96 Y144.36 E61.95125
G1 X123.11 Y143.54 E62.00278
G1 X123.32 Y142.49 E62.07000
G1 X123.52 Y141.67 E62.12220
G1 X123.79 Y140.64 E62.18856
G1 X124.04 Y139.85 E62.24049
G1 X124.38 Y138.83 E62.30766
G1 X124.68 Y138.06 E62.35939
G1 X125.08 Y137.06 E62.42600
G1 X125.43 Y136.31 E62.47801
G1 X125.90 Y135.35 E62.54434
G1 X126.29 Y134.61 E62.59652
G1 X126.82 Y133.69 E62.66298
G1 X127.26 Y132.98 E62.71500
G1 X127.85 Y132.08 E62.78213
G1 X128.33 Y131.40 E62.83415
G1 X128.97 Y130.55 E62.90004
G1 X129.49 Y129.91 E62.95195
G1 X130.19 Y129.09 E63.01923
G1 X130.75 Y128.48 E63.07069
G1 X131.50 Y127.71 E63.13785
G0 F6000 X131.85 Y128.06
G1 F2700 X132.45 Y127.50 E63.18885
G1 X133.23 Y126.79 E63.25468
G1 X133.86 Y126.27 E63.30577
G1 X134.69 Y125.61 E63.37163
G1 X135.34 Y125.13 E63.42196
G1 X136.20 Y124.53 E63.48779
G1 X136.89 Y124.09 E63.53885
G1 X137.79 Y123.54 E63.60473
G1 X138.51 Y123.14 E63.65561
G1 X139.44 Y122.66 E63.72114
G1 X140.18 Y122.30 E63.77235
G1 X141.15 Y121.88 E63.83810
G1 X141.90 Y121.58 E63.88879
G1 X142.89 Y121.21 E63.95473
G1 X143.67 Y120.96 E64.00557
G1 X144.68 Y120.66 E64.07142
G1 X145.47 Y120.45 E64.12232
G1 X146.50 Y120.22 E64.18808
G1 X147.30 Y120.06 E64.23895
G1 X148.34 Y119.89 E64.30447
G1 X149.15 Y119.79 E64.35564
G1 X150.20 Y119.69 E64.42156
G1 X151.01 Y119.64 E64.47218
G1 X152.07 Y119.60 E64.53807
G1 X152.88 Y119.60 E64.58871
G1 X153.93 Y119.63 E64.65453
G1 X154.75 Y119.68 E64.70552
G1 X155.80 Y119.78 E64.77135
G1 X156.62 Y119.89 E64.82265
G1 X157.65 Y120.05 E64.88802
G1 X158.45 Y120.21 E64.93895
G1 X159.48 Y120.44 E65.00481
G1 X160.27 Y120.64 E65.05517
G1 X161.29 Y120.94 E65.12160
G1 X162.07 Y121.20 E65.17295
G1 X163.05 Y121.56 E65.23813
G1 X163.81 Y121.86 E65.28885
G1 X164.77 Y122.28 E65.35450
G1 X165.51 Y122.63 E65.40529
G1 X166.45 Y123.12 E65.47157
G1 X167.17 Y123.52 E65.52271
G1 X168.07 Y124.06 E65.58831
G1 X168.75 Y124.50 E65.63900
G1 X169.62 Y125.10 E65.70485
G1 X170.28 Y125.59 E65.75619
G1 X171.11 Y126.24 E65.82153
G1 X171.73 Y126.76 E65.87219
G1 X172.52 Y127.47 E65.93829
G1 X173.11 Y128.03 E65.98937
G1 X173.84 Y128.78 E66.05464
G1 X174.40 Y129.38 E66.10578
G1 X175.08 Y130.18 E66.17106
G1 X175.60 Y130.81 E66.22224
G1 X176.24 Y131.66 E66.28852
G1 X176.71 Y132.32 E66.33929
G1 X177.29 Y133.20 E66.40461
G1 X177.72 Y133.89 E66.45527
G1 X178.24 Y134.81 E66.52127
G1 X178.63 Y135.53 E66.57219
G1 X179.10 Y136.48 E66.63849
G1 X179.44 Y137.22 E66.68925
G1 X179.84 Y138.19 E66.75497
G1 X180.13 Y138.96 E66.80604
G1 X180.47 Y139.96 E66.87157
G1 X180.72 Y140.74 E66.92266
G1 X180.99 Y141.76 E66.98867
G1 X181.18 Y142.54 E67.03898
G1 X181.39 Y143.57 E67.10462
G1 X181.53 Y144.38 E67.15583
G1 X181.68 Y145.43 E67.22189
G1 X181.77 Y146.24 E67.27268
G1 X181.84 Y147.28 E67.33789
G1 X181.89 Y148.10 E67.38897
G1 X181.89 Y149.17 E67.45539
G1 X181.88 Y149.99 E67.50647
G1 X181.82 Y151.03 E67.57169
G1 X181.76 Y151.84 E67.62234
G1 X181.63 Y152.89 E67.68838
G1 X181.52 Y153.70 E67.73931
G1 X181.32 Y154.74 E67.80518
G1 X181.16 Y155.54 E67.85616
G1 X180.90 Y156.56 E67.92201
G1 X180.69 Y157.35 E67.97267
G1 X180.36 Y158.34 E68.03803
G1 X180.10 Y159.12 E68.08926
G1 X179.71 Y160.10 E68.15504
G1 X179.40 Y160.86 E68.20602
G1 X178.95 Y161.81 E68.27163
G1 X178.59 Y162.54 E68.32248
G1 X178.08 Y163.46 E68.38816
G1 X177.68 Y164.17 E68.43921
G1 X177.11 Y165.06 E68.50493
G1 X176.66 Y165.74 E68.55575
G1 X176.03 Y166.60 E68.62231
G1 X175.54 Y167.26 E68.67326
G1 X174.87 Y168.06 E68.73850
G1 X174.34 Y168.68 E68.78942
G1 X173.61 Y169.44 E68.85509
G1 X173.04 Y170.03 E68.90590
G1 X172.27 Y170.74 E68.97152
G1 X171.66 Y171.29 E69.02274
G1 X170.84 Y171.96 E69.08889
G1 X170.19 Y172.47 E69.14010
G1 X169.34 Y173.07 E69.20519
G1 X168.67 Y173.54 E69.25614
G1 X167.78 Y174.09 E69.32169
G1 X167.09 Y174.52 E69.37239
G1 X166.38 Y174.89 E69.42199
G1 X165.91 Y176.35 E69.51791
G1 X165.10 Y178.04 E69.63415
G1 X164.09 Y179.61 E69.75082
G1 X162.87 Y181.03 E69.86748
G1 X161.50 Y182.28 E69.98354
G1 X159.96 Y183.35 E70.10013
G1 X158.30 Y184.21 E70.21649
G1 X156.55 Y184.84 E70.33287
G1 X154.73 Y185.25 E70.44922
G1 X152.87 Y185.42 E70.56568
G1 X151.00 Y185.34 E70.68226
G1 X149.16 Y185.03 E70.79844
G1 X147.59 Y184.55 E70.90099
G1 X146.53 Y184.12 E70.97242
G1 X145.01 Y183.32 E71.07956
G1 X143.48 Y182.25 E71.19569
G1 X142.11 Y181.00 E71.31143
G1 X140.90 Y179.57 E71.42816
G1 X139.89 Y178.00 E71.54469
G1 X139.09 Y176.31 E71.66129
G1 X138.64 Y174.90 E71.75347
G1 X137.97 Y174.55 E71.80087
G1 X137.27 Y174.13 E71.85141
G1 X136.37 Y173.57 E71.91776
G1 X135.70 Y173.10 E71.96866
G1 X134.84 Y172.49 E72.03454
G1 X134.20 Y171.98 E72.08543
G1 X133.38 Y171.33 E72.15090
G1 X132.78 Y170.78 E72.20163
G1 X132.00 Y170.06 E72.26784
G1 X131.42 Y169.47 E72.31913
G1 X130.70 Y168.72 E72.38449
G1 X130.17 Y168.10 E72.43497
G1 X129.49 Y167.29 E72.50121
G1 X129.00 Y166.63 E72.55205
G1 X128.37 Y165.79 E72.61772
G1 X127.92 Y165.10 E72.66880
G1 X127.35 Y164.22 E72.73434
G1 X126.95 Y163.51 E72.78528
G1 X126.43 Y162.59 E72.85106
G1 X126.08 Y161.86 E72.90176
G1 X125.62 Y160.90 E72.96832
G1 X125.31 Y160.14 E73.01914
G1 X124.92 Y159.17 E73.08433
G1 X124.66 Y158.40 E73.13504
G1 X124.32 Y157.39 E73.20162
G1 X124.11 Y156.60 E73.25255
G1 X123.85 Y155.59 E73.31770
G1 X123.69 Y154.78 E73.36879
G1 X123.49 Y153.75 E73.43439
G1 X123.38 Y152.94 E73.48520
G1 X123.24 Y151.89 E73.55170
G1 X123.18 Y151.07 E73.60285
G1 X123.12 Y150.03 E73.66745
G1 X123.11 Y149.22 E73.71803
G1 X123.11 Y148.15 E73.78513
G1 X123.16 Y147.33 E73.83623
G1 X123.23 Y146.29 E73.90091
G1 X123.32 Y145.48 E73.95195
G1 X123.46 Y144.43 E74.01793
G1 X123.60 Y143.64 E74.06844
G1 X123.81 Y142.59 E74.13472
G1 X124.00 Y141.80 E74.18587
G1 X124.27 Y140.78 E74.25126
G1 X124.52 Y140.00 E74.30221
G1 X124.85 Y139.00 E74.36835
G1 X125.15 Y138.24 E74.41911
G1 X125.54 Y137.26 E74.48474
G1 X125.89 Y136.52 E74.53572
G1 X126.34 Y135.58 E74.60115
G1 X126.73 Y134.86 E74.65227
G1 X127.25 Y133.94 E74.71773
G1 X127.68 Y133.25 E74.76879
G1 X128.26 Y132.36 E74.83485
G1 X128.74 Y131.69 E74.88589
G1 X129.36 Y130.86 E74.95084
G1 X129.88 Y130.23 E75.00174
G1 X130.57 Y129.42 E75.06804
G1 X131.12 Y128.83 E75.11853
G1 X131.85 Y128.06 E75.18468
G0 F6000 X132.21 Y128.42
G1 F2700 X132.79 Y127.87 E75.23475
G1 X133.56 Y127.17 E75.29952
G1 X134.18 Y126.65 E75.34964
G1 X134.99 Y126.01 E75.41452
G1 X135.63 Y125.54 E75.46386
G1 X136.48 Y124.94 E75.52867
G1 X137.16 Y124.51 E75.57870
G1 X138.04 Y123.97 E75.64362
G1 X138.75 Y123.58 E75.69353
G1 X139.66 Y123.10 E75.75805
G1 X140.39 Y122.76 E75.80832
G1 X141.34 Y122.34 E75.87304
G1 X142.08 Y122.04 E75.92272
G1 X143.06 Y121.68 E75.98771
G1 X143.82 Y121.43 E76.03752
G1 X144.81 Y121.14 E76.10234
G1 X145.59 Y120.94 E76.15226
G1 X146.60 Y120.70 E76.21706
G1 X147.39 Y120.55 E76.26698
G1 X148.41 Y120.39 E76.33149
G1 X149.20 Y120.29 E76.38159
G1 X150.24 Y120.19 E76.44657
G1 X151.03 Y120.14 E76.49618
G1 X152.07 Y120.10 E76.56108
G1 X152.87 Y120.10 E76.61078
G1 X153.91 Y120.13 E76.67554
G1 X154.71 Y120.18 E76.72560
G1 X155.75 Y120.28 E76.79043
G1 X156.55 Y120.38 E76.84072
G1 X157.57 Y120.55 E76.90515
G1 X158.35 Y120.69 E76.95505
G1 X159.37 Y120.92 E77.01989
G1 X160.13 Y121.12 E77.06935
G1 X161.14 Y121.42 E77.13467
G1 X161.91 Y121.67 E77.18504
G1 X162.87 Y122.02 E77.24923
G1 X163.61 Y122.32 E77.29900
G1 X164.56 Y122.74 E77.36370
G1 X165.28 Y123.08 E77.41346
G1 X166.21 Y123.56 E77.47867
G1 X166.92 Y123.95 E77.52884
G1 X167.81 Y124.48 E77.59349
G1 X168.48 Y124.92 E77.64319
G1 X169.33 Y125.51 E77.70801
G1 X169.98 Y125.98 E77.75833
G1 X170.79 Y126.63 E77.82278
G1 X171.40 Y127.14 E77.87242
G1 X172.18 Y127.83 E77.93750
G1 X172.76 Y128.39 E77.98761
G1 X173.48 Y129.13 E78.05191
G1 X174.03 Y129.72 E78.10204
G1 X174.70 Y130.50 E78.16635
G1 X175.21 Y131.12 E78.21651
G1 X175.84 Y131.96 E78.28180
G1 X176.30 Y132.61 E78.33159
G1 X176.87 Y133.47 E78.39587
G1 X177.29 Y134.14 E78.44558
G1 X177.81 Y135.05 E78.51057
G1 X178.19 Y135.75 E78.56049
G1 X178.65 Y136.69 E78.62581
G1 X178.98 Y137.42 E78.67562
G1 X179.37 Y138.38 E78.74031
G1 X179.66 Y139.13 E78.79040
G1 X179.99 Y140.11 E78.85500
G1 X180.24 Y140.88 E78.90504
G1 X180.50 Y141.88 E78.97003
G1 X180.69 Y142.65 E79.01942
G1 X180.90 Y143.67 E79.08405
G1 X181.04 Y144.46 E79.13419
G1 X181.18 Y145.49 E79.19931
G1 X181.27 Y146.29 E79.24909
G1 X181.34 Y147.31 E79.31336
G1 X181.39 Y148.12 E79.36344
G1 X181.39 Y149.16 E79.42880
G1 X181.38 Y149.97 E79.47888
G1 X181.32 Y151.00 E79.54317
G1 X181.26 Y151.79 E79.59288
G1 X181.13 Y152.83 E79.65785
G1 X181.03 Y153.62 E79.70777
G1 X180.83 Y154.64 E79.77269
G1 X180.67 Y155.43 E79.82265
G1 X180.41 Y156.44 E79.88754
G1 X180.21 Y157.20 E79.93722
G1 X179.89 Y158.19 E80.00161
G1 X179.63 Y158.95 E80.05178
G1 X179.25 Y159.91 E80.11663
G1 X178.94 Y160.66 E80.16658
G1 X178.50 Y161.59 E80.23119
G1 X178.15 Y162.31 E80.28106
G1 X177.64 Y163.22 E80.34574
G1 X177.25 Y163.91 E80.39578
G1 X176.69 Y164.79 E80.46055
G1 X176.25 Y165.46 E80.51038
G1 X175.63 Y166.30 E80.57587
G1 X175.15 Y166.94 E80.62583
G1 X174.48 Y167.73 E80.69015
G1 X173.96 Y168.34 E80.74005
G1 X173.25 Y169.09 E80.80480
G1 X172.69 Y169.67 E80.85455
G1 X171.93 Y170.37 E80.91920
G1 X171.33 Y170.91 E80.96944
G1 X170.52 Y171.57 E81.03453
G1 X169.89 Y172.07 E81.08477
G1 X169.05 Y172.66 E81.14888
G1 X168.40 Y173.12 E81.19884
G1 X167.52 Y173.67 E81.26338
G1 X166.84 Y174.09 E81.31313
G1 X165.97 Y174.54 E81.37433
G1 X165.44 Y176.17 E81.48087
G1 X164.66 Y177.79 E81.59306
G1 X163.68 Y179.31 E81.70563
G1 X162.51 Y180.68 E81.81826
G1 X161.18 Y181.89 E81.93031
G1 X159.70 Y182.92 E82.04286
G1 X158.10 Y183.75 E82.15524
G1 X156.41 Y184.36 E82.26749
G1 X154.65 Y184.76 E82.37982
G1 X152.86 Y184.92 E82.49221
G1 X151.05 Y184.85 E82.60474
G1 X149.28 Y184.54 E82.71694
G1 X147.76 Y184.07 E82.81616
G1 X146.74 Y183.66 E82.88468
G1 X145.27 Y182.89 E82.98825
G1 X143.80 Y181.86 E83.10040
G1 X142.47 Y180.65 E83.21208
G1 X141.31 Y179.27 E83.32479
G1 X140.33 Y177.76 E83.43725
G1 X139.56 Y176.13 E83.54983
G1 X139.05 Y174.56 E83.65262
G1 X138.21 Y174.11 E83.71179
G1 X137.53 Y173.70 E83.76133
G1 X136.64 Y173.15 E83.82669
G1 X135.99 Y172.69 E83.87661
G1 X135.13 Y172.09 E83.94151
G1 X134.51 Y171.59 E83.99137
G1 X133.71 Y170.95 E84.05582
G1 X133.12 Y170.41 E84.10562
G1 X132.34 Y169.70 E84.17082
G1 X131.78 Y169.12 E84.22109
G1 X131.07 Y168.38 E84.28549
G1 X130.55 Y167.78 E84.33494
G1 X129.88 Y166.98 E84.40021
G1 X129.40 Y166.34 E84.45008
G1 X128.78 Y165.50 E84.51476
G1 X128.34 Y164.83 E84.56485
G1 X127.78 Y163.96 E84.62936
G1 X127.38 Y163.26 E84.67935
G1 X126.88 Y162.36 E84.74407
G1 X126.53 Y161.64 E84.79382
G1 X126.08 Y160.69 E84.85935
G1 X125.77 Y159.95 E84.90921
G1 X125.39 Y159.00 E84.97346
G1 X125.13 Y158.24 E85.02316
G1 X124.80 Y157.25 E85.08871
G1 X124.60 Y156.47 E85.13866
G1 X124.34 Y155.48 E85.20279
G1 X124.18 Y154.69 E85.25293
G1 X123.98 Y153.67 E85.31752
G1 X123.87 Y152.88 E85.36737
G1 X123.74 Y151.84 E85.43281
G1 X123.68 Y151.04 E85.48296
G1 X123.62 Y150.02 E85.54669
G1 X123.61 Y149.22 E85.59627
G1 X123.61 Y148.16 E85.66231
G1 X123.66 Y147.36 E85.71241
G1 X123.72 Y146.34 E85.77609
G1 X123.82 Y145.54 E85.82619
G1 X123.95 Y144.51 E85.89116
G1 X124.09 Y143.73 E85.94072
G1 X124.29 Y142.70 E86.00592
G1 X124.49 Y141.92 E86.05610
G1 X124.75 Y140.92 E86.12053
G1 X124.99 Y140.16 E86.17045
G1 X125.32 Y139.17 E86.23558
G1 X125.61 Y138.42 E86.28536
G1 X126.00 Y137.46 E86.35001
G1 X126.34 Y136.74 E86.40004
G1 X126.79 Y135.81 E86.46444
G1 X127.17 Y135.10 E86.51461
G1 X127.68 Y134.20 E86.57909
G1 X128.10 Y133.52 E86.62912
G1 X128.67 Y132.64 E86.69423
G1 X129.14 Y131.99 E86.74424
G1 X129.76 Y131.17 E86.80830
G1 X130.26 Y130.55 E86.85817
G1 X130.94 Y129.75 E86.92342
G1 X131.48 Y129.17 E86.97293
G1 X132.21 Y128.42 E87.03807
G0 F6000 X132.56 Y128.78
G1 F2700 X133.13 Y128.23 E87.08712
G1 X133.89 Y127.55 E87.15096
G1 X134.49 Y127.04 E87.20002
G1 X135.29 Y126.40 E87.26388
G1 X135.92 Y125.94 E87.31229
G1 X136.76 Y125.36 E87.37615
G1 X137.42 Y124.94 E87.42519
G1 X138.29 Y124.40 E87.48905
G1 X138.98 Y124.02 E87.53802
G1 X139.88 Y123.55 E87.60153
G1 X140.60 Y123.21 E87.65076
G1 X141.53 Y122.80 E87.71453
G1 X142.26 Y122.51 E87.76321
G1 X143.22 Y122.16 E87.82721
G1 X143.97 Y121.91 E87.87604
G1 X144.95 Y121.62 E87.93987
G1 X145.71 Y121.42 E87.98882
G1 X146.70 Y121.19 E88.05261
G1 X147.47 Y121.05 E88.10150
G1 X148.48 Y120.88 E88.16506
G1 X149.26 Y120.78 E88.21417
G1 X150.28 Y120.68 E88.27814
G1 X151.06 Y120.63 E88.32682
G1 X152.08 Y120.60 E88.39065
G1 X152.86 Y120.60 E88.43936
G1 X153.89 Y120.63 E88.50318
G1 X154.67 Y120.68 E88.55217
G1 X155.69 Y120.78 E88.61606
G1 X156.47 Y120.88 E88.66529
G1 X157.48 Y121.04 E88.72876
G1 X158.25 Y121.19 E88.77772
G1 X159.25 Y121.41 E88.84154
G1 X160.00 Y121.61 E88.89005
G1 X160.99 Y121.90 E88.95438
G1 X161.74 Y122.14 E89.00368
G1 X162.69 Y122.49 E89.06697
G1 X163.42 Y122.78 E89.11570
G1 X164.36 Y123.19 E89.17940
G1 X165.06 Y123.53 E89.22819
G1 X165.98 Y124.00 E89.29242
G1 X166.67 Y124.38 E89.34158
G1 X167.54 Y124.91 E89.40523
G1 X168.20 Y125.33 E89.45395
G1 X169.04 Y125.91 E89.51781
G1 X169.68 Y126.38 E89.56711
G1 X170.47 Y127.01 E89.63050
G1 X171.07 Y127.51 E89.67920
G1 X171.84 Y128.20 E89.74332
G1 X172.41 Y128.74 E89.79237
G1 X173.12 Y129.47 E89.85574
G1 X173.65 Y130.05 E89.90485
G1 X174.31 Y130.82 E89.96819
G1 X174.81 Y131.43 E90.01733
G1 X175.43 Y132.25 E90.08165
G1 X175.89 Y132.89 E90.13045
G1 X176.45 Y133.74 E90.19374
G1 X176.86 Y134.40 E90.24247
G1 X177.37 Y135.29 E90.30648
G1 X177.74 Y135.98 E90.35540
G1 X178.19 Y136.91 E90.41969
G1 X178.52 Y137.62 E90.46852
G1 X178.91 Y138.56 E90.53222
G1 X179.19 Y139.30 E90.58128
G1 X179.52 Y140.27 E90.64492
G1 X179.75 Y141.02 E90.69397
G1 X180.02 Y142.01 E90.75793
G1 X180.21 Y142.76 E90.80636
G1 X180.41 Y143.76 E90.86997
G1 X180.55 Y144.54 E90.91916
G1 X180.68 Y145.56 E90.98327
G1 X180.77 Y146.33 E91.03205
G1 X180.84 Y147.35 E91.09538
G1 X180.89 Y148.13 E91.14440
G1 X180.89 Y149.16 E91.20882
G1 X180.88 Y149.95 E91.25784
G1 X180.82 Y150.96 E91.32119
G1 X180.76 Y151.74 E91.36990
G1 X180.64 Y152.76 E91.43392
G1 X180.53 Y153.54 E91.48285
G1 X180.34 Y154.54 E91.54669
G1 X180.19 Y155.31 E91.59570
G1 X179.93 Y156.31 E91.65954
G1 X179.73 Y157.06 E91.70827
G1 X179.41 Y158.03 E91.77168
G1 X179.16 Y158.78 E91.82086
G1 X178.78 Y159.73 E91.88468
G1 X178.48 Y160.45 E91.93370
G1 X178.05 Y161.38 E91.99733
G1 X177.70 Y162.08 E92.04614
G1 X177.21 Y162.97 E92.10990
G1 X176.82 Y163.66 E92.15894
G1 X176.27 Y164.52 E92.22272
G1 X175.84 Y165.17 E92.27150
G1 X175.23 Y166.01 E92.33601
G1 X174.75 Y166.63 E92.38499
G1 X174.10 Y167.41 E92.44830
G1 X173.59 Y168.01 E92.49717
G1 X172.89 Y168.75 E92.56096
G1 X172.34 Y169.31 E92.60973
G1 X171.59 Y170.00 E92.67346
G1 X171.01 Y170.53 E92.72264
G1 X170.21 Y171.18 E92.78671
G1 X169.59 Y171.67 E92.83597
G1 X168.77 Y172.26 E92.89913
G1 X168.12 Y172.71 E92.94811
G1 X167.25 Y173.24 E93.01167
G1 X166.59 Y173.65 E93.06037
G1 X165.68 Y174.13 E93.12479
G1 X165.54 Y174.21 E93.13467
G1 X165.51 Y174.33 E93.14235
G1 X164.97 Y175.98 E93.25077
G1 X164.23 Y177.55 E93.35895
G1 X163.28 Y179.01 E93.46746
G1 X162.15 Y180.34 E93.57606
G1 X160.87 Y181.50 E93.68405
G1 X159.44 Y182.49 E93.79257
G1 X157.90 Y183.29 E93.90088
G1 X156.27 Y183.88 E94.00908
G1 X154.57 Y184.26 E94.11738
G1 X152.84 Y184.42 E94.22571
G1 X151.10 Y184.35 E94.33425
G1 X149.40 Y184.05 E94.44238
G1 X147.93 Y183.60 E94.53823
G1 X146.95 Y183.21 E94.60398
G1 X145.53 Y182.47 E94.70395
G1 X144.11 Y181.47 E94.81202
G1 X142.83 Y180.31 E94.91973
G1 X141.71 Y178.98 E95.02836
G1 X140.77 Y177.51 E95.13679
G1 X140.02 Y175.94 E95.24528
G1 X139.49 Y174.29 E95.35379
G1 X139.48 Y174.22 E95.35823
G1 X139.36 Y174.16 E95.36635
G1 X138.46 Y173.68 E95.42989
G1 X137.79 Y173.27 E95.47848
G1 X136.92 Y172.74 E95.54275
G1 X136.27 Y172.28 E95.59168
G1 X135.44 Y171.69 E95.65559
G1 X134.82 Y171.20 E95.70449
G1 X134.03 Y170.57 E95.76796
G1 X133.45 Y170.04 E95.81674
G1 X132.69 Y169.34 E95.88097
G1 X132.14 Y168.78 E95.93019
G1 X131.44 Y168.04 E95.99366
G1 X130.93 Y167.45 E96.04214
G1 X130.27 Y166.66 E96.10639
G1 X129.80 Y166.04 E96.15522
G1 X129.19 Y165.22 E96.21897
G1 X128.76 Y164.56 E96.26802
G1 X128.21 Y163.70 E96.33154
G1 X127.82 Y163.02 E96.38053
G1 X127.32 Y162.13 E96.44432
G1 X126.98 Y161.42 E96.49310
G1 X126.53 Y160.49 E96.55759
G1 X126.24 Y159.77 E96.60643
G1 X125.86 Y158.82 E96.66967
G1 X125.61 Y158.09 E96.71840
G1 X125.28 Y157.10 E96.78297
G1 X125.08 Y156.34 E96.83189
G1 X124.83 Y155.36 E96.89510
G1 X124.67 Y154.59 E96.94422
G1 X124.48 Y153.59 E97.00779
G1 X124.37 Y152.81 E97.05671
G1 X124.24 Y151.79 E97.12115
G1 X124.18 Y151.00 E97.17023
G1 X124.12 Y150.00 E97.23302
G1 X124.11 Y149.22 E97.28167
G1 X124.11 Y148.18 E97.34665
G1 X124.16 Y147.39 E97.39568
G1 X124.22 Y146.39 E97.45849
G1 X124.31 Y145.60 E97.50759
G1 X124.45 Y144.59 E97.57155
G1 X124.58 Y143.82 E97.62010
G1 X124.78 Y142.81 E97.68433
G1 X124.97 Y142.04 E97.73351
G1 X125.23 Y141.06 E97.79696
G1 X125.47 Y140.31 E97.84587
G1 X125.79 Y139.34 E97.91005
G1 X126.08 Y138.61 E97.95881
G1 X126.46 Y137.66 E98.02246
G1 X126.79 Y136.95 E98.07146
G1 X127.23 Y136.03 E98.13494
G1 X127.61 Y135.34 E98.18408
G1 X128.11 Y134.45 E98.24761
G1 X128.52 Y133.78 E98.29663
G1 X129.09 Y132.93 E98.36070
G1 X129.54 Y132.29 E98.40973
G1 X130.15 Y131.48 E98.47282
G1 X130.65 Y130.87 E98.52171
G1 X131.31 Y130.08 E98.58598
G1 X131.84 Y129.51 E98.63448
G1 X132.56 Y128.78 E98.69860
G0 F6000 X132.91 Y129.13
G1 F2700 X133.47 Y128.60 E98.74660
G1 X134.22 Y127.92 E98.80947
G1 X134.81 Y127.43 E98.85755
G1 X135.60 Y126.80 E98.92044
G1 X136.21 Y126.35 E98.96782
G1 X137.03 Y125.77 E99.03070
G1 X137.68 Y125.36 E99.07874
G1 X138.55 Y124.84 E99.14161
G1 X139.22 Y124.46 E99.18957
G1 X140.11 Y124.00 E99.25213
G1 X140.81 Y123.67 E99.30031
G1 X141.73 Y123.26 E99.36313
G1 X142.44 Y122.98 E99.41080
G1 X143.38 Y122.63 E99.47382
G1 X144.12 Y122.39 E99.52170
G1 X145.08 Y122.10 E99.58450
G1 X145.82 Y121.91 E99.63242
G1 X146.81 Y121.68 E99.69525
G1 X147.56 Y121.54 E99.74313
G1 X148.55 Y121.38 E99.80574
G1 X149.32 Y121.28 E99.85384
G1 X150.32 Y121.18 E99.91681
G1 X151.08 Y121.13 E99.96449
G1 X152.09 Y121.10 E100.02739
G1 X152.86 Y121.10 E100.07509
G1 X153.86 Y121.13 E100.13792
G1 X154.63 Y121.18 E100.18591
G1 X155.64 Y121.27 E100.24880
G1 X156.40 Y121.37 E100.29702
G1 X157.39 Y121.53 E100.35949
G1 X158.15 Y121.67 E100.40742
G1 X159.13 Y121.90 E100.47028
G1 X159.87 Y122.09 E100.51782
G1 X160.84 Y122.37 E100.58111
G1 X161.58 Y122.62 E100.62945
G1 X162.52 Y122.96 E100.69173
G1 X163.23 Y123.24 E100.73951
G1 X164.15 Y123.65 E100.80220
G1 X164.84 Y123.97 E100.85001
G1 X165.74 Y124.44 E100.91327
G1 X166.42 Y124.82 E100.96137
G1 X167.28 Y125.33 E101.02403
G1 X167.92 Y125.75 E101.07180
G1 X168.75 Y126.32 E101.13468
G1 X169.38 Y126.78 E101.18295
G1 X170.16 Y127.40 E101.24536
G1 X170.75 Y127.89 E101.29313
G1 X171.50 Y128.57 E101.35619
G1 X172.06 Y129.10 E101.40427
G1 X172.75 Y129.82 E101.46663
G1 X173.28 Y130.38 E101.51477
G1 X173.93 Y131.14 E101.57718
G1 X174.42 Y131.74 E101.62525
G1 X175.03 Y132.55 E101.68855
G1 X175.48 Y133.17 E101.73637
G1 X176.03 Y134.01 E101.79871
G1 X176.43 Y134.66 E101.84643
G1 X176.93 Y135.53 E101.90949
G1 X177.30 Y136.21 E101.95738
G1 X177.74 Y137.12 E102.02069
G1 X178.06 Y137.82 E102.06846
G1 X178.44 Y138.75 E102.13122
G1 X178.72 Y139.47 E102.17929
G1 X179.04 Y140.42 E102.24193
G1 X179.28 Y141.16 E102.28995
G1 X179.53 Y142.13 E102.35293
G1 X179.72 Y142.87 E102.40040
G1 X179.91 Y143.85 E102.46306
G1 X180.05 Y144.62 E102.51123
G1 X180.19 Y145.62 E102.57434
G1 X180.28 Y146.38 E102.62217
G1 X180.34 Y147.38 E102.68450
G1 X180.39 Y148.15 E102.73253
G1 X180.39 Y149.16 E102.79589
G1 X180.38 Y149.93 E102.84391
G1 X180.32 Y150.93 E102.90632
G1 X180.27 Y151.69 E102.95403
G1 X180.14 Y152.70 E103.01705
G1 X180.04 Y153.46 E103.06496
G1 X179.85 Y154.45 E103.12785
G1 X179.70 Y155.20 E103.17584
G1 X179.45 Y156.18 E103.23873
G1 X179.25 Y156.92 E103.28642
G1 X178.94 Y157.87 E103.34889
G1 X178.69 Y158.60 E103.39703
G1 X178.32 Y159.54 E103.45993
G1 X178.03 Y160.25 E103.50792
G1 X177.60 Y161.16 E103.57051
G1 X177.26 Y161.85 E103.61838
G1 X176.77 Y162.73 E103.68113
G1 X176.39 Y163.40 E103.72916
G1 X175.85 Y164.25 E103.79199
G1 X175.43 Y164.89 E103.83979
G1 X174.82 Y165.71 E103.90326
G1 X174.36 Y166.32 E103.95123
G1 X173.72 Y167.09 E104.01360
G1 X173.22 Y167.67 E104.06150
G1 X172.53 Y168.40 E104.12423
G1 X171.99 Y168.95 E104.17208
G1 X171.25 Y169.63 E104.23479
G1 X170.68 Y170.15 E104.28295
G1 X169.90 Y170.79 E104.34610
G1 X169.29 Y171.27 E104.39429
G1 X168.48 Y171.85 E104.45652
G1 X167.85 Y172.29 E104.50447
G1 X166.99 Y172.82 E104.56707
G1 X166.34 Y173.22 E104.61477
G1 X165.44 Y173.69 E104.67813
G1 X165.09 Y173.88 E104.70301
G1 X165.03 Y174.21 E104.72377
G1 X164.51 Y175.80 E104.82813
G1 X163.79 Y177.30 E104.93223
G1 X162.88 Y178.71 E105.03673
G1 X161.79 Y179.99 E105.14126
G1 X160.56 Y181.11 E105.24523
G1 X159.18 Y182.06 E105.34967
G1 X157.70 Y182.83 E105.45396
G1 X156.13 Y183.40 E105.55818
G1 X154.50 Y183.77 E105.66240
G1 X152.83 Y183.92 E105.76671
G1 X151.16 Y183.85 E105.87113
G1 X149.51 Y183.57 E105.97528
G1 X148.09 Y183.13 E106.06778
G1 X147.16 Y182.75 E106.13068
G1 X145.79 Y182.04 E106.22705
G1 X144.42 Y181.08 E106.33113
G1 X143.19 Y179.96 E106.43483
G1 X142.11 Y178.68 E106.53939
G1 X141.21 Y177.27 E106.64380
G1 X140.49 Y175.76 E106.74822
G1 X139.97 Y174.16 E106.85266
G1 X139.92 Y173.89 E106.87023
G1 X139.59 Y173.71 E106.89341
G1 X138.71 Y173.24 E106.95598
G1 X138.06 Y172.85 E107.00359
G1 X137.19 Y172.32 E107.06690
G1 X136.56 Y171.88 E107.11485
G1 X135.74 Y171.29 E107.17777
G1 X135.14 Y170.81 E107.22564
G1 X134.36 Y170.19 E107.28814
G1 X133.79 Y169.67 E107.33595
G1 X133.04 Y168.99 E107.39912
G1 X132.50 Y168.43 E107.44737
G1 X131.81 Y167.71 E107.50982
G1 X131.31 Y167.13 E107.55738
G1 X130.66 Y166.35 E107.62061
G1 X130.20 Y165.74 E107.66847
G1 X129.60 Y164.93 E107.73119
G1 X129.18 Y164.29 E107.77926
G1 X128.63 Y163.44 E107.84186
G1 X128.25 Y162.77 E107.88984
G1 X127.76 Y161.90 E107.95263
G1 X127.43 Y161.21 E108.00038
G1 X126.99 Y160.29 E108.06387
G1 X126.70 Y159.58 E108.11172
G1 X126.33 Y158.65 E108.17401
G1 X126.08 Y157.93 E108.22176
G1 X125.76 Y156.96 E108.28526
G1 X125.56 Y156.22 E108.33321
G1 X125.31 Y155.25 E108.39547
G1 X125.16 Y154.50 E108.44351
G1 X124.97 Y153.51 E108.50619
G1 X124.86 Y152.75 E108.55404
G1 X124.74 Y151.74 E108.61747
G1 X124.68 Y150.97 E108.66555
G1 X124.62 Y149.98 E108.72740
G1 X124.61 Y149.22 E108.77505
G1 X124.61 Y148.19 E108.83903
G1 X124.66 Y147.42 E108.88707
G1 X124.72 Y146.43 E108.94894
G1 X124.81 Y145.66 E108.99703
G1 X124.94 Y144.66 E109.05999
G1 X125.08 Y143.91 E109.10758
G1 X125.27 Y142.92 E109.17080
G1 X125.46 Y142.17 E109.21895
G1 X125.71 Y141.20 E109.28137
G1 X125.94 Y140.47 E109.32938
G1 X126.26 Y139.51 E109.39249
G1 X126.54 Y138.79 E109.44027
G1 X126.92 Y137.86 E109.50297
G1 X127.24 Y137.16 E109.55093
G1 X127.68 Y136.26 E109.61346
G1 X128.04 Y135.58 E109.66160
G1 X128.54 Y134.71 E109.72412
G1 X128.94 Y134.05 E109.77216
G1 X129.50 Y133.21 E109.83524
G1 X129.95 Y132.58 E109.88329
G1 X130.54 Y131.78 E109.94539
G1 X131.03 Y131.19 E109.99331
G1 X131.69 Y130.42 E110.05652
G1 X132.21 Y129.86 E110.10409
G1 X132.91 Y129.13 E110.16724
G0 F6000 X133.26 Y129.49
G1 F2700 X133.81 Y128.97 E110.21427
G1 X134.54 Y128.30 E110.27612
G1 X135.12 Y127.82 E110.32319
G1 X135.90 Y127.20 E110.38505
G1 X136.50 Y126.76 E110.43154
G1 X137.31 Y126.19 E110.49339
G1 X137.95 Y125.78 E110.54039
G1 X138.80 Y125.27 E110.60235
G1 X139.46 Y124.90 E110.64930
G1 X140.33 Y124.45 E110.71086
G1 X141.01 Y124.12 E110.75809
G1 X141.92 Y123.72 E110.81987
G1 X142.62 Y123.44 E110.86661
G1 X143.55 Y123.10 E110.92855
G1 X144.26 Y122.87 E110.97546
G1 X145.21 Y122.58 E111.03728
G1 X145.94 Y122.39 E111.08423
G1 X146.91 Y122.17 E111.14604
G1 X147.65 Y122.03 E111.19297
G1 X148.62 Y121.87 E111.25458
G1 X149.37 Y121.78 E111.30166
G1 X150.36 Y121.68 E111.36363
G1 X151.11 Y121.63 E111.41031
G1 X152.10 Y121.60 E111.47221
G1 X152.85 Y121.60 E111.51892
G1 X153.84 Y121.63 E111.58081
G1 X154.59 Y121.68 E111.62780
G1 X155.58 Y121.77 E111.68969
G1 X156.33 Y121.87 E111.73690
G1 X157.31 Y122.02 E111.79842
G1 X158.04 Y122.16 E111.84535
G1 X159.01 Y122.38 E111.90724
G1 X159.74 Y122.57 E111.95375
G1 X160.69 Y122.85 E112.01607
G1 X161.41 Y123.09 E112.06334
G1 X162.34 Y123.43 E112.12470
G1 X163.03 Y123.70 E112.17144
G1 X163.94 Y124.10 E112.23321
G1 X164.62 Y124.42 E112.27999
G1 X165.50 Y124.88 E112.34219
G1 X166.17 Y125.25 E112.38934
G1 X167.01 Y125.76 E112.45103
G1 X167.64 Y126.16 E112.49779
G1 X168.46 Y126.73 E112.55965
G1 X169.07 Y127.18 E112.60693
G1 X169.84 Y127.79 E112.66842
G1 X170.42 Y128.27 E112.71513
G1 X171.16 Y128.94 E112.77721
G1 X171.71 Y129.46 E112.82432
G1 X172.39 Y130.16 E112.88571
G1 X172.91 Y130.71 E112.93284
G1 X173.55 Y131.46 E112.99427
G1 X174.03 Y132.05 E113.04137
G1 X174.63 Y132.84 E113.10365
G1 X175.06 Y133.46 E113.15048
G1 X175.60 Y134.28 E113.21187
G1 X176.00 Y134.91 E113.25860
G1 X176.49 Y135.78 E113.32058
G1 X176.85 Y136.44 E113.36754
G1 X177.29 Y137.34 E113.42982
G1 X177.60 Y138.02 E113.47665
G1 X177.98 Y138.94 E113.53837
G1 X178.25 Y139.64 E113.58546
G1 X178.57 Y140.58 E113.64711
G1 X178.79 Y141.29 E113.69413
G1 X179.05 Y142.26 E113.75615
G1 X179.23 Y142.98 E113.80260
G1 X179.42 Y143.95 E113.86430
G1 X179.56 Y144.69 E113.91146
G1 X179.69 Y145.68 E113.97356
G1 X179.78 Y146.43 E114.02039
G1 X179.85 Y147.41 E114.08178
G1 X179.89 Y148.16 E114.12880
G1 X179.89 Y149.16 E114.19110
G1 X179.88 Y149.91 E114.23819
G1 X179.82 Y150.90 E114.29960
G1 X179.77 Y151.65 E114.34631
G1 X179.65 Y152.63 E114.40832
G1 X179.54 Y153.38 E114.45523
G1 X179.36 Y154.35 E114.51716
G1 X179.21 Y155.09 E114.56414
G1 X178.96 Y156.05 E114.62601
G1 X178.77 Y156.78 E114.67278
G1 X178.46 Y157.71 E114.73427
G1 X178.22 Y158.43 E114.78141
G1 X177.85 Y159.35 E114.84329
G1 X177.57 Y160.05 E114.89024
G1 X177.15 Y160.94 E114.95192
G1 X176.82 Y161.62 E114.99875
G1 X176.34 Y162.48 E115.06055
G1 X175.96 Y163.14 E115.10758
G1 X175.43 Y163.97 E115.16941
G1 X175.02 Y164.60 E115.21621
G1 X174.42 Y165.41 E115.27866
G1 X173.97 Y166.01 E115.32565
G1 X173.34 Y166.76 E115.38704
G1 X172.85 Y167.34 E115.43393
G1 X172.17 Y168.05 E115.49573
G1 X171.64 Y168.59 E115.54252
G1 X170.92 Y169.26 E115.60427
G1 X170.36 Y169.77 E115.65141
G1 X169.58 Y170.40 E115.71353
G1 X168.99 Y170.87 E115.76075
G1 X168.19 Y171.44 E115.82200
G1 X167.57 Y171.87 E115.86896
G1 X166.73 Y172.39 E115.93056
G1 X166.09 Y172.78 E115.97736
G1 X165.21 Y173.25 E116.03966
G1 X164.64 Y173.55 E116.07955
G1 X164.54 Y174.08 E116.11331
G1 X164.04 Y175.61 E116.21361
G1 X163.35 Y177.06 E116.31377
G1 X162.48 Y178.41 E116.41417
G1 X161.43 Y179.64 E116.51464
G1 X160.25 Y180.72 E116.61459
G1 X158.93 Y181.63 E116.71500
G1 X157.50 Y182.37 E116.81522
G1 X155.99 Y182.92 E116.91540
G1 X154.42 Y183.27 E117.01559
G1 X152.82 Y183.41 E117.11583
G1 X151.21 Y183.35 E117.21625
G1 X149.63 Y183.08 E117.31630
G1 X148.26 Y182.66 E117.40554
G1 X147.37 Y182.30 E117.46553
G1 X146.05 Y181.61 E117.55841
G1 X144.74 Y180.69 E117.65843
G1 X143.56 Y179.61 E117.75806
G1 X142.51 Y178.38 E117.85860
G1 X141.64 Y177.03 E117.95895
G1 X140.96 Y175.57 E118.05935
G1 X140.46 Y174.04 E118.15973
G1 X140.37 Y173.56 E118.19037
G1 X139.83 Y173.27 E118.22864
G1 X138.96 Y172.81 E118.29024
G1 X138.32 Y172.42 E118.33689
G1 X137.47 Y171.90 E118.39915
G1 X136.85 Y171.47 E118.44607
G1 X136.04 Y170.90 E118.50798
G1 X135.45 Y170.42 E118.55491
G1 X134.68 Y169.81 E118.61644
G1 X134.12 Y169.30 E118.66328
G1 X133.39 Y168.63 E118.72543
G1 X132.86 Y168.08 E118.77262
G1 X132.18 Y167.37 E118.83415
G1 X131.70 Y166.80 E118.88073
G1 X131.05 Y166.04 E118.94290
G1 X130.60 Y165.44 E118.98982
G1 X130.01 Y164.65 E119.05156
G1 X129.60 Y164.01 E119.09859
G1 X129.06 Y163.18 E119.16020
G1 X128.69 Y162.53 E119.20718
G1 X128.21 Y161.66 E119.26896
G1 X127.88 Y160.99 E119.31574
G1 X127.45 Y160.09 E119.37822
G1 X127.16 Y159.39 E119.42510
G1 X126.80 Y158.48 E119.48646
G1 X126.56 Y157.77 E119.53322
G1 X126.24 Y156.82 E119.59568
G1 X126.05 Y156.09 E119.64260
G1 X125.80 Y155.14 E119.70389
G1 X125.65 Y154.40 E119.75097
G1 X125.46 Y153.43 E119.81263
G1 X125.36 Y152.68 E119.85954
G1 X125.23 Y151.69 E119.92190
G1 X125.18 Y150.94 E119.96904
G1 X125.12 Y149.96 E120.02996
G1 X125.11 Y149.21 E120.07661
G1 X125.11 Y148.21 E120.13947
G1 X125.15 Y147.45 E120.18656
G1 X125.22 Y146.48 E120.24750
G1 X125.31 Y145.73 E120.29452
G1 X125.43 Y144.74 E120.35654
G1 X125.57 Y144.00 E120.40319
G1 X125.76 Y143.03 E120.46533
G1 X125.94 Y142.29 E120.51249
G1 X126.19 Y141.34 E120.57397
G1 X126.42 Y140.62 E120.62091
G1 X126.73 Y139.68 E120.68305
G1 X127.01 Y138.98 E120.72986
G1 X127.38 Y138.06 E120.79157
G1 X127.69 Y137.38 E120.83859
G1 X128.12 Y136.49 E120.90006
G1 X128.48 Y135.82 E120.94719
G1 X128.97 Y134.96 E121.00880
G1 X129.37 Y134.32 E121.05583
G1 X129.91 Y133.49 E121.11787
G1 X130.35 Y132.88 E121.16489
G1 X130.94 Y132.09 E121.22606
G1 X131.41 Y131.51 E121.27301
G1 X132.06 Y130.75 E121.33524
G1 X132.57 Y130.20 E121.38184
G1 X133.26 Y129.49 E121.44394
G0 F6000 X133.61 Y129.84
G1 F2700 X134.15 Y129.33 E121.48995
G1 X134.87 Y128.68 E121.55083
G1 X135.44 Y128.20 E121.59692
G1 X136.20 Y127.60 E121.65781
G1 X136.79 Y127.17 E121.70328
G1 X137.59 Y126.61 E121.76423
G1 X138.21 Y126.21 E121.81019
G1 X139.05 Y125.70 E121.87111
G1 X139.69 Y125.34 E121.91700
G1 X140.55 Y124.89 E121.97767
G1 X141.22 Y124.58 E122.02384
G1 X142.12 Y124.18 E122.08468
G1 X142.80 Y123.91 E122.13041
G1 X143.71 Y123.57 E122.19141
G1 X144.41 Y123.34 E122.23728
G1 X145.35 Y123.06 E122.29812
G1 X146.06 Y122.88 E122.34404
G1 X147.01 Y122.66 E122.40490
G1 X147.74 Y122.52 E122.45080
G1 X148.69 Y122.37 E122.51146
G1 X149.43 Y122.27 E122.55754
G1 X150.40 Y122.18 E122.61851
G1 X151.13 Y122.13 E122.66419
G1 X152.11 Y122.10 E122.72515
G1 X152.84 Y122.10 E122.77086
G1 X153.82 Y122.13 E122.83169
G1 X154.55 Y122.18 E122.87768
G1 X155.53 Y122.27 E122.93863
G1 X156.26 Y122.36 E122.98478
G1 X157.22 Y122.52 E123.04535
G1 X157.94 Y122.65 E123.09131
G1 X158.90 Y122.87 E123.15219
G1 X159.60 Y123.05 E123.19773
G1 X160.54 Y123.33 E123.25901
G1 X161.25 Y123.56 E123.30529
G1 X162.16 Y123.89 E123.36566
G1 X162.84 Y124.17 E123.41145
G1 X163.73 Y124.56 E123.47222
G1 X164.40 Y124.87 E123.51802
G1 X165.27 Y125.32 E123.57924
G1 X165.91 Y125.68 E123.62533
G1 X166.75 Y126.18 E123.68607
G1 X167.37 Y126.58 E123.73185
G1 X168.17 Y127.14 E123.79272
G1 X168.77 Y127.57 E123.83898
G1 X169.53 Y128.18 E123.89948
G1 X170.09 Y128.65 E123.94522
G1 X170.82 Y129.30 E124.00633
G1 X171.35 Y129.81 E124.05239
G1 X172.03 Y130.51 E124.11285
G1 X172.53 Y131.05 E124.15896
G1 X173.17 Y131.78 E124.21942
G1 X173.63 Y132.35 E124.26551
G1 X174.22 Y133.14 E124.32675
G1 X174.65 Y133.74 E124.37261
G1 X175.18 Y134.55 E124.43304
G1 X175.57 Y135.17 E124.47877
G1 X176.06 Y136.02 E124.53980
G1 X176.41 Y136.67 E124.58575
G1 X176.84 Y137.55 E124.64700
G1 X177.15 Y138.22 E124.69279
G1 X177.51 Y139.12 E124.75359
G1 X177.78 Y139.81 E124.79965
G1 X178.09 Y140.73 E124.86033
G1 X178.31 Y141.44 E124.90637
G1 X178.57 Y142.38 E124.96736
G1 X178.74 Y143.09 E125.01284
G1 X178.93 Y144.04 E125.07358
G1 X179.06 Y144.77 E125.11973
G1 X179.19 Y145.74 E125.18082
G1 X179.28 Y146.47 E125.22665
G1 X179.35 Y147.44 E125.28704
G1 X179.39 Y148.18 E125.33313
G1 X179.39 Y149.16 E125.39443
G1 X179.38 Y149.90 E125.44046
G1 X179.32 Y150.87 E125.50093
G1 X179.27 Y151.60 E125.54664
G1 X179.15 Y152.57 E125.60765
G1 X179.05 Y153.30 E125.65361
G1 X178.87 Y154.26 E125.71447
G1 X178.72 Y154.98 E125.76048
G1 X178.48 Y155.93 E125.82137
G1 X178.29 Y156.63 E125.86712
G1 X177.99 Y157.56 E125.92763
G1 X177.75 Y158.26 E125.97379
G1 X177.39 Y159.16 E126.03467
G1 X177.11 Y159.85 E126.08065
G1 X176.69 Y160.72 E126.14132
G1 X176.37 Y161.39 E126.18723
G1 X175.90 Y162.24 E126.24797
G1 X175.54 Y162.88 E126.29400
G1 X175.01 Y163.70 E126.35484
G1 X174.61 Y164.32 E126.40066
G1 X174.02 Y165.11 E126.46207
G1 X173.58 Y165.70 E126.50804
G1 X172.96 Y166.44 E126.56850
G1 X172.48 Y167.00 E126.61442
G1 X171.81 Y167.71 E126.67520
G1 X171.29 Y168.24 E126.72103
G1 X170.58 Y168.90 E126.78180
G1 X170.03 Y169.39 E126.82797
G1 X169.27 Y170.01 E126.88903
G1 X168.69 Y170.47 E126.93523
G1 X167.90 Y171.03 E126.99558
G1 X167.30 Y171.45 E127.04151
G1 X166.47 Y171.96 E127.10216
G1 X165.84 Y172.35 E127.14792
G1 X164.98 Y172.81 E127.20925
G1 X164.33 Y173.15 E127.25497
G1 X164.20 Y173.21 E127.26367
G1 X164.06 Y173.96 E127.31121
G1 X163.58 Y175.42 E127.40745
G1 X162.91 Y176.81 E127.50352
G1 X162.08 Y178.11 E127.59991
G1 X161.07 Y179.29 E127.69630
G1 X159.94 Y180.32 E127.79224
G1 X158.67 Y181.21 E127.88861
G1 X157.30 Y181.91 E127.98476
G1 X155.85 Y182.44 E128.08089
G1 X154.34 Y182.78 E128.17706
G1 X152.81 Y182.91 E128.27329
G1 X151.26 Y182.85 E128.36960
G1 X149.75 Y182.59 E128.46564
G1 X148.43 Y182.19 E128.55151
G1 X147.58 Y181.84 E128.60867
G1 X146.31 Y181.18 E128.69796
G1 X145.05 Y180.30 E128.79395
G1 X143.92 Y179.26 E128.88961
G1 X142.92 Y178.08 E128.98607
G1 X142.08 Y176.78 E129.08241
G1 X141.42 Y175.39 E129.17870
G1 X140.95 Y173.92 E129.27506
G1 X140.82 Y173.22 E129.31934
G1 X140.71 Y173.17 E129.32646
G1 X140.06 Y172.83 E129.37235
G1 X139.20 Y172.37 E129.43302
G1 X138.58 Y171.99 E129.47867
G1 X137.74 Y171.48 E129.53995
G1 X137.14 Y171.06 E129.58583
G1 X136.34 Y170.50 E129.64680
G1 X135.76 Y170.03 E129.69267
G1 X135.01 Y169.43 E129.75326
G1 X134.46 Y168.93 E129.79913
G1 X133.74 Y168.27 E129.86026
G1 X133.22 Y167.74 E129.90644
G1 X132.55 Y167.04 E129.96700
G1 X132.08 Y166.48 E130.01260
G1 X131.44 Y165.73 E130.07380
G1 X131.00 Y165.14 E130.11965
G1 X130.42 Y164.36 E130.18045
G1 X130.02 Y163.74 E130.22650
G1 X129.49 Y162.92 E130.28713
G1 X129.13 Y162.28 E130.33308
G1 X128.65 Y161.43 E130.39391
G1 X128.33 Y160.77 E130.43970
G1 X127.90 Y159.88 E130.50115
G1 X127.63 Y159.20 E130.54697
G1 X127.27 Y158.30 E130.60738
G1 X127.03 Y157.61 E130.65316
G1 X126.72 Y156.67 E130.71463
G1 X126.53 Y155.96 E130.76057
G1 X126.29 Y155.03 E130.82089
G1 X126.14 Y154.30 E130.86696
G1 X125.96 Y153.34 E130.92767
G1 X125.86 Y152.62 E130.97356
G1 X125.73 Y151.64 E131.03492
G1 X125.68 Y150.90 E131.08100
G1 X125.62 Y149.94 E131.14098
G1 X125.61 Y149.21 E131.18669
G1 X125.61 Y148.22 E131.24850
G1 X125.65 Y147.48 E131.29453
G1 X125.72 Y146.52 E131.35459
G1 X125.80 Y145.79 E131.40061
G1 X125.93 Y144.82 E131.46161
G1 X126.06 Y144.10 E131.50725
G1 X126.25 Y143.13 E131.56844
G1 X126.43 Y142.42 E131.61459
G1 X126.67 Y141.48 E131.67508
G1 X126.89 Y140.78 E131.72105
G1 X127.20 Y139.85 E131.78219
G1 X127.47 Y139.16 E131.82796
G1 X127.84 Y138.26 E131.88872
G1 X128.15 Y137.59 E131.93470
G1 X128.57 Y136.72 E131.99526
G1 X128.92 Y136.06 E132.04135
G1 X129.40 Y135.22 E132.10201
G1 X129.79 Y134.59 E132.14800
G1 X130.32 Y133.77 E132.20910
G1 X130.75 Y133.17 E132.25513
G1 X131.33 Y132.40 E132.31536
G1 X131.80 Y131.83 E132.36124
G1 X132.44 Y131.08 E132.42246
G1 X132.93 Y130.54 E132.46809
G1 X133.61 Y129.84 E132.52917
G0 F6000 X133.97 Y130.20
G1 F2700 X134.49 Y129.70 E132.57421
G1 X135.20 Y129.06 E132.63408
G1 X135.75 Y128.59 E132.67915
G1 X136.51 Y127.99 E132.73906
G1 X137.08 Y127.57 E132.78359
G1 X137.87 Y127.02 E132.84352
G1 X138.48 Y126.63 E132.88844
G1 X139.30 Y126.13 E132.94841
G1 X139.93 Y125.78 E132.99333
G1 X140.78 Y125.34 E133.05299
G1 X141.43 Y125.03 E133.09815
G1 X142.31 Y124.64 E133.15802
G1 X142.97 Y124.38 E133.20274
G1 X143.88 Y124.04 E133.26276
G1 X144.56 Y123.82 E133.30763
G1 X145.48 Y123.55 E133.36751
G1 X146.18 Y123.37 E133.41240
G1 X147.12 Y123.15 E133.47228
G1 X147.82 Y123.02 E133.51718
G1 X148.77 Y122.86 E133.57689
G1 X149.48 Y122.77 E133.62197
G1 X150.44 Y122.68 E133.68193
G1 X151.16 Y122.63 E133.72667
G1 X152.12 Y122.60 E133.78657
G1 X152.84 Y122.60 E133.83135
G1 X153.79 Y122.63 E133.89118
G1 X154.51 Y122.67 E133.93617
G1 X155.47 Y122.76 E133.99605
G1 X156.19 Y122.86 E134.04126
G1 X157.13 Y123.01 E134.10081
G1 X157.84 Y123.14 E134.14578
G1 X158.78 Y123.36 E134.20569
G1 X159.47 Y123.53 E134.25026
G1 X160.40 Y123.81 E134.31057
G1 X161.09 Y124.03 E134.35581
G1 X161.98 Y124.36 E134.41523
G1 X162.65 Y124.63 E134.46001
G1 X163.53 Y125.01 E134.51983
G1 X164.18 Y125.32 E134.56466
G1 X165.03 Y125.76 E134.62485
G1 X165.66 Y126.11 E134.66993
G1 X166.49 Y126.61 E134.72963
G1 X167.09 Y127.00 E134.77445
G1 X167.88 Y127.54 E134.83434
G1 X168.46 Y127.97 E134.87957
G1 X169.21 Y128.56 E134.93915
G1 X169.76 Y129.03 E134.98391
G1 X170.48 Y129.67 E135.04396
G1 X171.00 Y130.17 E135.08904
G1 X171.67 Y130.85 E135.14849
G1 X172.16 Y131.38 E135.19363
G1 X172.78 Y132.10 E135.25316
G1 X173.24 Y132.66 E135.29818
G1 X173.82 Y133.44 E135.35845
G1 X174.24 Y134.02 E135.40327
G1 X174.76 Y134.82 E135.46277
G1 X175.14 Y135.43 E135.50752
G1 X175.62 Y136.26 E135.56757
G1 X175.96 Y136.90 E135.61247
G1 X176.39 Y137.76 E135.67274
G1 X176.69 Y138.42 E135.71758
G1 X177.05 Y139.31 E135.77735
G1 X177.31 Y139.98 E135.82242
G1 X177.62 Y140.89 E135.88210
G1 X177.83 Y141.57 E135.92716
G1 X178.08 Y142.50 E135.98711
G1 X178.25 Y143.20 E136.03170
G1 X178.44 Y144.14 E136.09142
G1 X178.57 Y144.85 E136.13655
G1 X178.70 Y145.80 E136.19657
G1 X178.78 Y146.52 E136.24146
G1 X178.85 Y147.47 E136.30091
G1 X178.89 Y148.19 E136.34594
G1 X178.89 Y149.16 E136.40625
G1 X178.88 Y149.88 E136.45128
G1 X178.83 Y150.83 E136.51081
G1 X178.77 Y151.55 E136.55552
G1 X178.66 Y152.50 E136.61559
G1 X178.56 Y153.22 E136.66048
G1 X178.38 Y154.16 E136.72038
G1 X178.24 Y154.87 E136.76538
G1 X178.00 Y155.80 E136.82532
G1 X177.81 Y156.49 E136.87008
G1 X177.51 Y157.40 E136.92962
G1 X177.28 Y158.08 E136.97473
G1 X176.93 Y158.98 E137.03465
G1 X176.65 Y159.64 E137.07965
G1 X176.24 Y160.51 E137.13934
G1 X175.93 Y161.16 E137.18419
G1 X175.46 Y162.00 E137.24401
G1 X175.11 Y162.62 E137.28901
G1 X174.59 Y163.43 E137.34886
G1 X174.20 Y164.03 E137.39370
G1 X173.62 Y164.81 E137.45409
G1 X173.19 Y165.39 E137.49907
G1 X172.57 Y166.12 E137.55856
G1 X172.11 Y166.67 E137.60350
G1 X171.44 Y167.36 E137.66332
G1 X170.94 Y167.88 E137.70813
G1 X170.24 Y168.53 E137.76788
G1 X169.71 Y169.01 E137.81304
G1 X168.96 Y169.62 E137.87308
G1 X168.39 Y170.07 E137.91830
G1 X167.61 Y170.62 E137.97767
G1 X167.02 Y171.04 E138.02261
G1 X166.21 Y171.54 E138.08231
G1 X165.60 Y171.91 E138.12707
G1 X164.74 Y172.37 E138.18738
G1 X164.11 Y172.70 E138.23213
G1 X163.76 Y172.86 E138.25616
G1 X163.57 Y173.83 E138.31784
G1 X163.11 Y175.24 E138.41008
G1 X162.48 Y176.57 E138.50213
G1 X161.67 Y177.81 E138.59445
G1 X160.71 Y178.94 E138.68677
G1 X159.62 Y179.93 E138.77869
G1 X158.41 Y180.78 E138.87103
G1 X157.10 Y181.46 E138.96310
G1 X155.71 Y181.96 E139.05525
G1 X154.27 Y182.28 E139.14733
G1 X152.79 Y182.41 E139.23950
G1 X151.31 Y182.35 E139.33181
G1 X149.86 Y182.10 E139.42381
G1 X148.60 Y181.72 E139.50633
G1 X147.79 Y181.39 E139.56061
G1 X146.57 Y180.75 E139.64638
G1 X145.36 Y179.91 E139.73834
G1 X144.28 Y178.92 E139.82998
G1 X143.32 Y177.78 E139.92242
G1 X142.52 Y176.54 E140.01466
G1 X141.89 Y175.20 E140.10694
G1 X141.43 Y173.79 E140.19920
G1 X141.26 Y172.87 E140.25786
G1 X140.93 Y172.72 E140.28030
G1 X140.29 Y172.39 E140.32527
G1 X139.45 Y171.94 E140.38494
G1 X138.84 Y171.57 E140.42955
G1 X138.01 Y171.06 E140.48982
G1 X137.42 Y170.65 E140.53477
G1 X136.64 Y170.09 E140.59470
G1 X136.08 Y169.65 E140.63960
G1 X135.33 Y169.04 E140.69925
G1 X134.80 Y168.56 E140.74406
G1 X134.09 Y167.91 E140.80423
G1 X133.58 Y167.39 E140.84939
G1 X132.92 Y166.70 E140.90898
G1 X132.46 Y166.16 E140.95357
G1 X131.84 Y165.42 E141.01375
G1 X131.40 Y164.84 E141.05866
G1 X130.83 Y164.07 E141.11845
G1 X130.44 Y163.47 E141.16349
G1 X129.92 Y162.66 E141.22317
G1 X129.56 Y162.04 E141.26813
G1 X129.09 Y161.20 E141.32799
G1 X128.78 Y160.56 E141.37275
G1 X128.36 Y159.68 E141.43314
G1 X128.09 Y159.01 E141.47803
G1 X127.73 Y158.13 E141.53750
G1 X127.50 Y157.45 E141.58226
G1 X127.20 Y156.53 E141.64269
G1 X127.01 Y155.83 E141.68762
G1 X126.77 Y154.91 E141.74703
G1 X126.63 Y154.20 E141.79208
G1 X126.45 Y153.26 E141.85177
G1 X126.35 Y152.55 E141.89666
G1 X126.23 Y151.59 E141.95701
G1 X126.18 Y150.87 E142.00209
G1 X126.12 Y149.92 E142.06120
G1 X126.11 Y149.21 E142.10585
G1 X126.11 Y148.23 E142.16666
G1 X126.15 Y147.51 E142.21169
G1 X126.22 Y146.57 E142.27075
G1 X126.30 Y145.85 E142.31583
G1 X126.42 Y144.90 E142.37583
G1 X126.55 Y144.19 E142.42051
G1 X126.73 Y143.24 E142.48062
G1 X126.91 Y142.54 E142.52580
G1 X127.15 Y141.62 E142.58532
G1 X127.37 Y140.93 E142.63027
G1 X127.68 Y140.02 E142.69042
G1 X127.94 Y139.35 E142.73523
G1 X128.30 Y138.46 E142.79499
G1 X128.60 Y137.80 E142.84000
G1 X129.01 Y136.94 E142.89955
G1 X129.36 Y136.31 E142.94464
G1 X129.83 Y135.47 E143.00429
G1 X130.21 Y134.86 E143.04933
G1 X130.74 Y134.06 E143.10935
G1 X131.16 Y133.47 E143.15440
G1 X131.73 Y132.71 E143.21369
G1 X132.18 Y132.15 E143.25860
G1 X132.81 Y131.41 E143.31881
G1 X133.29 Y130.89 E143.36346
G1 X133.97 Y130.20 E143.42353
G0 F6000 X134.32 Y130.55
G1 F2700 X134.83 Y130.07 E143.46751
G1 X135.53 Y129.43 E143.52641
G1 X136.07 Y128.98 E143.57051
G1 X136.81 Y128.39 E143.62940
G1 X137.37 Y127.98 E143.67294
G1 X138.15 Y127.44 E143.73189
G1 X138.74 Y127.06 E143.77586
G1 X139.55 Y126.57 E143.83482
G1 X140.17 Y126.22 E143.87873
G1 X141.00 Y125.79 E143.93742
G1 X141.64 Y125.49 E143.98158
G1 X142.50 Y125.10 E144.04044
G1 X143.15 Y124.84 E144.08415
G1 X144.04 Y124.52 E144.14317
G1 X144.71 Y124.30 E144.18707
G1 X145.62 Y124.03 E144.24596
G1 X146.30 Y123.85 E144.28989
G1 X147.22 Y123.64 E144.34875
G1 X147.91 Y123.51 E144.39270
G1 X148.84 Y123.36 E144.45139
G1 X149.54 Y123.27 E144.49547
G1 X150.48 Y123.18 E144.55442
G1 X151.18 Y123.13 E144.59816
G1 X152.12 Y123.10 E144.65707
G1 X152.83 Y123.10 E144.70085
G1 X153.77 Y123.13 E144.75974
G1 X154.47 Y123.17 E144.80374
G1 X155.41 Y123.26 E144.86261
G1 X156.12 Y123.35 E144.90681
G1 X157.05 Y123.50 E144.96543
G1 X157.74 Y123.63 E145.00936
G1 X158.66 Y123.84 E145.06825
G1 X159.34 Y124.02 E145.11186
G1 X160.25 Y124.28 E145.17112
G1 X160.92 Y124.50 E145.21538
G1 X161.80 Y124.83 E145.27382
G1 X162.46 Y125.09 E145.31765
G1 X163.32 Y125.47 E145.37645
G1 X163.95 Y125.77 E145.42033
G1 X164.80 Y126.20 E145.47944
G1 X165.41 Y126.55 E145.52355
G1 X166.22 Y127.03 E145.58229
G1 X166.81 Y127.41 E145.62613
G1 X167.59 Y127.95 E145.68503
G1 X168.16 Y128.37 E145.72924
G1 X168.90 Y128.95 E145.78783
G1 X169.44 Y129.40 E145.83162
G1 X170.14 Y130.04 E145.89070
G1 X170.65 Y130.52 E145.93472
G1 X171.31 Y131.19 E145.99325
G1 X171.79 Y131.71 E146.03737
G1 X172.40 Y132.43 E146.09589
G1 X172.85 Y132.97 E146.13997
G1 X173.42 Y133.73 E146.19922
G1 X173.83 Y134.30 E146.24302
G1 X174.34 Y135.09 E146.30157
G1 X174.72 Y135.68 E146.34536
G1 X175.18 Y136.51 E146.40441
G1 X175.52 Y137.12 E146.44830
G1 X175.93 Y137.98 E146.50754
G1 X176.23 Y138.62 E146.55135
G1 X176.59 Y139.49 E146.61019
G1 X176.84 Y140.15 E146.65423
G1 X177.14 Y141.04 E146.71294
G1 X177.35 Y141.71 E146.75697
G1 X177.60 Y142.63 E146.81601
G1 X177.76 Y143.31 E146.85957
G1 X177.95 Y144.23 E146.91833
G1 X178.08 Y144.93 E146.96244
G1 X178.20 Y145.87 E147.02147
G1 X178.28 Y146.56 E147.06535
G1 X178.35 Y147.50 E147.12386
G1 X178.39 Y148.21 E147.16789
G1 X178.39 Y149.16 E147.22714
G1 X178.38 Y149.86 E147.27117
G1 X178.33 Y150.80 E147.32977
G1 X178.28 Y151.50 E147.37354
G1 X178.16 Y152.44 E147.43253
G1 X178.06 Y153.14 E147.47648
G1 X177.89 Y154.06 E147.53537
G1 X177.75 Y154.75 E147.57935
G1 X177.51 Y155.67 E147.63825
G1 X177.33 Y156.35 E147.68206
G1 X177.04 Y157.24 E147.74062
G1 X176.81 Y157.91 E147.78473
G1 X176.46 Y158.79 E147.84365
G1 X176.20 Y159.44 E147.88767
G1 X175.79 Y160.29 E147.94634
G1 X175.49 Y160.93 E147.99024
G1 X175.03 Y161.75 E148.04908
G1 X174.68 Y162.36 E148.09310
G1 X174.17 Y163.16 E148.15195
G1 X173.78 Y163.75 E148.19580
G1 X173.22 Y164.51 E148.25517
G1 X172.80 Y165.08 E148.29912
G1 X172.19 Y165.80 E148.35768
G1 X171.74 Y166.33 E148.40161
G1 X171.09 Y167.01 E148.46041
G1 X170.60 Y167.52 E148.50424
G1 X169.90 Y168.16 E148.56303
G1 X169.38 Y168.63 E148.60718
G1 X168.64 Y169.23 E148.66628
G1 X168.09 Y169.67 E148.71039
G1 X167.32 Y170.21 E148.76882
G1 X166.75 Y170.62 E148.81278
G1 X165.95 Y171.11 E148.87147
G1 X165.35 Y171.48 E148.91528
G1 X164.51 Y171.93 E148.97454
G1 X163.89 Y172.25 E149.01836
G1 X163.31 Y172.51 E149.05766
G1 X163.09 Y173.71 E149.13355
G1 X162.65 Y175.05 E149.22172
G1 X162.04 Y176.32 E149.30973
G1 X161.27 Y177.51 E149.39800
G1 X160.35 Y178.59 E149.48630
G1 X159.31 Y179.54 E149.57416
G1 X158.15 Y180.35 E149.66242
G1 X156.89 Y181.00 E149.75053
G1 X155.57 Y181.48 E149.83858
G1 X154.19 Y181.79 E149.92663
G1 X152.78 Y181.91 E150.01479
G1 X151.37 Y181.86 E150.10298
G1 X149.98 Y181.62 E150.19100
G1 X148.76 Y181.24 E150.27020
G1 X148.00 Y180.94 E150.32165
G1 X146.83 Y180.32 E150.40377
G1 X145.68 Y179.51 E150.49169
G1 X144.64 Y178.57 E150.57936
G1 X143.72 Y177.49 E150.66773
G1 X142.96 Y176.30 E150.75591
G1 X142.35 Y175.02 E150.84411
G1 X141.92 Y173.67 E150.93237
G1 X141.70 Y172.52 E151.00538
G1 X141.15 Y172.27 E151.04311
G1 X140.53 Y171.94 E151.08711
G1 X139.70 Y171.50 E151.14580
G1 X139.10 Y171.14 E151.18946
G1 X138.29 Y170.64 E151.24869
G1 X137.71 Y170.24 E151.29260
G1 X136.94 Y169.69 E151.35160
G1 X136.39 Y169.25 E151.39548
G1 X135.66 Y168.66 E151.45416
G1 X135.14 Y168.19 E151.49800
G1 X134.44 Y167.55 E151.55714
G1 X133.94 Y167.04 E151.60129
G1 X133.29 Y166.37 E151.65991
G1 X132.84 Y165.83 E151.70353
G1 X132.23 Y165.11 E151.76273
G1 X131.81 Y164.54 E151.80657
G1 X131.24 Y163.79 E151.86542
G1 X130.86 Y163.20 E151.90944
G1 X130.35 Y162.41 E151.96812
G1 X130.00 Y161.79 E152.01208
G1 X129.54 Y160.97 E152.07093
G1 X129.23 Y160.34 E152.11477
G1 X128.82 Y159.48 E152.17416
G1 X128.55 Y158.83 E152.21801
G1 X128.20 Y157.96 E152.27650
G1 X127.98 Y157.29 E152.32028
G1 X127.68 Y156.39 E152.37972
G1 X127.50 Y155.71 E152.42366
G1 X127.26 Y154.80 E152.48206
G1 X127.12 Y154.11 E152.52615
G1 X126.94 Y153.18 E152.58489
G1 X126.85 Y152.49 E152.62877
G1 X126.73 Y151.54 E152.68812
G1 X126.68 Y150.84 E152.73213
G1 X126.62 Y149.91 E152.79030
G1 X126.61 Y149.21 E152.83402
G1 X126.61 Y148.25 E152.89377
G1 X126.65 Y147.54 E152.93780
G1 X126.71 Y146.61 E152.99592
G1 X126.79 Y145.91 E153.03999
G1 X126.92 Y144.97 E153.09899
G1 X127.04 Y144.28 E153.14266
G1 X127.22 Y143.35 E153.20182
G1 X127.39 Y142.67 E153.24589
G1 X127.63 Y141.76 E153.30452
G1 X127.85 Y141.09 E153.34847
G1 X128.15 Y140.19 E153.40757
G1 X128.40 Y139.53 E153.45140
G1 X128.75 Y138.66 E153.51019
G1 X129.05 Y138.02 E153.55419
G1 X129.46 Y137.17 E153.61282
G1 X129.79 Y136.55 E153.65691
G1 X130.26 Y135.73 E153.71558
G1 X130.63 Y135.13 E153.75958
G1 X131.15 Y134.34 E153.81865
G1 X131.56 Y133.76 E153.86263
G1 X132.12 Y133.01 E153.92099
G1 X132.56 Y132.47 E153.96492
G1 X133.18 Y131.75 E154.02410
G1 X133.66 Y131.23 E154.06779
G1 X134.32 Y130.55 E154.12689
G0 F6000 X134.67 Y130.91
G1 F2700 X135.17 Y130.43 E154.16990
G1 X135.86 Y129.81 E154.22782
G1 X136.39 Y129.37 E154.27081
G1 X137.11 Y128.79 E154.32877
G1 X137.66 Y128.38 E154.37134
G1 X138.43 Y127.85 E154.42934
G1 X139.01 Y127.48 E154.47227
G1 X139.80 Y127.00 E154.53025
G1 X140.40 Y126.67 E154.57315
G1 X141.22 Y126.24 E154.63087
G1 X141.85 Y125.94 E154.67402
G1 X142.70 Y125.56 E154.73190
G1 X143.33 Y125.31 E154.77467
G1 X144.21 Y124.99 E154.83264
G1 X144.86 Y124.78 E154.87555
G1 X145.75 Y124.51 E154.93346
G1 X146.42 Y124.34 E154.97636
G1 X147.32 Y124.13 E155.03425
G1 X148.00 Y124.00 E155.07718
G1 X148.91 Y123.85 E155.13494
G1 X149.60 Y123.76 E155.17801
G1 X150.52 Y123.67 E155.23596
G1 X151.21 Y123.63 E155.27870
G1 X152.13 Y123.60 E155.33667
G1 X152.82 Y123.60 E155.37945
G1 X153.75 Y123.63 E155.43728
G1 X154.44 Y123.67 E155.48028
G1 X155.36 Y123.76 E155.53822
G1 X156.05 Y123.85 E155.58141
G1 X156.96 Y123.99 E155.63901
G1 X157.64 Y124.12 E155.68200
G1 X158.54 Y124.33 E155.73993
G1 X159.20 Y124.50 E155.78251
G1 X160.10 Y124.76 E155.84080
G1 X160.76 Y124.98 E155.88401
G1 X161.62 Y125.29 E155.94150
G1 X162.26 Y125.55 E155.98435
G1 X163.11 Y125.92 E156.04210
G1 X163.73 Y126.22 E156.08503
G1 X164.56 Y126.64 E156.14316
G1 X165.16 Y126.98 E156.18626
G1 X165.96 Y127.46 E156.24405
G1 X166.54 Y127.83 E156.28685
G1 X167.30 Y128.36 E156.34475
G1 X167.86 Y128.77 E156.38794
G1 X168.58 Y129.34 E156.44555
G1 X169.11 Y129.78 E156.48837
G1 X169.80 Y130.40 E156.54644
G1 X170.30 Y130.88 E156.58945
G1 X170.94 Y131.54 E156.64704
G1 X171.41 Y132.05 E156.69011
G1 X172.02 Y132.75 E156.74769
G1 X172.45 Y133.28 E156.79076
G1 X173.01 Y134.03 E156.84898
G1 X173.41 Y134.59 E156.89184
G1 X173.92 Y135.36 E156.94940
G1 X174.29 Y135.94 E156.99219
G1 X174.75 Y136.75 E157.05023
G1 X175.07 Y137.35 E157.09312
G1 X175.48 Y138.19 E157.15138
G1 X175.77 Y138.82 E157.19424
G1 X176.12 Y139.68 E157.25205
G1 X176.37 Y140.32 E157.29511
G1 X176.67 Y141.20 E157.35283
G1 X176.87 Y141.85 E157.39585
G1 X177.11 Y142.75 E157.45388
G1 X177.28 Y143.42 E157.49647
G1 X177.46 Y144.32 E157.55428
G1 X177.58 Y145.00 E157.59732
G1 X177.71 Y145.93 E157.65539
G1 X177.78 Y146.61 E157.69827
G1 X177.85 Y147.53 E157.75585
G1 X177.89 Y148.22 E157.79888
G1 X177.89 Y149.15 E157.85712
G1 X177.88 Y149.84 E157.90016
G1 X177.83 Y150.76 E157.95769
G1 X177.78 Y151.45 E158.00053
G1 X177.66 Y152.37 E158.05852
G1 X177.57 Y153.06 E158.10145
G1 X177.40 Y153.97 E158.15933
G1 X177.26 Y154.64 E158.20236
G1 X177.03 Y155.54 E158.26030
G1 X176.85 Y156.21 E158.30307
G1 X176.57 Y157.08 E158.36070
G1 X176.34 Y157.74 E158.40383
G1 X176.00 Y158.60 E158.46174
G1 X175.74 Y159.24 E158.50469
G1 X175.34 Y160.08 E158.56247
G1 X175.04 Y160.69 E158.60533
G1 X174.59 Y161.50 E158.66317
G1 X174.25 Y162.10 E158.70618
G1 X173.75 Y162.89 E158.76405
G1 X173.37 Y163.46 E158.80689
G1 X172.82 Y164.22 E158.86528
G1 X172.41 Y164.77 E158.90826
G1 X171.81 Y165.47 E158.96580
G1 X171.37 Y166.00 E159.00871
G1 X170.72 Y166.67 E159.06658
G1 X170.25 Y167.16 E159.10945
G1 X169.56 Y167.79 E159.16726
G1 X169.05 Y168.25 E159.21035
G1 X168.33 Y168.84 E159.26844
G1 X167.79 Y169.27 E159.31157
G1 X167.04 Y169.81 E159.36905
G1 X166.47 Y170.20 E159.41199
G1 X165.69 Y170.69 E159.46973
G1 X165.10 Y171.04 E159.51256
G1 X164.28 Y171.48 E159.57078
G1 X163.67 Y171.80 E159.61354
G1 X162.86 Y172.17 E159.66900
G1 X162.85 Y172.26 E159.67456
G1 X162.60 Y173.58 E159.75866
G1 X162.18 Y174.87 E159.84281
G1 X161.60 Y176.08 E159.92680
G1 X160.87 Y177.22 E160.01101
G1 X159.99 Y178.24 E160.09523
G1 X159.00 Y179.15 E160.17907
G1 X157.89 Y179.92 E160.26330
G1 X156.69 Y180.54 E160.34734
G1 X155.43 Y181.00 E160.43134
G1 X154.11 Y181.29 E160.51536
G1 X152.77 Y181.41 E160.59945
G1 X151.42 Y181.36 E160.68365
G1 X150.09 Y181.13 E160.76760
G1 X148.93 Y180.77 E160.84349
G1 X148.21 Y180.48 E160.89204
G1 X147.09 Y179.90 E160.97064
G1 X145.99 Y179.12 E161.05454
G1 X145.00 Y178.22 E161.13819
G1 X144.13 Y177.19 E161.22249
G1 X143.40 Y176.05 E161.30664
G1 X142.82 Y174.83 E161.39078
G1 X142.40 Y173.55 E161.47497
G1 X142.16 Y172.23 E161.55869
G1 X142.16 Y172.18 E161.56207
G1 X141.37 Y171.82 E161.61572
G1 X140.76 Y171.50 E161.65865
G1 X139.94 Y171.07 E161.71642
G1 X139.36 Y170.71 E161.75908
G1 X138.56 Y170.23 E161.81727
G1 X138.00 Y169.83 E161.86025
G1 X137.24 Y169.29 E161.91821
G1 X136.70 Y168.87 E161.96111
G1 X135.98 Y168.28 E162.01882
G1 X135.47 Y167.82 E162.06164
G1 X134.78 Y167.19 E162.11977
G1 X134.30 Y166.70 E162.16291
G1 X133.66 Y166.03 E162.22060
G1 X133.22 Y165.51 E162.26324
G1 X132.62 Y164.80 E162.32139
G1 X132.21 Y164.25 E162.36429
G1 X131.65 Y163.50 E162.42212
G1 X131.28 Y162.92 E162.46513
G1 X130.77 Y162.15 E162.52287
G1 X130.43 Y161.55 E162.56586
G1 X129.98 Y160.74 E162.62371
G1 X129.68 Y160.12 E162.66652
G1 X129.28 Y159.28 E162.72487
G1 X129.02 Y158.64 E162.76778
G1 X128.67 Y157.78 E162.82531
G1 X128.45 Y157.13 E162.86810
G1 X128.16 Y156.24 E162.92650
G1 X127.98 Y155.58 E162.96941
G1 X127.75 Y154.69 E163.02689
G1 X127.61 Y154.01 E163.06991
G1 X127.44 Y153.10 E163.12770
G1 X127.34 Y152.42 E163.17063
G1 X127.22 Y151.49 E163.22891
G1 X127.18 Y150.80 E163.27198
G1 X127.12 Y149.89 E163.32915
G1 X127.11 Y149.20 E163.37194
G1 X127.11 Y148.26 E163.43056
G1 X127.15 Y147.57 E163.47359
G1 X127.21 Y146.66 E163.53084
G1 X127.29 Y145.97 E163.57385
G1 X127.41 Y145.05 E163.63184
G1 X127.53 Y144.38 E163.67461
G1 X127.71 Y143.46 E163.73276
G1 X127.88 Y142.79 E163.77582
G1 X128.11 Y141.90 E163.83346
G1 X128.32 Y141.24 E163.87644
G1 X128.62 Y140.35 E163.93454
G1 X128.87 Y139.72 E163.97737
G1 X129.21 Y138.86 E164.03516
G1 X129.50 Y138.23 E164.07813
G1 X129.90 Y137.40 E164.13579
G1 X130.23 Y136.79 E164.17890
G1 X130.69 Y135.98 E164.23662
G1 X131.05 Y135.40 E164.27962
G1 X131.56 Y134.62 E164.33770
G1 X131.96 Y134.06 E164.38069
G1 X132.51 Y133.32 E164.43808
G1 X132.95 Y132.79 E164.48098
G1 X133.56 Y132.08 E164.53916
G1 X134.02 Y131.58 E164.58187
G1 X134.67 Y130.91 E164.63995
G0 F6000 X135.02 Y131.26
G1 F2700 X135.51 Y130.80 E164.68195
G1 X136.19 Y130.19 E164.73890
G1 X136.70 Y129.75 E164.78088
G1 X137.42 Y129.19 E164.83786
G1 X137.96 Y128.79 E164.87949
G1 X138.70 Y128.27 E164.93646
G1 X139.27 Y127.91 E164.97841
G1 X140.05 Y127.43 E165.03538
G1 X140.64 Y127.11 E165.07731
G1 X141.45 Y126.69 E165.13402
G1 X142.06 Y126.39 E165.17614
G1 X142.89 Y126.03 E165.23307
G1 X143.51 Y125.78 E165.27485
G1 X144.37 Y125.46 E165.33187
G1 X145.01 Y125.25 E165.37374
G1 X145.88 Y124.99 E165.43067
G1 X146.53 Y124.82 E165.47260
G1 X147.42 Y124.62 E165.52948
G1 X148.08 Y124.49 E165.57139
G1 X148.98 Y124.35 E165.62819
G1 X149.65 Y124.26 E165.67019
G1 X150.56 Y124.17 E165.72721
G1 X151.23 Y124.13 E165.76895
G1 X152.14 Y124.10 E165.82592
G1 X152.81 Y124.10 E165.86770
G1 X153.72 Y124.13 E165.92460
G1 X154.40 Y124.17 E165.96659
G1 X155.31 Y124.25 E166.02353
G1 X155.97 Y124.34 E166.06565
G1 X156.87 Y124.48 E166.12237
G1 X157.53 Y124.61 E166.16427
G1 X158.42 Y124.81 E166.22125
G1 X159.07 Y124.98 E166.26286
G1 X159.95 Y125.24 E166.32011
G1 X160.59 Y125.45 E166.36233
G1 X161.44 Y125.76 E166.41884
G1 X162.07 Y126.01 E166.46068
G1 X162.90 Y126.38 E166.51753
G1 X163.51 Y126.66 E166.55943
G1 X164.32 Y127.08 E166.61658
G1 X164.91 Y127.41 E166.65862
G1 X165.69 Y127.88 E166.71547
G1 X166.26 Y128.25 E166.75732
G1 X167.01 Y128.76 E166.81419
G1 X167.55 Y129.16 E166.85635
G1 X168.27 Y129.73 E166.91300
G1 X168.78 Y130.16 E166.95484
G1 X169.46 Y130.77 E167.01189
G1 X169.95 Y131.24 E167.05393
G1 X170.58 Y131.88 E167.11055
G1 X171.04 Y132.38 E167.15260
G1 X171.63 Y133.07 E167.20921
G1 X172.06 Y133.59 E167.25131
G1 X172.61 Y134.32 E167.30846
G1 X173.00 Y134.87 E167.35038
G1 X173.50 Y135.63 E167.40695
G1 X173.86 Y136.20 E167.44876
G1 X174.31 Y136.99 E167.50579
G1 X174.63 Y137.58 E167.54773
G1 X175.03 Y138.41 E167.60494
G1 X175.31 Y139.02 E167.64682
G1 X175.66 Y139.86 E167.70365
G1 X175.90 Y140.49 E167.74570
G1 X176.19 Y141.35 E167.80242
G1 X176.39 Y141.99 E167.84447
G1 X176.63 Y142.88 E167.90145
G1 X176.79 Y143.53 E167.94309
G1 X176.97 Y144.42 E167.99989
G1 X177.09 Y145.08 E168.04197
G1 X177.21 Y145.99 E168.09904
G1 X177.29 Y146.66 E168.14091
G1 X177.35 Y147.56 E168.19755
G1 X177.39 Y148.23 E168.23952
G1 X177.39 Y149.15 E168.29677
G1 X177.38 Y149.83 E168.33880
G1 X177.33 Y150.73 E168.39540
G1 X177.28 Y151.40 E168.43724
G1 X177.17 Y152.31 E168.49428
G1 X177.08 Y152.97 E168.53615
G1 X176.91 Y153.87 E168.59307
G1 X176.77 Y154.53 E168.63509
G1 X176.55 Y155.42 E168.69205
G1 X176.37 Y156.06 E168.73385
G1 X176.09 Y156.93 E168.79051
G1 X175.88 Y157.57 E168.83257
G1 X175.54 Y158.41 E168.88950
G1 X175.28 Y159.04 E168.93150
G1 X174.89 Y159.86 E168.98824
G1 X174.60 Y160.46 E169.03014
G1 X174.16 Y161.26 E169.08703
G1 X173.82 Y161.85 E169.12903
G1 X173.33 Y162.62 E169.18594
G1 X172.96 Y163.18 E169.22775
G1 X172.42 Y163.92 E169.28511
G1 X172.01 Y164.46 E169.32711
G1 X171.43 Y165.15 E169.38368
G1 X170.99 Y165.66 E169.42557
G1 X170.36 Y166.32 E169.48247
G1 X169.90 Y166.80 E169.52432
G1 X169.23 Y167.42 E169.58112
G1 X168.73 Y167.88 E169.62324
G1 X168.02 Y168.45 E169.68030
G1 X167.49 Y168.87 E169.72242
G1 X166.75 Y169.40 E169.77896
G1 X166.20 Y169.78 E169.82095
G1 X165.42 Y170.26 E169.87771
G1 X164.85 Y170.61 E169.91952
G1 X164.04 Y171.04 E169.97674
G1 X163.45 Y171.35 E170.01853
G1 X162.62 Y171.73 E170.07516
G1 X162.38 Y171.84 E170.09199
G1 X162.35 Y172.20 E170.11435
G1 X162.12 Y173.46 E170.19444
G1 X161.72 Y174.68 E170.27453
G1 X161.17 Y175.84 E170.35444
G1 X160.47 Y176.92 E170.43464
G1 X159.63 Y177.90 E170.51484
G1 X158.69 Y178.75 E170.59462
G1 X157.63 Y179.49 E170.67482
G1 X156.49 Y180.08 E170.75478
G1 X155.29 Y180.52 E170.83480
G1 X154.03 Y180.79 E170.91473
G1 X152.76 Y180.91 E170.99482
G1 X151.47 Y180.86 E171.07489
G1 X150.21 Y180.64 E171.15481
G1 X149.10 Y180.30 E171.22734
G1 X148.42 Y180.03 E171.27309
G1 X147.35 Y179.47 E171.34809
G1 X146.30 Y178.73 E171.42797
G1 X145.36 Y177.87 E171.50761
G1 X144.53 Y176.89 E171.58788
G1 X143.83 Y175.81 E171.66797
G1 X143.28 Y174.65 E171.74809
G1 X142.89 Y173.43 E171.82822
G1 X142.66 Y172.17 E171.90795
G1 X142.64 Y171.84 E171.92825
G1 X142.42 Y171.75 E171.94288
G1 X141.59 Y171.37 E171.99991
G1 X141.00 Y171.06 E172.04183
G1 X140.19 Y170.63 E172.09858
G1 X139.62 Y170.29 E172.14033
G1 X138.84 Y169.81 E172.19752
G1 X138.29 Y169.42 E172.23942
G1 X137.54 Y168.90 E172.29645
G1 X137.01 Y168.47 E172.33833
G1 X136.31 Y167.91 E172.39506
G1 X135.81 Y167.45 E172.43687
G1 X135.13 Y166.84 E172.49403
G1 X134.66 Y166.35 E172.53615
G1 X134.03 Y165.69 E172.59283
G1 X133.60 Y165.19 E172.63454
G1 X133.01 Y164.49 E172.69167
G1 X132.61 Y163.95 E172.73360
G1 X132.06 Y163.22 E172.79044
G1 X131.69 Y162.65 E172.83247
G1 X131.20 Y161.89 E172.88921
G1 X130.87 Y161.30 E172.93115
G1 X130.42 Y160.50 E172.98808
G1 X130.13 Y159.90 E173.02986
G1 X129.73 Y159.07 E173.08721
G1 X129.48 Y158.45 E173.12911
G1 X129.14 Y157.61 E173.18566
G1 X128.93 Y156.97 E173.22752
G1 X128.64 Y156.10 E173.28485
G1 X128.46 Y155.45 E173.32682
G1 X128.24 Y154.57 E173.38333
G1 X128.10 Y153.91 E173.42533
G1 X127.93 Y153.02 E173.48216
G1 X127.84 Y152.35 E173.52403
G1 X127.72 Y151.44 E173.58129
G1 X127.67 Y150.77 E173.62337
G1 X127.62 Y149.87 E173.67967
G1 X127.61 Y149.20 E173.72139
G1 X127.61 Y148.28 E173.77901
G1 X127.65 Y147.60 E173.82105
G1 X127.71 Y146.70 E173.87736
G1 X127.79 Y146.03 E173.91935
G1 X127.91 Y145.13 E173.97634
G1 X128.02 Y144.47 E174.01810
G1 X128.20 Y143.57 E174.07523
G1 X128.36 Y142.91 E174.11732
G1 X128.59 Y142.03 E174.17402
G1 X128.80 Y141.39 E174.21593
G1 X129.09 Y140.53 E174.27306
G1 X129.33 Y139.90 E174.31494
G1 X129.67 Y139.06 E174.37173
G1 X129.96 Y138.44 E174.41372
G1 X130.35 Y137.62 E174.47043
G1 X130.67 Y137.03 E174.51248
G1 X131.12 Y136.24 E174.56919
G1 X131.47 Y135.67 E174.61121
G1 X131.97 Y134.90 E174.66829
G1 X132.37 Y134.35 E174.71026
G1 X132.91 Y133.63 E174.76675
G1 X133.33 Y133.11 E174.80864
G1 X133.93 Y132.41 E174.86583
G1 X134.38 Y131.92 E174.90754
G1 X135.02 Y131.26 E174.96460
G0 F6000 X135.37 Y131.62
G1 F2700 X135.85 Y131.17 E175.00559
G1 X136.51 Y130.56 E175.06152
G1 X137.02 Y130.14 E175.10256
G1 X137.72 Y129.58 E175.15853
G1 X138.25 Y129.20 E175.19918
G1 X138.98 Y128.68 E175.25516
G1 X139.53 Y128.33 E175.29611
G1 X140.30 Y127.86 E175.35213
G1 X140.88 Y127.55 E175.39305
G1 X141.67 Y127.13 E175.44884
G1 X142.26 Y126.85 E175.48990
G1 X143.09 Y126.49 E175.54583
G1 X143.69 Y126.24 E175.58660
G1 X144.53 Y125.93 E175.64262
G1 X145.16 Y125.73 E175.68350
G1 X146.02 Y125.47 E175.73945
G1 X146.65 Y125.31 E175.78035
G1 X147.53 Y125.11 E175.83628
G1 X148.17 Y124.99 E175.87723
G1 X149.06 Y124.84 E175.93303
G1 X149.71 Y124.76 E175.97402
G1 X150.60 Y124.67 E176.03003
G1 X151.25 Y124.63 E176.07084
G1 X152.15 Y124.60 E176.12675
G1 X152.81 Y124.60 E176.16759
G1 X153.70 Y124.63 E176.22349
G1 X154.36 Y124.67 E176.26449
G1 X155.25 Y124.75 E176.32042
G1 X155.90 Y124.84 E176.36154
G1 X156.79 Y124.98 E176.41725
G1 X157.43 Y125.10 E176.45821
G1 X158.31 Y125.30 E176.51415
G1 X158.94 Y125.46 E176.55486
G1 X159.80 Y125.72 E176.61102
G1 X160.43 Y125.92 E176.65224
G1 X161.27 Y126.23 E176.70781
G1 X161.88 Y126.47 E176.74865
G1 X162.69 Y126.83 E176.80449
G1 X163.29 Y127.11 E176.84542
G1 X164.09 Y127.53 E176.90154
G1 X164.66 Y127.84 E176.94260
G1 X165.43 Y128.31 E176.99844
G1 X165.98 Y128.66 E177.03928
G1 X166.72 Y129.17 E177.09522
G1 X167.25 Y129.56 E177.13640
G1 X167.95 Y130.12 E177.19202
G1 X168.45 Y130.54 E177.23289
G1 X169.12 Y131.14 E177.28897
G1 X169.60 Y131.59 E177.32999
G1 X170.22 Y132.23 E177.38564
G1 X170.67 Y132.71 E177.42668
G1 X171.25 Y133.39 E177.48236
G1 X171.67 Y133.90 E177.52340
G1 X172.21 Y134.62 E177.57956
G1 X172.59 Y135.15 E177.62046
G1 X173.08 Y135.90 E177.67608
G1 X173.43 Y136.45 E177.71688
G1 X173.87 Y137.23 E177.77296
G1 X174.18 Y137.81 E177.81385
G1 X174.58 Y138.62 E177.87008
G1 X174.85 Y139.22 E177.91093
G1 X175.19 Y140.04 E177.96680
G1 X175.43 Y140.66 E178.00779
G1 X175.72 Y141.51 E178.06366
G1 X175.91 Y142.13 E178.10466
G1 X176.14 Y143.00 E178.16062
G1 X176.30 Y143.63 E178.20134
G1 X176.48 Y144.51 E178.25713
G1 X176.59 Y145.16 E178.29820
G1 X176.71 Y146.05 E178.35426
G1 X176.79 Y146.70 E178.39519
G1 X176.85 Y147.59 E178.45077
G1 X176.89 Y148.25 E178.49180
G1 X176.89 Y149.15 E178.54799
G1 X176.88 Y149.81 E178.58902
G1 X176.83 Y150.70 E178.64468
G1 X176.78 Y151.35 E178.68552
G1 X176.67 Y152.24 E178.74157
G1 X176.58 Y152.89 E178.78249
G1 X176.42 Y153.78 E178.83840
G1 X176.29 Y154.42 E178.87938
G1 X176.06 Y155.29 E178.93533
G1 X175.89 Y155.92 E178.97616
G1 X175.62 Y156.77 E179.03181
G1 X175.41 Y157.39 E179.07291
G1 X175.07 Y158.23 E179.12887
G1 X174.82 Y158.84 E179.16987
G1 X174.44 Y159.64 E179.22563
G1 X174.15 Y160.23 E179.26655
G1 X173.72 Y161.02 E179.32241
G1 X173.40 Y161.59 E179.36340
G1 X172.91 Y162.34 E179.41933
G1 X172.55 Y162.89 E179.46019
G1 X172.02 Y163.62 E179.51648
G1 X171.62 Y164.14 E179.55745
G1 X171.05 Y164.83 E179.61310
G1 X170.62 Y165.33 E179.65405
G1 X170.00 Y165.97 E179.70990
G1 X169.55 Y166.44 E179.75078
G1 X168.89 Y167.05 E179.80661
G1 X168.40 Y167.50 E179.84775
G1 X167.70 Y168.06 E179.90375
G1 X167.19 Y168.47 E179.94493
G1 X166.46 Y168.99 E180.00046
G1 X165.92 Y169.37 E180.04146
G1 X165.16 Y169.83 E180.09721
G1 X164.60 Y170.18 E180.13808
G1 X163.81 Y170.60 E180.19424
G1 X163.23 Y170.90 E180.23510
G1 X162.41 Y171.27 E180.29078
G1 X161.89 Y171.51 E180.32637
G1 X161.86 Y172.14 E180.36573
G1 X161.63 Y173.34 E180.44182
G1 X161.25 Y174.49 E180.51780
G1 X160.73 Y175.59 E180.59373
G1 X160.07 Y176.62 E180.66986
G1 X159.28 Y177.55 E180.74595
G1 X158.37 Y178.36 E180.82180
G1 X157.37 Y179.06 E180.89783
G1 X156.29 Y179.62 E180.97381
G1 X155.15 Y180.03 E181.04978
G1 X153.96 Y180.30 E181.12575
G1 X152.74 Y180.41 E181.20171
G1 X151.53 Y180.36 E181.27779
G1 X150.33 Y180.16 E181.35366
G1 X149.26 Y179.83 E181.42288
G1 X148.63 Y179.57 E181.46571
G1 X147.61 Y179.04 E181.53720
G1 X146.62 Y178.34 E181.61300
G1 X145.72 Y177.53 E181.68866
G1 X144.93 Y176.59 E181.76481
G1 X144.27 Y175.57 E181.84089
G1 X143.75 Y174.47 E181.91694
G1 X143.38 Y173.30 E181.99302
G1 X143.15 Y172.11 E182.06875
G1 X143.12 Y171.51 E182.10610
G1 X142.63 Y171.29 E182.13971
G1 X141.81 Y170.92 E182.19576
G1 X141.23 Y170.62 E182.23666
G1 X140.44 Y170.20 E182.29245
G1 X139.88 Y169.86 E182.33320
G1 X139.11 Y169.39 E182.38944
G1 X138.57 Y169.01 E182.43035
G1 X137.84 Y168.50 E182.48634
G1 X137.33 Y168.09 E182.52725
G1 X136.63 Y167.53 E182.58296
G1 X136.15 Y167.08 E182.62384
G1 X135.48 Y166.48 E182.67999
G1 X135.03 Y166.00 E182.72105
G1 X134.41 Y165.36 E182.77680
G1 X133.98 Y164.86 E182.81749
G1 X133.40 Y164.17 E182.87365
G1 X133.01 Y163.65 E182.91455
G1 X132.47 Y162.93 E182.97045
G1 X132.11 Y162.38 E183.01144
G1 X131.63 Y161.63 E183.06725
G1 X131.31 Y161.06 E183.10814
G1 X130.87 Y160.27 E183.16406
G1 X130.58 Y159.69 E183.20494
G1 X130.19 Y158.87 E183.26126
G1 X129.94 Y158.26 E183.30215
G1 X129.61 Y157.44 E183.35775
G1 X129.40 Y156.82 E183.39858
G1 X129.12 Y155.96 E183.45492
G1 X128.95 Y155.32 E183.49584
G1 X128.72 Y154.46 E183.55145
G1 X128.59 Y153.82 E183.59243
G1 X128.42 Y152.94 E183.64825
G1 X128.33 Y152.29 E183.68917
G1 X128.22 Y151.39 E183.74544
G1 X128.17 Y150.74 E183.78645
G1 X128.12 Y149.85 E183.84181
G1 X128.11 Y149.20 E183.88259
G1 X128.11 Y148.29 E183.93916
G1 X128.15 Y147.63 E183.98020
G1 X128.21 Y146.75 E184.03550
G1 X128.28 Y146.09 E184.07656
G1 X128.40 Y145.20 E184.13254
G1 X128.52 Y144.56 E184.17336
G1 X128.69 Y143.68 E184.22946
G1 X128.85 Y143.04 E184.27054
G1 X129.07 Y142.17 E184.32625
G1 X129.27 Y141.55 E184.36719
G1 X129.56 Y140.69 E184.42326
G1 X129.79 Y140.08 E184.46415
G1 X130.13 Y139.25 E184.51999
G1 X130.41 Y138.66 E184.56095
G1 X130.79 Y137.85 E184.61668
G1 X131.11 Y137.27 E184.65773
G1 X131.55 Y136.50 E184.71352
G1 X131.90 Y135.94 E184.75453
G1 X132.39 Y135.18 E184.81059
G1 X132.77 Y134.65 E184.85158
G1 X133.30 Y133.94 E184.90708
G1 X133.72 Y133.43 E184.94799
G1 X134.30 Y132.74 E185.00417
G1 X134.75 Y132.26 E185.04490
G1 X135.37 Y131.62 E185.10096
G0 F6000 X135.72 Y131.97
G1 F2700 X136.19 Y131.53 E185.14092
G1 X136.84 Y130.94 E185.19589
G1 X137.33 Y130.53 E185.23587
G1 X138.02 Y129.98 E185.29086
G1 X138.54 Y129.60 E185.33052
G1 X139.26 Y129.10 E185.38552
G1 X139.80 Y128.75 E185.42543
G1 X140.55 Y128.30 E185.48045
G1 X141.11 Y127.99 E185.52042
G1 X141.89 Y127.58 E185.57523
G1 X142.47 Y127.30 E185.61529
G1 X143.28 Y126.95 E185.67024
G1 X143.87 Y126.71 E185.71000
G1 X144.70 Y126.41 E185.76503
G1 X145.31 Y126.21 E185.80493
G1 X146.15 Y125.96 E185.85990
G1 X146.77 Y125.80 E185.89977
G1 X147.63 Y125.60 E185.95473
G1 X148.26 Y125.48 E185.99468
G1 X149.13 Y125.34 E186.04952
G1 X149.76 Y125.25 E186.08951
G1 X150.64 Y125.17 E186.14452
G1 X151.28 Y125.13 E186.18432
G1 X152.16 Y125.10 E186.23930
G1 X152.80 Y125.10 E186.27915
G1 X153.68 Y125.13 E186.33405
G1 X154.32 Y125.17 E186.37398
G1 X155.19 Y125.25 E186.42897
G1 X155.83 Y125.33 E186.46909
G1 X156.70 Y125.47 E186.52379
G1 X157.33 Y125.59 E186.56378
G1 X158.19 Y125.78 E186.61871
G1 X158.81 Y125.94 E186.65845
G1 X159.65 Y126.19 E186.71362
G1 X160.27 Y126.39 E186.75382
G1 X161.09 Y126.70 E186.80841
G1 X161.68 Y126.93 E186.84827
G1 X162.49 Y127.29 E186.90317
G1 X163.07 Y127.56 E186.94306
G1 X163.85 Y127.97 E186.99817
G1 X164.41 Y128.28 E187.03820
G1 X165.17 Y128.73 E187.09309
G1 X165.70 Y129.08 E187.13295
G1 X166.43 Y129.58 E187.18785
G1 X166.95 Y129.96 E187.22801
G1 X167.63 Y130.50 E187.28274
G1 X168.12 Y130.91 E187.32259
G1 X168.78 Y131.50 E187.37765
G1 X169.25 Y131.95 E187.41766
G1 X169.86 Y132.57 E187.47239
G1 X170.30 Y133.04 E187.51241
G1 X170.87 Y133.71 E187.56712
G1 X171.27 Y134.21 E187.60713
G1 X171.81 Y134.91 E187.66232
G1 X172.18 Y135.44 E187.70223
G1 X172.66 Y136.17 E187.75687
G1 X173.00 Y136.71 E187.79672
G1 X173.43 Y137.48 E187.85174
G1 X173.74 Y138.04 E187.89167
G1 X174.13 Y138.84 E187.94687
G1 X174.39 Y139.42 E187.98677
G1 X174.73 Y140.23 E188.04164
G1 X174.96 Y140.83 E188.08162
G1 X175.24 Y141.66 E188.13650
G1 X175.43 Y142.27 E188.17646
G1 X175.66 Y143.13 E188.23151
G1 X175.81 Y143.74 E188.27120
G1 X175.99 Y144.61 E188.32604
G1 X176.10 Y145.24 E188.36609
G1 X176.22 Y146.11 E188.42114
G1 X176.29 Y146.75 E188.46107
G1 X176.35 Y147.62 E188.51571
G1 X176.39 Y148.26 E188.55574
G1 X176.39 Y149.15 E188.61093
G1 X176.38 Y149.79 E188.65097
G1 X176.33 Y150.67 E188.70563
G1 X176.28 Y151.30 E188.74547
G1 X176.18 Y152.18 E188.80051
G1 X176.09 Y152.81 E188.84042
G1 X175.93 Y153.68 E188.89537
G1 X175.80 Y154.31 E188.93535
G1 X175.58 Y155.16 E188.99032
G1 X175.41 Y155.78 E189.03012
G1 X175.14 Y156.61 E189.08487
G1 X174.94 Y157.22 E189.12490
G1 X174.61 Y158.04 E189.17988
G1 X174.37 Y158.63 E189.21986
G1 X173.99 Y159.43 E189.27465
G1 X173.71 Y160.00 E189.31459
G1 X173.28 Y160.77 E189.36950
G1 X172.97 Y161.33 E189.40949
G1 X172.49 Y162.07 E189.46442
G1 X172.14 Y162.61 E189.50428
G1 X171.62 Y163.32 E189.55955
G1 X171.23 Y163.83 E189.59954
G1 X170.67 Y164.50 E189.65421
G1 X170.25 Y164.99 E189.69415
G1 X169.64 Y165.63 E189.74907
G1 X169.20 Y166.09 E189.78894
G1 X168.55 Y166.68 E189.84379
G1 X168.08 Y167.12 E189.88388
G1 X167.39 Y167.67 E189.93895
G1 X166.89 Y168.07 E189.97902
G1 X166.17 Y168.58 E190.03364
G1 X165.65 Y168.95 E190.07363
G1 X164.90 Y169.41 E190.12842
G1 X164.35 Y169.74 E190.16828
G1 X163.57 Y170.16 E190.22344
G1 X163.01 Y170.45 E190.26330
G1 X162.21 Y170.82 E190.31803
G1 X161.62 Y171.08 E190.35822
G1 X161.41 Y171.16 E190.37210
G1 X161.36 Y172.07 E190.42925
G1 X161.15 Y173.21 E190.50129
G1 X160.79 Y174.31 E190.57326
G1 X160.29 Y175.35 E190.64514
G1 X159.66 Y176.32 E190.71717
G1 X158.91 Y177.20 E190.78923
G1 X158.06 Y177.97 E190.86107
G1 X157.11 Y178.63 E190.93307
G1 X156.09 Y179.16 E191.00500
G1 X155.01 Y179.55 E191.07691
G1 X153.88 Y179.81 E191.14885
G1 X152.73 Y179.91 E191.22080
G1 X151.58 Y179.86 E191.29276
G1 X150.44 Y179.67 E191.36464
G1 X149.43 Y179.36 E191.43055
G1 X148.84 Y179.12 E191.47050
G1 X147.87 Y178.61 E191.53839
G1 X146.93 Y177.95 E191.61021
G1 X146.08 Y177.18 E191.68181
G1 X145.34 Y176.29 E191.75394
G1 X144.71 Y175.32 E191.82600
G1 X144.22 Y174.28 E191.89800
G1 X143.86 Y173.18 E191.97001
G1 X143.65 Y172.05 E192.04174
G1 X143.60 Y171.17 E192.09689
G1 X143.42 Y171.10 E192.10907
G1 X142.83 Y170.84 E192.14912
G1 X142.03 Y170.47 E192.20417
G1 X141.46 Y170.18 E192.24411
G1 X140.69 Y169.76 E192.29893
G1 X140.14 Y169.43 E192.33867
G1 X139.39 Y168.97 E192.39387
G1 X138.86 Y168.60 E192.43381
G1 X138.14 Y168.09 E192.48886
G1 X137.64 Y167.69 E192.52874
G1 X136.96 Y167.15 E192.58348
G1 X136.48 Y166.72 E192.62334
G1 X135.83 Y166.12 E192.67852
G1 X135.38 Y165.66 E192.71857
G1 X134.78 Y165.02 E192.77335
G1 X134.36 Y164.54 E192.81307
G1 X133.79 Y163.86 E192.86820
G1 X133.41 Y163.35 E192.90813
G1 X132.88 Y162.64 E192.96301
G1 X132.53 Y162.11 E193.00302
G1 X132.06 Y161.37 E193.05782
G1 X131.74 Y160.81 E193.09778
G1 X131.31 Y160.04 E193.15270
G1 X131.03 Y159.47 E193.19253
G1 X130.65 Y158.67 E193.24781
G1 X130.41 Y158.08 E193.28772
G1 X130.08 Y157.26 E193.34240
G1 X129.87 Y156.66 E193.38226
G1 X129.60 Y155.81 E193.43754
G1 X129.43 Y155.20 E193.47744
G1 X129.21 Y154.35 E193.53208
G1 X129.08 Y153.72 E193.57211
G1 X128.92 Y152.86 E193.62697
G1 X128.83 Y152.22 E193.66688
G1 X128.72 Y151.34 E193.72208
G1 X128.67 Y150.70 E193.76210
G1 X128.62 Y149.83 E193.81658
G1 X128.61 Y149.19 E193.85637
G1 X128.61 Y148.30 E193.91187
G1 X128.65 Y147.66 E193.95191
G1 X128.71 Y146.79 E194.00628
G1 X128.78 Y146.16 E194.04633
G1 X128.89 Y145.28 E194.10131
G1 X129.01 Y144.65 E194.14110
G1 X129.18 Y143.79 E194.19620
G1 X129.33 Y143.16 E194.23630
G1 X129.56 Y142.31 E194.29099
G1 X129.75 Y141.70 E194.33095
G1 X130.03 Y140.87 E194.38603
G1 X130.26 Y140.27 E194.42598
G1 X130.59 Y139.45 E194.48081
G1 X130.86 Y138.87 E194.52080
G1 X131.24 Y138.08 E194.57549
G1 X131.55 Y137.52 E194.61556
G1 X131.98 Y136.75 E194.67041
G1 X132.32 Y136.21 E194.71038
G1 X132.80 Y135.47 E194.76544
G1 X133.17 Y134.95 E194.80543
G1 X133.70 Y134.25 E194.85996
G1 X134.10 Y133.75 E194.89990
G1 X134.68 Y133.08 E194.95507
G1 X135.11 Y132.61 E194.99482
G1 X135.72 Y131.97 E195.04991
G0 F6000 X136.08 Y132.33
G1 F2700 X136.53 Y131.90 E195.08886
G1 X137.17 Y131.32 E195.14285
G1 X137.65 Y130.92 E195.18186
G1 X138.33 Y130.38 E195.23583
G1 X138.83 Y130.01 E195.27456
G1 X139.54 Y129.51 E195.32857
G1 X140.06 Y129.18 E195.36749
G1 X140.80 Y128.73 E195.42150
G1 X141.35 Y128.43 E195.46047
G1 X142.12 Y128.03 E195.51430
G1 X142.68 Y127.76 E195.55330
G1 X143.47 Y127.41 E195.60730
G1 X144.05 Y127.18 E195.64612
G1 X144.86 Y126.88 E195.70010
G1 X145.46 Y126.68 E195.73907
G1 X146.29 Y126.44 E195.79302
G1 X146.89 Y126.28 E195.83192
G1 X147.73 Y126.09 E195.88585
G1 X148.35 Y125.97 E195.92478
G1 X149.20 Y125.83 E195.97862
G1 X149.82 Y125.75 E196.01766
G1 X150.68 Y125.67 E196.07166
G1 X151.30 Y125.63 E196.11047
G1 X152.17 Y125.60 E196.16444
G1 X152.79 Y125.60 E196.20330
G1 X153.65 Y125.63 E196.25720
G1 X154.28 Y125.67 E196.29619
G1 X155.14 Y125.75 E196.35019
G1 X155.76 Y125.83 E196.38930
G1 X156.61 Y125.96 E196.44304
G1 X157.23 Y126.08 E196.48197
G1 X158.07 Y126.27 E196.53594
G1 X158.67 Y126.43 E196.57470
G1 X159.50 Y126.67 E196.62885
G1 X160.10 Y126.87 E196.66804
G1 X160.91 Y127.16 E196.72170
G1 X161.49 Y127.39 E196.76058
G1 X162.28 Y127.74 E196.81444
G1 X162.84 Y128.01 E196.85336
G1 X163.62 Y128.41 E196.90750
G1 X164.16 Y128.71 E196.94652
G1 X164.90 Y129.16 E197.00040
G1 X165.43 Y129.49 E197.03928
G1 X166.14 Y129.99 E197.09320
G1 X166.64 Y130.36 E197.13236
G1 X167.32 Y130.89 E197.18608
G1 X167.80 Y131.29 E197.22499
G1 X168.44 Y131.87 E197.27900
G1 X168.90 Y132.30 E197.31803
G1 X169.50 Y132.92 E197.37179
G1 X169.92 Y133.38 E197.41080
G1 X170.48 Y134.03 E197.46454
G1 X170.88 Y134.52 E197.50357
G1 X171.40 Y135.21 E197.55774
G1 X171.76 Y135.72 E197.59663
G1 X172.24 Y136.44 E197.65035
G1 X172.57 Y136.97 E197.68922
G1 X173.00 Y137.72 E197.74323
G1 X173.29 Y138.27 E197.78216
G1 X173.67 Y139.05 E197.83632
G1 X173.94 Y139.62 E197.87519
G1 X174.26 Y140.41 E197.92911
G1 X174.49 Y141.00 E197.96810
G1 X174.76 Y141.82 E198.02198
G1 X174.95 Y142.41 E198.06097
G1 X175.18 Y143.25 E198.11498
G1 X175.32 Y143.85 E198.15371
G1 X175.49 Y144.70 E198.20759
G1 X175.61 Y145.32 E198.24663
G1 X175.72 Y146.18 E198.30068
G1 X175.79 Y146.79 E198.33960
G1 X175.85 Y147.65 E198.39330
G1 X175.89 Y148.28 E198.43234
G1 X175.89 Y149.15 E198.48647
G1 X175.88 Y149.77 E198.52551
