;-- START GCODE --
;Sliced for Type A Machines Series 1
;Sliced at: Sun 03-07-2016 14:48:49
;Basic settings: Layer height: 0.2 Walls: 1 Fill: 50
;Print Speed: 100 Support: 0
;Retraction Speed: 40 Retraction Distance: 1.2
;Print time: #P_TIME#
;Filament used: #F_AMNT#m #F_WGHT#g
;Filament cost: #F_COST#
M106 S255	 ;start with the fan on
G21        ;metric values
G90        ;absolute positioning
M106 S255    ;start with the fan on
G28     ;move to endstops
G29		;allows for auto-levelling
G1 X150 Y5  Z15.0 F6000 ;center and move the platform down 15mm
M109 S220 ;Heat To temp
G92 E0                  ;zero the extruded length
G1 F200 E30              ;extrude 30mm of feed stock
G92 E0                  ;zero the extruded length again
G1 X175 Y25  Z0 F6000 ;remove bugger
G1 X220 F6000 ;remove bugger
G1 X150 Y150  Z15 F6000 ;recenter and begin
G1 F6000

;Layer count: 132
;LAYER:0
M106 S255
G0 F6000 X149.70 Y149.70 Z0.30
;TYPE:SKIRT
G1 F2700 X149.20 Y150.30 E0.04843
G1 X148.84 Y150.98 E0.09700
G1 X148.61 Y151.72 E0.14510
G1 X148.54 Y152.50 E0.19385
G1 X148.61 Y153.28 E0.24242
G1 X148.84 Y154.02 E0.29071
G1 X149.20 Y154.70 E0.33920
G1 X149.70 Y155.30 E0.38772
G1 X150.30 Y155.80 E0.43614
G1 X150.98 Y156.16 E0.48472
G1 X151.72 Y156.39 E0.53301
G1 X152.50 Y156.46 E0.58158
G1 X153.28 Y156.39 E0.63014
G1 X154.02 Y156.16 E0.67843
G1 X154.70 Y155.80 E0.72701
G1 X155.30 Y155.30 E0.77543
G1 X155.80 Y154.70 E0.82395
G1 X156.16 Y154.02 E0.87244
G1 X156.39 Y153.28 E0.92073
G1 X156.46 Y152.50 E0.96930
G1 X156.39 Y151.72 E1.01805
G1 X156.16 Y150.98 E1.06615
G1 X155.80 Y150.30 E1.11472
G1 X155.30 Y149.70 E1.16315
G1 X154.70 Y149.20 E1.21158
G1 X154.02 Y148.84 E1.26015
G1 X153.28 Y148.61 E1.30845
G1 X152.50 Y148.54 E1.35701
G1 X151.72 Y148.61 E1.40557
G1 X150.98 Y148.84 E1.45387
G1 X150.30 Y149.20 E1.50244
G1 X149.70 Y149.70 E1.55087
G0 F6000 X149.34 Y149.34
G1 F2700 X148.79 Y150.02 E1.60545
G1 X148.37 Y150.79 E1.65991
G1 X148.12 Y151.63 E1.71492
G1 X148.03 Y152.50 E1.76931
G1 X148.12 Y153.37 E1.82370
G1 X148.37 Y154.21 E1.87870
G1 X148.79 Y154.98 E1.93316
G1 X149.34 Y155.66 E1.98774
G1 X150.02 Y156.21 E2.04233
G1 X150.79 Y156.63 E2.09679
G1 X151.63 Y156.88 E2.15179
G1 X152.50 Y156.97 E2.20618
G1 X153.37 Y156.88 E2.26057
G1 X154.21 Y156.63 E2.31557
G1 X154.98 Y156.21 E2.37003
G1 X155.66 Y155.66 E2.42462
G1 X156.21 Y154.98 E2.47920
G1 X156.63 Y154.21 E2.53367
G1 X156.88 Y153.37 E2.58867
G1 X156.97 Y152.50 E2.64306
G1 X156.88 Y151.63 E2.69745
G1 X156.63 Y150.79 E2.75245
G1 X156.21 Y150.02 E2.80691
G1 X155.66 Y149.34 E2.86150
G1 X154.98 Y148.79 E2.91608
G1 X154.21 Y148.37 E2.97054
G1 X153.37 Y148.12 E3.02554
G1 X152.50 Y148.03 E3.07993
G1 X151.63 Y148.12 E3.13432
G1 X150.79 Y148.37 E3.18932
G1 X150.02 Y148.79 E3.24379
G1 X149.34 Y149.34 E3.29837
G0 F6000 X148.99 Y148.99
G1 F2700 X148.37 Y149.74 E3.35916
G1 X147.91 Y150.60 E3.41995
G1 X147.63 Y151.53 E3.48050
G1 X147.53 Y152.50 E3.54135
G1 X147.63 Y153.47 E3.60220
G1 X147.91 Y154.40 E3.66274
G1 X148.37 Y155.26 E3.72353
G1 X148.99 Y156.01 E3.78432
G1 X149.74 Y156.63 E3.84511
G1 X150.60 Y157.09 E3.90591
G1 X151.53 Y157.37 E3.96645
G1 X152.50 Y157.47 E4.02730
G1 X153.47 Y157.37 E4.08815
G1 X154.40 Y157.09 E4.14870
G1 X155.26 Y156.63 E4.20949
G1 X156.01 Y156.01 E4.27028
G1 X156.63 Y155.26 E4.33107
G1 X157.09 Y154.40 E4.39186
G1 X157.37 Y153.47 E4.45240
G1 X157.47 Y152.50 E4.51325
G1 X157.37 Y151.53 E4.57410
G1 X157.09 Y150.60 E4.63465
G1 X156.63 Y149.74 E4.69544
G1 X156.01 Y148.99 E4.75623
G1 X155.26 Y148.37 E4.81702
G1 X154.40 Y147.91 E4.87781
G1 X153.47 Y147.63 E4.93836
G1 X152.50 Y147.53 E4.99921
G1 X151.53 Y147.63 E5.06006
G1 X150.60 Y147.91 E5.12060
G1 X149.74 Y148.37 E5.18139
G1 X148.99 Y148.99 E5.24218
G0 F6000 X148.63 Y148.63
G1 F2700 X147.95 Y149.46 E5.30909
G1 X147.45 Y150.40 E5.37582
G1 X147.13 Y151.44 E5.44302
G1 X147.03 Y152.50 E5.50976
G1 X147.13 Y153.56 E5.57650
G1 X147.45 Y154.60 E5.64369
G1 X147.95 Y155.54 E5.71042
G1 X148.63 Y156.37 E5.77733
G1 X149.46 Y157.05 E5.84424
G1 X150.40 Y157.55 E5.91097
G1 X151.44 Y157.87 E5.97817
G1 X152.50 Y157.97 E6.04490
G1 X153.56 Y157.87 E6.11164
G1 X154.60 Y157.55 E6.17884
G1 X155.54 Y157.05 E6.24557
G1 X156.37 Y156.37 E6.31248
G1 X157.05 Y155.54 E6.37938
G1 X157.55 Y154.60 E6.44612
G1 X157.87 Y153.56 E6.51331
G1 X157.97 Y152.50 E6.58005
G1 X157.87 Y151.44 E6.64679
G1 X157.55 Y150.40 E6.71398
G1 X157.05 Y149.46 E6.78072
G1 X156.37 Y148.63 E6.84762
G1 X155.54 Y147.95 E6.91453
G1 X154.60 Y147.45 E6.98126
G1 X153.56 Y147.13 E7.04846
G1 X152.50 Y147.03 E7.11520
G1 X151.44 Y147.13 E7.18193
G1 X150.40 Y147.45 E7.24913
G1 X149.46 Y147.95 E7.31586
G1 X148.63 Y148.63 E7.38277
G0 F6000 X148.28 Y148.28
G1 F2700 X147.53 Y149.18 E7.45566
G1 X146.98 Y150.22 E7.52898
G1 X146.64 Y151.33 E7.60169
G1 X146.53 Y152.50 E7.67489
G1 X146.64 Y153.67 E7.74809
G1 X146.98 Y154.78 E7.82081
G1 X147.53 Y155.82 E7.89413
G1 X148.28 Y156.72 E7.96702
G1 X149.18 Y157.47 E8.03990
G1 X150.22 Y158.02 E8.11322
G1 X151.33 Y158.36 E8.18594
G1 X152.50 Y158.47 E8.25914
G1 X153.67 Y158.36 E8.33234
G1 X154.78 Y158.02 E8.40506
G1 X155.82 Y157.47 E8.47838
G1 X156.72 Y156.72 E8.55126
G1 X157.47 Y155.82 E8.62415
G1 X158.02 Y154.78 E8.69747
G1 X158.36 Y153.67 E8.77019
G1 X158.47 Y152.50 E8.84339
G1 X158.36 Y151.33 E8.91659
G1 X158.02 Y150.22 E8.98930
G1 X157.47 Y149.18 E9.06262
G1 X156.72 Y148.28 E9.13551
G1 X155.82 Y147.53 E9.20840
G1 X154.78 Y146.98 E9.28172
G1 X153.67 Y146.64 E9.35444
G1 X152.50 Y146.53 E9.42763
G1 X151.33 Y146.64 E9.50083
G1 X150.22 Y146.98 E9.57355
G1 X149.18 Y147.53 E9.64687
G1 X148.28 Y148.28 E9.71976
G0 F6000 X147.92 Y147.92
G1 F2700 X147.12 Y148.90 E9.79880
G1 X146.52 Y150.02 E9.87806
G1 X146.15 Y151.24 E9.95743
G1 X146.02 Y152.50 E10.03646
G1 X146.15 Y153.76 E10.11548
G1 X146.52 Y154.98 E10.19485
G1 X147.12 Y156.10 E10.27411
G1 X147.92 Y157.08 E10.35315
G1 X148.90 Y157.88 E10.43220
G1 X150.02 Y158.48 E10.51146
G1 X151.24 Y158.85 E10.59083
G1 X152.50 Y158.98 E10.66985
G1 X153.76 Y158.85 E10.74888
G1 X154.98 Y158.48 E10.82824
G1 X156.10 Y157.88 E10.90751
G1 X157.08 Y157.08 E10.98655
G1 X157.88 Y156.10 E11.06559
G1 X158.48 Y154.98 E11.14485
G1 X158.85 Y153.76 E11.22422
G1 X158.98 Y152.50 E11.30325
G1 X158.85 Y151.24 E11.38227
G1 X158.48 Y150.02 E11.46164
G1 X157.88 Y148.90 E11.54090
G1 X157.08 Y147.92 E11.61994
G1 X156.10 Y147.12 E11.69899
G1 X154.98 Y146.52 E11.77825
G1 X153.76 Y146.15 E11.85762
G1 X152.50 Y146.02 E11.93664
G1 X151.24 Y146.15 E12.01567
G1 X150.02 Y146.52 E12.09503
G1 X148.90 Y147.12 E12.17430
G1 X147.92 Y147.92 E12.25334
G0 F6000 X147.57 Y147.57
G1 F2700 X146.70 Y148.62 E12.33859
G1 X146.05 Y149.83 E12.42413
G1 X145.66 Y151.14 E12.50943
G1 X145.52 Y152.50 E12.59460
G1 X145.66 Y153.86 E12.67977
G1 X146.05 Y155.17 E12.76507
G1 X146.70 Y156.38 E12.85061
G1 X147.57 Y157.43 E12.93586
G1 X148.62 Y158.30 E13.02110
G1 X149.83 Y158.95 E13.10664
G1 X151.14 Y159.34 E13.19195
G1 X152.50 Y159.48 E13.27712
G1 X153.86 Y159.34 E13.36228
G1 X155.17 Y158.95 E13.44759
G1 X156.38 Y158.30 E13.53313
G1 X157.43 Y157.43 E13.61838
G1 X158.30 Y156.38 E13.70362
G1 X158.95 Y155.17 E13.78916
G1 X159.34 Y153.86 E13.87447
G1 X159.48 Y152.50 E13.95964
G1 X159.34 Y151.14 E14.04480
G1 X158.95 Y149.83 E14.13011
G1 X158.30 Y148.62 E14.21565
G1 X157.43 Y147.57 E14.30089
G1 X156.38 Y146.70 E14.38614
G1 X155.17 Y146.05 E14.47168
G1 X153.86 Y145.66 E14.55699
G1 X152.50 Y145.52 E14.64215
G1 X151.14 Y145.66 E14.72732
G1 X149.83 Y146.05 E14.81263
G1 X148.62 Y146.70 E14.89817
G1 X147.57 Y147.57 E14.98341
G0 F6000 X147.21 Y147.21
G1 F2700 X146.28 Y148.34 E15.07478
G1 X145.59 Y149.64 E15.16631
G1 X145.16 Y151.04 E15.25787
G1 X145.02 Y152.50 E15.34925
G1 X145.16 Y153.96 E15.44062
G1 X145.59 Y155.36 E15.53218
G1 X146.28 Y156.66 E15.62372
G1 X147.21 Y157.79 E15.71508
G1 X148.34 Y158.72 E15.80644
G1 X149.64 Y159.41 E15.89798
G1 X151.04 Y159.84 E15.98954
G1 X152.50 Y159.98 E16.08091
G1 X153.96 Y159.84 E16.17229
G1 X155.36 Y159.41 E16.26385
G1 X156.66 Y158.72 E16.35538
G1 X157.79 Y157.79 E16.44675
G1 X158.72 Y156.66 E16.53811
G1 X159.41 Y155.36 E16.62965
G1 X159.84 Y153.96 E16.72121
G1 X159.98 Y152.50 E16.81258
G1 X159.84 Y151.04 E16.90395
G1 X159.41 Y149.64 E16.99551
G1 X158.72 Y148.34 E17.08705
G1 X157.79 Y147.21 E17.17841
G1 X156.66 Y146.28 E17.26978
G1 X155.36 Y145.59 E17.36131
G1 X153.96 Y145.16 E17.45287
G1 X152.50 Y145.02 E17.54425
G1 X151.04 Y145.16 E17.63562
G1 X149.64 Y145.59 E17.72718
G1 X148.34 Y146.28 E17.81872
G1 X147.21 Y147.21 E17.91008
G0 F6000 X146.85 Y146.85
G1 F2700 X145.86 Y148.06 E18.00760
G1 X145.12 Y149.45 E18.10536
G1 X144.67 Y150.94 E18.20297
G1 X144.52 Y152.50 E18.30048
G1 X144.67 Y154.06 E18.39799
G1 X145.12 Y155.55 E18.49561
G1 X145.86 Y156.94 E18.59337
G1 X146.85 Y158.15 E18.69089
G1 X148.06 Y159.14 E18.78841
G1 X149.45 Y159.88 E18.88617
G1 X150.94 Y160.33 E18.98378
G1 X152.50 Y160.48 E19.08129
G1 X154.06 Y160.33 E19.17880
G1 X155.55 Y159.88 E19.27642
G1 X156.94 Y159.14 E19.37418
G1 X158.15 Y158.15 E19.47170
G1 X159.14 Y156.94 E19.56922
G1 X159.88 Y155.55 E19.66698
G1 X160.33 Y154.06 E19.76459
G1 X160.48 Y152.50 E19.86210
G1 X160.33 Y150.94 E19.95961
G1 X159.88 Y149.45 E20.05723
G1 X159.14 Y148.06 E20.15499
G1 X158.15 Y146.85 E20.25251
G1 X156.94 Y145.86 E20.35003
G1 X155.55 Y145.12 E20.44779
G1 X154.06 Y144.67 E20.54540
G1 X152.50 Y144.52 E20.64291
G1 X150.94 Y144.67 E20.74042
G1 X149.45 Y145.12 E20.83804
G1 X148.06 Y145.86 E20.93580
G1 X146.85 Y146.85 E21.03332
G0 F6000 X146.50 Y146.50
G1 F2700 X145.44 Y147.78 E21.13704
G1 X144.66 Y149.25 E21.24083
G1 X144.18 Y150.84 E21.34458
G1 X144.01 Y152.50 E21.44829
G1 X144.18 Y154.16 E21.55200
G1 X144.66 Y155.75 E21.65575
G1 X145.44 Y157.22 E21.75953
G1 X146.50 Y158.50 E21.86326
G1 X147.78 Y159.56 E21.96698
G1 X149.25 Y160.34 E22.07077
G1 X150.84 Y160.82 E22.17452
G1 X152.50 Y160.99 E22.27823
G1 X154.16 Y160.82 E22.38194
G1 X155.75 Y160.34 E22.48569
G1 X157.22 Y159.56 E22.58948
G1 X158.50 Y158.50 E22.69320
G1 X159.56 Y157.22 E22.79692
G1 X160.34 Y155.75 E22.90071
G1 X160.82 Y154.16 E23.00446
G1 X160.99 Y152.50 E23.10817
G1 X160.82 Y150.84 E23.21188
G1 X160.34 Y149.25 E23.31563
G1 X159.56 Y147.78 E23.41942
G1 X158.50 Y146.50 E23.52314
G1 X157.22 Y145.44 E23.62686
G1 X155.75 Y144.66 E23.73065
G1 X154.16 Y144.18 E23.83440
G1 X152.50 Y144.01 E23.93811
G1 X150.84 Y144.18 E24.04182
G1 X149.25 Y144.66 E24.14557
G1 X147.78 Y145.44 E24.24936
G1 X146.50 Y146.50 E24.35308
G0 F6000 X146.14 Y146.14
G1 F2700 X145.03 Y147.50 E24.46275
G1 X144.19 Y149.06 E24.57298
G1 X143.68 Y150.75 E24.68278
G1 X143.51 Y152.50 E24.79264
G1 X143.68 Y154.25 E24.90249
G1 X144.19 Y155.94 E25.01230
G1 X145.03 Y157.50 E25.12253
G1 X146.14 Y158.86 E25.23219
G1 X147.50 Y159.97 E25.34186
G1 X149.06 Y160.81 E25.45209
G1 X150.75 Y161.32 E25.56190
G1 X152.50 Y161.49 E25.67175
G1 X154.25 Y161.32 E25.78160
G1 X155.94 Y160.81 E25.89141
G1 X157.50 Y159.97 E26.00164
G1 X158.86 Y158.86 E26.11131
G1 X159.97 Y157.50 E26.22097
G1 X160.81 Y155.94 E26.33121
G1 X161.32 Y154.25 E26.44101
G1 X161.49 Y152.50 E26.55087
G1 X161.32 Y150.75 E26.66072
G1 X160.81 Y149.06 E26.77053
G1 X159.97 Y147.50 E26.88076
G1 X158.86 Y146.14 E26.99042
G1 X157.50 Y145.03 E27.10009
G1 X155.94 Y144.19 E27.21032
G1 X154.25 Y143.68 E27.32013
G1 X152.50 Y143.51 E27.42998
G1 X150.75 Y143.68 E27.53983
G1 X149.06 Y144.19 E27.64964
G1 X147.50 Y145.03 E27.75987
G1 X146.14 Y146.14 E27.86954
G0 F6000 X145.79 Y145.79
G1 F2700 X144.61 Y147.22 E27.98541
G1 X143.73 Y148.87 E28.10164
G1 X143.19 Y150.65 E28.21764
G1 X143.01 Y152.50 E28.33363
G1 X143.19 Y154.35 E28.44963
G1 X143.73 Y156.13 E28.56563
G1 X144.61 Y157.78 E28.68186
G1 X145.79 Y159.21 E28.79773
G1 X147.22 Y160.39 E28.91360
G1 X148.87 Y161.27 E29.02983
G1 X150.65 Y161.81 E29.14583
G1 X152.50 Y161.99 E29.26183
G1 X154.35 Y161.81 E29.37782
G1 X156.13 Y161.27 E29.49382
G1 X157.78 Y160.39 E29.61005
G1 X159.21 Y159.21 E29.72592
G1 X160.39 Y157.78 E29.84179
G1 X161.27 Y156.13 E29.95802
G1 X161.81 Y154.35 E30.07402
G1 X161.99 Y152.50 E30.19002
G1 X161.81 Y150.65 E30.30602
G1 X161.27 Y148.87 E30.42202
G1 X160.39 Y147.22 E30.53825
G1 X159.21 Y145.79 E30.65412
G1 X157.78 Y144.61 E30.76999
G1 X156.13 Y143.73 E30.88622
G1 X154.35 Y143.19 E31.00222
G1 X152.50 Y143.01 E31.11821
G1 X150.65 Y143.19 E31.23421
G1 X148.87 Y143.73 E31.35021
G1 X147.22 Y144.61 E31.46644
G1 X145.79 Y145.79 E31.58231
G0 F6000 X145.43 Y145.43
G1 F2700 X144.19 Y146.95 E31.70447
G1 X143.27 Y148.68 E31.82678
G1 X142.70 Y150.55 E31.94878
G1 X142.51 Y152.50 E32.07098
G1 X142.70 Y154.45 E32.19319
G1 X143.27 Y156.32 E32.31518
G1 X144.19 Y158.05 E32.43750
G1 X145.43 Y159.57 E32.55966
G1 X146.95 Y160.81 E32.68182
G1 X148.68 Y161.73 E32.80413
G1 X150.55 Y162.30 E32.92613
G1 X152.50 Y162.49 E33.04833
G1 X154.45 Y162.30 E33.17053
G1 X156.32 Y161.73 E33.29253
G1 X158.05 Y160.81 E33.41484
G1 X159.57 Y159.57 E33.53700
G1 X160.81 Y158.05 E33.65917
G1 X161.73 Y156.32 E33.78148
G1 X162.30 Y154.45 E33.90348
G1 X162.49 Y152.50 E34.02568
G1 X162.30 Y150.55 E34.14788
G1 X161.73 Y148.68 E34.26988
G1 X160.81 Y146.95 E34.39219
G1 X159.57 Y145.43 E34.51435
G1 X158.05 Y144.19 E34.63651
G1 X156.32 Y143.27 E34.75883
G1 X154.45 Y142.70 E34.88082
G1 X152.50 Y142.51 E35.00303
G1 X150.55 Y142.70 E35.12523
G1 X148.68 Y143.27 E35.24723
G1 X146.95 Y144.19 E35.36954
G1 X145.43 Y145.43 E35.49170
G0 F6000 X145.08 Y145.08
G1 F2700 X143.77 Y146.67 E35.61983
G1 X142.80 Y148.48 E35.74828
G1 X142.21 Y150.46 E35.87693
G1 X142.00 Y152.50 E36.00496
G1 X142.21 Y154.54 E36.13299
G1 X142.80 Y156.52 E36.26163
G1 X143.77 Y158.33 E36.39008
G1 X145.08 Y159.92 E36.51821
G1 X146.67 Y161.23 E36.64635
G1 X148.48 Y162.20 E36.77480
G1 X150.46 Y162.79 E36.90344
G1 X152.50 Y163.00 E37.03147
G1 X154.54 Y162.79 E37.15950
G1 X156.52 Y162.20 E37.28815
G1 X158.33 Y161.23 E37.41660
G1 X159.92 Y159.92 E37.54473
G1 X161.23 Y158.33 E37.67286
G1 X162.20 Y156.52 E37.80131
G1 X162.79 Y154.54 E37.92996
G1 X163.00 Y152.50 E38.05799
G1 X162.79 Y150.46 E38.18602
G1 X162.20 Y148.48 E38.31466
G1 X161.23 Y146.67 E38.44311
G1 X159.92 Y145.08 E38.57125
G1 X158.33 Y143.77 E38.69938
G1 X156.52 Y142.80 E38.82783
G1 X154.54 Y142.21 E38.95648
G1 X152.50 Y142.00 E39.08450
G1 X150.46 Y142.21 E39.21253
G1 X148.48 Y142.80 E39.34118
G1 X146.67 Y143.77 E39.46963
G1 X145.08 Y145.08 E39.59776
G0 F6000 X144.72 Y144.72
G1 F2700 X143.36 Y146.39 E39.73210
G1 X142.34 Y148.29 E39.86686
G1 X141.71 Y150.35 E40.00103
G1 X141.50 Y152.50 E40.13558
G1 X141.71 Y154.65 E40.27013
G1 X142.34 Y156.71 E40.40430
G1 X143.36 Y158.61 E40.53906
G1 X144.72 Y160.28 E40.67339
G1 X146.39 Y161.64 E40.80773
G1 X148.29 Y162.66 E40.94249
G1 X150.35 Y163.29 E41.07666
G1 X152.50 Y163.50 E41.21121
G1 X154.65 Y163.29 E41.34576
G1 X156.71 Y162.66 E41.47993
G1 X158.61 Y161.64 E41.61469
G1 X160.28 Y160.28 E41.74902
G1 X161.64 Y158.61 E41.88336
G1 X162.66 Y156.71 E42.01812
G1 X163.29 Y154.65 E42.15229
G1 X163.50 Y152.50 E42.28684
G1 X163.29 Y150.35 E42.42139
G1 X162.66 Y148.29 E42.55556
G1 X161.64 Y146.39 E42.69032
G1 X160.28 Y144.72 E42.82465
G1 X158.61 Y143.36 E42.95899
G1 X156.71 Y142.34 E43.09375
G1 X154.65 Y141.71 E43.22792
G1 X152.50 Y141.50 E43.36247
G1 X150.35 Y141.71 E43.49702
G1 X148.29 Y142.34 E43.63119
G1 X146.39 Y143.36 E43.76595
G1 X144.72 Y144.72 E43.90028
G0 F6000 X143.46 Y143.52
G1 F2700 X143.48 Y143.49 E43.90290
G1 X145.38 Y141.93 E44.05626
G1 X145.42 Y141.90 E44.05901
G1 X147.62 Y140.72 E44.21477
G1 X150.00 Y140.00 E44.36946
G1 X152.46 Y139.75 E44.52365
G1 X152.50 Y139.75 E44.52641
G1 X154.94 Y139.99 E44.67963
G1 X154.99 Y140.00 E44.68239
G1 X157.36 Y140.71 E44.83702
G1 X159.58 Y141.90 E44.99403
G1 X161.48 Y143.46 E45.14726
G1 X161.51 Y143.48 E45.14988
G1 X163.07 Y145.38 E45.30324
G1 X163.10 Y145.42 E45.30598
G1 X164.28 Y147.62 E45.46175
G1 X165.00 Y150.00 E45.61644
G1 X165.25 Y152.46 E45.77063
G1 X165.25 Y152.50 E45.77338
G1 X165.01 Y154.94 E45.92660
G1 X165.00 Y154.99 E45.92936
G1 X164.29 Y157.36 E46.08399
G1 X163.10 Y159.58 E46.24100
G1 X161.54 Y161.48 E46.39423
G1 X161.52 Y161.51 E46.39685
G1 X159.62 Y163.07 E46.55021
G1 X159.58 Y163.10 E46.55295
G1 X157.38 Y164.28 E46.70872
G1 X155.00 Y165.00 E46.86341
G1 X152.54 Y165.25 E47.01760
G1 X152.50 Y165.25 E47.02035
G1 X150.06 Y165.01 E47.17357
G1 X150.01 Y165.00 E47.17633
G1 X147.64 Y164.29 E47.33096
G1 X145.42 Y163.10 E47.48798
G1 X143.52 Y161.54 E47.64120
G1 X143.49 Y161.52 E47.64382
G1 X141.93 Y159.62 E47.79718
G1 X141.90 Y159.58 E47.79992
G1 X140.72 Y157.38 E47.95569
G1 X140.00 Y155.00 E48.11038
G1 X139.75 Y152.54 E48.26463
G1 X139.75 Y152.50 E48.26732
G1 X139.99 Y150.06 E48.42054
G1 X140.00 Y150.01 E48.42330
G1 X140.71 Y147.64 E48.57793
G1 X141.90 Y145.42 E48.73495
G1 X143.46 Y143.52 E48.88817
G0 F6000 X143.07 Y143.20
G1 F2700 X143.12 Y143.13 E48.89367
G1 X145.07 Y141.54 E49.05053
G1 X145.14 Y141.48 E49.05629
G1 X147.35 Y140.30 E49.21234
G1 X147.43 Y140.25 E49.21814
G1 X149.90 Y139.51 E49.37883
G1 X152.40 Y139.26 E49.53590
G1 X152.50 Y139.25 E49.54192
G1 X155.00 Y139.49 E49.69840
G1 X155.09 Y139.50 E49.70417
G1 X157.55 Y140.25 E49.86485
G1 X159.78 Y141.44 E50.02206
G1 X159.86 Y141.48 E50.02798
G1 X161.79 Y143.06 E50.18372
G1 X161.87 Y143.12 E50.18980
G1 X163.46 Y145.07 E50.34666
G1 X163.52 Y145.14 E50.35242
G1 X164.70 Y147.35 E50.50847
G1 X164.75 Y147.43 E50.51427
G1 X165.49 Y149.90 E50.67496
G1 X165.74 Y152.40 E50.83203
G1 X165.75 Y152.50 E50.83805
G1 X165.51 Y155.00 E50.99453
G1 X165.50 Y155.09 E51.00030
G1 X164.75 Y157.55 E51.16098
G1 X163.56 Y159.78 E51.31833
G1 X163.52 Y159.86 E51.32411
G1 X161.93 Y161.80 E51.48043
G1 X161.88 Y161.87 E51.48593
G1 X159.93 Y163.46 E51.64279
G1 X159.86 Y163.52 E51.64855
G1 X157.65 Y164.70 E51.80460
G1 X157.57 Y164.75 E51.81040
G1 X155.10 Y165.49 E51.97109
G1 X152.60 Y165.74 E52.12816
G1 X152.50 Y165.75 E52.13417
G1 X150.00 Y165.51 E52.29065
G1 X149.91 Y165.50 E52.29643
G1 X147.45 Y164.75 E52.45711
G1 X145.22 Y163.56 E52.61446
G1 X145.14 Y163.52 E52.62024
G1 X143.20 Y161.93 E52.77656
G1 X143.13 Y161.88 E52.78206
G1 X141.54 Y159.93 E52.93892
G1 X141.48 Y159.86 E52.94468
G1 X140.30 Y157.65 E53.10072
G1 X140.25 Y157.57 E53.10653
G1 X139.51 Y155.10 E53.26722
G1 X139.26 Y152.59 E53.42453
G1 X139.25 Y152.50 E53.43030
G1 X139.49 Y150.00 E53.58678
G1 X139.50 Y149.91 E53.59255
G1 X140.25 Y147.45 E53.75324
G1 X141.44 Y145.22 E53.91059
G1 X141.48 Y145.14 E53.91637
G1 X143.07 Y143.20 E54.07269
G0 F6000 X142.68 Y142.88
G1 F2700 X142.77 Y142.78 E54.08107
G1 X144.75 Y141.15 E54.24134
G1 X144.87 Y141.06 E54.25021
G1 X147.11 Y139.86 E54.40918
G1 X147.24 Y139.79 E54.41805
G1 X149.80 Y139.01 E54.58482
G1 X152.36 Y138.76 E54.74514
G1 X152.50 Y138.74 E54.75392
G1 X155.05 Y139.00 E54.91371
G1 X155.19 Y139.01 E54.92255
G1 X157.75 Y139.78 E55.08924
G1 X160.01 Y140.99 E55.24943
G1 X160.14 Y141.06 E55.25847
G1 X162.10 Y142.67 E55.41697
G1 X162.22 Y142.77 E55.42633
G1 X163.85 Y144.75 E55.58659
G1 X163.94 Y144.87 E55.59546
G1 X165.14 Y147.11 E55.75444
G1 X165.21 Y147.24 E55.76331
G1 X165.99 Y149.80 E55.93007
G1 X166.24 Y152.35 E56.09002
G1 X166.26 Y152.50 E56.09917
G1 X166.00 Y155.05 E56.25897
G1 X165.99 Y155.19 E56.26781
G1 X165.22 Y157.75 E56.43449
G1 X164.00 Y160.01 E56.59491
G1 X163.94 Y160.14 E56.60373
G1 X162.32 Y162.12 E56.76319
G1 X162.23 Y162.22 E56.77158
G1 X160.25 Y163.85 E56.93185
G1 X160.13 Y163.94 E56.94072
G1 X157.89 Y165.14 E57.09969
G1 X157.76 Y165.21 E57.10856
G1 X155.20 Y165.99 E57.27533
G1 X152.64 Y166.24 E57.43565
G1 X152.50 Y166.26 E57.44443
G1 X149.95 Y166.00 E57.60422
G1 X149.81 Y165.99 E57.61306
G1 X147.25 Y165.22 E57.77975
G1 X144.99 Y164.01 E57.93994
G1 X144.86 Y163.94 E57.94898
G1 X142.88 Y162.32 E58.10845
G1 X142.78 Y162.23 E58.11683
G1 X141.15 Y160.25 E58.27710
G1 X141.06 Y160.13 E58.28597
G1 X139.86 Y157.89 E58.44495
G1 X139.79 Y157.76 E58.45382
G1 X139.01 Y155.20 E58.62058
G1 X138.76 Y152.64 E58.78091
G1 X138.74 Y152.50 E58.78968
G1 X139.00 Y149.95 E58.94947
G1 X139.01 Y149.81 E58.95832
G1 X139.78 Y147.25 E59.12500
G1 X141.00 Y144.99 E59.28542
G1 X141.06 Y144.86 E59.29424
G1 X142.68 Y142.88 E59.45370
G0 F6000 X142.28 Y142.58
G1 F2700 X142.41 Y142.43 E59.46634
G1 X144.44 Y140.76 E59.63011
G1 X144.59 Y140.64 E59.64205
G1 X146.88 Y139.42 E59.80392
G1 X147.05 Y139.33 E59.81592
G1 X149.70 Y138.52 E59.98872
G1 X152.31 Y138.26 E60.15206
G1 X152.49 Y138.24 E60.16385
G1 X155.10 Y138.50 E60.32697
G1 X155.29 Y138.52 E60.33882
G1 X157.94 Y139.32 E60.51156
G1 X160.25 Y140.55 E60.67474
G1 X160.25 Y140.55 E60.67480
G1 X160.42 Y140.64 E60.68697
G1 X162.42 Y142.28 E60.84817
G1 X162.57 Y142.41 E60.86081
G1 X164.24 Y144.44 E61.02457
G1 X164.36 Y144.59 E61.03651
G1 X165.58 Y146.88 E61.19839
G1 X165.67 Y147.05 E61.21039
G1 X166.48 Y149.70 E61.38319
G1 X166.74 Y152.30 E61.54602
G1 X166.76 Y152.49 E61.55831
G1 X166.50 Y155.10 E61.72143
G1 X166.48 Y155.29 E61.73329
G1 X165.68 Y157.94 E61.90603
G1 X164.45 Y160.25 E62.06921
G1 X164.45 Y160.25 E62.06927
G1 X164.36 Y160.42 E62.08144
G1 X162.72 Y162.42 E62.24264
G1 X162.59 Y162.57 E62.25528
G1 X160.56 Y164.24 E62.41904
G1 X160.41 Y164.36 E62.43098
G1 X158.12 Y165.58 E62.59286
G1 X157.95 Y165.67 E62.60485
G1 X155.30 Y166.48 E62.77765
G1 X152.69 Y166.74 E62.94099
G1 X152.51 Y166.76 E62.95278
G1 X149.90 Y166.50 E63.11590
G1 X149.71 Y166.48 E63.12775
G1 X147.06 Y165.68 E63.30049
G1 X144.75 Y164.45 E63.46368
G1 X144.75 Y164.45 E63.46374
G1 X144.58 Y164.36 E63.47590
G1 X142.58 Y162.72 E63.63710
G1 X142.43 Y162.59 E63.64974
G1 X140.76 Y160.56 E63.81351
G1 X140.64 Y160.41 E63.82545
G1 X139.42 Y158.12 E63.98732
G1 X139.33 Y157.95 E63.99932
G1 X138.52 Y155.30 E64.17212
G1 X138.26 Y152.69 E64.33546
G1 X138.24 Y152.51 E64.34725
G1 X138.50 Y149.90 E64.51037
G1 X138.52 Y149.71 E64.52222
G1 X139.32 Y147.06 E64.69496
G1 X140.55 Y144.75 E64.85814
G1 X140.55 Y144.75 E64.85820
G1 X140.64 Y144.58 E64.87037
G1 X142.28 Y142.58 E65.03157
G0 F6000 X141.91 Y142.25
G1 F2700 X142.05 Y142.07 E65.04563
G1 X144.12 Y140.37 E65.21285
G1 X144.31 Y140.22 E65.22789
G1 X146.64 Y138.97 E65.39269
G1 X146.86 Y138.86 E65.40773
G1 X149.60 Y138.03 E65.58661
G1 X152.25 Y137.76 E65.75233
G1 X152.49 Y137.74 E65.76788
G1 X155.15 Y138.00 E65.93420
G1 X155.39 Y138.03 E65.94918
G1 X158.13 Y138.86 E66.12786
G1 X160.48 Y140.11 E66.29403
G1 X160.70 Y140.22 E66.30934
G1 X162.73 Y141.89 E66.47333
G1 X162.93 Y142.05 E66.48917
G1 X164.63 Y144.12 E66.65639
G1 X164.78 Y144.31 E66.67142
G1 X166.03 Y146.64 E66.83623
G1 X166.14 Y146.86 E66.85126
G1 X166.97 Y149.60 E67.03014
G1 X167.24 Y152.25 E67.19586
G1 X167.26 Y152.49 E67.21141
G1 X167.00 Y155.15 E67.37773
G1 X166.97 Y155.39 E67.39272
G1 X166.14 Y158.13 E67.57140
G1 X164.89 Y160.49 E67.73792
G1 X164.78 Y160.70 E67.75288
G1 X163.09 Y162.75 E67.91863
G1 X162.95 Y162.93 E67.93270
G1 X160.88 Y164.63 E68.09992
G1 X160.69 Y164.78 E68.11496
G1 X158.36 Y166.03 E68.27976
G1 X158.14 Y166.14 E68.29480
G1 X155.40 Y166.97 E68.47367
G1 X152.75 Y167.24 E68.63939
G1 X152.51 Y167.26 E68.65494
G1 X149.85 Y167.00 E68.82126
G1 X149.61 Y166.97 E68.83625
G1 X146.87 Y166.14 E69.01493
G1 X144.52 Y164.89 E69.18109
G1 X144.30 Y164.78 E69.19641
G1 X142.25 Y163.09 E69.36217
G1 X142.07 Y162.95 E69.37623
G1 X140.37 Y160.88 E69.54345
G1 X140.22 Y160.69 E69.55849
G1 X138.97 Y158.36 E69.72329
G1 X138.86 Y158.14 E69.73833
G1 X138.03 Y155.40 E69.91721
G1 X137.76 Y152.74 E70.08361
G1 X137.74 Y152.51 E70.09848
G1 X138.00 Y149.85 E70.26480
G1 X138.03 Y149.61 E70.27978
G1 X138.86 Y146.87 E70.45846
G1 X140.11 Y144.51 E70.62499
G1 X140.22 Y144.30 E70.63994
G1 X141.91 Y142.25 E70.80570
G0 F6000 X141.51 Y141.95
G1 F2700 X141.69 Y141.72 E70.82429
G1 X143.81 Y139.98 E70.99493
G1 X144.04 Y139.80 E71.01308
G1 X146.41 Y138.53 E71.18081
G1 X146.66 Y138.40 E71.19894
G1 X149.50 Y137.54 E71.38386
G1 X152.19 Y137.27 E71.55246
G1 X152.49 Y137.24 E71.57115
G1 X155.20 Y137.50 E71.74078
G1 X155.49 Y137.53 E71.75884
G1 X158.32 Y138.39 E71.94352
G1 X160.71 Y139.67 E72.11270
G1 X160.97 Y139.81 E72.13111
G1 X163.04 Y141.50 E72.29784
G1 X163.28 Y141.69 E72.31697
G1 X165.02 Y143.81 E72.48761
G1 X165.20 Y144.04 E72.50575
G1 X166.47 Y146.41 E72.67349
G1 X166.60 Y146.66 E72.69162
G1 X167.46 Y149.50 E72.87653
G1 X167.73 Y152.19 E73.04514
G1 X167.76 Y152.49 E73.06382
G1 X167.50 Y155.20 E73.23346
G1 X167.47 Y155.49 E73.25152
G1 X166.61 Y158.32 E73.43619
G1 X165.33 Y160.72 E73.60579
G1 X165.19 Y160.97 E73.62378
G1 X163.50 Y163.04 E73.79052
G1 X163.31 Y163.28 E73.80965
G1 X161.19 Y165.02 E73.98028
G1 X160.96 Y165.20 E73.99843
G1 X158.59 Y166.47 E74.16616
G1 X158.34 Y166.60 E74.18430
G1 X155.50 Y167.46 E74.36921
G1 X152.81 Y167.73 E74.53782
G1 X152.51 Y167.76 E74.55650
G1 X149.80 Y167.50 E74.72613
G1 X149.51 Y167.47 E74.74419
G1 X146.68 Y166.61 E74.92887
G1 X144.28 Y165.33 E75.09847
G1 X144.03 Y165.19 E75.11646
G1 X141.96 Y163.50 E75.28319
G1 X141.72 Y163.31 E75.30232
G1 X139.98 Y161.19 E75.47296
G1 X139.80 Y160.96 E75.49110
G1 X138.53 Y158.59 E75.65884
G1 X138.40 Y158.34 E75.67697
G1 X137.54 Y155.50 E75.86189
G1 X137.27 Y152.79 E76.03130
G1 X137.24 Y152.51 E76.04918
G1 X137.50 Y149.80 E76.21881
G1 X137.53 Y149.51 E76.23687
G1 X138.39 Y146.68 E76.42154
G1 X139.67 Y144.28 E76.59114
G1 X139.81 Y144.03 E76.60914
G1 X141.51 Y141.95 E76.77640
G0 F6000 X141.14 Y141.61
G1 F2700 X141.34 Y141.37 E76.79623
G1 X143.50 Y139.59 E76.97037
G1 X143.76 Y139.38 E76.99153
G1 X146.17 Y138.09 E77.16222
G1 X146.47 Y137.93 E77.18340
G1 X149.40 Y137.04 E77.37433
G1 X152.16 Y136.77 E77.54682
G1 X152.49 Y136.73 E77.56776
G1 X155.25 Y137.01 E77.74066
G1 X155.59 Y137.04 E77.76173
G1 X158.51 Y137.93 E77.95246
G1 X160.95 Y139.23 E78.12460
G1 X161.25 Y139.39 E78.14619
G1 X163.39 Y141.14 E78.31820
G1 X163.63 Y141.34 E78.33803
G1 X165.41 Y143.50 E78.51217
G1 X165.62 Y143.76 E78.53333
G1 X166.91 Y146.17 E78.70402
G1 X167.07 Y146.47 E78.72519
G1 X167.96 Y149.40 E78.91612
G1 X168.23 Y152.14 E79.08767
G1 X168.27 Y152.49 E79.10956
G1 X167.99 Y155.25 E79.28246
G1 X167.96 Y155.59 E79.30352
G1 X167.07 Y158.51 E79.49426
G1 X165.77 Y160.96 E79.66690
G1 X165.61 Y161.25 E79.68798
G1 X163.86 Y163.39 E79.86000
G1 X163.66 Y163.63 E79.87983
G1 X161.50 Y165.41 E80.05396
G1 X161.24 Y165.62 E80.07513
G1 X158.83 Y166.91 E80.24582
G1 X158.53 Y167.07 E80.26699
G1 X155.60 Y167.96 E80.45792
G1 X152.84 Y168.23 E80.63041
G1 X152.51 Y168.27 E80.65135
G1 X149.75 Y167.99 E80.82425
G1 X149.41 Y167.96 E80.84532
G1 X146.49 Y167.07 E81.03605
G1 X144.05 Y165.77 E81.20819
G1 X143.75 Y165.61 E81.22978
G1 X141.61 Y163.86 E81.40179
G1 X141.37 Y163.66 E81.42162
G1 X139.59 Y161.50 E81.59576
G1 X139.38 Y161.24 E81.61692
G1 X138.09 Y158.83 E81.78761
G1 X137.93 Y158.53 E81.80879
G1 X137.04 Y155.60 E81.99972
G1 X136.77 Y152.84 E82.17221
G1 X136.73 Y152.51 E82.19315
G1 X137.01 Y149.75 E82.36605
G1 X137.04 Y149.41 E82.38712
G1 X137.93 Y146.49 E82.57785
G1 X139.23 Y144.04 E82.75049
G1 X139.39 Y143.75 E82.77158
G1 X141.14 Y141.61 E82.94359
G0 F6000 X140.75 Y141.30
G1 F2700 X140.98 Y141.01 E82.96626
G1 X143.18 Y139.21 E83.14386
G1 X143.48 Y138.96 E83.16808
G1 X145.94 Y137.65 E83.34175
G1 X146.28 Y137.47 E83.36602
G1 X149.31 Y136.55 E83.56301
G1 X152.11 Y136.27 E83.73850
G1 X152.49 Y136.23 E83.76246
G1 X155.30 Y136.51 E83.93867
G1 X155.69 Y136.55 E83.96282
G1 X158.70 Y137.46 E84.15955
G1 X161.18 Y138.78 E84.33464
G1 X161.53 Y138.97 E84.35933
G1 X163.67 Y140.72 E84.53155
G1 X163.99 Y140.98 E84.55720
G1 X165.79 Y143.18 E84.73479
G1 X166.04 Y143.48 E84.75901
G1 X167.35 Y145.94 E84.93269
G1 X167.53 Y146.28 E84.95696
G1 X168.45 Y149.31 E85.15395
G1 X168.73 Y152.09 E85.32831
G1 X168.77 Y152.49 E85.35339
G1 X168.49 Y155.30 E85.52961
G1 X168.45 Y155.69 E85.55375
G1 X167.54 Y158.70 E85.75048
G1 X166.21 Y161.19 E85.92613
G1 X166.03 Y161.53 E85.95026
G1 X164.25 Y163.70 E86.12546
G1 X164.02 Y163.99 E86.14813
G1 X161.82 Y165.79 E86.32573
G1 X161.52 Y166.04 E86.34995
G1 X159.06 Y167.35 E86.52363
G1 X158.72 Y167.53 E86.54790
G1 X155.69 Y168.45 E86.74488
G1 X152.89 Y168.73 E86.92038
G1 X152.51 Y168.77 E86.94433
G1 X149.70 Y168.49 E87.12054
G1 X149.31 Y168.45 E87.14469
G1 X146.30 Y167.54 E87.34142
G1 X143.81 Y166.21 E87.51707
G1 X143.47 Y166.03 E87.54120
G1 X141.30 Y164.25 E87.71640
G1 X141.01 Y164.02 E87.73907
G1 X139.21 Y161.82 E87.91666
G1 X138.96 Y161.52 E87.94088
G1 X137.65 Y159.06 E88.11456
G1 X137.47 Y158.72 E88.13883
G1 X136.55 Y155.69 E88.33582
G1 X136.27 Y152.89 E88.51131
G1 X136.23 Y152.51 E88.53526
G1 X136.51 Y149.70 E88.71148
G1 X136.55 Y149.31 E88.73562
G1 X137.46 Y146.30 E88.93235
G1 X138.79 Y143.81 E89.10800
G1 X138.97 Y143.47 E89.13213
G1 X140.75 Y141.30 E89.30733
G0 F6000 X140.33 Y141.02
G1 F2700 X140.62 Y140.66 E89.33626
G1 X142.87 Y138.82 E89.51735
G1 X143.21 Y138.54 E89.54464
G1 X145.70 Y137.21 E89.72122
G1 X146.09 Y137.00 E89.74858
G1 X149.21 Y136.06 E89.95157
G1 X152.03 Y135.78 E90.12864
G1 X152.49 Y135.73 E90.15710
G1 X155.35 Y136.01 E90.33658
G1 X155.78 Y136.06 E90.36379
G1 X158.90 Y137.00 E90.56656
G1 X161.43 Y138.35 E90.74534
G1 X161.81 Y138.55 E90.77251
G1 X163.98 Y140.33 E90.94740
G1 X164.34 Y140.62 E90.97632
G1 X166.18 Y142.87 E91.15741
G1 X166.46 Y143.21 E91.18470
G1 X167.79 Y145.70 E91.36128
G1 X168.00 Y146.09 E91.38865
G1 X168.94 Y149.21 E91.59163
G1 X169.22 Y152.04 E91.76895
G1 X169.27 Y152.49 E91.79717
G1 X168.99 Y155.35 E91.97664
G1 X168.94 Y155.78 E92.00386
G1 X168.00 Y158.90 E92.20663
G1 X166.65 Y161.43 E92.38540
G1 X166.45 Y161.81 E92.41258
G1 X164.67 Y163.98 E92.58746
G1 X164.38 Y164.34 E92.61639
G1 X162.13 Y166.18 E92.79748
G1 X161.79 Y166.46 E92.82477
G1 X159.30 Y167.79 E93.00135
G1 X158.91 Y168.00 E93.02871
G1 X155.79 Y168.94 E93.23170
G1 X152.96 Y169.22 E93.40901
G1 X152.51 Y169.27 E93.43723
G1 X149.65 Y168.99 E93.61671
G1 X149.22 Y168.94 E93.64392
G1 X146.10 Y168.00 E93.84669
G1 X143.57 Y166.65 E94.02547
G1 X143.19 Y166.45 E94.05264
G1 X141.02 Y164.67 E94.22753
G1 X140.66 Y164.38 E94.25645
G1 X138.82 Y162.13 E94.43754
G1 X138.54 Y161.79 E94.46483
G1 X137.21 Y159.30 E94.64141
G1 X137.00 Y158.91 E94.66878
G1 X136.06 Y155.79 E94.87176
G1 X135.77 Y152.94 E95.05033
G1 X135.73 Y152.51 E95.07730
G1 X136.01 Y149.65 E95.25677
G1 X136.06 Y149.22 E95.28399
G1 X137.00 Y146.10 E95.48676
G1 X138.35 Y143.57 E95.66553
G1 X138.55 Y143.19 E95.69271
G1 X140.33 Y141.02 E95.86759
G0 F6000 X139.98 Y140.66
G1 F2700 X140.26 Y140.31 E95.89599
G1 X142.55 Y138.43 E96.08054
G1 X142.93 Y138.12 E96.11098
G1 X145.47 Y136.77 E96.29046
G1 X145.90 Y136.54 E96.32086
G1 X149.11 Y135.57 E96.52996
G1 X151.98 Y135.28 E96.71016
G1 X152.49 Y135.22 E96.74158
G1 X155.40 Y135.51 E96.92432
G1 X155.88 Y135.56 E96.95460
G1 X159.09 Y136.53 E97.16339
G1 X161.66 Y137.91 E97.34520
G1 X162.09 Y138.13 E97.37542
G1 X164.32 Y139.96 E97.55518
G1 X164.69 Y140.26 E97.58522
G1 X166.57 Y142.55 E97.76977
G1 X166.88 Y142.93 E97.80020
G1 X168.23 Y145.47 E97.97968
G1 X168.46 Y145.90 E98.01009
G1 X169.43 Y149.11 E98.21919
G1 X169.72 Y151.98 E98.39939
G1 X169.78 Y152.49 E98.43080
G1 X169.49 Y155.40 E98.61355
G1 X169.44 Y155.88 E98.64383
G1 X168.47 Y159.09 E98.85261
G1 X167.09 Y161.66 E99.03443
G1 X166.87 Y162.09 E99.06464
G1 X165.02 Y164.34 E99.24604
G1 X164.74 Y164.69 E99.27444
G1 X162.45 Y166.57 E99.45899
G1 X162.07 Y166.88 E99.48943
G1 X159.53 Y168.23 E99.66891
G1 X159.10 Y168.46 E99.69932
G1 X155.89 Y169.43 E99.90842
G1 X153.02 Y169.72 E100.08861
G1 X152.51 Y169.78 E100.12003
G1 X149.60 Y169.49 E100.30277
G1 X149.12 Y169.44 E100.33305
G1 X145.91 Y168.47 E100.54184
G1 X143.34 Y167.09 E100.72366
G1 X142.91 Y166.87 E100.75387
G1 X140.68 Y165.04 E100.93363
G1 X140.31 Y164.74 E100.96367
G1 X138.43 Y162.45 E101.14822
G1 X138.12 Y162.07 E101.17865
G1 X136.77 Y159.53 E101.35813
G1 X136.54 Y159.10 E101.38854
G1 X135.57 Y155.89 E101.59764
G1 X135.28 Y152.99 E101.77922
G1 X135.22 Y152.51 E101.80926
G1 X135.51 Y149.60 E101.99200
G1 X135.56 Y149.12 E102.02228
G1 X136.53 Y145.91 E102.23106
G1 X137.91 Y143.34 E102.41288
G1 X138.13 Y142.91 E102.44309
G1 X139.98 Y140.66 E102.62450
G0 F6000 X139.55 Y140.40
G1 F2700 X139.91 Y139.95 E102.65999
G1 X142.24 Y138.04 E102.84794
G1 X142.65 Y137.71 E102.88140
G1 X145.23 Y136.33 E103.06384
G1 X145.71 Y136.07 E103.09734
G1 X149.01 Y135.07 E103.31251
G1 X151.96 Y134.78 E103.49710
G1 X152.48 Y134.72 E103.53014
G1 X155.45 Y135.02 E103.71620
G1 X155.98 Y135.07 E103.74949
G1 X159.28 Y136.07 E103.96434
G1 X161.88 Y137.46 E104.14827
G1 X162.37 Y137.71 E104.18242
G1 X164.60 Y139.55 E104.36285
G1 X165.05 Y139.91 E104.39834
G1 X166.96 Y142.24 E104.58629
G1 X167.29 Y142.65 E104.61975
G1 X168.67 Y145.23 E104.80219
G1 X168.93 Y145.71 E104.83569
G1 X169.93 Y149.01 E105.05087
G1 X170.22 Y151.93 E105.23388
G1 X170.28 Y152.48 E105.26849
G1 X169.98 Y155.45 E105.45455
G1 X169.93 Y155.98 E105.48785
G1 X168.93 Y159.28 E105.70269
G1 X167.53 Y161.90 E105.88755
G1 X167.29 Y162.37 E105.92077
G1 X165.45 Y164.60 E106.10120
G1 X165.09 Y165.05 E106.13669
G1 X162.76 Y166.96 E106.32465
G1 X162.35 Y167.29 E106.35810
G1 X159.77 Y168.67 E106.54054
G1 X159.29 Y168.93 E106.57404
G1 X155.99 Y169.93 E106.78922
G1 X153.04 Y170.22 E106.97380
G1 X152.52 Y170.28 E107.00684
G1 X149.55 Y169.98 E107.19290
G1 X149.02 Y169.93 E107.22620
G1 X145.72 Y168.93 E107.44104
G1 X143.10 Y167.53 E107.62590
G1 X142.63 Y167.29 E107.65912
G1 X140.40 Y165.45 E107.83955
G1 X139.95 Y165.09 E107.87504
G1 X138.04 Y162.76 E108.06300
G1 X137.71 Y162.35 E108.09645
G1 X136.33 Y159.77 E108.27889
G1 X136.07 Y159.29 E108.31239
G1 X135.07 Y155.99 E108.52757
G1 X134.78 Y153.04 E108.71215
G1 X134.72 Y152.52 E108.74520
G1 X135.02 Y149.55 E108.93125
G1 X135.07 Y149.02 E108.96455
G1 X136.07 Y145.72 E109.17939
G1 X137.47 Y143.10 E109.36425
G1 X137.71 Y142.63 E109.39747
G1 X139.55 Y140.40 E109.57790
G0 F6000 X139.21 Y140.03
G1 F2700 X139.55 Y139.60 E109.61207
G1 X141.92 Y137.65 E109.80348
G1 X142.38 Y137.29 E109.84004
G1 X145.00 Y135.88 E110.02544
G1 X145.52 Y135.61 E110.06201
G1 X148.91 Y134.58 E110.28317
G1 X151.91 Y134.28 E110.47082
G1 X152.48 Y134.22 E110.50694
G1 X155.50 Y134.52 E110.69626
G1 X156.08 Y134.58 E110.73263
G1 X159.47 Y135.61 E110.95345
G1 X162.13 Y137.02 E111.14135
G1 X162.65 Y137.30 E111.17770
G1 X164.95 Y139.19 E111.36385
G1 X165.40 Y139.55 E111.39956
G1 X167.35 Y141.92 E111.59098
G1 X167.71 Y142.38 E111.62754
G1 X169.12 Y145.00 E111.81293
G1 X169.39 Y145.52 E111.84950
G1 X170.42 Y148.91 E112.07066
G1 X170.72 Y151.88 E112.25662
G1 X170.78 Y152.48 E112.29444
G1 X170.48 Y155.50 E112.48375
G1 X170.42 Y156.08 E112.52012
G1 X169.39 Y159.47 E112.74095
G1 X167.98 Y162.13 E112.92884
G1 X167.70 Y162.65 E112.96519
G1 X165.79 Y164.97 E113.15289
G1 X165.45 Y165.40 E113.18705
G1 X163.08 Y167.35 E113.37847
G1 X162.62 Y167.71 E113.41503
G1 X160.00 Y169.12 E113.60042
G1 X159.48 Y169.39 E113.63700
G1 X156.09 Y170.42 E113.85815
G1 X153.09 Y170.72 E114.04581
G1 X152.52 Y170.78 E114.08193
G1 X149.50 Y170.48 E114.27125
G1 X148.92 Y170.42 E114.30762
G1 X145.53 Y169.39 E114.52844
G1 X142.87 Y167.98 E114.71634
G1 X142.35 Y167.70 E114.75269
G1 X140.05 Y165.81 E114.93883
G1 X139.60 Y165.45 E114.97455
G1 X137.65 Y163.08 E115.16596
G1 X137.29 Y162.62 E115.20253
G1 X135.88 Y160.00 E115.38792
G1 X135.61 Y159.48 E115.42449
G1 X134.58 Y156.09 E115.64565
G1 X134.28 Y153.09 E115.83330
G1 X134.22 Y152.52 E115.86942
G1 X134.52 Y149.50 E116.05874
G1 X134.58 Y148.92 E116.09511
G1 X135.61 Y145.53 E116.31593
G1 X137.02 Y142.87 E116.50383
G1 X137.30 Y142.35 E116.54018
G1 X139.21 Y140.03 E116.72788
G0 F6000 X138.82 Y139.71
G1 F2700 X139.19 Y139.25 E116.76489
G1 X141.60 Y137.26 E116.95976
G1 X142.10 Y136.87 E116.99943
G1 X144.76 Y135.44 E117.18775
G1 X145.33 Y135.15 E117.22739
G1 X148.81 Y134.09 E117.45462
G1 X151.86 Y133.78 E117.64529
G1 X152.48 Y133.72 E117.68441
G1 X155.55 Y134.02 E117.87698
G1 X156.18 Y134.09 E117.91643
G1 X159.66 Y135.14 E118.14326
G1 X162.35 Y136.57 E118.33320
G1 X162.92 Y136.88 E118.37365
G1 X165.27 Y138.80 E118.56271
G1 X165.75 Y139.19 E118.60150
G1 X167.74 Y141.60 E118.79637
G1 X168.13 Y142.10 E118.83604
G1 X169.56 Y144.76 E119.02436
G1 X169.85 Y145.33 E119.06400
G1 X170.91 Y148.81 E119.29123
G1 X171.21 Y151.83 E119.48008
G1 X171.28 Y152.48 E119.52102
G1 X170.98 Y155.55 E119.71359
G1 X170.91 Y156.18 E119.75304
G1 X169.86 Y159.66 E119.97987
G1 X168.42 Y162.37 E120.17087
G1 X168.12 Y162.92 E120.21026
G1 X166.18 Y165.29 E120.40110
G1 X165.81 Y165.75 E120.43811
G1 X163.40 Y167.74 E120.63298
G1 X162.90 Y168.13 E120.67265
G1 X160.24 Y169.56 E120.86097
G1 X159.67 Y169.85 E120.90061
G1 X156.19 Y170.91 E121.12784
G1 X153.14 Y171.22 E121.31851
G1 X152.52 Y171.28 E121.35763
G1 X149.45 Y170.98 E121.55020
G1 X148.82 Y170.91 E121.58965
G1 X145.34 Y169.86 E121.81648
G1 X142.63 Y168.42 E122.00748
G1 X142.08 Y168.12 E122.04687
G1 X139.73 Y166.20 E122.23594
G1 X139.25 Y165.81 E122.27472
G1 X137.26 Y163.40 E122.46959
G1 X136.87 Y162.90 E122.50926
G1 X135.44 Y160.24 E122.69758
G1 X135.15 Y159.67 E122.73722
G1 X134.09 Y156.19 E122.96445
G1 X133.78 Y153.14 E123.15512
G1 X133.72 Y152.52 E123.19424
G1 X134.02 Y149.45 E123.38681
G1 X134.09 Y148.82 E123.42626
G1 X135.14 Y145.34 E123.65309
G1 X136.58 Y142.63 E123.84409
G1 X136.88 Y142.08 E123.88348
G1 X138.82 Y139.71 E124.07432
G0 F6000 X138.43 Y139.39
G1 F2700 X138.83 Y138.89 E124.11416
G1 X141.29 Y136.88 E124.31258
G1 X141.82 Y136.45 E124.35526
G1 X144.53 Y135.00 E124.54651
G1 X145.13 Y134.68 E124.58922
G1 X148.72 Y133.60 E124.82249
G1 X151.77 Y133.29 E125.01422
G1 X152.48 Y133.22 E125.05837
G1 X155.60 Y133.52 E125.25426
G1 X156.28 Y133.59 E125.29678
G1 X159.85 Y134.68 E125.52961
G1 X162.59 Y136.13 E125.72250
G1 X163.20 Y136.46 E125.76610
G1 X165.59 Y138.42 E125.95863
G1 X166.11 Y138.83 E125.99993
G1 X168.12 Y141.29 E126.19835
G1 X168.55 Y141.82 E126.24103
G1 X170.00 Y144.53 E126.43228
G1 X170.32 Y145.13 E126.47499
G1 X171.40 Y148.72 E126.70826
G1 X171.71 Y151.77 E126.89999
G1 X171.78 Y152.48 E126.94414
G1 X171.48 Y155.60 E127.14004
G1 X171.41 Y156.28 E127.18255
G1 X170.32 Y159.85 E127.41538
G1 X168.87 Y162.59 E127.60827
G1 X168.54 Y163.20 E127.65188
G1 X166.57 Y165.61 E127.84586
G1 X166.17 Y166.11 E127.88571
G1 X163.71 Y168.12 E128.08412
G1 X163.18 Y168.55 E128.12680
G1 X160.47 Y170.00 E128.31805
G1 X159.87 Y170.32 E128.36077
G1 X156.28 Y171.40 E128.59404
G1 X153.23 Y171.71 E128.78577
G1 X152.52 Y171.78 E128.82991
G1 X149.40 Y171.48 E129.02581
G1 X148.72 Y171.41 E129.06832
G1 X145.15 Y170.32 E129.30115
G1 X142.41 Y168.87 E129.49405
G1 X141.80 Y168.54 E129.53765
G1 X139.39 Y166.57 E129.73164
G1 X138.89 Y166.17 E129.77148
G1 X136.88 Y163.71 E129.96990
G1 X136.45 Y163.18 E130.01258
G1 X135.00 Y160.47 E130.20383
G1 X134.68 Y159.87 E130.24654
G1 X133.60 Y156.28 E130.47981
G1 X133.29 Y153.19 E130.67354
G1 X133.22 Y152.52 E130.71569
G1 X133.52 Y149.40 E130.91158
G1 X133.59 Y148.72 E130.95409
G1 X134.68 Y145.15 E131.18693
G1 X136.13 Y142.41 E131.37982
G1 X136.46 Y141.80 E131.42342
G1 X138.43 Y139.39 E131.61741
G0 F6000 X138.05 Y139.08
G1 F2700 X138.47 Y138.54 E131.66013
G1 X140.98 Y136.49 E131.86196
G1 X141.55 Y136.03 E131.90775
G1 X144.29 Y134.56 E132.10193
G1 X144.94 Y134.22 E132.14771
G1 X148.62 Y133.10 E132.38705
G1 X151.76 Y132.79 E132.58380
G1 X152.48 Y132.71 E132.62901
G1 X155.66 Y133.03 E132.82816
G1 X156.38 Y133.10 E132.87369
G1 X160.05 Y134.21 E133.11257
G1 X162.82 Y135.69 E133.30847
G1 X163.48 Y136.04 E133.35517
G1 X165.91 Y138.03 E133.55093
G1 X166.46 Y138.47 E133.59503
G1 X168.51 Y140.98 E133.79686
G1 X168.97 Y141.55 E133.84264
G1 X170.44 Y144.29 E134.03683
G1 X170.78 Y144.94 E134.08260
G1 X171.90 Y148.62 E134.32195
G1 X172.21 Y151.76 E134.51869
G1 X172.29 Y152.48 E134.56391
G1 X171.97 Y155.66 E134.76306
G1 X171.90 Y156.38 E134.80859
G1 X170.79 Y160.05 E135.04746
G1 X169.30 Y162.84 E135.24457
G1 X168.96 Y163.48 E135.29007
G1 X166.95 Y165.92 E135.48720
G1 X166.53 Y166.46 E135.52993
G1 X164.02 Y168.51 E135.73175
G1 X163.45 Y168.97 E135.77754
G1 X160.71 Y170.44 E135.97172
G1 X160.06 Y170.78 E136.01750
G1 X156.38 Y171.90 E136.25684
G1 X153.24 Y172.21 E136.45359
G1 X152.52 Y172.29 E136.49880
G1 X149.34 Y171.97 E136.69796
G1 X148.62 Y171.90 E136.74349
G1 X144.95 Y170.79 E136.98236
G1 X142.16 Y169.30 E137.17947
G1 X141.52 Y168.96 E137.22496
G1 X139.08 Y166.95 E137.42210
G1 X138.54 Y166.53 E137.46482
G1 X136.49 Y164.02 E137.66665
G1 X136.03 Y163.45 E137.71244
G1 X134.56 Y160.71 E137.90662
G1 X134.22 Y160.06 E137.95240
G1 X133.10 Y156.38 E138.19174
G1 X132.79 Y153.24 E138.38849
G1 X132.71 Y152.52 E138.43370
G1 X133.03 Y149.34 E138.63285
G1 X133.10 Y148.62 E138.67838
G1 X134.21 Y144.95 E138.91725
G1 X135.70 Y142.16 E139.11436
G1 X136.04 Y141.52 E139.15986
G1 X138.05 Y139.08 E139.35699
G0 F6000 X143.84 Y143.84
;TYPE:WALL-OUTER
G1 F2700 X145.70 Y142.31 E139.50698
G1 X147.81 Y141.18 E139.65652
G1 X150.09 Y140.49 E139.80490
G1 X152.50 Y140.25 E139.95601
G1 X154.89 Y140.49 E140.10585
G1 X157.16 Y141.18 E140.25395
G1 X159.31 Y142.32 E140.40527
G1 X161.16 Y143.84 E140.55482
G1 X162.69 Y145.70 E140.70468
G1 X163.82 Y147.81 E140.85436
G1 X164.51 Y150.09 E141.00262
G1 X164.75 Y152.50 E141.15385
G1 X164.51 Y154.89 E141.30369
G1 X163.82 Y157.16 E141.45179
G1 X162.68 Y159.31 E141.60311
G1 X161.16 Y161.16 E141.75266
G1 X159.30 Y162.69 E141.90252
G1 X157.19 Y163.82 E142.05220
G1 X154.91 Y164.51 E142.20058
G1 X152.50 Y164.75 E142.35169
G1 X150.11 Y164.51 E142.50152
G1 X147.84 Y163.82 E142.64962
G1 X145.69 Y162.68 E142.80095
G1 X143.84 Y161.16 E142.95050
G1 X142.31 Y159.30 E143.10035
G1 X141.18 Y157.19 E143.25003
G1 X140.49 Y154.91 E143.39841
G1 X140.25 Y152.50 E143.54952
G1 X140.49 Y150.11 E143.69948
G1 X141.18 Y147.84 E143.84746
G1 X142.32 Y145.69 E143.99879
G1 X143.84 Y143.84 E144.14834
G0 F6000 X144.37 Y144.37
G1 F2700 X142.94 Y146.11 E144.28893
G1 X141.88 Y148.10 E144.42954
G1 X141.22 Y150.26 E144.57017
G1 X141.00 Y152.50 E144.71073
G1 X141.22 Y154.74 E144.85129
G1 X141.88 Y156.90 E144.99191
G1 X142.94 Y158.89 E145.13253
G1 X144.37 Y160.63 E145.27312
G1 X146.11 Y162.06 E145.41371
G1 X148.10 Y163.12 E145.55432
G1 X150.26 Y163.78 E145.69495
G1 X152.50 Y164.00 E145.83551
G1 X154.74 Y163.78 E145.97607
G1 X156.90 Y163.12 E146.11670
G1 X158.89 Y162.06 E146.25731
G1 X160.63 Y160.63 E146.39790
G1 X162.06 Y158.89 E146.53849
G1 X163.12 Y156.90 E146.67910
G1 X163.78 Y154.74 E146.81973
G1 X164.00 Y152.50 E146.96029
G1 X163.78 Y150.26 E147.10085
G1 X163.12 Y148.10 E147.24148
G1 X162.06 Y146.11 E147.38209
G1 X160.63 Y144.37 E147.52268
G1 X158.89 Y142.94 E147.66327
G1 X156.90 Y141.88 E147.80388
G1 X154.74 Y141.22 E147.94451
G1 X152.50 Y141.00 E148.08507
G1 X150.26 Y141.22 E148.22563
G1 X148.10 Y141.88 E148.36626
G1 X146.11 Y142.94 E148.50687
G1 X144.37 Y144.37 E148.64746
G0 F6000 X144.08 Y144.44
;TYPE:FILL
G1 F2700 X143.98 Y143.98 E148.67206
G1 X144.63 Y143.92 E148.69652
G1 X144.74 Y143.33 E148.72097
G1 X145.41 Y143.28 E148.74544
G1 X145.52 Y142.69 E148.76990
G1 X146.22 Y142.68 E148.79435
G1 X146.39 Y142.14 E148.81995
G1 X147.14 Y142.19 E148.84548
G1 X147.31 Y141.65 E148.87106
G1 X148.08 Y141.72 E148.89658
G1 X148.29 Y141.22 E148.92452
G1 X148.99 Y141.21 E148.95232
G1 X149.53 Y141.05 E148.98020
G1 X150.09 Y140.89 E149.00796
G1 X150.70 Y140.80 E149.03931
G1 X151.35 Y140.74 E149.07074
G1 X151.99 Y140.68 E149.10225
G1 X152.66 Y140.64 E149.13377
G1 X153.45 Y140.72 E149.17238
G1 X154.23 Y140.80 E149.21090
G1 X155.07 Y140.93 E149.25126
G1 X156.09 Y141.24 E149.30347
G1 X156.89 Y141.69 E149.36096
G0 F6000 X157.42 Y141.51
G1 F2700 X158.37 Y142.46 E149.44465
G0 F6000 X158.94 Y142.32
G1 F2700 X162.69 Y146.07 E149.77503
G0 F6000 X162.54 Y146.63
G1 F2700 X163.50 Y147.59 E149.85943
G0 F6000 X163.31 Y148.10
G1 F2700 X163.76 Y148.91 E149.91160
G1 X164.07 Y149.92 E149.96386
G1 X164.20 Y150.76 E150.00401
G1 X164.28 Y151.55 E150.04258
G1 X164.35 Y152.33 E150.08139
G1 X164.32 Y153.01 E150.11325
G1 X164.26 Y153.65 E150.14501
G1 X164.19 Y154.29 E150.17676
G1 X164.11 Y154.91 E150.20854
G1 X163.95 Y155.46 E150.23658
G1 X163.78 Y156.01 E150.26467
G1 X163.62 Y156.55 E150.29278
G1 X163.58 Y157.22 E150.32094
G1 X163.06 Y157.40 E150.34646
G1 X163.10 Y158.15 E150.37199
G1 X162.56 Y158.32 E150.39753
G1 X162.60 Y159.06 E150.42308
G1 X162.03 Y159.20 E150.44765
G1 X161.99 Y159.87 E150.47210
G1 X161.39 Y159.98 E150.49667
G1 X161.35 Y160.65 E150.52129
G1 X160.74 Y160.74 E150.54587
G1 X160.65 Y161.35 E150.57034
G1 X159.98 Y161.39 E150.59481
G1 X159.87 Y161.99 E150.61919
G1 X159.20 Y162.03 E150.64370
G1 X159.06 Y162.60 E150.66827
G1 X158.32 Y162.56 E150.69381
G1 X158.15 Y163.10 E150.71946
G1 X157.40 Y163.06 E150.74501
G1 X157.22 Y163.58 E150.77071
G1 X156.55 Y163.62 E150.79871
G1 X156.01 Y163.78 E150.82661
G1 X155.46 Y163.95 E150.85453
G1 X154.91 Y164.11 E150.88233
G1 X154.29 Y164.19 E150.91376
G1 X153.65 Y164.26 E150.94527
G1 X153.01 Y164.32 E150.97686
G1 X152.34 Y164.36 E151.00846
G1 X151.55 Y164.28 E151.04717
G1 X150.77 Y164.20 E151.08584
G1 X149.92 Y164.07 E151.12615
G1 X148.91 Y163.76 E151.17835
G1 X148.11 Y163.31 E151.23581
G0 F6000 X147.58 Y163.49
G1 F2700 X146.63 Y162.54 E151.31959
G0 F6000 X146.06 Y162.68
G1 F2700 X142.31 Y158.93 E151.64997
G0 F6000 X142.46 Y158.37
G1 F2700 X141.50 Y157.41 E151.73437
G0 F6000 X141.69 Y156.89
G1 F2700 X141.24 Y156.09 E151.78654
G1 X140.93 Y155.07 E151.83875
G1 X140.80 Y154.23 E151.87884
G1 X140.72 Y153.45 E151.91741
G1 X140.64 Y152.66 E151.95608
G1 X140.68 Y151.99 E151.98785
G1 X140.74 Y151.35 E152.01965
G1 X140.80 Y150.70 E152.05140
G1 X140.89 Y150.08 E152.08326
G1 X141.05 Y149.53 E152.11138
G1 X141.21 Y148.99 E152.13941
G1 X141.38 Y148.45 E152.16749
G1 X141.41 Y147.78 E152.19561
G1 X141.94 Y147.60 E152.22122
G1 X141.90 Y146.85 E152.24674
G1 X142.44 Y146.68 E152.27228
G1 X142.40 Y145.93 E152.29780
G1 X142.97 Y145.79 E152.32235
G1 X143.01 Y145.13 E152.34685
G1 X143.60 Y145.02 E152.37145
G1 X143.49 Y144.55 E152.40186
;LAYER:1
G0 F6000 X143.84 Y143.84 Z0.50
;TYPE:WALL-OUTER
G1 F780 X145.70 Y142.31 E152.50177
G1 X147.80 Y141.19 E152.60103
G1 X150.11 Y140.49 E152.70125
G1 X152.49 Y140.25 E152.80068
G1 X152.50 Y140.25 E152.80122
G1 X154.87 Y140.49 E152.90032
G1 X154.89 Y140.49 E152.90103
G1 X157.19 Y141.18 E153.00081
G1 X159.29 Y142.31 E153.09995
G1 X161.16 Y143.84 E153.20042
G1 X162.69 Y145.70 E153.30033
G1 X163.81 Y147.80 E153.39959
G1 X164.51 Y150.11 E153.49981
G1 X164.75 Y152.49 E153.59924
G1 X164.75 Y152.50 E153.59978
G1 X164.51 Y154.87 E153.69888
G1 X164.51 Y154.89 E153.69959
G1 X163.82 Y157.19 E153.79937
G1 X162.69 Y159.29 E153.89851
G1 X161.16 Y161.16 E153.99898
G1 X159.30 Y162.69 E154.09889
G1 X157.20 Y163.81 E154.19815
G1 X154.89 Y164.51 E154.29837
G1 X152.51 Y164.75 E154.39780
G1 X152.50 Y164.75 E154.39834
G1 X150.13 Y164.51 E154.49744
G1 X150.11 Y164.51 E154.49815
G1 X147.81 Y163.82 E154.59793
G1 X145.71 Y162.69 E154.69716
G1 X143.84 Y161.16 E154.79755
G1 X142.31 Y159.30 E154.89745
G1 X141.19 Y157.20 E154.99672
G1 X140.49 Y154.89 E155.09693
G1 X140.25 Y152.51 E155.19636
G1 X140.25 Y152.50 E155.19690
G1 X140.49 Y150.13 E155.29600
G1 X140.49 Y150.11 E155.29671
G1 X141.18 Y147.81 E155.39650
G1 X142.31 Y145.71 E155.49563
G1 X143.84 Y143.84 E155.59611
G0 F6000 X144.37 Y144.37
G1 F780 X142.94 Y146.11 E155.68983
G1 X141.88 Y148.10 E155.78358
G1 X141.22 Y150.26 E155.87732
G1 X141.00 Y152.50 E155.97103
G1 X141.22 Y154.74 E156.06474
G1 X141.88 Y156.90 E156.15849
G1 X142.94 Y158.89 E156.25223
G1 X144.37 Y160.63 E156.34596
G1 X146.11 Y162.06 E156.43969
G1 X148.10 Y163.12 E156.53343
G1 X150.26 Y163.78 E156.62718
G1 X152.50 Y164.00 E156.72089
G1 X154.74 Y163.78 E156.81460
G1 X156.90 Y163.12 E156.90834
G1 X158.89 Y162.06 E157.00209
G1 X160.63 Y160.63 E157.09581
G1 X162.06 Y158.89 E157.18954
G1 X163.12 Y156.90 E157.28328
G1 X163.78 Y154.74 E157.37703
G1 X164.00 Y152.50 E157.47074
G1 X163.78 Y150.26 E157.56445
G1 X163.12 Y148.10 E157.65820
G1 X162.06 Y146.11 E157.75194
G1 X160.63 Y144.37 E157.84567
G1 X158.89 Y142.94 E157.93939
G1 X156.90 Y141.88 E158.03314
G1 X154.74 Y141.22 E158.12689
G1 X152.50 Y141.00 E158.22059
G1 X150.26 Y141.22 E158.31430
G1 X148.10 Y141.88 E158.40805
G1 X146.11 Y142.94 E158.50179
G1 X144.37 Y144.37 E158.59552
G0 F6000 X144.15 Y144.10
G0 X143.10 Y145.29
G0 X142.97 Y145.18
;TYPE:FILL
G1 F780 X145.18 Y142.96 E158.72587
G0 F6000 X146.12 Y142.73
G1 F780 X147.08 Y141.78 E158.78202
G0 F6000 X147.64 Y141.92
G1 F780 X148.36 Y141.20 E158.82430
G0 F6000 X148.78 Y141.49
G1 F780 X149.58 Y141.04 E158.85905
G1 X150.50 Y140.82 E158.89057
G1 X151.29 Y140.75 E158.91641
G1 X152.07 Y140.67 E158.94228
G1 X152.79 Y140.65 E158.96612
G1 X153.44 Y140.72 E158.98726
G1 X154.08 Y140.78 E159.00846
G1 X154.72 Y140.85 E159.02973
G1 X155.28 Y140.99 E159.04844
G1 X155.82 Y141.16 E159.06710
G1 X156.37 Y141.32 E159.08574
G1 X156.91 Y141.49 E159.10440
G1 X157.54 Y141.57 E159.12160
G1 X157.71 Y142.11 E159.13883
G1 X158.46 Y142.06 E159.15595
G1 X158.63 Y142.60 E159.17305
G1 X159.35 Y142.59 E159.19009
G1 X159.46 Y143.18 E159.20641
G1 X160.13 Y143.22 E159.22274
G1 X160.24 Y143.82 E159.23917
G1 X160.90 Y143.86 E159.25556
G1 X160.97 Y144.50 E159.27189
G1 X161.56 Y144.61 E159.28819
G1 X161.61 Y145.28 E159.30450
G1 X162.20 Y145.39 E159.32080
G1 X162.22 Y146.07 E159.33712
G1 X162.77 Y146.23 E159.35407
G1 X162.73 Y146.98 E159.37106
G1 X163.26 Y147.15 E159.38809
G1 X163.21 Y147.91 E159.40516
G1 X163.72 Y148.12 E159.42336
G1 X163.73 Y148.81 E159.44177
G1 X163.89 Y149.35 E159.46031
G1 X164.06 Y149.90 E159.47885
G1 X164.17 Y150.49 E159.49850
G1 X164.24 Y151.13 E159.51965
G1 X164.30 Y151.77 E159.54071
G1 X164.36 Y152.42 E159.56187
G1 X164.31 Y153.19 E159.58762
G1 X164.23 Y153.97 E159.61337
G1 X164.14 Y154.76 E159.63924
G1 X163.86 Y155.75 E159.67405
G1 X163.41 Y156.55 E159.71240
G0 F6000 X163.70 Y156.97
G1 F780 X162.81 Y157.86 E159.76467
G0 F6000 X162.96 Y158.42
G1 F780 X161.37 Y160.01 E159.85833
G0 F6000 X161.50 Y160.12
G0 X160.12 Y161.50
G0 X160.01 Y161.37
G1 F780 X158.42 Y162.96 E159.95178
G0 F6000 X157.87 Y162.81
G1 F780 X156.98 Y163.69 E160.00388
G0 F6000 X156.55 Y163.41
G1 F780 X155.75 Y163.86 E160.03863
G1 X154.76 Y164.14 E160.07352
G1 X153.97 Y164.23 E160.09939
G1 X153.18 Y164.31 E160.12523
G1 X152.43 Y164.36 E160.15104
G1 X151.77 Y164.30 E160.17229
G1 X151.13 Y164.24 E160.19349
G1 X150.49 Y164.17 E160.21466
G1 X149.90 Y164.06 E160.23446
G1 X149.35 Y163.89 E160.25322
G1 X148.81 Y163.73 E160.27186
G1 X148.27 Y163.56 E160.29052
G1 X147.61 Y163.51 E160.30882
G1 X147.44 Y162.97 E160.32597
G1 X146.69 Y163.02 E160.34307
G1 X146.52 Y162.48 E160.36019
G1 X145.79 Y162.51 E160.37731
G1 X145.67 Y161.92 E160.39364
G1 X145.00 Y161.88 E160.40997
G1 X144.89 Y161.29 E160.42636
G1 X144.22 Y161.25 E160.44267
G1 X144.14 Y160.62 E160.45899
G1 X143.54 Y160.52 E160.47530
G1 X143.50 Y159.85 E160.49156
G1 X142.90 Y159.74 E160.50786
G1 X142.87 Y159.06 E160.52416
G1 X142.31 Y158.92 E160.54115
G1 X142.35 Y158.17 E160.55810
G1 X141.82 Y158.00 E160.57515
G1 X141.86 Y157.25 E160.59216
G1 X141.35 Y157.05 E160.60920
G1 X141.32 Y156.37 E160.62764
G1 X141.16 Y155.82 E160.64610
G1 X141.00 Y155.28 E160.66464
G1 X140.85 Y154.72 E160.68317
G1 X140.78 Y154.08 E160.70425
G1 X140.72 Y153.44 E160.72528
G1 X140.65 Y152.79 E160.74635
G1 X140.67 Y152.07 E160.77012
G1 X140.75 Y151.29 E160.79590
G1 X140.82 Y150.50 E160.82167
G1 X141.03 Y149.59 E160.85312
G1 X141.49 Y148.78 E160.89143
G0 F6000 X141.20 Y148.36
G1 F780 X141.92 Y147.64 E160.93385
G0 F6000 X141.77 Y147.08
G1 F780 X142.73 Y146.12 E160.99023
;LAYER:2
G0 F6000 X142.94 Y146.11 Z0.70
;TYPE:WALL-OUTER
G1 F840 X141.88 Y148.10 E161.08398
G1 X141.22 Y150.26 E161.17773
G1 X141.00 Y152.50 E161.27143
G1 X141.22 Y154.74 E161.36514
G1 X141.88 Y156.90 E161.45889
G1 X142.94 Y158.89 E161.55263
G1 X144.37 Y160.63 E161.64636
G1 X146.11 Y162.06 E161.74009
G1 X148.10 Y163.12 E161.83383
G1 X150.26 Y163.78 E161.92758
G1 X152.50 Y164.00 E162.02129
G1 X154.74 Y163.78 E162.11500
G1 X156.90 Y163.12 E162.20875
G1 X158.89 Y162.06 E162.30249
G1 X160.63 Y160.63 E162.39621
G1 X162.06 Y158.89 E162.48994
G1 X163.12 Y156.90 E162.58368
G1 X163.78 Y154.74 E162.67743
G1 X164.00 Y152.50 E162.77114
G1 X163.78 Y150.26 E162.86485
G1 X163.12 Y148.10 E162.95860
G1 X162.06 Y146.11 E163.05234
G1 X160.63 Y144.37 E163.14607
G1 X158.89 Y142.94 E163.23980
G1 X156.90 Y141.88 E163.33354
G1 X154.74 Y141.22 E163.42729
G1 X152.50 Y141.00 E163.52100
G1 X150.26 Y141.22 E163.61470
G1 X148.10 Y141.88 E163.70845
G1 X146.11 Y142.94 E163.80220
G1 X144.37 Y144.37 E163.89592
G1 X142.94 Y146.11 E163.98965
G0 F6000 X142.29 Y145.74
G1 F840 X143.82 Y143.87 E164.09031
G1 X143.84 Y143.84 E164.09161
G1 X145.67 Y142.34 E164.19030
G1 X147.79 Y141.20 E164.29008
G1 X147.82 Y141.18 E164.29149
G1 X150.08 Y140.50 E164.38988
G1 X150.11 Y140.49 E164.39110
G1 X152.47 Y140.25 E164.48970
G1 X152.50 Y140.25 E164.49103
G1 X154.85 Y140.48 E164.58934
G1 X154.89 Y140.49 E164.59088
G1 X157.15 Y141.17 E164.68914
G1 X157.18 Y141.18 E164.69031
G1 X159.26 Y142.29 E164.78817
G1 X161.13 Y143.82 E164.88882
G1 X161.16 Y143.84 E164.89012
G1 X162.66 Y145.67 E164.98882
G1 X163.80 Y147.79 E165.08859
G1 X163.82 Y147.82 E165.09001
G1 X164.50 Y150.08 E165.18840
G1 X164.51 Y150.11 E165.18962
G1 X164.75 Y152.47 E165.28822
G1 X164.75 Y152.50 E165.28955
G1 X164.52 Y154.85 E165.38785
G1 X164.51 Y154.89 E165.38940
G1 X163.83 Y157.15 E165.48766
G1 X163.82 Y157.18 E165.48883
G1 X162.71 Y159.26 E165.58668
G1 X161.18 Y161.13 E165.68734
G1 X161.16 Y161.16 E165.68864
G1 X159.33 Y162.66 E165.78734
G1 X157.21 Y163.80 E165.88711
G1 X157.18 Y163.82 E165.88852
G1 X154.92 Y164.50 E165.98692
G1 X154.89 Y164.51 E165.98814
G1 X152.53 Y164.75 E166.08673
G1 X152.50 Y164.75 E166.08807
G1 X150.15 Y164.52 E166.18637
G1 X150.11 Y164.51 E166.18792
G1 X147.84 Y163.83 E166.28631
G1 X147.82 Y163.82 E166.28735
G1 X145.74 Y162.71 E166.38520
G1 X143.86 Y161.18 E166.48598
G1 X143.84 Y161.16 E166.48716
G1 X142.34 Y159.33 E166.58585
G1 X141.20 Y157.21 E166.68563
G1 X141.18 Y157.18 E166.68704
G1 X140.50 Y154.92 E166.78543
G1 X140.49 Y154.89 E166.78666
G1 X140.25 Y152.53 E166.88525
G1 X140.25 Y152.50 E166.88659
G1 X140.48 Y150.15 E166.98489
G1 X140.49 Y150.11 E166.98644
G1 X141.17 Y147.85 E167.08470
G1 X141.18 Y147.82 E167.08587
G1 X142.29 Y145.74 E167.18372
G0 F6000 X142.53 Y145.72
;TYPE:FILL
G1 F840 X142.97 Y145.79 E167.19978
G1 X143.01 Y145.13 E167.21588
G1 X143.60 Y145.02 E167.23207
G1 X143.65 Y144.35 E167.24840
G1 X144.26 Y144.26 E167.26482
G1 X144.35 Y143.65 E167.28114
G1 X145.02 Y143.60 E167.29747
G1 X145.13 Y143.01 E167.31378
G1 X145.79 Y142.97 E167.33011
G1 X145.94 Y142.40 E167.34645
G1 X146.68 Y142.43 E167.36323
G1 X146.85 Y141.90 E167.38009
G1 X147.60 Y141.94 E167.39697
G1 X147.78 Y141.42 E167.41400
G1 X148.45 Y141.38 E167.43258
G1 X148.99 Y141.22 E167.45108
G1 X149.53 Y141.05 E167.46962
G1 X150.08 Y140.89 E167.48816
G1 X150.70 Y140.80 E167.50935
G1 X151.35 Y140.74 E167.53049
G1 X151.99 Y140.68 E167.55161
G1 X152.66 Y140.64 E167.57279
G1 X153.45 Y140.72 E167.59866
G1 X154.23 Y140.80 E167.62444
G1 X155.07 Y140.93 E167.65135
G1 X156.09 Y141.24 E167.68609
G1 X156.89 Y141.69 E167.72438
G0 F6000 X157.42 Y141.51
G1 F840 X158.37 Y142.46 E167.78047
G0 F6000 X158.93 Y142.31
G1 F840 X162.67 Y146.06 E168.00042
G0 F6000 X162.54 Y146.63
G1 F840 X163.49 Y147.58 E168.05652
G0 F6000 X163.31 Y148.10
G1 F840 X163.76 Y148.91 E168.09130
G1 X164.06 Y149.92 E168.12601
G1 X164.20 Y150.77 E168.15302
G1 X164.28 Y151.55 E168.17890
G1 X164.36 Y152.34 E168.20484
G1 X164.32 Y153.01 E168.22610
G1 X164.26 Y153.65 E168.24732
G1 X164.19 Y154.30 E168.26853
G1 X164.11 Y154.91 E168.28974
G1 X163.95 Y155.46 E168.30843
G1 X163.78 Y156.01 E168.32716
G1 X163.62 Y156.55 E168.34581
G1 X163.58 Y157.22 E168.36458
G1 X163.06 Y157.40 E168.38172
G1 X163.10 Y158.15 E168.39884
G1 X162.56 Y158.32 E168.41596
G1 X162.60 Y159.06 E168.43307
G1 X162.03 Y159.20 E168.44914
G1 X161.99 Y159.87 E168.46527
G1 X161.39 Y159.98 E168.48153
G1 X161.35 Y160.65 E168.49786
G1 X160.74 Y160.74 E168.51426
G1 X160.65 Y161.35 E168.53057
G1 X159.98 Y161.39 E168.54688
G1 X159.87 Y161.99 E168.56316
G1 X159.20 Y162.03 E168.57944
G1 X159.06 Y162.60 E168.59579
G1 X158.32 Y162.56 E168.61256
G1 X158.15 Y163.10 E168.62946
G1 X157.40 Y163.06 E168.64643
G1 X157.22 Y163.58 E168.66345
G1 X156.55 Y163.62 E168.68203
G1 X156.01 Y163.78 E168.70053
G1 X155.46 Y163.95 E168.71915
G1 X154.92 Y164.11 E168.73765
G1 X154.29 Y164.19 E168.75887
G1 X153.65 Y164.26 E168.77999
G1 X153.01 Y164.32 E168.80116
G1 X152.34 Y164.36 E168.82237
G1 X151.55 Y164.28 E168.84824
G1 X150.77 Y164.20 E168.87409
G1 X149.92 Y164.07 E168.90099
G1 X148.91 Y163.76 E168.93571
G1 X148.11 Y163.31 E168.97396
G0 F6000 X147.58 Y163.49
G1 F840 X146.63 Y162.54 E169.03017
G0 F6000 X146.07 Y162.68
G1 F840 X142.33 Y158.94 E169.25012
G0 F6000 X142.46 Y158.37
G1 F840 X141.51 Y157.42 E169.30622
G0 F6000 X141.69 Y156.89
G1 F840 X141.24 Y156.09 E169.34100
G1 X140.93 Y155.07 E169.37571
G1 X140.80 Y154.23 E169.40272
G1 X140.72 Y153.45 E169.42860
G1 X140.64 Y152.66 E169.45440
G1 X140.68 Y151.99 E169.47567
G1 X140.74 Y151.35 E169.49689
G1 X140.80 Y150.70 E169.51809
G1 X140.89 Y150.08 E169.53930
G1 X141.05 Y149.53 E169.55800
G1 X141.21 Y148.99 E169.57668
G1 X141.38 Y148.45 E169.59537
G1 X141.41 Y147.78 E169.61412
G1 X141.94 Y147.60 E169.63125
G1 X141.90 Y146.85 E169.64838
G1 X142.44 Y146.68 E169.66549
G1 X142.27 Y146.16 E169.68830
;LAYER:3
G0 F6000 X142.31 Y145.70 Z0.90
;TYPE:WALL-OUTER
G1 F780 X143.81 Y143.88 E169.78617
G1 X143.84 Y143.84 E169.78818
G1 X145.66 Y142.35 E169.88599
G1 X145.69 Y142.32 E169.88799
G1 X147.81 Y141.18 E169.98787
G1 X150.06 Y140.50 E170.08566
G1 X150.11 Y140.49 E170.08770
G1 X152.45 Y140.26 E170.18550
G1 X152.50 Y140.25 E170.18759
G1 X154.84 Y140.48 E170.28514
G1 X154.89 Y140.49 E170.28744
G1 X157.14 Y141.17 E170.38500
G1 X157.19 Y141.19 E170.38723
G1 X159.30 Y142.31 E170.48689
G1 X161.12 Y143.81 E170.58476
G1 X161.16 Y143.84 E170.58677
G1 X162.65 Y145.66 E170.68457
G1 X162.68 Y145.69 E170.68658
G1 X163.82 Y147.81 E170.78646
G1 X164.50 Y150.06 E170.88425
G1 X164.51 Y150.11 E170.88629
G1 X164.74 Y152.45 E170.98409
G1 X164.75 Y152.50 E170.98618
G1 X164.52 Y154.84 E171.08372
G1 X164.51 Y154.89 E171.08602
G1 X163.83 Y157.14 E171.18359
G1 X163.81 Y157.19 E171.18582
G1 X162.69 Y159.30 E171.28548
G1 X161.19 Y161.12 E171.38334
G1 X161.16 Y161.16 E171.38536
G1 X159.34 Y162.65 E171.48316
G1 X159.31 Y162.68 E171.48517
G1 X157.19 Y163.82 E171.58505
G1 X154.94 Y164.50 E171.68284
G1 X154.89 Y164.51 E171.68488
G1 X152.55 Y164.74 E171.78268
G1 X152.50 Y164.75 E171.78476
G1 X150.16 Y164.52 E171.88231
G1 X150.11 Y164.51 E171.88461
G1 X147.86 Y163.83 E171.98218
G1 X147.81 Y163.81 E171.98441
G1 X145.70 Y162.69 E172.08407
G1 X143.88 Y161.19 E172.18193
G1 X143.84 Y161.16 E172.18395
G1 X142.35 Y159.34 E172.28175
G1 X142.32 Y159.31 E172.28376
G1 X141.18 Y157.19 E172.38364
G1 X140.50 Y154.94 E172.48142
G1 X140.49 Y154.89 E172.48346
G1 X140.26 Y152.55 E172.58126
G1 X140.25 Y152.50 E172.58335
G1 X140.48 Y150.16 E172.68090
G1 X140.49 Y150.11 E172.68320
G1 X141.17 Y147.86 E172.78076
G1 X141.19 Y147.81 E172.78300
G1 X142.31 Y145.70 E172.88266
G0 F6000 X142.94 Y146.11
G1 F780 X141.88 Y148.10 E172.97640
G1 X141.22 Y150.26 E173.07015
G1 X141.00 Y152.50 E173.16386
G1 X141.22 Y154.74 E173.25757
G1 X141.88 Y156.90 E173.35132
G1 X142.94 Y158.89 E173.44506
G1 X144.37 Y160.63 E173.53878
G1 X146.11 Y162.06 E173.63251
G1 X148.10 Y163.12 E173.72625
G1 X150.26 Y163.78 E173.82000
G1 X152.50 Y164.00 E173.91371
G1 X154.74 Y163.78 E174.00742
G1 X156.90 Y163.12 E174.10117
G1 X158.89 Y162.06 E174.19491
G1 X160.63 Y160.63 E174.28864
G1 X162.06 Y158.89 E174.38237
G1 X163.12 Y156.90 E174.47611
G1 X163.78 Y154.74 E174.56986
G1 X164.00 Y152.50 E174.66357
G1 X163.78 Y150.26 E174.75727
G1 X163.12 Y148.10 E174.85102
G1 X162.06 Y146.11 E174.94477
G1 X160.63 Y144.37 E175.03849
G1 X158.89 Y142.94 E175.13222
G1 X156.90 Y141.88 E175.22596
G1 X154.74 Y141.22 E175.31971
G1 X152.50 Y141.00 E175.41342
G1 X150.26 Y141.22 E175.50713
G1 X148.10 Y141.88 E175.60088
G1 X146.11 Y142.94 E175.69462
G1 X144.37 Y144.37 E175.78835
G1 X142.94 Y146.11 E175.88207
G0 F6000 X142.73 Y146.12
;TYPE:FILL
G1 F780 X141.77 Y147.08 E175.93828
G0 F6000 X141.92 Y147.64
G1 F780 X141.20 Y148.36 E175.98067
G0 F6000 X141.49 Y148.78
G1 F780 X141.03 Y149.59 E176.01546
G1 X140.82 Y150.50 E176.04690
G1 X140.75 Y151.29 E176.07275
G1 X140.67 Y152.07 E176.09853
G1 X140.65 Y152.79 E176.12230
G1 X140.72 Y153.44 E176.14336
G1 X140.78 Y154.08 E176.16440
G1 X140.85 Y154.72 E176.18547
G1 X141.00 Y155.28 E176.20400
G1 X141.16 Y155.82 E176.22254
G1 X141.32 Y156.37 E176.24108
G1 X141.49 Y156.91 E176.25967
G1 X141.57 Y157.53 E176.27669
G1 X142.11 Y157.71 E176.29375
G1 X142.06 Y158.46 E176.31076
G1 X142.60 Y158.63 E176.32775
G1 X142.59 Y159.35 E176.34471
G1 X143.18 Y159.46 E176.36104
G1 X143.22 Y160.13 E176.37735
G1 X143.82 Y160.24 E176.39365
G1 X143.86 Y160.90 E176.40996
G1 X144.50 Y160.97 E176.42639
G1 X144.61 Y161.57 E176.44279
G1 X145.28 Y161.60 E176.45921
G1 X145.39 Y162.20 E176.47558
G1 X146.08 Y162.22 E176.49192
G1 X146.23 Y162.77 E176.50904
G1 X146.98 Y162.73 E176.52614
G1 X147.15 Y163.26 E176.54327
G1 X147.92 Y163.21 E176.56035
G1 X148.11 Y163.72 E176.57863
G1 X148.81 Y163.73 E176.59726
G1 X149.35 Y163.89 E176.61591
G1 X149.90 Y164.06 E176.63466
G1 X150.49 Y164.17 E176.65447
G1 X151.13 Y164.24 E176.67558
G1 X151.77 Y164.30 E176.69678
G1 X152.43 Y164.36 E176.71803
G1 X153.19 Y164.31 E176.74388
G1 X153.97 Y164.23 E176.76969
G1 X154.76 Y164.14 E176.79552
G1 X155.75 Y163.86 E176.83049
G1 X156.55 Y163.41 E176.86882
G0 F6000 X156.97 Y163.70
G1 F780 X157.87 Y162.81 E176.92120
G0 F6000 X158.42 Y162.96
G1 F780 X160.01 Y161.37 E177.01475
G0 F6000 X160.12 Y161.50
G0 X161.50 Y160.12
G0 X161.37 Y160.01
G1 F780 X162.96 Y158.42 E177.10818
G0 F6000 X162.81 Y157.86
G1 F780 X163.70 Y156.97 E177.16050
G0 F6000 X163.41 Y156.55
G1 F780 X163.86 Y155.75 E177.19532
G1 X164.14 Y154.76 E177.23014
G1 X164.23 Y153.97 E177.25594
G1 X164.31 Y153.19 E177.28168
G1 X164.36 Y152.42 E177.30744
G1 X164.30 Y151.77 E177.32849
G1 X164.24 Y151.13 E177.34950
G1 X164.17 Y150.49 E177.37053
G1 X164.06 Y149.90 E177.39019
G1 X163.89 Y149.35 E177.40882
G1 X163.73 Y148.81 E177.42745
G1 X163.56 Y148.27 E177.44601
G1 X163.51 Y147.62 E177.46423
G1 X162.97 Y147.44 E177.48129
G1 X163.02 Y146.69 E177.49831
G1 X162.48 Y146.52 E177.51536
G1 X162.51 Y145.79 E177.53239
G1 X161.93 Y145.66 E177.54870
G1 X161.88 Y145.00 E177.56504
G1 X161.29 Y144.89 E177.58139
G1 X161.25 Y144.22 E177.59773
G1 X160.62 Y144.14 E177.61402
G1 X160.52 Y143.54 E177.63035
G1 X159.85 Y143.50 E177.64676
G1 X159.74 Y142.90 E177.66314
G1 X159.06 Y142.87 E177.67948
G1 X158.92 Y142.31 E177.69652
G1 X158.17 Y142.35 E177.71353
G1 X158.00 Y141.81 E177.73063
G1 X157.24 Y141.86 E177.74775
G1 X157.05 Y141.35 E177.76489
G1 X156.37 Y141.32 E177.78358
G1 X155.82 Y141.16 E177.80222
G1 X155.28 Y141.00 E177.82085
G1 X154.72 Y140.85 E177.83953
G1 X154.08 Y140.78 E177.86074
G1 X153.44 Y140.72 E177.88185
G1 X152.79 Y140.65 E177.90297
G1 X152.07 Y140.67 E177.92686
G1 X151.29 Y140.75 E177.95277
G1 X150.50 Y140.82 E177.97861
G1 X149.58 Y141.03 E178.01009
G1 X148.78 Y141.49 E178.04842
G0 F6000 X148.36 Y141.20
G1 F780 X147.64 Y141.92 E178.09093
G0 F6000 X147.08 Y141.77
G1 F780 X146.12 Y142.73 E178.14714
G0 F6000 X145.19 Y142.96
G1 F780 X142.96 Y145.18 E178.27813
;LAYER:4
G0 F6000 X142.31 Y145.70 Z1.10
;TYPE:WALL-OUTER
G1 F840 X143.84 Y143.84 E178.37804
G1 X145.70 Y142.31 E178.47794
G1 X147.81 Y141.18 E178.57765
G1 X150.11 Y140.49 E178.67748
G1 X152.43 Y140.26 E178.77457
G1 X152.50 Y140.25 E178.77745
G1 X154.82 Y140.48 E178.87420
G1 X154.89 Y140.49 E178.87722
G1 X157.19 Y141.18 E178.97700
G1 X159.30 Y142.31 E179.07672
G1 X161.16 Y143.84 E179.17662
G1 X162.69 Y145.70 E179.27652
G1 X163.82 Y147.81 E179.37624
G1 X164.51 Y150.11 E179.47606
G1 X164.74 Y152.43 E179.57315
G1 X164.75 Y152.50 E179.57603
G1 X164.52 Y154.82 E179.67279
G1 X164.51 Y154.89 E179.67580
G1 X163.82 Y157.19 E179.77558
G1 X162.69 Y159.30 E179.87530
G1 X161.16 Y161.16 E179.97520
G1 X159.30 Y162.69 E180.07510
G1 X157.19 Y163.82 E180.17482
G1 X154.89 Y164.51 E180.27464
G1 X152.57 Y164.74 E180.37173
G1 X152.50 Y164.75 E180.37462
G1 X150.18 Y164.52 E180.47137
G1 X150.11 Y164.51 E180.47438
G1 X147.81 Y163.82 E180.57417
G1 X145.70 Y162.69 E180.67388
G1 X143.84 Y161.16 E180.77378
G1 X142.31 Y159.30 E180.87369
G1 X141.18 Y157.19 E180.97340
G1 X140.49 Y154.89 E181.07323
G1 X140.26 Y152.57 E181.17031
G1 X140.25 Y152.50 E181.17320
G1 X140.48 Y150.18 E181.26995
G1 X140.49 Y150.11 E181.27296
G1 X141.18 Y147.81 E181.37275
G1 X142.31 Y145.70 E181.47246
G0 F6000 X142.94 Y146.11
G1 F840 X141.88 Y148.10 E181.56621
G1 X141.22 Y150.26 E181.65995
G1 X141.00 Y152.50 E181.75366
G1 X141.22 Y154.74 E181.84737
G1 X141.88 Y156.90 E181.94112
G1 X142.94 Y158.89 E182.03486
G1 X144.37 Y160.63 E182.12859
G1 X146.11 Y162.06 E182.22232
G1 X148.10 Y163.12 E182.31606
G1 X150.26 Y163.78 E182.40981
G1 X152.50 Y164.00 E182.50352
G1 X154.74 Y163.78 E182.59723
G1 X156.90 Y163.12 E182.69097
G1 X158.89 Y162.06 E182.78472
G1 X160.63 Y160.63 E182.87844
G1 X162.06 Y158.89 E182.97217
G1 X163.12 Y156.90 E183.06591
G1 X163.78 Y154.74 E183.15966
G1 X164.00 Y152.50 E183.25337
G1 X163.78 Y150.26 E183.34708
G1 X163.12 Y148.10 E183.44083
G1 X162.06 Y146.11 E183.53457
G1 X160.63 Y144.37 E183.62830
G1 X158.89 Y142.94 E183.72202
G1 X156.90 Y141.88 E183.81577
G1 X154.74 Y141.22 E183.90952
G1 X152.50 Y141.00 E184.00322
G1 X150.26 Y141.22 E184.09693
G1 X148.10 Y141.88 E184.19068
G1 X146.11 Y142.94 E184.28442
G1 X144.37 Y144.37 E184.37815
G1 X142.94 Y146.11 E184.47188
G0 F6000 X142.81 Y145.99
;TYPE:FILL
G1 F840 X142.69 Y145.52 E184.48827
G1 X143.28 Y145.41 E184.50465
G1 X143.33 Y144.74 E184.52098
G1 X143.92 Y144.63 E184.53733
G1 X143.98 Y143.98 E184.55367
G1 X144.63 Y143.92 E184.56990
G1 X144.74 Y143.33 E184.58615
G1 X145.41 Y143.28 E184.60246
G1 X145.52 Y142.69 E184.61877
G1 X146.22 Y142.68 E184.63507
G1 X146.39 Y142.14 E184.65212
G1 X147.14 Y142.19 E184.66914
G1 X147.31 Y141.65 E184.68623
G1 X148.08 Y141.72 E184.70333
G1 X148.29 Y141.22 E184.72194
G1 X148.99 Y141.21 E184.74048
G1 X149.53 Y141.05 E184.75906
G1 X150.08 Y140.89 E184.77762
G1 X150.70 Y140.80 E184.79877
G1 X151.35 Y140.74 E184.81992
G1 X151.99 Y140.68 E184.84104
G1 X152.66 Y140.64 E184.86219
G1 X153.45 Y140.72 E184.88797
G1 X154.23 Y140.80 E184.91374
G1 X155.07 Y140.93 E184.94069
G1 X156.09 Y141.24 E184.97556
G1 X156.89 Y141.69 E185.01385
G0 F6000 X157.41 Y141.50
G1 F840 X158.37 Y142.46 E185.07017
G0 F6000 X158.93 Y142.31
G1 F840 X162.68 Y146.07 E185.29078
G0 F6000 X162.54 Y146.63
G1 F840 X163.50 Y147.59 E185.34719
G0 F6000 X163.31 Y148.10
G1 F840 X163.76 Y148.91 E185.38197
G1 X164.06 Y149.92 E185.41677
G1 X164.20 Y150.77 E185.44368
G1 X164.28 Y151.55 E185.46953
G1 X164.35 Y152.33 E185.49536
G1 X164.32 Y153.01 E185.51660
G1 X164.26 Y153.65 E185.53782
G1 X164.20 Y154.30 E185.55913
G1 X164.11 Y154.92 E185.58043
G1 X163.95 Y155.46 E185.59915
G1 X163.78 Y156.00 E185.61779
G1 X163.62 Y156.55 E185.63643
G1 X163.58 Y157.22 E185.65512
G1 X163.06 Y157.40 E185.67226
G1 X163.10 Y158.15 E185.68947
G1 X162.56 Y158.32 E185.70658
G1 X162.60 Y159.06 E185.72370
G1 X162.03 Y159.20 E185.74013
G1 X161.99 Y159.87 E185.75649
G1 X161.39 Y159.98 E185.77286
G1 X161.35 Y160.65 E185.78920
G1 X160.74 Y160.74 E185.80554
G1 X160.65 Y161.35 E185.82178
G1 X159.98 Y161.39 E185.83801
G1 X159.87 Y161.99 E185.85429
G1 X159.20 Y162.03 E185.87057
G1 X159.06 Y162.60 E185.88690
G1 X158.32 Y162.56 E185.90400
G1 X158.15 Y163.10 E185.92109
G1 X157.40 Y163.06 E185.93813
G1 X157.22 Y163.58 E185.95527
G1 X156.55 Y163.62 E185.97387
G1 X156.01 Y163.78 E185.99247
G1 X155.46 Y163.95 E186.01111
G1 X154.91 Y164.11 E186.02972
G1 X154.29 Y164.19 E186.05091
G1 X153.65 Y164.26 E186.07202
G1 X153.01 Y164.32 E186.09317
G1 X152.34 Y164.36 E186.11435
G1 X151.55 Y164.28 E186.14016
G1 X150.77 Y164.20 E186.16596
G1 X149.92 Y164.07 E186.19294
G1 X148.91 Y163.76 E186.22778
G1 X148.11 Y163.31 E186.26603
G0 F6000 X147.59 Y163.50
G1 F840 X146.63 Y162.54 E186.32242
G0 F6000 X146.07 Y162.68
G1 F840 X142.31 Y158.93 E186.54296
G0 F6000 X142.46 Y158.37
G1 F840 X141.50 Y157.41 E186.59935
G0 F6000 X141.69 Y156.89
G1 F840 X141.24 Y156.09 E186.63413
G1 X140.93 Y155.07 E186.66894
G1 X140.80 Y154.23 E186.69595
G1 X140.72 Y153.45 E186.72176
G1 X140.64 Y152.66 E186.74756
G1 X140.68 Y151.99 E186.76883
G1 X140.74 Y151.35 E186.79005
G1 X140.80 Y150.70 E186.81136
G1 X140.89 Y150.08 E186.83270
G1 X141.05 Y149.53 E186.85138
G1 X141.21 Y148.99 E186.87001
G1 X141.38 Y148.45 E186.88870
G1 X141.41 Y147.78 E186.90739
G1 X141.94 Y147.60 E186.92457
G1 X141.90 Y146.85 E186.94176
G1 X142.44 Y146.68 E186.95891
G1 X142.27 Y146.16 E186.98172
;LAYER:5
G0 F6000 X142.27 Y145.77 Z1.30
;TYPE:WALL-OUTER
G1 F840 X142.32 Y145.70 E186.98536
G1 X143.84 Y143.84 E187.08521
G1 X145.69 Y142.32 E187.18496
G1 X147.74 Y141.22 E187.28127
G1 X147.81 Y141.18 E187.28495
G1 X150.03 Y140.51 E187.38109
G1 X150.11 Y140.49 E187.38469
G1 X152.50 Y140.25 E187.48450
G1 X154.89 Y140.49 E187.58443
G1 X157.10 Y141.16 E187.68043
G1 X157.19 Y141.18 E187.68405
G1 X159.23 Y142.28 E187.78036
G1 X159.30 Y142.32 E187.78395
G1 X161.16 Y143.84 E187.88379
G1 X162.68 Y145.69 E187.98355
G1 X163.78 Y147.74 E188.07986
G1 X163.82 Y147.81 E188.08354
G1 X164.49 Y150.03 E188.17967
G1 X164.51 Y150.11 E188.18327
G1 X164.75 Y152.50 E188.28308
G1 X164.51 Y154.89 E188.38302
G1 X163.84 Y157.10 E188.47902
G1 X163.82 Y157.19 E188.48263
G1 X162.73 Y159.23 E188.57889
G1 X162.68 Y159.30 E188.58253
G1 X161.16 Y161.16 E188.68238
G1 X159.31 Y162.68 E188.78213
G1 X157.26 Y163.78 E188.87844
G1 X157.19 Y163.82 E188.88212
G1 X154.97 Y164.49 E188.97825
G1 X154.89 Y164.51 E188.98186
G1 X152.50 Y164.75 E189.08167
G1 X150.11 Y164.51 E189.18160
G1 X147.90 Y163.84 E189.27760
G1 X147.81 Y163.82 E189.28122
G1 X145.77 Y162.72 E189.37753
G1 X145.70 Y162.68 E189.38112
G1 X143.84 Y161.16 E189.48096
G1 X142.32 Y159.31 E189.58072
G1 X141.22 Y157.26 E189.67703
G1 X141.18 Y157.19 E189.68071
G1 X140.51 Y154.97 E189.77684
G1 X140.49 Y154.89 E189.78044
G1 X140.25 Y152.50 E189.88025
G1 X140.49 Y150.11 E189.98019
G1 X141.16 Y147.90 E190.07619
G1 X141.18 Y147.81 E190.07980
G1 X142.27 Y145.77 E190.17606
G0 F6000 X142.94 Y146.11
G1 F840 X141.88 Y148.10 E190.26980
G1 X141.22 Y150.26 E190.36355
G1 X141.00 Y152.50 E190.45726
G1 X141.22 Y154.74 E190.55097
G1 X141.88 Y156.90 E190.64471
G1 X142.94 Y158.89 E190.73846
G1 X144.37 Y160.63 E190.83218
G1 X146.11 Y162.06 E190.92591
G1 X148.10 Y163.12 E191.01965
G1 X150.26 Y163.78 E191.11340
G1 X152.50 Y164.00 E191.20711
G1 X154.74 Y163.78 E191.30082
G1 X156.90 Y163.12 E191.39457
G1 X158.89 Y162.06 E191.48831
G1 X160.63 Y160.63 E191.58204
G1 X162.06 Y158.89 E191.67576
G1 X163.12 Y156.90 E191.76951
G1 X163.78 Y154.74 E191.86326
G1 X164.00 Y152.50 E191.95696
G1 X163.78 Y150.26 E192.05067
G1 X163.12 Y148.10 E192.14442
G1 X162.06 Y146.11 E192.23816
G1 X160.63 Y144.37 E192.33189
G1 X158.89 Y142.94 E192.42562
G1 X156.90 Y141.88 E192.51936
G1 X154.74 Y141.22 E192.61311
G1 X152.50 Y141.00 E192.70682
G1 X150.26 Y141.22 E192.80053
G1 X148.10 Y141.88 E192.89428
G1 X146.11 Y142.94 E192.98802
G1 X144.37 Y144.37 E193.08174
G1 X142.94 Y146.11 E193.17547
G0 F6000 X142.73 Y146.12
;TYPE:FILL
G1 F840 X141.78 Y147.08 E193.23153
G0 F6000 X141.92 Y147.64
G1 F840 X141.20 Y148.36 E193.27398
G0 F6000 X141.49 Y148.78
G1 F840 X141.03 Y149.59 E193.30877
G1 X140.82 Y150.50 E193.34021
G1 X140.75 Y151.29 E193.36606
G1 X140.67 Y152.07 E193.39190
G1 X140.65 Y152.79 E193.41573
G1 X140.72 Y153.44 E193.43688
G1 X140.78 Y154.08 E193.45794
G1 X140.85 Y154.72 E193.47901
G1 X141.00 Y155.28 E193.49754
G1 X141.16 Y155.82 E193.51609
G1 X141.32 Y156.37 E193.53462
G1 X141.49 Y156.91 E193.55321
G1 X141.57 Y157.54 E193.57031
G1 X142.11 Y157.71 E193.58736
G1 X142.06 Y158.46 E193.60438
G1 X142.60 Y158.63 E193.62137
G1 X142.59 Y159.35 E193.63833
G1 X143.18 Y159.46 E193.65460
G1 X143.22 Y160.13 E193.67091
G1 X143.82 Y160.24 E193.68719
G1 X143.86 Y160.90 E193.70347
G1 X144.50 Y160.97 E193.71980
G1 X144.61 Y161.56 E193.73613
G1 X145.28 Y161.60 E193.75247
G1 X145.39 Y162.20 E193.76884
G1 X146.08 Y162.22 E193.78518
G1 X146.23 Y162.77 E193.80227
G1 X146.98 Y162.73 E193.81937
G1 X147.15 Y163.26 E193.83649
G1 X147.92 Y163.21 E193.85360
G1 X148.11 Y163.72 E193.87191
G1 X148.81 Y163.73 E193.89056
G1 X149.35 Y163.89 E193.90921
G1 X149.90 Y164.06 E193.92797
G1 X150.49 Y164.17 E193.94777
G1 X151.13 Y164.24 E193.96889
G1 X151.77 Y164.30 E193.99009
G1 X152.42 Y164.36 E194.01130
G1 X153.18 Y164.31 E194.03715
G1 X153.97 Y164.23 E194.06305
G1 X154.76 Y164.14 E194.08899
G1 X155.75 Y163.86 E194.12383
G1 X156.55 Y163.41 E194.16216
G0 F6000 X156.97 Y163.70
G1 F840 X157.87 Y162.81 E194.21449
G0 F6000 X158.42 Y162.96
G1 F840 X160.01 Y161.37 E194.30803
G0 F6000 X160.12 Y161.50
G0 X161.50 Y160.12
G0 X161.37 Y160.01
G1 F840 X162.95 Y158.43 E194.40128
G0 F6000 X162.81 Y157.86
G1 F840 X163.70 Y156.97 E194.45361
G0 F6000 X163.41 Y156.55
G1 F840 X163.86 Y155.75 E194.48843
G1 X164.14 Y154.76 E194.52324
G1 X164.23 Y153.97 E194.54905
G1 X164.31 Y153.19 E194.57479
G1 X164.36 Y152.42 E194.60054
G1 X164.30 Y151.77 E194.62170
G1 X164.24 Y151.13 E194.64277
G1 X164.17 Y150.49 E194.66386
G1 X164.06 Y149.90 E194.68346
G1 X163.89 Y149.35 E194.70200
G1 X163.73 Y148.81 E194.72054
G1 X163.56 Y148.27 E194.73910
G1 X163.51 Y147.62 E194.75732
G1 X162.97 Y147.44 E194.77438
G1 X163.02 Y146.69 E194.79139
G1 X162.48 Y146.52 E194.80842
G1 X162.50 Y145.79 E194.82536
G1 X161.93 Y145.66 E194.84170
G1 X161.88 Y145.00 E194.85802
G1 X161.29 Y144.89 E194.87432
G1 X161.25 Y144.22 E194.89063
G1 X160.62 Y144.14 E194.90691
G1 X160.52 Y143.54 E194.92323
G1 X159.85 Y143.50 E194.93965
G1 X159.74 Y142.90 E194.95603
G1 X159.06 Y142.87 E194.97237
G1 X158.92 Y142.31 E194.98940
G1 X158.17 Y142.35 E195.00642
G1 X158.00 Y141.81 E195.02351
G1 X157.24 Y141.86 E195.04064
G1 X157.05 Y141.34 E195.05785
G1 X156.37 Y141.32 E195.07660
G1 X155.82 Y141.16 E195.09523
G1 X155.28 Y141.00 E195.11386
G1 X154.72 Y140.85 E195.13253
G1 X154.08 Y140.78 E195.15375
G1 X153.44 Y140.72 E195.17488
G1 X152.79 Y140.65 E195.19608
G1 X152.07 Y140.67 E195.21997
G1 X151.29 Y140.75 E195.24588
G1 X150.50 Y140.82 E195.27179
G1 X149.58 Y141.03 E195.30335
G1 X148.78 Y141.49 E195.34168
G0 F6000 X148.36 Y141.20
G1 F840 X147.64 Y141.92 E195.38419
G0 F6000 X147.08 Y141.77
G1 F840 X146.12 Y142.73 E195.44040
G0 F6000 X145.18 Y142.96
G1 F840 X142.97 Y145.18 E195.57046
;LAYER:6
G0 F6000 X142.32 Y145.69 Z1.50
;TYPE:WALL-OUTER
G1 F720 X143.84 Y143.84 E195.67021
G1 X145.69 Y142.32 E195.76996
G1 X147.82 Y141.18 E195.87005
G1 X150.11 Y140.49 E195.96957
G1 X152.50 Y140.25 E196.06951
G1 X154.89 Y140.49 E196.16944
G1 X157.18 Y141.18 E196.26896
G1 X159.31 Y142.32 E196.36905
G1 X161.16 Y143.84 E196.46880
G1 X162.68 Y145.69 E196.56856
G1 X163.82 Y147.82 E196.66864
G1 X164.51 Y150.11 E196.76817
G1 X164.75 Y152.50 E196.86810
G1 X164.51 Y154.89 E196.96804
G1 X163.82 Y157.18 E197.06756
G1 X162.68 Y159.31 E197.16764
G1 X161.16 Y161.16 E197.26740
G1 X159.31 Y162.68 E197.36715
G1 X157.18 Y163.82 E197.46724
G1 X154.89 Y164.51 E197.56676
G1 X152.50 Y164.75 E197.66669
G1 X150.11 Y164.51 E197.76663
G1 X147.82 Y163.82 E197.86615
G1 X145.69 Y162.68 E197.96624
G1 X143.84 Y161.16 E198.06599
G1 X142.32 Y159.31 E198.16574
G1 X141.18 Y157.18 E198.26583
G1 X140.49 Y154.89 E198.36535
G1 X140.25 Y152.50 E198.46529
G1 X140.49 Y150.11 E198.56522
G1 X141.18 Y147.82 E198.66475
G1 X142.32 Y145.69 E198.76483
G0 F6000 X142.94 Y146.11
G1 F720 X141.88 Y148.10 E198.85857
G1 X141.22 Y150.26 E198.95232
G1 X141.00 Y152.50 E199.04603
G1 X141.22 Y154.74 E199.13974
G1 X141.88 Y156.90 E199.23349
G1 X142.94 Y158.89 E199.32723
G1 X144.37 Y160.63 E199.42096
G1 X146.11 Y162.06 E199.51469
G1 X148.10 Y163.12 E199.60843
G1 X150.26 Y163.78 E199.70218
G1 X152.50 Y164.00 E199.79589
G1 X154.74 Y163.78 E199.88959
G1 X156.90 Y163.12 E199.98334
G1 X158.89 Y162.06 E200.07709
G1 X160.63 Y160.63 E200.17081
G1 X162.06 Y158.89 E200.26454
G1 X163.12 Y156.90 E200.35828
G1 X163.78 Y154.74 E200.45203
G1 X164.00 Y152.50 E200.54574
G1 X163.78 Y150.26 E200.63945
G1 X163.12 Y148.10 E200.73320
G1 X162.06 Y146.11 E200.82694
G1 X160.63 Y144.37 E200.92067
G1 X158.89 Y142.94 E201.01439
G1 X156.90 Y141.88 E201.10814
G1 X154.74 Y141.22 E201.20188
G1 X152.50 Y141.00 E201.29559
G1 X150.26 Y141.22 E201.38930
G1 X148.10 Y141.88 E201.48305
G1 X146.11 Y142.94 E201.57679
G1 X144.37 Y144.37 E201.67052
G1 X142.94 Y146.11 E201.76425
G0 F6000 X142.68 Y146.22
;TYPE:FILL
G1 F720 X142.39 Y145.93 E201.78133
G0 F6000 X143.01 Y145.13
G1 F720 X143.29 Y145.41 E201.79776
G0 F6000 X143.92 Y144.63
G1 F720 X143.65 Y144.35 E201.81417
G0 F6000 X144.35 Y143.65
G1 F720 X144.63 Y143.92 E201.83048
G0 F6000 X145.41 Y143.28
G1 F720 X145.13 Y143.01 E201.84680
G0 F6000 X145.93 Y142.39
G1 F720 X146.22 Y142.68 E201.86382
G0 F6000 X146.85 Y141.90
G1 F720 X147.14 Y142.19 E201.88087
G0 F6000 X147.77 Y141.41
G1 F720 X148.07 Y141.70 E201.89833
G0 F6000 X148.83 Y141.06
G1 F720 X149.15 Y141.37 E201.91697
G0 F6000 X149.92 Y140.73
G1 F720 X150.24 Y141.05 E201.93576
G0 F6000 X151.16 Y140.56
G1 F720 X151.53 Y140.92 E201.95698
G0 F6000 X152.45 Y140.43
G1 F720 X152.88 Y140.86 E201.98223
G0 F6000 X154.01 Y140.58
G1 F720 X154.45 Y141.02 E202.00805
G0 F6000 X155.79 Y140.94
G1 F720 X156.38 Y141.54 E202.04285
G0 F6000 X156.44 Y141.37
G0 X158.09 Y142.06
G0 X158.17 Y141.91
G1 F720 X159.36 Y143.09 E202.11247
G0 F6000 X159.47 Y142.96
G0 X160.95 Y144.05
G0 X162.04 Y145.53
G0 X161.90 Y145.64
G1 F720 X163.09 Y146.83 E202.18214
G0 F6000 X162.94 Y146.91
G0 X163.63 Y148.56
G0 X163.46 Y148.61
G1 F720 X164.06 Y149.21 E202.21707
G0 F6000 X163.98 Y150.55
G1 F720 X164.42 Y150.99 E202.24294
G0 F6000 X164.14 Y152.12
G1 F720 X164.57 Y152.55 E202.26822
G0 F6000 X164.08 Y153.47
G1 F720 X164.44 Y153.83 E202.28950
G0 F6000 X163.95 Y154.76
G1 F720 X164.27 Y155.08 E202.30838
G0 F6000 X163.62 Y155.85
G1 F720 X163.94 Y156.16 E202.32710
G0 F6000 X163.30 Y156.93
G1 F720 X163.59 Y157.23 E202.34462
G0 F6000 X162.81 Y157.86
G1 F720 X163.10 Y158.15 E202.36179
G0 F6000 X162.32 Y158.78
G1 F720 X162.61 Y159.07 E202.37893
G0 F6000 X161.99 Y159.87
G1 F720 X161.71 Y159.59 E202.39540
G0 F6000 X161.07 Y160.37
G1 F720 X161.00 Y161.00 E202.41175
G1 X160.37 Y161.07 E202.43817
G0 F6000 X159.59 Y161.71
G1 F720 X159.87 Y161.99 E202.45455
G0 F6000 X159.07 Y162.61
G1 F720 X158.78 Y162.32 E202.47160
G0 F6000 X158.15 Y163.10
G1 F720 X157.86 Y162.81 E202.48871
G0 F6000 X157.23 Y163.59
G1 F720 X156.93 Y163.30 E202.50617
G0 F6000 X156.16 Y163.94
G1 F720 X155.85 Y163.62 E202.52487
G0 F6000 X155.08 Y164.27
G1 F720 X154.76 Y163.95 E202.54368
G0 F6000 X153.83 Y164.44
G1 F720 X153.47 Y164.08 E202.56488
G0 F6000 X152.55 Y164.57
G1 F720 X152.12 Y164.14 E202.59013
G0 F6000 X150.99 Y164.42
G1 F720 X150.55 Y163.98 E202.61591
G0 F6000 X149.21 Y164.06
G1 F720 X148.61 Y163.46 E202.65075
G0 F6000 X148.56 Y163.63
G0 X146.91 Y162.94
G0 X146.82 Y163.09
G1 F720 X145.64 Y161.91 E202.72033
G0 F6000 X145.53 Y162.04
G0 X144.05 Y160.95
G0 X142.96 Y159.47
G0 X143.09 Y159.36
G1 F720 X141.91 Y158.17 E202.79001
G0 F6000 X142.06 Y158.09
G0 X141.37 Y156.44
G0 X141.54 Y156.39
G1 F720 X140.94 Y155.79 E202.82493
G0 F6000 X141.02 Y154.45
G1 F720 X140.58 Y154.01 E202.85074
G0 F6000 X140.86 Y152.88
G1 F720 X140.43 Y152.45 E202.87606
G0 F6000 X140.92 Y151.53
G1 F720 X140.56 Y151.16 E202.89734
G0 F6000 X141.05 Y150.24
G1 F720 X140.73 Y149.92 E202.91624
G0 F6000 X141.37 Y149.15
G1 F720 X141.06 Y148.83 E202.93497
G0 F6000 X141.70 Y148.07
G1 F720 X141.41 Y147.77 E202.95243
G0 F6000 X142.19 Y147.14
G1 F720 X141.90 Y146.85 E202.96960
;LAYER:7
G0 F6000 X141.18 Y147.81 Z1.70
;TYPE:WALL-OUTER
G1 F720 X142.31 Y145.70 E203.06931
G1 X143.84 Y143.84 E203.16922
G1 X145.70 Y142.31 E203.26912
G1 X147.81 Y141.18 E203.36883
G1 X150.11 Y140.49 E203.46862
G1 X152.50 Y140.25 E203.56851
G1 X154.89 Y140.49 E203.66841
G1 X157.19 Y141.18 E203.76819
G1 X159.30 Y142.31 E203.86791
G1 X161.16 Y143.84 E203.96781
G1 X162.69 Y145.70 E204.06771
G1 X163.82 Y147.81 E204.16743
G1 X164.51 Y150.11 E204.26721
G1 X164.75 Y152.50 E204.36710
G1 X164.51 Y154.89 E204.46700
G1 X163.82 Y157.19 E204.56678
G1 X162.69 Y159.30 E204.66650
G1 X161.16 Y161.16 E204.76640
G1 X159.30 Y162.69 E204.86630
G1 X157.19 Y163.82 E204.96602
G1 X154.89 Y164.51 E205.06580
G1 X152.50 Y164.75 E205.16570
G1 X150.11 Y164.51 E205.26559
G1 X147.81 Y163.82 E205.36538
G1 X145.70 Y162.69 E205.46509
G1 X143.84 Y161.16 E205.56499
G1 X142.31 Y159.30 E205.66489
G1 X141.18 Y157.19 E205.76461
G1 X140.49 Y154.89 E205.86439
G1 X140.25 Y152.50 E205.96429
G1 X140.49 Y150.11 E206.06418
G1 X141.18 Y147.81 E206.16397
G0 F6000 X141.88 Y148.10
G1 F720 X141.22 Y150.26 E206.25772
G1 X141.00 Y152.50 E206.35142
G1 X141.22 Y154.74 E206.44513
G1 X141.88 Y156.90 E206.53888
G1 X142.94 Y158.89 E206.63262
G1 X144.37 Y160.63 E206.72635
G1 X146.11 Y162.06 E206.82008
G1 X148.10 Y163.12 E206.91382
G1 X150.26 Y163.78 E207.00757
G1 X152.50 Y164.00 E207.10128
G1 X154.74 Y163.78 E207.19499
G1 X156.90 Y163.12 E207.28874
G1 X158.89 Y162.06 E207.38248
G1 X160.63 Y160.63 E207.47621
G1 X162.06 Y158.89 E207.56993
G1 X163.12 Y156.90 E207.66367
G1 X163.78 Y154.74 E207.75742
G1 X164.00 Y152.50 E207.85113
G1 X163.78 Y150.26 E207.94484
G1 X163.12 Y148.10 E208.03859
G1 X162.06 Y146.11 E208.13233
G1 X160.63 Y144.37 E208.22606
G1 X158.89 Y142.94 E208.31979
G1 X156.90 Y141.88 E208.41353
G1 X154.74 Y141.22 E208.50728
G1 X152.50 Y141.00 E208.60099
G1 X150.26 Y141.22 E208.69469
G1 X148.10 Y141.88 E208.78844
G1 X146.11 Y142.94 E208.88219
G1 X144.37 Y144.37 E208.97591
G1 X142.94 Y146.11 E209.06964
G1 X141.88 Y148.10 E209.16338
G0 F6000 X141.37 Y147.84
;TYPE:FILL
G1 F720 X142.33 Y146.88 E209.21989
G0 F6000 X142.17 Y146.80
G0 X141.46 Y147.93
G0 X141.16 Y149.24
G0 X141.33 Y149.29
G1 F720 X140.74 Y149.88 E209.25475
G0 F6000 X140.97 Y151.07
G1 F720 X140.53 Y151.51 E209.28062
G0 F6000 X140.83 Y152.61
G1 F720 X140.47 Y152.97 E209.30179
G0 F6000 X140.96 Y153.90
G1 F720 X140.60 Y154.26 E209.32296
G0 F6000 X141.15 Y155.12
G1 F720 X140.84 Y155.44 E209.34153
G0 F6000 X141.48 Y156.21
G1 F720 X141.17 Y156.53 E209.36011
G0 F6000 X141.86 Y157.25
G1 F720 X141.57 Y157.54 E209.37725
G0 F6000 X142.35 Y158.17
G1 F720 X142.06 Y158.46 E209.39430
G0 F6000 X142.86 Y159.07
G1 F720 X142.58 Y159.35 E209.41059
G0 F6000 X143.22 Y160.13
G1 F720 X143.50 Y159.85 E209.42691
G0 F6000 X144.13 Y160.63
G1 F720 X143.86 Y160.90 E209.44319
G0 F6000 X144.61 Y161.57
G1 F720 X144.89 Y161.29 E209.45957
G0 F6000 X145.67 Y161.92
G1 F720 X145.39 Y162.20 E209.47597
G0 F6000 X146.23 Y162.77
G1 F720 X146.52 Y162.48 E209.49311
G0 F6000 X147.15 Y163.27
G1 F720 X147.44 Y162.97 E209.51031
G0 F6000 X148.11 Y163.72
G1 F720 X148.43 Y163.41 E209.52904
G0 F6000 X149.19 Y164.05
G1 F720 X149.51 Y163.73 E209.54776
G0 F6000 X150.31 Y164.35
G1 F720 X150.67 Y163.99 E209.56902
G0 F6000 X151.59 Y164.48
G1 F720 X151.96 Y164.12 E209.59030
G0 F6000 X152.96 Y164.53
G1 F720 X153.41 Y164.09 E209.61623
G0 F6000 X154.53 Y164.37
G1 F720 X155.03 Y163.87 E209.64557
G0 F6000 X156.47 Y163.85
G1 F720 X157.11 Y163.21 E209.68317
G0 F6000 X157.19 Y163.37
G0 X159.10 Y162.40
G0 X159.18 Y162.55
G1 F720 X162.55 Y159.18 E209.88120
G0 F6000 X162.40 Y159.10
G0 X163.37 Y157.19
G0 X163.21 Y157.11
G1 F720 X163.85 Y156.47 E209.91871
G0 F6000 X163.87 Y155.03
G1 F720 X164.37 Y154.53 E209.94793
G0 F6000 X164.09 Y153.40
G1 F720 X164.53 Y152.97 E209.97374
G0 F6000 X164.12 Y151.96
G1 F720 X164.48 Y151.59 E209.99497
G0 F6000 X164.00 Y150.67
G1 F720 X164.35 Y150.31 E210.01610
G0 F6000 X163.74 Y149.51
G1 F720 X164.05 Y149.19 E210.03474
G0 F6000 X163.41 Y148.43
G1 F720 X163.72 Y148.11 E210.05338
G0 F6000 X162.97 Y147.44
G1 F720 X163.26 Y147.15 E210.07049
G0 F6000 X162.48 Y146.52
G1 F720 X162.77 Y146.23 E210.08754
G0 F6000 X162.20 Y145.39
G1 F720 X161.93 Y145.67 E210.10389
G0 F6000 X161.29 Y144.89
G1 F720 X161.56 Y144.61 E210.12020
G0 F6000 X160.90 Y143.86
G1 F720 X160.63 Y144.14 E210.13655
G0 F6000 X159.85 Y143.50
G1 F720 X160.13 Y143.22 E210.15292
G0 F6000 X159.35 Y142.58
G1 F720 X159.07 Y142.86 E210.16933
G0 F6000 X158.46 Y142.06
G1 F720 X158.17 Y142.35 E210.18647
G0 F6000 X157.54 Y141.57
G1 F720 X156.88 Y141.51 E210.20361
G1 X156.21 Y141.48 E210.23178
G0 F6000 X155.44 Y140.84
G1 F720 X155.12 Y141.15 E210.25048
G0 F6000 X154.26 Y140.60
G1 F720 X153.90 Y140.96 E210.27170
G0 F6000 X152.97 Y140.47
G1 F720 X152.61 Y140.84 E210.29296
G0 F6000 X151.51 Y140.52
G1 F720 X151.07 Y140.97 E210.31889
G0 F6000 X149.88 Y140.74
G1 F720 X149.29 Y141.33 E210.35378
G0 F6000 X147.84 Y141.36
G1 F720 X146.88 Y142.33 E210.41037
;LAYER:8
G0 F6000 X146.11 Y142.94 Z1.90
;TYPE:WALL-OUTER
G1 F720 X144.37 Y144.37 E210.50410
G1 X142.94 Y146.11 E210.59783
G1 X141.88 Y148.10 E210.69157
G1 X141.22 Y150.26 E210.78532
G1 X141.00 Y152.50 E210.87903
G1 X141.22 Y154.74 E210.97274
G1 X141.88 Y156.90 E211.06648
G1 X142.94 Y158.89 E211.16023
G1 X144.37 Y160.63 E211.25395
G1 X146.11 Y162.06 E211.34768
G1 X148.10 Y163.12 E211.44142
G1 X150.26 Y163.78 E211.53517
G1 X152.50 Y164.00 E211.62888
G1 X154.74 Y163.78 E211.72259
G1 X156.90 Y163.12 E211.81634
G1 X158.89 Y162.06 E211.91008
G1 X160.63 Y160.63 E212.00381
G1 X162.06 Y158.89 E212.09754
G1 X163.12 Y156.90 E212.19128
G1 X163.78 Y154.74 E212.28503
G1 X164.00 Y152.50 E212.37873
G1 X163.78 Y150.26 E212.47244
G1 X163.12 Y148.10 E212.56619
G1 X162.06 Y146.11 E212.65993
G1 X160.63 Y144.37 E212.75366
G1 X158.89 Y142.94 E212.84739
G1 X156.90 Y141.88 E212.94113
G1 X154.74 Y141.22 E213.03488
G1 X152.50 Y141.00 E213.12859
G1 X150.26 Y141.22 E213.22230
G1 X148.10 Y141.88 E213.31605
G1 X146.11 Y142.94 E213.40979
G0 F6000 X145.69 Y142.32
G1 F720 X147.82 Y141.18 E213.50987
G1 X150.11 Y140.49 E213.60940
G1 X152.50 Y140.25 E213.70933
G1 X154.89 Y140.49 E213.80927
G1 X157.18 Y141.18 E213.90879
G1 X159.31 Y142.32 E214.00888
G1 X161.16 Y143.84 E214.10863
G1 X162.68 Y145.69 E214.20838
G1 X163.82 Y147.82 E214.30847
G1 X164.51 Y150.11 E214.40799
G1 X164.75 Y152.50 E214.50793
G1 X164.51 Y154.89 E214.60786
G1 X163.82 Y157.18 E214.70738
G1 X162.68 Y159.31 E214.80747
G1 X161.16 Y161.16 E214.90722
G1 X159.31 Y162.68 E215.00698
G1 X157.18 Y163.82 E215.10706
G1 X154.89 Y164.51 E215.20659
G1 X152.50 Y164.75 E215.30652
G1 X150.11 Y164.51 E215.40645
G1 X147.82 Y163.82 E215.50598
G1 X145.69 Y162.68 E215.60606
G1 X143.84 Y161.16 E215.70582
G1 X142.32 Y159.31 E215.80557
G1 X141.18 Y157.18 E215.90566
G1 X140.49 Y154.89 E216.00518
G1 X140.25 Y152.50 E216.10511
G1 X140.49 Y150.11 E216.20505
G1 X141.18 Y147.82 E216.30457
G1 X142.32 Y145.69 E216.40466
G1 X143.84 Y143.84 E216.50441
G1 X145.69 Y142.32 E216.60416
G0 F6000 X145.93 Y142.39
;TYPE:FILL
G1 F720 X146.22 Y142.68 E216.62119
G0 F6000 X146.85 Y141.90
G1 F720 X147.14 Y142.19 E216.63824
G0 F6000 X147.77 Y141.41
G1 F720 X148.07 Y141.70 E216.65570
G0 F6000 X148.83 Y141.06
G1 F720 X149.15 Y141.37 E216.67434
G0 F6000 X149.92 Y140.73
G1 F720 X150.24 Y141.05 E216.69312
G0 F6000 X151.16 Y140.56
G1 F720 X151.53 Y140.92 E216.71435
G0 F6000 X152.45 Y140.43
G1 F720 X152.88 Y140.86 E216.73960
G0 F6000 X154.01 Y140.58
G1 F720 X154.45 Y141.02 E216.76541
G0 F6000 X155.79 Y140.94
G1 F720 X156.38 Y141.54 E216.80022
G0 F6000 X156.44 Y141.37
G0 X158.09 Y142.06
G0 X158.17 Y141.91
G1 F720 X159.36 Y143.09 E216.86983
G0 F6000 X159.47 Y142.96
G0 X160.95 Y144.05
G0 X162.04 Y145.53
G0 X161.90 Y145.64
G1 F720 X163.09 Y146.83 E216.93951
G0 F6000 X162.94 Y146.91
G0 X163.63 Y148.56
G0 X163.46 Y148.61
G1 F720 X164.06 Y149.21 E216.97443
G0 F6000 X163.98 Y150.55
G1 F720 X164.42 Y150.99 E217.00030
G0 F6000 X164.14 Y152.12
G1 F720 X164.57 Y152.55 E217.02559
G0 F6000 X164.08 Y153.47
G1 F720 X164.44 Y153.83 E217.04687
G0 F6000 X163.95 Y154.76
G1 F720 X164.27 Y155.08 E217.06574
G0 F6000 X163.62 Y155.85
G1 F720 X163.94 Y156.16 E217.08447
G0 F6000 X163.30 Y156.93
G1 F720 X163.59 Y157.23 E217.10199
G0 F6000 X162.81 Y157.86
G1 F720 X163.10 Y158.15 E217.11916
G0 F6000 X162.32 Y158.78
G1 F720 X162.61 Y159.07 E217.13630
G0 F6000 X161.99 Y159.87
G1 F720 X161.71 Y159.59 E217.15276
G0 F6000 X161.07 Y160.37
G1 F720 X161.00 Y161.00 E217.16911
G1 X160.37 Y161.07 E217.19554
G0 F6000 X159.59 Y161.71
G1 F720 X159.87 Y161.99 E217.21191
G0 F6000 X159.07 Y162.61
G1 F720 X158.78 Y162.32 E217.22896
G0 F6000 X158.15 Y163.10
G1 F720 X157.86 Y162.81 E217.24607
G0 F6000 X157.23 Y163.59
G1 F720 X156.93 Y163.30 E217.26354
G0 F6000 X156.16 Y163.94
G1 F720 X155.85 Y163.62 E217.28223
G0 F6000 X155.08 Y164.27
G1 F720 X154.76 Y163.95 E217.30105
G0 F6000 X153.83 Y164.44
G1 F720 X153.47 Y164.08 E217.32224
G0 F6000 X152.55 Y164.57
G1 F720 X152.12 Y164.14 E217.34750
G0 F6000 X150.99 Y164.42
G1 F720 X150.55 Y163.98 E217.37328
G0 F6000 X149.21 Y164.06
G1 F720 X148.61 Y163.46 E217.40812
G0 F6000 X148.56 Y163.63
G0 X146.91 Y162.94
G0 X146.82 Y163.09
G1 F720 X145.64 Y161.91 E217.47770
G0 F6000 X145.53 Y162.04
G0 X144.05 Y160.95
G0 X142.96 Y159.47
G0 X143.09 Y159.36
G1 F720 X141.91 Y158.17 E217.54737
G0 F6000 X142.06 Y158.09
G0 X141.37 Y156.44
G0 X141.54 Y156.39
G1 F720 X140.94 Y155.79 E217.58230
G0 F6000 X141.02 Y154.45
G1 F720 X140.58 Y154.01 E217.60811
G0 F6000 X140.86 Y152.88
G1 F720 X140.43 Y152.45 E217.63342
G0 F6000 X140.92 Y151.53
G1 F720 X140.56 Y151.16 E217.65471
G0 F6000 X141.05 Y150.24
G1 F720 X140.73 Y149.92 E217.67361
G0 F6000 X141.37 Y149.15
G1 F720 X141.06 Y148.83 E217.69234
G0 F6000 X141.70 Y148.07
G1 F720 X141.41 Y147.77 E217.70980
G0 F6000 X142.19 Y147.14
G1 F720 X141.90 Y146.85 E217.72697
G0 F6000 X142.68 Y146.22
G1 F720 X142.39 Y145.93 E217.74405
G0 F6000 X143.01 Y145.13
G1 F720 X143.29 Y145.41 E217.76048
G0 F6000 X143.92 Y144.63
G1 F720 X143.65 Y144.35 E217.77688
G0 F6000 X144.35 Y143.65
G1 F720 X144.63 Y143.92 E217.79320
G0 F6000 X145.41 Y143.28
G1 F720 X145.13 Y143.01 E217.80952
;LAYER:9
G0 F6000 X145.70 Y142.31 Z2.10
;TYPE:WALL-OUTER
G1 F720 X147.81 Y141.18 E217.90923
G1 X150.11 Y140.49 E218.00902
G1 X152.34 Y140.27 E218.10226
G1 X152.50 Y140.25 E218.10895
G1 X154.73 Y140.47 E218.20198
G1 X154.89 Y140.49 E218.20880
G1 X157.19 Y141.18 E218.30858
G1 X159.30 Y142.31 E218.40830
G1 X161.16 Y143.84 E218.50820
G1 X162.69 Y145.70 E218.60810
G1 X163.82 Y147.81 E218.70781
G1 X164.51 Y150.11 E218.80760
G1 X164.73 Y152.34 E218.90085
G1 X164.75 Y152.50 E218.90753
G1 X164.53 Y154.73 E219.00057
G1 X164.51 Y154.89 E219.00738
G1 X163.82 Y157.19 E219.10717
G1 X162.69 Y159.30 E219.20688
G1 X161.16 Y161.16 E219.30678
G1 X159.30 Y162.69 E219.40668
G1 X157.19 Y163.82 E219.50640
G1 X154.89 Y164.51 E219.60618
G1 X152.66 Y164.73 E219.69943
G1 X152.50 Y164.75 E219.70612
G1 X150.27 Y164.53 E219.79915
G1 X150.11 Y164.51 E219.80596
G1 X147.81 Y163.82 E219.90575
G1 X145.70 Y162.69 E220.00546
G1 X143.84 Y161.16 E220.10537
G1 X142.31 Y159.30 E220.20527
G1 X141.18 Y157.19 E220.30498
G1 X140.49 Y154.89 E220.40477
G1 X140.27 Y152.66 E220.49801
G1 X140.25 Y152.50 E220.50470
G1 X140.47 Y150.27 E220.59773
G1 X140.49 Y150.11 E220.60455
G1 X141.18 Y147.81 E220.70433
G1 X142.31 Y145.70 E220.80405
G1 X143.84 Y143.84 E220.90395
G1 X145.70 Y142.31 E221.00385
G0 F6000 X146.11 Y142.94
G1 F720 X144.37 Y144.37 E221.09758
G1 X142.94 Y146.11 E221.19131
G1 X141.88 Y148.10 E221.28505
G1 X141.22 Y150.26 E221.37880
G1 X141.00 Y152.50 E221.47251
G1 X141.22 Y154.74 E221.56621
G1 X141.88 Y156.90 E221.65996
G1 X142.94 Y158.89 E221.75371
G1 X144.37 Y160.63 E221.84743
G1 X146.11 Y162.06 E221.94116
G1 X148.10 Y163.12 E222.03490
G1 X150.26 Y163.78 E222.12865
G1 X152.50 Y164.00 E222.22236
G1 X154.74 Y163.78 E222.31607
G1 X156.90 Y163.12 E222.40982
G1 X158.89 Y162.06 E222.50356
G1 X160.63 Y160.63 E222.59729
G1 X162.06 Y158.89 E222.69101
G1 X163.12 Y156.90 E222.78476
G1 X163.78 Y154.74 E222.87850
G1 X164.00 Y152.50 E222.97221
G1 X163.78 Y150.26 E223.06592
G1 X163.12 Y148.10 E223.15967
G1 X162.06 Y146.11 E223.25341
G1 X160.63 Y144.37 E223.34714
G1 X158.89 Y142.94 E223.44087
G1 X156.90 Y141.88 E223.53461
G1 X154.74 Y141.22 E223.62836
G1 X152.50 Y141.00 E223.72207
G1 X150.26 Y141.22 E223.81578
G1 X148.10 Y141.88 E223.90952
G1 X146.11 Y142.94 E224.00327
G0 F6000 X146.88 Y142.33
;TYPE:FILL
G1 F720 X147.84 Y141.36 E224.05986
G0 F6000 X149.29 Y141.33
G1 F720 X149.88 Y140.74 E224.09475
G0 F6000 X151.07 Y140.97
G1 F720 X151.51 Y140.53 E224.12062
G0 F6000 X152.61 Y140.84
G1 F720 X152.97 Y140.47 E224.14182
G0 F6000 X153.90 Y140.96
G1 F720 X154.26 Y140.60 E224.16305
G0 F6000 X155.12 Y141.15
G1 F720 X155.44 Y140.84 E224.18174
G0 F6000 X156.21 Y141.48
G1 F720 X156.88 Y141.51 E224.20039
G1 X157.54 Y141.57 E224.22760
G0 F6000 X158.17 Y142.35
G1 F720 X158.46 Y142.06 E224.24474
G0 F6000 X159.07 Y142.86
G1 F720 X159.35 Y142.58 E224.26114
G0 F6000 X160.13 Y143.22
G1 F720 X159.85 Y143.50 E224.27752
G0 F6000 X160.63 Y144.14
G1 F720 X160.90 Y143.86 E224.29386
G0 F6000 X161.56 Y144.61
G1 F720 X161.29 Y144.89 E224.31018
G0 F6000 X161.93 Y145.67
G1 F720 X162.20 Y145.39 E224.32653
G0 F6000 X162.77 Y146.23
G1 F720 X162.48 Y146.52 E224.34358
G0 F6000 X163.26 Y147.15
G1 F720 X162.97 Y147.44 E224.36069
G0 F6000 X163.72 Y148.11
G1 F720 X163.41 Y148.43 E224.37932
G0 F6000 X164.05 Y149.19
G1 F720 X163.74 Y149.51 E224.39796
G0 F6000 X164.35 Y150.31
G1 F720 X164.00 Y150.67 E224.41910
G0 F6000 X164.48 Y151.59
G1 F720 X164.12 Y151.96 E224.44027
G0 F6000 X164.53 Y152.97
G1 F720 X164.09 Y153.40 E224.46608
G0 F6000 X164.37 Y154.53
G1 F720 X163.87 Y155.03 E224.49530
G0 F6000 X163.85 Y156.47
G1 F720 X163.21 Y157.11 E224.53281
G0 F6000 X163.37 Y157.19
G0 X162.40 Y159.10
G0 X162.55 Y159.18
G1 F720 X159.18 Y162.55 E224.73084
G0 F6000 X159.10 Y162.40
G0 X157.19 Y163.37
G0 X157.11 Y163.21
G1 F720 X156.47 Y163.85 E224.76844
G0 F6000 X155.03 Y163.87
G1 F720 X154.53 Y164.37 E224.79778
G0 F6000 X153.41 Y164.09
G1 F720 X152.97 Y164.53 E224.82365
G0 F6000 X151.96 Y164.12
G1 F720 X151.59 Y164.48 E224.84490
G0 F6000 X150.67 Y163.99
G1 F720 X150.31 Y164.35 E224.86616
G0 F6000 X149.51 Y163.73
G1 F720 X149.19 Y164.05 E224.88488
G0 F6000 X148.43 Y163.41
G1 F720 X148.11 Y163.72 E224.90361
G0 F6000 X147.44 Y162.97
G1 F720 X147.15 Y163.27 E224.92081
G0 F6000 X146.52 Y162.48
G1 F720 X146.23 Y162.77 E224.93795
G0 F6000 X145.39 Y162.20
G1 F720 X145.67 Y161.92 E224.95435
G0 F6000 X144.89 Y161.29
G1 F720 X144.61 Y161.57 E224.97073
G0 F6000 X143.86 Y160.90
G1 F720 X144.13 Y160.63 E224.98701
G0 F6000 X143.50 Y159.85
G1 F720 X143.22 Y160.13 E225.00333
G0 F6000 X142.58 Y159.35
G1 F720 X142.86 Y159.07 E225.01961
G0 F6000 X142.06 Y158.46
G1 F720 X142.35 Y158.17 E225.03667
G0 F6000 X141.57 Y157.54
G1 F720 X141.86 Y157.25 E225.05380
G0 F6000 X141.17 Y156.53
G1 F720 X141.48 Y156.21 E225.07238
G0 F6000 X140.84 Y155.44
G1 F720 X141.15 Y155.12 E225.09096
G0 F6000 X140.60 Y154.26
G1 F720 X140.96 Y153.90 E225.11213
G0 F6000 X140.47 Y152.97
G1 F720 X140.83 Y152.61 E225.13327
G0 F6000 X140.53 Y151.51
G1 F720 X140.97 Y151.07 E225.15908
G0 F6000 X140.74 Y149.88
G1 F720 X141.33 Y149.29 E225.19395
G0 F6000 X141.37 Y147.84
G1 F720 X142.33 Y146.88 E225.25045
;LAYER:10
G0 F6000 X142.94 Y146.11 Z2.30
;TYPE:WALL-OUTER
G1 F720 X141.88 Y148.10 E225.34419
G1 X141.22 Y150.26 E225.43794
G1 X141.00 Y152.50 E225.53165
G1 X141.22 Y154.74 E225.62536
G1 X141.88 Y156.90 E225.71911
G1 X142.94 Y158.89 E225.81285
G1 X144.37 Y160.63 E225.90658
G1 X146.11 Y162.06 E226.00030
G1 X148.10 Y163.12 E226.09404
G1 X150.26 Y163.78 E226.18779
G1 X152.50 Y164.00 E226.28150
G1 X154.74 Y163.78 E226.37521
G1 X156.90 Y163.12 E226.46896
G1 X158.89 Y162.06 E226.56270
G1 X160.63 Y160.63 E226.65643
G1 X162.06 Y158.89 E226.75016
G1 X163.12 Y156.90 E226.84390
G1 X163.78 Y154.74 E226.93765
G1 X164.00 Y152.50 E227.03136
G1 X163.78 Y150.26 E227.12506
G1 X163.12 Y148.10 E227.21881
G1 X162.06 Y146.11 E227.31256
G1 X160.63 Y144.37 E227.40628
G1 X158.89 Y142.94 E227.50001
G1 X156.90 Y141.88 E227.59375
G1 X154.74 Y141.22 E227.68750
G1 X152.50 Y141.00 E227.78121
G1 X150.26 Y141.22 E227.87492
G1 X148.10 Y141.88 E227.96867
G1 X146.11 Y142.94 E228.06241
G1 X144.37 Y144.37 E228.15614
G1 X142.94 Y146.11 E228.24986
G0 F6000 X142.31 Y145.70
G1 F720 X143.84 Y143.84 E228.34977
G1 X145.70 Y142.31 E228.44967
G1 X147.81 Y141.18 E228.54942
G1 X149.94 Y140.54 E228.64181
G1 X150.11 Y140.49 E228.64930
G1 X152.32 Y140.27 E228.74162
G1 X152.50 Y140.25 E228.74914
G1 X154.71 Y140.47 E228.84134
G1 X154.89 Y140.49 E228.84899
G1 X157.01 Y141.13 E228.94116
G1 X157.19 Y141.19 E228.94879
G1 X159.30 Y142.31 E229.04845
G1 X161.16 Y143.84 E229.14835
G1 X162.69 Y145.70 E229.24825
G1 X163.82 Y147.81 E229.34800
G1 X164.46 Y149.94 E229.44040
G1 X164.51 Y150.11 E229.44788
G1 X164.73 Y152.32 E229.54020
G1 X164.75 Y152.50 E229.54772
G1 X164.53 Y154.71 E229.63992
G1 X164.51 Y154.89 E229.64757
G1 X163.87 Y157.01 E229.73974
G1 X163.81 Y157.19 E229.74737
G1 X162.69 Y159.30 E229.84703
G1 X161.16 Y161.16 E229.94693
G1 X159.30 Y162.69 E230.04683
G1 X157.19 Y163.82 E230.14658
G1 X155.06 Y164.46 E230.23898
G1 X154.89 Y164.51 E230.24646
G1 X152.68 Y164.73 E230.33878
G1 X152.50 Y164.75 E230.34630
G1 X150.29 Y164.53 E230.43850
G1 X150.11 Y164.51 E230.44615
G1 X147.99 Y163.87 E230.53832
G1 X147.81 Y163.81 E230.54595
G1 X145.70 Y162.69 E230.64561
G1 X143.84 Y161.16 E230.74551
G1 X142.31 Y159.30 E230.84541
G1 X141.18 Y157.19 E230.94516
G1 X140.54 Y155.06 E231.03756
G1 X140.49 Y154.89 E231.04504
G1 X140.27 Y152.68 E231.13736
G1 X140.25 Y152.50 E231.14488
G1 X140.47 Y150.29 E231.23708
G1 X140.49 Y150.11 E231.24473
G1 X141.13 Y147.99 E231.33690
G1 X141.19 Y147.81 E231.34453
G1 X142.31 Y145.70 E231.44419
G0 F6000 X142.39 Y145.93
;TYPE:FILL
G1 F720 X142.68 Y146.22 E231.46127
G0 F6000 X141.90 Y146.85
G1 F720 X142.19 Y147.14 E231.47847
G0 F6000 X141.40 Y147.77
G1 F720 X141.70 Y148.07 E231.49599
G0 F6000 X141.06 Y148.83
G1 F720 X141.37 Y149.15 E231.51472
G0 F6000 X140.73 Y149.92
G1 F720 X141.05 Y150.24 E231.53362
G0 F6000 X140.56 Y151.16
G1 F720 X140.92 Y151.53 E231.55487
G0 F6000 X140.43 Y152.45
G1 F720 X140.86 Y152.88 E231.58016
G0 F6000 X140.58 Y154.01
G1 F720 X141.02 Y154.45 E231.60603
G0 F6000 X140.94 Y155.79
G1 F720 X141.54 Y156.39 E231.64089
G0 F6000 X141.37 Y156.44
G0 X142.06 Y158.09
G0 X141.91 Y158.17
G1 F720 X143.09 Y159.36 E231.71057
G0 F6000 X142.96 Y159.47
G0 X144.05 Y160.95
G0 X145.53 Y162.04
G0 X145.64 Y161.91
G1 F720 X146.82 Y163.09 E231.78015
G0 F6000 X146.91 Y162.94
G0 X148.56 Y163.63
G0 X148.61 Y163.46
G1 F720 X149.21 Y164.05 E231.81496
G0 F6000 X150.55 Y163.98
G1 F720 X150.99 Y164.42 E231.84074
G0 F6000 X152.12 Y164.14
G1 F720 X152.54 Y164.57 E231.86593
G0 F6000 X153.47 Y164.08
G1 F720 X153.83 Y164.44 E231.88716
G0 F6000 X154.76 Y163.95
G1 F720 X155.08 Y164.27 E231.90597
G0 F6000 X155.85 Y163.62
G1 F720 X156.16 Y163.94 E231.92461
G0 F6000 X156.93 Y163.30
G1 F720 X157.23 Y163.59 E231.94208
G0 F6000 X157.86 Y162.81
G1 F720 X158.15 Y163.10 E231.95919
G0 F6000 X158.78 Y162.32
G1 F720 X159.07 Y162.61 E231.97618
G0 F6000 X159.87 Y161.99
G1 F720 X159.59 Y161.71 E231.99252
G0 F6000 X160.37 Y161.07
G1 F720 X161.00 Y161.00 E232.00885
G1 X161.07 Y160.37 E232.03531
G0 F6000 X161.71 Y159.59
G1 F720 X161.99 Y159.87 E232.05172
G0 F6000 X162.61 Y159.07
G1 F720 X162.32 Y158.78 E232.06883
G0 F6000 X163.10 Y158.15
G1 F720 X162.81 Y157.86 E232.08599
G0 F6000 X163.59 Y157.23
G1 F720 X163.30 Y156.93 E232.10352
G0 F6000 X163.94 Y156.16
G1 F720 X163.62 Y155.85 E232.12221
G0 F6000 X164.27 Y155.08
G1 F720 X163.95 Y154.76 E232.14109
G0 F6000 X164.44 Y153.83
G1 F720 X164.08 Y153.47 E232.16234
G0 F6000 X164.57 Y152.55
G1 F720 X164.14 Y152.12 E232.18762
G0 F6000 X164.42 Y150.99
G1 F720 X163.98 Y150.55 E232.21349
G0 F6000 X164.06 Y149.21
G1 F720 X163.46 Y148.61 E232.24839
G0 F6000 X163.63 Y148.56
G0 X162.94 Y146.91
G0 X163.09 Y146.83
G1 F720 X161.90 Y145.64 E232.31806
G0 F6000 X162.04 Y145.53
G0 X160.95 Y144.05
G0 X159.47 Y142.96
G0 X159.36 Y143.09
G1 F720 X158.17 Y141.91 E232.38768
G0 F6000 X158.09 Y142.06
G0 X156.44 Y141.37
G0 X156.38 Y141.54
G1 F720 X155.79 Y140.94 E232.42246
G0 F6000 X154.45 Y141.02
G1 F720 X154.01 Y140.58 E232.44827
G0 F6000 X152.88 Y140.86
G1 F720 X152.45 Y140.43 E232.47349
G0 F6000 X151.53 Y140.92
G1 F720 X151.16 Y140.56 E232.49475
G0 F6000 X150.24 Y141.05
G1 F720 X149.92 Y140.73 E232.51353
G0 F6000 X149.15 Y141.37
G1 F720 X148.83 Y141.06 E232.53217
G0 F6000 X148.07 Y141.70
G1 F720 X147.77 Y141.41 E232.54963
G0 F6000 X147.14 Y142.19
G1 F720 X146.85 Y141.90 E232.56674
G0 F6000 X146.22 Y142.68
G1 F720 X145.93 Y142.39 E232.58376
G0 F6000 X145.13 Y143.01
G1 F720 X145.41 Y143.28 E232.60008
G0 F6000 X144.63 Y143.92
G1 F720 X144.35 Y143.65 E232.61639
G0 F6000 X143.65 Y144.35
G1 F720 X143.92 Y144.63 E232.63280
G0 F6000 X143.29 Y145.41
G1 F720 X143.01 Y145.13 E232.64923
;LAYER:11
G0 F6000 X142.31 Y145.70 Z2.50
;TYPE:WALL-OUTER
G1 F720 X143.84 Y143.84 E232.74913
G1 X145.70 Y142.31 E232.84904
G1 X147.81 Y141.18 E232.94879
G1 X150.11 Y140.49 E233.04849
G1 X152.50 Y140.25 E233.14843
G1 X154.89 Y140.49 E233.24836
G1 X157.19 Y141.18 E233.34807
G1 X159.30 Y142.31 E233.44782
G1 X161.16 Y143.84 E233.54772
G1 X162.69 Y145.70 E233.64763
