;-- START GCODE --
;Sliced for Type A Machines Series 1
;Sliced at: Fri 08-07-2016 22:18:47
;Basic settings: Layer height: 0.2 Walls: 1 Fill: 100
;Print Speed: 100 Support: 0
;Retraction Speed: 40 Retraction Distance: 1.2
;Print time: #P_TIME#
;Filament used: #F_AMNT#m #F_WGHT#g
;Filament cost: #F_COST#
M106 S255	 ;start with the fan on
G21        ;metric values
G90        ;absolute positioning
M106 S255    ;start with the fan on
G28     ;move to endstops
G29		;allows for auto-levelling
G1 X150 Y5  Z15.0 F6000 ;center and move the platform down 15mm
M109 S220 ;Heat To temp
G92 E0                  ;zero the extruded length
G1 F200 E30              ;extrude 30mm of feed stock
G92 E0                  ;zero the extruded length again
G1 X175 Y25  Z0 F6000 ;remove bugger
G1 X220 F6000 ;remove bugger
G1 X150 Y150  Z15 F6000 ;recenter and begin
G1 F6000

;Layer count: 7
;LAYER:0
M106 S255
G0 F6000 X141.91 Y137.41 Z0.30
;TYPE:WALL-OUTER
G1 F1860 X142.25 Y137.13 E0.02760
G1 X142.64 Y136.92 E0.05497
G1 X143.06 Y136.80 E0.08228
G1 X143.50 Y136.75 E0.10992
G1 X143.94 Y136.80 E0.13762
G1 X144.36 Y136.92 E0.16492
G1 X144.75 Y137.13 E0.19229
G1 X145.09 Y137.41 E0.21989
G1 X145.37 Y137.75 E0.24750
G1 X145.58 Y138.14 E0.27487
G1 X145.71 Y138.56 E0.30217
G1 X145.75 Y139.00 E0.32981
G1 X145.71 Y139.44 E0.35751
G1 X145.58 Y139.86 E0.38482
G1 X145.37 Y140.25 E0.41219
G1 X145.09 Y140.59 E0.43979
G1 X144.75 Y140.87 E0.46739
G1 X144.36 Y141.08 E0.49476
G1 X143.94 Y141.21 E0.52207
G1 X143.50 Y141.25 E0.54971
G1 X143.06 Y141.21 E0.57741
G1 X142.64 Y141.08 E0.60471
G1 X142.25 Y140.87 E0.63208
G1 X141.91 Y140.59 E0.65968
G1 X141.63 Y140.25 E0.68729
G1 X141.42 Y139.86 E0.71466
G1 X141.30 Y139.44 E0.74196
G1 X141.25 Y139.00 E0.76960
G1 X141.30 Y138.56 E0.79730
G1 X141.42 Y138.14 E0.82460
G1 X141.63 Y137.75 E0.85197
G1 X141.91 Y137.41 E0.87958
G0 F6000 X142.59 Y138.14
G1 F1860 X142.44 Y138.34 E0.89496
G1 X142.34 Y138.55 E0.90994
G1 X142.27 Y138.75 E0.92331
G1 X142.25 Y139.00 E0.93892
G1 X142.28 Y139.28 E0.95608
G1 X142.36 Y139.51 E0.97128
G1 X142.48 Y139.72 E0.98653
G1 X142.64 Y139.91 E1.00178
G1 X142.84 Y140.06 E1.01716
G1 X143.05 Y140.16 E1.03214
G1 X143.26 Y140.23 E1.04557
G1 X143.50 Y140.25 E1.06105
G1 X143.78 Y140.22 E1.07819
G1 X144.01 Y140.14 E1.09346
G1 X144.22 Y140.02 E1.10870
G1 X144.41 Y139.86 E1.12396
G1 X144.56 Y139.67 E1.13934
G1 X144.66 Y139.45 E1.15431
G1 X144.73 Y139.25 E1.16775
G1 X144.75 Y139.00 E1.18329
G1 X144.72 Y138.72 E1.20037
G1 X144.64 Y138.49 E1.21563
G1 X144.52 Y138.28 E1.23088
G1 X144.36 Y138.09 E1.24613
G1 X144.17 Y137.94 E1.26151
G1 X143.95 Y137.84 E1.27649
G1 X143.75 Y137.77 E1.28986
G1 X143.50 Y137.75 E1.30547
G1 X143.22 Y137.78 E1.32263
G1 X142.99 Y137.86 E1.33783
G1 X142.78 Y137.98 E1.35308
G1 X142.59 Y138.14 E1.36833
G0 F6000 X142.54 Y137.95
;TYPE:FILL
G1 F1860 X141.93 Y137.68 E1.40858
G1 X142.16 Y138.62 E1.45053
G1 X141.54 Y138.36 E1.49285
G0 F6000 X141.43 Y138.96
G1 F1860 X143.54 Y141.07 E1.67907
G0 F6000 X144.14 Y140.96
G1 F1860 X143.87 Y140.34 E1.72706
G1 X144.82 Y140.57 E1.76901
G1 X144.69 Y139.74 E1.80921
G1 X145.40 Y139.75 E1.85154
G1 X144.91 Y138.91 E1.91232
G0 F6000 X145.56 Y138.84
G1 F1860 X143.66 Y136.94 E2.07949
G0 F6000 X143.59 Y137.58
G1 F1860 X142.75 Y137.09 E2.13120
G1 X142.98 Y137.68 E2.17035
G0 F6000 X142.93 Y137.51
G0 X141.92 Y138.38
G0 X141.76 Y139.76
G0 X141.61 Y139.84
G1 F1860 X142.66 Y140.89 E2.26304
G0 F6000 X143.06 Y145.80
;TYPE:WALL-OUTER
G1 F1860 X143.50 Y145.75 E2.29068
G1 X143.94 Y145.80 E2.31838
G1 X144.36 Y145.92 E2.34568
G1 X144.75 Y146.13 E2.37305
G1 X145.09 Y146.41 E2.40065
G1 X145.37 Y146.75 E2.42826
G1 X145.58 Y147.14 E2.45563
G1 X145.71 Y147.56 E2.48293
G1 X145.75 Y148.00 E2.51057
G1 X145.71 Y148.44 E2.53827
G1 X145.58 Y148.86 E2.56557
G1 X145.37 Y149.25 E2.59294
G1 X145.09 Y149.59 E2.62055
G1 X144.75 Y149.87 E2.64815
G1 X144.36 Y150.08 E2.67552
G1 X143.94 Y150.21 E2.70283
G1 X143.50 Y150.25 E2.73046
G1 X143.06 Y150.21 E2.75817
G1 X142.64 Y150.08 E2.78547
G1 X142.25 Y149.87 E2.81284
G1 X141.91 Y149.59 E2.84044
G1 X141.63 Y149.25 E2.86805
G1 X141.42 Y148.86 E2.89542
G1 X141.30 Y148.44 E2.92272
G1 X141.25 Y148.00 E2.95036
G1 X141.30 Y147.56 E2.97806
G1 X141.42 Y147.14 E3.00536
G1 X141.63 Y146.75 E3.03273
G1 X141.91 Y146.41 E3.06034
G1 X142.25 Y146.13 E3.08794
G1 X142.64 Y145.92 E3.11531
G1 X143.06 Y145.80 E3.14262
G0 F6000 X143.22 Y146.78
G1 F1860 X142.99 Y146.86 E3.15782
G1 X142.78 Y146.98 E3.17307
G1 X142.59 Y147.14 E3.18832
G1 X142.44 Y147.34 E3.20370
G1 X142.34 Y147.55 E3.21868
G1 X142.27 Y147.75 E3.23205
G1 X142.25 Y148.00 E3.24766
G1 X142.28 Y148.28 E3.26482
G1 X142.36 Y148.51 E3.28003
G1 X142.48 Y148.72 E3.29527
G1 X142.64 Y148.91 E3.31053
G1 X142.84 Y149.06 E3.32591
G1 X143.05 Y149.16 E3.34088
G1 X143.26 Y149.23 E3.35432
G1 X143.50 Y149.25 E3.36979
G1 X143.78 Y149.22 E3.38693
G1 X144.01 Y149.14 E3.40220
G1 X144.22 Y149.02 E3.41744
G1 X144.41 Y148.86 E3.43270
G1 X144.56 Y148.67 E3.44808
G1 X144.66 Y148.45 E3.46306
G1 X144.73 Y148.25 E3.47649
G1 X144.75 Y148.00 E3.49203
G1 X144.72 Y147.72 E3.50911
G1 X144.64 Y147.49 E3.52437
G1 X144.52 Y147.28 E3.53962
G1 X144.36 Y147.09 E3.55487
G1 X144.17 Y146.94 E3.57025
G1 X143.95 Y146.84 E3.58523
G1 X143.75 Y146.77 E3.59860
G1 X143.50 Y146.75 E3.61422
G1 X143.22 Y146.78 E3.63137
G0 F6000 X143.40 Y146.58
;TYPE:FILL
G1 F1860 X142.62 Y146.15 E3.67920
G1 X142.65 Y146.89 E3.72115
G1 X141.84 Y146.79 E3.76130
G1 X142.13 Y147.78 E3.80353
G1 X141.49 Y147.50 E3.84681
G0 F6000 X141.44 Y148.16
G1 F1860 X143.34 Y150.06 E4.01398
G0 F6000 X143.41 Y149.42
G1 F1860 X144.25 Y149.90 E4.06577
G1 X144.24 Y149.19 E4.10828
G1 X145.07 Y149.32 E4.14854
G1 X144.84 Y148.37 E4.19053
G1 X145.46 Y148.64 E4.23287
G0 F6000 X145.57 Y148.04
G1 F1860 X143.46 Y145.93 E4.41909
G0 F6000 X144.34 Y146.11
G1 F1860 X145.39 Y147.16 E4.51183
G0 F6000 X143.94 Y154.79
;TYPE:WALL-OUTER
G1 F1860 X144.36 Y154.92 E4.53913
G1 X144.75 Y155.13 E4.56650
G1 X145.09 Y155.41 E4.59411
G1 X145.37 Y155.75 E4.62171
G1 X145.58 Y156.14 E4.64908
G1 X145.71 Y156.56 E4.67638
G1 X145.75 Y157.00 E4.70402
G1 X145.71 Y157.44 E4.73172
G1 X145.58 Y157.86 E4.75903
G1 X145.37 Y158.25 E4.78640
G1 X145.09 Y158.59 E4.81400
G1 X144.75 Y158.87 E4.84161
G1 X144.36 Y159.08 E4.86898
G1 X143.94 Y159.20 E4.89628
G1 X143.50 Y159.25 E4.92398
G1 X143.06 Y159.20 E4.95162
G1 X142.64 Y159.08 E4.97892
G1 X142.25 Y158.87 E5.00629
G1 X141.91 Y158.59 E5.03390
G1 X141.63 Y158.25 E5.06150
G1 X141.42 Y157.86 E5.08887
G1 X141.30 Y157.44 E5.11617
G1 X141.25 Y157.00 E5.14381
G1 X141.30 Y156.56 E5.17151
G1 X141.42 Y156.14 E5.19882
G1 X141.63 Y155.75 E5.22619
G1 X141.91 Y155.41 E5.25379
G1 X142.25 Y155.13 E5.28139
G1 X142.64 Y154.92 E5.30876
G1 X143.06 Y154.79 E5.33607
G1 X143.50 Y154.75 E5.36377
G1 X143.94 Y154.79 E5.39141
G0 F6000 X143.75 Y155.77
G1 F1860 X143.50 Y155.75 E5.40695
G1 X143.22 Y155.78 E5.42403
G1 X142.99 Y155.86 E5.43929
G1 X142.78 Y155.98 E5.45454
G1 X142.59 Y156.14 E5.46979
G1 X142.44 Y156.33 E5.48517
G1 X142.34 Y156.55 E5.50015
G1 X142.27 Y156.75 E5.51352
G1 X142.25 Y157.00 E5.52913
G1 X142.28 Y157.28 E5.54629
G1 X142.36 Y157.51 E5.56150
G1 X142.48 Y157.72 E5.57674
G1 X142.64 Y157.91 E5.59199
G1 X142.84 Y158.06 E5.60738
G1 X143.05 Y158.16 E5.62235
G1 X143.25 Y158.23 E5.63573
G1 X143.50 Y158.25 E5.65121
G1 X143.78 Y158.22 E5.66843
G1 X144.01 Y158.14 E5.68370
G1 X144.22 Y158.02 E5.69894
G1 X144.41 Y157.86 E5.71420
G1 X144.56 Y157.66 E5.72958
G1 X144.66 Y157.45 E5.74455
G1 X144.73 Y157.24 E5.75799
G1 X144.75 Y157.00 E5.77346
G1 X144.72 Y156.72 E5.79061
G1 X144.64 Y156.49 E5.80587
G1 X144.52 Y156.28 E5.82112
G1 X144.36 Y156.09 E5.83637
G1 X144.17 Y155.94 E5.85175
G1 X143.95 Y155.84 E5.86673
G1 X143.75 Y155.77 E5.88016
G0 F6000 X144.00 Y155.67
;TYPE:FILL
G1 F1860 X143.28 Y154.95 E5.94344
G0 F6000 X142.71 Y155.08
G1 F1860 X142.98 Y155.71 E5.98923
G1 X142.08 Y155.52 E6.02980
G1 X142.25 Y156.39 E6.07026
G1 X141.54 Y156.39 E6.11454
G1 X142.11 Y157.31 E6.18188
G0 F6000 X141.47 Y157.38
G1 F1860 X143.12 Y159.03 E6.32811
G0 F6000 X143.18 Y158.39
G1 F1860 X144.10 Y158.95 E6.38539
G1 X144.11 Y158.25 E6.42949
G1 X144.98 Y158.41 E6.46968
G1 X144.79 Y157.52 E6.51019
G1 X145.42 Y157.79 E6.55234
G0 F6000 X145.55 Y157.22
G1 F1860 X144.83 Y156.49 E6.61624
G0 F6000 X145.49 Y156.45
G1 F1860 X144.05 Y155.01 E6.74337
G0 F6000 X150.30 Y156.56
;TYPE:WALL-OUTER
G1 F1860 X150.42 Y156.14 E6.77068
G1 X150.63 Y155.75 E6.79805
G1 X150.91 Y155.41 E6.82565
G1 X151.25 Y155.13 E6.85325
G1 X151.64 Y154.92 E6.88062
G1 X152.06 Y154.79 E6.90793
G1 X152.50 Y154.75 E6.93557
G1 X152.94 Y154.79 E6.96320
G1 X153.36 Y154.92 E6.99051
G1 X153.75 Y155.13 E7.01788
G1 X154.09 Y155.41 E7.04548
G1 X154.37 Y155.75 E7.07309
G1 X154.58 Y156.14 E7.10046
G1 X154.70 Y156.56 E7.12776
G1 X154.75 Y157.00 E7.15546
G1 X154.70 Y157.44 E7.18310
G1 X154.58 Y157.86 E7.21040
G1 X154.37 Y158.25 E7.23777
G1 X154.09 Y158.59 E7.26538
G1 X153.75 Y158.87 E7.29298
G1 X153.36 Y159.08 E7.32035
G1 X152.94 Y159.20 E7.34765
G1 X152.50 Y159.25 E7.37529
G1 X152.06 Y159.20 E7.40293
G1 X151.64 Y159.08 E7.43023
G1 X151.25 Y158.87 E7.45760
G1 X150.91 Y158.59 E7.48521
G1 X150.63 Y158.25 E7.51281
G1 X150.42 Y157.86 E7.54018
G1 X150.30 Y157.44 E7.56749
G1 X150.25 Y157.00 E7.59512
G1 X150.30 Y156.56 E7.62283
G0 F6000 X151.27 Y156.75
G1 F1860 X151.25 Y157.00 E7.63844
G1 X151.28 Y157.28 E7.65559
G1 X151.36 Y157.51 E7.67080
G1 X151.48 Y157.72 E7.68605
G1 X151.64 Y157.91 E7.70130
G1 X151.84 Y158.06 E7.71668
G1 X152.05 Y158.16 E7.73166
G1 X152.25 Y158.23 E7.74503
G1 X152.50 Y158.25 E7.76058
G1 X152.78 Y158.22 E7.77774
G1 X153.01 Y158.14 E7.79294
G1 X153.22 Y158.02 E7.80819
G1 X153.41 Y157.86 E7.82344
G1 X153.56 Y157.66 E7.83882
G1 X153.66 Y157.45 E7.85380
G1 X153.73 Y157.25 E7.86717
G1 X153.75 Y157.00 E7.88266
G1 X153.72 Y156.72 E7.89988
G1 X153.64 Y156.49 E7.91515
G1 X153.52 Y156.28 E7.93039
G1 X153.36 Y156.09 E7.94565
G1 X153.16 Y155.94 E7.96103
G1 X152.95 Y155.84 E7.97600
G1 X152.74 Y155.77 E7.98944
G1 X152.50 Y155.75 E8.00491
G1 X152.22 Y155.78 E8.02199
G1 X151.99 Y155.86 E8.03726
G1 X151.78 Y155.98 E8.05250
G1 X151.59 Y156.14 E8.06776
G1 X151.44 Y156.33 E8.08314
G1 X151.34 Y156.55 E8.09811
G1 X151.27 Y156.75 E8.11149
G0 F6000 X151.18 Y156.48
;TYPE:FILL
G1 F1860 X150.84 Y155.79 E8.15374
G1 X151.65 Y155.89 E8.19385
G1 X151.61 Y155.15 E8.23579
G1 X152.40 Y155.58 E8.29181
G0 F6000 X152.46 Y154.93
G1 F1860 X154.57 Y157.04 E8.47799
G0 F6000 X154.46 Y157.64
G1 F1860 X153.84 Y157.37 E8.52607
G1 X154.07 Y158.32 E8.56814
G1 X153.24 Y158.18 E8.60835
G1 X153.25 Y158.90 E8.65086
G1 X152.41 Y158.42 E8.71138
G0 F6000 X152.34 Y159.06
G1 F1860 X150.44 Y157.16 E8.87847
G0 F6000 X151.08 Y157.09
G1 F1860 X150.49 Y156.50 E8.93032
G0 F6000 X150.66 Y156.56
G0 X152.13 Y155.34
G0 X153.25 Y155.26
G0 X153.34 Y155.11
G1 F1860 X154.39 Y156.16 E9.02297
G0 F6000 X159.29 Y156.56
;TYPE:WALL-OUTER
G1 F1860 X159.42 Y156.14 E9.05028
G1 X159.63 Y155.75 E9.07765
G1 X159.91 Y155.41 E9.10525
G1 X160.25 Y155.13 E9.13285
G1 X160.64 Y154.92 E9.16022
G1 X161.06 Y154.79 E9.18753
G1 X161.50 Y154.75 E9.21523
G1 X161.94 Y154.79 E9.24287
G1 X162.36 Y154.92 E9.27017
G1 X162.75 Y155.13 E9.29754
G1 X163.09 Y155.41 E9.32514
G1 X163.37 Y155.75 E9.35275
G1 X163.58 Y156.14 E9.38012
G1 X163.70 Y156.56 E9.40742
G1 X163.75 Y157.00 E9.43512
G1 X163.70 Y157.44 E9.46276
G1 X163.58 Y157.86 E9.49007
G1 X163.37 Y158.25 E9.51744
G1 X163.09 Y158.59 E9.54504
G1 X162.75 Y158.87 E9.57264
G1 X162.36 Y159.08 E9.60001
G1 X161.94 Y159.20 E9.62732
G1 X161.50 Y159.25 E9.65496
G1 X161.06 Y159.20 E9.68266
G1 X160.64 Y159.08 E9.70996
G1 X160.25 Y158.87 E9.73733
G1 X159.91 Y158.59 E9.76493
G1 X159.63 Y158.25 E9.79254
G1 X159.42 Y157.86 E9.81991
G1 X159.29 Y157.44 E9.84721
G1 X159.25 Y157.00 E9.87491
G1 X159.29 Y156.56 E9.90255
G0 F6000 X160.27 Y156.75
G1 F1860 X160.25 Y157.00 E9.91809
G1 X160.28 Y157.28 E9.93517
G1 X160.36 Y157.51 E9.95043
G1 X160.48 Y157.72 E9.96568
G1 X160.64 Y157.91 E9.98093
G1 X160.83 Y158.06 E9.99631
G1 X161.05 Y158.16 E10.01129
G1 X161.25 Y158.23 E10.02466
G1 X161.50 Y158.25 E10.04028
G1 X161.78 Y158.22 E10.05743
G1 X162.01 Y158.14 E10.07264
G1 X162.22 Y158.02 E10.08788
G1 X162.41 Y157.86 E10.10314
G1 X162.56 Y157.66 E10.11852
G1 X162.66 Y157.45 E10.13349
G1 X162.73 Y157.25 E10.14687
G1 X162.75 Y157.00 E10.16236
G1 X162.72 Y156.72 E10.17958
G1 X162.64 Y156.49 E10.19484
G1 X162.52 Y156.28 E10.21009
G1 X162.36 Y156.09 E10.22534
G1 X162.16 Y155.94 E10.24072
G1 X161.95 Y155.84 E10.25570
G1 X161.74 Y155.77 E10.26913
G1 X161.50 Y155.75 E10.28461
G1 X161.22 Y155.78 E10.30175
G1 X160.99 Y155.86 E10.31701
G1 X160.78 Y155.98 E10.33226
G1 X160.59 Y156.14 E10.34751
G1 X160.44 Y156.33 E10.36289
G1 X160.34 Y156.55 E10.37787
G1 X160.27 Y156.75 E10.39130
G0 F6000 X160.08 Y156.90
;TYPE:FILL
G1 F1860 X159.65 Y156.11 E10.43928
G1 X160.39 Y156.15 E10.48140
G1 X160.29 Y155.34 E10.52166
G1 X161.29 Y155.63 E10.56425
G1 X161.00 Y154.99 E10.60763
G0 F6000 X161.66 Y154.94
G1 F1860 X163.56 Y156.84 E10.77476
G0 F6000 X162.91 Y156.91
G1 F1860 X163.40 Y157.75 E10.82674
G1 X162.69 Y157.74 E10.86904
G1 X162.82 Y158.57 E10.90924
G1 X161.87 Y158.34 E10.95118
G1 X162.14 Y158.96 E10.99344
G0 F6000 X161.54 Y159.07
G1 F1860 X159.43 Y156.96 E11.17975
G0 F6000 X159.61 Y157.84
G1 F1860 X160.66 Y158.89 E11.27244
G0 F6000 X161.50 Y150.25
;TYPE:WALL-OUTER
G1 F1860 X161.06 Y150.21 E11.30008
G1 X160.64 Y150.08 E11.32739
G1 X160.25 Y149.87 E11.35476
G1 X159.91 Y149.59 E11.38236
G1 X159.63 Y149.25 E11.40996
G1 X159.42 Y148.86 E11.43733
G1 X159.29 Y148.44 E11.46464
G1 X159.25 Y148.00 E11.49234
G1 X159.29 Y147.56 E11.51998
G1 X159.42 Y147.14 E11.54728
G1 X159.63 Y146.75 E11.57465
G1 X159.91 Y146.41 E11.60225
G1 X160.25 Y146.13 E11.62986
G1 X160.64 Y145.92 E11.65723
G1 X161.06 Y145.80 E11.68453
G1 X161.50 Y145.75 E11.71217
G1 X161.94 Y145.80 E11.73987
G1 X162.36 Y145.92 E11.76717
G1 X162.75 Y146.13 E11.79454
G1 X163.09 Y146.41 E11.82215
G1 X163.37 Y146.75 E11.84975
G1 X163.58 Y147.14 E11.87712
G1 X163.70 Y147.56 E11.90443
G1 X163.75 Y148.00 E11.93206
G1 X163.70 Y148.44 E11.95977
G1 X163.58 Y148.86 E11.98707
G1 X163.37 Y149.25 E12.01444
G1 X163.09 Y149.59 E12.04204
G1 X162.75 Y149.87 E12.06965
G1 X162.36 Y150.08 E12.09702
G1 X161.94 Y150.21 E12.12432
G1 X161.50 Y150.25 E12.15202
G0 F6000 X161.50 Y149.25
G1 F1860 X161.78 Y149.22 E12.16910
G1 X162.01 Y149.14 E12.18437
G1 X162.22 Y149.02 E12.19961
G1 X162.41 Y148.86 E12.21486
G1 X162.56 Y148.67 E12.23025
G1 X162.66 Y148.45 E12.24522
G1 X162.73 Y148.25 E12.25860
G1 X162.75 Y148.00 E12.27421
G1 X162.72 Y147.72 E12.29137
G1 X162.64 Y147.49 E12.30657
G1 X162.52 Y147.28 E12.32182
G1 X162.36 Y147.09 E12.33707
G1 X162.16 Y146.94 E12.35245
G1 X161.95 Y146.84 E12.36743
G1 X161.75 Y146.77 E12.38080
G1 X161.50 Y146.75 E12.39629
G1 X161.22 Y146.78 E12.41351
G1 X160.99 Y146.86 E12.42877
G1 X160.78 Y146.98 E12.44402
G1 X160.59 Y147.14 E12.45927
G1 X160.44 Y147.34 E12.47465
G1 X160.34 Y147.55 E12.48963
G1 X160.27 Y147.76 E12.50306
G1 X160.25 Y148.00 E12.51860
G1 X160.28 Y148.28 E12.53568
G1 X160.36 Y148.51 E12.55095
G1 X160.48 Y148.72 E12.56619
G1 X160.64 Y148.91 E12.58145
G1 X160.83 Y149.06 E12.59683
G1 X161.05 Y149.16 E12.61180
G1 X161.25 Y149.23 E12.62524
G1 X161.50 Y149.25 E12.64077
G0 F6000 X161.77 Y149.40
;TYPE:FILL
G1 F1860 X162.51 Y149.78 E12.68649
G1 X162.45 Y149.02 E12.72701
G1 X163.23 Y149.09 E12.76745
G1 X163.20 Y148.35 E12.81164
G1 X162.89 Y147.69 E12.85761
G0 F6000 X163.53 Y147.62
G1 F1860 X161.88 Y145.97 E13.00388
G0 F6000 X161.81 Y146.61
G1 F1860 X160.89 Y146.04 E13.06124
G1 X160.89 Y146.74 E13.10533
G1 X160.02 Y146.58 E13.14552
G1 X160.20 Y147.47 E13.18610
G1 X159.58 Y147.21 E13.22823
G0 F6000 X159.45 Y147.78
G1 F1860 X160.17 Y148.50 E13.29212
G0 F6000 X159.51 Y148.55
G1 F1860 X160.95 Y149.99 E13.41930
G0 F6000 X161.00 Y149.33
G1 F1860 X161.72 Y150.05 E13.48262
G0 F6000 X154.70 Y148.44
;TYPE:WALL-OUTER
G1 F1860 X154.58 Y148.86 E13.50993
G1 X154.37 Y149.25 E13.53730
G1 X154.09 Y149.59 E13.56490
G1 X153.75 Y149.87 E13.59250
G1 X153.36 Y150.08 E13.61987
G1 X152.94 Y150.21 E13.64718
G1 X152.50 Y150.25 E13.67482
G1 X152.06 Y150.21 E13.70246
G1 X151.64 Y150.08 E13.72976
G1 X151.25 Y149.87 E13.75713
G1 X150.91 Y149.59 E13.78473
G1 X150.63 Y149.25 E13.81234
G1 X150.42 Y148.86 E13.83971
G1 X150.30 Y148.44 E13.86701
G1 X150.25 Y148.00 E13.89465
G1 X150.30 Y147.56 E13.92235
G1 X150.42 Y147.14 E13.94965
G1 X150.63 Y146.75 E13.97702
G1 X150.91 Y146.41 E14.00463
G1 X151.25 Y146.13 E14.03223
G1 X151.64 Y145.92 E14.05960
G1 X152.06 Y145.80 E14.08691
G1 X152.50 Y145.75 E14.11454
G1 X152.94 Y145.80 E14.14218
G1 X153.36 Y145.92 E14.16949
G1 X153.75 Y146.13 E14.19686
G1 X154.09 Y146.41 E14.22446
G1 X154.37 Y146.75 E14.25206
G1 X154.58 Y147.14 E14.27943
G1 X154.70 Y147.56 E14.30674
G1 X154.75 Y148.00 E14.33438
G1 X154.70 Y148.44 E14.36208
G0 F6000 X153.73 Y148.25
G1 F1860 X153.75 Y148.00 E14.37769
G1 X153.72 Y147.72 E14.39485
G1 X153.64 Y147.49 E14.41005
G1 X153.52 Y147.28 E14.42530
G1 X153.36 Y147.09 E14.44055
G1 X153.16 Y146.94 E14.45593
G1 X152.95 Y146.84 E14.47091
G1 X152.75 Y146.77 E14.48428
G1 X152.50 Y146.75 E14.49983
G1 X152.22 Y146.78 E14.51699
G1 X151.99 Y146.86 E14.53219
G1 X151.78 Y146.98 E14.54744
G1 X151.59 Y147.14 E14.56269
G1 X151.44 Y147.34 E14.57807
G1 X151.34 Y147.55 E14.59305
G1 X151.27 Y147.75 E14.60643
G1 X151.25 Y148.00 E14.62204
G1 X151.28 Y148.28 E14.63920
G1 X151.36 Y148.51 E14.65440
G1 X151.48 Y148.72 E14.66965
G1 X151.64 Y148.91 E14.68490
G1 X151.84 Y149.06 E14.70028
G1 X152.05 Y149.16 E14.71526
G1 X152.26 Y149.23 E14.72869
G1 X152.50 Y149.25 E14.74417
G1 X152.78 Y149.22 E14.76125
G1 X153.01 Y149.14 E14.77651
G1 X153.22 Y149.02 E14.79176
G1 X153.41 Y148.86 E14.80701
G1 X153.56 Y148.67 E14.82239
G1 X153.66 Y148.45 E14.83737
G1 X153.73 Y148.25 E14.85074
G0 F6000 X153.82 Y148.52
;TYPE:FILL
G1 F1860 X154.16 Y149.21 E14.89306
G1 X153.35 Y149.11 E14.93316
G1 X153.38 Y149.85 E14.97511
G1 X152.60 Y149.41 E15.03112
G0 F6000 X152.54 Y150.07
G1 F1860 X150.43 Y147.96 E15.21721
G0 F6000 X150.54 Y147.36
G1 F1860 X151.16 Y147.62 E15.26520
G1 X150.93 Y146.68 E15.30715
G1 X151.76 Y146.81 E15.34735
G1 X151.75 Y146.09 E15.38981
G1 X152.59 Y146.58 E15.45033
G0 F6000 X152.66 Y145.94
G1 F1860 X154.56 Y147.84 E15.61737
G0 F6000 X153.92 Y147.91
G1 F1860 X154.50 Y148.49 E15.66923
G0 F6000 X154.34 Y148.44
G0 X152.87 Y149.66
G0 X151.74 Y149.74
G0 X151.66 Y149.89
G1 F1860 X150.61 Y148.84 E15.76187
G0 F6000 X152.06 Y141.21
;TYPE:WALL-OUTER
G1 F1860 X151.64 Y141.08 E15.78918
G1 X151.25 Y140.87 E15.81655
G1 X150.91 Y140.59 E15.84415
G1 X150.63 Y140.25 E15.87176
G1 X150.42 Y139.86 E15.89913
G1 X150.30 Y139.44 E15.92643
G1 X150.25 Y139.00 E15.95407
G1 X150.30 Y138.56 E15.98177
G1 X150.42 Y138.14 E16.00907
G1 X150.63 Y137.75 E16.03644
G1 X150.91 Y137.41 E16.06405
G1 X151.25 Y137.13 E16.09165
G1 X151.64 Y136.92 E16.11902
G1 X152.06 Y136.80 E16.14632
G1 X152.50 Y136.75 E16.17396
G1 X152.94 Y136.80 E16.20160
G1 X153.36 Y136.92 E16.22890
G1 X153.75 Y137.13 E16.25627
G1 X154.09 Y137.41 E16.28388
G1 X154.37 Y137.75 E16.31148
G1 X154.58 Y138.14 E16.33885
G1 X154.70 Y138.56 E16.36616
G1 X154.75 Y139.00 E16.39379
G1 X154.70 Y139.44 E16.42150
G1 X154.58 Y139.86 E16.44880
G1 X154.37 Y140.25 E16.47617
G1 X154.09 Y140.59 E16.50377
G1 X153.75 Y140.87 E16.53138
G1 X153.36 Y141.08 E16.55875
G1 X152.94 Y141.21 E16.58605
G1 X152.50 Y141.25 E16.61369
G1 X152.06 Y141.21 E16.64133
G0 F6000 X152.26 Y140.23
G1 F1860 X152.50 Y140.25 E16.65680
G1 X152.78 Y140.22 E16.67388
G1 X153.01 Y140.14 E16.68915
G1 X153.22 Y140.02 E16.70439
G1 X153.41 Y139.86 E16.71965
G1 X153.56 Y139.67 E16.73503
G1 X153.66 Y139.45 E16.75000
G1 X153.73 Y139.25 E16.76338
G1 X153.75 Y139.00 E16.77899
G1 X153.72 Y138.72 E16.79615
G1 X153.64 Y138.49 E16.81135
G1 X153.52 Y138.28 E16.82660
G1 X153.36 Y138.09 E16.84185
G1 X153.16 Y137.94 E16.85723
G1 X152.95 Y137.84 E16.87221
G1 X152.75 Y137.77 E16.88558
G1 X152.50 Y137.75 E16.90113
G1 X152.22 Y137.78 E16.91829
G1 X151.99 Y137.86 E16.93350
G1 X151.78 Y137.98 E16.94874
G1 X151.59 Y138.14 E16.96400
G1 X151.44 Y138.34 E16.97938
G1 X151.34 Y138.55 E16.99435
G1 X151.27 Y138.75 E17.00773
G1 X151.25 Y139.00 E17.02334
G1 X151.28 Y139.28 E17.04050
G1 X151.36 Y139.51 E17.05570
G1 X151.48 Y139.72 E17.07095
G1 X151.64 Y139.91 E17.08620
G1 X151.84 Y140.06 E17.10158
G1 X152.05 Y140.16 E17.11656
G1 X152.26 Y140.23 E17.12999
G0 F6000 X152.00 Y140.33
;TYPE:FILL
G1 F1860 X152.72 Y141.05 E17.19340
G0 F6000 X153.29 Y140.91
G1 F1860 X153.02 Y140.29 E17.23922
G1 X153.91 Y140.48 E17.27972
G1 X153.75 Y139.61 E17.32018
G1 X154.45 Y139.60 E17.36431
G1 X153.89 Y138.69 E17.43159
G0 F6000 X154.53 Y138.62
G1 F1860 X152.88 Y136.97 E17.57786
G0 F6000 X152.81 Y137.61
G1 F1860 X151.89 Y137.04 E17.63514
G1 X151.89 Y137.75 E17.67924
G1 X151.02 Y137.58 E17.71938
G1 X151.20 Y138.47 E17.76000
G1 X150.58 Y138.21 E17.80209
G0 F6000 X150.45 Y138.78
G1 F1860 X151.18 Y139.51 E17.86617
G0 F6000 X150.51 Y139.55
G1 F1860 X151.95 Y140.99 E17.99325
G0 F6000 X159.29 Y139.44
;TYPE:WALL-OUTER
G1 F1860 X159.25 Y139.00 E18.02096
G1 X159.29 Y138.56 E18.04859
G1 X159.42 Y138.14 E18.07590
G1 X159.63 Y137.75 E18.10327
G1 X159.91 Y137.41 E18.13087
G1 X160.25 Y137.13 E18.15848
G1 X160.64 Y136.92 E18.18585
G1 X161.06 Y136.80 E18.21315
G1 X161.50 Y136.75 E18.24079
G1 X161.94 Y136.80 E18.26849
G1 X162.36 Y136.92 E18.29579
G1 X162.75 Y137.13 E18.32316
G1 X163.09 Y137.41 E18.35077
G1 X163.37 Y137.75 E18.37837
G1 X163.58 Y138.14 E18.40574
G1 X163.70 Y138.56 E18.43304
G1 X163.75 Y139.00 E18.46068
G1 X163.70 Y139.44 E18.48838
G1 X163.58 Y139.86 E18.51569
G1 X163.37 Y140.25 E18.54306
G1 X163.09 Y140.59 E18.57066
G1 X162.75 Y140.87 E18.59826
G1 X162.36 Y141.08 E18.62563
G1 X161.94 Y141.21 E18.65294
G1 X161.50 Y141.25 E18.68064
G1 X161.06 Y141.21 E18.70828
G1 X160.64 Y141.08 E18.73558
G1 X160.25 Y140.87 E18.76295
G1 X159.91 Y140.59 E18.79056
G1 X159.63 Y140.25 E18.81816
G1 X159.42 Y139.86 E18.84553
G1 X159.29 Y139.44 E18.87283
G0 F6000 X160.28 Y139.28
G1 F1860 X160.36 Y139.51 E18.88810
G1 X160.48 Y139.72 E18.90334
G1 X160.64 Y139.91 E18.91860
G1 X160.83 Y140.06 E18.93398
G1 X161.05 Y140.16 E18.94895
G1 X161.25 Y140.23 E18.96239
G1 X161.50 Y140.25 E18.97793
G1 X161.78 Y140.22 E18.99501
G1 X162.01 Y140.14 E19.01027
G1 X162.22 Y140.02 E19.02552
G1 X162.41 Y139.86 E19.04077
G1 X162.56 Y139.67 E19.05615
G1 X162.66 Y139.45 E19.07113
G1 X162.73 Y139.25 E19.08450
G1 X162.75 Y139.00 E19.10011
G1 X162.72 Y138.72 E19.11727
G1 X162.64 Y138.49 E19.13248
G1 X162.52 Y138.28 E19.14772
G1 X162.36 Y138.09 E19.16297
G1 X162.16 Y137.94 E19.17836
G1 X161.95 Y137.84 E19.19333
G1 X161.75 Y137.77 E19.20671
G1 X161.50 Y137.75 E19.22220
G1 X161.22 Y137.78 E19.23941
G1 X160.99 Y137.86 E19.25468
G1 X160.78 Y137.98 E19.26992
G1 X160.59 Y138.14 E19.28518
G1 X160.44 Y138.34 E19.30056
G1 X160.34 Y138.55 E19.31553
G1 X160.27 Y138.76 E19.32897
G1 X160.25 Y139.00 E19.34451
G1 X160.28 Y139.28 E19.36159
G0 F6000 X160.10 Y139.24
;TYPE:FILL
G1 F1860 X159.56 Y138.34 E19.41736
G1 X160.27 Y138.35 E19.46093
G1 X160.12 Y137.49 E19.50118
G1 X161.03 Y137.69 E19.54235
G1 X160.76 Y137.07 E19.58459
G0 F6000 X161.34 Y136.94
G1 F1860 X162.12 Y137.73 E19.65360
G0 F6000 X162.14 Y137.04
G1 F1860 X163.46 Y138.36 E19.76993
G0 F6000 X162.78 Y138.38
G1 F1860 X163.56 Y139.16 E19.83863
G0 F6000 X163.43 Y139.74
G1 F1860 X162.81 Y139.47 E19.88506
G1 X163.01 Y140.38 E19.92596
G1 X162.15 Y140.23 E19.96605
G1 X162.15 Y140.94 E20.00964
G1 X161.26 Y140.40 E20.07461
G0 F6000 X161.19 Y141.04
G1 F1860 X159.46 Y139.30 E20.22784
G0 F6000 X152.94 Y163.79
;TYPE:WALL-OUTER
G1 F1860 X153.36 Y163.92 E20.25515
G1 X153.75 Y164.13 E20.28252
G1 X154.09 Y164.41 E20.31012
G1 X154.37 Y164.75 E20.33773
G1 X154.58 Y165.14 E20.36510
G1 X154.70 Y165.56 E20.39240
G1 X154.75 Y166.00 E20.42010
G1 X154.70 Y166.44 E20.44774
G1 X154.58 Y166.86 E20.47504
G1 X154.37 Y167.25 E20.50241
G1 X154.09 Y167.59 E20.53002
G1 X153.75 Y167.87 E20.55762
G1 X153.36 Y168.08 E20.58499
G1 X152.94 Y168.20 E20.61229
G1 X152.50 Y168.25 E20.63993
G1 X152.06 Y168.20 E20.66757
G1 X151.64 Y168.08 E20.69488
G1 X151.25 Y167.87 E20.72225
G1 X150.91 Y167.59 E20.74985
G1 X150.63 Y167.25 E20.77745
G1 X150.42 Y166.86 E20.80482
G1 X150.30 Y166.44 E20.83213
G1 X150.25 Y166.00 E20.85977
G1 X150.30 Y165.56 E20.88747
G1 X150.42 Y165.14 E20.91477
G1 X150.63 Y164.75 E20.94214
G1 X150.91 Y164.41 E20.96974
G1 X151.25 Y164.13 E20.99735
G1 X151.64 Y163.92 E21.02472
G1 X152.06 Y163.79 E21.05202
G1 X152.50 Y163.75 E21.07966
G1 X152.94 Y163.79 E21.10730
G0 F6000 X152.74 Y164.77
G1 F1860 X152.50 Y164.75 E21.12278
G1 X152.22 Y164.78 E21.13985
G1 X151.99 Y164.86 E21.15512
G1 X151.78 Y164.98 E21.17036
G1 X151.59 Y165.14 E21.18562
G1 X151.44 Y165.33 E21.20100
G1 X151.34 Y165.55 E21.21598
G1 X151.27 Y165.75 E21.22935
G1 X151.25 Y166.00 E21.24496
G1 X151.28 Y166.28 E21.26212
G1 X151.36 Y166.51 E21.27732
G1 X151.48 Y166.72 E21.29257
G1 X151.64 Y166.91 E21.30782
G1 X151.84 Y167.06 E21.32320
G1 X152.05 Y167.16 E21.33818
G1 X152.25 Y167.23 E21.35156
G1 X152.50 Y167.25 E21.36711
G1 X152.78 Y167.22 E21.38426
G1 X153.01 Y167.14 E21.39947
G1 X153.22 Y167.02 E21.41471
G1 X153.41 Y166.86 E21.42997
G1 X153.56 Y166.66 E21.44535
G1 X153.66 Y166.45 E21.46032
G1 X153.73 Y166.25 E21.47370
G1 X153.75 Y166.00 E21.48919
G1 X153.72 Y165.72 E21.50641
G1 X153.64 Y165.49 E21.52167
G1 X153.52 Y165.28 E21.53692
G1 X153.36 Y165.09 E21.55217
G1 X153.16 Y164.94 E21.56755
G1 X152.95 Y164.84 E21.58253
G1 X152.74 Y164.77 E21.59596
G0 F6000 X153.00 Y164.67
;TYPE:FILL
G1 F1860 X152.28 Y163.95 E21.65933
G0 F6000 X151.71 Y164.08
G1 F1860 X151.98 Y164.71 E21.70511
G1 X151.08 Y164.52 E21.74573
G1 X151.25 Y165.39 E21.78619
G1 X150.54 Y165.39 E21.83050
G1 X151.11 Y166.31 E21.89777
G0 F6000 X150.47 Y166.38
G1 F1860 X152.12 Y168.03 E22.04400
G0 F6000 X152.18 Y167.39
G1 F1860 X153.10 Y167.95 E22.10126
G1 X153.11 Y167.25 E22.14535
G1 X153.98 Y167.41 E22.18538
G1 X153.79 Y166.52 E22.22599
G1 X154.42 Y166.79 E22.26817
G0 F6000 X154.55 Y166.22
G1 F1860 X153.82 Y165.49 E22.33220
G0 F6000 X154.49 Y165.45
G1 F1860 X153.05 Y164.01 E22.45920
;LAYER:1
G0 F6000 X153.00 Y164.18 Z0.50
G0 X154.10 Y165.31
;TYPE:WALL-INNER
G1 F1440 X154.11 Y165.33 E22.45991
G1 X154.13 Y165.40 E22.46285
G1 X154.10 Y165.31 E22.46650
G0 F6000 X153.63 Y165.47
;TYPE:WALL-OUTER
G1 F1440 X153.54 Y165.31 E22.47429
G1 X153.38 Y165.11 E22.48452
G1 X153.19 Y164.96 E22.49474
G1 X152.98 Y164.84 E22.50492
G1 X152.74 Y164.77 E22.51508
G1 X152.50 Y164.75 E22.52528
G1 X152.25 Y164.77 E22.53568
G1 X151.97 Y164.87 E22.54800
G1 X151.81 Y164.96 E22.55579
G1 X151.62 Y165.11 E22.56602
G1 X151.46 Y165.31 E22.57624
G1 X151.34 Y165.52 E22.58642
G1 X151.27 Y165.75 E22.59655
G1 X151.25 Y166.00 E22.60683
G1 X151.27 Y166.25 E22.61727
G1 X151.37 Y166.53 E22.62955
G1 X151.46 Y166.69 E22.63735
G1 X151.62 Y166.88 E22.64757
G1 X151.81 Y167.04 E22.65780
G1 X152.02 Y167.16 E22.66797
G1 X152.25 Y167.23 E22.67810
G1 X152.50 Y167.25 E22.68834
G1 X152.75 Y167.23 E22.69878
G1 X153.03 Y167.13 E22.71106
G1 X153.19 Y167.04 E22.71886
G1 X153.38 Y166.88 E22.72909
G1 X153.54 Y166.69 E22.73931
G1 X153.66 Y166.48 E22.74949
G1 X153.73 Y166.25 E22.75961
G1 X153.75 Y166.00 E22.76985
G1 X153.73 Y165.75 E22.78030
G1 X153.63 Y165.47 E22.79262
G0 F6000 X154.58 Y165.14
G1 F1440 X154.70 Y165.56 E22.81082
G1 X154.75 Y166.00 E22.82929
G1 X154.70 Y166.44 E22.84771
G1 X154.58 Y166.86 E22.86591
G1 X154.37 Y167.25 E22.88416
G1 X154.09 Y167.59 E22.90256
G1 X153.75 Y167.87 E22.92097
G1 X153.36 Y168.08 E22.93921
G1 X152.94 Y168.20 E22.95742
G1 X152.50 Y168.25 E22.97584
G1 X152.06 Y168.20 E22.99427
G1 X151.64 Y168.08 E23.01247
G1 X151.25 Y167.87 E23.03072
G1 X150.91 Y167.59 E23.04912
G1 X150.63 Y167.25 E23.06752
G1 X150.42 Y166.86 E23.08577
G1 X150.30 Y166.44 E23.10397
G1 X150.25 Y166.00 E23.12240
G1 X150.30 Y165.56 E23.14086
G1 X150.42 Y165.14 E23.15907
G1 X150.63 Y164.75 E23.17731
G1 X150.91 Y164.41 E23.19572
G1 X151.25 Y164.13 E23.21412
G1 X151.64 Y163.92 E23.23236
G1 X152.06 Y163.79 E23.25057
G1 X152.50 Y163.75 E23.26899
G1 X152.94 Y163.79 E23.28742
G1 X153.36 Y163.92 E23.30562
G1 X153.75 Y164.13 E23.32387
G1 X154.09 Y164.41 E23.34227
G1 X154.37 Y164.75 E23.36067
G1 X154.58 Y165.14 E23.37892
G0 F6000 X154.43 Y165.54
;TYPE:FILL
G1 F1440 X154.00 Y165.97 E23.40403
G0 F6000 X154.48 Y166.19
G1 F1440 X152.70 Y167.98 E23.50874
G0 F6000 X152.47 Y167.50
G1 F1440 X151.78 Y167.83 E23.53435
G1 X151.68 Y167.23 E23.55578
G1 X150.96 Y167.24 E23.57620
G1 X151.09 Y166.40 E23.59748
G1 X150.59 Y166.55 E23.61905
G0 F6000 X150.51 Y165.92
G1 F1440 X151.23 Y165.20 E23.66153
G0 F6000 X150.87 Y164.85
G1 F1440 X151.36 Y164.37 E23.69034
G0 F6000 X151.70 Y164.73
G1 F1440 X152.42 Y164.01 E23.73288
G0 F6000 X152.63 Y164.51
G1 F1440 X153.29 Y164.19 E23.75762
G1 X153.38 Y164.81 E23.77907
G1 X153.94 Y164.62 E23.80349
G0 F6000 X154.13 Y156.40
;TYPE:WALL-INNER
G1 F1440 X154.10 Y156.31 E23.80713
G1 X154.11 Y156.33 E23.80784
G1 X154.13 Y156.40 E23.81079
G0 F6000 X153.63 Y156.47
;TYPE:WALL-OUTER
G1 F1440 X153.54 Y156.31 E23.81858
G1 X153.38 Y156.11 E23.82881
G1 X153.19 Y155.96 E23.83904
G1 X152.98 Y155.84 E23.84921
G1 X152.74 Y155.77 E23.85938
G1 X152.50 Y155.75 E23.86957
G1 X152.25 Y155.77 E23.87997
G1 X151.97 Y155.87 E23.89229
G1 X151.81 Y155.96 E23.90008
G1 X151.62 Y156.11 E23.91031
G1 X151.46 Y156.31 E23.92054
G1 X151.34 Y156.52 E23.93071
G1 X151.27 Y156.75 E23.94084
G1 X151.25 Y157.00 E23.95112
G1 X151.27 Y157.25 E23.96156
G1 X151.37 Y157.53 E23.97384
G1 X151.46 Y157.69 E23.98164
G1 X151.62 Y157.88 E23.99186
G1 X151.81 Y158.04 E24.00209
G1 X152.02 Y158.16 E24.01227
G1 X152.25 Y158.23 E24.02239
G1 X152.50 Y158.25 E24.03263
G1 X152.75 Y158.23 E24.04308
G1 X153.03 Y158.13 E24.05536
G1 X153.19 Y158.04 E24.06315
G1 X153.38 Y157.88 E24.07338
G1 X153.54 Y157.69 E24.08360
G1 X153.66 Y157.48 E24.09378
G1 X153.73 Y157.25 E24.10390
G1 X153.75 Y157.00 E24.11414
G1 X153.73 Y156.75 E24.12459
G1 X153.63 Y156.47 E24.13691
G0 F6000 X154.58 Y156.14
G1 F1440 X154.70 Y156.56 E24.15511
G1 X154.75 Y157.00 E24.17358
G1 X154.70 Y157.44 E24.19200
G1 X154.58 Y157.86 E24.21021
G1 X154.37 Y158.25 E24.22845
G1 X154.09 Y158.59 E24.24686
G1 X153.75 Y158.87 E24.26526
G1 X153.36 Y159.08 E24.28351
G1 X152.94 Y159.20 E24.30171
G1 X152.50 Y159.25 E24.32013
G1 X152.06 Y159.20 E24.33856
G1 X151.64 Y159.08 E24.35676
G1 X151.25 Y158.87 E24.37501
G1 X150.91 Y158.59 E24.39341
G1 X150.63 Y158.25 E24.41181
G1 X150.42 Y157.86 E24.43006
G1 X150.30 Y157.44 E24.44826
G1 X150.25 Y157.00 E24.46669
G1 X150.30 Y156.56 E24.48516
G1 X150.42 Y156.14 E24.50336
G1 X150.63 Y155.75 E24.52160
G1 X150.91 Y155.41 E24.54001
G1 X151.25 Y155.13 E24.55841
G1 X151.64 Y154.92 E24.57666
G1 X152.06 Y154.79 E24.59486
G1 X152.50 Y154.75 E24.61329
G1 X152.94 Y154.79 E24.63171
G1 X153.36 Y154.92 E24.64991
G1 X153.75 Y155.13 E24.66816
G1 X154.09 Y155.41 E24.68656
G1 X154.37 Y155.75 E24.70497
G1 X154.58 Y156.14 E24.72321
G0 F6000 X154.16 Y155.90
;TYPE:FILL
G1 F1440 X153.70 Y156.01 E24.73776
G1 X153.63 Y155.38 E24.75830
G1 X152.97 Y155.32 E24.77995
G1 X152.44 Y155.50 E24.80329
G0 F6000 X152.21 Y155.03
G1 F1440 X150.53 Y156.71 E24.90177
G0 F6000 X151.00 Y156.94
G1 F1440 X150.64 Y157.66 E24.92867
G1 X151.24 Y157.76 E24.95059
G1 X151.21 Y158.50 E24.97105
G1 X152.03 Y158.39 E24.99250
G1 X152.18 Y158.94 E25.01657
G1 X153.12 Y158.36 E25.06240
G0 F6000 X153.43 Y158.75
G1 F1440 X154.25 Y157.93 E25.11055
G0 F6000 X153.87 Y157.62
G1 F1440 X154.32 Y156.81 E25.14759
G1 X153.98 Y156.79 E25.16170
G0 F6000 X145.13 Y156.39
;TYPE:WALL-INNER
G1 F1440 X145.10 Y156.31 E25.16523
G1 X145.11 Y156.33 E25.16593
G1 X145.13 Y156.39 E25.16876
G0 F6000 X144.63 Y156.47
;TYPE:WALL-OUTER
G1 F1440 X144.54 Y156.31 E25.17655
G1 X144.39 Y156.11 E25.18678
G1 X144.19 Y155.96 E25.19701
G1 X143.98 Y155.84 E25.20718
G1 X143.75 Y155.77 E25.21735
G1 X143.50 Y155.75 E25.22758
G1 X143.25 Y155.77 E25.23798
G1 X142.97 Y155.87 E25.25030
G1 X142.81 Y155.96 E25.25810
G1 X142.62 Y156.11 E25.26832
G1 X142.46 Y156.31 E25.27855
G1 X142.34 Y156.52 E25.28872
G1 X142.27 Y156.75 E25.29885
G1 X142.25 Y157.00 E25.30913
G1 X142.27 Y157.25 E25.31958
G1 X142.37 Y157.53 E25.33186
G1 X142.46 Y157.69 E25.33965
G1 X142.62 Y157.88 E25.34988
G1 X142.81 Y158.04 E25.36010
G1 X143.02 Y158.16 E25.37028
G1 X143.25 Y158.23 E25.38041
G1 X143.50 Y158.25 E25.39064
G1 X143.75 Y158.23 E25.40109
G1 X144.03 Y158.13 E25.41341
G1 X144.19 Y158.04 E25.42120
G1 X144.39 Y157.88 E25.43143
G1 X144.54 Y157.69 E25.44166
G1 X144.66 Y157.48 E25.45183
G1 X144.73 Y157.24 E25.46200
G1 X144.75 Y157.00 E25.47219
G1 X144.73 Y156.75 E25.48263
G1 X144.63 Y156.47 E25.49495
G0 F6000 X145.58 Y156.14
G1 F1440 X145.71 Y156.56 E25.51315
G1 X145.75 Y157.00 E25.53158
G1 X145.71 Y157.44 E25.55005
G1 X145.58 Y157.86 E25.56825
G1 X145.37 Y158.25 E25.58650
G1 X145.09 Y158.59 E25.60490
G1 X144.75 Y158.87 E25.62330
G1 X144.36 Y159.08 E25.64155
G1 X143.94 Y159.20 E25.65975
G1 X143.50 Y159.25 E25.67822
G1 X143.06 Y159.20 E25.69664
G1 X142.64 Y159.08 E25.71485
G1 X142.25 Y158.87 E25.73309
G1 X141.91 Y158.59 E25.75150
G1 X141.63 Y158.25 E25.76990
G1 X141.42 Y157.86 E25.78814
G1 X141.30 Y157.44 E25.80635
G1 X141.25 Y157.00 E25.82477
G1 X141.30 Y156.56 E25.84324
G1 X141.42 Y156.14 E25.86144
G1 X141.63 Y155.75 E25.87969
G1 X141.91 Y155.41 E25.89809
G1 X142.25 Y155.13 E25.91649
G1 X142.64 Y154.92 E25.93474
G1 X143.06 Y154.79 E25.95294
G1 X143.50 Y154.75 E25.97141
G1 X143.94 Y154.79 E25.98984
G1 X144.36 Y154.92 E26.00804
G1 X144.75 Y155.13 E26.02629
G1 X145.09 Y155.41 E26.04469
G1 X145.37 Y155.75 E26.06309
G1 X145.58 Y156.14 E26.08134
G0 F6000 X145.08 Y155.79
;TYPE:FILL
G1 F1440 X144.56 Y155.96 E26.10180
G1 X144.51 Y155.30 E26.12238
G1 X143.81 Y155.29 E26.14539
G1 X143.23 Y155.52 E26.17156
G0 F6000 X142.96 Y155.08
G1 F1440 X141.59 Y156.46 E26.25234
G0 F6000 X142.03 Y156.73
G1 F1440 X141.79 Y157.31 E26.28165
G1 X141.80 Y158.01 E26.30457
G1 X142.47 Y158.05 E26.32504
G1 X142.51 Y158.71 E26.34561
G1 X143.22 Y158.71 E26.36889
G1 X143.82 Y158.46 E26.39600
G0 F6000 X144.10 Y158.89
G1 F1440 X145.40 Y157.60 E26.47217
G0 F6000 X144.96 Y157.32
G1 F1440 X145.48 Y156.81 E26.50242
G0 F6000 X145.13 Y147.40
;TYPE:WALL-INNER
G1 F1440 X145.10 Y147.31 E26.50594
G1 X145.11 Y147.33 E26.50665
G1 X145.13 Y147.40 E26.50948
G0 F6000 X144.63 Y147.47
;TYPE:WALL-OUTER
G1 F1440 X144.54 Y147.31 E26.51727
G1 X144.39 Y147.12 E26.52750
G1 X144.19 Y146.96 E26.53772
G1 X143.98 Y146.84 E26.54790
G1 X143.75 Y146.77 E26.55802
G1 X143.50 Y146.75 E26.56831
G1 X143.25 Y146.77 E26.57875
G1 X142.97 Y146.87 E26.59103
G1 X142.81 Y146.96 E26.59883
G1 X142.62 Y147.12 E26.60905
G1 X142.46 Y147.31 E26.61928
G1 X142.34 Y147.52 E26.62945
G1 X142.27 Y147.75 E26.63958
G1 X142.25 Y148.00 E26.64986
G1 X142.27 Y148.25 E26.66030
G1 X142.37 Y148.53 E26.67259
G1 X142.46 Y148.69 E26.68038
G1 X142.62 Y148.89 E26.69061
G1 X142.81 Y149.04 E26.70083
G1 X143.02 Y149.16 E26.71101
G1 X143.26 Y149.23 E26.72117
G1 X143.50 Y149.25 E26.73137
G1 X143.75 Y149.23 E26.74181
G1 X144.03 Y149.13 E26.75413
G1 X144.19 Y149.04 E26.76192
G1 X144.39 Y148.89 E26.77215
G1 X144.54 Y148.69 E26.78238
G1 X144.66 Y148.48 E26.79255
G1 X144.73 Y148.25 E26.80272
G1 X144.75 Y148.00 E26.81295
G1 X144.73 Y147.75 E26.82335
G1 X144.63 Y147.47 E26.83567
G0 F6000 X145.58 Y147.14
G1 F1440 X145.71 Y147.56 E26.85387
G1 X145.75 Y148.00 E26.87230
G1 X145.71 Y148.44 E26.89077
G1 X145.58 Y148.86 E26.90897
G1 X145.37 Y149.25 E26.92721
G1 X145.09 Y149.59 E26.94562
G1 X144.75 Y149.87 E26.96402
G1 X144.36 Y150.08 E26.98227
G1 X143.94 Y150.21 E27.00047
G1 X143.50 Y150.25 E27.01889
G1 X143.06 Y150.21 E27.03736
G1 X142.64 Y150.08 E27.05556
G1 X142.25 Y149.87 E27.07381
G1 X141.91 Y149.59 E27.09221
G1 X141.63 Y149.25 E27.11062
G1 X141.42 Y148.86 E27.12886
G1 X141.30 Y148.44 E27.14707
G1 X141.25 Y148.00 E27.16549
G1 X141.30 Y147.56 E27.18396
G1 X141.42 Y147.14 E27.20216
G1 X141.63 Y146.75 E27.22041
G1 X141.91 Y146.41 E27.23881
G1 X142.25 Y146.13 E27.25721
G1 X142.64 Y145.92 E27.27546
G1 X143.06 Y145.80 E27.29366
G1 X143.50 Y145.75 E27.31209
G1 X143.94 Y145.80 E27.33055
G1 X144.36 Y145.92 E27.34876
G1 X144.75 Y146.13 E27.36700
G1 X145.09 Y146.41 E27.38541
G1 X145.37 Y146.75 E27.40381
G1 X145.58 Y147.14 E27.42206
G0 F6000 X145.46 Y147.63
;TYPE:FILL
G1 F1440 X144.99 Y148.10 E27.44957
G0 F6000 X145.46 Y148.34
G1 F1440 X143.84 Y149.96 E27.54518
G0 F6000 X143.60 Y149.49
G1 F1440 X142.87 Y149.87 E27.57278
G1 X142.76 Y149.27 E27.59472
G1 X142.02 Y149.31 E27.61526
G1 X142.12 Y148.50 E27.63643
G1 X141.56 Y148.35 E27.65997
G1 X142.10 Y147.46 E27.70330
G0 F6000 X141.70 Y147.16
G1 F1440 X142.66 Y146.20 E27.75968
G0 F6000 X142.94 Y146.62
G1 F1440 X143.65 Y146.26 E27.79546
G1 X144.39 Y146.23 E27.81917
G1 X144.45 Y146.87 E27.84046
G1 X144.99 Y146.69 E27.86421
G0 F6000 X154.10 Y147.31
;TYPE:WALL-INNER
G1 F1440 X154.11 Y147.33 E27.86492
G1 X154.13 Y147.40 E27.86782
G1 X154.10 Y147.31 E27.87143
G0 F6000 X153.63 Y147.47
;TYPE:WALL-OUTER
G1 F1440 X153.54 Y147.31 E27.87922
G1 X153.38 Y147.12 E27.88945
G1 X153.19 Y146.96 E27.89967
G1 X152.98 Y146.84 E27.90985
G1 X152.75 Y146.77 E27.91997
G1 X152.50 Y146.75 E27.93021
G1 X152.25 Y146.77 E27.94066
G1 X151.97 Y146.87 E27.95294
G1 X151.81 Y146.96 E27.96073
G1 X151.62 Y147.12 E27.97096
G1 X151.46 Y147.31 E27.98119
G1 X151.34 Y147.52 E27.99136
G1 X151.27 Y147.75 E28.00149
G1 X151.25 Y148.00 E28.01177
G1 X151.27 Y148.25 E28.02221
G1 X151.37 Y148.53 E28.03449
G1 X151.46 Y148.69 E28.04229
G1 X151.62 Y148.89 E28.05251
G1 X151.81 Y149.04 E28.06274
G1 X152.02 Y149.16 E28.07291
G1 X152.26 Y149.23 E28.08308
G1 X152.50 Y149.25 E28.09327
G1 X152.75 Y149.23 E28.10367
G1 X153.03 Y149.13 E28.11599
G1 X153.19 Y149.04 E28.12379
G1 X153.38 Y148.89 E28.13402
G1 X153.54 Y148.69 E28.14424
G1 X153.66 Y148.48 E28.15442
G1 X153.73 Y148.25 E28.16454
G1 X153.75 Y148.00 E28.17482
G1 X153.73 Y147.75 E28.18527
G1 X153.63 Y147.47 E28.19755
G0 F6000 X154.58 Y147.14
G1 F1440 X154.70 Y147.56 E28.21575
G1 X154.75 Y148.00 E28.23418
G1 X154.70 Y148.44 E28.25264
G1 X154.58 Y148.86 E28.27085
G1 X154.37 Y149.25 E28.28909
G1 X154.09 Y149.59 E28.30750
G1 X153.75 Y149.87 E28.32590
G1 X153.36 Y150.08 E28.34415
G1 X152.94 Y150.21 E28.36235
G1 X152.50 Y150.25 E28.38077
G1 X152.06 Y150.21 E28.39920
G1 X151.64 Y150.08 E28.41740
G1 X151.25 Y149.87 E28.43565
G1 X150.91 Y149.59 E28.45405
G1 X150.63 Y149.25 E28.47245
G1 X150.42 Y148.86 E28.49070
G1 X150.30 Y148.44 E28.50890
G1 X150.25 Y148.00 E28.52733
G1 X150.30 Y147.56 E28.54580
G1 X150.42 Y147.14 E28.56400
G1 X150.63 Y146.75 E28.58224
G1 X150.91 Y146.41 E28.60065
G1 X151.25 Y146.13 E28.61905
G1 X151.64 Y145.92 E28.63730
G1 X152.06 Y145.80 E28.65550
G1 X152.50 Y145.75 E28.67392
G1 X152.94 Y145.80 E28.69235
G1 X153.36 Y145.92 E28.71055
G1 X153.75 Y146.13 E28.72880
G1 X154.09 Y146.41 E28.74720
G1 X154.37 Y146.75 E28.76560
G1 X154.58 Y147.14 E28.78385
G0 F6000 X154.08 Y146.79
;TYPE:FILL
G1 F1440 X153.55 Y146.97 E28.80433
G1 X153.51 Y146.30 E28.82485
G1 X152.81 Y146.29 E28.84783
G1 X152.23 Y146.53 E28.87405
G0 F6000 X151.96 Y146.09
G1 F1440 X150.59 Y147.46 E28.95472
G0 F6000 X151.02 Y147.73
G1 F1440 X150.79 Y148.31 E28.98402
G1 X150.80 Y149.01 E29.00694
G1 X151.46 Y149.06 E29.02741
G1 X151.51 Y149.71 E29.04804
G1 X152.22 Y149.71 E29.07129
G1 X152.82 Y149.47 E29.09840
G0 F6000 X153.10 Y149.90
G1 F1440 X154.39 Y148.60 E29.17454
G0 F6000 X153.96 Y148.33
G1 F1440 X154.48 Y147.81 E29.20488
G0 F6000 X163.10 Y147.31
;TYPE:WALL-INNER
G1 F1440 X163.11 Y147.33 E29.20558
G1 X163.13 Y147.40 E29.20849
G1 X163.10 Y147.31 E29.21209
G0 F6000 X162.63 Y147.47
;TYPE:WALL-OUTER
G1 F1440 X162.54 Y147.31 E29.21989
G1 X162.38 Y147.12 E29.23011
G1 X162.19 Y146.96 E29.24034
G1 X161.98 Y146.84 E29.25051
G1 X161.75 Y146.77 E29.26064
G1 X161.50 Y146.75 E29.27088
G1 X161.25 Y146.77 E29.28132
G1 X160.97 Y146.87 E29.29364
G1 X160.81 Y146.96 E29.30144
G1 X160.61 Y147.12 E29.31166
G1 X160.46 Y147.31 E29.32189
G1 X160.34 Y147.52 E29.33206
G1 X160.27 Y147.76 E29.34223
G1 X160.25 Y148.00 E29.35247
G1 X160.27 Y148.25 E29.36287
G1 X160.37 Y148.53 E29.37519
G1 X160.46 Y148.69 E29.38298
G1 X160.61 Y148.89 E29.39321
G1 X160.81 Y149.04 E29.40343
G1 X161.02 Y149.16 E29.41361
G1 X161.25 Y149.23 E29.42377
G1 X161.50 Y149.25 E29.43401
G1 X161.75 Y149.23 E29.44441
G1 X162.03 Y149.13 E29.45673
G1 X162.19 Y149.04 E29.46452
G1 X162.38 Y148.89 E29.47475
G1 X162.54 Y148.69 E29.48498
G1 X162.66 Y148.48 E29.49515
G1 X162.73 Y148.25 E29.50528
G1 X162.75 Y148.00 E29.51556
G1 X162.73 Y147.75 E29.52600
G1 X162.63 Y147.47 E29.53828
G0 F6000 X163.58 Y147.14
G1 F1440 X163.70 Y147.56 E29.55649
G1 X163.75 Y148.00 E29.57491
G1 X163.70 Y148.44 E29.59338
G1 X163.58 Y148.86 E29.61158
G1 X163.37 Y149.25 E29.62983
G1 X163.09 Y149.59 E29.64823
G1 X162.75 Y149.87 E29.66663
G1 X162.36 Y150.08 E29.68488
G1 X161.94 Y150.21 E29.70308
G1 X161.50 Y150.25 E29.72155
G1 X161.06 Y150.21 E29.73997
G1 X160.64 Y150.08 E29.75818
G1 X160.25 Y149.87 E29.77642
G1 X159.91 Y149.59 E29.79483
G1 X159.63 Y149.25 E29.81323
G1 X159.42 Y148.86 E29.83148
G1 X159.29 Y148.44 E29.84968
G1 X159.25 Y148.00 E29.86814
G1 X159.29 Y147.56 E29.88657
G1 X159.42 Y147.14 E29.90477
G1 X159.63 Y146.75 E29.92302
G1 X159.91 Y146.41 E29.94142
G1 X160.25 Y146.13 E29.95983
G1 X160.64 Y145.92 E29.97807
G1 X161.06 Y145.80 E29.99627
G1 X161.50 Y145.75 E30.01470
G1 X161.94 Y145.80 E30.03317
G1 X162.36 Y145.92 E30.05137
G1 X162.75 Y146.13 E30.06962
G1 X163.09 Y146.41 E30.08802
G1 X163.37 Y146.75 E30.10642
G1 X163.58 Y147.14 E30.12467
G0 F6000 X163.16 Y146.90
;TYPE:FILL
G1 F1440 X162.70 Y147.01 E30.13929
G1 X162.62 Y146.38 E30.15977
G1 X161.97 Y146.32 E30.18148
G1 X161.44 Y146.50 E30.20481
G0 F6000 X161.21 Y146.03
G1 F1440 X159.53 Y147.71 E30.30330
G0 F6000 X160.00 Y147.94
G1 F1440 X159.64 Y148.66 E30.33026
G1 X160.24 Y148.76 E30.35216
G1 X160.21 Y149.50 E30.37252
G1 X161.03 Y149.39 E30.39395
G1 X161.18 Y149.94 E30.41802
G1 X162.12 Y149.36 E30.46373
G0 F6000 X162.43 Y149.76
G1 F1440 X163.25 Y148.93 E30.51206
G0 F6000 X162.87 Y148.61
G1 F1440 X163.32 Y147.81 E30.54895
G1 X162.98 Y147.79 E30.56302
G0 F6000 X163.10 Y156.31
;TYPE:WALL-INNER
G1 F1440 X163.11 Y156.33 E30.56372
G1 X163.13 Y156.40 E30.56667
G1 X163.10 Y156.31 E30.57031
G0 F6000 X162.63 Y156.47
;TYPE:WALL-OUTER
G1 F1440 X162.54 Y156.31 E30.57811
G1 X162.38 Y156.11 E30.58833
G1 X162.19 Y155.96 E30.59856
G1 X161.98 Y155.84 E30.60873
G1 X161.74 Y155.77 E30.61890
G1 X161.50 Y155.75 E30.62909
G1 X161.25 Y155.77 E30.63953
G1 X160.97 Y155.87 E30.65185
G1 X160.81 Y155.96 E30.65965
G1 X160.61 Y156.11 E30.66987
G1 X160.46 Y156.31 E30.68010
G1 X160.34 Y156.52 E30.69028
G1 X160.27 Y156.75 E30.70044
G1 X160.25 Y157.00 E30.71068
G1 X160.27 Y157.25 E30.72108
G1 X160.37 Y157.53 E30.73340
G1 X160.46 Y157.69 E30.74119
G1 X160.61 Y157.88 E30.75142
G1 X160.81 Y158.04 E30.76164
G1 X161.02 Y158.16 E30.77182
G1 X161.25 Y158.23 E30.78194
G1 X161.50 Y158.25 E30.79222
G1 X161.75 Y158.23 E30.80267
G1 X162.03 Y158.13 E30.81495
G1 X162.19 Y158.04 E30.82274
G1 X162.38 Y157.88 E30.83297
G1 X162.54 Y157.69 E30.84320
G1 X162.66 Y157.48 E30.85337
G1 X162.73 Y157.25 E30.86350
G1 X162.75 Y157.00 E30.87374
G1 X162.73 Y156.75 E30.88418
G1 X162.63 Y156.47 E30.89650
G0 F6000 X163.58 Y156.14
G1 F1440 X163.70 Y156.56 E30.91471
G1 X163.75 Y157.00 E30.93317
G1 X163.70 Y157.44 E30.95160
G1 X163.58 Y157.86 E30.96980
G1 X163.37 Y158.25 E30.98805
G1 X163.09 Y158.59 E31.00645
G1 X162.75 Y158.87 E31.02485
G1 X162.36 Y159.08 E31.04310
G1 X161.94 Y159.20 E31.06130
G1 X161.50 Y159.25 E31.07973
G1 X161.06 Y159.20 E31.09819
G1 X160.64 Y159.08 E31.11640
G1 X160.25 Y158.87 E31.13464
G1 X159.91 Y158.59 E31.15305
G1 X159.63 Y158.25 E31.17145
G1 X159.42 Y157.86 E31.18970
G1 X159.29 Y157.44 E31.20790
G1 X159.25 Y157.00 E31.22637
G1 X159.29 Y156.56 E31.24479
G1 X159.42 Y156.14 E31.26299
G1 X159.63 Y155.75 E31.28124
G1 X159.91 Y155.41 E31.29964
G1 X160.25 Y155.13 E31.31805
G1 X160.64 Y154.92 E31.33629
G1 X161.06 Y154.79 E31.35449
G1 X161.50 Y154.75 E31.37296
G1 X161.94 Y154.79 E31.39139
G1 X162.36 Y154.92 E31.40959
G1 X162.75 Y155.13 E31.42784
G1 X163.09 Y155.41 E31.44624
G1 X163.37 Y155.75 E31.46464
G1 X163.58 Y156.14 E31.48289
G0 F6000 X163.43 Y156.54
;TYPE:FILL
G1 F1440 X163.00 Y156.97 E31.50799
G0 F6000 X163.48 Y157.20
G1 F1440 X161.69 Y158.98 E31.61277
G0 F6000 X161.47 Y158.50
G1 F1440 X160.78 Y158.83 E31.63841
G1 X160.68 Y158.23 E31.65986
G1 X159.96 Y158.24 E31.68037
G1 X160.09 Y157.40 E31.70165
G1 X159.59 Y157.55 E31.72327
G0 F6000 X159.51 Y156.92
G1 F1440 X160.23 Y156.20 E31.76569
G0 F6000 X159.86 Y155.86
G1 F1440 X160.36 Y155.36 E31.79538
G0 F6000 X160.70 Y155.73
G1 F1440 X161.42 Y155.01 E31.83780
G0 F6000 X161.63 Y155.51
G1 F1440 X162.29 Y155.19 E31.86258
G1 X162.38 Y155.82 E31.88401
G1 X162.93 Y155.62 E31.90844
G0 F6000 X163.13 Y138.40
;TYPE:WALL-INNER
G1 F1440 X163.10 Y138.31 E31.91204
G1 X163.11 Y138.33 E31.91275
G1 X163.13 Y138.40 E31.91566
G0 F6000 X162.63 Y138.47
;TYPE:WALL-OUTER
G1 F1440 X162.54 Y138.31 E31.92345
G1 X162.38 Y138.12 E31.93368
G1 X162.19 Y137.96 E31.94391
G1 X161.98 Y137.84 E31.95408
G1 X161.75 Y137.77 E31.96421
G1 X161.50 Y137.75 E31.97445
G1 X161.25 Y137.77 E31.98489
G1 X160.97 Y137.87 E31.99721
G1 X160.81 Y137.96 E32.00500
G1 X160.61 Y138.12 E32.01523
G1 X160.46 Y138.31 E32.02546
G1 X160.34 Y138.52 E32.03563
G1 X160.27 Y138.76 E32.04580
G1 X160.25 Y139.00 E32.05603
G1 X160.27 Y139.25 E32.06643
G1 X160.37 Y139.53 E32.07875
G1 X160.46 Y139.69 E32.08655
G1 X160.61 Y139.89 E32.09677
G1 X160.81 Y140.04 E32.10700
G1 X161.02 Y140.16 E32.11717
G1 X161.25 Y140.23 E32.12734
G1 X161.50 Y140.25 E32.13758
G1 X161.75 Y140.23 E32.14798
G1 X162.03 Y140.13 E32.16030
G1 X162.19 Y140.04 E32.16809
G1 X162.38 Y139.89 E32.17832
G1 X162.54 Y139.69 E32.18854
G1 X162.66 Y139.48 E32.19872
G1 X162.73 Y139.25 E32.20884
G1 X162.75 Y139.00 E32.21912
G1 X162.73 Y138.75 E32.22957
G1 X162.63 Y138.47 E32.24185
G0 F6000 X163.58 Y138.14
G1 F1440 X163.70 Y138.56 E32.26005
G1 X163.75 Y139.00 E32.27848
G1 X163.70 Y139.44 E32.29694
G1 X163.58 Y139.86 E32.31515
G1 X163.37 Y140.25 E32.33339
G1 X163.09 Y140.59 E32.35180
G1 X162.75 Y140.87 E32.37020
G1 X162.36 Y141.08 E32.38845
G1 X161.94 Y141.21 E32.40665
G1 X161.50 Y141.25 E32.42512
G1 X161.06 Y141.21 E32.44354
G1 X160.64 Y141.08 E32.46174
G1 X160.25 Y140.87 E32.47999
G1 X159.91 Y140.59 E32.49839
G1 X159.63 Y140.25 E32.51680
G1 X159.42 Y139.86 E32.53504
G1 X159.29 Y139.44 E32.55324
G1 X159.25 Y139.00 E32.57171
G1 X159.29 Y138.56 E32.59014
G1 X159.42 Y138.14 E32.60834
G1 X159.63 Y137.75 E32.62659
G1 X159.91 Y137.41 E32.64499
G1 X160.25 Y137.13 E32.66339
G1 X160.64 Y136.92 E32.68164
G1 X161.06 Y136.80 E32.69984
G1 X161.50 Y136.75 E32.71827
G1 X161.94 Y136.80 E32.73673
G1 X162.36 Y136.92 E32.75494
G1 X162.75 Y137.13 E32.77318
G1 X163.09 Y137.41 E32.79159
G1 X163.37 Y137.75 E32.80999
G1 X163.58 Y138.14 E32.82824
G0 F6000 X163.08 Y137.79
;TYPE:FILL
G1 F1440 X162.55 Y137.97 E32.84871
G1 X162.51 Y137.30 E32.86924
G1 X161.81 Y137.29 E32.89221
G1 X161.23 Y137.53 E32.91843
G0 F6000 X160.96 Y137.09
G1 F1440 X159.59 Y138.46 E32.99919
G0 F6000 X160.02 Y138.73
G1 F1440 X159.79 Y139.31 E33.02845
G1 X159.80 Y140.01 E33.05134
G1 X160.46 Y140.06 E33.07179
G1 X160.51 Y140.71 E33.09241
G1 X161.22 Y140.71 E33.11569
G1 X161.82 Y140.47 E33.14280
G0 F6000 X162.10 Y140.90
G1 F1440 X163.39 Y139.60 E33.21894
G0 F6000 X162.96 Y139.32
G1 F1440 X163.48 Y138.81 E33.24916
G0 F6000 X154.13 Y138.40
;TYPE:WALL-INNER
G1 F1440 X154.10 Y138.31 E33.25277
G1 X154.11 Y138.33 E33.25347
G1 X154.13 Y138.40 E33.25638
G0 F6000 X153.63 Y138.47
;TYPE:WALL-OUTER
G1 F1440 X153.54 Y138.31 E33.26417
G1 X153.38 Y138.12 E33.27440
G1 X153.19 Y137.96 E33.28463
G1 X152.98 Y137.84 E33.29480
G1 X152.75 Y137.77 E33.30493
G1 X152.50 Y137.75 E33.31517
G1 X152.25 Y137.77 E33.32561
G1 X151.97 Y137.87 E33.33789
G1 X151.81 Y137.96 E33.34569
G1 X151.62 Y138.12 E33.35591
G1 X151.46 Y138.31 E33.36614
G1 X151.34 Y138.52 E33.37631
G1 X151.27 Y138.75 E33.38644
G1 X151.25 Y139.00 E33.39672
G1 X151.27 Y139.25 E33.40717
G1 X151.37 Y139.53 E33.41945
G1 X151.46 Y139.69 E33.42724
G1 X151.62 Y139.89 E33.43747
G1 X151.81 Y140.04 E33.44769
G1 X152.02 Y140.16 E33.45787
G1 X152.26 Y140.23 E33.46803
G1 X152.50 Y140.25 E33.47823
G1 X152.75 Y140.23 E33.48863
G1 X153.03 Y140.13 E33.50095
G1 X153.19 Y140.04 E33.50874
G1 X153.38 Y139.89 E33.51897
G1 X153.54 Y139.69 E33.52920
G1 X153.66 Y139.48 E33.53937
G1 X153.73 Y139.25 E33.54950
G1 X153.75 Y139.00 E33.55978
G1 X153.73 Y138.75 E33.57022
G1 X153.63 Y138.47 E33.58250
G0 F6000 X154.58 Y138.14
G1 F1440 X154.70 Y138.56 E33.60070
G1 X154.75 Y139.00 E33.61913
G1 X154.70 Y139.44 E33.63760
G1 X154.58 Y139.86 E33.65580
G1 X154.37 Y140.25 E33.67405
G1 X154.09 Y140.59 E33.69245
G1 X153.75 Y140.87 E33.71085
G1 X153.36 Y141.08 E33.72910
G1 X152.94 Y141.21 E33.74730
G1 X152.50 Y141.25 E33.76573
G1 X152.06 Y141.21 E33.78415
G1 X151.64 Y141.08 E33.80236
G1 X151.25 Y140.87 E33.82060
G1 X150.91 Y140.59 E33.83900
G1 X150.63 Y140.25 E33.85741
G1 X150.42 Y139.86 E33.87565
G1 X150.30 Y139.44 E33.89386
G1 X150.25 Y139.00 E33.91228
G1 X150.30 Y138.56 E33.93075
G1 X150.42 Y138.14 E33.94895
G1 X150.63 Y137.75 E33.96720
G1 X150.91 Y137.41 E33.98560
G1 X151.25 Y137.13 E34.00400
G1 X151.64 Y136.92 E34.02225
G1 X152.06 Y136.80 E34.04045
G1 X152.50 Y136.75 E34.05888
G1 X152.94 Y136.80 E34.07730
G1 X153.36 Y136.92 E34.09551
G1 X153.75 Y137.13 E34.11375
G1 X154.09 Y137.41 E34.13216
G1 X154.37 Y137.75 E34.15056
G1 X154.58 Y138.14 E34.16881
G0 F6000 X154.46 Y138.64
;TYPE:FILL
G1 F1440 X153.99 Y139.10 E34.19638
G0 F6000 X154.46 Y139.34
G1 F1440 X152.84 Y140.96 E34.29187
G0 F6000 X152.60 Y140.49
G1 F1440 X151.87 Y140.87 E34.31945
G1 X151.76 Y140.28 E34.34140
G1 X151.02 Y140.31 E34.36187
G1 X151.12 Y139.50 E34.38302
G1 X150.56 Y139.35 E34.40656
G1 X151.10 Y138.46 E34.44989
G0 F6000 X150.70 Y138.16
G1 F1440 X151.66 Y137.20 E34.50625
G0 F6000 X151.94 Y137.62
G1 F1440 X152.65 Y137.26 E34.54207
G1 X153.38 Y137.24 E34.56581
G1 X153.45 Y137.88 E34.58705
G1 X153.99 Y137.69 E34.61079
G0 F6000 X145.13 Y138.40
;TYPE:WALL-INNER
G1 F1440 X145.10 Y138.31 E34.61432
G1 X145.11 Y138.33 E34.61502
G1 X145.13 Y138.40 E34.61785
G0 F6000 X144.63 Y138.47
;TYPE:WALL-OUTER
G1 F1440 X144.54 Y138.31 E34.62565
G1 X144.39 Y138.12 E34.63587
G1 X144.19 Y137.96 E34.64610
G1 X143.98 Y137.84 E34.65627
G1 X143.75 Y137.77 E34.66640
G1 X143.50 Y137.75 E34.67668
G1 X143.25 Y137.77 E34.68713
G1 X142.97 Y137.87 E34.69941
G1 X142.81 Y137.96 E34.70720
G1 X142.62 Y138.12 E34.71743
G1 X142.46 Y138.31 E34.72765
G1 X142.34 Y138.52 E34.73783
G1 X142.27 Y138.75 E34.74795
G1 X142.25 Y139.00 E34.75823
G1 X142.27 Y139.25 E34.76868
G1 X142.37 Y139.53 E34.78096
G1 X142.46 Y139.69 E34.78875
G1 X142.62 Y139.89 E34.79898
G1 X142.81 Y140.04 E34.80921
G1 X143.02 Y140.16 E34.81938
G1 X143.26 Y140.23 E34.82955
G1 X143.50 Y140.25 E34.83974
G1 X143.75 Y140.23 E34.85018
G1 X144.03 Y140.13 E34.86250
G1 X144.19 Y140.04 E34.87030
G1 X144.39 Y139.89 E34.88052
G1 X144.54 Y139.69 E34.89075
G1 X144.66 Y139.48 E34.90092
G1 X144.73 Y139.25 E34.91109
G1 X144.75 Y139.00 E34.92132
G1 X144.73 Y138.75 E34.93172
G1 X144.63 Y138.47 E34.94404
G0 F6000 X145.58 Y138.14
G1 F1440 X145.71 Y138.56 E34.96225
G1 X145.75 Y139.00 E34.98067
G1 X145.71 Y139.44 E34.99914
G1 X145.58 Y139.86 E35.01734
G1 X145.37 Y140.25 E35.03559
G1 X145.09 Y140.59 E35.05399
G1 X144.75 Y140.87 E35.07239
G1 X144.36 Y141.08 E35.09064
G1 X143.94 Y141.21 E35.10884
G1 X143.50 Y141.25 E35.12727
G1 X143.06 Y141.21 E35.14574
G1 X142.64 Y141.08 E35.16394
G1 X142.25 Y140.87 E35.18219
G1 X141.91 Y140.59 E35.20059
G1 X141.63 Y140.25 E35.21899
G1 X141.42 Y139.86 E35.23724
G1 X141.30 Y139.44 E35.25544
G1 X141.25 Y139.00 E35.27387
G1 X141.30 Y138.56 E35.29233
G1 X141.42 Y138.14 E35.31054
G1 X141.63 Y137.75 E35.32878
G1 X141.91 Y137.41 E35.34718
G1 X142.25 Y137.13 E35.36559
G1 X142.64 Y136.92 E35.38383
G1 X143.06 Y136.80 E35.40204
G1 X143.50 Y136.75 E35.42046
G1 X143.94 Y136.80 E35.43893
G1 X144.36 Y136.92 E35.45713
G1 X144.75 Y137.13 E35.47538
G1 X145.09 Y137.41 E35.49378
G1 X145.37 Y137.75 E35.51218
G1 X145.58 Y138.14 E35.53043
G0 F6000 X145.34 Y138.56
;TYPE:FILL
G1 F1440 X144.99 Y138.91 E35.55086
G0 F6000 X145.48 Y139.13
G1 F1440 X144.63 Y139.97 E35.60075
G0 F6000 X144.47 Y140.14
G1 F1440 X143.62 Y140.99 E35.65067
G0 F6000 X143.41 Y140.49
G1 F1440 X142.73 Y140.82 E35.67585
G1 X142.64 Y140.20 E35.69728
G1 X141.93 Y140.20 E35.71762
G1 X142.07 Y139.35 E35.73892
G1 X141.57 Y139.50 E35.76054
G0 F6000 X141.52 Y138.85
G1 F1440 X143.35 Y137.02 E35.86843
G0 F6000 X143.57 Y137.50
G1 F1440 X144.25 Y137.18 E35.89376
G1 X144.34 Y137.79 E35.91518
G1 X144.91 Y137.58 E35.93999
;LAYER:2
G0 F6000 X145.09 Y137.41 Z0.70
;TYPE:WALL-OUTER
G1 F1560 X145.37 Y137.75 E35.95839
G1 X145.58 Y138.14 E35.97663
G1 X145.71 Y138.56 E35.99484
G1 X145.75 Y139.00 E36.01326
G1 X145.71 Y139.44 E36.03173
G1 X145.58 Y139.86 E36.04993
G1 X145.37 Y140.25 E36.06818
G1 X145.09 Y140.59 E36.08658
G1 X144.75 Y140.87 E36.10498
G1 X144.36 Y141.08 E36.12323
G1 X143.94 Y141.21 E36.14143
G1 X143.50 Y141.25 E36.15986
G1 X143.06 Y141.21 E36.17833
G1 X142.64 Y141.08 E36.19653
G1 X142.25 Y140.87 E36.21478
G1 X141.91 Y140.59 E36.23318
G1 X141.63 Y140.25 E36.25158
G1 X141.42 Y139.86 E36.26983
G1 X141.30 Y139.44 E36.28803
G1 X141.25 Y139.00 E36.30646
G1 X141.30 Y138.56 E36.32492
G1 X141.42 Y138.14 E36.34313
G1 X141.63 Y137.75 E36.36137
G1 X141.91 Y137.41 E36.37977
G1 X142.25 Y137.13 E36.39818
G1 X142.64 Y136.92 E36.41642
G1 X143.06 Y136.80 E36.43463
G1 X143.50 Y136.75 E36.45305
G1 X143.94 Y136.80 E36.47152
G1 X144.36 Y136.92 E36.48972
G1 X144.75 Y137.13 E36.50797
G1 X145.09 Y137.41 E36.52637
G0 F6000 X144.39 Y138.12
G1 F1560 X144.19 Y137.96 E36.53660
G1 X143.98 Y137.84 E36.54677
G1 X143.75 Y137.77 E36.55690
G1 X143.50 Y137.75 E36.56718
G1 X143.25 Y137.77 E36.57742
G1 X143.02 Y137.84 E36.58754
G1 X142.81 Y137.96 E36.59772
G1 X142.62 Y138.12 E36.60794
G1 X142.46 Y138.31 E36.61817
G1 X142.34 Y138.52 E36.62834
G1 X142.27 Y138.75 E36.63847
G1 X142.25 Y139.00 E36.64875
G1 X142.27 Y139.25 E36.65899
G1 X142.34 Y139.48 E36.66912
G1 X142.46 Y139.69 E36.67929
G1 X142.62 Y139.89 E36.68952
G1 X142.81 Y140.04 E36.69974
G1 X143.02 Y140.16 E36.70992
G1 X143.26 Y140.23 E36.72008
G1 X143.50 Y140.25 E36.73028
G1 X143.75 Y140.23 E36.74051
G1 X143.98 Y140.16 E36.75068
G1 X144.19 Y140.04 E36.76085
G1 X144.39 Y139.89 E36.77108
G1 X144.54 Y139.69 E36.78131
G1 X144.66 Y139.48 E36.79148
G1 X144.73 Y139.25 E36.80165
G1 X144.75 Y139.00 E36.81188
G1 X144.73 Y138.76 E36.82207
G1 X144.66 Y138.52 E36.83224
G1 X144.54 Y138.31 E36.84241
G1 X144.39 Y138.12 E36.85264
G0 F6000 X144.91 Y138.91
;TYPE:FILL
G1 F1560 X145.40 Y139.75 E36.88732
G1 X144.69 Y139.74 E36.91549
G1 X144.82 Y140.57 E36.94229
G1 X143.87 Y140.34 E36.97016
G1 X144.14 Y140.96 E36.99834
G0 F6000 X143.54 Y141.07
G1 F1560 X141.43 Y138.96 E37.12249
G0 F6000 X141.54 Y138.36
G1 F1560 X142.16 Y138.62 E37.15449
G1 X141.93 Y137.68 E37.18245
G1 X142.76 Y137.81 E37.20914
G1 X142.75 Y137.09 E37.23727
G1 X143.59 Y137.58 E37.27769
G0 F6000 X143.66 Y136.94
G1 F1560 X145.56 Y138.84 E37.38914
G0 F6000 X145.38 Y138.85
G0 X144.44 Y140.42
G0 X142.74 Y140.74
G0 X142.66 Y140.89
G1 F1560 X141.61 Y139.84 E37.45094
G0 F6000 X150.25 Y139.00
;TYPE:WALL-OUTER
G1 F1560 X150.30 Y138.56 E37.46940
G1 X150.42 Y138.14 E37.48760
G1 X150.63 Y137.75 E37.50585
G1 X150.91 Y137.41 E37.52425
G1 X151.25 Y137.13 E37.54266
G1 X151.64 Y136.92 E37.56090
G1 X152.06 Y136.80 E37.57911
G1 X152.50 Y136.75 E37.59753
G1 X152.94 Y136.80 E37.61596
G1 X153.36 Y136.92 E37.63416
G1 X153.75 Y137.13 E37.65241
G1 X154.09 Y137.41 E37.67081
G1 X154.37 Y137.75 E37.68921
G1 X154.58 Y138.14 E37.70746
G1 X154.70 Y138.56 E37.72566
G1 X154.75 Y139.00 E37.74409
G1 X154.70 Y139.44 E37.76255
G1 X154.58 Y139.86 E37.78076
G1 X154.37 Y140.25 E37.79900
G1 X154.09 Y140.59 E37.81741
G1 X153.75 Y140.87 E37.83581
G1 X153.36 Y141.08 E37.85405
G1 X152.94 Y141.21 E37.87226
G1 X152.50 Y141.25 E37.89068
G1 X152.06 Y141.21 E37.90911
G1 X151.64 Y141.08 E37.92731
G1 X151.25 Y140.87 E37.94556
G1 X150.91 Y140.59 E37.96396
G1 X150.63 Y140.25 E37.98236
G1 X150.42 Y139.86 E38.00061
G1 X150.30 Y139.44 E38.01881
G1 X150.25 Y139.00 E38.03724
G0 F6000 X151.25 Y139.00
G1 F1560 X151.27 Y139.25 E38.04748
G1 X151.34 Y139.48 E38.05760
G1 X151.46 Y139.69 E38.06778
G1 X151.62 Y139.89 E38.07800
G1 X151.81 Y140.04 E38.08823
G1 X152.02 Y140.16 E38.09840
G1 X152.26 Y140.23 E38.10857
G1 X152.50 Y140.25 E38.11876
G1 X152.74 Y140.23 E38.12896
G1 X152.98 Y140.16 E38.13912
G1 X153.19 Y140.04 E38.14930
G1 X153.38 Y139.89 E38.15952
G1 X153.54 Y139.69 E38.16975
G1 X153.66 Y139.48 E38.17992
G1 X153.73 Y139.25 E38.19005
G1 X153.75 Y139.00 E38.20033
G1 X153.73 Y138.75 E38.21057
G1 X153.66 Y138.52 E38.22070
G1 X153.54 Y138.31 E38.23087
G1 X153.38 Y138.12 E38.24110
G1 X153.19 Y137.96 E38.25132
G1 X152.98 Y137.84 E38.26150
G1 X152.75 Y137.77 E38.27162
G1 X152.50 Y137.75 E38.28186
G1 X152.25 Y137.77 E38.29210
G1 X152.02 Y137.84 E38.30223
G1 X151.81 Y137.96 E38.31240
G1 X151.62 Y138.12 E38.32263
G1 X151.46 Y138.31 E38.33286
G1 X151.34 Y138.52 E38.34303
G1 X151.27 Y138.75 E38.35316
G1 X151.25 Y139.00 E38.36344
G0 F6000 X151.10 Y138.73
;TYPE:FILL
G1 F1560 X150.71 Y137.99 E38.39383
G1 X151.48 Y138.04 E38.42083
G1 X151.41 Y137.27 E38.44751
G1 X152.15 Y137.29 E38.47691
G1 X152.81 Y137.61 E38.50769
G0 F6000 X152.88 Y136.97
G1 F1560 X154.53 Y138.62 E38.60520
G0 F6000 X153.89 Y138.68
G1 F1560 X154.45 Y139.60 E38.64356
G1 X153.75 Y139.61 E38.67300
G1 X153.91 Y140.48 E38.69979
G1 X153.02 Y140.30 E38.72668
G1 X153.29 Y140.91 E38.75465
G0 F6000 X152.72 Y141.05
G1 F1560 X152.00 Y140.33 E38.79693
G0 F6000 X151.95 Y140.99
G1 F1560 X150.51 Y139.55 E38.88165
G0 F6000 X151.17 Y139.50
G1 F1560 X150.45 Y138.78 E38.92404
G0 F6000 X152.06 Y145.80
;TYPE:WALL-OUTER
G1 F1560 X152.50 Y145.75 E38.94247
G1 X152.94 Y145.80 E38.96089
G1 X153.36 Y145.92 E38.97910
G1 X153.75 Y146.13 E38.99734
G1 X154.09 Y146.41 E39.01575
G1 X154.37 Y146.75 E39.03415
G1 X154.58 Y147.14 E39.05240
G1 X154.70 Y147.56 E39.07060
G1 X154.75 Y148.00 E39.08902
G1 X154.70 Y148.44 E39.10749
G1 X154.58 Y148.86 E39.12569
G1 X154.37 Y149.25 E39.14394
G1 X154.09 Y149.59 E39.16234
G1 X153.75 Y149.87 E39.18075
G1 X153.36 Y150.08 E39.19899
G1 X152.94 Y150.21 E39.21719
G1 X152.50 Y150.25 E39.23562
G1 X152.06 Y150.21 E39.25405
G1 X151.64 Y150.08 E39.27225
G1 X151.25 Y149.87 E39.29050
G1 X150.91 Y149.59 E39.30890
G1 X150.63 Y149.25 E39.32730
G1 X150.42 Y148.86 E39.34555
G1 X150.30 Y148.44 E39.36375
G1 X150.25 Y148.00 E39.38218
G1 X150.30 Y147.56 E39.40064
G1 X150.42 Y147.14 E39.41884
G1 X150.63 Y146.75 E39.43709
G1 X150.91 Y146.41 E39.45549
G1 X151.25 Y146.13 E39.47390
G1 X151.64 Y145.92 E39.49214
G1 X152.06 Y145.80 E39.51035
G0 F6000 X152.25 Y146.77
G1 F1560 X152.02 Y146.84 E39.52047
G1 X151.81 Y146.96 E39.53065
G1 X151.62 Y147.12 E39.54087
G1 X151.46 Y147.31 E39.55110
G1 X151.34 Y147.52 E39.56127
G1 X151.27 Y147.75 E39.57140
G1 X151.25 Y148.00 E39.58168
G1 X151.27 Y148.25 E39.59192
G1 X151.34 Y148.48 E39.60205
G1 X151.46 Y148.69 E39.61222
G1 X151.62 Y148.89 E39.62245
G1 X151.81 Y149.04 E39.63267
G1 X152.02 Y149.16 E39.64285
G1 X152.26 Y149.23 E39.65301
G1 X152.50 Y149.25 E39.66321
G1 X152.74 Y149.23 E39.67340
G1 X152.98 Y149.16 E39.68357
G1 X153.19 Y149.04 E39.69374
G1 X153.38 Y148.89 E39.70397
G1 X153.54 Y148.69 E39.71419
G1 X153.66 Y148.48 E39.72437
G1 X153.73 Y148.25 E39.73449
G1 X153.75 Y148.00 E39.74477
G1 X153.73 Y147.75 E39.75501
G1 X153.66 Y147.52 E39.76514
G1 X153.54 Y147.31 E39.77531
G1 X153.38 Y147.12 E39.78554
G1 X153.19 Y146.96 E39.79577
G1 X152.98 Y146.84 E39.80594
G1 X152.75 Y146.77 E39.81607
G1 X152.50 Y146.75 E39.82631
G1 X152.25 Y146.77 E39.83654
G0 F6000 X151.98 Y146.68
;TYPE:FILL
G1 F1560 X151.29 Y146.34 E39.86469
G1 X151.39 Y147.15 E39.89140
G1 X150.65 Y147.11 E39.91936
G1 X151.08 Y147.90 E39.95670
G0 F6000 X150.43 Y147.96
G1 F1560 X152.54 Y150.07 E40.08076
G0 F6000 X153.14 Y149.96
G1 F1560 X152.87 Y149.34 E40.11269
G1 X153.82 Y149.57 E40.14063
G1 X153.69 Y148.74 E40.16732
G1 X154.40 Y148.75 E40.19548
G1 X153.91 Y147.90 E40.23600
G0 F6000 X154.56 Y147.84
G1 F1560 X152.66 Y145.94 E40.34736
G0 F6000 X152.59 Y146.58
G1 F1560 X152.01 Y146.00 E40.38190
G0 F6000 X152.06 Y146.16
G0 X150.83 Y147.67
G0 X150.76 Y148.76
G0 X150.61 Y148.84
G1 F1560 X151.66 Y149.89 E40.44367
G0 F6000 X145.71 Y148.44
;TYPE:WALL-OUTER
G1 F1560 X145.58 Y148.86 E40.46187
G1 X145.37 Y149.25 E40.48012
G1 X145.09 Y149.59 E40.49852
G1 X144.75 Y149.87 E40.51692
G1 X144.36 Y150.08 E40.53517
G1 X143.94 Y150.21 E40.55337
G1 X143.50 Y150.25 E40.57180
G1 X143.06 Y150.21 E40.59026
G1 X142.64 Y150.08 E40.60847
G1 X142.25 Y149.87 E40.62671
G1 X141.91 Y149.59 E40.64511
G1 X141.63 Y149.25 E40.66352
G1 X141.42 Y148.86 E40.68176
G1 X141.30 Y148.44 E40.69997
G1 X141.25 Y148.00 E40.71839
G1 X141.30 Y147.56 E40.73686
G1 X141.42 Y147.14 E40.75506
G1 X141.63 Y146.75 E40.77331
G1 X141.91 Y146.41 E40.79171
G1 X142.25 Y146.13 E40.81011
G1 X142.64 Y145.92 E40.82836
G1 X143.06 Y145.80 E40.84656
G1 X143.50 Y145.75 E40.86499
G1 X143.94 Y145.80 E40.88346
G1 X144.36 Y145.92 E40.90166
G1 X144.75 Y146.13 E40.91990
G1 X145.09 Y146.41 E40.93831
G1 X145.37 Y146.75 E40.95671
G1 X145.58 Y147.14 E40.97496
G1 X145.71 Y147.56 E40.99316
G1 X145.75 Y148.00 E41.01158
G1 X145.71 Y148.44 E41.03005
G0 F6000 X144.73 Y148.25
G1 F1560 X144.75 Y148.00 E41.04029
G1 X144.73 Y147.76 E41.05048
G1 X144.66 Y147.52 E41.06065
G1 X144.54 Y147.31 E41.07082
G1 X144.39 Y147.12 E41.08105
G1 X144.19 Y146.96 E41.09127
G1 X143.98 Y146.84 E41.10145
G1 X143.75 Y146.77 E41.11157
G1 X143.50 Y146.75 E41.12185
G1 X143.25 Y146.77 E41.13209
G1 X143.02 Y146.84 E41.14222
G1 X142.81 Y146.96 E41.15239
G1 X142.62 Y147.12 E41.16262
G1 X142.46 Y147.31 E41.17285
G1 X142.34 Y147.52 E41.18302
G1 X142.27 Y147.75 E41.19315
G1 X142.25 Y148.00 E41.20343
G1 X142.27 Y148.25 E41.21367
G1 X142.34 Y148.48 E41.22379
G1 X142.46 Y148.69 E41.23397
G1 X142.62 Y148.89 E41.24419
G1 X142.81 Y149.04 E41.25442
G1 X143.02 Y149.16 E41.26459
G1 X143.26 Y149.23 E41.27476
G1 X143.50 Y149.25 E41.28495
G1 X143.75 Y149.23 E41.29519
G1 X143.98 Y149.16 E41.30535
G1 X144.19 Y149.04 E41.31553
G1 X144.39 Y148.89 E41.32575
G1 X144.54 Y148.69 E41.33598
G1 X144.66 Y148.48 E41.34616
G1 X144.73 Y148.25 E41.35632
G0 F6000 X144.91 Y148.10
;TYPE:FILL
G1 F1560 X145.35 Y148.88 E41.38841
G1 X144.61 Y148.85 E41.41644
G1 X144.71 Y149.66 E41.44310
G1 X143.71 Y149.37 E41.47114
G1 X143.99 Y150.00 E41.49995
G0 F6000 X143.34 Y150.06
G1 F1560 X141.44 Y148.16 E41.61140
G0 F6000 X142.08 Y148.09
G1 F1560 X141.59 Y147.25 E41.64597
G1 X142.31 Y147.26 E41.67411
G1 X142.18 Y146.43 E41.70091
G1 X143.12 Y146.66 E41.72876
G1 X142.86 Y146.04 E41.75687
G0 F6000 X143.46 Y145.93
G1 F1560 X145.57 Y148.04 E41.88102
G0 F6000 X145.39 Y147.16
G1 F1560 X144.34 Y146.11 E41.94284
G0 F6000 X143.50 Y154.75
;TYPE:WALL-OUTER
G1 F1560 X143.94 Y154.79 E41.96126
G1 X144.36 Y154.92 E41.97947
G1 X144.75 Y155.13 E41.99771
G1 X145.09 Y155.41 E42.01612
G1 X145.37 Y155.75 E42.03452
G1 X145.58 Y156.14 E42.05277
G1 X145.71 Y156.56 E42.07097
G1 X145.75 Y157.00 E42.08939
G1 X145.71 Y157.44 E42.10786
G1 X145.58 Y157.86 E42.12606
G1 X145.37 Y158.25 E42.14431
G1 X145.09 Y158.59 E42.16271
G1 X144.75 Y158.87 E42.18112
G1 X144.36 Y159.08 E42.19936
G1 X143.94 Y159.20 E42.21757
G1 X143.50 Y159.25 E42.23603
G1 X143.06 Y159.20 E42.25446
G1 X142.64 Y159.08 E42.27266
G1 X142.25 Y158.87 E42.29091
G1 X141.91 Y158.59 E42.30931
G1 X141.63 Y158.25 E42.32771
G1 X141.42 Y157.86 E42.34596
G1 X141.30 Y157.44 E42.36416
G1 X141.25 Y157.00 E42.38259
G1 X141.30 Y156.56 E42.40105
G1 X141.42 Y156.14 E42.41926
G1 X141.63 Y155.75 E42.43750
G1 X141.91 Y155.41 E42.45591
G1 X142.25 Y155.13 E42.47431
G1 X142.64 Y154.92 E42.49256
G1 X143.06 Y154.79 E42.51076
G1 X143.50 Y154.75 E42.52922
G0 F6000 X143.50 Y155.75
G1 F1560 X143.26 Y155.77 E42.53942
G1 X143.02 Y155.84 E42.54958
G1 X142.81 Y155.96 E42.55976
G1 X142.62 Y156.11 E42.56999
G1 X142.46 Y156.31 E42.58021
G1 X142.34 Y156.52 E42.59039
G1 X142.27 Y156.75 E42.60051
G1 X142.25 Y157.00 E42.61079
G1 X142.27 Y157.25 E42.62103
G1 X142.34 Y157.48 E42.63116
G1 X142.46 Y157.69 E42.64133
G1 X142.62 Y157.88 E42.65156
G1 X142.81 Y158.04 E42.66178
G1 X143.02 Y158.16 E42.67196
G1 X143.25 Y158.23 E42.68209
G1 X143.50 Y158.25 E42.69232
G1 X143.75 Y158.23 E42.70260
G1 X143.98 Y158.16 E42.71273
G1 X144.19 Y158.04 E42.72290
G1 X144.39 Y157.88 E42.73313
G1 X144.54 Y157.69 E42.74336
G1 X144.66 Y157.48 E42.75353
G1 X144.73 Y157.24 E42.76370
G1 X144.75 Y157.00 E42.77389
G1 X144.73 Y156.75 E42.78413
G1 X144.66 Y156.52 E42.79429
G1 X144.54 Y156.31 E42.80447
G1 X144.39 Y156.11 E42.81469
G1 X144.19 Y155.96 E42.82492
G1 X143.98 Y155.84 E42.83509
G1 X143.75 Y155.77 E42.84526
G1 X143.50 Y155.75 E42.85549
G0 F6000 X143.22 Y155.60
;TYPE:FILL
G1 F1560 X142.49 Y155.21 E42.88584
G1 X142.54 Y155.97 E42.91274
G1 X141.76 Y155.91 E42.93949
G1 X141.79 Y156.64 E42.96899
G1 X142.11 Y157.31 E42.99986
G0 F6000 X141.47 Y157.38
G1 F1560 X143.12 Y159.03 E43.09735
G0 F6000 X143.18 Y158.39
G1 F1560 X144.10 Y158.95 E43.13554
G1 X144.11 Y158.25 E43.16493
G1 X144.98 Y158.41 E43.19170
G1 X144.80 Y157.52 E43.21859
G1 X145.42 Y157.79 E43.24664
G0 F6000 X145.55 Y157.22
G1 F1560 X144.83 Y156.50 E43.28895
G0 F6000 X145.49 Y156.45
G1 F1560 X144.05 Y155.01 E43.37370
G0 F6000 X144.00 Y155.67
G1 F1560 X143.28 Y154.95 E43.41595
G0 F6000 X150.30 Y156.56
;TYPE:WALL-OUTER
G1 F1560 X150.42 Y156.14 E43.43415
G1 X150.63 Y155.75 E43.45239
G1 X150.91 Y155.41 E43.47080
G1 X151.25 Y155.13 E43.48920
G1 X151.64 Y154.92 E43.50745
G1 X152.06 Y154.79 E43.52565
G1 X152.50 Y154.75 E43.54407
G1 X152.94 Y154.79 E43.56250
G1 X153.36 Y154.92 E43.58070
G1 X153.75 Y155.13 E43.59895
G1 X154.09 Y155.41 E43.61735
G1 X154.37 Y155.75 E43.63575
G1 X154.58 Y156.14 E43.65400
G1 X154.70 Y156.56 E43.67220
G1 X154.75 Y157.00 E43.69067
G1 X154.70 Y157.44 E43.70910
G1 X154.58 Y157.86 E43.72730
G1 X154.37 Y158.25 E43.74555
G1 X154.09 Y158.59 E43.76395
G1 X153.75 Y158.87 E43.78235
G1 X153.36 Y159.08 E43.80060
G1 X152.94 Y159.20 E43.81880
G1 X152.50 Y159.25 E43.83723
G1 X152.06 Y159.20 E43.85565
G1 X151.64 Y159.08 E43.87385
G1 X151.25 Y158.87 E43.89210
G1 X150.91 Y158.59 E43.91050
G1 X150.63 Y158.25 E43.92891
G1 X150.42 Y157.86 E43.94715
G1 X150.30 Y157.44 E43.96536
G1 X150.25 Y157.00 E43.98378
G1 X150.30 Y156.56 E44.00225
G0 F6000 X151.27 Y156.75
G1 F1560 X151.25 Y157.00 E44.01253
G1 X151.27 Y157.25 E44.02277
G1 X151.34 Y157.48 E44.03289
G1 X151.46 Y157.69 E44.04307
G1 X151.62 Y157.88 E44.05329
G1 X151.81 Y158.04 E44.06352
G1 X152.02 Y158.16 E44.07369
G1 X152.25 Y158.23 E44.08382
G1 X152.50 Y158.25 E44.09406
G1 X152.75 Y158.23 E44.10430
G1 X152.98 Y158.16 E44.11443
G1 X153.19 Y158.04 E44.12460
G1 X153.38 Y157.88 E44.13483
G1 X153.54 Y157.69 E44.14505
G1 X153.66 Y157.48 E44.15523
G1 X153.73 Y157.25 E44.16535
G1 X153.75 Y157.00 E44.17559
G1 X153.73 Y156.75 E44.18587
G1 X153.66 Y156.52 E44.19600
G1 X153.54 Y156.31 E44.20617
G1 X153.38 Y156.11 E44.21640
G1 X153.19 Y155.96 E44.22663
G1 X152.98 Y155.84 E44.23680
G1 X152.74 Y155.77 E44.24697
G1 X152.50 Y155.75 E44.25716
G1 X152.26 Y155.77 E44.26735
G1 X152.02 Y155.84 E44.27752
G1 X151.81 Y155.96 E44.28769
G1 X151.62 Y156.11 E44.29792
G1 X151.46 Y156.31 E44.30815
G1 X151.34 Y156.52 E44.31832
G1 X151.27 Y156.75 E44.32845
G0 F6000 X151.18 Y156.48
;TYPE:FILL
G1 F1560 X150.84 Y155.79 E44.35658
G1 X151.65 Y155.89 E44.38332
G1 X151.61 Y155.15 E44.41118
G1 X152.40 Y155.58 E44.44847
G0 F6000 X152.46 Y154.93
G1 F1560 X154.57 Y157.04 E44.57259
G0 F6000 X154.46 Y157.64
G1 F1560 X153.84 Y157.37 E44.60471
G1 X154.07 Y158.32 E44.63267
G1 X153.24 Y158.19 E44.65936
G1 X153.25 Y158.90 E44.68755
G1 X152.41 Y158.41 E44.72797
G0 F6000 X152.34 Y159.06
G1 F1560 X150.44 Y157.16 E44.83936
G0 F6000 X151.08 Y157.09
G1 F1560 X150.49 Y156.50 E44.87402
G0 F6000 X150.66 Y156.56
G0 X152.17 Y155.33
G0 X153.25 Y155.26
G0 X153.34 Y155.11
G1 F1560 X154.39 Y156.16 E44.93579
G0 F6000 X159.29 Y156.56
;TYPE:WALL-OUTER
G1 F1560 X159.42 Y156.14 E44.95399
G1 X159.63 Y155.75 E44.97224
G1 X159.91 Y155.41 E44.99064
G1 X160.25 Y155.13 E45.00904
G1 X160.64 Y154.92 E45.02729
G1 X161.06 Y154.79 E45.04549
G1 X161.50 Y154.75 E45.06396
G1 X161.94 Y154.79 E45.08238
G1 X162.36 Y154.92 E45.10058
G1 X162.75 Y155.13 E45.11883
G1 X163.09 Y155.41 E45.13723
G1 X163.37 Y155.75 E45.15564
G1 X163.58 Y156.14 E45.17388
G1 X163.70 Y156.56 E45.19209
G1 X163.75 Y157.00 E45.21055
G1 X163.70 Y157.44 E45.22898
G1 X163.58 Y157.86 E45.24718
G1 X163.37 Y158.25 E45.26543
G1 X163.09 Y158.59 E45.28383
G1 X162.75 Y158.87 E45.30223
G1 X162.36 Y159.08 E45.32048
G1 X161.94 Y159.20 E45.33868
G1 X161.50 Y159.25 E45.35711
G1 X161.06 Y159.20 E45.37557
G1 X160.64 Y159.08 E45.39378
G1 X160.25 Y158.87 E45.41202
G1 X159.91 Y158.59 E45.43043
G1 X159.63 Y158.25 E45.44883
G1 X159.42 Y157.86 E45.46708
G1 X159.29 Y157.44 E45.48528
G1 X159.25 Y157.00 E45.50375
G1 X159.29 Y156.56 E45.52217
G0 F6000 X160.27 Y156.75
G1 F1560 X160.25 Y157.00 E45.53241
G1 X160.27 Y157.24 E45.54260
G1 X160.34 Y157.48 E45.55277
G1 X160.46 Y157.69 E45.56294
G1 X160.61 Y157.88 E45.57317
G1 X160.81 Y158.04 E45.58339
G1 X161.02 Y158.16 E45.59357
G1 X161.25 Y158.23 E45.60369
G1 X161.50 Y158.25 E45.61397
G1 X161.75 Y158.23 E45.62421
G1 X161.98 Y158.16 E45.63434
G1 X162.19 Y158.04 E45.64451
G1 X162.38 Y157.88 E45.65474
G1 X162.54 Y157.69 E45.66497
G1 X162.66 Y157.48 E45.67514
G1 X162.73 Y157.25 E45.68527
G1 X162.75 Y157.00 E45.69551
G1 X162.73 Y156.75 E45.70579
G1 X162.66 Y156.52 E45.71591
G1 X162.54 Y156.31 E45.72609
G1 X162.38 Y156.11 E45.73631
G1 X162.19 Y155.96 E45.74654
G1 X161.98 Y155.84 E45.75671
G1 X161.74 Y155.77 E45.76688
G1 X161.50 Y155.75 E45.77707
G1 X161.25 Y155.77 E45.78731
G1 X161.02 Y155.84 E45.79747
G1 X160.81 Y155.96 E45.80765
G1 X160.61 Y156.11 E45.81787
G1 X160.46 Y156.31 E45.82810
G1 X160.34 Y156.52 E45.83827
G1 X160.27 Y156.75 E45.84844
G0 F6000 X160.08 Y156.90
;TYPE:FILL
G1 F1560 X159.65 Y156.11 E45.88047
G1 X160.39 Y156.15 E45.90847
G1 X160.29 Y155.34 E45.93518
G1 X161.28 Y155.63 E45.96332
G1 X161.00 Y154.99 E45.99214
G0 F6000 X161.66 Y154.94
G1 F1560 X163.56 Y156.84 E46.10356
G0 F6000 X162.91 Y156.91
G1 F1560 X163.40 Y157.75 E46.13821
G1 X162.69 Y157.74 E46.16641
G1 X162.82 Y158.57 E46.19321
G1 X161.87 Y158.34 E46.22117
G1 X162.14 Y158.96 E46.24935
G0 F6000 X161.54 Y159.07
G1 F1560 X159.43 Y156.96 E46.37355
G0 F6000 X159.61 Y157.84
G1 F1560 X160.66 Y158.89 E46.43535
G0 F6000 X161.50 Y150.25
;TYPE:WALL-OUTER
G1 F1560 X161.06 Y150.21 E46.45377
G1 X160.64 Y150.08 E46.47198
G1 X160.25 Y149.87 E46.49022
G1 X159.91 Y149.59 E46.50862
G1 X159.63 Y149.25 E46.52703
G1 X159.42 Y148.86 E46.54527
G1 X159.29 Y148.44 E46.56348
G1 X159.25 Y148.00 E46.58194
G1 X159.29 Y147.56 E46.60037
G1 X159.42 Y147.14 E46.61857
G1 X159.63 Y146.75 E46.63682
G1 X159.91 Y146.41 E46.65522
G1 X160.25 Y146.13 E46.67362
G1 X160.64 Y145.92 E46.69187
G1 X161.06 Y145.80 E46.71007
G1 X161.50 Y145.75 E46.72850
G1 X161.94 Y145.80 E46.74697
G1 X162.36 Y145.92 E46.76517
G1 X162.75 Y146.13 E46.78341
G1 X163.09 Y146.41 E46.80182
G1 X163.37 Y146.75 E46.82022
G1 X163.58 Y147.14 E46.83847
G1 X163.70 Y147.56 E46.85667
G1 X163.75 Y148.00 E46.87509
G1 X163.70 Y148.44 E46.89356
G1 X163.58 Y148.86 E46.91176
G1 X163.37 Y149.25 E46.93001
G1 X163.09 Y149.59 E46.94841
G1 X162.75 Y149.87 E46.96682
G1 X162.36 Y150.08 E46.98506
G1 X161.94 Y150.21 E47.00327
G1 X161.50 Y150.25 E47.02173
G0 F6000 X161.50 Y149.25
G1 F1560 X161.74 Y149.23 E47.03193
G1 X161.98 Y149.16 E47.04209
G1 X162.19 Y149.04 E47.05227
G1 X162.38 Y148.89 E47.06249
G1 X162.54 Y148.69 E47.07272
G1 X162.66 Y148.48 E47.08289
G1 X162.73 Y148.25 E47.09302
G1 X162.75 Y148.00 E47.10330
G1 X162.73 Y147.75 E47.11354
G1 X162.66 Y147.52 E47.12367
G1 X162.54 Y147.31 E47.13384
G1 X162.38 Y147.12 E47.14407
G1 X162.19 Y146.96 E47.15429
G1 X161.98 Y146.84 E47.16447
G1 X161.75 Y146.77 E47.17459
G1 X161.50 Y146.75 E47.18483
G1 X161.25 Y146.77 E47.19511
G1 X161.02 Y146.84 E47.20524
G1 X160.81 Y146.96 E47.21541
G1 X160.61 Y147.12 E47.22564
G1 X160.46 Y147.31 E47.23587
G1 X160.34 Y147.52 E47.24604
G1 X160.27 Y147.76 E47.25621
G1 X160.25 Y148.00 E47.26644
G1 X160.27 Y148.25 E47.27663
G1 X160.34 Y148.48 E47.28680
G1 X160.46 Y148.69 E47.29697
G1 X160.61 Y148.89 E47.30720
G1 X160.81 Y149.04 E47.31743
G1 X161.02 Y149.16 E47.32760
G1 X161.25 Y149.23 E47.33777
G1 X161.50 Y149.25 E47.34800
G0 F6000 X161.77 Y149.40
;TYPE:FILL
G1 F1560 X162.51 Y149.78 E47.37830
G1 X162.46 Y149.02 E47.40520
G1 X163.23 Y149.09 E47.43205
G1 X163.20 Y148.35 E47.46151
G1 X162.89 Y147.68 E47.49236
G0 F6000 X163.53 Y147.62
G1 F1560 X161.88 Y145.97 E47.58987
G0 F6000 X161.81 Y146.61
G1 F1560 X160.89 Y146.04 E47.62811
G1 X160.89 Y146.74 E47.65751
G1 X160.02 Y146.58 E47.68427
G1 X160.20 Y147.47 E47.71124
G1 X159.58 Y147.21 E47.73929
G0 F6000 X159.45 Y147.78
G1 F1560 X160.17 Y148.50 E47.78159
G0 F6000 X159.51 Y148.55
G1 F1560 X160.95 Y149.99 E47.86637
G0 F6000 X161.00 Y149.33
G1 F1560 X161.72 Y150.05 E47.90862
G0 F6000 X161.50 Y141.25
;TYPE:WALL-OUTER
G1 F1560 X161.06 Y141.21 E47.92704
G1 X160.64 Y141.08 E47.94525
G1 X160.25 Y140.87 E47.96349
G1 X159.91 Y140.59 E47.98190
G1 X159.63 Y140.25 E48.00030
G1 X159.42 Y139.86 E48.01855
G1 X159.29 Y139.44 E48.03675
G1 X159.25 Y139.00 E48.05522
G1 X159.29 Y138.56 E48.07364
G1 X159.42 Y138.14 E48.09184
G1 X159.63 Y137.75 E48.11009
G1 X159.91 Y137.41 E48.12849
G1 X160.25 Y137.13 E48.14690
G1 X160.64 Y136.92 E48.16514
G1 X161.06 Y136.80 E48.18334
G1 X161.50 Y136.75 E48.20177
G1 X161.94 Y136.80 E48.22024
G1 X162.36 Y136.92 E48.23844
G1 X162.75 Y137.13 E48.25669
G1 X163.09 Y137.41 E48.27509
G1 X163.37 Y137.75 E48.29349
G1 X163.58 Y138.14 E48.31174
G1 X163.70 Y138.56 E48.32994
G1 X163.75 Y139.00 E48.34837
G1 X163.70 Y139.44 E48.36683
G1 X163.58 Y139.86 E48.38504
G1 X163.37 Y140.25 E48.40328
G1 X163.09 Y140.59 E48.42169
G1 X162.75 Y140.87 E48.44009
G1 X162.36 Y141.08 E48.45833
G1 X161.94 Y141.21 E48.47654
G1 X161.50 Y141.25 E48.49500
G0 F6000 X161.50 Y140.25
G1 F1560 X161.74 Y140.23 E48.50520
G1 X161.98 Y140.16 E48.51536
G1 X162.19 Y140.04 E48.52554
G1 X162.38 Y139.89 E48.53576
G1 X162.54 Y139.69 E48.54599
G1 X162.66 Y139.48 E48.55617
G1 X162.73 Y139.25 E48.56629
G1 X162.75 Y139.00 E48.57657
G1 X162.73 Y138.75 E48.58681
G1 X162.66 Y138.52 E48.59694
G1 X162.54 Y138.31 E48.60711
G1 X162.38 Y138.12 E48.61734
G1 X162.19 Y137.96 E48.62756
G1 X161.98 Y137.84 E48.63774
G1 X161.75 Y137.77 E48.64786
G1 X161.50 Y137.75 E48.65810
G1 X161.25 Y137.77 E48.66838
G1 X161.02 Y137.84 E48.67851
G1 X160.81 Y137.96 E48.68868
G1 X160.61 Y138.12 E48.69891
G1 X160.46 Y138.31 E48.70914
G1 X160.34 Y138.52 E48.71931
G1 X160.27 Y138.76 E48.72948
G1 X160.25 Y139.00 E48.73971
G1 X160.27 Y139.25 E48.74991
G1 X160.34 Y139.48 E48.76007
G1 X160.46 Y139.69 E48.77025
G1 X160.61 Y139.89 E48.78047
G1 X160.81 Y140.04 E48.79070
G1 X161.02 Y140.16 E48.80087
G1 X161.25 Y140.23 E48.81104
G1 X161.50 Y140.25 E48.82127
G0 F6000 X161.26 Y140.40
;TYPE:FILL
G1 F1560 X162.15 Y140.94 E48.85826
G1 X162.15 Y140.23 E48.88722
G1 X163.01 Y140.38 E48.91391
G1 X162.81 Y139.47 E48.94129
G1 X163.43 Y139.74 E48.96939
G0 F6000 X163.56 Y139.16
G1 F1560 X162.78 Y138.38 E49.01510
G0 F6000 X163.46 Y138.36
G1 F1560 X162.14 Y137.04 E49.09266
G0 F6000 X162.12 Y137.72
G1 F1560 X161.34 Y136.94 E49.13831
G0 F6000 X160.76 Y137.07
G1 F1560 X161.02 Y137.69 E49.16918
G1 X160.12 Y137.49 E49.19655
G1 X160.27 Y138.34 E49.22332
G1 X159.56 Y138.34 E49.25238
G1 X160.10 Y139.24 E49.29579
G0 F6000 X159.46 Y139.30
G1 F1560 X161.19 Y141.04 E49.39794
G0 F6000 X153.36 Y163.92
;TYPE:WALL-OUTER
G1 F1560 X153.75 Y164.13 E49.41619
G1 X154.09 Y164.41 E49.43459
G1 X154.37 Y164.75 E49.45300
G1 X154.58 Y165.14 E49.47124
G1 X154.70 Y165.56 E49.48944
G1 X154.75 Y166.00 E49.50791
G1 X154.70 Y166.44 E49.52634
G1 X154.58 Y166.86 E49.54454
G1 X154.37 Y167.25 E49.56279
G1 X154.09 Y167.59 E49.58119
G1 X153.75 Y167.87 E49.59959
G1 X153.36 Y168.08 E49.61784
G1 X152.94 Y168.20 E49.63604
G1 X152.50 Y168.25 E49.65447
G1 X152.06 Y168.20 E49.67289
G1 X151.64 Y168.08 E49.69109
G1 X151.25 Y167.87 E49.70934
G1 X150.91 Y167.59 E49.72774
G1 X150.63 Y167.25 E49.74615
G1 X150.42 Y166.86 E49.76439
G1 X150.30 Y166.44 E49.78260
G1 X150.25 Y166.00 E49.80102
G1 X150.30 Y165.56 E49.81949
G1 X150.42 Y165.14 E49.83769
G1 X150.63 Y164.75 E49.85594
G1 X150.91 Y164.41 E49.87434
G1 X151.25 Y164.13 E49.89274
G1 X151.64 Y163.92 E49.91099
G1 X152.06 Y163.79 E49.92919
G1 X152.50 Y163.75 E49.94762
G1 X152.94 Y163.79 E49.96604
G1 X153.36 Y163.92 E49.98425
G0 F6000 X152.98 Y164.84
G1 F1560 X152.74 Y164.77 E49.99441
G1 X152.50 Y164.75 E50.00461
G1 X152.26 Y164.77 E50.01480
G1 X152.02 Y164.84 E50.02497
G1 X151.81 Y164.96 E50.03514
G1 X151.62 Y165.11 E50.04537
G1 X151.46 Y165.31 E50.05559
G1 X151.34 Y165.52 E50.06577
G1 X151.27 Y165.75 E50.07589
G1 X151.25 Y166.00 E50.08617
G1 X151.27 Y166.25 E50.09641
G1 X151.34 Y166.48 E50.10654
G1 X151.46 Y166.69 E50.11671
G1 X151.62 Y166.88 E50.12694
G1 X151.81 Y167.04 E50.13717
G1 X152.02 Y167.16 E50.14734
G1 X152.25 Y167.23 E50.15747
G1 X152.50 Y167.25 E50.16771
G1 X152.75 Y167.23 E50.17794
G1 X152.98 Y167.16 E50.18807
G1 X153.19 Y167.04 E50.19824
G1 X153.38 Y166.88 E50.20847
G1 X153.54 Y166.69 E50.21870
G1 X153.66 Y166.48 E50.22887
G1 X153.73 Y166.25 E50.23900
G1 X153.75 Y166.00 E50.24924
G1 X153.73 Y165.75 E50.25952
G1 X153.66 Y165.52 E50.26964
G1 X153.54 Y165.31 E50.27982
G1 X153.38 Y165.11 E50.29004
G1 X153.19 Y164.96 E50.30027
G1 X152.98 Y164.84 E50.31044
G0 F6000 X153.00 Y164.67
;TYPE:FILL
G1 F1560 X152.28 Y163.95 E50.35269
G0 F6000 X151.71 Y164.08
G1 F1560 X151.97 Y164.70 E50.38298
G1 X151.08 Y164.52 E50.40984
G1 X151.24 Y165.39 E50.43663
G1 X150.54 Y165.39 E50.46608
G1 X151.11 Y166.31 E50.51110
G0 F6000 X150.47 Y166.38
G1 F1560 X152.12 Y168.03 E50.60859
G0 F6000 X152.18 Y167.39
G1 F1560 X153.10 Y167.95 E50.64676
G1 X153.11 Y167.25 E50.67615
G1 X153.98 Y167.41 E50.70284
G1 X153.79 Y166.52 E50.72981
G1 X154.42 Y166.79 E50.75791
G0 F6000 X154.55 Y166.22
G1 F1560 X153.83 Y165.50 E50.80030
G0 F6000 X154.49 Y165.45
G1 F1560 X153.05 Y164.01 E50.88497
;LAYER:3
G0 F6000 X152.94 Y163.79 Z0.90
;TYPE:WALL-OUTER
G1 F1560 X153.36 Y163.92 E50.90317
G1 X153.75 Y164.13 E50.92142
G1 X154.09 Y164.41 E50.93982
G1 X154.37 Y164.75 E50.95822
G1 X154.58 Y165.14 E50.97647
G1 X154.70 Y165.56 E50.99467
G1 X154.75 Y166.00 E51.01314
G1 X154.70 Y166.44 E51.03157
G1 X154.58 Y166.86 E51.04977
G1 X154.37 Y167.25 E51.06802
G1 X154.09 Y167.59 E51.08642
G1 X153.75 Y167.87 E51.10482
G1 X153.36 Y168.08 E51.12307
G1 X152.94 Y168.20 E51.14127
G1 X152.50 Y168.25 E51.15970
G1 X152.06 Y168.20 E51.17812
G1 X151.64 Y168.08 E51.19632
G1 X151.25 Y167.87 E51.21457
G1 X150.91 Y167.59 E51.23297
G1 X150.63 Y167.25 E51.25138
G1 X150.42 Y166.86 E51.26962
G1 X150.30 Y166.44 E51.28783
G1 X150.25 Y166.00 E51.30625
G1 X150.30 Y165.56 E51.32472
G1 X150.42 Y165.14 E51.34292
G1 X150.63 Y164.75 E51.36117
G1 X150.91 Y164.41 E51.37957
G1 X151.25 Y164.13 E51.39797
G1 X151.64 Y163.92 E51.41622
G1 X152.06 Y163.79 E51.43442
G1 X152.50 Y163.75 E51.45285
G1 X152.94 Y163.79 E51.47127
G0 F6000 X152.74 Y164.77
G1 F1560 X152.50 Y164.75 E51.48147
G1 X152.26 Y164.77 E51.49166
G1 X152.02 Y164.84 E51.50183
G1 X151.81 Y164.96 E51.51200
G1 X151.62 Y165.11 E51.52223
G1 X151.46 Y165.31 E51.53245
G1 X151.34 Y165.52 E51.54263
G1 X151.27 Y165.75 E51.55275
G1 X151.25 Y166.00 E51.56303
G1 X151.27 Y166.25 E51.57327
G1 X151.34 Y166.48 E51.58340
G1 X151.46 Y166.69 E51.59357
G1 X151.62 Y166.88 E51.60380
G1 X151.81 Y167.04 E51.61403
G1 X152.02 Y167.16 E51.62420
G1 X152.25 Y167.23 E51.63433
G1 X152.50 Y167.25 E51.64457
G1 X152.75 Y167.23 E51.65480
G1 X152.98 Y167.16 E51.66493
G1 X153.19 Y167.04 E51.67511
G1 X153.38 Y166.88 E51.68533
G1 X153.54 Y166.69 E51.69556
G1 X153.66 Y166.48 E51.70573
G1 X153.73 Y166.25 E51.71586
G1 X153.75 Y166.00 E51.72610
G1 X153.73 Y165.75 E51.73638
G1 X153.66 Y165.52 E51.74650
G1 X153.54 Y165.31 E51.75668
G1 X153.38 Y165.11 E51.76690
G1 X153.19 Y164.96 E51.77713
G1 X152.98 Y164.84 E51.78731
G1 X152.74 Y164.77 E51.79747
G0 F6000 X152.56 Y164.58
;TYPE:FILL
G1 F1560 X153.35 Y164.14 E51.82997
G1 X153.33 Y164.87 E51.85796
G1 X154.14 Y164.77 E51.88461
G1 X153.87 Y165.74 E51.91246
G1 X154.50 Y165.47 E51.94094
G0 F6000 X154.56 Y166.11
G1 F1560 X152.61 Y168.06 E52.05548
G0 F6000 X152.54 Y167.42
G1 F1560 X151.72 Y167.89 E52.08929
G1 X151.73 Y167.17 E52.11731
G1 X150.91 Y167.29 E52.14396
G1 X151.15 Y166.34 E52.17183
G1 X150.53 Y166.61 E52.19999
G0 F6000 X150.43 Y166.00
G1 F1560 X152.50 Y163.93 E52.32199
G0 F6000 X151.56 Y164.16
G1 F1560 X150.66 Y165.06 E52.37497
G0 F6000 X150.82 Y165.14
G0 X151.09 Y166.94
G0 X152.50 Y167.70
G0 X153.58 Y167.56
G0 X153.69 Y167.69
G1 F1560 X154.19 Y167.19 E52.40442
G0 F6000 X152.94 Y159.20
;TYPE:WALL-OUTER
G1 F1560 X152.50 Y159.25 E52.42285
G1 X152.06 Y159.20 E52.44127
G1 X151.64 Y159.08 E52.45948
G1 X151.25 Y158.87 E52.47772
G1 X150.91 Y158.59 E52.49613
G1 X150.63 Y158.25 E52.51453
G1 X150.42 Y157.86 E52.53278
G1 X150.30 Y157.44 E52.55098
G1 X150.25 Y157.00 E52.56940
G1 X150.30 Y156.56 E52.58787
G1 X150.42 Y156.14 E52.60607
G1 X150.63 Y155.75 E52.62432
G1 X150.91 Y155.41 E52.64272
G1 X151.25 Y155.13 E52.66113
G1 X151.64 Y154.92 E52.67937
G1 X152.06 Y154.79 E52.69757
G1 X152.50 Y154.75 E52.71600
G1 X152.94 Y154.79 E52.73443
G1 X153.36 Y154.92 E52.75263
G1 X153.75 Y155.13 E52.77088
G1 X154.09 Y155.41 E52.78928
G1 X154.37 Y155.75 E52.80768
G1 X154.58 Y156.14 E52.82593
G1 X154.70 Y156.56 E52.84413
G1 X154.75 Y157.00 E52.86260
G1 X154.70 Y157.44 E52.88102
G1 X154.58 Y157.86 E52.89923
G1 X154.37 Y158.25 E52.91747
G1 X154.09 Y158.59 E52.93587
G1 X153.75 Y158.87 E52.95428
G1 X153.36 Y159.08 E52.97252
G1 X152.94 Y159.20 E52.99073
G0 F6000 X152.75 Y158.23
G1 F1560 X152.98 Y158.16 E53.00085
G1 X153.19 Y158.04 E53.01103
G1 X153.38 Y157.88 E53.02125
G1 X153.54 Y157.69 E53.03148
G1 X153.66 Y157.48 E53.04165
G1 X153.73 Y157.25 E53.05178
G1 X153.75 Y157.00 E53.06202
G1 X153.73 Y156.75 E53.07230
G1 X153.66 Y156.52 E53.08243
G1 X153.54 Y156.31 E53.09260
G1 X153.38 Y156.11 E53.10283
G1 X153.19 Y155.96 E53.11305
G1 X152.98 Y155.84 E53.12323
G1 X152.74 Y155.77 E53.13339
G1 X152.50 Y155.75 E53.14359
G1 X152.26 Y155.77 E53.15378
G1 X152.02 Y155.84 E53.16395
G1 X151.81 Y155.96 E53.17412
G1 X151.62 Y156.11 E53.18435
G1 X151.46 Y156.31 E53.19457
G1 X151.34 Y156.52 E53.20475
G1 X151.27 Y156.75 E53.21487
G1 X151.25 Y157.00 E53.22515
G1 X151.27 Y157.25 E53.23539
G1 X151.34 Y157.48 E53.24552
G1 X151.46 Y157.69 E53.25569
G1 X151.62 Y157.88 E53.26592
G1 X151.81 Y158.04 E53.27615
G1 X152.02 Y158.16 E53.28632
G1 X152.25 Y158.23 E53.29645
G1 X152.50 Y158.25 E53.30669
G1 X152.75 Y158.23 E53.31692
G0 F6000 X152.36 Y158.41
;TYPE:FILL
G1 F1560 X151.58 Y158.84 E53.34860
G1 X151.62 Y158.09 E53.37647
G1 X150.83 Y158.18 E53.40315
G1 X151.12 Y157.17 E53.43159
G1 X150.49 Y157.46 E53.46076
G0 F6000 X150.45 Y156.79
G1 F1560 X152.29 Y154.95 E53.56909
G0 F6000 X152.36 Y155.59
G1 F1560 X153.22 Y155.08 E53.60462
G1 X153.21 Y155.79 E53.63316
G1 X154.05 Y155.66 E53.65992
G1 X153.83 Y156.59 E53.68778
G1 X154.45 Y156.32 E53.71590
G0 F6000 X154.56 Y156.92
G1 F1560 X153.67 Y157.81 E53.76819
G0 F6000 X153.31 Y158.17
G1 F1560 X152.42 Y159.06 E53.82058
G0 F6000 X153.26 Y158.92
G1 F1560 X154.42 Y157.76 E53.88876
G0 F6000 X145.75 Y157.00
;TYPE:WALL-OUTER
G1 F1560 X145.71 Y157.44 E53.90722
G1 X145.58 Y157.86 E53.92543
G1 X145.37 Y158.25 E53.94367
G1 X145.09 Y158.59 E53.96207
G1 X144.75 Y158.87 E53.98048
G1 X144.36 Y159.08 E53.99872
G1 X143.94 Y159.20 E54.01693
G1 X143.50 Y159.25 E54.03539
G1 X143.06 Y159.20 E54.05382
G1 X142.64 Y159.08 E54.07202
G1 X142.25 Y158.87 E54.09027
G1 X141.91 Y158.59 E54.10867
G1 X141.63 Y158.25 E54.12707
G1 X141.42 Y157.86 E54.14532
G1 X141.30 Y157.44 E54.16352
G1 X141.25 Y157.00 E54.18195
G1 X141.30 Y156.56 E54.20042
G1 X141.42 Y156.14 E54.21862
G1 X141.63 Y155.75 E54.23687
G1 X141.91 Y155.41 E54.25527
G1 X142.25 Y155.13 E54.27367
G1 X142.64 Y154.92 E54.29192
G1 X143.06 Y154.79 E54.31012
G1 X143.50 Y154.75 E54.32859
G1 X143.94 Y154.79 E54.34701
G1 X144.36 Y154.92 E54.36521
G1 X144.75 Y155.13 E54.38346
G1 X145.09 Y155.41 E54.40186
G1 X145.37 Y155.75 E54.42027
G1 X145.58 Y156.14 E54.43851
G1 X145.71 Y156.56 E54.45672
G1 X145.75 Y157.00 E54.47514
G0 F6000 X144.75 Y157.00
G1 F1560 X144.73 Y156.75 E54.48538
G1 X144.66 Y156.52 E54.49554
G1 X144.54 Y156.31 E54.50572
G1 X144.39 Y156.11 E54.51594
G1 X144.19 Y155.96 E54.52617
G1 X143.98 Y155.84 E54.53634
G1 X143.75 Y155.77 E54.54651
G1 X143.50 Y155.75 E54.55674
G1 X143.26 Y155.77 E54.56694
G1 X143.02 Y155.84 E54.57710
G1 X142.81 Y155.96 E54.58728
G1 X142.62 Y156.11 E54.59750
G1 X142.46 Y156.31 E54.60773
G1 X142.34 Y156.52 E54.61791
G1 X142.27 Y156.75 E54.62803
G1 X142.25 Y157.00 E54.63831
G1 X142.27 Y157.25 E54.64855
G1 X142.34 Y157.48 E54.65868
G1 X142.46 Y157.69 E54.66885
G1 X142.62 Y157.88 E54.67908
G1 X142.81 Y158.04 E54.68930
G1 X143.02 Y158.16 E54.69948
G1 X143.25 Y158.23 E54.70961
G1 X143.50 Y158.25 E54.71984
G1 X143.75 Y158.23 E54.73012
G1 X143.98 Y158.16 E54.74025
G1 X144.19 Y158.04 E54.75042
G1 X144.39 Y157.88 E54.76065
G1 X144.54 Y157.69 E54.77088
G1 X144.66 Y157.48 E54.78105
G1 X144.73 Y157.24 E54.79122
G1 X144.75 Y157.00 E54.80141
G0 F6000 X144.89 Y156.69
;TYPE:FILL
G1 F1560 X145.27 Y155.96 E54.83150
G1 X144.50 Y156.02 E54.85817
G1 X144.56 Y155.25 E54.88495
G1 X143.82 Y155.29 E54.91481
G1 X143.12 Y155.63 E54.94711
G0 F6000 X143.07 Y154.97
G1 F1560 X141.47 Y156.57 E55.04112
G0 F6000 X142.13 Y156.62
G1 F1560 X141.53 Y157.57 E55.08058
G1 X142.23 Y157.58 E55.11035
G1 X142.06 Y158.46 E55.13707
G1 X142.94 Y158.28 E55.16390
G1 X142.96 Y158.97 E55.19396
G1 X143.94 Y158.35 E55.24222
G0 F6000 X143.99 Y159.01
G1 F1560 X145.51 Y157.49 E55.33156
G0 F6000 X144.85 Y157.44
G1 F1560 X145.55 Y156.74 E55.37248
G0 F6000 X143.94 Y150.21
;TYPE:WALL-OUTER
G1 F1560 X143.50 Y150.25 E55.39090
G1 X143.06 Y150.21 E55.40937
G1 X142.64 Y150.08 E55.42757
G1 X142.25 Y149.87 E55.44582
G1 X141.91 Y149.59 E55.46422
G1 X141.63 Y149.25 E55.48263
G1 X141.42 Y148.86 E55.50087
G1 X141.30 Y148.44 E55.51907
G1 X141.25 Y148.00 E55.53750
G1 X141.30 Y147.56 E55.55597
G1 X141.42 Y147.14 E55.57417
G1 X141.63 Y146.75 E55.59242
G1 X141.91 Y146.41 E55.61082
G1 X142.25 Y146.13 E55.62922
G1 X142.64 Y145.92 E55.64747
G1 X143.06 Y145.80 E55.66567
G1 X143.50 Y145.75 E55.68410
G1 X143.94 Y145.80 E55.70256
G1 X144.36 Y145.92 E55.72077
G1 X144.75 Y146.13 E55.73901
G1 X145.09 Y146.41 E55.75742
G1 X145.37 Y146.75 E55.77582
G1 X145.58 Y147.14 E55.79407
G1 X145.71 Y147.56 E55.81227
G1 X145.75 Y148.00 E55.83069
G1 X145.71 Y148.44 E55.84916
G1 X145.58 Y148.86 E55.86736
G1 X145.37 Y149.25 E55.88561
G1 X145.09 Y149.59 E55.90401
G1 X144.75 Y149.87 E55.92241
G1 X144.36 Y150.08 E55.94066
G1 X143.94 Y150.21 E55.95886
G0 F6000 X143.75 Y149.23
G1 F1560 X143.98 Y149.16 E55.96903
G1 X144.19 Y149.04 E55.97920
G1 X144.39 Y148.89 E55.98943
G1 X144.54 Y148.69 E55.99966
G1 X144.66 Y148.48 E56.00983
G1 X144.73 Y148.25 E56.02000
G1 X144.75 Y148.00 E56.03023
G1 X144.73 Y147.76 E56.04043
G1 X144.66 Y147.52 E56.05059
G1 X144.54 Y147.31 E56.06077
G1 X144.39 Y147.12 E56.07099
G1 X144.19 Y146.96 E56.08122
G1 X143.98 Y146.84 E56.09139
G1 X143.75 Y146.77 E56.10152
G1 X143.50 Y146.75 E56.11180
G1 X143.25 Y146.77 E56.12204
G1 X143.02 Y146.84 E56.13217
G1 X142.81 Y146.96 E56.14234
G1 X142.62 Y147.12 E56.15257
G1 X142.46 Y147.31 E56.16279
G1 X142.34 Y147.52 E56.17297
G1 X142.27 Y147.75 E56.18309
G1 X142.25 Y148.00 E56.19337
G1 X142.27 Y148.25 E56.20361
G1 X142.34 Y148.48 E56.21374
G1 X142.46 Y148.69 E56.22391
G1 X142.62 Y148.89 E56.23414
G1 X142.81 Y149.04 E56.24437
G1 X143.02 Y149.16 E56.25454
G1 X143.26 Y149.23 E56.26471
G1 X143.50 Y149.25 E56.27490
G1 X143.75 Y149.23 E56.28513
G0 F6000 X143.69 Y149.41
;TYPE:FILL
G1 F1560 X142.81 Y149.93 E56.32152
G1 X142.82 Y149.22 E56.35028
G1 X141.97 Y149.36 E56.37705
G1 X142.18 Y148.44 E56.40456
G1 X141.56 Y148.71 E56.43264
G0 F6000 X141.44 Y148.12
G1 F1560 X142.27 Y147.29 E56.48135
G0 F6000 X141.56 Y147.29
G1 F1560 X142.79 Y146.06 E56.55402
G0 F6000 X142.79 Y146.77
G1 F1560 X143.62 Y145.94 E56.60279
G0 F6000 X144.21 Y146.06
G1 F1560 X143.94 Y146.68 E56.63418
G1 X144.86 Y146.47 E56.66186
G1 X144.72 Y147.31 E56.68852
G1 X145.43 Y147.31 E56.71723
G1 X144.91 Y148.19 E56.75963
G0 F6000 X145.55 Y148.26
G1 F1560 X143.75 Y150.05 E56.86493
G0 F6000 X150.30 Y148.44
;TYPE:WALL-OUTER
G1 F1560 X150.25 Y148.00 E56.88336
G1 X150.30 Y147.56 E56.90182
G1 X150.42 Y147.14 E56.92003
G1 X150.63 Y146.75 E56.93827
G1 X150.91 Y146.41 E56.95668
G1 X151.25 Y146.13 E56.97508
G1 X151.64 Y145.92 E56.99333
G1 X152.06 Y145.80 E57.01153
G1 X152.50 Y145.75 E57.02995
G1 X152.94 Y145.80 E57.04838
G1 X153.36 Y145.92 E57.06658
G1 X153.75 Y146.13 E57.08483
G1 X154.09 Y146.41 E57.10323
G1 X154.37 Y146.75 E57.12163
G1 X154.58 Y147.14 E57.13988
G1 X154.70 Y147.56 E57.15808
G1 X154.75 Y148.00 E57.17651
G1 X154.70 Y148.44 E57.19498
G1 X154.58 Y148.86 E57.21318
G1 X154.37 Y149.25 E57.23142
G1 X154.09 Y149.59 E57.24983
G1 X153.75 Y149.87 E57.26823
G1 X153.36 Y150.08 E57.28648
G1 X152.94 Y150.21 E57.30468
G1 X152.50 Y150.25 E57.32310
G1 X152.06 Y150.21 E57.34153
G1 X151.64 Y150.08 E57.35973
G1 X151.25 Y149.87 E57.37798
G1 X150.91 Y149.59 E57.39638
G1 X150.63 Y149.25 E57.41478
G1 X150.42 Y148.86 E57.43303
G1 X150.30 Y148.44 E57.45123
G0 F6000 X151.27 Y148.25
G1 F1560 X151.34 Y148.48 E57.46136
G1 X151.46 Y148.69 E57.47153
G1 X151.62 Y148.89 E57.48176
G1 X151.81 Y149.04 E57.49199
G1 X152.02 Y149.16 E57.50216
G1 X152.26 Y149.23 E57.51233
G1 X152.50 Y149.25 E57.52252
G1 X152.74 Y149.23 E57.53271
G1 X152.98 Y149.16 E57.54288
G1 X153.19 Y149.04 E57.55305
G1 X153.38 Y148.89 E57.56328
G1 X153.54 Y148.69 E57.57351
G1 X153.66 Y148.48 E57.58368
G1 X153.73 Y148.25 E57.59381
G1 X153.75 Y148.00 E57.60409
G1 X153.73 Y147.75 E57.61433
G1 X153.66 Y147.52 E57.62445
G1 X153.54 Y147.31 E57.63463
G1 X153.38 Y147.12 E57.64485
G1 X153.19 Y146.96 E57.65508
G1 X152.98 Y146.84 E57.66526
G1 X152.75 Y146.77 E57.67538
G1 X152.50 Y146.75 E57.68562
G1 X152.25 Y146.77 E57.69586
G1 X152.02 Y146.84 E57.70599
G1 X151.81 Y146.96 E57.71616
G1 X151.62 Y147.12 E57.72639
G1 X151.46 Y147.31 E57.73661
G1 X151.34 Y147.52 E57.74679
G1 X151.27 Y147.75 E57.75691
G1 X151.25 Y148.00 E57.76719
G1 X151.27 Y148.25 E57.77743
G0 F6000 X151.12 Y148.34
;TYPE:FILL
G1 F1560 X150.75 Y149.06 E57.80720
G1 X151.52 Y149.00 E57.83395
G1 X151.46 Y149.77 E57.86081
G1 X152.22 Y149.72 E57.89101
G1 X152.94 Y149.35 E57.92470
G0 F6000 X152.99 Y150.01
G1 F1560 X154.51 Y148.49 E58.01407
G0 F6000 X153.85 Y148.44
G1 F1560 X154.47 Y147.46 E58.05492
G1 X153.78 Y147.44 E58.08489
G1 X153.96 Y146.56 E58.11159
G1 X153.08 Y146.73 E58.13841
G1 X153.07 Y146.03 E58.16820
G1 X152.12 Y146.63 E58.21491
G0 F6000 X152.07 Y145.97
G1 F1560 X150.47 Y147.57 E58.30869
G0 F6000 X151.13 Y147.62
G1 F1560 X150.46 Y148.29 E58.34832
G0 F6000 X159.25 Y148.00
;TYPE:WALL-OUTER
G1 F1560 X159.29 Y147.56 E58.36674
G1 X159.42 Y147.14 E58.38495
G1 X159.63 Y146.75 E58.40319
G1 X159.91 Y146.41 E58.42159
G1 X160.25 Y146.13 E58.44000
G1 X160.64 Y145.92 E58.45824
G1 X161.06 Y145.80 E58.47645
G1 X161.50 Y145.75 E58.49487
G1 X161.94 Y145.80 E58.51334
G1 X162.36 Y145.92 E58.53154
G1 X162.75 Y146.13 E58.54979
G1 X163.09 Y146.41 E58.56819
G1 X163.37 Y146.75 E58.58659
G1 X163.58 Y147.14 E58.60484
G1 X163.70 Y147.56 E58.62304
G1 X163.75 Y148.00 E58.64147
G1 X163.70 Y148.44 E58.65994
G1 X163.58 Y148.86 E58.67814
G1 X163.37 Y149.25 E58.69638
G1 X163.09 Y149.59 E58.71479
G1 X162.75 Y149.87 E58.73319
G1 X162.36 Y150.08 E58.75144
G1 X161.94 Y150.21 E58.76964
G1 X161.50 Y150.25 E58.78811
G1 X161.06 Y150.21 E58.80653
G1 X160.64 Y150.08 E58.82473
G1 X160.25 Y149.87 E58.84298
G1 X159.91 Y149.59 E58.86138
G1 X159.63 Y149.25 E58.87979
G1 X159.42 Y148.86 E58.89803
G1 X159.29 Y148.44 E58.91624
G1 X159.25 Y148.00 E58.93470
G0 F6000 X160.25 Y148.00
G1 F1560 X160.27 Y148.25 E58.94490
G1 X160.34 Y148.48 E58.95506
G1 X160.46 Y148.69 E58.96524
G1 X160.61 Y148.89 E58.97546
G1 X160.81 Y149.04 E58.98569
G1 X161.02 Y149.16 E58.99586
G1 X161.25 Y149.23 E59.00603
G1 X161.50 Y149.25 E59.01626
G1 X161.74 Y149.23 E59.02646
G1 X161.98 Y149.16 E59.03662
G1 X162.19 Y149.04 E59.04680
G1 X162.38 Y148.89 E59.05702
G1 X162.54 Y148.69 E59.06725
G1 X162.66 Y148.48 E59.07742
G1 X162.73 Y148.25 E59.08755
G1 X162.75 Y148.00 E59.09783
G1 X162.73 Y147.75 E59.10807
G1 X162.66 Y147.52 E59.11820
G1 X162.54 Y147.31 E59.12837
G1 X162.38 Y147.12 E59.13860
G1 X162.19 Y146.96 E59.14882
G1 X161.98 Y146.84 E59.15900
G1 X161.75 Y146.77 E59.16912
G1 X161.50 Y146.75 E59.17936
G1 X161.25 Y146.77 E59.18964
G1 X161.02 Y146.84 E59.19977
G1 X160.81 Y146.96 E59.20994
G1 X160.61 Y147.12 E59.22017
G1 X160.46 Y147.31 E59.23040
G1 X160.34 Y147.52 E59.24057
G1 X160.27 Y147.76 E59.25074
G1 X160.25 Y148.00 E59.26097
G0 F6000 X160.09 Y147.86
;TYPE:FILL
G1 F1560 X159.58 Y148.72 E59.29640
G1 X160.29 Y148.71 E59.32480
G1 X160.16 Y149.55 E59.35146
G1 X161.09 Y149.33 E59.37932
G1 X160.82 Y149.95 E59.40749
G0 F6000 X161.41 Y150.06
G1 F1560 X162.31 Y149.17 E59.45985
G0 F6000 X162.67 Y148.81
G1 F1560 X163.56 Y147.92 E59.51215
G0 F6000 X163.45 Y147.32
G1 F1560 X162.83 Y147.59 E59.54374
G1 X163.05 Y146.66 E59.57160
G1 X162.21 Y146.80 E59.59834
G1 X162.22 Y146.08 E59.62678
G1 X161.36 Y146.59 E59.66822
G0 F6000 X161.29 Y145.95
G1 F1560 X159.45 Y147.79 E59.77653
G0 F6000 X159.62 Y147.81
G0 X160.56 Y149.42
G0 X162.21 Y149.76
G0 X162.26 Y149.93
G1 F1560 X163.42 Y148.76 E59.84476
G0 F6000 X161.94 Y154.79
;TYPE:WALL-OUTER
G1 F1560 X162.36 Y154.92 E59.86296
G1 X162.75 Y155.13 E59.88121
G1 X163.09 Y155.41 E59.89961
G1 X163.37 Y155.75 E59.91801
G1 X163.58 Y156.14 E59.93626
G1 X163.70 Y156.56 E59.95446
G1 X163.75 Y157.00 E59.97293
G1 X163.70 Y157.44 E59.99136
G1 X163.58 Y157.86 E60.00956
G1 X163.37 Y158.25 E60.02780
G1 X163.09 Y158.59 E60.04621
G1 X162.75 Y158.87 E60.06461
G1 X162.36 Y159.08 E60.08286
G1 X161.94 Y159.20 E60.10106
G1 X161.50 Y159.25 E60.11949
G1 X161.06 Y159.20 E60.13795
G1 X160.64 Y159.08 E60.15615
G1 X160.25 Y158.87 E60.17440
G1 X159.91 Y158.59 E60.19280
G1 X159.63 Y158.25 E60.21121
G1 X159.42 Y157.86 E60.22945
G1 X159.29 Y157.44 E60.24766
G1 X159.25 Y157.00 E60.26612
G1 X159.29 Y156.56 E60.28455
G1 X159.42 Y156.14 E60.30275
G1 X159.63 Y155.75 E60.32100
G1 X159.91 Y155.41 E60.33940
G1 X160.25 Y155.13 E60.35780
G1 X160.64 Y154.92 E60.37605
G1 X161.06 Y154.79 E60.39425
G1 X161.50 Y154.75 E60.41272
G1 X161.94 Y154.79 E60.43114
G0 F6000 X161.74 Y155.77
G1 F1560 X161.50 Y155.75 E60.44134
G1 X161.25 Y155.77 E60.45157
G1 X161.02 Y155.84 E60.46174
G1 X160.81 Y155.96 E60.47191
G1 X160.61 Y156.11 E60.48214
G1 X160.46 Y156.31 E60.49237
G1 X160.34 Y156.52 E60.50254
G1 X160.27 Y156.75 E60.51271
G1 X160.25 Y157.00 E60.52294
G1 X160.27 Y157.24 E60.53313
G1 X160.34 Y157.48 E60.54330
G1 X160.46 Y157.69 E60.55347
G1 X160.61 Y157.88 E60.56370
G1 X160.81 Y158.04 E60.57393
G1 X161.02 Y158.16 E60.58410
G1 X161.25 Y158.23 E60.59423
G1 X161.50 Y158.25 E60.60451
G1 X161.75 Y158.23 E60.61475
G1 X161.98 Y158.16 E60.62487
G1 X162.19 Y158.04 E60.63505
G1 X162.38 Y157.88 E60.64527
G1 X162.54 Y157.69 E60.65550
G1 X162.66 Y157.48 E60.66568
G1 X162.73 Y157.25 E60.67580
G1 X162.75 Y157.00 E60.68604
G1 X162.73 Y156.75 E60.69632
G1 X162.66 Y156.52 E60.70645
G1 X162.54 Y156.31 E60.71662
G1 X162.38 Y156.11 E60.72685
G1 X162.19 Y155.96 E60.73707
G1 X161.98 Y155.84 E60.74725
G1 X161.74 Y155.77 E60.75741
G0 F6000 X161.56 Y155.58
;TYPE:FILL
G1 F1560 X162.35 Y155.14 E60.78983
G1 X162.33 Y155.87 E60.81781
G1 X163.14 Y155.77 E60.84442
G1 X162.87 Y156.74 E60.87232
G1 X163.49 Y156.47 E60.90079
G0 F6000 X163.56 Y157.11
G1 F1560 X161.61 Y159.06 E61.01527
G0 F6000 X161.54 Y158.42
G1 F1560 X160.72 Y158.89 E61.04902
G1 X160.73 Y158.17 E61.07698
G1 X159.90 Y158.29 E61.10373
G1 X160.15 Y157.34 E61.13161
G1 X159.53 Y157.61 E61.15982
G0 F6000 X159.43 Y157.00
G1 F1560 X161.50 Y154.93 E61.28191
G0 F6000 X160.56 Y155.16
G1 F1560 X159.66 Y156.06 E61.33512
G0 F6000 X159.81 Y156.15
G0 X160.08 Y157.94
G0 X161.50 Y158.70
G0 X162.58 Y158.56
G0 X162.69 Y158.69
G1 F1560 X163.19 Y158.19 E61.36458
G0 F6000 X161.50 Y141.25
;TYPE:WALL-OUTER
G1 F1560 X161.06 Y141.21 E61.38301
G1 X160.64 Y141.08 E61.40121
G1 X160.25 Y140.87 E61.41946
G1 X159.91 Y140.59 E61.43786
G1 X159.63 Y140.25 E61.45626
G1 X159.42 Y139.86 E61.47451
G1 X159.29 Y139.44 E61.49271
G1 X159.25 Y139.00 E61.51118
G1 X159.29 Y138.56 E61.52960
G1 X159.42 Y138.14 E61.54781
G1 X159.63 Y137.75 E61.56605
G1 X159.91 Y137.41 E61.58446
G1 X160.25 Y137.13 E61.60286
G1 X160.64 Y136.92 E61.62110
G1 X161.06 Y136.80 E61.63931
G1 X161.50 Y136.75 E61.65773
G1 X161.94 Y136.80 E61.67620
G1 X162.36 Y136.92 E61.69440
G1 X162.75 Y137.13 E61.71265
G1 X163.09 Y137.41 E61.73105
G1 X163.37 Y137.75 E61.74945
G1 X163.58 Y138.14 E61.76770
G1 X163.70 Y138.56 E61.78590
G1 X163.75 Y139.00 E61.80433
G1 X163.70 Y139.44 E61.82280
G1 X163.58 Y139.86 E61.84100
G1 X163.37 Y140.25 E61.85925
G1 X163.09 Y140.59 E61.87765
G1 X162.75 Y140.87 E61.89605
G1 X162.36 Y141.08 E61.91430
G1 X161.94 Y141.21 E61.93250
G1 X161.50 Y141.25 E61.95097
G0 F6000 X161.50 Y140.25
G1 F1560 X161.74 Y140.23 E61.96116
G1 X161.98 Y140.16 E61.97133
G1 X162.19 Y140.04 E61.98150
G1 X162.38 Y139.89 E61.99173
G1 X162.54 Y139.69 E62.00195
G1 X162.66 Y139.48 E62.01213
G1 X162.73 Y139.25 E62.02225
G1 X162.75 Y139.00 E62.03253
G1 X162.73 Y138.75 E62.04277
G1 X162.66 Y138.52 E62.05290
G1 X162.54 Y138.31 E62.06307
G1 X162.38 Y138.12 E62.07330
G1 X162.19 Y137.96 E62.08353
G1 X161.98 Y137.84 E62.09370
G1 X161.75 Y137.77 E62.10383
G1 X161.50 Y137.75 E62.11407
G1 X161.25 Y137.77 E62.12435
G1 X161.02 Y137.84 E62.13447
G1 X160.81 Y137.96 E62.14465
G1 X160.61 Y138.12 E62.15487
G1 X160.46 Y138.31 E62.16510
G1 X160.34 Y138.52 E62.17527
G1 X160.27 Y138.76 E62.18544
G1 X160.25 Y139.00 E62.19568
G1 X160.27 Y139.25 E62.20587
G1 X160.34 Y139.48 E62.21604
G1 X160.46 Y139.69 E62.22621
G1 X160.61 Y139.89 E62.23644
G1 X160.81 Y140.04 E62.24666
G1 X161.02 Y140.16 E62.25684
G1 X161.25 Y140.23 E62.26700
G1 X161.50 Y140.25 E62.27724
G0 F6000 X161.19 Y140.39
;TYPE:FILL
G1 F1560 X160.46 Y140.77 E62.30741
G1 X160.52 Y140.00 E62.33428
G1 X159.75 Y140.06 E62.36106
G1 X159.79 Y139.32 E62.39086
G1 X160.13 Y138.62 E62.42310
G0 F6000 X159.47 Y138.57
G1 F1560 X161.07 Y136.97 E62.51709
G0 F6000 X161.12 Y137.63
G1 F1560 X162.07 Y137.03 E62.55671
G1 X162.08 Y137.73 E62.58651
G1 X162.96 Y137.56 E62.61333
G1 X162.78 Y138.44 E62.64002
G1 X163.47 Y138.46 E62.67000
G1 X162.85 Y139.44 E62.71817
G0 F6000 X163.51 Y139.49
G1 F1560 X161.99 Y141.01 E62.80754
G0 F6000 X161.94 Y140.35
G1 F1560 X161.24 Y141.05 E62.84855
G0 F6000 X154.70 Y139.44
;TYPE:WALL-OUTER
G1 F1560 X154.58 Y139.86 E62.86676
G1 X154.37 Y140.25 E62.88500
G1 X154.09 Y140.59 E62.90340
G1 X153.75 Y140.87 E62.92181
G1 X153.36 Y141.08 E62.94005
G1 X152.94 Y141.21 E62.95826
G1 X152.50 Y141.25 E62.97668
G1 X152.06 Y141.21 E62.99511
G1 X151.64 Y141.08 E63.01331
G1 X151.25 Y140.87 E63.03156
G1 X150.91 Y140.59 E63.04996
G1 X150.63 Y140.25 E63.06836
G1 X150.42 Y139.86 E63.08661
G1 X150.30 Y139.44 E63.10481
G1 X150.25 Y139.00 E63.12324
G1 X150.30 Y138.56 E63.14170
G1 X150.42 Y138.14 E63.15991
G1 X150.63 Y137.75 E63.17815
G1 X150.91 Y137.41 E63.19656
G1 X151.25 Y137.13 E63.21496
G1 X151.64 Y136.92 E63.23321
G1 X152.06 Y136.80 E63.25141
G1 X152.50 Y136.75 E63.26983
G1 X152.94 Y136.80 E63.28826
G1 X153.36 Y136.92 E63.30646
G1 X153.75 Y137.13 E63.32471
G1 X154.09 Y137.41 E63.34311
G1 X154.37 Y137.75 E63.36151
G1 X154.58 Y138.14 E63.37976
G1 X154.70 Y138.56 E63.39796
G1 X154.75 Y139.00 E63.41639
G1 X154.70 Y139.44 E63.43486
G0 F6000 X153.73 Y139.25
G1 F1560 X153.75 Y139.00 E63.44514
G1 X153.73 Y138.75 E63.45537
G1 X153.66 Y138.52 E63.46550
G1 X153.54 Y138.31 E63.47567
G1 X153.38 Y138.12 E63.48590
G1 X153.19 Y137.96 E63.49613
G1 X152.98 Y137.84 E63.50630
G1 X152.75 Y137.77 E63.51643
G1 X152.50 Y137.75 E63.52667
G1 X152.25 Y137.77 E63.53691
G1 X152.02 Y137.84 E63.54703
G1 X151.81 Y137.96 E63.55721
G1 X151.62 Y138.12 E63.56743
G1 X151.46 Y138.31 E63.57766
G1 X151.34 Y138.52 E63.58783
G1 X151.27 Y138.75 E63.59796
G1 X151.25 Y139.00 E63.60824
G1 X151.27 Y139.25 E63.61848
G1 X151.34 Y139.48 E63.62861
G1 X151.46 Y139.69 E63.63878
G1 X151.62 Y139.89 E63.64901
G1 X151.81 Y140.04 E63.65923
G1 X152.02 Y140.16 E63.66941
G1 X152.26 Y140.23 E63.67957
G1 X152.50 Y140.25 E63.68977
G1 X152.74 Y140.23 E63.69996
G1 X152.98 Y140.16 E63.71013
G1 X153.19 Y140.04 E63.72030
G1 X153.38 Y139.89 E63.73053
G1 X153.54 Y139.69 E63.74075
G1 X153.66 Y139.48 E63.75093
G1 X153.73 Y139.25 E63.76105
G0 F6000 X153.91 Y139.19
;TYPE:FILL
