;-- START GCODE --
;Sliced for Type A Machines Series 1
;Sliced at: Fri 28-10-2016 23:14:05
;Basic settings: Layer height: 0.2 Walls: 1.4 Fill: 100
;Print Speed: 10 Support: 0
;Retraction Speed: 40 Retraction Distance: 1.2
;Print time: #P_TIME#
;Filament used: #F_AMNT#m #F_WGHT#g
;Filament cost: #F_COST#
M106 S255	 ;start with the fan on
G21        ;metric values
G90        ;absolute positioning
M106 S255    ;start with the fan on
G28     ;move to endstops
G29		;allows for auto-levelling
G1 X150 Y5  Z15.0 F12000 ;center and move the platform down 15mm
M109 S220 ;Heat To temp
G92 E0                  ;zero the extruded length
G1 F200 E30              ;extrude 30mm of feed stock
G92 E0                  ;zero the extruded length again
G1 X175 Y25  Z0 F12000 ;remove bugger
G1 X220 F12000 ;remove bugger
G1 X150 Y150  Z15 F12000 ;recenter and begin
G1 F12000

;Layer count: 3
;LAYER:0
M106 S255
G0 F12000 X90.02 Y123.39 Z0.30
;TYPE:SKIRT
G1 F600 X124.16 Y123.39 E1.98452
G1 X124.27 Y123.30 E1.99280
G1 X124.46 Y123.14 E2.00707
G1 X124.65 Y122.98 E2.02154
G1 X125.00 Y122.72 E2.04664
G1 X125.30 Y122.52 E2.06800
G1 X125.72 Y122.25 E2.09680
G1 X125.97 Y122.10 E2.11384
G1 X126.07 Y122.05 E2.12059
G1 X126.64 Y121.71 E2.15894
G1 X127.14 Y121.41 E2.19277
G1 X127.21 Y121.37 E2.19762
G1 X127.46 Y121.22 E2.21419
G1 X127.89 Y120.96 E2.24349
G1 X128.16 Y120.84 E2.26056
G1 X128.39 Y120.73 E2.27539
G1 X128.56 Y120.66 E2.28598
G1 X128.73 Y120.58 E2.29727
G1 X128.91 Y120.50 E2.30833
G1 X129.26 Y120.35 E2.33068
G1 X129.37 Y120.30 E2.33773
G1 X129.59 Y120.20 E2.35217
G1 X129.73 Y120.14 E2.36071
G1 X130.15 Y119.95 E2.38761
G1 X130.45 Y119.85 E2.40594
G1 X130.55 Y119.82 E2.41180
G1 X130.79 Y119.74 E2.42691
G1 X130.98 Y119.68 E2.43808
G1 X131.06 Y119.65 E2.44334
G1 X131.32 Y119.57 E2.45924
G1 X131.49 Y119.52 E2.46911
G1 X131.49 Y119.52 E2.46917
G1 X131.60 Y119.48 E2.47601
G1 X131.84 Y119.40 E2.49067
G1 X132.02 Y119.34 E2.50207
G1 X132.16 Y119.30 E2.51018
G1 X132.47 Y119.20 E2.52907
G1 X132.87 Y119.11 E2.55284
G1 X133.04 Y119.08 E2.56323
G1 X133.18 Y119.05 E2.57156
G1 X133.40 Y119.00 E2.58434
G1 X133.57 Y118.96 E2.59455
G1 X133.74 Y118.93 E2.60478
G1 X133.92 Y118.89 E2.61528
G1 X134.15 Y118.84 E2.62901
G1 X134.52 Y118.77 E2.65113
G1 X134.70 Y118.74 E2.66170
G1 X134.91 Y118.70 E2.67394
G1 X135.34 Y118.63 E2.69909
G1 X135.56 Y118.60 E2.71227
G1 X135.73 Y118.58 E2.72212
G1 X136.11 Y118.53 E2.74458
G1 X136.34 Y118.52 E2.75780
G1 X136.86 Y118.49 E2.78829
G1 X137.03 Y118.48 E2.79796
G1 X137.56 Y118.45 E2.82921
G1 X137.66 Y118.45 E2.83474
G1 X137.66 Y118.45 E2.83479
G1 X137.91 Y118.43 E2.84929
G1 X138.08 Y118.42 E2.85947
G1 X138.08 Y118.42 E2.85953
G1 X138.50 Y118.40 E2.88380
G1 X138.76 Y118.41 E2.89870
G1 X139.12 Y118.43 E2.91983
G1 X139.46 Y118.45 E2.93985
G1 X139.82 Y118.47 E2.96068
G1 X139.99 Y118.48 E2.97040
G1 X140.69 Y118.52 E3.01114
G1 X140.95 Y118.53 E3.02639
G1 X141.38 Y118.60 E3.05134
G1 X141.56 Y118.62 E3.06211
G1 X141.68 Y118.64 E3.06930
G1 X141.90 Y118.68 E3.08205
G1 X142.08 Y118.71 E3.09289
G1 X142.24 Y118.73 E3.10214
G1 X142.24 Y118.73 E3.10220
G1 X142.42 Y118.76 E3.11284
G1 X142.60 Y118.79 E3.12338
G1 X142.77 Y118.82 E3.13339
G1 X142.94 Y118.84 E3.14362
G1 X143.37 Y118.91 E3.16881
G1 X143.63 Y118.98 E3.18470
G1 X143.63 Y118.98 E3.18476
G1 X143.81 Y119.03 E3.19511
G1 X143.93 Y119.06 E3.20227
G1 X144.15 Y119.12 E3.21562
G1 X144.33 Y119.17 E3.22650
G1 X144.50 Y119.22 E3.23711
G1 X144.60 Y119.24 E3.24265
G1 X144.60 Y119.24 E3.24271
G1 X144.85 Y119.31 E3.25775
G1 X145.03 Y119.36 E3.26852
G1 X145.20 Y119.40 E3.27887
G1 X145.36 Y119.45 E3.28894
G1 X145.36 Y119.45 E3.28899
G1 X145.72 Y119.54 E3.31047
G1 X146.04 Y119.67 E3.33058
G1 X146.14 Y119.70 E3.33674
G1 X146.39 Y119.80 E3.35205
G1 X146.54 Y119.86 E3.36126
G1 X146.74 Y119.93 E3.37396
G1 X146.92 Y120.00 E3.38498
G1 X147.02 Y120.04 E3.39145
G1 X147.26 Y120.13 E3.40639
G1 X147.43 Y120.20 E3.41673
G1 X147.62 Y120.27 E3.42838
G1 X148.04 Y120.43 E3.45504
G1 X148.28 Y120.56 E3.47080
G1 X148.51 Y120.69 E3.48609
G1 X148.62 Y120.75 E3.49304
G1 X148.87 Y120.88 E3.50976
G1 X149.04 Y120.98 E3.52125
G1 X149.20 Y121.06 E3.53161
G1 X149.39 Y121.17 E3.54435
G1 X149.53 Y121.24 E3.55330
G1 X149.74 Y121.35 E3.56724
G1 X149.88 Y121.43 E3.57619
G1 X150.09 Y121.54 E3.59033
G1 X150.21 Y121.61 E3.59801
G1 X150.44 Y121.74 E3.61374
G1 X150.56 Y121.80 E3.62115
G1 X150.79 Y121.92 E3.63671
G1 X150.86 Y121.96 E3.64147
G1 X151.19 Y122.14 E3.66302
G1 X151.47 Y122.34 E3.68324
G1 X151.67 Y122.49 E3.69747
G1 X151.83 Y122.61 E3.70941
G1 X151.96 Y122.70 E3.71836
G1 X152.17 Y122.86 E3.73375
G1 X152.37 Y123.00 E3.74806
G1 X152.46 Y123.06 E3.75435
G1 X152.67 Y123.22 E3.76933
G1 X152.88 Y123.37 E3.78435
G1 X152.91 Y123.39 E3.78664
G1 X214.98 Y123.39 E7.39439
G1 X214.98 Y131.78 E7.88215
G1 X204.61 Y131.78 E8.48470
G1 X205.06 Y132.36 E8.52693
G1 X205.46 Y133.08 E8.57511
G1 X205.46 Y133.08 E8.57516
G1 X206.28 Y134.58 E8.67467
G1 X206.56 Y135.35 E8.72240
G1 X207.07 Y136.75 E8.80904
G1 X208.13 Y139.96 E9.00491
G1 X208.30 Y140.64 E9.04609
G1 X208.72 Y142.36 E9.14860
G1 X208.78 Y143.19 E9.19698
G1 X208.78 Y143.19 E9.19704
G1 X208.91 Y144.85 E9.29434
G1 X208.85 Y145.66 E9.34156
G1 X208.72 Y147.34 E9.43920
G1 X208.53 Y148.13 E9.48615
G1 X208.15 Y149.75 E9.58330
G1 X207.84 Y150.49 E9.62991
G1 X207.20 Y152.01 E9.72578
G1 X206.77 Y152.69 E9.77229
G1 X206.77 Y152.69 E9.77235
G1 X205.89 Y154.05 E9.86675
G1 X204.24 Y155.79 E10.00607
G1 X202.81 Y156.77 E10.10710
G1 X214.98 Y156.77 E10.81480
G1 X214.98 Y165.16 E11.30256
G1 X206.46 Y165.16 E11.79782
G1 X206.88 Y166.76 E11.89379
G1 X207.03 Y168.60 E12.00101
G1 X206.88 Y170.44 E12.10822
G1 X206.41 Y172.22 E12.21536
G1 X205.65 Y173.89 E12.32227
G1 X205.64 Y173.90 E12.32290
G1 X207.31 Y177.46 E12.55171
G1 X210.33 Y184.04 E12.97202
G1 X205.90 Y185.94 E13.25237
G1 X205.06 Y186.15 E13.30273
G1 X203.20 Y186.60 E13.41352
G1 X202.08 Y186.59 E13.47897
G1 X200.02 Y186.56 E13.59853
G1 X199.25 Y186.45 E13.64397
G1 X197.69 Y186.21 E13.73540
G1 X196.17 Y185.81 E13.82687
G1 X194.54 Y185.17 E13.92866
G1 X193.81 Y184.69 E13.97952
G1 X193.11 Y185.39 E14.03714
G1 X192.13 Y186.01 E14.10502
G1 X191.08 Y186.37 E14.16909
G1 X191.16 Y186.56 E14.18138
G1 X179.87 Y186.56 E14.83804
G1 X179.61 Y185.88 E14.88056
G1 X174.50 Y185.88 E15.17763
G1 X174.50 Y185.90 E15.17870
G1 X162.81 Y185.90 E15.85844
G1 X162.80 Y185.88 E15.85950
G1 X155.09 Y185.88 E16.30750
G1 X155.09 Y185.90 E16.30862
G1 X145.86 Y185.90 E16.84485
G1 X145.85 Y185.88 E16.84600
G1 X133.60 Y185.88 E17.55770
G1 X133.62 Y185.81 E17.56220
G1 X126.95 Y185.81 E17.95011
G1 X126.96 Y185.83 E17.95154
G1 X118.19 Y185.78 E18.46128
G1 X115.78 Y185.76 E18.60148
G1 X115.78 Y185.85 E18.60653
G1 X109.95 Y185.81 E18.94493
G1 X106.89 Y185.78 E19.12279
G1 X106.89 Y185.77 E19.12349
G1 X101.09 Y185.76 E19.46060
G1 X96.69 Y185.74 E19.71640
G1 X96.04 Y165.16 E20.91315
G1 X90.02 Y165.16 E21.26287
G1 X90.02 Y156.77 E21.75063
G1 X94.44 Y156.77 E22.00788
G1 X94.17 Y131.78 E23.46032
G1 X90.02 Y131.78 E23.70147
G1 X90.02 Y123.39 E24.18923
G1 F2400 E22.98923
G0 F12000 X98.52 Y127.79
;TYPE:WALL-INNER
G1 F2400 E24.18923
G1 F600 X101.64 Y127.79 E24.37052
G1 X107.49 Y140.96 E25.20800
G1 X109.33 Y140.57 E25.31773
G1 X109.33 Y127.79 E26.06042
G1 X113.00 Y127.79 E26.27320
G1 X117.88 Y140.22 E27.04955
G1 X118.47 Y140.16 E27.08429
G1 X118.50 Y140.36 E27.09582
G1 X118.18 Y140.99 E27.13658
G1 X122.00 Y150.74 E27.74538
G1 X122.38 Y151.12 E27.77666
G1 X122.46 Y151.23 E27.78480
G1 X122.86 Y151.64 E27.81773
G1 X123.40 Y152.18 E27.86195
G1 X123.39 Y152.20 E27.86353
G1 X123.60 Y152.38 E27.87941
G1 X124.28 Y153.06 E27.93555
G1 X124.45 Y153.93 E27.98725
G1 X124.61 Y154.19 E28.00473
G1 X124.52 Y154.30 E28.01287
G1 X124.44 Y154.42 E28.02119
G1 X123.82 Y153.65 E28.07870
G1 X119.30 Y153.65 E28.34159
G1 X114.71 Y141.10 E29.11838
G1 X112.80 Y141.43 E29.23137
G1 X112.67 Y153.65 E29.94195
G1 X109.90 Y153.65 E30.10289
G1 X104.08 Y140.90 E30.91749
G1 X102.22 Y141.34 E31.02838
G1 X102.60 Y153.67 E31.74536
G1 X98.81 Y153.67 E31.96552
G1 X98.52 Y127.79 E33.46976
G1 F2400 E32.26976
G0 F12000 X100.31 Y161.17
G1 F2400 E33.46976
G1 F600 X102.71 Y161.17 E33.60931
G1 X107.75 Y172.00 E34.30384
G1 X109.56 Y171.62 E34.41197
G1 X109.69 Y161.17 E35.01922
G1 X112.07 Y161.17 E35.15720
G1 X120.38 Y181.39 E36.42806
G1 X117.44 Y181.37 E36.59865
G1 X113.31 Y171.28 E37.23240
G1 X111.44 Y171.65 E37.34354
G1 X111.40 Y181.42 E37.91134
G1 X109.71 Y181.41 E38.00968
G1 X104.96 Y171.23 E38.66224
G1 X103.13 Y171.64 E38.77110
G1 X103.16 Y181.36 E39.33628
G1 X100.95 Y181.36 E39.46491
G1 X100.31 Y161.17 E40.63892
G0 F12000 X119.63 Y161.17
G1 F600 X122.29 Y161.17 E40.79312
G1 X123.62 Y163.88 E40.96850
G1 X124.22 Y165.09 E41.04729
G1 X131.21 Y165.09 E41.45356
G1 X131.21 Y160.76 E41.70511
G1 X131.14 Y160.76 E41.70901
G1 X131.18 Y160.60 E41.71856
G1 X131.35 Y160.68 E41.72969
G1 X131.52 Y160.74 E41.74004
G1 X132.33 Y161.08 E41.79101
G1 X132.35 Y161.17 E41.79626
G1 X132.54 Y161.17 E41.80759
G1 X132.72 Y161.24 E41.81872
G1 X132.81 Y161.17 E41.82541
G1 X134.00 Y161.17 E41.89463
G1 X134.00 Y181.41 E43.07097
G1 X127.06 Y181.41 E43.47451
G1 X125.49 Y177.59 E43.71410
G1 X126.72 Y177.59 E43.78559
G1 X119.63 Y161.17 E44.82541
G0 F12000 X125.19 Y167.70
G1 F600 X128.36 Y177.04 E45.39870
G1 X131.14 Y177.04 E45.55993
G1 X131.14 Y167.70 E46.10279
G1 X125.19 Y167.70 E46.44833
G0 F12000 X134.52 Y163.54
G0 X134.56 Y161.32
G0 X139.85 Y161.17
G1 F600 X142.60 Y161.17 E46.60839
G1 X144.34 Y171.82 E47.23543
G1 X150.93 Y181.50 E47.91646
G1 X148.32 Y181.50 E48.06810
G1 X145.14 Y176.29 E48.42277
G1 X143.60 Y176.54 E48.51334
G1 X142.42 Y181.48 E48.80883
G1 X139.28 Y181.48 E48.99093
G1 X141.85 Y171.53 E49.58841
G1 X139.85 Y161.17 E50.20179
G0 F12000 X145.41 Y160.76
G1 F600 X145.84 Y160.61 E50.22838
G1 X145.88 Y160.76 E50.23755
G1 X145.41 Y160.76 E50.26487
G0 F12000 X152.25 Y161.17
G1 F600 X154.96 Y161.17 E50.42250
G1 X157.34 Y172.60 E51.10117
G1 X159.15 Y172.67 E51.20686
G1 X162.52 Y161.17 E51.90358
G1 X164.29 Y161.17 E52.00611
G1 X168.97 Y181.50 E53.21885
G1 X166.49 Y181.50 E53.36346
G1 X164.84 Y172.34 E53.90437
G1 X163.02 Y172.22 E54.01027
G1 X160.06 Y181.48 E54.57552
G1 X156.84 Y181.48 E54.76285
G1 X155.12 Y177.84 E54.99716
G1 X155.69 Y177.84 E55.03018
G1 X152.25 Y161.17 E56.01931
G0 F12000 X171.43 Y161.17
G1 F600 X178.91 Y161.17 E56.45465
G1 X180.76 Y165.69 E56.73872
G1 X174.87 Y165.69 E57.08129
G1 X176.21 Y170.98 E57.39838
G1 X181.53 Y170.98 E57.70771
G1 X182.14 Y172.72 E57.81451
G1 X176.94 Y172.72 E58.11633
G1 X176.98 Y174.68 E58.23051
G1 X177.05 Y177.78 E58.41073
G1 X182.90 Y177.78 E58.75069
G1 X184.66 Y182.17 E59.02542
G1 X182.91 Y182.17 E59.12702
G1 X182.66 Y181.48 E59.16954
G1 X175.49 Y181.48 E59.58581
G1 X173.96 Y177.72 E59.82188
G1 X174.79 Y177.72 E59.87030
G1 X171.43 Y161.17 E60.85207
G0 F12000 X191.04 Y161.30
G0 X191.32 Y162.18
G0 X191.10 Y162.98
G1 F600 X191.95 Y162.40 E60.91176
G1 X191.56 Y161.17 E60.98667
G1 X199.02 Y161.17 E61.41997
G1 X198.63 Y162.40 E61.49494
G1 X200.04 Y163.37 E61.59435
G1 X200.23 Y163.50 E61.60754
G1 X201.07 Y164.37 E61.67762
G1 X201.81 Y165.53 E61.75784
G1 X202.26 Y166.47 E61.81816
G1 X202.53 Y167.50 E61.88020
G1 X202.62 Y168.60 E61.94425
G1 X202.53 Y169.70 E62.00830
G1 X202.25 Y170.73 E62.07058
G1 X201.82 Y171.69 E62.13172
G1 X201.24 Y172.52 E62.19047
G1 X200.59 Y173.13 E62.24230
G1 X199.62 Y173.60 E62.30519
G1 X199.06 Y173.84 E62.34052
G1 X198.61 Y174.04 E62.36883
G1 X198.14 Y174.36 E62.40228
G1 X197.73 Y174.78 E62.43590
G1 X197.42 Y175.26 E62.46965
G1 X197.22 Y175.82 E62.50377
G1 X197.15 Y176.40 E62.53806
G1 X197.22 Y176.99 E62.57236
G1 X197.42 Y177.54 E62.60648
G1 X197.73 Y178.03 E62.64033
G1 X198.14 Y178.44 E62.67387
G1 X198.61 Y178.77 E62.70738
G1 X199.13 Y179.00 E62.74053
G1 X199.69 Y179.15 E62.77377
G1 X200.26 Y179.19 E62.80713
G1 X200.85 Y179.14 E62.84171
G1 X201.75 Y178.88 E62.89609
G1 X202.80 Y178.53 E62.96040
G1 X202.93 Y178.47 E62.96866
G1 X203.32 Y179.31 E63.02233
G1 X204.45 Y181.77 E63.17949
G1 X202.70 Y182.19 E63.28423
G1 X200.38 Y182.17 E63.41920
G1 X198.59 Y181.90 E63.52451
G1 X197.53 Y181.62 E63.58761
G1 X196.59 Y181.25 E63.64657
G1 X195.77 Y180.70 E63.70425
G1 X195.04 Y179.95 E63.76488
G1 X194.44 Y179.04 E63.82834
G1 X194.00 Y178.00 E63.89409
G1 X193.74 Y176.85 E63.96236
G1 X193.68 Y175.66 E64.03173
G1 X193.82 Y174.48 E64.10073
G1 X194.16 Y173.36 E64.16881
G1 X194.62 Y172.44 E64.22849
G1 X195.12 Y171.98 E64.26790
G1 X195.42 Y171.84 E64.28717
G1 X196.44 Y171.52 E64.34958
G1 X196.95 Y171.38 E64.38043
G1 X197.54 Y171.09 E64.41849
G1 X198.07 Y170.71 E64.45665
G1 X198.51 Y170.22 E64.49474
G1 X198.85 Y169.66 E64.53293
G1 X199.06 Y169.03 E64.57123
G1 X199.14 Y168.38 E64.60953
G1 X199.06 Y167.72 E64.64789
G1 X198.85 Y167.10 E64.68620
G1 X198.51 Y166.54 E64.72438
G1 X198.07 Y166.05 E64.76247
G1 X197.54 Y165.66 E64.80064
G1 X196.95 Y165.38 E64.83870
G1 X196.32 Y165.21 E64.87691
G1 X195.66 Y165.15 E64.91512
G1 X195.01 Y165.21 E64.95333
G1 X194.37 Y165.38 E64.99154
G1 X193.78 Y165.66 E65.02960
G1 X193.25 Y166.05 E65.06777
G1 X192.90 Y166.44 E65.09808
G1 X191.10 Y162.98 E65.32435
G1 F2400 E64.12435
G0 F12000 X194.17 Y148.54
G1 F2400 E65.32435
G1 F600 X196.68 Y148.52 E65.47007
G1 X197.45 Y148.39 E65.51560
G1 X198.27 Y148.07 E65.56684
G1 X199.01 Y147.44 E65.62327
G1 X199.55 Y146.63 E65.68015
G1 X199.93 Y145.69 E65.73896
G1 X200.16 Y144.65 E65.80079
G1 X200.26 Y143.54 E65.86543
G1 X200.23 Y142.39 E65.93253
G1 X200.07 Y141.22 E66.00086
G1 X199.79 Y140.08 E66.06922
G1 X199.41 Y139.00 E66.13627
G1 X198.91 Y138.00 E66.20096
G1 X198.32 Y137.12 E66.26264
G1 X197.66 Y136.43 E66.31799
G1 X196.39 Y135.33 E66.41574
G1 X194.76 Y134.86 E66.51439
G1 X193.56 Y134.82 E66.58423
G1 X191.70 Y134.95 E66.69255
G1 X194.17 Y148.54 E67.49542
G0 F12000 X194.76 Y147.94
G0 X190.04 Y147.76
G0 X190.78 Y148.48
G1 F600 X186.80 Y127.79 E68.72011
G1 X193.57 Y127.79 E69.11353
G1 X193.27 Y129.25 E69.19998
G1 X195.36 Y130.14 E69.33204
G1 X195.84 Y130.35 E69.36248
G1 X197.45 Y131.06 E69.46468
G1 X198.90 Y132.05 E69.56690
G1 X200.23 Y133.30 E69.67310
G1 X201.37 Y134.77 E69.78103
G1 X202.27 Y136.41 E69.88933
G1 X202.91 Y138.18 E69.99884
G1 X203.90 Y141.18 E70.18242
G1 X204.03 Y141.70 E70.21378
G1 X204.36 Y143.05 E70.29479
G1 X204.50 Y144.86 E70.39990
G1 X204.36 Y146.66 E70.50501
G1 X203.95 Y148.39 E70.60823
G1 X203.29 Y149.96 E70.70738
G1 X202.42 Y151.32 E70.80157
G1 X201.38 Y152.42 E70.88943
G1 X200.25 Y153.19 E70.96887
G1 X198.71 Y153.67 E71.06232
G1 X191.76 Y153.67 E71.46650
G1 X189.74 Y148.49 E71.78920
G1 X190.78 Y148.48 E71.84971
G0 F12000 X190.04 Y147.76
G0 X189.20 Y148.51
G0 X190.10 Y147.92
G0 X186.27 Y127.93
G0 X181.11 Y127.97
G0 X180.01 Y135.16
G0 X183.54 Y153.55
G0 X182.96 Y153.67
G1 F600 X179.49 Y153.67 E72.05128
G1 X177.45 Y148.49 E72.37459
G1 X178.19 Y148.49 E72.41731
G1 X174.20 Y127.79 E73.64256
G1 X180.40 Y127.79 E74.00269
G1 X183.22 Y134.59 E74.43091
G1 X179.32 Y134.59 E74.65794
G1 X182.96 Y153.67 E75.78648
G0 F12000 X183.54 Y153.55
G0 X173.68 Y127.93
G0 X168.70 Y127.92
G0 X166.10 Y136.37
G0 X172.12 Y148.52
G0 X166.88 Y146.22
G0 X167.44 Y146.43
G1 F600 X167.68 Y145.64 E75.83426
G1 X167.76 Y144.82 E75.88198
G1 X167.68 Y144.01 E75.92976
G1 X167.44 Y143.22 E75.97755
G1 X167.06 Y142.50 E76.02531
G1 X166.53 Y141.86 E76.07314
G1 X165.90 Y141.34 E76.12096
G1 X165.17 Y140.95 E76.16872
G1 X164.39 Y140.71 E76.21651
G1 X163.63 Y140.64 E76.26090
G1 X159.38 Y140.64 E76.50798
G1 X161.61 Y148.92 E77.00659
G1 X164.32 Y148.96 E77.16440
G1 X165.17 Y148.70 E77.21602
G1 X165.90 Y148.31 E77.26378
G1 X166.53 Y147.79 E77.31161
G1 X167.06 Y147.15 E77.35943
G1 X167.44 Y146.43 E77.40719
G0 F12000 X166.88 Y146.22
G0 X172.38 Y146.50
G0 X171.79 Y146.54
G1 F600 X171.66 Y148.28 E77.50819
G1 X171.28 Y149.94 E77.60732
G1 X171.12 Y150.34 E77.63197
G1 X170.68 Y151.45 E77.70195
G1 X169.94 Y152.65 E77.78362
G1 X169.08 Y153.26 E77.84488
G1 X167.84 Y153.63 E77.92016
G1 X166.60 Y153.64 E77.99223
G1 X163.04 Y153.67 E78.19915
G1 X158.91 Y153.67 E78.43908
G1 X157.91 Y151.60 E78.57230
G1 X157.57 Y150.92 E78.61688
G1 X157.09 Y149.92 E78.68158
G1 X157.09 Y149.90 E78.68234
G1 X157.28 Y149.41 E78.71327
G1 X157.54 Y148.71 E78.75636
G1 X157.76 Y148.14 E78.79221
G1 X157.82 Y148.00 E78.80093
G1 X157.99 Y147.27 E78.84451
G1 X157.88 Y146.64 E78.88182
G1 X156.82 Y142.16 E79.14906
G1 X156.06 Y138.96 E79.34041
G1 X155.69 Y138.56 E79.37207
G1 X155.51 Y138.38 E79.38650
G1 X155.07 Y138.00 E79.42036
G1 X154.81 Y137.78 E79.44035
G1 X154.70 Y137.44 E79.46080
G1 X154.52 Y136.92 E79.49295
G1 X154.33 Y136.35 E79.52819
G1 X154.06 Y135.72 E79.56770
G1 X154.02 Y135.62 E79.57411
G1 X153.80 Y135.09 E79.60737
G1 X153.52 Y134.41 E79.65005
G1 X153.44 Y134.40 E79.65436
G1 X153.52 Y133.78 E79.69039
G1 X153.60 Y133.14 E79.72789
G1 X153.69 Y132.51 E79.76504
G1 X154.50 Y132.35 E79.81326
G1 X153.50 Y128.10 E80.06687
G1 X153.22 Y127.79 E80.09161
G1 X157.27 Y127.79 E80.32700
G1 X158.17 Y136.03 E80.80872
G1 X161.35 Y137.03 E81.00267
G1 X163.20 Y127.79 E81.55078
G1 X168.18 Y127.79 E81.84028
G1 X165.49 Y136.55 E82.37286
G1 X167.72 Y138.43 E82.54246
G1 X168.92 Y139.29 E82.62838
G1 X169.87 Y140.33 E82.71049
G1 X170.68 Y141.64 E82.79960
G1 X171.28 Y143.15 E82.89420
G1 X171.66 Y144.81 E82.99314
G1 X171.79 Y146.54 E83.09438
G1 F2400 E81.89438
G0 F12000 X147.42 Y143.54
G1 F2400 E83.09438
G1 F600 X147.24 Y144.09 E83.12779
G1 X147.00 Y144.85 E83.17400
G1 X146.91 Y145.16 E83.19272
G1 X145.85 Y145.67 E83.26104
G1 X145.84 Y146.52 E83.31056
G1 X145.83 Y147.05 E83.34120
G1 X145.82 Y147.57 E83.37160
G1 X145.81 Y148.09 E83.40188
G1 X145.80 Y148.80 E83.44263
G1 X145.80 Y149.32 E83.47286
G1 X145.78 Y150.02 E83.51367
G1 X145.78 Y150.31 E83.53035
G1 X145.72 Y150.29 E83.53372
G1 X144.19 Y149.86 E83.62633
G1 X143.91 Y151.19 E83.70533
G1 X143.81 Y151.67 E83.73380
G1 X143.86 Y152.24 E83.76731
G1 X143.96 Y153.28 E83.82817
G1 X143.69 Y153.28 E83.84358
G1 X143.27 Y153.74 E83.87953
G1 X142.94 Y154.11 E83.90867
G1 X142.57 Y154.55 E83.94186
G1 X142.51 Y154.62 E83.94679
G1 X141.64 Y154.58 E83.99746
G1 X141.57 Y154.39 E84.00908
G1 X140.88 Y153.98 E84.05585
G1 X141.26 Y153.64 E84.08519
G1 X141.72 Y153.22 E84.12124
G1 X142.08 Y152.89 E84.15004
G1 X142.54 Y152.47 E84.18596
G1 X142.63 Y151.84 E84.22314
G1 X142.82 Y150.52 E84.30043
G1 X141.62 Y150.29 E84.37192
G1 X141.26 Y150.22 E84.39294
G1 X140.89 Y150.15 E84.41502
G1 X140.29 Y149.55 E84.46389
G1 X139.41 Y149.74 E84.51669
G1 X138.84 Y149.87 E84.55053
G1 X138.19 Y150.01 E84.58906
G1 X137.80 Y150.51 E84.62599
G1 X137.33 Y151.13 E84.67130
G1 X136.78 Y151.06 E84.70326
G1 X136.45 Y152.14 E84.76902
G1 X136.21 Y152.91 E84.81609
G1 X136.26 Y153.45 E84.84730
G1 X136.29 Y153.80 E84.86789
G1 X136.29 Y154.10 E84.88567
G1 X136.28 Y154.11 E84.88634
G1 X135.55 Y152.04 E85.01386
G1 X135.41 Y152.16 E85.02407
G1 X135.06 Y151.29 E85.07807
G1 X133.93 Y151.42 E85.14440
G1 X133.23 Y151.50 E85.18516
G1 X132.71 Y151.56 E85.21570
G1 X132.35 Y151.60 E85.23697
G1 X130.85 Y151.46 E85.32439
G1 X130.24 Y151.41 E85.36028
G1 X129.24 Y151.32 E85.41852
G1 X129.16 Y151.20 E85.42652
G1 X128.90 Y151.29 E85.44288
G1 X128.69 Y151.27 E85.45501
G1 X128.62 Y151.37 E85.46221
G1 X128.20 Y151.51 E85.48829
G1 X128.16 Y151.45 E85.49276
G1 X126.97 Y151.45 E85.56169
G1 X126.63 Y151.02 E85.59341
G1 X126.31 Y150.63 E85.62251
G1 X126.28 Y150.59 E85.62528
G1 X126.00 Y149.79 E85.67496
G1 X125.54 Y149.74 E85.70220
G1 X125.34 Y149.39 E85.72546
G1 X125.53 Y149.34 E85.73649
G1 X126.18 Y149.54 E85.77656
G1 X126.27 Y149.75 E85.78965
G1 X126.55 Y149.66 E85.80689
G1 X126.91 Y149.77 E85.82852
G1 X127.19 Y149.45 E85.85311
G1 X127.43 Y149.37 E85.86820
G1 X128.00 Y149.21 E85.90235
G1 X128.69 Y149.09 E85.94315
G1 X129.24 Y149.03 E85.97537
G1 X129.68 Y148.56 E86.01272
G1 X130.35 Y147.83 E86.07038
G1 X130.69 Y147.46 E86.09925
G1 X130.98 Y147.02 E86.13033
G1 X131.34 Y146.50 E86.16701
G1 X131.71 Y145.94 E86.20612
G1 X131.80 Y145.62 E86.22536
G1 X131.90 Y145.28 E86.24570
G1 X132.04 Y144.76 E86.27700
G1 X132.19 Y144.24 E86.30868
G1 X132.27 Y144.04 E86.32138
G1 X132.56 Y143.41 E86.36179
G1 X132.63 Y142.83 E86.39524
G1 X132.68 Y142.33 E86.42459
G1 X132.76 Y141.62 E86.46646
G1 X132.80 Y141.26 E86.48693
G1 X133.09 Y140.69 E86.52457
G1 X133.44 Y139.99 E86.56992
G1 X133.47 Y139.91 E86.57478
G1 X133.83 Y139.45 E86.60875
G1 X134.13 Y139.04 E86.63820
G1 X134.70 Y138.30 E86.69250
G1 X134.70 Y136.77 E86.78148
G1 X134.80 Y136.90 E86.79118
G1 X135.35 Y137.04 E86.82447
G1 X136.02 Y137.21 E86.86421
G1 X136.66 Y137.39 E86.90298
G1 X138.54 Y137.99 E87.01803
G1 X138.51 Y137.12 E87.06898
G1 X138.55 Y137.12 E87.07090
G1 X139.53 Y137.17 E87.12799
G1 X140.03 Y136.72 E87.16719
G1 X140.59 Y136.22 E87.21054
G1 X141.13 Y135.74 E87.25286
G1 X141.60 Y135.32 E87.28949
G1 X141.77 Y135.17 E87.30287
G1 X142.21 Y134.84 E87.33430
G1 X142.56 Y134.58 E87.35983
G1 X143.15 Y134.66 E87.39481
G1 X143.67 Y134.73 E87.42533
G1 X143.82 Y134.75 E87.43383
G1 X144.22 Y135.22 E87.46984
G1 X144.62 Y135.68 E87.50462
G1 X145.26 Y135.74 E87.54208
G1 X145.98 Y135.82 E87.58445
G1 X146.50 Y135.87 E87.61472
G1 X146.99 Y135.68 E87.64534
G1 X147.57 Y135.45 E87.68173
G1 X147.72 Y135.40 E87.69053
G1 X147.39 Y135.95 E87.72769
G1 X147.22 Y136.30 E87.75023
G1 X146.58 Y136.23 E87.78779
G1 X146.12 Y137.08 E87.84382
G1 X145.84 Y137.57 E87.87690
G1 X145.63 Y137.92 E87.90042
G1 X145.32 Y138.45 E87.93628
G1 X145.18 Y138.69 E87.95215
G1 X144.92 Y139.12 E87.98126
G1 X144.37 Y140.00 E88.04161
G1 X144.71 Y140.74 E88.08925
G1 X144.88 Y141.10 E88.11182
G1 X145.11 Y141.61 E88.14473
G1 X145.53 Y141.92 E88.17480
G1 X145.95 Y142.26 E88.20660
G1 X146.38 Y142.28 E88.23143
G1 X146.97 Y143.28 E88.29920
G1 X147.20 Y143.15 E88.31466
G1 X147.27 Y143.40 E88.32961
G1 X147.42 Y143.54 E88.34161
G0 F12000 X147.69 Y143.15
G1 F600 X147.95 Y143.42 E88.36315
G1 X147.61 Y144.47 E88.42726
G1 X147.57 Y144.59 E88.43459
G1 X147.35 Y145.30 E88.47785
G1 X147.29 Y145.49 E88.48949
G1 X146.31 Y145.97 E88.55305
G1 X146.30 Y146.53 E88.58595
G1 X146.29 Y147.06 E88.61653
G1 X146.29 Y147.58 E88.64693
G1 X146.28 Y148.10 E88.67727
G1 X146.27 Y148.80 E88.71796
G1 X146.26 Y149.32 E88.74825
G1 X146.25 Y150.03 E88.78899
G1 X146.25 Y150.39 E88.80998
G1 X146.08 Y150.87 E88.83981
G1 X145.60 Y150.74 E88.86925
G1 X144.54 Y150.44 E88.93270
G1 X144.37 Y151.29 E88.98283
G1 X144.28 Y151.70 E89.00721
G1 X144.33 Y152.20 E89.03645
G1 X144.44 Y153.47 E89.11050
G1 X144.69 Y153.32 E89.12755
G1 X145.27 Y153.49 E89.16255
G1 X145.34 Y153.59 E89.16986
G1 X145.26 Y153.75 E89.18047
G1 X143.90 Y153.75 E89.25969
G1 X143.54 Y154.14 E89.29055
G1 X143.10 Y154.63 E89.32869
G1 X142.73 Y155.09 E89.36296
G1 X141.32 Y155.03 E89.44528
G1 X141.19 Y154.71 E89.46535
G1 X140.63 Y154.37 E89.50349
G1 X140.48 Y154.43 E89.51301
G1 X140.49 Y154.29 E89.52096
G1 X140.24 Y154.14 E89.53811
G1 X140.24 Y154.12 E89.53917
G1 X140.19 Y153.78 E89.55930
G1 X140.17 Y153.63 E89.56786
G1 X140.56 Y153.64 E89.59053
G1 X141.03 Y153.21 E89.62765
G1 X141.49 Y152.80 E89.66365
G1 X142.10 Y152.24 E89.71179
G1 X142.18 Y151.69 E89.74402
G1 X142.30 Y150.90 E89.79078
G1 X141.53 Y150.74 E89.83644
G1 X140.83 Y150.61 E89.87794
G1 X140.66 Y150.58 E89.88771
G1 X140.14 Y150.06 E89.93016
G1 X139.50 Y150.20 E89.96834
G1 X138.94 Y150.32 E90.00181
G1 X138.45 Y150.43 E90.03065
G1 X138.10 Y150.88 E90.06398
G1 X137.63 Y151.50 E90.10940
G1 X137.69 Y151.65 E90.11885
G1 X137.11 Y151.57 E90.15304
G1 X136.89 Y152.27 E90.19581
G1 X136.81 Y152.56 E90.21311
G1 X136.68 Y152.96 E90.23754
G1 X136.71 Y153.23 E90.25336
G1 X136.74 Y153.58 E90.27377
G1 X136.75 Y154.26 E90.31307
G1 X136.57 Y154.51 E90.33102
G1 X136.48 Y154.53 E90.33652
G1 X136.19 Y154.62 E90.35430
G1 X135.93 Y154.52 E90.37069
G1 X135.34 Y152.84 E90.47376
G1 X135.25 Y152.92 E90.48080
G1 X135.01 Y152.39 E90.51462
G1 X134.77 Y151.80 E90.55196
G1 X133.98 Y151.88 E90.59775
G1 X133.64 Y151.93 E90.61800
G1 X133.12 Y151.98 E90.64852
G1 X132.00 Y152.10 E90.71382
G1 X131.99 Y152.03 E90.71799
G1 X130.81 Y151.93 E90.78679
G1 X130.19 Y151.87 E90.82280
G1 X128.97 Y151.76 E90.89428
G1 X128.94 Y151.76 E90.89609
G1 X127.99 Y152.07 E90.95377
G1 X127.90 Y151.91 E90.96431
G1 X126.74 Y151.91 E91.03162
G1 X126.42 Y151.51 E91.06151
G1 X125.87 Y150.82 E91.11264
G1 X125.66 Y150.22 E91.14985
G1 X125.25 Y150.17 E91.17376
G1 X124.87 Y149.50 E91.21847
G1 X124.77 Y149.50 E91.22452
G1 X124.76 Y149.40 E91.23039
G1 X124.86 Y149.04 E91.25250
G1 X125.34 Y148.91 E91.28169
G1 X125.54 Y148.85 E91.29344
G1 X125.67 Y148.89 E91.30142
G1 X125.82 Y148.94 E91.31096
G1 X126.53 Y149.16 E91.35399
G1 X126.53 Y149.18 E91.35469
G1 X126.55 Y149.17 E91.35561
G1 X126.76 Y149.24 E91.36822
G1 X126.92 Y149.05 E91.38256
G1 X127.30 Y148.93 E91.40559
G1 X127.78 Y148.79 E91.43505
G1 X128.41 Y148.66 E91.47231
G1 X129.01 Y148.58 E91.50763
G1 X129.50 Y148.06 E91.54909
G1 X130.01 Y147.51 E91.59248
G1 X130.32 Y147.17 E91.61930
G1 X130.68 Y146.63 E91.65733
G1 X131.03 Y146.11 E91.69379
G1 X131.28 Y145.74 E91.71976
G1 X131.44 Y145.16 E91.75458
G1 X131.51 Y144.92 E91.76924
G1 X131.54 Y144.81 E91.77556
G1 X131.64 Y144.46 E91.79674
G1 X131.74 Y144.11 E91.81785
G1 X131.97 Y143.57 E91.85228
G1 X132.11 Y143.28 E91.87085
G1 X132.14 Y142.95 E91.88990
G1 X132.20 Y142.43 E91.92043
G1 X132.22 Y142.28 E91.92938
G1 X132.24 Y142.08 E91.94090
G1 X132.30 Y141.56 E91.97154
G1 X132.35 Y141.12 E91.99710
G1 X132.67 Y140.47 E92.03916
G1 X133.02 Y139.78 E92.08451
G1 X133.08 Y139.66 E92.09174
G1 X133.46 Y139.16 E92.12828
G1 X133.76 Y138.76 E92.15761
G1 X134.23 Y138.14 E92.20286
G1 X134.23 Y136.31 E92.30911
G1 X134.31 Y136.15 E92.31982
G1 X134.84 Y136.23 E92.35069
G1 X134.85 Y136.18 E92.35352
G1 X135.08 Y136.49 E92.37591
G1 X135.64 Y136.63 E92.40986
G1 X135.75 Y136.66 E92.41639
G1 X136.31 Y136.81 E92.44969
G1 X136.79 Y136.95 E92.47909
G1 X138.06 Y137.35 E92.55611
G1 X138.03 Y136.62 E92.59816
G1 X138.56 Y136.65 E92.62936
G1 X139.36 Y136.69 E92.67568
G1 X139.81 Y136.29 E92.71043
G1 X140.28 Y135.88 E92.74707
G1 X140.82 Y135.39 E92.78939
G1 X141.29 Y134.97 E92.82578
G1 X141.48 Y134.80 E92.84101
G1 X141.93 Y134.47 E92.87315
G1 X142.13 Y134.32 E92.88780
G1 X142.43 Y134.09 E92.90988
G1 X143.39 Y134.22 E92.96587
G1 X144.06 Y134.32 E93.00518
G1 X144.49 Y134.82 E93.04371
G1 X144.85 Y135.23 E93.07548
G1 X145.51 Y135.30 E93.11393
G1 X146.03 Y135.35 E93.14461
G1 X146.44 Y135.40 E93.16828
G1 X147.06 Y135.16 E93.20708
G1 X147.41 Y135.02 E93.22876
G1 X148.08 Y134.75 E93.27094
G1 X148.44 Y134.46 E93.29802
G1 X148.68 Y134.70 E93.31766
G1 X148.40 Y135.16 E93.34886
G1 X148.08 Y135.70 E93.38563
G1 X147.80 Y136.17 E93.41706
G1 X147.64 Y136.52 E93.43971
G1 X147.47 Y136.75 E93.45627
G1 X147.34 Y136.78 E93.46376
G1 X146.84 Y136.73 E93.49314
G1 X146.52 Y137.30 E93.53133
G1 X146.24 Y137.81 E93.56516
G1 X145.91 Y138.37 E93.60281
G1 X145.58 Y138.93 E93.64033
G1 X145.32 Y139.37 E93.67021
G1 X144.90 Y140.03 E93.71588
G1 X145.14 Y140.55 E93.74903
G1 X145.49 Y141.31 E93.79749
G1 X146.12 Y141.80 E93.84435
G1 X146.65 Y141.82 E93.87517
G1 X147.14 Y142.65 E93.93118
G1 X147.48 Y142.46 E93.95418
G1 X147.69 Y143.15 E93.99637
G1 F2400 E92.79637
G0 F12000 X147.14 Y151.60
G1 F2400 E93.99637
G1 F600 X146.80 Y151.86 E94.02136
G1 X146.64 Y151.55 E94.04190
G1 X147.14 Y151.60 E94.07156
G1 F2400 E92.87156
G0 F12000 X153.11 Y153.92
G1 F2400 E94.07156
G1 F600 X153.41 Y154.16 E94.09393
G1 X153.04 Y154.57 E94.12648
G1 X152.99 Y154.62 E94.13035
G1 X153.01 Y154.55 E94.13493
G1 X153.10 Y153.97 E94.16897
G1 X153.11 Y153.92 E94.17198
G1 F2400 E92.97198
G0 F12000 X155.45 Y161.23
G1 F2400 E94.17198
G1 F600 X157.72 Y172.15 E94.82019
G1 X158.81 Y172.19 E94.88359
G1 X162.02 Y161.23 E95.54748
G1 X155.45 Y161.23 E95.92940
G0 F12000 X151.78 Y161.23
G1 F600 X143.08 Y161.23 E96.43501
G1 X144.78 Y171.64 E97.04797
G1 X151.81 Y181.97 E97.77422
G1 X148.06 Y181.97 E97.99224
G1 X144.91 Y176.80 E98.34398
G1 X143.98 Y176.95 E98.39831
G1 X142.78 Y181.95 E98.69703
G1 X138.68 Y181.95 E98.93545
G1 X141.38 Y171.51 E99.56178
G1 X139.39 Y161.23 E100.17060
G1 X134.47 Y161.23 E100.45650
G1 X134.47 Y181.87 E101.65631
G1 X126.75 Y181.87 E102.10507
G1 X124.79 Y177.13 E102.40326
G1 X126.01 Y177.13 E102.47405
G1 X119.15 Y161.23 E103.48043
G1 X112.60 Y161.23 E103.86154
G1 X121.08 Y181.86 E105.15808
G1 X117.13 Y181.84 E105.38737
G1 X113.03 Y171.81 E106.01698
G1 X111.90 Y172.03 E106.08372
G1 X111.86 Y181.89 E106.65646
G1 X109.41 Y181.87 E106.79915
G1 X104.69 Y171.77 E107.44701
G1 X103.60 Y172.01 E107.51234
G1 X103.63 Y181.83 E108.08298
G1 X100.50 Y181.82 E108.26496
G1 X99.84 Y161.23 E109.46242
G1 X93.95 Y161.23 E109.80499
G1 X93.95 Y160.70 E109.83568
G1 X130.68 Y160.70 E111.97015
G1 X130.85 Y159.96 E112.01425
G1 X131.33 Y160.16 E112.04447
G1 X131.80 Y160.36 E112.07421
G1 X132.64 Y160.70 E112.12683
G1 X132.71 Y160.65 E112.13195
G1 X132.72 Y160.70 E112.13516
G1 X137.35 Y160.70 E112.40404
G1 X137.41 Y160.45 E112.41935
G1 X137.89 Y160.70 E112.45094
G1 X139.37 Y160.70 E112.53655
G1 X139.71 Y160.49 E112.55988
G1 X139.78 Y160.70 E112.57303
G1 X144.19 Y160.70 E112.82969
G1 X144.77 Y160.50 E112.86521
G1 X145.29 Y160.31 E112.89758
G1 X146.08 Y160.03 E112.94635
G1 X146.17 Y160.00 E112.95154
G1 X146.35 Y160.70 E112.99353
G1 X211.05 Y160.70 E116.75420
G1 X211.05 Y161.23 E116.78489
G1 X199.49 Y161.23 E117.45690
G1 X199.18 Y162.21 E117.51663
G1 X200.31 Y162.99 E117.59619
G1 X200.53 Y163.15 E117.61214
G1 X201.44 Y164.08 E117.68764
G1 X202.22 Y165.29 E117.77150
G1 X202.70 Y166.31 E117.83678
G1 X202.99 Y167.42 E117.90352
G1 X203.09 Y168.60 E117.97223
G1 X202.99 Y169.78 E118.04094
G1 X202.69 Y170.89 E118.10797
G1 X202.22 Y171.92 E118.17390
G1 X201.59 Y172.82 E118.23764
G1 X200.86 Y173.52 E118.29635
G1 X199.81 Y174.03 E118.36458
G1 X199.24 Y174.26 E118.40013
G1 X198.84 Y174.44 E118.42562
G1 X198.44 Y174.72 E118.45398
G1 X198.10 Y175.07 E118.48213
G1 X197.84 Y175.47 E118.51015
G1 X197.68 Y175.93 E118.53810
G1 X197.62 Y176.40 E118.56607
G1 X197.68 Y176.88 E118.59405
G1 X197.84 Y177.33 E118.62205
G1 X198.10 Y177.74 E118.65007
G1 X198.44 Y178.09 E118.67818
G1 X198.84 Y178.36 E118.70657
G1 X199.29 Y178.56 E118.73496
G1 X199.76 Y178.68 E118.76365
G1 X200.26 Y178.72 E118.79245
G1 X200.76 Y178.68 E118.82196
G1 X201.61 Y178.43 E118.87312
G1 X202.64 Y178.09 E118.93646
G1 X203.17 Y177.89 E118.96916
G1 X203.75 Y179.12 E119.04836
G1 X205.08 Y182.02 E119.23342
G1 X204.65 Y182.20 E119.26056
G1 X202.75 Y182.66 E119.37391
G1 X200.34 Y182.64 E119.51428
G1 X198.49 Y182.35 E119.62275
G1 X197.39 Y182.06 E119.68893
G1 X196.37 Y181.67 E119.75251
G1 X195.47 Y181.06 E119.81585
G1 X194.67 Y180.25 E119.88186
G1 X194.03 Y179.26 E119.95045
G1 X193.55 Y178.13 E120.02154
G1 X193.28 Y176.91 E120.09422
G1 X193.22 Y175.65 E120.16801
G1 X193.36 Y174.38 E120.24175
G1 X193.72 Y173.19 E120.31438
G1 X194.24 Y172.15 E120.38165
G1 X194.85 Y171.59 E120.43012
G1 X195.25 Y171.41 E120.45529
G1 X196.32 Y171.07 E120.52087
G1 X196.79 Y170.94 E120.54900
G1 X197.30 Y170.69 E120.58212
G1 X197.76 Y170.36 E120.61501
G1 X198.14 Y169.94 E120.64771
G1 X198.43 Y169.46 E120.68030
G1 X198.61 Y168.93 E120.71276
G1 X198.67 Y168.38 E120.74510
G1 X198.61 Y167.83 E120.77748
G1 X198.43 Y167.30 E120.80996
G1 X198.14 Y166.82 E120.84255
G1 X197.76 Y166.40 E120.87525
G1 X197.30 Y166.07 E120.90814
G1 X196.79 Y165.82 E120.94126
G1 X196.24 Y165.67 E120.97463
G1 X195.66 Y165.62 E121.00800
G1 X195.09 Y165.67 E121.04138
G1 X194.54 Y165.82 E121.07475
G1 X194.02 Y166.07 E121.10787
G1 X193.57 Y166.40 E121.14076
G1 X193.19 Y166.82 E121.17346
G1 X193.07 Y167.01 E121.18689
G1 X192.74 Y167.13 E121.20735
G1 X190.50 Y162.83 E121.48865
G1 X191.40 Y162.21 E121.55231
G1 X191.09 Y161.23 E121.61200
G1 X179.44 Y161.23 E122.28918
G1 X181.46 Y166.16 E122.59861
G1 X175.47 Y166.16 E122.94676
G1 X176.57 Y170.52 E123.20799
G1 X181.86 Y170.52 E123.51539
G1 X182.79 Y173.18 E123.67962
G1 X177.42 Y173.18 E123.99208
G1 X177.51 Y177.31 E124.23230
G1 X183.22 Y177.31 E124.56412
G1 X185.35 Y182.63 E124.89722
G1 X182.59 Y182.63 E125.05764
G1 X182.33 Y181.95 E125.10016
G1 X175.18 Y181.95 E125.51591
G1 X173.27 Y177.25 E125.81048
G1 X174.22 Y177.25 E125.86610
G1 X170.96 Y161.23 E126.81656
G1 X164.78 Y161.23 E127.17593
G1 X169.56 Y181.97 E128.41277
G1 X166.10 Y181.97 E128.61411
G1 X164.45 Y172.78 E129.15648
G1 X163.36 Y172.71 E129.22004
G1 X160.40 Y181.95 E129.78390
G1 X156.54 Y181.95 E130.00819
G1 X154.38 Y177.37 E130.30227
G1 X155.12 Y177.37 E130.34482
G1 X151.78 Y161.23 E131.30269
G1 F2400 E130.10269
G0 F12000 X132.25 Y156.11
G1 F2400 E131.30269
G1 F600 X132.20 Y156.09 E131.30584
G1 X132.23 Y156.07 E131.30792
G1 X132.25 Y156.11 E131.31039
G0 F12000 X132.26 Y153.94
G1 F600 X132.18 Y153.42 E131.34115
G1 X132.15 Y153.19 E131.35466
G1 X132.44 Y153.70 E131.38907
G1 X132.72 Y153.89 E131.40897
G1 X132.26 Y153.94 E131.43585
G1 F2400 E130.23585
G0 F12000 X130.74 Y161.23
G1 F2400 E131.43585
G1 F600 X122.83 Y161.23 E131.89530
G1 X124.51 Y164.63 E132.11529
G1 X130.74 Y164.63 E132.47762
G1 X130.74 Y161.23 E132.67500
G0 F12000 X130.67 Y168.17
G1 F600 X125.84 Y168.17 E132.95567
G1 X128.70 Y176.57 E133.47177
G1 X130.67 Y176.57 E133.58650
G1 X130.67 Y168.17 E134.07519
G1 F2400 E132.87519
G0 F12000 X124.52 Y155.16
G1 F2400 E134.07519
G1 F600 X124.09 Y154.73 E134.11041
G1 X123.60 Y154.12 E134.15636
G1 X118.97 Y154.12 E134.42530
G1 X114.41 Y141.62 E135.19842
G1 X113.26 Y141.82 E135.26625
G1 X113.13 Y154.12 E135.98101
G1 X109.60 Y154.12 E136.18618
G1 X103.81 Y141.44 E136.99605
G1 X102.70 Y141.70 E137.06254
G1 X103.08 Y154.13 E137.78528
G1 X98.35 Y154.13 E138.06014
G1 X98.06 Y127.85 E139.58785
G1 X93.95 Y127.85 E139.82644
G1 X93.95 Y127.32 E139.85713
G1 X124.94 Y127.32 E141.65810
G1 X124.51 Y127.74 E141.69279
G1 X124.08 Y128.18 E141.72887
G1 X124.04 Y128.22 E141.73179
G1 X123.87 Y127.85 E141.75535
G1 X113.52 Y127.85 E142.35686
G1 X118.18 Y139.72 E143.09829
G1 X118.88 Y139.66 E143.13922
G1 X118.97 Y140.44 E143.18532
G1 X118.69 Y141.01 E143.22223
G1 X122.41 Y150.48 E143.81344
G1 X122.69 Y150.78 E143.83749
G1 X123.10 Y151.22 E143.87253
G1 X124.37 Y152.49 E143.97696
G1 X124.39 Y152.43 E143.98055
G1 X124.68 Y152.68 E144.00282
G1 X124.89 Y153.76 E144.06702
G1 X125.18 Y154.23 E144.09876
G1 X124.90 Y154.57 E144.12446
G1 X124.52 Y155.16 E144.16490
G1 F2400 E142.96490
G0 F12000 X109.23 Y161.23
G1 F2400 E144.16490
G1 F600 X103.25 Y161.23 E144.51206
G1 X108.01 Y171.47 E145.16842
G1 X109.10 Y171.24 E145.23327
G1 X109.23 Y161.23 E145.81495
G1 F2400 E144.61495
G0 F12000 X107.76 Y140.42
G1 F2400 E145.81495
G1 F600 X108.87 Y140.19 E145.88078
G1 X108.87 Y127.85 E146.59789
G1 X102.18 Y127.85 E146.98678
G1 X107.76 Y140.42 E147.78636
G1 F2400 E146.58636
G0 F12000 X152.34 Y134.61
G1 F2400 E147.78636
G1 F600 X152.97 Y134.40 E147.82532
G1 X153.06 Y133.72 E147.86487
G1 X153.16 Y132.98 E147.90840
G1 X153.24 Y132.32 E147.94667
G1 X153.27 Y132.11 E147.95909
G1 X153.94 Y131.99 E147.99873
G1 X153.07 Y128.33 E148.21712
G1 X152.72 Y127.93 E148.24803
G1 X152.64 Y127.85 E148.25481
G1 X152.53 Y127.72 E148.26449
G1 X152.06 Y127.32 E148.30018
G1 X211.05 Y127.32 E151.72863
G1 X211.05 Y127.85 E151.75932
G1 X194.03 Y127.85 E152.74827
G1 X193.81 Y128.97 E152.81454
G1 X196.02 Y129.92 E152.95451
G1 X197.68 Y130.66 E153.06004
G1 X199.20 Y131.68 E153.16666
G1 X200.58 Y132.99 E153.27743
G1 X201.76 Y134.51 E153.38917
G1 X202.01 Y134.98 E153.41989
G1 X202.69 Y136.21 E153.50199
G1 X203.35 Y138.03 E153.61428
G1 X204.34 Y141.03 E153.79804
G1 X204.82 Y142.98 E153.91486
G1 X204.97 Y144.86 E154.02399
G1 X204.82 Y146.73 E154.13341
G1 X204.40 Y148.53 E154.24063
G1 X203.71 Y150.18 E154.34477
G1 X202.79 Y151.61 E154.44371
G1 X201.68 Y152.78 E154.53711
G1 X200.45 Y153.62 E154.62338
G1 X198.78 Y154.13 E154.72510
G1 X191.44 Y154.13 E155.15189
G1 X189.06 Y148.03 E155.53223
G1 X190.22 Y148.02 E155.59948
G1 X186.34 Y127.85 E156.79333
G1 X180.93 Y127.85 E157.10771
G1 X183.92 Y135.06 E157.56137
G1 X179.88 Y135.06 E157.79624
G1 X183.52 Y154.13 E158.92478
G1 X179.17 Y154.13 E159.17743
G1 X176.77 Y148.02 E159.55896
G1 X177.62 Y148.02 E159.60854
G1 X173.74 Y127.85 E160.80254
G1 X168.65 Y127.85 E161.09861
G1 X166.02 Y136.39 E161.61781
G1 X168.00 Y138.06 E161.76839
G1 X169.23 Y138.94 E161.85626
G1 X170.25 Y140.05 E161.94352
G1 X171.10 Y141.43 E162.03784
G1 X171.73 Y143.01 E162.13656
G1 X172.12 Y144.74 E162.24010
G1 X172.25 Y146.54 E162.34500
G1 X172.12 Y148.35 E162.45008
G1 X171.73 Y150.08 E162.55355
G1 X171.09 Y151.67 E162.65266
G1 X170.29 Y152.97 E162.74195
G1 X169.29 Y153.69 E162.81317
G1 X167.91 Y154.10 E162.89689
G1 X163.05 Y154.13 E163.17960
G1 X158.62 Y154.13 E163.43680
G1 X157.50 Y151.81 E163.58694
G1 X157.16 Y151.12 E163.63157
G1 X156.78 Y150.35 E163.68143
G1 X156.36 Y150.33 E163.70609
G1 X156.62 Y149.81 E163.74025
G1 X156.84 Y149.24 E163.77577
G1 X157.11 Y148.55 E163.81886
G1 X157.29 Y148.06 E163.84924
G1 X157.37 Y147.86 E163.86164
G1 X157.52 Y147.26 E163.89767
G1 X157.42 Y146.73 E163.92853
G1 X156.44 Y142.57 E164.17689
G1 X156.24 Y142.54 E164.18837
G1 X156.37 Y142.31 E164.20416
G1 X155.64 Y139.19 E164.39038
G1 X155.27 Y138.80 E164.42175
G1 X154.85 Y138.42 E164.45423
G1 X154.77 Y138.35 E164.46054
G1 X154.41 Y138.05 E164.48769
G1 X154.35 Y137.87 E164.49886
G1 X154.18 Y137.35 E164.53071
G1 X154.00 Y136.83 E164.56227
G1 X153.80 Y136.29 E164.59604
G1 X153.59 Y135.80 E164.62681
G1 X153.37 Y135.28 E164.65994
G1 X153.18 Y134.81 E164.68914
G1 X152.56 Y134.66 E164.72636
G1 X152.34 Y134.61 E164.73927
G0 F12000 X152.30 Y134.48
G0 X153.14 Y134.86
G0 X160.19 Y141.37
G0 X159.98 Y141.10
G1 F600 X161.97 Y148.46 E165.18208
G1 X164.26 Y148.49 E165.31525
G1 X164.99 Y148.27 E165.36001
G1 X165.64 Y147.92 E165.40244
G1 X166.20 Y147.46 E165.44490
G1 X166.67 Y146.89 E165.48735
G1 X167.01 Y146.25 E165.52979
G1 X167.22 Y145.55 E165.57225
G1 X167.29 Y144.82 E165.61464
G1 X167.22 Y144.10 E165.65710
G1 X167.01 Y143.40 E165.69955
G1 X166.67 Y142.75 E165.74199
G1 X166.20 Y142.19 E165.78445
G1 X165.64 Y141.73 E165.82690
G1 X164.99 Y141.38 E165.86934
G1 X164.29 Y141.17 E165.91179
G1 X163.60 Y141.10 E165.95221
G1 X159.98 Y141.10 E166.16261
G0 F12000 X160.19 Y141.37
G0 X160.91 Y136.14
G0 X160.99 Y136.43
G1 F600 X162.71 Y127.85 E166.67142
G1 X157.74 Y127.85 E166.96029
G1 X158.60 Y135.68 E167.41782
G1 X160.99 Y136.43 E167.56384
G0 F12000 X160.91 Y136.14
G0 X168.70 Y127.92
G0 X173.68 Y127.93
G0 X177.49 Y147.92
G0 X180.01 Y135.16
G0 X181.11 Y127.97
G0 X186.27 Y127.93
G0 X192.43 Y135.62
G0 X192.25 Y135.38
G1 F600 X194.56 Y148.07 E168.31372
G1 X196.64 Y148.06 E168.43456
G1 X197.32 Y147.94 E168.47515
G1 X198.03 Y147.67 E168.51895
G1 X198.66 Y147.13 E168.56713
G1 X199.14 Y146.41 E168.61744
G1 X199.49 Y145.55 E168.67123
G1 X199.70 Y144.58 E168.72901
G1 X199.79 Y143.53 E168.79033
G1 X199.76 Y142.43 E168.85441
G1 X199.61 Y141.31 E168.91992
G1 X199.35 Y140.22 E168.98542
G1 X198.97 Y139.18 E169.04945
G1 X198.51 Y138.23 E169.11074
G1 X197.95 Y137.41 E169.16848
G1 X197.34 Y136.76 E169.22021
G1 X196.16 Y135.75 E169.31059
G1 X194.69 Y135.32 E169.39994
G1 X193.57 Y135.28 E169.46508
G1 X192.25 Y135.38 E169.54169
G0 F12000 X192.80 Y135.81
;TYPE:WALL-OUTER
G1 F600 X194.95 Y147.60 E170.23853
G1 X196.60 Y147.59 E170.33444
G1 X197.20 Y147.49 E170.37008
G1 X197.78 Y147.26 E170.40644
G1 X198.30 Y146.82 E170.44630
G1 X198.72 Y146.19 E170.49011
G1 X199.04 Y145.41 E170.53888
G1 X199.24 Y144.51 E170.59267
G1 X199.33 Y143.52 E170.65061
G1 X199.30 Y142.47 E170.71166
G1 X199.15 Y141.40 E170.77430
G1 X198.90 Y140.35 E170.83698
G1 X198.55 Y139.36 E170.89798
G1 X198.10 Y138.47 E170.95592
G1 X197.59 Y137.70 E171.00964
G1 X197.02 Y137.10 E171.05779
G1 X195.94 Y136.17 E171.14079
G1 X194.61 Y135.79 E171.22084
G1 X193.57 Y135.75 E171.28126
G1 X192.80 Y135.81 E171.32624
G0 F12000 X192.47 Y135.86
G0 X192.37 Y135.47
G0 X196.08 Y129.80
G0 X196.21 Y129.49
G1 F600 X197.90 Y130.25 E171.43419
G1 X199.49 Y131.32 E171.54571
G1 X200.93 Y132.68 E171.66034
G1 X202.15 Y134.26 E171.77664
G1 X203.12 Y136.02 E171.89329
G1 X203.80 Y137.88 E172.00874
G1 X204.79 Y140.91 E172.19360
G1 X205.29 Y142.91 E172.31330
G1 X205.44 Y144.86 E172.42703
G1 X205.29 Y146.80 E172.54036
G1 X204.84 Y148.68 E172.65249
G1 X204.12 Y150.40 E172.76090
G1 X203.16 Y151.90 E172.86476
G1 X201.98 Y153.14 E172.96392
G1 X200.66 Y154.04 E173.05676
G1 X198.85 Y154.60 E173.16682
G1 X191.12 Y154.60 E173.61622
G1 X188.39 Y147.58 E174.05418
G1 X189.66 Y147.56 E174.12812
G1 X185.95 Y128.32 E175.26722
G1 X181.63 Y128.32 E175.51865
G1 X184.62 Y135.53 E175.97231
G1 X180.44 Y135.53 E176.21503
G1 X184.08 Y154.60 E177.34356
G1 X178.85 Y154.60 E177.64743
G1 X176.08 Y147.56 E178.08717
G1 X177.06 Y147.56 E178.14378
G1 X173.36 Y128.32 E179.28262
G1 X168.99 Y128.32 E179.53627
G1 X166.56 Y136.23 E180.01759
G1 X168.29 Y137.69 E180.14916
G1 X169.54 Y138.59 E180.23874
G1 X170.62 Y139.77 E180.33155
G1 X171.51 Y141.22 E180.43076
G1 X172.17 Y142.87 E180.53392
G1 X172.58 Y144.67 E180.64144
G1 X172.72 Y146.54 E180.75037
G1 X172.58 Y148.42 E180.85971
G1 X172.17 Y150.22 E180.96723
G1 X171.51 Y151.87 E181.07065
G1 X170.64 Y153.30 E181.16787
G1 X169.50 Y154.11 E181.24913
G1 X167.98 Y154.56 E181.34109
G1 X163.05 Y154.60 E181.62776
G1 X158.33 Y154.60 E181.90209
G1 X157.08 Y152.01 E182.06911
G1 X156.48 Y150.80 E182.14748
G1 X156.20 Y150.79 E182.16371
G1 X155.95 Y151.24 E182.19365
G1 X155.50 Y152.01 E182.24563
G1 X155.18 Y152.56 E182.28269
G1 X154.84 Y153.04 E182.31665
G1 X154.46 Y153.56 E182.35422
G1 X153.95 Y154.25 E182.40386
G1 X153.55 Y154.70 E182.43913
G1 X153.14 Y155.16 E182.47485
G1 X152.57 Y155.79 E182.52441
G1 X151.02 Y157.19 E182.64532
G1 X150.51 Y157.55 E182.68173
G1 X150.01 Y157.92 E182.71780
G1 X149.51 Y158.28 E182.75388
G1 X149.34 Y158.41 E182.76594
G1 X148.89 Y158.65 E182.79583
G1 X147.97 Y159.15 E182.85648
G1 X146.62 Y159.88 E182.94605
G1 X146.71 Y160.24 E182.96710
G1 X211.51 Y160.24 E186.73381
G1 X211.51 Y161.70 E186.81867
G1 X199.83 Y161.70 E187.49783
G1 X199.73 Y162.02 E187.51774
G1 X200.83 Y162.79 E187.59592
G1 X201.80 Y163.79 E187.67668
G1 X202.58 Y165.00 E187.76049
G1 X202.60 Y165.02 E187.76238
G1 X203.14 Y166.15 E187.83487
G1 X203.45 Y167.34 E187.90664
G1 X203.55 Y168.60 E187.97972
G1 X203.45 Y169.85 E188.05280
G1 X203.14 Y171.05 E188.12475
G1 X202.63 Y172.16 E188.19557
G1 X201.94 Y173.13 E188.26457
G1 X201.13 Y173.91 E188.33001
G1 X200.00 Y174.46 E188.40324
G1 X199.43 Y174.69 E188.43923
G1 X199.07 Y174.85 E188.46191
G1 X198.74 Y175.08 E188.48521
G1 X198.47 Y175.36 E188.50786
G1 X198.26 Y175.68 E188.53007
G1 X198.13 Y176.03 E188.55190
G1 X198.09 Y176.40 E188.57355
G1 X198.13 Y176.77 E188.59521
G1 X198.26 Y177.13 E188.61709
G1 X198.47 Y177.45 E188.63931
G1 X198.74 Y177.73 E188.66191
G1 X199.07 Y177.95 E188.68524
G1 X199.44 Y178.12 E188.70886
G1 X199.84 Y178.22 E188.73293
G1 X200.26 Y178.26 E188.75724
G1 X200.68 Y178.22 E188.78174
G1 X201.47 Y177.99 E188.82957
G1 X202.49 Y177.65 E188.89197
G1 X203.41 Y177.30 E188.94919
G1 X204.17 Y178.92 E189.05324
G1 X205.70 Y182.25 E189.26638
G1 X204.79 Y182.64 E189.32358
G1 X202.81 Y183.13 E189.44250
G1 X200.30 Y183.10 E189.58833
G1 X198.40 Y182.81 E189.70010
G1 X197.25 Y182.51 E189.76904
G1 X196.16 Y182.08 E189.83719
G1 X195.17 Y181.42 E189.90652
G1 X194.31 Y180.54 E189.97783
G1 X193.61 Y179.48 E190.05163
G1 X193.11 Y178.28 E190.12757
G1 X192.82 Y176.98 E190.20472
G1 X192.75 Y175.62 E190.28375
G1 X192.91 Y174.29 E190.36159
G1 X193.28 Y173.01 E190.43905
G1 X193.86 Y171.87 E190.51360
G1 X194.59 Y171.20 E190.57133
G1 X195.07 Y170.97 E190.60227
G1 X196.17 Y170.62 E190.66924
G1 X196.63 Y170.50 E190.69653
G1 X197.06 Y170.29 E190.72461
G1 X197.45 Y170.01 E190.75234
G1 X197.76 Y169.66 E190.77965
G1 X198.00 Y169.26 E190.80660
G1 X198.15 Y168.83 E190.83318
G1 X198.20 Y168.38 E190.85961
G1 X198.15 Y167.93 E190.88609
G1 X198.00 Y167.49 E190.91267
G1 X197.76 Y167.10 E190.93962
G1 X197.45 Y166.75 E190.96693
G1 X197.06 Y166.47 E190.99466
G1 X196.63 Y166.26 E191.02273
G1 X196.15 Y166.13 E191.05123
G1 X195.66 Y166.09 E191.07982
G1 X195.17 Y166.13 E191.10841
G1 X194.70 Y166.26 E191.13691
G1 X194.26 Y166.47 E191.16498
G1 X193.88 Y166.75 E191.19271
G1 X193.56 Y167.10 E191.22002
G1 X193.38 Y167.40 E191.24061
G1 X192.51 Y167.70 E191.29425
G1 X189.90 Y162.69 E191.62271
G1 X190.85 Y162.02 E191.69025
G1 X190.75 Y161.70 E191.71018
G1 X180.14 Y161.70 E192.32714
G1 X182.15 Y166.62 E192.63657
G1 X176.06 Y166.62 E192.99019
G1 X176.93 Y170.05 E193.19554
G1 X182.19 Y170.05 E193.50108
G1 X183.45 Y173.65 E193.72270
G1 X177.89 Y173.65 E194.04568
G1 X177.96 Y176.85 E194.23172
G1 X183.53 Y176.85 E194.55534
G1 X186.04 Y183.10 E194.94681
G1 X182.27 Y183.10 E195.16611
G1 X182.01 Y182.41 E195.20863
G1 X174.87 Y182.41 E195.62380
G1 X172.58 Y176.79 E195.97682
G1 X173.65 Y176.79 E196.03942
G1 X170.58 Y161.70 E196.93460
G1 X165.36 Y161.70 E197.23782
G1 X170.15 Y182.43 E198.47466
G1 X165.71 Y182.43 E198.73266
G1 X164.05 Y173.22 E199.27652
G1 X163.69 Y173.20 E199.29767
G1 X160.74 Y182.41 E199.86012
G1 X156.25 Y182.41 E200.12137
G1 X153.65 Y176.91 E200.47528
G1 X154.54 Y176.91 E200.52724
G1 X151.40 Y161.70 E201.42985
G1 X143.63 Y161.70 E201.88158
G1 X145.22 Y171.46 E202.45667
G1 X152.70 Y182.43 E203.22818
G1 X147.80 Y182.43 E203.51263
G1 X144.67 Y177.31 E203.86145
G1 X144.36 Y177.36 E203.87952
G1 X143.15 Y182.41 E204.18154
G1 X138.08 Y182.41 E204.47628
G1 X140.90 Y171.50 E205.13150
G1 X139.00 Y161.70 E205.71185
G1 X134.93 Y161.70 E205.94829
G1 X134.93 Y182.34 E207.14811
G1 X126.43 Y182.34 E207.64209
G1 X124.10 Y176.66 E207.99883
G1 X125.30 Y176.66 E208.06881
G1 X118.85 Y161.70 E209.01621
G1 X113.29 Y161.70 E209.33907
G1 X121.77 Y182.33 E210.63587
G1 X116.82 Y182.30 E210.92393
G1 X112.74 Y172.34 E211.54934
G1 X112.37 Y172.42 E211.57154
G1 X112.33 Y182.36 E212.14922
G1 X109.11 Y182.33 E212.33615
G1 X104.43 Y172.30 E212.97934
G1 X104.06 Y172.38 E213.00113
G1 X104.10 Y182.30 E213.57724
G1 X100.05 Y182.29 E213.81264
G1 X99.39 Y161.70 E215.01003
G1 X93.48 Y161.70 E215.35347
G1 X93.48 Y160.24 E215.43833
G1 X130.31 Y160.24 E217.57850
G1 X130.39 Y159.88 E217.59989
G1 X129.80 Y159.58 E217.63823
G1 X128.76 Y159.04 E217.70654
G1 X128.44 Y158.87 E217.72765
G1 X126.83 Y157.82 E217.83903
G1 X125.21 Y156.51 E217.96036
G1 X123.96 Y155.25 E218.06352
G1 X123.71 Y155.00 E218.08390
G1 X123.38 Y154.58 E218.11510
G1 X118.64 Y154.58 E218.39008
G1 X114.10 Y142.15 E219.15957
G1 X113.72 Y142.21 E219.18215
G1 X113.59 Y154.58 E219.90116
G1 X109.30 Y154.58 E220.15051
G1 X103.55 Y141.99 E220.95559
G1 X103.17 Y142.07 E220.97778
G1 X103.56 Y154.60 E221.70628
G1 X97.89 Y154.60 E222.03583
G1 X97.59 Y128.32 E223.56355
G1 X93.48 Y128.32 E223.80243
G1 X93.48 Y126.86 E223.88729
G1 X125.44 Y126.86 E225.74469
G1 X126.14 Y126.25 E225.79845
G1 X126.80 Y125.70 E225.84842
G1 X127.51 Y125.22 E225.89823
G1 X128.39 Y124.70 E225.95773
G1 X128.95 Y124.37 E225.99521
G1 X129.50 Y124.03 E226.03278
G1 X129.79 Y123.90 E226.05159
G1 X131.02 Y123.36 E226.12926
G1 X131.40 Y123.19 E226.15343
G1 X132.04 Y122.98 E226.19279
G1 X132.14 Y122.95 E226.19911
G1 X133.09 Y122.64 E226.25668
G1 X133.37 Y122.55 E226.27384
G1 X134.83 Y122.24 E226.36089
G1 X135.50 Y122.12 E226.40025
G1 X136.43 Y121.98 E226.45498
G1 X137.04 Y121.95 E226.49066
G1 X138.51 Y121.87 E226.57633
G1 X139.63 Y121.93 E226.64152
G1 X140.59 Y121.98 E226.69745
G1 X141.15 Y122.07 E226.73011
G1 X141.71 Y122.16 E226.76283
G1 X142.64 Y122.31 E226.81796
G1 X144.65 Y122.84 E226.93873
G1 X144.80 Y122.90 E226.94806
G1 X146.59 Y123.59 E227.05968
G1 X149.22 Y125.02 E227.23378
G1 X149.34 Y125.08 E227.24109
G1 X151.02 Y126.30 E227.36209
G1 X151.60 Y126.86 E227.40883
G1 X211.51 Y126.86 E230.89104
G1 X211.51 Y128.32 E230.97590
G1 X194.41 Y128.32 E231.96984
G1 X194.34 Y128.69 E231.99191
G1 X196.21 Y129.49 E232.11014
G0 F12000 X196.08 Y129.80
G0 X186.27 Y127.93
G0 X181.11 Y127.97
G0 X180.01 Y135.16
G0 X179.12 Y154.20
G0 X173.68 Y127.93
G0 X168.70 Y127.92
G0 X166.10 Y136.37
G0 X166.90 Y143.48
G0 X166.58 Y143.58
G1 F600 X166.28 Y143.01 E232.14722
G1 X165.87 Y142.52 E232.18435
G1 X165.38 Y142.12 E232.22148
G1 X164.81 Y141.82 E232.25856
G1 X164.20 Y141.63 E232.29568
G1 X163.58 Y141.57 E232.33212
G1 X160.59 Y141.57 E232.50585
G1 X162.32 Y148.00 E232.89287
G1 X164.19 Y148.02 E233.00133
G1 X164.81 Y147.83 E233.03923
G1 X165.38 Y147.53 E233.07631
G1 X165.87 Y147.13 E233.11343
G1 X166.28 Y146.63 E233.15056
G1 X166.58 Y146.07 E233.18764
G1 X166.76 Y145.46 E233.22476
G1 X166.82 Y144.82 E233.26185
G1 X166.76 Y144.19 E233.29899
G1 X166.58 Y143.58 E233.33611
G0 F12000 X166.90 Y143.48
G0 X166.18 Y142.22
G0 X164.29 Y141.21
G0 X160.13 Y141.22
G0 X157.29 Y146.75
G0 X156.96 Y146.83
G1 F600 X156.06 Y142.99 E233.56566
G1 X155.75 Y142.94 E233.58385
G1 X155.45 Y143.43 E233.61709
G1 X155.12 Y143.96 E233.65339
G1 X154.81 Y144.43 E233.68631
G1 X154.50 Y144.85 E233.71652
G1 X154.20 Y145.25 E233.74580
G1 X154.12 Y145.35 E233.75328
G1 X153.77 Y145.79 E233.78597
G1 X153.20 Y146.46 E233.83700
G1 X152.85 Y146.84 E233.86723
G1 X151.83 Y147.88 E233.95145
G1 X152.13 Y148.56 E233.99460
G1 X152.28 Y148.93 E234.01764
G1 X152.42 Y149.32 E234.04225
G1 X152.63 Y149.99 E234.08284
G1 X152.78 Y150.63 E234.12080
G1 X152.88 Y151.26 E234.15816
G1 X152.93 Y151.80 E234.18963
G1 X152.95 Y152.49 E234.22951
G1 X152.92 Y153.10 E234.26502
G1 X152.84 Y153.68 E234.29904
G1 X152.74 Y154.12 E234.32528
G1 X152.82 Y154.27 E234.33508
G1 X153.03 Y154.17 E234.34860
G1 X152.84 Y154.02 E234.36212
G1 X153.56 Y153.14 E234.42812
G1 X153.92 Y153.43 E234.45514
G1 X154.18 Y153.12 E234.47877
G1 X154.51 Y152.60 E234.51440
G1 X154.85 Y152.08 E234.55067
G1 X155.28 Y151.42 E234.59625
G1 X155.68 Y150.64 E234.64761
G1 X155.93 Y150.14 E234.67995
G1 X156.05 Y149.91 E234.69528
G1 X156.00 Y149.81 E234.70163
G1 X156.10 Y149.81 E234.70721
G1 X156.20 Y149.62 E234.71971
G1 X156.41 Y149.07 E234.75367
G1 X156.86 Y147.89 E234.82727
G1 X156.93 Y147.72 E234.83774
G1 X157.04 Y147.24 E234.86624
G1 X156.96 Y146.83 E234.89072
G1 F2400 E233.69072
G0 F12000 X154.31 Y144.69
G1 F2400 E234.89072
G1 F600 X154.82 Y143.98 E234.94155
G1 X155.23 Y143.35 E234.98477
G1 X155.71 Y142.54 E235.03971
G1 X155.88 Y142.24 E235.05986
G1 X155.21 Y139.42 E235.22834
G1 X154.88 Y139.06 E235.25667
G1 X154.46 Y138.70 E235.28881
G1 X154.01 Y138.31 E235.32313
G1 X153.77 Y137.59 E235.36785
G1 X153.46 Y136.68 E235.42347
G1 X153.16 Y135.98 E235.46751
G1 X152.94 Y135.46 E235.50059
G1 X152.84 Y135.21 E235.51630
G1 X152.29 Y135.07 E235.54879
G1 X151.59 Y134.90 E235.59080
G1 X151.40 Y134.85 E235.60260
G1 X151.05 Y134.77 E235.62307
G1 X151.04 Y134.55 E235.63599
G1 X152.55 Y134.05 E235.72831
G1 X152.66 Y133.17 E235.77976
G1 X152.37 Y132.91 E235.80234
G1 X151.84 Y132.46 E235.84253
G1 X151.06 Y131.84 E235.90096
G1 X150.00 Y131.05 E235.97760
G1 X149.66 Y131.93 E236.03254
G1 X149.31 Y132.78 E236.08606
G1 X149.05 Y133.37 E236.12345
G1 X148.72 Y134.08 E236.16898
G1 X148.99 Y134.35 E236.19073
G1 X149.31 Y134.59 E236.21422
G1 X148.80 Y135.40 E236.27009
G1 X148.48 Y135.94 E236.30634
G1 X148.21 Y136.38 E236.33646
G1 X148.04 Y136.76 E236.36062
G1 X147.74 Y137.16 E236.38960
G1 X147.38 Y137.25 E236.41130
G1 X147.10 Y137.22 E236.42759
G1 X146.82 Y137.72 E236.46079
G1 X145.78 Y139.51 E236.58120
G1 X145.43 Y140.07 E236.61929
G1 X145.66 Y140.56 E236.65118
G1 X145.86 Y141.00 E236.67934
G1 X146.29 Y141.34 E236.71121
G1 X146.93 Y141.36 E236.74808
G1 X147.31 Y142.02 E236.79238
G1 X149.08 Y141.03 E236.91007
G1 X149.27 Y141.40 E236.93446
G1 X148.75 Y141.83 E236.97365
G1 X147.97 Y142.47 E237.03201
G1 X148.10 Y142.91 E237.05883
G1 X148.66 Y143.47 E237.10466
G1 X149.07 Y143.91 E237.13978
G1 X149.71 Y144.65 E237.19650
G1 X150.24 Y145.31 E237.24612
G1 X150.74 Y146.01 E237.29614
G1 X151.08 Y146.54 E237.33264
G1 X151.73 Y147.65 E237.40697
G1 X152.51 Y146.83 E237.47270
G1 X153.18 Y146.09 E237.53068
G1 X153.78 Y145.38 E237.58495
G1 X154.31 Y144.69 E237.63561
G1 F2400 E236.43561
G0 F12000 X150.93 Y147.14
G1 F2400 E237.63561
G1 F600 X150.51 Y146.49 E237.68090
G1 X150.05 Y145.84 E237.72707
G1 X149.72 Y145.41 E237.75880
G1 X149.32 Y144.93 E237.79502
G1 X149.00 Y144.54 E237.82442
G1 X148.31 Y143.80 E237.88287
G1 X147.89 Y145.11 E237.96316
G1 X147.69 Y145.82 E238.00581
G1 X147.05 Y146.12 E238.04673
G1 X146.77 Y146.26 E238.06469
G1 X146.71 Y150.38 E238.30430
G1 X146.71 Y150.47 E238.30918
G1 X146.51 Y151.07 E238.34614
G1 X147.39 Y151.15 E238.39758
G1 X148.28 Y150.53 E238.46044
G1 X148.69 Y150.23 E238.49023
G1 X149.20 Y149.84 E238.52760
G1 X149.68 Y149.46 E238.56347
G1 X150.26 Y148.97 E238.60725
G1 X151.00 Y148.32 E238.66449
G1 X151.40 Y147.96 E238.69564
G1 X150.93 Y147.14 E238.75028
G0 F12000 X151.52 Y148.18
G1 F600 X151.01 Y148.62 E238.78933
G1 X150.82 Y148.78 E238.80379
G1 X149.83 Y149.60 E238.87832
G1 X149.18 Y150.10 E238.92628
G1 X148.47 Y150.60 E238.97691
G1 X147.65 Y151.15 E239.03423
G1 X147.97 Y151.55 E239.06394
G1 X147.01 Y152.29 E239.13422
G1 X146.66 Y152.56 E239.16025
G1 X146.32 Y151.96 E239.20038
G1 X145.79 Y152.26 E239.23615
G1 X145.33 Y152.50 E239.26639
G1 X145.07 Y152.64 E239.28332
G1 X145.11 Y152.95 E239.30161
G1 X145.56 Y153.08 E239.32917
G1 X145.89 Y153.56 E239.36272
G1 X145.54 Y154.22 E239.40593
G1 X144.10 Y154.22 E239.48951
G1 X143.72 Y154.64 E239.52268
G1 X143.45 Y154.93 E239.54559
G1 X143.07 Y155.42 E239.58151
G1 X142.95 Y155.57 E239.59277
G1 X141.54 Y155.50 E239.67486
G1 X141.64 Y155.94 E239.70086
G1 X141.69 Y156.25 E239.71936
G1 X141.72 Y156.56 E239.73739
G1 X141.73 Y156.87 E239.75542
G1 X141.67 Y157.47 E239.79032
G1 X141.63 Y157.66 E239.80174
G1 X141.44 Y158.30 E239.84020
G1 X141.43 Y158.30 E239.84107
G1 X141.23 Y158.66 E239.86486
G1 X140.96 Y159.06 E239.89321
G1 X140.55 Y159.50 E239.92799
G1 X140.31 Y159.70 E239.94614
G1 X140.01 Y159.91 E239.96766
G1 X140.11 Y160.24 E239.98734
G1 X144.11 Y160.24 E240.21960
G1 X145.31 Y159.81 E240.29355
G1 X146.38 Y159.43 E240.35975
G1 X148.10 Y158.56 E240.47189
G1 X148.73 Y158.16 E240.51472
G1 X148.74 Y158.12 E240.51731
G1 X148.79 Y158.12 E240.52045
G1 X149.35 Y157.76 E240.55903
G1 X149.19 Y157.40 E240.58206
G1 X148.66 Y157.53 E240.61363
G1 X148.42 Y157.60 E240.62836
G1 X147.12 Y157.87 E240.70537
G1 X145.88 Y158.06 E240.77867
G1 X145.21 Y158.14 E240.81780
G1 X144.68 Y158.19 E240.84837
G1 X144.34 Y158.22 E240.86814
G1 X143.29 Y158.29 E240.92940
G1 X143.04 Y158.29 E240.94434
G1 X143.68 Y158.25 E240.98195
G1 X144.38 Y158.19 E241.02274
G1 X145.96 Y158.00 E241.11542
G1 X146.67 Y157.88 E241.15694
G1 X147.43 Y157.74 E241.20164
G1 X148.68 Y157.46 E241.27652
G1 X148.79 Y157.42 E241.28300
G1 X149.91 Y157.11 E241.35055
G1 X150.19 Y157.01 E241.36816
G1 X150.51 Y156.90 E241.38770
G1 X151.46 Y156.13 E241.45890
G1 X152.34 Y155.26 E241.53082
G1 X152.47 Y154.84 E241.55601
G1 X152.60 Y154.25 E241.59118
G1 X152.68 Y153.65 E241.62677
G1 X152.71 Y153.11 E241.65804
G1 X152.71 Y153.03 E241.66292
G1 X152.70 Y152.40 E241.69949
G1 X152.64 Y151.75 E241.73697
G1 X152.55 Y151.22 E241.76860
G1 X152.51 Y151.01 E241.78069
G1 X152.38 Y150.45 E241.81437
G1 X152.18 Y149.79 E241.85440
G1 X151.93 Y149.13 E241.89545
G1 X151.52 Y148.18 E241.95565
G1 F2400 E240.75565
G0 F12000 X145.99 Y151.33
G1 F2400 E241.95565
G1 F600 X145.64 Y151.23 E241.97641
G1 X144.90 Y151.03 E242.02138
G1 X144.79 Y151.56 E242.05292
G1 X144.75 Y151.72 E242.06297
G1 X144.84 Y152.70 E242.11993
G1 X145.52 Y152.31 E242.16559
G1 X146.28 Y151.86 E242.21656
G1 X145.99 Y151.33 E242.25172
G1 F2400 E241.05172
G0 F12000 X141.77 Y151.27
G1 F2400 E242.25172
G1 F600 X141.26 Y151.17 E242.28198
G1 X140.74 Y151.07 E242.31300
G1 X140.43 Y151.01 E242.33110
G1 X139.99 Y150.57 E242.36710
G1 X138.72 Y150.84 E242.44291
G1 X138.16 Y151.57 E242.49576
G1 X138.45 Y152.22 E242.53748
G1 X137.44 Y152.08 E242.59692
G1 X137.28 Y152.58 E242.62733
G1 X137.25 Y152.70 E242.63412
G1 X137.16 Y153.01 E242.65314
G1 X137.20 Y153.54 E242.68429
G1 X137.22 Y154.41 E242.73440
G1 X136.91 Y154.84 E242.76566
G1 X136.86 Y154.91 E242.77053
G1 X136.17 Y155.11 E242.81231
G1 X135.71 Y154.93 E242.84072
G1 X135.56 Y154.87 E242.85025
G1 X135.40 Y154.44 E242.87696
G1 X135.13 Y153.65 E242.92575
G1 X134.63 Y154.08 E242.96384
G1 X133.71 Y154.88 E243.03478
G1 X133.04 Y155.44 E243.08545
G1 X132.68 Y155.72 E243.11241
G1 X132.79 Y156.04 E243.13194
G1 X134.11 Y155.97 E243.20855
G1 X134.96 Y155.89 E243.25812
G1 X135.84 Y155.77 E243.30968
G1 X136.37 Y155.69 E243.34091
G1 X136.91 Y155.60 E243.37284
G1 X137.81 Y155.42 E243.42606
G1 X138.69 Y155.21 E243.47855
G1 X139.17 Y155.08 E243.50775
G1 X139.96 Y154.84 E243.55578
G1 X140.00 Y154.54 E243.57332
G1 X139.81 Y154.43 E243.58601
G1 X139.69 Y153.54 E243.63782
G1 X139.01 Y153.21 E243.68164
G1 X138.97 Y153.19 E243.68432
G1 X138.93 Y152.63 E243.71637
G1 X138.91 Y152.30 E243.73578
G1 X138.95 Y152.30 E243.73851
G1 X139.02 Y152.52 E243.75210
G1 X139.08 Y153.11 E243.78645
G1 X140.16 Y153.17 E243.84960
G1 X140.38 Y153.17 E243.86227
G1 X140.81 Y152.78 E243.89609
G1 X141.27 Y152.37 E243.93161
G1 X141.67 Y152.01 E243.96296
G1 X141.77 Y151.27 E244.00647
G0 F12000 X142.10 Y151.31
G0 X142.06 Y152.22
G0 X140.75 Y154.60
G0 X140.58 Y154.88
G1 F600 X140.08 Y155.06 E244.03743
G1 X139.75 Y155.17 E244.05736
G1 X139.06 Y155.37 E244.09925
G1 X138.54 Y155.51 E244.13072
G1 X137.68 Y155.71 E244.18210
G1 X136.99 Y155.84 E244.22303
G1 X136.47 Y155.93 E244.25328
G1 X135.81 Y156.03 E244.29235
G1 X135.43 Y156.07 E244.31423
G1 X134.88 Y156.13 E244.34656
G1 X134.05 Y156.19 E244.39494
G1 X133.53 Y156.22 E244.42537
G1 X133.33 Y156.23 E244.43683
G1 X132.86 Y156.34 E244.46505
G1 X133.05 Y156.78 E244.49277
G1 X134.48 Y157.25 E244.58041
G1 X135.05 Y157.40 E244.61440
G1 X135.68 Y157.57 E244.65264
G1 X136.63 Y157.78 E244.70890
G1 X137.04 Y157.86 E244.73348
G1 X138.08 Y158.03 E244.79458
G1 X138.75 Y158.11 E244.83365
G1 X139.46 Y158.18 E244.87490
G1 X139.97 Y158.21 E244.90494
G1 X140.98 Y158.25 E244.96374
G1 X141.12 Y157.76 E244.99286
G1 X141.20 Y157.30 E245.02030
G1 X141.21 Y156.99 E245.03835
G1 X141.21 Y156.67 E245.05672
G1 X141.12 Y156.03 E245.09429
G1 X141.02 Y155.60 E245.11999
G1 X140.99 Y155.51 E245.12529
G1 X140.81 Y155.02 E245.15551
G1 X140.58 Y154.88 E245.17139
G1 F2400 E243.97139
G0 F12000 X140.75 Y158.30
G1 F2400 E245.17139
G1 F600 X139.91 Y158.27 E245.21988
G1 X139.15 Y158.21 E245.26465
G1 X138.63 Y158.16 E245.29495
G1 X137.76 Y158.05 E245.34554
G1 X136.49 Y157.82 E245.42055
G1 X135.86 Y157.67 E245.45831
G1 X135.33 Y157.54 E245.49029
G1 X134.79 Y157.39 E245.52279
G1 X134.44 Y157.28 E245.54398
G1 X133.84 Y157.31 E245.57864
G1 X134.12 Y157.80 E245.61155
G1 X134.87 Y158.35 E245.66580
G1 X135.31 Y158.64 E245.69641
G1 X135.85 Y159.00 E245.73375
G1 X136.03 Y159.11 E245.74649
G1 X136.49 Y159.39 E245.77726
G1 X137.31 Y159.87 E245.83285
G1 X138.01 Y160.24 E245.87859
G1 X139.23 Y160.24 E245.94967
G1 X139.71 Y159.91 E245.98335
G1 X140.11 Y159.57 E246.01371
G1 X140.45 Y159.18 E246.04393
G1 X140.88 Y158.53 E246.08895
G1 X140.75 Y158.30 E246.10461
G0 F12000 X141.44 Y157.86
G0 X137.35 Y160.14
G0 X137.08 Y159.89
G1 F600 X136.62 Y159.63 E246.13501
G1 X136.39 Y159.50 E246.15037
G1 X135.93 Y159.23 E246.18154
G1 X135.83 Y159.18 E246.18771
G1 X134.99 Y158.64 E246.24587
G1 X134.57 Y158.35 E246.27558
G1 X133.44 Y157.53 E246.35667
G1 X133.00 Y157.16 E246.39021
G1 X132.72 Y156.94 E246.41095
G1 X132.44 Y157.10 E246.42993
G1 X132.63 Y158.08 E246.48792
G1 X132.82 Y158.98 E246.54127
G1 X132.96 Y159.66 E246.58154
G1 X133.09 Y160.24 E246.61586
G1 X136.99 Y160.24 E246.84207
G1 X137.08 Y159.89 E246.86308
G1 F2400 E245.66308
G0 F12000 X132.78 Y159.99
G1 F2400 E246.86308
G1 F600 X132.56 Y158.90 E246.92784
G1 X132.42 Y158.11 E246.97453
G1 X132.29 Y157.30 E247.02217
G1 X132.19 Y156.60 E247.06311
G1 X131.84 Y156.44 E247.08564
G1 X131.24 Y156.95 E247.13132
G1 X130.48 Y157.59 E247.18924
G1 X130.00 Y157.98 E247.22475
G1 X129.17 Y158.65 E247.28711
G1 X129.60 Y158.91 E247.31641
G1 X129.73 Y158.99 E247.32528
G1 X130.35 Y159.25 E247.36479
G1 X130.65 Y159.38 E247.38355
G1 X130.83 Y159.45 E247.39494
G1 X131.60 Y159.77 E247.44307
G1 X131.71 Y159.81 E247.44984
G1 X132.56 Y160.17 E247.50363
G1 X132.78 Y159.99 E247.51982
G0 F12000 X132.91 Y160.31
G0 X130.47 Y155.85
G0 X130.59 Y157.23
G1 F600 X131.06 Y156.81 E247.55623
G1 X131.36 Y156.52 E247.58062
G1 X131.26 Y156.23 E247.59858
G1 X130.59 Y156.19 E247.63782
G1 X129.90 Y156.15 E247.67801
G1 X129.15 Y156.08 E247.72143
G1 X128.17 Y155.96 E247.77864
G1 X127.21 Y155.81 E247.83509
G1 X126.60 Y155.70 E247.87132
G1 X126.08 Y155.60 E247.90195
G1 X125.54 Y155.48 E247.93425
G1 X125.36 Y155.75 E247.95279
G1 X125.63 Y156.12 E247.97935
G1 X126.06 Y156.49 E248.01216
G1 X126.53 Y156.90 E248.04864
G1 X127.13 Y157.41 E248.09441
G1 X127.66 Y157.73 E248.13007
G1 X127.87 Y157.86 E248.14458
G1 X128.33 Y158.14 E248.17576
G1 X129.06 Y158.58 E248.22553
G1 X129.67 Y158.04 E248.27297
G1 X130.13 Y157.64 E248.30852
G1 X130.59 Y157.23 E248.34441
G0 F12000 X131.17 Y156.00
G1 F600 X131.39 Y155.69 E248.36668
G1 X130.99 Y155.27 E248.40031
G1 X130.93 Y155.26 E248.40379
G1 X130.92 Y155.20 E248.40726
G1 X130.55 Y154.78 E248.43985
G1 X130.47 Y154.69 E248.44648
G1 X130.01 Y154.12 E248.48966
G1 X129.64 Y153.63 E248.52515
G1 X129.34 Y153.21 E248.55486
G1 X128.95 Y152.59 E248.59760
G1 X128.76 Y152.31 E248.61738
G1 X128.42 Y152.42 E248.63834
G1 X128.46 Y153.01 E248.67298
G1 X128.49 Y153.54 E248.70349
G1 X128.49 Y153.63 E248.70908
G1 X128.41 Y153.61 E248.71398
G1 X128.03 Y153.01 E248.75527
G1 X127.64 Y152.38 E248.79863
G1 X126.51 Y152.38 E248.86420
G1 X126.18 Y151.96 E248.89528
G1 X125.82 Y151.50 E248.92934
G1 X125.45 Y151.05 E248.96283
G1 X125.32 Y150.65 E248.98747
G1 X125.02 Y150.62 E249.00466
G1 X124.84 Y150.91 E249.02496
G1 X124.59 Y151.46 E249.05974
G1 X124.46 Y151.89 E249.08564
G1 X125.30 Y152.59 E249.14954
G1 X125.97 Y153.10 E249.19823
G1 X126.69 Y153.62 E249.25019
G1 X127.13 Y153.91 E249.28027
G1 X127.66 Y154.23 E249.31655
G1 X128.54 Y154.74 E249.37588
G1 X129.05 Y155.01 E249.40900
G1 X129.49 Y155.22 E249.43725
G1 X129.83 Y155.40 E249.45989
G1 X130.30 Y155.62 E249.49000
G1 X130.54 Y155.72 E249.50494
G1 X130.55 Y155.72 E249.50593
G1 X130.56 Y155.73 E249.50660
G1 X131.17 Y156.00 E249.54534
G0 F12000 X130.01 Y155.64
G1 F600 X129.46 Y155.37 E249.58085
G1 X128.38 Y154.79 E249.65214
G1 X127.38 Y154.19 E249.72012
G1 X127.26 Y154.12 E249.72791
G1 X126.34 Y153.52 E249.79199
G1 X125.78 Y153.15 E249.83071
G1 X125.22 Y153.00 E249.86454
G1 X125.33 Y153.59 E249.89930
G1 X125.60 Y154.03 E249.92916
G1 X125.75 Y154.27 E249.94543
G1 X125.41 Y154.68 E249.97612
G1 X124.94 Y155.37 E250.02449
G1 X125.99 Y155.56 E250.08642
G1 X126.52 Y155.65 E250.11765
G1 X127.23 Y155.76 E250.15916
G1 X128.10 Y155.86 E250.21010
G1 X128.22 Y155.88 E250.21725
G1 X129.21 Y155.97 E250.27526
G1 X129.91 Y156.01 E250.31608
G1 X130.01 Y155.64 E250.33840
G1 F2400 E249.13840
G0 F12000 X132.09 Y155.49
G1 F2400 E250.33840
G1 F600 X132.36 Y155.59 E250.35513
G1 X132.94 Y155.03 E250.40207
G1 X133.37 Y154.62 E250.43632
G1 X133.23 Y154.32 E250.45541
G1 X131.96 Y154.43 E250.52967
G1 X132.09 Y155.49 E250.59167
G1 F2400 E249.39167
G0 F12000 X133.40 Y154.31
G1 F2400 E250.59167
G1 F600 X133.77 Y154.22 E250.61398
G1 X134.49 Y153.51 E250.67279
G1 X134.84 Y153.15 E250.70189
G1 X134.70 Y152.87 E250.72006
G1 X134.47 Y152.30 E250.75589
G1 X133.51 Y152.41 E250.81174
G1 X133.16 Y152.45 E250.83210
G1 X132.82 Y152.49 E250.85251
G1 X132.31 Y152.54 E250.88179
G1 X132.79 Y153.38 E250.93771
G1 X133.12 Y153.60 E250.96126
G1 X133.24 Y154.03 E250.98690
G1 X133.40 Y154.31 E251.00589
G1 F2400 E249.80589
G0 F12000 X131.84 Y154.29
G1 F2400 E251.00589
G1 F600 X131.70 Y153.35 E251.06098
G1 X131.57 Y152.46 E251.11314
G1 X129.19 Y152.25 E251.25261
G1 X129.03 Y152.50 E251.26949
G1 X129.63 Y153.35 E251.33008
G1 X130.10 Y153.97 E251.37511
G1 X130.50 Y154.44 E251.41113
G1 X130.83 Y154.82 E251.44067
G1 X131.25 Y155.27 E251.47641
G1 X131.77 Y155.79 E251.51898
G1 X132.07 Y155.63 E251.53885
G1 X131.84 Y154.29 E251.61810
G1 F2400 E250.41810
G0 F12000 X130.27 Y161.70
G1 F2400 E251.61810
G1 F600 X123.58 Y161.70 E252.00694
G1 X124.80 Y164.16 E252.16654
G1 X130.27 Y164.16 E252.48493
G1 X130.27 Y161.70 E252.62814
G0 F12000 X130.27 Y161.36
G0 X130.65 Y161.32
G0 X130.65 Y164.53
G0 X130.21 Y168.30
G0 X130.21 Y168.63
G1 F600 X126.49 Y168.63 E252.84389
G1 X129.03 Y176.11 E253.30277
G1 X130.21 Y176.11 E253.37100
G1 X130.21 Y168.63 E253.80552
G0 F12000 X130.21 Y168.30
G0 X126.01 Y168.28
G0 X119.11 Y161.30
G0 X112.78 Y161.35
G0 X108.97 Y170.86
G0 X108.64 Y170.86
G1 F600 X108.75 Y161.70 E254.33820
G1 X103.98 Y161.70 E254.61544
G1 X108.28 Y170.94 E255.20775
G1 X108.64 Y170.86 E255.22939
G1 F2400 E254.02939
G0 F12000 X108.03 Y139.89
G1 F2400 E255.22939
G1 F600 X108.40 Y139.81 E255.25131
G1 X108.40 Y128.32 E255.91942
G1 X102.89 Y128.32 E256.23956
G1 X108.03 Y139.89 E256.97554
G0 F12000 X108.10 Y140.21
G0 X118.18 Y139.35
G0 X118.49 Y139.23
G1 F600 X118.84 Y139.19 E256.99598
G1 X119.32 Y136.60 E257.14931
G1 X119.54 Y135.90 E257.19178
G1 X119.72 Y135.38 E257.22411
G1 X119.89 Y134.84 E257.25652
G1 X119.96 Y134.63 E257.26971
G1 X120.20 Y134.12 E257.30253
G1 X120.88 Y132.69 E257.39463
G1 X121.14 Y132.16 E257.42882
G1 X121.31 Y131.80 E257.45196
G1 X121.64 Y131.28 E257.48762
G1 X121.99 Y130.75 E257.52431
G1 X122.33 Y130.22 E257.56115
G1 X122.43 Y130.07 E257.57197
G1 X122.78 Y129.65 E257.60351
G1 X123.34 Y129.00 E257.65359
G1 X123.70 Y128.59 E257.68509
G1 X123.57 Y128.32 E257.70243
G1 X114.20 Y128.32 E258.24692
G1 X118.49 Y139.23 E258.92822
G0 F12000 X119.32 Y139.39
G1 F600 X119.38 Y139.87 E258.95654
G1 X119.86 Y139.76 E258.98512
G1 X120.26 Y139.18 E259.02642
G1 X120.35 Y139.05 E259.03532
G1 X120.73 Y138.62 E259.06857
G1 X121.17 Y138.19 E259.10465
G1 X121.62 Y137.80 E259.13922
G1 X122.14 Y137.43 E259.17639
G1 X122.69 Y137.09 E259.21383
G1 X123.28 Y136.77 E259.25252
G1 X123.51 Y136.66 E259.26766
G1 X124.03 Y136.43 E259.30061
G1 X124.00 Y135.49 E259.35510
G1 X124.01 Y135.39 E259.36115
G1 X124.06 Y134.58 E259.40816
G1 X124.08 Y134.43 E259.41723
G1 X124.17 Y133.67 E259.46132
G1 X124.25 Y133.16 E259.49179
G1 X124.43 Y132.17 E259.54982
G1 X124.68 Y131.11 E259.61340
G1 X124.85 Y130.56 E259.64700
G1 X125.08 Y129.87 E259.68922
G1 X125.26 Y129.38 E259.71951
G1 X125.46 Y128.91 E259.74924
G1 X125.79 Y128.20 E259.79471
G1 X125.85 Y128.08 E259.80210
G1 X125.94 Y127.92 E259.81269
G1 X125.93 Y127.89 E259.81496
G1 X125.96 Y127.88 E259.81650
G1 X126.31 Y127.24 E259.85914
G1 X126.02 Y126.99 E259.88128
G1 X125.50 Y127.40 E259.92007
G1 X125.49 Y127.49 E259.92489
G1 X125.42 Y127.50 E259.92871
G1 X124.23 Y128.69 E260.02648
G1 X124.12 Y128.79 E260.03523
G1 X123.14 Y130.08 E260.12934
G1 X122.38 Y131.06 E260.20146
G1 X122.23 Y131.28 E260.21697
G1 X120.83 Y133.87 E260.38805
G1 X120.10 Y135.76 E260.50622
G1 X119.78 Y137.11 E260.58674
G1 X119.39 Y138.71 E260.68249
G1 X119.32 Y139.39 E260.72199
G0 F12000 X120.08 Y139.62
G1 F600 X119.72 Y140.11 E260.75724
G1 X119.45 Y140.55 E260.78745
G1 X119.20 Y141.04 E260.81912
G1 X122.81 Y150.22 E261.39282
G1 X122.91 Y150.34 E261.40199
G1 X122.95 Y150.34 E261.40404
G1 X123.16 Y150.62 E261.42416
G1 X123.52 Y150.98 E261.45367
G1 X124.16 Y151.62 E261.50607
G1 X124.36 Y150.95 E261.54655
G1 X124.47 Y150.69 E261.56279
G1 X124.60 Y150.43 E261.57985
G1 X124.73 Y150.21 E261.59508
G1 X124.60 Y149.97 E261.61090
G1 X124.37 Y149.97 E261.62456
G1 X124.28 Y149.37 E261.65949
G1 X124.43 Y148.81 E261.69329
G1 X124.47 Y148.69 E261.70081
G1 X124.46 Y148.66 E261.70240
G1 X125.05 Y148.50 E261.73794
G1 X125.55 Y148.37 E261.76794
G1 X126.61 Y148.70 E261.83265
G1 X126.77 Y148.52 E261.84665
G1 X126.80 Y148.60 E261.85168
G1 X127.15 Y148.49 E261.87324
G1 X127.67 Y148.34 E261.90423
G1 X127.78 Y148.31 E261.91132
G1 X128.55 Y148.17 E261.95651
G1 X128.79 Y148.14 E261.97073
G1 X129.83 Y147.01 E262.05961
G1 X129.95 Y146.88 E262.07018
G1 X130.30 Y146.37 E262.10619
G1 X130.65 Y145.85 E262.14266
G1 X130.86 Y145.54 E262.16418
G1 X130.90 Y145.37 E262.17450
G1 X131.00 Y145.03 E262.19471
G1 X131.14 Y144.51 E262.22627
G1 X131.31 Y143.90 E262.26335
G1 X131.65 Y143.15 E262.31087
G1 X131.68 Y142.90 E262.32548
G1 X131.76 Y142.23 E262.36507
G1 X131.78 Y142.03 E262.37654
G1 X131.84 Y141.51 E262.40712
G1 X131.90 Y140.99 E262.43760
G1 X132.12 Y140.53 E262.46754
G1 X132.43 Y139.91 E262.50734
G1 X132.68 Y139.42 E262.53962
G1 X133.24 Y138.68 E262.59329
G1 X133.77 Y137.99 E262.64410
G1 X133.77 Y136.26 E262.74425
G1 X133.19 Y136.16 E262.77804
G1 X132.68 Y136.09 E262.80814
G1 X131.64 Y135.98 E262.86908
G1 X130.76 Y135.92 E262.92053
G1 X130.23 Y135.90 E262.95123
G1 X129.74 Y135.89 E262.97966
G1 X129.17 Y135.90 E263.01285
G1 X128.66 Y135.92 E263.04269
G1 X128.10 Y135.96 E263.07525
G1 X127.40 Y136.03 E263.11595
G1 X126.69 Y136.14 E263.15744
G1 X126.16 Y136.24 E263.18904
G1 X125.63 Y136.36 E263.22091
G1 X124.92 Y136.56 E263.26376
G1 X124.18 Y136.79 E263.30879
G1 X124.20 Y137.58 E263.35444
G1 X124.23 Y138.01 E263.37943
G1 X124.27 Y138.60 E263.41409
G1 X124.32 Y139.12 E263.44429
G1 X124.37 Y139.63 E263.47438
G1 X124.52 Y140.67 E263.53521
G1 X124.67 Y141.59 E263.58940
G1 X124.91 Y142.75 E263.65807
G1 X125.12 Y143.63 E263.71079
G1 X125.26 Y144.16 E263.74277
G1 X125.44 Y144.82 E263.78225
G1 X125.76 Y145.84 E263.84457
G1 X126.11 Y146.85 E263.90679
G1 X126.15 Y146.97 E263.91376
G1 X125.95 Y146.46 E263.94519
G1 X125.72 Y145.87 E263.98228
G1 X125.51 Y145.25 E264.02033
G1 X125.44 Y145.05 E264.03220
G1 X125.28 Y144.53 E264.06421
G1 X125.11 Y143.98 E264.09741
G1 X124.95 Y143.42 E264.13155
G1 X124.89 Y143.17 E264.14661
G1 X124.75 Y142.65 E264.17744
G1 X124.61 Y142.02 E264.21505
G1 X124.38 Y140.91 E264.28076
G1 X124.20 Y139.81 E264.34561
G1 X124.08 Y138.81 E264.40459
G1 X123.99 Y137.81 E264.46294
G1 X123.94 Y136.88 E264.51688
G1 X123.09 Y137.27 E264.57137
G1 X122.49 Y137.59 E264.61063
G1 X121.94 Y137.94 E264.64891
G1 X121.41 Y138.32 E264.68656
G1 X120.89 Y138.76 E264.72667
G1 X120.53 Y139.12 E264.75577
G1 X120.08 Y139.62 E264.79502
G1 F2400 E263.59502
G0 F12000 X124.23 Y136.34
G1 F2400 E264.79502
G1 F600 X125.06 Y136.08 E264.84534
G1 X125.57 Y135.93 E264.87626
G1 X126.09 Y135.81 E264.90714
G1 X126.59 Y135.70 E264.93688
G1 X127.12 Y135.62 E264.96810
G1 X128.23 Y135.48 E265.03345
G1 X128.67 Y135.45 E265.05873
G1 X129.88 Y135.41 E265.12910
G1 X130.57 Y135.42 E265.16921
G1 X131.59 Y135.48 E265.22888
G1 X132.46 Y135.56 E265.27962
G1 X133.34 Y135.69 E265.33137
G1 X133.96 Y135.79 E265.36788
G1 X134.03 Y135.63 E265.37797
G1 X134.50 Y135.71 E265.40525
G1 X134.76 Y134.76 E265.46231
G1 X134.82 Y134.57 E265.47393
G1 X135.02 Y133.87 E265.51616
G1 X135.25 Y133.12 E265.56199
G1 X135.57 Y132.13 E265.62211
G1 X135.75 Y131.64 E265.65240
G1 X136.17 Y130.47 E265.72475
G1 X136.33 Y130.05 E265.75112
G1 X136.54 Y129.53 E265.78355
G1 X136.78 Y128.92 E265.82150
G1 X137.10 Y128.21 E265.86703
G1 X137.33 Y127.71 E265.89904
G1 X137.73 Y126.87 E265.95295
G1 X137.98 Y126.41 E265.98337
G1 X138.21 Y125.97 E266.01230
G1 X137.59 Y125.86 E266.04851
G1 X137.07 Y125.77 E266.07936
G1 X136.54 Y125.69 E266.11056
G1 X136.01 Y125.62 E266.14159
G1 X134.94 Y125.51 E266.20386
G1 X134.42 Y125.48 E266.23414
G1 X133.72 Y125.45 E266.27499
G1 X133.03 Y125.43 E266.31498
G1 X132.49 Y125.44 E266.34678
G1 X131.96 Y125.46 E266.37755
G1 X131.43 Y125.50 E266.40836
G1 X130.31 Y125.61 E266.47389
G1 X129.44 Y125.74 E266.52460
G1 X128.66 Y125.91 E266.57114
G1 X129.32 Y125.74 E266.61064
G1 X129.92 Y125.62 E266.64638
G1 X130.43 Y125.54 E266.67644
G1 X131.58 Y125.40 E266.74354
G1 X131.98 Y125.37 E266.76709
G1 X132.50 Y125.34 E266.79748
G1 X133.02 Y125.33 E266.82742
G1 X133.40 Y125.32 E266.84969
G1 X134.06 Y125.33 E266.88771
G1 X135.26 Y125.39 E266.95801
G1 X136.21 Y125.49 E267.01308
G1 X137.16 Y125.62 E267.06923
G1 X138.30 Y125.81 E267.13606
G1 X138.71 Y125.14 E267.18195
G1 X139.03 Y124.64 E267.21627
G1 X139.41 Y124.11 E267.25451
G1 X140.00 Y123.40 E267.30802
G1 X140.31 Y123.07 E267.33457
G1 X140.62 Y122.80 E267.35832
G1 X140.53 Y122.51 E267.37585
G1 X139.67 Y122.42 E267.42597
G1 X139.52 Y122.41 E267.43454
G1 X136.49 Y122.49 E267.61047
G1 X135.95 Y122.57 E267.64249
G1 X135.44 Y122.65 E267.67268
G1 X134.36 Y122.89 E267.73650
G1 X133.62 Y123.02 E267.78037
G1 X133.51 Y123.04 E267.78715
G1 X133.12 Y123.17 E267.81077
G1 X132.59 Y123.34 E267.84292
G1 X132.07 Y123.51 E267.87481
G1 X131.57 Y123.67 E267.90523
G1 X129.72 Y124.50 E268.02294
G1 X128.94 Y124.94 E268.07523
G1 X127.98 Y125.50 E268.13981
G1 X127.78 Y126.02 E268.17224
G1 X128.30 Y126.00 E268.20273
G1 X127.80 Y126.13 E268.23264
G1 X126.86 Y126.43 E268.29014
G1 X126.58 Y126.87 E268.32053
G1 X126.20 Y127.57 E268.36676
G1 X125.94 Y128.10 E268.40115
G1 X125.74 Y128.57 E268.43105
G1 X125.53 Y129.07 E268.46252
G1 X125.49 Y129.19 E268.46967
G1 X125.30 Y129.71 E268.50192
G1 X125.01 Y130.63 E268.55780
G1 X124.77 Y131.55 E268.61329
G1 X124.66 Y132.06 E268.64339
G1 X124.54 Y132.72 E268.68243
G1 X124.44 Y133.33 E268.71867
G1 X124.36 Y133.95 E268.75479
G1 X124.29 Y134.66 E268.79603
G1 X124.25 Y135.20 E268.82788
G1 X124.23 Y136.34 E268.89408
G1 F2400 E267.69408
G0 F12000 X138.80 Y125.91
G1 F2400 E268.89408
G1 F600 X139.77 Y126.15 E268.95185
G1 X141.06 Y126.50 E269.02951
G1 X141.15 Y126.53 E269.03499
G1 X141.84 Y126.75 E269.07751
G1 X142.35 Y126.93 E269.10866
G1 X142.99 Y127.16 E269.14833
G1 X143.34 Y127.29 E269.16979
G1 X143.96 Y127.53 E269.20846
G1 X144.89 Y127.94 E269.26782
G1 X145.74 Y128.34 E269.32240
G1 X146.00 Y128.47 E269.33909
G1 X146.74 Y128.84 E269.38728
G1 X147.64 Y129.34 E269.44675
G1 X147.91 Y129.50 E269.46502
G1 X148.43 Y129.81 E269.50025
G1 X148.95 Y130.14 E269.53597
G1 X149.62 Y130.57 E269.58272
G1 X149.93 Y129.69 E269.63713
G1 X150.11 Y129.12 E269.67174
G1 X150.29 Y128.45 E269.71203
G1 X150.45 Y127.74 E269.75440
G1 X150.56 Y127.13 E269.79060
G1 X150.60 Y126.69 E269.81624
G1 X150.21 Y126.36 E269.84580
G1 X149.90 Y126.08 E269.87016
G1 X149.37 Y125.75 E269.90639
G1 X148.74 Y125.33 E269.95025
G1 X148.19 Y124.98 E269.98827
G1 X147.73 Y124.76 E270.01780
G1 X147.25 Y124.53 E270.04866
G1 X146.75 Y124.29 E270.08126
G1 X146.66 Y124.25 E270.08675
G1 X146.21 Y124.03 E270.11615
G1 X145.45 Y123.67 E270.16456
G1 X144.95 Y123.51 E270.19505
G1 X144.26 Y123.28 E270.23771
G1 X143.73 Y123.11 E270.26973
G1 X143.42 Y123.02 E270.28853
G1 X142.57 Y122.84 E270.33887
G1 X141.97 Y122.71 E270.37507
G1 X141.54 Y122.62 E270.40002
G1 X141.21 Y122.58 E270.41947
G1 X140.86 Y122.93 E270.44832
G1 X140.24 Y123.67 E270.50433
G1 X139.92 Y124.10 E270.53557
G1 X139.54 Y124.69 E270.57625
G1 X139.01 Y125.56 E270.63588
G1 X138.80 Y125.91 E270.65941
G0 F12000 X138.72 Y126.08
G1 F600 X138.31 Y126.87 E270.71129
G1 X138.05 Y127.42 E270.74659
G1 X137.67 Y128.23 E270.79876
G1 X137.35 Y128.96 E270.84493
G1 X137.08 Y129.62 E270.88628
G1 X136.88 Y130.10 E270.91638
G1 X136.41 Y131.33 E270.99290
G1 X136.11 Y132.17 E271.04482
G1 X135.84 Y132.93 E271.09186
G1 X135.67 Y133.46 E271.12414
G1 X135.64 Y133.56 E271.13000
G1 X135.47 Y134.08 E271.16220
G1 X135.30 Y134.62 E271.19468
G1 X135.13 Y135.17 E271.22805
G1 X135.00 Y135.60 E271.25431
G1 X135.35 Y136.08 E271.28898
G1 X135.86 Y136.21 E271.31939
G1 X136.92 Y136.50 E271.38342
G1 X137.56 Y136.70 E271.42257
G1 X137.54 Y136.14 E271.45561
G1 X139.19 Y136.22 E271.55157
G1 X141.18 Y134.45 E271.70636
G1 X141.65 Y134.10 E271.74015
G1 X142.31 Y133.60 E271.78801
G1 X142.93 Y133.69 E271.82475
G1 X143.63 Y133.79 E271.86564
G1 X144.29 Y133.88 E271.90473
G1 X144.52 Y134.13 E271.92442
G1 X144.68 Y134.32 E271.93888
G1 X145.08 Y134.79 E271.97452
G1 X146.37 Y134.92 E272.05003
G1 X146.65 Y134.81 E272.06726
G1 X147.24 Y134.58 E272.10401
G1 X147.53 Y134.47 E272.12227
G1 X147.84 Y134.35 E272.14191
G1 X148.07 Y134.16 E272.15898
G1 X148.44 Y133.38 E272.20922
G1 X148.66 Y132.91 E272.23959
G1 X148.86 Y132.44 E272.26884
G1 X149.13 Y131.80 E272.30955
G1 X149.34 Y131.28 E272.34215
G1 X149.56 Y130.75 E272.37539
G1 X148.96 Y130.36 E272.41657
G1 X148.53 Y130.09 E272.44631
G1 X147.63 Y129.55 E272.50720
G1 X147.09 Y129.25 E272.54304
G1 X146.61 Y128.99 E272.57493
G1 X145.78 Y128.57 E272.62902
G1 X144.98 Y128.20 E272.68006
G1 X144.82 Y128.12 E272.69041
G1 X143.98 Y127.76 E272.74355
G1 X143.22 Y127.46 E272.79094
G1 X143.01 Y127.37 E272.80428
G1 X142.50 Y127.19 E272.83556
G1 X142.34 Y127.13 E272.84560
G1 X141.55 Y126.86 E272.89405
G1 X140.89 Y126.65 E272.93460
G1 X140.36 Y126.50 E272.96662
G1 X139.77 Y126.34 E273.00199
G1 X139.18 Y126.19 E273.03738
G1 X138.72 Y126.08 E273.06503
G1 F2400 E271.86503
G0 F12000 X150.86 Y127.25
G1 F2400 E273.06503
G1 F600 X150.79 Y128.04 E273.11099
G1 X150.68 Y128.65 E273.14688
G1 X150.56 Y129.21 E273.18042
G1 X150.50 Y129.44 E273.19457
G1 X150.42 Y129.72 E273.21145
G1 X150.21 Y130.41 E273.25348
G1 X150.06 Y130.88 E273.28171
G1 X150.50 Y131.21 E273.31404
G1 X151.00 Y131.58 E273.34997
G1 X151.67 Y132.12 E273.40000
G1 X152.24 Y132.59 E273.44297
G1 X152.46 Y132.79 E273.46040
G1 X152.72 Y132.69 E273.47657
G1 X152.84 Y131.74 E273.53230
G1 X152.85 Y131.72 E273.53359
G1 X152.96 Y131.70 E273.53998
G1 X153.37 Y131.62 E273.56459
G1 X152.65 Y128.55 E273.74775
G1 X152.29 Y128.16 E273.77862
G1 X152.20 Y128.06 E273.78644
G1 X151.53 Y127.48 E273.83825
G1 X151.12 Y127.14 E273.86885
G1 X150.86 Y127.25 E273.88572
G1 F2400 E272.68572
G0 F12000 X158.26 Y128.32
G1 F2400 E273.88572
G1 F600 X159.03 Y135.32 E274.29536
G1 X160.64 Y135.83 E274.39354
G1 X162.14 Y128.32 E274.83910
G1 X158.26 Y128.32 E275.06467
G1 F2400 E273.86467
G0 F12000 X156.02 Y161.70
G1 F2400 E275.06467
G1 F600 X158.10 Y171.70 E275.65844
G1 X158.46 Y171.71 E275.67956
G1 X161.40 Y161.70 E276.28616
G1 X156.02 Y161.70 E276.59862
G0 F12000 X154.93 Y161.85
;TYPE:FILL
G1 F600 X154.41 Y161.33 E276.64153
G0 F12000 X153.75 Y161.33
G1 F600 X155.11 Y162.69 E276.75282
G0 F12000 X155.28 Y163.52
G1 F600 X153.09 Y161.33 E276.93250
G0 F12000 X152.45 Y161.35
G1 F600 X155.45 Y164.35 E277.17930
G0 F12000 X155.62 Y165.18
G1 F600 X152.62 Y162.18 E277.42622
G0 F12000 X152.79 Y163.01
G1 F600 X155.80 Y166.01 E277.67326
G0 F12000 X155.97 Y166.85
G1 F600 X152.96 Y163.84 E277.92051
G0 F12000 X153.13 Y164.67
G1 F600 X156.15 Y167.68 E278.16793
G0 F12000 X156.32 Y168.51
G1 F600 X153.31 Y165.50 E278.41542
G0 F12000 X153.48 Y166.33
G1 F600 X156.49 Y169.34 E278.66308
G0 F12000 X156.66 Y170.17
G1 F600 X153.65 Y167.16 E278.91082
G0 F12000 X153.82 Y167.99
G1 F600 X156.84 Y171.01 E279.15873
G0 F12000 X157.01 Y171.84
G1 F600 X153.99 Y168.82 E279.40672
G0 F12000 X154.16 Y169.65
G1 F600 X157.18 Y172.67 E279.65495
G0 F12000 X157.27 Y172.76
G1 F600 X161.37 Y176.85 E279.99147
G0 F12000 X161.53 Y176.36
G1 F600 X157.96 Y172.79 E280.28475
G0 F12000 X158.65 Y172.81
G1 F600 X161.69 Y175.86 E280.53479
G0 F12000 X161.85 Y175.36
G1 F600 X159.29 Y172.80 E280.74538
G0 F12000 X159.44 Y172.29
G1 F600 X162.01 Y174.86 E280.95687
G0 F12000 X162.17 Y174.36
G1 F600 X159.58 Y171.78 E281.16919
G0 F12000 X159.73 Y171.27
G1 F600 X162.33 Y173.86 E281.38237
G0 F12000 X162.49 Y173.36
G1 F600 X159.88 Y170.76 E281.59641
G0 F12000 X160.03 Y170.25
G1 F600 X162.65 Y172.86 E281.81135
G0 F12000 X162.81 Y172.36
G1 F600 X160.18 Y169.74 E282.02712
G0 F12000 X160.33 Y169.23
G1 F600 X163.17 Y172.06 E282.26015
G0 F12000 X163.87 Y172.11
G1 F600 X160.48 Y168.72 E282.53888
G0 F12000 X160.63 Y168.21
G1 F600 X164.58 Y172.16 E282.86347
G0 F12000 X165.06 Y172.64
G1 F600 X167.27 Y174.85 E283.04509
G0 F12000 X167.07 Y174.00
G1 F600 X160.78 Y167.70 E283.56264
G0 F12000 X160.93 Y167.19
G1 F600 X166.88 Y173.14 E284.05163
G0 F12000 X166.68 Y172.28
G1 F600 X161.08 Y166.68 E284.51218
G0 F12000 X161.23 Y166.17
G1 F600 X166.48 Y171.43 E284.94421
G0 F12000 X166.28 Y170.57
G1 F600 X161.38 Y165.66 E285.34771
G0 F12000 X161.53 Y165.15
G1 F600 X166.09 Y169.71 E285.72274
G0 F12000 X165.89 Y168.85
G1 F600 X161.68 Y164.64 E286.06920
G0 F12000 X161.82 Y164.13
G1 F600 X165.69 Y168.00 E286.38718
G0 F12000 X165.50 Y167.14
G1 F600 X161.97 Y163.62 E286.67672
G0 F12000 X162.12 Y163.11
G1 F600 X165.30 Y166.29 E286.93769
G0 F12000 X165.10 Y165.43
G1 F600 X162.27 Y162.60 E287.17019
G0 F12000 X162.42 Y162.09
G1 F600 X164.90 Y164.57 E287.37408
G0 F12000 X164.70 Y163.72
G1 F600 X162.57 Y161.58 E287.54949
G0 F12000 X162.98 Y161.33
G1 F600 X164.51 Y162.86 E287.67508
G0 F12000 X164.31 Y162.00
G1 F600 X163.64 Y161.33 E287.73024
G1 F2400 E286.53024
G0 F12000 X163.70 Y153.48
G1 F2400 E287.73024
G1 F600 X158.03 Y147.81 E288.19629
G0 F12000 X157.87 Y148.31
G1 F600 X163.04 Y153.49 E288.62150
G0 F12000 X162.39 Y153.49
G1 F600 X157.69 Y148.79 E289.00766
G0 F12000 X157.50 Y149.27
G1 F600 X161.73 Y153.49 E289.35490
G0 F12000 X161.07 Y153.49
G1 F600 X157.32 Y149.74 E289.66318
G0 F12000 X157.68 Y150.76
G1 F600 X160.42 Y153.50 E289.88799
G0 F12000 X159.76 Y153.50
G1 F600 X158.31 Y152.05 E290.00734
G0 F12000 X158.93 Y153.33
G1 F600 X159.10 Y153.50 E290.02136
G0 F12000 X159.10 Y154.27
G0 X162.16 Y148.33
G0 X161.94 Y149.09
G1 F600 X166.32 Y153.47 E290.38179
G0 F12000 X166.98 Y153.47
G1 F600 X162.61 Y149.10 E290.74132
G0 F12000 X163.28 Y149.11
G1 F600 X167.64 Y153.47 E291.09995
G0 F12000 X168.19 Y153.36
G1 F600 X163.94 Y149.11 E291.44879
G0 F12000 X164.55 Y149.06
G1 F600 X168.69 Y153.21 E291.78974
G0 F12000 X169.16 Y153.01
G1 F600 X165.05 Y148.91 E292.12700
G0 F12000 X165.51 Y148.71
G1 F600 X169.54 Y152.73 E292.45817
G0 F12000 X169.89 Y152.42
G1 F600 X165.94 Y148.47 E292.78273
G0 F12000 X166.31 Y148.19
G1 F600 X170.14 Y152.02 E293.09750
G0 F12000 X170.39 Y151.61
G1 F600 X166.67 Y147.88 E293.40352
G0 F12000 X166.96 Y147.52
G1 F600 X170.61 Y151.17 E293.70358
G0 F12000 X170.80 Y150.70
G1 F600 X167.24 Y147.14 E293.99604
G0 F12000 X167.47 Y146.72
G1 F600 X170.99 Y150.23 E294.28496
G0 F12000 X171.16 Y149.74
G1 F600 X167.67 Y146.25 E294.57191
G0 F12000 X167.82 Y145.74
G1 F600 X171.28 Y149.20 E294.85631
G0 F12000 X171.40 Y148.67
G1 F600 X167.89 Y145.16 E295.14490
G0 F12000 X167.89 Y144.50
G1 F600 X171.51 Y148.11 E295.44196
G0 F12000 X171.55 Y147.50
G1 F600 X167.76 Y143.71 E295.75374
G0 F12000 X167.28 Y142.57
G1 F600 X171.60 Y146.88 E296.10875
G0 F12000 X171.60 Y146.23
G1 F600 X161.66 Y136.29 E296.92558
G0 F12000 X161.77 Y135.74
G1 F600 X171.55 Y145.51 E297.72893
G0 F12000 X171.49 Y144.80
G1 F600 X161.88 Y135.19 E298.51839
G0 F12000 X161.99 Y134.64
G1 F600 X171.29 Y143.94 E299.28299
G0 F12000 X171.07 Y143.06
G1 F600 X162.10 Y134.09 E300.02022
G0 F12000 X162.21 Y133.54
G1 F600 X170.63 Y141.96 E300.71227
G0 F12000 X171.34 Y141.68
G0 X170.15 Y139.75
G0 X169.59 Y140.26
G1 F600 X168.56 Y139.23 E300.79698
G0 F12000 X169.00 Y138.61
G0 X165.47 Y141.79
G0 X165.82 Y141.11
G1 F600 X161.55 Y136.84 E301.14821
G0 F12000 X161.22 Y137.17
G1 F600 X164.69 Y140.63 E301.43281
G0 F12000 X163.89 Y140.50
G1 F600 X160.26 Y136.86 E301.73176
G0 F12000 X159.29 Y136.56
G1 F600 X163.21 Y140.47 E302.05365
G0 F12000 X162.55 Y140.47
G1 F600 X158.33 Y136.25 E302.40072
G0 F12000 X157.99 Y135.91
G1 F600 X154.58 Y132.50 E302.68085
G0 F12000 X154.03 Y132.61
G1 F600 X161.89 Y140.47 E303.32733
G0 F12000 X161.23 Y140.47
G1 F600 X153.78 Y133.03 E303.93954
G0 F12000 X153.71 Y133.61
G1 F600 X160.57 Y140.47 E304.50374
G0 F12000 X159.91 Y140.47
G1 F600 X153.63 Y134.19 E305.01993
G0 F12000 X154.05 Y135.27
G1 F600 X159.25 Y140.47 E305.44785
G0 F12000 X159.37 Y141.25
G1 F600 X154.52 Y136.40 E305.84655
G0 F12000 X154.85 Y137.39
G1 F600 X159.61 Y142.15 E306.23764
G0 F12000 X159.85 Y143.05
G1 F600 X156.37 Y139.57 E306.52393
G0 F12000 X156.58 Y140.43
G1 F600 X160.10 Y143.95 E306.81343
G0 F12000 X160.34 Y144.85
G1 F600 X156.78 Y141.29 E307.10622
G0 F12000 X156.98 Y142.16
G1 F600 X160.59 Y145.76 E307.40221
G0 F12000 X160.83 Y146.66
G1 F600 X157.19 Y143.02 E307.70141
G0 F12000 X157.39 Y143.88
G1 F600 X161.07 Y147.56 E308.00389
G0 F12000 X161.31 Y148.46
G1 F600 X157.59 Y144.74 E308.30958
G0 F12000 X157.80 Y145.61
G1 F600 X165.67 Y153.48 E308.95647
G0 F12000 X165.01 Y153.48
G1 F600 X158.00 Y146.47 E309.53267
G0 F12000 X158.16 Y147.28
G1 F600 X164.35 Y153.48 E310.04221
G1 F2400 E308.84221
G0 F12000 X171.64 Y161.43
G1 F2400 E310.04221
G1 F600 X175.74 Y165.53 E310.37914
G0 F12000 X175.08 Y165.53
G1 F600 X171.81 Y162.26 E310.64809
G0 F12000 X171.98 Y163.08
G1 F600 X174.74 Y165.84 E310.87454
G0 F12000 X174.96 Y166.72
G1 F600 X172.15 Y163.91 E311.10543
G0 F12000 X172.32 Y164.74
G1 F600 X175.18 Y167.60 E311.34089
G0 F12000 X175.41 Y168.49
G1 F600 X172.49 Y165.57 E311.58090
G0 F12000 X172.66 Y166.39
G1 F600 X175.63 Y169.37 E311.82536
G0 F12000 X175.85 Y170.25
G1 F600 X172.82 Y167.22 E312.07429
G0 F12000 X172.99 Y168.05
G1 F600 X176.07 Y171.13 E312.32774
G0 F12000 X176.09 Y171.15
G1 F600 X177.49 Y172.55 E312.44327
G0 F12000 X176.84 Y172.55
G1 F600 X173.16 Y168.88 E312.74526
G0 F12000 X173.33 Y169.70
G1 F600 X176.79 Y173.16 E313.02958
G0 F12000 X176.80 Y173.84
G1 F600 X173.50 Y170.53 E313.30124
G0 F12000 X173.67 Y171.36
G1 F600 X176.82 Y174.51 E313.56021
G0 F12000 X176.83 Y175.18
G1 F600 X173.84 Y172.19 E313.80651
G0 F12000 X174.00 Y173.01
G1 F600 X176.85 Y175.86 E314.04015
G0 F12000 X176.86 Y176.53
G1 F600 X174.17 Y173.84 E314.26114
G0 F12000 X174.34 Y174.67
G1 F600 X176.88 Y177.21 E314.46951
G0 F12000 X176.89 Y177.88
G1 F600 X174.51 Y175.50 E314.66522
G0 F12000 X174.68 Y176.32
G1 F600 X179.67 Y181.32 E315.07551
G0 F12000 X179.01 Y181.32
G1 F600 X174.85 Y177.15 E315.41782
G0 F12000 X174.92 Y177.88
G1 F600 X178.35 Y181.32 E315.70008
G0 F12000 X177.69 Y181.32
G1 F600 X174.26 Y177.88 E315.98235
G0 F12000 X174.62 Y178.91
G1 F600 X177.03 Y181.32 E316.18057
G0 F12000 X176.37 Y181.32
G1 F600 X175.07 Y180.02 E316.28742
G0 F12000 X175.53 Y181.13
G1 F600 X175.72 Y181.32 E316.30296
G0 F12000 X176.96 Y177.94
G1 F600 X180.33 Y181.32 E316.58021
G0 F12000 X180.99 Y181.32
G1 F600 X177.61 Y177.94 E316.85746
G0 F12000 X178.27 Y177.94
G1 F600 X181.65 Y181.32 E317.13471
G0 F12000 X182.31 Y181.32
G1 F600 X178.93 Y177.94 E317.41196
G0 F12000 X179.59 Y177.94
G1 F600 X183.65 Y182.00 E317.74556
G0 F12000 X184.31 Y182.00
G1 F600 X180.25 Y177.94 E318.07915
G0 F12000 X180.91 Y177.94
G1 F600 X184.05 Y181.08 E318.33709
G0 F12000 X183.61 Y179.98
G1 F600 X181.57 Y177.94 E318.50460
G0 F12000 X182.23 Y177.94
G1 F600 X183.16 Y178.88 E318.58166
G0 F12000 X177.60 Y177.22
G0 X177.51 Y173.28
G0 X181.45 Y172.55
G1 F600 X180.04 Y171.15 E318.69719
G0 F12000 X179.38 Y171.15
G1 F600 X180.79 Y172.55 E318.81272
G0 F12000 X180.13 Y172.55
G1 F600 X178.72 Y171.15 E318.92825
G0 F12000 X178.06 Y171.15
G1 F600 X179.47 Y172.55 E319.04378
G0 F12000 X178.81 Y172.55
G1 F600 X177.41 Y171.15 E319.15930
G0 F12000 X176.75 Y171.15
G1 F600 X178.15 Y172.55 E319.27483
G0 F12000 X180.70 Y171.15
G1 F600 X181.79 Y172.24 E319.36455
G0 F12000 X181.44 Y171.22
G1 F600 X181.36 Y171.15 E319.37100
G0 F12000 X176.63 Y170.44
G0 X175.61 Y166.27
G0 X180.36 Y165.53
G1 F600 X176.16 Y161.33 E319.71590
G0 F12000 X175.50 Y161.33
G1 F600 X179.70 Y165.53 E320.06080
G0 F12000 X179.04 Y165.53
G1 F600 X174.84 Y161.33 E320.40570
G0 F12000 X174.18 Y161.33
G1 F600 X178.38 Y165.53 E320.75060
G0 F12000 X177.72 Y165.53
G1 F600 X173.52 Y161.33 E321.09550
G0 F12000 X172.86 Y161.33
G1 F600 X177.06 Y165.53 E321.44044
G0 F12000 X176.40 Y165.53
G1 F600 X172.21 Y161.33 E321.78538
G0 F12000 X176.82 Y161.33
G1 F600 X180.17 Y164.69 E322.06098
G0 F12000 X179.72 Y163.57
G1 F600 X177.48 Y161.33 E322.24510
G0 F12000 X178.14 Y161.33
G1 F600 X179.26 Y162.46 E322.33766
G1 F2400 E321.13766
G0 F12000 X180.19 Y153.50
G1 F2400 E322.33766
G1 F600 X179.21 Y152.52 E322.41813
G0 F12000 X178.79 Y151.44
G1 F600 X180.85 Y153.50 E322.58787
G0 F12000 X181.51 Y153.50
G1 F600 X178.36 Y150.35 E322.84683
G0 F12000 X177.93 Y149.26
G1 F600 X182.17 Y153.50 E323.19506
G0 F12000 X182.74 Y153.41
G1 F600 X177.98 Y148.65 E323.58623
G0 F12000 X178.32 Y148.34
G1 F600 X182.58 Y152.60 E323.93635
G0 F12000 X182.43 Y151.78
G1 F600 X178.17 Y147.52 E324.28663
G0 F12000 X178.01 Y146.71
G1 F600 X182.27 Y150.97 E324.63704
G0 F12000 X182.12 Y150.15
G1 F600 X177.85 Y145.89 E324.98761
G0 F12000 X177.69 Y145.07
G1 F600 X181.96 Y149.34 E325.33830
G0 F12000 X181.81 Y148.53
G1 F600 X177.54 Y144.26 E325.68920
G0 F12000 X177.38 Y143.44
G1 F600 X181.65 Y147.71 E326.04018
G0 F12000 X181.50 Y146.90
G1 F600 X177.22 Y142.62 E326.39133
G0 F12000 X177.07 Y141.81
G1 F600 X181.34 Y146.08 E326.74264
G0 F12000 X181.19 Y145.27
G1 F600 X176.91 Y140.99 E327.09411
G0 F12000 X176.75 Y140.18
G1 F600 X181.03 Y144.45 E327.44567
G0 F12000 X180.88 Y143.64
G1 F600 X176.60 Y139.36 E327.79739
G0 F12000 X176.44 Y138.54
G1 F600 X180.72 Y142.83 E328.14928
G0 F12000 X180.56 Y142.01
G1 F600 X176.28 Y137.73 E328.50133
G0 F12000 X176.12 Y136.91
G1 F600 X180.41 Y141.20 E328.85346
G0 F12000 X180.25 Y140.38
G1 F600 X175.97 Y136.10 E329.20580
G0 F12000 X175.81 Y135.28
G1 F600 X180.10 Y139.57 E329.55826
G0 F12000 X179.94 Y138.75
G1 F600 X175.65 Y134.47 E329.91088
G0 F12000 X175.50 Y133.65
G1 F600 X179.79 Y137.94 E330.26359
G0 F12000 X179.63 Y137.13
G1 F600 X175.34 Y132.83 E330.61654
G0 F12000 X175.18 Y132.02
G1 F600 X179.48 Y136.31 E330.96958
G0 F12000 X179.32 Y135.50
G1 F600 X175.03 Y131.20 E331.32278
G0 F12000 X174.87 Y130.38
G1 F600 X179.17 Y134.68 E331.67615
G0 F12000 X179.57 Y134.43
G1 F600 X174.71 Y129.57 E332.07554
G0 F12000 X174.56 Y128.75
G1 F600 X180.23 Y134.43 E332.54201
G0 F12000 X180.89 Y134.43
G1 F600 X174.41 Y127.95 E333.07440
G0 F12000 X175.07 Y127.95
G1 F600 X181.55 Y134.43 E333.60679
G0 F12000 X182.21 Y134.43
G1 F600 X175.73 Y127.95 E334.13918
G0 F12000 X176.39 Y127.95
G1 F600 X182.87 Y134.43 E334.67161
G0 F12000 X182.59 Y133.49
G1 F600 X177.05 Y127.95 E335.12698
G0 F12000 X177.71 Y127.95
G1 F600 X182.12 Y132.37 E335.48980
G0 F12000 X181.65 Y131.24
G1 F600 X178.37 Y127.95 E335.76007
G0 F12000 X179.03 Y127.95
G1 F600 X181.19 Y130.11 E335.93765
G0 F12000 X180.72 Y128.99
G1 F600 X179.69 Y127.95 E336.02269
G0 F12000 X179.69 Y127.19
G0 X186.27 Y127.93
G0 X186.27 Y128.18
G0 X187.01 Y128.03
G1 F600 X193.64 Y134.66 E336.56728
G0 F12000 X193.01 Y134.69
G1 F600 X187.17 Y128.85 E337.04760
G0 F12000 X187.33 Y129.66
G1 F600 X192.40 Y134.73 E337.46438
G0 F12000 X191.78 Y134.78
G1 F600 X187.49 Y130.48 E337.81770
G0 F12000 X187.64 Y131.30
G1 F600 X191.58 Y135.24 E338.14168
G0 F12000 X191.73 Y136.04
G1 F600 X187.80 Y132.11 E338.46480
G0 F12000 X187.96 Y132.93
G1 F600 X191.88 Y136.85 E338.78701
G0 F12000 X192.02 Y137.65
G1 F600 X188.11 Y133.74 E339.10844
G0 F12000 X188.27 Y134.56
G1 F600 X192.17 Y138.46 E339.42897
G0 F12000 X192.32 Y139.26
G1 F600 X188.43 Y135.38 E339.74864
G0 F12000 X188.59 Y136.19
G1 F600 X192.46 Y140.07 E340.06735
G0 F12000 X192.61 Y140.88
G1 F600 X188.74 Y137.01 E340.38521
G0 F12000 X188.90 Y137.82
G1 F600 X192.75 Y141.68 E340.70216
G0 F12000 X192.90 Y142.49
G1 F600 X189.06 Y138.64 E341.01825
G0 F12000 X189.21 Y139.46
G1 F600 X193.05 Y143.29 E341.33348
G0 F12000 X193.19 Y144.10
G1 F600 X189.37 Y140.27 E341.64784
G0 F12000 X189.53 Y141.09
G1 F600 X193.34 Y144.90 E341.96134
G0 F12000 X193.49 Y145.71
G1 F600 X189.68 Y141.91 E342.27393
G0 F12000 X189.84 Y142.72
G1 F600 X193.63 Y146.51 E342.58567
G0 F12000 X193.78 Y147.32
G1 F600 X190.00 Y143.54 E342.89654
G0 F12000 X190.16 Y144.35
G1 F600 X193.93 Y148.12 E343.20650
G0 F12000 X194.50 Y148.70
G1 F600 X199.16 Y153.35 E343.58905
G0 F12000 X199.66 Y153.20
G1 F600 X195.16 Y148.70 E343.95918
G0 F12000 X195.81 Y148.69
G1 F600 X200.16 Y153.04 E344.31694
G0 F12000 X200.56 Y152.78
G1 F600 X196.47 Y148.69 E344.65329
G0 F12000 X197.06 Y148.62
G1 F600 X200.95 Y152.51 E344.97279
G0 F12000 X201.33 Y152.23
G1 F600 X197.61 Y148.51 E345.27869
G0 F12000 X198.08 Y148.32
G1 F600 X201.65 Y151.89 E345.57205
G0 F12000 X201.97 Y151.56
G1 F600 X198.50 Y148.09 E345.85711
G0 F12000 X198.86 Y147.78
G1 F600 X202.29 Y151.22 E346.13946
G0 F12000 X202.55 Y150.82
G1 F600 X199.19 Y147.46 E346.41556
G0 F12000 X199.46 Y147.06
G1 F600 X202.81 Y150.41 E346.69104
G0 F12000 X203.06 Y150.01
G1 F600 X199.71 Y146.66 E346.96656
G0 F12000 X199.90 Y146.19
G1 F600 X203.28 Y149.57 E347.24410
G0 F12000 X203.47 Y149.10
G1 F600 X200.09 Y145.72 E347.52222
G0 F12000 X200.21 Y145.18
G1 F600 X203.67 Y148.64 E347.80625
G0 F12000 X203.84 Y148.15
G1 F600 X200.33 Y144.64 E348.09476
G0 F12000 X200.38 Y144.03
G1 F600 X203.96 Y147.62 E348.38931
G0 F12000 X204.09 Y147.09
G1 F600 X200.42 Y143.41 E348.69102
G0 F12000 X200.40 Y142.74
G1 F600 X204.21 Y146.54 E349.00374
G0 F12000 X204.25 Y145.93
G1 F600 X200.34 Y142.02 E349.32513
G0 F12000 X200.24 Y141.26
G1 F600 X204.30 Y145.32 E349.65885
G0 F12000 X204.32 Y144.68
G1 F600 X200.04 Y140.40 E350.01098
G0 F12000 X199.74 Y139.44
G1 F600 X204.27 Y143.97 E350.38349
G0 F12000 X204.21 Y143.25
G1 F600 X199.22 Y138.26 E350.79366
G0 F12000 X198.54 Y138.60
G0 X203.25 Y137.36
G0 X202.53 Y137.62
G1 F600 X195.16 Y130.25 E351.39941
G0 F12000 X196.33 Y130.76
G1 F600 X202.16 Y136.58 E351.87841
G0 F12000 X202.87 Y136.32
G0 X202.06 Y134.79
G0 X201.40 Y135.16
G1 F600 X197.59 Y131.36 E352.19117
G0 F12000 X198.02 Y130.73
G0 X194.30 Y129.03
G0 X194.00 Y129.74
G1 F600 X202.89 Y138.63 E352.92199
G0 F12000 X203.21 Y139.61
G1 F600 X191.55 Y127.95 E353.88065
G0 F12000 X190.89 Y127.95
G1 F600 X203.53 Y140.60 E354.92011
G0 F12000 X203.82 Y141.54
G1 F600 X190.23 Y127.95 E356.03717
G0 F12000 X189.57 Y127.95
G1 F600 X204.03 Y142.42 E357.22615
G0 F12000 X204.78 Y142.23
G0 X196.15 Y135.78
G0 X195.80 Y135.78
G0 X196.00 Y135.05
G1 F600 X188.91 Y127.95 E357.80930
G0 F12000 X188.25 Y127.95
G1 F600 X195.08 Y134.78 E358.37083
G0 F12000 X194.32 Y134.68
G1 F600 X187.59 Y127.95 E358.92397
G0 F12000 X187.59 Y127.19
G0 X192.21 Y127.19
G0 X192.21 Y127.95
G1 F600 X193.17 Y128.92 E359.00338
G0 F12000 X193.28 Y128.37
G1 F600 X192.87 Y127.95 E359.03782
G0 F12000 X192.87 Y127.19
G0 X189.57 Y145.31
G0 X190.31 Y145.17
G1 F600 X198.64 Y153.50 E359.72268
G0 F12000 X197.99 Y153.50
G1 F600 X190.47 Y145.99 E360.34047
G0 F12000 X190.63 Y146.80
G1 F600 X197.33 Y153.50 E360.89119
G0 F12000 X196.67 Y153.50
G1 F600 X190.78 Y147.62 E361.37484
G0 F12000 X190.94 Y148.43
G1 F600 X196.01 Y153.50 E361.79142
G0 F12000 X195.35 Y153.50
G1 F600 X190.50 Y148.65 E362.19040
G0 F12000 X190.07 Y148.88
G1 F600 X194.69 Y153.50 E362.57007
G0 F12000 X194.03 Y153.50
G1 F600 X190.49 Y149.96 E362.86105
G0 F12000 X190.91 Y151.04
G1 F600 X193.37 Y153.50 E363.06333
G0 F12000 X192.71 Y153.50
G1 F600 X191.33 Y152.12 E363.17693
G0 F12000 X191.75 Y153.20
G1 F600 X192.05 Y153.50 E363.20184
G1 F2400 E362.00184
G0 F12000 X191.98 Y161.33
G1 F2400 E363.20184
G1 F600 X195.63 Y164.99 E363.50247
G0 F12000 X195.03 Y165.04
G1 F600 X192.00 Y162.01 E363.75132
G0 F12000 X191.93 Y162.61
G1 F600 X194.50 Y165.18 E363.96249
G0 F12000 X194.03 Y165.36
G1 F600 X191.54 Y162.88 E364.16683
G0 F12000 X191.61 Y163.60
G1 F600 X193.60 Y165.59 E364.33044
G0 F12000 X193.22 Y165.87
G1 F600 X192.32 Y164.97 E364.40417
G0 F12000 X192.63 Y161.33
G1 F600 X196.35 Y165.05 E364.70954
G0 F12000 X197.36 Y165.39
G1 F600 X193.29 Y161.33 E365.04338
G0 F12000 X193.95 Y161.33
G1 F600 X202.35 Y169.73 E365.73338
G0 F12000 X202.21 Y170.25
G1 F600 X199.00 Y167.04 E365.99707
G0 F12000 X199.25 Y167.95
G1 F600 X202.06 Y170.76 E366.22800
G0 F12000 X201.85 Y171.21
G1 F600 X199.27 Y168.63 E366.44032
G0 F12000 X199.18 Y169.20
G1 F600 X201.64 Y171.65 E366.64228
G0 F12000 X201.37 Y172.04
G1 F600 X199.01 Y169.69 E366.83573
G0 F12000 X198.77 Y170.11
G1 F600 X201.09 Y172.42 E367.02618
G0 F12000 X200.75 Y172.75
G1 F600 X198.49 Y170.49 E367.21194
G0 F12000 X198.18 Y170.83
G1 F600 X200.39 Y173.04 E367.39393
G0 F12000 X199.95 Y173.26
G1 F600 X197.80 Y171.11 E367.57065
G0 F12000 X197.38 Y171.35
G1 F600 X199.50 Y173.47 E367.74499
G0 F12000 X199.04 Y173.66
G1 F600 X196.93 Y171.55 E367.91851
G0 F12000 X196.41 Y171.70
G1 F600 X198.58 Y173.87 E368.09696
G0 F12000 X198.18 Y174.13
G1 F600 X195.91 Y171.86 E368.28375
G0 F12000 X195.42 Y172.02
G1 F600 X197.83 Y174.44 E368.48226
G0 F12000 X197.53 Y174.79
G1 F600 X195.02 Y172.29 E368.68800
G0 F12000 X194.70 Y172.62
G1 F600 X197.27 Y175.19 E368.89900
G0 F12000 X197.09 Y175.68
G1 F600 X194.48 Y173.06 E369.11361
G0 F12000 X194.28 Y173.52
G1 F600 X197.00 Y176.24 E369.33776
G0 F12000 X197.05 Y176.95
G1 F600 X194.13 Y174.03 E369.57802
G0 F12000 X193.98 Y174.54
G1 F600 X201.46 Y182.02 E370.19282
G0 F12000 X200.79 Y182.01
G1 F600 X193.91 Y175.13 E370.75866
G0 F12000 X193.85 Y175.73
G1 F600 X200.08 Y181.96 E371.27116
G0 F12000 X199.31 Y181.84
G1 F600 X193.88 Y176.42 E371.71675
G0 F12000 X193.98 Y177.18
G1 F600 X198.51 Y181.71 E372.08935
G0 F12000 X197.62 Y181.47
G1 F600 X194.20 Y178.06 E372.37038
G0 F12000 X194.84 Y179.35
G1 F600 X196.45 Y180.96 E372.50280
G0 F12000 X199.32 Y179.22
G1 F600 X202.12 Y182.02 E372.73324
G0 F12000 X202.77 Y182.01
G1 F600 X200.10 Y179.34 E372.95230
G0 F12000 X200.73 Y179.32
G1 F600 X203.30 Y181.88 E373.16301
G0 F12000 X203.83 Y181.75
G1 F600 X201.27 Y179.19 E373.37351
G0 F12000 X201.78 Y179.04
G1 F600 X204.07 Y181.33 E373.56183
G0 F12000 X203.50 Y180.11
G1 F600 X202.27 Y178.88 E373.66301
G0 F12000 X202.76 Y178.71
G1 F600 X202.94 Y178.88 E373.67719
G0 F12000 X198.86 Y178.33
G0 X197.71 Y176.87
G0 X197.87 Y175.49
G0 X199.25 Y174.30
G0 X202.41 Y169.13
G1 F600 X194.61 Y161.33 E374.31796
G0 F12000 X195.27 Y161.33
G1 F600 X202.44 Y168.50 E374.90760
G0 F12000 X202.38 Y167.78
G1 F600 X195.93 Y161.33 E375.43806
G0 F12000 X196.59 Y161.33
G1 F600 X202.21 Y166.96 E375.90042
G0 F12000 X201.79 Y165.88
G1 F600 X197.25 Y161.33 E376.27404
G0 F12000 X197.91 Y161.33
G1 F600 X198.58 Y162.01 E376.32961
G0 F12000 X198.74 Y161.51
G1 F600 X198.57 Y161.33 E376.34391
G0 F12000 X179.62 Y161.35
G0 X175.61 Y166.27
G0 X176.63 Y170.44
G0 X177.60 Y177.22
G0 X185.53 Y182.75
G0 X182.28 Y182.02
G0 X174.09 Y177.15
G0 X170.90 Y161.31
G0 X164.91 Y161.34
G0 X167.47 Y175.71
G1 F600 X165.21 Y173.44 E376.52992
G0 F12000 X165.35 Y174.25
G1 F600 X167.67 Y176.56 E376.72037
G0 F12000 X167.87 Y177.42
G1 F600 X165.50 Y175.05 E376.91518
G0 F12000 X165.64 Y175.85
G1 F600 X168.06 Y178.28 E377.11438
G0 F12000 X168.26 Y179.13
G1 F600 X165.78 Y176.66 E377.31799
G0 F12000 X165.93 Y177.46
G1 F600 X168.46 Y179.99 E377.52603
G0 F12000 X168.66 Y180.85
G1 F600 X166.07 Y178.26 E377.73851
G0 F12000 X166.22 Y179.07
G1 F600 X168.48 Y181.33 E377.92485
G0 F12000 X167.82 Y181.33
G1 F600 X166.36 Y179.87 E378.04518
G0 F12000 X166.50 Y180.67
G1 F600 X167.16 Y181.33 E378.09952
G0 F12000 X164.38 Y172.85
G0 X163.41 Y172.79
G0 X160.57 Y179.35
G1 F600 X155.02 Y173.80 E378.55563
G0 F12000 X154.85 Y172.97
G1 F600 X160.73 Y178.85 E379.03895
G0 F12000 X160.89 Y178.35
G1 F600 X154.68 Y172.14 E379.54943
G0 F12000 X154.51 Y171.31
G1 F600 X161.05 Y177.85 E380.08716
G0 F12000 X161.21 Y177.35
G1 F600 X154.34 Y170.48 E380.65214
G0 F12000 X155.19 Y174.63
G1 F600 X160.41 Y179.85 E381.08101
G0 F12000 X160.25 Y180.35
G1 F600 X155.36 Y175.46 E381.48266
G0 F12000 X155.53 Y176.29
G1 F600 X160.09 Y180.85 E381.85711
G0 F12000 X159.90 Y181.32
G1 F600 X155.71 Y177.12 E382.20164
G0 F12000 X155.88 Y177.96
G1 F600 X159.24 Y181.32 E382.47791
G0 F12000 X158.58 Y181.32
G1 F600 X155.48 Y178.21 E382.73296
G0 F12000 X156.07 Y179.46
G1 F600 X157.92 Y181.32 E382.88548
G0 F12000 X157.26 Y181.32
G1 F600 X156.65 Y180.71 E382.93550
G0 F12000 X151.72 Y161.31
G0 X143.21 Y161.33
G0 X144.82 Y171.62
G0 X150.48 Y181.12
G1 F600 X141.79 Y172.43 E383.64979
G0 F12000 X141.65 Y172.96
G1 F600 X144.87 Y176.17 E383.91385
G0 F12000 X144.30 Y176.26
G1 F600 X141.52 Y173.48 E384.14227
G0 F12000 X141.38 Y174.00
G1 F600 X143.73 Y176.35 E384.33507
G0 F12000 X143.40 Y176.68
G1 F600 X141.25 Y174.53 E384.51183
G0 F12000 X141.11 Y175.05
G1 F600 X143.27 Y177.21 E384.68925
G0 F12000 X143.14 Y177.74
G1 F600 X140.98 Y175.58 E384.86729
G0 F12000 X140.84 Y176.10
G1 F600 X143.02 Y178.27 E385.04603
G0 F12000 X142.89 Y178.81
G1 F600 X140.71 Y176.62 E385.22534
G0 F12000 X140.57 Y177.15
G1 F600 X142.76 Y179.34 E385.40535
G0 F12000 X142.63 Y179.87
G1 F600 X140.44 Y177.67 E385.58598
G0 F12000 X140.30 Y178.19
G1 F600 X142.51 Y180.40 E385.76723
G0 F12000 X142.38 Y180.93
G1 F600 X140.16 Y178.72 E385.94913
G0 F12000 X140.03 Y179.24
G1 F600 X142.10 Y181.32 E386.11969
G0 F12000 X141.45 Y181.32
G1 F600 X139.90 Y179.77 E386.24717
G0 F12000 X139.76 Y180.29
G1 F600 X140.79 Y181.32 E386.33159
G0 F12000 X140.13 Y181.32
G1 F600 X139.62 Y180.81 E386.37302
G0 F12000 X141.34 Y171.51
G0 X139.32 Y161.31
G0 X134.56 Y161.32
G0 X133.84 Y180.96
G1 F600 X130.08 Y177.20 E386.68159
G0 F12000 X129.42 Y177.20
G1 F600 X133.46 Y181.24 E387.01354
G0 F12000 X132.80 Y181.24
G1 F600 X128.76 Y177.20 E387.34549
G0 F12000 X127.98 Y176.42
G1 F600 X125.19 Y173.62 E387.57503
G0 F12000 X125.69 Y174.78
G1 F600 X132.14 Y181.24 E388.10598
G0 F12000 X131.49 Y181.24
G1 F600 X126.19 Y175.94 E388.54158
G0 F12000 X126.69 Y177.10
G1 F600 X130.83 Y181.24 E388.88196
G0 F12000 X130.17 Y181.24
G1 F600 X126.68 Y177.76 E389.16833
G0 F12000 X126.02 Y177.76
G1 F600 X129.51 Y181.24 E389.45471
G0 F12000 X128.85 Y181.24
G1 F600 X125.99 Y178.38 E389.68971
G0 F12000 X126.45 Y179.50
G1 F600 X128.19 Y181.24 E389.83265
G0 F12000 X127.53 Y181.24
G1 F600 X126.91 Y180.62 E389.88345
G0 F12000 X130.74 Y177.20
G1 F600 X133.84 Y180.30 E390.13785
G0 F12000 X133.84 Y179.64
G1 F600 X131.30 Y177.10 E390.34638
G0 F12000 X131.30 Y176.44
G1 F600 X133.84 Y178.98 E390.55492
G0 F12000 X133.84 Y178.32
G1 F600 X131.30 Y175.78 E390.76345
