;-- START GCODE --
;Sliced for Type A Machines Series 1
;Sliced at: Sat 20-08-2016 14:03:29
;Basic settings: Layer height: 0.1 Walls: 1.4 Fill: 50
;Print Speed: 10 Support: 0
;Retraction Speed: 40 Retraction Distance: 1.2
;Print time: #P_TIME#
;Filament used: #F_AMNT#m #F_WGHT#g
;Filament cost: #F_COST#
M106 S255	 ;start with the fan on
G21        ;metric values
G90        ;absolute positioning
M106 S255    ;start with the fan on
G28     ;move to endstops
G29		;allows for auto-levelling
G1 X150 Y5  Z15.0 F12000 ;center and move the platform down 15mm
M109 S220 ;Heat To temp
G92 E0                  ;zero the extruded length
G1 F200 E30              ;extrude 30mm of feed stock
G92 E0                  ;zero the extruded length again
G1 X175 Y25  Z0 F12000 ;remove bugger
G1 X220 F12000 ;remove bugger
G1 X150 Y150  Z15 F12000 ;recenter and begin
G1 F12000

;Layer count: 37
;LAYER:0
M106 S255
G0 F12000 X26.32 Y21.46 Z0.30
;TYPE:SKIRT
G1 F600 X27.99 Y19.43 E0.15227
G1 X28.95 Y18.26 E0.24006
G1 X30.96 Y16.61 E0.39142
G1 X32.11 Y15.67 E0.47780
G1 X34.42 Y14.43 E0.62999
G1 X35.75 Y13.72 E0.71785
G1 X38.26 Y12.96 E0.87010
G1 X38.26 Y12.96 E0.87016
G1 X39.66 Y12.53 E0.95585
G1 X42.29 Y12.27 E1.10915
G1 X43.77 Y12.12 E1.19589
G1 X46.39 Y12.38 E1.34856
G1 X47.88 Y12.53 E1.43588
G1 X50.40 Y13.29 E1.58860
G1 X51.84 Y13.73 E1.67635
G1 X54.11 Y14.95 E1.82571
G1 X55.44 Y15.66 E1.91367
G1 X57.48 Y17.33 E2.06664
G1 X58.64 Y18.28 E2.15405
G1 X58.72 Y18.39 E2.16181
G1 X62.08 Y18.39 E2.35669
G1 X62.08 Y23.01 E2.62574
G1 X62.47 Y23.75 E2.67450
G1 X62.47 Y23.75 E2.67455
G1 X63.19 Y25.09 E2.76242
G1 X63.93 Y27.56 E2.91234
G1 X64.38 Y29.01 E3.00078
G1 X64.63 Y31.61 E3.15263
G1 X64.78 Y33.11 E3.24036
G1 X64.53 Y35.73 E3.39302
G1 X64.38 Y37.22 E3.48035
G1 X63.62 Y39.73 E3.63265
G1 X63.18 Y41.17 E3.72018
G1 X62.08 Y43.23 E3.85604
G1 X62.08 Y47.62 E4.11079
G1 X58.92 Y47.62 E4.29411
G1 X58.62 Y47.98 E4.32144
G1 X56.61 Y49.63 E4.47259
G1 X55.46 Y50.58 E4.55955
G1 X53.14 Y51.82 E4.71255
G1 X51.81 Y52.52 E4.79986
G1 X49.32 Y53.28 E4.95111
G1 X47.90 Y53.72 E5.03733
G1 X45.28 Y53.98 E5.19064
G1 X43.79 Y54.12 E5.27738
G1 X41.18 Y53.87 E5.43004
G1 X39.68 Y53.72 E5.51759
G1 X37.16 Y52.95 E5.67042
G1 X35.73 Y52.51 E5.75762
G1 X33.44 Y51.29 E5.90830
G1 X32.12 Y50.58 E5.99565
G1 X30.09 Y48.92 E6.14792
G1 X28.93 Y47.96 E6.23570
G1 X27.27 Y45.95 E6.38707
G1 X26.33 Y44.80 E6.47344
G1 X25.09 Y42.49 E6.62564
G1 X24.38 Y41.16 E6.71350
G1 X23.62 Y38.65 E6.86575
G1 X23.19 Y37.23 E6.95194
G1 X22.93 Y34.62 E7.10477
G1 X22.78 Y33.13 E7.19157
G1 X23.04 Y30.52 E7.34418
G1 X23.19 Y29.02 E7.43144
G1 X23.95 Y26.52 E7.58374
G1 X24.39 Y25.07 E7.67151
G1 X25.62 Y22.78 E7.82267
G1 X26.32 Y21.46 E7.90980
G0 F12000 X26.71 Y21.72
G1 F600 X28.35 Y19.73 E8.05939
G1 X29.28 Y18.60 E8.14449
G1 X31.23 Y16.99 E8.29167
G1 X32.37 Y16.06 E8.37690
G1 X34.64 Y14.84 E8.52647
G1 X35.93 Y14.15 E8.61163
G1 X38.39 Y13.41 E8.76120
G1 X39.76 Y12.99 E8.84427
G1 X42.34 Y12.73 E8.99488
G1 X43.78 Y12.59 E9.07899
G1 X46.34 Y12.84 E9.22891
G1 X47.79 Y12.99 E9.31354
G1 X50.26 Y13.73 E9.46365
G1 X51.66 Y14.16 E9.54866
G1 X53.89 Y15.36 E9.69545
G1 X55.18 Y16.05 E9.78073
G1 X57.18 Y17.69 E9.93097
G1 X58.31 Y18.61 E10.01566
G1 X58.50 Y18.85 E10.03363
G1 X61.61 Y18.85 E10.21427
G1 X61.61 Y23.13 E10.46298
G1 X62.06 Y23.97 E10.51859
G1 X62.75 Y25.27 E10.60375
G1 X63.50 Y27.73 E10.75333
G1 X63.50 Y27.73 E10.75339
G1 X63.92 Y29.10 E10.83691
G1 X64.17 Y31.66 E10.98607
G1 X64.31 Y33.11 E11.07117
G1 X64.06 Y35.68 E11.22109
G1 X63.92 Y37.13 E11.30572
G1 X63.17 Y39.59 E11.45536
G1 X62.75 Y40.99 E11.54026
G1 X61.61 Y43.12 E11.68023
G1 X61.61 Y47.15 E11.91470
G1 X58.70 Y47.15 E12.08372
G1 X58.29 Y47.65 E12.12121
G1 X56.32 Y49.27 E12.26971
G1 X55.20 Y50.19 E12.35403
G1 X52.92 Y51.41 E12.50432
G1 X51.63 Y52.09 E12.58891
G1 X49.23 Y52.82 E12.73497
G1 X47.81 Y53.26 E12.82114
G1 X45.23 Y53.51 E12.97176
G1 X43.79 Y53.65 E13.05587
G1 X41.23 Y53.40 E13.20578
G1 X39.77 Y53.26 E13.29071
G1 X37.30 Y52.51 E13.44079
G1 X35.91 Y52.08 E13.52532
G1 X33.66 Y50.88 E13.67338
G1 X32.38 Y50.19 E13.75807
G1 X30.39 Y48.56 E13.90765
G1 X29.26 Y47.63 E13.99275
G1 X27.64 Y45.65 E14.14142
G1 X26.72 Y44.54 E14.22516
G1 X25.51 Y42.27 E14.37473
G1 X24.82 Y40.98 E14.45989
G1 X24.07 Y38.52 E14.60947
G1 X24.07 Y38.52 E14.60952
G1 X23.65 Y37.14 E14.69310
G1 X23.40 Y34.57 E14.84326
G1 X23.25 Y33.13 E14.92737
G1 X23.50 Y30.56 E15.07728
G1 X23.65 Y29.11 E15.16186
G1 X24.39 Y26.65 E15.31149
G1 X24.82 Y25.25 E15.39665
G1 X26.03 Y23.00 E15.54513
G1 X26.71 Y21.72 E15.62958
G0 F12000 X27.10 Y21.98
G1 F600 X28.71 Y20.02 E15.77644
G1 X29.61 Y18.93 E15.85886
G1 X31.53 Y17.35 E16.00346
G1 X32.63 Y16.45 E16.08604
G1 X34.86 Y15.26 E16.23290
G1 X36.11 Y14.59 E16.31536
G1 X38.53 Y13.85 E16.46227
G1 X39.85 Y13.45 E16.54270
G1 X42.37 Y13.20 E16.68964
G1 X42.37 Y13.20 E16.68970
G1 X43.78 Y13.06 E16.77211
G1 X46.30 Y13.31 E16.91940
G1 X47.70 Y13.45 E17.00135
G1 X50.13 Y14.18 E17.14874
G1 X51.48 Y14.60 E17.23106
G1 X53.67 Y15.77 E17.37530
G1 X53.67 Y15.77 E17.37536
G1 X54.92 Y16.44 E17.45797
G1 X56.89 Y18.05 E17.60548
G1 X57.98 Y18.94 E17.68753
G1 X58.28 Y19.32 E17.71565
G1 X61.15 Y19.32 E17.88200
G1 X61.15 Y23.25 E18.11036
G1 X61.65 Y24.19 E18.17282
G1 X62.32 Y25.45 E18.25527
G1 X63.04 Y27.83 E18.40005
G1 X63.46 Y29.20 E18.48308
G1 X63.71 Y31.70 E18.62955
G1 X63.71 Y31.70 E18.62961
G1 X63.85 Y33.11 E18.71202
G1 X63.60 Y35.64 E18.85931
G1 X63.46 Y37.04 E18.94126
G1 X62.73 Y39.46 E19.08822
G1 X62.31 Y40.81 E19.17041
G1 X61.15 Y43.00 E19.31451
G1 X61.15 Y46.68 E19.52869
G1 X58.48 Y46.68 E19.68341
G1 X57.96 Y47.32 E19.73106
G1 X56.02 Y48.91 E19.87688
G1 X54.94 Y49.80 E19.95856
G1 X52.70 Y51.00 E20.10614
G1 X51.45 Y51.66 E20.18808
G1 X49.09 Y52.38 E20.33160
G1 X47.72 Y52.80 E20.41501
G1 X45.20 Y53.05 E20.56195
G1 X45.20 Y53.05 E20.56201
G1 X43.79 Y53.19 E20.64442
G1 X41.27 Y52.94 E20.79171
G1 X39.86 Y52.80 E20.87390
G1 X37.44 Y52.06 E21.02130
G1 X36.09 Y51.65 E21.10321
G1 X33.88 Y50.47 E21.24859
G1 X32.64 Y49.80 E21.33065
G1 X30.68 Y48.20 E21.47751
G1 X29.59 Y47.30 E21.55993
G1 X28.00 Y45.36 E21.70601
G1 X27.11 Y44.28 E21.78711
G1 X25.92 Y42.05 E21.93397
G1 X25.25 Y40.80 E22.01643
G1 X24.52 Y38.38 E22.16334
G1 X24.11 Y37.05 E22.24423
G1 X23.86 Y34.54 E22.39076
G1 X23.86 Y34.54 E22.39082
G1 X23.72 Y33.13 E22.47323
G1 X23.97 Y30.61 E22.62046
G1 X24.11 Y29.21 E22.70241
G1 X24.84 Y26.79 E22.84937
G1 X25.26 Y25.43 E22.93180
G1 X26.44 Y23.22 E23.07765
G1 X27.10 Y21.98 E23.15948
G0 F12000 X27.49 Y22.24
G1 F600 X29.07 Y20.32 E23.30365
G1 X29.94 Y19.26 E23.38338
G1 X31.85 Y17.69 E23.52681
G1 X32.89 Y16.84 E23.60531
G1 X35.08 Y15.66 E23.74960
G1 X36.29 Y15.02 E23.82925
G1 X38.66 Y14.30 E23.97348
G1 X38.66 Y14.30 E23.97353
G1 X39.94 Y13.91 E24.05138
G1 X42.41 Y13.66 E24.19569
G1 X43.78 Y13.53 E24.27536
G1 X46.25 Y13.77 E24.41996
G1 X47.61 Y13.91 E24.49923
G1 X49.99 Y14.63 E24.64393
G1 X51.30 Y15.03 E24.72358
G1 X53.45 Y16.18 E24.86524
G1 X54.66 Y16.82 E24.94512
G1 X56.59 Y18.41 E25.08995
G1 X57.65 Y19.27 E25.16935
G1 X58.06 Y19.78 E25.20763
G1 X60.68 Y19.78 E25.35968
G1 X60.68 Y23.36 E25.56776
G1 X61.24 Y24.41 E25.63700
G1 X61.89 Y25.62 E25.71678
G1 X62.61 Y28.00 E25.86101
G1 X62.61 Y28.00 E25.86107
G1 X63.00 Y29.29 E25.93937
G1 X63.24 Y31.75 E26.08321
G1 X63.38 Y33.11 E26.16288
G1 X63.14 Y35.59 E26.30749
G1 X63.00 Y36.95 E26.38675
G1 X62.28 Y39.32 E26.53103
G1 X61.88 Y40.63 E26.61059
G1 X60.72 Y42.80 E26.75379
G1 X60.68 Y42.88 E26.75886
G1 X60.68 Y46.22 E26.95269
G1 X58.26 Y46.22 E27.09306
G1 X57.63 Y46.98 E27.15082
G1 X55.73 Y48.55 E27.29404
G1 X54.68 Y49.41 E27.37307
G1 X52.48 Y50.59 E27.51795
G1 X51.27 Y51.23 E27.59723
G1 X48.91 Y51.94 E27.74057
G1 X47.63 Y52.34 E27.81889
G1 X45.16 Y52.58 E27.96320
G1 X43.79 Y52.72 E28.04288
G1 X41.32 Y52.48 E28.18748
G1 X39.95 Y52.34 E28.26698
G1 X37.57 Y51.62 E28.41172
G1 X36.27 Y51.22 E28.49094
G1 X34.10 Y50.06 E28.63374
G1 X32.90 Y49.41 E28.71310
G1 X30.98 Y47.84 E28.85728
G1 X29.92 Y46.97 E28.93701
G1 X28.36 Y45.06 E29.08044
G1 X27.50 Y44.02 E29.15894
G1 X26.33 Y41.83 E29.30323
G1 X25.68 Y40.62 E29.38287
G1 X24.96 Y38.25 E29.52710
G1 X24.96 Y38.25 E29.52716
G1 X24.57 Y36.96 E29.60546
G1 X24.32 Y34.48 E29.75024
G1 X24.19 Y33.13 E29.82909
G1 X24.43 Y30.66 E29.97358
G1 X24.57 Y29.30 E30.05285
G1 X25.29 Y26.92 E30.19713
G1 X25.69 Y25.61 E30.27687
G1 X26.85 Y23.44 E30.42009
G1 X27.49 Y22.24 E30.49927
G0 F12000 X27.88 Y22.50
G1 F600 X29.43 Y20.61 E30.64080
G1 X30.27 Y19.59 E30.71785
G1 X32.12 Y18.07 E30.85719
G1 X33.15 Y17.23 E30.93445
G1 X35.30 Y16.07 E31.07611
G1 X36.47 Y15.45 E31.15303
G1 X38.80 Y14.74 E31.29459
G1 X40.03 Y14.37 E31.36980
G1 X42.47 Y14.12 E31.51230
G1 X42.47 Y14.13 E31.51236
G1 X43.78 Y14.00 E31.58853
G1 X46.21 Y14.23 E31.73038
G1 X47.52 Y14.37 E31.80702
G1 X49.86 Y15.07 E31.94898
G1 X51.12 Y15.46 E32.02598
G1 X53.25 Y16.60 E32.16608
G1 X54.41 Y17.21 E32.24229
G1 X56.30 Y18.77 E32.38440
G1 X57.31 Y19.61 E32.46107
G1 X57.84 Y20.25 E32.50951
G1 X60.21 Y20.25 E32.64732
G1 X60.21 Y23.48 E32.83511
G1 X60.83 Y24.63 E32.91109
G1 X61.45 Y25.80 E32.98821
G1 X62.15 Y28.10 E33.12777
G1 X62.54 Y29.38 E33.20545
G1 X62.78 Y31.80 E33.34660
G1 X62.91 Y33.12 E33.42364
G1 X62.67 Y35.54 E33.56550
G1 X62.54 Y36.86 E33.64213
G1 X61.84 Y39.19 E33.78368
G1 X61.45 Y40.45 E33.86057
G1 X60.31 Y42.59 E34.00111
G1 X60.21 Y42.77 E34.01304
G1 X60.21 Y45.75 E34.18654
G1 X58.04 Y45.75 E34.31261
G1 X57.30 Y46.65 E34.38053
G1 X55.43 Y48.19 E34.52111
G1 X54.42 Y49.02 E34.59745
G1 X52.26 Y50.17 E34.73961
G1 X51.10 Y50.79 E34.81623
G1 X48.82 Y51.49 E34.95467
G1 X47.53 Y51.88 E35.03262
G1 X45.09 Y52.12 E35.17512
G1 X45.09 Y52.12 E35.17518
G1 X43.79 Y52.25 E35.25135
G1 X41.36 Y52.01 E35.39320
G1 X40.05 Y51.88 E35.47007
G1 X37.71 Y51.17 E35.61201
G1 X36.45 Y50.78 E35.68864
G1 X34.32 Y49.65 E35.82877
G1 X33.16 Y49.02 E35.90550
G1 X31.27 Y47.48 E36.04703
G1 X30.25 Y46.64 E36.12408
G1 X28.73 Y44.78 E36.26342
G1 X27.89 Y43.76 E36.34068
G1 X26.74 Y41.61 E36.48234
G1 X26.11 Y40.44 E36.55926
G1 X25.41 Y38.11 E36.70082
G1 X25.03 Y36.87 E36.77649
G1 X24.79 Y34.43 E36.91858
G1 X24.79 Y34.43 E36.91864
G1 X24.66 Y33.13 E36.99481
G1 X24.90 Y30.70 E37.13661
G1 X25.03 Y29.39 E37.21324
G1 X25.73 Y27.06 E37.35478
G1 X26.12 Y25.79 E37.43186
G1 X27.26 Y23.66 E37.57245
G1 X27.88 Y22.50 E37.64898
G0 F12000 X28.27 Y22.76
G1 F600 X29.79 Y20.91 E37.78783
G1 X30.60 Y19.92 E37.86219
G1 X32.44 Y18.41 E38.00029
G1 X33.41 Y17.61 E38.07354
G1 X35.52 Y16.49 E38.21250
G1 X36.64 Y15.88 E38.28674
G1 X38.93 Y15.19 E38.42562
G1 X38.93 Y15.19 E38.42568
G1 X40.13 Y14.82 E38.49835
G1 X42.52 Y14.59 E38.63805
G1 X42.52 Y14.59 E38.63811
G1 X43.78 Y14.46 E38.71165
G1 X46.16 Y14.70 E38.85082
G1 X47.43 Y14.82 E38.92477
G1 X49.72 Y15.52 E39.06407
G1 X50.94 Y15.89 E39.13838
G1 X53.01 Y17.00 E39.27487
G1 X54.15 Y17.60 E39.34941
G1 X56.00 Y19.13 E39.48883
G1 X56.98 Y19.94 E39.56286
G1 X57.62 Y20.71 E39.62146
G1 X59.75 Y20.71 E39.74497
G1 X59.75 Y23.60 E39.91242
G1 X60.42 Y24.85 E39.99524
G1 X61.02 Y25.98 E40.06968
G1 X61.72 Y28.27 E40.20856
G1 X62.08 Y29.47 E40.28161
G1 X62.32 Y31.86 E40.42084
G1 X62.32 Y31.86 E40.42090
G1 X62.44 Y33.12 E40.49450
G1 X62.21 Y35.50 E40.63367
G1 X62.08 Y36.76 E40.70762
G1 X61.39 Y39.05 E40.84655
G1 X61.02 Y40.27 E40.92072
G1 X59.90 Y42.37 E41.05860
G1 X59.75 Y42.65 E41.07733
G1 X59.75 Y45.28 E41.23054
G1 X57.82 Y45.28 E41.34231
G1 X57.78 Y45.34 E41.34631
G1 X56.97 Y46.32 E41.42039
G1 X55.14 Y47.83 E41.55828
G1 X54.16 Y48.63 E41.63198
G1 X52.04 Y49.76 E41.77146
G1 X50.92 Y50.36 E41.84543
G1 X48.64 Y51.05 E41.98348
G1 X47.44 Y51.42 E42.05658
G1 X45.05 Y51.66 E42.19628
G1 X45.05 Y51.66 E42.19634
G1 X43.79 Y51.78 E42.26988
G1 X41.41 Y51.55 E42.40905
G1 X40.14 Y51.42 E42.48323
G1 X37.84 Y50.73 E42.62250
G1 X36.63 Y50.35 E42.69645
G1 X34.54 Y49.24 E42.83395
G1 X33.42 Y48.63 E42.90800
G1 X31.57 Y47.12 E43.04686
G1 X30.58 Y46.31 E43.12122
G1 X29.08 Y44.47 E43.25932
G1 X28.28 Y43.50 E43.33257
G1 X27.15 Y41.39 E43.47153
G1 X26.55 Y40.26 E43.54577
G1 X25.85 Y37.98 E43.68464
G1 X25.49 Y36.77 E43.75769
G1 X25.25 Y34.39 E43.89704
G1 X25.25 Y34.39 E43.89710
G1 X25.13 Y33.13 E43.97064
G1 X25.36 Y30.75 E44.10975
G1 X25.49 Y29.48 E44.18370
G1 X26.18 Y27.19 E44.32263
G1 X26.55 Y25.97 E44.39704
G1 X27.67 Y23.88 E44.53493
G1 X28.27 Y22.76 E44.60878
G0 F12000 X28.66 Y23.02
G1 F600 X30.15 Y21.20 E44.74495
G1 X30.93 Y20.25 E44.81663
G1 X32.73 Y18.77 E44.95213
G1 X33.67 Y18.00 E45.02270
G1 X35.74 Y16.90 E45.15900
G1 X36.82 Y16.32 E45.23059
G1 X39.02 Y15.65 E45.36417
G1 X39.02 Y15.65 E45.36423
G1 X40.22 Y15.28 E45.43683
G1 X42.55 Y15.05 E45.57302
G1 X43.78 Y14.93 E45.64469
G1 X46.11 Y15.16 E45.78118
G1 X47.34 Y15.28 E45.85249
G1 X49.58 Y15.96 E45.98907
G1 X50.76 Y16.33 E46.06070
G1 X52.79 Y17.41 E46.19461
G1 X53.88 Y17.99 E46.26648
G1 X55.70 Y19.49 E46.40318
G1 X56.65 Y20.27 E46.47453
G1 X57.40 Y21.18 E46.54333
G1 X59.28 Y21.18 E46.65254
G1 X59.28 Y23.71 E46.79971
G1 X60.01 Y25.07 E46.88931
G1 X60.59 Y26.16 E46.96111
G1 X61.26 Y28.37 E47.09542
G1 X61.62 Y29.56 E47.16770
G1 X61.85 Y31.89 E47.30348
G1 X61.97 Y33.12 E47.37515
G1 X61.74 Y35.45 E47.51164
G1 X61.62 Y36.67 E47.58295
G1 X60.94 Y38.92 E47.71916
G1 X60.58 Y40.09 E47.79070
G1 X59.49 Y42.15 E47.92597
G1 X59.28 Y42.53 E47.95147
G1 X59.28 Y44.82 E48.08434
G1 X57.60 Y44.82 E48.18187
G1 X57.42 Y45.04 E48.19864
G1 X56.64 Y45.99 E48.27003
G1 X54.84 Y47.47 E48.40531
G1 X53.90 Y48.24 E48.47638
G1 X51.82 Y49.35 E48.61310
G1 X50.74 Y49.93 E48.68442
G1 X48.54 Y50.59 E48.81767
G1 X48.54 Y50.59 E48.81773
G1 X47.35 Y50.96 E48.89033
G1 X45.02 Y51.19 E49.02652
G1 X43.79 Y51.31 E49.09819
G1 X41.45 Y51.08 E49.23468
G1 X40.23 Y50.96 E49.30623
G1 X37.98 Y50.28 E49.44277
G1 X36.81 Y49.92 E49.51403
G1 X34.76 Y48.83 E49.64895
G1 X33.68 Y48.25 E49.72031
G1 X31.87 Y46.76 E49.85647
G1 X30.91 Y45.98 E49.92815
G1 X29.44 Y44.17 E50.06366
G1 X28.66 Y43.24 E50.13422
G1 X27.56 Y41.17 E50.27053
G1 X26.98 Y40.08 E50.34211
G1 X26.30 Y37.84 E50.47825
G1 X25.95 Y36.68 E50.54870
G1 X25.71 Y34.34 E50.68537
G1 X25.59 Y33.13 E50.75628
G1 X25.82 Y30.79 E50.89265
G1 X25.95 Y29.57 E50.96396
G1 X26.62 Y27.33 E51.10017
G1 X26.98 Y26.15 E51.17189
G1 X28.08 Y24.10 E51.30716
G1 X28.66 Y23.02 E51.37836
G0 F12000 X29.05 Y23.28
G1 F600 X30.51 Y21.50 E51.51184
G1 X31.26 Y20.58 E51.58088
G1 X33.03 Y19.14 E51.71366
G1 X33.93 Y18.39 E51.78166
G1 X35.95 Y17.31 E51.91508
G1 X37.00 Y16.75 E51.98414
G1 X39.16 Y16.10 E52.11519
G1 X40.31 Y15.74 E52.18505
G1 X42.60 Y15.52 E52.31856
G1 X43.78 Y15.40 E52.38754
G1 X46.07 Y15.62 E52.52134
G1 X47.24 Y15.74 E52.59003
G1 X49.45 Y16.41 E52.72389
G1 X50.58 Y16.76 E52.79283
G1 X52.59 Y17.83 E52.92506
G1 X53.62 Y18.38 E52.99334
G1 X55.41 Y19.85 E53.12734
G1 X56.32 Y20.60 E53.19601
G1 X57.18 Y21.65 E53.27497
G1 X58.81 Y21.65 E53.36994
G1 X58.81 Y23.83 E53.49676
G1 X59.60 Y25.29 E53.59323
G1 X60.16 Y26.34 E53.66229
G1 X60.81 Y28.51 E53.79400
G1 X60.81 Y28.51 E53.79406
G1 X61.16 Y29.65 E53.86359
G1 X61.39 Y31.93 E53.99675
G1 X61.51 Y33.12 E54.06573
G1 X61.28 Y35.41 E54.19953
G1 X61.16 Y36.58 E54.26822
G1 X60.50 Y38.78 E54.40171
G1 X60.15 Y39.91 E54.47058
G1 X59.08 Y41.93 E54.60319
G1 X58.81 Y42.42 E54.63549
G1 X58.81 Y44.35 E54.74807
G1 X57.38 Y44.35 E54.83130
G1 X57.06 Y44.75 E54.86087
G1 X56.31 Y45.66 E54.92962
G1 X54.56 Y47.10 E55.06127
G1 X53.64 Y47.85 E55.13064
G1 X51.60 Y48.94 E55.26465
G1 X50.56 Y49.50 E55.33332
G1 X48.37 Y50.16 E55.46605
G1 X48.37 Y50.16 E55.46611
G1 X47.26 Y50.50 E55.53397
G1 X44.97 Y50.73 E55.66748
G1 X43.79 Y50.84 E55.73646
G1 X41.50 Y50.62 E55.87026
G1 X40.32 Y50.50 E55.93913
G1 X38.12 Y49.83 E56.07300
G1 X36.99 Y49.49 E56.14158
G1 X34.98 Y48.41 E56.27388
G1 X33.94 Y47.86 E56.34258
G1 X32.16 Y46.40 E56.47606
G1 X31.25 Y45.65 E56.54510
G1 X29.80 Y43.88 E56.67788
G1 X29.05 Y42.98 E56.74588
G1 X27.97 Y40.95 E56.87930
G1 X27.41 Y39.90 E56.94837
G1 X26.75 Y37.73 E57.08007
G1 X26.75 Y37.73 E57.08013
G1 X26.40 Y36.59 E57.14972
G1 X26.18 Y34.30 E57.28363
G1 X26.06 Y33.13 E57.35192
G1 X26.29 Y30.84 E57.48566
G1 X26.40 Y29.66 E57.55429
G1 X27.07 Y27.46 E57.68778
G1 X27.42 Y26.33 E57.75682
G1 X28.49 Y24.32 E57.88951
G1 X29.05 Y23.28 E57.95800
G0 F12000 X29.44 Y23.54
G1 F600 X30.87 Y21.80 E58.08879
G1 X31.59 Y20.92 E58.15515
G1 X33.32 Y19.50 E58.28528
G1 X34.19 Y18.78 E58.35064
G1 X36.18 Y17.72 E58.48154
G1 X37.18 Y17.18 E58.54779
G1 X39.30 Y16.54 E58.67628
G1 X40.40 Y16.20 E58.74341
G1 X42.64 Y15.98 E58.87428
G1 X43.78 Y15.87 E58.94058
G1 X46.02 Y16.09 E59.07163
G1 X47.15 Y16.20 E59.13763
G1 X49.31 Y16.86 E59.26879
G1 X50.40 Y17.19 E59.33507
G1 X52.37 Y18.24 E59.46472
G1 X53.37 Y18.77 E59.53032
G1 X55.11 Y20.21 E59.66160
G1 X55.99 Y20.93 E59.72763
G1 X56.96 Y22.11 E59.81675
G1 X58.35 Y22.11 E59.89742
G1 X58.35 Y23.95 E60.00396
G1 X59.19 Y25.51 E60.10721
G1 X59.73 Y26.52 E60.17360
G1 X60.37 Y28.65 E60.30275
G1 X60.70 Y29.75 E60.36956
G1 X60.92 Y31.98 E60.50009
G1 X61.04 Y33.12 E60.56638
G1 X60.82 Y35.36 E60.69743
G1 X60.70 Y36.49 E60.76344
G1 X60.05 Y38.65 E60.89430
G1 X59.72 Y39.73 E60.96043
G1 X58.67 Y41.71 E61.09042
G1 X58.35 Y42.30 E61.12945
G1 X58.35 Y43.89 E61.22180
G1 X57.16 Y43.89 E61.29079
G1 X56.70 Y44.45 E61.33312
G1 X55.98 Y45.33 E61.39915
G1 X54.26 Y46.74 E61.52824
G1 X54.26 Y46.74 E61.52830
G1 X53.38 Y47.47 E61.59499
G1 X51.38 Y48.53 E61.72630
G1 X50.38 Y49.06 E61.79229
G1 X48.24 Y49.71 E61.92240
G1 X47.17 Y50.04 E61.98757
G1 X44.92 Y50.26 E62.11845
G1 X43.79 Y50.38 E62.18474
G1 X41.55 Y50.16 E62.31580
G1 X40.41 Y50.04 E62.38197
G1 X38.25 Y49.39 E62.51316
G1 X37.17 Y49.05 E62.57907
G1 X35.20 Y48.00 E62.70875
G1 X34.20 Y47.47 E62.77479
G1 X32.46 Y46.04 E62.90559
G1 X31.58 Y45.31 E62.97194
G1 X30.16 Y43.58 E63.10207
G1 X29.44 Y42.72 E63.16743
G1 X28.38 Y40.73 E63.29833
G1 X27.84 Y39.73 E63.36459
G1 X27.19 Y37.57 E63.49537
G1 X26.86 Y36.50 E63.56060
G1 X26.64 Y34.25 E63.69183
G1 X26.53 Y33.13 E63.75742
G1 X26.75 Y30.88 E63.88848
G1 X26.86 Y29.75 E63.95442
G1 X27.52 Y27.60 E64.08528
G1 X27.85 Y26.51 E64.15160
G1 X28.91 Y24.54 E64.28164
G1 X29.44 Y23.54 E64.34748
G0 F12000 X29.83 Y23.80
G1 F600 X31.23 Y22.09 E64.47555
G1 X31.92 Y21.25 E64.53926
G1 X33.62 Y19.86 E64.66675
G1 X34.45 Y19.17 E64.72947
G1 X36.40 Y18.13 E64.85766
G1 X37.36 Y17.61 E64.92121
G1 X39.44 Y16.99 E65.04715
G1 X39.44 Y16.99 E65.04720
G1 X40.49 Y16.66 E65.11159
G1 X42.69 Y16.45 E65.23978
G1 X43.78 Y16.34 E65.30339
G1 X45.98 Y16.55 E65.43176
G1 X47.06 Y16.66 E65.49513
G1 X49.18 Y17.30 E65.62356
G1 X50.22 Y17.62 E65.68717
G1 X52.14 Y18.65 E65.81331
G1 X53.10 Y19.16 E65.87712
G1 X54.81 Y20.57 E66.00572
G1 X55.66 Y21.26 E66.06910
G1 X56.74 Y22.58 E66.16834
G1 X57.88 Y22.58 E66.23477
G1 X57.88 Y24.06 E66.32103
G1 X58.77 Y25.73 E66.43107
G1 X59.29 Y26.70 E66.49475
G1 X59.92 Y28.78 E66.62129
G1 X59.92 Y28.78 E66.62135
G1 X60.24 Y29.84 E66.68546
G1 X60.46 Y32.03 E66.81331
G1 X60.57 Y33.12 E66.87691
G1 X60.35 Y35.31 E67.00528
G1 X60.24 Y36.40 E67.06865
G1 X59.61 Y38.51 E67.19677
G1 X59.29 Y39.55 E67.26030
G1 X58.26 Y41.49 E67.38760
G1 X57.88 Y42.18 E67.43342
G1 X57.88 Y43.42 E67.50549
G1 X56.94 Y43.42 E67.56019
G1 X56.34 Y44.15 E67.61532
G1 X55.65 Y45.00 E67.67870
G1 X53.95 Y46.39 E67.80606
G1 X53.12 Y47.08 E67.86915
G1 X51.16 Y48.12 E67.99779
G1 X50.20 Y48.63 E68.06113
G1 X48.13 Y49.26 E68.18674
G1 X47.07 Y49.58 E68.25113
G1 X44.88 Y49.80 E68.37932
G1 X43.79 Y49.91 E68.44293
G1 X41.59 Y49.69 E68.57130
G1 X40.50 Y49.58 E68.63484
G1 X38.39 Y48.94 E68.76331
G1 X37.35 Y48.62 E68.82661
G1 X35.42 Y47.59 E68.95358
G1 X34.46 Y47.08 E69.01700
G1 X32.76 Y45.68 E69.14507
G1 X31.91 Y44.98 E69.20878
G1 X30.52 Y43.29 E69.33627
G1 X29.83 Y42.45 E69.39899
G1 X28.79 Y40.51 E69.52718
G1 X28.28 Y39.55 E69.59073
G1 X27.65 Y37.46 E69.71727
G1 X27.64 Y37.46 E69.71733
G1 X27.32 Y36.41 E69.78146
G1 X27.11 Y34.21 E69.91000
G1 X27.00 Y33.13 E69.97296
G1 X27.21 Y30.93 E70.10133
G1 X27.32 Y29.85 E70.16465
G1 X27.96 Y27.74 E70.29277
G1 X28.28 Y26.69 E70.35648
G1 X29.32 Y24.76 E70.48384
G1 X29.83 Y23.80 E70.54705
G0 F12000 X30.22 Y24.06
G1 F600 X31.59 Y22.39 E70.67243
G1 X32.25 Y21.58 E70.73342
G1 X33.91 Y20.22 E70.85827
G1 X34.71 Y19.56 E70.91835
G1 X36.62 Y18.54 E71.04391
G1 X37.54 Y18.05 E71.10476
G1 X39.57 Y17.43 E71.22816
G1 X40.59 Y17.12 E71.28982
G1 X42.73 Y16.91 E71.41532
G1 X43.78 Y16.80 E71.47624
G1 X45.93 Y17.02 E71.60199
G1 X46.97 Y17.12 E71.66261
G1 X49.04 Y17.75 E71.78838
G1 X50.04 Y18.05 E71.84931
G1 X51.93 Y19.06 E71.97368
G1 X52.84 Y19.55 E72.03400
G1 X54.52 Y20.93 E72.15988
G1 X55.33 Y21.59 E72.22057
G1 X56.52 Y23.05 E72.33001
G1 X57.42 Y23.05 E72.38214
G1 X57.42 Y24.18 E72.44805
G1 X58.36 Y25.95 E72.56493
G1 X58.86 Y26.88 E72.62591
G1 X59.48 Y28.92 E72.74991
G1 X59.79 Y29.93 E72.81130
G1 X60.00 Y32.07 E72.93646
G1 X60.10 Y33.12 E72.99738
G1 X59.89 Y35.27 E73.12312
G1 X59.79 Y36.31 E73.18375
G1 X59.16 Y38.37 E73.30920
G1 X58.85 Y39.37 E73.37006
G1 X57.84 Y41.27 E73.49476
G1 X57.42 Y42.06 E73.54737
G1 X57.42 Y42.95 E73.59910
G1 X56.72 Y42.95 E73.63949
G1 X55.98 Y43.86 E73.70742
G1 X55.32 Y44.66 E73.76816
G1 X53.66 Y46.03 E73.89284
G1 X52.85 Y46.69 E73.95329
G1 X50.94 Y47.71 E74.07922
G1 X50.02 Y48.20 E74.13985
G1 X47.97 Y48.82 E74.26468
G1 X46.98 Y49.12 E74.32463
G1 X44.83 Y49.34 E74.45014
G1 X43.79 Y49.44 E74.51106
G1 X41.64 Y49.23 E74.63680
G1 X40.60 Y49.12 E74.69760
G1 X38.52 Y48.50 E74.82340
G1 X37.53 Y48.19 E74.88402
G1 X35.64 Y47.18 E75.00841
G1 X34.72 Y46.69 E75.06913
G1 X33.05 Y45.32 E75.19451
G1 X32.24 Y44.65 E75.25550
G1 X30.88 Y42.99 E75.38035
G1 X30.22 Y42.20 E75.44043
G1 X29.20 Y40.29 E75.56599
G1 X28.71 Y39.37 E75.62684
G1 X28.08 Y37.30 E75.75230
G1 X27.78 Y36.31 E75.81223
G1 X27.57 Y34.16 E75.93809
G1 X27.47 Y33.13 E75.99843
G1 X27.68 Y30.98 E76.12405
G1 X27.78 Y29.94 E76.18468
G1 X28.41 Y27.87 E76.31014
G1 X28.71 Y26.87 E76.37116
G1 X29.73 Y24.98 E76.49587
G1 X30.22 Y24.06 E76.55645
G0 F12000 X30.61 Y24.32
G1 F600 X31.95 Y22.68 E76.67919
G1 X32.58 Y21.91 E76.73749
G1 X34.21 Y20.58 E76.85970
G1 X34.97 Y19.95 E76.91714
G1 X36.84 Y18.95 E77.04000
G1 X37.72 Y18.48 E77.09822
G1 X39.71 Y17.88 E77.21899
G1 X39.71 Y17.88 E77.21905
G1 X40.68 Y17.58 E77.27802
G1 X42.79 Y17.37 E77.40137
G1 X43.78 Y17.27 E77.45908
G1 X45.88 Y17.48 E77.58207
G1 X46.88 Y17.58 E77.64008
G1 X48.90 Y18.19 E77.76310
G1 X49.86 Y18.49 E77.82136
G1 X51.70 Y19.47 E77.94238
G1 X52.59 Y19.94 E78.00078
G1 X54.22 Y21.29 E78.12397
G1 X54.99 Y21.92 E78.18202
G1 X56.30 Y23.51 E78.30161
G1 X56.95 Y23.51 E78.33945
G1 X56.95 Y24.30 E78.38543
G1 X56.96 Y24.31 E78.38625
G1 X57.96 Y26.18 E78.50922
G1 X57.96 Y26.18 E78.50928
G1 X58.43 Y27.06 E78.56724
G1 X59.03 Y29.06 E78.68856
G1 X59.33 Y30.02 E78.74728
G1 X59.53 Y32.12 E78.86975
G1 X59.63 Y33.12 E78.92804
G1 X59.43 Y35.22 E79.05104
G1 X59.33 Y36.22 E79.10904
G1 X58.72 Y38.24 E79.23183
G1 X58.42 Y39.20 E79.29000
G1 X57.43 Y41.05 E79.41203
G1 X56.96 Y41.93 E79.47017
G1 X56.95 Y41.94 E79.47108
G1 X56.95 Y42.49 E79.50293
G1 X56.50 Y42.49 E79.52908
G1 X55.62 Y43.56 E79.60978
G1 X54.98 Y44.33 E79.66783
G1 X53.36 Y45.67 E79.78990
G1 X52.59 Y46.30 E79.84771
G1 X50.72 Y47.30 E79.97091
G1 X49.84 Y47.77 E80.02889
G1 X47.86 Y48.37 E80.14946
G1 X46.89 Y48.67 E80.20843
G1 X44.78 Y48.87 E80.33178
G1 X43.79 Y48.97 E80.38949
G1 X41.68 Y48.77 E80.51248
G1 X40.69 Y48.67 E80.57066
G1 X38.66 Y48.05 E80.69372
G1 X37.71 Y47.76 E80.75167
G1 X35.86 Y46.77 E80.87344
G1 X34.98 Y46.30 E80.93150
G1 X33.35 Y44.96 E81.05424
G1 X32.57 Y44.32 E81.11254
G1 X31.24 Y42.70 E81.23475
G1 X30.61 Y41.93 E81.29218
G1 X29.61 Y40.07 E81.41505
G1 X29.14 Y39.19 E81.47327
G1 X28.53 Y37.17 E81.59599
G1 X28.24 Y36.22 E81.65331
G1 X28.03 Y34.12 E81.77642
G1 X27.93 Y33.13 E81.83413
G1 X28.14 Y31.02 E81.95707
G1 X28.24 Y30.03 E82.01507
G1 X28.85 Y28.01 E82.13786
G1 X29.15 Y27.05 E82.19616
G1 X30.14 Y25.20 E82.31822
G1 X30.61 Y24.32 E82.37615
G0 F12000 X31.00 Y24.58
G1 F600 X32.31 Y22.98 E82.49621
G1 X32.91 Y22.24 E82.55183
G1 X34.51 Y20.94 E82.67138
G1 X35.23 Y20.34 E82.72618
G1 X37.06 Y19.36 E82.84633
G1 X37.90 Y18.91 E82.90190
G1 X39.85 Y18.32 E83.02013
G1 X40.77 Y18.04 E83.07637
G1 X42.84 Y17.84 E83.19703
G1 X43.78 Y17.74 E83.25205
G1 X45.84 Y17.94 E83.37236
G1 X46.79 Y18.04 E83.42767
G1 X48.77 Y18.64 E83.54803
G1 X49.68 Y18.92 E83.60361
G1 X51.48 Y19.88 E83.72205
G1 X52.33 Y20.33 E83.77777
G1 X53.93 Y21.64 E83.89820
G1 X54.66 Y22.25 E83.95361
G1 X55.96 Y23.83 E84.07242
G1 X56.08 Y23.98 E84.08341
G1 X56.48 Y23.98 E84.10695
G1 X56.48 Y24.47 E84.13554
G1 X56.57 Y24.57 E84.14339
G1 X57.54 Y26.39 E84.26328
G1 X57.99 Y27.24 E84.31893
G1 X58.59 Y29.19 E84.43764
G1 X58.59 Y29.19 E84.43769
G1 X58.87 Y30.11 E84.49373
G1 X59.07 Y32.16 E84.61351
G1 X59.16 Y33.12 E84.66912
G1 X58.96 Y35.18 E84.78943
G1 X58.87 Y36.12 E84.84474
G1 X58.27 Y38.10 E84.96486
G1 X57.99 Y39.02 E85.02035
G1 X57.02 Y40.83 E85.13975
G1 X56.57 Y41.67 E85.19527
G1 X56.48 Y41.77 E85.20316
G1 X56.48 Y42.02 E85.21763
G1 X56.28 Y42.02 E85.22954
G1 X55.26 Y43.27 E85.32300
G1 X54.65 Y44.00 E85.37841
G1 X53.08 Y45.30 E85.49710
G1 X53.08 Y45.30 E85.49719
G1 X52.33 Y45.91 E85.55305
G1 X50.51 Y46.88 E85.67355
G1 X49.66 Y47.33 E85.72888
G1 X47.70 Y47.93 E85.84841
G1 X46.80 Y48.21 E85.90313
G1 X44.73 Y48.41 E86.02378
G1 X43.79 Y48.50 E86.07881
G1 X41.73 Y48.30 E86.19911
G1 X40.78 Y48.21 E86.25460
G1 X38.80 Y47.60 E86.37498
G1 X37.89 Y47.33 E86.43025
G1 X36.08 Y46.36 E86.54939
G1 X35.24 Y45.91 E86.60478
G1 X33.64 Y44.60 E86.72484
G1 X32.90 Y43.99 E86.78045
G1 X31.60 Y42.40 E86.90001
G1 X31.00 Y41.67 E86.95480
G1 X30.02 Y39.85 E87.07496
G1 X29.57 Y39.01 E87.13053
G1 X28.98 Y37.05 E87.24924
G1 X28.98 Y37.05 E87.24930
G1 X28.70 Y36.13 E87.30533
G1 X28.50 Y34.07 E87.42576
G1 X28.40 Y33.13 E87.48078
G1 X28.61 Y31.07 E87.60103
G1 X28.70 Y30.12 E87.65634
G1 X29.30 Y28.14 E87.77646
G1 X29.58 Y27.23 E87.83208
G1 X30.55 Y25.42 E87.95151
G1 X31.00 Y24.58 E88.00676
G0 F12000 X31.39 Y24.84
G1 F600 X32.67 Y23.28 E88.12414
G1 X33.24 Y22.57 E88.17707
G1 X34.80 Y21.30 E88.29400
G1 X35.49 Y20.73 E88.34619
G1 X37.28 Y19.77 E88.46364
G1 X38.08 Y19.34 E88.51650
G1 X39.98 Y18.77 E88.63219
G1 X40.86 Y18.50 E88.68569
G1 X42.88 Y18.30 E88.80367
G1 X43.78 Y18.21 E88.85600
G1 X45.79 Y18.41 E88.97363
G1 X46.70 Y18.50 E89.02631
G1 X48.63 Y19.08 E89.14393
G1 X49.50 Y19.35 E89.19683
G1 X51.26 Y20.29 E89.31272
G1 X51.26 Y20.29 E89.31278
G1 X52.07 Y20.72 E89.36588
G1 X53.63 Y22.00 E89.48354
G1 X54.33 Y22.58 E89.53626
G1 X55.60 Y24.13 E89.65251
G1 X55.86 Y24.44 E89.67625
G1 X56.02 Y24.44 E89.68549
G1 X56.02 Y24.64 E89.69671
G1 X56.18 Y24.83 E89.71162
G1 X57.13 Y26.61 E89.82881
G1 X57.56 Y27.42 E89.88175
G1 X58.14 Y29.33 E89.99792
G1 X58.41 Y30.21 E90.05124
G1 X58.61 Y32.21 E90.16833
G1 X58.70 Y33.12 E90.22125
G1 X58.50 Y35.13 E90.33887
G1 X58.41 Y36.03 E90.39156
G1 X57.82 Y37.97 E90.50894
G1 X57.56 Y38.84 E90.56176
G1 X56.61 Y40.61 E90.67856
G1 X56.18 Y41.41 E90.73138
G1 X54.90 Y42.97 E90.84878
G1 X54.32 Y43.67 E90.90151
G1 X52.77 Y44.95 E91.01826
G1 X52.07 Y45.52 E91.07083
G1 X50.29 Y46.47 E91.18856
G1 X49.49 Y46.90 E91.24124
G1 X47.56 Y47.48 E91.35811
G1 X46.70 Y47.75 E91.41021
G1 X44.69 Y47.95 E91.52819
G1 X43.79 Y48.03 E91.58052
G1 X41.77 Y47.84 E91.69814
G1 X40.87 Y47.75 E91.75094
G1 X38.93 Y47.16 E91.86860
G1 X38.07 Y46.89 E91.92126
G1 X36.30 Y45.95 E92.03780
G1 X35.50 Y45.52 E92.09048
G1 X33.94 Y44.24 E92.20785
G1 X33.23 Y43.66 E92.26079
G1 X31.96 Y42.11 E92.37771
G1 X31.39 Y41.41 E92.42990
G1 X30.44 Y39.63 E92.54736
G1 X30.01 Y38.83 E92.60022
G1 X29.42 Y36.90 E92.71760
G1 X29.16 Y36.04 E92.76970
G1 X28.96 Y34.02 E92.88744
G1 X28.87 Y33.13 E92.93983
G1 X29.07 Y31.11 E93.05734
G1 X29.16 Y30.21 E93.11003
G1 X29.75 Y28.28 E93.22741
G1 X30.01 Y27.41 E93.28040
G1 X30.96 Y25.64 E93.39720
G1 X31.39 Y24.84 E93.44976
G0 F12000 X31.77 Y25.10
G1 F600 X33.03 Y23.57 E93.56444
G1 X33.58 Y22.91 E93.61469
G1 X35.10 Y21.66 E93.72896
G1 X35.76 Y21.12 E93.77856
G1 X37.49 Y20.19 E93.89318
G1 X37.49 Y20.18 E93.89323
G1 X38.26 Y19.78 E93.94352
G1 X40.15 Y19.21 E94.05822
G1 X40.95 Y18.96 E94.10742
G1 X42.93 Y18.76 E94.22265
G1 X43.78 Y18.68 E94.27241
G1 X45.75 Y18.87 E94.38730
G1 X46.60 Y18.96 E94.43729
G1 X48.50 Y19.53 E94.55225
G1 X49.32 Y19.78 E94.60246
G1 X51.04 Y20.70 E94.71578
G1 X51.81 Y21.11 E94.76614
G1 X53.34 Y22.36 E94.88111
G1 X54.00 Y22.91 E94.93120
G1 X55.25 Y24.43 E95.04538
G1 X55.25 Y24.43 E95.04546
G1 X55.79 Y25.09 E95.09534
G1 X56.72 Y26.83 E95.20990
G1 X56.72 Y26.83 E95.20999
G1 X57.13 Y27.59 E95.26027
G1 X57.69 Y29.46 E95.37382
G1 X57.70 Y29.46 E95.37387
G1 X57.95 Y30.30 E95.42449
G1 X58.14 Y32.26 E95.53896
G1 X58.23 Y33.12 E95.58919
G1 X58.03 Y35.09 E95.70408
G1 X57.95 Y35.94 E95.75407
G1 X57.38 Y37.83 E95.86884
G1 X57.12 Y38.66 E95.91898
G1 X56.20 Y40.39 E96.03311
G1 X55.79 Y41.15 E96.08327
G1 X54.54 Y42.67 E96.19798
G1 X53.99 Y43.34 E96.24803
G1 X52.48 Y44.59 E96.36218
G1 X51.81 Y45.13 E96.41201
G1 X50.07 Y46.06 E96.52708
G1 X49.31 Y46.47 E96.57710
G1 X47.43 Y47.04 E96.69130
G1 X46.61 Y47.29 E96.74079
G1 X44.64 Y47.48 E96.85602
G1 X43.79 Y47.57 E96.90579
G1 X41.82 Y47.37 E97.02067
G1 X40.96 Y47.29 E97.07084
G1 X39.07 Y46.71 E97.18575
G1 X38.25 Y46.46 E97.23574
G1 X36.52 Y45.54 E97.34966
G1 X35.76 Y45.13 E97.39969
G1 X34.23 Y43.88 E97.51438
G1 X33.57 Y43.33 E97.56462
G1 X32.32 Y41.81 E97.67890
G1 X31.78 Y41.15 E97.72849
G1 X30.85 Y39.41 E97.84311
G1 X30.85 Y39.41 E97.84317
G1 X30.44 Y38.65 E97.89346
G1 X29.87 Y36.78 E98.00700
G1 X29.87 Y36.78 E98.00706
G1 X29.62 Y35.95 E98.05767
G1 X29.43 Y33.98 E98.17267
G1 X29.34 Y33.13 E98.22243
G1 X29.53 Y31.16 E98.33726
G1 X29.62 Y30.30 E98.38725
G1 X30.19 Y28.41 E98.50203
G1 X30.44 Y27.59 E98.55229
G1 X31.37 Y25.86 E98.66644
G1 X31.77 Y25.10 E98.71634
G0 F12000 X32.16 Y25.36
G1 F600 X33.39 Y23.87 E98.82835
G1 X33.91 Y23.24 E98.87591
G1 X35.39 Y22.02 E98.98751
G1 X36.02 Y21.50 E99.03445
G1 X37.71 Y20.60 E99.14642
G1 X37.71 Y20.60 E99.14648
G1 X38.44 Y20.21 E99.19406
G1 X40.26 Y19.66 E99.30464
G1 X41.05 Y19.42 E99.35268
G1 X42.97 Y19.23 E99.46522
G1 X43.78 Y19.15 E99.51229
G1 X45.70 Y19.34 E99.62448
G1 X46.51 Y19.42 E99.67185
G1 X48.36 Y19.98 E99.78407
G1 X49.14 Y20.22 E99.83163
G1 X50.82 Y21.11 E99.94238
G1 X50.82 Y21.11 E99.94243
G1 X51.55 Y21.50 E99.99012
G1 X53.04 Y22.73 E100.10237
G1 X53.67 Y23.24 E100.14981
G1 X54.88 Y24.72 E100.26078
G1 X55.40 Y25.36 E100.30859
G1 X56.31 Y27.05 E100.42040
G1 X56.31 Y27.05 E100.42046
G1 X56.70 Y27.77 E100.46805
G1 X57.25 Y29.60 E100.57899
G1 X57.49 Y30.39 E100.62689
G1 X57.68 Y32.30 E100.73873
G1 X57.76 Y33.12 E100.78627
G1 X57.57 Y35.04 E100.89846
G1 X57.49 Y35.85 E100.94583
G1 X56.93 Y37.70 E101.05786
G1 X56.69 Y38.48 E101.10533
G1 X55.79 Y40.17 E101.21683
G1 X55.40 Y40.89 E101.26428
G1 X54.18 Y42.38 E101.37636
G1 X53.66 Y43.01 E101.42377
G1 X52.18 Y44.23 E101.53527
G1 X51.55 Y44.74 E101.58247
G1 X49.85 Y45.65 E101.69482
G1 X49.13 Y46.03 E101.74217
G1 X47.29 Y46.59 E101.85374
G1 X46.52 Y46.83 E101.90057
G1 X44.59 Y47.02 E102.01311
G1 X43.79 Y47.10 E102.06018
G1 X41.87 Y46.91 E102.17237
G1 X41.05 Y46.83 E102.21986
G1 X39.21 Y46.27 E102.33211
G1 X38.43 Y46.03 E102.37941
G1 X36.74 Y45.13 E102.49070
G1 X36.02 Y44.74 E102.53810
G1 X34.53 Y43.52 E102.65011
G1 X33.90 Y43.00 E102.69768
G1 X32.68 Y41.52 E102.80927
G1 X32.17 Y40.89 E102.85621
G1 X31.26 Y39.19 E102.96818
G1 X31.26 Y39.19 E102.96824
G1 X30.87 Y38.47 E103.01582
G1 X30.31 Y36.63 E103.12785
G1 X30.08 Y35.85 E103.17472
G1 X29.89 Y33.93 E103.28703
G1 X29.81 Y33.13 E103.33410
G1 X30.00 Y31.20 E103.44629
G1 X30.08 Y30.39 E103.49360
G1 X30.64 Y28.55 E103.60563
G1 X30.88 Y27.77 E103.65323
G1 X31.78 Y26.07 E103.76476
G1 X32.16 Y25.36 E103.81203
G0 F12000 X32.55 Y25.62
G1 F600 X33.75 Y24.16 E103.92135
G1 X34.24 Y23.57 E103.96628
G1 X35.69 Y22.38 E104.07518
G1 X36.28 Y21.89 E104.11953
G1 X37.94 Y21.01 E104.22895
G1 X38.62 Y20.64 E104.27370
G1 X40.42 Y20.10 E104.38307
G1 X41.14 Y19.88 E104.42704
G1 X43.01 Y19.69 E104.53642
G1 X43.01 Y19.69 E104.53648
G1 X43.78 Y19.61 E104.58134
G1 X45.66 Y19.80 E104.69084
G1 X46.42 Y19.88 E104.73558
G1 X48.22 Y20.42 E104.84507
G1 X48.96 Y20.65 E104.88995
G1 X50.60 Y21.52 E104.99809
G1 X51.29 Y21.89 E105.04308
G1 X52.74 Y23.09 E105.15264
G1 X53.34 Y23.57 E105.19739
G1 X54.52 Y25.02 E105.30579
G1 X55.01 Y25.61 E105.35088
G1 X55.90 Y27.27 E105.46004
G1 X55.90 Y27.27 E105.46010
G1 X56.26 Y27.95 E105.50498
G1 X56.80 Y29.74 E105.61337
G1 X57.03 Y30.48 E105.65854
G1 X57.21 Y32.35 E105.76769
G1 X57.22 Y32.35 E105.76775
G1 X57.29 Y33.12 E105.81261
G1 X57.11 Y34.99 E105.92211
G1 X57.03 Y35.76 E105.96685
G1 X56.49 Y37.56 E106.07616
G1 X56.26 Y38.30 E106.12102
G1 X55.38 Y39.95 E106.22986
G1 X55.01 Y40.63 E106.27464
G1 X53.82 Y42.08 E106.38399
G1 X53.33 Y42.68 E106.42876
G1 X51.88 Y43.87 E106.53757
G1 X51.29 Y44.35 E106.58213
G1 X49.63 Y45.24 E106.69175
G1 X48.95 Y45.60 E106.73648
G1 X47.16 Y46.15 E106.84538
G1 X46.43 Y46.37 E106.88960
G1 X44.56 Y46.55 E106.99898
G1 X44.56 Y46.55 E106.99904
G1 X43.79 Y46.63 E107.04389
G1 X41.91 Y46.45 E107.15339
G1 X41.15 Y46.37 E107.19819
G1 X39.34 Y45.82 E107.30778
G1 X38.61 Y45.60 E107.35240
G1 X36.96 Y44.72 E107.46111
G1 X36.28 Y44.35 E107.50581
G1 X34.83 Y43.16 E107.61513
G1 X34.23 Y42.67 E107.66005
G1 X33.05 Y41.23 E107.76830
G1 X32.56 Y40.63 E107.81331
G1 X31.67 Y38.97 E107.92273
G1 X31.30 Y38.29 E107.96748
G1 X30.76 Y36.49 E108.07684
G1 X30.54 Y35.76 E108.12110
G1 X30.35 Y33.89 E108.23025
G1 X30.35 Y33.89 E108.23030
G1 X30.28 Y33.12 E108.27522
G1 X30.46 Y31.25 E108.38466
G1 X30.54 Y30.49 E108.42934
G1 X31.08 Y28.69 E108.53865
G1 X31.31 Y27.95 E108.58357
G1 X32.19 Y26.30 E108.69247
G1 X32.55 Y25.62 E108.73709
G0 F12000 X32.94 Y25.88
G1 F600 X34.11 Y24.46 E108.84372
G1 X34.57 Y23.90 E108.88592
G1 X35.97 Y22.75 E108.99161
G1 X36.54 Y22.28 E109.03393
G1 X38.16 Y21.42 E109.14064
G1 X38.80 Y21.07 E109.18282
G1 X40.53 Y20.55 E109.28818
G1 X41.23 Y20.33 E109.33081
G1 X43.06 Y20.15 E109.43792
G1 X43.78 Y20.08 E109.47974
G1 X45.61 Y20.26 E109.58656
G1 X46.33 Y20.33 E109.62855
G1 X48.09 Y20.87 E109.73538
G1 X48.78 Y21.08 E109.77757
G1 X50.39 Y21.94 E109.88361
G1 X50.39 Y21.94 E109.88369
G1 X51.03 Y22.28 E109.92555
G1 X52.45 Y23.45 E110.03239
G1 X53.01 Y23.91 E110.07447
G1 X54.16 Y25.31 E110.18027
G1 X54.62 Y25.88 E110.22268
G1 X55.49 Y27.49 E110.32921
G1 X55.83 Y28.13 E110.37146
G1 X56.36 Y29.87 E110.47719
G1 X56.57 Y30.57 E110.51967
G1 X56.75 Y32.40 E110.62614
G1 X56.82 Y33.12 E110.66837
G1 X56.64 Y34.95 E110.77519
G1 X56.57 Y35.67 E110.81718
G1 X56.04 Y37.42 E110.92388
G1 X55.83 Y38.12 E110.96600
G1 X54.97 Y39.73 E111.07222
G1 X54.62 Y40.37 E111.11435
G1 X53.46 Y41.79 E111.22102
G1 X53.00 Y42.34 E111.26309
G1 X51.59 Y43.50 E111.36877
G1 X51.03 Y43.96 E111.41117
G1 X49.41 Y44.83 E111.51809
G1 X48.77 Y45.17 E111.56016
G1 X47.04 Y45.70 E111.66537
G1 X46.34 Y45.91 E111.70800
G1 X44.50 Y46.09 E111.81511
G1 X43.79 Y46.16 E111.85693
G1 X41.96 Y45.98 E111.96375
G1 X41.24 Y45.91 E112.00586
G1 X39.48 Y45.38 E112.11269
G1 X38.79 Y45.16 E112.15472
G1 X37.18 Y44.30 E112.26073
G1 X36.54 Y43.96 E112.30277
G1 X35.12 Y42.80 E112.40940
G1 X34.56 Y42.34 E112.45161
G1 X33.40 Y40.92 E112.55795
G1 X32.95 Y40.37 E112.59961
G1 X32.08 Y38.75 E112.70633
G1 X31.74 Y38.11 E112.74850
G1 X31.21 Y36.37 E112.85423
G1 X31.00 Y35.67 E112.89672
G1 X30.82 Y33.84 E113.00365
G1 X30.75 Y33.12 E113.04547
G1 X30.93 Y31.30 E113.15223
G1 X31.00 Y30.58 E113.19423
G1 X31.53 Y28.82 E113.30092
G1 X31.74 Y28.13 E113.34317
G1 X32.60 Y26.52 E113.44937
G1 X32.94 Y25.88 E113.49134
G0 F12000 X33.33 Y26.14
G1 F600 X34.47 Y24.75 E113.59533
G1 X34.90 Y24.23 E113.63485
G1 X36.28 Y23.10 E113.73847
G1 X36.80 Y22.67 E113.77757
G1 X38.38 Y21.83 E113.88158
G1 X38.97 Y21.51 E113.92105
G1 X40.67 Y21.00 E114.02386
G1 X40.67 Y21.00 E114.02391
G1 X41.32 Y20.79 E114.06385
G1 X43.11 Y20.62 E114.16816
G1 X43.78 Y20.55 E114.20735
G1 X45.56 Y20.73 E114.31148
G1 X46.24 Y20.79 E114.35085
G1 X47.95 Y21.31 E114.45494
G1 X48.60 Y21.51 E114.49445
G1 X50.17 Y22.35 E114.59786
G1 X50.17 Y22.35 E114.59792
G1 X50.77 Y22.67 E114.63708
G1 X52.15 Y23.80 E114.74123
G1 X52.67 Y24.24 E114.78067
G1 X53.81 Y25.61 E114.88428
G1 X53.80 Y25.61 E114.88434
G1 X54.23 Y26.14 E114.92365
G1 X55.08 Y27.71 E115.02750
G1 X55.40 Y28.31 E115.06705
G1 X55.91 Y30.01 E115.17016
G1 X56.11 Y30.66 E115.20999
G1 X56.29 Y32.44 E115.31376
G1 X56.35 Y33.12 E115.35331
G1 X56.18 Y34.90 E115.45744
G1 X56.11 Y35.58 E115.49681
G1 X55.59 Y37.29 E115.60077
G1 X55.40 Y37.94 E115.64023
G1 X54.56 Y39.51 E115.74379
G1 X54.24 Y40.11 E115.78327
G1 X53.10 Y41.49 E115.88725
G1 X52.67 Y42.01 E115.92664
G1 X51.29 Y43.14 E116.03018
G1 X51.29 Y43.14 E116.03023
G1 X50.77 Y43.57 E116.06954
G1 X49.19 Y44.42 E116.17379
G1 X48.59 Y44.74 E116.21318
G1 X46.90 Y45.25 E116.31581
G1 X46.90 Y45.25 E116.31587
G1 X46.24 Y45.45 E116.35581
G1 X44.46 Y45.63 E116.46011
G1 X43.79 Y45.69 E116.49931
G1 X42.00 Y45.52 E116.60344
G1 X41.33 Y45.45 E116.64287
G1 X39.61 Y44.93 E116.74703
G1 X38.97 Y44.73 E116.78637
G1 X37.40 Y43.89 E116.88976
G1 X36.80 Y43.57 E116.92913
G1 X35.42 Y42.44 E117.03312
G1 X34.89 Y42.01 E117.07264
G1 X33.76 Y40.63 E117.17626
G1 X33.33 Y40.11 E117.21536
G1 X32.49 Y38.53 E117.31937
G1 X32.17 Y37.93 E117.35884
G1 X31.65 Y36.22 E117.46280
G1 X31.45 Y35.58 E117.50178
G1 X31.28 Y33.80 E117.60597
G1 X31.21 Y33.12 E117.64516
G1 X31.39 Y31.34 E117.74924
G1 X31.46 Y30.67 E117.78861
G1 X31.97 Y28.96 E117.89257
G1 X32.17 Y28.31 E117.93213
G1 X33.01 Y26.73 E118.03570
G1 X33.33 Y26.14 E118.07499
G0 F12000 X33.72 Y26.40
G1 F600 X34.83 Y25.05 E118.17630
G1 X35.23 Y24.56 E118.21313
G1 X36.57 Y23.46 E118.31365
G1 X37.06 Y23.06 E118.35052
G1 X38.59 Y22.24 E118.45191
G1 X39.15 Y21.94 E118.48868
G1 X40.80 Y21.44 E118.58894
G1 X41.42 Y21.25 E118.62615
G1 X43.15 Y21.08 E118.72742
G1 X43.15 Y21.08 E118.72748
G1 X43.78 Y21.02 E118.76433
G1 X45.52 Y21.19 E118.86577
G1 X46.15 Y21.25 E118.90245
G1 X47.82 Y21.76 E119.00391
G1 X48.42 Y21.94 E119.04070
G1 X49.95 Y22.76 E119.14110
G1 X50.51 Y23.06 E119.17805
G1 X51.85 Y24.16 E119.27947
G1 X52.34 Y24.57 E119.31622
G1 X53.44 Y25.91 E119.41686
G1 X53.85 Y26.40 E119.45382
G1 X54.67 Y27.93 E119.55502
G1 X54.97 Y28.49 E119.59186
G1 X55.47 Y30.15 E119.69242
G1 X55.47 Y30.15 E119.69248
G1 X55.65 Y30.76 E119.72955
G1 X55.82 Y32.49 E119.83064
G1 X55.82 Y32.49 E119.83070
G1 X55.89 Y33.12 E119.86755
G1 X55.72 Y34.86 E119.96899
G1 X55.65 Y35.48 E120.00567
G1 X55.15 Y37.15 E120.10697
G1 X54.96 Y37.76 E120.14379
G1 X54.15 Y39.29 E120.24468
G1 X53.85 Y39.85 E120.28145
G1 X52.74 Y41.20 E120.38280
G1 X52.34 Y41.68 E120.41954
G1 X51.00 Y42.78 E120.52044
G1 X50.51 Y43.18 E120.55702
G1 X48.97 Y44.01 E120.65856
G1 X48.41 Y44.30 E120.69525
G1 X46.76 Y44.80 E120.79540
G1 X46.15 Y44.99 E120.83261
G1 X44.42 Y45.16 E120.93388
G1 X44.42 Y45.16 E120.93394
G1 X43.79 Y45.23 E120.97079
G1 X42.05 Y45.05 E121.07223
G1 X41.42 Y44.99 E121.10903
G1 X39.75 Y44.48 E121.21047
G1 X39.15 Y44.30 E121.24713
G1 X37.62 Y43.48 E121.34789
G1 X37.06 Y43.19 E121.38460
G1 X35.71 Y42.08 E121.48591
G1 X35.22 Y41.68 E121.52274
G1 X34.13 Y40.34 E121.62326
G1 X33.72 Y39.85 E121.66013
G1 X32.90 Y38.31 E121.76152
G1 X32.60 Y37.75 E121.79829
G1 X32.10 Y36.10 E121.89885
G1 X32.10 Y36.10 E121.89890
G1 X31.91 Y35.49 E121.93597
G1 X31.75 Y33.76 E122.03712
G1 X31.74 Y33.76 E122.03718
G1 X31.68 Y33.12 E122.07403
G1 X31.85 Y31.39 E122.17541
G1 X31.91 Y30.76 E122.21210
G1 X32.42 Y29.09 E122.31339
G1 X32.60 Y28.49 E122.35027
G1 X33.42 Y26.95 E122.45124
G1 X33.72 Y26.40 E122.48785
G0 F12000 X34.11 Y26.66
G1 F600 X35.19 Y25.35 E122.58648
G1 X35.56 Y24.89 E122.62066
G1 X36.87 Y23.82 E122.71900
G1 X37.32 Y23.45 E122.75277
G1 X39.33 Y22.37 E122.88560
G1 X40.94 Y21.89 E122.98325
G1 X41.51 Y21.71 E123.01772
G1 X43.20 Y21.55 E123.11636
G1 X43.78 Y21.49 E123.15053
G1 X45.47 Y21.65 E123.24923
G1 X46.05 Y21.71 E123.28328
G1 X47.68 Y22.20 E123.38202
G1 X48.24 Y22.38 E123.41614
G1 X49.73 Y23.17 E123.51394
G1 X50.25 Y23.45 E123.54818
G1 X51.56 Y24.52 E123.64697
G1 X52.01 Y24.90 E123.68103
G1 X53.08 Y26.20 E123.77902
G1 X53.46 Y26.66 E123.81334
G1 X54.26 Y28.15 E123.91184
G1 X54.53 Y28.67 E123.94600
G1 X55.02 Y30.28 E124.04395
G1 X55.19 Y30.85 E124.07835
G1 X55.36 Y32.53 E124.17682
G1 X55.42 Y33.12 E124.21099
G1 X55.25 Y34.81 E124.30969
G1 X55.19 Y35.39 E124.34374
G1 X54.70 Y37.02 E124.44235
G1 X54.53 Y37.58 E124.47645
G1 X53.73 Y39.07 E124.57477
G1 X53.46 Y39.59 E124.60886
G1 X52.38 Y40.90 E124.70748
G1 X52.01 Y41.35 E124.74154
G1 X50.70 Y42.42 E124.83983
G1 X50.25 Y42.80 E124.87377
G1 X48.75 Y43.60 E124.97255
G1 X48.23 Y43.87 E125.00659
G1 X46.63 Y44.36 E125.10419
G1 X46.63 Y44.36 E125.10424
G1 X46.06 Y44.53 E125.13872
G1 X44.37 Y44.70 E125.23736
G1 X43.79 Y44.76 E125.27153
G1 X42.10 Y44.59 E125.37023
G1 X41.51 Y44.53 E125.40434
G1 X39.89 Y44.04 E125.50309
G1 X39.33 Y43.87 E125.53708
G1 X37.84 Y43.07 E125.63527
G1 X37.32 Y42.80 E125.66928
G1 X36.01 Y41.72 E125.76790
G1 X35.55 Y41.35 E125.80209
G1 X34.48 Y40.04 E125.90042
G1 X34.11 Y39.59 E125.93420
G1 X33.03 Y37.57 E126.06702
G1 X32.54 Y35.95 E126.16558
G1 X32.37 Y35.40 E126.19931
G1 X32.21 Y33.70 E126.29807
G1 X32.15 Y33.12 E126.33201
G1 X32.32 Y31.43 E126.43065
G1 X32.37 Y30.85 E126.46470
G1 X32.87 Y29.23 E126.56331
G1 X33.04 Y28.67 E126.59749
G1 X34.11 Y26.66 E126.72976
G0 F12000 X34.50 Y26.92
G1 F600 X35.55 Y25.64 E126.82570
G1 X35.89 Y25.23 E126.85716
G1 X37.16 Y24.18 E126.95285
G1 X37.58 Y23.84 E126.98403
G1 X39.51 Y22.81 E127.11149
G1 X41.09 Y22.33 E127.20738
G1 X41.60 Y22.17 E127.23834
G1 X43.24 Y22.01 E127.33429
G1 X43.78 Y21.96 E127.36578
G1 X45.43 Y22.12 E127.46179
G1 X45.96 Y22.17 E127.49315
G1 X47.55 Y22.65 E127.58923
G1 X48.06 Y22.81 E127.62066
G1 X49.51 Y23.58 E127.71622
G1 X49.51 Y23.59 E127.71628
G1 X49.99 Y23.84 E127.74748
G1 X51.26 Y24.89 E127.84354
G1 X51.68 Y25.23 E127.87496
G1 X52.72 Y26.50 E127.97032
G1 X53.07 Y26.92 E128.00195
G1 X53.84 Y28.37 E128.09782
G1 X54.10 Y28.85 E128.12925
G1 X54.58 Y30.42 E128.22465
G1 X54.73 Y30.94 E128.25632
G1 X54.90 Y32.58 E128.35210
G1 X54.95 Y33.12 E128.38359
G1 X54.79 Y34.76 E128.47960
G1 X54.73 Y35.30 E128.51097
G1 X54.26 Y36.88 E128.60691
G1 X54.10 Y37.40 E128.63835
G1 X53.32 Y38.85 E128.73401
G1 X53.07 Y39.33 E128.76545
G1 X52.02 Y40.60 E128.86138
G1 X51.68 Y41.02 E128.89280
G1 X50.41 Y42.06 E128.98836
G1 X49.99 Y42.41 E129.01970
G1 X48.53 Y43.19 E129.11583
G1 X48.05 Y43.44 E129.14719
G1 X46.48 Y43.92 E129.24291
G1 X46.48 Y43.92 E129.24297
G1 X45.97 Y44.07 E129.27406
G1 X44.33 Y44.23 E129.37001
G1 X43.79 Y44.29 E129.40149
G1 X42.14 Y44.13 E129.49751
G1 X41.60 Y44.07 E129.52893
G1 X40.02 Y43.59 E129.62502
G1 X39.51 Y43.44 E129.65633
G1 X38.06 Y42.66 E129.75189
G1 X37.58 Y42.41 E129.78325
G1 X36.30 Y41.36 E129.87918
G1 X35.89 Y41.02 E129.91065
G1 X34.84 Y39.74 E130.00633
G1 X34.50 Y39.33 E130.03751
G1 X33.47 Y37.40 E130.16497
G1 X32.99 Y35.82 E130.26086
G1 X32.83 Y35.30 E130.29199
G1 X32.67 Y33.66 E130.38806
G1 X32.62 Y33.12 E130.41931
G1 X32.78 Y31.48 E130.51527
G1 X32.83 Y30.94 E130.54663
G1 X33.31 Y29.36 E130.64257
G1 X33.47 Y28.85 E130.67407
G1 X34.50 Y26.92 E130.80106
G0 F12000 X34.89 Y27.18
G1 F600 X35.91 Y25.94 E130.89427
G1 X36.22 Y25.56 E130.92310
G1 X37.46 Y24.54 E131.01614
G1 X37.84 Y24.23 E131.04468
G1 X39.69 Y23.24 E131.16676
G1 X41.22 Y22.78 E131.25930
G1 X41.69 Y22.63 E131.28831
G1 X43.29 Y22.47 E131.38176
G1 X43.29 Y22.47 E131.38181
G1 X43.78 Y22.42 E131.41044
G1 X45.38 Y22.58 E131.50377
G1 X45.87 Y22.63 E131.53251
G1 X47.41 Y23.09 E131.62584
G1 X47.88 Y23.24 E131.65461
G1 X49.29 Y23.99 E131.74728
G1 X49.73 Y24.23 E131.77612
G1 X50.97 Y25.25 E131.86949
G1 X51.35 Y25.56 E131.89823
G1 X52.37 Y26.80 E131.99127
G1 X52.68 Y27.18 E132.01996
G1 X53.43 Y28.59 E132.11313
G1 X53.67 Y29.03 E132.14194
G1 X54.13 Y30.56 E132.23467
G1 X54.28 Y31.03 E132.26366
G1 X54.43 Y32.63 E132.35693
G1 X54.43 Y32.63 E132.35699
G1 X54.48 Y33.12 E132.38561
G1 X54.33 Y34.72 E132.47894
G1 X54.28 Y35.21 E132.50768
G1 X53.81 Y36.74 E132.60090
G1 X53.67 Y37.22 E132.62971
G1 X52.91 Y38.63 E132.72269
G1 X52.68 Y39.07 E132.75143
G1 X51.66 Y40.31 E132.84472
G1 X51.35 Y40.69 E132.87345
G1 X50.11 Y41.70 E132.96641
G1 X49.73 Y42.02 E132.99511
G1 X48.31 Y42.77 E133.08845
G1 X47.88 Y43.01 E133.11719
G1 X46.34 Y43.47 E133.21024
G1 X45.88 Y43.62 E133.23870
G1 X44.28 Y43.77 E133.33214
G1 X44.28 Y43.77 E133.33220
G1 X43.79 Y43.82 E133.36083
G1 X42.19 Y43.66 E133.45415
G1 X41.70 Y43.62 E133.48295
G1 X40.16 Y43.15 E133.57632
G1 X39.69 Y43.00 E133.60496
G1 X38.28 Y42.25 E133.69787
G1 X37.84 Y42.02 E133.72660
G1 X36.60 Y41.00 E133.81981
G1 X36.22 Y40.69 E133.84863
G1 X35.20 Y39.45 E133.94168
G1 X34.89 Y39.07 E133.97021
G1 X33.90 Y37.22 E134.09230
G1 X33.44 Y35.68 E134.18550
G1 X33.29 Y35.21 E134.21401
G1 X33.13 Y33.61 E134.30734
G1 X33.14 Y33.61 E134.30740
G1 X33.09 Y33.12 E134.33603
G1 X33.24 Y31.53 E134.42930
G1 X33.29 Y31.04 E134.45803
G1 X33.76 Y29.50 E134.55125
G1 X33.90 Y29.02 E134.58012
G1 X34.89 Y27.18 E134.70181
G0 F12000 X35.28 Y27.44
G1 F600 X36.27 Y26.23 E134.79238
G1 X36.55 Y25.89 E134.81852
G1 X37.76 Y24.90 E134.90892
G1 X38.10 Y24.62 E134.93485
G1 X39.87 Y23.67 E135.05153
G1 X41.36 Y23.22 E135.14206
G1 X41.78 Y23.09 E135.16779
G1 X43.34 Y22.94 E135.25837
G1 X43.78 Y22.89 E135.28453
G1 X45.33 Y23.05 E135.37511
G1 X45.78 Y23.09 E135.40117
G1 X47.27 Y23.54 E135.49182
G1 X47.70 Y23.67 E135.51790
G1 X49.07 Y24.40 E135.60800
G1 X49.47 Y24.62 E135.63421
G1 X50.67 Y25.61 E135.72482
G1 X51.02 Y25.89 E135.75087
G1 X52.00 Y27.09 E135.84111
G1 X52.29 Y27.44 E135.86729
G1 X53.02 Y28.81 E135.95778
G1 X53.23 Y29.21 E135.98394
G1 X53.68 Y30.69 E136.07405
G1 X53.82 Y31.12 E136.10036
G1 X53.97 Y32.67 E136.19077
G1 X54.01 Y33.12 E136.21694
G1 X53.86 Y34.67 E136.30752
G1 X53.82 Y35.12 E136.33357
G1 X53.37 Y36.61 E136.42416
G1 X53.23 Y37.04 E136.45023
G1 X52.50 Y38.41 E136.54064
G1 X52.29 Y38.81 E136.56667
G1 X51.30 Y40.01 E136.65728
G1 X51.02 Y40.36 E136.68333
G1 X49.82 Y41.34 E136.77349
G1 X49.47 Y41.63 E136.79967
G1 X48.09 Y42.36 E136.89034
G1 X47.70 Y42.57 E136.91642
G1 X46.21 Y43.02 E137.00680
G1 X46.21 Y43.02 E137.00686
G1 X45.78 Y43.16 E137.03271
G1 X44.23 Y43.31 E137.12330
G1 X43.78 Y43.35 E137.14946
G1 X42.23 Y43.20 E137.24004
G1 X41.79 Y43.16 E137.26615
G1 X40.30 Y42.70 E137.35676
G1 X39.87 Y42.57 E137.38279
G1 X38.50 Y41.84 E137.47313
G1 X38.10 Y41.63 E137.49915
G1 X36.90 Y40.64 E137.58968
G1 X36.55 Y40.35 E137.61581
G1 X35.56 Y39.15 E137.70621
G1 X35.28 Y38.81 E137.73215
G1 X34.33 Y37.04 E137.84882
G1 X33.88 Y35.55 E137.93936
G1 X33.75 Y35.12 E137.96525
G1 X33.60 Y33.57 E138.05589
G1 X33.55 Y33.12 E138.08188
G1 X33.71 Y31.57 E138.17240
G1 X33.75 Y31.13 E138.19846
G1 X34.20 Y29.64 E138.28905
G1 X34.34 Y29.20 E138.31519
G1 X35.28 Y27.44 E138.43153
G0 F12000 X35.67 Y27.70
G1 F600 X36.63 Y26.53 E138.51941
G1 X36.88 Y26.22 E138.54287
G1 X38.05 Y25.26 E138.63042
G1 X38.36 Y25.01 E138.65392
G1 X40.05 Y24.10 E138.76524
G1 X41.50 Y23.67 E138.85311
G1 X41.88 Y23.55 E138.87622
G1 X43.38 Y23.40 E138.96411
G1 X43.78 Y23.36 E138.98759
G1 X45.29 Y23.51 E139.07555
G1 X45.69 Y23.55 E139.09891
G1 X47.14 Y23.99 E139.18684
G1 X47.52 Y24.11 E139.21024
G1 X48.85 Y24.82 E139.29779
G1 X49.21 Y25.01 E139.32130
G1 X50.38 Y25.96 E139.40918
G1 X50.69 Y26.22 E139.43259
G1 X51.64 Y27.39 E139.52019
G1 X51.90 Y27.70 E139.54368
G1 X52.61 Y29.03 E139.63152
G1 X52.80 Y29.39 E139.65497
G1 X53.24 Y30.83 E139.74255
G1 X53.36 Y31.22 E139.76606
G1 X53.51 Y32.72 E139.85384
G1 X53.55 Y33.12 E139.87732
G1 X53.40 Y34.63 E139.96528
G1 X53.36 Y35.03 E139.98864
G1 X52.92 Y36.47 E140.07651
G1 X52.80 Y36.86 E140.09997
G1 X52.09 Y38.19 E140.18768
G1 X51.90 Y38.55 E140.21108
G1 X50.94 Y39.72 E140.29896
G1 X50.69 Y40.03 E140.32238
G1 X49.52 Y40.98 E140.41005
G1 X49.21 Y41.24 E140.43338
G1 X47.87 Y41.95 E140.52135
G1 X47.52 Y42.14 E140.54477
G1 X46.07 Y42.58 E140.63249
G1 X45.69 Y42.70 E140.65572
G1 X44.19 Y42.84 E140.74361
G1 X43.78 Y42.88 E140.76709
G1 X42.28 Y42.74 E140.85505
G1 X41.88 Y42.70 E140.87847
G1 X40.43 Y42.26 E140.96636
G1 X40.05 Y42.14 E140.98976
G1 X38.72 Y41.43 E141.07742
G1 X38.36 Y41.24 E141.10079
G1 X37.19 Y40.28 E141.18863
G1 X36.88 Y40.02 E141.21209
G1 X35.92 Y38.86 E141.29985
G1 X35.67 Y38.55 E141.32313
G1 X34.77 Y36.86 E141.43445
G1 X34.33 Y35.42 E141.52203
G1 X34.21 Y35.03 E141.54554
G1 X34.06 Y33.52 E141.63356
G1 X34.02 Y33.12 E141.65686
G1 X34.17 Y31.62 E141.74476
G1 X34.21 Y31.22 E141.76812
G1 X34.65 Y29.77 E141.85599
G1 X34.77 Y29.39 E141.87945
G1 X35.67 Y27.70 E141.99051
G0 F12000 X36.06 Y27.96
G1 F600 X36.99 Y26.83 E142.07572
G1 X37.21 Y26.55 E142.09649
G1 X38.35 Y25.62 E142.18156
G1 X38.62 Y25.40 E142.20225
G1 X40.23 Y24.54 E142.30819
G1 X41.63 Y24.11 E142.39308
G1 X41.97 Y24.01 E142.41393
G1 X43.43 Y23.86 E142.49914
G1 X43.78 Y23.83 E142.51988
G1 X45.24 Y23.97 E142.60515
G1 X45.60 Y24.01 E142.62588
G1 X47.00 Y24.43 E142.71108
G1 X47.34 Y24.54 E142.73182
G1 X48.63 Y25.23 E142.81677
G1 X48.95 Y25.39 E142.83757
G1 X50.08 Y26.32 E142.92277
G1 X50.35 Y26.55 E142.94349
G1 X51.28 Y27.68 E143.02848
G1 X51.51 Y27.96 E143.04933
G1 X52.20 Y29.25 E143.13446
G1 X52.37 Y29.57 E143.15524
G1 X52.79 Y30.96 E143.24019
G1 X52.90 Y31.31 E143.26104
G1 X53.04 Y32.77 E143.34619
G1 X53.08 Y33.12 E143.36693
G1 X52.93 Y34.58 E143.45220
G1 X52.90 Y34.94 E143.47293
G1 X52.47 Y36.34 E143.55806
G1 X52.37 Y36.68 E143.57886
G1 X51.68 Y37.97 E143.66394
G1 X51.51 Y38.29 E143.68469
G1 X50.58 Y39.42 E143.76988
G1 X50.35 Y39.69 E143.79061
G1 X49.22 Y40.62 E143.87568
G1 X48.95 Y40.85 E143.89637
G1 X47.65 Y41.54 E143.98163
G1 X47.34 Y41.71 E144.00238
G1 X45.94 Y42.13 E144.08723
G1 X45.60 Y42.24 E144.10808
G1 X44.14 Y42.38 E144.19329
G1 X43.78 Y42.42 E144.21403
G1 X42.33 Y42.27 E144.29930
G1 X41.97 Y42.24 E144.32003
G1 X40.57 Y41.81 E144.40525
G1 X40.23 Y41.71 E144.42597
G1 X38.94 Y41.02 E144.51100
G1 X38.62 Y40.85 E144.53170
G1 X37.49 Y39.92 E144.61690
G1 X37.21 Y39.69 E144.63767
G1 X36.28 Y38.56 E144.72275
G1 X36.06 Y38.29 E144.74344
G1 X35.20 Y36.68 E144.84937
G1 X34.77 Y35.28 E144.93456
G1 X34.67 Y34.94 E144.95517
G1 X34.53 Y33.48 E145.04044
G1 X34.49 Y33.12 E145.06112
G1 X34.63 Y31.66 E145.14633
G1 X34.67 Y31.31 E145.16706
G1 X35.09 Y29.91 E145.25220
G1 X35.20 Y29.57 E145.27299
G1 X36.06 Y27.96 E145.37879
G0 F12000 X36.45 Y28.22
G1 F600 X37.35 Y27.12 E145.46131
G1 X37.55 Y26.88 E145.47940
G1 X38.64 Y25.98 E145.56187
G1 X38.88 Y25.79 E145.57987
G1 X40.41 Y24.97 E145.68045
G1 X41.77 Y24.56 E145.76297
G1 X42.06 Y24.47 E145.78091
G1 X43.78 Y24.30 E145.88154
G1 X45.51 Y24.47 E145.98210
G1 X46.87 Y24.88 E146.06463
G1 X47.16 Y24.97 E146.08270
G1 X48.41 Y25.64 E146.16507
G1 X48.69 Y25.79 E146.18320
G1 X49.78 Y26.68 E146.26567
G1 X50.02 Y26.88 E146.28375
G1 X50.92 Y27.98 E146.36618
G1 X51.12 Y28.22 E146.38426
G1 X51.94 Y29.75 E146.48487
G1 X52.35 Y31.10 E146.56715
G1 X52.44 Y31.40 E146.58533
G1 X52.61 Y33.12 E146.68590
G1 X52.44 Y34.84 E146.78647
G1 X52.03 Y36.20 E146.86899
G1 X51.94 Y36.50 E146.88704
G1 X51.12 Y38.02 E146.98754
G1 X50.22 Y39.12 E147.07009
G1 X50.02 Y39.36 E147.08818
G1 X48.93 Y40.26 E147.17052
G1 X48.69 Y40.46 E147.18861
G1 X47.16 Y41.27 E147.28921
G1 X45.80 Y41.69 E147.37169
G1 X45.51 Y41.78 E147.38969
G1 X43.78 Y41.95 E147.49032
G1 X42.06 Y41.78 E147.59088
G1 X40.70 Y41.37 E147.67342
G1 X40.41 Y41.27 E147.69149
G1 X38.88 Y40.46 E147.79191
G1 X37.78 Y39.56 E147.87443
G1 X37.54 Y39.36 E147.89251
G1 X36.64 Y38.27 E147.97499
G1 X36.45 Y38.03 E147.99299
G1 X35.63 Y36.50 E148.09357
G1 X35.22 Y35.14 E148.17609
G1 X35.13 Y34.84 E148.19409
G1 X34.96 Y33.12 E148.29471
G1 X35.13 Y31.40 E148.39522
G1 X35.54 Y30.04 E148.47774
G1 X35.63 Y29.74 E148.49587
G1 X36.45 Y28.22 E148.59632
G0 F12000 X36.84 Y28.48
G1 F600 X37.88 Y27.21 E148.69155
G1 X39.14 Y26.17 E148.78679
G1 X40.59 Y25.40 E148.88196
G1 X41.90 Y25.00 E148.96176
G1 X42.15 Y24.93 E148.97715
G1 X43.78 Y24.77 E149.07240
G1 X45.41 Y24.93 E149.16765
G1 X46.73 Y25.32 E149.24745
G1 X46.98 Y25.40 E149.26284
G1 X48.43 Y26.17 E149.35806
G1 X49.69 Y27.21 E149.45325
G1 X50.73 Y28.48 E149.54852
G1 X51.50 Y29.93 E149.64371
G1 X51.98 Y31.49 E149.73890
G1 X52.14 Y33.12 E149.83409
G1 X51.98 Y34.75 E149.92935
G1 X51.50 Y36.32 E150.02453
G1 X50.73 Y37.77 E150.11973
G1 X49.69 Y39.03 E150.21500
G1 X48.43 Y40.07 E150.31019
G1 X46.98 Y40.84 E150.40538
G1 X45.41 Y41.32 E150.50059
G1 X43.78 Y41.48 E150.59584
G1 X42.15 Y41.32 E150.69109
G1 X40.59 Y40.84 E150.78629
G1 X39.14 Y40.07 E150.88144
G1 X37.88 Y39.03 E150.97667
G1 X36.84 Y37.77 E151.07191
G1 X36.06 Y36.32 E151.16708
G1 X35.59 Y34.75 E151.26232
G1 X35.43 Y33.12 E151.35757
G1 X35.59 Y31.49 E151.45277
G1 X36.06 Y29.92 E151.54801
G1 X36.84 Y28.48 E151.64318
G0 F12000 X37.61 Y29.00
;TYPE:WALL-INNER
G1 F600 X38.43 Y28.01 E151.71773
G1 X38.54 Y27.88 E151.72776
G1 X39.53 Y27.06 E151.80234
G1 X39.66 Y26.95 E151.81250
G1 X40.94 Y26.27 E151.89688
G1 X42.17 Y25.90 E151.97144
G1 X42.34 Y25.84 E151.98142
G1 X43.78 Y25.70 E152.06599
G1 X45.23 Y25.84 E152.15072
G1 X46.46 Y26.21 E152.22488
G1 X46.62 Y26.27 E152.23497
G1 X47.75 Y26.87 E152.30960
G1 X47.91 Y26.95 E152.31987
G1 X48.90 Y27.77 E152.39404
G1 X49.03 Y27.88 E152.40411
G1 X49.84 Y28.87 E152.47870
G1 X49.95 Y29.00 E152.48873
G1 X50.64 Y30.28 E152.57334
G1 X51.01 Y31.51 E152.64777
G1 X51.06 Y31.67 E152.65775
G1 X51.20 Y33.12 E152.74232
G1 X51.06 Y34.57 E152.82706
G1 X50.69 Y35.79 E152.90121
G1 X50.64 Y35.96 E152.91125
G1 X49.95 Y37.24 E152.99599
G1 X49.14 Y38.23 E153.07041
G1 X49.03 Y38.37 E153.08065
G1 X48.04 Y39.18 E153.15499
G1 X47.91 Y39.29 E153.16502
G1 X46.62 Y39.98 E153.24961
G1 X45.40 Y40.35 E153.32413
G1 X45.23 Y40.40 E153.33411
G1 X43.78 Y40.54 E153.41867
G1 X42.34 Y40.40 E153.50330
G1 X41.11 Y40.03 E153.57771
G1 X40.95 Y39.98 E153.58754
G1 X39.66 Y39.29 E153.67228
G1 X38.67 Y38.48 E153.74679
G1 X38.54 Y38.37 E153.75674
G1 X37.73 Y37.38 E153.83132
G1 X37.61 Y37.24 E153.84148
G1 X36.93 Y35.96 E153.92586
G1 X36.56 Y34.73 E154.00042
G1 X36.51 Y34.57 E154.01040
G1 X36.37 Y33.12 E154.09502
G1 X36.51 Y31.67 E154.17970
G1 X36.88 Y30.45 E154.25386
G1 X36.93 Y30.28 E154.26401
G1 X37.61 Y29.00 E154.34852
G0 F12000 X38.39 Y29.51
G1 F600 X37.88 Y30.48 E154.41206
G1 X37.79 Y30.63 E154.42263
G1 X37.47 Y31.68 E154.48632
G1 X37.42 Y31.85 E154.49672
G1 X37.31 Y32.94 E154.55997
G1 X37.29 Y33.12 E154.57055
G1 X37.40 Y34.21 E154.63451
G1 X37.41 Y34.38 E154.64443
G1 X37.73 Y35.42 E154.70774
G1 X37.78 Y35.60 E154.71820
G1 X38.30 Y36.56 E154.78144
G1 X38.38 Y36.72 E154.79236
G1 X39.08 Y37.58 E154.85653
G1 X39.19 Y37.71 E154.86650
G1 X40.03 Y38.40 E154.92986
G1 X40.17 Y38.52 E154.94050
G1 X41.15 Y39.04 E155.00447
G1 X41.30 Y39.12 E155.01451
G1 X42.35 Y39.44 E155.07840
G1 X42.51 Y39.49 E155.08846
G1 X43.61 Y39.60 E155.15246
G1 X43.78 Y39.62 E155.16251
G1 X44.87 Y39.51 E155.22629
G1 X44.94 Y39.50 E155.22990
G1 X45.08 Y39.48 E155.23836
G1 X45.96 Y39.21 E155.29196
G1 X45.98 Y39.21 E155.29283
G1 X46.27 Y39.12 E155.31071
G1 X47.22 Y38.61 E155.37353
G1 X47.39 Y38.52 E155.38424
G1 X48.24 Y37.82 E155.44832
G1 X48.37 Y37.72 E155.45829
G1 X49.06 Y36.87 E155.52181
G1 X49.18 Y36.73 E155.53229
G1 X49.70 Y35.75 E155.59704
G1 X49.78 Y35.59 E155.60725
G1 X50.01 Y34.83 E155.65381
G1 X50.02 Y34.82 E155.65467
G1 X50.15 Y34.38 E155.68117
G1 X50.26 Y33.28 E155.74565
G1 X50.27 Y33.10 E155.75566
G1 X50.19 Y32.26 E155.80490
G1 X50.19 Y32.25 E155.80557
G1 X50.15 Y31.86 E155.82871
G1 X49.85 Y30.88 E155.88823
G1 X49.78 Y30.64 E155.90277
G1 X49.26 Y29.67 E155.96635
G1 X49.18 Y29.52 E155.97638
G1 X48.48 Y28.67 E156.04035
G1 X48.38 Y28.54 E156.05027
G1 X47.53 Y27.84 E156.11412
G1 X47.40 Y27.73 E156.12414
G1 X46.42 Y27.21 E156.18828
G1 X46.28 Y27.13 E156.19798
G1 X45.24 Y26.82 E156.26084
G1 X45.07 Y26.76 E156.27124
G1 X43.96 Y26.65 E156.33624
G1 X43.79 Y26.63 E156.34589
G1 X42.75 Y26.74 E156.40672
G1 X42.71 Y26.73 E156.40940
G1 X42.51 Y26.76 E156.42068
G1 X41.48 Y27.07 E156.48364
G1 X41.30 Y27.12 E156.49423
G1 X40.34 Y27.64 E156.55739
G1 X40.18 Y27.72 E156.56810
G1 X39.33 Y28.42 E156.63218
G1 X39.20 Y28.53 E156.64215
G1 X38.51 Y29.37 E156.70535
G1 X38.39 Y29.51 E156.71603
G0 F12000 X38.78 Y29.77
;TYPE:WALL-OUTER
G1 F600 X38.28 Y30.70 E156.77700
G1 X38.22 Y30.82 E156.78470
G1 X37.92 Y31.82 E156.84571
G1 X37.88 Y31.95 E156.85340
G1 X37.77 Y32.99 E156.91425
G1 X37.76 Y33.12 E156.92196
G1 X37.86 Y34.16 E156.98289
G1 X37.88 Y34.29 E156.99047
G1 X38.18 Y35.30 E157.05134
G1 X38.22 Y35.42 E157.05891
G1 X38.71 Y36.34 E157.11986
G1 X38.77 Y36.47 E157.12781
G1 X39.44 Y37.28 E157.18884
G1 X39.52 Y37.38 E157.19654
G1 X40.34 Y38.05 E157.25747
G1 X40.44 Y38.13 E157.26522
G1 X41.36 Y38.63 E157.32630
G1 X41.48 Y38.69 E157.33382
G1 X42.48 Y38.99 E157.39492
G1 X42.61 Y39.03 E157.40242
G1 X43.65 Y39.13 E157.46356
G1 X43.78 Y39.15 E157.47110
G1 X44.83 Y39.04 E157.53213
G1 X44.97 Y39.02 E157.54035
G1 X45.92 Y38.73 E157.59802
G1 X45.93 Y38.73 E157.59896
G1 X46.09 Y38.69 E157.60850
G1 X47.01 Y38.19 E157.66925
G1 X47.13 Y38.13 E157.67699
G1 X47.94 Y37.46 E157.73814
G1 X48.04 Y37.38 E157.74563
G1 X48.71 Y36.57 E157.80664
G1 X48.79 Y36.47 E157.81431
G1 X49.29 Y35.54 E157.87571
G1 X49.35 Y35.42 E157.88327
G1 X49.62 Y34.51 E157.93858
G1 X49.63 Y34.50 E157.93926
G1 X49.69 Y34.29 E157.95215
G1 X49.80 Y33.24 E158.01341
G1 X49.80 Y33.12 E158.02074
G1 X49.71 Y32.16 E158.07688
G1 X49.71 Y32.14 E158.07760
G1 X49.69 Y31.95 E158.08912
G1 X49.35 Y30.82 E158.15783
G1 X48.85 Y29.89 E158.21883
G1 X48.79 Y29.78 E158.22627
G1 X48.12 Y28.96 E158.28742
G1 X48.05 Y28.86 E158.29482
G1 X47.23 Y28.20 E158.35582
G1 X47.13 Y28.11 E158.36349
G1 X46.20 Y27.62 E158.42467
G1 X46.10 Y27.56 E158.43172
G1 X45.09 Y27.26 E158.49251
G1 X44.97 Y27.21 E158.50044
G1 X43.92 Y27.11 E158.56175
G1 X43.79 Y27.10 E158.56900
G1 X42.76 Y27.21 E158.62959
G1 X42.72 Y27.20 E158.63192
G1 X42.61 Y27.21 E158.63823
G1 X41.61 Y27.52 E158.69905
G1 X41.48 Y27.56 E158.70674
G1 X40.56 Y28.05 E158.76762
G1 X40.44 Y28.11 E158.77536
G1 X39.63 Y28.78 E158.83651
G1 X39.52 Y28.86 E158.84400
G1 X38.86 Y29.67 E158.90489
G1 X38.78 Y29.77 E158.91264
G0 F12000 X38.48 Y29.62
G0 X37.51 Y28.92
G0 X37.22 Y28.74
G1 F600 X38.21 Y27.55 E159.00267
G1 X39.40 Y26.56 E159.09269
G1 X40.77 Y25.83 E159.18240
G1 X42.04 Y25.45 E159.25957
G1 X42.24 Y25.39 E159.27228
G1 X43.78 Y25.23 E159.36216
G1 X45.33 Y25.39 E159.45216
G1 X46.59 Y25.77 E159.52917
G1 X46.80 Y25.84 E159.54200
G1 X48.16 Y26.56 E159.63168
G1 X49.36 Y27.55 E159.72166
G1 X50.34 Y28.74 E159.81143
G1 X51.07 Y30.11 E159.90164
G1 X51.52 Y31.58 E159.99122
G1 X51.67 Y33.12 E160.08110
G1 X51.52 Y34.66 E160.17116
G1 X51.07 Y36.14 E160.26074
G1 X50.34 Y37.51 E160.35094
G1 X49.36 Y38.70 E160.44072
G1 X48.17 Y39.68 E160.53041
G1 X46.80 Y40.41 E160.62058
G1 X45.32 Y40.86 E160.71031
G1 X43.78 Y41.01 E160.80019
G1 X42.24 Y40.86 E160.89008
G1 X40.77 Y40.41 E160.97980
G1 X39.40 Y39.68 E161.06992
G1 X38.21 Y38.70 E161.15966
G1 X37.22 Y37.50 E161.24968
G1 X36.50 Y36.14 E161.33939
G1 X36.05 Y34.66 E161.42921
G1 X35.90 Y33.12 E161.51927
G1 X36.05 Y31.58 E161.60916
G1 X36.50 Y30.10 E161.69898
G1 X37.22 Y28.74 E161.78869
G0 F12000 X37.86 Y28.96
;TYPE:FILL
G1 F600 X38.43 Y29.20 E161.82341
G1 X38.30 Y28.42 E161.85827
G1 X39.03 Y28.49 E161.89308
G1 X38.95 Y27.75 E161.92772
G1 X39.73 Y27.87 E161.96233
G1 X39.68 Y27.16 E161.99687
G1 X40.53 Y27.35 E162.03318
G1 X40.52 Y26.68 E162.06928
G1 X41.42 Y26.92 E162.10539
G1 X41.44 Y26.29 E162.14447
G1 X42.45 Y26.63 E162.18352
G1 X42.49 Y26.01 E162.22579
G1 X43.35 Y26.21 E162.27078
G1 X43.95 Y26.48 E162.30897
G0 F12000 X44.01 Y25.89
G1 F600 X44.68 Y26.55 E162.36347
G0 F12000 X44.74 Y25.96
G1 F600 X45.51 Y26.73 E162.42647
G0 F12000 X45.56 Y26.11
G1 F600 X46.51 Y27.07 E162.50464
G0 F12000 X46.50 Y26.40
G1 F600 X50.50 Y30.40 E162.83376
G0 F12000 X49.83 Y30.39
G1 F600 X50.79 Y31.35 E162.91234
G0 F12000 X50.18 Y31.40
G1 F600 X50.94 Y32.16 E162.97497
G0 F12000 X50.35 Y32.23
G1 F600 X51.01 Y32.89 E163.02934
G0 F12000 X50.42 Y32.95
G1 F600 X50.97 Y33.83 E163.07678
G1 X50.36 Y33.89 E163.12163
G1 X50.77 Y34.95 E163.16401
G1 X50.14 Y34.98 E163.20305
G1 X50.44 Y35.94 E163.24271
G1 X49.78 Y35.94 E163.27915
G1 X50.00 Y36.81 E163.31531
G1 X49.31 Y36.79 E163.35153
G1 X49.45 Y37.59 E163.38638
G1 X48.73 Y37.53 E163.42113
G1 X48.84 Y38.29 E163.45580
G1 X48.06 Y38.18 E163.49055
G1 X48.12 Y38.90 E163.52515
G1 X47.31 Y38.74 E163.55982
G1 X47.32 Y39.41 E163.59596
G1 X46.45 Y39.20 E163.63206
G1 X46.44 Y39.85 E163.66936
G1 X45.46 Y39.53 E163.70873
G1 X45.44 Y40.16 E163.74810
G1 X44.34 Y39.72 E163.79283
G1 X44.28 Y40.33 E163.83754
G1 X43.36 Y39.74 E163.90102
G0 F12000 X43.29 Y40.33
G1 F600 X42.63 Y39.67 E163.95543
G0 F12000 X42.56 Y40.26
G1 F600 X41.73 Y39.42 E164.02398
G0 F12000 X41.67 Y40.03
G1 F600 X40.56 Y38.91 E164.11588
G0 F12000 X40.59 Y39.60
G1 F600 X37.30 Y36.31 E164.38635
G0 F12000 X38.00 Y36.35
G1 F600 X36.88 Y35.23 E164.47857
G0 F12000 X37.48 Y35.17
G1 F600 X36.65 Y34.34 E164.54708
G0 F12000 X37.24 Y34.27
G1 F600 X36.58 Y33.61 E164.60162
G0 F12000 X37.17 Y33.54
G1 F600 X36.58 Y32.62 E164.65249
G1 X37.18 Y32.57 E164.69728
G1 X36.74 Y31.47 E164.74205
G1 X37.37 Y31.44 E164.78130
G1 X37.05 Y30.46 E164.82064
G1 X37.71 Y30.46 E164.85819
G1 X37.49 Y29.58 E164.89450
G1 X38.05 Y29.81 E164.92948
G0 F12000 X40.35 Y27.67
G0 X42.75 Y26.77
G0 X45.23 Y26.85
G0 X48.00 Y27.24
G1 F600 X49.66 Y28.91 E165.06622
G1 F2400 E163.86622
G0 F12000 X48.05 Y30.23
;TYPE:SUPPORT
G1 F2400 E165.06622
G1 F600 X48.05 Y36.01 E165.40216
G0 F12000 X47.12 Y37.02
G1 F600 X47.12 Y29.22 E165.85563
G0 F12000 X46.18 Y28.59
G1 F600 X46.18 Y37.66 E166.38274
G0 F12000 X45.25 Y38.03
G1 F600 X45.25 Y28.21 E166.95367
G0 F12000 X44.32 Y28.02
G1 F600 X44.32 Y38.23 E167.54687
G0 F12000 X43.38 Y38.24
G1 F600 X43.38 Y33.34 E167.83161
G0 F12000 X43.38 Y32.77
G1 F600 X43.38 Y28.01 E168.10804
G0 F12000 X42.45 Y28.16
G1 F600 X42.45 Y38.08 E168.68426
G0 F12000 X41.52 Y37.73
G1 F600 X41.52 Y28.52 E169.21974
G0 F12000 X40.59 Y29.11
G1 F600 X40.59 Y37.13 E169.68605
G0 F12000 X39.65 Y36.17
G1 F600 X39.65 Y30.07 E170.04065
G0 F12000 X39.78 Y30.18
G0 X38.89 Y32.22
G0 X38.72 Y32.20
G1 F600 X38.72 Y34.04 E170.14748
;LAYER:1
G0 F12000 X37.32 Y34.12 Z0.40
;TYPE:WALL-INNER
G1 F600 X37.35 Y34.39 E170.15271
G1 X37.64 Y35.36 E170.17228
G1 X37.72 Y35.62 E170.17754
G1 X38.20 Y36.51 E170.19710
G1 X38.32 Y36.76 E170.20255
G1 X38.97 Y37.55 E170.22238
G1 X39.14 Y37.76 E170.22762
G1 X39.93 Y38.40 E170.24721
G1 X40.13 Y38.58 E170.25247
G1 X41.03 Y39.05 E170.27214
G1 X41.27 Y39.18 E170.27739
G1 X42.24 Y39.48 E170.29702
G1 X42.50 Y39.56 E170.30228
G1 X43.52 Y39.66 E170.32223
G1 X43.78 Y39.68 E170.32730
G1 X44.83 Y39.58 E170.34762
G1 X45.09 Y39.54 E170.35277
G1 X45.83 Y39.32 E170.36768
G1 X45.85 Y39.32 E170.36811
G1 X46.30 Y39.18 E170.37715
G1 X47.20 Y38.70 E170.39696
G1 X47.43 Y38.58 E170.40198
G1 X48.22 Y37.93 E170.42186
G1 X48.42 Y37.76 E170.42695
G1 X49.06 Y36.98 E170.44648
G1 X49.24 Y36.77 E170.45177
G1 X49.73 Y35.84 E170.47225
G1 X49.85 Y35.60 E170.47737
G1 X50.01 Y35.05 E170.48850
G1 X50.03 Y35.04 E170.48890
G1 X50.22 Y34.39 E170.50206
G1 X50.32 Y33.35 E170.52226
G1 X50.33 Y33.09 E170.52729
G1 X50.27 Y32.50 E170.53889
G1 X50.28 Y32.48 E170.53921
G1 X50.22 Y31.84 E170.55172
G1 X49.94 Y30.92 E170.57026
G1 X49.84 Y30.61 E170.57669
G1 X49.37 Y29.72 E170.59613
G1 X49.24 Y29.48 E170.60137
G1 X48.59 Y28.69 E170.62130
G1 X48.43 Y28.49 E170.62631
G1 X47.65 Y27.85 E170.64578
G1 X47.44 Y27.67 E170.65118
G1 X46.53 Y27.19 E170.67113
G1 X46.11 Y26.96 E170.68032
G1 X45.97 Y26.97 E170.68302
G1 X45.35 Y26.78 E170.69558
G1 X45.10 Y26.69 E170.70078
G1 X44.05 Y26.59 E170.72126
G1 X43.54 Y26.54 E170.73114
G1 X43.42 Y26.61 E170.73390
G1 X42.86 Y26.66 E170.74482
G1 X42.80 Y26.66 E170.74598
G1 X42.50 Y26.69 E170.75167
G1 X41.53 Y26.98 E170.77130
G1 X41.27 Y27.06 E170.77655
G1 X40.42 Y27.52 E170.79541
G1 X40.14 Y27.67 E170.80150
G1 X39.35 Y28.32 E170.82129
G1 X39.15 Y28.48 E170.82639
G1 X38.51 Y29.27 E170.84601
G1 X38.33 Y29.47 E170.85125
G1 X37.85 Y30.37 E170.87093
G1 X37.72 Y30.61 E170.87618
G1 X37.43 Y31.59 E170.89599
G1 X37.35 Y31.84 E170.90116
G1 X37.25 Y32.85 E170.92074
G1 X37.22 Y33.12 E170.92600
G1 X37.32 Y34.12 E170.94561
G0 F12000 X36.97 Y34.48
G1 F600 X36.85 Y33.34 E170.96764
G1 X36.83 Y33.12 E170.97205
G1 X36.94 Y31.99 E170.99397
G1 X36.97 Y31.77 E170.99835
G1 X37.30 Y30.68 E171.02039
G1 X37.36 Y30.47 E171.02469
G1 X37.90 Y29.46 E171.04685
G1 X38.00 Y29.26 E171.05109
G1 X38.87 Y28.21 E171.07757
G1 X39.92 Y27.34 E171.10396
G1 X40.93 Y26.80 E171.12606
G1 X41.12 Y26.70 E171.13035
G1 X42.21 Y26.37 E171.15244
G1 X42.43 Y26.30 E171.15682
G1 X43.56 Y26.19 E171.17885
G1 X43.79 Y26.17 E171.18324
G1 X44.91 Y26.28 E171.20519
G1 X45.14 Y26.30 E171.20956
G1 X46.23 Y26.63 E171.23164
G1 X46.44 Y26.70 E171.23589
G1 X47.65 Y27.34 E171.26248
G1 X48.70 Y28.21 E171.28878
G1 X49.56 Y29.26 E171.31515
G1 X50.10 Y30.27 E171.33728
G1 X50.21 Y30.46 E171.34160
G1 X50.54 Y31.55 E171.36368
G1 X50.60 Y31.77 E171.36806
G1 X50.71 Y32.90 E171.39007
G1 X50.74 Y33.12 E171.39446
G1 X50.62 Y34.25 E171.41642
G1 X50.60 Y34.48 E171.42080
G1 X50.27 Y35.57 E171.44284
G1 X50.21 Y35.78 E171.44718
G1 X49.67 Y36.79 E171.46923
G1 X49.57 Y36.98 E171.47359
G1 X48.70 Y38.04 E171.50003
G1 X47.65 Y38.90 E171.52636
G1 X46.64 Y39.44 E171.54847
G1 X46.44 Y39.55 E171.55285
G1 X45.35 Y39.88 E171.57490
G1 X45.14 Y39.94 E171.57925
G1 X44.01 Y40.05 E171.60131
G1 X43.78 Y40.08 E171.60569
G1 X42.65 Y39.96 E171.62765
G1 X42.43 Y39.94 E171.63200
G1 X41.34 Y39.61 E171.65410
G1 X41.13 Y39.55 E171.65840
G1 X40.12 Y39.01 E171.68053
G1 X39.93 Y38.91 E171.68475
G1 X38.87 Y38.04 E171.71123
G1 X38.01 Y36.98 E171.73762
G1 X37.47 Y35.98 E171.75972
G1 X37.36 Y35.78 E171.76404
G1 X37.03 Y34.69 E171.78612
G1 X36.97 Y34.48 E171.79050
G0 F12000 X36.51 Y34.57
G1 F600 X36.39 Y33.39 E171.81353
G1 X36.36 Y33.12 E171.81871
G1 X36.48 Y31.94 E171.84170
G1 X36.51 Y31.68 E171.84688
G1 X36.85 Y30.54 E171.86985
G1 X36.93 Y30.29 E171.87502
G1 X37.49 Y29.24 E171.89804
G1 X37.62 Y29.00 E171.90336
G1 X38.54 Y27.88 E171.93147
G1 X39.66 Y26.95 E171.95958
G1 X40.71 Y26.39 E171.98263
G1 X40.95 Y26.27 E171.98786
G1 X42.08 Y25.92 E172.01077
G1 X42.33 Y25.85 E172.01594
G1 X43.52 Y25.73 E172.03897
G1 X43.78 Y25.70 E172.04415
G1 X44.96 Y25.82 E172.06716
G1 X45.23 Y25.84 E172.07230
G1 X46.37 Y26.19 E172.09532
G1 X46.62 Y26.27 E172.10046
G1 X47.91 Y26.95 E172.12875
G1 X49.03 Y27.88 E172.15691
G1 X49.95 Y29.00 E172.18509
G1 X50.51 Y30.05 E172.20807
G1 X50.64 Y30.29 E172.21332
G1 X50.98 Y31.42 E172.23623
G1 X51.06 Y31.67 E172.24140
G1 X51.18 Y32.85 E172.26441
G1 X51.20 Y33.12 E172.26959
G1 X51.09 Y34.30 E172.29260
G1 X51.06 Y34.57 E172.29778
G1 X50.72 Y35.70 E172.32075
G1 X50.64 Y35.96 E172.32591
G1 X50.08 Y37.01 E172.34893
G1 X49.95 Y37.24 E172.35418
G1 X49.03 Y38.37 E172.38237
G1 X47.91 Y39.29 E172.41052
G1 X46.62 Y39.98 E172.43872
G1 X45.49 Y40.32 E172.46168
G1 X45.23 Y40.40 E172.46683
G1 X44.05 Y40.52 E172.48986
G1 X43.79 Y40.54 E172.49504
G1 X42.60 Y40.43 E172.51805
G1 X42.34 Y40.40 E172.52319
G1 X41.20 Y40.06 E172.54621
G1 X40.95 Y39.98 E172.55135
G1 X39.90 Y39.42 E172.57441
G1 X39.66 Y39.29 E172.57969
G1 X38.54 Y38.37 E172.60780
G1 X37.62 Y37.25 E172.63591
G1 X37.06 Y36.20 E172.65896
G1 X36.93 Y35.96 E172.66421
G1 X36.59 Y34.83 E172.68712
G1 X36.51 Y34.57 E172.69228
G0 F12000 X37.81 Y34.30
G1 F600 X38.09 Y35.23 E172.71104
G1 X38.15 Y35.44 E172.71534
G1 X38.61 Y36.30 E172.73409
G1 X38.72 Y36.50 E172.73859
G1 X39.34 Y37.26 E172.75751
G1 X39.48 Y37.43 E172.76180
G1 X40.23 Y38.04 E172.78058
G1 X40.40 Y38.19 E172.78492
G1 X41.25 Y38.64 E172.80373
G1 X41.45 Y38.75 E172.80805
G1 X42.38 Y39.03 E172.82685
G1 X42.59 Y39.10 E172.83118
G1 X43.57 Y39.19 E172.85018
G1 X43.78 Y39.21 E172.85436
G1 X44.77 Y39.12 E172.87358
G1 X44.99 Y39.09 E172.87785
G1 X45.78 Y38.84 E172.89381
G1 X45.80 Y38.85 E172.89423
G1 X46.12 Y38.75 E172.90067
G1 X46.97 Y38.29 E172.91943
G1 X47.17 Y38.19 E172.92375
G1 X47.92 Y37.57 E172.94261
G1 X48.09 Y37.43 E172.94691
G1 X48.70 Y36.68 E172.96564
G1 X48.85 Y36.51 E172.97000
G1 X49.32 Y35.63 E172.98932
G1 X49.41 Y35.43 E172.99354
G1 X49.61 Y34.76 E173.00722
G1 X49.63 Y34.75 E173.00757
G1 X49.76 Y34.30 E173.01662
G1 X49.86 Y33.32 E173.03575
G1 X49.87 Y33.10 E173.03988
G1 X49.80 Y32.38 E173.05388
G1 X49.80 Y32.37 E173.05416
G1 X49.76 Y31.93 E173.06273
G1 X49.49 Y31.06 E173.08041
G1 X49.41 Y30.79 E173.08592
G1 X48.95 Y29.93 E173.10477
G1 X48.85 Y29.74 E173.10889
G1 X48.23 Y28.99 E173.12777
G1 X48.09 Y28.82 E173.13204
G1 X47.35 Y28.21 E173.15074
G1 X47.17 Y28.06 E173.15517
G1 X46.31 Y27.60 E173.17416
G1 X46.01 Y27.44 E173.18075
G1 X45.92 Y27.44 E173.18248
G1 X45.20 Y27.23 E173.19713
G1 X44.99 Y27.15 E173.20131
G1 X44.00 Y27.05 E173.22062
G1 X43.64 Y27.01 E173.22763
G1 X43.56 Y27.06 E173.22939
G1 X42.86 Y27.13 E173.24301
G1 X42.81 Y27.13 E173.24412
G1 X42.59 Y27.15 E173.24825
G1 X41.66 Y27.43 E173.26714
G1 X41.45 Y27.49 E173.27135
G1 X40.62 Y27.94 E173.28971
G1 X40.40 Y28.06 E173.29452
G1 X39.65 Y28.67 E173.31333
G1 X39.48 Y28.81 E173.31762
G1 X38.86 Y29.57 E173.33643
G1 X38.72 Y29.73 E173.34074
G1 X38.26 Y30.59 E173.35958
G1 X38.16 Y30.79 E173.36390
G1 X37.87 Y31.72 E173.38280
G1 X37.81 Y31.93 E173.38708
G1 X37.72 Y32.90 E173.40584
G1 X37.69 Y33.12 E173.41017
G1 X37.79 Y34.09 E173.42909
G1 X37.81 Y34.30 E173.43324
G0 F12000 X38.27 Y34.22
;TYPE:WALL-OUTER
G1 F600 X38.54 Y35.10 E173.45118
G1 X38.59 Y35.27 E173.45451
G1 X39.02 Y36.08 E173.47248
G1 X39.11 Y36.25 E173.47601
G1 X39.70 Y36.96 E173.49401
G1 X39.81 Y37.10 E173.49738
G1 X40.52 Y37.69 E173.51535
G1 X40.66 Y37.80 E173.51874
G1 X41.48 Y38.23 E173.53670
G1 X41.63 Y38.32 E173.54009
G1 X42.52 Y38.59 E173.55806
G1 X42.69 Y38.64 E173.56144
G1 X43.78 Y38.75 E173.58283
G1 X44.71 Y38.65 E173.60092
G1 X44.88 Y38.63 E173.60429
G1 X45.73 Y38.37 E173.62132
G1 X45.75 Y38.38 E173.62176
G1 X45.94 Y38.32 E173.62557
G1 X46.75 Y37.88 E173.64351
G1 X46.91 Y37.80 E173.64690
G1 X47.62 Y37.21 E173.66488
G1 X47.76 Y37.10 E173.66825
G1 X48.35 Y36.38 E173.68622
G1 X48.46 Y36.25 E173.68962
G1 X48.90 Y35.42 E173.70775
G1 X48.97 Y35.27 E173.71109
G1 X49.22 Y34.46 E173.72735
G1 X49.23 Y34.45 E173.72765
G1 X49.30 Y34.21 E173.73256
G1 X49.39 Y33.28 E173.75062
G1 X49.40 Y33.12 E173.75386
G1 X49.32 Y32.28 E173.77022
G1 X49.32 Y32.26 E173.77051
G1 X49.30 Y32.02 E173.77515
G1 X49.05 Y31.20 E173.79191
G1 X48.98 Y30.97 E173.79656
G1 X48.54 Y30.15 E173.81455
G1 X48.46 Y30.00 E173.81782
G1 X47.87 Y29.28 E173.83586
G1 X47.76 Y29.15 E173.83915
G1 X47.05 Y28.56 E173.85708
G1 X46.91 Y28.45 E173.86054
G1 X46.09 Y28.01 E173.87857
G1 X45.91 Y27.91 E173.88256
G1 X45.87 Y27.91 E173.88332
G1 X45.05 Y27.67 E173.89997
G1 X44.89 Y27.61 E173.90322
G1 X43.96 Y27.52 E173.92130
G1 X43.74 Y27.49 E173.92549
G1 X43.71 Y27.51 E173.92626
G1 X42.88 Y27.60 E173.94245
G1 X42.82 Y27.59 E173.94364
G1 X42.69 Y27.61 E173.94619
G1 X41.80 Y27.88 E173.96419
G1 X41.63 Y27.93 E173.96755
G1 X40.83 Y28.36 E173.98525
G1 X40.66 Y28.45 E173.98892
G1 X39.94 Y29.04 E174.00688
G1 X39.81 Y29.14 E174.01026
G1 X39.22 Y29.86 E174.02825
G1 X39.11 Y30.00 E174.03161
G1 X38.67 Y30.82 E174.04960
G1 X38.59 Y30.97 E174.05299
G1 X38.27 Y32.03 E174.07437
G1 X38.18 Y32.95 E174.09230
G1 X38.16 Y33.12 E174.09569
G1 X38.25 Y34.04 E174.11364
G1 X38.27 Y34.22 E174.11700
G0 F12000 X37.94 Y34.24
G0 X36.38 Y34.60
G0 X36.05 Y34.66
G1 F600 X35.90 Y33.12 E174.14702
G1 X36.05 Y31.58 E174.17698
G1 X36.49 Y30.11 E174.20684
G1 X37.23 Y28.74 E174.23692
G1 X38.21 Y27.55 E174.26683
G1 X39.40 Y26.57 E174.29674
G1 X40.77 Y25.83 E174.32679
G1 X42.24 Y25.39 E174.35670
G1 X43.78 Y25.23 E174.38666
G1 X45.32 Y25.39 E174.41662
G1 X46.80 Y25.83 E174.44652
G1 X48.17 Y26.57 E174.47659
G1 X49.36 Y27.55 E174.50649
G1 X50.34 Y28.74 E174.53641
G1 X51.07 Y30.11 E174.56648
G1 X51.52 Y31.58 E174.59634
G1 X51.67 Y33.12 E174.62630
G1 X51.52 Y34.66 E174.65632
G1 X51.07 Y36.14 E174.68618
G1 X50.34 Y37.51 E174.71625
G1 X49.36 Y38.70 E174.74617
G1 X48.17 Y39.68 E174.77607
G1 X46.80 Y40.41 E174.80613
G1 X45.32 Y40.86 E174.83604
G1 X43.78 Y41.01 E174.86600
G1 X42.24 Y40.86 E174.89596
G1 X40.77 Y40.41 E174.92587
G1 X39.40 Y39.68 E174.95591
G1 X38.21 Y38.70 E174.98582
G1 X37.23 Y37.51 E175.01573
G1 X36.49 Y36.14 E175.04581
G1 X36.05 Y34.66 E175.07567
G0 F12000 X37.10 Y34.33
G1 F2400 E173.87567
G0 F12000 X39.65 Y35.43
;TYPE:SUPPORT
G1 F2400 E175.07567
G1 F600 X39.65 Y30.82 E175.16504
G0 F12000 X39.80 Y30.89
G0 X40.69 Y29.76
G0 X40.59 Y29.62
G1 F600 X40.59 Y36.62 E175.30054
G0 F12000 X41.52 Y37.28
G1 F600 X41.52 Y28.97 E175.46154
G0 F12000 X42.45 Y28.58
G1 F600 X42.45 Y37.66 E175.63752
G0 F12000 X43.38 Y37.84
G1 F600 X43.38 Y33.34 E175.72466
G0 F12000 X43.38 Y32.77
G1 F600 X43.38 Y28.41 E175.80899
G0 F12000 X44.32 Y28.42
G1 F600 X44.32 Y37.83 E175.99123
G0 F12000 X45.25 Y37.62
G1 F600 X45.25 Y28.63 E176.16530
G0 F12000 X46.18 Y29.04
G1 F600 X46.18 Y37.21 E176.32357
G0 F12000 X47.12 Y36.51
G1 F600 X47.12 Y29.74 E176.45481
G0 F12000 X47.01 Y29.87
G0 X47.90 Y31.14
G0 X48.05 Y31.06
G1 F600 X48.05 Y35.18 E176.53459
;LAYER:2
G0 F12000 X49.34 Y35.73 Z0.50
;TYPE:WALL-INNER
G1 F600 X49.48 Y35.45 E176.54054
G1 X49.61 Y34.99 E176.54979
G1 X49.63 Y34.98 E176.55020
G1 X49.83 Y34.31 E176.56375
G1 X49.92 Y33.39 E176.58164
G1 X49.93 Y33.09 E176.58744
G1 X49.88 Y32.59 E176.59715
G1 X49.89 Y32.58 E176.59747
G1 X49.83 Y31.92 E176.61025
G1 X49.58 Y31.11 E176.62672
G1 X49.47 Y30.76 E176.63382
G1 X49.05 Y29.97 E176.65114
G1 X48.91 Y29.70 E176.65706
G1 X48.33 Y29.00 E176.67456
G1 X48.15 Y28.77 E176.68034
G1 X47.46 Y28.21 E176.69755
G1 X47.21 Y28.00 E176.70377
G1 X46.41 Y27.58 E176.72136
G1 X45.94 Y27.32 E176.73178
G1 X45.80 Y27.34 E176.73453
G1 X45.31 Y27.19 E176.74441
G1 X45.02 Y27.08 E176.75039
G1 X44.09 Y26.99 E176.76850
G1 X43.53 Y26.93 E176.77929
G1 X43.41 Y27.01 E176.78214
G1 X42.97 Y27.05 E176.79063
G1 X42.90 Y27.05 E176.79210
G1 X42.58 Y27.08 E176.79817
G1 X41.73 Y27.34 E176.81554
G1 X41.43 Y27.43 E176.82160
G1 X40.63 Y27.86 E176.83905
G1 X40.36 Y28.00 E176.84495
G1 X39.66 Y28.57 E176.86249
G1 X39.43 Y28.76 E176.86837
G1 X38.86 Y29.46 E176.88568
G1 X38.66 Y29.70 E176.89176
G1 X38.24 Y30.49 E176.90914
G1 X38.09 Y30.76 E176.91518
G1 X37.83 Y31.62 E176.93254
G1 X37.74 Y31.92 E176.93858
G1 X37.66 Y32.81 E176.95585
G1 X37.62 Y33.11 E176.96185
G1 X37.71 Y34.01 E176.97922
G1 X37.74 Y34.32 E176.98524
G1 X38.00 Y35.17 E177.00251
G1 X38.09 Y35.47 E177.00854
G1 X38.51 Y36.25 E177.02576
G1 X38.66 Y36.54 E177.03208
G1 X39.23 Y37.23 E177.04945
G1 X39.42 Y37.48 E177.05554
G1 X40.13 Y38.05 E177.07310
G1 X40.36 Y38.24 E177.07897
G1 X41.16 Y38.67 E177.09649
G1 X41.42 Y38.81 E177.10235
G1 X42.28 Y39.07 E177.11972
G1 X42.58 Y39.16 E177.12576
G1 X43.48 Y39.25 E177.14334
G1 X43.78 Y39.28 E177.14920
G1 X44.70 Y39.19 E177.16715
G1 X45.01 Y39.15 E177.17316
G1 X45.64 Y38.95 E177.18588
G1 X45.67 Y38.96 E177.18648
G1 X46.14 Y38.81 E177.19604
G1 X46.94 Y38.39 E177.21345
G1 X47.20 Y38.25 E177.21935
G1 X47.90 Y37.67 E177.23688
G1 X48.14 Y37.48 E177.24274
G1 X48.71 Y36.79 E177.26017
G1 X48.91 Y36.55 E177.26620
G1 X49.34 Y35.73 E177.28417
G0 F12000 X50.21 Y35.78
G1 F600 X49.56 Y36.99 E177.31073
G1 X48.70 Y38.04 E177.33706
G1 X47.65 Y38.90 E177.36337
G1 X46.44 Y39.55 E177.38988
G1 X45.45 Y39.85 E177.41007
G1 X45.14 Y39.94 E177.41631
G1 X44.10 Y40.04 E177.43646
G1 X43.78 Y40.08 E177.44269
G1 X42.75 Y39.97 E177.46285
G1 X42.43 Y39.94 E177.46903
G1 X41.43 Y39.64 E177.48928
G1 X41.13 Y39.55 E177.49539
G1 X39.92 Y38.90 E177.52188
G1 X38.87 Y38.04 E177.54827
G1 X38.00 Y36.98 E177.57471
G1 X37.51 Y36.06 E177.59488
G1 X37.36 Y35.78 E177.60111
G1 X37.06 Y34.78 E177.62129
G1 X36.97 Y34.48 E177.62753
G1 X36.86 Y33.44 E177.64768
G1 X36.83 Y33.12 E177.65391
G1 X36.93 Y32.09 E177.67406
G1 X36.97 Y31.77 E177.68027
G1 X37.27 Y30.77 E177.70045
G1 X37.36 Y30.46 E177.70664
G1 X37.85 Y29.54 E177.72688
G1 X38.00 Y29.26 E177.73308
G1 X38.87 Y28.21 E177.75950
G1 X39.92 Y27.34 E177.78594
G1 X40.84 Y26.85 E177.80608
G1 X41.13 Y26.70 E177.81234
G1 X42.12 Y26.40 E177.83250
G1 X42.43 Y26.30 E177.83874
G1 X43.47 Y26.20 E177.85889
G1 X43.78 Y26.17 E177.86512
G1 X44.82 Y26.27 E177.88529
G1 X45.14 Y26.30 E177.89150
G1 X46.14 Y26.61 E177.91166
G1 X46.44 Y26.70 E177.91790
G1 X47.65 Y27.34 E177.94432
G1 X48.70 Y28.21 E177.97071
G1 X49.56 Y29.26 E177.99705
G1 X50.21 Y30.46 E178.02356
G1 X50.51 Y31.46 E178.04374
G1 X50.60 Y31.77 E178.04998
G1 X50.70 Y32.80 E178.07011
G1 X50.74 Y33.12 E178.07632
G1 X50.63 Y34.16 E178.09651
G1 X50.60 Y34.48 E178.10272
G1 X50.30 Y35.48 E178.12289
G1 X50.21 Y35.78 E178.12905
G0 F12000 X50.64 Y35.96
G1 F600 X49.95 Y37.24 E178.15724
G1 X49.03 Y38.37 E178.18542
G1 X47.91 Y39.29 E178.21357
G1 X46.62 Y39.98 E178.24177
G1 X45.58 Y40.29 E178.26287
G1 X45.23 Y40.40 E178.26996
G1 X43.78 Y40.54 E178.29813
G1 X42.34 Y40.40 E178.32634
G1 X41.30 Y40.08 E178.34738
G1 X40.95 Y39.98 E178.35448
G1 X39.66 Y39.29 E178.38273
G1 X38.54 Y38.37 E178.41084
G1 X37.62 Y37.25 E178.43900
G1 X36.93 Y35.96 E178.46719
G1 X36.61 Y34.92 E178.48830
G1 X36.51 Y34.57 E178.49541
G1 X36.37 Y33.12 E178.52358
G1 X36.51 Y31.67 E178.55181
G1 X36.82 Y30.63 E178.57282
G1 X36.93 Y30.28 E178.57997
G1 X37.62 Y29.00 E178.60814
G1 X38.54 Y27.88 E178.63630
G1 X39.66 Y26.95 E178.66445
G1 X40.95 Y26.27 E178.69266
G1 X41.99 Y25.95 E178.71373
G1 X42.34 Y25.84 E178.72084
G1 X43.78 Y25.70 E178.74901
G1 X45.23 Y25.84 E178.77726
G1 X46.27 Y26.16 E178.79825
G1 X46.62 Y26.27 E178.80541
G1 X47.91 Y26.95 E178.83354
G1 X49.03 Y27.88 E178.86173
G1 X49.95 Y29.00 E178.88991
G1 X50.64 Y30.28 E178.91812
G1 X50.95 Y31.32 E178.93919
G1 X51.06 Y31.68 E178.94630
G1 X51.20 Y33.12 E178.97445
G1 X51.06 Y34.57 E179.00269
G1 X50.75 Y35.61 E179.02370
G1 X50.64 Y35.96 E179.03082
G0 F12000 X49.04 Y35.28
G1 F600 X49.21 Y34.71 E179.04243
G1 X49.23 Y34.70 E179.04281
G1 X49.37 Y34.22 E179.05240
G1 X49.45 Y33.36 E179.06922
G1 X49.47 Y33.10 E179.07413
G1 X49.40 Y32.49 E179.08605
G1 X49.41 Y32.48 E179.08636
G1 X49.37 Y32.01 E179.09541
G1 X49.13 Y31.25 E179.11094
G1 X49.04 Y30.94 E179.11717
G1 X48.64 Y30.19 E179.13363
G1 X48.52 Y29.96 E179.13865
G1 X47.97 Y29.30 E179.15522
G1 X47.81 Y29.10 E179.16017
G1 X47.15 Y28.56 E179.17675
G1 X46.95 Y28.39 E179.18184
G1 X46.20 Y27.99 E179.19835
G1 X45.84 Y27.80 E179.20611
G1 X45.75 Y27.81 E179.20789
G1 X45.16 Y27.63 E179.22002
G1 X44.91 Y27.54 E179.22499
G1 X44.04 Y27.46 E179.24192
G1 X43.64 Y27.41 E179.24979
G1 X43.56 Y27.46 E179.25160
G1 X42.98 Y27.52 E179.26293
G1 X42.91 Y27.52 E179.26427
G1 X42.67 Y27.54 E179.26882
G1 X41.86 Y27.79 E179.28533
G1 X41.61 Y27.86 E179.29047
G1 X40.86 Y28.26 E179.30689
G1 X40.62 Y28.39 E179.31206
G1 X39.97 Y28.93 E179.32852
G1 X39.76 Y29.10 E179.33370
G1 X39.22 Y29.75 E179.35015
G1 X39.05 Y29.96 E179.35530
G1 X38.65 Y30.71 E179.37181
G1 X38.52 Y30.94 E179.37694
G1 X38.28 Y31.76 E179.39343
G1 X38.20 Y32.01 E179.39856
G1 X38.12 Y32.85 E179.41499
G1 X38.09 Y33.12 E179.42008
G1 X38.18 Y33.97 E179.43672
G1 X38.20 Y34.23 E179.44170
G1 X38.45 Y35.05 E179.45829
G1 X38.52 Y35.29 E179.46322
G1 X38.92 Y36.04 E179.47963
G1 X39.05 Y36.28 E179.48499
G1 X39.59 Y36.94 E179.50151
G1 X39.76 Y37.15 E179.50663
G1 X40.42 Y37.69 E179.52314
G1 X40.62 Y37.85 E179.52829
G1 X41.37 Y38.25 E179.54476
G1 X41.60 Y38.38 E179.54989
G1 X42.42 Y38.63 E179.56640
G1 X42.67 Y38.71 E179.57151
G1 X43.52 Y38.79 E179.58811
G1 X43.78 Y38.81 E179.59317
G1 X44.65 Y38.73 E179.61001
G1 X44.91 Y38.69 E179.61510
G1 X45.59 Y38.48 E179.62887
G1 X45.62 Y38.49 E179.62942
G1 X45.96 Y38.38 E179.63642
G1 X46.71 Y37.98 E179.65282
G1 X46.95 Y37.86 E179.65800
G1 X47.60 Y37.32 E179.67446
G1 X47.81 Y37.15 E179.67962
G1 X48.35 Y36.49 E179.69615
G1 X48.52 Y36.29 E179.70126
G1 X48.93 Y35.52 E179.71813
G1 X49.04 Y35.28 E179.72320
G0 F12000 X48.60 Y35.11
;TYPE:WALL-OUTER
G1 F600 X48.81 Y34.42 E179.73719
G1 X48.83 Y34.41 E179.73755
G1 X48.91 Y34.13 E179.74317
G1 X48.99 Y33.32 E179.75891
G1 X49.00 Y33.12 E179.76293
G1 X48.92 Y32.39 E179.77703
G1 X48.93 Y32.38 E179.77736
G1 X48.91 Y32.10 E179.78268
G1 X48.69 Y31.38 E179.79728
G1 X48.61 Y31.12 E179.80261
G1 X48.13 Y30.22 E179.82237
G1 X47.61 Y29.60 E179.83803
G1 X47.48 Y29.43 E179.84212
G1 X46.86 Y28.92 E179.85777
G1 X46.69 Y28.78 E179.86202
G1 X45.97 Y28.40 E179.87771
G1 X45.75 Y28.28 E179.88256
G1 X45.71 Y28.29 E179.88336
G1 X45.01 Y28.07 E179.89753
G1 X44.81 Y28.00 E179.90169
G1 X44.00 Y27.92 E179.91742
G1 X43.75 Y27.89 E179.92241
G1 X43.71 Y27.92 E179.92324
G1 X43.00 Y27.99 E179.93710
G1 X42.92 Y27.98 E179.93856
G1 X42.77 Y28.00 E179.94159
G1 X41.99 Y28.23 E179.95725
G1 X41.78 Y28.30 E179.96146
G1 X41.08 Y28.68 E179.97706
G1 X40.88 Y28.78 E179.98130
G1 X40.26 Y29.29 E179.99695
G1 X40.09 Y29.43 E180.00113
G1 X39.58 Y30.05 E180.01675
G1 X39.44 Y30.22 E180.02096
G1 X39.06 Y30.93 E180.03661
G1 X38.96 Y31.12 E180.04081
G1 X38.73 Y31.89 E180.05644
G1 X38.66 Y32.10 E180.06066
G1 X38.58 Y32.90 E180.07625
G1 X38.56 Y33.12 E180.08040
G1 X38.64 Y33.92 E180.09609
G1 X38.66 Y34.14 E180.10026
G1 X38.89 Y34.91 E180.11585
G1 X38.95 Y35.11 E180.12001
G1 X39.34 Y35.82 E180.13560
G1 X39.44 Y36.02 E180.14000
G1 X39.95 Y36.65 E180.15569
G1 X40.09 Y36.82 E180.15986
G1 X40.71 Y37.33 E180.17550
G1 X40.88 Y37.47 E180.17971
G1 X41.59 Y37.84 E180.19533
G1 X41.78 Y37.95 E180.19954
G1 X42.56 Y38.18 E180.21519
G1 X42.76 Y38.25 E180.21939
G1 X43.78 Y38.35 E180.23924
G1 X44.59 Y38.27 E180.25497
G1 X44.81 Y38.23 E180.25918
G1 X45.53 Y38.01 E180.27393
G1 X45.56 Y38.02 E180.27447
G1 X45.78 Y37.95 E180.27894
G1 X46.49 Y37.57 E180.29453
G1 X46.69 Y37.47 E180.29877
G1 X47.31 Y36.95 E180.31441
G1 X47.48 Y36.82 E180.31860
G1 X48.13 Y36.02 E180.33845
G1 X48.51 Y35.31 E180.35421
G1 X48.60 Y35.11 E180.35839
G0 F12000 X48.90 Y35.26
G0 X50.76 Y36.01
G0 X51.07 Y36.14
G1 F600 X50.34 Y37.51 E180.38846
G1 X49.36 Y38.70 E180.41839
G1 X48.17 Y39.68 E180.44828
G1 X46.80 Y40.41 E180.47834
G1 X45.32 Y40.86 E180.50825
G1 X43.78 Y41.01 E180.53821
G1 X42.24 Y40.86 E180.56817
G1 X40.77 Y40.41 E180.59808
G1 X39.40 Y39.68 E180.62812
G1 X38.21 Y38.70 E180.65803
G1 X37.22 Y37.50 E180.68804
G1 X36.50 Y36.14 E180.71795
G1 X36.05 Y34.66 E180.74789
G1 X35.90 Y33.12 E180.77789
G1 X36.05 Y31.58 E180.80787
G1 X36.50 Y30.10 E180.83781
G1 X37.22 Y28.74 E180.86771
G1 X38.21 Y27.55 E180.89772
G1 X39.40 Y26.56 E180.92773
G1 X40.77 Y25.83 E180.95763
G1 X42.24 Y25.39 E180.98755
G1 X43.78 Y25.23 E181.01755
G1 X45.33 Y25.39 E181.04755
G1 X46.80 Y25.83 E181.07747
G1 X48.16 Y26.56 E181.10739
G1 X49.36 Y27.55 E181.13739
G1 X50.34 Y28.74 E181.16731
G1 X51.07 Y30.11 E181.19738
G1 X51.52 Y31.58 E181.22724
G1 X51.67 Y33.12 E181.25722
G1 X51.52 Y34.66 E181.28722
G1 X51.07 Y36.14 E181.31708
G0 F12000 X49.99 Y35.83
;TYPE:FILL
G1 F600 X49.53 Y35.69 E181.32684
G1 X49.65 Y36.47 E181.33611
G1 X49.07 Y36.55 E181.34545
G1 X49.12 Y37.26 E181.35445
G1 X48.50 Y37.30 E181.36342
G1 X48.51 Y37.96 E181.37237
G1 X47.83 Y37.95 E181.38123
G1 X47.79 Y38.57 E181.39012
G1 X47.07 Y38.50 E181.39906
G1 X46.98 Y39.07 E181.40836
G1 X46.19 Y38.94 E181.41765
G1 X46.07 Y39.48 E181.42776
G1 X45.19 Y39.26 E181.43802
G1 X45.03 Y39.76 E181.44868
G1 X44.24 Y39.63 E181.46017
G1 X43.62 Y39.66 E181.47196
G1 X42.88 Y39.59 E181.48598
G1 X42.18 Y39.22 E181.50142
G0 F12000 X41.92 Y39.62
G1 F600 X41.17 Y38.87 E181.52195
G0 F12000 X40.87 Y39.22
G1 F600 X37.68 Y36.03 E181.60929
G0 F12000 X38.05 Y35.74
G1 F600 X37.29 Y34.98 E181.62999
G0 F12000 X37.69 Y34.72
G1 F600 X37.31 Y34.02 E181.64626
G1 X37.24 Y33.29 E181.66026
G1 X37.27 Y32.66 E181.67211
G1 X37.33 Y32.06 E181.68364
G1 X37.27 Y31.34 E181.69410
G1 X37.79 Y31.20 E181.70423
G1 X37.61 Y30.36 E181.71437
G1 X38.17 Y30.26 E181.72367
G1 X38.07 Y29.50 E181.73296
G1 X38.66 Y29.44 E181.74197
G1 X38.63 Y28.75 E181.75093
G1 X39.27 Y28.72 E181.75986
G1 X39.28 Y28.08 E181.76872
G1 X39.97 Y28.11 E181.77760
G1 X40.02 Y27.50 E181.78649
G1 X40.77 Y27.59 E181.79577
G1 X40.86 Y27.02 E181.80504
G1 X41.68 Y27.18 E181.81457
G1 X41.82 Y26.66 E181.82462
G1 X42.52 Y26.70 E181.83467
G1 X43.11 Y26.64 E181.84642
G1 X43.69 Y26.55 E181.85680
G1 X44.42 Y26.63 E181.87074
G1 X45.18 Y26.72 E181.88473
G1 X45.94 Y27.15 E181.90165
G0 F12000 X46.25 Y26.81
G1 F600 X47.32 Y27.88 E181.93083
G0 F12000 X47.69 Y27.59
G1 F600 X49.31 Y29.21 E181.97540
G0 F12000 X49.02 Y29.58
G1 F600 X50.09 Y30.65 E182.00484
G0 F12000 X49.68 Y30.90
G1 F600 X50.38 Y31.60 E182.02385
G0 F12000 X49.98 Y31.85
G1 F600 X50.27 Y32.48 E182.03810
G1 X50.33 Y33.19 E182.05224
G1 X50.27 Y33.80 E182.06394
G1 X50.20 Y34.39 E182.07547
G1 X50.24 Y35.09 E182.08559
G1 X49.80 Y34.97 E182.09448
G1 F2400 E180.89448
G0 F12000 X48.05 Y33.96
;TYPE:SUPPORT
G1 F2400 E182.09448
G1 F600 X48.05 Y32.31 E182.12646
G0 F12000 X47.88 Y32.32
G0 X46.99 Y30.46
G0 X47.12 Y30.35
G1 F600 X47.12 Y35.90 E182.23389
G0 F12000 X46.18 Y36.76
G1 F600 X46.18 Y29.49 E182.37467
G0 F12000 X45.25 Y29.05
G1 F600 X45.25 Y37.20 E182.53254
G0 F12000 X44.32 Y37.42
G1 F600 X44.32 Y28.82 E182.69926
G0 F12000 X43.38 Y28.82
G1 F600 X43.38 Y32.77 E182.77580
G0 F12000 X43.38 Y33.34
G1 F600 X43.38 Y37.44 E182.85518
G0 F12000 X42.45 Y37.25
G1 F600 X42.45 Y29.00 E183.01502
G0 F12000 X41.52 Y29.42
G1 F600 X41.52 Y36.83 E183.15852
G0 F12000 X40.59 Y36.05
G1 F600 X40.59 Y30.19 E183.27221
G0 F12000 X40.72 Y30.29
G0 X39.81 Y31.86
G0 X39.65 Y31.81
G1 F600 X39.65 Y34.43 E183.32291
;LAYER:3
G0 F12000 X38.36 Y34.97 Z0.60
;TYPE:WALL-INNER
G1 F600 X38.46 Y35.31 E183.32975
G1 X38.83 Y36.01 E183.34497
G1 X38.99 Y36.32 E183.35180
G1 X39.49 Y36.92 E183.36693
G1 X39.71 Y37.20 E183.37377
G1 X40.31 Y37.69 E183.38876
G1 X40.58 Y37.91 E183.39563
G1 X41.27 Y38.28 E183.41069
G1 X41.58 Y38.44 E183.41753
G1 X42.32 Y38.67 E183.43257
G1 X42.66 Y38.77 E183.43940
G1 X43.43 Y38.85 E183.45447
G1 X43.78 Y38.88 E183.46128
G1 X44.59 Y38.80 E183.47692
G1 X44.93 Y38.75 E183.48373
G1 X45.44 Y38.60 E183.49399
G1 X45.48 Y38.60 E183.49471
G1 X45.99 Y38.44 E183.50514
G1 X46.67 Y38.08 E183.52005
G1 X46.98 Y37.91 E183.52694
G1 X47.58 Y37.42 E183.54196
G1 X47.86 Y37.20 E183.54883
G1 X48.35 Y36.60 E183.56380
G1 X48.57 Y36.33 E183.57070
G1 X48.92 Y35.67 E183.58511
G1 X49.11 Y35.29 E183.59333
G1 X49.20 Y34.98 E183.59960
G1 X49.22 Y34.96 E183.60013
G1 X49.44 Y34.23 E183.61492
G1 X49.51 Y33.43 E183.63041
G1 X49.53 Y33.09 E183.63701
G1 X49.49 Y32.71 E183.64451
G1 X49.50 Y32.69 E183.64491
G1 X49.43 Y32.00 E183.65836
G1 X49.10 Y30.91 E183.68033
G1 X48.74 Y30.23 E183.69541
G1 X48.58 Y29.92 E183.70206
G1 X48.08 Y29.32 E183.71723
G1 X47.86 Y29.05 E183.72386
G1 X47.26 Y28.56 E183.73900
G1 X46.99 Y28.34 E183.74575
G1 X46.30 Y27.97 E183.76091
G1 X45.80 Y27.70 E183.77196
G1 X45.65 Y27.71 E183.77476
G1 X44.94 Y27.48 E183.78932
G1 X44.14 Y27.40 E183.80483
G1 X43.55 Y27.34 E183.81642
G1 X43.42 Y27.41 E183.81936
G1 X43.09 Y27.44 E183.82562
G1 X43.00 Y27.44 E183.82743
G1 X42.66 Y27.47 E183.83408
G1 X41.91 Y27.70 E183.84920
G1 X41.58 Y27.80 E183.85593
G1 X40.90 Y28.16 E183.87092
G1 X40.58 Y28.33 E183.87782
G1 X39.99 Y28.82 E183.89284
G1 X39.71 Y29.05 E183.89974
G1 X39.22 Y29.65 E183.91468
G1 X39.00 Y29.92 E183.92156
G1 X38.63 Y30.60 E183.93653
G1 X38.46 Y30.91 E183.94343
G1 X38.24 Y31.66 E183.95843
G1 X38.13 Y32.00 E183.96532
G1 X38.06 Y32.76 E183.98025
G1 X38.02 Y33.12 E183.98719
G1 X38.10 Y33.89 E184.00214
G1 X38.13 Y34.24 E184.00899
G1 X38.36 Y34.97 E184.02388
G0 F12000 X37.09 Y34.88
G1 F600 X36.97 Y34.48 E184.03198
G1 X36.87 Y33.54 E184.05032
G1 X36.83 Y33.12 E184.05844
G1 X36.92 Y32.18 E184.07666
G1 X36.97 Y31.77 E184.08476
G1 X37.24 Y30.86 E184.10308
G1 X37.36 Y30.46 E184.11116
G1 X38.00 Y29.26 E184.13750
G1 X38.87 Y28.21 E184.16399
G1 X39.93 Y27.34 E184.19047
G1 X41.12 Y26.70 E184.21675
G1 X42.03 Y26.43 E184.23513
G1 X42.43 Y26.30 E184.24321
G1 X43.37 Y26.21 E184.26153
G1 X43.79 Y26.17 E184.26965
G1 X44.72 Y26.26 E184.28789
G1 X45.14 Y26.30 E184.29599
G1 X46.04 Y26.58 E184.31429
G1 X46.44 Y26.70 E184.32231
G1 X47.65 Y27.34 E184.34884
G1 X48.38 Y27.94 E184.36712
G1 X48.70 Y28.21 E184.37520
G1 X49.30 Y28.94 E184.39355
G1 X49.56 Y29.26 E184.40160
G1 X50.01 Y30.09 E184.41992
G1 X50.21 Y30.46 E184.42801
G1 X50.48 Y31.37 E184.44632
G1 X50.60 Y31.77 E184.45443
G1 X50.69 Y32.71 E184.47274
G1 X50.74 Y33.12 E184.48086
G1 X50.64 Y34.06 E184.49911
G1 X50.60 Y34.48 E184.50721
G1 X50.33 Y35.38 E184.52552
G1 X50.21 Y35.78 E184.53352
G1 X49.76 Y36.62 E184.55192
G1 X49.57 Y36.98 E184.55998
G1 X48.97 Y37.72 E184.57833
G1 X48.70 Y38.04 E184.58644
G1 X47.97 Y38.64 E184.60474
G1 X47.65 Y38.90 E184.61284
G1 X46.81 Y39.35 E184.63114
G1 X46.44 Y39.54 E184.63923
G1 X45.54 Y39.82 E184.65757
G1 X45.14 Y39.94 E184.66566
G1 X44.20 Y40.03 E184.68397
G1 X43.78 Y40.08 E184.69209
G1 X42.84 Y39.98 E184.71033
G1 X42.43 Y39.94 E184.71839
G1 X41.52 Y39.67 E184.73678
G1 X41.13 Y39.55 E184.74476
G1 X40.29 Y39.10 E184.76316
G1 X39.92 Y38.90 E184.77120
G1 X38.87 Y38.04 E184.79764
G1 X38.00 Y36.98 E184.82413
G1 X37.36 Y35.78 E184.85041
G1 X37.09 Y34.88 E184.86876
G0 F12000 X36.64 Y35.01
G1 F600 X36.51 Y34.57 E184.87774
G1 X36.41 Y33.58 E184.89697
G1 X36.37 Y33.12 E184.90596
G1 X36.46 Y32.14 E184.92510
G1 X36.51 Y31.67 E184.93415
G1 X36.79 Y30.73 E184.95327
G1 X36.93 Y30.28 E184.96233
G1 X37.62 Y29.00 E184.99049
G1 X38.54 Y27.88 E185.01864
G1 X39.66 Y26.95 E185.04679
G1 X40.94 Y26.27 E185.07499
G1 X41.89 Y25.98 E185.09421
G1 X42.34 Y25.84 E185.10319
G1 X43.32 Y25.75 E185.12240
G1 X43.79 Y25.70 E185.13139
G1 X44.77 Y25.80 E185.15055
G1 X45.23 Y25.85 E185.15960
G1 X46.18 Y26.13 E185.17873
G1 X46.62 Y26.27 E185.18771
G1 X47.91 Y26.95 E185.21591
G1 X49.03 Y27.88 E185.24414
G1 X49.95 Y28.99 E185.27213
G1 X50.64 Y30.28 E185.30047
G1 X50.93 Y31.23 E185.31965
G1 X51.06 Y31.68 E185.32863
G1 X51.16 Y32.66 E185.34784
G1 X51.20 Y33.12 E185.35679
G1 X51.11 Y34.11 E185.37599
G1 X51.06 Y34.57 E185.38504
G1 X50.77 Y35.52 E185.40417
G1 X50.64 Y35.96 E185.41318
G1 X49.95 Y37.25 E185.44141
G1 X49.03 Y38.37 E185.46946
G1 X47.91 Y39.29 E185.49768
G1 X47.03 Y39.76 E185.51690
G1 X46.62 Y39.98 E185.52587
G1 X45.67 Y40.27 E185.54510
G1 X45.23 Y40.40 E185.55408
G1 X44.24 Y40.50 E185.57329
G1 X43.78 Y40.54 E185.58228
G1 X42.80 Y40.45 E185.60144
G1 X42.34 Y40.40 E185.61045
G1 X41.39 Y40.11 E185.62963
G1 X40.94 Y39.98 E185.63862
G1 X39.66 Y39.29 E185.66685
G1 X38.54 Y38.37 E185.69496
G1 X37.62 Y37.25 E185.72311
G1 X36.93 Y35.96 E185.75131
G1 X36.64 Y35.01 E185.77054
G0 F12000 X38.59 Y34.15
G1 F600 X38.80 Y34.84 E185.78462
G1 X38.89 Y35.14 E185.79054
G1 X39.23 Y35.77 E185.80459
G1 X39.38 Y36.06 E185.81081
G1 X39.85 Y36.63 E185.82501
G1 X40.04 Y36.86 E185.83096
G1 X40.61 Y37.33 E185.84510
G1 X40.84 Y37.52 E185.85105
G1 X41.49 Y37.87 E185.86528
G1 X41.76 Y38.01 E185.87117
G1 X42.46 Y38.22 E185.88534
G1 X42.75 Y38.31 E185.89126
G1 X43.48 Y38.38 E185.90553
G1 X43.78 Y38.42 E185.91137
G1 X44.53 Y38.34 E185.92588
G1 X44.83 Y38.30 E185.93179
G1 X45.39 Y38.13 E185.94305
G1 X45.42 Y38.13 E185.94381
G1 X45.81 Y38.01 E185.95164
G1 X46.45 Y37.67 E185.96572
G1 X46.73 Y37.52 E185.97170
G1 X47.29 Y37.06 E185.98583
G1 X47.53 Y36.87 E185.99180
G1 X47.99 Y36.30 E186.00600
G1 X48.19 Y36.06 E186.01189
G1 X48.52 Y35.44 E186.02555
G1 X48.55 Y35.39 E186.02673
G1 X48.67 Y35.12 E186.03245
G1 X48.80 Y34.68 E186.04135
G1 X48.82 Y34.67 E186.04184
G1 X48.98 Y34.14 E186.05247
G1 X49.05 Y33.40 E186.06691
G1 X49.06 Y33.10 E186.07261
G1 X49.01 Y32.61 E186.08225
G1 X49.02 Y32.59 E186.08267
G1 X48.98 Y32.09 E186.09240
G1 X48.67 Y31.09 E186.11259
G1 X48.33 Y30.45 E186.12679
G1 X48.19 Y30.18 E186.13257
G1 X47.72 Y29.61 E186.14683
G1 X47.53 Y29.38 E186.15259
G1 X46.97 Y28.93 E186.16665
G1 X46.73 Y28.72 E186.17274
G1 X46.08 Y28.38 E186.18701
G1 X45.70 Y28.18 E186.19529
G1 X45.61 Y28.18 E186.19714
G1 X45.12 Y28.04 E186.20692
G1 X44.84 Y27.93 E186.21284
G1 X44.09 Y27.86 E186.22743
G1 X43.65 Y27.82 E186.23593
G1 X43.57 Y27.86 E186.23781
G1 X43.10 Y27.91 E186.24688
G1 X43.01 Y27.91 E186.24855
G1 X42.75 Y27.93 E186.25365
G1 X42.05 Y28.14 E186.26777
G1 X41.76 Y28.23 E186.27375
G1 X41.12 Y28.58 E186.28789
G1 X40.84 Y28.72 E186.29387
G1 X40.28 Y29.19 E186.30800
G1 X40.04 Y29.38 E186.31398
G1 X39.58 Y29.94 E186.32808
G1 X39.38 Y30.18 E186.33404
G1 X39.04 Y30.82 E186.34816
G1 X38.89 Y31.10 E186.35416
G1 X38.69 Y31.79 E186.36828
G1 X38.59 Y32.09 E186.37424
G1 X38.52 Y32.81 E186.38834
G1 X38.49 Y33.12 E186.39434
G1 X38.56 Y33.84 E186.40846
G1 X38.59 Y34.15 E186.41435
G0 F12000 X39.05 Y34.06
;TYPE:WALL-OUTER
G1 F600 X39.25 Y34.71 E186.42760
G1 X39.32 Y34.96 E186.43257
G1 X39.65 Y35.56 E186.44581
G1 X39.77 Y35.80 E186.45109
G1 X40.21 Y36.33 E186.46439
G1 X40.37 Y36.53 E186.46941
G1 X40.90 Y36.97 E186.48270
G1 X41.10 Y37.13 E186.48773
G1 X41.94 Y37.58 E186.50607
G1 X42.59 Y37.78 E186.51937
G1 X42.84 Y37.85 E186.52438
G1 X43.53 Y37.92 E186.53772
G1 X43.78 Y37.95 E186.54272
G1 X44.47 Y37.88 E186.55610
G1 X44.73 Y37.84 E186.56113
G1 X45.34 Y37.66 E186.57346
G1 X45.37 Y37.66 E186.57418
G1 X45.63 Y37.58 E186.57939
G1 X46.23 Y37.26 E186.59265
G1 X46.47 Y37.13 E186.59771
G1 X46.99 Y36.70 E186.61096
G1 X47.20 Y36.53 E186.61601
G1 X47.63 Y36.00 E186.62929
G1 X47.80 Y35.80 E186.63435
G1 X48.11 Y35.20 E186.64749
G1 X48.14 Y35.17 E186.64830
G1 X48.23 Y34.96 E186.65282
G1 X48.40 Y34.39 E186.66433
G1 X48.42 Y34.37 E186.66478
G1 X48.52 Y34.05 E186.67130
G1 X48.58 Y33.36 E186.68467
G1 X48.60 Y33.12 E186.68948
G1 X48.53 Y32.51 E186.70124
G1 X48.55 Y32.49 E186.70168
G1 X48.52 Y32.18 E186.70774
G1 X48.24 Y31.27 E186.72615
G1 X47.91 Y30.67 E186.73945
G1 X47.80 Y30.44 E186.74437
G1 X47.36 Y29.91 E186.75768
G1 X47.20 Y29.71 E186.76260
G1 X46.67 Y29.28 E186.77584
G1 X46.47 Y29.11 E186.78098
G1 X45.60 Y28.65 E186.79990
G1 X45.56 Y28.66 E186.80079
G1 X44.98 Y28.48 E186.81251
G1 X44.73 Y28.39 E186.81763
G1 X44.05 Y28.32 E186.83100
G1 X43.75 Y28.29 E186.83671
G1 X43.71 Y28.32 E186.83765
G1 X43.12 Y28.38 E186.84917
G1 X43.03 Y28.37 E186.85094
G1 X42.84 Y28.39 E186.85452
G1 X42.19 Y28.59 E186.86781
G1 X41.94 Y28.66 E186.87284
G1 X41.33 Y28.99 E186.88612
G1 X41.10 Y29.11 E186.89118
G1 X40.58 Y29.55 E186.90444
G1 X40.37 Y29.71 E186.90950
G1 X39.94 Y30.24 E186.92275
G1 X39.77 Y30.44 E186.92780
G1 X39.45 Y31.05 E186.94109
G1 X39.33 Y31.28 E186.94613
G1 X39.13 Y31.93 E186.95940
G1 X39.05 Y32.18 E186.96446
G1 X38.99 Y32.86 E186.97770
G1 X38.96 Y33.12 E186.98276
G1 X39.03 Y33.80 E186.99604
G1 X39.05 Y34.06 E187.00100
G0 F12000 X38.73 Y34.15
G0 X36.38 Y34.60
G0 X36.05 Y34.66
G1 F600 X35.90 Y33.12 E187.03102
G1 X36.05 Y31.58 E187.06098
G1 X36.50 Y30.10 E187.09092
G1 X37.22 Y28.74 E187.12082
G1 X38.21 Y27.55 E187.15083
G1 X39.40 Y26.56 E187.18084
G1 X40.77 Y25.83 E187.21075
G1 X42.24 Y25.39 E187.24067
G1 X43.78 Y25.23 E187.27067
G1 X45.33 Y25.39 E187.30067
G1 X46.80 Y25.83 E187.33051
G1 X48.17 Y26.57 E187.36060
G1 X49.36 Y27.55 E187.39050
G1 X50.34 Y28.74 E187.42042
G1 X51.07 Y30.11 E187.45049
G1 X51.52 Y31.58 E187.48035
G1 X51.67 Y33.12 E187.51031
G1 X51.52 Y34.66 E187.54033
G1 X51.07 Y36.14 E187.57019
G1 X50.34 Y37.51 E187.60026
G1 X49.36 Y38.70 E187.63018
G1 X48.17 Y39.68 E187.66008
G1 X46.80 Y40.41 E187.69014
G1 X45.32 Y40.86 E187.72005
G1 X43.78 Y41.01 E187.75001
G1 X42.24 Y40.86 E187.77997
G1 X40.77 Y40.41 E187.80988
G1 X39.40 Y39.68 E187.83992
G1 X38.21 Y38.70 E187.86983
G1 X37.22 Y37.50 E187.89984
G1 X36.50 Y36.14 E187.92974
G1 X36.05 Y34.66 E187.95968
G0 F12000 X37.12 Y34.38
;TYPE:FILL
G1 F600 X37.90 Y33.60 E187.98111
G0 F12000 X37.96 Y34.20
G1 F600 X37.26 Y34.90 E188.00023
G0 F12000 X37.42 Y35.40
G1 F600 X38.10 Y34.72 E188.01903
G0 F12000 X38.26 Y35.23
G1 F600 X37.71 Y36.10 E188.03703
G1 X38.58 Y35.89 E188.05440
G1 X38.20 Y36.93 E188.07176
G1 X39.09 Y36.70 E188.08838
G1 X38.78 Y37.67 E188.10498
G1 X39.71 Y37.40 E188.12159
G1 X39.45 Y38.31 E188.13827
G1 X40.44 Y37.98 E188.15497
G1 X40.21 Y38.87 E188.17231
G1 X41.27 Y38.47 E188.18964
G1 X40.85 Y39.22 E188.20625
G0 F12000 X41.30 Y39.43
G1 F600 X41.99 Y38.74 E188.22507
G0 F12000 X42.49 Y38.89
G1 F600 X41.81 Y39.58 E188.24389
G0 F12000 X42.31 Y39.73
G1 F600 X43.07 Y38.98 E188.26466
G0 F12000 X43.67 Y39.04
G1 F600 X42.88 Y39.82 E188.28618
G0 F12000 X43.48 Y39.88
G1 F600 X44.38 Y38.99 E188.31064
G0 F12000 X45.18 Y38.85
G1 F600 X44.15 Y39.87 E188.33871
G0 F12000 X44.88 Y39.80
G1 F600 X46.13 Y38.55 E188.37285
G0 F12000 X46.87 Y39.13
G1 F600 X49.79 Y36.21 E188.45273
G0 F12000 X49.18 Y35.50
G1 F600 X50.46 Y34.22 E188.48770
G0 F12000 X50.53 Y33.49
G1 F600 X49.53 Y34.50 E188.51528
G0 F12000 X49.65 Y33.72
G1 F600 X50.54 Y32.83 E188.53971
G0 F12000 X50.48 Y32.23
G1 F600 X49.69 Y33.02 E188.56146
G0 F12000 X49.64 Y32.41
G1 F600 X50.40 Y31.65 E188.58223
G0 F12000 X50.24 Y31.15
G1 F600 X49.55 Y31.83 E188.60107
G0 F12000 X49.40 Y31.33
G1 F600 X50.09 Y30.64 E188.61992
G0 F12000 X49.88 Y30.19
G1 F600 X49.13 Y30.61 E188.63725
G1 X49.53 Y29.55 E188.65456
G1 X48.65 Y29.77 E188.67179
G1 X48.97 Y28.80 E188.68839
G1 X48.06 Y29.05 E188.70497
G1 X48.33 Y28.12 E188.72163
G1 X47.36 Y28.43 E188.73829
G1 X47.59 Y27.53 E188.75495
G1 X46.55 Y27.92 E188.77231
G1 X46.76 Y27.05 E188.78969
G1 X45.91 Y27.57 E188.80898
G0 F12000 X45.38 Y27.45
G1 F600 X46.07 Y26.75 E188.82793
G0 F12000 X45.56 Y26.60
G1 F600 X44.86 Y27.30 E188.84715
G0 F12000 X44.26 Y27.24
G1 F600 X45.04 Y26.46 E188.86860
G0 F12000 X44.45 Y26.40
G1 F600 X43.66 Y27.18 E188.89003
G0 F12000 X42.90 Y27.28
G1 F600 X43.84 Y26.34 E188.91587
G0 F12000 X43.13 Y26.40
G1 F600 X42.04 Y27.49 E188.94576
G0 F12000 X41.43 Y26.78
G1 F600 X37.44 Y30.77 E189.05519
G0 F12000 X38.15 Y31.38
G1 F600 X37.06 Y32.47 E189.08505
G0 F12000 X37.00 Y33.18
G1 F600 X37.94 Y32.24 E189.11086
G0 F12000 X37.87 Y32.97
G1 F600 X37.06 Y33.78 E189.13303
G0 F12000 X37.15 Y31.71
G1 F600 X38.65 Y30.22 E189.17402
G0 F12000 X38.07 Y29.48
G1 F600 X40.14 Y27.41 E189.23068
G0 F12000 X40.88 Y27.98
G1 F600 X42.38 Y26.49 E189.27164
G0 F12000 X47.51 Y29.41
G0 X48.64 Y31.11
G0 X50.24 Y35.10
G1 F600 X45.76 Y39.58 E189.39428
G1 F2400 E188.19428
G0 F12000 X45.25 Y36.78
;TYPE:SUPPORT
G1 F2400 E189.39428
G1 F600 X45.25 Y29.47 E189.53592
G0 F12000 X44.32 Y29.22
G1 F600 X44.32 Y37.02 E189.68714
G0 F12000 X43.38 Y37.04
G1 F600 X43.38 Y33.34 E189.75872
G0 F12000 X43.38 Y32.77
G1 F600 X43.38 Y29.22 E189.82750
G0 F12000 X42.45 Y29.41
G1 F600 X42.45 Y36.83 E189.97126
G0 F12000 X41.52 Y36.36
G1 F600 X41.52 Y29.89 E190.09657
G0 F12000 X40.59 Y30.81
G1 F600 X40.59 Y35.43 E190.18602
G0 F12000 X40.72 Y35.32
G0 X46.08 Y36.12
G0 X46.18 Y36.25
G1 F600 X46.18 Y30.00 E190.30705
G0 F12000 X47.12 Y31.01
G1 F600 X47.12 Y35.24 E190.38908
;LAYER:4
G0 F12000 X48.24 Y36.10 Z0.70
;TYPE:WALL-INNER
G1 F600 X48.56 Y35.50 E190.40240
G1 X48.73 Y35.14 E190.41001
G1 X48.80 Y34.92 E190.41450
G1 X48.82 Y34.90 E190.41510
G1 X49.04 Y34.15 E190.43028
G1 X49.11 Y33.47 E190.44348
G1 X49.13 Y33.09 E190.45086
G1 X49.10 Y32.84 E190.45583
G1 X49.11 Y32.81 E190.45630
G1 X49.04 Y32.08 E190.47067
G1 X48.86 Y31.48 E190.48270
G1 X48.73 Y31.07 E190.49115
G1 X48.24 Y30.14 E190.51139
G1 X47.83 Y29.64 E190.52403
G1 X47.58 Y29.34 E190.53162
G1 X47.07 Y28.92 E190.54439
G1 X46.77 Y28.67 E190.55203
G1 X46.18 Y28.36 E190.56486
G1 X45.65 Y28.07 E190.57645
G1 X45.51 Y28.08 E190.57933
G1 X45.22 Y28.00 E190.58505
G1 X44.86 Y27.87 E190.59251
G1 X44.19 Y27.80 E190.60568
G1 X43.55 Y27.73 E190.61815
G1 X43.41 Y27.81 E190.62114
G1 X43.21 Y27.83 E190.62503
G1 X43.10 Y27.83 E190.62713
G1 X42.74 Y27.86 E190.63423
G1 X42.12 Y28.05 E190.64683
G1 X41.73 Y28.17 E190.65458
G1 X41.15 Y28.48 E190.66737
G1 X40.81 Y28.66 E190.67496
G1 X40.30 Y29.08 E190.68761
G1 X39.99 Y29.33 E190.69534
G1 X39.58 Y29.84 E190.70796
G1 X39.33 Y30.14 E190.71567
G1 X39.02 Y30.72 E190.72828
G1 X38.83 Y31.07 E190.73602
G1 X38.64 Y31.70 E190.74873
G1 X38.53 Y32.08 E190.75642
G1 X38.46 Y32.72 E190.76902
G1 X38.42 Y33.12 E190.77677
G1 X38.49 Y33.77 E190.78935
G1 X38.52 Y34.16 E190.79698
G1 X38.72 Y34.78 E190.80964
G1 X38.83 Y35.16 E190.81723
G1 X39.14 Y35.74 E190.83003
G1 X39.32 Y36.10 E190.83778
G1 X39.74 Y36.60 E190.85053
G1 X39.99 Y36.91 E190.85825
G1 X40.51 Y37.33 E190.87105
G1 X40.80 Y37.58 E190.87856
G1 X41.39 Y37.89 E190.89138
G1 X41.73 Y38.08 E190.89895
G1 X42.37 Y38.27 E190.91178
G1 X42.73 Y38.38 E190.91928
G1 X43.39 Y38.44 E190.93205
G1 X43.78 Y38.48 E190.93968
G1 X44.47 Y38.41 E190.95298
G1 X44.86 Y38.36 E190.96062
G1 X45.25 Y38.24 E190.96862
G1 X45.29 Y38.24 E190.96944
G1 X45.84 Y38.08 E190.98045
G1 X46.42 Y37.77 E190.99317
G1 X46.76 Y37.58 E191.00077
G1 X47.27 Y37.17 E191.01341
G1 X47.58 Y36.91 E191.02114
G1 X47.99 Y36.41 E191.03377
G1 X48.24 Y36.10 E191.04147
G0 F12000 X49.56 Y36.99
G1 F600 X48.70 Y38.04 E191.06774
G1 X48.04 Y38.58 E191.08426
G1 X47.65 Y38.90 E191.09421
G1 X46.45 Y39.54 E191.12056
G1 X45.14 Y39.94 E191.14707
G1 X44.30 Y40.02 E191.16346
G1 X43.78 Y40.08 E191.17343
G1 X42.94 Y39.99 E191.18986
G1 X42.43 Y39.94 E191.19973
G1 X41.12 Y39.54 E191.22622
G1 X39.92 Y38.90 E191.25262
G1 X38.87 Y38.04 E191.27901
G1 X38.01 Y36.98 E191.30540
G1 X37.60 Y36.23 E191.32187
G1 X37.36 Y35.78 E191.33183
G1 X37.12 Y34.97 E191.34827
G1 X36.97 Y34.48 E191.35821
G1 X36.88 Y33.63 E191.37468
G1 X36.83 Y33.12 E191.38465
G1 X36.91 Y32.28 E191.40106
G1 X36.97 Y31.77 E191.41101
G1 X37.21 Y30.95 E191.42746
G1 X37.36 Y30.47 E191.43732
G1 X37.76 Y29.71 E191.45386
