;-- START GCODE --
;Sliced for Type A Machines Series 1
;Sliced at: Mon 16-05-2016 23:01:45
;Basic settings: Layer height: 0.2 Walls: 1 Fill: 50
;Print Speed: 100 Support: 0
;Retraction Speed: 40 Retraction Distance: 1.2
;Print time: #P_TIME#
;Filament used: #F_AMNT#m #F_WGHT#g
;Filament cost: #F_COST#
M106 S255	 ;start with the fan on
G21        ;metric values
G90        ;absolute positioning
M106 S255    ;start with the fan on
G28     ;move to endstops
G29		;allows for auto-levelling
G1 X150 Y5  Z15.0 F6000 ;center and move the platform down 15mm
M109 S220 ;Heat To temp
G92 E0                  ;zero the extruded length
G1 F200 E30              ;extrude 30mm of feed stock
G92 E0                  ;zero the extruded length again
G1 X175 Y25  Z0 F6000 ;remove bugger
G1 X220 F6000 ;remove bugger
G1 X150 Y150  Z15 F6000 ;recenter and begin
G1 F6000

;Layer count: 78
;LAYER:0
M106 S255
G0 F6000 X129.67 Y129.67 Z0.30
;TYPE:SKIRT
G1 F2700 X134.56 Y125.66 E0.39467
G1 X140.15 Y122.67 E0.78940
G1 X141.41 Y122.29 E0.87190
G1 X146.20 Y120.84 E1.18400
G1 X151.18 Y120.34 E1.49601
G1 X152.50 Y120.22 E1.57842
G1 X153.81 Y120.34 E1.66101
G1 X158.80 Y120.84 E1.97346
G1 X163.59 Y122.29 E2.28581
G1 X164.85 Y122.67 E2.36814
G1 X166.02 Y123.30 E2.45041
G1 X170.44 Y125.66 E2.76283
G1 X174.31 Y128.83 E3.07505
G1 X175.33 Y129.67 E3.15751
G1 X179.34 Y134.56 E3.55209
G1 X181.70 Y138.98 E3.86432
G1 X182.33 Y140.15 E3.94696
G1 X182.71 Y141.41 E4.02926
G1 X184.16 Y146.20 E4.34160
G1 X184.65 Y151.18 E4.65348
G1 X184.78 Y152.50 E4.73589
G1 X184.66 Y153.81 E4.81841
G1 X184.16 Y158.80 E5.13086
G1 X182.71 Y163.59 E5.44327
G1 X182.33 Y164.85 E5.52560
G1 X181.71 Y166.02 E5.60787
G1 X179.34 Y170.44 E5.92029
G1 X176.17 Y174.31 E6.23251
G1 X175.33 Y175.33 E6.31497
G1 X170.44 Y179.34 E6.70955
G1 X166.02 Y181.70 E7.02178
G1 X164.85 Y182.33 E7.10442
G1 X163.59 Y182.71 E7.18686
G1 X158.80 Y184.16 E7.49914
G1 X157.49 Y184.29 E7.58116
G1 X152.50 Y184.78 E7.89343
G1 X151.19 Y184.66 E7.97595
G1 X146.20 Y184.16 E8.28822
G1 X144.94 Y183.78 E8.37043
G1 X140.15 Y182.33 E8.68294
G1 X138.98 Y181.71 E8.76535
G1 X134.56 Y179.34 E9.07777
G1 X130.69 Y176.17 E9.38999
G1 X129.67 Y175.33 E9.47245
G1 X125.66 Y170.44 E9.86721
G1 X125.03 Y169.27 E9.94962
G1 X122.67 Y164.85 E10.26182
G1 X122.29 Y163.59 E10.34432
G1 X120.83 Y158.80 E10.65656
G1 X120.71 Y157.48 E10.73895
G1 X120.22 Y152.50 E11.05096
G1 X120.34 Y151.19 E11.13336
G1 X120.84 Y146.21 E11.44562
G1 X121.22 Y144.94 E11.52789
G1 X122.67 Y140.15 E11.84040
G1 X123.30 Y138.98 E11.92282
G1 X125.66 Y134.56 E12.23519
G1 X126.49 Y133.54 E12.31747
G1 X129.67 Y129.67 E12.62986
G0 F6000 X130.03 Y130.03
G1 F2700 X134.84 Y126.07 E13.01841
G1 X140.34 Y123.14 E13.40703
G1 X141.56 Y122.77 E13.48640
G1 X146.30 Y121.33 E13.79544
G1 X151.23 Y120.84 E14.10438
G1 X152.50 Y120.72 E14.18372
G1 X153.76 Y120.84 E14.26323
G1 X158.70 Y121.33 E14.57262
G1 X163.45 Y122.77 E14.88190
G1 X164.66 Y123.14 E14.96110
G1 X165.78 Y123.74 E15.04034
G1 X170.16 Y126.08 E15.34966
G1 X173.99 Y129.22 E15.65887
G1 X174.97 Y130.03 E15.73822
G1 X178.93 Y134.84 E16.12664
G1 X181.26 Y139.21 E16.43583
G1 X181.86 Y140.34 E16.51537
G1 X182.23 Y141.56 E16.59460
G1 X182.23 Y141.56 E16.59466
G1 X183.67 Y146.30 E16.90394
G1 X184.16 Y151.23 E17.21300
G1 X184.16 Y151.23 E17.21306
G1 X184.28 Y152.50 E17.29215
G1 X184.16 Y153.76 E17.37167
G1 X183.67 Y158.70 E17.68099
G1 X182.23 Y163.45 E17.99032
G1 X181.86 Y164.66 E18.06953
G1 X181.26 Y165.78 E18.14876
G1 X178.93 Y170.16 E18.45809
G1 X175.78 Y173.99 E18.76729
G1 X174.97 Y174.97 E18.84665
G1 X170.16 Y178.93 E19.23507
G1 X165.79 Y181.26 E19.54425
G1 X164.66 Y181.86 E19.62380
G1 X163.44 Y182.23 E19.70303
G1 X163.44 Y182.23 E19.70309
G1 X158.70 Y183.67 E20.01243
G1 X157.43 Y183.80 E20.09169
G1 X157.43 Y183.79 E20.09176
G1 X152.50 Y184.28 E20.40064
G1 X151.24 Y184.16 E20.48009
G1 X146.30 Y183.67 E20.78929
G1 X145.09 Y183.30 E20.86844
G1 X140.34 Y181.86 E21.17787
G1 X139.22 Y181.26 E21.25719
G1 X134.84 Y178.93 E21.56652
G1 X131.01 Y175.78 E21.87572
G1 X130.03 Y174.97 E21.95507
G1 X126.07 Y170.16 E22.34367
G1 X125.47 Y169.03 E22.42304
G1 X123.14 Y164.66 E22.73214
G1 X122.77 Y163.44 E22.81157
G1 X121.33 Y158.70 E23.12075
G1 X121.20 Y157.43 E23.20008
G1 X120.72 Y152.50 E23.50901
G1 X120.84 Y151.24 E23.58840
G1 X121.33 Y146.30 E23.89752
G1 X121.70 Y145.09 E23.97675
G1 X123.14 Y140.34 E24.28618
G1 X123.74 Y139.22 E24.36550
G1 X126.07 Y134.84 E24.67480
G1 X126.88 Y133.86 E24.75403
G1 X130.03 Y130.03 E25.06336
G0 F6000 X130.38 Y130.38
G1 F2700 X135.12 Y126.49 E25.44576
G1 X140.53 Y123.60 E25.82823
G1 X141.70 Y123.25 E25.90454
G1 X146.40 Y121.82 E26.21051
G1 X151.28 Y121.34 E26.51638
G1 X152.50 Y121.22 E26.59264
G1 X153.72 Y121.34 E26.66915
G1 X158.60 Y121.82 E26.97540
G1 X163.30 Y123.25 E27.28156
G1 X164.47 Y123.60 E27.35775
G1 X165.55 Y124.18 E27.43389
G1 X169.88 Y126.49 E27.74015
G1 X173.67 Y129.61 E28.04629
G1 X174.62 Y130.38 E28.12258
G1 X178.51 Y135.12 E28.50485
G1 X180.82 Y139.45 E28.81094
G1 X181.40 Y140.53 E28.88744
G1 X181.75 Y141.70 E28.96361
G1 X183.18 Y146.40 E29.26983
G1 X183.66 Y151.28 E29.57557
G1 X183.78 Y152.50 E29.65183
G1 X183.66 Y153.72 E29.72828
G1 X183.18 Y158.60 E30.03452
G1 X181.75 Y163.30 E30.34076
G1 X181.40 Y164.47 E30.41694
G1 X180.82 Y165.55 E30.49308
G1 X178.51 Y169.88 E30.79934
G1 X175.39 Y173.67 E31.10548
G1 X174.62 Y174.62 E31.18178
G1 X169.88 Y178.51 E31.56404
G1 X165.55 Y180.82 E31.87013
G1 X164.47 Y181.40 E31.94663
G1 X163.30 Y181.75 E32.02294
G1 X158.60 Y183.18 E32.32909
G1 X157.39 Y183.30 E32.40497
G1 X152.50 Y183.78 E32.71109
G1 X151.28 Y183.66 E32.78754
G1 X146.40 Y183.18 E33.09360
G1 X145.23 Y182.83 E33.16969
G1 X140.53 Y181.40 E33.47607
G1 X139.45 Y180.82 E33.55229
G1 X135.12 Y178.51 E33.85854
G1 X131.33 Y175.39 E34.16469
G1 X130.38 Y174.62 E34.24098
G1 X126.49 Y169.88 E34.62342
G1 X125.92 Y168.80 E34.69970
G1 X123.60 Y164.47 E35.00582
G1 X123.25 Y163.30 E35.08212
G1 X121.82 Y158.60 E35.38823
G1 X121.70 Y157.38 E35.46442
G1 X121.22 Y152.50 E35.77035
G1 X121.34 Y151.28 E35.84667
G1 X121.82 Y146.40 E36.15272
G1 X122.17 Y145.23 E36.22888
G1 X123.60 Y140.53 E36.53525
G1 X124.18 Y139.45 E36.61148
G1 X126.49 Y135.12 E36.91773
G1 X127.27 Y134.18 E36.99390
G1 X130.38 Y130.38 E37.30013
G0 F6000 X130.74 Y130.74
G1 F2700 X135.40 Y126.91 E37.67641
G1 X140.72 Y124.06 E38.05276
G1 X141.85 Y123.72 E38.12599
G1 X146.50 Y122.31 E38.42891
G1 X151.33 Y121.84 E38.73171
G1 X152.50 Y121.72 E38.80497
G1 X153.67 Y121.84 E38.87834
G1 X158.50 Y122.31 E39.18152
G1 X163.16 Y123.72 E39.48462
G1 X164.28 Y124.07 E39.55775
G1 X165.31 Y124.62 E39.63085
G1 X169.60 Y126.91 E39.93401
G1 X173.36 Y129.99 E40.23710
G1 X174.26 Y130.74 E40.31029
G1 X178.09 Y135.40 E40.68644
G1 X180.38 Y139.69 E40.98946
G1 X180.94 Y140.72 E41.06287
G1 X181.28 Y141.84 E41.13596
G1 X181.28 Y141.84 E41.13602
G1 X182.69 Y146.50 E41.43917
G1 X183.16 Y151.33 E41.74183
G1 X183.28 Y152.50 E41.81509
G1 X183.16 Y153.67 E41.88840
G1 X182.69 Y158.50 E42.19158
G1 X181.28 Y163.16 E42.49474
G1 X180.93 Y164.28 E42.56787
G1 X180.38 Y165.31 E42.64097
G1 X178.09 Y169.60 E42.94413
G1 X175.01 Y173.36 E43.24721
G1 X174.26 Y174.26 E43.32041
G1 X169.60 Y178.09 E43.69656
G1 X165.31 Y180.38 E43.99958
G1 X164.28 Y180.94 E44.07298
G1 X163.16 Y181.28 E44.14608
G1 X163.16 Y181.28 E44.14614
G1 X158.50 Y182.69 E44.44928
G1 X157.34 Y182.80 E44.52241
G1 X157.34 Y182.80 E44.52248
G1 X152.50 Y183.28 E44.82535
G1 X151.33 Y183.16 E44.89866
G1 X146.50 Y182.69 E45.20165
G1 X145.38 Y182.35 E45.27469
G1 X140.72 Y180.93 E45.57800
G1 X139.69 Y180.38 E45.65116
G1 X135.40 Y178.09 E45.95432
G1 X131.64 Y175.01 E46.25740
G1 X130.74 Y174.26 E46.33060
G1 X126.91 Y169.60 E46.70688
G1 X126.36 Y168.56 E46.78012
G1 X124.07 Y164.28 E47.08311
G1 X123.72 Y163.15 E47.15636
G1 X122.31 Y158.50 E47.45940
G1 X122.20 Y157.34 E47.53253
G1 X122.20 Y157.34 E47.53260
G1 X121.72 Y152.50 E47.83546
G1 X121.84 Y151.33 E47.90871
G1 X122.31 Y146.50 E48.21169
G1 X122.65 Y145.38 E48.28479
G1 X124.07 Y140.72 E48.58811
G1 X124.62 Y139.69 E48.66126
G1 X126.91 Y135.40 E48.96442
G1 X130.74 Y130.74 E49.34061
G0 F6000 X131.09 Y131.09
G1 F2700 X135.68 Y127.33 E49.71074
G1 X140.91 Y124.53 E50.08092
G1 X141.99 Y124.20 E50.15111
G1 X146.59 Y122.81 E50.45096
G1 X151.38 Y122.33 E50.75087
G1 X151.38 Y122.34 E50.75093
G1 X152.50 Y122.22 E50.82094
G1 X153.62 Y122.33 E50.89124
G1 X158.41 Y122.81 E51.19135
G1 X163.01 Y124.20 E51.49139
G1 X164.09 Y124.53 E51.56145
G1 X165.08 Y125.06 E51.63145
G1 X169.32 Y127.33 E51.93156
G1 X173.04 Y130.38 E52.23150
G1 X173.91 Y131.09 E52.30169
G1 X177.67 Y135.68 E52.67168
G1 X179.94 Y139.92 E52.97166
G1 X180.47 Y140.91 E53.04194
G1 X180.80 Y141.99 E53.11213
G1 X180.80 Y141.99 E53.11220
G1 X182.19 Y146.59 E53.41210
G1 X182.66 Y151.38 E53.71201
G1 X182.66 Y151.38 E53.71208
G1 X182.77 Y152.50 E53.78202
G1 X182.66 Y153.62 E53.85225
G1 X182.19 Y158.41 E54.15236
G1 X180.80 Y163.01 E54.45246
G1 X180.47 Y164.09 E54.52252
G1 X179.94 Y165.08 E54.59252
G1 X177.67 Y169.32 E54.89263
G1 X174.62 Y173.04 E55.19257
G1 X173.91 Y173.91 E55.26276
G1 X169.32 Y177.67 E55.63275
G1 X165.08 Y179.94 E55.93273
G1 X164.09 Y180.47 E56.00301
G1 X163.01 Y180.80 E56.07320
G1 X163.01 Y180.80 E56.07327
G1 X158.41 Y182.19 E56.37323
G1 X157.29 Y182.30 E56.44304
G1 X152.50 Y182.78 E56.74308
G1 X151.38 Y182.67 E56.81332
G1 X146.60 Y182.19 E57.11324
G1 X145.52 Y181.87 E57.18320
G1 X140.92 Y180.47 E57.48340
G1 X139.92 Y179.94 E57.55351
G1 X135.68 Y177.67 E57.85363
G1 X131.96 Y174.62 E58.15357
G1 X131.09 Y173.91 E58.22376
G1 X127.33 Y169.32 E58.59389
G1 X126.80 Y168.33 E58.66403
G1 X124.53 Y164.09 E58.96398
G1 X124.20 Y163.01 E59.03417
G1 X122.81 Y158.41 E59.33414
G1 X122.70 Y157.29 E59.40419
G1 X122.23 Y152.50 E59.70398
G1 X122.33 Y151.38 E59.77416
G1 X122.81 Y146.60 E60.07413
G1 X123.13 Y145.52 E60.14409
G1 X124.53 Y140.92 E60.44429
G1 X125.06 Y139.92 E60.51440
G1 X127.33 Y135.68 E60.81452
G1 X131.09 Y131.09 E61.18456
G0 F6000 X131.45 Y131.45
G1 F2700 X135.96 Y127.75 E61.54852
G1 X141.11 Y124.99 E61.91253
G1 X142.14 Y124.68 E61.97965
G1 X146.69 Y123.30 E62.27644
G1 X151.43 Y122.83 E62.57316
G1 X152.50 Y122.73 E62.64021
G1 X153.57 Y122.83 E62.70745
G1 X158.31 Y123.30 E63.00448
G1 X162.87 Y124.68 E63.30139
G1 X163.89 Y125.00 E63.36841
G1 X164.84 Y125.50 E63.43539
G1 X169.04 Y127.75 E63.73241
G1 X172.72 Y130.77 E64.02930
G1 X173.55 Y131.45 E64.09634
G1 X177.25 Y135.96 E64.46026
G1 X179.50 Y140.16 E64.75714
G1 X180.01 Y141.11 E64.82433
G1 X180.32 Y142.14 E64.89138
G1 X181.70 Y146.69 E65.18827
G1 X182.17 Y151.43 E65.48493
G1 X182.27 Y152.50 E65.55198
G1 X182.17 Y153.57 E65.61915
G1 X181.70 Y158.31 E65.91618
G1 X180.32 Y162.87 E66.21315
G1 X180.00 Y163.89 E66.28017
G1 X179.50 Y164.84 E66.34715
G1 X177.25 Y169.04 E66.64417
G1 X174.23 Y172.72 E66.94106
G1 X173.55 Y173.55 E67.00810
G1 X169.04 Y177.25 E67.37202
G1 X164.84 Y179.50 E67.66890
G1 X163.89 Y180.01 E67.73609
G1 X162.86 Y180.32 E67.80314
G1 X158.31 Y181.70 E68.10011
G1 X157.24 Y181.81 E68.16684
G1 X152.50 Y182.27 E68.46382
G1 X151.43 Y182.17 E68.53099
G1 X146.69 Y181.70 E68.82784
G1 X145.67 Y181.39 E68.89474
G1 X141.11 Y180.01 E69.19187
G1 X140.16 Y179.50 E69.25893
G1 X135.96 Y177.25 E69.55596
G1 X132.28 Y174.23 E69.85284
G1 X131.45 Y173.55 E69.91988
G1 X127.75 Y169.04 E70.28389
G1 X127.24 Y168.09 E70.35093
G1 X127.24 Y168.09 E70.35100
G1 X124.99 Y163.89 E70.64794
G1 X124.68 Y162.86 E70.71505
G1 X123.30 Y158.31 E71.01198
G1 X123.19 Y157.24 E71.07896
G1 X122.73 Y152.50 E71.37574
G1 X122.83 Y151.43 E71.44279
G1 X123.30 Y146.69 E71.73970
G1 X123.61 Y145.67 E71.80660
G1 X124.99 Y141.11 E72.10372
G1 X125.50 Y140.16 E72.17079
G1 X127.75 Y135.96 E72.46778
G1 X131.45 Y131.45 E72.83175
G0 F6000 X131.80 Y131.80
G1 F2700 X136.24 Y128.16 E73.18955
G1 X141.30 Y125.46 E73.54748
G1 X142.28 Y125.16 E73.61132
G1 X142.28 Y125.16 E73.61138
G1 X146.79 Y123.79 E73.90523
G1 X151.48 Y123.33 E74.19901
G1 X151.48 Y123.33 E74.19907
G1 X152.50 Y123.23 E74.26299
G1 X153.52 Y123.33 E74.32709
G1 X158.21 Y123.79 E74.62106
G1 X162.72 Y125.16 E74.91489
G1 X163.70 Y125.46 E74.97885
G1 X164.60 Y125.94 E75.04274
G1 X168.76 Y128.16 E75.33669
G1 X172.40 Y131.15 E75.63051
G1 X173.20 Y131.80 E75.69454
G1 X176.84 Y136.24 E76.05225
G1 X179.54 Y141.30 E76.41018
G1 X179.84 Y142.28 E76.47416
G1 X181.21 Y146.79 E76.76801
G1 X181.67 Y151.48 E77.06178
G1 X181.67 Y151.48 E77.06184
G1 X181.77 Y152.50 E77.12570
G1 X181.67 Y153.52 E77.18980
G1 X181.21 Y158.21 E77.48370
G1 X179.84 Y162.72 E77.77759
G1 X179.54 Y163.70 E77.84155
G1 X179.06 Y164.60 E77.90544
G1 X176.84 Y168.76 E78.19939
G1 X173.85 Y172.40 E78.49321
G1 X173.20 Y173.20 E78.55724
G1 X168.76 Y176.84 E78.91495
G1 X163.70 Y179.54 E79.27288
G1 X162.72 Y179.84 E79.33686
G1 X158.21 Y181.21 E79.63077
G1 X157.19 Y181.31 E79.69463
G1 X157.19 Y181.31 E79.69469
G1 X152.50 Y181.77 E79.98841
G1 X151.48 Y181.67 E80.05250
G1 X146.79 Y181.21 E80.34634
G1 X145.81 Y180.91 E80.41014
G1 X141.30 Y179.54 E80.70419
G1 X140.40 Y179.06 E80.76816
G1 X136.24 Y176.84 E81.06212
G1 X132.60 Y173.85 E81.35594
G1 X131.80 Y173.20 E81.41996
G1 X128.16 Y168.76 E81.77781
G1 X127.68 Y167.86 E81.84156
G1 X125.46 Y163.70 E82.13559
G1 X125.16 Y162.72 E82.19949
G1 X125.16 Y162.72 E82.19956
G1 X123.79 Y158.21 E82.49354
G1 X123.69 Y157.19 E82.55740
G1 X123.23 Y152.50 E82.85116
G1 X123.33 Y151.48 E82.91520
G1 X123.79 Y146.79 E83.20897
G1 X124.09 Y145.81 E83.27283
G1 X125.46 Y141.30 E83.56688
G1 X125.94 Y140.40 E83.63085
G1 X128.16 Y136.24 E83.92480
G1 X131.80 Y131.80 E84.28261
G0 F6000 X132.16 Y132.16
G1 F2700 X136.52 Y128.58 E84.63435
G1 X141.49 Y125.92 E84.98608
G1 X142.43 Y125.64 E85.04700
G1 X146.89 Y124.28 E85.33768
G1 X151.53 Y123.83 E85.62831
G1 X152.50 Y123.73 E85.68923
G1 X153.47 Y123.83 E85.75026
G1 X158.11 Y124.28 E86.04115
G1 X162.57 Y125.64 E86.33194
G1 X163.51 Y125.92 E86.39282
G1 X164.37 Y126.38 E86.45367
G1 X168.48 Y128.58 E86.74452
G1 X172.09 Y131.54 E87.03524
G1 X172.84 Y132.16 E87.09621
G1 X176.42 Y136.52 E87.44782
G1 X179.08 Y141.49 E87.79958
G1 X179.36 Y142.43 E87.86050
G1 X180.72 Y146.89 E88.15127
G1 X181.17 Y151.53 E88.44185
G1 X181.27 Y152.50 E88.50276
G1 X181.17 Y153.47 E88.56379
G1 X180.72 Y158.11 E88.85461
G1 X179.36 Y162.57 E89.14546
G1 X179.08 Y163.51 E89.20634
G1 X178.62 Y164.37 E89.26719
G1 X176.42 Y168.48 E89.55805
G1 X173.46 Y172.09 E89.84876
G1 X172.84 Y172.84 E89.90974
G1 X168.48 Y176.42 E90.26134
G1 X163.51 Y179.08 E90.61310
G1 X162.57 Y179.36 E90.67402
G1 X158.11 Y180.72 E90.96486
G1 X157.14 Y180.81 E91.02551
G1 X152.50 Y181.27 E91.31634
G1 X151.53 Y181.17 E91.37731
G1 X146.89 Y180.72 E91.66808
G1 X145.96 Y180.43 E91.72881
G1 X141.49 Y179.08 E92.01980
G1 X140.63 Y178.62 E92.08073
G1 X136.52 Y176.42 E92.37158
G1 X132.91 Y173.46 E92.66230
G1 X132.16 Y172.84 E92.72327
G1 X128.58 Y168.48 E93.07496
G1 X128.12 Y167.62 E93.13581
G1 X125.92 Y163.51 E93.42667
G1 X125.64 Y162.57 E93.48759
G1 X124.28 Y158.11 E93.77838
G1 X124.19 Y157.14 E93.83916
G1 X123.73 Y152.50 E94.12986
G1 X123.83 Y151.53 E94.19083
G1 X124.28 Y146.89 E94.48153
G1 X124.57 Y145.96 E94.54232
G1 X125.92 Y141.49 E94.83330
G1 X126.38 Y140.63 E94.89424
G1 X128.58 Y136.52 E95.18504
G1 X132.16 Y132.16 E95.53669
G0 F6000 X132.51 Y132.51
G1 F2700 X136.80 Y129.00 E95.88222
G1 X141.68 Y126.39 E96.22779
G1 X142.57 Y126.12 E96.28551
G1 X142.57 Y126.12 E96.28558
G1 X146.99 Y124.78 E96.57337
G1 X151.57 Y124.33 E96.86087
G1 X152.50 Y124.23 E96.91878
G1 X153.42 Y124.33 E96.97668
G1 X158.01 Y124.78 E97.26451
G1 X162.43 Y126.12 E97.55216
G1 X163.32 Y126.39 E97.61004
G1 X164.13 Y126.82 E97.66780
G1 X168.20 Y129.00 E97.95556
G1 X171.77 Y131.93 E98.24322
G1 X172.49 Y132.51 E98.30109
G1 X176.00 Y136.80 E98.64657
G1 X178.61 Y141.68 E98.99223
G1 X180.22 Y146.99 E99.33780
G1 X180.67 Y151.57 E99.62524
G1 X180.76 Y152.50 E99.68315
G1 X180.67 Y153.42 E99.74105
G1 X180.22 Y158.01 E100.02881
G1 X178.88 Y162.43 E100.31652
G1 X178.61 Y163.32 E100.37440
G1 X178.18 Y164.13 E100.43215
G1 X176.00 Y168.20 E100.71991
G1 X173.07 Y171.77 E101.00758
G1 X172.49 Y172.49 E101.06545
G1 X168.20 Y176.00 E101.41093
G1 X163.32 Y178.61 E101.75658
G1 X158.01 Y180.22 E102.10216
G1 X157.09 Y180.31 E102.15988
G1 X157.09 Y180.31 E102.15994
G1 X152.50 Y180.77 E102.44758
G1 X151.58 Y180.68 E102.50548
G1 X146.99 Y180.22 E102.79318
G1 X146.10 Y179.95 E102.85085
G1 X141.68 Y178.61 E103.13878
G1 X140.87 Y178.18 E103.19659
G1 X136.80 Y176.00 E103.48435
G1 X133.23 Y173.07 E103.77201
G1 X132.51 Y172.49 E103.82988
G1 X129.00 Y168.20 E104.17545
G1 X128.56 Y167.38 E104.23326
G1 X126.39 Y163.32 E104.52099
G1 X126.12 Y162.43 E104.57871
G1 X126.12 Y162.43 E104.57878
G1 X124.78 Y158.01 E104.86657
G1 X124.69 Y157.09 E104.92435
G1 X124.69 Y157.09 E104.92441
G1 X124.23 Y152.50 E105.21205
G1 X124.33 Y151.58 E105.26995
G1 X124.78 Y146.99 E105.55764
G1 X125.05 Y146.10 E105.61531
G1 X126.39 Y141.68 E105.90324
G1 X126.82 Y140.87 E105.96104
G1 X129.00 Y136.80 E106.24880
G1 X132.51 Y132.51 E106.59434
G0 F6000 X132.87 Y132.87
G1 F2700 X137.08 Y129.42 E106.93375
G1 X141.88 Y126.85 E107.27315
G1 X142.72 Y126.60 E107.32796
G1 X147.08 Y125.27 E107.61256
G1 X151.62 Y124.82 E107.89700
G1 X152.50 Y124.74 E107.95183
G1 X153.37 Y124.82 E108.00671
G1 X157.92 Y125.27 E108.29135
G1 X162.28 Y126.60 E108.57600
G1 X163.12 Y126.85 E108.63075
G1 X163.90 Y127.26 E108.68551
G1 X167.92 Y129.42 E108.97015
G1 X172.13 Y132.87 E109.30957
G1 X175.58 Y137.07 E109.64889
G1 X178.15 Y141.88 E109.98841
G1 X179.73 Y147.09 E110.32785
G1 X180.18 Y151.62 E110.61222
G1 X180.26 Y152.50 E110.66705
G1 X180.18 Y153.37 E110.72188
G1 X179.73 Y157.92 E111.00657
G1 X178.40 Y162.28 E111.29122
G1 X178.15 Y163.12 E111.34597
G1 X177.74 Y163.90 E111.40074
G1 X175.58 Y167.92 E111.68537
G1 X172.13 Y172.13 E112.02479
G1 X167.93 Y175.58 E112.36411
G1 X163.12 Y178.15 E112.70363
G1 X157.91 Y179.73 E113.04307
G1 X157.04 Y179.81 E113.09759
G1 X152.50 Y180.26 E113.38228
G1 X151.63 Y180.18 E113.43717
G1 X147.09 Y179.73 E113.72174
G1 X146.25 Y179.48 E113.77633
G1 X141.88 Y178.15 E114.06120
G1 X141.10 Y177.74 E114.11597
G1 X137.08 Y175.58 E114.40060
G1 X132.87 Y172.13 E114.74002
G1 X129.42 Y167.92 E115.07943
G1 X129.00 Y167.15 E115.13414
G1 X126.85 Y163.12 E115.41883
G1 X126.60 Y162.28 E115.47364
G1 X125.27 Y157.92 E115.75824
G1 X125.19 Y157.04 E115.81294
G1 X124.74 Y152.50 E116.09756
G1 X124.82 Y151.63 E116.15233
G1 X125.27 Y147.09 E116.43695
G1 X125.52 Y146.25 E116.49154
G1 X126.85 Y141.88 E116.77641
G1 X127.26 Y141.10 E116.83118
G1 X129.42 Y137.08 E117.11581
G1 X132.87 Y132.87 E117.45523
G0 F6000 X133.22 Y133.22
G1 F2700 X137.35 Y129.83 E117.78849
G1 X142.07 Y127.31 E118.12175
G1 X142.86 Y127.08 E118.17342
G1 X147.18 Y125.76 E118.45502
G1 X152.50 Y125.24 E118.78822
G1 X153.32 Y125.32 E118.83998
G1 X157.82 Y125.76 E119.12154
G1 X162.14 Y127.07 E119.40312
G1 X162.93 Y127.31 E119.45480
G1 X163.66 Y127.70 E119.50647
G1 X167.65 Y129.83 E119.78807
G1 X171.78 Y133.22 E120.12133
G1 X175.17 Y137.35 E120.45459
G1 X177.69 Y142.07 E120.78788
G1 X179.24 Y147.18 E121.12121
G1 X179.68 Y151.67 E121.40250
G1 X179.76 Y152.50 E121.45427
G1 X179.68 Y153.32 E121.50609
G1 X179.24 Y157.82 E121.78764
G1 X177.93 Y162.14 E122.06922
G1 X177.69 Y162.93 E122.12091
G1 X177.29 Y163.66 E122.17258
G1 X175.17 Y167.65 E122.45417
G1 X171.78 Y171.78 E122.78743
G1 X167.65 Y175.17 E123.12069
G1 X162.93 Y177.69 E123.45399
G1 X157.82 Y179.24 E123.78731
G1 X157.00 Y179.32 E123.83876
G1 X152.50 Y179.76 E124.12044
G1 X151.68 Y179.68 E124.17220
G1 X147.18 Y179.24 E124.45370
G1 X146.39 Y179.00 E124.50523
G1 X142.07 Y177.69 E124.78703
G1 X141.34 Y177.29 E124.83870
G1 X137.35 Y175.17 E125.12029
G1 X133.22 Y171.78 E125.45355
G1 X129.83 Y167.65 E125.78681
G1 X129.44 Y166.91 E125.83848
G1 X127.31 Y162.93 E126.12007
G1 X127.08 Y162.14 E126.17180
G1 X125.76 Y157.82 E126.45336
G1 X125.68 Y156.99 E126.50499
G1 X125.24 Y152.50 E126.78654
G1 X125.32 Y151.68 E126.83830
G1 X125.76 Y147.18 E127.11979
G1 X126.00 Y146.39 E127.17134
G1 X127.31 Y142.07 E127.45313
G1 X127.70 Y141.34 E127.50480
G1 X129.83 Y137.35 E127.78640
G1 X133.22 Y133.22 E128.11966
G0 F6000 X133.58 Y133.58
G1 F2700 X137.63 Y130.25 E128.44680
G1 X142.26 Y127.78 E128.77393
G1 X147.28 Y126.26 E129.10108
G1 X152.50 Y125.74 E129.42812
G1 X153.28 Y125.82 E129.47680
G1 X157.72 Y126.26 E129.75529
G1 X161.99 Y127.55 E130.03383
G1 X162.74 Y127.78 E130.08245
G1 X163.43 Y128.15 E130.13102
G1 X167.37 Y130.25 E130.40957
G1 X171.42 Y133.58 E130.73667
G1 X174.75 Y137.63 E131.06376
G1 X177.22 Y142.26 E131.39092
G1 X178.74 Y147.28 E131.71805
G1 X179.18 Y151.72 E131.99647
G1 X179.18 Y151.72 E131.99653
G1 X179.26 Y152.50 E132.04516
G1 X179.18 Y153.28 E132.09384
G1 X178.74 Y157.72 E132.37232
G1 X177.45 Y161.99 E132.65086
G1 X177.22 Y162.74 E132.69947
G1 X176.85 Y163.43 E132.74805
G1 X174.75 Y167.37 E133.02660
G1 X171.42 Y171.42 E133.35370
G1 X167.37 Y174.75 E133.68079
G1 X162.74 Y177.22 E134.00795
G1 X157.72 Y178.74 E134.33514
G1 X156.95 Y178.82 E134.38352
G1 X152.50 Y179.26 E134.66212
G1 X151.72 Y179.18 E134.71080
G1 X147.28 Y178.74 E134.98923
G1 X146.54 Y178.52 E135.03770
G1 X142.26 Y177.22 E135.31638
G1 X141.57 Y176.85 E135.36501
G1 X137.63 Y174.75 E135.64356
G1 X133.58 Y171.42 E135.97066
G1 X130.25 Y167.37 E136.29775
G1 X129.88 Y166.68 E136.34633
G1 X127.78 Y162.74 E136.62488
G1 X126.26 Y157.72 E136.95209
G1 X125.74 Y152.50 E137.27913
G1 X125.82 Y151.72 E137.32775
G1 X126.26 Y147.28 E137.60617
G1 X126.48 Y146.54 E137.65464
G1 X127.78 Y142.26 E137.93332
G1 X128.15 Y141.57 E137.98195
G1 X130.25 Y137.63 E138.26050
G1 X133.58 Y133.58 E138.58756
G0 F6000 X133.94 Y133.94
G1 F2700 X137.91 Y130.67 E138.90850
G1 X142.45 Y128.24 E139.22954
G1 X147.38 Y126.75 E139.55050
G1 X152.50 Y126.24 E139.87141
G1 X153.23 Y126.31 E139.91702
G1 X157.62 Y126.75 E140.19244
G1 X162.55 Y128.24 E140.51340
G1 X167.09 Y130.67 E140.83436
G1 X171.06 Y133.94 E141.15538
G1 X174.33 Y137.91 E141.47632
G1 X176.76 Y142.45 E141.79734
G1 X178.25 Y147.38 E142.11834
G1 X178.75 Y152.50 E142.43924
G1 X178.68 Y153.23 E142.48486
G1 X178.25 Y157.62 E142.76027
G1 X176.76 Y162.55 E143.08123
G1 X174.33 Y167.09 E143.40219
G1 X171.06 Y171.06 E143.72321
G1 X167.09 Y174.33 E144.04415
G1 X162.55 Y176.76 E144.36517
G1 X157.62 Y178.25 E144.68617
G1 X152.50 Y178.76 E145.00714
G1 X151.77 Y178.69 E145.05269
G1 X147.38 Y178.25 E145.32811
G1 X146.68 Y178.04 E145.37347
G1 X142.45 Y176.76 E145.64907
G1 X137.91 Y174.33 E145.97003
G1 X133.94 Y171.06 E146.29105
G1 X130.67 Y167.09 E146.61203
G1 X128.24 Y162.55 E146.93305
G1 X126.75 Y157.62 E147.25400
G1 X126.25 Y152.50 E147.57497
G1 X126.32 Y151.77 E147.62052
G1 X126.75 Y147.38 E147.89587
G1 X126.96 Y146.68 E147.94129
G1 X128.24 Y142.45 E148.21689
G1 X130.67 Y137.91 E148.53785
G1 X133.94 Y133.94 E148.85888
G0 F6000 X134.29 Y134.29
G1 F2700 X138.19 Y131.09 E149.17370
G1 X142.65 Y128.71 E149.48855
G1 X147.48 Y127.24 E149.80339
G1 X152.50 Y126.75 E150.11822
G1 X157.52 Y127.24 E150.43305
G1 X162.35 Y128.71 E150.74789
G1 X166.81 Y131.09 E151.06269
G1 X170.71 Y134.29 E151.37756
G1 X173.91 Y138.19 E151.69238
G1 X176.29 Y142.65 E152.00726
G1 X177.76 Y147.48 E152.32208
G1 X178.25 Y152.50 E152.63691
G1 X177.76 Y157.52 E152.95173
G1 X176.29 Y162.35 E153.26658
G1 X173.91 Y166.81 E153.58137
G1 X170.71 Y170.71 E153.89624
G1 X166.81 Y173.91 E154.21106
G1 X162.35 Y176.29 E154.52594
G1 X157.52 Y177.76 E154.84076
G1 X152.50 Y178.25 E155.15559
G1 X147.48 Y177.76 E155.47037
G1 X142.65 Y176.29 E155.78525
G1 X138.19 Y173.91 E156.10007
G1 X134.29 Y170.71 E156.41494
G1 X131.09 Y166.81 E156.72976
G1 X128.71 Y162.35 E157.04461
G1 X127.24 Y157.52 E157.35945
G1 X126.75 Y152.50 E157.67428
G1 X127.24 Y147.48 E157.98905
G1 X128.71 Y142.65 E158.30393
G1 X131.09 Y138.19 E158.61875
G1 X134.29 Y134.29 E158.93362
G0 F6000 X134.65 Y134.65
G1 F2700 X138.47 Y131.50 E159.24229
G1 X142.84 Y129.17 E159.55100
G1 X147.57 Y127.73 E159.85970
G1 X152.50 Y127.25 E160.16839
G1 X157.43 Y127.73 E160.47708
G1 X162.16 Y129.17 E160.78579
G1 X166.53 Y131.50 E161.09445
G1 X170.35 Y134.65 E161.40316
G1 X173.50 Y138.47 E161.71183
G1 X175.83 Y142.84 E162.02057
G1 X177.26 Y147.57 E162.32925
G1 X177.75 Y152.50 E162.63794
G1 X177.26 Y157.43 E162.94662
G1 X175.83 Y162.16 E163.25533
G1 X173.50 Y166.53 E163.56398
G1 X170.35 Y170.35 E163.87270
G1 X166.53 Y173.50 E164.18137
G1 X162.16 Y175.83 E164.49011
G1 X157.43 Y177.26 E164.79879
G1 X152.50 Y177.75 E165.10748
G1 X147.57 Y177.26 E165.41617
G1 X142.84 Y175.83 E165.72488
G1 X138.47 Y173.50 E166.03354
G1 X134.65 Y170.35 E166.34225
G1 X131.50 Y166.53 E166.65092
G1 X129.17 Y162.16 E166.95963
G1 X127.73 Y157.43 E167.26833
G1 X127.25 Y152.50 E167.57702
G1 X127.73 Y147.57 E167.88570
G1 X129.17 Y142.84 E168.19441
G1 X131.50 Y138.47 E168.50306
G1 X134.65 Y134.65 E168.81178
G0 F6000 X135.36 Y135.36
;TYPE:WALL-INNER
G1 F2700 X139.03 Y132.34 E169.10835
G1 X143.22 Y130.10 E169.40447
G1 X147.77 Y128.72 E169.70113
G1 X152.50 Y128.25 E169.99747
G1 X157.23 Y128.72 E170.29357
G1 X161.78 Y130.10 E170.59030
G1 X165.97 Y132.34 E170.88665
G1 X169.64 Y135.36 E171.18304
G1 X172.66 Y139.03 E171.47961
G1 X174.90 Y143.22 E171.77577
G1 X176.28 Y147.77 E172.07242
G1 X176.75 Y152.50 E172.36869
G1 X176.28 Y157.23 E172.66484
G1 X174.90 Y161.78 E172.96157
G1 X172.66 Y165.97 E173.25793
G1 X169.64 Y169.64 E173.55432
G1 X165.97 Y172.66 E173.85089
G1 X161.78 Y174.90 E174.14705
G1 X157.23 Y176.28 E174.44376
G1 X152.50 Y176.75 E174.73997
G1 X147.77 Y176.28 E175.03619
G1 X143.22 Y174.90 E175.33278
G1 X139.03 Y172.66 E175.62922
G1 X135.36 Y169.64 E175.92561
G1 X132.34 Y165.97 E176.22201
G1 X130.10 Y161.78 E176.51844
G1 X128.72 Y157.23 E176.81504
G1 X128.25 Y152.50 E177.11125
G1 X128.72 Y147.77 E177.40746
G1 X130.10 Y143.22 E177.70405
G1 X132.34 Y139.03 E178.00049
G1 X135.36 Y135.36 E178.29688
G0 F6000 X149.84 Y149.85
G1 F2700 X149.38 Y150.41 E178.34270
G1 X149.19 Y150.76 E178.36697
G1 X149.19 Y154.24 E178.58437
G1 X149.38 Y154.59 E178.60912
G1 X149.84 Y155.15 E178.65440
G1 X150.41 Y155.62 E178.70027
G1 X151.06 Y155.97 E178.74614
G1 X151.77 Y156.18 E178.79207
G1 X152.50 Y156.25 E178.83794
G1 X153.23 Y156.18 E178.88382
G1 X153.94 Y155.97 E178.92975
G1 X154.58 Y155.62 E178.97562
G1 X155.15 Y155.15 E179.02148
G1 X155.62 Y154.59 E179.06734
G1 X155.97 Y153.94 E179.11326
G1 X156.18 Y153.23 E179.15915
G1 X156.25 Y152.50 E179.20502
G1 X156.18 Y151.77 E179.25083
G1 X155.97 Y151.06 E179.29671
G1 X155.62 Y150.41 E179.34263
G1 X155.15 Y149.85 E179.38849
G1 X154.58 Y149.38 E179.43440
G1 X153.93 Y149.03 E179.48029
G1 X153.23 Y148.82 E179.52616
G1 X152.50 Y148.75 E179.57204
G1 X151.77 Y148.82 E179.61791
G1 X151.06 Y149.03 E179.66378
G1 X150.41 Y149.38 E179.70968
G1 X149.84 Y149.85 E179.75558
G0 F6000 X150.20 Y150.20
;TYPE:WALL-OUTER
G1 F2700 X149.79 Y150.69 E179.79528
G1 X149.69 Y150.88 E179.80865
G1 X149.69 Y154.12 E180.01033
G1 X149.80 Y154.31 E180.02417
G1 X150.20 Y154.80 E180.06343
G1 X150.69 Y155.20 E180.10318
G1 X151.25 Y155.50 E180.14294
G1 X151.86 Y155.69 E180.18268
G1 X152.50 Y155.75 E180.22241
G1 X153.13 Y155.69 E180.26214
G1 X153.74 Y155.50 E180.30187
G1 X154.30 Y155.20 E180.34163
G1 X154.80 Y154.80 E180.38138
G1 X155.20 Y154.31 E180.42108
G1 X155.50 Y153.74 E180.46087
G1 X155.69 Y153.13 E180.50062
G1 X155.75 Y152.50 E180.54035
G1 X155.69 Y151.87 E180.58001
G1 X155.50 Y151.26 E180.61976
G1 X155.20 Y150.69 E180.65955
G1 X154.80 Y150.20 E180.69925
G1 X154.30 Y149.80 E180.73904
G1 X153.74 Y149.50 E180.77877
G1 X153.13 Y149.31 E180.81850
G1 X152.50 Y149.25 E180.85823
G1 X151.86 Y149.31 E180.89796
G1 X151.25 Y149.50 E180.93770
G1 X150.69 Y149.80 E180.97743
G1 X150.20 Y150.20 E181.01722
G0 F6000 X149.98 Y149.93
G0 X135.25 Y135.25
G0 X135.00 Y135.00
G1 F2700 X138.75 Y131.92 E181.31985
G1 X143.03 Y129.64 E181.62229
G1 X147.67 Y128.23 E181.92468
G1 X152.50 Y127.75 E182.22748
G1 X157.33 Y128.23 E182.53004
G1 X161.97 Y129.63 E182.83235
G1 X166.25 Y131.92 E183.13520
G1 X170.00 Y135.00 E183.43762
G1 X173.08 Y138.75 E183.74025
G1 X175.37 Y143.03 E184.04272
G1 X176.77 Y147.67 E184.34509
G1 X177.25 Y152.50 E184.64782
G1 X176.77 Y157.33 E184.95043
G1 X175.37 Y161.97 E185.25275
G1 X173.08 Y166.25 E185.55560
G1 X170.00 Y170.00 E185.85801
G1 X166.25 Y173.08 E186.16065
G1 X161.97 Y175.37 E186.46311
G1 X157.33 Y176.77 E186.76549
G1 X152.50 Y177.25 E187.06823
G1 X147.67 Y176.77 E187.37097
G1 X143.03 Y175.37 E187.67303
G1 X138.75 Y173.08 E187.97602
G1 X135.00 Y170.00 E188.27843
G1 X131.92 Y166.25 E188.58084
G1 X129.63 Y161.97 E188.88384
G1 X128.23 Y157.33 E189.18589
G1 X127.75 Y152.50 E189.48863
G1 X128.23 Y147.67 E189.79136
G1 X129.63 Y143.03 E190.09342
G1 X131.92 Y138.75 E190.39641
G1 X135.00 Y135.00 E190.69882
G0 F6000 X135.32 Y135.67
;TYPE:FILL
G1 F2700 X149.56 Y149.91 E191.95467
G0 F6000 X149.91 Y149.56
G1 F2700 X135.68 Y135.32 E193.21046
G0 F6000 X136.06 Y135.00
G1 F2700 X150.30 Y149.24 E194.46635
G0 F6000 X150.76 Y148.99
G1 F2700 X136.45 Y134.68 E195.72836
G0 F6000 X136.84 Y134.37
G1 F2700 X151.26 Y148.79 E197.00039
G0 F6000 X151.82 Y148.64
G1 F2700 X137.23 Y134.05 E198.28732
G0 F6000 X137.62 Y133.73
G1 F2700 X152.46 Y148.57 E199.59674
G0 F6000 X153.24 Y148.65
G1 F2700 X138.00 Y133.41 E200.94056
G0 F6000 X138.39 Y133.09
G1 F2700 X154.37 Y149.07 E202.34986
G0 F6000 X155.93 Y150.62
G1 F2700 X171.91 Y166.61 E203.75933
G0 F6000 X171.59 Y167.00
G1 F2700 X156.35 Y151.76 E205.10333
G0 F6000 X156.42 Y152.53
G1 F2700 X171.27 Y167.38 E206.41310
G0 F6000 X170.95 Y167.77
G1 F2700 X156.36 Y153.18 E207.70025
G0 F6000 X156.21 Y153.73
G1 F2700 X170.63 Y168.16 E208.97254
G0 F6000 X170.32 Y168.55
G1 F2700 X156.00 Y154.23 E210.23495
G0 F6000 X155.75 Y154.69
G1 F2700 X170.00 Y168.94 E211.49115
G0 F6000 X169.68 Y169.32
G1 F2700 X155.44 Y155.08 E212.74734
G0 F6000 X155.08 Y155.44
G1 F2700 X169.32 Y169.68 E214.00340
G0 F6000 X168.94 Y170.00
G1 F2700 X154.69 Y155.75 E215.25942
G0 F6000 X154.24 Y156.00
G1 F2700 X168.55 Y170.31 E216.52161
G0 F6000 X168.16 Y170.63
G1 F2700 X153.73 Y156.21 E217.79382
G0 F6000 X153.18 Y156.36
G1 F2700 X167.77 Y170.95 E219.08066
G0 F6000 X167.38 Y171.27
G1 F2700 X152.53 Y156.42 E220.39008
G0 F6000 X151.76 Y156.35
G1 F2700 X166.99 Y171.59 E221.73381
G0 F6000 X166.61 Y171.91
G1 F2700 X150.63 Y155.94 E223.14245
G0 F6000 X149.06 Y154.36
G1 F2700 X133.09 Y138.39 E224.55108
G0 F6000 X133.41 Y138.00
G1 F2700 X149.02 Y153.62 E225.92797
G0 F6000 X149.02 Y152.91
G1 F2700 X133.73 Y137.62 E227.27673
G0 F6000 X134.04 Y137.23
G1 F2700 X149.02 Y152.20 E228.59735
G0 F6000 X149.02 Y151.49
G1 F2700 X134.36 Y136.84 E229.88983
G0 F6000 X134.68 Y136.45
G1 F2700 X149.02 Y150.79 E231.15414
G0 F6000 X149.24 Y150.30
G1 F2700 X135.00 Y136.06 E232.41007
G0 F6000 X132.77 Y138.78
G1 F2700 X166.22 Y172.23 E235.35995
G0 F6000 X165.82 Y172.54
G1 F2700 X132.46 Y139.18 E238.30238
G0 F6000 X132.21 Y139.64
G1 F2700 X165.36 Y172.79 E241.22593
G0 F6000 X164.90 Y173.03
G1 F2700 X131.97 Y140.10 E244.13052
G0 F6000 X131.72 Y140.56
G1 F2700 X164.44 Y173.28 E247.01623
G0 F6000 X163.98 Y173.53
G1 F2700 X131.47 Y141.02 E249.88307
G0 F6000 X131.23 Y141.48
G1 F2700 X163.52 Y173.77 E252.73096
G0 F6000 X163.06 Y174.02
G1 F2700 X130.98 Y141.94 E255.55996
G0 F6000 X130.73 Y142.40
G1 F2700 X162.60 Y174.26 E258.37005
G0 F6000 X162.14 Y174.51
G1 F2700 X130.49 Y142.86 E261.16122
G0 F6000 X130.25 Y143.33
G1 F2700 X161.67 Y174.75 E263.93229
G0 F6000 X161.13 Y174.91
G1 F2700 X130.08 Y143.87 E266.67001
G0 F6000 X129.92 Y144.41
G1 F2700 X160.58 Y175.08 E269.37440
G0 F6000 X160.04 Y175.24
G1 F2700 X129.75 Y144.96 E272.04536
G0 F6000 X129.59 Y145.50
G1 F2700 X159.50 Y175.41 E274.68308
G0 F6000 X158.96 Y175.57
G1 F2700 X129.43 Y146.04 E277.28750
G0 F6000 X129.26 Y146.59
G1 F2700 X158.41 Y175.74 E279.85849
G0 F6000 X157.87 Y175.90
G1 F2700 X129.10 Y147.13 E282.39615
G0 F6000 X128.93 Y147.67
G1 F2700 X157.33 Y176.07 E284.90047
G0 F6000 X156.71 Y176.15
G1 F2700 X128.84 Y148.29 E287.35800
G0 F6000 X128.78 Y148.93
G1 F2700 X156.06 Y176.22 E289.76443
G0 F6000 X155.42 Y176.28
G1 F2700 X128.72 Y149.58 E292.11961
G0 F6000 X128.65 Y150.22
G1 F2700 X154.78 Y176.34 E294.42369
G0 F6000 X154.13 Y176.41
G1 F2700 X128.59 Y150.86 E296.67652
G0 F6000 X128.53 Y151.51
G1 F2700 X153.49 Y176.47 E298.87811
G0 F6000 X152.85 Y176.53
G1 F2700 X128.46 Y152.15 E301.02864
G0 F6000 X128.47 Y152.86
G1 F2700 X152.14 Y176.53 E303.11651
G0 F6000 X151.35 Y176.46
G1 F2700 X128.54 Y153.64 E305.12844
G0 F6000 X128.62 Y154.43
G1 F2700 X150.57 Y176.38 E307.06444
G0 F6000 X149.78 Y176.30
G1 F2700 X128.70 Y155.21 E308.92436
G0 F6000 X128.77 Y156.00
G1 F2700 X149.00 Y176.22 E310.70831
G0 F6000 X148.22 Y176.15
G1 F2700 X128.85 Y156.78 E312.41633
G0 F6000 X129.04 Y157.68
G1 F2700 X147.32 Y175.96 E314.02896
G0 F6000 X146.31 Y175.65
G1 F2700 X129.35 Y158.69 E315.52491
G0 F6000 X129.65 Y159.71
G1 F2700 X145.29 Y175.34 E316.90427
G0 F6000 X144.28 Y175.04
G1 F2700 X129.96 Y160.72 E318.16694
G0 F6000 X130.28 Y161.75
G1 F2700 X143.25 Y174.72 E319.31087
G0 F6000 X141.73 Y173.90
G1 F2700 X131.09 Y163.27 E320.24899
G0 F6000 X131.91 Y164.79
G1 F2700 X140.21 Y173.09 E320.98131
G0 F6000 X137.99 Y171.58
G1 F2700 X133.42 Y167.01 E321.38454
G0 F6000 X138.78 Y132.77
G1 F2700 X172.23 Y166.22 E324.33441
G0 F6000 X172.54 Y165.82
G1 F2700 X139.18 Y132.46 E327.27684
G0 F6000 X139.64 Y132.21
G1 F2700 X172.79 Y165.36 E330.20039
G0 F6000 X173.03 Y164.90
G1 F2700 X140.10 Y131.97 E333.10498
G0 F6000 X140.56 Y131.72
G1 F2700 X173.28 Y164.44 E335.99069
G0 F6000 X173.53 Y163.98
G1 F2700 X141.02 Y131.47 E338.85745
G0 F6000 X141.48 Y131.23
G1 F2700 X173.77 Y163.52 E341.70533
G0 F6000 X174.02 Y163.06
G1 F2700 X141.94 Y130.98 E344.53434
G0 F6000 X142.40 Y130.74
G1 F2700 X174.26 Y162.60 E347.34438
G0 F6000 X174.51 Y162.14
G1 F2700 X142.86 Y130.49 E350.13551
G0 F6000 X143.33 Y130.25
G1 F2700 X174.75 Y161.67 E352.90653
G0 F6000 X174.91 Y161.13
G1 F2700 X143.87 Y130.09 E355.64417
G0 F6000 X144.42 Y129.92
G1 F2700 X175.08 Y160.58 E358.34847
G0 F6000 X175.24 Y160.04
G1 F2700 X144.96 Y129.76 E361.01943
G0 F6000 X145.50 Y129.59
G1 F2700 X175.41 Y159.50 E363.65705
G0 F6000 X175.57 Y158.96
G1 F2700 X146.04 Y129.43 E366.26143
G0 F6000 X146.59 Y129.26
G1 F2700 X175.74 Y158.41 E368.83238
G0 F6000 X175.90 Y157.87
G1 F2700 X147.13 Y129.10 E371.36999
G0 F6000 X147.67 Y128.93
G1 F2700 X176.07 Y157.33 E373.87427
G0 F6000 X176.16 Y156.71
G1 F2700 X148.29 Y128.84 E376.33176
G0 F6000 X148.93 Y128.78
G1 F2700 X176.22 Y156.07 E378.73810
G0 F6000 X176.28 Y155.42
G1 F2700 X149.58 Y128.72 E381.09323
G0 F6000 X150.22 Y128.65
G1 F2700 X176.34 Y154.78 E383.39722
G0 F6000 X176.41 Y154.13
G1 F2700 X150.86 Y128.59 E385.65010
G0 F6000 X151.51 Y128.53
G1 F2700 X176.47 Y153.49 E387.85169
G0 F6000 X176.53 Y152.85
G1 F2700 X152.15 Y128.46 E390.00222
G0 F6000 X152.86 Y128.47
G1 F2700 X176.53 Y152.14 E392.09009
G0 F6000 X176.46 Y151.35
G1 F2700 X153.64 Y128.54 E394.10202
G0 F6000 X154.43 Y128.62
G1 F2700 X176.38 Y150.57 E396.03797
G0 F6000 X176.30 Y149.79
G1 F2700 X155.21 Y128.70 E397.89794
G0 F6000 X156.00 Y128.77
G1 F2700 X176.22 Y149.00 E399.68189
G0 F6000 X176.15 Y148.22
G1 F2700 X156.78 Y128.85 E401.38991
G0 F6000 X157.68 Y129.04
G1 F2700 X175.96 Y147.32 E403.00254
G0 F6000 X175.65 Y146.31
G1 F2700 X158.69 Y129.35 E404.49858
G0 F6000 X159.71 Y129.66
G1 F2700 X175.35 Y145.29 E405.87785
G0 F6000 X175.04 Y144.28
G1 F2700 X160.72 Y129.96 E407.14044
G0 F6000 X161.75 Y130.28
G1 F2700 X174.72 Y143.25 E408.28427
G0 F6000 X173.91 Y141.73
G1 F2700 X163.27 Y131.09 E409.22248
G0 F6000 X164.79 Y131.91
G1 F2700 X173.09 Y140.21 E409.95502
G0 F6000 X171.58 Y137.99
G1 F2700 X167.01 Y133.42 E410.35847
;LAYER:1
G0 F6000 X165.97 Y132.34 Z0.50
;TYPE:WALL-INNER
G1 F3480 X169.64 Y135.36 E410.55618
G1 X172.66 Y139.03 E410.75389
G1 X174.90 Y143.22 E410.95133
G1 X176.28 Y147.77 E411.14910
G1 X176.75 Y152.50 E411.34662
G1 X176.28 Y157.23 E411.54405
G1 X174.90 Y161.78 E411.74195
G1 X172.66 Y165.97 E411.93933
G1 X169.64 Y169.64 E412.13704
G1 X165.97 Y172.66 E412.33476
G1 X161.78 Y174.90 E412.53219
G1 X157.23 Y176.28 E412.73000
G1 X152.50 Y176.75 E412.92748
G1 X147.77 Y176.28 E413.12496
G1 X143.22 Y174.90 E413.32278
G1 X139.03 Y172.66 E413.52020
G1 X135.36 Y169.64 E413.71791
G1 X132.34 Y165.97 E413.91562
G1 X130.10 Y161.78 E414.11300
G1 X128.72 Y157.23 E414.31090
G1 X128.25 Y152.50 E414.50834
G1 X128.72 Y147.77 E414.70581
G1 X130.10 Y143.22 E414.90363
G1 X132.34 Y139.03 E415.10105
G1 X135.36 Y135.36 E415.29876
G1 X139.03 Y132.34 E415.49657
G1 X143.22 Y130.10 E415.69376
G1 X147.77 Y128.72 E415.89175
G1 X152.50 Y128.25 E416.08919
G1 X157.23 Y128.72 E416.28663
G1 X161.78 Y130.10 E416.48453
G1 X165.97 Y132.34 E416.68191
G0 F6000 X154.58 Y149.38
G1 F3480 X153.93 Y149.03 E416.71251
G1 X153.23 Y148.82 E416.74308
G1 X152.50 Y148.75 E416.77367
G1 X151.77 Y148.82 E416.80425
G1 X151.06 Y149.03 E416.83483
G1 X150.41 Y149.38 E416.86543
G1 X149.84 Y149.85 E416.89603
G1 X149.38 Y150.41 E416.92658
G1 X149.19 Y150.76 E416.94276
G1 X149.19 Y154.25 E417.08790
G1 X149.39 Y154.60 E417.10471
G1 X149.84 Y155.15 E417.13439
G1 X150.41 Y155.62 E417.16497
G1 X151.06 Y155.97 E417.19555
G1 X151.77 Y156.18 E417.22617
G1 X152.50 Y156.25 E417.25675
G1 X153.23 Y156.18 E417.28734
G1 X153.94 Y155.97 E417.31796
G1 X154.58 Y155.62 E417.34854
G1 X155.15 Y155.15 E417.37911
G1 X155.62 Y154.59 E417.40969
G1 X155.97 Y153.94 E417.44030
G1 X156.18 Y153.23 E417.47089
G1 X156.25 Y152.50 E417.50147
G1 X156.18 Y151.77 E417.53201
G1 X155.97 Y151.06 E417.56260
G1 X155.62 Y150.41 E417.59321
G1 X155.15 Y149.85 E417.62379
G1 X154.58 Y149.38 E417.65439
G0 F6000 X154.30 Y149.80
;TYPE:WALL-OUTER
G1 F3480 X153.74 Y149.50 E417.68088
G1 X153.13 Y149.31 E417.70737
G1 X152.50 Y149.25 E417.73385
G1 X151.86 Y149.31 E417.76034
G1 X151.25 Y149.50 E417.78683
G1 X150.69 Y149.80 E417.81332
G1 X150.20 Y150.20 E417.83984
G1 X149.79 Y150.69 E417.86631
G1 X149.69 Y150.88 E417.87522
G1 X149.69 Y154.12 E418.00976
G1 X149.81 Y154.32 E418.01929
G1 X150.20 Y154.80 E418.04508
G1 X150.69 Y155.20 E418.07158
G1 X151.25 Y155.50 E418.09808
G1 X151.86 Y155.69 E418.12457
G1 X152.50 Y155.75 E418.15106
G1 X153.13 Y155.69 E418.17755
G1 X153.74 Y155.50 E418.20404
G1 X154.30 Y155.20 E418.23055
G1 X154.80 Y154.80 E418.25704
G1 X155.20 Y154.31 E418.28351
G1 X155.50 Y153.74 E418.31003
G1 X155.69 Y153.13 E418.33654
G1 X155.75 Y152.50 E418.36302
G1 X155.69 Y151.87 E418.38946
G1 X155.50 Y151.26 E418.41597
G1 X155.20 Y150.69 E418.44249
G1 X154.80 Y150.20 E418.46896
G1 X154.30 Y149.80 E418.49548
G0 F6000 X154.47 Y149.49
G0 X166.05 Y132.22
G0 X166.25 Y131.92
G1 F3480 X170.00 Y135.00 E418.69724
G1 X173.08 Y138.75 E418.89900
G1 X175.37 Y143.03 E419.10064
G1 X176.77 Y147.67 E419.30222
G1 X177.25 Y152.50 E419.50405
G1 X176.77 Y157.33 E419.70578
G1 X175.36 Y161.97 E419.90750
G1 X173.08 Y166.25 E420.10908
G1 X170.00 Y170.00 E420.31084
G1 X166.25 Y173.08 E420.51260
G1 X161.97 Y175.37 E420.71424
G1 X157.33 Y176.77 E420.91583
G1 X152.50 Y177.25 E421.11765
G1 X147.67 Y176.77 E421.31948
G1 X143.03 Y175.36 E421.52107
G1 X138.75 Y173.08 E421.72270
G1 X135.00 Y170.00 E421.92445
G1 X131.92 Y166.25 E422.12621
G1 X129.64 Y161.97 E422.32780
G1 X128.23 Y157.33 E422.52951
G1 X127.75 Y152.50 E422.73125
G1 X128.23 Y147.67 E422.93308
G1 X129.64 Y143.03 E423.13467
G1 X131.92 Y138.75 E423.33629
G1 X135.00 Y135.00 E423.53805
G1 X138.75 Y131.92 E423.73981
G1 X143.03 Y129.64 E423.94140
G1 X147.67 Y128.23 E424.14311
G1 X152.50 Y127.75 E424.34485
G1 X157.33 Y128.23 E424.54660
G1 X161.97 Y129.64 E424.74831
G1 X166.25 Y131.92 E424.94990
G0 F6000 X165.67 Y132.38
;TYPE:FILL
G1 F3480 X132.38 Y165.67 E426.90731
G0 F6000 X132.66 Y166.09
G1 F3480 X166.09 Y132.66 E428.87245
G0 F6000 X166.48 Y132.98
G1 F3480 X149.83 Y149.63 E429.85138
G0 F6000 X149.63 Y149.83
G1 F3480 X132.98 Y166.47 E430.83004
G0 F6000 X133.30 Y166.86
G1 F3480 X149.02 Y151.15 E431.75414
G0 F6000 X149.02 Y151.85
G1 F3480 X133.62 Y167.25 E432.65949
G0 F6000 X133.94 Y167.64
G1 F3480 X149.02 Y152.56 E433.54607
G0 F6000 X149.02 Y153.27
G1 F3480 X134.26 Y168.03 E434.41393
G0 F6000 X134.58 Y168.42
G1 F3480 X149.02 Y153.98 E435.26304
G0 F6000 X149.16 Y154.54
G1 F3480 X134.90 Y168.81 E436.10153
G0 F6000 X135.22 Y169.19
G1 F3480 X149.45 Y154.96 E436.93873
G0 F6000 X149.78 Y155.33
G1 F3480 X135.54 Y169.57 E437.77602
G0 F6000 X135.93 Y169.89
G1 F3480 X150.17 Y155.65 E438.61330
G0 F6000 X150.61 Y155.92
G1 F3480 X136.32 Y170.21 E439.45332
G0 F6000 X136.71 Y170.53
G1 F3480 X151.08 Y156.16 E440.29837
G0 F6000 X151.62 Y156.32
G1 F3480 X137.10 Y170.85 E441.15250
G0 F6000 X137.49 Y171.16
G1 F3480 X152.25 Y156.40 E442.02051
G0 F6000 X152.98 Y156.38
G1 F3480 X137.88 Y171.48 E442.90857
G0 F6000 X138.26 Y171.80
G1 F3480 X153.91 Y156.16 E443.82852
G0 F6000 X156.15 Y153.91
G1 F3480 X171.80 Y138.26 E444.74854
G0 F6000 X172.12 Y138.65
G1 F3480 X138.65 Y172.12 E446.71641
G0 F6000 X139.04 Y172.44
G1 F3480 X172.44 Y139.04 E448.68024
G0 F6000 X172.70 Y139.48
G1 F3480 X139.48 Y172.70 E450.63341
G0 F6000 X139.94 Y172.95
G1 F3480 X172.95 Y139.94 E452.57401
G0 F6000 X173.19 Y140.41
G1 F3480 X140.41 Y173.20 E454.50197
G0 F6000 X140.87 Y173.44
G1 F3480 X173.44 Y140.87 E456.41737
G0 F6000 X173.69 Y141.33
G1 F3480 X141.33 Y173.69 E458.32013
G0 F6000 X141.79 Y173.94
G1 F3480 X173.93 Y141.79 E460.21025
G0 F6000 X174.18 Y142.25
G1 F3480 X142.25 Y174.18 E462.08785
G0 F6000 X142.71 Y174.43
G1 F3480 X174.43 Y142.71 E463.95280
G0 F6000 X174.67 Y143.17
G1 F3480 X143.17 Y174.68 E465.80518
G0 F6000 X143.69 Y174.86
G1 F3480 X174.86 Y143.69 E467.63777
G0 F6000 X175.02 Y144.23
G1 F3480 X144.23 Y175.02 E469.44807
G0 F6000 X144.78 Y175.19
G1 F3480 X175.19 Y144.78 E471.23618
G0 F6000 X175.35 Y145.32
G1 F3480 X145.32 Y175.35 E473.00209
G0 F6000 X145.86 Y175.52
G1 F3480 X175.52 Y145.86 E474.74581
G0 F6000 X175.68 Y146.41
G1 F3480 X146.40 Y175.68 E476.46722
G0 F6000 X146.95 Y175.85
G1 F3480 X175.85 Y146.95 E478.16643
G0 F6000 X176.01 Y147.49
G1 F3480 X147.49 Y176.01 E479.84344
G0 F6000 X148.07 Y176.13
G1 F3480 X176.13 Y148.07 E481.49326
G0 F6000 X176.20 Y148.72
G1 F3480 X148.72 Y176.20 E483.10895
G0 F6000 X149.36 Y176.26
G1 F3480 X176.26 Y149.36 E484.69051
G0 F6000 X176.32 Y150.00
G1 F3480 X150.00 Y176.32 E486.23799
G0 F6000 X150.65 Y176.39
G1 F3480 X176.39 Y150.65 E487.75135
G0 F6000 X176.45 Y151.29
G1 F3480 X151.29 Y176.45 E489.23054
G0 F6000 X151.94 Y176.51
G1 F3480 X176.51 Y151.94 E490.67560
G0 F6000 X176.56 Y152.60
G1 F3480 X152.60 Y176.56 E492.08451
G0 F6000 X153.38 Y176.48
G1 F3480 X176.48 Y153.38 E493.44267
G0 F6000 X176.40 Y154.17
G1 F3480 X154.17 Y176.41 E494.75021
G0 F6000 X154.95 Y176.33
G1 F3480 X176.33 Y154.95 E496.00712
G0 F6000 X176.25 Y155.74
G1 F3480 X155.74 Y176.25 E497.21333
G0 F6000 X156.52 Y176.17
G1 F3480 X176.17 Y156.52 E498.36888
G0 F6000 X176.06 Y157.34
G1 F3480 X157.34 Y176.06 E499.46995
G0 F6000 X158.35 Y175.76
G1 F3480 X175.75 Y158.35 E500.49330
G0 F6000 X175.45 Y159.37
G1 F3480 X159.37 Y175.45 E501.43886
G0 F6000 X160.38 Y175.14
G1 F3480 X175.14 Y160.38 E502.30663
G0 F6000 X174.83 Y161.40
G1 F3480 X161.40 Y174.83 E503.09668
G0 F6000 X162.76 Y174.18
G1 F3480 X174.18 Y162.76 E503.76828
G0 F6000 X173.37 Y164.28
G1 F3480 X164.28 Y173.37 E504.30276
G0 F6000 X165.79 Y172.56
G1 F3480 X172.55 Y165.80 E504.70017
G0 F6000 X156.38 Y152.98
G1 F3480 X171.48 Y137.88 E505.58828
G0 F6000 X171.16 Y137.49
G1 F3480 X156.40 Y152.25 E506.45632
G0 F6000 X156.32 Y151.63
G1 F3480 X170.85 Y137.10 E507.31057
G0 F6000 X170.53 Y136.71
G1 F3480 X156.15 Y151.08 E508.15570
G0 F6000 X155.92 Y150.61
G1 F3480 X170.21 Y136.32 E508.99573
G0 F6000 X169.89 Y135.93
G1 F3480 X155.65 Y150.18 E509.83304
G0 F6000 X155.33 Y149.79
G1 F3480 X169.57 Y135.55 E510.67036
G0 F6000 X169.19 Y135.21
G1 F3480 X154.95 Y149.46 E511.50782
G0 F6000 X154.54 Y149.16
G1 F3480 X168.81 Y134.90 E512.34646
G0 F6000 X168.42 Y134.58
G1 F3480 X154.08 Y148.91 E513.18942
G0 F6000 X153.55 Y148.74
G1 F3480 X168.03 Y134.26 E514.04061
G0 F6000 X167.64 Y133.94
G1 F3480 X152.96 Y148.62 E514.90368
G0 F6000 X152.28 Y148.59
G1 F3480 X167.25 Y133.62 E515.78404
G0 F6000 X166.87 Y133.30
G1 F3480 X151.43 Y148.74 E516.69176
G0 F6000 X145.97 Y129.45
G1 F3480 X129.45 Y145.97 E517.66307
G0 F6000 X129.14 Y146.98
G1 F3480 X146.98 Y129.14 E518.71215
G0 F6000 X147.96 Y128.88
G1 F3480 X128.88 Y147.95 E519.83383
G0 F6000 X128.80 Y148.74
G1 F3480 X148.74 Y128.80 E521.00620
G0 F6000 X149.52 Y128.72
G1 F3480 X128.72 Y149.52 E522.22921
G0 F6000 X128.65 Y150.31
G1 F3480 X150.31 Y128.64 E523.50289
G0 F6000 X151.09 Y128.57
G1 F3480 X128.57 Y151.09 E524.82724
G0 F6000 X128.49 Y151.88
G1 F3480 X151.88 Y128.49 E526.20231
G0 F6000 X152.63 Y128.44
G1 F3480 X128.44 Y152.63 E527.62459
G0 F6000 X128.51 Y153.28
G1 F3480 X153.28 Y128.50 E529.08097
G0 F6000 X153.92 Y128.57
G1 F3480 X128.57 Y153.92 E530.57151
G0 F6000 X128.63 Y154.56
G1 F3480 X154.56 Y128.63 E532.09609
G0 F6000 X155.21 Y128.69
G1 F3480 X128.70 Y155.21 E533.65484
G0 F6000 X128.76 Y155.85
G1 F3480 X155.85 Y128.76 E535.24766
G0 F6000 X156.49 Y128.82
G1 F3480 X128.82 Y156.49 E536.87463
G0 F6000 X128.89 Y157.14
G1 F3480 X157.14 Y128.89 E538.53568
G0 F6000 X157.69 Y129.04
G1 F3480 X129.04 Y157.69 E540.21996
G0 F6000 X129.21 Y158.23
G1 F3480 X158.23 Y129.21 E541.92652
G0 F6000 X158.77 Y129.37
G1 F3480 X129.37 Y158.77 E543.65524
G0 F6000 X129.54 Y159.32
G1 F3480 X159.32 Y129.53 E545.40622
G0 F6000 X159.86 Y129.70
G1 F3480 X129.70 Y159.86 E547.17943
G0 F6000 X129.87 Y160.40
G1 F3480 X160.40 Y129.87 E548.97486
G0 F6000 X160.94 Y130.03
G1 F3480 X130.03 Y160.94 E550.79248
G0 F6000 X130.19 Y161.49
G1 F3480 X161.49 Y130.19 E552.63239
G0 F6000 X161.98 Y130.41
G1 F3480 X130.41 Y161.98 E554.48891
G0 F6000 X130.65 Y162.44
G1 F3480 X162.44 Y130.65 E556.35801
G0 F6000 X162.90 Y130.90
G1 F3480 X130.90 Y162.90 E558.23975
G0 F6000 X131.15 Y163.36
G1 F3480 X163.37 Y131.14 E560.13416
G0 F6000 X163.82 Y131.39
G1 F3480 X131.39 Y163.82 E562.04110
G0 F6000 X131.64 Y164.28
G1 F3480 X164.29 Y131.64 E563.96068
G0 F6000 X164.75 Y131.88
G1 F3480 X131.88 Y164.75 E565.89278
G0 F6000 X132.13 Y165.21
G1 F3480 X165.21 Y132.13 E567.83755
G0 F6000 X144.95 Y129.76
G1 F3480 X129.76 Y144.95 E568.73107
G0 F6000 X130.06 Y143.94
G1 F3480 X143.94 Y130.06 E569.54681
G0 F6000 X142.75 Y130.55
G1 F3480 X130.55 Y142.74 E570.26383
G0 F6000 X131.36 Y141.22
G1 F3480 X141.23 Y131.36 E570.84371
G0 F6000 X139.71 Y132.18
G1 F3480 X132.18 Y139.71 E571.28656
G0 F6000 X134.50 Y136.68
G1 F3480 X136.67 Y134.50 E571.41444
;LAYER:2
G0 F6000 X135.36 Y135.36 Z0.70
;TYPE:WALL-INNER
G1 F4320 X139.03 Y132.34 E571.61216
G1 X143.22 Y130.10 E571.80954
G1 X147.77 Y128.72 E572.00744
G1 X152.50 Y128.25 E572.20487
G1 X157.23 Y128.72 E572.40231
G1 X161.78 Y130.10 E572.60013
G1 X165.97 Y132.34 E572.79770
G1 X169.64 Y135.36 E572.99529
G1 X172.66 Y139.03 E573.19301
G1 X174.90 Y143.22 E573.39041
G1 X176.28 Y147.77 E573.58830
G1 X176.75 Y152.50 E573.78573
G1 X176.28 Y157.23 E573.98316
G1 X174.90 Y161.78 E574.18098
G1 X172.66 Y165.97 E574.37855
G1 X169.64 Y169.64 E574.57615
G1 X165.97 Y172.66 E574.77386
G1 X161.78 Y174.90 E574.97126
G1 X157.23 Y176.28 E575.16915
G1 X152.50 Y176.75 E575.36654
G1 X147.77 Y176.28 E575.56402
G1 X143.22 Y174.90 E575.76184
G1 X139.03 Y172.66 E575.95941
G1 X135.36 Y169.64 E576.15700
G1 X132.34 Y165.97 E576.35481
G1 X130.10 Y161.78 E576.55200
G1 X128.72 Y157.23 E576.74999
G1 X128.25 Y152.50 E576.94743
G1 X128.72 Y147.77 E577.14486
G1 X130.10 Y143.22 E577.34268
G1 X132.34 Y139.03 E577.54025
G1 X135.36 Y135.36 E577.73784
G0 F6000 X149.84 Y149.85
G1 F4320 X149.38 Y150.41 E577.76839
G1 X149.19 Y150.76 E577.78457
G1 X149.19 Y154.24 E577.92946
G1 X149.38 Y154.59 E577.94579
G1 X149.84 Y155.15 E577.97619
G1 X150.41 Y155.62 E578.00677
G1 X151.06 Y155.97 E578.03735
G1 X151.77 Y156.18 E578.06797
G1 X152.50 Y156.25 E578.09855
G1 X153.23 Y156.18 E578.12913
G1 X153.94 Y155.97 E578.15975
G1 X154.58 Y155.62 E578.19033
G1 X155.15 Y155.15 E578.22091
G1 X155.62 Y154.59 E578.25148
G1 X155.97 Y153.94 E578.28209
G1 X156.18 Y153.23 E578.31269
G1 X156.25 Y152.50 E578.34327
G1 X156.18 Y151.77 E578.37380
G1 X155.97 Y151.06 E578.40440
G1 X155.62 Y150.41 E578.43501
G1 X155.15 Y149.85 E578.46558
G1 X154.58 Y149.38 E578.49619
G1 X153.93 Y149.03 E578.52678
G1 X153.23 Y148.82 E578.55736
G1 X152.50 Y148.75 E578.58795
G1 X151.77 Y148.82 E578.61853
G1 X151.06 Y149.03 E578.64911
G1 X150.41 Y149.38 E578.67971
G1 X149.84 Y149.85 E578.71031
G0 F6000 X150.20 Y150.20
;TYPE:WALL-OUTER
G1 F4320 X149.79 Y150.69 E578.73678
G1 X149.69 Y150.88 E578.74569
G1 X149.69 Y154.12 E578.88014
G1 X149.80 Y154.31 E578.88920
G1 X150.20 Y154.80 E578.91555
G1 X150.69 Y155.20 E578.94205
G1 X151.25 Y155.50 E578.96855
G1 X151.86 Y155.69 E578.99504
G1 X152.50 Y155.75 E579.02153
G1 X153.13 Y155.69 E579.04802
G1 X153.74 Y155.50 E579.07451
G1 X154.30 Y155.20 E579.10102
G1 X154.80 Y154.80 E579.12751
G1 X155.20 Y154.31 E579.15398
G1 X155.50 Y153.74 E579.18050
G1 X155.69 Y153.13 E579.20701
G1 X155.75 Y152.50 E579.23349
G1 X155.69 Y151.87 E579.25993
G1 X155.50 Y151.26 E579.28644
G1 X155.20 Y150.69 E579.31296
G1 X154.80 Y150.20 E579.33943
G1 X154.30 Y149.80 E579.36595
G1 X153.74 Y149.50 E579.39244
G1 X153.13 Y149.31 E579.41893
G1 X152.50 Y149.25 E579.44541
G1 X151.86 Y149.31 E579.47190
G1 X151.25 Y149.50 E579.49839
G1 X150.69 Y149.80 E579.52488
G1 X150.20 Y150.20 E579.55140
G0 F6000 X149.98 Y149.93
G0 X135.25 Y135.25
G0 X135.00 Y135.00
G1 F4320 X138.75 Y131.92 E579.75316
G1 X143.03 Y129.64 E579.95475
G1 X147.67 Y128.23 E580.15646
G1 X152.50 Y127.75 E580.35821
G1 X157.33 Y128.23 E580.55999
G1 X161.97 Y129.63 E580.76149
G1 X166.25 Y131.92 E580.96340
G1 X170.00 Y135.00 E581.16501
G1 X173.08 Y138.75 E581.36676
G1 X175.37 Y143.03 E581.56837
G1 X176.77 Y147.67 E581.77007
G1 X177.25 Y152.50 E581.97181
G1 X176.77 Y157.33 E582.17355
G1 X175.37 Y161.97 E582.37509
G1 X173.08 Y166.25 E582.57699
G1 X170.00 Y170.00 E582.77860
G1 X166.25 Y173.08 E582.98036
G1 X161.97 Y175.37 E583.18197
G1 X157.33 Y176.77 E583.38367
G1 X152.50 Y177.25 E583.58537
G1 X147.67 Y176.77 E583.78720
G1 X143.03 Y175.37 E583.98870
G1 X138.75 Y173.08 E584.19060
G1 X135.00 Y170.00 E584.39221
G1 X131.92 Y166.25 E584.59397
G1 X129.64 Y161.97 E584.79556
G1 X128.23 Y157.33 E584.99727
G1 X127.75 Y152.50 E585.19901
G1 X128.23 Y147.67 E585.40075
G1 X129.63 Y143.03 E585.60229
G1 X131.92 Y138.75 E585.80419
G1 X135.00 Y135.00 E586.00580
G0 F6000 X135.32 Y135.67
;TYPE:FILL
G1 F4320 X149.56 Y149.91 E586.84303
G0 F6000 X149.91 Y149.56
G1 F4320 X135.68 Y135.32 E587.68023
G0 F6000 X136.06 Y135.00
G1 F4320 X150.30 Y149.24 E588.51749
G0 F6000 X150.76 Y148.99
G1 F4320 X136.45 Y134.68 E589.35883
G0 F6000 X136.84 Y134.37
G1 F4320 X151.26 Y148.79 E590.20685
G0 F6000 X151.82 Y148.64
G1 F4320 X137.23 Y134.05 E591.06480
G0 F6000 X137.62 Y133.73
G1 F4320 X152.46 Y148.57 E591.93775
G0 F6000 X153.24 Y148.65
G1 F4320 X138.00 Y133.41 E592.83363
G0 F6000 X138.39 Y133.09
G1 F4320 X154.37 Y149.07 E593.77316
G0 F6000 X155.93 Y150.62
G1 F4320 X171.91 Y166.61 E594.71281
G0 F6000 X171.59 Y167.00
G1 F4320 X156.35 Y151.76 E595.60880
G0 F6000 X156.42 Y152.53
G1 F4320 X171.27 Y167.38 E596.48199
G0 F6000 X170.95 Y167.77
G1 F4320 X156.36 Y153.18 E597.34009
G0 F6000 X156.21 Y153.73
G1 F4320 X170.63 Y168.16 E598.18828
G0 F6000 X170.32 Y168.55
G1 F4320 X156.00 Y154.23 E599.02989
G0 F6000 X155.75 Y154.69
G1 F4320 X170.00 Y168.94 E599.86735
G0 F6000 X169.68 Y169.32
G1 F4320 X155.44 Y155.08 E600.70482
G0 F6000 X155.08 Y155.44
G1 F4320 X169.32 Y169.68 E601.54219
G0 F6000 X168.94 Y170.00
G1 F4320 X154.69 Y155.75 E602.37954
G0 F6000 X154.24 Y156.00
G1 F4320 X168.55 Y170.31 E603.22100
G0 F6000 X168.16 Y170.63
G1 F4320 X153.73 Y156.21 E604.06913
G0 F6000 X153.18 Y156.36
G1 F4320 X167.77 Y170.95 E604.92703
G0 F6000 X167.38 Y171.27
G1 F4320 X152.53 Y156.42 E605.79997
G0 F6000 X151.76 Y156.35
G1 F4320 X166.99 Y171.59 E606.69579
G0 F6000 X166.61 Y171.91
G1 F4320 X150.63 Y155.94 E607.63488
G0 F6000 X149.06 Y154.36
G1 F4320 X133.09 Y138.39 E608.57392
G0 F6000 X133.41 Y138.00
G1 F4320 X149.02 Y153.62 E609.49184
G0 F6000 X149.02 Y152.91
G1 F4320 X133.73 Y137.62 E610.39101
G0 F6000 X134.04 Y137.23
G1 F4320 X149.02 Y152.20 E611.27143
G0 F6000 X149.02 Y151.49
G1 F4320 X134.36 Y136.84 E612.13309
G0 F6000 X134.68 Y136.45
G1 F4320 X149.02 Y150.79 E612.97596
G0 F6000 X149.24 Y150.30
G1 F4320 X135.00 Y136.06 E613.81324
G0 F6000 X132.77 Y138.78
G1 F4320 X166.22 Y172.23 E615.77983
G0 F6000 X165.82 Y172.54
G1 F4320 X132.46 Y139.18 E617.74145
G0 F6000 X132.21 Y139.64
G1 F4320 X165.36 Y172.79 E619.69048
G0 F6000 X164.90 Y173.03
G1 F4320 X131.97 Y140.10 E621.62687
G0 F6000 X131.72 Y140.56
G1 F4320 X164.44 Y173.28 E623.55068
G0 F6000 X163.98 Y173.53
G1 F4320 X131.47 Y141.02 E625.46191
G0 F6000 X131.23 Y141.48
G1 F4320 X163.52 Y173.77 E627.36056
G0 F6000 X163.06 Y174.02
G1 F4320 X130.98 Y141.94 E629.24656
G0 F6000 X130.74 Y142.40
G1 F4320 X162.60 Y174.26 E631.11996
G0 F6000 X162.14 Y174.51
G1 F4320 X130.49 Y142.86 E632.98074
G0 F6000 X130.25 Y143.33
G1 F4320 X161.67 Y174.75 E634.82811
G0 F6000 X161.13 Y174.91
G1 F4320 X130.09 Y143.87 E636.65326
G0 F6000 X129.92 Y144.41
G1 F4320 X160.58 Y175.08 E638.45616
G0 F6000 X160.04 Y175.24
G1 F4320 X129.75 Y144.96 E640.23686
G0 F6000 X129.59 Y145.50
G1 F4320 X159.50 Y175.41 E641.99534
G0 F6000 X158.96 Y175.57
G1 F4320 X129.43 Y146.04 E643.73159
G0 F6000 X129.26 Y146.59
G1 F4320 X158.41 Y175.74 E645.44558
G0 F6000 X157.87 Y175.90
G1 F4320 X129.10 Y147.13 E647.13735
G0 F6000 X128.93 Y147.67
G1 F4320 X157.33 Y176.07 E648.80693
G0 F6000 X156.71 Y176.16
G1 F4320 X128.84 Y148.29 E650.44532
G0 F6000 X128.78 Y148.93
G1 F4320 X156.07 Y176.22 E652.04963
G0 F6000 X155.42 Y176.28
G1 F4320 X128.72 Y149.58 E653.61978
G0 F6000 X128.65 Y150.22
G1 F4320 X154.78 Y176.35 E655.15589
G0 F6000 X154.13 Y176.41
G1 F4320 X128.59 Y150.86 E656.65781
G0 F6000 X128.53 Y151.51
G1 F4320 X153.49 Y176.47 E658.12559
G0 F6000 X152.85 Y176.54
G1 F4320 X128.46 Y152.15 E659.55934
G0 F6000 X128.47 Y152.86
G1 F4320 X152.14 Y176.53 E660.95128
G0 F6000 X151.35 Y176.46
G1 F4320 X128.54 Y153.64 E662.29257
G0 F6000 X128.62 Y154.43
G1 F4320 X150.57 Y176.38 E663.58323
G0 F6000 X149.78 Y176.30
G1 F4320 X128.70 Y155.21 E664.82318
G0 F6000 X128.77 Y156.00
G1 F4320 X149.00 Y176.22 E666.01248
G0 F6000 X148.22 Y176.15
G1 F4320 X128.85 Y156.78 E667.15110
G0 F6000 X129.04 Y157.68
G1 F4320 X147.32 Y175.96 E668.22604
G0 F6000 X146.31 Y175.65
G1 F4320 X129.35 Y158.69 E669.22328
G0 F6000 X129.65 Y159.71
G1 F4320 X145.29 Y175.34 E670.14274
G0 F6000 X144.28 Y175.04
G1 F4320 X129.96 Y160.72 E670.98443
G0 F6000 X130.28 Y161.75
G1 F4320 X143.25 Y174.72 E671.74705
G0 F6000 X141.73 Y173.90
G1 F4320 X131.09 Y163.26 E672.37255
G0 F6000 X131.90 Y164.78
G1 F4320 X140.21 Y173.09 E672.86094
G0 F6000 X137.99 Y171.58
G1 F4320 X133.42 Y167.00 E673.12994
G0 F6000 X138.78 Y132.77
G1 F4320 X172.23 Y166.22 E675.09652
G0 F6000 X172.54 Y165.82
G1 F4320 X139.18 Y132.46 E677.05814
G0 F6000 X139.64 Y132.21
G1 F4320 X172.79 Y165.36 E679.00717
G0 F6000 X173.03 Y164.90
G1 F4320 X140.10 Y131.97 E680.94356
G0 F6000 X140.56 Y131.72
G1 F4320 X173.28 Y164.44 E682.86737
G0 F6000 X173.53 Y163.98
G1 F4320 X141.02 Y131.47 E684.77860
G0 F6000 X141.48 Y131.23
G1 F4320 X173.77 Y163.52 E686.67719
G0 F6000 X174.02 Y163.06
G1 F4320 X141.94 Y130.98 E688.56319
G0 F6000 X142.40 Y130.73
G1 F4320 X174.26 Y162.60 E690.43659
G0 F6000 X174.51 Y162.14
G1 F4320 X142.86 Y130.49 E692.29737
G0 F6000 X143.33 Y130.25
G1 F4320 X174.75 Y161.67 E694.14474
G0 F6000 X174.91 Y161.13
G1 F4320 X143.87 Y130.09 E695.96984
G0 F6000 X144.41 Y129.92
G1 F4320 X175.08 Y160.58 E697.77273
G0 F6000 X175.24 Y160.04
G1 F4320 X144.96 Y129.76 E699.55337
G0 F6000 X145.50 Y129.59
G1 F4320 X175.41 Y159.50 E701.31179
G0 F6000 X175.57 Y158.96
G1 F4320 X146.04 Y129.43 E703.04804
G0 F6000 X146.59 Y129.26
G1 F4320 X175.74 Y158.41 E704.76201
G0 F6000 X175.90 Y157.87
G1 F4320 X147.13 Y129.10 E706.45375
G0 F6000 X147.67 Y128.93
G1 F4320 X176.07 Y157.33 E708.12327
G0 F6000 X176.16 Y156.71
G1 F4320 X148.29 Y128.84 E709.76162
G0 F6000 X148.93 Y128.78
G1 F4320 X176.22 Y156.07 E711.36588
G0 F6000 X176.28 Y155.42
G1 F4320 X149.58 Y128.72 E712.93600
G0 F6000 X150.22 Y128.65
G1 F4320 X176.34 Y154.78 E714.47205
G0 F6000 X176.41 Y154.13
G1 F4320 X150.86 Y128.59 E715.97397
G0 F6000 X151.51 Y128.53
G1 F4320 X176.47 Y153.49 E717.44170
G0 F6000 X176.53 Y152.85
G1 F4320 X152.15 Y128.46 E718.87538
G0 F6000 X152.86 Y128.47
G1 F4320 X176.53 Y152.14 E720.26729
G0 F6000 X176.46 Y151.35
G1 F4320 X153.64 Y128.54 E721.60858
G0 F6000 X154.43 Y128.62
G1 F4320 X176.38 Y150.57 E722.89922
G0 F6000 X176.30 Y149.78
G1 F4320 X155.21 Y128.70 E724.13917
G0 F6000 X156.00 Y128.77
G1 F4320 X176.22 Y149.00 E725.32844
G0 F6000 X176.15 Y148.22
G1 F4320 X156.78 Y128.85 E726.46708
G0 F6000 X157.68 Y129.04
G1 F4320 X175.96 Y147.32 E727.54205
G0 F6000 X175.65 Y146.31
G1 F4320 X158.69 Y129.35 E728.53936
G0 F6000 X159.71 Y129.66
G1 F4320 X175.35 Y145.29 E729.45887
G0 F6000 X175.04 Y144.28
G1 F4320 X160.72 Y129.96 E730.30065
G0 F6000 X161.75 Y130.28
G1 F4320 X174.72 Y143.25 E731.06333
G0 F6000 X173.91 Y141.73
G1 F4320 X163.27 Y131.09 E731.68886
G0 F6000 X164.79 Y131.91
G1 F4320 X173.09 Y140.21 E732.17725
G0 F6000 X171.58 Y137.99
G1 F4320 X167.01 Y133.42 E732.44621
;LAYER:3
G0 F6000 X165.97 Y132.34 Z0.90
;TYPE:WALL-INNER
G1 F5160 X169.64 Y135.36 E732.64393
G1 X172.66 Y139.03 E732.84164
G1 X174.90 Y143.22 E733.03908
G1 X176.28 Y147.77 E733.23685
G1 X176.75 Y152.50 E733.43436
G1 X176.28 Y157.23 E733.63179
G1 X174.90 Y161.78 E733.82969
G1 X172.66 Y165.97 E734.02708
G1 X169.64 Y169.64 E734.22479
G1 X165.97 Y172.66 E734.42250
G1 X161.78 Y174.90 E734.61994
G1 X157.23 Y176.28 E734.81775
G1 X152.50 Y176.75 E735.01523
G1 X147.77 Y176.28 E735.21266
G1 X143.22 Y174.90 E735.41056
G1 X139.03 Y172.66 E735.60794
G1 X135.36 Y169.64 E735.80566
G1 X132.34 Y165.97 E736.00337
G1 X130.10 Y161.78 E736.20075
G1 X128.72 Y157.23 E736.39865
G1 X128.25 Y152.50 E736.59608
G1 X128.72 Y147.77 E736.79352
G1 X130.10 Y143.22 E736.99142
G1 X132.34 Y139.03 E737.18880
G1 X135.36 Y135.36 E737.38651
G1 X139.03 Y132.34 E737.58411
G1 X143.22 Y130.10 E737.78167
G1 X147.77 Y128.72 E737.97949
G1 X152.50 Y128.25 E738.17697
G1 X157.23 Y128.72 E738.37437
G1 X161.78 Y130.10 E738.57227
G1 X165.97 Y132.34 E738.76965
G0 F6000 X154.58 Y149.38
G1 F5160 X153.93 Y149.03 E738.80025
G1 X153.23 Y148.82 E738.83083
G1 X152.50 Y148.75 E738.86141
G1 X151.77 Y148.82 E738.89199
G1 X151.06 Y149.03 E738.92257
G1 X150.41 Y149.38 E738.95317
G1 X149.84 Y149.85 E738.98377
G1 X149.38 Y150.41 E739.01432
G1 X149.19 Y150.76 E739.03050
G1 X149.19 Y154.25 E739.17589
G1 X149.40 Y154.62 E739.19330
G1 X149.84 Y155.15 E739.22216
G1 X150.41 Y155.62 E739.25274
G1 X151.06 Y155.97 E739.28332
G1 X151.77 Y156.18 E739.31394
G1 X152.50 Y156.25 E739.34452
G1 X153.23 Y156.18 E739.37511
G1 X153.94 Y155.97 E739.40572
G1 X154.58 Y155.62 E739.43630
G1 X155.15 Y155.15 E739.46688
G1 X155.62 Y154.59 E739.49745
G1 X155.97 Y153.94 E739.52807
G1 X156.18 Y153.23 E739.55866
G1 X156.25 Y152.50 E739.58924
G1 X156.18 Y151.77 E739.61978
G1 X155.97 Y151.06 E739.65037
G1 X155.62 Y150.41 E739.68098
G1 X155.15 Y149.85 E739.71155
G1 X154.58 Y149.38 E739.74216
G0 F6000 X154.30 Y149.80
;TYPE:WALL-OUTER
G1 F5160 X153.74 Y149.50 E739.76864
G1 X153.13 Y149.31 E739.79513
G1 X152.50 Y149.25 E739.82162
G1 X151.86 Y149.31 E739.84811
G1 X151.25 Y149.50 E739.87460
G1 X150.69 Y149.80 E739.90108
G1 X150.20 Y150.20 E739.92761
G1 X149.79 Y150.69 E739.95408
G1 X149.69 Y150.88 E739.96299
G1 X149.69 Y154.12 E740.09761
G1 X149.82 Y154.33 E740.10774
G1 X150.20 Y154.80 E740.13285
G1 X150.69 Y155.20 E740.15935
G1 X151.25 Y155.50 E740.18586
G1 X151.86 Y155.69 E740.21235
G1 X152.50 Y155.75 E740.23883
G1 X153.13 Y155.69 E740.26532
G1 X153.74 Y155.50 E740.29181
G1 X154.30 Y155.20 E740.31832
G1 X154.80 Y154.80 E740.34482
G1 X155.20 Y154.31 E740.37128
G1 X155.50 Y153.74 E740.39781
G1 X155.69 Y153.13 E740.42431
G1 X155.75 Y152.50 E740.45079
G1 X155.69 Y151.87 E740.47724
G1 X155.50 Y151.26 E740.50374
G1 X155.20 Y150.69 E740.53026
G1 X154.80 Y150.20 E740.55673
G1 X154.30 Y149.80 E740.58325
G0 F6000 X154.47 Y149.49
G0 X166.06 Y132.22
G0 X166.25 Y131.92
G1 F5160 X170.00 Y135.00 E740.78501
G1 X173.08 Y138.75 E740.98677
G1 X175.37 Y143.03 E741.18841
G1 X176.77 Y147.67 E741.39000
G1 X177.25 Y152.50 E741.59182
G1 X176.77 Y157.33 E741.79356
G1 X175.36 Y161.97 E741.99527
G1 X173.08 Y166.25 E742.19686
G1 X170.00 Y170.00 E742.39862
G1 X166.25 Y173.08 E742.60037
G1 X161.97 Y175.37 E742.80202
G1 X157.33 Y176.77 E743.00360
G1 X152.50 Y177.25 E743.20542
G1 X147.67 Y176.77 E743.40717
G1 X143.03 Y175.36 E743.60888
G1 X138.75 Y173.08 E743.81047
G1 X135.00 Y170.00 E744.01223
G1 X131.92 Y166.25 E744.21399
G1 X129.64 Y161.97 E744.41557
G1 X128.23 Y157.33 E744.61729
G1 X127.75 Y152.50 E744.81903
G1 X128.23 Y147.67 E745.02076
G1 X129.64 Y143.03 E745.22248
G1 X131.92 Y138.75 E745.42406
G1 X135.00 Y135.00 E745.62582
G1 X138.75 Y131.92 E745.82743
G1 X143.03 Y129.63 E746.02933
G1 X147.67 Y128.23 E746.23084
G1 X152.50 Y127.75 E746.43266
G1 X157.33 Y128.23 E746.63437
G1 X161.97 Y129.64 E746.83608
G1 X166.25 Y131.92 E747.03767
G0 F6000 X165.67 Y132.38
;TYPE:FILL
G1 F5160 X132.38 Y165.67 E748.99508
G0 F6000 X132.66 Y166.09
G1 F5160 X166.09 Y132.66 E750.96022
G0 F6000 X166.48 Y132.98
G1 F5160 X149.83 Y149.63 E751.93915
G0 F6000 X149.63 Y149.83
G1 F5160 X132.98 Y166.47 E752.91781
G0 F6000 X133.30 Y166.86
G1 F5160 X149.02 Y151.15 E753.84191
G0 F6000 X149.02 Y151.85
G1 F5160 X133.62 Y167.25 E754.74725
G0 F6000 X133.94 Y167.64
G1 F5160 X149.02 Y152.56 E755.63384
G0 F6000 X149.02 Y153.27
G1 F5160 X134.26 Y168.03 E756.50170
G0 F6000 X134.58 Y168.42
G1 F5160 X149.02 Y153.98 E757.35081
G0 F6000 X149.16 Y154.54
G1 F5160 X134.90 Y168.81 E758.18930
G0 F6000 X135.22 Y169.19
G1 F5160 X149.45 Y154.96 E759.02650
G0 F6000 X149.78 Y155.33
G1 F5160 X135.54 Y169.57 E759.86378
G0 F6000 X135.93 Y169.89
G1 F5160 X150.17 Y155.65 E760.70107
G0 F6000 X150.61 Y155.92
G1 F5160 X136.32 Y170.21 E761.54109
G0 F6000 X136.71 Y170.53
G1 F5160 X151.08 Y156.16 E762.38614
G0 F6000 X151.62 Y156.32
G1 F5160 X137.10 Y170.85 E763.24027
G0 F6000 X137.49 Y171.16
G1 F5160 X152.25 Y156.40 E764.10828
G0 F6000 X152.98 Y156.38
G1 F5160 X137.88 Y171.48 E764.99634
G0 F6000 X138.26 Y171.80
G1 F5160 X153.91 Y156.16 E765.91629
G0 F6000 X156.15 Y153.91
G1 F5160 X171.80 Y138.26 E766.83630
G0 F6000 X172.12 Y138.65
G1 F5160 X138.65 Y172.12 E768.80418
G0 F6000 X139.04 Y172.44
G1 F5160 X172.44 Y139.04 E770.76800
G0 F6000 X172.70 Y139.48
G1 F5160 X139.48 Y172.70 E772.72118
G0 F6000 X139.94 Y172.95
G1 F5160 X172.95 Y139.94 E774.66178
G0 F6000 X173.19 Y140.41
G1 F5160 X140.41 Y173.20 E776.58974
G0 F6000 X140.87 Y173.44
G1 F5160 X173.44 Y140.87 E778.50514
G0 F6000 X173.69 Y141.33
G1 F5160 X141.33 Y173.69 E780.40790
G0 F6000 X141.79 Y173.94
G1 F5160 X173.93 Y141.79 E782.29802
G0 F6000 X174.18 Y142.25
G1 F5160 X142.25 Y174.18 E784.17562
G0 F6000 X142.71 Y174.43
G1 F5160 X174.43 Y142.71 E786.04057
G0 F6000 X174.67 Y143.17
G1 F5160 X143.17 Y174.67 E787.89289
G0 F6000 X143.69 Y174.86
G1 F5160 X174.86 Y143.69 E789.72545
G0 F6000 X175.02 Y144.23
G1 F5160 X144.23 Y175.02 E791.53575
G0 F6000 X144.78 Y175.19
G1 F5160 X175.19 Y144.78 E793.32380
G0 F6000 X175.35 Y145.32
G1 F5160 X145.32 Y175.35 E795.08969
G0 F6000 X145.86 Y175.52
G1 F5160 X175.52 Y145.86 E796.83340
G0 F6000 X175.68 Y146.41
G1 F5160 X146.40 Y175.68 E798.55481
G0 F6000 X146.95 Y175.85
G1 F5160 X175.85 Y146.95 E800.25396
G0 F6000 X176.01 Y147.49
G1 F5160 X147.49 Y176.01 E801.93094
G0 F6000 X148.07 Y176.13
G1 F5160 X176.13 Y148.07 E803.58070
G0 F6000 X176.20 Y148.72
G1 F5160 X148.72 Y176.20 E805.19636
G0 F6000 X149.36 Y176.26
G1 F5160 X176.26 Y149.36 E806.77792
G0 F6000 X176.32 Y150.00
G1 F5160 X150.00 Y176.32 E808.32538
G0 F6000 X150.65 Y176.39
G1 F5160 X176.39 Y150.65 E809.83868
G0 F6000 X176.45 Y151.29
G1 F5160 X151.29 Y176.45 E811.31787
G0 F6000 X151.94 Y176.51
G1 F5160 X176.51 Y151.94 E812.76293
G0 F6000 X176.56 Y152.60
G1 F5160 X152.60 Y176.56 E814.17184
G0 F6000 X153.38 Y176.48
G1 F5160 X176.48 Y153.38 E815.53000
G0 F6000 X176.40 Y154.17
G1 F5160 X154.17 Y176.41 E816.83754
G0 F6000 X154.95 Y176.33
G1 F5160 X176.33 Y154.95 E818.09445
G0 F6000 X176.25 Y155.74
G1 F5160 X155.74 Y176.25 E819.30065
G0 F6000 X156.52 Y176.17
G1 F5160 X176.17 Y156.52 E820.45620
G0 F6000 X176.06 Y157.34
G1 F5160 X157.34 Y176.06 E821.55728
G0 F6000 X158.35 Y175.76
G1 F5160 X175.75 Y158.35 E822.58063
G0 F6000 X175.45 Y159.37
G1 F5160 X159.37 Y175.45 E823.52619
G0 F6000 X160.38 Y175.14
G1 F5160 X175.14 Y160.38 E824.39396
G0 F6000 X174.83 Y161.40
G1 F5160 X161.40 Y174.83 E825.18400
G0 F6000 X162.76 Y174.18
G1 F5160 X174.18 Y162.76 E825.85560
G0 F6000 X173.37 Y164.28
G1 F5160 X164.28 Y173.37 E826.39009
G0 F6000 X165.79 Y172.56
G1 F5160 X172.55 Y165.80 E826.78749
G0 F6000 X156.38 Y152.98
G1 F5160 X171.48 Y137.88 E827.67561
G0 F6000 X171.16 Y137.49
G1 F5160 X156.40 Y152.25 E828.54365
G0 F6000 X156.32 Y151.63
G1 F5160 X170.85 Y137.10 E829.39790
G0 F6000 X170.53 Y136.71
G1 F5160 X156.15 Y151.08 E830.24303
G0 F6000 X155.92 Y150.61
G1 F5160 X170.21 Y136.32 E831.08305
G0 F6000 X169.89 Y135.93
G1 F5160 X155.65 Y150.18 E831.92037
G0 F6000 X155.33 Y149.79
G1 F5160 X169.57 Y135.55 E832.75769
G0 F6000 X169.19 Y135.21
G1 F5160 X154.95 Y149.46 E833.59515
G0 F6000 X154.54 Y149.16
G1 F5160 X168.81 Y134.90 E834.43379
G0 F6000 X168.42 Y134.58
G1 F5160 X154.08 Y148.91 E835.27675
G0 F6000 X153.55 Y148.74
G1 F5160 X168.03 Y134.26 E836.12794
G0 F6000 X167.64 Y133.94
G1 F5160 X152.96 Y148.62 E836.99101
G0 F6000 X152.28 Y148.59
G1 F5160 X167.25 Y133.62 E837.87136
G0 F6000 X166.87 Y133.30
G1 F5160 X151.43 Y148.74 E838.77909
G0 F6000 X145.97 Y129.45
G1 F5160 X129.45 Y145.97 E839.75034
G0 F6000 X129.76 Y144.95
G1 F5160 X144.95 Y129.76 E840.64393
G0 F6000 X143.94 Y130.06
G1 F5160 X130.06 Y143.94 E841.45967
G0 F6000 X130.55 Y142.75
G1 F5160 X142.74 Y130.55 E842.17651
G0 F6000 X141.22 Y131.36
G1 F5160 X131.36 Y141.23 E842.75633
G0 F6000 X132.18 Y139.71
G1 F5160 X139.71 Y132.18 E843.19909
G0 F6000 X136.68 Y134.50
G1 F5160 X134.50 Y136.68 E843.32703
G0 F6000 X129.14 Y146.98
G1 F5160 X146.98 Y129.14 E844.37610
G0 F6000 X147.96 Y128.88
G1 F5160 X128.88 Y147.95 E845.49779
G0 F6000 X128.80 Y148.74
G1 F5160 X148.74 Y128.80 E846.67015
G0 F6000 X149.52 Y128.72
G1 F5160 X128.72 Y149.52 E847.89317
G0 F6000 X128.65 Y150.31
G1 F5160 X150.31 Y128.64 E849.16684
G0 F6000 X151.09 Y128.57
G1 F5160 X128.57 Y151.09 E850.49120
G0 F6000 X128.49 Y151.88
G1 F5160 X151.88 Y128.49 E851.86626
G0 F6000 X152.63 Y128.44
G1 F5160 X128.44 Y152.63 E853.28854
G0 F6000 X128.51 Y153.28
G1 F5160 X153.28 Y128.50 E854.74492
G0 F6000 X153.92 Y128.57
G1 F5160 X128.57 Y153.92 E856.23547
G0 F6000 X128.63 Y154.56
G1 F5160 X154.56 Y128.63 E857.76011
G0 F6000 X155.21 Y128.69
G1 F5160 X128.70 Y155.21 E859.31885
G0 F6000 X128.76 Y155.85
G1 F5160 X155.85 Y128.76 E860.91167
G0 F6000 X156.49 Y128.82
G1 F5160 X128.82 Y156.49 E862.53865
G0 F6000 X128.89 Y157.14
G1 F5160 X157.14 Y128.89 E864.19970
G0 F6000 X157.69 Y129.04
G1 F5160 X129.04 Y157.69 E865.88398
G0 F6000 X129.21 Y158.23
G1 F5160 X158.23 Y129.21 E867.59053
G0 F6000 X158.77 Y129.37
G1 F5160 X129.37 Y158.77 E869.31926
G0 F6000 X129.54 Y159.32
G1 F5160 X159.32 Y129.53 E871.07024
G0 F6000 X159.86 Y129.70
G1 F5160 X129.70 Y159.86 E872.84344
G0 F6000 X129.87 Y160.40
G1 F5160 X160.40 Y129.87 E874.63887
G0 F6000 X160.94 Y130.03
G1 F5160 X130.03 Y160.94 E876.45650
G0 F6000 X130.19 Y161.49
G1 F5160 X161.49 Y130.19 E878.29641
G0 F6000 X161.98 Y130.41
G1 F5160 X130.41 Y161.98 E880.15292
G0 F6000 X130.65 Y162.44
G1 F5160 X162.44 Y130.65 E882.02202
G0 F6000 X162.90 Y130.90
G1 F5160 X130.90 Y162.90 E883.90377
G0 F6000 X131.15 Y163.36
G1 F5160 X163.37 Y131.14 E885.79818
G0 F6000 X163.82 Y131.39
G1 F5160 X131.39 Y163.82 E887.70512
G0 F6000 X131.64 Y164.28
G1 F5160 X164.29 Y131.64 E889.62469
G0 F6000 X164.75 Y131.88
G1 F5160 X131.88 Y164.75 E891.55679
G0 F6000 X132.13 Y165.21
G1 F5160 X165.21 Y132.13 E893.50156
;LAYER:4
G0 F6000 X165.97 Y132.34 Z1.10
;TYPE:WALL-INNER
G1 X169.64 Y135.36 E893.69928
G1 X172.66 Y139.03 E893.89699
G1 X174.90 Y143.22 E894.09439
G1 X176.28 Y147.77 E894.29228
G1 X176.75 Y152.50 E894.48971
G1 X176.28 Y157.23 E894.68715
G1 X174.90 Y161.78 E894.88504
G1 X172.66 Y165.97 E895.08243
G1 X169.64 Y169.64 E895.28014
G1 X165.97 Y172.66 E895.47785
G1 X161.78 Y174.90 E895.67525
G1 X157.23 Y176.28 E895.87314
G1 X152.50 Y176.75 E896.07058
G1 X147.77 Y176.28 E896.26801
G1 X143.22 Y174.90 E896.46591
G1 X139.03 Y172.66 E896.66330
G1 X135.36 Y169.64 E896.86101
G1 X132.34 Y165.97 E897.05860
G1 X130.10 Y161.78 E897.25617
G1 X128.72 Y157.23 E897.45399
G1 X128.25 Y152.50 E897.65143
G1 X128.72 Y147.77 E897.84886
G1 X130.10 Y143.22 E898.04676
G1 X132.34 Y139.03 E898.24414
G1 X135.36 Y135.36 E898.44185
G1 X139.03 Y132.34 E898.63945
G1 X143.22 Y130.10 E898.83702
G1 X147.77 Y128.72 E899.03484
G1 X152.50 Y128.25 E899.23227
G1 X157.23 Y128.72 E899.42971
G1 X161.78 Y130.10 E899.62761
G1 X165.97 Y132.34 E899.82499
G0 X154.58 Y149.38
G1 X153.93 Y149.03 E899.85559
G1 X153.23 Y148.82 E899.88617
G1 X152.50 Y148.75 E899.91675
G1 X151.77 Y148.82 E899.94734
G1 X151.06 Y149.03 E899.97791
G1 X150.41 Y149.38 E900.00851
G1 X149.84 Y149.85 E900.03911
G1 X149.38 Y150.41 E900.06966
G1 X149.19 Y150.76 E900.08584
G1 X149.19 Y154.25 E900.23102
G1 X149.39 Y154.60 E900.24785
G1 X149.84 Y155.15 E900.27751
G1 X150.41 Y155.62 E900.30805
G1 X151.06 Y155.97 E900.33863
G1 X151.77 Y156.18 E900.36925
G1 X152.50 Y156.25 E900.39983
G1 X153.23 Y156.18 E900.43042
G1 X153.94 Y155.97 E900.46104
G1 X154.58 Y155.62 E900.49162
G1 X155.15 Y155.15 E900.52219
G1 X155.62 Y154.59 E900.55277
G1 X155.97 Y153.94 E900.58338
G1 X156.18 Y153.23 E900.61397
G1 X156.25 Y152.50 E900.64455
G1 X156.18 Y151.77 E900.67509
G1 X155.97 Y151.06 E900.70568
G1 X155.62 Y150.41 E900.73630
G1 X155.15 Y149.85 E900.76687
G1 X154.58 Y149.38 E900.79747
G0 X154.30 Y149.80
;TYPE:WALL-OUTER
G1 X153.74 Y149.50 E900.82396
G1 X153.13 Y149.31 E900.85045
G1 X152.50 Y149.25 E900.87693
G1 X151.86 Y149.31 E900.90342
G1 X151.25 Y149.50 E900.92991
G1 X150.69 Y149.80 E900.95640
G1 X150.20 Y150.20 E900.98292
G1 X149.79 Y150.69 E901.00939
G1 X149.69 Y150.88 E901.01830
G1 X149.69 Y154.12 E901.15284
G1 X149.81 Y154.32 E901.16242
G1 X150.20 Y154.80 E901.18816
G1 X150.69 Y155.20 E901.21466
G1 X151.25 Y155.50 E901.24116
G1 X151.86 Y155.69 E901.26765
G1 X152.50 Y155.75 E901.29414
G1 X153.13 Y155.69 E901.32063
G1 X153.74 Y155.50 E901.34712
G1 X154.30 Y155.20 E901.37362
G1 X154.80 Y154.80 E901.40012
G1 X155.20 Y154.31 E901.42659
G1 X155.50 Y153.74 E901.45311
G1 X155.69 Y153.13 E901.47961
G1 X155.75 Y152.50 E901.50610
G1 X155.69 Y151.87 E901.53254
G1 X155.50 Y151.26 E901.55904
G1 X155.20 Y150.69 E901.58557
G1 X154.80 Y150.20 E901.61203
G1 X154.30 Y149.80 E901.63856
G0 X154.47 Y149.49
G0 X166.05 Y132.22
G0 X166.25 Y131.92
G1 X170.00 Y135.00 E901.84032
G1 X173.08 Y138.75 E902.04208
G1 X175.37 Y143.03 E902.24368
G1 X176.77 Y147.67 E902.44538
G1 X177.25 Y152.50 E902.64712
G1 X176.77 Y157.33 E902.84886
G1 X175.36 Y161.97 E903.05058
G1 X173.08 Y166.25 E903.25216
G1 X170.00 Y170.00 E903.45392
G1 X166.25 Y173.08 E903.65568
G1 X161.97 Y175.37 E903.85729
G1 X157.33 Y176.77 E904.05895
G1 X152.50 Y177.25 E904.26073
G1 X147.67 Y176.77 E904.46252
G1 X143.03 Y175.36 E904.66419
G1 X138.75 Y173.08 E904.86578
G1 X135.00 Y170.00 E905.06754
G1 X131.92 Y166.25 E905.26915
G1 X129.63 Y161.97 E905.47105
G1 X128.23 Y157.33 E905.67259
G1 X127.75 Y152.50 E905.87433
G1 X128.23 Y147.67 E906.07607
G1 X129.64 Y143.03 E906.27778
G1 X131.92 Y138.75 E906.47937
G1 X135.00 Y135.00 E906.68113
G1 X138.75 Y131.92 E906.88274
G1 X143.03 Y129.63 E907.08464
G1 X147.67 Y128.23 E907.28618
G1 X152.50 Y127.75 E907.48792
G1 X157.33 Y128.23 E907.68971
G1 X161.97 Y129.64 E907.89138
G1 X166.25 Y131.92 E908.09297
G0 X164.79 Y131.91
;TYPE:FILL
G1 X173.09 Y140.21 E908.58145
G0 X173.91 Y141.73
G1 X163.27 Y131.09 E909.20704
G0 X161.75 Y130.28
G1 X174.72 Y143.25 E909.96983
G0 X175.04 Y144.28
G1 X160.72 Y129.96 E910.81162
G0 X159.71 Y129.65
G1 X175.35 Y145.29 E911.73119
G0 X175.65 Y146.31
G1 X158.69 Y129.35 E912.72849
G0 X157.68 Y129.04
G1 X175.96 Y147.32 E913.80346
G0 X176.15 Y148.22
G1 X156.78 Y128.85 E914.94211
G0 X156.00 Y128.77
G1 X176.22 Y149.00 E916.13138
G0 X176.30 Y149.78
G1 X155.21 Y128.70 E917.37133
G0 X154.43 Y128.62
G1 X176.38 Y150.57 E918.66196
G0 X176.46 Y151.35
G1 X153.64 Y128.54 E920.00325
G0 X152.86 Y128.47
G1 X176.53 Y152.14 E921.39516
G0 X176.53 Y152.85
G1 X152.15 Y128.46 E922.82885
G0 X151.51 Y128.53
G1 X176.47 Y153.49 E924.29658
G0 X176.41 Y154.13
G1 X150.86 Y128.59 E925.79849
G0 X150.22 Y128.65
G1 X176.34 Y154.78 E927.33454
G0 X176.28 Y155.42
G1 X149.58 Y128.72 E928.90467
G0 X148.93 Y128.78
G1 X176.22 Y156.07 E930.50892
G0 X176.16 Y156.71
G1 X148.29 Y128.84 E932.14728
G0 X147.67 Y128.93
G1 X176.07 Y157.33 E933.81679
G0 X175.90 Y157.87
G1 X147.13 Y129.10 E935.50854
G0 X146.59 Y129.26
G1 X175.74 Y158.41 E937.22250
G0 X175.57 Y158.96
G1 X146.04 Y129.43 E938.95869
G0 X145.50 Y129.59
G1 X175.41 Y159.50 E940.71711
G0 X175.24 Y160.04
G1 X144.96 Y129.76 E942.49769
G0 X144.42 Y129.92
G1 X175.08 Y160.58 E944.30056
G0 X174.91 Y161.13
G1 X143.87 Y130.09 E946.12562
G0 X143.33 Y130.25
G1 X174.75 Y161.67 E947.97297
G0 X174.51 Y162.14
G1 X142.86 Y130.49 E949.83372
G0 X142.40 Y130.74
G1 X174.26 Y162.60 E951.70706
G0 X174.02 Y163.06
G1 X141.94 Y130.98 E953.59300
G0 X141.48 Y131.23
G1 X173.77 Y163.52 E955.49159
G0 X173.53 Y163.98
G1 X141.02 Y131.47 E957.40282
G0 X140.56 Y131.72
G1 X173.28 Y164.44 E959.32657
G0 X173.03 Y164.90
G1 X140.10 Y131.97 E961.26296
G0 X139.64 Y132.21
G1 X172.79 Y165.36 E963.21200
G0 X172.54 Y165.82
G1 X139.18 Y132.46 E965.17358
G0 X138.78 Y132.77
G1 X172.23 Y166.22 E967.14017
G0 X171.91 Y166.61
G1 X155.93 Y150.62 E968.07982
G0 X156.35 Y151.76
G1 X171.59 Y167.00 E968.97581
G0 X171.27 Y167.38
G1 X156.42 Y152.53 E969.84900
G0 X156.36 Y153.18
G1 X170.95 Y167.77 E970.70710
G0 X170.63 Y168.16
G1 X156.21 Y153.73 E971.55529
G0 X156.00 Y154.23
G1 X170.32 Y168.55 E972.39690
G0 X170.00 Y168.94
G1 X155.75 Y154.69 E973.23436
G0 X155.44 Y155.08
G1 X169.68 Y169.32 E974.07182
G0 X169.32 Y169.68
G1 X155.08 Y155.44 E974.90920
G0 X154.69 Y155.75
G1 X168.94 Y170.00 E975.74654
G0 X168.55 Y170.31
G1 X154.24 Y156.00 E976.58801
G0 X153.73 Y156.21
G1 X168.16 Y170.63 E977.43614
G0 X167.77 Y170.95
G1 X153.18 Y156.36 E978.29404
G0 X152.53 Y156.42
G1 X167.38 Y171.27 E979.16698
G0 X166.99 Y171.59
G1 X151.76 Y156.35 E980.06280
G0 X150.63 Y155.94
G1 X166.61 Y171.91 E981.00189
G0 X166.22 Y172.23
G1 X132.77 Y138.78 E982.96854
G0 X133.09 Y138.39
G1 X149.05 Y154.36 E983.90722
G0 X149.02 Y153.62
G1 X133.41 Y138.00 E984.82514
G0 X133.73 Y137.62
G1 X149.02 Y152.91 E985.72431
G0 X149.02 Y152.20
G1 X134.04 Y137.23 E986.60473
G0 X134.36 Y136.84
G1 X149.02 Y151.49 E987.46639
G0 X149.02 Y150.79
G1 X134.68 Y136.45 E988.30926
G0 X135.00 Y136.06
G1 X149.24 Y150.30 E989.14654
G0 X149.56 Y149.91
G1 X135.32 Y135.67 E989.98377
G0 X135.68 Y135.32
G1 X149.91 Y149.56 E990.82097
G0 X150.30 Y149.24
G1 X136.06 Y135.00 E991.65823
G0 X136.45 Y134.68
G1 X150.76 Y148.99 E992.49957
G0 X151.26 Y148.79
G1 X136.84 Y134.37 E993.34759
G0 X137.23 Y134.05
G1 X151.82 Y148.64 E994.20554
G0 X152.46 Y148.57
G1 X137.62 Y133.73 E995.07849
G0 X138.00 Y133.41
G1 X153.24 Y148.65 E995.97437
G0 X154.37 Y149.07
G1 X138.39 Y133.09 E996.91384
G0 X132.46 Y139.18
G1 X165.82 Y172.54 E998.87549
G0 X165.36 Y172.79
G1 X132.21 Y139.64 E1000.82458
G0 X131.97 Y140.10
G1 X164.90 Y173.03 E1002.76103
G0 X164.44 Y173.28
G1 X131.72 Y140.56 E1004.68490
G0 X131.47 Y141.02
G1 X163.98 Y173.53 E1006.59613
G0 X163.52 Y173.77
G1 X131.23 Y141.48 E1008.49480
G0 X130.98 Y141.94
G1 X163.06 Y174.02 E1010.38084
G0 X162.60 Y174.26
G1 X130.73 Y142.40 E1012.25429
G0 X130.49 Y142.86
G1 X162.14 Y174.51 E1014.11510
G0 X161.67 Y174.75
G1 X130.25 Y143.33 E1015.96254
G0 X130.08 Y143.87
G1 X161.13 Y174.91 E1017.78775
G0 X160.58 Y175.08
G1 X129.92 Y144.41 E1019.59067
G0 X129.75 Y144.96
G1 X160.04 Y175.24 E1021.37137
G0 X159.50 Y175.41
G1 X129.59 Y145.50 E1023.12985
G0 X129.43 Y146.04
G1 X158.96 Y175.57 E1024.86613
G0 X158.41 Y175.74
G1 X129.26 Y146.59 E1026.58012
G0 X129.10 Y147.13
G1 X157.87 Y175.90 E1028.27190
G0 X157.33 Y176.07
G1 X128.93 Y147.67 E1029.94147
G0 X128.84 Y148.29
G1 X156.71 Y176.16 E1031.57986
G0 X156.07 Y176.22
G1 X128.78 Y148.93 E1033.18417
G0 X128.72 Y149.58
G1 X155.42 Y176.28 E1034.75429
G0 X154.78 Y176.34
G1 X128.65 Y150.22 E1036.29034
G0 X128.59 Y150.86
G1 X154.13 Y176.41 E1037.79226
G0 X153.49 Y176.47
G1 X128.53 Y151.51 E1039.25999
G0 X128.46 Y152.15
G1 X152.85 Y176.53 E1040.69367
G0 X152.14 Y176.53
G1 X128.47 Y152.86 E1042.08558
G0 X128.54 Y153.64
G1 X151.35 Y176.46 E1043.42687
G0 X150.57 Y176.38
G1 X128.62 Y154.43 E1044.71748
G0 X128.70 Y155.21
G1 X149.78 Y176.30 E1045.95743
G0 X149.00 Y176.22
G1 X128.77 Y156.00 E1047.14667
G0 X128.85 Y156.78
G1 X148.22 Y176.15 E1048.28529
G0 X147.32 Y175.96
G1 X129.04 Y157.68 E1049.36023
G0 X129.35 Y158.69
G1 X146.31 Y175.65 E1050.35747
G0 X145.29 Y175.34
G1 X129.65 Y159.71 E1051.27692
G0 X129.96 Y160.72
G1 X144.28 Y175.04 E1052.11859
G0 X143.25 Y174.72
G1 X130.28 Y161.75 E1052.88112
G0 X131.09 Y163.27
G1 X141.73 Y173.91 E1053.50653
G0 X140.21 Y173.09
G1 X131.91 Y164.79 E1053.99484
G0 X133.42 Y167.01
G1 X137.99 Y171.58 E1054.26374
G0 X171.58 Y137.99
G1 X167.00 Y133.42 E1054.53279
;LAYER:5
G0 X165.97 Y132.34 Z1.30
;TYPE:WALL-INNER
G1 X169.64 Y135.36 E1054.73060
G1 X172.66 Y139.03 E1054.92831
G1 X174.90 Y143.22 E1055.12571
G1 X176.28 Y147.77 E1055.32360
G1 X176.75 Y152.50 E1055.52103
G1 X176.28 Y157.23 E1055.71850
G1 X174.90 Y161.78 E1055.91640
G1 X172.66 Y165.97 E1056.11366
G1 X169.64 Y169.64 E1056.31146
G1 X165.97 Y172.66 E1056.50917
G1 X161.78 Y174.90 E1056.70657
G1 X157.23 Y176.28 E1056.90446
G1 X152.50 Y176.75 E1057.10186
G1 X147.77 Y176.28 E1057.29934
G1 X143.22 Y174.90 E1057.49733
G1 X139.03 Y172.66 E1057.69452
G1 X135.36 Y169.64 E1057.89233
G1 X132.34 Y165.97 E1058.09004
G1 X130.10 Y161.78 E1058.28742
G1 X128.72 Y157.23 E1058.48532
G1 X128.25 Y152.50 E1058.68275
G1 X128.72 Y147.77 E1058.88019
G1 X130.10 Y143.22 E1059.07818
G1 X132.34 Y139.03 E1059.27537
G1 X135.36 Y135.36 E1059.47318
G1 X139.03 Y132.34 E1059.67089
G1 X143.22 Y130.10 E1059.86827
G1 X147.77 Y128.72 E1060.06617
G1 X152.50 Y128.25 E1060.26361
G1 X157.23 Y128.72 E1060.46113
G1 X161.78 Y130.10 E1060.65898
G1 X165.97 Y132.34 E1060.85623
G0 X154.58 Y149.38
G1 X153.93 Y149.03 E1060.88683
G1 X153.23 Y148.82 E1060.91741
G1 X152.50 Y148.75 E1060.94799
G1 X151.77 Y148.82 E1060.97858
G1 X151.06 Y149.03 E1061.00915
G1 X150.41 Y149.38 E1061.03975
G1 X149.84 Y149.85 E1061.07036
G1 X149.38 Y150.41 E1061.10090
G1 X149.19 Y150.76 E1061.11708
G1 X149.19 Y154.25 E1061.26239
G1 X149.40 Y154.61 E1061.27967
G1 X149.84 Y155.15 E1061.30876
G1 X150.41 Y155.62 E1061.33931
G1 X151.06 Y155.97 E1061.36989
G1 X151.77 Y156.18 E1061.40050
G1 X152.50 Y156.25 E1061.43109
G1 X153.23 Y156.18 E1061.46167
G1 X153.94 Y155.97 E1061.49229
G1 X154.58 Y155.62 E1061.52287
G1 X155.15 Y155.15 E1061.55345
G1 X155.62 Y154.59 E1061.58402
G1 X155.97 Y153.94 E1061.61463
G1 X156.18 Y153.23 E1061.64523
G1 X156.25 Y152.50 E1061.67581
G1 X156.18 Y151.77 E1061.70634
G1 X155.97 Y151.06 E1061.73693
G1 X155.62 Y150.41 E1061.76755
G1 X155.15 Y149.85 E1061.79812
G1 X154.58 Y149.38 E1061.82872
G0 X154.30 Y149.80
;TYPE:WALL-OUTER
G1 X153.74 Y149.50 E1061.85521
G1 X153.13 Y149.31 E1061.88170
G1 X152.50 Y149.25 E1061.90819
G1 X151.86 Y149.31 E1061.93468
G1 X151.25 Y149.50 E1061.96117
G1 X150.69 Y149.80 E1061.98765
G1 X150.20 Y150.20 E1062.01418
G1 X149.79 Y150.69 E1062.04064
G1 X149.69 Y150.88 E1062.04955
G1 X149.69 Y154.12 E1062.18413
G1 X149.81 Y154.33 E1062.19413
G1 X150.20 Y154.80 E1062.21944
G1 X150.69 Y155.20 E1062.24591
G1 X151.25 Y155.50 E1062.27242
G1 X151.86 Y155.69 E1062.29891
G1 X152.50 Y155.75 E1062.32539
G1 X153.13 Y155.69 E1062.35188
G1 X153.74 Y155.50 E1062.37837
G1 X154.30 Y155.20 E1062.40488
G1 X154.80 Y154.80 E1062.43138
G1 X155.20 Y154.31 E1062.45785
G1 X155.50 Y153.74 E1062.48437
G1 X155.69 Y153.13 E1062.51087
G1 X155.75 Y152.50 E1062.53735
G1 X155.69 Y151.87 E1062.56380
G1 X155.50 Y151.26 E1062.59030
G1 X155.20 Y150.69 E1062.61682
G1 X154.80 Y150.20 E1062.64329
G1 X154.30 Y149.80 E1062.66981
G0 X154.47 Y149.49
G0 X166.05 Y132.22
G0 X166.25 Y131.92
G1 X170.00 Y135.00 E1062.87157
G1 X173.08 Y138.75 E1063.07333
G1 X175.37 Y143.03 E1063.27494
G1 X176.77 Y147.67 E1063.47664
G1 X177.25 Y152.50 E1063.67838
G1 X176.77 Y157.33 E1063.88020
G1 X175.36 Y161.97 E1064.08180
G1 X173.08 Y166.25 E1064.28342
G1 X170.00 Y170.00 E1064.48518
G1 X166.25 Y173.08 E1064.68693
G1 X161.97 Y175.37 E1064.88854
G1 X157.33 Y176.77 E1065.09024
G1 X152.50 Y177.25 E1065.29194
G1 X147.67 Y176.77 E1065.49377
G1 X143.03 Y175.36 E1065.69545
G1 X138.75 Y173.08 E1065.89703
G1 X135.00 Y170.00 E1066.09879
G1 X131.92 Y166.25 E1066.30055
G1 X129.64 Y161.97 E1066.50213
G1 X128.23 Y157.33 E1066.70385
G1 X127.75 Y152.50 E1066.90559
G1 X128.23 Y147.67 E1067.10733
G1 X129.64 Y143.03 E1067.30904
G1 X131.92 Y138.75 E1067.51063
G1 X135.00 Y135.00 E1067.71239
G1 X138.75 Y131.92 E1067.91414
G1 X143.03 Y129.64 E1068.11573
G1 X147.67 Y128.23 E1068.31744
G1 X152.50 Y127.75 E1068.51919
G1 X157.33 Y128.23 E1068.72101
G1 X161.97 Y129.64 E1068.92261
G1 X166.25 Y131.92 E1069.12423
G0 X165.67 Y132.38
;TYPE:FILL
G1 X132.38 Y165.67 E1071.08164
G0 X132.66 Y166.09
G1 X166.09 Y132.66 E1073.04682
G0 X166.48 Y132.98
G1 X149.83 Y149.63 E1074.02577
G0 X149.63 Y149.83
G1 X132.98 Y166.47 E1075.00444
G0 X133.30 Y166.86
G1 X149.02 Y151.15 E1075.92848
G0 X149.02 Y151.85
G1 X133.62 Y167.25 E1076.83376
G0 X133.94 Y167.64
G1 X149.02 Y152.56 E1077.72029
G0 X149.02 Y153.27
G1 X134.26 Y168.03 E1078.58809
G0 X134.58 Y168.42
G1 X149.02 Y153.98 E1079.43717
G0 X149.16 Y154.54
G1 X134.90 Y168.81 E1080.27566
G0 X135.22 Y169.19
G1 X149.45 Y154.96 E1081.11286
G0 X149.79 Y155.33
G1 X135.54 Y169.57 E1081.95017
G0 X135.93 Y169.89
G1 X150.17 Y155.65 E1082.78749
G0 X150.61 Y155.92
G1 X136.32 Y170.21 E1083.62751
G0 X136.71 Y170.53
G1 X151.08 Y156.16 E1084.47256
G0 X151.62 Y156.32
G1 X137.10 Y170.85 E1085.32669
G0 X137.49 Y171.16
G1 X152.25 Y156.40 E1086.19470
G0 X152.98 Y156.38
G1 X137.87 Y171.48 E1087.08279
G0 X138.26 Y171.80
G1 X153.91 Y156.16 E1088.00274
G0 X156.15 Y153.91
G1 X171.80 Y138.26 E1088.92275
G0 X172.12 Y138.65
G1 X138.65 Y172.12 E1090.89063
G0 X139.04 Y172.44
G1 X172.44 Y139.04 E1092.85445
G0 X172.70 Y139.48
G1 X139.48 Y172.70 E1094.80766
G0 X139.94 Y172.95
G1 X172.95 Y139.94 E1096.74826
G0 X173.20 Y140.41
G1 X140.40 Y173.20 E1098.67630
G0 X140.87 Y173.44
G1 X173.44 Y140.87 E1100.59170
G0 X173.69 Y141.33
G1 X141.33 Y173.69 E1102.49453
G0 X141.79 Y173.94
G1 X173.94 Y141.79 E1104.38476
G0 X174.18 Y142.25
G1 X142.25 Y174.18 E1106.26242
G0 X142.71 Y174.43
G1 X174.43 Y142.71 E1108.12743
G0 X174.68 Y143.17
G1 X143.17 Y174.68 E1109.97987
G0 X143.69 Y174.86
G1 X174.86 Y143.69 E1111.81242
G0 X175.02 Y144.23
G1 X144.23 Y175.02 E1113.62276
G0 X144.78 Y175.19
G1 X175.19 Y144.78 E1115.41081
G0 X175.35 Y145.32
G1 X145.32 Y175.35 E1117.17669
G0 X145.86 Y175.52
G1 X175.52 Y145.86 E1118.92035
G0 X175.68 Y146.41
G1 X146.40 Y175.68 E1120.64176
G0 X146.95 Y175.85
G1 X175.85 Y146.95 E1122.34088
G0 X176.01 Y147.49
G1 X147.49 Y176.01 E1124.01780
G0 X148.07 Y176.13
G1 X176.13 Y148.07 E1125.66754
G0 X176.20 Y148.72
G1 X148.72 Y176.20 E1127.28320
G0 X149.36 Y176.26
G1 X176.26 Y149.36 E1128.86472
G0 X176.32 Y150.01
G1 X150.00 Y176.32 E1130.41215
G0 X150.65 Y176.39
G1 X176.39 Y150.65 E1131.92551
G0 X176.45 Y151.29
G1 X151.29 Y176.45 E1133.40476
G0 X151.94 Y176.51
G1 X176.51 Y151.94 E1134.84985
G0 X176.56 Y152.60
G1 X152.60 Y176.56 E1136.25878
G0 X153.38 Y176.48
G1 X176.48 Y153.38 E1137.61709
G0 X176.41 Y154.17
G1 X154.16 Y176.41 E1138.92472
G0 X154.95 Y176.33
G1 X176.33 Y154.95 E1140.18166
G0 X176.25 Y155.74
G1 X155.73 Y176.25 E1141.38793
G0 X156.52 Y176.17
G1 X176.17 Y156.52 E1142.54353
G0 X176.06 Y157.34
G1 X157.34 Y176.06 E1143.64473
G0 X158.35 Y175.76
G1 X175.76 Y158.35 E1144.66813
G0 X175.45 Y159.37
G1 X159.36 Y175.45 E1145.61381
G0 X160.38 Y175.14
G1 X175.14 Y160.38 E1146.48173
G0 X174.83 Y161.40
G1 X161.39 Y174.83 E1147.27189
G0 X162.75 Y174.18
G1 X174.18 Y162.76 E1147.94367
G0 X173.37 Y164.28
G1 X164.28 Y173.37 E1148.47824
G0 X165.79 Y172.56
G1 X172.55 Y165.80 E1148.87559
G0 X156.38 Y152.98
G1 X171.48 Y137.88 E1149.76370
G0 X171.16 Y137.49
G1 X156.40 Y152.25 E1150.63174
G0 X156.32 Y151.63
G1 X170.85 Y137.10 E1151.48599
G0 X170.53 Y136.71
G1 X156.15 Y151.08 E1152.33113
G0 X155.92 Y150.61
G1 X170.21 Y136.32 E1153.17115
G0 X169.89 Y135.93
G1 X155.65 Y150.18 E1154.00846
G0 X155.33 Y149.79
G1 X169.57 Y135.55 E1154.84578
G0 X169.19 Y135.21
G1 X154.95 Y149.46 E1155.68324
G0 X154.54 Y149.16
G1 X168.81 Y134.90 E1156.52188
G0 X168.42 Y134.58
G1 X154.08 Y148.91 E1157.36484
G0 X153.55 Y148.74
G1 X168.03 Y134.26 E1158.21604
G0 X167.64 Y133.94
G1 X152.96 Y148.62 E1159.07910
G0 X152.28 Y148.59
G1 X167.25 Y133.62 E1159.95946
G0 X166.87 Y133.30
G1 X151.43 Y148.74 E1160.86718
G0 X145.97 Y129.45
G1 X129.45 Y145.97 E1161.83850
G0 X129.76 Y144.95
G1 X144.95 Y129.76 E1162.73208
G0 X143.94 Y130.06
G1 X130.06 Y143.94 E1163.54788
G0 X130.55 Y142.75
G1 X142.75 Y130.55 E1164.26496
G0 X141.23 Y131.36
G1 X131.36 Y141.23 E1164.84489
G0 X132.18 Y139.71
G1 X139.71 Y132.17 E1165.28777
G0 X136.68 Y134.50
G1 X134.50 Y136.67 E1165.41566
G0 X129.14 Y146.98
G1 X146.98 Y129.14 E1166.46473
G0 X147.96 Y128.88
G1 X128.88 Y147.95 E1167.58641
G0 X128.80 Y148.74
G1 X148.74 Y128.80 E1168.75878
G0 X149.52 Y128.72
G1 X128.72 Y149.52 E1169.98180
G0 X128.65 Y150.31
G1 X150.31 Y128.64 E1171.25547
G0 X151.09 Y128.57
G1 X128.57 Y151.09 E1172.57982
G0 X128.49 Y151.88
G1 X151.88 Y128.49 E1173.95489
G0 X152.63 Y128.44
G1 X128.44 Y152.63 E1175.37717
G0 X128.51 Y153.28
G1 X153.28 Y128.50 E1176.83355
G0 X153.92 Y128.57
G1 X128.57 Y153.92 E1178.32409
G0 X128.63 Y154.56
G1 X154.56 Y128.63 E1179.84867
G0 X155.21 Y128.70
G1 X128.70 Y155.21 E1181.40739
G0 X128.76 Y155.85
G1 X155.85 Y128.76 E1183.00018
G0 X156.49 Y128.82
G1 X128.82 Y156.49 E1184.62713
G0 X128.89 Y157.14
G1 X157.14 Y128.89 E1186.28818
G0 X157.69 Y129.04
G1 X129.04 Y157.69 E1187.97245
G0 X129.21 Y158.23
G1 X158.23 Y129.21 E1189.67901
G0 X158.77 Y129.37
G1 X129.37 Y158.77 E1191.40774
G0 X129.54 Y159.32
G1 X159.32 Y129.53 E1193.15872
G0 X159.86 Y129.70
G1 X129.70 Y159.86 E1194.93192
G0 X129.87 Y160.40
G1 X160.40 Y129.86 E1196.72738
G0 X160.94 Y130.03
G1 X130.03 Y160.94 E1198.54503
G0 X130.19 Y161.49
G1 X161.49 Y130.19 E1200.38494
G0 X161.98 Y130.41
G1 X130.41 Y161.98 E1202.24146
G0 X130.65 Y162.44
G1 X162.44 Y130.65 E1204.11059
G0 X162.90 Y130.90
G1 X130.90 Y162.90 E1205.99236
G0 X131.15 Y163.36
G1 X163.37 Y131.14 E1207.88677
G0 X163.83 Y131.39
G1 X131.39 Y163.82 E1209.79374
G0 X131.64 Y164.28
G1 X164.29 Y131.64 E1211.71332
G0 X164.75 Y131.88
G1 X131.88 Y164.75 E1213.64548
G0 X132.13 Y165.21
G1 X165.21 Y132.13 E1215.59031
;LAYER:6
G0 X165.97 Y132.34 Z1.50
;TYPE:WALL-INNER
G1 X169.64 Y135.35 E1215.78775
G1 X172.66 Y139.03 E1215.98547
G1 X174.90 Y143.22 E1216.18311
G1 X176.11 Y147.22 E1216.35696
G1 X176.28 Y147.77 E1216.38073
G1 X176.75 Y152.50 E1216.57829
G1 X176.34 Y156.66 E1216.75212
G1 X176.28 Y157.23 E1216.77573
G1 X174.90 Y161.78 E1216.97363
G1 X172.66 Y165.97 E1217.17116
G1 X169.65 Y169.64 E1217.36860
G1 X165.97 Y172.66 E1217.56632
G1 X161.78 Y174.90 E1217.76396
G1 X157.78 Y176.11 E1217.93781
G1 X157.23 Y176.28 E1217.96159
G1 X152.50 Y176.75 E1218.15915
G1 X147.77 Y176.28 E1218.35659
G1 X143.22 Y174.90 E1218.55449
G1 X139.03 Y172.66 E1218.75202
G1 X135.36 Y169.65 E1218.94947
G1 X132.34 Y165.97 E1219.14739
G1 X130.10 Y161.78 E1219.34458
G1 X128.89 Y157.78 E1219.51866
G1 X128.72 Y157.23 E1219.54244
G1 X128.25 Y152.50 E1219.74000
G1 X128.66 Y148.34 E1219.91383
G1 X128.72 Y147.77 E1219.93744
G1 X130.10 Y143.22 E1220.13533
G1 X132.34 Y139.03 E1220.33272
G1 X135.36 Y135.35 E1220.53055
G1 X139.03 Y132.34 E1220.72790
G1 X143.22 Y130.10 E1220.92560
G1 X147.22 Y128.89 E1221.09951
G1 X147.77 Y128.72 E1221.12333
G1 X152.50 Y128.25 E1221.32085
G1 X157.23 Y128.72 E1221.51829
G1 X161.78 Y130.10 E1221.71619
G1 X165.97 Y132.34 E1221.91372
G0 X154.58 Y149.38
G1 X153.93 Y149.03 E1221.94432
G1 X153.23 Y148.82 E1221.97490
G1 X152.50 Y148.75 E1222.00548
G1 X151.77 Y148.82 E1222.03606
G1 X151.06 Y149.03 E1222.06664
G1 X150.41 Y149.38 E1222.09724
G1 X149.84 Y149.85 E1222.12784
G1 X149.38 Y150.41 E1222.15839
G1 X149.19 Y150.76 E1222.17457
G1 X149.19 Y154.26 E1222.32033
G1 X149.42 Y154.64 E1222.33873
G1 X149.84 Y155.15 E1222.36626
G1 X150.41 Y155.62 E1222.39684
G1 X151.06 Y155.97 E1222.42742
G1 X151.77 Y156.18 E1222.45804
G1 X152.50 Y156.25 E1222.48862
G1 X153.23 Y156.18 E1222.51921
G1 X153.94 Y155.97 E1222.54982
G1 X154.58 Y155.62 E1222.58040
G1 X155.15 Y155.15 E1222.61098
G1 X155.62 Y154.59 E1222.64155
G1 X155.97 Y153.94 E1222.67217
G1 X156.18 Y153.23 E1222.70276
G1 X156.25 Y152.50 E1222.73334
G1 X156.18 Y151.77 E1222.76388
G1 X155.97 Y151.06 E1222.79447
G1 X155.62 Y150.41 E1222.82508
G1 X155.15 Y149.85 E1222.85565
G1 X154.58 Y149.38 E1222.88626
G0 X154.30 Y149.80
;TYPE:WALL-OUTER
G1 X153.74 Y149.50 E1222.91274
G1 X153.13 Y149.31 E1222.93923
G1 X152.50 Y149.25 E1222.96572
G1 X151.86 Y149.31 E1222.99221
G1 X151.25 Y149.50 E1223.01870
G1 X150.69 Y149.80 E1223.04519
G1 X150.20 Y150.20 E1223.07171
G1 X149.79 Y150.69 E1223.09818
G1 X149.69 Y150.88 E1223.10709
G1 X149.69 Y154.12 E1223.24183
G1 X149.83 Y154.35 E1223.25294
G1 X150.20 Y154.80 E1223.27695
G1 X150.69 Y155.20 E1223.30345
G1 X151.25 Y155.50 E1223.32996
G1 X151.86 Y155.69 E1223.35645
G1 X152.50 Y155.75 E1223.38294
G1 X153.13 Y155.69 E1223.40943
G1 X153.74 Y155.50 E1223.43591
G1 X154.30 Y155.20 E1223.46242
G1 X154.80 Y154.80 E1223.48892
G1 X155.20 Y154.31 E1223.51539
G1 X155.50 Y153.74 E1223.54191
G1 X155.69 Y153.13 E1223.56841
G1 X155.75 Y152.50 E1223.59490
G1 X155.69 Y151.87 E1223.62134
G1 X155.50 Y151.26 E1223.64784
G1 X155.20 Y150.69 E1223.67436
G1 X154.80 Y150.20 E1223.70083
G1 X154.30 Y149.80 E1223.72736
G0 X154.47 Y149.49
G0 X166.05 Y132.22
G0 X166.25 Y131.92
G1 X170.00 Y135.00 E1223.92885
G1 X173.08 Y138.75 E1224.13061
G1 X175.37 Y143.03 E1224.33258
G1 X176.77 Y147.67 E1224.53398
G1 X177.25 Y152.50 E1224.73581
G1 X176.77 Y157.33 E1224.93755
G1 X175.36 Y161.97 E1225.13926
G1 X173.08 Y166.25 E1225.34097
G1 X170.00 Y170.00 E1225.54247
G1 X166.25 Y173.08 E1225.74423
G1 X161.97 Y175.37 E1225.94620
G1 X157.33 Y176.77 E1226.14760
G1 X152.50 Y177.25 E1226.34943
G1 X147.67 Y176.77 E1226.55117
G1 X143.03 Y175.36 E1226.75289
G1 X138.75 Y173.08 E1226.95460
G1 X135.00 Y170.00 E1227.15609
G1 X131.92 Y166.25 E1227.35800
G1 X129.64 Y161.97 E1227.55959
G1 X128.23 Y157.33 E1227.76130
G1 X127.75 Y152.50 E1227.96304
G1 X128.23 Y147.67 E1228.16478
G1 X129.64 Y143.03 E1228.36649
G1 X131.92 Y138.75 E1228.56808
G1 X135.00 Y135.00 E1228.76999
G1 X138.75 Y131.93 E1228.97131
G1 X143.03 Y129.63 E1229.17336
G1 X147.67 Y128.23 E1229.37490
G1 X152.50 Y127.75 E1229.57664
G1 X157.33 Y128.23 E1229.77839
G1 X161.97 Y129.64 E1229.98010
G1 X166.25 Y131.92 E1230.18182
G0 X164.79 Y131.91
;TYPE:FILL
G1 X173.09 Y140.21 E1230.67015
G0 X173.91 Y141.73
G1 X163.27 Y131.09 E1231.29562
G0 X161.75 Y130.28
G1 X174.72 Y143.25 E1232.05830
G0 X175.04 Y144.28
G1 X160.72 Y129.96 E1232.90008
G0 X159.71 Y129.65
G1 X175.35 Y145.29 E1233.81965
G0 X175.65 Y146.31
G1 X158.69 Y129.35 E1234.81695
G0 X157.68 Y129.04
G1 X164.64 Y136.00 E1235.22629
G0 X163.35 Y134.36
G1 X170.64 Y141.65 E1235.65509
G0 X170.34 Y142.41
G1 X176.15 Y148.22 E1235.99670
G0 X176.22 Y149.00
G1 X171.03 Y143.80 E1236.30241
G0 X171.59 Y145.07
G1 X176.30 Y149.78 E1236.57972
G0 X176.38 Y150.57
G1 X171.95 Y146.14 E1236.84019
G0 X172.81 Y146.64
G1 X158.35 Y132.19 E1237.68991
G0 X157.79 Y132.69
G1 X153.64 Y128.54 E1237.93380
G0 X152.86 Y128.47
G1 X156.91 Y132.51 E1238.17192
G0 X156.52 Y131.78
G1 X173.23 Y148.48 E1239.15396
G0 X172.66 Y148.97
G1 X176.53 Y152.85 E1239.38186
G0 X176.47 Y153.49
G1 X172.83 Y149.85 E1239.59582
G0 X173.50 Y150.17
G1 X154.83 Y131.50 E1240.69381
G0 X155.15 Y132.17
G1 X151.51 Y128.53 E1240.90788
G0 X152.15 Y128.46
G1 X156.03 Y132.34 E1241.13581
G0 X154.39 Y132.12
G1 X150.86 Y128.59 E1241.34324
G0 X150.22 Y128.65
G1 X153.63 Y132.07 E1241.54400
G0 X153.32 Y131.40
G1 X173.60 Y151.68 E1242.73683
G0 X172.93 Y151.36
G1 X176.34 Y154.78 E1242.93761
G0 X176.41 Y154.13
G1 X172.88 Y150.61 E1243.14502
G0 X172.98 Y152.12
G1 X176.28 Y155.42 E1243.33919
G0 X176.22 Y156.07
G1 X172.98 Y152.83 E1243.52943
G0 X172.94 Y153.49
G1 X176.16 Y156.71 E1243.71849
G0 X176.07 Y157.33
G1 X172.90 Y154.16 E1243.90490
G0 X172.85 Y154.82
G1 X175.90 Y157.87 E1244.08420
G0 X175.74 Y158.41
G1 X172.77 Y155.45 E1244.25841
G0 X172.66 Y156.04
G1 X175.57 Y158.96 E1244.42986
G0 X175.41 Y159.50
G1 X172.54 Y156.63 E1244.59855
G0 X172.42 Y157.22
G1 X175.24 Y160.04 E1244.76441
G0 X175.08 Y160.58
G1 X172.30 Y157.81 E1244.92757
G0 X172.13 Y158.34
G1 X174.91 Y161.13 E1245.09152
G0 X174.75 Y161.67
G1 X171.95 Y158.86 E1245.25642
G0 X171.77 Y159.39
G1 X174.51 Y162.14 E1245.41773
G0 X174.26 Y162.60
G1 X171.59 Y159.92 E1245.57509
G0 X171.40 Y160.44
G1 X174.02 Y163.06 E1245.72908
G0 X173.77 Y163.52
G1 X171.16 Y160.91 E1245.88236
G0 X170.93 Y161.39
G1 X173.53 Y163.98 E1246.03488
G0 X173.28 Y164.44
G1 X170.70 Y161.86 E1246.18657
G0 X170.47 Y162.33
G1 X173.03 Y164.90 E1246.33756
G0 X172.79 Y165.36
G1 X170.23 Y162.80 E1246.48808
G0 X169.94 Y163.22
G1 X172.54 Y165.82 E1246.64083
G0 X172.23 Y166.22
G1 X169.66 Y163.65 E1246.79197
G0 X169.38 Y164.07
G1 X171.91 Y166.61 E1246.94099
G0 X171.59 Y167.00
G1 X169.09 Y164.50 E1247.08795
G0 X168.81 Y164.92
G1 X171.27 Y167.38 E1247.23282
G0 X170.95 Y167.77
G1 X168.49 Y165.30 E1247.37799
G0 X168.16 Y165.68
G1 X170.63 Y168.16 E1247.52380
G0 X170.32 Y168.55
G1 X167.82 Y166.06 E1247.67027
G0 X167.50 Y166.43
G1 X170.00 Y168.94 E1247.81740
G0 X169.68 Y169.32
G1 X167.16 Y166.81 E1247.96525
G0 X166.81 Y167.16
G1 X169.32 Y169.68 E1248.11303
G0 X168.94 Y170.00
G1 X166.44 Y167.50 E1248.26008
G0 X166.06 Y167.83
G1 X168.55 Y170.31 E1248.40642
G0 X168.16 Y170.63
G1 X165.68 Y168.16 E1248.55206
G0 X165.31 Y168.49
G1 X167.77 Y170.95 E1248.69699
G0 X167.38 Y171.27
G1 X164.92 Y168.81 E1248.84169
G0 X164.50 Y169.09
G1 X166.99 Y171.59 E1248.98850
G0 X166.61 Y171.91
G1 X164.07 Y169.38 E1249.13744
G0 X163.65 Y169.66
G1 X166.22 Y172.23 E1249.28839
G0 X165.82 Y172.54
G1 X163.22 Y169.94 E1249.44103
G0 X162.80 Y170.23
G1 X165.36 Y172.78 E1249.59149
G0 X164.90 Y173.03
G1 X162.33 Y170.47 E1249.74233
G0 X161.86 Y170.70
G1 X164.44 Y173.28 E1249.89397
G0 X163.98 Y173.52
G1 X161.39 Y170.93 E1250.04631
G0 X160.91 Y171.17
G1 X163.52 Y173.77 E1250.19941
G0 X163.06 Y174.02
G1 X160.44 Y171.40 E1250.35328
G0 X159.92 Y171.59
G1 X162.60 Y174.26 E1250.51056
G0 X162.14 Y174.51
G1 X159.39 Y171.77 E1250.67181
G0 X158.87 Y171.95
G1 X161.67 Y174.75 E1250.83662
G0 X161.13 Y174.91
G1 X158.34 Y172.13 E1251.00060
G0 X157.81 Y172.31
G1 X160.58 Y175.08 E1251.16370
G0 X160.04 Y175.24
G1 X157.22 Y172.42 E1251.32956
G0 X156.63 Y172.54
G1 X159.50 Y175.41 E1251.49819
G0 X158.96 Y175.57
G1 X156.04 Y172.66 E1251.66964
G0 X155.45 Y172.77
G1 X158.41 Y175.74 E1251.84385
G0 X157.87 Y175.90
G1 X154.82 Y172.85 E1252.02309
G0 X154.16 Y172.90
G1 X157.33 Y176.07 E1252.20948
G0 X156.71 Y176.15
G1 X153.50 Y172.94 E1252.39845
G0 X152.83 Y172.98
G1 X156.06 Y176.22 E1252.58862
G0 X155.42 Y176.28
G1 X152.12 Y172.98 E1252.78280
G0 X151.36 Y172.93
G1 X154.78 Y176.34 E1252.98353
G0 X154.13 Y176.41
G1 X150.61 Y172.88 E1253.19096
G0 X149.85 Y172.83
G1 X153.49 Y176.47 E1253.40498
G0 X152.85 Y176.53
G1 X148.97 Y172.66 E1253.63287
G0 X148.47 Y173.22
G1 X131.77 Y156.52 E1254.61489
G0 X132.34 Y156.03
G1 X128.46 Y152.15 E1254.84281
G0 X128.53 Y151.51
G1 X132.17 Y155.15 E1255.05689
G0 X131.49 Y154.83
G1 X150.17 Y173.50 E1256.15488
G0 X151.68 Y173.60
G1 X131.40 Y153.31 E1257.34770
G0 X132.07 Y153.63
G1 X128.65 Y150.22 E1257.54852
G0 X128.72 Y149.58
G1 X132.02 Y152.88 E1257.74267
G0 X132.02 Y152.17
G1 X128.78 Y148.93 E1257.93296
G0 X128.84 Y148.29
G1 X132.06 Y151.50 E1258.12202
G0 X132.10 Y150.84
G1 X128.93 Y147.67 E1258.30846
G0 X129.10 Y147.13
G1 X132.15 Y150.18 E1258.48773
G0 X132.22 Y149.55
G1 X129.26 Y146.59 E1258.66191
G0 X129.43 Y146.04
G1 X132.34 Y148.96 E1258.83339
G0 X132.46 Y148.37
G1 X129.59 Y145.50 E1259.00208
G0 X129.75 Y144.96
G1 X132.58 Y147.78 E1259.16794
G0 X132.69 Y147.19
G1 X129.92 Y144.41 E1259.33110
G0 X130.08 Y143.87
G1 X132.87 Y146.66 E1259.49509
G0 X133.05 Y146.13
G1 X130.25 Y143.33 E1259.65998
G0 X130.49 Y142.86
G1 X133.23 Y145.61 E1259.82129
G0 X133.41 Y145.08
G1 X130.73 Y142.40 E1259.97863
G0 X130.98 Y141.94
G1 X133.60 Y144.56 E1260.13258
G0 X133.83 Y144.09
G1 X131.23 Y141.48 E1260.28584
G0 X131.47 Y141.02
G1 X134.07 Y143.61 E1260.43829
G0 X134.30 Y143.14
G1 X131.72 Y140.56 E1260.59005
G0 X131.97 Y140.10
G1 X134.53 Y142.66 E1260.74106
G0 X134.77 Y142.20
G1 X132.21 Y139.64 E1260.89170
G0 X132.46 Y139.18
G1 X135.06 Y141.77 E1261.04445
G0 X135.34 Y141.35
G1 X132.77 Y138.78 E1261.19559
G0 X133.09 Y138.39
G1 X135.62 Y140.93 E1261.34461
G0 X135.91 Y140.50
G1 X133.41 Y138.00 E1261.49154
G0 X133.73 Y137.62
G1 X136.19 Y140.08 E1261.63641
G0 X136.51 Y139.69
G1 X134.04 Y137.23 E1261.78152
G0 X134.36 Y136.84
G1 X136.84 Y139.32 E1261.92728
G0 X137.17 Y138.94
G1 X134.68 Y136.45 E1262.07368
G0 X135.00 Y136.06
G1 X137.50 Y138.56 E1262.22076
G0 X137.83 Y138.19
G1 X135.32 Y135.67 E1262.36854
G0 X135.68 Y135.32
G1 X138.19 Y137.83 E1262.51627
G0 X138.56 Y137.50
G1 X136.06 Y135.00 E1262.66329
G0 X136.45 Y134.68
G1 X138.94 Y137.17 E1262.80963
G0 X139.32 Y136.84
G1 X136.84 Y134.37 E1262.95527
G0 X137.23 Y134.05
G1 X139.69 Y136.51 E1263.10026
G0 X140.08 Y136.19
G1 X137.62 Y133.73 E1263.24502
G0 X138.00 Y133.41
G1 X140.50 Y135.91 E1263.39186
G0 X140.93 Y135.62
G1 X138.39 Y133.09 E1263.54079
G0 X138.78 Y132.77
G1 X141.35 Y135.34 E1263.69181
G0 X141.77 Y135.06
G1 X139.18 Y132.46 E1263.84447
G0 X139.64 Y132.21
G1 X142.20 Y134.77 E1263.99493
G0 X142.66 Y134.53
G1 X140.10 Y131.97 E1264.14580
G0 X140.56 Y131.72
G1 X143.14 Y134.30 E1264.29741
G0 X143.61 Y134.07
G1 X141.02 Y131.47 E1264.44978
G0 X141.48 Y131.23
G1 X144.09 Y133.83 E1264.60289
G0 X144.56 Y133.60
G1 X141.94 Y130.98 E1264.75675
G0 X142.40 Y130.74
G1 X145.08 Y133.41 E1264.91395
G0 X145.60 Y133.23
G1 X142.86 Y130.49 E1265.07514
G0 X143.33 Y130.25
G1 X146.13 Y133.05 E1265.23991
G0 X146.66 Y132.87
G1 X143.87 Y130.09 E1265.40378
G0 X144.42 Y129.92
G1 X147.19 Y132.69 E1265.56685
G0 X147.78 Y132.58
G1 X144.96 Y129.76 E1265.73265
G0 X145.50 Y129.59
G1 X148.37 Y132.46 E1265.90128
G0 X148.96 Y132.34
G1 X146.04 Y129.43 E1266.07267
G0 X146.59 Y129.26
G1 X149.55 Y132.22 E1266.24683
G0 X150.18 Y132.15
G1 X147.13 Y129.10 E1266.42607
G0 X147.67 Y128.93
G1 X150.84 Y132.10 E1266.61239
G0 X151.50 Y132.06
G1 X148.29 Y128.84 E1266.80136
G0 X148.93 Y128.78
G1 X152.17 Y132.02 E1266.99154
G0 X151.89 Y131.38
G1 X173.62 Y153.11 E1268.26912
G0 X173.53 Y154.44
G1 X150.56 Y131.47 E1269.61961
G0 X149.29 Y131.61
G1 X173.39 Y155.71 E1271.03639
G0 X173.15 Y156.89
G1 X148.11 Y131.85 E1272.50877
G0 X146.94 Y132.09
G1 X172.91 Y158.06 E1274.03550
G0 X172.55 Y159.11
G1 X145.88 Y132.45 E1275.60324
G0 X144.57 Y132.55
G1 X172.45 Y160.43 E1277.24200
G0 X171.77 Y161.16
G1 X143.84 Y133.23 E1278.88427
G0 X142.89 Y133.70
G1 X171.30 Y162.11 E1280.55476
G0 X170.83 Y163.06
G1 X141.94 Y134.16 E1282.25349
G0 X141.09 Y134.73
G1 X170.27 Y163.91 E1283.96899
G0 X169.70 Y164.75
G1 X156.20 Y151.25 E1284.76268
G0 X156.39 Y152.85
G1 X169.11 Y165.58 E1285.51068
G0 X168.45 Y166.33
G1 X156.12 Y154.00 E1286.23538
G0 X155.59 Y154.89
G1 X167.79 Y167.08 E1286.95237
G0 X167.08 Y167.79
G1 X154.89 Y155.60 E1287.66930
G0 X154.01 Y156.13
G1 X166.33 Y168.45 E1288.39384
G0 X165.58 Y169.11
G1 X152.86 Y156.39 E1289.14167
G0 X151.26 Y156.21
G1 X164.75 Y169.70 E1289.93504
G0 X163.91 Y170.27
G1 X134.73 Y141.09 E1291.65053
G0 X135.29 Y140.25
G1 X149.02 Y153.97 E1292.45742
G0 X149.02 Y152.55
G1 X135.89 Y139.42 E1293.22956
G0 X136.55 Y138.67
G1 X149.02 Y151.14 E1293.96284
G0 X149.40 Y150.11
G1 X137.21 Y137.92 E1294.67968
G0 X137.92 Y137.21
G1 X150.11 Y149.40 E1295.39653
G0 X150.99 Y148.87
G1 X138.67 Y136.55 E1296.12101
G0 X139.42 Y135.89
G1 X152.14 Y148.61 E1296.86884
G0 X153.74 Y148.79
G1 X140.25 Y135.29 E1297.66241
G0 X134.16 Y141.94
G1 X163.06 Y170.83 E1299.36115
G0 X162.11 Y171.30
G1 X133.70 Y142.89 E1301.03164
G0 X133.23 Y143.84
G1 X161.16 Y171.77 E1302.67390
G0 X160.42 Y172.44
G1 X132.55 Y144.57 E1304.31267
G0 X132.45 Y145.88
G1 X159.11 Y172.55 E1305.88041
G0 X158.06 Y172.91
G1 X132.09 Y146.94 E1307.40714
G0 X131.85 Y148.11
G1 X156.89 Y173.15 E1308.87955
G0 X155.71 Y173.39
G1 X131.61 Y149.29 E1310.29636
